openverse-orca/OrcaGym/log/simulation_log_20250721_141524.csv
timestamp,sim_time,physics_step,control_step,imu_angle_roll,imu_angle_pitch,imu_angle_yaw,imu_angular_velocity_roll,imu_angular_velocity_pitch,imu_angular_velocity_yaw,imu_acc_x,imu_acc_y,imu_acc_z,fl_joint1_pos,fl_joint1_vel,fl_joint1_torque,fl_joint2_pos,fl_joint2_vel,fl_joint2_torque,fl_joint3_pos,fl_joint3_vel,fl_joint3_torque,fr_joint1_pos,fr_joint1_vel,fr_joint1_torque,fr_joint2_pos,fr_joint2_vel,fr_joint2_torque,fr_joint3_pos,fr_joint3_vel,fr_joint3_torque,hl_joint1_pos,hl_joint1_vel,hl_joint1_torque,hl_joint2_pos,hl_joint2_vel,hl_joint2_torque,hl_joint3_pos,hl_joint3_vel,hl_joint3_torque,hr_joint1_pos,hr_joint1_vel,hr_joint1_torque,hr_joint2_pos,hr_joint2_vel,hr_joint2_torque,hr_joint3_pos,hr_joint3_vel,hr_joint3_torque,fl_force_x,fl_force_y,fl_force_z,fr_force_x,fr_force_y,fr_force_z,hl_force_x,hl_force_y,hl_force_z,hr_force_x,hr_force_y,hr_force_z,fl_hip_action,fl_thigh_action,fl_calf_action,fr_hip_action,fr_thigh_action,fr_calf_action,hl_hip_action,hl_thigh_action,hl_calf_action,hr_hip_action,hr_thigh_action,hr_calf_action
2025-07-21 14:15:24.685,0.0,0,0,-0.025299445,-0.002450815,-0.02432596,0.020432727,0.025012432,-0.046423476,2.8029659,0.5179983,0.0,0.0,0.009381045,-0.0031818643,-0.0053296923,-0.002861712,0.0044929986,-0.0021317946,0.0019001099,0.008707826,0.008579744,-0.0065020295,0.0095527135,-0.009581178,0.00271718,0.0013593378,-0.06813099,-0.06437721,-0.06361094,-0.058135916,0.019978622,-0.021694945,-0.07491305,-0.0177071,0.018668693,-0.06727214,0.0,0.0,0.0,0.0,0.0,0.0,0.0,0.0,0.0,0.0,0.0,0.0,0.4074203,2.0,-0.20031366,-2.0,2.0,-0.14900649,1.1465348,1.8256159,0.51118094,0.9737718,1.1080769,1.2693406
2025-07-21 14:15:24.700,0.02,20,1,0.16007383,-0.33359462,0.04165422,-0.04071944,-0.052020244,-0.028173901,0.0,0.0,0.0,0.0,0.011922941,0.043079104,-0.011100264,-0.04395107,0.048696283,0.00055491837,0.0406721,0.059783414,0.019419856,0.020832585,0.04466623,0.02300685,0.027793245,0.24434088,-0.0026100816,-0.10431212,0.24224176,0.022295237,0.14103362,0.32043958,-0.035164412,0.10813178,0.19273321,0.087049805,0.4074203,2.0,-0.20031366,-2.0,2.0,-0.14900649,1.1465348,1.8256159,0.51118094,0.9737718,1.1080769,1.2693406,-1.0686412,-1.2122092,-0.6076292,0.41542223,-1.8027929,-1.0669252,-1.1666274,-0.935705,-1.4624076,-0.3156234,0.038967233,-0.5763233
2025-07-21 14:15:24.718,0.04,40,2,0.10978357,0.22180268,0.057475373,-0.05100361,0.021776086,-0.044175047,0.0,0.0,0.0,-0.001112614,-0.011265207,0.07067672,-0.028215446,-0.050407186,0.061115004,-0.036742106,0.00085213466,0.073257826,-0.032170847,0.0028162466,0.07366164,0.016226385,-0.11079709,0.04348012,-0.111253984,0.026892949,-0.13306005,-0.12679024,-0.15585671,-0.10558828,-0.07228867,-0.09792252,-0.0049189995,-0.042001776,-1.0686412,-1.2122092,-0.6076292,0.41542223,-1.8027929,-1.0669252,-1.1666274,-0.935705,-1.4624076,-0.3156234,0.038967233,-0.5763233,0.06613161,-0.5772014,-0.2195045,-0.08384093,-0.06321495,-0.056757346,0.62796,1.3570364,-0.52528983,-0.5808482,-0.9342696,-0.36035597
2025-07-21 14:15:24.738,0.06,60,3,-0.02576374,0.07261218,-0.028082574,-0.016061679,-0.01639452,0.004767368,0.0,0.0,0.0,-0.002109068,-0.0035967908,0.07032976,-0.040880967,-0.030768905,0.026628062,-0.03610389,0.0041693263,0.08960672,-0.03646372,-0.00049151067,0.04588954,-0.00083158247,-0.0021141104,-0.051330898,-0.05686742,-0.018126218,-0.10626568,-0.031945378,0.050150823,0.1050322,-0.024146728,-0.08823242,-0.08869215,-0.04898188,0.06613161,-0.5772014,-0.2195045,-0.08384093,-0.06321495,-0.056757346,0.62796,1.3570364,-0.52528983,-0.5808482,-0.9342696,-0.36035597,0.57434285,-1.347764,-0.10953177,-0.55382913,0.2970052,-0.7898693,0.8134017,0.70483875,0.3956571,-0.032159954,0.6031752,0.9056363
2025-07-21 14:15:24.758,0.08,80,4,-0.10643767,-0.007950323,0.10449377,-0.030994233,-0.032712977,-0.034385193,0.0,0.0,0.0,-0.001592031,0.009714791,0.04628213,-0.03541768,-0.036786586,0.045877043,-0.045817923,0.02374358,0.12281482,-0.013908564,-0.015790995,0.039130576,0.0121291615,0.027962634,-0.10140109,0.08100962,0.046344493,0.045376316,-0.08736972,0.102031544,0.071767434,-0.003623702,-0.06988205,0.018192038,0.06080277,0.57434285,-1.347764,-0.10953177,-0.55382913,0.2970052,-0.7898693,0.8134017,0.70483875,0.3956571,-0.032159954,0.6031752,0.9056363,0.16677865,-0.8982705,0.5997113,-0.2896546,-1.1004936,-0.43763232,0.48676416,0.92726415,0.07903286,-0.58233714,-0.7588688,0.81637096
2025-07-21 14:15:24.783,0.1,100,5,-0.14143579,0.17431208,-0.025784198,0.026587164,-0.00575834,-0.02697954,0.0,0.0,0.0,-0.0020294865,0.02132107,4.8057795e-05,-0.013141305,-0.04962804,0.01866841,-0.054837212,0.03142887,0.16904044,-0.005786049,-0.029229185,0.011863725,0.020483645,0.036829278,-0.13541882,-0.021258445,0.014484072,-0.10068437,-0.025680307,-0.007242501,0.11426384,0.00837637,-0.030480167,-0.15630285,0.018133331,0.16677865,-0.8982705,0.5997113,-0.2896546,-1.1004936,-0.43763232,0.48676416,0.92726415,0.07903286,-0.58233714,-0.7588688,0.81637096,0.22332315,-0.5726198,-0.38878548,-0.5147281,-0.029951585,-0.88480765,0.31694257,-0.30632237,1.210891,0.13911407,0.90371317,1.50284
2025-07-21 14:15:24.800,0.12000000000000001,120,6,-0.046460155,0.16390498,0.1862982,-0.0073552798,0.014821943,0.015202646,0.0,0.0,0.0,-0.002088913,0.019152906,-0.04367057,-0.0178154,-0.05037967,0.009536653,-0.074920535,0.045711346,0.15177917,0.015415546,-0.021669013,0.011634189,0.05335604,0.03422515,-0.14434041,-0.08063148,-0.069152676,0.0019457879,-0.09466625,0.07976056,-0.11111734,0.1482927,0.07243085,0.11317081,0.025654858,0.22332315,-0.5726198,-0.38878548,-0.5147281,-0.029951585,-0.88480765,0.31694257,-0.30632237,1.210891,0.13911407,0.90371317,1.50284,0.7467623,-0.28990883,0.8596506,-0.5248368,-0.5166326,-0.2999681,0.08644629,0.9705765,0.57247156,-0.6105928,-0.8590556,0.8741505
2025-07-21 14:15:24.818,0.14,140,7,-0.03498705,-0.07534983,-0.03005313,-0.015582826,-0.0068279817,0.020721182,0.0,0.0,0.0,-0.003966587,0.032123797,-0.05553199,-0.0016204854,-0.05782802,-0.007739344,-0.06085891,0.037888955,0.16522251,0.037226558,-0.02739347,-0.00014412463,0.081269406,-0.026775258,0.0074647674,0.039529584,0.059965324,-0.12923525,0.073776804,0.011718439,0.1805486,-0.0073715253,-0.0884951,-0.13764831,0.08813878,0.7467623,-0.28990883,0.8596506,-0.5248368,-0.5166326,-0.2999681,0.08644629,0.9705765,0.57247156,-0.6105928,-0.8590556,0.8741505,0.14686279,-0.7615552,0.0009932462,-0.6812186,-0.0696586,-0.6394843,0.2111446,0.11046053,1.0409092,0.00076997234,0.14824356,1.1149187
2025-07-21 14:15:24.838,0.16,160,8,-0.06053795,0.01990819,0.21345593,0.019169128,0.032485526,0.045671,0.0,0.0,0.0,-0.004329477,0.03857064,-0.08805911,-0.0004948142,-0.059225883,-0.020533042,-0.07428276,0.036145907,0.1508875,0.05282171,-0.02379205,-0.018253297,0.07676112,0.005721535,-0.087542415,-0.05041267,-0.07639059,-0.011106822,-0.05397891,0.009485783,-0.002780588,-0.013262076,-0.04585159,-0.018611528,0.082466304,0.14686279,-0.7615552,0.0009932462,-0.6812186,-0.0696586,-0.6394843,0.2111446,0.11046053,1.0409092,0.00076997234,0.14824356,1.1149187,0.8238259,-0.01561952,1.0348147,-0.47405407,-0.35811478,-0.49291503,0.1059838,0.7418943,0.58087254,-0.6765656,-0.54107773,0.8383539
2025-07-21 14:15:24.860,0.18,180,9,-0.060861092,0.017285762,-0.17897512,0.056622103,0.010797177,0.02324369,0.0,0.0,0.0,-0.006066423,0.054315325,-0.10298172,0.01939229,-0.07081371,-0.049558602,-0.08346643,0.021374824,0.17571495,0.06775463,-0.044752322,-0.03831459,0.09679343,0.08217765,-0.001958457,0.07329693,-0.03208905,-0.085811056,-0.0033446962,0.017334685,0.12690894,0.066472374,-0.09399316,-0.10473151,-0.00038984563,0.8238259,-0.01561952,1.0348147,-0.47405407,-0.35811478,-0.49291503,0.1059838,0.7418943,0.58087254,-0.6765656,-0.54107773,0.8383539,-0.44641387,-0.6792901,0.28391537,-0.62796575,0.1784178,-0.098668516,0.69764906,-0.31575903,0.853123,0.4786179,0.9202818,1.1184427
2025-07-21 14:15:24.883,0.19999999999999998,200,10,0.009842578,0.06078753,0.23979513,0.042733468,0.049623188,-0.041474152,0.0,0.0,0.0,-0.0054570953,0.054988574,-0.11123438,0.026546447,-0.072466835,-0.032342885,-0.06332814,0.055644818,0.14445741,0.08543509,-0.03716024,-0.008893616,0.10640955,-0.0004992312,-0.0798376,0.04259438,0.036483195,0.04171197,0.033566497,0.078529164,-0.12235432,0.08841509,0.078832336,0.17720284,-0.024278378,-0.44641387,-0.6792901,0.28391537,-0.62796575,0.1784178,-0.098668516,0.69764906,-0.31575903,0.853123,0.4786179,0.9202818,1.1184427,0.48725465,0.13870627,0.85454136,-0.19740255,-0.37921628,0.2640536,0.5368935,1.1330398,-0.07623611,-0.86161864,-1.1290933,0.23645124
2025-07-21 14:15:24.900,0.21999999999999997,220,11,-0.04608387,-0.18628201,-0.15271182,-0.0144910095,-0.003005316,-0.02313688,0.0,0.0,0.0,-0.006971895,0.06366586,-0.10750215,0.03996622,-0.07999806,-0.04365872,-0.05067273,0.04710719,0.16441697,0.0695189,-0.04804535,-0.0051044603,0.097353145,0.01109877,0.07728967,-0.0072166235,0.077886656,-0.07624043,0.005969681,-0.006381444,0.103554055,0.009458165,0.0030347127,0.038282685,-0.0711553,0.48725465,0.13870627,0.85454136,-0.19740255,-0.37921628,0.2640536,0.5368935,1.1330398,-0.07623611,-0.86161864,-1.1290933,0.23645124,-0.8462819,-1.4171717,-0.1021732,-0.42619243,-0.30997545,-0.11107391,0.8801759,0.087187566,0.45251545,0.538098,-0.22081603,0.74531746
2025-07-21 14:15:24.919,0.23999999999999996,240,12,-0.050304107,0.026429474,0.13961458,0.043513145,0.0018475213,-0.036221974,0.0,0.0,0.0,-0.0068810475,0.0528296,-0.12161603,0.027117979,-0.06782314,-0.054119226,-0.03756616,0.060093775,0.1492942,0.06127435,-0.049181193,-0.0118456995,0.08924335,-0.071045734,-0.10276167,-0.004445958,-0.021634126,-0.0034488533,0.05070223,0.010923592,-0.06594463,-0.06405498,0.035659622,-0.08126778,-0.005863725,-0.8462819,-1.4171717,-0.1021732,-0.42619243,-0.30997545,-0.11107391,0.8801759,0.087187566,0.45251545,0.538098,-0.22081603,0.74531746,1.0098753,-0.030545358,0.31825766,0.10549275,0.13310878,-0.7095452,0.6255581,0.8823394,0.6702093,-0.7557085,0.7574975,0.8305942
2025-07-21 14:15:24.939,0.25999999999999995,260,13,0.02661003,-0.30436003,0.053368405,-0.029366445,-0.022667456,0.04904624,0.0,0.0,0.0,-0.00724639,0.060202084,-0.11899901,0.029049266,-0.06401083,-0.0438178,-0.051164385,0.08255229,0.18596886,0.068444304,-0.06516921,0.009564056,0.09842531,0.042700466,0.10195779,-0.00408813,0.04492106,-0.018824894,-0.00842821,0.026497584,0.03355394,0.032760404,-0.08188319,0.18933956,0.027180728,1.0098753,-0.030545358,0.31825766,0.10549275,0.13310878,-0.7095452,0.6255581,0.8823394,0.6702093,-0.7557085,0.7574975,0.8305942,-0.41370544,-0.7400409,1.0437677,-0.18441163,-0.73805344,0.2897942,0.082034685,0.3474553,0.22777835,-0.27323717,-1.9763496,0.28334326
2025-07-21 14:15:24.963,0.27999999999999997,280,14,-0.034136802,0.058173463,0.04871497,-0.048432563,0.04014966,0.04062651,0.0,0.0,0.0,-0.008077301,0.056855094,-0.11909485,0.03010061,-0.050903503,-0.07969927,-0.046602387,0.0629531,0.18981746,0.06176629,-0.06501938,0.025176259,0.07631716,0.023401173,-0.08725652,0.10090866,-0.024157668,-0.10506558,-0.009382006,-0.0048670555,-0.07251953,0.057943743,-0.02409461,-0.08080179,0.019341728,-0.41370544,-0.7400409,1.0437677,-0.18441163,-0.73805344,0.2897942,0.082034685,0.3474553,0.22777835,-0.27323717,-1.9763496,0.28334326,0.9699423,0.38636035,0.58522725,-0.55611134,0.3185715,-0.8615265,0.6821061,0.76713383,0.9631277,-0.094494894,-0.07873204,1.12438
2025-07-21 14:15:24.983,0.3,300,15,-0.06648729,-0.071355835,-0.0036569287,0.0025244504,-0.027015999,0.023604516,0.0,0.0,0.0,-0.00906203,0.08023836,-0.12359791,0.040648513,-0.06380835,-0.06118587,-0.06565391,0.0680935,0.20122483,0.08695828,-0.05234962,0.008106103,0.09626878,0.11114358,0.027097957,-0.011956562,0.04618798,0.13408917,-0.018802632,-0.018150274,0.07284327,-0.0009744809,0.042596184,-0.015904512,0.016103428,0.9699423,0.38636035,0.58522725,-0.55611134,0.3185715,-0.8615265,0.6821061,0.76713383,0.9631277,-0.094494894,-0.07873204,1.12438,0.021310885,-0.8130305,0.7339403,-0.3969477,-0.66881436,-0.54946566,0.16395065,0.09632743,0.47410274,-0.30099043,-0.31513095,0.50905263
2025-07-21 14:15:25.000,0.32,320,16,-0.033105742,0.17118965,0.06500164,0.009458072,-0.023856936,-0.018981706,0.0,0.0,0.0,-0.00926271,0.067383364,-0.13479525,0.04664361,-0.070743896,-0.070033416,-0.052250113,0.0705037,0.18511724,0.06920233,-0.06898529,-0.008839444,0.07950553,0.025667591,-0.10153692,-0.028081538,-0.023796288,-0.16835278,-0.036737688,-0.015894027,-0.067594014,-0.03652444,-0.042272642,-0.016819766,-0.014509423,0.021310885,-0.8130305,0.7339403,-0.3969477,-0.66881436,-0.54946566,0.16395065,0.09632743,0.47410274,-0.30099043,-0.31513095,0.50905263,0.5347111,0.12634695,0.76095426,0.02078701,0.896496,-0.14423668,0.41842005,0.66673344,0.6510664,-0.36013192,-0.39063624,0.62934273
2025-07-21 14:15:25.019,0.34,340,17,0.023783663,-0.098298274,-0.10659279,-0.060764726,0.046796836,-0.023444971,0.0,0.0,0.0,-0.00891954,0.08437137,-0.129944,0.0450471,-0.05865145,-0.07534162,-0.062092472,0.05320682,0.18496817,0.08457158,-0.06124577,-0.028734278,0.094362155,-0.034717195,-0.019089445,0.0060308394,0.005182387,0.14037046,-0.06315975,0.007779514,0.034479607,-0.055223145,0.05064555,-0.035794187,-0.041737635,0.5347111,0.12634695,0.76095426,0.02078701,0.896496,-0.14423668,0.41842005,0.66673344,0.6510664,-0.36013192,-0.39063624,0.62934273,-0.26572752,-0.8568606,0.7364447,-0.38360915,-0.03657739,-0.42542887,0.7798149,0.28315797,0.034941964,0.4618588,0.9125094,0.5992394
2025-07-21 14:15:25.039,0.36000000000000004,360,18,0.0928308,-0.008776121,0.118851,-0.004222387,0.055970035,0.016606003,0.0,0.0,0.0,-0.0074770846,0.07360303,-0.14603129,0.050385933,-0.05568126,-0.06073634,-0.060126875,0.07576675,0.18102823,0.07603922,-0.06080813,-0.010495095,0.0763895,0.034427896,-0.07509832,0.081998594,-0.06494881,0.028970197,0.023063354,0.016395176,0.023119496,0.033856988,0.007970106,0.053616166,0.04495834,-0.26572752,-0.8568606,0.7364447,-0.38360915,-0.03657739,-0.42542887,0.7798149,0.28315797,0.034941964,0.4618588,0.9125094,0.5992394,0.37624907,0.30480975,0.9223281,-0.33398807,-0.1653614,-0.29233843,0.58566403,0.62434584,0.05520519,-0.4660808,-0.98055476,0.55924827
2025-07-21 14:15:25.066,0.38000000000000006,380,19,0.060509626,0.018114353,-0.04746906,-0.041438486,0.04972394,-0.009111341,0.0,0.0,0.0,-0.008451758,0.074668705,-0.13986987,0.0699395,-0.052307338,-0.057185274,-0.05144887,0.069074646,0.19646016,0.06892218,-0.06796399,0.0075324844,0.07761073,0.013404421,0.013290668,0.033407904,0.0432824,-0.052359436,0.06401359,0.08139359,-0.029567141,-0.016034318,0.014534969,0.04454571,-0.022404421,0.37624907,0.30480975,0.9223281,-0.33398807,-0.1653614,-0.29233843,0.58566403,0.62434584,0.05520519,-0.4660808,-0.98055476,0.55924827,-0.1721424,-0.37194437,0.5069151,-0.63730824,-0.03602185,0.2722937,1.0250434,0.41526628,0.064528726,0.4415955,-0.9660985,0.23970646
2025-07-21 14:15:25.086,0.4000000000000001,400,20,0.0013451063,0.042509284,0.05670788,-0.002175321,-0.041133054,0.042820465,0.0,0.0,0.0,-0.008707273,0.07768583,-0.13754113,0.05921946,-0.060994305,-0.05114458,-0.045524284,0.08852325,0.1952345,0.043804914,-0.049306247,-0.01603779,0.081273474,0.0029859755,-0.034056004,0.010680347,-0.03212343,0.056598257,-0.03013206,0.000560542,-0.07211791,0.03963164,0.01142292,-0.013158195,-0.020803902,-0.1721424,-0.37194437,0.5069151,-0.63730824,-0.03602185,0.2722937,1.0250434,0.41526628,0.064528726,0.4415955,-0.9660985,0.23970646,0.2806996,-0.4191907,0.5495186,-0.37366977,-0.2710436,-0.4517129,1.0175722,0.40758014,0.60741085,-0.039372593,-0.042535987,0.3444962
2025-07-21 14:15:25.104,0.4200000000000001,420,21,-0.008938896,-0.13775665,-0.032081466,-0.053649925,0.020455282,0.04796423,0.0,0.0,0.0,-0.008672128,0.07815587,-0.14870057,0.05869971,-0.07001216,-0.063844524,-0.04274552,0.1136409,0.19684553,0.05781758,-0.050320886,-0.016091358,0.06280811,0.00927746,0.034357168,0.06574584,0.040672638,0.009894839,-0.0838241,-0.037930407,0.025843013,0.062367514,0.013859408,-0.071713924,0.048526756,0.2806996,-0.4191907,0.5495186,-0.37366977,-0.2710436,-0.4517129,1.0175722,0.40758014,0.60741085,-0.039372593,-0.042535987,0.3444962,0.03691413,-0.64927036,0.3258156,-0.39157906,-0.13292907,-0.61497885,0.45241863,0.32419875,1.1955345,0.34761444,0.48432064,0.78700507
2025-07-21 14:15:25.123,0.4400000000000001,440,22,-0.0068159504,-0.1319426,0.15952456,-0.037027135,0.006529844,-0.022596221,0.0,0.0,0.0,-0.008588606,0.07292977,-0.16996473,0.06747873,-0.054878403,-0.05956246,-0.059625957,0.100740135,0.185217,0.07540008,-0.048041333,0.0048207017,0.060345273,-0.013242795,0.026171135,0.05701601,0.038967393,0.0049463427,0.0077839913,-0.0102106845,0.012646597,0.11200033,0.062601455,0.1350311,0.012571571,0.03691413,-0.64927036,0.3258156,-0.39157906,-0.13292907,-0.61497885,0.45241863,0.32419875,1.1955345,0.34761444,0.48432064,0.78700507,0.35564274,0.036264475,0.8362501,-0.43064597,-0.44061938,-0.0084117055,0.050323464,0.29958674,0.22849551,-0.561425,-1.4357772,0.4112905
2025-07-21 14:15:25.149,0.46000000000000013,460,23,0.039581813,-0.015501539,-0.07605797,-0.018939866,0.025818394,-0.002935252,0.0,0.0,0.0,-0.010836644,0.06258906,-0.15998788,0.06359481,-0.056461755,-0.07609549,-0.053192846,0.0803344,0.17552273,0.08330342,-0.053713534,0.008782117,0.07176958,0.017954445,0.035381127,-0.027137375,0.006644402,-0.015450583,-0.043314807,-0.029056173,-0.055438887,-0.03643594,-0.07824138,-0.04503332,0.014127238,0.35564274,0.036264475,0.8362501,-0.43064597,-0.44061938,-0.0084117055,0.050323464,0.29958674,0.22849551,-0.561425,-1.4357772,0.4112905,-0.007842209,-0.6358999,0.35913515,-0.64453447,-0.015002331,-0.21041834,1.0225097,0.4654129,0.3423452,0.5987272,-0.021569107,0.7930972
2025-07-21 14:15:25.167,0.48000000000000015,480,24,-0.06450718,-0.07589054,0.17667261,-0.041478787,0.02679822,-0.016194817,0.0,0.0,0.0,-0.011680996,0.079239696,-0.17260236,0.05017626,-0.07103484,-0.06996799,-0.037051644,0.09875599,0.17853385,0.06865091,-0.04942542,0.0056937616,0.06546871,0.06745139,0.024353165,-0.007666184,-0.060175713,0.02701448,0.0632849,0.030964212,-0.026019953,0.030301213,0.117029406,0.031733032,-0.01358746,-0.007842209,-0.6358999,0.35913515,-0.64453447,-0.015002331,-0.21041834,1.0225097,0.4654129,0.3423452,0.5987272,-0.021569107,0.7930972,0.49852505,0.031072553,0.56202245,-0.22051482,-0.103250004,-0.32248124,0.5213534,0.6267017,0.18677697,-0.7503414,-1.0119703,0.36759293
2025-07-21 14:15:25.183,0.5000000000000001,500,25,-0.02195066,-0.062878594,-0.10713713,-0.030255884,-0.051015683,-0.037863314,0.0,0.0,0.0,-0.013539715,0.0882421,-0.16863628,0.059909936,-0.06278134,-0.05713611,-0.05197587,0.10321152,0.18218079,0.07290339,-0.06644179,-0.017966807,0.070752285,-0.015662376,-0.0034497988,-0.011815419,0.02339284,0.028421054,-0.060032696,0.024577806,0.106672615,0.019808639,-0.09768229,-0.12580292,0.032485664,0.49852505,0.031072553,0.56202245,-0.22051482,-0.103250004,-0.32248124,0.5213534,0.6267017,0.18677697,-0.7503414,-1.0119703,0.36759293,-0.14469014,-0.68248737,0.51441896,-0.6947266,0.19737081,-0.909485,0.6325751,-0.047175013,0.80180585,0.79058206,0.8590744,1.57088
2025-07-21 14:15:25.203,0.5200000000000001,520,26,0.014793496,0.048730444,0.26432148,-0.06060309,-0.022597995,0.0410514,0.0,0.0,0.0,-0.0139813395,0.07057388,-0.17605577,0.06025506,-0.06491783,-0.03256857,-0.06971275,0.09978645,0.16112542,0.07222303,-0.06571101,-0.036005754,0.0756419,0.022603786,-0.078035675,0.008584884,-0.091212675,0.0031624448,-0.09072091,0.06275603,-0.15244396,0.09092564,0.051225886,-0.013656552,0.09089213,-0.14469014,-0.68248737,0.51441896,-0.6947266,0.19737081,-0.909485,0.6325751,-0.047175013,0.80180585,0.79058206,0.8590744,1.57088,0.683173,0.38142896,0.9222263,-0.39064738,-0.0028973278,-0.23631155,0.11785222,0.5502699,0.070728384,-0.88478327,-0.8563387,1.1815888
2025-07-21 14:15:25.233,0.5400000000000001,540,27,-0.008684147,0.034011412,-0.07507716,-0.04224004,0.027303554,-0.048245788,0.0,0.0,0.0,-0.016144684,0.08521366,-0.18808606,0.05583977,-0.0813393,-0.040643454,-0.053607155,0.0968723,0.1674744,0.06503848,-0.080462135,-0.03425112,0.093264684,-0.003224697,-0.010586669,0.03196898,-0.05667709,-0.05236858,0.042627506,-0.015875848,0.0434335,0.036305297,-0.10722438,-0.08261706,0.08447323,0.683173,0.38142896,0.9222263,-0.39064738,-0.0028973278,-0.23631155,0.11785222,0.5502699,0.070728384,-0.88478327,-0.8563387,1.1815888,-0.2891771,-0.42179334,0.6720655,-0.7730199,0.26105803,-0.49368644,0.5466612,0.3326814,0.50735706,0.62198424,-0.2692993,1.0530734
2025-07-21 14:15:25.252,0.5600000000000002,560,28,-0.03590958,-0.007994366,0.03746991,-0.029171785,0.042762358,0.020572513,0.0,0.0,0.0,-0.01605205,0.08055908,-0.19294699,0.06715311,-0.075502455,-0.008908772,-0.062129825,0.086885005,0.16709173,0.05513663,-0.076695845,-0.04821988,0.10991837,-0.02444154,0.05262962,-0.06710141,-0.08350033,0.040982798,0.06613907,0.0018387735,-0.05540577,0.05775389,0.06214896,0.047690812,-0.042011205,-0.2891771,-0.42179334,0.6720655,-0.7730199,0.26105803,-0.49368644,0.5466612,0.3326814,0.50735706,0.62198424,-0.2692993,1.0530734,-0.254796,-0.66111237,0.2597787,-0.41484258,-0.84721375,0.094824255,0.40661192,-0.14294767,0.3453106,-0.22968775,-0.27995145,0.19106486
2025-07-21 14:15:25.273,0.5800000000000002,580,29,0.006647426,0.09557381,0.11769187,-0.05132386,0.0050613913,0.025939466,0.0,0.0,0.0,-0.016113514,0.07068551,-0.19094196,0.045743316,-0.074128725,-0.037395466,-0.055804763,0.077235624,0.13548134,0.07254394,-0.08753875,-0.068313405,0.09368369,-0.05326745,-0.07676296,-0.07588633,0.006219846,-0.20045148,0.03514869,0.049007844,-0.085199185,-0.032963272,-0.046770904,0.030418847,0.009798288,-0.254796,-0.66111237,0.2597787,-0.41484258,-0.84721375,0.094824255,0.40661192,-0.14294767,0.3453106,-0.22968775,-0.27995145,0.19106486,0.86201483,0.3183692,0.6667146,-0.059582584,0.773731,-0.10039684,0.6918493,0.9980599,0.31056073,-0.22353736,-0.59206027,0.41136724
2025-07-21 14:15:25.298,0.6000000000000002,600,30,-0.057461105,-0.19747782,-0.106653094,-0.07502192,-0.02041579,0.0017350983,0.0,0.0,0.0,-0.017845077,0.07652097,-0.20122342,0.056763034,-0.06988513,-0.06038867,-0.044429816,0.098464444,0.15744208,0.06215372,-0.08162514,-0.085280955,0.08819357,-0.013512988,-0.023729097,0.0106272595,0.02746903,0.025043676,-0.03629224,-0.027208187,0.099103846,0.031088548,-0.01063432,-0.074133396,0.054489344,0.86201483,0.3183692,0.6667146,-0.059582584,0.773731,-0.10039684,0.6918493,0.9980599,0.31056073,-0.22353736,-0.59206027,0.41136724,-0.114127114,-0.6946287,0.6556505,-0.61115146,0.2554739,-0.5330173,0.30261016,0.2005803,0.4223594,0.4256956,0.83650225,1.0256926
2025-07-21 14:15:25.317,0.6200000000000002,620,31,0.020822672,-0.05136407,0.22125751,-0.02786629,-0.03321694,0.017733471,0.0,0.0,0.0,-0.017086064,0.081929065,-0.20615084,0.0644447,-0.07319214,-0.021901676,-0.046080973,0.08311898,0.14380555,0.060486495,-0.06441382,-0.06547407,0.10198501,0.018673876,-0.09158268,0.07424551,-0.02842087,0.03909863,0.05954981,-0.06192597,-0.041548252,0.015050311,0.10462771,0.12541781,0.057573125,-0.114127114,-0.6946287,0.6556505,-0.61115146,0.2554739,-0.5330173,0.30261016,0.2005803,0.4223594,0.4256956,0.83650225,1.0256926,0.35225514,0.55528885,1.2873709,-0.4365456,-0.207341,-0.2535717,0.18434657,0.47989675,-8.143485e-06,-0.9040205,-1.5684304,0.74747366
2025-07-21 14:15:25.334,0.6400000000000002,640,32,0.049409725,-0.057001278,-0.11022877,-0.0050689154,-0.009613559,-0.0048938217,0.0,0.0,0.0,-0.01836364,0.08679676,-0.19785154,0.07285985,-0.065064944,-0.04156249,-0.050218437,0.074941084,0.15073779,0.04429035,-0.07499453,-0.06992125,0.10303236,-0.033546414,0.07373451,0.029691925,0.046284698,0.0032808317,0.06435981,0.008503609,0.066272125,-0.053662214,-0.017670088,-0.063307114,-0.03885802,0.35225514,0.55528885,1.2873709,-0.4365456,-0.207341,-0.2535717,0.18434657,0.47989675,-8.143485e-06,-0.9040205,-1.5684304,0.74747366,-0.06511207,-0.80503726,0.28654912,-0.75498134,-0.2247199,-0.37302735,0.5502412,-0.038699172,0.38903096,0.45787397,0.34803995,0.77735853
2025-07-21 14:15:25.353,0.6600000000000003,660,33,-0.06426643,0.092568375,0.22752653,0.003223291,-0.03747122,0.017620418,0.0,0.0,0.0,-0.018359061,0.07007343,-0.22260202,0.0583634,-0.082547866,-0.049649253,-0.040895805,0.06765623,0.14018661,0.052322462,-0.074492685,-0.050706875,0.08867791,-0.0067193466,-0.0800393,0.023665683,0.04488395,-0.03136061,0.05602306,-0.02143479,-0.08776232,0.022476053,0.10546573,0.10145984,-0.03476084,-0.06511207,-0.80503726,0.28654912,-0.75498134,-0.2247199,-0.37302735,0.5502412,-0.038699172,0.38903096,0.45787397,0.34803995,0.77735853,0.57598686,0.44554102,0.87331915,-0.1632414,0.354141,-0.28578132,0.34607497,0.8190536,0.27054426,-0.9037938,-1.1849885,0.584378
2025-07-21 14:15:25.372,0.6800000000000003,680,34,-0.012172646,0.030346692,-0.022696357,-0.072684236,-0.005084043,-0.04078048,0.0,0.0,0.0,-0.020956859,0.076933935,-0.229658,0.07525154,-0.0634387,-0.008029442,-0.050596405,0.06640437,0.17101532,0.04339014,-0.086867236,-0.058484424,0.08871196,0.041872952,-0.013338814,0.043226887,0.032558776,0.021023206,-0.053253435,-0.019805556,0.06076937,0.01560994,-0.036796607,-0.070826285,0.048379526,0.57598686,0.44554102,0.87331915,-0.1632414,0.354141,-0.28578132,0.34607497,0.8190536,0.27054426,-0.9037938,-1.1849885,0.584378,0.27633187,-0.42423487,0.6946457,-0.7754532,0.009985128,-0.92459184,0.18620804,0.40171894,0.38534212,0.37443918,0.1129432,1.1122754
2025-07-21 14:15:25.399,0.7000000000000003,700,35,-0.023815177,-0.15183765,0.025305223,-0.03927215,0.009424675,-0.042266175,0.0,0.0,0.0,-0.02188883,0.0890455,-0.2219393,0.06773833,-0.07379686,-0.016288579,-0.0562557,0.055980474,0.16182321,0.057004936,-0.07615224,-0.041457366,0.10231765,0.04803165,-0.016295012,0.017366126,-0.0679255,-0.027636498,-0.07323596,-0.06741878,-0.039561905,0.06666862,-0.00049672474,-0.020202497,-0.028806008,0.27633187,-0.42423487,0.6946457,-0.7754532,0.009985128,-0.92459184,0.18620804,0.40171894,0.38534212,0.37443918,0.1129432,1.1122754,0.20618422,-0.20850664,0.6773172,-0.48151478,-0.1972776,-0.3943063,0.4112456,0.51118886,0.47967422,-0.40126342,-0.5918323,0.62985396
2025-07-21 14:15:25.417,0.7200000000000003,720,36,0.021592202,-0.102249585,-0.08572059,-0.03500092,0.026018882,-0.0021416282,0.0,0.0,0.0,-0.022420231,0.07634196,-0.19636568,0.061568774,-0.0888417,-0.015125415,-0.05724329,0.060713243,0.18459173,0.05892453,-0.08754661,-0.052581392,0.108608715,0.055499174,0.025500404,0.035468988,0.0066256737,0.0037045544,-0.011561243,0.04784905,0.0033921318,0.012711585,-0.06642468,-0.067710854,-0.007940506,0.20618422,-0.20850664,0.6773172,-0.48151478,-0.1972776,-0.3943063,0.4112456,0.51118886,0.47967422,-0.40126342,-0.5918323,0.62985396,-0.036553036,-0.60430956,0.3971313,-0.48903808,-0.22177769,-0.4277511,0.63870513,0.19376001,0.78337634,0.48796535,0.6877777,0.83004653
2025-07-21 14:15:25.433,0.7400000000000003,740,37,0.0025756937,-0.00089980656,0.23571607,0.007912232,-0.047400516,0.012363264,0.0,0.0,0.0,-0.021704081,0.079667516,-0.19875908,0.05543505,-0.08118718,-0.029606437,-0.07114198,0.07223375,0.17123319,0.058976248,-0.07148581,-0.030009605,0.10048343,0.04819874,-0.033881627,0.0007245401,0.0021120694,-0.10178756,-0.053137038,0.012918344,0.021908456,0.0678025,0.11802996,0.11863249,0.031478595,-0.036553036,-0.60430956,0.3971313,-0.48903808,-0.22177769,-0.4277511,0.63870513,0.19376001,0.78337634,0.48796535,0.6877777,0.83004653,0.59610826,0.4977935,0.92773676,-0.1815778,0.25335693,-0.22984177,0.13553137,0.14421502,0.14369157,-0.8566281,-1.6936867,0.85162866
2025-07-21 14:15:25.453,0.7600000000000003,760,38,0.03965557,0.13326998,-0.069208525,-0.029633967,0.020212214,0.013524226,0.0,0.0,0.0,-0.023670852,0.076663904,-0.19401373,0.07440368,-0.08196151,-0.023541301,-0.05738905,0.06644144,0.14014941,0.056054283,-0.07059744,-0.01564322,0.11052971,0.0945739,0.015779413,0.031532686,0.052597746,0.03755665,0.059652016,-0.065403,0.011717632,-0.057298467,-0.036011785,-0.10508904,-0.021913016,0.59610826,0.4977935,0.92773676,-0.1815778,0.25335693,-0.22984177,0.13553137,0.14421502,0.14369157,-0.8566281,-1.6936867,0.85162866,0.11442287,-0.5446955,0.6504334,-0.7276193,-0.14991774,-0.37103117,0.7247141,0.48601055,0.2515275,0.55669355,0.25968584,1.076075
2025-07-21 14:15:25.473,0.7800000000000004,780,39,0.027273918,0.038131025,0.17250068,0.019419447,0.022922434,0.024522835,0.0,0.0,0.0,-0.02432664,0.08610515,-0.19127797,0.070748754,-0.08469461,-0.02098898,-0.05484927,0.07841836,0.1519372,0.046910357,-0.07602961,5.8555634e-05,0.11521153,-0.025847694,0.06128233,-0.011026853,-0.034513336,-0.045205075,-0.06658811,0.06289652,0.07295247,-0.07299036,0.018248217,-0.009423912,0.03679869,0.11442287,-0.5446955,0.6504334,-0.7276193,-0.14991774,-0.37103117,0.7247141,0.48601055,0.2515275,0.55669355,0.25968584,1.076075,0.6195126,-0.09891355,0.59588015,-0.4807721,-0.29153985,-0.46894646,0.43093756,0.55375427,-0.30711338,-0.8472999,-1.3807201,0.7438415
2025-07-21 14:15:25.499,0.8000000000000004,800,40,0.063244365,0.124992214,-0.15683515,-0.013765448,0.042636372,0.02941168,0.0,0.0,0.0,-0.025495479,0.089164965,-0.17830686,0.061642576,-0.08366311,-0.04141168,-0.06261707,0.0714577,0.17686245,0.04454845,-0.08752934,-0.012654617,0.101297595,-0.018042177,0.1146144,-0.049768712,-0.062362596,-0.040915243,-0.016266337,0.06464299,0.07848822,-0.009083636,-0.07992197,-0.035864204,0.02653122,0.6195126,-0.09891355,0.59588015,-0.4807721,-0.29153985,-0.46894646,0.43093756,0.55375427,-0.30711338,-0.8472999,-1.3807201,0.7438415,-0.56342846,-1.0604439,0.07845029,-0.64346385,-0.29440558,-0.042873263,0.9447854,-0.1965411,0.612528,0.84555024,0.06266865,0.49924833
2025-07-21 14:15:25.516,0.8200000000000004,820,41,-0.07302004,0.17834768,0.21599667,0.02529808,0.016988287,0.038483758,0.0,0.0,0.0,-0.025103036,0.08409624,-0.1975317,0.04960848,-0.09284555,-0.05141784,-0.0634979,0.08498592,0.14070901,0.05739548,-0.05933162,-0.011901576,0.10081238,-0.08668875,-0.014751923,-0.045809817,-0.08302195,0.012522043,-0.04013756,-0.0029988282,-0.060222477,-0.038010016,0.12730525,-0.054968975,-0.060091946,-0.56342846,-1.0604439,0.07845029,-0.64346385,-0.29440558,-0.042873263,0.9447854,-0.1965411,0.612528,0.84555024,0.06266865,0.49924833,1.0410464,0.09705055,0.35748476,0.043130763,-0.06660583,-0.40678033,0.510694,0.5260386,0.42647746,-0.9092761,0.35741186,0.51851785
2025-07-21 14:15:25.533,0.8400000000000004,840,42,-0.013701164,-0.12622066,-0.016771734,-0.026504971,-0.035353538,-0.029795952,0.0,0.0,0.0,-0.026328987,0.09395746,-0.18321852,0.05514586,-0.07827071,-0.049651828,-0.053715978,0.09431672,0.135806,0.051948506,-0.07338621,0.02681815,0.09939796,0.12466389,0.082772575,-0.08057446,0.07047415,-0.029347949,0.059702143,-0.0017381292,0.09853472,-0.037801802,-0.052646387,0.076657064,0.0604761,1.0410464,0.09705055,0.35748476,0.043130763,-0.06660583,-0.40678033,0.510694,0.5260386,0.42647746,-0.9092761,0.35741186,0.51851785,-0.24373783,-0.3469875,0.7326178,-0.23769341,-0.2059214,-0.030775666,0.37995782,0.1739856,0.24323049,0.057336375,-1.2234963,0.43755555
2025-07-21 14:15:25.553,0.8600000000000004,860,43,0.033869322,0.04616944,-0.029721823,-0.009108517,-0.015790282,0.022357019,0.0,0.0,0.0,-0.026974011,0.09395822,-0.16333394,0.05850602,-0.07365755,-0.06034264,-0.051801752,0.07293038,0.12332993,0.052146282,-0.07286763,0.021846065,0.09829656,0.012977995,0.052153405,0.05869525,0.013171423,-0.0022286063,0.064866394,-0.055408824,-0.10096211,-0.032317147,0.049850184,0.007695334,0.021480957,-0.24373783,-0.3469875,0.7326178,-0.23769341,-0.2059214,-0.030775666,0.37995782,0.1739856,0.24323049,0.057336375,-1.2234963,0.43755555,0.031535853,-0.54897755,0.42892972,-0.19192265,-0.072238736,0.10363409,1.0996312,0.7791066,0.18544593,-0.048337996,-0.6267002,0.19426066
2025-07-21 14:15:25.573,0.8800000000000004,880,44,-0.013442662,0.07533277,-0.01970651,0.026202919,-0.024850992,-0.036427923,0.0,0.0,0.0,-0.027037488,0.08380118,-0.17853692,0.044566356,-0.06407747,-0.060625765,-0.045849547,0.09855657,0.16043633,0.04205944,-0.073791966,0.0009169854,0.07577755,-0.01425257,0.018848533,-0.05557695,0.006906271,-0.068985485,0.03580024,0.060489748,0.11994912,0.044580646,0.07693883,-0.09309902,-0.079830915,0.031535853,-0.54897755,0.42892972,-0.19192265,-0.072238736,0.10363409,1.0996312,0.7791066,0.18544593,-0.048337996,-0.6267002,0.19426066,0.36916333,-0.38397786,0.16280054,-0.2836846,0.62422496,-0.5801326,0.8932279,-0.11805194,0.77634656,0.16012219,0.43973455,1.1236024
2025-07-21 14:15:25.599,0.9000000000000005,900,45,-0.065979384,-0.24016061,0.20614299,0.02388642,0.032004014,0.012667573,0.0,0.0,0.0,-0.027374048,0.0948898,-0.18149242,0.037265554,-0.058749747,-0.02436445,-0.06559733,0.11674196,0.14203504,0.06836384,-0.05634877,0.021186953,0.09504866,-0.060263034,0.06754735,-0.06227135,0.02407971,0.20133518,0.029486258,-0.031262375,-0.080277316,-0.0051932354,-0.016628923,0.124235265,-0.015156308,0.36916333,-0.38397786,0.16280054,-0.2836846,0.62422496,-0.5801326,0.8932279,-0.11805194,0.77634656,0.16012219,0.43973455,1.1236024,0.26411954,-0.38947856,0.92828983,-0.52566046,-0.9614508,-0.31726164,0.23654988,0.9328887,-0.13332823,-0.60929096,-1.5512908,0.14645573
2025-07-21 14:15:25.617,0.9200000000000005,920,46,0.0062119025,-0.09057827,-0.06004666,0.011806143,0.0373969,-0.030874196,0.0,0.0,0.0,-0.029559756,0.0854202,-0.18175435,0.048232224,-0.07828565,-0.014956383,-0.056005534,0.10333358,0.15732986,0.04134622,-0.07820467,0.017284643,0.082024395,0.018158698,0.042782802,0.07631357,-0.026803995,-0.12308313,-0.05795744,-0.0240909,0.07875418,-0.0410991,0.01037788,-0.048450675,-0.0064048585,0.26411954,-0.38947856,0.92828983,-0.52566046,-0.9614508,-0.31726164,0.23654988,0.9328887,-0.13332823,-0.60929096,-1.5512908,0.14645573,0.15042771,-0.39161146,0.15799683,-0.5799792,0.021292219,-0.44624078,0.7062816,0.35486242,0.45393112,0.13153213,-0.33627388,1.1114186
2025-07-21 14:15:25.633,0.9400000000000005,940,47,-0.095897675,0.029890925,0.056434143,-0.00041342186,0.010313756,-0.046995927,0.0,0.0,0.0,-0.029932156,0.094551526,-0.18197772,0.050354652,-0.08127347,-0.01739519,-0.06647534,0.09695677,0.16173561,0.057941303,-0.06753647,0.0005703315,0.08724287,-0.042115774,-0.032629643,-0.039337162,0.019404583,0.07773498,0.052606706,0.029815048,-0.078586325,0.039859783,0.07654059,0.013578636,0.09109007,0.15042771,-0.39161146,0.15799683,-0.5799792,0.021292219,-0.44624078,0.7062816,0.35486242,0.45393112,0.13153213,-0.33627388,1.1114186,0.15476792,-0.14349866,0.84847796,-0.39044645,-0.42771298,-0.24535853,0.77575344,0.9674658,0.36649188,-0.07918796,-0.7002455,0.40981874
2025-07-21 14:15:25.653,0.9600000000000005,960,48,-0.007881626,0.002922449,-0.16977698,-0.01178579,-0.011528001,-0.038512047,0.0,0.0,0.0,-0.029906996,0.09762718,-0.17885037,0.034669496,-0.06387821,-0.04332647,-0.05750564,0.11007459,0.19417422,0.042156354,-0.07310992,-0.02777839,0.09042674,-0.00038371392,-0.014892582,0.009949452,-0.029791832,-0.008522466,0.07776261,0.01600632,0.032404087,0.03745514,0.0011391258,-0.08443118,0.025705269,0.15476792,-0.14349866,0.84847796,-0.39044645,-0.42771298,-0.24535853,0.77575344,0.9674658,0.36649188,-0.07918796,-0.7002455,0.40981874,-0.60222876,-0.6918996,0.38189694,-0.37998614,0.19496448,-0.107016385,0.9703544,-0.02658423,1.0899277,0.8372564,0.95622015,0.9924326
2025-07-21 14:15:25.673,0.9800000000000005,980,49,0.066469245,-0.0069345287,0.18768585,-0.06795217,-0.017633323,0.035456482,0.0,0.0,0.0,-0.027718361,0.08013557,-0.17002296,0.040607087,-0.070418224,-0.020768354,-0.05442006,0.12361695,0.18136387,0.081917636,-0.054833703,-0.011200798,0.083315685,-0.024366539,0.011490641,-0.024218492,-0.0637558,0.033818055,0.042747855,0.013803093,-0.08536099,0.060415782,0.10563611,0.08115902,-0.005420723,-0.60222876,-0.6918996,0.38189694,-0.37998614,0.19496448,-0.107016385,0.9703544,-0.02658423,1.0899277,0.8372564,0.95622015,0.9924326,0.5302246,-0.051001552,0.37312618,-0.23644386,-0.33529252,0.16153249,0.2715078,0.4308923,-0.07676903,-0.9527194,-0.5580785,0.23494488
2025-07-21 14:15:25.700,1.0000000000000004,1000,50,-0.029204719,0.03660847,-0.08093985,-0.06605617,-0.045161825,0.03186664,0.0,0.0,0.0,-0.028349478,0.07605814,-0.16039455,0.04928193,-0.07031031,-0.037956897,-0.039854396,0.10192493,0.18101616,0.05837948,-0.061760563,-0.023313433,0.0845388,0.0053019747,0.014283353,-0.029974813,0.064409815,-0.07969591,-0.014594464,-0.057791233,-0.008779979,0.0060008415,-0.11571171,-0.067604296,0.0040100603,0.5302246,-0.051001552,0.37312618,-0.23644386,-0.33529252,0.16153249,0.2715078,0.4308923,-0.07676903,-0.9527194,-0.5580785,0.23494488,-0.16866802,-0.7777952,0.36624995,-0.43793055,0.47978052,-0.50811404,0.7785721,0.411737,0.72200006,0.5515202,0.03986838,0.8055052
2025-07-21 14:15:25.717,1.0200000000000005,1020,51,0.004252022,0.01365252,0.14782746,-0.084717825,-0.04373623,-0.03128285,0.0,0.0,0.0,-0.02792852,0.07232491,-0.18245836,0.03476608,-0.05874688,-0.019476566,-0.04130685,0.11031952,0.1737463,0.07017397,-0.05095348,-0.012748927,0.07498105,0.034102123,0.0048006284,-0.04235298,-0.05868621,0.0681489,-0.04732541,-0.018779911,0.002670455,0.011703051,0.08468904,0.018298835,0.0024320595,-0.16866802,-0.7777952,0.36624995,-0.43793055,0.47978052,-0.50811404,0.7785721,0.411737,0.72200006,0.5515202,0.03986838,0.8055052,0.51138264,-0.08799797,0.50607353,-0.32608643,-0.10001937,-0.4475723,0.0463048,0.40923318,0.032006346,-0.6911102,-0.66964644,0.22299337
2025-07-21 14:15:25.734,1.0400000000000005,1040,52,0.012087145,0.02039995,-0.0987768,-0.075299405,-0.027970184,0.017770356,0.0,0.0,0.0,-0.02901389,0.07860948,-0.1834047,0.03727935,-0.07166728,-0.0069874125,-0.046675537,0.08753835,0.17697509,0.04889232,-0.06414346,-0.04029256,0.0695615,0.05198363,0.0024164629,-0.08332621,0.013618148,-0.05867091,0.046867892,-0.030935608,-0.039403725,-0.07856094,0.034493044,0.0045150327,-0.08808751,0.51138264,-0.08799797,0.50607353,-0.32608643,-0.10001937,-0.4475723,0.0463048,0.40923318,0.032006346,-0.6911102,-0.66964644,0.22299337,-0.41026416,-0.8265542,0.45463768,-0.2961483,0.23761247,0.044795334,0.83903223,0.3572184,0.41695026,0.5527157,-0.17265804,0.09279931
2025-07-21 14:15:25.754,1.0600000000000005,1060,53,-0.12680109,-0.022297032,0.20945857,-0.07549506,0.030805072,-0.017464561,0.0,0.0,0.0,-0.02943789,0.08116906,-0.19153629,0.048559707,-0.05545241,-0.006879356,-0.034980632,0.091176845,0.17289443,0.05626708,-0.07398319,-0.038122468,0.073878594,0.01304342,-0.12501277,-0.005829577,-0.046803877,0.09512285,0.03277977,0.048710387,-0.06430556,0.077672064,0.059697267,0.022761652,-0.09272602,-0.41026416,-0.8265542,0.45463768,-0.2961483,0.23761247,0.044795334,0.83903223,0.3572184,0.41695026,0.5527157,-0.17265804,0.09279931,1.0271747,0.91410625,1.1227883,-0.46500874,-0.26119992,-0.670907,0.2502707,0.7746378,0.29123506,-0.7094302,-0.35794395,0.58057284
2025-07-21 14:15:25.774,1.0800000000000005,1080,54,0.005342946,-0.06722838,-0.085061744,-0.08366192,0.037499405,-0.01383536,0.0,0.0,0.0,-0.031208372,0.08943691,-0.18999021,0.054558862,-0.057528533,-0.007254476,-0.05990194,0.084141344,0.19503726,0.053082507,-0.08189491,-0.06450403,0.06293979,0.080980666,0.068985455,0.09524076,-0.014124988,-0.05286576,-0.05643647,0.0062126876,0.055039003,0.06020275,-0.0944111,-0.06994692,-0.014908929,1.0271747,0.91410625,1.1227883,-0.46500874,-0.26119992,-0.670907,0.2502707,0.7746378,0.29123506,-0.7094302,-0.35794395,0.58057284,0.008805145,-0.64380383,0.5014196,-0.6946403,-0.26812464,-0.23556542,0.09920228,-0.025071226,0.47765705,-0.09930098,-0.39989412,0.49356276
2025-07-21 14:15:25.800,1.1000000000000005,1100,55,-0.001765937,0.10987238,0.1052053,-0.07498809,-0.03015706,0.04996933,0.0,0.0,0.0,-0.03136605,0.09438479,-0.20538247,0.061140675,-0.06784329,-0.038673535,-0.052283686,0.08719385,0.17080313,0.053489637,-0.0802118,-0.07210121,0.07266188,-0.037525598,-0.116492055,0.05543529,-0.07312374,-0.049210828,-0.04574607,-0.034832746,-0.045953963,-0.041421738,0.058859285,-0.002813299,-0.012929348,0.008805145,-0.64380383,0.5014196,-0.6946403,-0.26812464,-0.23556542,0.09920228,-0.025071226,0.47765705,-0.09930098,-0.39989412,0.49356276,0.55516183,0.37126195,1.2065439,-0.35205302,0.44174808,-0.48668104,0.17908779,0.4711109,0.6192701,-0.18013191,-0.38129655,0.72726166
2025-07-21 14:15:25.817,1.1200000000000006,1120,56,0.007456719,-0.051188868,-0.07140225,-0.05878467,-0.0006883779,0.045872808,0.0,0.0,0.0,-0.031875327,0.08554122,-0.20288874,0.06748909,-0.07299209,0.0037833077,-0.054917887,0.075720936,0.16608514,0.057917926,-0.08536016,-0.09401733,0.06431646,0.06106472,0.004155897,0.088427626,-0.05081425,0.04836932,0.0030158963,0.0026261266,-0.06259188,0.07518985,0.014432364,-0.08424663,0.01113969,0.55516183,0.37126195,1.2065439,-0.35205302,0.44174808,-0.48668104,0.17908779,0.4711109,0.6192701,-0.18013191,-0.38129655,0.72726166,-0.0015885197,-0.51330316,0.8278675,-0.67979246,-0.2953309,-0.22059423,0.25591004,0.6617761,0.35421485,0.13385546,0.49883518,0.47603452
2025-07-21 14:15:25.834,1.1400000000000006,1140,57,0.14173678,-0.008584326,0.048396233,-0.050450463,0.012706089,0.018197289,0.0,0.0,0.0,-0.031154096,0.07767481,-0.20103054,0.071922116,-0.0824564,-0.009144771,-0.059002157,0.06981599,0.17914042,0.051175248,-0.08099296,-0.06423888,0.05619232,0.0047298237,-0.015665635,0.065806046,-0.003395933,-0.04550564,0.012588553,-0.032273706,0.085719,0.037762072,0.077369526,0.082325935,0.023796035,-0.0015885197,-0.51330316,0.8278675,-0.67979246,-0.2953309,-0.22059423,0.25591004,0.6617761,0.35421485,0.13385546,0.49883518,0.47603452,0.23094349,0.19293118,0.8383492,-0.600852,-0.3294912,-0.18330663,0.42264158,0.122465216,0.21772775,-0.25953844,-0.90981454,0.38372362
2025-07-21 14:15:25.854,1.1600000000000006,1160,58,0.06476555,0.103260644,-0.08936523,-0.009444986,0.028605122,-0.031244593,0.0,0.0,0.0,-0.030990418,0.089579746,-0.20150365,0.078019865,-0.09019406,-0.029387714,-0.049350746,0.07378234,0.17604458,0.06166047,-0.07024161,-0.040172644,0.05642226,0.036726415,-0.0008818845,0.06349694,0.056050073,-0.073994614,-0.02682302,-0.024343057,0.014153912,0.056083653,0.0047191526,-0.07810371,-0.047817364,0.23094349,0.19293118,0.8383492,-0.600852,-0.3294912,-0.18330663,0.42264158,0.122465216,0.21772775,-0.25953844,-0.90981454,0.38372362,0.18084966,-0.294814,0.25019848,-0.575682,0.19584878,-0.39717,0.7650016,0.0015062764,0.7001517,0.37898475,0.49778154,0.7532544
2025-07-21 14:15:25.874,1.1800000000000006,1180,59,0.06817619,0.019212482,0.079230756,0.0020202715,-0.03639269,0.037096117,0.0,0.0,0.0,-0.03076989,0.07877768,-0.17817503,0.052932967,-0.07758886,-0.017872771,-0.04254037,0.07023317,0.1543921,0.062007774,-0.06961551,-0.029123105,0.07260633,-0.05359849,0.08579821,-0.04023982,-0.005039897,0.029474804,0.054366965,-0.0249691,-0.047676682,0.04174734,0.036931917,0.07750885,0.036325,0.18084966,-0.294814,0.25019848,-0.575682,0.19584878,-0.39717,0.7650016,0.0015062764,0.7001517,0.37898475,0.49778154,0.7532544,0.0992742,-0.6171052,0.5692225,-0.31682417,-0.3932063,0.10462797,0.3566519,0.47651452,0.12736118,-0.5143829,-0.8497964,0.1195356
2025-07-21 14:15:25.900,1.2000000000000006,1200,60,-0.044221666,0.18337436,0.0069225584,0.018140325,0.030009067,0.0058457213,0.0,0.0,0.0,-0.031592425,0.08376695,-0.20437485,0.055471905,-0.08836091,-0.04919937,-0.030637296,0.066889286,0.14704372,0.05641084,-0.060942996,-0.023858853,0.047989752,0.034981575,0.006779585,-0.015449402,0.050368465,-0.028232045,0.06808013,0.039968852,-0.02762844,-0.04990562,-0.05579146,-0.026087727,0.020413807,0.0992742,-0.6171052,0.5692225,-0.31682417,-0.3932063,0.10462797,0.3566519,0.47651452,0.12736118,-0.5143829,-0.8497964,0.1195356,0.34103593,-0.31198007,0.63767755,-0.43472496,0.14788295,-0.31698054,0.93562734,0.6553826,0.5769029,0.18524104,-0.32728398,0.55001366
2025-07-21 14:15:25.917,1.2200000000000006,1220,61,0.0012162437,-0.028852781,-0.020482825,-0.05810319,0.017364884,-0.012733825,0.0,0.0,0.0,-0.032019887,0.08196353,-0.20272543,0.06570321,-0.06604326,-0.025346303,-0.047383457,0.09634349,0.1755413,0.07190878,-0.0580883,-0.03771005,0.071127765,0.039097127,0.010370042,0.025156315,-0.0009729716,0.058474157,0.036748152,-0.028926626,0.11729593,0.041693933,-0.027321972,-0.030739823,-0.048637144,0.34103593,-0.31198007,0.63767755,-0.43472496,0.14788295,-0.31698054,0.93562734,0.6553826,0.5769029,0.18524104,-0.32728398,0.55001366,0.13523234,-0.34093118,0.6944347,-0.45372084,-0.26078817,-0.44600034,0.47846904,-0.0145666525,0.5327453,0.10639995,0.266699,0.47280014
2025-07-21 14:15:25.934,1.2400000000000007,1240,62,0.0783585,-0.15025829,0.06573064,0.005450539,0.018167716,-0.003604505,0.0,0.0,0.0,-0.031403966,0.07712876,-0.19086406,0.057651997,-0.075093165,-0.03190551,-0.039183315,0.08263903,0.1621302,0.06297139,-0.06150201,-0.017694583,0.05987826,-0.061219364,-0.047762677,-0.01937506,-0.027068213,0.037044078,-0.02228417,0.0013581472,-0.11047104,0.0313944,0.00489731,0.08686629,0.018639144,0.13523234,-0.34093118,0.6944347,-0.45372084,-0.26078817,-0.44600034,0.47846904,-0.0145666525,0.5327453,0.10639995,0.266699,0.47280014,0.102362916,0.12065017,1.0337322,-0.42088956,-0.41810143,-0.054312468,0.852368,1.0412891,0.17900237,-0.16475302,-1.4197781,0.35015267
2025-07-21 14:15:25.954,1.2600000000000007,1260,63,0.029446859,-0.16705476,-0.14853832,-0.038156707,-0.0324381,0.04931719,0.0,0.0,0.0,-0.031306952,0.087166496,-0.16179037,0.0728363,-0.066738255,-0.053855352,-0.044466686,0.09169229,0.17461337,0.060812976,-0.06359375,-0.013884669,0.064925134,0.057481017,0.044261258,-0.0043850844,0.032702312,-0.04634621,-0.041849855,-0.055525452,0.19944927,-0.03341406,0.0066704485,-0.008893075,0.008341889,0.102362916,0.12065017,1.0337322,-0.42088956,-0.41810143,-0.054312468,0.852368,1.0412891,0.17900237,-0.16475302,-1.4197781,0.35015267,-0.4074105,-0.93147486,0.23898429,-0.6640027,-0.1929895,-0.28580648,0.5680171,-0.22465041,0.7813777,0.5294304,0.16350237,0.91175437
2025-07-21 14:15:25.974,1.2800000000000007,1280,64,-0.026078297,0.031456,0.07398567,-0.009440201,0.01815011,0.041230146,0.0,0.0,0.0,-0.029247735,0.07354009,-0.15645275,0.06939345,-0.08594454,-0.072577365,-0.034387566,0.103821374,0.16767533,0.07143976,-0.048560295,0.009803112,0.0630101,0.016275417,-0.024554936,-0.07183208,-0.08178094,0.03661748,0.020789195,0.038096834,-0.14019352,-0.01200787,-0.015217811,0.043502778,0.03850167,-0.4074105,-0.93147486,0.23898429,-0.6640027,-0.1929895,-0.28580648,0.5680171,-0.22465041,0.7813777,0.5294304,0.16350237,0.91175437,0.35194504,-0.31623673,0.45208284,-0.229527,-0.30504638,0.19096437,0.48299825,0.6602693,0.5333135,-0.41298968,-0.3228813,0.23712194
2025-07-21 14:15:25.999,1.3000000000000007,1300,65,-0.016816236,0.043174308,-0.08018739,-0.0131055275,0.008476274,-0.020962875,0.0,0.0,0.0,-0.02915931,0.06587282,-0.16586062,0.04907635,-0.065485746,-0.076121844,-0.020666588,0.100014806,0.16522808,0.07300013,-0.058058295,0.0025717893,0.05730978,0.029687889,-0.022171954,-0.041437086,0.07006579,-0.044801667,0.00074846623,-0.040714767,0.105352744,-0.0391485,-0.047567554,-0.034991205,0.029756391,0.35194504,-0.31623673,0.45208284,-0.229527,-0.30504638,0.19096437,0.48299825,0.6602693,0.5333135,-0.41298968,-0.3228813,0.23712194,-0.18341935,-0.36870196,0.32451078,-0.49090418,0.4578735,-0.5581153,0.8327342,-0.05774536,0.75079423,0.55973274,0.16870372,0.88879406
2025-07-21 14:15:26.016,1.3200000000000007,1320,66,-0.047077127,0.06686288,0.13143288,-0.01579855,-0.015427665,0.024838239,0.0,0.0,0.0,-0.028668173,0.06732978,-0.17346574,0.054163273,-0.06490763,-0.044368763,-0.034513976,0.10806025,0.14411888,0.07329153,-0.038685244,0.007245685,0.061196804,-0.038952854,-0.05695165,0.017117526,-0.034038305,0.18917662,0.03479841,0.010642208,-0.0013463786,0.0074123354,0.03911223,0.08598943,-0.06585076,-0.18341935,-0.36870196,0.32451078,-0.49090418,0.4578735,-0.5581153,0.8327342,-0.05774536,0.75079423,0.55973274,0.16870372,0.88879406,0.2945473,0.17748398,0.88187426,-0.6027218,-0.88089323,-0.26116878,0.30100688,0.1512911,0.23735288,-0.4961484,-0.58402073,0.18206602
2025-07-21 14:15:26.035,1.3400000000000007,1340,67,0.011431383,0.1329706,-0.09195561,0.021509996,-0.03845597,-0.042218693,0.0,0.0,0.0,-0.030073691,0.06687441,-0.1571489,0.047104754,-0.081353344,-0.06264336,-0.039758142,0.089939915,0.13427195,0.06948007,-0.053053986,-0.018968267,0.050251797,0.043703396,0.04213221,-0.0013188088,0.05368698,-0.10615312,0.025192538,-0.08931338,0.019616995,0.015654296,0.004271215,-0.066790104,0.040882442,0.2945473,0.17748398,0.88187426,-0.6027218,-0.88089323,-0.26116878,0.30100688,0.1512911,0.23735288,-0.4961484,-0.58402073,0.18206602,-0.059777986,-0.59921324,0.16187093,-0.30541527,0.40647072,-0.119419396,0.6891574,0.13878042,1.0155605,0.24812305,0.10380897,0.5869979
2025-07-21 14:15:26.055,1.3600000000000008,1360,68,-0.054177333,-0.03103083,0.07992326,0.03059032,0.0054111793,0.04028842,0.0,0.0,0.0,-0.029940343,0.06431007,-0.17621014,0.03976023,-0.07209611,-0.058591712,-0.033934776,0.09275517,0.1246928,0.096512526,-0.05452067,-0.0136180455,0.051296458,0.04144802,-0.02892643,0.04642606,0.06645897,0.09909935,0.043121964,0.048027813,-0.10223667,-0.027987076,0.09600087,0.08252228,0.032448824,-0.059777986,-0.59921324,0.16187093,-0.30541527,0.40647072,-0.119419396,0.6891574,0.13878042,1.0155605,0.24812305,0.10380897,0.5869979,0.33390743,-0.08073789,0.61758566,-0.20509635,-0.18719047,-0.032171547,0.46730852,1.1398308,0.43558168,-0.44676304,-0.42302045,-0.064225666
2025-07-21 14:15:26.075,1.3800000000000008,1380,69,-0.04711009,-0.0717608,-0.1612201,-0.018136872,-0.05529167,0.009703211,0.0,0.0,0.0,-0.030490184,0.07103723,-0.15300289,0.04216257,-0.07270903,-0.04670665,-0.043683965,0.09682113,0.14930809,0.07672879,-0.051612485,-0.020348465,0.0402983,0.07383601,0.03806376,0.0019385119,-0.014005296,0.02570271,0.053293623,-0.062443435,0.14861141,-0.0675336,-0.06357395,-0.11956233,0.037965853,0.33390743,-0.08073789,0.61758566,-0.20509635,-0.18719047,-0.032171547,0.46730852,1.1398308,0.43558168,-0.44676304,-0.42302045,-0.064225666,-0.28427294,-0.9552068,0.40895417,-0.3789107,0.14320783,-0.47361517,0.8173964,0.12434087,0.8186173,0.41618782,1.002463,1.1120487
2025-07-21 14:15:26.099,1.4000000000000008,1400,70,0.030059395,0.07782691,0.213301,0.02387869,-0.041505337,-0.012967216,0.0,0.0,0.0,-0.029078195,0.06790401,-0.16152044,0.053699195,-0.06833966,-0.039073177,-0.03755577,0.09779407,0.15755785,0.09496788,-0.056610838,-0.0048635392,0.06235343,-0.038954966,-0.020981224,-0.052458573,-0.01486817,0.08278886,0.045672715,0.038469758,-0.12727621,-0.027601844,0.088489845,0.020351078,-0.01960104,-0.28427294,-0.9552068,0.40895417,-0.3789107,0.14320783,-0.47361517,0.8173964,0.12434087,0.8186173,0.41618782,1.002463,1.1120487,0.64864814,-0.051527623,0.6934471,-0.09836572,-0.37235883,-0.041819483,0.35817355,0.99155235,0.058169328,-0.97853225,-0.59864396,0.60890615
2025-07-21 14:15:26.116,1.4200000000000008,1420,71,-0.0034060779,-0.033382203,-0.1532893,-0.05346164,0.038227785,0.037155934,0.0,0.0,0.0,-0.029860845,0.07390885,-0.16107297,0.045998894,-0.061983008,-0.050165694,-0.029262496,0.096383974,0.19322345,0.07323285,-0.059297953,-0.02313491,0.05884557,0.10752316,0.09418882,-0.006484363,-0.009348641,-0.024056435,0.0846843,0.052172497,0.17137776,0.010824009,-0.023802664,-0.008775947,-0.008593182,0.64864814,-0.051527623,0.6934471,-0.09836572,-0.37235883,-0.041819483,0.35817355,0.99155235,0.058169328,-0.97853225,-0.59864396,0.60890615,-0.6430343,-1.0511932,0.068586454,-0.5863993,-0.056329392,-0.20702851,0.61714494,-0.3367246,0.57732505,0.4388913,-0.17512213,0.5185693
2025-07-21 14:15:26.135,1.4400000000000008,1440,72,-0.08116349,0.12110787,0.18025447,-0.060718577,-0.025382204,-0.001587094,0.0,0.0,0.0,-0.029340632,0.06278941,-0.1787704,0.03272095,-0.07649606,-0.049858812,-0.041513734,0.09041583,0.16683301,0.0753219,-0.05412133,-0.02212247,0.06744042,0.029936727,-0.04101971,-0.019314075,-0.07186357,0.013692558,-0.063514955,-0.06269505,-0.13226949,1.20977475e-05,0.097465284,-0.089325026,0.045562327,-0.6430343,-1.0511932,0.068586454,-0.5863993,-0.056329392,-0.20702851,0.61714494,-0.3367246,0.57732505,0.4388913,-0.17512213,0.5185693,1.0164175,0.16175258,0.45158944,0.016722063,0.35427088,-0.48406446,0.26372367,1.1047423,0.55623984,-0.73549384,0.38777602,0.55345505
2025-07-21 14:15:26.155,1.4600000000000009,1460,73,0.043928668,-0.2930096,-0.0113213565,-0.026696324,-0.035312373,0.035761826,0.0,0.0,0.0,-0.030489879,0.0680012,-0.14639577,0.030517014,-0.06409478,-0.025875011,-0.043161526,0.08639816,0.17086306,0.077567264,-0.07902733,0.006792879,0.057413295,0.076375194,0.09393866,0.00946915,0.024104362,0.052236523,0.012478404,-0.034348022,0.09959507,-0.05768489,-0.064247794,0.07101389,0.004742851,1.0164175,0.16175258,0.45158944,0.016722063,0.35427088,-0.48406446,0.26372367,1.1047423,0.55623984,-0.73549384,0.38777602,0.55345505,-0.26763386,-0.7490835,0.64551926,-0.26742482,-0.5651221,-0.4489001,-0.018162662,0.3713791,0.12200191,-0.311918,-1.1803602,0.10036934
2025-07-21 14:15:26.181,1.4800000000000009,1480,74,0.10919738,0.21999934,-0.002445306,0.0077289115,0.007941928,-0.017443338,0.0,0.0,0.0,-0.031789225,0.069427945,-0.15776388,0.052038994,-0.056928486,-0.04275078,-0.0450724,0.07502967,0.19009604,0.07729996,-0.081108995,0.011900875,0.062791035,-0.07930063,0.008738425,0.026852112,0.040759895,-0.15832852,0.01607664,-0.062029347,-0.06596321,-0.08822549,-0.045737408,-0.07050047,0.054824382,-0.26763386,-0.7490835,0.64551926,-0.26742482,-0.5651221,-0.4489001,-0.018162662,0.3713791,0.12200191,-0.311918,-1.1803602,0.10036934,0.5805035,-0.27787876,0.2632823,-0.081500106,1.0375789,-0.25184432,0.66393906,0.8699745,0.043225013,-0.07070106,-0.45234063,0.47052294
2025-07-21 14:15:26.199,1.5000000000000009,1500,75,-0.13805345,-0.051811628,-0.04020096,-0.07083224,0.04799609,-0.0123389065,0.0,0.0,0.0,-0.03216765,0.075864114,-0.15914482,0.040994916,-0.05574318,-0.048813503,-0.061810713,0.08477328,0.20914748,0.058561485,-0.06765915,-0.01587983,0.071643956,-0.03325092,-0.059435226,0.030846791,0.0221109,0.010504309,-0.03168351,0.09342495,0.0944405,-0.056361258,0.00021498236,-0.1254512,-0.047719475,0.5805035,-0.27787876,0.2632823,-0.081500106,1.0375789,-0.25184432,0.66393906,0.8699745,0.043225013,-0.07070106,-0.45234063,0.47052294,0.41124523,-0.30350256,0.71766114,-0.57515055,0.53745425,-0.9245421,0.47397667,0.23609492,-0.01885543,0.3053472,0.5889388,1.2423651
2025-07-21 14:15:26.218,1.520000000000001,1520,76,-0.054429125,-0.17982744,0.056569785,-0.012783769,-0.025148682,0.038044564,0.0,0.0,0.0,-0.03163417,0.08903971,-0.14489307,0.043067608,-0.059794113,0.0067730043,-0.07440692,0.069210894,0.2063154,0.048507936,-0.048051327,-0.0144983325,0.082350224,0.026607102,-0.008432459,0.07285503,-0.009579739,0.109669715,-0.033444237,0.04933239,-0.10891031,-0.05553554,0.003017891,0.021840388,0.05258478,0.41124523,-0.30350256,0.71766114,-0.57515055,0.53745425,-0.9245421,0.47397667,0.23609492,-0.01885543,0.3053472,0.5889388,1.2423651,0.13382202,-0.48913616,0.9706202,-0.4452254,-0.68599355,-0.15940368,0.3538469,0.83949345,-0.23484814,-0.6292733,-1.2164955,0.42362177
2025-07-21 14:15:26.236,1.540000000000001,1540,77,0.043631807,0.08167984,-0.089542724,-0.08364466,0.0134651,-0.042223834,0.0,0.0,0.0,-0.032237493,0.088978425,-0.1448624,0.05934876,-0.05289819,-0.013093083,-0.06994121,0.07231519,0.2086572,0.03576958,-0.075507715,0.00901159,0.07254177,-0.02449433,0.012493686,-0.016536625,0.0411123,-0.082768954,0.015060393,-0.011258135,0.051563423,-0.035686295,-0.07184634,-0.06440706,-0.021009726,0.13382202,-0.48913616,0.9706202,-0.4452254,-0.68599355,-0.15940368,0.3538469,0.83949345,-0.23484814,-0.6292733,-1.2164955,0.42362177,-0.060191613,-0.68997604,0.1641544,-0.5341992,0.2260146,-0.2785697,0.89893514,0.20464239,0.41775677,0.57416236,-0.03558724,0.62891644
2025-07-21 14:15:26.256,1.560000000000001,1560,78,-0.055552687,0.054981813,0.17893603,-0.05582616,-0.03702286,-0.0045246845,0.0,0.0,0.0,-0.03211284,0.07663502,-0.17849556,0.057691935,-0.06566283,-0.023912648,-0.050230592,0.08467611,0.20823266,0.030200984,-0.048391696,0.0059980126,0.07901327,-0.010305303,-0.06763771,-0.073929235,-0.043978702,0.05063656,-0.028348587,0.072883904,-0.030809877,0.061859835,0.07833121,0.027129896,-0.07842603,-0.060191613,-0.68997604,0.1641544,-0.5341992,0.2260146,-0.2785697,0.89893514,0.20464239,0.41775677,0.57416236,-0.03558724,0.62891644,0.7248535,0.33099967,0.7248146,-0.23404619,-0.048941232,-0.4775231,0.37517422,0.34577706,0.13277051,-0.68975985,-0.6001307,0.43431652
2025-07-21 14:15:26.281,1.580000000000001,1580,79,0.041057464,0.052022718,-0.09630983,-0.08558535,-0.028093288,-0.014190353,0.0,0.0,0.0,-0.034156367,0.09638358,-0.1691917,0.04927408,-0.055632174,-0.01647633,-0.05330965,0.08579536,0.19886519,0.038483165,-0.07217814,-0.032610472,0.06898129,0.011550357,-0.051687002,0.052964725,0.019492228,0.014728271,0.018736431,-0.010034068,-0.055133313,0.067239925,-0.030141823,-0.061828595,0.0022041055,0.7248535,0.33099967,0.7248146,-0.23404619,-0.048941232,-0.4775231,0.37517422,0.34577706,0.13277051,-0.68975985,-0.6001307,0.43431652,-0.3461042,-0.54416066,0.74703234,-0.4796358,0.116256125,-0.47788936,0.6312049,0.50073975,0.49852124,0.6538286,-0.078634396,0.7630377
2025-07-21 14:15:26.301,1.600000000000001,1600,80,0.053970397,-0.0076211034,0.16941701,-0.009316693,-0.036527723,-0.04050065,0.0,0.0,0.0,-0.034313213,0.078073196,-0.18938692,0.055539537,-0.05486928,-0.00748424,-0.06436334,0.094756834,0.20137161,0.036022622,-0.06436801,-0.02361792,0.08196127,0.0008673096,0.0073427106,-0.064420685,-0.0118496595,-0.029938454,-0.05702931,-0.015401312,0.061249312,-0.014526912,0.022138279,-0.03423948,-0.010927354,-0.3461042,-0.54416066,0.74703234,-0.4796358,0.116256125,-0.47788936,0.6312049,0.50073975,0.49852124,0.6538286,-0.078634396,0.7630377,0.9708884,0.31548706,0.37517834,-0.4966888,0.054587536,-0.80441135,0.016512757,-0.04969617,0.109061025,-0.92137814,-0.7477296,0.4323976
2025-07-21 14:15:26.318,1.620000000000001,1620,81,-0.026306853,0.05313974,-0.09960351,-0.04674035,-0.031148855,0.009359285,0.0,0.0,0.0,-0.03509271,0.100547284,-0.17960635,0.049568042,-0.05770962,-0.0050136945,-0.06966663,0.07293826,0.16991293,0.0340257,-0.08181692,-0.05529034,0.06651671,0.083984256,0.019763991,-0.08122116,0.05592343,-0.010601246,-0.08585841,-0.09466641,-0.112223245,-0.03145553,-0.018624613,-0.10200283,0.0071305325,0.9708884,0.31548706,0.37517834,-0.4966888,0.054587536,-0.80441135,0.016512757,-0.04969617,0.109061025,-0.92137814,-0.7477296,0.4323976,-0.17135207,-1.0088029,0.5331981,-0.49053723,-0.071815476,-0.35961246,0.53138196,0.6286905,0.55722046,0.4073923,0.29772863,0.7375822
2025-07-21 14:15:26.338,1.640000000000001,1640,82,0.024969518,0.033855166,0.18387333,0.022796173,-0.03187036,-0.019999124,0.0,0.0,0.0,-0.035104312,0.09685147,-0.1656347,0.050606336,-0.07361108,-0.00821401,-0.072922066,0.06501838,0.1575048,0.047811985,-0.08705797,-0.04235145,0.08057723,-0.020599216,-0.035832606,-0.0049184463,0.010692478,0.052608386,-0.05283423,0.06430613,0.059451483,0.09267671,0.09552832,0.12606847,-0.052126218,-0.17135207,-1.0088029,0.5331981,-0.49053723,-0.071815476,-0.35961246,0.53138196,0.6286905,0.55722046,0.4073923,0.29772863,0.7375822,0.64516217,0.335782,0.94038415,-0.42876047,-0.5671216,-0.4732113,0.23188663,0.5759545,0.09891727,-0.8762766,-1.3180753,0.5287459
2025-07-21 14:15:26.358,1.660000000000001,1660,83,-0.019547172,-0.022243546,-0.13100553,-0.014875572,0.041948084,0.0072976868,0.0,0.0,0.0,-0.03594668,0.10481667,-0.17281076,0.053621255,-0.07077208,-0.02387991,-0.065668084,0.07390515,0.1713755,0.031362318,-0.09980777,-0.06388138,0.072411284,0.091309264,-0.031272672,0.045229264,0.01898181,-0.13558733,0.06980658,0.024944307,-0.023219492,0.028419467,0.009663245,-0.08390758,0.06850053,0.64516217,0.335782,0.94038415,-0.42876047,-0.5671216,-0.4732113,0.23188663,0.5759545,0.09891727,-0.8762766,-1.3180753,0.5287459,0.036317874,-0.36090255,0.39061442,-0.7235892,0.056983866,-0.085832715,0.56180996,0.17385194,0.5374942,0.14628585,0.141385,0.9806383
2025-07-21 14:15:26.382,1.680000000000001,1680,84,0.04129708,-0.088955194,0.12946376,-0.000345752,-0.016718542,0.02357082,0.0,0.0,0.0,-0.03517901,0.09016108,-0.17804448,0.060514737,-0.07323016,-0.024980124,-0.056224875,0.067404844,0.17209387,0.05328307,-0.08045232,-0.04016982,0.07635353,-0.0012248956,0.0778374,0.03548099,0.012019125,0.045334354,0.0065488443,-0.0048968727,-0.097862385,0.08532999,0.037277594,-0.012278326,0.06871586,0.036317874,-0.36090255,0.39061442,-0.7235892,0.056983866,-0.085832715,0.56180996,0.17385194,0.5374942,0.14628585,0.141385,0.9806383,0.6016831,-0.29293698,0.77948385,-0.43928036,-0.32616523,-0.3384832,0.39458382,0.96536255,0.17293295,-0.76984143,-0.8550682,0.48819432
2025-07-21 14:15:26.399,1.700000000000001,1700,85,-0.008268102,-0.05338394,-0.1525608,-0.008538747,0.029389769,-0.0038775126,0.0,0.0,0.0,-0.03539071,0.09693878,-0.15589081,0.063184805,-0.07480602,-0.0437394,-0.051529255,0.070454165,0.19308558,0.04539221,-0.087727726,-0.04387173,0.086057104,0.051375728,-0.020468729,0.012448894,0.009295445,0.027085789,0.01055159,-0.0028809,0.16726539,0.0022292428,-0.081071585,-0.06806719,0.006572155,0.6016831,-0.29293698,0.77948385,-0.43928036,-0.32616523,-0.3384832,0.39458382,0.96536255,0.17293295,-0.76984143,-0.8550682,0.48819432,-0.32769692,-0.5933838,0.35583925,-0.6783922,-0.036330044,-0.47500557,0.56027895,-0.30329198,0.80077165,0.47352222,0.5774934,1.1657044
2025-07-21 14:15:26.418,1.720000000000001,1720,86,-0.019070433,0.07083532,0.23868895,0.0032413485,0.03627419,0.03216746,0.0,0.0,0.0,-0.034240007,0.0908768,-0.17529257,0.04529608,-0.093736894,-0.041278023,-0.07117189,0.08514229,0.16929026,0.05872421,-0.08334399,-0.03769288,0.091025345,-0.009392208,-0.09148333,0.052044872,-0.009100636,0.052333947,0.0477564,0.04537633,-0.21555932,0.0031170628,0.041028447,0.019820666,-0.011289116,-0.32769692,-0.5933838,0.35583925,-0.6783922,-0.036330044,-0.47500557,0.56027895,-0.30329198,0.80077165,0.47352222,0.5774934,1.1657044,0.78060293,0.32470018,0.9979751,-0.25949743,0.009111354,-0.039174378,0.47307307,1.1659667,0.1846346,-0.78428507,-0.66938156,0.62431544
2025-07-21 14:15:26.438,1.740000000000001,1740,87,0.01304633,-0.07105857,-0.19332479,0.0032862315,0.032293297,-0.019705039,0.0,0.0,0.0,-0.03562029,0.10261606,-0.17227575,0.0637208,-0.0785038,-0.029085593,-0.043852866,0.07761609,0.16818453,0.04107863,-0.101054184,-0.045320798,0.094583586,0.057461727,-0.0020906471,-0.03858682,-0.018896583,0.05552069,0.08301575,0.010399154,0.17252289,-0.039066456,-0.10528264,0.023933187,-0.028577147,0.78060293,0.32470018,0.9979751,-0.25949743,0.009111354,-0.039174378,0.47307307,1.1659667,0.1846346,-0.78428507,-0.66938156,0.62431544,-0.81066597,-0.90916693,0.44519776,-0.57807636,-0.20008916,-0.1006701,0.69062847,-0.38586053,0.3783218,0.29756054,0.10575423,0.5233755
2025-07-21 14:15:26.459,1.7600000000000011,1760,88,-0.029878495,0.16513053,0.12686536,0.011539667,-0.021575186,0.019187568,0.0,0.0,0.0,-0.035447452,0.096432425,-0.17670679,0.0672728,-0.0741453,-0.050227795,-0.045793917,0.09015942,0.1582622,0.04813324,-0.08542482,-0.03302689,0.07766184,-0.10835012,-0.07972,-0.0530413,-0.09966737,-0.08042833,-0.015488542,-0.053833675,-0.21759635,-0.054517653,0.06389305,0.055731796,-0.08019416,-0.81066597,-0.90916693,0.44519776,-0.57807636,-0.20008916,-0.1006701,0.69062847,-0.38586053,0.3783218,0.29756054,0.10575423,0.5233755,0.69925886,0.13019991,0.39797872,0.1701604,0.812717,0.09149197,0.64161384,1.3611463,0.32813886,-0.78179765,-0.43796265,0.11702163
2025-07-21 14:15:26.482,1.7800000000000011,1780,89,-0.07755556,-0.20963494,-0.10619678,-0.047529645,0.0019215214,-0.026749698,0.0,0.0,0.0,-0.036044165,0.089036785,-0.15233156,0.04970925,-0.07122156,-0.029686494,-0.040375397,0.09747643,0.15788332,0.05001873,-0.08943635,-0.032785017,0.07260335,0.08162315,0.12971763,-0.032303404,-0.017130207,0.17880978,0.052603815,-0.0064805704,0.18914247,-0.0382822,-0.03576881,0.017716944,-0.016431803,0.69925886,0.13019991,0.39797872,0.1701604,0.812717,0.09149197,0.64161384,1.3611463,0.32813886,-0.78179765,-0.43796265,0.11702163,-0.369453,-1.5636464,0.5810466,-0.071008965,-0.3982521,-0.549604,-0.079386495,-0.42367074,-0.056493364,-0.42771143,0.29397103,0.16566092
2025-07-21 14:15:26.499,1.8000000000000012,1800,90,0.10980086,0.1778576,0.11746886,-0.06641265,-0.008862966,0.038970977,0.0,0.0,0.0,-0.035712812,0.07161509,-0.15506735,0.050665308,-0.07352247,-0.020525116,-0.052745983,0.08476696,0.15218486,0.032080084,-0.10105462,-0.017389182,0.06613585,-0.10990088,-0.01434067,-0.06371637,0.06824027,-0.08125456,-0.045970123,-0.045890804,-0.07578306,-0.0037939446,0.075694315,0.007815579,-0.043088537,-0.369453,-1.5636464,0.5810466,-0.071008965,-0.3982521,-0.549604,-0.079386495,-0.42367074,-0.056493364,-0.42771143,0.29397103,0.16566092,0.8324505,-0.15656191,0.7900392,-0.0006947722,0.8549203,-0.3713765,0.5314526,1.4265308,-0.39943945,-0.26823375,-0.9523024,0.5971054
2025-07-21 14:15:26.519,1.8200000000000012,1820,91,-0.10956695,-0.13034694,-0.039424304,0.0051197493,-0.025347734,-0.014379972,0.0,0.0,0.0,-0.035924464,0.08714192,-0.15591702,0.05732484,-0.05705278,-0.010971066,-0.047120266,0.0732048,0.19413257,0.0285374,-0.09050778,-0.019921888,0.056813028,0.004244498,-0.04477179,0.0106381215,0.08072443,0.17290808,0.030045083,0.075743586,0.23405272,-0.07323519,-0.037237152,-0.06504631,0.09346336,0.8324505,-0.15656191,0.7900392,-0.0006947722,0.8549203,-0.3713765,0.5314526,1.4265308,-0.39943945,-0.26823375,-0.9523024,0.5971054,-0.07402812,-0.6715133,0.83304113,-0.7142087,-0.6315365,-0.87267524,-0.2180911,-0.4200472,-0.38212186,-0.0002684598,-0.5219965,1.2124392
2025-07-21 14:15:26.539,1.8400000000000012,1840,92,-0.06296514,0.28842363,0.08901501,-0.044042144,-0.005709119,-0.03107754,0.0,0.0,0.0,-0.03598266,0.09027206,-0.17121187,0.074971154,-0.06268912,-0.0332162,-0.07709854,0.061636038,0.18214151,0.014133379,-0.08822975,-0.06364821,0.07958719,-0.07248211,-0.12610783,0.05910815,-0.08749656,-0.06986738,-0.011583162,-0.016522007,-0.20127234,0.026477128,-0.020081501,-0.11022002,-0.027995605,-0.07402812,-0.6715133,0.83304113,-0.7142087,-0.6315365,-0.87267524,-0.2180911,-0.4200472,-0.38212186,-0.0002684598,-0.5219965,1.2124392,0.99431264,0.57058865,1.0211797,-0.09943057,0.6253977,-0.3618468,0.46340984,0.9346853,0.22870633,-0.6920978,-0.3408709,1.1384231
2025-07-21 14:15:26.560,1.8600000000000012,1860,93,0.058988128,-0.0004347374,-0.13724287,-0.027829345,0.02816969,-0.048246942,0.0,0.0,0.0,-0.036060046,0.10720576,-0.16151148,0.0778162,-0.053384937,-0.005975968,-0.07583063,0.06900702,0.18761948,0.019225387,-0.08931793,-0.060863987,0.10016577,0.032164253,0.055732984,-0.004305499,0.060509466,0.16525503,-0.0688839,-0.012436426,0.09835107,0.0537405,0.015967764,-0.032430913,-0.03407968,0.99431264,0.57058865,1.0211797,-0.09943057,0.6253977,-0.3618468,0.46340984,0.9346853,0.22870633,-0.6920978,-0.3408709,1.1384231,-0.23246916,-1.1443295,0.35077348,-0.35227862,-0.43559042,-0.48694122,0.31521982,-0.346425,0.11140265,-0.121557206,0.37350103,0.28895354
2025-07-21 14:15:26.582,1.8800000000000012,1880,94,0.012369505,0.09645238,0.15017322,-0.028773526,0.036714148,-0.044699028,0.0,0.0,0.0,-0.035365887,0.10101637,-0.15711993,0.06700506,-0.062004685,-0.002711347,-0.06452103,0.057106946,0.16809833,0.023404196,-0.09142289,-0.035309676,0.07414324,-0.06853184,-0.11945634,-0.03838332,-0.053185627,-0.015267814,0.020737171,-0.010383155,-0.20536059,0.015377878,-0.032529425,0.073630705,-0.03969362,-0.23246916,-1.1443295,0.35077348,-0.35227862,-0.43559042,-0.48694122,0.31521982,-0.346425,0.11140265,-0.121557206,0.37350103,0.28895354,0.72051543,0.18508363,1.1876063,-0.031999044,0.14308007,-0.20332527,0.9996367,1.7906967,-0.034387507,-0.35408428,-1.1344651,0.5706098
2025-07-21 14:15:26.599,1.9000000000000012,1900,95,-0.10040628,-0.16691923,-0.17448802,-0.048464086,0.027257644,-0.026102165,0.0,0.0,0.0,-0.0358471,0.109853685,-0.14877376,0.08169549,-0.050279893,-0.00035232343,-0.05674243,0.08136543,0.17213741,0.004413932,-0.080784336,-0.038676795,0.073661424,0.0043117153,0.11134052,0.064025156,0.021114426,-0.036761396,0.04057827,-0.027784063,0.11467096,-0.07102533,0.021653807,-0.0011219318,0.050372537,0.72051543,0.18508363,1.1876063,-0.031999044,0.14308007,-0.20332527,0.9996367,1.7906967,-0.034387507,-0.35408428,-1.1344651,0.5706098,-0.63756305,-1.4787394,0.0068184305,-0.4229581,-0.10156069,-0.03491488,0.4508478,-0.18603921,0.5528766,0.2937342,-0.36446854,0.59577525
2025-07-21 14:15:26.619,1.9200000000000013,1920,96,-0.0051824944,0.12872888,0.10837862,-0.008266081,0.006853685,-0.032189753,0.0,0.0,0.0,-0.034912944,0.083112784,-0.16463567,0.06227513,-0.0483455,-0.011615795,-0.055114686,0.067841366,0.17194164,0.015804093,-0.08187071,-0.048981145,0.07652203,-0.02320519,-0.1332644,-0.06952414,-0.059980802,-0.019982288,-0.039922785,-0.060652908,-0.08071025,0.06744666,-0.001442526,-0.032232918,0.06932297,-0.63756305,-1.4787394,0.0068184305,-0.4229581,-0.10156069,-0.03491488,0.4508478,-0.18603921,0.5528766,0.2937342,-0.36446854,0.59577525,1.0058554,0.30797863,0.6292427,-0.20723285,0.23398814,-0.7334563,0.5273469,0.7502502,0.5875424,-0.3806946,0.42363912,0.8565904
2025-07-21 14:15:26.639,1.9400000000000013,1940,97,-0.027431486,-0.19632247,-0.043136276,-0.004232369,-0.020634873,-0.013898899,0.0,0.0,0.0,-0.034521,0.10196458,-0.16500543,0.063212655,-0.05348581,0.010316123,-0.061164714,0.07473845,0.18326654,0.033191197,-0.089548066,-0.040965278,0.08362513,0.085891716,0.0885694,0.016947541,-0.03549572,0.0043840595,0.027361464,0.024571108,0.09320489,0.038169596,-0.03734124,0.039818767,0.037629094,1.0058554,0.30797863,0.6292427,-0.20723285,0.23398814,-0.7334563,0.5273469,0.7502502,0.5875424,-0.3806946,0.42363912,0.8565904,-0.2465768,-0.85928047,0.7172419,-0.3994427,-0.5651034,-0.27274704,0.05204513,-0.055565022,0.35610577,-0.29171148,-1.126118,0.33920246
2025-07-21 14:15:26.661,1.9600000000000013,1960,98,0.023761222,0.25362065,0.041641574,0.025532162,0.01899848,-0.032791514,0.0,0.0,0.0,-0.035044618,0.089314215,-0.16773506,0.06046155,-0.049179032,-0.014929378,-0.06642529,0.06998658,0.14572616,0.03764342,-0.094286986,-0.034672316,0.08859279,-0.0049539763,-0.04335588,-0.022551538,-0.04488473,-0.09845816,-0.056075595,-0.07516133,-0.08218103,0.0420565,0.037811358,-0.0041384534,0.041714773,-0.2465768,-0.85928047,0.7172419,-0.3994427,-0.5651034,-0.27274704,0.05204513,-0.055565022,0.35610577,-0.29171148,-1.126118,0.33920246,0.6728671,-0.04252881,0.6968212,-0.20123495,0.52042204,-0.32141483,0.63204104,0.90797824,0.53601134,-0.19536567,-0.5614304,0.47006524
2025-07-21 14:15:26.683,1.9800000000000013,1980,99,-0.070854016,-0.1747109,-0.06550677,-0.06667432,-0.032456167,0.024128074,0.0,0.0,0.0,-0.03592698,0.10451093,-0.15079804,0.06911401,-0.05732056,-0.035574116,-0.062036544,0.07673783,0.17352177,0.04327279,-0.07470783,-0.052629173,0.08967521,0.008441789,0.11663538,0.06506051,-0.05461551,0.0938939,0.035532616,0.008107695,0.09032556,-0.030997934,0.059525542,-0.016064579,-0.068023205,0.6728671,-0.04252881,0.6968212,-0.20123495,0.52042204,-0.32141483,0.63204104,0.90797824,0.53601134,-0.19536567,-0.5614304,0.47006524,0.07408999,-1.1312838,0.44856364,-0.26876447,-0.20288424,-0.26335287,0.1736575,0.1100978,0.1624608,-0.11282721,0.2619901,0.16583109
2025-07-21 14:15:26.699,2.0000000000000013,2000,100,0.06609728,0.040385377,0.17528275,-0.037644744,-0.0133316545,-0.022012763,0.0,0.0,0.0,-0.035376728,0.09971939,-0.16241355,0.06606783,-0.04933042,-0.03337567,-0.07009317,0.07169468,0.15301347,0.045845892,-0.076938316,-0.029626416,0.06465742,0.04677008,-0.05368315,-0.03540081,0.01824898,-0.0947721,0.046946157,-0.014860475,0.014623519,0.019622644,0.036117204,0.0086978115,-0.071118645,0.07408999,-1.1312838,0.44856364,-0.26876447,-0.20288424,-0.26335287,0.1736575,0.1100978,0.1624608,-0.11282721,0.2619901,0.16583109,0.9747,0.51866484,1.1908354,-0.16444293,0.5680366,-0.5441231,0.37765196,1.094091,0.09590503,-0.49020326,-1.0745977,0.87917805
2025-07-21 14:15:26.719,2.0200000000000014,2020,101,0.037733432,-0.032455795,-0.1566106,-0.064294845,-0.033669222,-0.044816356,0.0,0.0,0.0,-0.036289033,0.10612835,-0.16377935,0.07883688,-0.045220844,0.0007830375,-0.06100604,0.07296456,0.18413524,0.043890454,-0.08135152,-0.043244455,0.06685594,0.061000485,0.033633325,0.097666726,-0.037934873,0.11182167,-0.061001737,0.010516571,0.10931409,-0.047319442,-0.0063904217,-0.05001731,0.038652822,0.9747,0.51866484,1.1908354,-0.16444293,0.5680366,-0.5441231,0.37765196,1.094091,0.09590503,-0.49020326,-1.0745977,0.87917805,-0.26588437,-1.093557,0.5921076,-0.59499943,-0.42037424,-0.4331522,0.34603578,0.13063234,-0.02315823,0.38119513,0.270625,0.5596446
2025-07-21 14:15:26.739,2.0400000000000014,2040,102,0.016452638,0.15552871,0.16218871,-0.050144743,-0.012105049,0.008137869,0.0,0.0,0.0,-0.03508012,0.098924115,-0.165629,0.0780968,-0.06761633,-0.015181143,-0.07315991,0.0583188,0.18117692,0.028206544,-0.076854855,-0.013457408,0.06057074,-0.06516931,-0.09768496,0.013182028,0.020975154,-0.0685634,0.06332964,-0.030395199,-0.01797593,-0.011470873,0.108633295,0.0516739,-0.047963798,-0.26588437,-1.093557,0.5921076,-0.59499943,-0.42037424,-0.4331522,0.34603578,0.13063234,-0.02315823,0.38119513,0.270625,0.5596446,0.8897623,0.51220775,1.0166041,-0.30374208,0.1623065,-0.327189,0.6712614,0.6410733,-0.14902833,-0.75829005,-1.0769105,0.68130255
2025-07-21 14:15:26.765,2.0600000000000014,2060,103,0.028786128,-0.07337234,-0.085938305,0.019716147,-0.041714337,-0.04398263,0.0,0.0,0.0,-0.034980502,0.11397905,-0.16316259,0.08119014,-0.06490005,-0.0047213184,-0.0751094,0.0722999,0.19170175,0.027584814,-0.078503914,-0.036686596,0.06938059,0.025273157,0.073590584,0.065882504,0.07698352,0.017520351,0.038826738,-0.03358311,0.03864392,0.03188089,-0.09929751,-0.014227289,-0.02517097,0.8897623,0.51220775,1.0166041,-0.30374208,0.1623065,-0.327189,0.6712614,0.6410733,-0.14902833,-0.75829005,-1.0769105,0.68130255,-0.011905562,-0.85107386,0.28698543,-0.56081784,-0.22315007,-0.4138517,0.5025496,0.06159643,0.27458152,-7.74418e-05,-0.44744518,0.46771514
2025-07-21 14:15:26.782,2.0800000000000014,2080,104,-0.050191958,0.13773195,0.09370652,-0.029643264,0.0027451178,-0.04258288,0.0,0.0,0.0,-0.034376465,0.103287905,-0.17000814,0.08520928,-0.06726663,-0.013149009,-0.07129481,0.07863148,0.16007623,0.024667732,-0.091849215,-0.06390071,0.08423308,0.031920098,-0.029962717,0.04176417,0.046816185,-0.07483983,0.061327446,0.07750197,-0.1157076,-0.047889896,0.0399857,-0.122652166,0.056423135,-0.011905562,-0.85107386,0.28698543,-0.56081784,-0.22315007,-0.4138517,0.5025496,0.06159643,0.27458152,-7.74418e-05,-0.44744518,0.46771514,0.9369416,0.063358486,0.6871615,-0.032827295,0.3609763,-0.4292333,0.57611424,1.0880358,0.62981164,-0.40650153,-0.032918025,0.8936136
2025-07-21 14:15:26.799,2.1000000000000014,2100,105,0.017008828,-0.21072999,-0.01028379,-0.05970011,0.029438773,-0.01868965,0.0,0.0,0.0,-0.034341127,0.11524629,-0.15854785,0.08219637,-0.064372085,-0.009413234,-0.07510733,0.07199319,0.19523782,0.046357002,-0.085579135,-0.044590507,0.082153544,0.05192688,0.10115785,0.017647497,0.042154744,0.07283911,0.017115122,0.07008374,0.16531701,-0.01880421,0.004081365,0.023413895,0.08124978,0.9369416,0.063358486,0.6871615,-0.032827295,0.3609763,-0.4292333,0.57611424,1.0880358,0.62981164,-0.40650153,-0.032918025,0.8936136,0.20510508,-0.8422199,0.41865757,-0.4200985,-0.61588097,-0.5944326,-0.02354207,0.25019205,-0.07611088,-0.38115954,-0.6291637,0.46771264
2025-07-21 14:15:26.819,2.1200000000000014,2120,106,-0.051082414,0.26738262,0.0037863015,-0.038206495,-0.03354623,-0.035037618,0.0,0.0,0.0,-0.034678724,0.11097465,-0.17113519,0.066947356,-0.06656324,-0.022307273,-0.083747365,0.05563925,0.18629362,0.039152313,-0.08241341,-0.0785448,0.07334045,-0.066148974,-0.006435234,0.027262261,0.0665141,-0.18188722,0.032056578,-0.08708838,-0.05560119,0.01153817,-0.022257537,-0.07554643,-0.015280016,0.20510508,-0.8422199,0.41865757,-0.4200985,-0.61588097,-0.5944326,-0.02354207,0.25019205,-0.07611088,-0.38115954,-0.6291637,0.46771264,0.5780782,-0.44633234,0.43652537,-0.08029174,0.89099455,-0.16735122,0.49584183,0.74313325,0.36393228,-0.24455172,-0.08048867,0.56873316
2025-07-21 14:15:26.840,2.1400000000000015,2140,107,-0.014431788,-0.17603058,0.051967878,-0.06465766,-0.011353423,-0.032667365,0.0,0.0,0.0,-0.03414321,0.1197684,-0.18664531,0.059971083,-0.06037102,-0.03364617,-0.06557853,0.06828219,0.21850143,0.028532544,-0.0739661,-0.06302865,0.06950358,-0.024790118,0.05147822,-0.07042561,0.04782344,0.051610973,-0.029739711,-0.027593466,0.091546126,-0.013576021,0.0743169,0.06231657,-0.02802669,0.5780782,-0.44633234,0.43652537,-0.08029174,0.89099455,-0.16735122,0.49584183,0.74313325,0.36393228,-0.24455172,-0.08048867,0.56873316,0.52937335,-0.48790535,0.6032677,-0.41330305,0.2051952,-0.7687509,0.21389264,0.35190442,-0.27925548,-0.3380498,-0.6985107,0.29498464
2025-07-21 14:15:26.865,2.1600000000000015,2160,108,-0.08822932,-0.0130828135,-0.07704915,-0.03896945,-0.03153937,0.04257301,0.0,0.0,0.0,-0.03454106,0.11505034,-0.18745537,0.053685576,-0.04786882,-0.0029993947,-0.09028768,0.060656406,0.19531529,0.01294011,-0.08783381,-0.076236114,0.075979196,-0.024716986,0.046512097,-0.019009542,-0.023042344,-0.002914516,-0.05326831,-0.01360342,-0.0862016,-0.05065641,0.020090463,-0.030415887,-0.043830656,0.52937335,-0.48790535,0.6032677,-0.41330305,0.2051952,-0.7687509,0.21389264,0.35190442,-0.27925548,-0.3380498,-0.6985107,0.29498464,-0.0028908812,-0.8727099,0.4708224,-0.38680542,0.08570544,-0.24005705,0.79176384,0.5301953,0.29134282,0.21423545,-0.016518537,0.27324492
2025-07-21 14:15:26.882,2.1800000000000015,2180,109,0.039505973,-0.04544155,0.12972061,-0.0012977155,-0.009384324,-0.005190976,0.0,0.0,0.0,-0.03418804,0.10986129,-0.21075527,0.07223531,-0.052140642,-0.0059028235,-0.07808104,0.070521384,0.19603425,0.029205795,-0.07513695,-0.08001021,0.05425236,-0.032218494,-0.059322067,-0.039326005,0.008917058,-0.050728977,-0.0027547649,0.069813535,0.05046738,0.06062286,0.024055952,-0.02868806,-0.017865287,-0.0028908812,-0.8727099,0.4708224,-0.38680542,0.08570544,-0.24005705,0.79176384,0.5301953,0.29134282,0.21423545,-0.016518537,0.27324492,1.168564,0.7434529,0.6983368,-0.30954576,0.23276992,-0.930771,0.36865312,0.20223692,0.4978467,-0.53232944,-0.22139682,1.0366147
2025-07-21 14:15:26.900,2.2000000000000015,2200,110,0.059131175,-0.050517738,-0.04904039,-0.053477287,0.026523564,-0.04628775,0.0,0.0,0.0,-0.035422422,0.1374164,-0.2110187,0.06333933,-0.06467645,0.018762255,-0.083059765,0.0782694,0.17778444,0.03857426,-0.07299012,-0.078868516,0.06869129,0.04179267,0.01974245,0.008285864,0.01792476,0.04194983,-0.006412511,0.058311224,-0.03209564,0.090084076,0.0036678487,0.010539849,0.015110183,1.168564,0.7434529,0.6983368,-0.30954576,0.23276992,-0.930771,0.36865312,0.20223692,0.4978467,-0.53232944,-0.22139682,1.0366147,-0.07318236,-0.3775031,0.9918251,-0.5377007,-0.6983155,-0.11323345,0.318228,0.14360091,0.2908866,0.04300624,-0.6548812,0.7383425
2025-07-21 14:15:26.920,2.2200000000000015,2220,111,-0.03537106,0.04554281,-0.03775812,-0.051469658,-0.044362206,0.0436189,0.0,0.0,0.0,-0.036339395,0.12707238,-0.19800869,0.05828566,-0.06073938,-0.025878415,-0.08173311,0.072578795,0.17494397,0.038751874,-0.07314954,-0.10464674,0.07365389,-0.057464104,0.01962079,0.025758402,0.04724664,-0.0782346,0.01600134,0.031625554,-0.025122302,0.05801917,0.06646218,-0.040010814,0.013103279,-0.07318236,-0.3775031,0.9918251,-0.5377007,-0.6983155,-0.11323345,0.318228,0.14360091,0.2908866,0.04300624,-0.6548812,0.7383425,0.4683522,-0.23249876,0.3446129,-0.42027232,0.24718623,-0.38960305,0.6331947,0.1286203,0.77286357,-0.107950255,0.016633336,0.4661876
2025-07-21 14:15:26.941,2.2400000000000015,2240,112,0.013313983,-0.053938285,0.07415018,-0.07852078,0.052450974,0.015026789,0.0,0.0,0.0,-0.035775136,0.12016338,-0.18609025,0.050013907,-0.071248315,-0.015882382,-0.08042917,0.07979196,0.14998294,0.0450802,-0.08336854,-0.08838929,0.070673294,-0.010133513,0.0977985,-0.083110146,0.05873599,0.023170166,-0.042867195,-0.036181424,0.023716094,0.014908044,0.03103697,0.015024974,0.017675798,0.4683522,-0.23249876,0.3446129,-0.42027232,0.24718623,-0.38960305,0.6331947,0.1286203,0.77286357,-0.107950255,0.016633336,0.4661876,0.6631416,-0.5421673,0.703699,-0.5088676,-0.2538257,-0.34214824,0.4169168,0.76206845,0.23463562,-0.33626747,-0.36376026,0.1818794
2025-07-21 14:15:26.965,2.2600000000000016,2260,113,-0.011838487,0.009293585,-0.08223008,-0.008875961,0.040019583,-0.04335265,0.0,0.0,0.0,-0.036591433,0.11559441,-0.1970441,0.05307958,-0.071265414,-0.033976797,-0.061804175,0.08148147,0.17947084,0.0380504,-0.07050717,-0.1018135,0.053472195,0.057649475,-0.011274337,-0.021610511,-0.015013725,-0.0029522686,0.051121283,-0.06187026,0.055791046,0.032957096,-0.018548459,-0.015852908,-0.0011694521,0.6631416,-0.5421673,0.703699,-0.5088676,-0.2538257,-0.34214824,0.4169168,0.76206845,0.23463562,-0.33626747,-0.36376026,0.1818794,-0.1300418,-0.34578085,0.40413436,-0.4464858,-0.09008133,-0.2875874,0.68949366,0.089041896,0.784429,0.28394648,0.3665324,0.4590969
2025-07-21 14:15:26.983,2.2800000000000016,2280,114,0.16225033,-0.0032816632,0.15104668,0.019541943,-0.02433402,-0.02104525,0.0,0.0,0.0,-0.036120825,0.12242189,-0.19914158,0.049327925,-0.07482104,-0.021606363,-0.065755606,0.07188144,0.14784348,0.06743206,-0.059400827,-0.064037524,0.058978427,-0.032403674,0.045337502,0.018795745,-0.015283275,0.036661915,0.052521944,0.054880876,-0.07845911,0.02546878,-0.03851116,0.037376054,0.035039064,-0.1300418,-0.34578085,0.40413436,-0.4464858,-0.09008133,-0.2875874,0.68949366,0.089041896,0.784429,0.28394648,0.3665324,0.4590969,0.65986955,-0.00022381917,0.8699113,-0.22973149,-0.4654473,-0.058915198,0.4654061,0.87545305,0.28456357,-0.77126557,-0.69707066,0.39097083
2025-07-21 14:15:27.000,2.3000000000000016,2300,115,0.032068156,-0.029829318,-0.14758958,-0.02929305,-0.030078616,-0.023128824,0.0,0.0,0.0,-0.037273753,0.123324,-0.1733342,0.06615139,-0.06556708,-0.053004812,-0.047696564,0.07269223,0.17469771,0.065053076,-0.07135449,-0.06966016,0.04619077,-0.051972304,0.13760337,0.020787237,-0.0335123,-0.04726606,0.08580044,0.015007082,0.03283771,-0.017303256,-0.0861155,-0.0365624,0.068483636,0.65986955,-0.00022381917,0.8699113,-0.22973149,-0.4654473,-0.058915198,0.4654061,0.87545305,0.28456357,-0.77126557,-0.69707066,0.39097083,-0.31216398,-0.98908293,-0.08218398,-0.35364106,0.22649236,0.010141671,0.86238474,0.107980765,0.83247286,0.28945574,-0.0036680289,0.532199
2025-07-21 14:15:27.020,2.3200000000000016,2320,116,-0.06551765,0.0058452375,0.198019,-0.06347281,0.030888068,0.041373484,0.0,0.0,0.0,-0.036086813,0.10881179,-0.17252661,0.038633198,-0.06715148,-0.032769404,-0.055616643,0.09318155,0.17430672,0.07829245,-0.08073307,-0.0694893,0.06033555,-0.05370342,-0.067883134,-0.09997799,0.070933275,0.12569122,-0.040660948,0.017706942,0.0035830403,-0.03230647,0.046747144,0.02233667,-0.07605214,-0.31216398,-0.98908293,-0.08218398,-0.35364106,0.22649236,0.010141671,0.86238474,0.107980765,0.83247286,0.28945574,-0.0036680289,0.532199,1.1481731,0.1701901,0.8047311,-0.46512875,-0.471618,-0.74574316,0.17999421,0.53973085,0.28853735,-0.62889135,0.18960758,0.5705731
2025-07-21 14:15:27.041,2.3400000000000016,2340,117,0.022093412,-0.030088307,-0.036539443,-0.008395294,-0.0052687586,-0.0037803086,0.0,0.0,0.0,-0.036831524,0.11365833,-0.16731165,0.042068083,-0.0620591,-0.058559995,-0.058711607,0.091155015,0.17733838,0.0712017,-0.082420975,-0.03810868,0.060382627,0.108607545,0.08505839,0.086986884,-0.018011546,-0.11714659,-0.010908265,-0.0432139,0.018886836,0.03345022,-0.05382453,0.05218218,-0.066546075,1.1481731,0.1701901,0.8047311,-0.46512875,-0.471618,-0.74574316,0.17999421,0.53973085,0.28853735,-0.62889135,0.18960758,0.5705731,-0.35378945,-0.6412929,0.81616086,-0.29182145,0.034100153,0.51969296,0.35819358,0.49273077,0.31886905,-0.31356496,-1.3612031,0.4034024
2025-07-21 14:15:27.066,2.3600000000000017,2360,118,0.05040343,0.1678308,0.025746617,-0.044013098,-0.0028039264,-0.004159748,0.0,0.0,0.0,-0.03696635,0.100027874,-0.1741263,0.056241117,-0.07465465,-0.059324145,-0.040139016,0.07098597,0.17358023,0.06244704,-0.093734734,-0.03448777,0.052615535,0.01103769,0.007317448,0.011242963,0.022757398,0.038641747,-0.036516834,-0.04270947,0.036962308,0.025282208,0.0016656931,0.004004291,0.0021836238,-0.35378945,-0.6412929,0.81616086,-0.29182145,0.034100153,0.51969296,0.35819358,0.49273077,0.31886905,-0.31356496,-1.3612031,0.4034024,0.5359558,-0.3571074,0.819734,-0.6263192,0.17634098,-0.74777734,0.6727385,0.39396352,0.46722028,0.10760306,-0.17359427,0.4821727
2025-07-21 14:15:27.082,2.3800000000000017,2380,119,-0.09217898,-0.045859024,0.025686074,0.016829118,-0.01887097,0.023048343,0.0,0.0,0.0,-0.03757068,0.103686094,-0.185901,0.056571025,-0.069962814,-0.037962157,-0.05158642,0.08459759,0.18283416,0.056623694,-0.088040255,-0.04034449,0.0612604,0.054019306,-0.05833266,0.058229733,-0.021604419,0.11144485,-0.023653865,0.030365568,0.0625907,0.050685372,0.021553937,-0.017601332,-0.06318267,0.5359558,-0.3571074,0.819734,-0.6263192,0.17634098,-0.74777734,0.6727385,0.39396352,0.46722028,0.10760306,-0.17359427,0.4821727,0.3885147,0.004400607,0.93648636,-0.47433585,-0.4265687,-0.63250005,0.15919831,0.208283,0.73838323,-0.21561816,-0.24705239,0.60087466
2025-07-21 14:15:27.101,2.4000000000000017,2400,120,0.025839252,-0.006701764,-0.17291664,-0.069859855,0.016548429,0.0033918151,0.0,0.0,0.0,-0.038556885,0.109799236,-0.16628766,0.06347461,-0.072635636,-0.057505034,-0.055649552,0.07680643,0.16501929,0.07551585,-0.085368134,-0.041011464,0.065018386,-0.0077652168,0.03595278,-0.012132664,0.063217096,-0.067191295,-0.0800682,-0.0203664,0.011663078,0.015821451,0.0062697628,0.05740301,-0.015161773,0.3885147,0.004400607,0.93648636,-0.47433585,-0.4265687,-0.63250005,0.15919831,0.208283,0.73838323,-0.21561816,-0.24705239,0.60087466,-0.51903534,-0.79916,0.3525187,-0.46897185,0.21016525,0.36147898,0.89366025,0.06164167,0.32986984,0.70139825,-0.20846851,0.27884817
2025-07-21 14:15:27.121,2.4200000000000017,2420,121,-0.11919463,0.0923638,0.19031957,-0.007505935,0.04576428,0.045687582,0.0,0.0,0.0,-0.036991414,0.09348107,-0.17626533,0.061893422,-0.07217552,-0.032711085,-0.039424304,0.09588104,0.15095358,0.06256974,-0.065426,-0.06134025,0.052649397,-0.10058063,0.006945902,-0.061885014,0.00610044,0.12130918,0.07724204,0.070094205,-0.037262283,-0.01717202,0.08781681,-0.07626536,-0.03298087,-0.51903534,-0.79916,0.3525187,-0.46897185,0.21016525,0.36147898,0.89366025,0.06164167,0.32986984,0.70139825,-0.20846851,0.27884817,1.3531458,0.181579,0.6479151,-0.3930421,-0.35559285,-0.48949802,0.6597943,0.5515075,-0.0884007,-0.75098413,0.35254642,0.5777528
2025-07-21 14:15:27.141,2.4400000000000017,2440,122,-0.056402516,-0.09355901,-0.037627406,-0.015264595,0.052463267,-0.02234972,0.0,0.0,0.0,-0.03864915,0.12131447,-0.15175739,0.052936614,-0.07902609,-0.038322102,-0.057557046,0.09475249,0.15184984,0.05954756,-0.07908867,-0.021224186,0.060313176,0.10391079,0.016977455,-0.024041675,0.052506052,0.017397618,0.046862338,0.07790297,0.02257314,-0.0836894,-0.040064946,0.10767311,0.01281859,1.3531458,0.181579,0.6479151,-0.3930421,-0.35559285,-0.48949802,0.6597943,0.5515075,-0.0884007,-0.75098413,0.35254642,0.5777528,-0.38413393,-0.28901947,0.93548536,-0.36294422,-0.5589401,0.22576106,0.7748909,0.63604605,-0.18460482,0.1482147,-1.3712177,0.3806772
2025-07-21 14:15:27.166,2.4600000000000017,2460,123,0.14549124,0.10666438,-0.0017546508,0.0109880185,-0.042165652,0.021466302,0.0,0.0,0.0,-0.04015794,0.13128544,-0.16040833,0.07448288,-0.080324516,-0.07718222,-0.028764214,0.09511608,0.16757499,0.049278356,-0.06411108,-0.025564851,0.05142723,-0.028625946,0.05587132,-0.014000498,0.019104691,-0.13196364,0.08822003,0.06125828,0.09702566,0.01919042,0.0041752616,0.020167433,0.028626941,-0.38413393,-0.28901947,0.93548536,-0.36294422,-0.5589401,0.22576106,0.7748909,0.63604605,-0.18460482,0.1482147,-1.3712177,0.3806772,0.4571036,-0.39916128,0.21524402,-0.5706209,0.45468447,-0.36655036,0.9640764,-0.3170765,0.20111275,-0.22492021,-0.922957,0.2325361
2025-07-21 14:15:27.183,2.4800000000000018,2480,124,-0.024485698,0.05920861,-0.021127392,-0.052371822,0.05142442,-0.015237918,0.0,0.0,0.0,-0.040665764,0.120237514,-0.15869233,0.05805994,-0.08395095,-0.058319446,-0.042725496,0.11528204,0.1299057,0.044434633,-0.06327419,-0.052866135,0.049122907,-0.04101651,0.04793022,0.035116076,-0.039640486,0.10314386,-0.05059537,-0.0011042982,-0.108136944,0.02765556,-0.0074611697,-0.058552347,0.010274493,0.4571036,-0.39916128,0.21524402,-0.5706209,0.45468447,-0.36655036,0.9640764,-0.3170765,0.20111275,-0.22492021,-0.922957,0.2325361,0.18334599,-1.0122449,0.6953902,-0.39120993,-0.18446766,-0.12172073,0.7888449,0.562692,0.6244547,0.23268339,0.3888758,0.57953453
2025-07-21 14:15:27.201,2.5000000000000018,2500,125,0.03974619,-0.00954176,0.14614667,-0.07209533,0.04181507,0.013220493,0.0,0.0,0.0,-0.041207094,0.106613316,-0.1848576,0.06271893,-0.06994261,-0.054853365,-0.035436273,0.113553,0.14615554,0.04302362,-0.054976463,-0.032321036,0.048332028,-0.052912533,-0.10667047,-0.052918334,0.027464502,-0.0507632,0.010377939,-0.0069388584,-0.0028746657,0.03179413,0.009817392,0.15774493,-0.026472399,0.18334599,-1.0122449,0.6953902,-0.39120993,-0.18446766,-0.12172073,0.7888449,0.562692,0.6244547,0.23268339,0.3888758,0.57953453,0.56025,0.68865234,1.14475,-0.36082956,-0.12834664,0.13637751,0.76167387,0.9869377,-0.08865408,-0.5220684,-1.4703251,0.32924354
2025-07-21 14:15:27.221,2.520000000000002,2520,126,0.03630201,-0.08196801,-0.079768136,-0.0670128,0.008819207,0.047119625,0.0,0.0,0.0,-0.042806413,0.12202496,-0.19565898,0.07202489,-0.07219208,-0.065658204,-0.033596832,0.117791384,0.18521376,0.030001746,-0.056594916,-0.039332185,0.049260076,-0.028954806,-0.043039065,0.09026932,0.07928765,0.07228474,-0.051098395,-0.06914842,0.07482776,-0.08160024,0.029029926,-0.025377095,0.044264853,0.56025,0.68865234,1.14475,-0.36082956,-0.12834664,0.13637751,0.76167387,0.9869377,-0.08865408,-0.5220684,-1.4703251,0.32924354,0.0899059,-0.42986637,0.515227,-0.8208395,-0.22854944,-0.72028816,0.51230913,0.296842,0.39884505,0.25199607,0.12755659,0.88725775
2025-07-21 14:15:27.241,2.540000000000002,2540,127,0.0680901,-0.073430054,0.1518958,-0.05186938,-0.028552763,0.022316579,0.0,0.0,0.0,-0.043255754,0.10481151,-0.19096385,0.079054154,-0.09024715,-0.07145318,-0.04110927,0.10570103,0.18428393,0.034671772,-0.0557927,-0.017481714,0.06450923,0.042115975,-0.053829644,0.021020273,0.029655956,-0.015833903,-0.020329345,-0.050039157,-0.09190438,0.04657872,0.006791774,0.09666818,0.051844243,0.0899059,-0.42986637,0.515227,-0.8208395,-0.22854944,-0.72028816,0.51230913,0.296842,0.39884505,0.25199607,0.12755659,0.88725775,0.38150978,0.26391524,1.203457,-0.35039163,0.0149322245,-0.01951772,0.40871474,0.73263687,0.12500417,-0.78594154,-1.8915647,0.6798115
2025-07-21 14:15:27.268,2.560000000000002,2560,128,0.018494712,-0.065011896,-0.19166154,-0.05385191,-0.05141559,0.04678109,0.0,0.0,0.0,-0.044327646,0.09641096,-0.18442424,0.090381,-0.07760837,-0.0497429,-0.032949865,0.10918641,0.20217983,0.046610028,-0.07812317,-0.026959416,0.070707075,-0.05639647,0.038299784,-0.05071004,-0.044467397,-0.027509494,0.06983123,-0.05292632,0.039487887,-0.017789483,-0.011991909,-0.04491684,0.025562093,0.38150978,0.26391524,1.203457,-0.35039163,0.0149322245,-0.01951772,0.40871474,0.73263687,0.12500417,-0.78594154,-1.8915647,0.6798115,-0.4649325,-1.1598984,0.2513309,-0.713718,-0.013734659,-0.015350401,0.8483011,0.019807495,1.1048391,1.055226,0.5399711,0.6609871
2025-07-21 14:15:27.284,2.580000000000002,2580,129,0.00840398,-0.00037784028,0.2142532,-0.07724964,0.0047952016,-0.0061247484,0.0,0.0,0.0,-0.043473877,0.08116272,-0.19359493,0.075947866,-0.09297417,-0.050112743,-0.03998601,0.112824015,0.16773468,0.054946348,-0.05628704,-0.0100477375,0.0643903,-0.017522637,-0.0061988044,-0.06649311,0.054770324,-0.028409714,-0.024440702,0.043503005,-0.14629754,0.07362002,0.057097174,0.07662529,-0.08338747,-0.4649325,-1.1598984,0.2513309,-0.713718,-0.013734659,-0.015350401,0.8483011,0.019807495,1.1048391,1.055226,0.5399711,0.6609871,0.9193798,-0.017608944,0.2626747,-0.042999618,0.17482306,0.29346058,0.27937764,1.0475998,0.1626918,-1.0399965,-0.41543525,-0.00972458
2025-07-21 14:15:27.302,2.600000000000002,2600,130,-0.05697816,-0.051578134,-0.13407825,-0.048622984,0.023044817,-0.03713913,0.0,0.0,0.0,-0.044479445,0.09907202,-0.17502145,0.05363386,-0.07957185,-0.019791124,-0.014187355,0.099310786,0.1933618,0.0484366,-0.080595315,-0.0007679187,0.05782396,0.033536736,0.07373493,-0.0806518,0.10253841,0.10048887,-0.039874885,-0.078402065,0.1653367,0.015582848,-0.106023185,-0.016881566,-0.030271102,0.9193798,-0.017608944,0.2626747,-0.042999618,0.17482306,0.29346058,0.27937764,1.0475998,0.1626918,-1.0399965,-0.41543525,-0.00972458,-0.3316471,-1.0095638,0.31716982,-0.3521549,-0.3299486,-0.71954626,0.476028,-0.5625177,0.22024718,-0.3248765,0.26484329,0.29544193
2025-07-21 14:15:27.322,2.620000000000002,2620,131,0.061626904,0.25351906,0.07876227,-0.010640469,-0.004610076,-0.04712029,0.0,0.0,0.0,-0.04418712,0.09265761,-0.17299008,0.057539776,-0.06641886,-0.042272255,-0.032849304,0.09656891,0.1833475,0.04737921,-0.08118184,0.014928998,0.040522795,-0.063988455,-0.09647794,0.017246269,-0.06074606,-0.0075997207,0.028481817,0.024196954,-0.20382385,-0.021616247,-0.027544219,0.10892772,-0.03008031,-0.3316471,-1.0095638,0.31716982,-0.3521549,-0.3299486,-0.71954626,0.476028,-0.5625177,0.22024718,-0.3248765,0.26484329,0.29544193,0.3150772,-0.08204538,1.0159843,0.12821981,0.380663,0.24640042,0.5755159,1.0672114,0.1722461,-0.23723024,-1.2223554,0.19261074
2025-07-21 14:15:27.343,2.640000000000002,2640,132,-0.012419602,-0.11554814,-0.13645773,-0.036370374,-0.020970814,0.014872067,0.0,0.0,0.0,-0.04429543,0.09579444,-0.17615572,0.062263075,-0.07457133,-0.018122364,-0.033200793,0.10240103,0.17894194,0.043650623,-0.07236622,0.019680878,0.053402055,0.028945487,0.07340732,0.08070421,0.030496992,0.013090549,0.093294285,0.07249443,0.16078734,-0.100348435,-0.06651186,-0.051647153,-0.059531342,0.3150772,-0.08204538,1.0159843,0.12821981,0.380663,0.24640042,0.5755159,1.0672114,0.1722461,-0.23723024,-1.2223554,0.19261074,-0.3218831,-1.0945826,0.47835925,-0.5165888,0.014037231,-0.33252108,0.5931687,0.014866419,-0.03598637,0.36744475,-0.07846302,0.7751388
2025-07-21 14:15:27.366,2.660000000000002,2660,133,-0.053955983,0.17313883,0.123867705,-0.011855168,-0.050638083,-0.0056905462,0.0,0.0,0.0,-0.04379661,0.08070319,-0.19442263,0.06367928,-0.06328631,-0.029368214,-0.0333864,0.10446038,0.16132374,0.041000105,-0.07811349,-0.0010999517,0.061711114,-0.05599411,-0.06541204,0.045067247,0.059657566,0.0041581523,0.058115136,0.058866035,-0.09613451,-0.04938192,-0.004089608,0.050248586,-0.02983497,-0.3218831,-1.0945826,0.47835925,-0.5165888,0.014037231,-0.33252108,0.5931687,0.014866419,-0.03598637,0.36744475,-0.07846302,0.7751388,0.5402207,0.25208563,0.9089958,-0.14289579,0.31178185,-0.19112682,0.56194574,0.8673002,-0.16092715,-0.6022651,-1.1098996,0.24160826
2025-07-21 14:15:27.383,2.680000000000002,2680,134,-0.05085618,-0.065220945,-0.118306704,-0.051281355,0.004392029,-0.008524623,0.0,0.0,0.0,-0.04432021,0.08719112,-0.20529358,0.06291544,-0.050600257,0.010554298,-0.029627511,0.08997831,0.18650481,0.016350785,-0.07861804,-0.006040338,0.049077988,-0.015321954,0.02089557,0.0017111503,0.03007409,0.004416411,0.006061479,0.019868609,0.028256333,-0.008159209,-0.04356884,-0.12671337,-0.067342594,0.5402207,0.25208563,0.9089958,-0.14289579,0.31178185,-0.19112682,0.56194574,0.8673002,-0.16092715,-0.6022651,-1.1098996,0.24160826,0.059123505,-0.8635614,0.34002736,-0.7054718,0.039939262,-0.6009438,0.51196104,0.4076812,0.4828745,0.51333773,0.5888433,0.9340059
2025-07-21 14:15:27.402,2.700000000000002,2700,135,-0.04936971,0.03048363,0.18962473,-0.028682053,-0.015289703,0.038889498,0.0,0.0,0.0,-0.043967064,0.0911325,-0.20676555,0.059124168,-0.060746714,-0.0016739655,-0.05066196,0.09488635,0.18725382,0.036320396,-0.06476277,-0.014747149,0.049297992,-0.040359072,-0.11649624,-0.07269857,0.0009877929,0.034683734,-0.00633694,-0.01411927,0.007649443,0.039803736,0.056691978,0.043171447,-0.02318944,0.059123505,-0.8635614,0.34002736,-0.7054718,0.039939262,-0.6009438,0.51196104,0.4076812,0.4828745,0.51333773,0.5888433,0.9340059,0.6657898,0.5622674,0.95038474,-0.5193767,-0.36044684,-0.6185622,0.15920436,0.32938763,0.20996779,-0.7389756,-0.96524996,0.79868704
2025-07-21 14:15:27.422,2.720000000000002,2720,136,0.020883461,-0.0048625697,-0.12659062,-0.040469915,0.02322129,0.015559372,0.0,0.0,0.0,-0.045135062,0.088055715,-0.2168693,0.06777763,-0.06753687,-0.014903127,-0.06074971,0.08534355,0.18245505,0.03529963,-0.08521516,-0.008372572,0.07114762,0.002219355,0.04647454,-0.0029152923,-0.009312953,0.0049850047,0.05055144,-0.09613374,-0.07209052,-0.070522055,0.028397024,-0.05818184,0.005663341,0.6657898,0.5622674,0.95038474,-0.5193767,-0.36044684,-0.6185622,0.15920436,0.32938763,0.20996779,-0.7389756,-0.96524996,0.79868704,-0.28407687,-0.72305304,0.43797728,-0.70002854,-0.280088,-0.05908948,0.7940487,0.2955805,0.37672698,0.4273564,-0.21509333,0.58737606
2025-07-21 14:15:27.445,2.740000000000002,2740,137,-0.05231422,0.07359763,0.1442714,0.01470714,-0.0032529708,-0.049891133,0.0,0.0,0.0,-0.04520574,0.08177058,-0.2280604,0.06357946,-0.08640424,-0.0437971,-0.04278172,0.08375296,0.17628027,0.028870152,-0.07791405,-0.03080667,0.08071184,-0.0622322,0.023074312,0.03265868,0.027782613,-0.023754524,0.05641858,-0.018016417,-0.02272954,-0.05855412,0.041771095,-0.034957435,-0.06084318,-0.28407687,-0.72305304,0.43797728,-0.70002854,-0.280088,-0.05908948,0.7940487,0.2955805,0.37672698,0.4273564,-0.21509333,0.58737606,1.0090961,0.25241035,0.49641648,-0.25724447,0.1445315,-0.518735,0.46092463,0.34219044,0.32976988,-0.7497981,-0.28618497,0.40158546
2025-07-21 14:15:27.466,2.760000000000002,2760,138,0.003090625,0.032764714,-0.1356681,-0.070648484,0.043108672,0.047526468,0.0,0.0,0.0,-0.045865152,0.09868184,-0.2221503,0.051140133,-0.07350098,-0.025031537,-0.056434616,0.08218464,0.17368695,0.03850289,-0.080861546,-0.036926035,0.0625659,0.086345576,0.08059103,-0.085343465,0.045088094,0.0014703899,0.009020528,0.018225476,-0.07583588,-0.04103188,0.030049853,-0.044355284,0.057132624,1.0090961,0.25241035,0.49641648,-0.25724447,0.1445315,-0.518735,0.46092463,0.34219044,0.32976988,-0.7497981,-0.28618497,0.40158546,-0.3856274,-0.9559808,0.33091104,-0.4923097,-0.008995613,0.01660353,0.7790163,0.493628,0.5264416,0.5809735,0.08710837,0.32205665
2025-07-21 14:15:27.483,2.780000000000002,2780,139,-0.06633337,0.0073655685,0.17416324,0.017038021,-0.035869107,0.032780576,0.0,0.0,0.0,-0.04573332,0.106750205,-0.23331518,0.04705307,-0.085569546,-0.016840065,-0.05198515,0.09138386,0.16736147,0.052229416,-0.07073502,-0.034942903,0.052281324,-0.07972426,-0.015918696,-0.022211898,-0.007608704,-0.022274656,0.0516251,0.083522,-0.019513464,0.036586825,-0.009778949,0.049983993,-0.071558855,-0.3856274,-0.9559808,0.33091104,-0.4923097,-0.008995613,0.01660353,0.7790163,0.493628,0.5264416,0.5809735,0.08710837,0.32205665,0.9332939,0.56269693,0.7330799,-0.1873846,0.106602795,-0.4225787,0.34499785,0.3928978,0.03778582,-0.82613105,-0.6756932,0.41077754
2025-07-21 14:15:27.503,2.800000000000002,2800,140,-0.048487782,-0.0150490245,-0.07991858,-0.020028438,0.006020326,-0.002075547,0.0,0.0,0.0,-0.047075376,0.11172524,-0.22774936,0.06374175,-0.0764532,-0.017793214,-0.046258207,0.092966266,0.16480546,0.031376347,-0.09369599,-0.046876024,0.05434637,-0.0060403813,0.053685542,-0.028299553,-0.023884047,0.01944489,-0.0006105666,0.04190651,0.06071187,-0.032577086,-0.0068693515,-0.011964064,0.013253041,0.9332939,0.56269693,0.7330799,-0.1873846,0.106602795,-0.4225787,0.34499785,0.3928978,0.03778582,-0.82613105,-0.6756932,0.41077754,0.07642765,-0.4484223,0.48306626,-0.56924164,-0.112255774,-0.42756265,0.4285372,-0.09160539,0.20597455,0.1722705,-0.3652363,0.5749291
