openverse-orca/OrcaGym/log/simulation_log_20250605_115710.csv
timestamp,imu_angle_roll,imu_angle_pitch,imu_angle_yaw,imu_angular_velocity_roll,imu_angular_velocity_pitch,imu_angular_velocity_yaw,imu_acc_x,imu_acc_y,imu_acc_z,fl_joint1_pos,fl_joint1_vel,fl_joint1_torque,fl_joint2_pos,fl_joint2_vel,fl_joint2_torque,fl_joint3_pos,fl_joint3_vel,fl_joint3_torque,fr_joint1_pos,fr_joint1_vel,fr_joint1_torque,fr_joint2_pos,fr_joint2_vel,fr_joint2_torque,fr_joint3_pos,fr_joint3_vel,fr_joint3_torque,hl_joint1_pos,hl_joint1_vel,hl_joint1_torque,hl_joint2_pos,hl_joint2_vel,hl_joint2_torque,hl_joint3_pos,hl_joint3_vel,hl_joint3_torque,hr_joint1_pos,hr_joint1_vel,hr_joint1_torque,hr_joint2_pos,hr_joint2_vel,hr_joint2_torque,hr_joint3_pos,hr_joint3_vel,hr_joint3_torque,fl_force_x,fl_force_y,fl_force_z,fr_force_x,fr_force_y,fr_force_z,hl_force_x,hl_force_y,hl_force_z,hr_force_x,hr_force_y,hr_force_z,fl_hip_action,fl_thigh_action,fl_calf_action,fr_hip_action,fr_thigh_action,fr_calf_action,hl_hip_action,hl_thigh_action,hl_calf_action,hr_hip_action,hr_thigh_action,hr_calf_action
2025-06-05 11:57:10.908,0.045806017,0.024621556,-0.049342748,0.03343265,-0.030101135,-0.019321196,-1.2052884,-1.374708,0.0,0.0,0.0053096223,-0.0054059005,-0.0022394708,-0.0071009803,-0.0003735619,-0.00015645668,0.0017496204,0.00049110013,-0.006129279,0.0008124683,-0.0042701135,0.003560692,-0.0007648376,0.047171816,0.034835026,-0.018615806,0.030253788,-0.060470875,0.029316908,-0.01896047,0.059436224,-0.044242397,0.056465175,-0.011812764,0.0,0.0,0.0,0.0,0.0,0.0,0.0,0.0,0.0,0.0,0.0,0.0,2.0,-0.58829594,-0.5866663,-2.0,0.66606236,2.0,-2.0,-0.16662128,-1.983971,-2.0,-2.0,-2.0
2025-06-05 11:57:10.915,-0.11738842,-0.05994171,0.027529988,-0.0079631265,-0.018196804,-0.025954468,0.0,0.0,0.0,0.0,0.010155278,-0.021217043,-0.001687059,-0.009581781,0.026366308,0.03648233,-0.024899488,-0.005487477,-0.039946638,-0.021921415,-0.07219223,-0.035568014,0.045172382,-0.051049955,0.034414735,0.0036182231,0.035580035,0.098535575,-0.03878606,-0.0064112693,-0.0954332,-0.07610385,-0.14915325,-0.06471915,2.0,-0.58829594,-0.5866663,-2.0,0.66606236,2.0,-2.0,-0.16662128,-1.983971,-2.0,-2.0,-2.0,2.0,1.9913416,-2.0,-1.9488926,1.886564,-2.0,-2.0,-1.5282923,-0.19996914,-2.0,-2.0,-2.0
2025-06-05 11:57:10.932,-0.104026616,0.009306513,-0.019229732,0.0026736492,-0.02104102,0.02656356,0.0,0.0,0.0,-0.0002288197,0.031268124,0.03424244,-0.04734569,-0.025405567,0.07663141,0.0044681206,-0.020970058,-0.058980063,-0.037582323,-0.038750514,-0.14143792,-0.07076063,-0.023392146,0.20597623,-0.1305848,-0.05654012,0.23359393,-0.12782294,-0.019485578,-0.15901425,-0.047997806,-0.013724608,-0.17199244,-0.10298064,2.0,1.9913416,-2.0,-1.9488926,1.886564,-2.0,-2.0,-1.5282923,-0.19996914,-2.0,-2.0,-2.0,2.0,1.9976425,-2.0,-2.0,1.9597121,-2.0,-2.0,-2.0,-2.0,-2.0,-2.0,-2.0
2025-06-05 11:57:10.953,-0.041276738,-0.080723464,0.09449927,0.03747605,0.0029529496,0.004535707,0.0,0.0,0.0,-0.00059035135,0.021018095,0.08003813,-0.06515719,-0.031554975,0.14153153,-0.04242896,-0.039759953,-0.100859486,-0.043938782,-0.044443633,-0.18196303,-0.069039546,0.022486834,-0.011552678,-0.027771218,-0.022782411,0.023968292,-0.08757025,0.033174697,-0.18010741,0.06259289,-0.024202578,-0.066345006,0.061292443,2.0,1.9976425,-2.0,-2.0,1.9597121,-2.0,-2.0,-2.0,-2.0,-2.0,-2.0,-2.0,2.0,1.2655691,1.4348426,-2.0,2.0,-2.0,-2.0,-2.0,-2.0,0.92766863,-2.0,-2.0
2025-06-05 11:57:10.973,-0.044482276,0.046537064,-0.013822073,0.056127477,0.023973243,0.001215077,0.0,0.0,0.0,-0.001539954,0.027014038,0.09260085,-0.017261548,-0.04307173,0.1519939,-0.05804429,-0.042066403,-0.14699915,-0.032765027,-0.030850345,-0.20198414,-0.047803268,0.05377413,-0.05307049,0.16438617,0.03381125,-0.020655802,-0.031229801,-0.09730184,-0.15347971,0.070017256,0.078701064,-0.091099374,0.07493449,2.0,1.2655691,1.4348426,-2.0,2.0,-2.0,-2.0,-2.0,-2.0,0.92766863,-2.0,-2.0,2.0,1.4651569,2.0,-2.0,1.3977677,-2.0,-2.0,-2.0,-2.0,2.0,-2.0,-2.0
2025-06-05 11:57:10.994,-0.08555743,0.038672466,-0.04604888,-0.02742627,-0.0202788,-0.022079542,0.0,0.0,0.0,-0.0020736794,0.02699751,0.10174658,0.031038629,-0.040681746,0.1747913,-0.06966438,-0.05334633,-0.1728928,-0.04323581,-0.02987073,-0.23712462,-0.03725401,-0.008656426,0.048186988,0.11486064,0.028865863,-0.02338027,-0.019884853,-0.08843639,-0.059349917,-0.021903938,0.07522166,-0.036097594,0.07898119,2.0,1.4651569,2.0,-2.0,1.3977677,-2.0,-2.0,-2.0,-2.0,2.0,-2.0,-2.0,2.0,2.0,1.4154768,-2.0,0.72269905,-2.0,-2.0,-2.0,-2.0,2.0,-2.0,-2.0
2025-06-05 11:57:11.016,-0.217506,0.013971415,-0.0077289795,-0.02727781,-0.040811934,0.043056794,0.0,0.0,0.0,-0.0021274986,0.045077775,0.14980398,0.055611964,-0.038284246,0.15896855,-0.07697424,-0.059685346,-0.23288521,-0.07376304,-0.0022362093,-0.262153,-0.06454477,-0.019571582,0.104069,0.04761401,-0.04328484,0.05679069,-0.026831398,-0.067872286,-0.112430945,-0.089708924,0.07957322,-0.02224015,-0.07215333,2.0,2.0,1.4154768,-2.0,0.72269905,-2.0,-2.0,-2.0,-2.0,2.0,-2.0,-2.0,2.0,2.0,-2.0,-2.0,0.7189384,-2.0,-2.0,-2.0,-2.0,2.0,-2.0,-2.0
2025-06-05 11:57:11.034,-0.18148759,-0.025263445,0.037842263,0.011742371,-0.09782403,0.01099892,0.0,0.0,0.0,-0.0019546826,0.065001845,0.20877944,0.020398604,-0.03630722,0.16549173,-0.09288049,-0.07094214,-0.2704189,-0.06994761,0.008383118,-0.30368176,-0.108285405,-0.03601279,0.18928598,-0.19520615,0.05934706,-0.06907442,-0.074892424,-0.05999294,-0.095684715,0.02946531,0.10446962,-0.012333962,-0.08043419,2.0,2.0,-2.0,-2.0,0.7189384,-2.0,-2.0,-2.0,-2.0,2.0,-2.0,-2.0,2.0,2.0,-2.0,-2.0,0.8013778,2.0,-2.0,-2.0,-2.0,2.0,-2.0,-2.0
2025-06-05 11:57:11.054,0.06614272,-0.0674253,-0.020634543,0.006945512,-0.041762255,-0.012357515,0.0,0.0,0.0,-0.0017021479,0.074899256,0.26993725,-0.040914323,-0.05711057,0.17007065,-0.042158388,-0.091121234,-0.29464963,-0.055895172,0.025191873,-0.32298046,-0.1220503,0.05580966,0.015440875,-0.0763801,-0.05932425,-0.0071024606,0.1561759,0.017054789,-0.044356603,0.07510209,-0.028370721,-0.03317351,-0.10354837,2.0,2.0,-2.0,-2.0,0.8013778,2.0,-2.0,-2.0,-2.0,2.0,-2.0,-2.0,2.0,2.0,-2.0,-0.73776555,0.54814535,2.0,-2.0,-2.0,-2.0,2.0,-2.0,-2.0
2025-06-05 11:57:11.073,0.11942456,-0.17064142,-0.029177196,0.05085644,-0.07062302,-0.04141089,0.0,0.0,0.0,-0.001367361,0.07995201,0.2887278,-0.04748162,-0.04520515,0.16004671,0.021325916,-0.07773741,-0.30713382,-0.04670385,0.038836934,-0.3549329,-0.14417075,0.00013746636,0.10674183,-0.003542576,-0.027321044,-0.046399537,0.19260997,0.0007918366,0.027775425,-0.03170152,-0.007996189,-0.07646951,0.038867995,2.0,2.0,-2.0,-0.73776555,0.54814535,2.0,-2.0,-2.0,-2.0,2.0,-2.0,-2.0,2.0,2.0,-2.0,1.8972977,0.19557887,2.0,-2.0,-2.0,-2.0,2.0,-2.0,-2.0
2025-06-05 11:57:11.094,0.23720455,-0.22523989,0.0652091,0.08104271,-0.0830105,0.005141735,0.0,0.0,0.0,-0.0016738396,0.08252241,0.29302746,-0.050675925,-0.03919224,0.14522424,0.05035075,-0.07202247,-0.32067436,-0.062130794,0.059436873,-0.37778792,-0.12891747,0.017611967,-0.048346974,-0.0056394255,0.031619962,-0.072893314,0.026011206,-0.008178958,-0.098337494,-0.05644676,0.010412103,-0.06490074,0.08183177,2.0,2.0,-2.0,1.8972977,0.19557887,2.0,-2.0,-2.0,-2.0,2.0,-2.0,-2.0,2.0,2.0,-2.0,2.0,0.048070405,2.0,-2.0,-2.0,-2.0,2.0,-2.0,-2.0
2025-06-05 11:57:11.115,0.17217624,-0.14459841,0.0077278824,0.054268643,-0.04163135,0.0062813265,0.0,0.0,0.0,-0.0026874025,0.096204154,0.30583605,-0.061691847,-0.01133391,0.1272302,0.097719885,-0.07760749,-0.33368254,-0.08969791,0.077585526,-0.38829207,-0.12945098,9.4757605e-05,0.061783914,0.03417266,0.019518655,-0.032877944,0.03475718,0.022605501,0.014625408,-0.10440247,-0.0065699355,0.01933853,-0.019838454,2.0,2.0,-2.0,2.0,0.048070405,2.0,-2.0,-2.0,-2.0,2.0,-2.0,-2.0,2.0,2.0,-2.0,2.0,-0.26134932,2.0,-2.0,-2.0,-2.0,2.0,-2.0,-2.0
2025-06-05 11:57:11.134,0.10124285,-0.1549616,0.036516495,0.05480697,0.023659345,-0.008758175,0.0,0.0,0.0,-0.0037316873,0.10545268,0.31851128,-0.07072972,0.010330404,0.09480824,0.11263044,-0.07316369,-0.37266845,-0.11649674,0.08125566,-0.39923388,-0.102534264,0.070404515,0.09743956,-0.04648186,0.013028661,-0.0044239457,0.13410488,0.063201204,-0.025771638,-0.046224143,-0.037224516,-0.06394233,-0.0075488323,2.0,2.0,-2.0,2.0,-0.26134932,2.0,-2.0,-2.0,-2.0,2.0,-2.0,-2.0,0.75617284,2.0,-2.0,2.0,0.10176012,2.0,-2.0,-2.0,-2.0,2.0,-2.0,-2.0
2025-06-05 11:57:11.154,0.13422328,-0.10714841,0.0208093,0.019832043,-0.046653826,0.005827235,0.0,0.0,0.0,-0.004713065,0.09972274,0.3317943,-0.07288273,0.025394076,0.09112232,0.14658718,-0.07407367,-0.38865072,-0.14080675,0.09143057,-0.41884252,-0.099178374,-0.056712043,0.038912937,0.025102993,-0.031358786,-0.066717416,-0.008522949,0.059243817,-0.013937364,-0.08977663,0.0498452,-0.09521,0.036509283,0.75617284,2.0,-2.0,2.0,0.10176012,2.0,-2.0,-2.0,-2.0,2.0,-2.0,-2.0,-2.0,2.0,-2.0,2.0,-0.6265108,2.0,-2.0,-2.0,-2.0,2.0,-2.0,-2.0
2025-06-05 11:57:11.174,-0.037835542,-0.016856885,-0.040126365,0.025256502,-0.041144393,0.025761455,0.0,0.0,0.0,-0.0052313483,0.0759994,0.32473,-0.058706034,0.034439623,0.049307693,0.16797851,-0.081930615,-0.39659303,-0.17471938,0.095378116,-0.4323502,-0.09395615,-0.018177833,0.024097806,-0.024680072,0.020957293,-0.04950263,0.027393272,0.06409944,0.034890566,-0.060178142,-0.009086674,0.0013080506,0.05987817,-2.0,2.0,-2.0,2.0,-0.6265108,2.0,-2.0,-2.0,-2.0,2.0,-2.0,-2.0,-2.0,2.0,-2.0,2.0,-1.4773357,2.0,-2.0,-2.0,-2.0,2.0,-2.0,-2.0
2025-06-05 11:57:11.194,-0.0656846,-0.036724433,-0.030390764,0.029086163,-0.045815777,-0.040391162,0.0,0.0,0.0,-0.0047127935,0.05754102,0.35265663,-0.06786905,0.027434101,-0.0012977187,0.1825391,-0.080715016,-0.4212381,-0.19203898,0.09296416,-0.42046532,-0.08656917,0.0031687326,-0.003164763,-0.030132856,0.07359107,-0.19051129,0.11009266,0.05901164,-0.024194106,-0.03640991,0.0487687,-0.07643337,-0.023844466,-2.0,2.0,-2.0,2.0,-1.4773357,2.0,-2.0,-2.0,-2.0,2.0,-2.0,-2.0,-2.0,2.0,-2.0,2.0,-1.2938628,2.0,-2.0,-2.0,-2.0,2.0,-2.0,-2.0
2025-06-05 11:57:11.215,-0.064495295,-0.022397438,-0.07414979,0.095198005,0.033431184,-0.0008282324,0.0,0.0,0.0,-0.0033254342,0.036184326,0.35977784,-0.07951802,0.04061692,-0.06540817,0.2014452,-0.090687625,-0.42403227,-0.19127552,0.09509876,-0.43883163,-0.08977651,-0.0106194075,0.056774806,0.0310367,-0.03050094,-0.16950001,0.054772947,-0.023048768,0.0062351087,-0.016670693,0.050713442,-0.077902876,-0.047198035,-2.0,2.0,-2.0,2.0,-1.2938628,2.0,-2.0,-2.0,-2.0,2.0,-2.0,-2.0,-2.0,2.0,-2.0,2.0,-1.4932909,2.0,-2.0,-2.0,-2.0,2.0,-2.0,-2.0
2025-06-05 11:57:11.234,-0.028436473,0.03630075,-0.12528321,0.0826036,0.01081826,-0.026524255,0.0,0.0,0.0,-0.0014648541,0.012085647,0.36588213,-0.08547119,0.05690102,-0.11835012,0.21438009,-0.081552334,-0.4380728,-0.22168854,0.0896203,-0.44608486,-0.08917548,-0.006347821,-0.03672232,-0.067761086,0.07715681,-0.09780956,0.038944,-0.053325772,-0.088841654,-0.06289726,0.019049967,-0.00029968153,-0.019543624,-2.0,2.0,-2.0,2.0,-1.4932909,2.0,-2.0,-2.0,-2.0,2.0,-2.0,-2.0,-2.0,2.0,-2.0,2.0,-1.311835,2.0,-2.0,-2.0,-2.0,2.0,-2.0,-2.0
2025-06-05 11:57:11.255,0.03734505,0.025179321,-0.06068837,0.083151385,-0.010299278,-0.021477755,0.0,0.0,0.0,0.00046720612,-0.0071465946,0.36033508,-0.08134119,0.060633145,-0.15371718,0.21912314,-0.09382027,-0.43007773,-0.21171986,0.1043068,-0.4527289,-0.08408807,-0.095570125,-0.008461377,-0.047706965,0.09095519,-0.13364108,-0.030908005,0.01243056,-0.05545573,-0.015085132,-0.042512868,0.04538363,0.019402865,-2.0,2.0,-2.0,2.0,-1.311835,2.0,-2.0,-2.0,-2.0,2.0,-2.0,-2.0,-2.0,2.0,-2.0,2.0,-1.1740102,2.0,-2.0,-2.0,-2.0,2.0,-2.0,-2.0
2025-06-05 11:57:11.274,0.018490829,0.002310988,-0.087340765,0.07732342,0.009002683,-0.014358782,0.0,0.0,0.0,0.0022858505,-0.0463344,0.37776628,-0.077734455,0.062833376,-0.16329104,0.22806002,-0.0920597,-0.43153393,-0.22822276,0.10152158,-0.45043623,-0.06475119,-0.03819752,-0.0347036,-0.045074657,0.053737745,-0.029388124,-0.012412422,0.039049793,0.06012556,-0.053620964,0.050340816,-0.00899733,-0.01927414,-2.0,2.0,-2.0,2.0,-1.1740102,2.0,-2.0,-2.0,-2.0,2.0,-2.0,-2.0,-2.0,2.0,-2.0,2.0,-1.2728353,2.0,-2.0,-2.0,-2.0,1.8572125,-2.0,-2.0
2025-06-05 11:57:11.295,0.03605067,0.04782836,-0.07795398,0.06587328,-0.04273329,0.0046163513,0.0,0.0,0.0,0.0038704618,-0.057155263,0.37771365,-0.084224,0.08039454,-0.18578894,0.23871912,-0.08498446,-0.44343144,-0.2394944,0.11551733,-0.4564367,-0.06856764,-0.044755377,0.008797666,-0.0062095644,0.08120196,-0.08724554,-0.010261359,0.06878953,-0.021295419,0.058372192,-0.03311765,-0.048302904,0.010179116,-2.0,2.0,-2.0,2.0,-1.2728353,2.0,-2.0,-2.0,-2.0,1.8572125,-2.0,-2.0,-2.0,2.0,-2.0,2.0,-1.2763709,2.0,-2.0,-2.0,-2.0,2.0,-2.0,-2.0
2025-06-05 11:57:11.315,0.07527077,0.051436868,-0.06271651,0.07174241,-0.002871123,-0.0013092945,0.0,0.0,0.0,0.005124531,-0.0727679,0.38984117,-0.088108085,0.06742126,-0.20983523,0.24165064,-0.08370738,-0.4432675,-0.24225491,0.11555529,-0.4564012,-0.053741906,-0.10553991,0.079003744,0.022503614,-0.063940346,-0.019560829,0.042728674,0.038265444,0.061246272,-0.06422992,0.0391241,-0.043391038,0.06811771,-2.0,2.0,-2.0,2.0,-1.2763709,2.0,-2.0,-2.0,-2.0,2.0,-2.0,-2.0,-2.0,2.0,-2.0,2.0,-1.0423985,2.0,-2.0,-2.0,-2.0,1.0739906,-2.0,-2.0
2025-06-05 11:57:11.335,0.03786631,0.07096063,-0.004520276,0.09895046,0.0055470485,0.04734945,0.0,0.0,0.0,0.006116423,-0.09867242,0.40901333,-0.07808024,0.077446565,-0.22697482,0.24763106,-0.08884551,-0.44820362,-0.23530571,0.1250852,-0.46188506,-0.04187459,-0.08667708,0.0016954914,-0.0409709,0.021286199,-0.049097512,-0.048246443,-0.06170961,-0.047162455,-0.06362393,0.00891472,0.024704695,0.06838625,-2.0,2.0,-2.0,2.0,-1.0423985,2.0,-2.0,-2.0,-2.0,1.0739906,-2.0,-2.0,-2.0,2.0,-2.0,2.0,-0.6600384,2.0,-2.0,-2.0,-2.0,-0.9914729,-2.0,-2.0
2025-06-05 11:57:11.354,0.044606764,0.047219124,0.006487516,0.07854711,-0.003440141,-0.043568496,0.0,0.0,0.0,0.006642112,-0.11114191,0.4121596,-0.07202748,0.083029695,-0.2134475,0.25125414,-0.09544996,-0.45428333,-0.23911694,0.10186868,-0.46237305,-0.030295683,0.015861174,-0.03182891,-0.020887712,0.001852736,-0.042807408,-0.053155195,0.049435187,0.050861686,-0.0818897,-0.110278875,0.024310738,0.03459849,-2.0,2.0,-2.0,2.0,-0.6600384,2.0,-2.0,-2.0,-2.0,-0.9914729,-2.0,-2.0,-2.0,2.0,-2.0,2.0,-0.44705132,2.0,-2.0,-2.0,-2.0,-2.0,-2.0,-2.0
2025-06-05 11:57:11.375,-0.03598616,0.063823305,0.038128115,0.0019677223,0.055007126,-0.004785559,0.0,0.0,0.0,0.0061897854,-0.11827483,0.41187167,-0.067757726,0.07296325,-0.19487433,0.2519293,-0.09267202,-0.44851694,-0.2546559,0.07703658,-0.45917773,-0.040503025,-0.06495911,0.012913037,0.026321886,0.016864019,0.10091021,0.051319122,0.015983786,-0.0042543896,0.05472955,-0.017365284,-0.067562684,0.08226856,-2.0,2.0,-2.0,2.0,-0.44705132,2.0,-2.0,-2.0,-2.0,-2.0,-2.0,-2.0,-2.0,2.0,-2.0,2.0,-0.035444763,2.0,-2.0,-2.0,-2.0,-2.0,-2.0,-2.0
2025-06-05 11:57:11.397,0.0031622755,0.107228994,0.04659069,0.035939604,0.0349558,0.027917696,0.0,0.0,0.0,0.00478623,-0.13027619,0.4196468,-0.070773184,0.09142445,-0.16753443,0.24317957,-0.0856936,-0.46244425,-0.26074082,0.059336357,-0.47157082,-0.027443154,-0.09306504,0.076215595,-0.014752184,-0.05010384,0.02831982,-0.015717935,-0.05617322,-0.07421704,-0.035582665,-0.1223107,-0.042719673,-0.013813789,-2.0,2.0,-2.0,2.0,-0.035444763,2.0,-2.0,-2.0,-2.0,-2.0,-2.0,-2.0,-2.0,2.0,-2.0,2.0,0.102743596,2.0,-2.0,-2.0,-2.0,-2.0,-2.0,-2.0
2025-06-05 11:57:11.415,0.049608488,0.070898324,0.04376275,0.039241936,0.0019151397,-0.017018693,0.0,0.0,0.0,0.0029634926,-0.13738015,0.42497346,-0.063376755,0.08084453,-0.12306389,0.24537678,-0.085745156,-0.4548752,-0.26514688,0.033868134,-0.47413734,-0.034253623,-0.08517192,0.0057902485,0.06780606,-0.046240233,0.088928856,0.05274154,0.014170242,0.015535208,-0.075787775,-0.078921825,-0.01985175,0.072471365,-2.0,2.0,-2.0,2.0,0.102743596,2.0,-2.0,-2.0,-2.0,-2.0,-2.0,-2.0,-2.0,2.0,-2.0,2.0,0.08067605,2.0,-2.0,-1.8425183,-2.0,-2.0,-2.0,-2.0
2025-06-05 11:57:11.435,0.120044515,0.010020734,0.09280245,0.04951717,0.04642968,-0.03315884,0.0,0.0,0.0,0.0010749638,-0.13551487,0.43405104,-0.056285806,0.08572338,-0.107309066,0.25514615,-0.08857294,-0.4435077,-0.25742483,0.023092218,-0.48266867,-0.020251587,0.034728132,0.013930955,-0.061507534,-0.03054055,0.068617515,0.04414883,0.02766104,-0.023709964,-0.06471941,-0.020288508,-0.052854296,0.053668667,-2.0,2.0,-2.0,2.0,0.08067605,2.0,-2.0,-1.8425183,-2.0,-2.0,-2.0,-2.0,-2.0,2.0,-2.0,2.0,0.42851147,2.0,-2.0,-2.0,-2.0,-2.0,-2.0,-2.0
2025-06-05 11:57:11.455,0.091749996,0.06705231,0.12031818,0.06352709,0.047816157,-0.045441642,0.0,0.0,0.0,-0.00074072764,-0.14276245,0.43685323,-0.07098504,0.09310868,-0.06364012,0.25292456,-0.09225338,-0.44940266,-0.2694123,0.016494557,-0.485839,-0.023164855,-0.025656637,0.06175821,-0.052861586,0.014022957,0.080295414,-0.0072370195,-0.014169664,-0.018745217,-0.06909267,-0.02926559,-0.027874708,0.025593515,-2.0,2.0,-2.0,2.0,0.42851147,2.0,-2.0,-2.0,-2.0,-2.0,-2.0,-2.0,-2.0,2.0,-2.0,2.0,0.44163737,2.0,-2.0,-2.0,-2.0,-2.0,-1.5175974,-2.0
2025-06-05 11:57:11.475,0.19262457,0.027467525,0.015181298,0.06348703,0.055502668,-0.026371524,0.0,0.0,0.0,-0.0023386143,-0.156187,0.45153743,-0.059038233,0.09189185,-0.028636781,0.25233978,-0.07616693,-0.45723063,-0.25326222,-0.010212755,-0.46638232,-0.030677756,0.061335035,0.033492852,0.059991438,0.04823277,0.071175426,-0.040697638,0.020593857,0.027010908,0.008235424,-0.061561454,0.083897255,0.03463147,-2.0,2.0,-2.0,2.0,0.44163737,2.0,-2.0,-2.0,-2.0,-2.0,-1.5175974,-2.0,-2.0,2.0,-2.0,2.0,0.0007090308,2.0,-2.0,-1.9255989,-2.0,-2.0,-2.0,-2.0
2025-06-05 11:57:11.497,0.1868241,0.004486,0.052300833,0.033782497,0.052582376,0.0062264395,0.0,0.0,0.0,-0.0033685118,-0.15609328,0.46396336,-0.051863134,0.09468013,-0.023144925,0.24928579,-0.091016434,-0.4594335,-0.26750726,-0.011587811,-0.47336993,-0.033074364,-0.0668435,-0.023775594,-0.008948878,-0.066343725,0.05389812,0.07564621,0.028676499,-0.03179684,0.06423831,-0.07639709,0.014144911,0.049483337,-2.0,2.0,-2.0,2.0,0.0007090308,2.0,-2.0,-1.9255989,-2.0,-2.0,-2.0,-2.0,-2.0,2.0,-2.0,2.0,0.006042335,2.0,-2.0,-2.0,-2.0,-2.0,-2.0,-2.0
2025-06-05 11:57:11.515,0.16860446,0.015368129,0.063445136,0.04363135,0.12258576,-0.009501042,0.0,0.0,0.0,-0.004342708,-0.1491123,0.45516255,-0.056739803,0.091435075,-0.022131216,0.26287887,-0.08752962,-0.46393746,-0.26373947,-0.03315162,-0.47200006,-0.03819572,-0.009408058,0.027259748,-0.042780954,0.027013002,-0.029953538,0.026152667,-0.06683436,0.025261538,-0.006788281,-0.0005837161,0.0438309,-0.07755591,-2.0,2.0,-2.0,2.0,0.006042335,2.0,-2.0,-2.0,-2.0,-2.0,-2.0,-2.0,-2.0,2.0,-2.0,2.0,0.1721991,2.0,-2.0,-2.0,-2.0,-2.0,-2.0,-2.0
2025-06-05 11:57:11.535,0.15511218,0.0069219475,0.016623616,0.063571155,0.07807183,-0.010354006,0.0,0.0,0.0,-0.005259037,-0.16163692,0.4580714,-0.07331967,0.09475706,-0.0316473,0.2787484,-0.091960646,-0.4666486,-0.26656798,-0.042284917,-0.4690325,-0.050187025,-0.05139151,0.046329264,0.008811454,-0.0630674,-0.018248614,0.085348226,0.07278785,-0.070255704,-0.050876442,-0.078239284,0.025360912,0.014906232,-2.0,2.0,-2.0,2.0,0.1721991,2.0,-2.0,-2.0,-2.0,-2.0,-2.0,-2.0,-2.0,2.0,-2.0,2.0,0.17172441,1.6042215,-2.0,-1.9385135,-2.0,-2.0,-2.0,-2.0
2025-06-05 11:57:11.557,0.08983981,0.006774188,0.08612641,0.03221478,0.07753023,0.03838002,0.0,0.0,0.0,-0.0060133454,-0.14630648,0.46533418,-0.068590395,0.078921326,-0.03715469,0.282603,-0.0886842,-0.45396054,-0.26207978,-0.05333787,-0.4756641,-0.039550655,-0.009026319,0.008949795,-0.029270222,0.010729104,0.063476086,-0.056155235,0.021514554,-0.033979323,0.029551694,0.0035908045,-0.055752523,-0.00081789313,-2.0,2.0,-2.0,2.0,0.17172441,1.6042215,-2.0,-1.9385135,-2.0,-2.0,-2.0,-2.0,-2.0,2.0,-2.0,2.0,0.41970262,1.9483849,-2.0,-2.0,-2.0,-2.0,-1.8748993,-2.0
2025-06-05 11:57:11.576,0.038444955,-0.038579624,0.08454379,-0.003656033,0.068114474,0.04030185,0.0,0.0,0.0,-0.0069286427,-0.15683685,0.481469,-0.08601673,0.097488366,-0.028024076,0.28018644,-0.08253042,-0.46204025,-0.25896436,-0.05738413,-0.47506177,-0.06410448,0.049726907,-0.012350933,-0.07060481,0.029266939,-0.03448596,0.084270075,-0.029092329,-0.049375862,-0.050865546,0.04155951,0.057961315,-0.015122836,-2.0,2.0,-2.0,2.0,0.41970262,1.9483849,-2.0,-2.0,-2.0,-2.0,-1.8748993,-2.0,-2.0,2.0,-2.0,2.0,0.52155685,2.0,-2.0,-2.0,-2.0,-2.0,-1.7893898,-2.0
2025-06-05 11:57:11.600,0.0933886,0.021069087,0.0047920602,0.06813093,0.12682481,0.030446775,0.0,0.0,0.0,-0.0076912576,-0.15242992,0.47625396,-0.09632419,0.09631515,-0.031895705,0.2874836,-0.08347386,-0.46256897,-0.26647264,-0.05551853,-0.47367668,-0.06954577,-0.07845101,-0.034719337,-0.039521977,0.035510313,-0.023256326,0.060973648,-0.010481367,-0.046722747,-0.012697934,0.033281,0.08547848,0.013902818,-2.0,2.0,-2.0,2.0,0.52155685,2.0,-2.0,-2.0,-2.0,-2.0,-1.7893898,-2.0,-2.0,2.0,-2.0,2.0,0.1295304,1.3259974,-2.0,-1.8306848,-2.0,-2.0,-2.0,-2.0
2025-06-05 11:57:11.619,0.05203314,-0.04656003,0.07550994,0.043658014,0.08751309,0.01602206,0.0,0.0,0.0,-0.0081630545,-0.16819142,0.48704532,-0.097550035,0.091996565,-0.020527545,0.28343442,-0.08105189,-0.46278843,-0.2576662,-0.072667174,-0.47265452,-0.07602057,-0.010500376,0.0062713963,-0.012889768,0.044182304,-0.018856792,0.020064764,-0.020111626,-0.040963907,-0.022241894,-0.007255925,0.030724403,-0.07722471,-2.0,2.0,-2.0,2.0,0.1295304,1.3259974,-2.0,-1.8306848,-2.0,-2.0,-2.0,-2.0,-2.0,2.0,-2.0,2.0,0.87556005,0.049748093,-2.0,-2.0,-2.0,-2.0,-2.0,-2.0
2025-06-05 11:57:11.639,-0.11698572,-0.0029397733,0.03689878,0.050058816,0.14559057,0.041318685,0.0,0.0,0.0,-0.008897227,-0.15923268,0.49036452,-0.11099811,0.08317483,-0.018501421,0.27212986,-0.09117618,-0.44998714,-0.27257746,-0.0868672,-0.48595396,-0.07533427,-0.06108955,-0.063979834,-0.031973068,0.016256263,0.020580804,0.013382187,-0.01095822,-0.07063692,-0.020447109,-0.08212373,-0.017348964,-0.07572691,-2.0,2.0,-2.0,2.0,0.87556005,0.049748093,-2.0,-2.0,-2.0,-2.0,-2.0,-2.0,-2.0,2.0,-2.0,2.0,1.7263334,-2.0,-2.0,-1.8729005,-2.0,-2.0,-2.0,-2.0
2025-06-05 11:57:11.659,-0.28949374,0.057222493,0.06804501,-0.012227202,0.12747177,-0.011396209,0.0,0.0,0.0,-0.009800969,-0.16743596,0.4890117,-0.13294296,0.089835376,0.022443255,0.23022376,-0.09383306,-0.45238516,-0.26619872,-0.09644331,-0.48930982,-0.0841178,-0.015612424,-0.06056484,-0.011875933,0.063522145,0.089333065,-0.10338915,0.03652052,-0.054832436,-0.0120582245,0.0026616252,0.0070152413,-0.004205411,-2.0,2.0,-2.0,2.0,1.7263334,-2.0,-2.0,-1.8729005,-2.0,-2.0,-2.0,-2.0,-2.0,2.0,-2.0,2.0,2.0,-2.0,-2.0,-2.0,-2.0,-2.0,-2.0,-2.0
2025-06-05 11:57:11.682,-0.26861078,0.050306525,0.054604407,0.060661696,0.09587106,-0.028036457,0.0,0.0,0.0,-0.010893258,-0.17888345,0.49226335,-0.14493036,0.10695602,0.06306794,0.18202586,-0.08316515,-0.46154097,-0.26132497,-0.09125011,-0.48423436,-0.11298448,-0.057264708,0.03554408,0.010774039,0.060812905,0.09011077,-0.20762311,0.031318787,0.051612966,-0.05663298,0.027167447,-0.04770235,-0.06539068,-2.0,2.0,-2.0,2.0,2.0,-2.0,-2.0,-2.0,-2.0,-2.0,-2.0,-2.0,-2.0,2.0,-2.0,2.0,2.0,-2.0,-2.0,-1.6923392,-2.0,-2.0,-2.0,-2.0
2025-06-05 11:57:11.702,-0.26403046,0.07169659,0.025221847,0.041939788,0.043442376,-0.04409347,0.0,0.0,0.0,-0.011590688,-0.16589606,0.4983433,-0.15082859,0.09635357,0.10138256,0.12012121,-0.09839323,-0.45081696,-0.2645338,-0.10425974,-0.48687622,-0.118904114,-0.061477922,-0.03518497,0.0047412803,0.049048126,0.14029415,-0.16316412,0.06938414,0.08418416,0.04094877,-0.06702192,0.04514566,-0.009260673,-2.0,2.0,-2.0,2.0,2.0,-2.0,-2.0,-1.6923392,-2.0,-2.0,-2.0,-2.0,-2.0,2.0,-2.0,2.0,2.0,-2.0,-2.0,-1.7646844,-2.0,-2.0,-2.0,-2.0
2025-06-05 11:57:11.720,-0.29373205,0.11086606,0.04100199,-0.008280137,0.008699978,-0.03803401,0.0,0.0,0.0,-0.011895934,-0.1836677,0.4819708,-0.16611813,0.100377545,0.1385969,0.064222835,-0.08246272,-0.45061147,-0.26416048,-0.10727399,-0.47533703,-0.12672345,0.008641133,-0.060517363,0.05317618,0.035916865,0.08486154,-0.19421707,0.03357483,0.045519352,0.05447508,0.05632006,-0.02226741,-0.036346313,-2.0,2.0,-2.0,2.0,2.0,-2.0,-2.0,-1.7646844,-2.0,-2.0,-2.0,-2.0,-2.0,2.0,-2.0,2.0,2.0,-2.0,-2.0,-1.821786,-2.0,-2.0,-2.0,-2.0
2025-06-05 11:57:11.740,-0.27931035,0.12233623,0.010219651,-0.024365848,-0.04468951,-0.030228922,0.0,0.0,0.0,-0.012041442,-0.1747074,0.4983592,-0.17552091,0.109399095,0.17613734,0.018292755,-0.09320562,-0.43578592,-0.27059546,-0.11353234,-0.49220163,-0.12482773,-0.04043233,0.050830998,0.048179165,-0.015164104,0.040608134,-0.09853387,0.014805789,-0.0077730576,-0.01760819,0.06988471,0.021045106,-0.07222482,-2.0,2.0,-2.0,2.0,2.0,-2.0,-2.0,-1.821786,-2.0,-2.0,-2.0,-2.0,-2.0,2.0,-2.0,2.0,2.0,-2.0,-2.0,-2.0,-2.0,-2.0,-2.0,-2.0
2025-06-05 11:57:11.761,-0.24016602,0.094071776,0.034951396,0.0149689615,-0.02145454,0.047914665,0.0,0.0,0.0,-0.012141041,-0.17194659,0.49867922,-0.1755738,0.115506016,0.21520276,-0.030694077,-0.08404029,-0.44894072,-0.26612517,-0.11574622,-0.49303767,-0.12648451,0.07505409,0.058049593,0.0038442453,-0.054228142,0.13334024,-0.056681518,0.039978657,-0.06570497,-0.046089783,0.07747288,-0.019305108,-0.043538652,-2.0,2.0,-2.0,2.0,2.0,-2.0,-2.0,-2.0,-2.0,-2.0,-2.0,-2.0,-2.0,2.0,-2.0,2.0,2.0,-2.0,-2.0,-2.0,-2.0,-2.0,-2.0,-2.0
2025-06-05 11:57:11.782,-0.18035318,0.112688966,-0.012057223,-0.03898287,-0.040590484,0.039099317,0.0,0.0,0.0,-0.012205725,-0.17259961,0.48614505,-0.15769802,0.10250581,0.25968575,-0.07380188,-0.08943848,-0.45764133,-0.26312307,-0.11383116,-0.49406114,-0.11284485,0.043300617,-0.024227887,0.08160694,-0.002346573,0.11161489,-0.09813182,0.067905344,0.014261442,0.044394363,0.0574062,0.008628365,0.0522467,-2.0,2.0,-2.0,2.0,2.0,-2.0,-2.0,-2.0,-2.0,-2.0,-2.0,-2.0,-2.0,2.0,-2.0,2.0,2.0,-2.0,-2.0,-2.0,-2.0,-2.0,-2.0,-2.0
2025-06-05 11:57:11.800,-0.058755312,0.13313472,0.06682302,-0.05096872,-0.0035480694,0.0017355861,0.0,0.0,0.0,-0.012430846,-0.17199111,0.49439248,-0.15098125,0.11177718,0.29278043,-0.10079609,-0.09160859,-0.4673115,-0.23758143,-0.09010067,-0.48868597,-0.13100462,-0.01540432,0.08594629,0.04917396,0.07466665,0.12966818,-0.121048495,-0.04975954,-0.017852053,0.023008598,0.013400997,0.012472866,-0.050543163,-2.0,2.0,-2.0,2.0,2.0,-2.0,-2.0,-2.0,-2.0,-2.0,-2.0,-2.0,-2.0,2.0,-2.0,2.0,2.0,-2.0,-2.0,-2.0,-2.0,-2.0,-2.0,-2.0
2025-06-05 11:57:11.820,-0.05260718,0.045505147,-0.0062285303,0.02582081,-0.0142598115,-0.011585002,0.0,0.0,0.0,-0.013015482,-0.16914882,0.50191504,-0.14673598,0.12270916,0.3115344,-0.12013451,-0.090523295,-0.4656892,-0.2260453,-0.08598121,-0.46776316,-0.13000591,-0.021144193,-0.0025859114,-0.016156347,0.043254945,-0.01746196,-0.07784193,0.021616224,-0.053879794,0.0672282,0.07939281,0.079425,-0.08594425,-2.0,2.0,-2.0,2.0,2.0,-2.0,-2.0,-2.0,-2.0,-2.0,-2.0,-2.0,-2.0,2.0,-2.0,2.0,2.0,-2.0,-2.0,-2.0,-2.0,-2.0,-2.0,-2.0
2025-06-05 11:57:11.840,-0.050575208,0.053843573,-0.029342309,0.01983524,-0.040969286,-0.03555956,0.0,0.0,0.0,-0.013545686,-0.16064328,0.50142395,-0.1411629,0.13708027,0.335285,-0.13056807,-0.096043535,-0.48721874,-0.21844527,-0.08946892,-0.47204322,-0.14601654,0.021074994,0.048260234,0.023048865,0.005971847,0.053660177,-0.12099569,0.02100611,-0.029849483,0.023649924,-0.06407294,0.04685951,-0.03540577,-2.0,2.0,-2.0,2.0,2.0,-2.0,-2.0,-2.0,-2.0,-2.0,-2.0,-2.0,-2.0,2.0,-2.0,2.0,1.9684079,-2.0,-2.0,-2.0,-2.0,-2.0,-2.0,-2.0
2025-06-05 11:57:11.860,-0.064114906,0.018623479,0.013824414,-0.0026007446,-0.09590855,0.0068485667,0.0,0.0,0.0,-0.013860203,-0.14979933,0.505857,-0.12781595,0.13601692,0.3567592,-0.1575638,-0.088273585,-0.49149856,-0.1997098,-0.093460135,-0.4708447,-0.15474427,0.05861999,-0.005551459,0.07515458,-0.02005321,0.0050654556,0.0071361726,-0.023222134,-0.050026927,0.025646428,0.075570576,0.06617996,-0.065492146,-2.0,2.0,-2.0,2.0,1.9684079,-2.0,-2.0,-2.0,-2.0,-2.0,-2.0,-2.0,-2.0,2.0,-2.0,2.0,2.0,-2.0,-2.0,-2.0,-2.0,-2.0,-2.0,-2.0
2025-06-05 11:57:11.882,-0.0036829251,-0.028885668,-0.01043245,-0.04076704,-0.10286982,-0.045897443,0.0,0.0,0.0,-0.013968079,-0.1469008,0.51662415,-0.12292455,0.1397263,0.35856858,-0.1603636,-0.0885925,-0.48736897,-0.20377049,-0.0981438,-0.47547024,-0.1449727,-0.015511326,-0.0044717933,0.040871717,-0.0343781,0.06806729,-0.0568495,-0.049772322,-0.06773447,-0.008349335,0.05893623,0.06611102,-0.0062664836,-2.0,2.0,-2.0,2.0,2.0,-2.0,-2.0,-2.0,-2.0,-2.0,-2.0,-2.0,-2.0,2.0,-2.0,2.0,2.0,-2.0,-2.0,-2.0,-2.0,-2.0,-2.0,-2.0
2025-06-05 11:57:11.900,-0.00087792665,-0.011266984,0.04977388,0.029524388,-0.0973402,0.028679866,0.0,0.0,0.0,-0.013999818,-0.15804493,0.5237207,-0.12989496,0.14616494,0.3779118,-0.1731408,-0.08827663,-0.49108535,-0.19575939,-0.0857997,-0.46580347,-0.15877217,0.0053652623,0.022303833,-0.042415336,0.0007674047,-0.02036642,-0.09205242,0.04673811,0.0046469634,0.055152368,0.07637167,0.02973148,0.027139274,-2.0,2.0,-2.0,2.0,2.0,-2.0,-2.0,-2.0,-2.0,-2.0,-2.0,-2.0,-2.0,2.0,-2.0,2.0,2.0,-2.0,-2.0,-2.0,-2.0,-2.0,-2.0,-2.0
2025-06-05 11:57:11.921,-0.005712154,-0.034420248,0.035124477,-0.0074750525,-0.058691934,-0.04017254,0.0,0.0,0.0,-0.013968381,-0.14635725,0.52715963,-0.12679836,0.13648416,0.38446856,-0.18498503,-0.106730215,-0.48687667,-0.18475264,-0.09410608,-0.47511756,-0.15147828,0.04331172,-0.034952533,-0.06526246,-0.0055776625,-0.05326391,0.02566048,0.043662403,0.057137217,-0.039676495,0.0011318304,0.0017623659,0.07301576,-2.0,2.0,-2.0,2.0,2.0,-2.0,-2.0,-2.0,-2.0,-2.0,-2.0,-2.0,-2.0,2.0,-2.0,2.0,2.0,-2.0,-2.0,-2.0,-2.0,-2.0,-2.0,-2.0
2025-06-05 11:57:11.941,-0.0075660767,-0.037938043,0.028095655,-0.06024096,-0.12166325,0.03534364,0.0,0.0,0.0,-0.01389524,-0.15776058,0.5100793,-0.11944256,0.14013425,0.39299,-0.18782052,-0.0958252,-0.5011395,-0.18586937,-0.082294516,-0.47671455,-0.15329297,0.055389106,0.06919475,0.029605698,-0.0009021413,-0.01887559,0.013018873,-0.02956122,0.03455522,-0.041710198,-0.012137504,0.035575114,0.07204857,-2.0,2.0,-2.0,2.0,2.0,-2.0,-2.0,-2.0,-2.0,-2.0,-2.0,-2.0,-2.0,2.0,-2.0,2.0,2.0,-2.0,-2.0,-2.0,-2.0,-2.0,-2.0,-2.0
2025-06-05 11:57:11.961,-0.0068080383,-0.025399245,-0.025364013,0.016144108,-0.0447716,-0.034891214,0.0,0.0,0.0,-0.013804158,-0.15592985,0.5266368,-0.12500426,0.15149783,0.390539,-0.19539134,-0.096402444,-0.49260217,-0.180597,-0.074672505,-0.47253788,-0.16044967,-0.00023565163,0.03699588,0.014234665,-0.019048462,-0.057504807,-0.068212554,0.036808368,0.070070826,-0.001020965,-0.03695753,-0.031508237,-0.03429227,-2.0,2.0,-2.0,2.0,2.0,-2.0,-2.0,-2.0,-2.0,-2.0,-2.0,-2.0,-2.0,2.0,-2.0,2.0,1.6254768,-2.0,-2.0,-2.0,-2.0,-2.0,-2.0,-2.0
2025-06-05 11:57:11.982,-0.005116782,-0.05562825,0.046047974,-0.02109682,-0.08815726,0.004468031,0.0,0.0,0.0,-0.013714023,-0.15676583,0.5107756,-0.13168052,0.13467097,0.39106536,-0.19797836,-0.10372264,-0.5021426,-0.19281287,-0.07964785,-0.46619922,-0.1600667,0.04574098,0.013426455,-0.02621677,-0.050574303,0.06041069,-0.03260774,-0.016066534,0.00058425055,-0.0009808618,-0.05018946,0.0021730494,-0.04831509,-2.0,2.0,-2.0,2.0,1.6254768,-2.0,-2.0,-2.0,-2.0,-2.0,-2.0,-2.0,-2.0,2.0,-2.0,2.0,2.0,-2.0,-2.0,-2.0,-2.0,-2.0,-2.0,-2.0
2025-06-05 11:57:12.001,0.021769086,-0.028143814,0.04227106,0.026562601,-0.112010054,-0.018202798,0.0,0.0,0.0,-0.013840502,-0.14395598,0.5192605,-0.12852542,0.14335643,0.38576376,-0.18846624,-0.108991876,-0.5074593,-0.17722487,-0.07873821,-0.48186806,-0.16259842,-0.0665336,-0.009615578,0.001057809,0.029259285,0.059872232,-0.00018243176,-0.0032540075,-0.012184231,0.03828683,-0.0054697036,-0.07212726,-0.05134379,-2.0,2.0,-2.0,2.0,2.0,-2.0,-2.0,-2.0,-2.0,-2.0,-2.0,-2.0,-2.0,2.0,-2.0,2.0,2.0,-2.0,-2.0,-2.0,-2.0,-2.0,-2.0,-2.0
2025-06-05 11:57:12.022,-0.045756683,-0.047547933,-0.044010565,0.025152387,-0.09564658,-0.044460867,0.0,0.0,0.0,-0.013850466,-0.15253852,0.514514,-0.123808764,0.1442782,0.40468356,-0.20666549,-0.101843,-0.5087211,-0.1858905,-0.09070839,-0.4675608,-0.16469035,-0.047629394,-0.069540195,-0.07281595,0.00879711,0.07564538,-0.034336533,0.026546104,0.061578613,0.009640839,-0.0317623,-0.05237426,-0.035681557,-2.0,2.0,-2.0,2.0,2.0,-2.0,-2.0,-2.0,-2.0,-2.0,-2.0,-2.0,-2.0,2.0,-2.0,2.0,1.5547813,-2.0,-2.0,-2.0,-2.0,-2.0,-2.0,-2.0
2025-06-05 11:57:12.040,-0.014903284,-0.0089889085,0.005020023,-0.004897732,-0.09256522,0.028597254,0.0,0.0,0.0,-0.013729815,-0.15311818,0.52629495,-0.12642768,0.15678124,0.39475638,-0.2071048,-0.11503158,-0.50068617,-0.18839076,-0.08039814,-0.485051,-0.1491922,-0.051695656,0.05828278,-0.038088113,-0.021500787,-0.02285044,0.050759587,0.046548903,0.025589636,-0.074276805,-0.033388864,0.059366606,0.071426585,-2.0,2.0,-2.0,2.0,1.5547813,-2.0,-2.0,-2.0,-2.0,-2.0,-2.0,-2.0,-2.0,2.0,-2.0,2.0,1.9513606,-2.0,-2.0,-2.0,-2.0,-2.0,-2.0,-2.0
2025-06-05 11:57:12.061,-0.016598715,0.016166352,-0.033493694,-0.019604597,-0.12023617,0.0036564213,0.0,0.0,0.0,-0.013830527,-0.15622215,0.5132971,-0.120675,0.15030433,0.40368548,-0.20548491,-0.10570846,-0.49365282,-0.19768274,-0.09115897,-0.48204237,-0.16293988,-0.03155238,-0.0617787,-0.049117785,0.028633753,-0.058025718,-0.045064162,0.054092813,0.059576612,-0.0038693452,-0.036101818,0.020423919,-0.054566484,-2.0,2.0,-2.0,2.0,1.9513606,-2.0,-2.0,-2.0,-2.0,-2.0,-2.0,-2.0,-2.0,2.0,-2.0,2.0,1.5633067,-2.0,-2.0,-2.0,-2.0,-2.0,-2.0,-2.0
2025-06-05 11:57:12.082,-0.041838273,-0.048524432,-0.040857807,-0.061422672,-0.10291269,-0.04563623,0.0,0.0,0.0,-0.013823307,-0.15058838,0.51191497,-0.14063378,0.14139998,0.390788,-0.1910462,-0.108677626,-0.49139485,-0.18391943,-0.08811258,-0.48916632,-0.15737031,-0.0732563,0.016155137,0.053322706,0.032129906,0.05547836,-0.051580247,-0.05051988,-0.026451629,0.046674456,-0.05845803,0.046274275,0.008651654,-2.0,2.0,-2.0,2.0,1.5633067,-2.0,-2.0,-2.0,-2.0,-2.0,-2.0,-2.0,-2.0,2.0,-2.0,2.0,1.7573819,-2.0,-2.0,-2.0,-2.0,-2.0,-2.0,-2.0
2025-06-05 11:57:12.101,-0.005408593,-0.034444574,0.0012383187,-0.001054289,-0.08813607,-0.012188647,0.0,0.0,0.0,-0.013894329,-0.15446293,0.5111572,-0.13174358,0.15155196,0.38790995,-0.18928604,-0.10024268,-0.4942244,-0.1913235,-0.08022226,-0.48009932,-0.14740999,-0.06335782,-0.0021895617,-0.072694175,-0.061004136,-0.04259648,-0.036223702,-0.039009463,-0.057681985,-0.044675533,0.0065783756,0.02098325,0.012695328,-2.0,2.0,-2.0,2.0,1.7573819,-2.0,-2.0,-2.0,-2.0,-2.0,-2.0,-2.0,-2.0,2.0,-2.0,2.0,2.0,-2.0,-2.0,-2.0,-2.0,-2.0,-2.0,-2.0
2025-06-05 11:57:12.121,-0.03363334,-0.020970805,-0.03277227,-0.02154805,-0.07006249,0.03599746,0.0,0.0,0.0,-0.013957967,-0.16325173,0.5148382,-0.123284094,0.14323433,0.3973934,-0.19629206,-0.119099796,-0.49805522,-0.20499112,-0.08110472,-0.48291546,-0.1502974,-0.07827748,0.033632226,-0.011392659,-0.039015215,-0.05015582,-0.03525549,-0.02332216,-0.013280827,-0.065146506,0.044971637,0.053018488,0.07157599,-2.0,2.0,-2.0,2.0,2.0,-2.0,-2.0,-2.0,-2.0,-2.0,-2.0,-2.0,-2.0,2.0,-2.0,2.0,1.7989624,-2.0,-2.0,-2.0,-2.0,-2.0,-2.0,-2.0
2025-06-05 11:57:12.141,-0.0063641653,-0.011620465,-0.04460476,-0.04040152,-0.040617533,-0.03788258,0.0,0.0,0.0,-0.013804223,-0.15859431,0.50429803,-0.13956425,0.15575412,0.39749166,-0.19255145,-0.11491397,-0.4991962,-0.19956288,-0.079869695,-0.47567925,-0.15980938,0.07307826,0.0340285,-0.0021519747,0.010379467,-0.050297976,0.04616072,0.059625357,0.043428093,0.044255372,0.00020849543,0.056487758,-0.05004373,-2.0,2.0,-2.0,2.0,1.7989624,-2.0,-2.0,-2.0,-2.0,-2.0,-2.0,-2.0,-2.0,2.0,-2.0,2.0,1.4814842,-2.0,-2.0,-2.0,-2.0,-2.0,-2.0,-2.0
2025-06-05 11:57:12.164,0.0007925044,0.023419894,0.018552432,-0.055560607,-0.07683349,-0.026312107,0.0,0.0,0.0,-0.013683056,-0.16038617,0.50729156,-0.13110736,0.15866661,0.38318354,-0.20449686,-0.11109529,-0.50679606,-0.20409498,-0.087791696,-0.49275956,-0.14897563,-0.051002175,0.059824757,0.025348896,0.013194529,0.061101966,0.0056431987,-0.034247216,0.018361118,0.014002559,-0.030361772,-0.05165419,0.005684285,-2.0,2.0,-2.0,2.0,1.4814842,-2.0,-2.0,-2.0,-2.0,-2.0,-2.0,-2.0,-2.0,2.0,-2.0,2.0,2.0,-2.0,-2.0,-2.0,-2.0,-2.0,-2.0,-2.0
2025-06-05 11:57:12.182,0.029425468,0.034267854,-0.007454995,0.01627881,-0.117138125,0.039419465,0.0,0.0,0.0,-0.013802938,-0.14977671,0.5048541,-0.13896261,0.15003419,0.3973604,-0.20404619,-0.103555165,-0.5032158,-0.21076672,-0.081960134,-0.48968166,-0.1516431,-0.05917476,-0.00746193,0.071662486,0.026931938,0.04090846,0.03173479,0.05143595,0.04444347,-0.01231142,0.020301385,-0.0480134,0.024518823,-2.0,2.0,-2.0,2.0,2.0,-2.0,-2.0,-2.0,-2.0,-2.0,-2.0,-2.0,-2.0,2.0,-2.0,2.0,2.0,-2.0,-2.0,-2.0,-2.0,-2.0,-2.0,-2.0
2025-06-05 11:57:12.201,0.025136169,-0.00029731673,0.017478216,0.028319523,-0.039159346,-0.029315446,0.0,0.0,0.0,-0.013725058,-0.16209887,0.5116638,-0.12635028,0.14473663,0.38460472,-0.20003517,-0.11032445,-0.5028755,-0.19858451,-0.08179361,-0.4914254,-0.16919152,0.020392755,-0.059204902,0.002168349,0.004440443,-0.046189222,0.04138524,-0.024376411,0.047385193,0.005288603,-0.039527506,0.00928053,-0.036614235,-2.0,2.0,-2.0,2.0,2.0,-2.0,-2.0,-2.0,-2.0,-2.0,-2.0,-2.0,-2.0,2.0,-2.0,2.0,2.0,-2.0,-2.0,-2.0,-2.0,-2.0,-2.0,-2.0
2025-06-05 11:57:12.221,0.05175252,0.017221982,-0.036246166,-0.028652104,-0.06234337,-0.007886536,0.0,0.0,0.0,-0.013478968,-0.1708061,0.49450642,-0.12515002,0.15712698,0.39644703,-0.20746858,-0.1038417,-0.5073568,-0.1937275,-0.09761763,-0.47664613,-0.15645593,-0.046935394,-0.052769277,-0.022247516,0.06851302,-0.018317223,-0.003853066,-0.05897347,0.032373264,0.047627132,-0.05234678,-0.070163,-0.012083046,-2.0,2.0,-2.0,2.0,2.0,-2.0,-2.0,-2.0,-2.0,-2.0,-2.0,-2.0,-2.0,2.0,-2.0,2.0,1.5180662,-2.0,-2.0,-2.0,-2.0,-2.0,-2.0,-2.0
2025-06-05 11:57:12.242,-0.003881355,-0.038723756,-0.016492626,-0.043052442,-0.11584247,0.045634888,0.0,0.0,0.0,-0.013229959,-0.16565219,0.5050688,-0.13138938,0.14869325,0.3936277,-0.20323595,-0.115821086,-0.50222135,-0.19837254,-0.08169149,-0.4824302,-0.15462212,-0.034957595,-0.03771453,0.045978986,0.06569719,-0.03316438,0.022980204,-0.049315013,-0.049774177,0.0034406565,-0.05875743,-0.041848555,-0.055538956,-2.0,2.0,-2.0,2.0,1.5180662,-2.0,-2.0,-2.0,-2.0,-2.0,-2.0,-2.0,-2.0,2.0,-2.0,2.0,1.7296225,-2.0,-2.0,-2.0,-2.0,-2.0,-2.0,-2.0
2025-06-05 11:57:12.264,0.0410863,-0.03968536,0.02442017,0.0018206045,-0.056226794,0.039083693,0.0,0.0,0.0,-0.013274124,-0.15495464,0.4929435,-0.13408908,0.165318,0.40351358,-0.20939538,-0.11524922,-0.49474135,-0.20987007,-0.091799445,-0.48435396,-0.16701621,-0.008602754,0.008746762,0.010035748,0.01829302,0.023471495,-0.010614903,-0.0059388424,-0.046421334,-0.0013713395,0.006714876,-0.07021416,-0.06775657,-2.0,2.0,-2.0,2.0,1.7296225,-2.0,-2.0,-2.0,-2.0,-2.0,-2.0,-2.0,-2.0,2.0,-2.0,2.0,2.0,-2.0,-2.0,-2.0,-2.0,-2.0,-2.0,-2.0
2025-06-05 11:57:12.282,0.011483863,0.01352224,-0.03310166,-0.003155585,-0.02466958,-0.019779602,0.0,0.0,0.0,-0.013372028,-0.16194397,0.5035247,-0.12640528,0.15604402,0.38792467,-0.20839387,-0.119442776,-0.4920172,-0.20164391,-0.07985323,-0.4915057,-0.15633747,-0.0602836,0.061497018,0.012431079,0.007887414,0.037175935,-0.007977989,0.021103432,-0.027514862,-0.06898883,-0.065442145,0.008347555,0.014606908,-2.0,2.0,-2.0,2.0,2.0,-2.0,-2.0,-2.0,-2.0,-2.0,-2.0,-2.0,-2.0,2.0,-2.0,2.0,1.634867,-2.0,-2.0,-2.0,-2.0,-2.0,-2.0,-2.0
2025-06-05 11:57:12.302,0.044893716,-0.045234125,-0.016676744,0.024249695,-0.107992336,-0.047158353,0.0,0.0,0.0,-0.013241796,-0.155985,0.50543195,-0.12616177,0.1578727,0.39389005,-0.19522786,-0.103778325,-0.51038855,-0.19751945,-0.09798164,-0.49615675,-0.1607547,-0.052925475,0.050985146,-0.042182155,0.015014175,-0.0625467,-0.05403106,-0.035741694,-0.026387712,0.0021376798,-0.048535652,-0.04583873,0.06793082,-2.0,2.0,-2.0,2.0,1.634867,-2.0,-2.0,-2.0,-2.0,-2.0,-2.0,-2.0,-2.0,2.0,-2.0,2.0,1.6206878,-2.0,-2.0,-2.0,-2.0,-2.0,-2.0,-2.0
2025-06-05 11:57:12.322,0.04020033,0.028924504,0.03636697,0.040242456,-0.11336127,-0.045888055,0.0,0.0,0.0,-0.013206771,-0.15975957,0.49221233,-0.13277239,0.15008163,0.39209014,-0.20644793,-0.10562876,-0.50426257,-0.2002034,-0.08836868,-0.4918029,-0.1537421,-0.011509857,0.008612593,-0.07101482,-0.038453344,-0.012274516,-0.060633898,-0.048420534,0.06032396,0.004726277,-0.055190917,-0.07636892,-0.04292759,-2.0,2.0,-2.0,2.0,1.6206878,-2.0,-2.0,-2.0,-2.0,-2.0,-2.0,-2.0,-2.0,2.0,-2.0,2.0,2.0,-2.0,-2.0,-2.0,-2.0,-2.0,-2.0,-2.0
2025-06-05 11:57:12.342,0.02618064,0.003088984,-0.0017185406,-0.0094824275,-0.05812653,-0.029150903,0.0,0.0,0.0,-0.013293294,-0.17232795,0.4950292,-0.1322867,0.15062706,0.40578845,-0.19575837,-0.10863709,-0.5063922,-0.21810435,-0.08088654,-0.49455363,-0.15062487,-0.013322818,-0.051800337,0.057146747,-0.052010793,-0.0059344023,0.021620257,0.036926046,-0.07123239,0.032810725,0.0525444,0.01174514,0.055707388,-2.0,2.0,-2.0,2.0,2.0,-2.0,-2.0,-2.0,-2.0,-2.0,-2.0,-2.0,-2.0,2.0,-2.0,2.0,2.0,-2.0,-2.0,-2.0,-2.0,-2.0,-2.0,-2.0
2025-06-05 11:57:12.365,-0.009149594,0.0050422368,0.03029169,-0.035771392,-0.10823346,0.04472568,0.0,0.0,0.0,-0.013172192,-0.15837988,0.49024233,-0.1330903,0.15823393,0.40796825,-0.20902911,-0.119343616,-0.51018214,-0.20149551,-0.08262697,-0.49784985,-0.14834909,0.04927268,-0.02097868,-0.0133980885,0.019689374,0.07953899,-0.009186048,-0.010134415,0.061658606,-0.03504266,-0.016056035,0.038632516,0.07493268,-2.0,2.0,-2.0,2.0,2.0,-2.0,-2.0,-2.0,-2.0,-2.0,-2.0,-2.0,-2.0,2.0,-2.0,2.0,2.0,-2.0,-2.0,-2.0,-2.0,-2.0,-2.0,-2.0
2025-06-05 11:57:12.382,0.010223733,0.010309287,0.023013884,0.025447648,-0.022686675,0.04987872,0.0,0.0,0.0,-0.0129257785,-0.16482729,0.4936309,-0.124365255,0.15054585,0.39807457,-0.20199397,-0.10368951,-0.49763033,-0.20964578,-0.08749571,-0.49527088,-0.16734725,0.031837292,-0.0042603607,-0.06903377,0.049544163,0.0610547,-0.0142933605,-0.05210865,-0.012995978,0.026935346,-0.057273388,0.038088925,0.06789786,-2.0,2.0,-2.0,2.0,2.0,-2.0,-2.0,-2.0,-2.0,-2.0,-2.0,-2.0,-2.0,2.0,-2.0,2.0,2.0,-2.0,-2.0,-2.0,-2.0,-2.0,-2.0,-2.0
2025-06-05 11:57:12.402,0.0020644413,0.041676953,-0.024032354,-0.0042051678,-0.06374671,0.02363691,0.0,0.0,0.0,-0.012696072,-0.1773624,0.5042144,-0.14115101,0.15914316,0.4122441,-0.21162684,-0.10330974,-0.49355343,-0.19933555,-0.08934972,-0.49494946,-0.15474439,0.04717787,0.04451189,-0.024378799,-0.06658358,-0.050579857,-0.045128264,-0.0051708957,0.02514503,0.02588196,0.047498476,0.044155926,0.056792434,-2.0,2.0,-2.0,2.0,2.0,-2.0,-2.0,-2.0,-2.0,-2.0,-2.0,-2.0,-2.0,2.0,-2.0,2.0,1.9256886,-2.0,-2.0,-2.0,-2.0,-2.0,-2.0,-2.0
2025-06-05 11:57:12.423,0.011706018,-0.032711614,-0.030322012,0.021363307,-0.061535623,0.033292804,0.0,0.0,0.0,-0.012512809,-0.17405413,0.49079424,-0.12637623,0.16901168,0.41345063,-0.19854596,-0.11785964,-0.50708306,-0.2060607,-0.0874988,-0.49488553,-0.14664762,-0.049104564,0.07407698,-0.07257933,0.07301437,-0.052357897,-0.0483601,0.052628353,0.061431278,0.0029353353,0.0093324855,-0.06897886,0.077232264,-2.0,2.0,-2.0,2.0,1.9256886,-2.0,-2.0,-2.0,-2.0,-2.0,-2.0,-2.0,-2.0,2.0,-2.0,2.0,1.4287435,-2.0,-2.0,-2.0,-2.0,-2.0,-2.0,-2.0
2025-06-05 11:57:12.444,0.0072292755,0.0064717163,0.016375339,0.032719497,-0.108048916,0.01060171,0.0,0.0,0.0,-0.012410809,-0.16599199,0.5020084,-0.13653192,0.17091581,0.40811253,-0.2012839,-0.10467564,-0.500966,-0.21391082,-0.08364582,-0.499552,-0.14462213,0.039390612,0.038149174,0.07107614,0.027375393,-0.014503414,0.068634436,-0.074326746,0.052629206,-0.01477107,-0.031839106,-0.017192105,0.0044489615,-2.0,2.0,-2.0,2.0,1.4287435,-2.0,-2.0,-2.0,-2.0,-2.0,-2.0,-2.0,-2.0,2.0,-2.0,2.0,2.0,-2.0,-2.0,-2.0,-2.0,-2.0,-2.0,-2.0
2025-06-05 11:57:12.465,-0.020791411,0.023669759,-0.006788689,0.020647775,-0.1115879,-0.0018364692,0.0,0.0,0.0,-0.012603834,-0.16558242,0.5070049,-0.1406689,0.16656569,0.39937225,-0.19483005,-0.1153544,-0.4990309,-0.21303767,-0.09171257,-0.4939649,-0.16159146,-0.050664715,0.011528989,-0.058263205,0.038666364,0.0083747525,-0.07208936,-0.01857726,-0.0044149,-0.0532214,0.0031053554,0.016053949,-0.039357804,-2.0,2.0,-2.0,2.0,2.0,-2.0,-2.0,-2.0,-2.0,-2.0,-2.0,-2.0,-2.0,2.0,-2.0,2.0,1.900311,-2.0,-2.0,-2.0,-2.0,-2.0,-2.0,-2.0
2025-06-05 11:57:12.483,-0.039914504,0.0024642234,0.019500336,0.03461855,-0.06784251,0.019492406,0.0,0.0,0.0,-0.012612855,-0.16388942,0.492598,-0.12826124,0.15881793,0.4015419,-0.19788864,-0.11529036,-0.5082306,-0.21373166,-0.098883554,-0.49127528,-0.14897482,0.0014771933,-0.043074843,0.06285532,0.052490536,0.07421485,0.07124998,0.002204238,-0.0652601,-0.015849864,-0.054318804,0.06858233,0.054046344,-2.0,2.0,-2.0,2.0,1.900311,-2.0,-2.0,-2.0,-2.0,-2.0,-2.0,-2.0,-2.0,2.0,-2.0,2.0,2.0,-2.0,-2.0,-2.0,-2.0,-2.0,-2.0,-2.0
2025-06-05 11:57:12.503,0.035483815,-0.009049259,-0.024045218,-0.057668958,-0.06805094,0.0085893655,0.0,0.0,0.0,-0.012503913,-0.16801056,0.50430214,-0.13426203,0.16359371,0.40574265,-0.20530719,-0.12128221,-0.5030874,-0.21258424,-0.097739585,-0.4969406,-0.16256459,-0.066169254,-0.0024295184,-0.051140256,-0.039854303,-0.012798139,-0.003244415,-0.057738855,-0.046571042,0.05648587,-0.0033979411,0.037197247,-0.025401857,-2.0,2.0,-2.0,2.0,2.0,-2.0,-2.0,-2.0,-2.0,-2.0,-2.0,-2.0,-2.0,2.0,-2.0,2.0,1.7575004,-2.0,-2.0,-2.0,-2.0,-2.0,-2.0,-2.0
2025-06-05 11:57:12.522,0.03852425,-0.016535085,0.029003626,0.03489919,-0.072318085,-0.020133894,0.0,0.0,0.0,-0.012354023,-0.17029789,0.4969019,-0.13305084,0.16250107,0.4024081,-0.20567381,-0.115263,-0.5048351,-0.20367147,-0.09487458,-0.48706332,-0.1528864,-0.050981715,0.026786534,0.038500372,0.03511005,-0.048403885,-0.023216853,0.037145153,0.018220315,0.018078955,0.037792303,0.04310678,-0.044722803,-2.0,2.0,-2.0,2.0,1.7575004,-2.0,-2.0,-2.0,-2.0,-2.0,-2.0,-2.0,-2.0,2.0,-2.0,2.0,2.0,-2.0,-2.0,-2.0,-2.0,-2.0,-2.0,-2.0
2025-06-05 11:57:12.543,0.027140928,0.0033764732,0.010273911,-0.043601435,-0.04859048,-0.021487536,0.0,0.0,0.0,-0.012329019,-0.18209064,0.50691026,-0.13054504,0.17241578,0.42264727,-0.2060624,-0.12016497,-0.49971718,-0.21231142,-0.0906311,-0.49275985,-0.16160694,0.032108948,-0.027525881,0.057742096,-0.035441373,0.011397836,0.05592677,-0.07410784,-0.002144602,0.058615364,0.007244483,0.017991476,-0.019013591,-2.0,2.0,-2.0,2.0,2.0,-2.0,-2.0,-2.0,-2.0,-2.0,-2.0,-2.0,-2.0,2.0,-2.0,2.0,2.0,-2.0,-2.0,-2.0,-2.0,-2.0,-2.0,-2.0
2025-06-05 11:57:12.566,0.016388789,-0.03842355,-0.02060682,-0.0388851,-0.091300964,0.013003822,0.0,0.0,0.0,-0.012254114,-0.17846479,0.49940246,-0.13024265,0.16916814,0.41878745,-0.20240253,-0.10237367,-0.5013131,-0.20122577,-0.09430051,-0.48856434,-0.14978576,-0.0029838304,-0.051697064,0.048033573,-0.02998947,0.037231732,0.030593611,0.005823993,0.04489976,0.052564368,-0.030942472,-0.020458797,0.010918106,-2.0,2.0,-2.0,2.0,2.0,-2.0,-2.0,-2.0,-2.0,-2.0,-2.0,-2.0,-2.0,2.0,-2.0,2.0,1.888453,-2.0,-2.0,-2.0,-2.0,-2.0,-2.0,-2.0
2025-06-05 11:57:12.583,0.036330596,0.0386265,0.026978875,-0.05239964,-0.053149633,-0.0102150785,0.0,0.0,0.0,-0.0121268,-0.17133547,0.50721705,-0.14072943,0.16025479,0.40762344,-0.19493443,-0.11785533,-0.49401873,-0.20254028,-0.08807891,-0.49829006,-0.15357485,0.044195894,-0.043081407,0.046823382,-0.041633643,-0.046185143,-0.049089786,0.020327661,-0.05012982,0.033402763,-0.019123875,0.001066642,0.016669787,-2.0,2.0,-2.0,2.0,1.888453,-2.0,-2.0,-2.0,-2.0,-2.0,-2.0,-2.0,-2.0,2.0,-2.0,2.0,2.0,-2.0,-2.0,-2.0,-2.0,-2.0,-2.0,-2.0
2025-06-05 11:57:12.602,0.018814433,0.05009846,0.03547373,-0.04943288,-0.0396101,0.02322478,0.0,0.0,0.0,-0.012069519,-0.17210135,0.49066296,-0.12181159,0.15770389,0.41672975,-0.21345672,-0.10099245,-0.49534148,-0.21891427,-0.094834894,-0.48525208,-0.16200374,-0.05522022,-0.05729,-0.031490486,0.06803617,0.049265888,-0.027370151,0.057808593,-0.06314562,0.067880616,0.04908883,0.06742913,0.045193817,-2.0,2.0,-2.0,2.0,2.0,-2.0,-2.0,-2.0,-2.0,-2.0,-2.0,-2.0,-2.0,2.0,-2.0,2.0,2.0,-2.0,-2.0,-2.0,-2.0,-2.0,-2.0,-2.0
2025-06-05 11:57:12.622,-0.03931633,-0.031072613,-0.0062749125,-0.058316894,-0.06384246,-0.03923927,0.0,0.0,0.0,-0.012002401,-0.17666364,0.50494623,-0.14027491,0.1647503,0.4124545,-0.20941636,-0.10152225,-0.5007477,-0.20141622,-0.07935052,-0.48417583,-0.14787261,0.039477855,-0.053102102,0.01588068,-0.056086082,0.03542439,0.059438325,0.060307063,0.05964433,-0.036007933,-0.0076773777,-0.00510879,-0.04996698,-2.0,2.0,-2.0,2.0,2.0,-2.0,-2.0,-2.0,-2.0,-2.0,-2.0,-2.0,-2.0,2.0,-2.0,2.0,2.0,-2.0,-2.0,-2.0,-2.0,-2.0,-2.0,-2.0
2025-06-05 11:57:12.643,-0.030376598,-0.039478876,0.040168405,0.02617833,-0.06740319,0.049259897,0.0,0.0,0.0,-0.011921199,-0.17114969,0.49405363,-0.13991481,0.16860567,0.4293691,-0.19876163,-0.11901572,-0.5084925,-0.20814766,-0.08984049,-0.494317,-0.15592794,0.0013372825,0.0433804,-0.03865229,-0.042160068,0.014307519,-0.07261906,-0.06808931,-0.038790967,-0.051030926,0.052517787,0.07636432,0.026059423,-2.0,2.0,-2.0,2.0,2.0,-2.0,-2.0,-2.0,-2.0,-2.0,-2.0,-2.0,-2.0,2.0,-2.0,2.0,2.0,-2.0,-2.0,-2.0,-2.0,-2.0,-2.0,-2.0
2025-06-05 11:57:12.666,0.045490976,0.0064109867,0.039525166,-0.03188907,-0.1067083,-0.014364943,0.0,0.0,0.0,-0.01185206,-0.17291388,0.51049984,-0.13122354,0.16935536,0.42098358,-0.21080568,-0.11000228,-0.49281907,-0.2109077,-0.08057366,-0.49363583,-0.14673005,0.06234276,0.009588634,0.024662256,0.016912494,0.0076508825,-0.035268147,-0.07310563,-0.071812384,-0.008038304,0.05438494,0.07518502,0.0010592062,-2.0,2.0,-2.0,2.0,2.0,-2.0,-2.0,-2.0,-2.0,-2.0,-2.0,-2.0,-2.0,2.0,-2.0,2.0,2.0,-2.0,-2.0,-2.0,-2.0,-2.0,-2.0,-2.0
2025-06-05 11:57:12.683,-0.046160012,0.047108777,0.024869116,-0.0038501576,-0.031333838,0.00685994,0.0,0.0,0.0,-0.011798947,-0.18485877,0.51136976,-0.12781358,0.17130473,0.41281277,-0.20203358,-0.11396604,-0.5066653,-0.20916043,-0.08425838,-0.49709275,-0.15372829,0.0688668,0.04521137,0.05664317,0.0082665775,0.052743927,-0.049453333,0.00967328,0.0017305642,0.05050262,0.05811542,-0.017835634,0.037177257,-2.0,2.0,-2.0,2.0,2.0,-2.0,-2.0,-2.0,-2.0,-2.0,-2.0,-2.0,-2.0,2.0,-2.0,2.0,2.0,-2.0,-2.0,-2.0,-2.0,-2.0,-2.0,-2.0
2025-06-05 11:57:12.703,-0.01064963,0.038124304,-0.030712187,-0.036238197,-0.07971537,0.043020193,0.0,0.0,0.0,-0.011759284,-0.1718602,0.50360197,-0.13407369,0.1545637,0.4272973,-0.21239409,-0.10152543,-0.49567315,-0.19888002,-0.09228879,-0.4930081,-0.14452703,-0.05105759,0.0208992,0.04144393,-0.02009564,0.064697035,-0.06822845,0.01540142,0.047202714,0.0078063603,0.014086473,-0.07368369,-0.030777542,-2.0,2.0,-2.0,2.0,2.0,-2.0,-2.0,-2.0,-2.0,-2.0,-2.0,-2.0,-2.0,2.0,-2.0,2.0,1.8296466,-2.0,-2.0,-2.0,-2.0,-2.0,-2.0,-2.0
2025-06-05 11:57:12.724,0.031029284,-0.053291276,0.03669133,-0.009513741,-0.06826111,0.010329894,0.0,0.0,0.0,-0.011729812,-0.16819818,0.49486205,-0.12525792,0.15655743,0.42067254,-0.2085973,-0.112897195,-0.50098443,-0.20848604,-0.08832621,-0.49065897,-0.14234354,-0.00021307154,-0.040025957,-0.0012566204,-0.06699739,-0.06857938,-0.049738284,0.037671946,0.004696035,0.02447537,0.015852984,0.0006513196,0.031083837,-2.0,2.0,-2.0,2.0,1.8296466,-2.0,-2.0,-2.0,-2.0,-2.0,-2.0,-2.0,-2.0,2.0,-2.0,2.0,2.0,-2.0,-2.0,-2.0,-2.0,-2.0,-2.0,-2.0
2025-06-05 11:57:12.743,-0.033063386,-0.013391239,-0.043501083,0.030374076,-0.09329689,-0.029700344,0.0,0.0,0.0,-0.011793479,-0.17622471,0.50190246,-0.12436817,0.16585566,0.4253043,-0.19522184,-0.11895601,-0.50264484,-0.20949228,-0.09207794,-0.4881954,-0.15775383,0.04653734,0.07115798,0.03860206,-0.062325075,-0.059392396,-0.05732666,-0.047040336,0.054280832,0.026326602,-0.07450417,-0.0149150435,-0.007385316,-2.0,2.0,-2.0,2.0,2.0,-2.0,-2.0,-2.0,-2.0,-2.0,-2.0,-2.0,-2.0,2.0,-2.0,2.0,1.406795,-2.0,-2.0,-2.0,-2.0,-2.0,-2.0,-2.0
2025-06-05 11:57:12.766,-0.012149405,-0.003138406,0.0017206576,-0.03972933,-0.09775693,-0.008993247,0.0,0.0,0.0,-0.011811602,-0.17517897,0.49353713,-0.12715213,0.17251946,0.4265914,-0.20920213,-0.11337128,-0.49447826,-0.2104842,-0.08223257,-0.4971273,-0.14091079,-0.045037124,-0.027011026,-0.022773024,0.07598666,0.019498667,-0.056440912,-0.05078007,0.07134146,-0.07377259,-0.07563536,-0.025887268,0.023318466,-2.0,2.0,-2.0,2.0,1.406795,-2.0,-2.0,-2.0,-2.0,-2.0,-2.0,-2.0,-2.0,2.0,-2.0,2.0,1.9262679,-2.0,-2.0,-2.0,-2.0,-2.0,-2.0,-2.0
2025-06-05 11:57:12.783,0.018424097,0.048387237,-0.02537827,0.029638784,-0.076624654,-0.04870695,0.0,0.0,0.0,-0.012082495,-0.17777172,0.5016902,-0.13729855,0.17034097,0.4152675,-0.1938264,-0.12093512,-0.5015831,-0.202939,-0.09892752,-0.48723567,-0.15815184,0.02592271,-0.06526439,0.053502113,0.033799574,0.024131661,0.050496344,0.046884798,-0.06054359,0.059611063,-0.04560014,-0.018545307,0.029884743,-2.0,2.0,-2.0,2.0,1.9262679,-2.0,-2.0,-2.0,-2.0,-2.0,-2.0,-2.0,-2.0,2.0,-2.0,2.0,1.8846794,-2.0,-2.0,-2.0,-2.0,-2.0,-2.0,-2.0
2025-06-05 11:57:12.804,-0.0029948598,-0.017099516,0.018055383,0.03116107,-0.058051866,0.003276489,0.0,0.0,0.0,-0.012215626,-0.16611226,0.5060508,-0.14068218,0.17198972,0.42199942,-0.1983771,-0.10246019,-0.5016863,-0.21761185,-0.08103417,-0.48699468,-0.14803953,-0.015162693,0.017613975,0.022364182,-0.06586908,-0.05372528,0.057387587,0.037742324,0.032135256,-0.054213874,0.06306708,0.010011405,-0.07678005,-2.0,2.0,-2.0,2.0,1.8846794,-2.0,-2.0,-2.0,-2.0,-2.0,-2.0,-2.0,-2.0,2.0,-2.0,2.0,2.0,-2.0,-2.0,-2.0,-2.0,-2.0,-2.0,-2.0
2025-06-05 11:57:12.824,-0.0012871139,0.027083267,-0.03186153,-0.058446538,-0.10568136,-0.041348107,0.0,0.0,0.0,-0.012200814,-0.17522964,0.49516684,-0.13769925,0.16440287,0.41704646,-0.20045055,-0.11600675,-0.49108762,-0.21555923,-0.097476535,-0.49555358,-0.15736295,0.052900575,0.041158345,-0.05726614,0.007958535,0.023019014,0.04155095,0.04624314,-0.015640805,-0.036071766,0.0029856225,-0.02861307,-0.020013256,-2.0,2.0,-2.0,2.0,2.0,-2.0,-2.0,-2.0,-2.0,-2.0,-2.0,-2.0,-2.0,2.0,-2.0,2.0,1.5381258,-2.0,-2.0,-2.0,-2.0,-2.0,-2.0,-2.0
2025-06-05 11:57:12.844,-0.034431335,-0.05624322,-0.015788997,-0.05583576,-0.035559416,-0.011585245,0.0,0.0,0.0,-0.012097101,-0.1710965,0.48978046,-0.12399087,0.16906442,0.41785717,-0.20475374,-0.108321086,-0.49733198,-0.21212283,-0.08699063,-0.49929073,-0.15978159,0.060118526,-0.053001933,0.06729121,0.01977842,-0.07103002,-0.053391244,-0.039271235,-0.038735513,0.00094528095,-0.013955275,0.010164187,-0.045488562,-2.0,2.0,-2.0,2.0,1.5381258,-2.0,-2.0,-2.0,-2.0,-2.0,-2.0,-2.0,-2.0,2.0,-2.0,2.0,1.8849821,-2.0,-2.0,-2.0,-2.0,-2.0,-2.0,-2.0
2025-06-05 11:57:12.866,0.04562903,0.014630534,-0.023339828,0.038268667,-0.10833502,0.02226925,0.0,0.0,0.0,-0.01220804,-0.1783722,0.49817693,-0.13553697,0.15952145,0.40520662,-0.20720199,-0.11823617,-0.50744265,-0.20477049,-0.097434,-0.4903286,-0.1559872,-0.043679018,-0.059301455,0.035897084,0.017368214,-0.065614976,-0.037664153,-0.009355891,-0.05484843,0.038608674,-0.020086803,0.036613397,0.043552388,-2.0,2.0,-2.0,2.0,1.8849821,-2.0,-2.0,-2.0,-2.0,-2.0,-2.0,-2.0,-2.0,2.0,-2.0,2.0,1.9272842,-2.0,-2.0,-2.0,-2.0,-2.0,-2.0,-2.0
2025-06-05 11:57:12.884,0.052050967,0.009454507,0.021917867,-0.008695513,-0.037598602,-0.042658858,0.0,0.0,0.0,-0.012274385,-0.18255755,0.49015138,-0.12973145,0.17116463,0.42011085,-0.20307712,-0.10393802,-0.50883925,-0.2060037,-0.097734466,-0.49387473,-0.15338504,-0.04051265,-0.07300554,-0.041359387,-0.061868142,0.05422981,0.000698036,0.007420116,0.052685454,0.01065812,0.0018575405,-0.054711204,-0.024358239,-2.0,2.0,-2.0,2.0,1.9272842,-2.0,-2.0,-2.0,-2.0,-2.0,-2.0,-2.0,-2.0,2.0,-2.0,2.0,2.0,-2.0,-2.0,-2.0,-2.0,-2.0,-2.0,-2.0
2025-06-05 11:57:12.904,-0.016487626,0.04088137,-0.017300747,0.036049135,-0.092333674,0.031558458,0.0,0.0,0.0,-0.012218368,-0.17226061,0.50515467,-0.12572302,0.17208228,0.4228789,-0.19546685,-0.12010724,-0.50750804,-0.21858132,-0.0932332,-0.48714018,-0.14838324,-0.0331115,0.05746237,-0.019223,-0.035175644,0.06642324,-0.002169076,-0.00011938578,0.022946414,-0.045455728,0.032718576,-0.0067821653,-0.001287274,-2.0,2.0,-2.0,2.0,2.0,-2.0,-2.0,-2.0,-2.0,-2.0,-2.0,-2.0,-2.0,2.0,-2.0,2.0,1.8773156,-2.0,-2.0,-2.0,-2.0,-2.0,-2.0,-2.0
2025-06-05 11:57:12.924,-0.031517465,0.02068846,0.00017930989,-0.03974613,-0.0532215,-0.0061340863,0.0,0.0,0.0,-0.012091692,-0.16756356,0.4932127,-0.13055073,0.16671216,0.42466664,-0.20986456,-0.10755661,-0.5020859,-0.21953131,-0.08262621,-0.485241,-0.1445521,-0.020381989,-0.04449385,-0.05797136,-0.03647342,-0.05669526,0.0081077535,0.000924055,0.03149218,0.014271087,0.03925286,0.06308711,0.06032507,-2.0,2.0,-2.0,2.0,1.8773156,-2.0,-2.0,-2.0,-2.0,-2.0,-2.0,-2.0,-2.0,2.0,-2.0,2.0,2.0,-2.0,-2.0,-2.0,-2.0,-2.0,-2.0,-2.0
2025-06-05 11:57:12.944,-0.04382948,-0.01784887,0.0074411565,0.027607942,-0.10442235,-0.005836694,0.0,0.0,0.0,-0.012025615,-0.17478806,0.49657768,-0.123519465,0.15807445,0.42496243,-0.19925846,-0.1050131,-0.4982241,-0.21659449,-0.09559532,-0.4908456,-0.15424192,-0.011360416,-0.04302658,0.07170282,-0.0029128594,0.062849924,0.05408101,0.018004699,0.027823465,0.053160273,0.026490808,0.008618468,-0.038065247,-2.0,2.0,-2.0,2.0,2.0,-2.0,-2.0,-2.0,-2.0,-2.0,-2.0,-2.0,-2.0,2.0,-2.0,2.0,2.0,-2.0,-2.0,-2.0,-2.0,-2.0,-2.0,-2.0
2025-06-05 11:57:12.966,-0.038487606,0.038880385,0.013384597,0.036704317,-0.021493992,-0.040652268,0.0,0.0,0.0,-0.011951198,-0.18081519,0.49860874,-0.12873721,0.17033224,0.4091812,-0.20611899,-0.11899238,-0.49813303,-0.22125094,-0.091941565,-0.48483008,-0.15153468,0.06193775,0.023588726,-0.03730765,0.051854264,-0.03807347,-0.046113346,-0.052717138,0.05549744,-0.019943256,0.06659789,-0.032065332,0.056008816,-2.0,2.0,-2.0,2.0,2.0,-2.0,-2.0,-2.0,-2.0,-2.0,-2.0,-2.0,-2.0,2.0,-2.0,2.0,2.0,-2.0,-2.0,-2.0,-2.0,-2.0,-2.0,-2.0
2025-06-05 11:57:12.985,0.0004913705,0.05004021,-0.037421767,-0.0367631,-0.049402233,-0.008903422,0.0,0.0,0.0,-0.011862763,-0.16888389,0.49515605,-0.13451643,0.15831928,0.4147492,-0.20310378,-0.11386564,-0.50082266,-0.21964933,-0.09212371,-0.49439844,-0.15947096,0.051733587,-0.058478836,-0.0048684026,-0.05766716,0.0763361,0.03500773,-0.048875663,0.06823372,0.030670933,0.06141007,-0.046961192,-0.04211773,-2.0,2.0,-2.0,2.0,2.0,-2.0,-2.0,-2.0,-2.0,-2.0,-2.0,-2.0,-2.0,2.0,-2.0,2.0,1.7736256,-2.0,-2.0,-2.0,-2.0,-2.0,-2.0,-2.0
2025-06-05 11:57:13.004,0.029205574,-0.026132176,0.050327137,0.006280415,-0.04525715,-0.014733692,0.0,0.0,0.0,-0.01178706,-0.17273344,0.4929622,-0.12706785,0.17085011,0.41227663,-0.20520623,-0.1071452,-0.49925897,-0.21995954,-0.08886651,-0.48642725,-0.16118212,-0.04909523,-0.05837396,0.021985836,-0.027753124,0.037283298,-0.060835846,-0.0343817,-0.05539977,-0.03643104,0.067424804,-0.027456736,0.03302529,-2.0,2.0,-2.0,2.0,1.7736256,-2.0,-2.0,-2.0,-2.0,-2.0,-2.0,-2.0,-2.0,2.0,-2.0,2.0,2.0,-2.0,-2.0,-2.0,-2.0,-2.0,-2.0,-2.0
2025-06-05 11:57:13.025,0.02174325,0.028495012,-0.048355404,-0.040254503,-0.07206038,0.04970413,0.0,0.0,0.0,-0.011841303,-0.18191065,0.50554544,-0.13163069,0.1623172,0.4183298,-0.20458767,-0.11811803,-0.5075732,-0.21548164,-0.08648901,-0.4963087,-0.14821646,-0.01663381,-0.045608975,0.06590305,-0.030021844,-0.051986873,0.040688317,0.022044104,0.026638057,0.050382923,0.019059774,-0.058910996,-0.04688141,-2.0,2.0,-2.0,2.0,2.0,-2.0,-2.0,-2.0,-2.0,-2.0,-2.0,-2.0,-2.0,2.0,-2.0,2.0,1.5203047,-2.0,-2.0,-2.0,-2.0,-2.0,-2.0,-2.0
2025-06-05 11:57:13.047,0.03365073,-0.059879724,-0.03743032,-0.044012807,-0.055403136,-0.041847125,0.0,0.0,0.0,-0.0118445875,-0.16682231,0.49130192,-0.12671801,0.17303954,0.41642147,-0.20701648,-0.11089096,-0.50006425,-0.20234245,-0.094532244,-0.49375945,-0.16061816,0.057445392,-0.06612111,-0.058806174,0.045325182,-0.04073611,-0.05604367,0.020041902,-0.03945549,0.0733192,-0.05411619,0.018049007,0.025649162,-2.0,2.0,-2.0,2.0,1.5203047,-2.0,-2.0,-2.0,-2.0,-2.0,-2.0,-2.0,-2.0,2.0,-2.0,2.0,1.6122906,-2.0,-2.0,-2.0,-2.0,-2.0,-2.0,-2.0
2025-06-05 11:57:13.067,0.032711484,0.03130196,-0.032405995,0.040366527,-0.09817325,0.010212671,0.0,0.0,0.0,-0.012025989,-0.17123269,0.49026546,-0.14160037,0.1624932,0.42478174,-0.20980674,-0.11349055,-0.496327,-0.20796372,-0.09493754,-0.49156126,-0.16121995,0.030360403,0.004540225,-0.020706255,-0.0008063737,-0.03257631,0.0591723,0.0011665075,0.035082344,-0.02252817,0.049428053,0.047381196,-0.019075759,-2.0,2.0,-2.0,2.0,1.6122906,-2.0,-2.0,-2.0,-2.0,-2.0,-2.0,-2.0,-2.0,2.0,-2.0,2.0,1.7097466,-2.0,-2.0,-2.0,-2.0,-2.0,-2.0,-2.0
2025-06-05 11:57:13.085,0.010938037,-0.024419503,-0.017412476,-0.047396153,-0.03691576,0.044774733,0.0,0.0,0.0,-0.012267039,-0.18300393,0.49063718,-0.13614444,0.173122,0.42066115,-0.2057237,-0.10888629,-0.5109591,-0.21120606,-0.09076166,-0.5057994,-0.15260676,-0.06585386,-0.070187755,0.052483786,-0.014327367,0.019309705,-0.02294717,0.011036501,0.003950232,-0.044140644,-0.057446238,0.037304983,0.04945042,-2.0,2.0,-2.0,2.0,1.7097466,-2.0,-2.0,-2.0,-2.0,-2.0,-2.0,-2.0,-2.0,2.0,-2.0,2.0,2.0,-2.0,-2.0,-2.0,-2.0,-2.0,-2.0,-2.0
2025-06-05 11:57:13.105,0.009938308,0.018038103,0.033914465,-0.041570608,-0.0730388,-0.030460985,0.0,0.0,0.0,-0.012402955,-0.16733646,0.50022715,-0.12468038,0.1765386,0.40549317,-0.20164973,-0.10398431,-0.49698478,-0.21085499,-0.09228852,-0.4956391,-0.16260146,-0.07484234,0.017757295,0.047028605,0.026743459,-0.0538279,-0.019954937,0.060221743,0.07374242,0.0072659515,-0.0105811795,-0.007414055,-0.06438452,-2.0,2.0,-2.0,2.0,2.0,-2.0,-2.0,-2.0,-2.0,-2.0,-2.0,-2.0,-2.0,2.0,-2.0,2.0,2.0,-2.0,-2.0,-2.0,-2.0,-2.0,-2.0,-2.0
2025-06-05 11:57:13.125,0.04470166,0.024997143,-0.028247561,-0.0059280223,-0.025669167,-0.037870698,0.0,0.0,0.0,-0.0123011,-0.16872469,0.48399892,-0.12964095,0.17442527,0.4045529,-0.1944404,-0.1108671,-0.50910443,-0.2128166,-0.09140705,-0.48821425,-0.14505808,0.027029652,0.0028043198,0.04270934,-0.038555987,0.0736337,0.021025429,0.045111887,-0.04688393,-0.037120797,-0.04149164,-0.042703953,-0.070661485,-2.0,2.0,-2.0,2.0,2.0,-2.0,-2.0,-2.0,-2.0,-2.0,-2.0,-2.0,-2.0,2.0,-2.0,2.0,1.8162478,-2.0,-2.0,-2.0,-2.0,-2.0,-2.0,-2.0
2025-06-05 11:57:13.147,-0.000987434,0.04701626,-0.0023665358,-0.011929422,-0.06262325,0.011504094,0.0,0.0,0.0,-0.012110511,-0.17200807,0.49753395,-0.123883165,0.1655305,0.4235156,-0.20035012,-0.1216375,-0.49851206,-0.20893851,-0.09389719,-0.48588687,-0.1532005,0.041504674,-0.044008996,-0.063157864,0.04963637,0.015532727,0.021579612,-0.051956464,0.008040779,-0.03931822,0.07239507,0.039017998,-0.036380045,-2.0,2.0,-2.0,2.0,1.8162478,-2.0,-2.0,-2.0,-2.0,-2.0,-2.0,-2.0,-2.0,2.0,-2.0,2.0,2.0,-2.0,-2.0,-2.0,-2.0,-2.0,-2.0,-2.0
2025-06-05 11:57:13.166,0.016993692,-0.0020278944,0.038262315,-0.002797299,-0.03089161,0.003457092,0.0,0.0,0.0,-0.012039266,-0.17806163,0.4975517,-0.12707569,0.16217223,0.40714478,-0.20486644,-0.121572986,-0.49364477,-0.20687659,-0.08202987,-0.49826938,-0.15456297,0.03608916,0.03140658,0.060538836,-0.035952974,0.012060688,0.071012884,0.017084446,0.009213704,-0.06462024,0.040678248,0.05344685,-0.04438127,-2.0,2.0,-2.0,2.0,2.0,-2.0,-2.0,-2.0,-2.0,-2.0,-2.0,-2.0,-2.0,2.0,-1.9412858,2.0,2.0,-2.0,-2.0,-2.0,-2.0,-2.0,-2.0,-2.0
2025-06-05 11:57:13.185,0.016693113,0.0051352885,-0.0330609,0.012884893,-0.07756907,-0.046141393,0.0,0.0,0.0,-0.011954903,-0.17162642,0.5041801,-0.12115918,0.16272144,0.41584557,-0.19913633,-0.10863425,-0.4907252,-0.21538518,-0.08850812,-0.4927479,-0.16351704,0.049124457,-0.0074658114,-0.072287396,-0.01161031,0.06890107,-0.054518685,-0.008050543,-0.0020836387,0.062223338,-0.045911316,-0.015103874,0.027418315,-2.0,2.0,-1.9412858,2.0,2.0,-2.0,-2.0,-2.0,-2.0,-2.0,-2.0,-2.0,-2.0,2.0,-2.0,2.0,1.6901101,-2.0,-2.0,-2.0,-2.0,-2.0,-2.0,-2.0
2025-06-05 11:57:13.204,-0.00026725658,-0.014371816,-0.025317468,0.02267526,-0.09167304,-0.017772598,0.0,0.0,0.0,-0.011854335,-0.17062207,0.5042257,-0.13254894,0.17039295,0.42298877,-0.19313672,-0.11972247,-0.49738133,-0.21783018,-0.08370288,-0.4917111,-0.16200839,-0.022809645,0.033282295,0.014283033,-0.06983508,0.032669727,0.038129896,-0.07559549,-0.037097316,-0.021648232,0.018618278,-0.031188654,0.009543312,-2.0,2.0,-2.0,2.0,1.6901101,-2.0,-2.0,-2.0,-2.0,-2.0,-2.0,-2.0,-2.0,2.0,-2.0,2.0,1.777972,-2.0,-2.0,-2.0,-2.0,-2.0,-2.0,-2.0
2025-06-05 11:57:13.224,-0.037496135,0.037119824,-0.024779757,0.038542725,-0.09078462,0.048715245,0.0,0.0,0.0,-0.0119175995,-0.16563897,0.49726063,-0.12001309,0.17262775,0.42221746,-0.21027957,-0.11859383,-0.5030413,-0.21088578,-0.08122293,-0.49618468,-0.16108398,0.03427265,0.04195154,0.07411082,-0.023119519,0.003222612,0.036545612,0.035036836,0.003438725,0.069232434,-0.0036395488,-0.02263996,-0.071806505,-2.0,2.0,-2.0,2.0,1.777972,-2.0,-2.0,-2.0,-2.0,-2.0,-2.0,-2.0,-2.0,2.0,-2.0,2.0,1.6494461,-2.0,-2.0,-2.0,-2.0,-2.0,-2.0,-2.0
2025-06-05 11:57:13.244,0.0175714,-0.0032015475,0.018684823,-0.017914735,-0.09751586,-0.043688603,0.0,0.0,0.0,-0.012021015,-0.17871529,0.49424696,-0.12220165,0.16060051,0.40888497,-0.19708586,-0.11469568,-0.5034148,-0.22039631,-0.08904296,-0.49583602,-0.14390086,-0.014083114,0.017590519,-0.042907204,-0.057727184,-0.05506748,-0.008856756,-0.041674785,-0.007707047,-0.009970141,0.033460658,-0.049056757,0.041195124,-2.0,2.0,-2.0,2.0,1.6494461,-2.0,-2.0,-2.0,-2.0,-2.0,-2.0,-2.0,-2.0,2.0,-2.0,2.0,2.0,-2.0,-2.0,-2.0,-2.0,-2.0,-2.0,-2.0
2025-06-05 11:57:13.264,-0.02898832,0.050536953,-0.0059521063,-0.014326155,-0.021522809,-0.007072949,0.0,0.0,0.0,-0.012154425,-0.18093921,0.49211672,-0.13058107,0.17715546,0.42133272,-0.20544317,-0.10963021,-0.50054216,-0.21521239,-0.088589124,-0.49417433,-0.14965637,-0.04651699,0.048297122,0.056207016,0.02892783,-0.06576505,-0.014332681,-0.04803698,0.043528832,-0.054369215,-0.005467802,-0.05156462,0.05879019,-2.0,2.0,-2.0,2.0,2.0,-2.0,-2.0,-2.0,-2.0,-2.0,-2.0,-2.0,-2.0,2.0,-2.0,2.0,1.8520418,-2.0,-2.0,-2.0,-2.0,-2.0,-2.0,-2.0
2025-06-05 11:57:13.285,0.020641016,-0.026097666,0.00017100989,0.03566741,-0.054621022,0.0009577398,0.0,0.0,0.0,-0.012104506,-0.18480729,0.4981939,-0.12820049,0.16228461,0.41752428,-0.20576096,-0.120648004,-0.50120753,-0.2206557,-0.09182968,-0.49178773,-0.15635067,0.016623309,-0.016648518,0.005847626,-0.048413925,0.014065575,-0.07138871,-0.055260513,0.011277788,0.011089845,0.031250797,-0.01410914,-0.0295024,-2.0,2.0,-2.0,2.0,1.8520418,-2.0,-2.0,-2.0,-2.0,-2.0,-2.0,-2.0,-2.0,2.0,-2.0,2.0,2.0,-2.0,-2.0,-2.0,-2.0,-2.0,-2.0,-2.0
2025-06-05 11:57:13.309,-0.022878578,0.0411602,-0.030814003,-0.039774656,-0.102724925,-0.041667696,0.0,0.0,0.0,-0.012027766,-0.17246434,0.5025295,-0.13125074,0.17400293,0.42074302,-0.19570969,-0.117745675,-0.5101016,-0.2082244,-0.08211597,-0.49423,-0.14836921,-0.029453557,-0.010657825,0.020071352,-0.039640203,0.046513353,0.023350917,-0.06520923,0.053255986,-0.050455473,0.07248997,0.07004163,0.06540191,-2.0,2.0,-2.0,2.0,2.0,-2.0,-2.0,-2.0,-2.0,-2.0,-2.0,-2.0,-2.0,2.0,-1.9688957,2.0,1.9451411,-2.0,-2.0,-2.0,-2.0,-2.0,-2.0,-2.0
2025-06-05 11:57:13.326,-0.04728473,-0.0049023433,0.0114446115,-0.043251775,-0.035410058,0.031146059,0.0,0.0,0.0,-0.01192179,-0.18204474,0.50261515,-0.13146485,0.15852253,0.4272016,-0.21231751,-0.10539206,-0.49211594,-0.20643115,-0.095781095,-0.48724604,-0.16051145,0.043661084,-0.010935417,-0.0036762625,-0.008318748,0.051659733,0.039110206,0.044131886,-0.010882744,-0.049647488,0.02144627,0.02939734,0.0037738036,-2.0,2.0,-1.9688957,2.0,1.9451411,-2.0,-2.0,-2.0,-2.0,-2.0,-2.0,-2.0,-2.0,2.0,-2.0,2.0,2.0,-2.0,-2.0,-2.0,-2.0,-2.0,-2.0,-2.0
2025-06-05 11:57:13.349,-0.018334793,-0.0069606565,0.012052389,0.030987289,-0.047859203,-0.0139061045,0.0,0.0,0.0,-0.011834038,-0.18237014,0.4935101,-0.12756307,0.15825458,0.42117593,-0.19602862,-0.117831744,-0.49783954,-0.20846283,-0.087765776,-0.48461372,-0.14910698,0.03906961,0.05391197,0.07103812,-0.041089073,0.0147283785,-0.018988729,0.003478299,-0.05334475,0.024459671,0.00090584223,0.0265093,-0.023435667,-2.0,2.0,-2.0,2.0,2.0,-2.0,-2.0,-2.0,-2.0,-2.0,-2.0,-2.0,-2.0,2.0,-2.0,2.0,2.0,-2.0,-2.0,-2.0,-2.0,-2.0,-2.0,-2.0
2025-06-05 11:57:13.366,-0.0027901214,0.0521337,0.004330315,-0.023989763,-0.117677175,-0.008309052,0.0,0.0,0.0,-0.011748995,-0.18118663,0.4982863,-0.12925014,0.16406378,0.43023053,-0.21339345,-0.105656065,-0.49110743,-0.2119644,-0.089384474,-0.5007447,-0.15036951,-0.060215626,-0.068947285,0.068892494,-0.034133013,0.07872509,-0.056782026,0.020809414,0.031140776,0.03620135,-0.035549067,0.060850807,-0.01723261,-2.0,2.0,-2.0,2.0,2.0,-2.0,-2.0,-2.0,-2.0,-2.0,-2.0,-2.0,-2.0,2.0,-2.0,2.0,2.0,-2.0,-2.0,-2.0,-2.0,-2.0,-2.0,-2.0
2025-06-05 11:57:13.386,-0.033981234,-0.0075099883,0.013200589,-0.0053350898,-0.05629693,0.04432101,0.0,0.0,0.0,-0.011665325,-0.18075432,0.49915957,-0.13457154,0.15738456,0.42701462,-0.19986846,-0.10411278,-0.5007271,-0.20602222,-0.09288239,-0.49841812,-0.16041078,-0.036926504,0.020886267,0.07398285,-0.035474505,0.027558614,-0.03630577,0.026181908,0.067334324,-0.054879073,0.059169803,0.052607022,0.04319018,-2.0,2.0,-2.0,2.0,2.0,-2.0,-2.0,-2.0,-2.0,-2.0,-2.0,-2.0,-2.0,2.0,-2.0,2.0,2.0,-2.0,-2.0,-2.0,-2.0,-2.0,-2.0,-2.0
2025-06-05 11:57:13.406,0.013333931,-0.0012424963,-0.014485699,-0.02768048,-0.02698621,-0.04684985,0.0,0.0,0.0,-0.0115966415,-0.17027429,0.5057068,-0.12284,0.16422321,0.4184499,-0.20995072,-0.117385186,-0.49134916,-0.20234475,-0.095031485,-0.49314672,-0.15507613,-0.051716745,0.004203837,-0.070822835,0.07135376,0.015238491,-0.056572195,-0.04287406,0.07235473,0.02351103,0.019936241,-0.0607212,0.0038036664,-2.0,2.0,-2.0,2.0,2.0,-2.0,-2.0,-2.0,-2.0,-2.0,-2.0,-2.0,-2.0,2.0,-2.0,2.0,1.668445,-2.0,-2.0,-2.0,-2.0,-2.0,-2.0,-2.0
2025-06-05 11:57:13.426,0.04172344,-0.013249642,0.05009722,-0.023751777,-0.08656922,-0.031795595,0.0,0.0,0.0,-0.011543263,-0.186349,0.4911565,-0.13182352,0.16172497,0.43241763,-0.21254192,-0.11805699,-0.49713024,-0.22032656,-0.085427485,-0.4997705,-0.14742085,-0.01869865,-0.07158005,0.002256483,0.04049244,0.002416313,-0.047191683,-0.058817524,0.07189492,0.0018092418,-0.033173848,0.038617477,0.040010374,-2.0,2.0,-2.0,2.0,1.668445,-2.0,-2.0,-2.0,-2.0,-2.0,-2.0,-2.0,-2.0,2.0,-2.0,2.0,2.0,-2.0,-2.0,-2.0,-2.0,-2.0,-2.0,-2.0
2025-06-05 11:57:13.449,0.041288916,-0.011732769,0.026921077,-0.030823385,-0.09280198,-0.019944996,0.0,0.0,0.0,-0.011668522,-0.18404847,0.50049764,-0.13053995,0.16250482,0.43327516,-0.19639009,-0.11237692,-0.50196725,-0.21880387,-0.08611732,-0.48337945,-0.14994973,0.016839916,0.05238521,-0.0027388101,0.030533861,-0.041362144,0.047585726,0.02864543,0.068476446,-0.025380842,0.034028105,-0.016116807,-0.06914142,-2.0,2.0,-2.0,2.0,2.0,-2.0,-2.0,-2.0,-2.0,-2.0,-2.0,-2.0,-2.0,2.0,-2.0,2.0,2.0,-2.0,-2.0,-2.0,-2.0,-2.0,-2.0,-2.0
2025-06-05 11:57:13.466,-0.018221036,-0.0077204346,-0.045678277,-0.012803444,-0.09011441,0.038512677,0.0,0.0,0.0,-0.0117093725,-0.18705368,0.49960035,-0.12778132,0.16602156,0.4239082,-0.20239465,-0.108168915,-0.4897595,-0.2149241,-0.0917075,-0.49686453,-0.14630532,-0.027706333,0.07174733,0.0028557838,0.014149944,0.05572404,0.0012082454,-0.028480703,0.023735432,0.03341062,0.07171291,0.04248689,0.042039458,-2.0,2.0,-2.0,2.0,2.0,-2.0,-2.0,-2.0,-2.0,-2.0,-2.0,-2.0,-2.0,2.0,-2.0,2.0,1.6535778,-2.0,-2.0,-2.0,-2.0,-2.0,-2.0,-2.0
2025-06-05 11:57:13.486,-0.011322355,0.02464545,0.031759076,0.0035710281,-0.11016238,-0.006077146,0.0,0.0,0.0,-0.011649549,-0.17519866,0.49350113,-0.1292107,0.16722803,0.41773182,-0.19839716,-0.11313699,-0.49107984,-0.20230062,-0.095637605,-0.48516425,-0.14620428,0.04081483,-0.0033703877,0.015589905,0.043588135,-0.045969177,-0.03801659,0.021138093,-0.03701538,0.0422039,0.019907305,0.052315287,-0.033987988,-2.0,2.0,-2.0,2.0,1.6535778,-2.0,-2.0,-2.0,-2.0,-2.0,-2.0,-2.0,-2.0,2.0,-2.0,2.0,2.0,-2.0,-2.0,-2.0,-2.0,-2.0,-2.0,-2.0
2025-06-05 11:57:13.506,-0.003115746,-0.0007751415,0.04711631,-0.04965496,-0.11096688,-0.0034106737,0.0,0.0,0.0,-0.011752377,-0.18185988,0.4990838,-0.12133587,0.15969214,0.416118,-0.20186721,-0.10503759,-0.49710086,-0.21913788,-0.097359985,-0.5021451,-0.15848175,0.020350223,0.055809632,0.028233733,0.035214737,0.057588264,-0.0113699855,-0.023532221,-0.057178628,-0.018775389,-0.05184595,0.030212617,0.05534616,-2.0,2.0,-2.0,2.0,2.0,-2.0,-2.0,-2.0,-2.0,-2.0,-2.0,-2.0,-2.0,2.0,-2.0,2.0,2.0,-2.0,-2.0,-2.0,-2.0,-2.0,-2.0,-2.0
2025-06-05 11:57:13.526,-0.018809859,-0.039792,0.0013604901,0.032081984,-0.10329019,-0.027661713,0.0,0.0,0.0,-0.01176882,-0.17642742,0.488669,-0.13729858,0.16779889,0.41379654,-0.20685259,-0.10493685,-0.5027979,-0.21680513,-0.080419324,-0.48878592,-0.14843133,0.027007371,-0.010632848,0.018896617,-0.03932353,-0.030352237,0.0061920723,0.028016193,-0.050894365,0.0027448297,0.02748802,0.041338377,0.0069840127,-2.0,2.0,-2.0,2.0,2.0,-2.0,-2.0,-2.0,-2.0,-2.0,-2.0,-2.0,-2.0,2.0,-2.0,2.0,2.0,-2.0,-2.0,-2.0,-2.0,-2.0,-2.0,-2.0
2025-06-05 11:57:13.549,0.012632158,-0.033732563,-0.02403617,-0.0037645227,-0.08274404,0.049996562,0.0,0.0,0.0,-0.011688761,-0.17544106,0.4895528,-0.13705035,0.17291397,0.42931783,-0.20766747,-0.116116814,-0.4937655,-0.20912258,-0.0854437,-0.49195,-0.14569037,0.029276645,-0.04571736,0.022217961,0.02239731,0.045398347,-0.0061828084,0.041483212,-0.020613907,-0.071857214,-0.021236142,-0.052882403,-0.039980814,-2.0,2.0,-2.0,2.0,2.0,-2.0,-2.0,-2.0,-2.0,-2.0,-2.0,-2.0,-2.0,2.0,-2.0,2.0,1.8413583,-2.0,-2.0,-2.0,-2.0,-2.0,-2.0,-2.0
2025-06-05 11:57:13.566,-0.04559611,-0.009396818,0.040521555,0.0043700086,-0.064453855,-0.01814274,0.0,0.0,0.0,-0.011603246,-0.18429466,0.50582784,-0.122176185,0.16156659,0.43170106,-0.21327107,-0.10051688,-0.5052415,-0.20585997,-0.08234729,-0.4864895,-0.15675895,-0.06584421,0.015276787,-0.009714553,0.053724587,-0.00062157324,0.033316344,0.07416195,-0.015094813,0.06969322,-0.031663362,0.042198922,-0.025052061,-2.0,2.0,-2.0,2.0,1.8413583,-2.0,-2.0,-2.0,-2.0,-2.0,-2.0,-2.0,-2.0,2.0,-2.0,2.0,2.0,-2.0,-2.0,-2.0,-2.0,-2.0,-2.0,-2.0
2025-06-05 11:57:13.587,0.0380566,0.0034692865,0.014028656,-0.01588903,-0.027445272,-0.037395492,0.0,0.0,0.0,-0.011614941,-0.17389801,0.49653125,-0.13889264,0.1754748,0.43205455,-0.21322076,-0.10916159,-0.5083982,-0.20187898,-0.081022136,-0.49751896,-0.15384404,0.03087988,0.03059743,-0.02809535,0.074109085,-0.0070293755,0.033333044,0.0013298187,-0.020890715,0.06393769,-0.007790119,0.01978883,-0.01707712,-2.0,2.0,-2.0,2.0,2.0,-2.0,-2.0,-2.0,-2.0,-2.0,-2.0,-2.0,-2.0,2.0,-2.0,2.0,2.0,-2.0,-2.0,-2.0,-2.0,-2.0,-2.0,-2.0
2025-06-05 11:57:13.606,-0.03018144,-0.022931825,-0.026401056,0.02995598,-0.115668595,-0.04566277,0.0,0.0,0.0,-0.011600331,-0.17046896,0.49884596,-0.13287662,0.16752513,0.43266112,-0.20877862,-0.116239466,-0.4919,-0.21595289,-0.09310748,-0.48567584,-0.15985501,-0.056549158,0.032526948,0.046199318,0.048360873,0.072859585,0.048289582,0.035746984,0.04699742,0.005333178,0.017789582,0.003996286,-0.01309756,-2.0,2.0,-2.0,2.0,2.0,-2.0,-2.0,-2.0,-2.0,-2.0,-2.0,-2.0,-2.0,2.0,-2.0,2.0,1.6812382,-2.0,-2.0,-2.0,-2.0,-2.0,-2.0,-2.0
2025-06-05 11:57:13.627,0.025165873,-0.023417791,-0.039352108,-0.014908446,-0.09241318,-0.042607497,0.0,0.0,0.0,-0.011546166,-0.16968507,0.5074798,-0.12667976,0.17469177,0.41694358,-0.19534133,-0.11315903,-0.5011155,-0.20573427,-0.09754696,-0.4873625,-0.15348506,-0.0033802227,-0.012954287,-0.05224365,0.02970129,0.01602295,-0.0045685843,0.042563785,-0.07633064,-0.052357,0.0678019,-0.008399542,0.042328097,-2.0,2.0,-2.0,2.0,1.6812382,-2.0,-2.0,-2.0,-2.0,-2.0,-2.0,-2.0,-2.0,2.0,-2.0,2.0,1.6831663,-2.0,-2.0,-2.0,-2.0,-2.0,-2.0,-2.0
2025-06-05 11:57:13.649,0.028517336,-0.010654234,0.0020980444,0.029538069,-0.024203118,0.005928144,0.0,0.0,0.0,-0.01165251,-0.18440233,0.5023673,-0.13248059,0.1601223,0.4144839,-0.2083288,-0.108630605,-0.4913469,-0.20628671,-0.09435748,-0.49919596,-0.15593202,-0.06297964,-0.031355713,-0.033471357,-0.060935408,0.02801674,-0.065652095,0.050147794,0.016451819,0.0075524757,0.037147712,0.06309077,0.01874196,-2.0,2.0,-2.0,2.0,1.6831663,-2.0,-2.0,-2.0,-2.0,-2.0,-2.0,-2.0,-2.0,2.0,-2.0,2.0,2.0,-2.0,-2.0,-2.0,-2.0,-2.0,-2.0,-2.0
2025-06-05 11:57:13.667,0.035851452,0.048884068,0.022483021,-0.029825263,-0.064280495,0.0063944734,0.0,0.0,0.0,-0.0118414145,-0.1849002,0.49312878,-0.14103602,0.16162646,0.41727924,-0.20261283,-0.102735355,-0.5076347,-0.20261636,-0.09263511,-0.48855448,-0.14890008,0.044802207,-0.037716836,-0.008512698,0.001777125,-0.0019222773,0.042324394,-0.06949152,0.014744748,0.039321903,0.011015694,0.07221162,-1.8556788e-05,-2.0,2.0,-2.0,2.0,2.0,-2.0,-2.0,-2.0,-2.0,-2.0,-2.0,-2.0,-2.0,2.0,-2.0,2.0,2.0,-2.0,-2.0,-2.0,-2.0,-2.0,-2.0,-2.0
2025-06-05 11:57:13.687,0.021196667,-0.0411543,0.03153185,-0.048859432,-0.072910845,0.017747933,0.0,0.0,0.0,-0.011840253,-0.17284094,0.49208578,-0.13067944,0.16339722,0.42200062,-0.20094986,-0.11246659,-0.50803286,-0.20979038,-0.08851748,-0.48926917,-0.15982248,0.039196454,0.03477218,0.045700535,0.0096475715,0.04040654,-0.023570145,-0.061851818,-0.002294193,-0.063501455,-0.051580504,0.02356001,-0.04835305,-2.0,2.0,-2.0,2.0,2.0,-2.0,-2.0,-2.0,-2.0,-2.0,-2.0,-2.0,-2.0,2.0,-2.0,2.0,2.0,-2.0,-2.0,-2.0,-2.0,-2.0,-2.0,-2.0
2025-06-05 11:57:13.708,0.00677495,0.044650078,-0.02051768,-0.060420454,-0.030258864,0.029241089,0.0,0.0,0.0,-0.011731348,-0.17568567,0.5042275,-0.13659249,0.16594565,0.42348936,-0.20640814,-0.11821164,-0.50590664,-0.21792129,-0.09176201,-0.48773307,-0.14591977,-0.05869203,-0.05876425,0.06086362,0.052811313,-0.07047556,0.057174515,-0.038639084,-0.043328557,-0.03381498,0.063920066,-0.018619362,-0.03666455,-2.0,2.0,-2.0,2.0,2.0,-2.0,-2.0,-2.0,-2.0,-2.0,-2.0,-2.0,-2.0,2.0,-2.0,2.0,1.8786312,-2.0,-2.0,-2.0,-2.0,-2.0,-2.0,-2.0
2025-06-05 11:57:13.728,0.01795118,-0.013129531,0.036875915,0.02022106,-0.033697933,-0.046488214,0.0,0.0,0.0,-0.011624378,-0.18509445,0.50223285,-0.12110207,0.16165943,0.4217615,-0.21307695,-0.10963766,-0.50186765,-0.22230515,-0.08547925,-0.48908907,-0.153391,0.032675557,0.039243825,-0.042695243,-0.06583053,-0.0052474844,0.04124991,0.025504544,0.009673396,-0.044582013,-0.0033951427,0.06050021,0.05018365,-2.0,2.0,-2.0,2.0,1.8786312,-2.0,-2.0,-2.0,-2.0,-2.0,-2.0,-2.0,-2.0,2.0,-2.0,2.0,2.0,-2.0,-2.0,-2.0,-2.0,-2.0,-2.0,-2.0
2025-06-05 11:57:13.749,-0.045663644,0.0016279459,-0.033104014,0.006565302,-0.046447627,-0.016077368,0.0,0.0,0.0,-0.011603034,-0.1731416,0.49225727,-0.12463003,0.1607239,0.41876805,-0.19972745,-0.10960163,-0.50527763,-0.21476881,-0.0918165,-0.49248478,-0.14366175,-0.03872659,-0.031930126,-0.050073933,0.037767313,0.0095136,0.01611421,0.021682903,-0.019157268,0.030073468,-0.06948076,-0.05499827,0.0374694,-2.0,2.0,-2.0,2.0,2.0,-2.0,-2.0,-2.0,-2.0,-2.0,-2.0,-2.0,-2.0,2.0,-2.0,2.0,1.6031806,-2.0,-2.0,-2.0,-2.0,-2.0,-2.0,-2.0
2025-06-05 11:57:13.768,-0.049459536,-0.040335733,0.02115051,0.02498066,-0.07284266,-0.021192478,0.0,0.0,0.0,-0.011569926,-0.17069513,0.50460964,-0.13424164,0.1659422,0.41684043,-0.21284722,-0.10737266,-0.49218416,-0.2165666,-0.088604465,-0.4842115,-0.1510853,0.04902869,-0.051866326,-0.05992393,-0.016797682,-0.0077731307,0.030046344,0.060076963,0.07246792,0.03748162,0.03716576,0.02032581,-0.057744123,-2.0,2.0,-2.0,2.0,1.6031806,-2.0,-2.0,-2.0,-2.0,-2.0,-2.0,-2.0,-2.0,2.0,-2.0,2.0,2.0,-2.0,-2.0,-2.0,-2.0,-2.0,-2.0,-2.0
2025-06-05 11:57:13.787,0.043650035,-0.018574351,-0.008335091,-0.012507569,-0.0669127,0.031302378,0.0,0.0,0.0,-0.011710412,-0.17642218,0.4925629,-0.1268672,0.15891765,0.43182003,-0.19805594,-0.102382295,-0.5067745,-0.21314763,-0.096362844,-0.49616817,-0.15411279,-0.0554089,-0.062037475,0.028124021,0.024158848,0.026952619,-0.0019621127,-0.04089613,0.06475663,-0.061319295,-0.023152962,-0.01251754,-0.05690565,-2.0,2.0,-2.0,2.0,2.0,-2.0,-2.0,-2.0,-2.0,-2.0,-2.0,-2.0,-2.0,2.0,-2.0,2.0,2.0,-2.0,-2.0,-2.0,-2.0,-2.0,-2.0,-2.0
2025-06-05 11:57:13.808,0.041921847,0.0037002226,0.03957125,-0.014644071,-0.09516537,0.024940973,0.0,0.0,0.0,-0.011740724,-0.17850012,0.495541,-0.12650485,0.1767051,0.42063776,-0.2054352,-0.1064571,-0.50078285,-0.2197093,-0.08668849,-0.4995429,-0.14494985,0.050052114,-0.05870617,0.03263242,0.06560477,0.023286827,0.003534832,-0.03117476,0.029307872,-0.045456756,-0.008087453,-0.029633682,0.05198234,-2.0,2.0,-2.0,2.0,2.0,-2.0,-2.0,-2.0,-2.0,-2.0,-2.0,-2.0,-2.0,2.0,-2.0,2.0,2.0,-2.0,-2.0,-2.0,-2.0,-2.0,-2.0,-2.0
2025-06-05 11:57:13.827,0.040831134,-0.013456572,-0.022805247,-0.004592253,-0.0835766,-0.008550464,0.0,0.0,0.0,-0.0116555495,-0.17768206,0.50376326,-0.13714153,0.17383447,0.422492,-0.21022837,-0.10241008,-0.500688,-0.21195395,-0.08751725,-0.49768332,-0.1564613,0.058440372,-0.031824656,0.013428456,-0.07285697,0.040063743,0.0043245177,0.07581839,0.032584473,-0.058238134,-0.0583666,0.019518765,0.04531521,-2.0,2.0,-2.0,2.0,2.0,-2.0,-2.0,-2.0,-2.0,-2.0,-2.0,-2.0,-2.0,2.0,-2.0,2.0,1.9349992,-2.0,-2.0,-2.0,-2.0,-2.0,-2.0,-2.0
2025-06-05 11:57:13.850,0.011318839,0.040216066,-0.018221742,0.004255997,-0.019812638,-0.04065785,0.0,0.0,0.0,-0.011562664,-0.16922346,0.49048558,-0.13444746,0.16474374,0.42744198,-0.19945173,-0.1134975,-0.49513465,-0.2101203,-0.091809675,-0.49565673,-0.15083684,0.012933641,0.014890689,-0.065169774,0.033244584,0.06476431,0.027255561,-0.059629846,0.011171307,0.06180947,-0.071615934,-0.07332198,-0.061128348,-2.0,2.0,-2.0,2.0,1.9349992,-2.0,-2.0,-2.0,-2.0,-2.0,-2.0,-2.0,-2.0,2.0,-2.0,2.0,1.7067132,-2.0,-2.0,-2.0,-2.0,-2.0,-2.0,-2.0
2025-06-05 11:57:13.868,-0.047707375,-0.037244093,0.0015803819,0.00015831075,-0.041059498,-0.041346196,0.0,0.0,0.0,-0.011522335,-0.18179597,0.4950137,-0.13619241,0.15973608,0.43245757,-0.21346208,-0.11321235,-0.50160784,-0.21178927,-0.0915263,-0.4836986,-0.15710212,0.017366111,0.009162541,-0.07035302,0.043892927,-0.07746704,-0.019082334,-0.029126871,0.07233429,0.054119904,-0.04529914,0.02975773,0.017614372,-2.0,2.0,-2.0,2.0,1.7067132,-2.0,-2.0,-2.0,-2.0,-2.0,-2.0,-2.0,-2.0,2.0,-2.0,2.0,1.8676482,-2.0,-2.0,-2.0,-2.0,-2.0,-2.0,-2.0
2025-06-05 11:57:13.888,0.04872514,0.0039064856,-0.0059369747,-0.0056103934,-0.09886342,-0.048987985,0.0,0.0,0.0,-0.011630021,-0.18434931,0.48769256,-0.123486795,0.1731539,0.43019918,-0.19453663,-0.108547874,-0.4985934,-0.22000739,-0.0932217,-0.4909502,-0.14444436,0.003995125,-0.057300664,-0.0427406,0.05727117,0.0716318,0.05971734,0.017704094,-0.04063286,-0.03952148,0.044525355,-0.0365837,0.034873314,-2.0,2.0,-2.0,2.0,1.8676482,-2.0,-2.0,-2.0,-2.0,-2.0,-2.0,-2.0,-2.0,2.0,-2.0,2.0,2.0,-2.0,-2.0,-2.0,-2.0,-2.0,-2.0,-2.0
2025-06-05 11:57:13.908,0.00960111,-0.03476186,-0.012541337,0.027368156,-0.0633822,-0.014671552,0.0,0.0,0.0,-0.011715834,-0.1812839,0.50241697,-0.13484114,0.17232749,0.4319737,-0.20293565,-0.10416898,-0.49803716,-0.21644042,-0.09224145,-0.48666477,-0.14788695,-0.060298804,-0.07444201,-0.06903976,-0.014543811,0.024082514,0.053530276,-0.0046234583,-0.02441673,0.015087299,0.046904482,0.003430612,0.046270736,-2.0,2.0,-2.0,2.0,2.0,-2.0,-2.0,-2.0,-2.0,-2.0,-2.0,-2.0,-2.0,2.0,-2.0,2.0,2.0,-2.0,-2.0,-2.0,-2.0,-2.0,-2.0,-2.0
2025-06-05 11:57:13.928,-0.046036195,0.02585285,-0.048283555,0.013322321,-0.07000548,0.018192023,0.0,0.0,0.0,-0.011675419,-0.1812772,0.5045244,-0.121618435,0.16155942,0.4274159,-0.19684175,-0.11342453,-0.4950738,-0.22216152,-0.096504346,-0.5005993,-0.15609027,-0.07324286,0.054248665,0.0056104446,-0.057448804,-0.02395964,0.006723641,-0.03793076,0.07035251,-0.059366614,0.021725498,0.06333507,-0.07207134,-2.0,2.0,-2.0,2.0,2.0,-2.0,-2.0,-2.0,-2.0,-2.0,-2.0,-2.0,-2.0,2.0,-2.0,2.0,1.4967321,-2.0,-2.0,-2.0,-2.0,-2.0,-2.0,-2.0
2025-06-05 11:57:13.949,0.04309452,0.007957335,0.041744262,-0.03876821,-0.03192347,0.008644189,0.0,0.0,0.0,-0.011586768,-0.16951197,0.5042072,-0.13470803,0.1737315,0.41923162,-0.20208584,-0.11193803,-0.4999227,-0.21956763,-0.0953122,-0.48659322,-0.14857474,0.021710625,-0.011687851,-0.024446988,-0.0660302,-0.04509097,0.04321751,-0.033876985,-0.006300505,-0.028123802,-0.001998163,-0.022382732,0.0331458,-2.0,2.0,-2.0,2.0,1.4967321,-2.0,-2.0,-2.0,-2.0,-2.0,-2.0,-2.0,-2.0,2.0,-2.0,2.0,2.0,-2.0,-2.0,-2.0,-2.0,-2.0,-2.0,-2.0
2025-06-05 11:57:13.968,0.04366672,0.013950179,0.034043573,-0.0232201,-0.06885072,0.040983845,0.0,0.0,0.0,-0.0117599415,-0.16851458,0.49164513,-0.13916948,0.17539194,0.42814812,-0.19454743,-0.10478444,-0.5085286,-0.21379195,-0.08549855,-0.48702404,-0.1521273,0.014899829,0.05652911,-0.018361261,0.023811815,0.0011920806,-0.050173823,-0.03614118,0.07544077,0.02164871,0.021548606,0.019896718,0.00023185655,-2.0,2.0,-2.0,2.0,2.0,-2.0,-2.0,-2.0,-2.0,-2.0,-2.0,-2.0,-2.0,2.0,-2.0,2.0,2.0,-2.0,-2.0,-2.0,-2.0,-2.0,-2.0,-2.0
2025-06-05 11:57:13.989,-0.010219324,-0.044824615,0.011572725,-0.030471561,-0.04897075,-0.005120901,0.0,0.0,0.0,-0.011803986,-0.18090326,0.49793488,-0.13033654,0.15870151,0.41528043,-0.19833118,-0.10749334,-0.50614935,-0.21932507,-0.090687566,-0.49401128,-0.1474645,-0.04728173,0.06160686,-0.022792764,0.027302409,0.060238462,-0.03706731,0.053299777,-0.017534686,0.07140911,-0.0048942408,0.06913441,0.031643502,-2.0,2.0,-2.0,2.0,2.0,-2.0,-2.0,-2.0,-2.0,-2.0,-2.0,-2.0,-2.0,2.0,-2.0,2.0,2.0,-2.0,-2.0,-2.0,-2.0,-2.0,-2.0,-2.0
2025-06-05 11:57:14.009,-0.014646668,0.0032496012,-0.042122893,0.029027952,-0.0720951,-0.037140958,0.0,0.0,0.0,-0.011703042,-0.1736318,0.4871639,-0.12907444,0.17039101,0.4305915,-0.20899798,-0.10729276,-0.49394715,-0.20806396,-0.09224433,-0.5009911,-0.1591638,0.05850375,-0.020450836,0.041187886,-0.017657107,0.07369572,0.04252243,-0.07240502,-0.06915093,0.05076234,-0.03599901,-0.06397782,-0.028529245,-2.0,2.0,-2.0,2.0,2.0,-2.0,-2.0,-2.0,-2.0,-2.0,-2.0,-2.0,-2.0,2.0,-2.0,2.0,1.6396449,-2.0,-2.0,-2.0,-2.0,-2.0,-2.0,-2.0
2025-06-05 11:57:14.030,-0.045471206,0.021889545,0.0021274276,0.00077778485,-0.109701924,0.012826831,0.0,0.0,0.0,-0.011590707,-0.17443155,0.49022967,-0.13161169,0.1699971,0.41694745,-0.20160875,-0.108292416,-0.5046918,-0.20580103,-0.09366399,-0.48558694,-0.1558023,-0.0017086181,0.011559453,0.036462057,0.052968115,-0.03593925,0.0074563324,0.0078014475,-0.042850044,-0.019868825,0.05329711,0.065228626,-0.03449269,-2.0,2.0,-2.0,2.0,1.6396449,-2.0,-2.0,-2.0,-2.0,-2.0,-2.0,-2.0,-2.0,2.0,-2.0,2.0,2.0,-2.0,-2.0,-2.0,-2.0,-2.0,-2.0,-2.0
2025-06-05 11:57:14.048,-0.018497214,0.053330243,-0.016473819,-0.016840646,-0.05930282,0.013245154,0.0,0.0,0.0,-0.011681825,-0.17717414,0.49030462,-0.1262872,0.16827108,0.4166822,-0.2030263,-0.11309776,-0.5013974,-0.20480017,-0.08497026,-0.49377137,-0.14664961,0.0018940365,0.04954377,0.019845948,-0.046000324,-0.02329689,0.04884043,-0.04188969,-0.052882247,0.039797403,0.07429424,0.057895124,0.04762375,-2.0,2.0,-2.0,2.0,2.0,-2.0,-2.0,-2.0,-2.0,-2.0,-2.0,-2.0,-2.0,2.0,-2.0,2.0,1.9985983,-2.0,-2.0,-2.0,-2.0,-2.0,-2.0,-2.0
2025-06-05 11:57:14.069,-0.034065466,0.03805977,-0.02180143,0.026428312,-0.052949917,0.039240833,0.0,0.0,0.0,-0.011693991,-0.16862588,0.49706256,-0.1267768,0.16542253,0.43031463,-0.19994432,-0.10372903,-0.492842,-0.21202317,-0.07988601,-0.4972174,-0.1514761,0.072920464,-0.069540314,0.054786894,-0.0077974442,-0.037179213,0.0057086516,-0.07114559,-0.011601891,0.018851819,-0.03349498,0.069215804,0.02177553,-2.0,2.0,-2.0,2.0,1.9985983,-2.0,-2.0,-2.0,-2.0,-2.0,-2.0,-2.0,-2.0,2.0,-2.0,2.0,2.0,-2.0,-2.0,-2.0,-2.0,-2.0,-2.0,-2.0
2025-06-05 11:57:14.089,0.0411658,-0.013475559,0.02231767,-0.040719435,-0.049330477,0.0076653482,0.0,0.0,0.0,-0.011606999,-0.18263395,0.49528423,-0.1321069,0.16027533,0.42670134,-0.20984921,-0.109940015,-0.50394654,-0.20549686,-0.08001826,-0.49723533,-0.15280919,0.062723935,-0.06969754,0.03334188,0.00780542,-0.040682968,0.010917043,-0.02779283,-0.052308105,-0.056115925,0.035790358,-0.030027675,0.011583912,-2.0,2.0,-2.0,2.0,2.0,-2.0,-2.0,-2.0,-2.0,-2.0,-2.0,-2.0,-2.0,2.0,-2.0,2.0,2.0,-2.0,-2.0,-2.0,-2.0,-2.0,-2.0,-2.0
2025-06-05 11:57:14.109,0.01970626,0.046330877,-0.024691403,0.02557805,-0.10417442,-0.029882168,0.0,0.0,0.0,-0.011514473,-0.17615825,0.494565,-0.14015633,0.17206462,0.4269463,-0.20179385,-0.1062488,-0.49886954,-0.21981905,-0.08448275,-0.48917282,-0.15153727,-0.0147969555,0.016331587,-0.021789065,-0.07414594,-0.019052677,0.065239266,-0.009866105,0.020002952,0.014529371,-0.015338852,-0.06314566,-0.0014333096,-2.0,2.0,-2.0,2.0,2.0,-2.0,-2.0,-2.0,-2.0,-2.0,-2.0,-2.0,-2.0,2.0,-2.0,2.0,1.6703029,-2.0,-2.0,-2.0,-2.0,-2.0,-2.0,-2.0
2025-06-05 11:57:14.132,0.011699846,-0.016660275,-0.028736107,0.0035825695,-0.032417994,0.010768324,0.0,0.0,0.0,-0.011441365,-0.17042063,0.49204582,-0.13762958,0.15769759,0.4255865,-0.19948705,-0.10181938,-0.507173,-0.2092676,-0.079810984,-0.4870837,-0.15926968,0.053147625,0.0433048,-0.05415312,0.016427388,0.024031319,0.00023246389,0.026772799,-0.07465825,-0.067946605,-0.067249775,-0.048160963,0.031379446,-2.0,2.0,-2.0,2.0,1.6703029,-2.0,-2.0,-2.0,-2.0,-2.0,-2.0,-2.0,-2.0,2.0,-2.0,2.0,1.7684048,-2.0,-2.0,-2.0,-2.0,-2.0,-2.0,-2.0
2025-06-05 11:57:14.149,0.02422196,-0.053193588,-0.031944167,0.001475551,-0.06932533,0.009107345,0.0,0.0,0.0,-0.011552072,-0.17280604,0.5005605,-0.12354394,0.17690888,0.414085,-0.20149744,-0.101230696,-0.50537306,-0.21474369,-0.08256192,-0.50207937,-0.14192165,-0.06552127,-0.008128024,-0.051955447,0.04599176,0.014563106,-0.04635679,-0.02440238,-0.021374509,0.032828823,-0.029375914,-0.050677437,-0.007600991,-2.0,2.0,-2.0,2.0,1.7684048,-2.0,-2.0,-2.0,-2.0,-2.0,-2.0,-2.0,-2.0,2.0,-2.0,2.0,1.5743604,-2.0,-2.0,-2.0,-2.0,-2.0,-2.0,-2.0
2025-06-05 11:57:14.169,-0.0109458435,-0.050187357,0.038851954,-0.012624904,-0.09496236,-0.030370811,0.0,0.0,0.0,-0.011701869,-0.18584882,0.50386584,-0.12346702,0.17718357,0.4278015,-0.19869031,-0.11395617,-0.5056239,-0.2120784,-0.08429753,-0.49420357,-0.1426003,-0.01933138,0.023386864,-0.0007827319,0.04635537,0.04631266,0.072086856,0.02304516,0.06796371,0.02339211,0.033308428,-0.03409345,0.013862851,-2.0,2.0,-2.0,2.0,1.5743604,-2.0,-2.0,-2.0,-2.0,-2.0,-2.0,-2.0,-2.0,2.0,-2.0,2.0,2.0,-2.0,-2.0,-2.0,-2.0,-2.0,-2.0,-2.0
2025-06-05 11:57:14.233,-0.02736258,-0.012435807,0.00565131,-0.02050035,-0.08801566,0.03975008,0.0,0.0,0.0,-0.011902615,-0.18024161,0.49667805,-0.12879352,0.17196451,0.41208124,-0.20529959,-0.114502385,-0.5013996,-0.21069612,-0.08723752,-0.49359402,-0.14662978,-0.039541483,-0.0012124665,-0.05017058,-0.03223157,0.040366277,0.009471016,-0.058584865,0.06383306,0.013808575,-0.031421583,0.048078947,-0.03623294,-2.0,2.0,-2.0,2.0,2.0,-2.0,-2.0,-2.0,-2.0,-2.0,-2.0,-2.0,-2.0,2.0,-2.0,2.0,2.0,-2.0,-2.0,-2.0,-2.0,-2.0,-2.0,-2.0
2025-06-05 11:57:14.255,-0.030495554,0.031776868,0.00887145,-0.03527509,-0.07462096,0.025732808,0.0,0.0,0.0,-0.011889379,-0.18053614,0.49721953,-0.1280604,0.16408645,0.41921455,-0.20594478,-0.11539192,-0.5060159,-0.20842382,-0.08845198,-0.5051909,-0.15594026,0.022190731,-0.011492349,-0.04354474,-0.02095728,0.010358891,0.034702297,-0.03297215,-0.066958115,0.041389335,0.0073324507,-0.05917763,0.051637378,-2.0,2.0,-2.0,2.0,2.0,-2.0,-2.0,-2.0,-2.0,-2.0,-2.0,-2.0,-2.0,2.0,-2.0,2.0,2.0,-2.0,-2.0,-2.0,-2.0,-2.0,-2.0,-2.0
2025-06-05 11:57:14.273,-0.04570736,0.03416727,0.025078421,-0.007997408,-0.042469017,-0.030423343,0.0,0.0,0.0,-0.011746118,-0.1761029,0.49801597,-0.12426158,0.17359063,0.430053,-0.21084592,-0.1197419,-0.50123644,-0.21900557,-0.09911619,-0.4879936,-0.14884186,0.038197376,-0.029254204,-0.046440724,-0.06752015,0.0052430728,0.069042064,-0.05538828,-0.054833602,-0.034179002,0.06108897,-0.044595867,0.046443105,-2.0,2.0,-2.0,2.0,2.0,-2.0,-2.0,-2.0,-2.0,-2.0,-2.0,-2.0,-2.0,2.0,-2.0,2.0,2.0,-2.0,-2.0,-2.0,-2.0,-2.0,-2.0,-2.0
2025-06-05 11:57:14.293,-0.028030213,0.027099302,0.020153616,-0.00066474924,-0.11588988,0.0113860825,0.0,0.0,0.0,-0.011607749,-0.18503083,0.5019489,-0.13328545,0.17467542,0.4271309,-0.2018829,-0.110999726,-0.4933495,-0.21110326,-0.09196449,-0.48514715,-0.15989909,-0.05548121,0.025235357,-0.045164257,-0.03918785,-0.0041080513,0.06598198,0.054639816,0.04509753,0.013350982,-0.043897446,-0.0128725,-0.050245244,-2.0,2.0,-2.0,2.0,2.0,-2.0,-2.0,-2.0,-2.0,-2.0,-2.0,-2.0,-2.0,2.0,-2.0,2.0,2.0,-2.0,-2.0,-2.0,-2.0,-2.0,-2.0,-2.0
2025-06-05 11:57:14.315,-0.014371973,0.031259824,0.041245807,-0.020406455,-0.070595995,-0.014418371,0.0,0.0,0.0,-0.011501779,-0.18265226,0.50421125,-0.1306863,0.16573612,0.41796297,-0.19769284,-0.113031246,-0.4956545,-0.20953023,-0.08170149,-0.49882013,-0.14323314,0.021884665,0.060639728,-0.04729758,-0.057149313,-0.018924704,0.054635964,0.037327483,0.015311536,0.06620949,0.03495818,-0.011834028,0.07495675,-2.0,2.0,-2.0,2.0,2.0,-2.0,-2.0,-2.0,-2.0,-2.0,-2.0,-2.0,-2.0,2.0,-2.0,2.0,2.0,-2.0,-2.0,-2.0,-2.0,-2.0,-2.0,-2.0
2025-06-05 11:57:14.334,0.010802541,-0.045508534,-0.04327391,-0.008350193,-0.043862663,-0.049634464,0.0,0.0,0.0,-0.011423278,-0.17804773,0.50355166,-0.12599346,0.1731138,0.42161542,-0.20535226,-0.10106376,-0.49132836,-0.2202772,-0.08990487,-0.48869193,-0.14774549,0.038491968,-0.069610395,-0.030228171,-0.055809136,0.07576775,-0.059508067,0.022164505,0.037583273,0.0035871698,-0.026586302,-0.047181338,0.051854108,-2.0,2.0,-2.0,2.0,2.0,-2.0,-2.0,-2.0,-2.0,-2.0,-2.0,-2.0,-2.0,2.0,-2.0,2.0,1.7280389,-2.0,-2.0,-2.0,-2.0,-2.0,-2.0,-2.0
2025-06-05 11:57:14.353,-0.034932364,-0.048638403,-0.014153531,0.00093837833,-0.033572815,0.028939635,0.0,0.0,0.0,-0.011363949,-0.18792741,0.4957666,-0.12267558,0.16027807,0.42174348,-0.19484495,-0.11337024,-0.49297547,-0.21859208,-0.08499899,-0.49411204,-0.15131028,-0.018471828,-0.058456812,-0.073314644,0.014096541,0.020016659,0.074577875,-0.057050083,0.034725435,-0.052855387,-0.042703774,-0.034989953,-0.013562104,-2.0,2.0,-2.0,2.0,1.7280389,-2.0,-2.0,-2.0,-2.0,-2.0,-2.0,-2.0,-2.0,2.0,-2.0,2.0,1.766713,-2.0,-2.0,-2.0,-2.0,-2.0,-2.0,-2.0
2025-06-05 11:57:14.373,-0.003223045,0.0442558,-0.0376628,0.012250857,-0.02065626,0.021604083,0.0,0.0,0.0,-0.011454343,-0.17264946,0.4976452,-0.13434923,0.17412461,0.42770016,-0.1994593,-0.11369744,-0.5091712,-0.2223638,-0.094565354,-0.49968037,-0.14234024,-0.06325001,0.050323922,0.07298192,-0.054180626,0.07013049,-0.0040388443,0.040048953,-0.011148167,-0.017389255,-0.05369755,-0.04242679,0.03486883,-2.0,2.0,-2.0,2.0,1.766713,-2.0,-2.0,-2.0,-2.0,-2.0,-2.0,-2.0,-2.0,2.0,-2.0,2.0,1.7918589,-2.0,-2.0,-2.0,-2.0,-2.0,-2.0,-2.0
2025-06-05 11:57:14.393,0.0013207468,-0.000994982,-0.03796135,-0.012457131,-0.058319338,-0.0213219,0.0,0.0,0.0,-0.011597107,-0.18086228,0.48947912,-0.13946517,0.17532991,0.41977075,-0.20480019,-0.11295999,-0.5014083,-0.21056013,-0.08500686,-0.49686718,-0.1533507,-0.014414639,-0.010951689,-0.058479384,0.067126796,-0.04770523,0.046947632,0.0058511132,-0.035961375,0.031271275,-0.063292004,-0.069415875,-0.040175546,-2.0,2.0,-2.0,2.0,1.7918589,-2.0,-2.0,-2.0,-2.0,-2.0,-2.0,-2.0,-2.0,2.0,-2.0,2.0,1.3587537,-2.0,-2.0,-2.0,-2.0,-2.0,-2.0,-2.0
2025-06-05 11:57:14.415,-0.019686298,-0.047752503,-0.029605221,-0.009880603,-0.09610662,0.026668092,0.0,0.0,0.0,-0.011698922,-0.16891776,0.5017538,-0.124620505,0.17581162,0.41751704,-0.19869933,-0.109645635,-0.49724022,-0.21337727,-0.08514213,-0.5073704,-0.14607464,0.057451613,0.018407514,-0.05524401,-0.0402764,0.01776953,0.039273083,-0.059370536,0.020141495,0.02115323,-0.0030988983,-0.005589315,0.03896292,-2.0,2.0,-2.0,2.0,1.3587537,-2.0,-2.0,-2.0,-2.0,-2.0,-2.0,-2.0,-2.0,2.0,-2.0,2.0,1.6027273,-2.0,-2.0,-2.0,-2.0,-2.0,-2.0,-2.0
2025-06-05 11:57:14.435,0.020116858,-0.04874899,0.004321548,0.006947424,-0.08561004,-0.010059067,0.0,0.0,0.0,-0.011987547,-0.18057333,0.49141383,-0.12879275,0.17160152,0.42373794,-0.19386314,-0.109599404,-0.49803787,-0.22341329,-0.10067033,-0.5004276,-0.14393997,-0.016028902,-0.026102545,-0.06305044,-0.005847144,0.023641082,0.0007576987,-0.00068311655,0.007953694,0.03534305,0.045169786,0.016807169,-0.016806832,-2.0,2.0,-2.0,2.0,1.6027273,-2.0,-2.0,-2.0,-2.0,-2.0,-2.0,-2.0,-2.0,2.0,-2.0,2.0,2.0,-2.0,-2.0,-2.0,-2.0,-2.0,-2.0,-2.0
2025-06-05 11:57:14.455,-0.0188188,0.024224637,-0.028036201,-0.0036460857,-0.05197412,-0.013197477,0.0,0.0,0.0,-0.012229546,-0.18475103,0.49468377,-0.12608723,0.16651924,0.42260602,-0.19900955,-0.11879602,-0.49265537,-0.21808842,-0.0882231,-0.49726877,-0.15807496,-0.0763594,-0.0046682083,0.018127887,0.019658523,0.06412662,0.052060205,0.0405805,-0.007135171,0.050246473,-0.072994106,-0.040620442,0.02231536,-2.0,2.0,-2.0,2.0,2.0,-2.0,-2.0,-2.0,-2.0,-2.0,-2.0,-2.0,-2.0,2.0,-2.0,2.0,1.7157316,-2.0,-2.0,-2.0,-2.0,-2.0,-2.0,-2.0
2025-06-05 11:57:14.474,0.01296419,0.019575544,-0.029513756,0.03755401,-0.04095892,0.017520344,0.0,0.0,0.0,-0.012142074,-0.18242519,0.48454317,-0.14034396,0.17646928,0.40612617,-0.20052908,-0.109517805,-0.5028167,-0.22191015,-0.09323857,-0.50903,-0.1487263,0.057009168,-0.06144267,-0.051812325,-0.004882402,0.017242137,-0.020513233,0.07288084,-0.030696247,-0.04341711,0.01368865,-0.00927884,-0.037813883,-2.0,2.0,-2.0,2.0,1.7157316,-2.0,-2.0,-2.0,-2.0,-2.0,-2.0,-2.0,-2.0,2.0,-2.0,2.0,1.8551651,-2.0,-2.0,-2.0,-2.0,-2.0,-2.0,-2.0
2025-06-05 11:57:14.494,-0.017591324,0.02564724,0.03993945,-0.0004998327,-0.09876556,-0.019685987,0.0,0.0,0.0,-0.012064425,-0.17687552,0.4801125,-0.13342257,0.18022783,0.42232022,-0.20008646,-0.104493335,-0.50456506,-0.22673108,-0.093456365,-0.51047146,-0.14706774,-0.055031408,0.008757996,-0.00232854,0.07293955,0.010117697,0.014757608,-0.053850923,0.04131368,0.03330937,-0.07207595,0.03190145,0.040458046,-2.0,2.0,-2.0,2.0,1.8551651,-2.0,-2.0,-2.0,-2.0,-2.0,-2.0,-2.0,-2.0,2.0,-2.0,2.0,2.0,-2.0,-2.0,-2.0,-2.0,-2.0,-2.0,-2.0
2025-06-05 11:57:14.516,0.013373181,0.020501405,-0.042683024,-0.004548396,-0.09290211,-0.019074887,0.0,0.0,0.0,-0.012006178,-0.17347378,0.47887754,-0.13792507,0.16956657,0.42389458,-0.19032,-0.113882534,-0.5048066,-0.222201,-0.09324161,-0.49202508,-0.1565361,0.06838953,-0.0035387685,0.021133577,-0.030954255,0.073360495,-0.019997926,-0.057092056,0.033014193,0.058360506,-0.06409972,0.0069224616,0.050334875,-2.0,2.0,-2.0,2.0,2.0,-2.0,-2.0,-2.0,-2.0,-2.0,-2.0,-2.0,-2.0,2.0,-2.0,2.0,1.76366,-2.0,-2.0,-2.0,-2.0,-2.0,-2.0,-2.0
2025-06-05 11:57:14.534,-0.020432165,0.037201386,0.0035166766,-0.0076458086,-0.102314256,-0.048175834,0.0,0.0,0.0,-0.011862678,-0.18659645,0.49658734,-0.12562662,0.16099119,0.4120765,-0.19450773,-0.11161006,-0.5028831,-0.22029868,-0.096107274,-0.49287865,-0.15713373,0.009556923,0.006209922,0.021961529,0.05476974,0.012693774,-0.0224464,-0.05762619,0.023610245,-0.030685205,-0.007290692,-0.0580035,-0.013166792,-2.0,2.0,-2.0,2.0,1.76366,-2.0,-2.0,-2.0,-2.0,-2.0,-2.0,-2.0,-2.0,2.0,-2.0,2.0,1.9506634,-2.0,-2.0,-2.0,-2.0,-2.0,-2.0,-2.0
2025-06-05 11:57:14.556,0.03300564,-0.022619396,-0.052314144,0.031072441,-0.064608425,-0.04400566,0.0,0.0,0.0,-0.011814073,-0.17010342,0.48544714,-0.13901971,0.17103654,0.4125309,-0.19228463,-0.105083406,-0.5005106,-0.21710642,-0.093061924,-0.495896,-0.15082067,0.057627376,-0.015798982,-0.064996414,-0.050431687,-0.02240108,0.03116525,-0.07277528,0.0062953443,-0.04065177,-0.011868813,0.031523537,-0.04716003,-2.0,2.0,-2.0,2.0,1.9506634,-2.0,-2.0,-2.0,-2.0,-2.0,-2.0,-2.0,-2.0,2.0,-1.7305313,2.0,1.4442105,-2.0,-2.0,-2.0,-2.0,-2.0,-2.0,-2.0
2025-06-05 11:57:14.575,0.041577328,-0.023711793,-0.016993513,0.022174673,-0.05367605,0.0037951514,0.0,0.0,0.0,-0.011753768,-0.1706214,0.4891368,-0.12127002,0.16975611,0.4126844,-0.19986117,-0.10954305,-0.4940887,-0.21470733,-0.08499724,-0.5048193,-0.14382187,0.02022041,-0.037575547,0.07874815,-0.030114979,0.045584667,0.008899297,0.06501331,0.014080812,0.047080718,0.040682938,0.024686113,-0.026288785,-2.0,2.0,-1.7305313,2.0,1.4442105,-2.0,-2.0,-2.0,-2.0,-2.0,-2.0,-2.0,-2.0,2.0,-2.0,2.0,1.9964716,-2.0,-2.0,-2.0,-2.0,-2.0,-2.0,-2.0
2025-06-05 11:57:14.596,-0.014582818,0.029214611,-0.0016032978,-0.022224806,-0.045864955,0.03716412,0.0,0.0,0.0,-0.011970457,-0.17119603,0.47816858,-0.12015999,0.18068779,0.41606462,-0.20021893,-0.10870145,-0.5021722,-0.21774302,-0.09815547,-0.49972507,-0.1455651,-0.05011793,0.053996444,-0.03126047,-0.01768989,-0.029466886,0.07195959,0.055187028,-0.06351242,-0.06752194,0.058971,0.02207653,-0.048639715,-2.0,2.0,-2.0,2.0,1.9964716,-2.0,-2.0,-2.0,-2.0,-2.0,-2.0,-2.0,-2.0,2.0,-2.0,2.0,1.8982509,-2.0,-2.0,-2.0,-2.0,-2.0,-2.0,-2.0
2025-06-05 11:57:14.615,0.033742324,-0.0098519465,0.012980436,-0.04979146,-0.104972295,0.0039009738,0.0,0.0,0.0,-0.012011046,-0.17521709,0.49345347,-0.12650551,0.16630012,0.41335577,-0.20418823,-0.118960366,-0.49151278,-0.209398,-0.09593058,-0.50450563,-0.14876978,0.07360413,-0.039055236,0.03952647,0.028400457,0.027656393,-0.025173595,0.06819743,-0.013762285,-0.038142275,-0.026200533,-0.06792531,0.056120697,-2.0,2.0,-2.0,2.0,1.8982509,-2.0,-2.0,-2.0,-2.0,-2.0,-2.0,-2.0,-2.0,2.0,-2.0,2.0,2.0,-2.0,-2.0,-2.0,-2.0,-2.0,-2.0,-2.0
2025-06-05 11:57:14.635,0.026769027,0.02037293,-0.02754644,-0.034035712,-0.09513186,-0.03298756,0.0,0.0,0.0,-0.011911247,-0.16899212,0.48761582,-0.13241659,0.16369715,0.41612303,-0.19525696,-0.11251514,-0.4996439,-0.21226536,-0.08513298,-0.49308383,-0.1501044,-0.06066595,0.02056957,0.02095202,-0.015438252,0.024509596,-0.049107563,-0.009854289,0.06189598,0.060927894,-0.004265345,0.04567377,-0.05118455,-2.0,2.0,-2.0,2.0,2.0,-2.0,-2.0,-2.0,-2.0,-2.0,-2.0,-2.0,-2.0,2.0,-2.0,2.0,1.820255,-2.0,-2.0,-2.0,-2.0,-2.0,-2.0,-2.0
