openverse-orca/OrcaGym/log/simulation_log_20250604_122822.csv
timestamp,imu_angle_roll,imu_angle_pitch,imu_angle_yaw,imu_angular_velocity_roll,imu_angular_velocity_pitch,imu_angular_velocity_yaw,imu_acc_x,imu_acc_y,imu_acc_z,fl_joint1_pos,fl_joint1_vel,fl_joint1_torque,fl_joint2_pos,fl_joint2_vel,fl_joint2_torque,fl_joint3_pos,fl_joint3_vel,fl_joint3_torque,fr_joint1_pos,fr_joint1_vel,fr_joint1_torque,fr_joint2_pos,fr_joint2_vel,fr_joint2_torque,fr_joint3_pos,fr_joint3_vel,fr_joint3_torque,hl_joint1_pos,hl_joint1_vel,hl_joint1_torque,hl_joint2_pos,hl_joint2_vel,hl_joint2_torque,hl_joint3_pos,hl_joint3_vel,hl_joint3_torque,hr_joint1_pos,hr_joint1_vel,hr_joint1_torque,hr_joint2_pos,hr_joint2_vel,hr_joint2_torque,hr_joint3_pos,hr_joint3_vel,hr_joint3_torque,fl_force_x,fl_force_y,fl_force_z,fr_force_x,fr_force_y,fr_force_z,hl_force_x,hl_force_y,hl_force_z,hr_force_x,hr_force_y,hr_force_z,fl_hip_action,fl_thigh_action,fl_calf_action,fr_hip_action,fr_thigh_action,fr_calf_action,hl_hip_action,hl_thigh_action,hl_calf_action,hr_hip_action,hr_thigh_action,hr_calf_action
2025-06-04 12:28:23.099,-0.046419866,0.047721647,-0.005058956,0.043778382,0.0099897,-0.045273237,0.41871953,0.0,0.0,0.0,0.0008333993,-0.00026480443,0.007852229,0.0046523935,-0.0066757915,0.0010372708,0.00026989734,0.009052007,-0.009921136,-0.0040195216,0.0007191469,-0.0070998333,0.07018897,-0.029102502,-0.0026514186,-0.043561008,0.021757407,-0.016523162,0.038829368,-0.014176834,-0.02223907,-0.036735047,-0.023847522,-0.03132418,0.0,0.0,0.0,0.0,0.0,0.0,0.0,0.0,0.0,0.0,0.0,0.0,-1.0,1.0,-1.0,1.0,-1.0,-1.0,-1.0,-1.0,-1.0,1.0,-1.0,-1.0
2025-06-04 12:28:23.104,0.079794616,0.19597843,0.056323335,-0.034366004,-0.04191084,-0.026592009,0.0,0.0,0.0,0.0,-0.009100448,0.057518646,-0.05111252,0.012409097,-0.07221421,-0.03178673,-0.0033310032,-0.056317165,-0.040890757,0.009933286,-0.07349117,-0.03303945,-0.023221714,0.24195392,-0.17488617,0.044517945,-0.18550932,-0.05846466,-0.07361463,-0.1419938,-0.13378619,0.11501219,-0.14926317,-0.085468546,-1.0,1.0,-1.0,1.0,-1.0,-1.0,-1.0,-1.0,-1.0,1.0,-1.0,-1.0,-1.0,-1.0,-1.0,1.0,1.0,-1.0,-1.0,-1.0,-1.0,1.0,-1.0,-1.0
2025-06-04 12:28:23.124,0.17405392,-0.0370875,-0.077405035,-0.05663656,0.011756989,-0.035345685,0.0,0.0,0.0,-0.0006879421,-0.019821627,0.003943151,-0.082287535,0.028645625,0.0002144126,-0.08986734,-0.023373982,-0.1266821,-0.07513532,0.020081818,-0.13394876,-0.07287463,-0.0037495613,-0.16172679,-0.03273847,-0.036964104,0.21683094,-0.06432417,-0.09773523,-0.096149884,-0.09416045,0.055115566,-0.20389448,-0.106808506,-1.0,-1.0,-1.0,1.0,1.0,-1.0,-1.0,-1.0,-1.0,1.0,-1.0,-1.0,1.0,1.0,-1.0,1.0,1.0,-1.0,-1.0,-1.0,-1.0,1.0,-1.0,-1.0
2025-06-04 12:28:23.150,-0.069666676,0.16884118,0.026575053,-0.04877013,-0.023811812,0.00075325184,0.0,0.0,0.0,-7.066321e-05,-0.028408552,-0.02321172,-0.087556,0.042376295,0.055384263,-0.104161136,-0.031315506,-0.18783376,-0.08532276,0.041020762,-0.1724178,-0.06652249,-0.011794287,-0.04246685,-0.028092671,0.118549295,0.13672186,-0.049512148,0.04395008,-0.08114886,0.010588098,-0.03238707,-0.10418387,0.039180644,1.0,1.0,-1.0,1.0,1.0,-1.0,-1.0,-1.0,-1.0,1.0,-1.0,-1.0,1.0,-1.0,-1.0,1.0,1.0,-1.0,-1.0,-1.0,-1.0,1.0,-1.0,-1.0
2025-06-04 12:28:23.167,0.14078525,0.0730966,0.018821225,-0.018637637,-0.03282553,-0.041436516,0.0,0.0,0.0,-0.0008830363,-0.034738187,-0.05064209,-0.08012772,0.060017716,0.073717214,-0.10934512,-0.037342772,-0.21417741,-0.07785695,0.066990696,-0.21637833,-0.05370417,0.010188108,-0.1782585,0.08141716,0.02425048,0.056407847,-0.05439544,-0.04613326,-0.065150775,0.039475426,-0.023706358,-0.028780779,-0.032219134,1.0,-1.0,-1.0,1.0,1.0,-1.0,-1.0,-1.0,-1.0,1.0,-1.0,-1.0,1.0,-1.0,-1.0,1.0,1.0,-1.0,-1.0,-1.0,-1.0,1.0,-1.0,-1.0
2025-06-04 12:28:23.186,0.16722667,-0.016338257,-0.09753864,-0.04675143,0.04647691,-0.021527212,0.0,0.0,0.0,-0.0012121778,-0.011511768,-0.105136044,-0.09078731,0.08542534,0.08834042,-0.13333903,-0.051102035,-0.23623727,-0.061868466,0.0737344,-0.23321128,-0.060613155,-0.029798305,-0.10240757,-0.08135163,-0.0111826705,0.10145881,0.001701276,0.05236691,-0.06382047,0.0257378,-0.011257234,-0.105571896,0.00135933,1.0,-1.0,-1.0,1.0,1.0,-1.0,-1.0,-1.0,-1.0,1.0,-1.0,-1.0,-1.0,1.0,-1.0,1.0,-1.0,-1.0,-1.0,-1.0,-1.0,1.0,-1.0,-1.0
2025-06-04 12:28:23.207,0.116537005,0.052672863,0.021606248,-0.022459583,0.015449885,-0.044792477,0.0,0.0,0.0,-0.00029135507,-0.01961169,-0.054267693,-0.1287202,0.09032853,0.020361973,-0.12887345,-0.060053796,-0.26985,-0.061031483,0.07163533,-0.26849598,-0.061758712,-0.07313505,0.111718126,-0.034083873,0.039992202,-0.19728309,-0.06236528,-0.056392156,0.005774691,0.054217804,-0.024325686,-0.099597834,-0.05911846,-1.0,1.0,-1.0,1.0,-1.0,-1.0,-1.0,-1.0,-1.0,1.0,-1.0,-1.0,-1.0,-1.0,-1.0,1.0,1.0,-1.0,-1.0,-1.0,-1.0,1.0,-1.0,-1.0
2025-06-04 12:28:23.226,0.14267299,0.06434193,-0.05399281,-0.09840616,0.09140589,-0.045510564,0.0,0.0,0.0,-0.00078836543,-0.040727086,-0.091071114,-0.15020324,0.08833484,0.05605592,-0.1646769,-0.06617105,-0.296851,-0.061226368,0.08789919,-0.29146996,-0.08806235,-0.00288136,-0.21263224,-0.032251533,0.03559112,0.24050094,-0.041020043,0.056710724,-0.12880999,0.009336498,0.0707021,-0.013918282,-0.0062127034,-1.0,-1.0,-1.0,1.0,1.0,-1.0,-1.0,-1.0,-1.0,1.0,-1.0,-1.0,1.0,-1.0,-1.0,1.0,1.0,-1.0,-1.0,-1.0,-1.0,1.0,-1.0,-1.0
2025-06-04 12:28:23.249,-0.004005539,0.049752787,0.0007903999,-0.102464,0.100436516,0.027154237,0.0,0.0,0.0,-0.00052952085,-0.01977079,-0.14244284,-0.15487173,0.09017671,0.14066069,-0.17654593,-0.07503563,-0.31025997,-0.08041406,0.088068776,-0.32370746,-0.100326195,0.015919631,-0.19115102,-0.031068303,-0.04499109,0.14552984,-0.004682427,0.06401701,-0.09195028,0.045792058,-0.053167395,-0.06434711,0.021363864,1.0,-1.0,-1.0,1.0,1.0,-1.0,-1.0,-1.0,-1.0,1.0,-1.0,-1.0,1.0,-1.0,-1.0,1.0,1.0,-1.0,-1.0,-1.0,-1.0,1.0,-1.0,-1.0
2025-06-04 12:28:23.267,-0.034018077,-0.013684966,-0.039106946,-0.04819613,0.09905225,-0.04061218,0.0,0.0,0.0,-0.00045852803,-0.008498997,-0.19820786,-0.1810723,0.09530619,0.17706257,-0.19545199,-0.067121685,-0.34418213,-0.07015176,0.085520655,-0.33312908,-0.10563997,0.0709144,-0.086565256,0.015993688,0.03809338,0.013850422,0.040792905,0.039304186,-0.07068923,-0.055081673,0.070779346,-0.068646066,0.05196291,1.0,-1.0,-1.0,1.0,1.0,-1.0,-1.0,-1.0,-1.0,1.0,-1.0,-1.0,1.0,-1.0,-1.0,1.0,1.0,-1.0,-1.0,-1.0,-1.0,1.0,-1.0,-1.0
2025-06-04 12:28:23.286,0.0039249095,-0.06144931,-0.03811975,-0.010455873,0.10782071,-0.048169672,0.0,0.0,0.0,-0.00060849934,0.007841186,-0.25260007,-0.17720881,0.09860983,0.19846396,-0.18518479,-0.076661155,-0.35752752,-0.0705453,0.08596555,-0.35751852,-0.11681807,0.03855891,-0.06395127,0.080997646,0.086255,-0.039923728,0.06639827,0.0071468675,-0.068411365,-0.05528523,0.028527986,0.03394644,-0.012256897,1.0,-1.0,-1.0,1.0,1.0,-1.0,-1.0,-1.0,-1.0,1.0,-1.0,-1.0,1.0,-1.0,-1.0,1.0,1.0,-1.0,-1.0,-1.0,-1.0,1.0,-1.0,-1.0
2025-06-04 12:28:23.308,0.035120852,-0.01916487,-0.04798513,-0.03756972,0.1008453,-0.03146389,0.0,0.0,0.0,-8.552289e-05,0.0012823266,-0.27982628,-0.17830335,0.109548956,0.18988742,-0.18249542,-0.07828716,-0.37174734,-0.083161876,0.09996143,-0.35822237,-0.1330558,0.020218259,-0.14288023,-0.04592951,-0.016539393,0.065099955,-0.015503168,0.008755367,-0.03141732,0.029616103,-0.024196187,0.011008652,-0.03979397,1.0,-1.0,-1.0,1.0,1.0,-1.0,-1.0,-1.0,-1.0,1.0,-1.0,-1.0,1.0,-1.0,-1.0,1.0,1.0,-1.0,-1.0,-1.0,-1.0,1.0,-1.0,-1.0
2025-06-04 12:28:23.327,0.0029740033,-0.055677455,-0.05081027,-0.07364804,0.050450798,0.006771768,0.0,0.0,0.0,0.0010810766,0.021598717,-0.30861986,-0.17080875,0.11022187,0.20882079,-0.19486314,-0.087571986,-0.387372,-0.08904476,0.10505654,-0.39169204,-0.15171513,0.032866556,-0.14421323,-0.04858287,0.037987057,-0.018684143,0.04850614,0.008926201,-0.095479555,0.05624937,-0.008136575,-0.090859696,0.0065299068,1.0,-1.0,-1.0,1.0,1.0,-1.0,-1.0,-1.0,-1.0,1.0,-1.0,-1.0,1.0,-1.0,-1.0,1.0,1.0,-1.0,-1.0,-1.0,-1.0,1.0,-1.0,-1.0
2025-06-04 12:28:23.350,-0.02238515,-0.12478607,-0.047157794,-0.050068796,0.043326095,-0.0137606785,0.0,0.0,0.0,0.0027217965,0.02846291,-0.31618252,-0.18083039,0.11235095,0.23685741,-0.19706996,-0.073251225,-0.41086638,-0.100448035,0.09594221,-0.40080905,-0.18044835,0.054743372,-0.054796748,0.016227046,-0.008021373,0.033838753,-0.046958514,-0.0070150797,-0.08801409,0.033221938,0.07137984,-0.0139779635,-0.09482505,1.0,-1.0,-1.0,1.0,1.0,-1.0,-1.0,-1.0,-1.0,1.0,-1.0,-1.0,1.0,-1.0,-1.0,1.0,1.0,-1.0,-1.0,-1.0,-1.0,1.0,-1.0,-1.0
2025-06-04 12:28:23.367,0.010338423,-0.103784144,-0.1483004,-0.05587136,0.040247507,0.014270772,0.0,0.0,0.0,0.0046018385,0.02584942,-0.3534275,-0.17069353,0.117757276,0.24146283,-0.1957688,-0.06534546,-0.4264411,-0.10857683,0.10054694,-0.40193903,-0.18240586,-0.03407635,-0.1016104,-0.023097059,-0.06316296,0.08343243,0.003545225,0.037123967,-0.051491372,-0.03765486,-0.05989043,-0.033735078,-0.052948914,1.0,-1.0,-1.0,1.0,1.0,-1.0,-1.0,-1.0,-1.0,1.0,-1.0,-1.0,-1.0,1.0,-1.0,1.0,-1.0,-1.0,-1.0,-1.0,-1.0,1.0,-1.0,-1.0
2025-06-04 12:28:23.388,-0.0812261,0.110489614,0.05282537,-0.02278361,0.07681458,-0.04701885,0.0,0.0,0.0,0.006710218,0.020098422,-0.34505263,-0.19025186,0.12668754,0.17355704,-0.18755436,-0.06721651,-0.42812964,-0.1041642,0.09129,-0.41642892,-0.19952309,-0.045427147,0.078847356,-0.0507724,-0.002335566,-0.3161842,-0.04386105,0.041427154,-0.058491,-0.05572393,-0.07358917,-0.03331891,0.0007196686,-1.0,1.0,-1.0,1.0,-1.0,-1.0,-1.0,-1.0,-1.0,1.0,-1.0,-1.0,-1.0,-1.0,-1.0,1.0,1.0,-1.0,-1.0,-1.0,-1.0,1.0,-1.0,-1.0
2025-06-04 12:28:23.408,0.114117764,-0.1717331,-0.1271499,0.013039791,0.0400831,0.017760916,0.0,0.0,0.0,0.0067830835,0.018293021,-0.35352364,-0.1982475,0.13609777,0.13761614,-0.17476235,-0.07382514,-0.44679153,-0.12571868,0.09348487,-0.43308148,-0.22333546,-0.015627572,-0.06491915,-0.012985916,0.039082758,-0.00795986,-0.07574083,-0.036048856,-0.07402807,-0.06289861,-0.05075729,-0.052763566,-0.0047787135,-1.0,-1.0,-1.0,1.0,1.0,-1.0,-1.0,-1.0,-1.0,1.0,-1.0,-1.0,-1.0,1.0,-1.0,1.0,-1.0,-1.0,-1.0,-1.0,-1.0,1.0,-1.0,-1.0
2025-06-04 12:28:23.426,-0.025950266,0.06661199,0.024875645,-0.045533195,0.047696184,0.018509466,0.0,0.0,0.0,0.0077705663,-0.0052076075,-0.2935148,-0.22935334,0.1235116,0.073732264,-0.17573792,-0.07755945,-0.44102055,-0.14844005,0.08314289,-0.43567586,-0.2195129,-0.020162046,0.04843712,-0.1083806,-0.019861592,-0.26719826,0.009338785,-0.0576256,0.0004690227,0.022655604,0.010023245,-0.015964534,0.0030656157,-1.0,1.0,-1.0,1.0,-1.0,-1.0,-1.0,-1.0,-1.0,1.0,-1.0,-1.0,-1.0,-1.0,-1.0,1.0,1.0,-1.0,-1.0,-1.0,-1.0,1.0,-1.0,-1.0
2025-06-04 12:28:23.450,0.07532396,-0.040401455,-0.096472174,-0.07581088,0.05220493,-0.034086365,0.0,0.0,0.0,0.007984402,-0.029400473,-0.31582445,-0.22657761,0.12732035,0.09145879,-0.19509132,-0.08017054,-0.4526066,-0.16325307,0.083729655,-0.44367015,-0.2341883,0.025171962,-0.010329287,0.089588135,0.05280065,0.12306728,-0.009754333,-0.0309415,0.024024038,-0.09170707,0.07188029,-0.0834825,-0.090084165,-1.0,-1.0,-1.0,1.0,1.0,-1.0,-1.0,-1.0,-1.0,1.0,-1.0,-1.0,1.0,1.0,-1.0,1.0,1.0,-1.0,-1.0,-1.0,-1.0,1.0,-1.0,-1.0
2025-06-04 12:28:23.467,-0.23730996,0.13632368,-0.0654699,-0.045419678,0.054208048,-0.0065751583,0.0,0.0,0.0,0.008783957,-0.017202776,-0.30859983,-0.22118545,0.13980986,0.106693745,-0.18994726,-0.090704195,-0.44187617,-0.16671953,0.098035775,-0.43657425,-0.24267368,0.043261983,0.059256382,-0.089366816,0.106910594,0.045669496,-0.05571897,-0.032094806,0.01607087,-0.11246714,-0.032735437,-0.0033337781,-0.025471233,1.0,1.0,-1.0,1.0,1.0,-1.0,-1.0,-1.0,-1.0,1.0,-1.0,-1.0,-1.0,-1.0,-1.0,1.0,-1.0,-1.0,-1.0,-1.0,-1.0,1.0,-1.0,-1.0
2025-06-04 12:28:23.488,0.122846164,0.15411378,-0.027895667,-0.03723381,0.022873601,0.00096582394,0.0,0.0,0.0,0.00964136,-0.03875963,-0.32771125,-0.23959506,0.14077975,0.06442053,-0.17837672,-0.0972248,-0.4537817,-0.18382235,0.08523479,-0.45200473,-0.2446113,-0.0395591,-0.050011247,-0.0056865336,-0.07279363,-0.16659391,-0.0032918344,-0.06538503,-0.05566134,-0.016969474,0.05017684,0.014409654,0.02175783,-1.0,-1.0,-1.0,1.0,-1.0,-1.0,-1.0,-1.0,-1.0,1.0,-1.0,-1.0,-1.0,1.0,-1.0,1.0,1.0,-1.0,-1.0,-1.0,-1.0,1.0,-1.0,-1.0
2025-06-04 12:28:23.509,-0.14226994,0.12410732,0.025587283,-0.0091743935,0.027834903,-0.031716462,0.0,0.0,0.0,0.009749296,-0.041476432,-0.28541094,-0.25615245,0.1515236,0.10367063,-0.19169825,-0.08807659,-0.45645058,-0.19132964,0.08425686,-0.46348494,-0.2533903,0.030576518,0.13773814,-0.056640565,-0.04427015,0.14980586,-0.09203803,0.05159642,0.04461283,-0.028658953,0.029769747,0.015487877,0.0048190723,-1.0,1.0,-1.0,1.0,1.0,-1.0,-1.0,-1.0,-1.0,1.0,-1.0,-1.0,1.0,-1.0,-1.0,1.0,1.0,-1.0,-1.0,-1.0,-1.0,1.0,-1.0,-1.0
2025-06-04 12:28:23.531,-0.01502188,0.07812731,-0.094366506,-0.07814565,0.0106460815,0.013587821,0.0,0.0,0.0,0.009664433,-0.036120433,-0.29751557,-0.23577057,0.15369254,0.12573773,-0.20252857,-0.1025291,-0.46146852,-0.20135719,0.09478143,-0.45854443,-0.22406322,-0.06140756,0.011792549,-0.013929496,-0.024798475,0.0780006,-0.042543355,-0.06549519,0.06494765,0.037022606,-0.042648382,-0.008583318,0.035189364,1.0,-1.0,-1.0,1.0,1.0,-1.0,-1.0,-1.0,-1.0,1.0,-1.0,-1.0,-1.0,1.0,-1.0,1.0,-1.0,-1.0,-1.0,-1.0,-1.0,1.0,-1.0,-1.0
2025-06-04 12:28:23.550,0.015138056,0.14505148,0.07568499,-0.032132186,0.05951982,0.023105552,0.0,0.0,0.0,0.010616981,-0.040520124,-0.2726335,-0.24455814,0.15776956,0.073509775,-0.16075319,-0.09712888,-0.4559694,-0.18381146,0.10708278,-0.47641748,-0.21775122,-0.029042304,0.04727754,-0.029757015,0.041528273,-0.15787429,0.14844161,0.0040810956,0.06076334,-0.018194584,0.0036015578,-0.0015825874,0.03606802,-1.0,1.0,-1.0,1.0,-1.0,-1.0,-1.0,-1.0,-1.0,1.0,-1.0,-1.0,1.0,-1.0,-1.0,1.0,1.0,-1.0,-1.0,-1.0,-1.0,1.0,-1.0,-1.0
2025-06-04 12:28:23.567,0.04970585,0.047930337,-0.018002568,-0.09630917,0.08478394,-0.0008941173,0.0,0.0,0.0,0.010596707,-0.02174967,-0.29544196,-0.2501977,0.16111323,0.1086152,-0.18586689,-0.10003132,-0.46516052,-0.20122917,0.0879241,-0.4661915,-0.2051759,0.026380649,-0.072215915,0.03485242,-0.011737756,0.1358842,-0.056430385,-0.001245486,-0.015160152,0.009210838,0.04189139,-0.025936656,0.02929325,1.0,-1.0,-1.0,1.0,1.0,-1.0,-1.0,-1.0,-1.0,1.0,-1.0,-1.0,1.0,-1.0,-1.0,1.0,1.0,-1.0,-1.0,-1.0,-1.0,1.0,-1.0,-1.0
2025-06-04 12:28:23.587,0.07179602,-0.1685434,-0.062226526,-0.065885015,0.09342959,0.0046805115,0.0,0.0,0.0,0.011118745,-0.013831479,-0.3157015,-0.2454679,0.14709018,0.17658184,-0.18342239,-0.09722229,-0.44971746,-0.20657194,0.08572351,-0.47059783,-0.20776884,-0.0022491207,-0.078526735,0.0051763826,-0.07012392,0.0330582,-0.009049544,0.04154021,0.057481565,-0.014028188,-0.029445913,-0.06616827,0.0035566038,1.0,-1.0,-1.0,1.0,1.0,-1.0,-1.0,-1.0,-1.0,1.0,-1.0,-1.0,-1.0,1.0,-1.0,1.0,-1.0,-1.0,-1.0,-1.0,-1.0,1.0,-1.0,-1.0
2025-06-04 12:28:23.609,-0.09447921,0.028296258,0.04626061,-0.060403027,0.08014426,-0.009378474,0.0,0.0,0.0,0.012474307,-0.02303838,-0.27492994,-0.2683753,0.1465896,0.113811485,-0.1751109,-0.1094087,-0.45777425,-0.2076964,0.08635608,-0.47728485,-0.2027942,0.035193365,0.016536068,-0.03983391,-0.0005369284,-0.22487998,0.028518165,-0.041559134,-0.02510186,0.072042815,0.036741044,-0.038300183,-0.05207795,-1.0,1.0,-1.0,1.0,-1.0,-1.0,-1.0,-1.0,-1.0,1.0,-1.0,-1.0,-1.0,-1.0,-1.0,1.0,1.0,-1.0,-1.0,-1.0,-1.0,1.0,-1.0,-1.0
2025-06-04 12:28:23.630,-0.005003751,-0.13683198,-0.10457522,-0.07792245,0.07001745,-0.034698285,0.0,0.0,0.0,0.012542232,-0.022802236,-0.2845823,-0.2517839,0.14109015,0.118360035,-0.17778663,-0.104071036,-0.45376307,-0.20557907,0.08877927,-0.47064117,-0.19448811,-0.015952008,-0.0087034395,0.026718754,0.016769297,0.013850025,0.005460342,-0.06303486,-0.024815414,0.038318757,-0.037040424,0.050962903,0.07014996,-1.0,-1.0,-1.0,1.0,1.0,-1.0,-1.0,-1.0,-1.0,1.0,-1.0,-1.0,-1.0,1.0,-1.0,1.0,-1.0,-1.0,-1.0,-1.0,-1.0,1.0,-1.0,-1.0
2025-06-04 12:28:23.651,-0.105083816,0.15071394,0.037610624,-0.04066747,0.06970888,0.03299922,0.0,0.0,0.0,0.01380757,-0.042282898,-0.28378695,-0.25472704,0.15002467,0.06763701,-0.16471116,-0.11580355,-0.46496746,-0.20612194,0.09645755,-0.4692182,-0.19197553,-0.057589296,0.041856468,0.02628239,-0.069964126,-0.24893366,-0.019338291,0.03309571,-0.030433688,-0.037382662,0.06472395,-0.03279848,-0.014090683,-1.0,1.0,-1.0,1.0,-1.0,-1.0,-1.0,-1.0,-1.0,1.0,-1.0,-1.0,-1.0,-1.0,-1.0,1.0,1.0,-1.0,-1.0,-1.0,-1.0,1.0,-1.0,-1.0
2025-06-04 12:28:23.668,0.0713458,-0.08033081,-0.034011483,-0.055434808,0.049982123,-0.018373376,0.0,0.0,0.0,0.014065247,-0.047959104,-0.30846316,-0.25887817,0.1408239,0.096780576,-0.17150238,-0.110305026,-0.46443233,-0.22311859,0.09391014,-0.47937718,-0.18074517,0.0013614283,0.00069215114,0.06794394,0.047806736,0.1044268,-0.09778443,0.010624774,-0.039879423,-0.029045235,-0.016055323,-0.03658943,0.059664413,-1.0,-1.0,-1.0,1.0,1.0,-1.0,-1.0,-1.0,-1.0,1.0,-1.0,-1.0,1.0,-1.0,-1.0,1.0,1.0,-1.0,-1.0,-1.0,-1.0,1.0,-1.0,-1.0
2025-06-04 12:28:23.687,0.107861735,-0.13401297,-0.063904956,-0.027084397,0.09342727,-0.03938242,0.0,0.0,0.0,0.014719838,-0.027552133,-0.3352869,-0.24781886,0.14546159,0.1330073,-0.18213484,-0.110272504,-0.4633158,-0.21816099,0.09289396,-0.4623918,-0.18199988,0.072320394,-0.040430278,0.064878136,0.024889389,0.11577779,0.021189563,-0.030384213,0.007612876,0.009007167,0.06401831,-0.029555395,0.013475916,1.0,-1.0,-1.0,1.0,1.0,-1.0,-1.0,-1.0,-1.0,1.0,-1.0,-1.0,1.0,1.0,-1.0,1.0,1.0,-1.0,-1.0,-1.0,-1.0,1.0,-1.0,-1.0
2025-06-04 12:28:23.707,-0.14974895,0.038132157,-0.08599105,-0.09200967,0.044196818,-0.036406763,0.0,0.0,0.0,0.01644335,-0.009593061,-0.292626,-0.26180142,0.13527457,0.15230991,-0.17592418,-0.10961401,-0.4509618,-0.22080371,0.09283217,-0.4696901,-0.19128251,0.00011016375,0.14323622,-0.07541172,-0.044973776,0.13129549,0.0667683,-0.03316613,0.03446827,-0.04244707,0.0719714,0.05545252,-0.058045957,1.0,1.0,-1.0,1.0,1.0,-1.0,-1.0,-1.0,-1.0,1.0,-1.0,-1.0,-1.0,-1.0,-1.0,-1.0,-1.0,-1.0,-1.0,-1.0,-1.0,1.0,-1.0,-1.0
2025-06-04 12:28:23.732,0.16458198,0.021042837,-0.06611462,-0.085717365,0.07713245,0.03289763,0.0,0.0,0.0,0.017954208,-0.025630532,-0.30606195,-0.25919086,0.13043004,0.1062784,-0.15235902,-0.126943,-0.46797556,-0.21885571,0.10131052,-0.46049836,-0.2109516,0.01865803,-0.003726359,0.094219245,-0.061755545,-0.23015311,0.047754627,-0.097992435,0.004720333,0.056736875,-0.00032670036,-0.050087404,-0.102864586,-1.0,-1.0,-1.0,-1.0,-1.0,-1.0,-1.0,-1.0,-1.0,1.0,-1.0,-1.0,-1.0,1.0,-1.0,1.0,1.0,-1.0,-1.0,-1.0,-1.0,1.0,-1.0,-1.0
2025-06-04 12:28:23.750,-0.1515573,0.114103734,-0.0481728,-0.096177876,0.05469993,-0.0019772055,0.0,0.0,0.0,0.018852424,-0.030385125,-0.29784086,-0.26153666,0.13403963,0.13559312,-0.17556943,-0.12069731,-0.47630003,-0.21297383,0.09211293,-0.4605171,-0.21068929,0.029122327,0.047284484,0.048850697,-0.006689932,0.15620437,-0.010175984,0.0013581623,0.045581017,-0.017461354,-0.042322043,0.07690801,0.077966176,-1.0,1.0,-1.0,1.0,1.0,-1.0,-1.0,-1.0,-1.0,1.0,-1.0,-1.0,1.0,-1.0,-1.0,1.0,1.0,-1.0,-1.0,-1.0,-1.0,1.0,-1.0,-1.0
2025-06-04 12:28:23.769,-0.031450022,0.09535892,-0.07658921,-0.08794732,0.02129537,-0.026752453,0.0,0.0,0.0,0.019530836,-0.025445448,-0.31584615,-0.24732992,0.1357631,0.15016736,-0.18967858,-0.12290944,-0.47579288,-0.22078006,0.10411628,-0.46817115,-0.20243356,0.023667688,-0.12541312,0.0006752579,0.047275785,0.04525697,-0.032722894,0.042761423,0.017683571,-0.07623738,-0.030447558,0.024304342,0.03888598,1.0,-1.0,-1.0,1.0,1.0,-1.0,-1.0,-1.0,-1.0,1.0,-1.0,-1.0,1.0,1.0,-1.0,1.0,1.0,-1.0,-1.0,-1.0,-1.0,1.0,-1.0,-1.0
2025-06-04 12:28:23.788,-0.18690886,0.07582159,0.024113612,-0.07284927,0.022412576,-0.03670591,0.0,0.0,0.0,0.02070536,-0.025838228,-0.2559676,-0.26228926,0.13322374,0.17687303,-0.18366139,-0.10710977,-0.46002492,-0.22137076,0.10599089,-0.45390245,-0.1926502,0.024699466,0.16498867,-0.021004505,-0.007675683,0.02519806,0.015721796,-0.038844146,-0.010244633,-0.04099997,-0.00921692,0.031616624,0.041161288,1.0,1.0,-1.0,1.0,1.0,-1.0,-1.0,-1.0,-1.0,1.0,-1.0,-1.0,-1.0,-1.0,-1.0,1.0,1.0,-1.0,-1.0,-1.0,-1.0,1.0,-1.0,-1.0
2025-06-04 12:28:23.810,0.09102054,0.03241519,-0.09217268,-0.07141848,0.10330913,0.030659199,0.0,0.0,0.0,0.021269983,-0.03173962,-0.27116093,-0.2395507,0.13131937,0.21345234,-0.19573948,-0.10742215,-0.47868404,-0.23491776,0.11273888,-0.46671686,-0.210129,-0.023511747,-0.039857544,-0.028704135,-0.015528552,0.041833818,-0.0743491,0.011371774,-0.04369905,-0.041564185,-0.0028048744,-0.016472379,0.016016548,-1.0,-1.0,-1.0,1.0,1.0,-1.0,-1.0,-1.0,-1.0,1.0,-1.0,-1.0,1.0,1.0,-1.0,1.0,1.0,-1.0,-1.0,-1.0,-1.0,1.0,-1.0,-1.0
2025-06-04 12:28:23.834,-0.10651474,0.0845202,-0.009183351,-0.043269727,0.0902784,-0.00029813114,0.0,0.0,0.0,0.021944594,-0.030786786,-0.22664782,-0.2582213,0.12497028,0.23977712,-0.18160042,-0.098703146,-0.47273907,-0.23531725,0.11780514,-0.47002387,-0.20330521,-0.04206972,0.055974934,-0.011388878,0.0050046984,-0.00076119514,-0.047451288,0.007907589,-0.0034553374,-0.02224296,0.04840988,0.033745628,0.09147967,1.0,1.0,-1.0,1.0,1.0,-1.0,-1.0,-1.0,-1.0,1.0,-1.0,-1.0,-1.0,-1.0,-1.0,1.0,1.0,-1.0,-1.0,-1.0,-1.0,1.0,-1.0,-1.0
2025-06-04 12:28:23.850,0.11479467,-0.026827004,-0.011811051,-0.074928194,0.03394222,-0.03661803,0.0,0.0,0.0,0.0219442,-0.047197424,-0.25324467,-0.23725696,0.13175051,0.27869585,-0.19267294,-0.1063121,-0.47194552,-0.2337126,0.10469968,-0.46301052,-0.17749411,-0.044213105,-0.036491115,0.08782419,-0.0074351667,0.092188865,0.022025675,0.07136895,-0.0069091446,-0.07025472,-0.012915279,0.025355296,0.10804577,-1.0,-1.0,-1.0,1.0,1.0,-1.0,-1.0,-1.0,-1.0,1.0,-1.0,-1.0,1.0,-1.0,-1.0,1.0,1.0,-1.0,-1.0,-1.0,-1.0,1.0,-1.0,-1.0
2025-06-04 12:28:23.874,0.031969372,-0.12242678,-0.056687772,-0.041967038,0.10977674,-0.025734043,0.0,0.0,0.0,0.02217609,-0.03753911,-0.2777071,-0.24108171,0.13111722,0.30497336,-0.2010503,-0.10258354,-0.46255752,-0.24885118,0.11135744,-0.46251643,-0.1676686,-0.0028279966,-0.10415042,0.058033828,-0.023648873,0.0644785,-0.069555625,-0.071851745,0.03577509,0.007084438,0.008679323,-0.016150597,0.08794952,1.0,-1.0,-1.0,1.0,1.0,-1.0,-1.0,-1.0,-1.0,1.0,-1.0,-1.0,1.0,-1.0,-1.0,1.0,1.0,-1.0,-1.0,-1.0,-1.0,1.0,-1.0,-1.0
2025-06-04 12:28:23.890,0.01820231,-0.051178597,-0.016517714,-0.05435244,0.037188858,-0.004145051,0.0,0.0,0.0,0.022913149,-0.020961372,-0.30814764,-0.21846254,0.12302133,0.3229117,-0.20839675,-0.11625606,-0.4632485,-0.23568892,0.11650811,-0.4507826,-0.15322606,-0.012963627,-0.09113183,0.05089334,-0.072190315,0.047169197,0.01030634,-0.06283298,-0.07197106,0.0033373327,0.02780555,-0.021423396,-0.033900138,1.0,-1.0,-1.0,1.0,1.0,-1.0,-1.0,-1.0,-1.0,1.0,-1.0,-1.0,1.0,-1.0,-1.0,1.0,1.0,-1.0,-1.0,-1.0,-1.0,1.0,-1.0,-1.0
2025-06-04 12:28:23.913,0.044726115,-0.09693204,0.011854674,-0.039452676,0.051364757,0.033614315,0.0,0.0,0.0,0.023580058,-0.015566876,-0.3204948,-0.20626897,0.1220245,0.34062263,-0.20592327,-0.10843922,-0.4670962,-0.21268393,0.13118078,-0.4435673,-0.13336727,0.082930535,-0.04429201,0.07000145,0.06031432,0.057681758,0.044776652,0.02963131,0.053165715,0.016622692,0.04780524,-0.05032722,-0.04391738,1.0,-1.0,-1.0,1.0,1.0,-1.0,-1.0,-1.0,-1.0,1.0,-1.0,-1.0,1.0,-1.0,-1.0,1.0,1.0,-1.0,-1.0,-1.0,-1.0,1.0,-1.0,-1.0
2025-06-04 12:28:23.933,-0.013705817,-0.09933571,-0.025240991,-0.030844923,0.024098488,-0.048024368,0.0,0.0,0.0,0.024089841,-0.0067647817,-0.33786666,-0.21137549,0.1273737,0.35908934,-0.1988109,-0.10818147,-0.46665978,-0.2053155,0.13514215,-0.44857448,-0.12653515,0.03115025,0.013258725,0.07033417,0.017626263,0.05301922,0.0511975,-0.06362795,0.030488174,0.045352932,-0.059626177,0.04977865,0.06588747,1.0,-1.0,-1.0,1.0,1.0,-1.0,-1.0,-1.0,-1.0,1.0,-1.0,-1.0,1.0,-1.0,-1.0,1.0,1.0,-1.0,-1.0,-1.0,-1.0,1.0,-1.0,-1.0
2025-06-04 12:28:23.951,0.010333371,-0.0797005,-0.06635163,-0.044679612,0.048659433,0.04980472,0.0,0.0,0.0,0.024459984,0.011545714,-0.35350713,-0.18310447,0.1360844,0.36528364,-0.20006955,-0.118751444,-0.48808923,-0.20224114,0.12799591,-0.43728074,-0.12415674,-0.021499703,-0.02264978,0.08685412,0.02541005,0.01171206,0.022951523,0.018601116,0.06340425,-0.015946727,0.03439063,0.05582323,0.034155596,1.0,-1.0,-1.0,1.0,1.0,-1.0,-1.0,-1.0,-1.0,1.0,-1.0,-1.0,1.0,-1.0,-1.0,1.0,1.0,-1.0,-1.0,-1.0,-1.0,1.0,-1.0,-1.0
2025-06-04 12:28:23.970,0.023611475,-0.029419566,0.018624792,-0.0068854345,0.068671495,-0.031630363,0.0,0.0,0.0,0.024848687,0.001628527,-0.3647458,-0.19165964,0.13745153,0.3723164,-0.18562375,-0.111945175,-0.48942742,-0.19522303,0.12886038,-0.43814865,-0.13358271,0.041518122,0.031957682,-0.0084626265,0.001763396,-0.04895641,0.06953357,0.02487737,-0.04970234,-0.030602295,0.030723454,-0.004719355,-0.00179728,1.0,-1.0,-1.0,1.0,1.0,-1.0,-1.0,-1.0,-1.0,1.0,-1.0,-1.0,1.0,-1.0,-1.0,1.0,1.0,-1.0,-1.0,-1.0,-1.0,1.0,-1.0,-1.0
2025-06-04 12:28:23.991,-0.03351067,-0.03692776,0.011113175,-0.0049334937,0.08334948,0.006097531,0.0,0.0,0.0,0.025244998,0.013919139,-0.37726134,-0.17140114,0.1310808,0.3852096,-0.18217705,-0.10590236,-0.48902434,-0.1748491,0.13503702,-0.4483946,-0.14618921,0.04033847,-0.017853478,0.018835446,-0.04692613,-0.054981083,-0.06768264,0.02112501,-0.042278294,0.010835113,-0.039589204,-0.007005801,-0.08206431,1.0,-1.0,-1.0,1.0,1.0,-1.0,-1.0,-1.0,-1.0,1.0,-1.0,-1.0,1.0,-1.0,-1.0,1.0,1.0,-1.0,-1.0,-1.0,-1.0,1.0,-1.0,-1.0
2025-06-04 12:28:24.011,0.034832865,-0.0066553904,0.023201058,-0.033972856,0.059850812,0.016921883,0.0,0.0,0.0,0.02562362,0.024004197,-0.38967946,-0.16987464,0.13577852,0.39165118,-0.19693539,-0.11836715,-0.48718217,-0.1776741,0.13602938,-0.43718588,-0.141785,0.075387515,0.026218139,0.025654374,0.008514429,0.011833936,-0.013776044,0.038656402,-0.048442926,0.0657231,-0.07170645,0.032836962,0.04948488,1.0,-1.0,-1.0,1.0,1.0,-1.0,-1.0,-1.0,-1.0,1.0,-1.0,-1.0,1.0,-1.0,-1.0,1.0,1.0,-1.0,-1.0,-1.0,-1.0,1.0,-1.0,-1.0
2025-06-04 12:28:24.033,-0.0021392158,-0.062138256,-0.012123334,-0.011169308,0.07039595,0.030270439,0.0,0.0,0.0,0.025955688,0.019367145,-0.395147,-0.16733041,0.13285665,0.38867715,-0.18186371,-0.11782022,-0.50922614,-0.17614688,0.14589512,-0.44978592,-0.16560668,-0.006523167,-0.036991045,0.05364485,0.02606588,-0.033206843,-0.060960688,-0.0073427022,0.047486376,-0.03860134,-0.017303405,0.025073098,-0.064429864,1.0,-1.0,-1.0,1.0,1.0,-1.0,-1.0,-1.0,-1.0,1.0,-1.0,-1.0,1.0,-1.0,-1.0,1.0,1.0,-1.0,-1.0,-1.0,-1.0,1.0,-1.0,-1.0
2025-06-04 12:28:24.049,0.01308987,-0.090211965,-0.01966469,-0.03461023,0.058590725,-0.042420812,0.0,0.0,0.0,0.026247103,0.021411128,-0.41450295,-0.1536092,0.1375105,0.3929627,-0.17673938,-0.10361219,-0.5069217,-0.183856,0.14035596,-0.45015392,-0.17194158,-0.003257226,-0.013698463,0.051618338,0.013581901,-0.003618082,-0.06841494,0.0485047,0.04926746,0.056194637,-0.026116654,0.02392521,-0.09084279,1.0,-1.0,-1.0,1.0,1.0,-1.0,-1.0,-1.0,-1.0,1.0,-1.0,-1.0,1.0,-1.0,-1.0,1.0,1.0,-1.0,-1.0,-1.0,-1.0,1.0,-1.0,-1.0
2025-06-04 12:28:24.068,-0.024695845,-0.055894405,-0.048164703,-0.02540205,0.036045674,0.008421015,0.0,0.0,0.0,0.02652344,0.017683892,-0.42728484,-0.15397282,0.15129332,0.38306475,-0.18352638,-0.10677577,-0.5181349,-0.18527824,0.144862,-0.44010505,-0.18040727,-0.053367365,0.03047479,-0.035474345,-0.041338366,-0.03449311,0.076588124,-0.037694603,0.054787375,0.044498473,-0.0063066143,0.057708472,0.0055150045,1.0,-1.0,-1.0,1.0,1.0,-1.0,-1.0,-1.0,-1.0,1.0,-1.0,-1.0,1.0,-1.0,-1.0,1.0,1.0,-1.0,-1.0,-1.0,-1.0,1.0,-1.0,-1.0
2025-06-04 12:28:24.088,-0.030123472,-0.094726115,-0.010643432,-0.04445503,0.06257067,-0.040947504,0.0,0.0,0.0,0.026807502,0.012014672,-0.4251662,-0.15279005,0.15207843,0.38464049,-0.17169975,-0.10947395,-0.5238737,-0.19105422,0.14015211,-0.45996627,-0.17742567,-0.013678862,0.020611422,-0.036351226,0.0084931925,-0.06562781,0.048773594,0.054980893,0.04369679,-0.053744264,-0.017253703,-0.07613405,0.039438177,1.0,-1.0,-1.0,1.0,1.0,-1.0,-1.0,-1.0,-1.0,1.0,-1.0,-1.0,1.0,-1.0,-1.0,1.0,1.0,-1.0,-1.0,-1.0,-1.0,1.0,-1.0,-1.0
2025-06-04 12:28:24.108,-0.010380364,-0.020481102,-0.020836039,0.017791929,0.06862749,-0.03137231,0.0,0.0,0.0,0.027109759,0.010846664,-0.4411388,-0.161983,0.15738852,0.38850272,-0.18543819,-0.10510714,-0.5185658,-0.1879329,0.12798086,-0.44415912,-0.18541105,0.054288846,-0.08180931,-0.019754078,0.07916519,-0.04722059,-0.057047475,-0.022865018,-0.044598944,-0.07249573,-0.06169416,-0.07534343,-0.036069628,1.0,-1.0,-1.0,1.0,1.0,-1.0,-1.0,-1.0,-1.0,1.0,-1.0,-1.0,1.0,-1.0,-1.0,1.0,1.0,-1.0,-1.0,-1.0,-1.0,1.0,-1.0,-1.0
2025-06-04 12:28:24.135,-0.018050287,0.0019082907,-0.036437638,-0.069154814,0.06877048,0.0062808474,0.0,0.0,0.0,0.02743682,0.025227604,-0.44999364,-0.14832494,0.15350336,0.38259235,-0.1733409,-0.09604237,-0.5403693,-0.18805769,0.13874003,-0.46125048,-0.2058676,0.07322469,0.0004638518,-0.020063907,0.06567992,-0.059583597,-0.037622325,0.021392336,0.03973829,0.044883944,-0.0784501,-0.07400207,-0.010959765,1.0,-1.0,-1.0,1.0,1.0,-1.0,-1.0,-1.0,-1.0,1.0,-1.0,-1.0,1.0,-1.0,-1.0,1.0,1.0,-1.0,-1.0,-1.0,-1.0,1.0,-1.0,-1.0
2025-06-04 12:28:24.150,0.035292514,-0.022276865,-0.03525656,-0.030651301,0.050268777,-0.026909338,0.0,0.0,0.0,0.027789975,0.022792224,-0.47039536,-0.14298415,0.16805251,0.3782687,-0.1675713,-0.105085425,-0.5447741,-0.2024125,0.12703402,-0.45466247,-0.19991605,-0.0744886,-0.042198014,-0.057539143,0.060753547,-0.02232462,0.02550502,0.055428583,0.0439713,0.056873746,-0.0057793222,0.04353654,0.037817053,1.0,-1.0,-1.0,1.0,1.0,-1.0,-1.0,-1.0,-1.0,1.0,-1.0,-1.0,1.0,-1.0,-1.0,1.0,1.0,-1.0,-1.0,-1.0,-1.0,1.0,-1.0,-1.0
2025-06-04 12:28:24.169,0.0026338373,-0.028233077,0.01601228,-0.050797503,0.05660263,0.013694859,0.0,0.0,0.0,0.02816908,0.020691695,-0.47447607,-0.1432428,0.17504078,0.37034726,-0.17493598,-0.09419024,-0.54646504,-0.20598792,0.13939008,-0.45674235,-0.2177773,-0.05882558,-0.0016875111,0.05546039,-0.059272677,0.014372598,-0.04385682,-0.052000787,-0.04122409,-0.038787622,0.016218234,0.012395322,0.0212267,1.0,-1.0,-1.0,1.0,1.0,-1.0,-1.0,-1.0,-1.0,1.0,-1.0,-1.0,1.0,-1.0,-1.0,1.0,1.0,-1.0,-1.0,-1.0,-1.0,1.0,-1.0,-1.0
2025-06-04 12:28:24.189,0.040214613,-0.023743875,-0.05646187,0.006112575,0.058269512,-0.021665627,0.0,0.0,0.0,0.028572941,0.026578799,-0.4715516,-0.14637318,0.16690378,0.3888379,-0.16221507,-0.0971672,-0.5518854,-0.20534623,0.12611307,-0.45173123,-0.22474822,0.057394937,0.055645507,0.041420702,0.00232649,-0.04659588,-0.0005194747,-0.010112187,-0.04934954,-0.017440692,-0.055433113,-0.035017427,0.056540437,1.0,-1.0,-1.0,1.0,1.0,-1.0,-1.0,-1.0,-1.0,1.0,-1.0,-1.0,1.0,-1.0,-1.0,1.0,1.0,-1.0,-1.0,-1.0,-1.0,1.0,-1.0,-1.0
2025-06-04 12:28:24.209,0.00032515655,-0.07982061,-0.019828517,0.03409097,0.042872448,-0.012000665,0.0,0.0,0.0,0.028991127,0.0181869,-0.48107958,-0.15009525,0.18509771,0.37808925,-0.16054326,-0.0985265,-0.5379239,-0.2156558,0.12390182,-0.46839133,-0.22814287,0.028259387,-7.892341e-05,-0.054925818,-0.009079226,0.020629777,0.0060205683,-0.008430298,-0.009416064,-0.036694482,-0.020101631,0.009081089,0.032756705,1.0,-1.0,-1.0,1.0,1.0,-1.0,-1.0,-1.0,-1.0,1.0,-1.0,-1.0,1.0,-1.0,-1.0,1.0,1.0,-1.0,-1.0,-1.0,-1.0,1.0,-1.0,-1.0
2025-06-04 12:28:24.233,-0.049816795,-0.040521905,-0.011105799,0.039013296,0.08047118,-0.029778348,0.0,0.0,0.0,0.029411167,0.022220192,-0.4900935,-0.14472494,0.1872392,0.3904112,-0.1629169,-0.10368513,-0.54757106,-0.21607251,0.12936567,-0.46637163,-0.23038682,-0.07356205,0.03468142,0.07159339,0.011231623,-0.026923101,-0.01007936,-0.06676952,0.04234874,-0.04896799,0.045056544,0.015453374,0.0015853563,1.0,-1.0,-1.0,1.0,1.0,-1.0,-1.0,-1.0,-1.0,1.0,-1.0,-1.0,1.0,-1.0,-1.0,1.0,1.0,-1.0,-1.0,-1.0,-1.0,1.0,-1.0,-1.0
2025-06-04 12:28:24.250,-0.005452322,0.004227635,-0.03981258,-0.008458872,0.050055373,-0.023796365,0.0,0.0,0.0,0.02982245,0.021182243,-0.4987104,-0.15023227,0.17847778,0.3886254,-0.16074325,-0.0996861,-0.55224144,-0.22088562,0.1191675,-0.4717176,-0.23447414,0.06653161,-0.01728858,0.033376765,0.026629355,0.059827168,-0.05231626,0.062363386,-0.030401628,0.026885705,-0.014767947,0.044395525,-0.056135833,1.0,-1.0,-1.0,1.0,1.0,-1.0,-1.0,-1.0,-1.0,1.0,-1.0,-1.0,1.0,-1.0,-1.0,1.0,1.0,-1.0,-1.0,-1.0,-1.0,1.0,-1.0,-1.0
2025-06-04 12:28:24.269,-0.040672984,0.012056614,-0.038100827,-0.024246922,0.054750975,0.025744917,0.0,0.0,0.0,0.03021719,0.012267759,-0.49761853,-0.14453168,0.18499476,0.38208917,-0.16615248,-0.09074005,-0.5623614,-0.22260153,0.1310185,-0.47449362,-0.24401543,0.03436219,-0.029697755,0.036450583,-0.058033466,0.05477287,-0.017782036,0.03659601,-0.04364665,-0.02757948,-0.07222514,0.027173854,-0.014329016,1.0,-1.0,-1.0,1.0,1.0,-1.0,-1.0,-1.0,-1.0,1.0,-1.0,-1.0,1.0,-1.0,-1.0,1.0,1.0,-1.0,-1.0,-1.0,-1.0,1.0,-1.0,-1.0
2025-06-04 12:28:24.289,-0.01182691,-0.011929789,-0.028436614,0.020509908,0.10960924,0.043392424,0.0,0.0,0.0,0.030589959,0.008858948,-0.49326703,-0.14168455,0.1935401,0.3908138,-0.15375766,-0.087064005,-0.55231494,-0.22054902,0.12616727,-0.47490212,-0.23948616,0.0011239081,0.0027723727,0.014258605,0.076334566,0.057758506,-0.039976552,0.072228424,-0.028630257,0.05424022,-0.036888264,-0.01260588,-0.050216097,1.0,-1.0,-1.0,1.0,1.0,-1.0,-1.0,-1.0,-1.0,1.0,-1.0,-1.0,1.0,-1.0,-1.0,1.0,1.0,-1.0,-1.0,-1.0,-1.0,1.0,-1.0,-1.0
2025-06-04 12:28:24.309,-0.023778148,-0.021827556,-0.058140837,-7.802427e-05,0.113852605,-0.0128607005,0.0,0.0,0.0,0.030939983,0.0077254693,-0.51228577,-0.15577482,0.18726963,0.3864583,-0.16229632,-0.08386124,-0.5527759,-0.23314017,0.12202198,-0.46419242,-0.23857448,0.043299615,0.055258967,0.020177212,0.07075451,0.0046796496,0.013140544,-0.03611834,0.067353025,-0.037910074,-0.058938663,0.023167513,-0.04575856,1.0,-1.0,-1.0,1.0,1.0,-1.0,-1.0,-1.0,-1.0,1.0,-1.0,-1.0,1.0,-1.0,-1.0,1.0,1.0,-1.0,-1.0,-1.0,-1.0,1.0,-1.0,-1.0
2025-06-04 12:28:24.334,0.0071188156,0.0016856629,-0.008243614,-0.038373888,0.023065591,0.049444724,0.0,0.0,0.0,0.03127435,0.005495872,-0.5066503,-0.15390922,0.1877897,0.38708252,-0.15500623,-0.08593799,-0.5692302,-0.22850879,0.11414196,-0.47948408,-0.23780207,-0.07378437,0.064015366,0.012945013,-0.0042377017,0.054517332,0.006515796,-0.03602478,0.06985867,-0.043537185,0.01567952,0.065388195,0.020118542,1.0,-1.0,-1.0,1.0,1.0,-1.0,-1.0,-1.0,-1.0,1.0,-1.0,-1.0,1.0,-1.0,-1.0,1.0,1.0,-1.0,-1.0,-1.0,-1.0,1.0,-1.0,-1.0
2025-06-04 12:28:24.350,0.018514767,0.034652308,-0.013825368,0.024229135,0.08617314,0.017073229,0.0,0.0,0.0,0.031597134,0.0136570865,-0.51058483,-0.15494494,0.18514656,0.39543438,-0.1625704,-0.09053422,-0.5710283,-0.22783718,0.12265163,-0.47359186,-0.24789473,-0.07472091,0.032858178,0.051505856,0.036784325,0.020175198,-0.06987844,-0.067863554,-0.025266303,0.027228562,0.024243392,-0.009646825,0.011985845,1.0,-1.0,-1.0,1.0,1.0,-1.0,-1.0,-1.0,-1.0,1.0,-1.0,-1.0,1.0,-1.0,-1.0,1.0,1.0,-1.0,-1.0,-1.0,-1.0,1.0,-1.0,-1.0
2025-06-04 12:28:24.370,0.0021889452,-0.03299616,-0.028263032,0.0026159582,0.10490262,-0.024815014,0.0,0.0,0.0,0.03190894,0.01846442,-0.51482654,-0.16067825,0.19583125,0.39096195,-0.15798901,-0.082618795,-0.5666792,-0.2375247,0.11753514,-0.4819562,-0.25623718,-0.046378512,-0.022691905,-0.07574014,0.028181246,0.0007922202,-0.054266974,0.04134369,0.04994247,0.051529273,0.03591705,-0.07299422,0.0032917038,1.0,-1.0,-1.0,1.0,1.0,-1.0,-1.0,-1.0,-1.0,1.0,-1.0,-1.0,1.0,-1.0,-1.0,1.0,1.0,-1.0,-1.0,-1.0,-1.0,1.0,-1.0,-1.0
2025-06-04 12:28:24.390,0.03878639,-0.036939204,0.029964823,0.014048375,0.094922274,-0.04369055,0.0,0.0,0.0,0.032207713,0.017304363,-0.51287234,-0.15658545,0.18439624,0.40029988,-0.15762557,-0.09237933,-0.55798566,-0.22441955,0.12371675,-0.46386677,-0.24845575,-0.016550422,0.06984561,-0.025932036,-0.044565286,-0.024218246,0.008282588,0.0141948145,0.021936292,0.047631197,-0.02628762,0.06807319,-0.036724545,1.0,-1.0,-1.0,1.0,1.0,-1.0,-1.0,-1.0,-1.0,1.0,-1.0,-1.0,1.0,-1.0,-1.0,1.0,1.0,-1.0,-1.0,-1.0,-1.0,1.0,-1.0,-1.0
2025-06-04 12:28:24.410,0.025033353,0.0010207436,-0.030547196,0.030502599,0.037570387,0.03160351,0.0,0.0,0.0,0.032484468,-0.0016631477,-0.511186,-0.16135217,0.19119337,0.41128027,-0.16341683,-0.08269062,-0.5742725,-0.23332882,0.1109309,-0.46768373,-0.24500959,0.06787534,0.04722067,-0.022340467,-0.024659323,0.058085993,-0.038150147,-0.014454917,0.0059238765,0.030886803,0.0454616,0.06469278,0.06183485,1.0,-1.0,-1.0,1.0,1.0,-1.0,-1.0,-1.0,-1.0,1.0,-1.0,-1.0,1.0,-1.0,-1.0,1.0,1.0,-1.0,-1.0,-1.0,-1.0,1.0,-1.0,-1.0
2025-06-04 12:28:24.433,-0.018234733,0.012093694,0.024588773,0.046604957,0.020832244,-0.037620682,0.0,0.0,0.0,0.032738425,0.008799786,-0.51384056,-0.15579686,0.20346262,0.39799374,-0.15697405,-0.09100544,-0.5758855,-0.23501252,0.115812644,-0.47575632,-0.24464431,-0.021790246,-0.068288095,0.066081494,-0.044038147,0.0019778186,0.074560866,-0.052450784,0.0054036584,-0.009217879,-0.04938458,0.051796895,-0.015714945,1.0,-1.0,-1.0,1.0,1.0,-1.0,-1.0,-1.0,-1.0,1.0,-1.0,-1.0,1.0,-1.0,-1.0,1.0,1.0,-1.0,-1.0,-1.0,-1.0,1.0,-1.0,-1.0
2025-06-04 12:28:24.450,0.028248066,-0.0060767354,-0.05584743,-0.04651675,0.018821316,0.008470027,0.0,0.0,0.0,0.032977402,0.0024155022,-0.5157741,-0.14511432,0.20367554,0.40823013,-0.14989938,-0.09045387,-0.56301033,-0.24058895,0.12541193,-0.47974434,-0.25815752,-0.07797675,0.03828829,-0.026163258,-0.046725664,-0.06666903,-0.06704995,0.036479168,0.032025184,0.020172691,-0.026595868,-0.058110185,-0.013738737,1.0,-1.0,-1.0,1.0,1.0,-1.0,-1.0,-1.0,-1.0,1.0,-1.0,-1.0,1.0,-1.0,-1.0,1.0,1.0,-1.0,-1.0,-1.0,-1.0,1.0,-1.0,-1.0
2025-06-04 12:28:24.470,-0.009231651,-0.04322312,0.033686437,0.006659064,0.015122058,0.022715958,0.0,0.0,0.0,0.033202205,-0.0008950852,-0.5105982,-0.15711324,0.20670667,0.4126876,-0.14775883,-0.09010793,-0.56721956,-0.2325631,0.11865279,-0.48118842,-0.2439524,-0.06132677,0.030164108,0.064202234,0.06323114,0.065988876,-0.010583362,-0.031528726,-0.015912488,0.06472905,0.010447138,0.03929138,0.0017105235,1.0,-1.0,-1.0,1.0,1.0,-1.0,-1.0,-1.0,-1.0,1.0,-1.0,-1.0,1.0,-1.0,-1.0,1.0,1.0,-1.0,-1.0,-1.0,-1.0,1.0,-1.0,-1.0
2025-06-04 12:28:24.490,-0.049524646,0.018771762,0.0020598473,0.035846096,0.08964582,0.013112098,0.0,0.0,0.0,0.0334116,0.0115962215,-0.5269494,-0.15917261,0.20128669,0.40640774,-0.15298487,-0.084430836,-0.56801486,-0.24458924,0.12426435,-0.48654228,-0.25144294,-0.0013631751,-0.07771614,0.02068465,-0.053320047,-0.032832995,-0.0026221795,0.07369313,0.04231687,-0.019816188,-0.06199049,0.0053969263,-0.0182009,1.0,-1.0,-1.0,1.0,1.0,-1.0,-1.0,-1.0,-1.0,1.0,-1.0,-1.0,1.0,-1.0,-1.0,1.0,1.0,-1.0,-1.0,-1.0,-1.0,1.0,-1.0,-1.0
2025-06-04 12:28:24.510,0.030265473,0.039344836,0.00624693,-0.04412811,0.090907626,-0.030769322,0.0,0.0,0.0,0.033604447,0.010525596,-0.5312051,-0.15920037,0.20530191,0.40320385,-0.14201088,-0.09678851,-0.56348485,-0.24007978,0.1249274,-0.4683563,-0.25383008,-0.0009783584,-0.027064478,-0.032675926,-0.032993034,-0.014850147,-0.053075008,-0.06876077,-0.032257885,-0.012708426,-0.018339053,0.055681925,0.057011973,1.0,-1.0,-1.0,1.0,1.0,-1.0,-1.0,-1.0,-1.0,1.0,-1.0,-1.0,1.0,-1.0,-1.0,1.0,1.0,-1.0,-1.0,-1.0,-1.0,1.0,-1.0,-1.0
2025-06-04 12:28:24.534,-0.002970501,0.0007389264,-0.031589918,0.025742285,0.016986573,0.04007794,0.0,0.0,0.0,0.033779588,-0.008341065,-0.5202819,-0.15303388,0.20477584,0.40900645,-0.14434691,-0.08516969,-0.5771217,-0.24045238,0.11380556,-0.47783282,-0.24370894,0.01779897,-0.007217097,0.036667563,-0.027096882,0.07070765,-0.061578825,0.014712668,0.013097217,-0.07659018,0.025630409,-0.06314263,0.07221699,1.0,-1.0,-1.0,1.0,1.0,-1.0,-1.0,-1.0,-1.0,1.0,-1.0,-1.0,1.0,-1.0,-1.0,1.0,1.0,-1.0,-1.0,-1.0,-1.0,1.0,-1.0,-1.0
2025-06-04 12:28:24.550,0.0019307357,-0.044725593,-0.00436362,0.008621773,0.09969354,0.0035252261,0.0,0.0,0.0,0.033936184,-0.001826521,-0.5262236,-0.16474783,0.19540934,0.41120017,-0.14495905,-0.07834247,-0.5664762,-0.23209587,0.12557167,-0.4686645,-0.2566755,0.0031825446,0.027800184,-0.034155857,-0.041348554,0.060256205,-0.06681445,0.055299018,0.016185582,-0.023472635,-0.017155599,-0.013828251,-0.047024284,1.0,-1.0,-1.0,1.0,1.0,-1.0,-1.0,-1.0,-1.0,1.0,-1.0,-1.0,1.0,-1.0,-1.0,1.0,1.0,-1.0,-1.0,-1.0,-1.0,1.0,-1.0,-1.0
2025-06-04 12:28:24.570,-0.022600329,0.021053001,-0.006127232,-0.044722646,0.060890514,-0.040485505,0.0,0.0,0.0,0.034074094,-0.010008535,-0.5266727,-0.16303916,0.20673542,0.4167118,-0.15207253,-0.08891753,-0.5614713,-0.24170493,0.124378845,-0.4805634,-0.24429879,-0.041504692,-0.074616015,0.048927616,0.02943532,-0.03204295,-0.00601321,0.05339864,-0.034369353,0.019611215,0.046242375,-0.03010753,0.05359887,1.0,-1.0,-1.0,1.0,1.0,-1.0,-1.0,-1.0,-1.0,1.0,-1.0,-1.0,1.0,-1.0,-1.0,1.0,1.0,-1.0,-1.0,-1.0,-1.0,1.0,-1.0,-1.0
2025-06-04 12:28:24.590,-0.031271655,-0.032001555,-0.004898159,-0.03895385,0.040218975,0.018947182,0.0,0.0,0.0,0.03419395,-0.0022926067,-0.5257601,-0.15358168,0.20166048,0.40890738,-0.14089443,-0.08848067,-0.5787827,-0.25294527,0.11333782,-0.48872975,-0.24198164,-0.03587342,0.04502194,-0.0061968747,-0.009682315,-0.0337073,-0.07294205,0.03187028,-0.019077582,0.071290374,0.025269138,0.0077627413,0.007338599,1.0,-1.0,-1.0,1.0,1.0,-1.0,-1.0,-1.0,-1.0,1.0,-1.0,-1.0,1.0,-1.0,-1.0,1.0,1.0,-1.0,-1.0,-1.0,-1.0,1.0,-1.0,-1.0
2025-06-04 12:28:24.610,-0.0029128478,0.013052164,0.01542532,0.00800922,0.007275442,0.031835385,0.0,0.0,0.0,0.034296986,0.0032168815,-0.5282844,-0.16316219,0.19852982,0.42735538,-0.14413683,-0.09180504,-0.567821,-0.24263346,0.116079964,-0.47693664,-0.24743958,0.06480207,0.06853078,0.047851443,0.025344288,0.073339075,-0.073433876,-0.024454754,-0.0050343103,-0.032971013,0.007198079,0.008143468,-0.007953285,1.0,-1.0,-1.0,1.0,1.0,-1.0,-1.0,-1.0,-1.0,1.0,-1.0,-1.0,1.0,-1.0,-1.0,1.0,1.0,-1.0,-1.0,-1.0,-1.0,1.0,-1.0,-1.0
2025-06-04 12:28:24.633,0.006799352,-0.03557352,0.031954944,-0.04626436,0.07017085,0.005800985,0.0,0.0,0.0,0.034384724,0.0044909357,-0.51939756,-0.1502541,0.19721241,0.42490682,-0.1406119,-0.08804422,-0.57541174,-0.25399804,0.12975796,-0.48671553,-0.24296556,0.05662319,0.009879629,-0.045830246,-0.030597024,-0.022914492,-0.0449892,0.005746433,-0.016681869,0.0647443,-0.06499709,0.0049638385,-0.037196092,1.0,-1.0,-1.0,1.0,1.0,-1.0,-1.0,-1.0,-1.0,1.0,-1.0,-1.0,1.0,-1.0,-1.0,1.0,1.0,-1.0,-1.0,-1.0,-1.0,1.0,-1.0,-1.0
2025-06-04 12:28:24.651,-0.007853777,-0.032936096,0.020380486,-0.044896517,0.077376954,-0.00064756395,0.0,0.0,0.0,0.034458786,-0.008883113,-0.5185473,-0.15402542,0.20816961,0.4086804,-0.14519264,-0.09183418,-0.56242335,-0.2414849,0.11349934,-0.48620903,-0.24087216,-0.008712859,-0.062005334,0.011854948,0.06783776,0.037584983,0.04632662,-0.026285568,0.001278453,-0.053501938,-0.026908789,-0.017639546,0.017985448,1.0,-1.0,-1.0,1.0,1.0,-1.0,-1.0,-1.0,-1.0,1.0,-1.0,-1.0,1.0,-1.0,-1.0,1.0,1.0,-1.0,-1.0,-1.0,-1.0,1.0,-1.0,-1.0
2025-06-04 12:28:24.671,-0.0077192727,-0.016891202,-0.044787996,-0.018800018,0.060799636,-0.0064814202,0.0,0.0,0.0,0.034520753,0.0043213954,-0.51742655,-0.16671388,0.20999615,0.42000988,-0.1434451,-0.089771725,-0.5786632,-0.24753164,0.12209972,-0.4856511,-0.24816673,0.04405174,0.072177984,-0.0015844487,-0.019060787,-0.039685067,0.0260503,-0.04610362,0.04702579,-0.06049441,0.012535098,0.03509076,-0.06911683,1.0,-1.0,-1.0,1.0,1.0,-1.0,-1.0,-1.0,-1.0,1.0,-1.0,-1.0,1.0,-1.0,-1.0,1.0,1.0,-1.0,-1.0,-1.0,-1.0,1.0,-1.0,-1.0
2025-06-04 12:28:24.691,-0.00024193291,0.026191583,-0.012434224,-0.04589068,0.092132635,0.033316176,0.0,0.0,0.0,0.034572117,-0.0010522052,-0.5330505,-0.16210565,0.19444029,0.42634675,-0.1436426,-0.083455145,-0.57701606,-0.25041646,0.121046074,-0.4805833,-0.24173568,0.006150683,0.016940534,-0.019582441,0.040751863,0.061926737,0.022821052,0.07136663,0.05583018,-0.03874845,0.07472502,0.027456734,-0.043914184,1.0,-1.0,-1.0,1.0,1.0,-1.0,-1.0,-1.0,-1.0,1.0,-1.0,-1.0,1.0,-1.0,-1.0,1.0,1.0,-1.0,-1.0,-1.0,-1.0,1.0,-1.0,-1.0
2025-06-04 12:28:24.714,-0.049084324,0.0145595195,-0.013444019,0.02829109,0.07820881,-0.0138057,0.0,0.0,0.0,0.03461428,0.00354279,-0.5222791,-0.15977924,0.19817825,0.42270955,-0.15716514,-0.09635475,-0.56266326,-0.24529508,0.119619645,-0.47886568,-0.25371608,-0.01643354,0.04978438,-0.04097665,0.010195728,-0.050843455,0.0044100233,0.047408726,-0.014349079,0.0147970095,-0.0019955814,0.06672837,-0.043379467,1.0,-1.0,-1.0,1.0,1.0,-1.0,-1.0,-1.0,-1.0,1.0,-1.0,-1.0,1.0,-1.0,-1.0,1.0,1.0,-1.0,-1.0,-1.0,-1.0,1.0,-1.0,-1.0
2025-06-04 12:28:24.734,0.02487151,-0.0006099507,-0.005730401,0.04431248,0.08127616,0.037858166,0.0,0.0,0.0,0.034648515,-0.008286803,-0.5332183,-0.15837416,0.19888805,0.41223207,-0.15415026,-0.09126382,-0.5676249,-0.25499424,0.112430006,-0.4866173,-0.24276811,0.0013511234,0.040551372,0.015278169,0.04033297,0.051147494,0.03154134,0.07035436,-0.014439823,0.07222049,0.07443791,-0.04779032,-0.008855318,1.0,-1.0,-1.0,1.0,1.0,-1.0,-1.0,-1.0,-1.0,1.0,-1.0,-1.0,1.0,-1.0,-1.0,1.0,1.0,-1.0,-1.0,-1.0,-1.0,1.0,-1.0,-1.0
2025-06-04 12:28:24.753,0.027140085,0.0041393396,0.0037106478,0.02245735,0.016548252,-0.025286445,0.0,0.0,0.0,0.034676,-0.0018865259,-0.52292496,-0.15764746,0.20750853,0.4279814,-0.15006249,-0.082925946,-0.5796384,-0.23823516,0.12095021,-0.48942047,-0.23995647,-0.033465102,0.057254277,0.014798922,0.06714981,-0.06983355,-0.035950653,0.013539171,0.014461454,-0.03970478,0.022207703,-0.051418595,0.0393259,1.0,-1.0,-1.0,1.0,1.0,-1.0,-1.0,-1.0,-1.0,1.0,-1.0,-1.0,1.0,-1.0,-1.0,1.0,1.0,-1.0,-1.0,-1.0,-1.0,1.0,-1.0,-1.0
2025-06-04 12:28:24.773,-0.016315026,0.023986472,0.007083117,0.012243355,0.08013694,0.027292794,0.0,0.0,0.0,0.03469777,-0.00517136,-0.5205622,-0.1498216,0.20646547,0.41979796,-0.1555398,-0.086236335,-0.57275784,-0.23828772,0.12928717,-0.48069376,-0.24273413,0.019611938,-0.038265947,-0.027868973,-0.07402111,0.03389731,-0.023483373,0.0049618213,-0.056537908,-0.03600484,-0.021582643,-0.04034954,-0.061066486,1.0,-1.0,-1.0,1.0,1.0,-1.0,-1.0,-1.0,-1.0,1.0,-1.0,-1.0,1.0,-1.0,-1.0,1.0,1.0,-1.0,-1.0,-1.0,-1.0,1.0,-1.0,-1.0
2025-06-04 12:28:24.792,-0.030918136,0.03603951,0.048042394,-0.015853943,0.072776124,0.016905889,0.0,0.0,0.0,0.03471476,-0.0038544382,-0.5346348,-0.16090053,0.20369157,0.41499472,-0.15774266,-0.09277826,-0.578558,-0.2544916,0.11852506,-0.48553103,-0.25458893,-0.007913178,0.012294425,0.00166313,0.07370413,-0.0340543,-0.06104401,0.0540805,-0.028481556,0.07013508,0.033136435,-0.043505624,0.023436705,1.0,-1.0,-1.0,1.0,1.0,-1.0,-1.0,-1.0,-1.0,1.0,-1.0,-1.0,1.0,-1.0,-1.0,1.0,1.0,-1.0,-1.0,-1.0,-1.0,1.0,-1.0,-1.0
2025-06-04 12:28:24.811,0.04347395,0.013976718,0.034309693,-0.04334834,0.09134583,-0.013702997,0.0,0.0,0.0,0.03472777,0.0013821337,-0.5303006,-0.16609842,0.20019938,0.4194624,-0.14530955,-0.07819971,-0.5770989,-0.24912001,0.11707609,-0.4764397,-0.25623435,-0.034104135,-0.023113249,-0.0338659,0.020490387,0.06499939,-0.0665157,0.0047786487,0.02066295,-0.0058917273,-0.027555488,0.02776694,-0.005358971,1.0,-1.0,-1.0,1.0,1.0,-1.0,-1.0,-1.0,-1.0,1.0,-1.0,-1.0,1.0,-1.0,-1.0,1.0,1.0,-1.0,-1.0,-1.0,-1.0,1.0,-1.0,-1.0
2025-06-04 12:28:24.834,-0.005292133,-0.006948642,-0.013719282,0.031094253,0.06898498,0.0022637104,0.0,0.0,0.0,0.03473751,-0.006203696,-0.533887,-0.14820462,0.20897464,0.41264588,-0.14745085,-0.08499918,-0.576129,-0.23891214,0.12689252,-0.4896061,-0.2557678,-0.0416367,-0.00024719696,-0.015092331,0.019672088,-0.044190556,-0.07086675,-0.06620735,0.056324203,-0.02752951,-0.055702433,-0.00025850706,-0.024858518,1.0,-1.0,-1.0,1.0,1.0,-1.0,-1.0,-1.0,-1.0,1.0,-1.0,-1.0,1.0,-1.0,-1.0,1.0,1.0,-1.0,-1.0,-1.0,-1.0,1.0,-1.0,-1.0
2025-06-04 12:28:24.853,-0.02096291,0.033539,0.028541315,0.03474507,0.006103871,0.046940994,0.0,0.0,0.0,0.03474458,-0.012894997,-0.5211318,-0.16625059,0.19492272,0.42033163,-0.14845313,-0.08518314,-0.57244796,-0.24698439,0.11257341,-0.47766626,-0.25378144,-0.019263187,0.055046998,-0.06959116,-0.049581766,0.04542037,-0.029921561,-0.008375477,0.020623472,-0.03412957,0.05502381,0.0018201305,0.022495272,1.0,-1.0,-1.0,1.0,1.0,-1.0,-1.0,-1.0,-1.0,1.0,-1.0,-1.0,1.0,-1.0,-1.0,1.0,1.0,-1.0,-1.0,-1.0,-1.0,1.0,-1.0,-1.0
2025-06-04 12:28:24.872,0.04094727,0.021142269,0.042612407,0.0032671106,0.0728948,0.02402133,0.0,0.0,0.0,0.034749497,0.0038587286,-0.52903205,-0.15120925,0.19411592,0.41898674,-0.14206862,-0.085414775,-0.57429594,-0.2529238,0.1262684,-0.47674695,-0.24023043,-0.0081328405,-0.0005891403,-0.010559795,0.033594884,-0.0553268,-0.0034095887,0.0010492314,0.03947747,-0.04192203,0.06775666,-0.05681769,0.03551731,1.0,-1.0,-1.0,1.0,1.0,-1.0,-1.0,-1.0,-1.0,1.0,-1.0,-1.0,1.0,-1.0,-1.0,1.0,1.0,-1.0,-1.0,-1.0,-1.0,1.0,-1.0,-1.0
2025-06-04 12:28:24.892,-0.012057,-0.036437348,0.047813084,0.013987398,0.095833406,0.032067966,0.0,0.0,0.0,0.034752715,0.005447473,-0.5287149,-0.1612983,0.19936237,0.41978264,-0.14400527,-0.094851695,-0.56145394,-0.24613553,0.113739006,-0.48158792,-0.25035888,-0.024265582,-0.038086273,-0.06648095,0.02635021,-0.046905443,0.040316887,0.01104122,-0.050378628,-0.07401833,0.021612443,-0.048913766,0.06478059,1.0,-1.0,-1.0,1.0,1.0,-1.0,-1.0,-1.0,-1.0,1.0,-1.0,-1.0,1.0,-1.0,-1.0,1.0,1.0,-1.0,-1.0,-1.0,-1.0,1.0,-1.0,-1.0
2025-06-04 12:28:24.914,-0.026058346,-0.03895985,-0.031292062,0.05020104,0.09101934,-0.02857284,0.0,0.0,0.0,0.034754757,0.0032011163,-0.5297374,-0.16258958,0.19567318,0.41177306,-0.15533601,-0.08993529,-0.57932687,-0.24066582,0.12878807,-0.48874447,-0.24090618,0.012459376,-0.038866237,-0.037510358,-0.07002833,-0.058058944,-0.007933521,-0.017401934,0.04115926,-0.060998783,-0.057585184,0.012948124,0.0077928468,1.0,-1.0,-1.0,1.0,1.0,-1.0,-1.0,-1.0,-1.0,1.0,-1.0,-1.0,1.0,-1.0,-1.0,1.0,1.0,-1.0,-1.0,-1.0,-1.0,1.0,-1.0,-1.0
2025-06-04 12:28:24.934,-0.049824346,0.032830693,-0.02308497,-0.0042992197,0.023664387,-0.019741522,0.0,0.0,0.0,0.034756057,-0.0023473352,-0.537243,-0.15598501,0.1956414,0.42701077,-0.1489774,-0.08247468,-0.5791355,-0.25129047,0.1279491,-0.48299167,-0.23970848,0.043738626,0.024740063,-0.0037944193,0.025008248,-0.040611215,-0.023315722,0.017840577,0.0649185,-0.0030046334,-0.042287465,-0.062170576,-0.0015325319,1.0,-1.0,-1.0,1.0,1.0,-1.0,-1.0,-1.0,-1.0,1.0,-1.0,-1.0,1.0,-1.0,-1.0,1.0,1.0,-1.0,-1.0,-1.0,-1.0,1.0,-1.0,-1.0
2025-06-04 12:28:24.953,0.03309066,-0.025655175,0.035949893,0.05340977,0.017024651,0.04901375,0.0,0.0,0.0,0.03475689,0.002331938,-0.53209776,-0.1491375,0.19642004,0.42732066,-0.14855836,-0.09689384,-0.56672823,-0.24926214,0.12331309,-0.47462055,-0.25178042,-0.01290234,0.051715635,-0.021924326,-0.06743947,-0.023785336,0.052436966,0.005471078,-0.031091392,-0.064298205,-0.0716417,0.050015442,0.0001574986,1.0,-1.0,-1.0,1.0,1.0,-1.0,-1.0,-1.0,-1.0,1.0,-1.0,-1.0,1.0,-1.0,-1.0,1.0,1.0,-1.0,-1.0,-1.0,-1.0,1.0,-1.0,-1.0
2025-06-04 12:28:24.972,0.028862288,-0.01625203,-0.033896234,-0.03759529,0.025783148,-0.042609353,0.0,0.0,0.0,0.034757458,0.003081838,-0.52772504,-0.15198217,0.19218478,0.4224968,-0.14474879,-0.08860101,-0.5753211,-0.24910358,0.1290001,-0.4885471,-0.23833339,0.04699174,0.060560483,-0.022406807,0.037659675,-0.07457477,0.027480328,0.035535235,0.035948507,-0.048570126,-0.0037397102,0.021556865,-0.07382854,1.0,-1.0,-1.0,1.0,1.0,-1.0,-1.0,-1.0,-1.0,1.0,-1.0,-1.0,1.0,-1.0,-1.0,1.0,1.0,-1.0,-1.0,-1.0,-1.0,1.0,-1.0,-1.0
2025-06-04 12:28:24.992,0.04534427,-0.024355598,-0.004624255,0.032197632,0.055480193,-0.041781213,0.0,0.0,0.0,0.034757905,-0.0017399982,-0.5197554,-0.16188052,0.20191956,0.42583752,-0.15108824,-0.07961432,-0.5729759,-0.23661311,0.1125779,-0.48066172,-0.24579062,0.06745469,0.04589373,0.002598992,0.016968306,-0.007131226,0.04318299,0.054066833,-0.044896316,-0.008394174,0.05044924,0.052011423,0.006017303,1.0,-1.0,-1.0,1.0,1.0,-1.0,-1.0,-1.0,-1.0,1.0,-1.0,-1.0,1.0,-1.0,-1.0,1.0,1.0,-1.0,-1.0,-1.0,-1.0,1.0,-1.0,-1.0
2025-06-04 12:28:25.017,0.0002116787,-0.041451316,-0.031965166,0.040548917,0.10505291,-0.017864943,0.0,0.0,0.0,0.03475832,-0.012387444,-0.5302379,-0.15170121,0.1945479,0.41347507,-0.15342835,-0.081259966,-0.5652463,-0.24990152,0.11609085,-0.4724149,-0.24310338,-0.06576279,-0.010429359,0.0054928022,-0.040417053,0.015599978,0.038379155,0.017518353,0.034637697,-0.0010746071,-0.014030372,0.073153645,0.03466376,1.0,-1.0,-1.0,1.0,1.0,-1.0,-1.0,-1.0,-1.0,1.0,-1.0,-1.0,1.0,-1.0,-1.0,1.0,1.0,-1.0,-1.0,-1.0,-1.0,1.0,-1.0,-1.0
2025-06-04 12:28:25.036,0.024092074,-0.043737985,0.03311997,0.043472514,0.067643635,-0.03781353,0.0,0.0,0.0,0.034758747,0.0020611729,-0.5360609,-0.15370704,0.20484143,0.42239732,-0.14507782,-0.092193305,-0.575268,-0.25189942,0.12427247,-0.46975133,-0.24088675,-0.0030079877,-0.038968604,-0.05789993,-0.015760764,0.0015135248,0.00918357,0.012677263,0.04208428,-0.043189656,0.052702982,-0.042125147,-0.011214285,1.0,-1.0,-1.0,1.0,1.0,-1.0,-1.0,-1.0,-1.0,1.0,-1.0,-1.0,1.0,-1.0,-1.0,1.0,1.0,-1.0,-1.0,-1.0,-1.0,1.0,-1.0,-1.0
2025-06-04 12:28:25.053,-0.0029999819,-0.008990964,-0.03363947,0.028659206,0.054930393,-0.016628806,0.0,0.0,0.0,0.034759197,0.000777738,-0.5278773,-0.15741119,0.20011228,0.4300268,-0.15190549,-0.09365168,-0.5612387,-0.2512879,0.1133266,-0.47801664,-0.24856712,-0.013058873,0.002465788,0.051880684,0.05302547,0.04963027,0.0039380444,0.074435346,-0.048145406,0.018942825,0.025650961,-0.037224405,0.06929327,1.0,-1.0,-1.0,1.0,1.0,-1.0,-1.0,-1.0,-1.0,1.0,-1.0,-1.0,1.0,-1.0,-1.0,1.0,1.0,-1.0,-1.0,-1.0,-1.0,1.0,-1.0,-1.0
2025-06-04 12:28:25.072,0.00028328752,-0.021763792,0.042366076,-0.043693833,0.050435487,-0.018441292,0.0,0.0,0.0,0.03475965,0.0039553586,-0.53636324,-0.15325324,0.20680104,0.42930615,-0.14678761,-0.092525415,-0.56839246,-0.23596524,0.1260456,-0.47925097,-0.24467316,0.039834037,-0.06959329,0.004144062,-0.021058304,-0.0012378241,0.01997825,-0.057989348,-0.05591535,-0.019390894,-0.042326055,-0.037890118,0.03043274,1.0,-1.0,-1.0,1.0,1.0,-1.0,-1.0,-1.0,-1.0,1.0,-1.0,-1.0,1.0,-1.0,-1.0,1.0,1.0,-1.0,-1.0,-1.0,-1.0,1.0,-1.0,-1.0
2025-06-04 12:28:25.092,-0.04631303,0.026255434,-0.008939678,0.011151615,0.06827002,0.00083264546,0.0,0.0,0.0,0.03476008,-0.0055439374,-0.51903075,-0.15785773,0.20512898,0.42106953,-0.15267326,-0.08647584,-0.56767714,-0.24709783,0.1252708,-0.48873925,-0.25072718,-0.050289422,-0.01517344,-0.07472335,-0.0018925699,0.020496512,-0.042921405,0.05671209,-0.07471971,-0.028662587,0.052447382,0.040302213,-0.031217849,1.0,-1.0,-1.0,1.0,1.0,-1.0,-1.0,-1.0,-1.0,1.0,-1.0,-1.0,1.0,-1.0,-1.0,1.0,1.0,-1.0,-1.0,-1.0,-1.0,1.0,-1.0,-1.0
2025-06-04 12:28:25.117,0.0013563605,0.020747267,-0.018487643,-0.002551064,0.035573523,0.031116672,0.0,0.0,0.0,0.03476047,-0.013010728,-0.5191757,-0.1654231,0.19551285,0.4241262,-0.15002581,-0.07932498,-0.57421875,-0.24290441,0.11342595,-0.48234242,-0.24673276,0.06400839,0.019368459,-0.0055521834,-0.03938602,-0.015287252,0.0069461176,-0.04327039,0.01880614,-0.00303934,-0.04226994,0.06684826,-0.0014181149,1.0,-1.0,-1.0,1.0,1.0,-1.0,-1.0,-1.0,-1.0,1.0,-1.0,-1.0,1.0,-1.0,-1.0,1.0,1.0,-1.0,-1.0,-1.0,-1.0,1.0,-1.0,-1.0
2025-06-04 12:28:25.132,0.01797991,0.033130623,-0.0119148195,-0.010745696,0.061734468,-0.035502933,0.0,0.0,0.0,0.034760807,-0.0013333095,-0.52575785,-0.16251007,0.20202248,0.4223133,-0.14481895,-0.09412694,-0.5764209,-0.24621853,0.12457778,-0.47911686,-0.24271384,0.03492513,-0.074351974,-0.013853622,0.030038264,0.028875167,0.010337973,0.015654366,0.060933687,0.023567775,0.02797111,0.050829645,0.021744581,1.0,-1.0,-1.0,1.0,1.0,-1.0,-1.0,-1.0,-1.0,1.0,-1.0,-1.0,1.0,-1.0,-1.0,1.0,1.0,-1.0,-1.0,-1.0,-1.0,1.0,-1.0,-1.0
2025-06-04 12:28:25.153,-0.032077495,0.0072645326,-0.047507457,-0.01478681,0.03908864,0.022655742,0.0,0.0,0.0,0.034761075,-0.0129532935,-0.53170735,-0.15664178,0.19303602,0.43186158,-0.1497048,-0.09046868,-0.5781245,-0.2507224,0.124105975,-0.47762036,-0.2520022,-0.026669595,-0.032692146,-0.05528727,0.040082715,0.020857058,0.0054286458,0.004636625,0.050733928,-0.036605973,-0.07445272,0.029483814,0.030879997,1.0,-1.0,-1.0,1.0,1.0,-1.0,-1.0,-1.0,-1.0,1.0,-1.0,-1.0,1.0,-1.0,-1.0,1.0,1.0,-1.0,-1.0,-1.0,-1.0,1.0,-1.0,-1.0
2025-06-04 12:28:25.172,0.02560804,-0.03009711,0.023971064,-0.036439702,0.030329322,-0.01555223,0.0,0.0,0.0,0.03476128,-0.011325877,-0.52225393,-0.15530634,0.20438768,0.42727575,-0.15669726,-0.08380359,-0.56199366,-0.25543472,0.121449254,-0.48313093,-0.23621878,0.03135265,-0.059018362,-0.06816271,-0.033421893,0.070448816,-0.016064439,-0.0286061,-0.05554779,0.025427768,0.03272469,0.010622227,-0.06950462,1.0,-1.0,-1.0,1.0,1.0,-1.0,-1.0,-1.0,-1.0,1.0,-1.0,-1.0,1.0,-1.0,-1.0,1.0,1.0,-1.0,-1.0,-1.0,-1.0,1.0,-1.0,-1.0
2025-06-04 12:28:25.192,0.04810214,0.025251886,0.038286276,-0.037116617,0.0550103,-0.015778335,0.0,0.0,0.0,0.034761425,0.0047594975,-0.5290395,-0.15757583,0.19529286,0.4253008,-0.1560301,-0.08774821,-0.56959605,-0.24147947,0.1231599,-0.47593364,-0.25190204,-0.046529282,-0.010151918,-0.0685114,0.034476433,0.05960016,-0.034372002,-0.06991535,-0.073533475,-0.0428565,-0.04138528,0.069985196,0.0037896503,1.0,-1.0,-1.0,1.0,1.0,-1.0,-1.0,-1.0,-1.0,1.0,-1.0,-1.0,1.0,-1.0,-1.0,1.0,1.0,-1.0,-1.0,-1.0,-1.0,1.0,-1.0,-1.0
2025-06-04 12:28:25.213,-0.013338623,-0.037804987,0.030177379,0.03868985,0.023939988,0.024496133,0.0,0.0,0.0,0.03476151,-0.007739204,-0.5313307,-0.15547155,0.19427162,0.41374922,-0.14538547,-0.092084944,-0.56506735,-0.2493265,0.12668902,-0.47321263,-0.25241518,0.012570593,0.009129675,-0.066298686,0.009609552,0.011198738,0.06303048,0.0370825,0.0318501,0.059640344,0.05199042,0.018135348,-0.011747175,1.0,-1.0,-1.0,1.0,1.0,-1.0,-1.0,-1.0,-1.0,1.0,-1.0,-1.0,1.0,-1.0,-1.0,1.0,1.0,-1.0,-1.0,-1.0,-1.0,1.0,-1.0,-1.0
2025-06-04 12:28:25.234,-0.022173284,0.037211355,0.03927504,-0.010494703,0.03699733,-0.039675705,0.0,0.0,0.0,0.034761555,-0.011858888,-0.52892923,-0.15787359,0.20194572,0.42969105,-0.15273497,-0.08068073,-0.5721779,-0.24620971,0.12618436,-0.48230955,-0.2509421,0.013024411,0.04405645,-0.048700597,-0.042747054,-0.027757702,0.03983025,-0.007285324,0.02198304,0.04913556,-0.06214202,0.06600649,0.0039297636,1.0,-1.0,-1.0,1.0,1.0,-1.0,-1.0,-1.0,-1.0,1.0,-1.0,-1.0,1.0,-1.0,-1.0,1.0,1.0,-1.0,-1.0,-1.0,-1.0,1.0,-1.0,-1.0
2025-06-04 12:28:25.253,-0.04747025,-0.01850833,0.04917006,0.03592761,0.02638961,-0.011656149,0.0,0.0,0.0,0.03476156,-0.0024018828,-0.52928877,-0.15617655,0.20241608,0.41257918,-0.15147316,-0.09511479,-0.5760358,-0.2531217,0.12437731,-0.4790176,-0.24975371,-0.05462333,0.003443132,-0.023742551,0.06708623,-0.0134585565,-0.056673564,0.07327176,-0.051411167,0.07368968,0.006792951,0.035177067,0.008059341,1.0,-1.0,-1.0,1.0,1.0,-1.0,-1.0,-1.0,-1.0,1.0,-1.0,-1.0,1.0,-1.0,-1.0,1.0,1.0,-1.0,-1.0,-1.0,-1.0,1.0,-1.0,-1.0
2025-06-04 12:28:25.273,0.005278789,0.038806964,0.029893663,0.049017314,0.0956304,-0.0054866853,0.0,0.0,0.0,0.034761533,-0.011584805,-0.52837205,-0.14810081,0.19899341,0.4188599,-0.15913545,-0.0941934,-0.5789506,-0.24773581,0.12836784,-0.47667742,-0.23643039,-0.0016259017,-0.05195869,-0.030894438,0.07188074,0.006408058,-0.047228537,-0.061863188,0.06044904,-0.07068141,-0.07405837,0.0053886543,0.011771502,1.0,-1.0,-1.0,1.0,1.0,-1.0,-1.0,-1.0,-1.0,1.0,-1.0,-1.0,1.0,-1.0,-1.0,1.0,1.0,-1.0,-1.0,-1.0,-1.0,1.0,-1.0,-1.0
2025-06-04 12:28:25.293,-0.0076617985,-0.038105737,-0.04279281,-0.019435214,0.069484435,0.014974817,0.0,0.0,0.0,0.03476149,-0.008234837,-0.53649575,-0.15471604,0.20943554,0.4190018,-0.14835559,-0.090293616,-0.58064693,-0.24321835,0.113377176,-0.48610997,-0.2515296,-0.03238149,-0.014323095,-0.059862934,-0.024525203,-0.047701485,-0.040029097,0.01710045,0.03448864,0.060122628,-0.04233181,-0.0075469115,-0.06399451,1.0,-1.0,-1.0,1.0,1.0,-1.0,-1.0,-1.0,-1.0,1.0,-1.0,-1.0,1.0,-1.0,-1.0,1.0,1.0,-1.0,-1.0,-1.0,-1.0,1.0,-1.0,-1.0
2025-06-04 12:28:25.317,-0.02700818,-0.023835856,0.04049938,-0.01590627,0.052378308,0.044252682,0.0,0.0,0.0,0.034761433,-0.01119508,-0.53683573,-0.1548123,0.2017044,0.422107,-0.14351685,-0.084781006,-0.5685254,-0.25230122,0.121216744,-0.4830311,-0.23858172,-0.057612,0.014354556,-0.044283036,-0.07188287,-0.02402641,-0.038024276,-0.0015374669,0.02843684,0.052640323,-0.019999955,0.053672023,-0.008158007,1.0,-1.0,-1.0,1.0,1.0,-1.0,-1.0,-1.0,-1.0,1.0,-1.0,-1.0,1.0,-1.0,-1.0,1.0,1.0,-1.0,-1.0,-1.0,-1.0,1.0,-1.0,-1.0
2025-06-04 12:28:25.334,-0.0047450704,-0.044636253,-0.034573022,-0.01792585,0.04084734,-0.0029889222,0.0,0.0,0.0,0.034761366,0.0046849158,-0.5247504,-0.1535481,0.20991299,0.4319635,-0.14487204,-0.08291908,-0.5641879,-0.2522997,0.11969266,-0.48107412,-0.2430406,0.059400585,0.07145017,0.004873892,0.061887987,0.00014087351,-0.018429717,-0.014685183,-0.021886472,0.069296665,0.0130230775,-0.0710653,-0.03925158,1.0,-1.0,-1.0,1.0,1.0,-1.0,-1.0,-1.0,-1.0,1.0,-1.0,-1.0,1.0,-1.0,-1.0,1.0,1.0,-1.0,-1.0,-1.0,-1.0,1.0,-1.0,-1.0
2025-06-04 12:28:25.353,0.0487279,0.04447944,0.0424983,0.02805696,0.091209665,0.048606917,0.0,0.0,0.0,0.034761295,0.005631667,-0.5253369,-0.16487786,0.19969197,0.41488862,-0.14087121,-0.08348424,-0.5796128,-0.24197242,0.12796369,-0.48148978,-0.2549855,-0.03805931,0.01893708,-0.020969419,-0.053273313,0.07344264,-0.050511625,0.028014116,-0.012126377,-0.07083701,-0.03450446,0.037741147,-0.033075053,1.0,-1.0,-1.0,1.0,1.0,-1.0,-1.0,-1.0,-1.0,1.0,-1.0,-1.0,1.0,-1.0,-1.0,1.0,1.0,-1.0,-1.0,-1.0,-1.0,1.0,-1.0,-1.0
2025-06-04 12:28:25.374,-0.024320133,-0.005903931,0.042224724,-0.02719549,0.02043601,-0.037284523,0.0,0.0,0.0,0.034761224,-0.009319885,-0.52889425,-0.15092783,0.19373164,0.42358342,-0.15671395,-0.09588857,-0.5742581,-0.24257869,0.12122946,-0.47212517,-0.2504513,-0.06911599,-0.067153476,0.02621658,-0.008385354,-0.06979267,-0.028694011,-0.056992214,0.028038481,-0.05957261,-0.05062707,-0.020045318,-0.055989865,1.0,-1.0,-1.0,1.0,1.0,-1.0,-1.0,-1.0,-1.0,1.0,-1.0,-1.0,1.0,-1.0,-1.0,1.0,1.0,-1.0,-1.0,-1.0,-1.0,1.0,-1.0,-1.0
2025-06-04 12:28:25.394,-0.020162182,-0.004771344,0.039099656,-0.0141092995,0.086493425,-0.0017853193,0.0,0.0,0.0,0.034761157,-0.0057760463,-0.5373745,-0.16612042,0.21006541,0.4236501,-0.14948195,-0.08090513,-0.5701078,-0.23616168,0.13152093,-0.47429073,-0.2509578,-0.007420915,-0.045871165,0.06843469,-0.0397476,-0.02721829,-0.029528685,-0.04334449,-0.06834293,0.058640573,0.028238973,0.04705099,0.012164826,1.0,-1.0,-1.0,1.0,1.0,-1.0,-1.0,-1.0,-1.0,1.0,-1.0,-1.0,1.0,-1.0,-1.0,1.0,1.0,-1.0,-1.0,-1.0,-1.0,1.0,-1.0,-1.0
2025-06-04 12:28:25.417,-0.04095036,0.03314671,-0.011277554,-0.0048949164,0.058070485,0.02816755,0.0,0.0,0.0,0.034761097,-0.012174818,-0.525976,-0.14815038,0.2033022,0.41478422,-0.1495389,-0.07775262,-0.5734521,-0.24551535,0.11652778,-0.48640338,-0.25007066,0.054304823,-0.021917578,-0.020886252,0.07257961,-0.05118695,-0.019352661,-0.065223746,0.041653875,-0.002647239,-0.011577731,-0.003956947,-0.05648042,1.0,-1.0,-1.0,1.0,1.0,-1.0,-1.0,-1.0,-1.0,1.0,-1.0,-1.0,1.0,-1.0,-1.0,1.0,1.0,-1.0,-1.0,-1.0,-1.0,1.0,-1.0,-1.0
2025-06-04 12:28:25.434,0.003452398,0.010148689,-0.011163774,-0.035521995,0.088117376,0.035239667,0.0,0.0,0.0,0.034761038,-0.01008151,-0.5293765,-0.15158984,0.19976623,0.43066314,-0.15664588,-0.09539762,-0.57843274,-0.24231997,0.13035066,-0.4876969,-0.24583465,0.018632106,0.0671415,-0.06545685,0.057944424,-0.022579866,0.0032563393,0.040393945,0.06199149,-0.046112407,0.060320158,0.056306608,0.011702022,1.0,-1.0,-1.0,1.0,1.0,-1.0,-1.0,-1.0,-1.0,1.0,-1.0,-1.0,1.0,-1.0,-1.0,1.0,1.0,-1.0,-1.0,-1.0,-1.0,1.0,-1.0,-1.0
2025-06-04 12:28:25.455,-0.021611914,0.02484989,-0.0029853408,0.0048021,0.09818908,-0.024598654,0.0,0.0,0.0,0.03476099,-0.004266882,-0.52800184,-0.1510678,0.19982542,0.42659447,-0.14890437,-0.082236655,-0.5651599,-0.24844854,0.119297385,-0.48245284,-0.23626894,0.056601394,0.044114396,0.03578259,0.023743501,-0.06948186,0.014454995,-0.044741515,0.009618887,-0.029400611,0.031744234,0.01587768,0.05474015,1.0,-1.0,-1.0,1.0,1.0,-1.0,-1.0,-1.0,-1.0,1.0,-1.0,-1.0,1.0,-1.0,-1.0,1.0,1.0,-1.0,-1.0,-1.0,-1.0,1.0,-1.0,-1.0
2025-06-04 12:28:25.475,-0.009883326,-0.028753549,0.03143529,0.0071802973,0.031568598,-0.025913266,0.0,0.0,0.0,0.034760945,0.004766028,-0.5361264,-0.14830443,0.20606512,0.4293566,-0.15120602,-0.09023401,-0.56638473,-0.23852389,0.11457734,-0.48307893,-0.24797523,0.053062838,-0.066969775,0.040024742,0.04500002,-0.067698665,0.023363704,-0.01710092,-0.06676649,-0.053334493,-0.025866495,0.004927153,-0.041753907,1.0,-1.0,-1.0,1.0,1.0,-1.0,-1.0,-1.0,-1.0,1.0,-1.0,-1.0,1.0,-1.0,-1.0,1.0,1.0,-1.0,-1.0,-1.0,-1.0,1.0,-1.0,-1.0
2025-06-04 12:28:25.497,0.03695501,-0.017396126,-0.025397744,-0.0335453,0.070233025,-0.03958536,0.0,0.0,0.0,0.034760907,-0.001299442,-0.51842356,-0.16494632,0.19288684,0.41778466,-0.14982209,-0.08061666,-0.5770799,-0.24551298,0.11678611,-0.4880317,-0.2484229,-0.0408247,-0.059017677,-0.035714813,-0.06099151,0.011342436,0.0027490472,0.002936023,-0.024781616,-0.016076941,-0.0028301845,0.010300663,0.013067374,1.0,-1.0,-1.0,1.0,1.0,-1.0,-1.0,-1.0,-1.0,1.0,-1.0,-1.0,1.0,-1.0,-1.0,1.0,1.0,-1.0,-1.0,-1.0,-1.0,1.0,-1.0,-1.0
2025-06-04 12:28:25.517,-0.049384795,-0.023741469,0.009547793,-0.02239025,0.09969679,-0.012439085,0.0,0.0,0.0,0.034760874,-0.005660014,-0.53275836,-0.15059069,0.20758504,0.428427,-0.1523892,-0.07852425,-0.57116646,-0.23722143,0.122967236,-0.4740869,-0.24739812,-0.05762622,-0.026184114,-0.020851694,-0.026457487,-0.00084238517,0.045729484,0.058129083,0.0011009902,0.029021105,0.029831005,0.031550337,0.007067188,1.0,-1.0,-1.0,1.0,1.0,-1.0,-1.0,-1.0,-1.0,1.0,-1.0,-1.0,1.0,-1.0,-1.0,1.0,1.0,-1.0,-1.0,-1.0,-1.0,1.0,-1.0,-1.0
2025-06-04 12:28:25.534,-0.018637074,0.009182519,0.0005074674,0.010998436,0.01934206,-0.018139133,0.0,0.0,0.0,0.034760848,-0.0055512427,-0.521362,-0.15068725,0.20253074,0.41223586,-0.15822959,-0.09420976,-0.57905203,-0.24964713,0.12164773,-0.47433934,-0.23981382,0.06505298,0.069629006,0.048174445,-0.06615662,0.054444466,-0.045434225,0.036153827,-0.02349055,0.070315614,-0.05577567,0.031529613,-0.019121826,1.0,-1.0,-1.0,1.0,1.0,-1.0,-1.0,-1.0,-1.0,1.0,-1.0,-1.0,1.0,-1.0,-1.0,1.0,1.0,-1.0,-1.0,-1.0,-1.0,1.0,-1.0,-1.0
2025-06-04 12:28:25.555,-0.026852544,0.031368483,0.022065088,0.0033331944,0.03468735,0.0140321385,0.0,0.0,0.0,0.03476083,0.0056212638,-0.5186354,-0.15517358,0.20162295,0.41724175,-0.15693729,-0.09011616,-0.57242024,-0.23840432,0.11973834,-0.47256863,-0.24472848,-0.021720538,-0.04619108,0.06843496,-0.018581694,-0.014404277,-0.032721125,0.06203084,0.019920602,0.042217344,-0.061611403,-0.025232455,-0.052367628,1.0,-1.0,-1.0,1.0,1.0,-1.0,-1.0,-1.0,-1.0,1.0,-1.0,-1.0,1.0,-1.0,-1.0,1.0,1.0,-1.0,-1.0,-1.0,-1.0,1.0,-1.0,-1.0
2025-06-04 12:28:25.574,-0.02029455,-0.027619675,-0.011627489,-0.0204031,0.096559055,0.040913355,0.0,0.0,0.0,0.03476081,-0.0005537453,-0.5184531,-0.15768382,0.20825516,0.42232418,-0.14394568,-0.09032965,-0.5667988,-0.2402465,0.12868017,-0.47557986,-0.24317639,0.012029878,0.065254666,-0.05007875,0.0016666166,-0.022151053,0.055705518,0.04225428,-0.051003803,0.0013437459,-0.07476632,0.04484861,0.04672142,1.0,-1.0,-1.0,1.0,1.0,-1.0,-1.0,-1.0,-1.0,1.0,-1.0,-1.0,1.0,-1.0,-1.0,1.0,1.0,-1.0,-1.0,-1.0,-1.0,1.0,-1.0,-1.0
2025-06-04 12:28:25.594,0.0443084,-0.022464935,-0.036849935,0.030080784,0.05986122,0.0051947683,0.0,0.0,0.0,0.0347608,-0.009073816,-0.5355011,-0.15241104,0.20836987,0.421119,-0.15386488,-0.09013328,-0.5675065,-0.2532581,0.12706983,-0.47571045,-0.24970283,0.009208999,-0.0006022139,0.02582368,0.033636414,-0.053287107,0.0021513333,0.043523014,0.0119394185,0.013861203,-0.025338179,0.007725211,0.02344475,1.0,-1.0,-1.0,1.0,1.0,-1.0,-1.0,-1.0,-1.0,1.0,-1.0,-1.0,1.0,-1.0,-1.0,1.0,1.0,-1.0,-1.0,-1.0,-1.0,1.0,-1.0,-1.0
2025-06-04 12:28:25.616,0.022624861,-0.03332637,-0.02507168,0.00538171,0.08304678,-0.027204573,0.0,0.0,0.0,0.034760788,-0.012274487,-0.52932614,-0.1466997,0.2034573,0.42142144,-0.14559165,-0.08780934,-0.57853895,-0.23924518,0.12922233,-0.48529354,-0.23657812,-0.064627804,0.018266257,-0.05837749,0.05459386,-0.03998212,-0.008400793,0.033242982,0.01340799,-0.047560666,-0.06643883,0.055696916,0.0646639,1.0,-1.0,-1.0,1.0,1.0,-1.0,-1.0,-1.0,-1.0,1.0,-1.0,-1.0,1.0,-1.0,-1.0,1.0,1.0,-1.0,-1.0,-1.0,-1.0,1.0,-1.0,-1.0
2025-06-04 12:28:25.635,0.025914565,-0.0429414,-0.0422197,-0.031118054,0.09284817,-0.047737885,0.0,0.0,0.0,0.034760784,0.0056932042,-0.533146,-0.15110523,0.19423154,0.42284963,-0.14261901,-0.07827169,-0.5747275,-0.24211042,0.1199645,-0.48534033,-0.23664889,-0.007446913,0.0015053911,-0.055382628,-0.013670971,-0.028249582,0.07005933,0.012159163,-0.035104427,0.024900934,-0.009352882,-0.06653775,-0.04110666,1.0,-1.0,-1.0,1.0,1.0,-1.0,-1.0,-1.0,-1.0,1.0,-1.0,-1.0,1.0,-1.0,-1.0,1.0,1.0,-1.0,-1.0,-1.0,-1.0,1.0,-1.0,-1.0
2025-06-04 12:28:25.655,-0.045186814,0.041164864,-0.026689267,-0.03693429,0.10257298,-0.024067786,0.0,0.0,0.0,0.034760777,-0.008650075,-0.5193821,-0.15500318,0.20320496,0.42907414,-0.15799123,-0.07772897,-0.5689492,-0.25415617,0.120223485,-0.48264942,-0.24765316,-0.053138822,-0.03760793,0.044399418,-0.07015676,-0.017220419,0.014164154,0.061303984,0.06387239,-0.0544448,-0.052226756,-0.027777012,-0.00834431,1.0,-1.0,-1.0,1.0,1.0,-1.0,-1.0,-1.0,-1.0,1.0,-1.0,-1.0,1.0,-1.0,-1.0,1.0,1.0,-1.0,-1.0,-1.0,-1.0,1.0,-1.0,-1.0
2025-06-04 12:28:25.675,-0.026443949,0.0038956734,0.017562587,-0.02399158,0.047906693,0.021987509,0.0,0.0,0.0,0.034760773,-0.0028950486,-0.5228892,-0.15432017,0.19176745,0.4190916,-0.14963561,-0.09417745,-0.5723766,-0.23909162,0.12158787,-0.48469028,-0.24865133,-0.0042816466,-0.026119912,0.035011128,-0.008994393,-0.003757359,-0.0039369087,0.024271302,0.006472488,0.052749764,-0.061361592,-0.02916663,-0.02006664,1.0,-1.0,-1.0,1.0,1.0,-1.0,-1.0,-1.0,-1.0,1.0,-1.0,-1.0,1.0,-1.0,-1.0,1.0,1.0,-1.0,-1.0,-1.0,-1.0,1.0,-1.0,-1.0
2025-06-04 12:28:25.699,-0.029911244,0.039012402,0.0293195,0.023015765,0.01094566,-0.0034769948,0.0,0.0,0.0,0.034760773,0.004646367,-0.5335758,-0.16479027,0.20095307,0.4293399,-0.15949658,-0.08620679,-0.5690205,-0.2488431,0.122308835,-0.48840863,-0.2400509,0.006482876,0.052296627,-0.049229164,-0.0404417,0.00047152405,-0.052133188,0.007163271,-0.044296682,-0.07499806,0.0037361803,-0.06803874,-0.06396725,1.0,-1.0,-1.0,1.0,1.0,-1.0,-1.0,-1.0,-1.0,1.0,-1.0,-1.0,1.0,-1.0,-1.0,1.0,1.0,-1.0,-1.0,-1.0,-1.0,1.0,-1.0,-1.0
2025-06-04 12:28:25.717,0.03144892,-0.025143553,-0.007261826,0.03014165,0.0196546,0.0065225456,0.0,0.0,0.0,0.034760773,-0.010466406,-0.5216926,-0.15896307,0.20159265,0.41774422,-0.14200969,-0.09571736,-0.56331944,-0.23864432,0.12880975,-0.47982222,-0.23846483,-0.015370142,0.06780871,0.069714606,0.041813646,-0.052937753,0.02866336,-0.06944184,-0.07341414,0.050914656,0.053911947,0.01074447,-0.0667748,1.0,-1.0,-1.0,1.0,1.0,-1.0,-1.0,-1.0,-1.0,1.0,-1.0,-1.0,1.0,-1.0,-1.0,1.0,1.0,-1.0,-1.0,-1.0,-1.0,1.0,-1.0,-1.0
2025-06-04 12:28:25.737,0.03597232,-0.0419381,-0.03872004,0.026294556,0.062936045,-0.030811213,0.0,0.0,0.0,0.034760773,-0.0043336414,-0.5335896,-0.16091248,0.19154027,0.42414525,-0.14571573,-0.08760005,-0.5659929,-0.2406666,0.11894811,-0.47591528,-0.24259888,0.001953707,0.024602385,0.031477075,-0.0057510156,0.0026502002,-0.06099855,-0.0638693,0.06852897,-0.03639278,0.068394065,-0.073949344,0.009119695,1.0,-1.0,-1.0,1.0,1.0,-1.0,-1.0,-1.0,-1.0,1.0,-1.0,-1.0,1.0,-1.0,-1.0,1.0,1.0,-1.0,-1.0,-1.0,-1.0,1.0,-1.0,-1.0
2025-06-04 12:28:25.755,-0.009901788,0.00881177,0.016018448,-0.034357924,0.073773146,0.02883574,0.0,0.0,0.0,0.034760773,-0.009380328,-0.52592355,-0.16117732,0.20241253,0.42703435,-0.14817706,-0.09014708,-0.5653951,-0.23740622,0.12060922,-0.4827162,-0.24343097,-0.03759482,0.009153771,0.054719426,-0.045278367,0.0077340123,-0.029736074,0.019253472,-0.043203905,0.031862076,-0.026643833,-0.009304842,0.07068905,1.0,-1.0,-1.0,1.0,1.0,-1.0,-1.0,-1.0,-1.0,1.0,-1.0,-1.0,1.0,-1.0,-1.0,1.0,1.0,-1.0,-1.0,-1.0,-1.0,1.0,-1.0,-1.0
2025-06-04 12:28:25.775,0.027476754,0.03622696,0.04244981,0.014646293,0.05305323,-0.048757005,0.0,0.0,0.0,0.034760773,-0.0029166397,-0.5365514,-0.15867352,0.20997134,0.42581204,-0.1407148,-0.08641745,-0.5734993,-0.24092641,0.12653199,-0.4714426,-0.24712032,0.0059292577,-0.074869536,-0.041425157,0.010090784,-0.02722831,-0.073245384,0.049339414,-0.009517846,-0.055349555,-0.042236548,0.019694667,-0.020410767,1.0,-1.0,-1.0,1.0,1.0,-1.0,-1.0,-1.0,-1.0,1.0,-1.0,-1.0,1.0,-1.0,-1.0,1.0,1.0,-1.0,-1.0,-1.0,-1.0,1.0,-1.0,-1.0
2025-06-04 12:28:25.802,-0.019800643,0.014305564,0.00925306,0.052537993,0.031322148,0.012526975,0.0,0.0,0.0,0.034760773,0.0016681408,-0.53705853,-0.15102313,0.200848,0.43168333,-0.14102177,-0.0912365,-0.5761006,-0.23792095,0.11743304,-0.4724708,-0.25175223,-0.06918878,0.03794464,-0.02923578,0.05745553,0.040708795,0.051537327,0.04764796,-0.07481418,0.004172568,-0.0048081023,0.036547013,-0.056249905,1.0,-1.0,-1.0,1.0,1.0,-1.0,-1.0,-1.0,-1.0,1.0,-1.0,-1.0,1.0,-1.0,-1.0,1.0,1.0,-1.0,-1.0,-1.0,-1.0,1.0,-1.0,-1.0
2025-06-04 12:28:25.819,-0.043149535,-0.03702934,0.041667532,-0.040352285,0.0975225,-0.044938285,0.0,0.0,0.0,0.034760777,-0.001789951,-0.5181317,-0.14817627,0.20728457,0.42712614,-0.15417251,-0.07974844,-0.5724491,-0.25264755,0.11927627,-0.47773784,-0.2549831,-0.068119824,-0.0055812756,-0.03548272,0.070959866,-0.044365905,-0.055393517,-0.07139769,0.0017050836,0.04179495,-0.06786475,0.024910524,0.06275229,1.0,-1.0,-1.0,1.0,1.0,-1.0,-1.0,-1.0,-1.0,1.0,-1.0,-1.0,1.0,-1.0,-1.0,1.0,1.0,-1.0,-1.0,-1.0,-1.0,1.0,-1.0,-1.0
2025-06-04 12:28:25.835,0.004541865,-0.00042686978,-0.0018024853,0.037847158,0.071428776,-0.0053939973,0.0,0.0,0.0,0.034760777,-0.0014823565,-0.5333866,-0.1533194,0.1952611,0.4277175,-0.14701778,-0.08590414,-0.57618636,-0.24666022,0.13025777,-0.47164333,-0.24199754,-0.04417676,-0.057016604,-0.038829494,0.043158706,-0.018569214,-0.06069,-0.0023828328,-0.03978598,0.022803253,0.06864299,-0.025200881,-0.05204206,1.0,-1.0,-1.0,1.0,1.0,-1.0,-1.0,-1.0,-1.0,1.0,-1.0,-1.0,1.0,-1.0,-1.0,1.0,1.0,-1.0,-1.0,-1.0,-1.0,1.0,-1.0,-1.0
2025-06-04 12:28:25.855,-0.042847507,0.019535974,0.018443026,-0.042287145,0.06604897,0.02234325,0.0,0.0,0.0,0.034760777,-0.0006183571,-0.52515656,-0.14923233,0.20927295,0.43171933,-0.15145318,-0.09141122,-0.5673075,-0.23873442,0.13109642,-0.4785903,-0.23816726,-0.029523253,0.009638992,0.03942341,-0.023559019,-0.05301138,0.03726479,0.02009026,-0.051985055,0.069078155,-0.0026513513,0.06398698,0.07194968,1.0,-1.0,-1.0,1.0,1.0,-1.0,-1.0,-1.0,-1.0,1.0,-1.0,-1.0,1.0,-1.0,-1.0,1.0,1.0,-1.0,-1.0,-1.0,-1.0,1.0,-1.0,-1.0
2025-06-04 12:28:25.875,0.020676894,0.039812174,-0.00091546564,-0.011933638,0.048222948,0.030257015,0.0,0.0,0.0,0.034760777,0.005821466,-0.52204615,-0.14861146,0.19708821,0.42944446,-0.15873979,-0.09559569,-0.5662134,-0.25096375,0.1271999,-0.4855591,-0.23642443,-0.06898156,0.0037559653,-0.024131287,-0.036260214,-0.07052518,-0.016105697,0.016647065,-0.0014401388,0.007519811,-0.00037923563,-0.03813472,0.07321852,1.0,-1.0,-1.0,1.0,1.0,-1.0,-1.0,-1.0,-1.0,1.0,-1.0,-1.0,1.0,-1.0,-1.0,1.0,1.0,-1.0,-1.0,-1.0,-1.0,1.0,-1.0,-1.0
2025-06-04 12:28:25.900,-0.04387194,-0.022783628,0.0132353725,0.01627733,0.075792424,0.034368943,0.0,0.0,0.0,0.03476078,-0.0041282782,-0.52441126,-0.16614398,0.20554273,0.42967296,-0.14025752,-0.081245154,-0.56319666,-0.25411433,0.11295294,-0.47699606,-0.24581897,0.06801356,-0.015201467,-0.009116322,0.055061433,-0.037017856,0.023067214,0.033207487,-0.07472037,-0.0056226887,-0.046515133,0.017301746,-0.007537955,1.0,-1.0,-1.0,1.0,1.0,-1.0,-1.0,-1.0,-1.0,1.0,-1.0,-1.0,1.0,-1.0,-1.0,1.0,1.0,-1.0,-1.0,-1.0,-1.0,1.0,-1.0,-1.0
2025-06-04 12:28:25.916,0.013183664,-0.0024713243,-0.016099581,-0.028528227,0.065185264,0.0067102117,0.0,0.0,0.0,0.03476078,-0.002934761,-0.51903516,-0.15154186,0.20911075,0.43180114,-0.14289953,-0.09433023,-0.56293446,-0.25407168,0.12224578,-0.489592,-0.25531107,-0.07393161,-0.007553825,0.031211639,-0.0015983083,0.005500169,0.07184688,-0.061181784,0.04736306,-0.07137549,-0.0050793146,0.007677308,0.051730216,1.0,-1.0,-1.0,1.0,1.0,-1.0,-1.0,-1.0,-1.0,1.0,-1.0,-1.0,1.0,-1.0,-1.0,1.0,1.0,-1.0,-1.0,-1.0,-1.0,1.0,-1.0,-1.0
2025-06-04 12:28:25.936,-0.029022297,0.009805205,0.034855068,0.04596725,0.032536525,0.033884507,0.0,0.0,0.0,0.03476078,-0.013804203,-0.5259497,-0.15545548,0.20587206,0.43145713,-0.14393216,-0.090694144,-0.5610294,-0.24960974,0.12047447,-0.47607195,-0.24200673,-0.03394177,-0.05568145,0.059055433,-0.040953826,-0.025544917,-0.04686862,-0.0068903617,0.044679422,-0.06668062,-0.014310666,-0.022055827,0.010203044,1.0,-1.0,-1.0,1.0,1.0,-1.0,-1.0,-1.0,-1.0,1.0,-1.0,-1.0,1.0,-1.0,-1.0,1.0,1.0,-1.0,-1.0,-1.0,-1.0,1.0,-1.0,-1.0
2025-06-04 12:28:25.956,0.009004679,-0.028984733,0.011563107,-0.026184445,0.029517561,-0.021008305,0.0,0.0,0.0,0.03476078,0.001852467,-0.523505,-0.15465014,0.19908842,0.41620553,-0.1504646,-0.09022575,-0.5785885,-0.24004361,0.113536425,-0.47555628,-0.25312933,0.05002861,0.017697487,0.002205797,-0.0535777,0.042396042,-0.06420411,-0.057109486,-0.026074259,0.056821853,-0.015682178,-0.034004953,0.025042564,1.0,-1.0,-1.0,1.0,1.0,-1.0,-1.0,-1.0,-1.0,1.0,-1.0,-1.0,1.0,-1.0,-1.0,1.0,1.0,-1.0,-1.0,-1.0,-1.0,1.0,-1.0,-1.0
2025-06-04 12:28:25.976,0.020612728,-0.005100092,-0.00990874,-0.033510983,0.031487916,-0.013311312,0.0,0.0,0.0,0.03476078,0.004752401,-0.5360031,-0.14916612,0.1943475,0.42199484,-0.14681023,-0.08017576,-0.57586265,-0.240596,0.12234243,-0.47724578,-0.24250329,-0.012683393,0.0654791,-0.03137609,0.057241913,-0.020590683,-0.0609759,0.07303762,0.065008566,0.056931015,-0.0016183523,-0.023398323,-0.023654308,1.0,-1.0,-1.0,1.0,1.0,-1.0,-1.0,-1.0,-1.0,1.0,-1.0,-1.0,1.0,-1.0,-1.0,1.0,1.0,-1.0,-1.0,-1.0,-1.0,1.0,-1.0,-1.0
2025-06-04 12:28:26.000,0.049511977,0.025758011,0.041996166,0.005652801,0.09080082,0.041269157,0.0,0.0,0.0,0.03476078,-0.011558334,-0.5334825,-0.1606884,0.2000972,0.42435044,-0.14595626,-0.084365115,-0.5803955,-0.24043995,0.12872387,-0.48624414,-0.2372786,0.027193954,0.042406607,0.02381041,0.0030567618,-0.05536282,-0.059893403,-0.04064749,0.04325607,0.012676302,-0.05056774,-0.039017834,0.07298724,1.0,-1.0,-1.0,1.0,1.0,-1.0,-1.0,-1.0,-1.0,1.0,-1.0,-1.0,1.0,-1.0,-1.0,1.0,1.0,-1.0,-1.0,-1.0,-1.0,1.0,-1.0,-1.0
2025-06-04 12:28:26.016,-0.036014773,0.013380311,-0.014414613,0.014444031,0.035940718,-0.020353284,0.0,0.0,0.0,0.03476078,0.0028479923,-0.5246753,-0.16477329,0.19971496,0.4319832,-0.15908904,-0.08497924,-0.5804107,-0.2383997,0.12041558,-0.47561517,-0.23702268,-0.071139894,-0.0063492497,-0.01692924,0.0073743993,0.05756141,0.04724023,0.033851314,0.032665864,-0.022931289,0.031919174,0.0036815996,-0.051936164,1.0,-1.0,-1.0,1.0,1.0,-1.0,-1.0,-1.0,-1.0,1.0,-1.0,-1.0,1.0,-1.0,-1.0,1.0,1.0,-1.0,-1.0,-1.0,-1.0,1.0,-1.0,-1.0
2025-06-04 12:28:26.037,0.034109883,0.00493513,-0.0106146,0.053387787,0.07078535,-0.040721018,0.0,0.0,0.0,0.03476078,-0.010061352,-0.51866627,-0.15667197,0.19241768,0.42347878,-0.14953618,-0.08823138,-0.5697841,-0.23710214,0.129546,-0.47454765,-0.24322923,0.068856455,0.072275124,0.058065824,0.05416678,0.043650113,0.055709112,-0.055525288,-0.041285634,-0.019584196,0.0122229,0.04512087,-0.030474637,1.0,-1.0,-1.0,1.0,1.0,-1.0,-1.0,-1.0,-1.0,1.0,-1.0,-1.0,1.0,-1.0,-1.0,1.0,1.0,-1.0,-1.0,-1.0,-1.0,1.0,-1.0,-1.0
2025-06-04 12:28:26.057,0.00639783,-0.043113146,0.02896011,-0.019968932,0.06335362,-0.035742234,0.0,0.0,0.0,0.03476078,-0.013827984,-0.53422135,-0.15324655,0.20029044,0.41211498,-0.14016737,-0.0815961,-0.56282747,-0.25117117,0.11992166,-0.48392475,-0.24290323,0.054267693,0.046452496,-0.010493469,-0.001137986,0.04517005,0.042570915,0.0714425,-0.06913337,0.07481538,-0.0020880187,0.066985145,-0.045853686,1.0,-1.0,-1.0,1.0,1.0,-1.0,-1.0,-1.0,-1.0,1.0,-1.0,-1.0,1.0,-1.0,-1.0,1.0,1.0,-1.0,-1.0,-1.0,-1.0,1.0,-1.0,-1.0
2025-06-04 12:28:26.077,-0.021595484,0.024991976,0.04866901,-0.027233165,0.08572974,0.0012748854,0.0,0.0,0.0,0.03476078,0.0032424282,-0.5188821,-0.1626546,0.20668904,0.4217735,-0.14708918,-0.094642155,-0.5699011,-0.24069293,0.12053061,-0.4825296,-0.23699845,-0.05747494,-0.030667456,0.04890444,0.002132215,-0.009044925,-0.026839415,0.039201926,0.044113576,-0.004347369,-0.046279326,0.05691351,-0.063278146,1.0,-1.0,-1.0,1.0,1.0,-1.0,-1.0,-1.0,-1.0,1.0,-1.0,-1.0,1.0,-1.0,-1.0,1.0,1.0,-1.0,-1.0,-1.0,-1.0,1.0,-1.0,-1.0
2025-06-04 12:28:26.100,-0.0010835278,-0.00083410967,0.0074010445,-0.028457146,0.050609592,-0.044919014,0.0,0.0,0.0,0.03476078,0.0039102635,-0.53623396,-0.16146846,0.19308451,0.42292207,-0.14294285,-0.09521425,-0.5616223,-0.25487715,0.11717309,-0.48050877,-0.25343716,0.0077557703,0.025401095,-0.07026506,0.016998459,-0.042329393,-0.03370494,0.073708974,0.069824055,0.01569794,0.04582869,-0.06674707,-0.06516481,1.0,-1.0,-1.0,1.0,1.0,-1.0,-1.0,-1.0,-1.0,1.0,-1.0,-1.0,1.0,-1.0,-1.0,1.0,1.0,-1.0,-1.0,-1.0,-1.0,1.0,-1.0,-1.0
2025-06-04 12:28:26.117,0.02795236,-0.00025019931,-0.040009484,0.015601631,0.07195322,-0.009110971,0.0,0.0,0.0,0.03476078,-0.0042699375,-0.52107257,-0.14696711,0.20647666,0.4176802,-0.15609877,-0.08454053,-0.5744316,-0.24314316,0.12938175,-0.4818582,-0.23778392,-0.06506167,-0.06968734,-0.018535161,-0.042264633,0.024667116,-0.023661014,-0.054965083,0.04683361,-0.050743327,-0.0730405,0.019926662,0.06495767,1.0,-1.0,-1.0,1.0,1.0,-1.0,-1.0,-1.0,-1.0,1.0,-1.0,-1.0,1.0,-1.0,-1.0,1.0,1.0,-1.0,-1.0,-1.0,-1.0,1.0,-1.0,-1.0
2025-06-04 12:28:26.136,0.034712553,-0.020196449,-0.010608445,0.026960004,0.034543365,0.017844807,0.0,0.0,0.0,0.03476078,-0.005468305,-0.5193605,-0.1543637,0.20165464,0.41738963,-0.14338325,-0.09424878,-0.5801276,-0.24922986,0.1170384,-0.47218877,-0.23703922,0.06653668,0.0071417997,-0.018917033,-0.036706977,-0.038335647,-0.07072826,0.04405334,-0.034899857,0.051339835,-0.022349969,0.021158857,-0.060619123,1.0,-1.0,-1.0,1.0,1.0,-1.0,-1.0,-1.0,-1.0,1.0,-1.0,-1.0,1.0,-1.0,-1.0,1.0,1.0,-1.0,-1.0,-1.0,-1.0,1.0,-1.0,-1.0
2025-06-04 12:28:26.156,-0.012235889,0.0027086232,-0.04015382,0.03925459,0.030143986,-0.0015154289,0.0,0.0,0.0,0.03476078,-0.0012898985,-0.52603513,-0.14834319,0.20391491,0.4227962,-0.15513928,-0.08104382,-0.5763192,-0.24508628,0.12508748,-0.48093867,-0.24194485,0.014709542,0.049819704,0.0345407,-0.060021292,-0.036734264,-0.017333545,0.007850112,0.067333184,-0.065750375,0.038353566,0.05636757,-0.0701751,1.0,-1.0,-1.0,1.0,1.0,-1.0,-1.0,-1.0,-1.0,1.0,-1.0,-1.0,1.0,-1.0,-1.0,1.0,1.0,-1.0,-1.0,-1.0,-1.0,1.0,-1.0,-1.0
2025-06-04 12:28:26.176,-0.013497143,-0.041832834,-0.014142986,0.05170904,0.007718828,0.044431057,0.0,0.0,0.0,0.03476078,-0.0026897355,-0.5269826,-0.15359348,0.20828366,0.42274985,-0.14297979,-0.094533056,-0.57719773,-0.24536628,0.12109723,-0.48538423,-0.25192973,-0.03581094,0.07155357,0.019792415,0.034789924,0.039996114,-0.037918974,-0.050784454,-0.012702576,0.021338208,0.0020498668,-0.02176531,-0.053854074,1.0,-1.0,-1.0,1.0,1.0,-1.0,-1.0,-1.0,-1.0,1.0,-1.0,-1.0,1.0,-1.0,-1.0,1.0,1.0,-1.0,-1.0,-1.0,-1.0,1.0,-1.0,-1.0
2025-06-04 12:28:26.200,-0.04211617,0.020668926,-0.028672658,0.04906989,0.10091323,0.044524822,0.0,0.0,0.0,0.03476078,-0.0046608336,-0.53269076,-0.15644182,0.20645767,0.41231078,-0.15828125,-0.09386493,-0.5638384,-0.25567558,0.11387771,-0.481008,-0.23824465,-0.04367363,0.071927376,-0.037318096,0.045467187,-0.07028193,0.014520545,-0.012528976,-0.009347322,-0.052079253,-0.0060273926,0.035668656,-0.027029881,1.0,-1.0,-1.0,1.0,1.0,-1.0,-1.0,-1.0,-1.0,1.0,-1.0,-1.0,1.0,-1.0,-1.0,1.0,1.0,-1.0,-1.0,-1.0,-1.0,1.0,-1.0,-1.0
2025-06-04 12:28:26.217,0.043735694,-0.033549942,-0.0075207627,-0.04532799,0.103491925,0.04250779,0.0,0.0,0.0,0.03476078,-0.009372228,-0.5249119,-0.15547402,0.20182745,0.42292055,-0.14269578,-0.07876899,-0.57527184,-0.23965132,0.117558144,-0.47567618,-0.23937602,-0.033055726,0.020710196,0.05807322,-0.036641743,-0.06197035,0.06988582,0.048729107,-0.06175207,0.056916,-0.040412012,0.052241117,-0.053273804,1.0,-1.0,-1.0,1.0,1.0,-1.0,-1.0,-1.0,-1.0,1.0,-1.0,-1.0,1.0,-1.0,-1.0,1.0,1.0,-1.0,-1.0,-1.0,-1.0,1.0,-1.0,-1.0
2025-06-04 12:28:26.237,-0.03098768,0.008315239,-0.0110066235,0.043849397,0.04962282,0.0026355113,0.0,0.0,0.0,0.03476078,0.0016496093,-0.5249896,-0.15586,0.19604401,0.42114016,-0.1489358,-0.086545676,-0.5717607,-0.24575934,0.12802573,-0.46975997,-0.2435661,0.0068846606,0.053171206,0.006490185,-0.052874014,0.051374212,-0.011886122,-0.017144397,-0.07199524,-0.03696242,-0.008105389,-0.029964611,0.07251479,1.0,-1.0,-1.0,1.0,1.0,-1.0,-1.0,-1.0,-1.0,1.0,-1.0,-1.0,1.0,-1.0,-1.0,1.0,1.0,-1.0,-1.0,-1.0,-1.0,1.0,-1.0,-1.0
2025-06-04 12:28:26.257,-0.027200606,0.032340184,0.0045685996,0.00587598,0.023776028,-0.011316921,0.0,0.0,0.0,0.03476078,-0.003215238,-0.52916825,-0.14860123,0.20355691,0.42308295,-0.14383785,-0.077380024,-0.5712368,-0.2535723,0.13113084,-0.48590618,-0.23877472,0.048689507,-0.0449749,0.06862613,0.042043142,-0.06878521,0.0507618,-0.019452669,-0.06982308,0.0682928,-0.022626916,0.007119397,-0.05003704,1.0,-1.0,-1.0,1.0,1.0,-1.0,-1.0,-1.0,-1.0,1.0,-1.0,-1.0,1.0,-1.0,-1.0,1.0,1.0,-1.0,-1.0,-1.0,-1.0,1.0,-1.0,-1.0
2025-06-04 12:28:26.277,-0.017584682,-0.049664173,-0.02001399,0.0067195976,0.08525642,-0.017931266,0.0,0.0,0.0,0.03476078,-0.011730648,-0.5204419,-0.15372115,0.20389304,0.41508132,-0.15274754,-0.09453416,-0.57945114,-0.24395052,0.12452231,-0.4794559,-0.24339381,-0.011240835,-0.027128655,0.02395123,0.035943903,0.011724086,-0.028221773,0.042333834,0.07357407,0.015448272,-0.025103536,0.002826712,-0.0029113204,1.0,-1.0,-1.0,1.0,1.0,-1.0,-1.0,-1.0,-1.0,1.0,-1.0,-1.0,1.0,-1.0,-1.0,1.0,1.0,-1.0,-1.0,-1.0,-1.0,1.0,-1.0,-1.0
2025-06-04 12:28:26.300,-0.023694212,0.04597714,0.007950742,-0.028815346,0.07231503,-0.029365264,0.0,0.0,0.0,0.03476078,-0.0021562455,-0.52236664,-0.16420953,0.19355746,0.42207468,-0.14358443,-0.080483556,-0.5636178,-0.24811822,0.12028613,-0.484891,-0.25504032,0.025632687,-0.0047907652,0.07290279,-0.06510667,0.005533415,0.051545247,-8.3640974e-05,0.030983342,-0.009151271,-0.04810193,0.073345736,-0.026226105,1.0,-1.0,-1.0,1.0,1.0,-1.0,-1.0,-1.0,-1.0,1.0,-1.0,-1.0,1.0,-1.0,-1.0,1.0,1.0,-1.0,-1.0,-1.0,-1.0,1.0,-1.0,-1.0
2025-06-04 12:28:26.317,-0.03798366,-0.0021863524,0.0026228474,-0.006710866,0.026141988,0.026900576,0.0,0.0,0.0,0.03476078,0.0034315952,-0.5234146,-0.15661855,0.20113136,0.42022997,-0.14390987,-0.08001509,-0.57852197,-0.24209043,0.11380382,-0.47367358,-0.24897996,-0.024859661,0.0009060915,0.039361235,-0.022977443,0.019137006,0.031207686,-0.03671978,-0.068754874,0.06998959,0.0453533,-0.020080384,0.007041082,1.0,-1.0,-1.0,1.0,1.0,-1.0,-1.0,-1.0,-1.0,1.0,-1.0,-1.0,1.0,-1.0,-1.0,1.0,1.0,-1.0,-1.0,-1.0,-1.0,1.0,-1.0,-1.0
2025-06-04 12:28:26.337,0.040508755,-0.026967973,-0.032243196,0.017582156,0.09495552,-0.037326798,0.0,0.0,0.0,0.03476078,-0.0016567146,-0.5366122,-0.14767872,0.19988033,0.41366696,-0.14609338,-0.081261836,-0.575816,-0.255355,0.12567386,-0.48108783,-0.24517214,0.043102227,-0.053794414,-0.019593684,-0.013610885,-0.0196131,-0.051740706,-0.013999179,0.00022902187,-0.07020316,-0.052054375,0.012657554,0.059831027,1.0,-1.0,-1.0,1.0,1.0,-1.0,-1.0,-1.0,-1.0,1.0,-1.0,-1.0,1.0,-1.0,-1.0,1.0,1.0,-1.0,-1.0,-1.0,-1.0,1.0,-1.0,-1.0
2025-06-04 12:28:26.357,0.022871811,-0.01080269,0.019105995,-0.020357143,0.0916219,0.03418137,0.0,0.0,0.0,0.03476078,-0.013651969,-0.5297226,-0.15888649,0.19334447,0.4168757,-0.15879633,-0.08654474,-0.57249683,-0.24316801,0.11628481,-0.48500088,-0.25227454,0.06291664,0.063565955,-0.058735695,-0.07197643,-0.011583997,-0.003366005,0.013313763,0.06552628,-0.055486,0.04349924,-0.068147376,0.042155333,1.0,-1.0,-1.0,1.0,1.0,-1.0,-1.0,-1.0,-1.0,1.0,-1.0,-1.0,1.0,-1.0,-1.0,1.0,1.0,-1.0,-1.0,-1.0,-1.0,1.0,-1.0,-1.0
2025-06-04 12:28:26.377,0.033982873,-0.03478989,-0.03258024,0.028875612,0.07085078,0.025194528,0.0,0.0,0.0,0.03476078,0.005831263,-0.53366953,-0.1608017,0.21053725,0.43126988,-0.15727104,-0.083135046,-0.5796039,-0.24827763,0.11443068,-0.48286822,-0.2466915,-0.0038414916,0.056699898,-0.030220844,-0.03745528,-0.02023978,-0.06617957,0.012362764,0.03061201,0.038695548,0.07019084,-0.07256834,0.06350856,1.0,-1.0,-1.0,1.0,1.0,-1.0,-1.0,-1.0,-1.0,1.0,-1.0,-1.0,1.0,-1.0,-1.0,1.0,1.0,-1.0,-1.0,-1.0,-1.0,1.0,-1.0,-1.0
2025-06-04 12:28:26.400,-0.030036755,0.014188496,0.022734145,-0.00219974,0.041966766,-0.011381615,0.0,0.0,0.0,0.03476078,0.0008661448,-0.5260746,-0.1475648,0.19736625,0.43101993,-0.14954537,-0.086540624,-0.57583755,-0.24416052,0.11302072,-0.47684744,-0.24653211,0.009212722,0.06093441,-0.025913252,-0.00021693207,-0.03048333,-0.048977174,0.040851213,0.055926267,-0.017056603,-0.06400893,-0.034033034,-0.033037905,1.0,-1.0,-1.0,1.0,1.0,-1.0,-1.0,-1.0,-1.0,1.0,-1.0,-1.0,1.0,-1.0,-1.0,1.0,1.0,-1.0,-1.0,-1.0,-1.0,1.0,-1.0,-1.0
2025-06-04 12:28:26.418,-0.009001058,-0.035044953,-0.018805442,-0.038577158,0.08258211,-0.014624297,0.0,0.0,0.0,0.03476078,0.005599076,-0.5332227,-0.16116205,0.20470989,0.4247335,-0.15881644,-0.07714474,-0.5751714,-0.24247003,0.118922494,-0.48109612,-0.25466186,0.056977253,0.059780646,0.04379709,-0.028598113,0.05497653,0.0745103,0.021049762,0.0018330157,-0.07437585,0.018689003,-0.05311689,-0.061462134,1.0,-1.0,-1.0,1.0,1.0,-1.0,-1.0,-1.0,-1.0,1.0,-1.0,-1.0,1.0,-1.0,-1.0,1.0,1.0,-1.0,-1.0,-1.0,-1.0,1.0,-1.0,-1.0
2025-06-04 12:28:26.437,-0.0390379,0.005450891,-0.01764403,0.027236158,0.024433175,-0.012621073,0.0,0.0,0.0,0.03476078,-0.009662823,-0.52140623,-0.161525,0.20597002,0.41418555,-0.15852173,-0.08515294,-0.5788026,-0.24943244,0.11528457,-0.47713703,-0.25049245,0.049139038,-0.04617772,0.014569044,-0.019703612,0.0670581,-0.018768908,0.024387565,0.070733026,-0.011875861,-0.062283747,0.044680547,-0.002665622,1.0,-1.0,-1.0,1.0,1.0,-1.0,-1.0,-1.0,-1.0,1.0,-1.0,-1.0,1.0,-1.0,-1.0,1.0,1.0,-1.0,-1.0,-1.0,-1.0,1.0,-1.0,-1.0
2025-06-04 12:28:26.457,-0.019577237,0.047785886,0.046305526,0.036494013,0.08796866,0.013546215,0.0,0.0,0.0,0.03476078,0.004160814,-0.536094,-0.14978221,0.19816466,0.42603192,-0.14281379,-0.08541687,-0.5661345,-0.24404846,0.13002631,-0.47769576,-0.24866389,-0.06758845,-0.073685564,0.027890379,-0.012752072,0.043040257,-0.038446087,0.059782058,-0.03907214,-0.03945143,0.074741036,-0.0018869385,-0.06297163,1.0,-1.0,-1.0,1.0,1.0,-1.0,-1.0,-1.0,-1.0,1.0,-1.0,-1.0,1.0,-1.0,-1.0,1.0,1.0,-1.0,-1.0,-1.0,-1.0,1.0,-1.0,-1.0
2025-06-04 12:28:26.477,-0.012594787,-0.04210383,0.039368857,0.043027036,0.08198905,-0.008561409,0.0,0.0,0.0,0.03476078,-0.012514769,-0.52994233,-0.15377976,0.20545594,0.42423886,-0.15957077,-0.088630535,-0.5755508,-0.24890956,0.11926142,-0.47696322,-0.24379952,0.029174794,-0.0064822566,0.057523124,0.026690496,0.03119972,-0.07369326,-0.043641876,0.06253974,0.025034698,0.024677588,-0.021459794,-0.048901435,1.0,-1.0,-1.0,1.0,1.0,-1.0,-1.0,-1.0,-1.0,1.0,-1.0,-1.0,1.0,-1.0,-1.0,1.0,1.0,-1.0,-1.0,-1.0,-1.0,1.0,-1.0,-1.0
2025-06-04 12:28:26.500,-0.010237733,-0.015224182,-0.0031932807,-0.031782594,0.08813116,0.04121018,0.0,0.0,0.0,0.03476078,-0.008516041,-0.534281,-0.16105045,0.20675738,0.41690105,-0.15790401,-0.093986094,-0.5791562,-0.24439141,0.121654354,-0.4715867,-0.2537455,-0.012927964,-0.059383035,0.018363737,-0.025835125,0.03276588,-0.048705522,0.061021686,0.0120488,-0.022800874,0.028176809,0.012354495,0.017228695,1.0,-1.0,-1.0,1.0,1.0,-1.0,-1.0,-1.0,-1.0,1.0,-1.0,-1.0,1.0,-1.0,-1.0,1.0,1.0,-1.0,-1.0,-1.0,-1.0,1.0,-1.0,-1.0
2025-06-04 12:28:26.518,0.027690496,-0.0023381056,0.03717465,0.020750042,0.09697655,0.036282673,0.0,0.0,0.0,0.03476078,0.00069513696,-0.536735,-0.150172,0.19685955,0.41788045,-0.15716055,-0.091057695,-0.5734651,-0.24036382,0.1120901,-0.4767755,-0.2521359,-0.055083204,0.016482187,0.028228799,-0.05935236,0.04443871,-0.021675741,-0.037963893,-0.0054145297,0.020317663,-0.030339705,-0.022699159,-0.029654654,1.0,-1.0,-1.0,1.0,1.0,-1.0,-1.0,-1.0,-1.0,1.0,-1.0,-1.0,1.0,-1.0,-1.0,1.0,1.0,-1.0,-1.0,-1.0,-1.0,1.0,-1.0,-1.0
2025-06-04 12:28:26.539,-0.0009620598,-0.012847425,-0.024374332,0.010533895,0.076267645,-0.03694711,0.0,0.0,0.0,0.03476078,-0.0036335886,-0.5309024,-0.15840429,0.20973206,0.4297557,-0.14923912,-0.09580478,-0.57997483,-0.24399531,0.13132212,-0.47672603,-0.25502372,0.070453264,-0.012329182,0.02987349,-0.01629461,-0.062925704,0.057068717,0.05254047,-0.007756858,-0.048340738,-0.0017713906,-0.06959708,-0.0020101012,1.0,-1.0,-1.0,1.0,1.0,-1.0,-1.0,-1.0,-1.0,1.0,-1.0,-1.0,1.0,-1.0,-1.0,1.0,1.0,-1.0,-1.0,-1.0,-1.0,1.0,-1.0,-1.0
2025-06-04 12:28:26.558,0.047101438,-0.0030469673,0.0032920048,-0.015860418,0.06236353,0.044990104,0.0,0.0,0.0,0.03476078,-0.011551197,-0.5345996,-0.16277063,0.19243002,0.41394073,-0.15862562,-0.08656101,-0.5726003,-0.2408281,0.120498836,-0.4719845,-0.23925072,0.0085452935,0.036371198,-0.07218274,-0.053720813,-0.0127373375,-0.034763545,0.03291781,0.012990096,0.029777471,0.009515954,0.00744629,0.064133614,1.0,-1.0,-1.0,1.0,1.0,-1.0,-1.0,-1.0,-1.0,1.0,-1.0,-1.0,1.0,-1.0,-1.0,1.0,1.0,-1.0,-1.0,-1.0,-1.0,1.0,-1.0,-1.0
2025-06-04 12:28:26.577,-0.025524957,-0.028609203,0.02612919,0.045919742,0.0902332,-0.04230452,0.0,0.0,0.0,0.03476078,0.0014054878,-0.5210293,-0.16160092,0.1930631,0.42386302,-0.15396966,-0.07797006,-0.567789,-0.25076488,0.13011964,-0.47831735,-0.23930623,-0.059717067,-0.07041729,-0.02759778,-0.043461695,0.0021447581,0.031106418,0.007347521,-0.071860164,0.018422112,0.0068651508,0.008323414,0.0033012761,1.0,-1.0,-1.0,1.0,1.0,-1.0,-1.0,-1.0,-1.0,1.0,-1.0,-1.0,1.0,-1.0,-1.0,1.0,1.0,-1.0,-1.0,-1.0,-1.0,1.0,-1.0,-1.0
2025-06-04 12:28:26.600,0.0045316597,0.04900312,0.0071054404,0.032466583,0.036722746,-0.020930696,0.0,0.0,0.0,0.03476078,0.0014589808,-0.523668,-0.16005677,0.19300167,0.417621,-0.14482039,-0.09390696,-0.57495195,-0.2449289,0.12609403,-0.4761294,-0.24720867,-0.029241525,-0.0702442,-0.061818253,0.022456907,0.0043722508,0.0041248654,0.050020367,0.005155434,0.02941355,0.035314035,-0.035856936,0.06315669,1.0,-1.0,-1.0,1.0,1.0,-1.0,-1.0,-1.0,-1.0,1.0,-1.0,-1.0,1.0,-1.0,-1.0,1.0,1.0,-1.0,-1.0,-1.0,-1.0,1.0,-1.0,-1.0
2025-06-04 12:28:26.618,0.017562037,-0.010435884,-0.016186865,-0.012210881,0.060693916,0.021981778,0.0,0.0,0.0,0.03476078,0.0028263289,-0.5335286,-0.15910932,0.1948387,0.4178971,-0.14439452,-0.08820104,-0.56184226,-0.2542017,0.13111132,-0.47507107,-0.24197601,0.06966986,0.03663914,0.06962495,-0.048263483,0.008947393,0.023602666,0.066916354,-0.015104244,-0.038020533,-0.028581837,-0.04188281,0.026848314,1.0,-1.0,-1.0,1.0,1.0,-1.0,-1.0,-1.0,-1.0,1.0,-1.0,-1.0,1.0,-1.0,-1.0,1.0,1.0,-1.0,-1.0,-1.0,-1.0,1.0,-1.0,-1.0
2025-06-04 12:28:26.638,-0.029106585,0.04767964,-0.02015329,-0.008356529,0.07160661,-0.014626392,0.0,0.0,0.0,0.03476078,-0.00040710042,-0.5176158,-0.1489256,0.19713454,0.4218394,-0.15369344,-0.087823294,-0.5687926,-0.23633114,0.12869194,-0.48643667,-0.2529364,0.065809004,-0.01153103,-0.038585152,0.0504289,-0.015715666,-0.03740704,-0.017316246,-0.01125994,0.011832154,-0.016457096,0.0007200563,-0.056917265,1.0,-1.0,-1.0,1.0,1.0,-1.0,-1.0,-1.0,-1.0,1.0,-1.0,-1.0,1.0,-1.0,-1.0,1.0,1.0,-1.0,-1.0,-1.0,-1.0,1.0,-1.0,-1.0
2025-06-04 12:28:26.658,-0.019475041,-0.038164463,0.030931305,-0.04262324,0.050769087,-0.02510787,0.0,0.0,0.0,0.03476078,-0.005056308,-0.5374873,-0.15592428,0.20007311,0.4315926,-0.14032225,-0.094878405,-0.5788656,-0.2378144,0.12756616,-0.469703,-0.24622646,0.033820767,-0.03482399,0.07188577,-0.0013912378,-0.029950257,-0.027892044,0.034683157,0.001194283,-0.07142909,-0.065790206,0.03319919,-0.0054982794,1.0,-1.0,-1.0,1.0,1.0,-1.0,-1.0,-1.0,-1.0,1.0,-1.0,-1.0,1.0,-1.0,-1.0,1.0,1.0,-1.0,-1.0,-1.0,-1.0,1.0,-1.0,-1.0
2025-06-04 12:28:26.678,-0.034558468,0.0060962285,0.041110992,-0.014295848,0.09337606,-0.03464458,0.0,0.0,0.0,0.03476078,-0.009867357,-0.5364713,-0.15968491,0.208075,0.42217913,-0.1592628,-0.09100719,-0.5673329,-0.23795983,0.12520356,-0.48422882,-0.2522873,0.07409194,0.045353867,-0.067794435,0.02313382,-0.021614311,0.010234564,-0.02418969,-0.020156007,0.06099699,0.012900258,0.0041154767,0.033809107,1.0,-1.0,-1.0,1.0,1.0,-1.0,-1.0,-1.0,-1.0,1.0,-1.0,-1.0,1.0,-1.0,-1.0,1.0,1.0,-1.0,-1.0,-1.0,-1.0,1.0,-1.0,-1.0
2025-06-04 12:28:26.700,0.047719426,-0.02745781,0.0070015914,-0.027796607,0.10426316,-0.03938938,0.0,0.0,0.0,0.03476078,-0.009741087,-0.5193769,-0.15112664,0.20503806,0.4203664,-0.14812917,-0.09553315,-0.57232445,-0.24463105,0.122379966,-0.470129,-0.24704404,-0.05117351,0.035491016,-0.041498926,0.06393803,-0.018856984,-0.0659326,-0.011671635,-0.061984032,-0.012156391,-0.014985451,0.07482882,0.02803521,1.0,-1.0,-1.0,1.0,1.0,-1.0,-1.0,-1.0,-1.0,1.0,-1.0,-1.0,1.0,-1.0,-1.0,1.0,1.0,-1.0,-1.0,-1.0,-1.0,1.0,-1.0,-1.0
2025-06-04 12:28:26.718,0.0068867975,0.0090964,-0.03664735,0.012781117,0.01075584,-0.04146034,0.0,0.0,0.0,0.03476078,-0.00054790825,-0.52924585,-0.15304913,0.2043651,0.41548097,-0.14797471,-0.085689396,-0.5640856,-0.23602155,0.12099544,-0.48150432,-0.24335761,-0.0019567267,0.05437156,-0.03268371,-0.05073877,0.037577167,-0.005009455,-0.01817803,0.06607385,0.0012270004,0.05679465,-0.049111765,0.024164317,1.0,-1.0,-1.0,1.0,1.0,-1.0,-1.0,-1.0,-1.0,1.0,-1.0,-1.0,1.0,-1.0,-1.0,1.0,1.0,-1.0,-1.0,-1.0,-1.0,1.0,-1.0,-1.0
2025-06-04 12:28:26.738,0.045094818,0.024175363,0.0024507453,0.0059843655,0.10522778,-0.04021355,0.0,0.0,0.0,0.03476078,-0.00023116221,-0.5331291,-0.15043299,0.20076998,0.42975,-0.15779553,-0.07827512,-0.5758342,-0.25098416,0.1172848,-0.48527813,-0.25225005,0.0658187,0.01317601,0.004984907,0.07463403,0.06518882,-0.046561696,-0.013939853,-0.014798033,-0.036241576,0.062151436,0.03875669,-0.074887216,1.0,-1.0,-1.0,1.0,1.0,-1.0,-1.0,-1.0,-1.0,1.0,-1.0,-1.0,1.0,-1.0,-1.0,1.0,1.0,-1.0,-1.0,-1.0,-1.0,1.0,-1.0,-1.0
2025-06-04 12:28:26.758,0.021027524,0.02061908,-0.043395173,-0.041965038,0.09879495,0.043032803,0.0,0.0,0.0,0.03476078,-0.010729158,-0.52246463,-0.16317269,0.20843422,0.43068334,-0.14781307,-0.09177249,-0.56658524,-0.24114498,0.12786004,-0.47445688,-0.2474614,-0.0288123,-0.038335454,-0.030544773,0.03183966,-0.07025631,0.054086592,0.060153402,0.031095507,-0.06489597,-0.040502913,0.06955826,-0.016261606,1.0,-1.0,-1.0,1.0,1.0,-1.0,-1.0,-1.0,-1.0,1.0,-1.0,-1.0,1.0,-1.0,-1.0,1.0,1.0,-1.0,-1.0,-1.0,-1.0,1.0,-1.0,-1.0
2025-06-04 12:28:26.781,0.03923483,-0.03057213,-0.026418766,-0.002938627,0.06709482,0.031704452,0.0,0.0,0.0,0.03476078,-0.011699668,-0.5301606,-0.15715954,0.20197755,0.41828847,-0.15900032,-0.08454392,-0.5650204,-0.23870799,0.12889227,-0.4843692,-0.25202876,0.007414342,-0.010032325,0.022480711,-0.06785723,-0.008151961,-0.0148840295,-0.0038712877,-0.00828241,0.036399,0.021827761,0.0615479,0.06629367,1.0,-1.0,-1.0,1.0,1.0,-1.0,-1.0,-1.0,-1.0,1.0,-1.0,-1.0,1.0,-1.0,-1.0,1.0,1.0,-1.0,-1.0,-1.0,-1.0,1.0,-1.0,-1.0
2025-06-04 12:28:26.800,0.03819583,0.038157728,0.03301776,0.04828549,0.057004966,-0.0033664166,0.0,0.0,0.0,0.03476078,-0.0032878225,-0.5224983,-0.15782595,0.2050147,0.43201146,-0.14523487,-0.09398454,-0.5633519,-0.255738,0.11245779,-0.48704052,-0.25280112,-0.0548109,0.0278894,0.015131887,0.056248274,0.025624277,0.024907073,0.042658817,0.02440051,0.011860288,0.0038690378,0.000414573,-0.052162815,1.0,-1.0,-1.0,1.0,1.0,-1.0,-1.0,-1.0,-1.0,1.0,-1.0,-1.0,1.0,-1.0,-1.0,1.0,1.0,-1.0,-1.0,-1.0,-1.0,1.0,-1.0,-1.0
2025-06-04 12:28:26.818,-0.04986579,-0.037782922,0.033794545,0.0042338707,0.047692277,0.0024523488,0.0,0.0,0.0,0.03476078,-0.0062400675,-0.53176475,-0.16275515,0.20531687,0.41488814,-0.15289322,-0.07919376,-0.56112313,-0.24727271,0.11530965,-0.48084912,-0.2424393,0.00941458,-0.04036539,-0.045339227,-0.0109002115,-0.008621058,0.026550086,0.0699634,-0.06275626,0.04812524,0.023486797,-0.07109196,-0.008344183,1.0,-1.0,-1.0,1.0,1.0,-1.0,-1.0,-1.0,-1.0,1.0,-1.0,-1.0,1.0,-1.0,-1.0,1.0,1.0,-1.0,-1.0,-1.0,-1.0,1.0,-1.0,-1.0
2025-06-04 12:28:26.838,-0.028750844,-0.04745946,0.044998113,0.042653322,0.077459715,-0.0027508358,0.0,0.0,0.0,0.03476078,0.0053399177,-0.52400017,-0.1659372,0.20194447,0.42586103,-0.13985275,-0.08942908,-0.5639721,-0.25323716,0.11647957,-0.47764647,-0.2387043,-0.025992505,-0.02462883,0.0027594613,0.043194227,0.048587,-0.019528195,0.031998966,-0.07043208,-0.032773297,-0.003947987,0.033481948,-0.05522405,1.0,-1.0,-1.0,1.0,1.0,-1.0,-1.0,-1.0,-1.0,1.0,-1.0,-1.0,1.0,-1.0,-1.0,1.0,1.0,-1.0,-1.0,-1.0,-1.0,1.0,-1.0,-1.0
2025-06-04 12:28:26.858,-0.0007703244,0.014992912,0.023346841,0.022813875,0.05633902,0.0006978645,0.0,0.0,0.0,0.03476078,0.00306148,-0.53207165,-0.16506712,0.20029852,0.42010888,-0.14308888,-0.077636205,-0.56161886,-0.24799713,0.115226686,-0.4877715,-0.254834,0.06324667,0.06665831,-0.0053614844,0.012640992,-0.06746385,0.040133186,-0.06667481,-0.0014625501,0.012324339,0.07143357,0.04775526,0.06319685,1.0,-1.0,-1.0,1.0,1.0,-1.0,-1.0,-1.0,-1.0,1.0,-1.0,-1.0,1.0,-1.0,-1.0,1.0,1.0,-1.0,-1.0,-1.0,-1.0,1.0,-1.0,-1.0
2025-06-04 12:28:26.883,0.021903947,-0.041194867,0.022248844,-0.02314958,0.10276956,0.024802241,0.0,0.0,0.0,0.03476078,-0.011231524,-0.52837706,-0.15721382,0.20396297,0.42443797,-0.1558498,-0.08239448,-0.58042276,-0.24063878,0.12799315,-0.48282644,-0.24602446,-0.06764602,0.06986334,0.0059985984,-0.04343997,-0.00599264,0.0037697654,0.0018576687,0.049701538,0.047262985,-0.01579967,-0.072705865,-0.007825895,1.0,-1.0,-1.0,1.0,1.0,-1.0,-1.0,-1.0,-1.0,1.0,-1.0,-1.0,1.0,-1.0,-1.0,1.0,1.0,-1.0,-1.0,-1.0,-1.0,1.0,-1.0,-1.0
