openverse-orca/OrcaGym/log/simulation_log_20250721_145736.csv
timestamp,sim_time,physics_step,control_step,imu_angle_roll,imu_angle_pitch,imu_angle_yaw,imu_angular_velocity_roll,imu_angular_velocity_pitch,imu_angular_velocity_yaw,imu_acc_x,imu_acc_y,imu_acc_z,fl_joint1_pos,fl_joint1_vel,fl_joint1_torque,fl_joint2_pos,fl_joint2_vel,fl_joint2_torque,fl_joint3_pos,fl_joint3_vel,fl_joint3_torque,fr_joint1_pos,fr_joint1_vel,fr_joint1_torque,fr_joint2_pos,fr_joint2_vel,fr_joint2_torque,fr_joint3_pos,fr_joint3_vel,fr_joint3_torque,hl_joint1_pos,hl_joint1_vel,hl_joint1_torque,hl_joint2_pos,hl_joint2_vel,hl_joint2_torque,hl_joint3_pos,hl_joint3_vel,hl_joint3_torque,hr_joint1_pos,hr_joint1_vel,hr_joint1_torque,hr_joint2_pos,hr_joint2_vel,hr_joint2_torque,hr_joint3_pos,hr_joint3_vel,hr_joint3_torque,fl_force_x,fl_force_y,fl_force_z,fr_force_x,fr_force_y,fr_force_z,hl_force_x,hl_force_y,hl_force_z,hr_force_x,hr_force_y,hr_force_z,fl_hip_action,fl_thigh_action,fl_calf_action,fr_hip_action,fr_thigh_action,fr_calf_action,hl_hip_action,hl_thigh_action,hl_calf_action,hr_hip_action,hr_thigh_action,hr_calf_action
2025-07-21 14:57:36.330,0.0,0,0,-0.033122767,0.040260963,-0.01976909,0.023337247,-0.01971068,0.016907495,0.94736195,1.5354635,0.0,0.0,-0.00083590986,-0.008992315,0.006202632,0.004566328,-0.0033347094,0.0021577068,-0.004330266,0.0063854842,0.002038305,0.007278126,-0.00684426,0.0048352415,-0.022037435,0.0033962543,-0.0656716,0.013264658,-0.012881076,-0.06276882,0.0016983887,-0.0010611467,-0.01361475,0.03549678,0.0043220203,-0.04688106,0.0,0.0,0.0,0.0,0.0,0.0,0.0,0.0,0.0,0.0,0.0,0.0,0.42213756,1.2662649,2.0,-2.0,1.9809812,0.4926514,2.0,-0.4991179,-0.64292943,2.0,-0.9602555,-2.0
2025-07-21 14:57:36.343,0.02,20,1,-0.03217664,0.01822335,-0.05035785,0.04756118,0.010787835,-0.024623917,0.0,0.0,0.0,0.0,-0.00664638,0.036283996,0.036565423,0.00024837704,0.060849223,0.0011335685,0.01743248,-0.0103821885,-0.0070684794,0.008008555,-0.021286879,-0.03270983,-0.053083915,0.19968703,0.065282315,-0.09242609,0.18916549,-0.0012201295,0.08207644,-0.07858943,-0.018120278,0.11603509,-0.1429042,-0.09258238,0.42213756,1.2662649,2.0,-2.0,1.9809812,0.4926514,2.0,-0.4991179,-0.64292943,2.0,-0.9602555,-2.0,-2.0,1.2133791,1.315505,-2.0,-0.09787774,-2.0,2.0,0.09415217,-2.0,2.0,0.05301852,-2.0
2025-07-21 14:57:36.361,0.04,40,2,0.06910969,-0.03633415,-0.020958073,-0.021597201,0.035015356,-0.007454923,0.0,0.0,0.0,0.00014777268,-0.014003665,0.09405549,0.08803325,-0.016228668,0.10278616,-0.03626538,0.024492927,-0.021422507,-0.061074235,0.027599458,-0.04158526,-0.08821159,-0.038397033,0.16504331,0.07150724,-0.08317996,-0.013501221,-0.11050542,-0.0074918997,0.036958423,-0.026629645,0.0014905714,-0.067563,-0.059597667,-2.0,1.2133791,1.315505,-2.0,-0.09787774,-2.0,2.0,0.09415217,-2.0,2.0,0.05301852,-2.0,-2.0,1.1606547,2.0,-2.0,0.97640747,-2.0,2.0,-0.07546325,-2.0,2.0,-0.8891567,1.3738024
2025-07-21 14:57:36.384,0.06,60,3,0.03394372,-0.0445309,0.04953671,0.026164236,0.009374616,0.008817747,0.0,0.0,0.0,0.00026787297,-0.02986287,0.1464333,0.11508891,-0.03934864,0.081992224,-0.019081634,0.036231905,-0.033780787,-0.040401965,0.03841281,-0.071546085,-0.06712567,0.013909904,0.09712833,0.10354147,-0.07966025,-0.028783279,0.121347725,-0.027513845,-0.112283655,0.16122131,0.0033245336,-0.048013955,0.20239726,-2.0,1.1606547,2.0,-2.0,0.97640747,-2.0,2.0,-0.07546325,-2.0,2.0,-0.8891567,1.3738024,-2.0,1.2854562,1.5532737,-2.0,0.40036598,-2.0,2.0,-0.7174991,-2.0,2.0,-0.011190046,2.0
2025-07-21 14:57:36.400,0.08,80,4,0.04998785,0.02623362,0.049739335,-0.025248468,0.017204065,0.014389731,0.0,0.0,0.0,0.00013021358,-0.042115632,0.20969613,0.15040433,-0.041310884,0.07894956,0.04788824,0.036341418,-0.06414517,0.021051947,0.05181823,-0.07373841,0.014439431,0.02654875,0.18174183,0.08847487,0.03677619,-0.06774406,0.11199631,-0.06364304,-0.08815813,0.1358958,-0.044995483,0.055793058,0.12679562,-2.0,1.2854562,1.5532737,-2.0,0.40036598,-2.0,2.0,-0.7174991,-2.0,2.0,-0.011190046,2.0,-2.0,1.2611642,2.0,-2.0,0.50816727,-2.0,2.0,-0.8811753,-2.0,2.0,0.09154631,2.0
2025-07-21 14:57:36.424,0.1,100,5,0.057353355,0.07926157,0.08189168,-0.027856322,0.023240987,-0.040275563,0.0,0.0,0.0,-0.00019786415,-0.038084388,0.25711924,0.17131513,-0.036118183,0.048195135,0.08637457,0.021431407,-0.08315969,0.065412186,0.045827046,-0.07675387,0.075302996,0.03540309,0.007144093,-0.010155312,0.058016043,-0.10130568,0.0481975,0.02819466,-0.09909622,0.14404994,0.014564957,0.002264124,0.2147689,-2.0,1.2611642,2.0,-2.0,0.50816727,-2.0,2.0,-0.8811753,-2.0,2.0,0.09154631,2.0,-2.0,1.1523776,2.0,-2.0,0.84318376,-2.0,2.0,-1.3760939,-2.0,2.0,-0.03715508,2.0
2025-07-21 14:57:36.440,0.12000000000000001,120,6,0.08065221,0.14246216,0.0767577,-0.042196307,-0.06898085,-0.0064283293,0.0,0.0,0.0,-0.00071843766,-0.04835087,0.27173224,0.19135833,-0.044787813,0.019773016,0.1393615,0.030423231,-0.10180951,0.12233381,0.048063844,-0.037236445,0.12555858,0.025571218,-0.03233123,0.012386178,-0.041488506,-0.011221453,0.04061443,-0.043255083,-0.13142076,0.13537353,0.02988655,0.05952886,0.09699245,-2.0,1.1523776,2.0,-2.0,0.84318376,-2.0,2.0,-1.3760939,-2.0,2.0,-0.03715508,2.0,-2.0,0.9832624,1.8966805,-2.0,1.0180359,-2.0,2.0,-1.7115666,-2.0,1.6344969,-0.21108739,2.0
2025-07-21 14:57:36.460,0.14,140,7,0.08902586,0.18909274,0.036548704,0.037596703,-0.04219688,-0.0049785483,0.0,0.0,0.0,-0.001405149,-0.047850844,0.26838604,0.2183649,-0.054658126,0.012830967,0.15956087,0.01486563,-0.13190094,0.1665878,0.06536675,-0.030083494,0.1729408,-0.055190697,-0.0014525382,-0.007439995,-0.08057473,-0.018028505,0.018348029,0.00023125278,-0.13403459,0.18885244,0.04957401,0.03779629,0.15339947,-2.0,0.9832624,1.8966805,-2.0,1.0180359,-2.0,2.0,-1.7115666,-2.0,1.6344969,-0.21108739,2.0,-2.0,1.2857722,2.0,-2.0,0.16334206,-2.0,2.0,-1.7515622,-2.0,-0.83012855,0.09602322,2.0
2025-07-21 14:57:36.485,0.16,160,8,0.07753298,0.15437697,0.097461775,-0.008356501,-0.016389944,0.004574801,0.0,0.0,0.0,-0.0020971552,-0.052226305,0.26515633,0.20919238,-0.05949984,0.0018400747,0.17785794,0.013704267,-0.1748696,0.23181997,0.04780393,-0.019615056,0.18905064,0.033908248,0.030252628,-0.0034268918,-0.027136564,-0.015714739,0.06191836,0.0006895268,-0.14812441,0.19429375,-0.12613544,0.093952045,0.11399544,-2.0,1.2857722,2.0,-2.0,0.16334206,-2.0,2.0,-1.7515622,-2.0,-0.83012855,0.09602322,2.0,-2.0,1.2928476,2.0,-2.0,0.7827296,-2.0,2.0,-2.0,-2.0,-2.0,1.0918953,2.0
2025-07-21 14:57:36.500,0.18,180,9,0.09057831,0.22414757,0.1018525,0.05683547,-0.031314828,0.039728254,0.0,0.0,0.0,-0.0031019738,-0.04442101,0.28508535,0.22861047,-0.05592905,-0.020476792,0.19034666,-0.00036145365,-0.20040706,0.27074218,0.001488838,0.032759793,0.21181469,-0.047064506,0.036586177,-0.050612677,-0.029522356,-0.052446105,0.1007492,-0.02478875,-0.041178253,0.053372107,-0.11048413,0.10848711,-0.021051038,-2.0,1.2928476,2.0,-2.0,0.7827296,-2.0,2.0,-2.0,-2.0,-2.0,1.0918953,2.0,-2.0,1.3732377,1.4818628,-2.0,0.69665873,-2.0,2.0,-2.0,-2.0,-2.0,0.6827377,2.0
2025-07-21 14:57:36.520,0.19999999999999998,200,10,-0.022602476,0.19229116,0.07336331,0.06898282,-0.10565439,0.028776199,0.0,0.0,0.0,-0.0042697997,-0.05005474,0.28094113,0.21796852,-0.04785885,-0.019914754,0.21421717,-0.003335182,-0.2322936,0.309704,-0.033796668,0.07659484,0.21603024,0.034435906,0.038256105,0.026905501,0.0011252795,-0.040536962,-0.04034928,-0.0011101252,-0.076622605,0.023545817,-0.15379965,0.16779387,0.08950619,-2.0,1.3732377,1.4818628,-2.0,0.69665873,-2.0,2.0,-2.0,-2.0,-2.0,0.6827377,2.0,-2.0,1.078066,2.0,-2.0,0.27355903,-2.0,2.0,-2.0,-2.0,-2.0,0.9674835,2.0
2025-07-21 14:57:36.541,0.21999999999999997,220,11,-0.0074896608,0.18472563,0.011068732,0.08544542,-0.09622688,0.04099502,0.0,0.0,0.0,-0.005475367,-0.051457826,0.29200295,0.24472749,-0.05152756,-0.041781086,0.20254326,-0.012290558,-0.25739837,0.3395978,-0.06631287,0.10670375,0.23931755,-0.042815764,0.008479084,-0.0017933784,0.041925948,-0.039347526,0.01495559,-0.00052921294,-0.03641776,0.09782993,-0.07066126,0.022456862,0.04793672,-2.0,1.078066,2.0,-2.0,0.27355903,-2.0,2.0,-2.0,-2.0,-2.0,0.9674835,2.0,-2.0,2.0,2.0,-2.0,-0.68974936,-2.0,2.0,-1.7829895,-2.0,-2.0,1.1301757,2.0
2025-07-21 14:57:36.566,0.23999999999999996,240,12,0.017007692,0.05963385,0.121788405,0.094088815,-0.04641955,0.00344863,0.0,0.0,0.0,-0.006486747,-0.043174036,0.2927499,0.2705831,-0.036857158,-0.04410804,0.21476616,0.0011456521,-0.2760612,0.37694147,-0.08085834,0.13366517,0.25100073,0.038731966,0.06747066,0.07040597,0.09225873,-0.026340557,-0.045522828,-0.012817154,-0.045019113,0.020683914,-0.032223433,0.12494662,0.043385256,-2.0,2.0,2.0,-2.0,-0.68974936,-2.0,2.0,-1.7829895,-2.0,-2.0,1.1301757,2.0,-2.0,1.1515746,0.1505697,-2.0,1.1990818,-2.0,2.0,-1.8603268,-2.0,-2.0,1.4039047,2.0
2025-07-21 14:57:36.586,0.25999999999999995,260,13,0.012318614,0.07693797,0.06919579,0.082375646,-0.08183524,-0.006902293,0.0,0.0,0.0,-0.007864503,-0.034082722,0.31896427,0.2604073,-0.036278993,-0.029237436,0.20049006,-0.006444387,-0.27380875,0.40053734,-0.088619605,0.18780972,0.25647876,0.04699896,0.08654231,-0.015678983,-0.046331104,0.06560846,0.010317103,-0.0518518,0.032667767,0.009388459,-0.04023156,0.16477573,0.033661388,-2.0,1.1515746,0.1505697,-2.0,1.1990818,-2.0,2.0,-1.8603268,-2.0,-2.0,1.4039047,2.0,-2.0,0.020544738,2.0,-2.0,0.41224712,-2.0,2.0,-1.9701252,-2.0,-2.0,0.36376905,2.0
2025-07-21 14:57:36.605,0.27999999999999997,280,14,-0.035401754,0.104558334,0.0561677,0.056313094,-0.04570019,-0.00042209914,0.0,0.0,0.0,-0.009204077,-0.038374938,0.29022083,0.27118778,-0.022101447,-0.035292555,0.19968583,0.0032970263,-0.30295268,0.41855207,-0.097618,0.20226456,0.25604752,0.041661132,-0.06859489,0.048273623,-0.0006171166,0.013871103,-0.08234398,-0.022207817,-0.03662062,0.040899042,-0.020529777,0.03231067,0.012056263,-2.0,0.020544738,2.0,-2.0,0.41224712,-2.0,2.0,-1.9701252,-2.0,-2.0,0.36376905,2.0,-2.0,2.0,2.0,-2.0,-0.12252408,-2.0,2.0,-1.8481221,-2.0,-2.0,0.95018786,2.0
2025-07-21 14:57:36.622,0.3,300,15,0.007314555,0.11021105,0.04429571,0.08902591,-0.09782267,-0.021256907,0.0,0.0,0.0,-0.009971363,-0.039117932,0.30222085,0.26418838,-0.02006924,-0.030489402,0.16813178,0.00027828396,-0.30055314,0.41877306,-0.100365,0.20184617,0.25439155,0.050475467,0.052123666,-0.07282083,0.009916788,0.049009506,-0.033548728,-0.06931489,-0.080776356,-0.046057373,-0.012914265,-0.0071018822,0.0699526,-2.0,2.0,2.0,-2.0,-0.12252408,-2.0,2.0,-1.8481221,-2.0,-2.0,0.95018786,2.0,-2.0,1.4903028,2.0,-2.0,0.4602688,-2.0,2.0,-1.938157,-2.0,-2.0,1.2857364,2.0
2025-07-21 14:57:36.641,0.32,320,16,-0.029551057,0.020491434,0.022582091,0.13397786,-0.023704138,-0.0064787106,0.0,0.0,0.0,-0.010995818,-0.03685822,0.31801754,0.25410512,-0.026400605,-0.019122167,0.15702608,-0.0011634855,-0.29841647,0.42660198,-0.09946382,0.19914,0.2544674,-0.025513493,0.116969846,-0.03850225,0.054843746,-0.019416273,-0.08621352,0.02192033,0.010553543,-0.059088763,-0.044831704,0.059037793,-0.054799866,-2.0,1.4903028,2.0,-2.0,0.4602688,-2.0,2.0,-1.938157,-2.0,-2.0,1.2857364,2.0,-2.0,1.68659,2.0,-2.0,-0.14872998,-2.0,2.0,-1.6038921,-2.0,-2.0,1.0816514,2.0
2025-07-21 14:57:36.661,0.34,340,17,0.037883364,-0.045976564,0.12013524,0.123781756,-0.048140477,0.011576807,0.0,0.0,0.0,-0.012359737,-0.041521553,0.3334483,0.2588846,-0.0031345892,-0.024240691,0.1642553,-0.004686434,-0.3070758,0.4308883,-0.1142613,0.22526407,0.24526139,0.054261465,0.03617737,-0.039839376,0.080780834,0.05105543,-0.021563016,0.00061635167,-0.037814002,-0.005470754,-0.08336952,0.063625306,-0.053594824,-2.0,1.68659,2.0,-2.0,-0.14872998,-2.0,2.0,-1.6038921,-2.0,-2.0,1.0816514,2.0,-2.0,1.1730485,0.492395,-2.0,1.4551781,-2.0,2.0,-2.0,-2.0,-2.0,1.2002276,2.0
2025-07-21 14:57:36.685,0.36000000000000004,360,18,-0.0031600178,-0.0051902696,0.08564381,0.13995653,-0.012201955,-0.015958266,0.0,0.0,0.0,-0.014093117,-0.058461294,0.33708254,0.21955463,0.0043955115,-0.025313832,0.13599043,0.0056855087,-0.29161435,0.43069434,-0.11051138,0.23663974,0.24345756,-0.04326622,-0.03882905,-0.02340291,0.02620165,-0.028171677,-0.0052084946,0.06693587,0.035685536,0.066711955,-0.08861505,0.10320126,-0.07842289,-2.0,1.1730485,0.492395,-2.0,1.4551781,-2.0,2.0,-2.0,-2.0,-2.0,1.2002276,2.0,-2.0,0.24094963,0.8990016,-2.0,1.0823728,-2.0,2.0,-1.953115,-2.0,-2.0,0.4198155,2.0
2025-07-21 14:57:36.705,0.38000000000000006,380,19,-0.033863578,0.051131412,0.0050346893,0.11998004,-0.023832288,-0.011016371,0.0,0.0,0.0,-0.015645765,-0.03736338,0.34055755,0.22599594,0.021137996,-0.0008644191,0.12705505,0.0062696664,-0.2973275,0.43004423,-0.12304841,0.22055346,0.23670958,0.07373334,-0.11811122,0.08727323,-0.04609393,0.07261974,-0.03377727,-0.042587228,-0.012141843,0.019102171,0.05755322,-0.1125995,0.015010158,-2.0,0.24094963,0.8990016,-2.0,1.0823728,-2.0,2.0,-1.953115,-2.0,-2.0,0.4198155,2.0,-2.0,1.2699729,2.0,-2.0,-0.41594428,-2.0,2.0,-1.508033,-2.0,-2.0,0.59186584,2.0
2025-07-21 14:57:36.724,0.4000000000000001,400,20,-0.046036225,0.030086013,0.007828919,0.0827169,-0.09602851,-0.029946342,0.0,0.0,0.0,-0.016134689,-0.049778264,0.32226217,0.22711292,0.020624604,-0.011108512,0.10412587,0.0110819265,-0.30309105,0.4317207,-0.12468085,0.21217628,0.2558779,-0.07036887,-0.023024647,0.041834023,0.04535525,-0.00792437,-0.09397169,-0.008559109,-0.058217768,0.03101617,-0.040281843,-0.017836077,-0.05162861,-2.0,1.2699729,2.0,-2.0,-0.41594428,-2.0,2.0,-1.508033,-2.0,-2.0,0.59186584,2.0,-2.0,1.9540062,2.0,-2.0,0.035478354,-2.0,2.0,-1.2091246,-2.0,-2.0,1.5255481,2.0
2025-07-21 14:57:36.744,0.4200000000000001,420,21,0.05966971,-0.043060284,0.09744009,0.08808409,-0.09187789,0.0002961011,0.0,0.0,0.0,-0.016656077,-0.0511598,0.33190882,0.22506206,0.03223393,-0.0073181507,0.09417333,0.020796292,-0.2876537,0.4190469,-0.12798575,0.20835462,0.2519921,-0.07010959,0.019584518,0.076529995,0.040619556,-0.023317771,-0.024798965,-0.03382093,0.017105658,-0.025796331,-0.018617906,0.103880726,-0.07301633,-2.0,1.9540062,2.0,-2.0,0.035478354,-2.0,2.0,-1.2091246,-2.0,-2.0,1.5255481,2.0,-2.0,1.096487,0.2069377,-2.0,1.1067216,-2.0,2.0,-1.778712,-2.0,-2.0,1.2574227,2.0
2025-07-21 14:57:36.761,0.4400000000000001,440,22,0.057027634,-0.030083142,0.06274304,0.08307501,-0.08995051,0.018965429,0.0,0.0,0.0,-0.017953994,-0.051920515,0.34560695,0.2089947,0.042176902,-0.004095895,0.09846167,0.008937784,-0.26277253,0.4146833,-0.13740832,0.2317131,0.24277295,0.018816393,0.055018067,0.0134535795,-0.00899308,-0.054729715,-0.08272914,-0.010083363,0.080953576,-0.048476588,0.040795065,0.029939374,0.036378052,-2.0,1.096487,0.2069377,-2.0,1.1067216,-2.0,2.0,-1.778712,-2.0,-2.0,1.2574227,2.0,-2.0,0.32423913,2.0,-2.0,0.73370534,-2.0,2.0,-1.3467145,-2.0,-2.0,0.46144354,2.0
2025-07-21 14:57:36.781,0.46000000000000013,460,23,0.025381602,-0.011465535,-0.0059801787,0.08766108,-0.07200724,0.03694236,0.0,0.0,0.0,-0.019129515,-0.045996264,0.32211402,0.21230958,0.043001164,0.011802069,0.0921883,0.016860686,-0.26473734,0.38984317,-0.14091517,0.23582798,0.23082685,0.05969041,-0.07478412,0.0544445,0.010056467,0.06086763,-0.041929703,0.056448985,-0.032176208,-0.086288616,0.00539309,0.010609842,-0.06805697,-2.0,0.32423913,2.0,-2.0,0.73370534,-2.0,2.0,-1.3467145,-2.0,-2.0,0.46144354,2.0,-2.0,2.0,2.0,-2.0,-0.37937164,-2.0,2.0,-1.4254186,-2.0,-2.0,1.027549,2.0
2025-07-21 14:57:36.807,0.48000000000000015,480,24,0.06459983,-0.009487348,0.053687595,0.09532592,-0.11401055,0.037707765,0.0,0.0,0.0,-0.019677557,-0.048981845,0.32154676,0.23846006,0.035260778,0.0055880593,0.077837914,0.01000628,-0.23761566,0.39620563,-0.12328118,0.23277727,0.24366198,0.03427617,-0.023029517,0.05145985,-0.041782707,-0.063234046,0.06962699,-0.050314598,0.03562158,0.019841269,0.026957944,-0.08287116,-0.022928433,-2.0,2.0,2.0,-2.0,-0.37937164,-2.0,2.0,-1.4254186,-2.0,-2.0,1.027549,2.0,-2.0,1.4763396,1.5270512,-2.0,0.6204536,-2.0,2.0,-1.6461937,-2.0,-2.0,1.539834,2.0
2025-07-21 14:57:36.827,0.5000000000000001,500,25,0.11541375,-0.015704323,0.044594005,0.08409703,-0.058992516,0.0013573676,0.0,0.0,0.0,-0.020406187,-0.054582346,0.338217,0.22648251,0.040921524,0.00804833,0.08137054,0.0058347946,-0.22626399,0.38888538,-0.12518555,0.24350399,0.22804481,0.058514286,-0.034660567,-0.016597668,0.07506365,-0.029351203,-0.046959016,0.024075987,0.07090548,0.033083666,0.028228546,0.073087335,-0.008559041,-2.0,1.4763396,1.5270512,-2.0,0.6204536,-2.0,2.0,-1.6461937,-2.0,-2.0,1.539834,2.0,-2.0,1.2874432,1.7154278,-2.0,0.5535782,-2.0,2.0,-1.9612541,-2.0,-2.0,0.69054806,2.0
2025-07-21 14:57:36.841,0.5200000000000001,520,26,0.057198264,0.041225083,-0.0114289,0.118569285,-0.10414551,0.025756374,0.0,0.0,0.0,-0.021209447,-0.0606641,0.33590043,0.21797852,0.052267082,0.020913165,0.08392709,0.011510128,-0.23241916,0.3796207,-0.13206926,0.24386375,0.22629546,0.01836694,-0.08278419,-0.06328228,0.067850105,-0.0060211886,0.034996133,0.038662817,0.047810312,0.036775876,0.053653765,-0.035894156,-0.0042755012,-2.0,1.2874432,1.7154278,-2.0,0.5535782,-2.0,2.0,-1.9612541,-2.0,-2.0,0.69054806,2.0,-2.0,1.7079289,2.0,-2.0,-0.17946213,-2.0,2.0,-1.5936217,-2.0,-2.0,0.96661925,2.0
2025-07-21 14:57:36.863,0.5400000000000001,540,27,0.049726654,-0.029752446,-0.011789715,0.06628244,-0.08942251,-0.044150986,0.0,0.0,0.0,-0.021692293,-0.048950125,0.32898676,0.24362098,0.056311984,0.0005995523,0.06986926,0.0047581093,-0.227566,0.3831906,-0.13729711,0.22869745,0.231428,-0.015209969,-0.061483335,0.09629451,0.012813664,-0.046253636,0.0034599553,-0.06943303,0.058488276,0.041824874,0.022537638,0.040745612,-0.01802586,-2.0,1.7079289,2.0,-2.0,-0.17946213,-2.0,2.0,-1.5936217,-2.0,-2.0,0.96661925,2.0,-2.0,1.7035384,2.0,-2.0,-0.38522607,-2.0,2.0,-1.3120639,-2.0,-2.0,1.4353209,2.0
2025-07-21 14:57:36.883,0.5600000000000002,560,28,0.1148191,-0.034825157,0.10106445,0.056955256,-0.08693161,0.007282873,0.0,0.0,0.0,-0.022193452,-0.06356011,0.35186723,0.24712789,0.049026746,0.00299604,0.08078501,0.010747469,-0.23632795,0.3742473,-0.12416968,0.2388501,0.24237156,-0.053513814,0.020398578,0.046440955,0.024326324,-0.054312933,-0.024668822,0.009161141,0.048664402,-0.019391295,-0.019386321,0.073662296,-0.012493657,-2.0,1.7035384,2.0,-2.0,-0.38522607,-2.0,2.0,-1.3120639,-2.0,-2.0,1.4353209,2.0,-2.0,1.19658,0.33874968,-2.0,1.268951,-2.0,2.0,-1.6295464,-2.0,-2.0,1.4307362,2.0
2025-07-21 14:57:36.902,0.5800000000000002,580,29,0.031175885,-0.055261992,0.009929263,0.12128266,-0.05209659,-0.048852816,0.0,0.0,0.0,-0.023120834,-0.0527796,0.340273,0.24933562,0.05900493,-0.005001168,0.0809379,0.014386127,-0.23980781,0.36599055,-0.12699184,0.2712826,0.23056701,-0.003550846,0.020405903,-0.04779483,-0.006252858,0.016265258,-0.08881227,-0.047180664,0.04718105,-0.05199787,-0.012951222,0.00017559674,0.006941922,-2.0,1.19658,0.33874968,-2.0,1.268951,-2.0,2.0,-1.6295464,-2.0,-2.0,1.4307362,2.0,-2.0,0.60573554,2.0,-2.0,0.3991776,-2.0,2.0,-1.2078335,-2.0,-2.0,0.3031801,2.0
2025-07-21 14:57:36.922,0.6000000000000002,600,30,0.04536466,-0.031423558,0.032736827,0.12787743,-0.059657935,0.009927875,0.0,0.0,0.0,-0.023772487,-0.06074197,0.3256203,0.2577989,0.05568553,-0.018452639,0.0824233,0.0068484787,-0.23383656,0.36032748,-0.13803926,0.25401947,0.23769072,0.0673268,0.007402969,0.094134696,-0.03186406,-0.046725545,-0.024152817,-0.0076878336,-0.0013608251,-0.02019671,0.051700994,-0.025903359,0.009534397,-2.0,0.60573554,2.0,-2.0,0.3991776,-2.0,2.0,-1.2078335,-2.0,-2.0,0.3031801,2.0,-2.0,2.0,2.0,-2.0,-0.18706977,-2.0,2.0,-1.4338944,-2.0,-2.0,1.2485759,2.0
2025-07-21 14:57:36.948,0.6200000000000002,620,31,0.10394431,-0.07929058,0.013453083,0.048490968,-0.10016628,0.0033717037,0.0,0.0,0.0,-0.024027433,-0.058623526,0.3283778,0.26153287,0.05976335,-0.010529091,0.08458382,0.010335636,-0.2429384,0.34908375,-0.139897,0.23109241,0.23025131,0.01687307,0.09731364,0.0025405209,0.013234954,-0.057735037,-0.018466927,-0.069863304,0.066547826,-0.00755952,-0.06327946,-0.07542759,0.018843783,-2.0,2.0,2.0,-2.0,-0.18706977,-2.0,2.0,-1.4338944,-2.0,-2.0,1.2485759,2.0,-2.0,1.6290216,1.9797511,-2.0,-0.24092734,-2.0,2.0,-1.2586297,-2.0,-2.0,1.540068,2.0
2025-07-21 14:57:36.963,0.6400000000000002,640,32,0.09678232,-0.09860223,0.07446976,0.074058205,-0.14576054,-0.0007229995,0.0,0.0,0.0,-0.024485933,-0.049790878,0.3508468,0.2618695,0.07109425,-0.012799437,0.07767247,0.0079725925,-0.23717453,0.3526604,-0.14032048,0.26254857,0.22934854,0.046731606,0.0879595,0.039182607,-0.043316558,-0.061379097,0.08316302,-0.049772575,-0.05252421,-0.018791258,0.029715555,-0.0011234377,-0.019830873,-2.0,1.6290216,1.9797511,-2.0,-0.24092734,-2.0,2.0,-1.2586297,-2.0,-2.0,1.540068,2.0,-2.0,1.3242602,0.6607158,-2.0,0.8029717,-2.0,2.0,-1.3982904,-2.0,-2.0,1.5327181,2.0
2025-07-21 14:57:36.987,0.6600000000000003,660,33,0.10347329,-0.0080392705,-0.034880474,0.07213858,-0.1170154,0.0032548471,0.0,0.0,0.0,-0.02523778,-0.05236416,0.34193796,0.28046975,0.063779555,-0.031742934,0.083467774,0.01048886,-0.22190998,0.3388788,-0.14363013,0.2858396,0.23968495,0.074900255,-0.06740991,0.04187503,-0.03640497,-0.029667415,-0.018493874,-0.040521048,0.0006047604,-0.075207934,0.021535756,0.11200724,0.006870721,-2.0,1.3242602,0.6607158,-2.0,0.8029717,-2.0,2.0,-1.3982904,-2.0,-2.0,1.5327181,2.0,-2.0,0.8351923,0.886513,-1.9814177,0.04108894,-2.0,2.0,-1.134439,-2.0,-2.0,0.5326424,2.0
2025-07-21 14:57:37.007,0.6800000000000003,680,34,0.032780733,0.023926338,0.058760226,0.10469123,-0.069018334,0.021137897,0.0,0.0,0.0,-0.025750697,-0.05874957,0.32911167,0.28868088,0.06603252,-0.04237555,0.081272766,0.0016431032,-0.22900729,0.3286799,-0.13103747,0.26963288,0.24365103,0.0055872314,-0.05149953,0.071862794,-0.030081531,-0.06588254,0.03534388,0.0047305515,0.0027500298,-0.028846905,0.026600016,-0.09927574,0.053991683,-2.0,0.8351923,0.886513,-1.9814177,0.04108894,-2.0,2.0,-1.134439,-2.0,-2.0,0.5326424,2.0,-2.0,1.0214053,2.0,-2.0,0.6936956,-2.0,2.0,-1.3688703,-2.0,-2.0,1.1913016,2.0
2025-07-21 14:57:37.023,0.7000000000000003,700,35,0.07037078,-0.0354694,0.0025415153,0.037199944,-0.12682813,-0.030755574,0.0,0.0,0.0,-0.025997223,-0.050300404,0.3296505,0.29212445,0.06735044,-0.045430727,0.06912199,0.0026744618,-0.23204467,0.32188424,-0.13450104,0.2683887,0.23209059,0.012895309,-0.050918836,0.014784312,0.03732395,-0.020918142,-0.08568499,0.02479813,-0.070381366,-0.06779407,-0.028934278,-0.06612172,0.060213003,-2.0,1.0214053,2.0,-2.0,0.6936956,-2.0,2.0,-1.3688703,-2.0,-2.0,1.1913016,2.0,-2.0,1.9309328,2.0,-2.0,-0.35573938,-2.0,2.0,-1.3112789,-2.0,-2.0,1.0713362,2.0
2025-07-21 14:57:37.043,0.7200000000000003,720,36,0.012653372,-0.024163561,0.057077106,0.10294855,-0.08019987,0.031897858,0.0,0.0,0.0,-0.025985645,-0.060666017,0.3238887,0.2845932,0.05919076,-0.035965078,0.07952257,-0.0060979305,-0.2369084,0.3001741,-0.14332332,0.2606043,0.23950632,-0.02498408,0.0355849,0.041743208,-0.056779332,0.053182315,0.013738519,0.0458415,-0.02341971,-0.09747902,-0.0038734665,-0.025027977,-0.030753793,-2.0,1.9309328,2.0,-2.0,-0.35573938,-2.0,2.0,-1.3112789,-2.0,-2.0,1.0713362,2.0,-2.0,1.2553929,0.37126914,-2.0,0.78947115,-2.0,2.0,-1.305973,-2.0,-2.0,1.624488,2.0
2025-07-21 14:57:37.062,0.7400000000000003,740,37,0.0750176,-0.070402846,0.026678376,0.056531254,-0.120679244,-0.013941546,0.0,0.0,0.0,-0.026042325,-0.06533408,0.3430726,0.27830935,0.0595777,-0.056759007,0.060860567,-0.001040208,-0.23281589,0.2986865,-0.13536689,0.26545766,0.22886774,-0.06465362,-0.012250638,-0.067295104,0.009524976,0.0075066383,-0.019657787,0.07174756,-0.027584009,-0.10389508,0.012017506,-0.0026079025,-0.013265006,-2.0,1.2553929,0.37126914,-2.0,0.78947115,-2.0,2.0,-1.305973,-2.0,-2.0,1.624488,2.0,-2.0,0.4896722,-0.6376811,-1.6621892,0.9105905,-2.0,2.0,-1.0760854,-2.0,-2.0,0.63041425,2.0
2025-07-21 14:57:37.088,0.7600000000000003,760,38,-0.016259184,0.02994316,-0.06576261,0.05271314,-0.14874224,0.0029490902,0.0,0.0,0.0,-0.02598865,-0.0575548,0.31354785,0.271228,0.07416028,-0.046612464,0.048159834,0.0054476974,-0.24492495,0.28913733,-0.1282642,0.26934612,0.24284858,0.054935157,0.0068495627,0.02510813,-0.012339251,0.031533424,-0.02124115,-0.03606072,-0.04476804,0.009691855,-0.016566979,-0.0039009703,-0.009923412,-2.0,0.4896722,-0.6376811,-1.6621892,0.9105905,-2.0,2.0,-1.0760854,-2.0,-2.0,0.63041425,2.0,-1.3098783,0.55892026,1.7069951,2.0,-0.17466593,-2.0,2.0,-0.50957096,-2.0,-2.0,0.52698576,2.0
2025-07-21 14:57:37.107,0.7800000000000004,780,39,-0.1461727,-0.19292507,-0.060925458,0.058054738,-0.121888734,0.044853896,0.0,0.0,0.0,-0.025265664,-0.054293085,0.29478255,0.28475413,0.08370107,-0.046160482,0.048806474,0.017638855,-0.23246312,0.2636647,-0.121251054,0.22855638,0.23527089,0.06021249,-0.002857763,0.035892945,-0.031600967,-0.005070565,-0.018344065,-0.016435063,0.06759532,-0.05853684,0.046211563,-0.13735965,0.044797193,-1.3098783,0.55892026,1.7069951,2.0,-0.17466593,-2.0,2.0,-0.50957096,-2.0,-2.0,0.52698576,2.0,-2.0,2.0,1.0862362,2.0,0.2294137,-2.0,2.0,-1.1235005,-2.0,-2.0,0.7353197,2.0
2025-07-21 14:57:37.124,0.8000000000000004,800,40,-0.08976886,-0.21681978,0.042759713,0.03673881,-0.12061676,-0.040290903,0.0,0.0,0.0,-0.024660902,-0.038692955,0.30093122,0.25989714,0.089570485,-0.053487934,0.04821129,0.03488146,-0.22379524,0.24775155,-0.12449748,0.2038922,0.24686928,-0.016161947,0.0044395556,0.023268905,0.027049415,0.010412364,-0.076403596,0.058050316,0.058216386,-0.08401316,0.05282581,-0.03915538,-0.010333394,-2.0,2.0,1.0862362,2.0,0.2294137,-2.0,2.0,-1.1235005,-2.0,-2.0,0.7353197,2.0,-2.0,1.7346764,-1.9984179,2.0,2.0,-2.0,2.0,-1.9110814,-2.0,-2.0,0.7556485,2.0
2025-07-21 14:57:37.143,0.8200000000000004,820,41,-0.17692463,-0.06667926,-0.06360169,0.043609347,-0.10735967,0.0034431757,0.0,0.0,0.0,-0.024770131,-0.034642432,0.32256332,0.24713834,0.11206894,-0.048923574,0.03166322,0.039505847,-0.22715656,0.23313564,-0.1305737,0.19445978,0.23596199,0.05013123,0.0065335655,-0.053082813,-0.027404517,0.05837962,0.011315323,0.0075678364,0.0039020889,-0.052435093,0.06011009,0.035607714,0.06838003,-2.0,1.7346764,-1.9984179,2.0,2.0,-2.0,2.0,-1.9110814,-2.0,-2.0,0.7556485,2.0,2.0,1.277028,-2.0,2.0,1.3610121,-2.0,0.35721663,-1.0736063,-2.0,-2.0,0.033623766,-2.0
2025-07-21 14:57:37.165,0.8400000000000004,840,42,-0.25598606,-0.04513876,0.029062325,0.06947878,-0.033843122,0.019715555,0.0,0.0,0.0,-0.024417797,-0.030606767,0.3033137,0.20116514,0.1278137,-0.04542517,0.020402327,0.06286628,-0.23537129,0.21460778,-0.11640046,0.1792149,0.15053219,-0.0052850503,-0.0067062397,-0.10940825,0.09431045,0.081921875,-0.12848617,0.10940831,-0.029753234,-0.11792616,-0.00043751425,-0.14566095,-0.3012311,2.0,1.277028,-2.0,2.0,1.3610121,-2.0,0.35721663,-1.0736063,-2.0,-2.0,0.033623766,-2.0,2.0,-0.27663,-2.0,2.0,1.2619532,-1.4710985,-2.0,0.54450285,-2.0,-2.0,-0.45389432,-2.0
2025-07-21 14:57:37.183,0.8600000000000004,860,43,-0.116808556,-0.08717819,0.04524203,-0.0035815656,-0.099971466,-0.04751734,0.0,0.0,0.0,-0.023942025,-0.007841454,0.3026055,0.1742313,0.1531047,-0.03673875,-0.020898413,0.080820575,-0.21527834,0.17627145,-0.122013636,0.1522164,0.09570322,-0.02356646,-0.030544188,-0.062929206,-0.04205689,0.08938327,-0.056726374,0.0629327,0.11970462,-0.025664434,-0.019644693,0.026882853,0.009328836,2.0,-0.27663,-2.0,2.0,1.2619532,-1.4710985,-2.0,0.54450285,-2.0,-2.0,-0.45389432,-2.0,2.0,0.4985201,-2.0,2.0,1.9809812,-0.36932045,-2.0,0.55877805,-2.0,-2.0,-0.46158767,-2.0
2025-07-21 14:57:37.206,0.8800000000000004,880,44,0.038577847,-0.06264298,0.032749273,0.03393664,-0.027265754,-0.040074322,0.0,0.0,0.0,-0.024435803,-0.00092511065,0.32761914,0.14786346,0.14767978,-0.012502899,-0.023951523,0.076512665,-0.17921247,0.14725247,-0.12513681,0.13456467,0.06052566,0.008950948,0.08427576,-0.11128292,0.08376858,0.10474885,-0.05614921,0.041198835,0.03482712,-0.073674634,-0.05309306,0.0057760333,0.027978143,2.0,0.4985201,-2.0,2.0,1.9809812,-0.36932045,-2.0,0.55877805,-2.0,-2.0,-0.46158767,-2.0,2.0,-0.10356876,-2.0,2.0,1.5556675,-0.21027343,-2.0,1.3771198,-2.0,-2.0,-0.25460994,-2.0
2025-07-21 14:57:37.223,0.9000000000000005,900,45,0.028837122,-0.19987875,0.13274671,0.046329312,-0.10318046,0.027090386,0.0,0.0,0.0,-0.025681939,0.018311273,0.3227784,0.11918252,0.16176316,0.042559523,-0.043252576,0.06786174,-0.1372955,0.08895231,-0.12530491,0.14773187,0.05009163,0.014361846,0.011178436,-0.034750763,0.017144797,0.20869692,-0.072096005,-0.0660083,0.097991474,-0.09686401,0.013116332,0.07915287,-0.0074832765,2.0,-0.10356876,-2.0,2.0,1.5556675,-0.21027343,-2.0,1.3771198,-2.0,-2.0,-0.25460994,-2.0,2.0,0.03229639,-2.0,2.0,2.0,-0.77056426,-2.0,0.6091496,-2.0,-2.0,0.2144564,-2.0
2025-07-21 14:57:37.248,0.9200000000000005,920,46,0.026587607,-0.089857265,0.08047036,-0.056931864,-0.03783315,0.015846532,0.0,0.0,0.0,-0.02758697,0.019292269,0.3331147,0.119231306,0.15851864,0.10745065,-0.051771194,0.050885923,-0.101537675,0.0385211,-0.10975812,0.1574696,0.022864476,-0.049945947,-0.008495562,-0.025876632,-0.025031367,0.100655615,-0.040959455,0.024319798,0.044727396,-0.12655611,0.027684992,-0.012097209,-0.045829963,2.0,0.03229639,-2.0,2.0,2.0,-0.77056426,-2.0,0.6091496,-2.0,-2.0,0.2144564,-2.0,2.0,-0.29567942,-2.0,2.0,2.0,-1.3180693,-2.0,1.5046861,-2.0,-2.0,0.07803728,-2.0
2025-07-21 14:57:37.269,0.9400000000000005,940,47,0.041378655,-0.09849489,0.123987444,-0.018811213,-0.06393388,0.020360215,0.0,0.0,0.0,-0.02981005,0.02816824,0.32260004,0.10117394,0.1628207,0.15040766,-0.050493088,0.031852797,-0.0517064,-0.00703906,-0.12003508,0.17253052,-0.0018779385,-0.020557048,-0.0529544,-0.025285475,-0.040582363,0.10407224,-0.07414413,-0.08986903,0.098001845,-0.07595241,-0.08274749,0.013920314,0.002792618,2.0,-0.29567942,-2.0,2.0,2.0,-1.3180693,-2.0,1.5046861,-2.0,-2.0,0.07803728,-2.0,2.0,-0.5692562,-2.0,2.0,2.0,-2.0,-2.0,1.1824515,-2.0,-2.0,-0.17705671,-2.0
2025-07-21 14:57:37.290,0.9600000000000005,960,48,-0.035931278,-0.009736004,0.16955085,-0.046018045,-0.04000052,-0.033786282,0.0,0.0,0.0,-0.03209097,0.025255436,0.29693934,0.086851545,0.16365154,0.16857654,-0.08330203,0.018327465,-0.015733523,-0.0602487,-0.116986774,0.16837163,-0.026233116,-0.050012518,-0.09951218,0.034078486,0.044296127,0.033091664,0.005046299,-0.058681868,0.14038916,-0.0579048,-0.022338206,0.01027865,-0.09907111,2.0,-0.5692562,-2.0,2.0,2.0,-2.0,-2.0,1.1824515,-2.0,-2.0,-0.17705671,-2.0,2.0,-0.36030236,-2.0,2.0,2.0,-2.0,-2.0,0.7569299,-2.0,-2.0,-0.13515483,-2.0
2025-07-21 14:57:37.308,0.9800000000000005,980,49,-0.028928118,-0.009511719,0.111785434,-0.001485846,-0.07270771,-0.01920595,0.0,0.0,0.0,-0.03443894,0.04620732,0.26911375,0.0843803,0.15235977,0.18888485,-0.11520811,0.0040901857,0.007109745,-0.08178242,-0.12611033,0.14673303,-0.05052496,0.07340225,-0.06399964,-0.034222163,0.01905222,-0.016092073,-0.071086496,0.017483162,0.08651243,0.008498147,0.029130766,-0.003985431,0.034497276,2.0,-0.36030236,-2.0,2.0,2.0,-2.0,-2.0,0.7569299,-2.0,-2.0,-0.13515483,-2.0,2.0,-0.12682518,-2.0,2.0,2.0,-2.0,-2.0,1.2577167,-2.0,-2.0,-0.19057916,-2.0
2025-07-21 14:57:37.326,1.0000000000000004,1000,50,-0.011829954,0.017469307,0.09704905,-0.068147756,-0.042557575,-0.0012695563,0.0,0.0,0.0,-0.036654387,0.036189724,0.23468715,0.06313359,0.16942242,0.17911547,-0.13352185,0.003453823,0.012891488,-0.106106564,-0.1375603,0.13522659,-0.055704486,-0.05495739,-0.06060226,-0.05665869,-0.022511784,-0.013741317,-0.020942366,-0.09281583,-0.017821021,-0.028370472,-0.024322065,-0.07529329,-0.034515962,2.0,-0.12682518,-2.0,2.0,2.0,-2.0,-2.0,1.2577167,-2.0,-2.0,-0.19057916,-2.0,2.0,-0.052683264,-2.0,2.0,2.0,-2.0,-2.0,1.2193122,-2.0,-2.0,-0.18808459,-2.0
2025-07-21 14:57:37.346,1.0200000000000005,1020,51,-0.0649659,-0.022752892,0.09847065,-0.047430657,-0.08412702,-0.036872253,0.0,0.0,0.0,-0.038772184,0.048624273,0.24009244,0.055155523,0.16272639,0.19708502,-0.14084865,-0.015500869,0.036436334,-0.13113002,-0.1529462,0.12492886,-0.06781734,0.058470562,-0.00079241866,-0.02682957,-0.036536045,0.053950526,0.007905673,-0.05891724,0.10554195,0.020221181,-0.037577797,0.04929407,-0.02808713,2.0,-0.052683264,-2.0,2.0,2.0,-2.0,-2.0,1.2193122,-2.0,-2.0,-0.18808459,-2.0,2.0,-0.45633635,-2.0,2.0,2.0,-2.0,-2.0,1.1346916,-2.0,-2.0,-0.29658014,-2.0
2025-07-21 14:57:37.365,1.0400000000000005,1040,52,-0.028818615,0.02578414,0.04544586,0.003552916,-0.030791217,-0.035095714,0.0,0.0,0.0,-0.040851258,0.037868537,0.20816872,0.054871418,0.17212076,0.18333319,-0.14940275,-0.029231504,0.03376092,-0.13792087,-0.16161573,0.10394162,-0.065562665,0.061432358,-0.019537073,0.055843238,0.007597768,-0.015237125,0.025105257,-0.06546923,-0.0018127816,0.0018774414,-0.0068565505,0.010787615,0.058121324,2.0,-0.45633635,-2.0,2.0,2.0,-2.0,-2.0,1.1346916,-2.0,-2.0,-0.29658014,-2.0,2.0,-0.046581894,-2.0,2.0,2.0,-1.8698887,-2.0,1.7911451,-2.0,-2.0,-0.3001625,-2.0
2025-07-21 14:57:37.384,1.0600000000000005,1060,53,-0.025752852,-0.04101572,0.10969416,-0.033627704,-0.09361258,-0.04416422,0.0,0.0,0.0,-0.04274645,0.054661255,0.20920546,0.039930377,0.18264098,0.18033119,-0.15579343,-0.02661301,0.06335716,-0.15571049,-0.15169431,0.0958765,-0.058096398,0.032271218,0.015138205,-0.078073084,0.032524187,-0.036930013,-0.055500492,0.0063388017,0.09680732,0.02415402,-0.03121502,0.010757976,-0.044513963,2.0,-0.046581894,-2.0,2.0,2.0,-1.8698887,-2.0,1.7911451,-2.0,-2.0,-0.3001625,-2.0,2.0,-0.006225556,-2.0,2.0,1.9929141,-2.0,-2.0,1.127209,-2.0,-2.0,-0.2510271,-2.0
2025-07-21 14:57:37.405,1.0800000000000005,1080,54,-0.05686171,0.019294491,0.06225394,-0.06454843,-0.055208396,0.02209599,0.0,0.0,0.0,-0.04462193,0.05699592,0.20923683,0.034899358,0.17440356,0.17876185,-0.15475275,-0.031789165,0.058654353,-0.16138653,-0.16146857,0.10521293,-0.055346843,-0.0055849,-0.014837379,0.039281525,-0.0038132765,-0.024515482,-0.03507223,0.049371935,-0.042616323,-0.060528997,0.03958207,-0.02884622,-0.057221077,2.0,-0.006225556,-2.0,2.0,1.9929141,-2.0,-2.0,1.127209,-2.0,-2.0,-0.2510271,-2.0,2.0,0.26088235,-2.0,2.0,2.0,-2.0,-2.0,1.7189705,-2.0,-2.0,-0.11429839,-2.0
2025-07-21 14:57:37.427,1.1000000000000005,1100,55,0.016097257,-0.07272176,0.038657453,-0.016776446,-0.08053225,-0.031221837,0.0,0.0,0.0,-0.046370074,0.046535492,0.22549796,0.037698194,0.19061872,0.18097915,-0.1541606,-0.044010364,0.07729353,-0.17562337,-0.16640168,0.10102268,-0.05947918,0.06607707,0.02481684,-0.0147573715,-0.042371854,0.038592912,0.049264655,0.0059259087,0.023801208,0.04677392,0.010756844,0.024670484,0.046901148,2.0,0.26088235,-2.0,2.0,2.0,-2.0,-2.0,1.7189705,-2.0,-2.0,-0.11429839,-2.0,2.0,-0.27460715,-2.0,2.0,1.2579383,-2.0,-2.0,1.5254567,-2.0,-2.0,-0.34396577,-2.0
2025-07-21 14:57:37.444,1.1200000000000006,1120,56,-0.08031991,-0.060350444,0.06843268,0.008748477,-0.053338274,0.027641535,0.0,0.0,0.0,-0.047964625,0.0531451,0.22045973,0.04582415,0.19418268,0.18565041,-0.15549786,-0.061074715,0.08738421,-0.17802252,-0.16297886,0.0955422,-0.051836465,-0.008704254,0.014627492,0.04579683,0.07998535,-0.036953583,0.058712486,0.03803883,-0.05495273,0.03630848,-0.006469429,-0.024384413,0.0932383,2.0,-0.27460715,-2.0,2.0,1.2579383,-2.0,-2.0,1.5254567,-2.0,-2.0,-0.34396577,-2.0,2.0,0.17818609,-2.0,2.0,2.0,-2.0,-2.0,1.6444359,-2.0,-2.0,-0.27844477,-2.0
2025-07-21 14:57:37.465,1.1400000000000006,1140,57,-0.05725708,-0.04351938,0.09827522,-0.006498028,-0.016141063,-0.022576518,0.0,0.0,0.0,-0.049614582,0.061627954,0.21297929,0.05348912,0.19476847,0.17834412,-0.15084936,-0.055463184,0.10337091,-0.17723735,-0.18420486,0.08187028,-0.04862662,-0.036771707,0.013651974,0.0698938,0.082299426,-0.029873513,-0.00094328535,-0.017224228,0.039543293,-0.08288961,-0.08545234,-0.048157703,0.03585071,2.0,0.17818609,-2.0,2.0,2.0,-2.0,-2.0,1.6444359,-2.0,-2.0,-0.27844477,-2.0,2.0,-0.115599126,-2.0,2.0,1.5292102,-2.0,-2.0,1.8041854,-2.0,-2.0,-0.19991444,-2.0
2025-07-21 14:57:37.486,1.1600000000000006,1160,58,0.0090956595,-0.039154384,0.066790424,-0.09294521,-0.09402364,-0.0068561146,0.0,0.0,0.0,-0.05120275,0.059879404,0.22830433,0.056962583,0.2065694,0.1744123,-0.138713,-0.059010863,0.10695223,-0.18853037,-0.18890077,0.07870017,-0.046306558,0.005458425,0.01622429,0.03210573,0.075006,0.043227646,0.07954715,0.025900457,-0.02007929,0.03506591,0.03509153,0.059237037,0.00080626784,2.0,-0.115599126,-2.0,2.0,1.5292102,-2.0,-2.0,1.8041854,-2.0,-2.0,-0.19991444,-2.0,2.0,-0.15598586,-2.0,2.0,1.7572433,-2.0,-2.0,1.4078493,-2.0,-2.0,-0.41693413,-2.0
2025-07-21 14:57:37.504,1.1800000000000006,1180,59,-0.012579221,0.029499622,0.04354643,-0.068604834,-0.04568121,-0.018410185,0.0,0.0,0.0,-0.052698076,0.055271026,0.22711027,0.054633155,0.1983757,0.16122611,-0.12072767,-0.073695876,0.1214293,-0.192052,-0.18739615,0.061934803,-0.021163799,0.024673123,0.068401575,-0.004067375,-0.057107113,-0.038079336,-0.05673054,0.05830241,-0.056226194,0.062565066,-0.027025938,-0.06968099,0.07208404,2.0,-0.15598586,-2.0,2.0,1.7572433,-2.0,-2.0,1.4078493,-2.0,-2.0,-0.41693413,-2.0,2.0,0.20200929,-2.0,2.0,1.8759586,-2.0,-2.0,1.9184375,-2.0,-2.0,-0.4059934,-2.0
2025-07-21 14:57:37.524,1.2000000000000006,1200,60,-0.027362749,-0.007838932,0.06225339,-0.0772051,-0.016831975,0.0045167184,0.0,0.0,0.0,-0.05396504,0.06031354,0.24043788,0.05930551,0.2081535,0.16527705,-0.12755111,-0.0771161,0.11569844,-0.18637474,-0.18528101,0.06823625,-0.019655233,-0.021271063,-0.048607875,-0.003422093,-0.02328581,-0.026094224,-0.031319883,-0.054802306,-0.030385096,0.022610188,-0.071624205,-0.06545725,0.06799091,2.0,0.20200929,-2.0,2.0,1.8759586,-2.0,-2.0,1.9184375,-2.0,-2.0,-0.4059934,-2.0,2.0,-0.15621582,-2.0,2.0,1.3809644,-2.0,-2.0,1.6112151,-2.0,-2.0,-0.40445387,-2.0
2025-07-21 14:57:37.546,1.2200000000000006,1220,61,-0.066760994,-0.04902778,0.038855493,-0.040713273,-0.06134752,0.021663537,0.0,0.0,0.0,-0.055087887,0.06689243,0.24415657,0.07217521,0.20016672,0.1610894,-0.12019405,-0.0793317,0.116180964,-0.1806538,-0.19245334,0.05667669,-0.015131911,0.07266829,-0.05259109,0.049330905,0.060660373,0.008902281,-0.034183174,-0.008911473,-0.05587524,0.07110332,-0.07786033,0.0015726064,-0.009910874,2.0,-0.15621582,-2.0,2.0,1.3809644,-2.0,-2.0,1.6112151,-2.0,-2.0,-0.40445387,-2.0,2.0,-0.06484255,-2.0,2.0,1.5471144,-1.49065,-2.0,1.6102842,-2.0,-2.0,-0.51248646,-2.0
2025-07-21 14:57:37.569,1.2400000000000007,1240,62,-0.0564013,0.016736815,0.007918702,-0.03504874,-0.08180098,0.049277585,0.0,0.0,0.0,-0.05616282,0.065220475,0.23479258,0.058858406,0.20435673,0.15233673,-0.114564605,-0.08078865,0.1291995,-0.17958641,-0.1985671,0.04359681,0.0020973438,0.052002862,0.009432533,0.04956935,-0.0423459,0.028776731,0.048331015,-0.036472205,-0.049013324,0.0066580903,0.049594205,0.01364169,0.0031244035,2.0,-0.06484255,-2.0,2.0,1.5471144,-1.49065,-2.0,1.6102842,-2.0,-2.0,-0.51248646,-2.0,2.0,0.08948967,-2.0,2.0,1.571054,-1.6988038,-2.0,1.8416315,-2.0,-2.0,-0.50866187,-2.0
2025-07-21 14:57:37.584,1.2600000000000007,1260,63,-0.0034969724,0.017650977,0.012117041,-0.022451956,-0.040805615,-0.006335761,0.0,0.0,0.0,-0.056976058,0.071090244,0.23721023,0.06120271,0.20479211,0.14468187,-0.09961216,-0.0995388,0.13954246,-0.18225262,-0.20245385,0.04719154,0.014073644,0.04497655,0.010408382,-0.04982798,-0.02336925,-0.023323966,0.0030018908,0.010820172,0.05072934,0.008850631,0.063946456,-0.039464165,-0.040043496,2.0,0.08948967,-2.0,2.0,1.571054,-1.6988038,-2.0,1.8416315,-2.0,-2.0,-0.50866187,-2.0,2.0,0.17359218,-2.0,2.0,1.4827104,-1.9360123,-2.0,1.9041212,-2.0,-2.0,-0.5837097,-2.0
2025-07-21 14:57:37.605,1.2800000000000007,1280,64,-0.06186617,-0.0007684358,0.002790716,-0.09994963,-0.010470391,0.031000175,0.0,0.0,0.0,-0.057610337,0.06702915,0.25297087,0.07693513,0.22205684,0.1525515,-0.09846783,-0.092599966,0.13855207,-0.18230887,-0.1917503,0.045224827,0.012956138,0.05929613,-0.057737358,-0.05334626,-0.017749406,0.03832791,0.0125611825,0.018301664,0.015241447,0.05816337,-0.015014114,-0.010716087,0.09224233,2.0,0.17359218,-2.0,2.0,1.4827104,-1.9360123,-2.0,1.9041212,-2.0,-2.0,-0.5837097,-2.0,2.0,-0.050882548,-2.0,2.0,1.239899,-2.0,-2.0,1.6323302,-2.0,-2.0,-0.6703806,-2.0
2025-07-21 14:57:37.624,1.3000000000000007,1300,65,-0.10014436,0.07071828,-0.002377522,-0.06500933,-0.05838677,0.043290135,0.0,0.0,0.0,-0.058334325,0.073616356,0.26093566,0.059145045,0.22322509,0.14190951,-0.092771314,-0.088312484,0.13361993,-0.18414302,-0.19568431,0.038889628,0.032780133,-0.07120194,-0.056822427,0.028846078,0.06315608,-0.021080177,0.06958408,-0.050899338,0.06136224,0.0005530032,0.015775818,0.026853835,0.035544563,2.0,-0.050882548,-2.0,2.0,1.239899,-2.0,-2.0,1.6323302,-2.0,-2.0,-0.6703806,-2.0,2.0,0.25794944,-2.0,2.0,1.360383,-2.0,-2.0,1.8855163,-2.0,-2.0,-0.65350235,-2.0
2025-07-21 14:57:37.645,1.3200000000000007,1320,66,-0.08258891,0.022798752,0.07754269,-0.09997712,-0.07070111,-0.023241952,0.0,0.0,0.0,-0.059139714,0.06671934,0.2575742,0.05523887,0.21262337,0.13735215,-0.085659645,-0.091507584,0.13949086,-0.1802782,-0.1954904,0.02227747,0.032917894,-0.022187911,0.07085936,-0.063477844,-0.055919256,-0.077421114,0.07135253,-0.07345142,0.022824954,-0.029002009,0.058080487,-0.032403544,0.06897581,2.0,0.25794944,-2.0,2.0,1.360383,-2.0,-2.0,1.8855163,-2.0,-2.0,-0.65350235,-2.0,2.0,-0.0027095973,-2.0,2.0,1.6428132,-2.0,-2.0,1.5555408,-2.0,-2.0,-0.5249126,-2.0
2025-07-21 14:57:37.664,1.3400000000000007,1340,67,-0.068141945,0.027504103,0.037181694,-0.054762937,-0.013052001,-0.008980165,0.0,0.0,0.0,-0.060050517,0.0783095,0.26258275,0.05761287,0.21988459,0.13950361,-0.09175287,-0.11122985,0.14316714,-0.18211412,-0.21126544,0.028977938,0.031174857,0.0010920907,0.01380496,0.0055161295,-0.017121019,-0.0661034,-0.012171161,0.026417958,0.028101817,-0.0048904517,0.017733062,-0.049746495,0.08423324,2.0,-0.0027095973,-2.0,2.0,1.6428132,-2.0,-2.0,1.5555408,-2.0,-2.0,-0.5249126,-2.0,2.0,0.06296703,-2.0,2.0,1.5309414,-2.0,-2.0,2.0,-2.0,-2.0,-0.6006172,-2.0
2025-07-21 14:57:37.685,1.3600000000000008,1360,68,-0.06887748,0.00044022957,0.018696425,-0.06326284,-0.027426727,-0.031989932,0.0,0.0,0.0,-0.060801193,0.07296348,0.26254445,0.066114195,0.21232013,0.15146971,-0.088504784,-0.104597256,0.1482457,-0.17505081,-0.20313874,0.018795596,0.041719865,0.041095603,0.056841787,0.06117269,0.052158725,0.008445381,0.009235453,0.03140895,0.072141364,-0.055124607,0.03991829,-0.04642867,0.048318,2.0,0.06296703,-2.0,2.0,1.5309414,-2.0,-2.0,2.0,-2.0,-2.0,-0.6006172,-2.0,2.0,0.027840942,-2.0,2.0,1.3251736,-2.0,-2.0,2.0,-2.0,-2.0,-0.6627676,-2.0
2025-07-21 14:57:37.705,1.3800000000000008,1380,69,-0.019890452,-0.027195945,0.0135365445,-0.07810814,-0.042191956,0.040727895,0.0,0.0,0.0,-0.06138741,0.06929496,0.26428676,0.05555608,0.2285537,0.14220527,-0.10428652,-0.11968959,0.169481,-0.18143348,-0.20838282,0.023857666,0.041530073,0.05275958,0.0036712636,-0.060577314,-0.025264982,0.057805885,0.0069888798,-0.0022616468,0.07354376,-0.026426194,0.068445906,-0.06465033,0.06568957,2.0,0.027840942,-2.0,2.0,1.3251736,-2.0,-2.0,2.0,-2.0,-2.0,-0.6627676,-2.0,2.0,0.15078762,-2.0,2.0,1.4404398,-2.0,-2.0,1.8257201,-2.0,-2.0,-0.65935385,-2.0
2025-07-21 14:57:37.728,1.4000000000000008,1400,70,-0.06374734,0.06749233,0.055049628,-0.091986366,-0.009640989,-0.0017420315,0.0,0.0,0.0,-0.06207087,0.08031722,0.2684254,0.040214606,0.21681756,0.15408336,-0.09399923,-0.11416627,0.17131594,-0.16370751,-0.20059355,0.010667292,0.04415463,0.05647056,-0.013481494,-0.017952954,-0.033467002,-0.05370982,-0.03818341,0.04935338,0.05547248,0.05450421,-0.0417213,0.047898304,0.04745825,2.0,0.15078762,-2.0,2.0,1.4404398,-2.0,-2.0,1.8257201,-2.0,-2.0,-0.65935385,-2.0,2.0,-0.22172925,-2.0,2.0,1.5718192,-2.0,-2.0,1.7255249,-2.0,-2.0,-0.63766044,-2.0
2025-07-21 14:57:37.745,1.4200000000000008,1420,71,0.02139216,0.031496268,-0.018353624,-0.06659292,0.00081958814,0.024838895,0.0,0.0,0.0,-0.062754594,0.08796569,0.28103873,0.049640015,0.22054946,0.14544582,-0.10892186,-0.11861912,0.16459148,-0.16745608,-0.20538898,0.01437933,0.06749899,-0.025301572,0.015213289,0.029835297,-0.03386782,0.051635936,-0.07938325,-0.03040244,-0.060622077,-0.038183354,0.004126339,0.0016270153,-0.005430054,2.0,-0.22172925,-2.0,2.0,1.5718192,-2.0,-2.0,1.7255249,-2.0,-2.0,-0.63766044,-2.0,2.0,-0.19119534,-2.0,2.0,1.4518917,-1.5871624,-2.0,2.0,-2.0,-2.0,-0.7063656,-2.0
2025-07-21 14:57:37.767,1.4400000000000008,1440,72,-0.016877994,-0.01494524,-0.003114084,-0.02751004,0.025526272,-0.039767753,0.0,0.0,0.0,-0.06319091,0.07707415,0.26438656,0.046605807,0.23108734,0.15128307,-0.11177161,-0.119725555,0.16362903,-0.17086448,-0.20011906,0.010430318,0.06280207,-0.050203245,0.013121981,-0.0076412614,-0.04919672,0.023587503,0.06826545,0.008660041,0.06272896,0.00094973145,0.030539658,-0.042033248,-0.04816059,2.0,-0.19119534,-2.0,2.0,1.4518917,-1.5871624,-2.0,2.0,-2.0,-2.0,-0.7063656,-2.0,2.0,0.047112912,-2.0,2.0,1.6152755,-2.0,-2.0,2.0,-2.0,-2.0,-0.6246296,-2.0
2025-07-21 14:57:37.786,1.4600000000000009,1460,73,-0.016680224,0.046782527,-0.0007893229,-0.095322974,-0.048616093,0.032643277,0.0,0.0,0.0,-0.06341341,0.08465778,0.25528967,0.04590348,0.2285454,0.14567205,-0.10908884,-0.12261439,0.18313718,-0.16960225,-0.20276295,0.01784654,0.071018055,9.62315e-05,0.07005945,-0.017751297,-0.064737976,0.010676093,-0.069639064,-0.045176584,0.07287762,0.058590464,-0.06743459,-0.02967206,0.053570915,2.0,0.047112912,-2.0,2.0,1.6152755,-2.0,-2.0,2.0,-2.0,-2.0,-0.6246296,-2.0,2.0,-0.0098342,-2.0,2.0,1.1396511,-2.0,-2.0,2.0,-2.0,-2.0,-0.83633363,-2.0
2025-07-21 14:57:37.805,1.4800000000000009,1480,74,-0.05619202,0.023633173,-0.023565313,-0.0127303405,-0.0028541253,-0.036466666,0.0,0.0,0.0,-0.063597515,0.07037444,0.26948792,0.05484185,0.22931996,0.15019001,-0.10818804,-0.12229539,0.18757576,-0.1616939,-0.2161544,0.01939911,0.059515126,0.06455416,0.044404093,0.043569464,-0.053117566,0.005346538,0.0048153424,0.057375614,0.03949101,0.022505779,-0.06638557,0.061214566,-0.0075892247,2.0,-0.0098342,-2.0,2.0,1.1396511,-2.0,-2.0,2.0,-2.0,-2.0,-0.83633363,-2.0,2.0,-0.122516155,-2.0,2.0,1.2646152,-2.0,-2.0,2.0,-2.0,-2.0,-0.77246845,-2.0
2025-07-21 14:57:37.825,1.5000000000000009,1500,75,-0.026396766,0.030049337,0.05757165,-0.082218476,-0.009871006,0.0081882,0.0,0.0,0.0,-0.06391979,0.08955204,0.25897488,0.045217693,0.22091171,0.16381851,-0.11243808,-0.115478694,0.189839,-0.17512542,-0.19886136,0.0147730475,0.07525713,-0.059435118,-0.058346394,0.024810415,0.066962235,0.002293209,0.06931529,0.025483098,-0.055389944,0.050548207,-0.043428075,0.04891599,-0.045534015,2.0,-0.122516155,-2.0,2.0,1.2646152,-2.0,-2.0,2.0,-2.0,-2.0,-0.77246845,-2.0,2.0,-0.21996865,-2.0,2.0,1.8364259,-2.0,-2.0,1.6284258,-2.0,-2.0,-0.5439856,-2.0
2025-07-21 14:57:37.846,1.520000000000001,1520,76,0.037553277,0.08540079,0.0073652174,-0.062829725,0.019618291,-0.015609724,0.0,0.0,0.0,-0.06440687,0.074728355,0.26217523,0.040526178,0.23558621,0.16132087,-0.10203203,-0.13582888,0.1938417,-0.16414669,-0.20497316,0.0045195506,0.07609183,0.0287138,0.05007724,-0.03704874,0.047442526,-0.049046773,-0.053465623,0.009932409,0.030856786,-0.056877974,-0.043749887,0.0039580367,0.06756519,2.0,-0.21996865,-2.0,2.0,1.8364259,-2.0,-2.0,1.6284258,-2.0,-2.0,-0.5439856,-2.0,2.0,-0.24068949,-2.0,2.0,1.5589201,-1.5382067,-2.0,2.0,-2.0,-2.0,-0.741588,-2.0
2025-07-21 14:57:37.872,1.540000000000001,1540,77,-0.04011221,0.018158467,0.012153534,-0.019586507,-0.042397648,-0.04773825,0.0,0.0,0.0,-0.064557955,0.07416708,0.24286439,0.049134735,0.2251548,0.16055807,-0.100962825,-0.1220218,0.18405399,-0.15188037,-0.19705643,0.017583722,0.082991146,-0.062177572,0.03227996,-0.016891338,0.047660656,0.07743672,0.07615872,-0.0069281547,0.03871508,-0.047125842,0.07085023,-0.058825865,-0.0029093912,2.0,-0.24068949,-2.0,2.0,1.5589201,-1.5382067,-2.0,2.0,-2.0,-2.0,-0.741588,-2.0,2.0,0.042153507,-2.0,2.0,1.8142334,-2.0,-2.0,2.0,-2.0,-2.0,-0.5381118,-2.0
2025-07-21 14:57:37.891,1.560000000000001,1560,78,0.030634077,0.04626419,0.015087516,-0.056312542,-0.0131898215,-0.028365966,0.0,0.0,0.0,-0.06433941,0.06870028,0.2495999,0.051815003,0.22049387,0.17150696,-0.10115136,-0.13146333,0.19760649,-0.14809409,-0.2111232,0.012512281,0.07975282,0.06007551,0.08083195,0.0020037538,-0.03262723,-0.010681456,-0.018513232,0.0398283,-0.00025621842,0.009790869,0.03341036,0.084362835,0.03678528,2.0,0.042153507,-2.0,2.0,1.8142334,-2.0,-2.0,2.0,-2.0,-2.0,-0.5381118,-2.0,2.0,-0.4412777,-2.0,2.0,1.552281,-1.632526,-2.0,2.0,-2.0,-2.0,-0.71333456,-2.0
2025-07-21 14:57:37.912,1.580000000000001,1580,79,0.043070935,0.03076666,-0.046092708,-0.07005846,-0.054804906,0.0259922,0.0,0.0,0.0,-0.064007476,0.06566641,0.23165132,0.05792525,0.22394447,0.18204473,-0.10651346,-0.12770557,0.20639075,-0.15951948,-0.19244276,0.030116064,0.07624946,-0.064474575,-0.055126715,0.07598692,0.008527573,0.002214029,0.035014216,-0.02297016,-0.022987958,-0.053189773,-0.0050246767,-0.016961196,-0.021480097,2.0,-0.4412777,-2.0,2.0,1.552281,-1.632526,-2.0,2.0,-2.0,-2.0,-0.71333456,-2.0,2.0,0.26153442,-2.0,2.0,1.7034798,-2.0,-2.0,2.0,-2.0,-2.0,-0.57962966,-2.0
2025-07-21 14:57:37.925,1.600000000000001,1600,80,0.01623939,0.041334916,-0.068527766,-0.0054121995,-0.0047296714,0.04005759,0.0,0.0,0.0,-0.06355896,0.075371906,0.23605406,0.043526333,0.23329568,0.19134134,-0.103744574,-0.12119627,0.20902634,-0.15381101,-0.19864583,0.023239775,0.0711964,0.07086144,-0.03696048,0.053447135,0.042348076,0.025607549,0.07307283,-0.019954875,0.020686591,-0.058930203,0.04606633,0.020943586,0.038923204,2.0,0.26153442,-2.0,2.0,1.7034798,-2.0,-2.0,2.0,-2.0,-2.0,-0.57962966,-2.0,2.0,-0.09462616,-2.0,2.0,0.94821703,-2.0,-2.0,2.0,-2.0,-2.0,-0.73621845,-2.0
2025-07-21 14:57:37.950,1.620000000000001,1620,81,-0.0036053453,0.064049855,0.04792828,-0.053036045,0.03842351,0.018142985,0.0,0.0,0.0,-0.0631273,0.07797923,0.24452686,0.037903767,0.22203475,0.18593328,-0.10894103,-0.12539768,0.21578482,-0.14841296,-0.18986198,0.038707457,0.081103474,-0.005950741,-0.061361276,-0.049626984,0.050921746,0.05763531,-0.05105719,0.0025778296,0.07954105,0.0020080574,-0.016843995,0.049491882,-0.061289422,2.0,-0.09462616,-2.0,2.0,0.94821703,-2.0,-2.0,2.0,-2.0,-2.0,-0.73621845,-2.0,2.0,-0.112487406,-2.0,2.0,1.9142692,-2.0,-2.0,1.8217658,-2.0,-2.0,-0.54574287,-2.0
2025-07-21 14:57:37.971,1.640000000000001,1640,82,-0.015172625,0.045471556,-0.018445294,-0.0030922866,-0.04277023,-0.024207458,0.0,0.0,0.0,-0.062975176,0.06395286,0.23559007,0.048589136,0.21912692,0.19496408,-0.104456484,-0.13408206,0.21803667,-0.15128714,-0.2034413,0.03059498,0.08599717,0.031429972,0.031903084,0.024439016,0.06619497,-0.021670029,-0.076412566,-0.051240362,0.012632794,-0.059960958,-0.039778046,0.07173007,0.053825084,2.0,-0.112487406,-2.0,2.0,1.9142692,-2.0,-2.0,1.8217658,-2.0,-2.0,-0.54574287,-2.0,2.0,-0.30838802,-2.0,2.0,1.4482201,-1.4098777,-2.0,2.0,-2.0,-2.0,-0.74038845,-2.0
2025-07-21 14:57:37.987,1.660000000000001,1660,83,-0.047719374,0.00025554467,-0.04907519,-0.057460085,0.035053853,0.024903925,0.0,0.0,0.0,-0.062808305,0.06448907,0.23127805,0.042836275,0.223783,0.19081698,-0.10213776,-0.13042524,0.20909631,-0.13528322,-0.18493801,0.032689407,0.09711352,-0.06995238,-0.062499963,-0.0003689866,0.036492255,0.079076,0.04378708,-0.0132237,-0.048412506,-0.0059436783,0.05848094,0.057704702,0.06878638,2.0,-0.30838802,-2.0,2.0,1.4482201,-1.4098777,-2.0,2.0,-2.0,-2.0,-0.74038845,-2.0,2.0,-0.100183636,-2.0,2.0,1.7143435,-2.0,-2.0,2.0,-2.0,-2.0,-0.63539207,-2.0
2025-07-21 14:57:38.006,1.680000000000001,1680,84,0.0199116,0.06000167,-0.01909051,-0.04753773,0.026506975,-0.038541436,0.0,0.0,0.0,-0.062421743,0.07743425,0.2398773,0.044283226,0.23384647,0.204091,-0.100586,-0.13798422,0.22133374,-0.1455839,-0.18485622,0.026762499,0.10364157,-0.03484258,-0.060051963,-0.0669799,-0.035728958,-0.05774305,-0.06505307,-0.0131969135,0.07476719,-0.049012538,0.029716007,-0.027190875,0.061865266,2.0,-0.100183636,-2.0,2.0,1.7143435,-2.0,-2.0,2.0,-2.0,-2.0,-0.63539207,-2.0,2.0,0.06255272,-2.0,2.0,1.6728196,-2.0,-2.0,2.0,-2.0,-2.0,-0.6646744,-2.0
2025-07-21 14:57:38.026,1.700000000000001,1700,85,-0.03898377,0.056677353,0.03668111,-0.04749424,0.009597962,-0.01740157,0.0,0.0,0.0,-0.062032208,0.07826358,0.24661483,0.044821605,0.23350915,0.20099956,-0.11039504,-0.13940196,0.21738048,-0.13439132,-0.18974932,0.03667985,0.08701092,0.07253187,-0.05347865,-0.07093064,0.00763306,0.08073845,-0.025068812,0.018247567,0.055353206,-0.0034186484,-0.057033382,0.0010535618,0.043383367,2.0,0.06255272,-2.0,2.0,1.6728196,-2.0,-2.0,2.0,-2.0,-2.0,-0.6646744,-2.0,2.0,-0.5268531,-2.0,2.0,1.7260634,-2.0,-2.0,2.0,-2.0,-2.0,-0.6090263,-2.0
2025-07-21 14:57:38.052,1.720000000000001,1720,86,-0.02559329,0.0026566142,-0.021426797,-0.03388584,0.04688105,-0.008892098,0.0,0.0,0.0,-0.06173025,0.05998564,0.22802016,0.0518205,0.22070622,0.21634276,-0.112600856,-0.13942152,0.22286797,-0.13806812,-0.1891839,0.046234813,0.106303655,0.031756107,-0.09114292,-0.027797583,0.07229597,0.00972618,0.012692117,0.021266686,0.024826659,-0.016585348,0.07357905,-0.06312495,0.08117858,2.0,-0.5268531,-2.0,2.0,1.7260634,-2.0,-2.0,2.0,-2.0,-2.0,-0.6090263,-2.0,2.0,-0.06290284,-2.0,2.0,1.9141223,-2.0,-2.0,2.0,-2.0,-2.0,-0.61434454,-2.0
2025-07-21 14:57:38.066,1.740000000000001,1740,87,-0.022993695,0.003521626,0.014931758,-0.05280429,0.035478644,-0.0074499003,0.0,0.0,0.0,-0.061420914,0.0674052,0.22289251,0.0462348,0.23167397,0.21456061,-0.119310975,-0.1404185,0.21742022,-0.13173366,-0.18181258,0.03438085,0.108876154,0.041182235,0.037766412,0.049290154,0.0286284,0.018875588,-0.06648701,0.032187577,0.05507755,-0.023016611,-0.02064906,-0.013139555,0.00256555,2.0,-0.06290284,-2.0,2.0,1.9141223,-2.0,-2.0,2.0,-2.0,-2.0,-0.61434454,-2.0,2.0,-0.268212,-2.0,2.0,1.6288711,-2.0,-2.0,2.0,-2.0,-2.0,-0.5743904,-2.0
2025-07-21 14:57:38.088,1.7600000000000011,1760,88,-0.047575075,0.068445094,0.021480184,-0.036556892,-0.007648715,0.014864497,0.0,0.0,0.0,-0.06106394,0.07093525,0.23163506,0.03676974,0.2320878,0.21633409,-0.115163006,-0.13154332,0.22667634,-0.1220675,-0.1806806,0.039355446,0.09678317,-0.058904476,-0.06381458,-0.05540728,-0.041580062,-0.022977497,0.032402582,-0.008560645,0.03982776,0.015387854,0.016917812,0.011995411,0.03742167,2.0,-0.268212,-2.0,2.0,1.6288711,-2.0,-2.0,2.0,-2.0,-2.0,-0.5743904,-2.0,2.0,-0.140057,-2.0,2.0,2.0,-2.0,-2.0,2.0,-2.0,-2.0,-0.5672484,-2.0
2025-07-21 14:57:38.106,1.7800000000000011,1780,89,-0.025174264,0.027572839,-0.003842572,-0.018716734,0.026117114,0.034918495,0.0,0.0,0.0,-0.0607131,0.067719236,0.23294291,0.039282244,0.21945481,0.22381546,-0.11200414,-0.13392088,0.22765806,-0.12668242,-0.17998594,0.04681709,0.104203954,0.068641454,-0.06361862,-0.035765156,-0.033867955,-0.009329908,0.017139131,-0.03398853,-0.014212102,0.010977618,-0.015046492,-0.021369133,-0.006572277,2.0,-0.140057,-2.0,2.0,2.0,-2.0,-2.0,2.0,-2.0,-2.0,-0.5672484,-2.0,2.0,-0.46483615,-2.0,2.0,1.7412424,-1.4493533,-2.0,2.0,-2.0,-2.0,-0.60405636,-2.0
2025-07-21 14:57:38.127,1.8000000000000012,1800,90,0.022018233,0.022360506,-0.044353258,-0.07292623,0.0030417396,-0.02094016,0.0,0.0,0.0,-0.060324255,0.07196003,0.21496063,0.05346104,0.23177876,0.23043884,-0.12080774,-0.12674657,0.23941822,-0.123939924,-0.17591757,0.05062216,0.101609625,0.023348935,0.00070355146,0.06990218,0.03481207,-0.054963678,-0.050345,-0.018654382,0.06442954,0.054755848,-0.022225685,0.0032490445,0.0073661897,2.0,-0.46483615,-2.0,2.0,1.7412424,-1.4493533,-2.0,2.0,-2.0,-2.0,-0.60405636,-2.0,2.0,-0.01486823,-2.0,2.0,1.7428684,-2.0,-2.0,2.0,-2.0,-2.0,-0.6989389,-2.0
2025-07-21 14:57:38.149,1.8200000000000012,1820,91,-0.057631385,0.04842221,-0.065679125,-0.044733264,-0.00974859,0.009550784,0.0,0.0,0.0,-0.059783287,0.06907524,0.20814054,0.04253198,0.2356285,0.246974,-0.12749459,-0.12863235,0.23748325,-0.11462926,-0.17182477,0.068058036,0.11509082,-0.0014453022,-0.043345314,-0.020297617,0.07519734,-0.050381295,-0.040526386,0.0069203163,0.048071664,-0.0021502585,0.07628011,0.022449695,-0.011514121,2.0,-0.01486823,-2.0,2.0,1.7428684,-2.0,-2.0,2.0,-2.0,-2.0,-0.6989389,-2.0,2.0,0.15955302,-2.0,2.0,1.5527838,-2.0,-2.0,2.0,-2.0,-2.0,-0.639007,-2.0
2025-07-21 14:57:38.166,1.8400000000000012,1840,92,0.016557066,0.027422035,-0.03667806,-0.013910074,-0.021923658,-0.028285474,0.0,0.0,0.0,-0.05928527,0.065402344,0.23060885,0.046909273,0.23060745,0.24519397,-0.12972893,-0.13115864,0.2510198,-0.11006876,-0.18127306,0.05999769,0.11119768,-0.06314649,-0.042888027,-0.032506872,0.07721932,0.07711405,0.0447127,0.068882905,0.06890448,-0.011929371,-0.061687592,-0.01875068,0.0178416,2.0,0.15955302,-2.0,2.0,1.5527838,-2.0,-2.0,2.0,-2.0,-2.0,-0.639007,-2.0,2.0,-0.1602951,-2.0,2.0,1.4973689,-2.0,-2.0,2.0,-2.0,-2.0,-0.63510203,-2.0
2025-07-21 14:57:38.188,1.8600000000000012,1860,93,-0.027591312,0.044476464,0.028968241,0.005898235,-0.036993504,1.9813462e-05,0.0,0.0,0.0,-0.059063688,0.06285559,0.22956991,0.04243958,0.21826228,0.24771868,-0.12015989,-0.12861738,0.2550751,-0.1201603,-0.17866947,0.06544427,0.11664499,0.04815286,-0.017343253,-0.0061975974,-0.017926743,0.04199506,-0.0680865,0.021588359,-0.04587441,-0.037594162,0.05181084,0.052961893,-0.04460384,2.0,-0.1602951,-2.0,2.0,1.4973689,-2.0,-2.0,2.0,-2.0,-2.0,-0.63510203,-2.0,2.0,-0.38529524,-2.0,2.0,2.0,-2.0,-2.0,2.0,-2.0,-2.0,-0.44501948,-2.0
2025-07-21 14:57:38.213,1.8800000000000012,1880,94,-0.03595023,0.055315517,-0.011761687,-0.014661192,0.037656985,-0.033146773,0.0,0.0,0.0,-0.059065007,0.056582615,0.21324904,0.03169181,0.2250683,0.25313205,-0.12393126,-0.12404802,0.25629303,-0.10649494,-0.18162808,0.06024823,0.13087988,-0.009075365,-0.018308336,-0.060939204,-0.056564633,0.04683061,-0.031425335,0.017145628,0.06267881,-0.023821898,0.025709368,-0.021834394,0.02280885,2.0,-0.38529524,-2.0,2.0,2.0,-2.0,-2.0,2.0,-2.0,-2.0,-0.44501948,-2.0,2.0,-0.32207778,-2.0,2.0,2.0,-1.8780465,-2.0,2.0,-2.0,-2.0,-0.5565363,-2.0
2025-07-21 14:57:38.227,1.9000000000000012,1900,95,-0.020897586,0.009435054,0.015401802,-0.052013095,0.04198659,-0.004293174,0.0,0.0,0.0,-0.058963705,0.060828518,0.20997253,0.03727262,0.23257306,0.26753438,-0.12025431,-0.14193036,0.25523564,-0.11521806,-0.16876778,0.07466349,0.13452883,0.03618641,-0.05753328,0.01824688,0.06088099,-0.0049106935,0.017345665,0.022416351,-0.05887523,-0.05203175,-0.02853237,0.00036843415,0.0733932,2.0,-0.32207778,-2.0,2.0,2.0,-1.8780465,-2.0,2.0,-2.0,-2.0,-0.5565363,-2.0,2.0,-0.5873562,-2.0,2.0,2.0,-2.0,-2.0,2.0,-2.0,-2.0,-0.4649405,-2.0
2025-07-21 14:57:38.253,1.9200000000000013,1920,96,0.021983655,-0.017584335,-0.06279998,-0.039515674,0.012407401,-0.034683187,0.0,0.0,0.0,-0.058630604,0.05405948,0.21223886,0.032580376,0.22303116,0.27306953,-0.1326733,-0.13915998,0.2569286,-0.11217847,-0.16676828,0.08297919,0.12070032,-0.02066448,-0.016433485,-0.016339697,-0.05177134,0.04694881,-0.043149598,-0.024746606,0.031644665,-0.0065083383,0.014104462,0.03037308,0.014812092,2.0,-0.5873562,-2.0,2.0,2.0,-2.0,-2.0,2.0,-2.0,-2.0,-0.4649405,-2.0,2.0,-0.31131312,-2.0,2.0,1.9112549,-1.5628709,-2.0,2.0,-2.0,-2.0,-0.6282239,-2.0
2025-07-21 14:57:38.268,1.9400000000000013,1940,97,0.0020259009,0.030613502,-0.031122368,0.026967186,-0.0012462676,0.02738293,0.0,0.0,0.0,-0.058105692,0.051490724,0.18502736,0.047592595,0.23236923,0.2792006,-0.12385983,-0.14235975,0.2578105,-0.10714676,-0.16747518,0.08428113,0.13744996,0.020833861,-0.0014813928,-0.06781298,-0.00927659,-0.02006375,0.015459701,0.04400963,-0.0150110265,0.047663413,0.06745662,-0.04268219,0.053261977,2.0,-0.31131312,-2.0,2.0,1.9112549,-1.5628709,-2.0,2.0,-2.0,-2.0,-0.6282239,-2.0,2.0,-0.15062383,-2.0,2.0,2.0,-1.7053034,-2.0,2.0,-2.0,-2.0,-0.5210246,-2.0
2025-07-21 14:57:38.287,1.9600000000000013,1960,98,-0.012549666,-0.01662818,-0.028086731,-0.03393491,0.00801061,0.024348361,0.0,0.0,0.0,-0.057464067,0.055529885,0.19371726,0.050763797,0.21553695,0.2912076,-0.13048166,-0.14427033,0.26373854,-0.10348863,-0.17209901,0.08727304,0.1400644,0.05122055,0.058739748,0.03222963,0.0046405373,-0.051142026,0.074730374,-0.06421415,0.07410832,-0.025225947,0.005225967,0.00999056,-0.023947114,2.0,-0.15062383,-2.0,2.0,2.0,-1.7053034,-2.0,2.0,-2.0,-2.0,-0.5210246,-2.0,2.0,-0.36376306,-2.0,2.0,1.8107445,-1.84475,-2.0,2.0,-2.0,-2.0,-0.5940827,-2.0
2025-07-21 14:57:38.309,1.9800000000000013,1980,99,-0.08117657,0.034412384,0.0054315142,0.02433729,0.004961534,0.0076503204,0.0,0.0,0.0,-0.05675759,0.066002816,0.1951794,0.03233769,0.22051822,0.2936324,-0.13099353,-0.1408724,0.2602801,-0.10280219,-0.17603582,0.082746595,0.13903645,-0.00043406093,-0.030865366,0.010199606,-0.04697595,0.013075238,0.0074459915,-0.0075140195,-0.010707928,-0.0008996262,0.019675521,0.071496345,0.0044393004,2.0,-0.36376306,-2.0,2.0,1.8107445,-1.84475,-2.0,2.0,-2.0,-2.0,-0.5940827,-2.0,2.0,-0.5056894,-2.0,2.0,2.0,-1.8834623,-2.0,2.0,-2.0,-2.0,-0.4773947,-2.0
2025-07-21 14:57:38.327,2.0000000000000013,2000,100,0.0071853995,-0.016992612,-0.046809692,-0.033769768,-0.020294877,0.009197121,0.0,0.0,0.0,-0.056050923,0.06383764,0.17982137,0.04868196,0.22575875,0.2932024,-0.13312449,-0.1415037,0.27544853,-0.08831054,-0.17339414,0.09361961,0.14718182,0.015506457,0.048754398,-0.0060541513,0.030330809,-0.054832257,-0.044411473,-0.043304082,-0.058601055,0.07673204,-0.011121816,-0.052187845,-0.022867763,2.0,-0.5056894,-2.0,2.0,2.0,-1.8834623,-2.0,2.0,-2.0,-2.0,-0.4773947,-2.0,2.0,-0.20099351,-2.0,2.0,1.9734253,-1.3729138,-2.0,2.0,-2.0,-2.0,-0.6566404,-2.0
2025-07-21 14:57:38.348,2.0200000000000014,2020,101,-0.08574738,-0.02688703,0.005386403,-0.02132121,-0.003807441,-0.023410516,0.0,0.0,0.0,-0.055325147,0.05408557,0.18357913,0.03549426,0.23077132,0.29815927,-0.11576625,-0.1424196,0.27555338,-0.08969223,-0.1646197,0.10809088,0.15727802,0.060507003,0.035513587,-0.024913238,0.05927274,0.044561274,0.005911466,-0.023700047,-0.007836196,-0.022989249,-0.04558876,0.004510625,0.03788316,2.0,-0.20099351,-2.0,2.0,1.9734253,-1.3729138,-2.0,2.0,-2.0,-2.0,-0.6566404,-2.0,2.0,-0.57434225,-2.0,2.0,2.0,-1.4223222,-2.0,2.0,-2.0,-2.0,-0.47751582,-2.0
2025-07-21 14:57:38.369,2.0400000000000014,2040,102,-0.0104966415,0.04413758,-0.05204451,-0.024455203,-0.0073110587,0.0130380485,0.0,0.0,0.0,-0.05459068,0.05096663,0.19018099,0.049718916,0.21559997,0.3165938,-0.12249985,-0.13881785,0.27962965,-0.09018871,-0.17030309,0.095254816,0.1645481,-0.07691445,-0.041993067,0.07675057,-0.04727354,-0.003483003,-0.029004773,-0.0050547803,0.007822177,-0.040520582,-0.05386522,0.023581503,0.034067046,2.0,-0.57434225,-2.0,2.0,2.0,-1.4223222,-2.0,2.0,-2.0,-2.0,-0.47751582,-2.0,2.0,-0.25564215,-2.0,2.0,2.0,-1.8174813,-2.0,2.0,-2.0,-2.0,-0.5209129,-2.0
2025-07-21 14:57:38.396,2.0600000000000014,2060,103,-0.05806236,0.018337745,-0.06121825,0.019341176,0.06915186,-0.043720864,0.0,0.0,0.0,-0.05375879,0.060637563,0.17902468,0.031649612,0.22345455,0.3289301,-0.11656408,-0.1282346,0.2923069,-0.07383199,-0.15390703,0.11826321,0.16282494,0.034731593,-0.01306147,-0.037171766,-0.04931316,0.031769503,-0.043658894,0.0438006,0.08291402,-0.06390904,0.035322987,-0.01666385,0.048953388,2.0,-0.25564215,-2.0,2.0,2.0,-1.8174813,-2.0,2.0,-2.0,-2.0,-0.5209129,-2.0,2.0,-0.36618897,-2.0,2.0,1.9431361,-1.6391364,-2.0,2.0,-2.0,-2.0,-0.5245126,-2.0
2025-07-21 14:57:38.416,2.0800000000000014,2080,104,-0.034723092,0.041553434,-0.022652302,0.0097140195,0.041358348,-0.001893,0.0,0.0,0.0,-0.05290114,0.046664808,0.17566502,0.03421799,0.22124323,0.31708527,-0.11675815,-0.14109114,0.2787319,-0.07145384,-0.15635413,0.12017846,0.16837116,-0.040779725,-0.03596761,0.022642963,0.06322931,0.047677863,-0.04871564,0.020633116,0.03797442,0.06778879,-0.057704415,0.081589036,0.06727922,2.0,-0.36618897,-2.0,2.0,1.9431361,-1.6391364,-2.0,2.0,-2.0,-2.0,-0.5245126,-2.0,2.0,-0.6541227,-2.0,2.0,2.0,-1.1308578,-2.0,2.0,-2.0,-2.0,-0.5835322,-2.0
2025-07-21 14:57:38.433,2.1000000000000014,2100,105,-0.059368532,-0.04196057,-0.06971742,0.0079057645,0.05971791,-0.040045723,0.0,0.0,0.0,-0.052105848,0.050857563,0.1733968,0.037558712,0.21578312,0.3265308,-0.10231204,-0.1357784,0.28910074,-0.07136483,-0.1524429,0.114787795,0.17820816,-0.060759872,-0.07757047,-0.058230106,-0.06884566,0.04399411,-0.035335604,-0.069041915,-0.034164142,0.065358065,0.057255108,0.017785063,-0.0162584,2.0,-0.6541227,-2.0,2.0,2.0,-1.1308578,-2.0,2.0,-2.0,-2.0,-0.5835322,-2.0,2.0,-0.4263654,-2.0,2.0,2.0,-0.8542056,-2.0,2.0,-2.0,-2.0,-0.52379555,-2.0
2025-07-21 14:57:38.458,2.1200000000000014,2120,106,-0.068005696,-0.048862226,-0.009524241,-0.0068972176,0.07682355,-0.027803306,0.0,0.0,0.0,-0.05125873,0.050039373,0.16894978,0.034454495,0.20829047,0.34472486,-0.10223424,-0.13244733,0.29552808,-0.069244474,-0.16026472,0.12180711,0.1990416,-0.0464154,-0.014842805,-0.074786656,-0.07621783,-0.040712968,0.04397393,0.055609986,0.07354447,0.06906458,0.05703006,-0.007560092,0.03706797,2.0,-0.4263654,-2.0,2.0,2.0,-0.8542056,-2.0,2.0,-2.0,-2.0,-0.52379555,-2.0,2.0,-0.28614703,-2.0,2.0,2.0,-1.3117465,-2.0,2.0,-2.0,-2.0,-0.44924384,-2.0
2025-07-21 14:57:38.474,2.1400000000000015,2140,107,-0.035181098,0.019919803,-0.094093025,-0.031670477,0.08575098,0.005187187,0.0,0.0,0.0,-0.050308555,0.054520372,0.16385204,0.045579188,0.20221515,0.34494635,-0.07867916,-0.1366744,0.29297495,-0.06598508,-0.15959793,0.13721585,0.19255127,-0.07719106,-0.03232301,0.06753597,-0.02942402,0.01919043,-0.042783838,-0.045926698,-0.016577194,-0.05858664,0.030906633,0.033913653,-0.026119407,2.0,-0.28614703,-2.0,2.0,2.0,-1.3117465,-2.0,2.0,-2.0,-2.0,-0.44924384,-2.0,2.0,-0.30734578,-2.0,2.0,1.8521055,-1.0377961,-2.0,2.0,-2.0,-2.0,-0.536289,-2.0
2025-07-21 14:57:38.493,2.1600000000000015,2160,108,-0.018631002,0.015126147,-0.07148388,-0.033871982,0.09696428,0.03693387,0.0,0.0,0.0,-0.049297277,0.052935928,0.16357803,0.03861203,0.2085413,0.35875592,-0.076390035,-0.12416209,0.29590076,-0.07147954,-0.1485143,0.13592742,0.20729567,-0.046685144,-0.050768558,-0.033554785,-0.07613088,0.080699645,0.09812833,-0.0318141,-0.040230244,0.046761043,0.040422257,-0.00427157,0.04673222,2.0,-0.30734578,-2.0,2.0,1.8521055,-1.0377961,-2.0,2.0,-2.0,-2.0,-0.536289,-2.0,2.0,-0.55609894,-2.0,2.0,2.0,-0.74703074,-2.0,2.0,-2.0,-2.0,-0.52414596,-2.0
2025-07-21 14:57:38.519,2.1800000000000015,2180,109,-0.09282177,-0.026446208,-0.05417352,-0.065040536,0.017246423,0.04367071,0.0,0.0,0.0,-0.04831355,0.04528749,0.1728598,0.041300505,0.20876694,0.35073915,-0.062220693,-0.119960055,0.30447224,-0.07095386,-0.1394055,0.14518742,0.22408806,-0.054267693,-0.03897874,-0.04457657,-0.019600004,0.0049969014,0.002365478,0.048974417,0.07354304,0.04212974,0.046775036,0.04289992,-0.016338438,2.0,-0.55609894,-2.0,2.0,2.0,-0.74703074,-2.0,2.0,-2.0,-2.0,-0.52414596,-2.0,2.0,-0.12705806,-2.0,2.0,2.0,-0.97498256,-2.0,2.0,-2.0,-2.0,-0.5438045,-2.0
2025-07-21 14:57:38.533,2.2000000000000015,2200,110,-0.034908775,-0.029544208,-0.06757872,0.0039107143,0.08236743,-0.013009061,0.0,0.0,0.0,-0.04728494,0.030632058,0.17372778,0.042024087,0.2120303,0.36945528,-0.06165398,-0.12332884,0.30510303,-0.07678609,-0.13612024,0.14418684,0.2364176,-0.059158936,-0.010053074,-0.033005502,0.051713485,-0.023983862,0.08534519,0.05314765,-0.0015559497,0.027999759,0.03130673,-0.008035174,0.030123638,2.0,-0.12705806,-2.0,2.0,2.0,-0.97498256,-2.0,2.0,-2.0,-2.0,-0.5438045,-2.0,2.0,-0.34615555,-2.0,2.0,2.0,-0.78454703,-2.0,2.0,-2.0,-2.0,-0.5321749,-2.0
2025-07-21 14:57:38.556,2.2200000000000015,2220,111,-0.104887635,0.0020662767,-0.00094015116,-0.030621061,0.09725488,-0.042373907,0.0,0.0,0.0,-0.04624803,0.03896684,0.17267384,0.025393868,0.19809642,0.36072323,-0.040829927,-0.13080883,0.30800927,-0.0683903,-0.15227187,0.14380173,0.24138534,-0.049220607,-0.042805463,-0.0075624567,-0.037129447,0.023961974,-0.012922883,0.030014046,0.045144413,0.004351118,-0.006928068,0.063297905,-0.0009565719,2.0,-0.34615555,-2.0,2.0,2.0,-0.78454703,-2.0,2.0,-2.0,-2.0,-0.5321749,-2.0,2.0,-0.58175635,-2.0,2.0,2.0,-0.4660514,-2.0,2.0,-2.0,-2.0,-0.48018467,-2.0
2025-07-21 14:57:38.574,2.2400000000000015,2240,112,-0.09009228,-0.03662364,-0.1049304,-0.035237066,0.11021469,0.047302324,0.0,0.0,0.0,-0.045239,0.041171864,0.17304434,0.028566971,0.19144975,0.36397415,-0.038439922,-0.13205045,0.31886086,-0.06848894,-0.14309035,0.1509022,0.23937877,0.042044535,-0.029494448,0.0037631134,-0.028716499,0.054416247,-0.02255685,0.040637027,-0.012420698,0.031411607,-0.0029569897,0.07847694,-0.01058787,2.0,-0.58175635,-2.0,2.0,2.0,-0.4660514,-2.0,2.0,-2.0,-2.0,-0.48018467,-2.0,2.0,-0.50103295,-2.0,2.0,2.0,0.3344736,-2.0,2.0,-2.0,-2.0,-0.7434919,-2.0
2025-07-21 14:57:38.593,2.2600000000000016,2260,113,-0.1494916,-0.042707704,-0.028827542,-0.036644373,0.04089011,-0.028062671,0.0,0.0,0.0,-0.04412822,0.029185053,0.15471818,0.04197966,0.20037383,0.38084617,-0.01052216,-0.12135259,0.32871905,-0.0628457,-0.14940311,0.153673,0.25584716,-0.03409128,0.05449312,-0.004761965,-0.077587485,-0.036938053,0.13065766,0.05522282,0.032837242,-0.012568395,0.042872503,-0.066356674,0.051061325,2.0,-0.50103295,-2.0,2.0,2.0,0.3344736,-2.0,2.0,-2.0,-2.0,-0.7434919,-2.0,2.0,0.42451504,-2.0,2.0,2.0,-1.2609875,-2.0,2.0,-2.0,-2.0,-0.43403172,-2.0
2025-07-21 14:57:38.614,2.2800000000000016,2280,114,-0.113439694,-0.10353022,-0.038699545,-0.043957688,0.050785255,0.046676952,0.0,0.0,0.0,-0.042989753,0.035279267,0.16394682,0.027138384,0.17962995,0.3973601,-0.0063494504,-0.13101777,0.33744988,-0.06335804,-0.14494108,0.15244253,0.27697438,0.0082971025,0.0864397,0.0053165383,-0.07807263,-0.03867113,0.04265259,0.06705582,0.0040365662,0.03455887,0.02272312,0.02842014,0.04299035,2.0,0.42451504,-2.0,2.0,2.0,-1.2609875,-2.0,2.0,-2.0,-2.0,-0.43403172,-2.0,2.0,-0.32282773,-2.0,2.0,1.9153281,0.54001987,-2.0,2.0,-2.0,-2.0,-0.54370654,-2.0
2025-07-21 14:57:38.639,2.3000000000000016,2300,115,-0.11967817,-0.06980391,0.0067667896,-0.01493402,0.13695537,0.026387937,0.0,0.0,0.0,-0.04215297,0.039370224,0.17236686,0.022021776,0.18616667,0.3907863,0.014843743,-0.12903579,0.33797178,-0.068034224,-0.14054894,0.15517662,0.28357163,0.035406396,0.013046299,0.008171165,-0.025693797,-0.02084865,0.039404478,0.0649406,-0.051735982,0.061897006,0.025062932,-0.05208949,-0.033334244,2.0,-0.32282773,-2.0,2.0,1.9153281,0.54001987,-2.0,2.0,-2.0,-2.0,-0.54370654,-2.0,2.0,-0.010748535,-2.0,2.0,2.0,0.45045537,-2.0,2.0,-2.0,-2.0,-0.42789614,-2.0
2025-07-21 14:57:38.660,2.3200000000000016,2320,116,-0.09101382,-0.07915408,-0.094834045,-0.0656364,0.13626091,0.032993395,0.0,0.0,0.0,-0.041363608,0.035262674,0.1762939,0.016040986,0.1684503,0.39272955,0.034246545,-0.1124122,0.34526116,-0.07596328,-0.13118348,0.15989637,0.2868701,0.046559606,0.052696876,-0.040482838,-0.04646388,-0.017021932,0.06393376,-0.03808266,0.05263981,0.034123763,-0.013692103,0.056881767,-0.033750292,2.0,-0.010748535,-2.0,2.0,2.0,0.45045537,-2.0,2.0,-2.0,-2.0,-0.42789614,-2.0,2.0,-0.0717974,-2.0,2.0,2.0,1.0041672,-2.0,2.0,-2.0,-2.0,-0.74114484,-2.0
2025-07-21 14:57:38.674,2.3400000000000016,2340,117,-0.16349055,-0.15423918,-0.04641478,-0.045388,0.119888596,-0.018901998,0.0,0.0,0.0,-0.040425465,0.021447927,0.17414743,0.027848603,0.16232772,0.3989381,0.06697686,-0.12346047,0.34446636,-0.07934493,-0.1305004,0.17861116,0.30341297,-0.01881032,-0.031237587,0.0654162,-0.08222412,0.08118058,0.12234276,0.08525322,-0.008039611,-0.046939373,-0.034746546,0.046441946,0.010180456,2.0,-0.0717974,-2.0,2.0,2.0,1.0041672,-2.0,2.0,-2.0,-2.0,-0.74114484,-2.0,2.0,0.2984086,-2.0,2.0,2.0,1.203209,-2.0,2.0,-1.0496298,-2.0,-0.30017674,-2.0
2025-07-21 14:57:38.695,2.3600000000000017,2360,118,-0.075595796,-0.1206312,-0.040204328,-0.054228295,0.16476098,-0.04982063,0.0,0.0,0.0,-0.039577886,0.0378406,0.18789351,0.016902175,0.14909557,0.4255357,0.09887318,-0.1109748,0.3535051,-0.08484428,-0.12229865,0.16757017,0.3304741,-0.05848585,0.0184713,-0.00014780399,0.037672445,-0.015456608,0.024779895,0.018896595,0.0063460707,-0.050330438,-0.015390007,-0.013747941,-0.020761736,2.0,0.2984086,-2.0,2.0,2.0,1.203209,-2.0,2.0,-1.0496298,-2.0,-0.30017674,-2.0,2.0,0.7906462,-2.0,2.0,2.0,2.0,-2.0,1.8472561,2.0,-2.0,-0.36459208,-2.0
2025-07-21 14:57:38.714,2.3800000000000017,2380,119,-0.10928416,-0.070803136,-0.10988721,-0.08805552,0.110511996,-0.036194164,0.0,0.0,0.0,-0.038657635,0.03632967,0.17210515,0.025618576,0.12746659,0.42798078,0.12578356,-0.09784964,0.3624281,-0.027188348,-0.12743908,0.18228671,0.3417934,-0.022458756,-0.009185582,0.061058287,-0.048508573,0.013876461,0.02267968,-0.014479266,-0.029019691,0.12737271,-0.023503983,0.03372332,0.008057782,2.0,0.7906462,-2.0,2.0,2.0,2.0,-2.0,1.8472561,2.0,-2.0,-0.36459208,-2.0,2.0,1.4541119,-2.0,2.0,1.4585649,2.0,-2.0,1.1100941,2.0,-2.0,-0.8417144,-2.0
2025-07-21 14:57:38.740,2.4000000000000017,2400,120,-0.14785987,-0.08533526,-0.044349987,-0.07083562,0.16907202,-0.045884173,0.0,0.0,0.0,-0.03721685,0.024616657,0.18115672,0.02493573,0.12079756,0.42008883,0.17202365,-0.08039136,0.354181,0.047197316,-0.12488957,0.170708,0.36437652,-0.065771304,-0.059735406,-0.049727432,-0.013715522,-0.010544275,0.011658718,0.03637836,-0.03093044,0.11981632,0.04818462,0.008532671,0.06348735,2.0,1.4541119,-2.0,2.0,1.4585649,2.0,-2.0,1.1100941,2.0,-2.0,-0.8417144,-2.0,2.0,1.0697249,-2.0,2.0,1.3848307,2.0,-2.0,0.8507249,2.0,-2.0,-0.39433372,-2.0
2025-07-21 14:57:38.755,2.4200000000000017,2420,121,-0.18296082,-0.0732753,-0.10317388,-0.14996307,0.18149701,0.013134052,0.0,0.0,0.0,-0.035745494,0.017178176,0.17547603,0.02502589,0.10062235,0.39168608,0.19434856,-0.071902744,0.32386318,0.11114365,-0.1209572,0.17820574,0.39285725,0.034369092,-0.06797876,-0.026226638,-0.032747928,-0.104138695,0.029878836,-0.03660452,-0.049202487,0.13494831,-0.02414242,0.06871144,0.06402562,2.0,1.0697249,-2.0,2.0,1.3848307,2.0,-2.0,0.8507249,2.0,-2.0,-0.39433372,-2.0,2.0,0.97089803,-2.0,2.0,1.1301297,2.0,-2.0,1.057609,2.0,-2.0,-0.7966113,-2.0
2025-07-21 14:57:38.774,2.4400000000000017,2440,122,-0.21589437,-0.061957512,-0.106950566,-0.14325035,0.1584907,0.046454184,0.0,0.0,0.0,-0.034176774,0.0178658,0.17540567,0.009525278,0.0914728,0.3803605,0.21582022,-0.06901174,0.29711187,0.15019909,-0.13071889,0.17599249,0.42741147,-0.055439282,0.018451758,0.06092663,-0.08752795,0.023579378,0.08583666,-0.024893092,-0.10993192,0.109752044,0.06224502,-0.019896341,0.13048789,2.0,0.97089803,-2.0,2.0,1.1301297,2.0,-2.0,1.057609,2.0,-2.0,-0.7966113,-2.0,2.0,1.1809105,-2.0,2.0,1.0124683,2.0,-2.0,0.916934,2.0,-2.0,-0.5460803,-2.0
2025-07-21 14:57:38.794,2.4600000000000017,2460,123,0.0058794096,-0.047948424,-0.03908122,-0.12387447,0.15012103,-0.047633313,0.0,0.0,0.0,-0.032561686,0.019443108,0.16539247,0.015768563,0.08165868,0.35429087,0.24013183,-0.067785226,0.2851073,0.19210728,-0.12741052,0.17015,0.4345058,-0.00025000452,0.0033677858,0.014259242,0.023166113,-0.085248746,0.024767237,-0.029218296,-0.05223858,0.026194753,-0.067446694,-0.04129313,0.0801936,2.0,1.1809105,-2.0,2.0,1.0124683,2.0,-2.0,0.916934,2.0,-2.0,-0.5460803,-2.0,1.7751889,0.96277094,-2.0,2.0,1.0508517,2.0,-1.5764976,1.0257852,2.0,-2.0,-0.38250315,-2.0
2025-07-21 14:57:38.821,2.4800000000000018,2480,124,0.061853804,-0.038169455,-0.011114439,-0.06700748,0.14272848,-0.018915711,0.0,0.0,0.0,-0.031394977,0.013617758,0.15467641,0.018070351,0.059277046,0.3388212,0.26714623,-0.051296636,0.271968,0.19399998,-0.13281946,0.16143936,0.44604534,-0.018339304,0.038070098,-0.04247673,-0.0028916835,-0.056111783,0.06027062,0.016280146,0.037290588,0.08037903,-0.020553742,0.0011929006,-0.0011369546,1.7751889,0.96277094,-2.0,2.0,1.0508517,2.0,-1.5764976,1.0257852,2.0,-2.0,-0.38250315,-2.0,-0.7804527,0.9620968,-2.0,2.0,1.2821304,2.0,-1.1660218,1.0224233,2.0,-2.0,-0.37603903,-2.0
2025-07-21 14:57:38.836,2.5000000000000018,2500,125,0.07795258,0.012372846,-0.08338582,-0.15416113,0.15615493,0.026667537,0.0,0.0,0.0,-0.030962953,0.006280973,0.16410118,0.022687621,0.057752304,0.3370526,0.27471045,-0.046790082,0.25371525,0.20863865,-0.15083331,0.17851311,0.425814,-0.02435664,-0.033781245,0.02798181,-0.033169325,-0.004622452,0.034167446,0.07849984,-0.02826296,0.04664294,0.04928908,0.051335648,-0.05496039,-0.7804527,0.9620968,-2.0,2.0,1.2821304,2.0,-1.1660218,1.0224233,2.0,-2.0,-0.37603903,-2.0,-2.0,1.6777041,-2.0,2.0,1.5541909,2.0,2.0,0.883988,2.0,-2.0,-0.10820554,-2.0
2025-07-21 14:57:38.854,2.520000000000002,2520,126,0.07896258,0.006263217,-0.013971438,-0.1579408,0.14987938,0.043254588,0.0,0.0,0.0,-0.030425651,-0.009739546,0.17324093,0.031117799,0.05777729,0.35028577,0.27501044,-0.012561022,0.24145493,0.22681712,-0.1460903,0.17672898,0.42947784,0.0023540577,-0.054614976,0.00049058936,-0.06974908,0.057793543,0.03389826,0.12701496,-0.07706764,0.055042524,0.049932018,0.101720095,0.029738909,-2.0,1.6777041,-2.0,2.0,1.5541909,2.0,2.0,0.883988,2.0,-2.0,-0.10820554,-2.0,-2.0,1.2168791,-2.0,2.0,1.007845,2.0,2.0,-0.33815253,2.0,-2.0,0.80491614,-2.0
2025-07-21 14:57:38.878,2.540000000000002,2540,127,0.10089503,0.018452106,-0.0979204,-0.084838584,0.13295512,0.036070626,0.0,0.0,0.0,-0.029506436,-0.028104562,0.18194425,0.02697786,0.04957655,0.3458115,0.28275546,0.02687157,0.19303359,0.22228786,-0.15881518,0.20853083,0.41051316,-0.048649956,0.030882532,0.033889778,-0.0005589633,0.06333689,-0.030153837,0.14521451,-0.14310001,0.025370957,-0.08279722,0.013995783,-0.07563177,-2.0,1.2168791,-2.0,2.0,1.007845,2.0,2.0,-0.33815253,2.0,-2.0,0.80491614,-2.0,-2.0,1.4101641,-2.0,2.0,0.28331196,1.1354498,2.0,0.09918915,2.0,-2.0,0.76798683,-2.0
2025-07-21 14:57:38.894,2.560000000000002,2560,128,0.11501385,0.06397833,-0.083288416,-0.11679132,0.16014604,-0.028738037,0.0,0.0,0.0,-0.02784327,-0.059004083,0.1698647,0.026298206,0.02841738,0.32627696,0.30624315,0.07635705,0.13796346,0.22479543,-0.15938495,0.21499191,0.39099216,-0.080287404,-0.043710224,0.05490754,-0.036619306,-0.07044646,0.047013644,0.059709743,-0.095531166,-0.01569348,-0.056770336,-0.020355964,-0.1082088,-2.0,1.4101641,-2.0,2.0,0.28331196,1.1354498,2.0,0.09918915,2.0,-2.0,0.76798683,-2.0,-2.0,1.3184893,-2.0,2.0,-0.10195196,-1.1756198,2.0,0.24875359,2.0,-2.0,1.0329728,-2.0
2025-07-21 14:57:38.915,2.580000000000002,2580,129,0.06133221,0.1798505,-0.06539332,-0.0739839,0.16318506,0.0048964606,0.0,0.0,0.0,-0.025817618,-0.08074208,0.18101269,0.020972027,0.03674653,0.32170913,0.28854504,0.10122118,0.11060177,0.2260269,-0.17029345,0.22449015,0.39115244,0.012903516,0.049599227,-0.08828449,0.013160688,-0.074748665,-0.12246148,0.06588244,-0.06351621,0.010384874,0.019608123,0.013283681,-0.04983476,-2.0,1.3184893,-2.0,2.0,-0.10195196,-1.1756198,2.0,0.24875359,2.0,-2.0,1.0329728,-2.0,-2.0,0.532352,-2.0,2.0,-0.32323432,-2.0,2.0,1.2513533,-2.0,-2.0,1.73229,-2.0
2025-07-21 14:57:38.939,2.600000000000002,2600,130,0.069117695,0.13208297,0.025734616,-0.039474297,0.15578854,-0.015102639,0.0,0.0,0.0,-0.024270719,-0.08125003,0.19413063,0.0022935183,0.016408771,0.31772134,0.26277965,0.11099022,0.112092935,0.15551566,-0.18424267,0.23386376,0.3606373,-0.03184507,0.07116559,-0.04986069,0.016068375,0.065190844,-0.048454084,-0.029503876,0.09887216,-0.21352421,-0.07711109,0.09064798,-0.09579407,-2.0,0.532352,-2.0,2.0,-0.32323432,-2.0,2.0,1.2513533,-2.0,-2.0,1.73229,-2.0,-2.0,-0.34462026,1.0072896,2.0,2.0,-2.0,2.0,0.28574675,-2.0,-0.7476231,0.43040964,-2.0
2025-07-21 14:57:38.955,2.620000000000002,2620,131,0.043592192,0.11704228,0.0028166145,-0.08023083,0.10803781,-0.014017451,0.0,0.0,0.0,-0.023437198,-0.08533263,0.1753179,0.031265825,0.020856936,0.34675428,0.22621301,0.09689369,0.124182634,0.14417756,-0.18853645,0.2528211,0.33860978,0.048687793,-0.0933049,0.093455195,0.055054966,0.054616675,-0.14087515,-0.034131292,-0.020668479,-0.049298074,0.012825752,0.07711645,-0.05934007,-2.0,-0.34462026,1.0072896,2.0,2.0,-2.0,2.0,0.28574675,-2.0,-0.7476231,0.43040964,-2.0,-2.0,-0.36740765,2.0,-2.0,2.0,-2.0,2.0,-0.37680262,-2.0,-2.0,-0.9687947,-2.0
2025-07-21 14:57:38.975,2.640000000000002,2640,132,0.06158173,0.3091952,-0.009616479,-0.055715136,0.07032498,-0.007672343,0.0,0.0,0.0,-0.023403795,-0.08717114,0.12237811,0.07753346,0.019137988,0.36458907,0.16395459,0.092164464,0.13747509,0.14695062,-0.1818895,0.27713412,0.3087327,0.049833357,-0.11932741,0.07737193,0.013983795,-0.021431671,-0.06977177,-0.030650245,0.016480472,-0.0063685398,-0.0821501,-0.052569233,0.009859431,-2.0,-0.36740765,2.0,-2.0,2.0,-2.0,2.0,-0.37680262,-2.0,-2.0,-0.9687947,-2.0,-2.0,0.54932094,2.0,-2.0,0.85007244,-2.0,2.0,-1.3530941,-2.0,-2.0,-0.6777481,-2.0
2025-07-21 14:57:38.995,2.660000000000002,2660,133,-0.03923468,0.37976182,-0.022482451,-0.07073923,0.13579822,0.013376198,0.0,0.0,0.0,-0.0232934,-0.07587772,0.079081535,0.11558571,0.012002819,0.3625629,0.122930326,0.072403744,0.11477209,0.15474668,-0.19584797,0.26251638,0.2916229,0.02916145,0.02138274,0.058957092,-0.027372563,-0.04969864,-0.09619017,-0.034160443,-0.07196292,0.092119835,-0.032324098,-0.07384078,-0.08492348,-2.0,0.54932094,2.0,-2.0,0.85007244,-2.0,2.0,-1.3530941,-2.0,-2.0,-0.6777481,-2.0,-2.0,1.2429522,2.0,-2.0,0.7546868,-2.0,2.0,-1.2018106,-2.0,-2.0,0.17500187,-2.0
2025-07-21 14:57:39.017,2.680000000000002,2680,134,0.017538525,0.34918267,-0.053164367,-0.00775855,0.09104004,-0.040148314,0.0,0.0,0.0,-0.022958623,-0.06915208,0.08990935,0.14744897,-0.015777173,0.3705488,0.060661413,0.050468635,0.0796205,0.18485068,-0.19861394,0.24015604,0.2863102,0.018333044,0.0897954,0.045018468,-0.09924937,-0.04381831,-0.1932747,-0.022775289,-0.100279264,0.0054986845,-0.009058254,-0.04791563,-0.0076233614,-2.0,1.2429522,2.0,-2.0,0.7546868,-2.0,2.0,-1.2018106,-2.0,-2.0,0.17500187,-2.0,-2.0,1.4503443,2.0,-2.0,0.42248666,-2.0,2.0,-1.215567,-2.0,-2.0,0.21355613,-2.0
2025-07-21 14:57:39.038,2.700000000000002,2700,135,-0.05440386,0.34505504,-0.012255035,0.0638573,0.096190535,0.0160253,0.0,0.0,0.0,-0.022343814,-0.07229785,0.13627228,0.17956747,-0.011561686,0.3571888,0.02524429,0.054640867,0.046013106,0.18820652,-0.21462978,0.24330065,0.26801574,-0.034167107,0.13910426,-0.014057116,-0.04584361,-0.08272648,-0.105911724,-0.0033101004,-0.08929994,-0.039619442,-0.07907433,-0.02217272,-0.016156614,-2.0,1.4503443,2.0,-2.0,0.42248666,-2.0,2.0,-1.215567,-2.0,-2.0,0.21355613,-2.0,-2.0,1.3087687,2.0,-2.0,0.8811965,-2.0,2.0,-1.0803502,-2.0,-2.0,0.39853227,-2.0
2025-07-21 14:57:39.061,2.720000000000002,2720,136,0.018374462,0.22824833,-0.043617696,0.051758893,0.085261114,0.032280535,0.0,0.0,0.0,-0.02136168,-0.051647216,0.19076692,0.19857596,-0.036489412,0.3489852,-0.013634554,0.044936985,0.028290743,0.20816018,-0.21441898,0.22531413,0.25476536,0.046395794,0.09583266,0.086898826,-0.02338091,0.03472113,-0.02361868,-0.017039146,0.020625267,0.03171658,0.014475037,-0.0053963144,-0.095834605,-2.0,1.3087687,2.0,-2.0,0.8811965,-2.0,2.0,-1.0803502,-2.0,-2.0,0.39853227,-2.0,-2.0,0.89050317,2.0,-2.0,0.36785346,-2.0,2.0,-1.1351018,-2.0,-2.0,0.029466402,-2.0
2025-07-21 14:57:39.078,2.740000000000002,2740,137,-0.01085411,0.15465617,-0.06147822,0.087338634,0.10966398,0.00025849201,0.0,0.0,0.0,-0.019907428,-0.065582424,0.23312306,0.2108981,-0.049338225,0.34604543,-0.04183914,0.050234243,0.011883303,0.21068656,-0.21512832,0.21780182,0.23511815,-0.032376096,0.093929544,-0.0058879605,0.030701403,-0.08536764,-0.092686646,0.0800647,-0.035766724,-0.020463645,0.034595296,-0.024396377,-0.017604997,-2.0,0.89050317,2.0,-2.0,0.36785346,-2.0,2.0,-1.1351018,-2.0,-2.0,0.029466402,-2.0,-2.0,1.3028951,2.0,-2.0,0.07278259,-2.0,2.0,-0.63676506,-2.0,-2.0,0.2481608,-2.0
2025-07-21 14:57:39.101,2.760000000000002,2760,138,0.103570126,0.07429326,-0.106007315,0.031654753,0.10256429,0.022003727,0.0,0.0,0.0,-0.018092873,-0.062990874,0.2564228,0.22660354,-0.055784285,0.32266974,-0.04215951,0.042442903,-0.002798799,0.20473334,-0.20328093,0.20738292,0.20365883,-0.05558995,0.058529586,-0.0020971298,0.019630281,-0.054606684,-0.007821054,0.0069179665,-0.057725858,-0.033547226,0.053984545,0.023265773,0.009079158,-2.0,1.3028951,2.0,-2.0,0.07278259,-2.0,2.0,-0.63676506,-2.0,-2.0,0.2481608,-2.0,-2.0,1.1149307,2.0,-1.0607,-0.06901163,-2.0,2.0,-0.7101814,-2.0,-2.0,0.2265959,-2.0
2025-07-21 14:57:39.120,2.780000000000002,2780,139,0.13920498,0.059735186,-0.083889075,0.104548216,0.075800225,-0.0037763552,0.0,0.0,0.0,-0.016519086,-0.048283678,0.2683487,0.22174142,-0.047585938,0.28841126,-0.059334546,0.043941677,-0.0065310355,0.2120335,-0.19605789,0.20921141,0.19452214,0.05948416,0.07097598,-0.02313769,-0.060128182,-0.009572203,0.051852193,0.027988035,-0.08472513,-0.023401286,0.08527577,0.061045952,0.028772056,-2.0,1.1149307,2.0,-1.0607,-0.06901163,-2.0,2.0,-0.7101814,-2.0,-2.0,0.2265959,-2.0,-2.0,0.86352134,2.0,2.0,0.697965,-2.0,2.0,-0.8780872,-2.0,-2.0,0.3139596,-2.0
2025-07-21 14:57:39.141,2.800000000000002,2800,140,0.07690615,-0.034663603,-0.061399236,0.1024413,0.027982881,0.032015655,0.0,0.0,0.0,-0.015492671,-0.0521928,0.26812637,0.22714894,-0.028122848,0.26688325,-0.057569005,0.06483544,-0.024776088,0.20633996,-0.17650208,0.20654404,0.18216582,-0.054993134,-0.032020077,-0.0008125783,-0.020667922,-0.025865074,-0.048055287,0.09895697,0.040543664,-0.065256536,0.0077250376,0.01695254,-0.018233055,-2.0,0.86352134,2.0,2.0,0.697965,-2.0,2.0,-0.8780872,-2.0,-2.0,0.3139596,-2.0,-2.0,1.5402385,0.7487594,2.0,1.4107779,-2.0,2.0,-0.5100834,-2.0,-2.0,0.19139625,-0.5835618
2025-07-21 14:57:39.161,2.820000000000002,2820,141,0.11812857,-0.115022,0.037837874,0.082436115,0.063116826,0.047605548,0.0,0.0,0.0,-0.01502799,-0.046688046,0.26417017,0.21793424,-0.027570903,0.26782757,-0.059733115,0.08359509,-0.022706406,0.18550846,-0.1548571,0.21126536,0.15961649,0.03751631,0.060544528,-0.019108107,0.09209525,0.06632871,-0.05691393,0.04185559,0.02642143,-0.03613891,-0.0018795358,-0.04077704,-0.09461961,-2.0,1.5402385,0.7487594,2.0,1.4107779,-2.0,2.0,-0.5100834,-2.0,-2.0,0.19139625,-0.5835618,-2.0,0.18936202,-0.95383155,2.0,2.0,-2.0,2.0,-1.2122293,-2.0,-2.0,-0.33257937,-2.0
2025-07-21 14:57:39.186,2.840000000000002,2840,142,0.058538742,0.02098981,-0.032499157,0.06397337,0.040476564,0.0038708546,0.0,0.0,0.0,-0.01545753,-0.0629806,0.2548324,0.13772126,0.0075269197,0.26743215,-0.070071585,0.09367129,-0.018646108,0.18455094,-0.15403819,0.20545813,0.15609,-0.018007241,-0.029957118,-0.2347641,0.091289915,-0.0038739399,-0.054011658,0.09588439,-0.020000804,-0.059027318,0.08578797,-0.0677715,0.0009416982,-2.0,0.18936202,-0.95383155,2.0,2.0,-2.0,2.0,-1.2122293,-2.0,-2.0,-0.33257937,-2.0,-0.10557224,2.0,-2.0,2.0,2.0,-2.0,2.0,-0.06048055,-2.0,-2.0,0.47221637,-2.0
2025-07-21 14:57:39.201,2.860000000000002,2860,143,0.21908617,-0.12587786,0.06611542,0.08529188,0.052724134,0.017218245,0.0,0.0,0.0,-0.01609978,-0.059955306,0.25869036,0.033600867,0.017371444,0.27347335,-0.05691096,0.09933801,-0.006293197,0.1788393,-0.13894205,0.21341568,0.1362086,-0.05165713,0.03418948,-0.27242473,-0.009448859,0.06575862,-0.06632656,0.04908357,0.04260897,-0.06810128,0.061543647,0.059995484,-0.043138165,-0.10557224,2.0,-2.0,2.0,2.0,-2.0,2.0,-0.06048055,-2.0,-2.0,0.47221637,-2.0,0.8490653,0.004206449,-2.0,2.0,2.0,-2.0,2.0,0.014045164,-2.0,-2.0,0.11376755,-2.0
2025-07-21 14:57:39.223,2.880000000000002,2880,144,0.26616597,-0.09533714,0.069521844,0.060397897,0.04935556,0.0003441234,0.0,0.0,0.0,-0.01717364,-0.028374514,0.25435597,-0.04901124,0.03965573,0.2760403,-0.06562888,0.10891418,0.013206924,0.15812159,-0.12583938,0.23164713,0.11794969,0.07176867,-0.018634334,-0.12696265,9.939325e-05,-0.009932446,-0.051244043,0.07971934,-0.03280346,-0.03944739,0.03447479,0.08195484,-0.110465616,0.8490653,0.004206449,-2.0,2.0,2.0,-2.0,2.0,0.014045164,-2.0,-2.0,0.11376755,-2.0,2.0,-0.35079655,-2.0,2.0,2.0,-2.0,2.0,0.782839,-2.0,-2.0,-0.11946802,-2.0
2025-07-21 14:57:39.243,2.900000000000002,2900,145,0.14253525,-0.15966576,0.10064463,0.017393338,-0.023516722,-0.00060469296,0.0,0.0,0.0,-0.018820286,-0.009008551,0.24833897,-0.039190855,0.062367834,0.29086608,-0.06284351,0.11482473,0.028011398,0.15156679,-0.12361115,0.24410492,0.09236842,0.061679438,0.034943666,0.09993851,0.07184891,-0.048523948,-0.044035517,0.022543734,0.08227398,-0.043073196,0.100485824,0.02280684,-0.035416894,2.0,-0.35079655,-2.0,2.0,2.0,-2.0,2.0,0.782839,-2.0,-2.0,-0.11946802,-2.0,2.0,-0.5470804,-1.5269325,2.0,2.0,-2.0,2.0,1.1203917,-2.0,-2.0,-0.47539306,-2.0
2025-07-21 14:57:39.261,2.920000000000002,2920,146,0.088858455,-0.05101005,0.13855007,-0.0077467086,-0.027149765,0.01868287,0.0,0.0,0.0,-0.020931315,0.004031983,0.21824487,0.013985591,0.08673761,0.2959556,-0.076980524,0.11442191,0.026686545,0.12715328,-0.0962263,0.23353447,0.071464896,0.010962913,0.010375354,0.034863714,0.07190784,-0.04583971,-0.09492815,0.045076955,0.01605588,-0.029441593,0.011689459,-0.079450004,-0.03188195,2.0,-0.5470804,-1.5269325,2.0,2.0,-2.0,2.0,1.1203917,-2.0,-2.0,-0.47539306,-2.0,2.0,-0.35894284,-2.0,2.0,2.0,-2.0,2.0,0.81893206,-2.0,-2.0,-0.26655495,-2.0
2025-07-21 14:57:39.285,2.940000000000002,2940,147,0.100041375,-0.021260433,0.12175484,0.002571608,0.04254472,0.047893606,0.0,0.0,0.0,-0.023573497,0.030524908,0.2151968,0.035526548,0.110087305,0.2982268,-0.08458639,0.12435452,0.05208806,0.12741965,-0.100417696,0.22776024,0.064145826,0.10797579,0.04345294,0.02222835,0.042795964,-0.008343329,-0.11765303,0.04099723,0.038337953,-0.008839419,-0.04723193,-0.08641819,0.025664268,2.0,-0.35894284,-2.0,2.0,2.0,-2.0,2.0,0.81893206,-2.0,-2.0,-0.26655495,-2.0,2.0,-0.49575844,-2.0,2.0,2.0,-2.0,2.0,1.0540488,-2.0,-2.0,-0.26966786,-2.0
2025-07-21 14:57:39.304,2.960000000000002,2960,148,0.12549648,-0.01590446,0.1075712,0.007252923,-0.005498654,0.049296826,0.0,0.0,0.0,-0.026417272,0.04534165,0.21115528,0.05165275,0.12545751,0.28628936,-0.11161749,0.12081754,0.056786828,0.1107046,-0.084842116,0.2084527,0.05152183,0.09280312,-0.07703218,0.040519085,0.10747766,-0.07218943,-0.042029385,-0.0178708,0.053586934,-0.085521005,-0.04981976,-0.06774904,-0.049742155,2.0,-0.49575844,-2.0,2.0,2.0,-2.0,2.0,1.0540488,-2.0,-2.0,-0.26966786,-2.0,2.0,-0.3230866,-2.0,2.0,2.0,-2.0,2.0,1.0249046,-2.0,-2.0,-0.42135793,-2.0
2025-07-21 14:57:39.324,2.980000000000002,2980,149,0.097992025,-0.0440681,0.15100902,0.055164266,-0.044870093,-0.049065936,0.0,0.0,0.0,-0.029207151,0.0625953,0.20077746,0.06671204,0.15006487,0.2898471,-0.13423945,0.11339788,0.060325097,0.09066479,-0.081858315,0.18580286,0.043076966,0.0008042833,-0.052546896,0.04524412,0.03447548,0.02022537,0.006509368,0.0528145,-0.034788333,-0.09457075,0.0032089348,0.017227488,0.0052291537,2.0,-0.3230866,-2.0,2.0,2.0,-2.0,2.0,1.0249046,-2.0,-2.0,-0.42135793,-2.0,2.0,-0.62151504,-2.0,2.0,2.0,-2.0,2.0,0.9397361,-2.0,-2.0,-0.08247851,-2.0
2025-07-21 14:57:39.343,3.000000000000002,3000,150,0.08453377,0.04729976,0.114821166,0.038452547,0.023284959,0.02508133,0.0,0.0,0.0,-0.031906545,0.06762433,0.18931262,0.06327326,0.15812749,0.28038868,-0.15172428,0.12304752,0.07316068,0.08262256,-0.083366424,0.18439192,0.016521469,0.08349154,-0.0752108,-0.0049564256,0.00555495,0.04298806,-0.036861323,0.025476562,0.016940087,-0.031919744,-0.053096425,-0.04341417,-0.057688586,2.0,-0.62151504,-2.0,2.0,2.0,-2.0,2.0,0.9397361,-2.0,-2.0,-0.08247851,-2.0,2.0,-0.5876386,-2.0,2.0,2.0,-2.0,2.0,0.91481584,-2.0,-2.0,-0.27761018,-2.0
2025-07-21 14:57:39.363,3.0200000000000022,3020,151,0.059174813,0.04712025,0.097699925,-0.011744465,-0.037140507,0.049879093,0.0,0.0,0.0,-0.034287207,0.08855427,0.18681408,0.075405255,0.16185984,0.27699614,-0.16193393,0.12279843,0.07785155,0.059876803,-0.09513984,0.16835678,0.0077807885,-0.050020937,-0.06390957,-0.027322253,-0.051973794,0.064676896,-0.06689626,0.031934317,0.009922219,0.026438596,0.021915149,0.03226356,-0.004403372,2.0,-0.5876386,-2.0,2.0,2.0,-2.0,2.0,0.91481584,-2.0,-2.0,-0.27761018,-2.0,2.0,-0.37069157,-2.0,2.0,2.0,-2.0,2.0,0.8603981,-2.0,-2.0,-0.28390443,-2.0
2025-07-21 14:57:39.382,3.0400000000000023,3040,152,0.029219238,-0.024747984,0.03991856,0.04540732,-0.08093566,0.011019962,0.0,0.0,0.0,-0.03627167,0.08129095,0.18299247,0.07339127,0.16415699,0.28746068,-0.17591718,0.11767798,0.059963938,0.05834124,-0.09523249,0.15670332,0.0025603634,0.0062254714,-0.06260677,0.055112652,-0.0601901,-0.049975794,0.021911334,0.04038001,0.0047050323,-0.05511695,-0.048166994,-0.013643278,-0.032300826,2.0,-0.37069157,-2.0,2.0,2.0,-2.0,2.0,0.8603981,-2.0,-2.0,-0.28390443,-2.0,2.0,0.006733507,-2.0,2.0,2.0,-2.0,2.0,1.2798216,-2.0,-2.0,-0.4031167,-2.0
2025-07-21 14:57:39.409,3.0600000000000023,3060,153,0.026460007,-0.052149277,0.06396752,0.0586427,-0.050272156,0.008338815,0.0,0.0,0.0,-0.03790951,0.09140972,0.17658068,0.08101231,0.17625453,0.27484703,-0.18487172,0.11987476,0.06292821,0.04726685,-0.08872882,0.13772152,-0.01211792,-0.050632328,-0.037879627,0.0422904,-0.011201242,0.035407055,-0.02107701,0.06404482,-0.04116172,0.03901974,0.012976506,0.020178786,0.028080806,2.0,0.006733507,-2.0,2.0,2.0,-2.0,2.0,1.2798216,-2.0,-2.0,-0.4031167,-2.0,2.0,-0.40699497,-2.0,2.0,2.0,-2.0,2.0,1.0161116,-2.0,-2.0,-0.32251716,-2.0
2025-07-21 14:57:39.423,3.0800000000000023,3080,154,0.055240452,-0.0022944766,0.052220363,-0.01585616,-0.0010573458,0.02712785,0.0,0.0,0.0,-0.03939107,0.09840024,0.1582108,0.083337694,0.1744662,0.2844625,-0.19240963,0.10925447,0.07892067,0.02715707,-0.08651631,0.1307984,-0.02617027,0.074804395,-0.029463183,-0.036757443,-0.046865348,0.057273455,-0.052218176,0.036017984,0.048342153,0.014268444,0.04770083,-0.059955034,-0.06219331,2.0,-0.40699497,-2.0,2.0,2.0,-2.0,2.0,1.0161116,-2.0,-2.0,-0.32251716,-2.0,2.0,-0.04913947,-2.0,2.0,2.0,-2.0,2.0,1.0751667,-2.0,-2.0,-0.3678921,-2.0
2025-07-21 14:57:39.445,3.1000000000000023,3100,155,0.027029213,-0.035372704,-0.0024511863,0.0021387662,-0.045836907,0.009694714,0.0,0.0,0.0,-0.040592056,0.09898326,0.15509382,0.07965512,0.19072461,0.2712476,-0.19751385,0.10878305,0.08203455,0.026700743,-0.08579445,0.11453351,-0.037041828,-0.05776762,0.013754129,-0.049675148,-0.044284847,-0.00034013911,-0.012395783,-0.00091005076,-0.03054707,-0.09795393,0.039898977,-0.0018454589,-0.041740928,2.0,-0.04913947,-2.0,2.0,2.0,-2.0,2.0,1.0751667,-2.0,-2.0,-0.3678921,-2.0,2.0,0.12266156,-2.0,2.0,2.0,-2.0,2.0,1.4833088,-2.0,-2.0,-0.30785382,-2.0
2025-07-21 14:57:39.463,3.1200000000000023,3120,156,0.031274095,-0.068720415,0.018287469,-0.02992415,-0.03359289,-0.03526094,0.0,0.0,0.0,-0.041415475,0.10302766,0.16618131,0.09097823,0.18487671,0.28875956,-0.19376428,0.10369883,0.09437885,0.015797995,-0.09858705,0.113008216,-0.04822467,-0.0008082274,-0.009413697,0.04585873,0.017550882,-0.03180023,-0.010561569,0.0006294207,0.08067416,-0.013588828,0.05847254,-0.05815073,-0.028869543,2.0,0.12266156,-2.0,2.0,2.0,-2.0,2.0,1.4833088,-2.0,-2.0,-0.30785382,-2.0,2.0,-0.08289084,-2.0,2.0,2.0,-2.0,2.0,1.3486491,-2.0,-2.0,-0.4196484,-2.0
2025-07-21 14:57:39.482,3.1400000000000023,3140,157,0.09303637,-0.07089059,0.05672703,-0.0055784243,-0.018142609,3.850971e-05,0.0,0.0,0.0,-0.042057537,0.116993286,0.16880672,0.098195285,0.19975027,0.2685726,-0.19048783,0.10305735,0.09488574,-0.01741843,-0.09291582,0.085626185,-0.07031885,0.039177224,0.0012560744,-0.035770737,0.034792006,0.06700891,-0.017821837,-0.07005271,0.06805863,0.027319426,0.052633762,-0.053089436,-0.04150128,2.0,-0.08289084,-2.0,2.0,2.0,-2.0,2.0,1.3486491,-2.0,-2.0,-0.4196484,-2.0,2.0,-0.41608563,-2.0,2.0,2.0,-2.0,2.0,1.0519962,-2.0,-2.0,-0.37331712,-2.0
2025-07-21 14:57:39.503,3.1600000000000024,3160,158,0.011488347,-0.009189992,0.008204921,-0.007419079,-0.059236705,0.01875666,0.0,0.0,0.0,-0.042510573,0.109065816,0.1575306,0.09829322,0.19645496,0.28181884,-0.1944337,0.10263121,0.10893042,-0.02778624,-0.091327906,0.071875036,-0.06889575,-0.0013755718,-0.056930967,-0.043604035,0.0693897,0.0145709,0.06566864,0.034507025,0.04276609,-0.069451585,0.03948904,-0.040479425,0.052265845,2.0,-0.41608563,-2.0,2.0,2.0,-2.0,2.0,1.0519962,-2.0,-2.0,-0.37331712,-2.0,2.0,0.18010822,-2.0,2.0,2.0,-2.0,2.0,1.450501,-2.0,-2.0,-0.35221183,-2.0
2025-07-21 14:57:39.524,3.1800000000000024,3180,159,-0.003477223,-0.118055426,-0.030197171,-0.012283015,-0.032142,0.048935354,0.0,0.0,0.0,-0.04253814,0.099523254,0.15924221,0.10169868,0.19258487,0.26680893,-0.17887148,0.09981069,0.100612454,-0.032871276,-0.08275894,0.053207405,-0.07047445,-0.010286861,-0.06718375,-0.0014511541,-0.056097377,0.062219493,-0.0132028125,0.017228264,0.056104414,-0.0075609535,0.028878715,-0.01940486,-0.07162164,2.0,0.18010822,-2.0,2.0,2.0,-2.0,2.0,1.450501,-2.0,-2.0,-0.35221183,-2.0,2.0,0.11634448,-2.0,2.0,2.0,-2.0,0.8799736,1.1932714,-2.0,-2.0,-0.3218764,-2.0
2025-07-21 14:57:39.543,3.2000000000000024,3200,160,-0.0006325182,-0.069760785,-0.05004388,0.0033653672,-0.017258454,-0.025186062,0.0,0.0,0.0,-0.042293422,0.11160382,0.1570848,0.083905034,0.19083898,0.2737298,-0.1721967,0.10468315,0.12181151,-0.038532004,-0.095280044,0.052705765,-0.08523743,0.056305308,0.040201947,-0.029140754,-0.07712051,0.00446461,0.062365547,-0.08156627,-0.025454508,-0.019142253,-0.020350903,-0.003723823,-0.07089798,2.0,0.11634448,-2.0,2.0,2.0,-2.0,0.8799736,1.1932714,-2.0,-2.0,-0.3218764,-2.0,2.0,-0.31115904,-2.0,2.0,1.6542064,-2.0,-1.996357,1.6746507,-2.0,-2.0,-0.3978883,-2.0
2025-07-21 14:57:39.563,3.2200000000000024,3220,161,0.038120113,0.024664005,0.07188707,-0.054762747,-0.018054701,-0.007743908,0.0,0.0,0.0,-0.04202068,0.10545023,0.15582514,0.09951665,0.18015167,0.2698665,-0.16510683,0.085505396,0.11531609,-0.033832606,-0.09406262,0.05725173,-0.09330757,-0.08627657,0.051962715,0.08336,-0.07394929,0.02375411,0.046022747,-0.0076880306,0.08964673,-0.05034327,0.025769783,0.055568922,-0.0692094,2.0,-0.31115904,-2.0,2.0,1.6542064,-2.0,-1.996357,1.6746507,-2.0,-2.0,-0.3978883,-2.0,2.0,0.152688,-2.0,2.0,2.0,-2.0,-2.0,1.5810862,-2.0,-2.0,-0.06512378,-2.0
2025-07-21 14:57:39.582,3.2400000000000024,3240,162,0.05018806,0.026935572,0.052418444,-0.041384853,-0.089781836,-0.023792822,0.0,0.0,0.0,-0.04216672,0.08290311,0.16797034,0.09814694,0.1793927,0.26300785,-0.16039532,0.06538046,0.14067909,-0.056174006,-0.11297831,0.05683783,-0.089682475,-0.012371648,-0.057901412,0.07511902,-0.026511969,-0.03599014,-0.046515245,-0.09003759,0.06436419,-0.05214253,-0.104192585,0.08366794,-0.05175782,2.0,0.152688,-2.0,2.0,2.0,-2.0,-2.0,1.5810862,-2.0,-2.0,-0.06512378,-2.0,2.0,-0.1387352,-2.0,2.0,1.6841397,-2.0,-2.0,1.862408,-2.0,-2.0,-0.22122465,-2.0
2025-07-21 14:57:39.603,3.2600000000000025,3260,163,0.011736841,-0.065828055,0.03433526,-0.022929823,-0.046404224,-0.028172009,0.0,0.0,0.0,-0.042859517,0.07425775,0.16518745,0.112285055,0.17637399,0.27381948,-0.1461452,0.06569386,0.14794463,-0.054654825,-0.13134496,0.055348206,-0.090848394,0.048041902,0.070446365,-0.0030654157,-0.069391295,0.023405788,0.06653117,-0.08937977,-0.008756451,-0.03125397,0.016407136,0.03161627,-0.057424698,2.0,-0.1387352,-2.0,2.0,1.6841397,-2.0,-2.0,1.862408,-2.0,-2.0,-0.22122465,-2.0,2.0,-0.10911742,-2.0,2.0,1.9116116,-2.0,-2.0,1.6862748,-2.0,-2.0,-0.24610005,-2.0
2025-07-21 14:57:39.627,3.2800000000000025,3280,164,-0.008013642,-0.04679976,0.07241119,-0.019387476,-0.09703032,-0.023898209,0.0,0.0,0.0,-0.044015925,0.07219867,0.17521377,0.09450612,0.16281746,0.26303867,-0.13568774,0.047599196,0.15002137,-0.07753988,-0.13139667,0.04596992,-0.097945675,0.02487109,-0.005366035,-0.0065087248,0.042817887,-0.058918297,-0.016812263,-0.034038123,0.021645892,-0.046900723,-0.009859347,0.06112134,0.07319353,2.0,-0.10911742,-2.0,2.0,1.9116116,-2.0,-2.0,1.6862748,-2.0,-2.0,-0.24610005,-2.0,2.0,-0.09452149,-2.0,2.0,2.0,-2.0,-2.0,1.7695546,-2.0,-2.0,-0.20728968,-2.0
2025-07-21 14:57:39.643,3.3000000000000025,3300,165,0.023671687,-0.049167395,0.09472209,0.018438652,-0.10502656,0.018396443,0.0,0.0,0.0,-0.045489457,0.060676657,0.18670699,0.11364212,0.16485092,0.2697931,-0.13459629,0.03286098,0.17486258,-0.073228054,-0.15269278,0.04274362,-0.103995316,-0.04116351,-0.054303285,-0.028881136,-0.066133566,0.0072390633,-0.050950658,0.043488123,0.10226227,-0.008801753,-0.09859543,-0.05449443,-0.036364224,2.0,-0.09452149,-2.0,2.0,2.0,-2.0,-2.0,1.7695546,-2.0,-2.0,-0.20728968,-2.0,2.0,0.13952646,-2.0,2.0,2.0,-2.0,-2.0,1.5206916,-2.0,-2.0,-0.17074762,-2.0
2025-07-21 14:57:39.663,3.3200000000000025,3320,166,-0.038946006,0.025717847,0.08772755,-0.0022133081,-0.07146284,-0.008039885,0.0,0.0,0.0,-0.047016673,0.065506324,0.19645855,0.10572335,0.17448272,0.2673651,-0.13765442,0.010237321,0.18495974,-0.08989788,-0.1583015,0.042975444,-0.08261887,-0.038268466,0.033082496,0.05378998,-0.024380865,0.068835296,0.031968813,-0.04694897,0.089041166,-0.05995556,-0.055137582,0.029481512,0.016178349,2.0,0.13952646,-2.0,2.0,2.0,-2.0,-2.0,1.5206916,-2.0,-2.0,-0.17074762,-2.0,2.0,-0.49639216,-2.0,2.0,1.9239174,-2.0,-2.0,1.8860658,-2.0,-2.0,-0.15532671,-2.0
