openverse-orca/OrcaGym/log/simulation_log_20250610_090103.csv
timestamp,imu_angle_roll,imu_angle_pitch,imu_angle_yaw,imu_angular_velocity_roll,imu_angular_velocity_pitch,imu_angular_velocity_yaw,imu_acc_x,imu_acc_y,imu_acc_z,fl_joint1_pos,fl_joint1_vel,fl_joint1_torque,fl_joint2_pos,fl_joint2_vel,fl_joint2_torque,fl_joint3_pos,fl_joint3_vel,fl_joint3_torque,fr_joint1_pos,fr_joint1_vel,fr_joint1_torque,fr_joint2_pos,fr_joint2_vel,fr_joint2_torque,fr_joint3_pos,fr_joint3_vel,fr_joint3_torque,hl_joint1_pos,hl_joint1_vel,hl_joint1_torque,hl_joint2_pos,hl_joint2_vel,hl_joint2_torque,hl_joint3_pos,hl_joint3_vel,hl_joint3_torque,hr_joint1_pos,hr_joint1_vel,hr_joint1_torque,hr_joint2_pos,hr_joint2_vel,hr_joint2_torque,hr_joint3_pos,hr_joint3_vel,hr_joint3_torque,fl_force_x,fl_force_y,fl_force_z,fr_force_x,fr_force_y,fr_force_z,hl_force_x,hl_force_y,hl_force_z,hr_force_x,hr_force_y,hr_force_z,fl_hip_action,fl_thigh_action,fl_calf_action,fr_hip_action,fr_thigh_action,fr_calf_action,hl_hip_action,hl_thigh_action,hl_calf_action,hr_hip_action,hr_thigh_action,hr_calf_action
2025-06-10 09:01:03.547,0.008354764,-0.021437926,-0.026865963,0.047930043,0.0035598087,0.01984674,0.64503694,-0.406226,0.0,0.0,0.009334411,0.0011036203,-0.0016689651,-0.0032083953,-0.008858529,-0.008769572,-0.0070400266,0.008328847,-0.00746978,-0.005187803,0.0035805223,-0.008101239,-0.04627093,-0.0037846153,0.008738856,0.029747324,0.0062769824,-0.03614757,0.015872557,-0.02987481,-0.003013066,0.07199041,-0.018915126,-0.055009805,0.0,0.0,0.0,0.0,0.0,0.0,0.0,0.0,0.0,0.0,0.0,0.0,2.0,2.0,-2.0,2.0,2.0,-2.0,2.0,-0.68087256,-2.0,-2.0,-0.88117355,-2.0
2025-06-10 09:01:03.551,-0.107221775,-0.0786515,0.024622256,-0.031802062,-0.026033858,0.022088319,0.0,0.0,0.0,0.0,0.018427249,0.09614576,-0.07798235,0.02017913,0.09406593,-0.06957711,0.028137172,-0.029298482,-0.06947325,-0.010492986,-0.038837254,-0.070464514,0.05267176,0.33960208,-0.26963276,0.13434571,0.32878166,-0.24404868,0.08705314,-0.111746475,-0.17874101,-0.04778419,-0.10790687,-0.1957287,2.0,2.0,-2.0,2.0,2.0,-2.0,2.0,-0.68087256,-2.0,-2.0,-0.88117355,-2.0,2.0,2.0,-2.0,2.0,2.0,-2.0,2.0,-0.6695962,-2.0,-2.0,-0.58777666,-2.0
2025-06-10 09:01:03.574,-0.058128014,-0.034282025,0.030019334,-0.048931148,-0.0043296623,-0.00897847,0.0,0.0,0.0,-0.00027240405,0.026747093,0.1703727,-0.118720315,0.056347314,0.17988439,-0.118437625,0.049472436,-0.062562436,-0.122886695,-0.027430005,-0.06761363,-0.101006106,0.07752078,0.11039177,-0.05196314,0.11368891,0.16107102,-0.08500346,0.05671608,-0.10865889,-0.073544376,-0.02316484,-0.08998057,0.0021432277,2.0,2.0,-2.0,2.0,2.0,-2.0,2.0,-0.6695962,-2.0,-2.0,-0.58777666,-2.0,2.0,2.0,-2.0,2.0,2.0,-2.0,2.0,-0.5590172,-2.0,-2.0,-0.63087654,-2.0
2025-06-10 09:01:03.592,-0.03430978,-0.077615455,0.09230026,-0.019073192,0.060828943,0.013616987,0.0,0.0,0.0,-0.0009941327,0.02755015,0.1969934,-0.11766638,0.08839579,0.2039485,-0.14707598,0.050767165,-0.056526884,-0.13116266,-0.020703344,-0.08126106,-0.08238239,0.08798664,0.05415454,-0.060280472,0.043897953,-0.0115370685,-0.055265922,0.05437519,-0.049606398,0.069127075,0.05106008,-0.07080044,0.08416093,2.0,2.0,-2.0,2.0,2.0,-2.0,2.0,-0.5590172,-2.0,-2.0,-0.63087654,-2.0,2.0,2.0,-2.0,2.0,2.0,-2.0,2.0,-0.7495718,-2.0,-2.0,-0.6046076,-2.0
2025-06-10 09:01:03.611,-0.06800232,0.05363954,0.09273341,-0.056945417,0.016154189,0.005285877,0.0,0.0,0.0,-0.0023510808,0.051300623,0.2321885,-0.13880618,0.09560565,0.22115593,-0.15136951,0.06337733,-0.06504911,-0.11407243,-0.03361741,-0.063967876,-0.09308104,0.015687147,0.061660185,-0.0010830945,0.016709287,0.025640443,0.010746619,0.00067614147,-0.05053908,0.05017708,-0.015567516,-0.036514677,0.055871714,2.0,2.0,-2.0,2.0,2.0,-2.0,2.0,-0.7495718,-2.0,-2.0,-0.6046076,-2.0,2.0,2.0,-2.0,2.0,2.0,-2.0,2.0,-0.76635075,-2.0,-2.0,-0.5206833,-2.0
2025-06-10 09:01:03.632,-0.026991311,0.043863587,0.13317594,0.019964026,0.06984338,0.045780882,0.0,0.0,0.0,-0.003980002,0.04558349,0.2642445,-0.1378549,0.11854967,0.25878727,-0.18653068,0.05200884,-0.055472847,-0.118044734,-0.026091272,-0.06185292,-0.08613059,0.054329593,0.022392323,-0.07559345,0.05534332,0.08789463,-0.11451723,0.0027926913,-0.03372857,-0.058847405,-0.0028855437,-0.03849782,0.0068998933,2.0,2.0,-2.0,2.0,2.0,-2.0,2.0,-0.76635075,-2.0,-2.0,-0.5206833,-2.0,2.0,2.0,-2.0,2.0,2.0,-2.0,2.0,-0.6988497,-2.0,-2.0,-0.40659523,-2.0
2025-06-10 09:01:03.652,-0.04162633,0.09334647,0.14284784,-0.020728791,-0.012198611,-0.04533406,0.0,0.0,0.0,-0.0057146223,0.0442753,0.29153734,-0.16343096,0.11398524,0.2970911,-0.2029463,0.060854487,-0.068552785,-0.13185023,-0.03586482,-0.049852144,-0.08941218,-0.065053776,0.1299007,-0.045817163,0.004670218,0.056319058,0.012149711,0.05649556,-0.06041822,-0.049209915,-0.03023903,-0.020158192,-0.049583886,2.0,2.0,-2.0,2.0,2.0,-2.0,2.0,-0.6988497,-2.0,-2.0,-0.40659523,-2.0,2.0,2.0,-2.0,2.0,2.0,-2.0,2.0,-0.7702069,-2.0,-2.0,-0.09125781,-2.0
2025-06-10 09:01:03.674,0.012802449,-0.002474778,0.13576844,-0.010646216,-0.007204277,-0.0034890762,0.0,0.0,0.0,-0.0076010646,0.05229832,0.32992074,-0.19282903,0.12989965,0.3569325,-0.22283036,0.06779471,-0.09021516,-0.15520933,-0.044789243,-0.033270434,-0.10786616,0.04048268,0.09768089,-0.05813493,0.006621176,0.12574734,-0.09664726,0.034481645,-0.0786874,-0.07724071,-0.08393852,-0.014420141,0.014325122,2.0,2.0,-2.0,2.0,2.0,-2.0,2.0,-0.7702069,-2.0,-2.0,-0.09125781,-2.0,2.0,2.0,-2.0,2.0,2.0,-2.0,2.0,-0.56279993,-2.0,-2.0,0.037846565,-2.0
2025-06-10 09:01:03.692,0.016045809,-0.09696589,0.1352705,-0.010428865,0.053664688,0.00060124544,0.0,0.0,0.0,-0.009573794,0.06560349,0.36430237,-0.18884037,0.11744528,0.41484216,-0.25711533,0.06439188,-0.08772083,-0.16573735,-0.029247833,-0.012384054,-0.11259179,0.021453071,0.09184553,-0.023194246,0.040995393,0.1475623,-0.10501961,-0.0033532376,0.016176622,0.022569789,-0.06772237,0.01651453,-0.06545325,2.0,2.0,-2.0,2.0,2.0,-2.0,2.0,-0.56279993,-2.0,-2.0,0.037846565,-2.0,2.0,2.0,-2.0,2.0,2.0,-2.0,2.0,-0.6578965,-2.0,-2.0,0.099653244,-2.0
2025-06-10 09:01:03.712,0.05614643,-0.05364182,0.1275458,-0.05387857,-0.026927438,-0.02638101,0.0,0.0,0.0,-0.011736366,0.08097721,0.38759878,-0.20303473,0.113719255,0.45338908,-0.2596657,0.062317733,-0.083732195,-0.17820317,-0.03835133,0.011234884,-0.11196453,0.0015363544,0.038812287,0.028065901,-0.045371357,0.15483843,0.01961496,-0.04003236,-0.08014304,0.020164773,0.0151105495,0.034031335,0.024593716,2.0,2.0,-2.0,2.0,2.0,-2.0,2.0,-0.6578965,-2.0,-2.0,0.099653244,-2.0,2.0,2.0,-2.0,2.0,2.0,-2.0,2.0,-0.64930964,-2.0,-2.0,-0.0107975,-2.0
2025-06-10 09:01:03.732,0.056778837,-0.021290913,0.056302924,-0.06392726,0.06277251,0.013069073,0.0,0.0,0.0,-0.01388857,0.093864456,0.42036852,-0.1908065,0.10919406,0.4868616,-0.27226943,0.077849366,-0.08085072,-0.17486906,-0.033550877,0.020882739,-0.08725184,0.049850095,0.06161294,0.031832572,0.046173,0.124683544,0.034523368,-0.05912896,0.00044941442,0.00036389747,0.06572374,-0.018534768,-0.019354353,2.0,2.0,-2.0,2.0,2.0,-2.0,2.0,-0.64930964,-2.0,-2.0,-0.0107975,-2.0,2.0,2.0,-2.0,2.0,2.0,-2.0,2.0,-0.5374298,-2.0,-2.0,-0.30027127,-2.0
2025-06-10 09:01:03.752,-0.0050316113,-0.035332803,0.06411312,-0.0028341764,0.057830684,-0.031312123,0.0,0.0,0.0,-0.01574449,0.083946556,0.42510116,-0.17685178,0.1212816,0.49552548,-0.25981867,0.07135473,-0.07626657,-0.16441992,-0.0540106,0.03205601,-0.077760965,0.008753643,0.06776175,0.026182864,0.053294685,-0.008468152,0.03939266,0.06394036,-0.019449696,0.07966538,-0.015060744,0.060790565,0.030080017,2.0,2.0,-2.0,2.0,2.0,-2.0,2.0,-0.5374298,-2.0,-2.0,-0.30027127,-2.0,2.0,2.0,-2.0,2.0,2.0,-2.0,2.0,-0.66204023,-2.0,-2.0,-0.28300333,-2.0
2025-06-10 09:01:03.774,0.042596802,-0.0055115684,0.06750006,0.019363245,-0.019600911,-0.005850251,0.0,0.0,0.0,-0.017399646,0.100644216,0.4497419,-0.16829047,0.12180626,0.49935126,-0.26138562,0.059016626,-0.08126858,-0.1426112,-0.05629839,0.048278566,-0.06920928,0.07025492,0.07482805,-0.0036796778,0.050582062,-0.04828301,-0.034646828,0.06517606,-0.00051901495,0.1067347,-0.0259508,-0.03726025,-0.0154718375,2.0,2.0,-2.0,2.0,2.0,-2.0,2.0,-0.66204023,-2.0,-2.0,-0.28300333,-2.0,2.0,2.0,-2.0,2.0,2.0,-2.0,2.0,-0.64988184,-2.0,-2.0,-0.3031335,-2.0
2025-06-10 09:01:03.792,-0.054597702,0.020587904,0.011003106,-0.041649014,0.0387106,-0.041024696,0.0,0.0,0.0,-0.018777994,0.10958384,0.4685805,-0.16574804,0.13124314,0.5103873,-0.26036215,0.06058288,-0.07900913,-0.1312434,-0.058005266,0.030837934,-0.051988404,0.07829967,0.047797725,0.01909123,-0.027165988,-0.0063386764,-0.06988127,0.03329607,0.017803384,0.06108513,0.007077215,0.02465905,0.10963619,2.0,2.0,-2.0,2.0,2.0,-2.0,2.0,-0.64988184,-2.0,-2.0,-0.3031335,-2.0,2.0,2.0,-2.0,2.0,2.0,-2.0,2.0,-0.53787804,-2.0,-2.0,-0.8041549,-2.0
2025-06-10 09:01:03.812,-0.09414262,0.0908096,0.08658831,-0.0013648756,-0.0056814402,0.04256031,0.0,0.0,0.0,-0.019783624,0.10958214,0.4603917,-0.15635963,0.13561265,0.5185648,-0.25751597,0.06724604,-0.082104914,-0.09914423,-0.04684534,0.03804762,-0.035350394,-0.011783868,-0.015932282,0.02786639,-0.05050452,0.04540584,-0.021859886,0.045356937,0.0255148,0.08580711,0.002266379,-0.08143568,-0.025473444,2.0,2.0,-2.0,2.0,2.0,-2.0,2.0,-0.53787804,-2.0,-2.0,-0.8041549,-2.0,2.0,2.0,-2.0,2.0,2.0,-2.0,2.0,-0.9127841,-2.0,-2.0,-0.36414814,-2.0
2025-06-10 09:01:03.832,0.0204401,0.009303113,-0.012891074,0.019750545,0.052608762,0.02135461,0.0,0.0,0.0,-0.020897066,0.102334164,0.4710212,-0.1689095,0.13874741,0.5226968,-0.26033366,0.06400333,-0.0763739,-0.09547097,-0.05061517,0.015575095,-0.015626468,-0.07225636,0.033493243,0.045503385,0.0074634007,0.00802425,0.0112796575,0.02970091,0.053825144,0.100620635,0.002720971,0.056475684,-0.014929743,2.0,2.0,-2.0,2.0,2.0,-2.0,2.0,-0.9127841,-2.0,-2.0,-0.36414814,-2.0,2.0,2.0,-2.0,2.0,2.0,-2.0,2.0,-0.54917574,-2.0,-2.0,-0.9726267,-2.0
2025-06-10 09:01:03.852,-0.04287279,0.06460077,0.041469604,-0.054180518,0.022680433,0.025181094,0.0,0.0,0.0,-0.021594245,0.10271839,0.4849315,-0.16730955,0.14911336,0.52560467,-0.26356685,0.06048964,-0.07976311,-0.07073342,-0.050026137,0.000358093,-0.0037485834,0.07479546,0.07626505,0.029332355,0.061848674,0.062404748,-0.00026697386,0.007397112,0.055242762,-0.041924153,0.062105782,0.027640296,0.097321466,2.0,2.0,-2.0,2.0,2.0,-2.0,2.0,-0.54917574,-2.0,-2.0,-0.9726267,-2.0,2.0,2.0,-2.0,2.0,2.0,-2.0,2.0,-0.69441366,-2.0,-2.0,-0.7725949,-2.0
2025-06-10 09:01:03.874,-0.01617481,0.024356522,0.045345508,-0.051830612,-0.005225981,0.04807464,0.0,0.0,0.0,-0.022363381,0.11814649,0.48502252,-0.1683087,0.14493954,0.51241416,-0.26000372,0.04404992,-0.08283558,-0.08323204,-0.06764565,-0.0059404676,0.009897234,0.0023456214,-0.024094433,0.06560855,0.07247215,0.012372214,-0.039985567,0.04695826,-0.04687977,0.050510533,-0.064665176,0.04170307,0.09479835,2.0,2.0,-2.0,2.0,2.0,-2.0,2.0,-0.69441366,-2.0,-2.0,-0.7725949,-2.0,2.0,2.0,-2.0,2.0,2.0,-2.0,2.0,-0.6229234,-2.0,-2.0,-0.79862833,-2.0
2025-06-10 09:01:03.892,-0.032588687,-0.0413389,0.004844548,-0.009016182,0.04681182,-0.03233258,0.0,0.0,0.0,-0.023167115,0.10729187,0.47764835,-0.17255367,0.15068199,0.51859695,-0.24757524,0.043521393,-0.09405658,-0.07326026,-0.0665647,-0.011383301,0.028863085,0.030995734,0.07234003,-0.008925601,-0.04724221,-0.02707923,-0.030245539,-0.06064226,-0.06598826,0.0644265,-0.050709374,0.04224795,-0.008535248,2.0,2.0,-2.0,2.0,2.0,-2.0,2.0,-0.6229234,-2.0,-2.0,-0.79862833,-2.0,2.0,2.0,-2.0,2.0,2.0,-2.0,2.0,-0.64377546,-2.0,-2.0,-0.82971954,-2.0
2025-06-10 09:01:03.912,0.0066374172,0.029873796,-0.018608946,0.020524686,0.02330384,-0.026222676,0.0,0.0,0.0,-0.0238203,0.106913015,0.47172418,-0.17825341,0.14985126,0.50257635,-0.2595431,0.04184542,-0.09508987,-0.082431205,-0.05628486,-0.020350888,0.03391958,0.056113232,-0.0033470944,-0.023352036,0.06975878,-0.05935662,0.010050441,0.063847564,-0.049944818,0.004368658,0.019868284,0.012503399,0.051867053,2.0,2.0,-2.0,2.0,2.0,-2.0,2.0,-0.64377546,-2.0,-2.0,-0.82971954,-2.0,2.0,2.0,-2.0,2.0,2.0,-2.0,2.0,-0.46267417,-2.0,-2.0,-1.0166593,-2.0
2025-06-10 09:01:03.933,-0.04882301,-0.03437499,0.056644477,0.022476304,0.08218318,-0.041478816,0.0,0.0,0.0,-0.02432116,0.10603555,0.4717104,-0.17514756,0.14729342,0.5002945,-0.23893033,0.04674954,-0.09829646,-0.07298638,-0.075878605,-0.028483532,0.026328214,0.03482149,0.04199599,-0.08289826,0.031599898,-0.032745548,-0.012048989,0.03856396,-0.035085153,-0.09304024,-0.036368832,-0.05967985,0.04828622,2.0,2.0,-2.0,2.0,2.0,-2.0,2.0,-0.46267417,-2.0,-2.0,-1.0166593,-2.0,2.0,2.0,-2.0,2.0,2.0,-2.0,2.0,-0.6981988,-2.0,-2.0,-0.5937607,-2.0
2025-06-10 09:01:03.953,-0.03624088,-0.006983055,0.038256742,-0.0028652125,-0.011015917,-0.019863108,0.0,0.0,0.0,-0.024927739,0.115079194,0.4708356,-0.17735961,0.15085874,0.4962521,-0.23573445,0.03325235,-0.086225316,-0.08344631,-0.066750705,-0.030470703,0.03581512,-0.038760684,0.015917743,0.05058415,-0.0037379775,-0.08208645,-0.04472158,-0.066474095,-0.029249784,-0.048958573,-0.01810763,-0.066453636,-0.03572019,2.0,2.0,-2.0,2.0,2.0,-2.0,2.0,-0.6981988,-2.0,-2.0,-0.5937607,-2.0,2.0,2.0,-2.0,2.0,2.0,-2.0,2.0,-0.6132598,-2.0,-2.0,-0.7837806,-2.0
2025-06-10 09:01:03.973,-0.052263852,-0.04544907,-0.042612646,-0.017490584,0.04255908,-0.021607483,0.0,0.0,0.0,-0.025142187,0.106351666,0.48066023,-0.18996313,0.14858234,0.47981393,-0.23974752,0.04033198,-0.08515025,-0.096027076,-0.062163044,-0.042531226,0.032133233,0.034796663,0.0025736843,-0.02141266,0.022741338,0.04860248,0.017638499,0.050686013,-0.039666843,-0.062331237,-0.070097886,-0.023305584,-0.059355773,2.0,2.0,-2.0,2.0,2.0,-2.0,2.0,-0.6132598,-2.0,-2.0,-0.7837806,-2.0,2.0,2.0,-2.0,2.0,2.0,-2.0,2.0,-0.39463666,-2.0,-2.0,-1.0293102,-2.0
2025-06-10 09:01:03.993,-0.057155553,-0.02016648,-0.035389543,-0.06113794,0.0591474,0.019624304,0.0,0.0,0.0,-0.025020184,0.114793845,0.47340974,-0.19213875,0.14064576,0.4766571,-0.23131913,0.03231675,-0.09684612,-0.108326,-0.063033886,-0.038647205,0.020491248,-0.06894809,0.021617841,-0.021293003,0.06954625,-0.00975851,0.04489348,0.060447283,0.021500254,-0.090951234,-0.025278157,-0.021459272,-0.047931828,2.0,2.0,-2.0,2.0,2.0,-2.0,2.0,-0.39463666,-2.0,-2.0,-1.0293102,-2.0,2.0,2.0,-2.0,2.0,2.0,-2.0,2.0,-0.4685779,-2.0,-2.0,-1.0062304,-2.0
2025-06-10 09:01:04.013,-0.064959936,-0.021173438,0.045722913,0.0020021591,-0.004948187,-0.00047454212,0.0,0.0,0.0,-0.02512032,0.10625295,0.47157893,-0.19891189,0.14011511,0.46654662,-0.24315688,0.044371914,-0.087965325,-0.12525137,-0.062741034,-0.06458526,0.019201033,0.040711913,0.005524578,-0.03477334,-0.002153657,-0.0261254,-0.036125537,0.060549468,0.07095516,-0.042923436,0.052394412,-0.030720182,-0.0057961456,2.0,2.0,-2.0,2.0,2.0,-2.0,2.0,-0.4685779,-2.0,-2.0,-1.0062304,-2.0,2.0,2.0,-2.0,2.0,2.0,-2.0,2.0,-0.6162219,-2.0,-2.0,-0.85619307,-2.0
2025-06-10 09:01:04.033,0.013171206,0.031705942,0.035076864,-0.050554596,0.08400849,-0.015998438,0.0,0.0,0.0,-0.025456036,0.09866652,0.46503568,-0.2016144,0.15150262,0.46094984,-0.23687841,0.032945395,-0.097214036,-0.13675521,-0.068999685,-0.07221835,0.019006273,0.055848822,0.03297159,0.0072483066,0.02542354,0.03009692,-0.008076732,0.035658743,-0.07729245,-0.07471276,-0.06396135,0.01769565,0.048210237,2.0,2.0,-2.0,2.0,2.0,-2.0,2.0,-0.6162219,-2.0,-2.0,-0.85619307,-2.0,2.0,2.0,-2.0,2.0,2.0,-2.0,2.0,-0.5858855,-2.0,-2.0,-0.7580581,-2.0
2025-06-10 09:01:04.053,-0.036638208,-0.010922643,-0.027520748,-0.061968267,0.025653072,-0.04031451,0.0,0.0,0.0,-0.025657423,0.10872898,0.47219065,-0.19787835,0.14074542,0.44897142,-0.2241118,0.028349083,-0.08361278,-0.13285813,-0.061346706,-0.068419226,-0.0006838072,-0.024687273,-0.08164251,-0.065896265,0.018093016,-0.07935555,-0.05750867,-0.045962494,0.013311551,0.014850398,-0.055335913,-0.061139125,-0.009289443,2.0,2.0,-2.0,2.0,2.0,-2.0,2.0,-0.5858855,-2.0,-2.0,-0.7580581,-2.0,2.0,2.0,-2.0,2.0,2.0,-2.0,2.0,-0.41015628,-2.0,-2.0,-1.0363677,-2.0
2025-06-10 09:01:04.073,-0.00015005958,0.002273049,-0.0071018892,-0.08797533,0.04445711,-0.035731252,0.0,0.0,0.0,-0.02557798,0.100997254,0.46931776,-0.20431925,0.14932577,0.44846287,-0.22503707,0.03458689,-0.088214435,-0.15727988,-0.062715314,-0.0834766,-0.0072307764,0.030907406,0.020996986,0.03307754,0.03612178,-0.019985313,0.002444261,0.008458049,-0.024247667,0.04669839,0.038295027,-0.03465955,-0.05974241,2.0,2.0,-2.0,2.0,2.0,-2.0,2.0,-0.41015628,-2.0,-2.0,-1.0363677,-2.0,2.0,2.0,-2.0,2.0,2.0,-2.0,2.0,-0.5692773,-2.0,-2.0,-0.8791528,-2.0
2025-06-10 09:01:04.093,0.036832914,-0.051757697,0.02523132,-0.06840797,-0.0022459887,0.04996998,0.0,0.0,0.0,-0.025644373,0.10450409,0.45474958,-0.19958587,0.1460416,0.44098052,-0.21934116,0.036157224,-0.09352855,-0.15248808,-0.060443293,-0.089395896,-0.014078319,-0.049430326,0.022479892,-0.011413138,0.0063856263,-0.07214611,0.013334175,-0.008805023,0.029704671,-0.001163718,-0.051474635,-0.03407081,-0.08415132,2.0,2.0,-2.0,2.0,2.0,-2.0,2.0,-0.5692773,-2.0,-2.0,-0.8791528,-2.0,2.0,2.0,-2.0,2.0,2.0,-2.0,2.0,-0.58999825,-2.0,-2.0,-0.8409462,-2.0
2025-06-10 09:01:04.113,0.032266624,-0.053286944,-0.010303899,-0.085491456,0.02884232,0.040927887,0.0,0.0,0.0,-0.025755966,0.09829422,0.4490583,-0.18752928,0.14566797,0.44700357,-0.22437105,0.04160016,-0.08833204,-0.15870202,-0.06966418,-0.07998223,-0.014854591,-0.05895539,-0.032378882,0.0148881115,0.059914783,-0.06907617,-0.06636132,-0.040544767,-0.0136859175,0.02835628,0.04542638,0.05144473,-0.019975528,2.0,2.0,-2.0,2.0,2.0,-2.0,2.0,-0.58999825,-2.0,-2.0,-0.8409462,-2.0,2.0,2.0,-2.0,2.0,2.0,-2.0,2.0,-0.44794658,-2.0,-2.0,-1.0716548,-2.0
2025-06-10 09:01:04.133,0.011776814,-0.025198342,0.030218828,-0.06523173,0.07121389,0.014569132,0.0,0.0,0.0,-0.025738748,0.085359134,0.44705185,-0.19293858,0.12995042,0.44328257,-0.21349618,0.03550556,-0.09400124,-0.16392937,-0.055850063,-0.087105244,-0.02242971,0.036147673,-0.0091123665,-0.024479954,0.005971454,-0.041115917,-0.0719183,0.054705016,-0.041109458,-0.07674269,0.05812353,0.018763503,-0.0055558556,2.0,2.0,-2.0,2.0,2.0,-2.0,2.0,-0.44794658,-2.0,-2.0,-1.0716548,-2.0,2.0,2.0,-2.0,2.0,2.0,-2.0,2.0,-0.56474876,-2.0,-2.0,-0.8148997,-2.0
2025-06-10 09:01:04.157,0.04183617,-0.04358071,-0.034056026,-0.05222555,-0.0056782905,0.026752144,0.0,0.0,0.0,-0.025924738,0.09671382,0.44559187,-0.18906517,0.14033404,0.43385744,-0.21189867,0.034461685,-0.10374917,-0.17643203,-0.06596745,-0.096013285,-0.021857578,0.03584417,-0.0591267,0.078662924,0.061594147,-0.07844144,-0.051971633,-0.06770528,0.00977929,0.004812852,-0.0010162279,0.046378136,0.008194625,2.0,2.0,-2.0,2.0,2.0,-2.0,2.0,-0.56474876,-2.0,-2.0,-0.8148997,-2.0,2.0,2.0,-2.0,2.0,2.0,-2.0,2.0,-0.3682342,-2.0,-2.0,-1.1722894,-2.0
2025-06-10 09:01:04.174,0.041177053,-0.0433402,0.021066133,-0.08480366,0.035067886,0.003208391,0.0,0.0,0.0,-0.026113681,0.102298595,0.4409457,-0.19853383,0.13858062,0.43015495,-0.21897262,0.03293973,-0.09795522,-0.16624029,-0.069115765,-0.11392865,-0.029682761,-0.048630062,0.018216478,0.046223156,-0.02604727,-0.045217898,0.0027145518,0.034817826,0.00977989,-0.025681673,-0.026236033,-0.09738338,-0.015793484,2.0,2.0,-2.0,2.0,2.0,-2.0,2.0,-0.3682342,-2.0,-2.0,-1.1722894,-2.0,2.0,2.0,-2.0,2.0,2.0,-2.0,2.0,-0.5836649,-2.0,-2.0,-0.8247199,-2.0
2025-06-10 09:01:04.194,0.04390517,0.031549033,-0.020817572,0.0033731693,0.047455255,-0.03298603,0.0,0.0,0.0,-0.026536666,0.093637764,0.45034984,-0.19531283,0.1313347,0.41802084,-0.21357714,0.030047648,-0.10950428,-0.18430912,-0.06363315,-0.09961561,-0.028467081,0.056366175,-0.063073575,-0.011011972,0.001984512,-0.06991102,-0.05265879,-0.04308169,0.070425175,-0.04371504,-0.024436181,-0.056584913,0.011496152,2.0,2.0,-2.0,2.0,2.0,-2.0,2.0,-0.5836649,-2.0,-2.0,-0.8247199,-2.0,2.0,2.0,-2.0,2.0,2.0,-2.0,2.0,-0.39995483,-2.0,-2.0,-1.068351,-2.0
2025-06-10 09:01:04.214,0.0055527394,0.006339855,0.06341863,-0.04793127,-0.009324033,-0.023189845,0.0,0.0,0.0,-0.026884848,0.104952425,0.4438556,-0.19335863,0.13639271,0.4168662,-0.22113453,0.0427193,-0.11147462,-0.17799982,-0.053234,-0.119348586,-0.03791342,0.039442252,0.0034924976,0.065055855,0.022211818,-0.013847338,-0.013258229,-0.047084037,-0.06190664,0.055141587,-0.013033759,-0.058647465,0.020356387,2.0,2.0,-2.0,2.0,2.0,-2.0,2.0,-0.39995483,-2.0,-2.0,-1.068351,-2.0,2.0,2.0,-2.0,2.0,2.0,-2.0,2.0,-0.7180567,-2.0,-2.0,-0.62835526,-2.0
2025-06-10 09:01:04.234,0.015947,-0.04293293,0.0084112855,-0.068121776,0.0037027097,0.04646944,0.0,0.0,0.0,-0.02732951,0.0887132,0.44230774,-0.18035494,0.14352211,0.42002943,-0.23066069,0.035496745,-0.11522939,-0.18489133,-0.058918763,-0.111633584,-0.046302624,0.032602113,0.03690136,0.033134766,-0.03289736,-0.00909355,0.032788824,0.02480129,0.049597606,-0.0005201167,0.045047436,-0.055199098,-0.07970997,2.0,2.0,-2.0,2.0,2.0,-2.0,2.0,-0.7180567,-2.0,-2.0,-0.62835526,-2.0,2.0,2.0,-2.0,2.0,2.0,-2.0,2.0,-0.4923902,-2.0,-2.0,-0.9389906,-2.0
2025-06-10 09:01:04.257,0.03853573,-0.00382181,0.031055244,-0.008812761,0.047488604,0.013394982,0.0,0.0,0.0,-0.027446078,0.09171519,0.45083302,-0.1746434,0.14909695,0.43080848,-0.21945721,0.035358563,-0.10390402,-0.18566482,-0.06517373,-0.117473155,-0.057435557,0.019823026,-0.03830058,-0.03860656,-0.06364962,-0.041994866,0.07028546,0.0045667174,-0.018397627,0.07213224,-0.017513953,0.011394933,-0.031359635,2.0,2.0,-2.0,2.0,2.0,-2.0,2.0,-0.4923902,-2.0,-2.0,-0.9389906,-2.0,2.0,2.0,-2.0,2.0,2.0,-2.0,2.0,-0.6581025,-2.0,-2.0,-0.8050096,-2.0
2025-06-10 09:01:04.274,0.03432568,-0.025187016,0.012008616,-0.014055946,0.027301615,-0.04312632,0.0,0.0,0.0,-0.02750546,0.09414182,0.46086648,-0.18187474,0.14395969,0.43471166,-0.21749672,0.030264689,-0.113259986,-0.1828889,-0.0629167,-0.11730117,-0.05387671,0.031708166,-0.056681115,0.06401256,-0.027283015,-0.0047438396,0.016741036,0.0014458821,0.004571977,-0.002336445,0.07384539,-0.013286395,0.030240662,2.0,2.0,-2.0,2.0,2.0,-2.0,2.0,-0.6581025,-2.0,-2.0,-0.8050096,-2.0,2.0,2.0,-2.0,2.0,2.0,-2.0,2.0,-0.47239926,-2.0,-2.0,-1.0191536,-2.0
2025-06-10 09:01:04.294,0.013142459,-0.0043594753,0.009819707,-0.013791845,0.04930066,-0.03992135,0.0,0.0,0.0,-0.027517,0.10466308,0.4555396,-0.17174608,0.1393656,0.4373056,-0.23031604,0.031002933,-0.10845508,-0.16709073,-0.052878127,-0.11075462,-0.05599579,-0.010706648,0.069186114,-0.019863386,-0.04375647,0.05875088,0.050345484,0.05016005,0.053030252,-0.01911906,0.057919543,-0.08232451,-0.058921672,2.0,2.0,-2.0,2.0,2.0,-2.0,2.0,-0.47239926,-2.0,-2.0,-1.0191536,-2.0,2.0,2.0,-2.0,2.0,2.0,-2.0,2.0,-0.5736065,-2.0,-2.0,-0.8746505,-2.0
2025-06-10 09:01:04.314,0.07560443,-0.012823149,0.060996402,-0.0022456888,-0.019906124,-0.0057189874,0.0,0.0,0.0,-0.027711548,0.106010675,0.4667112,-0.18008848,0.13744855,0.43395743,-0.22526129,0.03434717,-0.108879104,-0.17491716,-0.060251437,-0.11825079,-0.06728975,0.055943556,0.018058345,0.07971491,-0.0606154,0.0054974714,0.040483095,-0.039358277,0.050440315,0.0052454197,-0.028519774,0.072198465,0.068332605,2.0,2.0,-2.0,2.0,2.0,-2.0,2.0,-0.5736065,-2.0,-2.0,-0.8746505,-2.0,2.0,2.0,-2.0,2.0,2.0,-2.0,2.0,-0.6327553,-2.0,-2.0,-0.8918867,-2.0
2025-06-10 09:01:04.334,0.04766701,0.040129304,0.0015475742,-0.037602577,0.061346617,0.045652587,0.0,0.0,0.0,-0.028005306,0.08989354,0.4609332,-0.16504161,0.1370845,0.43301925,-0.23495793,0.04295674,-0.12169492,-0.15661043,-0.060221545,-0.12484632,-0.05250551,0.058794167,-0.016427223,-0.003751835,-0.0525982,-0.015291095,0.06258002,-0.025781734,-0.0028550276,-0.030739797,0.012383456,-0.015288934,0.056034047,2.0,2.0,-2.0,2.0,2.0,-2.0,2.0,-0.6327553,-2.0,-2.0,-0.8918867,-2.0,2.0,2.0,-2.0,2.0,2.0,-2.0,2.0,-0.4780884,-2.0,-2.0,-1.0020711,-2.0
2025-06-10 09:01:04.357,0.016176753,-0.008912728,0.0030262496,-0.07437799,0.007966846,-0.043774385,0.0,0.0,0.0,-0.02824017,0.0932284,0.46471804,-0.162621,0.13640505,0.43523753,-0.22533414,0.046644915,-0.12588204,-0.15880816,-0.054571208,-0.12615933,-0.059904423,-0.020619033,0.0408111,0.062659286,-0.033873416,-0.044146556,0.026530195,0.062381208,-0.053521864,0.029857635,-0.030134808,0.029054737,0.032008704,2.0,2.0,-2.0,2.0,2.0,-2.0,2.0,-0.4780884,-2.0,-2.0,-1.0020711,-2.0,2.0,2.0,-2.0,2.0,2.0,-2.0,2.0,-0.52134037,-2.0,-2.0,-0.91722465,-2.0
2025-06-10 09:01:04.374,0.040400546,-0.04891321,0.024326373,0.008781008,0.014013655,-0.008022562,0.0,0.0,0.0,-0.028622985,0.11063623,0.4626927,-0.16016625,0.13892592,0.44716927,-0.22495136,0.03453005,-0.12634802,-0.16150479,-0.053055353,-0.12336063,-0.05822811,0.058885816,0.06460958,0.034206517,-0.023825921,0.07800247,-0.045029897,0.06575264,-0.05855848,0.043061256,0.04935416,-0.06609903,0.04389653,2.0,2.0,-2.0,2.0,2.0,-2.0,2.0,-0.52134037,-2.0,-2.0,-0.91722465,-2.0,2.0,2.0,-2.0,2.0,2.0,-2.0,2.0,-0.5559535,-2.0,-2.0,-0.8598509,-2.0
2025-06-10 09:01:04.394,-0.021480491,-0.02444008,0.00890552,0.023345396,0.039179027,0.01902544,0.0,0.0,0.0,-0.029091839,0.104088314,0.46259075,-0.15710105,0.15153447,0.43645626,-0.23178996,0.029332863,-0.130914,-0.15627371,-0.055338006,-0.12782474,-0.06338265,-0.05299462,-0.0035172792,0.06486794,0.029747603,0.039621726,-0.007560176,0.0038387356,-0.043149114,0.035330374,-0.008934058,0.07228542,-0.040587105,2.0,2.0,-2.0,2.0,2.0,-2.0,2.0,-0.5559535,-2.0,-2.0,-0.8598509,-2.0,2.0,2.0,-2.0,2.0,2.0,-2.0,2.0,-0.513463,-2.0,-2.0,-0.98464346,-2.0
2025-06-10 09:01:04.415,0.013228217,-0.03622237,-0.02795688,-0.053807594,-0.006518677,0.021614961,0.0,0.0,0.0,-0.02947502,0.100460894,0.47201183,-0.1578976,0.15308066,0.4501272,-0.23498788,0.03280044,-0.115719505,-0.15846774,-0.059513595,-0.11451214,-0.07144086,-0.031492483,-0.013035815,-0.033337925,-0.029185556,-0.01653964,-0.033169877,0.029147942,-0.025549345,-0.025605496,0.058919705,-0.0053654574,-0.00943509,2.0,2.0,-2.0,2.0,2.0,-2.0,2.0,-0.513463,-2.0,-2.0,-0.98464346,-2.0,2.0,2.0,-2.0,2.0,2.0,-2.0,2.0,-0.33303025,-2.0,-2.0,-1.1168699,-2.0
2025-06-10 09:01:04.434,-0.011944472,0.004342006,0.064921774,-0.0020393142,-0.020187879,-0.03486985,0.0,0.0,0.0,-0.029868286,0.109445795,0.4757551,-0.14759667,0.15383267,0.4540425,-0.22718422,0.029101938,-0.1205565,-0.14836387,-0.059082486,-0.12869409,-0.07174856,-0.027328778,-0.0074442686,-0.020771608,-0.0047197444,-0.06556242,0.006042068,-0.034618966,-0.035652738,-0.05834585,-0.042746402,-0.011074679,-0.04847009,2.0,2.0,-2.0,2.0,2.0,-2.0,2.0,-0.33303025,-2.0,-2.0,-1.1168699,-2.0,2.0,2.0,-2.0,2.0,2.0,-2.0,2.0,-0.66406775,-2.0,-2.0,-0.67366266,-2.0
2025-06-10 09:01:04.457,-0.015277299,-0.031843007,-0.027727967,0.019449633,0.007561828,-0.041560017,0.0,0.0,0.0,-0.030467767,0.10706993,0.47704947,-0.15291663,0.14105049,0.45790446,-0.222837,0.027794873,-0.121248744,-0.15266292,-0.05010476,-0.12489059,-0.06758539,-0.040057354,-0.04684429,-0.011592968,0.05580696,-0.03848409,-0.06250237,-0.069707595,-0.025692696,-0.0589237,-0.037587103,-0.04405854,-0.072929226,2.0,2.0,-2.0,2.0,2.0,-2.0,2.0,-0.66406775,-2.0,-2.0,-0.67366266,-2.0,2.0,2.0,-2.0,2.0,2.0,-2.0,2.0,-0.33479503,-2.0,-2.0,-1.0277667,-2.0
2025-06-10 09:01:04.475,0.030532707,-0.04645951,0.060486667,-0.01191206,-0.009359802,0.00045138824,0.0,0.0,0.0,-0.0306745,0.11234962,0.48390055,-0.15280636,0.14851663,0.44366455,-0.23630749,0.039439615,-0.10952389,-0.15492943,-0.05131221,-0.13374239,-0.07075795,-0.011081956,-0.009445234,-0.05094143,-0.067172825,-0.02904318,-0.054036174,-0.053382143,0.028090345,0.058000673,-0.026208976,-0.042356566,0.059765425,2.0,2.0,-2.0,2.0,2.0,-2.0,2.0,-0.33479503,-2.0,-2.0,-1.0277667,-2.0,2.0,2.0,-2.0,2.0,2.0,-2.0,2.0,-0.63285494,-2.0,-2.0,-0.8102193,-2.0
2025-06-10 09:01:04.495,-0.0121430345,-0.011251062,-0.025955316,-0.07409457,-0.007295604,0.03923453,0.0,0.0,0.0,-0.030818919,0.114010684,0.47107813,-0.16289048,0.15897703,0.46068043,-0.23595099,0.031436633,-0.11112913,-0.15204586,-0.05806374,-0.1251591,-0.06434793,0.06453944,-0.044804048,0.04677036,0.04638276,-0.053620115,-0.03253363,-0.036278717,0.026002895,0.05583349,0.06874869,-0.04474872,0.0664948,2.0,2.0,-2.0,2.0,2.0,-2.0,2.0,-0.63285494,-2.0,-2.0,-0.8102193,-2.0,2.0,2.0,-2.0,2.0,2.0,-2.0,2.0,-0.3973141,-2.0,-2.0,-1.1233764,-2.0
2025-06-10 09:01:04.515,0.011446625,-0.034538854,-2.0739733e-06,-0.05705915,-0.035816718,0.022188907,0.0,0.0,0.0,-0.030767122,0.108407356,0.46992302,-0.16146472,0.14629462,0.45102954,-0.23231854,0.040893145,-0.11179095,-0.16102712,-0.0475833,-0.1220385,-0.06827204,0.060083993,-0.020145401,-0.029874234,0.059896402,-0.06391029,-0.04479438,0.060479276,-0.004832,0.053105757,0.0021986065,0.020761942,-0.05790381,2.0,2.0,-2.0,2.0,2.0,-2.0,2.0,-0.3973141,-2.0,-2.0,-1.1233764,-2.0,2.0,2.0,-2.0,2.0,2.0,-2.0,2.0,-0.4988337,-2.0,-2.0,-0.90648794,-2.0
2025-06-10 09:01:04.535,-0.008626213,-0.018579978,-0.0006257491,-0.0017856812,0.046054073,-0.029370127,0.0,0.0,0.0,-0.030770263,0.101908505,0.4800626,-0.16135953,0.14657761,0.44711065,-0.22378092,0.027324842,-0.11172575,-0.14961034,-0.046251602,-0.13709983,-0.06678961,-0.0319637,0.010848545,-0.0036483416,-0.014947051,0.035747156,-0.036777757,0.02326564,-0.0006398984,-0.0019181209,-0.05487375,-0.07550599,0.00077933125,2.0,2.0,-2.0,2.0,2.0,-2.0,2.0,-0.4988337,-2.0,-2.0,-0.90648794,-2.0,2.0,2.0,-2.0,2.0,2.0,-2.0,2.0,-0.4987202,-2.0,-2.0,-0.9042306,-2.0
2025-06-10 09:01:04.557,-0.046922617,-0.0038389878,0.04170979,-0.038267124,0.0359399,0.009988903,0.0,0.0,0.0,-0.030769791,0.1108911,0.48968259,-0.15164137,0.14467424,0.45952636,-0.2335494,0.029478284,-0.11210618,-0.15296485,-0.043377463,-0.14084904,-0.059619684,0.05251316,-0.00015855614,-0.06359047,0.048044465,0.038957182,-0.06919002,0.07048461,0.06089171,0.00030545003,0.00038023197,0.014728237,-0.03729888,2.0,2.0,-2.0,2.0,2.0,-2.0,2.0,-0.4987202,-2.0,-2.0,-0.9042306,-2.0,2.0,2.0,-2.0,2.0,2.0,-2.0,2.0,-0.60286283,-2.0,-2.0,-0.8154173,-2.0
2025-06-10 09:01:04.575,0.04427651,0.02126047,-0.042698275,-0.044935603,-0.0059897667,0.0067605185,0.0,0.0,0.0,-0.030663509,0.117219895,0.48983005,-0.16590223,0.14541033,0.45436478,-0.2297852,0.03986413,-0.10225349,-0.14828454,-0.048593264,-0.13330904,-0.06375099,-0.07152686,0.038732562,0.024865394,-0.04344891,0.026508875,0.027882602,-0.051224742,0.006107653,-0.0030468493,0.009755367,-0.008627592,-0.051144347,2.0,2.0,-2.0,2.0,2.0,-2.0,2.0,-0.60286283,-2.0,-2.0,-0.8154173,-2.0,2.0,2.0,-2.0,2.0,2.0,-2.0,2.0,-0.38340572,-2.0,-2.0,-1.1595988,-2.0
2025-06-10 09:01:04.595,-0.020107226,-0.03720251,0.048863955,0.016599094,0.031742923,0.0064400258,0.0,0.0,0.0,-0.030349743,0.114570536,0.48607025,-0.16822693,0.13855127,0.46479166,-0.21456607,0.026496094,-0.115444295,-0.15460107,-0.04768201,-0.14636707,-0.07051285,-0.06913659,-0.055527013,-0.07474196,0.047794104,0.060363777,0.04695207,-0.05133771,0.020717919,0.036637083,-0.030725565,-0.021764388,-0.002280854,2.0,2.0,-2.0,2.0,2.0,-2.0,2.0,-0.38340572,-2.0,-2.0,-1.1595988,-2.0,2.0,2.0,-2.0,2.0,2.0,-2.0,2.0,-0.7172828,-2.0,-2.0,-0.7239888,-2.0
2025-06-10 09:01:04.616,-0.0096331015,0.028322795,-0.010740709,-0.030060973,-0.0024036157,0.039554827,0.0,0.0,0.0,-0.03022994,0.09999694,0.48668852,-0.1542997,0.14796904,0.46840137,-0.21492207,0.028179657,-0.11711697,-0.15761685,-0.057330612,-0.14830807,-0.06445853,-0.052471172,0.07325465,-0.054895133,-0.058370423,0.009901946,0.033151828,0.05592001,-0.010378994,-0.041133456,0.06919741,-0.030292183,0.07149387,2.0,2.0,-2.0,2.0,2.0,-2.0,2.0,-0.7172828,-2.0,-2.0,-0.7239888,-2.0,2.0,2.0,-2.0,2.0,2.0,-2.0,2.0,-0.45543674,-2.0,-2.0,-1.0673242,-2.0
2025-06-10 09:01:04.635,0.006929496,-0.009299531,0.016157674,0.0008781253,0.024176275,-0.035073206,0.0,0.0,0.0,-0.029896664,0.09699246,0.47566,-0.17122127,0.1469993,0.46016487,-0.21920519,0.03099979,-0.11654391,-0.14901829,-0.05829401,-0.14566414,-0.07092847,-0.07323295,-0.03859387,0.019829113,-0.032563254,-0.07471939,0.023656119,-0.05421777,-0.055119343,0.045680903,-0.019758997,0.021463107,0.059503194,2.0,2.0,-2.0,2.0,2.0,-2.0,2.0,-0.45543674,-2.0,-2.0,-1.0673242,-2.0,2.0,2.0,-2.0,2.0,2.0,-2.0,2.0,-0.5888233,-2.0,-2.0,-0.9039774,-2.0
2025-06-10 09:01:04.657,-0.015439719,-0.044779066,-0.026671119,0.003718414,0.01420429,0.0019858978,0.0,0.0,0.0,-0.029662747,0.10610268,0.4757003,-0.1628065,0.14832811,0.45007822,-0.21705192,0.04431116,-0.102514006,-0.15310654,-0.051760063,-0.14742523,-0.052714515,0.012964438,-0.02930267,0.04981749,0.03795649,0.02976278,0.018910212,0.072114736,-0.018399661,-0.037081596,-0.06668171,-0.03286869,-0.007571452,2.0,2.0,-2.0,2.0,2.0,-2.0,2.0,-0.5888233,-2.0,-2.0,-0.9039774,-2.0,2.0,2.0,-2.0,2.0,2.0,-2.0,2.0,-0.3863125,-2.0,-2.0,-1.0564919,-2.0
2025-06-10 09:01:04.676,-0.009551812,-0.001964966,0.0035398442,-0.063377865,0.021141138,-0.018440707,0.0,0.0,0.0,-0.02951065,0.10609196,0.4791959,-0.16894163,0.13833205,0.45959494,-0.22502153,0.044604585,-0.10632022,-0.14985251,-0.059661742,-0.15373144,-0.07224952,-0.0018567293,0.0121169705,-0.015674956,0.010556166,0.063803546,-0.03550696,-0.01114469,0.04551431,-0.052320734,0.049503267,-0.008686196,0.023934333,2.0,2.0,-2.0,2.0,2.0,-2.0,2.0,-0.3863125,-2.0,-2.0,-1.0564919,-2.0,2.0,2.0,-2.0,2.0,2.0,-2.0,2.0,-0.5108013,-2.0,-2.0,-0.96979094,-2.0
2025-06-10 09:01:04.696,-0.008308696,0.020995121,0.03601166,-0.056321964,0.014391393,0.020737799,0.0,0.0,0.0,-0.029579384,0.10272451,0.48912203,-0.16427064,0.15219785,0.45315564,-0.20904587,0.041527025,-0.1168305,-0.15880138,-0.049437657,-0.14835763,-0.05835539,-0.051682197,-0.035562173,-0.037874456,-0.050555967,-0.00915589,-0.063390054,-0.06350994,-0.050961945,0.017542219,-0.035063904,-0.0546448,0.0022602254,2.0,2.0,-2.0,2.0,2.0,-2.0,2.0,-0.5108013,-2.0,-2.0,-0.96979094,-2.0,2.0,2.0,-2.0,2.0,2.0,-2.0,2.0,-0.60825825,-2.0,-2.0,-0.7758436,-2.0
2025-06-10 09:01:04.716,0.05883193,0.011949214,-0.005950887,-0.046987455,-0.024181953,-0.016107367,0.0,0.0,0.0,-0.029757742,0.10440983,0.4807418,-0.17129645,0.13628969,0.45082322,-0.21347205,0.03807771,-0.10903618,-0.15243012,-0.053694524,-0.1448571,-0.063043505,-0.06488375,9.1368136e-05,-0.039092436,-0.0070195887,-0.0017599491,0.06334101,0.05627241,-0.042018037,0.06946043,0.027431032,0.05150767,-0.048609056,2.0,2.0,-2.0,2.0,2.0,-2.0,2.0,-0.60825825,-2.0,-2.0,-0.7758436,-2.0,2.0,2.0,-2.0,2.0,2.0,-2.0,2.0,-0.5352545,-2.0,-2.0,-0.9932344,-2.0
2025-06-10 09:01:04.736,-0.034472644,-0.02004296,-0.033305727,-0.061667994,-0.011931265,-0.022432163,0.0,0.0,0.0,-0.029686332,0.09448841,0.49565297,-0.15583436,0.15101437,0.45488617,-0.22359361,0.039300658,-0.10749037,-0.15633586,-0.05073399,-0.15075082,-0.05554751,0.014282765,0.01309978,0.0051281,0.06010277,-0.032268178,0.06868971,0.05976846,0.038787264,0.00014457395,0.038492218,-0.025919337,-0.023834908,2.0,2.0,-2.0,2.0,2.0,-2.0,2.0,-0.5352545,-2.0,-2.0,-0.9932344,-2.0,2.0,2.0,-2.0,2.0,2.0,-2.0,2.0,-0.40546706,-2.0,-2.0,-1.0869608,-2.0
2025-06-10 09:01:04.759,0.032821797,0.024646454,-0.026887208,-0.0841171,0.0096356515,-0.005344835,0.0,0.0,0.0,-0.02957959,0.10662866,0.48301387,-0.15752313,0.14620872,0.46312654,-0.20490022,0.029343722,-0.11649329,-0.16173552,-0.041011143,-0.15486236,-0.06347327,-0.026471853,-0.00014571035,0.06804834,0.030846078,-0.043144908,-0.04047903,0.070896484,0.059356663,-0.01311286,0.057461355,-0.019708162,0.027366078,2.0,2.0,-2.0,2.0,2.0,-2.0,2.0,-0.40546706,-2.0,-2.0,-1.0869608,-2.0,2.0,2.0,-2.0,2.0,2.0,-2.0,2.0,-0.44010976,-2.0,-2.0,-1.0964427,-2.0
2025-06-10 09:01:04.776,0.027481863,-0.017057555,0.067716226,-0.06634667,0.014617683,-0.047267668,0.0,0.0,0.0,-0.029732227,0.106269784,0.48177394,-0.15857561,0.13430645,0.4536455,-0.20459245,0.024400515,-0.10677173,-0.15724188,-0.051968496,-0.15967156,-0.05601206,0.010491972,0.010849967,0.022065872,0.058756527,-0.06860523,-0.013865127,-0.015511808,-0.029431468,-0.07633038,0.055755146,-0.07075249,0.002483624,2.0,2.0,-2.0,2.0,2.0,-2.0,2.0,-0.44010976,-2.0,-2.0,-1.0964427,-2.0,2.0,2.0,-2.0,2.0,2.0,-2.0,2.0,-0.650548,-2.0,-2.0,-0.693398,-2.0
2025-06-10 09:01:04.796,0.007677065,-0.013628347,-0.040529724,0.0018124663,0.02439552,-0.03429431,0.0,0.0,0.0,-0.0300981,0.09646155,0.48570722,-0.17531909,0.15137199,0.45416287,-0.21290343,0.031495396,-0.10189807,-0.15090638,-0.04739308,-0.14726137,-0.06614058,-0.04427928,-0.0351972,-0.03696313,-0.0054398603,0.05794371,-0.035035137,-0.06469071,0.010007228,0.019238202,-0.005394822,-0.03928853,-0.04793914,2.0,2.0,-2.0,2.0,2.0,-2.0,2.0,-0.650548,-2.0,-2.0,-0.693398,-2.0,2.0,2.0,-2.0,2.0,2.0,-2.0,2.0,-0.3986688,-2.0,-2.0,-1.092021,-2.0
2025-06-10 09:01:04.816,-0.054830033,-0.03979211,-0.009501019,0.011638689,0.006633182,0.03339979,0.0,0.0,0.0,-0.03011201,0.10301743,0.48345867,-0.15775096,0.13733968,0.45335656,-0.2141315,0.038758133,-0.11463873,-0.16288093,-0.04389386,-0.16111353,-0.07216194,-0.044208072,-0.041253198,0.015585328,-0.011590522,-0.011353673,-0.021583281,-0.0004006381,0.0035278036,-0.07716067,-0.013969237,0.023706092,0.066779435,2.0,2.0,-2.0,2.0,2.0,-2.0,2.0,-0.3986688,-2.0,-2.0,-1.092021,-2.0,2.0,2.0,-2.0,2.0,2.0,-2.0,2.0,-0.40371755,-2.0,-2.0,-1.0933151,-2.0
2025-06-10 09:01:04.836,0.017983478,-0.013641488,0.026585342,-0.06610918,-0.030023653,-0.027246356,0.0,0.0,0.0,-0.030179806,0.0930007,0.48886323,-0.15986335,0.15283439,0.45543316,-0.22108777,0.030756922,-0.10737555,-0.1659727,-0.049529735,-0.15882738,-0.07558094,0.029010491,0.04972784,0.010301602,-0.058382925,-0.047170356,-0.069044024,-0.0064400113,0.01780072,0.032194015,0.0068723117,0.023694158,-0.022120006,2.0,2.0,-2.0,2.0,2.0,-2.0,2.0,-0.40371755,-2.0,-2.0,-1.0933151,-2.0,2.0,2.0,-2.0,2.0,2.0,-2.0,2.0,-0.5794034,-2.0,-2.0,-0.874722,-2.0
2025-06-10 09:01:04.857,0.055494186,-0.022960175,0.048611056,-0.07408196,-0.008864727,0.026325244,0.0,0.0,0.0,-0.03050383,0.10685271,0.49440858,-0.15844624,0.15086056,0.4492285,-0.21797304,0.032807015,-0.10903407,-0.16136666,-0.058015343,-0.15227714,-0.06499911,-0.06490639,-0.01600381,0.013588035,-0.01378133,0.0073698396,-0.0036935254,0.014756118,-0.027078787,-0.02169308,0.06624062,0.055974673,0.055662867,2.0,2.0,-2.0,2.0,2.0,-2.0,2.0,-0.5794034,-2.0,-2.0,-0.874722,-2.0,2.0,2.0,-2.0,2.0,2.0,-2.0,2.0,-0.52996016,-2.0,-2.0,-0.9816108,-2.0
2025-06-10 09:01:04.876,0.029786976,0.034455713,0.036904022,-0.016408265,0.06775062,-0.00381561,0.0,0.0,0.0,-0.030658573,0.09827306,0.48377576,-0.1627525,0.14017282,0.4483343,-0.2225076,0.03866859,-0.10614722,-0.15584587,-0.057730936,-0.15928201,-0.059617,-0.05453335,-0.045103747,-0.018458102,0.012245179,-0.06437691,0.07202035,-0.06094456,-0.061440647,-0.025485307,-0.031126179,-0.010882385,0.0688232,2.0,2.0,-2.0,2.0,2.0,-2.0,2.0,-0.52996016,-2.0,-2.0,-0.9816108,-2.0,2.0,2.0,-2.0,2.0,2.0,-2.0,2.0,-0.5917516,-2.0,-2.0,-0.82906723,-2.0
2025-06-10 09:01:04.896,0.034566093,-0.030875662,0.006975113,-0.028363513,-0.014037559,-0.003933058,0.0,0.0,0.0,-0.030664288,0.10027133,0.48852235,-0.1679446,0.13991004,0.46501303,-0.20416076,0.02909569,-0.09704675,-0.15486102,-0.05802523,-0.15628003,-0.07249548,-0.054314137,0.036338475,-0.050870948,0.06588872,-0.048491076,-0.05502213,0.061597653,-0.007128163,0.0005737228,0.037578717,0.05634237,0.03137309,2.0,2.0,-2.0,2.0,2.0,-2.0,2.0,-0.5917516,-2.0,-2.0,-0.82906723,-2.0,2.0,2.0,-2.0,2.0,2.0,-2.0,2.0,-0.49577,-2.0,-2.0,-1.0153575,-2.0
2025-06-10 09:01:04.916,-0.04669754,0.011359072,-0.054296065,-0.05624347,0.0036455425,0.039776172,0.0,0.0,0.0,-0.030468283,0.091819935,0.49643287,-0.16942939,0.14897582,0.46240512,-0.21684201,0.02995506,-0.11408276,-0.15444472,-0.038555223,-0.16728228,-0.0730574,-0.028145414,0.038525455,0.039644998,0.048406754,0.006750316,0.058684167,0.046843458,-0.022637228,0.042805184,0.01302955,0.037547365,-0.036068216,2.0,2.0,-2.0,2.0,2.0,-2.0,2.0,-0.49577,-2.0,-2.0,-1.0153575,-2.0,2.0,2.0,-2.0,2.0,2.0,-2.0,2.0,-0.43445113,-2.0,-2.0,-1.0918522,-2.0
2025-06-10 09:01:04.939,-0.0127721885,0.010172148,0.04963437,-0.07136857,0.015929667,0.0022322994,0.0,0.0,0.0,-0.030304926,0.10302363,0.49393937,-0.16848263,0.14834026,0.4669493,-0.20453562,0.035956606,-0.09709894,-0.1533337,-0.051754236,-0.15552439,-0.07963041,0.046691477,0.06499835,0.07285141,-0.014283239,-0.017211491,-0.011960062,0.039397758,0.039774306,-0.042839356,0.05814124,-0.036635038,-0.0015661457,2.0,2.0,-2.0,2.0,2.0,-2.0,2.0,-0.43445113,-2.0,-2.0,-1.0918522,-2.0,2.0,2.0,-2.0,2.0,2.0,-2.0,2.0,-0.68869305,-2.0,-2.0,-0.75087833,-2.0
2025-06-10 09:01:04.957,0.044813503,0.002191168,-0.03184333,-0.003236827,0.064821325,0.0069140755,0.0,0.0,0.0,-0.030390635,0.095252134,0.49755868,-0.17371006,0.1370546,0.45329142,-0.20333602,0.028210493,-0.099707425,-0.15825373,-0.040432625,-0.15295471,-0.065089025,0.001708337,-0.0009984481,0.05706638,0.051749054,-0.0070118173,0.021957515,-0.0601629,0.041390654,0.0630943,-0.006262541,0.0532402,-0.01145613,2.0,2.0,-2.0,2.0,2.0,-2.0,2.0,-0.68869305,-2.0,-2.0,-0.75087833,-2.0,2.0,2.0,-2.0,2.0,2.0,-2.0,2.0,-0.48021415,-2.0,-2.0,-1.1235652,-2.0
2025-06-10 09:01:04.977,-0.0040177437,0.0042218007,0.01605585,-0.018173365,0.04103433,-0.004482933,0.0,0.0,0.0,-0.030251862,0.09944704,0.4982308,-0.15962759,0.14120115,0.45656627,-0.21198843,0.03679586,-0.10715703,-0.14143826,-0.0477955,-0.16986805,-0.08099777,-0.07278017,0.05396784,-0.0031689066,0.03560767,0.0048604906,-0.061786905,0.075983286,-0.017133396,0.033971865,0.074536525,0.009799821,-0.019685816,2.0,2.0,-2.0,2.0,2.0,-2.0,2.0,-0.48021415,-2.0,-2.0,-1.1235652,-2.0,2.0,2.0,-2.0,2.0,2.0,-2.0,2.0,-0.5692091,-2.0,-2.0,-0.9237118,-2.0
2025-06-10 09:01:04.997,-0.043937776,0.027646357,-0.017627154,-0.077630244,-0.007196899,-0.022646213,0.0,0.0,0.0,-0.030221751,0.10957052,0.48068914,-0.16745062,0.1343727,0.46050552,-0.2208367,0.040506333,-0.11271485,-0.154573,-0.03887309,-0.15908484,-0.07752578,-0.042748556,-0.020875685,-0.028126586,-0.02353201,0.0750682,0.006332698,-0.03819614,-0.016121143,-0.0047084745,0.05364898,-0.035973307,0.023340024,2.0,2.0,-2.0,2.0,2.0,-2.0,2.0,-0.5692091,-2.0,-2.0,-0.9237118,-2.0,2.0,2.0,-2.0,2.0,2.0,-2.0,2.0,-0.46939948,-2.0,-2.0,-0.99712896,-2.0
2025-06-10 09:01:05.017,0.026911637,-0.04743806,0.04422186,-0.046426184,-0.016288742,0.019498477,0.0,0.0,0.0,-0.030257402,0.10575381,0.49593022,-0.16831993,0.13261688,0.4563475,-0.20493133,0.03543991,-0.11068413,-0.15353471,-0.044347562,-0.17217988,-0.08016598,-0.029737227,-0.05697713,0.02106832,-0.037036676,0.045405827,-0.016339378,-0.06041047,-0.033052787,0.03457055,-0.014543107,0.025207622,-0.044600647,2.0,2.0,-2.0,2.0,2.0,-2.0,2.0,-0.46939948,-2.0,-2.0,-0.99712896,-2.0,2.0,2.0,-2.0,2.0,2.0,-2.0,2.0,-0.6328306,-2.0,-2.0,-0.819216,-2.0
2025-06-10 09:01:05.040,-0.013379152,0.018701654,-0.04820333,-0.07293869,0.039971292,0.025432616,0.0,0.0,0.0,-0.03035618,0.104710996,0.49080178,-0.16583118,0.13949503,0.460741,-0.21710551,0.040223945,-0.11923355,-0.1410483,-0.04543553,-0.16765344,-0.06787924,0.020699648,0.014830095,-0.024385503,-0.007224986,0.07181151,-0.013428712,0.024585485,0.044011712,0.064777195,0.011270261,-0.019282684,0.03881415,2.0,2.0,-2.0,2.0,2.0,-2.0,2.0,-0.6328306,-2.0,-2.0,-0.819216,-2.0,2.0,2.0,-2.0,2.0,2.0,-2.0,2.0,-0.4380999,-2.0,-2.0,-1.1297266,-2.0
2025-06-10 09:01:05.057,-0.04948246,0.029942654,-0.013444941,-0.038556814,-0.030259723,-0.018968029,0.0,0.0,0.0,-0.030292558,0.10058848,0.48891327,-0.16352153,0.13337563,0.45589122,-0.2226721,0.02159902,-0.115930766,-0.1437287,-0.03938624,-0.16018847,-0.06895194,0.017271806,-0.032175086,0.033060208,-0.045786794,-0.07405529,0.031972364,-0.07118399,0.01924114,-0.06943241,-0.033143967,0.036898334,-0.03966686,2.0,2.0,-2.0,2.0,2.0,-2.0,2.0,-0.4380999,-2.0,-2.0,-1.1297266,-2.0,2.0,2.0,-2.0,2.0,2.0,-2.0,2.0,-0.46002486,-2.0,-2.0,-1.0285835,-2.0
2025-06-10 09:01:05.077,0.035917107,0.010907314,0.024008857,-0.06674108,0.0087048495,-0.024212645,0.0,0.0,0.0,-0.030391699,0.10116801,0.4899487,-0.16400824,0.1382873,0.4611842,-0.21677536,0.024273066,-0.10562908,-0.14688487,-0.044743855,-0.17406498,-0.07006964,-0.04090554,0.05508457,-0.0020287232,0.07392687,-0.027791219,0.018186715,0.060143095,0.027597133,0.056791857,-0.04197788,-0.06998111,-0.041287825,2.0,2.0,-2.0,2.0,2.0,-2.0,2.0,-0.46002486,-2.0,-2.0,-1.0285835,-2.0,2.0,2.0,-2.0,2.0,2.0,-2.0,2.0,-0.6622071,-2.0,-2.0,-0.75232244,-2.0
2025-06-10 09:01:05.098,-0.01662821,-0.034371667,-0.0051474795,-0.014904772,-0.009240752,0.01494206,0.0,0.0,0.0,-0.030683761,0.094602756,0.4904323,-0.15394203,0.13789298,0.46930206,-0.20889449,0.03313796,-0.10408367,-0.1473318,-0.03356025,-0.15931217,-0.08159942,-0.055027463,-0.062781855,-0.053292453,-0.0007122673,-0.05211213,0.07005281,0.058009565,-0.016531462,-0.038395546,-0.06153484,0.042109746,-0.00015169945,2.0,2.0,-2.0,2.0,2.0,-2.0,2.0,-0.6622071,-2.0,-2.0,-0.75232244,-2.0,2.0,2.0,-2.0,2.0,2.0,-2.0,2.0,-0.44513324,-2.0,-2.0,-0.9913628,-2.0
2025-06-10 09:01:05.118,-0.04630062,-0.03759368,-0.00913304,-0.07356407,-0.0057621035,0.030455327,0.0,0.0,0.0,-0.030664787,0.099656075,0.4926989,-0.15159383,0.14245977,0.45689058,-0.20721234,0.02218793,-0.10523962,-0.14615797,-0.035068497,-0.15392347,-0.07639035,0.017845564,0.022477997,0.03915313,-0.007941757,-0.050458886,0.0042870487,0.028442694,-0.039648265,0.040318273,0.031921357,0.015114113,0.045662735,2.0,2.0,-2.0,2.0,2.0,-2.0,2.0,-0.44513324,-2.0,-2.0,-0.9913628,-2.0,2.0,2.0,-2.0,2.0,2.0,-2.0,2.0,-0.4994512,-2.0,-2.0,-1.0004406,-2.0
2025-06-10 09:01:05.140,0.019170413,-0.02404157,-0.019832658,-0.015124411,0.04393983,0.040084124,0.0,0.0,0.0,-0.030625382,0.10757132,0.4884535,-0.16711463,0.14788757,0.46255273,-0.20938182,0.027101478,-0.111236274,-0.14895038,-0.05133062,-0.15702191,-0.07853121,-0.058173195,-0.036498405,0.038656246,-0.022691322,-0.05587809,-0.05034691,-0.018107584,0.044366747,0.04067744,0.009859537,0.061256133,-0.04309688,2.0,2.0,-2.0,2.0,2.0,-2.0,2.0,-0.4994512,-2.0,-2.0,-1.0004406,-2.0,2.0,2.0,-2.0,2.0,2.0,-2.0,2.0,-0.4722424,-2.0,-2.0,-1.1193609,-2.0
2025-06-10 09:01:05.157,-0.015594721,0.0460252,0.040923715,0.0023808158,0.047956217,0.0097604375,0.0,0.0,0.0,-0.030704541,0.10862193,0.4835225,-0.15123942,0.14802004,0.4515709,-0.22214483,0.025638618,-0.10669283,-0.15594806,-0.034048907,-0.16573,-0.07695052,-0.02816272,0.030586591,-0.07495573,-0.06910553,-0.005785022,0.024883423,-0.051713478,-0.069691114,-0.049576536,-0.016544672,-0.07348065,0.06994714,2.0,2.0,-2.0,2.0,2.0,-2.0,2.0,-0.4722424,-2.0,-2.0,-1.1193609,-2.0,2.0,2.0,-2.0,2.0,2.0,-2.0,2.0,-0.6035342,-2.0,-2.0,-0.77511287,-2.0
2025-06-10 09:01:05.177,-0.013427398,-0.027881304,-0.0428639,-0.023512283,-0.003659104,0.010832847,0.0,0.0,0.0,-0.030939931,0.11173605,0.48592746,-0.15441798,0.1457179,0.45392638,-0.20713127,0.024211321,-0.1046786,-0.14027981,-0.039564822,-0.17313147,-0.08141619,0.05928845,0.033730894,-0.03664694,-0.043135565,-0.008622112,-0.048900295,-0.070586435,0.050295517,-0.045397375,-0.06449296,-0.03518884,0.041878957,2.0,2.0,-2.0,2.0,2.0,-2.0,2.0,-0.6035342,-2.0,-2.0,-0.77511287,-2.0,2.0,2.0,-2.0,2.0,2.0,-2.0,2.0,-0.34869722,-2.0,-2.0,-1.1638234,-2.0
2025-06-10 09:01:05.197,-0.061724804,0.038146384,-0.031180944,-0.049848516,0.014364422,-0.0361456,0.0,0.0,0.0,-0.030947112,0.09738453,0.49792206,-0.15953296,0.13639022,0.46931106,-0.22104084,0.02230405,-0.1049375,-0.15037149,-0.034065764,-0.15963621,-0.09018475,0.033773724,0.06807333,0.07098733,-0.06263387,0.041054413,-0.02313017,0.050396577,0.077492595,0.034277912,-0.069882244,-0.039570175,-0.033190753,2.0,2.0,-2.0,2.0,2.0,-2.0,2.0,-0.34869722,-2.0,-2.0,-1.1638234,-2.0,2.0,2.0,-2.0,2.0,2.0,-2.0,2.0,-0.55396175,-2.0,-2.0,-0.92804813,-2.0
2025-06-10 09:01:05.217,0.02351119,0.021296406,-0.01521874,0.014914321,0.059788838,-0.0019315415,0.0,0.0,0.0,-0.031082688,0.11298692,0.5025374,-0.15346089,0.14242712,0.46844965,-0.20498143,0.030001748,-0.10202877,-0.1549655,-0.04106504,-0.16852574,-0.08605422,-0.071685255,-0.054224577,0.042058624,-0.051681634,0.03813898,0.02581143,-0.01507715,-0.039351832,0.072717056,-0.039124865,-0.06340622,-0.04433104,2.0,2.0,-2.0,2.0,2.0,-2.0,2.0,-0.55396175,-2.0,-2.0,-0.92804813,-2.0,2.0,2.0,-2.0,2.0,2.0,-2.0,2.0,-0.54092646,-2.0,-2.0,-0.9527862,-2.0
2025-06-10 09:01:05.240,0.008524667,0.03239594,0.015889226,-0.0017235279,-0.016782882,0.04449797,0.0,0.0,0.0,-0.031188449,0.10089218,0.49586815,-0.16721329,0.13590693,0.4509088,-0.22177601,0.03583544,-0.098563075,-0.13981457,-0.051755693,-0.17563877,-0.08077748,0.029222965,-0.034953356,0.06450491,-0.058395036,0.055117264,0.051788006,-0.036802556,-0.049427986,0.012087898,0.051107224,-0.057055257,-0.033831183,2.0,2.0,-2.0,2.0,2.0,-2.0,2.0,-0.54092646,-2.0,-2.0,-0.9527862,-2.0,2.0,2.0,-2.0,2.0,2.0,-2.0,2.0,-0.562191,-2.0,-2.0,-0.9208231,-2.0
2025-06-10 09:01:05.258,-0.039429095,0.037774134,-0.026513569,-0.06947249,-0.003258284,-0.014647341,0.0,0.0,0.0,-0.031145945,0.10686374,0.502317,-0.16903526,0.13965641,0.45827815,-0.20729166,0.019275492,-0.101255484,-0.1501239,-0.04288788,-0.17737612,-0.07542104,0.021343699,-0.028865976,0.021001456,0.021667678,0.00684862,0.059685733,-0.029791432,-0.027020665,-0.06111098,0.0038360017,-0.019671226,-0.016055651,2.0,2.0,-2.0,2.0,2.0,-2.0,2.0,-0.562191,-2.0,-2.0,-0.9208231,-2.0,2.0,2.0,-2.0,2.0,2.0,-2.0,2.0,-0.42863134,-2.0,-2.0,-1.0354171,-2.0
2025-06-10 09:01:05.278,0.04142088,-0.025969923,0.011224129,-0.08185882,-0.0043589068,-0.007465909,0.0,0.0,0.0,-0.030988181,0.11039649,0.48993903,-0.15293372,0.13520981,0.47055462,-0.21574411,0.023776658,-0.10636572,-0.14126216,-0.043041468,-0.17472766,-0.078183345,0.0168455,0.016314782,-0.016413046,0.01124071,0.05654158,0.069410585,0.05805064,0.0119421445,0.054691076,-0.062542364,0.0090873595,-0.051313978,2.0,2.0,-2.0,2.0,2.0,-2.0,2.0,-0.42863134,-2.0,-2.0,-1.0354171,-2.0,2.0,2.0,-2.0,2.0,2.0,-2.0,2.0,-0.63809586,-2.0,-2.0,-0.8270631,-2.0
2025-06-10 09:01:05.298,0.0056087906,-0.04712333,0.013189041,-0.07024019,-0.010584593,-0.0073106624,0.0,0.0,0.0,-0.030940814,0.10716093,0.4898733,-0.16633955,0.14267947,0.46765217,-0.21882069,0.022224024,-0.09584794,-0.14526701,-0.050767124,-0.17795101,-0.073169835,0.012549103,-0.0049043703,0.024475366,-0.018405326,-0.038792968,0.056671314,-0.01543198,0.06085761,-0.029376334,0.007683554,0.07822696,-0.0323195,2.0,2.0,-2.0,2.0,2.0,-2.0,2.0,-0.63809586,-2.0,-2.0,-0.8270631,-2.0,2.0,2.0,-2.0,2.0,2.0,-2.0,2.0,-0.5166044,-2.0,-2.0,-1.0426655,-2.0
2025-06-10 09:01:05.318,-0.015279164,0.03545187,-0.04269782,-0.055329733,-0.0023188759,0.026402613,0.0,0.0,0.0,-0.03074264,0.10719383,0.490718,-0.15642491,0.14998554,0.46978587,-0.20663902,0.019532224,-0.11188453,-0.150336,-0.047871377,-0.17421421,-0.0731388,-0.05386281,-0.012121645,-0.044192895,0.023437802,0.011982586,0.047564253,0.02305861,0.05886768,0.07258167,-0.045511764,0.043051545,-0.024351524,2.0,2.0,-2.0,2.0,2.0,-2.0,2.0,-0.5166044,-2.0,-2.0,-1.0426655,-2.0,2.0,2.0,-2.0,2.0,2.0,-2.0,2.0,-0.5124731,-2.0,-2.0,-1.0921383,-2.0
2025-06-10 09:01:05.340,-0.06305666,0.008379724,0.04312873,0.008273916,0.054926593,-0.010276564,0.0,0.0,0.0,-0.03057637,0.09240508,0.49764127,-0.15930632,0.1453128,0.46644753,-0.20556265,0.028064504,-0.1095874,-0.14718191,-0.033993687,-0.18240114,-0.07771446,0.042045917,0.03618554,-0.07309796,0.020743126,-0.06265069,-0.013138746,-0.025090866,0.01882101,0.04017523,0.035601333,-0.06166009,0.040001087,2.0,2.0,-2.0,2.0,2.0,-2.0,2.0,-0.5124731,-2.0,-2.0,-1.0921383,-2.0,2.0,2.0,-2.0,2.0,2.0,-2.0,2.0,-0.7033262,-2.0,-2.0,-0.7242956,-2.0
2025-06-10 09:01:05.358,0.065174855,-0.039331496,-0.06491904,-0.04911729,-0.014762422,-0.020034723,0.0,0.0,0.0,-0.030613882,0.102912344,0.49073586,-0.17009957,0.13934939,0.4586268,-0.20527045,0.031572126,-0.10430033,-0.15374091,-0.03752304,-0.16248399,-0.0863565,-0.06979856,0.033743363,-0.016176302,-0.06268266,-0.03678439,-0.020279385,-0.06685843,-0.0544865,-0.040912393,-0.04091112,0.036761574,0.050301403,2.0,2.0,-2.0,2.0,2.0,-2.0,2.0,-0.7033262,-2.0,-2.0,-0.7242956,-2.0,2.0,2.0,-2.0,2.0,2.0,-2.0,2.0,-0.2451687,-2.0,-2.0,-1.2703404,-2.0
2025-06-10 09:01:05.379,-0.03744059,0.015044131,0.034683242,-0.006723775,0.0004200811,0.011903614,0.0,0.0,0.0,-0.03039185,0.09719704,0.50222707,-0.15180819,0.14873797,0.46813384,-0.21378651,0.024757773,-0.10655631,-0.13970387,-0.04236609,-0.17425554,-0.08007641,0.03437387,0.05521422,0.04651392,0.043586012,0.071076676,0.016694695,-0.03301385,0.0059394883,-0.058082756,-0.034440342,-0.046379894,0.0062839375,2.0,2.0,-2.0,2.0,2.0,-2.0,2.0,-0.2451687,-2.0,-2.0,-1.2703404,-2.0,2.0,2.0,-2.0,2.0,2.0,-2.0,2.0,-0.66900253,-2.0,-2.0,-0.7413218,-2.0
2025-06-10 09:01:05.399,0.03433451,0.032867942,-0.03339481,-0.011860983,0.03778199,0.0011126853,0.0,0.0,0.0,-0.030475788,0.09908495,0.49673513,-0.15143423,0.1404935,0.47138807,-0.20724508,0.03311034,-0.10288454,-0.14954579,-0.040612966,-0.17891015,-0.09215779,0.0071493466,0.013236458,-0.0127795935,-0.003446978,-0.030122144,0.04518587,-0.053104185,-0.073986985,0.013825897,0.027555685,0.061652146,-0.064388014,2.0,2.0,-2.0,2.0,2.0,-2.0,2.0,-0.66900253,-2.0,-2.0,-0.7413218,-2.0,2.0,2.0,-2.0,2.0,2.0,-2.0,2.0,-0.45400718,-2.0,-2.0,-1.0578196,-2.0
2025-06-10 09:01:05.419,-0.008429187,7.5296324e-05,0.00019694112,-0.023345508,-0.024964707,0.0069412882,0.0,0.0,0.0,-0.030423123,0.10173284,0.5050662,-0.14998655,0.14945662,0.4596669,-0.20266853,0.024391077,-0.112060435,-0.14207861,-0.032150816,-0.18638705,-0.08744188,0.043983646,-0.009416909,-0.0029129356,0.05138893,-0.022109624,0.03121801,-0.0066267406,-0.060025226,-0.02769834,0.063624226,0.017678443,-0.022369437,2.0,2.0,-2.0,2.0,2.0,-2.0,2.0,-0.45400718,-2.0,-2.0,-1.0578196,-2.0,2.0,2.0,-2.0,2.0,2.0,-2.0,2.0,-0.47623923,-2.0,-2.0,-0.9790647,-2.0
2025-06-10 09:01:05.440,-0.018783195,-0.0101048155,0.010571437,0.0023002324,-0.01763718,0.013501895,0.0,0.0,0.0,-0.030420948,0.10895641,0.49966544,-0.16618612,0.13491747,0.45665154,-0.21188481,0.021189287,-0.100590795,-0.15879622,-0.042648125,-0.18330836,-0.085204564,0.056764923,-0.019163577,-0.050179288,-0.047904406,0.03753251,-0.021952452,-0.009664873,-0.0077974433,-0.07132971,-0.034024138,-0.07090572,-0.057547115,2.0,2.0,-2.0,2.0,2.0,-2.0,2.0,-0.47623923,-2.0,-2.0,-0.9790647,-2.0,2.0,2.0,-2.0,2.0,2.0,-2.0,2.0,-0.4786544,-2.0,-2.0,-0.89724207,-2.0
2025-06-10 09:01:05.459,-0.02081213,-0.0021769602,0.031962484,-0.030500468,0.003707471,-0.04221922,0.0,0.0,0.0,-0.030565128,0.09615647,0.49871522,-0.14965945,0.13306423,0.46376997,-0.21300372,0.030040706,-0.11252878,-0.14644367,-0.045673568,-0.18449037,-0.09684359,0.07445716,-0.020100309,-0.05985738,-0.05284075,0.012637726,-0.019541968,0.069286294,0.03907363,0.048295103,-0.025399249,-0.05590209,-0.052669004,2.0,2.0,-2.0,2.0,2.0,-2.0,2.0,-0.4786544,-2.0,-2.0,-0.89724207,-2.0,2.0,2.0,-2.0,2.0,2.0,-2.0,2.0,-0.6456404,-2.0,-2.0,-0.7530432,-2.0
2025-06-10 09:01:05.479,0.029351681,-0.017070474,0.00060600915,-0.01707876,-0.00070955505,-0.011601678,0.0,0.0,0.0,-0.03067793,0.1021586,0.4892717,-0.15578158,0.14181699,0.47271314,-0.21364126,0.029483808,-0.09645025,-0.14958762,-0.032551393,-0.1661876,-0.08476551,0.06070644,0.07061617,0.048940215,0.015223369,-0.049356017,-0.06237725,-0.07170717,0.0068945037,-0.011916507,0.03492275,0.012598867,0.0055091255,2.0,2.0,-2.0,2.0,2.0,-2.0,2.0,-0.6456404,-2.0,-2.0,-0.7530432,-2.0,2.0,2.0,-2.0,2.0,2.0,-2.0,2.0,-0.48575452,-2.0,-2.0,-0.99860764,-2.0
2025-06-10 09:01:05.500,0.02420029,0.014396914,0.016008558,-0.06174441,0.023432938,0.033081923,0.0,0.0,0.0,-0.030502034,0.099964686,0.50382817,-0.16031241,0.14626293,0.47008154,-0.2004213,0.021616565,-0.1109217,-0.15610774,-0.037532676,-0.16744359,-0.096064016,-0.03171642,0.030543938,0.01225109,-0.047970425,0.032551218,0.05668385,0.0031253085,0.02484215,-0.025522236,0.04481571,-0.0516107,-0.021222113,2.0,2.0,-2.0,2.0,2.0,-2.0,2.0,-0.48575452,-2.0,-2.0,-0.99860764,-2.0,2.0,2.0,-2.0,2.0,2.0,-2.0,2.0,-0.60291576,-2.0,-2.0,-0.86285853,-2.0
2025-06-10 09:01:05.519,0.04001206,-0.020113457,-0.03623487,-0.051744916,0.03408284,0.0024482035,0.0,0.0,0.0,-0.03035435,0.09983683,0.49816418,-0.1553097,0.14806372,0.47329685,-0.21822655,0.022643244,-0.100360565,-0.14906402,-0.033120554,-0.16297516,-0.082558446,0.008254929,0.04527863,-0.05590864,-0.026257286,0.045659278,-0.051816784,0.06337477,0.032336906,-0.04200863,0.065991536,0.03788593,-0.046513822,2.0,2.0,-2.0,2.0,2.0,-2.0,2.0,-0.60291576,-2.0,-2.0,-0.86285853,-2.0,2.0,2.0,-2.0,2.0,2.0,-2.0,2.0,-0.35425904,-2.0,-2.0,-1.1556396,-2.0
2025-06-10 09:01:05.540,0.017147478,-0.015135864,0.023045545,-0.060008917,-0.008798747,-0.03877695,0.0,0.0,0.0,-0.030192627,0.09933703,0.48917833,-0.15533729,0.14517555,0.47055832,-0.20764557,0.024260048,-0.105924085,-0.1483518,-0.033967562,-0.17041998,-0.084523335,0.061365493,0.040750753,-0.039179306,0.047631495,0.044304423,0.05746173,-0.04062624,0.033934973,-0.04771072,0.041026194,-0.011744821,0.071931906,2.0,2.0,-2.0,2.0,2.0,-2.0,2.0,-0.35425904,-2.0,-2.0,-1.1556396,-2.0,2.0,2.0,-2.0,2.0,2.0,-2.0,2.0,-0.6119733,-2.0,-2.0,-0.84548664,-2.0
2025-06-10 09:01:05.559,-0.029175403,0.011038713,0.045671336,-0.035084605,0.04059468,0.027981307,0.0,0.0,0.0,-0.030337464,0.102091536,0.5009811,-0.15303996,0.15133189,0.46488264,-0.21302488,0.022649689,-0.09650141,-0.15306382,-0.047397934,-0.16905437,-0.08581301,-0.056336522,0.06169521,-0.0071660564,0.019075017,-0.004775622,0.0025183558,0.055220693,0.050268225,-0.009106448,-0.059899557,0.014736114,0.031075994,2.0,2.0,-2.0,2.0,2.0,-2.0,2.0,-0.6119733,-2.0,-2.0,-0.84548664,-2.0,2.0,2.0,-2.0,2.0,2.0,-2.0,2.0,-0.63889265,-2.0,-2.0,-0.8247733,-2.0
2025-06-10 09:01:05.579,0.02985843,0.019732304,0.005724864,-0.037750464,0.004879061,-0.004231712,0.0,0.0,0.0,-0.03044144,0.08987743,0.49674618,-0.15833117,0.13576724,0.4754353,-0.21369462,0.02588692,-0.11556398,-0.15602261,-0.037285686,-0.17866996,-0.100671135,-0.07045852,-0.046232034,0.06189485,-0.074904375,0.0706942,0.024336943,0.058886357,-0.052625608,0.040315896,-0.014807422,0.06224313,-0.03408,2.0,2.0,-2.0,2.0,2.0,-2.0,2.0,-0.63889265,-2.0,-2.0,-0.8247733,-2.0,2.0,2.0,-2.0,2.0,2.0,-2.0,2.0,-0.54764223,-2.0,-2.0,-0.94313955,-2.0
2025-06-10 09:01:05.599,-0.005332569,-0.02249514,0.032051202,-0.054899003,-0.011606928,-0.023057934,0.0,0.0,0.0,-0.030275553,0.10097007,0.49919757,-0.14827345,0.13663845,0.45968804,-0.20210858,0.036834087,-0.10990739,-0.13750495,-0.048649803,-0.17687322,-0.09362068,0.0034057703,-0.07536534,-0.07225,-0.032767534,0.059290707,0.07222024,-0.05346781,-0.07401011,-0.01748536,0.074226506,0.0047527542,-0.067055866,2.0,2.0,-2.0,2.0,2.0,-2.0,2.0,-0.54764223,-2.0,-2.0,-0.94313955,-2.0,2.0,2.0,-2.0,2.0,2.0,-2.0,2.0,-0.58757305,-2.0,-2.0,-0.82948446,-2.0
2025-06-10 09:01:05.619,-0.012227184,0.0090435725,-0.056240488,0.0011896343,0.06030784,0.040454682,0.0,0.0,0.0,-0.030101355,0.08836912,0.48991632,-0.16051862,0.13974708,0.47334513,-0.20447212,0.032548323,-0.110916175,-0.15077719,-0.03748541,-0.18124728,-0.082557425,-0.017094435,-0.03148178,-0.04666877,-0.023825642,0.046172097,0.069416195,0.010621752,0.009977059,0.06880609,-0.034069393,-0.05024628,0.011036738,2.0,2.0,-2.0,2.0,2.0,-2.0,2.0,-0.58757305,-2.0,-2.0,-0.82948446,-2.0,2.0,2.0,-2.0,2.0,2.0,-2.0,2.0,-0.47712234,-2.0,-2.0,-1.057652,-2.0
2025-06-10 09:01:05.641,0.0117899645,0.00062046177,0.027141415,-0.051164504,0.0147467,-0.015007314,0.0,0.0,0.0,-0.029899454,0.09811046,0.4913344,-0.15190001,0.13882433,0.46502632,-0.21742922,0.035920564,-0.10562038,-0.14274314,-0.032907773,-0.177081,-0.10026525,0.074485354,0.047039267,0.050372813,-0.012360909,-0.07341232,0.019345934,-0.063189946,-0.03831534,-0.035572827,-0.023858843,-0.053847015,-0.046954744,2.0,2.0,-2.0,2.0,2.0,-2.0,2.0,-0.47712234,-2.0,-2.0,-1.057652,-2.0,2.0,2.0,-2.0,2.0,2.0,-2.0,2.0,-0.5941448,-2.0,-2.0,-0.7396879,-2.0
2025-06-10 09:01:05.660,0.03934679,0.034560148,-0.022999514,-0.07803125,0.0030021782,0.045438193,0.0,0.0,0.0,-0.029905573,0.09651245,0.4907017,-0.1486182,0.14786719,0.47484356,-0.21231005,0.022975238,-0.10285662,-0.13517237,-0.037290696,-0.1653213,-0.10094193,-0.002259527,-0.05310296,0.058001366,0.063761495,0.0300706,-0.04775553,0.03928757,0.067001276,-0.034067262,-0.023667654,0.07741626,0.024076777,2.0,2.0,-2.0,2.0,2.0,-2.0,2.0,-0.5941448,-2.0,-2.0,-0.7396879,-2.0,2.0,2.0,-2.0,2.0,2.0,-2.0,2.0,-0.41422513,-2.0,-2.0,-1.1433849,-2.0
2025-06-10 09:01:05.680,-0.029325247,0.04792931,-0.0086741885,-0.03691202,-0.007630696,0.029006036,0.0,0.0,0.0,-0.029838895,0.09631573,0.4979751,-0.15494774,0.14775229,0.4638271,-0.2030669,0.042020734,-0.115767285,-0.14055952,-0.04230453,-0.17961966,-0.084320195,-0.068658456,0.0223808,-0.033059552,0.07172014,-0.055185296,-0.0012701601,0.028254515,0.029104691,-0.035297804,0.029944222,-0.01879151,-0.0708208,2.0,2.0,-2.0,2.0,2.0,-2.0,2.0,-0.41422513,-2.0,-2.0,-1.1433849,-2.0,2.0,2.0,-2.0,2.0,2.0,-2.0,2.0,-0.5288811,-2.0,-2.0,-0.929234,-2.0
2025-06-10 09:01:05.700,-0.010594567,-0.032442324,0.0045901584,0.007926687,-0.0019351431,0.030971408,0.0,0.0,0.0,-0.029992992,0.09629903,0.5043593,-0.14882907,0.14733535,0.47533056,-0.21504514,0.028457997,-0.10717526,-0.14107494,-0.04014777,-0.1853171,-0.08470481,-0.03767202,0.07523672,0.014821999,0.01736496,-0.03571618,-0.05230086,-0.07457691,0.043948695,0.050406598,0.006267015,0.048322365,-0.01239567,2.0,2.0,-2.0,2.0,2.0,-2.0,2.0,-0.5288811,-2.0,-2.0,-0.929234,-2.0,2.0,2.0,-2.0,2.0,2.0,-2.0,2.0,-0.54911137,-2.0,-2.0,-1.0190687,-2.0
2025-06-10 09:01:05.723,-0.045476947,0.016559655,0.03310071,0.009994947,0.05271622,0.023815818,0.0,0.0,0.0,-0.03024548,0.103832506,0.50209135,-0.14828913,0.14645799,0.47716635,-0.21980834,0.029429313,-0.098305665,-0.14172152,-0.046519663,-0.18823425,-0.0995113,-0.057670638,0.03889373,0.02997028,-0.04967079,0.06171143,0.070459396,-0.03296222,-0.035062768,0.032723207,-0.073952235,0.011002036,-0.053997964,2.0,2.0,-2.0,2.0,2.0,-2.0,2.0,-0.54911137,-2.0,-2.0,-1.0190687,-2.0,2.0,2.0,-2.0,2.0,2.0,-2.0,2.0,-0.69605255,-2.0,-2.0,-0.76423097,-2.0
2025-06-10 09:01:05.741,0.049090832,0.0079212235,-0.052355353,-0.069051616,-0.0058521503,0.02348801,0.0,0.0,0.0,-0.030469656,0.09120871,0.4974159,-0.16525894,0.13586843,0.45833462,-0.20632982,0.026556928,-0.10780182,-0.14345622,-0.047613584,-0.18327196,-0.1022606,-0.061191365,0.009934349,0.07495712,0.004931142,-0.06544172,-0.035283267,-0.0054863105,-0.07400439,0.046492577,0.0629174,-0.042632364,-0.013416882,2.0,2.0,-2.0,2.0,2.0,-2.0,2.0,-0.69605255,-2.0,-2.0,-0.76423097,-2.0,2.0,2.0,-2.0,2.0,2.0,-2.0,2.0,-0.33723214,-2.0,-2.0,-1.1604834,-2.0
2025-06-10 09:01:05.760,0.01553145,-0.059436303,0.029402418,-0.00081613066,-0.03399168,-0.034292523,0.0,0.0,0.0,-0.030381901,0.098546684,0.49421367,-0.16589876,0.13691813,0.4682081,-0.21618502,0.03301222,-0.10306046,-0.14605078,-0.035315506,-0.18530233,-0.08494229,0.03382247,-0.062262364,0.033428777,0.000816011,-0.0023732844,-0.052309364,-0.045738783,-0.0005620387,-0.005269575,-0.031237671,-0.07177412,0.015229742,2.0,2.0,-2.0,2.0,2.0,-2.0,2.0,-0.33723214,-2.0,-2.0,-1.1604834,-2.0,2.0,2.0,-2.0,2.0,2.0,-2.0,2.0,-0.55160856,-2.0,-2.0,-0.8310399,-2.0
2025-06-10 09:01:05.780,0.0013264486,-0.05992666,-0.015309762,-0.00582384,0.0025518388,0.022434931,0.0,0.0,0.0,-0.030505203,0.10667987,0.5030157,-0.15343753,0.14655079,0.46741128,-0.20844181,0.03764066,-0.11069511,-0.14289045,-0.04176497,-0.1842763,-0.08513646,-0.034897022,-0.0413537,-0.06331156,-0.05413364,-0.06076523,-0.04200224,0.033534165,0.012888986,-0.062723175,0.06660717,-0.037133384,-0.026179435,2.0,2.0,-2.0,2.0,2.0,-2.0,2.0,-0.55160856,-2.0,-2.0,-0.8310399,-2.0,2.0,2.0,-2.0,2.0,2.0,-2.0,2.0,-0.3388472,-2.0,-2.0,-1.1319976,-2.0
2025-06-10 09:01:05.800,-0.04287461,-0.031593464,0.01141747,-0.01672494,-0.0039089774,0.01616353,0.0,0.0,0.0,-0.030611774,0.10626522,0.5065765,-0.15209669,0.13488461,0.46291298,-0.20231593,0.039596424,-0.11039113,-0.14097938,-0.048507653,-0.19269092,-0.08671698,0.026602363,-0.03924946,0.05864192,-0.03863888,0.03714678,-0.062929265,0.052659355,0.048845194,-0.056256678,0.0048637674,0.023776975,0.06759214,2.0,2.0,-2.0,2.0,2.0,-2.0,2.0,-0.3388472,-2.0,-2.0,-1.1319976,-2.0,2.0,2.0,-2.0,2.0,2.0,-2.0,2.0,-0.48523524,-2.0,-2.0,-1.053091,-2.0
2025-06-10 09:01:05.824,0.016454386,-0.010239863,0.0365123,-0.05051549,-0.017642774,-0.0017340742,0.0,0.0,0.0,-0.030892562,0.10196379,0.50096416,-0.16149133,0.15411147,0.4576901,-0.20755285,0.020304717,-0.097595625,-0.13968912,-0.04082547,-0.17919117,-0.09408522,-0.030545374,-0.020600727,-0.010896304,-0.013538442,0.03483097,-0.044710707,-0.028303651,-0.04906312,0.027218154,0.062062997,0.055578765,-0.01154501,2.0,2.0,-2.0,2.0,2.0,-2.0,2.0,-0.48523524,-2.0,-2.0,-1.053091,-2.0,2.0,2.0,-2.0,2.0,2.0,-2.0,2.0,-0.58271027,-2.0,-2.0,-0.9107423,-2.0
2025-06-10 09:01:05.841,-0.0069158967,0.00544825,-0.0032297398,-0.07089106,0.045079898,-0.003834989,0.0,0.0,0.0,-0.031271752,0.1123394,0.492976,-0.16294622,0.14393266,0.46259484,-0.20907368,0.028620455,-0.10237609,-0.15272608,-0.043669105,-0.1919482,-0.094905116,0.01305036,-0.0053907256,0.0478394,-0.074512884,-0.07354881,-0.03699866,-0.040475104,0.05640084,0.042462375,0.038792726,-0.039580565,0.0067653107,2.0,2.0,-2.0,2.0,2.0,-2.0,2.0,-0.58271027,-2.0,-2.0,-0.9107423,-2.0,2.0,2.0,-2.0,2.0,2.0,-2.0,2.0,-0.51908827,-2.0,-2.0,-1.0208673,-2.0
2025-06-10 09:01:05.860,-0.03552906,-0.0049693882,0.008004,-0.0057391576,-0.02170418,0.016720472,0.0,0.0,0.0,-0.031402435,0.10280133,0.5086677,-0.15518336,0.1434858,0.45984882,-0.20318481,0.02322355,-0.094838135,-0.15160003,-0.041044775,-0.19130138,-0.09358655,-0.057539165,0.0630529,0.017610282,-0.0056258617,-0.06315184,0.06328258,0.059918217,0.05440213,0.07581909,-0.005928518,0.06176716,0.047611695,2.0,2.0,-2.0,2.0,2.0,-2.0,2.0,-0.51908827,-2.0,-2.0,-1.0208673,-2.0,2.0,2.0,-2.0,2.0,2.0,-2.0,2.0,-0.5899401,-2.0,-2.0,-1.030858,-2.0
2025-06-10 09:01:05.880,-0.005961808,-0.03323303,-0.027061054,-0.04334518,0.055686582,0.016440412,0.0,0.0,0.0,-0.031403195,0.109046064,0.5103819,-0.16082047,0.13564698,0.459866,-0.2095973,0.028584827,-0.10726801,-0.14239062,-0.048752658,-0.19538029,-0.0988672,-0.019872576,-0.054582395,-0.01701083,0.010335029,0.014132146,0.017120592,0.055006932,-0.06629159,0.017276878,-0.05222938,0.044224773,-0.0067275423,2.0,2.0,-2.0,2.0,2.0,-2.0,2.0,-0.5899401,-2.0,-2.0,-1.030858,-2.0,2.0,2.0,-2.0,2.0,2.0,-2.0,2.0,-0.3997636,-2.0,-2.0,-1.0800495,-2.0
2025-06-10 09:01:05.900,-0.029017052,0.0056587206,0.00063453504,-0.031126486,0.055482704,-0.029721968,0.0,0.0,0.0,-0.031332877,0.11036707,0.4961934,-0.16795307,0.13519104,0.47237894,-0.21697132,0.028869532,-0.11577509,-0.15639761,-0.048577107,-0.19325426,-0.09852824,-0.01682344,0.017103007,0.008977309,-0.027430372,-0.04692168,-0.020411054,-0.014768406,-0.038865957,0.036505517,0.018413588,0.01793927,-0.024004266,2.0,2.0,-2.0,2.0,2.0,-2.0,2.0,-0.3997636,-2.0,-2.0,-1.0800495,-2.0,2.0,2.0,-2.0,2.0,2.0,-2.0,2.0,-0.56839466,-2.0,-2.0,-0.8956218,-2.0
2025-06-10 09:01:05.924,-0.011075434,0.003413109,-0.037125155,-0.0086450325,-0.030338285,-0.04766192,0.0,0.0,0.0,-0.031376243,0.10120098,0.49308515,-0.15245692,0.14491858,0.45397532,-0.19700767,0.017848402,-0.114662796,-0.14871614,-0.052982703,-0.19459303,-0.084944986,0.008121456,0.028177965,0.005561355,-0.061561055,-0.0622319,0.06633826,0.033185482,-0.06701521,0.06490983,-0.06149637,0.043547947,-0.043889683,2.0,2.0,-2.0,2.0,2.0,-2.0,2.0,-0.56839466,-2.0,-2.0,-0.8956218,-2.0,2.0,2.0,-2.0,2.0,2.0,-2.0,2.0,-0.47412065,-2.0,-2.0,-1.055696,-2.0
2025-06-10 09:01:05.941,-0.0066580796,0.0022989837,-0.037907574,0.00947022,-0.011306159,-0.009860291,0.0,0.0,0.0,-0.031306412,0.09886881,0.4971396,-0.16343306,0.14898662,0.45515105,-0.21149053,0.031620406,-0.10131331,-0.15671422,-0.05111362,-0.19306302,-0.0967781,0.0508711,-0.07314098,-0.009382026,0.0727698,0.026490297,0.020294225,0.05931837,0.07480022,0.06084644,-0.029167352,-0.012616028,-0.06435295,2.0,2.0,-2.0,2.0,2.0,-2.0,2.0,-0.47412065,-2.0,-2.0,-1.055696,-2.0,2.0,2.0,-2.0,2.0,2.0,-2.0,2.0,-0.44825557,-2.0,-2.0,-1.0742164,-2.0
2025-06-10 09:01:05.961,-0.04897108,0.018185144,-0.041307237,-0.085256204,0.047861658,-0.004512051,0.0,0.0,0.0,-0.031238193,0.10070031,0.5032828,-0.16939247,0.13985497,0.46994495,-0.20076966,0.033435237,-0.09743163,-0.1492192,-0.04265563,-0.19784589,-0.092956446,-0.011406668,0.07068566,-0.039328832,-0.0011402379,-0.050121516,0.052165397,0.037121452,-0.06705482,0.019387323,-0.06820886,-0.007108557,-0.031801473,2.0,2.0,-2.0,2.0,2.0,-2.0,2.0,-0.44825557,-2.0,-2.0,-1.0742164,-2.0,2.0,2.0,-2.0,2.0,2.0,-2.0,2.0,-0.51447535,-2.0,-2.0,-0.90644646,-2.0
2025-06-10 09:01:05.981,0.03289675,0.017058186,0.018124346,-0.0073508252,0.03755634,0.026462754,0.0,0.0,0.0,-0.031300515,0.094229996,0.50040287,-0.1669422,0.13351874,0.4734277,-0.21331087,0.033422824,-0.11099795,-0.14847292,-0.04049399,-0.18349265,-0.09252288,-0.06414865,-0.036750425,0.0064868857,0.055187546,0.004495096,-0.0029494388,0.05646483,-0.048591513,-0.046403058,0.06712598,0.056165807,-0.072280794,2.0,2.0,-2.0,2.0,2.0,-2.0,2.0,-0.51447535,-2.0,-2.0,-0.90644646,-2.0,2.0,2.0,-2.0,2.0,2.0,-2.0,2.0,-0.5361161,-2.0,-2.0,-0.90645456,-2.0
2025-06-10 09:01:06.001,0.03482233,-0.01582977,-0.05386365,-0.086447634,-0.0046840194,-0.02212295,0.0,0.0,0.0,-0.03127594,0.107025586,0.50908065,-0.1505307,0.1511174,0.45685166,-0.1981972,0.02149371,-0.10701974,-0.1484288,-0.03564549,-0.1929702,-0.100820296,-0.06619012,-0.017558234,0.031408425,-0.072440386,0.008470839,-0.072739765,0.01688145,-9.2660076e-07,0.01003441,0.029499903,0.038783286,-0.018472059,2.0,2.0,-2.0,2.0,2.0,-2.0,2.0,-0.5361161,-2.0,-2.0,-0.90645456,-2.0,2.0,2.0,-2.0,2.0,2.0,-2.0,2.0,-0.29341224,-2.0,-2.0,-1.2664394,-2.0
2025-06-10 09:01:06.024,0.01957001,-0.043599907,0.0031070043,-0.015703471,-0.021409504,-0.020027826,0.0,0.0,0.0,-0.031103203,0.10641623,0.5115043,-0.15244204,0.15256917,0.46048167,-0.20492724,0.030763872,-0.09126327,-0.1552587,-0.039135847,-0.19496416,-0.08557934,-0.06588163,0.00031283803,0.04321373,-0.04773369,-0.010465762,-0.038698293,0.037186623,-0.036233824,-0.0568683,0.042254478,-0.019126762,0.0043378654,2.0,2.0,-2.0,2.0,2.0,-2.0,2.0,-0.29341224,-2.0,-2.0,-1.2664394,-2.0,2.0,2.0,-2.0,2.0,2.0,-2.0,2.0,-0.4172292,-2.0,-2.0,-1.0396051,-2.0
2025-06-10 09:01:06.041,-0.005063724,-0.052419838,0.045044255,-0.034640744,-0.022636702,0.027961127,0.0,0.0,0.0,-0.031223414,0.10350164,0.5129966,-0.16940284,0.14298683,0.4593876,-0.20455903,0.025818963,-0.09739229,-0.14629275,-0.050325036,-0.20396951,-0.08548115,0.0045257425,0.013500719,0.023781195,-0.06849861,-0.039853275,-0.01436113,-0.06585693,-0.051756505,0.031162139,-0.02022283,-0.07393784,-0.01122845,2.0,2.0,-2.0,2.0,2.0,-2.0,2.0,-0.4172292,-2.0,-2.0,-1.0396051,-2.0,2.0,2.0,-2.0,2.0,2.0,-2.0,2.0,-0.6282573,-2.0,-2.0,-0.7826896,-2.0
2025-06-10 09:01:06.061,0.02987427,-0.015463859,-0.0033539566,0.0029063153,0.0028515754,-0.046043508,0.0,0.0,0.0,-0.0314774,0.097223714,0.5003367,-0.15781632,0.15051877,0.46092516,-0.19574645,0.0193773,-0.10603845,-0.15077023,-0.043089863,-0.19391479,-0.08545279,-0.018602204,0.0621873,0.02127065,0.037947107,-0.06254713,-0.0077425954,-0.04832808,-0.06366155,0.034599602,0.04001528,-0.03868303,-0.062234435,2.0,2.0,-2.0,2.0,2.0,-2.0,2.0,-0.6282573,-2.0,-2.0,-0.7826896,-2.0,2.0,2.0,-2.0,2.0,2.0,-2.0,2.0,-0.52073765,-2.0,-2.0,-0.9294567,-2.0
2025-06-10 09:01:06.081,0.021597773,0.0162986,0.017715154,-0.07409662,0.014373684,0.0017053505,0.0,0.0,0.0,-0.031364385,0.09766485,0.5023319,-0.15723565,0.13639356,0.45731187,-0.20448965,0.034811042,-0.10236272,-0.14345622,-0.05492251,-0.19327478,-0.09477173,-0.019559009,0.04904996,-0.021669514,0.028422803,0.038472213,-0.06587737,0.06790451,-0.020365402,0.036362775,0.064437866,0.03529765,-0.056121938,2.0,2.0,-2.0,2.0,2.0,-2.0,2.0,-0.52073765,-2.0,-2.0,-0.9294567,-2.0,2.0,2.0,-2.0,2.0,2.0,-2.0,2.0,-0.58992004,-2.0,-2.0,-0.89384556,-2.0
2025-06-10 09:01:06.101,-0.018195894,-0.031570636,-0.017482063,-0.030415073,0.0485923,0.010698882,0.0,0.0,0.0,-0.03106654,0.09479369,0.49761206,-0.15007259,0.14107794,0.4587825,-0.20737796,0.033390447,-0.09436832,-0.14855294,-0.048297994,-0.19257863,-0.089617275,0.05480707,0.057828058,-0.04473337,-0.07825972,0.022055853,0.015272552,0.017767815,0.00883254,0.05602184,0.0125196455,-0.0055247443,-0.037644956,2.0,2.0,-2.0,2.0,2.0,-2.0,2.0,-0.58992004,-2.0,-2.0,-0.89384556,-2.0,2.0,2.0,-2.0,2.0,2.0,-2.0,2.0,-0.52576065,-2.0,-2.0,-0.9971962,-2.0
2025-06-10 09:01:06.124,-0.009593617,-0.023911308,-0.022412287,-0.07232114,0.009821078,0.03092452,0.0,0.0,0.0,-0.030694474,0.102851264,0.5025131,-0.16499583,0.13860573,0.46927977,-0.19439822,0.031799052,-0.09602724,-0.15804519,-0.045946468,-0.18079542,-0.09927127,-0.003933183,-0.044418078,-0.05410661,0.032272417,0.048645288,0.0352676,-0.03885161,0.05755713,-0.008166991,0.024139283,0.03119033,-0.052390087,2.0,2.0,-2.0,2.0,2.0,-2.0,2.0,-0.52576065,-2.0,-2.0,-0.9971962,-2.0,2.0,2.0,-2.0,2.0,2.0,-2.0,2.0,-0.49057344,-2.0,-2.0,-1.030592,-2.0
2025-06-10 09:01:06.141,-0.05363212,-0.008810726,-0.03238788,0.0024529144,0.040552348,-0.014618861,0.0,0.0,0.0,-0.030402837,0.10281368,0.5069148,-0.16011569,0.14717935,0.4599096,-0.19874607,0.03396651,-0.098074086,-0.14276135,-0.036009617,-0.18735239,-0.095468,-0.034579918,-0.013159221,-0.04936861,0.048949458,-0.050915744,-0.0046136817,0.003618087,0.004602833,0.039043482,0.048445493,-0.05427193,0.0745143,2.0,2.0,-2.0,2.0,2.0,-2.0,2.0,-0.49057344,-2.0,-2.0,-1.030592,-2.0,2.0,2.0,-2.0,2.0,2.0,-2.0,2.0,-0.43010762,-2.0,-2.0,-1.0905638,-2.0
2025-06-10 09:01:06.161,-0.010235885,-0.02200246,-0.0040656114,-0.041041337,0.00074846245,-0.001788859,0.0,0.0,0.0,-0.030306472,0.09605151,0.5010803,-0.15392043,0.14170279,0.47119018,-0.20232253,0.023135789,-0.1098423,-0.15581553,-0.039194003,-0.1968883,-0.093653664,-0.008377022,0.059120942,0.04962523,-0.053452395,-0.016029213,-0.0637592,-0.018903568,-0.062073734,-0.01144141,-0.054315243,-0.06823351,-0.04474441,2.0,2.0,-2.0,2.0,2.0,-2.0,2.0,-0.43010762,-2.0,-2.0,-1.0905638,-2.0,2.0,2.0,-2.0,2.0,2.0,-2.0,2.0,-0.51440907,-2.0,-2.0,-0.85338545,-2.0
2025-06-10 09:01:06.181,0.023911627,0.010890211,0.043657664,-0.009608136,0.0067366976,0.04445115,0.0,0.0,0.0,-0.030460332,0.10123884,0.5126763,-0.16806297,0.13645151,0.47349983,-0.2119506,0.040605772,-0.10806166,-0.15369092,-0.0388363,-0.18733448,-0.09097922,-0.06239463,0.0011747525,0.0615327,0.049377784,0.037457574,0.035022736,-0.04216008,-0.018902412,0.0439298,0.052819613,-0.010496085,-0.0419266,2.0,2.0,-2.0,2.0,2.0,-2.0,2.0,-0.51440907,-2.0,-2.0,-0.85338545,-2.0,2.0,2.0,-2.0,2.0,2.0,-2.0,2.0,-0.67329264,-2.0,-2.0,-0.7927809,-2.0
2025-06-10 09:01:06.202,0.06157889,0.033471208,-0.04364266,-0.030958572,-0.0077457586,0.026508598,0.0,0.0,0.0,-0.03056142,0.089599736,0.49621624,-0.14739946,0.1429546,0.47254854,-0.20205949,0.029486284,-0.103806704,-0.14054899,-0.050376717,-0.1785079,-0.10354043,-0.07054091,-0.0103460075,0.030533928,0.03736508,-0.03619296,0.06790018,0.043452024,-0.029607734,-0.038344003,-0.0062075644,0.044956714,0.030467974,2.0,2.0,-2.0,2.0,2.0,-2.0,2.0,-0.67329264,-2.0,-2.0,-0.7927809,-2.0,2.0,2.0,-2.0,2.0,2.0,-2.0,2.0,-0.37169412,-2.0,-2.0,-1.176105,-2.0
2025-06-10 09:01:06.222,0.021308938,0.04312204,-0.018432638,-0.026112866,5.9207054e-05,0.029507509,0.0,0.0,0.0,-0.030366242,0.100868165,0.49798924,-0.16465938,0.13636716,0.47190192,-0.2079036,0.033444963,-0.106479056,-0.15654954,-0.04145391,-0.19622818,-0.09211878,-0.045271408,0.017413797,0.06745994,0.038010586,0.051650297,-0.03632061,-0.0597717,0.056538966,-0.036972754,0.063775815,-0.042400107,-0.061768338,2.0,2.0,-2.0,2.0,2.0,-2.0,2.0,-0.37169412,-2.0,-2.0,-1.176105,-2.0,2.0,2.0,-2.0,2.0,2.0,-2.0,2.0,-0.4999042,-2.0,-2.0,-0.9996934,-2.0
2025-06-10 09:01:06.242,0.016869314,-0.027529394,0.038960934,-0.03239892,0.050735302,0.04825935,0.0,0.0,0.0,-0.030416476,0.10256195,0.49992567,-0.16202724,0.13732111,0.47685382,-0.1998138,0.029331112,-0.10662773,-0.15563321,-0.048542164,-0.18980135,-0.10262781,-0.031711202,0.009767857,-0.042452022,-0.001250527,0.029117813,-0.0131797865,0.021261798,0.027171599,-0.026049249,0.06841431,0.05379415,-0.0063365153,2.0,2.0,-2.0,2.0,2.0,-2.0,2.0,-0.4999042,-2.0,-2.0,-0.9996934,-2.0,2.0,2.0,-2.0,2.0,2.0,-2.0,2.0,-0.6273236,-2.0,-2.0,-0.88149023,-2.0
2025-06-10 09:01:06.262,-0.0028371888,0.031849276,-0.023909243,-0.0044099563,-0.020479735,-0.004949469,0.0,0.0,0.0,-0.030635748,0.10289238,0.5070874,-0.15865847,0.14626274,0.47526222,-0.19625957,0.030895397,-0.10050895,-0.14917523,-0.050613865,-0.18813784,-0.09841675,0.042574838,0.055107225,-0.06716775,0.04723549,-0.051919278,-0.02409074,0.06162924,-0.036983542,0.0122510735,0.05278521,-0.061991945,-0.061899275,2.0,2.0,-2.0,2.0,2.0,-2.0,2.0,-0.6273236,-2.0,-2.0,-0.88149023,-2.0,2.0,2.0,-2.0,2.0,2.0,-2.0,2.0,-0.46951392,-2.0,-2.0,-0.95531845,-2.0
2025-06-10 09:01:06.282,-0.028606152,0.036510237,-0.034040235,-0.023349844,-0.0038764842,-0.03009952,0.0,0.0,0.0,-0.030651039,0.09254813,0.50869346,-0.1503176,0.14321454,0.47866783,-0.21474843,0.022007171,-0.105498776,-0.14908226,-0.03693262,-0.20091158,-0.1003937,0.05792607,-0.008805079,0.019076016,-0.006751857,-0.033498805,0.025764568,-0.06331948,0.026022565,-0.028696792,0.029630847,0.045120556,0.010733133,2.0,2.0,-2.0,2.0,2.0,-2.0,2.0,-0.46951392,-2.0,-2.0,-0.95531845,-2.0,2.0,2.0,-2.0,2.0,2.0,-2.0,2.0,-0.42532972,-2.0,-2.0,-1.119832,-2.0
2025-06-10 09:01:06.302,-0.047600508,-0.004601299,-0.020647071,-0.012156253,-0.032849297,0.038640287,0.0,0.0,0.0,-0.030625157,0.10709293,0.51241004,-0.15993544,0.15152834,0.46124703,-0.21143511,0.022506464,-0.097018674,-0.1474965,-0.046446748,-0.20166053,-0.09726861,-0.022139883,-0.054661643,0.049587592,0.004597672,-0.022742348,0.06732566,-0.05693795,-0.028801193,0.040220868,0.06553034,0.037125766,0.054873984,2.0,2.0,-2.0,2.0,2.0,-2.0,2.0,-0.42532972,-2.0,-2.0,-1.119832,-2.0,2.0,2.0,-2.0,2.0,2.0,-2.0,2.0,-0.4324403,-2.0,-2.0,-1.1697314,-2.0
2025-06-10 09:01:06.325,-0.060727168,-0.03156975,0.01773445,-0.08141878,0.05902247,0.025165852,0.0,0.0,0.0,-0.030817693,0.110786,0.5063453,-0.15462689,0.14188714,0.47438774,-0.21512549,0.03789246,-0.10289953,-0.15489268,-0.046160445,-0.20568895,-0.08920087,0.057297044,0.05856596,-0.0071718064,0.01509402,0.042320445,-0.045706924,-0.0027740663,-0.0031587,0.011950334,-0.020814426,0.0117327245,0.03134106,2.0,2.0,-2.0,2.0,2.0,-2.0,2.0,-0.4324403,-2.0,-2.0,-1.1697314,-2.0,2.0,2.0,-2.0,2.0,2.0,-2.0,2.0,-0.5894637,-2.0,-2.0,-0.8564286,-2.0
2025-06-10 09:01:06.342,0.038645696,-0.02687564,0.011753948,-0.07816498,-0.012818739,-0.045849606,0.0,0.0,0.0,-0.031235369,0.11221914,0.5135358,-0.15376002,0.14656925,0.46924657,-0.2043163,0.03513384,-0.099179335,-0.14121228,-0.03217229,-0.19724031,-0.090705805,-0.058739323,0.025935935,0.028902017,0.0041111917,0.026093941,-0.033996135,-0.04539119,0.017657334,0.01921243,0.07079499,-0.06546633,-0.044705883,2.0,2.0,-2.0,2.0,2.0,-2.0,2.0,-0.5894637,-2.0,-2.0,-0.8564286,-2.0,2.0,2.0,-2.0,2.0,2.0,-2.0,2.0,-0.51612186,-2.0,-2.0,-0.9552789,-2.0
2025-06-10 09:01:06.362,-0.03377374,0.011455708,0.012194892,-0.07883082,-0.026964383,0.0056918673,0.0,0.0,0.0,-0.03141285,0.09455016,0.5088193,-0.14756867,0.14943556,0.45855498,-0.21407571,0.02644545,-0.11365756,-0.13835706,-0.042275414,-0.19556645,-0.100594096,-0.0006851759,-0.06306731,0.017577037,0.036611572,0.035646178,-0.050668493,-0.05338358,-0.068589084,-0.0025896565,-0.041977745,-0.056583583,-0.016103445,2.0,2.0,-2.0,2.0,2.0,-2.0,2.0,-0.51612186,-2.0,-2.0,-0.9552789,-2.0,2.0,2.0,-2.0,2.0,2.0,-2.0,2.0,-0.4940677,-2.0,-2.0,-0.85535073,-2.0
2025-06-10 09:01:06.382,0.061157957,-0.012201865,0.024543172,0.0067337714,0.03550385,-0.03225428,0.0,0.0,0.0,-0.031380165,0.09112761,0.5064476,-0.14623176,0.14495821,0.45971167,-0.21353868,0.031396158,-0.10349586,-0.15221204,-0.044269428,-0.20256941,-0.10866699,0.01842074,0.036763284,0.0054416116,0.067632444,0.04502721,-0.058747448,-0.037832182,0.05670665,0.03084866,-0.0051757423,-0.038933843,-0.06117441,2.0,2.0,-2.0,2.0,2.0,-2.0,2.0,-0.4940677,-2.0,-2.0,-0.85535073,-2.0,2.0,2.0,-2.0,2.0,2.0,-2.0,2.0,-0.59016037,-2.0,-2.0,-0.8483031,-2.0
2025-06-10 09:01:06.402,0.053485367,-0.031173263,-0.06068546,-0.061146803,-0.03322325,0.005719945,0.0,0.0,0.0,-0.031219637,0.09236136,0.498063,-0.15752167,0.13457808,0.4665667,-0.20710167,0.019307937,-0.09326034,-0.15380216,-0.044406094,-0.18506381,-0.112108424,0.06261055,-0.01618071,-0.06637386,0.0118006375,-0.055441756,-0.04714995,0.0759339,0.053073358,-0.06560946,0.042507283,-0.04437381,-0.0007617035,2.0,2.0,-2.0,2.0,2.0,-2.0,2.0,-0.59016037,-2.0,-2.0,-0.8483031,-2.0,2.0,2.0,-2.0,2.0,2.0,-2.0,2.0,-0.22914459,-2.0,-2.0,-1.223269,-2.0
2025-06-10 09:01:06.425,-0.070118375,-0.03388233,0.027526805,-0.043272,-0.0150587605,0.0288771,0.0,0.0,0.0,-0.030890899,0.104776815,0.5049029,-0.15120994,0.1419719,0.4676092,-0.20677432,0.031226577,-0.09846497,-0.1591985,-0.03584162,-0.19975287,-0.11002389,0.06742556,-0.051594105,-0.07534326,0.06461058,0.040580552,0.0149314515,0.04813151,0.0008269073,-0.040882282,0.041149855,-0.072220415,-0.06117582,2.0,2.0,-2.0,2.0,2.0,-2.0,2.0,-0.22914459,-2.0,-2.0,-1.223269,-2.0,2.0,2.0,-2.0,2.0,2.0,-2.0,2.0,-0.58148,-2.0,-2.0,-0.7398205,-2.0
2025-06-10 09:01:06.442,-0.012402313,0.036697388,0.010237602,-0.020908328,0.030405883,0.005127399,0.0,0.0,0.0,-0.03092735,0.104291074,0.500871,-0.15224904,0.14874847,0.478027,-0.20467983,0.023575567,-0.105063766,-0.15014349,-0.041317504,-0.19871858,-0.099801734,0.039314415,0.060969234,-0.019753464,0.00712557,-0.007999956,0.035192996,-0.014947603,-0.044051297,0.047751717,-0.038133077,0.017616725,-0.077192776,2.0,2.0,-2.0,2.0,2.0,-2.0,2.0,-0.58148,-2.0,-2.0,-0.7398205,-2.0,2.0,2.0,-2.0,2.0,2.0,-2.0,2.0,-0.6462388,-2.0,-2.0,-0.790009,-2.0
2025-06-10 09:01:06.462,-0.022912826,0.008171291,-0.013745648,-0.046491347,-0.0065876693,-0.049832832,0.0,0.0,0.0,-0.030839305,0.0962882,0.5125868,-0.14432438,0.14247605,0.48140633,-0.195059,0.039941654,-0.0893288,-0.14128429,-0.049647205,-0.20139195,-0.10550952,-0.047925495,-0.05650122,0.034286458,0.021079786,0.058264896,0.033293556,-0.05454137,-0.046671983,0.008338557,-0.045420486,0.082697675,-0.04788126,2.0,2.0,-2.0,2.0,2.0,-2.0,2.0,-0.6462388,-2.0,-2.0,-0.790009,-2.0,2.0,2.0,-2.0,2.0,2.0,-2.0,2.0,-0.51048326,-2.0,-2.0,-1.0002067,-2.0
2025-06-10 09:01:06.482,-0.033254016,0.020477649,-0.05668932,-0.04099417,0.04413123,0.03268733,0.0,0.0,0.0,-0.030429136,0.090238735,0.50771075,-0.16299029,0.14848289,0.47226706,-0.20300925,0.0396087,-0.09497111,-0.14199294,-0.046028536,-0.18217304,-0.10376635,-0.038390424,-0.046747226,-0.021861225,-0.04508584,0.022173554,-0.057217237,0.0557682,-0.03676216,0.021508997,-0.01629509,0.069106154,-0.071525894,2.0,2.0,-2.0,2.0,2.0,-2.0,2.0,-0.51048326,-2.0,-2.0,-1.0002067,-2.0,2.0,2.0,-2.0,2.0,2.0,-2.0,2.0,-0.38810685,-2.0,-2.0,-1.1207299,-2.0
2025-06-10 09:01:06.502,0.00032025602,0.02883561,0.036097113,-0.030948907,0.0140724005,-0.03158652,0.0,0.0,0.0,-0.030116193,0.08974189,0.5158002,-0.15050949,0.14099653,0.4799608,-0.20010476,0.036385264,-0.107715726,-0.15048863,-0.031880338,-0.1897163,-0.10923659,0.0008829081,-0.07043319,0.03443963,0.07303743,-0.017752942,0.073810056,-0.05363886,0.049610138,-0.040124003,0.007462866,-0.050001647,-0.01616602,2.0,2.0,-2.0,2.0,2.0,-2.0,2.0,-0.38810685,-2.0,-2.0,-1.1207299,-2.0,2.0,2.0,-2.0,2.0,2.0,-2.0,2.0,-0.6546502,-2.0,-2.0,-0.745368,-2.0
2025-06-10 09:01:06.525,-0.025445942,-0.007239889,-0.04791698,-0.007927494,0.0012041386,-0.02211271,0.0,0.0,0.0,-0.0301964,0.105309546,0.5037268,-0.16075604,0.13201301,0.46873286,-0.19987057,0.02548003,-0.112917595,-0.15465808,-0.038053997,-0.20142834,-0.11350777,-0.06337748,0.044658728,0.002706472,0.044872224,-0.04847087,0.04804817,0.0616224,-0.030028602,0.010341064,-0.025828129,-0.01848644,-0.006961025,2.0,2.0,-2.0,2.0,2.0,-2.0,2.0,-0.6546502,-2.0,-2.0,-0.745368,-2.0,2.0,2.0,-2.0,2.0,2.0,-2.0,2.0,-0.37914374,-2.0,-2.0,-1.0941358,-2.0
2025-06-10 09:01:06.543,-0.0051567187,0.016828386,0.032730278,-0.05805077,-0.02770149,0.021909421,0.0,0.0,0.0,-0.030126575,0.0890372,0.51290816,-0.15044512,0.13874651,0.47710657,-0.20605016,0.04292933,-0.09352591,-0.1429119,-0.044783387,-0.19419895,-0.10728036,-0.04787572,0.02600014,0.0055468963,0.049918994,0.014832823,0.03333361,-0.0046694246,0.022344407,0.01910475,-0.029136162,0.027094256,-0.05906922,2.0,2.0,-2.0,2.0,2.0,-2.0,2.0,-0.37914374,-2.0,-2.0,-1.0941358,-2.0,2.0,2.0,-2.0,2.0,2.0,-2.0,2.0,-0.69141245,-2.0,-2.0,-0.7608681,-2.0
2025-06-10 09:01:06.563,0.04941861,-0.025874827,-0.053859245,-0.07321159,0.05036745,0.026205007,0.0,0.0,0.0,-0.030213252,0.09904385,0.5009265,-0.15771708,0.13890973,0.48323545,-0.20356952,0.040231023,-0.09557516,-0.1375645,-0.037085276,-0.19473225,-0.09855378,0.008820115,0.05900646,-0.037692107,-0.07176194,0.013214192,0.051518247,-0.02501645,-0.026768982,0.045152146,-0.045551836,-0.028516985,0.050940935,2.0,2.0,-2.0,2.0,2.0,-2.0,2.0,-0.69141245,-2.0,-2.0,-0.7608681,-2.0,2.0,2.0,-2.0,2.0,2.0,-2.0,2.0,-0.42863038,-2.0,-2.0,-1.0908451,-2.0
2025-06-10 09:01:06.583,-0.04374756,0.03893921,0.011891981,-0.004966985,0.045954097,-0.014055633,0.0,0.0,0.0,-0.030152984,0.08727194,0.4980353,-0.15325622,0.13447161,0.47072017,-0.20327121,0.041726198,-0.10527019,-0.1417664,-0.040452313,-0.18948495,-0.11437178,-0.052234624,-0.030913426,0.003122056,-0.02713605,-0.03774964,-0.02590241,0.018664025,0.017452663,0.04362016,0.024463784,-0.068602055,-0.0017074753,2.0,2.0,-2.0,2.0,2.0,-2.0,2.0,-0.42863038,-2.0,-2.0,-1.0908451,-2.0,2.0,2.0,-2.0,2.0,2.0,-2.0,2.0,-0.6302161,-2.0,-2.0,-0.8215518,-2.0
2025-06-10 09:01:06.603,0.013695497,-0.041093964,0.004031819,-0.057170887,-0.0030678452,0.005561578,0.0,0.0,0.0,-0.030222004,0.096928224,0.49933836,-0.15216783,0.1291544,0.477356,-0.1955562,0.03243078,-0.10288293,-0.15267831,-0.041864466,-0.19034049,-0.10502745,-0.008987654,0.06685836,0.034904122,0.03240421,0.008736627,0.020524208,0.013616042,-0.00025236784,-0.023046505,-0.015348109,0.041331403,-0.060759846,2.0,2.0,-2.0,2.0,2.0,-2.0,2.0,-0.6302161,-2.0,-2.0,-0.8215518,-2.0,2.0,2.0,-2.0,2.0,2.0,-2.0,2.0,-0.54798317,-2.0,-2.0,-0.9040923,-2.0
2025-06-10 09:01:06.625,0.037080944,0.003962608,0.009019571,-0.029487306,-0.02915123,0.02997912,0.0,0.0,0.0,-0.03021664,0.09650948,0.5010577,-0.14488144,0.13690664,0.47249025,-0.20798253,0.034615975,-0.09785913,-0.13797864,-0.02995872,-0.19155155,-0.107203275,0.07394419,0.06571336,-0.050273262,0.040081818,-0.07280991,-0.066963345,0.022749746,0.00584505,0.059775136,-0.049406175,0.034290753,-0.033099074,2.0,2.0,-2.0,2.0,2.0,-2.0,2.0,-0.54798317,-2.0,-2.0,-0.9040923,-2.0,2.0,2.0,-2.0,2.0,2.0,-2.0,2.0,-0.56748724,-2.0,-2.0,-0.87849236,-2.0
2025-06-10 09:01:06.643,-0.02793777,0.042734787,0.011302806,-0.062577695,0.019948157,-0.049151942,0.0,0.0,0.0,-0.030120512,0.09427008,0.5122619,-0.16344224,0.14806333,0.47995853,-0.21298027,0.03208184,-0.09835443,-0.14305407,-0.04785842,-0.18464006,-0.10557243,-0.008883934,0.05537372,-0.061454643,-0.06965712,-0.0020808666,-0.020699395,0.006949103,-0.053272836,-0.048856895,-0.017818177,-0.06252987,0.010625527,2.0,2.0,-2.0,2.0,2.0,-2.0,2.0,-0.56748724,-2.0,-2.0,-0.87849236,-2.0,2.0,2.0,-2.0,2.0,2.0,-2.0,2.0,-0.5371995,-2.0,-2.0,-0.8125615,-2.0
2025-06-10 09:01:06.663,0.02397692,-0.058190852,-0.05342081,-0.056565482,0.05065537,-0.011964076,0.0,0.0,0.0,-0.030005774,0.0894853,0.5029547,-0.14403537,0.12899643,0.47510412,-0.20461236,0.03470527,-0.09830475,-0.14541571,-0.028640427,-0.19199741,-0.10988322,0.011063888,0.06273524,-0.0050902194,0.0015910149,0.01075098,-0.00373349,0.048019342,-0.071082115,0.010962822,-0.052219346,-0.063317604,0.036072604,2.0,2.0,-2.0,2.0,2.0,-2.0,2.0,-0.5371995,-2.0,-2.0,-0.8125615,-2.0,2.0,2.0,-2.0,2.0,2.0,-2.0,2.0,-0.36895517,-2.0,-2.0,-1.0222793,-2.0
2025-06-10 09:01:06.683,0.025938414,-0.020861892,0.04232625,0.0054898327,0.04517595,0.031244822,0.0,0.0,0.0,-0.029849924,0.10555857,0.5157415,-0.1491381,0.14227276,0.48771802,-0.19815046,0.025335995,-0.10773038,-0.14009826,-0.030014552,-0.18726064,-0.10747784,0.054873716,0.037262037,-0.051097207,0.04993484,-0.025462423,-0.050373547,-0.07162873,0.054260656,0.024469845,0.012890207,0.003040781,-0.017978856,2.0,2.0,-2.0,2.0,2.0,-2.0,2.0,-0.36895517,-2.0,-2.0,-1.0222793,-2.0,2.0,2.0,-2.0,2.0,2.0,-2.0,2.0,-0.69459677,-2.0,-2.0,-0.77127504,-2.0
2025-06-10 09:01:06.706,-0.01355447,0.042474713,-0.038328394,-0.033722263,-0.007272544,0.0010515626,0.0,0.0,0.0,-0.029953862,0.088748716,0.51118124,-0.15057814,0.13031818,0.47879514,-0.21035367,0.03495289,-0.09501584,-0.14050615,-0.041382477,-0.18982472,-0.11564646,-0.0014687545,0.056328863,0.034939084,-0.0534708,0.06075221,0.017069943,-0.07405761,-0.057331156,-0.024863195,-0.07103577,0.020492911,-0.023336109,2.0,2.0,-2.0,2.0,2.0,-2.0,2.0,-0.69459677,-2.0,-2.0,-0.77127504,-2.0,2.0,2.0,-2.0,2.0,2.0,-2.0,2.0,-0.4349847,-2.0,-2.0,-1.028969,-2.0
2025-06-10 09:01:06.724,-0.0044974172,0.0050318376,-0.0009988098,-0.07347996,0.017857306,0.014137206,0.0,0.0,0.0,-0.029938584,0.08827445,0.514229,-0.14440706,0.14291619,0.4796913,-0.19696061,0.029627709,-0.11013247,-0.14910614,-0.04548607,-0.17994325,-0.11374067,-0.011866073,-0.0028677077,-0.0497484,-0.009219474,0.0061041173,-0.066813104,-0.010210546,-0.062057428,0.009271827,0.06147801,0.019105477,-0.021164857,2.0,2.0,-2.0,2.0,2.0,-2.0,2.0,-0.4349847,-2.0,-2.0,-1.028969,-2.0,2.0,2.0,-2.0,2.0,2.0,-2.0,2.0,-0.52049303,-2.0,-2.0,-0.9022527,-2.0
2025-06-10 09:01:06.743,0.025980597,-0.0013279099,0.046078824,-0.062212046,0.050191496,-0.00790103,0.0,0.0,0.0,-0.030031066,0.101903975,0.5152047,-0.14647998,0.14304438,0.47318536,-0.20641887,0.02919526,-0.11176289,-0.1405627,-0.031701278,-0.18529665,-0.10523559,0.018922627,-0.046760276,-0.01592813,-0.037337903,0.012131238,0.0062215473,0.06406137,-0.07393299,-0.04974781,0.019992767,-0.055206858,-0.030488634,2.0,2.0,-2.0,2.0,2.0,-2.0,2.0,-0.52049303,-2.0,-2.0,-0.9022527,-2.0,2.0,2.0,-2.0,2.0,2.0,-2.0,2.0,-0.569437,-2.0,-2.0,-0.7404947,-2.0
2025-06-10 09:01:06.763,0.007902639,-0.025359701,-0.0025095406,-0.07506975,0.018830892,0.015072014,0.0,0.0,0.0,-0.030198153,0.092731416,0.51364964,-0.15484588,0.1453451,0.48455095,-0.19667484,0.044095572,-0.10753717,-0.13561642,-0.03538734,-0.18769872,-0.115314245,-0.06178498,0.030614937,0.07212701,0.060779095,0.010483248,0.05558545,-0.03776109,0.0692433,0.060362007,0.052422814,0.06323798,-0.07156832,2.0,2.0,-2.0,2.0,2.0,-2.0,2.0,-0.569437,-2.0,-2.0,-0.7404947,-2.0,2.0,2.0,-2.0,2.0,2.0,-2.0,2.0,-0.61155796,-2.0,-2.0,-0.95720744,-2.0
2025-06-10 09:01:06.783,-0.04333946,-0.0039769392,-0.022473603,-0.03678591,-0.0009814791,0.0318476,0.0,0.0,0.0,-0.030161887,0.10325988,0.51563996,-0.15924652,0.13236012,0.47986478,-0.20624663,0.034317065,-0.10295131,-0.14355582,-0.034081843,-0.19455549,-0.118080415,0.037982874,-0.029400613,0.009914162,-0.06647605,0.012201877,-0.013915582,0.011025608,-0.07738439,-0.0079487255,0.016137507,-0.060049035,-0.014676194,2.0,2.0,-2.0,2.0,2.0,-2.0,2.0,-0.61155796,-2.0,-2.0,-0.95720744,-2.0,2.0,2.0,-2.0,2.0,2.0,-2.0,2.0,-0.41552594,-2.0,-2.0,-0.98449516,-2.0
2025-06-10 09:01:06.806,-0.027248593,0.01618333,0.040001437,-0.044555195,0.048103765,-0.047552012,0.0,0.0,0.0,-0.030063346,0.10677753,0.51746756,-0.158805,0.13308966,0.46869627,-0.2136068,0.04138554,-0.1014031,-0.13968647,-0.046017386,-0.1823961,-0.11095028,-0.015873084,0.009178479,0.06973843,0.04606939,0.05558711,-0.03417571,0.017297562,-0.011530658,0.05695178,-0.025426915,0.04167044,0.025266761,2.0,2.0,-2.0,2.0,2.0,-2.0,2.0,-0.41552594,-2.0,-2.0,-0.98449516,-2.0,2.0,2.0,-2.0,2.0,2.0,-2.0,2.0,-0.6678839,-2.0,-2.0,-0.7875724,-2.0
2025-06-10 09:01:06.824,0.026894977,0.04703551,-0.031378012,0.012268877,0.013733625,0.01722236,0.0,0.0,0.0,-0.030155176,0.10639482,0.5004672,-0.15309153,0.13950612,0.487511,-0.20124188,0.042442396,-0.10432344,-0.1365544,-0.03938412,-0.19881147,-0.107939795,0.054299857,0.04359545,-0.016460389,-0.04848893,-0.038670253,0.045854185,-0.01567422,0.020929145,0.016204316,-0.01123123,-0.02948975,0.041517377,2.0,2.0,-2.0,2.0,2.0,-2.0,2.0,-0.6678839,-2.0,-2.0,-0.7875724,-2.0,2.0,2.0,-2.0,2.0,2.0,-2.0,2.0,-0.4941497,-2.0,-2.0,-1.053318,-2.0
2025-06-10 09:01:06.844,-0.042855352,0.043733876,0.04344193,-0.037323624,0.01180172,0.047318753,0.0,0.0,0.0,-0.030103654,0.09510961,0.5042772,-0.16178925,0.14502181,0.47907594,-0.20899422,0.040485073,-0.10820288,-0.15110454,-0.03968093,-0.19933534,-0.10154889,0.02451573,0.01805578,0.035462115,0.053953025,0.07171617,-0.04235433,0.028614594,0.0014674376,0.022400431,0.040867776,0.02989821,0.06237552,2.0,2.0,-2.0,2.0,2.0,-2.0,2.0,-0.4941497,-2.0,-2.0,-1.053318,-2.0,2.0,2.0,-2.0,2.0,2.0,-2.0,2.0,-0.67877007,-2.0,-2.0,-0.7996826,-2.0
2025-06-10 09:01:06.864,0.034983892,0.0011814568,0.033828292,-0.007551031,0.017361056,-0.005828117,0.0,0.0,0.0,-0.03013575,0.099949,0.49896523,-0.15596506,0.14221448,0.46947476,-0.19985397,0.026745267,-0.1152542,-0.13658245,-0.032437433,-0.19425558,-0.10146429,0.05972508,0.055181287,-0.047977418,0.016712787,-0.020455623,-0.051770233,0.01998316,0.05415632,-0.020603739,0.059855912,-0.0425789,0.017444184,2.0,2.0,-2.0,2.0,2.0,-2.0,2.0,-0.67877007,-2.0,-2.0,-0.7996826,-2.0,2.0,2.0,-2.0,2.0,2.0,-2.0,2.0,-0.57621574,-2.0,-2.0,-0.8762059,-2.0
2025-06-10 09:01:06.884,0.023431165,-0.031124905,-0.009014763,0.0033970692,-0.024358936,0.0073433053,0.0,0.0,0.0,-0.03004701,0.09701471,0.50485146,-0.15884481,0.13950154,0.4810212,-0.21500362,0.04142615,-0.11810273,-0.14000401,-0.03300159,-0.1845252,-0.0993312,0.05231344,0.06267891,-0.026522964,-0.0013052762,-0.06910454,0.073946856,0.04705523,-0.027956683,-0.005739741,-0.032283965,-0.036238793,0.012818534,2.0,2.0,-2.0,2.0,2.0,-2.0,2.0,-0.57621574,-2.0,-2.0,-0.8762059,-2.0,2.0,2.0,-2.0,2.0,2.0,-2.0,2.0,-0.4766951,-2.0,-2.0,-0.91937757,-2.0
2025-06-10 09:01:06.908,-0.01069588,-0.021788508,-0.0017283137,-0.07264959,0.0054240283,-0.019878192,0.0,0.0,0.0,-0.029870795,0.087813646,0.51352954,-0.14874162,0.12871304,0.4746906,-0.2022741,0.044189103,-0.10867038,-0.1495528,-0.02914131,-0.18536645,-0.10321239,0.030530365,0.075479835,-0.06208775,0.018131884,-0.047273804,0.0031608527,0.016441822,-0.04212862,0.012810019,0.06750194,0.018834667,-0.024556562,2.0,2.0,-2.0,2.0,2.0,-2.0,2.0,-0.4766951,-2.0,-2.0,-0.91937757,-2.0,2.0,2.0,-2.0,2.0,2.0,-2.0,2.0,-0.5325184,-2.0,-2.0,-0.87583923,-2.0
2025-06-10 09:01:06.924,0.01813665,0.042841174,-0.030833185,0.010563086,0.057950664,0.0141539695,0.0,0.0,0.0,-0.029829146,0.08604475,0.50949603,-0.1531157,0.1306264,0.48108646,-0.20291781,0.03713741,-0.111036606,-0.1474846,-0.041823186,-0.19921449,-0.116882674,-0.05221294,-0.007535555,0.046768542,-0.02526495,-0.06491826,0.050818313,-0.007636388,0.048094925,-0.029801773,-0.040269036,-0.0052246703,-0.018087836,2.0,2.0,-2.0,2.0,2.0,-2.0,2.0,-0.5325184,-2.0,-2.0,-0.87583923,-2.0,2.0,2.0,-2.0,2.0,2.0,-2.0,2.0,-0.47878078,-2.0,-2.0,-1.0457251,-2.0
2025-06-10 09:01:06.944,-0.016384711,-0.031888787,0.025681546,-0.012906329,-0.02657423,-0.047153443,0.0,0.0,0.0,-0.029853573,0.095507056,0.49985468,-0.15406954,0.14001758,0.48327693,-0.20409602,0.03147397,-0.098224044,-0.13880886,-0.03205376,-0.19349709,-0.112362415,-0.06909819,-0.033902813,0.015968077,-0.009401361,-0.032489676,0.0009948112,0.07334673,-0.04375243,-0.025838897,-0.055640623,-0.015604104,-0.06519193,2.0,2.0,-2.0,2.0,2.0,-2.0,2.0,-0.47878078,-2.0,-2.0,-1.0457251,-2.0,2.0,2.0,-2.0,2.0,2.0,-2.0,2.0,-0.56937313,-2.0,-2.0,-0.7846985,-2.0
2025-06-10 09:01:06.964,-0.03255508,-0.031688668,0.033077627,-0.057540588,0.058302466,-0.0439291,0.0,0.0,0.0,-0.030047504,0.09152924,0.5085003,-0.14727278,0.14172672,0.47046348,-0.20201935,0.029926667,-0.1130675,-0.1537403,-0.042087313,-0.2002451,-0.1191888,0.055603698,0.051596202,-0.028703822,0.02058795,-0.071680345,0.047595236,-0.046507496,0.05426527,0.04462715,0.030222982,-0.036320735,0.02923784,2.0,2.0,-2.0,2.0,2.0,-2.0,2.0,-0.56937313,-2.0,-2.0,-0.7846985,-2.0,2.0,2.0,-2.0,2.0,2.0,-2.0,2.0,-0.6533208,-2.0,-2.0,-0.7764437,-2.0
2025-06-10 09:01:06.984,0.022638561,0.032357004,-0.05635202,-0.0024667364,0.05118968,0.046859637,0.0,0.0,0.0,-0.03014215,0.0969291,0.51557314,-0.14255883,0.13723518,0.47743025,-0.20098124,0.033959188,-0.11185064,-0.13624611,-0.03974153,-0.19302325,-0.1141266,-0.008175804,0.058252964,-0.06791941,0.052268375,-0.024096027,0.053570822,-0.027423307,0.020801522,-0.05415654,0.049945362,0.065071724,0.023416813,2.0,2.0,-2.0,2.0,2.0,-2.0,2.0,-0.6533208,-2.0,-2.0,-0.7764437,-2.0,2.0,2.0,-2.0,2.0,2.0,-2.0,2.0,-0.3516169,-2.0,-2.0,-1.2344754,-2.0
2025-06-10 09:01:07.008,-0.06176534,-0.021726727,0.00807416,-0.034057412,0.018389793,0.04208407,0.0,0.0,0.0,-0.029976368,0.10042726,0.512517,-0.1617002,0.13500412,0.47605136,-0.20051211,0.032456867,-0.10968821,-0.14633733,-0.04791631,-0.19202577,-0.11049052,0.066614166,-0.013260225,-0.017575037,0.071052864,-0.04998878,0.061485387,0.07247484,0.06049834,-0.03078466,0.052048337,-0.01375138,-0.035089534,2.0,2.0,-2.0,2.0,2.0,-2.0,2.0,-0.3516169,-2.0,-2.0,-1.2344754,-2.0,2.0,2.0,-2.0,2.0,2.0,-2.0,2.0,-0.5749612,-2.0,-2.0,-0.8792381,-2.0
2025-06-10 09:01:07.026,-0.029977137,0.043819897,0.037402645,0.003703417,-0.01916012,0.0052667907,0.0,0.0,0.0,-0.030121278,0.090089455,0.5094226,-0.16034627,0.14059588,0.47872695,-0.20404166,0.04397788,-0.114100754,-0.13804753,-0.041761328,-0.20379356,-0.10125756,0.021283606,-0.023626417,-0.054293983,0.01381805,-0.00908819,0.014777924,0.023849588,0.014019878,-0.029950593,-0.06475317,0.052603472,0.02243901,2.0,2.0,-2.0,2.0,2.0,-2.0,2.0,-0.5749612,-2.0,-2.0,-0.8792381,-2.0,2.0,2.0,-2.0,2.0,2.0,-2.0,2.0,-0.6225662,-2.0,-2.0,-0.8066864,-2.0
2025-06-10 09:01:07.045,-0.0231503,-0.034913067,-0.04038297,-0.007439438,-0.0019499804,-0.0089086145,0.0,0.0,0.0,-0.03029458,0.10446821,0.51279074,-0.15526126,0.1385257,0.48074588,-0.19901584,0.028810598,-0.09773801,-0.13538682,-0.035784926,-0.19824478,-0.11300791,0.06757268,-0.007924546,0.03422801,0.05787686,-0.009195442,0.069193706,-0.01217386,-0.06007692,0.059836626,-0.03192702,-0.043244805,0.01080916,2.0,2.0,-2.0,2.0,2.0,-2.0,2.0,-0.6225662,-2.0,-2.0,-0.8066864,-2.0,2.0,2.0,-2.0,2.0,2.0,-2.0,2.0,-0.44144824,-2.0,-2.0,-1.0162289,-2.0
2025-06-10 09:01:07.065,-0.024376653,-0.034747902,-0.031414405,0.0038102379,-0.034192108,-0.047754236,0.0,0.0,0.0,-0.030207269,0.09407256,0.51133597,-0.15339379,0.14071077,0.48157936,-0.20386332,0.036706354,-0.10020526,-0.15525377,-0.04220751,-0.20493975,-0.10385187,0.07665504,-0.0059729917,-0.06433869,0.031327393,-0.06881337,-0.009429796,-0.062391534,-0.056596268,-0.05201761,-0.028279843,0.03471841,0.074009776,2.0,2.0,-2.0,2.0,2.0,-2.0,2.0,-0.44144824,-2.0,-2.0,-1.0162289,-2.0,2.0,2.0,-2.0,2.0,2.0,-2.0,2.0,-0.36362317,-2.0,-2.0,-1.0720787,-2.0
2025-06-10 09:01:07.085,-0.039420776,-0.03510248,0.06815916,-0.012000279,-0.013597698,0.031899437,0.0,0.0,0.0,-0.030216033,0.0920728,0.50421005,-0.14887144,0.1369783,0.47877398,-0.20977294,0.042623237,-0.111792475,-0.14385012,-0.030880807,-0.20357563,-0.11568584,-0.0033466225,0.06726048,-0.010395702,0.04201882,0.026781721,0.013516133,0.009540746,0.07536131,-0.035073087,-0.051466357,-0.0045538424,0.026916903,2.0,2.0,-2.0,2.0,2.0,-2.0,2.0,-0.36362317,-2.0,-2.0,-1.0720787,-2.0,2.0,2.0,-2.0,2.0,2.0,-2.0,2.0,-0.73584414,-2.0,-2.0,-0.6527641,-2.0
2025-06-10 09:01:07.107,0.06007635,0.01678806,-0.0109005505,-0.067845844,0.038355507,0.0015025679,0.0,0.0,0.0,-0.030512715,0.10536492,0.5031873,-0.154995,0.13202378,0.47748172,-0.19970936,0.0253987,-0.11509173,-0.1512421,-0.039760493,-0.20161131,-0.10481636,0.056775767,0.013795059,0.007609574,0.06267358,-0.061416917,0.043022975,-0.07003361,0.06750211,0.02363364,0.053917572,0.07259907,0.0114221405,2.0,2.0,-2.0,2.0,2.0,-2.0,2.0,-0.73584414,-2.0,-2.0,-0.6527641,-2.0,2.0,2.0,-2.0,2.0,2.0,-2.0,2.0,-0.50879,-2.0,-2.0,-1.0817223,-2.0
2025-06-10 09:01:07.126,-0.059285287,-0.003808109,-0.04306553,-0.037345327,0.008447185,-0.045256943,0.0,0.0,0.0,-0.030450655,0.10473218,0.51667273,-0.14809673,0.14044574,0.46697545,-0.1927415,0.044481143,-0.11269061,-0.1501493,-0.035498038,-0.19135137,-0.11302574,-0.07360302,0.0033562013,0.056728166,0.0035021421,-0.06116401,-0.01785709,0.07159007,-0.041715354,0.012915155,0.064861275,-0.017362708,-0.010759197,2.0,2.0,-2.0,2.0,2.0,-2.0,2.0,-0.50879,-2.0,-2.0,-1.0817223,-2.0,2.0,2.0,-2.0,2.0,2.0,-2.0,2.0,-0.37471917,-2.0,-2.0,-1.1053827,-2.0
2025-06-10 09:01:07.146,-0.023682533,-0.04737285,-0.014029767,-0.014949264,-0.024733856,-0.014173417,0.0,0.0,0.0,-0.030383993,0.09840127,0.5006473,-0.16072527,0.14002314,0.47041717,-0.19733724,0.031228468,-0.10182732,-0.1394243,-0.04078371,-0.20012215,-0.10851137,-0.032086153,0.062395953,0.0010989597,0.026683029,-0.017905733,-0.026434727,0.03752925,0.020076277,-0.06774981,-0.004775535,0.039320525,0.001699083,2.0,2.0,-2.0,2.0,2.0,-2.0,2.0,-0.37471917,-2.0,-2.0,-1.1053827,-2.0,2.0,2.0,-2.0,2.0,2.0,-2.0,2.0,-0.45449737,-2.0,-2.0,-1.030313,-2.0
