openverse-orca/OrcaGym/log/simulation_log_20250721_142647.csv
timestamp,sim_time,physics_step,control_step,imu_angle_roll,imu_angle_pitch,imu_angle_yaw,imu_angular_velocity_roll,imu_angular_velocity_pitch,imu_angular_velocity_yaw,imu_acc_x,imu_acc_y,imu_acc_z,fl_joint1_pos,fl_joint1_vel,fl_joint1_torque,fl_joint2_pos,fl_joint2_vel,fl_joint2_torque,fl_joint3_pos,fl_joint3_vel,fl_joint3_torque,fr_joint1_pos,fr_joint1_vel,fr_joint1_torque,fr_joint2_pos,fr_joint2_vel,fr_joint2_torque,fr_joint3_pos,fr_joint3_vel,fr_joint3_torque,hl_joint1_pos,hl_joint1_vel,hl_joint1_torque,hl_joint2_pos,hl_joint2_vel,hl_joint2_torque,hl_joint3_pos,hl_joint3_vel,hl_joint3_torque,hr_joint1_pos,hr_joint1_vel,hr_joint1_torque,hr_joint2_pos,hr_joint2_vel,hr_joint2_torque,hr_joint3_pos,hr_joint3_vel,hr_joint3_torque,fl_force_x,fl_force_y,fl_force_z,fr_force_x,fr_force_y,fr_force_z,hl_force_x,hl_force_y,hl_force_z,hr_force_x,hr_force_y,hr_force_z,fl_hip_action,fl_thigh_action,fl_calf_action,fr_hip_action,fr_thigh_action,fr_calf_action,hl_hip_action,hl_thigh_action,hl_calf_action,hr_hip_action,hr_thigh_action,hr_calf_action
2025-07-21 14:26:47.422,0.0,0,0,-0.032406215,0.012964341,-0.0075459494,0.028577514,0.024695074,0.0225553,1.0195138,-0.96696824,0.0,0.0,0.002940449,0.0027145797,0.0010457161,0.0025345571,-0.00060159946,0.006137599,-0.004016938,-0.0036956498,0.0067676594,0.0014777873,0.0007205241,0.003551683,-0.04548476,0.01957046,0.038555883,0.030000169,-0.0054488266,0.06784364,0.07254084,0.04548081,0.012485298,-0.05273059,-0.029640362,-0.06174778,0.0,0.0,0.0,0.0,0.0,0.0,0.0,0.0,0.0,0.0,0.0,0.0,0.7166434,0.31404886,-0.69756186,0.25108412,0.54889417,0.07058489,0.52567524,-0.2494756,0.012520321,-1.6354907,-0.85065687,0.20400827
2025-07-21 14:26:47.437,0.02,20,1,-0.011741751,0.01119009,0.02067601,0.00491464,0.036619697,-0.014958283,0.0,0.0,0.0,0.0,0.008424685,0.011312031,-0.01125811,-0.0022004822,0.019631458,-0.0065610604,0.012335611,-0.0053940457,0.0102004595,-0.008470417,-0.033357978,0.01642006,0.07037682,-0.020626875,-0.115021124,0.014039794,0.044251673,-0.01703521,-0.005657354,-0.017350389,0.06742698,-0.07445043,-0.16037966,0.07918201,0.7166434,0.31404886,-0.69756186,0.25108412,0.54889417,0.07058489,0.52567524,-0.2494756,0.012520321,-1.6354907,-0.85065687,0.20400827,2.0,0.130826,-0.46781933,-1.5231342,0.49617428,-0.43161792,1.4869093,-0.32594234,-0.039888524,-2.0,-0.2563795,-2.0
2025-07-21 14:26:47.454,0.04,40,2,0.013466336,0.07034467,0.008081786,-0.031123422,-0.03973942,-0.022394434,0.0,0.0,0.0,-0.00010042289,0.007978721,0.025698777,-0.03449055,0.0020982204,0.03619034,-0.011759091,0.022130469,-0.02326772,0.0015939143,-0.03091455,-0.038602132,-0.03627083,0.08401286,-0.03742632,-0.0019383229,-0.037405882,0.12651579,-0.07188435,-0.009152972,0.0006503334,-0.013057096,-0.010160056,-0.014204095,-0.20549744,2.0,0.130826,-0.46781933,-1.5231342,0.49617428,-0.43161792,1.4869093,-0.32594234,-0.039888524,-2.0,-0.2563795,-2.0,2.0,0.73213696,-2.0,-2.0,0.4349363,1.7265067,2.0,0.13723566,0.9846598,-2.0,-0.3794624,-2.0
2025-07-21 14:26:47.474,0.06,60,3,0.052739926,-0.109710716,-0.069108024,-0.0062720557,-0.03424053,-0.0031090686,0.0,0.0,0.0,-0.00018898142,0.01677213,0.0010403419,-0.01983633,-0.022564935,0.06188898,0.014964828,0.040030956,-0.02903121,0.023557767,-0.041632142,-0.072286725,-0.035658844,-0.013987255,-0.10674027,0.09621358,-0.06442198,0.07405333,0.15916574,0.060688373,-0.054213062,0.11746032,-0.07172509,-0.015964506,0.11633234,2.0,0.73213696,-2.0,-2.0,0.4349363,1.7265067,2.0,0.13723566,0.9846598,-2.0,-0.3794624,-2.0,2.0,0.07968074,-2.0,-2.0,0.3081252,1.3128362,2.0,0.57041204,2.0,-2.0,-0.8054316,-2.0
2025-07-21 14:26:47.494,0.08,80,4,0.035314634,-0.16002263,-0.016325789,-0.035317462,-0.017573759,0.045541056,0.0,0.0,0.0,-8.095064e-06,0.030912321,-0.015023699,0.037713107,-0.04569291,0.051946044,0.072895154,0.05191695,-0.013483287,0.073609196,-0.02983526,-0.09517308,0.022501945,0.06652993,-0.015664006,0.08622632,0.03832479,0.034476012,0.19222769,0.032795016,0.003045726,0.09986319,-0.013820152,0.0230858,0.06392787,2.0,0.07968074,-2.0,-2.0,0.3081252,1.3128362,2.0,0.57041204,2.0,-2.0,-0.8054316,-2.0,2.0,-0.27784434,-2.0,-2.0,0.69994324,1.7355782,2.0,0.802401,2.0,-2.0,-0.6997001,-2.0
2025-07-21 14:26:47.520,0.1,100,5,0.08906718,-0.122907676,-0.13215955,-0.041849107,-0.047549535,0.0075125983,0.0,0.0,0.0,0.0006016951,0.022086408,-0.032481007,0.10334813,-0.051622186,0.045690518,0.13744292,0.07591132,0.0038660695,0.113108315,-0.032230277,-0.10495117,0.05880141,-0.010094187,-0.09468366,0.08259728,-0.016189478,-0.061263703,0.16520019,0.085125245,0.18040091,0.043698855,0.04774215,-0.045864627,0.11437533,2.0,-0.27784434,-2.0,-2.0,0.69994324,1.7355782,2.0,0.802401,2.0,-2.0,-0.6997001,-2.0,2.0,0.18844803,-0.7057036,-2.0,0.42694068,1.5940547,2.0,0.7320267,0.74888825,-2.0,-1.3345633,-2.0
2025-07-21 14:26:47.537,0.12000000000000001,120,6,-0.008919648,-0.054310244,-0.033902492,-0.061754473,0.02793589,0.018830823,0.0,0.0,0.0,0.0019875197,0.014013051,-0.052691013,0.15044242,-0.066647,0.038149633,0.19036132,0.08596729,0.047205433,0.13150407,-0.034615904,-0.11752679,0.097273305,0.04126865,0.0070716343,0.1337507,-0.03850815,0.03858364,0.12522018,0.07265147,0.044430133,0.083250746,0.014699753,-0.025399428,0.05062663,2.0,0.18844803,-0.7057036,-2.0,0.42694068,1.5940547,2.0,0.7320267,0.74888825,-2.0,-1.3345633,-2.0,2.0,0.12092383,-1.0741003,-2.0,1.163917,1.0175176,2.0,-0.013496228,-1.800188,-2.0,-1.2564518,-2.0
2025-07-21 14:26:47.554,0.14,140,7,0.0059530046,-0.08048112,-0.107177235,-0.06188345,-0.023114633,-0.017157596,0.0,0.0,0.0,0.0037952713,0.022153739,-0.06200089,0.18689196,-0.06952609,0.041154146,0.21621247,0.082563415,0.07962652,0.1577007,-0.026567386,-0.1131066,0.13863404,0.01254306,-0.06703818,0.061720774,0.016675342,0.060301684,0.10034176,-0.0064031915,0.0048257234,0.08127261,0.008907285,0.030882262,0.121683374,2.0,0.12092383,-1.0741003,-2.0,1.163917,1.0175176,2.0,-0.013496228,-1.800188,-2.0,-1.2564518,-2.0,2.0,1.2878172,-0.13522634,-2.0,0.6080768,-0.6335306,2.0,-0.7531404,-2.0,-2.0,-1.4070784,-2.0
2025-07-21 14:26:47.575,0.16,160,8,-0.094410025,-0.084573805,-0.025950057,-0.049357574,-0.014879419,0.009317789,0.0,0.0,0.0,0.0052141864,0.023705881,-0.07356511,0.18608238,-0.067205995,0.03285419,0.23825611,0.0991132,0.073095344,0.16127943,-0.01698903,-0.12366681,0.15336105,-0.0008374906,0.08159672,0.038823422,0.05679489,0.0740804,0.010484774,-0.07084862,-0.008221609,0.0993255,-0.010680523,-0.043922286,0.025034493,2.0,1.2878172,-0.13522634,-2.0,0.6080768,-0.6335306,2.0,-0.7531404,-2.0,-2.0,-1.4070784,-2.0,2.0,1.1071973,-0.3086172,-2.0,0.54760283,-0.44323397,2.0,-0.9857776,-2.0,-2.0,-1.0660148,-2.0
2025-07-21 14:26:47.595,0.18,180,9,-0.06558273,0.034349732,0.028286304,-0.03879669,-0.05867492,-0.041985314,0.0,0.0,0.0,0.0058446997,0.021274367,-0.060143963,0.1989642,-0.060005717,0.04363288,0.24717848,0.08873994,0.08361859,0.17375013,-0.014362817,-0.121798225,0.16086249,-0.06884227,-0.026505841,-0.05984417,-0.012504867,0.00691667,-0.013578498,0.059526853,-0.020058345,-0.00046831416,0.02236566,0.020178664,0.056541506,2.0,1.1071973,-0.3086172,-2.0,0.54760283,-0.44323397,2.0,-0.9857776,-2.0,-2.0,-1.0660148,-2.0,2.0,1.2535872,-0.83286905,-2.0,0.80597854,0.12142749,2.0,-1.1211227,-2.0,-2.0,-0.7844823,-2.0
2025-07-21 14:26:47.621,0.19999999999999998,200,10,-0.05167601,0.015221131,0.03259353,-0.061948385,0.0036921839,0.03203312,0.0,0.0,0.0,0.005761602,0.021985492,-0.04245195,0.18555133,-0.06434095,0.04239576,0.23252286,0.09660726,0.085422434,0.1720894,-0.032354526,-0.115289405,0.16898496,-0.0025790902,0.05927668,-0.0142813455,0.062275905,-0.023201268,-0.05103149,0.018029198,-0.0017815781,0.006000922,0.050173864,-0.049494196,-0.020780923,2.0,1.2535872,-0.83286905,-2.0,0.80597854,0.12142749,2.0,-1.1211227,-2.0,-2.0,-0.7844823,-2.0,2.0,1.3191293,-1.2921001,-2.0,0.5069203,0.10492566,2.0,-0.9640595,-2.0,-2.0,-0.69060636,-2.0
2025-07-21 14:26:47.637,0.21999999999999997,220,11,-0.07877178,-0.03643221,-0.04884614,0.0007468863,0.014145967,0.016957618,0.0,0.0,0.0,0.0057098903,0.010420466,-0.02342742,0.1415397,-0.07012989,0.060461994,0.22115915,0.079895265,0.070351735,0.16213992,-0.017186442,-0.11922773,0.16378053,-0.033959135,0.040975433,-0.11882862,-0.004113252,-0.004462122,0.033583272,0.032964107,-0.048503194,-0.09623782,-0.0636391,-0.03163045,0.04453798,2.0,1.3191293,-1.2921001,-2.0,0.5069203,0.10492566,2.0,-0.9640595,-2.0,-2.0,-0.69060636,-2.0,2.0,1.3106167,-1.0616429,-2.0,0.36907968,-0.27934888,2.0,-0.6720184,-2.0,-2.0,-0.8897346,-2.0
2025-07-21 14:26:47.655,0.23999999999999996,240,12,-0.11919471,0.018255236,-0.04201481,-0.069925845,-0.026273571,-0.033589795,0.0,0.0,0.0,0.0058897585,0.00615936,-0.0045195674,0.12030854,-0.06344795,0.07812089,0.20302586,0.08733928,0.087673806,0.13144729,-0.030461363,-0.111385435,0.16111976,-0.06750797,-0.004739577,-0.06012093,-0.0581737,0.07348986,-0.008940683,-0.01027155,0.037055235,-0.11580628,0.07302133,0.057736497,-0.035606682,2.0,1.3106167,-1.0616429,-2.0,0.36907968,-0.27934888,2.0,-0.6720184,-2.0,-2.0,-0.8897346,-2.0,2.0,1.244455,-0.8770784,-2.0,0.4639337,-0.07359825,2.0,-0.7581214,-2.0,-2.0,-0.9263279,-2.0
2025-07-21 14:26:47.675,0.25999999999999995,260,13,-0.12935491,0.03686038,-0.019136418,-0.012149952,0.06172239,-0.036975294,0.0,0.0,0.0,0.005976277,0.02379933,0.0074114148,0.08737372,-0.06719509,0.08263476,0.18589023,0.07682218,0.09207236,0.11685102,-0.030548813,-0.11083326,0.15683872,-0.000534119,0.08539898,-0.043818895,0.0010892457,0.09442778,-0.032750364,0.009214753,0.07504978,0.0049979747,-0.040408727,0.064693764,0.017777177,2.0,1.244455,-0.8770784,-2.0,0.4639337,-0.07359825,2.0,-0.7581214,-2.0,-2.0,-0.9263279,-2.0,2.0,1.2553877,-0.9134657,-2.0,0.4687445,-0.11248559,2.0,-0.80459213,-2.0,-2.0,-0.99166685,-2.0
2025-07-21 14:26:47.695,0.27999999999999997,280,14,-0.09924646,0.0012419432,0.006264818,-0.00046979878,0.0039759288,0.0045019463,0.0,0.0,0.0,0.0058371234,0.016200671,0.02877526,0.059526265,-0.067016035,0.08949087,0.14801793,0.08898897,0.08729509,0.11683833,-0.015307597,-0.1083018,0.15690832,-0.00084163126,0.017405067,-0.022068502,0.009202293,0.007826831,-0.06568842,-0.047384508,0.031860974,-0.036684066,-0.044481456,-0.027034175,0.0564078,2.0,1.2553877,-0.9134657,-2.0,0.4687445,-0.11248559,2.0,-0.80459213,-2.0,-2.0,-0.99166685,-2.0,2.0,1.2774633,-0.98045576,-2.0,0.58468145,-0.07430424,2.0,-0.79091054,-2.0,-2.0,-0.83345544,-2.0
2025-07-21 14:26:47.721,0.3,300,15,-0.05672727,0.011474738,0.057072397,-0.018907107,0.032571014,0.021173595,0.0,0.0,0.0,0.005545577,0.011474471,0.052409004,0.032734003,-0.061904117,0.09277957,0.12901758,0.07241861,0.083975844,0.09071937,-0.020247957,-0.10763936,0.1619177,-0.05024585,0.09217289,-0.14017873,-0.015684897,0.06877438,-0.10987887,-0.054177247,0.034646396,-0.10085068,-0.024126366,0.05803867,-0.039936997,2.0,1.2774633,-0.98045576,-2.0,0.58468145,-0.07430424,2.0,-0.79091054,-2.0,-2.0,-0.83345544,-2.0,2.0,1.1602932,-1.343061,-2.0,0.5369504,0.21229917,2.0,-0.93540597,-2.0,-2.0,-0.5962855,-2.0
2025-07-21 14:26:47.737,0.32,320,16,-0.07447804,-0.029587835,0.02006885,-0.061620176,0.008432462,-0.008649921,0.0,0.0,0.0,0.0052189147,0.014689899,0.06477959,0.0018936826,-0.057347994,0.11346625,0.12973453,0.07368049,0.083564326,0.07743082,-0.024692465,-0.10755873,0.14750372,-0.04611953,0.03593816,-0.04265217,0.06622231,0.009378606,-0.06497849,-0.071914375,-0.0007338201,0.028425567,0.04107904,0.039154693,-0.030339211,2.0,1.1602932,-1.343061,-2.0,0.5369504,0.21229917,2.0,-0.93540597,-2.0,-2.0,-0.5962855,-2.0,2.0,1.2763761,-1.6590655,-2.0,0.44175792,0.011325341,2.0,-0.7441013,-1.7750654,-2.0,-0.49317744,-2.0
2025-07-21 14:26:47.755,0.34,340,17,-0.024257673,-0.06324793,-0.043366134,-0.028210638,0.041114125,-0.033875898,0.0,0.0,0.0,0.0051250635,-0.00013855817,0.062183682,-0.009505717,-0.061373863,0.11852898,0.119141,0.06944706,0.07416496,0.060778145,-0.029293608,-0.105613284,0.14786494,0.006486943,0.052267022,-0.023746919,0.05229533,0.046253115,-0.0072002173,0.072137095,-0.04146908,-0.059463594,-0.06439572,0.014822322,-0.038594164,2.0,1.2763761,-1.6590655,-2.0,0.44175792,0.011325341,2.0,-0.7441013,-1.7750654,-2.0,-0.49317744,-2.0,2.0,1.1250414,-1.5589054,-2.0,0.26231116,-0.17837869,2.0,-0.47075847,-1.1893029,-2.0,-0.6603522,-2.0
2025-07-21 14:26:47.775,0.36000000000000004,360,18,-0.0563927,-0.012738998,-0.04179261,-0.05438419,0.028409293,-0.037010968,0.0,0.0,0.0,0.005305078,0.0014053654,0.08628206,-0.040318564,-0.066249505,0.11107965,0.1219355,0.078077756,0.06658391,0.049551718,-0.038750537,-0.09577149,0.13906634,0.05044015,0.01513366,-0.03911364,0.060041644,0.06938558,-0.04218167,0.04450063,-0.043777283,0.0035426023,0.06845784,-0.04292414,-0.0022597592,2.0,1.1250414,-1.5589054,-2.0,0.26231116,-0.17837869,2.0,-0.47075847,-1.1893029,-2.0,-0.6603522,-2.0,2.0,0.96760404,-1.5180337,-2.0,0.42456785,0.07955836,2.0,-0.25107113,-0.888186,-2.0,-0.6549028,-2.0
2025-07-21 14:26:47.795,0.38000000000000006,380,19,-0.056506,-0.054492004,-0.0011268262,-0.079647176,0.06941912,-0.015617583,0.0,0.0,0.0,0.0055028084,-0.0020868385,0.090989314,-0.035588805,-0.07614443,0.12937745,0.11357929,0.076166555,0.062188253,0.04448387,-0.034578316,-0.097782716,0.14628506,0.0012668944,-0.052883107,-0.079801574,-0.08104933,-0.0333768,0.003187535,-0.029044768,0.04589175,0.024141995,0.043946233,-0.035799026,0.07071401,2.0,0.96760404,-1.5180337,-2.0,0.42456785,0.07955836,2.0,-0.25107113,-0.888186,-2.0,-0.6549028,-2.0,2.0,0.7459644,-1.6941453,-2.0,0.61092097,0.2602548,2.0,-0.29409215,-1.0842714,-2.0,-0.6243717,-2.0
2025-07-21 14:26:47.820,0.4000000000000001,400,20,-0.014509283,-0.020772865,-0.066182174,-0.030026326,0.063015535,0.044714354,0.0,0.0,0.0,0.00564537,-0.0071898107,0.09434236,-0.042842586,-0.07733095,0.12683111,0.11957986,0.06301895,0.05540651,0.038575467,-0.029953621,-0.09198782,0.14503372,-0.054840244,-0.0015208424,-0.034229852,0.063516244,-0.008722945,-0.008092829,0.063320085,-0.00057990523,-0.057328377,-0.025343006,0.055417676,-0.02427508,2.0,0.7459644,-1.6941453,-2.0,0.61092097,0.2602548,2.0,-0.29409215,-1.0842714,-2.0,-0.6243717,-2.0,2.0,0.9835364,-1.3890686,-2.0,0.3557192,0.11998889,2.0,-0.17242283,-1.0675244,-2.0,-0.7169955,-2.0
2025-07-21 14:26:47.837,0.4200000000000001,420,21,-0.037528284,-0.031363256,-0.05216173,-0.08069202,0.09723,0.041538343,0.0,0.0,0.0,0.0059510814,0.006616385,0.09882436,-0.043928448,-0.086794026,0.11823275,0.121263616,0.06361172,0.07113932,0.039741542,-0.027553694,-0.0830777,0.1534042,-0.0034503103,-0.059931986,0.0680653,-0.068600774,-0.07534905,0.04520108,-0.05332475,-0.041286625,-0.010348733,0.0685348,0.07022397,0.01821982,2.0,0.9835364,-1.3890686,-2.0,0.3557192,0.11998889,2.0,-0.17242283,-1.0675244,-2.0,-0.7169955,-2.0,2.0,0.89966273,-1.3100338,-2.0,0.5633878,0.08314994,2.0,-0.29355726,-1.5663875,-2.0,-0.79112625,-2.0
2025-07-21 14:26:47.856,0.4400000000000001,440,22,-0.019353786,-0.05539915,0.03405374,-0.050709706,0.02342993,-0.034570675,0.0,0.0,0.0,0.0062728003,0.0036047632,0.08996674,-0.04127088,-0.0773162,0.13152291,0.13562667,0.07828927,0.06039566,0.02673637,-0.027992425,-0.08172552,0.160517,-0.0066058417,0.011449357,0.02071078,-0.07048394,0.058267836,0.043613818,0.009097381,-0.046923567,0.038609903,0.043833423,-0.042456146,-0.0320143,2.0,0.89966273,-1.3100338,-2.0,0.5633878,0.08314994,2.0,-0.29355726,-1.5663875,-2.0,-0.79112625,-2.0,2.0,0.7807554,-1.8320795,-2.0,0.75128907,0.19845441,2.0,-0.77177835,-1.9968045,-2.0,-0.5003957,-2.0
2025-07-21 14:26:47.876,0.46000000000000013,460,23,-0.012312124,-0.024440166,-0.043701444,-0.058645565,0.071307525,0.0027400933,0.0,0.0,0.0,0.0064224424,-0.0053455993,0.10635995,-0.03496115,-0.080275886,0.12337978,0.1536684,0.06454035,0.0713089,0.032076918,-0.040573962,-0.080157965,0.15755163,-0.030681789,0.049638562,-0.048352282,0.04159527,0.06220344,0.050827987,-0.013560439,0.03190354,-0.05508909,-0.005329304,0.010634486,-0.040818233,2.0,0.7807554,-1.8320795,-2.0,0.75128907,0.19845441,2.0,-0.77177835,-1.9968045,-2.0,-0.5003957,-2.0,2.0,1.3875755,-1.3027251,-2.0,0.24146119,-0.19696037,2.0,-0.53247863,-1.7214695,-2.0,-0.57221967,-2.0
2025-07-21 14:26:47.896,0.48000000000000015,480,24,0.023397967,-0.06555183,-0.013697412,-0.09866457,0.020928698,0.036434148,0.0,0.0,0.0,0.006861346,0.0013603567,0.09815188,-0.046872277,-0.07926234,0.1208158,0.1566502,0.07846855,0.065834,0.027343212,-0.0242642,-0.0729722,0.16315724,0.012387657,-0.072436,-0.020390704,-0.027814012,-0.05092777,-0.02782618,-0.013852524,-0.031196965,0.061076775,0.0055218497,0.011620919,0.04456475,2.0,1.3875755,-1.3027251,-2.0,0.24146119,-0.19696037,2.0,-0.53247863,-1.7214695,-2.0,-0.57221967,-2.0,2.0,1.019154,-1.6403769,-2.0,0.5477201,-0.056960467,2.0,-0.5807314,-1.6934751,-2.0,-0.5484347,-2.0
2025-07-21 14:26:47.920,0.5000000000000001,500,25,-0.051571902,-0.022015087,-0.024385741,-0.11616997,0.021392906,0.038673323,0.0,0.0,0.0,0.0074216384,-0.0016708786,0.09755203,-0.04085422,-0.09222536,0.12292648,0.15602888,0.06632091,0.07456059,0.016326718,-0.02829379,-0.07133231,0.17189062,-0.049121134,-0.006471308,-0.026881522,-0.077914596,-0.050856132,0.01934635,0.063432425,-0.074359626,-0.014673564,-0.007973246,0.057326753,0.052110747,2.0,1.019154,-1.6403769,-2.0,0.5477201,-0.056960467,2.0,-0.5807314,-1.6934751,-2.0,-0.5484347,-2.0,2.0,1.0585669,-1.6470282,-2.0,0.47398603,0.026852157,2.0,-0.58463943,-1.4984816,-2.0,-0.5214609,-2.0
2025-07-21 14:26:47.937,0.5200000000000001,520,26,0.00997508,-0.0506391,-0.07023738,-0.04603138,0.03183618,0.023201097,0.0,0.0,0.0,0.007939664,-0.016505772,0.106882274,-0.04219944,-0.09737564,0.12550558,0.16855536,0.061081104,0.058298465,0.023707313,-0.025503071,-0.07615353,0.1752805,-0.06734354,0.020816276,-0.053529873,-0.04070617,-0.020231847,0.046863493,0.035957128,0.0011552839,0.04905122,0.04263761,-0.012054745,-0.062831566,2.0,1.0585669,-1.6470282,-2.0,0.47398603,0.026852157,2.0,-0.58463943,-1.4984816,-2.0,-0.5214609,-2.0,2.0,1.0837064,-1.6166091,-2.0,0.2718956,-0.054109458,2.0,-0.32679424,-0.9031521,-2.0,-0.62383145,-2.0
2025-07-21 14:26:47.956,0.5400000000000001,540,27,-0.019411817,0.01964668,-0.024507426,-0.12086884,0.016771656,-0.01995238,0.0,0.0,0.0,0.008586714,-0.008742034,0.09433865,-0.03577266,-0.10380361,0.11048872,0.16833283,0.0746014,0.05051795,0.027153453,-0.034435872,-0.072899766,0.1660257,-0.04033535,0.00038323578,-0.021148853,0.008994145,0.0060718064,0.078423135,-0.053815834,-0.059113674,-0.06380212,-0.050704885,-0.06901807,0.017977996,2.0,1.0837064,-1.6166091,-2.0,0.2718956,-0.054109458,2.0,-0.32679424,-0.9031521,-2.0,-0.62383145,-2.0,2.0,0.839192,-1.770768,-2.0,0.5499975,0.27351803,2.0,-0.19818297,-0.724821,-2.0,-0.59138554,-2.0
2025-07-21 14:26:47.976,0.5600000000000002,560,28,-0.012921459,0.0054798773,-0.06577649,-0.11784313,0.03247147,-0.0064993757,0.0,0.0,0.0,0.009159446,-0.01844099,0.087140016,-0.048428316,-0.09899372,0.109409526,0.17200553,0.07146109,0.06532492,0.018231506,-0.030757552,-0.07461729,0.16355039,0.0099905,-0.036809463,-0.05923281,0.03561489,0.03436776,0.02633691,-0.070566505,0.059523407,0.029862925,0.052362647,-0.07602866,-0.011406301,2.0,0.839192,-1.770768,-2.0,0.5499975,0.27351803,2.0,-0.19818297,-0.724821,-2.0,-0.59138554,-2.0,2.0,0.89122766,-1.463021,-2.0,0.36810803,0.2915753,2.0,-0.029562999,-0.77581346,-2.0,-0.7326651,-2.0
2025-07-21 14:26:47.998,0.5800000000000002,580,29,0.0011991638,-0.01021098,-0.025488626,-0.061911847,0.07346197,0.023527237,0.0,0.0,0.0,0.009669961,-0.02226406,0.097767636,-0.046420492,-0.09123976,0.11913993,0.17819566,0.06352084,0.064433165,0.0328439,-0.025130546,-0.081377156,0.18296473,-0.03804581,-0.040530596,-0.02817189,0.0006695129,-0.021272412,0.010099363,0.003289226,0.06404109,0.031779487,-0.03065675,-0.023081131,0.04740644,2.0,0.89122766,-1.463021,-2.0,0.36810803,0.2915753,2.0,-0.029562999,-0.77581346,-2.0,-0.7326651,-2.0,2.0,0.7104285,-1.5195868,-2.0,0.63930625,0.29593217,2.0,-0.15593188,-1.1690975,-2.0,-0.7717605,-2.0
2025-07-21 14:26:48.020,0.6000000000000002,600,30,0.03735941,-0.046174508,-0.0366222,-0.11016045,0.0961431,-0.009751469,0.0,0.0,0.0,0.009985264,-0.01128751,0.08716534,-0.041851435,-0.100423366,0.1077445,0.18835875,0.07714318,0.062770665,0.020142663,-0.024516257,-0.09017851,0.17359394,0.03358679,0.00899812,-0.0045807967,0.040405877,-0.02509278,0.073804304,0.071725205,0.03769052,0.055576794,0.050992873,0.058987506,-0.03879353,2.0,0.7104285,-1.5195868,-2.0,0.63930625,0.29593217,2.0,-0.15593188,-1.1690975,-2.0,-0.7717605,-2.0,2.0,0.86157656,-1.5467541,-2.0,0.5857614,0.08643432,2.0,-0.3893583,-1.5812522,-2.0,-0.63703436,-2.0
2025-07-21 14:26:48.037,0.6200000000000002,620,31,0.011293476,-0.030923735,-0.03426869,-0.09646414,0.10091425,-0.039596926,0.0,0.0,0.0,0.010050655,-0.0050733397,0.08226976,-0.037181083,-0.09472696,0.110258654,0.20132737,0.079849996,0.047341928,0.030667774,-0.024456514,-0.08725839,0.16899431,0.012841847,0.02937827,-0.05164353,-0.016817803,-0.01839743,0.0032506036,-0.059561357,0.021880537,-0.052546196,0.017609809,-0.055581108,-0.071283594,2.0,0.86157656,-1.5467541,-2.0,0.5857614,0.08643432,2.0,-0.3893583,-1.5812522,-2.0,-0.63703436,-2.0,2.0,1.2111725,-1.1008699,-2.0,0.43711907,-0.14266403,2.0,-0.4481714,-1.945155,-2.0,-0.65935254,-2.0
2025-07-21 14:26:48.057,0.6400000000000002,640,32,0.01671011,-0.013366785,-0.024595695,-0.043729685,0.019331355,-0.0010031223,0.0,0.0,0.0,0.010063325,-0.01568709,0.097705565,-0.018744694,-0.09676499,0.1108464,0.19867438,0.06948322,0.053391922,0.031247722,-0.0353088,-0.07400348,0.18436974,-0.06406741,-0.014136103,0.024301203,0.038785957,0.0062008407,0.06580034,0.013765076,-0.04411951,-0.07122857,0.03750589,0.061662935,0.05010164,2.0,1.2111725,-1.1008699,-2.0,0.43711907,-0.14266403,2.0,-0.4481714,-1.945155,-2.0,-0.65935254,-2.0,2.0,1.0369288,-1.5032942,-2.0,0.5184941,0.051960226,2.0,-0.763232,-2.0,-2.0,-0.66436356,-2.0
2025-07-21 14:26:48.077,0.6600000000000003,660,33,0.009674169,0.027073652,0.02175455,-0.09448133,0.10148011,0.039171636,0.0,0.0,0.0,0.0098691685,-0.018088106,0.09639855,-0.037064835,-0.097475514,0.10377162,0.19759676,0.0766874,0.052504595,0.01595102,-0.029161818,-0.076004736,0.1787133,-0.013276666,-0.037722915,-0.07246344,0.017818853,-0.054633953,-0.021684716,0.0020629754,-0.0132454755,-0.06353683,0.013942903,0.0056426227,-0.009605951,2.0,1.0369288,-1.5032942,-2.0,0.5184941,0.051960226,2.0,-0.763232,-2.0,-2.0,-0.66436356,-2.0,2.0,1.2483524,-1.7271668,-2.0,0.5899051,-0.00017601624,2.0,-0.70841837,-1.6981946,-2.0,-0.34038967,-2.0
2025-07-21 14:26:48.103,0.6800000000000003,680,34,-0.015044439,-0.012860085,-0.03802465,-0.12415192,0.040726352,-0.03100302,0.0,0.0,0.0,0.009577,-0.017232792,0.091069825,-0.035306618,-0.10755187,0.11128814,0.18846059,0.06930453,0.05612246,0.018378187,-0.03360337,-0.07172554,0.16749641,-0.041726723,-0.036036275,-0.06750422,0.061448064,0.02794109,0.036538027,-0.02512038,-0.07134776,-0.07060316,-0.035418037,-0.017180879,-0.055297345,2.0,1.2483524,-1.7271668,-2.0,0.5899051,-0.00017601624,2.0,-0.70841837,-1.6981946,-2.0,-0.34038967,-2.0,2.0,1.105312,-1.903661,-2.0,0.27681908,0.08483879,2.0,-0.49445686,-0.86933744,-2.0,-0.45177293,-2.0
2025-07-21 14:26:48.121,0.7000000000000003,700,35,0.03873031,-0.01589229,0.015170392,-0.03988926,0.014436685,-0.03913953,0.0,0.0,0.0,0.009510754,-0.01425067,0.10168057,-0.042738717,-0.09106305,0.107400835,0.20275074,0.07830077,0.046821058,0.017299186,-0.029557198,-0.08679045,0.15802422,-0.049297493,-0.053177398,-0.06184937,-0.048071522,-0.033178363,-0.0395713,-0.07164366,-0.025100889,0.025475856,0.05248984,-0.025525397,0.04377698,2.0,1.105312,-1.903661,-2.0,0.27681908,0.08483879,2.0,-0.49445686,-0.86933744,-2.0,-0.45177293,-2.0,2.0,0.6292957,-2.0,-2.0,0.54796034,0.38251188,2.0,-0.16789396,0.4519981,-2.0,-0.31715855,-2.0
2025-07-21 14:26:48.138,0.7200000000000003,720,36,0.078929886,-0.0022554523,-0.03469696,-0.09092953,0.09290528,0.024297193,0.0,0.0,0.0,0.009593646,-0.008541416,0.100606814,-0.029898517,-0.105047055,0.11103491,0.1827871,0.07298211,0.028811699,0.030765742,-0.024860466,-0.07028656,0.15839767,0.009878657,0.027052475,0.054576963,-0.031114174,0.0448501,0.047265768,0.009548204,0.009519086,-0.02614075,-0.0586309,-0.021667257,-0.018917395,2.0,0.6292957,-2.0,-2.0,0.54796034,0.38251188,2.0,-0.16789396,0.4519981,-2.0,-0.31715855,-2.0,2.0,0.27506104,-2.0,-2.0,0.2520412,1.1974719,2.0,0.41894427,1.5026501,-2.0,-0.5827567,-2.0
2025-07-21 14:26:48.157,0.7400000000000003,740,37,0.06309754,0.038149796,-0.061687622,-0.10640694,0.027095713,0.032250386,0.0,0.0,0.0,0.009866781,-0.0245228,0.089918055,-0.023885287,-0.11093126,0.11249713,0.19301374,0.08138457,0.030512689,0.054896522,-0.023377825,-0.08275796,0.1542583,-0.036162928,0.015319338,-0.002579876,0.0106293075,-0.009833741,-0.030486079,0.06593532,0.00088937563,0.044888183,-0.008510866,0.03832771,-0.0026461936,2.0,0.27506104,-2.0,-2.0,0.2520412,1.1974719,2.0,0.41894427,1.5026501,-2.0,-0.5827567,-2.0,2.0,0.05980587,-1.9231265,-2.0,0.5000991,1.6258953,2.0,0.8061323,1.9114677,-2.0,-0.79322594,-2.0
2025-07-21 14:26:48.177,0.7600000000000003,760,38,0.042710558,-0.016158823,-0.008086066,-0.07100573,0.10065475,0.013247919,0.0,0.0,0.0,0.010177723,-0.012060418,0.07270268,-0.021910062,-0.110718794,0.114928946,0.1961804,0.09481784,0.048879147,0.0895987,-0.02866611,-0.08552132,0.17124057,-0.026086794,0.022085082,0.1066681,-0.034238018,0.047908608,-0.025659692,0.005320374,0.076861836,0.1479877,0.059559062,-0.024107607,-0.040988512,2.0,0.05980587,-1.9231265,-2.0,0.5000991,1.6258953,2.0,0.8061323,1.9114677,-2.0,-0.79322594,-2.0,2.0,-0.20845619,-2.0,-2.0,0.7151147,1.9400102,2.0,0.7479067,1.6781281,-2.0,-0.68737274,-2.0
2025-07-21 14:26:48.203,0.7800000000000004,780,39,0.044174775,0.00084615685,-0.0822846,-0.10757944,-0.0009860587,0.0040271217,0.0,0.0,0.0,0.010450115,-0.028274598,0.06858892,0.0039327443,-0.112699494,0.1143487,0.21999146,0.11536647,0.09113509,0.13058808,-0.036800854,-0.08095683,0.17120014,-0.08245965,0.03916442,0.07883669,0.04663989,0.06567748,0.032762475,0.043674026,0.051260497,0.08907668,-0.029391833,0.038893107,0.088159665,2.0,-0.20845619,-2.0,-2.0,0.7151147,1.9400102,2.0,0.7479067,1.6781281,-2.0,-0.68737274,-2.0,2.0,0.14182648,-1.5975765,-2.0,0.5445638,1.7509856,2.0,0.6549041,0.75848186,-2.0,-0.92814755,-2.0
2025-07-21 14:26:48.220,0.8000000000000004,800,40,0.08460208,0.088742495,-0.031088788,-0.037961956,0.0267113,-0.027246686,0.0,0.0,0.0,0.01108256,-0.02933836,0.05393108,0.025218938,-0.11096836,0.10432439,0.22767122,0.115971066,0.12861128,0.13042723,-0.04216215,-0.09632352,0.1914902,-0.06705784,0.029239064,0.02711565,0.0263931,-0.07476307,0.011005678,0.0030446474,0.13625991,-0.08244095,-0.0050877435,-0.007763586,0.059702277,2.0,0.14182648,-1.5975765,-2.0,0.5445638,1.7509856,2.0,0.6549041,0.75848186,-2.0,-0.92814755,-2.0,2.0,0.3148422,-1.269676,-2.0,0.8864741,1.2125707,2.0,0.41674513,-0.69320726,-2.0,-0.99124277,-2.0
2025-07-21 14:26:48.237,0.8200000000000004,820,41,0.043862116,0.0025691844,-0.019467287,-0.08300592,0.091283955,-0.048101693,0.0,0.0,0.0,0.012080655,-0.03389402,0.0406499,0.036346726,-0.12888245,0.099582195,0.25414306,0.123461686,0.1330331,0.10005872,-0.029160416,-0.091316886,0.20374985,-0.04666264,0.019519575,0.07976722,-0.032652345,0.038146008,-0.0263529,0.07823296,-0.03835851,-0.06313642,0.076408975,0.00024032807,-0.020381935,2.0,0.3148422,-1.269676,-2.0,0.8864741,1.2125707,2.0,0.41674513,-0.69320726,-2.0,-0.99124277,-2.0,2.0,0.4600471,-1.3427207,-2.0,0.95034295,0.310963,2.0,-0.44751126,-2.0,-2.0,-0.8910496,-2.0
2025-07-21 14:26:48.257,0.8400000000000004,840,42,-0.01288688,0.023778932,-0.040591855,-0.03066644,0.016151825,0.038935784,0.0,0.0,0.0,0.013200091,-0.046443418,0.020332385,0.04730252,-0.12581904,0.0935472,0.25221282,0.12186293,0.122967914,0.11440335,-0.03893588,-0.09665721,0.21821138,-0.016645044,-0.032781053,0.010418298,-0.0040212073,-0.037831504,0.03613961,0.02203578,-0.049141094,0.019704068,0.032831643,0.01969849,-0.009824576,2.0,0.4600471,-1.3427207,-2.0,0.95034295,0.310963,2.0,-0.44751126,-2.0,-2.0,-0.8910496,-2.0,2.0,1.3008082,-0.7267406,-2.0,0.669838,-0.14141518,2.0,-0.85220146,-2.0,-2.0,-0.75965494,-2.0
2025-07-21 14:26:48.277,0.8600000000000004,860,43,0.05552581,0.04624057,0.005709013,-0.04461238,0.07850246,-0.042683724,0.0,0.0,0.0,0.013984249,-0.043335862,0.025594477,0.060866434,-0.12970753,0.09939521,0.26141268,0.13626431,0.12958159,0.11861959,-0.027803017,-0.10013125,0.20761257,-0.0065761227,0.009238152,0.04852672,0.04875046,0.007586589,0.0038249593,0.055126715,0.015380644,-0.0024708353,-0.022036813,-0.006960362,-0.07913611,2.0,1.3008082,-0.7267406,-2.0,0.669838,-0.14141518,2.0,-0.85220146,-2.0,-2.0,-0.75965494,-2.0,2.0,1.1539596,-1.3316016,-2.0,0.6355792,0.09578614,2.0,-0.9747671,-2.0,-2.0,-0.65301853,-2.0
2025-07-21 14:26:48.303,0.8800000000000004,880,44,-0.058327984,0.0659873,-0.018283049,-0.09880004,0.016618218,-0.017782109,0.0,0.0,0.0,0.014298362,-0.02431298,0.02153522,0.058017336,-0.114660606,0.100999594,0.23948163,0.12935609,0.12332853,0.13074297,-0.028232291,-0.10565729,0.20747173,-0.014241953,0.014514961,0.008311065,0.013601607,0.034515224,-0.03949525,0.047417805,-0.07691933,0.063678585,0.0681424,0.061648767,-0.030956818,2.0,1.1539596,-1.3316016,-2.0,0.6355792,0.09578614,2.0,-0.9747671,-2.0,-2.0,-0.65301853,-2.0,2.0,1.21618,-1.5646124,-2.0,0.56961656,0.037699785,2.0,-0.8646922,-2.0,-2.0,-0.56840664,-2.0
2025-07-21 14:26:48.320,0.9000000000000005,900,45,-0.05949243,0.055774316,0.020319454,-0.017128969,0.063542396,0.017991427,0.0,0.0,0.0,0.014313235,-0.026810246,0.024759127,0.041111916,-0.10708153,0.106114164,0.23491174,0.124663934,0.12167744,0.12112352,-0.016704338,-0.10008044,0.20469677,0.0011844333,-0.012082587,-0.04317251,0.018964613,-0.01493112,-0.058499634,-0.06909432,0.04789884,0.013051844,-0.009149631,0.017021766,0.03104379,2.0,1.21618,-1.5646124,-2.0,0.56961656,0.037699785,2.0,-0.8646922,-2.0,-2.0,-0.56840664,-2.0,2.0,1.1642438,-1.4724913,-2.0,0.5753133,-0.042187784,2.0,-0.7988746,-2.0,-2.0,-0.5413607,-2.0
2025-07-21 14:26:48.337,0.9200000000000005,920,46,-0.041248206,0.0743923,-0.009654202,-0.05133168,0.093382485,-0.009545574,0.0,0.0,0.0,0.01424622,-0.020893637,0.047381766,0.031349957,-0.10731079,0.10674444,0.20850578,0.123323336,0.113212004,0.115550995,-0.020732306,-0.095946856,0.18122856,-0.030212965,0.08008412,-0.015510309,0.08019876,0.008867544,-0.08041163,0.007858752,0.028354956,-0.049267758,0.060806192,-0.03599941,-0.070583284,2.0,1.1642438,-1.4724913,-2.0,0.5753133,-0.042187784,2.0,-0.7988746,-2.0,-2.0,-0.5413607,-2.0,2.0,1.3175597,-1.181581,-2.0,0.41186225,-0.12940256,2.0,-0.6203269,-2.0,-2.0,-0.5701375,-2.0
2025-07-21 14:26:48.358,0.9400000000000005,940,47,-0.056360263,0.019641142,0.015890151,-0.01568074,0.07238448,0.03225222,0.0,0.0,0.0,0.014085274,-0.033805273,0.05548045,0.01888215,-0.112246126,0.11746442,0.18744235,0.12639123,0.11259422,0.10109005,-0.026169343,-0.09436349,0.16850822,0.009687937,0.06943388,-0.07396964,-0.011032505,0.028160637,0.009374778,-0.014515069,-0.03027867,-0.107894056,-0.007942144,0.06093056,-0.06518739,2.0,1.3175597,-1.181581,-2.0,0.41186225,-0.12940256,2.0,-0.6203269,-2.0,-2.0,-0.5701375,-2.0,2.0,1.0331845,-1.467666,-2.0,0.56631774,0.099630564,2.0,-0.8775249,-2.0,-2.0,-0.52987725,-2.0
2025-07-21 14:26:48.378,0.9600000000000005,960,48,-0.00061813276,0.070050076,0.07407718,-0.061179463,0.06690538,0.048099726,0.0,0.0,0.0,0.013648873,-0.022034861,0.058862202,-0.0005112002,-0.10777567,0.11897467,0.17539605,0.115550265,0.10989915,0.08144157,-0.02310514,-0.09157771,0.15432891,0.0022691954,0.06455718,0.028978486,0.051350746,-0.0018893261,0.011546089,0.027084347,0.031130701,0.004869715,-0.07081595,-0.0002296307,0.015094709,2.0,1.0331845,-1.467666,-2.0,0.56631774,0.099630564,2.0,-0.8775249,-2.0,-2.0,-0.52987725,-2.0,2.0,1.0959264,-1.9657717,-2.0,0.69596297,0.13848609,2.0,-0.8440061,-1.8662964,-2.0,-0.2775396,-2.0
2025-07-21 14:26:48.403,0.9800000000000005,980,49,-0.002354085,0.0052173077,0.0006273976,-0.041292783,0.0068617854,0.042912748,0.0,0.0,0.0,0.01306609,-0.014001453,0.05413369,-0.018716294,-0.10755991,0.123886995,0.16518454,0.11722979,0.09341477,0.08050498,-0.029204572,-0.08256883,0.14638628,0.0037990562,0.03279552,0.0034027095,0.019314496,-0.01589582,-0.026738355,-0.0060022557,-0.073726356,-0.00762469,-0.015046059,0.0003444829,-0.07766684,2.0,1.0959264,-1.9657717,-2.0,0.69596297,0.13848609,2.0,-0.8440061,-1.8662964,-2.0,-0.2775396,-2.0,2.0,1.0702969,-1.9555479,-2.0,0.4303355,0.06400785,2.0,-0.6183121,-1.0192059,-2.0,-0.32278684,-2.0
2025-07-21 14:26:48.420,1.0000000000000004,1000,50,0.03592371,0.0077822437,0.0411785,-0.020365484,0.062778525,0.007440434,0.0,0.0,0.0,0.012695059,-0.010247937,0.062207714,-0.038443767,-0.10193512,0.13885207,0.15017258,0.110603206,0.05996417,0.054864854,-0.028416226,-0.07816053,0.13123704,0.021271527,-0.031931996,-0.07029071,-0.062188912,0.02026475,-0.07915751,0.052760318,-0.019064097,0.007351046,-0.030129911,-0.03775495,-0.039408114,2.0,1.0702969,-1.9555479,-2.0,0.4303355,0.06400785,2.0,-0.6183121,-1.0192059,-2.0,-0.32278684,-2.0,2.0,0.6022698,-2.0,-2.0,0.5776543,0.41052407,2.0,-0.27235648,0.54105407,-2.0,-0.10268815,-2.0
2025-07-21 14:26:48.438,1.0200000000000005,1020,51,0.0046908045,-0.03813605,0.021495724,-0.030595656,0.05172502,-0.0486396,0.0,0.0,0.0,0.012481229,-0.012255884,0.07396055,-0.05601553,-0.08960094,0.12648101,0.13509318,0.12198669,0.03775839,0.06323632,-0.020861246,-0.059053175,0.123860836,-0.03406005,0.026015833,0.059485417,0.03745162,0.00010814008,0.031095294,0.02544887,-0.057277407,-0.025338935,0.06551213,0.081092544,-0.0029706669,2.0,0.6022698,-2.0,-2.0,0.5776543,0.41052407,2.0,-0.27235648,0.54105407,-2.0,-0.10268815,-2.0,2.0,-0.042532027,-2.0,-2.0,0.30481464,1.4701465,2.0,0.36408982,2.0,-2.0,-0.09541323,-2.0
2025-07-21 14:26:48.458,1.0400000000000005,1040,52,0.04298303,-0.035836052,-0.029405791,-0.09783623,0.03853947,0.037875235,0.0,0.0,0.0,0.012441374,-0.019396463,0.076282635,-0.042176582,-0.09431131,0.1197026,0.13734369,0.10920166,0.024499895,0.07933605,-0.015824163,-0.05353984,0.10818613,-0.050598692,-0.012628786,-0.006314716,-0.05275532,0.016334388,0.059229743,0.039113242,-0.029343704,0.15934092,0.013323006,0.07757362,0.012217526,2.0,-0.042532027,-2.0,-2.0,0.30481464,1.4701465,2.0,0.36408982,2.0,-2.0,-0.09541323,-2.0,2.0,-0.09351307,-2.0,-2.0,0.39830437,2.0,1.633561,0.913213,2.0,-2.0,-0.42495668,-2.0
2025-07-21 14:26:48.478,1.0600000000000005,1060,53,0.0827419,-0.088479824,-0.06369504,-0.061964467,0.009161244,0.018892087,0.0,0.0,0.0,0.012645679,-0.036977533,0.06802073,-0.023363568,-0.106949724,0.122937605,0.16636804,0.11053206,0.057942245,0.13090661,-0.019317761,-0.052162956,0.119291306,0.044754732,0.0073429914,-0.013816009,-0.071759015,-0.045518946,0.007634506,-0.001791235,0.0713007,0.026123554,-0.0038594098,0.048268467,-0.04580666,2.0,-0.09351307,-2.0,-2.0,0.39830437,2.0,1.633561,0.913213,2.0,-2.0,-0.42495668,-2.0,2.0,-0.0027075093,-1.6401405,-2.0,0.6213893,1.8087848,1.3643808,0.91913897,1.795455,-2.0,-0.70902604,-2.0
2025-07-21 14:26:48.504,1.0800000000000005,1080,54,0.01756163,-0.054996446,-0.057169467,-0.03966086,0.024149256,-0.028009716,0.0,0.0,0.0,0.012990881,-0.025302662,0.05414297,0.0050606905,-0.11298006,0.11720769,0.19179659,0.11375608,0.09128351,0.15141112,-0.023287166,-0.049899597,0.12183684,-0.006551563,-0.048228275,0.01444941,0.046464734,0.009283698,-0.027394082,-0.0705543,0.044876162,0.06733273,-0.069096304,-0.005885313,-0.03054803,2.0,-0.0027075093,-1.6401405,-2.0,0.6213893,1.8087848,1.3643808,0.91913897,1.795455,-2.0,-0.70902604,-2.0,2.0,0.0014018882,-1.2715011,-2.0,0.73428255,1.6792159,1.6706295,0.7899976,0.4309955,-2.0,-0.74391466,-2.0
2025-07-21 14:26:48.520,1.1000000000000005,1100,55,0.087919824,0.008162645,-0.021997541,-0.0999089,-0.009804626,-0.0051757493,0.0,0.0,0.0,0.013425812,-0.028834945,0.03752788,0.018899657,-0.11424525,0.107931055,0.20222388,0.10471651,0.13252541,0.14563647,-0.025886504,-0.05028607,0.13002948,-0.057502847,-0.08578702,0.12066951,0.04173805,-0.0022251022,0.06326429,-0.04552187,0.06203367,-0.124588005,0.0708384,0.049666494,-0.020049617,2.0,0.0014018882,-1.2715011,-2.0,0.73428255,1.6792159,1.6706295,0.7899976,0.4309955,-2.0,-0.74391466,-2.0,2.0,0.21416134,-1.6200806,-2.0,1.0457242,1.1528339,2.0,0.2371131,-1.2924207,-2.0,-0.68061405,-2.0
2025-07-21 14:26:48.538,1.1200000000000006,1120,56,0.05572616,-0.022613736,-0.08078302,-0.07308223,0.016184915,-0.023260262,0.0,0.0,0.0,0.014082719,-0.033749033,0.014955139,0.043706782,-0.12564135,0.10093244,0.23439537,0.11056547,0.1451781,0.08281112,-0.011276463,-0.06801277,0.16569489,0.045811962,-0.03422647,0.058476068,0.047899652,-0.056356493,-0.014219702,0.042979885,0.0433424,-0.20195535,-0.036353834,-0.005813073,0.10118565,2.0,0.21416134,-1.6200806,-2.0,1.0457242,1.1528339,2.0,0.2371131,-1.2924207,-2.0,-0.68061405,-2.0,2.0,1.0222955,-0.58309525,-2.0,0.5934249,-0.21157017,2.0,-0.3937105,-2.0,-2.0,-1.0238457,-2.0
2025-07-21 14:26:48.558,1.1400000000000006,1140,57,-0.02878485,-0.011339453,-0.021341238,-0.10080992,0.04485046,-0.0018670099,0.0,0.0,0.0,0.015227122,-0.03209377,0.0035345391,0.059420362,-0.11334765,0.0926796,0.24265476,0.11433678,0.1327232,0.06791566,-0.009737561,-0.07597809,0.17556927,-0.008144707,0.037988387,-0.020966956,0.0716978,-0.031041497,-0.05295253,-0.03648118,-0.074493594,-0.0015496428,0.037663348,0.047876813,0.028683487,2.0,1.0222955,-0.58309525,-2.0,0.5934249,-0.21157017,2.0,-0.3937105,-2.0,-2.0,-1.0238457,-2.0,2.0,1.2165741,-0.622059,-2.0,0.6931632,-0.059116792,2.0,-0.90540206,-2.0,-2.0,-0.8212875,-2.0
2025-07-21 14:26:48.578,1.1600000000000006,1160,58,-0.04678698,0.0029318575,0.064972274,-0.035667848,0.042739317,0.012969725,0.0,0.0,0.0,0.015952116,-0.043200552,0.0060304007,0.078593135,-0.117456466,0.09897608,0.24327292,0.11295478,0.12252941,0.09734556,-0.015468623,-0.086280964,0.18853135,-0.05156843,0.03326012,-0.008161387,0.009188366,-0.01601229,0.04150555,-0.0061803777,0.010967818,0.0050526564,-0.008802752,0.022539608,0.07925516,2.0,1.2165741,-0.622059,-2.0,0.6931632,-0.059116792,2.0,-0.90540206,-2.0,-2.0,-0.8212875,-2.0,2.0,0.98944974,-1.6336923,-2.0,0.7894316,0.3029176,2.0,-1.1770662,-2.0,-2.0,-0.5441233,-2.0
2025-07-21 14:26:48.604,1.1800000000000006,1180,59,-0.08678337,0.049048536,-0.0022635972,-0.094948746,0.02865911,-0.033190593,0.0,0.0,0.0,0.015809735,-0.0247783,0.008191428,0.06751625,-0.117406875,0.087976076,0.2474697,0.11645121,0.10800109,0.112161085,-0.016857661,-0.080417946,0.18737693,0.02719194,0.0032851317,0.049388558,0.053892672,-0.05893564,0.04592704,0.020352388,-0.050924696,-0.009084612,0.009823111,-0.012416361,0.05049608,2.0,0.98944974,-1.6336923,-2.0,0.7894316,0.3029176,2.0,-1.1770662,-2.0,-2.0,-0.5441233,-2.0,2.0,1.298832,-1.7949567,-2.0,0.5375548,0.02122688,2.0,-0.8006617,-1.8441654,-2.0,-0.43092597,-2.0
2025-07-21 14:26:48.620,1.2000000000000006,1200,60,-0.064371444,-0.014359248,0.04220598,-0.111541525,0.054484963,0.0052973996,0.0,0.0,0.0,0.015669418,-0.020863183,0.007863843,0.054442618,-0.11182643,0.10518744,0.22955489,0.10751028,0.10817192,0.115734935,-0.0049539497,-0.08830101,0.17518985,-0.041665565,0.06968237,-0.03231088,0.019257592,0.040680945,-0.06579934,-0.024394995,0.03687612,0.0035255554,0.08274945,0.060808115,-0.07854357,2.0,1.298832,-1.7949567,-2.0,0.5375548,0.02122688,2.0,-0.8006617,-1.8441654,-2.0,-0.43092597,-2.0,2.0,0.90748364,-2.0,-2.0,0.5522829,0.16705978,2.0,-0.7744941,-1.1139117,-2.0,-0.32609743,-2.0
2025-07-21 14:26:48.638,1.2200000000000006,1220,61,-0.052626163,0.054029785,0.022459809,-0.07407223,0.04563042,0.028918957,0.0,0.0,0.0,0.015707232,-0.019406542,0.017248156,0.045528818,-0.11088912,0.10471147,0.2168072,0.122355,0.07706341,0.105092645,-0.0102003785,-0.08852179,0.16852154,-0.018671796,-0.015391593,-0.0024110712,-0.042998902,-0.058489237,-0.059589542,-0.06944838,-0.10656222,-0.079212874,-0.019737585,0.08115964,-0.074289,2.0,0.90748364,-2.0,-2.0,0.5522829,0.16705978,2.0,-0.7744941,-1.1139117,-2.0,-0.32609743,-2.0,2.0,0.84873396,-2.0,-2.0,0.5540339,0.51713765,2.0,-0.43968955,0.06186358,-2.0,-0.16931194,-2.0
2025-07-21 14:26:48.658,1.2400000000000007,1240,62,-0.012064886,0.0007853941,-0.06567907,-0.023812667,-0.003984498,0.0022169838,0.0,0.0,0.0,0.015916226,-0.026634295,0.035841096,0.021496173,-0.09652712,0.11357656,0.20565543,0.121929236,0.071490794,0.09456718,-0.0012693858,-0.08077488,0.15453793,-0.06972072,0.034383953,-0.019894,0.03135232,0.091771446,-0.027150204,-0.03298969,-0.020839345,0.06386347,0.07312734,0.08433173,0.047738414,2.0,0.84873396,-2.0,-2.0,0.5540339,0.51713765,2.0,-0.43968955,0.06186358,-2.0,-0.16931194,-2.0,2.0,0.3438098,-2.0,-2.0,0.15216012,1.0802494,2.0,0.1559525,1.4810148,-2.0,-0.61263853,-2.0
2025-07-21 14:26:48.679,1.2600000000000007,1260,63,0.030204505,0.018397339,-0.03306704,-0.005212719,-0.0074272007,-0.028476682,0.0,0.0,0.0,0.01638303,-0.036953624,0.021199258,-0.0011753843,-0.10912776,0.104180194,0.19,0.12359959,0.048945647,0.110236,-0.015554451,-0.079392575,0.15669839,-0.03352646,-0.021316895,-0.014237798,-0.07113752,0.024515228,0.04006912,-0.06755565,-0.06951556,0.04654917,0.06416495,0.038244218,0.064785816,2.0,0.3438098,-2.0,-2.0,0.15216012,1.0802494,2.0,0.1559525,1.4810148,-2.0,-0.61263853,-2.0,2.0,-0.07344496,-2.0,-2.0,0.6838718,1.6698678,2.0,0.6583177,2.0,-2.0,-0.5378805,-2.0
2025-07-21 14:26:48.704,1.2800000000000007,1280,64,0.023279347,-0.000585854,-0.03363335,-0.07500359,0.08057294,-0.021742493,0.0,0.0,0.0,0.01677398,-0.03546897,0.033310704,0.007337647,-0.10104299,0.11207971,0.18844324,0.12124936,0.059748124,0.13897802,-0.0032769765,-0.079556584,0.14440441,-0.035148602,0.0009840929,-0.050201457,-0.0029172958,-0.06313065,-0.0406425,0.0037891124,0.07863532,0.14139044,0.022059275,0.0733886,0.055715002,2.0,-0.07344496,-2.0,-2.0,0.6838718,1.6698678,2.0,0.6583177,2.0,-2.0,-0.5378805,-2.0,2.0,-0.084811956,-1.9076923,-2.0,0.56411487,1.9067867,2.0,0.75945413,1.7238249,-2.0,-0.6342257,-2.0
2025-07-21 14:26:48.720,1.3000000000000007,1300,65,-0.027950639,0.037185393,-0.035196632,-0.009033671,0.04289868,0.010147647,0.0,0.0,0.0,0.017134847,-0.032670103,0.024604568,0.018481899,-0.10399731,0.118037656,0.20629977,0.12579414,0.08366074,0.15178199,0.003080399,-0.06860352,0.14702393,-0.04359494,-0.019142605,-0.0035292858,-0.049019873,-0.03788853,0.027022544,0.0013112373,0.11530452,0.022849692,0.069030836,0.062343743,-0.039913237,2.0,-0.084811956,-1.9076923,-2.0,0.56411487,1.9067867,2.0,0.75945413,1.7238249,-2.0,-0.6342257,-2.0,2.0,-0.08568701,-1.9636242,-2.0,0.7075969,1.8533754,2.0,0.712497,1.4626698,-2.0,-0.6488785,-2.0
2025-07-21 14:26:48.739,1.3200000000000007,1320,66,-0.0020077254,-0.007830978,-0.011926697,-0.050655615,0.032259952,0.035467613,0.0,0.0,0.0,0.017681208,-0.03150137,0.027134804,0.01625739,-0.11496467,0.1349135,0.21980105,0.120022625,0.12041393,0.17429568,-0.009110228,-0.08500432,0.16446935,-0.0027149925,-0.023315892,0.00060670025,-0.028675746,-0.008396759,0.010762145,0.071635745,0.0050759963,-0.042443886,-0.035247363,-0.06490813,0.03607122,2.0,-0.08568701,-1.9636242,-2.0,0.7075969,1.8533754,2.0,0.712497,1.4626698,-2.0,-0.6488785,-2.0,2.0,-0.038795084,-1.8900545,-2.0,0.7982183,1.4870452,2.0,0.58629435,0.6651372,-2.0,-0.5852981,-2.0
2025-07-21 14:26:48.759,1.3400000000000007,1340,67,0.05301261,0.038760487,-0.08827228,-0.024369761,0.0090742335,0.03404485,0.0,0.0,0.0,0.018521182,-0.038271323,0.010533209,0.04581203,-0.1280666,0.1344878,0.2235214,0.12584028,0.12883556,0.16763121,-0.0036587364,-0.08679824,0.16610485,-0.08106179,0.017385717,0.0058051366,-0.033560824,-0.03720607,-0.02096745,-0.018894497,0.04925778,-0.12599199,0.07454984,-0.047626987,-0.01871072,2.0,-0.038795084,-1.8900545,-2.0,0.7982183,1.4870452,2.0,0.58629435,0.6651372,-2.0,-0.5852981,-2.0,2.0,0.3980511,-0.9724544,-2.0,0.6170443,0.98832655,2.0,0.4009531,-0.5928147,-2.0,-0.99541825,-2.0
2025-07-21 14:26:48.779,1.3600000000000008,1360,68,0.026135823,-0.041950945,0.0007106134,-0.03898528,-0.006658646,0.043450195,0.0,0.0,0.0,0.019804563,-0.050434172,-0.009699855,0.049602948,-0.11795932,0.13042572,0.2412861,0.12756336,0.14417922,0.122229606,-0.0029966154,-0.0933536,0.19574492,-0.0746856,-0.08404938,-0.008851368,-0.03689975,0.017952967,-0.016801119,-0.034469493,-0.030677147,-0.0914755,-0.014854382,-0.083453685,0.049728423,2.0,0.3980511,-0.9724544,-2.0,0.6170443,0.98832655,2.0,0.4009531,-0.5928147,-2.0,-0.99541825,-2.0,2.0,0.49711144,-1.0224519,-2.0,1.0924152,0.25499114,2.0,-0.5133729,-2.0,-2.0,-0.8755186,-2.0
2025-07-21 14:26:48.804,1.3800000000000008,1380,69,0.050201304,-0.051694516,0.03337915,-0.09258321,0.046763983,0.048604622,0.0,0.0,0.0,0.020959303,-0.05454147,-0.01900751,0.060261313,-0.11958202,0.1321898,0.24579309,0.12140674,0.1372948,0.11829598,-0.0021156948,-0.0819223,0.19443126,0.07534906,0.007938488,0.071652986,0.07044248,0.007421671,-0.04612369,-0.040000483,-0.004688901,0.030469222,-0.026299242,0.03659888,0.058819283,2.0,0.49711144,-1.0224519,-2.0,1.0924152,0.25499114,2.0,-0.5133729,-2.0,-2.0,-0.8755186,-2.0,2.0,1.1777747,-0.87508976,-2.0,0.7918218,0.077662885,2.0,-1.1059079,-2.0,-2.0,-0.59682816,-2.0
2025-07-21 14:26:48.820,1.4000000000000008,1400,70,0.012194364,-0.0505727,-0.040460516,-0.050288506,0.017090566,-0.019771293,0.0,0.0,0.0,0.021406388,-0.049809314,-0.022965008,0.059982363,-0.11539803,0.12822592,0.2478753,0.1338587,0.12545629,0.14037423,0.0007628096,-0.09060907,0.19870423,0.04752697,0.08006584,-0.0045994045,-0.018736258,0.06287271,-0.06680336,0.07318581,-0.020722572,0.08920525,-0.014405934,0.04708737,0.030627357,2.0,1.1777747,-0.87508976,-2.0,0.7918218,0.077662885,2.0,-1.1059079,-2.0,-2.0,-0.59682816,-2.0,2.0,1.2140304,-1.320602,-2.0,0.4691387,0.06839141,2.0,-0.9905254,-2.0,-2.0,-0.71356016,-2.0
2025-07-21 14:26:48.839,1.4200000000000008,1420,71,-0.08943532,0.03179882,0.028132722,-0.028071651,0.04488948,0.048889227,0.0,0.0,0.0,0.02152579,-0.03589532,-0.018061364,0.068849474,-0.12528533,0.13424861,0.23342411,0.13377108,0.11766554,0.13797233,0.011152653,-0.08002762,0.20056053,-0.023652479,0.054646697,0.041361,0.035596278,0.07070157,0.00011434381,0.01043715,0.02444823,-0.071687736,0.012767215,0.07095493,-0.035310157,2.0,1.2140304,-1.320602,-2.0,0.4691387,0.06839141,2.0,-0.9905254,-2.0,-2.0,-0.71356016,-2.0,2.0,1.0359175,-1.8718412,-2.0,0.70443696,0.15876308,2.0,-0.9451778,-2.0,-2.0,-0.4331152,-2.0
2025-07-21 14:26:48.859,1.4400000000000008,1440,72,-0.060738504,0.028043963,-0.023897089,-0.07428672,0.035603616,-0.02884885,0.0,0.0,0.0,0.021328308,-0.04220151,-0.005447139,0.048714023,-0.11848575,0.1259244,0.22149338,0.13574575,0.10942408,0.13920295,0.0029595534,-0.08224689,0.19015248,-0.04326849,0.07213819,-0.024516715,-0.000120801546,-0.012339885,0.012080749,-0.07268613,-0.07701069,-0.0010184083,-0.05156183,0.011374453,0.027872313,2.0,1.0359175,-1.8718412,-2.0,0.70443696,0.15876308,2.0,-0.9451778,-2.0,-2.0,-0.4331152,-2.0,2.0,1.2445387,-1.4239755,-2.0,0.4849682,-0.1202075,2.0,-0.7519897,-2.0,-2.0,-0.50330675,-2.0
2025-07-21 14:26:48.879,1.4600000000000009,1460,73,-0.005969942,-0.018407077,0.032956403,-0.08463896,0.08262026,-0.04894558,0.0,0.0,0.0,0.021088999,-0.043528046,0.016059073,0.013363138,-0.11685099,0.13331936,0.20814475,0.13444357,0.11001916,0.13581406,0.009380371,-0.07608845,0.170512,0.03600543,0.04952475,-0.07006246,0.06990589,0.04327986,0.009333213,0.008028228,0.033060327,-0.02272682,-0.050485753,0.041950252,0.014335071,2.0,1.2445387,-1.4239755,-2.0,0.4849682,-0.1202075,2.0,-0.7519897,-2.0,-2.0,-0.50330675,-2.0,2.0,1.0174441,-1.6802678,-2.0,0.6586722,0.06796345,2.0,-0.8871871,-2.0,-1.8889712,-0.36426663,-2.0
2025-07-21 14:26:48.904,1.4800000000000009,1480,74,-0.070590116,0.012806988,0.039943315,-0.0627949,0.051208116,-0.042820126,0.0,0.0,0.0,0.020784581,-0.026575519,0.021392075,0.009562789,-0.113636196,0.13781214,0.17585602,0.12413975,0.1107814,0.11045633,0.00040302522,-0.080512665,0.1574169,0.052506126,0.0857672,-0.13039865,-0.007423931,0.019555759,0.0042000115,-0.036853906,-0.030638963,0.029928304,0.039878543,0.064854495,-0.09339695,2.0,1.0174441,-1.6802678,-2.0,0.6586722,0.06796345,2.0,-0.8871871,-2.0,-1.8889712,-0.36426663,-2.0,2.0,1.0965817,-1.9355462,-2.0,0.5591672,0.28030175,2.0,-0.8831649,-1.5559409,-1.8326085,-0.18072881,-2.0
2025-07-21 14:26:48.920,1.5000000000000009,1500,75,-0.01771649,-0.05490133,-0.023491958,-0.03500545,0.030839901,-0.019315159,0.0,0.0,0.0,0.020417282,-0.025721168,0.023069983,-0.012973587,-0.1116228,0.14183378,0.17499647,0.122742735,0.09280346,0.09889866,0.0039160564,-0.083193906,0.15755436,0.004080733,-0.0067440877,-0.04321584,0.03913843,-0.0030087968,-0.020472385,-0.0391308,-0.074761726,-0.044892516,-0.06570373,-0.03280086,-0.07770733,2.0,1.0965817,-1.9355462,-2.0,0.5591672,0.28030175,2.0,-0.8831649,-1.5559409,-1.8326085,-0.18072881,-2.0,2.0,1.0680345,-1.9414027,-2.0,0.35609236,0.07992029,2.0,-0.43700475,-0.7552004,-2.0,-0.31676355,-2.0
2025-07-21 14:26:48.939,1.520000000000001,1520,76,-0.008191165,-0.007448514,0.034869365,-0.066010185,0.07009545,-0.015361631,0.0,0.0,0.0,0.02022369,-0.030938774,0.04562548,-0.02984446,-0.09917819,0.14545664,0.16297416,0.12654752,0.0705767,0.07061541,0.000328515,-0.06674654,0.1375953,-0.0071711103,0.07644884,-0.097278796,-0.049878187,-0.061036084,-0.029289251,0.03423482,-0.056066833,-0.0823184,0.008333406,0.0154023785,-0.0995459,2.0,1.0680345,-1.9414027,-2.0,0.35609236,0.07992029,2.0,-0.43700475,-0.7552004,-2.0,-0.31676355,-2.0,2.0,0.47098705,-2.0,-2.0,0.5525486,0.4715562,2.0,-0.15700236,0.77937216,-2.0,-0.060855113,-2.0
2025-07-21 14:26:48.959,1.540000000000001,1540,77,0.060375497,-0.05181066,0.03318899,-0.014842246,0.031687696,-0.010982199,0.0,0.0,0.0,0.019952193,-0.028998569,0.045087785,-0.042237785,-0.11045308,0.15063022,0.15426646,0.1139236,0.05112641,0.06313765,0.0063655837,-0.07211472,0.13186072,0.0084886085,0.03316263,-0.07464521,0.059097767,-0.02967029,0.01793954,-0.00016028095,-0.09519106,0.058070377,0.038141612,-0.04335414,-0.03943781,2.0,0.47098705,-2.0,-2.0,0.5525486,0.4715562,2.0,-0.15700236,0.77937216,-2.0,-0.060855113,-2.0,2.0,-0.0844284,-2.0,-2.0,0.36981368,1.3664443,2.0,0.53655124,2.0,-2.0,0.03191615,-2.0
2025-07-21 14:26:48.979,1.560000000000001,1560,78,0.093069956,-0.00089559436,-0.016388714,-0.034043513,0.046830136,-0.0011933004,0.0,0.0,0.0,0.019677151,-0.03273285,0.05729795,-0.053374354,-0.10067178,0.14202693,0.15926407,0.12715673,0.041065656,0.10435449,0.0004923269,-0.048871424,0.117102265,0.0063729477,0.044039864,0.088987425,-0.023634084,-0.0059028612,-0.036327086,-0.02293522,0.025842473,0.030312492,0.026613984,-0.04090336,-0.04384491,2.0,-0.0844284,-2.0,-2.0,0.36981368,1.3664443,2.0,0.53655124,2.0,-2.0,0.03191615,-2.0,2.0,-0.07950562,-2.0,-2.0,0.40527195,1.9312744,1.5649868,0.99235475,2.0,-2.0,-0.49790052,-2.0
2025-07-21 14:26:49.000,1.580000000000001,1580,79,0.035773937,-0.021396684,-0.024913924,-0.015184949,-0.005402669,0.04878163,0.0,0.0,0.0,0.019576475,-0.034575723,0.038789354,-0.028227488,-0.1187449,0.13926472,0.18029451,0.122039996,0.06416113,0.13974729,-0.0012950168,-0.037628163,0.12679417,-0.077649154,-0.0765867,0.039699104,-0.076559015,-0.038771383,0.01815365,-0.01221993,0.14474042,0.09796558,0.026036356,-0.023757363,0.026646506,2.0,-0.07950562,-2.0,-2.0,0.40527195,1.9312744,1.5649868,0.99235475,2.0,-2.0,-0.49790052,-2.0,1.8407031,-0.16179585,-1.9250671,-2.0,0.83707947,1.7319853,1.2882259,0.91718674,1.6748558,-2.0,-0.53507763,-2.0
2025-07-21 14:26:49.025,1.600000000000001,1600,80,0.092463166,-0.034607213,0.0208644,-0.08301398,-0.0066915937,0.01807931,0.0,0.0,0.0,0.019500125,-0.04163485,0.04725071,-0.010485478,-0.112038255,0.12801714,0.1989278,0.10912477,0.10762908,0.16910265,-0.0050681946,-0.041416932,0.12231696,-0.060128205,-0.087700374,0.032769263,-0.06523219,-0.04555146,0.061329097,0.043178253,0.061692588,0.049889266,-0.024954775,-0.05704105,0.050072372,1.8407031,-0.16179585,-1.9250671,-2.0,0.83707947,1.7319853,1.2882259,0.91718674,1.6748558,-2.0,-0.53507763,-2.0,1.7231406,-0.23838386,-2.0,-2.0,0.9593785,1.4344312,1.3916909,0.7428054,0.6778563,-2.0,-0.20779753,-2.0
2025-07-21 14:26:49.043,1.620000000000001,1620,81,0.055725463,0.026278563,-0.090167224,-0.060313854,0.05546143,-0.029213967,0.0,0.0,0.0,0.019623602,-0.052505974,0.020143367,0.021085538,-0.11130446,0.12981065,0.21451715,0.11156278,0.13913338,0.16266361,-0.011164924,-0.052491225,0.1335378,0.047357835,-0.02201223,0.0230684,-0.010078614,0.018957611,-0.012931052,0.0013816152,0.0022552062,-0.06370356,0.06635865,0.019935632,0.010793773,1.7231406,-0.23838386,-2.0,-2.0,0.9593785,1.4344312,1.3916909,0.7428054,0.6778563,-2.0,-0.20779753,-2.0,2.0,0.36734372,-1.012009,-2.0,0.5581997,0.8803078,1.992273,0.48940304,-0.5450907,-2.0,-0.7242821,-2.0
2025-07-21 14:26:49.060,1.640000000000001,1640,82,0.06315675,-0.03009033,-0.07486047,-0.06751341,0.015268782,-0.021235423,0.0,0.0,0.0,0.020425599,-0.05072351,0.0105445115,0.04038257,-0.13352202,0.119172655,0.24297327,0.09681906,0.16220665,0.12199248,-0.009587412,-0.04824456,0.15374215,-0.011826993,0.0024341415,0.05273682,-0.019150406,0.030267194,0.01942587,-0.05035526,-0.04689764,-0.11402473,0.040806856,-0.03303141,0.030004948,2.0,0.36734372,-1.012009,-2.0,0.5581997,0.8803078,1.992273,0.48940304,-0.5450907,-2.0,-0.7242821,-2.0,2.0,0.68892664,-0.534291,-2.0,0.8030766,0.21883935,2.0,-0.24159756,-2.0,-2.0,-1.0526975,-2.0
2025-07-21 14:26:49.082,1.660000000000001,1660,83,-0.040476825,0.030911548,-0.0019522478,-0.07405969,0.029469354,0.032818146,0.0,0.0,0.0,0.021415388,-0.05882634,-0.008040511,0.05524527,-0.13444866,0.12607737,0.237554,0.11148857,0.15175931,0.07952345,-0.005754232,-0.060198635,0.15968153,-0.05736605,-0.06076265,0.11091097,-0.0025385923,-0.07032947,0.018564047,0.07656837,0.026879376,0.07728285,0.03551087,-0.079743996,0.02084836,2.0,0.68892664,-0.534291,-2.0,0.8030766,0.21883935,2.0,-0.24159756,-2.0,-2.0,-1.0526975,-2.0,2.0,1.1188825,-0.6021493,-2.0,0.87466174,-0.21156958,2.0,-0.95534873,-2.0,-2.0,-0.84162104,-2.0
2025-07-21 14:26:49.104,1.680000000000001,1680,84,0.007485836,0.05428935,0.077019446,-0.03639915,0.062847525,-0.03116573,0.0,0.0,0.0,0.021772675,-0.0432782,-0.0046935254,0.063133225,-0.1337179,0.11785118,0.2588575,0.111445144,0.13256444,0.09639778,-0.0010261451,-0.07186235,0.17837818,0.039876275,-0.007950269,0.01832144,-0.035710026,-0.032958608,0.053878754,0.05225188,-0.10368118,0.11035998,0.071334384,-0.082507625,-0.0006635751,2.0,1.1188825,-0.6021493,-2.0,0.87466174,-0.21156958,2.0,-0.95534873,-2.0,-2.0,-0.84162104,-2.0,2.0,0.98298454,-1.68351,-2.0,0.9242881,0.3273973,2.0,-1.2131456,-2.0,-2.0,-0.3664753,-2.0
2025-07-21 14:26:49.122,1.700000000000001,1700,85,-0.086157255,0.04465187,0.028885243,-0.020372273,-0.012496857,-0.005323766,0.0,0.0,0.0,0.021352047,-0.055099573,-0.014158173,0.06533016,-0.11637523,0.12269225,0.24053797,0.10449081,0.11927328,0.11097862,0.0024188468,-0.07082113,0.18359312,0.05093995,-0.003941484,0.014599386,0.07278743,0.019461008,-0.06139419,0.053089153,-0.055103555,0.08193252,0.028455678,-0.043646466,0.04894357,2.0,0.98298454,-1.68351,-2.0,0.9242881,0.3273973,2.0,-1.2131456,-2.0,-2.0,-0.3664753,-2.0,2.0,1.0698048,-2.0,-2.0,0.5585355,0.37153393,2.0,-0.8793191,-1.2794055,-2.0,-0.25248936,-2.0
2025-07-21 14:26:49.141,1.720000000000001,1720,86,-0.04105782,-0.03516577,0.0026370364,-0.08535374,-0.0049448414,0.022745011,0.0,0.0,0.0,0.021043785,-0.03888637,0.0021457265,0.056740575,-0.12210498,0.116070986,0.24813831,0.1043636,0.095915295,0.11857658,0.009518683,-0.08628135,0.17046955,0.067136616,0.04606167,-0.10676153,0.07558048,0.06975647,-0.090012394,0.037587736,-0.05342816,0.01132467,0.07104028,0.043756705,-0.054886922,2.0,1.0698048,-2.0,-2.0,0.5585355,0.37153393,2.0,-0.8793191,-1.2794055,-2.0,-0.25248936,-2.0,2.0,0.798506,-2.0,-2.0,0.4051913,0.42500228,2.0,-0.44419745,0.1633831,-2.0,-0.14095993,-2.0
2025-07-21 14:26:49.160,1.740000000000001,1740,87,-0.058008563,0.03172853,-0.06732398,-0.09252992,0.02025571,0.002980503,0.0,0.0,0.0,0.02112528,-0.04193271,0.0063589965,0.03780941,-0.10909371,0.12493155,0.21872666,0.10824913,0.08093939,0.12300363,0.008034098,-0.07868768,0.17465763,0.0014869419,0.025503026,-0.09199052,-0.051855206,0.06950056,0.00505565,-0.07031904,-0.08224593,0.039890513,-0.0011811892,0.044819303,-0.08837761,2.0,0.798506,-2.0,-2.0,0.4051913,0.42500228,2.0,-0.44419745,0.1633831,-2.0,-0.14095993,-2.0,2.0,0.4515342,-2.0,-2.0,0.21105833,1.0361803,2.0,0.18330146,1.4243432,-2.0,-0.5999405,-2.0
2025-07-21 14:26:49.187,1.7600000000000011,1760,88,-0.035835247,0.032190852,0.046835933,-0.07704489,-0.00091177976,-0.031710226,0.0,0.0,0.0,0.021410314,-0.04677346,0.004400965,0.02478726,-0.121870175,0.12980813,0.2271945,0.11129357,0.060453497,0.1264972,-0.0038596815,-0.06919632,0.171594,-0.0030436208,-0.0059148637,0.030036625,0.058526106,0.036774386,-0.033496372,-0.027865907,0.040678103,0.013978103,0.03437826,-0.034541342,0.027551599,2.0,0.4515342,-2.0,-2.0,0.21105833,1.0361803,2.0,0.18330146,1.4243432,-2.0,-0.5999405,-2.0,1.8335668,-0.19491857,-2.0,-2.0,0.79191595,1.5926682,2.0,0.631229,2.0,-2.0,-0.23537208,-2.0
2025-07-21 14:26:49.205,1.7800000000000011,1780,89,0.028800251,0.016552003,-0.0140612,-0.010790077,-0.009557765,0.008092973,0.0,0.0,0.0,0.02154304,-0.0463419,0.019969828,0.026259428,-0.105519906,0.1208665,0.20756942,0.123586155,0.06324857,0.13840087,0.011221396,-0.069232225,0.16756259,-0.083731845,-6.5250138e-06,-0.04681755,0.029774077,0.038809303,0.046196166,0.07471109,-0.0043211384,0.03854545,-0.025423266,-0.010935619,-0.0004065055,1.8335668,-0.19491857,-2.0,-2.0,0.79191595,1.5926682,2.0,0.631229,2.0,-2.0,-0.23537208,-2.0,1.820278,-0.16296773,-2.0,-2.0,0.43309888,2.0,1.8488506,0.7209115,2.0,-2.0,-0.34606302,-2.0
2025-07-21 14:26:49.226,1.8000000000000012,1800,90,0.08450572,0.03309964,-0.024302814,-0.029971698,-0.004205974,-0.03341692,0.0,0.0,0.0,0.021805964,-0.0510368,0.01722703,0.021768436,-0.12811692,0.13473445,0.22222841,0.11018712,0.08349661,0.16603072,0.010944164,-0.054527253,0.1591887,-0.056974385,-0.04815321,0.06743624,-0.030964136,0.02940797,-0.03622029,0.015801273,0.058626857,0.06860598,0.038765267,0.07747877,0.059922546,1.820278,-0.16296773,-2.0,-2.0,0.43309888,2.0,1.8488506,0.7209115,2.0,-2.0,-0.34606302,-2.0,1.4184977,-0.08570889,-2.0,-2.0,0.69400173,1.9355085,1.4737496,0.7920791,2.0,-2.0,-0.44841546,-2.0
2025-07-21 14:26:49.261,1.8200000000000012,1820,91,0.07533556,0.02036899,-0.026550353,-0.03738834,0.065803066,0.02335382,0.0,0.0,0.0,0.022470737,-0.06032561,0.0045908755,0.037449792,-0.11634777,0.1328147,0.24095996,0.10940068,0.1081217,0.18308909,0.003945937,-0.06785927,0.16382788,-0.07876474,-0.046232942,0.037609678,0.04560059,0.050018407,0.08939684,0.0014721648,0.13552138,0.02158216,-0.06758055,0.017710673,-0.04822865,1.4184977,-0.08570889,-2.0,-2.0,0.69400173,1.9355085,1.4737496,0.7920791,2.0,-2.0,-0.44841546,-2.0,1.3005582,-0.04740329,-1.7790098,-2.0,0.6056974,1.5829911,1.4963624,0.79899806,1.1226635,-2.0,-0.5536296,-2.0
2025-07-21 14:26:49.294,1.8400000000000012,1840,92,-0.0004712091,0.067143925,-0.058290463,-0.059747394,0.0081710415,0.034457475,0.0,0.0,0.0,0.023474999,-0.06821539,-0.016130395,0.06117516,-0.1368606,0.12220654,0.24847265,0.11274371,0.13347684,0.18379131,0.01322775,-0.058943346,0.16708548,-0.012122364,-0.018125478,0.07481383,-0.07090636,0.010944476,0.08316863,0.039937496,0.08952598,0.03569069,-0.043799493,-0.00934035,0.033962045,1.3005582,-0.04740329,-1.7790098,-2.0,0.6056974,1.5829911,1.4963624,0.79899806,1.1226635,-2.0,-0.5536296,-2.0,1.6126174,0.08218482,-1.2029475,-2.0,0.79458874,0.9242203,2.0,0.49280295,-0.617785,-2.0,-0.8098232,-2.0
2025-07-21 14:26:49.309,1.8600000000000012,1860,93,-0.036094893,0.07846699,-0.0668791,-0.05014998,0.026073452,-0.012774461,0.0,0.0,0.0,0.024733264,-0.05904043,-0.024208413,0.061690282,-0.13177453,0.12099357,0.25629357,0.11748015,0.14828625,0.14585401,0.013770034,-0.07247819,0.19470106,-0.038632758,-0.08590303,0.017891565,0.017285105,0.0107011255,-0.0019292342,-0.03686455,0.02602393,-0.108558916,-0.041226804,-0.046117045,0.0395322,1.6126174,0.08218482,-1.2029475,-2.0,0.79458874,0.9242203,2.0,0.49280295,-0.617785,-2.0,-0.8098232,-2.0,2.0,0.77315545,-0.050978757,-2.0,0.7886475,-0.07915783,2.0,-0.40223524,-2.0,-2.0,-1.1888294,-2.0
2025-07-21 14:26:49.345,1.8800000000000012,1880,94,0.014304076,0.021972528,0.027604071,-0.086469516,0.011619903,-0.0078414595,0.0,0.0,0.0,0.026007842,-0.060843725,-0.032793798,0.07061467,-0.13829198,0.12991185,0.24510545,0.107852675,0.14938432,0.12397934,0.0032856546,-0.066538334,0.20025516,0.041584484,0.03273156,0.05994845,0.0753573,0.06955114,-0.021254381,-0.007851128,-0.06841958,-0.012400871,0.057687823,0.0022923723,0.010595355,2.0,0.77315545,-0.050978757,-2.0,0.7886475,-0.07915783,2.0,-0.40223524,-2.0,-2.0,-1.1888294,-2.0,2.0,1.1104192,-0.4444969,-2.0,0.9914722,-0.06121016,2.0,-1.2070795,-2.0,-2.0,-0.75739115,-2.0
2025-07-21 14:26:49.393,1.9000000000000012,1900,95,0.008069144,0.07083252,0.062489785,-0.07644002,0.042116925,-0.028033035,0.0,0.0,0.0,0.02634015,-0.06599238,-0.03986161,0.08746633,-0.12824449,0.11786208,0.24082625,0.11276566,0.14001442,0.13602513,0.01642314,-0.076733656,0.20144764,0.080191374,-0.050430674,-0.076268405,0.057050295,0.043979034,0.008328671,0.05530182,-0.06400938,0.040479507,0.007862216,0.009163709,-0.06747154,2.0,1.1104192,-0.4444969,-2.0,0.9914722,-0.06121016,2.0,-1.2070795,-2.0,-2.0,-0.75739115,-2.0,2.0,1.1946512,-1.7453623,-2.0,0.80461097,0.6185781,2.0,-1.2743126,-2.0,-2.0,-0.31747335,-2.0
2025-07-21 14:26:49.407,1.9200000000000013,1920,96,-0.08995281,-0.041824218,0.047824375,-0.061012436,0.05829997,0.049019102,0.0,0.0,0.0,0.025830828,-0.05142865,-0.016492058,0.07884681,-0.11497242,0.12585846,0.2322819,0.118672766,0.13393396,0.14757897,0.014933746,-0.07465753,0.2042811,0.07948829,0.043298155,-0.011955842,0.082318455,0.046468087,0.024949085,0.05094072,-0.023920672,0.020625709,0.021330507,-0.055363744,0.000803064,2.0,1.1946512,-1.7453623,-2.0,0.80461097,0.6185781,2.0,-1.2743126,-2.0,-2.0,-0.31747335,-2.0,2.0,0.9691173,-2.0,-2.0,0.48499843,0.29392043,2.0,-0.8282773,-0.9959707,-2.0,-0.14539285,-2.0
2025-07-21 14:26:49.427,1.9400000000000013,1940,97,-0.053873215,0.04372568,-0.04664024,-0.017963238,0.024728766,-0.018076675,0.0,0.0,0.0,0.025463348,-0.04589938,-0.010478714,0.05249985,-0.11284558,0.12731597,0.2241725,0.11506574,0.10812139,0.15304857,0.017700536,-0.07116706,0.19682667,0.0624511,0.031774484,0.0032950817,-0.030600937,0.0009998397,-0.015203325,-0.057992592,-0.0019804658,-0.008455142,0.060943794,0.057194017,-0.049182694,2.0,0.9691173,-2.0,-2.0,0.48499843,0.29392043,2.0,-0.8282773,-0.9959707,-2.0,-0.14539285,-2.0,2.0,0.9142406,-2.0,-2.0,0.29889238,0.37909484,2.0,-0.26660457,0.15352193,-2.0,-0.4378064,-2.0
2025-07-21 14:26:49.449,1.9600000000000013,1960,98,-0.06862669,0.0063493447,-0.015135559,-0.048770566,0.032795977,0.047314566,0.0,0.0,0.0,0.02544913,-0.04890954,0.0014890423,0.04253752,-0.12059302,0.13735242,0.20421682,0.12341222,0.08584963,0.15764277,0.013179689,-0.07505091,0.1855466,-0.065109715,-0.02971027,-0.022519963,0.043434944,-0.011616726,0.024791647,0.00045085224,-0.05250476,0.024406876,0.025649402,-0.02379111,0.043530177,2.0,0.9142406,-2.0,-2.0,0.29889238,0.37909484,2.0,-0.26660457,0.15352193,-2.0,-0.4378064,-2.0,2.0,0.2305187,-2.0,-2.0,0.5774463,0.8008375,2.0,0.23077796,0.94635564,-2.0,-0.38700184,-2.0
2025-07-21 14:26:49.474,1.9800000000000013,1980,99,-0.037911016,0.0550139,0.04399416,-0.020987228,0.060654353,-0.012441076,0.0,0.0,0.0,0.02539617,-0.048188467,0.0024113602,0.013826587,-0.106131256,0.1509653,0.18563154,0.12460707,0.07389535,0.14223182,0.0132515365,-0.07622966,0.16283372,0.0048089027,0.0775144,-0.028191889,-0.015595072,0.0314166,-0.03256888,-0.037564095,-0.075777836,-0.01118676,0.056177773,0.029754234,0.023309678,2.0,0.2305187,-2.0,-2.0,0.5774463,0.8008375,2.0,0.23077796,0.94635564,-2.0,-0.38700184,-2.0,1.9768025,-0.17349449,-2.0,-2.0,0.6992119,1.4871151,2.0,0.4018375,1.7101966,-2.0,-0.08545153,-2.0
2025-07-21 14:26:49.521,2.0000000000000013,2000,100,0.023988716,0.064867005,-0.0020794426,-0.011927435,0.024590854,-0.048789475,0.0,0.0,0.0,0.02527299,-0.051902074,-0.0015969435,0.0245317,-0.117991105,0.1579706,0.19597347,0.116276495,0.07593673,0.14836675,0.025658283,-0.06943621,0.17318657,-0.016927991,0.048970137,-0.049446948,-0.0144464765,0.023974838,-0.039104562,0.052619133,0.0058545056,0.056843437,-0.019194439,-0.01783002,-0.07666819,1.9768025,-0.17349449,-2.0,-2.0,0.6992119,1.4871151,2.0,0.4018375,1.7101966,-2.0,-0.08545153,-2.0,1.9176351,-0.049032003,-2.0,-2.0,0.41256914,1.9964468,1.6888478,0.7037252,2.0,-2.0,-0.2442366,-2.0
2025-07-21 14:26:49.540,2.0200000000000014,2020,101,0.05829009,-0.04897429,-0.08464482,-0.07447521,0.037134163,0.017139612,0.0,0.0,0.0,0.025523016,-0.05868408,0.003370785,0.034719683,-0.122198924,0.15054248,0.20158212,0.11771618,0.09120444,0.163259,0.01589988,-0.04548915,0.16735946,-0.0025628575,-0.052366387,0.026083607,-0.002594349,-0.04630458,-0.03673217,0.07240565,0.044945475,0.02411146,-0.028911749,-0.025162833,0.019086406,1.9176351,-0.049032003,-2.0,-2.0,0.41256914,1.9964468,1.6888478,0.7037252,2.0,-2.0,-0.2442366,-2.0,2.0,0.15983072,-1.6973486,-2.0,0.48934796,1.6814752,1.3515555,0.9246591,1.7985313,-2.0,-0.73648685,-2.0
2025-07-21 14:26:49.559,2.0400000000000014,2040,102,0.024340397,0.00618094,-0.068029016,-0.02981866,0.027834903,-0.0251381,0.0,0.0,0.0,0.026122203,-0.058739126,0.0067450204,0.03690874,-0.12106031,0.13636652,0.21324612,0.11849738,0.1136594,0.17794804,0.019643921,-0.043043833,0.17061226,0.04525381,-0.0627257,-0.01938098,-0.022712184,0.054896977,-0.038530633,0.020801311,0.026058653,-0.028083295,-0.06802342,0.032543223,0.06999643,2.0,0.15983072,-1.6973486,-2.0,0.48934796,1.6814752,1.3515555,0.9246591,1.7985313,-2.0,-0.73648685,-2.0,2.0,-0.08431536,-1.3588278,-2.0,0.8160738,1.5866525,1.6342796,0.7478816,0.41772208,-2.0,-0.72487694,-2.0
2025-07-21 14:26:49.580,2.0600000000000014,2060,103,0.054395188,0.01676145,-0.009697265,-0.036826447,0.0028047054,0.030324439,0.0,0.0,0.0,0.026646255,-0.05211914,-0.014506605,0.06053352,-0.1268408,0.13899416,0.20724308,0.11669602,0.15154992,0.16492529,0.028197076,-0.048239913,0.16660339,-0.004033836,-0.07990539,0.009242336,-0.030306721,0.010276944,0.01684398,-0.07947272,0.030434769,-0.056463838,-0.026023213,0.025319306,0.082029104,2.0,-0.08431536,-1.3588278,-2.0,0.8160738,1.5866525,1.6342796,0.7478816,0.41772208,-2.0,-0.72487694,-2.0,2.0,0.180779,-1.5669458,-2.0,1.0726466,1.0653007,2.0,0.07010469,-1.6367384,-2.0,-0.6143532,-2.0
2025-07-21 14:26:49.605,2.0800000000000014,2080,104,0.020152913,-0.021790015,-0.026482835,-0.033326235,-0.0036155358,-0.017792435,0.0,0.0,0.0,0.027088342,-0.06733958,-0.009849321,0.06673782,-0.11161903,0.14566743,0.23384827,0.105049424,0.14798187,0.14447853,0.03346144,-0.05422615,0.19518188,-0.025652755,-0.006196502,0.008882208,-0.019337717,-0.04146545,-0.026700513,0.07633175,-0.04100134,-0.062064473,0.01935807,0.045999072,-0.0005760909,2.0,0.180779,-1.5669458,-2.0,1.0726466,1.0653007,2.0,0.07010469,-1.6367384,-2.0,-0.6143532,-2.0,2.0,0.869553,-1.0018296,-2.0,0.75821763,-0.032434154,2.0,-0.6987794,-2.0,-1.9581468,-0.6545158,-2.0
2025-07-21 14:26:49.623,2.1000000000000014,2100,105,-0.02755814,-0.03473416,0.01785962,-0.049348265,0.01267906,-0.001695198,0.0,0.0,0.0,0.027635107,-0.06352335,-0.013096425,0.07983007,-0.11239738,0.13986939,0.22495341,0.11116792,0.1630934,0.14602049,0.025796471,-0.0603185,0.1909658,0.0075156195,0.03835407,-0.01047487,-0.060155947,0.07130608,0.010333392,-0.029049236,0.016138528,0.068454586,-0.05641314,-0.03693803,-0.059403133,2.0,0.869553,-1.0018296,-2.0,0.75821763,-0.032434154,2.0,-0.6987794,-2.0,-1.9581468,-0.6545158,-2.0,2.0,1.2043346,-0.98734665,-2.0,0.6378485,0.104976,2.0,-1.0018432,-2.0,-2.0,-0.5841536,-2.0
2025-07-21 14:26:49.640,2.1200000000000014,2120,106,-0.07509289,0.05118121,0.008139873,-0.040463943,0.06839915,0.034762006,0.0,0.0,0.0,0.027787564,-0.043691996,-0.015549451,0.067628354,-0.11835043,0.140322,0.22175105,0.11603228,0.15185398,0.14512393,0.026636586,-0.050327804,0.18400533,-0.021505205,-0.05437287,0.0038199825,0.008715615,0.07034406,0.040262815,-0.006524643,-0.024510032,0.034113612,-0.0019733394,0.03070273,-0.027988931,2.0,1.2043346,-0.98734665,-2.0,0.6378485,0.104976,2.0,-1.0018432,-2.0,-2.0,-0.5841536,-2.0,2.0,1.1343265,-1.6527797,-2.0,0.6360404,0.16710207,2.0,-0.94869196,-2.0,-2.0,-0.470402,-2.0
2025-07-21 14:26:49.659,2.1400000000000015,2140,107,-0.05230162,0.05295247,0.047082823,-0.049804583,0.00044278373,0.036210045,0.0,0.0,0.0,0.027555874,-0.04442658,-0.0040396485,0.06609669,-0.10686007,0.15183417,0.2091951,0.11653054,0.13847049,0.16088808,0.025442278,-0.060745507,0.18961585,-0.054784395,0.023052905,0.0015086159,0.06744676,0.019099629,-0.0003940263,-0.028458463,-0.052278165,0.057828162,-0.042431753,-0.06881246,-0.07525897,2.0,1.1343265,-1.6527797,-2.0,0.6360404,0.16710207,2.0,-0.94869196,-2.0,-2.0,-0.470402,-2.0,2.0,1.1066049,-1.8856951,-2.0,0.6312043,0.095398664,2.0,-0.8010129,-1.8959843,-2.0,-0.23921561,-2.0
2025-07-21 14:26:49.677,2.1600000000000015,2160,108,-0.04118295,-0.0151294675,0.04187625,-0.056797452,0.089634284,-0.0150944395,0.0,0.0,0.0,0.027231894,-0.037420496,0.00072322815,0.030194484,-0.09596024,0.14154057,0.19443093,0.10712277,0.14559564,0.14303526,0.033719413,-0.051335186,0.17546529,-0.06276895,0.091789246,-0.08159635,-0.05894942,0.022914743,0.0041019525,-0.008566238,0.027931148,-0.07979561,0.01248894,-0.02752897,-0.083147876,2.0,1.1066049,-1.8856951,-2.0,0.6312043,0.095398664,2.0,-0.8010129,-1.8959843,-2.0,-0.23921561,-2.0,2.0,1.0015382,-1.7985656,-2.0,0.5111331,0.07543659,2.0,-0.6994151,-1.3176023,-1.810416,-0.2725529,-2.0
2025-07-21 14:26:49.704,2.1800000000000015,2180,109,-0.077407904,0.051916383,0.037704304,0.011401813,0.0086912,-0.010666412,0.0,0.0,0.0,0.02707223,-0.049533408,0.0039773053,0.0032696805,-0.09515149,0.14538848,0.18650286,0.11913997,0.1296123,0.13860701,0.041088015,-0.057051565,0.17357676,0.040742394,0.09376013,-0.13120557,0.07247738,-0.03435879,-0.11521707,0.046916153,-0.07862813,-0.022170993,-0.010809932,-0.06817821,-0.017382849,2.0,1.0015382,-1.7985656,-2.0,0.5111331,0.07543659,2.0,-0.6994151,-1.3176023,-1.810416,-0.2725529,-2.0,2.0,0.8825332,-2.0,-2.0,0.5695475,0.34374332,2.0,-0.3921593,-0.7611851,-1.5778973,-0.10236217,-2.0
2025-07-21 14:26:49.721,2.2000000000000015,2200,110,-0.044676103,0.01474836,0.013249577,-0.04171226,0.05859334,0.018153096,0.0,0.0,0.0,0.027076064,-0.04910185,0.024186293,-0.0024652134,-0.10355324,0.15470889,0.16389507,0.10674027,0.11681246,0.13029738,0.039453544,-0.051369093,0.16134012,0.020296156,-0.012018884,-0.07197899,-0.03174551,0.028927414,-0.048276868,-0.032726843,-0.087184526,-0.053752225,0.009009756,0.0017296736,-0.07361313,2.0,0.8825332,-2.0,-2.0,0.5695475,0.34374332,2.0,-0.3921593,-0.7611851,-1.5778973,-0.10236217,-2.0,2.0,0.59636456,-2.0,-2.0,0.44913372,0.48913288,2.0,-0.15743826,-0.18552244,-1.488283,-0.07806511,-2.0
2025-07-21 14:26:49.739,2.2200000000000015,2220,111,-0.0119685065,-0.054165885,-0.0056508225,-0.040720258,0.10053768,0.00923341,0.0,0.0,0.0,0.027241515,-0.035195053,0.038826182,-0.01704118,-0.092245184,0.15857978,0.1527694,0.119593024,0.10765416,0.121498615,0.038252875,-0.036417566,0.15794615,0.058878187,-0.0098502515,0.0024511307,0.011642918,0.0043324856,-0.011488489,-0.033240918,-0.06576102,0.055171434,0.050875135,-0.026022581,-0.05743033,2.0,0.59636456,-2.0,-2.0,0.44913372,0.48913288,2.0,-0.15743826,-0.18552244,-1.488283,-0.07806511,-2.0,2.0,0.470723,-2.0,-2.0,0.40380335,0.5815517,2.0,0.17605549,0.31659132,-1.7444726,-0.14712605,-2.0
2025-07-21 14:26:49.758,2.2400000000000015,2240,112,0.032162875,0.03947837,0.019577274,-0.00504685,0.03634337,-0.024023889,0.0,0.0,0.0,0.027605696,-0.039850414,0.030313598,-0.02909713,-0.11132266,0.17223176,0.14539018,0.105593026,0.09531123,0.10319832,0.04434962,-0.04466044,0.14192581,0.008285525,-0.0021292279,0.056638017,-0.045260664,0.02679229,0.05141319,0.060699373,-0.060605112,0.041620553,-0.052202422,-0.038615424,-0.007841684,2.0,0.470723,-2.0,-2.0,0.40380335,0.5815517,2.0,0.17605549,0.31659132,-1.7444726,-0.14712605,-2.0,2.0,0.0042352397,-2.0,-2.0,0.6395272,0.93131614,2.0,0.35589707,1.1590863,-1.8865387,-0.10601611,-2.0
2025-07-21 14:26:49.779,2.2600000000000016,2260,113,0.07277682,0.0265334,-0.07339592,-0.054368597,0.048579436,-0.0040581287,0.0,0.0,0.0,0.028034538,-0.0575999,0.027202688,-0.032542225,-0.10725799,0.1591568,0.15837483,0.115246795,0.09763298,0.11666258,0.025240688,-0.020735934,0.14785372,0.033506233,-0.012605718,-0.015139992,-0.020887598,-0.016830156,0.05027528,-0.040056873,0.02862654,0.087521754,0.024774645,0.058378153,0.049380556,2.0,0.0042352397,-2.0,-2.0,0.6395272,0.93131614,2.0,0.35589707,1.1590863,-1.8865387,-0.10601611,-2.0,2.0,0.15357992,-1.8674217,-2.0,0.3708931,1.4360416,2.0,0.6774504,1.3227973,-2.0,-0.49642083,-2.0
2025-07-21 14:26:49.811,2.2800000000000016,2280,114,0.040245216,0.0069948398,-0.018941436,-0.030237088,0.077391036,0.015265507,0.0,0.0,0.0,0.028601637,-0.05405551,0.034447525,-0.026333407,-0.10979671,0.16095617,0.15840109,0.1090244,0.10080487,0.1240508,0.03233213,-0.023925185,0.13861366,0.044814605,0.021707531,-0.042534273,0.02848284,0.008592916,0.015028498,-0.003699403,0.014409994,-0.03904312,-0.07463844,-0.035060503,0.05353987,2.0,0.15357992,-1.8674217,-2.0,0.3708931,1.4360416,2.0,0.6774504,1.3227973,-2.0,-0.49642083,-2.0,2.0,-0.03673619,-1.8819536,-2.0,0.7513479,1.4088085,2.0,0.7433332,1.198773,-2.0,-0.47302428,-2.0
2025-07-21 14:26:49.829,2.3000000000000016,2300,115,0.06650122,-0.043263573,-0.033803962,-0.0017999858,0.0740588,-0.041352104,0.0,0.0,0.0,0.02908827,-0.06355727,0.031450238,0.0010954967,-0.11377657,0.14832826,0.17946653,0.1178098,0.11064216,0.1221822,0.032728847,-0.02805129,0.16298969,-0.04335043,-0.09064941,0.06807087,-0.012354729,-0.07364812,0.083787225,0.0470172,0.044827085,-0.039196353,-0.03321946,0.06443909,0.09560096,2.0,-0.03673619,-1.8819536,-2.0,0.7513479,1.4088085,2.0,0.7433332,1.198773,-2.0,-0.47302428,-2.0,2.0,-0.107742876,-2.0,-2.0,0.72353166,1.561332,2.0,0.5500369,0.9069233,-2.0,-0.44362602,-2.0
2025-07-21 14:26:49.854,2.3200000000000016,2320,116,0.03672719,-0.06847399,-0.04750325,-0.06464707,0.09411873,0.028380804,0.0,0.0,0.0,0.029485771,-0.06184103,0.018824305,0.0155596305,-0.12847796,0.14836268,0.19042751,0.12024587,0.13209255,0.14459427,0.039954454,-0.030833619,0.17648491,0.015695496,0.02016043,0.11352848,0.028454714,-0.01270037,0.1046939,-0.06097006,-0.015127228,-0.006262642,0.04211987,-0.052129522,0.0398579,2.0,-0.107742876,-2.0,-2.0,0.72353166,1.561332,2.0,0.5500369,0.9069233,-2.0,-0.44362602,-2.0,2.0,0.1839908,-1.971722,-2.0,0.61443114,1.2522886,2.0,0.5042797,0.52398354,-2.0,-0.4863126,-2.0
2025-07-21 14:26:49.871,2.3400000000000016,2340,117,0.038464203,-0.015748832,-0.03716835,-0.04150758,0.038182564,0.0062452946,0.0,0.0,0.0,0.029955043,-0.071030185,0.00045760747,0.039633304,-0.13494158,0.15857337,0.21495226,0.12615283,0.11730842,0.15875396,0.0417267,-0.03885676,0.18980941,0.06338518,0.010537751,0.023302814,-0.07154393,-0.0024908779,-0.004467042,0.015294701,0.06834655,-0.040394995,-0.056390584,-0.068067566,0.015664399,2.0,0.1839908,-1.971722,-2.0,0.61443114,1.2522886,2.0,0.5042797,0.52398354,-2.0,-0.4863126,-2.0,2.0,0.19666736,-1.7987486,-2.0,0.7143936,0.9720467,2.0,0.3400419,-0.006627165,-2.0,-0.5609044,-2.0
2025-07-21 14:26:49.890,2.3600000000000017,2360,118,-0.0019627055,-0.021134341,-0.028021544,-0.052869357,-0.0010461761,0.023485648,0.0,0.0,0.0,0.030264147,-0.0693094,-0.0037130164,0.05490519,-0.12047247,0.15100947,0.23662092,0.11770381,0.12538607,0.15419789,0.032922547,-0.038569916,0.18491721,0.06153329,0.04320849,0.035550136,0.0545588,-0.041228432,0.089701064,0.04285206,0.025494318,0.061611947,-0.007428522,0.045279846,0.031843837,2.0,0.19666736,-1.7987486,-2.0,0.7143936,0.9720467,2.0,0.3400419,-0.006627165,-2.0,-0.5609044,-2.0,2.0,0.292479,-1.892083,-2.0,0.76751536,0.78867626,2.0,0.019641358,-0.8032664,-2.0,-0.5102692,-2.0
2025-07-21 14:26:49.909,2.3800000000000017,2380,119,-0.011256704,-0.093209304,-0.011700685,-0.055914328,0.04567876,-0.032377716,0.0,0.0,0.0,0.03029261,-0.066045396,-0.0058497735,0.06115382,-0.12611242,0.14206567,0.23612969,0.13483615,0.12480661,0.16667941,0.040965755,-0.03308745,0.18699495,-0.014176363,0.066169284,-0.032216962,0.017621337,0.03410539,0.05055112,-0.064637326,-0.0013264884,0.052458618,0.032513417,0.015245266,0.034595605,2.0,0.292479,-1.892083,-2.0,0.76751536,0.78867626,2.0,0.019641358,-0.8032664,-2.0,-0.5102692,-2.0,2.0,0.5737693,-1.7974344,-2.0,0.72719413,0.38235295,2.0,-0.38497576,-1.4377376,-2.0,-0.4299914,-2.0
2025-07-21 14:26:49.929,2.4000000000000017,2400,120,-0.0769349,-0.03555189,0.01650699,-0.09094828,0.068422854,-0.022859978,0.0,0.0,0.0,0.030141288,-0.055958483,0.003929762,0.065673426,-0.123505555,0.14742443,0.24825715,0.12875919,0.1334485,0.15963952,0.038582854,-0.032213606,0.20048529,0.005205069,0.053164046,0.00604056,-0.06303133,-0.0153795555,0.0075951377,-0.008184256,0.034747936,-0.07289759,0.025510306,0.022014882,-0.06832878,2.0,0.5737693,-1.7974344,-2.0,0.72719413,0.38235295,2.0,-0.38497576,-1.4377376,-2.0,-0.4299914,-2.0,2.0,0.8847525,-1.6417251,-2.0,0.6782207,0.26840806,2.0,-0.6550464,-1.7737088,-2.0,-0.35329455,-2.0
2025-07-21 14:26:49.954,2.4200000000000017,2420,121,-0.052442785,-0.02473262,0.0028859884,-0.0025489288,0.026087238,-0.038721777,0.0,0.0,0.0,0.029943552,-0.06642919,0.001943807,0.046966173,-0.12015323,0.15110815,0.23898889,0.13028689,0.12778117,0.16211748,0.045434408,-0.037899897,0.20834816,0.00064469996,0.05046401,-0.0015445851,0.01359022,-0.044524718,-0.045995347,0.050303474,0.0062636524,0.019089308,-0.029620912,-0.014626664,0.00020825503,2.0,0.8847525,-1.6417251,-2.0,0.6782207,0.26840806,2.0,-0.6550464,-1.7737088,-2.0,-0.35329455,-2.0,2.0,0.9724977,-1.7361825,-2.0,0.60357636,0.17838082,2.0,-0.70075274,-1.7610242,-1.9642544,-0.3779856,-2.0
2025-07-21 14:26:49.974,2.4400000000000017,2440,122,-0.06652767,-0.031022284,0.013737149,-0.08808937,0.007845752,-0.03766455,0.0,0.0,0.0,0.029735211,-0.0613286,0.015241711,0.029260824,-0.121780686,0.1566668,0.22683656,0.12397053,0.1363836,0.15559846,0.034315754,-0.038024902,0.20294079,-0.03617955,-0.04863005,-0.057520274,-0.0011906013,-0.033498876,-0.010835163,-0.011565406,-0.04670405,0.026408322,-0.026662562,-0.0035304883,0.012433454,2.0,0.9724977,-1.7361825,-2.0,0.60357636,0.17838082,2.0,-0.70075274,-1.7610242,-1.9642544,-0.3779856,-2.0,2.0,0.99362004,-1.8478388,-2.0,0.65720445,0.1828804,2.0,-0.7170346,-1.8057904,-1.84072,-0.2584433,-2.0
2025-07-21 14:26:49.993,2.4600000000000017,2460,123,-0.09865204,-0.0022952347,-0.040684473,-0.094697,0.09897186,-0.026113063,0.0,0.0,0.0,0.02951535,-0.045241743,0.017918387,0.011486303,-0.109188735,0.16099319,0.21499574,0.1215067,0.122219995,0.12645052,0.04597538,-0.032389037,0.20053437,-0.06692513,0.09416089,-0.0034859325,-0.063251086,-0.0044430224,0.025278784,-0.044572696,0.011739307,0.028803218,0.06498296,0.028635057,-0.0468614,2.0,0.99362004,-1.8478388,-2.0,0.65720445,0.1828804,2.0,-0.7170346,-1.8057904,-1.84072,-0.2584433,-2.0,2.0,1.1174288,-1.4342978,-2.0,0.37077495,-0.046893407,2.0,-0.57923776,-1.6236101,-2.0,-0.45394233,-2.0
2025-07-21 14:26:50.012,2.4800000000000018,2480,124,-0.080749065,0.055292588,0.07488559,-0.0761766,0.085731454,0.035589255,0.0,0.0,0.0,0.029376233,-0.041365,0.03870577,-0.0002065185,-0.1158949,0.16776204,0.19193466,0.10773038,0.13117996,0.1131044,0.045037802,-0.035845213,0.18392356,-0.04539238,0.014613842,-0.030217504,0.016025612,0.012933859,-0.0015597796,-0.07965055,-0.03278055,-0.06718376,-0.07015968,-0.028006023,-0.083139196,2.0,1.1174288,-1.4342978,-2.0,0.37077495,-0.046893407,2.0,-0.57923776,-1.6236101,-2.0,-0.45394233,-2.0,2.0,0.9130548,-1.9872148,-2.0,0.7637868,0.33155775,2.0,-0.69638395,-1.5977694,-1.8219185,-0.14472467,-2.0
2025-07-21 14:26:50.038,2.5000000000000018,2500,125,-0.04125011,0.0007353294,0.05173593,-0.06318007,0.06818268,-0.0103317285,0.0,0.0,0.0,0.029064197,-0.056724355,0.049264774,-0.020950675,-0.11887951,0.15192878,0.17524412,0.12058773,0.11615857,0.10704225,0.025778072,-0.032352813,0.17615679,-0.06880298,0.06446665,-0.014001738,-0.045837693,-0.027998878,-0.027845215,-0.002496108,-0.07787808,-0.07557085,0.04487826,0.014950696,-0.03508241,2.0,0.9130548,-1.9872148,-2.0,0.7637868,0.33155775,2.0,-0.69638395,-1.5977694,-1.8219185,-0.14472467,-2.0,2.0,0.7646707,-2.0,-2.0,0.51035243,0.4914111,2.0,-0.5973494,-0.55787605,-1.5751007,0.041296378,-2.0
2025-07-21 14:26:50.056,2.520000000000002,2520,126,-0.061210576,-0.0259774,-0.03168933,-0.08512266,0.10061493,0.017385403,0.0,0.0,0.0,0.028767899,-0.04270172,0.03889189,-0.04952322,-0.10753596,0.16467181,0.16700658,0.11289937,0.10150077,0.10070411,0.032081746,-0.029376466,0.16778575,-0.015161662,0.029260792,-0.09809024,-0.06931558,-0.03584498,-0.013222427,0.0052006384,-0.018715333,-0.049058437,0.02079478,-0.04523041,-0.012629244,2.0,0.7646707,-2.0,-2.0,0.51035243,0.4914111,2.0,-0.5973494,-0.55787605,-1.5751007,0.041296378,-2.0,2.0,0.77326274,-2.0,-2.0,0.24546798,0.3928216,2.0,0.045668643,0.2914892,-1.8850893,-0.27096462,-2.0
2025-07-21 14:26:50.074,2.540000000000002,2540,127,-0.024162142,-0.032624334,-0.020553686,-0.04721832,0.096582465,-0.014874875,0.0,0.0,0.0,0.028848344,-0.059607632,0.057455555,-0.04877133,-0.113886334,0.16189322,0.16868612,0.117761895,0.08991446,0.10117761,0.0364749,-0.041136727,0.16320688,0.05816467,-0.06042865,0.0113781355,-0.07175081,-0.017800007,0.05085322,0.029400218,-0.006784387,0.04880211,-0.0054952977,-0.049819205,-0.022339206,2.0,0.77326274,-2.0,-2.0,0.24546798,0.3928216,2.0,0.045668643,0.2914892,-1.8850893,-0.27096462,-2.0,2.0,0.09744051,-2.0,-2.0,0.58429176,0.78374344,2.0,0.39957014,1.1326517,-2.0,-0.35131013,-2.0
2025-07-21 14:26:50.092,2.560000000000002,2560,128,0.017101482,0.044489805,0.011923319,-0.08782862,0.113240734,-0.041040268,0.0,0.0,0.0,0.028851468,-0.057297427,0.064203925,-0.050579358,-0.11095175,0.16251278,0.15662983,0.11400618,0.08618234,0.09260694,0.03174316,-0.024013089,0.15532205,-0.04622528,0.062283803,0.0514932,-0.023005528,0.008845669,0.08009575,0.015296415,-0.048114877,-0.012025985,0.043596387,-0.06958179,-0.03150245,2.0,0.09744051,-2.0,-2.0,0.58429176,0.78374344,2.0,0.39957014,1.1326517,-2.0,-0.35131013,-2.0,2.0,-0.122995526,-2.0,-2.0,0.63170844,1.4600244,2.0,0.6718996,1.8561965,-2.0,-0.15329517,-2.0
2025-07-21 14:26:50.112,2.580000000000002,2580,129,0.10960062,0.028076574,-0.046219707,-0.08917808,0.042126138,0.023484824,0.0,0.0,0.0,0.02865461,-0.06545339,0.055741858,-0.046732288,-0.12776275,0.15976562,0.15826598,0.10635383,0.08027531,0.1257973,0.028494488,-0.026675645,0.15812105,-0.021762783,0.004824098,-0.0122851515,-0.06339727,0.043589186,0.04513287,0.051713545,0.058361318,0.08315202,-0.0013741794,0.075384386,0.024388101,2.0,-0.122995526,-2.0,-2.0,0.63170844,1.4600244,2.0,0.6718996,1.8561965,-2.0,-0.15329517,-2.0,2.0,-0.103210896,-2.0,-2.0,0.45384935,1.947897,1.7955321,0.81837046,2.0,-2.0,-0.40428302,-2.0
2025-07-21 14:26:50.137,2.600000000000002,2600,130,0.05943152,-0.05970105,-0.010949979,-0.021440433,0.07260451,-0.019601308,0.0,0.0,0.0,0.028576296,-0.06939383,0.046902288,-0.022862066,-0.13107863,0.16544662,0.18253125,0.109320655,0.10651218,0.14390677,0.01941742,-0.023272378,0.16875772,-0.08138805,-0.08793119,0.12460633,0.034049395,-0.06395737,0.04141301,0.047840696,0.096239604,0.076867566,0.054908574,0.030911688,0.06978403,2.0,-0.103210896,-2.0,-2.0,0.45384935,1.947897,1.7955321,0.81837046,2.0,-2.0,-0.40428302,-2.0,1.7606628,-0.16236532,-2.0,-2.0,0.7570898,1.883508,1.3907608,0.90316486,2.0,-2.0,-0.34729046,-2.0
2025-07-21 14:26:50.155,2.620000000000002,2620,131,0.06765643,-0.016782505,-0.037046593,-0.068532154,0.040969126,0.0200851,0.0,0.0,0.0,0.028656274,-0.07431937,0.023665514,-0.009702874,-0.13093854,0.14534281,0.21418996,0.11644368,0.13340893,0.18424526,0.022089181,-0.03850462,0.16512018,-0.0262023,-0.104416944,0.08445992,0.04555179,0.058491632,0.02545588,0.038734414,0.05897569,0.12689707,-0.03710741,0.006962279,0.0835077,1.7606628,-0.16236532,-2.0,-2.0,0.7570898,1.883508,1.3907608,0.90316486,2.0,-2.0,-0.34729046,-2.0,1.5082648,-0.09894708,-1.9806478,-2.0,0.6933316,1.6368959,1.352789,0.8168074,1.1576525,-2.0,-0.40470323,-2.0
2025-07-21 14:26:50.173,2.640000000000002,2640,132,0.03344303,-0.005109094,-0.030913722,-0.0064788046,0.0551808,-0.009811609,0.0,0.0,0.0,0.02901778,-0.08138503,0.020654093,0.029775074,-0.13165864,0.1496255,0.22928399,0.1055871,0.15639272,0.17251588,0.02331093,-0.042430107,0.18243195,-0.067074545,-0.051467367,0.10185265,-0.038581494,-0.024577236,-0.016608208,-0.058349602,0.06533647,-0.057450023,-0.04772801,-0.038034685,0.022302326,1.5082648,-0.09894708,-1.9806478,-2.0,0.6933316,1.6368959,1.352789,0.8168074,1.1576525,-2.0,-0.40470323,-2.0,1.6706207,0.110492244,-1.4199588,-2.0,0.7229723,1.0367073,1.7815903,0.63181674,-0.12846175,-2.0,-0.5990584,-2.0
2025-07-21 14:26:50.193,2.660000000000002,2660,133,0.07605149,0.017111193,-0.028369235,0.004773786,0.012270066,-0.03526997,0.0,0.0,0.0,0.029803628,-0.088927194,-0.0025450508,0.036657933,-0.13095614,0.13706227,0.2419864,0.10478025,0.17007864,0.15444337,0.024753544,-0.03492539,0.20626295,-0.08170656,-0.005198119,-0.019251393,-0.057613146,0.007830715,0.087715335,0.062668964,0.010285291,-0.13595347,-0.06103261,-0.09267862,-0.02121204,1.6706207,0.110492244,-1.4199588,-2.0,0.7229723,1.0367073,1.7815903,0.63181674,-0.12846175,-2.0,-0.5990584,-2.0,2.0,0.29909924,-1.0334489,-2.0,0.93745476,0.50246644,2.0,-0.07027301,-1.9706966,-2.0,-0.81455797,-2.0
2025-07-21 14:26:50.215,2.680000000000002,2680,134,-0.006941721,0.0033410848,-0.015544911,-0.09383651,0.015044759,-0.003067411,0.0,0.0,0.0,0.03078122,-0.086364254,-0.008470515,0.0528401,-0.15035546,0.14380075,0.25948218,0.10950223,0.16651107,0.1426425,0.02813646,-0.043129336,0.20825273,0.007860858,0.04773703,0.0067366315,-0.018228358,0.027825717,0.015640363,0.08241797,-0.06914909,0.055693828,0.043092698,-0.0031511365,0.09038689,2.0,0.29909924,-1.0334489,-2.0,0.93745476,0.50246644,2.0,-0.07027301,-1.9706966,-2.0,-0.81455797,-2.0,2.0,1.0622821,-0.6556747,-2.0,0.85187757,-0.067926735,2.0,-0.9609262,-2.0,-1.9569465,-0.6983907,-2.0
2025-07-21 14:26:50.238,2.700000000000002,2700,135,-0.02621945,-0.03392538,-0.016544139,0.0016131431,0.003844702,0.029261826,0.0,0.0,0.0,0.031265214,-0.072940774,-0.017303875,0.07625769,-0.14422336,0.14436421,0.26817554,0.11652807,0.17254189,0.15455073,0.016519343,-0.05456407,0.22712296,-0.051175278,0.058196064,0.010450459,0.04138586,-0.044147644,0.0070372703,-0.039371837,-0.024568811,-0.02347175,0.04996139,-0.031775873,0.06993049,2.0,1.0622821,-0.6556747,-2.0,0.85187757,-0.067926735,2.0,-0.9609262,-2.0,-1.9569465,-0.6983907,-2.0,2.0,1.2993315,-0.967204,-2.0,0.5158103,0.13456193,2.0,-0.95999944,-2.0,-2.0,-0.6716773,-2.0
2025-07-21 14:26:50.256,2.720000000000002,2720,136,-0.052180797,-0.009830215,0.04600903,-0.08301565,0.033849813,-0.016873281,0.0,0.0,0.0,0.031088294,-0.067879595,-0.0133857,0.05993436,-0.12659115,0.1280241,0.2622503,0.123781234,0.15154329,0.16242994,0.031980865,-0.04800247,0.22885448,0.030737396,0.0018702323,0.040715273,0.049320295,-0.0055110077,-0.028712431,0.052374206,-0.08970164,0.043767445,0.02534517,-0.020240055,-0.032932553,2.0,1.2993315,-0.967204,-2.0,0.5158103,0.13456193,2.0,-0.95999944,-2.0,-2.0,-0.6716773,-2.0,2.0,1.0144737,-1.9640119,-2.0,0.81964153,0.24046817,2.0,-0.9798738,-2.0,-2.0,-0.32629165,-2.0
2025-07-21 14:26:50.274,2.740000000000002,2740,137,-0.034368657,0.010272121,0.06558842,-0.015350641,0.032404304,-0.013309113,0.0,0.0,0.0,0.030468404,-0.0542925,-0.00070660334,0.04622233,-0.112093024,0.1449128,0.2335002,0.11114887,0.15296343,0.150658,0.03150377,-0.06231006,0.20592593,0.022404276,-0.024899788,-0.04432026,-0.014269907,0.07659373,-0.0497856,0.020132456,-0.07583906,-0.009073398,0.011423887,-0.023371128,-0.07864904,2.0,1.0144737,-1.9640119,-2.0,0.81964153,0.24046817,2.0,-0.9798738,-2.0,-2.0,-0.32629165,-2.0,2.0,0.9129814,-2.0,-2.0,0.64523214,0.33903545,2.0,-0.87829953,-1.256741,-1.8969969,-0.09202291,-2.0
2025-07-21 14:26:50.293,2.760000000000002,2760,138,-0.01817204,0.07472075,0.009557836,-0.08475332,0.016422547,0.0017205506,0.0,0.0,0.0,0.029928962,-0.053314906,0.010953703,0.020265033,-0.12099117,0.13920715,0.22072692,0.116031036,0.13992587,0.14567837,0.041343734,-0.056128614,0.20705202,0.011866875,0.056598682,-0.027898,0.04199328,-0.007373607,0.02295327,-0.015489913,-0.012199254,-0.05929649,0.028649934,-0.03433863,-0.01416845,2.0,0.9129814,-2.0,-2.0,0.64523214,0.33903545,2.0,-0.87829953,-1.256741,-1.8969969,-0.09202291,-2.0,2.0,0.97827256,-2.0,-2.0,0.38827163,0.37652886,2.0,-0.37290415,-0.4439148,-1.7894429,-0.10515042,-2.0
2025-07-21 14:26:50.313,2.780000000000002,2780,139,-0.0042094295,-0.0064683845,0.04157572,-0.089392215,0.042383213,0.048579518,0.0,0.0,0.0,0.02988881,-0.047231253,0.016272001,0.010300609,-0.11132094,0.15076123,0.2129299,0.1170889,0.11428377,0.14309236,0.02738236,-0.05467126,0.17967881,-0.06438111,-0.043207914,0.015823703,-0.01878297,-0.04880996,0.024197344,0.046725657,-0.036634903,-0.04102625,-0.00237014,0.050658885,-0.055863656,2.0,0.97827256,-2.0,-2.0,0.38827163,0.37652886,2.0,-0.37290415,-0.4439148,-1.7894429,-0.10515042,-2.0,2.0,0.29639557,-2.0,-2.0,0.56343025,0.61034477,2.0,-0.035949994,0.7304916,-1.6762841,0.012638757,-2.0
2025-07-21 14:26:50.338,2.800000000000002,2800,140,0.035937566,0.021677203,-0.005841476,-0.03197983,0.07558494,-0.030011531,0.0,0.0,0.0,0.030040959,-0.05359298,0.021828307,-0.013483519,-0.11087256,0.15803313,0.18700342,0.110956624,0.097513124,0.12932834,0.02706508,-0.035314653,0.16693622,0.051323704,0.083683096,-0.0481115,0.056363244,-0.0064978492,0.041878354,-0.05393687,-0.06403808,0.025978327,0.055022646,-0.039698772,-0.010122995,2.0,0.29639557,-2.0,-2.0,0.56343025,0.61034477,2.0,-0.035949994,0.7304916,-1.6762841,0.012638757,-2.0,2.0,0.18058573,-2.0,-2.0,0.3188861,1.1970174,2.0,0.53026664,1.3985113,-1.8880916,-0.19317415,-2.0
2025-07-21 14:26:50.354,2.820000000000002,2820,141,0.058155373,0.058955878,0.03229005,-0.07335867,0.10389459,0.006561041,0.0,0.0,0.0,0.030343752,-0.060910825,0.023550553,-0.023251127,-0.109244704,0.15329379,0.18071352,0.11440549,0.098637015,0.13370502,0.030517738,-0.024335084,0.16653906,-0.03548627,-0.016482215,0.013007697,-0.030877292,-0.007155506,-0.050583046,0.008953836,-0.028464247,-0.024407472,0.016066384,-0.005661397,-0.08100248,2.0,0.18058573,-2.0,-2.0,0.3188861,1.1970174,2.0,0.53026664,1.3985113,-1.8880916,-0.19317415,-2.0,1.8790661,-0.17973131,-2.0,-2.0,0.7363493,1.5818486,1.5867511,0.770391,2.0,-2.0,-0.16768916,-2.0
2025-07-21 14:26:50.374,2.840000000000002,2840,142,0.05866589,0.008759611,0.0032201062,-0.06087656,0.00966379,0.049969885,0.0,0.0,0.0,0.030678594,-0.07451025,0.031094303,-0.011775973,-0.11929039,0.15943092,0.17750233,0.114184074,0.10558829,0.15368512,0.04253715,-0.031136539,0.15842652,-0.04875075,-0.006611414,0.034995712,-0.01336978,-0.0587349,-0.016834218,-0.06194336,0.08068694,0.041050527,0.027199036,0.08136644,-0.03494644,1.8790661,-0.17973131,-2.0,-2.0,0.7363493,1.5818486,1.5867511,0.770391,2.0,-2.0,-0.16768916,-2.0,1.8218613,-0.16325673,-2.0,-2.0,0.58311194,1.9551249,1.2627851,0.84693545,2.0,-2.0,-0.2014444,-2.0
2025-07-21 14:26:50.395,2.860000000000002,2860,143,0.027457193,-0.012938675,-0.028321732,-0.03126338,0.034935705,-0.041056823,0.0,0.0,0.0,0.031081328,-0.0752051,0.019039001,0.009856605,-0.12935542,0.16039748,0.20321205,0.11603672,0.11833901,0.18377979,0.027190128,-0.022586942,0.16928528,-0.052741192,-0.0722302,0.015939193,-0.021929191,-0.035280723,0.08753553,0.021472573,0.072345234,-0.0068625542,-0.05349107,0.019337937,-0.05921477,1.8218613,-0.16325673,-2.0,-2.0,0.58311194,1.9551249,1.2627851,0.84693545,2.0,-2.0,-0.2014444,-2.0,1.6061774,-0.042526543,-2.0,-2.0,0.6706675,1.7468659,0.8000428,0.9075293,1.7961551,-2.0,-0.3479123,-2.0
2025-07-21 14:26:50.418,2.880000000000002,2880,144,0.007496594,-0.015144903,-0.060494274,-0.066317484,0.052173655,-0.049272563,0.0,0.0,0.0,0.031755477,-0.08507085,0.008574383,0.029316729,-0.11731327,0.15860084,0.21578322,0.10352552,0.15841359,0.20088525,0.02870121,-0.023987738,0.16325177,-0.02704712,-0.09694179,0.057689443,0.0027640022,-0.06569469,0.06309612,-0.086610466,0.030091844,-0.024851516,-0.009766609,0.024156747,0.03415713,1.6061774,-0.042526543,-2.0,-2.0,0.6706675,1.7468659,0.8000428,0.9075293,1.7961551,-2.0,-0.3479123,-2.0,1.6666975,0.06496751,-1.2165741,-2.0,0.7119238,1.1617255,0.8776699,0.8870033,0.26091334,-2.0,-0.5614783,-2.0
2025-07-21 14:26:50.438,2.900000000000002,2900,145,0.078077674,0.018770074,-0.07694242,-0.040595923,0.07803251,0.046673,0.0,0.0,0.0,0.032657124,-0.07653308,-0.01230055,0.035232536,-0.13574918,0.15664281,0.21152851,0.09910802,0.18168539,0.16221221,0.02819889,-0.01012423,0.1842935,-0.07557928,-0.055157263,0.007341035,-0.08561608,-0.049567714,-0.009684021,-0.09778171,0.10656318,-0.06670064,-0.0022855953,-0.034601733,0.058834318,1.6666975,0.06496751,-1.2165741,-2.0,0.7119238,1.1617255,0.8776699,0.8870033,0.26091334,-2.0,-0.5614783,-2.0,2.0,0.33427265,-0.092132755,-2.0,0.9293189,0.23951793,1.8119767,0.30190736,-2.0,-1.5968883,-0.9274276,-2.0
2025-07-21 14:26:50.455,2.920000000000002,2920,146,0.025569541,-0.025920326,-0.020685332,-0.033126943,0.0021769505,0.03743734,0.0,0.0,0.0,0.033492427,-0.08888674,-0.019182906,0.061249863,-0.12853254,0.14320786,0.22390746,0.094687335,0.17837384,0.12088881,0.038955647,-0.024868252,0.19557947,-0.026688542,0.0057169874,0.12041393,0.08333986,-0.045536466,-0.0113411555,0.04455407,-0.03517702,-0.07867829,0.07044581,-0.06759941,-0.016844325,2.0,0.33427265,-0.092132755,-2.0,0.9293189,0.23951793,1.8119767,0.30190736,-2.0,-1.5968883,-0.9274276,-2.0,2.0,1.0878671,0.098473065,-2.0,0.8053177,-0.41529128,2.0,-0.8451921,-2.0,-1.107863,-0.9036394,-2.0
2025-07-21 14:26:50.475,2.940000000000002,2940,147,0.018024992,-0.01344702,0.017670931,-0.032625202,0.0005201734,-0.038201235,0.0,0.0,0.0,0.033720963,-0.06919658,-0.01685254,0.073145375,-0.12664765,0.15051784,0.24145931,0.091310896,0.18159421,0.13028729,0.031117093,-0.035501715,0.1971399,0.085420646,-0.079555996,0.0044798893,0.032331463,0.030537572,-0.00019577288,0.041500803,0.036493275,0.05538216,-0.056483727,0.04912836,-0.021253727,2.0,1.0878671,0.098473065,-2.0,0.8053177,-0.41529128,2.0,-0.8451921,-2.0,-1.107863,-0.9036394,-2.0,2.0,1.114623,-0.80325365,-2.0,0.6636528,0.07562597,2.0,-0.982631,-2.0,-1.0685979,-0.57108766,-2.0
2025-07-21 14:26:50.494,2.960000000000002,2960,148,-0.10076211,0.03195798,0.07191724,-0.038607024,0.030865334,0.044229694,0.0,0.0,0.0,0.032849833,-0.07284003,-0.017058365,0.07124588,-0.10798998,0.13888417,0.22586955,0.101702765,0.17039675,0.16038963,0.037709463,-0.04492597,0.19754742,0.08819963,-0.032761138,0.01068387,-0.0347644,0.041039515,-0.00832046,-0.04848797,0.029147895,0.00797485,-0.053146083,-0.011180093,-0.00813227,2.0,1.114623,-0.80325365,-2.0,0.6636528,0.07562597,2.0,-0.982631,-2.0,-1.0685979,-0.57108766,-2.0,2.0,1.1890353,-1.2750666,-2.0,0.6545896,0.34067908,2.0,-0.9875486,-2.0,-1.13905,-0.30499077,-2.0
2025-07-21 14:26:50.520,2.980000000000002,2980,149,-0.0670982,0.023127584,0.005100033,0.01655779,0.06098149,-0.0071883234,0.0,0.0,0.0,0.031688545,-0.05942093,-0.015057595,0.075209945,-0.10259819,0.14636947,0.21567972,0.102588564,0.15241605,0.15167022,0.037926894,-0.04811302,0.20099382,0.046000276,-0.034340154,-0.041636318,0.06968871,0.020132469,-0.0018826751,0.031127058,0.04826189,-0.057211448,-0.009919015,0.0529647,-0.07319937,2.0,1.1890353,-1.2750666,-2.0,0.6545896,0.34067908,2.0,-0.9875486,-2.0,-1.13905,-0.30499077,-2.0,2.0,1.2007066,-1.4524244,-2.0,0.39450034,0.21659452,2.0,-0.70769584,-2.0,-1.1708821,-0.32418662,-2.0
2025-07-21 14:26:50.538,3.000000000000002,3000,150,-0.09937383,-0.012107625,-0.018074676,-0.050103057,0.08635501,-0.03612655,0.0,0.0,0.0,0.030859059,-0.051127475,-0.016025435,0.050972607,-0.08320285,0.14479958,0.2048214,0.09647174,0.16358076,0.16464812,0.048364803,-0.043553088,0.1924575,0.005850601,0.0217533,-0.10794737,0.0841335,-0.0339437,-0.09663244,-0.06217458,0.053878054,-0.0062383283,0.083769016,0.064020544,-0.008852457,2.0,1.2007066,-1.4524244,-2.0,0.39450034,0.21659452,2.0,-0.70769584,-2.0,-1.1708821,-0.32418662,-2.0,2.0,1.3179322,-0.94627833,-2.0,0.3542113,-0.09967412,2.0,-0.45719597,-2.0,-1.0650728,-0.44068092,-2.0
2025-07-21 14:26:50.559,3.0200000000000022,3020,151,-0.07409586,-0.023652034,0.07729617,0.0055480185,0.060011864,-0.0244998,0.0,0.0,0.0,0.03032561,-0.044906475,0.004398533,0.041511226,-0.08948352,0.1488364,0.1983038,0.09953338,0.165,0.13988888,0.04590102,-0.043340698,0.17912678,-0.047914956,0.007852292,-0.00030989895,0.07061564,0.07872278,-0.04362028,0.03741127,0.05195614,-0.03684168,0.058848616,0.032668035,-0.07705932,2.0,1.3179322,-0.94627833,-2.0,0.3542113,-0.09967412,2.0,-0.45719597,-2.0,-1.0650728,-0.44068092,-2.0,2.0,0.8367857,-1.3227768,-2.0,0.6424362,0.2564915,2.0,-0.81464875,-2.0,-0.8031498,-0.25394735,-2.0
2025-07-21 14:26:50.578,3.0400000000000023,3040,152,-0.026552027,0.0094810845,0.006601163,-0.06602248,0.04476701,0.016657863,0.0,0.0,0.0,0.029664658,-0.026063282,0.004079007,0.032330357,-0.06840218,0.14775203,0.17676151,0.10327927,0.16035216,0.13072763,0.06383125,-0.040855307,0.17604658,0.024590617,-0.006956875,0.025434824,0.013548145,-0.021470593,-0.036442626,0.03275736,-0.009938146,0.00053294207,0.04448272,0.03240709,-0.07267963,2.0,0.8367857,-1.3227768,-2.0,0.6424362,0.2564915,2.0,-0.81464875,-2.0,-0.8031498,-0.25394735,-2.0,2.0,1.3923386,-1.1000412,-2.0,0.41814214,0.14155032,2.0,-0.57652706,-2.0,-0.7611158,-0.23915063,-2.0
2025-07-21 14:26:50.604,3.0600000000000023,3060,153,-0.056410935,-0.0029729563,0.054436505,-0.023620455,0.032482807,-0.04605437,0.0,0.0,0.0,0.029172923,-0.040912066,0.010539892,0.01722875,-0.069284275,0.16792409,0.1576998,0.09663851,0.16443834,0.11119229,0.0610139,-0.022701975,0.1544207,0.063352086,0.058833737,-0.069671646,0.017332857,-0.038085755,0.0155024845,0.057891726,0.0050792154,0.028764844,0.068562984,-0.031473644,-0.039385866,2.0,1.3923386,-1.1000412,-2.0,0.41814214,0.14155032,2.0,-0.57652706,-2.0,-0.7611158,-0.23915063,-2.0,2.0,0.91423786,-1.426958,-2.0,0.5031923,0.16649224,2.0,-0.63020146,-2.0,-0.19881903,-0.13611771,-2.0
2025-07-21 14:26:50.621,3.0800000000000023,3080,154,-0.008665358,-0.010118407,-0.033985656,-0.0077885967,0.09501249,-0.025380032,0.0,0.0,0.0,0.028918935,-0.03360432,0.023920242,-0.0005245814,-0.06709551,0.15691759,0.15094174,0.10211708,0.16132404,0.10220221,0.06290028,-0.034214407,0.15298699,-0.046312295,0.063334286,0.032682803,0.056126665,0.034167096,-0.030778395,0.024895256,0.054159407,-0.070631176,0.04172776,0.08817915,-0.059709094,2.0,0.91423786,-1.426958,-2.0,0.5031923,0.16649224,2.0,-0.63020146,-2.0,-0.19881903,-0.13611771,-2.0,2.0,1.3485507,-0.872113,-2.0,0.21562494,0.08207327,2.0,-0.3019038,-2.0,-0.101805195,-0.37942877,-2.0
2025-07-21 14:26:50.641,3.1000000000000023,3100,155,0.0079999035,-0.008297127,-0.028695982,-0.004747271,0.03309265,0.02756973,0.0,0.0,0.0,0.028897142,-0.024788052,0.042249925,-0.019483147,-0.06878948,0.17009847,0.1433859,0.09562763,0.1676467,0.08280055,0.06894835,-0.013970186,0.1422515,-0.0466423,-0.0012776721,0.031428315,-0.003783683,-0.07175562,0.003256901,0.013208886,-0.0025310505,-0.09262492,0.019682214,0.00059765985,-0.042893693,2.0,1.3485507,-0.872113,-2.0,0.21562494,0.08207327,2.0,-0.3019038,-2.0,-0.101805195,-0.37942877,-2.0,2.0,1.0709265,-0.82744277,-2.0,0.2775104,-0.049906228,2.0,-0.15079372,-2.0,0.4553565,-0.43037316,-2.0
2025-07-21 14:26:50.660,3.1200000000000023,3120,156,0.03254684,-0.069136314,-0.015264956,-0.007510281,0.04832945,0.021955958,0.0,0.0,0.0,0.028831618,-0.013084622,0.04021642,-0.0216246,-0.064573035,0.15448128,0.12736619,0.10594799,0.1732425,0.07468945,0.07316942,-0.019730024,0.1418777,0.083188646,-0.027598133,0.03388423,0.016679019,-0.06756269,-0.04115777,0.030078355,0.044682365,0.04012033,0.014548887,-0.022672562,-0.054706577,2.0,1.0709265,-0.82744277,-2.0,0.2775104,-0.049906228,2.0,-0.15079372,-2.0,0.4553565,-0.43037316,-2.0,2.0,1.0592235,-0.731279,-2.0,0.2816321,-0.02405319,1.8451387,-0.05568214,-2.0,1.114955,-0.34503773,-2.0
