openverse-orca/OrcaGym/log/simulation_log_20250606_161759.csv
timestamp,imu_angle_roll,imu_angle_pitch,imu_angle_yaw,imu_angular_velocity_roll,imu_angular_velocity_pitch,imu_angular_velocity_yaw,imu_acc_x,imu_acc_y,imu_acc_z,fl_joint1_pos,fl_joint1_vel,fl_joint1_torque,fl_joint2_pos,fl_joint2_vel,fl_joint2_torque,fl_joint3_pos,fl_joint3_vel,fl_joint3_torque,fr_joint1_pos,fr_joint1_vel,fr_joint1_torque,fr_joint2_pos,fr_joint2_vel,fr_joint2_torque,fr_joint3_pos,fr_joint3_vel,fr_joint3_torque,hl_joint1_pos,hl_joint1_vel,hl_joint1_torque,hl_joint2_pos,hl_joint2_vel,hl_joint2_torque,hl_joint3_pos,hl_joint3_vel,hl_joint3_torque,hr_joint1_pos,hr_joint1_vel,hr_joint1_torque,hr_joint2_pos,hr_joint2_vel,hr_joint2_torque,hr_joint3_pos,hr_joint3_vel,hr_joint3_torque,fl_force_x,fl_force_y,fl_force_z,fr_force_x,fr_force_y,fr_force_z,hl_force_x,hl_force_y,hl_force_z,hr_force_x,hr_force_y,hr_force_z,fl_hip_action,fl_thigh_action,fl_calf_action,fr_hip_action,fr_thigh_action,fr_calf_action,hl_hip_action,hl_thigh_action,hl_calf_action,hr_hip_action,hr_thigh_action,hr_calf_action
2025-06-06 16:17:59.209,-0.034427352,0.03746225,-0.031039169,0.016740868,-0.03665078,-0.04257966,0.0,0.0,0.0,0.0,0.00020962652,-0.005423266,0.000853838,-0.00864871,0.009025497,0.0045751855,0.006514354,-0.0009065065,0.004158836,0.009532495,0.0070900717,0.0016938054,0.026595935,-0.026654541,-0.028229527,0.060328845,-0.05451446,-0.0233005,0.033689253,-0.011468845,-0.01161813,0.012572085,0.06842093,-0.070617,0.0,0.0,0.0,0.0,0.0,0.0,0.0,0.0,0.0,0.0,0.0,0.0,0.45566705,-0.21572354,-0.6666817,-0.8133353,0.60698897,-0.10189503,-0.11182019,-0.58291084,-0.67089057,-0.23196712,-0.3476746,-2.2775378
2025-06-06 16:17:59.216,0.0045589744,-0.07363534,0.035424545,0.0016477603,0.044364046,-0.02098548,0.0,0.0,0.0,0.0,-0.006448631,-0.0109654935,-0.0061834804,-0.016221216,0.023547497,-0.010516632,-0.0007050294,-0.02592455,-0.008597902,0.0029025658,-0.010857646,-0.05048765,-0.033056416,-0.024231238,0.014725825,0.012954396,0.058041647,-0.065349214,0.025475424,-0.09932326,0.018558452,-0.029644027,-0.0030413808,-0.2139174,0.45566705,-0.21572354,-0.6666817,-0.8133353,0.60698897,-0.10189503,-0.11182019,-0.58291084,-0.67089057,-0.23196712,-0.3476746,-2.2775378,1.7850354,-0.8003545,-3.0,0.6341828,0.45346656,1.6436448,-2.3349109,-0.8046585,-2.5546649,-2.789853,1.5529201,-3.0
2025-06-06 16:17:59.236,-0.26069304,-0.11918883,-0.11671394,0.02235172,0.0351067,-0.0023552978,0.0,0.0,0.0,0.0,0.0023189988,-0.033633385,-0.08181108,-0.016964165,0.049504712,0.03604856,-0.017758172,-0.05802678,-0.08691645,-0.009644188,0.009751257,-0.10156618,-0.033959806,-0.091895275,-0.06618173,0.02840525,0.03717899,0.10521303,-0.08963142,-0.099764295,-0.20862801,-0.05809236,0.07596595,-0.1492522,1.7850354,-0.8003545,-3.0,0.6341828,0.45346656,1.6436448,-2.3349109,-0.8046585,-2.5546649,-2.789853,1.5529201,-3.0,3.0,0.83123505,-3.0,3.0,0.71859807,0.26336864,-3.0,-1.7408031,-3.0,-3.0,-0.43484002,-3.0
2025-06-06 16:17:59.259,0.008874579,0.12115658,-0.079081595,0.008363259,-0.025583845,-0.041787256,0.0,0.0,0.0,0.0,0.0027114793,-0.046317708,-0.06924489,0.011896834,0.079834186,0.051364914,-0.023510436,-0.06966946,-0.094729304,-0.013802755,0.016397232,-0.11104996,-0.012791007,0.02847486,0.0010991705,0.06865325,0.077788755,-0.0800511,0.052033506,-0.05360275,-0.012927695,-0.04742974,0.028077349,0.04410726,3.0,0.83123505,-3.0,3.0,0.71859807,0.26336864,-3.0,-1.7408031,-3.0,-3.0,-0.43484002,-3.0,3.0,0.30359128,-3.0,3.0,3.0,-1.0662847,-3.0,-1.4126036,-3.0,-3.0,0.07472597,-3.0
2025-06-06 16:17:59.278,0.014688564,0.13699646,-0.11006339,0.038278535,0.013869189,0.013083555,0.0,0.0,0.0,0.0,0.007593708,-0.074254006,-0.058318313,0.041987907,0.19824067,0.007052459,-0.025195217,-0.08798973,-0.083223164,0.00020615748,0.00964426,-0.08263371,-0.0080782,0.034854297,0.03564876,0.106621064,0.39252356,-0.18318516,-0.030455565,-0.07876602,0.06815765,0.067839116,0.05083635,0.0023215332,3.0,0.30359128,-3.0,3.0,3.0,-1.0662847,-3.0,-1.4126036,-3.0,-3.0,0.07472597,-3.0,3.0,0.11727175,-3.0,3.0,3.0,-2.8754234,-3.0,-1.3001822,-3.0,-3.0,0.6600649,-3.0
2025-06-06 16:17:59.297,-0.06213651,0.031337842,-0.12740871,0.006556409,0.04704499,-0.026854305,0.0,0.0,0.0,0.0,-0.0069190827,-0.07536844,-0.043994226,0.067548804,0.30886978,-0.070067346,-0.036976244,-0.101070434,-0.12297333,-0.0076983855,0.025028918,-0.077471115,-0.07286263,-0.047795877,0.05735254,-0.027237369,0.1626914,-0.15653403,0.011086667,-0.019668704,-0.12521015,-0.020194327,0.08753658,-0.016587406,3.0,0.11727175,-3.0,3.0,3.0,-2.8754234,-3.0,-1.3001822,-3.0,-3.0,0.6600649,-3.0,3.0,0.3110053,-3.0,3.0,3.0,-3.0,-3.0,-1.4451908,-3.0,-3.0,0.30710477,-3.0
2025-06-06 16:17:59.317,-0.001626233,0.028774172,-0.042777278,0.055416092,0.004890541,0.027421463,0.0,0.0,0.0,0.0,0.0012068965,-0.056741145,-0.054710988,0.06276928,0.34316617,-0.11157391,-0.066704966,-0.13975643,-0.18586186,0.0019981647,0.023576684,-0.094193086,0.018944507,-0.03506404,-0.019616723,0.067202546,0.13521127,-0.08450021,-0.100406684,-0.09837026,-0.13062733,0.007106931,0.05671435,-0.05534727,3.0,0.3110053,-3.0,3.0,3.0,-3.0,-3.0,-1.4451908,-3.0,-3.0,0.30710477,-3.0,3.0,-0.13788985,-3.0,3.0,3.0,-3.0,-3.0,-1.3763882,-3.0,-3.0,0.8100285,-3.0
2025-06-06 16:17:59.337,0.015788654,-0.042298514,-0.103795625,0.050593656,0.060998764,0.0014613823,0.0,0.0,0.0,0.0,-0.015409244,-0.057158355,-0.08290519,0.07259991,0.38278863,-0.12954119,-0.079380624,-0.18141988,-0.24051622,0.005064358,0.046981,-0.119738825,-0.026431715,-0.011433879,0.00060734636,0.06278204,0.07929779,-0.12847552,-0.066262975,-0.035483554,-0.14228019,-0.006732651,-0.028759845,-0.021009693,3.0,-0.13788985,-3.0,3.0,3.0,-3.0,-3.0,-1.3763882,-3.0,-3.0,0.8100285,-3.0,3.0,0.31983018,-3.0,3.0,3.0,-3.0,-3.0,-1.5351474,-3.0,-3.0,0.37445706,-3.0
2025-06-06 16:17:59.360,0.054550525,-0.07455142,0.0045090406,0.02611234,0.031431336,0.011375432,0.0,0.0,0.0,0.0,-0.015124501,-0.045996822,-0.09814188,0.071573876,0.40136597,-0.16781406,-0.09425666,-0.21387495,-0.26043507,0.006580487,0.05291913,-0.13108648,0.013728783,0.108830415,-0.10567821,-0.049105786,0.081746005,-0.14459635,-0.09558236,-0.13874082,-0.13111456,0.027974626,0.059575114,0.0014064913,3.0,0.31983018,-3.0,3.0,3.0,-3.0,-3.0,-1.5351474,-3.0,-3.0,0.37445706,-3.0,3.0,-0.5512419,-3.0,3.0,3.0,-3.0,-3.0,-1.2049371,-3.0,-3.0,1.229716,-3.0
2025-06-06 16:17:59.379,-0.0198094,-0.08721755,-0.0628055,0.014299919,-0.0009725034,-0.0300496,0.0,0.0,0.0,0.0,-0.0032108661,-0.025145773,-0.117477044,0.08085726,0.4280504,-0.19908644,-0.09754573,-0.23980682,-0.28080806,0.0034834943,0.08392558,-0.15505473,-0.03945555,0.046802346,0.032844122,-0.060910515,0.091924414,-0.11994763,-0.06519551,-0.038079757,0.024233818,-0.0003117889,0.12270907,-0.056091912,3.0,-0.5512419,-3.0,3.0,3.0,-3.0,-3.0,-1.2049371,-3.0,-3.0,1.229716,-3.0,3.0,-0.03385439,-3.0,3.0,3.0,-3.0,-3.0,-1.5686289,-3.0,-3.0,0.8276227,-3.0
2025-06-06 16:17:59.399,-0.03352118,-0.048415292,-0.073340006,-0.020740105,0.029490387,0.048450135,0.0,0.0,0.0,0.0,-0.014850729,-0.02256173,-0.12204708,0.07694143,0.47923467,-0.23170339,-0.097867146,-0.24876958,-0.30156273,0.009840382,0.09352205,-0.18002875,0.044113524,-0.0455346,0.021219356,0.015639061,0.05251703,-0.08720073,-0.05752663,-0.0737051,-0.040239118,0.037034363,-0.0038993459,-0.042892158,3.0,-0.03385439,-3.0,3.0,3.0,-3.0,-3.0,-1.5686289,-3.0,-3.0,0.8276227,-3.0,3.0,-0.09479952,-3.0,3.0,3.0,-3.0,-3.0,-1.4195938,-3.0,-3.0,0.8242965,-3.0
2025-06-06 16:17:59.419,0.049459834,0.009778882,-0.0058879866,-0.006261888,-0.010464139,-0.042739395,0.0,0.0,0.0,0.0,-0.008347671,-0.009810635,-0.13763836,0.09549371,0.50414115,-0.27757427,-0.10469735,-0.2638963,-0.30139711,0.011591794,0.108448975,-0.17644536,0.064179674,-0.04262936,0.044878088,0.018799292,0.10062659,-0.06562479,0.0055159093,-0.093254134,-0.010982557,0.00507385,0.06484342,0.06321086,3.0,-0.09479952,-3.0,3.0,3.0,-3.0,-3.0,-1.4195938,-3.0,-3.0,0.8242965,-3.0,3.0,-0.50765276,-3.0,3.0,3.0,-3.0,-3.0,-1.4320568,-3.0,-3.0,1.3425285,-3.0
2025-06-06 16:17:59.443,-0.0178073,-0.0054079825,-0.10629986,0.04625961,0.07306585,-0.032295,0.0,0.0,0.0,0.0,-0.02237979,-0.0060838414,-0.131045,0.08820069,0.53796047,-0.27958933,-0.10427135,-0.26216203,-0.31238514,0.02162524,0.116731815,-0.18552555,-0.051328883,0.06586778,0.036301423,-0.033146642,0.11461615,0.008123685,-0.0026291946,0.06162937,0.04858745,0.020155042,0.06648138,0.06281927,3.0,-0.50765276,-3.0,3.0,3.0,-3.0,-3.0,-1.4320568,-3.0,-3.0,1.3425285,-3.0,3.0,0.16817789,-3.0,3.0,3.0,-3.0,-3.0,-1.5859269,-3.0,-3.0,0.6073471,-3.0
2025-06-06 16:17:59.460,0.037806954,-0.05996514,-0.0962218,0.037436258,0.0023204181,-0.011620742,0.0,0.0,0.0,0.0,-0.010061718,-0.02157379,-0.1253098,0.09392655,0.54697025,-0.29695326,-0.105738126,-0.27684993,-0.31700885,0.013864463,0.12936507,-0.19025613,-0.0148782255,-0.008243064,0.073501304,0.074271865,-0.037421796,-0.017945629,-0.038397513,0.014969331,0.03763479,0.08062642,0.0724866,0.09284909,3.0,0.16817789,-3.0,3.0,3.0,-3.0,-3.0,-1.5859269,-3.0,-3.0,0.6073471,-3.0,3.0,-0.037669104,-3.0,3.0,3.0,-3.0,-3.0,-1.45499,-3.0,-3.0,0.5725867,-3.0
2025-06-06 16:17:59.480,0.03765858,-0.06291665,-0.01664212,0.0046855626,-0.0036760939,-0.009312069,0.0,0.0,0.0,0.0,-0.018603979,-0.03474163,-0.121990345,0.1109218,0.568475,-0.2987849,-0.11722442,-0.26507893,-0.30820602,0.01876435,0.10905742,-0.16141655,0.06357725,-0.08063995,-0.024581878,0.06938253,0.0072146254,-0.076320425,0.0067097335,0.06351918,0.055246007,-0.04582927,-0.07375652,0.039550427,3.0,-0.037669104,-3.0,3.0,3.0,-3.0,-3.0,-1.45499,-3.0,-3.0,0.5725867,-3.0,3.0,-0.39343432,-3.0,3.0,3.0,-3.0,-3.0,-1.5507342,-3.0,-3.0,1.0808676,-3.0
2025-06-06 16:17:59.500,0.0003774617,-0.055503875,-0.07228885,-0.058498666,0.0016366693,-0.0010431367,0.0,0.0,0.0,0.0,-0.01587615,-0.03138244,-0.09039266,0.09521542,0.56340593,-0.31897706,-0.11042107,-0.27442765,-0.31902346,0.032891683,0.12333357,-0.15613636,0.06392983,-0.050463174,0.09114221,-0.035534818,-0.021163926,0.0106931,0.037114106,0.02918324,0.014887433,0.019759288,0.03608051,0.009193374,3.0,-0.39343432,-3.0,3.0,3.0,-3.0,-3.0,-1.5507342,-3.0,-3.0,1.0808676,-3.0,3.0,-0.10360071,-3.0,3.0,3.0,-3.0,-3.0,-1.5516261,-3.0,-3.0,0.87842613,-3.0
2025-06-06 16:17:59.520,-0.006283453,-0.034342553,-0.04575167,-0.03296864,0.06319597,0.01796467,0.0,0.0,0.0,0.0,-0.020984042,-0.04008071,-0.09101614,0.0963287,0.56842875,-0.30333656,-0.10780442,-0.2745451,-0.31371802,0.03473905,0.10897825,-0.14326628,-0.02088185,-0.038838245,0.08675918,-0.009422585,0.066471554,0.07222688,-0.019970832,0.030929303,-0.06132855,-0.010270432,0.041742526,0.08500473,3.0,-0.10360071,-3.0,3.0,3.0,-3.0,-3.0,-1.5516261,-3.0,-3.0,0.87842613,-3.0,3.0,-0.32406428,-3.0,3.0,3.0,-3.0,-3.0,-1.4785546,-3.0,-3.0,1.037825,-3.0
2025-06-06 16:17:59.543,-0.004465789,-0.056667347,-0.05608717,-0.061907846,0.048561234,-0.043103363,0.0,0.0,0.0,0.0,-0.015328375,-0.04362525,-0.086774774,0.08943322,0.58706045,-0.3111325,-0.10527652,-0.27857742,-0.32001415,0.038915098,0.11470549,-0.13536252,-0.014733494,-0.06378885,0.06460865,-0.056196157,0.005499559,0.05861821,-0.05307868,0.039300736,-0.009599524,0.051672384,0.03450991,-0.016952587,3.0,-0.32406428,-3.0,3.0,3.0,-3.0,-3.0,-1.4785546,-3.0,-3.0,1.037825,-3.0,3.0,-0.2297248,-3.0,3.0,3.0,-3.0,-3.0,-1.5507606,-3.0,-3.0,0.9686331,-3.0
2025-06-06 16:17:59.563,0.05474022,-0.06712819,-0.1445387,-0.04910913,0.080474235,-0.04890959,0.0,0.0,0.0,0.0,-0.030677488,-0.054738287,-0.069977164,0.08926187,0.5923704,-0.30329862,-0.10962467,-0.2846197,-0.32713842,0.03479356,0.120116755,-0.1267639,0.050929703,0.019325746,-0.044849414,-0.034063444,-0.05503308,0.0063462993,0.0017442703,-0.02281177,0.076763205,0.05565206,0.04453781,0.033364635,3.0,-0.2297248,-3.0,3.0,3.0,-3.0,-3.0,-1.5507606,-3.0,-3.0,0.9686331,-3.0,3.0,0.21721074,-3.0,3.0,3.0,-3.0,-3.0,-1.5513023,-3.0,-3.0,0.459935,-3.0
2025-06-06 16:17:59.583,0.037510924,-0.019737244,-0.02728861,-0.06204127,0.053574868,-0.0012611923,0.0,0.0,0.0,0.0,-0.034726534,-0.051027447,-0.06777599,0.089056015,0.5844934,-0.30506873,-0.102771185,-0.29609466,-0.29847422,0.043592248,0.12868556,-0.118341535,0.064265765,0.03254202,-0.016661145,-0.029398194,0.006110859,-0.037390128,0.014021611,-0.028683694,0.06897036,0.031500887,-0.01896459,0.07828539,3.0,0.21721074,-3.0,3.0,3.0,-3.0,-3.0,-1.5513023,-3.0,-3.0,0.459935,-3.0,3.0,-0.64514583,-3.0,3.0,3.0,-3.0,-3.0,-1.3951135,-3.0,-3.0,1.4682602,-3.0
2025-06-06 16:17:59.603,-0.02294328,0.038824305,-0.045405783,-0.053310867,0.06313858,-0.0036170513,0.0,0.0,0.0,0.0,-0.033086903,-0.05240644,-0.052601073,0.08897005,0.58656543,-0.31878668,-0.082444355,-0.29279265,-0.30198023,0.05943072,0.13009949,-0.12711754,0.053904936,0.0025501722,0.034652043,0.028034747,-0.045334592,0.003436807,-0.027224282,-0.055262316,-0.052850094,-0.04468477,0.05526265,-0.060700104,3.0,-0.64514583,-3.0,3.0,3.0,-3.0,-3.0,-1.3951135,-3.0,-3.0,1.4682602,-3.0,3.0,-0.41297477,-3.0,3.0,3.0,-3.0,-3.0,-1.468615,-3.0,-3.0,1.4721147,-3.0
2025-06-06 16:17:59.626,-0.10982339,-0.04529274,-0.022231488,-0.064764164,0.012707323,0.049225707,0.0,0.0,0.0,0.0,-0.025313089,-0.06293221,-0.039185572,0.094809726,0.5988311,-0.30823278,-0.092088684,-0.29193586,-0.281834,0.06026795,0.14720806,-0.13933808,-0.011388537,-0.030403575,0.013186602,0.032088485,0.07518408,-0.03715439,-0.0035287861,-0.007595155,-0.036689058,0.016324256,0.022464836,0.0066362354,3.0,-0.41297477,-3.0,3.0,3.0,-3.0,-3.0,-1.468615,-3.0,-3.0,1.4721147,-3.0,3.0,-0.6297913,-3.0,3.0,3.0,-3.0,-3.0,-1.3680226,-3.0,-3.0,1.7900057,-3.0
2025-06-06 16:17:59.643,-0.07133168,-0.02557168,-0.054499287,0.00909607,0.064601734,-0.013623452,0.0,0.0,0.0,0.0,-0.046234332,-0.06074267,-0.036877837,0.094441,0.596045,-0.30845448,-0.09032987,-0.28385007,-0.29086185,0.061567463,0.18128337,-0.14633872,-0.07764879,-0.04340655,0.08339869,-0.055902876,0.05487318,0.07115382,-0.057907816,0.016309436,-0.024233457,0.06594644,0.10752461,-0.015149723,3.0,-0.6297913,-3.0,3.0,3.0,-3.0,-3.0,-1.3680226,-3.0,-3.0,1.7900057,-3.0,3.0,-0.43558216,-3.0,3.0,3.0,-3.0,-3.0,-1.4464744,-3.0,-3.0,1.5303892,-3.0
2025-06-06 16:17:59.664,-0.0047038104,0.0024130275,-0.081435405,-0.03759488,0.09776453,0.007486041,0.0,0.0,0.0,0.0,-0.03282442,-0.059977673,-0.037199665,0.09004612,0.59636444,-0.29546604,-0.084154,-0.28699955,-0.28835905,0.05067883,0.19131652,-0.15097934,0.009866048,-0.0015359869,0.03105655,0.033722527,0.04097668,0.06263719,-0.01404559,0.062902026,-0.0017265195,0.049053427,0.101287685,-0.06388845,3.0,-0.43558216,-3.0,3.0,3.0,-3.0,-3.0,-1.4464744,-3.0,-3.0,1.5303892,-3.0,3.0,-0.3646388,-3.0,3.0,3.0,-3.0,-3.0,-1.4402436,-3.0,-3.0,1.3445382,-3.0
2025-06-06 16:17:59.684,-0.003216147,0.006619886,-0.03733154,0.021493731,0.037150454,0.041303486,0.0,0.0,0.0,0.0,-0.0328956,-0.057956073,-0.033410583,0.0913929,0.60424656,-0.30353394,-0.082480885,-0.2715594,-0.29282677,0.06542042,0.2058941,-0.170357,-0.037065618,-0.054723516,0.03648293,0.01803476,-0.06382581,-0.0775322,-0.043503154,0.0524032,0.020504858,0.012692413,-0.0219676,-0.046530757,3.0,-0.3646388,-3.0,3.0,3.0,-3.0,-3.0,-1.4402436,-3.0,-3.0,1.3445382,-3.0,3.0,-0.52397114,-3.0,3.0,3.0,-3.0,-3.0,-1.3599099,-3.0,-3.0,1.6515325,-3.0
2025-06-06 16:17:59.704,-0.04226687,-0.037582316,-0.031213831,-0.03702331,0.08998602,0.02489221,0.0,0.0,0.0,0.0,-0.03956697,-0.051907774,-0.02956461,0.09138456,0.6061646,-0.29674584,-0.07904997,-0.27171293,-0.30244693,0.06066649,0.19979964,-0.16410819,-0.023333225,0.054287918,0.07057634,0.017210938,0.050832395,-0.07884765,-0.0039306693,0.01136072,-0.016943723,0.043272052,-0.015823126,-0.04962648,3.0,-0.52397114,-3.0,3.0,3.0,-3.0,-3.0,-1.3599099,-3.0,-3.0,1.6515325,-3.0,3.0,-0.5863889,-3.0,3.0,3.0,-3.0,-3.0,-1.3918885,-3.0,-3.0,1.8088685,-3.0
2025-06-06 16:17:59.727,-0.07065293,0.03135889,-0.10025277,-0.034962974,0.028781023,-0.049925327,0.0,0.0,0.0,0.0,-0.058393516,-0.04840861,-0.029729106,0.09867275,0.6017458,-0.3035881,-0.07260917,-0.28592572,-0.29882112,0.056722242,0.22259694,-0.16212262,-0.03569526,-0.038276237,-0.04536619,-0.06995652,0.045919035,0.0013925383,0.034018494,0.07695977,0.02850827,0.040775146,-0.010429107,-0.030667115,3.0,-0.5863889,-3.0,3.0,3.0,-3.0,-3.0,-1.3918885,-3.0,-3.0,1.8088685,-3.0,3.0,-0.23256162,-3.0,3.0,3.0,-3.0,-3.0,-1.391539,-3.0,-3.0,1.3551944,-3.0
2025-06-06 16:17:59.744,0.040960483,0.051410507,-0.05641699,0.0020531516,0.057434503,0.033868194,0.0,0.0,0.0,0.0,-0.06022601,-0.054094125,-0.037561025,0.092426315,0.59818643,-0.30591813,-0.07178052,-0.28430295,-0.2992873,0.06502822,0.22674339,-0.16764608,-0.009500761,0.03262756,0.024198417,-0.013159521,-0.05264037,-0.073353335,-0.013202181,-0.043027543,-0.065010175,-0.021289665,0.0447063,0.057936974,3.0,-0.23256162,-3.0,3.0,3.0,-3.0,-3.0,-1.391539,-3.0,-3.0,1.3551944,-3.0,3.0,-0.5829316,-3.0,3.0,3.0,-3.0,-3.0,-1.2356691,-3.0,-3.0,1.7402606,-3.0
2025-06-06 16:17:59.764,-0.002276305,-0.014584695,-0.038289525,-0.025192559,0.00044380652,-0.040985137,0.0,0.0,0.0,0.0,-0.047336034,-0.036985543,-0.039621364,0.09157205,0.60133034,-0.29442793,-0.08324799,-0.27645817,-0.29036885,0.058864016,0.22138834,-0.17278297,0.03970346,-0.010652698,0.011928562,-0.009304003,0.017127005,-0.035476398,0.010630281,-0.06600371,-0.02926484,0.028698785,0.011840308,0.046533898,3.0,-0.5829316,-3.0,3.0,3.0,-3.0,-3.0,-1.2356691,-3.0,-3.0,1.7402606,-3.0,3.0,-0.53080374,-3.0,3.0,3.0,-3.0,-3.0,-1.4108826,-3.0,-3.0,1.7743615,-3.0
2025-06-06 16:17:59.784,0.029381128,0.0011014428,-0.05513146,-0.024799913,0.085506715,-0.028857727,0.0,0.0,0.0,0.0,-0.0493729,-0.045189317,-0.05143553,0.0856136,0.5979016,-0.30245,-0.073816784,-0.27707663,-0.3026256,0.055309955,0.2356583,-0.1749744,0.01815131,-0.009094459,0.016275061,-0.00892457,0.020466272,-0.070201755,0.023750238,0.036449276,0.004689943,0.0013714903,0.06942176,-0.06537393,3.0,-0.53080374,-3.0,3.0,3.0,-3.0,-3.0,-1.4108826,-3.0,-3.0,1.7743615,-3.0,3.0,-0.54726714,-3.0,3.0,3.0,-3.0,-3.0,-1.3161814,-3.0,-3.0,1.7490067,-3.0
2025-06-06 16:17:59.804,0.01686813,-0.01911575,-0.061575253,-0.04300136,0.04199836,-0.037365604,0.0,0.0,0.0,0.0,-0.066986226,-0.031289086,-0.041916087,0.08776015,0.6060385,-0.3011278,-0.08361982,-0.26533896,-0.28564134,0.057623595,0.23248744,-0.18232551,0.03115517,0.010230493,0.04960595,0.03282336,-0.061062958,0.016853103,0.020202616,-0.05702966,-0.023436623,-0.07123093,-0.06446489,-0.046410497,3.0,-0.54726714,-3.0,3.0,3.0,-3.0,-3.0,-1.3161814,-3.0,-3.0,1.7490067,-3.0,3.0,-0.35366547,-3.0,3.0,3.0,-3.0,-3.0,-1.3903197,-3.0,-3.0,1.539093,-3.0
2025-06-06 16:17:59.827,-0.006117686,0.05096188,-0.06815056,0.024631947,0.0049133543,-0.00072056585,0.0,0.0,0.0,0.0,-0.049347308,-0.038471304,-0.036770448,0.09212401,0.6029172,-0.28586385,-0.07751888,-0.27739272,-0.29100087,0.072829984,0.24290046,-0.16366577,-0.029285686,-0.023916135,0.051249243,-0.036861297,-0.012489959,0.05476753,-0.03775782,-0.0007156404,0.025398899,-0.040962894,-0.021421483,-0.01850701,3.0,-0.35366547,-3.0,3.0,3.0,-3.0,-3.0,-1.3903197,-3.0,-3.0,1.539093,-3.0,3.0,-0.4095303,-3.0,3.0,3.0,-3.0,-3.0,-1.3403705,-3.0,-3.0,1.5936201,-3.0
2025-06-06 16:17:59.844,0.045796324,0.03512893,0.021818604,0.023520557,0.039159648,-0.039007273,0.0,0.0,0.0,0.0,-0.050986234,-0.0407952,-0.049297612,0.097431414,0.6010993,-0.29863006,-0.07919707,-0.2755855,-0.29395536,0.06970017,0.23726791,-0.16272114,-0.024516316,0.0039042945,0.013184498,0.015604727,0.034158133,0.07045952,-0.0604507,-0.064904846,-0.05401589,0.038938913,-0.04673958,-0.035249144,3.0,-0.4095303,-3.0,3.0,3.0,-3.0,-3.0,-1.3403705,-3.0,-3.0,1.5936201,-3.0,3.0,-0.8539284,-3.0,3.0,3.0,-2.7092605,-3.0,-1.3151501,-3.0,-3.0,2.171531,-3.0
2025-06-06 16:17:59.865,-0.025555443,0.027353054,-0.09320718,-0.036029343,0.008495495,0.029945264,0.0,0.0,0.0,0.0,-0.055376746,-0.04197044,-0.05414124,0.09644149,0.6109167,-0.28643277,-0.085040495,-0.26793143,-0.29135108,0.05759816,0.2402772,-0.18050203,-0.005858634,0.048238218,0.029400015,-0.0015964652,0.04983161,0.015146998,-0.061421394,0.077941634,0.051102977,-0.0037250842,0.037865784,0.0582727,3.0,-0.8539284,-3.0,3.0,3.0,-2.7092605,-3.0,-1.3151501,-3.0,-3.0,2.171531,-3.0,3.0,-0.15338501,-3.0,3.0,3.0,-3.0,-3.0,-1.3997246,-3.0,-3.0,1.4031408,-3.0
2025-06-06 16:17:59.885,0.023390876,-0.007892697,0.025954498,-0.04347868,0.07268127,-0.024479624,0.0,0.0,0.0,0.0,-0.06625989,-0.044757135,-0.05606173,0.1040811,0.6123272,-0.27956948,-0.081357464,-0.26744315,-0.30602282,0.072238326,0.24442801,-0.1719328,0.009442199,0.048725825,0.039652966,0.04392575,0.059621066,0.0050119725,0.060814966,0.031157643,0.061675366,0.041514326,-0.054951698,0.027634975,3.0,-0.15338501,-3.0,3.0,3.0,-3.0,-3.0,-1.3997246,-3.0,-3.0,1.4031408,-3.0,3.0,-1.0562247,-3.0,3.0,3.0,-2.5385296,-3.0,-1.3064431,-3.0,-3.0,2.2745762,-3.0
2025-06-06 16:17:59.905,-0.069293104,0.047474064,-0.111737795,-0.027470704,0.063019164,0.049424127,0.0,0.0,0.0,0.0,-0.07583655,-0.0394376,-0.05107839,0.09739913,0.59826005,-0.27709278,-0.087802194,-0.26235545,-0.2920378,0.073336974,0.25879374,-0.16846326,0.050494514,-0.070947215,0.026475485,0.0049891225,0.033483483,-0.0108165685,0.038044244,-0.021416435,-0.0012513249,-0.05250662,0.0073246853,0.01204905,3.0,-1.0562247,-3.0,3.0,3.0,-2.5385296,-3.0,-1.3064431,-3.0,-3.0,2.2745762,-3.0,3.0,-0.13229758,-3.0,3.0,3.0,-3.0,-3.0,-1.4402167,-3.0,-3.0,1.5037279,-3.0
2025-06-06 16:17:59.926,0.07257398,0.0409033,-0.013180906,0.024184754,0.02910046,-0.008817896,0.0,0.0,0.0,0.0,-0.0773281,-0.040897597,-0.05046979,0.09005305,0.6135702,-0.26726824,-0.07249835,-0.27358228,-0.3018837,0.07229169,0.25586438,-0.17499553,-0.030563066,-0.022829756,-0.046276964,-0.016517032,-0.04380103,-0.037049435,-0.04309359,0.025082769,0.00032760555,-0.06378098,0.030142937,-0.01203712,3.0,-0.13229758,-3.0,3.0,3.0,-3.0,-3.0,-1.4402167,-3.0,-3.0,1.5037279,-3.0,3.0,-0.8706336,-3.0,3.0,3.0,-2.7779236,-3.0,-1.1207675,-3.0,-3.0,2.076924,-3.0
2025-06-06 16:17:59.948,-0.04968799,0.011213018,-0.015178551,0.04434858,0.021974575,0.02642437,0.0,0.0,0.0,0.0,-0.07778933,-0.04269351,-0.044583235,0.08461257,0.60069555,-0.26826677,-0.07030259,-0.2674183,-0.29860443,0.07679931,0.26370388,-0.17888547,0.046146527,0.057864722,-0.011963653,0.060351517,0.07040183,-0.030293548,-0.05230938,0.041478217,-0.036285628,0.048301753,0.061478518,-0.0004995562,3.0,-0.8706336,-3.0,3.0,3.0,-2.7779236,-3.0,-1.1207675,-3.0,-3.0,2.076924,-3.0,3.0,-0.81688523,-3.0,3.0,3.0,-2.3195662,-3.0,-1.400118,-3.0,-3.0,2.2033002,-3.0
2025-06-06 16:17:59.966,-0.09067602,0.0038489897,-0.039767407,0.015868744,0.08897092,0.025352133,0.0,0.0,0.0,0.0,-0.07257734,-0.051333256,-0.03284375,0.09514301,0.6021268,-0.26777518,-0.08601449,-0.2637481,-0.30338,0.07912845,0.26578343,-0.17117274,0.035268318,0.058138944,-0.056813583,0.008255077,-0.024875017,-0.04080811,-0.0035269142,0.008743826,-0.0036574097,0.061155077,0.05200629,0.041102666,3.0,-0.81688523,-3.0,3.0,3.0,-2.3195662,-3.0,-1.400118,-3.0,-3.0,2.2033002,-3.0,3.0,-0.6314774,-3.0,3.0,3.0,-2.4823961,-3.0,-1.2574478,-3.0,-3.0,2.0214603,-3.0
2025-06-06 16:17:59.986,-0.031492535,0.01703773,-0.050171897,-0.046396144,0.05343363,0.04919892,0.0,0.0,0.0,0.0,-0.089014284,-0.037858237,-0.029775554,0.097046494,0.60117364,-0.25805697,-0.07292217,-0.26952744,-0.31052473,0.089437045,0.27085972,-0.18364555,-0.0343327,-0.013889265,0.048182625,-0.07451332,-0.018489795,-0.018961709,-0.06401011,0.009044382,0.02035473,0.016226403,0.06030793,-0.035739876,3.0,-0.6314774,-3.0,3.0,3.0,-2.4823961,-3.0,-1.2574478,-3.0,-3.0,2.0214603,-3.0,3.0,-0.6903482,-3.0,3.0,3.0,-2.6290088,-3.0,-1.2252578,-3.0,-3.0,2.063652,-3.0
2025-06-06 16:18:00.009,-0.0022448217,0.006002404,-0.068956256,-0.024832468,0.024872879,-0.036549516,0.0,0.0,0.0,0.0,-0.088045105,-0.058402173,-0.033789366,0.09050898,0.6081914,-0.25153923,-0.07439633,-0.25721547,-0.31835556,0.08304647,0.2872744,-0.17698614,-0.033426646,0.03431223,-0.013073456,-0.07608953,-0.04358971,-0.055674985,0.074363396,-0.014889888,-0.04339643,0.059936795,-0.003674008,-0.044474766,3.0,-0.6903482,-3.0,3.0,3.0,-2.6290088,-3.0,-1.2252578,-3.0,-3.0,2.063652,-3.0,3.0,-0.5901152,-3.0,3.0,3.0,-2.864572,-3.0,-1.1970147,-3.0,-3.0,1.8769587,-3.0
2025-06-06 16:18:00.026,0.014451015,0.038452353,-0.07227068,0.012436378,0.07896732,0.028903892,0.0,0.0,0.0,0.0,-0.08834126,-0.054874476,-0.031412683,0.084039494,0.61496377,-0.24647586,-0.08158909,-0.26495504,-0.30654186,0.085581966,0.29078302,-0.16986121,-0.07574383,-0.06891807,0.059063464,-0.012383811,-0.0037202395,-0.019313142,0.047541443,-0.04039164,0.07123517,0.03564835,-0.058629286,0.040642686,3.0,-0.5901152,-3.0,3.0,3.0,-2.864572,-3.0,-1.1970147,-3.0,-3.0,1.8769587,-3.0,3.0,-0.53335375,-3.0,3.0,3.0,-3.0,-3.0,-1.3567299,-3.0,-3.0,1.8805385,-3.0
2025-06-06 16:18:00.049,0.080607995,-0.045844983,-0.012798579,0.052743953,0.009528835,-0.037610903,0.0,0.0,0.0,0.0,-0.0919963,-0.056556966,-0.047453497,0.093363166,0.613502,-0.24310966,-0.08582163,-0.2606529,-0.31642175,0.08119339,0.27956194,-0.16293155,-0.039193988,0.059056416,-0.049561903,0.0477224,-0.04388283,-0.042184204,0.07384311,-0.0455914,-0.032530095,0.06382955,0.026134687,0.04495229,3.0,-0.53335375,-3.0,3.0,3.0,-3.0,-3.0,-1.3567299,-3.0,-3.0,1.8805385,-3.0,3.0,-0.8390965,-3.0,3.0,3.0,-2.5470357,-3.0,-1.1860476,-3.0,-3.0,2.1134408,-3.0
2025-06-06 16:18:00.067,-0.04298484,0.02403503,-0.025113579,-0.031097839,-0.0019031799,0.0139247915,0.0,0.0,0.0,0.0,-0.09589437,-0.055076685,-0.03378998,0.0957267,0.6120611,-0.2392312,-0.07846283,-0.2759585,-0.31530082,0.09822234,0.2932506,-0.17263545,0.047404956,0.008661002,-0.043098915,0.07516385,-0.022432486,0.062478833,-0.015124136,0.005399276,-0.058209233,0.046763495,0.023959009,-0.0414809,3.0,-0.8390965,-3.0,3.0,3.0,-2.5470357,-3.0,-1.1860476,-3.0,-3.0,2.1134408,-3.0,3.0,-0.8763451,-3.0,3.0,3.0,-2.2953453,-3.0,-1.284274,-3.0,-3.0,2.229094,-3.0
2025-06-06 16:18:00.087,-0.03206404,0.008228161,-0.006520388,0.015857475,0.057350263,0.007240824,0.0,0.0,0.0,0.0,-0.08616076,-0.055071697,-0.047057416,0.09110002,0.60984004,-0.24230294,-0.08307518,-0.27686706,-0.31527603,0.08396815,0.2951214,-0.16845225,-0.03800789,-0.021176914,0.02749406,-0.002115978,0.003380381,0.021297866,0.011842305,0.02996487,0.04038487,-0.020101443,0.08649747,-0.015861196,3.0,-0.8763451,-3.0,3.0,3.0,-2.2953453,-3.0,-1.284274,-3.0,-3.0,2.229094,-3.0,3.0,-0.9707068,-3.0,3.0,3.0,-1.8645947,-3.0,-1.2376256,-3.0,-3.0,2.3730288,-3.0
2025-06-06 16:18:00.110,-0.102831446,0.035810895,-0.03525887,-0.031425063,0.011971241,-0.014261299,0.0,0.0,0.0,0.0,-0.09092981,-0.05032341,-0.0274174,0.09619337,0.5995794,-0.23299623,-0.06482909,-0.26144803,-0.29785088,0.09858258,0.30721033,-0.18068063,0.029730137,-0.05009369,-0.059333436,0.041462883,0.01309737,0.0071607204,-0.04344119,-0.024892254,-0.020531466,0.07765195,0.015917761,-0.08236188,3.0,-0.9707068,-3.0,3.0,3.0,-1.8645947,-3.0,-1.2376256,-3.0,-3.0,2.3730288,-3.0,3.0,-0.8617657,-3.0,3.0,3.0,-1.8666981,-3.0,-1.2290934,-3.0,-3.0,2.3192961,-3.0
2025-06-06 16:18:00.127,-0.029004112,0.040788673,-0.06933123,-0.02714663,0.08011499,-0.028187998,0.0,0.0,0.0,0.0,-0.09576373,-0.06264064,-0.02703993,0.09132813,0.5931347,-0.22737226,-0.06600593,-0.26166093,-0.3099542,0.09141786,0.3110799,-0.18858747,-0.034611426,0.043421533,0.008215793,0.02165809,0.06115822,0.009552782,0.0675659,0.034460977,0.065044604,0.02532367,-0.01622693,-0.035770305,3.0,-0.8617657,-3.0,3.0,3.0,-1.8666981,-3.0,-1.2290934,-3.0,-3.0,2.3192961,-3.0,3.0,-0.7266932,-3.0,3.0,3.0,-2.2270718,-3.0,-1.2511395,-3.0,-3.0,2.1083057,-3.0
2025-06-06 16:18:00.147,0.040410917,0.008798636,-0.055311278,0.048068263,0.05790898,-0.023234848,0.0,0.0,0.0,0.0,-0.11268886,-0.0671289,-0.026200926,0.089956224,0.6028804,-0.20344552,-0.076594114,-0.25871664,-0.31352103,0.099654935,0.31864116,-0.17863208,0.02511715,0.024016151,0.004198645,0.015919397,0.025611032,0.05128033,-0.047158092,0.04530234,0.032912202,0.025249751,-0.027546315,-0.04413212,3.0,-0.7266932,-3.0,3.0,3.0,-2.2270718,-3.0,-1.2511395,-3.0,-3.0,2.1083057,-3.0,3.0,-0.7333309,-3.0,3.0,3.0,-2.4710155,-3.0,-1.2922835,-3.0,-3.0,2.0883584,-3.0
2025-06-06 16:18:00.167,-0.011749856,-0.00920287,-0.09772727,-0.008035892,0.052695334,0.020488294,0.0,0.0,0.0,0.0,-0.09912179,-0.076114215,-0.03287101,0.086339146,0.5957649,-0.20152028,-0.06386143,-0.27602714,-0.31118897,0.09373011,0.32790425,-0.18961039,-0.010028583,0.012434472,-0.0022183682,0.010640183,0.018210618,-0.06922748,-0.06425385,0.055197522,-0.06503414,-0.044929862,0.015100992,0.011006171,3.0,-0.7333309,-3.0,3.0,3.0,-2.4710155,-3.0,-1.2922835,-3.0,-3.0,2.0883584,-3.0,3.0,-0.5493112,-3.0,3.0,3.0,-2.7641375,-3.0,-1.2171998,-3.0,-3.0,1.8670688,-3.0
2025-06-06 16:18:00.187,0.072452,0.038563862,-0.055644628,0.03238682,0.065684184,0.009870623,0.0,0.0,0.0,0.0,-0.107631035,-0.06823152,-0.043646842,0.09100271,0.60547274,-0.21365866,-0.081174836,-0.27615774,-0.31496292,0.097400196,0.32759675,-0.16967699,0.0031769508,-0.05407603,0.0026693277,0.0014284768,-0.012804871,0.012026197,0.013594231,-0.03964675,-0.07146432,-0.05931613,-0.07135546,0.016579697,3.0,-0.5493112,-3.0,3.0,3.0,-2.7641375,-3.0,-1.2171998,-3.0,-3.0,1.8670688,-3.0,3.0,-0.7229633,-3.0,3.0,3.0,-2.7199626,-3.0,-1.2479995,-3.0,-3.0,2.0896494,-3.0
2025-06-06 16:18:00.210,0.032960568,0.01184585,0.031933147,0.0472499,0.005286261,-0.0012363238,0.0,0.0,0.0,0.0,-0.11432655,-0.06949615,-0.046257485,0.08899062,0.6027854,-0.22342546,-0.069563426,-0.27530786,-0.31691203,0.10809822,0.3214625,-0.17075731,-0.03487956,0.016364828,-0.07848329,0.026303964,0.0157483,0.02212524,0.0254611,-0.06474781,-0.060493957,-0.061478574,-0.076361455,-0.023007318,3.0,-0.7229633,-3.0,3.0,3.0,-2.7199626,-3.0,-1.2479995,-3.0,-3.0,2.0896494,-3.0,3.0,-1.2305819,-3.0,3.0,3.0,-1.5299656,-3.0,-1.1154015,-3.0,-3.0,2.7977216,-3.0
2025-06-06 16:18:00.227,-0.03776589,-0.03929783,-0.07823599,-0.002071007,0.09134713,-0.037723567,0.0,0.0,0.0,0.0,-0.107904606,-0.07333531,-0.04094792,0.09546893,0.5865789,-0.2124695,-0.06389719,-0.26793405,-0.3206121,0.10163482,0.33465847,-0.17376691,-0.0009805777,0.06124386,0.003216951,-0.019726293,0.052764233,-0.010672349,0.0004192387,0.05659784,-0.05144372,-0.040478796,0.030638741,0.007908983,3.0,-1.2305819,-3.0,3.0,3.0,-1.5299656,-3.0,-1.1154015,-3.0,-3.0,2.7977216,-3.0,3.0,-0.73556894,-3.0,3.0,3.0,-2.02211,-3.0,-1.2509007,-3.0,-3.0,2.0406284,-3.0
2025-06-06 16:18:00.247,0.0025815864,0.029129736,-0.07949845,0.008536968,0.030425832,-0.03041768,0.0,0.0,0.0,0.0,-0.11448368,-0.07193364,-0.03199333,0.100333825,0.5859298,-0.20061946,-0.08163115,-0.27213728,-0.3141339,0.11404194,0.3295145,-0.18682563,0.04326173,-0.03420207,-0.012306955,-0.05341038,-0.023598062,0.017379284,0.0035225672,-0.012759393,0.062267177,0.021987326,-0.01881325,0.02021968,3.0,-0.73556894,-3.0,3.0,3.0,-2.02211,-3.0,-1.2509007,-3.0,-3.0,2.0406284,-3.0,3.0,-0.6897074,-3.0,3.0,3.0,-2.3532984,-3.0,-1.2691947,-3.0,-3.0,2.0623777,-3.0
2025-06-06 16:18:00.267,-0.015420998,0.034566324,-0.051234115,0.04952123,0.03698623,-0.039225437,0.0,0.0,0.0,0.0,-0.10931951,-0.065373614,-0.046737697,0.08556054,0.59827304,-0.19491456,-0.07294488,-0.26414067,-0.31252566,0.11014474,0.3301757,-0.18103819,0.016920619,-0.07122403,0.016468082,-0.073397905,-0.059753682,0.07121381,-0.066723764,-0.0061626057,-0.06942134,-0.044892833,-0.0438691,-0.04092582,3.0,-0.6897074,-3.0,3.0,3.0,-2.3532984,-3.0,-1.2691947,-3.0,-3.0,2.0623777,-3.0,3.0,-0.7610101,-3.0,3.0,3.0,-2.5349774,-3.0,-1.2138411,-3.0,-3.0,2.082208,-3.0
2025-06-06 16:18:00.287,0.08174436,-0.023658892,0.018916253,-0.0070132683,0.05519374,-0.014940979,0.0,0.0,0.0,0.0,-0.11093817,-0.07535813,-0.042364076,0.08951251,0.58592904,-0.20241767,-0.06701367,-0.27949604,-0.30166146,0.10676811,0.32952344,-0.17248413,-0.050445575,0.06329779,-0.045585893,-0.023392789,0.00083675765,-0.010053948,0.031291068,0.031629343,-0.050412808,0.057034314,0.012330126,0.02911802,3.0,-0.7610101,-3.0,3.0,3.0,-2.5349774,-3.0,-1.2138411,-3.0,-3.0,2.082208,-3.0,3.0,-1.240149,-3.0,3.0,3.0,-1.5233064,-3.0,-1.1533536,-3.0,-3.0,2.6849651,-3.0
2025-06-06 16:18:00.310,-0.031770978,-0.014326257,-0.07447554,-0.009372799,0.059769977,0.02323605,0.0,0.0,0.0,0.0,-0.11413722,-0.06804263,-0.03660894,0.0861298,0.5954382,-0.19175155,-0.08164171,-0.26578072,-0.3104517,0.10551163,0.33992788,-0.18228391,-0.038727198,-0.074318334,0.02912103,-0.053105272,-0.00069912995,0.07179805,-0.038891714,-0.0013334547,-0.052474964,-0.010978285,-0.021376938,0.060850646,3.0,-1.240149,-3.0,3.0,3.0,-1.5233064,-3.0,-1.1533536,-3.0,-3.0,2.6849651,-3.0,3.0,-0.6605329,-3.0,3.0,3.0,-2.177049,-3.0,-1.2729651,-3.0,-3.0,1.9703885,-3.0
2025-06-06 16:18:00.328,0.028926114,0.0015473721,-0.050174963,0.05639053,0.00878268,0.03213107,0.0,0.0,0.0,0.0,-0.11250891,-0.07533386,-0.043141384,0.092547074,0.6000505,-0.18170746,-0.06800819,-0.2611612,-0.30642566,0.12095331,0.3414479,-0.17513108,0.03785934,-0.03197906,-0.024490813,-0.06555655,-0.007255357,0.007625677,0.05144306,-0.07100469,-0.006354445,-0.042164966,-0.042828012,0.07421986,3.0,-0.6605329,-3.0,3.0,3.0,-2.177049,-3.0,-1.2729651,-3.0,-3.0,1.9703885,-3.0,3.0,-0.87806576,-3.0,3.0,3.0,-1.9903275,-3.0,-1.1758447,-3.0,-3.0,2.3762,-3.0
2025-06-06 16:18:00.348,-0.042810574,0.035619933,-0.0054529198,0.06550882,-0.014144778,-0.021208301,0.0,0.0,0.0,0.0,-0.118278146,-0.07368022,-0.038057316,0.09668148,0.6026737,-0.19486919,-0.06523733,-0.25979385,-0.31940985,0.115079336,0.341201,-0.17466427,0.017702188,-0.06737643,-0.042980608,-0.033227433,0.043179885,0.05752989,-0.008425867,0.029251123,0.037581664,0.06305082,0.06461513,0.00927571,3.0,-0.87806576,-3.0,3.0,3.0,-1.9903275,-3.0,-1.1758447,-3.0,-3.0,2.3762,-3.0,3.0,-1.2172674,-3.0,3.0,3.0,-1.3380747,-3.0,-1.192549,-3.0,-3.0,2.6495523,-3.0
2025-06-06 16:18:00.368,-0.044754073,0.04032101,-0.0911701,0.035039317,0.019496685,-0.021617707,0.0,0.0,0.0,0.0,-0.11823307,-0.07373843,-0.036831655,0.09066758,0.59058785,-0.16476959,-0.06417533,-0.27613655,-0.31987518,0.11197088,0.34731588,-0.17729963,-0.050886307,-0.0052931337,-0.0025016696,0.04222841,-0.03345882,-0.0059795696,0.0073809833,-0.043515906,0.0065555833,-0.032253027,0.027489927,0.026737968,3.0,-1.2172674,-3.0,3.0,3.0,-1.3380747,-3.0,-1.192549,-3.0,-3.0,2.6495523,-3.0,3.0,-0.7296296,-3.0,3.0,3.0,-1.8131162,-3.0,-1.1551822,-3.0,-3.0,2.0230496,-3.0
2025-06-06 16:18:00.388,-0.041419767,0.075150795,-0.006678318,0.00278034,0.043468732,-0.043645684,0.0,0.0,0.0,0.0,-0.12965348,-0.08519225,-0.03917466,0.0982877,0.58474046,-0.16387479,-0.06737738,-0.2564776,-0.31115243,0.117629595,0.35898092,-0.17726831,0.025528507,0.071235016,-0.005766749,0.030369198,-0.027232517,0.08585315,0.059631173,0.011873255,0.01422578,0.060298555,0.051819343,0.05967779,3.0,-0.7296296,-3.0,3.0,3.0,-1.8131162,-3.0,-1.1551822,-3.0,-3.0,2.0230496,-3.0,3.0,-1.323673,-3.0,3.0,3.0,-1.382384,-3.0,-1.1981155,-3.0,-3.0,2.6347427,-3.0
2025-06-06 16:18:00.410,-0.077144966,0.008198764,-0.1195797,-0.016042756,0.015075291,0.0015733221,0.0,0.0,0.0,0.0,-0.13631177,-0.08155775,-0.027046394,0.094820775,0.59795827,-0.14908318,-0.07423906,-0.27076733,-0.3183401,0.1268918,0.37183186,-0.17053698,0.005182506,-0.060584918,0.02407404,-0.043038886,0.060571864,0.009470047,-0.039350435,0.044554964,-0.0488686,0.055712413,0.049350932,0.073498584,3.0,-1.323673,-3.0,3.0,3.0,-1.382384,-3.0,-1.1981155,-3.0,-3.0,2.6347427,-3.0,3.0,-0.6335849,-3.0,3.0,3.0,-1.9264942,-3.0,-1.3087537,-3.0,-3.0,1.926213,-3.0
2025-06-06 16:18:00.428,0.082658306,-0.006209096,-0.0336017,-0.0065485155,0.07037249,0.007863535,0.0,0.0,0.0,0.0,-0.13947396,-0.09500736,-0.03383011,0.09017575,0.58751047,-0.14206128,-0.07104007,-0.26469025,-0.3092343,0.12340913,0.3595301,-0.1567223,0.04505989,0.042076673,0.025817877,0.009997408,0.054880846,0.011725106,0.04351593,-0.06369479,0.05513647,0.04319482,-0.07983058,-0.007282653,3.0,-0.6335849,-3.0,3.0,3.0,-1.9264942,-3.0,-1.3087537,-3.0,-3.0,1.926213,-3.0,3.0,-1.1068673,-3.0,3.0,3.0,-1.5513589,-3.0,-1.1903257,-3.0,-3.0,2.6479099,-3.0
2025-06-06 16:18:00.448,-0.029613873,0.06447301,-0.103388794,0.057331223,-0.0019790118,-0.04622879,0.0,0.0,0.0,0.0,-0.12940279,-0.09895353,-0.025841406,0.09563384,0.5874088,-0.13864006,-0.062209923,-0.27406085,-0.3109812,0.13051666,0.37069443,-0.16419747,0.0003402026,-0.05407707,0.032205094,-0.068736546,0.060301896,-0.042618264,0.061551075,-0.022433048,-0.022724304,0.039073896,0.01861173,0.023008682,3.0,-1.1068673,-3.0,3.0,3.0,-1.5513589,-3.0,-1.1903257,-3.0,-3.0,2.6479099,-3.0,3.0,-0.8262822,-3.0,3.0,3.0,-1.6297467,-3.0,-1.1675185,-3.0,-3.0,2.1994407,-3.0
2025-06-06 16:18:00.468,0.038413327,0.04103699,-0.09340589,0.026703916,0.022548158,0.008871211,0.0,0.0,0.0,0.0,-0.13194583,-0.092652835,-0.03979475,0.080363266,0.59338146,-0.14036347,-0.078343585,-0.26885378,-0.31507868,0.11921098,0.35988224,-0.16855381,-0.031006666,0.024712134,0.0044821054,0.004081437,-0.01043745,0.037545275,-0.06520139,0.041597072,-0.04245859,-0.056563016,0.052000303,-0.0016486252,3.0,-0.8262822,-3.0,3.0,3.0,-1.6297467,-3.0,-1.1675185,-3.0,-3.0,2.1994407,-3.0,3.0,-0.81265813,-3.0,3.0,3.0,-2.1460543,-3.0,-1.1413751,-3.0,-3.0,2.0636747,-3.0
2025-06-06 16:18:00.488,0.04237985,-0.0011327275,0.024960594,0.030225856,0.029545201,0.02692883,0.0,0.0,0.0,0.0,-0.13917409,-0.09837807,-0.042249747,0.07974524,0.5964567,-0.13793273,-0.062236246,-0.2754505,-0.31050995,0.13759378,0.36488137,-0.16210602,-0.027852014,-0.027380478,0.038143184,0.013660581,0.04099387,-0.065902546,0.03289007,-0.029417507,0.039895277,-0.06738898,0.0037916447,0.007318348,3.0,-0.81265813,-3.0,3.0,3.0,-2.1460543,-3.0,-1.1413751,-3.0,-3.0,2.0636747,-3.0,3.0,-1.5561357,-3.0,3.0,3.0,-0.59220654,-3.0,-1.123244,-3.0,-3.0,3.0,-3.0
2025-06-06 16:18:00.510,-0.045215875,-0.0430293,-0.11703837,0.013997262,0.047234643,-0.036532797,0.0,0.0,0.0,0.0,-0.13861185,-0.0902229,-0.04369077,0.08984078,0.60108036,-0.12622485,-0.069829725,-0.26017192,-0.31955683,0.13788415,0.37983054,-0.16156454,-0.00682176,0.004344978,0.013604295,0.05489414,-0.02999749,0.037111558,0.016909888,-0.049730312,-0.043685824,-0.042226218,0.009725648,0.042476237,3.0,-1.5561357,-3.0,3.0,3.0,-0.59220654,-3.0,-1.123244,-3.0,-3.0,3.0,-3.0,3.0,-0.6963782,-3.0,3.0,3.0,-1.6452762,-3.0,-1.1488723,-3.0,-3.0,1.8343383,-3.0
2025-06-06 16:18:00.528,-0.0075481674,0.07639036,-0.08832712,0.037066277,-0.010649714,0.0074260174,0.0,0.0,0.0,0.0,-0.13757928,-0.10826849,-0.04172445,0.09741901,0.5838739,-0.1243561,-0.06656971,-0.26313707,-0.32459733,0.12681626,0.3768664,-0.15366884,0.017387867,0.003604251,-0.006184531,0.038380094,-0.005982036,-0.015073184,-0.0025516201,-0.025579741,-0.074050486,-0.042811133,-0.035786744,-0.05488557,3.0,-0.6963782,-3.0,3.0,3.0,-1.6452762,-3.0,-1.1488723,-3.0,-3.0,1.8343383,-3.0,3.0,-0.9113631,-3.0,3.0,3.0,-1.8647397,-3.0,-1.1340333,-3.0,-3.0,2.2513707,-3.0
2025-06-06 16:18:00.548,-0.020133909,0.041893646,-0.08427675,0.03298502,0.06020104,0.04319114,0.0,0.0,0.0,0.0,-0.14503194,-0.11357871,-0.04465438,0.093644455,0.5924057,-0.12345203,-0.07267112,-0.2581169,-0.3236428,0.12649442,0.3794509,-0.15883003,-0.057465173,0.021788443,0.04900925,-0.011532095,-0.04067269,-0.067268796,0.03368194,-0.04810157,-0.0032352156,0.0554761,-0.030905116,0.08343663,3.0,-0.9113631,-3.0,3.0,3.0,-1.8647397,-3.0,-1.1340333,-3.0,-3.0,2.2513707,-3.0,3.0,-0.87622553,-3.0,3.0,3.0,-1.8917705,-3.0,-1.1774678,-3.0,-3.0,2.2378147,-3.0
2025-06-06 16:18:00.569,0.059507977,0.001751713,-0.056945845,0.008500271,0.060260933,-0.02325862,0.0,0.0,0.0,0.0,-0.14045644,-0.1116084,-0.05861528,0.09996918,0.59388894,-0.13076654,-0.07243825,-0.2627632,-0.32391208,0.14110439,0.38605535,-0.15179794,0.018713377,0.0141599765,-0.016768277,-0.05853166,-0.022750407,0.016479846,-0.039047193,-0.037002668,-0.06256172,-0.022576613,0.0069257854,-0.04769673,3.0,-0.87622553,-3.0,3.0,3.0,-1.8917705,-3.0,-1.1774678,-3.0,-3.0,2.2378147,-3.0,3.0,-1.0555336,-3.0,3.0,3.0,-1.7299291,-3.0,-1.123127,-3.0,-3.0,2.4422402,-3.0
2025-06-06 16:18:00.589,0.009143354,0.01845115,-0.0540692,0.009236379,0.012806622,0.0328026,0.0,0.0,0.0,0.0,-0.14049293,-0.10750225,-0.0523726,0.096023336,0.59447926,-0.13260321,-0.06870999,-0.26498112,-0.32154435,0.13166665,0.38638014,-0.14110698,0.064217344,-0.048878442,0.058099445,-0.004774908,0.013082492,-0.028046373,0.024480304,0.061573643,-0.06314984,0.0032457397,-0.04543655,-0.06831755,3.0,-1.0555336,-3.0,3.0,3.0,-1.7299291,-3.0,-1.123127,-3.0,-3.0,2.4422402,-3.0,3.0,-1.076209,-3.0,3.0,3.0,-1.4660416,-3.0,-1.1952995,-3.0,-3.0,2.4733949,-3.0
2025-06-06 16:18:00.610,-0.036782753,0.015042173,-0.07887021,0.06753059,0.017923068,0.027859192,0.0,0.0,0.0,0.0,-0.14749026,-0.09382409,-0.06547108,0.09468158,0.5863106,-0.13146548,-0.0687563,-0.26892614,-0.32864386,0.12831573,0.38258466,-0.15956055,-0.025689323,0.024844665,0.011706961,0.012097305,-0.0017335291,-0.028669069,-0.032144733,0.051790167,-0.028894443,-0.020333312,-0.015524792,-0.03314445,3.0,-1.076209,-3.0,3.0,3.0,-1.4660416,-3.0,-1.1952995,-3.0,-3.0,2.4733949,-3.0,3.0,-0.91413087,-3.0,3.0,3.0,-1.635752,-3.0,-1.1205589,-3.0,-3.0,2.2444713,-3.0
2025-06-06 16:18:00.629,-0.034739275,-0.0051022354,-0.044411536,-0.009142421,-0.012189636,-0.009546253,0.0,0.0,0.0,0.0,-0.15519208,-0.10879242,-0.053664777,0.09951498,0.58603585,-0.12489237,-0.073461756,-0.26450503,-0.32217953,0.13423946,0.38881952,-0.15984266,0.005314322,0.048612844,0.0698876,-0.061172318,0.010715777,-0.007568255,0.00019234556,-0.04761764,0.063986145,-0.06852474,0.031954147,0.028025717,3.0,-0.91413087,-3.0,3.0,3.0,-1.635752,-3.0,-1.1205589,-3.0,-3.0,2.2444713,-3.0,3.0,-1.2195678,-3.0,3.0,3.0,-1.1998167,-3.0,-1.143161,-3.0,-3.0,2.6566448,-3.0
2025-06-06 16:18:00.649,0.01580994,-0.02723237,-0.050133266,0.003443796,0.04402989,0.045885596,0.0,0.0,0.0,0.0,-0.15373111,-0.110730566,-0.054119803,0.085150085,0.5920925,-0.13177899,-0.07174114,-0.25688803,-0.3247502,0.1265199,0.3882421,-0.15399675,0.0645928,-0.014059433,0.0567653,-0.013624316,0.034525167,-0.05159031,0.052753814,-0.012597318,0.054315593,-0.058934815,-0.05094392,-0.0595101,3.0,-1.2195678,-3.0,3.0,3.0,-1.1998167,-3.0,-1.143161,-3.0,-3.0,2.6566448,-3.0,3.0,-1.1460263,-3.0,3.0,3.0,-1.0155551,-3.0,-1.1388069,-3.0,-3.0,2.6227627,-3.0
2025-06-06 16:18:00.669,-0.056575242,0.024017299,-0.040492952,0.025867373,-0.030498855,0.029382661,0.0,0.0,0.0,0.0,-0.1451614,-0.107924044,-0.056193575,0.085985444,0.6070421,-0.11170675,-0.07931545,-0.26916537,-0.3294072,0.12959114,0.3899113,-0.15695556,0.027609328,0.037725512,-0.058255535,-0.052123047,0.05153293,0.013413066,0.053966805,-0.038041465,0.037942186,-0.045512777,-0.028732147,0.038754616,3.0,-1.1460263,-3.0,3.0,3.0,-1.0155551,-3.0,-1.1388069,-3.0,-3.0,2.6227627,-3.0,3.0,-1.2503744,-3.0,3.0,3.0,-0.8552975,-3.0,-1.0165181,-3.0,-3.0,2.6982946,-3.0
2025-06-06 16:18:00.689,-0.10297272,0.022264557,-0.06838784,0.03148741,-0.010655222,-0.015729627,0.0,0.0,0.0,0.0,-0.15953116,-0.104531236,-0.037646815,0.10027776,0.58885294,-0.10932475,-0.071375936,-0.25065958,-0.31811786,0.13794592,0.40227288,-0.16608953,0.03269683,-0.066608794,0.05954675,-0.04025694,0.06316449,0.082256354,0.015154315,0.080419265,-0.0030665377,-0.04871533,0.05976851,-0.054242916,3.0,-1.2503744,-3.0,3.0,3.0,-0.8552975,-3.0,-1.0165181,-3.0,-3.0,2.6982946,-3.0,3.0,-1.2141299,-3.0,3.0,3.0,-1.0878727,-3.0,-1.1493591,-3.0,-3.0,2.4005964,-3.0
2025-06-06 16:18:00.710,-0.019884566,0.02328387,-0.11412944,0.08733208,0.011314026,0.00392318,0.0,0.0,0.0,0.0,-0.15439792,-0.10943888,-0.050249495,0.099889405,0.6066432,-0.10012712,-0.06560569,-0.2655803,-0.33285823,0.14069933,0.41260514,-0.16436033,-0.061444398,0.027906481,-0.045077182,-0.009672087,-0.03938087,0.025098477,0.03217297,-0.07643972,-0.062441528,0.044576958,0.04571152,0.05284034,3.0,-1.2141299,-3.0,3.0,3.0,-1.0878727,-3.0,-1.1493591,-3.0,-3.0,2.4005964,-3.0,3.0,-0.8709805,-3.0,3.0,3.0,-1.5818238,-3.0,-1.0996666,-3.0,-3.0,2.1028328,-3.0
2025-06-06 16:18:00.729,0.05566313,-0.00927006,-0.020810226,0.08374626,0.010347152,-0.045468148,0.0,0.0,0.0,0.0,-0.15677816,-0.113942735,-0.03574111,0.090495035,0.5974449,-0.08162903,-0.0751183,-0.2572858,-0.31666008,0.1443494,0.41227162,-0.15336342,0.010152091,0.05955075,-0.002842631,0.0008147527,-0.055019606,0.05335459,0.03323836,0.042231966,-0.014361694,0.037488922,0.045323767,-0.010999806,3.0,-0.8709805,-3.0,3.0,3.0,-1.5818238,-3.0,-1.0996666,-3.0,-3.0,2.1028328,-3.0,3.0,-1.4282656,-3.0,3.0,3.0,-1.0577301,-3.0,-1.1477991,-3.0,-3.0,2.7218802,-3.0
2025-06-06 16:18:00.749,-0.008344141,-0.04264982,-0.046176456,-0.00051794684,0.022701863,-0.0007706471,0.0,0.0,0.0,0.0,-0.15921076,-0.119166195,-0.049614493,0.08930941,0.60368353,-0.085779615,-0.06670066,-0.2698491,-0.32297158,0.15529959,0.41999507,-0.15573177,0.033332877,-0.020092038,0.01113407,0.021964436,0.026669923,-0.03952338,0.05893839,0.04070506,-0.048474673,0.070128195,0.059867766,-0.03736301,3.0,-1.4282656,-3.0,3.0,3.0,-1.0577301,-3.0,-1.1477991,-3.0,-3.0,2.7218802,-3.0,3.0,-1.3880322,-3.0,3.0,3.0,-0.5239586,-3.0,-1.0520196,-3.0,-3.0,2.7569559,-3.0
2025-06-06 16:18:00.769,-0.004403265,0.028484402,-0.079386644,0.0128099425,0.042210713,-0.030159254,0.0,0.0,0.0,0.0,-0.16452071,-0.13008484,-0.042968743,0.080416046,0.5895911,-0.07737284,-0.080074474,-0.26947597,-0.3223171,0.15624243,0.41874048,-0.15502796,-0.0011176278,0.0100873485,-0.0031157332,0.021217475,0.0023498973,0.017483646,0.07164232,0.036579695,0.052959718,-0.055488538,-0.04683765,0.04328153,3.0,-1.3880322,-3.0,3.0,3.0,-0.5239586,-3.0,-1.0520196,-3.0,-3.0,2.7569559,-3.0,3.0,-1.1367587,-3.0,3.0,3.0,-0.82267135,-3.0,-1.0829837,-3.0,-3.0,2.45529,-3.0
2025-06-06 16:18:00.792,-0.019066049,0.07667858,-0.07286888,0.09960339,0.021390848,-0.0032317603,0.0,0.0,0.0,0.0,-0.16043633,-0.13498317,-0.047349375,0.09861602,0.60287756,-0.061744805,-0.07185572,-0.25561193,-0.33056992,0.15268646,0.43230942,-0.15501502,-0.03540813,0.014366961,-0.06709247,0.001476512,0.07070075,0.06361193,0.03548748,0.063288584,0.016622411,0.02900753,-0.021369014,-0.027632179,3.0,-1.1367587,-3.0,3.0,3.0,-0.82267135,-3.0,-1.0829837,-3.0,-3.0,2.45529,-3.0,3.0,-1.2558857,-3.0,3.0,3.0,-0.9615386,-3.0,-1.0486107,-3.0,-3.0,2.5368903,-3.0
2025-06-06 16:18:00.810,-0.023590887,0.029589519,-0.039143603,0.020431735,-0.005346274,0.009434773,0.0,0.0,0.0,0.0,-0.15713479,-0.12448771,-0.031516954,0.09038862,0.60243404,-0.059627783,-0.07517102,-0.25550187,-0.33577067,0.15570568,0.42776147,-0.14552607,0.020099524,0.021925416,0.005861834,0.02665407,-0.0012577255,0.022044815,-0.048960675,0.06481601,0.05832147,-0.0030216514,-0.03421183,-0.0024854655,3.0,-1.2558857,-3.0,3.0,3.0,-0.9615386,-3.0,-1.0486107,-3.0,-3.0,2.5368903,-3.0,3.0,-1.3108623,-3.0,3.0,3.0,-0.7516851,-3.0,-1.1339396,-3.0,-3.0,2.715776,-3.0
2025-06-06 16:18:00.829,0.011198073,-0.00979326,-0.029282713,0.01766695,-0.018137407,-0.0061637526,0.0,0.0,0.0,0.0,-0.16214502,-0.14544415,-0.039797533,0.08604213,0.6087198,-0.062994525,-0.07468359,-0.26410726,-0.33495528,0.15215367,0.43233526,-0.14969505,-0.043103654,0.04937006,0.02929179,-0.062009785,0.069554225,0.013343616,-0.03811917,0.042006608,-0.050839067,-0.0069034495,0.052892175,0.040723585,3.0,-1.3108623,-3.0,3.0,3.0,-0.7516851,-3.0,-1.1339396,-3.0,-3.0,2.715776,-3.0,3.0,-1.4929066,-3.0,3.0,3.0,-0.3991668,-3.0,-0.9103518,-3.0,-3.0,2.8328917,-3.0
2025-06-06 16:18:00.850,-0.016440727,0.016686114,-0.09052118,0.04302561,0.036029294,0.011637702,0.0,0.0,0.0,0.0,-0.17476358,-0.14000931,-0.037000105,0.08027184,0.5981368,-0.034961235,-0.07236068,-0.2542493,-0.34008718,0.16130145,0.4348347,-0.15204218,0.02742477,-0.051887445,-0.04461962,-0.020849545,-0.05518119,0.09566063,-0.0110140415,-0.010277239,0.04451486,0.06158103,0.011641722,0.017099852,3.0,-1.4929066,-3.0,3.0,3.0,-0.3991668,-3.0,-0.9103518,-3.0,-3.0,2.8328917,-3.0,3.0,-1.191773,-3.0,3.0,3.0,-0.99081486,-3.0,-1.0758702,-3.0,-3.0,2.3090765,-3.0
2025-06-06 16:18:00.870,0.04537838,0.009234178,-0.06828487,0.046068635,0.034121003,0.021632213,0.0,0.0,0.0,0.0,-0.16740316,-0.13756785,-0.048698504,0.09331124,0.59833634,-0.028920788,-0.07609111,-0.26743537,-0.32701254,0.17077431,0.44005433,-0.14143808,-0.016421292,0.04236045,0.064484976,-0.0014500272,0.013039279,-0.012152779,0.06254985,0.03097951,-0.046508018,-0.0073291096,0.03974238,0.046636794,3.0,-1.191773,-3.0,3.0,3.0,-0.99081486,-3.0,-1.0758702,-3.0,-3.0,2.3090765,-3.0,3.0,-1.3355755,-3.0,3.0,3.0,-0.72190565,-3.0,-1.0987977,-3.0,-3.0,2.6898942,-3.0
2025-06-06 16:18:00.893,-0.011008006,0.042521738,-0.04652679,0.017873745,0.04136251,0.035149284,0.0,0.0,0.0,0.0,-0.16497213,-0.14114244,-0.04217501,0.08420434,0.6074051,-0.0317328,-0.07157896,-0.25835368,-0.3363945,0.1631223,0.43879026,-0.14602257,-0.03893978,0.00677042,-0.02847085,-0.03857055,0.024939083,0.030102542,0.053738207,-0.06745531,-0.032123823,0.05952348,0.073829494,-0.038458906,3.0,-1.3355755,-3.0,3.0,3.0,-0.72190565,-3.0,-1.0987977,-3.0,-3.0,2.6898942,-3.0,3.0,-1.5460373,-3.0,3.0,3.0,-0.3756952,-3.0,-0.8413388,-3.0,-3.0,2.874236,-3.0
2025-06-06 16:18:00.910,-0.010924244,-0.0058011543,-0.06958496,0.040528562,-0.007754308,0.008481068,0.0,0.0,0.0,0.0,-0.17206873,-0.16585398,-0.03686709,0.090255946,0.60382694,-0.024978928,-0.07260049,-0.26052067,-0.33985794,0.17046773,0.45246902,-0.13620925,-0.0057400074,-0.07925431,-0.06345048,0.064215146,0.06519306,0.089969695,-0.0318916,0.036974404,0.0059701116,0.02592716,-0.014144519,0.038722217,3.0,-1.5460373,-3.0,3.0,3.0,-0.3756952,-3.0,-0.8413388,-3.0,-3.0,2.874236,-3.0,3.0,-1.3376486,-3.0,3.0,3.0,-0.56174475,-3.0,-1.0147669,-3.0,-3.0,2.6039305,-3.0
2025-06-06 16:18:00.930,-0.010412736,0.03345782,-0.056227744,0.089058645,0.0466847,-0.01973038,0.0,0.0,0.0,0.0,-0.17028648,-0.15488866,-0.048636306,0.090357915,0.60714775,-0.013088993,-0.07813452,-0.24961317,-0.34039503,0.16149038,0.452086,-0.1417404,-0.027773019,-0.087383375,0.026066406,-0.007973275,0.021680593,-0.05656718,0.01925009,-0.017740725,0.06376969,0.010196928,-0.047022562,0.06026844,3.0,-1.3376486,-3.0,3.0,3.0,-0.56174475,-3.0,-1.0147669,-3.0,-3.0,2.6039305,-3.0,3.0,-1.323326,-3.0,3.0,3.0,-0.4362342,-3.0,-1.037126,-3.0,-3.0,2.7388675,-3.0
2025-06-06 16:18:00.950,0.04108297,0.06404824,-0.036760177,0.06316147,-0.02916753,0.015724536,0.0,0.0,0.0,0.0,-0.18295068,-0.1693732,-0.045005176,0.08385687,0.6009169,-0.019264504,-0.07506987,-0.25879213,-0.33856344,0.17355499,0.44675362,-0.15045385,-0.043173283,-0.039650977,-0.055964142,-0.07521155,0.031773,0.014627566,-0.011333088,0.044902347,0.07178569,-0.05949076,-0.02597188,0.048783895,3.0,-1.323326,-3.0,3.0,3.0,-0.4362342,-3.0,-1.037126,-3.0,-3.0,2.7388675,-3.0,3.0,-1.5483266,-3.0,3.0,3.0,-0.14192028,-3.0,-0.7800241,-3.0,-3.0,2.949621,-3.0
2025-06-06 16:18:00.970,-0.07373405,0.054170962,-0.10940834,0.0630264,-0.028192075,0.034800686,0.0,0.0,0.0,0.0,-0.18762939,-0.16758266,-0.047904626,0.09308025,0.59858835,-0.010024256,-0.08214613,-0.23518631,-0.3297186,0.16746068,0.46792492,-0.14371605,0.019710477,-0.01078826,0.06098276,0.060459934,0.06829149,0.08476356,-0.052787922,-0.017127836,0.032677833,0.06431649,-0.021548076,0.048136048,3.0,-1.5483266,-3.0,3.0,3.0,-0.14192028,-3.0,-0.7800241,-3.0,-3.0,2.949621,-3.0,3.0,-1.119036,-3.0,3.0,3.0,-0.9208378,-3.0,-1.0568258,-3.0,-3.0,2.289548,-3.0
2025-06-06 16:18:00.993,0.08649325,-0.012808411,-0.04364008,0.09869274,0.009095315,-0.027301742,0.0,0.0,0.0,0.0,-0.18366107,-0.17120391,-0.052626677,0.08650123,0.61068356,-0.008691945,-0.07470139,-0.25185323,-0.34116936,0.18390694,0.4692372,-0.14551724,0.0065625734,-0.031113986,0.0126140285,0.045804974,0.0039109965,0.015232318,0.007571202,0.033437237,0.07132985,-0.03134956,-0.0736957,-0.010045273,3.0,-1.119036,-3.0,3.0,3.0,-0.9208378,-3.0,-1.0568258,-3.0,-3.0,2.289548,-3.0,3.0,-1.5146779,-3.0,3.0,3.0,-0.4662927,-3.0,-1.029594,-3.0,-3.0,2.9615948,-3.0
2025-06-06 16:18:01.010,-0.01769813,-0.03882253,-0.061756637,0.06917028,0.02996245,0.017096726,0.0,0.0,0.0,0.0,-0.17894888,-0.18656474,-0.06814107,0.07841424,0.5950045,0.0027372567,-0.09023928,-0.2386478,-0.33644128,0.19077861,0.46197167,-0.13816693,0.06454953,-0.06424715,-0.082113214,-0.015135923,-0.022304835,-0.037249513,-0.043745372,-0.019605363,0.029704703,-0.046121422,0.068741955,-0.011236153,3.0,-1.5146779,-3.0,3.0,3.0,-0.4662927,-3.0,-1.029594,-3.0,-3.0,2.9615948,-3.0,3.0,-1.4720246,-3.0,3.0,3.0,-0.28365752,-3.0,-0.8045645,-3.0,-3.0,2.7928214,-3.0
2025-06-06 16:18:01.031,0.02385868,0.049607467,-0.05706257,0.033483822,-0.0035520655,-0.032335117,0.0,0.0,0.0,0.0,-0.18991356,-0.1866129,-0.051463418,0.08397303,0.60429287,-0.0038644075,-0.08439009,-0.248398,-0.33191553,0.18941586,0.46703252,-0.13765188,-0.054246593,-0.059313208,0.055920277,0.045237515,0.015898947,-0.0013021926,-0.024796326,-0.034981344,0.026416095,-0.02098886,0.002528654,-0.039148815,3.0,-1.4720246,-3.0,3.0,3.0,-0.28365752,-3.0,-0.8045645,-3.0,-3.0,2.7928214,-3.0,3.0,-1.5258491,-3.0,3.0,3.0,-0.15719076,-3.0,-0.8098307,-3.0,-3.0,2.8805993,-3.0
2025-06-06 16:18:01.051,-0.056512024,-0.0022307492,-0.11127242,0.10507393,-0.047156487,0.042348687,0.0,0.0,0.0,0.0,-0.19071513,-0.18769823,-0.055028304,0.09195484,0.61650705,0.0009089589,-0.078253694,-0.24633844,-0.34315652,0.17966266,0.47678018,-0.14493948,-0.04873784,0.037889976,-0.06759372,-0.04311781,0.053090516,0.012789533,0.017419925,-0.021799257,-0.0394744,0.011356566,-0.008941374,0.030209104,3.0,-1.5258491,-3.0,3.0,3.0,-0.15719076,-3.0,-0.8098307,-3.0,-3.0,2.8805993,-3.0,3.0,-1.2332422,-3.0,3.0,3.0,-0.65814775,-3.0,-0.79178375,-3.0,-3.0,2.447234,-3.0
2025-06-06 16:18:01.071,0.02875905,-0.028296044,0.002608471,0.091748066,-0.044866767,-0.042473283,0.0,0.0,0.0,0.0,-0.18997538,-0.18586685,-0.0704119,0.08948013,0.59805185,0.020029156,-0.078419186,-0.24528404,-0.34256715,0.18714005,0.46371767,-0.14804305,0.0045919945,-0.07390511,0.05221546,0.026894161,-0.044019327,-0.02546218,-0.072668366,0.04963984,-0.021455651,-0.026673779,0.06959998,-0.046255045,3.0,-1.2332422,-3.0,3.0,3.0,-0.65814775,-3.0,-0.79178375,-3.0,-3.0,2.447234,-3.0,3.0,-1.9662822,-3.0,3.0,3.0,0.09614079,-3.0,-0.8014652,-3.0,-3.0,3.0,-3.0
2025-06-06 16:18:01.093,-0.0078015844,0.010043605,-0.101971015,0.06645202,0.019967705,0.044682197,0.0,0.0,0.0,0.0,-0.18799208,-0.20618893,-0.05638449,0.08906915,0.6067381,0.009030156,-0.09129977,-0.23319204,-0.34167877,0.19093582,0.4854507,-0.15857035,0.037105016,0.011844467,-0.019131735,0.018092625,-0.0024838194,0.055014074,0.02084534,0.0029069213,0.06036624,0.07270578,-0.044560943,0.01418894,3.0,-1.9662822,-3.0,3.0,3.0,0.09614079,-3.0,-0.8014652,-3.0,-3.0,3.0,-3.0,3.0,-1.1393393,-3.0,3.0,3.0,-0.46585247,-3.0,-0.9581699,-3.0,-3.0,2.4369352,-3.0
2025-06-06 16:18:01.111,0.06152202,-0.014735863,-0.019833336,0.05309713,-0.0063611297,-0.04886674,0.0,0.0,0.0,0.0,-0.17117162,-0.21916935,-0.07194878,0.07558043,0.60460967,0.019399414,-0.09015146,-0.2383058,-0.32983986,0.18121253,0.47076938,-0.14316809,-0.025891703,0.003775775,0.00499706,-0.049519595,0.027564108,0.011950856,0.0384256,-0.07306324,0.023267712,-0.015102152,-0.067317165,-0.034272626,3.0,-1.1393393,-3.0,3.0,3.0,-0.46585247,-3.0,-0.9581699,-3.0,-3.0,2.4369352,-3.0,3.0,-1.7921315,-3.0,3.0,3.0,-0.10877748,-3.0,-0.712954,-3.0,-3.0,3.0,-3.0
2025-06-06 16:18:01.131,0.005091712,-0.04320759,-0.0703015,0.036363184,0.01943162,-0.0035354113,0.0,0.0,0.0,0.0,-0.1736715,-0.23140652,-0.0639514,0.08138145,0.59461164,0.02265689,-0.081371315,-0.22982465,-0.33813652,0.19771172,0.47498858,-0.15392831,-0.048747092,-0.06299111,0.033687677,0.026169255,-0.050576318,0.009691197,0.024174426,0.0815488,-0.023913585,0.010413408,-0.013039562,0.036591534,3.0,-1.7921315,-3.0,3.0,3.0,-0.10877748,-3.0,-0.712954,-3.0,-3.0,3.0,-3.0,3.0,-1.4392697,-3.0,3.0,3.0,-0.3694012,-3.0,-0.80219156,-3.0,-3.0,2.5321527,-3.0
2025-06-06 16:18:01.150,0.025255324,0.028433751,-0.054636475,0.08499734,0.030331654,-0.028568847,0.0,0.0,0.0,0.0,-0.18379001,-0.23711517,-0.072417706,0.088191986,0.5937325,0.018087639,-0.09577852,-0.23020463,-0.33086672,0.18600473,0.47974232,-0.16354015,-0.04118865,-0.004589561,0.0351354,-0.021549975,-0.018004367,0.07915418,-0.05287396,0.06286905,0.0004598276,-0.028004866,0.060871825,0.026160866,3.0,-1.4392697,-3.0,3.0,3.0,-0.3694012,-3.0,-0.80219156,-3.0,-3.0,2.5321527,-3.0,3.0,-1.6577306,-3.0,3.0,3.0,-0.47475693,-3.0,-0.8739945,-3.0,-3.0,2.6870847,-3.0
2025-06-06 16:18:01.171,0.0008782149,-0.029644018,-0.028692842,0.12693113,0.038773336,0.036270678,0.0,0.0,0.0,0.0,-0.17975038,-0.24345474,-0.07460476,0.08321293,0.6024344,0.03332124,-0.09608954,-0.21638852,-0.33986714,0.20084995,0.47651577,-0.16131234,-0.072846726,-0.017051013,-0.05570208,0.007574989,-0.023931762,0.034889713,-0.073359825,-0.047964074,-0.06256808,0.033627223,-0.062010266,-0.05114669,3.0,-1.6577306,-3.0,3.0,3.0,-0.47475693,-3.0,-0.8739945,-3.0,-3.0,2.6870847,-3.0,3.0,-1.609681,-3.0,3.0,3.0,-0.2654185,-3.0,-0.7400434,-3.0,-3.0,2.9097092,-3.0
2025-06-06 16:18:01.193,-0.0051432955,0.02435841,-0.020186154,0.12594011,0.008341152,0.023015214,0.0,0.0,0.0,0.0,-0.17495248,-0.2484883,-0.07874371,0.08948337,0.6096336,0.03664425,-0.0987606,-0.23426044,-0.34556377,0.1876429,0.48321515,-0.15088755,-0.067944594,0.027679723,0.05970059,-0.050112866,0.017910954,0.004946753,0.018042548,-0.057541978,-0.016939797,0.010379897,0.0060213534,-0.0015239891,3.0,-1.609681,-3.0,3.0,3.0,-0.2654185,-3.0,-0.7400434,-3.0,-3.0,2.9097092,-3.0,3.0,-1.8360344,-3.0,3.0,3.0,0.103275105,-3.0,-0.64733905,-3.0,-3.0,3.0,-3.0
2025-06-06 16:18:01.211,-0.065512136,-0.042484425,-0.017207049,0.048987888,-0.0048401654,0.026574949,0.0,0.0,0.0,0.0,-0.1782544,-0.24273369,-0.06587053,0.09054435,0.59336615,0.047526363,-0.10354685,-0.21180345,-0.34719265,0.18916611,0.48803222,-0.15679543,-0.021405868,-0.040842693,-0.042182468,-0.0058186967,-0.00252153,0.071695946,-0.008681156,-0.04592599,-0.027714107,-0.03967309,-0.008877539,0.04173373,3.0,-1.8360344,-3.0,3.0,3.0,0.103275105,-3.0,-0.64733905,-3.0,-3.0,3.0,-3.0,3.0,-1.6746892,-3.0,3.0,3.0,0.12048511,-3.0,-0.6929699,-3.0,-3.0,2.9673584,-3.0
2025-06-06 16:18:01.231,-0.053782858,0.02758476,-0.111296274,0.12009468,0.04705808,-0.006896382,0.0,0.0,0.0,0.0,-0.17759144,-0.24915348,-0.06625996,0.07349592,0.60796356,0.03882274,-0.08592003,-0.22045994,-0.335538,0.19042005,0.50072485,-0.16738622,-0.037465114,0.019485712,0.07280468,0.036338326,-0.016593823,0.027688954,0.054897044,0.014205045,0.013713725,0.005138661,0.06595107,-0.0012864955,3.0,-1.6746892,-3.0,3.0,3.0,0.12048511,-3.0,-0.6929699,-3.0,-3.0,2.9673584,-3.0,3.0,-1.441984,-3.0,3.0,3.0,-0.48917767,-3.0,-0.7396762,-3.0,-3.0,2.4103045,-3.0
2025-06-06 16:18:01.251,0.044634566,0.021322543,-0.0052154246,0.1467416,0.008172262,0.0048898724,0.0,0.0,0.0,0.0,-0.19013926,-0.25688463,-0.08247076,0.08314424,0.6039794,0.059443302,-0.10176606,-0.20712642,-0.34580898,0.19282396,0.49302244,-0.17451124,0.020568058,0.0592318,-0.040504526,-0.00043969142,0.0060908804,-0.04727845,-0.03224194,0.023562228,-0.058661442,0.05642646,-0.00798366,0.031862054,3.0,-1.441984,-3.0,3.0,3.0,-0.48917767,-3.0,-0.7396762,-3.0,-3.0,2.4103045,-3.0,3.0,-1.9535073,-3.0,3.0,3.0,0.09647088,-3.0,-0.7559293,-3.0,-3.0,3.0,-3.0
2025-06-06 16:18:01.271,-0.019818485,-0.025049735,-0.11215837,0.0818614,-0.037824616,0.031148002,0.0,0.0,0.0,0.0,-0.18825598,-0.2713498,-0.0821564,0.0769994,0.6002381,0.056358565,-0.09356717,-0.20346776,-0.33562347,0.2020841,0.4812683,-0.16154417,0.07689377,-0.032592807,-0.07163484,-0.017638939,0.027555425,-0.05620429,-0.04576625,0.0072502405,-0.06464202,-0.028383942,0.07378191,-0.029640906,3.0,-1.9535073,-3.0,3.0,3.0,0.09647088,-3.0,-0.7559293,-3.0,-3.0,3.0,-3.0,3.0,-1.262,-3.0,3.0,3.0,-0.32247862,-3.0,-0.6363465,-3.0,-3.0,2.4349017,-3.0
2025-06-06 16:18:01.293,-0.016393874,-0.03247245,-0.06123524,0.13293782,0.033702172,0.011284959,0.0,0.0,0.0,0.0,-0.16766146,-0.288696,-0.07977243,0.09456259,0.598864,0.05357188,-0.09889505,-0.20964406,-0.34430164,0.18574637,0.48180345,-0.17202222,-0.016136829,0.03706878,0.033544194,0.027917342,-0.06503491,0.061255213,-0.017685788,0.020427847,0.022121232,-0.053938854,-0.03990306,-0.029894788,3.0,-1.262,-3.0,3.0,3.0,-0.32247862,-3.0,-0.6363465,-3.0,-3.0,2.4349017,-3.0,3.0,-1.7109343,-3.0,3.0,3.0,-0.8229361,-3.0,-0.80786633,-3.0,-3.0,2.569367,-3.0
2025-06-06 16:18:01.311,-0.016088521,-0.06074893,-0.041070808,0.054149527,0.005695249,0.04792551,0.0,0.0,0.0,0.0,-0.16772081,-0.2898955,-0.077689976,0.08492129,0.59340674,0.048301704,-0.10505573,-0.20602925,-0.3384328,0.19186573,0.4899076,-0.15616854,0.029740313,0.02272489,-0.050450657,-0.0007949768,0.023237413,-0.00077988027,-0.07772088,-0.043668255,-0.035745073,-0.066429466,0.052804682,0.020016324,3.0,-1.7109343,-3.0,3.0,3.0,-0.8229361,-3.0,-0.80786633,-3.0,-3.0,2.569367,-3.0,3.0,-1.6801044,-3.0,3.0,3.0,-0.2848588,-3.0,-0.8585023,-3.0,-3.0,2.9073822,-3.0
2025-06-06 16:18:01.332,0.03375756,-0.0009919382,-0.025173066,0.1285487,-0.029689873,-0.007857901,0.0,0.0,0.0,0.0,-0.17920452,-0.29591957,-0.09588389,0.086321555,0.5964491,0.039551,-0.09369453,-0.22275178,-0.35360524,0.18308806,0.48893884,-0.15942946,0.045601677,-0.041407637,-0.05915595,-0.020338478,-0.031441744,0.04409404,-0.053416133,-0.060645606,0.06883095,-0.0038684914,0.060372632,-0.023968128,3.0,-1.6801044,-3.0,3.0,3.0,-0.2848588,-3.0,-0.8585023,-3.0,-3.0,2.9073822,-3.0,3.0,-1.8403016,-3.0,3.0,3.0,0.07946424,-3.0,-0.5600787,-3.0,-3.0,2.9740775,-3.0
2025-06-06 16:18:01.351,-0.09081249,0.00901357,-0.031332266,0.14021192,-0.040793166,0.0467258,0.0,0.0,0.0,0.0,-0.18148209,-0.3001626,-0.09657007,0.087746985,0.60067606,0.051357776,-0.08801236,-0.21459687,-0.3556498,0.18143393,0.4813203,-0.1645839,0.071902774,0.038414784,0.025095545,-0.04426039,-0.047879793,0.0032874222,-0.05421762,-0.051394243,-0.040852305,0.01787138,-0.014553776,-0.03382278,3.0,-1.8403016,-3.0,3.0,3.0,0.07946424,-3.0,-0.5600787,-3.0,-3.0,2.9740775,-3.0,3.0,-1.7787806,-3.0,3.0,3.0,0.019452853,-3.0,-0.5803389,-3.0,-3.0,2.8621535,-3.0
2025-06-06 16:18:01.372,-0.09217426,-0.01680432,-0.06977373,0.061409686,0.028578183,0.043133948,0.0,0.0,0.0,0.0,-0.18619886,-0.29336476,-0.10017338,0.09590615,0.5912113,0.05311859,-0.08789542,-0.20870984,-0.35814524,0.18217292,0.4933837,-0.1874786,-0.003115892,0.004246834,0.027691705,0.00057794875,0.021407142,-0.010124002,-0.010743847,-0.039643634,-0.06682369,-0.033453356,0.06295527,-0.010631094,3.0,-1.7787806,-3.0,3.0,3.0,0.019452853,-3.0,-0.5803389,-3.0,-3.0,2.8621535,-3.0,3.0,-1.7069005,-3.0,3.0,3.0,-0.22808929,-3.0,-0.5974941,-3.0,-3.0,2.6699739,-3.0
2025-06-06 16:18:01.393,-0.079604045,0.027036954,-0.08189414,0.15921985,0.029713215,-0.027767705,0.0,0.0,0.0,0.0,-0.18277036,-0.30805212,-0.08766452,0.089156315,0.5900582,0.065225184,-0.1047502,-0.1955035,-0.338559,0.18127641,0.49071392,-0.17319995,-0.056374215,0.05179309,0.04467352,-0.016004965,0.013417826,-0.03143415,0.053507335,-0.064217664,0.06561848,-0.07124458,0.0022346945,-0.024530865,3.0,-1.7069005,-3.0,3.0,3.0,-0.22808929,-3.0,-0.5974941,-3.0,-3.0,2.6699739,-3.0,3.0,-1.5735884,-3.0,3.0,3.0,-0.3795962,-3.0,-0.754378,-3.0,-3.0,2.5984275,-3.0
2025-06-06 16:18:01.412,-0.043216586,0.020197807,-0.026878394,0.11947875,-0.008654768,-0.008037993,0.0,0.0,0.0,0.0,-0.17174529,-0.31915775,-0.09066316,0.086216204,0.5931986,0.06475057,-0.100154735,-0.20156294,-0.3518452,0.17496012,0.49414322,-0.17626798,-0.008192515,0.010262599,0.007568282,0.0048761284,0.013976438,-0.047021206,0.04839377,-0.07673351,0.028053513,-0.04041111,-0.053907637,0.009235281,3.0,-1.5735884,-3.0,3.0,3.0,-0.3795962,-3.0,-0.754378,-3.0,-3.0,2.5984275,-3.0,3.0,-1.841586,-3.0,3.0,3.0,-0.0024122763,-3.0,-0.6102525,-3.0,-3.0,3.0,-3.0
2025-06-06 16:18:01.432,-0.051404946,-0.027548695,-0.063862264,0.16544904,-0.0259745,-0.033631463,0.0,0.0,0.0,0.0,-0.16854185,-0.31044188,-0.10015904,0.10578469,0.5847555,0.06589841,-0.09222442,-0.2072081,-0.33622837,0.182684,0.48924255,-0.17785498,-0.046336826,0.015180949,0.0016355033,-0.030757057,0.06179494,-0.062180296,0.038540654,-0.047990035,0.006624929,-0.064585455,-0.019253055,-0.065907896,3.0,-1.841586,-3.0,3.0,3.0,-0.0024122763,-3.0,-0.6102525,-3.0,-3.0,3.0,-3.0,3.0,-1.59124,-3.0,3.0,3.0,-0.09736855,-3.0,-0.5427096,-3.0,-3.0,2.6858833,-3.0
2025-06-06 16:18:01.452,-0.007942185,-0.04662406,-0.02969082,0.1373121,-0.027561633,-0.0427986,0.0,0.0,0.0,0.0,-0.1723617,-0.3297782,-0.090865284,0.09548805,0.59181017,0.060416028,-0.10366916,-0.18831883,-0.3508339,0.1858437,0.4959151,-0.18477428,-0.06024372,0.020082178,-0.0031164975,-0.043448053,0.045519017,0.00014345247,0.030779481,-0.037922893,0.047431592,-0.049050447,0.037343636,0.035073895,3.0,-1.59124,-3.0,3.0,3.0,-0.09736855,-3.0,-0.5427096,-3.0,-3.0,2.6858833,-3.0,3.0,-1.9316542,-3.0,3.0,3.0,0.048723266,-3.0,-0.5895563,-3.0,-3.0,2.950217,-3.0
2025-06-06 16:18:01.472,-0.041273084,0.023799673,-0.02885407,0.12180536,0.00079422526,0.006895864,0.0,0.0,0.0,0.0,-0.17199877,-0.33770096,-0.09999725,0.09492085,0.59722406,0.07252422,-0.09075374,-0.1997221,-0.3496482,0.1873521,0.49344453,-0.17544362,-0.06768891,-0.050399557,-0.032889657,0.05929917,-0.008980982,0.03163535,-0.037807655,0.02464755,0.010273377,-0.029999856,-0.025674408,-0.04500226,3.0,-1.9316542,-3.0,3.0,3.0,0.048723266,-3.0,-0.5895563,-3.0,-3.0,2.950217,-3.0,3.0,-1.754213,-3.0,3.0,3.0,0.056543633,-3.0,-0.499182,-3.0,-3.0,2.7960188,-3.0
2025-06-06 16:18:01.493,-0.030498743,-0.032029804,-0.01558674,0.10992147,0.0031064914,-0.029921943,0.0,0.0,0.0,0.0,-0.16865626,-0.33675495,-0.09726413,0.10257114,0.5856118,0.07938424,-0.08829444,-0.18126266,-0.354384,0.17766492,0.49576816,-0.17964315,0.021703811,0.008503347,0.028079467,0.061862376,0.070948415,0.07648536,0.045570645,0.08092845,-0.060401954,0.036545485,-0.035034973,0.03139234,3.0,-1.754213,-3.0,3.0,3.0,0.056543633,-3.0,-0.499182,-3.0,-3.0,2.7960188,-3.0,3.0,-1.9395686,-3.0,3.0,3.0,-0.052236512,-3.0,-0.67960364,-3.0,-3.0,2.8083217,-3.0
2025-06-06 16:18:01.512,-0.013816794,-0.043842018,-0.03795934,0.14910981,0.051995106,-0.017809179,0.0,0.0,0.0,0.0,-0.18110685,-0.35162583,-0.09060732,0.1069553,0.59682757,0.09005875,-0.09453314,-0.19028647,-0.33666548,0.18209958,0.5054029,-0.19680296,-0.05850646,0.035627156,-0.016995903,-0.06533193,-0.059793,0.065000825,-0.0076050363,-0.032761104,-0.008407004,0.043974176,-0.020647101,-0.042364243,3.0,-1.9395686,-3.0,3.0,3.0,-0.052236512,-3.0,-0.67960364,-3.0,-3.0,2.8083217,-3.0,3.0,-1.7612088,-3.0,3.0,3.0,-0.24585505,-3.0,-0.5928177,-3.0,-3.0,2.6230886,-3.0
2025-06-06 16:18:01.532,-0.009433996,-0.044047046,-0.015947355,0.106655374,-0.0044863448,-0.0067227585,0.0,0.0,0.0,0.0,-0.17897294,-0.3563425,-0.09507897,0.10959869,0.5801524,0.08729901,-0.088998556,-0.1812248,-0.3402035,0.1774501,0.5103363,-0.18659505,0.0008636504,9.8917495e-05,-0.06887399,0.022984527,-0.06780157,-0.050823815,-0.0057682116,-0.022678202,0.06828683,0.062093083,-0.08103774,0.011496843,3.0,-1.7612088,-3.0,3.0,3.0,-0.24585505,-3.0,-0.5928177,-3.0,-3.0,2.6230886,-3.0,3.0,-1.8839958,-3.0,3.0,3.0,-0.04236169,-3.0,-0.6274705,-3.0,-3.0,2.9178517,-3.0
2025-06-06 16:18:01.552,-0.07684957,-0.075014934,-0.050902147,0.10660375,0.06510301,0.02589849,0.0,0.0,0.0,0.0,-0.17757939,-0.35176358,-0.1099735,0.10454009,0.59028304,0.09130288,-0.08125726,-0.19476096,-0.34639686,0.16395348,0.49755424,-0.18522333,-0.023642508,0.010151062,-0.06999786,-0.038041778,0.052572407,-0.036398705,-0.025661891,-0.05956131,0.053534325,-0.05094704,0.011743723,-0.013074202,3.0,-1.8839958,-3.0,3.0,3.0,-0.04236169,-3.0,-0.6274705,-3.0,-3.0,2.9178517,-3.0,3.0,-1.7867801,-3.0,3.0,3.0,-0.10158153,-3.0,-0.55716056,-3.0,-3.0,2.7353327,-3.0
2025-06-06 16:18:01.572,-0.04970754,0.009399769,-0.052134767,0.0924534,-0.015548579,-0.040306862,0.0,0.0,0.0,0.0,-0.17522861,-0.3662639,-0.105341025,0.10675309,0.5871173,0.08730876,-0.098631695,-0.18726982,-0.3375087,0.1592304,0.5077174,-0.1864159,0.064262904,0.055680357,-0.017017465,0.016607184,-0.008154321,-0.024833972,-0.06274576,-0.061230745,-0.050569333,-0.07552825,-0.043863073,0.036561158,3.0,-1.7867801,-3.0,3.0,3.0,-0.10158153,-3.0,-0.55716056,-3.0,-3.0,2.7353327,-3.0,3.0,-1.6841916,-3.0,3.0,3.0,-0.4542496,-3.0,-0.6221518,-3.0,-3.0,2.5473733,-3.0
2025-06-06 16:18:01.593,0.04809394,-0.075614244,-0.039438922,0.098193556,0.026429819,0.02855719,0.0,0.0,0.0,0.0,-0.1686862,-0.37737674,-0.10276652,0.11127215,0.5849979,0.07995787,-0.09754435,-0.19872557,-0.34240448,0.1639633,0.49578255,-0.1931179,0.024039784,0.0073174736,-0.068525955,0.008441788,-0.0062595545,-0.07057675,-0.054316398,-0.005781748,-0.068788275,-0.076435536,-0.0047929357,0.005648356,3.0,-1.6841916,-3.0,3.0,3.0,-0.4542496,-3.0,-0.6221518,-3.0,-3.0,2.5473733,-3.0,3.0,-1.8196926,-3.0,3.0,3.0,-0.42075977,-3.0,-0.6249196,-3.0,-3.0,2.6826699,-3.0
2025-06-06 16:18:01.612,0.050333403,-0.00023129182,-0.021253299,0.18496877,0.045366246,-0.019738842,0.0,0.0,0.0,0.0,-0.16994318,-0.38305646,-0.10194932,0.096499614,0.5696244,0.0832952,-0.08003599,-0.18532075,-0.3433772,0.1618853,0.48763365,-0.19192797,-0.049588993,0.033421516,0.03742081,-0.050048202,0.046936873,0.02553031,0.021413878,-0.0054221833,-0.0078722965,-0.04875252,-0.07623542,-0.0463908,3.0,-1.8196926,-3.0,3.0,3.0,-0.42075977,-3.0,-0.6249196,-3.0,-3.0,2.6826699,-3.0,3.0,-1.8834968,-3.0,3.0,3.0,-0.22263129,-3.0,-0.65477973,-3.0,-3.0,2.7420566,-3.0
2025-06-06 16:18:01.632,0.025480874,-0.009587419,0.0034403629,0.18510452,0.011573351,-0.044547226,0.0,0.0,0.0,0.0,-0.17284548,-0.3749365,-0.110989206,0.09720775,0.572878,0.07587283,-0.09594669,-0.20151532,-0.34399086,0.14991158,0.49469256,-0.19830048,-0.059912942,0.014809086,-0.029165644,0.040263213,-0.039003026,-0.023677703,-0.014972532,0.055860132,-0.009132629,-0.04044656,-0.015513223,-0.015092271,3.0,-1.8834968,-3.0,3.0,3.0,-0.22263129,-3.0,-0.65477973,-3.0,-3.0,2.7420566,-3.0,3.0,-1.9491047,-3.0,3.0,3.0,0.06469743,-3.0,-0.5078663,-3.0,-3.0,2.795419,-3.0
2025-06-06 16:18:01.652,-0.0034639628,-0.04766229,-0.06381898,0.15335621,0.07760193,0.023283865,0.0,0.0,0.0,0.0,-0.16924007,-0.3898858,-0.1097435,0.108591355,0.56347615,0.07114641,-0.093704104,-0.1959949,-0.3485244,0.14993311,0.504142,-0.20023738,-0.021283835,-0.045448262,0.00012370817,-0.010648598,-0.06263199,0.06772555,0.05686968,0.06925204,-0.0017688485,0.030287627,-0.0098832,-0.03778938,3.0,-1.9491047,-3.0,3.0,3.0,0.06469743,-3.0,-0.5078663,-3.0,-3.0,2.795419,-3.0,3.0,-1.6842825,-3.0,3.0,3.0,-0.5965274,-3.0,-0.63129276,-3.0,-3.0,2.2590516,-3.0
2025-06-06 16:18:01.676,-0.010330888,0.008473294,0.01671549,0.1473294,0.07337585,-0.03206505,0.0,0.0,0.0,0.0,-0.15606496,-0.38421375,-0.12468446,0.11784787,0.55960435,0.08252192,-0.09474865,-0.19871584,-0.35142866,0.15869601,0.4910489,-0.19757378,0.0005838171,-0.04192256,-0.07484684,0.06370107,0.046251055,0.00310748,-0.01832365,0.03259428,-0.036781646,-0.006034874,-0.07835518,-0.0020248846,3.0,-1.6842825,-3.0,3.0,3.0,-0.5965274,-3.0,-0.63129276,-3.0,-3.0,2.2590516,-3.0,3.0,-2.0669916,-3.0,3.0,3.0,-0.10490544,-3.0,-0.7682076,-3.0,-3.0,3.0,-3.0
2025-06-06 16:18:01.693,-0.00033702506,-0.10966387,-0.0076125343,0.12412165,0.052735075,0.023053836,0.0,0.0,0.0,0.0,-0.15518962,-0.3989466,-0.11830803,0.10963014,0.57441425,0.08227829,-0.09366801,-0.18870257,-0.34880438,0.15906684,0.49387833,-0.19907711,-0.051846527,-0.026373511,-0.06258182,-0.057594515,-0.038759302,-0.044951774,-0.06924989,0.0210033,-0.024590317,-0.012943878,0.05636075,-0.08724052,3.0,-2.0669916,-3.0,3.0,3.0,-0.10490544,-3.0,-0.7682076,-3.0,-3.0,3.0,-3.0,3.0,-1.8631829,-3.0,3.0,3.0,0.037660047,-3.0,-0.3519961,-3.0,-3.0,2.6886623,-3.0
2025-06-06 16:18:01.714,-0.11404665,-0.063999005,-0.008646621,0.19351868,0.0529623,0.02239008,0.0,0.0,0.0,0.0,-0.16125934,-0.39945942,-0.117544286,0.10826391,0.55996513,0.081262216,-0.08144518,-0.18744782,-0.3583981,0.15607458,0.49944386,-0.20655769,0.06215045,-0.031856757,-0.057238635,-0.06147288,-0.026655765,-0.015165632,-0.0495826,-0.03285521,-0.07607859,0.00802229,0.031842504,-0.050667975,3.0,-1.8631829,-3.0,3.0,3.0,0.037660047,-3.0,-0.3519961,-3.0,-3.0,2.6886623,-3.0,3.0,-2.0955184,-3.0,3.0,3.0,0.04568641,-3.0,-0.55341744,-3.0,-3.0,2.8671186,-3.0
2025-06-06 16:18:01.735,-0.109265804,-0.01626464,-0.015934046,0.12550898,0.054661606,-0.021532685,0.0,0.0,0.0,0.0,-0.14740022,-0.4128661,-0.1174441,0.11939366,0.5591292,0.07542499,-0.090802304,-0.18569252,-0.34738368,0.14193802,0.4977366,-0.22327533,0.06434642,-0.07749145,0.06467562,0.012915211,0.028573452,-0.0020325156,0.031647637,-0.01317689,0.074852064,0.008196313,-0.036231168,-0.0418286,3.0,-2.0955184,-3.0,3.0,3.0,0.04568641,-3.0,-0.55341744,-3.0,-3.0,2.8671186,-3.0,3.0,-1.8540608,-3.0,3.0,3.0,0.035727307,-3.0,-0.6444785,-3.0,-3.0,2.6970274,-3.0
2025-06-06 16:18:01.754,-0.07723702,0.0074380096,-0.040226478,0.15620781,0.08754508,-0.01977855,0.0,0.0,0.0,0.0,-0.15356971,-0.42131713,-0.124139704,0.11457984,0.5750899,0.08691169,-0.08173226,-0.18383385,-0.33973327,0.146935,0.5000539,-0.2081585,-0.012992829,-0.062106922,-0.024595583,-0.031220816,0.0354168,0.02921825,0.032241747,0.03618362,0.0029396254,0.06768833,0.07035508,-0.046117313,3.0,-1.8540608,-3.0,3.0,3.0,0.035727307,-3.0,-0.6444785,-3.0,-3.0,2.6970274,-3.0,3.0,-1.965156,-3.0,3.0,3.0,-0.16250284,-3.0,-0.49512857,-3.0,-3.0,2.565776,-3.0
2025-06-06 16:18:01.777,-0.003829265,-0.070963226,-0.0017919039,0.13049129,0.02791788,0.02828641,0.0,0.0,0.0,0.0,-0.14518762,-0.44140053,-0.13194256,0.11842505,0.5741923,0.09970514,-0.08336763,-0.19418041,-0.35423872,0.14609529,0.50167716,-0.2235722,-0.011379952,-0.07161484,0.0073500383,-0.04911569,0.056109447,0.016000275,-0.009158996,0.022726955,0.03753525,0.033195972,-0.07474965,0.024786927,3.0,-1.965156,-3.0,3.0,3.0,-0.16250284,-3.0,-0.49512857,-3.0,-3.0,2.565776,-3.0,3.0,-2.0062099,-3.0,3.0,3.0,-0.05641611,-3.0,-0.62521,-3.0,-3.0,2.808968,-3.0
2025-06-06 16:18:01.794,-0.058988065,-0.10018363,-0.103056885,0.14915732,0.026361812,-0.0079952935,0.0,0.0,0.0,0.0,-0.1497946,-0.4406404,-0.13402809,0.11307591,0.55809826,0.09638095,-0.08445835,-0.18902844,-0.34776664,0.1336303,0.4986702,-0.2187861,0.021903073,-0.029599378,-0.05708427,-0.0516194,0.031990476,0.076453105,0.07459586,0.0014939177,0.005745417,0.043737583,-0.06850311,-0.031398535,3.0,-2.0062099,-3.0,3.0,3.0,-0.05641611,-3.0,-0.62521,-3.0,-3.0,2.808968,-3.0,3.0,-1.4658974,-3.0,3.0,3.0,-1.0476434,-3.0,-0.60834026,-3.0,-3.0,1.9005264,-3.0
2025-06-06 16:18:01.815,0.077356756,-0.07518824,-0.041219175,0.19947499,0.03376047,0.018867683,0.0,0.0,0.0,0.0,-0.1366693,-0.45103207,-0.1340753,0.12295358,0.56312555,0.090786956,-0.09045166,-0.18284748,-0.3468772,0.1297641,0.48250693,-0.22330995,0.040706675,0.02267224,0.004062636,0.016772285,0.043511674,0.0077952887,0.061447356,-0.050296817,0.033041753,0.03567247,-0.037379242,0.011319067,3.0,-1.4658974,-3.0,3.0,3.0,-1.0476434,-3.0,-0.60834026,-3.0,-3.0,1.9005264,-3.0,3.0,-1.8455073,-3.0,3.0,3.0,-1.0300148,-3.0,-0.9398121,-3.0,-3.0,2.4710305,-3.0
2025-06-06 16:18:01.834,0.04974634,-0.12758295,-0.050744183,0.1784387,0.06889328,-0.04391934,0.0,0.0,0.0,0.0,-0.14695469,-0.44625476,-0.13295835,0.112394296,0.55614966,0.08446498,-0.07905386,-0.20635548,-0.3431154,0.12302058,0.47872454,-0.20952952,-0.02313124,0.005446741,-0.037064094,-0.022497898,-0.007425227,0.018606953,0.016188277,0.014457508,-0.059787326,0.018193904,-0.0705948,0.04611161,3.0,-1.8455073,-3.0,3.0,3.0,-1.0300148,-3.0,-0.9398121,-3.0,-3.0,2.4710305,-3.0,3.0,-1.5803534,-3.0,3.0,3.0,-1.0921924,-3.0,-0.8019752,-3.0,-3.0,2.0781558,-3.0
2025-06-06 16:18:01.855,0.06803731,-0.099198356,0.048517425,0.12340598,0.073643364,0.032188043,0.0,0.0,0.0,0.0,-0.13837822,-0.44773057,-0.1441712,0.11676772,0.55786484,0.06960899,-0.08717727,-0.20631073,-0.34607482,0.12083661,0.47164133,-0.21958162,-0.006962819,-0.03608813,0.035192236,-0.0037180656,-0.043477148,-0.069247864,-0.044673998,-0.0094162915,0.03207189,-0.061071184,-0.051095456,-0.028760666,3.0,-1.5803534,-3.0,3.0,3.0,-1.0921924,-3.0,-0.8019752,-3.0,-3.0,2.0781558,-3.0,3.0,-2.228307,-3.0,3.0,3.0,-0.32966015,-3.0,-0.69195014,-3.0,-3.0,3.0,-3.0
2025-06-06 16:18:01.877,-0.0023500335,-0.08698333,-0.019941887,0.16857606,0.12925906,0.021338178,0.0,0.0,0.0,0.0,-0.13339525,-0.45726255,-0.15278448,0.121355936,0.545588,0.046607804,-0.09404124,-0.21537101,-0.33843476,0.11325436,0.45387876,-0.21455993,0.004572819,-0.057278328,0.009609126,-0.06308563,0.0716797,-0.07431821,0.025753219,0.07475673,-0.0811522,-0.044997748,-0.034987308,-0.07878943,3.0,-2.228307,-3.0,3.0,3.0,-0.32966015,-3.0,-0.69195014,-3.0,-3.0,3.0,-3.0,3.0,-1.7538242,-3.0,3.0,3.0,-0.36473092,-3.0,-0.5614676,-3.0,-3.0,2.3345687,-3.0
2025-06-06 16:18:01.895,-0.027721502,-0.07594416,-0.039820023,0.1196958,0.1017478,-0.028864788,0.0,0.0,0.0,0.0,-0.13286433,-0.4650072,-0.16102754,0.12811914,0.54666203,0.038844638,-0.0905198,-0.20904616,-0.3443568,0.124441534,0.45616427,-0.23983331,-0.0143060535,0.060547303,0.030763099,0.0034063854,0.011642341,0.0070201512,0.07154151,-0.041587986,-0.08090016,0.032139637,0.022005256,-0.0019119737,3.0,-1.7538242,-3.0,3.0,3.0,-0.36473092,-3.0,-0.5614676,-3.0,-3.0,2.3345687,-3.0,3.0,-1.9631873,-3.0,3.0,3.0,-0.75920385,-3.0,-0.6501982,-3.0,-3.0,2.3069503,-3.0
2025-06-06 16:18:01.915,-0.07157989,-0.093076624,-0.01799058,0.12754719,0.087542385,0.044997107,0.0,0.0,0.0,0.0,-0.12082259,-0.4751402,-0.15626408,0.13962448,0.5439083,0.039543767,-0.08080687,-0.2066776,-0.34739715,0.11914554,0.46692124,-0.23290762,-0.01693201,0.029511115,0.06047267,0.07372322,-0.06390627,0.015058169,0.0124450205,-0.06664034,-0.024487229,0.0054152105,0.04178798,-0.07921326,3.0,-1.9631873,-3.0,3.0,3.0,-0.75920385,-3.0,-0.6501982,-3.0,-3.0,2.3069503,-3.0,3.0,-1.9367741,-3.0,3.0,3.0,-0.70737284,-3.0,-0.70203775,-3.0,-3.0,2.3829048,-3.0
2025-06-06 16:18:01.935,0.014639181,-0.033291765,-0.023847649,0.12951125,0.056208465,0.036275618,0.0,0.0,0.0,0.0,-0.1159793,-0.47333384,-0.14494708,0.14613296,0.55168945,0.0333545,-0.08401372,-0.20634438,-0.35708177,0.10995684,0.45064303,-0.24417186,0.016874589,-0.06933721,0.0025492865,0.01762722,-0.02406764,0.06642183,-0.017604934,0.02829805,0.0695619,-0.034858756,0.035188485,0.04125789,3.0,-1.9367741,-3.0,3.0,3.0,-0.70737284,-3.0,-0.70203775,-3.0,-3.0,2.3829048,-3.0,3.0,-1.8082272,-3.0,3.0,3.0,-0.8533129,-3.0,-0.76168567,-3.0,-3.0,2.179844,-3.0
2025-06-06 16:18:01.955,0.010678234,-0.03163307,-0.022502143,0.15406875,0.09777599,0.030038297,0.0,0.0,0.0,0.0,-0.12153885,-0.49684724,-0.1508175,0.1374758,0.55176604,0.04439993,-0.09061578,-0.22536556,-0.35848713,0.104674526,0.46053684,-0.23166698,0.052432142,-0.02569454,0.042971935,0.07123675,-0.061742067,0.011236443,-0.05691171,0.022562759,0.028421111,-0.03447391,-0.04565376,0.023985928,3.0,-1.8082272,-3.0,3.0,3.0,-0.8533129,-3.0,-0.76168567,-3.0,-3.0,2.179844,-3.0,3.0,-1.7968863,-3.0,3.0,3.0,-0.99542695,-3.0,-0.84611166,-3.0,-3.0,2.2176235,-3.0
2025-06-06 16:18:01.977,0.024139227,-0.09100678,-0.04517561,0.19192678,0.15291938,0.005894593,0.0,0.0,0.0,0.0,-0.11073444,-0.49379116,-0.15588242,0.13948719,0.5494059,0.029478952,-0.084165454,-0.21499206,-0.34918556,0.09650013,0.4531598,-0.24627021,0.06093872,-0.07944165,0.034685623,0.023910634,-0.058090262,0.018280951,-0.022643266,0.03807847,0.019429822,0.052639604,-0.0073585194,-0.07030535,3.0,-1.7968863,-3.0,3.0,3.0,-0.99542695,-3.0,-0.84611166,-3.0,-3.0,2.2176235,-3.0,3.0,-1.6702849,-3.0,3.0,3.0,-1.3564439,-3.0,-0.9146113,-3.0,-3.0,1.920008,-3.0
2025-06-06 16:18:01.995,0.017208694,-0.06407039,0.03315403,0.16092847,0.07990168,0.0049009244,0.0,0.0,0.0,0.0,-0.11966432,-0.4978448,-0.17171456,0.1363242,0.52883613,0.011017257,-0.078147635,-0.24027334,-0.35742655,0.08698973,0.43846887,-0.24582438,-0.050673477,-0.051867474,-0.09072238,-0.005126277,0.024477892,-0.07313401,0.04430609,-0.018278757,0.012192471,0.013701787,-0.06941888,-0.036900796,3.0,-1.6702849,-3.0,3.0,3.0,-1.3564439,-3.0,-0.9146113,-3.0,-3.0,1.920008,-3.0,3.0,-2.1240575,-3.0,3.0,3.0,-0.57872206,-3.0,-0.65631646,-3.0,-3.0,2.799804,-3.0
2025-06-06 16:18:02.015,-0.06566669,-0.103900194,-0.003180498,0.15598701,0.10610584,0.028536456,0.0,0.0,0.0,0.0,-0.10388664,-0.5171223,-0.1602974,0.14975141,0.5350624,0.005726237,-0.09087151,-0.23108838,-0.34651166,0.09010353,0.4353616,-0.25733328,-0.048526835,-0.061768174,0.038466744,-0.054416914,0.050017826,-0.0020913733,-0.020669851,0.075046785,-0.01841021,0.022807637,0.062121887,0.021855438,3.0,-2.1240575,-3.0,3.0,3.0,-0.57872206,-3.0,-0.65631646,-3.0,-3.0,2.799804,-3.0,3.0,-1.9883286,-3.0,3.0,3.0,-0.58483666,-3.0,-0.5863432,-3.0,-3.0,2.1827762,-3.0
2025-06-06 16:18:02.035,-0.08947021,-0.030987721,-0.050501138,0.15409987,0.15131943,-0.04435562,0.0,0.0,0.0,0.0,-0.09641434,-0.51527554,-0.16560182,0.14820746,0.53160596,0.023869207,-0.084367946,-0.22932222,-0.361923,0.08994193,0.42882583,-0.26078883,-0.018507283,0.02496872,0.03006804,0.006514311,-0.06850502,0.07031085,0.012270465,0.07308869,0.054884054,-0.05390908,-0.022573799,0.062167235,3.0,-1.9883286,-3.0,3.0,3.0,-0.58483666,-3.0,-0.5863432,-3.0,-3.0,2.1827762,-3.0,3.0,-1.6786141,-3.0,3.0,3.0,-1.3595234,-3.0,-0.9473799,-3.0,-3.0,1.6956226,-3.0
2025-06-06 16:18:02.055,0.04316739,-0.015806045,-0.05776605,0.1844821,0.11367269,0.02523544,0.0,0.0,0.0,0.0,-0.09115312,-0.53232193,-0.16343859,0.1542111,0.5259871,0.022231031,-0.079523906,-0.22541983,-0.35486826,0.08467896,0.4308337,-0.25069347,-0.044635806,-0.039040074,0.053657208,-0.066037595,-0.0034510836,0.011860263,-0.03236027,0.055735525,-0.027079301,-0.088293955,-0.0030971006,0.06038311,3.0,-1.6786141,-3.0,3.0,3.0,-1.3595234,-3.0,-0.9473799,-3.0,-3.0,1.6956226,-3.0,3.0,-1.4628173,-3.0,3.0,3.0,-1.7040104,-3.0,-1.0017372,-3.0,-3.0,1.7256747,-3.0
2025-06-06 16:18:02.076,0.068701155,-0.016324915,-0.04787255,0.16389784,0.14387266,0.028077144,0.0,0.0,0.0,0.0,-0.10302538,-0.525163,-0.17025381,0.15312697,0.5377313,0.009952165,-0.09200677,-0.24548368,-0.3571892,0.07776319,0.40133968,-0.24974124,-0.005961489,-0.037660982,0.010809866,-0.059658278,-0.0674185,-0.06491959,0.004923128,0.029591255,-0.007347925,-0.020715436,-0.058624227,0.04204185,3.0,-1.4628173,-3.0,3.0,3.0,-1.7040104,-3.0,-1.0017372,-3.0,-3.0,1.7256747,-3.0,3.0,-1.518833,-3.0,3.0,3.0,-1.8934644,-3.0,-0.98654485,-3.0,-3.0,1.7326461,-3.0
2025-06-06 16:18:02.095,0.09539949,-0.11210847,-0.008927064,0.19814767,0.18429182,-0.028930826,0.0,0.0,0.0,0.0,-0.08840818,-0.53816134,-0.19898382,0.15641624,0.52337503,-0.0130136255,-0.092794,-0.2559973,-0.35862324,0.06136257,0.39926398,-0.23985533,0.008885765,0.011891158,-0.08629495,-0.041057516,-0.017621482,-0.08342457,0.035445277,-0.08056753,0.066696435,-0.034387466,0.008067388,-0.04235894,3.0,-1.518833,-3.0,3.0,3.0,-1.8934644,-3.0,-0.98654485,-3.0,-3.0,1.7326461,-3.0,3.0,-1.780474,-3.0,3.0,3.0,-1.5013696,-3.0,-0.94626075,-3.0,-3.0,2.1356518,-3.0
2025-06-06 16:18:02.116,-0.014459639,-0.14858606,-0.006270013,0.15839364,0.19526304,0.032426324,0.0,0.0,0.0,0.0,-0.08553246,-0.545422,-0.20288868,0.16543391,0.5315404,-0.034930833,-0.08589537,-0.2653295,-0.35694993,0.04879529,0.37766248,-0.25217885,-0.060320113,-0.020778898,-0.02174351,0.060309883,-0.06551024,-0.014152702,-0.02749676,-0.062849976,-0.06953729,-0.047892977,-0.034019783,0.042700436,3.0,-1.780474,-3.0,3.0,3.0,-1.5013696,-3.0,-0.94626075,-3.0,-3.0,2.1356518,-3.0,3.0,-1.6820964,-3.0,3.0,3.0,-1.695788,-3.0,-0.83363646,-3.0,-3.0,1.7302284,-3.0
2025-06-06 16:18:02.135,-0.042237923,-0.1250599,0.019399086,0.19658722,0.14395142,0.0018583561,0.0,0.0,0.0,0.0,-0.07288977,-0.546015,-0.20999919,0.15968357,0.52572525,-0.047537725,-0.0815241,-0.2532062,-0.3506258,0.040215768,0.3868018,-0.2585894,0.07551412,0.018428545,0.02182109,-0.025976678,-0.036368992,-0.08249867,-0.074025795,-0.024312574,0.026938053,0.015532291,0.049154945,0.009590919,3.0,-1.6820964,-3.0,3.0,3.0,-1.695788,-3.0,-0.83363646,-3.0,-3.0,1.7302284,-3.0,3.0,-1.8936406,-3.0,3.0,3.0,-1.4242213,-3.0,-1.0472336,-3.0,-3.0,2.1073222,-3.0
2025-06-06 16:18:02.155,-0.07685487,-0.10720375,-0.010728639,0.20199563,0.13644513,-0.040423736,0.0,0.0,0.0,0.0,-0.080918975,-0.5375859,-0.19811814,0.17370877,0.5188451,-0.043652203,-0.094147734,-0.25925243,-0.3567721,0.04755522,0.37113506,-0.27374318,0.05437924,-0.01361027,-0.06299692,-0.059992813,-0.05195956,-0.056836575,0.052258916,0.04338752,-0.001216362,0.050159294,-0.060174845,-0.024296748,3.0,-1.8936406,-3.0,3.0,3.0,-1.4242213,-3.0,-1.0472336,-3.0,-3.0,2.1073222,-3.0,3.0,-1.6267371,-3.0,3.0,3.0,-1.5856826,-3.0,-0.8979535,-3.0,-3.0,1.68825,-3.0
2025-06-06 16:18:02.176,-0.08081772,-0.11058199,-0.07238337,0.19741516,0.13955541,-0.04805647,0.0,0.0,0.0,0.0,-0.07034234,-0.5565531,-0.20167075,0.1748829,0.526891,-0.060282577,-0.07674106,-0.25486532,-0.3617502,0.028850568,0.3752989,-0.2642394,0.03544659,-0.042741142,-0.08113542,-0.064345375,0.016557747,-0.08691135,0.05035042,0.022412015,0.06299648,-0.081606925,0.021434603,-0.05182038,3.0,-1.6267371,-3.0,3.0,3.0,-1.5856826,-3.0,-0.8979535,-3.0,-3.0,1.68825,-3.0,3.0,-1.4270105,-3.0,3.0,3.0,-2.0659916,-3.0,-1.0746511,-3.0,-3.0,1.4373984,-3.0
2025-06-06 16:18:02.196,-0.03354073,-0.04820966,0.021298686,0.20356916,0.1866181,0.047031227,0.0,0.0,0.0,0.0,-0.06878083,-0.55215895,-0.22222307,0.16897091,0.5232093,-0.062186167,-0.09177566,-0.26439387,-0.36407882,0.021726128,0.35971087,-0.26122478,0.039890945,-0.07200241,-0.042167667,0.062303502,-0.038075775,-0.04808193,0.003777164,-0.07737512,-0.04978591,-0.05675163,-0.077833444,-0.03348126,3.0,-1.4270105,-3.0,3.0,3.0,-2.0659916,-3.0,-1.0746511,-3.0,-3.0,1.4373984,-3.0,3.0,-1.7450465,-3.0,3.0,3.0,-1.9886322,-3.0,-1.0325749,-3.0,-3.0,1.9307193,-3.0
2025-06-06 16:18:02.217,-0.0663365,-0.09987159,-0.031041237,0.23976956,0.16930597,-0.02220883,0.0,0.0,0.0,0.0,-0.051279876,-0.5662548,-0.22151552,0.18479629,0.5075912,-0.07966678,-0.07493163,-0.2695266,-0.3571935,0.01775104,0.3473737,-0.2678514,-0.016837783,-0.07654557,-0.07495769,0.025135655,0.012865229,0.037325494,-0.014320471,-0.06723367,0.0457829,-0.050569892,-0.059278164,-0.007057338,3.0,-1.7450465,-3.0,3.0,3.0,-1.9886322,-3.0,-1.0325749,-3.0,-3.0,1.9307193,-3.0,3.0,-1.3433791,-3.0,3.0,3.0,-2.3217626,-3.0,-1.102955,-3.0,-3.0,1.3035756,-3.0
2025-06-06 16:18:02.237,-0.050775316,-0.08224008,-0.021575134,0.14472298,0.19655791,0.00700725,0.0,0.0,0.0,0.0,-0.046271633,-0.5662921,-0.22039732,0.18200675,0.5220877,-0.08035099,-0.075494245,-0.26716375,-0.34753045,0.009579604,0.32960296,-0.27394173,-0.0006194512,0.02451309,0.0038635111,-0.06327988,0.018707952,-0.06563376,-0.0063328776,-0.0020243407,-0.026379054,-0.07361406,-0.01992967,0.05072882,3.0,-1.3433791,-3.0,3.0,3.0,-2.3217626,-3.0,-1.102955,-3.0,-3.0,1.3035756,-3.0,3.0,-1.4770613,-3.0,3.0,3.0,-2.558729,-3.0,-1.2702543,-3.0,-3.0,1.4168032,-3.0
2025-06-06 16:18:02.260,0.041341852,-0.056009732,-0.061444707,0.15846121,0.2141069,-0.0014440301,0.0,0.0,0.0,0.0,-0.043183483,-0.5669642,-0.23589367,0.18451215,0.49851394,-0.11047481,-0.07617761,-0.27146217,-0.34737402,-0.0049905265,0.3086571,-0.28157046,0.019262258,0.020369323,0.008488612,0.05836995,-0.070246145,0.011684415,0.052082624,0.046900347,-0.0043500555,0.026122937,-0.013765537,0.009941014,3.0,-1.4770613,-3.0,3.0,3.0,-2.558729,-3.0,-1.2702543,-3.0,-3.0,1.4168032,-3.0,3.0,-1.0749179,-3.0,3.0,3.0,-3.0,-3.0,-1.3953437,-3.0,-3.0,0.6632492,-3.0
2025-06-06 16:18:02.282,0.05490886,-0.099030495,-0.047491983,0.14407177,0.19693346,-0.008661413,0.0,0.0,0.0,0.0,-0.03612185,-0.574017,-0.2596909,0.19430834,0.49876198,-0.117515706,-0.07336003,-0.28145227,-0.35578388,-0.011385467,0.27762675,-0.28063166,0.010525869,-0.023725333,0.024269711,-0.050651938,0.05803953,-0.12353238,-0.052439116,-0.03207583,0.010894196,-0.055347368,-0.031334266,-0.027323036,3.0,-1.0749179,-3.0,3.0,3.0,-3.0,-3.0,-1.3953437,-3.0,-3.0,0.6632492,-3.0,3.0,-1.2100105,-3.0,3.0,3.0,-3.0,-3.0,-1.6264018,-3.0,-3.0,0.9807195,-3.0
2025-06-06 16:18:02.299,0.12174578,-0.14352201,-0.07295025,0.140641,0.20063238,-0.0019800356,0.0,0.0,0.0,0.0,-0.021756794,-0.5702906,-0.27390012,0.19901268,0.49608988,-0.15883866,-0.081973106,-0.30361113,-0.34471995,-0.04166147,0.24606246,-0.26603645,-0.027214576,0.030662632,-0.045547318,0.051618762,-0.069285996,-0.12726267,0.03821471,0.035112474,-0.057422794,-0.010198327,-0.015400209,-0.063988805,3.0,-1.2100105,-3.0,3.0,3.0,-3.0,-3.0,-1.6264018,-3.0,-3.0,0.9807195,-3.0,3.0,-0.8392814,-3.0,3.0,3.0,-3.0,-3.0,-1.4946102,-3.0,-3.0,0.35674948,-3.0
2025-06-06 16:18:02.319,0.074470825,-0.09872269,0.028791528,0.14173304,0.20249385,0.003798882,0.0,0.0,0.0,0.0,-0.007230656,-0.5858311,-0.2817288,0.20458564,0.50394666,-0.18281223,-0.07758106,-0.32251212,-0.35104612,-0.046912946,0.2093255,-0.26723346,0.014556135,-0.04478571,-0.03249034,-0.011006224,0.015310507,-0.0486112,0.057784043,-0.058548342,-0.060949087,-0.0849467,-0.115625784,0.0727541,3.0,-0.8392814,-3.0,3.0,3.0,-3.0,-3.0,-1.4946102,-3.0,-3.0,0.35674948,-3.0,3.0,-1.6027321,-3.0,3.0,3.0,-3.0,-3.0,-1.5800859,-3.0,-3.0,1.1857646,-3.0
2025-06-06 16:18:02.339,-0.019467277,-0.14439856,-0.09894342,0.14946835,0.194713,-0.042490758,0.0,0.0,0.0,0.0,0.014005341,-0.5871106,-0.29254183,0.19556046,0.5027289,-0.2003777,-0.071020596,-0.33199114,-0.3480241,-0.050410893,0.20428556,-0.28567344,0.07251402,-0.011262017,-0.0393017,0.010362856,0.037030157,-0.020940678,-0.028211659,-0.09578078,0.07392642,0.039571878,-0.050728813,-0.05473231,3.0,-1.6027321,-3.0,3.0,3.0,-3.0,-3.0,-1.5800859,-3.0,-3.0,1.1857646,-3.0,3.0,-0.57167745,-3.0,3.0,3.0,-3.0,-3.0,-1.7513894,-3.0,-3.0,0.115379736,-3.0
2025-06-06 16:18:02.360,0.04523578,-0.05034498,-0.006146489,0.19024928,0.27702275,-0.007353432,0.0,0.0,0.0,0.0,0.019028801,-0.595202,-0.30674306,0.20280729,0.50630474,-0.20978603,-0.07971702,-0.33178365,-0.3455859,-0.07425123,0.16656485,-0.29128236,0.10458318,-0.04825225,0.03951766,0.07384082,-0.063228816,-0.051461466,-0.045173004,0.0065815016,0.027234068,-0.11736466,-0.16572979,0.055343207,3.0,-0.57167745,-3.0,3.0,3.0,-3.0,-3.0,-1.7513894,-3.0,-3.0,0.115379736,-3.0,3.0,-1.2379168,-3.0,3.0,3.0,-3.0,-3.0,-1.8292422,-3.0,-3.0,0.48749745,-3.0
2025-06-06 16:18:02.382,-0.052992873,-0.08118214,-0.06772212,0.1337901,0.2443186,-0.0041882386,0.0,0.0,0.0,0.0,0.028201874,-0.59832287,-0.32054925,0.20762111,0.50043994,-0.2292831,-0.07315402,-0.32875267,-0.34082398,-0.08671352,0.13382827,-0.29941043,0.050568916,-0.08434674,-0.046254504,0.0033611988,0.037941292,-0.07790971,-0.0037159198,0.03181764,0.024723243,-0.014421261,-0.018421672,-0.0071498915,3.0,-1.2379168,-3.0,3.0,3.0,-3.0,-3.0,-1.8292422,-3.0,-3.0,0.48749745,-3.0,3.0,-0.79111236,-3.0,3.0,3.0,-3.0,-3.0,-1.8289653,-3.0,-3.0,-0.033599567,-3.0
2025-06-06 16:18:02.399,0.018819202,-0.055586178,-0.06637298,0.13571724,0.31136283,-0.03727198,0.0,0.0,0.0,0.0,0.05069005,-0.58993584,-0.33007464,0.22034237,0.5025052,-0.24446379,-0.086139075,-0.34470406,-0.33182314,-0.11069244,0.10327585,-0.30039212,0.013371039,-0.056170132,-0.027911525,-0.0026281762,-0.0259314,0.032227974,0.045177497,0.023583988,0.015035051,-0.07168258,-0.16565157,0.04182095,3.0,-0.79111236,-3.0,3.0,3.0,-3.0,-3.0,-1.8289653,-3.0,-3.0,-0.033599567,-3.0,3.0,-0.7422675,-3.0,3.0,3.0,-3.0,-3.0,-1.9603599,-3.0,-3.0,-0.34681708,-3.0
2025-06-06 16:18:02.419,0.030413426,0.00047784555,-0.08029686,0.19482176,0.26092717,-0.017946096,0.0,0.0,0.0,0.0,0.05914916,-0.5968926,-0.33381075,0.20939355,0.5055087,-0.25033814,-0.07143384,-0.34916785,-0.31837094,-0.12490222,0.06777761,-0.30471954,-0.0136667695,0.02671837,0.043456312,0.016460959,0.048915524,0.021405444,-0.07200575,0.030148668,-0.023716442,-0.056737073,-0.11577854,-0.022013057,3.0,-0.7422675,-3.0,3.0,3.0,-3.0,-3.0,-1.9603599,-3.0,-3.0,-0.34681708,-3.0,3.0,-0.69457644,-3.0,3.0,3.0,-3.0,-3.0,-1.9351398,-3.0,-3.0,-0.43762988,-3.0
2025-06-06 16:18:02.443,-0.03900559,-0.07022959,-0.1492331,0.14451766,0.22522247,-0.030013248,0.0,0.0,0.0,0.0,0.08188995,-0.6074063,-0.3574142,0.20987466,0.5031755,-0.2517028,-0.0790221,-0.35302052,-0.33023968,-0.12521699,0.014988958,-0.31147176,0.0049657677,-0.055247404,-0.020368667,0.015245807,0.031109005,0.055172734,0.027882278,0.02515799,-0.009211804,0.031366955,-0.04868846,-0.04020436,3.0,-0.69457644,-3.0,3.0,3.0,-3.0,-3.0,-1.9351398,-3.0,-3.0,-0.43762988,-3.0,3.0,-0.4831346,-3.0,3.0,3.0,-3.0,-3.0,-1.928604,-3.0,-3.0,-0.99010676,-3.0
2025-06-06 16:18:02.460,-0.08991368,-0.06253452,-0.15366109,0.16777836,0.28695711,0.035454378,0.0,0.0,0.0,0.0,0.087440625,-0.616148,-0.36407837,0.22257203,0.5041068,-0.24943908,-0.06865515,-0.36026618,-0.3275273,-0.12917396,-0.03523273,-0.31089827,0.07520004,-0.080879964,0.017191233,0.07048523,0.0064184875,0.067376435,-0.010399481,-0.08297909,-0.062216815,-0.035501275,-0.18329678,0.024751859,3.0,-0.4831346,-3.0,3.0,3.0,-3.0,-3.0,-1.928604,-3.0,-3.0,-0.99010676,-3.0,3.0,-0.44913405,-3.0,3.0,3.0,-3.0,-3.0,-2.036995,-3.0,-3.0,-1.0754045,-3.0
2025-06-06 16:18:02.480,-0.03203236,-0.042668775,-0.140341,0.17141196,0.29135534,0.03266113,0.0,0.0,0.0,0.0,0.10511974,-0.61786234,-0.37388948,0.227701,0.49424967,-0.26046485,-0.07752193,-0.36117145,-0.3179853,-0.14567843,-0.09737114,-0.31679046,0.05625967,0.063271455,0.022703482,0.054238062,-0.004451928,-0.011001856,0.03808893,0.064932175,0.024812447,-0.031681072,-0.1691154,-0.058073405,3.0,-0.44913405,-3.0,3.0,3.0,-3.0,-3.0,-2.036995,-3.0,-3.0,-1.0754045,-3.0,3.0,-0.47525182,-3.0,3.0,3.0,-3.0,-3.0,-2.005973,-3.0,-3.0,-1.2752775,-3.0
2025-06-06 16:18:02.500,-0.08379556,-0.037629128,-0.18836899,0.21864006,0.2830834,0.03822768,0.0,0.0,0.0,0.0,0.12608075,-0.61113256,-0.37517154,0.21843304,0.4969366,-0.24723339,-0.076245576,-0.36818233,-0.3242139,-0.14148957,-0.13881557,-0.3183076,-0.0049113557,0.003678227,0.04109734,0.051100716,0.0856941,-0.00040528053,0.046687737,-0.033020582,-0.028982328,0.03724333,-0.06850949,0.010650955,3.0,-0.47525182,-3.0,3.0,3.0,-3.0,-3.0,-2.005973,-3.0,-3.0,-1.2752775,-3.0,3.0,-0.23436534,-3.0,3.0,3.0,-3.0,-3.0,-1.9719908,-3.0,-3.0,-1.4590296,-3.0
2025-06-06 16:18:02.520,-0.122624256,-0.0360844,-0.213082,0.20517173,0.3085287,0.044473864,0.0,0.0,0.0,0.0,0.13911533,-0.61519736,-0.38982192,0.20905682,0.5155326,-0.23630795,-0.08194532,-0.37063447,-0.32583034,-0.15514258,-0.17794985,-0.31677774,-0.02996757,0.063029595,0.017007528,-0.0019573257,0.085976794,0.0865813,0.05819155,-0.05096498,0.014119777,0.0057696486,-0.102985576,-0.07693515,3.0,-0.23436534,-3.0,3.0,3.0,-3.0,-3.0,-1.9719908,-3.0,-3.0,-1.4590296,-3.0,3.0,-0.13420849,-2.8464649,3.0,3.0,-3.0,-3.0,-1.8442476,-3.0,-3.0,-1.6563195,-3.0
2025-06-06 16:18:02.544,-0.176419,-0.036913622,-0.2379611,0.29468262,0.30029935,0.043087363,0.0,0.0,0.0,0.0,0.15483224,-0.6194225,-0.41705483,0.21063666,0.5120206,-0.2404363,-0.09804162,-0.36913142,-0.3268591,-0.1465426,-0.22083108,-0.31425074,-0.039745476,-0.022584839,-0.079022,-0.07019806,-0.03774868,-0.040565193,-0.019254515,-0.008240036,-0.07397358,0.038974356,-0.068707526,0.027831133,3.0,-0.13420849,-2.8464649,3.0,3.0,-3.0,-3.0,-1.8442476,-3.0,-3.0,-1.6563195,-3.0,3.0,0.17515364,-1.9458864,3.0,2.9099512,-3.0,-3.0,-1.7301927,-3.0,-3.0,-1.9538189,-3.0
2025-06-06 16:18:02.561,-0.23916684,-0.16381863,-0.2193378,0.3090886,0.3428255,-0.01008765,0.0,0.0,0.0,0.0,0.17504999,-0.6203922,-0.42171162,0.19232762,0.53868914,-0.23621622,-0.10338661,-0.3466515,-0.31222773,-0.15094063,-0.25156042,-0.32375026,0.0966938,0.046336304,0.065565094,-0.07475781,-0.026070647,0.014010194,0.019859115,0.0543991,0.028759362,-0.057180624,-0.077921085,-0.030806858,3.0,0.17515364,-1.9458864,3.0,2.9099512,-3.0,-3.0,-1.7301927,-3.0,-3.0,-1.9538189,-3.0,3.0,0.05365293,-0.98179156,3.0,2.9808602,-3.0,-3.0,-1.9847091,-3.0,-3.0,-2.1866605,-3.0
2025-06-06 16:18:02.580,-0.22886387,-0.26527405,-0.22618744,0.34789932,0.3723075,-0.036613423,0.0,0.0,0.0,0.0,0.18620893,-0.6218444,-0.41050538,0.20625961,0.53638476,-0.22569752,-0.099620365,-0.34656137,-0.3185773,-0.16455804,-0.29186454,-0.31359604,0.0031502491,-0.026670946,0.0088768955,-0.064276226,0.019729322,-0.051544312,-0.041157864,0.06098457,-0.034204647,-0.011185201,-0.07424622,-0.05819552,3.0,0.05365293,-0.98179156,3.0,2.9808602,-3.0,-3.0,-1.9847091,-3.0,-3.0,-2.1866605,-3.0,3.0,0.3070389,0.38158125,3.0,2.562979,-3.0,-3.0,-1.8904917,-3.0,-3.0,-2.439665,-3.0
2025-06-06 16:18:02.600,-0.349807,-0.3156106,-0.21237797,0.34759292,0.309286,0.018789802,0.0,0.0,0.0,0.0,0.18029118,-0.6318598,-0.3918374,0.19800854,0.5515969,-0.212685,-0.10849515,-0.32509834,-0.30630386,-0.1595706,-0.33350506,-0.32822672,0.016085437,0.019740388,0.056069117,-0.06295536,0.012980486,0.048545238,0.033144645,0.014174158,0.03180926,-0.06893837,-0.13733631,-0.04074795,3.0,0.3070389,0.38158125,3.0,2.562979,-3.0,-3.0,-1.8904917,-3.0,-3.0,-2.439665,-3.0,3.0,0.33362842,1.9325386,3.0,2.4290528,-3.0,-3.0,-1.8122917,-3.0,-3.0,-2.5219944,-3.0
2025-06-06 16:18:02.620,-0.46500647,-0.47146916,-0.2539963,0.4101088,0.3610005,-0.043456215,0.0,0.0,0.0,0.0,0.19002464,-0.65172195,-0.3436979,0.19812489,0.5684171,-0.20162407,-0.11341527,-0.33674866,-0.31913194,-0.16138092,-0.37591976,-0.31118247,0.0010640194,0.038035035,0.081882,-0.011005518,0.076049544,0.054569915,-0.038234968,0.058551975,-0.025164487,-0.014072529,-0.02660687,0.048946045,3.0,0.33362842,1.9325386,3.0,2.4290528,-3.0,-3.0,-1.8122917,-3.0,-3.0,-2.5219944,-3.0,3.0,0.7464419,3.0,3.0,1.8702834,-3.0,-3.0,-1.6349212,-3.0,-3.0,-2.7194188,-3.0
2025-06-06 16:18:02.643,-0.56847066,-0.59283984,-0.1955934,0.4456371,0.3570964,-0.009765049,0.0,0.0,0.0,0.0,0.17222202,-0.65638566,-0.28332382,0.2256,0.5753453,-0.174673,-0.117830835,-0.32507914,-0.31136408,-0.16281821,-0.42510933,-0.32169953,-0.025805445,-0.066275895,0.10664068,0.033037387,-0.0057640714,0.009784454,-0.057388544,0.017596697,0.049445614,-0.05118746,-0.159959,0.058586765,3.0,0.7464419,3.0,3.0,1.8702834,-3.0,-3.0,-1.6349212,-3.0,-3.0,-2.7194188,-3.0,3.0,0.8644129,3.0,2.546541,2.0100603,-3.0,-2.8640857,-1.661131,-3.0,-3.0,-2.638961,-3.0
2025-06-06 16:18:02.660,-0.6280181,-0.5942513,-0.20639464,0.482956,0.3796555,-0.03415738,0.0,0.0,0.0,0.0,0.15043162,-0.67346656,-0.21552488,0.23996806,0.56647223,-0.1770391,-0.112964675,-0.2963971,-0.31133983,-0.17076837,-0.43877363,-0.3188744,0.012196954,-0.082251415,0.1502777,-0.024796352,-0.004395523,0.035767473,0.06615368,0.027939687,-0.06456487,-0.0006014405,-0.055250864,-0.052861128,3.0,0.8644129,3.0,2.546541,2.0100603,-3.0,-2.8640857,-1.661131,-3.0,-3.0,-2.638961,-3.0,3.0,0.78454465,3.0,1.9048644,1.8343608,-3.0,-2.4493668,-1.6003239,-3.0,-3.0,-2.7449214,-3.0
2025-06-06 16:18:02.680,-0.24932472,-0.2635382,-0.24233899,0.5905648,0.4474127,-0.005734623,0.0,0.0,0.0,0.0,0.15304805,-0.65391046,-0.16887063,0.23525774,0.56525177,-0.1789381,-0.09153518,-0.3103443,-0.31550893,-0.16211638,-0.47754154,-0.31781328,-0.031603593,0.030106876,0.0006482641,-0.09126453,-0.037571758,-0.028567355,0.094341375,-0.02145611,-0.06806484,0.068088844,-0.04808219,-0.02650402,3.0,0.78454465,3.0,1.9048644,1.8343608,-3.0,-2.4493668,-1.6003239,-3.0,-3.0,-2.7449214,-3.0,3.0,0.92331177,3.0,1.0064545,1.1819571,-3.0,-1.5010206,-0.9939924,-3.0,-3.0,-2.7157578,-3.0
2025-06-06 16:18:02.701,-0.35111168,-0.01640769,-0.23288718,0.6377325,0.44518366,0.023111178,0.0,0.0,0.0,0.0,0.123432875,-0.62070584,-0.1529374,0.20300223,0.4972207,-0.20085932,-0.07516578,-0.2765314,-0.3150695,-0.13888396,-0.48064628,-0.31829086,-0.06448807,0.09064725,-0.011826956,-0.04612949,-0.25178456,-0.14440732,0.048926517,0.06474274,0.017261548,0.008221751,-0.010470577,-0.052390303,3.0,0.92331177,3.0,1.0064545,1.1819571,-3.0,-1.5010206,-0.9939924,-3.0,-3.0,-2.7157578,-3.0,3.0,0.8248337,3.0,-1.9031901,0.6518881,-3.0,1.1947181,-0.677906,-3.0,-3.0,-2.7054293,-1.2175297
2025-06-06 16:18:02.721,-0.39186722,-0.0049387226,-0.3264097,0.68899614,0.3866113,0.023786452,0.0,0.0,0.0,0.0,0.123099424,-0.57354975,-0.14936519,0.1536442,0.40918314,-0.1975018,-0.049473066,-0.22837622,-0.32932505,-0.14505407,-0.508865,-0.2763412,0.025391143,0.041559316,0.03795747,-0.14903781,-0.2207992,0.0055387416,0.08612614,0.18290105,0.06346197,-0.025586529,-0.045571752,0.09872349,3.0,0.8248337,3.0,-1.9031901,0.6518881,-3.0,1.1947181,-0.677906,-3.0,-3.0,-2.7054293,-1.2175297,3.0,0.1267195,3.0,-3.0,-1.1255977,-3.0,3.0,0.42462537,-3.0,-2.5976233,-2.9010534,3.0
2025-06-06 16:18:02.743,-0.5659863,0.13636716,-0.25294787,0.7318227,0.43155047,0.027953142,0.0,0.0,0.0,0.0,0.12827045,-0.5278681,-0.1355415,0.08952736,0.26718432,-0.2308503,0.002331697,-0.14292343,-0.31456175,-0.1302596,-0.5107948,-0.12875457,0.08744367,0.056468792,0.09441518,-0.17134894,-0.40336353,-0.11875987,0.16849808,0.2964204,-0.01706298,-0.030973379,-0.010297344,0.4829953,3.0,0.1267195,3.0,-3.0,-1.1255977,-3.0,3.0,0.42462537,-3.0,-2.5976233,-2.9010534,3.0,3.0,-0.55262774,3.0,-3.0,-1.5464927,-3.0,2.976397,-0.072724506,-3.0,-0.8741285,-1.893441,3.0
