openverse-orca/OrcaGym/log/simulation_log_20250718_164131.csv
timestamp,sim_time,physics_step,control_step,imu_angle_roll,imu_angle_pitch,imu_angle_yaw,imu_angular_velocity_roll,imu_angular_velocity_pitch,imu_angular_velocity_yaw,imu_acc_x,imu_acc_y,imu_acc_z,fl_joint1_pos,fl_joint1_vel,fl_joint1_torque,fl_joint2_pos,fl_joint2_vel,fl_joint2_torque,fl_joint3_pos,fl_joint3_vel,fl_joint3_torque,fr_joint1_pos,fr_joint1_vel,fr_joint1_torque,fr_joint2_pos,fr_joint2_vel,fr_joint2_torque,fr_joint3_pos,fr_joint3_vel,fr_joint3_torque,hl_joint1_pos,hl_joint1_vel,hl_joint1_torque,hl_joint2_pos,hl_joint2_vel,hl_joint2_torque,hl_joint3_pos,hl_joint3_vel,hl_joint3_torque,hr_joint1_pos,hr_joint1_vel,hr_joint1_torque,hr_joint2_pos,hr_joint2_vel,hr_joint2_torque,hr_joint3_pos,hr_joint3_vel,hr_joint3_torque,fl_force_x,fl_force_y,fl_force_z,fr_force_x,fr_force_y,fr_force_z,hl_force_x,hl_force_y,hl_force_z,hr_force_x,hr_force_y,hr_force_z,fl_hip_action,fl_thigh_action,fl_calf_action,fr_hip_action,fr_thigh_action,fr_calf_action,hl_hip_action,hl_thigh_action,hl_calf_action,hr_hip_action,hr_thigh_action,hr_calf_action
2025-07-18 16:41:31.315,0.0,0,0,0.026463771,0.013615344,-0.019403407,0.0062273634,-0.02588821,0.00238037,1.5655625,0.536368,0.0,0.0,-0.0038575632,-0.00014085726,0.006088041,-0.008969618,-0.0043214373,-0.008954827,-0.0019273127,-0.002567466,-0.009539238,0.0013860507,-0.007970672,0.001027763,-0.061708048,0.005212976,-0.052723277,-0.035566278,-0.026168624,0.067698,0.013793749,0.05453468,-0.033546932,0.06646781,0.062413547,-0.0423436,0.0,0.0,0.0,0.0,0.0,0.0,0.0,0.0,0.0,0.0,0.0,0.0,2.0,2.0,-1.0562792,-2.0,0.27092943,0.6511515,-2.0,-0.41494474,2.0,1.3170676,2.0,1.7650528
2025-07-18 16:41:31.326,0.02,20,1,-0.006331756,0.14780481,0.1327375,0.030834856,-0.016903201,-0.041087568,0.0,0.0,0.0,0.0,0.03941962,0.040886957,-0.039290633,-0.038886666,0.006004691,0.019887669,-0.035103634,-0.023462672,0.040303383,0.026598094,0.04510116,0.04236893,0.19902277,0.19668913,0.0047324095,-0.14446558,0.10522477,0.0906369,-0.1423635,-0.09738362,0.06594208,0.029270532,0.13714819,0.054951232,2.0,2.0,-1.0562792,-2.0,0.27092943,0.6511515,-2.0,-0.41494474,2.0,1.3170676,2.0,1.7650528,0.7814669,-2.0,-2.0,1.0542383,-2.0,-0.41520923,1.3088127,2.0,2.0,-2.0,1.5112275,-2.0
2025-07-18 16:41:31.346,0.04,40,2,0.052828357,-0.3163889,-0.024643494,-0.0025549124,0.03447378,-0.0009992172,0.0,0.0,0.0,-0.0010982689,0.06457164,0.06421693,-0.08327208,-0.047237955,0.02406794,-0.0050268224,-0.004203123,-0.015172214,0.08171103,0.005528026,0.13165997,-0.012882042,0.044974137,-0.07164318,-0.18002765,0.063543096,0.0058590365,-0.0690903,0.053839333,0.115350895,0.056225907,-0.13415854,0.29017413,-0.14152418,0.7814669,-2.0,-2.0,1.0542383,-2.0,-0.41520923,1.3088127,2.0,2.0,-2.0,1.5112275,-2.0,2.0,-2.0,-2.0,-0.10151383,-2.0,2.0,0.014679782,-1.6635143,2.0,-2.0,-2.0,-2.0
2025-07-18 16:41:31.366,0.06,60,3,-0.1198669,-0.0643083,0.1183236,-0.028354676,-0.020167872,0.016999021,0.0,0.0,0.0,-0.0018713847,0.09816062,-0.010180025,-0.109506935,-0.04468797,0.0011005184,0.02588326,0.0007141275,-0.012256772,0.12670612,-0.071882136,0.14887884,-0.065033905,0.13367134,-0.26104814,-0.04660272,0.0010693342,-0.079017766,0.1355049,0.011381332,-0.13690475,0.096365154,-0.09531425,-0.04365219,-0.18613485,2.0,-2.0,-2.0,-0.10151383,-2.0,2.0,0.014679782,-1.6635143,2.0,-2.0,-2.0,-2.0,2.0,-1.0854217,1.4881911,-0.20898995,-1.031383,0.32318878,0.024748944,1.1112016,2.0,-2.0,-1.7548014,-0.7353353
2025-07-18 16:41:31.390,0.08,80,4,-0.16997564,-0.18556634,-0.18084896,-0.00764559,-0.01135413,0.036343038,0.0,0.0,0.0,-0.0024002814,0.15333273,-0.102705605,-0.067625135,-0.045783293,-0.049343538,0.028049808,0.008291743,-0.009527368,0.14594664,-0.11936428,0.06722175,-0.072144225,0.10227251,-0.21034719,0.14357077,0.03505483,-0.15325904,-0.04168354,-0.010631778,0.117451556,0.122504815,-0.079760365,-0.28015462,0.031141667,2.0,-1.0854217,1.4881911,-0.20898995,-1.031383,0.32318878,0.024748944,1.1112016,2.0,-2.0,-1.7548014,-0.7353353,1.1405848,-2.0,2.0,0.5353382,2.0,-2.0,0.5875943,-2.0,-0.020101309,-2.0,-1.2318318,2.0
2025-07-18 16:41:31.406,0.1,100,5,-0.23863137,-0.039557416,0.024874788,0.03668223,0.057845104,-0.0061758333,0.0,0.0,0.0,-0.0011994995,0.15490614,-0.21219605,0.0033720722,-0.020492455,-0.04017815,-0.032127462,0.03015176,0.0042135096,0.118770026,-0.15424676,-0.036544163,-0.003436995,0.03178805,-0.37252045,0.16989183,0.11516137,0.10328644,-0.20728299,0.02996232,-0.096346974,-0.050613716,-0.11815497,-0.19398978,0.14140718,1.1405848,-2.0,2.0,0.5353382,2.0,-2.0,0.5875943,-2.0,-0.020101309,-2.0,-1.2318318,2.0,0.09579192,1.5114802,2.0,0.76977336,2.0,-2.0,-0.3221392,1.9715632,-2.0,-1.6410094,-2.0,2.0
2025-07-18 16:41:31.426,0.12000000000000001,120,6,-0.10153059,-0.045605015,-0.043934062,-0.010663,0.011383566,0.02101316,0.0,0.0,0.0,-0.0007011338,0.1298598,-0.24383658,0.060932398,0.01642473,0.050442882,-0.07196451,0.009800767,0.038538788,0.049982827,-0.17059621,-0.15464823,0.04522276,-0.022779867,0.058020227,0.16982472,0.098779626,0.3496511,-0.08288088,-0.030211601,0.23803695,-0.16627254,-0.01676699,-0.31838733,0.1542991,0.09579192,1.5114802,2.0,0.76977336,2.0,-2.0,-0.3221392,1.9715632,-2.0,-1.6410094,-2.0,2.0,-2.0,2.0,2.0,-0.19004777,-2.0,-2.0,2.0,2.0,-2.0,2.0,-2.0,2.0
2025-07-18 16:41:31.446,0.14,140,7,0.26417333,0.23945889,-0.08566536,0.04813399,0.06500873,0.014574484,0.0,0.0,0.0,-0.0005122125,0.11830169,-0.22748145,0.0738784,-0.0069588134,0.10865767,-0.11530039,0.05815903,0.14113115,-0.0145426225,-0.14835462,-0.2743929,0.09267451,-0.11497142,0.025340121,0.13296825,-0.059956457,0.03930312,-0.071986414,0.10153027,0.4040387,-0.091994666,0.1791556,-0.21898854,0.040378734,-2.0,2.0,2.0,-0.19004777,-2.0,-2.0,2.0,2.0,-2.0,2.0,-2.0,2.0,-2.0,2.0,2.0,-2.0,-2.0,-2.0,2.0,-2.0,-2.0,2.0,-2.0,2.0
2025-07-18 16:41:31.467,0.16,160,8,0.10907628,0.32178375,-0.13072588,-0.014200481,-0.024154425,0.027796727,0.0,0.0,0.0,0.00026592557,0.06729976,-0.20042592,0.10957733,-0.041117534,0.034464713,-0.15281673,0.096140645,0.1933677,-0.062123273,-0.10779552,-0.3750269,0.123439364,-0.017763177,0.0742572,0.10698411,-0.108859114,-0.28103453,-0.017356582,0.12982431,-0.060232382,-0.087004334,0.0016177515,-0.17292012,0.059719916,-2.0,2.0,2.0,-2.0,-2.0,-2.0,2.0,-2.0,-2.0,2.0,-2.0,2.0,-2.0,2.0,-1.7640939,-2.0,-2.0,0.79490125,2.0,-1.849447,2.0,2.0,2.0,-1.4605702
2025-07-18 16:41:31.487,0.18,180,9,0.24735047,0.116786286,0.022692984,-0.034236338,-0.05064772,0.02807063,0.0,0.0,0.0,0.0015314764,0.009859056,-0.13977788,0.040884297,-0.09862655,-0.09457515,-0.09951482,0.14832042,0.12853685,-0.015214543,-0.11233759,-0.37022787,0.061813913,-0.17977735,0.11648485,-0.11566958,-0.17644198,-0.33347926,0.08716818,0.062371634,-0.23393838,0.086806394,0.047373172,0.07905225,-0.1256695,-2.0,2.0,-1.7640939,-2.0,-2.0,0.79490125,2.0,-1.849447,2.0,2.0,2.0,-1.4605702,-0.99849254,2.0,-2.0,-1.1981941,-2.0,2.0,0.1482346,0.76247185,2.0,2.0,2.0,-2.0
2025-07-18 16:41:31.507,0.19999999999999998,200,10,0.3990137,-0.25241035,0.025152702,-0.010575307,-0.07389013,0.045169722,0.0,0.0,0.0,0.0019992543,-0.011137576,-0.051830295,-0.014451871,-0.10396493,-0.22673331,-0.032525547,0.13450998,0.086748764,0.053221475,-0.09075746,-0.3213083,-0.015650507,0.005654524,0.28830054,-0.08478481,-0.039837822,-0.34947845,0.103341304,-0.09206104,0.13863786,0.18673791,-0.04545451,0.124528594,-0.14788051,-0.99849254,2.0,-2.0,-1.1981941,-2.0,2.0,0.1482346,0.76247185,2.0,2.0,2.0,-2.0,-1.09208,1.5487603,-2.0,0.3940678,-1.1563587,2.0,-0.25319767,-2.0,2.0,2.0,2.0,-2.0
2025-07-18 16:41:31.527,0.21999999999999997,220,11,0.26931962,-0.023139808,0.13086018,-0.03616019,-0.020042352,0.037659872,0.0,0.0,0.0,0.0018056206,-0.03300903,0.06733106,-0.089364484,-0.087794475,-0.277395,0.033830896,0.11469393,0.10891942,0.09051196,-0.08638047,-0.24408458,-0.07332256,-0.060924232,0.33114636,-0.1290204,0.016311662,-0.12580068,0.15924552,0.059342008,0.07071697,0.050204758,-0.028800549,0.2002312,-0.13468434,-1.09208,1.5487603,-2.0,0.3940678,-1.1563587,2.0,-0.25319767,-2.0,2.0,2.0,2.0,-2.0,0.33555558,-2.0,-2.0,1.8201221,-0.6118376,2.0,-0.5311347,-2.0,2.0,-1.1202661,2.0,-2.0
2025-07-18 16:41:31.547,0.23999999999999996,240,12,0.0346284,0.03455084,0.15593816,-0.068854176,-0.0017945042,0.008270687,0.0,0.0,0.0,-0.00023172841,-0.023725659,0.094891526,-0.119697675,-0.051335994,-0.296719,0.07160155,0.12352241,0.09597996,0.12816751,-0.104793146,-0.16441566,-0.12029667,-0.007674541,-0.014086498,-0.0843858,0.03221119,0.05277739,0.064532734,-0.02070313,-0.030745132,0.035158973,-0.066453986,0.14913964,-0.1785116,0.33555558,-2.0,-2.0,1.8201221,-0.6118376,2.0,-0.5311347,-2.0,2.0,-1.1202661,2.0,-2.0,2.0,-1.7405325,-1.9993513,1.2324651,2.0,2.0,-2.0,-2.0,2.0,-2.0,2.0,-2.0
2025-07-18 16:41:31.567,0.25999999999999995,260,13,-0.0143573675,-0.027990283,0.10833319,-0.07572739,-0.032858774,-0.046495743,0.0,0.0,0.0,-0.0028302502,0.029463505,0.03175489,-0.15842661,-0.054000806,-0.2936782,0.09093706,0.11909433,0.088311024,0.16598548,-0.14567284,-0.07464866,-0.15915921,0.084400125,-0.27272326,-0.09887111,-0.044262096,0.015835335,0.005801949,0.08244455,-0.08072223,0.14864892,-0.08920967,0.28955162,-0.09033971,2.0,-1.7405325,-1.9993513,1.2324651,2.0,2.0,-2.0,-2.0,2.0,-2.0,2.0,-2.0,2.0,-2.0,2.0,2.0,2.0,0.49422765,-2.0,-2.0,2.0,-2.0,0.17456055,-1.030449
2025-07-18 16:41:31.591,0.27999999999999997,280,14,-0.14556965,0.030144243,0.04443122,-0.061789177,-0.053961355,0.036552142,0.0,0.0,0.0,-0.00508476,0.08437588,-0.114834465,-0.08910946,-0.0274295,-0.26921156,0.08574962,0.11399947,0.049388796,0.20008585,-0.16882706,-0.04720186,-0.16588148,0.19348852,-0.42350444,0.19199403,-0.02610655,0.051748104,-0.072985284,-0.014031315,-0.017303135,0.13786498,-0.12218588,0.02918171,0.05588574,2.0,-2.0,2.0,2.0,2.0,0.49422765,-2.0,-2.0,2.0,-2.0,0.17456055,-1.030449,2.0,-1.8711808,2.0,2.0,2.0,-2.0,-2.0,-2.0,-0.95527846,-2.0,-1.4374354,2.0
2025-07-18 16:41:31.607,0.3,300,15,-0.3614713,0.035841696,-0.04397323,-0.0037308075,-0.03302371,0.031799432,0.0,0.0,0.0,-0.006247506,0.1325346,-0.22772785,-0.013702504,-0.0097408835,-0.22591951,0.020705892,0.09915514,0.03862289,0.14010406,-0.21069789,-0.0915469,-0.083037876,0.028788771,-0.26825398,0.15771455,0.09859986,0.048438493,-0.19283849,-0.12911777,-0.017007666,-0.10653674,-0.065596655,-0.19752866,0.24784318,2.0,-1.8711808,2.0,2.0,2.0,-2.0,-2.0,-2.0,-0.95527846,-2.0,-1.4374354,2.0,-0.010559093,0.48101366,2.0,1.136767,2.0,-2.0,-0.9146412,2.0,-2.0,-0.8906752,-1.7706332,2.0
2025-07-18 16:41:31.627,0.32,320,16,0.04514074,-0.13653576,-0.19248033,0.016692774,-0.062241815,-0.04868953,0.0,0.0,0.0,-0.0059324894,0.1177418,-0.26622206,0.04805561,0.032204177,-0.15756762,-0.058609057,0.06251196,0.0768696,0.058396593,-0.19400284,-0.20180039,-0.016397722,-0.026244126,0.054075312,0.1712835,0.066564664,0.13012446,-0.18204805,-0.0877638,0.184962,-0.1376049,0.07767513,-0.30280003,0.15764321,-0.010559093,0.48101366,2.0,1.136767,2.0,-2.0,-0.9146412,2.0,-2.0,-0.8906752,-1.7706332,2.0,-2.0,2.0,2.0,-1.1482862,2.0,-2.0,1.2706501,2.0,-2.0,2.0,1.1544442,2.0
2025-07-18 16:41:31.647,0.34,340,17,0.46395028,-0.119194925,0.031199805,0.004204576,-0.037401006,-0.024657235,0.0,0.0,0.0,-0.003912477,0.06444712,-0.1969989,0.07159691,0.0014095875,-0.04975104,-0.0910451,0.07805091,0.1938703,0.0064850734,-0.16601244,-0.20915568,0.024992261,-0.15591358,0.1847189,0.15274642,-0.084227234,0.34655747,-0.02975262,0.1318493,0.33992398,-0.18138397,0.0037728017,0.10971927,0.023318581,-2.0,2.0,2.0,-1.1482862,2.0,-2.0,1.2706501,2.0,-2.0,2.0,1.1544442,2.0,-2.0,1.3725644,2.0,-1.6244457,-2.0,-2.0,2.0,0.72228825,-2.0,2.0,-2.0,2.0
2025-07-18 16:41:31.668,0.36000000000000004,360,18,0.11611743,-0.1628372,-0.032933176,-0.09742157,0.044772163,0.044883963,0.0,0.0,0.0,-0.0038751638,0.04512206,-0.14866182,0.11450666,-0.052526295,-0.009532747,-0.12518068,0.11234999,0.24232769,-0.04800772,-0.15948342,-0.22330771,0.075896464,-0.031206464,0.10660241,0.120844044,-0.07650907,0.0006045422,-0.13869365,0.13239148,0.08456301,-0.074546374,0.043303076,-0.029528007,0.11938261,-2.0,1.3725644,2.0,-1.6244457,-2.0,-2.0,2.0,0.72228825,-2.0,2.0,-2.0,2.0,-2.0,2.0,1.7567848,-2.0,-2.0,-0.927804,2.0,-1.7665659,0.81536406,2.0,-2.0,1.880155
2025-07-18 16:41:31.687,0.38000000000000006,380,19,-0.016497463,-0.15107457,-0.096645646,-0.07828719,0.048796345,0.015033576,0.0,0.0,0.0,-0.0047685495,0.043538492,-0.111560784,0.116489425,-0.09206476,-0.08646805,-0.13045439,0.16202676,0.18641312,-0.03595939,-0.1507744,-0.2384537,0.11010013,0.078560516,0.14708139,0.1027202,-0.06378425,-0.27226686,-0.04728003,0.09343325,-0.25378016,0.11960594,0.036220446,-0.14681664,0.044847228,-2.0,2.0,1.7567848,-2.0,-2.0,-0.927804,2.0,-1.7665659,0.81536406,2.0,-2.0,1.880155,-2.0,2.0,-2.0,-2.0,-2.0,2.0,2.0,-0.02395912,2.0,2.0,2.0,-2.0
2025-07-18 16:41:31.707,0.4000000000000001,400,20,0.22551997,-0.10636704,0.028676527,-0.124676764,0.04343836,-0.0016541842,0.0,0.0,0.0,-0.0040870546,0.011304427,-0.022230707,0.048708893,-0.14429502,-0.21872555,-0.06078931,0.1824471,0.1322532,0.038589492,-0.11420594,-0.20387977,0.041405037,-0.039300565,0.24127902,-0.25386605,-0.07129783,-0.35202566,0.115141675,0.14973634,-0.08271331,0.1024339,0.015815249,0.19357482,-0.12068398,-2.0,2.0,-2.0,-2.0,-2.0,2.0,2.0,-0.02395912,2.0,2.0,2.0,-2.0,-1.0429012,1.9437929,-2.0,-0.35603282,-1.9681064,2.0,-0.27657974,-0.47362074,2.0,2.0,2.0,-2.0
2025-07-18 16:41:31.727,0.4200000000000001,420,21,0.10875498,-0.040175747,0.11239765,-0.08426411,-0.01440501,-0.036054417,0.0,0.0,0.0,-0.004064751,-0.009001966,0.06789516,-0.024298707,-0.13754979,-0.32194924,-0.0020682616,0.18217993,0.10417113,0.0738572,-0.08501211,-0.12772876,-0.021165473,-0.09869587,0.27084994,-0.11136341,0.034724347,-0.2685926,0.07517761,-0.013336941,-0.14128323,0.16604242,0.13839698,0.23338775,-0.17131998,-1.0429012,1.9437929,-2.0,-0.35603282,-1.9681064,2.0,-0.27657974,-0.47362074,2.0,2.0,2.0,-2.0,1.5848695,-0.42024863,-2.0,0.5963305,1.5405245,2.0,-1.2064303,0.7545737,2.0,1.0261245,2.0,-2.0
2025-07-18 16:41:31.748,0.4400000000000001,440,22,0.07033941,0.083602585,0.092060655,-0.050953764,0.06984602,-0.03219799,0.0,0.0,0.0,-0.0058711004,0.009050347,0.112376705,-0.07327148,-0.0915281,-0.35740837,0.06095857,0.1699806,0.09918103,0.110414706,-0.051481932,-0.018325571,-0.07856086,0.1522121,-0.08279082,-0.159793,0.07908966,0.1321725,0.14994913,-0.13275607,0.114935674,0.0065188417,0.13128604,0.22324741,-0.17276941,1.5848695,-0.42024863,-2.0,0.5963305,1.5405245,2.0,-1.2064303,0.7545737,2.0,1.0261245,2.0,-2.0,2.0,-2.0,-2.0,2.0,1.8816037,2.0,-2.0,-2.0,2.0,-2.0,2.0,-2.0
2025-07-18 16:41:31.768,0.46000000000000013,460,23,-0.13585429,0.806499,0.11071234,-0.118303806,-0.03191892,0.011779547,0.0,0.0,0.0,-0.007397054,0.063333474,0.032725535,-0.10703558,-0.04287484,-0.2893408,0.08582382,0.119263195,0.110011056,0.15657341,-0.08430755,0.10082694,-0.11936205,0.089118116,-0.24430534,-0.09681087,0.15649273,0.28272718,0.11305842,-0.19085804,-0.021604473,0.10635347,-0.15091902,0.3395301,-0.0747211,2.0,-2.0,-2.0,2.0,1.8816037,2.0,-2.0,-2.0,2.0,-2.0,2.0,-2.0,2.0,-2.0,2.0,2.0,2.0,0.32866842,-2.0,-2.0,2.0,-2.0,-2.0,-0.61266786
2025-07-18 16:41:31.788,0.48000000000000015,480,24,-0.27992985,0.49981233,-0.039028488,-0.09491408,-0.007474715,0.04197723,0.0,0.0,0.0,-0.0087966835,0.11702157,-0.11316063,-0.050847463,-0.0051956396,-0.19218408,0.07065195,0.069680035,0.06791854,0.1888065,-0.120437376,0.13532431,-0.11945947,0.12594488,-0.3479059,0.16677496,-0.06863847,0.1364344,-0.075944625,-0.10637114,-0.07218068,0.10815398,-0.12535182,0.012804435,0.07187778,2.0,-2.0,2.0,2.0,2.0,0.32866842,-2.0,-2.0,2.0,-2.0,-2.0,-0.61266786,1.9978411,-2.0,2.0,2.0,2.0,-2.0,-2.0,-2.0,-2.0,-2.0,-2.0,2.0
2025-07-18 16:41:31.808,0.5000000000000001,500,25,-0.36886233,0.18328872,-0.028199159,-0.042796846,-0.10008584,-0.00943357,0.0,0.0,0.0,-0.009873787,0.1440173,-0.24233805,0.022007318,0.022896592,-0.1213917,0.0052555325,-0.0032310574,0.05830341,0.11124508,-0.15714037,0.06315384,-0.05378926,0.02767857,-0.32651153,0.08799223,0.05728674,0.21516925,-0.2067295,-0.08648743,-0.11020056,-0.121305674,-0.038702957,-0.2876242,0.16673198,1.9978411,-2.0,2.0,2.0,2.0,-2.0,-2.0,-2.0,-2.0,-2.0,-2.0,2.0,-0.11963771,1.601879,2.0,0.783914,2.0,-2.0,-1.2644508,2.0,-2.0,-0.91502297,-2.0,2.0
2025-07-18 16:41:31.828,0.5200000000000001,520,26,-0.18232004,-0.2010347,-0.12290905,-0.027280815,-0.12171526,0.009441601,0.0,0.0,0.0,-0.00984403,0.14201921,-0.26174802,0.06617632,0.0396828,-0.05784123,-0.058860175,-0.040403794,0.0906885,0.04582756,-0.16825625,-0.05753601,0.016951451,-0.11303456,0.10917943,0.1612118,0.10220956,0.12880461,-0.1538967,-0.14908,0.2378884,-0.22670774,-0.063523866,-0.15838897,0.15303053,-0.11963771,1.601879,2.0,0.783914,2.0,-2.0,-1.2644508,2.0,-2.0,-0.91502297,-2.0,2.0,-2.0,1.1841764,2.0,0.16149336,0.4997112,-2.0,0.8087963,2.0,-2.0,2.0,-2.0,2.0
2025-07-18 16:41:31.848,0.5400000000000001,540,27,-0.1615963,-0.57008994,-0.10117312,-0.035772886,0.00364076,0.020494541,0.0,0.0,0.0,-0.008206384,0.083190046,-0.20440482,0.11136939,0.051638044,-0.010520362,-0.10532822,-0.017827982,0.19811049,-0.012438243,-0.13237686,-0.1338512,0.07268828,-0.121908575,0.24709082,-0.011224197,-0.03862253,0.048173208,-0.08824303,0.08280128,0.36361283,-0.1623535,0.09300527,-0.18603653,0.11220618,-2.0,1.1841764,2.0,0.16149336,0.4997112,-2.0,0.8087963,2.0,-2.0,2.0,-2.0,2.0,-2.0,2.0,2.0,-2.0,-2.0,-2.0,2.0,0.30648127,-2.0,2.0,-2.0,2.0
2025-07-18 16:41:31.868,0.5600000000000002,560,28,-0.17026116,-0.043673877,-0.07900633,-0.006795609,-0.054688834,-0.03557584,0.0,0.0,0.0,-0.0053476463,0.05301385,-0.18171324,0.12931785,-0.011478985,-0.013196067,-0.14247802,0.03979626,0.24434665,-0.06639944,-0.11766216,-0.20006594,0.12189892,-0.046925515,0.09123465,0.09701679,-0.14377394,-0.1745485,-0.04044402,0.16149712,-0.010669005,-0.070528224,0.029639916,-0.14656101,0.16980441,-2.0,2.0,2.0,-2.0,-2.0,-2.0,2.0,0.30648127,-2.0,2.0,-2.0,2.0,-2.0,2.0,0.67746323,-2.0,-2.0,-0.043146566,2.0,-1.2218149,2.0,2.0,-0.15787387,1.7884309
2025-07-18 16:41:31.888,0.5800000000000002,580,29,0.07307348,0.078410074,0.09765942,0.036629558,0.014183372,0.040451467,0.0,0.0,0.0,-0.0034979107,0.028904306,-0.13157982,0.11027734,-0.053389277,-0.0877063,-0.11915758,0.09736471,0.16596605,-0.0057660434,-0.08876325,-0.18830702,0.12621877,-0.07034902,0.1357071,0.035301354,-0.106408395,-0.26825786,0.11055378,0.19214894,-0.2724622,0.12926513,0.019336723,0.025798835,0.11736114,-2.0,2.0,0.67746323,-2.0,-2.0,-0.043146566,2.0,-1.2218149,2.0,2.0,-0.15787387,1.7884309,-0.18612106,2.0,-2.0,-1.1268033,-2.0,2.0,2.0,0.39821473,2.0,1.1406924,2.0,-2.0
2025-07-18 16:41:31.908,0.6000000000000002,600,30,0.24923426,-0.21713133,0.004173562,-0.032369576,0.026201053,0.014926578,0.0,0.0,0.0,-0.0030905711,0.03989196,-0.040657558,0.039153304,-0.08866376,-0.22384803,-0.050209835,0.13477367,0.13618414,0.043647446,-0.060461298,-0.12807563,0.0602809,-0.07301563,0.32509923,-0.13705766,-0.026288737,-0.33506408,0.1128232,0.13714015,0.011147686,0.18594314,0.0878672,0.19418007,-0.20049989,-0.18612106,2.0,-2.0,-1.1268033,-2.0,2.0,2.0,0.39821473,2.0,1.1406924,2.0,-2.0,-0.3572482,0.22658598,-2.0,0.45639506,-0.29927847,2.0,-0.586161,-2.0,2.0,1.9884315,2.0,-2.0
2025-07-18 16:41:31.928,0.6200000000000002,620,31,0.08040873,-0.18420692,0.29234022,0.0061409147,0.035151243,0.036260948,0.0,0.0,0.0,-0.0037165936,0.02380788,0.009558973,-0.029711893,-0.07408721,-0.27326107,0.0022548651,0.12638159,0.090098605,0.094165415,-0.0046734503,0.0053521567,-0.004573276,-0.052688044,0.07143867,-0.15170504,0.07473546,-0.03342485,0.09730708,-0.06274172,-0.28492904,0.16306989,0.18234885,0.33054224,-0.20602497,-0.3572482,0.22658598,-2.0,0.45639506,-0.29927847,2.0,-0.586161,-2.0,2.0,1.9884315,2.0,-2.0,2.0,-0.86165524,-2.0,1.7009118,0.5343106,2.0,-2.0,2.0,2.0,-2.0,2.0,-2.0
2025-07-18 16:41:31.948,0.6400000000000002,640,32,0.2837571,0.11875138,0.06729538,-0.06359278,-0.03226876,0.03134046,0.0,0.0,0.0,-0.007138298,0.05164459,0.011051147,-0.07460517,-0.01900886,-0.20830259,0.05494169,0.054486115,0.058438286,0.12560251,-0.03462834,0.14565042,-0.060825065,0.12364144,-0.12705106,-0.037828244,0.13462101,0.080971636,0.07612889,-0.15772757,-0.0037270884,0.043812804,-0.13769703,0.4122835,-0.17789726,2.0,-0.86165524,-2.0,1.7009118,0.5343106,2.0,-2.0,2.0,2.0,-2.0,2.0,-2.0,2.0,-2.0,-0.17729342,2.0,1.5827332,2.0,-1.9297577,-2.0,2.0,-2.0,-2.0,-2.0
2025-07-18 16:41:31.969,0.6600000000000003,660,33,0.0442689,0.0082352925,-0.06350197,-0.09657552,-0.041374616,0.044492625,0.0,0.0,0.0,-0.010233195,0.10781264,-0.080706395,-0.06085373,-0.018748049,-0.16779216,0.09223673,0.0310047,0.07808173,0.16042815,-0.0879658,0.1782855,-0.09854684,0.09434297,-0.37363705,-0.0016232663,-0.027105777,0.10801217,0.09001428,-0.06732368,-0.030678796,0.141759,-0.11789526,-0.106136605,-0.062446084,2.0,-2.0,-0.17729342,2.0,1.5827332,2.0,-1.9297577,-2.0,2.0,-2.0,-2.0,-2.0,2.0,-2.0,2.0,1.8368322,2.0,-2.0,-1.0129064,-2.0,0.63647336,-2.0,-2.0,1.4201728
2025-07-18 16:41:31.990,0.6800000000000003,680,34,-0.21993059,0.008743976,-0.04305469,0.008134057,0.019681213,0.027724894,0.0,0.0,0.0,-0.010200744,0.13824902,-0.20069896,-0.00649788,0.017593268,-0.094754346,0.011118874,0.006842497,0.09629992,0.15357848,-0.12228026,0.10998258,-0.050243713,0.15658574,-0.3731132,0.16090454,0.08672221,0.15342796,-0.18689936,0.01754282,0.018119063,-0.022258975,-0.1530613,-0.2762992,0.0957574,2.0,-2.0,2.0,1.8368322,2.0,-2.0,-1.0129064,-2.0,0.63647336,-2.0,-2.0,1.4201728,-0.50848377,0.05460704,2.0,1.6928747,2.0,-2.0,-0.81265867,-2.0,-2.0,-2.0,-2.0,2.0
2025-07-18 16:41:32.008,0.7000000000000003,700,35,-0.18369333,-0.047536597,-0.06538871,-0.026928168,-0.035831895,0.025684642,0.0,0.0,0.0,-0.008932962,0.118447945,-0.26577944,0.049517598,0.059984643,-0.024833506,-0.052859277,0.0022513287,0.08586343,0.07775866,-0.15749045,-0.04544632,0.008404734,-0.06408138,-0.006344058,0.09675984,0.046234977,0.21169215,-0.120731026,-0.016237756,0.062324524,-0.23994827,-0.035894826,-0.31758177,0.0792155,-0.50848377,0.05460704,2.0,1.6928747,2.0,-2.0,-0.81265867,-2.0,-2.0,-2.0,-2.0,2.0,-2.0,2.0,2.0,-0.21630341,0.38339922,-2.0,1.9103545,2.0,-2.0,2.0,-1.9146955,2.0
2025-07-18 16:41:32.028,0.7200000000000003,720,36,0.02079302,-0.11847298,-0.026115593,-0.06593375,0.013003203,-0.02878061,0.0,0.0,0.0,-0.0071981633,0.08377233,-0.22179393,0.07991665,0.048387554,0.027649151,-0.092842445,0.024733644,0.14028311,0.008254821,-0.14699596,-0.15664195,0.06757806,-0.07396528,0.15562434,0.07629219,0.019592734,0.047530957,-0.09629644,0.12177507,0.15628639,-0.11226136,0.0759354,-0.29775515,0.11492282,-2.0,2.0,2.0,-0.21630341,0.38339922,-2.0,1.9103545,2.0,-2.0,2.0,-1.9146955,2.0,-2.0,2.0,2.0,-2.0,-2.0,-2.0,2.0,2.0,-2.0,2.0,-2.0,2.0
2025-07-18 16:41:32.050,0.7400000000000003,740,37,0.07363145,-0.024558833,-0.13685769,-0.05573546,-0.038478006,-0.03979908,0.0,0.0,0.0,-0.006491281,0.07300106,-0.1822671,0.106996834,-0.017116705,-0.00095042225,-0.13439302,0.09029021,0.25400215,-0.0352282,-0.12689206,-0.24027134,0.097650275,-0.054440152,0.12452194,0.12509309,-0.11956634,-0.17356832,-0.1072059,0.07268259,0.32612985,-0.123101845,-0.01985439,-0.17982289,0.05657573,-2.0,2.0,2.0,-2.0,-2.0,-2.0,2.0,2.0,-2.0,2.0,-2.0,2.0,-2.0,2.0,2.0,-2.0,-2.0,-1.3589914,2.0,-2.0,0.39509055,2.0,-0.93582594,2.0
2025-07-18 16:41:32.070,0.7600000000000003,760,38,0.037861202,0.10154206,-0.17172644,-0.03792507,-0.040668644,-0.027580883,0.0,0.0,0.0,-0.004436656,0.058467798,-0.16173166,0.13311742,-0.06780733,-0.10230235,-0.15175952,0.13205095,0.29042554,-0.020366412,-0.15229307,-0.25939307,0.14024529,-0.044018555,0.11830412,0.04994426,-0.19152448,-0.39966428,-0.035190083,0.058554392,-0.067102335,-0.024646968,-0.004249711,-0.11563567,0.05958338,-2.0,2.0,2.0,-2.0,-2.0,-1.3589914,2.0,-2.0,0.39509055,2.0,-0.93582594,2.0,-2.0,2.0,-2.0,-2.0,-2.0,2.0,2.0,-2.0,2.0,2.0,2.0,-2.0
2025-07-18 16:41:32.090,0.7800000000000004,780,39,0.14548989,0.040446527,0.0541921,-0.054466892,0.03477603,-0.010536872,0.0,0.0,0.0,-0.0020171276,0.013163357,-0.10080722,0.051239114,-0.114024505,-0.23712249,-0.06570104,0.16056529,0.20294978,0.03063183,-0.12108735,-0.20827049,0.07270788,-0.20284823,0.18643002,-0.25278905,-0.15356015,-0.31240007,0.16441041,0.060812198,-0.2551154,0.07411344,0.11128397,0.12902814,-0.15507825,-2.0,2.0,-2.0,-2.0,-2.0,2.0,2.0,-2.0,2.0,2.0,2.0,-2.0,-0.75324607,2.0,-2.0,-1.0780717,-2.0,2.0,-0.45287824,0.21370547,2.0,2.0,2.0,-2.0
2025-07-18 16:41:32.111,0.8000000000000004,800,40,0.23597524,-0.26058784,0.08633739,-0.025760973,0.047136195,0.023385918,0.0,0.0,0.0,-0.0019628229,-0.0072390307,0.010350059,-0.013929974,-0.13444763,-0.34871596,-0.014759735,0.15510489,0.1713314,0.07959423,-0.07138432,-0.12643567,-0.005760017,-0.10719498,0.35738227,-0.13842487,-0.04021749,-0.19705917,0.13214213,-0.0910577,-0.04744758,0.051140677,0.1680875,0.31730318,-0.10761413,-0.75324607,2.0,-2.0,-1.0780717,-2.0,2.0,-0.45287824,0.21370547,2.0,2.0,2.0,-2.0,0.6298999,-1.0054742,-2.0,1.1137086,0.32454947,2.0,-0.820763,-2.0,2.0,1.0622841,2.0,-2.0
2025-07-18 16:41:32.136,0.8200000000000004,820,41,0.07661298,0.0107057765,0.17885235,-0.031136066,0.04849456,-0.049052685,0.0,0.0,0.0,-0.002931406,0.0036362617,0.07481479,-0.056119047,-0.08675149,-0.3614909,0.05326074,0.11401024,0.122624665,0.12332884,-0.041606147,-0.0022192202,-0.07034772,0.017781,0.0705964,-0.13544403,0.07999409,0.037383836,0.11707471,-0.08593631,-0.16614462,0.08994544,0.05195468,0.3289123,-0.18224828,0.6298999,-1.0054742,-2.0,1.1137086,0.32454947,2.0,-0.820763,-2.0,2.0,1.0622841,2.0,-2.0,2.0,-2.0,-2.0,1.9656312,2.0,2.0,-2.0,-2.0,2.0,-2.0,2.0,-2.0
2025-07-18 16:41:32.160,0.8400000000000004,840,42,-0.24545562,0.709035,0.22533095,-0.029132338,-0.009718774,-0.040509894,0.0,0.0,0.0,-0.0055981185,0.056778356,0.020916868,-0.10234702,-0.020098375,-0.29715466,0.100302376,0.08483772,0.08600477,0.14770475,-0.06669626,0.1417616,-0.100833304,0.0688571,-0.21666256,-0.10979793,0.08425186,0.2805488,0.175468,-0.058113657,-0.13160871,0.032179125,-0.18645869,0.34230742,-0.10074189,2.0,-2.0,-2.0,1.9656312,2.0,2.0,-2.0,-2.0,2.0,-2.0,2.0,-2.0,2.0,-2.0,2.0,2.0,2.0,0.51782393,-2.0,-2.0,2.0,-2.0,-2.0,-0.07222967
2025-07-18 16:41:32.195,0.8600000000000004,860,43,-0.23463474,0.29040813,0.014747561,-0.01847278,-0.04011835,0.0013660666,0.0,0.0,0.0,-0.008849444,0.110237055,-0.112497196,-0.045146845,-0.008254894,-0.24419992,0.08090009,0.03809867,0.048119295,0.19032727,-0.10757262,0.19017291,-0.10075591,0.091825835,-0.4029353,0.12449148,-0.0030049258,0.16574775,-0.03555358,-0.14610797,-0.15370491,-0.004372996,-0.11510899,-0.1029886,0.034745645,2.0,-2.0,2.0,2.0,2.0,0.51782393,-2.0,-2.0,2.0,-2.0,-2.0,-0.07222967,2.0,-2.0,2.0,2.0,2.0,-2.0,-2.0,-2.0,-2.0,-2.0,-2.0,2.0
2025-07-18 16:41:32.227,0.8800000000000004,880,44,-0.3413346,0.07842088,-0.06530287,0.028284723,-0.008569345,-0.034096785,0.0,0.0,0.0,-0.010522022,0.1413082,-0.23661688,0.014802099,-0.0092669735,-0.19531235,-0.010781752,-0.010123963,0.024968429,0.12494914,-0.15350986,0.09290763,-0.025478045,0.080761835,-0.35053742,0.19296782,-0.011912257,0.05389183,-0.13350044,-0.15168287,-0.041890748,-0.26148072,-0.06338969,-0.35295218,0.22507395,2.0,-2.0,2.0,2.0,2.0,-2.0,-2.0,-2.0,-2.0,-2.0,-2.0,2.0,0.23053937,1.9890047,2.0,0.53103,2.0,-2.0,-0.62271637,2.0,-2.0,-0.3013077,-1.6643944,2.0
2025-07-18 16:41:32.255,0.9000000000000005,900,45,0.035698615,-0.27146015,-0.078915656,-0.022267707,-0.038487807,0.0009495081,0.0,0.0,0.0,-0.0104729775,0.13119015,-0.27822068,0.068114795,0.018896827,-0.12049012,-0.06184834,-0.027013274,0.06022213,0.042630095,-0.13859934,-0.026057852,0.026534595,-0.061463814,0.07519862,0.060492873,-0.020957135,0.22150157,-0.1934333,-0.07561303,0.1558134,-0.23873307,-0.004262998,-0.30200568,0.14427473,0.23053937,1.9890047,2.0,0.53103,2.0,-2.0,-0.62271637,2.0,-2.0,-0.3013077,-1.6643944,2.0,-2.0,2.0,2.0,-0.23958135,-0.14698443,-2.0,1.2894902,2.0,-2.0,2.0,-2.0,2.0
2025-07-18 16:41:32.292,0.9200000000000005,920,46,0.08214783,-0.29542837,-0.1354539,0.024577424,0.028202927,-0.047295433,0.0,0.0,0.0,-0.009518335,0.12913962,-0.24774949,0.09789189,0.01423382,-0.08522486,-0.11185894,-0.0013512541,0.18005684,-0.016552677,-0.123066075,-0.12159498,0.08639267,-0.044860005,0.0678184,0.089580715,-0.071311705,-0.040176395,-0.1050039,0.12878223,0.28573847,-0.18824424,0.010812046,-0.13380001,0.062552094,-2.0,2.0,2.0,-0.23958135,-0.14698443,-2.0,1.2894902,2.0,-2.0,2.0,-2.0,2.0,-2.0,2.0,2.0,-2.0,-2.0,-2.0,2.0,0.059919875,-2.0,2.0,-2.0,2.0
2025-07-18 16:41:32.327,0.9400000000000005,940,47,-0.09057933,-0.047325917,-0.09706039,0.03650481,0.05179699,-0.02240565,0.0,0.0,0.0,-0.008060026,0.12811531,-0.22313648,0.11020526,-0.035059523,-0.119808905,-0.13671708,0.06530148,0.22177844,-0.0731237,-0.1074865,-0.18008447,0.12003005,0.020210825,0.0729339,0.09536609,-0.19935845,-0.21052217,-0.107051134,0.12760574,-0.108240575,-0.108188674,-0.04228857,-0.10825246,0.058149595,-2.0,2.0,2.0,-2.0,-2.0,-2.0,2.0,0.059919875,-2.0,2.0,-2.0,2.0,-2.0,2.0,-1.4427123,-2.0,-2.0,1.5276269,2.0,0.44339898,2.0,2.0,0.38174617,0.72088176
2025-07-18 16:41:32.358,0.9600000000000005,960,48,0.18999057,-0.123225085,0.041078955,-0.0026705747,0.047899544,0.020680644,0.0,0.0,0.0,-0.00619698,0.10508306,-0.1529122,0.071161434,-0.10326594,-0.23519194,-0.08671643,0.109475575,0.22141585,-0.01525145,-0.097563975,-0.16290349,0.12114187,-0.098912746,0.21316199,-0.122051306,-0.1381955,-0.22132961,0.20055778,0.18306312,0.034868874,0.12022325,0.087359674,0.16653593,0.035428513,-2.0,2.0,-1.4427123,-2.0,-2.0,1.5276269,2.0,0.44339898,2.0,2.0,0.38174617,0.72088176,-1.5372173,2.0,-2.0,-0.3201488,-2.0,2.0,1.8439854,-2.0,2.0,2.0,2.0,-2.0
2025-07-18 16:41:32.387,0.9800000000000005,980,49,0.26236632,-0.12937598,0.13304603,0.022875562,0.062029332,0.00036666042,0.0,0.0,0.0,-0.005306524,0.07555533,-0.050924983,-0.010447113,-0.0852157,-0.34142146,-0.023910902,0.14243455,0.14977553,0.0529323,-0.05077973,-0.06750717,0.051986236,-0.18959369,0.2969341,-0.22745708,-0.04327316,-0.2821549,0.14498168,0.06256933,-0.2866028,0.19724864,0.13221443,0.2523232,-0.18979914,-1.5372173,2.0,-2.0,-0.3201488,-2.0,2.0,1.8439854,-2.0,2.0,2.0,2.0,-2.0,2.0,1.7128462,-2.0,-0.0042623,0.7958207,2.0,-1.1439348,2.0,2.0,1.6096088,2.0,-2.0
2025-07-18 16:41:32.421,1.0000000000000004,1000,50,0.3256838,-0.17513496,0.06423983,-0.011839043,0.090119615,0.046920326,0.0,0.0,0.0,-0.007419224,0.09268054,0.055511504,-0.07036093,-0.076639615,-0.37308598,0.045268856,0.12503813,0.15582097,0.08462334,-0.0031796028,0.061820466,-0.0145593975,0.054407883,0.25220478,-0.16986749,0.064425796,0.07103473,0.07992444,-0.055884,0.09299466,0.11211831,0.15633234,0.3269551,-0.18175848,2.0,1.7128462,-2.0,-0.0042623,0.7958207,2.0,-1.1439348,2.0,2.0,1.6096088,2.0,-2.0,1.4186949,-2.0,-2.0,2.0,0.736386,2.0,-1.3057746,-2.0,2.0,-1.8204197,2.0,-2.0
2025-07-18 16:41:32.458,1.0200000000000005,1020,51,0.09323473,0.63048565,0.12695915,-0.016575582,0.00391155,0.025762279,0.0,0.0,0.0,-0.01010513,0.11859994,0.11572215,-0.10846064,-0.029412702,-0.287501,0.09075775,0.08007754,0.17239036,0.12169367,-0.044937067,0.19603312,-0.07828297,0.09172655,-0.094912514,-0.04177078,0.1774744,0.17197803,0.07696155,-0.17999075,-0.047686823,0.028224336,-0.0728812,0.38611662,-0.091252446,1.4186949,-2.0,-2.0,2.0,0.736386,2.0,-1.3057746,-2.0,2.0,-1.8204197,2.0,-2.0,2.0,-2.0,-0.07060758,1.7795488,2.0,1.9052783,-2.0,-2.0,2.0,-2.0,-2.0,-1.7770022
2025-07-18 16:41:32.478,1.0400000000000005,1040,52,-0.074804164,0.24131912,-0.00040311442,-0.07314113,0.0025447893,0.0017860793,0.0,0.0,0.0,-0.011734408,0.15820792,0.04210253,-0.09647465,-0.0340188,-0.24140601,0.09528633,0.045932535,0.18013203,0.16566215,-0.09361935,0.23376924,-0.112576246,0.117131025,-0.32969698,-0.013899796,0.051984355,0.021172782,0.037475947,-0.09275931,-0.04331386,0.109497525,-0.080938004,-0.030560149,-0.14037195,2.0,-2.0,-0.07060758,1.7795488,2.0,1.9052783,-2.0,-2.0,2.0,-2.0,-2.0,-1.7770022,2.0,-2.0,2.0,2.0,2.0,-2.0,-2.0,-2.0,2.0,-2.0,-2.0,0.5562592
2025-07-18 16:41:32.503,1.0600000000000005,1060,53,-0.19593471,0.14405061,-0.09862712,0.0028532196,-0.050288457,0.026291009,0.0,0.0,0.0,-0.012223684,0.19471325,-0.1155183,-0.014310256,-0.018132133,-0.1698162,0.027635403,0.00855181,0.14822258,0.19813427,-0.13475606,0.14428198,-0.08609449,0.020419512,-0.3598574,0.12901093,-0.035137903,0.087268375,-0.21477607,-0.06908313,-0.023923974,0.1323369,-0.13173713,-0.2340535,0.05689412,2.0,-2.0,2.0,2.0,2.0,-2.0,-2.0,-2.0,2.0,-2.0,-2.0,0.5562592,0.83643097,-2.0,2.0,2.0,2.0,-2.0,-1.2516674,-2.0,-2.0,-2.0,-2.0,2.0
2025-07-18 16:41:32.523,1.0800000000000005,1080,54,-0.31509733,-0.17240666,-0.14439403,0.0036720787,-0.0049888045,-0.008221943,0.0,0.0,0.0,-0.010659353,0.1954656,-0.24472728,0.041977238,0.011433055,-0.12114807,-0.03970528,-0.014720405,0.16296811,0.1329955,-0.17488223,-0.014252215,-0.015640974,-0.0023343822,-0.29586285,0.15719701,0.13227221,0.16352883,-0.099636056,-0.013490813,-0.06768115,-0.26861003,-0.049105767,-0.3032945,0.16335918,0.83643097,-2.0,2.0,2.0,2.0,-2.0,-1.2516674,-2.0,-2.0,-2.0,-2.0,2.0,-1.7981955,1.7168504,2.0,-0.25961167,2.0,-2.0,0.66043544,0.91018826,-2.0,0.95740217,-1.8355142,2.0
2025-07-18 16:41:32.544,1.1000000000000005,1100,55,-0.24669409,-0.39789593,-0.11265482,-0.04057107,0.008500568,-0.04257055,0.0,0.0,0.0,-0.008411624,0.13590163,-0.27959868,0.07345908,0.014236111,-0.039949015,-0.10115802,2.5801615e-05,0.17662367,0.053478345,-0.16172035,-0.09802712,0.05766565,-0.16594727,0.0025689488,0.081833504,-0.018227706,0.16407503,-0.06025122,0.07318482,0.09963514,-0.13451147,0.06618878,-0.1674565,0.16421352,-1.7981955,1.7168504,2.0,-0.25961167,2.0,-2.0,0.66043544,0.91018826,-2.0,0.95740217,-1.8355142,2.0,-2.0,2.0,2.0,-2.0,-2.0,-2.0,2.0,2.0,-2.0,2.0,-1.99579,2.0
2025-07-18 16:41:32.563,1.1200000000000006,1120,56,-0.07290639,-0.15484585,-0.13307281,-0.034105703,0.023332091,-0.023265287,0.0,0.0,0.0,-0.0063961456,0.12285433,-0.2707102,0.10986013,-0.04940836,-0.026319789,-0.14102572,0.04630269,0.26816657,-0.008830067,-0.14231612,-0.14820486,0.08826591,0.0057224883,-0.027749935,0.07966737,-0.15382132,-0.11031258,-0.029955124,0.12883914,0.22665253,-0.1093011,0.10352792,-0.07319533,0.14122187,-2.0,2.0,2.0,-2.0,-2.0,-2.0,2.0,2.0,-2.0,2.0,-1.99579,2.0,-2.0,2.0,2.0,-2.0,-2.0,-2.0,2.0,-2.0,-1.0054461,2.0,-2.0,2.0
2025-07-18 16:41:32.603,1.1400000000000006,1140,57,-0.120380595,-0.0025503102,-0.16132654,0.008272561,0.012485849,0.015225031,0.0,0.0,0.0,-0.0046632243,0.122627474,-0.25437957,0.11804184,-0.098462865,-0.08155518,-0.1591877,0.10036395,0.29283568,-0.042733133,-0.12588187,-0.19373262,0.13734591,0.045197587,0.059454303,0.0015858089,-0.06225507,-0.23297268,-0.06522864,0.18271016,-0.08935175,-0.060674075,-0.04201436,-0.16969436,0.14826247,-2.0,2.0,2.0,-2.0,-2.0,-2.0,2.0,-2.0,-1.0054461,2.0,-2.0,2.0,-2.0,2.0,-1.8832176,-2.0,-2.0,1.3767256,2.0,-2.0,2.0,2.0,2.0,-1.537612
2025-07-18 16:41:32.627,1.1600000000000006,1160,58,0.04559651,0.17451118,-0.025629751,-0.0104185,0.032936152,-0.01921476,0.0,0.0,0.0,-0.0014238808,0.091139525,-0.2040985,0.060393993,-0.130377,-0.20719941,-0.10010047,0.1393128,0.19611643,0.0116840415,-0.10016604,-0.1692638,0.08493311,-0.17695473,0.13062525,-0.1745318,-0.13005136,-0.26245,0.14765619,0.05103275,-0.3391836,0.1933753,0.17512254,0.16544212,-0.14375582,-2.0,2.0,-1.8832176,-2.0,-2.0,1.3767256,2.0,-2.0,2.0,2.0,2.0,-1.537612,-1.2112945,2.0,-2.0,-1.7336098,-2.0,2.0,-0.09058345,1.3056358,2.0,2.0,2.0,-2.0
2025-07-18 16:41:32.659,1.1800000000000006,1180,59,0.30837718,0.18561497,-0.029155359,0.017478444,0.045647956,0.043454133,0.0,0.0,0.0,0.00015516535,0.035380688,-0.10223685,-0.011305972,-0.15489165,-0.32063907,-0.029630842,0.116745986,0.1741884,0.07236992,-0.024097793,-0.05825081,0.012651813,-0.038486913,0.25997168,-0.19078921,-0.052913893,-0.24240191,0.18005688,0.012083175,0.082202576,0.044237677,0.16051546,0.3990954,-0.24279618,-1.2112945,2.0,-2.0,-1.7336098,-2.0,2.0,-0.09058345,1.3056358,2.0,2.0,2.0,-2.0,-0.26392674,1.3429533,-2.0,0.09734383,1.2025024,2.0,-0.47073066,-2.0,2.0,2.0,2.0,-2.0
2025-07-18 16:41:32.697,1.2000000000000006,1200,60,0.24835493,0.1342439,-0.050302032,-0.04471414,0.033869766,-0.014872641,0.0,0.0,0.0,0.0012585622,0.025111774,0.0068151024,-0.072142296,-0.15014371,-0.34909055,0.020925563,0.09949284,0.14624439,0.120707735,0.03938745,0.093689,-0.05649963,-0.06169673,0.31775823,-0.08174533,0.033512242,0.08635693,0.18416883,-0.012025024,-0.12817024,0.064655095,0.1627857,0.3038522,-0.060486235,-0.26392674,1.3429533,-2.0,0.09734383,1.2025024,2.0,-0.47073066,-2.0,2.0,2.0,2.0,-2.0,1.7023993,-2.0,-2.0,1.5144931,0.7892467,2.0,-0.89669305,-2.0,2.0,-1.5712057,2.0,-2.0
2025-07-18 16:41:32.717,1.2200000000000006,1220,61,0.12458444,0.14512827,-0.010195537,-0.02214727,-0.057032958,-0.03510073,0.0,0.0,0.0,0.0020763876,0.057661243,0.04512329,-0.10967383,-0.08989969,-0.28930897,0.07170885,0.04913504,0.06396679,0.15476325,0.019086193,0.22459228,-0.08822349,0.17443606,-0.09756111,-0.10259158,0.10237975,0.1193395,0.022170521,-0.05692849,-0.1891375,0.049097415,-0.07575713,0.24177697,-0.08675509,1.7023993,-2.0,-2.0,1.5144931,0.7892467,2.0,-0.89669305,-2.0,2.0,-1.5712057,2.0,-2.0,2.0,-2.0,0.03125023,0.99105716,2.0,2.0,-1.2422527,-2.0,2.0,-2.0,-1.9463336,-2.0
2025-07-18 16:41:32.741,1.2400000000000007,1240,62,0.008886997,0.0037054704,0.039275907,-0.012129869,-0.03720138,-0.020680835,0.0,0.0,0.0,0.0022076026,0.12004837,-0.032528836,-0.07900958,-0.08177594,-0.24703394,0.08828921,0.03978045,0.03611775,0.17817505,-0.043511786,0.2613805,-0.120227486,0.050284572,-0.32493058,0.03649732,0.056732543,0.017121213,0.13162781,-0.05943675,0.0351719,0.056053538,-0.10704637,-0.05364692,-0.07676608,2.0,-2.0,0.03125023,0.99105716,2.0,2.0,-1.2422527,-2.0,2.0,-2.0,-1.9463336,-2.0,2.0,-2.0,2.0,1.9357657,2.0,-2.0,-1.5380381,-2.0,2.0,-2.0,-2.0,-0.19064634
2025-07-18 16:41:32.757,1.2600000000000007,1260,63,-0.28526804,0.054222103,-0.10621632,-0.0263651,-0.05190626,-0.0070768977,0.0,0.0,0.0,0.001878224,0.15447517,-0.1718806,-0.030039499,-0.07521998,-0.19509159,0.032811396,0.03216755,0.029800134,0.20067428,-0.09784722,0.17011808,-0.10710434,0.07745969,-0.33291936,0.2210196,0.09524109,0.16510479,-0.2249337,-0.047187008,-0.053789306,0.010445148,-0.16639362,-0.3789603,0.030164616,2.0,-2.0,2.0,1.9357657,2.0,-2.0,-1.5380381,-2.0,2.0,-2.0,-2.0,-0.19064634,1.1453928,-2.0,2.0,1.4435884,2.0,-2.0,-0.8937617,-2.0,-1.7997096,-2.0,-2.0,2.0
2025-07-18 16:41:32.777,1.2800000000000007,1280,64,-0.30755433,-0.20125489,-0.06383254,0.0362966,-0.034337196,0.042630967,0.0,0.0,0.0,0.0024510925,0.15691498,-0.30201632,0.02819196,-0.043916937,-0.13983823,-0.044578854,0.008979212,0.033837188,0.1375999,-0.13607383,0.017239083,-0.05121392,0.08017819,-0.24597193,0.1559556,0.11412876,0.14522815,-0.20796363,-0.10136871,-0.011051523,-0.13827166,-0.15899208,-0.48872635,0.23151247,1.1453928,-2.0,2.0,1.4435884,2.0,-2.0,-0.8937617,-2.0,-1.7997096,-2.0,-2.0,2.0,-1.0562435,2.0,2.0,-0.100714535,2.0,-2.0,0.2949834,2.0,-2.0,0.49003884,-0.58206844,2.0
2025-07-18 16:41:32.797,1.3000000000000007,1300,65,0.14927392,-0.14106001,0.1310774,-0.0121556735,-0.0061659063,0.037337124,0.0,0.0,0.0,0.0033242065,0.12829861,-0.34013313,0.08342977,-0.048727468,-0.05712227,-0.08856541,0.016664349,0.07911843,0.060151357,-0.11084709,-0.04640685,0.007809125,-0.08877526,0.049588542,0.064718395,-0.0013887151,0.17843257,-0.08771641,-0.022663387,0.2112585,-0.109748006,0.017491883,-0.06491487,0.11941811,-1.0562435,2.0,2.0,-0.100714535,2.0,-2.0,0.2949834,2.0,-2.0,0.49003884,-0.58206844,2.0,-2.0,2.0,2.0,0.4779742,-2.0,-2.0,0.9954586,2.0,-2.0,2.0,-2.0,2.0
2025-07-18 16:41:32.817,1.3200000000000007,1320,66,0.05560553,-0.4022546,-0.076595746,-0.010015141,0.046777867,0.019386658,0.0,0.0,0.0,0.0022397644,0.14494702,-0.3117165,0.11426106,-0.035253644,-0.012892421,-0.14088085,0.029160414,0.19537011,-0.0012792827,-0.09807515,-0.078507766,0.060574748,-0.014505118,0.030001104,0.06067201,-0.012837867,-0.010339183,-0.126083,0.040960595,0.3555643,-0.16101845,0.10940779,-0.064122394,0.10898343,-2.0,2.0,2.0,0.4779742,-2.0,-2.0,0.9954586,2.0,-2.0,2.0,-2.0,2.0,-2.0,2.0,2.0,-2.0,-2.0,-2.0,2.0,-1.4953355,-2.0,2.0,-2.0,2.0
2025-07-18 16:41:32.839,1.3400000000000007,1340,67,-0.053404927,-0.08922024,0.0027267062,-0.0072609494,-0.0050864723,0.043643747,0.0,0.0,0.0,0.002136294,0.14169818,-0.29618335,0.11905235,-0.07423744,-0.03880027,-0.16468218,0.08877494,0.24983375,-0.04643381,-0.08840896,-0.10677605,0.11738785,-0.0015280368,0.02174215,0.017108047,-0.16262381,-0.18690477,-0.13618948,0.18715532,-0.11632671,-0.14724052,-0.028366772,-0.043264125,0.038103823,-2.0,2.0,2.0,-2.0,-2.0,-2.0,2.0,-1.4953355,-2.0,2.0,-2.0,2.0,-2.0,2.0,-0.17423803,-2.0,-2.0,1.1480604,2.0,-1.2799424,2.0,2.0,-1.2488549,1.0516526
2025-07-18 16:41:32.857,1.3600000000000008,1360,68,-0.10813188,-0.092258915,-0.06151651,-0.047029134,-0.008716253,-0.004568307,0.0,0.0,0.0,0.0027824908,0.1481694,-0.2590467,0.10018915,-0.122407444,-0.17106321,-0.10362347,0.11980931,0.16252668,0.0008791948,-0.07082452,-0.14945747,0.13327204,0.014801306,0.06867481,-0.1413904,-0.13785557,-0.29931736,0.16734482,0.1594142,-0.23673059,0.117172725,0.07817049,-0.030787604,0.06311816,-2.0,2.0,-0.17423803,-2.0,-2.0,1.1480604,2.0,-1.2799424,2.0,2.0,-1.2488549,1.0516526,-2.0,2.0,-2.0,-2.0,-2.0,2.0,2.0,-0.21797748,2.0,2.0,2.0,-2.0
2025-07-18 16:41:32.877,1.3800000000000008,1380,69,0.13322653,0.020949375,0.10391273,-0.03583267,0.039245307,-0.010711431,0.0,0.0,0.0,0.0034394437,0.106379054,-0.19174005,0.027719267,-0.14947672,-0.28125125,-0.03624271,0.1657927,0.08986265,0.04344476,-0.04026506,-0.11023657,0.053278364,-0.0892278,0.21895683,-0.12519424,-0.13352348,-0.28022006,0.101243295,0.044900436,-0.11609726,0.09178675,0.11287286,0.26221907,-0.22147201,-2.0,2.0,-2.0,-2.0,-2.0,2.0,2.0,-0.21797748,2.0,2.0,2.0,-2.0,0.600845,2.0,-2.0,-0.24985489,-1.684758,2.0,-0.8240341,1.0608218,2.0,2.0,2.0,-2.0
2025-07-18 16:41:32.898,1.4000000000000008,1400,70,0.2784568,-0.2640212,0.02280927,-0.042749137,0.108585805,-0.042632733,0.0,0.0,0.0,0.0026920612,0.10248053,-0.08670639,-0.04159225,-0.13515887,-0.36051732,0.014344486,0.15156019,0.13426921,0.09687149,0.020538343,-0.006687225,-0.014041133,-0.0703824,0.25256568,-0.12679316,0.04066583,-0.17253911,0.101517394,-0.105396256,0.1590122,0.05812267,0.15038142,0.32189408,-0.111424536,0.600845,2.0,-2.0,-0.24985489,-1.684758,2.0,-0.8240341,1.0608218,2.0,2.0,2.0,-2.0,1.557582,0.09638179,-2.0,0.9670574,2.0,2.0,-0.84609884,-2.0,2.0,-0.3167551,2.0,-2.0
2025-07-18 16:41:32.918,1.4200000000000008,1420,71,0.04071881,0.38337415,0.04546066,-0.028329937,0.09380244,0.018726466,0.0,0.0,0.0,0.0017790203,0.13335568,-0.04105283,-0.087444365,-0.095946535,-0.3703595,0.07219859,0.10731065,0.16408655,0.13421914,0.018649772,0.12943128,-0.07528913,0.0935532,0.07454449,-0.1738449,0.14882855,0.04741939,0.12018621,-0.14173181,-0.027986862,0.040275026,0.008393141,0.3861856,-0.14309841,1.557582,0.09638179,-2.0,0.9670574,2.0,2.0,-0.84609884,-2.0,2.0,-0.3167551,2.0,-2.0,2.0,-1.8056592,-2.0,2.0,2.0,2.0,-2.0,-2.0,2.0,-2.0,2.0,-2.0
2025-07-18 16:41:32.938,1.4400000000000008,1440,72,-0.07869778,0.5047839,0.06691273,-0.047845356,0.04558691,-0.047371697,0.0,0.0,0.0,0.00092488556,0.16431972,-0.08128574,-0.13054135,-0.062086493,-0.3083237,0.105768315,0.06746515,0.15526465,0.16286877,-0.0322266,0.25295237,-0.11399663,0.030697351,-0.23876259,-0.028223382,-0.031864997,0.17311989,0.10542663,-0.09486069,-0.087411426,0.12733394,-0.08514141,0.28505656,-0.16771927,2.0,-1.8056592,-2.0,2.0,2.0,2.0,-2.0,-2.0,2.0,-2.0,2.0,-2.0,2.0,-2.0,2.0,2.0,2.0,0.71796405,-2.0,-2.0,2.0,-2.0,-2.0,-0.81964165
2025-07-18 16:41:32.958,1.4600000000000009,1460,73,-0.15218839,0.094158225,-0.113657035,0.016666092,-0.054353304,0.018396383,0.0,0.0,0.0,8.9133055e-06,0.188641,-0.20090826,-0.059913453,-0.051610872,-0.2717948,0.09195416,0.020944072,0.123374745,0.19459364,-0.08627022,0.28969896,-0.10895038,0.024309104,-0.35942772,0.13333113,-0.0016399336,0.071055785,0.0119919265,-0.08424823,-0.01711042,-0.0020820533,-0.1462025,-0.14963642,0.0028021527,2.0,-2.0,2.0,2.0,2.0,0.71796405,-2.0,-2.0,2.0,-2.0,-2.0,-0.81964165,2.0,-2.0,2.0,1.8046743,2.0,-2.0,-1.2383455,-2.0,-0.48025686,-2.0,-2.0,2.0
2025-07-18 16:41:32.978,1.4800000000000009,1480,74,-0.22982441,-0.12613611,-0.08915642,0.021853957,0.0016582055,0.042471983,0.0,0.0,0.0,0.0008944512,0.23209976,-0.31687903,0.0008903123,-0.02864039,-0.22624618,0.01707615,-0.013085605,0.12446199,0.15760629,-0.13148472,0.1891584,-0.04057346,0.081278026,-0.19861649,0.14744106,0.15346892,0.17015179,-0.14752589,-0.0356874,0.0070165326,-0.052486703,-0.048894815,-0.26139694,0.2242799,2.0,-2.0,2.0,1.8046743,2.0,-2.0,-1.2383455,-2.0,-0.48025686,-2.0,-2.0,2.0,-0.55934465,-0.0018113181,2.0,1.278298,2.0,-2.0,0.0557717,-1.3499657,-2.0,-1.8116721,-2.0,2.0
2025-07-18 16:41:33.001,1.5000000000000009,1500,75,-0.20869942,-0.2887913,-0.08443514,0.03731903,0.010690202,-0.0055334247,0.0,0.0,0.0,0.0028904246,0.18349303,-0.33877456,0.05795518,-0.0007973641,-0.16086422,-0.04520475,-0.0049429457,0.110955134,0.07678336,-0.16812995,0.03600673,0.023688147,-0.10824376,0.050146844,0.11149772,0.13363941,0.20696804,-0.14197198,-0.017490622,-0.03958143,-0.16071215,-0.084524214,-0.42270175,0.11320488,-0.55934465,-0.0018113181,2.0,1.278298,2.0,-2.0,0.0557717,-1.3499657,-2.0,-1.8116721,-2.0,2.0,-2.0,2.0,2.0,-1.4519832,2.0,-2.0,1.868733,2.0,-2.0,2.0,-0.047338486,2.0
2025-07-18 16:41:33.018,1.520000000000001,1520,76,0.3936341,0.1856468,0.14265473,0.022607317,0.0031137893,-0.04811194,0.0,0.0,0.0,0.0048361686,0.12776914,-0.30625358,0.09105652,-0.015877767,-0.063150026,-0.09865411,0.04600244,0.14855197,0.006669617,-0.13881795,-0.01138951,0.06390838,-0.13108595,0.082056284,0.13064115,-0.17226109,0.27610278,-0.0895094,0.1406081,0.2705341,-0.1114286,0.11842323,0.07222823,0.05725741,-2.0,2.0,2.0,-1.4519832,2.0,-2.0,1.868733,2.0,-2.0,2.0,-0.047338486,2.0,-1.744442,2.0,2.0,-1.0595895,-2.0,-2.0,1.5044838,2.0,-2.0,2.0,-2.0,2.0
2025-07-18 16:41:33.038,1.540000000000001,1540,77,0.2681044,-0.041202433,0.021933788,0.0082726935,0.039359275,0.021353826,0.0,0.0,0.0,0.0034004878,0.110140644,-0.25226668,0.1206824,-0.046926282,0.004312282,-0.12846062,0.06666121,0.2691105,-0.03769571,-0.09203397,-0.0028287566,0.10253633,-0.0037555012,0.09346974,0.04277101,-0.089649625,-0.018194582,-0.13875562,0.14537723,0.23894584,-0.16536897,0.021794103,0.046892997,0.052136827,-1.744442,2.0,2.0,-1.0595895,-2.0,-2.0,1.5044838,2.0,-2.0,2.0,-2.0,2.0,-2.0,2.0,2.0,-2.0,-2.0,-1.7000258,2.0,-2.0,-2.0,2.0,-2.0,2.0
2025-07-18 16:41:33.058,1.560000000000001,1560,78,0.02356152,0.018682165,-0.050966043,-0.04018221,-0.041199196,-0.028187534,0.0,0.0,0.0,0.0022433177,0.10299684,-0.22453171,0.13616462,-0.0940499,-0.06123431,-0.15248431,0.1302315,0.2966185,-0.089174494,-0.09918031,-0.014995219,0.15273853,-0.05753603,0.09686393,0.058762394,-0.12742098,-0.22573198,-0.079223745,0.03750014,-0.123766445,-0.08151623,-0.031979334,0.07706729,0.035829138,-2.0,2.0,2.0,-2.0,-2.0,-1.7000258,2.0,-2.0,-2.0,2.0,-2.0,2.0,-2.0,2.0,-2.0,-2.0,-2.0,2.0,2.0,-2.0,2.0,2.0,-0.16894716,-2.0
2025-07-18 16:41:33.078,1.580000000000001,1580,79,-0.22410421,-0.055599842,0.028517108,-0.035973158,-0.0010700354,-0.03266275,0.0,0.0,0.0,0.0021260474,0.06610079,-0.17003053,0.059018828,-0.13472185,-0.19756643,-0.083211005,0.15457995,0.19950704,-0.033471577,-0.07628673,-0.00979897,0.08831137,-0.13969332,0.22004408,-0.16653149,-0.11057692,-0.26373902,0.23540698,0.030224979,-0.36552,0.21586232,0.099582225,0.049780667,-0.20229878,-2.0,2.0,-2.0,-2.0,-2.0,2.0,2.0,-2.0,2.0,2.0,-0.16894716,-2.0,-0.94121635,2.0,-2.0,-2.0,-2.0,2.0,-0.27220023,2.0,2.0,2.0,2.0,-2.0
2025-07-18 16:41:33.098,1.600000000000001,1600,80,0.1057134,-0.07260362,0.036937356,-0.011680786,0.011524883,0.040774606,0.0,0.0,0.0,0.0018937482,0.041121125,-0.099716686,-0.012670131,-0.16549043,-0.3048352,-0.017620243,0.13456473,0.16577576,0.030181784,-0.03703834,0.064663365,0.02302438,0.00503525,0.30966872,-0.12236337,-0.14008927,-0.30364743,0.19320165,-0.044708777,-0.016458884,0.09053977,0.19718137,0.22247696,-0.2457423,-0.94121635,2.0,-2.0,-2.0,-2.0,2.0,-0.27220023,2.0,2.0,2.0,2.0,-2.0,0.6155076,1.03833,-2.0,0.32797495,1.6434519,2.0,-0.74202824,-1.8856357,2.0,2.0,2.0,-2.0
2025-07-18 16:41:33.118,1.620000000000001,1620,81,0.036728747,-0.020945774,0.1580573,-0.016660547,0.0691692,-0.0023344702,0.0,0.0,0.0,0.0012887932,0.058213957,0.0044760597,-0.07002545,-0.1380253,-0.3271602,0.040173836,0.092029765,0.13384332,0.08101489,0.03614643,0.17002384,-0.039831784,-0.022746516,0.19451113,-0.12535024,0.0143400505,0.06068116,0.16327465,-0.121136665,-0.11030906,0.14717099,0.07816477,0.28805676,-0.07056359,0.6155076,1.03833,-2.0,0.32797495,1.6434519,2.0,-0.74202824,-1.8856357,2.0,2.0,2.0,-2.0,2.0,-2.0,-2.0,2.0,1.253075,2.0,-1.7453173,-2.0,2.0,-2.0,2.0,-2.0
2025-07-18 16:41:33.138,1.640000000000001,1640,82,-0.10288023,0.41161853,0.066961706,-0.035486747,-0.033762462,0.026188623,0.0,0.0,0.0,-0.00057938544,0.08073975,0.0152519755,-0.10264388,-0.08690832,-0.27412945,0.08512553,0.07481008,0.112803094,0.12446522,0.0052699284,0.28822595,-0.09954088,0.08914385,-0.12631506,-0.07374502,0.039406594,0.16267502,0.08795322,-0.027643532,-0.016624164,0.11777746,-0.14005026,0.28043675,-0.12138207,2.0,-2.0,-2.0,2.0,1.253075,2.0,-1.7453173,-2.0,2.0,-2.0,2.0,-2.0,2.0,-2.0,1.6274493,2.0,2.0,1.7795612,-2.0,-2.0,2.0,-2.0,-2.0,-1.803436
2025-07-18 16:41:33.158,1.660000000000001,1660,83,-0.09952943,0.12201611,-0.03271495,0.009214452,-0.04909348,0.029019425,0.0,0.0,0.0,-0.0018939949,0.14153805,-0.07158918,-0.051299978,-0.094148144,-0.23491828,0.10178617,0.04065226,0.06585752,0.1510817,-0.06512525,0.31149787,-0.12523757,0.067579664,-0.25350296,0.083814174,0.044682745,0.02038841,-0.012987127,-0.10038414,-0.06951009,0.06766001,-0.19617036,-0.14505716,-0.04582655,2.0,-2.0,1.6274493,2.0,2.0,1.7795612,-2.0,-2.0,2.0,-2.0,-2.0,-1.803436,2.0,-2.0,2.0,1.7314419,2.0,-2.0,-1.8212093,-2.0,0.69032997,-2.0,-2.0,1.4079462
2025-07-18 16:41:33.178,1.680000000000001,1680,84,-0.34869936,0.07162025,-0.11245581,-0.037698776,-0.053553753,-0.017295297,0.0,0.0,0.0,-0.0018693185,0.16554815,-0.20508975,0.0018640666,-0.063300274,-0.19646007,0.025537983,0.00886514,0.04031961,0.16044448,-0.09705836,0.21066234,-0.07471858,0.037592776,-0.37503365,0.08076378,0.07541062,0.06118661,-0.14349827,-0.15136006,-0.13465045,0.042787444,-0.051447432,-0.31097806,0.14988847,2.0,-2.0,2.0,1.7314419,2.0,-2.0,-1.8212093,-2.0,0.69032997,-2.0,-2.0,1.4079462,1.2189072,-0.9007211,2.0,1.3146905,2.0,-2.0,0.04299181,-0.3052269,-2.0,-2.0,-2.0,2.0
2025-07-18 16:41:33.199,1.700000000000001,1700,85,-0.29505748,-0.2359151,-0.09526544,0.026944878,0.022913737,0.014269026,0.0,0.0,0.0,-0.0009801342,0.17833073,-0.24498777,0.053308222,-0.029753942,-0.12708412,-0.034940768,0.019097805,0.024973357,0.082508974,-0.14934652,0.07361233,-0.008714784,0.0976629,-0.04694583,0.14713447,0.029309396,0.2214158,-0.17977141,-0.013841729,-0.11323807,-0.10953536,-0.10650942,-0.3649023,0.15002885,1.2189072,-0.9007211,2.0,1.3146905,2.0,-2.0,0.04299181,-0.3052269,-2.0,-2.0,-2.0,2.0,-2.0,0.78526175,2.0,-0.31409594,2.0,-2.0,-0.18173498,2.0,-2.0,0.87538487,-0.97334313,2.0
2025-07-18 16:41:33.219,1.720000000000001,1720,86,0.30980408,0.25165743,0.0140245175,0.016555384,-0.02367061,0.013654435,0.0,0.0,0.0,0.0003847544,0.15815729,-0.24346246,0.092647895,-0.041135184,-0.04771747,-0.093712516,0.011466844,0.08657161,0.012946653,-0.12051045,-0.01933848,0.04944456,-0.0016783894,0.11683845,0.15265797,-0.06066752,0.35194927,-0.10205137,-0.043537334,0.29013675,-0.2297042,0.105515316,-0.24699831,0.13273463,-2.0,0.78526175,2.0,-0.31409594,2.0,-2.0,-0.18173498,2.0,-2.0,0.87538487,-0.97334313,2.0,-2.0,2.0,2.0,-0.3078384,-2.0,-2.0,2.0,2.0,-2.0,2.0,-2.0,2.0
2025-07-18 16:41:33.239,1.740000000000001,1740,87,0.2040355,-0.27105877,-0.10276405,0.042477477,0.027403241,0.045562826,0.0,0.0,0.0,-0.00013482448,0.16771533,-0.21025628,0.12996165,-0.048352487,0.0057674493,-0.12160603,0.05800028,0.18742025,-0.034927502,-0.09171479,-0.07719618,0.09376972,-0.014241798,0.05739751,0.13380814,-0.07209234,-0.029069288,-0.009624566,0.08316886,0.38026497,-0.124331065,0.08952344,-0.0419214,0.09481305,-2.0,2.0,2.0,-0.3078384,-2.0,-2.0,2.0,2.0,-2.0,2.0,-2.0,2.0,-2.0,2.0,2.0,-2.0,-2.0,-2.0,2.0,-2.0,-2.0,2.0,-2.0,2.0
2025-07-18 16:41:33.259,1.7600000000000011,1760,88,-0.060857907,-0.061586227,-0.1027246,0.023573345,0.029713841,0.019566486,0.0,0.0,0.0,-0.00011791446,0.15758741,-0.16346553,0.14939849,-0.09134708,-0.026265781,-0.1660893,0.10502531,0.23199023,-0.08849944,-0.08467896,-0.11748052,0.14483099,-0.029537428,0.13130483,0.022448828,-0.17573644,-0.27666262,-0.091001235,0.15641436,-0.060571413,-0.059534572,-0.07388044,-0.025372325,0.10653888,-2.0,2.0,2.0,-2.0,-2.0,-2.0,2.0,-2.0,-2.0,2.0,-2.0,2.0,-2.0,2.0,-1.657591,-2.0,-2.0,2.0,2.0,-1.7970996,2.0,2.0,1.3564851,-2.0
2025-07-18 16:41:33.280,1.7800000000000011,1780,89,0.010674795,0.04357605,0.10213885,0.006802615,-0.033805598,0.045237884,0.0,0.0,0.0,0.0011820198,0.13539696,-0.09022933,0.072256975,-0.13067342,-0.15732552,-0.09877821,0.14584595,0.15439,-0.022172589,-0.062383454,-0.08451163,0.060229868,-0.07262069,0.19617929,-0.15756401,-0.1040316,-0.27296296,0.22098395,0.038437046,-0.31832814,0.10228728,0.16794053,0.24001536,-0.1352009,-2.0,2.0,-1.657591,-2.0,-2.0,2.0,2.0,-1.7970996,2.0,2.0,1.3564851,-2.0,0.121797845,2.0,-2.0,-0.25401136,-2.0,2.0,-0.3986218,2.0,2.0,1.6395899,2.0,-2.0
2025-07-18 16:41:33.299,1.8000000000000012,1800,90,0.28555903,-0.16128054,-0.02878001,-0.0005054693,-0.032689642,-0.042471316,0.0,0.0,0.0,0.00075840927,0.11454153,0.01739941,-0.0056905304,-0.12310892,-0.28542468,-0.020847507,0.114916645,0.1186307,0.021324392,-0.0072338576,0.03478902,-0.006693887,-0.08095646,0.23898517,-0.16016422,0.0487878,-0.20600203,0.09613242,-0.15815488,0.027859284,0.14250013,0.15094493,0.3564527,-0.20890059,0.121797845,2.0,-2.0,-0.25401136,-2.0,2.0,-0.3986218,2.0,2.0,1.6395899,2.0,-2.0,1.3097445,-2.0,-2.0,0.7976772,1.2966282,2.0,-0.45203024,-2.0,2.0,0.28305617,2.0,-2.0
2025-07-18 16:41:33.319,1.8200000000000012,1820,91,0.068244815,0.19135404,0.1617894,-0.009329209,0.052602407,0.030206613,0.0,0.0,0.0,-9.25908e-05,0.13850887,0.06431257,-0.056049652,-0.092238575,-0.31517923,0.033197183,0.10379898,0.109823875,0.07643588,0.0044152644,0.15752207,-0.05186335,0.07459319,0.008649269,-0.07203684,0.08828648,-0.004132631,0.19752684,-0.07303651,-0.082643695,0.098411635,0.022692176,0.26644552,-0.15498139,1.3097445,-2.0,-2.0,0.7976772,1.2966282,2.0,-0.45203024,-2.0,2.0,0.28305617,2.0,-2.0,2.0,-2.0,-2.0,1.9754957,2.0,2.0,-2.0,-2.0,2.0,-2.0,2.0,-2.0
2025-07-18 16:41:33.341,1.8400000000000012,1840,92,-0.02901692,0.23685953,0.14681186,-0.01930341,0.006121446,-0.012371233,0.0,0.0,0.0,-0.0021310362,0.1618281,-0.0021464815,-0.09784968,-0.070144475,-0.28421107,0.0725196,0.07234972,0.092909746,0.12165898,-0.052133817,0.27644303,-0.11333575,0.1558042,-0.24124072,-0.02868704,-0.007066574,0.13121493,0.08335116,0.009926457,-0.10009702,0.120085575,-0.14713123,0.33907837,-0.06876692,2.0,-2.0,-2.0,1.9754957,2.0,2.0,-2.0,-2.0,2.0,-2.0,2.0,-2.0,2.0,-2.0,2.0,2.0,2.0,0.79684424,-2.0,-2.0,2.0,-2.0,-2.0,-0.8990754
2025-07-18 16:41:33.359,1.8600000000000012,1860,93,-0.06338044,0.099362664,0.018084155,0.018325135,0.009296956,-0.037800357,0.0,0.0,0.0,-0.004636082,0.19586422,-0.13595118,-0.042057067,-0.06345442,-0.24980517,0.07308752,0.0635836,0.07496219,0.14836079,-0.102987155,0.31112096,-0.111307964,0.10229589,-0.32621315,0.15571944,0.046838734,0.11112706,0.016454855,-0.016820375,-0.04658408,0.072106965,-0.13431638,-0.053002525,-0.0118176835,2.0,-2.0,2.0,2.0,2.0,0.79684424,-2.0,-2.0,2.0,-2.0,-2.0,-0.8990754,2.0,-2.0,2.0,2.0,2.0,-2.0,-2.0,-2.0,-1.4652532,-2.0,-2.0,2.0
2025-07-18 16:41:33.379,1.8800000000000012,1880,94,-0.29762343,-0.036958575,-0.095893726,0.014987549,0.0061255717,0.048436873,0.0,0.0,0.0,-0.005551987,0.23002519,-0.26472497,0.030927617,-0.05641964,-0.19850999,0.0024603407,0.044753086,0.062125526,0.1120716,-0.13283536,0.20669621,-0.040350907,-0.01367055,-0.21598098,0.1650421,0.10402877,0.053622153,-0.20556322,-0.039488975,0.027701786,-0.22273144,-0.034974344,-0.33844045,0.17998426,2.0,-2.0,2.0,2.0,2.0,-2.0,-2.0,-2.0,-1.4652532,-2.0,-2.0,2.0,-0.09238495,-0.1120026,2.0,0.8358286,2.0,-2.0,-0.2324825,0.93145496,-2.0,-1.0811546,-2.0,2.0
2025-07-18 16:41:33.399,1.9000000000000012,1900,95,0.008505433,-0.25722465,-0.10940409,-0.045580648,0.013740799,-0.03814055,0.0,0.0,0.0,-0.0051444923,0.20231836,-0.29885858,0.06820429,-0.021605428,-0.13846102,-0.067720085,0.0331694,0.10245651,0.030733408,-0.1562745,0.069653995,0.02355317,-0.1292317,0.13167296,0.04608107,0.13667408,0.17774832,-0.154469,0.015750587,0.20806819,-0.093196526,0.005658318,-0.43911818,0.19813132,-0.09238495,-0.1120026,2.0,0.8358286,2.0,-2.0,-0.2324825,0.93145496,-2.0,-1.0811546,-2.0,2.0,-2.0,2.0,2.0,-0.75623816,1.8585535,-2.0,1.3977461,2.0,-2.0,2.0,-0.8211067,2.0
2025-07-18 16:41:33.419,1.9200000000000013,1920,96,0.32877147,-0.11559967,0.013633368,0.003340762,-0.021149667,-0.00022586693,0.0,0.0,0.0,-0.0033456802,0.18370625,-0.24727912,0.09815731,-0.03794413,-0.03359487,-0.10989253,0.062010184,0.2079019,-0.03387068,-0.12794611,-0.0022550516,0.0704489,-0.07364662,0.10037301,0.06929674,-0.0925955,0.23909472,-0.17075185,0.1168057,0.36099318,-0.14139602,0.10255061,-0.08107809,0.18724059,-2.0,2.0,2.0,-0.75623816,1.8585535,-2.0,1.3977461,2.0,-2.0,2.0,-0.8211067,2.0,-2.0,2.0,2.0,-1.8037883,-2.0,-2.0,2.0,0.98653394,-2.0,2.0,-2.0,2.0
2025-07-18 16:41:33.439,1.9400000000000013,1940,97,0.07913737,-0.08610233,-0.07680197,-0.008867486,0.0035984828,0.028667802,0.0,0.0,0.0,-0.0032814476,0.1747265,-0.22841895,0.13243517,-0.07711377,0.0068044798,-0.14351277,0.10178188,0.2489594,-0.0801587,-0.1248098,-0.018740231,0.10602998,-0.022954086,0.011736467,-0.007881951,-0.07785788,-0.05341893,-0.10298161,0.08012799,0.112439804,-0.09805306,0.008408155,-0.08852813,0.15819444,-2.0,2.0,2.0,-1.8037883,-2.0,-2.0,2.0,0.98653394,-2.0,2.0,-2.0,2.0,-2.0,2.0,2.0,-2.0,-2.0,-1.5653831,2.0,-2.0,-0.508689,2.0,-2.0,2.0
2025-07-18 16:41:33.459,1.9600000000000013,1960,98,-0.024910867,-0.031190401,-0.12128496,-0.058241732,-0.022430062,0.016656805,0.0,0.0,0.0,-0.003130211,0.17637895,-0.18745771,0.13976146,-0.12221836,-0.05538317,-0.15581289,0.1517387,0.21639682,-0.08019796,-0.12038961,-0.027479725,0.15640537,0.058596462,0.0012131822,0.07234532,-0.09203468,-0.2546381,-0.05922772,0.088046916,-0.15104486,0.044874124,0.0056831916,-0.052432522,0.10077591,-2.0,2.0,2.0,-2.0,-2.0,-1.5653831,2.0,-2.0,-0.508689,2.0,-2.0,2.0,-2.0,2.0,-2.0,-2.0,-2.0,2.0,2.0,-1.5477341,2.0,2.0,2.0,-2.0
2025-07-18 16:41:33.480,1.9800000000000013,1980,99,0.061838564,0.09721978,0.1068727,-0.011156528,0.049444612,-0.045334943,0.0,0.0,0.0,-0.0014387239,0.14124118,-0.12375653,0.07257515,-0.16304815,-0.19930728,-0.09511349,0.1821961,0.088223726,-0.009703826,-0.10050393,0.018947285,0.07100636,-0.15848441,0.2090692,-0.17326687,-0.13181297,-0.30826244,0.25621644,0.10514219,-0.32524258,0.1643869,0.12265618,0.23610559,-0.27072886,-2.0,2.0,-2.0,-2.0,-2.0,2.0,2.0,-1.5477341,2.0,2.0,2.0,-2.0,1.3868216,2.0,-2.0,-0.71464396,-2.0,2.0,-1.2864332,2.0,2.0,2.0,2.0,-2.0
2025-07-18 16:41:33.500,2.0000000000000013,2000,100,0.14090529,-0.09475138,-0.06879212,-0.033686887,-0.011901037,0.0037895327,0.0,0.0,0.0,-0.0015262034,0.15618874,-0.03634605,-0.0018439789,-0.1553726,-0.3065262,-0.01904598,0.16352381,0.041077033,0.041190103,-0.03147089,0.13134918,0.0020204124,0.07527811,0.34557337,-0.22302003,-0.0575756,-0.29018968,0.09501374,-0.030793931,-0.036221154,0.17802472,0.19342841,0.40963814,-0.124186024,1.3868216,2.0,-2.0,-0.71464396,-2.0,2.0,-1.2864332,2.0,2.0,2.0,2.0,-2.0,2.0,-2.0,-2.0,0.4607227,2.0,2.0,-0.55592775,-1.0521927,2.0,0.5621898,2.0,-2.0
2025-07-18 16:41:33.523,2.0200000000000014,2020,101,-0.22817361,0.5281461,0.083343014,-0.013715637,-0.033824466,0.020133814,0.0,0.0,0.0,-0.0017567213,0.17230359,0.015231404,-0.05612055,-0.12830506,-0.34431946,0.029036127,0.14614029,0.029181411,0.08891856,-0.007766548,0.25896898,-0.051195566,0.02669594,-0.012612381,-0.19204986,0.053792074,0.012187318,0.053680096,-0.13954265,-0.10305054,0.09425765,-0.0048418264,0.28566617,-0.18785712,2.0,-2.0,-2.0,0.4607227,2.0,2.0,-0.55592775,-1.0521927,2.0,0.5621898,2.0,-2.0,2.0,-2.0,-2.0,2.0,2.0,2.0,-2.0,-2.0,2.0,-2.0,1.9046077,-2.0
2025-07-18 16:41:33.539,2.0400000000000014,2040,102,-0.13308322,0.3988212,-0.018377587,0.0023801737,-0.025050068,-0.01891723,0.0,0.0,0.0,-0.0016269484,0.21604523,-0.06026793,-0.08716563,-0.11911938,-0.31107718,0.06258856,0.0967895,-0.008611022,0.13030988,-0.057746105,0.35276502,-0.08797332,0.090486385,-0.22191083,-0.052512344,-0.06946768,-0.008260272,0.098015286,-0.033133853,-0.10551539,0.12322138,-0.15491183,0.27609256,-0.029927325,2.0,-2.0,-2.0,2.0,2.0,2.0,-2.0,-2.0,2.0,-2.0,1.9046077,-2.0,2.0,-2.0,2.0,2.0,2.0,1.7903656,-2.0,-2.0,2.0,-2.0,-2.0,-1.9239084
2025-07-18 16:41:33.560,2.0600000000000014,2060,103,-0.06435121,0.08652676,0.022796445,0.004388906,-0.05677665,-0.027839296,0.0,0.0,0.0,-0.0023412348,0.2365095,-0.1919492,-0.046880554,-0.12333436,-0.2883816,0.095308445,0.06821837,-0.050006356,0.15538532,-0.09587463,0.36447385,-0.13519919,0.039536722,-0.2968926,0.10821001,0.051411908,0.031446673,0.11420016,-0.074823804,-0.033404917,0.11172707,-0.039716505,-0.05492637,-0.140131,2.0,-2.0,2.0,2.0,2.0,1.7903656,-2.0,-2.0,2.0,-2.0,-2.0,-1.9239084,2.0,-1.7902867,2.0,2.0,2.0,-2.0,-2.0,-2.0,-0.007060111,-2.0,-2.0,1.6784605
2025-07-18 16:41:33.580,2.0800000000000014,2080,104,-0.31171978,0.027855733,-0.086710714,-0.031659514,-0.055309124,0.014447991,0.0,0.0,0.0,-0.0024121376,0.24369529,-0.29350686,0.014993853,-0.11276605,-0.25380152,0.021509627,0.031565197,-0.068921536,0.1412876,-0.13861541,0.25808036,-0.06110283,0.09133242,-0.21612379,0.17633978,-0.014549238,0.107181124,-0.19003838,-0.10938888,-0.08105591,-0.13276811,-0.0919419,-0.29093724,0.13705799,2.0,-1.7902867,2.0,2.0,2.0,-2.0,-2.0,-2.0,-0.007060111,-2.0,-2.0,1.6784605,1.1836466,-1.3626508,2.0,1.7747053,2.0,-2.0,-0.61548835,1.9301815,-2.0,-2.0,-2.0,2.0
2025-07-18 16:41:33.600,2.1000000000000014,2100,105,0.06832263,-0.36642432,-0.22281617,0.044963643,2.668051e-05,0.038034108,0.0,0.0,0.0,-0.0016028445,0.24809636,-0.3443918,0.08155349,-0.059733402,-0.18051174,-0.044337265,0.021986978,-0.03270808,0.07055407,-0.17213014,0.119900174,-0.009953961,-0.06543915,-0.038587995,0.17085436,0.10405958,0.20652169,-0.08738146,-0.08515109,0.15579063,-0.15786621,-0.061570954,-0.42380032,0.08116314,1.1836466,-1.3626508,2.0,1.7747053,2.0,-2.0,-0.61548835,1.9301815,-2.0,-2.0,-2.0,2.0,-1.5797665,1.2425783,2.0,-0.5080105,2.0,-2.0,-0.15311873,2.0,-2.0,1.7741804,-0.65424085,2.0
2025-07-18 16:41:33.622,2.1200000000000014,2120,106,0.2511015,-0.32597142,-0.0662803,-0.051407743,0.004620393,-0.031588864,0.0,0.0,0.0,0.0011731464,0.18092571,-0.3300857,0.10622386,-0.062749214,-0.07503252,-0.096057124,0.011611016,0.08838046,-0.0023773462,-0.14134341,0.02332409,0.042115383,-0.18210083,0.15666348,0.09486061,0.048824478,0.22463019,-0.08094795,-0.057362694,0.3842652,-0.21161243,0.16738504,-0.09675822,0.17209896,-1.5797665,1.2425783,2.0,-0.5080105,2.0,-2.0,-0.15311873,2.0,-2.0,1.7741804,-0.65424085,2.0,-2.0,2.0,2.0,-1.2881379,-2.0,-2.0,1.4646226,2.0,-2.0,2.0,-2.0,2.0
2025-07-18 16:41:33.640,2.1400000000000015,2140,107,0.19345675,-0.32194012,-0.12701488,-0.06993806,0.015666908,0.030037882,0.0,0.0,0.0,0.0032647746,0.14693113,-0.26786163,0.1385158,-0.087991185,-0.031206513,-0.13634293,0.052460518,0.21682785,-0.049876355,-0.09425746,-0.008109529,0.10759112,0.07938404,0.085114256,-0.009887934,-0.032280702,-0.08752584,-0.033062562,0.15554611,0.30263743,-0.13718465,0.13396627,-0.009611071,0.084762625,-2.0,2.0,2.0,-1.2881379,-2.0,-2.0,1.4646226,2.0,-2.0,2.0,-2.0,2.0,-2.0,2.0,2.0,-2.0,-2.0,-1.0703281,2.0,-2.0,-0.88757056,2.0,-2.0,2.0
2025-07-18 16:41:33.660,2.1600000000000015,2160,108,0.002345854,-0.21078399,-0.09680935,-0.04889147,-0.013267345,-0.032001775,0.0,0.0,0.0,0.0047502066,0.1642554,-0.22839023,0.14241591,-0.11920994,-0.09781236,-0.14697258,0.09695379,0.2549116,-0.0785068,-0.09631846,-0.01822715,0.14013895,0.051867783,0.032494597,0.09170931,-0.17805716,-0.22389089,0.0332782,0.0772842,-0.028970009,-0.000286408,0.069571204,-0.06943583,0.06300043,-2.0,2.0,2.0,-2.0,-2.0,-1.0703281,2.0,-2.0,-0.88757056,2.0,-2.0,2.0,-2.0,2.0,-0.593278,-2.0,-2.0,2.0,2.0,-2.0,2.0,2.0,1.7136827,-1.8560445
2025-07-18 16:41:33.685,2.1800000000000015,2180,109,0.13121085,0.073955484,0.090908974,-0.069407634,0.06577226,0.046274655,0.0,0.0,0.0,0.0063789724,0.12562843,-0.15395102,0.0975051,-0.16150269,-0.22551529,-0.07355784,0.13827518,0.15725371,-0.019670187,-0.056288477,0.019714888,0.07044614,-0.08775865,0.16191423,-0.09198663,-0.108769216,-0.32424515,0.25220767,0.12813929,-0.25609457,0.22357613,0.10690867,0.23450232,-0.1325711,-2.0,2.0,-0.593278,-2.0,-2.0,2.0,2.0,-2.0,2.0,2.0,1.7136827,-1.8560445,1.2458824,2.0,-2.0,-0.9124793,-1.4074609,2.0,-0.40711415,2.0,2.0,2.0,2.0,-2.0
2025-07-18 16:41:33.700,2.2000000000000015,2200,110,0.19776167,-0.12611404,-0.056050338,-0.07516771,0.012451641,-0.0037645693,0.0,0.0,0.0,0.0061150203,0.14835796,-0.0591565,0.025371447,-0.1687924,-0.29733047,0.0059052412,0.124525584,0.12946993,0.03635643,0.0048439526,0.14493094,0.0052202037,0.06354639,0.37146893,-0.14056137,-0.05515275,-0.08023103,0.16459362,-0.122490756,0.08951149,0.03686382,0.058809537,0.3965515,-0.10580607,1.2458824,2.0,-2.0,-0.9124793,-1.4074609,2.0,-0.40711415,2.0,2.0,2.0,2.0,-2.0,1.0453948,-2.0,-2.0,1.4503006,-0.14859179,2.0,-1.044122,-2.0,2.0,-0.23489854,2.0,-2.0
2025-07-18 16:41:33.720,2.2200000000000015,2220,111,-0.13736409,0.54355156,0.0440832,-0.0194046,0.019384818,-0.048349068,0.0,0.0,0.0,0.0049092583,0.15169783,-0.0046024285,-0.019375388,-0.12772131,-0.29832193,0.05378963,0.089158624,0.14756723,0.09635464,0.008835842,0.27000222,-0.05552236,0.056144267,-0.070674665,-0.1645414,0.16229515,0.17625158,0.050449744,-0.11980796,-0.10232923,0.15245213,-0.035796028,0.21505322,-0.16899753,1.0453948,-2.0,-2.0,1.4503006,-0.14859179,2.0,-1.044122,-2.0,2.0,-0.23489854,2.0,-2.0,2.0,-2.0,-1.0217282,1.0737671,1.6674252,2.0,-1.3275825,-2.0,2.0,-2.0,0.16321462,-2.0
2025-07-18 16:41:33.740,2.2400000000000015,2240,112,-0.1477792,0.32977575,0.018139891,-0.029950423,-0.06365739,0.021393834,0.0,0.0,0.0,0.0044947457,0.18638356,-0.07169902,-0.040497947,-0.11394468,-0.26309314,0.089163214,0.04367815,0.12122819,0.12898554,-0.041652706,0.29444963,-0.09246204,0.027031763,-0.27473754,-0.003450361,-0.06371199,-0.011409243,0.07505935,-0.11571179,-0.14977105,0.11448467,-0.120520726,-0.14741333,-0.031884477,2.0,-2.0,-1.0217282,1.0737671,1.6674252,2.0,-1.3275825,-2.0,2.0,-2.0,0.16321462,-2.0,2.0,-2.0,2.0,1.8237339,2.0,-0.8249815,-1.4374365,-2.0,2.0,-2.0,-1.790189,-0.7382259
2025-07-18 16:41:33.760,2.2600000000000016,2260,113,-0.26069912,0.10941487,-0.10310539,-0.043676227,-0.04980524,0.023294829,0.0,0.0,0.0,0.0039230334,0.21994673,-0.18878914,0.0021415465,-0.10687556,-0.21432325,0.030713277,0.017033825,0.08258698,0.16498807,-0.09177917,0.20308729,-0.09827227,0.066804096,-0.28233284,0.20006786,-0.03470707,0.02722756,-0.10757218,-0.059667703,-0.12820594,0.148479,-0.12893708,-0.35619265,-0.05581968,2.0,-2.0,2.0,1.8237339,2.0,-0.8249815,-1.4374365,-2.0,2.0,-2.0,-1.790189,-0.7382259,1.7867302,-2.0,2.0,1.2430038,2.0,-2.0,-0.79877496,-2.0,-0.5409308,-2.0,-1.8513274,2.0
2025-07-18 16:41:33.781,2.2800000000000016,2280,114,-0.27350593,-0.18565026,-0.08126363,-0.020238522,-0.008863162,0.010915113,0.0,0.0,0.0,0.0044882116,0.22866201,-0.29642004,0.060286604,-0.087708496,-0.16383652,-0.03898,-0.0020051738,0.061691903,0.1273527,-0.14315031,0.05215373,-0.03458776,0.0765255,-0.27798182,0.18821543,0.085409,0.1228467,-0.17720914,0.019277465,-0.09519244,-0.085246444,-0.03769495,-0.40284753,0.12544717,1.7867302,-2.0,2.0,1.2430038,2.0,-2.0,-0.79877496,-2.0,-0.5409308,-2.0,-1.8513274,2.0,-0.54541695,1.2796513,2.0,0.3351672,2.0,-2.0,0.4260239,0.96749026,-2.0,-1.1134437,-1.7553365,2.0
2025-07-18 16:41:33.801,2.3000000000000016,2300,115,-0.089648604,-0.2372099,-0.11524381,0.05139497,-0.055642758,-0.030257413,0.0,0.0,0.0,0.0054652086,0.20701596,-0.3394817,0.09311247,-0.06849688,-0.08070629,-0.0920335,0.018135894,0.102417834,0.052802518,-0.15670085,-0.07358594,0.02418015,-0.11963258,0.0798454,0.056314316,-0.00712877,0.14833817,-0.102484114,0.059007358,0.10435724,-0.19189116,-0.08280021,-0.16193345,0.10468222,-0.54541695,1.2796513,2.0,0.3351672,2.0,-2.0,0.4260239,0.96749026,-2.0,-1.1134437,-1.7553365,2.0,-2.0,2.0,2.0,-1.0570377,-0.2862406,-2.0,2.0,2.0,-2.0,2.0,-1.6124701,2.0
2025-07-18 16:41:33.820,2.3200000000000016,2320,116,0.022279738,-0.20762047,-0.1600076,0.05643706,0.009420074,0.0453001,0.0,0.0,0.0,0.006810447,0.20673575,-0.30947903,0.11798241,-0.07230259,-0.05472917,-0.11771906,0.04772229,0.18504447,-0.0003802019,-0.15324838,-0.14276804,0.08517489,0.06495111,0.0366925,-0.01336532,-0.11704112,-0.009158586,-0.12132736,0.14729768,0.25129527,-0.10397704,0.064677946,-0.20936544,0.1553559,-2.0,2.0,2.0,-1.0570377,-0.2862406,-2.0,2.0,2.0,-2.0,2.0,-1.6124701,2.0,-2.0,2.0,2.0,-2.0,-2.0,-2.0,2.0,-0.5630235,-2.0,2.0,-1.5718501,2.0
2025-07-18 16:41:33.841,2.3400000000000016,2340,117,-0.09793482,0.017213844,-0.23164012,0.031855647,-0.018141828,-0.044950116,0.0,0.0,0.0,0.009360758,0.20910527,-0.29305768,0.14653318,-0.117315054,-0.113258995,-0.16503322,0.104421265,0.23438583,-0.060702305,-0.14698796,-0.1893031,0.12403944,0.08333513,0.065232165,0.09945776,-0.1413034,-0.2790637,-0.11142886,0.060191527,-0.12798451,-0.0861621,0.03571926,-0.09158348,0.08578461,-2.0,2.0,2.0,-2.0,-2.0,-2.0,2.0,-0.5630235,-2.0,2.0,-1.5718501,2.0,-2.0,2.0,-2.0,-2.0,-2.0,1.9006153,2.0,-0.04906215,2.0,2.0,2.0,-1.1296059
2025-07-18 16:41:33.861,2.3600000000000017,2360,118,0.12073178,0.08193106,-0.022361672,0.03631797,0.031385545,0.03281062,0.0,0.0,0.0,0.013120701,0.16966517,-0.2240967,0.07141604,-0.16859812,-0.22414385,-0.09172038,0.14202248,0.19222382,-0.015958384,-0.1244683,-0.18704438,0.077892266,-0.069895394,0.27100685,-0.2680954,-0.14372489,-0.32618028,0.13567525,0.09420415,-0.07128498,0.14850156,0.015685264,0.16087635,-0.0936875,-2.0,2.0,-2.0,-2.0,-2.0,1.9006153,2.0,-0.04906215,2.0,2.0,2.0,-1.1296059,-2.0,2.0,-2.0,-0.8422663,-2.0,2.0,0.7217008,-2.0,2.0,2.0,2.0,-2.0
2025-07-18 16:41:33.884,2.3800000000000017,2380,119,0.19623983,0.16560237,0.14202341,-0.005741761,-0.003252654,0.04555569,0.0,0.0,0.0,0.015555474,0.13873205,-0.11161878,-0.011949977,-0.15212254,-0.33628455,-0.0205054,0.14020723,0.10043887,0.05116542,-0.08118358,-0.08683895,0.0067468914,-0.078537665,0.2620687,-0.12521276,-0.059276037,-0.26185185,0.21425192,-0.08223105,-0.27857512,0.10572504,0.066390306,0.31266704,-0.11724756,-2.0,2.0,-2.0,-0.8422663,-2.0,2.0,0.7217008,-2.0,2.0,2.0,2.0,-2.0,2.0,2.0,-2.0,0.12149933,0.42393783,2.0,-1.178534,2.0,2.0,1.224674,2.0,-2.0
2025-07-18 16:41:33.901,2.4000000000000017,2400,120,0.41328007,-0.17561282,0.030917313,0.007289683,0.008927857,-0.017055953,0.0,0.0,0.0,0.015228378,0.14035553,0.012085238,-0.060831554,-0.12182629,-0.35057804,0.024564909,0.098036826,0.088895015,0.095875956,-0.042967137,0.048520863,-0.05540331,0.09917556,0.33754936,-0.07510331,0.09232767,0.08777682,0.10522895,-0.040481977,0.038804602,0.1220754,0.06266897,0.40889832,-0.09181007,2.0,2.0,-2.0,0.12149933,0.42393783,2.0,-1.178534,2.0,2.0,1.224674,2.0,-2.0,1.7112753,-2.0,-2.0,1.9443944,-0.19926998,2.0,-0.7768576,-2.0,2.0,-2.0,2.0,-2.0
2025-07-18 16:41:33.921,2.4200000000000017,2420,121,0.077506915,0.18243232,0.007253714,-0.07158,0.030491516,-0.02992493,0.0,0.0,0.0,0.014295411,0.16873816,0.07419508,-0.09583183,-0.09452092,-0.31460398,0.081611864,0.070029214,0.10169655,0.1230592,-0.05955641,0.1869926,-0.10260078,0.053395703,0.043236826,-0.16289243,0.07310034,0.1456409,0.093864754,-0.02335379,-0.033080973,0.0954933,-0.18502788,0.29450506,-0.07860395,1.7112753,-2.0,-2.0,1.9443944,-0.19926998,2.0,-0.7768576,-2.0,2.0,-2.0,2.0,-2.0,2.0,-2.0,-1.0173626,0.41861132,2.0,2.0,-1.7252325,-2.0,2.0,-2.0,-1.934191,-2.0
2025-07-18 16:41:33.941,2.4400000000000017,2440,122,-0.08171863,0.03327459,0.009172826,-0.029002389,-0.011613263,-0.0060730027,0.0,0.0,0.0,0.013289172,0.20568076,0.0015581985,-0.11838516,-0.07456769,-0.27801993,0.10721326,0.05997322,0.110010356,0.16758879,-0.10745286,0.21890123,-0.13150753,-0.00428537,-0.2910551,0.01231039,0.03300163,0.015994538,0.13022116,0.029902661,0.027886104,0.116885,-0.116876096,-0.0120028285,-0.13938713,2.0,-2.0,-1.0173626,0.41861132,2.0,2.0,-1.7252325,-2.0,2.0,-2.0,-1.934191,-2.0,2.0,-2.0,2.0,1.772622,2.0,-1.7162325,-1.5198363,-2.0,2.0,-2.0,-2.0,-0.89283746
2025-07-18 16:41:33.961,2.4600000000000017,2460,123,-0.2579922,0.05715959,-0.09949401,0.02280268,-0.02837556,-0.027157802,0.0,0.0,0.0,0.013138704,0.22571358,-0.11946089,-0.053190894,-0.072760254,-0.2279655,0.04577316,0.04022244,0.10436161,0.1923083,-0.1580298,0.14331074,-0.14093113,-0.008699019,-0.28367805,0.21161176,-0.007981479,0.10993489,-0.18898815,-0.01013214,-0.007310065,0.039465945,-0.08094443,-0.2984327,-0.03147228,2.0,-2.0,2.0,1.772622,2.0,-1.7162325,-1.5198363,-2.0,2.0,-2.0,-2.0,-0.89283746,0.9391896,-2.0,2.0,1.4161192,2.0,-2.0,-1.2723149,-2.0,-1.334912,-2.0,-2.0,2.0
2025-07-18 16:41:33.981,2.4800000000000018,2480,124,-0.34658122,-0.2174895,-0.08913354,0.04836952,-0.048850216,0.042496294,0.0,0.0,0.0,0.014563345,0.21308872,-0.25995874,0.021268133,-0.035956454,-0.17402022,-0.023110759,0.0061584744,0.09694401,0.13286161,-0.18242641,-0.0071194903,-0.07531903,-0.038403194,-0.27861422,0.13834386,0.05092767,0.085636206,-0.21023586,-0.07118469,0.045817614,-0.230149,-0.12761427,-0.47802272,0.20166925,0.9391896,-2.0,2.0,1.4161192,2.0,-2.0,-1.2723149,-2.0,-1.334912,-2.0,-2.0,2.0,-1.149781,1.6329122,2.0,0.050561816,2.0,-2.0,0.43493378,0.2107058,-2.0,0.48886523,-0.754863,2.0
2025-07-18 16:41:34.001,2.5000000000000018,2500,125,-0.0032013156,0.12329943,0.122982174,0.026098017,0.052531254,-0.03331097,0.0,0.0,0.0,0.01651408,0.16314755,-0.29769358,0.06774356,-0.032082066,-0.101322785,-0.09411034,0.017049117,0.10285135,0.065130964,-0.14820789,-0.086279735,-0.004369797,-0.08938478,-0.086344205,0.06997776,0.05341436,0.19912241,-0.122454025,0.03227067,0.012947369,-0.11270952,0.13634911,-0.15488721,0.085417636,-1.149781,1.6329122,2.0,0.050561816,2.0,-2.0,0.43493378,0.2107058,-2.0,0.48886523,-0.754863,2.0,-2.0,2.0,2.0,-0.31206232,-0.844499,-2.0,0.8464373,2.0,-2.0,2.0,-2.0,2.0
2025-07-18 16:41:34.022,2.520000000000002,2520,126,0.0693058,-0.054539196,-0.018655475,-0.0029913995,0.04408317,0.02393216,0.0,0.0,0.0,0.01541303,0.14018844,-0.29595566,0.08442993,-0.03788686,-0.057374,-0.118925415,0.030743536,0.165098,-0.007171601,-0.10155679,-0.15133111,0.047448196,-0.024928994,0.07326169,0.08154493,-0.04357798,0.077091016,-0.08797691,0.009662423,0.21163571,-0.21011199,0.0075506056,-0.15795459,0.092302345,-2.0,2.0,2.0,-0.31206232,-0.844499,-2.0,0.8464373,2.0,-2.0,2.0,-2.0,2.0,-2.0,2.0,2.0,-2.0,-2.0,-2.0,2.0,0.7947789,-2.0,2.0,-2.0,2.0
2025-07-18 16:41:34.042,2.540000000000002,2540,127,0.033346176,-0.05864453,-0.06693559,0.015947556,-0.038273625,0.011216966,0.0,0.0,0.0,0.0143206725,0.14174266,-0.2770464,0.12649746,-0.08795678,-0.08841626,-0.15090773,0.08096733,0.19104005,-0.053284805,-0.09234308,-0.1880267,0.09993209,0.042043008,0.08580633,0.053465348,-0.08095316,-0.14985953,-0.012155216,0.06616416,0.114231005,-0.12998076,0.014558904,-0.13034436,0.0744439,-2.0,2.0,2.0,-2.0,-2.0,-2.0,2.0,0.7947789,-2.0,2.0,-2.0,2.0,-2.0,2.0,0.20519835,-2.0,-2.0,0.203735,2.0,-1.5052221,2.0,2.0,-0.4788947,1.6152352
2025-07-18 16:41:34.062,2.560000000000002,2560,128,-0.02833796,-0.01078874,0.034391515,0.018637583,-0.018759858,-0.021270953,0.0,0.0,0.0,0.01499876,0.12214095,-0.22364624,0.088927,-0.12760101,-0.21690486,-0.13119186,0.13146684,0.1558175,0.0025126636,-0.07611107,-0.19642371,0.116316184,-0.06570936,0.16272211,-0.0049173175,-0.06289979,-0.3249544,0.11717564,0.16765146,-0.25729424,0.2239494,0.0046474445,-0.047756843,0.05113126,-2.0,2.0,0.20519835,-2.0,-2.0,0.203735,2.0,-1.5052221,2.0,2.0,-0.4788947,1.6152352,-1.3413078,2.0,-2.0,-2.0,-2.0,2.0,2.0,0.086141266,2.0,2.0,2.0,-2.0
2025-07-18 16:41:34.082,2.580000000000002,2580,129,0.21678054,0.047605235,0.18793568,-0.023941517,-0.011568697,-0.013135125,0.0,0.0,0.0,0.014938983,0.08573739,-0.1262977,0.023458773,-0.1703848,-0.31211898,-0.056220505,0.16137432,0.12716077,0.045991935,-0.042207766,-0.13362256,0.05145646,-0.06389548,0.24547969,-0.11315678,-0.1549482,-0.25759387,0.13062628,0.12198948,0.02970147,0.06382792,0.16721964,0.21291813,-0.14214027,-1.3413078,2.0,-2.0,-2.0,-2.0,2.0,2.0,0.086141266,2.0,2.0,2.0,-2.0,0.60642534,2.0,-2.0,0.7836277,-1.3470902,2.0,-0.8827491,-2.0,2.0,1.6535504,2.0,-2.0
2025-07-18 16:41:34.102,2.600000000000002,2600,130,0.2237397,-0.26814923,0.11839048,-0.010936632,-0.011300756,-0.009519127,0.0,0.0,0.0,0.012910572,0.07539777,-0.028934278,-0.031750575,-0.13376187,-0.3697955,0.0042632003,0.14548732,0.06317138,0.09325477,-0.0016053087,0.000983078,-0.017114624,-0.013491024,0.25648153,-0.07665071,0.1949083,-0.05052452,0.078256935,-0.12349426,-0.25431368,0.11366153,0.16308805,0.31461468,-0.21862166,0.60642534,2.0,-2.0,0.7836277,-1.3470902,2.0,-0.8827491,-2.0,2.0,1.6535504,2.0,-2.0,2.0,-1.1417094,-2.0,0.75902164,0.80348694,2.0,-1.231922,1.8279188,2.0,-2.0,2.0,-2.0
2025-07-18 16:41:34.123,2.620000000000002,2620,131,0.29854733,0.49880973,-0.02232233,-0.028803155,-0.0068463017,-0.048017584,0.0,0.0,0.0,0.009975917,0.12225287,0.035760283,-0.088979885,-0.09878398,-0.3579354,0.05903008,0.099796265,0.05529588,0.13244379,-0.035413362,0.14342324,-0.07499949,0.051423717,0.008894734,-0.114957035,0.14164044,0.2336059,0.1862892,-0.11158163,0.10581292,0.13302104,-0.18150033,0.39266646,-0.067775,2.0,-1.1417094,-2.0,0.75902164,0.80348694,2.0,-1.231922,1.8279188,2.0,-2.0,2.0,-2.0,2.0,-2.0,-1.802872,2.0,1.3253161,2.0,-1.8451027,-2.0,2.0,-2.0,-1.0331093,-2.0
2025-07-18 16:41:34.142,2.640000000000002,2640,132,0.028715912,0.37877083,-0.10335646,0.0010094143,0.01607354,-0.027914371,0.0,0.0,0.0,0.00863841,0.15158188,-0.041478697,-0.12588125,-0.0658406,-0.28327423,0.08803425,0.04404771,0.07159032,0.16409864,-0.077456236,0.1794143,-0.10815466,0.0720228,-0.23096828,-0.111793935,0.021149378,0.16927485,0.0840793,-0.08385982,-0.0331282,0.10568425,-0.107874736,-0.018763827,-0.083805434,2.0,-2.0,-1.802872,2.0,1.3253161,2.0,-1.8451027,-2.0,2.0,-2.0,-1.0331093,-2.0,2.0,-2.0,2.0,1.412002,2.0,-1.2852255,-0.2550683,-2.0,2.0,-2.0,-2.0,-0.4771246
2025-07-18 16:41:34.162,2.660000000000002,2660,133,-0.15996037,-0.09631311,0.012902151,-0.07351736,-0.060335334,-0.0011073054,0.0,0.0,0.0,0.009062749,0.18661684,-0.16027035,-0.046327237,-0.026983147,-0.22497328,0.04359341,0.031920988,0.064215004,0.1826258,-0.13234107,0.11262231,-0.10665925,0.1448754,-0.39754975,0.23926489,0.00045570653,0.20927052,-0.11190198,-0.041775715,0.018420784,0.0829675,-0.04669428,-0.26964256,-0.041574422,2.0,-2.0,2.0,1.412002,2.0,-1.2852255,-0.2550683,-2.0,2.0,-2.0,-2.0,-0.4771246,0.19555776,-1.6334321,2.0,1.7466191,2.0,-2.0,-1.7643952,-2.0,-2.0,-2.0,-2.0,2.0
2025-07-18 16:41:34.182,2.680000000000002,2680,134,-0.23164205,0.036112096,-0.10395731,-0.058657143,-0.041430473,-0.017223243,0.0,0.0,0.0,0.009600663,0.16881031,-0.2554918,0.016577275,-0.0071583153,-0.15016985,-0.040585574,0.00445122,0.08386527,0.12174094,-0.15844974,-0.051431444,-0.045483157,-0.07675776,-0.16954905,0.147384,0.058637615,0.14219876,-0.118274964,-0.059985127,0.0055408757,-0.17837067,-0.016682185,-0.4274098,0.16695681,0.19555776,-1.6334321,2.0,1.7466191,2.0,-2.0,-1.7643952,-2.0,-2.0,-2.0,-2.0,2.0,-2.0,1.9296328,2.0,-0.37580648,2.0,-2.0,0.9004328,2.0,-2.0,1.6554976,-0.13148451,2.0
2025-07-18 16:41:34.202,2.700000000000002,2700,135,0.09575077,-0.46407542,0.14570352,-0.00871937,0.008856033,-0.038154177,0.0,0.0,0.0,0.010453649,0.109759614,-0.2657515,0.049478415,0.0072979713,-0.073663615,-0.08243039,0.03409262,0.13362138,0.039819546,-0.16139151,-0.092575915,0.01009153,-0.15904169,0.09551657,0.05260018,-0.029382443,0.33366606,-0.08680655,0.019804202,0.23317699,-0.14331952,0.14705952,0.046593092,0.18787678,-2.0,1.9296328,2.0,-0.37580648,2.0,-2.0,0.9004328,2.0,-2.0,1.6554976,-0.13148451,2.0,-2.0,2.0,2.0,-0.94044435,-2.0,-2.0,1.3753368,2.0,-2.0,2.0,-2.0,2.0
2025-07-18 16:41:34.222,2.720000000000002,2720,136,0.04515167,-0.30677426,0.00866973,0.020638013,0.03766033,-0.043328993,0.0,0.0,0.0,0.009072038,0.07773283,-0.22930156,0.09069885,-0.021068605,-0.013848102,-0.13309114,0.059421048,0.24727853,-0.019976562,-0.12559395,-0.101424314,0.059950717,0.05894672,0.095122375,0.13384618,-0.11515672,-0.031969175,-0.01778848,0.03635042,0.2512464,-0.13169658,0.14591585,-0.011134267,0.12900637,-2.0,2.0,2.0,-0.94044435,-2.0,-2.0,1.3753368,2.0,-2.0,2.0,-2.0,2.0,-2.0,2.0,2.0,-2.0,-2.0,-2.0,2.0,-2.0,-2.0,2.0,-2.0,2.0
2025-07-18 16:41:34.242,2.740000000000002,2740,137,-0.041649293,-0.06588019,0.0583157,-0.07624055,0.05360476,0.03367939,0.0,0.0,0.0,0.007173787,0.082976095,-0.21105269,0.10134929,-0.066492915,-0.08764835,-0.15014218,0.09697373,0.2817766,-0.063775204,-0.10206683,-0.11823971,0.11260724,3.919879e-05,0.066579886,0.065079324,-0.1265334,-0.19465418,-0.13571768,0.15490617,-0.020752726,-0.12394209,-0.013599762,0.0010494424,0.064239286,-2.0,2.0,2.0,-2.0,-2.0,-2.0,2.0,-2.0,-2.0,2.0,-2.0,2.0,-2.0,2.0,0.106621794,-2.0,-2.0,2.0,2.0,-2.0,2.0,2.0,-2.0,-0.005988281
2025-07-18 16:41:34.262,2.760000000000002,2760,138,-0.16214344,-0.06097245,0.020373803,0.02805762,0.050878607,0.03813743,0.0,0.0,0.0,0.006284605,0.07795985,-0.17928998,0.0787966,-0.12881541,-0.21365023,-0.088036366,0.15317872,0.18469624,-0.0069141155,-0.078565046,-0.1490373,0.090392284,0.014370516,0.17113018,-0.0117449025,-0.090038575,-0.31738293,0.117724225,0.14250809,-0.3425447,0.18818678,0.07090735,-0.06995778,0.0021387606,-2.0,2.0,0.106621794,-2.0,-2.0,2.0,2.0,-2.0,2.0,2.0,-2.0,-0.005988281,-1.6691681,2.0,-2.0,-2.0,-2.0,2.0,1.7911743,2.0,2.0,2.0,2.0,-2.0
2025-07-18 16:41:34.286,2.780000000000002,2780,139,0.12956077,-0.033839874,0.09018427,-0.009818097,0.012233528,-0.0028297154,0.0,0.0,0.0,0.0057576606,0.04037222,-0.0953315,0.0057010683,-0.15811428,-0.31448624,-0.027590265,0.17354926,0.15204848,0.0357048,-0.03446298,-0.096975945,0.033830933,-0.062389463,0.30242398,-0.14414681,-0.022233611,-0.28948063,0.17574026,0.045237698,0.12693693,0.0881986,0.05109137,0.23171644,-0.12583457,-1.6691681,2.0,-2.0,-2.0,-2.0,2.0,1.7911743,2.0,2.0,2.0,2.0,-2.0,-0.24867024,1.4335779,-2.0,0.4412085,-0.57041,2.0,-0.591503,-2.0,2.0,2.0,2.0,-2.0
2025-07-18 16:41:34.302,2.800000000000002,2800,140,0.19207183,-0.250925,0.15812649,-0.08282588,0.04924889,0.027846118,0.0,0.0,0.0,0.00426249,0.02819314,0.01538598,-0.039229702,-0.14165549,-0.35315746,0.0355281,0.15908271,0.13416635,0.09351243,0.024480704,0.0117619205,-0.03794635,-0.089211024,0.21802492,-0.12731045,0.109649554,0.060183123,0.05925719,-0.1471888,-0.19252446,0.05724401,0.07510717,0.35773754,-0.19099504,-0.24867024,1.4335779,-2.0,0.4412085,-0.57041,2.0,-0.591503,-2.0,2.0,2.0,2.0,-2.0,2.0,-2.0,-2.0,1.7824403,-0.45933375,2.0,-1.5321846,-1.329315,2.0,-2.0,2.0,-2.0
2025-07-18 16:41:34.323,2.820000000000002,2820,141,-0.0592117,0.5593407,0.12023093,-0.02736932,0.015399425,0.016408624,0.0,0.0,0.0,0.0013444093,0.05939527,0.06686696,-0.10130535,-0.07065188,-0.3197293,0.08142273,0.10606002,0.07307843,0.13980974,0.003803017,0.13092838,-0.084012695,0.08238105,-0.068951055,-0.07347205,0.16670829,0.022372816,0.03903863,-0.06997845,-0.085474744,0.019651134,-0.095748715,0.36642528,-0.08283408,2.0,-2.0,-2.0,1.7824403,-0.45933375,2.0,-1.5321846,-1.329315,2.0,-2.0,2.0,-2.0,2.0,-2.0,-0.099301465,1.4268293,2.0,2.0,-2.0,-2.0,2.0,-2.0,-0.83474624,-2.0
2025-07-18 16:41:34.343,2.840000000000002,2840,142,-0.2522374,0.36359507,0.09272219,-0.015417343,-0.034475476,-0.023464585,0.0,0.0,0.0,-0.0013604973,0.095779575,-0.0017168154,-0.08262159,-0.055228587,-0.29755068,0.10951203,0.052770898,0.029749501,0.17385599,-0.059665367,0.18487851,-0.12728006,0.048148118,-0.28455177,0.0052394923,0.021229574,0.015590919,-0.024624592,-0.16013601,-0.08195073,0.05193192,-0.18148552,-0.007596975,-0.012637099,2.0,-2.0,-0.099301465,1.4268293,2.0,2.0,-2.0,-2.0,2.0,-2.0,-0.83474624,-2.0,2.0,-2.0,2.0,2.0,2.0,-2.0,-2.0,-2.0,2.0,-2.0,-2.0,1.3045827
2025-07-18 16:41:34.363,2.860000000000002,2860,143,-0.34286973,0.19260713,-0.10675671,0.012207022,-0.04243386,-0.026473355,0.0,0.0,0.0,-0.0031126805,0.14219461,-0.15572542,-0.02383424,-0.03273232,-0.23790026,0.029431041,-0.0018468533,-0.03433305,0.1959206,-0.11895273,0.11440304,-0.068622805,0.07799907,-0.28482163,0.14183797,-0.007433321,0.09709504,-0.25185072,-0.06612503,-0.094778046,0.008162189,-0.035518933,-0.29481,0.14588583,2.0,-2.0,2.0,2.0,2.0,-2.0,-2.0,-2.0,2.0,-2.0,-2.0,1.3045827,1.7446326,-2.0,2.0,1.7817365,2.0,-2.0,-0.63968915,-0.75763243,-2.0,-2.0,-2.0,2.0
2025-07-18 16:41:34.386,2.880000000000002,2880,144,-0.37030405,-0.19410282,0.010885749,-0.006396197,-0.052109823,0.015417939,0.0,0.0,0.0,-0.0033341178,0.1757652,-0.27798134,0.039890647,-0.020047115,-0.20142601,-0.032334883,-0.019270176,-0.054665092,0.12974143,-0.14670902,-0.030979726,-0.010795558,0.073446505,-0.2506629,0.19856004,0.13633879,0.1723184,-0.16656254,-0.07783797,-0.06335471,-0.14930889,-0.029295046,-0.3220444,0.14645804,1.7446326,-2.0,2.0,1.7817365,2.0,-2.0,-0.63968915,-0.75763243,-2.0,-2.0,-2.0,2.0,-0.4102755,2.0,2.0,0.43569508,2.0,-2.0,-1.3534819,2.0,-2.0,-0.26940122,-0.7821331,2.0
2025-07-18 16:41:34.403,2.900000000000002,2900,145,0.081570946,0.035471193,-0.035228334,0.06912317,-0.007265106,-0.021221396,0.0,0.0,0.0,-0.003136849,0.15067594,-0.2992481,0.07761992,-0.014307571,-0.120403916,-0.08612562,-0.03332999,-0.016878765,0.043078776,-0.14278115,-0.10379233,0.04610998,-0.077561386,0.087170385,0.103036955,0.020235838,0.27197877,-0.14081122,-0.14490338,0.2586552,-0.25467432,0.03253718,-0.15476753,0.17573592,-0.4102755,2.0,2.0,0.43569508,2.0,-2.0,-1.3534819,2.0,-2.0,-0.26940122,-0.7821331,2.0,-2.0,2.0,2.0,0.46289885,-1.0072618,-2.0,1.2703091,2.0,-2.0,2.0,-2.0,2.0
2025-07-18 16:41:34.423,2.920000000000002,2920,146,0.14389823,-0.27067563,-0.102745466,0.00068168953,-0.013090694,-0.013447441,0.0,0.0,0.0,-0.0029978168,0.14343588,-0.27424717,0.10643548,0.010271196,-0.0757103,-0.1170455,-0.011959665,0.10479024,-0.016795518,-0.10232614,-0.16231374,0.08815256,0.0470527,0.016367583,0.06963041,0.080006674,0.053155906,-0.021087512,0.17416154,0.31674722,-0.10807464,0.03583505,-0.13204624,0.08187288,-2.0,2.0,2.0,0.46289885,-1.0072618,-2.0,1.2703091,2.0,-2.0,2.0,-2.0,2.0,-2.0,2.0,2.0,-2.0,-2.0,-2.0,2.0,0.90592116,-2.0,2.0,-2.0,2.0
2025-07-18 16:41:34.447,2.940000000000002,2940,147,0.043028332,-0.09600826,-0.09612199,-0.027284333,0.0358688,0.04109456,0.0,0.0,0.0,-0.0019418718,0.15378277,-0.25392762,0.13576604,-0.042853143,-0.113164246,-0.16269082,0.052581046,0.16701454,-0.06472148,-0.08053425,-0.20766817,0.14182085,-0.05738787,0.009783996,-0.021416647,-0.11512396,-0.12516916,-0.1173696,0.18055415,0.15594411,-0.12988913,0.04488811,-0.11158824,0.037946247,-2.0,2.0,2.0,-2.0,-2.0,-2.0,2.0,0.90592116,-2.0,2.0,-2.0,2.0,-2.0,2.0,1.729263,-2.0,-2.0,-0.7539286,2.0,-1.9187555,1.2018319,2.0,-0.67829096,2.0
2025-07-18 16:41:34.463,2.960000000000002,2960,148,-0.058233358,-0.03313706,-0.062436983,0.064941406,-0.022791753,0.025540039,0.0,0.0,0.0,-0.00023532665,0.15241876,-0.19963728,0.14943953,-0.09811955,-0.20224285,-0.14622772,0.10216209,0.1433168,-0.032832995,-0.09019473,-0.20978056,0.15381992,0.053261075,0.13075036,-0.009721569,-0.16831756,-0.2369557,-0.046803672,0.09663871,-0.17271388,0.11606106,-0.05614878,0.055426564,0.11178109,-2.0,2.0,1.729263,-2.0,-2.0,-0.7539286,2.0,-1.9187555,1.2018319,2.0,-0.67829096,2.0,-1.995639,2.0,-2.0,-2.0,-2.0,2.0,2.0,-1.3543934,2.0,2.0,2.0,-2.0
2025-07-18 16:41:34.483,2.980000000000002,2980,149,0.08962076,0.018069087,0.09644264,0.0061541274,-0.012968848,0.047277823,0.0,0.0,0.0,0.001305584,0.11967579,-0.120421395,0.08233193,-0.14335503,-0.32212,-0.08886835,0.14547364,0.036036905,0.035189074,-0.05861034,-0.15148902,0.092758186,-0.09696334,0.2146472,-0.17598377,-0.053902376,-0.19938944,0.15071678,0.1694852,-0.30196458,0.19218482,0.08302108,0.22855027,-0.2533874,-1.995639,2.0,-2.0,-2.0,-2.0,2.0,2.0,-1.3543934,2.0,2.0,2.0,-2.0,0.6500011,2.0,-2.0,-0.80862236,-2.0,2.0,-0.9407921,2.0,2.0,2.0,2.0,-2.0
2025-07-18 16:41:34.503,3.000000000000002,3000,150,0.21352889,-0.3094871,0.02750003,0.033043284,0.048130397,0.030446028,0.0,0.0,0.0,0.00037999926,0.12065654,0.0027940574,-0.0069081997,-0.13092582,-0.40244424,-0.0071581868,0.11410675,-0.0071083712,0.07565249,-0.00872689,-0.04122478,0.016072463,0.017239664,0.2757571,-0.21690099,0.0068276166,-0.25091484,0.11260226,-0.13340074,0.13060285,0.119185664,0.20649955,0.27492544,-0.1455874,0.6500011,2.0,-2.0,-0.80862236,-2.0,2.0,-0.9407921,2.0,2.0,2.0,2.0,-2.0,1.6889223,-1.0879433,-2.0,0.61356544,2.0,2.0,-0.6837087,-2.0,2.0,0.84238464,2.0,-2.0
2025-07-18 16:41:34.523,3.0200000000000022,3020,151,0.04557464,0.2062088,0.19479561,-0.023439169,0.02336819,0.03919963,0.0,0.0,0.0,-0.00054867275,0.1450653,0.04229286,-0.058753245,-0.09925941,-0.43146777,0.04119669,0.094138384,0.01082235,0.12385941,0.027188271,0.0904095,-0.038455173,0.000857133,-0.025438923,-0.0723806,0.027596293,0.086819746,0.17342596,-0.09891996,-0.065179616,0.038200475,0.06549623,0.38903865,-0.11225498,1.6889223,-1.0879433,-2.0,0.61356544,2.0,2.0,-0.6837087,-2.0,2.0,0.84238464,2.0,-2.0,2.0,-2.0,-2.0,2.0,2.0,2.0,-2.0,-2.0,2.0,-2.0,2.0,-2.0
2025-07-18 16:41:34.543,3.0400000000000023,3040,152,-0.09177137,0.47894225,0.06199367,0.046107713,0.011357585,0.003252918,0.0,0.0,0.0,-0.0021884046,0.16715384,-0.013194937,-0.0948116,-0.071326956,-0.36495942,0.071065515,0.05661123,-0.01436604,0.15710211,-0.025856739,0.23550951,-0.09698068,0.040998854,-0.22092423,-0.05893656,0.029397035,0.062621936,0.07574805,-0.14890833,0.013065124,0.13957557,-0.14403346,0.35834426,-0.04693592,2.0,-2.0,-2.0,2.0,2.0,2.0,-2.0,-2.0,2.0,-2.0,2.0,-2.0,2.0,-2.0,2.0,2.0,2.0,1.4244202,-2.0,-2.0,2.0,-2.0,-2.0,-1.7278141
2025-07-18 16:41:34.563,3.0600000000000023,3060,153,-0.0346053,0.16442223,-0.05530141,-0.02641976,-0.025794294,0.0030714814,0.0,0.0,0.0,-0.0043111723,0.20662634,-0.1570735,-0.04030355,-0.06350475,-0.3455954,0.08130705,0.030357191,-0.024429128,0.18866464,-0.06962213,0.27102312,-0.12988104,0.044780083,-0.38471735,0.13326617,-0.0011564441,0.12907694,0.04844308,-0.021435643,-0.091210164,0.1345088,-0.1968299,-0.115966514,-0.12186623,2.0,-2.0,2.0,2.0,2.0,1.4244202,-2.0,-2.0,2.0,-2.0,-2.0,-1.7278141,2.0,-1.4167937,2.0,1.6322631,2.0,-2.0,-1.7732548,-2.0,0.018454015,-2.0,-2.0,2.0
2025-07-18 16:41:34.583,3.0800000000000023,3080,154,-0.23289402,0.031805735,-0.13947545,-0.009449291,-0.086896904,0.022508435,0.0,0.0,0.0,-0.0045947186,0.22320537,-0.24314198,0.03236526,-0.06024372,-0.29250148,0.0107953455,-0.00795252,-0.05134126,0.16284303,-0.12504035,0.17309238,-0.05790354,0.018427698,-0.117455214,0.084011145,-0.01787113,0.0662743,-0.26510602,-0.12955657,-0.039681517,-0.13695663,-0.09360671,-0.329646,0.13250938,2.0,-1.4167937,2.0,1.6322631,2.0,-2.0,-1.7732548,-2.0,0.018454015,-2.0,-2.0,2.0,1.0366712,-2.0,2.0,1.1324538,2.0,-2.0,0.37986067,2.0,-2.0,-2.0,-2.0,2.0
2025-07-18 16:41:34.603,3.1000000000000023,3100,155,0.1417872,-0.38549608,-0.12960008,-0.01648281,-0.023847526,-0.002384682,0.0,0.0,0.0,-0.003036644,0.22232871,-0.33021364,0.07238452,-0.016251972,-0.23407388,-0.050209466,0.018537639,0.009181189,0.08915675,-0.15137587,0.039330777,0.006794735,-0.019201774,-0.25457576,0.12868614,0.11073518,0.24213189,-0.18015419,0.020219795,0.30352774,-0.21916777,-0.038089875,-0.42368615,0.14865474,1.0366712,-2.0,2.0,1.1324538,2.0,-2.0,0.37986067,2.0,-2.0,-2.0,-2.0,2.0,-1.397079,2.0,2.0,-0.0070938785,2.0,-2.0,-0.63785064,-0.5186893,-2.0,2.0,-1.6204331,2.0
2025-07-18 16:41:34.623,3.1200000000000023,3120,156,-0.07548742,-0.053791057,0.0850348,-0.009084355,0.014437884,-0.008192698,0.0,0.0,0.0,-0.00067541277,0.1726441,-0.3671111,0.11642492,-0.017800847,-0.13901898,-0.10653948,0.009969817,0.06979011,0.007679123,-0.14246576,-0.07980614,0.0543399,-0.061307173,-0.013239769,0.034909476,-0.07725461,0.23888114,-0.19781055,-0.052966624,0.03586306,-0.088977836,0.069445156,-0.26066914,0.08358651,-1.397079,2.0,2.0,-0.0070938785,2.0,-2.0,-0.63785064,-0.5186893,-2.0,2.0,-1.6204331,2.0,-2.0,2.0,2.0,-1.4782575,-1.006769,-2.0,0.31930846,2.0,-2.0,2.0,-2.0,2.0
2025-07-18 16:41:34.644,3.1400000000000023,3140,157,-0.022216816,-0.12850724,0.00799623,0.04331283,-0.06270934,-0.01850947,0.0,0.0,0.0,-7.6817385e-05,0.14464238,-0.36410552,0.14114596,-0.04711448,-0.113438636,-0.1352237,0.0025559107,0.14021623,-0.03974656,-0.12123962,-0.16046256,0.10483812,0.0140225105,0.052569456,0.008479458,-0.13223861,-0.008369879,-0.12710097,0.09134958,0.29010567,-0.060064152,0.0038888392,-0.14895417,0.03980033,-2.0,2.0,2.0,-1.4782575,-1.006769,-2.0,0.31930846,2.0,-2.0,2.0,-2.0,2.0,-2.0,2.0,2.0,-2.0,-2.0,-2.0,2.0,-1.113666,-2.0,2.0,-2.0,2.0
2025-07-18 16:41:34.664,3.1600000000000024,3160,158,-0.080438495,-0.11752959,0.0031044858,0.0032679688,-0.018709423,0.041728165,0.0,0.0,0.0,-0.0004414871,0.15330115,-0.34546867,0.14174804,-0.09928333,-0.15340328,-0.16570796,0.046535417,0.15615949,-0.08424265,-0.110618606,-0.20168169,0.13316812,0.016220218,0.07632765,0.050960593,-0.17227985,-0.26230618,-0.042180836,0.15328713,-0.13258848,-0.121619076,0.012653884,-0.08671815,0.15577829,-2.0,2.0,2.0,-2.0,-2.0,-2.0,2.0,-1.113666,-2.0,2.0,-2.0,2.0,-2.0,2.0,-1.0583534,-2.0,-1.1259074,1.6810919,2.0,1.6538196,2.0,2.0,-0.12814593,1.5052325
2025-07-18 16:41:34.684,3.1800000000000024,3180,159,0.23905905,-0.20444424,0.031559974,0.050438736,-0.035801418,0.03270496,0.0,0.0,0.0,6.3076506e-05,0.12609313,-0.2861549,0.09520219,-0.12998576,-0.2180047,-0.1058046,0.10767519,0.16973467,-0.03167144,-0.09352079,-0.20318842,0.16149412,-0.0708356,0.12146009,-0.14189877,-0.024632031,-0.07589216,0.17760418,0.10371751,0.11929159,0.12094042,0.09509248,0.08776593,0.08000985,-2.0,2.0,-1.0583534,-2.0,-1.1259074,1.6810919,2.0,1.6538196,2.0,2.0,-0.12814593,1.5052325,-1.6236547,2.0,-2.0,-0.6914038,-2.0,2.0,2.0,-2.0,2.0,1.8002994,2.0,-2.0
2025-07-18 16:41:34.704,3.2000000000000024,3200,160,0.2800143,-0.11682669,0.22243194,-0.023671826,-0.0067431037,0.02430596,0.0,0.0,0.0,-0.0008026036,0.091300204,-0.19211413,0.028781086,-0.14551765,-0.30974445,-0.03715306,0.13976993,0.18029271,0.021238789,-0.044289246,-0.10956629,0.081732005,-0.11673655,0.29691792,-0.1801236,-0.022530947,-0.31494394,0.13747716,0.10649114,-0.08778389,0.2101902,0.051190693,0.29102674,-0.18471022,-1.6236547,2.0,-2.0,-0.6914038,-2.0,2.0,2.0,-2.0,2.0,1.8002994,2.0,-2.0,2.0,2.0,-2.0,0.78056705,0.15325835,2.0,-0.9923488,-2.0,2.0,1.2507541,2.0,-2.0
2025-07-18 16:41:34.724,3.2200000000000024,3220,161,0.304195,-0.21981339,0.21202654,-0.003992478,-0.0004160542,0.0015180914,0.0,0.0,0.0,-0.0039207605,0.10043275,-0.07282723,-0.038353376,-0.09807328,-0.3370463,0.028619265,0.13347335,0.09015669,0.08247182,-0.016387256,0.008195753,0.002516549,0.18298982,0.25435737,-0.105111346,0.06693278,-0.005240262,0.0714079,-0.063439704,-0.27833945,0.09839055,0.122208886,0.35336316,-0.19718938,2.0,2.0,-2.0,0.78056705,0.15325835,2.0,-0.9923488,-2.0,2.0,1.2507541,2.0,-2.0,2.0,-1.6976577,-2.0,2.0,0.42263898,2.0,-2.0,0.22867052,2.0,-2.0,2.0,-2.0
2025-07-18 16:41:34.744,3.2400000000000024,3240,162,0.18637486,0.5472158,0.062372793,-0.017560761,0.053574953,0.02791514,0.0,0.0,0.0,-0.008055954,0.14549556,-0.02474181,-0.09085324,-0.028717913,-0.25943476,0.07724961,0.080152266,0.086847566,0.11985414,-0.044729598,0.16090414,-0.043961406,0.069258556,0.02063751,-0.037353035,0.055487372,0.2590988,0.08185026,-0.19232583,-0.043230113,0.061001893,-0.12611644,0.394794,-0.08809307,2.0,-1.6976577,-2.0,2.0,0.42263898,2.0,-2.0,0.22867052,2.0,-2.0,2.0,-2.0,2.0,-2.0,0.40032452,1.9494288,1.0802569,1.473682,-2.0,-2.0,2.0,-2.0,-2.0,-2.0
2025-07-18 16:41:34.764,3.2600000000000025,3260,163,0.021545077,0.27917114,-0.013826164,-0.08603995,-0.0345426,0.007780603,0.0,0.0,0.0,-0.010399494,0.18011692,-0.1019271,-0.06283929,-0.032854915,-0.21244417,0.091478966,0.026925739,0.09617364,0.14394994,-0.1029228,0.20285328,-0.08752003,0.1305427,-0.24146093,0.0288492,-0.071988076,0.085864104,0.09223553,-0.03611938,-0.035425287,0.093139745,-0.17999642,-0.10452517,-0.044870835,2.0,-2.0,0.40032452,1.9494288,1.0802569,1.473682,-2.0,-2.0,2.0,-2.0,-2.0,-2.0,2.0,-2.0,2.0,1.8676677,2.0,-2.0,-2.0,-2.0,0.4917739,-2.0,-2.0,2.0
2025-07-18 16:41:34.784,3.2800000000000025,3280,164,-0.23225555,0.2635775,-0.09259221,-0.047297344,-0.07475209,-0.02935809,0.0,0.0,0.0,-0.010556437,0.21611644,-0.22556439,-0.008203729,-0.020344133,-0.13815145,0.016302453,-0.00282921,0.0882428,0.13917659,-0.13142231,0.11838375,-0.028988227,0.013636405,-0.33100465,0.1997149,0.047391683,0.10969717,-0.1465545,-0.12721254,-0.051365513,0.026681786,-0.09652382,-0.3674053,0.11522777,2.0,-2.0,2.0,1.8676677,2.0,-2.0,-2.0,-2.0,0.4917739,-2.0,-2.0,2.0,0.005596269,-0.53339076,2.0,1.4615463,2.0,-2.0,-0.49452716,-0.20466943,-2.0,-2.0,-2.0,2.0
2025-07-18 16:41:34.809,3.3000000000000025,3300,165,-0.34953648,-0.12253918,-0.15290074,-0.029547915,-0.0238791,-0.000894011,0.0,0.0,0.0,-0.009453917,0.18479031,-0.27880347,0.046641618,0.007703151,-0.07366296,-0.05079062,-0.006225811,0.08769434,0.07823205,-0.16398719,0.0043710466,0.0311265,-0.10237907,-0.057431806,0.10456131,0.07970685,0.22257367,-0.1805908,0.007861492,-0.08365967,-0.12772593,-0.120037705,-0.20421611,0.18352678,0.005596269,-0.53339076,2.0,1.4615463,2.0,-2.0,-0.49452716,-0.20466943,-2.0,-2.0,-2.0,2.0,-2.0,1.461805,2.0,-0.29629964,1.9519234,-2.0,0.43667114,2.0,-2.0,2.0,-1.7958777,2.0
2025-07-18 16:41:34.824,3.3200000000000025,3320,166,-0.18030632,-0.4105626,-0.13449325,-0.036958978,-0.0066700974,-0.043579835,0.0,0.0,0.0,-0.0070369435,0.124405764,-0.21447004,0.08350353,0.0050383946,-0.0047290316,-0.10666913,-0.0059873685,0.10942035,0.0029517633,-0.16025612,-0.06989892,0.07978037,-0.13143098,0.18159972,0.13386333,-0.06970845,0.15926844,-0.18317296,0.038676586,0.18546379,-0.13937539,0.015879955,-0.20057645,0.068783276,-2.0,1.461805,2.0,-0.29629964,1.9519234,-2.0,0.43667114,2.0,-2.0,2.0,-1.7958777,2.0,-2.0,2.0,2.0,-2.0,-2.0,-2.0,1.760996,2.0,-2.0,2.0,-2.0,2.0
2025-07-18 16:41:34.845,3.3400000000000025,3340,167,-0.09034985,-0.19360326,-0.15364404,0.030612707,0.054748926,-0.021579556,0.0,0.0,0.0,-0.004102605,0.10121685,-0.18812107,0.119180374,-0.043081444,0.038044974,-0.13259861,0.048027072,0.23662327,-0.05292803,-0.14386715,-0.11382699,0.11148654,0.012234468,0.0741321,0.040014796,-0.2096601,-0.05289757,-0.11075713,0.05071981,0.22837345,-0.18999697,0.062454287,-0.16332841,0.07641763,-2.0,2.0,2.0,-2.0,-2.0,-2.0,1.760996,2.0,-2.0,2.0,-2.0,2.0,-2.0,2.0,2.0,-2.0,-2.0,-2.0,2.0,-2.0,-1.2043332,2.0,-1.4681847,2.0
2025-07-18 16:41:34.865,3.3600000000000025,3360,168,-0.1745993,0.018819857,-0.22985794,0.030887522,-0.03686902,0.027631098,0.0,0.0,0.0,-0.0011248952,0.112355016,-0.15528454,0.12877235,-0.08895579,-0.040091626,-0.16945103,0.086575896,0.26800588,-0.06763932,-0.13190733,-0.16875863,0.15822722,0.06966886,0.09501495,0.07381203,-0.08344603,-0.35805735,-0.07681952,0.14012791,-0.060484413,0.006009255,0.061294004,-0.061995357,0.06660097,-2.0,2.0,2.0,-2.0,-2.0,-2.0,2.0,-2.0,-1.2043332,2.0,-1.4681847,2.0,-2.0,2.0,-2.0,-2.0,-2.0,2.0,2.0,-2.0,2.0,2.0,2.0,-2.0
2025-07-18 16:41:34.885,3.3800000000000026,3380,169,-0.06508137,0.3590039,-0.099429704,0.017063674,-0.030376038,0.02266265,0.0,0.0,0.0,0.0031970802,0.07438817,-0.093724936,0.06310917,-0.12832439,-0.18877159,-0.09074222,0.14433958,0.1858448,-0.019604877,-0.08732886,-0.1270508,0.07888206,-0.09025185,0.29906285,-0.2119224,-0.1293254,-0.2810499,0.13756442,0.123270616,-0.20923916,0.14735205,0.20601328,0.21592627,-0.2336383,-2.0,2.0,-2.0,-2.0,-2.0,2.0,2.0,-2.0,2.0,2.0,2.0,-2.0,-2.0,2.0,-2.0,-1.258609,-2.0,2.0,0.25421178,-1.4023386,2.0,2.0,2.0,-2.0
