openverse-orca/OrcaGym/log/simulation_log_20250721_141544.csv
timestamp,sim_time,physics_step,control_step,imu_angle_roll,imu_angle_pitch,imu_angle_yaw,imu_angular_velocity_roll,imu_angular_velocity_pitch,imu_angular_velocity_yaw,imu_acc_x,imu_acc_y,imu_acc_z,fl_joint1_pos,fl_joint1_vel,fl_joint1_torque,fl_joint2_pos,fl_joint2_vel,fl_joint2_torque,fl_joint3_pos,fl_joint3_vel,fl_joint3_torque,fr_joint1_pos,fr_joint1_vel,fr_joint1_torque,fr_joint2_pos,fr_joint2_vel,fr_joint2_torque,fr_joint3_pos,fr_joint3_vel,fr_joint3_torque,hl_joint1_pos,hl_joint1_vel,hl_joint1_torque,hl_joint2_pos,hl_joint2_vel,hl_joint2_torque,hl_joint3_pos,hl_joint3_vel,hl_joint3_torque,hr_joint1_pos,hr_joint1_vel,hr_joint1_torque,hr_joint2_pos,hr_joint2_vel,hr_joint2_torque,hr_joint3_pos,hr_joint3_vel,hr_joint3_torque,fl_force_x,fl_force_y,fl_force_z,fr_force_x,fr_force_y,fr_force_z,hl_force_x,hl_force_y,hl_force_z,hr_force_x,hr_force_y,hr_force_z,fl_hip_action,fl_thigh_action,fl_calf_action,fr_hip_action,fr_thigh_action,fr_calf_action,hl_hip_action,hl_thigh_action,hl_calf_action,hr_hip_action,hr_thigh_action,hr_calf_action
2025-07-21 14:15:44.554,0.0,0,0,-0.021055141,0.013616565,0.00064389786,0.015030536,-0.033859085,0.03272597,3.9296594,-0.18021461,0.0,0.0,-0.00064385793,0.0060996893,-0.0019197447,-0.005437944,-0.008288843,-0.0020758554,-0.0072834953,0.004396515,0.0058255894,-0.0010351264,0.006852829,-0.0022528574,0.0642184,0.06606091,0.063157625,-0.07359665,0.062594235,0.06246041,0.0039344975,0.0030101317,0.03077829,-0.052203372,-0.047482956,0.04238178,0.0,0.0,0.0,0.0,0.0,0.0,0.0,0.0,0.0,0.0,0.0,0.0,0.86975694,2.0,0.29396805,-1.5399545,2.0,-0.7249111,0.69789785,-1.5909224,-0.6572316,1.20635,0.44230238,0.5100116
2025-07-21 14:15:44.567,0.02,20,1,-0.10881404,0.05351614,0.07571963,0.02665818,0.0443628,-0.018577041,0.0,0.0,0.0,0.0,0.022149188,0.035630498,0.010027991,-0.039446186,0.045051396,-0.031065943,0.023466231,-0.04301942,-0.020155415,0.019623335,0.038090486,0.009051704,0.077150986,0.05514357,-0.028894357,-0.047703534,0.19318695,-0.0433721,0.009890696,-0.26457345,-0.09326994,0.0026525487,0.13123168,0.05349947,0.86975694,2.0,0.29396805,-1.5399545,2.0,-0.7249111,0.69789785,-1.5909224,-0.6572316,1.20635,0.44230238,0.5100116,-0.014379006,-1.5930247,-1.0389494,-0.009574315,-1.4593393,-0.6033763,-0.19518986,1.8203725,-0.21793231,0.1173892,-0.18421364,-0.4588312
2025-07-21 14:15:44.584,0.04,40,2,0.16502005,-0.05442748,-0.058261286,0.0089628985,0.010312859,-0.022074522,0.0,0.0,0.0,-0.0010931079,0.019708032,0.04840795,-0.028566912,-0.030138321,0.06710638,-0.029591309,0.0084669655,-0.06971289,-0.017811663,0.033532936,0.0377019,0.0008928704,-0.071117155,0.015211745,-0.038899347,-0.03214082,-0.12501496,0.041144576,-0.02974699,-0.048397318,-0.09747334,-0.04932121,-0.10958915,-0.038069542,-0.014379006,-1.5930247,-1.0389494,-0.009574315,-1.4593393,-0.6033763,-0.19518986,1.8203725,-0.21793231,0.1173892,-0.18421364,-0.4588312,0.7102401,-0.9760523,-0.9738608,0.13401349,-0.37863237,0.013630927,0.7069674,1.3652818,0.93665457,-0.8052504,0.98508626,0.17578846
2025-07-21 14:15:44.604,0.06,60,3,0.051037185,0.06816795,-0.08152879,-0.0071587986,-0.029962214,-0.037090175,0.0,0.0,0.0,-0.00035764335,0.041165933,0.012089586,-0.054837413,-0.02492817,0.013990489,-0.030393211,0.024512222,-0.05500665,-0.0041459408,0.00914918,0.058666985,-0.0056480602,-0.019404793,-0.24009882,-0.11452412,0.009628612,-0.08934276,0.03150594,0.11492915,0.1333023,0.043386362,-0.061060954,0.081537455,0.020391544,0.7102401,-0.9760523,-0.9738608,0.13401349,-0.37863237,0.013630927,0.7069674,1.3652818,0.93665457,-0.8052504,0.98508626,0.17578846,0.06561464,-0.13340205,0.07922197,-0.35365903,-0.14923637,0.120565,0.9340029,-0.36997873,0.75722134,-0.28382862,0.09665035,0.048912294
2025-07-21 14:15:44.625,0.08,80,4,0.010690634,-0.061886817,0.009739528,0.03343208,-0.024735095,0.04671921,0.0,0.0,0.0,0.0009259671,0.03820478,-0.025607096,-0.040045653,-0.025985567,0.013143613,-0.017116131,0.044904467,-0.062608995,0.00441953,-0.012657298,0.061015066,0.0033079241,0.008015396,-0.05619623,-0.059086274,0.0114418045,-0.009524923,0.061900668,0.010480887,-0.054830417,-0.010294371,-0.042196944,-0.07682005,0.06813779,0.06561464,-0.13340205,0.07922197,-0.35365903,-0.14923637,0.120565,0.9340029,-0.36997873,0.75722134,-0.28382862,0.09665035,0.048912294,0.07174541,-0.58865905,-0.3886079,0.032188185,-0.055565648,0.10392937,0.58770484,1.0361292,1.1712309,-0.18949959,0.46568167,0.45944843
2025-07-21 14:15:44.650,0.1,100,5,-0.07536654,-0.16033785,0.008411027,0.035209384,0.041776862,-0.029189128,0.0,0.0,0.0,0.0017696931,0.035593454,-0.042338878,-0.040570624,-0.027949458,0.008818108,-0.010097246,0.048374105,-0.062153243,0.026920546,-0.0053988625,0.07679302,0.015510263,-0.00088204996,-0.01884493,-0.02413664,0.056197114,0.014654232,0.02987415,-0.040902246,0.08207113,0.0897746,0.01678806,0.045955192,0.030525414,0.07174541,-0.58865905,-0.3886079,0.032188185,-0.055565648,0.10392937,0.58770484,1.0361292,1.1712309,-0.18949959,0.46568167,0.45944843,0.09804098,-0.45581877,-0.067142926,-0.15349855,-0.6815579,-0.12495625,0.67822343,0.68003994,0.32547978,-0.52972597,0.11006342,0.049682565
2025-07-21 14:15:44.668,0.12000000000000001,120,6,-0.05701051,-0.05095266,-0.06540271,-0.024951335,-0.009827159,-0.024639409,0.0,0.0,0.0,0.0021881764,0.045451846,-0.06634411,-0.03291909,-0.031723313,-0.0041180863,-0.021591814,0.058316037,-0.014359309,0.027438316,-0.018974436,0.08328497,0.012857118,0.06929402,0.01559289,-0.006622572,-0.064022094,-0.08464091,0.036544386,-0.052138526,0.11553265,0.073545545,0.035359498,-0.066567525,-0.01460424,0.09804098,-0.45581877,-0.067142926,-0.15349855,-0.6815579,-0.12495625,0.67822343,0.68003994,0.32547978,-0.52972597,0.11006342,0.049682565,-0.20191969,-0.6698379,-0.23432168,-0.01792123,0.023880536,-0.26601607,0.82775664,0.42941535,0.8484861,0.046436697,0.2968529,0.5356122
2025-07-21 14:15:44.685,0.14,140,7,-0.009655041,-0.015826417,0.1312831,0.034931917,0.039549846,0.009117875,0.0,0.0,0.0,0.0038795576,0.03062052,-0.08641009,-0.04834243,-0.04169412,-0.009110816,-0.031007351,0.080070406,0.031940557,0.04466154,-0.029958583,0.076246224,0.011047876,0.0006666667,-0.072178654,0.06656793,0.0036599683,-0.031502053,-3.7654825e-06,-0.01257457,0.14243785,-0.022236522,0.055887215,0.07894542,0.008376547,-0.20191969,-0.6698379,-0.23432168,-0.01792123,0.023880536,-0.26601607,0.82775664,0.42941535,0.8484861,0.046436697,0.2968529,0.5356122,0.23976298,0.09085289,0.42101273,-0.19099525,-0.29802746,-0.465918,0.3306931,0.61932546,0.18017027,-0.4580643,-0.796029,0.31094998
2025-07-21 14:15:44.705,0.16,160,8,-0.0046985773,-0.07117556,-0.1673662,-0.04011495,0.03898404,-0.012597143,0.0,0.0,0.0,0.003221611,0.05167541,-0.09576278,-0.03881607,-0.029452257,-0.0234261,-0.04395023,0.07001681,0.074006,0.042257685,-0.020250317,0.059141137,0.016582023,0.07202249,-0.009441208,0.009858355,0.06590701,-0.09250056,0.013550741,-0.00894676,0.16826777,-0.07852236,-0.036727898,-0.009883499,0.052163668,0.23976298,0.09085289,0.42101273,-0.19099525,-0.29802746,-0.465918,0.3306931,0.61932546,0.18017027,-0.4580643,-0.796029,0.31094998,-0.6030374,-0.83438873,0.3330321,-0.5755894,0.07947299,-0.27876228,0.7638758,-0.18431911,0.5107686,0.7667619,0.31027406,0.5774203
2025-07-21 14:15:44.725,0.18,180,9,-0.006816496,-0.016992567,0.13831332,-0.004784765,0.017652567,0.014470362,0.0,0.0,0.0,0.00485855,0.023643317,-0.108968794,-0.028253432,-0.03925239,-0.028532742,-0.05051494,0.08362352,0.05459194,0.059868544,-0.012514088,0.067650855,0.024112113,0.013255225,-0.07655717,-0.014125746,-0.0018958284,-0.034146618,0.04739396,0.034729183,-0.049321357,0.0012280636,0.018054318,0.06300661,0.03553655,-0.6030374,-0.83438873,0.3330321,-0.5755894,0.07947299,-0.27876228,0.7638758,-0.18431911,0.5107686,0.7667619,0.31027406,0.5774203,0.31656182,-0.06848276,0.2258751,-0.14358474,0.23310931,0.05438721,0.49842754,1.3189923,0.03312876,-0.45728678,-0.8848009,0.10126168
2025-07-21 14:15:44.750,0.19999999999999998,200,10,-0.026257467,0.09404141,0.007290431,0.037739184,0.047437545,0.007822632,0.0,0.0,0.0,0.0038535018,0.041515425,-0.09082265,-0.0019468543,-0.051468376,-0.002180191,-0.033198163,0.09262204,0.084864244,0.051591907,-0.02167969,0.062909685,0.022290954,-0.04612338,0.06033601,0.049816407,-0.048376422,0.017638776,-0.048446216,-0.06566431,0.24981828,-0.0032153032,-0.037637908,-0.025933333,0.046461288,0.31656182,-0.06848276,0.2258751,-0.14358474,0.23310931,0.05438721,0.49842754,1.3189923,0.03312876,-0.45728678,-0.8848009,0.10126168,-0.23287003,-1.07216,0.3194061,-0.5326921,-0.24636032,-0.81682986,0.3609986,-0.052837737,-0.07950387,0.02905932,-0.33842403,0.56185377
2025-07-21 14:15:44.767,0.21999999999999997,220,11,0.15354764,-0.033571966,0.10858319,0.031407185,-0.0038802703,0.0051003243,0.0,0.0,0.0,0.0030475871,0.026959661,-0.11843142,0.0031625305,-0.057097003,-0.02704031,-0.0618651,0.07584876,0.09559129,0.034637738,-0.018576577,0.03616302,0.028697195,0.04765428,-0.1364778,-0.046108242,-0.03964634,-0.07420347,-0.06901736,-0.06927045,-0.05512684,-0.042915557,0.034337755,-0.109174535,-0.032766294,-0.23287003,-1.07216,0.3194061,-0.5326921,-0.24636032,-0.81682986,0.3609986,-0.052837737,-0.07950387,0.02905932,-0.33842403,0.56185377,0.7600507,0.11013037,0.16419359,0.0727214,0.43510097,-0.6257029,0.63999444,1.4615648,0.6346749,-0.62966144,0.16975982,0.943672
2025-07-21 14:15:44.785,0.23999999999999996,240,12,-0.18373951,0.24211155,-0.087790854,-0.0021217812,0.061823886,0.03983819,0.0,0.0,0.0,0.0023757939,0.04191822,-0.089594245,0.0010438772,-0.050659154,0.007497331,-0.07473087,0.08954678,0.12394565,0.037397396,-0.04443263,0.02860913,0.05029724,0.0028108177,0.099075936,-0.04846251,0.0049595595,0.14290793,-0.021752806,0.063610785,0.23480827,0.015534801,-0.021192113,-0.021393254,0.011495445,0.7600507,0.11013037,0.16419359,0.0727214,0.43510097,-0.6257029,0.63999444,1.4615648,0.6346749,-0.62966144,0.16975982,0.943672,-0.5726791,-1.7229722,0.26172596,-0.051238224,-0.32882932,-0.29740584,0.44602045,-0.537761,-0.1897861,-0.4815661,0.35951754,-0.037830196
2025-07-21 14:15:44.805,0.25999999999999995,260,13,-0.010047317,-0.09202844,0.08333168,0.031766117,0.030034456,-0.0061119157,0.0,0.0,0.0,0.0023273958,0.03569861,-0.1072534,0.0086375605,-0.051217265,-0.0046277056,-0.07267217,0.08119943,0.13715574,0.025500514,-0.05168237,0.055522833,0.042254798,-0.04748644,-0.12108068,0.07241473,-0.0487458,-0.03369944,0.03389759,-0.07312551,-0.07828679,-0.060788684,0.046051983,0.0145185515,0.042011894,-0.5726791,-1.7229722,0.26172596,-0.051238224,-0.32882932,-0.29740584,0.44602045,-0.537761,-0.1897861,-0.4815661,0.35951754,-0.037830196,0.30685678,-0.028537396,0.19833255,0.10714034,0.51727235,-0.70775986,0.6982961,1.0170236,0.26548395,-0.34984797,-0.39626542,0.8410987
2025-07-21 14:15:44.825,0.27999999999999997,280,14,-0.07146331,0.11293788,-0.09299993,-0.032227784,0.019252295,-0.03919214,0.0,0.0,0.0,0.0012627188,0.047151864,-0.09845953,0.0026285823,-0.035332594,0.018002175,-0.08542286,0.09128072,0.15011558,0.026047599,-0.044671614,0.045479,0.05787814,-0.0256514,-0.029777333,0.06529784,0.043118324,0.031246724,-0.079411976,-0.007146136,0.15859942,-0.028934643,0.05783008,-0.13176143,-0.010852108,0.30685678,-0.028537396,0.19833255,0.10714034,0.51727235,-0.70775986,0.6982961,1.0170236,0.26548395,-0.34984797,-0.39626542,0.8410987,-0.2586863,-0.89345247,0.7207981,-0.63580465,-0.018497447,-0.7232808,0.82713103,0.20509514,0.29893354,0.74384534,0.838502,1.1912374
2025-07-21 14:15:44.851,0.3,300,15,-0.039679196,0.059785686,0.18627548,0.0073558595,0.0067504067,-0.028154423,0.0,0.0,0.0,0.0020666334,0.029397339,-0.10211796,0.015552188,-0.04173677,0.03067879,-0.07329628,0.086921774,0.15743496,0.046734255,-0.03480267,0.040522136,0.06912525,-0.048960835,-0.069146425,0.111219965,-0.047599457,-0.052706107,-0.05846673,-0.0011596363,-0.05837039,0.04019415,0.10050811,0.055451617,0.009417878,-0.2586863,-0.89345247,0.7207981,-0.63580465,-0.018497447,-0.7232808,0.82713103,0.20509514,0.29893354,0.74384534,0.838502,1.1912374,0.5453181,0.112505496,0.569139,-0.19805259,-0.20686014,-0.21495652,0.38238764,0.89443535,-0.16277543,-1.0310414,-1.195344,0.56915766
2025-07-21 14:15:44.868,0.32,320,16,-0.017483562,-0.013489892,-0.21934213,0.01802301,0.03947037,0.017353889,0.0,0.0,0.0,0.0015522317,0.03837823,-0.105390266,0.01694705,-0.043609485,0.01499365,-0.06384603,0.078863986,0.19068782,0.022501264,-0.047615107,0.06294648,0.06674472,0.03504345,0.010809738,0.05293649,-0.0028649936,-0.009389422,0.09312644,0.023491547,0.01851942,0.033734195,-0.11098367,-0.031833977,0.04062042,0.5453181,0.112505496,0.569139,-0.19805259,-0.20686014,-0.21495652,0.38238764,0.89443535,-0.16277543,-1.0310414,-1.195344,0.56915766,-1.009209,-1.3034909,0.3796816,-0.7292893,-0.518022,-0.14929879,0.9736665,-0.071691,0.8616418,1.4732758,0.6833304,0.87966216
2025-07-21 14:15:44.888,0.34,340,17,-0.025908707,-0.1316426,0.23714012,-0.009112256,0.0043640826,0.021617059,0.0,0.0,0.0,0.0026117074,0.043697476,-0.11965372,0.030993722,-0.054145608,-0.032512303,-0.06508055,0.10929752,0.17126101,0.053136468,-0.05226449,0.072779916,0.069400914,-0.1276079,-0.035741534,-0.042510647,-0.049469996,-0.03786145,-0.008281072,0.030354694,-0.10963829,0.06653094,0.07182704,0.16127276,0.059829425,-1.009209,-1.3034909,0.3796816,-0.7292893,-0.518022,-0.14929879,0.9736665,-0.071691,0.8616418,1.4732758,0.6833304,0.87966216,0.34802398,-0.2542895,0.06341808,-0.22068124,-0.089474134,0.016260684,0.21209519,0.50556695,-0.05134345,-0.7272389,-1.6613863,0.24618992
2025-07-21 14:15:44.907,0.36000000000000004,360,18,0.066342615,-0.09873154,-0.07473936,0.041595407,0.06867338,-0.008774813,0.0,0.0,0.0,0.0019656257,0.03450557,-0.12436316,0.019644627,-0.052534033,-0.039715767,-0.04931506,0.09045802,0.17591178,0.038129874,-0.046962947,0.08687188,0.061273575,-0.0371442,0.034144,0.020302596,0.029224394,0.0014642713,0.018852452,-0.05333517,0.029240606,-0.086204976,-0.09943954,-0.12791559,-0.022423765,0.34802398,-0.2542895,0.06341808,-0.22068124,-0.089474134,0.016260684,0.21209519,0.50556695,-0.05134345,-0.7272389,-1.6613863,0.24618992,-0.035271954,-0.72611463,0.15200558,-0.5264838,0.010675738,-0.5629326,0.7313736,-0.027497374,0.46899825,0.51472616,0.6835179,1.0354505
2025-07-21 14:15:44.933,0.38000000000000006,380,19,0.06128876,-0.01832548,0.11499037,0.003232999,-8.54716e-05,-0.00031338207,0.0,0.0,0.0,0.0012209769,0.03501737,-0.13075823,0.016618958,-0.06086876,-0.032944098,-0.066194564,0.09380768,0.14502569,0.048656892,-0.03570678,0.08773425,0.07353008,-0.019250313,-0.12764624,-0.04624371,-0.054840807,-0.050365575,0.048503734,0.024344267,-0.14776492,0.066319905,0.10099702,0.15688731,0.05879869,-0.035271954,-0.72611463,0.15200558,-0.5264838,0.010675738,-0.5629326,0.7313736,-0.027497374,0.46899825,0.51472616,0.6835179,1.0354505,0.09521592,0.029652473,0.39847592,-0.22088584,0.058226354,0.6668299,0.3372623,1.2116263,0.6418206,-0.26135638,-1.8451655,0.33233774
2025-07-21 14:15:44.950,0.4000000000000001,400,20,-0.17214082,0.08006419,-0.05066219,0.010091285,0.029737871,-0.010314596,0.0,0.0,0.0,-0.00035139147,0.034982134,-0.118211456,0.0072455416,-0.062782764,-0.02334957,-0.03467781,0.08025733,0.16731985,0.047836367,-0.048502304,0.099767305,0.07855402,0.054528616,0.027882187,0.042880874,-0.008537834,-0.0057390435,0.038950786,0.018740572,0.18488072,-0.045286417,0.058492884,-0.043116763,-0.07651958,0.09521592,0.029652473,0.39847592,-0.22088584,0.058226354,0.6668299,0.3372623,1.2116263,0.6418206,-0.26135638,-1.8451655,0.33233774,-0.32846153,-1.0505589,0.17192836,-0.3904364,-0.14379166,-0.5081643,0.59789336,-0.5183752,0.4944543,0.29222518,0.25703633,0.48095015
2025-07-21 14:15:44.967,0.4200000000000001,420,21,0.08711335,0.009829964,0.21272992,-0.018980896,-0.00022887041,-0.016581219,0.0,0.0,0.0,-0.0010477509,0.03205924,-0.12957457,0.011296011,-0.06705808,-0.03080164,-0.041868396,0.097151935,0.16371593,0.050404973,-0.03141422,0.10566243,0.06888603,0.011447936,-0.061278697,0.07029009,-0.017958276,-0.035020106,0.02266042,-0.019809686,-0.1789085,-0.0062715523,-0.0054083457,-0.0052985027,-0.049617153,-0.32846153,-1.0505589,0.17192836,-0.3904364,-0.14379166,-0.5081643,0.59789336,-0.5183752,0.4944543,0.29222518,0.25703633,0.48095015,0.72933316,0.07322788,0.32492974,0.2604375,0.4390973,-0.0849029,0.3681725,1.4601592,0.35853943,-0.89396334,-0.8954707,0.267578
2025-07-21 14:15:44.988,0.4400000000000001,440,22,-0.06309705,0.11332144,-0.13481295,0.06985351,0.004382969,0.024311129,0.0,0.0,0.0,-0.002801795,0.04383725,-0.124831855,0.004265979,-0.031861674,-0.010815216,-0.04557178,0.0747805,0.16116846,0.046902433,-0.05724969,0.08445646,0.067314215,0.123982005,0.07925249,0.03730442,0.08801195,0.14572228,0.055160943,0.0051121525,0.14656052,-0.025975363,-0.02466435,-0.06936075,0.0583604,0.72933316,0.07322788,0.32492974,0.2604375,0.4390973,-0.0849029,0.3681725,1.4601592,0.35853943,-0.89396334,-0.8954707,0.267578,-0.5061423,-1.3987976,0.1768817,-0.24232607,-0.39213872,-0.5148549,0.6247956,-0.44124803,0.30690455,-0.20958313,0.30481973,0.27715424
2025-07-21 14:15:45.007,0.46000000000000013,460,23,0.09548859,-0.046679743,0.09805883,0.010388482,0.07002467,0.024013914,0.0,0.0,0.0,-0.0024413085,0.045324393,-0.12995352,0.015382916,-0.049724896,-0.004306409,-0.048306305,0.096381344,0.16116929,0.051216614,-0.044134717,0.08284887,0.05283714,-0.102690384,-0.08416341,-0.021002153,0.03124999,-0.13575558,-0.048253786,0.03139198,-0.13902734,0.04526071,0.0045055673,0.083731,-0.020765904,-0.5061423,-1.3987976,0.1768817,-0.24232607,-0.39213872,-0.5148549,0.6247956,-0.44124803,0.30690455,-0.20958313,0.30481973,0.27715424,0.5081608,-0.08024758,-0.019758752,0.026303181,0.43600798,0.17508939,0.6079292,1.204526,0.63129914,-0.33548966,-0.8583105,0.43081853
2025-07-21 14:15:45.033,0.48000000000000015,480,24,-0.013149029,0.17300107,-0.14679003,0.024033517,-0.03295013,0.044180516,0.0,0.0,0.0,-0.0021923229,0.038651332,-0.13654114,-0.0014331707,-0.035013337,0.0077217165,-0.043574642,0.09665454,0.15442944,0.06709127,-0.059943587,0.06867269,0.066381626,0.010365927,-0.02060135,0.026248809,-0.04469455,0.14542575,0.072158426,-0.04342096,0.16471542,-0.049370136,0.053670164,0.016233806,-0.024556018,0.5081608,-0.08024758,-0.019758752,0.026303181,0.43600798,0.17508939,0.6079292,1.204526,0.63129914,-0.33548966,-0.8583105,0.43081853,-0.8719247,-1.1491624,0.8159386,-0.1871588,-0.44965118,-0.3747781,1.1997397,-0.61370754,0.4307805,0.19568121,0.8176741,0.26726913
2025-07-21 14:15:45.050,0.5000000000000001,500,25,-0.07055261,-0.11409616,0.17637464,0.0031375012,0.019171461,-0.032789208,0.0,0.0,0.0,-0.00094537647,0.04391142,-0.13988698,0.011397563,-0.039630603,-0.0031889405,-0.035176836,0.10218464,0.13994366,0.07468213,-0.05495476,0.095036454,0.038545113,-0.011524331,-0.09867509,-0.014579937,-0.038055204,-0.060992755,-0.059210658,-0.0058546974,-0.11638058,0.06714153,-0.04520171,0.14147896,0.03238096,-0.8719247,-1.1491624,0.8159386,-0.1871588,-0.44965118,-0.3747781,1.1997397,-0.61370754,0.4307805,0.19568121,0.8176741,0.26726913,0.35657093,0.51549625,0.40886027,-0.016620746,0.15250291,-0.036107957,0.62595695,1.1066821,0.02705761,-0.36291683,-1.9722314,0.45203143
2025-07-21 14:15:45.068,0.5200000000000001,520,26,-0.017496523,0.08548833,-0.16153154,0.08546131,0.05770738,0.03498107,0.0,0.0,0.0,-0.0009862862,0.041224033,-0.13022618,0.02328358,-0.028978236,-0.007404536,-0.04001865,0.10784932,0.14146815,0.05283084,-0.04735545,0.09673869,0.053316377,-0.018160077,0.1610282,-0.007529501,0.068536915,0.047870614,0.07457649,0.017230356,0.11569434,-0.08783448,-0.04757331,-0.038427178,-0.014013042,0.35657093,0.51549625,0.40886027,-0.016620746,0.15250291,-0.036107957,0.62595695,1.1066821,0.02705761,-0.36291683,-1.9722314,0.45203143,-0.7128014,-1.5196335,-0.34350982,-0.2923062,-0.50894475,-0.06575525,0.51675147,-0.8801854,0.2740269,0.6043845,0.3040879,0.21305627
2025-07-21 14:15:45.090,0.5400000000000001,540,27,0.11667543,-0.07309668,0.13841428,0.021685112,0.01705774,-0.013758119,0.0,0.0,0.0,-0.00068796414,0.030259494,-0.12839398,0.0036770278,-0.04004411,-0.027252818,-0.035918456,0.108785935,0.12924725,0.048963185,-0.042453367,0.09620621,0.03543597,-0.01829526,-0.12120852,-0.053138394,-0.010074036,-0.009020855,-0.03325698,-0.019333847,-0.17405249,0.023691745,0.11102377,0.011260451,-0.057745025,-0.7128014,-1.5196335,-0.34350982,-0.2923062,-0.50894475,-0.06575525,0.51675147,-0.8801854,0.2740269,0.6043845,0.3040879,0.21305627,0.47655252,-0.33039194,-0.20908521,0.15760653,0.15419087,-0.17276233,0.476968,1.2071395,0.7429132,-0.49172062,0.053131264,0.4677096
2025-07-21 14:15:45.108,0.5600000000000002,560,28,0.060021497,0.16072768,-0.027228525,0.070491746,-0.023898108,0.024615793,0.0,0.0,0.0,-0.0014399188,0.03418001,-0.1384671,-0.008753449,-0.03260244,-0.025362762,-0.029448021,0.09682824,0.12522687,0.059247203,-0.049934234,0.09399309,0.04398861,-0.024521431,-0.0028018751,0.03766904,0.08899158,0.032258663,0.032998383,0.04536453,0.07564446,0.057813864,0.022035707,-0.07504053,0.03290102,0.47655252,-0.33039194,-0.20908521,0.15760653,0.15419087,-0.17276233,0.476968,1.2071395,0.7429132,-0.49172062,0.053131264,0.4677096,-0.18870147,-0.5021135,0.29209962,-0.16869047,-0.11319008,-0.53069043,0.9919392,0.07336711,0.60945714,-0.03504494,0.0075224303,0.74391925
2025-07-21 14:15:45.133,0.5800000000000002,580,29,-0.01928656,0.06091614,0.070437014,0.0381728,0.011940473,0.034674756,0.0,0.0,0.0,-0.0014109291,0.035021015,-0.15037122,0.006221152,-0.024179295,-0.023520289,-0.05227796,0.11558371,0.12652324,0.070861064,-0.05163419,0.08230532,0.0473729,-0.084895715,-0.03874142,0.06355154,-0.056877773,0.005141083,-0.04395596,0.0104722595,-0.0025253121,0.06267109,-0.02860632,-0.007911645,0.05251579,-0.18870147,-0.5021135,0.29209962,-0.16869047,-0.11319008,-0.53069043,0.9919392,0.07336711,0.60945714,-0.03504494,0.0075224303,0.74391925,0.03646456,-0.057567243,0.67864513,-0.35880882,-0.03031311,-0.49246687,0.49287847,0.74345833,0.61819243,0.12755495,-0.8908946,0.5689383
2025-07-21 14:15:45.150,0.6000000000000002,600,30,-0.046769943,0.05886548,-0.1432438,0.040276445,0.011712027,-0.023760932,0.0,0.0,0.0,-0.0019194802,0.028615486,-0.15231831,0.011269827,-0.036190648,-0.023706276,-0.04655818,0.09772412,0.14894527,0.07130495,-0.047129396,0.04966869,0.05579024,-0.0044475878,0.034722306,0.039022572,-0.07244385,-0.020246062,0.054996803,-0.07673407,0.12192085,-0.033355832,0.04161317,-0.072997734,-0.03561263,0.03646456,-0.057567243,0.67864513,-0.35880882,-0.03031311,-0.49246687,0.49287847,0.74345833,0.61819243,0.12755495,-0.8908946,0.5689383,-0.7486274,-0.94819176,0.4481825,-0.4329264,0.075517885,-0.14451206,0.9011397,-0.21336266,0.9161013,0.9224292,0.7379307,0.62834615
2025-07-21 14:15:45.169,0.6200000000000002,620,31,0.15713632,-0.1207469,0.19708273,0.0016993885,0.03338976,-0.029924529,0.0,0.0,0.0,-0.00073625246,0.02048506,-0.16712463,0.015013525,-0.029161843,-0.0050582984,-0.04453719,0.10705712,0.123434514,0.08773444,-0.03249455,0.083732605,0.06738497,-0.08802031,-0.06863213,0.03045555,-0.000626817,0.0271662,0.023297254,-0.04427094,-0.14761996,0.067776896,0.04253426,0.15378024,0.0268595,-0.7486274,-0.94819176,0.4481825,-0.4329264,0.075517885,-0.14451206,0.9011397,-0.21336266,0.9161013,0.9224292,0.7379307,0.62834615,0.27112302,0.32275277,0.06990426,-0.198022,-0.22873999,0.21340382,0.31592768,0.98920643,-0.084736325,-0.529055,-1.496013,5.1267445e-05
2025-07-21 14:15:45.189,0.6400000000000002,640,32,0.063776836,-0.06528878,-0.056795117,0.081384815,-0.00562109,0.027329814,0.0,0.0,0.0,-0.002714568,0.031684157,-0.18057443,0.006715511,-0.031176705,-0.022990987,-0.0316221,0.113784544,0.14735003,0.07140743,-0.02679583,0.07492326,0.056538604,-0.030858535,0.029562796,-0.011327961,0.06398822,-0.089979075,-0.0066626146,-0.058498327,0.11600903,0.032388914,-0.06858849,-0.010100173,-0.07945473,0.27112302,0.32275277,0.06990426,-0.198022,-0.22873999,0.21340382,0.31592768,0.98920643,-0.084736325,-0.529055,-1.496013,5.1267445e-05,-0.03720806,-0.48320967,0.04764778,-0.72121394,0.107697286,-0.78254926,0.49529332,-0.113915704,0.41185245,0.19941178,-0.060025338,0.8475677
2025-07-21 14:15:45.210,0.6600000000000003,660,33,0.16259621,0.038327977,0.040069357,0.0749617,0.020352993,0.02781071,0.0,0.0,0.0,-0.0038385156,0.023786511,-0.18277565,0.0067157396,-0.058747765,-0.013997264,-0.041565225,0.11048467,0.1291949,0.06111033,-0.025868293,0.047471847,0.049686234,0.012650998,-0.041954957,-0.011403452,-0.10182076,0.03428008,-0.10624476,0.051383097,-0.10939695,-0.062359065,-0.053073667,0.01960074,-0.02697338,-0.03720806,-0.48320967,0.04764778,-0.72121394,0.107697286,-0.78254926,0.49529332,-0.113915704,0.41185245,0.19941178,-0.060025338,0.8475677,-0.14434992,-0.44959444,0.5328081,-0.33324334,-0.49771255,0.050757825,0.5418224,0.70894873,0.59383875,0.08597538,-0.5518493,0.35407323
2025-07-21 14:15:45.234,0.6800000000000003,680,34,0.02214848,0.04627788,-0.099682674,0.03037161,0.007940542,-0.015661888,0.0,0.0,0.0,-0.0048253923,0.026543904,-0.18496737,-0.0031540701,-0.041556753,-0.044043265,-0.046218447,0.099946745,0.15001445,0.07658755,-0.025120847,0.026147671,0.05504321,0.019283922,-0.059510242,0.048167508,-0.015779156,-0.05231705,0.0042411927,0.034933113,0.119549006,-0.05687869,0.02465563,-0.087759495,0.017439377,-0.14434992,-0.44959444,0.5328081,-0.33324334,-0.49771255,0.050757825,0.5418224,0.70894873,0.59383875,0.08597538,-0.5518493,0.35407323,-0.40498713,-0.16657722,0.45240575,-0.4779866,0.35077327,-0.54786515,0.7489372,-0.32747486,0.8692959,0.70480466,0.8426465,1.2402607
2025-07-21 14:15:45.254,0.7000000000000003,700,35,-0.09950335,0.063866936,0.19135125,0.062206145,-0.021563286,-0.007753466,0.0,0.0,0.0,-0.0040160324,0.026163576,-0.17850175,0.0050370283,-0.06482384,-0.018549198,-0.049664278,0.11493957,0.12845898,0.090206526,-0.017697975,0.05546861,0.07648767,-0.03843753,0.09718805,0.07809339,0.049784206,0.058302004,-0.069764376,-0.041955855,-0.09879284,0.08374135,-0.008915142,0.16266376,0.05385547,-0.40498713,-0.16657722,0.45240575,-0.4779866,0.35077327,-0.54786515,0.7489372,-0.32747486,0.8692959,0.70480466,0.8426465,1.2402607,0.20182206,-0.19866002,0.24007317,-0.33674738,-0.45828187,0.17465067,-0.17759638,0.7165855,-0.0687956,-0.75331414,-1.6519883,-0.042035334
2025-07-21 14:15:45.272,0.7200000000000003,720,36,-0.030750792,-0.08678479,-0.11021629,0.07893251,0.018432021,0.03982509,0.0,0.0,0.0,-0.00526758,0.015813917,-0.1688618,0.0051234197,-0.061208196,-0.029946642,-0.025286583,0.095666766,0.1573083,0.07010972,-0.040381573,0.063364744,0.05575759,-0.06391623,-0.036678255,0.059763126,0.007142019,-0.124303244,0.078329496,-0.05464765,0.0065123034,0.024272075,-0.026414324,-0.09272986,0.014800342,0.20182206,-0.19866002,0.24007317,-0.33674738,-0.45828187,0.17465067,-0.17759638,0.7165855,-0.0687956,-0.75331414,-1.6519883,-0.042035334,-0.16724513,-0.041647736,0.08647507,-0.50366193,0.55859834,-0.6395692,0.50836533,0.21834669,0.7509796,0.4159634,0.47235814,1.2181642
2025-07-21 14:15:45.289,0.7400000000000003,740,37,-0.0002900978,-0.05125145,0.11654535,0.045282938,0.0142855635,-0.017250286,0.0,0.0,0.0,-0.0046260213,0.03023595,-0.15281995,-0.013144286,-0.06318026,-0.01844575,-0.051705934,0.087800756,0.1477205,0.0705952,-0.033807456,0.073053524,0.0682226,0.041567147,0.12047583,0.03237381,-0.0037432483,0.16886173,-0.037694614,0.04379547,-0.073457584,-0.04680952,-0.026369926,0.020430768,-0.002313307,-0.16724513,-0.041647736,0.08647507,-0.50366193,0.55859834,-0.6395692,0.50836533,0.21834669,0.7509796,0.4159634,0.47235814,1.2181642,-0.042696934,-0.99464023,0.26080066,-0.47635677,-1.2919713,-0.53257275,0.34692138,0.628377,-0.23822019,-0.73739254,-0.596819,0.11543492
2025-07-21 14:15:45.309,0.7600000000000003,760,38,0.18971606,-0.081121996,-0.10957181,-0.018656906,0.0031172454,-0.02642255,0.0,0.0,0.0,-0.0051125325,0.016073218,-0.15802383,0.00177119,-0.063685596,-0.028888252,-0.040872186,0.07724317,0.15645532,0.05820005,-0.038688693,0.049327265,0.06601098,0.02597759,-0.021381702,-0.049953166,-0.062850155,-0.09561314,-0.0644465,0.031136073,0.12026353,0.01695472,-0.008280031,-0.02328248,-0.05666464,-0.042696934,-0.99464023,0.26080066,-0.47635677,-1.2919713,-0.53257275,0.34692138,0.628377,-0.23822019,-0.73739254,-0.596819,0.11543492,-0.4650826,-0.39993984,-0.22198625,-0.3745742,-0.2463402,-0.29805616,0.69318,-0.4721882,0.7084402,0.60498714,0.46281263,0.97344685
2025-07-21 14:15:45.335,0.7800000000000004,780,39,0.0007810622,0.037718665,0.09579518,-0.014774986,0.030996343,-0.03544705,0.0,0.0,0.0,-0.0050605065,0.0125718,-0.16655885,-0.015184838,-0.07542608,-0.05894891,-0.055551644,0.08337364,0.12711318,0.07065258,-0.045585033,0.0572868,0.06927608,0.034788594,0.01884415,-0.064292416,0.05767829,-0.056258257,0.06312206,0.025052434,-0.22348978,0.07102979,0.09585101,0.0018147106,0.04000109,-0.4650826,-0.39993984,-0.22198625,-0.3745742,-0.2463402,-0.29805616,0.69318,-0.4721882,0.7084402,0.60498714,0.46281263,0.97344685,0.46959484,-0.46407545,-0.56078625,0.10405419,0.12265637,0.6857922,0.30520293,1.3811603,1.1171112,-0.43787372,0.009007942,0.11488838
2025-07-21 14:15:45.350,0.8000000000000004,800,40,0.0065239226,0.14188422,-0.04983081,-0.0044480353,-0.044375483,0.03652743,0.0,0.0,0.0,-0.0065197474,0.01650722,-0.1771384,-0.020194367,-0.05306291,-0.056700163,-0.039332666,0.09265499,0.13495067,0.085848786,-0.03466832,0.06596693,0.066459835,0.07597545,-0.03484083,-0.0077361767,0.021818845,0.08541889,0.04872034,0.028061459,0.011101212,-0.044609543,-0.0655329,-0.027986832,-0.06518382,0.46959484,-0.46407545,-0.56078625,0.10405419,0.12265637,0.6857922,0.30520293,1.3811603,1.1171112,-0.43787372,0.009007942,0.11488838,-0.23887356,-0.51150185,0.28014812,-0.02169328,-0.45216984,-0.115226686,1.0498804,-0.41121843,0.8281322,-0.36091623,0.7103743,-0.5325825
2025-07-21 14:15:45.369,0.8200000000000004,820,41,-0.0042612227,0.0063751987,0.15954626,0.044812404,-0.02907016,0.025482308,0.0,0.0,0.0,-0.0075736507,0.009372155,-0.17258346,-0.025293823,-0.043913845,-0.071499184,-0.03155032,0.09156775,0.137594,0.09117502,-0.03911732,0.093265526,0.03759761,-0.05783933,-0.05021337,-0.056453418,0.035069942,-0.0679132,0.07322657,-0.024749102,0.020183817,0.020498993,0.06591098,0.0360209,-0.12389231,-0.23887356,-0.51150185,0.28014812,-0.02169328,-0.45216984,-0.115226686,1.0498804,-0.41121843,0.8281322,-0.36091623,0.7103743,-0.5325825,0.77476573,0.46164817,0.24083397,0.2713574,0.505055,0.041464508,0.19099495,0.112032,0.525413,-0.3615787,-0.34075478,0.2278845
2025-07-21 14:15:45.392,0.8400000000000004,840,42,-0.117425404,-0.03652741,-0.015970986,0.026471606,0.020369027,0.02380145,0.0,0.0,0.0,-0.009502828,0.039103117,-0.16892253,-0.019886147,-0.044435453,-0.04754352,-0.029089572,0.09588575,0.12979789,0.08222211,-0.037139654,0.07961762,0.04250633,-0.010992505,0.07555669,-0.061001264,0.10307846,0.0351323,-0.011923757,0.012294343,0.017108705,0.06303601,-0.02048303,-0.10801483,0.042155214,0.77476573,0.46164817,0.24083397,0.2713574,0.505055,0.041464508,0.19099495,0.112032,0.525413,-0.3615787,-0.34075478,0.2278845,0.24775964,-0.5907986,0.18668798,-0.36373004,0.015476564,-0.5962313,0.31436095,0.2285823,0.24773511,-0.08957943,0.30883238,0.6450014
2025-07-21 14:15:45.410,0.8600000000000004,860,43,0.0024443124,-0.14856602,0.14043435,0.008013462,0.011770134,-0.036862962,0.0,0.0,0.0,-0.010278369,0.04186676,-0.15356576,-0.010875503,-0.04413756,-0.044704758,-0.035706457,0.09879019,0.10872801,0.08152438,-0.05515509,0.064067096,0.03536899,0.018114189,-0.055383824,-0.045041412,0.06786213,0.093424596,0.025991155,-0.008583244,0.036424797,-0.029826246,0.080911174,0.0043618344,-0.03095633,0.24775964,-0.5907986,0.18668798,-0.36373004,0.015476564,-0.5962313,0.31436095,0.2285823,0.24773511,-0.08957943,0.30883238,0.6450014,0.24601153,-0.1123994,0.71709514,-0.30687508,-0.2974308,-0.76032,0.39212877,1.0551978,0.05120536,-0.35165972,-1.0300914,0.46036243
2025-07-21 14:15:45.436,0.8800000000000004,880,44,-0.06377426,-0.11569751,-0.059154365,-0.017947504,-0.040310275,-0.0039125197,0.0,0.0,0.0,-0.011919412,0.038660116,-0.14716785,-0.0024546173,-0.055987846,-0.061104942,-0.057090376,0.09587954,0.15681067,0.07263635,-0.05723269,0.06657012,0.048969503,-0.009953722,0.042306285,-0.0077557163,0.02251753,0.030201567,-0.09115404,-0.015136207,0.13929656,-0.011606315,-0.031180678,-0.015838005,-0.039073493,0.24601153,-0.1123994,0.71709514,-0.30687508,-0.2974308,-0.76032,0.39212877,1.0551978,0.05120536,-0.35165972,-1.0300914,0.46036243,-0.10791771,-0.8005487,0.24402313,-0.56321144,-0.12532441,-0.73435616,0.31850994,0.19519195,0.1546439,0.21070293,-0.06614728,0.5065068
2025-07-21 14:15:45.451,0.9000000000000005,900,45,0.107962385,-0.0950256,0.05159016,0.045704626,0.015784971,0.029212797,0.0,0.0,0.0,-0.011377696,0.045674987,-0.16658539,0.0100104315,-0.050037447,-0.049011864,-0.067194596,0.08151014,0.14974332,0.0544682,-0.054216392,0.04906676,0.047023293,-0.07065227,-0.050268553,0.015812986,0.008809548,0.021443313,-0.013679553,-0.023878004,-0.07990468,0.053163446,0.025678076,-0.099212214,0.004111172,-0.10791771,-0.8005487,0.24402313,-0.56321144,-0.12532441,-0.73435616,0.31850994,0.19519195,0.1546439,0.21070293,-0.06614728,0.5065068,0.39740676,-0.20917404,0.36417845,-0.15203838,0.16339947,-0.5610043,0.66911423,1.2633811,0.50196755,-0.20847374,-0.21089475,0.65886486
2025-07-21 14:15:45.469,0.9200000000000005,920,46,-0.08183023,0.072201625,-0.11589411,0.010650528,0.023148684,0.03248514,0.0,0.0,0.0,-0.011843306,0.05476764,-0.16249147,0.012010979,-0.04234434,-0.033773985,-0.08043974,0.09097372,0.20825027,0.070317715,-0.05056726,0.02291221,0.054867227,0.08907834,0.015634155,0.0700035,0.06294026,-0.0077683884,0.030969149,-0.062686324,0.23252487,-0.020344209,0.051287588,-0.11044046,0.032368887,0.39740676,-0.20917404,0.36417845,-0.15203838,0.16339947,-0.5610043,0.66911423,1.2633811,0.50196755,-0.20847374,-0.21089475,0.65886486,-0.2993797,-0.7591624,0.60303754,-0.6982295,0.15177087,-0.6705011,0.5587647,-0.20202675,0.7055796,0.3788305,0.6445442,1.2622427
2025-07-21 14:15:45.490,0.9400000000000005,940,47,-0.02762356,-0.002007464,0.21367434,0.049914803,-0.03939521,-0.008139562,0.0,0.0,0.0,-0.011443495,0.029530913,-0.17631029,0.01527181,-0.05237673,-0.015526187,-0.08271943,0.08880506,0.19733208,0.076117076,-0.026853051,0.051024992,0.06618162,-0.044767197,-0.089428216,0.004310279,-0.07111862,0.09368917,-0.036747813,0.07235745,-0.19964139,0.05696119,0.060139578,0.16036412,-0.018652383,-0.2993797,-0.7591624,0.60303754,-0.6982295,0.15177087,-0.6705011,0.5587647,-0.20202675,0.7055796,0.3788305,0.6445442,1.2622427,0.35801232,0.46098548,0.799978,-0.31959605,-0.5430312,-0.011900306,0.3068378,0.8477451,0.22179201,-0.8501995,-1.9273,0.4563166
2025-07-21 14:15:45.511,0.9600000000000005,960,48,-0.027295746,-0.007264482,-0.109716706,0.002351328,0.024779899,-0.024481036,0.0,0.0,0.0,-0.013333881,0.047936216,-0.16834612,0.032616615,-0.06540336,-0.043610513,-0.05964933,0.07944487,0.19054724,0.06823186,-0.047499582,0.05254562,0.066851206,-0.017497698,0.07437104,0.005930471,-0.020205602,-0.037903003,0.06356531,-0.08081329,0.094742775,-0.08727729,-0.1184664,-0.03611075,-0.0201057,0.35801232,0.46098548,0.799978,-0.31959605,-0.5430312,-0.011900306,0.3068378,0.8477451,0.22179201,-0.8501995,-1.9273,0.4563166,-0.22451608,-0.84883535,-0.015496006,-0.611693,-0.13997342,-0.25444865,0.70086795,-0.097598456,0.6156727,0.5429492,0.07170729,0.51734096
2025-07-21 14:15:45.533,0.9800000000000005,980,49,0.06509652,0.058125436,0.18177308,0.033000782,0.032960605,0.03089698,0.0,0.0,0.0,-0.012792276,0.030181969,-0.19030617,0.018381387,-0.06596705,-0.05486501,-0.06926645,0.09651446,0.17372021,0.06924975,-0.04164805,0.047923774,0.06803476,-0.031962536,-0.082859956,0.01674713,-0.0071726195,-0.08156842,-0.032630183,0.0067282794,-0.15277258,-0.029078837,0.05970569,-0.049921595,-0.0630038,-0.22451608,-0.84883535,-0.015496006,-0.611693,-0.13997342,-0.25444865,0.70086795,-0.097598456,0.6156727,0.5429492,0.07170729,0.51734096,0.9651746,0.43153977,-0.0905946,0.16590987,0.56304467,-0.26616699,0.53169364,1.1604755,0.73900235,-0.9312624,-0.073055595,0.37330586
2025-07-21 14:15:45.551,1.0000000000000004,1000,50,-0.12264185,0.23917979,-0.089619264,0.03241034,-0.03280426,0.0114662,0.0,0.0,0.0,-0.013450801,0.064581454,-0.17270505,0.00084199297,-0.063808374,-0.030952096,-0.07004216,0.08245746,0.20243928,0.071646586,-0.048331976,0.044672973,0.07042601,0.015778314,0.08578354,-0.009767914,0.10324261,0.10441532,0.008393502,0.0094254,0.15302491,0.058890015,-0.06015507,-0.021279158,0.060699157,0.9651746,0.43153977,-0.0905946,0.16590987,0.56304467,-0.26616699,0.53169364,1.1604755,0.73900235,-0.9312624,-0.073055595,0.37330586,-0.16226168,-1.0563732,0.37391782,-0.13640891,-0.30685508,-0.5137366,0.557429,-0.7815149,0.3750575,-0.41205356,0.54057866,0.52578187
2025-07-21 14:15:45.570,1.0200000000000005,1020,51,-0.010300834,-0.12037916,0.14928485,0.055535756,-0.0027001782,-0.00753978,0.0,0.0,0.0,-0.013067984,0.056657042,-0.172652,0.0044120746,-0.049844753,-0.027272457,-0.07792755,0.09500259,0.1923239,0.08251976,-0.05718397,0.06885829,0.058755483,0.018583996,-0.0063564302,-0.008220123,-0.051996913,-0.04149283,0.020251736,0.06061764,-0.098601736,-0.02248649,-0.08021583,0.092574276,0.050320033,-0.16226168,-1.0563732,0.37391782,-0.13640891,-0.30685508,-0.5137366,0.557429,-0.7815149,0.3750575,-0.41205356,0.54057866,0.52578187,0.36126047,0.1778177,0.805686,0.044441856,0.17831795,-0.23485342,0.45119256,0.7563831,0.1848545,-0.4081341,-1.6360695,0.4287656
2025-07-21 14:15:45.590,1.0400000000000005,1040,52,-0.07215142,0.07285523,-0.10964591,0.08258443,-0.023970652,-0.020696377,0.0,0.0,0.0,-0.013686467,0.05448534,-0.17095916,0.027059907,-0.034147993,-0.02320772,-0.07898263,0.089491054,0.19825377,0.06708734,-0.071400516,0.07774563,0.06586133,0.023709703,-0.0018685869,-0.02621685,0.07142079,0.038639937,0.018029356,0.027183566,0.047688864,-0.006217341,0.01705411,0.048622258,0.06625579,0.36126047,0.1778177,0.805686,0.044441856,0.17831795,-0.23485342,0.45119256,0.7563831,0.1848545,-0.4081341,-1.6360695,0.4287656,-0.45586246,-0.55364174,0.30021182,-0.8325461,-0.11285459,-0.37964088,0.9663217,-0.23940408,0.24692312,0.87913543,-0.52622795,0.46958798
2025-07-21 14:15:45.612,1.0600000000000005,1060,53,0.17584457,-0.08625441,0.13047771,0.055129852,-0.02762249,-0.0128005035,0.0,0.0,0.0,-0.013480683,0.05685698,-0.18460846,0.029370422,-0.06464178,-0.02358285,-0.07434107,0.093655266,0.18272513,0.054023698,-0.054115355,0.055602297,0.061788883,-0.06787457,0.0042496943,0.019196587,0.007637271,-0.014980358,-0.060945213,0.1015965,-0.14783278,-0.03536843,0.10824132,-0.10237277,-0.015972301,-0.45586246,-0.55364174,0.30021182,-0.8325461,-0.11285459,-0.37964088,0.9663217,-0.23940408,0.24692312,0.87913543,-0.52622795,0.46958798,0.7454034,0.3619205,-0.05935777,0.1243347,-0.1010036,-0.15112442,0.9381358,0.7025906,0.37481937,-0.7886679,-0.24533053,0.45598817
2025-07-21 14:15:45.635,1.0800000000000005,1080,54,-0.033688378,0.010549481,-0.14790304,-0.0055641565,-0.036750924,-0.020874752,0.0,0.0,0.0,-0.014750554,0.06796416,-0.15251465,0.01806648,-0.042754754,-0.02268734,-0.06516643,0.11295107,0.1744822,0.067239374,-0.05644717,0.031935796,0.069638796,0.1060632,0.12717092,-0.09146223,-0.03498391,-0.017529182,0.06632765,0.060538527,0.021545826,-0.010388049,-0.11089358,-0.09238072,0.00039288905,0.7454034,0.3619205,-0.05935777,0.1243347,-0.1010036,-0.15112442,0.9381358,0.7025906,0.37481937,-0.7886679,-0.24533053,0.45598817,-0.46754754,-1.2428738,0.12929383,-0.30603468,0.083790995,-0.15629262,0.96951526,0.04577581,0.8757251,0.66286975,0.9398721,0.90397847
2025-07-21 14:15:45.650,1.1000000000000005,1100,55,-0.03424868,0.062369272,0.15372619,0.024936866,0.022855466,-0.021453774,0.0,0.0,0.0,-0.013738515,0.055418022,-0.16367094,0.017244548,-0.055780157,-0.020879513,-0.055502314,0.113363825,0.1502549,0.08178186,-0.04783405,0.04922282,0.08093281,-0.071513176,-0.01655341,0.07208367,-0.0014559643,0.023033839,-0.028500158,-0.04330303,-0.07149031,-0.012399632,0.12314526,0.119464904,-0.054455627,-0.46754754,-1.2428738,0.12929383,-0.30603468,0.083790995,-0.15629262,0.96951526,0.04577581,0.8757251,0.66286975,0.9398721,0.90397847,0.37292045,-0.138453,0.23381452,-0.026798865,-0.28513277,-0.04616195,0.364936,0.7691831,-0.06588552,-0.7765197,-0.5462343,0.13583386
2025-07-21 14:15:45.671,1.1200000000000006,1120,56,-0.054249402,0.057372123,-0.061202724,0.0068920003,-0.0041111107,-0.012206568,0.0,0.0,0.0,-0.0151530355,0.058328852,-0.16342592,0.0017014579,-0.055966873,-0.036691725,-0.049660597,0.10346244,0.18466206,0.060725145,-0.06466125,0.06660954,0.060224093,-0.02572142,0.0107471235,0.010553993,0.052454326,0.029544003,0.0031757464,0.044286724,0.027262604,0.0021346335,-0.0028521183,0.008760165,-0.042805903,0.37292045,-0.138453,0.23381452,-0.026798865,-0.28513277,-0.04616195,0.364936,0.7691831,-0.06588552,-0.7765197,-0.5462343,0.13583386,-0.31328225,-0.5877814,0.34706432,-0.36477175,0.119908355,-0.5375116,0.7550684,-0.055410407,0.3756657,0.38206914,-0.10597421,0.48431903
2025-07-21 14:15:45.690,1.1400000000000006,1140,57,0.06892399,-0.0875647,0.0529159,-0.020197595,-0.015537843,0.0023436118,0.0,0.0,0.0,-0.015235832,0.055845365,-0.16613422,0.00017952426,-0.049097583,-0.010563399,-0.050360348,0.10320137,0.14882994,0.06683601,-0.051917743,0.043558344,0.06802491,-0.08539789,-0.06573543,-0.065276004,0.012993458,-9.059969e-05,-0.063386366,0.020507934,-0.053348888,0.06079285,0.02817038,-0.052227713,-0.014625902,-0.31328225,-0.5877814,0.34706432,-0.36477175,0.119908355,-0.5375116,0.7550684,-0.055410407,0.3756657,0.38206914,-0.10597421,0.48431903,0.25976744,-0.10648668,0.44527203,-0.20088117,0.2020574,-0.36806697,0.6578184,0.90807927,0.36982736,0.03300613,-0.3442147,0.522764
2025-07-21 14:15:45.716,1.1600000000000006,1160,58,0.0010161919,0.09759895,-0.06393759,0.0452125,-0.05045472,-0.018833809,0.0,0.0,0.0,-0.015966874,0.06569672,-0.15409006,0.019158069,-0.039868865,-0.006111246,-0.0550975,0.10882546,0.17202483,0.058977783,-0.048844002,0.0312555,0.06443484,-0.025322795,-0.024296943,0.05024986,-0.062435046,0.068706416,0.047302164,0.039641798,0.11291037,0.007986148,-0.03827955,-0.0055704396,0.07127713,0.25976744,-0.10648668,0.44527203,-0.20088117,0.2020574,-0.36806697,0.6578184,0.90807927,0.36982736,0.03300613,-0.3442147,0.522764,-0.55126196,-0.5581619,0.9269133,-0.49326932,-0.18141957,-0.53248715,0.9014365,-0.1809057,0.26444742,0.52849996,-0.142828,0.6818259
2025-07-21 14:15:45.735,1.1800000000000006,1180,59,0.05325801,-0.024414714,0.123025104,0.011188656,-0.0074906726,0.005819721,0.0,0.0,0.0,-0.01579634,0.06360138,-0.17565987,0.026312321,-0.05060016,-0.019047223,-0.06668393,0.11316355,0.1579909,0.050605487,-0.043074388,0.009007582,0.07464752,-0.020494081,-0.086942725,0.055376977,0.061701488,0.029140946,-0.030514698,0.09222963,-0.12546842,0.005643265,0.08276131,-0.00441134,0.028979935,-0.55126196,-0.5581619,0.9269133,-0.49326932,-0.18141957,-0.53248715,0.9014365,-0.1809057,0.26444742,0.52849996,-0.142828,0.6818259,0.4945083,0.36460865,0.63078856,-0.17831387,0.12047843,-0.34829473,0.68549114,0.96578795,0.2729763,-0.5018268,-0.9133054,0.44860953
2025-07-21 14:15:45.750,1.2000000000000006,1200,60,-0.055223003,0.037691392,-0.08217115,-0.002119401,-0.033633903,0.006249178,0.0,0.0,0.0,-0.017337164,0.05579296,-0.14881405,0.028153868,-0.04445301,-0.008149697,-0.06530166,0.118129924,0.16988322,0.061063558,-0.05976323,-0.008895037,0.08285808,0.021193612,-5.2877323e-05,0.07190646,0.08184829,0.05401064,0.020335205,-0.071022965,0.12375475,-0.073868446,-0.06463648,-0.1009435,-0.06710379,0.4945083,0.36460865,0.63078856,-0.17831387,0.12047843,-0.34829473,0.68549114,0.96578795,0.2729763,-0.5018268,-0.9133054,0.44860953,-0.11495136,-0.92142266,0.57782435,-0.60380757,-0.1590691,-0.79374224,0.5082098,0.06436349,0.6449878,0.27944943,0.59956414,0.8248298
2025-07-21 14:15:45.771,1.2200000000000006,1220,61,-0.02975978,-0.04660449,0.17025007,0.061888214,-0.019343723,0.027386872,0.0,0.0,0.0,-0.017054766,0.049433388,-0.17016436,0.027821228,-0.055244215,-0.021615803,-0.07829784,0.11451889,0.16499518,0.07183254,-0.048034325,-0.005657714,0.067575954,0.01677457,-0.055181645,-0.005925322,0.009306765,0.02511346,-0.025067514,0.005200345,-0.13577999,0.0020774677,0.04501914,0.10360687,-0.009872607,-0.11495136,-0.92142266,0.57782435,-0.60380757,-0.1590691,-0.79374224,0.5082098,0.06436349,0.6449878,0.27944943,0.59956414,0.8248298,0.3825313,0.16452557,0.7129611,-0.17622541,-0.11367137,-0.14205244,0.29255167,0.9679576,0.36460325,-0.8803096,-1.4872386,0.31462595
2025-07-21 14:15:45.791,1.2400000000000007,1240,62,-0.019589072,-0.072009005,-0.17991656,0.03279679,-0.023344722,0.045978587,0.0,0.0,0.0,-0.0178008,0.072058775,-0.16039583,0.048956662,-0.061608724,-0.023398302,-0.07171368,0.09392454,0.18927091,0.06492486,-0.05518962,-0.0063702506,0.069323964,0.0072103566,-0.0058469563,0.048300672,0.020183837,0.031206148,0.06019987,-0.014335265,0.17554772,0.033936076,0.0109083755,-0.066612564,0.022808306,0.3825313,0.16452557,0.7129611,-0.17622541,-0.11367137,-0.14205244,0.29255167,0.9679576,0.36460325,-0.8803096,-1.4872386,0.31462595,-0.46957177,-0.737913,0.5290195,-0.72104126,-0.03445731,-0.5456445,0.62540287,-0.0965211,0.8226084,0.7987771,1.1096733,1.2408814
2025-07-21 14:15:45.816,1.2600000000000007,1260,63,0.009120862,0.0030470493,0.17009571,0.054456644,0.02552479,0.033337027,0.0,0.0,0.0,-0.016974375,0.05607768,-0.15518625,0.038371794,-0.06328409,-0.01628892,-0.07227162,0.10794006,0.16458175,0.0713015,-0.055310223,0.027762651,0.08314338,-0.0008859532,0.0020770181,-0.028848764,-0.033140164,-0.027284922,-0.046926443,-0.06738781,-0.08011081,-0.044755626,0.03611906,0.0438064,0.021497883,-0.46957177,-0.737913,0.5290195,-0.72104126,-0.03445731,-0.5456445,0.62540287,-0.0965211,0.8226084,0.7987771,1.1096733,1.2408814,0.5855397,-0.16263145,0.23627596,-0.3306961,-0.23312183,-0.13579988,0.15572488,0.63473046,-0.0058459416,-0.9859073,-0.85916764,0.38704604
2025-07-21 14:15:45.834,1.2800000000000007,1280,64,-0.016236318,0.017542854,-0.05620119,0.04893174,-0.0127643915,0.005117013,0.0,0.0,0.0,-0.018147158,0.053994402,-0.14470945,0.029612662,-0.062982984,-0.033027522,-0.055548616,0.09401453,0.18312411,0.05704112,-0.07716905,0.015181044,0.072014466,-0.04833338,0.06234016,-0.0822014,0.039821435,0.027924875,0.083461426,-0.013799537,0.014364844,-0.04973329,-0.062249176,-0.10254962,0.010060441,0.5855397,-0.16263145,0.23627596,-0.3306961,-0.23312183,-0.13579988,0.15572488,0.63473046,-0.0058459416,-0.9859073,-0.85916764,0.38704604,-0.06019513,-0.90465164,0.27501908,-0.4878203,-0.02356643,-0.6722537,0.74366975,0.14084539,0.61942333,0.32293802,0.28143805,0.827821
2025-07-21 14:15:45.853,1.3000000000000007,1300,65,0.009801633,0.008551198,0.102171905,0.015436314,-0.03894249,0.033741888,0.0,0.0,0.0,-0.018421382,0.06405233,-0.16095576,0.037875317,-0.061519783,-0.02434671,-0.07095579,0.09731479,0.15641935,0.074346215,-0.066166975,0.037771445,0.07433263,-0.035014145,-0.14702535,-0.0058067446,0.021277979,-0.033802155,0.057462372,-0.01605311,0.0072131627,-0.049546603,0.08393125,-0.018830819,0.053302526,-0.06019513,-0.90465164,0.27501908,-0.4878203,-0.02356643,-0.6722537,0.74366975,0.14084539,0.61942333,0.32293802,0.28143805,0.827821,0.32849586,0.3411771,0.611476,-0.06847533,0.28219795,-0.59190506,0.47915727,0.6314864,0.66540074,-0.33863306,-0.65652955,0.83682805
2025-07-21 14:15:45.871,1.3200000000000007,1320,66,0.016459325,-0.052846406,-0.07478063,0.01845358,-0.055978965,-0.015762687,0.0,0.0,0.0,-0.019583395,0.054911222,-0.16941965,0.04113995,-0.05289506,-0.001779478,-0.06448519,0.09574068,0.17979237,0.06830091,-0.06483853,0.019293886,0.08167472,0.08254274,0.07787096,0.05804144,0.060386695,0.09893673,-0.001325934,-0.052903283,0.08710555,0.07969704,0.038254235,-0.101844124,-0.048151724,0.32849586,0.3411771,0.611476,-0.06847533,0.28219795,-0.59190506,0.47915727,0.6314864,0.66540074,-0.33863306,-0.65652955,0.83682805,0.03263097,-0.9058962,0.565501,-0.5760977,-0.46631974,-0.79662323,0.42320138,0.004231788,0.47500747,0.17133689,0.5689198,0.7925271
2025-07-21 14:15:45.891,1.3400000000000007,1340,67,0.053590447,0.014008403,0.06728842,-0.0052136485,-0.04298236,-0.019472923,0.0,0.0,0.0,-0.01906593,0.054385267,-0.18847495,0.036451492,-0.06924254,-0.020351218,-0.08868015,0.08773966,0.15312748,0.06442856,-0.06791993,0.03934344,0.09476716,-0.058674518,-0.03832754,0.080749266,-0.04971851,-0.02958686,-0.019765228,-0.06441427,-0.14692698,-0.0621421,-0.02581174,0.09229292,-0.074787416,0.03263097,-0.9058962,0.565501,-0.5760977,-0.46631974,-0.79662323,0.42320138,0.004231788,0.47500747,0.17133689,0.5689198,0.7925271,0.012174372,0.031941947,0.6379582,0.07346449,-0.05092188,0.2614311,0.4959106,0.9752644,0.037102662,-0.4489701,-1.1623292,0.053490944
2025-07-21 14:15:45.923,1.3600000000000008,1360,68,-0.14984167,0.058673527,-0.09645185,-0.010228083,-0.0050197314,0.040148787,0.0,0.0,0.0,-0.01919024,0.063092336,-0.18916103,0.034597214,-0.06287005,-0.025567023,-0.060747296,0.07498301,0.18206358,0.052359004,-0.05855509,0.05924492,0.075800456,-0.029940806,0.0511852,0.034804367,0.017616665,0.017351504,0.047749862,0.051394597,0.16777605,0.0017446562,0.0022444343,0.012848115,0.02109198,0.012174372,0.031941947,0.6379582,0.07346449,-0.05092188,0.2614311,0.4959106,0.9752644,0.037102662,-0.4489701,-1.1623292,0.053490944,-0.39912885,-0.79346097,0.40361488,-0.6542548,0.093499444,-0.75240123,0.722081,-0.3130961,0.12641224,0.6348674,-0.41305074,0.4721163
2025-07-21 14:15:45.940,1.3800000000000008,1380,69,0.15760428,-0.07787617,0.04597289,0.023323387,0.038248826,-0.020051425,0.0,0.0,0.0,-0.018487388,0.055294618,-0.18867847,0.044726726,-0.057122402,-0.012172802,-0.08196157,0.08832984,0.14918372,0.06530762,-0.051910523,0.031478476,0.08400676,-0.057287984,-0.042220503,0.006629451,-0.025664257,0.013120131,-0.026249602,0.06522892,-0.20343907,-0.036060717,-0.01856921,-0.056126993,0.030550633,-0.39912885,-0.79346097,0.40361488,-0.6542548,0.093499444,-0.75240123,0.722081,-0.3130961,0.12641224,0.6348674,-0.41305074,0.4721163,0.5105648,-0.025210563,0.22445378,0.03664533,-0.25411314,0.34077346,0.90040106,0.8913116,0.47962138,-0.35430703,-0.05762453,0.46251333
2025-07-21 14:15:45.958,1.4000000000000008,1400,70,-0.04565164,0.1354528,-0.09928056,0.03564687,0.020235503,-0.020398848,0.0,0.0,0.0,-0.01879901,0.066929124,-0.19022545,0.032613236,-0.05722785,-0.025052348,-0.05869726,0.09184059,0.16768382,0.05998501,-0.05199877,0.037420563,0.06756083,0.008935305,0.085412025,-0.007138652,0.07603277,0.025038833,0.08080838,0.026613036,0.030512847,0.017599618,0.000267963,-0.007936918,0.027578097,0.5105648,-0.025210563,0.22445378,0.03664533,-0.25411314,0.34077346,0.90040106,0.8913116,0.47962138,-0.35430703,-0.05762453,0.46251333,-0.42632914,-0.8218038,0.019690389,-0.20827699,-0.05920566,-0.10413563,1.005363,-0.04127329,0.79382837,0.38646927,0.41626182,0.43047467
2025-07-21 14:15:45.983,1.4200000000000008,1420,71,-0.07669717,0.04084998,0.17774883,0.06300067,0.028360322,0.044510916,0.0,0.0,0.0,-0.018046847,0.052498806,-0.20380448,0.015955484,-0.043507658,-0.035350908,-0.04808467,0.109984085,0.13652211,0.0618997,-0.047354437,0.051978216,0.07019376,0.019203275,0.0081261415,0.032391578,-0.006540423,-0.0024884911,0.074972995,0.064899415,-0.065607965,0.06985538,-0.006504689,0.014957705,-0.027352408,-0.42632914,-0.8218038,0.019690389,-0.20827699,-0.05920566,-0.10413563,1.005363,-0.04127329,0.79382837,0.38646927,0.41626182,0.43047467,0.70163137,0.17069972,0.4460681,-0.08063208,0.18556379,-0.24316064,0.32519248,0.86343837,0.46665242,-0.64487755,-0.7243908,0.191724
2025-07-21 14:15:46.001,1.4400000000000008,1440,72,-0.0820689,0.04416698,-0.11076941,0.07946697,-0.045887407,-0.00070151064,0.0,0.0,0.0,-0.019163894,0.0699213,-0.19440635,0.025442295,-0.05382748,-0.018458677,-0.061708227,0.0969445,0.15853955,0.0625536,-0.053841487,0.03985887,0.06421743,0.03783174,0.101669185,0.05920695,-0.02871721,0.03040421,-0.024966905,0.015155543,0.10931695,0.018358918,-0.002537157,0.0068706614,-0.05632114,0.70163137,0.17069972,0.4460681,-0.08063208,0.18556379,-0.24316064,0.32519248,0.86343837,0.46665242,-0.64487755,-0.7243908,0.191724,-0.36135513,-0.89084375,0.21351588,-0.31671622,-0.06386996,-0.38221633,0.65206885,-0.4106751,0.5074353,0.089967966,0.1374409,0.171475
2025-07-21 14:15:46.018,1.4600000000000009,1460,73,0.06863748,-0.15788905,0.11873866,0.056009192,0.024630787,0.02509517,0.0,0.0,0.0,-0.025999647,0.052040473,-0.20471008,0.020461198,-0.045142483,-0.018929886,-0.06301937,0.11188587,0.15273784,0.07632352,-0.047848117,0.04066657,0.044617493,-0.051731855,-0.10015047,0.02296657,-0.016142854,-0.0066913744,-0.07013954,-0.01968153,-0.22287668,-0.058758747,-0.042823773,-0.038852468,-0.032226883,-0.36135513,-0.89084375,0.21351588,-0.31671622,-0.06386996,-0.38221633,0.65206885,-0.4106751,0.5074353,0.089967966,0.1374409,0.171475,0.6625941,0.26245135,0.14037517,0.06265051,0.3617541,-0.3507952,0.69249874,1.610781,0.71448296,-0.5062752,-0.30326936,0.55928326
2025-07-21 14:15:46.038,1.4800000000000009,1480,74,0.0020893007,0.120087445,-0.08159214,-0.0038995584,-0.02449989,0.0409479,0.0,0.0,0.0,-0.034654632,0.06386599,-0.2009407,0.026155002,-0.03948962,0.0033529687,-0.055419177,0.101747006,0.1620572,0.08018607,-0.05729317,0.019497339,0.04885891,-0.01945293,0.14147092,0.007325635,0.038093176,0.06588376,0.06888024,-0.017520932,0.066958085,0.04664543,-0.031600296,-0.06835072,0.04564229,0.6625941,0.26245135,0.14037517,0.06265051,0.3617541,-0.3507952,0.69249874,1.610781,0.71448296,-0.5062752,-0.30326936,0.55928326,-0.09827086,-1.2399515,0.36842242,-0.2912306,-0.20435008,-0.4547161,0.61066025,0.38271233,0.1338605,-0.11147457,0.37092987,0.5199771
2025-07-21 14:15:46.063,1.5000000000000009,1500,75,0.04388339,-0.03833869,0.04525788,0.058891002,-0.041464172,-0.017454907,0.0,0.0,0.0,-0.042175967,0.05271978,-0.1908034,0.030636035,-0.049261432,-0.005631756,-0.055766456,0.11454496,0.15937182,0.068357326,-0.05328861,0.03988792,0.057927314,0.023788486,-0.031109292,-0.00031007835,-0.04324202,-0.009155539,-0.04962692,-0.06708558,0.028184833,-0.0053558866,-0.04594554,0.10617539,-0.036108237,-0.09827086,-1.2399515,0.36842242,-0.2912306,-0.20435008,-0.4547161,0.61066025,0.38271233,0.1338605,-0.11147457,0.37092987,0.5199771,0.10035665,0.010904338,0.7369778,-0.09897683,-0.05933953,-0.40534395,0.60188127,0.5259671,0.025673889,-0.3294505,-1.201329,0.12621081
2025-07-21 14:15:46.083,1.520000000000001,1520,76,-0.008320871,0.02859822,-0.07651419,0.07790079,-0.04142823,0.017200269,0.0,0.0,0.0,-0.04987969,0.06170354,-0.21105601,0.030763917,-0.036960535,-0.017122215,-0.062233165,0.111623436,0.17611583,0.04860328,-0.054210536,0.03550565,0.04467233,-0.015522144,0.00026892681,-0.026870579,-0.024303446,-0.031995464,-0.03560116,0.046645522,-0.031704884,-0.02164986,0.014985629,-0.07408154,-0.010280259,0.10035665,0.010904338,0.7369778,-0.09897683,-0.05933953,-0.40534395,0.60188127,0.5259671,0.025673889,-0.3294505,-1.201329,0.12621081,0.33205605,-0.33112633,0.24099796,-0.46894744,0.4412155,-0.5327977,0.8249812,0.32856068,0.5283489,0.28058317,0.068037644,0.7107487
2025-07-21 14:15:46.100,1.540000000000001,1540,77,-0.00378089,0.12712592,0.06225106,0.048227515,-0.059357006,-0.0027607637,0.0,0.0,0.0,-0.05674039,0.07692448,-0.18752103,0.032317758,-0.038091745,0.023929287,-0.06482753,0.112663046,0.17429543,0.06150002,-0.06124394,0.039003823,0.06393438,0.06352419,0.072580256,0.0482489,-0.031319663,0.10741588,0.05627665,-0.0363648,0.026490761,-0.047124382,0.033544794,-0.02762467,0.009685158,0.33205605,-0.33112633,0.24099796,-0.46894744,0.4412155,-0.5327977,0.8249812,0.32856068,0.5283489,0.28058317,0.068037644,0.7107487,0.18820938,-0.60108614,0.7194898,-0.35334972,-0.6566237,-0.47360492,0.23372436,0.22464675,0.22697368,-0.6105031,-0.71420485,0.10050643
2025-07-21 14:15:46.120,1.560000000000001,1560,78,0.13482617,-0.083267994,-0.16591442,0.027431993,-0.05463753,-0.012250022,0.0,0.0,0.0,-0.06453246,0.07216274,-0.19545725,0.042416304,-0.05607403,-0.0017142796,-0.058825053,0.10906352,0.14931451,0.049741883,-0.075743645,-0.0009961334,0.04337603,-0.047659077,-0.053064693,-0.042150598,0.01029293,-0.19366871,0.04278444,-0.040786624,-0.09495111,-0.0242231,-0.032396857,-0.071792096,-0.039957747,0.18820938,-0.60108614,0.7194898,-0.35334972,-0.6566237,-0.47360492,0.23372436,0.22464675,0.22697368,-0.6105031,-0.71420485,0.10050643,-0.14360672,-0.30442494,-0.08235071,-0.07558187,0.61835647,-0.028962791,0.99019533,0.43605098,1.082992,0.3611248,0.12798187,0.5806247
2025-07-21 14:15:46.139,1.580000000000001,1580,79,-0.107636206,0.053731833,0.112536766,0.06027115,-0.011889472,0.012585278,0.0,0.0,0.0,-0.07122683,0.07225607,-0.1863599,0.0127644865,-0.054696307,-0.0029282998,-0.059040174,0.10355912,0.15572013,0.06295369,-0.068539076,0.0024646397,0.04333293,-0.033935778,0.03007428,-0.07534533,-0.052099716,0.01632759,0.042327948,0.013219547,0.043045785,0.0003680844,0.01886334,-0.027718648,-0.06321544,-0.14360672,-0.30442494,-0.08235071,-0.07558187,0.61835647,-0.028962791,0.99019533,0.43605098,1.082992,0.3611248,0.12798187,0.5806247,0.98873705,-0.018409494,0.43867263,-0.30451345,-0.034701563,-0.59868324,0.16937843,0.09722582,0.23066476,-0.64803916,0.14718673,0.48971504
2025-07-21 14:15:46.161,1.600000000000001,1600,80,-0.010357832,-0.17606476,-0.006063194,0.009361589,-0.055428814,0.008068511,0.0,0.0,0.0,-0.079299234,0.071174175,-0.17014512,0.017234543,-0.045253735,-0.012316277,-0.058719076,0.10749088,0.15106188,0.06160033,-0.07750762,0.01480255,0.0568794,0.10275912,0.005589537,0.003855563,-0.017966706,-0.04980676,-0.0010434394,-0.012294732,-0.101198904,-0.04910356,-0.084537,0.006377839,-0.052559387,0.98873705,-0.018409494,0.43867263,-0.30451345,-0.034701563,-0.59868324,0.16937843,0.09722582,0.23066476,-0.64803916,0.14718673,0.48971504,0.04713576,-0.32025385,1.169063,-0.10980281,0.100055285,0.08791125,0.33434984,1.1145099,0.27697495,-0.21663782,-1.2122698,0.45272672
2025-07-21 14:15:46.184,1.620000000000001,1620,81,-0.07430937,-0.019553062,-0.012476227,0.03251749,-0.03858197,-0.006197657,0.0,0.0,0.0,-0.08714439,0.08559262,-0.15580194,0.03569586,-0.049180828,-0.0047011557,-0.062596016,0.09748512,0.18663365,0.057820555,-0.065541066,-0.0016139859,0.05572361,-0.025324248,0.00701473,0.10966034,-0.05239323,0.06282077,-0.0030084485,0.024721596,0.15016082,0.02307951,-0.08664692,0.0015898907,0.0012196146,0.04713576,-0.32025385,1.169063,-0.10980281,0.100055285,0.08791125,0.33434984,1.1145099,0.27697495,-0.21663782,-1.2122698,0.45272672,0.6554989,-0.3788256,0.5383544,-0.8190365,-0.24497758,-0.8974165,0.10746667,0.18094465,-0.06875915,-0.31605735,-0.730223,0.55876064
2025-07-21 14:15:46.200,1.640000000000001,1640,82,0.21960571,0.05590028,-0.10220932,0.026576154,-0.02475947,-0.048302896,0.0,0.0,0.0,-0.09439558,0.083181664,-0.1731918,0.033592436,-0.052581154,-0.013546963,-0.078010075,0.07761392,0.1873249,0.043508697,-0.082051605,-0.03295595,0.06467078,0.05752072,-0.0058147195,-0.007540888,-0.044995245,-0.0771723,-0.0012197571,0.019647649,-0.021751737,-0.057543878,-0.020522565,-0.1306525,0.06473082,0.6554989,-0.3788256,0.5383544,-0.8190365,-0.24497758,-0.8974165,0.10746667,0.18094465,-0.06875915,-0.31605735,-0.730223,0.55876064,0.2751865,-0.4069057,0.63164246,-0.45232502,0.055323996,-0.18605733,0.73146355,0.34270528,0.45721874,0.00397551,-0.2220843,0.9462023
2025-07-21 14:15:46.221,1.660000000000001,1660,83,0.023122067,-0.05456605,-0.037316635,-0.021131065,0.025304254,0.04887767,0.0,0.0,0.0,-0.10090978,0.10384933,-0.17403316,0.051088307,-0.055497967,-0.01954298,-0.072111435,0.09331861,0.17451727,0.05500358,-0.07060278,-0.034475856,0.06353292,-0.023020733,-0.022679243,0.040944204,-0.041847453,0.08030402,-0.0007523174,-0.0537678,-0.026460445,0.029270504,0.07987277,0.00031894204,-0.04261756,0.2751865,-0.4069057,0.63164246,-0.45232502,0.055323996,-0.18605733,0.73146355,0.34270528,0.45721874,0.00397551,-0.2220843,0.9462023,0.6018817,-0.030297402,0.90811265,-0.5119719,-0.28817165,-0.4114102,0.8807853,0.79004174,0.23848101,-0.19741786,-0.27899504,0.39605162
2025-07-21 14:15:46.240,1.680000000000001,1680,84,-0.07906875,0.03558208,-0.110364676,-0.014062434,-0.021188855,0.033899285,0.0,0.0,0.0,-0.10820984,0.101065524,-0.15146883,0.060982212,-0.056154918,-0.036842726,-0.05950591,0.09510312,0.1888316,0.04842254,-0.08009733,-0.058629736,0.07151391,-0.034618337,0.010119797,0.0113357585,0.00663064,-0.11435597,-0.009247974,-0.019286592,0.04461805,0.062658,0.027704054,0.022191871,0.031412683,0.6018817,-0.030297402,0.90811265,-0.5119719,-0.28817165,-0.4114102,0.8807853,0.79004174,0.23848101,-0.19741786,-0.27899504,0.39605162,0.18528788,-0.34170657,0.3380818,-0.41397178,0.43739456,0.008422136,0.74128526,0.20640114,0.5118106,-0.14982122,-0.7018377,0.35004112
2025-07-21 14:15:46.262,1.700000000000001,1700,85,0.050232407,-0.049918607,-0.027162515,0.040078197,0.026182583,-0.04503273,0.0,0.0,0.0,-0.11464205,0.11698864,-0.15399556,0.047933847,-0.07560159,-0.00916965,-0.06351868,0.11195569,0.18514046,0.05743588,-0.07524014,-0.07669301,0.07951472,0.07239736,-0.039924346,-0.08342712,0.051140707,0.07830103,-0.019424003,-0.006009147,-0.078897126,0.04325013,0.03303041,-0.013545181,-0.035525624,0.18528788,-0.34170657,0.3380818,-0.41397178,0.43739456,0.008422136,0.74128526,0.20640114,0.5118106,-0.14982122,-0.7018377,0.35004112,1.0117655,-0.21098411,0.93585086,-0.4215974,-0.099180244,-0.2919542,0.85164624,0.6895885,0.41186973,-0.18345124,0.14065692,0.49700707
2025-07-21 14:15:46.284,1.720000000000001,1720,86,-0.14028643,0.17244902,-0.117980845,0.017903008,-0.04607725,-0.024642834,0.0,0.0,0.0,-0.12173182,0.12064845,-0.14479506,0.062604114,-0.07167845,0.0051353076,-0.05972524,0.11496721,0.1987049,0.06383329,-0.07349534,-0.053216122,0.056303818,0.034352656,0.018294392,0.0858223,0.065803126,-0.005320128,-0.019470217,0.07936369,0.10407005,-0.04437901,0.03920538,0.115808845,0.0419747,1.0117655,-0.21098411,0.93585086,-0.4215974,-0.099180244,-0.2919542,0.85164624,0.6895885,0.41186973,-0.18345124,0.14065692,0.49700707,-0.06808086,-0.55185115,0.34492975,-0.48284873,-0.36302048,-0.17022145,0.6517698,-0.15476811,-0.34555984,-0.112327576,-1.008975,0.63799584
2025-07-21 14:15:46.301,1.740000000000001,1740,87,0.17536347,-0.07036718,0.005615814,0.052765846,-0.035247944,-0.002939946,0.0,0.0,0.0,-0.12851606,0.10843992,-0.15329617,0.05640672,-0.071123645,-0.03853836,-0.055102963,0.10306126,0.16531217,0.042503808,-0.085779555,-0.07130943,0.070517875,-0.0112025775,0.016764686,-0.07283874,0.03245033,0.000312801,0.038642146,0.06557952,-0.1605219,-0.03425322,-0.03968922,-0.07147478,0.083421096,-0.06808086,-0.55185115,0.34492975,-0.48284873,-0.36302048,-0.17022145,0.6517698,-0.15476811,-0.34555984,-0.112327576,-1.008975,0.63799584,1.1068382,-0.08931196,1.0849757,-0.11083677,0.2768974,-0.1100688,1.1385162,1.0912946,0.04305967,-0.6230897,-0.85296774,0.741092
2025-07-21 14:15:46.320,1.7600000000000011,1760,88,-0.033639327,0.13561861,-0.18001463,0.06424621,-0.06515448,0.0347541,0.0,0.0,0.0,-0.13588668,0.14410295,-0.14570986,0.06809618,-0.061155144,-0.0120697515,-0.045665465,0.12366782,0.17466202,0.039288398,-0.09288249,-0.109249964,0.0825177,0.05952044,0.06113969,-0.03180135,-0.043155205,0.04867543,0.018789798,0.084541745,0.0939523,0.011080169,-0.06882235,-0.048731044,-0.04326559,1.1068382,-0.08931196,1.0849757,-0.11083677,0.2768974,-0.1100688,1.1385162,1.0912946,0.04305967,-0.6230897,-0.85296774,0.741092,0.07156022,-0.9922044,-0.026412992,-0.24341865,0.012547309,-0.08164108,0.45056874,-0.02000586,0.23397735,-0.26624525,0.3339211,0.65316343
2025-07-21 14:15:46.340,1.7800000000000011,1780,89,-0.030334663,-0.017985545,0.028095972,-0.0062960573,0.005811328,-0.04789365,0.0,0.0,0.0,-0.14101268,0.13044587,-0.15616028,0.054104466,-0.05523437,-0.023355486,-0.049010202,0.11986272,0.17434128,0.034364026,-0.095056154,-0.09345457,0.07603429,-0.005626054,-0.1457435,-0.09656083,-0.055591937,0.03583635,0.03533631,-0.00999801,-0.14704342,0.00950853,0.008808318,0.11128981,0.012721178,0.07156022,-0.9922044,-0.026412992,-0.24341865,0.012547309,-0.08164108,0.45056874,-0.02000586,0.23397735,-0.26624525,0.3339211,0.65316343,0.6304152,0.1892569,1.5195303,-0.1339524,0.12507062,-0.30647945,0.9017914,1.4073801,0.08484521,-0.29207772,-0.9972761,0.5921193
2025-07-21 14:15:46.367,1.8000000000000012,1800,90,-0.09294,0.17994386,-0.22760496,0.029523015,-0.04578409,0.018560655,0.0,0.0,0.0,-0.14766936,0.12795125,-0.16676132,0.07878273,-0.046786375,-0.0137362415,-0.04944233,0.114547,0.20601746,0.03720401,-0.09423903,-0.0998498,0.071072824,0.07468867,-0.022444068,-0.018495703,-0.010250265,0.03624103,0.012376406,0.08192881,0.24813887,-0.073844366,-0.0786026,-0.031642262,-0.0014271641,0.6304152,0.1892569,1.5195303,-0.1339524,0.12507062,-0.30647945,0.9017914,1.4073801,0.08484521,-0.29207772,-0.9972761,0.5921193,-0.038955044,-0.61806613,0.2965612,-0.6304333,0.113650806,0.0832144,0.42626014,-0.79028124,0.056753866,-0.19567382,-0.1377864,0.68723327
2025-07-21 14:15:46.384,1.8200000000000012,1820,91,0.010896808,-0.06082815,0.014384668,-0.0069617406,0.013990565,-0.043992512,0.0,0.0,0.0,-0.1527118,0.12303111,-0.17295213,0.074089006,-0.056454025,0.0063036266,-0.045526013,0.11461395,0.19300951,0.021265175,-0.08792586,-0.07932111,0.073597975,-0.0095577,0.028384896,-0.016700068,-0.067259125,0.044754457,0.094369546,-0.06287553,-0.075979725,0.03878208,0.033628393,-0.030691674,0.04795928,-0.038955044,-0.61806613,0.2965612,-0.6304333,0.113650806,0.0832144,0.42626014,-0.79028124,0.056753866,-0.19567382,-0.1377864,0.68723327,0.963296,-0.049210314,1.4279388,-0.53298444,-0.10815992,-0.114257276,0.70769185,0.1691078,-0.055733927,-0.37121361,-0.6010391,0.55501926
2025-07-21 14:15:46.402,1.8400000000000012,1840,92,0.010708831,0.09543184,-0.14754282,0.03769995,-0.02456786,-0.04696924,0.0,0.0,0.0,-0.15911193,0.14212961,-0.17622228,0.0834356,-0.07251379,-0.0115507515,-0.03298616,0.11336681,0.18048592,0.023365414,-0.091772795,-0.09673537,0.073121935,0.0441233,-0.0030867478,0.026108729,-0.02969082,-0.018087912,0.009052229,0.022169566,-0.039569423,-0.012473723,0.04162358,-0.018087333,0.022885673,0.963296,-0.049210314,1.4279388,-0.53298444,-0.10815992,-0.114257276,0.70769185,0.1691078,-0.055733927,-0.37121361,-0.6010391,0.55501926,0.36279625,0.17497933,0.38420042,-0.60103476,-0.07515188,-0.16210425,0.7130628,0.3576645,0.23154503,-0.08444239,-0.62109816,0.4942538
2025-07-21 14:15:46.422,1.8600000000000012,1860,93,0.02771974,0.030235562,-0.13075265,0.0034046634,-0.03634024,-0.024915319,0.0,0.0,0.0,-0.16455157,0.14252172,-0.14543225,0.063732766,-0.06632336,-0.004629376,-0.0324205,0.1044195,0.16433145,0.032001473,-0.103258155,-0.12076798,0.082760155,0.057732847,0.08147595,-0.062521055,-0.016564986,-0.08531676,-0.034313306,-0.033659436,-0.017784435,-0.01867687,0.018897364,-0.09896553,-0.03472504,0.36279625,0.17497933,0.38420042,-0.60103476,-0.07515188,-0.16210425,0.7130628,0.3576645,0.23154503,-0.08444239,-0.62109816,0.4942538,0.86267596,-0.91801697,0.5218839,-0.40354648,0.3186361,-0.14821637,0.67463875,0.4864928,0.29836106,-0.51035714,0.31300393,0.5067644
2025-07-21 14:15:46.441,1.8800000000000012,1880,94,-0.046869192,-0.010411314,0.008211138,0.07286657,-0.03515494,0.0051503754,0.0,0.0,0.0,-0.16849849,0.14357597,-0.15174659,0.06332893,-0.07789072,0.003681767,-0.027759463,0.104873374,0.16849516,0.020995386,-0.09952972,-0.112595685,0.07439128,0.036163468,-0.08625417,-0.019862738,-0.028125763,0.1017897,0.0720949,-0.0011057331,0.06846373,0.03856442,0.018085318,0.052530255,0.022026874,0.86267596,-0.91801697,0.5218839,-0.40354648,0.3186361,-0.14821637,0.67463875,0.4864928,0.29836106,-0.51035714,0.31300393,0.5067644,0.50392944,0.44492835,1.1831199,-0.46502745,-0.79283994,-0.4107964,0.086076684,0.8204547,0.5952323,-0.42313564,-0.7927423,1.047462
2025-07-21 14:15:46.466,1.9000000000000012,1900,95,0.03368236,-0.11706221,-0.22329658,0.042111054,-0.08014768,0.0020552892,0.0,0.0,0.0,-0.17445739,0.14833242,-0.15110886,0.080095895,-0.0814867,-0.026118247,-0.038800426,0.10220314,0.2026855,0.029576795,-0.09851315,-0.1070823,0.08600186,-0.018995104,-0.029631205,-0.042679466,-0.0092327325,-0.21190466,-0.052443076,0.006363732,0.108101584,0.056710426,0.0132778995,-0.018255787,-0.010623982,0.50392944,0.44492835,1.1831199,-0.46502745,-0.79283994,-0.4107964,0.086076684,0.8204547,0.5952323,-0.42313564,-0.7927423,1.047462,0.45351654,-0.04709274,-0.11544099,-0.74765635,0.32200867,-0.13687322,0.5249961,-0.39085612,0.71608156,-0.5347535,-0.32298723,0.7358541
2025-07-21 14:15:46.484,1.9200000000000013,1920,96,0.071551666,-0.14152384,-0.02416721,0.049530916,0.020223023,-0.037573613,0.0,0.0,0.0,-0.17874695,0.1373531,-0.12622894,0.055786166,-0.08218723,-0.023371777,-0.03723564,0.092817105,0.17837228,0.04474063,-0.10905609,-0.11384828,0.08902677,0.02139588,0.108702265,-0.10766126,0.03907082,0.09888341,-0.025099458,0.017108146,-0.21046354,0.090931445,-0.016801052,0.0031579088,0.04471765,0.45351654,-0.04709274,-0.11544099,-0.74765635,0.32200867,-0.13687322,0.5249961,-0.39085612,0.71608156,-0.5347535,-0.32298723,0.7358541,0.7828133,-1.1374736,1.3537573,-0.22763078,-0.4396596,0.18800455,0.5929168,0.8770268,0.46150318,-0.5516539,-0.013484228,0.39885476
2025-07-21 14:15:46.501,1.9400000000000013,1940,97,0.0016030343,-0.017405165,-0.13420376,0.044973,0.013782572,0.015868952,0.0,0.0,0.0,-0.18412739,0.14042099,-0.12569472,0.070712216,-0.06617796,-0.034111574,-0.013546638,0.09437322,0.16720787,0.03928287,-0.10781942,-0.10237353,0.073972665,-0.027170474,-0.05900497,0.12184296,0.045581304,-0.03528076,-0.04428684,-0.06109205,0.15494196,-0.007461669,-0.04544204,0.07026836,-0.08759774,0.7828133,-1.1374736,1.3537573,-0.22763078,-0.4396596,0.18800455,0.5929168,0.8770268,0.46150318,-0.5516539,-0.013484228,0.39885476,0.41998988,0.35782328,0.19930047,-0.49384695,-0.52572334,-0.30361873,0.40064946,0.6746363,0.5656943,-0.20127936,-0.48425063,0.63584447
2025-07-21 14:15:46.521,1.9600000000000013,1960,98,0.0076798787,0.046244685,-0.2031644,0.0074316068,-0.029565003,0.03423861,0.0,0.0,0.0,-0.19012158,0.14960419,-0.1265095,0.07037834,-0.0774555,-0.056163635,-0.030855328,0.08376974,0.18528672,0.053714085,-0.12108984,-0.10980043,0.07484632,-0.020455172,0.023235051,-0.07291771,-0.030818421,-0.13611563,0.03013559,-0.015681503,0.07902892,0.046793856,0.027814642,-0.06930995,0.05631757,0.41998988,0.35782328,0.19930047,-0.49384695,-0.52572334,-0.30361873,0.40064946,0.6746363,0.5656943,-0.20127936,-0.48425063,0.63584447,0.52444714,-0.5721107,0.18280542,-0.47265068,0.4300962,-0.11052078,0.7117251,-0.07240423,0.33235478,-0.34140635,-0.025448967,0.98934716
2025-07-21 14:15:46.541,1.9800000000000013,1980,99,0.092643954,-0.05852823,0.050908096,-0.0056902133,-0.03758538,-0.049943756,0.0,0.0,0.0,-0.19475289,0.13709538,-0.12075708,0.05106405,-0.08546759,-0.048626613,-0.019771922,0.0975647,0.16919714,0.055218875,-0.1026864,-0.10160955,0.07813576,0.00089910696,-0.091447644,-0.008794024,0.0066107884,0.069631934,0.031810634,0.060306318,-0.019912837,0.04224009,-0.00486488,-0.017568722,0.025755089,0.52444714,-0.5721107,0.18280542,-0.47265068,0.4300962,-0.11052078,0.7117251,-0.07240423,0.33235478,-0.34140635,-0.025448967,0.98934716,0.77486306,0.3868389,1.4812213,-0.23784608,-0.3931577,-0.34052706,0.30263555,1.0885895,0.5093254,-0.29774833,-0.56031,1.6011243
2025-07-21 14:15:46.566,2.0000000000000013,2000,100,-0.053307842,0.081921406,-0.24977124,0.0320688,-0.06593985,-0.047476005,0.0,0.0,0.0,-0.20154728,0.14944053,-0.13124518,0.06804206,-0.065437436,-0.049216688,-0.020451538,0.08196123,0.18243022,0.052789066,-0.11623315,-0.11193166,0.116543934,0.00046297925,0.005811871,0.05215264,0.05671792,-0.031745043,-0.061276786,-0.02611246,0.09330607,0.03929588,-0.01714465,-0.073626086,0.087261654,0.77486306,0.3868389,1.4812213,-0.23784608,-0.3931577,-0.34052706,0.30263555,1.0885895,0.5093254,-0.29774833,-0.56031,1.6011243,0.17319825,-0.4940289,-0.29062656,-0.57214576,0.006291637,-0.33930364,0.26174915,0.2517987,0.6138796,-0.5220757,-0.29922673,1.1036873
2025-07-21 14:15:46.584,2.0200000000000014,2020,101,0.06469317,-0.12890357,-0.0016413974,0.025920376,-0.025958622,0.0058610286,0.0,0.0,0.0,-0.20547286,0.13524859,-0.1361713,0.046204798,-0.08026412,-0.033869427,-0.041892476,0.08578902,0.18152668,0.070251994,-0.12154767,-0.12460005,0.113766156,0.047331166,-0.044065837,-0.058823664,-0.06259955,0.052807435,-0.058164176,-0.033438135,-0.08276619,0.046930384,0.026846426,-0.06642815,0.06823359,0.17319825,-0.4940289,-0.29062656,-0.57214576,0.006291637,-0.33930364,0.26174915,0.2517987,0.6138796,-0.5220757,-0.29922673,1.1036873,0.8448016,-0.21382046,1.3411366,-0.34851548,-0.17227595,-0.5616654,0.39260092,0.99037623,0.46792677,-0.35517788,-0.2503611,1.2177378
2025-07-21 14:15:46.601,2.0400000000000014,2040,102,-0.10215985,0.08038873,-0.1283336,0.007884404,-0.046941705,0.034838457,0.0,0.0,0.0,-0.21099843,0.14805743,-0.13776818,0.061890785,-0.06866786,-0.04025887,-0.047118727,0.081159145,0.21852794,0.0620736,-0.12434127,-0.11286229,0.11826279,0.098343454,0.041587777,0.01872112,-0.048801158,-0.030444251,0.0039627478,0.059485506,0.0725867,-0.03023659,0.03681528,0.06982936,0.06227791,0.8448016,-0.21382046,1.3411366,-0.34851548,-0.17227595,-0.5616654,0.39260092,0.99037623,0.46792677,-0.35517788,-0.2503611,1.2177378,0.15538146,-0.54672474,0.199719,-0.48180357,0.030428538,0.009981692,-0.12530772,0.92336816,0.43704838,-0.7049469,-1.4112611,0.8282709
2025-07-21 14:15:46.622,2.0600000000000014,2060,103,0.10967929,-0.1601409,-0.07337324,0.03312133,-0.03150889,0.03376599,0.0,0.0,0.0,-0.21644932,0.13436751,-0.13966799,0.07110416,-0.0699935,-0.04377236,-0.040001098,0.05831612,0.24857274,0.05908178,-0.12837124,-0.13155714,0.13048466,-0.05154654,0.03671913,0.024885572,-0.042439904,0.03928889,0.08658343,-0.074195005,0.08873144,0.047934704,0.021565614,-0.15512034,0.05211732,0.15538146,-0.54672474,0.199719,-0.48180357,0.030428538,0.009981692,-0.12530772,0.92336816,0.43704838,-0.7049469,-1.4112611,0.8282709,0.9679734,-0.19468403,0.8182121,-0.6945014,0.09939516,-0.8474302,0.10940448,0.29091743,0.62970644,-0.1922798,0.2942231,1.4019593
2025-07-21 14:15:46.641,2.0800000000000014,2080,104,-0.012339163,0.10568135,-0.053049035,0.04836159,-0.02409476,0.031041916,0.0,0.0,0.0,-0.22213997,0.1490661,-0.13943739,0.06969376,-0.07676571,-0.017411688,-0.048861012,0.049232673,0.21922605,0.070968755,-0.12873955,-0.13906403,0.13434792,0.027613748,-0.006580868,0.083119094,-0.012220862,0.091647364,-0.04151814,-0.03755186,-0.037413336,0.041987,-0.05616027,0.010389659,-0.050240975,0.9679734,-0.19468403,0.8182121,-0.6945014,0.09939516,-0.8474302,0.10940448,0.29091743,0.62970644,-0.1922798,0.2942231,1.4019593,0.17156163,-0.10729551,0.5802909,-0.5375207,-0.9564564,-0.03328961,-0.20422924,0.7956874,0.95235306,-0.49886566,-0.8814205,1.2446691
2025-07-21 14:15:46.667,2.1000000000000014,2100,105,0.09081309,-0.1116007,-0.122873746,0.00705907,-0.06810111,0.041746315,0.0,0.0,0.0,-0.2289274,0.15939532,-0.123461604,0.071074374,-0.07504126,-0.07270699,-0.035750512,0.032437284,0.23832253,0.088265605,-0.11876443,-0.13152045,0.14088273,0.05714709,0.007709406,-0.07089388,-0.015501195,-0.14724953,0.008852334,-0.09730316,0.072577894,0.0026352021,0.013401513,0.00237033,-0.023141082,0.17156163,-0.10729551,0.5802909,-0.5375207,-0.9564564,-0.03328961,-0.20422924,0.7956874,0.95235306,-0.49886566,-0.8814205,1.2446691,0.51985645,-0.12940037,0.74028015,-0.56252676,0.16784237,-0.24068952,0.31844926,0.44039977,0.9005415,-0.4406345,-0.44423094,1.1568916
2025-07-21 14:15:46.685,2.1200000000000014,2120,106,-0.041553613,0.04596378,-0.05513401,0.05559943,0.024970945,-0.040507678,0.0,0.0,0.0,-0.23461492,0.15929934,-0.1264515,0.07172335,-0.08413528,-0.064715296,-0.03647116,0.047841273,0.22993965,0.09422554,-0.123592496,-0.13105045,0.15135212,0.08206483,-0.0025619604,-0.04656639,-0.026180655,0.09368415,0.011744238,-0.023953533,0.0053800424,0.0027943,-0.043119945,-0.08101101,-0.031423375,0.51985645,-0.12940037,0.74028015,-0.56252676,0.16784237,-0.24068952,0.31844926,0.44039977,0.9005415,-0.4406345,-0.44423094,1.1568916,0.5637182,0.13130474,0.7465351,-0.5286813,-0.7371871,-0.16047865,0.15665886,0.78349113,0.93964404,-0.18412594,0.11139293,1.4744898
2025-07-21 14:15:46.702,2.1400000000000015,2140,107,-0.098106615,0.0574309,-0.04184047,0.044116586,-0.064034104,0.0025917224,0.0,0.0,0.0,-0.2403906,0.15675032,-0.088819735,0.07174507,-0.07878533,-0.092955194,-0.034293827,0.029032705,0.24144444,0.10109542,-0.12849595,-0.10929415,0.14565453,0.08959491,0.046682436,0.07418859,-0.049089417,-0.036046177,-0.054099467,-0.07129105,-0.014712659,0.03478808,-0.030889185,0.041307017,-0.034984283,0.5637182,0.13130474,0.7465351,-0.5286813,-0.7371871,-0.16047865,0.15665886,0.78349113,0.93964404,-0.18412594,0.11139293,1.4744898,-0.029036742,-0.4693718,0.25044796,-0.36185178,-0.2390152,0.08224785,-0.12888555,1.3790934,0.9608269,-0.64065015,-1.0406389,1.260651
2025-07-21 14:15:46.722,2.1600000000000015,2160,108,0.07404004,-0.11432147,0.010877261,0.052975055,-0.033441447,-0.043860286,0.0,0.0,0.0,-0.24697468,0.15319332,-0.10370546,0.05208229,-0.079191335,-0.10325866,-0.03691803,0.03291126,0.29006326,0.119438834,-0.13607761,-0.107409045,0.15568656,-0.093101874,-0.06911631,-0.070725225,-0.005486401,-0.07140075,-0.027617516,-0.020253109,0.059259735,-0.037117846,0.030005356,-0.029208774,0.08601735,-0.029036742,-0.4693718,0.25044796,-0.36185178,-0.2390152,0.08224785,-0.12888555,1.3790934,0.9608269,-0.64065015,-1.0406389,1.260651,0.33117592,0.57392454,1.0851268,-0.32749808,-0.21171668,-0.6109332,-0.11264161,0.8350962,0.7981741,-0.10423243,-0.34704438,1.8134097
2025-07-21 14:15:46.742,2.1800000000000015,2180,109,0.027009383,0.025169251,-0.0043333555,0.053737305,0.0228823,0.010835192,0.0,0.0,0.0,-0.25,0.14444213,-0.10827187,0.067212895,-0.073071614,-0.09124089,-0.039255418,0.02086133,0.31735083,0.10645094,-0.13691387,-0.10624115,0.17994884,-0.049793348,0.062172454,0.06597515,0.022757212,-0.032289185,0.04690123,0.009893424,0.01879054,-0.010195288,0.061090436,0.007846047,0.086383455,0.33117592,0.57392454,1.0851268,-0.32749808,-0.21171668,-0.6109332,-0.11264161,0.8350962,0.7981741,-0.10423243,-0.34704438,1.8134097,0.17904516,-0.23574758,0.20513953,-0.46976176,-0.23026435,0.059087813,-0.22468483,1.2189379,0.8284819,-0.45865488,-1.4767731,1.5382463
2025-07-21 14:15:46.767,2.2000000000000015,2200,110,0.17356896,0.023296231,0.0019591418,0.023355642,-0.051907465,0.01816693,0.0,0.0,0.0,-0.25,0.14532664,-0.09937987,0.05569232,-0.07016661,-0.093214326,-0.03035479,0.00974533,0.34215015,0.123501614,-0.1473096,-0.12797838,0.19896667,0.037730925,-0.054612793,-0.024721615,0.0043818606,0.04746321,0.018101547,-0.05578885,0.119624205,0.075150125,0.03863466,-0.008258687,0.09334412,0.17904516,-0.23574758,0.20513953,-0.46976176,-0.23026435,0.059087813,-0.22468483,1.2189379,0.8284819,-0.45865488,-1.4767731,1.5382463,0.2685505,0.28107095,1.3608391,-0.87936836,-0.5912187,-0.70448446,-0.077550165,0.3472592,1.5016044,-0.25345117,-0.5346127,1.809291
2025-07-21 14:15:46.784,2.2200000000000015,2220,111,0.091870256,0.022026395,0.01851058,0.048780866,-0.05627408,-0.022895783,0.0,0.0,0.0,-0.25,0.13922942,-0.09849981,0.06016009,-0.08722279,-0.12012687,-0.040290814,0.011971603,0.31873298,0.13018082,-0.13831368,-0.14444044,0.2031769,0.04942822,-0.016886488,0.06327187,0.026703304,-0.0816357,-0.05224924,-0.0833329,-0.1127703,0.048057176,-0.014074373,0.0068397056,-0.0029468394,0.2685505,0.28107095,1.3608391,-0.87936836,-0.5912187,-0.70448446,-0.077550165,0.3472592,1.5016044,-0.25345117,-0.5346127,1.809291,0.073396936,0.14916027,0.5927784,-0.112231515,0.22796012,0.61099267,-0.41679975,1.2215383,1.7418573,-0.33318782,-0.99286157,1.0496237
2025-07-21 14:15:46.804,2.2400000000000015,2240,112,-0.028735619,0.061774123,-0.090300985,0.024676865,0.010163707,0.019091954,0.0,0.0,0.0,-0.25,0.13682543,-0.07535302,0.07116374,-0.07848912,-0.10716241,-0.023863992,-0.020144144,0.3438103,0.1668169,-0.13229258,-0.15639977,0.20390017,-0.06838015,0.068101555,0.05918561,0.011792455,0.039867476,0.01601973,-0.0397305,0.080846354,0.03841093,-0.06894306,-0.073790155,0.02598908,0.073396936,0.14916027,0.5927784,-0.112231515,0.22796012,0.61099267,-0.41679975,1.2215383,1.7418573,-0.33318782,-0.99286157,1.0496237,0.32468143,-0.14976424,0.3940477,-0.565652,-0.7325143,-0.6217671,-0.30540666,0.886053,1.3243306,-0.048237413,0.5744912,1.7854515
2025-07-21 14:15:46.823,2.2600000000000016,2260,113,-0.01293954,0.06423153,0.1308285,0.010706345,-0.07789424,-0.005590785,0.0,0.0,0.0,-0.25,0.124790534,-0.06469868,0.059872337,-0.07658061,-0.106480524,-0.04366038,-0.016313314,0.3526832,0.16321065,-0.12739529,-0.14903708,0.20622551,-0.050517384,0.07383222,-0.067763105,0.0033895066,-0.07047846,-0.028193679,-0.08604669,0.062659,0.005059708,-0.01740122,0.09938819,-0.047837626,0.32468143,-0.14976424,0.3940477,-0.565652,-0.7325143,-0.6217671,-0.30540666,0.886053,1.3243306,-0.048237413,0.5744912,1.7854515,-0.2763433,-0.4031794,0.58630633,-0.30836463,-0.3632595,0.28099817,-0.34060887,0.7390563,0.6626159,-0.32784015,-1.5733196,1.8017519
2025-07-21 14:15:46.842,2.2800000000000016,2280,114,0.14325808,-0.08088448,0.16828999,-0.030531451,0.009474782,-1.0250081e-05,0.0,0.0,0.0,-0.25,0.1160518,-0.065367974,0.07438531,-0.08535009,-0.12662987,-0.021766393,-0.033786543,0.3348016,0.16542174,-0.11730206,-0.14776398,0.21079054,0.023150202,-0.027916756,-0.019361898,-0.017710483,-0.06283174,0.08421794,-0.06031121,-0.075262524,-0.088576145,0.060713954,-0.05827438,0.039746817,-0.2763433,-0.4031794,0.58630633,-0.30836463,-0.3632595,0.28099817,-0.34060887,0.7390563,0.6626159,-0.32784015,-1.5733196,1.8017519,0.5835526,0.443789,1.5710791,-0.033348642,0.4255449,-0.0033839345,-0.06054405,1.1050208,1.0192717,-0.23786631,-0.788613,1.207235
2025-07-21 14:15:46.867,2.3000000000000016,2300,115,-0.03887628,0.15219164,-0.05325101,-0.050757106,-0.02174087,0.011972719,0.0,0.0,0.0,-0.25,0.12546527,-0.061224055,0.07891046,-0.0759609,-0.103020474,-0.032633845,-0.016829833,0.36243218,0.15158477,-0.12728149,-0.17833966,0.21076271,-0.035867438,0.10159607,0.05325001,0.08842926,0.08408457,-0.041150734,0.016723884,0.09257751,-0.028018415,0.048855957,0.015512063,0.06544948,0.5835526,0.443789,1.5710791,-0.033348642,0.4255449,-0.0033839345,-0.06054405,1.1050208,1.0192717,-0.23786631,-0.788613,1.207235,0.37067777,-0.536345,-0.2764008,-0.60441947,-0.82251763,-0.5783719,-0.37074083,1.2780447,0.8513906,-0.27797666,-0.23734482,1.4227504
2025-07-21 14:15:46.883,2.3200000000000016,2320,116,0.024211975,0.023220185,0.10551795,0.029662285,-0.00027441033,-0.045990027,0.0,0.0,0.0,-0.25,0.116489656,-0.058291346,0.07001011,-0.07360056,-0.114613354,-0.025995119,-0.041352402,0.39898613,0.14949511,-0.10933557,-0.16125531,0.22106709,-0.07769926,0.033564966,-0.11091357,-0.05830642,-0.051312104,-0.09798929,0.0072090826,0.09695606,0.039458446,0.08320562,0.025527252,-0.07482754,0.37067777,-0.536345,-0.2764008,-0.60441947,-0.82251763,-0.5783719,-0.37074083,1.2780447,0.8513906,-0.27797666,-0.23734482,1.4227504,-0.025193732,0.12677824,1.2015724,-0.7132803,-0.566189,-0.44424808,0.14788786,9.94578e-05,0.72483325,-0.14920333,-1.0874684,1.786737
2025-07-21 14:15:46.902,2.3400000000000016,2340,117,0.047103025,-0.099698424,-0.049106933,-0.019653205,-0.04425851,0.04466297,0.0,0.0,0.0,-0.25,0.117373146,-0.064497136,0.07225472,-0.08099144,-0.13901561,-0.040867247,-0.022161381,0.3637891,0.13927026,-0.10474164,-0.16565919,0.23106761,-0.020694071,-0.002606597,0.009707825,-0.081280984,-0.121602565,0.052349575,0.058435377,-0.15447439,-0.07212327,0.06327521,-0.080403134,0.058149997,-0.025193732,0.12677824,1.2015724,-0.7132803,-0.566189,-0.44424808,0.14788786,9.94578e-05,0.72483325,-0.14920333,-1.0874684,1.786737,0.6607612,0.35128605,1.1240165,-0.2313263,0.711944,0.5753324,0.36692947,0.2462965,0.5878905,-0.49492216,-0.66320246,1.0205634
2025-07-21 14:15:46.922,2.3600000000000017,2360,118,-0.04904688,0.031087447,-0.08285062,-0.04419595,-0.078611225,-0.035715327,0.0,0.0,0.0,-0.25,0.1132475,-0.031423755,0.075428516,-0.084111944,-0.10721371,-0.01417824,-0.019301405,0.31097305,0.12964502,-0.12197611,-0.19321093,0.20837788,0.015214873,0.10030408,0.0006261745,0.0049268557,0.24411468,-0.0027076984,-0.026934754,-0.08427209,-0.025103563,0.0237436,0.008224048,-0.0035645098,0.6607612,0.35128605,1.1240165,-0.2313263,0.711944,0.5753324,0.36692947,0.2462965,0.5878905,-0.49492216,-0.66320246,1.0205634,0.51427937,-0.38675874,0.061186932,-0.33907953,-0.65736365,-0.7664139,0.042623468,1.3323642,0.582197,-0.3786081,0.43019605,0.9645912
2025-07-21 14:15:46.944,2.3800000000000017,2380,119,-0.13139296,-0.011053763,0.04984428,0.014057688,-0.08277882,0.044196192,0.0,0.0,0.0,-0.25,0.12101031,-0.040961385,0.06464429,-0.07624303,-0.100357264,-0.0319083,-0.011167,0.3370457,0.13184603,-0.110791676,-0.16597128,0.19153988,0.052251857,-0.00049582735,0.021119896,-0.04941179,-0.1282563,0.036170833,0.070128076,0.1353019,-0.0090264855,-0.030092275,0.059941597,-0.06624124,0.51427937,-0.38675874,0.061186932,-0.33907953,-0.65736365,-0.7664139,0.042623468,1.3323642,0.582197,-0.3786081,0.43019605,0.9645912,-0.16305383,-0.032621983,1.020586,-0.25487202,0.13988511,-0.07327655,-0.135424,0.3326272,0.6806443,-0.30173403,-1.5746479,1.8976556
2025-07-21 14:15:46.967,2.4000000000000017,2400,120,-0.011849838,-0.16008152,-0.068946525,0.0037642277,-0.04748118,0.041028216,0.0,0.0,0.0,-0.25,0.11864674,-0.03723309,0.06865423,-0.07608483,-0.08455278,-0.027006153,-0.0022308652,0.30834505,0.12971433,-0.10823041,-0.14600272,0.2108796,0.0113256,-0.05276782,0.08123942,-0.035582874,0.008772227,-0.0070074555,-0.08030324,-0.1171596,-0.0418392,-0.029697303,-0.017341375,0.025658311,-0.16305383,-0.032621983,1.020586,-0.25487202,0.13988511,-0.07327655,-0.135424,0.3326272,0.6806443,-0.30173403,-1.5746479,1.8976556,0.71551186,0.011284586,0.95174,-0.38948545,0.21783201,-0.1466196,0.32173043,0.7363903,0.54778516,-0.509816,-0.38366303,0.89220595
2025-07-21 14:15:46.985,2.4200000000000017,2420,121,-0.012284987,-0.015908023,-0.1711157,-0.02782067,-0.042253714,-0.024622329,0.0,0.0,0.0,-0.25,0.11092084,-0.03407186,0.07211904,-0.06354206,-0.05600522,-0.030713445,-0.0032638602,0.31861168,0.11638439,-0.107017756,-0.14327995,0.20773049,-0.031295996,0.08321255,-0.016391112,0.025908628,0.045582164,0.013054286,0.059034485,-0.054817826,-0.0007922979,-0.06317544,-0.00033825895,-0.054418284,0.71551186,0.011284586,0.95174,-0.38948545,0.21783201,-0.1466196,0.32173043,0.7363903,0.54778516,-0.509816,-0.38366303,0.89220595,0.5938583,-0.5106085,-0.01794622,-0.42646983,-0.33020055,-0.34567916,0.49814093,1.1797388,0.25134906,-0.53825945,-0.15322424,0.7528339
2025-07-21 14:15:47.003,2.4400000000000017,2440,122,0.07623155,-0.010270358,-0.0007860362,0.020219957,-0.063024335,0.01096118,0.0,0.0,0.0,-0.25,0.11328749,-0.04439232,0.06962126,-0.0693292,-0.054440163,-0.037838623,0.018994436,0.33393165,0.09537796,-0.12735024,-0.14744622,0.18656042,-0.057119906,-0.08646129,0.0219814,0.0032524178,0.0061658546,-0.03340908,0.06772122,0.07979223,-0.025959484,0.06457294,-0.034053482,-0.109755844,0.5938583,-0.5106085,-0.01794622,-0.42646983,-0.33020055,-0.34567916,0.49814093,1.1797388,0.25134906,-0.53825945,-0.15322424,0.7528339,0.47500083,0.48163342,1.0849023,-0.45316845,-0.4666495,-0.73805827,0.43106622,0.3391582,0.74791557,-0.018666089,-0.6004532,1.9414278
2025-07-21 14:15:47.025,2.4600000000000017,2460,123,0.07253142,0.0034373007,-0.10459931,-0.012507787,0.0027013002,0.045776624,0.0,0.0,0.0,-0.25,0.13125907,-0.0519817,0.07814521,-0.067572355,-0.083269075,-0.039750285,0.013183079,0.30889687,0.10360278,-0.113034904,-0.16272672,0.202616,0.004911564,0.0113767795,0.06601598,0.022448154,-0.11185108,-0.034992877,0.09732911,-0.086091176,-0.054350603,-0.011971801,-0.030294193,-0.014607682,0.47500083,0.48163342,1.0849023,-0.45316845,-0.4666495,-0.73805827,0.43106622,0.3391582,0.74791557,-0.018666089,-0.6004532,1.9414278,0.7481131,-0.115609884,0.28002882,-0.39807096,0.11411933,0.40891585,0.2862271,1.0473574,0.67448175,-0.6425133,-0.5994947,1.1413068
2025-07-21 14:15:47.054,2.4800000000000018,2480,124,-0.03741976,-0.0077159614,-0.07882919,-0.005018192,-0.009677964,0.021035403,0.0,0.0,0.0,-0.25,0.1293269,-0.043671377,0.06229332,-0.06434528,-0.07753103,-0.029709598,0.026798854,0.33347175,0.10557123,-0.10810984,-0.16055745,0.20377986,0.0057646474,-0.019821102,-0.035335608,0.04563812,0.10423439,0.057252638,0.009195097,0.047656212,0.021597754,-0.0058475635,-0.027855996,-0.07345362,0.7481131,-0.115609884,0.28002882,-0.39807096,0.11411933,0.40891585,0.2862271,1.0473574,0.67448175,-0.6425133,-0.5994947,1.1413068,0.6052578,-0.2649719,0.6576303,-0.4859538,-0.34015036,-0.5021622,0.18535736,0.8024005,0.73590213,-0.3018388,0.10880922,1.3165926
2025-07-21 14:15:47.070,2.5000000000000018,2500,125,-0.018566687,-0.0042153373,0.007181378,-0.016894849,-0.066931784,0.012000168,0.0,0.0,0.0,-0.25,0.1308273,-0.04598115,0.07935273,-0.07381423,-0.07393015,-0.050302308,0.023252375,0.3203821,0.115960754,-0.118795864,-0.15175171,0.19945304,-0.05913793,-0.009227996,-0.06038058,0.0036913874,-0.0075822626,-0.045512483,-0.059836663,-0.027034594,-0.06991885,-0.0045327973,0.10219457,0.031940628,0.6052578,-0.2649719,0.6576303,-0.4859538,-0.34015036,-0.5021622,0.18535736,0.8024005,0.73590213,-0.3018388,0.10880922,1.3165926,0.25179765,-0.2894485,0.54160815,-0.3320242,-0.015256008,-0.010549992,0.12011694,1.1719121,0.5129455,-0.40857363,-1.1908513,1.3795912
2025-07-21 14:15:47.088,2.520000000000002,2520,126,0.060992174,-0.055144385,0.04690896,-0.018090762,-0.029388318,0.029049028,0.0,0.0,0.0,-0.25,0.14041832,-0.06152842,0.07936109,-0.07684548,-0.07413239,-0.03709902,0.01594339,0.3467582,0.1039769,-0.117999785,-0.13990262,0.19301865,0.04745903,-0.05235739,-0.05652393,-0.03381111,0.007600259,-0.068845235,-0.06369889,0.12406283,0.02997206,-0.003943231,-0.10174669,-0.013068726,0.25179765,-0.2894485,0.54160815,-0.3320242,-0.015256008,-0.010549992,0.12011694,1.1719121,0.5129455,-0.40857363,-1.1908513,1.3795912,0.62776196,0.21411622,1.1792672,-0.7429986,-0.25566366,-0.7486079,-0.08985881,0.61000305,1.0855858,-0.21747017,-0.10434379,1.8369676
2025-07-21 14:15:47.106,2.540000000000002,2540,127,-0.057709225,0.019197965,0.022696875,0.02654844,-0.041329466,-0.034389235,0.0,0.0,0.0,-0.25,0.12942028,-0.039937925,0.07796648,-0.07993288,-0.08461049,-0.05518777,0.022395069,0.33875817,0.10661325,-0.10315552,-0.13870168,0.21185954,0.08276733,0.11938122,0.045694493,-0.07424925,-0.07425713,0.037361067,-0.06365928,-0.057932183,0.014982153,0.07584458,0.058598798,0.0029856553,0.62776196,0.21411622,1.1792672,-0.7429986,-0.25566366,-0.7486079,-0.08985881,0.61000305,1.0855858,-0.21747017,-0.10434379,1.8369676,-0.06783627,-0.9101831,0.21121389,-0.31524548,0.12936713,0.5315733,-0.39553994,1.0523343,0.90553635,-0.6928935,-1.4193379,1.0332506
2025-07-21 14:15:47.126,2.560000000000002,2560,128,0.046469163,-0.100316286,-0.027931979,-0.05096737,0.011048362,-0.020419268,0.0,0.0,0.0,-0.25,0.12307224,-0.045086067,0.080117665,-0.08378503,-0.05344662,-0.02633492,0.005964072,0.35824105,0.1256575,-0.11100789,-0.14007838,0.20177586,-0.07068509,-0.026012883,0.031073669,-0.012390059,0.024998408,0.082296915,0.015421881,0.09970761,0.041424833,-0.056540433,0.010065665,-0.031489585,-0.06783627,-0.9101831,0.21121389,-0.31524548,0.12936713,0.5315733,-0.39553994,1.0523343,0.90553635,-0.6928935,-1.4193379,1.0332506,0.56710917,0.14299798,0.9870892,-0.47821012,-0.19364183,-0.5008373,0.16576727,0.39585212,0.88588953,-0.08857417,-0.08283247,1.185591
2025-07-21 14:15:47.150,2.580000000000002,2580,129,-0.04049631,0.04217944,0.00999568,-0.0543424,-0.03910839,0.037112664,0.0,0.0,0.0,-0.25,0.11539831,-0.031452987,0.06797147,-0.07940605,-0.057452887,-0.0407808,-0.004286374,0.32969096,0.11487049,-0.11503639,-0.13143034,0.19524051,-0.0037702357,0.008888841,-0.037800398,0.032878865,0.037371192,0.05126646,-0.058963943,-0.05453934,0.030491969,0.04577655,-0.009651896,0.04970938,0.56710917,0.14299798,0.9870892,-0.47821012,-0.19364183,-0.5008373,0.16576727,0.39585212,0.88588953,-0.08857417,-0.08283247,1.185591,0.5033159,-0.2343471,0.42669883,-0.5757631,-0.39482874,-0.034858286,0.044431098,1.0398409,0.9690032,-0.3752057,-0.7468456,1.445582
2025-07-21 14:15:47.168,2.600000000000002,2600,130,0.08432737,-0.063114196,-0.08881416,0.017027045,-0.055204783,-0.018004065,0.0,0.0,0.0,-0.25,0.13170423,-0.042006116,0.081369944,-0.08978927,-0.06952245,-0.04059153,-0.0019194321,0.34410447,0.13648482,-0.113738835,-0.12992577,0.2058852,-0.02985868,-0.088747665,-0.03984698,0.06161664,-0.039528232,-0.019412214,-0.011235929,0.10789241,0.06369334,0.06622097,-0.06823083,-0.032592937,0.5033159,-0.2343471,0.42669883,-0.5757631,-0.39482874,-0.034858286,0.044431098,1.0398409,0.9690032,-0.3752057,-0.7468456,1.445582,0.55746037,0.35016155,0.74228024,-0.5642837,-0.28256142,-0.46575123,0.27631503,0.38780713,1.0699638,-0.10128738,0.06858532,2.0
2025-07-21 14:15:47.186,2.620000000000002,2620,131,-0.07612163,0.0013722111,0.044998657,-0.010805791,-0.05265918,0.012218497,0.0,0.0,0.0,-0.25,0.13897842,-0.01538694,0.0701465,-0.07698334,-0.0900074,-0.0416952,0.011604006,0.31387007,0.12685236,-0.093614556,-0.122677386,0.2106792,0.076880515,0.12698478,-0.00932309,-0.024549222,0.033245638,0.0134311225,0.008745514,-0.035421286,0.08066499,0.029980814,0.1385924,0.073527485,0.55746037,0.35016155,0.74228024,-0.5642837,-0.28256142,-0.46575123,0.27631503,0.38780713,1.0699638,-0.10128738,0.06858532,2.0,-0.005382668,-1.1923231,0.38378796,-0.388839,-0.4267788,0.32362506,-0.18967615,1.0984328,0.68109816,-0.8730733,-1.4573838,0.99584866
2025-07-21 14:15:47.206,2.640000000000002,2640,132,0.0781858,-0.044430826,-0.038109098,0.025800219,0.01644504,-0.0065881326,0.0,0.0,0.0,-0.25,0.11892725,-0.021629687,0.07705644,-0.093863904,-0.10123774,-0.027597055,0.0076912423,0.3225691,0.13080217,-0.10455675,-0.13651209,0.20090096,-0.08808131,-0.08660427,0.052443106,-0.062278967,0.033377577,-0.02054304,0.034783535,-0.014552473,-0.03024694,-0.089501046,0.008347288,-0.033119462,-0.005382668,-1.1923231,0.38378796,-0.388839,-0.4267788,0.32362506,-0.18967615,1.0984328,0.68109816,-0.8730733,-1.4573838,0.99584866,0.63357025,0.48421896,0.97093266,0.01292696,-0.050307952,-0.28693917,0.45186538,0.6177539,0.90802556,-0.20574737,-0.18073232,0.7943655
2025-07-21 14:15:47.234,2.660000000000002,2660,133,-0.09665427,0.08673204,-0.021936215,-0.042788852,-0.042030692,-0.013584564,0.0,0.0,0.0,-0.25,0.12883395,-0.0030073344,0.07011285,-0.07599841,-0.09028474,-0.034427807,0.016855417,0.31938243,0.140133,-0.107616894,-0.1139477,0.17778005,0.013808785,0.071311414,0.058056865,-0.0076769097,-0.02497049,-0.061322473,0.06713573,-0.046546124,0.004683666,-0.058817048,0.080419995,-0.015847603,0.63357025,0.48421896,0.97093266,0.01292696,-0.050307952,-0.28693917,0.45186538,0.6177539,0.90802556,-0.20574737,-0.18073232,0.7943655,0.326053,-0.3738804,0.029927338,-0.3338417,-0.25798714,0.09496793,0.11908687,1.7135248,0.89492315,-0.4522834,-0.7194709,1.0465065
2025-07-21 14:15:47.256,2.680000000000002,2680,134,0.072627336,-0.00259518,-0.014087829,0.035400815,0.021707935,0.008511312,0.0,0.0,0.0,-0.25,0.1335939,-0.0039619994,0.07302045,-0.08163327,-0.083278716,-0.035587255,0.008774734,0.36490837,0.1251477,-0.117789686,-0.13440801,0.18703127,0.045607653,0.005618876,0.007119579,0.010477431,-0.067755915,0.080394246,-0.07307687,0.12963633,-0.042205803,0.06170805,-0.109177195,-0.058286317,0.326053,-0.3738804,0.029927338,-0.3338417,-0.25798714,0.09496793,0.11908687,1.7135248,0.89492315,-0.4522834,-0.7194709,1.0465065,0.41959307,-0.096239686,0.9379304,-0.44148543,-0.24613611,-0.52563846,-0.12815988,0.71423703,1.0231833,-0.13544717,0.10100393,1.6638578
2025-07-21 14:15:47.272,2.700000000000002,2700,135,-0.04343012,0.040746327,0.021555848,-0.058833066,0.020929018,0.004847693,0.0,0.0,0.0,-0.25,0.1260004,-0.012251179,0.07395395,-0.06693246,-0.0933185,-0.029063793,0.0049028858,0.37247798,0.14326158,-0.09898705,-0.123673774,0.18653117,0.06161908,0.016559668,0.050420597,0.07476873,0.005742383,-0.0021888902,-0.07236813,-0.06755607,-0.049786728,-0.015188946,0.09716173,0.017995989,0.41959307,-0.096239686,0.9379304,-0.44148543,-0.24613611,-0.52563846,-0.12815988,0.71423703,1.0231833,-0.13544717,0.10100393,1.6638578,0.107585296,-0.6453265,0.31490448,-0.3788406,-0.25672632,0.2171551,-0.20605993,1.5422276,0.85800165,-0.5089791,-1.254398,1.1011801
2025-07-21 14:15:47.298,2.720000000000002,2720,136,0.10291397,-0.023606757,0.021350324,0.023219276,0.02303169,-0.00833638,0.0,0.0,0.0,-0.25,0.12021865,-0.031416573,0.056019098,-0.083155304,-0.08744426,-0.030235905,0.007256072,0.3885325,0.14596625,-0.098896444,-0.1310842,0.18146588,-0.026094226,-0.08010502,-0.07145006,0.030458074,-0.08152043,-0.0008468997,-0.07249876,0.13655525,-0.010462127,-0.050383795,-0.0032300483,0.059209403,0.107585296,-0.6453265,0.31490448,-0.3788406,-0.25672632,0.2171551,-0.20605993,1.5422276,0.85800165,-0.5089791,-1.254398,1.1011801,0.53864056,0.46701157,1.0450822,-0.53702295,-0.10833376,-0.5942175,0.10272225,0.5307733,1.1325951,-0.16479123,-0.5605927,1.6766213
2025-07-21 14:15:47.317,2.740000000000002,2740,137,0.060918093,0.01685188,-0.059641205,0.0017865808,-0.02299918,-0.048051335,0.0,0.0,0.0,-0.25,0.12823631,-0.043663483,0.06797912,-0.08408044,-0.09792238,-0.03083271,-0.005421973,0.38335449,0.14126249,-0.0969726,-0.13316548,0.20008782,0.01324493,0.10778023,-0.05783139,-0.030769825,0.06577454,-0.09058328,-0.05750776,-0.111627735,0.038194522,-0.0280149,-0.064714275,0.00822561,0.53864056,0.46701157,1.0450822,-0.53702295,-0.10833376,-0.5942175,0.10272225,0.5307733,1.1325951,-0.16479123,-0.5605927,1.6766213,0.4612377,-0.5665675,0.19155705,-0.63035953,-0.7656281,-0.17735235,0.09102061,0.84309775,0.95761275,-0.5078654,-0.023409266,1.1848208
2025-07-21 14:15:47.334,2.760000000000002,2760,138,0.011810495,0.014908851,0.029482177,-0.0078031803,-0.0567674,-0.0023982543,0.0,0.0,0.0,-0.25,0.12013538,-0.044911947,0.0613549,-0.08782029,-0.12786758,-0.034576066,0.0051354137,0.3803084,0.13710146,-0.09924079,-0.1325565,0.19879742,-0.06944844,0.022366961,-0.026178664,0.061298046,-0.049608346,-0.009543527,0.0040474697,-0.07403083,0.04375253,-0.04952311,0.042017907,-0.0150354905,0.4612377,-0.5665675,0.19155705,-0.63035953,-0.7656281,-0.17735235,0.09102061,0.84309775,0.95761275,-0.5078654,-0.023409266,1.1848208,0.12220435,-0.107206106,0.93700063,-0.25302756,0.087602444,0.029664189,0.3408102,0.7501783,0.9829051,-0.24512944,-0.8218712,1.2007575
2025-07-21 14:15:47.355,2.780000000000002,2780,139,-0.08880224,0.047438946,-0.068565175,-0.026012518,-0.02831986,0.011994382,0.0,0.0,0.0,-0.25,0.12210958,-0.038002778,0.075201266,-0.07629274,-0.1218254,-0.041735403,0.013375525,0.3755307,0.14241347,-0.096900344,-0.11284789,0.1893495,0.040496856,0.026935847,-0.014262204,-0.063833386,0.12818107,-0.034456607,0.03478622,0.008798151,-0.0293151,0.0010906709,-0.041347213,0.03448778,0.12220435,-0.107206106,0.93700063,-0.25302756,0.087602444,0.029664189,0.3408102,0.7501783,0.9829051,-0.24512944,-0.8218712,1.2007575,0.7682312,-0.12420988,0.49222603,-0.6933764,-0.47131428,-0.42746127,0.3108735,0.6583215,0.80861104,-0.1825001,0.09515081,1.4791981
2025-07-21 14:15:47.373,2.800000000000002,2800,140,-0.05506902,0.13238104,0.032432783,-0.019341607,-0.011173938,0.03674786,0.0,0.0,0.0,-0.25,0.11839691,-0.048238505,0.06783405,-0.07835859,-0.12805966,-0.043970212,0.019901922,0.34524736,0.13753922,-0.09425406,-0.100979574,0.1958557,-0.01057008,-0.05359482,-0.01799275,-0.035663348,-0.013509338,-0.052776627,0.08116601,-0.060350597,-0.054738816,0.071989946,0.089456365,0.0330852,0.7682312,-0.12420988,0.49222603,-0.6933764,-0.47131428,-0.42746127,0.3108735,0.6583215,0.80861104,-0.1825001,0.09515081,1.4791981,0.31058872,0.20579457,1.1291554,-0.24320729,0.19601126,0.3070004,0.17145027,1.1678603,0.71500313,-0.3710984,-1.5651398,1.6953418
