openverse-orca/OrcaGym/log/simulation_log_20250721_162539.csv
timestamp,sim_time,physics_step,control_step,imu_angle_roll,imu_angle_pitch,imu_angle_yaw,imu_angular_velocity_roll,imu_angular_velocity_pitch,imu_angular_velocity_yaw,imu_acc_x,imu_acc_y,imu_acc_z,fl_joint1_pos,fl_joint1_vel,fl_joint1_torque,fl_joint2_pos,fl_joint2_vel,fl_joint2_torque,fl_joint3_pos,fl_joint3_vel,fl_joint3_torque,fr_joint1_pos,fr_joint1_vel,fr_joint1_torque,fr_joint2_pos,fr_joint2_vel,fr_joint2_torque,fr_joint3_pos,fr_joint3_vel,fr_joint3_torque,hl_joint1_pos,hl_joint1_vel,hl_joint1_torque,hl_joint2_pos,hl_joint2_vel,hl_joint2_torque,hl_joint3_pos,hl_joint3_vel,hl_joint3_torque,hr_joint1_pos,hr_joint1_vel,hr_joint1_torque,hr_joint2_pos,hr_joint2_vel,hr_joint2_torque,hr_joint3_pos,hr_joint3_vel,hr_joint3_torque,fl_force_x,fl_force_y,fl_force_z,fr_force_x,fr_force_y,fr_force_z,hl_force_x,hl_force_y,hl_force_z,hr_force_x,hr_force_y,hr_force_z,fl_hip_action,fl_thigh_action,fl_calf_action,fr_hip_action,fr_thigh_action,fr_calf_action,hl_hip_action,hl_thigh_action,hl_calf_action,hr_hip_action,hr_thigh_action,hr_calf_action
2025-07-21 16:25:39.567,0.0,0,0,-0.16062973,0.026864398,-0.076917075,0.03913943,0.048316862,0.00893973,-0.03500936,0.041001733,0.019113056,0.0,0.0,0.0,0.0,0.5,0.0,0.0,0.005266984,-0.0026524744,-0.0025380244,0.009449633,0.0048022885,-0.0004484471,-0.005369045,-0.0025327741,0.004797614,-0.0056810547,-0.0061658663,-0.009470427,-0.017999275,-0.031618495,0.046452425,-0.040287595,-0.023646355,0.029503712,0.025930293,-0.039312318,-0.05359883,-0.03047267,-0.058138605,-0.03536216,0.0,0.0,0.0,0.0,0.0,0.0,0.0,0.0,0.0,0.0,0.0,0.0,-1.0,1.0,-1.0,1.0,-0.37358394,1.0,-1.0,-1.0,1.0,1.0,-0.79828566,-1.0
2025-07-21 16:25:39.579,0.02,20,1,-0.18782173,0.05026812,0.15854037,0.09758678,-0.011557613,-0.12877202,-0.024027348,-0.022602005,-0.0030316468,0.0,0.0,0.0,0.0,0.5,0.0,0.0,-0.016415836,0.03596661,-0.032569394,0.020601941,-0.016541965,0.015932966,-0.012675623,-0.047590934,0.032946087,0.018657068,-0.050861,-0.019658111,-0.03222278,0.08364593,-0.11776727,-0.039481647,0.014678891,0.100901745,-0.10823217,-0.059140526,0.05961324,0.025127733,-0.152711,-0.11511046,-1.0,1.0,-1.0,1.0,-0.37358394,1.0,-1.0,-1.0,1.0,1.0,-0.79828566,-1.0,1.0,1.0,-1.0,1.0,1.0,1.0,-1.0,-1.0,1.0,-1.0,1.0,-1.0
2025-07-21 16:25:39.599,0.04,40,2,-0.07445885,0.07024937,0.056232195,-0.06466498,-0.07413381,-0.06871706,0.042303614,0.008532989,-0.027911814,0.0,0.0,0.0,0.0,0.5,0.0,0.0,-0.0051208767,0.100211084,-0.059970964,0.030542498,-0.0035517896,0.0345793,-0.03097392,-0.0854934,0.05178419,0.00115028,-0.035858415,-0.052382145,0.01504063,0.15713021,-0.08000658,-0.035795975,0.06496798,-0.008059095,0.043668624,-0.15841733,0.008100015,-0.14759031,0.18890812,-0.020157607,1.0,1.0,-1.0,1.0,1.0,1.0,-1.0,-1.0,1.0,-1.0,1.0,-1.0,1.0,-0.963763,-1.0,1.0,1.0,1.0,-1.0,-0.72781956,1.0,-0.68161833,0.92602974,-1.0
2025-07-21 16:25:39.619,0.06,60,3,-0.18532935,0.0017917703,0.04590303,-0.04333526,-0.10197003,0.016968172,0.03298083,0.04569933,-0.04357916,0.0,0.0,0.0,0.0,0.5,0.0,0.0,0.03868388,0.10328743,-0.06695932,0.032694846,0.042903636,0.055865664,-0.04543165,-0.11245826,0.06982259,-0.01729381,0.027468575,-0.06353488,0.057896312,-0.10931774,0.027341286,0.041978747,0.1934931,-0.0024781246,-0.074176624,-0.109070465,-0.02017795,-0.11747021,0.23975056,0.0157435,1.0,-0.963763,-1.0,1.0,1.0,1.0,-1.0,-0.72781956,1.0,-0.68161833,0.92602974,-1.0,1.0,0.34232038,-1.0,0.82893467,-0.39785138,1.0,-1.0,1.0,1.0,0.7208021,-1.0,-1.0
2025-07-21 16:25:39.646,0.08,80,4,0.019785115,0.18149006,0.091115214,0.011779527,0.0047147423,-0.20301571,0.013944674,0.007413456,0.0032424668,0.0,0.0,0.0,0.0,0.5,0.0,0.0,0.060444493,0.097650364,-0.082389675,0.051866606,0.035805736,0.068133146,-0.068022326,-0.10009576,0.08347105,0.002526885,0.026590016,-0.07937582,0.063125424,-0.033432074,-0.05999406,0.054928362,-0.012628763,0.010571736,-0.0694208,0.15554743,0.030660242,0.11568403,-0.16636865,-0.07417261,1.0,0.34232038,-1.0,0.82893467,-0.39785138,1.0,-1.0,1.0,1.0,0.7208021,-1.0,-1.0,1.0,-1.0,-1.0,1.0,1.0,1.0,-1.0,-1.0,1.0,-1.0,1.0,-1.0
2025-07-21 16:25:39.687,0.1,100,5,0.050503433,-0.04896868,0.23286568,-0.022758909,-0.014544496,0.024130588,0.037983093,-0.016658746,0.0030869434,0.0,0.0,0.0,0.0,0.5,0.0,0.0,0.082407534,0.053120118,-0.101031184,0.06586893,0.057257123,0.06564827,-0.0779849,-0.08846882,0.09074081,-0.009330557,0.044033855,-0.101799205,0.10165673,-0.18865396,-0.024327261,0.0071896915,0.15311019,-0.058233697,-0.09251268,0.049206767,0.10691773,-0.11227688,0.10671646,-0.099485576,1.0,-1.0,-1.0,1.0,1.0,1.0,-1.0,-1.0,1.0,-1.0,1.0,-1.0,1.0,0.5906253,0.66405094,1.0,-1.0,1.0,-1.0,-1.0,1.0,1.0,-1.0,-1.0
2025-07-21 16:25:39.721,0.12000000000000001,120,6,-0.13817447,0.2323721,0.12704544,0.27902102,0.012909841,-0.12549175,0.01874379,-0.032234102,0.017044352,0.0,0.0,0.0,0.0,0.5,0.0,0.0,0.09270555,0.02831258,-0.07611448,0.06927944,0.07231462,0.08332179,-0.07193012,-0.13224709,0.10099931,0.015705613,0.0326699,-0.10665775,-0.02483017,0.09554056,0.06401843,0.07849918,-0.13452928,0.00705213,-0.049740907,-0.17564322,0.097986095,0.07509754,-0.228851,-0.04438363,1.0,0.5906253,0.66405094,1.0,-1.0,1.0,-1.0,-1.0,1.0,1.0,-1.0,-1.0,-0.54964304,-1.0,-1.0,1.0,1.0,1.0,-1.0,-0.6632222,1.0,-0.2505418,1.0,-1.0
2025-07-21 16:25:39.753,0.14,140,7,-0.05188897,0.032327753,0.043588582,0.03737843,0.026003767,0.055040527,-0.0041869907,-0.009430677,0.011417098,0.0,0.0,0.0,0.0,0.5,0.0,0.0,0.059776608,-0.00682001,-0.08145172,0.07988561,0.07501895,0.07686798,-0.08924113,-0.16101797,0.10365997,-0.0018731107,0.020301986,-0.12252762,-0.007314096,-0.1418262,-0.06743273,-0.027633129,0.023872433,-0.002300361,-0.08173058,0.029290313,0.06552556,-0.028124932,0.08681235,-0.010710527,-0.54964304,-1.0,-1.0,1.0,1.0,1.0,-1.0,-0.6632222,1.0,-0.2505418,1.0,-1.0,1.0,1.0,-1.0,1.0,1.0,1.0,-1.0,-1.0,1.0,-1.0,-1.0,-1.0
2025-07-21 16:25:39.786,0.16,160,8,0.05973638,0.05323013,-0.032294262,0.19728974,0.0772274,0.0014209347,-0.070197955,0.043617576,-0.04130827,0.0,0.0,0.0,0.0,0.5,0.0,0.0,0.06498173,-0.014387513,-0.10218692,0.09514529,0.11891678,0.07700307,-0.10001112,-0.18271373,0.11909339,-0.01300588,0.01814371,-0.114812605,-0.0211416,0.11844515,0.03398552,0.060637332,0.06271221,0.007542624,-0.066127434,-0.04953506,-0.008229188,-0.12283919,-0.20793234,-0.07460271,1.0,1.0,-1.0,1.0,1.0,1.0,-1.0,-1.0,1.0,-1.0,-1.0,-1.0,1.0,-0.4867717,-1.0,1.0,-1.0,1.0,-1.0,-0.7874702,1.0,-1.0,1.0,-1.0
2025-07-21 16:25:39.812,0.18,180,9,0.021952583,0.12765019,0.21290638,0.2144771,0.016164115,-0.018918185,-0.02044167,0.027040433,0.03051556,0.0,0.0,0.0,0.0,0.5,0.0,0.0,0.09453387,-0.009908551,-0.10441461,0.08179096,0.12986696,0.08475955,-0.08915687,-0.20201401,0.1328603,-0.054119855,0.012561967,-0.13249862,0.08158018,-0.068020195,-0.08375717,0.053494014,0.035532568,-0.036869064,-0.079032816,-0.0045373314,-0.025717368,0.004812917,0.10922857,0.023539573,1.0,-0.4867717,-1.0,1.0,-1.0,1.0,-1.0,-0.7874702,1.0,-1.0,1.0,-1.0,1.0,-1.0,-1.0,1.0,-0.26313272,1.0,-1.0,-0.6328405,1.0,0.9137651,0.5840171,-0.63355255
2025-07-21 16:25:39.846,0.19999999999999998,200,10,0.04491239,0.030860769,0.2067743,0.24220541,0.16162066,-0.032864656,-0.066932775,-0.057342466,0.040860675,0.0,0.0,0.0,0.0,0.5,0.0,0.0,0.102533035,-0.07190785,-0.116652414,0.096981704,0.112103775,0.1042075,-0.10058919,-0.21828656,0.12973613,-0.022345038,0.04519084,-0.1257901,0.084791385,-0.1366793,-0.028128432,0.05592818,-0.05228578,-0.03505026,-0.08666192,-0.03659597,0.026323922,0.061456136,0.16626866,0.021053342,1.0,-1.0,-1.0,1.0,-0.26313272,1.0,-1.0,-0.6328405,1.0,0.9137651,0.5840171,-0.63355255,1.0,0.038207766,-0.15940559,1.0,1.0,1.0,-1.0,-0.92404556,1.0,-1.0,-1.0,-1.0
2025-07-21 16:25:39.861,0.21999999999999997,220,11,0.10152512,0.30155402,0.11992657,0.22639151,0.12664314,-0.13346279,-0.061447274,0.009574917,0.019391794,0.0,0.0,0.0,0.0,0.5,0.0,0.0,0.12196113,-0.08695125,-0.101487644,0.10333339,0.10809806,0.0928736,-0.10691069,-0.24883899,0.12823564,-0.029439654,0.026353274,-0.11956942,0.087473884,0.08870474,0.105935656,0.02200571,0.06757272,-0.018319765,0.018719012,-0.034516796,-0.029221497,-0.03161056,-0.16399282,0.030991713,1.0,0.038207766,-0.15940559,1.0,1.0,1.0,-1.0,-0.92404556,1.0,-1.0,-1.0,-1.0,-1.0,-1.0,1.0,1.0,0.6003175,1.0,-1.0,-0.65249264,1.0,-1.0,1.0,-0.9060302
2025-07-21 16:25:39.880,0.23999999999999996,240,12,-0.07432962,0.33434746,0.02243545,-0.014526804,0.123045884,0.047036573,-0.12416902,-0.008678904,0.048353795,0.0,0.0,0.0,0.0,0.5,0.0,0.0,0.06714737,-0.13157454,-0.050894648,0.10412575,0.14383665,0.10020054,-0.117207535,-0.24157046,0.14205572,-0.06725827,0.032788426,-0.13791044,-0.08561333,-0.13326533,0.15268438,-0.06395119,0.028216427,-0.033688404,-0.00845334,0.015742132,-0.0003125763,0.0022170134,0.140182,-0.0025836937,-1.0,-1.0,1.0,1.0,0.6003175,1.0,-1.0,-0.65249264,1.0,-1.0,1.0,-0.9060302,-1.0,0.28007007,1.0,1.0,1.0,1.0,-1.0,-0.1440948,1.0,-1.0,-1.0,1.0
2025-07-21 16:25:39.900,0.25999999999999995,260,13,0.37886184,0.13778828,0.11157878,-0.21023911,-0.063439086,-0.057755563,-0.070142455,-0.027469324,-0.0038499762,0.0,0.0,0.0,0.0,0.5,0.0,0.0,0.052142777,-0.122772135,-0.030315097,0.102842584,0.19066188,0.10578705,-0.13127023,-0.22909734,0.1306125,-0.08638796,0.014118753,-0.08855064,-0.11237714,0.057557672,0.07620337,-0.04791816,0.10721596,-0.027240407,-0.036376487,0.014874274,-0.03250126,-0.07644422,-0.17370225,0.09896955,-1.0,0.28007007,1.0,1.0,1.0,1.0,-1.0,-0.1440948,1.0,-1.0,-1.0,1.0,-1.0,-1.0,1.0,-0.8405052,-1.0,-1.0,1.0,-0.7976984,0.8868649,1.0,-1.0,-1.0
2025-07-21 16:25:39.919,0.27999999999999997,280,14,0.09581029,0.055063475,-0.06357618,0.07726511,-0.17612316,0.2009781,-0.09788641,-0.058011252,0.00018436927,0.0,0.0,0.0,0.0,0.5,0.0,0.0,0.010739275,-0.14572838,-0.0029119642,0.083267026,0.19218583,0.05900261,-0.10149808,-0.22622472,0.1297759,-0.049497068,-0.043897368,-0.094290696,-0.069224,-0.14422026,0.12209763,-0.06832105,-0.058056206,-0.12306662,0.0702808,-0.08713422,0.04936489,0.07806252,-0.1905276,0.00019128565,-1.0,-1.0,1.0,-0.8405052,-1.0,-1.0,1.0,-0.7976984,0.8868649,1.0,-1.0,-1.0,-1.0,0.16009778,1.0,0.07972801,-0.41667715,-1.0,-1.0,1.0,1.0,1.0,-1.0,1.0
2025-07-21 16:25:39.944,0.3,300,15,-0.01662607,-0.016356668,0.22682464,-0.06462469,-0.25424206,-0.05973716,-0.070012964,0.017876508,0.024704395,0.0,0.0,0.0,0.0,0.5,0.0,0.0,-0.0032175626,-0.13061546,0.018857092,0.054436993,0.17810592,0.03198401,-0.11396907,-0.2004691,0.12265389,-0.0040332214,-0.120423794,-0.0486019,-0.051548127,0.08724513,0.0471113,-0.014824822,-0.102130994,-0.04065493,-0.041288,0.14219317,-0.007900916,0.08101295,-0.17558183,0.039138295,-1.0,0.16009778,1.0,0.07972801,-0.41667715,-1.0,-1.0,1.0,1.0,1.0,-1.0,1.0,-1.0,1.0,1.0,-0.3935207,0.19438723,-1.0,-1.0,-1.0,-1.0,1.0,-1.0,1.0
2025-07-21 16:25:39.961,0.32,320,16,-0.058955405,0.051664323,-0.09342142,-0.124253236,-0.3208789,-0.054372326,-0.11393463,-0.018672792,-0.02552727,0.0,0.0,0.0,0.0,0.5,0.0,0.0,-0.037863825,-0.07541582,0.036192372,0.023838498,0.17881845,0.009022594,-0.11999913,-0.18581647,0.08829941,0.023870993,-0.16921698,-0.025541859,-0.0028092682,0.12718098,0.0012970855,-0.0156070795,-0.026896352,-0.017301554,0.0314574,-0.051822923,-0.11016443,0.106913336,-0.18201603,0.08884733,-1.0,1.0,1.0,-0.3935207,0.19438723,-1.0,-1.0,-1.0,-1.0,1.0,-1.0,1.0,-1.0,-0.24756783,1.0,-1.0,1.0,-1.0,1.0,1.0,-1.0,1.0,-0.5110466,1.0
2025-07-21 16:25:39.980,0.34,340,17,-0.059747133,-0.19317433,-0.37429783,-0.27501115,-0.35764533,-0.019170636,-0.07329947,0.09526469,0.011062696,0.0,0.0,0.0,0.0,0.5,0.0,0.0,-0.066783905,-0.06571987,0.047807474,0.0036943653,0.21080093,-0.022148956,-0.07875938,-0.16968073,0.049570143,0.03976418,-0.19268085,0.009666114,-0.07903936,-0.07244007,0.07960004,-0.018736094,0.10878962,-0.052296028,0.14053999,0.17475009,-0.11339642,0.024011042,-0.08963574,0.03662392,-1.0,-0.24756783,1.0,-1.0,1.0,-1.0,1.0,1.0,-1.0,1.0,-0.5110466,1.0,-1.0,1.0,1.0,-1.0,-0.077374734,-0.5234414,1.0,1.0,-1.0,1.0,-0.65424925,1.0
2025-07-21 16:25:40.000,0.36000000000000004,360,18,-0.10151932,-0.2529618,-0.23566578,-0.1750095,-0.04093256,-0.15086949,-0.05437418,0.05630444,0.0050111082,0.0,0.0,0.0,0.0,0.5,0.0,0.0,-0.072223954,-0.026206601,0.07494617,-0.022737008,0.1751858,-0.02856437,-0.042059645,-0.0688431,-0.0030007681,0.04625099,-0.19089285,0.0313902,-0.008553069,0.16518776,-0.028021744,-0.043000467,-0.17764561,-0.023780944,0.13635963,0.24916624,-0.13124597,0.032306384,-0.046310026,0.02796496,-1.0,1.0,1.0,-1.0,-0.077374734,-0.5234414,1.0,1.0,-1.0,1.0,-0.65424925,1.0,-1.0,1.0,1.0,-1.0,-1.0,-1.0,1.0,-0.9593431,-1.0,1.0,1.0,1.0
2025-07-21 16:25:40.020,0.38000000000000006,380,19,0.15123963,-0.11111795,-0.106367186,-0.23386179,0.08482524,0.021281686,0.014214031,0.090055056,0.00023538597,0.0,0.0,0.0,0.0,0.5,0.0,0.0,-0.06901877,0.017871523,0.065628305,-0.057473645,0.102758676,-0.048857182,-0.008129958,-0.03567797,-0.027745895,0.049391445,-0.16983077,0.054832663,0.04554832,0.22424556,0.073128335,0.0023724171,-0.3264242,-0.010343861,0.11310683,-0.12172807,-0.103084244,-0.0033291369,0.050366838,0.013208906,-1.0,1.0,1.0,-1.0,-1.0,-1.0,1.0,-0.9593431,-1.0,1.0,1.0,1.0,-1.0,-1.0,1.0,0.0045379996,-0.72494936,-1.0,1.0,1.0,-0.8410578,1.0,-1.0,1.0
2025-07-21 16:25:40.044,0.4000000000000001,400,20,0.22746308,-0.19323508,-0.13206239,0.08962094,0.013824055,-0.0038099764,-0.009487411,0.03784474,0.01023704,0.0,0.0,0.0,0.0,0.5,0.0,0.0,-0.067117065,0.04103793,0.078554034,-0.039836053,0.02341441,-0.07519525,0.02223293,-0.016005484,-0.039119817,0.057450987,-0.15795614,0.0702049,0.0011890342,0.02670248,0.010985456,-0.050112817,-0.20105293,-0.07519573,0.051398024,0.18028852,-0.019470373,-0.054014888,0.02409085,0.04199083,-1.0,-1.0,1.0,0.0045379996,-0.72494936,-1.0,1.0,1.0,-0.8410578,1.0,-1.0,1.0,-1.0,-1.0,1.0,-0.22008052,0.98324627,1.0,1.0,1.0,-1.0,1.0,-1.0,1.0
2025-07-21 16:25:40.063,0.4200000000000001,420,21,-0.19552125,0.06679687,0.19936374,0.07418468,0.06919748,0.15888207,-0.03310858,0.07471617,0.044759147,0.0,0.0,0.0,0.0,0.5,0.0,0.0,-0.084240794,0.031711668,0.09966463,-0.038647264,-0.0022775156,-0.052300274,0.04710252,0.03971546,-0.06061533,0.0815057,-0.16998267,0.069721766,-0.010573805,-0.059929375,-0.026566582,-0.06049049,0.027302193,0.11780488,0.0068120854,0.20056476,-0.086229816,0.101110876,-0.060561486,-0.024915896,-1.0,-1.0,1.0,-0.22008052,0.98324627,1.0,1.0,1.0,-1.0,1.0,-1.0,1.0,-1.0,1.0,1.0,-0.26939738,1.0,-1.0,1.0,0.3888531,-0.94409525,-1.0,-1.0,1.0
2025-07-21 16:25:40.083,0.4400000000000001,440,22,0.053233728,0.042629477,0.011236569,0.09632784,-0.19763233,0.0654309,-0.022762425,0.03754924,0.028481983,0.0,0.0,0.0,0.0,0.5,0.0,0.0,-0.09356531,0.041561007,0.10511397,-0.044204775,0.028722856,-0.06774419,0.07471241,0.0823254,-0.06632012,0.047078915,-0.20236981,0.09552071,-0.0049936967,0.090358004,0.077449016,-0.06802752,0.20560323,0.0016325786,-0.018544383,0.06460969,-0.084551506,-0.08043724,-0.16507897,-0.029837124,-1.0,1.0,1.0,-0.26939738,1.0,-1.0,1.0,0.3888531,-0.94409525,-1.0,-1.0,1.0,-1.0,-1.0,1.0,-1.0,-1.0,0.8049717,1.0,-1.0,1.0,1.0,0.8927335,1.0
2025-07-21 16:25:40.103,0.46000000000000013,460,23,0.017961098,0.14718945,0.5586184,0.2037885,0.030958626,0.21736781,-0.043649476,0.088416874,0.0257903,0.0,0.0,0.0,0.0,0.5,0.0,0.0,-0.10725986,0.0329703,0.09948684,-0.068850696,0.016421666,-0.046486452,0.09559197,0.019062782,-0.026119394,0.056146268,-0.20164147,0.09531537,0.045150097,-0.014655268,0.05428161,0.0049878536,-0.12200797,0.03239611,0.10043348,-0.20720166,0.15531902,0.11309851,0.027728993,0.06943094,-1.0,-1.0,1.0,-1.0,-1.0,0.8049717,1.0,-1.0,1.0,1.0,0.8927335,1.0,1.0,1.0,-1.0,1.0,1.0,0.9147557,-1.0,-0.9117062,1.0,-1.0,1.0,-1.0
2025-07-21 16:25:40.123,0.48000000000000015,480,24,0.0131808,0.12648399,0.33196777,-0.17794186,0.39824763,0.107136816,-0.01961506,0.03512795,0.027348325,0.0,0.0,0.0,0.0,0.5,0.0,0.0,-0.07037066,0.08723634,0.06684266,-0.05464736,0.038661674,-0.009043729,0.05268111,-0.048276663,0.001877194,0.030912181,-0.12068766,0.04654434,0.11634782,0.13237795,-0.10967558,0.1676715,0.11801932,0.005639452,-0.059885,-0.20865062,0.12684365,-0.045266617,0.27748257,-0.07126573,1.0,1.0,-1.0,1.0,1.0,0.9147557,-1.0,-0.9117062,1.0,-1.0,1.0,-1.0,1.0,-0.2648152,-1.0,1.0,-1.0,1.0,-1.0,1.0,1.0,-0.73517454,1.0,-1.0
2025-07-21 16:25:40.144,0.5000000000000001,500,25,0.039253052,0.23598175,-0.12071449,-0.106774285,0.47318098,0.016343005,0.00036316327,0.052496374,-0.04406322,0.0,0.0,0.0,0.0,0.5,0.0,0.0,-0.020829597,0.10154537,0.018622182,-0.017260784,0.016262349,0.013510041,0.017080845,-0.053399235,0.031354707,0.015037639,-0.03251695,0.017444933,0.08863643,-0.10323813,-0.13915728,0.06451665,-0.035683557,0.059299596,-0.040572178,0.051842492,0.09866147,-0.055207092,0.2819129,-0.14793038,1.0,-0.2648152,-1.0,1.0,-1.0,1.0,-1.0,1.0,1.0,-0.73517454,1.0,-1.0,1.0,1.0,-1.0,1.0,1.0,1.0,-1.0,-1.0,1.0,-1.0,0.63053626,-1.0
2025-07-21 16:25:40.163,0.5200000000000001,520,26,0.29036415,0.109610595,-0.43727764,-0.12785965,0.57902175,0.087649696,-0.053152446,0.007884543,0.029753145,0.0,0.0,0.0,0.0,0.5,0.0,0.0,0.002902647,0.12024914,-0.006809275,0.025571806,0.03446124,0.027952243,-0.0046023163,-0.052466784,0.04504583,-0.022258684,0.028586553,-0.009469492,0.10477627,0.15979102,-0.09727136,0.08335577,0.14915855,0.09362445,-0.00039307403,-0.11426934,0.03407641,-0.10106075,0.14721471,-0.076005235,1.0,1.0,-1.0,1.0,1.0,1.0,-1.0,-1.0,1.0,-1.0,0.63053626,-1.0,1.0,-1.0,-1.0,1.0,-1.0,1.0,-1.0,-1.0,1.0,0.33267367,0.0625035,-1.0
2025-07-21 16:25:40.183,0.5400000000000001,540,27,-0.30726367,0.15528327,-0.20052308,0.18145497,0.2911782,0.11562719,0.016975356,-0.024345124,-0.036036883,0.0,0.0,0.0,0.0,0.5,0.0,0.0,0.03504694,0.11605211,-0.028079046,0.042722292,0.03659052,0.061784465,-0.026928987,-0.10917846,0.07341284,-0.00812365,0.03786708,-0.033758048,0.13527322,-0.23376374,-0.032086574,0.09088777,-0.05511767,-0.0012584346,-0.008754162,-0.087893754,-0.016562218,-0.025038015,-0.04732305,-0.04443162,1.0,-1.0,-1.0,1.0,-1.0,1.0,-1.0,-1.0,1.0,0.33267367,0.0625035,-1.0,1.0,1.0,-1.0,1.0,1.0,1.0,-1.0,-1.0,1.0,0.057119384,0.052881163,-1.0
2025-07-21 16:25:40.203,0.5600000000000002,560,28,0.10922072,0.3021682,-0.30661732,0.103502296,-0.0017992326,0.04217817,-0.048380163,-0.043459002,0.047638867,0.0,0.0,0.0,0.0,0.5,0.0,0.0,0.05630102,0.09793492,-0.05992087,0.044540107,0.03137018,0.065992236,-0.04342896,-0.16252077,0.08097867,-0.0053988467,0.029173719,-0.058157433,0.08850098,0.069456294,-0.09119425,0.07084991,0.13268282,0.0004018952,-0.033990268,-0.0828738,0.102656364,0.030404538,0.033995748,-0.0147221405,1.0,1.0,-1.0,1.0,1.0,1.0,-1.0,-1.0,1.0,0.057119384,0.052881163,-1.0,1.0,-1.0,-0.020944715,1.0,-1.0,1.0,-1.0,-1.0,1.0,-1.0,0.44017527,-1.0
2025-07-21 16:25:40.227,0.5800000000000002,580,29,-0.26861402,0.13877438,0.124048054,0.18595546,0.004139417,-0.123623736,-0.042961027,-0.067708,-0.011765828,0.0,0.0,0.0,0.0,0.5,0.0,0.0,0.06772714,0.08301779,-0.055035535,0.055322103,0.03738237,0.07733754,-0.03763437,-0.2065524,0.09004731,-0.04085506,0.05961344,-0.07634139,0.034497734,-0.10749731,0.080453426,0.062289648,-0.09396101,0.10411674,-0.016324947,-0.17352556,0.07417636,-0.11585355,0.021977704,-0.06317006,1.0,-1.0,-0.020944715,1.0,-1.0,1.0,-1.0,-1.0,1.0,-1.0,0.44017527,-1.0,0.4089487,0.02014279,-1.0,1.0,1.0,1.0,-1.0,1.0,1.0,1.0,-0.29468748,-1.0
2025-07-21 16:25:40.245,0.6000000000000002,600,30,0.1338148,0.09297996,0.028190376,0.06996574,0.112141095,-0.2000444,-0.05117853,-0.10866064,-0.0095880935,0.0,0.0,0.0,0.0,0.5,0.0,0.0,0.06626729,0.06701493,-0.06714793,0.06849681,0.046300437,0.07320119,-0.05577359,-0.19783114,0.10384648,-0.0018073781,0.04276144,-0.07965795,-0.061119314,-0.068667896,0.034110967,0.020682031,0.011899165,-0.017786607,0.03763633,0.03528201,-0.026093269,0.03477323,-0.14205493,-0.029937727,0.4089487,0.02014279,-1.0,1.0,1.0,1.0,-1.0,1.0,1.0,1.0,-0.29468748,-1.0,1.0,-1.0,-1.0,1.0,0.88546467,1.0,-1.0,-1.0,1.0,-0.33064973,1.0,-1.0
2025-07-21 16:25:40.264,0.6200000000000002,620,31,0.031875994,0.048866745,0.117309496,0.037959408,-0.083218716,0.02075513,-0.08076623,-0.08109646,0.028565349,0.0,0.0,0.0,0.0,0.5,0.0,0.0,0.08777022,0.021252776,-0.08299786,0.07650348,0.08576288,0.08872741,-0.06815611,-0.18981445,0.11296165,-0.016423132,0.066910274,-0.09376205,0.06604039,-0.24928091,0.007192371,-0.02224456,0.17283739,-0.00091712584,-0.0035469756,-0.013353558,0.047486935,0.024757948,0.2173177,0.004756825,1.0,-1.0,-1.0,1.0,0.88546467,1.0,-1.0,-1.0,1.0,-0.33064973,1.0,-1.0,1.0,0.46364778,1.0,1.0,-1.0,1.0,-1.0,-1.0,1.0,0.67120016,-1.0,-1.0
2025-07-21 16:25:40.284,0.6400000000000002,640,32,-0.072729245,-0.07073143,0.04856412,0.20253305,-0.026136614,-0.19207749,-0.10300991,-0.071342565,-0.021147022,0.0,0.0,0.0,0.0,0.5,0.0,0.0,0.10895955,-0.023387749,-0.05199068,0.0875307,0.09403956,0.10190732,-0.08733628,-0.21749815,0.119651645,0.007532072,0.06594552,-0.119094945,0.11398129,0.015387896,-0.0056289113,0.08446672,-0.03006082,0.006935122,-0.00973888,-0.12930149,0.049685713,0.023783104,-0.08000075,-0.04030721,1.0,0.46364778,1.0,1.0,-1.0,1.0,-1.0,-1.0,1.0,0.67120016,-1.0,-1.0,-1.0,1.0,-1.0,-1.0,1.0,1.0,1.0,0.4595746,1.0,0.27373636,-0.8525409,1.0
2025-07-21 16:25:40.304,0.6600000000000003,660,33,0.11706381,-0.05890028,0.12612534,-0.11739766,-0.09408576,-0.06595505,-0.033421893,-0.07982918,0.020575957,0.0,0.0,0.0,0.0,0.5,0.0,0.0,0.068618394,0.033801354,-0.06521663,0.049243398,0.11597604,0.10629815,-0.048822217,-0.20368835,0.10874452,0.01850246,-0.0048804083,-0.070439465,-0.1538892,0.23012407,-0.08847092,-0.14286172,0.13080436,0.06179888,0.1085135,0.10081912,0.014738202,0.08481672,-0.18590367,0.043217007,-1.0,1.0,-1.0,-1.0,1.0,1.0,1.0,0.4595746,1.0,0.27373636,-0.8525409,1.0,-1.0,-0.903724,1.0,-0.9058749,-1.0,0.1753082,-1.0,-1.0,1.0,1.0,1.0,1.0
2025-07-21 16:25:40.329,0.6800000000000003,680,34,-0.07294345,0.16691868,0.3297831,0.11843787,-0.44907293,0.0031397007,-0.1000067,0.017171046,-0.04112128,0.0,0.0,0.0,0.0,0.5,0.0,0.0,0.029433738,0.03530187,-0.04276332,0.0052121733,0.12852515,0.088226095,-0.07075782,-0.2027724,0.12718686,0.038153082,-0.016462516,-0.021268714,-0.062346764,-0.11529602,0.027923409,-0.052214462,0.052312236,-0.05680412,-0.03871006,-0.061638895,0.05521157,0.03694125,0.06406721,0.1331707,-1.0,-0.903724,1.0,-0.9058749,-1.0,0.1753082,-1.0,-1.0,1.0,1.0,1.0,1.0,-1.0,1.0,1.0,-0.33589965,1.0,-0.77021235,-0.6979365,0.2693245,1.0,1.0,-0.21909054,1.0
2025-07-21 16:25:40.344,0.7000000000000003,700,35,0.061980855,-0.03598471,0.092219695,-0.10907935,-0.34471965,-0.07615107,-0.057665545,-0.011109707,-0.045991957,0.0,0.0,0.0,0.0,0.5,0.0,0.0,-0.0069901184,0.062429678,-0.013617724,-0.00841763,0.16857475,0.041530933,-0.07776426,-0.18064246,0.12082443,0.056829777,-0.02321962,0.010927253,-0.06520423,0.048491377,0.1342344,-0.024294985,0.18109111,-0.020358492,-0.017346662,0.06340187,-0.090274945,-0.0047633518,0.026610278,0.044695664,-1.0,1.0,1.0,-0.33589965,1.0,-0.77021235,-0.6979365,0.2693245,1.0,1.0,-0.21909054,1.0,-1.0,-1.0,1.0,-1.0,-1.0,-1.0,-1.0,-1.0,-1.0,1.0,-1.0,1.0
2025-07-21 16:25:40.364,0.7200000000000003,720,36,-0.22599721,-0.3309303,-0.28943765,0.10608234,-0.40349954,-0.068781234,-0.034930233,0.06993558,-0.034856495,0.0,0.0,0.0,0.0,0.5,0.0,0.0,-0.026079576,0.075496815,0.010064422,-0.036475867,0.15196325,0.02293066,-0.08966071,-0.18822663,0.07599978,0.080393806,-0.07905192,0.036698453,-0.008279531,-0.095906064,0.039046608,-0.06327404,-0.050202683,-0.078817494,-0.060175773,-0.17612706,-0.08921183,0.11822055,-0.13389114,0.057301223,-1.0,-1.0,1.0,-1.0,-1.0,-1.0,-1.0,-1.0,-1.0,1.0,-1.0,1.0,-1.0,1.0,1.0,-0.5598738,-1.0,0.44538814,1.0,1.0,-1.0,1.0,-0.9206744,1.0
2025-07-21 16:25:40.385,0.7400000000000003,740,37,0.002410979,-0.18300083,0.018847072,-0.2032776,-0.121686295,-0.17060176,-0.031134939,0.017098293,-0.02659292,0.0,0.0,0.0,0.0,0.5,0.0,0.0,-0.062234085,0.10666937,0.033931408,-0.052167233,0.124076925,0.013437869,-0.06482731,-0.17283909,0.028832085,0.09610652,-0.12428504,0.053780075,-0.045440335,0.113860026,0.04075977,0.0047444995,-0.13837998,0.012145484,0.1724772,0.1131828,-0.039270606,-0.028628783,-0.07725271,0.084805,-1.0,1.0,1.0,-0.5598738,-1.0,0.44538814,1.0,1.0,-1.0,1.0,-0.9206744,1.0,-1.0,-1.0,0.58504605,0.83195096,-0.13731673,-1.0,1.0,1.0,-0.6111679,1.0,1.0,1.0
2025-07-21 16:25:40.404,0.7600000000000003,760,38,0.11970411,0.121123515,-0.17035735,-0.15069385,0.08412102,-0.18888189,0.0019229192,0.0031120211,-0.022386398,0.0,0.0,0.0,0.0,0.5,0.0,0.0,-0.05511237,0.11789703,0.051161516,-0.02463239,0.10828035,-0.0020794475,-0.022969143,-0.073692515,0.012721392,0.104532875,-0.11859368,0.07308986,-0.08449023,-0.039522536,0.073689915,0.118314296,0.0035305617,-0.08820012,0.042342037,0.17741951,-0.039825708,-0.021245372,0.14896575,0.008678262,-1.0,-1.0,0.58504605,0.83195096,-0.13731673,-1.0,1.0,1.0,-0.6111679,1.0,1.0,1.0,-1.0,-1.0,1.0,-1.0,0.15392181,-1.0,1.0,0.09478524,-1.0,1.0,-1.0,1.0
2025-07-21 16:25:40.427,0.7800000000000004,780,39,-0.11373883,-0.06682321,-0.030780423,0.2175307,-0.026786486,0.071287125,-0.008343494,-0.008580603,-0.011809685,0.0,0.0,0.0,0.0,0.5,0.0,0.0,-0.0716813,0.100178085,0.05482907,-0.046817563,0.084608406,-0.028741276,0.01376971,-0.049275942,-0.008016957,0.1078832,-0.1360963,0.075271316,-0.038817458,-0.051913835,-0.009549526,-0.06427107,-0.031656723,-0.04584089,0.11216129,-0.037367463,-0.025011806,0.023509525,-0.09288714,-0.02173971,-1.0,-1.0,1.0,-1.0,0.15392181,-1.0,1.0,0.09478524,-1.0,1.0,-1.0,1.0,-1.0,1.0,1.0,-1.0,0.522692,-1.0,1.0,1.0,-1.0,1.0,0.2857966,1.0
2025-07-21 16:25:40.445,0.8000000000000004,800,40,-0.11017881,0.18676357,-0.05208996,-0.10479118,0.04493197,0.082411416,-0.012723063,0.0041513285,-0.01161983,0.0,0.0,0.0,0.0,0.5,0.0,0.0,-0.08678547,0.11579348,0.06319801,-0.06222085,0.10660283,-0.05260857,0.035495795,0.024876643,-0.03904436,0.11444094,-0.110554256,0.08012157,0.028617663,0.11952372,0.07622457,-0.040432297,0.036824778,-0.023775706,0.12129697,0.15289353,-0.007857028,-0.05018109,0.045746967,-0.058030717,-1.0,1.0,1.0,-1.0,0.522692,-1.0,1.0,1.0,-1.0,1.0,0.2857966,1.0,-1.0,-1.0,1.0,-1.0,-1.0,-1.0,1.0,-0.08936569,0.3248057,0.6003325,-0.7008911,1.0
2025-07-21 16:25:40.465,0.8200000000000004,820,41,0.018023359,-0.22011878,0.20030113,0.21900229,-0.06700263,0.007735405,-0.032230105,0.022607835,-0.0067016995,0.0,0.0,0.0,0.0,0.5,0.0,0.0,-0.08839983,0.12092038,0.086072415,-0.07886374,0.06578786,-0.081687644,0.067502834,0.030105343,-0.024172403,0.10835737,-0.12115701,0.090963155,-0.05698395,-0.08756783,-0.0041154646,-0.102688335,-0.24652365,-0.020794954,-0.023692366,0.020134808,0.045945395,0.049853623,-0.11554653,-0.012848101,-1.0,-1.0,1.0,-1.0,-1.0,-1.0,1.0,-0.08936569,0.3248057,0.6003325,-0.7008911,1.0,-1.0,1.0,1.0,-0.79570264,0.3177404,-0.069172084,1.0,0.4585499,-1.0,1.0,1.0,1.0
2025-07-21 16:25:40.484,0.8400000000000004,840,42,-0.0044502886,-0.038667586,-0.38116857,-0.12668934,-0.062016357,0.09421266,-0.070629716,0.08982367,0.041706666,0.0,0.0,0.0,0.0,0.5,0.0,0.0,-0.09099174,0.1364757,0.09162267,-0.08796715,0.047458906,-0.05997261,0.07959775,0.050520506,-0.042815078,0.110200405,-0.09790536,0.10559709,-0.079128556,0.06252596,0.0365158,-0.040288277,0.017368441,0.07441306,-0.025079401,0.090110555,-0.03844881,-0.06552003,0.16371687,-0.02759548,-1.0,1.0,1.0,-0.79570264,0.3177404,-0.069172084,1.0,0.4585499,-1.0,1.0,1.0,1.0,-1.0,-1.0,1.0,-0.016516,-0.61757743,-1.0,1.0,-0.13144103,-1.0,1.0,-1.0,1.0
2025-07-21 16:25:40.505,0.8600000000000004,860,43,-0.15604092,-0.17860608,-0.0149022,0.17563634,0.030630605,0.08265744,-0.045821656,0.06061174,0.0077867243,0.0,0.0,0.0,0.0,0.5,0.0,0.0,-0.11296658,0.15181533,0.09383769,-0.07640675,0.015853679,-0.07100991,0.08391155,0.029178675,-0.06957565,0.1114652,-0.097179405,0.09834769,0.014668982,-0.010738755,0.035056412,-0.022432163,-0.15032262,-0.02883012,0.037746552,-0.124155,-0.0026304533,-0.0413976,-0.08879669,-0.018788578,-1.0,-1.0,1.0,-0.016516,-0.61757743,-1.0,1.0,-0.13144103,-1.0,1.0,-1.0,1.0,-1.0,1.0,1.0,-0.7387417,1.0,1.0,1.0,1.0,-1.0,1.0,-0.75096303,1.0
2025-07-21 16:25:40.528,0.8800000000000004,880,44,0.06328569,0.2324472,0.105728805,-0.05428055,0.062886566,0.045903217,-0.03216045,0.008046379,-0.0010919215,0.0,0.0,0.0,0.0,0.5,0.0,0.0,-0.122185975,0.17563789,0.107422665,-0.088200726,0.003088482,-0.05711581,0.11240265,0.08546897,-0.087669775,0.13006167,-0.122823805,0.12600932,-0.07698263,0.120701365,-0.046450574,-0.05438073,-0.059501,0.14995107,0.024555473,0.11781016,-0.049331415,0.036530115,-0.08714168,0.028495416,-1.0,1.0,1.0,-0.7387417,1.0,1.0,1.0,1.0,-1.0,1.0,-0.75096303,1.0,-1.0,-1.0,1.0,-0.48684657,0.06367502,-1.0,1.0,-1.0,-1.0,0.7640928,0.65711474,1.0
2025-07-21 16:25:40.545,0.9000000000000005,900,45,-0.05373976,0.044176698,0.02497616,0.023566341,-0.084686615,0.23800337,-0.09819383,0.06254025,-0.04984951,0.0,0.0,0.0,0.0,0.5,0.0,0.0,-0.1165789,0.18972772,0.10634033,-0.088277586,0.0029313862,-0.065979615,0.11185821,0.07375205,-0.09908702,0.12839946,-0.097166926,0.12480783,0.004016848,-0.07759953,0.03451289,0.02036855,0.078354195,-0.019376505,0.04586681,-0.16856328,-0.093424894,-0.023624,0.16034192,-0.07635568,-1.0,-1.0,1.0,-0.48684657,0.06367502,-1.0,1.0,-1.0,-1.0,0.7640928,0.65711474,1.0,-1.0,-1.0,1.0,-1.0,0.33088842,-1.0,1.0,1.0,-1.0,1.0,-1.0,1.0
2025-07-21 16:25:40.565,0.9200000000000005,920,46,0.06988084,0.13079894,0.17820686,0.2242152,0.013098273,0.11586513,-0.022796964,0.05293315,0.02530682,0.0,0.0,0.0,0.0,0.5,0.0,0.0,-0.13875581,0.1799576,0.11062767,-0.09358647,0.01916741,-0.08947393,0.120807044,0.076208994,-0.106487125,0.13513859,-0.081522144,0.13594161,-0.06439379,-0.09630808,0.025046509,-0.0755687,0.09310267,-0.0069423444,-0.03846771,0.0833709,-0.014398747,0.062062293,-0.11149573,0.08820704,-1.0,-1.0,1.0,-1.0,0.33088842,-1.0,1.0,1.0,-1.0,1.0,-1.0,1.0,-1.0,-0.7109896,1.0,-1.0,-1.0,0.44489413,1.0,0.75513315,-0.3307656,-1.0,1.0,1.0
2025-07-21 16:25:40.585,0.9400000000000005,940,47,0.120629355,-0.021635614,0.060255762,0.20101897,-0.11246869,0.0806513,-0.07550801,0.012222363,-0.046756167,0.0,0.0,0.0,0.0,0.5,0.0,0.0,-0.14796197,0.14929843,0.12403697,-0.11868628,-0.006430009,-0.06479403,0.13978453,0.12643392,-0.094574995,0.094293796,-0.07509025,0.13083416,0.034405824,-0.109455444,0.023036774,-0.014817808,-0.057883568,-0.010978011,0.011554534,0.042004954,-0.00042861718,-0.17276321,0.08253401,-0.009878538,-1.0,-0.7109896,1.0,-1.0,-1.0,0.44489413,1.0,0.75513315,-0.3307656,-1.0,1.0,1.0,1.0,-0.55675805,1.0,1.0,0.04231129,1.0,0.32701173,-1.0,1.0,1.0,1.0,1.0
2025-07-21 16:25:40.605,0.9600000000000005,960,48,0.17332752,-0.35519555,0.03385838,0.076438755,0.509854,0.12198908,-0.069886915,0.034647826,-0.03555384,0.0,0.0,0.0,0.0,0.5,0.0,0.0,-0.10206205,0.12756261,0.13195829,-0.0800537,-0.02760246,-0.03377808,0.12139371,0.09824432,-0.05838657,0.10881494,0.011744106,0.13774134,0.07472505,-0.083282895,0.007164776,0.10017205,0.06371514,0.06320578,-0.044141926,-0.19606197,0.079774074,0.029663572,0.262135,-0.008474132,1.0,-0.55675805,1.0,1.0,0.04231129,1.0,0.32701173,-1.0,1.0,1.0,1.0,1.0,-1.0,1.0,-1.0,1.0,-1.0,1.0,-1.0,-0.6820463,1.0,-1.0,-0.93650717,-1.0
2025-07-21 16:25:40.628,0.9800000000000005,980,49,-0.0014473804,-0.20284575,0.21117577,0.13746668,0.35309276,-0.056060866,-0.11644582,-0.014446195,0.024529958,0.0,0.0,0.0,0.0,0.5,0.0,0.0,-0.105275,0.16435583,0.081262946,-0.047065042,-0.044543788,0.0054127085,0.071933635,0.03751285,-0.015063651,0.07390613,0.018578518,0.07827124,0.035834912,0.1806312,-0.16007544,0.027867546,-0.14647037,0.046820037,-0.12522636,-0.22709563,0.13554434,-0.09789055,-0.10313416,-0.05234553,-1.0,1.0,-1.0,1.0,-1.0,1.0,-1.0,-0.6820463,1.0,-1.0,-0.93650717,-1.0,1.0,0.06561422,-1.0,1.0,1.0,1.0,-1.0,-1.0,1.0,-1.0,0.96594036,0.8732408
2025-07-21 16:25:40.645,1.0000000000000004,1000,50,-0.004382751,-0.15750287,0.009491208,-0.10464079,0.47217646,0.075287774,-0.08241437,-0.05522877,-0.008885475,0.0,0.0,0.0,0.0,0.5,0.0,0.0,-0.067509584,0.18489583,0.03401043,-0.018274225,-0.03416249,0.014950519,0.031467885,-0.04115879,0.024120606,0.029549394,0.032784775,0.093297504,0.15556328,0.05385454,-0.06960319,0.06681777,0.02554124,0.075740956,-0.08156513,-0.21287186,-0.0007632093,-0.11031776,0.17747624,-0.0025641476,1.0,0.06561422,-1.0,1.0,1.0,1.0,-1.0,-1.0,1.0,-1.0,0.96594036,0.8732408,1.0,0.54634196,-1.0,0.5780516,-0.014801644,1.0,-1.0,1.0,1.0,1.0,-1.0,1.0
2025-07-21 16:25:40.669,1.0200000000000005,1020,51,-0.057406995,-0.068234906,-0.076648645,-0.123867564,0.45627055,0.1047059,-0.08655173,-0.12565003,-0.019595651,0.0,0.0,0.0,0.0,0.5,0.0,0.0,-0.02596993,0.1963347,0.0044200737,0.017552665,-0.028580897,0.040307917,-0.010206626,-0.0483032,0.02776015,0.047938846,0.037400696,0.099781334,0.09538025,0.01587,-0.095597796,0.0024905384,0.0059152246,0.08413665,-0.032780867,0.11635336,0.06618453,-0.0007477888,-0.11612751,0.021176988,1.0,0.54634196,-1.0,0.5780516,-0.014801644,1.0,-1.0,1.0,1.0,1.0,-1.0,1.0,1.0,-0.881114,-1.0,1.0,0.3194423,1.0,-1.0,-1.0,1.0,0.035572186,-1.0,-0.039379388
2025-07-21 16:25:40.698,1.0400000000000005,1040,52,-0.3049566,0.02559927,-0.24038611,-0.1281855,0.43418083,0.27366003,-0.0814423,-0.12315594,0.023233538,0.0,0.0,0.0,0.0,0.5,0.0,0.0,0.004524399,0.1982366,-0.027322872,0.042403888,-0.0046439334,0.050123524,-0.033580255,-0.07860231,0.054796647,0.048581574,-0.033938125,0.09010315,0.12229857,-0.0073425993,-0.08974835,0.05856405,0.024811918,0.058181543,-0.038565908,-0.112554446,-0.021078445,0.008800917,-0.26263773,-0.07517762,1.0,-0.881114,-1.0,1.0,0.3194423,1.0,-1.0,-1.0,1.0,0.035572186,-1.0,-0.039379388,1.0,1.0,-1.0,1.0,-0.8214388,1.0,-1.0,1.0,1.0,-1.0,1.0,-1.0
2025-07-21 16:25:40.717,1.0600000000000005,1060,53,-0.2711055,-0.1216563,-0.33861917,-0.3125291,0.16258132,0.040178824,-0.033749152,-0.083334155,-0.006866215,0.0,0.0,0.0,0.0,0.5,0.0,0.0,0.036733065,0.22090077,-0.042803254,0.05970963,0.001886708,0.079409346,-0.049565118,-0.08911786,0.07542384,0.0044228327,-0.038751476,0.04208599,0.08934375,0.081826605,-0.08750221,0.0073040286,0.027714228,0.05461991,-0.003921674,0.133488,-0.047419213,-0.10680948,0.09148111,-0.04745791,1.0,1.0,-1.0,1.0,-0.8214388,1.0,-1.0,1.0,1.0,-1.0,1.0,-1.0,1.0,-0.34741104,-1.0,1.0,0.7500706,1.0,-1.0,-1.0,1.0,-1.0,-0.22335275,-1.0
2025-07-21 16:25:40.737,1.0800000000000005,1080,54,-0.1804182,-0.24047202,-0.03175915,-0.053757083,-0.17658156,0.0021946554,-0.014512359,-0.12855008,-0.026216654,0.0,0.0,0.0,0.0,0.5,0.0,0.0,0.06461098,0.22659686,-0.054166913,0.05759096,0.007653303,0.069799796,-0.0553043,-0.08893529,0.0754879,-0.031302672,-0.046385005,0.01368953,0.0061707296,-0.086329766,-0.10433522,-0.0065728994,0.018986877,-0.042653926,-0.06078697,-0.028581906,0.08050936,-0.13574694,-0.051948063,-0.0075217057,1.0,-0.34741104,-1.0,1.0,0.7500706,1.0,-1.0,-1.0,1.0,-1.0,-0.22335275,-1.0,1.0,0.32990593,-1.0,1.0,-0.5075747,1.0,-1.0,-0.8345258,1.0,1.0,1.0,0.05234024
2025-07-21 16:25:40.761,1.1000000000000005,1100,55,-0.467339,-0.05099979,0.029941719,0.18599212,-0.06471899,0.07705702,-0.029501813,-0.109584235,0.038961407,0.0,0.0,0.0,0.0,0.5,0.0,0.0,0.07163792,0.22259323,-0.082715176,0.070159726,0.0011998401,0.08384491,-0.057628505,-0.104369074,0.08920297,0.0026851885,-0.011898536,0.008377387,0.06396961,0.012602875,-0.0011127872,0.0032832022,-0.12145861,0.038737476,0.011275409,-0.06111615,-0.02548672,0.014098521,0.23521045,0.009058246,1.0,0.32990593,-1.0,1.0,-0.5075747,1.0,-1.0,-0.8345258,1.0,1.0,1.0,0.05234024,1.0,-1.0,-1.0,1.0,1.0,1.0,-1.0,0.80434823,1.0,0.35119545,-1.0,1.0
2025-07-21 16:25:40.780,1.1200000000000006,1120,56,-0.3592969,0.058975734,0.07741733,0.0449478,0.015913285,-0.034525942,-0.0253857,-0.11831004,-0.044559665,0.0,0.0,0.0,0.0,0.5,0.0,0.0,0.08385406,0.1825852,-0.08390327,0.070190355,0.011682411,0.089816146,-0.05962626,-0.11068532,0.10468334,0.022745198,-0.0062961383,0.04250666,-0.032442164,-0.048381146,-0.08647869,0.018820811,0.14373027,-0.038569316,-0.019290833,0.13208213,-0.070060425,0.043888908,-0.0832693,0.05115304,1.0,-1.0,-1.0,1.0,1.0,1.0,-1.0,0.80434823,1.0,0.35119545,-1.0,1.0,0.4675773,-0.15377164,1.0,0.30080038,0.44024348,0.52047604,-1.0,-1.0,1.0,1.0,-1.0,1.0
2025-07-21 16:25:40.797,1.1400000000000006,1140,57,-0.10735349,-0.13109802,0.1336308,0.009571632,-0.166202,-0.047779508,-0.09582431,-0.13588925,0.027617604,0.0,0.0,0.0,0.0,0.5,0.0,0.0,0.086312465,0.13921373,-0.05547119,0.06466709,0.038003445,0.09331213,-0.08012898,-0.11063981,0.114930965,0.04302291,-0.07437585,0.052645396,-0.05437185,-0.1036056,0.13356778,-0.026568158,0.015690856,-0.07503764,-0.0026086154,-0.004956081,0.08638571,0.10897247,-0.109867275,0.04892203,0.4675773,-0.15377164,1.0,0.30080038,0.44024348,0.52047604,-1.0,-1.0,1.0,1.0,-1.0,1.0,-1.0,1.0,-1.0,-0.64189464,-0.6120684,1.0,-1.0,-0.5571166,1.0,1.0,0.118499026,1.0
2025-07-21 16:25:40.818,1.1600000000000006,1160,58,-0.006073365,-0.066641875,0.26846346,-0.0056457124,-0.28927916,0.026492277,-0.04574323,-0.09423047,0.0139475195,0.0,0.0,0.0,0.0,0.5,0.0,0.0,0.055174995,0.16364571,-0.08694704,0.051481996,0.04252587,0.09826642,-0.098236986,-0.1300948,0.12037718,0.06442272,-0.0834083,0.07764294,-0.1687026,0.06869341,-0.06925668,-0.01633213,0.0044016726,-0.008925008,-0.06784671,-0.020395674,0.029578635,0.02869638,0.014155012,0.098054044,-1.0,1.0,-1.0,-0.64189464,-0.6120684,1.0,-1.0,-0.5571166,1.0,1.0,0.118499026,1.0,0.30066463,-1.0,-1.0,1.0,-0.3334476,1.0,-1.0,-1.0,1.0,1.0,-0.89736044,1.0
2025-07-21 16:25:40.838,1.1800000000000006,1180,59,-0.58951193,-0.037204295,0.108829804,0.22129802,0.08744662,-0.02120804,-0.06940452,-0.08389171,-0.04984496,0.0,0.0,0.0,0.0,0.5,0.0,0.0,0.044931583,0.16435784,-0.100382075,0.041010723,0.0055596144,0.10249795,-0.10007526,-0.17033605,0.12144608,0.090529926,-0.120674506,0.08185346,-0.043601885,-0.008452636,-0.08104847,-0.0145595595,-0.088817954,-0.017440785,-0.016017983,-0.17862742,0.05799225,0.028038459,-0.12917611,0.0671384,0.30066463,-1.0,-1.0,1.0,-0.3334476,1.0,-1.0,-1.0,1.0,1.0,-0.89736044,1.0,0.590912,0.117010236,-0.79128456,1.0,1.0,1.0,-1.0,1.0,1.0,1.0,1.0,1.0
2025-07-21 16:25:40.861,1.2000000000000006,1200,60,-0.1956964,-0.3652218,0.13403611,-0.18660845,0.071254455,0.02223016,-0.14105985,-0.08086523,-0.031558745,0.0,0.0,0.0,0.0,0.5,0.0,0.0,0.060453597,0.15442269,-0.09705509,0.062089328,0.025274502,0.112277284,-0.11830116,-0.15122326,0.123202264,0.101036176,-0.10136628,0.10181988,-0.036566056,-0.044225052,0.035464134,0.07865769,0.14959206,0.052203603,0.0025916174,0.11277734,0.0100254165,0.09226598,0.12575103,0.005671863,0.590912,0.117010236,-0.79128456,1.0,1.0,1.0,-1.0,1.0,1.0,1.0,1.0,1.0,1.0,-1.0,-0.4324398,-1.0,-0.59148216,-0.19384092,-1.0,-0.65218246,1.0,1.0,-1.0,1.0
2025-07-21 16:25:40.878,1.2200000000000006,1220,61,-0.34958944,-0.22762525,-0.040147692,0.21984456,-0.16380993,0.042520363,-0.14127932,-0.08050257,0.01707973,0.0,0.0,0.0,0.0,0.5,0.0,0.0,0.07989733,0.084965475,-0.087069996,0.022833105,0.03523063,0.073680475,-0.12312959,-0.16566907,0.12459046,0.10939413,-0.095740356,0.11623746,-0.01256022,-0.14065185,0.069895156,-0.023191137,-0.117501594,-0.047216993,-0.07938307,-0.094260536,-0.03307368,0.0573964,-0.15886371,0.059343405,1.0,-1.0,-0.4324398,-1.0,-0.59148216,-0.19384092,-1.0,-0.65218246,1.0,1.0,-1.0,1.0,-0.93054926,1.0,-0.5985118,-0.1528191,-1.0,1.0,-1.0,1.0,1.0,1.0,1.0,1.0
2025-07-21 16:25:40.898,1.2400000000000007,1240,62,-0.21402453,0.040083442,0.10723158,-0.13529551,-0.16227692,-0.058389414,-0.08920167,-0.058060452,-0.025029644,0.0,0.0,0.0,0.0,0.5,0.0,0.0,0.05164421,0.069278724,-0.09719543,0.018579964,0.0029296158,0.08360114,-0.1290743,-0.1409946,0.12953575,0.12613145,-0.09571312,0.11139707,-0.0518299,0.13486473,0.0695364,-0.041205667,-0.12827218,-0.005062707,-0.057383545,0.17449655,-0.08343406,-0.03233341,0.12434938,0.0106688775,-0.93054926,1.0,-0.5985118,-0.1528191,-1.0,1.0,-1.0,1.0,1.0,1.0,1.0,1.0,0.92142665,-1.0,-1.0,1.0,1.0,1.0,-1.0,-1.0,1.0,1.0,-0.83926016,-1.0
2025-07-21 16:25:40.918,1.2600000000000007,1260,63,-0.4109295,-0.032269724,0.04485652,0.1585249,0.14619704,-0.0144483615,-0.12500568,-0.06510581,-0.043556128,0.0,0.0,0.0,0.0,0.5,0.0,0.0,0.07372922,0.05241889,-0.09746425,0.028365914,-0.006516223,0.09758545,-0.12619382,-0.1375146,0.12174959,0.13225901,-0.10445481,0.07541272,0.015003116,-0.24120356,0.04234637,0.087663166,0.08018696,-0.00959419,-0.031673998,-0.12441433,0.052702565,0.05400285,-0.109781265,-0.10759355,0.92142665,-1.0,-1.0,1.0,1.0,1.0,-1.0,-1.0,1.0,1.0,-0.83926016,-1.0,1.0,1.0,-1.0,1.0,1.0,1.0,-1.0,-0.9366007,1.0,-0.035389528,1.0,-1.0
2025-07-21 16:25:40.938,1.2800000000000007,1280,64,-0.2218725,-0.13050571,0.07660694,0.010369471,0.05384576,0.062848255,-0.070059404,-0.081401184,0.034373786,0.0,0.0,0.0,0.0,0.5,0.0,0.0,0.08151512,0.045895785,-0.11174533,0.04550264,0.03901895,0.093079455,-0.1275618,-0.15685217,0.13437617,0.11058479,-0.08432243,0.04095062,0.08679045,0.060854394,-0.004303515,0.04086341,0.1636857,-0.06685029,0.06874749,0.003772278,0.019889764,-0.066521585,0.19508347,-0.022601308,1.0,1.0,-1.0,1.0,1.0,1.0,-1.0,-0.9366007,1.0,-0.035389528,1.0,-1.0,1.0,-0.8378594,-1.0,1.0,-1.0,1.0,-1.0,-0.16310069,1.0,-0.53480166,-0.31306383,0.2460036
2025-07-21 16:25:40.961,1.3000000000000007,1300,65,-0.14201623,0.18744698,0.037767246,0.115840934,0.14221299,-0.026139105,-0.07323214,-0.13007216,-0.025025006,0.0,0.0,0.0,0.0,0.5,0.0,0.0,0.09461752,0.034262348,-0.1304101,0.0636766,0.0546212,0.10222883,-0.128925,-0.14654224,0.14203034,0.08283552,-0.09159214,0.041425936,0.05297749,-0.09652442,0.055028416,0.081823826,-0.04917304,-0.0061139413,-0.019117163,0.08726432,-0.06580755,-0.05257397,-0.009911103,-0.023548154,1.0,-0.8378594,-1.0,1.0,-1.0,1.0,-1.0,-0.16310069,1.0,-0.53480166,-0.31306383,0.2460036,1.0,-0.50636053,-1.0,1.0,1.0,1.0,-1.0,-1.0,1.0,-1.0,1.0,-1.0
2025-07-21 16:25:40.978,1.3200000000000007,1320,66,0.10305917,-0.084760316,-0.15662228,0.15717313,0.031379897,0.07295024,-0.09060991,-0.119380325,0.0230663,0.0,0.0,0.0,0.0,0.5,0.0,0.0,0.113988385,-0.023375468,-0.122825935,0.06551518,0.08120324,0.103326224,-0.14351319,-0.16006872,0.13440162,0.045501348,-0.048347685,-0.00028433028,0.04265385,-0.13114057,-0.06728358,-0.0016807311,0.08175476,0.060654096,-0.03428023,0.009142502,0.009479622,-0.15621418,0.2755753,-0.028586652,1.0,-0.50636053,-1.0,1.0,1.0,1.0,-1.0,-1.0,1.0,-1.0,1.0,-1.0,1.0,1.0,1.0,1.0,-1.0,1.0,-1.0,-0.7996751,1.0,1.0,-1.0,-1.0
2025-07-21 16:25:40.999,1.3400000000000007,1340,67,0.019953312,-0.0025722836,0.13793586,0.1228958,0.10088842,-0.10453234,-0.17731012,-0.10852269,-0.04307072,0.0,0.0,0.0,0.0,0.5,0.0,0.0,0.11779028,-0.028829405,-0.08521709,0.08410393,0.06614778,0.10705803,-0.13680421,-0.18554838,0.13417163,0.06340324,-0.032842744,-0.025988214,0.026822116,0.008968275,0.028598296,0.06085952,-0.04674701,-0.013441128,0.041762825,-0.123548836,-0.054993078,0.120109476,-0.12510848,0.0060400954,1.0,1.0,1.0,1.0,-1.0,1.0,-1.0,-0.7996751,1.0,1.0,-1.0,-1.0,-1.0,1.0,-1.0,-0.3317781,1.0,1.0,1.0,0.29397514,1.0,-0.34823716,1.0,0.11267838
2025-07-21 16:25:41.018,1.3600000000000008,1360,68,0.22026868,0.03253927,-0.11692945,-0.38806027,-0.21582532,-0.049373258,-0.092639856,-0.061129205,-0.03603272,0.0,0.0,0.0,0.0,0.5,0.0,0.0,0.079628654,0.03852766,-0.109730706,0.07092481,0.11570415,0.12407385,-0.09430602,-0.16071786,0.14879169,0.043041356,1.981394e-06,-0.028736979,-0.10209047,0.13824937,-0.014564448,-0.11689797,0.22038718,-0.026071321,0.102461495,0.21236594,0.025133114,-0.08140191,0.15376306,0.036466405,-1.0,1.0,-1.0,-0.3317781,1.0,1.0,1.0,0.29397514,1.0,-0.34823716,1.0,0.11267838,-0.19273628,-1.0,-0.4690032,1.0,-1.0,1.0,-1.0,-1.0,1.0,-0.7218734,-1.0,-1.0
2025-07-21 16:25:41.038,1.3800000000000008,1380,69,-0.39687514,0.024420563,0.035853412,0.07468888,-0.14469281,-0.19479716,-0.12414079,-0.046027,0.0046561044,0.0,0.0,0.0,0.0,0.5,0.0,0.0,0.078329585,0.05669544,-0.09927196,0.05956286,0.13666458,0.1231637,-0.10332951,-0.14367926,0.1467412,0.0070502968,0.0108546205,-0.03753748,-0.06337267,0.022176223,0.022672787,-0.05979861,0.0082855765,0.082226075,-0.027717607,0.0434499,0.0042229695,-0.07332478,-0.17788453,-0.06754732,-0.19273628,-1.0,-0.4690032,1.0,-1.0,1.0,-1.0,-1.0,1.0,-0.7218734,-1.0,-1.0,0.9756949,-0.41971022,-1.0,1.0,1.0,1.0,-1.0,-1.0,1.0,0.97739637,1.0,-1.0
2025-07-21 16:25:41.064,1.4000000000000008,1400,70,-0.008535889,-0.0024833048,-0.23576273,0.11544679,-0.082613856,0.042553414,-0.10950464,-0.04811308,0.04557026,0.0,0.0,0.0,0.0,0.5,0.0,0.0,0.07932242,0.03653303,-0.105872676,0.06750376,0.15521245,0.11546509,-0.101647414,-0.1634709,0.15326019,0.044909425,0.002560708,-0.06896398,0.081334054,-0.16063057,-0.074587874,0.010150624,0.11322451,-0.06463966,-0.08550321,-0.097024724,-0.060701545,0.105578125,0.16519244,-0.032310918,0.9756949,-0.41971022,-1.0,1.0,1.0,1.0,-1.0,-1.0,1.0,0.97739637,1.0,-1.0,1.0,0.7931938,-0.9346709,1.0,-1.0,1.0,-1.0,-0.8290125,1.0,-0.38847065,-0.62636995,-1.0
2025-07-21 16:25:41.079,1.4200000000000008,1420,71,-0.20691836,0.2831052,0.035705015,0.25533417,0.11502596,-0.086404406,-0.15305172,-0.10442141,0.029210415,0.0,0.0,0.0,0.0,0.5,0.0,0.0,0.0962379,0.059568264,-0.11621517,0.06810135,0.15625067,0.121694736,-0.115162246,-0.19715016,0.15506014,0.024173258,-0.0144283725,-0.07621653,-0.027451254,0.15286733,-0.05780083,-0.009416525,-0.030646978,-0.021575615,-0.0108256955,-0.11908873,-0.039794132,-0.0882166,-0.14566545,-0.017252177,1.0,0.7931938,-0.9346709,1.0,-1.0,1.0,-1.0,-0.8290125,1.0,-0.38847065,-0.62636995,-1.0,0.9365834,-1.0,-1.0,1.0,1.0,1.0,-1.0,0.6448945,1.0,-1.0,1.0,-1.0
2025-07-21 16:25:41.098,1.4400000000000008,1440,72,-0.070369504,0.0015090989,-0.116094425,-0.08900187,-0.018641945,-0.00091344333,-0.12038099,-0.10820812,0.017360132,0.0,0.0,0.0,0.0,0.5,0.0,0.0,0.10158028,0.05351902,-0.12075773,0.077100635,0.18382825,0.11751692,-0.11925534,-0.1817452,0.1358301,0.0012828702,0.012446877,-0.0988984,0.025447879,-0.051944457,-0.034370065,-0.046722468,0.17798832,0.0040669586,-0.03927938,-0.0050897514,0.031777844,-0.026925886,0.10268808,0.01505335,0.9365834,-1.0,-1.0,1.0,1.0,1.0,-1.0,0.6448945,1.0,-1.0,1.0,-1.0,0.35286185,-1.0,0.6797731,1.0,-1.0,1.0,-1.0,0.16362849,1.0,-0.45268345,-1.0,-1.0
2025-07-21 16:25:41.119,1.4600000000000009,1460,73,-0.002364689,-0.09269784,0.11226892,-0.03467851,-0.084937036,-0.10323292,-0.15451902,-0.07592582,0.020217022,0.0,0.0,0.0,0.0,0.5,0.0,0.0,0.10408415,0.026174113,-0.08586147,0.09923496,0.19974294,0.12287707,-0.12922704,-0.14511074,0.1442804,-0.01736406,0.0014894689,-0.099932574,-0.03537037,-0.022918306,0.14024515,0.026961282,-0.049937557,0.085475884,-0.063910134,0.06608473,0.07345641,-0.040268246,-0.17436817,-0.038597632,0.35286185,-1.0,0.6797731,1.0,-1.0,1.0,-1.0,0.16362849,1.0,-0.45268345,-1.0,-1.0,-1.0,0.246279,-1.0,0.88552123,-1.0,1.0,-1.0,-0.7811943,1.0,-0.14269672,0.7914531,0.57132816
2025-07-21 16:25:41.140,1.4800000000000009,1480,74,-0.10348032,-0.28700364,-0.07536757,-0.11740564,-0.15250012,-0.068053365,-0.14238578,-0.05949439,-0.011501732,0.0,0.0,0.0,0.0,0.5,0.0,0.0,0.08867044,0.028169796,-0.10757035,0.090425804,0.1695777,0.14052442,-0.14286305,-0.15653966,0.14434154,-0.019152923,0.016890667,-0.077123806,-0.15139508,0.08183448,-0.05611533,-0.021372825,-0.0059018303,-0.0012221476,0.0019786994,-0.036003936,-0.022699108,0.07415383,0.15247704,0.10321905,-1.0,0.246279,-1.0,0.88552123,-1.0,1.0,-1.0,-0.7811943,1.0,-0.14269672,0.7914531,0.57132816,1.0,-1.0,-1.0,1.0,-1.0,1.0,-0.46328834,-0.4865953,1.0,0.6775123,-1.0,1.0
2025-07-21 16:25:41.161,1.5000000000000009,1500,75,-0.51493317,-0.10539049,0.13248019,0.10663485,0.080068834,-0.065654695,-0.09063136,-0.06634135,-0.010595893,0.0,0.0,0.0,0.0,0.5,0.0,0.0,0.08726667,-0.010896147,-0.10936811,0.11524053,0.15716287,0.15238093,-0.122472934,-0.17181088,0.14515641,0.007588271,-0.014273263,-0.039493613,0.0053343293,-0.102287024,-0.012468977,0.03900934,-0.017060064,0.03164262,0.023189642,-0.078862086,-0.02597626,0.078369685,-0.16312733,0.14442526,1.0,-1.0,-1.0,1.0,-1.0,1.0,-0.46328834,-0.4865953,1.0,0.6775123,-1.0,1.0,0.94101816,-0.3335966,1.0,-0.28932816,0.72314304,1.0,-0.17042366,1.0,1.0,1.0,-0.5386707,1.0
2025-07-21 16:25:41.179,1.520000000000001,1520,76,-0.36790806,-0.21853313,-0.19912504,-0.29694062,-0.08839967,-0.27069592,-0.09756929,-0.0463628,0.019195292,0.0,0.0,0.0,0.0,0.5,0.0,0.0,0.099993795,-0.038153086,-0.08635011,0.087048255,0.18377359,0.13867235,-0.10658191,-0.111159064,0.15359108,0.032977145,-0.040116757,0.011368981,-0.039641004,-0.03497437,0.1755553,-0.045727443,0.04849781,0.03206437,0.008052134,0.1930622,-0.004410309,0.123662926,-0.068793766,0.0729719,0.94101816,-0.3335966,1.0,-0.28932816,0.72314304,1.0,-0.17042366,1.0,1.0,1.0,-0.5386707,1.0,-1.0,1.0,1.0,-1.0,-1.0,-1.0,-0.69118005,-1.0,1.0,1.0,1.0,1.0
2025-07-21 16:25:41.199,1.540000000000001,1540,77,-0.3601079,-0.08676753,0.047780428,-0.20844236,-0.47807387,-0.19830175,-0.07372092,-0.05975576,-0.01733589,0.0,0.0,0.0,0.0,0.5,0.0,0.0,0.07299371,-0.004341722,-0.04223833,0.04656116,0.19606596,0.098478846,-0.11151849,-0.091482215,0.15120097,0.060425293,-0.017074598,0.025550086,-0.048618045,0.035729196,0.04020535,-0.16556525,-0.059969805,-0.10227056,-0.05421121,0.010944234,0.0373552,0.0020097988,0.18769915,0.016462952,-1.0,1.0,1.0,-1.0,-1.0,-1.0,-0.69118005,-1.0,1.0,1.0,1.0,1.0,-1.0,1.0,1.0,0.4485919,0.32696086,1.0,0.385115,-1.0,1.0,1.0,0.039934855,1.0
2025-07-21 16:25:41.219,1.560000000000001,1560,78,-0.22443344,-0.27236724,-0.10065307,-0.22922589,-0.06618027,-0.07299839,-0.051118467,-0.0011374119,0.008575543,0.0,0.0,0.0,0.0,0.5,0.0,0.0,0.044825163,0.041150246,-0.023531971,0.030204102,0.17825802,0.10489812,-0.10319208,-0.0808261,0.1544456,0.07011441,-0.014634454,0.058584116,-0.052256387,0.21690091,0.019798908,0.061123766,-0.022067497,0.096297845,0.07685967,0.012454756,0.035533413,0.10588925,-0.045274124,0.004864136,-1.0,1.0,1.0,0.4485919,0.32696086,1.0,0.385115,-1.0,1.0,1.0,0.039934855,1.0,-1.0,1.0,-0.014133215,-1.0,-1.0,0.8624211,-0.6840665,-0.4484733,1.0,1.0,-0.03193303,1.0
2025-07-21 16:25:41.239,1.580000000000001,1580,79,-0.33051494,-0.2583375,-0.06939837,0.032783743,-0.2842598,0.025198512,-0.020363955,-0.030137923,0.03789181,0.0,0.0,0.0,0.0,0.5,0.0,0.0,-0.001962622,0.10647371,-0.016701898,0.009754713,0.15780175,0.11270822,-0.10736858,-0.10546714,0.15371948,0.09733168,-0.00039121837,0.07854936,-0.08247887,0.12756836,0.033612404,-0.110914454,-0.034573033,0.010086023,-0.076494195,-0.054795906,0.0004207714,0.051683042,0.044525553,0.022991741,-1.0,1.0,-0.014133215,-1.0,-1.0,0.8624211,-0.6840665,-0.4484733,1.0,1.0,-0.03193303,1.0,-0.49871305,-1.0,-1.0,1.0,-0.5044874,1.0,-1.0,1.0,1.0,1.0,-1.0,1.0
2025-07-21 16:25:41.261,1.600000000000001,1600,80,-0.35409817,-0.14707096,0.042395774,0.050813902,0.22545213,-0.23314618,-0.027742859,0.045997113,0.028594907,0.0,0.0,0.0,0.0,0.5,0.0,0.0,-0.0121315075,0.12413065,-0.039834246,0.0067196847,0.13310204,0.12117,-0.111401826,-0.072970726,0.15081942,0.11011509,-0.060667276,0.08833765,-0.03740198,-0.1308028,-0.06418509,-0.0069783917,-0.011625923,-0.00731336,-0.065385275,0.18272029,-0.077364504,-0.036985904,-0.11188963,0.002379603,-0.49871305,-1.0,-1.0,1.0,-0.5044874,1.0,-1.0,1.0,1.0,1.0,-1.0,1.0,1.0,-0.0076555796,-0.88321006,1.0,0.98677814,1.0,-1.0,-1.0,1.0,1.0,1.0,1.0
2025-07-21 16:25:41.279,1.620000000000001,1620,81,-0.12950483,-0.26545253,-0.15798159,0.124707066,0.044446025,-0.11122561,-0.118476346,-0.014503503,0.033906836,0.0,0.0,0.0,0.0,0.5,0.0,0.0,0.0147270495,0.10204874,-0.05500335,0.031303696,0.14273213,0.106129006,-0.114827655,-0.07943787,0.13856508,0.11632064,-0.07591931,0.09918481,0.06520763,-0.01849748,-0.07172881,0.057076365,0.10228539,-0.047345687,-0.03100134,-0.02561955,-0.030615699,-0.011226803,0.068347454,0.029106097,1.0,-0.0076555796,-0.88321006,1.0,0.98677814,1.0,-1.0,-1.0,1.0,1.0,1.0,1.0,1.0,-0.7119272,-1.0,0.24415141,-1.0,1.0,-1.0,-1.0,1.0,1.0,-0.9566918,1.0
2025-07-21 16:25:41.299,1.640000000000001,1640,82,-0.40931574,0.05189044,0.01068389,0.3579883,-0.022208644,0.02680736,-0.057659794,-0.015614626,0.046710595,0.0,0.0,0.0,0.0,0.5,0.0,0.0,0.039208557,0.03849691,-0.07342604,0.036312707,0.1350963,0.123294845,-0.11250232,-0.105578534,0.14305766,0.12291867,-0.08664428,0.09871214,0.019933758,-0.17924479,0.025511099,-0.03325201,-0.012767523,0.061392993,-0.08447495,-0.1152692,0.008620037,0.070505716,-0.20387527,0.038368024,1.0,-0.7119272,-1.0,0.24415141,-1.0,1.0,-1.0,-1.0,1.0,1.0,-0.9566918,1.0,1.0,1.0,-1.0,1.0,-1.0,1.0,-1.0,0.74722946,1.0,1.0,1.0,-0.7552594
2025-07-21 16:25:41.319,1.660000000000001,1660,83,-0.19116524,0.14672354,-0.20993915,0.088499166,0.21262564,-0.16895881,-0.09987281,-0.030168278,-0.024152497,0.0,0.0,0.0,0.0,0.5,0.0,0.0,0.062307857,0.035398804,-0.09507965,0.058993313,0.10097701,0.112587474,-0.11842658,-0.11857537,0.13593455,0.13930814,-0.08385701,0.06929544,0.061610546,0.08056204,-0.0790849,0.06505762,-0.007284605,-0.020354683,-0.06263134,0.008171111,-0.08621166,0.029575204,0.1078066,-0.020604482,1.0,1.0,-1.0,1.0,-1.0,1.0,-1.0,0.74722946,1.0,1.0,1.0,-0.7552594,1.0,-0.9632653,-1.0,1.0,1.0,1.0,-1.0,-1.0,1.0,-1.0,1.0,-1.0
2025-07-21 16:25:41.344,1.680000000000001,1680,84,-0.17254242,0.04704854,-0.16057438,0.08851902,0.10007024,-0.06054799,-0.09181007,-0.053645615,-0.03768491,0.0,0.0,0.0,0.0,0.5,0.0,0.0,0.08023801,0.023823535,-0.090451166,0.066121675,0.10850936,0.109464705,-0.11698792,-0.11613046,0.13735776,0.099801905,0.0022987777,0.037019175,0.005629076,-0.20561248,-0.07704489,-0.03777346,0.019930493,-0.035099223,0.010352729,-0.11896079,-0.046977747,-0.17573486,0.26115218,-0.074711084,1.0,-0.9632653,-1.0,1.0,1.0,1.0,-1.0,-1.0,1.0,-1.0,1.0,-1.0,1.0,1.0,-1.0,1.0,1.0,1.0,-1.0,0.3350735,1.0,-0.60418546,-1.0,-1.0
2025-07-21 16:25:41.361,1.700000000000001,1700,85,-0.052660655,0.04626534,0.07513534,-0.07048511,0.26975244,-0.21230501,-0.11392097,-0.046847347,0.028966034,0.0,0.0,0.0,0.0,0.5,0.0,0.0,0.09244947,0.039774712,-0.10657601,0.07145571,0.15371113,0.10932933,-0.12457824,-0.103679895,0.13433237,0.0642216,0.010004377,-6.672933e-05,0.09956963,0.15313837,0.008391989,0.07797243,0.13795547,-0.016069448,0.020703368,0.10919772,0.00868994,-0.07832564,-0.13855259,-0.0811424,1.0,1.0,-1.0,1.0,1.0,1.0,-1.0,0.3350735,1.0,-0.60418546,-1.0,-1.0,1.0,-1.0,-1.0,1.0,-1.0,1.0,-1.0,-1.0,1.0,-1.0,1.0,-1.0
2025-07-21 16:25:41.379,1.720000000000001,1720,86,-0.28178144,0.08149955,0.12708853,0.18176854,0.07831299,-0.063294746,-0.081786074,-0.08088254,0.04134368,0.0,0.0,0.0,0.0,0.5,0.0,0.0,0.099457905,0.033752523,-0.10775523,0.08711613,0.16131613,0.11718158,-0.12202631,-0.09808867,0.14416687,0.027514234,0.037757862,-0.022452077,0.10135855,-0.16151427,0.0019676618,0.050460525,-0.05784529,-0.05606595,-0.05707054,-0.07693279,-0.047276683,-0.11803452,0.14073463,-0.114052884,1.0,-1.0,-1.0,1.0,-1.0,1.0,-1.0,-1.0,1.0,-1.0,1.0,-1.0,1.0,-0.39060965,-1.0,1.0,1.0,1.0,-1.0,0.3331305,1.0,1.0,0.17845587,-1.0
2025-07-21 16:25:41.399,1.740000000000001,1740,87,-0.20437607,-0.07355131,-0.2773358,-0.026902841,0.19137958,0.070022054,-0.122967385,-0.03500142,0.03052882,0.0,0.0,0.0,0.0,0.5,0.0,0.0,0.1154697,0.0051984787,-0.12746967,0.10138943,0.19792368,0.11124199,-0.13768172,-0.06513735,0.1463315,0.046395786,0.04390825,-0.048309024,0.04477005,0.016607443,-0.04751297,0.061265014,0.12865515,-0.017184604,-0.017418599,0.093785495,-0.0674727,0.014448087,-0.018233292,-0.053052958,1.0,-0.39060965,-1.0,1.0,1.0,1.0,-1.0,0.3331305,1.0,1.0,0.17845587,-1.0,0.23284398,0.61483943,-1.0,1.0,-1.0,1.0,-1.0,-1.0,1.0,-0.27408218,-1.0,-1.0
2025-07-21 16:25:41.419,1.7600000000000011,1760,88,-0.09118886,0.0036728955,-0.19032581,0.033200614,0.0037313243,-0.035024907,-0.10326614,-0.065056294,-0.030957047,0.0,0.0,0.0,0.0,0.5,0.0,0.0,0.1098348,0.007936894,-0.14900634,0.10077221,0.20014179,0.13441363,-0.14094563,-0.06905789,0.15571007,0.024243087,-0.0022364634,-0.06688867,-0.07340521,0.0019484025,-0.030366028,0.026806913,-0.05014527,-0.03653657,-0.080211185,-0.05921383,-0.01052874,-0.0005563782,-0.19473499,-0.091464244,0.23284398,0.61483943,-1.0,1.0,-1.0,1.0,-1.0,-1.0,1.0,-0.27408218,-1.0,-1.0,1.0,-0.6100612,-1.0,1.0,-1.0,1.0,-1.0,-1.0,1.0,-1.0,1.0,-1.0
2025-07-21 16:25:41.445,1.7800000000000011,1780,89,-0.13868846,-0.044292692,0.053935505,0.21385068,0.042419113,0.04240885,-0.12237484,-0.089127004,0.041531805,0.0,0.0,0.0,0.0,0.5,0.0,0.0,0.12093743,0.01807015,-0.1416133,0.11604096,0.19055264,0.12734692,-0.13927521,-0.10190657,0.15982947,0.005963172,-0.015215341,-0.08058543,0.00906972,-0.06885163,-0.04076307,-0.010985139,-0.0931934,0.03196461,-0.0038108693,-0.17291045,-0.01638357,-0.015387306,-0.009059328,-0.0863869,1.0,-0.6100612,-1.0,1.0,-1.0,1.0,-1.0,-1.0,1.0,-1.0,1.0,-1.0,1.0,-0.86996305,-1.0,1.0,-0.25504342,1.0,-1.0,1.0,1.0,1.0,0.6538358,-0.7116251
2025-07-21 16:25:41.461,1.8000000000000012,1800,90,-0.58735096,-0.07119657,-0.01664084,0.16818297,0.12816599,0.066018604,-0.10136305,-0.0322745,0.017420175,0.0,0.0,0.0,0.0,0.5,0.0,0.0,0.13170382,-0.020554751,-0.13913594,0.11466989,0.16464582,0.1292513,-0.15818612,-0.10689087,0.14404787,0.02933797,0.025458181,-0.07990964,0.09896036,-0.15192714,0.023315059,0.06348997,-0.023074085,0.0050364914,0.049011316,0.16245149,-0.034371827,0.07726761,0.1470921,-0.07907435,1.0,-0.86996305,-1.0,1.0,-0.25504342,1.0,-1.0,1.0,1.0,1.0,0.6538358,-0.7116251,1.0,1.0,-1.0,1.0,1.0,1.0,-1.0,-1.0,1.0,-0.5875337,-1.0,0.5483272
2025-07-21 16:25:41.480,1.8200000000000012,1820,91,-0.42873856,0.038245026,0.10562717,-0.033525463,0.0007991827,-0.039440587,-0.198159,-0.05078287,0.02635999,0.0,0.0,0.0,0.0,0.5,0.0,0.0,0.14170769,-0.014721107,-0.14854816,0.12906776,0.1715174,0.12612717,-0.15884033,-0.116482824,0.14818947,0.007915283,0.004499303,-0.06628846,-0.015678566,0.013582014,-0.044370055,0.016729753,0.15217131,-0.028792828,0.037156656,-0.1576393,-0.042102095,-0.10338934,-0.17447682,0.04908174,1.0,1.0,-1.0,1.0,1.0,1.0,-1.0,-1.0,1.0,-0.5875337,-1.0,0.5483272,1.0,-0.26323634,1.0,-0.53225696,-0.5217538,-1.0,-0.75031525,1.0,1.0,1.0,-0.5819883,1.0
2025-07-21 16:25:41.500,1.8400000000000012,1840,92,-0.4050406,-0.28381,0.021848893,-0.20328365,-0.06194387,-0.14550537,-0.14043307,-0.081494726,0.028464468,0.0,0.0,0.0,0.0,0.5,0.0,0.0,0.15745647,-0.039380606,-0.119274154,0.09861219,0.20033705,0.080521874,-0.14995436,-0.12244042,0.15321821,0.027389236,-0.029832045,-0.026380982,-0.028466584,-0.05496113,0.19689018,-0.1490204,-0.06022466,-0.086032145,-0.032228988,0.10626796,0.04655186,0.043839887,-0.12680426,0.11609955,1.0,-0.26323634,1.0,-0.53225696,-0.5217538,-1.0,-0.75031525,1.0,1.0,1.0,-0.5819883,1.0,-1.0,1.0,1.0,-1.0,0.24930206,-1.0,-1.0,0.22061041,-1.0,1.0,-0.048298676,1.0
2025-07-21 16:25:41.520,1.8600000000000012,1860,93,-0.39445826,-0.19902505,-0.11103775,-0.32906142,-0.54241145,-0.2509497,-0.11403833,-0.05915164,0.04025593,0.0,0.0,0.0,0.0,0.5,0.0,0.0,0.11675948,-0.013597796,-0.07507476,0.056483112,0.19650853,0.04347869,-0.16315582,-0.08659577,0.10105542,0.04302492,-0.031288862,1.1040447e-05,-0.126719,0.03193028,0.06649867,-0.055702124,-0.063614175,-0.024945013,-0.078698784,0.042412277,-0.055130564,-0.015222501,0.010858953,0.13297905,-1.0,1.0,1.0,-1.0,0.24930206,-1.0,-1.0,0.22061041,-1.0,1.0,-0.048298676,1.0,-1.0,1.0,1.0,-1.0,1.0,-0.89028794,1.0,1.0,-1.0,1.0,-1.0,1.0
2025-07-21 16:25:41.544,1.8800000000000012,1880,94,-0.36574042,0.04304706,-0.45201957,-0.45413867,-0.3251595,-0.2800148,-0.048896704,-0.032376707,0.03678227,0.0,0.0,0.0,0.0,0.5,0.0,0.0,0.06938754,0.056130294,-0.04274845,0.014553998,0.23211446,0.02207197,-0.1058439,0.00052915065,0.06125489,0.0723454,-0.07735468,0.04285029,-0.12684971,0.14240156,0.12125992,-0.12000041,0.15583108,-0.14424315,0.1584822,0.19720007,-0.1671938,0.02291048,-0.22494562,0.023542846,-1.0,1.0,1.0,-1.0,1.0,-0.89028794,1.0,1.0,-1.0,1.0,-1.0,1.0,-1.0,-1.0,1.0,-1.0,-0.78887355,-1.0,1.0,-0.507331,0.37815118,1.0,1.0,1.0
2025-07-21 16:25:41.561,1.9000000000000012,1900,95,-0.5171884,-0.4179083,-0.5729171,-0.26519203,-0.49498492,-0.096972324,0.005901959,0.05305579,0.040123016,0.0,0.0,0.0,0.0,0.5,0.0,0.0,0.026066007,0.07368875,-0.018614084,-0.012184596,0.20343229,-0.01776927,-0.06466215,0.00681571,0.06144898,0.08061984,-0.08860019,0.056526676,-0.033876207,0.026072828,0.15171774,-0.06650131,-0.16901533,-0.039133746,0.10398719,-0.052956715,0.059916604,0.040299047,0.016621694,0.064511076,-1.0,-1.0,1.0,-1.0,-0.78887355,-1.0,1.0,-0.507331,0.37815118,1.0,1.0,1.0,-1.0,1.0,1.0,-0.12609783,1.0,-1.0,1.0,1.0,-1.0,1.0,-1.0,1.0
2025-07-21 16:25:41.580,1.9200000000000013,1920,96,-0.2193371,-0.22475521,-0.15819569,-0.32847923,-0.15120728,-0.20761819,-0.003983604,0.030468315,-0.027864367,0.0,0.0,0.0,0.0,0.5,0.0,0.0,0.009951152,0.12360712,-0.0015677674,-0.01747317,0.19031502,-0.03856015,-0.022935003,0.02271769,0.013845809,0.089041956,-0.065492325,0.05949465,-0.061373897,0.14659373,0.06534034,-0.043323174,0.11574624,-0.035515573,0.08633485,0.18072227,-0.07673387,-0.09378511,0.017360691,0.027823085,-1.0,1.0,1.0,-0.12609783,1.0,-1.0,1.0,1.0,-1.0,1.0,-1.0,1.0,-1.0,-1.0,1.0,-1.0,-1.0,-1.0,1.0,0.09136167,-1.0,1.0,0.52983695,1.0
2025-07-21 16:25:41.600,1.9400000000000013,1940,97,-0.24520831,-0.13072507,-0.1917116,-0.10838092,-0.1410256,0.11756715,-0.02500716,0.07909775,-0.015254768,0.0,0.0,0.0,0.0,0.5,0.0,0.0,-0.008510416,0.13440412,0.028973069,-0.04207974,0.16663012,-0.049174223,0.01200806,0.036699295,-0.0071300315,0.07143916,-0.037409686,0.060407147,-0.06733694,-0.030018603,-0.009401993,-0.011246428,-0.16877162,-0.10040255,0.03905856,-0.0067127715,-0.06014622,-0.059916064,0.043684762,0.034751263,-1.0,-1.0,1.0,-1.0,-1.0,-1.0,1.0,0.09136167,-1.0,1.0,0.52983695,1.0,-1.0,1.0,1.0,-0.22017735,0.8560647,-1.0,1.0,1.0,-0.879876,1.0,-1.0,1.0
2025-07-21 16:25:41.620,1.9600000000000013,1960,98,-0.09697762,-0.26866576,0.24230294,-0.06981094,-0.07358601,-0.046141665,0.010510096,0.034311783,-0.022954488,0.0,0.0,0.0,0.0,0.5,0.0,0.0,-0.02304188,0.13634366,0.031551626,-0.050512724,0.17540799,-0.08401146,0.029735789,0.07316157,-0.028820265,0.081088476,-0.026335727,0.08034711,-0.03769291,0.01808411,0.03202217,0.030667918,0.024964616,-0.10601411,0.0050734645,0.21003251,-0.11198081,-0.0015314122,0.0322196,-0.018543253,-1.0,1.0,1.0,-0.22017735,0.8560647,-1.0,1.0,1.0,-0.879876,1.0,-1.0,1.0,-1.0,1.0,1.0,-1.0,-1.0,-1.0,1.0,-0.8708049,-1.0,1.0,-0.5677425,1.0
2025-07-21 16:25:41.644,1.9800000000000013,1980,99,0.003320323,-0.3944701,0.38911343,0.22446598,0.093890205,-0.12465192,0.05959739,0.043477725,0.049533322,0.0,0.0,0.0,0.0,0.5,0.0,0.0,-0.033568,0.1806559,0.05416279,-0.06783028,0.14107707,-0.09278771,0.060754914,0.08082614,-0.060454734,0.082295306,-0.046715427,0.08106879,-0.09132323,0.08833295,0.08921074,-0.086018845,-0.13427266,0.027252873,0.10384314,-0.1579986,-0.04251255,0.041749384,-0.12694432,0.008429178,-1.0,1.0,1.0,-1.0,-1.0,-1.0,1.0,-0.8708049,-1.0,1.0,-0.5677425,1.0,-1.0,-1.0,-0.91717124,0.6581271,-1.0,1.0,1.0,-0.6030096,1.0,1.0,1.0,1.0
2025-07-21 16:25:41.661,2.0000000000000013,2000,100,-0.19539084,-0.20994397,0.1395856,0.117254205,0.04373458,0.09997548,-0.030486466,0.020569745,0.027328862,0.0,0.0,0.0,0.0,0.5,0.0,0.0,-0.04013192,0.16968061,0.018312236,-0.043848738,0.04465167,-0.038906418,0.07888541,0.009976656,-0.022510901,0.088050775,-0.019203,0.08926057,0.04242446,-0.07679304,-0.03353412,0.021060742,-0.21220464,0.04119174,0.09117377,-0.061734773,0.02113512,0.04558972,0.049203448,0.00920649,-1.0,-1.0,-0.91717124,0.6581271,-1.0,1.0,1.0,-0.6030096,1.0,1.0,1.0,1.0,1.0,1.0,-1.0,1.0,1.0,1.0,-1.0,-1.0,1.0,-0.909902,0.40824947,1.0
2025-07-21 16:25:41.680,2.0200000000000014,2020,101,0.2560625,-0.13133353,0.17909916,0.03025788,0.27448872,-0.059966173,-0.031491157,0.0021150461,-0.0041080546,0.0,0.0,0.0,0.0,0.5,0.0,0.0,-0.015695348,0.20209974,-0.00914046,-0.0052807983,0.00046565259,-0.022468856,0.04588475,-0.058805432,0.017440876,0.08046065,0.001187063,0.09026403,0.06217423,0.09106602,-0.106410824,0.10235841,-0.010275965,-0.012179011,-0.04992195,-0.20459174,0.07513885,-0.045012165,0.083739236,0.04758861,1.0,1.0,-1.0,1.0,1.0,1.0,-1.0,-1.0,1.0,-0.909902,0.40824947,1.0,1.0,-0.033400122,-1.0,-0.75942725,-0.7458973,1.0,-1.0,-0.38515577,0.9909885,1.0,-0.9881045,-1.0
2025-07-21 16:25:41.700,2.0400000000000014,2040,102,-0.06602301,0.13564995,0.04092952,0.27158505,0.4441228,-0.07893972,-0.046711415,0.008303004,0.041971203,0.0,0.0,0.0,0.0,0.5,0.0,0.0,0.016231954,0.18499371,-0.040335897,-0.020301713,-0.029163921,0.011725661,0.0018808562,-0.07890077,0.042495735,0.07033248,0.015417349,0.06072239,0.14750493,-0.05396146,-0.008600724,-0.055125598,-0.17246939,0.12317409,-0.118794866,-0.0016705998,0.03262661,0.011089111,-0.030365646,-0.13737482,1.0,-0.033400122,-1.0,-0.75942725,-0.7458973,1.0,-1.0,-0.38515577,0.9909885,1.0,-0.9881045,-1.0,1.0,-1.0,-1.0,1.0,1.0,1.0,-1.0,-1.0,1.0,-0.19427477,1.0,-1.0
2025-07-21 16:25:41.721,2.0600000000000014,2060,103,0.027000105,0.08717879,-0.18409139,0.14027618,0.26534966,0.078576304,-0.024445364,-0.04239292,-0.009360994,0.0,0.0,0.0,0.0,0.5,0.0,0.0,0.05101759,0.11285534,-0.05695764,-0.01148866,-0.03479334,0.0129171135,-0.016631419,-0.13456596,0.05775808,0.074177146,0.032115474,0.028741514,0.13081284,-0.19592047,-0.0970284,-0.004043875,0.023482755,0.02580854,-0.08917406,-0.14041613,0.06841248,-0.08714426,0.1387849,-0.03923359,1.0,-1.0,-1.0,1.0,1.0,1.0,-1.0,-1.0,1.0,-0.19427477,1.0,-1.0,1.0,1.0,-0.96264744,1.0,1.0,1.0,-1.0,-0.30610403,1.0,-0.48575294,-0.6943005,-1.0
2025-07-21 16:25:41.744,2.0800000000000014,2080,104,0.13604067,0.09607236,0.10048548,-0.05914783,0.13885109,-0.13345365,-0.10705799,-0.05775043,0.04437207,0.0,0.0,0.0,0.0,0.5,0.0,0.0,0.063130684,0.11436002,-0.080531724,0.005389498,-0.0035127623,0.038197275,-0.029179543,-0.13388161,0.069002494,0.02976465,0.052714426,-0.015073302,0.027752608,0.114074305,-0.08213002,0.09373951,0.11155717,0.009293368,0.014744403,0.06985558,-0.02452697,-0.11855268,-0.08353862,-0.108113766,1.0,1.0,-0.96264744,1.0,1.0,1.0,-1.0,-0.30610403,1.0,-0.48575294,-0.6943005,-1.0,1.0,-1.0,-1.0,1.0,-1.0,1.0,-1.0,-1.0,1.0,-1.0,1.0,-1.0
2025-07-21 16:25:41.761,2.1000000000000014,2100,105,-0.16194244,-0.18337719,0.0387498,0.1737176,0.1234799,-0.038856678,-0.06014427,-0.02547019,0.037280962,0.0,0.0,0.0,0.0,0.5,0.0,0.0,0.081819326,0.12038201,-0.09610799,0.022200014,-0.00219217,0.04760871,-0.027214112,-0.14929777,0.0757246,-0.0032401877,0.054902613,-0.038794223,0.006239945,-0.042903915,-0.0313175,0.07706092,0.023003602,0.055841915,0.025304914,-0.05504562,-0.0010160482,-0.09975945,0.13961077,-0.077212445,1.0,-1.0,-1.0,1.0,-1.0,1.0,-1.0,-1.0,1.0,-1.0,1.0,-1.0,1.0,-0.3003802,-1.0,1.0,1.0,1.0,-1.0,-0.2307508,1.0,1.0,-1.0,-0.009850055
2025-07-21 16:25:41.781,2.1200000000000014,2120,106,-0.18700513,0.19201642,0.34193218,0.11788252,0.19202015,-0.058348853,-0.07961285,-0.006223693,-0.023106234,0.0,0.0,0.0,0.0,0.5,0.0,0.0,0.0982262,0.085254446,-0.09998404,0.039808724,0.017123811,0.068058155,-0.042457905,-0.1521156,0.09311506,0.022504305,0.043291707,-0.0270757,0.033405595,-0.042316154,-0.0015454962,0.01954024,0.04526754,0.036959056,-0.014570555,0.033741113,0.0009749078,0.06027615,-0.11916503,0.08403592,1.0,-0.3003802,-1.0,1.0,1.0,1.0,-1.0,-0.2307508,1.0,1.0,-1.0,-0.009850055,1.0,-0.4126174,-1.0,1.0,1.0,1.0,-1.0,-1.0,1.0,-0.94658625,0.81910044,-1.0
2025-07-21 16:25:41.801,2.1400000000000015,2140,107,-0.029457116,0.15453523,0.32510412,0.009249547,-0.034388874,0.044054158,-0.05823166,-0.026559422,0.0057776016,0.0,0.0,0.0,0.0,0.5,0.0,0.0,0.11009748,0.03799366,-0.10884089,0.052478712,0.065323144,0.056432866,-0.06867138,-0.15349132,0.10912911,-0.001208068,0.045393717,-0.05142872,-0.01799122,-0.10672642,-0.011312435,0.05682237,0.18565965,0.06700647,-0.043998066,-0.10017664,0.027085105,-0.02872069,0.10732809,-0.07286865,1.0,-0.4126174,-1.0,1.0,1.0,1.0,-1.0,-1.0,1.0,-0.94658625,0.81910044,-1.0,1.0,-0.014146928,1.0,1.0,-1.0,1.0,-1.0,1.0,1.0,0.92458475,-0.18080707,-1.0
2025-07-21 16:25:41.821,2.1600000000000015,2160,108,0.083096735,0.2125759,0.10454425,0.04946628,0.13333099,-0.15273103,-0.09464984,-0.06542963,0.045750316,0.0,0.0,0.0,0.0,0.5,0.0,0.0,0.12109976,0.022526396,-0.07761084,0.054844912,0.064143136,0.08303501,-0.08080964,-0.13893232,0.11475362,0.032142375,0.048358396,-0.063266136,-0.041436378,0.012086518,0.16369335,0.05231182,-0.0876422,0.014082705,-0.033327408,0.16442099,-0.023319155,0.051361207,0.011577629,0.01444881,1.0,-0.014146928,1.0,1.0,-1.0,1.0,-1.0,1.0,1.0,0.92458475,-0.18080707,-1.0,-1.0,-1.0,-1.0,1.0,1.0,1.0,-0.43086138,-1.0,1.0,-1.0,-0.42398223,-1.0
2025-07-21 16:25:41.844,2.1800000000000015,2180,109,0.013508285,-0.16572344,0.21176647,0.03982441,-0.25755695,0.1736397,-0.08542377,-0.045151483,-0.03320691,0.0,0.0,0.0,0.0,0.5,0.0,0.0,0.098232575,0.022032341,-0.07774893,0.06388052,0.10634077,0.08762163,-0.08789699,-0.12803453,0.10884623,0.00921466,0.0070980857,-0.08779186,-0.117764965,-0.08816981,-0.00062006497,-0.025025832,0.1605691,0.053641547,-0.017285788,-0.14007592,0.037273563,-0.058749337,-0.103826545,0.023298617,-1.0,-1.0,-1.0,1.0,1.0,1.0,-0.43086138,-1.0,1.0,-1.0,-0.42398223,-1.0,1.0,1.0,-1.0,1.0,-1.0,1.0,-1.0,1.0,1.0,-1.0,0.06508477,-1.0
2025-07-21 16:25:41.861,2.2000000000000015,2200,110,-0.07000659,-0.015726058,0.1569231,-0.08750237,0.047014453,-0.019044349,-0.05581204,-0.0296831,-0.014624787,0.0,0.0,0.0,0.0,0.5,0.0,0.0,0.10704349,0.04116239,-0.09750771,0.07821338,0.10755413,0.10390249,-0.09182907,-0.10326964,0.11252288,-0.029699482,-0.002230784,-0.100834794,0.034550298,0.15308551,0.044743426,-0.011819968,-0.06578554,0.08202413,-0.023898063,0.06605986,0.0699522,-0.13540342,0.025486501,-0.07763654,1.0,1.0,-1.0,1.0,-1.0,1.0,-1.0,1.0,1.0,-1.0,0.06508477,-1.0,1.0,-1.0,-1.0,1.0,0.9488751,1.0,-1.0,-1.0,1.0,-1.0,0.9149285,-1.0
2025-07-21 16:25:41.881,2.2200000000000015,2220,111,-0.10831522,-0.1331188,-0.14991218,0.0019373109,-0.026364245,0.15215254,-0.1063659,-0.051878054,-0.04643418,0.0,0.0,0.0,0.0,0.5,0.0,0.0,0.11338215,0.04514095,-0.10347267,0.09388551,0.15406828,0.0968099,-0.08906946,-0.09766157,0.13312735,-0.05022332,0.046370845,-0.11472577,0.040061783,-0.12688152,-0.08232225,0.023558881,0.17920485,-0.021186367,0.0056501627,-0.00044246245,0.013869674,-0.040123038,0.20135295,-0.05383613,1.0,-1.0,-1.0,1.0,0.9488751,1.0,-1.0,-1.0,1.0,-1.0,0.9149285,-1.0,1.0,1.0,-0.06906575,1.0,-1.0,1.0,-1.0,0.5236138,1.0,1.0,-1.0,-1.0
2025-07-21 16:25:41.901,2.2400000000000015,2240,112,0.08263589,0.16341038,-0.16821678,0.07956258,0.21066737,-0.06785801,-0.0931512,-0.0938982,-0.021449115,0.0,0.0,0.0,0.0,0.5,0.0,0.0,0.122182034,0.054186363,-0.086517155,0.10420028,0.14866215,0.104311965,-0.09647826,-0.07900938,0.12475631,-0.030639168,0.058837324,-0.11388844,0.015665134,0.073456064,0.013371011,0.074809454,-0.062329084,-0.04153665,0.047771424,0.080995865,-0.008757738,0.077110596,-0.0881837,0.02777506,1.0,1.0,-0.06906575,1.0,-1.0,1.0,-1.0,0.5236138,1.0,1.0,-1.0,-1.0,-0.86997706,-1.0,-1.0,1.0,1.0,1.0,-1.0,-1.0,1.0,-1.0,0.8440941,-1.0
2025-07-21 16:25:41.921,2.2600000000000016,2260,113,0.14636925,0.21571201,0.001428735,0.17761403,-0.0586742,0.12961963,-0.092582405,-0.01787383,0.02529294,0.0,0.0,0.0,0.0,0.5,0.0,0.0,0.08545139,0.049285997,-0.1028489,0.097241916,0.18516745,0.103796296,-0.11631094,-0.07021796,0.1367619,-0.043338083,0.05765927,-0.11678111,-0.06055459,-0.21549875,-0.056034043,-0.05597887,0.031527698,0.024183549,-0.07282916,-0.03295195,0.010334121,0.0063437126,0.058336057,-0.05559246,-0.86997706,-1.0,-1.0,1.0,1.0,1.0,-1.0,-1.0,1.0,-1.0,0.8440941,-1.0,1.0,-0.91907567,1.0,1.0,-1.0,1.0,-1.0,-1.0,1.0,-1.0,-0.60256946,-1.0
2025-07-21 16:25:41.944,2.2800000000000016,2280,114,-0.15486406,-0.20455027,0.3133054,0.32350367,0.13371758,0.005497486,-0.101901054,-0.059920426,-0.039729413,0.0,0.0,0.0,0.0,0.5,0.0,0.0,0.07953278,-0.016121536,-0.07187289,0.10902961,0.17801377,0.11538114,-0.123491004,-0.10897844,0.1356643,-0.06096869,0.040749352,-0.12433522,0.012451538,-0.17851432,0.06338999,0.08434672,-0.017374817,-0.008563338,0.04823736,-0.10014015,-0.040265083,-0.007023699,-0.078989245,-0.015134283,1.0,-0.91907567,1.0,1.0,-1.0,1.0,-1.0,-1.0,1.0,-1.0,-0.60256946,-1.0,-1.0,1.0,-1.0,-0.5562957,0.78702134,1.0,-1.0,1.0,1.0,1.0,-0.95822906,1.0
2025-07-21 16:25:41.962,2.3000000000000016,2300,115,0.051596995,-0.011984161,0.06005795,-0.018790387,-0.15412755,0.022984492,-0.17552647,-0.07902847,-0.023116292,0.0,0.0,0.0,0.0,0.5,0.0,0.0,0.048405904,-0.0026649397,-0.09257185,0.09268004,0.20933433,0.119909145,-0.14260934,-0.09063021,0.14411154,-0.030061506,-0.029953148,-0.084616765,-0.09556397,0.10749476,-0.037776,-0.09650698,0.016172681,0.06730206,-0.027109249,0.076535955,-0.008321662,0.07937342,-0.13112667,0.061078556,-1.0,1.0,-1.0,-0.5562957,0.78702134,1.0,-1.0,1.0,1.0,1.0,-0.95822906,1.0,-1.0,-1.0,1.0,-0.102517426,-1.0,1.0,-1.0,-1.0,1.0,1.0,-0.031320143,1.0
2025-07-21 16:25:41.982,2.3200000000000016,2320,116,0.0077028726,-0.24563645,-0.07300114,-0.007236283,-0.3267786,0.07018095,-0.13972,-0.00736829,0.04841633,0.0,0.0,0.0,0.0,0.5,0.0,0.0,0.028003436,-0.025244584,-0.046245605,0.05861812,0.20058264,0.1303711,-0.13490218,-0.09470242,0.14727618,0.011763031,-0.037792705,-0.044463404,-0.10627369,-0.12546864,0.039230276,0.0024402842,-0.07821615,0.025918737,-0.068877324,-0.13289684,0.049223684,0.15630345,-0.009927516,0.051858447,-1.0,-1.0,1.0,-0.102517426,-1.0,1.0,-1.0,-1.0,1.0,1.0,-0.031320143,1.0,-1.0,1.0,0.45916808,1.0,-1.0,1.0,-0.07451764,1.0,1.0,1.0,-1.0,1.0
2025-07-21 16:25:42.002,2.3400000000000016,2340,117,-0.2424502,-0.26969218,0.062901706,-0.26952627,-0.05736232,-0.14872359,-0.1340584,-0.07159889,-0.0037296147,0.0,0.0,0.0,0.0,0.5,0.0,0.0,-0.0065751947,-0.0073026167,-0.035262227,0.06692258,0.19237696,0.1322945,-0.12754406,-0.102253966,0.13486192,0.02699973,-0.091425434,0.0034148728,-0.08815806,0.116078496,-0.040003676,0.01606898,-0.12597013,-0.000991281,-0.01755675,0.2052395,-0.015262282,0.080745675,-0.16107541,0.07101002,-1.0,1.0,0.45916808,1.0,-1.0,1.0,-0.07451764,1.0,1.0,1.0,-1.0,1.0,-1.0,1.0,-1.0,0.56368273,1.0,1.0,-1.0,-1.0,1.0,1.0,1.0,1.0
2025-07-21 16:25:42.022,2.3600000000000017,2360,118,-0.11583121,0.044127144,-0.105454415,-0.25002867,-0.3023705,-0.05049639,-0.063303165,-0.051661007,-0.01737219,0.0,0.0,0.0,0.0,0.5,0.0,0.0,-0.035068367,0.075024,-0.058833577,0.08023438,0.21930309,0.13901997,-0.13294357,-0.09083461,0.1514433,0.05338954,-0.08981948,0.022557935,-0.086970106,0.22159195,-0.030451378,0.0151474485,0.052021265,0.035052884,-0.085593656,-0.10701452,0.048927054,0.077563666,0.16317916,0.023396054,-1.0,1.0,-1.0,0.56368273,1.0,1.0,-1.0,-1.0,1.0,1.0,1.0,1.0,-0.22600628,-1.0,-1.0,0.10961437,-1.0,1.0,-1.0,-0.3211377,1.0,1.0,0.23859338,-0.98853135
2025-07-21 16:25:42.044,2.3800000000000017,2380,119,-0.198142,-0.23449418,-0.26471278,-0.02819384,-0.24296226,0.0052565644,-0.07541803,-0.04422796,0.042616416,0.0,0.0,0.0,0.0,0.5,0.0,0.0,-0.044440188,0.090214826,-0.07617859,0.070274815,0.22885434,0.14405547,-0.13335739,-0.098515525,0.15733261,0.0802406,-0.055177256,-0.013455996,0.06808596,-0.038563494,0.0064625554,0.019096067,0.06452579,0.057727072,0.0036341075,-0.034200322,0.0018708395,0.07645008,0.03046333,-0.0006407962,-0.22600628,-1.0,-1.0,0.10961437,-1.0,1.0,-1.0,-0.3211377,1.0,1.0,0.23859338,-0.98853135,1.0,-0.53994715,-1.0,1.0,-1.0,1.0,-1.0,-1.0,1.0,-0.2908758,-0.29648337,-1.0
2025-07-21 16:25:42.062,2.4000000000000017,2400,120,-0.28246972,-0.37239692,0.00021286726,0.2067271,0.112577766,-0.026311299,-0.11747796,-0.0068903784,0.008393935,0.0,0.0,0.0,0.0,0.5,0.0,0.0,-0.0045949216,0.046561,-0.10209795,0.07875232,0.20586656,0.14531225,-0.12876941,-0.11429784,0.14518212,0.05906537,-0.06198898,-0.024303423,0.092183754,-0.07301395,-0.00020358674,0.032586988,-0.13708542,0.007701691,-0.06430661,-0.16286758,-0.028787298,-0.11832238,-0.0877695,-0.08414971,1.0,-0.53994715,-1.0,1.0,-1.0,1.0,-1.0,-1.0,1.0,-0.2908758,-0.29648337,-1.0,1.0,-0.75043005,-1.0,1.0,-1.0,1.0,-1.0,1.0,1.0,0.99862313,1.0,0.8638052
2025-07-21 16:25:42.082,2.4200000000000017,2420,121,-0.40928152,-0.2998831,0.02359194,0.1228478,0.110918134,-0.023371415,-0.12055383,0.016020192,-0.028005777,0.0,0.0,0.0,0.0,0.5,0.0,0.0,0.028761802,0.008918011,-0.11089914,0.08201491,0.17612624,0.14666863,-0.13848016,-0.11393148,0.14643878,0.07356466,-0.027490553,-0.0008122534,0.09474968,-0.17340063,0.022897704,0.02622101,-0.08957692,-0.02855662,0.013874666,0.06440771,0.048843622,0.09392392,0.23104478,0.062370095,1.0,-0.75043005,-1.0,1.0,-1.0,1.0,-1.0,1.0,1.0,0.99862313,1.0,0.8638052,1.0,0.5345518,-1.0,1.0,1.0,1.0,-1.0,-1.0,1.0,1.0,-1.0,1.0
2025-07-21 16:25:42.102,2.4400000000000017,2440,122,-0.3321529,-0.1554532,0.08343753,0.09762806,-0.026607934,-0.01577733,-0.15510926,0.00077453704,-0.02851665,0.0,0.0,0.0,0.0,0.5,0.0,0.0,0.050664242,-0.00998622,-0.12162362,0.097540475,0.18057103,0.13818952,-0.13246012,-0.12531006,0.15334144,0.09764807,-0.02184773,0.03115062,0.134653,-0.0069139455,-0.05618122,0.022810746,0.051316895,0.010573983,-0.057898603,-0.1126313,-0.050931655,0.02358505,-0.048553113,0.10320112,1.0,0.5345518,-1.0,1.0,1.0,1.0,-1.0,-1.0,1.0,1.0,-1.0,1.0,1.0,0.43159723,0.6096387,-0.30013278,-1.0,1.0,0.41906175,1.0,1.0,1.0,-0.26583037,1.0
2025-07-21 16:25:42.124,2.4600000000000017,2460,123,-0.080873705,0.025106138,0.008514008,-0.09508844,-0.051884305,-0.036864538,-0.12767826,-0.027056955,0.0022276726,0.0,0.0,0.0,0.0,0.5,0.0,0.0,0.07927994,0.03424686,-0.08403072,0.07272883,0.19662035,0.13332307,-0.10829207,-0.110083066,0.14215854,0.101114824,-0.035178367,0.04147298,0.032813285,0.0806823,0.061884128,-0.004161344,-0.023702532,-0.051849827,0.06120369,0.14450733,0.052908033,0.07581655,-0.041828193,0.00528078,1.0,0.43159723,0.6096387,-0.30013278,-1.0,1.0,0.41906175,1.0,1.0,1.0,-0.26583037,1.0,-0.8910688,0.373762,-1.0,1.0,-0.95368624,1.0,-1.0,-1.0,1.0,1.0,-0.93641514,-0.63396096
2025-07-21 16:25:42.144,2.4800000000000018,2480,124,-0.5803257,0.13346809,0.009350969,0.039650552,0.004122531,-0.1289733,-0.082572974,-0.03489604,0.009523677,0.0,0.0,0.0,0.0,0.5,0.0,0.0,0.044583693,0.054994807,-0.09755993,0.084565066,0.17923962,0.13872036,-0.11751264,-0.10056347,0.15292557,0.12262198,-0.09661351,0.025075017,-0.060502417,0.06597815,-0.059609775,-0.004572047,-0.05147451,-0.025807504,-0.02111161,-0.0644936,0.083182834,0.043889146,-0.17325202,-0.046907652,-0.8910688,0.373762,-1.0,1.0,-0.95368624,1.0,-1.0,-1.0,1.0,1.0,-0.93641514,-0.63396096,0.76168656,-0.23345923,-1.0,1.0,1.0,1.0,-1.0,-1.0,1.0,-1.0,1.0,-1.0
2025-07-21 16:25:42.162,2.5000000000000018,2500,125,-0.3859291,-0.058245853,-0.22895399,-0.036540404,-0.07775655,0.013055243,-0.12392782,-0.01508189,-0.023500867,0.0,0.0,0.0,0.0,0.5,0.0,0.0,0.052413136,0.034248956,-0.10327802,0.089451395,0.1948745,0.14831531,-0.11790285,-0.15652826,0.15731744,0.08987581,-0.08212898,-0.0048004505,-0.001139572,-0.053791277,-0.023913879,-0.04332102,0.1770293,-0.021367691,0.06637816,-0.08703471,0.07762176,-0.10246318,0.094014525,-0.13162453,0.76168656,-0.23345923,-1.0,1.0,1.0,1.0,-1.0,-1.0,1.0,-1.0,1.0,-1.0,1.0,-0.08014381,-1.0,1.0,-1.0,1.0,-1.0,1.0,1.0,-0.16171919,0.9541765,-1.0
2025-07-21 16:25:42.183,2.520000000000002,2520,126,-0.14638792,-0.23517796,-0.25006637,-0.086388074,0.0132198725,-0.14536303,-0.07649104,0.018165346,-0.008473782,0.0,0.0,0.0,0.0,0.5,0.0,0.0,0.065766566,0.023929354,-0.1282531,0.09354801,0.2041456,0.13926095,-0.121932484,-0.13037783,0.15182297,0.06769672,-0.007918345,-0.04142965,0.10833555,-0.010712466,0.01585719,0.035286527,-0.018999299,0.083286,-0.05442936,0.07519125,0.016353302,-0.007249052,0.2548025,-0.10199657,1.0,-0.08014381,-1.0,1.0,-1.0,1.0,-1.0,1.0,1.0,-0.16171919,0.9541765,-1.0,1.0,-0.008943323,-1.0,1.0,-1.0,1.0,-0.5823905,-1.0,1.0,-0.45972812,-1.0,-0.9173119
2025-07-21 16:25:42.203,2.540000000000002,2540,127,-0.5809069,-0.06497679,-0.098122716,0.1803683,0.13986593,-0.057716094,-0.087442756,0.015361318,-0.014112718,0.0,0.0,0.0,0.0,0.5,0.0,0.0,0.09668313,0.016270708,-0.13477488,0.12339521,0.18424375,0.138165,-0.1264801,-0.1445146,0.15075238,0.050251465,-0.002626669,-0.04694681,0.10398265,-0.015279113,0.005821631,0.048845667,-0.06133197,0.033573873,0.082254246,-0.10062672,0.034082413,-0.008448776,-0.16341746,-0.083601944,1.0,-0.008943323,-1.0,1.0,-1.0,1.0,-0.5823905,-1.0,1.0,-0.45972812,-1.0,-0.9173119,1.0,-0.57432103,-1.0,1.0,0.9690738,1.0,-1.0,0.7393553,1.0,-0.5700716,1.0,-0.5017035
2025-07-21 16:25:42.228,2.560000000000002,2560,128,-0.028443769,0.12017283,-0.25290215,-0.09915256,0.08039362,-0.011145098,-0.099257454,-0.019258922,0.014158762,0.0,0.0,0.0,0.0,0.5,0.0,0.0,0.10289348,-0.01422009,-0.13481142,0.12506135,0.2073643,0.13422266,-0.13215075,-0.13431028,0.14885157,0.026915278,0.0017330707,-0.048029155,0.021958312,-0.09730815,-0.03191458,0.035300236,0.024247795,0.02000283,-0.030549629,0.115307376,0.045248087,-0.028154323,0.22145087,-0.06028862,1.0,-0.57432103,-1.0,1.0,0.9690738,1.0,-1.0,0.7393553,1.0,-0.5700716,1.0,-0.5017035,-0.15556182,-0.011749212,-0.70655227,1.0,-1.0,1.0,-1.0,-1.0,1.0,-1.0,-1.0,-1.0
2025-07-21 16:25:42.244,2.580000000000002,2580,129,-0.3243083,0.034508016,0.19251466,0.07206841,-0.07377898,-0.011419889,-0.11497624,0.02079367,-0.039795294,0.0,0.0,0.0,0.0,0.5,0.0,0.0,0.09496873,-0.023745231,-0.131929,0.11076356,0.21778208,0.13496827,-0.13885549,-0.112433,0.15389648,-0.012534567,0.013064756,-0.06852971,0.030413177,-0.028580993,0.046662197,0.023031216,-0.07758154,-0.0030868961,0.020188838,-0.037017412,-0.05872269,-0.013251358,-0.13051526,-0.10241419,-0.15556182,-0.011749212,-0.70655227,1.0,-1.0,1.0,-1.0,-1.0,1.0,-1.0,-1.0,-1.0,1.0,-1.0,-1.0,1.0,1.0,1.0,-1.0,0.5061729,1.0,-1.0,1.0,-1.0
2025-07-21 16:25:42.263,2.600000000000002,2600,130,-0.2477445,0.10140438,-0.1877641,-0.23944408,-0.06125057,-0.01987272,-0.08677643,-0.013522816,-0.013863447,0.0,0.0,0.0,0.0,0.5,0.0,0.0,0.113466166,-0.054380298,-0.1462334,0.12672628,0.24408714,0.13640882,-0.13805324,-0.08838835,0.14217205,-0.031942703,0.023255795,-0.08708019,0.070870385,-0.1210853,-0.0029073542,-0.039822284,0.0711199,0.0014309481,-0.04094167,0.073755465,-0.01803722,-0.12058824,0.13499595,-0.05816689,1.0,-1.0,-1.0,1.0,1.0,1.0,-1.0,0.5061729,1.0,-1.0,1.0,-1.0,-0.56104755,1.0,0.650842,1.0,-1.0,1.0,-1.0,-1.0,1.0,0.4826404,-1.0,-1.0
2025-07-21 16:25:42.283,2.620000000000002,2620,131,-0.30853432,-0.017728977,-0.014716487,0.10223333,-0.08861853,-0.079426445,-0.06559737,-0.02912975,0.016272796,0.0,0.0,0.0,0.0,0.5,0.0,0.0,0.07836566,-0.07969641,-0.11697219,0.13203084,0.25300172,0.13214427,-0.14496481,-0.08189399,0.15294097,-0.023793766,-0.00042520784,-0.09645829,-0.10184155,-0.061660863,0.11585654,-0.0098704025,0.050059058,0.009336926,-0.030291548,-0.079889715,0.029445816,0.10789827,-0.19544816,-0.057294592,-0.56104755,1.0,0.650842,1.0,-1.0,1.0,-1.0,-1.0,1.0,0.4826404,-1.0,-1.0,-0.45691136,1.0,-1.0,1.0,-1.0,1.0,-0.9501576,-0.960778,1.0,-0.4154135,0.76124567,-0.16531745
2025-07-21 16:25:42.303,2.640000000000002,2640,132,-0.20946418,0.07595517,-0.021510579,0.036605705,-0.08559698,-0.011963303,-0.059106514,-0.050331425,-0.0063466346,0.0,0.0,0.0,0.0,0.5,0.0,0.0,0.07035305,-0.043872513,-0.12463565,0.12560494,0.23396574,0.1483885,-0.15247731,-0.11674124,0.15716308,-0.033018205,0.0055799293,-0.08735611,-0.07924869,0.064339675,-0.08655166,-0.047021385,0.028905619,0.08247022,0.06388639,-0.15838179,0.0812273,0.044060513,0.18496302,-0.02480672,-0.45691136,1.0,-1.0,1.0,-1.0,1.0,-0.9501576,-0.960778,1.0,-0.4154135,0.76124567,-0.16531745,0.47186574,-1.0,-1.0,1.0,-1.0,1.0,-1.0,1.0,1.0,-1.0,-1.0,-1.0
2025-07-21 16:25:42.328,2.660000000000002,2660,133,-0.13917238,-0.0456765,0.1917151,0.14737286,0.045616593,-0.10942276,-0.10117931,-0.046116367,0.046129763,0.0,0.0,0.0,0.0,0.5,0.0,0.0,0.07946636,-0.035710044,-0.12978394,0.11923228,0.22453244,0.14806035,-0.15025172,-0.096156396,0.15170565,-0.050223712,-0.007821596,-0.09947725,0.052070055,-0.11352493,-0.07588668,-0.058670048,-0.013639813,0.04205213,-0.056003936,0.030993335,-0.027466431,-0.035094857,-0.18553296,-0.042000912,0.47186574,-1.0,-1.0,1.0,-1.0,1.0,-1.0,1.0,1.0,-1.0,-1.0,-1.0,-0.1399978,-0.362691,-1.0,1.0,-1.0,1.0,-1.0,-1.0,1.0,-1.0,1.0,-0.68046665
2025-07-21 16:25:42.344,2.680000000000002,2680,134,-0.16844477,-0.046473194,0.009841844,0.16567235,0.024420474,0.06270954,-0.13979031,0.0066293227,-0.03714113,0.0,0.0,0.0,0.0,0.5,0.0,0.0,0.06297886,-0.05376191,-0.13141313,0.13070802,0.19683655,0.14372882,-0.15942697,-0.11376341,0.15408137,-0.07639925,-0.023980264,-0.10040497,-0.03142898,0.017199712,0.048838332,-0.021102158,-0.006797378,-0.043589715,0.028528752,-0.027984641,-0.028412908,0.013706427,0.13795868,-0.047228165,-0.1399978,-0.362691,-1.0,1.0,-1.0,1.0,-1.0,-1.0,1.0,-1.0,1.0,-0.68046665,1.0,-1.0,-1.0,1.0,-0.61393386,1.0,-1.0,1.0,1.0,0.36561227,-0.8366725,1.0
2025-07-21 16:25:42.363,2.700000000000002,2700,135,-0.67111343,-0.08707837,0.37533385,0.22717124,0.15678008,0.024672847,-0.12176274,-0.04256163,-0.049570404,0.0,0.0,0.0,0.0,0.5,0.0,0.0,0.0792363,-0.107646585,-0.1333307,0.13912737,0.17091063,0.15751481,-0.15452723,-0.08500882,0.14910594,-0.056765385,-0.038717896,-0.06058687,0.05129463,-0.13818102,0.039524827,-0.0007756513,-0.0146106295,0.05855369,-0.085944906,0.15817538,-0.0437098,0.06723456,-0.14931343,0.13534568,1.0,-1.0,-1.0,1.0,-0.61393386,1.0,-1.0,1.0,1.0,0.36561227,-0.8366725,1.0,1.0,1.0,1.0,1.0,1.0,0.012222767,-1.0,-0.55245507,1.0,1.0,-1.0,1.0
2025-07-21 16:25:42.383,2.720000000000002,2720,136,-0.52520436,-0.066523895,0.17780888,-0.11746233,-0.04045406,-0.11362759,-0.19510935,0.012101435,0.04611328,0.0,0.0,0.0,0.0,0.5,0.0,0.0,0.09976036,-0.14714865,-0.10738914,0.15146792,0.18425077,0.11640363,-0.16050999,-0.08219032,0.1470901,-0.019020194,-0.1036946,-0.015796166,-0.034442786,-0.057597972,0.14232327,0.043773945,0.15527718,-0.12920886,-0.032081146,-0.054914035,-0.02311994,0.08201031,-0.19059876,0.11222692,1.0,1.0,1.0,1.0,1.0,0.012222767,-1.0,-0.55245507,1.0,1.0,-1.0,1.0,-0.5092051,1.0,0.090457916,-1.0,1.0,-1.0,-0.81082827,0.4140264,1.0,1.0,1.0,1.0
2025-07-21 16:25:42.403,2.740000000000002,2740,137,-0.02098455,-0.13114215,-0.015652556,-0.3383151,-0.53502584,-0.1528598,-0.088173635,0.009296794,0.004667958,0.0,0.0,0.0,0.0,0.5,0.0,0.0,0.06661692,-0.10231061,-0.09053775,0.10028806,0.22809535,0.08005757,-0.15588956,-0.05257095,0.14545885,0.011218774,-0.10345734,0.0018283786,-0.039993007,0.110588044,0.090236425,-0.19925578,0.13184866,-0.17177057,-0.022284055,0.17423403,-0.0493899,0.06921984,0.21879634,0.0142967,-0.5092051,1.0,0.090457916,-1.0,1.0,-1.0,-0.81082827,0.4140264,1.0,1.0,1.0,1.0,-1.0,0.82917273,1.0,-1.0,-1.0,0.14593351,-0.9507452,-1.0,-0.81621194,1.0,-1.0,1.0
2025-07-21 16:25:42.428,2.760000000000002,2760,138,-0.20083845,-0.11096594,-0.11442455,-0.1312659,-0.49466273,-0.09424272,-0.086057365,0.023229316,0.03881911,0.0,0.0,0.0,0.0,0.5,0.0,0.0,0.025924366,-0.03488146,-0.0500873,0.04936349,0.2464479,0.062376995,-0.17067598,-0.07627572,0.10348764,0.03302157,-0.09838356,0.04614037,-0.10777466,0.21719545,0.054556552,-0.17537114,-0.072829954,-0.0011660563,0.072520524,-0.1387481,-0.12882763,0.04674103,-0.081279136,-0.0052825226,-1.0,0.82917273,1.0,-1.0,-1.0,0.14593351,-0.9507452,-1.0,-0.81621194,1.0,-1.0,1.0,-1.0,0.5137819,1.0,-1.0,0.004115142,-1.0,1.0,1.0,-0.08310789,1.0,0.83891827,1.0
2025-07-21 16:25:42.444,2.780000000000002,2780,139,-0.16321382,-0.052811723,-0.63710386,-0.41639107,-0.42207634,-0.12434366,-0.041839417,0.014246556,0.01928247,0.0,0.0,0.0,0.0,0.5,0.0,0.0,0.0013486794,0.016186407,-0.021726819,0.016522216,0.23695977,0.02541178,-0.12885502,-0.073623024,0.08693177,0.057124093,-0.083268665,0.05891379,-0.10787999,0.14715016,0.1452646,-0.07843598,-0.025420025,-0.049926184,0.16966304,0.177197,0.012041979,0.058115892,0.17137553,-0.016397059,-1.0,0.5137819,1.0,-1.0,0.004115142,-1.0,1.0,1.0,-0.08310789,1.0,0.83891827,1.0,-1.0,-1.0,1.0,-1.0,-0.7543299,-1.0,1.0,0.10284501,-1.0,1.0,-1.0,1.0
2025-07-21 16:25:42.464,2.800000000000002,2800,140,-0.82997066,0.18593055,0.06460772,-0.016816547,-0.05952811,-0.03367507,-0.05563673,0.057144225,0.031934287,0.0,0.0,0.0,0.0,0.5,0.0,0.0,-0.0017458997,0.027948437,0.0128138885,-0.005281532,0.21627212,-0.0049372376,-0.06962352,-0.047263194,0.049840175,0.06840285,-0.08228396,0.064960144,0.026052674,-0.04281728,0.06761931,-0.054629162,-0.09507574,-0.105087586,0.16090026,0.025081124,-0.1131612,-0.01212808,-0.09874906,0.099301405,-1.0,-1.0,1.0,-1.0,-0.7543299,-1.0,1.0,0.10284501,-1.0,1.0,-1.0,1.0,-1.0,1.0,1.0,-0.95407575,0.81734717,-1.0,1.0,1.0,1.0,1.0,1.0,1.0
2025-07-21 16:25:42.484,2.820000000000002,2820,141,-0.42275557,0.08931503,-0.06934119,-0.35185036,-0.06648698,0.03086175,-0.022510512,0.09006971,-0.005016191,0.0,0.0,0.0,0.0,0.5,0.0,0.0,-0.019790499,0.05295696,0.017178379,-0.039947264,0.23873672,-0.026120985,-0.036864482,0.0035570194,0.06280436,0.06447261,-0.06188638,0.06349021,-0.10373579,0.087104544,-0.032276955,-0.099338844,0.020035557,-0.10721822,0.04693538,0.23486836,0.096076295,-0.013018949,0.14582005,-0.04400916,-1.0,1.0,1.0,-0.95407575,0.81734717,-1.0,1.0,1.0,1.0,1.0,1.0,1.0,-1.0,1.0,1.0,-0.26192433,-1.0,-1.0,-1.0,-1.0,1.0,1.0,-1.0,1.0
2025-07-21 16:25:42.504,2.840000000000002,2840,142,-0.19990805,0.23950626,-0.107343554,-0.0033520495,0.16365083,-0.09668105,0.0062398706,0.03986326,-0.02325548,0.0,0.0,0.0,0.0,0.5,0.0,0.0,-0.040196307,0.08606214,0.028814299,-0.048058525,0.20101032,-0.041049663,-0.049129635,0.009698725,0.08458329,0.072608575,-0.044022094,0.09038371,-0.027370108,0.1711024,0.095573135,0.049093183,-0.15749393,-0.05180202,-0.07898764,-0.17456889,-0.009094505,0.0024774575,-0.00661186,0.05682249,-1.0,1.0,1.0,-0.26192433,-1.0,-1.0,-1.0,-1.0,1.0,1.0,-1.0,1.0,-1.0,-0.6467742,1.0,-0.6639808,-1.0,-0.14826828,-1.0,0.032662302,1.0,1.0,1.0,1.0
2025-07-21 16:25:42.528,2.860000000000002,2860,143,-0.19662495,-0.013256226,-0.00044550694,-0.026492542,-0.15335596,0.06866265,0.011724071,0.012787385,0.0096268635,0.0,0.0,0.0,0.0,0.5,0.0,0.0,-0.048124872,0.112831876,0.046694692,-0.052122623,0.084806904,-0.03315875,-0.0641931,0.005846259,0.095113456,0.07087101,-0.027505709,0.0850476,-0.08536111,-0.07082032,0.059794158,-0.0009361021,-0.30191183,0.0330665,-0.039245103,-0.028903462,-0.043615688,0.06717091,0.11521984,-0.01080592,-1.0,-0.6467742,1.0,-0.6639808,-1.0,-0.14826828,-1.0,0.032662302,1.0,1.0,1.0,1.0,-1.0,1.0,1.0,-0.29235515,1.0,-1.0,-1.0,-0.75268877,1.0,1.0,-1.0,1.0
2025-07-21 16:25:42.544,2.880000000000002,2880,144,-0.26997304,0.016862968,0.05501356,0.2723325,-0.0952027,0.077916175,0.0407995,0.06205104,0.027032608,0.0,0.0,0.0,0.0,0.5,0.0,0.0,-0.061260987,0.1190072,0.07259834,-0.048139572,0.06416136,-0.06768158,-0.07710127,-0.022329327,0.0989644,0.08120577,-0.034392796,0.08969586,-0.08605347,0.060181685,0.08031415,0.023811465,0.024981532,-0.07946591,-0.09595487,-0.123818554,0.021005008,-0.031513844,-0.064961985,-0.006446618,-1.0,1.0,1.0,-0.29235515,1.0,-1.0,-1.0,-0.75268877,1.0,1.0,-1.0,1.0,-1.0,1.0,1.0,-1.0,-1.0,1.0,-1.0,1.0,1.0,1.0,-1.0,1.0
2025-07-21 16:25:42.564,2.900000000000002,2900,145,-0.036991276,0.17422812,0.27761963,0.15968406,0.05478907,-0.074372426,-0.038635828,0.023320938,0.041039012,0.0,0.0,0.0,0.0,0.5,0.0,0.0,-0.08159026,0.16095239,0.07514349,-0.06710916,0.040056176,-0.03888191,-0.09959711,-0.013980749,0.10536118,0.09448503,-0.07231073,0.114466645,-0.030361472,0.12436388,0.04620972,-0.02525986,-0.15842652,0.11250544,-0.056682695,0.15350616,-0.011155854,0.029115329,-0.15318379,0.0371131,-1.0,1.0,1.0,-1.0,-1.0,1.0,-1.0,1.0,1.0,1.0,-1.0,1.0,-0.84586215,-1.0,-1.0,1.0,1.0,1.0,-1.0,-1.0,1.0,1.0,1.0,-1.0
2025-07-21 16:25:42.584,2.920000000000002,2920,146,-0.22318396,-0.12431449,-0.02249419,-0.020728648,0.18648912,0.17020817,-0.03680222,0.025932627,0.04143721,0.0,0.0,0.0,0.0,0.5,0.0,0.0,-0.08153632,0.16851932,0.033183333,-0.05533482,0.026022498,-0.011032628,-0.11094519,-0.013796503,0.13034575,0.10845037,-0.043850906,0.07405857,0.039616734,0.031628527,-0.14963566,0.05651478,0.036493436,0.018700493,0.03658495,-0.18021391,0.012174082,-0.03334203,0.1666965,-0.095246494,-0.84586215,-1.0,-1.0,1.0,1.0,1.0,-1.0,-1.0,1.0,1.0,1.0,-1.0,1.0,1.0,-1.0,1.0,1.0,1.0,-1.0,-1.0,1.0,-1.0,0.17907284,-1.0
2025-07-21 16:25:42.604,2.940000000000002,2940,147,-0.05286706,-0.044309307,-0.09258783,-0.04546519,0.25638545,0.059558816,-0.00810617,0.051232696,0.022414409,0.0,0.0,0.0,0.0,0.5,0.0,0.0,-0.041251704,0.21399069,0.009339737,-0.03135163,0.07697085,0.013320819,-0.10474027,-0.0798273,0.12134333,0.074999794,-0.011600877,0.03258926,0.15672277,0.16255495,-0.0073541407,0.11271295,0.11224106,-0.02015784,0.03415685,-0.10971837,-0.03274512,-0.15518853,0.047922138,-0.09430641,1.0,1.0,-1.0,1.0,1.0,1.0,-1.0,-1.0,1.0,-1.0,0.17907284,-1.0,1.0,-1.0,-1.0,1.0,-1.0,1.0,-1.0,0.18259159,1.0,-1.0,1.0,-1.0
2025-07-21 16:25:42.628,2.960000000000002,2960,148,-0.2191793,0.2978219,-0.176163,-0.07145885,0.24598418,-0.07880034,-0.05391171,0.026607787,-0.031115932,0.0,0.0,0.0,0.0,0.5,0.0,0.0,-0.0068260473,0.19663645,-0.033043243,0.0049859053,0.09843953,0.03010282,-0.119246714,-0.067990996,0.13171653,0.04144597,0.048884347,0.000571137,0.02756638,-0.101748064,-0.12424619,0.1040007,-0.018420834,0.02295448,-0.013058859,0.12816301,0.06450233,-0.15609927,0.14349891,-0.03825197,1.0,-1.0,-1.0,1.0,-1.0,1.0,-1.0,0.18259159,1.0,-1.0,1.0,-1.0,1.0,-1.0,-1.0,1.0,1.0,1.0,-1.0,-1.0,1.0,-1.0,1.0,-1.0
2025-07-21 16:25:42.644,2.980000000000002,2980,149,0.09591551,0.115383714,-0.3092589,0.013348152,0.11253475,0.05799001,-0.098660745,-0.019152585,-0.020010665,0.0,0.0,0.0,0.0,0.5,0.0,0.0,0.011647985,0.096376196,-0.03731416,0.015957711,0.115111776,0.05623088,-0.12025025,-0.07432877,0.12559961,-0.0010215074,0.0977516,-0.040353302,0.08160456,-0.28278607,-0.0014817166,0.039647568,0.085717216,0.07532878,0.01134709,-0.047957633,0.054774195,-0.024777533,0.15669443,-0.05272413,1.0,-1.0,-1.0,1.0,1.0,1.0,-1.0,-1.0,1.0,-1.0,1.0,-1.0,1.0,0.36871886,1.0,1.0,-1.0,1.0,-1.0,-1.0,1.0,-0.8922893,-1.0,-1.0
2025-07-21 16:25:42.664,3.000000000000002,3000,150,-0.006188557,0.2332575,0.093573086,0.07743276,0.083562694,-0.21600474,-0.032459646,-0.05831609,0.047469877,0.0,0.0,0.0,0.0,0.5,0.0,0.0,0.04176237,0.03678791,-0.040257327,0.041814465,0.103289776,0.06927089,-0.11059935,-0.08724403,0.13215722,-0.01776508,0.09750792,-0.058205992,0.052220955,-0.05140278,0.013847453,0.11917314,-0.07078079,0.030519083,0.020161586,-0.12127515,0.049676634,-0.069695584,-0.2208862,0.0075544207,1.0,0.36871886,1.0,1.0,-1.0,1.0,-1.0,-1.0,1.0,-0.8922893,-1.0,-1.0,-1.0,-1.0,0.6175599,1.0,1.0,1.0,-1.0,-0.97523916,1.0,0.33810866,0.854495,1.0
2025-07-21 16:25:42.684,3.0200000000000022,3020,151,-0.09047804,-0.13575849,0.5127103,0.16184725,-0.19617297,0.15503898,-0.09006249,-0.019706737,0.022416336,0.0,0.0,0.0,0.0,0.5,0.0,0.0,0.033775788,-0.001986434,-0.010686476,0.044824097,0.1280358,0.062350333,-0.1318061,-0.12417168,0.15090562,-0.022093534,0.09763616,-0.026334208,-0.13328917,-0.180197,0.024877932,0.003567255,0.11012455,0.049258284,0.029914286,-0.047887716,0.029474622,0.097409286,0.1744019,0.039042152,-1.0,-1.0,0.6175599,1.0,1.0,1.0,-1.0,-0.97523916,1.0,0.33810866,0.854495,1.0,1.0,1.0,-1.0,0.21741134,-1.0,1.0,-1.0,0.18721476,1.0,1.0,-1.0,1.0
2025-07-21 16:25:42.704,3.0400000000000023,3040,152,-0.12586181,0.25209346,0.27171186,0.12965043,0.047773328,-0.059816748,-0.09141944,0.025155913,-0.024280762,0.0,0.0,0.0,0.0,0.5,0.0,0.0,0.050583612,0.025539823,-0.043694336,0.044551566,0.12956019,0.081310995,-0.13279001,-0.13500595,0.15203449,0.010108928,0.085738465,0.0038789785,0.091679215,0.19783466,-0.098306045,-0.05639628,-0.070827894,0.09139647,-0.037594628,0.100161985,0.026141874,0.06159269,-0.18871723,0.13973036,1.0,1.0,-1.0,0.21741134,-1.0,1.0,-1.0,0.18721476,1.0,1.0,-1.0,1.0,0.19592486,-1.0,-0.5176028,1.0,1.0,1.0,-1.0,-1.0,1.0,-1.0,0.21301548,-1.0
2025-07-21 16:25:42.728,3.0600000000000023,3060,153,0.04758334,0.12964746,-0.16642141,0.098764114,0.0290752,0.10398151,-0.065075144,0.008016586,0.026969967,0.0,0.0,0.0,0.0,0.5,0.0,0.0,0.048804,0.029930012,-0.03497735,0.05311882,0.1538141,0.08700534,-0.13906272,-0.13150224,0.15126684,-0.010502804,0.08332876,-0.020794041,0.04612281,-0.07537114,-0.03402893,0.08968423,0.13178156,0.0036857845,-0.0597234,0.01631702,-0.039500248,-0.07236367,-0.011790924,-0.08578095,0.19592486,-1.0,-0.5176028,1.0,1.0,1.0,-1.0,-1.0,1.0,-1.0,0.21301548,-1.0,0.9897665,-0.37125427,0.92804074,1.0,-1.0,1.0,-1.0,-0.9706204,1.0,-1.0,-1.0,-1.0
2025-07-21 16:25:42.745,3.0800000000000023,3080,154,-0.14373414,0.21587285,-0.0036727905,0.21075992,0.25762504,-0.0013583563,-0.1109688,0.044999752,-0.030283954,0.0,0.0,0.0,0.0,0.5,0.0,0.0,0.06209538,-0.015072301,-0.015718225,0.0674585,0.15660495,0.0954138,-0.14233252,-0.15603709,0.15190253,-0.025063025,0.025429092,-0.035180893,0.047045942,-0.079785034,0.010887245,0.042488523,-0.02272873,0.08290998,0.06707407,-0.03941546,-0.051535185,-0.08223121,-0.18113257,-0.06461913,0.9897665,-0.37125427,0.92804074,1.0,-1.0,1.0,-1.0,-0.9706204,1.0,-1.0,-1.0,-1.0,-1.0,0.97988343,-0.16535556,1.0,1.0,1.0,-1.0,0.90088594,1.0,-0.25122482,0.2964103,1.0
2025-07-21 16:25:42.765,3.1000000000000023,3100,155,0.10515822,-0.07739812,-0.099301666,-0.21217044,-0.23021092,0.054936603,-0.050353825,0.03563337,0.02286632,0.0,0.0,0.0,0.0,0.5,0.0,0.0,0.045692623,0.015182079,-0.011433767,0.07698266,0.17580473,0.100135095,-0.14820501,-0.14776103,0.13523853,-0.043183513,0.014343274,-0.017901037,-0.0630381,0.11691508,-0.07620753,0.051521175,0.10507532,0.036747675,-0.05481757,0.0745503,-0.09531038,-0.06798615,0.02903381,0.08423316,-1.0,0.97988343,-0.16535556,1.0,1.0,1.0,-1.0,0.90088594,1.0,-0.25122482,0.2964103,1.0,0.9766207,0.71279347,-1.0,1.0,-1.0,1.0,-1.0,-1.0,1.0,1.0,-1.0,1.0
2025-07-21 16:25:42.785,3.1200000000000023,3120,156,0.0075466107,0.057375602,0.13241227,0.22927478,0.14979944,0.012817419,-0.07617022,-0.008809409,-0.029263156,0.0,0.0,0.0,0.0,0.5,0.0,0.0,0.05245671,0.051408377,-0.034980636,0.09301923,0.18108673,0.111523226,-0.14800425,-0.16848971,0.15414083,0.005731134,-0.040376194,0.02793553,0.11456124,0.047671303,0.00059011753,-0.00056865363,0.026535159,0.06726249,0.018658249,-0.13455634,-0.035595093,0.066677734,-0.23915772,0.06441326,0.9766207,0.71279347,-1.0,1.0,-1.0,1.0,-1.0,-1.0,1.0,1.0,-1.0,1.0,0.7060893,-1.0,-1.0,1.0,-1.0,1.0,-1.0,1.0,1.0,-0.6268991,1.0,-1.0
2025-07-21 16:25:42.805,3.1400000000000023,3140,157,0.08325402,0.35861808,-0.30973253,-0.0017209727,0.17822216,-0.007224771,-0.10349949,0.040076688,0.033777565,0.0,0.0,0.0,0.0,0.5,0.0,0.0,0.0784229,0.04630782,-0.06776882,0.09539506,0.17674632,0.12063961,-0.14919868,-0.14791745,0.13740091,-0.016607275,-0.029672971,-0.01471307,-0.016157184,-0.14306855,-0.02084628,0.020867012,-0.074634835,-0.046777766,-0.039505992,0.13245825,-0.06174818,0.0019775545,0.18015921,-0.09360218,0.7060893,-1.0,-1.0,1.0,-1.0,1.0,-1.0,1.0,1.0,-0.6268991,1.0,-1.0,-0.57268536,-1.0,1.0,1.0,1.0,1.0,-1.0,-1.0,1.0,-1.0,0.69178295,-1.0
2025-07-21 16:25:42.828,3.1600000000000024,3160,158,-0.012169603,0.22274718,-0.18825392,0.101060174,-0.07262657,0.14336438,-0.13901599,0.0197739,0.014982609,0.0,0.0,0.0,0.0,0.5,0.0,0.0,0.0476399,-0.023988303,-0.02741772,0.10302052,0.20734541,0.121647365,-0.16199535,-0.13874377,0.14777948,-0.044946138,0.02680964,-0.030789208,-0.10425297,-0.094866455,0.009774665,0.06677924,0.062153965,-0.0699416,-0.060296692,0.02302182,-0.06387738,-0.0069455644,0.19619352,-0.019765263,-0.57268536,-1.0,1.0,1.0,1.0,1.0,-1.0,-1.0,1.0,-1.0,0.69178295,-1.0,-0.5676758,0.74128264,1.0,1.0,1.0,1.0,-1.0,1.0,1.0,1.0,-1.0,1.0
2025-07-21 16:25:42.845,3.1800000000000024,3180,159,0.30204192,0.022151781,-0.13156092,-0.110853866,-0.10921755,0.0352124,-0.107868046,0.016371854,0.02514948,0.0,0.0,0.0,0.0,0.5,0.0,0.0,0.038577862,-0.028990356,-0.0040842337,0.11970325,0.24685144,0.13305852,-0.15350258,-0.112548694,0.14504048,-0.005579536,0.0049446123,0.0060055284,0.011223516,-0.0023842196,0.021442445,0.07133164,0.032599594,0.0144660715,-0.05584795,0.17060876,-0.09606915,0.007774576,-0.15018713,0.07195431,-0.5676758,0.74128264,1.0,1.0,1.0,1.0,-1.0,1.0,1.0,1.0,-1.0,1.0,-1.0,1.0,1.0,-1.0,-1.0,-1.0,0.6407298,-0.63462925,-1.0,1.0,-1.0,1.0
2025-07-21 16:25:42.865,3.2000000000000024,3200,160,0.021504464,0.06678431,-0.15009844,-0.10769191,-0.37751067,0.023696594,-0.07875894,-0.0243346,0.020052725,0.0,0.0,0.0,0.0,0.5,0.0,0.0,0.004253344,0.00089466193,0.0208237,0.06779161,0.25598466,0.08562082,-0.12934414,-0.10997541,0.10199282,0.014807043,-0.062713586,0.023024555,-0.09162566,0.18813549,0.0080602,-0.16408515,0.06792819,-0.09964383,0.09493054,-0.08069888,-0.07156444,0.05103753,-0.10265373,-0.012128922,-1.0,1.0,1.0,-1.0,-1.0,-1.0,0.6407298,-0.63462925,-1.0,1.0,-1.0,1.0,-1.0,-1.0,1.0,-1.0,-0.66655874,-1.0,0.9866021,1.0,0.86114365,1.0,0.6230996,1.0
