openverse-orca/OrcaGym/log/simulation_log_20250606_114033.csv
timestamp,imu_angle_roll,imu_angle_pitch,imu_angle_yaw,imu_angular_velocity_roll,imu_angular_velocity_pitch,imu_angular_velocity_yaw,imu_acc_x,imu_acc_y,imu_acc_z,fl_joint1_pos,fl_joint1_vel,fl_joint1_torque,fl_joint2_pos,fl_joint2_vel,fl_joint2_torque,fl_joint3_pos,fl_joint3_vel,fl_joint3_torque,fr_joint1_pos,fr_joint1_vel,fr_joint1_torque,fr_joint2_pos,fr_joint2_vel,fr_joint2_torque,fr_joint3_pos,fr_joint3_vel,fr_joint3_torque,hl_joint1_pos,hl_joint1_vel,hl_joint1_torque,hl_joint2_pos,hl_joint2_vel,hl_joint2_torque,hl_joint3_pos,hl_joint3_vel,hl_joint3_torque,hr_joint1_pos,hr_joint1_vel,hr_joint1_torque,hr_joint2_pos,hr_joint2_vel,hr_joint2_torque,hr_joint3_pos,hr_joint3_vel,hr_joint3_torque,fl_force_x,fl_force_y,fl_force_z,fr_force_x,fr_force_y,fr_force_z,hl_force_x,hl_force_y,hl_force_z,hr_force_x,hr_force_y,hr_force_z,fl_hip_action,fl_thigh_action,fl_calf_action,fr_hip_action,fr_thigh_action,fr_calf_action,hl_hip_action,hl_thigh_action,hl_calf_action,hr_hip_action,hr_thigh_action,hr_calf_action
2025-06-06 11:40:34.023,-0.04648385,-0.021383803,-0.013251291,-0.019822942,0.015197626,0.049279504,0.4337849,1.0412633,0.0,0.0,-0.008471851,0.0032642845,-0.006404547,-0.009823154,-0.0010919392,0.0017421859,-0.0098953685,-0.009693789,-0.003267395,0.0027265702,0.0011746354,-0.008764446,0.005107121,-0.0643141,-0.05923476,0.049323075,0.045029484,-0.04548981,0.03706356,0.005459951,0.055120576,-0.027215365,-0.062112648,-0.058383502,0.0,0.0,0.0,0.0,0.0,0.0,0.0,0.0,0.0,0.0,0.0,0.0,-2.9061794,-0.12285629,1.1240275,2.924038,-0.15007257,-2.0829716,2.4791687,-0.79843646,-0.8735682,-3.0,0.31188685,-3.0
2025-06-06 11:40:34.028,-0.11578626,0.009540446,-0.0077456897,-0.034223188,0.051220655,0.04349338,0.0,0.0,0.0,0.0,-0.029484486,-0.008314669,0.031772077,0.012151444,-0.00041124236,-0.046063475,0.016145708,-0.03122902,-0.013675675,-0.018597703,0.015285275,-0.06532411,-0.02482668,0.025679871,0.024310712,0.03509568,-6.7370594e-05,-0.1849719,-0.005512878,-0.16827598,-0.033319045,-0.030926961,0.0347436,-0.16766241,-2.9061794,-0.12285629,1.1240275,2.924038,-0.15007257,-2.0829716,2.4791687,-0.79843646,-0.8735682,-3.0,0.31188685,-3.0,-3.0,1.4260067,-3.0,3.0,1.2525058,-3.0,3.0,-0.809329,-3.0,-3.0,-2.3972983,-3.0
2025-06-06 11:40:34.048,-0.010158124,-0.062347185,0.047720823,-0.021548493,-0.03388509,-0.032299723,0.0,0.0,0.0,4.505395e-05,-0.055447333,0.04839318,-0.05093428,0.051771194,0.026471017,-0.13915688,0.03415683,-0.052846234,-0.06034317,-0.051265076,-0.04140107,-0.089629956,-0.010739221,0.24996601,-0.25792494,0.09184862,0.041206256,-0.11904179,-0.018364841,0.0015243061,-0.019932892,0.013294984,-0.13652933,0.09726147,-3.0,1.4260067,-3.0,3.0,1.2525058,-3.0,3.0,-0.809329,-3.0,-3.0,-2.3972983,-3.0,-3.0,0.93175614,-3.0,3.0,1.9411839,-3.0,3.0,-2.7570167,-3.0,-3.0,-2.3034887,-3.0
2025-06-06 11:40:34.072,-0.12859714,-0.24817468,-0.013053498,-0.05625338,-0.015210632,-0.0021994102,0.0,0.0,0.0,-0.0005893736,-0.07126833,0.083849244,-0.12541293,0.06378326,0.042985406,-0.17062347,0.044465534,-0.11294966,-0.03479791,-0.04771704,-0.10137124,-0.052245628,-0.041053824,-0.0016038843,-0.11235882,0.037039757,-0.05221669,-0.055457067,-0.03651593,-0.13062327,0.12613368,0.048984144,-0.12254892,0.06072608,-3.0,0.93175614,-3.0,3.0,1.9411839,-3.0,3.0,-2.7570167,-3.0,-3.0,-2.3034887,-3.0,-3.0,1.918454,-3.0,3.0,1.4304616,-3.0,3.0,-2.3512669,-3.0,-3.0,-1.3785732,-3.0
2025-06-06 11:40:34.088,-0.043690782,-0.11548128,-0.00074427825,-0.02833509,-0.06893263,0.040480975,0.0,0.0,0.0,-0.0010905472,-0.0797681,0.07958036,-0.13683686,0.06698569,0.0313872,-0.17154434,0.049525633,-0.17176406,-0.0160449,-0.05546849,-0.13620886,-0.04042525,-0.04881606,-0.043948416,-0.0046472177,0.034890708,0.003813286,0.0003908605,0.016095955,-0.022850566,-0.02950834,0.045228258,-0.048490576,0.083092116,-3.0,1.918454,-3.0,3.0,1.4304616,-3.0,3.0,-2.3512669,-3.0,-3.0,-1.3785732,-3.0,-3.0,1.5841675,-3.0,3.0,1.1824789,-3.0,3.0,-2.1284893,-3.0,-3.0,-1.3245935,-3.0
2025-06-06 11:40:34.109,0.0030348364,-0.11073393,-0.033734597,0.013906891,-0.040600684,-0.044361662,0.0,0.0,0.0,-0.0007961297,-0.06610742,0.07881019,-0.17116034,0.065728895,0.02640855,-0.20483781,0.038986545,-0.19728905,-0.011765954,-0.052200176,-0.14512819,-0.042428218,0.06368111,-0.04679548,-0.08371298,-0.06054691,-0.02701161,-0.080852695,-0.05131338,-0.032779977,-0.0011082329,0.025452685,0.011605167,0.01723581,-3.0,1.5841675,-3.0,3.0,1.1824789,-3.0,3.0,-2.1284893,-3.0,-3.0,-1.3245935,-3.0,-3.0,1.9142919,-3.0,3.0,1.134078,-3.0,3.0,-1.7797475,-3.0,-3.0,-1.7058592,-3.0
2025-06-06 11:40:34.129,0.05843601,-0.07022778,0.018868836,0.009200116,-0.01960403,0.0052542184,0.0,0.0,0.0,-0.00014319949,-0.073214374,0.07981928,-0.19759387,0.07300135,0.047200006,-0.24242198,0.044522367,-0.19671135,-0.039337765,-0.037073057,-0.14769617,-0.06916248,-0.014829286,0.08457904,-0.101585075,-0.015036422,0.030200494,-0.058477994,-0.014688686,-0.031301092,-0.0435822,-0.027451389,-0.046949755,-0.013843087,-3.0,1.9142919,-3.0,3.0,1.134078,-3.0,3.0,-1.7797475,-3.0,-3.0,-1.7058592,-3.0,-3.0,1.3549781,-3.0,3.0,1.3382353,-3.0,3.0,-2.3141582,-3.0,-3.0,-1.6976244,-3.0
2025-06-06 11:40:34.153,-0.04437798,-0.15490861,-0.035415046,-0.05322696,-0.050390936,-0.016409619,0.0,0.0,0.0,0.00018881334,-0.0804239,0.10514473,-0.23469175,0.070192784,0.06551291,-0.27180803,0.055912573,-0.21813585,-0.06621459,-0.05021952,-0.16528532,-0.079673655,-0.03915912,-0.032574188,-0.016651811,-0.038938783,0.11415095,-0.12778307,-0.0118259,-0.02733242,-0.10356809,-0.051781707,-0.017701944,-0.051782385,-3.0,1.3549781,-3.0,3.0,1.3382353,-3.0,3.0,-2.3141582,-3.0,-3.0,-1.6976244,-3.0,-3.0,1.915643,-3.0,3.0,0.8951684,-3.0,3.0,-1.8066651,-3.0,-3.0,-1.6770093,-3.0
2025-06-06 11:40:34.172,0.057043806,-0.0472639,0.027718332,-0.003182202,-0.06866354,0.04200391,0.0,0.0,0.0,0.0005169551,-0.09764953,0.12591515,-0.2536323,0.09828452,0.08002297,-0.28768986,0.0679747,-0.24815156,-0.10644391,-0.041872125,-0.17153376,-0.110673204,-0.074519075,0.10128753,-0.09988133,0.050185293,0.04460263,-0.09812248,-0.06661981,-0.006966755,-0.047258567,0.04122243,0.0020842198,-0.011608525,-3.0,1.915643,-3.0,3.0,0.8951684,-3.0,3.0,-1.8066651,-3.0,-3.0,-1.6770093,-3.0,-3.0,1.2094176,-3.0,3.0,0.99666107,-3.0,3.0,-2.516122,-3.0,-3.0,-1.516207,-3.0
2025-06-06 11:40:34.191,-0.09253789,-0.069716066,0.019872142,-0.059102345,-0.11728842,0.03160195,0.0,0.0,0.0,0.00038832767,-0.10723438,0.16025713,-0.2767422,0.10587691,0.12391922,-0.302605,0.059827812,-0.26366192,-0.114613004,-0.05420882,-0.19628757,-0.11645482,-0.032214798,0.09240176,-0.07602226,0.010541602,0.046738975,0.02837541,0.017087048,-0.12960866,-0.045434214,-0.022994407,-0.018099803,0.02669962,-3.0,1.2094176,-3.0,3.0,0.99666107,-3.0,3.0,-2.516122,-3.0,-3.0,-1.516207,-3.0,-3.0,1.543081,-3.0,3.0,0.93681204,-2.916508,3.0,-2.286444,-3.0,-3.0,-1.3079827,-3.0
2025-06-06 11:40:34.211,-0.057028797,0.019164298,0.038879156,0.030201083,-0.12220222,-0.007056327,0.0,0.0,0.0,0.0002177548,-0.110812254,0.19869733,-0.28300548,0.11069881,0.13586622,-0.3038875,0.0731391,-0.2970628,-0.105671465,-0.05588353,-0.19063066,-0.12979676,0.0041071423,0.09300396,0.0466786,0.0013451942,0.049438786,-0.06640359,0.047734156,-0.05192259,-0.047215097,0.030229662,0.019557592,0.01765127,-3.0,1.543081,-3.0,3.0,0.93681204,-2.916508,3.0,-2.286444,-3.0,-3.0,-1.3079827,-3.0,-3.0,1.4317236,-3.0,3.0,0.83378553,-2.8481812,3.0,-2.3303645,-3.0,-3.0,-1.1712735,-3.0
2025-06-06 11:40:34.231,-0.030900579,0.10175295,-0.04303508,-0.04310461,-0.034348514,-0.03195907,0.0,0.0,0.0,0.00039118747,-0.12566055,0.19824271,-0.27565166,0.10886382,0.16862677,-0.29895607,0.06354756,-0.3138439,-0.12201507,-0.054818228,-0.19790524,-0.13584231,0.006810064,0.011803644,0.09344272,-0.057304073,0.0133636985,0.04901388,-0.022022814,-0.12993608,-0.07091006,-0.07548136,0.038566224,-0.00998482,-3.0,1.4317236,-3.0,3.0,0.83378553,-2.8481812,3.0,-2.3303645,-3.0,-3.0,-1.1712735,-3.0,-2.9342303,1.9204966,-3.0,3.0,0.6734787,-3.0,3.0,-1.8339388,-3.0,-3.0,-1.4742072,-3.0
2025-06-06 11:40:34.253,0.13784492,0.113978304,0.02634986,0.0070560738,-0.057204347,-0.023557257,0.0,0.0,0.0,0.00082141906,-0.12131811,0.16754453,-0.26409134,0.11883423,0.15818174,-0.3012581,0.07850007,-0.31429076,-0.15403242,-0.047173128,-0.21405499,-0.13591239,0.033647504,0.021490758,0.020903872,0.044249278,-0.021557692,-0.043099456,0.05127696,0.029883271,-0.110957064,0.030874334,-0.015914625,0.015857767,-2.9342303,1.9204966,-3.0,3.0,0.6734787,-3.0,3.0,-1.8339388,-3.0,-3.0,-1.4742072,-3.0,-3.0,1.2814438,-3.0,3.0,0.8430559,-3.0,3.0,-2.3654463,-3.0,-3.0,-1.3325385,-3.0
2025-06-06 11:40:34.271,-0.01770096,0.06337572,0.007881539,-0.026765816,-0.0042103776,0.022893908,0.0,0.0,0.0,0.0007998602,-0.109781966,0.14840429,-0.23977058,0.11015032,0.14433107,-0.29625168,0.076065905,-0.33575988,-0.16483548,-0.05160796,-0.22392139,-0.142917,0.042756747,-0.0063641565,0.08822386,-0.0034214354,-0.08189219,0.0755063,0.008461914,0.0038075973,-0.053399302,-0.03058032,0.05054484,-0.0050220015,-3.0,1.2814438,-3.0,3.0,0.8430559,-3.0,3.0,-2.3654463,-3.0,-3.0,-1.3325385,-3.0,-3.0,1.6472191,-3.0,3.0,0.63822746,-2.7276442,3.0,-2.2376025,-3.0,-3.0,-1.3025408,-3.0
2025-06-06 11:40:34.291,-0.027271166,0.095196865,-0.011613494,-0.052390907,0.005482176,0.01825096,0.0,0.0,0.0,0.0007327764,-0.12851332,0.13982749,-0.23651072,0.11701865,0.119130276,-0.264443,0.079420686,-0.3478557,-0.19904971,-0.045706686,-0.23120974,-0.15166785,0.052630812,-0.08344593,0.06452933,0.06466902,-0.109373964,0.0043247617,0.0065533165,-0.09842167,-0.09982269,0.046788994,-0.019625358,-0.05934123,-3.0,1.6472191,-3.0,3.0,0.63822746,-2.7276442,3.0,-2.2376025,-3.0,-3.0,-1.3025408,-3.0,-2.3666227,1.5260298,-3.0,3.0,0.4180562,-2.3310492,3.0,-2.034552,-2.9860737,-3.0,-1.2798568,-3.0
2025-06-06 11:40:34.311,0.08512275,0.11153688,0.085882425,0.031737037,-0.023431458,-0.027262237,0.0,0.0,0.0,0.00047150682,-0.1198624,0.11873399,-0.20967637,0.10902466,0.1061223,-0.23600307,0.10005517,-0.35537723,-0.23044528,-0.060928304,-0.22642778,-0.14893606,0.013908967,-0.023830865,0.10731153,-0.0032389131,-0.1287523,0.070126295,-0.008937372,-0.09150057,-0.08635389,0.035856694,0.04846421,-0.049256586,-2.3666227,1.5260298,-3.0,3.0,0.4180562,-2.3310492,3.0,-2.034552,-2.9860737,-3.0,-1.2798568,-3.0,-2.6449752,0.38443294,-3.0,3.0,0.24488568,-1.2225873,3.0,-2.7701406,-1.4268178,-3.0,-0.6600122,-3.0
2025-06-06 11:40:34.332,-0.02261079,0.11418059,0.0057566175,0.009472189,0.0036345785,-0.027797002,0.0,0.0,0.0,-0.00027863652,-0.13818172,0.10888131,-0.19565128,0.110105984,0.08204013,-0.21564768,0.11511069,-0.3979437,-0.21070044,-0.075691216,-0.22248927,-0.14955957,0.03542187,-0.0029113754,0.07110457,0.036196154,-0.03531594,0.08436225,0.103214554,-0.14639282,0.11613458,-0.08222693,-0.033850934,-0.028362736,-2.6449752,0.38443294,-3.0,3.0,0.24488568,-1.2225873,3.0,-2.7701406,-1.4268178,-3.0,-0.6600122,-3.0,-0.43917736,0.90560085,-3.0,3.0,-0.60710865,1.3424137,3.0,-1.1184521,3.0,-3.0,-0.66329885,-3.0
2025-06-06 11:40:34.354,0.1509287,0.24609987,-0.002562193,-0.026469946,0.02948468,-0.036851622,0.0,0.0,0.0,-0.000453776,-0.14264573,0.09927912,-0.16314828,0.10322548,0.021475248,-0.11266233,0.12848677,-0.37629724,-0.10053029,-0.07728528,-0.22261575,-0.15441014,0.048516627,0.014636543,0.08727403,-0.037075166,-0.06775097,0.19820434,0.08146912,0.16255605,0.37255272,0.013348416,0.09181214,0.048981693,-0.43917736,0.90560085,-3.0,3.0,-0.60710865,1.3424137,3.0,-1.1184521,3.0,-3.0,-0.66329885,-3.0,3.0,-0.08096847,-3.0,3.0,-0.38747758,3.0,3.0,-0.82446676,3.0,-3.0,-1.8360494,-3.0
2025-06-06 11:40:34.372,0.46605068,0.058434587,0.088423155,0.05238167,-0.0039767628,-0.018716082,0.0,0.0,0.0,-0.0007101421,-0.12444146,0.09413797,-0.13050066,0.107466795,-0.02005946,0.020990822,0.13834837,-0.32241395,0.04371634,-0.05880836,-0.24069506,-0.1503533,0.0923645,0.019371467,0.06859161,-0.061164018,-0.02862127,0.24574155,0.028140014,0.13579148,0.37573004,0.054514837,-0.056974772,0.01683641,3.0,-0.08096847,-3.0,3.0,-0.38747758,3.0,3.0,-0.82446676,3.0,-3.0,-1.8360494,-3.0,3.0,-1.0832196,-3.0,3.0,-0.53342897,3.0,3.0,-1.9925183,3.0,-3.0,-0.39911622,-3.0
2025-06-06 11:40:34.392,0.29009303,0.10386742,-0.039293323,0.053786185,0.061156783,0.03376626,0.0,0.0,0.0,-0.001629042,-0.09890676,0.060049064,-0.11048227,0.1188094,-0.040184136,0.11392179,0.14325216,-0.29440036,0.14953409,-0.031165961,-0.24230172,-0.15227513,0.09166643,-0.080675095,0.0041578705,-0.05046555,-0.013362613,0.1936596,-0.049479574,-0.04774333,0.15026923,0.020981552,-0.09468393,-0.040970698,3.0,-1.0832196,-3.0,3.0,-0.53342897,3.0,3.0,-1.9925183,3.0,-3.0,-0.39911622,-3.0,3.0,-0.40181866,-3.0,3.0,0.44942778,3.0,3.0,-0.40067863,3.0,-3.0,-2.0988822,-3.0
2025-06-06 11:40:34.412,0.3413545,0.03934157,0.06821458,0.073894046,0.019461917,-0.032070544,0.0,0.0,0.0,-0.0018354631,-0.07102844,0.037503377,-0.08758898,0.10809135,-0.030034196,0.19143593,0.14627835,-0.24072032,0.21031642,-0.018137354,-0.2808231,-0.1409613,-0.013666298,0.013029065,0.035936166,0.04423152,0.055547584,0.13170573,-0.033939578,0.20039213,0.16597214,0.057657458,-0.07622215,0.10076153,3.0,-0.40181866,-3.0,3.0,0.44942778,3.0,3.0,-0.40067863,3.0,-3.0,-2.0988822,-3.0,3.0,-0.89609647,-3.0,3.0,0.36513352,2.9232278,3.0,-0.7219054,3.0,-3.0,-0.68427235,-3.0
2025-06-06 11:40:34.433,0.24664485,0.16683494,-0.04509875,0.11762781,0.101114295,0.022565251,0.0,0.0,0.0,-0.001997364,-0.069421224,0.016817816,-0.07793914,0.11942589,-0.00019999193,0.23973206,0.14649257,-0.20622158,0.25326926,-0.010288719,-0.30043152,-0.13407516,0.07386205,-0.033414345,0.08234686,-0.019903366,0.026285267,0.15936695,-0.050829537,0.106431164,0.08314255,0.030837942,-0.029939638,0.0019048562,3.0,-0.89609647,-3.0,3.0,0.36513352,2.9232278,3.0,-0.7219054,3.0,-3.0,-0.68427235,-3.0,3.0,-0.12919456,-3.0,3.0,0.96160054,2.487891,3.0,0.16617227,3.0,-3.0,-2.1264062,-3.0
2025-06-06 11:40:34.453,0.32847866,0.123012826,0.023148367,0.15367424,0.09007607,0.0016439605,0.0,0.0,0.0,-0.0017570949,-0.050361555,-0.010721012,-0.05438268,0.10674702,0.050166912,0.24990603,0.14429197,-0.1359404,0.2772943,0.0065993974,-0.32438725,-0.12827718,0.042968858,0.014170862,-0.028638508,0.056861073,0.13475165,0.080790065,0.03827686,0.15301013,-0.023415096,-0.046732645,-0.12588044,0.05792199,3.0,-0.12919456,-3.0,3.0,0.96160054,2.487891,3.0,0.16617227,3.0,-3.0,-2.1264062,-3.0,3.0,-0.29420778,-3.0,3.0,1.2659531,-0.15721948,3.0,0.21156526,3.0,-3.0,-1.3564649,-3.0
2025-06-06 11:40:34.472,0.2562607,0.13426024,0.04017292,0.13827756,0.10056061,-0.024735115,0.0,0.0,0.0,-0.0017942358,-0.04099753,-0.04107112,-0.051963028,0.11154329,0.11372374,0.20305702,0.1395834,-0.062165014,0.27840123,0.008407968,-0.3507233,-0.13077675,-0.009563273,-0.019249044,-0.01813967,0.034978844,0.14609799,-0.058404196,0.033270944,0.1418387,0.007709948,-0.008714881,-0.011249433,0.023669017,3.0,-0.29420778,-3.0,3.0,1.2659531,-0.15721948,3.0,0.21156526,3.0,-3.0,-1.3564649,-3.0,3.0,-0.12560853,-3.0,3.0,2.0594158,-1.8943626,3.0,0.3592888,3.0,-3.0,-1.6166583,-3.0
2025-06-06 11:40:34.492,0.020762857,-0.029621832,0.06052105,0.1181733,0.068596825,-0.008944305,0.0,0.0,0.0,-0.00217154,-0.042490575,-0.058631025,-0.049579147,0.10503804,0.11522087,0.19536518,0.13805817,-0.01595594,0.30343086,0.013474853,-0.35933253,-0.13702804,-0.04387836,-0.06995795,-0.0036186595,-0.058626037,0.014291606,-0.010260885,-0.026282836,0.11782087,-0.048292316,0.03513117,-0.015071986,-0.0048145526,3.0,-0.12560853,-3.0,3.0,2.0594158,-1.8943626,3.0,0.3592888,3.0,-3.0,-1.6166583,-3.0,3.0,0.1457882,-3.0,3.0,2.9051585,-3.0,3.0,0.119511545,-0.39282927,-3.0,-1.3534259,-3.0
2025-06-06 11:40:34.512,-0.12137119,-0.100114584,0.08018201,0.14333677,0.089081615,0.03105265,0.0,0.0,0.0,-0.0029060014,-0.041893903,-0.057061262,-0.08957445,0.10628734,0.11345018,0.17927225,0.13163283,0.02548709,0.22421081,-0.006379642,-0.3569129,-0.16510442,-0.01600719,0.01283493,-0.13432364,-0.08707199,0.07230758,-0.046407096,-0.027632644,0.052271586,-0.19552274,0.0061820424,-0.06782459,-0.06328188,3.0,0.1457882,-3.0,3.0,2.9051585,-3.0,3.0,0.119511545,-0.39282927,-3.0,-1.3534259,-3.0,3.0,-0.55359584,-3.0,3.0,3.0,-3.0,3.0,-1.1823912,-3.0,-3.0,-2.378286,-3.0
2025-06-06 11:40:34.535,-0.28048992,-0.26748145,0.062052656,0.07616601,0.041534983,0.017613595,0.0,0.0,0.0,-0.0042371848,-0.04742117,-0.056138676,-0.12529476,0.08741399,0.12631539,0.12428739,0.14666347,-0.021345038,0.07147982,-0.039180744,-0.38075477,-0.19756,0.002580504,-0.057259522,-0.16562572,-0.03200442,0.05835419,-0.18758938,0.05801163,-0.09873016,-0.45489237,-0.05171788,-0.054708328,-0.038878415,3.0,-0.55359584,-3.0,3.0,3.0,-3.0,3.0,-1.1823912,-3.0,-3.0,-2.378286,-3.0,3.0,-0.6188128,0.0396233,3.0,3.0,-3.0,3.0,-2.0439975,-3.0,-3.0,-2.8857179,-3.0
2025-06-06 11:40:34.553,-0.42930207,-0.40502703,0.09426087,0.10252534,0.0044154306,0.022845082,0.0,0.0,0.0,-0.005857375,-0.018897532,-0.09246977,-0.10512087,0.09075764,0.14092359,0.041247196,0.14034869,-0.10529969,-0.05629928,-0.05294931,-0.43080243,-0.21787563,0.027920116,-0.039825346,0.11956178,0.03364723,0.12912957,-0.18891284,-0.045933608,-0.30085462,-0.26573503,-0.061658394,-0.029042875,-0.04826775,3.0,-0.6188128,0.0396233,3.0,3.0,-3.0,3.0,-2.0439975,-3.0,-3.0,-2.8857179,-3.0,3.0,-0.29689565,2.8682463,3.0,3.0,-3.0,3.0,-2.9178843,-3.0,-3.0,-3.0,-3.0
2025-06-06 11:40:34.572,-0.37647825,-0.3969565,0.031698197,0.09364184,-0.06355799,-0.010171008,0.0,0.0,0.0,-0.007524729,0.021746056,-0.10099328,-0.014281811,0.08037272,0.17375489,-0.029167894,0.11996155,-0.21256378,-0.08557135,-0.0906207,-0.46060824,-0.23854019,0.11644574,-0.021084085,0.29780713,-0.0113393115,0.15209682,-0.19728039,-0.036656976,-0.19173716,0.031112896,0.0014230002,-0.12766667,-0.07380357,3.0,-0.29689565,2.8682463,3.0,3.0,-3.0,3.0,-2.9178843,-3.0,-3.0,-3.0,-3.0,3.0,0.7081942,3.0,3.0,2.6821356,-3.0,3.0,-2.0678117,-3.0,-3.0,-2.5457366,-3.0
2025-06-06 11:40:34.592,-0.19693166,-0.17793334,0.00984875,0.08926677,-0.060333617,0.027322885,0.0,0.0,0.0,-0.008306198,0.07430138,-0.05063581,0.09785673,0.10895832,0.27035975,-0.13096674,0.118125774,-0.25620326,-0.06552477,-0.09042629,-0.47627488,-0.2514597,0.06673768,0.121916726,0.27397192,-0.034198456,0.17465258,-0.22487444,0.011570281,-0.16193376,0.044410713,0.009816353,-0.016200423,-0.09846305,3.0,0.7081942,3.0,3.0,2.6821356,-3.0,3.0,-2.0678117,-3.0,-3.0,-2.5457366,-3.0,3.0,0.72624916,2.6214097,3.0,1.9626529,-3.0,3.0,-2.2528377,-3.0,-3.0,-2.2291393,-3.0
2025-06-06 11:40:34.612,-0.16749069,0.01687555,-0.031320293,0.08401765,-0.05438686,-0.018295448,0.0,0.0,0.0,-0.00828575,0.10693004,0.027012477,0.1590288,0.12540558,0.33867612,-0.18841319,0.12549914,-0.28382972,-0.068338096,-0.106059246,-0.47935,-0.27674142,0.00024663797,0.19375332,0.14485757,0.009198861,0.062690206,-0.074879,-0.067072496,-0.04844483,-0.008144711,-0.02315594,-0.057512492,0.022957344,3.0,0.72624916,2.6214097,3.0,1.9626529,-3.0,3.0,-2.2528377,-3.0,-3.0,-2.2291393,-3.0,3.0,1.0844108,1.4092255,3.0,1.5935222,-3.0,3.0,-1.8037931,-3.0,-3.0,-2.2365205,-3.0
2025-06-06 11:40:34.638,-0.014371523,0.11532218,0.022153035,-0.00014833733,-0.067003295,0.004909672,0.0,0.0,0.0,-0.008083362,0.10679613,0.087744884,0.18494533,0.116667025,0.33951104,-0.20740598,0.11779461,-0.2921766,-0.056676976,-0.11134764,-0.47994107,-0.3057844,0.08323934,0.21290949,0.034303028,0.07693438,0.043956585,0.032125313,0.052702866,-0.088681296,0.06442764,-0.0111123845,-0.05401774,-0.10161365,3.0,1.0844108,1.4092255,3.0,1.5935222,-3.0,3.0,-1.8037931,-3.0,-3.0,-2.2365205,-3.0,3.0,0.68391323,-0.61920017,3.0,1.7515514,-3.0,3.0,-2.3737135,-3.0,-3.0,-1.8752247,-3.0
2025-06-06 11:40:34.659,-0.11003512,0.14550665,-0.04891403,0.023777477,-0.0088815745,-0.009294387,0.0,0.0,0.0,-0.00817221,0.1257001,0.13725856,0.11353178,0.11513406,0.32881945,-0.20915662,0.11953475,-0.31591183,-0.04717971,-0.11226262,-0.4792923,-0.3215684,0.09046737,0.10882457,-0.17923328,0.017027596,0.0020507954,0.05842111,-0.062439717,0.017581139,0.0154390205,0.034832895,0.034069568,-0.022560062,3.0,0.68391323,-0.61920017,3.0,1.7515514,-3.0,3.0,-2.3737135,-3.0,-3.0,-1.8752247,-3.0,3.0,1.2432904,-3.0,3.0,1.4365845,-3.0,3.0,-1.8771957,-3.0,-3.0,-1.8496286,-3.0
2025-06-06 11:40:34.677,-0.13230921,0.1652763,-0.016306592,0.04006157,0.0005208753,0.031767495,0.0,0.0,0.0,-0.008110696,0.12758824,0.17221528,0.00807201,0.122743726,0.33100653,-0.18947527,0.11095499,-0.3194774,-0.05389502,-0.10375604,-0.45111105,-0.3210088,-0.0052963295,0.11375193,-0.28351977,0.02877187,-0.07444618,0.059089653,-0.079341374,-0.008440179,-0.0048563383,0.046126887,-0.02208669,-0.08193083,3.0,1.2432904,-3.0,3.0,1.4365845,-3.0,3.0,-1.8771957,-3.0,-3.0,-1.8496286,-3.0,3.0,0.6699704,-3.0,3.0,1.600335,-3.0,3.0,-2.1687653,-3.0,-3.0,-1.7475705,-3.0
2025-06-06 11:40:34.697,0.016449306,0.001850851,0.02593282,-0.038019557,-0.052444983,-0.043074794,0.0,0.0,0.0,-0.008244366,0.13741496,0.16421916,-0.06567724,0.11616788,0.31277394,-0.17398842,0.11253121,-0.32793245,-0.057752367,-0.116356075,-0.44359046,-0.3329003,0.029227749,-0.029310904,-0.07803765,-0.007127063,-0.05138313,0.0077006835,-0.00229069,-0.062138792,-0.057036478,0.016567698,0.028756998,0.021241155,3.0,0.6699704,-3.0,3.0,1.600335,-3.0,3.0,-2.1687653,-3.0,-3.0,-1.7475705,-3.0,3.0,0.32543027,-3.0,3.0,1.7150918,-3.0,3.0,-2.3903008,-3.0,-3.0,-1.6737618,-3.0
2025-06-06 11:40:34.720,-0.023703953,-0.085914426,0.0032044037,0.03454534,-0.012127837,-0.042330265,0.0,0.0,0.0,-0.008470695,0.14536925,0.14450517,-0.051019184,0.12858662,0.29607764,-0.16561,0.11681564,-0.34799516,-0.068249315,-0.09501252,-0.4491009,-0.36152887,0.019218797,-0.03629263,-0.030255366,-0.04393096,0.03312129,-0.07416887,-0.05260388,-0.0016704664,0.0141739305,0.070316575,-0.059409004,-0.08160121,3.0,0.32543027,-3.0,3.0,1.7150918,-3.0,3.0,-2.3903008,-3.0,-3.0,-1.6737618,-3.0,3.0,0.5837202,-3.0,3.0,1.1642015,-3.0,3.0,-2.3187923,-3.0,-3.0,-1.6970587,-3.0
2025-06-06 11:40:34.737,-0.004892304,-0.13938643,-0.007336052,-0.022496127,-0.0822916,0.020250652,0.0,0.0,0.0,-0.008268999,0.15040939,0.12041622,-0.05837425,0.12553474,0.2793216,-0.18245853,0.13874567,-0.36387804,-0.076210015,-0.09817002,-0.4689783,-0.3538056,0.053178456,-0.07777639,0.005335604,-0.044383626,-0.006968832,-0.09703288,-0.004000306,-0.06474367,-0.09587241,-0.03140356,-0.07299013,0.020344138,3.0,0.5837202,-3.0,3.0,1.1642015,-3.0,3.0,-2.3187923,-3.0,-3.0,-1.6970587,-3.0,3.0,0.3892669,-3.0,3.0,1.1022336,-3.0,3.0,-2.1790447,-3.0,-3.0,-1.9929717,-3.0
2025-06-06 11:40:34.757,0.02547524,-0.09931995,-0.04419542,-0.0025675856,-0.05545922,-0.042489715,0.0,0.0,0.0,-0.007891933,0.13952796,0.096167356,-0.056421854,0.14228989,0.25672343,-0.1897421,0.13149016,-0.38821888,-0.08234796,-0.09524435,-0.46841526,-0.37100202,0.071193054,-0.07600276,0.020897437,0.065063216,-0.010142498,-0.08999637,0.0065182745,-0.047576513,-0.045895163,0.044135585,-0.0015535933,-0.07187782,3.0,0.3892669,-3.0,3.0,1.1022336,-3.0,3.0,-2.1790447,-3.0,-3.0,-1.9929717,-3.0,3.0,0.42287824,-3.0,3.0,0.9719379,-3.0,3.0,-2.186853,-3.0,-3.0,-2.176115,-3.0
2025-06-06 11:40:34.777,0.0877826,-0.109831624,-0.05572612,0.06351451,-0.009298253,0.022869326,0.0,0.0,0.0,-0.0076099266,0.14333959,0.08562028,-0.07449113,0.14255035,0.24209428,-0.21555586,0.14340474,-0.387357,-0.09908578,-0.08880205,-0.47770965,-0.3608051,-0.0120428335,-0.023271447,-0.014195796,0.04260443,0.016779328,-0.011299672,0.07065233,0.039856475,-0.021265367,0.0233411,-0.057218093,0.055055737,3.0,0.42287824,-3.0,3.0,0.9719379,-3.0,3.0,-2.186853,-3.0,-3.0,-2.176115,-3.0,3.0,0.46820447,-3.0,3.0,0.98745775,-3.0,3.0,-2.1252015,-3.0,-3.0,-2.311227,-3.0
2025-06-06 11:40:34.797,0.1058419,-0.15237239,0.0349071,0.0064623808,-0.086186245,0.005819516,0.0,0.0,0.0,-0.007486123,0.15626965,0.08849303,-0.107918,0.14044753,0.23372722,-0.23293974,0.15345424,-0.40528652,-0.12050988,-0.09857113,-0.50876284,-0.36451095,0.06156072,-0.08591697,-0.0974494,0.028569778,-0.08362515,0.036654048,-0.06639964,-0.03179637,-0.110613905,0.039025985,-0.014528524,0.07695255,3.0,0.46820447,-3.0,3.0,0.98745775,-3.0,3.0,-2.1252015,-3.0,-3.0,-2.311227,-3.0,3.0,-0.18479607,-3.0,3.0,1.2795206,-3.0,3.0,-2.6982949,-3.0,-3.0,-2.0171065,-3.0
2025-06-06 11:40:34.820,-0.041367963,-0.07444706,-0.08737116,0.015836254,-0.06792864,-0.039129615,0.0,0.0,0.0,-0.007543132,0.15243754,0.06484682,-0.122471154,0.13987476,0.22326943,-0.22658388,0.1472724,-0.42158574,-0.14449118,-0.09006497,-0.507796,-0.37772557,-0.08879791,-0.099208646,-0.03794051,-0.07132503,-0.059271984,-0.060869828,0.063283734,-0.017805757,-0.040809404,0.04088038,-0.018018203,0.04533842,3.0,-0.18479607,-3.0,3.0,1.2795206,-3.0,3.0,-2.6982949,-3.0,-3.0,-2.0171065,-3.0,3.0,0.8029806,-3.0,3.0,0.87824285,-3.0,3.0,-1.781084,-3.0,-3.0,-2.4943867,-3.0
2025-06-06 11:40:34.838,0.10851159,-0.00793072,0.033908755,0.018839603,-0.04716645,0.003228056,0.0,0.0,0.0,-0.007065446,0.14402443,0.055355005,-0.14836062,0.13930534,0.21700683,-0.23232836,0.14863226,-0.41369712,-0.16026206,-0.0987228,-0.5151753,-0.37032953,0.012710892,0.04646682,0.008543079,0.02385158,0.03436025,-0.012192235,0.049079522,-0.044608593,-0.10571083,-0.0044781673,0.010882612,-0.008930145,3.0,0.8029806,-3.0,3.0,0.87824285,-3.0,3.0,-1.781084,-3.0,-3.0,-2.4943867,-3.0,3.0,-0.46754104,-3.0,3.0,1.4038252,-3.0,3.0,-2.707809,-3.0,-3.0,-2.3273904,-3.0
2025-06-06 11:40:34.858,-0.0148603935,-0.042004447,0.0036927024,0.023057096,-0.07147537,-0.04986722,0.0,0.0,0.0,-0.0068707387,0.14399506,0.05747252,-0.15163338,0.13596317,0.1850289,-0.22876726,0.13849379,-0.44077405,-0.16602795,-0.1014678,-0.53953755,-0.37293792,-0.074890226,-0.043773457,-0.012991171,-0.03414463,0.014882026,0.059579898,-0.07232927,0.031857427,-0.06529701,-0.04082352,0.043757807,-0.018611178,3.0,-0.46754104,-3.0,3.0,1.4038252,-3.0,3.0,-2.707809,-3.0,-3.0,-2.3273904,-3.0,3.0,0.1339691,-3.0,3.0,0.8321676,-3.0,3.0,-2.362894,-3.0,-3.0,-2.3223524,-3.0
2025-06-06 11:40:34.878,0.08299397,-0.011445271,-0.019714177,0.061507195,-0.07574201,0.020408198,0.0,0.0,0.0,-0.0063588037,0.13857883,0.028696077,-0.15901147,0.13091832,0.18535522,-0.22610815,0.15192635,-0.44787738,-0.19337244,-0.09924325,-0.5387848,-0.36587286,-0.02294247,0.0027846193,-0.0069052307,0.0075152526,0.010401448,-0.0019227421,-0.011197417,0.038661953,-0.05251504,0.018669942,0.02332487,-0.07296187,3.0,0.1339691,-3.0,3.0,0.8321676,-3.0,3.0,-2.362894,-3.0,-3.0,-2.3223524,-3.0,3.0,-0.10880467,-3.0,3.0,0.7234634,-3.0,3.0,-2.3826113,-3.0,-3.0,-2.6076865,-3.0
2025-06-06 11:40:34.898,0.029287893,-0.1055218,-0.018944807,0.08286069,-0.13601714,-0.010049574,0.0,0.0,0.0,-0.005686748,0.12904951,0.034394845,-0.1673597,0.1126604,0.15178987,-0.21981108,0.15032317,-0.44882375,-0.2004734,-0.1158666,-0.56230295,-0.3617191,-0.018340044,-0.028796138,0.0154479155,-0.07216178,-0.08202175,-0.038137674,0.018015247,-0.009173152,0.012637987,0.05836382,-0.10625353,0.07044774,3.0,-0.10880467,-3.0,3.0,0.7234634,-3.0,3.0,-2.3826113,-3.0,-3.0,-2.6076865,-3.0,3.0,0.05142209,-3.0,3.0,0.8417575,-3.0,3.0,-2.153221,-3.0,-3.0,-2.5981374,-3.0
2025-06-06 11:40:34.920,0.089529626,-0.061509006,-0.040970877,0.035147823,-0.059149534,-0.017972546,0.0,0.0,0.0,-0.0053022373,0.12735465,0.007397951,-0.16965987,0.12172246,0.13282223,-0.20420803,0.15007845,-0.4524937,-0.20997415,-0.11487579,-0.5657074,-0.35781124,-0.0125761125,-0.026527459,-0.064772435,-0.052943334,-0.070775025,0.033106193,-0.070616014,0.04982331,0.03375417,0.04088339,0.033222176,0.04461937,3.0,0.05142209,-3.0,3.0,0.8417575,-3.0,3.0,-2.153221,-3.0,-3.0,-2.5981374,-3.0,3.0,-0.02732882,-3.0,3.0,0.9411245,-3.0,3.0,-2.2764337,-3.0,-3.0,-2.72227,-3.0
2025-06-06 11:40:34.938,0.08189779,-0.0152581865,0.02336116,0.113648675,-0.10967732,0.02474799,0.0,0.0,0.0,-0.0052518537,0.13739578,0.01609711,-0.17702055,0.11127397,0.12960513,-0.20492923,0.14498834,-0.46855828,-0.21157753,-0.124543555,-0.5858359,-0.3736029,-0.0015809786,-0.05030666,0.021624008,0.012992118,0.0071765725,-0.0010492053,-0.0023972064,0.047771204,-0.0036694235,-0.03623272,-0.042139363,0.011550409,3.0,-0.02732882,-3.0,3.0,0.9411245,-3.0,3.0,-2.2764337,-3.0,-3.0,-2.72227,-3.0,3.0,-0.30363348,-3.0,3.0,0.86679137,-3.0,3.0,-2.473315,-3.0,-3.0,-2.6149848,-3.0
2025-06-06 11:40:34.958,0.013585079,-0.03230232,-0.045610275,0.05627305,-0.082702525,0.047855,0.0,0.0,0.0,-0.00537447,0.119737096,8.399284e-05,-0.18067338,0.10868224,0.11519663,-0.18246442,0.13283616,-0.46461013,-0.22430761,-0.11695184,-0.5927701,-0.36646593,-0.079636745,-0.019029805,0.01384642,-0.012889388,-0.07677432,-0.010378252,-0.0054173833,-0.031680122,-0.07991339,0.014841761,0.026225485,0.008980332,3.0,-0.30363348,-3.0,3.0,0.86679137,-3.0,3.0,-2.473315,-3.0,-3.0,-2.6149848,-3.0,3.0,-0.07234028,-3.0,3.0,0.8209226,-3.0,3.0,-2.0701745,-3.0,-3.0,-3.0,-3.0
2025-06-06 11:40:34.978,0.100323096,0.006079895,0.019471256,0.14279981,-0.087172136,0.007296766,0.0,0.0,0.0,-0.005310692,0.12590373,-0.0071690492,-0.18561128,0.12597564,0.098934,-0.17340235,0.13883674,-0.48486096,-0.227729,-0.12544887,-0.59719473,-0.36387235,-0.071722746,-0.047016896,-0.023733966,-0.010060315,-0.104644306,-0.020448096,-0.067215644,0.06505403,-0.0010580191,-0.0730737,-0.06659888,-0.031964447,3.0,-0.07234028,-3.0,3.0,0.8209226,-3.0,3.0,-2.0701745,-3.0,-3.0,-3.0,-3.0,3.0,-0.45272475,-3.0,3.0,1.1460882,-3.0,3.0,-2.373396,-3.0,-3.0,-2.8813925,-3.0
2025-06-06 11:40:34.998,0.0329252,-0.07837827,0.037000112,0.084788516,-0.14385314,0.0038506628,0.0,0.0,0.0,-0.005467214,0.11808101,-0.011619563,-0.18491791,0.107664496,0.08031106,-0.17642534,0.13395788,-0.47934115,-0.22814761,-0.13283579,-0.619618,-0.35548365,-0.051983003,0.029778803,-0.039632645,-0.014930037,0.050617594,0.0555664,0.023836752,0.053532895,-0.083872795,-0.056506727,-0.00024162214,0.051698077,3.0,-0.45272475,-3.0,3.0,1.1460882,-3.0,3.0,-2.373396,-3.0,-3.0,-2.8813925,-3.0,3.0,-0.47609374,-3.0,3.0,1.0114378,-3.0,3.0,-2.4890254,-3.0,-3.0,-2.7211845,-3.0
2025-06-06 11:40:35.020,-0.034907434,0.021409508,-0.034339588,0.05606218,-0.1302968,-0.031743754,0.0,0.0,0.0,-0.005523314,0.117582396,-0.018962277,-0.19042954,0.10806564,0.07155884,-0.1636902,0.13673317,-0.47979298,-0.23158883,-0.124967486,-0.63082755,-0.35859233,0.050720233,-0.078857295,-0.021111596,0.0097456295,0.044538923,-0.019220123,0.036770545,-0.037830997,-0.064321354,0.041954122,-0.042632867,0.0019866752,3.0,-0.47609374,-3.0,3.0,1.0114378,-3.0,3.0,-2.4890254,-3.0,-3.0,-2.7211845,-3.0,3.0,-0.010966869,-3.0,3.0,0.7121991,-3.0,3.0,-1.9939773,-3.0,-3.0,-2.7768354,-3.0
2025-06-06 11:40:35.038,0.015839886,0.011062395,0.032320738,0.11236947,-0.059075817,0.019469371,0.0,0.0,0.0,-0.0051724273,0.12834227,-0.018456582,-0.18562941,0.1089557,0.073631726,-0.15334736,0.1324702,-0.4777487,-0.23761588,-0.13688429,-0.631533,-0.35860094,0.027030054,0.06598544,-0.02061073,0.013943862,0.028418748,0.07195572,0.026737565,-0.022989264,-0.074985504,0.055712383,-0.03547397,0.051900346,3.0,-0.010966869,-3.0,3.0,0.7121991,-3.0,3.0,-1.9939773,-3.0,-3.0,-2.7768354,-3.0,3.0,-0.6509896,-3.0,3.0,1.0304271,-3.0,3.0,-2.5371056,-3.0,-3.0,-2.8384066,-3.0
2025-06-06 11:40:35.058,-0.0027062008,-0.072464935,0.017280638,0.06634659,-0.10587732,-0.02924697,0.0,0.0,0.0,-0.0050648726,0.1096719,-0.01936298,-0.19382162,0.11697519,0.06739886,-0.15824275,0.1310143,-0.495914,-0.23753814,-0.13756366,-0.6277659,-0.36141986,0.025697818,0.041644663,0.072212555,0.0054809456,0.038676407,0.013523608,-0.0198893,0.05347115,-0.00035408774,0.008728692,0.045128003,0.04261256,3.0,-0.6509896,-3.0,3.0,1.0304271,-3.0,3.0,-2.5371056,-3.0,-3.0,-2.8384066,-3.0,3.0,-0.36055943,-3.0,3.0,0.7574107,-3.0,3.0,-2.3993013,-3.0,-3.0,-2.7851162,-3.0
2025-06-06 11:40:35.078,-0.037445985,0.008293834,-0.019911397,0.14633909,-0.1364474,-0.0024563395,0.0,0.0,0.0,-0.0048693707,0.12398328,-0.021650746,-0.2043966,0.09948654,0.06937103,-0.1644513,0.14601316,-0.4829388,-0.2376158,-0.13975616,-0.62339103,-0.36205813,-0.034977086,-0.050571386,0.03369641,-0.02552382,0.058421142,0.025795067,0.0639671,-0.009037051,0.055080462,0.005096688,-0.07436378,0.035575245,3.0,-0.36055943,-3.0,3.0,0.7574107,-3.0,3.0,-2.3993013,-3.0,-3.0,-2.7851162,-3.0,3.0,-0.1874955,-3.0,3.0,0.72702074,-3.0,3.0,-2.1384099,-3.0,-3.0,-2.8307388,-3.0
2025-06-06 11:40:35.100,-0.004716026,-0.018362805,-0.02807425,0.06756076,-0.12230708,0.02392572,0.0,0.0,0.0,-0.004583531,0.108819425,-0.022981664,-0.20404215,0.10552653,0.054918885,-0.15598832,0.1336506,-0.48722363,-0.24771054,-0.13753752,-0.6227054,-0.35456184,-0.0056793187,-0.01980774,-0.072641686,0.067338236,-0.05193874,-0.04563104,0.06495196,0.03434523,-0.05906029,0.0042206575,0.046313446,-0.017010735,3.0,-0.1874955,-3.0,3.0,0.72702074,-3.0,3.0,-2.1384099,-3.0,-3.0,-2.8307388,-3.0,3.0,-0.336408,-3.0,3.0,0.9752383,-3.0,3.0,-2.1398528,-3.0,-3.0,-3.0,-3.0
2025-06-06 11:40:35.120,-0.020266132,0.015787413,0.06382309,0.09426498,-0.13431317,0.0018015978,0.0,0.0,0.0,-0.004609175,0.1172303,-0.031840492,-0.1978277,0.10115314,0.061415266,-0.1586429,0.14712487,-0.48085612,-0.23937798,-0.1339292,-0.6303461,-0.36290714,0.00012839606,0.0037983104,-0.035830595,-0.016976776,-0.04657636,-0.018129393,0.02519765,-0.06006932,0.006362445,-0.07145454,-0.0071346196,-0.011502218,3.0,-0.336408,-3.0,3.0,0.9752383,-3.0,3.0,-2.1398528,-3.0,-3.0,-3.0,-3.0,3.0,-0.8157753,-3.0,3.0,1.3587875,-3.0,3.0,-2.6275337,-3.0,-3.0,-2.8152719,-3.0
2025-06-06 11:40:35.138,-0.05002438,-0.0050330367,0.037273113,0.14485095,-0.13323243,0.027550217,0.0,0.0,0.0,-0.0049189227,0.12785578,-0.03637992,-0.18323512,0.098272406,0.057052784,-0.15044928,0.12816942,-0.4963105,-0.24583082,-0.12971744,-0.6396437,-0.35360384,0.061915908,-0.021177547,0.004408378,-0.05219941,0.07471989,-0.04889173,-0.059591774,-0.023463735,0.0045479527,0.062286593,0.0014931567,-0.038644925,3.0,-0.8157753,-3.0,3.0,1.3587875,-3.0,3.0,-2.6275337,-3.0,-3.0,-2.8152719,-3.0,3.0,-0.29582804,-3.0,3.0,0.7245995,-3.0,3.0,-2.3809323,-3.0,-3.0,-2.51301,-3.0
2025-06-06 11:40:35.159,-0.061971575,0.05825182,0.024174877,0.09487975,-0.0678873,-0.03477602,0.0,0.0,0.0,-0.004786828,0.11275914,-0.032765284,-0.18627597,0.11464057,0.059312142,-0.15761888,0.12795223,-0.49371234,-0.23919354,-0.14033659,-0.61683166,-0.3472447,0.02825057,-0.040363155,0.06764927,-0.068147,0.039652232,-0.07401564,-0.06763623,-0.0043504536,0.024334133,0.046354413,0.02034307,-0.036392413,3.0,-0.29582804,-3.0,3.0,0.7245995,-3.0,3.0,-2.3809323,-3.0,-3.0,-2.51301,-3.0,3.0,-0.44520608,-3.0,3.0,0.6092255,-3.0,3.0,-2.4143035,-3.0,-3.0,-2.741943,-3.0
2025-06-06 11:40:35.179,-0.075602576,0.0068347324,-0.028879082,0.051229868,-0.09275992,-0.027620012,0.0,0.0,0.0,-0.004445825,0.12423834,-0.023703076,-0.18861605,0.110529065,0.06775515,-0.16629738,0.13368316,-0.4980408,-0.23448038,-0.13153872,-0.6247259,-0.35386348,-0.034877673,-0.07349573,0.023231385,-0.04935749,-0.048280995,-0.0055068703,0.048912294,0.04204726,-0.060589988,0.080601126,-0.06466604,0.01931471,3.0,-0.44520608,-3.0,3.0,0.6092255,-3.0,3.0,-2.4143035,-3.0,-3.0,-2.741943,-3.0,3.0,-0.09646776,-3.0,3.0,0.74991214,-3.0,3.0,-1.9664081,-3.0,-3.0,-2.9331744,-3.0
2025-06-06 11:40:35.201,0.07555395,0.038399484,0.030939832,0.11284425,-0.097049594,0.041964248,0.0,0.0,0.0,-0.004315679,0.12839158,-0.024875442,-0.19289733,0.115437776,0.06329922,-0.16771735,0.13495459,-0.49605933,-0.24472833,-0.13048613,-0.62477624,-0.348644,-0.047552895,-0.036602106,0.07176435,0.0054463334,0.05614391,-0.055657346,-0.06927063,0.091847464,0.06363618,-0.0054102233,-0.03835341,0.039941758,3.0,-0.09646776,-3.0,3.0,0.74991214,-3.0,3.0,-1.9664081,-3.0,-3.0,-2.9331744,-3.0,3.0,-0.5641119,-3.0,3.0,0.81640553,-3.0,3.0,-2.5412395,-3.0,-3.0,-2.855441,-3.0
2025-06-06 11:40:35.219,-0.06780214,-0.06375476,-0.0057407008,0.08334168,-0.13126919,-0.0121801095,0.0,0.0,0.0,-0.00476134,0.12600191,-0.034517176,-0.17824617,0.114204384,0.07742534,-0.16178107,0.13891737,-0.486472,-0.23400633,-0.124866664,-0.6293394,-0.35811096,0.070222326,0.034276385,-0.03829068,0.03365064,0.047837127,0.02488731,-0.017352685,0.0099229785,-0.049627982,-0.025413249,-0.025958939,0.019389652,3.0,-0.5641119,-3.0,3.0,0.81640553,-3.0,3.0,-2.5412395,-3.0,-3.0,-2.855441,-3.0,3.0,-0.28284767,-3.0,3.0,0.7586154,-3.0,3.0,-2.2153685,-3.0,-3.0,-2.8473735,-3.0
2025-06-06 11:40:35.239,-0.03759312,-0.039401878,0.045741297,0.10174208,-0.10680818,0.011072938,0.0,0.0,0.0,-0.005243858,0.117082514,-0.039103407,-0.17757793,0.107212454,0.08089744,-0.1776991,0.13674632,-0.49845895,-0.23592362,-0.11950502,-0.6248619,-0.36006907,-0.052993428,-0.044082794,-0.057447933,-0.008136377,-0.068178184,-0.040149968,-0.010147534,0.0020743678,-0.03282095,-0.03231246,-0.0596695,-0.06987297,3.0,-0.28284767,-3.0,3.0,0.7586154,-3.0,3.0,-2.2153685,-3.0,-3.0,-2.8473735,-3.0,3.0,-0.73814946,-3.0,3.0,1.0667328,-3.0,3.0,-2.5017016,-3.0,-3.0,-2.7835627,-3.0
2025-06-06 11:40:35.259,-0.031267792,-0.005830621,0.038044397,0.10356187,-0.10772335,-0.029215751,0.0,0.0,0.0,-0.005725978,0.12434182,-0.03608948,-0.17596902,0.122651905,0.08185641,-0.1716224,0.14693943,-0.5001055,-0.21642934,-0.12023962,-0.6158827,-0.35126668,-0.02331516,0.032313466,-0.01561918,-0.021782558,-0.00902141,0.022769628,0.054191757,-0.018490914,0.07487579,0.013259697,0.058996618,0.046162274,3.0,-0.73814946,-3.0,3.0,1.0667328,-3.0,3.0,-2.5017016,-3.0,-3.0,-2.7835627,-3.0,3.0,-0.5261515,-3.0,3.0,1.0231249,-3.0,3.0,-2.556605,-3.0,-3.0,-2.605771,-3.0
2025-06-06 11:40:35.279,-0.048638877,0.0458784,0.032024182,0.050036278,-0.10256136,-0.04023657,0.0,0.0,0.0,-0.005910245,0.13222842,-0.027789231,-0.17046712,0.12079954,0.08263854,-0.18444389,0.1396446,-0.49415207,-0.22309586,-0.12372577,-0.6124717,-0.35102084,-0.037538983,0.0002179452,0.07803506,-0.014964596,-0.04637902,0.023505537,0.070321605,0.027972661,0.07302713,-0.046294093,-0.050418336,-0.034235638,3.0,-0.5261515,-3.0,3.0,1.0231249,-3.0,3.0,-2.556605,-3.0,-3.0,-2.605771,-3.0,3.0,-0.30428612,-3.0,3.0,0.8043664,-3.0,3.0,-2.3575652,-3.0,-3.0,-2.6502538,-3.0
2025-06-06 11:40:35.302,-0.020891078,-0.011369731,-0.046731494,0.12038862,-0.13494204,4.899151e-05,0.0,0.0,0.0,-0.0056628976,0.12561615,-0.036963947,-0.1785452,0.122543216,0.08696737,-0.17574781,0.13923453,-0.50978607,-0.21378824,-0.13296591,-0.6101948,-0.3518751,-0.03581068,-0.03206915,0.051575046,-0.03438975,0.04869061,-0.016810713,0.052960183,-0.009053042,-0.019637527,0.07364512,0.05278354,-0.0025380522,3.0,-0.30428612,-3.0,3.0,0.8043664,-3.0,3.0,-2.3575652,-3.0,-3.0,-2.6502538,-3.0,3.0,-0.12928835,-3.0,3.0,0.59563667,-3.0,3.0,-2.1587913,-3.0,-3.0,-2.866744,-3.0
2025-06-06 11:40:35.319,-0.026803274,0.06449273,0.023944242,0.11889229,-0.075244844,0.0009322518,0.0,0.0,0.0,-0.0054394784,0.13103168,-0.038658068,-0.17088564,0.12209905,0.08127802,-0.17761645,0.14164852,-0.505221,-0.20726556,-0.1244914,-0.61159384,-0.34574062,-0.003581012,-0.044734262,0.03811336,-0.03646275,-0.06451739,-0.026711496,0.044755597,-0.027325036,0.05968915,-0.06405763,0.019648878,0.07155467,3.0,-0.12928835,-3.0,3.0,0.59563667,-3.0,3.0,-2.1587913,-3.0,-3.0,-2.866744,-3.0,3.0,-0.5650559,-3.0,3.0,1.0995445,-3.0,3.0,-2.427322,-3.0,-3.0,-2.809184,-3.0
2025-06-06 11:40:35.339,-0.00381896,-0.005861816,-0.0023134616,0.08965276,-0.13806298,0.004598187,0.0,0.0,0.0,-0.005717612,0.13799061,-0.02916268,-0.16472408,0.12625518,0.08606691,-0.19151427,0.1466489,-0.4932339,-0.21186662,-0.11650568,-0.5999167,-0.3549702,0.001888783,-0.05176755,-0.035289004,-0.0012223078,-0.0029990098,-0.0062867915,0.05318406,-0.051207785,0.02045065,0.04903631,-0.06316686,-0.03253333,3.0,-0.5650559,-3.0,3.0,1.0995445,-3.0,3.0,-2.427322,-3.0,-3.0,-2.809184,-3.0,3.0,-0.18136653,-3.0,3.0,0.80224335,-3.0,3.0,-2.241271,-3.0,-3.0,-2.586528,-3.0
2025-06-06 11:40:35.359,0.0076771355,0.04508961,0.0010743265,0.10927897,-0.07415054,0.021217946,0.0,0.0,0.0,-0.006009697,0.12992482,-0.03291396,-0.15987769,0.12093159,0.09227186,-0.1921199,0.13441375,-0.4898511,-0.22264689,-0.13172992,-0.5993944,-0.3646059,0.0082597295,-0.035041865,0.07485232,0.017521655,0.0017017231,-0.013762643,0.050519925,0.070930056,0.016912999,-0.052051738,0.07240723,-0.07948824,3.0,-0.18136653,-3.0,3.0,0.80224335,-3.0,3.0,-2.241271,-3.0,-3.0,-2.586528,-3.0,3.0,-0.33349657,-3.0,3.0,0.745497,-3.0,3.0,-2.3505552,-3.0,-3.0,-2.8308487,-3.0
2025-06-06 11:40:35.380,-0.0024398589,-0.028563531,0.0010543604,0.09813636,-0.083837524,-0.006871333,0.0,0.0,0.0,-0.0062315455,0.13466634,-0.03869977,-0.15624474,0.12346919,0.08963443,-0.19159429,0.14039311,-0.49174088,-0.22336341,-0.13057072,-0.5972376,-0.3628622,-0.0060983347,0.041965194,0.047605272,-0.019905664,0.017894816,0.0014617089,0.052258465,0.051061094,0.06438315,0.025371613,-0.011414679,-0.014618497,3.0,-0.33349657,-3.0,3.0,0.745497,-3.0,3.0,-2.3505552,-3.0,-3.0,-2.8308487,-3.0,3.0,-0.32423046,-3.0,3.0,0.7100385,-3.0,3.0,-2.390206,-3.0,-3.0,-2.7847342,-3.0
2025-06-06 11:40:35.402,0.016299995,-0.03960828,0.0073641306,0.11396403,-0.049412515,0.029237349,0.0,0.0,0.0,-0.006539313,0.14412715,-0.02053184,-0.16405836,0.12028715,0.100972,-0.19265363,0.1321858,-0.49885833,-0.21121952,-0.12796119,-0.60538244,-0.35363403,0.072766736,-0.00511245,-0.05613356,-0.01353448,-0.055827845,-0.07113314,-0.029238114,-0.07096233,-0.071144976,0.012110861,-0.025328146,0.059943955,3.0,-0.32423046,-3.0,3.0,0.7100385,-3.0,3.0,-2.390206,-3.0,-3.0,-2.7847342,-3.0,3.0,-0.31601793,-3.0,3.0,0.9072689,-3.0,3.0,-2.267135,-3.0,-3.0,-2.8215709,-3.0
2025-06-06 11:40:35.419,-0.013872117,0.035505213,-0.004732257,0.08074624,-0.13544211,0.0066752094,0.0,0.0,0.0,-0.0068441983,0.13380352,-0.021100814,-0.16717581,0.13174382,0.08662639,-0.18774064,0.14981315,-0.4936399,-0.2096625,-0.12684827,-0.6102597,-0.35432655,0.0741112,0.01064611,-0.0036609033,-0.040316083,0.03441444,0.006344101,-0.060455445,-0.011582506,-0.04446183,0.031189907,0.04418627,0.012242196,3.0,-0.31601793,-3.0,3.0,0.9072689,-3.0,3.0,-2.267135,-3.0,-3.0,-2.8215709,-3.0,3.0,-0.2681897,-3.0,3.0,0.7623656,-3.0,3.0,-2.3425424,-3.0,-3.0,-2.7186723,-3.0
2025-06-06 11:40:35.440,-0.030092496,-0.028379502,-0.033050716,0.06173957,-0.14466378,0.0020813916,0.0,0.0,0.0,-0.007101378,0.143489,-0.02704662,-0.1764009,0.12609759,0.09392164,-0.1913607,0.14840853,-0.48499465,-0.21172802,-0.12307288,-0.6009404,-0.3460767,0.022151383,0.03861438,0.03106965,0.01786661,-0.041843962,-0.048288766,0.034596443,0.013067542,-0.07049274,-0.00095699896,0.03291174,0.042086486,3.0,-0.2681897,-3.0,3.0,0.7623656,-3.0,3.0,-2.3425424,-3.0,-3.0,-2.7186723,-3.0,3.0,-0.1297079,-3.0,3.0,0.83169824,-3.0,3.0,-2.0853593,-3.0,-3.0,-2.986322,-3.0
2025-06-06 11:40:35.460,0.03341158,0.03764909,0.015252482,0.10292615,-0.13241489,-0.040968776,0.0,0.0,0.0,-0.0072698705,0.14730416,-0.018716034,-0.16007176,0.13808928,0.095202185,-0.1838646,0.15003864,-0.48713377,-0.21040636,-0.11784608,-0.6012799,-0.3593553,-0.06587996,0.022364408,0.06757026,-0.05775669,-0.02806669,-0.06025333,-0.067507334,0.0014418629,-0.024226064,-0.010815163,0.044235505,-0.006309513,3.0,-0.1297079,-3.0,3.0,0.83169824,-3.0,3.0,-2.0853593,-3.0,-3.0,-2.986322,-3.0,3.0,-0.4877455,-3.0,3.0,1.0080321,-3.0,3.0,-2.4429557,-3.0,-3.0,-2.8764296,-3.0
2025-06-06 11:40:35.480,-0.04144437,-0.037370924,0.028474947,0.13129832,-0.111884534,0.02181705,0.0,0.0,0.0,-0.007615612,0.13637644,-0.030255841,-0.17790827,0.13223079,0.08515612,-0.1861345,0.14473563,-0.49067578,-0.22138757,-0.1213251,-0.60777587,-0.35176504,-0.04007548,-0.04708918,-0.075887784,-0.0088284165,0.01996947,0.04978164,-0.00649082,-0.039632425,0.009096768,0.03446189,0.061199024,0.05956823,3.0,-0.4877455,-3.0,3.0,1.0080321,-3.0,3.0,-2.4429557,-3.0,-3.0,-2.8764296,-3.0,3.0,-0.5404507,-3.0,3.0,0.9430649,-3.0,3.0,-2.5861456,-3.0,-3.0,-2.57653,-3.0
2025-06-06 11:40:35.502,-0.04010839,-0.04187235,-0.02961313,0.12272741,-0.07701661,-0.028707057,0.0,0.0,0.0,-0.0077646933,0.13550286,-0.024188202,-0.17279607,0.13504884,0.09704013,-0.19044606,0.13987589,-0.5018347,-0.21119347,-0.121652335,-0.6180357,-0.34991592,0.0043674903,0.023224348,0.05121027,-0.033537928,-0.048586577,0.0034158125,-0.05896745,0.01618205,-0.00082834356,-0.05057507,-0.06271921,-0.04373595,3.0,-0.5404507,-3.0,3.0,0.9430649,-3.0,3.0,-2.5861456,-3.0,-3.0,-2.57653,-3.0,3.0,0.063263535,-3.0,3.0,0.66673553,-3.0,3.0,-2.0445821,-3.0,-3.0,-2.8197482,-3.0
2025-06-06 11:40:35.520,0.06348675,0.046919294,-0.01637803,0.12093607,-0.061363753,-0.02040375,0.0,0.0,0.0,-0.0073404107,0.12858392,-0.02320618,-0.17441842,0.12827726,0.08473633,-0.1939068,0.14730328,-0.4837949,-0.21755767,-0.12928897,-0.60817045,-0.35670587,-0.0010470697,-0.04620741,0.040883657,-0.017701464,-0.019670691,0.045190506,0.013394653,0.035535645,-0.034986928,0.017226811,0.045188613,0.0012381938,3.0,0.063263535,-3.0,3.0,0.66673553,-3.0,3.0,-2.0445821,-3.0,-3.0,-2.8197482,-3.0,3.0,-0.31623113,-3.0,3.0,0.87442553,-3.0,3.0,-2.3196309,-3.0,-3.0,-2.8218572,-3.0
2025-06-06 11:40:35.540,0.06419849,0.046092827,-0.0035836473,0.07752907,-0.046125896,-0.022323316,0.0,0.0,0.0,-0.0071523483,0.12565899,-0.027764363,-0.17808165,0.123489566,0.0908898,-0.1830656,0.13462086,-0.48372602,-0.218491,-0.13293265,-0.6132742,-0.34954545,0.0076967245,0.05094974,0.047662295,0.024297196,-0.06774922,-0.06649141,0.014447124,0.023585306,-0.05780004,-0.010628244,0.019627618,0.07224506,3.0,-0.31623113,-3.0,3.0,0.87442553,-3.0,3.0,-2.3196309,-3.0,-3.0,-2.8218572,-3.0,3.0,-0.27229413,-3.0,3.0,0.9924749,-3.0,3.0,-2.200626,-3.0,-3.0,-3.0,-3.0
2025-06-06 11:40:35.560,0.008100549,0.002789625,-0.044712782,0.13367486,-0.050960526,0.034024015,0.0,0.0,0.0,-0.0071438677,0.13704148,-0.021697128,-0.16838855,0.13137075,0.07972233,-0.19216378,0.13773015,-0.49550122,-0.22874309,-0.13606912,-0.6210445,-0.34720904,0.040067602,0.036019582,-0.0508823,0.015418744,0.045215856,-0.050514724,0.019881658,-0.03956731,-0.040329702,0.019959107,-0.072974235,0.015280879,3.0,-0.27229413,-3.0,3.0,0.9924749,-3.0,3.0,-2.200626,-3.0,-3.0,-3.0,-3.0,3.0,0.066679895,-3.0,3.0,0.7745372,-3.0,3.0,-2.0426,-3.0,-3.0,-2.860327,-3.0
2025-06-06 11:40:35.580,0.09894398,0.035139084,0.015860414,0.08171611,-0.12141514,-0.030707082,0.0,0.0,0.0,-0.007197404,0.14418323,-0.01275845,-0.1694213,0.12558667,0.08065522,-0.18695055,0.13955541,-0.4711216,-0.22776088,-0.13176422,-0.6069516,-0.34030733,0.018759267,0.048722602,-0.056743525,-0.025629409,0.04364964,-0.017817328,-0.073757164,-0.04563609,0.036693927,-0.03281968,0.031253494,-0.027606994,3.0,0.066679895,-3.0,3.0,0.7745372,-3.0,3.0,-2.0426,-3.0,-3.0,-2.860327,-3.0,3.0,-0.46191874,-3.0,3.0,0.8704363,-3.0,3.0,-2.5614967,-3.0,-3.0,-2.7927737,-3.0
2025-06-06 11:40:35.602,0.0053203497,-0.011035747,0.04460101,0.07816224,-0.07325814,0.013687265,0.0,0.0,0.0,-0.00749571,0.13854462,-0.011178627,-0.1806588,0.13299906,0.09782381,-0.19150747,0.13049163,-0.47234508,-0.23360562,-0.13331816,-0.6119653,-0.33289328,0.056691866,0.06583051,-0.06375746,-0.01171309,-0.07380321,0.05780348,-0.011670024,-0.06383741,0.023531057,-0.038778745,0.02609132,-0.02561801,3.0,-0.46191874,-3.0,3.0,0.8704363,-3.0,3.0,-2.5614967,-3.0,-3.0,-2.7927737,-3.0,3.0,-0.43503267,-3.0,3.0,0.9323286,-3.0,3.0,-2.5233417,-3.0,-3.0,-2.7274234,-3.0
2025-06-06 11:40:35.620,0.007142259,-0.011158037,-0.06691535,0.08571817,-0.09883359,-0.017933205,0.0,0.0,0.0,-0.007518221,0.13871562,-0.0274615,-0.17700657,0.1290906,0.08859924,-0.17812212,0.13057788,-0.48333833,-0.2131264,-0.1357112,-0.61511374,-0.3330292,0.03859341,0.0362127,0.023510637,0.030280406,0.021647085,-0.07324765,-0.009239225,0.04862304,-0.053042877,0.036757614,0.055957314,-0.0097939065,3.0,-0.43503267,-3.0,3.0,0.9323286,-3.0,3.0,-2.5233417,-3.0,-3.0,-2.7274234,-3.0,3.0,0.2278921,-3.0,3.0,0.5779866,-3.0,3.0,-1.9267081,-3.0,-3.0,-3.0,-3.0
2025-06-06 11:40:35.640,0.035136357,-0.028343342,0.05079203,0.06227697,-0.13419947,0.009592309,0.0,0.0,0.0,-0.007082774,0.12970607,-0.017287722,-0.18338248,0.12135023,0.09014322,-0.17676246,0.14365205,-0.48514423,-0.22979371,-0.1382065,-0.62548846,-0.34292462,-0.014162795,0.055983853,0.06383381,0.0011136445,0.06767733,-0.016556345,0.03063894,0.07585463,-0.07727662,0.046231896,0.05451623,-0.022018312,3.0,0.2278921,-3.0,3.0,0.5779866,-3.0,3.0,-1.9267081,-3.0,-3.0,-3.0,-3.0,3.0,-0.8515642,-3.0,3.0,0.9122611,-3.0,3.0,-2.7767043,-3.0,-3.0,-2.8454418,-3.0
2025-06-06 11:40:35.660,-0.007097447,-0.046336558,0.023679156,0.14319667,-0.059511438,-0.021771727,0.0,0.0,0.0,-0.0071336157,0.12955675,-0.030044638,-0.18404935,0.12567472,0.08950643,-0.18002374,0.12783648,-0.48662335,-0.21296248,-0.13462658,-0.62947357,-0.33765003,0.047800157,-0.010824582,0.012168376,-0.075315624,0.006075615,-0.06663084,0.06497412,-0.076435335,0.016019775,-0.06577517,-0.01202365,-0.06567531,3.0,-0.8515642,-3.0,3.0,0.9122611,-3.0,3.0,-2.7767043,-3.0,-3.0,-2.8454418,-3.0,3.0,-0.22296208,-3.0,3.0,0.8717732,-3.0,3.0,-2.1723878,-3.0,-3.0,-2.759894,-3.0
2025-06-06 11:40:35.681,0.009240006,0.011044717,-0.04466034,0.09776114,-0.050749537,-0.026518239,0.0,0.0,0.0,-0.006955908,0.13742109,-0.022505796,-0.18855269,0.1146207,0.083992526,-0.18248986,0.13072763,-0.49839696,-0.21379767,-0.12576266,-0.6179861,-0.33248827,-0.017046047,-0.014032404,0.021227047,-0.07627056,-0.0057938816,-0.017645644,-0.07266031,0.016751084,-0.0031926709,0.07571956,-0.020969935,-0.0019020975,3.0,-0.22296208,-3.0,3.0,0.8717732,-3.0,3.0,-2.1723878,-3.0,-3.0,-2.759894,-3.0,3.0,0.02648577,-3.0,3.0,0.7453817,-3.0,3.0,-2.1113102,-3.0,-3.0,-2.8366935,-3.0
2025-06-06 11:40:35.702,0.01660979,0.06145082,-0.017086945,0.048725665,-0.08775266,0.009875434,0.0,0.0,0.0,-0.0066310414,0.13631724,-0.032737732,-0.18752742,0.12808004,0.0851771,-0.17747205,0.13221568,-0.49350482,-0.23546518,-0.12751171,-0.618032,-0.32974565,0.067383006,0.05013556,0.06596331,-0.06380581,-0.052076265,0.05887603,-0.0672374,-0.029483251,0.048132803,-0.044514094,-0.033046816,0.013352316,3.0,0.02648577,-3.0,3.0,0.7453817,-3.0,3.0,-2.1113102,-3.0,-3.0,-2.8366935,-3.0,3.0,-0.18168104,-3.0,3.0,0.840443,-3.0,3.0,-2.268953,-3.0,-3.0,-2.8457127,-3.0
2025-06-06 11:40:35.721,-0.022336584,0.02703359,-0.040280927,0.06273559,-0.048968427,0.03768425,0.0,0.0,0.0,-0.0066564437,0.1344566,-0.015626727,-0.17462793,0.1132243,0.09229564,-0.16837153,0.14213558,-0.47878468,-0.22434403,-0.121925525,-0.62048995,-0.33574894,-0.05233829,-0.05832255,-0.0068025882,0.060744587,-0.007092502,-0.026549216,-0.0766446,-0.05515065,0.027856823,-0.044123825,0.07444937,0.03734466,3.0,-0.18168104,-3.0,3.0,0.840443,-3.0,3.0,-2.268953,-3.0,-3.0,-2.8457127,-3.0,3.0,-0.22872418,-3.0,3.0,0.83627594,-3.0,3.0,-2.2727091,-3.0,-3.0,-3.0,-3.0
2025-06-06 11:40:35.741,0.00504788,0.030795647,0.04846271,0.1431628,-0.13358818,-0.024578333,0.0,0.0,0.0,-0.006822276,0.13231201,-0.016574796,-0.19279012,0.12422813,0.08821402,-0.1773095,0.12691733,-0.48400748,-0.23472637,-0.14146747,-0.61055243,-0.3298541,0.043244522,-0.0028192096,0.02976979,-0.012489601,0.032544766,-0.06201308,-0.015874036,-0.048942845,0.017727314,-0.018616984,0.0058896476,0.018980272,3.0,-0.22872418,-3.0,3.0,0.83627594,-3.0,3.0,-2.2727091,-3.0,-3.0,-3.0,-3.0,3.0,-0.52803975,-3.0,3.0,0.94090456,-3.0,3.0,-2.5538208,-3.0,-3.0,-2.6632535,-3.0
2025-06-06 11:40:35.761,-0.053528868,-0.04361117,-0.06110591,0.074588515,-0.13165668,-0.027373945,0.0,0.0,0.0,-0.0070306626,0.13800228,-0.023162903,-0.18941645,0.12626489,0.07843093,-0.18675055,0.1349572,-0.49417424,-0.21850252,-0.12425582,-0.6247263,-0.34217238,-0.0029856786,0.010299002,0.03347019,-0.052326087,0.06488908,0.03559729,-0.038630463,0.009663938,-0.025090408,0.046175767,0.02290702,0.040124573,3.0,-0.52803975,-3.0,3.0,0.94090456,-3.0,3.0,-2.5538208,-3.0,-3.0,-2.6632535,-3.0,3.0,0.18196535,-3.0,3.0,0.52690494,-3.0,3.0,-1.9898127,-3.0,-3.0,-2.8467116,-3.0
2025-06-06 11:40:35.781,0.05929788,0.04460045,0.032862596,0.06553706,-0.07581247,-0.015418211,0.0,0.0,0.0,-0.0068359966,0.13551697,-0.020365907,-0.18190038,0.12358589,0.08809182,-0.1660687,0.1416065,-0.48799184,-0.22504023,-0.12390435,-0.61047703,-0.32643038,-0.047372367,-0.00026336295,-0.002507853,-0.04354142,0.04487528,-0.055407956,0.01845645,0.08284808,0.044200446,-0.028092152,0.08108396,0.042464867,3.0,0.18196535,-3.0,3.0,0.52690494,-3.0,3.0,-1.9898127,-3.0,-3.0,-2.8467116,-3.0,3.0,-0.7114745,-3.0,3.0,1.0005465,-3.0,3.0,-2.663082,-3.0,-3.0,-2.8692384,-3.0
2025-06-06 11:40:35.802,-0.013226308,-0.04514558,0.019518798,0.12714556,-0.09387726,0.03606977,0.0,0.0,0.0,-0.0069151483,0.13519663,-0.025297875,-0.17609867,0.124287315,0.08314194,-0.1727165,0.13437967,-0.49104497,-0.23399515,-0.1300257,-0.6235481,-0.33880872,-0.04846441,0.051557787,0.07330743,-0.013031017,-0.037081175,0.032746676,0.040396214,0.031531315,-0.02016329,0.03353744,0.06033765,-0.05693293,3.0,-0.7114745,-3.0,3.0,1.0005465,-3.0,3.0,-2.663082,-3.0,-3.0,-2.8692384,-3.0,3.0,-0.33022264,-3.0,3.0,0.7305922,-3.0,3.0,-2.380522,-3.0,-3.0,-2.8301911,-3.0
2025-06-06 11:40:35.821,-0.01785844,0.007862522,-0.018721351,0.12600817,-0.079994775,0.013078522,0.0,0.0,0.0,-0.0068055647,0.13487938,-0.031011907,-0.18107727,0.12241664,0.075259104,-0.1863702,0.1270049,-0.48640323,-0.21883342,-0.13270693,-0.6269119,-0.33069846,0.0010248057,0.012536676,-0.043271974,0.009149754,0.0100593595,0.04132678,0.04383607,-0.014988643,0.07285245,-0.040757455,0.059633233,-0.058406956,3.0,-0.33022264,-3.0,3.0,0.7305922,-3.0,3.0,-2.380522,-3.0,-3.0,-2.8301911,-3.0,3.0,-0.2091594,-3.0,3.0,0.77487636,-3.0,3.0,-2.2758276,-3.0,-3.0,-2.9151194,-3.0
2025-06-06 11:40:35.841,-0.03730539,0.04461255,0.02067564,0.13442113,-0.12726504,-0.041719913,0.0,0.0,0.0,-0.0065351515,0.12662664,-0.02425624,-0.1892422,0.118403,0.09135751,-0.18063872,0.13820127,-0.490352,-0.22738671,-0.13240203,-0.6304661,-0.33029035,-0.070277825,0.003505698,0.0754467,0.03949293,0.04904068,0.03736388,-0.013599933,-0.016891044,-0.034001492,-0.005809614,-0.015565242,-0.011658733,3.0,-0.2091594,-3.0,3.0,0.77487636,-3.0,3.0,-2.2758276,-3.0,-3.0,-2.9151194,-3.0,3.0,-0.52412623,-3.0,3.0,0.78063154,-3.0,3.0,-2.4811466,-3.0,-3.0,-2.762916,-3.0
2025-06-06 11:40:35.861,-0.06714837,-0.024048047,0.016958585,0.12197303,-0.1069405,0.048940193,0.0,0.0,0.0,-0.006478732,0.11988765,-0.022945534,-0.18583007,0.124635875,0.07707934,-0.1668853,0.14703585,-0.48660868,-0.21936695,-0.13623184,-0.63204247,-0.34073293,0.015643913,0.031399082,-0.058582954,-0.020260166,-0.041130025,0.044953465,-0.016650433,-0.024107028,0.040778164,0.059521396,0.017347882,0.027275076,3.0,-0.52412623,-3.0,3.0,0.78063154,-3.0,3.0,-2.4811466,-3.0,-3.0,-2.762916,-3.0,3.0,-0.42683744,-3.0,3.0,0.84473944,-3.0,3.0,-2.4266381,-3.0,-3.0,-2.7953167,-3.0
2025-06-06 11:40:35.881,-0.029829275,0.004179765,0.009283918,0.091599,-0.068974994,0.035247695,0.0,0.0,0.0,-0.0063587995,0.11799582,-0.038589627,-0.17290056,0.112227626,0.087605454,-0.16991115,0.13730134,-0.50846416,-0.21607465,-0.13183162,-0.62332326,-0.33148095,0.061760448,0.016008407,-0.05330487,0.023891944,-0.009441321,0.067456774,-0.010132502,0.029304428,-0.024579305,-0.012064832,0.06763794,0.04684871,3.0,-0.42683744,-3.0,3.0,0.84473944,-3.0,3.0,-2.4266381,-3.0,-3.0,-2.7953167,-3.0,3.0,-0.44463876,-3.0,3.0,0.8425776,-3.0,3.0,-2.4702978,-3.0,-3.0,-2.743003,-3.0
2025-06-06 11:40:35.902,0.008567253,0.014192711,-0.03611566,0.048446614,-0.074352235,0.045688365,0.0,0.0,0.0,-0.0061416016,0.13599482,-0.036426652,-0.17436081,0.11138729,0.07186381,-0.18567516,0.14823957,-0.4981049,-0.22345679,-0.12180881,-0.62788236,-0.33147514,0.031016102,-0.058803957,0.018702613,-0.053400017,0.022348125,-0.037802644,0.007865725,0.05562616,-0.004471839,0.05650353,0.057193507,-0.050032094,3.0,-0.44463876,-3.0,3.0,0.8425776,-3.0,3.0,-2.4702978,-3.0,-3.0,-2.743003,-3.0,3.0,-0.049907,-3.0,3.0,0.5439533,-3.0,3.0,-2.1681285,-3.0,-3.0,-2.8672945,-3.0
2025-06-06 11:40:35.921,-0.005937829,0.055872593,-0.01226739,0.061873283,-0.11511753,0.009552486,0.0,0.0,0.0,-0.0058777006,0.11862008,-0.02884135,-0.18616538,0.12430258,0.078118004,-0.16874796,0.13564366,-0.50617445,-0.23133373,-0.1264412,-0.61148167,-0.33306155,-0.06504766,-0.0015038532,0.04566065,0.04232973,-0.03719252,0.06636869,0.05802144,-0.022719255,-0.022416405,0.07764591,0.057396095,-0.033317186,3.0,-0.049907,-3.0,3.0,0.5439533,-3.0,3.0,-2.1681285,-3.0,-3.0,-2.8672945,-3.0,3.0,-0.53316706,-3.0,3.0,0.7521054,-3.0,3.0,-2.4590151,-3.0,-3.0,-2.9146903,-3.0
2025-06-06 11:40:35.941,0.038485855,-0.015366733,0.010510248,0.04903528,-0.12828445,-0.04347826,0.0,0.0,0.0,-0.0060262885,0.13465625,-0.03440446,-0.18613222,0.11851047,0.070075765,-0.18590572,0.13628793,-0.5104289,-0.23242097,-0.12541364,-0.6239534,-0.33725792,-0.040322702,0.05605516,-0.06129038,-0.0021159106,-0.04922921,-0.03484476,-0.04037552,0.0120748505,0.03376635,0.03465487,-0.08136373,-0.025868572,3.0,-0.53316706,-3.0,3.0,0.7521054,-3.0,3.0,-2.4590151,-3.0,-3.0,-2.9146903,-3.0,3.0,-0.36942217,-3.0,3.0,0.7841505,-3.0,3.0,-2.328859,-3.0,-3.0,-2.8776062,-3.0
2025-06-06 11:40:35.961,0.04859121,-0.04060614,0.046766,0.11051159,-0.07064714,-0.022522274,0.0,0.0,0.0,-0.006309985,0.12579134,-0.04081668,-0.17817716,0.13053235,0.06947957,-0.18101963,0.1472723,-0.50391024,-0.21888027,-0.12736695,-0.6176969,-0.3349527,0.014260525,-0.077253655,0.06795541,-0.04298639,0.05489609,-0.045490053,0.07120376,0.065603465,0.068727516,-0.023888802,-0.027564675,0.03177809,3.0,-0.36942217,-3.0,3.0,0.7841505,-3.0,3.0,-2.328859,-3.0,-3.0,-2.8776062,-3.0,3.0,-0.55763566,-3.0,3.0,0.79816103,-3.0,3.0,-2.5589976,-3.0,-3.0,-2.5790834,-3.0
2025-06-06 11:40:35.981,-0.009203947,0.014776806,0.0058718934,0.053781774,-0.052448936,-0.0028474852,0.0,0.0,0.0,-0.006558318,0.13487788,-0.044199046,-0.16656114,0.114883594,0.082268625,-0.17565523,0.13398667,-0.51166654,-0.2243825,-0.12919675,-0.6259805,-0.35564074,0.0011493224,-0.08098221,0.0010112714,-0.048433367,0.06935361,-0.048628684,0.03773785,-0.067719355,0.051943224,-0.051029928,0.028415013,-0.010017969,3.0,-0.55763566,-3.0,3.0,0.79816103,-3.0,3.0,-2.5589976,-3.0,-3.0,-2.5790834,-3.0,3.0,-0.38853964,-3.0,3.0,0.68881285,-3.0,3.0,-2.3238041,-3.0,-3.0,-2.777523,-3.0
2025-06-06 11:40:36.002,-0.012478468,-0.023037532,-0.026923927,0.10492991,-0.079143204,0.019114394,0.0,0.0,0.0,-0.006478345,0.13877103,-0.043581977,-0.17516482,0.123802155,0.07679431,-0.17506266,0.1315142,-0.49905172,-0.23277052,-0.13514204,-0.62064856,-0.34723,0.012844908,-0.025147786,-0.06708017,-0.012566049,-0.024600308,0.066753276,-0.015409824,-0.02736228,-0.038982123,0.015630756,0.018731432,0.0106707765,3.0,-0.38853964,-3.0,3.0,0.68881285,-3.0,3.0,-2.3238041,-3.0,-3.0,-2.777523,-3.0,3.0,-0.24879554,-3.0,3.0,0.80821866,-3.0,3.0,-2.1805675,-3.0,-3.0,-2.9147747,-3.0
2025-06-06 11:40:36.021,-0.0058006705,0.023609646,-0.023113653,0.12792353,-0.06641606,0.01950279,0.0,0.0,0.0,-0.006361715,0.12849459,-0.052929997,-0.16708368,0.12313439,0.082245536,-0.17521663,0.13528538,-0.505908,-0.22705555,-0.13444112,-0.62195396,-0.36085135,0.0015527989,0.008698691,-0.04735224,0.06161439,-0.034607425,-0.012266697,-0.05267111,0.03104861,0.01230976,0.05938899,-0.055651937,0.00827427,3.0,-0.24879554,-3.0,3.0,0.80821866,-3.0,3.0,-2.1805675,-3.0,-3.0,-2.9147747,-3.0,3.0,-0.28250638,-3.0,3.0,0.8354217,-3.0,3.0,-2.2478402,-3.0,-3.0,-2.922001,-3.0
2025-06-06 11:40:36.042,-0.0019755387,-0.001469484,7.8197285e-05,0.059698675,-0.13534866,-0.013837435,0.0,0.0,0.0,-0.0065398556,0.12454743,-0.048337735,-0.17563489,0.11844161,0.07793464,-0.18857439,0.1410622,-0.5069774,-0.24093886,-0.13252495,-0.6080452,-0.35690495,0.05407811,0.010450552,-0.035562176,0.07512061,0.024191488,-0.025608808,-0.0006114444,0.068073094,0.038193367,0.048855178,-0.024272343,0.010929977,3.0,-0.28250638,-3.0,3.0,0.8354217,-3.0,3.0,-2.2478402,-3.0,-3.0,-2.922001,-3.0,3.0,-0.39783517,-3.0,3.0,0.7279338,-3.0,3.0,-2.4134226,-3.0,-3.0,-2.7402558,-3.0
2025-06-06 11:40:36.061,0.016420694,0.021400249,0.0088089,0.078937985,-0.10771542,0.04437906,0.0,0.0,0.0,-0.0069014356,0.13392673,-0.04926894,-0.17468867,0.12269921,0.080692776,-0.17236578,0.14628026,-0.505775,-0.23545498,-0.13405015,-0.6223254,-0.3565922,-0.028967625,0.047766473,-0.0484632,0.04072929,0.066155426,-0.06690401,-0.0074944403,0.05221737,-0.070663795,-0.02980592,0.031301703,-0.06635108,3.0,-0.39783517,-3.0,3.0,0.7279338,-3.0,3.0,-2.4134226,-3.0,-3.0,-2.7402558,-3.0,3.0,-0.57317275,-3.0,3.0,0.7205426,-3.0,3.0,-2.4038231,-3.0,-3.0,-3.0,-3.0
2025-06-06 11:40:36.082,0.04171618,-0.017009776,-0.022611894,0.067196354,-0.12670755,0.0055421,0.0,0.0,0.0,-0.0071309763,0.14269614,-0.051569544,-0.17886837,0.11739516,0.07308828,-0.17431335,0.14192836,-0.49765056,-0.24102403,-0.13480113,-0.62538356,-0.34297207,-0.0514377,-0.03164178,-0.01687638,0.022376351,0.011892379,-0.051290948,0.008398515,-0.05759169,0.03159846,-0.056431174,-0.075656354,-0.02856973,3.0,-0.57317275,-3.0,3.0,0.7205426,-3.0,3.0,-2.4038231,-3.0,-3.0,-3.0,-3.0,3.0,-0.28275716,-3.0,3.0,0.80963105,-3.0,3.0,-2.1132514,-3.0,-3.0,-3.0,-3.0
2025-06-06 11:40:36.102,0.02284853,-0.043414652,0.029511806,0.06624116,-0.11965794,-0.028345866,0.0,0.0,0.0,-0.0072557493,0.14148659,-0.045667924,-0.17497586,0.124788165,0.07232287,-0.19028537,0.13012294,-0.498766,-0.23004526,-0.12227022,-0.62795085,-0.34124148,0.0022835112,0.029861879,-0.07130447,-0.03709693,-0.07554395,0.021206593,0.04608271,0.0044387975,-0.029336177,0.012779195,-0.0040489,-0.06509738,3.0,-0.28275716,-3.0,3.0,0.80963105,-3.0,3.0,-2.1132514,-3.0,-3.0,-3.0,-3.0,3.0,-0.561914,-3.0,3.0,1.1052257,-3.0,3.0,-2.422472,-3.0,-3.0,-2.8051915,-3.0
2025-06-06 11:40:36.122,-0.053972125,0.009695156,-0.014449825,0.10488866,-0.08773936,0.045470312,0.0,0.0,0.0,-0.007532576,0.14119388,-0.049111605,-0.16339038,0.13115153,0.07719576,-0.19436902,0.13393372,-0.49992347,-0.23080328,-0.13609381,-0.61534035,-0.34837598,0.007370057,0.046109136,0.0016683794,0.05722347,0.04830876,-0.026130954,0.02009286,0.066285275,0.0012591416,-0.063460656,0.012970937,-0.0407987,3.0,-0.561914,-3.0,3.0,1.1052257,-3.0,3.0,-2.422472,-3.0,-3.0,-2.8051915,-3.0,3.0,-0.11062148,-3.0,3.0,0.7388873,-3.0,3.0,-2.179364,-3.0,-3.0,-2.8807786,-3.0
2025-06-06 11:40:36.142,0.04390894,0.019472381,0.009667769,0.13075773,-0.06990765,-0.032355435,0.0,0.0,0.0,-0.0075425603,0.1427128,-0.040456124,-0.18365103,0.12829642,0.08022583,-0.1921594,0.14288276,-0.5016871,-0.2415842,-0.123161845,-0.610739,-0.35208002,-0.033041935,0.020191789,-0.006888272,0.0770525,-0.025698654,0.021889871,-0.0033315495,0.08313179,0.023653299,-0.03828303,0.062866114,-0.071317285,3.0,-0.11062148,-3.0,3.0,0.7388873,-3.0,3.0,-2.179364,-3.0,-3.0,-2.8807786,-3.0,3.0,-0.5513975,-3.0,3.0,0.860968,-3.0,3.0,-2.5175512,-3.0,-3.0,-2.9013867,-3.0
2025-06-06 11:40:36.163,0.0066169635,-0.019082822,-0.046384063,0.0893236,-0.1296445,-0.015320831,0.0,0.0,0.0,-0.0075739077,0.1420299,-0.0360908,-0.17226677,0.1274709,0.071772486,-0.18939948,0.13882303,-0.50985247,-0.22424677,-0.12551694,-0.6199607,-0.35727102,-0.012469609,-0.042735618,0.014040498,0.070801824,-0.038526375,-0.065976515,0.011023801,0.029255958,0.04634523,-0.062881075,0.0037165538,-0.06994279,3.0,-0.5513975,-3.0,3.0,0.860968,-3.0,3.0,-2.5175512,-3.0,-3.0,-2.9013867,-3.0,3.0,-0.0028001685,-3.0,3.0,0.67921615,-3.0,3.0,-2.0045273,-3.0,-3.0,-2.9812062,-3.0
2025-06-06 11:40:36.186,0.061206453,-0.014859529,-0.0073104585,0.10363195,-0.10659256,-0.023350887,0.0,0.0,0.0,-0.007497997,0.13360909,-0.043212134,-0.17280759,0.13691707,0.07571247,-0.17977498,0.13114786,-0.5042176,-0.23543395,-0.13216935,-0.613003,-0.35008413,0.024458423,-0.015641201,0.031884372,0.010798528,0.03686539,0.010090081,0.022894893,-0.022078626,-0.07561108,0.04003,0.040548217,0.0469589,3.0,-0.0028001685,-3.0,3.0,0.67921615,-3.0,3.0,-2.0045273,-3.0,-3.0,-2.9812062,-3.0,3.0,-0.47538874,-3.0,3.0,0.836192,-3.0,3.0,-2.394688,-3.0,-3.0,-2.828718,-3.0
2025-06-06 11:40:36.203,-0.04713279,-0.029194942,-0.043988846,0.06611417,-0.124622054,-0.024102917,0.0,0.0,0.0,-0.0076973937,0.14690138,-0.044592842,-0.18068731,0.12782697,0.08132248,-0.189196,0.13029173,-0.49393478,-0.2418771,-0.13040519,-0.6133252,-0.34073037,0.03808916,-0.02701403,0.05555739,0.037741877,0.012546174,-0.015763044,-0.04726188,0.059021056,0.048734915,-0.07188165,-0.02411427,0.031242039,3.0,-0.47538874,-3.0,3.0,0.836192,-3.0,3.0,-2.394688,-3.0,-3.0,-2.828718,-3.0,3.0,0.067665964,-3.0,3.0,0.6677485,-3.0,3.0,-1.9881233,-3.0,-3.0,-2.8837583,-3.0
2025-06-06 11:40:36.223,0.055389978,0.013232884,-0.033986196,0.09866258,-0.08029166,-0.019680323,0.0,0.0,0.0,-0.007841296,0.14540863,-0.029922254,-0.17597185,0.13125752,0.07817466,-0.18594357,0.14270513,-0.4828944,-0.2449624,-0.13079858,-0.6267741,-0.33744705,0.06229557,0.00012028567,0.010969601,-0.05624926,0.0035602446,0.005968669,0.013935878,0.0725428,0.015831616,-0.0069418717,0.03674132,0.057217415,3.0,0.067665964,-3.0,3.0,0.6677485,-3.0,3.0,-1.9881233,-3.0,-3.0,-2.8837583,-3.0,3.0,-0.07506472,-3.0,3.0,0.83492655,-3.0,3.0,-2.1581705,-3.0,-3.0,-2.882413,-3.0
2025-06-06 11:40:36.243,0.058872487,-0.032760482,0.056892604,0.05555491,-0.14268082,0.018198313,0.0,0.0,0.0,-0.008129128,0.13207698,-0.023167102,-0.17142996,0.13918452,0.081784144,-0.18085606,0.13213949,-0.47532433,-0.22848423,-0.13967429,-0.60908425,-0.3515749,-0.046436243,0.07977671,-0.04251645,0.073922396,-0.019087048,0.06643942,-0.05208691,0.057030108,0.03568119,0.053947195,-0.045840163,0.012634958,3.0,-0.07506472,-3.0,3.0,0.83492655,-3.0,3.0,-2.1581705,-3.0,-3.0,-2.882413,-3.0,3.0,-0.7299745,-3.0,3.0,0.91125536,-3.0,3.0,-2.7966223,-3.0,-3.0,-2.7414806,-3.0
2025-06-06 11:40:36.263,-0.013293988,-0.012819936,-0.06250424,0.13899499,-0.07469159,0.041886665,0.0,0.0,0.0,-0.008501162,0.13841939,-0.038662136,-0.18605348,0.12490668,0.078335196,-0.18341902,0.12917592,-0.48114863,-0.23788285,-0.13872951,-0.6147382,-0.34181643,0.048568707,0.038504705,-0.054281916,0.0189616,0.056999076,-0.079330966,-0.054996684,-0.0047068726,0.0038658169,-0.03377536,-0.05190049,-0.03590669,3.0,-0.7299745,-3.0,3.0,0.91125536,-3.0,3.0,-2.7966223,-3.0,-3.0,-2.7414806,-3.0,3.0,0.27874663,-3.0,3.0,0.5052719,-3.0,3.0,-1.821267,-3.0,-3.0,-3.0,-3.0
2025-06-06 11:40:36.286,0.026846413,0.049084842,0.050359618,0.07889255,-0.10750379,0.008383111,0.0,0.0,0.0,-0.008196585,0.13857001,-0.033755887,-0.17886055,0.13948861,0.0722092,-0.17802714,0.12451643,-0.49378598,-0.22881472,-0.12503812,-0.62731814,-0.34509033,-0.030478677,0.08474373,-0.026225926,0.014172318,-0.04086201,0.00864,-0.052952766,0.07623528,-0.08037787,0.006470967,-0.014564228,0.07419575,3.0,0.27874663,-3.0,3.0,0.5052719,-3.0,3.0,-1.821267,-3.0,-3.0,-3.0,-3.0,3.0,-0.80830365,-3.0,3.0,1.1824584,-3.0,3.0,-2.6156962,-3.0,-3.0,-2.9479613,-3.0
2025-06-06 11:40:36.303,-0.014157085,-0.021381399,-0.01931667,0.08403454,-0.07661054,-0.0066105076,0.0,0.0,0.0,-0.0082222195,0.14266916,-0.037715312,-0.1858765,0.12813643,0.08599549,-0.17216699,0.124676034,-0.4957036,-0.23421924,-0.14486247,-0.6128891,-0.3308548,-0.017953925,-0.06060346,0.006908593,-0.03517883,-0.038890895,-0.002579699,0.00034620904,-0.07446266,0.082315184,-0.07274912,0.046380907,0.070762366,3.0,-0.80830365,-3.0,3.0,1.1824584,-3.0,3.0,-2.6156962,-3.0,-3.0,-2.9479613,-3.0,3.0,-0.017314406,-3.0,3.0,0.9832523,-3.0,3.0,-2.0761328,-3.0,-3.0,-2.7863255,-3.0
2025-06-06 11:40:36.323,0.022230575,-0.006242112,-0.02504568,0.09898691,-0.06824959,0.012675358,0.0,0.0,0.0,-0.008028949,0.12639248,-0.030249167,-0.17796366,0.12828949,0.09133308,-0.18467206,0.123495296,-0.4764946,-0.23595558,-0.14062995,-0.62660426,-0.321912,0.026142288,0.064650595,-0.03424252,0.029800765,0.079931185,-0.021609936,-0.005329201,-0.005856284,-0.041284166,-0.035444178,0.08812466,0.04892522,3.0,-0.017314406,-3.0,3.0,0.9832523,-3.0,3.0,-2.0761328,-3.0,-3.0,-2.7863255,-3.0,3.0,-0.19707301,-3.0,3.0,0.85404193,-3.0,3.0,-2.3070037,-3.0,-3.0,-2.9290137,-3.0
2025-06-06 11:40:36.343,0.007585999,0.04464141,-0.015733147,0.061735924,-0.13540024,-0.0020313528,0.0,0.0,0.0,-0.007703665,0.123781994,-0.032137234,-0.17520124,0.11661614,0.08887544,-0.19124791,0.14070015,-0.4826107,-0.239388,-0.1265998,-0.61675197,-0.33793986,0.05517499,0.07551851,0.014227416,0.0091323815,0.06018513,0.013293142,-0.005374168,0.07117121,0.060232114,0.06293142,0.009826472,-0.0675704,3.0,-0.19707301,-3.0,3.0,0.85404193,-3.0,3.0,-2.3070037,-3.0,-3.0,-2.9290137,-3.0,3.0,-0.20232204,-3.0,3.0,0.5576004,-3.0,3.0,-2.4147031,-3.0,-3.0,-2.7598903,-3.0
2025-06-06 11:40:36.363,0.045783885,-0.040764835,0.008783862,0.081094354,-0.13973655,-0.037004612,0.0,0.0,0.0,-0.0075290655,0.13116416,-0.019306645,-0.1895474,0.13109034,0.09688425,-0.18529265,0.12477939,-0.47390035,-0.22627465,-0.13457124,-0.62585723,-0.318215,0.05820956,0.015905727,0.06402265,-0.051877055,-0.006916836,-0.008719381,0.061101973,-0.069795854,-0.029135939,-0.015115276,0.04342647,-0.046736483,3.0,-0.20232204,-3.0,3.0,0.5576004,-3.0,3.0,-2.4147031,-3.0,-3.0,-2.7598903,-3.0,3.0,-0.33811307,-3.0,3.0,0.7345265,-3.0,3.0,-2.305482,-3.0,-3.0,-2.8545547,-3.0
2025-06-06 11:40:36.386,-0.024536738,-0.022287501,-0.023417715,0.08253203,-0.12902421,0.04301255,0.0,0.0,0.0,-0.0073956824,0.13242215,-0.01984419,-0.18540244,0.120070666,0.091683306,-0.17654006,0.13795358,-0.49066582,-0.23984729,-0.14079824,-0.6265985,-0.31546673,0.07122473,-0.037903298,0.05216494,-0.049578875,0.04228294,0.07556346,-0.055914905,-0.006391689,-0.004029844,0.03332111,0.04717124,0.06299864,3.0,-0.33811307,-3.0,3.0,0.7345265,-3.0,3.0,-2.305482,-3.0,-3.0,-2.8545547,-3.0,3.0,-0.1370191,-3.0,3.0,0.5946287,-3.0,3.0,-2.278048,-3.0,-3.0,-2.7255275,-3.0
2025-06-06 11:40:36.403,-0.016491748,-0.01749799,0.0028566318,0.10294988,-0.049115133,-0.0011867923,0.0,0.0,0.0,-0.007290709,0.126498,-0.028686283,-0.19258185,0.11607592,0.09903616,-0.17944914,0.14241877,-0.4858681,-0.22457826,-0.14097273,-0.62021685,-0.33420968,0.06600753,-0.06688915,0.039001137,-0.054508332,0.06395937,-0.05602697,0.052490633,0.042103004,0.013080094,0.0611344,-0.04269042,0.035258718,3.0,-0.1370191,-3.0,3.0,0.5946287,-3.0,3.0,-2.278048,-3.0,-3.0,-2.7255275,-3.0,3.0,-0.29871258,-3.0,3.0,0.7088705,-3.0,3.0,-2.2995985,-3.0,-3.0,-2.7212029,-3.0
2025-06-06 11:40:36.423,-0.034258727,0.014000597,-0.037366923,0.13030906,-0.10076607,-0.049194623,0.0,0.0,0.0,-0.0072681163,0.12453344,-0.032904062,-0.1834461,0.12893882,0.09335831,-0.17753372,0.13689427,-0.4768371,-0.22973117,-0.1313435,-0.61140263,-0.3340216,0.04428868,-0.025258608,0.05219676,0.06466026,0.019792106,0.021371404,0.047469325,-0.0667533,0.052161995,0.059265338,-0.046933252,-0.029770862,3.0,-0.29871258,-3.0,3.0,0.7088705,-3.0,3.0,-2.2995985,-3.0,-3.0,-2.7212029,-3.0,3.0,-0.10126606,-3.0,3.0,0.6356381,-3.0,3.0,-2.1588082,-3.0,-3.0,-2.747632,-3.0
2025-06-06 11:40:36.443,-0.027703308,-0.01250515,0.043319162,0.05923119,-0.06536589,-0.014632549,0.0,0.0,0.0,-0.0072344146,0.12204914,-0.029840313,-0.18217924,0.11956571,0.08242339,-0.18142064,0.14245127,-0.48333022,-0.22831818,-0.12682937,-0.60385364,-0.3271546,0.054923102,-0.024509175,-0.04718015,-0.056698233,0.022766061,-0.05831539,-0.010651335,-0.03633209,0.0043161516,0.05056262,-0.028232377,0.034765124,3.0,-0.10126606,-3.0,3.0,0.6356381,-3.0,3.0,-2.1588082,-3.0,-3.0,-2.747632,-3.0,3.0,-0.6551993,-3.0,3.0,0.9155968,-3.0,3.0,-2.6174595,-3.0,-3.0,-2.5801835,-3.0
2025-06-06 11:40:36.463,-0.08714101,-0.038766395,-0.02522921,0.06473045,-0.073962025,0.017815515,0.0,0.0,0.0,-0.0073148585,0.13559832,-0.019497609,-0.1824969,0.12042218,0.09905589,-0.17591871,0.14007416,-0.47731537,-0.24222109,-0.13613571,-0.60488963,-0.3398083,0.05449347,-0.060336493,0.082818635,0.006607927,-0.03428839,-0.008365399,0.0013845789,0.027769193,0.030210033,-0.06360751,-0.0126021765,0.027119804,3.0,-0.6551993,-3.0,3.0,0.9155968,-3.0,3.0,-2.6174595,-3.0,-3.0,-2.5801835,-3.0,3.0,0.0775052,-3.0,3.0,0.69499373,-3.0,3.0,-2.008265,-3.0,-3.0,-2.788961,-3.0
2025-06-06 11:40:36.485,0.035488516,-0.016647076,0.03144602,0.053232636,-0.0677637,-0.004098228,0.0,0.0,0.0,-0.0069836588,0.12707655,-0.025190445,-0.18407151,0.115853265,0.08129162,-0.1810753,0.12642111,-0.47415355,-0.24261482,-0.13574325,-0.61209214,-0.33846548,-0.051900174,-0.019565068,-0.012849034,0.029676868,0.031209188,0.008552991,0.072287336,-0.030552346,-0.029318197,-0.005354968,0.015418597,0.0129149305,3.0,0.0775052,-3.0,3.0,0.69499373,-3.0,3.0,-2.008265,-3.0,-3.0,-2.788961,-3.0,3.0,-0.7045197,-3.0,3.0,1.010952,-3.0,3.0,-2.5854414,-3.0,-3.0,-2.814178,-3.0
2025-06-06 11:40:36.503,-0.009275676,-0.04314019,-0.046134636,0.071328945,-0.05844235,-0.043487944,0.0,0.0,0.0,-0.0068452135,0.13354719,-0.031094722,-0.18355805,0.11556759,0.08096456,-0.17471232,0.13927172,-0.48657313,-0.23828599,-0.13404438,-0.60984796,-0.34222406,0.024134943,-0.0011728057,0.075086474,-0.049987428,-0.039572146,-0.016922439,0.07311675,-0.056881856,0.06407995,0.03606947,-0.07507901,0.0021398016,3.0,-0.7045197,-3.0,3.0,1.010952,-3.0,3.0,-2.5854414,-3.0,-3.0,-2.814178,-3.0,3.0,0.1684064,-3.0,3.0,0.7353987,-3.0,3.0,-1.9344779,-3.0,-3.0,-2.783465,-3.0
2025-06-06 11:40:36.523,-0.0045294147,-0.005801187,0.055069566,0.0466257,-0.13820915,0.044331767,0.0,0.0,0.0,-0.006605576,0.119905315,-0.03719832,-0.17507848,0.11678808,0.09277673,-0.1799705,0.14362563,-0.47586024,-0.24705316,-0.122478224,-0.60994214,-0.32939628,-0.044869363,0.0064470386,0.041386824,-0.065439306,0.025551755,0.005898463,0.061483014,-0.004575745,-0.02322304,0.041921902,-0.061825406,-0.036074974,3.0,0.1684064,-3.0,3.0,0.7353987,-3.0,3.0,-1.9344779,-3.0,-3.0,-2.783465,-3.0,3.0,-0.82159936,-3.0,3.0,0.96194804,-3.0,3.0,-2.727194,-3.0,-3.0,-2.606246,-3.0
2025-06-06 11:40:36.544,-0.106672406,-0.06243806,0.02100623,0.09600239,-0.083459884,9.093658e-05,0.0,0.0,0.0,-0.0066691767,0.13598894,-0.02803879,-0.1698829,0.12960124,0.08187366,-0.17974402,0.12968501,-0.48717627,-0.23377526,-0.12646794,-0.6118654,-0.33338588,0.060339328,-0.054272138,-0.033976343,-0.06824777,-0.014908437,-0.031155657,-0.018063726,0.016562987,-0.06455112,0.034743905,0.036175538,0.0529089,3.0,-0.82159936,-3.0,3.0,0.96194804,-3.0,3.0,-2.727194,-3.0,-3.0,-2.606246,-3.0,3.0,-0.14730176,-3.0,3.0,0.74870867,-3.0,3.0,-2.203605,-3.0,-3.0,-2.591616,-3.0
2025-06-06 11:40:36.564,-0.06122986,-0.019084906,-0.005197165,0.040117767,-0.07735275,0.015360106,0.0,0.0,0.0,-0.006441607,0.13051341,-0.03200418,-0.18045631,0.12182726,0.0937699,-0.17218125,0.12938279,-0.48695877,-0.23238732,-0.12657036,-0.5971871,-0.33446616,0.00077975297,0.065680556,0.056166902,0.05811279,0.016819103,0.006134027,0.014007776,-0.068610035,-0.05726333,-0.011928736,-0.049361415,-0.031949554,3.0,-0.14730176,-3.0,3.0,0.74870867,-3.0,3.0,-2.203605,-3.0,-3.0,-2.591616,-3.0,3.0,-0.4186934,-3.0,3.0,0.7777008,-3.0,3.0,-2.3417625,-3.0,-3.0,-2.873189,-3.0
2025-06-06 11:40:36.586,0.010334332,-0.010047972,0.037987374,0.10904091,-0.072743006,0.02915863,0.0,0.0,0.0,-0.006155402,0.12581505,-0.03319528,-0.18335247,0.12135864,0.089738056,-0.18493916,0.142571,-0.48820138,-0.24327815,-0.11623886,-0.6066835,-0.33345303,-0.03861164,0.034752026,0.06964357,-0.019548489,-0.01013369,-0.07343177,-0.009940841,-0.02422652,0.021546483,-0.055666495,-0.03525567,0.06538979,3.0,-0.4186934,-3.0,3.0,0.7777008,-3.0,3.0,-2.3417625,-3.0,-3.0,-2.873189,-3.0,3.0,-0.5857593,-3.0,3.0,0.93420774,-3.0,3.0,-2.493145,-3.0,-3.0,-2.7998335,-3.0
2025-06-06 11:40:36.604,-0.036099944,-0.017778033,0.016737888,0.07355819,-0.049186654,-0.02983456,0.0,0.0,0.0,-0.0061276625,0.123947755,-0.050989628,-0.16377164,0.12559086,0.095113344,-0.18215498,0.13485333,-0.50600445,-0.24333586,-0.1337423,-0.61638093,-0.34830526,0.004595976,0.05434952,-0.061471064,0.04119397,-0.024358056,-0.06103684,-0.04024569,0.025942765,-0.050237168,0.07173677,0.05054622,-0.01013724,3.0,-0.5857593,-3.0,3.0,0.93420774,-3.0,3.0,-2.493145,-3.0,-3.0,-2.7998335,-3.0,3.0,-0.47830844,-3.0,3.0,0.8167306,-3.0,3.0,-2.4346883,-3.0,-3.0,-2.8352096,-3.0
2025-06-06 11:40:36.624,-0.06349512,0.024632711,-0.045555837,0.12742005,-0.09691579,-0.024843166,0.0,0.0,0.0,-0.006051086,0.119230226,-0.055415526,-0.1731264,0.12808137,0.079039626,-0.18698896,0.12901358,-0.49934474,-0.23517814,-0.12752979,-0.6044597,-0.34180152,0.07518892,-0.06589416,-0.05448668,0.06437625,0.032562464,0.018242672,0.02885796,-0.07020478,-0.04789766,0.05985325,0.023953222,-0.04553541,3.0,-0.47830844,-3.0,3.0,0.8167306,-3.0,3.0,-2.4346883,-3.0,-3.0,-2.8352096,-3.0,3.0,-0.1104587,-3.0,3.0,0.6318727,-3.0,3.0,-2.0983078,-3.0,-3.0,-2.7203517,-3.0
2025-06-06 11:40:36.644,0.026467068,-0.0059195897,-0.012659342,0.03816991,-0.08707989,-0.03056606,0.0,0.0,0.0,-0.0059717204,0.12940292,-0.038100418,-0.16947678,0.117646374,0.0813827,-0.18841793,0.14838105,-0.507609,-0.24289241,-0.12927221,-0.6173424,-0.3370533,-0.04131977,0.001609174,0.029854577,0.025469324,0.028536566,-0.017001417,0.0345817,0.045432854,-0.02707006,0.03463266,-0.056652848,-0.055212934,3.0,-0.1104587,-3.0,3.0,0.6318727,-3.0,3.0,-2.0983078,-3.0,-3.0,-2.7203517,-3.0,3.0,-0.3956356,-3.0,3.0,0.64068687,-3.0,3.0,-2.366027,-3.0,-3.0,-2.8579364,-3.0
2025-06-06 11:40:36.664,0.056998037,-0.010763638,0.016593244,0.038532425,-0.061212894,0.04695953,0.0,0.0,0.0,-0.0062420527,0.14153539,-0.04774699,-0.16208795,0.12450704,0.09307761,-0.18687996,0.13195695,-0.50417936,-0.233658,-0.1256856,-0.61165124,-0.3436316,0.009826846,0.047213238,-0.034283783,0.010347939,0.015275947,0.0013604612,-0.075445086,-0.04689581,-0.036324136,0.0329456,-0.05541008,0.071359985,3.0,-0.3956356,-3.0,3.0,0.64068687,-3.0,3.0,-2.366027,-3.0,-3.0,-2.8579364,-3.0,3.0,-0.5389763,-3.0,3.0,0.73765385,-3.0,3.0,-2.4817836,-3.0,-3.0,-2.8488479,-3.0
2025-06-06 11:40:36.686,-0.020279733,0.00033716715,0.014133484,0.12261412,-0.11735464,0.039193295,0.0,0.0,0.0,-0.006703589,0.13136956,-0.044466395,-0.16853513,0.11676174,0.082013495,-0.17885488,0.14313918,-0.5037466,-0.23305395,-0.12746213,-0.6208725,-0.34971774,-0.010593038,-0.05012544,-0.040999763,0.055569224,-0.005365042,0.050615158,-0.04871236,-0.075548194,-0.069673635,0.0047638793,-0.05438418,0.022600261,3.0,-0.5389763,-3.0,3.0,0.73765385,-3.0,3.0,-2.4817836,-3.0,-3.0,-2.8488479,-3.0,3.0,-0.52635044,-3.0,3.0,0.749728,-3.0,3.0,-2.392376,-3.0,-3.0,-2.7152238,-3.0
2025-06-06 11:40:36.704,-0.0010154952,-0.013180226,0.024130842,0.12811233,-0.11528345,-0.0138793755,0.0,0.0,0.0,-0.007016358,0.13835225,-0.061551284,-0.1700394,0.12974639,0.08730491,-0.17399772,0.14630632,-0.49670666,-0.23114425,-0.124419466,-0.61723137,-0.3364194,-0.032283973,0.005613006,-0.027790027,-0.021852214,-0.019783985,0.06536458,0.04000619,-0.0077405428,0.05971302,0.048843466,-0.014139703,-0.01078199,3.0,-0.52635044,-3.0,3.0,0.749728,-3.0,3.0,-2.392376,-3.0,-3.0,-2.7152238,-3.0,3.0,-0.5596271,-3.0,3.0,0.8236807,-3.0,3.0,-2.4858308,-3.0,-3.0,-2.6696477,-3.0
2025-06-06 11:40:36.724,0.00941732,-0.020085536,-0.009323268,0.08357099,-0.07668439,0.0032126363,0.0,0.0,0.0,-0.0070993896,0.14120652,-0.052681133,-0.17095612,0.122811496,0.08640534,-0.18667883,0.12890787,-0.50093883,-0.22612292,-0.13616365,-0.6240147,-0.34691328,0.0045949304,-0.010517722,-0.04310006,-0.04539638,0.00090560335,0.011931344,-0.0492999,0.030264864,-0.004203486,0.06503213,0.060914747,0.024207313,3.0,-0.5596271,-3.0,3.0,0.8236807,-3.0,3.0,-2.4858308,-3.0,-3.0,-2.6696477,-3.0,3.0,-0.25966075,-3.0,3.0,0.70438504,-3.0,3.0,-2.271449,-3.0,-3.0,-2.8548436,-3.0
2025-06-06 11:40:36.744,0.058285844,-0.020417186,-0.022575295,0.10929154,-0.1357525,-0.045745246,0.0,0.0,0.0,-0.0069210576,0.12582117,-0.05938283,-0.15839419,0.12043207,0.07333489,-0.17610022,0.13031575,-0.508992,-0.24238512,-0.13662624,-0.624575,-0.34455693,-0.05681045,-0.045181487,-0.066893965,0.036699492,-0.010825714,-0.067597926,0.039477967,0.0072849006,-0.028869016,-0.044508107,-0.06603287,-0.04557569,3.0,-0.25966075,-3.0,3.0,0.70438504,-3.0,3.0,-2.271449,-3.0,-3.0,-2.8548436,-3.0,3.0,-0.3137631,-3.0,3.0,0.7776715,-3.0,3.0,-2.148462,-3.0,-3.0,-2.9675355,-3.0
2025-06-06 11:40:36.764,0.018937476,0.027275832,0.05719242,0.064858705,-0.13426846,-0.032551527,0.0,0.0,0.0,-0.00688586,0.13562407,-0.06514648,-0.16184111,0.13631397,0.07374616,-0.19125277,0.13592005,-0.49827215,-0.23411834,-0.12147519,-0.6126419,-0.3548963,0.051085122,0.030934822,0.06590124,0.040356867,-0.041879687,0.052476212,-0.016541759,-0.0274562,-0.008328421,-0.05931221,0.04856971,-0.059539024,3.0,-0.3137631,-3.0,3.0,0.7776715,-3.0,3.0,-2.148462,-3.0,-3.0,-2.9675355,-3.0,3.0,-0.84060365,-3.0,3.0,1.0040226,-3.0,3.0,-2.6818337,-3.0,-3.0,-2.70124,-3.0
2025-06-06 11:40:36.786,-0.007605652,-0.033156145,-0.015828293,0.09332901,-0.048550993,0.028349709,0.0,0.0,0.0,-0.007184925,0.13576894,-0.06972915,-0.16909458,0.13486142,0.0796817,-0.18525133,0.14006254,-0.50367707,-0.23176037,-0.12724063,-0.62587947,-0.35633695,0.013988703,0.03779906,0.06264376,0.026869629,-0.03728587,-0.044890545,-0.0016968074,-0.011210799,-0.019705461,0.0057123164,-0.047851577,0.054578338,3.0,-0.84060365,-3.0,3.0,1.0040226,-3.0,3.0,-2.6818337,-3.0,-3.0,-2.70124,-3.0,3.0,-0.13004783,-3.0,3.0,0.7439195,-3.0,3.0,-2.045201,-3.0,-3.0,-2.9314919,-3.0
2025-06-06 11:40:36.804,0.009471383,-0.020487314,0.047531497,0.03766466,-0.10522529,-0.016565563,0.0,0.0,0.0,-0.007067107,0.12737106,-0.05245023,-0.16026491,0.13370693,0.08348758,-0.18669136,0.14311187,-0.5112884,-0.24495806,-0.12865277,-0.6237154,-0.3490749,-0.029453957,0.020914374,0.020789118,0.07385145,0.043824464,-0.03668199,-0.042257912,-0.05495507,-0.08222962,0.047547586,-0.0024894027,0.07179939,3.0,-0.13004783,-3.0,3.0,0.7439195,-3.0,3.0,-2.045201,-3.0,-3.0,-2.9314919,-3.0,3.0,-0.93821913,-3.0,3.0,0.92295337,-3.0,3.0,-2.77517,-3.0,-3.0,-2.7326899,-3.0
2025-06-06 11:40:36.824,-0.023917124,-0.050062716,-0.016247114,0.05129184,-0.132855,-0.026299825,0.0,0.0,0.0,-0.0071083554,0.12663,-0.06908442,-0.16385472,0.1156931,0.07283135,-0.19519019,0.13264726,-0.51379675,-0.23096,-0.11969005,-0.61816925,-0.34129652,0.058366235,-0.008728947,0.066077694,-0.04320463,-0.07372455,0.025650652,-0.013544815,0.011273715,0.05670189,0.064651154,0.036098737,-0.016618969,3.0,-0.93821913,-3.0,3.0,0.92295337,-3.0,3.0,-2.77517,-3.0,-3.0,-2.7326899,-3.0,3.0,-0.08797914,-3.0,3.0,0.571475,-3.0,3.0,-2.1704981,-3.0,-3.0,-2.6392207,-3.0
2025-06-06 11:40:36.845,0.037960842,0.018002093,0.0023210938,0.06452668,-0.06242305,0.0138999885,0.0,0.0,0.0,-0.006875826,0.12656042,-0.05953718,-0.16272154,0.11479669,0.067746714,-0.19423528,0.1315334,-0.516966,-0.23391193,-0.13156126,-0.6170365,-0.35187903,0.051163167,0.009941843,-0.069677725,-0.017186586,0.03627351,-0.057165943,0.06873444,-0.01777309,0.030626595,-0.059632964,0.001256023,-0.04208016,3.0,-0.08797914,-3.0,3.0,0.571475,-3.0,3.0,-2.1704981,-3.0,-3.0,-2.6392207,-3.0,3.0,-0.5082961,-3.0,3.0,0.78511405,-3.0,3.0,-2.4022717,-3.0,-3.0,-2.8653362,-3.0
2025-06-06 11:40:36.865,-0.009043181,-0.009313342,0.009173574,0.12886702,-0.06415606,-0.0205208,0.0,0.0,0.0,-0.0067191343,0.12387707,-0.07367814,-0.16912703,0.12189007,0.0664255,-0.18036489,0.14706314,-0.5022206,-0.24098817,-0.13358825,-0.60620624,-0.34012714,-0.050899286,0.00399878,0.055770352,0.020576306,0.02939576,-0.029924044,0.051867828,-0.039263487,0.059864577,-0.015497551,-0.03438726,0.0481089,3.0,-0.5082961,-3.0,3.0,0.78511405,-3.0,3.0,-2.4022717,-3.0,-3.0,-2.8653362,-3.0,3.0,-0.5257315,-3.0,3.0,0.7882571,-3.0,3.0,-2.4040132,-3.0,-3.0,-2.7821512,-3.0
2025-06-06 11:40:36.886,0.038848422,-0.017762149,0.0049907966,0.03822849,-0.05071906,0.045870136,0.0,0.0,0.0,-0.0067584463,0.12836821,-0.060705107,-0.17684671,0.11555045,0.081302054,-0.1881797,0.14281383,-0.5024903,-0.24364124,-0.1261253,-0.62010074,-0.35369414,-0.025645439,0.036723528,-0.03271061,0.07117213,-0.07093793,-0.008517042,0.051106848,-0.041260436,-0.008765034,-0.07381805,-0.011219087,0.037617743,3.0,-0.5257315,-3.0,3.0,0.7882571,-3.0,3.0,-2.4040132,-3.0,-3.0,-2.7821512,-3.0,3.0,-0.54309005,-3.0,3.0,0.997219,-3.0,3.0,-2.322367,-3.0,-3.0,-3.0,-3.0
2025-06-06 11:40:36.905,0.041568693,-0.03368599,-0.04507806,0.044735614,-0.14024828,0.022612065,0.0,0.0,0.0,-0.0067596333,0.12205929,-0.06244129,-0.15856458,0.11538142,0.072885446,-0.18113285,0.12982939,-0.5189625,-0.23608239,-0.11692128,-0.6112484,-0.33940747,0.015857713,0.050744265,0.06636162,-0.056886487,0.021382678,0.0336115,0.07111427,-0.06389938,-0.05832831,0.029347233,0.021771343,0.02512606,3.0,-0.54309005,-3.0,3.0,0.997219,-3.0,3.0,-2.322367,-3.0,-3.0,-3.0,-3.0,3.0,-0.15876305,-3.0,3.0,0.72683036,-3.0,3.0,-2.156278,-3.0,-3.0,-2.8077068,-3.0
2025-06-06 11:40:36.925,0.060196254,-0.0059241527,0.021183247,0.060086332,-0.12931752,0.031533416,0.0,0.0,0.0,-0.0067928866,0.13256317,-0.060285967,-0.17067704,0.11662112,0.07477612,-0.19413778,0.13865025,-0.5005595,-0.23455243,-0.122640386,-0.61413896,-0.34436718,-0.031256996,0.046009954,0.005957643,0.046998236,0.050604157,0.072801046,0.030621132,0.0720781,0.025908992,0.011793084,-0.023770332,0.008177013,3.0,-0.15876305,-3.0,3.0,0.72683036,-3.0,3.0,-2.156278,-3.0,-3.0,-2.8077068,-3.0,3.0,-0.6492395,-3.0,3.0,0.72557724,-3.0,3.0,-2.6093493,-3.0,-3.0,-2.763863,-3.0
2025-06-06 11:40:36.945,-0.0009398485,-0.014009874,-0.04423687,0.04389067,-0.08673524,-0.014359531,0.0,0.0,0.0,-0.0070506907,0.1260047,-0.06330835,-0.1761581,0.124863975,0.0840427,-0.17705356,0.1383851,-0.50528455,-0.24345383,-0.12935731,-0.6190433,-0.35010922,0.0021835703,-0.013189757,0.06267339,-0.05128424,0.03996734,-0.050091717,0.047482543,-0.027779585,-0.026883472,0.010363917,-0.06681534,0.025307754,3.0,-0.6492395,-3.0,3.0,0.72557724,-3.0,3.0,-2.6093493,-3.0,-3.0,-2.763863,-3.0,3.0,-0.07748771,-3.0,3.0,0.6013684,-3.0,3.0,-1.957096,-3.0,-3.0,-2.950663,-3.0
2025-06-06 11:40:36.965,0.09981983,0.011192305,0.03638046,0.08326687,-0.12854004,-0.03421668,0.0,0.0,0.0,-0.0071301116,0.14040777,-0.06819145,-0.16465177,0.1280596,0.077272974,-0.18816769,0.12754318,-0.49883837,-0.24038967,-0.117537655,-0.6153245,-0.35428908,0.07754169,-0.0072834566,-0.00459545,0.013190563,0.015100714,-0.025751002,0.036255777,-0.03544548,-0.025957977,0.03930691,0.05360037,0.06722606,3.0,-0.07748771,-3.0,3.0,0.6013684,-3.0,3.0,-1.957096,-3.0,-3.0,-2.950663,-3.0,3.0,-0.7939288,-3.0,3.0,1.0073968,-3.0,3.0,-2.6060073,-3.0,-3.0,-2.727501,-3.0
2025-06-06 11:40:36.986,-0.060050584,-0.02285254,0.030127248,0.09372875,-0.05321338,-0.010245496,0.0,0.0,0.0,-0.0075034103,0.13966647,-0.05688365,-0.16759676,0.12871376,0.081395425,-0.19111042,0.12744129,-0.49675336,-0.24167697,-0.13452935,-0.6070448,-0.3393951,-0.044890735,0.036264397,-0.0055602957,-0.0028934001,-0.0144252125,-0.07731623,0.024486605,-0.021430675,-0.033805028,-0.0739388,-0.027952088,0.042071566,3.0,-0.7939288,-3.0,3.0,1.0073968,-3.0,3.0,-2.6060073,-3.0,-3.0,-2.727501,-3.0,3.0,-0.36191598,-3.0,3.0,0.950921,-3.0,3.0,-2.2251856,-3.0,-3.0,-2.826242,-3.0
2025-06-06 11:40:37.005,-0.012559345,0.011328931,-0.03260658,0.060213793,-0.12123971,0.015911208,0.0,0.0,0.0,-0.0075538717,0.12986173,-0.05912083,-0.17039056,0.12433553,0.06980227,-0.18187417,0.1394158,-0.50627774,-0.24581178,-0.13731337,-0.6100971,-0.35204157,0.024038356,-0.029446436,-0.017335065,0.023974719,0.015843464,-0.075047694,-0.06833868,-0.056919005,0.04808115,-0.055218935,-0.048346814,0.02651334,3.0,-0.36191598,-3.0,3.0,0.950921,-3.0,3.0,-2.2251856,-3.0,-3.0,-2.826242,-3.0,3.0,-0.19221571,-3.0,3.0,0.78173935,-3.0,3.0,-2.1508317,-3.0,-3.0,-2.8656802,-3.0
2025-06-06 11:40:37.025,-0.01696402,0.025015952,0.008333511,0.040227346,-0.13985397,0.015991785,0.0,0.0,0.0,-0.0073800944,0.1439075,-0.05458576,-0.16446032,0.119586594,0.08433121,-0.1777869,0.13642465,-0.49460983,-0.24704342,-0.12950176,-0.61931384,-0.34440267,-0.013474854,-0.059730705,-0.030687695,0.05487931,0.054811776,-0.07043616,0.004311108,-0.046695616,-0.028635688,-0.0031179476,0.07227206,0.03324555,3.0,-0.19221571,-3.0,3.0,0.78173935,-3.0,3.0,-2.1508317,-3.0,-3.0,-2.8656802,-3.0,3.0,-0.61829597,-3.0,3.0,0.86999154,-3.0,3.0,-2.445769,-3.0,-3.0,-2.879695,-3.0
2025-06-06 11:40:37.045,0.0036662545,0.01158442,0.012104238,0.11447712,-0.09639233,0.02475136,0.0,0.0,0.0,-0.007438324,0.13538128,-0.060815208,-0.16138959,0.11871428,0.086230114,-0.18483602,0.14236236,-0.5034994,-0.24359077,-0.12234323,-0.6158939,-0.3438264,0.049477622,-0.01151789,-0.047515385,-0.037611794,-0.044961743,0.04855599,0.07270794,0.022580583,0.05768641,0.024479724,-0.040097643,-0.044203367,3.0,-0.61829597,-3.0,3.0,0.86999154,-3.0,3.0,-2.445769,-3.0,-3.0,-2.879695,-3.0,3.0,-0.34458342,-3.0,3.0,0.81782687,-3.0,3.0,-2.3261075,-3.0,-3.0,-2.6346557,-3.0
2025-06-06 11:40:37.068,0.013866148,0.011218171,-0.013342004,0.089965425,-0.116811946,-0.020778086,0.0,0.0,0.0,-0.007426402,0.12614357,-0.05774548,-0.16748098,0.1335273,0.087752886,-0.18241946,0.13493048,-0.5024012,-0.2320172,-0.13087957,-0.6209877,-0.33422017,-0.00446958,0.024729153,-0.052241035,-0.024549795,-0.045244355,0.060009938,-0.056494385,-0.05859875,-0.018841416,0.04934588,0.035000753,0.042928237,3.0,-0.34458342,-3.0,3.0,0.81782687,-3.0,3.0,-2.3261075,-3.0,-3.0,-2.6346557,-3.0,3.0,-0.367546,-3.0,3.0,0.7847754,-3.0,3.0,-2.3376768,-3.0,-3.0,-2.804509,-3.0
2025-06-06 11:40:37.086,0.013540245,-0.0078076036,0.019798843,0.09902261,-0.117564775,0.011810137,0.0,0.0,0.0,-0.007244728,0.12184711,-0.040693298,-0.1654306,0.1300591,0.08870782,-0.17945552,0.14434084,-0.50207275,-0.24600923,-0.13385114,-0.6198349,-0.34061068,-0.0042056087,0.059353255,-0.018818561,-0.07341192,0.056545664,-0.034632638,0.041883335,0.07105472,-0.069031335,0.07051316,-0.06358737,0.005537465,3.0,-0.367546,-3.0,3.0,0.7847754,-3.0,3.0,-2.3376768,-3.0,-3.0,-2.804509,-3.0,3.0,-0.42608222,-3.0,3.0,0.68743217,-3.0,3.0,-2.3852582,-3.0,-3.0,-2.7604806,-3.0
2025-06-06 11:40:37.105,-0.011846858,0.014472816,0.004987904,0.08028451,-0.058368992,-0.044162933,0.0,0.0,0.0,-0.007085042,0.14099964,-0.056930114,-0.17495412,0.116105825,0.07785024,-0.17426503,0.1345763,-0.49944004,-0.23235038,-0.12484513,-0.6058138,-0.33695763,0.008234258,-0.018261036,0.045656577,-0.006558939,-0.026015582,-5.94423e-05,-0.013065227,-0.033541165,0.014853782,-0.06195384,-0.042770583,0.03232096,3.0,-0.42608222,-3.0,3.0,0.68743217,-3.0,3.0,-2.3852582,-3.0,-3.0,-2.7604806,-3.0,3.0,-0.4084544,-3.0,3.0,0.8543686,-3.0,3.0,-2.2721632,-3.0,-3.0,-2.8100677,-3.0
2025-06-06 11:40:37.125,0.04238735,0.05344279,0.036981642,0.1184954,-0.13583876,0.020664105,0.0,0.0,0.0,-0.006968393,0.13344067,-0.045873623,-0.17203942,0.13138294,0.07826769,-0.19046994,0.13939728,-0.496956,-0.24087429,-0.12548144,-0.6129609,-0.33013242,-0.031012623,0.019836206,0.009149692,-0.0718745,-1.1352971e-05,0.06780339,-0.0610946,0.07249354,0.0043690284,-0.0119271,0.049885716,0.011748597,3.0,-0.4084544,-3.0,3.0,0.8543686,-3.0,3.0,-2.2721632,-3.0,-3.0,-2.8100677,-3.0,3.0,-0.5425231,-3.0,3.0,0.7985858,-3.0,3.0,-2.553922,-3.0,-3.0,-2.6789699,-3.0
2025-06-06 11:40:37.146,-0.07407613,-0.046975546,0.023907624,0.034442745,-0.1197779,-0.034855247,0.0,0.0,0.0,-0.0069074705,0.13180065,-0.04553196,-0.16432862,0.13079108,0.092850775,-0.18662727,0.13149038,-0.50142103,-0.22770765,-0.12761526,-0.61705154,-0.3340721,-0.035152696,-0.013869411,-0.03308189,-0.0027112798,0.050277613,-0.010641333,-0.04336427,-0.06312622,-0.053912427,0.044139385,0.03937005,0.002133123,3.0,-0.5425231,-3.0,3.0,0.7985858,-3.0,3.0,-2.553922,-3.0,-3.0,-2.6789699,-3.0,3.0,-0.5516216,-3.0,3.0,0.67883635,-3.0,3.0,-2.49522,-3.0,-3.0,-2.6729145,-3.0
2025-06-06 11:40:37.169,0.011336885,-0.024052508,-0.008181038,0.11288472,-0.064317584,-0.0366246,0.0,0.0,0.0,-0.0066778213,0.12859829,-0.052079342,-0.16767447,0.11352767,0.0784299,-0.19315986,0.12903102,-0.50073844,-0.23440658,-0.11627067,-0.6153383,-0.33166045,0.05270579,-0.025378475,0.07776388,0.06917915,-0.050595656,-0.031351324,0.07282356,-0.032028362,-0.057645727,0.012820604,0.02561908,-0.01668422,3.0,-0.5516216,-3.0,3.0,0.67883635,-3.0,3.0,-2.49522,-3.0,-3.0,-2.6729145,-3.0,3.0,-0.2991824,-3.0,3.0,0.6671181,-3.0,3.0,-2.1991847,-3.0,-3.0,-2.8054562,-3.0
2025-06-06 11:40:37.186,-0.016035134,0.008493758,0.04825847,0.07567122,-0.086246476,0.047730118,0.0,0.0,0.0,-0.0063241385,0.13335942,-0.05795211,-0.16802077,0.12696752,0.08637678,-0.17309277,0.13583879,-0.49703154,-0.231267,-0.11813433,-0.6031698,-0.34157386,-0.013802913,-0.017508639,-0.041578013,0.0021149823,-0.025447814,0.07383063,-0.0075350422,-0.0035127283,-0.044837862,-0.035040203,0.0010548567,-0.00016235525,3.0,-0.2991824,-3.0,3.0,0.6671181,-3.0,3.0,-2.1991847,-3.0,-3.0,-2.8054562,-3.0,3.0,-0.8284756,-3.0,3.0,1.0264772,-3.0,3.0,-2.6371005,-3.0,-3.0,-2.6971836,-3.0
2025-06-06 11:40:37.206,-0.08086255,0.010497086,0.023176378,0.07173152,-0.05968683,0.007367753,0.0,0.0,0.0,-0.0062660603,0.11900134,-0.054434728,-0.16082421,0.12632695,0.08996346,-0.18873931,0.14045382,-0.50902796,-0.2332684,-0.12187515,-0.6138252,-0.33235562,0.056594476,-0.063303165,-0.022256467,-0.04896029,0.041041635,0.01504591,-0.07052377,0.019699266,-0.063106366,-0.007298909,0.06485491,-0.04188474,3.0,-0.8284756,-3.0,3.0,1.0264772,-3.0,3.0,-2.6371005,-3.0,-3.0,-2.6971836,-3.0,3.0,-0.36583284,-3.0,3.0,0.6873286,-3.0,3.0,-2.3950603,-3.0,-3.0,-2.4838252,-3.0
2025-06-06 11:40:37.226,-0.012211216,-0.017557122,-0.047650415,0.05964165,-0.10718913,0.049924344,0.0,0.0,0.0,-0.006012293,0.121880494,-0.058788728,-0.16429959,0.12327067,0.07553809,-0.18603766,0.14751138,-0.50131845,-0.2295803,-0.13053727,-0.6109698,-0.33515885,-0.02236647,-0.015965553,-0.058206588,-0.016126545,-0.019831603,-0.0096837105,0.04417374,0.063949935,-0.008323287,-0.041867316,0.05043139,-0.07917806,3.0,-0.36583284,-3.0,3.0,0.6873286,-3.0,3.0,-2.3950603,-3.0,-3.0,-2.4838252,-3.0,3.0,-0.14238492,-3.0,3.0,0.6463318,-3.0,3.0,-2.1213763,-3.0,-3.0,-3.0,-3.0
2025-06-06 11:40:37.246,0.06861566,0.023763875,0.015350053,0.057022363,-0.08774353,0.0053653214,0.0,0.0,0.0,-0.00564974,0.13489766,-0.06704517,-0.17030175,0.113005705,0.08301271,-0.1764421,0.14089711,-0.4967093,-0.24679677,-0.113302395,-0.5983228,-0.35052794,-0.060503233,0.044886854,-0.07056448,0.03460793,0.059404552,0.058928303,0.02509388,-0.011258474,-0.013700616,0.024627987,-0.050360575,-0.053485096,3.0,-0.14238492,-3.0,3.0,0.6463318,-3.0,3.0,-2.1213763,-3.0,-3.0,-3.0,-3.0,3.0,-0.78247064,-3.0,3.0,0.8564296,-3.0,3.0,-2.6356091,-3.0,-3.0,-2.8187454,-3.0
2025-06-06 11:40:37.269,-0.030401776,-0.061929524,-0.005802679,0.038525026,-0.14748125,0.032381758,0.0,0.0,0.0,-0.005856113,0.122144885,-0.052905597,-0.17688753,0.12878315,0.08038746,-0.18085074,0.13944793,-0.500714,-0.23330715,-0.116766125,-0.6172782,-0.3325993,0.011559652,0.016744182,-0.018074282,0.059493344,0.049907587,-0.0126127545,0.007616067,-0.09050535,0.076552674,0.06778612,0.0031402328,0.031534415,3.0,-0.78247064,-3.0,3.0,0.8564296,-3.0,3.0,-2.6356091,-3.0,-3.0,-2.8187454,-3.0,3.0,-0.36136213,-3.0,3.0,0.59913325,-3.0,3.0,-2.3806963,-3.0,-3.0,-2.714808,-3.0
2025-06-06 11:40:37.286,0.007179741,0.0230768,-0.020369165,0.042956628,-0.14820538,-0.019047312,0.0,0.0,0.0,-0.006052548,0.1366906,-0.063534245,-0.17758115,0.11599265,0.06836763,-0.17933379,0.14811812,-0.5188286,-0.23756932,-0.11610203,-0.62191284,-0.35032716,-0.03347935,-0.011871974,0.07274264,0.047686394,0.0052421656,0.064870805,-0.060831215,0.06644963,-0.031991486,-0.030106185,-0.054019663,-0.05583283,3.0,-0.36136213,-3.0,3.0,0.59913325,-3.0,3.0,-2.3806963,-3.0,-3.0,-2.714808,-3.0,3.0,-0.3943542,-3.0,3.0,0.52825046,-3.0,3.0,-2.2741516,-3.0,-3.0,-2.9120743,-3.0
2025-06-06 11:40:37.306,0.05574349,-0.045522563,-0.010941016,0.10271865,-0.077338,-0.013341848,0.0,0.0,0.0,-0.0061891424,0.13498496,-0.06142901,-0.17638849,0.124435164,0.07010059,-0.1759701,0.13902879,-0.50715876,-0.23990282,-0.13255754,-0.6238795,-0.34832138,0.06920685,-0.06887875,0.038765308,0.0646487,-0.073380895,-0.036142725,0.028386917,-0.015867695,0.047361173,-0.015379765,-0.059960425,-0.014771702,3.0,-0.3943542,-3.0,3.0,0.52825046,-3.0,3.0,-2.2741516,-3.0,-3.0,-2.9120743,-3.0,3.0,-0.35188794,-3.0,3.0,0.7907356,-3.0,3.0,-2.1959927,-3.0,-3.0,-2.9009163,-3.0
2025-06-06 11:40:37.326,-0.009123843,-0.008337566,-0.009036832,0.11186896,-0.06738244,0.0007491494,0.0,0.0,0.0,-0.006586655,0.13727106,-0.054019284,-0.16879119,0.12846069,0.07501306,-0.1769306,0.14851506,-0.50511277,-0.25060868,-0.12230121,-0.6201349,-0.3360464,0.027668614,-0.0027189339,-0.021109534,-0.041744683,0.047460165,-0.046881728,0.022027032,0.077290736,-0.07634028,-0.057663314,0.029200375,-0.03397813,3.0,-0.35188794,-3.0,3.0,0.7907356,-3.0,3.0,-2.1959927,-3.0,-3.0,-2.9009163,-3.0,3.0,-0.34319317,-3.0,3.0,0.83754015,-3.0,3.0,-2.2312171,-3.0,-3.0,-2.89919,-3.0
2025-06-06 11:40:37.346,0.056955665,-0.008723181,0.019839285,0.07627859,-0.08570726,0.014710877,0.0,0.0,0.0,-0.007135549,0.13448659,-0.057109296,-0.17799471,0.13144466,0.07310179,-0.17832552,0.13586327,-0.496681,-0.24961913,-0.13745509,-0.6086954,-0.33710334,0.058020413,0.059011288,0.035951152,-0.04233636,0.007877021,0.016852394,0.042468604,0.048737377,0.05742123,-0.0643642,0.031138314,-0.046299465,3.0,-0.34319317,-3.0,3.0,0.83754015,-3.0,3.0,-2.2312171,-3.0,-3.0,-2.89919,-3.0,3.0,-0.46332636,-3.0,3.0,0.856812,-3.0,3.0,-2.451164,-3.0,-3.0,-2.8283324,-3.0
2025-06-06 11:40:37.370,-0.0045126537,0.038271546,-0.03183728,0.13312355,-0.059504893,-0.03412385,0.0,0.0,0.0,-0.0076530264,0.14303806,-0.055870995,-0.16968541,0.12786463,0.060955048,-0.18858232,0.12595502,-0.5111501,-0.2382437,-0.14033563,-0.61761487,-0.3446135,-0.050802004,0.05001642,-0.049399853,-0.032017455,0.052309588,-0.01263862,0.0085262805,-0.010171862,0.009112027,0.026424583,-0.038756724,-0.06709207,3.0,-0.46332636,-3.0,3.0,0.856812,-3.0,3.0,-2.451164,-3.0,-3.0,-2.8283324,-3.0,3.0,-0.0957883,-3.0,3.0,0.62139416,-3.0,3.0,-2.1471708,-3.0,-3.0,-2.9169064,-3.0
2025-06-06 11:40:37.386,0.0393135,0.051967744,-0.018235017,0.05110523,-0.12371086,-0.018676188,0.0,0.0,0.0,-0.007879901,0.13478129,-0.053242594,-0.17019126,0.1297211,0.060520697,-0.18567975,0.1392018,-0.49999982,-0.24513371,-0.13396718,-0.6179046,-0.34764284,-0.016619487,-0.061955925,0.06519534,-0.058528133,0.06927286,-0.020861575,0.024054376,-0.034999244,0.009392522,-0.048855443,-0.04815745,0.027453756,3.0,-0.0957883,-3.0,3.0,0.62139416,-3.0,3.0,-2.1471708,-3.0,-3.0,-2.9169064,-3.0,3.0,-0.32009375,-3.0,3.0,0.6908543,-3.0,3.0,-2.2179368,-3.0,-3.0,-2.8675022,-3.0
2025-06-06 11:40:37.406,0.06801767,0.010580537,0.04044153,0.13977194,-0.08427019,0.016483363,0.0,0.0,0.0,-0.008166542,0.14325997,-0.058819693,-0.16797481,0.12822463,0.078052565,-0.17374846,0.13400318,-0.49088052,-0.23880278,-0.12651227,-0.6089348,-0.34158313,-0.028885208,0.017937468,-0.06356023,0.0008589508,0.017203288,0.07502559,-0.0067627896,0.07299439,0.06039654,0.06496537,-0.06528959,-0.04844782,3.0,-0.32009375,-3.0,3.0,0.6908543,-3.0,3.0,-2.2179368,-3.0,-3.0,-2.8675022,-3.0,3.0,-0.65661013,-3.0,3.0,0.7865752,-3.0,3.0,-2.6377046,-3.0,-3.0,-2.669252,-3.0
2025-06-06 11:40:37.426,-0.02604334,0.009827904,0.029188616,0.09884325,-0.081231914,-0.016953517,0.0,0.0,0.0,-0.008490638,0.12909198,-0.05677473,-0.18371353,0.12621978,0.07272042,-0.17972684,0.13079524,-0.49534184,-0.25636113,-0.13091822,-0.62021154,-0.35115662,-0.05890602,-0.025905441,-0.066497155,0.04350983,0.057213318,0.052476432,-0.030488156,-0.028672932,-0.030092126,0.02474076,0.034942172,-0.061952893,3.0,-0.65661013,-3.0,3.0,0.7865752,-3.0,3.0,-2.6377046,-3.0,-3.0,-2.669252,-3.0,3.0,-0.63973874,-3.0,3.0,0.6586783,-2.961937,3.0,-2.5161328,-2.7467475,-3.0,-2.7239614,-3.0
2025-06-06 11:40:37.447,-0.03347326,-0.026249193,-0.07363819,0.04667233,-0.07317074,0.045173667,0.0,0.0,0.0,-0.008282581,0.13624765,-0.062132135,-0.16280255,0.11715963,0.07566146,-0.18731207,0.13571458,-0.51643276,-0.2394314,-0.1422501,-0.6240438,-0.34246358,0.02406561,0.04796703,0.044582203,0.028767623,0.07320768,-0.03087911,0.031015366,-0.0333321,0.025085907,0.04384936,0.042933606,-0.038001455,3.0,-0.63973874,-3.0,3.0,0.6586783,-2.961937,3.0,-2.5161328,-2.7467475,-3.0,-2.7239614,-3.0,3.0,0.051058322,-3.0,3.0,0.3346629,-3.0,3.0,-2.0132537,-3.0,-3.0,-3.0,-3.0
2025-06-06 11:40:37.469,0.015197469,-0.027776659,-0.00062384934,0.040131602,-0.07463761,0.04033016,0.0,0.0,0.0,-0.0076603126,0.13543008,-0.06150722,-0.1825976,0.1243111,0.059292585,-0.17495154,0.13707262,-0.5014792,-0.23791479,-0.122075126,-0.62632155,-0.3345246,0.06360275,-0.056413226,-0.0441125,0.07256079,-0.011304186,-0.008626302,-0.03819556,0.012975604,-0.004505832,0.04478097,-0.004467298,0.01937204,3.0,0.051058322,-3.0,3.0,0.3346629,-3.0,3.0,-2.0132537,-3.0,-3.0,-3.0,-3.0,3.0,-0.63306504,-3.0,3.0,0.80150163,-3.0,3.0,-2.4898317,-3.0,-3.0,-2.9150565,-3.0
