openverse-orca/OrcaGym/log/simulation_log_20250606_085512.csv
timestamp,imu_angle_roll,imu_angle_pitch,imu_angle_yaw,imu_angular_velocity_roll,imu_angular_velocity_pitch,imu_angular_velocity_yaw,imu_acc_x,imu_acc_y,imu_acc_z,fl_joint1_pos,fl_joint1_vel,fl_joint1_torque,fl_joint2_pos,fl_joint2_vel,fl_joint2_torque,fl_joint3_pos,fl_joint3_vel,fl_joint3_torque,fr_joint1_pos,fr_joint1_vel,fr_joint1_torque,fr_joint2_pos,fr_joint2_vel,fr_joint2_torque,fr_joint3_pos,fr_joint3_vel,fr_joint3_torque,hl_joint1_pos,hl_joint1_vel,hl_joint1_torque,hl_joint2_pos,hl_joint2_vel,hl_joint2_torque,hl_joint3_pos,hl_joint3_vel,hl_joint3_torque,hr_joint1_pos,hr_joint1_vel,hr_joint1_torque,hr_joint2_pos,hr_joint2_vel,hr_joint2_torque,hr_joint3_pos,hr_joint3_vel,hr_joint3_torque,fl_force_x,fl_force_y,fl_force_z,fr_force_x,fr_force_y,fr_force_z,hl_force_x,hl_force_y,hl_force_z,hr_force_x,hr_force_y,hr_force_z,fl_hip_action,fl_thigh_action,fl_calf_action,fr_hip_action,fr_thigh_action,fr_calf_action,hl_hip_action,hl_thigh_action,hl_calf_action,hr_hip_action,hr_thigh_action,hr_calf_action
2025-06-06 08:55:12.439,0.014320045,0.033408225,0.034468465,-0.013188287,0.026837293,-1.1625238e-05,2.9663806,-0.95270044,0.0,0.0,0.0006332008,0.006007981,0.001595155,-0.008545685,0.0009616192,0.0076606926,0.0006814888,-0.0015962365,0.0008609431,0.005719413,0.0059067006,0.0019822158,0.01678101,-0.07456206,0.004363488,-0.041417357,0.06218064,0.0037715703,-0.072466545,-0.030010553,0.039777186,0.073640876,-0.043812975,-0.009215916,0.0,0.0,0.0,0.0,0.0,0.0,0.0,0.0,0.0,0.0,0.0,0.0,-0.8608151,-0.13993517,-0.28806514,-0.03753835,-0.51173395,0.16174549,1.1660687,-0.5784365,-1.8867109,-1.2138577,-0.3915855,-1.1779189
2025-06-06 08:55:12.444,0.016801381,0.039485157,0.023203403,0.008419106,-0.04361762,0.016517252,0.0,0.0,0.0,0.0,-0.019276245,-0.0050114943,-0.013859725,-0.011369272,-0.040438753,0.00035392903,0.021852102,-0.028714936,-0.08187722,-0.009254851,-0.015661541,-0.035790067,0.037397396,-0.09280245,-0.0971016,-0.054530777,-0.09240957,-0.024048274,0.009388094,-0.13632609,-0.21568055,0.004196263,-0.04799644,-0.09683899,-0.8608151,-0.13993517,-0.28806514,-0.03753835,-0.51173395,0.16174549,1.1660687,-0.5784365,-1.8867109,-1.2138577,-0.3915855,-1.1779189,0.16022971,0.7833896,-1.2090374,0.16009955,0.26825976,0.032844804,0.3612192,-0.85233575,-0.5045175,-0.60324854,-0.28424492,-1.1275092
2025-06-06 08:55:12.464,-0.00019428322,-0.051054668,0.02425148,-0.0012393971,0.04794233,-0.04010371,0.0,0.0,0.0,9.722892e-05,-0.02096296,0.043821033,-0.060050033,-0.0056211273,-0.02293546,0.0038072623,0.01886943,-0.081277475,-0.089693315,-0.016346974,-0.03954281,-0.08319231,-0.028542621,0.226141,-0.12691268,0.047576588,0.062151697,-0.040959604,-0.06245363,-0.14654294,0.13158888,-0.07717275,-0.020532439,0.014578779,0.16022971,0.7833896,-1.2090374,0.16009955,0.26825976,0.032844804,0.3612192,-0.85233575,-0.5045175,-0.60324854,-0.28424492,-1.1275092,0.10827188,0.40364945,-1.5032032,0.25833791,-0.14610168,0.1833539,-0.32066938,-0.43557215,-0.11263738,-0.5542911,-0.2408385,-1.5019895
2025-06-06 08:55:12.485,-0.030814039,-0.13331234,-0.062379956,-0.004860504,-0.040860698,-0.014105994,0.0,0.0,0.0,0.00035836842,-0.028534293,0.040776484,-0.07660342,0.009910723,-0.017917348,0.019860806,0.03169687,-0.123442255,-0.04046067,-0.020499256,-0.054702364,-0.052481987,0.021101268,-0.0162809,-0.0154910665,0.023104621,0.052029505,0.085366786,-0.009088916,-0.03474645,0.14123087,0.006268055,0.003627791,0.018703517,0.10827188,0.40364945,-1.5032032,0.25833791,-0.14610168,0.1833539,-0.32066938,-0.43557215,-0.11263738,-0.5542911,-0.2408385,-1.5019895,0.24280204,0.8282694,-1.4394228,0.937632,0.040924195,0.043067567,-0.58419824,-0.4857156,-0.3162314,-0.79888654,-0.4468019,-1.7684993
2025-06-06 08:55:12.505,-0.06500063,-0.15531437,-0.057979688,-0.04073767,0.013721103,-0.025695657,0.0,0.0,0.0,0.0009151954,-0.014643032,0.051222783,-0.042734083,0.010386922,-0.011208677,0.015940193,0.037782334,-0.118111394,-0.035537418,-0.028310578,-0.069302596,-0.03622002,-0.0125627685,-0.002981497,0.076783836,-0.034075666,0.03205094,0.10319704,-0.04908191,-0.027906785,-0.017379573,0.03515507,0.004158346,0.033717994,0.24280204,0.8282694,-1.4394228,0.937632,0.040924195,0.043067567,-0.58419824,-0.4857156,-0.3162314,-0.79888654,-0.4468019,-1.7684993,0.43918657,0.8893975,-1.3518288,0.8986406,-0.017037984,-0.260636,-0.6832552,-0.584717,-0.52807206,-0.7458621,-0.39391485,-1.7417828
2025-06-06 08:55:12.525,-0.100850366,-0.10947198,0.06920627,0.029484257,-0.014213058,-0.014514102,0.0,0.0,0.0,0.0013032265,-0.011097213,0.030125376,-0.01223379,0.013494327,-0.00909808,0.03498594,0.014366564,-0.13160102,-0.025490772,-0.01253982,-0.07906961,-0.0191821,0.039534587,-0.049858723,0.08856926,-0.04491544,-0.030251231,-0.019215941,0.03261552,-0.029356739,-0.008497169,-0.041904803,0.061129745,0.025356041,0.43918657,0.8893975,-1.3518288,0.8986406,-0.017037984,-0.260636,-0.6832552,-0.584717,-0.52807206,-0.7458621,-0.39391485,-1.7417828,0.10757034,0.6882684,-2.047002,0.22267054,-0.17780311,0.38787603,-0.47935966,-0.6102395,-0.38035682,-0.34886825,0.29185143,-1.8475807
2025-06-06 08:55:12.545,-0.014134868,-0.16201782,-0.022692682,-0.032304812,-0.010321791,-0.011032927,0.0,0.0,0.0,0.0010133026,-0.013187769,0.038648088,-0.013707365,0.0067596976,-0.007853143,0.06365912,0.027746001,-0.14048679,-0.04052153,-0.013735995,-0.05212669,-0.015484738,0.032921914,-0.043618925,0.05617154,0.04135434,-0.059437968,0.090716116,-0.02426967,-0.024478933,-0.04122517,-0.062303077,0.032346543,0.034953196,0.10757034,0.6882684,-2.047002,0.22267054,-0.17780311,0.38787603,-0.47935966,-0.6102395,-0.38035682,-0.34886825,0.29185143,-1.8475807,0.17064928,0.65955794,-1.81113,0.7756868,-0.08616015,0.015782587,-0.70733654,-0.43543226,-0.4791747,-0.47729683,-0.28366423,-1.9511064
2025-06-06 08:55:12.567,-0.10934808,-0.00647822,-0.08348364,-0.05416488,-0.03736211,0.03623292,0.0,0.0,0.0,0.0017502623,-0.021683969,0.06684559,-0.024147274,0.013992737,-0.011995944,0.06761358,0.01631057,-0.1354517,-0.064844474,-0.012108007,-0.029947715,-0.033437625,-0.05553077,-0.013605916,-0.024994925,-0.04148072,0.0795849,-0.016312346,-0.010388246,-0.07840463,-0.11625501,0.025854642,-0.028593944,-0.085177176,0.17064928,0.65955794,-1.81113,0.7756868,-0.08616015,0.015782587,-0.70733654,-0.43543226,-0.4791747,-0.47729683,-0.28366423,-1.9511064,0.27105543,0.9778358,-1.2836827,0.9059853,-0.026986577,-0.32055813,-0.7988471,-0.45607826,-0.5925877,-0.6967161,-0.36960334,-1.5566176
2025-06-06 08:55:12.585,-0.15244274,0.047012437,-0.03259747,-0.061369006,0.00047075222,-0.039155368,0.0,0.0,0.0,0.0028475572,-0.009612903,0.069168516,-0.04630353,0.016705407,0.00069793535,0.058194984,-0.017931491,-0.14521717,-0.08172369,-0.013608128,-0.031228537,-0.047451906,-0.045773543,0.0034271735,-0.07315304,-0.036624115,-0.03698843,0.03931572,-0.04300423,0.06424573,-0.0984388,-0.043770205,0.07089536,0.040180575,0.27105543,0.9778358,-1.2836827,0.9059853,-0.026986577,-0.32055813,-0.7988471,-0.45607826,-0.5925877,-0.6967161,-0.36960334,-1.5566176,0.6625797,0.8424678,-1.0449474,0.79937285,-0.112575,-0.43743986,-0.6932139,-0.5881118,-1.1116049,-0.74717516,-0.366913,-1.2519928
2025-06-06 08:55:12.605,-0.15158327,-0.00024884037,0.11686758,-0.09947688,-0.04301625,-0.04498239,0.0,0.0,0.0,0.0029333069,-0.00037286725,0.08571853,-0.08209289,0.019915778,-0.007191578,0.0442539,-0.018784976,-0.14912505,-0.10811439,-0.008573727,-0.049329557,-0.027128357,-0.010761166,0.06902838,-0.06715851,0.0005812199,-0.04802254,0.038581576,5.3866694e-05,-0.011100799,-0.027869374,-0.028162004,-0.0939828,0.020203253,0.6625797,0.8424678,-1.0449474,0.79937285,-0.112575,-0.43743986,-0.6932139,-0.5881118,-1.1116049,-0.74717516,-0.366913,-1.2519928,0.52798665,0.3642638,-1.7237228,0.1606084,-0.10428245,0.44448194,-0.16075262,-0.75936085,-0.7558789,-0.6178807,0.20989996,-1.4784929
2025-06-06 08:55:12.626,-0.08347712,-0.07610781,0.032110948,-0.081937656,-0.016571602,-0.023852874,0.0,0.0,0.0,0.001798697,-0.015537947,0.09747277,-0.08327824,0.025667453,-0.005377926,0.034633398,-0.0076776724,-0.16416942,-0.11262233,-0.009525427,-0.044121172,-0.037086863,0.06160474,-0.036158808,-0.046979524,-0.025613647,-0.0816449,0.07931946,-0.039207153,-0.043418866,-0.06136123,0.06576488,0.091998145,-0.0671262,0.52798665,0.3642638,-1.7237228,0.1606084,-0.10428245,0.44448194,-0.16075262,-0.75936085,-0.7558789,-0.6178807,0.20989996,-1.4784929,0.30431148,0.28260282,-1.9004664,0.49868482,-0.15087123,0.4121513,-0.25976518,-0.37155312,-0.112588696,-0.71324897,-0.038261287,-1.932984
2025-06-06 08:55:12.645,-0.050892804,-0.018025728,-0.08720464,-0.024543589,0.019045305,-0.016145773,0.0,0.0,0.0,0.0013880698,-0.005320375,0.11290423,-0.0872945,0.011437947,-0.015431472,0.044547673,-0.0075216,-0.1746791,-0.10885039,0.0017631502,-0.027680125,-0.036985677,-0.007820688,-0.0018328163,0.009899738,0.06352869,0.014958494,0.036260277,-0.04380952,0.06698092,0.048866674,0.03675955,-0.03179648,0.04530165,0.30431148,0.28260282,-1.9004664,0.49868482,-0.15087123,0.4121513,-0.25976518,-0.37155312,-0.112588696,-0.71324897,-0.038261287,-1.932984,0.5408099,0.86638194,-1.2203729,1.1737059,0.072827324,-0.29465437,-0.6605048,-0.41441634,-0.64951694,-1.0228698,-0.54139626,-1.7470402
2025-06-06 08:55:12.668,-0.03674856,0.0038984835,0.034461666,-0.027893128,0.022399144,-0.020108454,0.0,0.0,0.0,0.0019667037,-0.019736154,0.113918334,-0.09083501,0.02684853,-0.0027332578,0.027578276,-0.005063384,-0.15940332,-0.106850974,-0.0012769004,-0.01803181,-0.056055393,-0.053879287,-0.048794925,-0.057266116,-0.02437628,0.03443922,-0.06971324,-0.055736545,0.03805575,-0.011780823,-0.04611545,-0.06969614,0.055440992,0.5408099,0.86638194,-1.2203729,1.1737059,0.072827324,-0.29465437,-0.6605048,-0.41441634,-0.64951694,-1.0228698,-0.54139626,-1.7470402,0.39086762,0.74978393,-1.4812124,0.49373633,-0.08933032,-0.02704852,-0.43205294,-0.66724664,-0.66374284,-0.6949184,0.07742671,-1.4718826
2025-06-06 08:55:12.685,-0.016147545,-0.0842975,-0.024895303,-0.10404298,-0.03999476,0.043144554,0.0,0.0,0.0,0.0019400644,-0.015227352,0.127817,-0.10139923,0.03282815,-0.01211799,0.03281167,-0.019852847,-0.14608225,-0.09757529,-0.010201575,-0.03015494,-0.043021657,0.049851384,0.080594555,0.053340826,-0.04651588,0.028421408,-0.010353145,0.06773936,-0.072073765,0.052717716,-0.06190499,0.08484941,0.012278562,0.39086762,0.74978393,-1.4812124,0.49373633,-0.08933032,-0.02704852,-0.43205294,-0.66724664,-0.66374284,-0.6949184,0.07742671,-1.4718826,0.5609569,0.47374287,-1.527358,0.58911425,-0.17466186,-0.11886526,-0.49862614,-0.50086427,-0.9020698,-0.8177878,-0.31352746,-1.4582051
2025-06-06 08:55:12.705,-0.08645839,0.037008975,0.06426283,-0.118460916,-0.06033323,0.017991168,0.0,0.0,0.0,0.0017314352,-0.028508503,0.1336922,-0.11368132,0.031275988,-0.013565613,0.02513234,-0.00618698,-0.15936133,-0.11127716,-0.02241125,-0.031512268,-0.044878043,-0.06739321,-0.05520481,-0.007143807,-0.014526607,0.033433627,0.014572259,-0.07911679,0.026539525,-0.071467124,0.0012885092,-0.024481384,-0.03250857,0.5609569,0.47374287,-1.527358,0.58911425,-0.17466186,-0.11886526,-0.49862614,-0.50086427,-0.9020698,-0.8177878,-0.31352746,-1.4582051,0.31110722,0.4683268,-1.6762303,0.5370676,-0.10957991,0.34720638,-0.1960861,-0.5952617,-0.56038445,-0.7963188,0.12287407,-1.559919
2025-06-06 08:55:12.728,-0.024252482,-0.06668624,0.008680873,-0.06349397,-0.012610484,-0.024327232,0.0,0.0,0.0,0.0013465143,-0.018840676,0.12689176,-0.11097455,0.025489677,-0.01735863,0.044345807,-0.008155598,-0.16411123,-0.11693561,-0.016146332,-0.031545114,-0.039904524,0.055292763,-0.039490886,0.03944409,-0.028455025,0.018105088,-0.029703498,-0.0026414911,-0.008957228,-0.057365064,0.019154398,-0.029032536,0.055766094,0.31110722,0.4683268,-1.6762303,0.5370676,-0.10957991,0.34720638,-0.1960861,-0.5952617,-0.56038445,-0.7963188,0.12287407,-1.559919,0.21871637,0.48157796,-1.6491575,0.72073454,-0.09874417,0.11109767,-0.39328614,-0.37801823,-0.4540137,-0.7650125,-0.1392825,-1.6421365
2025-06-06 08:55:12.746,-0.049837112,-0.002349481,-0.03843576,-0.07967988,-0.05819282,-0.030064087,0.0,0.0,0.0,0.0015556279,-0.018020585,0.12474002,-0.100191094,0.009855444,-0.013873777,0.05541244,0.0029672296,-0.16110353,-0.11702475,-0.031776983,-0.021670312,-0.031440757,0.06097255,0.0059981346,-0.0011784309,-0.055630002,-0.061541934,0.00606933,0.05633127,0.029417813,-0.004752276,0.052938875,-0.06909383,0.05581723,0.21871637,0.48157796,-1.6491575,0.72073454,-0.09874417,0.11109767,-0.39328614,-0.37801823,-0.4540137,-0.7650125,-0.1392825,-1.6421365,0.45683247,0.7656314,-1.2540431,0.9967095,-0.07296039,-0.25095206,-0.49920794,-0.47231245,-0.84991723,-0.9870565,-0.36268157,-1.5042229
2025-06-06 08:55:12.769,-0.01524854,-0.02251599,-0.011415509,-0.042760782,0.011203063,0.031252977,0.0,0.0,0.0,0.002059176,-0.031243626,0.1270627,-0.112863526,0.015271993,-0.030234037,0.067643605,-0.015684672,-0.13686663,-0.11973809,-0.028894143,-0.025676979,-0.017256703,0.017211277,0.025237784,0.029796254,-0.018180177,0.038233545,0.04981143,0.051067572,-0.030322941,-0.039943174,-0.07714113,-0.0021579925,-0.050920457,0.45683247,0.7656314,-1.2540431,0.9967095,-0.07296039,-0.25095206,-0.49920794,-0.47231245,-0.84991723,-0.9870565,-0.36268157,-1.5042229,0.62488645,0.6392459,-1.5150164,0.7479823,-0.08197436,-0.08046484,-0.3972213,-0.66242945,-0.86145604,-0.9555097,-0.18054432,-1.4614164
2025-06-06 08:55:12.786,-0.0048135617,0.07512833,0.08166343,-0.036813747,-0.04230288,-0.03573693,0.0,0.0,0.0,0.0017878629,-0.0372455,0.14001895,-0.107692465,0.01928962,-0.032785144,0.07191673,-0.0018798948,-0.14284684,-0.12908536,-0.037041984,-0.029875048,-0.011388544,-0.02449034,-0.05937928,0.038326655,-0.05954071,0.028143035,-0.029759124,0.00020494756,-0.005223024,-0.018639974,0.011297217,0.048991002,0.058971286,0.62488645,0.6392459,-1.5150164,0.7479823,-0.08197436,-0.08046484,-0.3972213,-0.66242945,-0.86145604,-0.9555097,-0.18054432,-1.4614164,0.23802662,0.3294062,-1.9780638,0.3301139,-0.18631132,0.43739456,-0.13827236,-0.5730095,-0.5527671,-0.7062505,0.26545265,-1.8139087
2025-06-06 08:55:12.805,0.07607958,-0.043113194,-0.038130883,-0.04374739,0.010991987,0.006186243,0.0,0.0,0.0,0.0011152339,-0.023459597,0.14007488,-0.103050016,0.008112522,-0.031903032,0.07322944,0.009538602,-0.15131098,-0.1259566,-0.036099125,-0.03257985,-0.017767347,0.016112128,-0.04825192,0.076806426,0.048138652,0.051953185,-0.030290002,0.05082776,-0.05204439,0.036004514,0.0019209911,-0.011225561,-0.081775874,0.23802662,0.3294062,-1.9780638,0.3301139,-0.18631132,0.43739456,-0.13827236,-0.5730095,-0.5527671,-0.7062505,0.26545265,-1.8139087,0.12766391,0.5760477,-1.8116214,0.8803461,-0.08134009,0.077072926,-0.42724922,-0.37123308,-0.4505914,-0.86714697,-0.24426973,-1.7556853
2025-06-06 08:55:12.826,0.0034887828,-0.011104627,0.00815624,-0.03626913,-0.029795645,-0.005596031,0.0,0.0,0.0,0.0015928578,-0.042543087,0.12612401,-0.11159168,8.053099e-05,-0.033936262,0.079287864,0.008752766,-0.14404652,-0.12103252,-0.038253263,-0.024855334,-0.032145545,-0.041557353,0.057322722,-0.043893956,0.040410247,0.05198224,0.016476559,-0.061334003,-0.0032448142,0.035503197,0.0504111,0.02502271,0.02869281,0.12766391,0.5760477,-1.8116214,0.8803461,-0.08134009,0.077072926,-0.42724922,-0.37123308,-0.4505914,-0.86714697,-0.24426973,-1.7556853,-0.0012901481,0.68713623,-1.76365,0.9123343,-0.08773266,0.025515467,-0.41585746,-0.6232595,-0.49454316,-0.7268333,-0.0900796,-1.825522
2025-06-06 08:55:12.846,-0.0071433764,-0.05820401,-0.0715415,-0.034544915,-0.04828379,0.0070671127,0.0,0.0,0.0,0.0023538359,-0.035417218,0.14360103,-0.11626067,0.01654437,-0.022153234,0.0709368,0.010105813,-0.15350921,-0.096347794,-0.018566879,-0.019460209,-0.0389298,0.05407231,-0.040997975,-0.018164229,0.013371954,0.064920686,0.050725427,-0.0046835244,-0.034161177,0.0418458,0.026878422,0.032048445,0.059628796,-0.0012901481,0.68713623,-1.76365,0.9123343,-0.08773266,0.025515467,-0.41585746,-0.6232595,-0.49454316,-0.7268333,-0.0900796,-1.825522,0.27860734,0.81592816,-1.4148567,0.9152045,-0.10474976,-0.31525066,-0.64449376,-0.5029723,-0.8447666,-0.82772315,-0.39617386,-1.5446664
2025-06-06 08:55:12.869,-0.05932922,0.082667865,0.008134886,-0.06932811,-0.015496104,-0.04170503,0.0,0.0,0.0,0.0030989123,-0.027039131,0.13898274,-0.12385434,0.011924317,-0.015435329,0.060286198,-0.011998391,-0.15915519,-0.11492214,-0.024909014,-0.018628359,-0.03647715,0.013954233,-0.06133237,0.035785142,-0.021650808,-0.017986158,-0.006197524,-0.021828838,0.048197683,0.0007141387,0.03420241,-0.09529421,-0.0040684203,0.27860734,0.81592816,-1.4148567,0.9152045,-0.10474976,-0.31525066,-0.64449376,-0.5029723,-0.8447666,-0.82772315,-0.39617386,-1.5446664,0.39405197,0.7028894,-1.3485322,0.6332592,-0.15052111,-0.0715738,-0.35129845,-0.669252,-1.161608,-0.84068435,-0.089508146,-1.2193812
2025-06-06 08:55:12.886,0.023249468,0.028209785,0.05281357,-0.04867726,0.033876736,0.012546631,0.0,0.0,0.0,0.003044256,-0.03383902,0.12580563,-0.13540883,0.012289171,-0.018226415,0.053961158,-0.0032982216,-0.15104428,-0.14594005,-0.021373635,-0.03856724,-0.02532978,0.0046173134,0.046975408,0.025538346,-0.059392236,-0.052560523,-0.05593632,-0.052831076,0.04884449,-0.09941321,-0.0734804,-0.03306465,-0.039525963,0.39405197,0.7028894,-1.3485322,0.6332592,-0.15052111,-0.0715738,-0.35129845,-0.669252,-1.161608,-0.84068435,-0.089508146,-1.2193812,0.49286872,0.29898924,-1.4952972,0.45392805,-0.08069095,0.11359572,-0.24496603,-0.6040984,-0.8344015,-0.76682246,-0.06978346,-1.3355439
2025-06-06 08:55:12.906,-0.029474141,0.025293287,0.011425612,-0.0697802,0.017484952,-0.032470427,0.0,0.0,0.0,0.0025494692,-0.03429514,0.121820875,-0.124547295,0.023773296,-0.03231932,0.048291888,-0.0061721513,-0.17452559,-0.14612792,-0.020163985,-0.049204927,-0.035039905,0.0022521045,-0.01581177,-0.011979924,-0.04618028,-0.04195867,0.07231004,-0.05910843,-0.033186093,-0.03282795,-0.060852893,-0.019921811,0.0016510303,0.49286872,0.29898924,-1.4952972,0.45392805,-0.08069095,0.11359572,-0.24496603,-0.6040984,-0.8344015,-0.76682246,-0.06978346,-1.3355439,0.60432154,0.440343,-1.566145,0.6909787,-0.068486,0.16427809,-0.3010341,-0.46665356,-0.41350722,-1.027817,-0.23709133,-1.5976906
2025-06-06 08:55:12.926,0.045745872,0.007167259,0.044611387,-0.10415902,-0.021724984,-0.048601486,0.0,0.0,0.0,0.0023814354,-0.04121028,0.13167067,-0.11150506,0.022760147,-0.030088544,0.056514136,0.0054313326,-0.17645308,-0.1274368,-0.036370117,-0.049959373,-0.01700411,0.053057153,0.02351865,0.0027192729,-0.011276356,-0.06322268,0.014753662,-0.012115756,0.014579773,0.016520487,0.01940818,-0.050225623,0.05487331,0.60432154,0.440343,-1.566145,0.6909787,-0.068486,0.16427809,-0.3010341,-0.46665356,-0.41350722,-1.027817,-0.23709133,-1.5976906,0.4218198,0.49164382,-1.7906995,0.8092049,-0.08627343,0.24336997,-0.25701433,-0.5535129,-0.37873834,-0.9386679,-0.04647561,-1.8853177
2025-06-06 08:55:12.946,-0.0010961095,-0.064495325,-0.032102644,-0.10754689,-0.053005822,-0.049384423,0.0,0.0,0.0,0.002310125,-0.03928392,0.12593621,-0.11431756,0.00919503,-0.037823774,0.06641799,-0.004858431,-0.15921637,-0.12278473,-0.035868097,-0.039148018,-0.023578579,-0.052653767,-0.036062937,0.058804367,-0.005209549,-0.03998711,-0.03875806,-0.061508764,-0.05944999,-0.0202514,0.0055184686,0.025311055,-0.08020255,0.4218198,0.49164382,-1.7906995,0.8092049,-0.08627343,0.24336997,-0.25701433,-0.5535129,-0.37873834,-0.9386679,-0.04647561,-1.8853177,0.4564494,0.6266653,-1.5728762,1.0054958,-0.018289402,-0.13099927,-0.5836147,-0.44980714,-0.49276975,-0.9451869,-0.3724185,-1.7236077
2025-06-06 08:55:12.969,-0.04638771,-0.018438304,0.00041403473,-0.12680364,-0.061824404,-0.044321015,0.0,0.0,0.0,0.0025859342,-0.026534395,0.12679051,-0.11009329,0.020677764,-0.04221376,0.07204688,-0.0067833397,-0.15549596,-0.100631185,-0.01921429,-0.040825725,-0.025516924,-0.03873529,-0.023183867,0.0061451946,0.035328794,0.044671826,-0.046900637,0.049951576,0.005190537,0.082430676,0.040105246,0.02963848,0.066688366,0.4564494,0.6266653,-1.5728762,1.0054958,-0.018289402,-0.13099927,-0.5836147,-0.44980714,-0.49276975,-0.9451869,-0.3724185,-1.7236077,0.28222626,0.7146364,-1.5866052,0.8018237,-0.11802879,-0.023079298,-0.36812702,-0.6253173,-0.6940179,-0.93465346,-0.12799919,-1.6463631
2025-06-06 08:55:12.986,0.052163888,-6.527644e-05,0.04619766,-0.065830976,-0.013646811,0.024475867,0.0,0.0,0.0,0.002530505,-0.039074857,0.12055053,-0.1129011,0.0116098,-0.04497798,0.052025497,0.006512788,-0.14733724,-0.10248607,-0.032221094,-0.049267046,-0.029197348,0.011939988,-0.01078045,0.06488658,0.03400238,-0.043911416,0.025900556,0.04248953,0.003614542,0.03979633,0.065188766,0.019988362,-0.0585087,0.28222626,0.7146364,-1.5866052,0.8018237,-0.11802879,-0.023079298,-0.36812702,-0.6253173,-0.6940179,-0.93465346,-0.12799919,-1.6463631,0.116349936,0.42705998,-2.0480194,0.5598696,-0.1933837,0.32270592,-0.2746457,-0.63515246,-0.5323613,-0.66439456,0.087409295,-1.7738256
2025-06-06 08:55:13.006,0.0055377656,-0.0060762065,-0.061270304,-0.06447532,0.016356245,-0.00703645,0.0,0.0,0.0,0.002300929,-0.04045207,0.126758,-0.1169139,0.016092643,-0.03691381,0.061953314,0.0003468325,-0.16302991,-0.09805156,-0.029807724,-0.026835691,-0.040001392,0.007594358,0.04407497,0.029770989,-0.0525402,0.056363422,0.011627999,0.082172036,-0.040735267,0.079406664,-0.016352676,0.07395178,-0.0910294,0.116349936,0.42705998,-2.0480194,0.5598696,-0.1933837,0.32270592,-0.2746457,-0.63515246,-0.5323613,-0.66439456,0.087409295,-1.7738256,0.17098263,0.62516916,-1.7523273,1.0231929,-0.06858684,-0.019213997,-0.5499037,-0.44923294,-0.4710873,-0.8738313,-0.40432605,-1.7653025
2025-06-06 08:55:13.026,0.017713161,0.039051704,0.028444864,-0.11832073,-0.04649241,-0.036987927,0.0,0.0,0.0,0.00291292,-0.025394052,0.12299615,-0.12311496,0.010191115,-0.04276581,0.05144911,0.002506557,-0.16232105,-0.10205283,-0.020808594,-0.032751538,-0.051499292,-0.0540769,0.049408507,-0.08301696,0.057705875,0.052653648,0.021139855,0.037907716,0.007069681,0.08394973,0.0036772417,-0.07029177,-0.032490786,0.17098263,0.62516916,-1.7523273,1.0231929,-0.06858684,-0.019213997,-0.5499037,-0.44923294,-0.4710873,-0.8738313,-0.40432605,-1.7653025,0.0022775177,0.6976345,-1.7625573,0.91994315,-0.0788541,0.0864499,-0.4175113,-0.64285696,-0.41704136,-0.7655628,-0.06656238,-1.7746617
2025-06-06 08:55:13.046,0.04557226,-0.015322754,-0.047732987,-0.13256986,-0.0055512134,-0.012268256,0.0,0.0,0.0,0.0034670858,-0.04345087,0.115143575,-0.13354021,0.01940481,-0.030930094,0.045584433,-0.005726472,-0.15372542,-0.09120548,-0.030915806,-0.042747077,-0.056148157,-0.060668983,0.05012459,-0.0867624,0.06551535,0.015466361,0.06007798,-0.07394302,0.047561552,0.0117681185,-0.056695595,0.075713255,-0.086705446,0.0022775177,0.6976345,-1.7625573,0.91994315,-0.0788541,0.0864499,-0.4175113,-0.64285696,-0.41704136,-0.7655628,-0.06656238,-1.7746617,0.4899835,0.6398116,-1.26824,1.1186643,0.001603947,-0.41634858,-0.80523884,-0.51179445,-0.6249912,-0.81623155,-0.6144272,-1.5817262
2025-06-06 08:55:13.069,-0.016164482,0.10822888,0.076684974,-0.07947126,0.005887077,0.02954877,0.0,0.0,0.0,0.0040563843,-0.02412958,0.11699507,-0.14178117,0.031190122,-0.042614155,0.0335088,-0.0037985821,-0.15774034,-0.09642865,-0.016448252,-0.048657104,-0.04394518,0.01804454,-0.03170056,0.027957894,0.055165436,-0.0031506326,0.040470477,0.017397244,-0.044123795,-0.044768915,-0.018224811,-0.10552482,0.019407451,0.4899835,0.6398116,-1.26824,1.1186643,0.001603947,-0.41634858,-0.80523884,-0.51179445,-0.6249912,-0.81623155,-0.6144272,-1.5817262,0.23606601,0.6961958,-1.7031554,0.32247096,-0.09243067,0.34144282,-0.33573323,-0.64865494,-0.45478767,-0.60985994,0.25207147,-1.487304
2025-06-06 08:55:13.087,-0.007676493,-0.058388162,0.00027479412,-0.08075426,-0.01622928,-0.032621205,0.0,0.0,0.0,0.003728385,-0.040689398,0.10734972,-0.12541191,0.015098212,-0.04696548,0.033446774,-0.01088175,-0.15532888,-0.09507773,-0.027880775,-0.050383,-0.055868074,-0.017359352,0.059429042,-0.029657312,-0.0012208846,0.046799064,0.058266636,0.0850061,0.018043654,0.0005147401,-0.04195493,0.07811144,-0.032273147,0.23606601,0.6961958,-1.7031554,0.32247096,-0.09243067,0.34144282,-0.33573323,-0.64865494,-0.45478767,-0.60985994,0.25207147,-1.487304,0.29049027,0.33162037,-1.7454677,0.745928,-0.09289285,0.05281859,-0.57100904,-0.45678023,-0.43688634,-0.6393856,-0.3579459,-1.8161156
2025-06-06 08:55:13.107,-0.037870333,-0.030300513,-0.010031453,-0.12274477,-0.013293662,-0.03724792,0.0,0.0,0.0,0.00383119,-0.031649444,0.110121414,-0.12412587,0.029022697,-0.04886179,0.03646327,-0.0065036207,-0.1533043,-0.087574795,-0.02746453,-0.03325679,-0.06532911,-0.0154723525,-0.047216907,-0.051621333,-0.032545537,-0.04158224,-0.00048364938,-0.010563308,0.03569832,0.029615257,0.061278004,-0.0735623,0.023238173,0.29049027,0.33162037,-1.7454677,0.745928,-0.09289285,0.05281859,-0.57100904,-0.45678023,-0.43688634,-0.6393856,-0.3579459,-1.8161156,0.26810125,0.8308358,-1.3046486,0.93880624,0.0027884906,-0.08558425,-0.5763731,-0.4791862,-0.49280784,-0.8549643,-0.30506882,-1.5071819
2025-06-06 08:55:13.127,-0.04493795,-0.022556247,0.016004574,-0.061941735,-0.062774524,0.04862288,0.0,0.0,0.0,0.004265382,-0.03802833,0.10008663,-0.13344929,0.016480006,-0.037794486,0.047714897,-0.008004706,-0.14935504,-0.08430146,-0.022808155,-0.034215324,-0.05802046,-0.0008424685,-0.06347746,-0.03824929,-0.030676007,-0.0795288,-0.05381397,0.065154634,0.041948512,-0.07119777,0.0514287,0.021953475,0.016953155,0.26810125,0.8308358,-1.3046486,0.93880624,0.0027884906,-0.08558425,-0.5763731,-0.4791862,-0.49280784,-0.8549643,-0.30506882,-1.5071819,0.24196786,0.66669726,-1.3805187,0.6183849,-0.09648119,-0.05948294,-0.47178802,-0.5718908,-0.6949271,-0.6610771,-0.11182351,-1.4470059
2025-06-06 08:55:13.147,0.05240999,-0.05576402,-0.027347477,-0.10640058,-0.0110516315,0.026468307,0.0,0.0,0.0,0.0041743033,-0.03075676,0.09933879,-0.12712795,0.02264632,-0.0378056,0.04596427,-0.022762805,-0.15101452,-0.104015484,-0.012006136,-0.037891123,-0.06452794,0.011374484,-0.06706602,-0.007246226,-0.018833172,0.03522778,0.036314137,0.06421762,0.07118005,0.043748863,-0.06794949,-0.030604538,-0.059410412,0.24196786,0.66669726,-1.3805187,0.6183849,-0.09648119,-0.05948294,-0.47178802,-0.5718908,-0.6949271,-0.6610771,-0.11182351,-1.4470059,0.55609846,0.6163809,-1.3243463,0.83932227,-0.059562963,-0.17850494,-0.5618384,-0.52842075,-0.742252,-0.89085114,-0.38874346,-1.3690492
2025-06-06 08:55:13.169,-0.023827415,0.008125409,0.08206387,-0.118589185,-0.066928774,0.03687239,0.0,0.0,0.0,0.0038759029,-0.03900006,0.09406763,-0.12542686,0.036808148,-0.052363295,0.042954776,-0.015786866,-0.15781817,-0.10932032,-0.024433995,-0.051054146,-0.04642277,-0.061819237,-0.027118262,0.031688295,0.02382891,0.025248682,0.054086536,-0.027449854,0.035255536,-0.05123332,0.007747957,-0.052135974,0.014415463,0.55609846,0.6163809,-1.3243463,0.83932227,-0.059562963,-0.17850494,-0.5618384,-0.52842075,-0.742252,-0.89085114,-0.38874346,-1.3690492,0.36538547,0.46190614,-1.8129244,0.51536185,-0.06554553,0.37609798,-0.24027234,-0.6289472,-0.3741488,-0.73832965,0.12394682,-1.7063094
2025-06-06 08:55:13.187,0.07797457,-0.07599822,-0.044347007,-0.095056266,-0.04405763,-0.019943407,0.0,0.0,0.0,0.0031080742,-0.027707478,0.101644665,-0.10800678,0.032802686,-0.05926577,0.05526664,-0.001878183,-0.15987855,-0.10344469,-0.02918229,-0.057480138,-0.05378405,-0.057322074,-0.05227106,-0.056631405,0.053404436,0.022513418,-0.011058282,-0.0048125973,0.04977045,0.030966926,0.053462133,0.09236962,-0.0683993,0.36538547,0.46190614,-1.8129244,0.51536185,-0.06554553,0.37609798,-0.24027234,-0.6289472,-0.3741488,-0.73832965,0.12394682,-1.7063094,0.50007296,0.54061323,-1.461444,1.0469906,0.01590209,-0.1511595,-0.6457219,-0.42517853,-0.39690816,-0.9173354,-0.52582014,-1.7517774
2025-06-06 08:55:13.207,-0.034464367,0.07108587,0.0031739643,-0.07394637,-0.04327597,0.02454298,0.0,0.0,0.0,0.0030556694,-0.028780054,0.08454365,-0.10982109,0.0352932,-0.04224806,0.050732456,-0.01906245,-0.16588494,-0.093372166,-0.016043328,-0.050238077,-0.050101418,-0.002239555,0.01232851,-0.06990143,0.0024215125,-0.020512031,-0.067535624,-0.034624364,-0.045391336,0.078419395,0.058272567,-0.042418115,0.0029392361,0.50007296,0.54061323,-1.461444,1.0469906,0.01590209,-0.1511595,-0.6457219,-0.42517853,-0.39690816,-0.9173354,-0.52582014,-1.7517774,0.3562426,0.78459316,-1.4947925,0.76392055,-0.026738256,-0.0038119033,-0.49776968,-0.6028972,-0.45491913,-0.8508115,-0.15830505,-1.5964552
2025-06-06 08:55:13.227,0.05674959,0.029776137,-0.008045484,-0.049663685,0.008223364,0.018736862,0.0,0.0,0.0,0.002773408,-0.021369543,0.085272565,-0.111985885,0.025659163,-0.05172818,0.056689348,-0.01744362,-0.15062557,-0.09518511,-0.014933793,-0.061122265,-0.05080445,-0.047785517,-0.03301957,0.009106342,0.0036163365,0.05739766,0.029700562,0.073797494,-0.010616511,-0.018451821,0.046769675,0.0657019,-0.005325805,0.3562426,0.78459316,-1.4947925,0.76392055,-0.026738256,-0.0038119033,-0.49776968,-0.6028972,-0.45491913,-0.8508115,-0.15830505,-1.5964552,0.29783168,0.5631749,-1.685174,0.6946724,-0.112091936,0.02807001,-0.5307469,-0.55160373,-0.4779109,-0.72913516,-0.18646178,-1.6907016
2025-06-06 08:55:13.247,0.040241133,0.04830308,0.04122611,-0.10628418,0.021305798,0.0091552995,0.0,0.0,0.0,0.0022493175,-0.023177229,0.105626166,-0.10655363,0.02463153,-0.05825199,0.05457108,-0.002853518,-0.14809792,-0.09413286,-0.015399533,-0.045387596,-0.051094428,-0.03880598,-0.06867008,0.045154385,-0.030103033,0.043899782,-0.039907128,0.063837156,0.0063936603,-0.030668331,0.023116907,0.032353625,0.06324381,0.29783168,0.5631749,-1.685174,0.6946724,-0.112091936,0.02807001,-0.5307469,-0.55160373,-0.4779109,-0.72913516,-0.18646178,-1.6907016,-0.06264763,0.5915962,-1.8823023,0.60018736,-0.14376329,0.27376288,-0.4006798,-0.4854115,-0.3720047,-0.6057621,0.10596926,-1.718947
2025-06-06 08:55:13.269,-0.010947506,-0.06734884,-0.029284762,-0.068173,-0.023437876,-0.04534982,0.0,0.0,0.0,0.0019341211,-0.038933013,0.09467623,-0.11369487,0.031847503,-0.04233488,0.050953142,-0.0075075403,-0.14514008,-0.087360695,-0.025924657,-0.03341746,-0.059308328,0.005597401,0.0038707703,-0.05329086,-0.052946117,-0.0045156395,0.066907816,-0.051903587,0.044310164,-0.007952767,0.06006673,-0.002590457,-0.05558005,-0.06264763,0.5915962,-1.8823023,0.60018736,-0.14376329,0.27376288,-0.4006798,-0.4854115,-0.3720047,-0.6057621,0.10596926,-1.718947,0.23753554,0.6369015,-1.4699886,1.037267,-0.025577556,-0.22832909,-0.69603026,-0.48803213,-0.5521825,-0.668975,-0.46899095,-1.6904033
2025-06-06 08:55:13.288,-0.06793269,0.019469403,0.030193513,-0.04626251,-0.045830417,0.021594627,0.0,0.0,0.0,0.0024107883,-0.02512211,0.09368699,-0.10627425,0.03496016,-0.05076681,0.057429567,-0.0031587405,-0.15902798,-0.09072407,-0.013999197,-0.04277973,-0.060107633,0.04106496,-0.01508211,-0.013245074,-0.046127405,-0.032234706,0.013611164,-0.021823328,0.035139382,-0.077392064,-0.04810304,-0.07048869,0.016661061,0.23753554,0.6369015,-1.4699886,1.037267,-0.025577556,-0.22832909,-0.69603026,-0.48803213,-0.5521825,-0.668975,-0.46899095,-1.6904033,0.2810619,0.8361721,-1.3906288,0.6325192,-0.046981357,-0.03598147,-0.5840594,-0.5905855,-0.5860549,-0.65322584,-0.11575144,-1.4307569
2025-06-06 08:55:13.308,0.0033050657,-0.0022227464,0.027854307,-0.10384032,0.011436565,-0.01795401,0.0,0.0,0.0,0.0026123447,-0.036531493,0.097665906,-0.114628896,0.020309858,-0.043898165,0.054371573,-0.022538189,-0.16103792,-0.086425856,-0.027895115,-0.04712017,-0.05587406,0.057583284,-0.05989762,-0.040974297,0.044061836,0.0068467422,-0.06849137,-0.06760248,-0.06437274,0.017257402,0.006464572,0.055881366,-0.01849195,0.2810619,0.8361721,-1.3906288,0.6325192,-0.046981357,-0.03598147,-0.5840594,-0.5905855,-0.5860549,-0.65322584,-0.11575144,-1.4307569,0.25202024,0.4340816,-1.6030889,0.47581375,-0.18451418,0.10968157,-0.46204117,-0.57417876,-0.63626635,-0.5826169,-0.101171695,-1.4959505
2025-06-06 08:55:13.329,-0.031895377,-0.012376229,-0.0060101827,-0.051951025,-0.0017627525,0.040972974,0.0,0.0,0.0,0.0025109646,-0.03939754,0.10292648,-0.12349517,0.023404103,-0.047486007,0.05823592,-0.020016331,-0.15390427,-0.097027235,-0.01691948,-0.053635724,-0.06690232,-0.056049068,0.05998179,-0.003417033,-0.060239438,0.041420713,-0.034075335,-0.032567248,-0.05140403,-0.04918063,0.036260147,0.053608745,-0.053270023,0.25202024,0.4340816,-1.6030889,0.47581375,-0.18451418,0.10968157,-0.46204117,-0.57417876,-0.63626635,-0.5826169,-0.101171695,-1.4959505,0.19990233,0.54457885,-1.5805545,0.69800615,-0.033682253,0.11786052,-0.5278685,-0.450354,-0.40649614,-0.65572596,-0.24451375,-1.5094014
2025-06-06 08:55:13.347,-0.03942899,-0.04113378,-0.05969751,-0.06075363,-0.023790993,-0.046976104,0.0,0.0,0.0,0.0027158523,-0.026226658,0.103669345,-0.12604359,0.030659534,-0.04615495,0.057785396,-0.011468211,-0.16374,-0.08716885,-0.015484184,-0.046883196,-0.06463456,0.023822913,0.024564462,7.8579375e-05,0.011655077,0.010307908,-0.025311403,0.048162043,0.00940609,-0.018720103,-0.003731165,-0.033456594,-0.0576392,0.19990233,0.54457885,-1.5805545,0.69800615,-0.033682253,0.11786052,-0.5278685,-0.450354,-0.40649614,-0.65572596,-0.24451375,-1.5094014,0.47357202,0.77652663,-1.0150626,1.0388914,0.036930792,-0.3733583,-0.6594503,-0.4085203,-0.6893704,-0.9235834,-0.5264076,-1.3775227
2025-06-06 08:55:13.368,-0.02549214,0.078136586,0.0008001601,-0.06535637,-0.0018199577,-0.0037554025,0.0,0.0,0.0,0.0030953449,-0.025097307,0.092794165,-0.10883585,0.03381138,-0.04461751,0.052875802,-0.019130128,-0.14892508,-0.10619194,-0.023115827,-0.055534817,-0.055241704,0.045858104,0.05955036,0.027307402,0.06895161,-0.00048600323,0.014065089,-0.057320043,0.0030471098,-0.047726355,0.004775673,0.0067505715,-0.013158732,0.47357202,0.77652663,-1.0150626,1.0388914,0.036930792,-0.3733583,-0.6594503,-0.4085203,-0.6893704,-0.9235834,-0.5264076,-1.3775227,0.69371885,0.6770443,-1.240624,0.6776407,-0.016926643,-0.15754604,-0.45543435,-0.6808895,-0.8345053,-0.846356,-0.23627192,-1.1964821
2025-06-06 08:55:13.388,0.03380915,0.009359509,0.084592596,-0.07573247,-0.025598044,0.038698304,0.0,0.0,0.0,0.002510392,-0.027634887,0.10137101,-0.1034382,0.026423994,-0.043982588,0.05412079,-0.016789315,-0.14891991,-0.10476318,-0.01974959,-0.059302658,-0.03365604,0.06975631,-0.054613296,-0.018339783,-0.006826071,0.007296531,0.044006612,0.0060624955,-0.074941516,0.0100713745,-0.010288986,-0.042842682,-0.04727322,0.69371885,0.6770443,-1.240624,0.6776407,-0.016926643,-0.15754604,-0.45543435,-0.6808895,-0.8345053,-0.846356,-0.23627192,-1.1964821,0.5068886,0.29133984,-1.9271352,0.2631957,-0.1468786,0.49936134,-0.13567726,-0.60220516,-0.32965416,-0.7631336,0.21887147,-1.8183507
2025-06-06 08:55:13.408,0.089113675,-0.061938304,-0.07443954,-0.1222503,-0.024977906,-0.03702153,0.0,0.0,0.0,0.0014443536,-0.035690185,0.09168357,-0.10729513,0.02785225,-0.046495978,0.05592602,-0.0050852257,-0.1520329,-0.09962529,-0.037571996,-0.050519906,-0.033336062,0.045392163,0.011668967,-0.030433124,-0.043527678,-0.0056450353,0.007248613,0.07771641,-0.08118437,0.07743458,-0.032379504,0.0613991,0.052260872,0.5068886,0.29133984,-1.9271352,0.2631957,-0.1468786,0.49936134,-0.13567726,-0.60220516,-0.32965416,-0.7631336,0.21887147,-1.8183507,0.6818779,0.6010739,-1.5002887,1.1006811,0.0363261,-0.09003083,-0.584075,-0.38163733,-0.49198553,-1.1257164,-0.60877573,-1.9113649
2025-06-06 08:55:13.428,-0.053880088,0.0028930106,-0.0022419402,-0.121576674,0.012124383,-0.020850828,0.0,0.0,0.0,0.001576879,-0.041143697,0.109899744,-0.09675693,0.024344582,-0.052767567,0.055861425,-0.00787981,-0.15947258,-0.09531923,-0.032266475,-0.049359176,-0.050451588,-0.03549558,0.057936255,0.032354385,0.0003113644,-0.04549495,0.06799975,-0.054937538,-0.023855297,-0.044578187,-0.03754003,0.015844876,-0.0374302,0.6818779,0.6010739,-1.5002887,1.1006811,0.0363261,-0.09003083,-0.584075,-0.38163733,-0.49198553,-1.1257164,-0.60877573,-1.9113649,0.61010325,0.73169136,-1.5450344,0.9163309,0.0027979007,-0.049231157,-0.5127122,-0.66676563,-0.4587715,-0.9483743,-0.2515784,-1.7421197
2025-06-06 08:55:13.450,-0.0077056927,0.033431754,0.02336843,-0.07181731,0.02489011,0.038064037,0.0,0.0,0.0,0.0014279498,-0.030703222,0.10360181,-0.09337432,0.034828134,-0.047452718,0.055324875,0.001048244,-0.16489565,-0.0891632,-0.037502203,-0.05690516,-0.05254074,-0.036913645,0.055275436,-0.0606311,0.021486787,0.05801904,0.054614868,-0.072040245,-0.003619034,0.08675651,0.059865624,0.029817833,0.07175909,0.61010325,0.73169136,-1.5450344,0.9163309,0.0027979007,-0.049231157,-0.5127122,-0.66676563,-0.4587715,-0.9483743,-0.2515784,-1.7421197,0.45530885,0.47851375,-1.8641477,0.6571119,-0.10426797,0.14485139,-0.52111286,-0.63027424,-0.4298384,-0.724415,-0.14176247,-1.8825475
2025-06-06 08:55:13.469,0.018201543,0.025784735,-0.007852056,-0.0517426,0.0072801798,-0.028834723,0.0,0.0,0.0,0.000828519,-0.028982226,0.10695031,-0.10391418,0.029167052,-0.045223523,0.039379552,-0.0077721854,-0.17226195,-0.096361965,-0.025318509,-0.049378276,-0.054048736,0.01529723,0.067984976,0.034382615,-0.06506036,-0.007005125,0.020011447,-0.02778535,-0.02652085,-0.057990357,0.033172242,-0.019961312,0.023025418,0.45530885,0.47851375,-1.8641477,0.6571119,-0.10426797,0.14485139,-0.52111286,-0.63027424,-0.4298384,-0.724415,-0.14176247,-1.8825475,0.37831467,0.64888257,-1.6349792,0.7991943,-0.04123869,0.0145858005,-0.6412213,-0.4691694,-0.42778707,-0.74421376,-0.2579983,-1.7079977
2025-06-06 08:55:13.489,-0.0489346,0.012252391,0.035986543,-0.12404103,-0.06993787,-0.04540837,0.0,0.0,0.0,0.0006888925,-0.020355185,0.11266795,-0.11027259,0.021523956,-0.027804699,0.05285431,-0.018392019,-0.17181346,-0.084537946,-0.036313318,-0.0436481,-0.055325605,0.0014365884,0.073503636,0.038692538,-0.005053799,0.009000552,0.05253448,0.031609192,-0.043735538,0.017116286,0.07362307,0.076517895,0.034210112,0.37831467,0.64888257,-1.6349792,0.7991943,-0.04123869,0.0145858005,-0.6412213,-0.4691694,-0.42778707,-0.74421376,-0.2579983,-1.7079977,0.15056874,0.5432219,-1.8294812,0.61168486,-0.15408678,0.17316887,-0.44811943,-0.6062795,-0.46230856,-0.58258116,-0.025768809,-1.7917866
2025-06-06 08:55:13.559,0.005148823,-0.0012180554,0.000626404,-0.09972166,-0.013351757,-0.009724829,0.0,0.0,0.0,0.00071824767,-0.024729962,0.10538439,-0.1100815,0.031229138,-0.041318547,0.051888455,-0.0019778986,-0.15445623,-0.07736645,-0.03310521,-0.045911934,-0.05672872,0.047270365,-0.043020867,0.030021822,-0.048414,-0.045674056,-0.061296225,0.05924633,0.023980226,0.033544056,-0.04041259,-0.029345257,-0.03443538,0.15056874,0.5432219,-1.8294812,0.61168486,-0.15408678,0.17316887,-0.44811943,-0.6062795,-0.46230856,-0.58258116,-0.025768809,-1.7917866,0.15697904,0.6596485,-1.5522277,0.82412016,-0.064860724,-0.030074812,-0.6097871,-0.43786252,-0.56678796,-0.6958964,-0.28379032,-1.5589705
2025-06-06 08:55:13.574,0.022941792,-0.0023320944,0.026229903,-0.06610424,0.020246752,-0.018270308,0.0,0.0,0.0,0.0012977403,-0.03720008,0.12369589,-0.114548355,0.01932657,-0.03937577,0.048373364,-0.010690639,-0.16683525,-0.09569484,-0.018293403,-0.047107343,-0.056861185,0.010434428,0.0745481,-0.052180894,0.02782789,0.04516503,-0.033294495,-0.0007255519,0.058580957,-0.08025782,-0.010602921,0.04927735,-0.014321896,0.15697904,0.6596485,-1.5522277,0.82412016,-0.064860724,-0.030074812,-0.6097871,-0.43786252,-0.56678796,-0.6958964,-0.28379032,-1.5589705,0.14797851,0.6270368,-1.4718109,0.7013103,-0.12057216,-0.008524038,-0.49550036,-0.60848784,-0.55757403,-0.6016416,-0.09444108,-1.5138692
2025-06-06 08:55:13.594,0.01598495,-0.032037534,-0.059050426,-0.051401943,-0.05097692,-0.043630004,0.0,0.0,0.0,0.0018771369,-0.031022798,0.105847575,-0.11959299,0.03464155,-0.029966483,0.0451145,-0.019132718,-0.14896195,-0.08610999,-0.011719627,-0.044897832,-0.059550185,0.03446588,0.06627129,-0.054935515,0.0018085855,0.055900976,-0.040127467,0.045308437,0.049221046,-0.05540714,-0.0041240477,-0.060474925,0.026337476,0.14797851,0.6270368,-1.4718109,0.7013103,-0.12057216,-0.008524038,-0.49550036,-0.60848784,-0.55757403,-0.6016416,-0.09444108,-1.5138692,0.59245217,0.74320865,-0.9293942,0.94879806,0.023298398,-0.47727722,-0.78081715,-0.34858596,-0.92410773,-0.81351364,-0.54901814,-1.1774663
2025-06-06 08:55:13.619,-0.05327788,0.05046577,0.07266045,-0.120509416,-0.041953154,0.0357373,0.0,0.0,0.0,0.0024464189,-0.01787773,0.11862526,-0.107016586,0.023927044,-0.030284664,0.043305688,-0.027574332,-0.14437476,-0.10339926,-0.016780904,-0.05312426,-0.055244807,0.072796024,0.058409832,-0.06470854,-0.040539384,-0.073822774,-0.052231345,-0.029476749,0.08120251,-0.119088985,-0.04821512,-0.03350034,0.06856462,0.59245217,0.74320865,-0.9293942,0.94879806,0.023298398,-0.47727722,-0.78081715,-0.34858596,-0.92410773,-0.81351364,-0.54901814,-1.1774663,0.6733939,0.6389399,-1.1270812,0.477176,-0.013729532,-0.026828155,-0.28250778,-0.7116668,-0.9699556,-0.79295945,0.002357386,-1.0205088
2025-06-06 08:55:13.637,0.0045208703,-0.044763967,0.032642633,-0.12590627,0.004933122,-0.022148382,0.0,0.0,0.0,0.0019113153,-0.026222667,0.11357711,-0.11183232,0.030541604,-0.038490776,0.044371434,-0.009363502,-0.15450348,-0.12193987,-0.020677498,-0.064904526,-0.03179906,-0.070156306,-0.07409143,0.07986754,-0.044663675,0.016545061,0.058260348,0.0717456,-0.06466865,-0.03554654,-0.023925172,-0.055657327,0.0121890325,0.6733939,0.6389399,-1.1270812,0.477176,-0.013729532,-0.026828155,-0.28250778,-0.7116668,-0.9699556,-0.79295945,0.002357386,-1.0205088,0.68177336,0.21023425,-1.6143075,0.32945496,-0.08791707,0.22066957,-0.13742217,-0.5117794,-0.49565113,-0.9419451,-0.12089408,-1.5687697
2025-06-06 08:55:13.654,0.06840324,0.04340171,-0.007840894,-0.04180828,-0.0430827,-0.032188393,0.0,0.0,0.0,0.0012117826,-0.023947734,0.10860648,-0.085673444,0.032472838,-0.043042645,0.0454942,-0.0036798504,-0.14995405,-0.118072405,-0.016229799,-0.060952976,-0.03329243,0.007263388,-0.0852524,0.021270942,0.0010046049,0.049844798,-0.023716185,0.056415815,-0.017511565,-0.046917416,-0.06725761,0.07840347,-0.06779791,0.68177336,0.21023425,-1.6143075,0.32945496,-0.08791707,0.22066957,-0.13742217,-0.5117794,-0.49565113,-0.9419451,-0.12089408,-1.5687697,0.4965483,0.57838136,-1.6145856,0.8131063,-0.062951766,0.23592207,-0.30414605,-0.40377897,-0.22634783,-1.1408198,-0.16618413,-1.7636292
2025-06-06 08:55:13.674,0.08561855,0.024578318,0.004914743,-0.07503858,0.009220834,-0.0028747988,0.0,0.0,0.0,0.0011756822,-0.04007886,0.102097884,-0.07713225,0.028839976,-0.040920604,0.060137507,9.476783e-05,-0.14312069,-0.11005018,-0.035314884,-0.062841944,-0.025981104,-0.029763648,-0.033485092,0.04032246,-0.06261431,0.0544617,-0.0059865774,0.07876283,0.018191863,0.08122305,0.048300166,0.06913638,-0.030047024,0.4965483,0.57838136,-1.6145856,0.8131063,-0.062951766,0.23592207,-0.30414605,-0.40377897,-0.22634783,-1.1408198,-0.16618413,-1.7636292,0.22352932,0.5631885,-1.9863664,0.95245636,-0.103217036,0.16325465,-0.34683385,-0.57455224,-0.28977448,-0.9010364,-0.079923116,-2.0441895
2025-06-06 08:55:13.694,0.06132136,0.044066265,-0.030594753,-0.09448448,-0.056729596,0.02108487,0.0,0.0,0.0,0.001389359,-0.04381864,0.11064188,-0.08379715,0.018808061,-0.02555001,0.054510925,-0.0037929795,-0.1483254,-0.08819425,-0.030803721,-0.053196143,-0.0316204,0.031056006,-0.06358822,0.057771992,-0.02333593,-0.017043574,-0.022709223,-0.045332972,-0.008887977,0.00020183869,-0.00516029,0.08481363,-0.05976719,0.22352932,0.5631885,-1.9863664,0.95245636,-0.103217036,0.16325465,-0.34683385,-0.57455224,-0.28977448,-0.9010364,-0.079923116,-2.0441895,0.2577385,0.7435277,-1.6624415,1.0178425,-0.07083666,-0.15705273,-0.6404317,-0.50209165,-0.49805465,-0.8371296,-0.2915834,-1.7727455
2025-06-06 08:55:13.717,0.0053848517,0.06355111,0.0044161477,-0.111406036,-0.05994974,0.031075872,0.0,0.0,0.0,0.0019949405,-0.028169414,0.1114738,-0.08470146,0.018163944,-0.029928168,0.06429788,-0.007937119,-0.14876932,-0.0753976,-0.01927786,-0.049994376,-0.045669246,0.01909104,-0.029727943,-0.0630136,0.043902565,-0.051868305,-0.020032253,-0.010600948,-0.007176354,0.035357602,-0.0047497978,-0.047095954,0.021404661,0.2577385,0.7435277,-1.6624415,1.0178425,-0.07083666,-0.15705273,-0.6404317,-0.50209165,-0.49805465,-0.8371296,-0.2915834,-1.7727455,0.33310282,0.76060134,-1.4521544,0.8354612,-0.12214201,-0.14549336,-0.51893854,-0.6233552,-0.8081273,-0.84778106,-0.19738498,-1.5390152
2025-06-06 08:55:13.737,-0.032178577,0.072505355,0.0005153372,-0.034320585,-0.04537865,0.028137611,0.0,0.0,0.0,0.002393347,-0.02775103,0.11448556,-0.108348556,0.03135683,-0.029277416,0.05043747,-0.007641024,-0.14489111,-0.09314957,-0.01569469,-0.04713661,-0.034160815,0.047396727,0.07074343,-0.004058732,0.061212398,0.047518484,-0.045543842,0.057175595,0.051879555,-0.008314754,0.041524544,0.043479938,-0.015702905,0.33310282,0.76060134,-1.4521544,0.8354612,-0.12214201,-0.14549336,-0.51893854,-0.6233552,-0.8081273,-0.84778106,-0.19738498,-1.5390152,0.38526595,0.5514977,-1.4988034,0.6125141,-0.1401216,0.0128368735,-0.43807045,-0.62501323,-0.901716,-0.7589544,-0.15678936,-1.3947363
2025-06-06 08:55:13.755,0.016651323,0.032491658,-0.031684827,-0.0843844,0.030172642,-0.023699773,0.0,0.0,0.0,0.00239435,-0.037428163,0.10810246,-0.09740101,0.034347538,-0.025427327,0.03409898,-0.007807327,-0.15968004,-0.11385718,-0.030835016,-0.052788492,-0.04392231,-0.0030312466,0.05766477,-0.020814009,0.009585682,-0.059827406,-0.017040214,0.059212513,-0.04260984,-0.032103453,-0.06550239,0.03180692,0.060781185,0.38526595,0.5514977,-1.4988034,0.6125141,-0.1401216,0.0128368735,-0.43807045,-0.62501323,-0.901716,-0.7589544,-0.15678936,-1.3947363,0.683314,0.5804736,-1.2826964,0.87691075,-0.070370555,-0.15840262,-0.5047244,-0.4470851,-0.85156345,-1.0239502,-0.38372174,-1.3384413
2025-06-06 08:55:13.775,0.011821172,0.08951879,0.050458275,-0.098656975,0.02522186,-0.032708753,0.0,0.0,0.0,0.0023827965,-0.021705087,0.106254056,-0.111237735,0.035285752,-0.016069409,0.03930301,-0.014382339,-0.16474003,-0.13818634,-0.011892037,-0.0593768,-0.029194294,0.03241045,-0.049703028,-0.01446091,0.059527323,0.048079498,0.0019610333,0.027263936,0.047999017,-0.024895282,0.046853594,-0.06962648,0.09342604,0.683314,0.5804736,-1.2826964,0.87691075,-0.070370555,-0.15840262,-0.5047244,-0.4470851,-0.85156345,-1.0239502,-0.38372174,-1.3384413,0.4830229,0.4726756,-1.6275997,0.570461,-0.11402577,0.29587302,-0.09020966,-0.6536502,-0.57846296,-0.9663937,0.11695307,-1.5737733
2025-06-06 08:55:13.795,-0.008434572,-0.006444967,-0.023669915,-0.09851024,0.027585974,-0.029825617,0.0,0.0,0.0,0.0018780929,-0.019617645,0.11202405,-0.09302265,0.02878375,-0.019116515,0.051262215,-0.0063411254,-0.16666076,-0.13697448,-0.015903559,-0.043620463,-0.030207867,-0.018207517,0.056389857,-0.055535425,0.058902234,0.0012086733,-0.045015007,0.037020277,-0.01838898,-0.034760673,0.0028793693,-0.034301437,0.061535183,0.4830229,0.4726756,-1.6275997,0.570461,-0.11402577,0.29587302,-0.09020966,-0.6536502,-0.57846296,-0.9663937,0.11695307,-1.5737733,0.55700797,0.4415141,-1.4863777,0.8968943,-0.052370854,-0.035294138,-0.44603243,-0.3877546,-0.5415281,-1.0276618,-0.37632254,-1.6297952
2025-06-06 08:55:13.820,0.023087155,-0.017835962,0.039713547,-0.028147737,-0.035535917,0.03307073,0.0,0.0,0.0,0.0018946899,-0.020985594,0.10531832,-0.089718774,0.030300798,-0.031547002,0.05067172,-0.010454513,-0.1634957,-0.115629,-0.022029573,-0.04357091,-0.024285438,-0.052750126,0.043616984,-0.026808543,0.032406367,-0.027386626,-0.029462429,-0.030211871,0.089777686,-0.017570501,0.011581702,0.055193294,0.07220296,0.55700797,0.4415141,-1.4863777,0.8968943,-0.052370854,-0.035294138,-0.44603243,-0.3877546,-0.5415281,-1.0276618,-0.37632254,-1.6297952,0.42184502,0.67108715,-1.5932903,0.76493895,-0.048533835,0.091960676,-0.35035524,-0.62230414,-0.4870846,-0.8746271,-0.03375878,-1.7281348
2025-06-06 08:55:13.838,0.045609582,0.011909752,-0.049134232,-0.08497401,-0.003308514,-0.004998101,0.0,0.0,0.0,0.0018642348,-0.03510599,0.102312885,-0.086006425,0.03605309,-0.014466348,0.05011161,-0.010124476,-0.14767577,-0.11163977,-0.029992215,-0.042743806,-0.035114545,0.025838122,0.033336114,-0.021401273,0.070850484,0.006473551,0.014295688,0.03257514,0.014076316,-0.038150866,0.038510654,0.0005462456,-0.0669125,0.42184502,0.67108715,-1.5932903,0.76493895,-0.048533835,0.091960676,-0.35035524,-0.62230414,-0.4870846,-0.8746271,-0.03375878,-1.7281348,0.65727204,0.5807529,-1.3644912,0.92152447,-0.061522577,-0.24462897,-0.6567652,-0.47387138,-0.6380248,-0.93431455,-0.43597233,-1.5534648
2025-06-06 08:55:13.855,0.02775965,0.030708797,0.022766411,-0.10134946,-0.03999132,0.031770572,0.0,0.0,0.0,0.0019798437,-0.03958437,0.10055398,-0.089400075,0.03547451,-0.021380031,0.050598167,-0.012200835,-0.15194215,-0.11492014,-0.02805271,-0.04202864,-0.026706433,0.035493676,-0.03595242,-0.07004276,0.07275815,-0.05723857,-0.004432623,-0.076408446,0.038511954,-0.041264452,0.010777339,0.0011630922,0.01619469,0.65727204,0.5807529,-1.3644912,0.92152447,-0.061522577,-0.24462897,-0.6567652,-0.47387138,-0.6380248,-0.93431455,-0.43597233,-1.5534648,0.6706043,0.65929765,-1.4231869,0.73194903,-0.055436086,0.034298904,-0.39708996,-0.6464399,-0.63245165,-0.9515318,-0.09609819,-1.5299159
2025-06-06 08:55:13.875,0.03940687,0.0075652692,0.026031524,-0.04355915,-0.036341,0.015195147,0.0,0.0,0.0,0.0016132459,-0.029948333,0.10278036,-0.07934349,0.039034814,-0.017323198,0.036828008,-0.0006303999,-0.15432857,-0.10650559,-0.027115624,-0.050013125,-0.024066785,0.058061693,-0.032934684,-0.065255426,0.024340572,0.026664559,-0.069653414,-0.05490271,0.018835772,-0.0028943084,-0.06858061,0.07382035,0.05799177,0.6706043,0.65929765,-1.4231869,0.73194903,-0.055436086,0.034298904,-0.39708996,-0.6464399,-0.63245165,-0.9515318,-0.09609819,-1.5299159,0.6301579,0.4433355,-1.602813,0.6276082,-0.102994576,0.07843802,-0.43613553,-0.5365009,-0.5607623,-0.8542404,-0.1208672,-1.700918
2025-06-06 08:55:13.895,-0.017330125,-0.015410923,-0.046717364,-0.03381252,-0.066735364,0.0026294729,0.0,0.0,0.0,0.0011747124,-0.02476111,0.10639752,-0.07963154,0.027124027,-0.021444695,0.040984035,-0.0069751837,-0.15213574,-0.10923682,-0.023382492,-0.050589867,-0.028381536,0.07030568,-0.032161284,-0.027151855,-0.02796103,-0.0151136415,0.041094247,-0.005734531,-0.05995349,0.017848989,0.0036985036,0.034695882,0.06472461,0.6301579,0.4433355,-1.602813,0.6276082,-0.102994576,0.07843802,-0.43613553,-0.5365009,-0.5607623,-0.8542404,-0.1208672,-1.700918,0.76740056,0.6919006,-1.447269,0.8864179,-0.054686394,-0.090375476,-0.5243483,-0.49335662,-0.68408,-1.0847017,-0.3542704,-1.6890718
2025-06-06 08:55:13.919,0.0038272962,0.0022112732,0.003995261,-0.102428764,0.021718953,0.046719514,0.0,0.0,0.0,0.001086017,-0.030746527,0.1134873,-0.090550855,0.043018043,-0.018314138,0.04031808,-0.0011236029,-0.16759689,-0.10801223,-0.018952169,-0.040038086,-0.030591624,0.047794856,0.07109002,0.02488181,-0.055718802,0.07485573,0.038710505,-0.061596446,-0.05234026,0.062383182,-0.063615076,-0.00769019,-0.0004021749,0.76740056,0.6919006,-1.447269,0.8864179,-0.054686394,-0.090375476,-0.5243483,-0.49335662,-0.68408,-1.0847017,-0.3542704,-1.6890718,0.7190005,0.5239126,-1.790976,0.7447925,-0.08781381,0.09981396,-0.36930272,-0.69522345,-0.5661884,-0.94895685,-0.12082108,-1.8411745
2025-06-06 08:55:13.935,0.019499281,-0.029757107,0.025024513,-0.09244031,-0.05496116,-0.01863998,0.0,0.0,0.0,0.0007071192,-0.028776972,0.103740394,-0.092438765,0.027280282,-0.021930384,0.04017821,-0.009668048,-0.1662109,-0.10140217,-0.028178236,-0.041544434,-0.034655113,-0.02159217,-0.02912323,0.013877409,-0.04809213,0.02079373,0.06485177,0.012063242,-0.044125766,0.06849688,-0.038663343,-0.03936605,-0.079359144,0.7190005,0.5239126,-1.790976,0.7447925,-0.08781381,0.09981396,-0.36930272,-0.69522345,-0.5661884,-0.94895685,-0.12082108,-1.8411745,0.4382673,0.4945062,-2.0240805,0.75689965,-0.09261636,0.27114025,-0.43754008,-0.51548266,-0.24613458,-0.87506783,-0.054866634,-1.9650327
2025-06-06 08:55:13.955,-0.014987272,-0.05453503,-0.050458938,-0.07506799,0.0061185076,0.042624872,0.0,0.0,0.0,0.000548343,-0.017170325,0.10601012,-0.08498674,0.037898757,-0.023875022,0.036290094,-0.005398178,-0.17127421,-0.08771463,-0.020960549,-0.04642201,-0.041475013,-0.068117745,0.049416542,0.048737753,0.06585791,0.0018348143,0.0013584198,0.064072,0.02678395,0.021329826,0.064992726,-0.020785987,0.041804325,0.4382673,0.4945062,-2.0240805,0.75689965,-0.09261636,0.27114025,-0.43754008,-0.51548266,-0.24613458,-0.87506783,-0.054866634,-1.9650327,0.39684498,0.7741744,-1.5133479,1.0777174,-0.001312756,-0.20209,-0.59421885,-0.47411692,-0.5770959,-0.97592115,-0.37177995,-1.8152503
2025-06-06 08:55:13.976,0.008465986,-0.0022781366,0.043681048,-0.06991185,-0.010342594,0.034457557,0.0,0.0,0.0,0.0010817504,-0.02821788,0.11384048,-0.10495793,0.03713844,-0.020265829,0.02987927,-0.014575577,-0.15740442,-0.088354535,-0.022832908,-0.04582269,-0.058379512,0.036538392,0.036476813,-0.011854795,0.038563523,0.019207254,-0.0019886002,0.006482149,0.064277925,0.04709095,-0.055094324,0.035347678,-0.055098362,0.39684498,0.7741744,-1.5133479,1.0777174,-0.001312756,-0.20209,-0.59421885,-0.47411692,-0.5770959,-0.97592115,-0.37177995,-1.8152503,0.29848862,0.63158447,-1.7014997,0.6417487,-0.15047018,0.049276017,-0.45482495,-0.71758896,-0.5719695,-0.6962864,-0.0074392483,-1.6400989
2025-06-06 08:55:13.996,-0.029858267,0.009588307,0.007448727,-0.103820436,-0.052445903,-0.048877995,0.0,0.0,0.0,0.0013881685,-0.030596856,0.12140313,-0.10995792,0.035408568,-0.017754082,0.033174828,-0.0054528746,-0.17270994,-0.09113134,-0.027845452,-0.041563142,-0.05429618,-0.047320727,0.039727192,-0.02834907,-0.054851368,0.016073126,0.074490495,-0.045973495,-0.07581167,-0.046305068,0.049488805,0.010400176,0.007415848,0.29848862,0.63158447,-1.7014997,0.6417487,-0.15047018,0.049276017,-0.45482495,-0.71758896,-0.5719695,-0.6962864,-0.0074392483,-1.6400989,0.32579017,0.46522644,-1.7126923,0.6699279,-0.11501059,0.07883263,-0.57418835,-0.49050182,-0.51064426,-0.6606789,-0.23030096,-1.6234185
2025-06-06 08:55:14.019,-0.058173105,0.005065003,-0.0060947877,-0.06883633,0.01003777,0.046778426,0.0,0.0,0.0,0.001832984,-0.022627013,0.11066965,-0.10218273,0.036407184,-0.0064796465,0.029314507,-0.020564074,-0.16294314,-0.09062361,-0.015050997,-0.031914696,-0.05513989,-0.01710727,0.06306327,-0.05639388,-0.034436323,-0.067273825,-0.060291443,-0.032339226,0.0417007,0.033542432,-0.017794892,0.06577856,0.010186036,0.32579017,0.46522644,-1.7126923,0.6699279,-0.11501059,0.07883263,-0.57418835,-0.49050182,-0.51064426,-0.6606789,-0.23030096,-1.6234185,0.38991028,0.7133008,-1.2981513,0.8355804,-0.07206488,-0.1111949,-0.55924886,-0.5065204,-0.64729524,-0.8088834,-0.2791641,-1.4972252
2025-06-06 08:55:14.036,-0.049547542,-0.02342426,0.021195626,-0.093606934,-0.03196258,0.02853683,0.0,0.0,0.0,0.0025169908,-0.020448383,0.11823459,-0.11680235,0.0322455,-0.02637913,0.036804922,-0.02238147,-0.1671947,-0.09775798,-0.013378749,-0.03164541,-0.04298954,-0.028201014,0.013100171,-0.0723415,-0.050096016,-0.018630803,-0.06555704,-0.01839733,-0.023449577,-0.05371288,0.06032203,-0.07762733,0.058117818,0.38991028,0.7133008,-1.2981513,0.8355804,-0.07206488,-0.1111949,-0.55924886,-0.5065204,-0.64729524,-0.8088834,-0.2791641,-1.4972252,0.41605777,0.6206166,-1.3750321,0.61153525,-0.08644054,-0.036275916,-0.4534804,-0.55630195,-0.7591331,-0.73149776,-0.1236004,-1.3736426
2025-06-06 08:55:14.056,-0.023542264,0.01262232,0.027300019,-0.08560435,-0.0121648265,0.044531185,0.0,0.0,0.0,0.0028553572,-0.028696626,0.11863303,-0.11395357,0.041194018,-0.028495686,0.025544768,-0.019733338,-0.15634727,-0.1172075,-0.015082393,-0.034184907,-0.05437262,-0.06218591,0.019740138,-0.0403487,-0.052993093,0.055125922,0.07144953,-0.008372632,0.052591063,-0.08150903,0.06481042,-0.062278803,0.046100862,0.41605777,0.6206166,-1.3750321,0.61153525,-0.08644054,-0.036275916,-0.4534804,-0.55630195,-0.7591331,-0.73149776,-0.1236004,-1.3736426,0.4707415,0.4631937,-1.5148678,0.5858271,-0.09715902,0.08432514,-0.39680958,-0.5604567,-0.6155206,-0.7537143,-0.12357878,-1.5051916
2025-06-06 08:55:14.076,-0.03473193,-0.02541393,-0.030403577,-0.030542303,-0.031793967,-0.04794967,0.0,0.0,0.0,0.0030336548,-0.02212202,0.102205716,-0.10460362,0.022793723,-0.02087519,0.034065522,-0.003496652,-0.16710949,-0.11432937,-0.024814146,-0.05224836,-0.047223,0.023509914,-0.07644982,-0.03708464,-0.072682716,0.00040185644,-0.03934189,-0.017415192,0.03200749,-0.02524626,-0.073984504,0.048888333,-0.002582756,0.4707415,0.4631937,-1.5148678,0.5858271,-0.09715902,0.08432514,-0.39680958,-0.5604567,-0.6155206,-0.7537143,-0.12357878,-1.5051916,0.6697801,0.63768786,-1.2487683,0.88295394,-0.02268922,-0.14603846,-0.57614076,-0.4184173,-0.63689953,-0.99651146,-0.39723352,-1.4608105
2025-06-06 08:55:14.096,-0.0028955787,-0.027164567,0.0026100744,-0.07578322,-0.06127974,0.025446672,0.0,0.0,0.0,0.0034150046,-0.027328204,0.11149067,-0.10534082,0.028465806,-0.02645338,0.04717993,-0.010022864,-0.15729493,-0.11000309,-0.016898058,-0.05851571,-0.036998678,0.029238816,-0.053866148,-0.002435383,0.0071404036,0.019218598,-0.0028426899,-0.016902363,-0.0097757615,0.07095789,-0.012112822,0.014923036,0.061245188,0.6697801,0.63768786,-1.2487683,0.88295394,-0.02268922,-0.14603846,-0.57614076,-0.4184173,-0.63689953,-0.99651146,-0.39723352,-1.4608105,0.6788422,0.6305042,-1.5098845,0.7343732,-0.045726318,0.019233435,-0.30914465,-0.66159564,-0.6946548,-1.0126653,-0.15166268,-1.6207403
2025-06-06 08:55:14.119,0.0050736205,-0.013360469,-0.03021064,-0.097268485,-0.030835984,0.0026627833,0.0,0.0,0.0,0.0032364577,-0.039351873,0.1080324,-0.084646344,0.024283582,-0.038644217,0.044124078,-0.01797089,-0.15281111,-0.111423425,-0.021965416,-0.061221197,-0.02726581,0.050881997,-0.000646878,-0.0064629507,-0.0071855807,-0.06163934,0.048210107,0.057518296,0.019502131,-0.024039922,0.051796716,-0.057793982,-0.03182725,0.6788422,0.6305042,-1.5098845,0.7343732,-0.045726318,0.019233435,-0.30914465,-0.66159564,-0.6946548,-1.0126653,-0.15166268,-1.6207403,0.8539225,0.5357422,-1.4634082,0.8968455,-0.058630917,-0.100031905,-0.47180656,-0.5200391,-0.7141547,-1.1287143,-0.3802729,-1.6108519
2025-06-06 08:55:14.136,0.008340389,-0.006307329,0.048808273,-0.10195859,-0.01285584,0.020232854,0.0,0.0,0.0,0.0029042547,-0.033076312,0.09741095,-0.096986584,0.021813074,-0.03875648,0.04043268,-0.016173158,-0.14948338,-0.1284947,-0.022356717,-0.065131366,-0.031539306,-0.032956026,0.035748538,-0.016232915,0.034730095,0.020128382,0.001279642,-0.06425285,-0.0684714,-0.054189574,-0.0072067375,-0.041420653,0.0021744375,0.8539225,0.5357422,-1.4634082,0.8968455,-0.058630917,-0.100031905,-0.47180656,-0.5200391,-0.7141547,-1.1287143,-0.3802729,-1.6108519,0.57596904,0.4790207,-1.8291469,0.6869217,-0.052022472,0.2784543,-0.2986496,-0.5963636,-0.31379226,-0.93606734,0.024523027,-1.804071
2025-06-06 08:55:14.156,-0.007455557,-0.085814945,-0.04095547,-0.04041035,-0.025559537,0.02137393,0.0,0.0,0.0,0.0022359584,-0.033687964,0.09979095,-0.09651841,0.031425472,-0.024164077,0.048716094,-0.00096365775,-0.16781576,-0.10918628,-0.0308714,-0.051552486,-0.03249761,0.010163838,0.0784974,0.054897364,0.042646084,-0.010495899,-0.059126493,-0.010502672,0.033799924,-0.022355938,-0.03871856,-0.03324144,0.0059640245,0.57596904,0.4790207,-1.8291469,0.6869217,-0.052022472,0.2784543,-0.2986496,-0.5963636,-0.31379226,-0.93606734,0.024523027,-1.804071,0.6907703,0.6446443,-1.3715186,1.0134716,0.04595301,-0.22305873,-0.64120597,-0.42584932,-0.5841366,-1.0248652,-0.46835443,-1.7307831
2025-06-06 08:55:14.176,-0.04497011,0.032877542,0.06852596,-0.027484108,-0.017170224,0.015766848,0.0,0.0,0.0,0.0020931347,-0.024581233,0.10553078,-0.086275496,0.024739096,-0.029510316,0.048131105,-0.00815065,-0.151137,-0.10369631,-0.016929692,-0.050847773,-0.039128367,0.01204997,0.019479664,0.03392996,0.06349329,-0.0370264,0.013340667,-0.040311188,-0.009724343,-0.018700413,0.06607511,-0.0051215175,0.005283431,0.6907703,0.6446443,-1.3715186,1.0134716,0.04595301,-0.22305873,-0.64120597,-0.42584932,-0.5841366,-1.0248652,-0.46835443,-1.7307831,0.32558382,0.5817222,-1.8781667,0.4058169,-0.1234857,0.31802762,-0.30912602,-0.6733481,-0.4186685,-0.65174603,0.23241419,-1.7580994
2025-06-06 08:55:14.196,0.063517116,-0.03222208,-0.07569076,-0.11124684,0.006733397,-0.027169494,0.0,0.0,0.0,0.0016183088,-0.035281133,0.10832229,-0.082674645,0.0355822,-0.03811936,0.03936103,0.007158372,-0.15080565,-0.09956689,-0.029485183,-0.035083547,-0.054362614,-0.07135779,0.06051228,-0.07962671,0.061889343,0.033934787,0.011843157,-0.059933055,-0.08076227,-0.039224613,-0.043649603,-0.02746605,-0.019536646,0.32558382,0.5817222,-1.8781667,0.4058169,-0.1234857,0.31802762,-0.30912602,-0.6733481,-0.4186685,-0.65174603,0.23241419,-1.7580994,0.7245912,0.56217384,-1.2807913,1.0602541,0.031265546,-0.36644903,-0.80224466,-0.3513207,-0.6664571,-0.9239327,-0.6591691,-1.6378988
2025-06-06 08:55:14.220,0.007595471,0.029318439,0.015138114,-0.08563398,0.016348176,-0.036977377,0.0,0.0,0.0,0.001851238,-0.036959827,0.11145183,-0.089167215,0.024472686,-0.017963938,0.046721667,-0.00045616517,-0.15603691,-0.10130928,-0.018318154,-0.041202053,-0.039802298,0.035195988,-0.06809725,0.017611919,-0.008019857,-0.028253132,0.025700394,0.0069112745,0.08437278,0.028258158,0.072697446,-0.0813766,-0.07097642,0.7245912,0.56217384,-1.2807913,1.0602541,0.031265546,-0.36644903,-0.80224466,-0.3513207,-0.6664571,-0.9239327,-0.6591691,-1.6378988,0.5808663,0.76637304,-1.520587,0.60523975,-0.07562345,0.13204983,-0.2883251,-0.7254078,-0.5618907,-0.92639875,0.050129496,-1.4940666
2025-06-06 08:55:14.236,-0.04381734,-0.047570042,0.046679724,-0.06650688,0.0018539411,-0.041270696,0.0,0.0,0.0,0.0015109953,-0.03356154,0.11847186,-0.09309035,0.028512174,-0.03130545,0.041228604,-0.011969472,-0.16316016,-0.10500663,-0.020885905,-0.055599805,-0.055673882,-0.008501481,0.062465664,0.05647304,-0.052472647,0.06760146,0.0034777194,0.02386431,-0.05449426,-0.018512918,-0.05203322,0.041013885,0.060049277,0.5808663,0.76637304,-1.520587,0.60523975,-0.07562345,0.13204983,-0.2883251,-0.7254078,-0.5618907,-0.92639875,0.050129496,-1.4940666,0.36309683,0.2538557,-1.9849101,0.49056238,-0.15502854,0.2759031,-0.3875036,-0.47579503,-0.4201438,-0.66856617,-0.034046374,-1.8686789
2025-06-06 08:55:14.256,0.023998382,-0.0671967,-0.005666757,-0.036765892,-0.05942122,0.042785108,0.0,0.0,0.0,0.0011664582,-0.025884112,0.105151415,-0.102855474,0.03556703,-0.025705514,0.045522906,-0.0051482366,-0.15781602,-0.0900053,-0.024192564,-0.04022667,-0.05018301,0.00036503954,-0.055476394,-0.022920484,-0.065026715,-0.06889999,0.07493744,0.058605257,0.06801955,0.022568213,0.026567237,0.005135938,-0.0017219383,0.36309683,0.2538557,-1.9849101,0.49056238,-0.15502854,0.2759031,-0.3875036,-0.47579503,-0.4201438,-0.66856617,-0.034046374,-1.8686789,0.2642012,0.7478972,-1.6684662,0.9444772,-0.020766784,0.07856234,-0.52450466,-0.46800613,-0.34488395,-0.8425628,-0.22567973,-1.8162638
2025-06-06 08:55:14.276,0.0014701498,-0.0014076607,-0.014052467,-0.041070804,-0.049730763,-0.036240995,0.0,0.0,0.0,0.0017130909,-0.03604254,0.10891239,-0.10326977,0.032850802,-0.020606803,0.044823896,-0.011786127,-0.15162666,-0.08560352,-0.014393454,-0.032683562,-0.06282833,-0.049030263,0.056818295,-0.06800027,0.061306268,0.045632303,-0.07300786,-0.006494506,0.064589776,0.079660684,0.07466668,-0.018439779,-0.01580085,0.2642012,0.7478972,-1.6684662,0.9444772,-0.020766784,0.07856234,-0.52450466,-0.46800613,-0.34488395,-0.8425628,-0.22567973,-1.8162638,0.2317503,0.71375865,-1.4159734,0.8790353,-0.052102596,-0.22937977,-0.5983246,-0.5650028,-0.6220099,-0.70767343,-0.25876597,-1.6400598
2025-06-06 08:55:14.297,-0.03912531,-0.015476805,0.0136235915,-0.0645637,-0.013994573,-0.043963592,0.0,0.0,0.0,0.0024347487,-0.021772077,0.11546433,-0.10137438,0.021880073,-0.017103447,0.042064805,-0.010773367,-0.15831785,-0.09246279,-0.015561815,-0.032575194,-0.06904712,-0.053312026,-0.029426945,-0.070863515,0.045917787,-0.008584346,0.038146693,-0.066989645,-0.052497968,0.025950147,-0.030757714,0.067758605,-0.0021198315,0.2317503,0.71375865,-1.4159734,0.8790353,-0.052102596,-0.22937977,-0.5983246,-0.5650028,-0.6220099,-0.70767343,-0.25876597,-1.6400598,0.3006693,0.6387448,-1.5364187,0.5435345,-0.15904187,-0.009531207,-0.55063576,-0.6106458,-0.6624262,-0.6397611,-0.13818547,-1.4028635
2025-06-06 08:55:14.320,-0.05783731,0.04351432,-0.04138328,-0.025882734,-0.023277136,0.023679547,0.0,0.0,0.0,0.0027231888,-0.02011008,0.10692802,-0.09865939,0.020014867,-0.025141636,0.029834436,-0.023029817,-0.160025,-0.10068076,-0.012799144,-0.029890936,-0.0553889,0.041343924,-0.04811491,-0.0023521704,0.012403349,0.061105397,-0.02273796,-0.050754525,-0.051646985,0.023571009,-0.018016897,0.00023549318,-0.04338232,0.3006693,0.6387448,-1.5364187,0.5435345,-0.15904187,-0.009531207,-0.55063576,-0.6106458,-0.6624262,-0.6397611,-0.13818547,-1.4028635,0.48740655,0.6475699,-1.3289636,0.7653833,-0.091929585,-0.09739463,-0.5169287,-0.48111954,-0.8515614,-0.89658964,-0.31731704,-1.3680737
2025-06-06 08:55:14.337,-0.023861237,-0.021053145,0.056601558,-0.08789273,-0.0502694,0.047986645,0.0,0.0,0.0,0.0029200907,-0.03214329,0.11343684,-0.10418041,0.022815013,-0.028633865,0.032880295,-0.014759011,-0.16471693,-0.12313264,-0.016376082,-0.04478856,-0.051642347,-0.026259618,0.017734956,0.03515171,0.0014830355,0.010691362,-0.008233225,0.0056536957,0.04447417,0.0054088808,0.037130225,0.0121438,-0.023403745,0.48740655,0.6475699,-1.3289636,0.7653833,-0.091929585,-0.09739463,-0.5169287,-0.48111954,-0.8515614,-0.89658964,-0.31731704,-1.3680737,0.35059744,0.44146955,-1.7894449,0.5129023,-0.1357253,0.31238362,-0.16499041,-0.68203634,-0.56255955,-0.76320827,0.09610403,-1.6484333
2025-06-06 08:55:14.357,0.0075793727,-0.058373388,-0.021937214,-0.10771304,-0.035579212,0.025527438,0.0,0.0,0.0,0.002750166,-0.027699156,0.107666984,-0.09810773,0.019021126,-0.026835414,0.052869495,0.00051394966,-0.17048387,-0.1087374,-0.0069633727,-0.05385769,-0.045663632,-0.028000908,0.035207234,-0.062374696,0.012805276,-0.04531749,0.044704285,-0.033662137,0.00017478495,-0.024993913,0.0034969528,0.052492756,-0.03341668,0.35059744,0.44146955,-1.7894449,0.5129023,-0.1357253,0.31238362,-0.16499041,-0.68203634,-0.56255955,-0.76320827,0.09610403,-1.6484333,0.47145876,0.48619744,-1.613688,0.9365091,-0.035341762,0.019851454,-0.5458495,-0.45192707,-0.3647457,-0.8696865,-0.4031556,-1.7471317
2025-06-06 08:55:14.377,0.009716042,-0.012799777,0.03500565,-0.101532966,0.005917722,0.0141273625,0.0,0.0,0.0,0.0032171672,-0.035651874,0.11481504,-0.11307131,0.020972347,-0.03669499,0.04752492,-0.0010146105,-0.15934256,-0.10996849,-0.014332628,-0.05436029,-0.051157136,0.030939288,-0.061567184,-0.028226048,0.04011272,-0.06856637,0.0285571,0.040909477,-0.043105662,-0.029045274,0.07636578,0.06200659,0.008005715,0.47145876,0.48619744,-1.613688,0.9365091,-0.035341762,0.019851454,-0.5458495,-0.45192707,-0.3647457,-0.8696865,-0.4031556,-1.7471317,0.066250645,0.65636116,-1.8769239,0.6942156,-0.13322617,0.3001442,-0.36808172,-0.541106,-0.16233423,-0.71562874,0.13417739,-1.8089217
2025-06-06 08:55:14.397,0.04367903,-0.03151255,-0.018599363,-0.03757218,-0.059319243,0.019039031,0.0,0.0,0.0,0.0036496397,-0.03153757,0.11295924,-0.104896866,0.026820444,-0.025799768,0.057529163,-0.0021466669,-0.15471466,-0.09252627,-0.020758599,-0.047321673,-0.053790458,-0.027677318,0.022018647,0.02839752,0.036827322,0.079107456,0.08200517,-0.0052371155,-0.05147255,-0.006137928,0.005638334,0.072945744,0.028560618,0.066250645,0.65636116,-1.8769239,0.6942156,-0.13322617,0.3001442,-0.36808172,-0.541106,-0.16233423,-0.71562874,0.13417739,-1.8089217,0.10802955,0.61053604,-1.8145792,0.90330297,-0.055620942,-0.084631525,-0.6843724,-0.4692686,-0.4117339,-0.58048475,-0.27470502,-1.9156169
2025-06-06 08:55:14.490,-0.03719836,-0.014631987,-0.04830668,-0.106148325,0.019662831,-0.012874487,0.0,0.0,0.0,0.0045072204,-0.047883727,0.10200218,-0.10281049,0.014255841,-0.025751993,0.0563944,-0.010199368,-0.15106598,-0.06988375,-0.01296397,-0.040909775,-0.05900282,-0.020467598,0.068444744,0.02976939,-0.041398346,0.061445836,0.049066156,-0.054661453,0.068701394,-0.050105013,0.026463715,0.07363961,0.054518253,0.10802955,0.61053604,-1.8145792,0.90330297,-0.055620942,-0.084631525,-0.6843724,-0.4692686,-0.4117339,-0.58048475,-0.27470502,-1.9156169,0.29832712,0.8635896,-1.2567855,0.88932425,-0.053382386,-0.36609837,-0.7626287,-0.53762794,-0.69903624,-0.6670619,-0.40542302,-1.5218408
2025-06-06 08:55:14.507,-0.024617614,0.08657722,0.048790403,-0.11960187,0.030347904,0.029035935,0.0,0.0,0.0,0.0054174466,-0.031212367,0.10660905,-0.12717384,0.027703151,-0.03212926,0.058343455,-0.013000729,-0.15439905,-0.09374491,-0.00668007,-0.04667237,-0.05212997,0.044976704,0.055595037,0.05312394,-0.0002927705,-0.060553916,-0.017418845,0.015669985,-0.067668475,0.0321883,0.0133086825,0.043650307,-0.03305202,0.29832712,0.8635896,-1.2567855,0.88932425,-0.053382386,-0.36609837,-0.7626287,-0.53762794,-0.69903624,-0.6670619,-0.40542302,-1.5218408,0.23916806,0.5576665,-1.6994054,0.2706564,-0.22479913,0.22887668,-0.37424424,-0.7229426,-0.7686086,-0.4983197,0.09512616,-1.3886584
2025-06-06 08:55:14.548,-0.024420662,0.025325878,-0.045173675,-0.102290526,-0.043283876,0.043037236,0.0,0.0,0.0,0.0054041226,-0.043609396,0.10778432,-0.1329914,0.013257677,-0.030553611,0.04892788,-0.021096999,-0.16023181,-0.09467268,-0.0023138046,-0.049350295,-0.049459368,-0.037632022,0.04516724,0.061225306,0.047479205,0.051759087,0.012617412,0.028975159,-0.02554423,-0.09248446,0.016338509,0.02543264,0.053487007,0.23916806,0.5576665,-1.6994054,0.2706564,-0.22479913,0.22887668,-0.37424424,-0.7229426,-0.7686086,-0.4983197,0.09512616,-1.3886584,0.3544159,0.4957686,-1.3489859,0.7528549,-0.014986475,-0.036315896,-0.53252584,-0.37221673,-0.7424655,-0.7561015,-0.42282984,-1.4202251
2025-06-06 08:55:14.564,-0.010702024,0.058812547,0.057027556,-0.04083493,0.03215933,-0.00966691,0.0,0.0,0.0,0.0056680324,-0.03833351,0.11538755,-0.12882267,0.021614762,-0.041048713,0.046380833,-0.013127895,-0.15176442,-0.1175394,-0.0014393375,-0.03890368,-0.0393969,-0.069494694,0.002709707,-0.012869496,-0.056873888,0.02075442,-0.06271071,0.063518666,0.08450349,0.019200055,-0.06577279,-0.01830688,0.043693244,0.3544159,0.4957686,-1.3489859,0.7528549,-0.014986475,-0.036315896,-0.53252584,-0.37221673,-0.7424655,-0.7561015,-0.42282984,-1.4202251,0.14788172,0.6379918,-1.5862514,0.54076034,-0.09952016,0.23200566,-0.25331083,-0.60509944,-0.47668675,-0.72170174,0.10478922,-1.5460998
2025-06-06 08:55:14.586,0.08113008,-0.08786244,-0.048113305,-0.11544231,-0.0012586038,-0.016815793,0.0,0.0,0.0,0.0056963563,-0.046287585,0.118775554,-0.12499829,0.022361692,-0.036116596,0.05819929,-0.002318758,-0.15415236,-0.10223025,-0.011696526,-0.039143186,-0.050202135,0.040521175,0.06626244,0.04309845,0.05565435,-0.0015872602,-0.009303592,0.049041446,-0.04248494,0.008328263,-0.023899399,0.007261356,0.06355908,0.14788172,0.6379918,-1.5862514,0.54076034,-0.09952016,0.23200566,-0.25331083,-0.60509944,-0.47668675,-0.72170174,0.10478922,-1.5460998,0.4429447,0.5420302,-1.3884393,0.88863987,-0.063981526,-0.22274846,-0.5794135,-0.42775086,-0.71226156,-0.8360427,-0.48311004,-1.5103347
2025-06-06 08:55:14.604,-0.050190676,0.08093703,0.04084111,-0.09213152,-0.042140257,0.03923988,0.0,0.0,0.0,0.0059777466,-0.034908403,0.104099326,-0.115257025,0.022583323,-0.04654105,0.05330156,-0.013200991,-0.1506676,-0.104304105,-0.010310647,-0.053688888,-0.046551604,-0.069345325,-0.03294909,-0.048402645,0.058970578,-0.03291269,-0.0060594506,-0.068491615,0.066507585,-0.024188751,0.07066944,0.033090733,-0.010142695,0.4429447,0.5420302,-1.3884393,0.88863987,-0.063981526,-0.22274846,-0.5794135,-0.42775086,-0.71226156,-0.8360427,-0.48311004,-1.5103347,0.32121706,0.64242166,-1.497639,0.63948745,-0.07873112,0.16321355,-0.32709643,-0.67484456,-0.59240085,-0.793854,-0.020973213,-1.4663619
2025-06-06 08:55:14.624,0.06035189,-0.03001451,0.03081958,-0.12356423,0.007934186,0.017052975,0.0,0.0,0.0,0.005697477,-0.03338399,0.10795932,-0.11854443,0.015041702,-0.040758356,0.06170146,-0.00054595986,-0.15729813,-0.110861234,-0.0056099077,-0.051228207,-0.03116047,0.04899122,0.0045056148,0.040666107,0.022087758,0.042165823,0.05391622,0.005847697,0.015536357,0.001520953,0.032474156,0.050244845,0.018013105,0.32121706,0.64242166,-1.497639,0.63948745,-0.07873112,0.16321355,-0.32709643,-0.67484456,-0.59240085,-0.793854,-0.020973213,-1.4663619,0.24039903,0.3511736,-1.938699,0.597657,-0.15089093,0.28873926,-0.34068057,-0.532107,-0.32093677,-0.6639112,-0.035719134,-1.827546
2025-06-06 08:55:14.644,0.0036702727,-0.008281933,-0.05750811,-0.11414583,-0.055420663,-0.042205576,0.0,0.0,0.0,0.005404955,-0.039779693,0.11427626,-0.10437443,0.01697257,-0.042781875,0.07175204,-0.0050716265,-0.1558415,-0.10739588,-0.012713163,-0.039921965,-0.04492548,0.018938623,0.0027351736,0.04553502,0.003379147,-0.06940168,0.032236617,0.055884544,0.047641013,-0.001465064,-0.04478595,-0.00709223,0.012320533,0.24039903,0.3511736,-1.938699,0.597657,-0.15089093,0.28873926,-0.34068057,-0.532107,-0.32093677,-0.6639112,-0.035719134,-1.827546,0.5281058,0.77596,-1.2930255,1.1609169,0.041655827,-0.25669277,-0.67257947,-0.39777756,-0.6355284,-1.0256258,-0.563422,-1.6656836
2025-06-06 08:55:14.668,0.022682125,0.04916714,0.04898977,-0.11014821,-0.055048626,-0.03379306,0.0,0.0,0.0,0.0057934653,-0.048764426,0.11410829,-0.101654544,0.020549031,-0.042419493,0.058823176,-0.0024649242,-0.14550467,-0.109141655,-0.006957393,-0.045445316,-0.033497795,0.06010903,0.01218216,-0.024917206,-0.03979131,0.049586046,-0.08795446,-0.0058119223,-0.017857872,-0.059429284,0.029018821,-0.08093237,-0.0014081623,0.5281058,0.77596,-1.2930255,1.1609169,0.041655827,-0.25669277,-0.67257947,-0.39777756,-0.6355284,-1.0256258,-0.563422,-1.6656836,0.2987798,0.6565775,-1.6603067,0.5729912,-0.11616014,0.13354987,-0.3385091,-0.6821472,-0.5170133,-0.7315736,0.12500319,-1.579294
2025-06-06 08:55:14.686,0.0708178,-0.0697063,-0.013164603,-0.12267571,0.017426718,0.000599358,0.0,0.0,0.0,0.005349367,-0.03604549,0.10930664,-0.10128798,0.012931006,-0.029002918,0.06483386,0.0032879778,-0.15065189,-0.10889527,-0.02442801,-0.038318846,-0.040547166,0.038076654,0.050302926,-0.015216034,-0.016178291,0.045478538,-0.043891054,0.004400075,-0.09367406,-0.0099310465,-0.05958022,0.04542672,0.027258715,0.2987798,0.6565775,-1.6603067,0.5729912,-0.11616014,0.13354987,-0.3385091,-0.6821472,-0.5170133,-0.7315736,0.12500319,-1.579294,0.36133763,0.44098988,-1.6882727,0.7376599,-0.12501128,-0.0068197325,-0.5508388,-0.45057604,-0.51639384,-0.7647194,-0.28846475,-1.6491452
2025-06-06 08:55:14.704,-0.018565122,0.0685272,-0.029721113,-0.111022584,-0.026073257,0.033520658,0.0,0.0,0.0,0.0049851523,-0.044811834,0.118018866,-0.10832701,0.013029701,-0.041625265,0.059592247,-0.0007547494,-0.1561071,-0.105194375,-0.014225111,-0.05364636,-0.03795802,0.055183392,0.04876719,0.02512172,-0.069818035,-0.004517985,-0.0446214,-0.047402315,0.08254328,0.014120769,0.04717309,-0.027012238,0.010760178,0.36133763,0.44098988,-1.6882727,0.7376599,-0.12501128,-0.0068197325,-0.5508388,-0.45057604,-0.51639384,-0.7647194,-0.28846475,-1.6491452,0.51042175,0.7315747,-1.3011434,0.9801726,-0.03960992,-0.15575212,-0.5057273,-0.55037445,-0.7652542,-0.9800687,-0.35648903,-1.5079811
2025-06-06 08:55:14.724,0.0057861563,0.06034,0.05393016,-0.06314466,0.0067037856,-0.034719113,0.0,0.0,0.0,0.004749083,-0.042768084,0.10905351,-0.1038073,0.01633961,-0.039853077,0.050543934,-0.0025310162,-0.15542668,-0.103964366,-0.012170366,-0.055039633,-0.03810961,0.03047816,0.023724651,0.024336489,0.017283747,0.056458108,-0.048415083,-0.03602168,-0.06689863,-0.088208504,0.019186223,-0.056029554,0.004548989,0.51042175,0.7315747,-1.3011434,0.9801726,-0.03960992,-0.15575212,-0.5057273,-0.55037445,-0.7652542,-0.9800687,-0.35648903,-1.5079811,0.28800148,0.46120524,-1.803581,0.44149828,-0.13070072,0.30323052,-0.30723533,-0.5964668,-0.45242995,-0.66118777,0.1492824,-1.5721539
2025-06-06 08:55:14.745,0.062378693,-0.01960047,0.029900823,-0.07395626,-0.029973706,0.0064173564,0.0,0.0,0.0,0.0039615706,-0.04517381,0.11091716,-0.119058475,0.024737617,-0.041311678,0.053138085,-0.011682385,-0.15046604,-0.106817484,-0.022497758,-0.048900034,-0.043872997,-0.037756056,0.031972393,0.019834477,-0.06170086,0.053921282,-0.009186239,0.058793623,-0.040964756,0.030930858,0.04818872,0.01006095,0.011484413,0.28800148,0.46120524,-1.803581,0.44149828,-0.13070072,0.30323052,-0.30723533,-0.5964668,-0.45242995,-0.66118777,0.1492824,-1.5721539,-0.0024328735,0.41728696,-2.0319407,0.67777795,-0.11022064,0.2895523,-0.40417194,-0.4041636,-0.21118748,-0.6183057,-0.027233325,-1.8884016
2025-06-06 08:55:14.767,-0.026293755,-0.025616536,-0.07132131,-0.044356048,0.0051560844,-0.03026544,0.0,0.0,0.0,0.0038128605,-0.045471545,0.11271164,-0.102038294,0.027400712,-0.040491644,0.05566666,-0.0057728123,-0.14606638,-0.08943008,-0.025499195,-0.04419687,-0.05932456,0.05813596,0.067188025,-0.074108444,-0.04292325,0.032367114,0.077902496,0.05699799,0.060444668,0.030822419,-0.020443363,-0.029069789,0.046401326,-0.0024328735,0.41728696,-2.0319407,0.67777795,-0.11022064,0.2895523,-0.40417194,-0.4041636,-0.21118748,-0.6183057,-0.027233325,-1.8884016,0.3902298,0.8563158,-1.2240872,1.2611326,0.05855726,-0.43044865,-0.7683983,-0.43859395,-0.6677485,-0.9147454,-0.636482,-1.7372562
2025-06-06 08:55:14.786,0.010710549,0.07952517,0.06357485,-0.029609969,-0.049442153,0.034602437,0.0,0.0,0.0,0.0046190848,-0.038832452,0.12223808,-0.10311228,0.022087477,-0.030011917,0.05464289,-0.0075767753,-0.14504893,-0.09879298,-0.020101152,-0.035496194,-0.060907762,0.025510432,0.027457397,-0.06481313,0.03194759,-0.050277352,-0.055332914,-0.09047822,0.011288949,-0.042500373,-0.061245542,-0.03840921,0.031437304,0.3902298,0.8563158,-1.2240872,1.2611326,0.05855726,-0.43044865,-0.7683983,-0.43859395,-0.6677485,-0.9147454,-0.636482,-1.7372562,0.358096,0.7917056,-1.4293565,0.4360366,-0.0845143,-0.017714478,-0.4745997,-0.7264317,-0.75837344,-0.59520996,0.066720285,-1.3621341
2025-06-06 08:55:14.805,0.054492496,-0.02116858,0.060135797,-0.054389067,-0.059690878,0.043710716,0.0,0.0,0.0,0.0044360925,-0.040991742,0.11461983,-0.11116203,0.024178358,-0.026480386,0.050532423,-0.0081760455,-0.14200252,-0.10494699,-0.021851825,-0.044720963,-0.049633402,0.02646673,0.07522332,0.037595265,-0.046808854,-0.061326813,-0.044026565,-0.0020447096,-0.042686407,0.0075384113,0.045346055,-0.037710894,0.039749112,0.358096,0.7917056,-1.4293565,0.4360366,-0.0845143,-0.017714478,-0.4745997,-0.7264317,-0.75837344,-0.59520996,0.066720285,-1.3621341,0.28469712,0.31021932,-1.7398837,0.21589176,-0.1648004,0.21452814,-0.3594138,-0.5316243,-0.73548853,-0.4884652,0.012247331,-1.5528913
2025-06-06 08:55:14.825,0.038627084,-0.01854747,-0.008503665,-0.040935747,-0.060589362,-0.013651042,0.0,0.0,0.0,0.0040201466,-0.04247455,0.12114669,-0.11923294,0.015653905,-0.026431916,0.043821186,-0.012671149,-0.16496064,-0.10823676,-0.011348012,-0.032632597,-0.05907081,-0.0076487516,-0.07577769,-0.04196417,0.03577972,0.0615887,0.0231003,-0.063411094,-0.072386,-0.07200625,-0.07013662,-0.029859351,0.026864136,0.28469712,0.31021932,-1.7398837,0.21589176,-0.1648004,0.21452814,-0.3594138,-0.5316243,-0.73548853,-0.4884652,0.012247331,-1.5528913,0.24794777,0.6108838,-1.4734722,0.71735996,-0.02542318,0.0945041,-0.47904247,-0.39151135,-0.44540986,-0.75791156,-0.20809418,-1.5132669
2025-06-06 08:55:14.845,0.03282932,0.014289941,0.021574812,-0.06953975,0.0061879973,0.032931544,0.0,0.0,0.0,0.0043867365,-0.035231743,0.11556569,-0.10198854,0.014542745,-0.022232527,0.057070248,-0.016890192,-0.14593501,-0.11123776,-0.01941751,-0.030298552,-0.0533807,0.05585546,-0.026994742,0.019630425,-0.024985204,-0.050061997,-0.015053584,-0.058159295,0.048251286,0.08618411,0.054392356,0.04329947,0.000722531,0.24794777,0.6108838,-1.4734722,0.71735996,-0.02542318,0.0945041,-0.47904247,-0.39151135,-0.44540986,-0.75791156,-0.20809418,-1.5132669,0.24264063,0.5865731,-1.5868282,0.6777336,-0.1594717,0.05419317,-0.35420457,-0.62211335,-0.5873716,-0.7188884,-0.07738639,-1.6472267
2025-06-06 08:55:14.869,0.051077586,0.024208987,0.01270355,-0.045391563,-0.031756613,0.026807329,0.0,0.0,0.0,0.0048208847,-0.04036077,0.103698015,-0.10684455,0.030134097,-0.031326886,0.063736215,-0.0051809633,-0.15513499,-0.10948317,-0.010787118,-0.035019536,-0.04963655,0.04451106,-0.024983488,0.020991212,-0.051640496,-0.07285586,-0.028420066,-0.0077253873,0.0332252,-0.052279353,0.02902485,0.06670719,0.0602633,0.24264063,0.5865731,-1.5868282,0.6777336,-0.1594717,0.05419317,-0.35420457,-0.62211335,-0.5873716,-0.7188884,-0.07738639,-1.6472267,0.2525757,0.5835889,-1.6160431,0.6324058,-0.11064045,0.07351843,-0.49296555,-0.5043789,-0.60773176,-0.64414495,-0.124397986,-1.550154
2025-06-06 08:55:14.886,-0.04480791,0.050642036,-0.039887078,-0.12505904,-0.029201431,0.0017956763,0.0,0.0,0.0,0.005257957,-0.033821143,0.11008023,-0.113704965,0.010233215,-0.032888006,0.058217,-0.015520008,-0.1454508,-0.10468436,-0.002044261,-0.029799424,-0.06308665,-0.07491001,0.048786078,0.06513982,-0.022174224,-0.011059673,0.06620737,-0.060248606,-0.016162267,0.0093899965,-0.06431081,0.06382678,0.05851635,0.2525757,0.5835889,-1.6160431,0.6324058,-0.11064045,0.07351843,-0.49296555,-0.5043789,-0.60773176,-0.64414495,-0.124397986,-1.550154,0.5524699,0.6402154,-1.316698,0.9048168,-0.051978327,-0.22445145,-0.6069257,-0.5030387,-0.7967266,-0.8704621,-0.45628044,-1.5030047
2025-06-06 08:55:14.905,0.0205136,0.028057447,0.055866044,-0.124217734,-0.029075876,0.029869843,0.0,0.0,0.0,0.0057247723,-0.047481257,0.1163139,-0.11194544,0.015212463,-0.029709566,0.057046726,-0.012825379,-0.1509023,-0.12611991,-0.0120220985,-0.03925551,-0.039161354,-0.043112047,-0.07767418,0.0427604,-0.031685125,0.049964026,-0.028646896,-0.08190657,0.013001217,0.041354634,-0.027376324,-0.05735793,0.079433,0.5524699,0.6402154,-1.316698,0.9048168,-0.051978327,-0.22445145,-0.6069257,-0.5030387,-0.7967266,-0.8704621,-0.45628044,-1.5030047,0.3741952,0.57776374,-1.731753,0.49991292,-0.09981746,0.26611865,-0.23208931,-0.65775925,-0.56921047,-0.7898942,0.12038457,-1.614817
2025-06-06 08:55:14.925,-0.0076742405,-0.031430185,-0.013981594,-0.04748763,0.022456957,-0.024803363,0.0,0.0,0.0,0.005459814,-0.0327039,0.09828406,-0.102370195,0.015667256,-0.041596133,0.06661406,-0.009265378,-0.15143904,-0.107309684,-0.012354968,-0.049926877,-0.039609153,-0.005618868,-0.0728057,-0.017198285,-0.045985468,0.03904011,-0.061034918,-0.036529005,-0.008540351,0.08268701,-0.05446178,-0.061953567,-0.05645058,0.3741952,0.57776374,-1.731753,0.49991292,-0.09981746,0.26611865,-0.23208931,-0.65775925,-0.56921047,-0.7898942,0.12038457,-1.614817,0.3856542,0.4874413,-1.6505873,0.85409564,-0.056702618,0.01615157,-0.50103194,-0.43739578,-0.49962595,-0.89985764,-0.338047,-1.6947573
2025-06-06 08:55:14.945,-0.049136285,0.07302722,0.01550907,-0.122561306,-0.033723246,0.025092337,0.0,0.0,0.0,0.0055528632,-0.03068711,0.113048516,-0.09938401,0.021256635,-0.027796471,0.050532512,-0.007104084,-0.16041805,-0.10546656,-0.011410688,-0.045208346,-0.053543113,-0.050487433,0.06470089,-0.038408298,0.05668835,0.0710932,-0.060511686,-0.038868945,0.017687688,0.04471494,0.0073434487,0.043507557,0.078185625,0.3856542,0.4874413,-1.6505873,0.85409564,-0.056702618,0.01615157,-0.50103194,-0.43739578,-0.49962595,-0.89985764,-0.338047,-1.6947573,0.18693918,0.64788836,-1.592952,0.8306553,-0.07809975,0.0678092,-0.41104445,-0.58259743,-0.47867504,-0.832778,-0.12501156,-1.6666656
2025-06-06 08:55:14.969,-0.012628084,-0.0076726703,-0.02305267,-0.051346783,-0.057368163,-0.00065538456,0.0,0.0,0.0,0.005629272,-0.036828276,0.10350216,-0.098986976,0.024546616,-0.026677426,0.053719945,-0.0061976607,-0.16200677,-0.10618946,-0.008767054,-0.042145584,-0.049686596,-0.013564267,-0.048077658,0.064584866,-0.05524755,0.06205511,-0.07036551,-0.025504136,-0.018885009,0.022003388,-0.011247132,0.045051128,-0.06848328,0.18693918,0.64788836,-1.592952,0.8306553,-0.07809975,0.0678092,-0.41104445,-0.58259743,-0.47867504,-0.832778,-0.12501156,-1.6666656,0.23327592,0.650648,-1.6118945,0.8028638,-0.094386406,-0.0637651,-0.5473523,-0.49814394,-0.5175935,-0.78315556,-0.25019035,-1.580712
2025-06-06 08:55:14.985,-0.043228827,0.025833746,-0.021522049,-0.06641335,0.012986316,-0.03726639,0.0,0.0,0.0,0.0056398157,-0.032393213,0.10340418,-0.10847068,0.026233464,-0.022762917,0.04970082,-0.017039536,-0.16156311,-0.104150265,-0.018975979,-0.04935178,-0.040481266,-0.072391696,0.017548958,-0.035789337,0.06421434,0.0009669005,0.012478419,-0.04978537,0.009774375,0.0027445927,0.028649265,0.06753219,-0.056490432,0.23327592,0.650648,-1.6118945,0.8028638,-0.094386406,-0.0637651,-0.5473523,-0.49814394,-0.5175935,-0.78315556,-0.25019035,-1.580712,0.38705754,0.66879517,-1.3721138,0.9064298,-0.0885867,-0.16426885,-0.55000246,-0.5796453,-0.6832154,-0.8650307,-0.3375468,-1.4962076
2025-06-06 08:55:15.005,0.0071261358,0.057397537,0.020960124,-0.077074304,0.001577402,-0.010609567,0.0,0.0,0.0,0.0054589645,-0.028541073,0.10652886,-0.10882673,0.015466718,-0.040000506,0.050643776,-0.016837023,-0.16440916,-0.102798864,-0.014139019,-0.057172496,-0.045518562,-0.014287101,-0.026586631,0.014474559,0.06637498,0.0072344057,-0.020950662,-0.016376514,-0.03844932,-0.04707395,0.06420445,-0.02524784,0.037622273,0.38705754,0.66879517,-1.3721138,0.9064298,-0.0885867,-0.16426885,-0.55000246,-0.5796453,-0.6832154,-0.8650307,-0.3375468,-1.4962076,0.31947356,0.58807606,-1.5736651,0.582426,-0.112521216,0.13667473,-0.36993095,-0.5832352,-0.63035184,-0.7828929,-0.050354652,-1.432748
2025-06-06 08:55:15.026,0.008896959,-0.048053198,0.05270752,-0.05674643,-0.017872171,-0.015060608,0.0,0.0,0.0,0.0047977455,-0.04312192,0.10612105,-0.11499605,0.02460231,-0.02993645,0.05515656,-0.00942356,-0.15842167,-0.10413684,-0.005456273,-0.060530223,-0.032582197,0.016188659,0.045435227,0.0010784095,-0.017110396,-0.012136115,0.07047081,0.032974526,0.040568642,-0.058636773,0.023154905,0.049973596,0.028449764,0.31947356,0.58807606,-1.5736651,0.582426,-0.112521216,0.13667473,-0.36993095,-0.5832352,-0.63035184,-0.7828929,-0.050354652,-1.432748,0.19579996,0.3937373,-1.9040177,0.597828,-0.13429375,0.31153643,-0.31989536,-0.5449572,-0.34236154,-0.6243973,0.024200298,-1.8241123
2025-06-06 08:55:15.045,0.008895605,-0.037921518,-0.053272102,-0.042826593,0.028003937,0.041213065,0.0,0.0,0.0,0.0043173637,-0.042064052,0.11174518,-0.103414916,0.023632377,-0.03787099,0.041830506,-0.0043480005,-0.16182621,-0.10453695,-0.0064956476,-0.052539036,-0.035612844,0.0027743003,0.061626226,0.057174988,0.014603118,-0.037956078,0.066032894,0.00020641818,0.0275928,0.010214385,-0.03294188,-0.0046330793,-0.07204687,0.19579996,0.3937373,-1.9040177,0.597828,-0.13429375,0.31153643,-0.31989536,-0.5449572,-0.34236154,-0.6243973,0.024200298,-1.8241123,0.462923,0.7265202,-1.4984264,1.0547088,0.0046002744,-0.17023611,-0.69086236,-0.45680568,-0.45919788,-0.888216,-0.4896919,-1.7457762
2025-06-06 08:55:15.069,-0.07268678,0.064688504,0.014415882,-0.121621355,0.0043458263,-0.047048893,0.0,0.0,0.0,0.0047162184,-0.04562941,0.1003376,-0.09924971,0.024634086,-0.034165688,0.053785894,0.002141721,-0.15187211,-0.09621675,-0.0064122444,-0.038333878,-0.037934147,0.011003645,0.07221249,0.04476171,0.067373484,-0.05263003,0.05136654,0.015766583,-0.04351021,-0.013076399,-0.026645264,-0.052298725,-1.843288e-05,0.462923,0.7265202,-1.4984264,1.0547088,0.0046002744,-0.17023611,-0.69086236,-0.45680568,-0.45919788,-0.888216,-0.4896919,-1.7457762,0.36363325,0.7047624,-1.6412008,0.7054489,-0.10828008,0.0611649,-0.469306,-0.65405506,-0.5302382,-0.7896539,-0.086770855,-1.657442
2025-06-06 08:55:15.086,0.04606283,-0.04244157,0.025319785,-0.07711934,0.013056864,-0.005048602,0.0,0.0,0.0,0.0046716803,-0.027943587,0.11516821,-0.11378771,0.031658716,-0.034830254,0.053377073,-0.010513954,-0.15460144,-0.09831993,-0.014733827,-0.049841966,-0.043097716,0.009682284,0.00057155837,0.00054070674,-0.014512874,0.046212457,0.0011852148,-0.07464602,-0.0873628,0.03683919,-0.028911088,-0.028292459,-0.06730341,0.36363325,0.7047624,-1.6412008,0.7054489,-0.10828008,0.0611649,-0.469306,-0.65405506,-0.5302382,-0.7896539,-0.086770855,-1.657442,0.30268604,0.4787962,-1.8342242,0.68420476,-0.11737891,0.1292715,-0.51745975,-0.53276575,-0.4201981,-0.68190336,-0.11103343,-1.7344629
2025-06-06 08:55:15.106,-0.025747152,-0.047994595,0.026628371,-0.055258602,0.009713121,0.021676455,0.0,0.0,0.0,0.0044683227,-0.028967166,0.110496975,-0.10754416,0.03000299,-0.024818825,0.045656797,-0.008340919,-0.15622666,-0.08047236,-0.018844716,-0.037175186,-0.056755956,0.05890288,0.022137458,0.06539024,-0.04125643,-0.045085493,-0.002302067,0.031179605,-0.03867128,0.06323218,0.012265609,0.0002201906,-0.07884303,0.30268604,0.4787962,-1.8342242,0.68420476,-0.11737891,0.1292715,-0.51745975,-0.53276575,-0.4201981,-0.68190336,-0.11103343,-1.7344629,0.062770896,0.6074209,-1.8903577,0.6786551,-0.13426279,0.21976638,-0.45324227,-0.4942048,-0.33735022,-0.65280396,-0.003540717,-1.7545584
2025-06-06 08:55:15.126,0.028807376,-0.04613919,0.001436044,-0.11540187,-0.063711084,-0.026768526,0.0,0.0,0.0,0.0046485467,-0.04025807,0.11923699,-0.11296377,0.018865049,-0.02119817,0.041924685,-0.008390375,-0.16555095,-0.078243546,-0.015897848,-0.029853627,-0.058956128,0.05408449,0.0036939736,-0.0334501,-0.07201448,-0.05501006,-0.062162843,-0.04687757,0.040821467,0.04062643,-0.044794478,0.032649957,0.03160217,0.062770896,0.6074209,-1.8903577,0.6786551,-0.13426279,0.21976638,-0.45324227,-0.4942048,-0.33735022,-0.65280396,-0.003540717,-1.7545584,0.20883776,0.6641006,-1.4595039,0.9382821,-0.08212739,-0.18862182,-0.6126147,-0.50080657,-0.66064036,-0.6785686,-0.31638172,-1.6480541
2025-06-06 08:55:15.146,-0.026706096,0.012802697,-0.040716473,-0.08055805,0.027637824,-0.028907657,0.0,0.0,0.0,0.0053562955,-0.04771063,0.113204114,-0.12575926,0.030456329,-0.02005354,0.049960032,-0.016134968,-0.15670998,-0.09405246,-0.01633781,-0.036800995,-0.057640605,0.059125695,0.055336047,-0.022642748,0.037529152,-0.045517534,0.06339118,-0.009783208,0.022420382,-0.027003746,-0.0691622,0.044315606,-0.06767638,0.20883776,0.6641006,-1.4595039,0.9382821,-0.08212739,-0.18862182,-0.6126147,-0.50080657,-0.66064036,-0.6785686,-0.31638172,-1.6480541,0.61946094,0.76618046,-1.1557505,0.9048447,-0.06803953,-0.34057474,-0.70261157,-0.5570753,-0.8630564,-0.83723557,-0.41433161,-1.2647566
2025-06-06 08:55:15.169,-0.022797797,0.018177854,0.022978116,-0.12598202,0.025789855,-0.006021318,0.0,0.0,0.0,0.0057185786,-0.03551754,0.112973,-0.12416408,0.02042036,-0.021162795,0.048205886,-0.027620928,-0.14876914,-0.10874676,-0.0028283184,-0.04537505,-0.056561764,0.0045082644,-0.0069331457,-0.065889075,-0.012905046,0.035119396,-0.0362673,-0.015417277,-0.07695382,-0.096723735,0.037157264,-0.04462708,0.05670245,0.61946094,0.76618046,-1.1557505,0.9048447,-0.06803953,-0.34057474,-0.70261157,-0.5570753,-0.8630564,-0.83723557,-0.41433161,-1.2647566,0.55191875,0.5303132,-1.3910307,0.46714795,-0.09095386,0.110061936,-0.3261944,-0.5889241,-0.72072566,-0.8083018,-0.010700531,-1.2305719
2025-06-06 08:55:15.186,-0.012121554,-0.041537363,0.023080966,-0.057530567,0.021396007,-0.016261054,0.0,0.0,0.0,0.0050006653,-0.043682925,0.11765022,-0.12355044,0.037762698,-0.03008542,0.034549993,-0.0069824113,-0.15083773,-0.10973623,-0.012379632,-0.04927024,-0.048123114,-0.0013721208,0.041715033,0.05925288,-0.06747403,-0.072129965,-0.034654405,0.021637559,0.04873246,-0.057703335,-0.016304472,-0.041550703,0.04516402,0.55191875,0.5303132,-1.3910307,0.46714795,-0.09095386,0.110061936,-0.3261944,-0.5889241,-0.72072566,-0.8083018,-0.010700531,-1.2305719,0.6136571,0.3882291,-1.4026515,0.5956954,-0.059760258,0.045815796,-0.32642174,-0.44140917,-0.6645882,-0.89811254,-0.20573446,-1.4611616
2025-06-06 08:55:15.206,-0.011398721,-0.012451352,0.061960775,-0.03402698,-0.046097845,0.029225549,0.0,0.0,0.0,0.0042806054,-0.032709926,0.11154389,-0.11183835,0.025681127,-0.037980437,0.05751894,-0.00629208,-0.16146874,-0.12183886,-0.013789003,-0.048743177,-0.027485041,-0.055000212,-0.019600578,0.05739033,0.00052136974,-0.058809347,-0.043160398,0.06980626,0.055554505,0.06598261,0.026212718,-0.048507497,0.019376686,0.6136571,0.3882291,-1.4026515,0.5956954,-0.059760258,0.045815796,-0.32642174,-0.44140917,-0.6645882,-0.89811254,-0.20573446,-1.4611616,0.28119057,0.49355224,-1.8581185,0.5133882,-0.08829161,0.3826446,-0.12771101,-0.54628974,-0.39381653,-0.84599894,0.13398364,-1.7795131
2025-06-06 08:55:15.226,0.085521124,-0.036801122,-0.0270253,-0.10306713,-0.0559842,0.037045673,0.0,0.0,0.0,0.0037777575,-0.032473605,0.11692152,-0.10371232,0.031663667,-0.025776193,0.05042275,-0.0006025352,-0.15578447,-0.107635066,-0.018758174,-0.04338298,-0.047374066,0.012108012,-0.06530166,0.06432743,0.036836136,0.058427222,0.005753141,-0.0066277115,-0.021169327,0.067042336,-0.05813584,-0.030674925,0.0071234466,0.28119057,0.49355224,-1.8581185,0.5133882,-0.08829161,0.3826446,-0.12771101,-0.54628974,-0.39381653,-0.84599894,0.13398364,-1.7795131,0.32241905,0.59085876,-1.6523682,0.9906556,-0.03732193,-0.053707726,-0.5000015,-0.44300684,-0.46476874,-0.9200604,-0.33658892,-1.79329
2025-06-06 08:55:15.246,0.024847366,0.037541293,-0.047588795,-0.07520853,0.018308237,0.0047844434,0.0,0.0,0.0,0.004120006,-0.038945485,0.09963667,-0.085001625,0.018629618,-0.034982372,0.054222126,0.0074890205,-0.14157905,-0.10241882,-0.013313449,-0.050627038,-0.03688469,-0.0752882,0.029215362,0.048727974,0.06372363,-0.038735505,0.0031479362,-0.065030016,0.0029076654,0.022076037,0.07096641,0.021373045,0.06548154,0.32241905,0.59085876,-1.6523682,0.9906556,-0.03732193,-0.053707726,-0.5000015,-0.44300684,-0.46476874,-0.9200604,-0.33658892,-1.79329,0.46661273,0.8189314,-1.3549271,0.9778753,-0.05346113,-0.27016184,-0.54176503,-0.56885266,-0.7282382,-0.97593975,-0.3346766,-1.570722
2025-06-06 08:55:15.269,-0.021099402,0.029163258,0.03601806,-0.09153882,0.026846763,0.014716388,0.0,0.0,0.0,0.0043969094,-0.048004758,0.11789721,-0.10073893,0.019074047,-0.026111597,0.059163984,-0.013507373,-0.13853529,-0.09899923,-0.026924413,-0.045699522,-0.03760611,-0.06326681,-0.0663123,0.051112145,0.05664601,0.01868931,-0.02350818,-0.03601429,-0.06426382,-0.061423574,0.01640911,-0.06856502,-0.030387687,0.46661273,0.8189314,-1.3549271,0.9778753,-0.05346113,-0.27016184,-0.54176503,-0.56885266,-0.7282382,-0.97593975,-0.3346766,-1.570722,0.30062348,0.5363541,-1.6904325,0.49940866,-0.1387765,0.1647698,-0.34949794,-0.61031985,-0.6387252,-0.7574985,0.051389687,-1.4620906
2025-06-06 08:55:15.287,0.003435543,-0.02869098,0.03637198,-0.02844737,0.019697635,0.015651792,0.0,0.0,0.0,0.0038624797,-0.030208692,0.11583911,-0.10013724,0.028027076,-0.022623159,0.05471086,-0.008247033,-0.15319923,-0.10160947,-0.022954997,-0.043948017,-0.037708107,-0.062248506,0.06514459,0.059397954,-0.027844867,-0.032426916,-0.05189027,-0.026406094,-0.020247184,0.026381684,-0.010061598,-0.0305381,0.0355352,0.30062348,0.5363541,-1.6904325,0.49940866,-0.1387765,0.1647698,-0.34949794,-0.61031985,-0.6387252,-0.7574985,0.051389687,-1.4620906,0.21092027,0.45186257,-1.7436978,0.6128642,-0.11001164,0.16451755,-0.3585707,-0.46763557,-0.5679818,-0.7188201,-0.089570425,-1.6459305
2025-06-06 08:55:15.306,-0.020340523,-0.030585928,-0.07174527,-0.083317295,-0.0038108958,0.043404303,0.0,0.0,0.0,0.0036114554,-0.03247313,0.11320751,-0.10083401,0.023507776,-0.034879796,0.061947923,-0.0013131569,-0.15418348,-0.10941384,-0.025521005,-0.043980803,-0.041636318,-0.06005623,0.064758316,0.05816943,-0.046486244,-0.0002215249,-0.021423858,0.029944861,0.035410754,-0.011360095,-0.04844034,0.030885724,-0.03385701,0.21092027,0.45186257,-1.7436978,0.6128642,-0.11001164,0.16451755,-0.3585707,-0.46763557,-0.5679818,-0.7188201,-0.089570425,-1.6459305,0.5947494,0.74615675,-1.1843382,1.1302345,0.011467739,-0.38378897,-0.64944476,-0.41180947,-0.7700678,-1.0293431,-0.5753122,-1.496692
2025-06-06 08:55:15.327,-0.02255906,0.042924326,0.05415965,-0.06621685,0.028328056,-0.030042693,0.0,0.0,0.0,0.003958333,-0.03094739,0.11478781,-0.09594939,0.018852726,-0.02806556,0.04939299,-0.012109403,-0.15449862,-0.12413839,-0.008716785,-0.06048099,-0.049874067,-0.008154796,0.007957532,-0.06175819,-0.019654874,0.05101121,-0.0179996,-0.09205081,0.093600385,-0.01593757,-0.06680511,-0.035383284,-0.0028727225,0.5947494,0.74615675,-1.1843382,1.1302345,0.011467739,-0.38378897,-0.64944476,-0.41180947,-0.7700678,-1.0293431,-0.5753122,-1.496692,0.56902665,0.61286527,-1.5139735,0.6173129,-0.058558717,0.07855888,-0.32912603,-0.75640845,-0.6470624,-0.83641905,-0.012858905,-1.4476328
2025-06-06 08:55:15.347,-0.020968076,0.050083652,-0.019286096,-0.08646902,-0.044871654,-0.046317205,0.0,0.0,0.0,0.0033707956,-0.03410874,0.12174583,-0.10426444,0.036057923,-0.029959675,0.041515816,-0.013945266,-0.15766269,-0.11979458,-0.010337281,-0.06325392,-0.039190717,0.073541276,0.051690526,-0.05999115,-0.03974395,-0.050997812,-0.012982255,0.065367065,-0.0591368,-0.031339977,0.03771278,0.039107718,-0.020325154,0.56902665,0.61286527,-1.5139735,0.6173129,-0.058558717,0.07855888,-0.32912603,-0.75640845,-0.6470624,-0.83641905,-0.012858905,-1.4476328,0.68604237,0.40557,-1.4822865,0.710241,-0.12258534,-0.017543383,-0.491927,-0.4344709,-0.6278914,-0.9788867,-0.35353932,-1.5101253
2025-06-06 08:55:15.368,-0.017034335,0.051748212,0.009480563,-0.023779627,-0.011767379,-0.035890285,0.0,0.0,0.0,0.0027848205,-0.02723426,0.11952768,-0.10013872,0.025383595,-0.03972886,0.032924924,-0.004944686,-0.1616314,-0.116702005,-0.020605572,-0.057818428,-0.025795778,-0.04208657,0.05771757,0.07673807,-0.033338364,-0.0503149,-0.023970705,0.03512804,-0.04804068,0.05010013,0.06688599,-0.029620808,0.04319532,0.68604237,0.40557,-1.4822865,0.710241,-0.12258534,-0.017543383,-0.491927,-0.4344709,-0.6278914,-0.9788867,-0.35353932,-1.5101253,0.53373164,0.6133481,-1.6791717,0.7061256,-0.07950005,0.20253646,-0.21561544,-0.5837645,-0.6243857,-1.0420661,-0.071887545,-1.689808
2025-06-06 08:55:15.387,-0.003189808,0.004563429,-0.02729896,-0.09591676,-0.008301785,0.048552707,0.0,0.0,0.0,0.0022137244,-0.03627011,0.11944938,-0.085720554,0.03752789,-0.035715833,0.04547983,-0.006056763,-0.16509365,-0.12119516,-0.024444964,-0.065553196,-0.03053497,-0.073808044,0.02218685,0.043222692,-0.02188828,-0.025584143,0.055508584,0.03319547,-0.02316737,0.016884536,-0.0047455793,0.061038528,-0.07204678,0.53373164,0.6133481,-1.6791717,0.7061256,-0.07950005,0.20253646,-0.21561544,-0.5837645,-0.6243857,-1.0420661,-0.071887545,-1.689808,0.61750066,0.49166757,-1.7121536,0.9676558,-0.08444126,-0.017329462,-0.4301884,-0.5652428,-0.5349402,-1.0578679,-0.36768863,-1.8272398
2025-06-06 08:55:15.407,-0.0094304755,0.006433195,0.014947999,-0.021543147,-0.024812464,0.0020737166,0.0,0.0,0.0,0.0019781948,-0.040721618,0.10596835,-0.097673014,0.038674157,-0.03103744,0.03889776,-0.0007323578,-0.15708129,-0.1153978,-0.0134831285,-0.060456183,-0.040722765,0.03321006,-0.07114571,-0.04237502,0.07647111,0.07025308,0.040394068,0.05377124,-0.03008962,-0.052876756,-0.0551396,-0.027063178,0.067470856,0.61750066,0.49166757,-1.7121536,0.9676558,-0.08444126,-0.017329462,-0.4301884,-0.5652428,-0.5349402,-1.0578679,-0.36768863,-1.8272398,0.2639562,0.7184434,-1.8041757,0.8231085,-0.05568643,0.2195667,-0.4138719,-0.5217023,-0.2944213,-0.9262993,0.02067054,-1.8126403
2025-06-06 08:55:15.427,0.033746056,-0.017486388,-0.0046028853,-0.044011593,-0.017623574,-0.04365996,0.0,0.0,0.0,0.0017627624,-0.037749536,0.10882863,-0.092605025,0.030298922,-0.024062248,0.03439941,-0.0033803636,-0.16163912,-0.10715321,-0.019248188,-0.057987183,-0.033797108,0.057615623,0.06132992,0.020095631,-0.0005623557,-0.016587475,0.0068826606,0.0005201416,0.060200166,0.04730724,-0.05007529,0.01957719,-0.046534993,0.2639562,0.7184434,-1.8041757,0.8231085,-0.05568643,0.2195667,-0.4138719,-0.5217023,-0.2944213,-0.9262993,0.02067054,-1.8126403,0.42280865,0.57900447,-1.664142,0.96443605,-0.09821668,-0.15508172,-0.59263647,-0.58622164,-0.5706917,-0.8111932,-0.32651988,-1.8402451
