openverse-orca/OrcaGym/log/simulation_log_20250609_150357.csv
timestamp,imu_angle_roll,imu_angle_pitch,imu_angle_yaw,imu_angular_velocity_roll,imu_angular_velocity_pitch,imu_angular_velocity_yaw,imu_acc_x,imu_acc_y,imu_acc_z,fl_joint1_pos,fl_joint1_vel,fl_joint1_torque,fl_joint2_pos,fl_joint2_vel,fl_joint2_torque,fl_joint3_pos,fl_joint3_vel,fl_joint3_torque,fr_joint1_pos,fr_joint1_vel,fr_joint1_torque,fr_joint2_pos,fr_joint2_vel,fr_joint2_torque,fr_joint3_pos,fr_joint3_vel,fr_joint3_torque,hl_joint1_pos,hl_joint1_vel,hl_joint1_torque,hl_joint2_pos,hl_joint2_vel,hl_joint2_torque,hl_joint3_pos,hl_joint3_vel,hl_joint3_torque,hr_joint1_pos,hr_joint1_vel,hr_joint1_torque,hr_joint2_pos,hr_joint2_vel,hr_joint2_torque,hr_joint3_pos,hr_joint3_vel,hr_joint3_torque,fl_force_x,fl_force_y,fl_force_z,fr_force_x,fr_force_y,fr_force_z,hl_force_x,hl_force_y,hl_force_z,hr_force_x,hr_force_y,hr_force_z,fl_hip_action,fl_thigh_action,fl_calf_action,fr_hip_action,fr_thigh_action,fr_calf_action,hl_hip_action,hl_thigh_action,hl_calf_action,hr_hip_action,hr_thigh_action,hr_calf_action
2025-06-09 15:03:57.441,-0.021922529,-0.03248242,-0.04735916,0.012041501,-0.01323644,-0.0063332706,1.4088308,1.5555882,0.0,0.0,-0.0031689466,-0.0048334682,0.00018509068,0.0036483551,-0.0058583743,0.0067503615,0.004006437,-0.0043239654,0.0031978416,0.0060762446,-0.00092034147,-0.005490281,-0.04124894,-0.028988216,-0.011909319,-0.024612166,-0.07195085,-0.021882175,-0.007420097,-0.0309272,0.06785657,0.039280634,0.037010487,0.06808603,0.0,0.0,0.0,0.0,0.0,0.0,0.0,0.0,0.0,0.0,0.0,0.0,-2.0,0.6827959,-2.0,2.0,1.0444144,-2.0,2.0,-0.29648745,-2.0,-1.8716534,-0.53971404,-1.9988253
2025-06-09 15:03:57.450,0.052204404,-0.03237136,0.020469654,-0.03837039,-0.045104265,0.0040440615,0.0,0.0,0.0,0.0,-0.023597566,0.028927997,-0.061400168,0.009183395,0.04014431,-0.049353387,0.0155575,-0.0060061337,-0.055230204,-0.0047327774,-0.009585391,-0.03831915,-0.08925949,0.05619816,-0.1699959,0.06760015,0.07203101,-0.09319405,0.07019731,-0.049506906,-0.07458009,-0.040486246,-0.03349635,-0.17490481,-2.0,0.6827959,-2.0,2.0,1.0444144,-2.0,2.0,-0.29648745,-2.0,-1.8716534,-0.53971404,-1.9988253,-2.0,0.5887859,-2.0,2.0,2.0,-2.0,2.0,-0.59884536,-1.2835495,-2.0,-0.6371328,-2.0
2025-06-09 15:03:57.465,-0.05095721,0.03873496,0.005804577,-0.04681913,-0.015739782,0.016005961,0.0,0.0,0.0,2.795039e-05,-0.029259713,0.04982935,-0.10405425,0.041125227,0.09473544,-0.09130684,0.027139232,-0.037289925,-0.0652822,-0.025997149,-0.034642316,-0.08731155,-0.06336363,0.04064591,-0.07151548,-0.03659839,0.092198364,-0.114689186,0.07707035,-0.090114355,-0.0084138885,0.023348605,-0.0011005105,0.03156127,-2.0,0.5887859,-2.0,2.0,2.0,-2.0,2.0,-0.59884536,-1.2835495,-2.0,-0.6371328,-2.0,-2.0,0.65712476,-2.0,2.0,2.0,-2.0,2.0,-0.38490754,-0.07738156,-2.0,-0.6482759,-2.0
2025-06-09 15:03:57.486,-0.05639908,-0.0010787351,-0.03126867,0.0397845,0.012542955,-0.043604612,0.0,0.0,0.0,0.00038606988,-0.04989066,0.039767828,-0.09141218,0.03249468,0.12818722,-0.09258269,0.020341592,-0.054008912,-0.04020451,-0.03500626,-0.05182036,-0.060315777,-0.07729065,-0.031089501,-0.026397586,-0.032418996,-0.01698102,-0.040681355,-0.035515744,-0.077749014,0.12357176,0.0027550254,-0.07424225,-0.010418718,-2.0,0.65712476,-2.0,2.0,2.0,-2.0,2.0,-0.38490754,-0.07738156,-2.0,-0.6482759,-2.0,-2.0,0.8221073,-2.0,2.0,2.0,-2.0,2.0,-0.30065465,1.1131957,-2.0,-0.7734089,-2.0
2025-06-09 15:03:57.506,-0.115405984,-0.03146312,-0.04842658,0.0024732428,-0.049522236,-0.015367303,0.0,0.0,0.0,0.0012060523,-0.052232973,0.02993811,-0.06243061,0.026921932,0.12912084,-0.09773431,0.031064996,-0.06867673,0.0054219784,-0.042277854,-0.06332426,-0.054892316,-0.033570874,0.034960493,0.010895818,0.05264615,0.09783481,0.043767028,0.016813284,-0.10281808,0.10117412,0.0020534836,-0.026665863,0.086498566,-2.0,0.8221073,-2.0,2.0,2.0,-2.0,2.0,-0.30065465,1.1131957,-2.0,-0.7734089,-2.0,-2.0,0.7097559,-2.0,2.0,2.0,-1.9647549,2.0,-0.3594295,2.0,-2.0,-0.92070585,-2.0
2025-06-09 15:03:57.526,-0.18568912,-0.030101959,-0.039520834,0.020855833,-0.011291233,0.035394825,0.0,0.0,0.0,0.0020403683,-0.07041447,0.039579093,-0.0635504,0.023875112,0.15641874,-0.09001724,0.047253445,-0.088340685,0.06734568,-0.04117873,-0.06577423,-0.035015672,-0.08283145,-0.06893587,0.006633085,-0.06866004,0.09523552,-0.024575561,0.076495774,0.030037802,0.12765919,0.026207116,0.043260366,0.05042692,-2.0,0.7097559,-2.0,2.0,2.0,-1.9647549,2.0,-0.3594295,2.0,-2.0,-0.92070585,-2.0,-2.0,0.7311545,-2.0,2.0,2.0,-1.6840965,2.0,-0.10946248,2.0,-2.0,-0.8956951,-2.0
2025-06-09 15:03:57.549,-0.17043659,-0.09033924,0.014123952,-0.039662216,0.014938386,0.026487779,0.0,0.0,0.0,0.0026143987,-0.0659202,0.045709234,-0.061790366,0.03921396,0.17015418,-0.10647503,0.058478016,-0.07364015,0.12166802,-0.042455096,-0.06416704,-0.021546979,0.037583295,0.004352035,-0.04563515,0.054846372,0.051285595,-0.06950562,0.09096497,-0.0013367326,0.08875943,0.020129167,-0.016450897,0.056296244,-2.0,0.7311545,-2.0,2.0,2.0,-1.6840965,2.0,-0.10946248,2.0,-2.0,-0.8956951,-2.0,-2.0,0.5446455,-2.0,2.0,2.0,-1.4035009,2.0,-0.053769834,2.0,-2.0,-0.65150875,-2.0
2025-06-09 15:03:57.570,-0.20423216,-0.12427459,-0.04552705,-0.019218214,-0.08007067,0.041293282,0.0,0.0,0.0,0.0032074922,-0.077236965,0.035699446,-0.05395852,0.049560193,0.22246806,-0.12000927,0.06794863,-0.060159676,0.1415929,-0.04254327,-0.07369964,-0.022170644,-0.03844455,0.04482595,0.03476186,0.058246255,0.06277053,-0.06562042,0.0031301342,0.023184096,0.14830415,-0.03736156,-0.010432704,0.05278911,-2.0,0.5446455,-2.0,2.0,2.0,-1.4035009,2.0,-0.053769834,2.0,-2.0,-0.65150875,-2.0,-2.0,0.7520025,-2.0,2.0,2.0,-1.8295211,2.0,0.13120505,2.0,-2.0,-0.86342055,-2.0
2025-06-09 15:03:57.590,-0.1738142,-0.089703165,-0.104909375,-0.09525365,-0.06018023,-0.009419733,0.0,0.0,0.0,0.0043194424,-0.08666818,0.03317917,-0.052283116,0.053326264,0.28120396,-0.1532395,0.09183565,-0.025697166,0.16847031,-0.051733106,-0.0711935,0.004668995,0.0385065,0.0636134,-0.036919624,0.037278254,0.20085523,-0.04962457,0.060813505,0.05870551,0.001184858,-0.077661544,-0.08377097,0.044022653,-2.0,0.7520025,-2.0,2.0,2.0,-1.8295211,2.0,0.13120505,2.0,-2.0,-0.86342055,-2.0,-2.0,0.97019744,-2.0,2.0,2.0,-2.0,2.0,0.06509026,1.7504326,-2.0,-1.1674616,-2.0
2025-06-09 15:03:57.610,-0.17167005,-0.12592298,-0.06285768,-0.037450965,-0.08992005,-0.015245844,0.0,0.0,0.0,0.0056593916,-0.091484405,0.042226195,-0.053710897,0.05660387,0.32118443,-0.1605483,0.08842965,-0.01662954,0.1834782,-0.052695613,-0.07068096,0.02869198,-0.057964195,-0.025326645,0.014864696,-0.054018646,0.0996092,-0.0802074,0.084655516,-0.027599894,-0.010117175,0.031974837,-0.08666642,0.020207565,-2.0,0.97019744,-2.0,2.0,2.0,-2.0,2.0,0.06509026,1.7504326,-2.0,-1.1674616,-2.0,-2.0,0.9704499,-2.0,2.0,2.0,-2.0,2.0,0.09720262,1.210213,-2.0,-0.9784497,-2.0
2025-06-09 15:03:57.633,-0.06877138,-0.042326003,0.041208327,-0.016889013,-0.13219412,0.032666005,0.0,0.0,0.0,0.0067051775,-0.08636496,0.046733387,-0.055552363,0.07050381,0.35303432,-0.17423986,0.09103183,0.0014053637,0.1909486,-0.05384397,-0.073998585,0.037415925,0.05928571,-0.022646993,-0.05757869,0.032675575,0.11892407,0.0053338427,0.017611353,-0.007756779,0.07281703,0.011136415,0.019356538,0.049392227,-2.0,0.9704499,-2.0,2.0,2.0,-2.0,2.0,0.09720262,1.210213,-2.0,-0.9784497,-2.0,-2.0,0.41000897,-2.0,2.0,2.0,-2.0,2.0,-0.31019896,1.7024931,-2.0,-0.50368065,-2.0
2025-06-09 15:03:57.652,-0.08603477,-0.031454153,-0.0022554386,-0.04123966,-0.11418036,0.0028887982,0.0,0.0,0.0,0.0069589894,-0.09915764,0.060276087,-0.042773105,0.0702744,0.364846,-0.18519087,0.09958284,-0.000946214,0.21249962,-0.060897026,-0.071091786,0.057401627,0.015463259,0.010902593,-0.025367081,-0.030053025,-0.025469847,-0.07797524,0.082107216,-0.031618997,-0.005435729,0.00038420805,-0.0079855835,0.07518119,-2.0,0.41000897,-2.0,2.0,2.0,-2.0,2.0,-0.31019896,1.7024931,-2.0,-0.50368065,-2.0,-2.0,0.8769827,-2.0,2.0,2.0,-2.0,2.0,-0.044874527,2.0,-2.0,-0.6521521,-2.0
2025-06-09 15:03:57.672,-0.08156915,-0.067446984,-0.01971473,-0.07669009,-0.15267096,0.006370623,0.0,0.0,0.0,0.0076042213,-0.0941645,0.06328105,-0.03737582,0.06891456,0.38660204,-0.19700602,0.10371579,0.0028899244,0.2413531,-0.04821957,-0.071878016,0.06728734,0.060677737,0.055946074,0.07460117,0.021968283,0.07939312,0.043352984,0.05387893,0.05438811,0.020568445,0.013774914,-0.020442741,-0.00954085,-2.0,0.8769827,-2.0,2.0,2.0,-2.0,2.0,-0.044874527,2.0,-2.0,-0.6521521,-2.0,-2.0,0.7497544,-2.0,2.0,2.0,-2.0,2.0,-0.07497124,2.0,-2.0,-0.76938397,-2.0
2025-06-09 15:03:57.692,-0.091032594,-0.09442202,-0.05145791,-0.043212276,-0.07040623,-0.013255446,0.0,0.0,0.0,0.00859767,-0.10400216,0.06753292,-0.028966751,0.058692638,0.3866051,-0.20006935,0.112102605,-0.0027374036,0.25679415,-0.049293723,-0.04626842,0.06743337,0.058684085,-0.038410645,0.048874073,0.005829063,0.04352347,-0.036566887,-0.03210306,0.04742993,0.09739107,0.022214267,0.08780976,0.06628675,-2.0,0.7497544,-2.0,2.0,2.0,-2.0,2.0,-0.07497124,2.0,-2.0,-0.76938397,-2.0,-2.0,0.9842469,-2.0,2.0,2.0,-2.0,2.0,-0.086231865,2.0,-2.0,-0.82716185,-2.0
2025-06-09 15:03:57.716,-0.05387112,-0.09843118,-0.03366571,-0.09778272,-0.11427789,-0.049331743,0.0,0.0,0.0,0.009580519,-0.104773834,0.07870391,-0.040562257,0.06797106,0.38936836,-0.22020215,0.11788136,0.007799606,0.2668535,-0.053765673,-0.049956847,0.071011096,0.049698956,0.0025974945,-0.025672983,-0.007714359,0.05352599,0.014981703,-0.004660578,0.06581109,0.05867406,0.05651336,-0.054024983,-0.033606675,-2.0,0.9842469,-2.0,2.0,2.0,-2.0,2.0,-0.086231865,2.0,-2.0,-0.82716185,-2.0,-2.0,0.97018844,-2.0,2.0,2.0,-2.0,2.0,-0.09471712,2.0,-2.0,-0.77956796,-2.0
2025-06-09 15:03:57.736,-0.024446005,-0.10763586,-0.02944363,-0.09206761,-0.15906364,0.03554463,0.0,0.0,0.0,0.010396857,-0.10391748,0.08031369,-0.03674342,0.051822472,0.37943766,-0.21119605,0.10894086,0.011978348,0.2738533,-0.045862287,-0.031225635,0.085237615,-0.045001652,-0.007938788,0.016447606,-0.033497553,-0.007368247,-0.07007125,-0.05874972,0.015257814,0.00067292055,-0.013368848,-0.0007387243,0.038234167,-2.0,0.97018844,-2.0,2.0,2.0,-2.0,2.0,-0.09471712,2.0,-2.0,-0.77956796,-2.0,-2.0,0.97797716,-2.0,2.0,2.0,-2.0,2.0,0.06041219,1.5617262,-2.0,-0.80833477,-2.0
2025-06-09 15:03:57.756,-0.05622092,-0.020215703,-0.047138087,-0.026400864,-0.1540837,-0.017115826,0.0,0.0,0.0,0.011064543,-0.108723596,0.10753877,-0.042828366,0.054594874,0.38517898,-0.2129316,0.11683349,0.03781414,0.29295135,-0.03636102,-0.028060617,0.10259341,0.014893766,0.09843983,0.01629341,0.0020878008,-0.054134067,-0.045597393,0.0027180186,0.02367624,0.05268587,-0.04379313,0.06163926,0.04091173,-2.0,0.97797716,-2.0,2.0,2.0,-2.0,2.0,0.06041219,1.5617262,-2.0,-0.80833477,-2.0,-2.0,1.0264093,-2.0,2.0,2.0,-2.0,2.0,-0.062699355,1.4340138,-2.0,-0.8908905,-2.0
2025-06-09 15:03:57.776,-0.066981524,-0.066377185,0.03232837,-0.08443109,-0.14630714,0.002699464,0.0,0.0,0.0,0.011418292,-0.10233288,0.106050916,-0.04068643,0.06011229,0.3771674,-0.21709745,0.11239643,0.032659512,0.29389137,-0.047608234,-0.015562145,0.110918075,0.0050496496,0.0021219112,0.0040839403,0.07416494,-0.06978771,0.065536454,0.040574968,0.037510805,-0.04213253,-0.07378548,0.0537111,-0.036323577,-2.0,1.0264093,-2.0,2.0,2.0,-2.0,2.0,-0.062699355,1.4340138,-2.0,-0.8908905,-2.0,-2.0,0.64928085,-2.0,2.0,2.0,-2.0,2.0,-0.23118463,1.733202,-2.0,-0.6039008,-2.0
2025-06-09 15:03:57.800,-0.07854763,-0.1204024,-0.066282555,-0.09272138,-0.13909806,-0.0055084936,0.0,0.0,0.0,0.011419468,-0.11254434,0.12374161,-0.04878838,0.05578958,0.3942581,-0.22358185,0.10400127,0.045947038,0.28647536,-0.052293766,-0.009798461,0.1043559,0.052763604,0.042524785,0.0023996527,-0.022320313,-0.037130482,0.03977559,0.067117415,-0.037419733,0.08887532,-0.063259296,-0.058415446,0.050786808,-2.0,0.64928085,-2.0,2.0,2.0,-2.0,2.0,-0.23118463,1.733202,-2.0,-0.6039008,-2.0,-2.0,1.2050077,-2.0,2.0,2.0,-2.0,2.0,0.014007889,1.8140036,-2.0,-0.8423762,-2.0
2025-06-09 15:03:57.820,-0.07311421,-0.08382681,-0.011421652,-0.06919056,-0.14626677,-0.028845754,0.0,0.0,0.0,0.011779881,-0.10554803,0.13664822,-0.045705784,0.056129303,0.3945147,-0.21602844,0.11536368,0.043274894,0.30545843,-0.038573053,-0.01683893,0.10871269,-0.0342992,-0.041178137,-0.04063467,-0.06712219,0.026379045,0.056415383,-0.022981295,0.073322184,0.036351535,0.04032877,-0.057734236,-0.037640866,-2.0,1.2050077,-2.0,2.0,2.0,-2.0,2.0,0.014007889,1.8140036,-2.0,-0.8423762,-2.0,-2.0,0.905655,-2.0,2.0,2.0,-2.0,2.0,-0.03993521,1.4725107,-2.0,-0.70039827,-2.0
2025-06-09 15:03:57.839,-0.025802124,-0.09358999,0.022478651,-0.0941202,-0.15512575,-0.038998485,0.0,0.0,0.0,0.012061227,-0.10141734,0.14797825,-0.055415355,0.059645906,0.394639,-0.21932884,0.118732534,0.05168971,0.30465406,-0.042360757,-0.005080877,0.1095504,0.009394252,-0.027373705,-0.05099047,0.016115023,-0.025265325,-0.025648588,-0.022444893,-0.0013874575,0.06713654,0.030409478,-0.030260704,0.027769858,-2.0,0.905655,-2.0,2.0,2.0,-2.0,2.0,-0.03993521,1.4725107,-2.0,-0.70039827,-2.0,-2.0,0.8275955,-2.0,2.0,2.0,-2.0,2.0,-0.13301286,1.7084792,-2.0,-0.46196577,-2.0
2025-06-09 15:03:57.859,-0.054650158,-0.0538701,-0.03273014,-0.11214188,-0.17270003,-0.021523995,0.0,0.0,0.0,0.012182656,-0.10688304,0.14864634,-0.05421382,0.05136053,0.38126093,-0.21784535,0.1195449,0.05593049,0.3065793,-0.056502733,-0.002351715,0.109044224,0.035015732,-0.001213954,-0.059216358,0.022759153,-0.060696285,-0.043776006,0.025121521,0.04278736,0.023930518,0.0153453015,0.043239247,0.060028814,-2.0,0.8275955,-2.0,2.0,2.0,-2.0,2.0,-0.13301286,1.7084792,-2.0,-0.46196577,-2.0,-2.0,1.1296595,-2.0,2.0,2.0,-2.0,2.0,-0.04024098,1.8264024,-2.0,-0.7198026,-2.0
2025-06-09 15:03:57.883,-0.07370631,-0.053728793,-0.057257954,-0.08234523,-0.12896603,0.030857593,0.0,0.0,0.0,0.012685669,-0.1153109,0.14408372,-0.06576602,0.058453675,0.39173833,-0.21975614,0.116202585,0.07545907,0.31180966,-0.045840632,-0.00020207699,0.1123752,0.062026553,0.038183928,-0.016664825,0.035483614,0.040784344,0.04583202,-0.017645825,-0.04779805,-0.044959445,0.056307703,-0.021404218,-0.0014260854,-2.0,1.1296595,-2.0,2.0,2.0,-2.0,2.0,-0.04024098,1.8264024,-2.0,-0.7198026,-2.0,-2.0,1.1539801,-2.0,2.0,2.0,-2.0,2.0,-0.038086154,1.6295668,-2.0,-0.7310843,-2.0
2025-06-09 15:03:57.902,-0.09955052,-0.06928157,0.024687165,-0.074807964,-0.17185615,0.043894887,0.0,0.0,0.0,0.01318013,-0.115665965,0.15551437,-0.060253073,0.05251837,0.38724262,-0.22768766,0.107331984,0.08147675,0.3252286,-0.051270682,0.010399075,0.12936509,0.008143191,0.0803784,-0.066447824,-0.030623198,0.020157726,0.0144037595,0.023689298,0.016643535,0.025730109,0.056710903,-0.04174389,0.0029126783,-2.0,1.1539801,-2.0,2.0,2.0,-2.0,2.0,-0.038086154,1.6295668,-2.0,-0.7310843,-2.0,-2.0,0.79326767,-2.0,2.0,2.0,-2.0,2.0,-0.100934304,1.7035518,-2.0,-0.45902,-2.0
2025-06-09 15:03:57.922,-0.101642184,-0.027741367,-0.009358656,-0.1085373,-0.22774187,0.0050211227,0.0,0.0,0.0,0.013339103,-0.118624784,0.16273427,-0.06789193,0.063651875,0.38540712,-0.21201415,0.12622629,0.08048423,0.3277104,-0.057290923,0.017542692,0.12611724,0.016016768,-0.06496141,0.023483362,-0.07065489,-0.009357315,-0.013584032,0.055639863,-0.047413707,0.009540511,-0.0028738538,0.054372456,0.039263092,-2.0,0.79326767,-2.0,2.0,2.0,-2.0,2.0,-0.100934304,1.7035518,-2.0,-0.45902,-2.0,-2.0,0.97648895,-2.0,2.0,2.0,-2.0,2.0,0.0082471,1.6739602,-2.0,-0.509471,-2.0
2025-06-09 15:03:57.942,-0.06591104,-0.033554938,0.02902052,-0.062945396,-0.20934218,0.0348926,0.0,0.0,0.0,0.013690019,-0.114428036,0.16107933,-0.07223235,0.050789304,0.38020754,-0.22632392,0.119127214,0.08277896,0.33876038,-0.041405287,0.016064161,0.116187215,0.020993913,0.013471317,0.059892386,0.011894971,0.046524294,0.044468403,0.036850587,0.011489554,0.011286873,-0.06388677,0.015882771,-0.08167381,-2.0,0.97648895,-2.0,2.0,2.0,-2.0,2.0,0.0082471,1.6739602,-2.0,-0.509471,-2.0,-2.0,0.5886815,-2.0,2.0,2.0,-2.0,2.0,-0.13981369,1.7897491,-2.0,-0.3686113,-2.0
2025-06-09 15:03:57.964,-0.093313776,-0.020285442,0.0059263986,-0.10052204,-0.23081021,-0.03651171,0.0,0.0,0.0,0.0141307125,-0.11677845,0.17168388,-0.06614065,0.062803805,0.38450944,-0.21258438,0.12690954,0.09008082,0.33080903,-0.05163396,0.028558884,0.11545926,0.0045315777,0.06359608,-0.061148483,-0.00092392974,-0.0038572059,-0.03737194,-0.0023504577,-0.040027935,0.08489088,-0.0018012179,0.052419685,0.061384812,-2.0,0.5886815,-2.0,2.0,2.0,-2.0,2.0,-0.13981369,1.7897491,-2.0,-0.3686113,-2.0,-2.0,0.87245107,-2.0,2.0,2.0,-2.0,2.0,-0.13221633,2.0,-2.0,-0.45775285,-2.0
2025-06-09 15:03:57.984,-0.13805154,-0.019894522,-0.05310642,-0.08243273,-0.22345644,0.027868269,0.0,0.0,0.0,0.014909021,-0.120476,0.1702577,-0.07339316,0.053134568,0.38573822,-0.22383429,0.12125751,0.070728935,0.3552966,-0.03976772,0.0304729,0.114274755,0.029217415,0.008587433,0.049529005,-0.022423638,0.016530434,0.055041317,0.04031127,-0.04801587,0.033095106,0.063785024,-0.061085515,-0.033767942,-2.0,0.87245107,-2.0,2.0,2.0,-2.0,2.0,-0.13221633,2.0,-2.0,-0.45775285,-2.0,-2.0,1.1877618,-2.0,2.0,2.0,-2.0,2.0,0.065762095,1.8007345,-2.0,-0.5841957,-2.0
2025-06-09 15:03:58.004,-0.049921874,0.004097406,0.053591114,-0.13991104,-0.19058545,-0.009275062,0.0,0.0,0.0,0.015862668,-0.12601247,0.16583769,-0.070873804,0.056632787,0.38466078,-0.21443352,0.13225468,0.07680062,0.35031116,-0.048816707,0.04623387,0.103029,0.030146215,0.07098402,-0.0076188114,0.055617046,-0.014431272,0.07379601,-0.049586773,-0.027623978,-0.010116005,0.0004984285,0.038251262,-0.044430494,-2.0,1.1877618,-2.0,2.0,2.0,-2.0,2.0,0.065762095,1.8007345,-2.0,-0.5841957,-2.0,-2.0,0.4461584,-2.0,2.0,2.0,-1.6887368,2.0,-0.20445827,1.9898757,-2.0,-0.24622455,-2.0
2025-06-09 15:03:58.026,-0.13958423,-0.04829209,0.025154332,-0.10323859,-0.24362707,-0.031256124,0.0,0.0,0.0,0.01624196,-0.117815256,0.17202403,-0.069987565,0.069337584,0.37851483,-0.21580343,0.11988661,0.07220787,0.361216,-0.05004428,0.040379003,0.11083901,-0.023013111,0.017515969,-0.039848417,-0.039822098,-0.045388345,0.058978148,-0.041792136,0.05498365,0.07355817,0.02289488,0.012620189,0.03175152,-2.0,0.4461584,-2.0,2.0,2.0,-1.6887368,2.0,-0.20445827,1.9898757,-2.0,-0.24622455,-2.0,-2.0,0.9007073,-2.0,2.0,2.0,-1.8394545,2.0,0.03501942,2.0,-2.0,-0.3995879,-2.0
2025-06-09 15:03:58.045,-0.15183537,-0.012639305,-0.020925868,-0.14246109,-0.17774871,0.028621515,0.0,0.0,0.0,0.016856667,-0.12867972,0.16184671,-0.058582533,0.056422453,0.39343026,-0.20192534,0.12379759,0.07747104,0.376056,-0.050646484,0.044251554,0.087627016,0.05560352,0.06471974,-0.009251067,0.06328627,-0.04146928,0.035766784,0.02198063,0.010977535,-0.051917035,-0.024813388,0.055196837,0.048528332,-2.0,0.9007073,-2.0,2.0,2.0,-1.8394545,2.0,0.03501942,2.0,-2.0,-0.3995879,-2.0,-2.0,0.89276266,-2.0,2.0,2.0,-2.0,2.0,0.07732534,1.7406301,-2.0,-0.602215,-2.0
2025-06-09 15:03:58.065,-0.060611703,0.021034319,0.04855431,-0.17175734,-0.23300548,-0.04932546,0.0,0.0,0.0,0.01741227,-0.12513267,0.16347618,-0.071882464,0.060199328,0.378991,-0.20561568,0.12899671,0.085660584,0.3712919,-0.035512634,0.05825699,0.09211889,0.005929316,-0.010843165,0.0027864233,-0.03706448,-0.024836715,0.026591673,0.06170304,-0.0073463246,-0.07198234,-0.0019667908,0.06054547,-0.029668696,-2.0,0.89276266,-2.0,2.0,2.0,-2.0,2.0,0.07732534,1.7406301,-2.0,-0.602215,-2.0,-2.0,0.6043655,-2.0,2.0,2.0,-2.0,2.0,-0.08206747,1.6670033,-2.0,-0.31316194,-2.0
2025-06-09 15:03:58.085,-0.006376379,-0.0061385953,0.038236093,-0.14665522,-0.26956165,-0.033150554,0.0,0.0,0.0,0.017174225,-0.12596843,0.18247141,-0.06758897,0.05712693,0.38750088,-0.21896107,0.13318868,0.07490342,0.36865023,-0.039669815,0.06717429,0.08842548,-0.01032224,-0.06655719,-0.029776765,0.05220121,-0.034355514,0.052342568,-0.0010070999,-0.027230697,-0.018027045,0.057311792,0.07885281,-0.09541285,-2.0,0.6043655,-2.0,2.0,2.0,-2.0,2.0,-0.08206747,1.6670033,-2.0,-0.31316194,-2.0,-2.0,0.7202882,-2.0,2.0,2.0,-1.6256753,2.0,-0.26976302,2.0,-2.0,-0.18487057,-2.0
2025-06-09 15:03:58.105,-0.0614926,-0.04483551,0.035156436,-0.08852416,-0.26449475,-0.028756294,0.0,0.0,0.0,0.016844375,-0.12383307,0.1754048,-0.06661472,0.054691188,0.37618548,-0.20746413,0.13431165,0.06686281,0.36893904,-0.05139986,0.055553146,0.059066147,-0.037363436,0.008138959,-0.0030398993,0.0062029785,0.056679238,-0.0153658325,0.0048628785,0.060796063,0.015960386,-0.047067698,0.025694778,-0.05537716,-2.0,0.7202882,-2.0,2.0,2.0,-1.6256753,2.0,-0.26976302,2.0,-2.0,-0.18487057,-2.0,-2.0,0.56226534,-2.0,2.0,2.0,-1.384431,2.0,0.06736093,2.0,-2.0,-0.19339976,-2.0
2025-06-09 15:03:58.125,-0.07463873,0.0612149,0.017693726,-0.09412747,-0.24017367,0.012537126,0.0,0.0,0.0,0.016809573,-0.10819555,0.17191868,-0.06405547,0.055522647,0.37594014,-0.18768309,0.13577013,0.07567146,0.35933876,-0.03850404,0.05696362,0.06524102,-0.07162763,-0.06751441,0.076680094,0.020504015,0.07201212,0.018859124,0.07039111,-0.08070578,0.058010936,0.05201014,-0.059874535,-0.08387418,-2.0,0.56226534,-2.0,2.0,2.0,-1.384431,2.0,0.06736093,2.0,-2.0,-0.19339976,-2.0,-2.0,0.63703954,-2.0,2.0,2.0,-1.5069698,2.0,0.232813,2.0,-2.0,-0.07971867,-2.0
2025-06-09 15:03:58.147,-0.025332076,0.054599136,0.08587637,-0.12445964,-0.26177257,-0.008404502,0.0,0.0,0.0,0.016783947,-0.11203399,0.16502099,-0.063087806,0.060747612,0.38522303,-0.1874497,0.1438862,0.07807589,0.36971968,-0.047080524,0.0587006,0.041557927,0.015946489,0.021988954,-0.015336455,0.026449732,0.012399172,-0.04750861,0.0714127,0.022370005,-0.053562786,0.039505247,0.07384455,0.02363288,-2.0,0.63703954,-2.0,2.0,2.0,-1.5069698,2.0,0.232813,2.0,-2.0,-0.07971867,-2.0,-2.0,0.31688315,-2.0,2.0,2.0,-1.2267832,2.0,0.12839174,2.0,-2.0,-0.0024942402,-2.0
2025-06-09 15:03:58.165,-0.103899054,0.05928705,0.028379029,-0.114526,-0.26637366,-0.010538512,0.0,0.0,0.0,0.016651228,-0.114560984,0.15290181,-0.057025086,0.06822862,0.39114192,-0.17152998,0.14164639,0.07670149,0.3575872,-0.03972108,0.076647215,0.042372037,0.038222317,-0.05788211,0.079647936,0.033875506,0.07408112,-0.029211517,-0.020183591,-0.051037107,-0.041004833,-0.011911077,-0.007834375,-0.055019096,-2.0,0.31688315,-2.0,2.0,2.0,-1.2267832,2.0,0.12839174,2.0,-2.0,-0.0024942402,-2.0,-2.0,0.5732218,-2.0,2.0,2.0,-1.3868994,2.0,0.34712684,2.0,-2.0,-0.008151198,-2.0
2025-06-09 15:03:58.185,-0.07516224,0.018608736,-0.0017845711,-0.17388183,-0.21292296,0.027288988,0.0,0.0,0.0,0.016700566,-0.11783745,0.1648174,-0.031452276,0.056787737,0.3912312,-0.15619902,0.14187624,0.07692296,0.36319345,-0.03930937,0.07561005,0.03793546,-0.05204601,-0.06785348,0.069295764,-0.006664188,-0.013956206,-0.009396603,-0.023752227,0.055772237,0.0074866507,-0.056645215,-0.050479185,0.0049269153,-2.0,0.5732218,-2.0,2.0,2.0,-1.3868994,2.0,0.34712684,2.0,-2.0,-0.008151198,-2.0,-2.0,0.6763199,-2.0,2.0,2.0,-2.0,2.0,0.44799718,1.4691237,-2.0,-0.39201912,-2.0
2025-06-09 15:03:58.205,-0.033283893,-0.036564566,0.10127328,-0.17393629,-0.26418036,-0.03590545,0.0,0.0,0.0,0.016674532,-0.11031085,0.16001867,-0.037452135,0.06618567,0.39288822,-0.17864326,0.13314532,0.074997775,0.3723247,-0.042945072,0.07650371,0.016440405,0.0888646,-0.012676541,0.043924503,-0.029142573,0.029322544,-0.01497472,0.043252137,-0.050773047,-0.06514026,-0.017105967,-0.03537974,-0.0654142,-2.0,0.6763199,-2.0,2.0,2.0,-2.0,2.0,0.44799718,1.4691237,-2.0,-0.39201912,-2.0,-2.0,0.25056827,-2.0,2.0,2.0,-2.0,2.0,-0.12646008,1.3455452,-2.0,-0.0062597636,-2.0
2025-06-09 15:03:58.225,-0.07152897,-0.019067625,-0.0036446834,-0.15168898,-0.2657558,-0.022789935,0.0,0.0,0.0,0.015816692,-0.09435812,0.15179917,-0.033098344,0.053347215,0.3775825,-0.19788483,0.1389867,0.07137837,0.36068615,-0.03501778,0.07467185,0.012436052,0.0047722845,0.0027897588,-0.041409753,-0.07146675,-0.028783781,-0.07034343,0.043758582,-0.0072018546,-0.057829514,-0.020192875,-0.07519387,-0.021626601,-2.0,0.25056827,-2.0,2.0,2.0,-2.0,2.0,-0.12646008,1.3455452,-2.0,-0.0062597636,-2.0,-2.0,0.94396454,-2.0,2.0,2.0,-2.0,2.0,0.09791323,1.5378579,-2.0,-0.35611877,-2.0
2025-06-09 15:03:58.248,-0.04372063,-0.03876588,0.085615985,-0.11651928,-0.2123903,0.04237077,0.0,0.0,0.0,0.015174697,-0.1066434,0.15257193,-0.025055405,0.067499526,0.39368576,-0.19993028,0.14380495,0.085205026,0.3582428,-0.04837334,0.0699598,0.02637636,-0.010810112,-0.035540324,-0.013682471,-0.0137835,0.054198258,0.048820402,-0.050014302,-0.06305537,-0.014033121,0.055143304,-0.03692235,0.017771887,-2.0,0.94396454,-2.0,2.0,2.0,-2.0,2.0,0.09791323,1.5378579,-2.0,-0.35611877,-2.0,-2.0,0.30995828,-2.0,2.0,2.0,-1.839656,2.0,-0.14084655,1.6705105,-2.0,0.0215253,-2.0
2025-06-09 15:03:58.265,-0.04192505,-0.036897168,0.01560165,-0.19404164,-0.1904727,0.043857258,0.0,0.0,0.0,0.014402408,-0.103064194,0.15284188,-0.0420352,0.049532074,0.37628156,-0.20837022,0.14228122,0.07552485,0.35264707,-0.04582863,0.07461691,0.016147263,0.0014133527,-0.026678128,0.049097918,-0.0014845222,0.06108481,-0.019202938,0.023089088,-0.06706166,-0.006417181,0.044933155,0.054400824,-0.016038766,-2.0,0.30995828,-2.0,2.0,2.0,-1.839656,2.0,-0.14084655,1.6705105,-2.0,0.0215253,-2.0,-2.0,0.6573959,-2.0,2.0,2.0,-1.6784463,2.0,-0.020027377,2.0,-2.0,-0.14703056,-2.0
2025-06-09 15:03:58.286,-0.02225393,-0.066440225,-0.0332019,-0.12932062,-0.27049416,0.018657656,0.0,0.0,0.0,0.014029952,-0.08999564,0.14917141,-0.03933437,0.054409057,0.37813285,-0.19130883,0.14641361,0.08100487,0.3694415,-0.05001581,0.06335242,0.020006262,-0.014142392,-0.024529949,-0.0005810903,0.047804844,0.048140686,-0.029108178,0.024907673,-0.024668228,0.009066897,0.009628405,-0.07778875,-0.03276744,-2.0,0.6573959,-2.0,2.0,2.0,-1.6784463,2.0,-0.020027377,2.0,-2.0,-0.14703056,-2.0,-2.0,0.9294807,-2.0,2.0,2.0,-2.0,2.0,0.22247902,1.8124915,-2.0,-0.43935624,-2.0
2025-06-09 15:03:58.306,0.041783616,-0.047317773,0.026860537,-0.1759722,-0.2665633,0.025246603,0.0,0.0,0.0,0.0139518175,-0.092700526,0.1553322,-0.03499169,0.052480485,0.39387727,-0.20073128,0.14345886,0.0663627,0.36292478,-0.042858426,0.07205977,0.004641356,0.045621596,0.042365097,-0.046423435,0.07693171,-0.043078773,0.059706785,0.04577879,0.011608572,0.0043112235,-0.009771503,0.014528652,0.0052736048,-2.0,0.9294807,-2.0,2.0,2.0,-2.0,2.0,0.22247902,1.8124915,-2.0,-0.43935624,-2.0,-2.0,0.52206475,-2.0,2.0,2.0,-2.0,2.0,-0.1042643,1.6302334,-2.0,-0.4532325,-2.0
2025-06-09 15:03:58.326,0.03182916,-0.062348764,0.07262078,-0.2151572,-0.2791751,-0.027700072,0.0,0.0,0.0,0.013314651,-0.08453659,0.16013667,-0.040664073,0.049882032,0.38735864,-0.20584188,0.14542969,0.055352945,0.36366153,-0.043361746,0.0479067,0.012934936,0.04376976,-0.001750722,-0.037657738,0.06180145,-0.05690963,-0.03214681,-0.069709875,-0.05863397,0.06075756,0.012768146,-0.09090279,-0.032451876,-2.0,0.52206475,-2.0,2.0,2.0,-2.0,2.0,-0.1042643,1.6302334,-2.0,-0.4532325,-2.0,-2.0,0.605557,-2.0,2.0,2.0,-1.9724907,2.0,-0.15078446,1.9744433,-2.0,-0.13060889,-2.0
2025-06-09 15:03:58.348,-0.044759903,-0.053354748,-0.005125282,-0.16887799,-0.20350696,-0.00639751,0.0,0.0,0.0,0.012430473,-0.08230383,0.14642476,-0.0451661,0.062195998,0.3871989,-0.21179587,0.13433914,0.06480493,0.37375093,-0.05360452,0.043655958,0.007215183,0.056892376,0.005495775,0.033842042,0.024207326,-0.0057975953,-0.0648277,0.0014081926,-0.08219147,-0.02498628,0.041406285,-0.07344066,0.061471373,-2.0,0.605557,-2.0,2.0,2.0,-1.9724907,2.0,-0.15078446,1.9744433,-2.0,-0.13060889,-2.0,-2.0,0.91592544,-2.0,2.0,2.0,-2.0,2.0,0.18477246,1.6536297,-2.0,-0.39037773,-2.0
2025-06-09 15:03:58.366,-0.015440136,-0.04604968,0.006346443,-0.20360506,-0.25967157,-0.034141876,0.0,0.0,0.0,0.011972042,-0.08044837,0.14423612,-0.05311356,0.053202104,0.37511995,-0.21082933,0.13005874,0.05520686,0.3780164,-0.054850165,0.047404777,0.0077228425,0.002229698,0.04316377,0.0017332019,0.061074767,0.04848245,0.01946685,0.0069566863,-0.06291797,0.018403787,0.054190155,-0.049904846,0.048920408,-2.0,0.91592544,-2.0,2.0,2.0,-2.0,2.0,0.18477246,1.6536297,-2.0,-0.39037773,-2.0,-2.0,0.67512554,-2.0,2.0,2.0,-2.0,2.0,-0.006265737,1.3896312,-2.0,-0.45134285,-2.0
2025-06-09 15:03:58.386,0.060996532,0.013010903,0.02500586,-0.16813411,-0.21279302,-0.03157287,0.0,0.0,0.0,0.011223941,-0.08938054,0.15608174,-0.052438788,0.056583248,0.37771332,-0.21803981,0.14152674,0.05321105,0.36415023,-0.04829405,0.04633129,0.015708784,-0.058173522,-0.005809361,0.008212859,0.0026712497,-0.03280388,0.022901662,-0.002537048,0.03054627,-0.04819326,-0.065887414,-0.040069353,-0.028808845,-2.0,0.67512554,-2.0,2.0,2.0,-2.0,2.0,-0.006265737,1.3896312,-2.0,-0.45134285,-2.0,-2.0,0.6855731,-2.0,2.0,2.0,-2.0,2.0,-0.020605303,1.2162312,-2.0,-0.48635212,-2.0
2025-06-09 15:03:58.406,-0.018348861,-0.06775646,0.060464654,-0.20590132,-0.19882855,0.042198803,0.0,0.0,0.0,0.010118736,-0.08432137,0.14771189,-0.044035528,0.05239845,0.38519788,-0.21223408,0.1251355,0.06787866,0.36303282,-0.05656133,0.038138203,0.0142195765,0.046591416,-0.016928535,-0.04937491,0.062347658,-0.041709874,0.06643988,-0.026780427,-0.0019824975,-0.06903523,0.04231979,-0.065600194,-0.0544605,-2.0,0.6855731,-2.0,2.0,2.0,-2.0,2.0,-0.020605303,1.2162312,-2.0,-0.48635212,-2.0,-2.0,0.6512182,-2.0,2.0,2.0,-2.0,2.0,-0.1744104,1.508876,-2.0,-0.23725185,-2.0
2025-06-09 15:03:58.426,0.03268492,-0.05278035,0.056784626,-0.15208507,-0.2428942,0.020198515,0.0,0.0,0.0,0.008870052,-0.08377268,0.15757458,-0.05497503,0.053566474,0.38186282,-0.21076073,0.1297579,0.0720509,0.3671507,-0.06274567,0.025796223,0.007720964,0.0017300862,0.06743243,0.03935823,0.0068454873,0.009528756,0.010388033,0.037799295,-0.034566294,0.050893832,0.02100082,0.051162463,0.0066004684,-2.0,0.6512182,-2.0,2.0,2.0,-2.0,2.0,-0.1744104,1.508876,-2.0,-0.23725185,-2.0,-2.0,0.47700894,-2.0,2.0,2.0,-1.8536698,2.0,-0.16311371,1.9095615,-2.0,-0.23056671,-2.0
2025-06-09 15:03:58.448,-0.08167184,-0.014009146,0.03531303,-0.16251184,-0.25667286,-0.025599241,0.0,0.0,0.0,0.0080446135,-0.076741725,0.1575841,-0.039862335,0.06233587,0.3852877,-0.22429049,0.12756304,0.06012377,0.36049786,-0.054312702,0.03943069,0.0057328,0.04634431,-0.07401823,-0.056508575,-0.070493944,0.054346662,0.02960646,-0.021585027,0.037375387,0.065126665,-0.04329512,0.037048932,0.011891726,-2.0,0.47700894,-2.0,2.0,2.0,-1.8536698,2.0,-0.16311371,1.9095615,-2.0,-0.23056671,-2.0,-2.0,0.6337288,-2.0,2.0,2.0,-1.8809484,2.0,-0.041190304,2.0,-2.0,-0.33151498,-2.0
2025-06-09 15:03:58.466,-0.02439531,-0.021846496,-0.027393462,-0.13364275,-0.26994464,-0.01303338,0.0,0.0,0.0,0.007974457,-0.07725509,0.16076739,-0.0468604,0.055945322,0.3931799,-0.21856575,0.13751514,0.05388941,0.3774661,-0.065655395,0.037300084,0.0067063766,-0.014409454,0.030216504,0.050336692,-0.07169352,0.009219691,0.0061222385,0.013886523,0.008244859,0.033372734,-0.015689658,-0.06381608,0.012855147,-2.0,0.6337288,-2.0,2.0,2.0,-1.8809484,2.0,-0.041190304,2.0,-2.0,-0.33151498,-2.0,-2.0,0.9662558,-2.0,2.0,2.0,-2.0,2.0,0.23431545,1.36393,-2.0,-0.65407246,-2.0
2025-06-09 15:03:58.487,0.0873299,-0.032969095,0.07690936,-0.16943063,-0.2515802,-0.01423515,0.0,0.0,0.0,0.008169578,-0.06452424,0.14664786,-0.043808307,0.053943194,0.38666636,-0.21606493,0.1307822,0.05650855,0.37541753,-0.061916575,0.034205522,0.018925805,0.0046470235,-0.028057627,-0.035691008,-0.017640693,0.03695424,-0.06388396,-0.019039625,-0.046617694,-0.056131277,0.009336542,-7.0952e-05,0.06792931,-2.0,0.9662558,-2.0,2.0,2.0,-2.0,2.0,0.23431545,1.36393,-2.0,-0.65407246,-2.0,-2.0,0.44695538,-2.0,2.0,2.0,-2.0,2.0,-0.06815479,0.9716042,-2.0,-0.2537155,-2.0
2025-06-09 15:03:58.507,0.06265148,0.051231213,0.0049963193,-0.18016486,-0.23515266,0.023736406,0.0,0.0,0.0,0.007585256,-0.075886056,0.16394494,-0.053834897,0.06889038,0.38497815,-0.22271116,0.12468399,0.055930603,0.36307958,-0.06214137,0.036173586,0.02093905,0.02949536,0.008379308,0.06505102,0.0719323,-0.039764397,-0.075601414,-0.032179624,-0.0013805788,-0.09023234,-0.018090704,-0.06037293,0.016514046,-2.0,0.44695538,-2.0,2.0,2.0,-2.0,2.0,-0.06815479,0.9716042,-2.0,-0.2537155,-2.0,-2.0,1.0071915,-2.0,2.0,2.0,-2.0,2.0,0.11688318,1.0010003,-2.0,-0.44347343,-2.0
2025-06-09 15:03:58.527,0.06309592,0.05228833,0.049086772,-0.15778035,-0.29093534,-0.044346448,0.0,0.0,0.0,0.006979621,-0.058414742,0.15463416,-0.040445637,0.058143795,0.38580832,-0.22077285,0.12337761,0.06397546,0.34639773,-0.066262074,0.039347418,0.011449569,0.056468178,0.06557986,-0.034198154,-0.07169305,-0.04931679,0.046513036,-0.04705037,-0.005676313,0.031934414,0.018227972,-0.056859963,-0.048473824,-2.0,1.0071915,-2.0,2.0,2.0,-2.0,2.0,0.11688318,1.0010003,-2.0,-0.44347343,-2.0,-2.0,0.6443857,-2.0,2.0,2.0,-2.0,2.0,-0.14829728,1.0636413,-2.0,-0.36365798,-2.0
2025-06-09 15:03:58.548,-0.006973542,-0.0568395,-0.018327275,-0.15301374,-0.25609705,0.04741648,0.0,0.0,0.0,0.0062188515,-0.06252659,0.17522416,-0.045236588,0.05149438,0.3892371,-0.2107597,0.13668458,0.079117864,0.34357393,-0.062620506,0.037069995,0.009143032,0.042173497,-0.010774924,-0.04856528,0.047908064,0.060362905,0.023705574,-0.00298689,-0.055148855,0.020319024,0.022748651,-0.009837975,0.03516894,-2.0,0.6443857,-2.0,2.0,2.0,-2.0,2.0,-0.14829728,1.0636413,-2.0,-0.36365798,-2.0,-2.0,0.90629256,-2.0,2.0,2.0,-2.0,2.0,-0.09140978,1.4918131,-2.0,-0.44715014,-2.0
2025-06-09 15:03:58.567,0.01459465,-0.031974513,0.0023566326,-0.18054277,-0.27505282,-0.007897398,0.0,0.0,0.0,0.0056302566,-0.0703925,0.1718222,-0.051850557,0.058844265,0.38578042,-0.22403628,0.13548124,0.07384813,0.34090018,-0.05693418,0.037339162,0.016921302,0.07320021,0.04540986,-0.05922002,0.041215602,-0.00030574246,-0.062414307,-0.0064300825,-0.074914604,-0.054737434,0.06297876,-0.0015657491,0.028261118,-2.0,0.90629256,-2.0,2.0,2.0,-2.0,2.0,-0.09140978,1.4918131,-2.0,-0.44715014,-2.0,-2.0,0.89096165,-2.0,2.0,2.0,-2.0,2.0,-0.047153212,1.5516676,-2.0,-0.40659282,-2.0
2025-06-09 15:03:58.587,0.013394064,-0.040222555,-0.038776785,-0.19547984,-0.19584464,-0.028316688,0.0,0.0,0.0,0.0053150225,-0.070880145,0.16349547,-0.054435708,0.05580071,0.38863954,-0.21573155,0.1266179,0.07417475,0.34610197,-0.061595444,0.021293364,0.009424267,-0.054506585,0.057126235,-0.068878345,0.06844592,0.0010089834,-0.04682297,-0.06400719,0.012656427,0.03888362,-0.055725537,-0.007392099,-0.0010390719,-2.0,0.89096165,-2.0,2.0,2.0,-2.0,2.0,-0.047153212,1.5516676,-2.0,-0.40659282,-2.0,-2.0,0.92573416,-2.0,2.0,2.0,-2.0,2.0,0.033233665,1.2729053,-2.0,-0.7424449,-2.0
2025-06-09 15:03:58.608,0.062434345,-0.01963346,-0.030014,-0.14328155,-0.22963858,-0.036018603,0.0,0.0,0.0,0.0051680277,-0.065789305,0.16464512,-0.06599632,0.058842063,0.39261973,-0.2145268,0.13392156,0.07400014,0.3511045,-0.057458926,0.0201994,0.00875738,0.07348855,-0.05190823,0.009048512,0.053471602,-0.0546822,-0.058365863,0.060482595,0.038414653,0.027053444,0.031785022,0.02374494,-0.0029364391,-2.0,0.92573416,-2.0,2.0,2.0,-2.0,2.0,0.033233665,1.2729053,-2.0,-0.7424449,-2.0,-2.0,1.0978974,-2.0,2.0,2.0,-2.0,2.0,0.077235185,0.87700397,-2.0,-0.6803097,-2.0
2025-06-09 15:03:58.627,0.04326552,-0.045502756,0.056996975,-0.12239912,-0.2942174,0.025045965,0.0,0.0,0.0,0.004698292,-0.06688082,0.1635791,-0.061093345,0.06663875,0.37505224,-0.2133924,0.12498322,0.07101154,0.35030124,-0.054789215,0.016266977,0.016117638,-0.062406573,-0.06057915,0.013577032,0.058830887,0.0481812,0.018444642,-0.008397316,0.06020147,0.057941474,0.02901065,-0.029226894,-0.031018494,-2.0,1.0978974,-2.0,2.0,2.0,-2.0,2.0,0.077235185,0.87700397,-2.0,-0.6803097,-2.0,-2.0,0.508239,-2.0,2.0,2.0,-2.0,2.0,-0.14737076,0.82838863,-2.0,-0.3150309,-2.0
2025-06-09 15:03:58.648,0.069252364,0.0035946108,-0.032692622,-0.1852324,-0.24036847,-0.030569086,0.0,0.0,0.0,0.0036876586,-0.052663874,0.16447069,-0.057482924,0.06747911,0.37821513,-0.21103913,0.11916315,0.087490425,0.33373418,-0.06654521,0.021887245,0.016156204,-0.04615459,0.030913472,0.051166803,-0.016613426,0.07076264,-0.0008474456,0.018818447,-0.037031822,-0.06864228,-0.034729864,-0.03964469,0.0488333,-2.0,0.508239,-2.0,2.0,2.0,-2.0,2.0,-0.14737076,0.82838863,-2.0,-0.3150309,-2.0,-2.0,1.0407853,-2.0,2.0,2.0,-2.0,2.0,0.16111955,0.8218422,-2.0,-0.66936594,-2.0
2025-06-09 15:03:58.667,0.055918027,0.020027874,0.014219172,-0.17513515,-0.2395389,0.043856423,0.0,0.0,0.0,0.0031444149,-0.052328862,0.17882605,-0.06224734,0.06565622,0.37548602,-0.22030781,0.12357325,0.089222126,0.33878297,-0.056804255,0.014658744,0.03019262,0.07577193,0.05551308,-0.028382728,0.07145877,0.01410938,0.02690904,-0.040155586,0.054379094,0.010838029,-0.069642246,0.012808135,-0.014173735,-2.0,1.0407853,-2.0,2.0,2.0,-2.0,2.0,0.16111955,0.8218422,-2.0,-0.66936594,-2.0,-2.0,0.72173285,-2.0,2.0,2.0,-2.0,2.0,-0.12386242,0.73847467,-2.0,-0.6278518,-2.0
2025-06-09 15:03:58.687,0.012880888,-0.03280544,-0.031401098,-0.111362904,-0.23248312,0.018088087,0.0,0.0,0.0,0.0025370067,-0.05338304,0.17025526,-0.06403433,0.06250811,0.39195415,-0.21164574,0.11311034,0.096402064,0.33476532,-0.06558949,0.015777426,0.025576621,-0.04941911,0.010256607,0.044379935,0.043703604,0.039405387,0.025894618,0.069621526,-0.040873528,0.06484242,0.018591514,0.03300529,-0.0066535305,-2.0,0.72173285,-2.0,2.0,2.0,-2.0,2.0,-0.12386242,0.73847467,-2.0,-0.6278518,-2.0,-2.0,0.98810524,-2.0,2.0,2.0,-2.0,2.0,-0.02207122,1.0205201,-2.0,-0.6354433,-2.0
2025-06-09 15:03:58.708,0.06780061,0.029590916,0.0018936694,-0.17824283,-0.25588396,0.044196617,0.0,0.0,0.0,0.0019532326,-0.049463496,0.18446775,-0.07808341,0.0517947,0.39169765,-0.21111342,0.12761474,0.08176874,0.3232712,-0.07275464,0.014250675,0.035406824,-0.024594292,-0.0616726,-0.032028962,0.019010363,-0.052625656,-0.0016109218,0.020405822,-0.013982869,-0.05979602,-0.039060887,0.037349924,0.03687311,-2.0,0.98810524,-2.0,2.0,2.0,-2.0,2.0,-0.02207122,1.0205201,-2.0,-0.6354433,-2.0,-2.0,0.85885733,-2.0,2.0,2.0,-2.0,2.0,0.060865544,0.655314,-2.0,-0.6247598,-2.0
2025-06-09 15:03:58.727,-0.0019893749,0.024293328,0.02503889,-0.17571361,-0.23103692,0.016024092,0.0,0.0,0.0,0.0015129689,-0.059256177,0.17661361,-0.073989995,0.057659797,0.39103708,-0.21931301,0.12126592,0.08450685,0.3251033,-0.071399756,0.009167636,0.037581254,0.039622355,0.025931623,-0.013206152,0.0056863236,0.030223032,-0.057709597,0.06306887,-0.059202444,-0.017995454,0.00483759,0.0146962125,0.055810962,-2.0,0.85885733,-2.0,2.0,2.0,-2.0,2.0,0.060865544,0.655314,-2.0,-0.6247598,-2.0,-2.0,0.7207675,-2.0,2.0,2.0,-2.0,2.0,-0.04870335,0.76850426,-2.0,-0.4115033,-2.0
2025-06-09 15:03:58.748,-0.01372399,0.052306574,-0.0007463252,-0.101269744,-0.18900517,-0.026252039,0.0,0.0,0.0,0.0010553553,-0.055914532,0.18837696,-0.07370844,0.05297099,0.38125864,-0.22300534,0.1202805,0.1009707,0.32701227,-0.06291781,0.008521813,0.024919126,0.043347605,0.011791423,0.0028187467,0.044266783,0.030721636,0.026808657,0.019920604,-0.063138425,-0.037951224,-0.030006368,0.06318601,0.002433692,-2.0,0.7207675,-2.0,2.0,2.0,-2.0,2.0,-0.04870335,0.76850426,-2.0,-0.4115033,-2.0,-2.0,0.7874494,-2.0,2.0,2.0,-2.0,2.0,-0.14945778,1.2209767,-2.0,-0.45433745,-2.0
2025-06-09 15:03:58.767,0.034687363,0.015874004,-0.013476196,-0.1669392,-0.2685693,-0.035048712,0.0,0.0,0.0,0.000988521,-0.052890427,0.18216702,-0.0699157,0.057881955,0.39390302,-0.21334577,0.108004585,0.092966765,0.3185578,-0.062003225,0.004798832,0.019507453,-0.004423141,-0.076944545,0.069614045,-0.06758972,-0.020660251,0.030875629,0.015386419,-0.028250633,-0.0005907893,0.0056674783,0.0039365934,0.024490487,-2.0,0.7874494,-2.0,2.0,2.0,-2.0,2.0,-0.14945778,1.2209767,-2.0,-0.45433745,-2.0,-2.0,1.0135633,-2.0,2.0,2.0,-2.0,2.0,0.14496985,0.87586087,-2.0,-0.6098437,-2.0
2025-06-09 15:03:58.787,0.009935162,-0.009187657,-0.0075180866,-0.1661069,-0.20772612,-0.000813147,0.0,0.0,0.0,0.0015129176,-0.059519146,0.18406102,-0.06277103,0.055411458,0.391497,-0.217286,0.12001941,0.098740175,0.32769647,-0.072583154,0.016112434,0.022608506,0.031225279,-0.011411974,0.045073804,-0.027165158,0.043977216,0.05844633,-0.03688163,0.07623867,0.041829735,-0.012100769,-0.019071616,0.05365122,-2.0,1.0135633,-2.0,2.0,2.0,-2.0,2.0,0.14496985,0.87586087,-2.0,-0.6098437,-2.0,-2.0,0.8453156,-2.0,2.0,2.0,-2.0,2.0,0.08885088,0.38241786,-2.0,-0.7140024,-2.0
2025-06-09 15:03:58.808,0.101678275,0.049664747,0.00046273525,-0.09998656,-0.20345621,-0.027557796,0.0,0.0,0.0,0.0018970907,-0.053760573,0.18613008,-0.073705256,0.0662794,0.38597795,-0.2165041,0.123839945,0.100089714,0.3081056,-0.057120133,0.018163878,0.02958966,0.0059704464,0.025624845,-0.0065344335,-0.05436107,-0.052783705,0.045102805,0.057912838,-0.023283482,0.03390178,-0.065609284,-0.006114061,0.043112297,-2.0,0.8453156,-2.0,2.0,2.0,-2.0,2.0,0.08885088,0.38241786,-2.0,-0.7140024,-2.0,-2.0,0.82129955,-2.0,2.0,2.0,-2.0,2.0,0.031807564,0.1743623,-2.0,-0.72233033,-2.0
2025-06-09 15:03:58.828,0.10629057,0.008416272,0.019814836,-0.099409096,-0.25097448,0.012602634,0.0,0.0,0.0,0.0018203589,-0.045734372,0.17848025,-0.07959285,0.053504176,0.38576332,-0.22607473,0.106724866,0.08744215,0.30445847,-0.06550788,0.01307371,0.021490978,0.06472704,0.05971528,0.05649665,0.050450966,0.022433558,0.03171412,0.06577366,-0.026735948,0.011202034,0.07076779,0.0035337869,-0.067806765,-2.0,0.82129955,-2.0,2.0,2.0,-2.0,2.0,0.031807564,0.1743623,-2.0,-0.72233033,-2.0,-2.0,0.8189607,-2.0,2.0,2.0,-2.0,2.0,-0.17888191,0.7187039,-2.0,-0.44849572,-2.0
2025-06-09 15:03:58.849,0.046965457,0.05443395,-0.007901771,-0.088578105,-0.17447111,-0.01438088,0.0,0.0,0.0,0.001433164,-0.045715302,0.1878545,-0.07438984,0.06679061,0.38349643,-0.21437266,0.107990235,0.1020421,0.2997699,-0.061009154,0.0046975003,0.031886257,6.4834516e-05,-0.016675515,-0.017011937,0.055077348,0.05466894,0.06756142,-0.019037602,0.0039957156,-0.024078239,-0.028944442,0.04721943,-0.037128575,-2.0,0.8189607,-2.0,2.0,2.0,-2.0,2.0,-0.17888191,0.7187039,-2.0,-0.44849572,-2.0,-2.0,0.8436356,-2.0,2.0,2.0,-2.0,2.0,-0.16569915,1.253332,-2.0,-0.55101055,-2.0
2025-06-09 15:03:58.869,-0.030446976,0.02292958,-0.08805789,-0.14365779,-0.18907489,0.032995097,0.0,0.0,0.0,0.0014401826,-0.047017965,0.17029789,-0.07948844,0.06357956,0.39227524,-0.21404432,0.122526176,0.084691726,0.30524573,-0.053946406,0.010706139,0.03950643,-0.03686264,-0.081493445,0.031658497,-0.055950172,0.053791452,-0.031548068,-0.0037112394,0.03777935,-0.050972622,0.04420922,-0.03903467,0.07659088,-2.0,0.8436356,-2.0,2.0,2.0,-2.0,2.0,-0.16569915,1.253332,-2.0,-0.55101055,-2.0,-2.0,1.4383364,-2.0,2.0,2.0,-2.0,2.0,0.40813643,0.4745953,-2.0,-0.9079816,-2.0
2025-06-09 15:03:58.889,0.11520087,0.062308785,-0.019919744,-0.07657763,-0.20842864,0.03156088,0.0,0.0,0.0,0.001985465,-0.06036153,0.17391588,-0.082788646,0.06371998,0.37570614,-0.2243385,0.10554784,0.098476216,0.29947886,-0.06292649,-0.0010489252,0.037019376,0.06349928,0.014089228,-0.029299507,0.0766672,0.067160085,0.0016281349,-0.064381525,-0.04273151,-0.013671501,-0.017488101,0.05620427,-0.06152254,-2.0,1.4383364,-2.0,2.0,2.0,-2.0,2.0,0.40813643,0.4745953,-2.0,-0.9079816,-2.0,-2.0,0.77689606,-2.0,2.0,2.0,-2.0,2.0,-0.116256274,0.18153,-2.0,-0.7609728,-2.0
2025-06-09 15:03:58.909,0.092783794,0.004173118,-0.031720143,-0.09493108,-0.20006183,0.010715309,0.0,0.0,0.0,0.0016293891,-0.06274201,0.1848518,-0.076186754,0.053424828,0.37578058,-0.22352964,0.120353274,0.095443755,0.29519713,-0.06755849,0.010096532,0.03895263,-0.0107773915,-0.02098627,0.06223488,0.023041064,0.005455731,-0.016189773,-0.06092182,0.036158483,-0.04743761,-0.06070042,-0.042786665,-0.026460283,-2.0,0.77689606,-2.0,2.0,2.0,-2.0,2.0,-0.116256274,0.18153,-2.0,-0.7609728,-2.0,-2.0,1.1590799,-2.0,2.0,2.0,-2.0,2.0,0.22911307,-0.033157416,-2.0,-0.80986136,-2.0
2025-06-09 15:03:58.932,0.09471926,0.03583665,-0.0058829705,-0.08767445,-0.18436831,0.040867113,0.0,0.0,0.0,0.00091045146,-0.053826157,0.1709554,-0.070536815,0.069040656,0.39331678,-0.21883121,0.118524045,0.091810256,0.27011728,-0.06351439,0.008957949,0.04803767,0.009968365,-0.05178571,0.058759443,0.0593449,0.038729712,-0.05291016,0.056887124,-0.048029177,-0.05927158,-0.03717234,-0.00559406,-0.025730629,-2.0,1.1590799,-2.0,2.0,2.0,-2.0,2.0,0.22911307,-0.033157416,-2.0,-0.80986136,-2.0,-2.0,0.760128,-2.0,2.0,2.0,-2.0,2.0,0.092190884,-0.3456416,-2.0,-0.6728707,-2.0
2025-06-09 15:03:58.949,0.08617788,0.08511028,-0.032151647,-0.13957581,-0.22222118,-0.015098229,0.0,0.0,0.0,-0.00010045636,-0.042341717,0.17231224,-0.06967042,0.06720625,0.38187614,-0.22717915,0.1100138,0.10375915,0.2651666,-0.053991,-0.008035467,0.037526526,0.016450139,0.06662019,-0.03300098,-0.010864077,-0.049518764,-0.051099356,-0.022872554,-0.036477428,-0.066975564,-0.021758942,-0.07454996,0.04027041,-2.0,0.760128,-2.0,2.0,2.0,-2.0,2.0,0.092190884,-0.3456416,-2.0,-0.6728707,-2.0,-2.0,1.1564015,-2.0,2.0,2.0,-2.0,2.0,0.3562169,-0.725107,-2.0,-0.9660403,-2.0
2025-06-09 15:03:58.969,0.17440377,0.06620069,0.03820608,-0.1157656,-0.13628979,-0.030907767,0.0,0.0,0.0,-0.0011046993,-0.042349063,0.18789348,-0.06920892,0.06893423,0.38912138,-0.22110213,0.10155058,0.11532927,0.23397702,-0.05618059,0.005209983,0.033453286,-0.052259576,0.07914409,0.007680686,-0.06893452,-0.032997865,-0.07307851,0.050829254,-0.024420366,-0.09454985,-0.045739852,-0.013191108,-0.024937678,-2.0,1.1564015,-2.0,2.0,2.0,-2.0,2.0,0.3562169,-0.725107,-2.0,-0.9660403,-2.0,-2.0,0.5056055,-2.0,2.0,2.0,-2.0,2.0,0.18094417,-1.6494716,-2.0,-0.8893377,-2.0
2025-06-09 15:03:58.989,0.20546933,0.028927717,0.010409312,-0.08743808,-0.21639821,0.0014390711,0.0,0.0,0.0,-0.002515738,-0.030011967,0.18598531,-0.08659367,0.06366392,0.37748685,-0.22751945,0.10775205,0.13723111,0.2235229,-0.05297663,-0.006184758,0.040716927,-0.020882562,-0.055832807,-0.061004046,0.036194764,0.0027428092,-0.06381372,-0.0029921366,-0.037955794,-0.03775958,-0.025924906,-0.072040685,-0.021794662,-2.0,0.5056055,-2.0,2.0,2.0,-2.0,2.0,0.18094417,-1.6494716,-2.0,-0.8893377,-2.0,-2.0,0.8878076,-2.0,2.0,2.0,-2.0,2.0,0.14955464,-2.0,-2.0,-0.85883325,-2.0
2025-06-09 15:03:59.009,0.18891063,0.0803156,0.0766328,-0.095452175,-0.17069031,-0.013573863,0.0,0.0,0.0,-0.0040903003,-0.023892287,0.20088516,-0.082946025,0.053911526,0.38242754,-0.20900306,0.106238246,0.13543005,0.19455399,-0.0644602,-0.00657563,0.039481726,0.08518019,0.07490444,-0.040790968,0.067511134,0.034104876,0.009770437,0.026621064,0.08849603,-0.13631837,-0.035620585,-0.05684103,-0.067828655,-2.0,0.8878076,-2.0,2.0,2.0,-2.0,2.0,0.14955464,-2.0,-2.0,-0.85883325,-2.0,-2.0,0.44609612,-2.0,2.0,2.0,-2.0,2.0,-0.16237152,-2.0,-2.0,-0.7130832,-2.0
2025-06-09 15:03:59.032,0.15540148,0.08879033,0.017505385,-0.055804532,-0.10224808,0.039160173,0.0,0.0,0.0,-0.005613712,-0.021678176,0.18889639,-0.08488002,0.0660655,0.39406675,-0.21470274,0.08628396,0.14417627,0.16983344,-0.056384265,-0.015203509,0.040363498,-0.028960804,-0.04661216,0.01522053,0.06607321,-0.049849343,-0.06308778,-0.043304887,-0.008616737,-0.037395712,0.025332462,0.04857839,-0.046755612,-2.0,0.44609612,-2.0,2.0,2.0,-2.0,2.0,-0.16237152,-2.0,-2.0,-0.7130832,-2.0,-2.0,0.93354535,-2.0,2.0,2.0,-2.0,2.0,0.096905224,-1.7035328,-2.0,-0.7570799,-2.0
2025-06-09 15:03:59.050,0.21313913,0.07106922,-0.011983665,-0.052988887,-0.17641464,0.0017439392,0.0,0.0,0.0,-0.006477977,-0.024983238,0.17895289,-0.095893115,0.06511077,0.3806202,-0.22397342,0.08526735,0.13959174,0.14434844,-0.053908043,-0.004212758,0.034529317,0.017113948,0.04699587,0.00876603,-0.049080532,-0.020212226,-0.049621765,0.02789422,-0.025117734,-0.101013266,0.06624626,0.019516489,-0.07610004,-2.0,0.93354535,-2.0,2.0,2.0,-2.0,2.0,0.096905224,-1.7035328,-2.0,-0.7570799,-2.0,-2.0,0.88481694,-2.0,2.0,2.0,-2.0,2.0,0.35502386,-1.8361031,-2.0,-0.97970873,-2.0
2025-06-09 15:03:59.069,0.24804007,0.050570153,-0.044602394,-0.03792059,-0.16040964,0.006315703,0.0,0.0,0.0,-0.006821533,-0.028250873,0.19066931,-0.102451004,0.051994838,0.38252845,-0.22303991,0.08294988,0.1571102,0.120748006,-0.057553723,-0.02112294,0.03517569,0.022085017,0.04670129,-0.03234256,0.051736563,0.034128495,-0.054118387,0.034105405,-0.03828028,-0.034959767,-0.050487027,-0.07781278,0.064021334,-2.0,0.88481694,-2.0,2.0,2.0,-2.0,2.0,0.35502386,-1.8361031,-2.0,-0.97970873,-2.0,-2.0,0.7840181,-1.8839939,2.0,2.0,-2.0,2.0,0.45787945,-2.0,-2.0,-1.2417674,-2.0
2025-06-09 15:03:59.089,0.24248835,0.040593572,-0.012335091,-0.022342088,-0.10583464,-0.0050701206,0.0,0.0,0.0,-0.007210554,-0.031543102,0.18591776,-0.111203,0.05874772,0.38159096,-0.22295964,0.095294975,0.15882096,0.096233316,-0.06343739,-0.037477113,0.023777975,-0.027275218,0.057918474,-0.014931792,0.00035911967,0.03859721,0.011180919,0.019149482,0.018802838,-0.014250308,-0.069750816,0.034393787,0.01536557,-2.0,0.7840181,-1.8839939,2.0,2.0,-2.0,2.0,0.45787945,-2.0,-2.0,-1.2417674,-2.0,-2.0,0.45690563,-1.70613,2.0,2.0,-2.0,2.0,0.09261643,-2.0,-2.0,-1.2296156,-2.0
2025-06-09 15:03:59.151,0.19843018,0.049654145,-0.033333845,0.00034346603,-0.057820432,0.031359725,0.0,0.0,0.0,-0.007900237,-0.02467897,0.16341583,-0.09658005,0.07045536,0.3871716,-0.22460525,0.07739026,0.16107863,0.08543924,-0.0651643,-0.037991267,0.0251273,0.0712368,-0.080726996,0.012773109,-0.052596603,0.015141316,-0.028167602,0.037682746,-0.049813867,-0.047378466,-0.004970625,-0.10691612,-0.06311441,-2.0,0.45690563,-1.70613,2.0,2.0,-2.0,2.0,0.09261643,-2.0,-2.0,-1.2296156,-2.0,-2.0,0.9387959,-1.2611504,2.0,2.0,-2.0,2.0,0.37054393,-2.0,-2.0,-1.0882481,-2.0
2025-06-09 15:03:59.171,0.3275913,0.13195093,0.028840423,-0.0013869735,-0.019353056,0.027845763,0.0,0.0,0.0,-0.0084128,-0.03434195,0.15489718,-0.093858846,0.07325485,0.39165884,-0.21293592,0.078371935,0.14501414,0.051508643,-0.05825452,-0.05685157,0.032487825,0.034833156,0.023013623,-0.018092755,-0.00066246104,-0.029441888,0.030965043,0.054261502,0.001243623,-0.07048354,0.049497858,-0.022636844,-0.0208587,-2.0,0.9387959,-1.2611504,2.0,2.0,-2.0,2.0,0.37054393,-2.0,-2.0,-1.0882481,-2.0,-2.0,0.3962131,-2.0,2.0,2.0,-2.0,2.0,-0.042739995,-2.0,-2.0,-0.9839935,-2.0
2025-06-09 15:03:59.191,0.24480604,0.09832533,-0.039317854,-0.009936075,-0.02470841,-0.009804328,0.0,0.0,0.0,-0.008837961,-0.026007917,0.15139772,-0.0874609,0.07051439,0.37552318,-0.20891969,0.07971241,0.15413515,0.030893879,-0.07792134,-0.07180319,0.029125908,-0.060296953,-0.11121965,0.013574093,-0.029998375,-0.088766046,0.14911711,0.016379416,-0.016385948,0.02090766,0.028643461,-0.0791547,-0.010979562,-2.0,0.3962131,-2.0,2.0,2.0,-2.0,2.0,-0.042739995,-2.0,-2.0,-0.9839935,-2.0,-2.0,1.0080075,-1.7937365,2.0,2.0,-2.0,2.0,0.22247764,-2.0,-2.0,-1.1112522,-2.0
2025-06-09 15:03:59.211,0.14184083,0.07251858,-0.005642404,0.061991762,-0.016930958,-0.049355228,0.0,0.0,0.0,-0.008540699,-0.045235712,0.13793047,-0.10080079,0.06662627,0.35519814,-0.16630691,0.07694139,0.14446884,0.0152410995,-0.06325082,-0.07780272,0.023248542,-0.091924585,0.027962271,-0.031769857,-0.029127795,-0.06374193,0.14365208,-0.016170194,-0.022667093,-0.018322077,-0.059055835,-0.09445943,0.008828038,-2.0,1.0080075,-1.7937365,2.0,2.0,-2.0,2.0,0.22247764,-2.0,-2.0,-1.1112522,-2.0,-2.0,0.39007026,-1.7919787,2.0,2.0,-2.0,2.0,0.052639388,-2.0,-2.0,-1.1964573,-2.0
2025-06-09 15:03:59.233,0.08256539,0.046580955,-0.08079071,0.05294395,0.022192199,0.030062785,0.0,0.0,0.0,-0.007988131,-0.035716623,0.11067273,-0.105142735,0.056205917,0.32843828,-0.13599263,0.060171444,0.12149499,0.0022404436,-0.08694199,-0.10271848,0.024681067,-0.046272006,-0.06902116,-0.008871869,0.025140215,-0.06254067,0.010901594,0.015423454,-0.03289226,-0.058625247,-0.062794685,-0.020570178,-0.06587392,-2.0,0.39007026,-1.7919787,2.0,2.0,-2.0,2.0,0.052639388,-2.0,-2.0,-1.1964573,-2.0,-2.0,0.86962646,-1.3110325,2.0,2.0,-2.0,2.0,0.32874456,-2.0,-2.0,-1.2227513,-2.0
2025-06-09 15:03:59.251,0.12813404,0.043993514,-0.0041905832,0.014234904,-0.02634567,0.010257184,0.0,0.0,0.0,-0.0073595955,-0.05927439,0.109950416,-0.105426215,0.056416266,0.3053161,-0.11575839,0.066597134,0.12820224,-0.02805762,-0.08571667,-0.10410433,0.010488578,-0.07453831,-0.019752443,-0.0265285,0.05448231,-0.0001918464,0.11013439,0.04660929,0.0192033,-0.052080933,-0.013347356,-0.0021020053,-0.014429656,-2.0,0.86962646,-1.3110325,2.0,2.0,-2.0,2.0,0.32874456,-2.0,-2.0,-1.2227513,-2.0,-2.0,0.29343322,-1.7980611,2.0,2.0,-2.0,2.0,-0.19778422,-2.0,-2.0,-1.107034,-2.0
2025-06-09 15:03:59.271,0.07966223,0.0375412,0.0084163705,0.05898775,0.049790457,-0.02650038,0.0,0.0,0.0,-0.0070727672,-0.060373556,0.09995162,-0.12524043,0.049297135,0.29682913,-0.08970499,0.048895687,0.10243394,-0.03882751,-0.07616364,-0.12295204,0.011187576,0.005667641,-0.034198724,-0.069404714,0.008121993,-0.09504384,-0.043217875,-0.07927623,-0.035295278,-0.03866906,-0.02476976,-0.09324804,-0.04074134,-2.0,0.29343322,-1.7980611,2.0,2.0,-2.0,2.0,-0.19778422,-2.0,-2.0,-1.107034,-2.0,-2.0,0.8670294,-1.5679562,2.0,2.0,-2.0,2.0,-0.23619181,-2.0,-2.0,-0.8865775,-2.0
2025-06-09 15:03:59.292,0.03467444,0.06103604,-0.09023785,0.00046258667,0.0159883,-0.023167193,0.0,0.0,0.0,-0.0066110273,-0.07315891,0.094207995,-0.13299482,0.042892467,0.2764743,-0.07883902,0.058916803,0.10229579,-0.055851944,-0.0773801,-0.1351528,-0.012461869,-0.050558683,-0.052219182,-0.040066183,-0.01117127,0.019261973,0.00082077004,0.051946335,-0.01942708,-0.027280891,-0.0524861,0.013325965,-0.06495705,-2.0,0.8670294,-1.5679562,2.0,2.0,-2.0,2.0,-0.23619181,-2.0,-2.0,-0.8865775,-2.0,-2.0,0.7103791,-2.0,2.0,2.0,-2.0,2.0,0.21682492,-2.0,-2.0,-1.2080028,-2.0
2025-06-09 15:03:59.311,0.117543705,0.012892893,-0.042606093,0.08378399,0.059960164,-0.019610485,0.0,0.0,0.0,-0.005850564,-0.06848307,0.080737256,-0.1525021,0.040276904,0.27567735,-0.0752692,0.05924004,0.092528075,-0.063030735,-0.08521635,-0.13857973,-0.024889756,-0.020981552,0.0018368792,-0.080885105,-0.0476457,-0.06055881,-0.044679612,-0.012520706,-0.076526396,-0.06801778,-0.027278742,0.0011819289,0.011899617,-2.0,0.7103791,-2.0,2.0,2.0,-2.0,2.0,0.21682492,-2.0,-2.0,-1.2080028,-2.0,-2.0,0.53319883,-1.5127796,2.0,2.0,-2.0,2.0,0.065738164,-2.0,-2.0,-1.2233768,-2.0
2025-06-09 15:03:59.332,-0.015882023,0.06703628,-0.015750378,0.0662348,0.063144036,0.0445247,0.0,0.0,0.0,-0.0053263875,-0.08063875,0.0700431,-0.15729634,0.058608327,0.26209968,-0.070430845,0.051615793,0.080815144,-0.070874095,-0.0754241,-0.13526157,-0.027190669,0.024476074,-0.0004387808,-0.06309982,0.06830328,0.049102657,-0.057370055,-0.07699673,-0.08889945,-0.050322186,-0.05293961,-0.08797301,-0.02006542,-2.0,0.53319883,-1.5127796,2.0,2.0,-2.0,2.0,0.065738164,-2.0,-2.0,-1.2233768,-2.0,-2.0,0.5258035,-1.3716898,2.0,2.0,-2.0,2.0,-0.298026,-2.0,-2.0,-0.93460745,-2.0
2025-06-09 15:03:59.351,-0.007946401,0.067434385,-0.032778148,0.06773331,-0.019375995,0.0060692364,0.0,0.0,0.0,-0.0051822327,-0.068979196,0.058448277,-0.14678967,0.056952033,0.24678175,-0.07182203,0.04493905,0.05736269,-0.07710851,-0.08346713,-0.14009783,-0.050405834,0.03876322,-0.09384246,0.045754332,-0.06488326,-0.0073445593,-0.004472128,-0.02234556,-0.054530434,0.038276136,-0.012824109,-0.019001095,0.0030451824,-2.0,0.5258035,-1.3716898,2.0,2.0,-2.0,2.0,-0.298026,-2.0,-2.0,-0.93460745,-2.0,-2.0,0.68713915,-1.6832985,2.0,2.0,-2.0,2.0,-0.060944386,-2.0,-2.0,-0.94813997,-2.0
2025-06-09 15:03:59.372,-0.009565985,0.085891224,0.020604152,0.06425194,0.028057028,-0.03376771,0.0,0.0,0.0,-0.00500216,-0.08332544,0.05111406,-0.14982298,0.044067185,0.24229199,-0.071220174,0.05117169,0.06466655,-0.098315835,-0.089628614,-0.15423873,-0.068625286,0.065877244,-0.0935443,-0.012514469,0.078560926,-0.037221383,0.05327427,0.0066273664,-0.071039766,0.037911486,0.061918534,0.007396237,-0.006764312,-2.0,0.68713915,-1.6832985,2.0,2.0,-2.0,2.0,-0.060944386,-2.0,-2.0,-0.94813997,-2.0,-2.0,0.4563821,-2.0,2.0,2.0,-2.0,2.0,-0.56128186,-1.9839579,-2.0,-0.7419575,-2.0
2025-06-09 15:03:59.392,0.004384425,0.055346727,-0.023162346,0.016628683,0.023671683,0.011133774,0.0,0.0,0.0,-0.0048091137,-0.07882177,0.031573843,-0.14988466,0.053786248,0.24771166,-0.06397391,0.039909042,0.036253307,-0.0888635,-0.07649301,-0.15570627,-0.073318936,-0.070153594,-0.05684905,0.00922442,0.072833,0.038897004,0.070133075,-0.03331093,-0.060104672,-0.013622398,0.023323629,-0.0070608454,0.030993488,-2.0,0.4563821,-2.0,2.0,2.0,-2.0,2.0,-0.56128186,-1.9839579,-2.0,-0.7419575,-2.0,-2.0,0.64217895,-2.0,2.0,2.0,-2.0,2.0,-0.39991757,-1.8810539,-2.0,-0.8365751,-2.0
2025-06-09 15:03:59.412,-0.073571205,0.024816357,-0.008961357,0.00041452862,0.05576145,-0.004940541,0.0,0.0,0.0,-0.0042176787,-0.08719188,0.027382785,-0.14871742,0.06236986,0.24606124,-0.078549385,0.061612,0.035175394,-0.08108717,-0.070184305,-0.14618239,-0.08148299,-0.026257796,-0.05440505,-0.0085206935,0.072719365,0.010630394,-0.07671889,-0.022908736,-0.004556085,-0.056236017,0.077338986,0.040555444,-0.09016268,-2.0,0.64217895,-2.0,2.0,2.0,-2.0,2.0,-0.39991757,-1.8810539,-2.0,-0.8365751,-2.0,-2.0,0.5964297,-2.0,2.0,2.0,-2.0,2.0,-0.31731272,-1.5057808,-2.0,-0.7679375,-2.0
2025-06-09 15:03:59.434,-0.054484528,0.023218483,-0.08783214,0.020226667,-0.014139608,-0.000651668,0.0,0.0,0.0,-0.003320446,-0.07354286,0.027967306,-0.1518448,0.052151605,0.25783208,-0.073042296,0.065429196,0.003041064,-0.08967919,-0.08023197,-0.1547367,-0.094802454,-0.073938735,-0.051567655,0.0455716,0.04341516,0.0022931262,0.024623258,-0.038807314,0.03870938,0.01581255,-0.020519461,0.075835764,-0.07015283,-2.0,0.5964297,-2.0,2.0,2.0,-2.0,2.0,-0.31731272,-1.5057808,-2.0,-0.7679375,-2.0,-2.0,0.7465477,-2.0,2.0,2.0,-2.0,2.0,-0.1491051,-1.593129,-2.0,-1.1354004,-2.0
2025-06-09 15:03:59.452,-0.08059182,-0.014055961,0.01953467,0.031073807,-0.00732566,-0.033638746,0.0,0.0,0.0,-0.0023765971,-0.07274986,0.017556477,-0.16037473,0.056317203,0.2550512,-0.089293435,0.054480787,0.009622482,-0.08744661,-0.07371917,-0.15463234,-0.098761395,-0.0129076615,-0.08007343,-0.057576742,0.02310741,0.052021176,-0.0642481,-0.027762415,0.02051419,0.016465489,0.057231165,0.009968415,-0.07917297,-2.0,0.7465477,-2.0,2.0,2.0,-2.0,2.0,-0.1491051,-1.593129,-2.0,-1.1354004,-2.0,-2.0,0.41728008,-2.0,2.0,2.0,-2.0,2.0,-0.48699197,-1.6896144,-2.0,-0.78961843,-2.0
2025-06-09 15:03:59.472,-0.09103404,-0.023455035,0.0068966155,-0.02290893,0.05026895,0.01684057,0.0,0.0,0.0,-0.0018300315,-0.07778695,-0.0002215342,-0.15098679,0.056943603,0.26694137,-0.090218656,0.060414657,0.0013883833,-0.07111843,-0.06545937,-0.15326937,-0.10533308,0.029136589,-0.03308638,-0.009516035,0.024383092,0.026734766,-0.053194888,0.02970953,-0.01622267,-0.05043102,-0.026952548,-0.011813303,-0.08688543,-2.0,0.41728008,-2.0,2.0,2.0,-2.0,2.0,-0.48699197,-1.6896144,-2.0,-0.78961843,-2.0,-2.0,0.5589639,-2.0,2.0,2.0,-2.0,2.0,-0.54398865,-1.6588416,-2.0,-0.7081017,-2.0
2025-06-09 15:03:59.492,-0.00897849,-0.02371266,-0.0748879,-0.019153364,-0.017703718,0.039901312,0.0,0.0,0.0,-0.0013626288,-0.08081253,-0.012703594,-0.14432561,0.06181212,0.26351985,-0.08635541,0.07391133,-0.008846451,-0.06720436,-0.05819408,-0.15396062,-0.11943239,-0.0098241465,-0.053798754,-0.03689359,0.07093793,-0.05469291,-0.08305769,0.023649843,-0.065346286,-0.0076603685,-0.01695911,-0.06476725,-0.065124065,-2.0,0.5589639,-2.0,2.0,2.0,-2.0,2.0,-0.54398865,-1.6588416,-2.0,-0.7081017,-2.0,-2.0,0.8219321,-2.0,2.0,2.0,-2.0,2.0,-0.07782299,-1.7743059,-2.0,-0.93969184,-2.0
2025-06-09 15:03:59.515,-0.040690117,-0.008604719,0.019373288,0.011562303,-0.007141635,-0.0055003744,0.0,0.0,0.0,-0.00073902536,-0.08227434,-0.0012813302,-0.14413877,0.059060134,0.27257457,-0.098729774,0.075684495,-0.013271932,-0.062009506,-0.06090897,-0.1546853,-0.12950489,0.0049306275,-0.035699956,-0.049861334,-0.026318923,0.07960798,0.026583184,0.079035096,0.015148834,-0.007213463,0.055179555,-0.039857183,-0.041828983,-2.0,0.8219321,-2.0,2.0,2.0,-2.0,2.0,-0.07782299,-1.7743059,-2.0,-0.93969184,-2.0,-2.0,0.18987861,-2.0,2.0,2.0,-2.0,2.0,-0.56596166,-2.0,-2.0,-0.8008911,-2.0
2025-06-09 15:03:59.532,-0.057134196,0.046158124,-0.05874967,-0.02614169,0.0289794,0.041781135,0.0,0.0,0.0,-0.00054129027,-0.07958591,-0.010294535,-0.13114662,0.065018356,0.2958927,-0.110090934,0.06896903,-0.0127767855,-0.070380114,-0.049617354,-0.14781184,-0.11602738,0.016262095,0.045303468,0.070133485,-0.017327597,0.007280954,-0.050701115,-0.0032423427,0.004406945,0.038161457,0.005882845,0.019830495,-0.019134805,-2.0,0.18987861,-2.0,2.0,2.0,-2.0,2.0,-0.56596166,-2.0,-2.0,-0.8008911,-2.0,-2.0,0.8141529,-1.9494874,2.0,2.0,-2.0,2.0,-0.31573775,-2.0,-2.0,-0.9191948,-2.0
2025-06-09 15:03:59.552,-0.030846575,-0.023404675,-0.03445496,-0.008886471,0.051591758,0.013312215,0.0,0.0,0.0,-0.00040074045,-0.08063187,-0.0150943,-0.12605213,0.07567361,0.2971475,-0.110643916,0.064306304,-0.015085846,-0.057352856,-0.06484975,-0.13685982,-0.11776426,0.007710972,-0.026012067,0.02629409,-0.011834496,-0.043232433,0.030042056,-0.043240704,-0.019167254,-0.0321392,0.0037266607,-0.017106041,-0.060094405,-2.0,0.8141529,-1.9494874,2.0,2.0,-2.0,2.0,-0.31573775,-2.0,-2.0,-0.9191948,-2.0,-2.0,0.50987566,-2.0,2.0,2.0,-2.0,2.0,-0.21072385,-2.0,-2.0,-0.9987137,-2.0
2025-06-09 15:03:59.572,0.006984228,-0.033211943,-0.007113935,0.0048516463,0.043145057,0.02542395,0.0,0.0,0.0,-0.00044610965,-0.078974135,-0.017814815,-0.13673273,0.07904305,0.29447484,-0.10497941,0.06517216,-0.009430107,-0.066628456,-0.04879674,-0.13983282,-0.11423158,-0.057144426,0.050085887,-0.06727222,-0.022395398,0.07643574,-0.017524138,-0.051932305,0.00971097,-0.05627964,0.050862905,-0.0060448605,-0.06269442,-2.0,0.50987566,-2.0,2.0,2.0,-2.0,2.0,-0.21072385,-2.0,-2.0,-0.9987137,-2.0,-2.0,0.47542864,-1.9768112,2.0,2.0,-2.0,2.0,-0.6053804,-2.0,-2.0,-0.90384114,-2.0
2025-06-09 15:03:59.592,-0.010154384,-0.027223753,0.022819795,-0.008140028,-0.014369005,-0.033510614,0.0,0.0,0.0,-0.0008223932,-0.06569073,-0.0031558657,-0.117665865,0.081427604,0.3047666,-0.10827046,0.063530535,-0.019448407,-0.054734264,-0.048539564,-0.14205085,-0.11666698,0.030596279,-0.07285646,-0.028378842,-0.04434916,0.033931315,-0.029784122,-0.04102296,0.015891649,0.060023844,0.00482545,-0.014814137,0.026579719,-2.0,0.47542864,-1.9768112,2.0,2.0,-2.0,2.0,-0.6053804,-2.0,-2.0,-0.90384114,-2.0,-2.0,0.5618237,-2.0,2.0,2.0,-2.0,2.0,-0.6047373,-2.0,-2.0,-0.7574064,-2.0
2025-06-09 15:03:59.616,0.021018049,0.0019207718,0.035759594,-0.050715655,-0.018800717,0.008082766,0.0,0.0,0.0,-0.0010971896,-0.076800585,-0.0057879738,-0.124013625,0.0717264,0.32188284,-0.11059536,0.07977114,-0.01814226,-0.053306352,-0.04768262,-0.1437132,-0.11980054,-0.07057098,0.025052235,0.041624814,-0.062803626,-0.0020026166,-0.07220731,0.011538855,0.03434446,0.053411778,0.038820643,-0.0595882,0.06665158,-2.0,0.5618237,-2.0,2.0,2.0,-2.0,2.0,-0.6047373,-2.0,-2.0,-0.7574064,-2.0,-2.0,0.35770044,-2.0,2.0,2.0,-2.0,2.0,-0.47168884,-2.0,-2.0,-0.7738915,-2.0
2025-06-09 15:03:59.633,-0.036408674,-0.033084076,-0.00075161556,0.013565079,0.0636839,-0.013399102,0.0,0.0,0.0,-0.0010534022,-0.07623436,0.0040326486,-0.11831337,0.08507038,0.3232416,-0.117773674,0.07295458,-0.009699647,-0.04750608,-0.062611304,-0.14506026,-0.10639515,0.031666905,-0.0065768524,0.030570865,0.04636737,0.058716886,0.038488973,0.050534308,0.027643459,0.017460931,0.06621281,0.03689264,-0.016546698,-2.0,0.35770044,-2.0,2.0,2.0,-2.0,2.0,-0.47168884,-2.0,-2.0,-0.7738915,-2.0,-2.0,0.5568429,-2.0,2.0,2.0,-2.0,2.0,-0.6535054,-1.7232774,-2.0,-0.7589478,-2.0
2025-06-09 15:03:59.653,0.026247371,-0.037867647,-0.07506975,0.026023772,0.058438167,0.024960907,0.0,0.0,0.0,-0.000774185,-0.07549961,-0.011044994,-0.13116382,0.06939113,0.32011935,-0.115022734,0.07771805,-0.015001939,-0.03807843,-0.050123356,-0.15395829,-0.09787297,-0.02648145,-0.06859119,-0.01913592,-0.05576925,0.06984282,-0.003122808,-0.0147959385,-0.028689971,0.06333523,-0.047722436,-0.032091383,0.080074,-2.0,0.5568429,-2.0,2.0,2.0,-2.0,2.0,-0.6535054,-1.7232774,-2.0,-0.7589478,-2.0,-2.0,0.70954895,-2.0,2.0,2.0,-2.0,2.0,-0.13411492,-2.0,-2.0,-0.991703,-2.0
2025-06-09 15:03:59.673,0.08441448,-0.025568105,0.023674803,-0.0398169,0.0012606268,-0.041448805,0.0,0.0,0.0,-0.00026398103,-0.08140684,0.007140086,-0.11818509,0.07363453,0.33143625,-0.116697684,0.06531825,-0.010343914,-0.04147952,-0.053790163,-0.15034711,-0.107364185,-0.005056177,0.0059436588,0.058369324,0.07757906,0.056492824,0.0026378613,0.065614164,0.019606246,0.04911304,-0.05875527,0.059838213,-0.057556618,-2.0,0.70954895,-2.0,2.0,2.0,-2.0,2.0,-0.13411492,-2.0,-2.0,-0.991703,-2.0,-2.0,0.19923571,-2.0,2.0,2.0,-2.0,2.0,-0.77033013,-2.0,-2.0,-0.8429765,-2.0
2025-06-09 15:03:59.693,0.03234115,-0.021167237,0.0017640956,0.032841742,0.047056142,-0.033955637,0.0,0.0,0.0,-8.5549764e-05,-0.076817684,0.0018641591,-0.13113654,0.06651883,0.32591096,-0.120101705,0.08059487,-0.024540735,-0.040009025,-0.058326595,-0.15456398,-0.0931753,-0.02047814,-0.07172517,0.05902965,-0.052954808,0.070372306,-0.003486979,-0.03539042,0.056296606,-0.017750295,0.011725875,-0.02035387,-0.0037613783,-2.0,0.19923571,-2.0,2.0,2.0,-2.0,2.0,-0.77033013,-2.0,-2.0,-0.8429765,-2.0,-2.0,0.7060919,-1.9826396,2.0,2.0,-2.0,2.0,-0.58694345,-2.0,-2.0,-0.77929336,-2.0
2025-06-09 15:03:59.716,-0.025560746,-0.039545786,-0.021780048,0.023687577,0.05737612,-0.03764222,0.0,0.0,0.0,0.00019942883,-0.081191845,0.007566691,-0.13105331,0.06637787,0.3353754,-0.1200277,0.066322766,-0.020002345,-0.03629803,-0.062218923,-0.14947845,-0.08539058,-0.07796563,-0.049622715,-0.022668874,-0.026657913,-0.0040634135,-0.0369763,-0.01949531,-0.03524816,-0.011072913,-0.040989093,-0.01519163,0.0627629,-2.0,0.7060919,-1.9826396,2.0,2.0,-2.0,2.0,-0.58694345,-2.0,-2.0,-0.77929336,-2.0,-2.0,0.50393987,-2.0,2.0,2.0,-2.0,2.0,-0.22086176,-2.0,-2.0,-0.92525,-2.0
2025-06-09 15:03:59.733,0.058597185,-0.046855204,-0.044932876,0.033980887,-0.0012544417,0.02126899,0.0,0.0,0.0,0.000647018,-0.068181515,0.015913608,-0.12009866,0.06079775,0.3300972,-0.108157955,0.07375159,-0.0052286885,-0.043798782,-0.051910806,-0.13832502,-0.09156704,-0.017806415,0.008355168,0.036434893,-0.026485035,-0.037621103,0.07661173,0.044531774,0.0027066176,0.06459151,-0.008600166,0.011564431,0.082238026,-2.0,0.50393987,-2.0,2.0,2.0,-2.0,2.0,-0.22086176,-2.0,-2.0,-0.92525,-2.0,-2.0,0.52541363,-1.9807302,2.0,2.0,-2.0,2.0,-0.2857147,-2.0,-2.0,-1.0983167,-2.0
2025-06-09 15:03:59.753,0.08569084,0.010809688,0.06475872,0.016506499,-0.014659528,-0.027242199,0.0,0.0,0.0,0.00082690397,-0.07850368,0.020122161,-0.13102418,0.06642062,0.335738,-0.10299839,0.076248154,-0.0041044354,-0.04327995,-0.057941157,-0.1460664,-0.08867551,0.049900997,-0.04915117,0.05730004,-0.06805445,-0.07028324,0.052223504,0.05016042,-0.029868267,-0.009329518,0.07149223,-0.045791533,0.022004042,-2.0,0.52541363,-1.9807302,2.0,2.0,-2.0,2.0,-0.2857147,-2.0,-2.0,-1.0983167,-2.0,-2.0,0.36248243,-2.0,2.0,2.0,-2.0,2.0,-0.6770533,-2.0,-2.0,-0.74824494,-2.0
2025-06-09 15:03:59.773,-0.013385872,-0.061005402,-0.02490694,-0.030353518,0.0036720792,-0.0061511644,0.0,0.0,0.0,0.000632679,-0.07617148,0.016062396,-0.12585299,0.060078807,0.34766313,-0.097949445,0.074487425,-0.019508786,-0.044554207,-0.06482995,-0.14341125,-0.076760605,-0.012705217,0.062248457,0.038274147,0.0639712,0.06073946,-0.02707543,-0.019384949,0.059665315,-0.01157721,0.06428526,0.020777514,-0.048967276,-2.0,0.36248243,-2.0,2.0,2.0,-2.0,2.0,-0.6770533,-2.0,-2.0,-0.74824494,-2.0,-2.0,0.6832957,-2.0,2.0,2.0,-2.0,2.0,-0.4608297,-1.6327317,-2.0,-0.81056255,-2.0
2025-06-09 15:03:59.793,-0.030091904,-0.04320427,-0.056404423,0.05235104,0.017896095,0.031691153,0.0,0.0,0.0,0.00064419565,-0.08690909,0.017131304,-0.12553442,0.067789376,0.34922305,-0.11378993,0.062872015,-0.005867573,-0.053306546,-0.0634723,-0.15125357,-0.06191946,-0.06665503,-0.047696084,0.03596526,-0.07786813,-0.06503274,-0.026934918,0.013870627,0.030549498,-0.034129567,0.048071884,-0.010169656,0.046084233,-2.0,0.6832957,-2.0,2.0,2.0,-2.0,2.0,-0.4608297,-1.6327317,-2.0,-0.81056255,-2.0,-2.0,0.7443552,-2.0,2.0,2.0,-2.0,2.0,0.16915816,-2.0,-2.0,-1.1024053,-2.0
2025-06-09 15:03:59.816,0.11584608,0.06504897,0.06555459,-0.017180167,0.03508672,0.040348575,0.0,0.0,0.0,0.00084535236,-0.085110396,0.020317566,-0.12964587,0.06635357,0.33570462,-0.10834332,0.069981225,-0.005126997,-0.054308478,-0.055134885,-0.1517808,-0.07308344,0.024390098,-0.04226793,-0.0013159536,0.054534644,0.0339889,0.0015392365,-0.04887965,-0.036768544,-0.036885157,-0.060981218,0.014127762,-0.051606156,-2.0,0.7443552,-2.0,2.0,2.0,-2.0,2.0,0.16915816,-2.0,-2.0,-1.1024053,-2.0,-2.0,0.07483631,-2.0,2.0,2.0,-2.0,2.0,-0.8727527,-2.0,-2.0,-0.722024,-2.0
2025-06-09 15:03:59.833,-0.010588483,-0.022537705,0.003963671,0.063050985,-0.029294396,0.012749702,0.0,0.0,0.0,0.0004614358,-0.08671713,0.033558853,-0.1263177,0.0596381,0.34153938,-0.1032677,0.060586993,0.0014749804,-0.061838716,-0.052146025,-0.14190555,-0.058737848,0.06384351,0.006545304,0.019620094,0.047358327,-0.050638255,-0.005345466,0.055821083,-0.042759776,0.03843288,0.047092676,-0.011227623,0.021603538,-2.0,0.07483631,-2.0,2.0,2.0,-2.0,2.0,-0.8727527,-2.0,-2.0,-0.722024,-2.0,-2.0,0.85635346,-2.0,2.0,2.0,-2.0,2.0,-0.6008088,-1.2868555,-2.0,-0.6149023,-2.0
2025-06-09 15:03:59.855,0.02929622,0.02970586,-0.016066838,-0.02149016,0.026185367,0.023015762,0.0,0.0,0.0,0.00036571696,-0.08053607,0.031065913,-0.13896193,0.06965631,0.35177633,-0.104212634,0.06765382,-0.006410371,-0.053673718,-0.055323977,-0.1422362,-0.053606886,-0.053079642,-0.04089303,0.06962581,-0.013918649,-0.03136909,-0.019371804,-0.035590332,-0.051980253,0.0862421,-0.009275102,-0.06135962,-0.023546454,-2.0,0.85635346,-2.0,2.0,2.0,-2.0,2.0,-0.6008088,-1.2868555,-2.0,-0.6149023,-2.0,-2.0,0.50182265,-2.0,2.0,2.0,-2.0,2.0,-0.10339952,-0.9739291,-2.0,-0.7454936,-2.0
2025-06-09 15:03:59.874,-0.00014812984,-0.032379664,-0.03472942,-0.00678686,0.027456295,-0.03223927,0.0,0.0,0.0,0.00073105696,-0.07708575,0.030319152,-0.12659366,0.069304004,0.3600389,-0.10436629,0.063034825,-0.0049785734,-0.03674695,-0.060480464,-0.14502184,-0.0656398,0.03493944,0.03927751,-0.022020278,0.020322263,-0.051040005,0.055374358,-0.037121743,-0.04330254,-0.0088826865,-0.050117433,-0.040401306,-0.042277955,-2.0,0.50182265,-2.0,2.0,2.0,-2.0,2.0,-0.10339952,-0.9739291,-2.0,-0.7454936,-2.0,-2.0,0.635281,-2.0,2.0,2.0,-2.0,2.0,-0.3172516,-0.9597722,-2.0,-0.9570529,-2.0
2025-06-09 15:03:59.894,-0.00562847,-0.06130144,0.04421108,0.030083528,-0.004222976,0.035413034,0.0,0.0,0.0,0.001038177,-0.08929057,0.03071548,-0.13514526,0.06337228,0.3450031,-0.09332605,0.05925106,-0.01615773,-0.039825246,-0.06536277,-0.14739224,-0.047954317,-0.069981866,0.046736937,0.04965456,-0.028397497,0.01058479,0.036252983,0.038247135,0.007696414,-0.04242719,0.018505644,-0.07291521,0.047324184,-2.0,0.635281,-2.0,2.0,2.0,-2.0,2.0,-0.3172516,-0.9597722,-2.0,-0.9570529,-2.0,-2.0,0.32306826,-2.0,2.0,2.0,-2.0,2.0,-0.38079083,-1.1711924,-2.0,-0.7389619,-2.0
2025-06-09 15:03:59.917,-0.066262186,-0.0016884997,0.014141678,0.005927808,-0.027491376,0.023896094,0.0,0.0,0.0,0.0011708182,-0.09134417,0.036251947,-0.12067523,0.056260902,0.361153,-0.10694407,0.06066024,-0.027407667,-0.027996521,-0.06465398,-0.1396694,-0.05768291,0.038889047,-0.02210545,0.02376201,0.046428382,-0.01765669,0.0079153115,0.0036480369,-0.05184878,0.010331812,-0.031205904,-0.029394232,0.0645854,-2.0,0.32306826,-2.0,2.0,2.0,-2.0,2.0,-0.38079083,-1.1711924,-2.0,-0.7389619,-2.0,-2.0,0.5651594,-2.0,2.0,2.0,-2.0,2.0,-0.48944303,-0.8591018,-2.0,-0.64785534,-2.0
2025-06-09 15:03:59.935,-0.03509221,-0.00048426853,-0.024548851,-0.034920447,-0.025901759,0.024500892,0.0,0.0,0.0,0.0013710019,-0.097591445,0.0315962,-0.11947345,0.053722378,0.35561186,-0.09975379,0.072059035,-0.018214665,-0.027065432,-0.06331151,-0.14562687,-0.04426849,-0.041732233,0.06720967,-0.016527738,0.0043992572,0.015100075,-0.03073319,-0.037123773,-0.016224477,-0.032767948,0.018308826,-0.04533487,0.033927664,-2.0,0.5651594,-2.0,2.0,2.0,-2.0,2.0,-0.48944303,-0.8591018,-2.0,-0.64785534,-2.0,-2.0,0.6475162,-2.0,2.0,2.0,-2.0,2.0,-0.19313866,-0.27285057,-2.0,-0.7971646,-2.0
2025-06-09 15:03:59.954,0.004725094,0.029397326,-0.030855529,-0.009790379,0.030820452,0.038145076,0.0,0.0,0.0,0.001786164,-0.084057055,0.036359817,-0.121268295,0.049145326,0.36248702,-0.107176825,0.06869513,-0.020563647,-0.007262461,-0.051802274,-0.14766599,-0.051163252,-0.07308974,-0.021035092,0.014154509,0.0040379995,-0.012871646,-9.729185e-05,-0.023621453,0.017404683,-0.030237423,-0.050029542,0.054924153,-0.05694268,-2.0,0.6475162,-2.0,2.0,2.0,-2.0,2.0,-0.19313866,-0.27285057,-2.0,-0.7971646,-2.0,-2.0,0.557876,-2.0,2.0,2.0,-2.0,2.0,-0.248011,0.026374156,-2.0,-0.90077,-2.0
2025-06-09 15:03:59.974,-0.084251314,-0.009362393,-0.037220355,-0.010238445,-0.010745903,-0.013022559,0.0,0.0,0.0,0.0021085413,-0.08979755,0.030710315,-0.107015796,0.051369675,0.37631258,-0.102204375,0.07376997,-0.031478886,-0.01018016,-0.06988132,-0.13684309,-0.047343884,0.07361883,-0.0008672471,-0.041135397,-0.045466244,0.062122636,-0.010641233,-0.010579075,-0.025362937,0.0347093,-0.013570739,-0.03550991,-0.024802566,-2.0,0.557876,-2.0,2.0,2.0,-2.0,2.0,-0.248011,0.026374156,-2.0,-0.90077,-2.0,-2.0,0.6885658,-2.0,2.0,2.0,-2.0,2.0,-0.26253542,0.70139414,-2.0,-0.7870552,-2.0
2025-06-09 15:03:59.994,-0.10192086,0.023413273,0.03318427,0.028468106,0.0216112,-0.04622873,0.0,0.0,0.0,0.0022315783,-0.09501502,0.032851785,-0.10185776,0.063657284,0.3829984,-0.10214152,0.07780143,-0.03792992,0.011129584,-0.05482411,-0.14354578,-0.031341214,0.004889338,-0.025852391,0.030780155,0.002287465,-0.05064733,0.029474491,0.02882899,-0.018400524,0.062261462,-0.07407186,-0.025387377,-0.011285729,-2.0,0.6885658,-2.0,2.0,2.0,-2.0,2.0,-0.26253542,0.70139414,-2.0,-0.7870552,-2.0,-2.0,0.3138389,-2.0,2.0,2.0,-2.0,2.0,-0.28118762,1.3648847,-2.0,-0.5466409,-2.0
2025-06-09 15:04:00.017,-0.11904597,-0.026749698,-0.00039841226,0.027172819,-0.03620392,0.012652614,0.0,0.0,0.0,0.0022109204,-0.08685968,0.011632657,-0.09297041,0.043988805,0.38423917,-0.11398051,0.087937154,-0.043872632,0.05635925,-0.07442218,-0.14048518,-0.03044165,-0.034453034,-0.059253395,-0.027578937,-0.0006108608,0.03260936,0.02121386,-0.010562392,0.06620635,0.07537092,-0.049774103,-0.050136913,0.044608716,-2.0,0.3138389,-2.0,2.0,2.0,-2.0,2.0,-0.28118762,1.3648847,-2.0,-0.5466409,-2.0,-2.0,0.52927387,-2.0,2.0,2.0,-2.0,2.0,-0.09510315,1.9798785,-2.0,-0.7079189,-2.0
2025-06-09 15:04:00.034,-0.10694543,-0.022905337,-0.047194332,0.009689055,-0.017611306,-0.018005058,0.0,0.0,0.0,0.002329286,-0.09320359,0.025968818,-0.0871708,0.05681717,0.3947583,-0.119177215,0.09299354,-0.045721747,0.09662461,-0.05976617,-0.1330273,-0.024161475,-0.027959231,0.031409495,0.10172628,0.0018589693,-0.020860948,-0.06907714,0.031264532,0.034992713,0.10406989,0.041012805,0.055463847,0.058614068,-2.0,0.52927387,-2.0,2.0,2.0,-2.0,2.0,-0.09510315,1.9798785,-2.0,-0.7079189,-2.0,-2.0,0.7000232,-2.0,2.0,2.0,-2.0,2.0,0.07639896,2.0,-2.0,-0.9296172,-2.0
2025-06-09 15:04:00.054,-0.13828361,-0.030146288,-0.016131705,-0.00734447,0.009133206,0.0071588615,0.0,0.0,0.0,0.002491442,-0.10454287,0.024085043,-0.062356614,0.047341377,0.4024021,-0.12626882,0.08602598,-0.03177921,0.1311934,-0.068964966,-0.14810537,-0.013122759,0.061456416,-0.03500489,0.07822748,-0.07268252,0.034235254,0.027629131,0.023138463,-0.0016143875,0.02707128,0.029987136,-0.039363835,7.310858e-05,-2.0,0.7000232,-2.0,2.0,2.0,-2.0,2.0,0.07639896,2.0,-2.0,-0.9296172,-2.0,-2.0,0.6087193,-2.0,2.0,2.0,-2.0,2.0,0.04605203,1.703446,-2.0,-0.81143063,-2.0
2025-06-09 15:04:00.074,-0.07515354,-0.031895522,0.03420458,-0.06119949,-0.0021933143,0.013121718,0.0,0.0,0.0,0.002487487,-0.10224506,0.0029705877,-0.06202748,0.054810688,0.40699062,-0.12504458,0.10661453,-0.0028778147,0.15965058,-0.07198927,-0.153564,-0.0119614685,0.06868755,-0.047657575,0.025514524,0.038143232,0.05926055,0.024093062,0.059895936,0.113438636,0.054547373,-0.070819035,-0.040133953,0.08146333,-2.0,0.6087193,-2.0,2.0,2.0,-2.0,2.0,0.04605203,1.703446,-2.0,-0.81143063,-2.0,-2.0,0.34499705,-2.0,2.0,2.0,-2.0,2.0,-0.028240778,1.5801136,-2.0,-0.68242526,-2.0
2025-06-09 15:04:00.094,-0.12458418,-0.027202433,-0.016237129,-0.074935794,-0.033648536,0.00090597436,0.0,0.0,0.0,0.0025400985,-0.095482185,0.003452241,-0.06049336,0.054019295,0.41562662,-0.14694895,0.09468255,0.010958679,0.1576764,-0.058552776,-0.14337935,0.013719852,0.030434355,0.036869027,0.04536329,0.04457228,0.07255756,-0.08442546,0.03387317,-0.03364855,-0.00021905823,-0.017589213,0.03152026,0.058819808,-2.0,0.34499705,-2.0,2.0,2.0,-2.0,2.0,-0.028240778,1.5801136,-2.0,-0.68242526,-2.0,-2.0,0.64851916,-2.0,2.0,2.0,-2.0,2.0,-0.05202601,1.9006351,-2.0,-0.72605705,-2.0
2025-06-09 15:04:00.117,-0.15031306,-0.058946777,-0.07082818,0.016117828,-0.059368506,-0.006109184,0.0,0.0,0.0,0.0029812318,-0.10757925,0.008165351,-0.055279873,0.05144533,0.41366318,-0.15797643,0.10126452,-0.0024177711,0.1700052,-0.06307496,-0.14452389,0.0049577807,-0.043815266,0.05528526,0.032524858,-0.058277577,0.016155694,0.032080185,-0.031666957,-0.06557474,0.04400295,-0.032858115,-0.0585981,0.09011532,-2.0,0.64851916,-2.0,2.0,2.0,-2.0,2.0,-0.05202601,1.9006351,-2.0,-0.72605705,-2.0,-2.0,0.8442513,-2.0,2.0,2.0,-2.0,2.0,0.10132139,1.5001173,-2.0,-1.0164908,-2.0
2025-06-09 15:04:00.135,-0.024907358,-0.055614453,-0.009158439,-0.028631559,-0.050020408,0.01944369,0.0,0.0,0.0,0.0036815507,-0.11368595,0.008288482,-0.041400276,0.047641605,0.41038552,-0.15314546,0.11157087,0.006838585,0.1747659,-0.06677596,-0.15280882,0.027189037,0.040468868,-0.005412426,0.033713616,0.012153652,0.079905115,-0.029775387,0.056781866,0.07588659,-0.046182856,-0.0660906,0.036310963,-0.026426172,-2.0,0.8442513,-2.0,2.0,2.0,-2.0,2.0,0.10132139,1.5001173,-2.0,-1.0164908,-2.0,-2.0,0.55783427,-2.0,2.0,2.0,-2.0,2.0,-0.1250008,1.350204,-2.0,-0.849693,-2.0
2025-06-09 15:04:00.155,-0.07489303,-0.032785174,-0.053901408,-0.07909464,-0.015519524,0.017331371,0.0,0.0,0.0,0.004249769,-0.10676802,0.008229509,-0.042472735,0.04212878,0.4148983,-0.17244332,0.11471933,0.0018796233,0.17327332,-0.057826623,-0.15044256,0.031921536,-0.0031541078,0.0407264,0.05267665,-0.060038432,1.0808345e-06,0.014921083,0.030765695,0.046329707,0.015179573,-0.06305768,-0.07173977,0.009152333,-2.0,0.55783427,-2.0,2.0,2.0,-2.0,2.0,-0.1250008,1.350204,-2.0,-0.849693,-2.0,-2.0,0.89930207,-2.0,2.0,2.0,-2.0,2.0,0.021395944,1.1959714,-2.0,-0.9854951,-2.0
2025-06-09 15:04:00.174,-0.02763611,0.007337807,-0.05188341,-0.0748035,-0.03664683,0.029776046,0.0,0.0,0.0,0.0049544186,-0.104610294,0.0029156038,-0.035207935,0.056778762,0.42856953,-0.17480902,0.114468634,0.003872509,0.17487969,-0.05374287,-0.15045244,0.029767307,0.004819471,0.012690014,0.03219868,0.022040376,-0.021344425,0.041735187,0.008750878,-0.022659013,0.088228256,0.08099788,-0.05981688,-0.04945482,-2.0,0.89930207,-2.0,2.0,2.0,-2.0,2.0,0.021395944,1.1959714,-2.0,-0.9854951,-2.0,-2.0,0.88298,-2.0,2.0,2.0,-2.0,2.0,-0.13726929,1.3720752,-2.0,-0.87401134,-2.0
2025-06-09 15:04:00.195,-0.07124145,-0.025792945,-0.05778244,0.0062343064,-0.05640014,0.018671153,0.0,0.0,0.0,0.005440894,-0.1116981,0.0109891435,-0.027140375,0.068056524,0.41412464,-0.18028235,0.11887693,0.009223282,0.17800407,-0.05399993,-0.14338426,0.035343166,0.06185688,0.026818618,-0.06524104,-0.0347113,-0.0065049757,-0.0041180737,0.018206697,-0.04369424,-0.02435455,-0.010491211,0.0516991,0.07937503,-2.0,0.88298,-2.0,2.0,2.0,-2.0,2.0,-0.13726929,1.3720752,-2.0,-0.87401134,-2.0,-2.0,0.90840733,-2.0,2.0,2.0,-2.0,2.0,-0.1382465,1.5679162,-2.0,-0.94816816,-2.0
2025-06-09 15:04:00.216,-0.08126016,-0.037962418,-0.048761178,-0.01021828,-0.06922904,0.011129056,0.0,0.0,0.0,0.005773706,-0.10287267,0.021175096,-0.03712967,0.05694677,0.4118384,-0.17945944,0.11972829,0.022042897,0.19011444,-0.058137193,-0.1305875,0.037791688,0.040028997,0.013561908,-0.07377948,0.00038637526,0.03155077,-0.004939492,0.02580335,-0.046484124,-0.02288638,0.040153652,0.044231985,-0.042849313,-2.0,0.90840733,-2.0,2.0,2.0,-2.0,2.0,-0.1382465,1.5679162,-2.0,-0.94816816,-2.0,-2.0,0.88134426,-2.0,2.0,2.0,-2.0,2.0,-0.20143345,1.9373984,-2.0,-0.8211388,-2.0
2025-06-09 15:04:00.235,-0.06004616,-0.01905627,-0.017291883,-0.022936638,-0.08915011,-0.022561267,0.0,0.0,0.0,0.0061056456,-0.11515124,0.021074,-0.028083134,0.057093382,0.41853118,-0.18578723,0.111505315,0.020846978,0.19410144,-0.061243325,-0.1264413,0.037285354,0.026742144,0.07760636,-0.012806373,-0.048803974,-0.026460446,-0.05549284,-0.040244073,-0.062580384,0.042470742,-0.034639157,0.033053543,0.033429977,-2.0,0.88134426,-2.0,2.0,2.0,-2.0,2.0,-0.20143345,1.9373984,-2.0,-0.8211388,-2.0,-2.0,0.7347599,-2.0,2.0,2.0,-2.0,2.0,-0.088330425,1.9959408,-2.0,-0.77882284,-2.0
2025-06-09 15:04:00.255,-0.014471765,0.019400379,-0.036115248,-0.0024022055,-0.09516818,-0.017426344,0.0,0.0,0.0,0.0065777567,-0.118820496,0.022612194,-0.022627776,0.066901356,0.4148926,-0.18651791,0.112842776,0.014348945,0.21319565,-0.048956007,-0.12552415,0.04970174,-0.004942848,0.043826204,-0.024378074,-0.052870896,0.057820734,0.013284653,0.024711652,0.008207977,0.0144872805,-0.0332642,-0.02479748,0.04221474,-2.0,0.7347599,-2.0,2.0,2.0,-2.0,2.0,-0.088330425,1.9959408,-2.0,-0.77882284,-2.0,-2.0,0.8056197,-2.0,2.0,2.0,-2.0,2.0,-0.049881853,1.9567431,-2.0,-0.8899399,-2.0
2025-06-09 15:04:00.275,-0.0059323264,-0.010888608,-0.039940268,-0.067871,-0.08975065,0.010172422,0.0,0.0,0.0,0.007283863,-0.11127123,0.023938708,-0.039106105,0.07304731,0.41379356,-0.20581348,0.11515249,0.0024778547,0.21205075,-0.054750267,-0.11363009,0.059195794,0.005317168,-0.021556323,0.007417313,0.015722757,0.039448593,-0.03439505,-0.03149331,-0.012219029,0.045216106,0.03385358,-0.032753415,-0.050436646,-2.0,0.8056197,-2.0,2.0,2.0,-2.0,2.0,-0.049881853,1.9567431,-2.0,-0.8899399,-2.0,-2.0,0.93291706,-2.0,2.0,2.0,-2.0,2.0,-0.08845804,2.0,-2.0,-0.80838895,-2.0
2025-06-09 15:04:00.295,-0.050520867,-0.016200563,-0.02278953,-0.014809147,-0.09371201,-0.018847942,0.0,0.0,0.0,0.008070854,-0.10718168,0.047773283,-0.023035822,0.067212954,0.40599543,-0.18818864,0.09949765,0.0046285465,0.22256893,-0.056276742,-0.11716681,0.06263165,0.017803168,-0.01958358,0.052369006,0.064946495,0.042415753,-0.039286878,0.031273875,0.04921325,0.059998363,-0.019286735,-0.05668981,0.08136858,-2.0,0.93291706,-2.0,2.0,2.0,-2.0,2.0,-0.08845804,2.0,-2.0,-0.80838895,-2.0,-2.0,0.82353413,-2.0,2.0,2.0,-2.0,2.0,0.027827226,1.7967237,-2.0,-0.8417286,-2.0
2025-06-09 15:04:00.316,0.0038961421,0.032899745,-0.014086062,-0.06607406,-0.030072117,-0.025682105,0.0,0.0,0.0,0.008879144,-0.12036727,0.046309512,-0.026647756,0.071073644,0.4070348,-0.2040081,0.10734271,0.01588857,0.22456264,-0.040628333,-0.10885506,0.058753796,-0.030237468,-0.048689254,-0.042867772,-0.0029394648,0.06242884,-0.056803122,0.008441099,0.06484765,0.0295667,-0.054373477,0.019683475,0.01922985,-2.0,0.82353413,-2.0,2.0,2.0,-2.0,2.0,0.027827226,1.7967237,-2.0,-0.8417286,-2.0,-2.0,0.72691756,-2.0,2.0,2.0,-2.0,2.0,-0.09329335,1.7495805,-2.0,-0.824673,-2.0
2025-06-09 15:04:00.335,0.0038789068,-0.015695695,-0.06941024,-0.003184406,-0.064859584,-0.029832536,0.0,0.0,0.0,0.009617547,-0.12495119,0.04559121,-0.038117584,0.07350601,0.41556063,-0.20026746,0.108514555,0.016829941,0.21773976,-0.03953799,-0.10352617,0.06493953,-0.023322849,-0.02276093,-0.063227415,0.0014147549,-0.045661595,0.0017076674,0.06120522,-0.015629407,0.05800958,-0.006661256,-0.031431947,-0.018975405,-2.0,0.72691756,-2.0,2.0,2.0,-2.0,2.0,-0.09329335,1.7495805,-2.0,-0.824673,-2.0,-2.0,1.093707,-2.0,2.0,2.0,-2.0,2.0,-0.084556796,1.8589064,-2.0,-0.9461351,-2.0
2025-06-09 15:04:00.355,-0.039162874,-0.0143206045,-0.016568355,-0.014473009,-0.07245208,0.0068979664,0.0,0.0,0.0,0.010393664,-0.122452915,0.0643772,-0.027770758,0.05576473,0.40087673,-0.2080693,0.103827275,0.020738736,0.22134176,-0.055078555,-0.09627987,0.076855965,-0.07837751,-0.0009066479,-0.0157253,0.00029615962,-0.03620832,0.05077198,0.06994776,0.047153782,0.044370044,-0.02176176,0.04577911,-0.02511194,-2.0,1.093707,-2.0,2.0,2.0,-2.0,2.0,-0.084556796,1.8589064,-2.0,-0.9461351,-2.0,-2.0,0.74873966,-2.0,2.0,2.0,-2.0,2.0,-0.1496154,1.8926193,-2.0,-0.89163417,-2.0
2025-06-09 15:04:00.375,-0.054558408,-0.057618704,-0.0014481194,-0.05044846,-0.108420566,0.035798196,0.0,0.0,0.0,0.0109859025,-0.11953988,0.062899604,-0.0419534,0.055818867,0.40773135,-0.20846559,0.11769405,0.015925437,0.22361197,-0.044463933,-0.10210587,0.082685225,-0.057983276,0.06750764,-0.048669934,-0.053650383,0.018007958,-0.008607522,0.029688457,0.03870269,0.08943998,0.036582887,-0.03609062,0.032080248,-2.0,0.74873966,-2.0,2.0,2.0,-2.0,2.0,-0.1496154,1.8926193,-2.0,-0.89163417,-2.0,-2.0,0.7875166,-2.0,2.0,2.0,-2.0,2.0,-0.08640579,2.0,-2.0,-0.76008385,-2.0
2025-06-09 15:04:00.398,-0.010948567,-0.056821972,-0.077538095,-0.07034967,-0.059657168,-0.024313718,0.0,0.0,0.0,0.011540043,-0.1271201,0.064543664,-0.037168678,0.06380632,0.39694116,-0.20499405,0.10578991,0.018611005,0.22883342,-0.038769748,-0.082382955,0.086008094,0.016836125,-0.0040948703,0.02056408,0.00117123,-0.028390255,-0.036508042,0.04999503,0.025011878,0.050710935,-0.054758575,0.060625635,0.01832632,-2.0,0.7875166,-2.0,2.0,2.0,-2.0,2.0,-0.08640579,2.0,-2.0,-0.76008385,-2.0,-2.0,1.1109161,-2.0,2.0,2.0,-2.0,2.0,-0.04768411,1.8836704,-2.0,-1.0383675,-2.0
2025-06-09 15:04:00.415,0.039914794,-0.062197633,0.006294695,-0.023958586,-0.07245583,-0.024830109,0.0,0.0,0.0,0.012254869,-0.12767842,0.064055875,-0.046902534,0.07023114,0.40928367,-0.2066141,0.10353068,0.028724702,0.23839924,-0.039235007,-0.09610282,0.090312585,-0.023263644,-0.026603026,-0.072918616,-0.0036671762,-0.069072604,-0.0048678103,-0.025510775,0.07942618,0.07551905,-0.060598224,-0.03734451,0.074934855,-2.0,1.1109161,-2.0,2.0,2.0,-2.0,2.0,-0.04768411,1.8836704,-2.0,-1.0383675,-2.0,-2.0,0.7747878,-2.0,2.0,2.0,-2.0,2.0,-0.036753573,1.4423181,-2.0,-0.8647817,-2.0
2025-06-09 15:04:00.435,-0.019463923,-0.0045014936,0.014668434,-0.077000014,-0.079196945,0.033581693,0.0,0.0,0.0,0.012691234,-0.14104445,0.07418833,-0.050153878,0.05633218,0.39374477,-0.20338082,0.11903588,0.02371872,0.24676932,-0.054587483,-0.083696224,0.09392494,-0.043404065,-0.006230402,-0.05253592,-0.01800133,0.074734606,-0.07042561,-0.024414295,-0.0045140116,-0.004450503,-0.035958685,0.038451042,-0.014909047,-2.0,0.7747878,-2.0,2.0,2.0,-2.0,2.0,-0.036753573,1.4423181,-2.0,-0.8647817,-2.0,-2.0,0.6559885,-2.0,2.0,2.0,-2.0,2.0,-0.1941801,1.7936925,-2.0,-0.5925304,-2.0
2025-06-09 15:04:00.455,-0.038511906,-0.047654036,-0.014180313,-0.05351171,-0.039272673,0.045331415,0.0,0.0,0.0,0.012934036,-0.13354553,0.08943194,-0.038224805,0.07205257,0.39370367,-0.19846818,0.1173902,0.023566578,0.25287926,-0.040703252,-0.06903999,0.10868074,-0.041708857,-0.06495406,-0.060548924,0.06674597,-0.017046664,0.03737839,0.05794304,-0.034253437,0.066023074,-0.028483253,0.09162296,0.029800585,-2.0,0.6559885,-2.0,2.0,2.0,-2.0,2.0,-0.1941801,1.7936925,-2.0,-0.5925304,-2.0,-2.0,0.76496375,-2.0,2.0,2.0,-1.8502511,2.0,-0.24380574,2.0,-2.0,-0.67307264,-2.0
2025-06-09 15:04:00.475,-0.047293235,-0.03685959,-0.047122438,-0.06781783,-0.08866355,-0.048582908,0.0,0.0,0.0,0.013548705,-0.14566669,0.08309937,-0.03865356,0.056664508,0.39335266,-0.19854383,0.11673662,0.029870154,0.250281,-0.039241042,-0.07361572,0.11109497,0.006699482,-0.032964718,-0.024537116,0.03434747,-0.0074021784,0.0030935404,0.045471214,-0.05278148,0.042421725,0.060182948,0.071736805,-0.057289872,-2.0,0.76496375,-2.0,2.0,2.0,-1.8502511,2.0,-0.24380574,2.0,-2.0,-0.67307264,-2.0,-2.0,1.015958,-2.0,2.0,2.0,-1.7746904,2.0,-0.18601462,2.0,-2.0,-0.6506637,-2.0
2025-06-09 15:04:00.499,-0.03950842,-0.03474481,-0.053032517,-0.08540572,-0.121304594,0.016569754,0.0,0.0,0.0,0.014546922,-0.14603554,0.084268406,-0.0442164,0.053902518,0.40376416,-0.20427527,0.109103106,0.017386185,0.2519659,-0.043113388,-0.05800105,0.10042799,0.056030586,0.072417885,-0.03078426,0.030520687,-0.02106265,-0.02259595,-0.06061615,0.05897797,-0.03676998,-0.015495507,-0.0501637,0.015465921,-2.0,1.015958,-2.0,2.0,2.0,-1.7746904,2.0,-0.18601462,2.0,-2.0,-0.6506637,-2.0,-2.0,1.0846533,-2.0,2.0,2.0,-2.0,2.0,0.06491836,1.9278538,-2.0,-0.81936365,-2.0
2025-06-09 15:04:00.516,-0.019980261,0.019654663,-0.013891872,-0.011455328,-0.043073196,-0.0469983,0.0,0.0,0.0,0.015628088,-0.15093501,0.10126648,-0.049683366,0.07365093,0.3959988,-0.20172557,0.12219515,0.0367284,0.2520635,-0.046373636,-0.052396957,0.114886254,-0.027444564,0.011735927,0.05598134,-0.0615892,-0.055182748,-0.035324574,0.021052947,0.027230127,-0.02982923,0.02015717,0.028727878,-0.006263756,-2.0,1.0846533,-2.0,2.0,2.0,-2.0,2.0,0.06491836,1.9278538,-2.0,-0.81936365,-2.0,-2.0,0.8890333,-2.0,2.0,2.0,-2.0,2.0,-0.005412437,1.5742308,-2.0,-0.7766054,-2.0
2025-06-09 15:04:00.536,0.037654154,0.013299356,0.03822219,-0.05754517,-0.12046573,0.0043971417,0.0,0.0,0.0,0.016305536,-0.13893643,0.090931565,-0.04247624,0.07132833,0.4036315,-0.20663941,0.11331864,0.022896541,0.2597085,-0.028887715,-0.04954645,0.11633716,-0.03079314,0.057518788,-0.026479831,-0.058456138,0.023648575,-0.037818126,0.017075395,-0.043029565,-0.023930846,0.01685346,0.041291676,-0.02860061,-2.0,0.8890333,-2.0,2.0,2.0,-2.0,2.0,-0.005412437,1.5742308,-2.0,-0.7766054,-2.0,-2.0,0.566805,-2.0,2.0,2.0,-1.968643,2.0,-0.21964878,2.0,-2.0,-0.46634498,-2.0
2025-06-09 15:04:00.556,0.0064280285,-0.044733554,-0.037515912,-0.010599572,-0.043100297,-0.01751234,0.0,0.0,0.0,0.016538806,-0.14599274,0.10136447,-0.03249217,0.071428485,0.4028476,-0.19115584,0.11853441,0.04175559,0.25237656,-0.033210695,-0.047836818,0.10858903,0.023214322,0.00782363,-0.051526252,-0.008382953,0.062708125,0.063351035,0.044014324,0.0022237937,0.0009258144,0.037575256,-0.057733383,-0.056996655,-2.0,0.566805,-2.0,2.0,2.0,-1.968643,2.0,-0.21964878,2.0,-2.0,-0.46634498,-2.0,-2.0,0.96914387,-2.0,2.0,2.0,-1.8902836,2.0,-0.147773,2.0,-2.0,-0.6502364,-2.0
2025-06-09 15:04:00.576,-0.04042179,-0.022431977,-0.06487034,-0.057789125,-0.13138182,-0.042662863,0.0,0.0,0.0,0.017075283,-0.15482569,0.10165027,-0.032555982,0.06830241,0.4055069,-0.20200996,0.11722131,0.038000938,0.26925182,-0.026717369,-0.044315156,0.10690275,0.049731024,0.04260202,0.0041198414,0.067218035,-0.05549192,0.037888,0.0759661,-0.039214805,0.024272988,-0.033349432,0.07500367,-0.023700066,-2.0,0.96914387,-2.0,2.0,2.0,-1.8902836,2.0,-0.147773,2.0,-2.0,-0.6502364,-2.0,-2.0,1.01674,-2.0,2.0,2.0,-2.0,2.0,-0.15365109,2.0,-2.0,-0.8086234,-2.0
2025-06-09 15:04:00.599,0.018716043,-0.072425,-0.016451474,-0.06879272,-0.1415064,-0.027320614,0.0,0.0,0.0,0.01773209,-0.14120156,0.09828456,-0.041027356,0.06435976,0.4026161,-0.20088482,0.11499661,0.024481565,0.26756305,-0.0385275,-0.04249435,0.11473847,-0.062453073,-0.024326656,-0.004021073,0.0087355925,-0.015325467,-0.02294172,-0.06935754,0.019416237,0.0015252149,-0.019733852,0.007239935,0.0024304553,-2.0,1.01674,-2.0,2.0,2.0,-2.0,2.0,-0.15365109,2.0,-2.0,-0.8086234,-2.0,-2.0,0.90421325,-2.0,2.0,2.0,-2.0,2.0,-0.049789704,1.8872772,-2.0,-0.74741787,-2.0
2025-06-09 15:04:00.616,-0.05044523,-0.055585004,0.04501053,-0.04352918,-0.056006867,-0.034498874,0.0,0.0,0.0,0.01807785,-0.14316691,0.110116325,-0.038901914,0.07325696,0.39731592,-0.1964044,0.11779287,0.029970998,0.274974,-0.044316642,-0.031086808,0.123504266,-0.06005598,-0.02333276,0.041227,-0.05443969,0.032248646,-0.059959378,-0.0315837,0.043307092,-0.05997146,-0.050394148,-0.03860557,-0.055214692,-2.0,0.90421325,-2.0,2.0,2.0,-2.0,2.0,-0.049789704,1.8872772,-2.0,-0.74741787,-2.0,-2.0,0.5984288,-2.0,2.0,2.0,-2.0,2.0,-0.016738601,1.8039927,-2.0,-0.48512992,-2.0
2025-06-09 15:04:00.636,0.017438296,0.061905563,-0.0011464518,-0.07445823,-0.05854444,0.012935212,0.0,0.0,0.0,0.01812162,-0.14086118,0.11203925,-0.051428724,0.067227006,0.40010586,-0.20358041,0.12542985,0.029120909,0.2642302,-0.027170483,-0.04358419,0.11130756,-0.06728059,0.04316723,0.042666357,-0.018623345,0.015707064,0.05124205,0.033161987,-0.013114705,-0.0025439553,0.028102404,0.06454651,-0.027512364,-2.0,0.5984288,-2.0,2.0,2.0,-2.0,2.0,-0.016738601,1.8039927,-2.0,-0.48512992,-2.0,-2.0,0.70583665,-2.0,2.0,2.0,-1.8848876,2.0,-0.17872182,2.0,-2.0,-0.61903423,-2.0
2025-06-09 15:04:00.656,-0.068373,-0.0033339588,0.025909074,-0.100791276,-0.076130524,-0.043600798,0.0,0.0,0.0,0.018262891,-0.15674485,0.10930772,-0.037372738,0.05942718,0.4074304,-0.21326229,0.123330094,0.01928738,0.2731245,-0.037038982,-0.027462287,0.12047176,-0.036524247,0.025288416,0.06826346,-0.046729427,-0.06422088,0.047996137,-0.04739781,0.00850626,0.038604815,0.003182171,-0.028521076,-0.03622203,-2.0,0.70583665,-2.0,2.0,2.0,-1.8848876,2.0,-0.17872182,2.0,-2.0,-0.61903423,-2.0,-2.0,0.7152928,-2.0,2.0,2.0,-1.7860364,2.0,-0.061504044,2.0,-2.0,-0.4846525,-2.0
2025-06-09 15:04:00.676,0.0061180354,0.053048056,-0.051855076,-0.081428975,-0.050280467,0.02979177,0.0,0.0,0.0,0.018597346,-0.155585,0.10573553,-0.03551421,0.06018551,0.40312588,-0.1939358,0.124117196,0.030693464,0.27541646,-0.031384,-0.016392259,0.116192184,-0.0026674038,-0.014890711,0.04773286,-0.0022105994,0.013368387,-0.03742104,-0.06417891,-0.032103546,0.02078318,0.02795433,0.08114562,-0.0013469749,-2.0,0.7152928,-2.0,2.0,2.0,-1.7860364,2.0,-0.061504044,2.0,-2.0,-0.4846525,-2.0,-2.0,1.008822,-2.0,2.0,2.0,-2.0,2.0,-0.027551599,2.0,-2.0,-0.6216236,-2.0
2025-06-09 15:04:00.699,-0.020429783,0.03430656,0.020859022,-0.09086102,-0.14237656,-0.011431495,0.0,0.0,0.0,0.01909236,-0.14452209,0.10150588,-0.030101648,0.05349352,0.40328473,-0.19355011,0.12810594,0.021975346,0.2762423,-0.03035444,-0.013598117,0.11565165,0.03468872,-0.012399848,0.062987216,-0.035882097,0.054802366,-0.053204164,-0.03112906,-0.040208973,-0.040236764,-0.0022971532,-0.011288188,-0.021386674,-2.0,1.008822,-2.0,2.0,2.0,-2.0,2.0,-0.027551599,2.0,-2.0,-0.6216236,-2.0,-2.0,0.6012721,-2.0,2.0,2.0,-1.847129,2.0,-0.052227832,2.0,-2.0,-0.3631206,-2.0
2025-06-09 15:04:00.716,-0.06987522,0.005270514,0.021232031,-0.07493685,-0.060588952,-0.03111954,0.0,0.0,0.0,0.019388644,-0.15947329,0.11621844,-0.03488295,0.060569983,0.39906693,-0.20248312,0.12487519,0.034759272,0.2719434,-0.026072374,-0.00941048,0.0978353,-0.004552365,-0.0395617,0.06422806,0.0717245,-0.004657281,-0.015202624,-0.018514674,0.061151676,0.010967215,-0.039645907,-5.3920125e-05,-0.06712376,-2.0,0.6012721,-2.0,2.0,2.0,-1.847129,2.0,-0.052227832,2.0,-2.0,-0.3631206,-2.0,-2.0,0.6186893,-2.0,2.0,2.0,-1.5814129,2.0,-0.049621917,2.0,-2.0,-0.39286324,-2.0
2025-06-09 15:04:00.739,-0.026027333,0.056753784,-0.063177116,-0.08528601,-0.047784768,0.02221012,0.0,0.0,0.0,0.019782018,-0.16498908,0.11117646,-0.020269426,0.067388825,0.3897713,-0.19952825,0.11254094,0.029566636,0.28135008,-0.033329554,-0.0011976289,0.09935276,-0.024098549,-0.0069575976,-0.012597808,-0.0058244914,0.056924418,0.012678137,-0.01082017,-0.03239972,-0.014310303,-0.014070418,-0.013111016,-0.045263242,-2.0,0.6186893,-2.0,2.0,2.0,-1.5814129,2.0,-0.049621917,2.0,-2.0,-0.39286324,-2.0,-2.0,1.0352228,-2.0,2.0,2.0,-1.9820534,2.0,0.047678284,2.0,-2.0,-0.64153403,-2.0
2025-06-09 15:04:00.756,0.033558913,0.025213882,-0.028572952,-0.10443026,-0.07828525,-0.035674352,0.0,0.0,0.0,0.020417027,-0.15642376,0.10394472,-0.029238973,0.05959388,0.3960331,-0.19481775,0.11899346,0.02820851,0.27677903,-0.02228844,0.0010823321,0.0985715,-0.0654397,0.054370366,-0.013383321,-0.019006522,0.057086237,0.02287522,-0.057686824,-0.05884825,-0.0060767704,-0.02792999,-0.038583416,0.0730896,-2.0,1.0352228,-2.0,2.0,2.0,-1.9820534,2.0,0.047678284,2.0,-2.0,-0.64153403,-2.0,-2.0,0.7199186,-2.0,2.0,2.0,-2.0,2.0,-0.020292558,1.8416255,-2.0,-0.6894543,-2.0
2025-06-09 15:04:00.776,0.041915067,-0.0661296,-0.021419697,-0.051140178,-0.13891266,0.03946321,0.0,0.0,0.0,0.020688403,-0.158446,0.115934305,-0.021963365,0.06114283,0.39621696,-0.2040494,0.11566609,0.042312004,0.28348503,-0.029665718,0.002254382,0.10164721,0.06635688,-0.01620035,-0.06262472,-0.028326754,0.07013336,-0.03648994,0.044228237,-0.045691025,0.033415552,0.0022783307,-0.040146958,0.028479567,-2.0,0.7199186,-2.0,2.0,2.0,-2.0,2.0,-0.020292558,1.8416255,-2.0,-0.6894543,-2.0,-2.0,0.92022586,-2.0,2.0,2.0,-2.0,2.0,-0.11643139,2.0,-2.0,-0.57282144,-2.0
2025-06-09 15:04:00.799,-0.017907485,-0.009321642,-0.030780993,-0.07590359,-0.14577438,-0.021832734,0.0,0.0,0.0,0.020565063,-0.1518738,0.11612429,-0.027479433,0.07158214,0.38934466,-0.20536149,0.119995065,0.041054863,0.27568316,-0.030697918,-0.0015619536,0.094785556,-0.054841746,0.039724447,0.05749662,-0.07293269,-0.06475251,0.006675603,0.06374948,0.013933068,0.077947296,0.044413626,0.05659577,0.047484256,-2.0,0.92022586,-2.0,2.0,2.0,-2.0,2.0,-0.11643139,2.0,-2.0,-0.57282144,-2.0,-2.0,0.97190225,-2.0,2.0,2.0,-2.0,2.0,-0.026339985,1.9573522,-2.0,-0.7702569,-2.0
2025-06-09 15:04:00.820,0.002520161,-0.056597725,-0.014839588,-0.08898103,-0.13933606,-0.008033056,0.0,0.0,0.0,0.020327944,-0.15263802,0.10336205,-0.026523383,0.06266616,0.3793706,-0.21834534,0.11710992,0.029389504,0.28331935,-0.037502747,-0.014443574,0.10663117,0.016415391,0.016461609,0.02170962,-0.06067072,-0.06266544,0.0279304,-0.021313976,-0.0335237,-0.00992864,0.0151377395,-0.009369629,-0.028000657,-2.0,0.97190225,-2.0,2.0,2.0,-2.0,2.0,-0.026339985,1.9573522,-2.0,-0.7702569,-2.0,-2.0,0.987888,-2.0,2.0,2.0,-2.0,2.0,-0.09482811,1.867194,-2.0,-0.72041994,-2.0
2025-06-09 15:04:00.839,-0.046042882,-0.04527872,0.038075943,-0.010499245,-0.06762535,0.033883654,0.0,0.0,0.0,0.019811597,-0.14063525,0.10537355,-0.031267095,0.06888048,0.38329005,-0.21732928,0.12991631,0.032482654,0.27560547,-0.027580604,-0.025007812,0.1094223,0.07905059,-0.001811056,-0.06884746,0.06642543,-0.035765048,-0.00057354855,-0.061058685,0.067473106,-0.067050725,-0.005282518,-0.03805124,0.065210104,-2.0,0.987888,-2.0,2.0,2.0,-2.0,2.0,-0.09482811,1.867194,-2.0,-0.72041994,-2.0,-2.0,0.7175574,-2.0,2.0,2.0,-2.0,2.0,-0.12184278,2.0,-2.0,-0.49929622,-2.0
2025-06-09 15:04:00.859,0.02582278,-0.038441125,-0.019922243,-0.06761257,-0.13090345,-0.00038738013,0.0,0.0,0.0,0.01907566,-0.14085366,0.122265935,-0.0426723,0.061541855,0.3841253,-0.21759431,0.13052037,0.032829657,0.28540292,-0.03249494,-0.011202768,0.103976965,0.0054369965,-0.052282035,-0.058844205,0.061005563,0.054034352,-0.051268075,-0.032532424,0.008232001,0.021452477,-0.05185912,0.026111396,0.00085680856,-2.0,0.7175574,-2.0,2.0,2.0,-2.0,2.0,-0.12184278,2.0,-2.0,-0.49929622,-2.0,-2.0,0.8529585,-2.0,2.0,2.0,-1.9300026,2.0,-0.14584854,2.0,-2.0,-0.59886605,-2.0
2025-06-09 15:04:00.883,-0.022572888,-0.003022015,0.008593193,-0.04431109,-0.13790385,0.0149990665,0.0,0.0,0.0,0.018592982,-0.15678528,0.11413146,-0.025627734,0.06671888,0.39373708,-0.22121419,0.12734382,0.029143117,0.2768653,-0.036344104,-0.020275787,0.109777756,0.03525635,0.063372746,0.01790799,-0.065939836,0.05128283,-0.015058871,-0.028977681,-0.042945705,-0.07195145,-0.05308444,0.015569149,0.01009168,-2.0,0.8529585,-2.0,2.0,2.0,-1.9300026,2.0,-0.14584854,2.0,-2.0,-0.59886605,-2.0,-2.0,0.7064201,-2.0,2.0,2.0,-1.8659035,2.0,-0.08644066,2.0,-2.0,-0.5247881,-2.0
2025-06-09 15:04:00.899,-0.041213788,0.021075597,0.03435951,-0.062222406,-0.099809036,0.018800996,0.0,0.0,0.0,0.018352332,-0.15446752,0.11000026,-0.026129097,0.059549496,0.3910317,-0.20903227,0.119528696,0.03003245,0.29116,-0.04270151,-0.017937385,0.11415207,0.06707249,0.06888367,-0.057953913,0.0065112794,-0.046517003,-0.04578942,0.042249892,-0.033791736,-0.02562146,0.042988114,-0.017330833,-0.002007764,-2.0,0.7064201,-2.0,2.0,2.0,-1.8659035,2.0,-0.08644066,2.0,-2.0,-0.5247881,-2.0,-2.0,0.73128015,-2.0,2.0,2.0,-1.6013381,2.0,-0.113779046,2.0,-2.0,-0.36066803,-2.0
2025-06-09 15:04:00.919,-0.023511643,-0.000148926,0.01788071,-0.02751248,-0.069753125,0.04324761,0.0,0.0,0.0,0.018322477,-0.15584561,0.114188366,-0.02962223,0.052309114,0.38755006,-0.20349933,0.11250492,0.02940666,0.28620395,-0.025435125,-0.024070458,0.10320388,-0.019145489,-0.035245165,0.01782355,-0.04402078,-0.06844378,-0.001226945,0.06211687,-0.050481223,0.04548135,0.07211375,-0.030687384,0.043631773,-2.0,0.73128015,-2.0,2.0,2.0,-1.6013381,2.0,-0.113779046,2.0,-2.0,-0.36066803,-2.0,-2.0,0.75496286,-2.0,2.0,2.0,-1.6623327,2.0,0.09697839,2.0,-2.0,-0.3160585,-2.0
2025-06-09 15:04:00.939,0.028974932,0.041112985,-0.0025988934,-0.054351818,-0.07525146,-0.015956061,0.0,0.0,0.0,0.018641273,-0.14352527,0.11428983,-0.033547167,0.059754875,0.38286582,-0.19922669,0.11481323,0.042763617,0.27616104,-0.040524896,0.0011678924,0.0989027,-0.008582919,0.01962483,-0.0021262374,-0.025410818,0.049116388,-0.036159676,-0.029467274,-0.0209594,0.06407866,-0.041349933,0.0042227455,-0.053073045,-2.0,0.75496286,-2.0,2.0,2.0,-1.6623327,2.0,0.09697839,2.0,-2.0,-0.3160585,-2.0,-2.0,0.6703063,-2.0,2.0,2.0,-1.676696,2.0,-0.03440482,2.0,-2.0,-0.44593075,-2.0
