openverse-orca/OrcaGym/log/simulation_log_20250721_160023.csv
timestamp,sim_time,physics_step,control_step,imu_angle_roll,imu_angle_pitch,imu_angle_yaw,imu_angular_velocity_roll,imu_angular_velocity_pitch,imu_angular_velocity_yaw,imu_acc_x,imu_acc_y,imu_acc_z,fl_joint1_pos,fl_joint1_vel,fl_joint1_torque,fl_joint2_pos,fl_joint2_vel,fl_joint2_torque,fl_joint3_pos,fl_joint3_vel,fl_joint3_torque,fr_joint1_pos,fr_joint1_vel,fr_joint1_torque,fr_joint2_pos,fr_joint2_vel,fr_joint2_torque,fr_joint3_pos,fr_joint3_vel,fr_joint3_torque,hl_joint1_pos,hl_joint1_vel,hl_joint1_torque,hl_joint2_pos,hl_joint2_vel,hl_joint2_torque,hl_joint3_pos,hl_joint3_vel,hl_joint3_torque,hr_joint1_pos,hr_joint1_vel,hr_joint1_torque,hr_joint2_pos,hr_joint2_vel,hr_joint2_torque,hr_joint3_pos,hr_joint3_vel,hr_joint3_torque,fl_force_x,fl_force_y,fl_force_z,fr_force_x,fr_force_y,fr_force_z,hl_force_x,hl_force_y,hl_force_z,hr_force_x,hr_force_y,hr_force_z,fl_hip_action,fl_thigh_action,fl_calf_action,fr_hip_action,fr_thigh_action,fr_calf_action,hl_hip_action,hl_thigh_action,hl_calf_action,hr_hip_action,hr_thigh_action,hr_calf_action
2025-07-21 16:00:23.153,0.0,0,0,0.18493667,0.0061431364,-0.17478533,0.048653867,0.035413623,0.005369049,0.016430024,0.022944134,-0.018475465,1.9349356,0.2775977,0.0,0.0,0.85329676,0.0,0.0,-0.0031743112,0.0045697354,0.00017647509,-0.008387125,0.0023236682,0.008546225,-0.00613657,-0.008577744,-0.0018865403,0.0086932015,0.0050207186,0.0012537031,0.040617585,-0.014057377,-0.074130416,-0.05060142,0.008006193,-0.038812045,-0.061311416,-0.064878814,0.049777262,-0.02204168,-0.07449278,0.07358218,0.0,0.0,0.0,0.0,0.0,0.0,0.0,0.0,0.0,0.0,0.0,0.0,0.60027707,1.0,-1.0,1.0,0.51263577,1.0,-1.0,-1.0,1.0,1.0,-0.009030301,0.2109966
2025-07-21 16:00:23.170,0.02,20,1,0.22396275,0.008273575,0.17309955,-0.11568912,-0.10195044,0.013753983,0.034002066,0.027162127,0.0017290226,0.0,0.0,0.0,0.0,0.5,0.0,0.0,0.013240494,0.05299306,-0.022070056,0.028861653,0.020803481,0.007397246,-0.014304122,-0.03785495,0.031125624,0.01864441,0.0045798672,-0.0012438867,0.050291225,0.14363246,-0.11658437,0.015740015,0.1460769,0.010094626,-0.026252283,-0.12709676,0.01831686,0.1257536,0.02698491,0.08732546,0.60027707,1.0,-1.0,1.0,0.51263577,1.0,-1.0,-1.0,1.0,1.0,-0.009030301,0.2109966,0.6629482,-0.6577042,-1.0,1.0,-1.0,1.0,-1.0,-1.0,1.0,-0.97996867,1.0,-1.0
2025-07-21 16:00:23.190,0.04,40,2,-0.12348273,0.018212896,-0.014377033,0.09684681,0.16382752,-0.008969261,-0.028226778,-0.021390915,-0.04540585,0.0,0.0,0.0,-0.0004290887,0.5,0.0,0.0,0.04126216,0.04620305,-0.04652015,0.023236014,0.017007472,0.04233969,-0.040250834,-0.059853233,0.052945256,0.008271863,0.046577014,-0.018614484,-0.019818189,-0.105144136,-0.08912126,0.0134811895,-0.0128056435,0.11640513,0.030897468,-0.12276715,-0.021408113,-0.11276763,0.20271796,-0.03788649,0.6629482,-0.6577042,-1.0,1.0,-1.0,1.0,-1.0,-1.0,1.0,-0.97996867,1.0,-1.0,1.0,1.0,-1.0,1.0,1.0,1.0,-1.0,-1.0,1.0,1.0,-1.0,-1.0
2025-07-21 16:00:23.210,0.06,60,3,-0.13971773,0.08692038,0.22190598,0.097483814,0.20770527,0.029520089,-0.052008312,0.02678087,0.028132346,0.0,0.0,0.0,-0.00077164656,0.5,0.0,0.0,0.05965516,0.04980516,-0.07541411,0.044197317,0.027624488,0.05506464,-0.04910901,-0.12930733,0.068261266,0.028945744,0.05479001,-0.0362261,-0.016621636,0.13722053,-0.0056423857,0.041715194,0.041041337,0.03031407,-0.001538354,-0.18836163,-0.023590295,0.11801448,-0.14274049,-0.040677786,1.0,1.0,-1.0,1.0,1.0,1.0,-1.0,-1.0,1.0,1.0,-1.0,-1.0,1.0,-1.0,-1.0,1.0,0.6257312,1.0,-1.0,0.22923091,1.0,0.6281723,1.0,-1.0
2025-07-21 16:00:23.230,0.08,80,4,0.099051125,-0.15175684,-0.16493139,-0.06559865,-0.14117663,0.032728065,-0.023156634,0.0053721135,-0.04187789,0.0,0.0,0.0,-0.001075888,0.5,0.0,0.0,0.0715136,0.028198471,-0.08656848,0.05483005,0.0451407,0.061277617,-0.06632415,-0.122448176,0.064200975,0.0435943,0.063081816,-0.07165621,0.018098947,-0.16079906,-0.08868392,0.087278515,0.101232536,-0.041533172,-0.09338517,-0.00024043342,0.06952813,0.024488054,0.21377628,-0.09932976,1.0,-1.0,-1.0,1.0,0.6257312,1.0,-1.0,0.22923091,1.0,0.6281723,1.0,-1.0,1.0,1.0,-1.0,1.0,-1.0,1.0,-1.0,-1.0,1.0,-1.0,-1.0,-1.0
2025-07-21 16:00:23.254,0.1,100,5,0.11566938,0.04160748,0.1339376,0.024957027,0.20654361,-0.062939666,-0.06540646,-0.0034805269,-0.044654578,0.0,0.0,0.0,-0.002015512,0.5,0.0,0.0,0.09544454,0.04824591,-0.10562185,0.07753178,0.058219943,0.0734705,-0.07209884,-0.11998104,0.08600523,0.005687924,0.049679175,-0.08045574,0.114943214,0.10385417,0.033456814,-0.020441016,0.0117384,0.055190686,-0.08155021,-0.10305671,0.022458602,-0.086965784,-0.1387315,-0.06193395,1.0,1.0,-1.0,1.0,-1.0,1.0,-1.0,-1.0,1.0,-1.0,-1.0,-1.0,1.0,-1.0,-1.0,1.0,-1.0,1.0,-1.0,-0.5053296,1.0,-1.0,1.0,-1.0
2025-07-21 16:00:23.270,0.12000000000000001,120,6,0.066185966,0.05891315,0.0541348,0.019548446,0.2195877,-0.13188654,-0.08103818,-0.0046598767,-0.045331452,0.0,0.0,0.0,-0.0013109237,0.5,0.0,0.0,0.09736084,0.02878603,-0.097662866,0.08432242,0.042560447,0.07654678,-0.07313242,-0.13843349,0.097047925,-0.021992229,0.05245691,-0.08813256,0.073695175,-0.20252717,0.036223132,-0.03227719,-0.011677022,0.07625565,-0.053602647,-0.10260854,0.03663632,-0.13474843,0.16630334,-0.033897113,1.0,-1.0,-1.0,1.0,-1.0,1.0,-1.0,-0.5053296,1.0,-1.0,1.0,-1.0,1.0,-0.83736956,-1.0,1.0,1.0,1.0,-1.0,-1.0,1.0,0.72924614,-0.2355674,-1.0
2025-07-21 16:00:23.290,0.14,140,7,0.12325367,0.12477403,0.084476285,0.00022087888,0.3040666,0.037314635,-0.06505657,0.053080156,-0.040043388,0.0,0.0,0.0,0.0008265594,0.5,0.0,0.0,0.11600741,-0.03448805,-0.11210113,0.08010834,0.03234818,0.08646213,-0.078445874,-0.18252046,0.11160615,0.011574073,0.048464842,-0.10215298,-0.038462855,-0.116323054,-0.09367767,-0.042985983,0.02029407,-0.0699331,-0.043744534,-0.167626,0.037972175,-0.009686656,-0.12445307,-0.086909436,1.0,-0.83736956,-1.0,1.0,1.0,1.0,-1.0,-1.0,1.0,0.72924614,-0.2355674,-1.0,0.18186365,-0.5172206,0.77317655,1.0,-0.9579983,1.0,-1.0,0.44873646,1.0,-1.0,1.0,-1.0
2025-07-21 16:00:23.310,0.16,160,8,0.06431674,0.12615064,0.2834043,-0.076689966,0.12004787,-0.20514563,-0.05597632,-0.0040703295,-0.009232086,0.0,0.0,0.0,0.002151415,0.5,0.0,0.0,0.102306284,-0.06323837,-0.078880355,0.09984224,0.020657899,0.10496294,-0.08784595,-0.17374152,0.097644195,-0.012044663,0.06259633,-0.11987154,0.030743672,-0.018547287,0.033150095,-0.00028391302,0.029601831,-0.03916607,-0.04908524,0.098260805,-0.033844177,-0.03044827,0.20919381,-0.08981791,0.18186365,-0.5172206,0.77317655,1.0,-0.9579983,1.0,-1.0,0.44873646,1.0,-1.0,1.0,-1.0,-1.0,0.29137754,-1.0,0.8739181,1.0,1.0,-1.0,-1.0,1.0,-0.6069477,-1.0,1.0
2025-07-21 16:00:23.362,0.18,180,9,-0.039379027,0.06623091,0.14257635,-0.08047348,0.18252581,-0.08456827,-0.03411512,0.047986865,-0.046853304,0.0,0.0,0.0,0.004239788,0.5,0.0,0.0,0.05053348,-0.046169702,-0.08329805,0.108152784,0.056850035,0.09864002,-0.104184605,-0.16871133,0.106769815,-0.029241962,0.05509997,-0.0757139,-0.04171857,0.025030546,0.015968654,0.02624416,0.012085958,-0.020901367,-0.08223218,-0.06456924,0.023159819,-0.06792337,-0.15942675,0.06094423,-1.0,0.29137754,-1.0,0.8739181,1.0,1.0,-1.0,-1.0,1.0,-0.6069477,-1.0,1.0,1.0,1.0,0.18684709,-0.6169585,-0.64282143,1.0,-1.0,-1.0,1.0,1.0,1.0,-1.0
2025-07-21 16:00:23.446,0.19999999999999998,200,10,-0.07774086,0.36689794,0.2399208,0.11972495,0.057280462,-0.054524913,-0.07300276,0.010059092,0.043399308,0.0,0.0,0.0,0.0065285955,0.5,0.0,0.0,0.058804926,0.0026904477,-0.07865004,0.08644912,0.053749118,0.10029897,-0.11607161,-0.20098992,0.12116405,0.0050389594,0.06784675,-0.08915068,0.0951408,0.14237317,0.0077524697,-0.12893896,-0.08571947,0.0770761,-0.07168171,-0.065670386,-0.034045935,0.13513654,0.11299977,0.0166607,1.0,1.0,0.18684709,-0.6169585,-0.64282143,1.0,-1.0,-1.0,1.0,1.0,1.0,-1.0,0.50359356,-1.0,-1.0,1.0,1.0,1.0,-1.0,-1.0,1.0,-1.0,1.0,-1.0
2025-07-21 16:00:23.470,0.21999999999999997,220,11,0.22960706,0.24701525,0.24150571,-0.04639408,0.09108324,0.029375225,-0.11257292,0.031833436,0.002755658,0.0,0.0,0.0,0.007554864,0.5,0.0,0.0,0.06352687,-0.03324272,-0.10133228,0.07590003,0.072034456,0.099791296,-0.12584522,-0.22177322,0.13976915,-0.0124842,0.13196635,-0.10199456,0.06337965,-0.14187348,-0.082026064,-0.025826992,0.11589046,-0.006982904,-0.082987875,-0.057911247,0.071609996,-0.025191924,0.08896669,-0.098965995,0.50359356,-1.0,-1.0,1.0,1.0,1.0,-1.0,-1.0,1.0,-1.0,1.0,-1.0,-0.14042236,-0.49822044,1.0,1.0,-1.0,1.0,-1.0,0.50121653,1.0,-1.0,-1.0,-1.0
2025-07-21 16:00:23.487,0.23999999999999996,240,12,0.08367169,0.1337603,0.07781091,0.04643317,0.06664425,-0.11783062,-0.09054986,0.04829022,-0.028235914,0.0,0.0,0.0,0.007877477,0.5,0.0,0.0,0.062622964,-0.057155054,-0.061963517,0.08208117,0.06285223,0.1075708,-0.12997192,-0.22267805,0.12858766,-0.04938778,0.12949197,-0.094396755,0.046081506,-0.13234645,0.027453316,0.029201576,-0.00837688,0.0035955065,-0.08710708,0.14977688,0.05978648,-0.03291878,-0.1664075,-0.075910956,-0.14042236,-0.49822044,1.0,1.0,-1.0,1.0,-1.0,0.50121653,1.0,-1.0,-1.0,-1.0,-1.0,1.0,-0.618883,1.0,1.0,1.0,-1.0,-1.0,1.0,-1.0,-1.0,1.0
2025-07-21 16:00:23.506,0.25999999999999995,260,13,0.21745507,0.10985847,0.34235814,0.004793884,-0.0678512,-0.02851961,-0.10050973,0.01976374,-0.0032234737,0.0,0.0,0.0,0.008721515,0.5,0.0,0.0,0.027233161,-0.032050565,-0.06513937,0.095803805,0.09156154,0.10883795,-0.13112667,-0.21142307,0.13422595,-0.06141268,0.042001177,-0.05716002,-0.041565787,0.17904457,-0.08776187,0.05895408,0.15274905,0.051002644,-0.07273279,-0.0024489544,0.03786805,0.01900246,-0.16394144,0.14773999,-1.0,1.0,-0.618883,1.0,1.0,1.0,-1.0,-1.0,1.0,-1.0,-1.0,1.0,1.0,-0.52111983,0.70747256,-0.13227344,-1.0,0.932257,-1.0,-1.0,1.0,1.0,0.7658365,-1.0
2025-07-21 16:00:23.526,0.27999999999999997,280,14,0.1422469,0.25328985,0.34063447,0.052599747,0.08679591,0.059218947,-0.10087175,0.027528431,-0.031303838,0.0,0.0,0.0,0.009552241,0.5,0.0,0.0,0.02849131,-0.057938885,-0.044917025,0.077406935,0.10989428,0.12760663,-0.14356934,-0.24833697,0.1415896,-0.03707732,0.013155501,-0.07191363,0.0035657468,-0.10853148,-0.0018457251,-0.05894828,-0.10396453,-0.014449712,0.03495048,-0.10339923,-0.05340212,0.13678424,0.056403127,0.001783268,1.0,-0.52111983,0.70747256,-0.13227344,-1.0,0.932257,-1.0,-1.0,1.0,1.0,0.7658365,-1.0,-1.0,-0.2689749,0.09405339,1.0,1.0,1.0,-1.0,1.0,1.0,-0.088420734,-1.0,1.0
2025-07-21 16:00:23.546,0.3,300,15,0.17335087,0.30638102,-0.029057262,0.017217994,-0.1739892,-0.023104204,-0.059646837,0.07358744,0.0049824384,0.0,0.0,0.0,0.009269618,0.5,0.0,0.0,0.017601628,-0.067537665,-0.044535533,0.08465413,0.12519331,0.1253681,-0.15713061,-0.22870879,0.13967183,-0.03140926,-0.012348862,-0.028580619,-0.09135608,-0.0008614291,0.015883517,-0.014426195,0.11615952,-0.020615272,-0.056912415,0.13606246,-0.06663889,0.01236372,-0.20494267,0.11360063,-1.0,-0.2689749,0.09405339,1.0,1.0,1.0,-1.0,1.0,1.0,-0.088420734,-1.0,1.0,-1.0,0.5604148,1.0,0.9435403,-1.0,0.009151816,-1.0,-1.0,1.0,1.0,-0.70230275,-1.0
2025-07-21 16:00:23.570,0.32,320,16,-0.051722627,0.11172584,0.26777005,0.149445,-0.18616776,-0.020062583,-0.06516072,0.054786403,0.025410254,0.0,0.0,0.0,0.008998116,0.5,0.0,0.0,0.0027293714,-0.049256057,-0.013412821,0.08434526,0.1438557,0.09556968,-0.14886095,-0.2173037,0.13971329,-0.0019820721,-0.057699155,-0.057235707,0.009820709,0.08901086,0.11579804,0.08411482,-0.022613194,-0.07621928,-0.043862022,-0.0023766316,0.07662089,0.046439175,-0.113495976,-0.114533946,-1.0,0.5604148,1.0,0.9435403,-1.0,0.009151816,-1.0,-1.0,1.0,1.0,-0.70230275,-1.0,0.6634561,1.0,-1.0,0.6954991,0.24707577,1.0,-1.0,0.62923896,1.0,1.0,1.0,-1.0
2025-07-21 16:00:23.587,0.34,340,17,0.017255716,0.11895609,-0.30678782,-0.097113065,-0.1930566,-0.057588447,-0.10858297,0.056736596,-0.043845195,0.0,0.0,0.0,0.008910664,0.5,0.0,0.0,0.0023887923,0.022238292,-0.027672714,0.096871875,0.15578064,0.118150085,-0.16256048,-0.18624128,0.14330763,0.039229024,-0.033454847,-0.0769165,-0.018635238,0.17192674,-0.0955834,0.055829953,-0.045366433,0.054738287,-0.010826301,0.08764392,-0.025494512,0.0069081434,0.13699017,0.009881751,0.6634561,1.0,-1.0,0.6954991,0.24707577,1.0,-1.0,0.62923896,1.0,1.0,1.0,-1.0,1.0,-1.0,-1.0,1.0,-0.03555312,1.0,-1.0,-1.0,1.0,-1.0,1.0,-1.0
2025-07-21 16:00:23.606,0.36000000000000004,360,18,0.024521036,-0.042481046,-0.28377634,-0.03171614,0.18760124,-0.015793597,-0.09382826,-0.012871346,0.0004789771,0.0,0.0,0.0,0.0097894445,0.5,0.0,0.0,0.030505475,0.031715654,-0.05721895,0.09425933,0.14117786,0.118557975,-0.16007815,-0.1591716,0.14827418,0.023944622,0.035721075,-0.08715817,0.10697255,-0.16832726,0.019917572,0.04978158,-0.101711415,-0.0026525313,-0.015322074,0.013738055,0.06723985,-0.012219084,0.20524195,0.003271646,1.0,-1.0,-1.0,1.0,-0.03555312,1.0,-1.0,-1.0,1.0,-1.0,1.0,-1.0,1.0,0.7388403,0.14151001,1.0,0.3878292,1.0,-1.0,-1.0,1.0,0.26612556,-1.0,-1.0
2025-07-21 16:00:23.627,0.38000000000000006,380,19,0.11192813,0.19021918,-0.049065005,0.0034326387,0.39342073,0.0026396546,-0.1267092,0.07131708,0.023371018,0.0,0.0,0.0,0.011268019,0.5,0.0,0.0,0.055261586,0.038568493,-0.05570382,0.104704976,0.13838063,0.13074736,-0.15312135,-0.1917338,0.13930495,0.020599326,0.0404012,-0.10008665,-0.014173769,0.1800229,0.0778703,0.04961353,0.030147584,-0.06467271,0.024152841,-0.16994567,-0.017179346,-0.0025327147,-0.11509496,0.038450655,1.0,0.7388403,0.14151001,1.0,0.3878292,1.0,-1.0,-1.0,1.0,0.26612556,-1.0,-1.0,-1.0,-1.0,0.48899126,1.0,-0.52462816,1.0,-1.0,1.0,1.0,-1.0,0.65875185,-1.0
2025-07-21 16:00:23.648,0.4000000000000001,400,20,0.027652701,0.17437565,-0.11903829,0.09477334,0.00043846553,0.04828696,-0.058559217,0.0039775725,-0.044580724,0.0,0.0,0.0,0.012004653,0.5,0.0,0.0,0.029723894,0.033279423,-0.020855034,0.10813449,0.12558782,0.13224997,-0.16171752,-0.18744202,0.1396162,-0.0150902765,0.04079115,-0.11114196,-0.1236523,-0.08133684,0.010742297,0.052257806,-0.025573166,0.01955245,-0.08656615,0.08040236,-0.054277655,-0.032478705,0.10341377,0.032438103,-1.0,-1.0,0.48899126,1.0,-0.52462816,1.0,-1.0,1.0,1.0,-1.0,0.65875185,-1.0,-1.0,0.6143514,1.0,1.0,1.0,1.0,-1.0,-1.0,1.0,-1.0,-1.0,0.89364994
2025-07-21 16:00:23.670,0.4200000000000001,420,21,0.053432446,-0.07536477,-0.18788895,0.1095614,-0.066321045,0.05721675,-0.13668148,0.016012466,-0.00988146,0.0,0.0,0.0,0.012449255,0.5,0.0,0.0,0.0156,0.05540378,-0.0059127747,0.1110016,0.16120203,0.1255993,-0.17743881,-0.19595873,0.14311379,-0.042066947,0.029431839,-0.07477668,-0.12940149,0.049637873,-0.0023212743,0.011957013,0.071221545,0.032596704,0.022195362,0.03526768,-0.029008875,-0.07484567,-0.08766614,0.046857163,-1.0,0.6143514,1.0,1.0,1.0,1.0,-1.0,-1.0,1.0,-1.0,-1.0,0.89364994,-0.48031905,1.0,-1.0,0.20172355,-1.0,1.0,-1.0,-1.0,1.0,1.0,-1.0,1.0
2025-07-21 16:00:23.687,0.4400000000000001,440,22,0.09326067,-0.06456098,-0.16364475,0.2427303,0.032072123,0.023270313,-0.042557057,0.06125217,0.046300035,0.0,0.0,0.0,0.012390772,0.5,0.0,0.0,-0.0068175313,0.1062627,-0.040296208,0.11336695,0.16845879,0.13090543,-0.16375089,-0.2139347,0.14457148,-0.014414031,-0.03874531,-0.024909332,0.03447617,0.119672716,-0.12578876,-0.035767287,0.022927096,0.088236466,-0.07630257,-0.11501251,-0.01794703,0.06486019,-0.22652526,0.0731552,-0.48031905,1.0,-1.0,0.20172355,-1.0,1.0,-1.0,-1.0,1.0,1.0,-1.0,1.0,1.0,-1.0,-1.0,1.0,-1.0,1.0,-1.0,0.13538477,1.0,0.42205226,1.0,0.8162881
2025-07-21 16:00:23.707,0.46000000000000013,460,23,-0.008034532,0.16651149,-0.23729132,-0.090063326,0.0716095,-0.03987966,-0.053944018,0.037870467,-0.024618113,0.0,0.0,0.0,0.011537844,0.5,0.0,0.0,0.010708746,0.122488655,-0.04559146,0.11390223,0.15694544,0.13172634,-0.16754034,-0.20645665,0.15180565,-0.0021918241,-0.052435983,0.0017809946,0.020604448,-0.032780506,-0.069102764,-0.035621684,0.041240152,0.040209413,0.025696421,0.03486404,-0.05332753,0.10037913,0.100535326,0.13035434,1.0,-1.0,-1.0,1.0,-1.0,1.0,-1.0,0.13538477,1.0,0.42205226,1.0,0.8162881,0.46173975,-1.0,-1.0,1.0,-1.0,1.0,-1.0,-1.0,1.0,-1.0,0.5553122,-1.0
2025-07-21 16:00:23.727,0.48000000000000015,480,24,-0.16347899,0.13308114,0.23091167,0.124228135,0.27668363,0.03424988,-0.09871228,0.07603415,0.03509325,0.0,0.0,0.0,0.011799579,0.5,0.0,0.0,0.022834238,0.09136916,-0.07268121,0.10981804,0.14569993,0.14441665,-0.17350167,-0.21679626,0.14489684,-0.011312994,-0.0058354284,-0.0321935,0.101324864,-0.10102704,-0.03258807,-0.021605287,-0.007447448,0.0048508607,0.06732752,-0.08412531,0.07416877,-0.017241592,0.06372863,-0.060822327,0.46173975,-1.0,-1.0,1.0,-1.0,1.0,-1.0,-1.0,1.0,-1.0,0.5553122,-1.0,1.0,-1.0,-1.0,1.0,1.0,1.0,-1.0,1.0,1.0,-0.250818,1.0,-0.83452666
2025-07-21 16:00:23.752,0.5000000000000001,500,25,-0.16743818,-0.029697897,-0.29825878,-0.18365654,0.10021288,0.10861558,-0.13156384,0.08683227,-0.00082964875,0.0,0.0,0.0,0.011981669,0.5,0.0,0.0,0.056994546,0.076601565,-0.075174175,0.1213596,0.15346439,0.13203712,-0.16796687,-0.20002629,0.13736185,-0.016183745,0.07148406,-0.043429498,0.07302172,-0.01071879,0.00436184,-0.022607135,0.15899153,-0.07048412,-0.07580052,0.1880478,-0.064247176,-0.015824622,0.16510019,-0.03743938,1.0,-1.0,-1.0,1.0,1.0,1.0,-1.0,1.0,1.0,-0.250818,1.0,-0.83452666,0.4713461,0.6863167,-0.480945,1.0,-1.0,1.0,-1.0,-1.0,1.0,-0.56069994,-1.0,-1.0
2025-07-21 16:00:23.770,0.5200000000000001,520,26,-0.3021771,-0.18893649,-0.11339345,-0.07123039,0.059609566,-0.055239297,-0.12693027,0.10350435,0.026074193,0.0,0.0,0.0,0.010392032,0.5,0.0,0.0,0.06658423,0.06412945,-0.10268881,0.14093974,0.17070626,0.14138377,-0.1739369,-0.18510665,0.14462338,-0.025320988,0.059030395,-0.058478624,-0.00085070526,0.09857381,-0.09190554,-0.004778473,0.007953521,-0.031305872,0.047653917,-0.101999104,0.0231047,-0.098453835,-0.05512803,-0.02977507,0.4713461,0.6863167,-0.480945,1.0,-1.0,1.0,-1.0,-1.0,1.0,-0.56069994,-1.0,-1.0,1.0,-1.0,-1.0,1.0,-0.9683958,1.0,-1.0,1.0,1.0,0.11188008,0.033239406,1.0
2025-07-21 16:00:23.787,0.5400000000000001,540,27,-0.48360068,0.0075447154,-0.25993234,-0.17691699,0.080371484,-0.00073063,-0.17174275,0.07912183,-0.038469046,0.0,0.0,0.0,0.009314286,0.5,0.0,0.0,0.0823089,0.07424024,-0.104922205,0.1375366,0.1391939,0.148129,-0.16708611,-0.17933545,0.148496,-0.032430563,0.05148024,-0.027052244,-0.02460429,-0.04623046,0.009327448,0.06901503,0.005751448,0.01602102,-0.049717557,0.12491668,0.052221958,-0.016953504,-0.039842963,0.12970845,1.0,-1.0,-1.0,1.0,-0.9683958,1.0,-1.0,1.0,1.0,0.11188008,0.033239406,1.0,-0.19076236,0.022043403,-1.0,1.0,1.0,1.0,-1.0,-1.0,1.0,1.0,-1.0,1.0
2025-07-21 16:00:23.807,0.5600000000000002,560,28,-0.17985605,0.02142022,-0.010965253,-0.0015630984,-0.12958135,0.13845533,-0.17184111,0.046490405,0.014286883,0.0,0.0,0.0,0.008976291,0.5,0.0,0.0,0.06701912,0.06702024,-0.12230488,0.1364929,0.17829603,0.13117641,-0.18107246,-0.17819527,0.15790936,0.0049565877,0.0031524652,0.012528755,-0.034112275,-0.08117806,0.014314497,0.0099562,0.18116061,0.064680375,0.019730825,-0.120615855,0.045747265,0.059749085,-0.26243535,0.07271919,-0.19076236,0.022043403,-1.0,1.0,1.0,1.0,-1.0,-1.0,1.0,1.0,-1.0,1.0,-0.7191092,-0.44876397,1.0,-0.3138715,-1.0,1.0,-1.0,1.0,1.0,1.0,0.62525535,0.33758518
2025-07-21 16:00:23.827,0.5800000000000002,580,29,-0.47926697,-0.19810383,0.16092376,0.15132612,-0.5556785,0.11064661,-0.12532796,0.09798019,-0.012421506,0.0,0.0,0.0,0.0075816605,0.5,0.0,0.0,0.05124242,0.047246117,-0.07355051,0.11777911,0.19232762,0.14747341,-0.17111091,-0.15797001,0.1568156,0.03145805,-0.012414608,0.015730945,-0.03592507,-0.10726465,0.1425044,-0.1112287,0.0367384,-0.018396078,-0.02997142,0.19318241,0.06274222,0.107325725,0.109742925,-0.011923662,-0.7191092,-0.44876397,1.0,-0.3138715,-1.0,1.0,-1.0,1.0,1.0,1.0,0.62525535,0.33758518,-1.0,1.0,-1.0,1.0,1.0,1.0,-0.82467955,-0.83374774,1.0,1.0,-1.0,1.0
2025-07-21 16:00:23.853,0.6000000000000002,600,30,-0.50594705,-0.026059914,-0.25501752,0.03466017,-0.17167965,0.09513965,-0.06888648,0.11776925,-0.045692492,0.0,0.0,0.0,0.006310169,0.5,0.0,0.0,0.0121864285,0.076035745,-0.090239294,0.11377513,0.22439963,0.14719419,-0.17608757,-0.15932623,0.15883124,0.059164047,-0.033977862,0.044448797,-0.08313115,0.19579147,-0.09597408,0.07061632,0.032635994,-0.061949864,-0.028855972,-0.037484568,-0.030296504,0.06434067,-0.19005771,0.067267835,-1.0,1.0,-1.0,1.0,1.0,1.0,-0.82467955,-0.83374774,1.0,1.0,-1.0,1.0,0.83758616,-1.0,-1.0,1.0,-1.0,1.0,-1.0,1.0,1.0,1.0,1.0,1.0
2025-07-21 16:00:23.870,0.6200000000000002,620,31,-0.4506768,-0.04179933,-0.33691332,-0.0513516,-0.10945673,0.05304511,-0.10891037,0.010024946,-0.039970446,0.0,0.0,0.0,0.0050786287,0.5,0.0,0.0,0.018989954,0.066995546,-0.10138718,0.11948627,0.24384712,0.1560264,-0.16916066,-0.12192056,0.14955892,0.08644479,-0.037125967,0.056496788,0.069987305,-0.1821656,-0.050060242,-0.045246724,0.040237267,0.030641288,-0.026308201,0.089165874,0.0025847515,-0.019186733,0.1198079,0.0860046,0.83758616,-1.0,-1.0,1.0,-1.0,1.0,-1.0,1.0,1.0,1.0,1.0,1.0,0.88681823,1.0,-1.0,1.0,-1.0,1.0,-1.0,-1.0,1.0,-0.2045301,-1.0,-0.09721449
2025-07-21 16:00:23.888,0.6400000000000002,640,32,-0.4332079,-0.11548136,-0.36517254,0.036304135,0.19230439,-0.021705344,-0.02626083,0.10630826,0.030039666,0.0,0.0,0.0,0.0038278732,0.5,0.0,0.0,0.043358117,0.091268726,-0.12050476,0.12763867,0.23311679,0.15149647,-0.16132995,-0.10842427,0.1504147,0.07194921,-0.062860325,0.044124093,0.11643814,0.16704434,-0.009528981,-0.015078616,-0.1219467,-0.040432926,-0.04931945,-0.101421975,-0.059450924,-0.024152428,-0.14505742,0.020696694,0.88681823,1.0,-1.0,1.0,-1.0,1.0,-1.0,-1.0,1.0,-0.2045301,-1.0,-0.09721449,1.0,-1.0,-1.0,1.0,-0.18555743,1.0,-1.0,1.0,1.0,-1.0,1.0,-1.0
2025-07-21 16:00:23.908,0.6600000000000003,660,33,-0.45731473,0.11148065,-0.23315354,0.0281533,0.11338085,-0.054700334,-0.11818097,0.06194132,-0.01708732,0.0,0.0,0.0,0.0041600913,0.5,0.0,0.0,0.05658882,0.07525471,-0.12636092,0.12217422,0.2032971,0.14624321,-0.15942772,-0.096668184,0.13528992,0.02590551,-0.058275267,0.0037611683,0.006313353,-0.10074708,-0.08793058,0.0840366,-0.025016926,-0.005037323,-0.019291691,0.16276027,0.004316001,-0.16582537,0.09230738,-0.10868826,1.0,-1.0,-1.0,1.0,-0.18555743,1.0,-1.0,1.0,1.0,-1.0,1.0,-1.0,1.0,0.91125304,-1.0,1.0,1.0,1.0,-1.0,-1.0,1.0,-0.47377825,0.26935866,-1.0
2025-07-21 16:00:23.928,0.6800000000000003,680,34,-0.2814596,-0.15195875,-0.14046085,0.06735716,0.1388108,0.055422585,-0.115917005,0.062203217,-0.041168068,0.0,0.0,0.0,0.004864031,0.5,0.0,0.0,0.08416289,0.07878558,-0.118104346,0.12801181,0.22670288,0.13730624,-0.16380076,-0.09188998,0.13466913,0.017233014,-0.037399504,-0.022912208,-0.0014051598,0.16295867,-0.016115239,-0.0070660473,0.11029655,-0.011240401,-0.02269473,-0.06034318,0.012697762,-0.09591077,0.11336845,-0.09633233,1.0,0.91125304,-1.0,1.0,1.0,1.0,-1.0,-1.0,1.0,-0.47377825,0.26935866,-1.0,1.0,-1.0,-1.0,1.0,-1.0,1.0,-1.0,1.0,1.0,0.5576973,-0.8142425,-0.6034205
2025-07-21 16:00:23.952,0.7000000000000003,700,35,-0.11478283,-0.10219338,-0.20211934,-0.04641734,0.19023123,0.017877404,-0.05923755,0.1289064,0.01092579,0.0,0.0,0.0,0.0046208724,0.5,0.0,0.0,0.10195618,0.060688954,-0.13351385,0.15215084,0.21374941,0.13206589,-0.1604451,-0.059515674,0.13997048,0.022825843,-0.06093108,-0.023487492,0.09454073,-0.14982347,-0.019738467,-0.03878786,-0.018999517,0.05952067,0.00702887,0.08998881,0.02274914,-0.029575717,-0.0759328,-0.0053935368,1.0,-1.0,-1.0,1.0,-1.0,1.0,-1.0,1.0,1.0,0.5576973,-0.8142425,-0.6034205,-0.16990389,1.0,-1.0,1.0,-1.0,1.0,-1.0,-1.0,1.0,-1.0,-1.0,-1.0
2025-07-21 16:00:23.968,0.7200000000000003,720,36,-0.08058593,0.1770242,0.051003832,0.077366665,-0.010531762,-0.036086187,-0.122364886,0.09064662,0.039960083,0.0,0.0,0.0,0.0037337865,0.5,0.0,0.0,0.08768653,0.06002363,-0.14756192,0.14599937,0.20559919,0.13921182,-0.15930101,-0.070691004,0.14908537,-0.0014255926,-0.12056328,-0.058721673,0.031152397,0.066492155,0.016759751,-0.07943124,-0.01879193,0.026239406,-0.010995932,-0.15107255,0.063374475,-0.096958034,-0.12503573,-0.019391475,-0.16990389,1.0,-1.0,1.0,-1.0,1.0,-1.0,-1.0,1.0,-1.0,-1.0,-1.0,1.0,-1.0,-1.0,1.0,-1.0,1.0,-1.0,0.6150634,1.0,-1.0,1.0,-1.0
2025-07-21 16:00:23.988,0.7400000000000003,740,37,-0.48317486,0.0699928,-0.052779995,-0.17990844,0.01893908,-0.029362177,-0.15873107,0.0991583,-0.046430293,0.0,0.0,0.0,0.0038122996,0.5,0.0,0.0,0.0964281,0.049292672,-0.15085113,0.15566106,0.19542019,0.15522058,-0.16890553,-0.042614345,0.15468691,-0.035553128,-0.11180597,-0.063394025,0.028563768,0.008987175,0.0067635044,-0.019121658,0.007641557,0.0009641676,0.0078011244,0.13910842,0.045269873,-0.038803037,0.19461583,-0.0876597,1.0,-1.0,-1.0,1.0,-1.0,1.0,-1.0,0.6150634,1.0,-1.0,1.0,-1.0,0.5980456,-1.0,-1.0,1.0,1.0,1.0,-1.0,-1.0,1.0,0.8258326,-0.08391078,1.0
2025-07-21 16:00:24.008,0.7600000000000003,760,38,-0.30770725,-0.045616016,-0.20413747,-0.09112086,0.014583915,0.14875938,-0.09175312,0.12081456,0.03260148,0.0,0.0,0.0,0.0048860624,0.5,0.0,0.0,0.096994996,0.030430181,-0.15162215,0.15290558,0.21914344,0.14490777,-0.15942895,-0.056127038,0.15864259,-0.0070002433,-0.09501956,-0.030886957,0.02888672,-0.12329932,0.025219481,-0.039002217,0.09181166,-0.01696232,-0.04406528,-0.09390393,0.018019449,0.13776681,0.102084726,0.05141829,0.5980456,-1.0,-1.0,1.0,1.0,1.0,-1.0,-1.0,1.0,0.8258326,-0.08391078,1.0,-1.0,-0.96053493,1.0,1.0,-1.0,1.0,-1.0,1.0,1.0,1.0,-1.0,1.0
2025-07-21 16:00:24.028,0.7800000000000004,780,39,-0.6168643,0.13201253,0.1064105,0.056579,-0.2175903,0.14319623,-0.1497071,0.08475641,-0.03210691,0.0,0.0,0.0,0.0031836156,0.5,0.0,0.0,0.07989231,-0.004991932,-0.11176781,0.14231373,0.24403152,0.15211567,-0.168865,-0.06429918,0.14214116,0.01066118,-0.13551123,0.005208805,-0.054358218,-0.21164818,0.14345205,0.05360319,-0.07060557,0.0021125746,-0.041346457,0.061647307,-0.0747268,0.10260596,-0.1832652,0.108323194,-1.0,-0.96053493,1.0,1.0,-1.0,1.0,-1.0,1.0,1.0,1.0,-1.0,1.0,-0.18080355,1.0,1.0,0.4685517,1.0,-1.0,-1.0,0.9262332,1.0,1.0,0.7432372,1.0
2025-07-21 16:00:24.049,0.8000000000000004,800,40,-0.4376629,0.040244572,0.010544106,-0.06319418,-0.46339136,0.06584395,-0.056474928,0.0607368,0.013440881,0.0,0.0,0.0,0.0008180995,0.5,0.0,0.0,0.0688179,-0.0099501,-0.06663808,0.12401936,0.2783946,0.09820328,-0.17492986,0.0022912514,0.1353059,0.051189173,-0.124896854,0.028251274,-0.109358765,0.15826544,0.051472533,-0.015544915,0.034789607,-0.056106042,0.0009119451,0.16093023,0.06452005,0.11012675,0.21663964,0.045221917,-0.18080355,1.0,1.0,0.4685517,1.0,-1.0,-1.0,0.9262332,1.0,1.0,0.7432372,1.0,0.37367627,1.0,1.0,-0.9379513,-0.61279595,-1.0,-1.0,-1.0,1.0,1.0,-0.18137486,1.0
2025-07-21 16:00:24.069,0.8200000000000004,820,41,-0.5035298,-0.24677339,0.0051872344,0.18716538,-0.30571136,0.070925094,-0.06113911,0.09609643,-0.019407587,0.0,0.0,0.0,-0.0010904559,0.5,0.0,0.0,0.058938287,0.030475542,-0.033143286,0.09248646,0.28905547,0.06188766,-0.1861151,0.019855991,0.15645587,0.07376735,-0.10031757,0.039922066,0.008315993,0.07364871,0.08810863,-0.105158925,-0.06937749,-0.14439067,-0.045636345,0.045415424,0.061839297,0.03855484,0.063786484,0.09409595,0.37367627,1.0,1.0,-0.9379513,-0.61279595,-1.0,-1.0,-1.0,1.0,1.0,-0.18137486,1.0,-1.0,1.0,0.63829327,-0.48388737,-0.5117581,-1.0,-1.0,1.0,1.0,1.0,0.0688663,1.0
2025-07-21 16:00:24.088,0.8400000000000004,840,42,-0.36831334,-0.26422128,0.07100431,-0.03402335,-0.2542932,0.0024491015,-0.028093804,0.06153187,0.010104984,0.0,0.0,0.0,-0.0014818965,0.5,0.0,0.0,0.027544642,0.108123966,-0.023217026,0.063262366,0.26052397,0.023956593,-0.17695163,0.06444193,0.14448693,0.082099825,-0.09295177,0.059172813,-0.07621457,0.19562308,0.11962957,-0.10359416,-0.086391166,-0.06902667,-0.013163634,0.13243528,-0.0038066984,-0.0045286985,0.08851274,0.072340526,-1.0,1.0,0.63829327,-0.48388737,-0.5117581,-1.0,-1.0,1.0,1.0,1.0,0.0688663,1.0,-1.0,-0.22210306,1.0,-1.0,-0.8252561,-1.0,-0.20410529,-0.41219467,-1.0,1.0,-0.35268387,1.0
2025-07-21 16:00:24.108,0.8600000000000004,860,43,-0.64478445,-0.08038358,0.17008185,0.2004173,0.023332613,0.10958776,-0.00018885477,0.07234718,0.033881962,0.0,0.0,0.0,-0.0014132408,0.5,0.0,0.0,-0.004578559,0.100407235,0.016126744,0.025671666,0.2387816,-0.007168682,-0.16152005,0.0632846,0.098514594,0.09574348,-0.08946913,0.08494591,-0.06690236,-0.050072484,0.010071245,-0.14875506,-0.12962748,-0.060036603,0.017219244,-0.16105933,-0.11259128,-0.036141824,-0.08446669,0.06612002,-1.0,-0.22210306,1.0,-1.0,-0.8252561,-1.0,-0.20410529,-0.41219467,-1.0,1.0,-0.35268387,1.0,-1.0,1.0,1.0,0.0062909126,1.0,-1.0,1.0,1.0,1.0,1.0,-0.11569251,1.0
2025-07-21 16:00:24.129,0.8800000000000004,880,44,-0.3500269,-0.27912602,-0.17267464,-0.0816455,-0.22423948,0.08754192,0.004004807,0.035858557,0.03737673,0.0,0.0,0.0,-0.002671196,0.5,0.0,0.0,-0.019147886,0.116816424,0.031831965,0.02070857,0.2280065,-0.025346996,-0.102721214,0.08058229,0.10622981,0.10666187,-0.097290315,0.07515172,0.0051492588,0.17864285,-0.033715714,-0.05175662,0.14411643,-0.10415803,0.17692497,0.096210055,0.011441947,0.05962371,-0.04420926,-0.0016362088,-1.0,1.0,1.0,0.0062909126,1.0,-1.0,1.0,1.0,1.0,1.0,-0.11569251,1.0,-1.0,1.0,1.0,-0.35589606,-1.0,-1.0,-0.90757376,-1.0,-1.0,1.0,-1.0,1.0
2025-07-21 16:00:24.149,0.9000000000000005,900,45,-0.08751861,-0.06316916,-0.032070514,0.14094503,-0.0011499692,-0.028686712,0.0078048497,0.02159316,-0.029277826,0.0,0.0,0.0,-0.004719696,0.5,0.0,0.0,-0.042040985,0.15966105,0.027861025,0.012950607,0.19903186,-0.053209294,-0.10704925,0.07170402,0.055400565,0.10576204,-0.110368386,0.100725,0.015456072,0.088796824,0.022616616,-0.10276858,-0.2190755,-0.047017578,0.043437637,-0.18530059,-0.11858957,-0.023677727,-0.07529782,0.091921344,-1.0,1.0,1.0,-0.35589606,-1.0,-1.0,-0.90757376,-1.0,-1.0,1.0,-1.0,1.0,-1.0,-1.0,1.0,-0.46325976,-1.0,-0.79559547,1.0,1.0,-1.0,1.0,-1.0,1.0
2025-07-21 16:00:24.170,0.9200000000000005,920,46,-0.2490476,-0.042943377,0.16770527,0.18486692,0.045958187,-0.10186214,0.031018378,0.10808074,-0.0067097545,0.0,0.0,0.0,-0.004853669,0.5,0.0,0.0,-0.04550197,0.16988604,0.058843415,0.00034955665,0.093631186,-0.06935175,-0.07075476,0.082127824,0.02025177,0.09861668,-0.13526878,0.100954555,0.05101378,-0.07452107,0.050715346,-0.11003686,-0.20508902,-0.07598722,0.1404232,0.14657812,-0.13733777,0.05537945,-0.036826044,-0.035483673,-1.0,-1.0,1.0,-0.46325976,-1.0,-0.79559547,1.0,1.0,-1.0,1.0,-1.0,1.0,-1.0,1.0,1.0,-1.0,1.0,-1.0,1.0,-0.03355518,-0.5923085,1.0,1.0,1.0
2025-07-21 16:00:24.189,0.9400000000000005,940,47,-0.033245083,-0.031249048,0.24702477,0.1870665,-0.13823076,0.0068966886,0.05488947,0.10343789,-0.004394349,0.0,0.0,0.0,-0.0038669757,0.5,0.0,0.0,-0.061918553,0.17386423,0.059736837,-0.030445183,0.08226959,-0.08772451,-0.026449576,0.07378055,0.004869457,0.10750819,-0.122503124,0.11572879,0.021175768,0.11417442,-0.024707811,0.012436063,0.11124044,-0.04891958,0.090003036,0.0022426366,-0.025035566,0.06519704,0.15557925,-0.007229553,-1.0,1.0,1.0,-1.0,1.0,-1.0,1.0,-0.03355518,-0.5923085,1.0,1.0,1.0,-1.0,-1.0,1.0,-1.0,-0.9153618,-1.0,1.0,0.024303883,-0.94762087,1.0,-1.0,1.0
2025-07-21 16:00:24.209,0.9600000000000005,960,48,-0.09055874,-0.04275993,0.17052978,0.19972172,0.17653368,-0.0019867243,-0.025286479,0.04006106,-0.0106542185,0.0,0.0,0.0,-0.003652064,0.5,0.0,0.0,-0.08503535,0.16908118,0.07715838,-0.06626022,0.057768453,-0.0963099,0.007605944,0.0621938,-0.019309107,0.12483893,-0.14464033,0.122420244,0.04816341,-0.047882445,0.043443512,0.013863927,-0.15984567,0.044067726,0.12514,-0.00048345412,-0.026762592,0.043039817,-0.14879338,0.019851448,-1.0,-1.0,1.0,-1.0,-0.9153618,-1.0,1.0,0.024303883,-0.94762087,1.0,-1.0,1.0,-1.0,1.0,1.0,-0.43497926,0.37178516,1.0,1.0,0.6153308,0.66327727,1.0,1.0,1.0
2025-07-21 16:00:24.229,0.9800000000000005,980,49,0.2202422,0.0380152,-0.09659845,-0.11431129,-0.18165086,0.0274191,0.032142565,0.05188391,0.006535851,0.0,0.0,0.0,-0.0035234592,0.5,0.0,0.0,-0.092701994,0.1820229,0.09040048,-0.06322752,0.026762692,-0.06659067,0.032723393,0.094535835,-0.0037823964,0.11683398,-0.12467972,0.11668281,0.033989538,0.053994723,-0.0052909106,0.03368924,0.0033615823,0.05313293,0.064387165,0.15098098,0.123803854,0.057785485,0.075175986,-0.014958999,-1.0,1.0,1.0,-0.43497926,0.37178516,1.0,1.0,0.6153308,0.66327727,1.0,1.0,1.0,-1.0,-1.0,1.0,1.0,0.10018597,-0.860176,0.9317797,-1.0,-0.059932947,1.0,-1.0,1.0
2025-07-21 16:00:24.253,1.0000000000000004,1000,50,-0.031057373,-0.1423827,0.39205593,0.07630718,0.10601041,-0.028448097,0.023102697,0.101582386,-0.029139867,0.0,0.0,0.0,-0.0034397873,0.5,0.0,0.0,-0.08550792,0.1902283,0.099953495,-0.048034865,0.0279451,-0.07769292,0.044352166,0.06203391,-0.0032080163,0.13766351,-0.11034854,0.11921264,0.058686066,-0.0063176523,-0.003157303,0.06726792,-0.040951174,0.008350281,0.056158282,-0.16599227,-0.038412277,-0.020405797,-0.07755013,0.077456295,-1.0,-1.0,1.0,1.0,0.10018597,-0.860176,0.9317797,-1.0,-0.059932947,1.0,-1.0,1.0,-1.0,0.13885617,1.0,-1.0,-1.0,0.58464485,1.0,1.0,-1.0,1.0,1.0,1.0
2025-07-21 16:00:24.269,1.0200000000000005,1020,51,-0.07329813,0.12655856,0.168274,0.018274488,-0.04625192,0.11408094,0.011655752,0.080362275,0.016040333,0.0,0.0,0.0,-0.0036910423,0.5,0.0,0.0,-0.10533627,0.18652876,0.10568047,-0.05971698,-0.004779743,-0.044462778,0.060311906,0.04893777,-0.029315159,0.1446359,-0.078582786,0.119319245,-0.083292335,-0.07293333,0.08251619,-0.13172522,-0.1639752,0.09068887,0.038694028,0.13438185,-0.035780724,0.055757694,0.16481538,-0.005879448,-1.0,0.13885617,1.0,-1.0,-1.0,0.58464485,1.0,1.0,-1.0,1.0,1.0,1.0,0.8545857,-1.0,1.0,1.0,1.0,-0.89609045,1.0,-1.0,-1.0,-1.0,-0.8305115,1.0
2025-07-21 16:00:24.289,1.0400000000000005,1040,52,-0.305814,0.058088847,0.43738115,-0.045797784,0.22437845,-0.080247894,-0.024087017,0.072607905,-0.029290833,0.0,0.0,0.0,-0.0054206555,0.5,0.0,0.0,-0.07578782,0.14951828,0.110002644,-0.02321902,0.015098683,-0.07235179,0.08821965,0.031946685,-0.059873614,0.12059604,-0.08213592,0.13846473,0.04378956,-0.114876434,0.026499396,0.12736149,0.024584787,-0.12192767,0.10885536,-0.13060749,-0.090280876,-0.105595484,-0.028272653,0.010778791,0.8545857,-1.0,1.0,1.0,1.0,-0.89609045,1.0,-1.0,-1.0,-1.0,-0.8305115,1.0,-1.0,0.72917914,1.0,-1.0,-0.27516636,-1.0,1.0,1.0,-1.0,1.0,1.0,1.0
2025-07-21 16:00:24.309,1.0600000000000005,1060,53,-0.26479426,-0.132266,0.22407565,0.096731424,-0.109436825,-0.024178583,0.041319266,0.14873081,-0.030082293,0.0,0.0,0.0,-0.006043185,0.5,0.0,0.0,-0.07910455,0.1648784,0.1273842,-0.033541646,0.006953109,-0.0848769,0.105087824,0.029050611,-0.07988867,0.11705998,-0.060058225,0.13693143,-0.069115795,0.13836446,-0.052963406,0.006187495,-0.035150472,0.041812845,0.046147104,0.16352783,-0.02699919,-0.009888105,0.17218146,0.033548716,-1.0,0.72917914,1.0,-1.0,-0.27516636,-1.0,1.0,1.0,-1.0,1.0,1.0,1.0,-1.0,-1.0,1.0,-0.82370895,-1.0,1.0,1.0,0.32343665,1.0,1.0,-0.14713731,1.0
2025-07-21 16:00:24.329,1.0800000000000005,1080,54,-0.1624099,0.062458623,0.24385893,0.0798178,0.033510037,-0.030738622,0.008784171,0.070278056,-0.03517273,0.0,0.0,0.0,-0.0060167275,0.5,0.0,0.0,-0.0874019,0.14524797,0.12539074,-0.060914613,-0.033071198,-0.052354,0.1210947,0.039898194,-0.041390717,0.13289905,-0.0432249,0.13936493,0.0072023426,-0.13230796,0.015146581,-0.06981803,-0.074430175,0.019790066,-0.016416145,0.045945086,0.12242853,0.0022246426,-0.072861664,-0.029494429,-1.0,-1.0,1.0,-0.82370895,-1.0,1.0,1.0,0.32343665,1.0,1.0,-0.14713731,1.0,0.35839745,1.0,-1.0,1.0,1.0,1.0,-1.0,-1.0,1.0,1.0,1.0,1.0
2025-07-21 16:00:24.353,1.1000000000000005,1100,55,-0.27297685,-0.1605883,-0.18755327,-0.34074408,-0.030736085,-0.016790183,-0.028701931,0.10499391,-0.019007256,0.0,0.0,0.0,-0.005585794,0.5,0.0,0.0,-0.065723285,0.15424497,0.07427526,-0.032562654,-0.039721724,-0.021822914,0.077543624,0.004981534,0.0039072246,0.14256012,0.006207016,0.14519413,0.0029952275,0.1370961,-0.15245514,0.08539801,0.034551818,0.105908945,-0.16017108,-0.22053872,0.116035864,0.019111004,0.14141344,0.039378602,0.35839745,1.0,-1.0,1.0,1.0,1.0,-1.0,-1.0,1.0,1.0,1.0,1.0,1.0,0.78071094,-1.0,1.0,1.0,1.0,-1.0,-0.59543383,1.0,1.0,-1.0,1.0
2025-07-21 16:00:24.370,1.1200000000000006,1120,56,-0.12593535,0.24967696,-0.18809593,-0.57155395,0.06464306,-0.016983237,0.018599326,0.057321806,0.010765881,0.0,0.0,0.0,-0.0056176637,0.5,0.0,0.0,-0.025081247,0.19902948,0.044733282,0.005653781,0.009084163,-0.009738865,0.048150986,-0.03161647,0.02318282,0.135863,0.01321562,0.14422306,0.15685982,0.10167716,-0.043961775,0.13016593,0.13358732,0.017524773,-0.029954206,-0.16679323,0.093233645,0.06436661,-0.018491799,0.01104562,1.0,0.78071094,-1.0,1.0,1.0,1.0,-1.0,-0.59543383,1.0,1.0,-1.0,1.0,1.0,-0.95168537,-1.0,1.0,0.77833354,1.0,-1.0,-1.0,1.0,-0.15989648,1.0,-1.0
2025-07-21 16:00:24.390,1.1400000000000006,1140,57,-0.039897785,0.033625662,-0.5873483,-0.64246345,-0.16482677,0.110205896,-0.05282575,0.030267816,-0.017468238,0.0,0.0,0.0,-0.006453567,0.5,0.0,0.0,0.0029508737,0.1560246,0.014569939,0.018109381,0.061371952,0.020496888,0.00093409355,-0.10103619,0.057049308,0.11332864,0.041281458,0.09680535,0.07467104,-0.12452601,-0.04412212,0.11475226,0.18716516,0.03948825,-0.13333812,-0.0875439,0.021965412,-0.08245789,0.21161945,-0.15602748,1.0,-0.95168537,-1.0,1.0,0.77833354,1.0,-1.0,-1.0,1.0,-0.15989648,1.0,-1.0,1.0,1.0,-1.0,1.0,-1.0,1.0,-1.0,-1.0,1.0,-0.58776057,-0.32323554,-1.0
2025-07-21 16:00:24.410,1.1600000000000006,1160,58,-0.23549931,0.25829783,-0.81222665,-0.22310168,0.05993846,0.010864435,-0.07707525,-0.008434831,-0.04092738,0.0,0.0,0.0,-0.008234743,0.5,0.0,0.0,0.030301461,0.14703706,-0.018444128,0.037406106,0.067663044,0.03781879,-0.011097591,-0.15084939,0.07287196,0.078761555,0.04755197,0.0452233,0.04026266,0.123937465,-0.11324174,0.024314344,0.020998042,0.022468675,0.04545498,-0.10028695,0.021138065,-0.14187945,-0.11185816,-0.09572169,1.0,1.0,-1.0,1.0,-1.0,1.0,-1.0,-1.0,1.0,-0.58776057,-0.32323554,-1.0,1.0,0.5269229,-1.0,1.0,0.07128779,1.0,-1.0,-1.0,1.0,-1.0,1.0,-1.0
2025-07-21 16:00:24.430,1.1800000000000006,1180,59,-0.41643572,-0.010670874,-0.40354338,0.024502626,0.026659334,0.10804467,-0.030409912,-0.011243667,-0.040780246,0.0,0.0,0.0,-0.009424703,0.5,0.0,0.0,0.044380404,0.16514128,-0.05179352,0.03903197,0.053019676,0.06055096,-0.01772649,-0.17276858,0.08593899,0.044053145,0.063927025,0.011767317,0.0304634,0.05207246,-0.07674971,-0.037112772,-0.09967902,0.03826025,0.03643338,-0.0057041375,-0.005166418,-0.02243011,0.089092545,-0.037251867,1.0,0.5269229,-1.0,1.0,0.07128779,1.0,-1.0,-1.0,1.0,-1.0,1.0,-1.0,1.0,0.18257523,-1.0,1.0,1.0,1.0,-1.0,-0.72782314,1.0,-0.82492435,-1.0,-1.0
2025-07-21 16:00:24.453,1.2000000000000006,1200,60,-0.030558929,0.06355186,-0.2565534,0.16309665,0.046640694,0.10858026,-0.01936336,0.009545349,0.0003835954,0.0,0.0,0.0,-0.010462667,0.5,0.0,0.0,0.07102768,0.15271272,-0.05740988,0.056501288,0.06616684,0.0641479,-0.034498516,-0.1899888,0.08463121,0.011590134,0.06328307,-0.009860897,0.09793744,-0.08260683,-0.061189298,-0.032020003,0.087178655,-0.0610882,-0.01071639,-0.0026640156,0.024480157,-0.063833944,-0.14566329,-0.097333565,1.0,0.18257523,-1.0,1.0,1.0,1.0,-1.0,-0.72782314,1.0,-0.82492435,-1.0,-1.0,0.5826111,-0.19158491,-1.0,1.0,-1.0,1.0,-1.0,-1.0,1.0,-1.0,0.21477781,-1.0
2025-07-21 16:00:24.470,1.2200000000000006,1220,61,-0.18497908,0.08937264,0.09929267,0.16638221,0.21290356,0.089441925,-0.0033147251,0.009610362,0.03489711,0.0,0.0,0.0,-0.011801337,0.5,0.0,0.0,0.06793331,0.11488511,-0.070512116,0.055071566,0.055956893,0.07651759,-0.03921539,-0.2181288,0.09816593,-0.015288458,0.039998837,-0.030696178,-0.03685848,-0.05679239,-0.077677466,0.055745147,-0.10906444,0.02952048,0.049520135,-0.07029747,0.028575746,-0.096210405,0.050555088,-0.061394967,0.5826111,-0.19158491,-1.0,1.0,-1.0,1.0,-1.0,-1.0,1.0,-1.0,0.21477781,-1.0,1.0,-0.81310385,-1.0,1.0,1.0,1.0,-1.0,1.0,1.0,-0.35123312,-0.08503409,-1.0
2025-07-21 16:00:24.490,1.2400000000000007,1240,62,0.1403511,0.3652213,0.15495887,-0.013127877,0.007496768,0.017628482,-0.08338147,0.015332517,-0.04897102,0.0,0.0,0.0,-0.013204825,0.5,0.0,0.0,0.09339378,0.037779767,-0.09514177,0.06536509,0.05535823,0.07573647,-0.04722837,-0.2376559,0.101982266,-0.031749733,0.040981643,-0.06337402,0.0140345795,-0.12724988,0.039500926,0.020106286,0.09441098,-0.03593013,-0.005672262,0.0053992877,-0.070670255,-0.09484753,-0.0272593,-0.109064355,1.0,-0.81310385,-1.0,1.0,1.0,1.0,-1.0,1.0,1.0,-0.35123312,-0.08503409,-1.0,0.0412222,-1.0,1.0,1.0,-0.503142,1.0,-1.0,-0.9014144,1.0,-1.0,1.0,-1.0
2025-07-21 16:00:24.510,1.2600000000000007,1260,63,-0.3432317,0.16485916,0.39107388,0.06942928,0.12925407,0.0057001426,-0.015523711,0.032795254,0.009299068,0.0,0.0,0.0,-0.013465065,0.5,0.0,0.0,0.087662846,-0.029957093,-0.059188306,0.054330006,0.0646634,0.07362288,-0.053401683,-0.25461024,0.09276843,-0.040698223,0.0594662,-0.06998148,-0.009198052,-0.19346468,0.122184046,-0.036909264,-0.0522073,0.08315045,-0.0944945,-0.05586521,-0.01240754,-0.11614906,0.16779058,0.03521073,0.0412222,-1.0,1.0,1.0,-0.503142,1.0,-1.0,-0.9014144,1.0,-1.0,1.0,-1.0,-1.0,1.0,-1.0,0.5588396,1.0,1.0,-1.0,1.0,1.0,0.46565294,-1.0,1.0
2025-07-21 16:00:24.532,1.2800000000000007,1280,64,0.109607816,0.024971234,0.63768405,0.04541372,-0.15122695,-0.0577195,-0.09513406,0.055129394,-0.032827057,0.0,0.0,0.0,-0.013965108,0.5,0.0,0.0,0.046628658,-0.025540369,-0.07978743,0.0685802,0.070750274,0.0817931,-0.073543034,-0.23823841,0.09522154,-0.039899122,0.071917854,-0.030955791,-0.044689454,0.17475566,-0.038757227,0.014104063,0.17861897,-0.008165598,-0.033294607,0.055150956,-0.05329687,0.09766976,-0.114783674,0.10351596,-1.0,1.0,-1.0,0.5588396,1.0,1.0,-1.0,1.0,1.0,0.46565294,-1.0,1.0,-0.5706372,-1.0,1.0,0.2215544,-1.0,-1.0,-1.0,-0.61481,-1.0,1.0,-1.0,-1.0
2025-07-21 16:00:24.552,1.3000000000000007,1300,65,-0.35988122,0.17168368,0.28274044,0.22616358,-0.014473308,-0.059198886,-0.034639504,-0.014203286,-0.023691874,0.0,0.0,0.0,-0.014125987,0.5,0.0,0.0,0.023072658,-0.04914881,-0.036310486,0.054507986,0.094464555,0.058486912,-0.082450435,-0.23049898,0.05473341,0.0057903766,-0.013899679,-0.050060086,-0.03888357,-0.09560976,0.105024815,0.03550696,0.035577312,-0.120560125,0.0036515032,0.046680793,-0.052978758,0.11373022,-0.25692713,0.009599966,-0.5706372,-1.0,1.0,0.2215544,-1.0,-1.0,-1.0,-0.61481,-1.0,1.0,-1.0,-1.0,-1.0,1.0,1.0,0.21562082,1.0,-1.0,1.0,1.0,1.0,1.0,-1.0,1.0
2025-07-21 16:00:24.570,1.3200000000000007,1320,66,-0.06502809,-0.21521014,0.3099526,0.014574284,-0.39459828,-0.015477951,0.027202167,-0.012666465,-0.025302835,0.0,0.0,0.0,-0.012975711,0.5,0.0,0.0,0.009511998,-0.027475547,-0.012524284,0.04701793,0.12917188,0.007273589,-0.061549783,-0.2030583,0.053901367,0.030638956,-0.06810859,-0.013824727,-0.12768626,0.1250387,0.036169406,0.05483595,0.12764014,-0.06778905,0.11315499,0.12528268,-0.04569776,0.115846135,-0.15763769,0.11706665,-1.0,1.0,1.0,0.21562082,1.0,-1.0,1.0,1.0,1.0,1.0,-1.0,1.0,-1.0,0.5569145,1.0,-0.95621705,-1.0,-1.0,-1.0,-1.0,-1.0,1.0,-1.0,1.0
2025-07-21 16:00:24.590,1.3400000000000007,1340,67,-0.21314764,-0.06978915,0.24437179,0.33802336,-0.27997822,0.035959404,-0.011172097,0.031264666,-0.047066014,0.0,0.0,0.0,-0.012758987,0.5,0.0,0.0,-0.0331021,0.0065040523,0.0051728617,0.024384743,0.13154233,-0.010672454,-0.082485445,-0.21447644,0.034980386,0.047087573,-0.14439555,0.0077690356,-0.027320601,0.18193442,0.060031243,-0.11344506,-0.13579962,-0.07153776,-0.10525547,-0.06283238,-0.06701065,0.007036207,-0.15079106,0.053674255,-1.0,0.5569145,1.0,-0.95621705,-1.0,-1.0,-1.0,-1.0,-1.0,1.0,-1.0,1.0,-1.0,1.0,1.0,-0.890388,0.26359373,-1.0,1.0,1.0,-1.0,1.0,0.29659322,1.0
2025-07-21 16:00:24.619,1.3600000000000008,1360,68,0.28534654,0.07937829,-0.06250842,-0.163815,-0.23927535,0.056607645,0.028415559,0.06270511,-0.035968054,0.0,0.0,0.0,-0.012417662,0.5,0.0,0.0,-0.059199072,0.07652567,0.0480375,-0.009120778,0.122601174,-0.04726772,-0.04385516,-0.192875,0.003944905,0.07118788,-0.13672784,0.01805634,-0.1220967,0.14088853,0.041286755,-0.07233182,0.05413199,-0.053550035,0.10773916,0.21526435,-0.13997133,0.03469933,0.013507872,0.047376975,-1.0,1.0,1.0,-0.890388,0.26359373,-1.0,1.0,1.0,-1.0,1.0,0.29659322,1.0,-1.0,-1.0,1.0,-1.0,-1.0,-1.0,1.0,1.0,-1.0,1.0,-1.0,1.0
2025-07-21 16:00:24.636,1.3800000000000008,1380,69,-0.20910984,0.066298485,-0.16755778,-0.018770298,0.25260526,-0.05701388,-0.010849059,0.058737695,0.017532494,0.0,0.0,0.0,-0.012820422,0.5,0.0,0.0,-0.0661784,0.07538235,0.068015926,-0.035459686,0.057073884,-0.060624927,-0.00065420225,-0.102711104,-0.030418057,0.075932674,-0.14241235,0.052360777,-0.089369364,-0.025191456,0.04911555,-0.009643302,-0.2677834,-0.11506959,0.12539355,0.1956936,-0.072775126,0.06378959,0.015356561,0.12878643,-1.0,-1.0,1.0,-1.0,-1.0,-1.0,1.0,1.0,-1.0,1.0,-1.0,1.0,-1.0,-0.9729736,1.0,-1.0,1.0,-1.0,1.0,1.0,-1.0,1.0,-1.0,1.0
2025-07-21 16:00:24.655,1.4000000000000008,1400,70,0.019784793,0.0116482945,-0.26300722,0.30947712,0.22903143,0.07192728,0.022823755,0.0143382745,0.0310126,0.0,0.0,0.0,-0.01280955,0.5,0.0,0.0,-0.06590775,0.057547715,0.08296222,-0.05410377,0.040007714,-0.075407624,0.024915278,-0.012792421,-0.04565242,0.09601291,-0.185316,0.07476005,-0.058655247,-0.17139678,0.0851404,-0.08115428,0.07600714,-0.109237194,0.12690495,0.26330778,-0.039409015,-0.012778316,-0.16144572,0.04612791,-1.0,-0.9729736,1.0,-1.0,1.0,-1.0,1.0,1.0,-1.0,1.0,-1.0,1.0,-1.0,1.0,1.0,-1.0,1.0,-0.9104096,1.0,0.40439186,-1.0,1.0,1.0,1.0
2025-07-21 16:00:24.679,1.4200000000000008,1420,71,0.118660115,-0.14447851,-0.2501881,0.21587242,-0.07610832,0.15870394,0.0108435,0.11792165,0.036425386,0.0,0.0,0.0,-0.0133421905,0.5,0.0,0.0,-0.08117256,0.04504704,0.08161199,-0.077212706,0.100497834,-0.09272606,0.05032556,0.025475051,-0.062986724,0.1069837,-0.17772134,0.079249464,-0.007032316,0.037889436,0.051323768,-0.108130895,0.22630031,-0.0641846,0.11879745,0.036462016,-0.0027753615,0.009397656,0.062051997,0.045468304,-1.0,1.0,1.0,-1.0,1.0,-0.9104096,1.0,0.40439186,-1.0,1.0,1.0,1.0,-1.0,0.4466368,1.0,-0.024158418,-1.0,-1.0,1.0,0.7232274,-1.0,1.0,-1.0,1.0
2025-07-21 16:00:24.703,1.4400000000000008,1440,72,0.25651824,-0.14308542,-0.097038016,0.11988038,0.07639968,-0.08569782,0.011694448,0.08157161,0.049396243,0.0,0.0,0.0,-0.015448508,0.5,0.0,0.0,-0.09384893,0.07346611,0.0845917,-0.067114554,0.08599713,-0.09444403,0.06673943,0.07287387,-0.09256773,0.10064305,-0.1807631,0.09075684,0.009484681,0.005095466,-0.069791876,0.08495483,-0.09917141,-0.00449215,0.06823001,0.093033135,-0.026560217,-0.012492608,-0.0054801307,0.046586145,-1.0,0.4466368,1.0,-0.024158418,-1.0,-1.0,1.0,0.7232274,-1.0,1.0,-1.0,1.0,-1.0,-0.7400763,1.0,1.0,-1.0,1.0,1.0,-1.0,0.47710705,1.0,1.0,1.0
2025-07-21 16:00:24.719,1.4600000000000009,1460,73,-0.16722283,-0.08336197,0.20587383,0.061120514,0.12858006,0.07379134,0.0072974847,0.1193322,0.01654034,0.0,0.0,0.0,-0.015429364,0.5,0.0,0.0,-0.09635777,0.059321996,0.09949829,-0.035750076,0.02616859,-0.0668388,0.076187536,0.044196315,-0.06372378,0.11994317,-0.17726143,0.09702409,-0.0035713522,0.013258211,0.012776592,0.12758023,-0.20732337,0.14750057,0.05652362,-0.25349095,0.077728346,0.09523951,0.16042805,0.07899402,-1.0,-0.7400763,1.0,1.0,-1.0,1.0,1.0,-1.0,0.47710705,1.0,1.0,1.0,0.9735913,1.0,-1.0,1.0,1.0,1.0,-1.0,-1.0,1.0,0.81534445,-0.69110805,-0.28196862
2025-07-21 16:00:24.739,1.4800000000000009,1480,74,0.061839145,0.19752975,0.3427759,-0.2130905,0.18226516,-0.10852335,-0.024489824,0.1324118,-0.03065531,0.0,0.0,0.0,-0.0153963,0.5,0.0,0.0,-0.056052025,0.101229474,0.04642471,-0.019309256,0.013065831,-0.04016928,0.046143897,-0.036394127,-0.013809047,0.120126344,-0.17935777,0.06067157,0.16734853,0.18752499,-0.13041225,0.14140311,-0.013739425,0.011266582,-0.073114395,-0.13388665,0.068301335,0.05616707,-0.05341482,-0.059019815,0.9735913,1.0,-1.0,1.0,1.0,1.0,-1.0,-1.0,1.0,0.81534445,-0.69110805,-0.28196862,1.0,0.48897377,-1.0,1.0,1.0,1.0,-1.0,-1.0,1.0,-1.0,1.0,-1.0
2025-07-21 16:00:24.759,1.5000000000000009,1500,75,0.22373404,-0.00864338,0.13014984,-0.3670275,-0.0067031984,-0.016734349,0.019382367,0.06944111,0.03273514,0.0,0.0,0.0,-0.015259109,0.5,0.0,0.0,-0.023120772,0.13348342,0.020926924,0.01889776,0.051094666,-0.0014547101,0.025635105,-0.089187466,0.007213435,0.07907151,-0.12625788,0.023028245,0.13563134,-0.0067273458,-0.080537945,0.11117912,0.15632083,0.06906088,-0.015013489,-0.113922,0.016782964,-0.04171917,0.21131387,-0.108810835,1.0,0.48897377,-1.0,1.0,1.0,1.0,-1.0,-1.0,1.0,-1.0,1.0,-1.0,1.0,0.76603854,-1.0,1.0,-1.0,1.0,-1.0,-1.0,1.0,0.06582345,1.0,-1.0
2025-07-21 16:00:24.796,1.520000000000001,1520,76,0.00505775,0.06105812,-0.22322848,-0.51648283,0.09863122,-0.09134112,-0.031908307,0.04195374,0.029707462,0.0,0.0,0.0,-0.014853532,0.5,0.0,0.0,0.014743029,0.16409563,-0.020349098,0.035673544,0.06410142,0.023579251,-0.0185291,-0.15952906,0.041792665,0.06732765,-0.050498724,1.7464483e-05,0.123521514,0.08602374,0.0072586113,0.115852684,-0.059190586,0.0601111,-0.038646385,-0.08123714,0.08733089,-0.03995294,0.17853783,-0.09335218,1.0,0.76603854,-1.0,1.0,-1.0,1.0,-1.0,-1.0,1.0,0.06582345,1.0,-1.0,1.0,-0.115805626,-1.0,1.0,0.97567713,1.0,-1.0,-1.0,1.0,-0.8323957,1.0,-1.0
2025-07-21 16:00:24.838,1.540000000000001,1540,77,-0.11773465,0.2837715,-0.16264915,-0.11935243,-0.0058439635,0.12816477,-0.039619748,-0.0034913258,0.037304617,0.0,0.0,0.0,-0.014931389,0.5,0.0,0.0,0.035683606,0.13966,-0.037901685,0.0627918,0.10315197,0.04365536,-0.037717015,-0.19408658,0.04600773,0.03641053,0.042335197,-0.024381688,0.036709994,-0.08989021,-0.020432746,0.057234567,0.08573552,-0.024934353,-0.094169214,-0.087228686,0.016632702,-0.14798556,0.2551743,-0.015044956,1.0,-0.115805626,-1.0,1.0,0.97567713,1.0,-1.0,-1.0,1.0,-0.8323957,1.0,-1.0,1.0,-0.022230688,0.45153308,1.0,0.6142948,1.0,-1.0,1.0,1.0,-1.0,-1.0,-1.0
2025-07-21 16:00:24.858,1.560000000000001,1560,78,0.31895196,0.14043745,-0.17715256,-0.09901937,-0.07003956,-0.08962861,-0.09057885,-0.038813155,-0.030135203,0.0,0.0,0.0,-0.0155515205,0.5,0.0,0.0,0.0518833,0.120992,-0.016758597,0.07495253,0.13461407,0.045154713,-0.04449426,-0.18337546,0.051848195,-0.0038262059,0.036984358,-0.047927406,0.077653304,-0.044927996,-0.0041698897,0.09531919,0.020590544,0.06964063,0.007822551,0.03776592,-0.02962949,-0.15188573,-0.07113477,-0.07943949,1.0,-0.022230688,0.45153308,1.0,0.6142948,1.0,-1.0,1.0,1.0,-1.0,-1.0,-1.0,-1.0,-1.0,-1.0,1.0,-1.0,1.0,-1.0,-1.0,1.0,-1.0,0.6664986,-1.0
2025-07-21 16:00:24.878,1.580000000000001,1580,79,-0.20765866,0.01652663,0.12586138,0.20654131,0.028611926,0.13603278,-0.006658149,0.029135866,-0.008421758,0.0,0.0,0.0,-0.015428985,0.5,0.0,0.0,0.035036027,0.07528178,-0.050160915,0.06653461,0.12755355,0.06151453,-0.07249563,-0.1981478,0.07096995,-0.018083906,0.05322494,-0.06282107,-0.0036114538,-0.13815534,-0.031450644,-0.08330323,-0.1103871,0.008806293,0.0043076435,-0.004913855,-0.0049445294,-0.06545255,0.17266889,-0.107103504,-1.0,-1.0,-1.0,1.0,-1.0,1.0,-1.0,-1.0,1.0,-1.0,0.6664986,-1.0,1.0,-0.11816019,-1.0,1.0,1.0,1.0,-1.0,1.0,1.0,-1.0,-1.0,-1.0
2025-07-21 16:00:24.903,1.600000000000001,1600,80,-0.023413653,0.028012814,0.031438828,-0.010410868,0.11024653,0.019161342,-0.002295222,-0.00848083,0.046848677,0.0,0.0,0.0,-0.016329011,0.5,0.0,0.0,0.05878503,0.06179782,-0.062912844,0.065374196,0.14309953,0.082850195,-0.08084223,-0.18647714,0.07878342,-0.048504584,0.033311844,-0.08301058,0.04830418,-0.124017105,-0.112628855,0.08364658,0.12923388,0.071546614,0.017912833,0.10580485,0.0011015256,-0.022239726,-0.115326844,-0.09728759,1.0,-0.11816019,-1.0,1.0,1.0,1.0,-1.0,1.0,1.0,-1.0,-1.0,-1.0,1.0,1.0,-1.0,1.0,-1.0,1.0,-1.0,-1.0,1.0,-1.0,0.48244444,-1.0
2025-07-21 16:00:24.919,1.620000000000001,1620,81,0.22432338,-0.14407472,0.24570002,0.10023467,0.19289327,0.018003639,-0.07630591,-0.016675873,0.014237543,0.0,0.0,0.0,-0.01666459,0.5,0.0,0.0,0.06576215,0.083740085,-0.07876349,0.08798269,0.15197836,0.091016285,-0.081459254,-0.20471694,0.08237624,-0.06593635,0.025934223,-0.10162258,0.006348898,0.17070177,-0.08714159,0.040620252,-0.07652868,0.069742806,-0.08268836,-0.03699669,0.01071554,-0.09907896,0.04004597,-0.010708245,1.0,1.0,-1.0,1.0,-1.0,1.0,-1.0,-1.0,1.0,-1.0,0.48244444,-1.0,1.0,-1.0,-1.0,1.0,-1.0,1.0,-1.0,1.0,1.0,0.45711076,1.0,-0.62029016
2025-07-21 16:00:24.938,1.640000000000001,1640,82,0.031619117,0.120821975,0.007729897,0.046886563,0.2463918,-0.010300234,-0.07876112,0.0030287367,0.047591887,0.0,0.0,0.0,-0.016538009,0.5,0.0,0.0,0.08934203,0.08813148,-0.08672427,0.10059778,0.12336416,0.10682044,-0.09558039,-0.19282626,0.085585244,-0.037176877,0.09291584,-0.09236142,0.010814782,-0.09249357,-0.10029844,0.050054338,-0.08231027,0.086997114,0.001497217,0.012736389,0.05319755,0.10773591,0.14024864,-0.013431437,1.0,-1.0,-1.0,1.0,-1.0,1.0,-1.0,1.0,1.0,0.45711076,1.0,-0.62029016,0.55223346,-1.0,-1.0,1.0,1.0,1.0,-1.0,-1.0,1.0,-1.0,-1.0,-1.0
2025-07-21 16:00:24.958,1.660000000000001,1660,83,0.018457305,-0.052857265,0.13098317,0.062408198,0.28820953,-0.023246417,-0.06967251,-0.00473848,0.02037591,0.0,0.0,0.0,-0.01605459,0.5,0.0,0.0,0.08396817,0.015586656,-0.112104505,0.09384949,0.13609391,0.09715363,-0.10850374,-0.19960257,0.112421796,-0.061182387,0.090741955,-0.10530226,-0.021495948,-0.26374203,-0.07641393,-0.0083369315,0.095391154,0.06907868,-0.019883191,-0.060346257,-0.017853417,-0.07760542,-0.09376517,-0.06905905,0.55223346,-1.0,-1.0,1.0,1.0,1.0,-1.0,-1.0,1.0,-1.0,-1.0,-1.0,1.0,0.47379106,1.0,1.0,-1.0,1.0,-1.0,-0.32634172,1.0,1.0,0.3882546,-1.0
2025-07-21 16:00:24.978,1.680000000000001,1680,84,0.17950715,0.13791324,0.25369847,-0.027718173,0.08380788,-0.07587358,-0.073531814,0.0077514127,0.014767532,0.0,0.0,0.0,-0.015418565,0.5,0.0,0.0,0.09987047,-0.028980967,-0.0771469,0.12075678,0.14477383,0.10037459,-0.11546507,-0.19640301,0.115219414,-0.036540292,0.077820994,-0.113615885,3.5409255e-05,0.0434543,0.077828035,0.017627703,0.009942037,-0.027046047,0.041327395,-0.038267795,0.08520868,0.056525577,0.087096184,0.05515501,1.0,0.47379106,1.0,1.0,-1.0,1.0,-1.0,-0.32634172,1.0,1.0,0.3882546,-1.0,-1.0,-1.0,-1.0,1.0,1.0,1.0,-0.5405571,1.0,1.0,-0.7153201,-1.0,1.0
2025-07-21 16:00:25.002,1.700000000000001,1700,85,0.21432994,0.19502555,0.14801036,0.07640574,-0.20936373,-0.0038598743,-0.06363351,0.07349219,-0.0051310943,0.0,0.0,0.0,-0.014597672,0.5,0.0,0.0,0.079800114,-0.023758363,-0.07619382,0.10872561,0.16769676,0.11508667,-0.11482832,-0.15200359,0.10435134,-0.036179792,0.03361587,-0.06697602,-0.06431525,0.0155632375,-0.015411275,0.005467181,0.09861415,0.025307471,0.014094187,0.1803246,-0.067227595,-0.018473802,-0.21906854,0.045037217,-1.0,-1.0,-1.0,1.0,1.0,1.0,-0.5405571,1.0,1.0,-0.7153201,-1.0,1.0,-1.0,-0.867906,1.0,0.99156827,-1.0,1.0,-1.0,-1.0,1.0,1.0,-0.98787075,-1.0
2025-07-21 16:00:25.019,1.720000000000001,1720,86,-0.1411242,-0.073611945,0.65926236,0.19419938,-0.119283065,0.06462595,-0.077316135,0.107185006,0.046130322,0.0,0.0,0.0,-0.01366934,0.5,0.0,0.0,0.05192132,-0.060518816,-0.049652364,0.12153951,0.18242815,0.11834323,-0.11877084,-0.14638326,0.1297948,-0.0034034443,-0.04095222,-0.080333926,-0.063770905,-0.1388569,0.033978265,-0.043939486,-0.019086221,0.053488247,-0.06381702,-0.032644793,0.053406265,0.06885599,-0.19482946,0.025721597,-1.0,-0.867906,1.0,0.99156827,-1.0,1.0,-1.0,-1.0,1.0,1.0,-0.98787075,-1.0,1.0,1.0,-1.0,0.84958416,0.10145042,1.0,-1.0,1.0,1.0,-0.44382143,1.0,0.84216213
2025-07-21 16:00:25.038,1.740000000000001,1740,87,0.06175573,0.16077706,0.03637976,-0.14381571,-0.047466177,-0.084402,-0.095771514,0.03665793,0.0058474448,0.0,0.0,0.0,-0.014294347,0.5,0.0,0.0,0.06164851,-0.032673564,-0.07162265,0.11017293,0.15991193,0.1262446,-0.12189828,-0.12169984,0.1355482,-0.017361827,-0.047387555,-0.0472197,0.051787935,0.19536948,0.021832563,0.07749328,-0.017663095,0.042183463,-0.0864338,0.24619381,-0.052875556,-0.06694298,0.064183325,0.09580881,1.0,1.0,-1.0,0.84958416,0.10145042,1.0,-1.0,1.0,1.0,-0.44382143,1.0,0.84216213,0.6725674,-0.7506463,0.384454,1.0,-1.0,1.0,-1.0,-1.0,1.0,-1.0,-1.0,-1.0
2025-07-21 16:00:25.058,1.7600000000000011,1760,88,-0.16691466,0.24024644,-0.20304619,0.04658606,0.24890105,-0.09182227,-0.10685085,0.0029733418,-0.025032984,0.0,0.0,0.0,-0.0138210235,0.5,0.0,0.0,0.08308714,-0.04476325,-0.04840039,0.1271484,0.14047486,0.13200219,-0.14692356,-0.11522824,0.1429664,-0.042600498,-0.08121699,-0.06359861,-0.006292177,-0.085092336,0.055324458,0.059565138,-0.07503176,0.08122771,-0.092247054,-0.19763634,0.08118481,-0.08212095,-0.21778846,-0.10954095,0.6725674,-0.7506463,0.384454,1.0,-1.0,1.0,-1.0,-1.0,1.0,-1.0,-1.0,-1.0,-1.0,0.42156553,-0.837975,1.0,1.0,1.0,-1.0,0.15951052,1.0,0.58151746,1.0,0.0070595443
2025-07-21 16:00:25.078,1.7800000000000011,1780,89,-0.05283456,0.23108725,-0.07305375,-0.10793111,-0.2763909,0.015378449,-0.06104687,0.046897925,-0.020645062,0.0,0.0,0.0,-0.012008021,0.5,0.0,0.0,0.06094961,-0.028116163,-0.06934955,0.12726168,0.17449401,0.13664688,-0.1423626,-0.116011076,0.138608,-0.014410595,-0.06534799,-0.04607509,-0.07042887,0.14908691,-0.10576121,-0.044057313,0.13704188,-0.024035186,-0.02976189,0.1620238,0.059712216,0.06465718,0.104991704,0.037342697,-1.0,0.42156553,-0.837975,1.0,1.0,1.0,-1.0,0.15951052,1.0,0.58151746,1.0,0.0070595443,0.87842286,-1.0,-1.0,1.0,-0.8491337,1.0,-1.0,-1.0,1.0,-1.0,-0.7349604,-1.0
2025-07-21 16:00:25.103,1.8000000000000012,1800,90,-0.18557942,-0.088265054,-0.28621206,0.09445358,0.09608377,0.034331385,-0.05244363,0.07872144,-0.04171066,0.0,0.0,0.0,-0.011744192,0.5,0.0,0.0,0.06539463,-0.050970364,-0.087463476,0.13392238,0.18443498,0.12651247,-0.15164302,-0.110275894,0.13265276,-0.03319972,-0.06469475,-0.07903881,-0.009152161,-0.11742539,-0.09344188,0.033045437,-0.05295715,0.013970111,0.032729406,-0.124377586,0.07841727,-0.12717554,-0.12885879,-0.05403037,0.87842286,-1.0,-1.0,1.0,-0.8491337,1.0,-1.0,-1.0,1.0,-1.0,-0.7349604,-1.0,0.65786046,1.0,-1.0,1.0,-1.0,1.0,-1.0,0.17181578,1.0,0.8698026,1.0,-1.0
2025-07-21 16:00:25.119,1.8200000000000012,1820,91,0.16426767,0.30493855,-0.2079764,-0.0015896726,0.12261302,-0.010989228,-0.12055107,0.0072539654,-0.035987295,0.0,0.0,0.0,-0.0120524075,0.5,0.0,0.0,0.07922152,-0.06216601,-0.097073905,0.14076191,0.16973591,0.13080314,-0.15650353,-0.083236836,0.123955615,-0.016056867,-0.048420623,-0.08382356,0.04466201,0.15594755,-0.009122235,0.01654721,-0.033537682,-0.05205019,0.053824957,0.029632965,-0.082382075,0.068392895,0.18396309,-0.023468425,0.65786046,1.0,-1.0,1.0,-1.0,1.0,-1.0,0.17181578,1.0,0.8698026,1.0,-1.0,0.5003235,-1.0,1.0,1.0,-0.16873458,1.0,-1.0,-1.0,1.0,-1.0,1.0,-1.0
2025-07-21 16:00:25.139,1.8400000000000012,1840,92,-0.33692232,-0.078783154,0.16242057,0.15601213,0.15825005,0.007139585,-0.08500607,0.0124409655,0.013009216,0.0,0.0,0.0,-0.0121086575,0.5,0.0,0.0,0.06968033,-0.05383325,-0.0667936,0.12563941,0.14588304,0.13861232,-0.15270959,-0.102696806,0.14118701,-0.020596124,0.021507412,-0.106941074,0.023871694,-0.08904865,0.14564458,-0.06081778,0.00096458336,-0.028905775,0.0065113055,-0.079961695,0.090289034,-0.046820335,0.2351485,-0.046928562,0.5003235,-1.0,1.0,1.0,-0.16873458,1.0,-1.0,-1.0,1.0,-1.0,1.0,-1.0,-1.0,1.0,-1.0,0.50511324,1.0,1.0,-1.0,1.0,1.0,1.0,-1.0,1.0
2025-07-21 16:00:25.159,1.8600000000000012,1860,93,-0.1133456,0.1629278,0.058689285,-0.07852269,-0.14802507,-0.044190373,-0.10161293,0.1019466,-0.042844735,0.0,0.0,0.0,-0.011067688,0.5,0.0,0.0,0.042111702,-0.04466912,-0.080642655,0.12960789,0.17798845,0.13380247,-0.15201019,-0.08952322,0.14226311,-0.0036101288,0.026518993,-0.058084227,-0.08110648,0.17080311,-0.0021469828,0.034425337,0.1891544,-0.04312672,-0.074285604,0.23869286,-0.045434337,0.07789789,-0.14510515,0.060091827,-1.0,1.0,-1.0,0.50511324,1.0,1.0,-1.0,1.0,1.0,1.0,-1.0,1.0,-1.0,-1.0,1.0,-0.042558253,-1.0,-0.5287476,-1.0,-1.0,1.0,1.0,-1.0,1.0
2025-07-21 16:00:25.179,1.8800000000000012,1880,94,-0.26555607,-0.071614,0.085457966,0.2822696,-0.08419705,-0.07439891,-0.11928382,0.10632679,-0.020946665,0.0,0.0,0.0,-0.010439087,0.5,0.0,0.0,0.016589116,-0.042987313,-0.05930751,0.101740256,0.18383713,0.09627317,-0.16740112,-0.09862988,0.13513717,0.029011017,-0.042926773,-0.022078771,-0.016369613,-0.0020638395,0.16495413,-0.010562455,-0.06497838,-0.06316483,-0.073054336,-0.12404523,0.08316145,0.14497726,-0.13011165,0.13839993,-1.0,-1.0,1.0,-0.042558253,-1.0,-0.5287476,-1.0,-1.0,1.0,1.0,-1.0,1.0,-1.0,1.0,1.0,-0.5086803,1.0,-1.0,1.0,1.0,1.0,1.0,-1.0,1.0
2025-07-21 16:00:25.203,1.9000000000000012,1900,95,-0.32320163,-0.23451422,-0.22972687,0.07864223,-0.47831902,-0.06617189,-0.06842272,0.024234194,-0.001871028,0.0,0.0,0.0,-0.0087852115,0.5,0.0,0.0,-0.008198065,-0.03784831,-0.01574255,0.07938066,0.23507152,0.054866176,-0.11605314,-0.083928496,0.14834404,0.04920887,-0.10083857,0.01850293,-0.02720423,0.052950602,0.081108615,-0.008737869,0.08303692,-0.060187872,0.15445037,0.19863869,0.06578141,0.004229341,-0.20501259,0.12735112,-1.0,1.0,1.0,-0.5086803,1.0,-1.0,1.0,1.0,1.0,1.0,-1.0,1.0,-1.0,1.0,1.0,-0.19947714,-0.34477353,-0.93804914,-1.0,-1.0,-1.0,1.0,0.8951126,1.0
2025-07-21 16:00:25.219,1.9200000000000013,1920,96,-0.24253535,-0.16261518,-0.17326719,0.14230631,-0.61766905,-0.13603963,-0.008618901,0.081220955,-0.011049456,0.0,0.0,0.0,-0.007215147,0.5,0.0,0.0,-0.032814417,0.023697078,0.0015838854,0.048964545,0.25131673,0.029435882,-0.12715472,-0.07094754,0.09264672,0.07802719,-0.094112195,0.042252526,-0.006814535,0.15997483,0.131302,-0.1137579,0.08016577,-0.107499845,-0.0107176,-0.099083275,-0.08222989,0.09325362,0.16564316,0.12062717,-1.0,1.0,1.0,-0.19947714,-0.34477353,-0.93804914,-1.0,-1.0,-1.0,1.0,0.8951126,1.0,-1.0,-1.0,1.0,-1.0,0.6700318,-1.0,1.0,1.0,-0.99734664,1.0,-1.0,1.0
2025-07-21 16:00:25.239,1.9400000000000013,1940,97,-0.47981113,0.09435485,-0.11401981,0.0023576037,-0.19432327,-0.16247629,0.009172966,0.099339515,0.025248945,0.0,0.0,0.0,-0.0035917922,0.5,0.0,0.0,-0.04344818,0.06789218,0.030892955,0.02349371,0.25486168,0.0011047622,-0.083868966,-0.053348124,0.052963473,0.0860153,-0.09706238,0.058544155,0.046666436,-0.04817883,0.04596014,-0.12186506,0.058712613,-0.088890694,0.068452954,0.08647401,-0.15352234,-0.04191486,-0.08409153,0.02950776,-1.0,-1.0,1.0,-1.0,0.6700318,-1.0,1.0,1.0,-0.99734664,1.0,-1.0,1.0,-1.0,0.28824955,1.0,-1.0,-0.48741475,-1.0,1.0,1.0,0.92550945,1.0,1.0,1.0
2025-07-21 16:00:25.259,1.9600000000000013,1960,98,-0.15632959,0.11572596,-0.21678321,-0.061693724,-0.25852343,-0.11771007,0.013341334,0.03688856,0.03976463,0.0,0.0,0.0,0.00048543737,0.5,0.0,0.0,-0.054474775,0.07814035,0.049256366,-0.023238802,0.20627233,-0.017895175,-0.048997678,0.0125278,0.06501897,0.07745012,-0.06381348,0.06194706,0.028732756,0.067445956,0.04851933,-0.13993517,-0.2031017,0.010499215,0.0760423,0.19227542,-0.02730806,-0.018222122,0.13912001,0.02103297,-1.0,0.28824955,1.0,-1.0,-0.48741475,-1.0,1.0,1.0,0.92550945,1.0,1.0,1.0,-1.0,-1.0,1.0,0.25050968,-1.0,-1.0,-1.0,-1.0,-0.13860679,1.0,-1.0,1.0
2025-07-21 16:00:25.279,1.9800000000000013,1980,99,-0.7328803,-0.13240622,0.030903535,0.12577336,0.28453028,-0.0689628,0.05017849,0.07984309,-0.030573854,0.0,0.0,0.0,0.0032702729,0.5,0.0,0.0,-0.07059377,0.043739803,0.062692136,-0.007929426,0.1281865,-0.04967726,-0.04538229,0.020793773,0.056808542,0.08995467,-0.092817955,0.066044345,0.042350933,-0.13028094,-0.034071025,-0.01911777,-0.19137377,-0.011552049,-0.0757449,-0.11339757,-0.043281574,-0.030461345,-0.1282853,0.05182825,-1.0,-1.0,1.0,0.25050968,-1.0,-1.0,-1.0,-1.0,-0.13860679,1.0,-1.0,1.0,-1.0,1.0,1.0,-0.56675535,1.0,-1.0,0.7142344,1.0,-1.0,1.0,0.20664506,1.0
2025-07-21 16:00:25.302,2.0000000000000013,2000,100,-0.21970502,-0.12804377,-0.25219998,-0.053066876,-0.20343049,0.02124102,0.01467187,0.09737903,-0.0010947329,0.0,0.0,0.0,0.0050513144,0.5,0.0,0.0,-0.08211872,0.062419087,0.078643724,-0.017484697,0.118415445,-0.06580307,-0.025095742,0.039960347,0.012312973,0.093023956,-0.0738409,0.074662104,-0.0112209795,0.100726105,-0.05009144,-0.083339535,0.09758865,-0.04606482,0.019903166,0.21373475,-0.03589076,0.021602806,-0.0013122797,0.05859201,-1.0,1.0,1.0,-0.56675535,1.0,-1.0,0.7142344,1.0,-1.0,1.0,0.20664506,1.0,-1.0,1.0,1.0,-1.0,-1.0,-1.0,1.0,0.30364892,0.9278562,1.0,-1.0,1.0
2025-07-21 16:00:25.319,2.0200000000000014,2020,101,-0.19572388,-0.17663993,-0.032663226,-0.103556566,0.07233458,-0.120802216,0.05356116,0.016826283,0.046018418,0.0,0.0,0.0,0.0053917053,0.5,0.0,0.0,-0.082373664,0.1049059,0.07869515,-0.05042838,0.10803568,-0.07423564,-0.0049840114,0.049668193,0.02879495,0.10169455,-0.08301917,0.08868172,0.023847956,0.16509622,-0.015962055,0.0015188607,-0.22317803,-0.01833877,0.14135775,-0.031013412,0.015271212,0.051024795,-0.054529093,-0.030980734,-1.0,1.0,1.0,-1.0,-1.0,-1.0,1.0,0.30364892,0.9278562,1.0,-1.0,1.0,-1.0,-1.0,1.0,0.072781384,-1.0,-1.0,-0.997094,-1.0,-0.90478086,1.0,0.66863745,1.0
2025-07-21 16:00:25.339,2.0400000000000014,2040,102,-0.0755859,0.08555531,0.2818761,0.17270505,-0.022074565,0.014027968,0.015249293,0.042284787,-0.04325866,0.0,0.0,0.0,0.0065687303,0.5,0.0,0.0,-0.098129936,0.112128854,0.08129112,-0.045910697,0.027199509,-0.0999475,-0.022871872,0.009849756,0.016902164,0.10203223,-0.07476572,0.10044885,0.00014132212,-0.045163892,0.1089909,-0.0040549017,-0.19892365,0.045585345,-0.08608928,-0.27207083,-0.005889306,-0.011551045,0.13127507,0.04651239,-1.0,-1.0,1.0,0.072781384,-1.0,-1.0,-0.997094,-1.0,-0.90478086,1.0,0.66863745,1.0,-1.0,-0.814554,1.0,-1.0,1.0,-1.0,1.0,1.0,-1.0,1.0,-1.0,1.0
2025-07-21 16:00:25.359,2.0600000000000014,2060,103,-0.24366708,0.10102175,0.28731626,0.1825687,0.17668623,0.10051139,0.047053475,0.10788098,0.006688869,0.0,0.0,0.0,0.0076682162,0.5,0.0,0.0,-0.10540141,0.09536651,0.1074312,-0.05171888,-0.0017138091,-0.10975421,0.0060177124,0.005355679,-0.028661737,0.119299576,-0.062263515,0.09964803,-0.05961689,-0.07558091,0.037596866,-0.05193509,0.108328715,-0.048955932,0.07244966,0.07791122,-0.066296004,-0.056580335,0.025171742,0.013109394,-1.0,-0.814554,1.0,-1.0,1.0,-1.0,1.0,1.0,-1.0,1.0,-1.0,1.0,-1.0,1.0,1.0,-1.0,-0.49156454,-1.0,1.0,1.0,0.041920185,1.0,-0.11069168,1.0
2025-07-21 16:00:25.379,2.0800000000000014,2080,104,-0.1261245,0.12356062,0.10935304,0.035394162,-0.027973825,-0.03774413,0.028382886,0.063503966,-0.020114865,0.0,0.0,0.0,0.0064943195,0.5,0.0,0.0,-0.09908627,0.1045105,0.09378802,-0.086132646,-0.01636626,-0.11737287,0.03202576,0.06711215,-0.026161604,0.11051224,-0.065767534,0.1028003,-0.01027032,0.057971444,-0.038233135,-0.02144338,-0.051833287,-0.033324737,0.06269198,0.11182797,0.079077624,-0.028145853,0.029336486,0.0094364965,-1.0,1.0,1.0,-1.0,-0.49156454,-1.0,1.0,1.0,0.041920185,1.0,-0.11069168,1.0,-1.0,-1.0,1.0,-1.0,-0.4414715,-1.0,1.0,-0.4421539,0.040698647,1.0,-0.92404157,1.0
2025-07-21 16:00:25.403,2.1000000000000014,2100,105,-0.13990042,-0.19862282,0.027234562,0.23508354,0.20062132,0.051310282,0.0391428,0.13152897,0.025873065,0.0,0.0,0.0,0.0061898693,0.5,0.0,0.0,-0.121711,0.096903056,0.104370035,-0.0848299,-0.04524452,-0.1258467,0.05613948,0.050890982,-0.0038777047,0.121048674,-0.083736844,0.11700483,0.038363308,-0.05870188,-0.007707937,-0.06282645,-0.07900044,-0.0014558638,-0.000733737,-0.15393692,-0.0017025466,0.01618071,-0.10753938,0.023577059,-1.0,-1.0,1.0,-1.0,-0.4414715,-1.0,1.0,-0.4421539,0.040698647,1.0,-0.92404157,1.0,-1.0,1.0,1.0,-0.87386274,0.27590248,0.044171393,0.52615887,1.0,-1.0,1.0,-0.6803716,1.0
2025-07-21 16:00:25.420,2.1200000000000014,2120,106,-0.04863407,-0.097013794,-0.15537544,0.13007641,0.048621282,-0.04837857,0.027033875,0.07534355,-0.020815425,0.0,0.0,0.0,0.005741866,0.5,0.0,0.0,-0.114776984,0.1180936,0.106549315,-0.107166044,-0.028241007,-0.10181872,0.06659282,0.07694043,-0.039190043,0.12123437,-0.11399157,0.120944254,-0.013029408,0.08940912,0.047346033,0.020065842,0.01677529,0.09328813,0.05197213,0.13502608,-0.120014116,0.008839976,-0.12284834,0.06551392,-1.0,1.0,1.0,-0.87386274,0.27590248,0.044171393,0.52615887,1.0,-1.0,1.0,-0.6803716,1.0,-1.0,-1.0,1.0,1.0,-0.73488986,0.51840144,1.0,-1.0,-1.0,1.0,1.0,1.0
2025-07-21 16:00:25.440,2.1400000000000015,2140,107,-0.24000126,-0.3451784,0.42119086,-0.08588367,0.13497518,0.01316723,0.0034224577,0.129665,0.049198378,0.0,0.0,0.0,0.006067636,0.5,0.0,0.0,-0.11054115,0.122274555,0.118174545,-0.09338446,-0.027353615,-0.07815796,0.08168406,0.07675763,-0.05980409,0.13675112,-0.09875672,0.13311385,0.04442083,0.030792704,-0.010865546,0.1038183,-0.103223525,0.026067859,0.026044406,-0.15509884,-0.118819974,0.056413528,0.10771189,0.0022182707,-1.0,-1.0,1.0,1.0,-0.73488986,0.51840144,1.0,-1.0,-1.0,1.0,1.0,1.0,-1.0,1.0,-1.0,0.28010064,1.0,1.0,-1.0,-0.37575516,1.0,1.0,-0.6809549,1.0
2025-07-21 16:00:25.460,2.1600000000000015,2160,108,0.08832573,-0.08005799,0.09278317,-0.09387274,0.07251368,-0.059188947,0.008822955,0.13332388,-0.0014209499,0.0,0.0,0.0,0.006492627,0.5,0.0,0.0,-0.11733575,0.16869795,0.061983626,-0.06357822,-0.028388353,-0.05047134,0.044755913,0.044768076,-0.024193903,0.14870681,-0.09852657,0.122423194,0.05218764,0.12556776,-0.09834365,0.049789134,0.09851083,0.019599289,-0.086038046,-0.097597115,0.12228468,-0.053996604,-0.101764165,-0.0016093267,-1.0,1.0,-1.0,0.28010064,1.0,1.0,-1.0,-0.37575516,1.0,1.0,-0.6809549,1.0,1.0,0.013930079,-1.0,1.0,-1.0,1.0,-1.0,-1.0,1.0,-0.24725251,1.0,1.0
2025-07-21 16:00:25.481,2.1800000000000015,2180,109,-0.34117115,-0.06602483,0.030102523,-0.29074696,0.22429197,-0.14581336,0.003477039,0.1149443,0.0032622186,0.0,0.0,0.0,0.0068773734,0.5,0.0,0.0,-0.08311809,0.17109415,0.038620725,-0.032761548,-0.04581326,-0.01786984,0.0021819503,-0.041722473,0.0021432939,0.1174568,-0.07303252,0.13702014,0.15255085,0.023626933,-0.0517579,0.083274364,-0.12755165,0.12466504,-0.12542671,-0.16732992,0.123003006,0.0003261579,0.19449824,-0.05093634,1.0,0.013930079,-1.0,1.0,-1.0,1.0,-1.0,-1.0,1.0,-0.24725251,1.0,1.0,1.0,-0.07341969,-1.0,0.9063826,1.0,1.0,-1.0,-0.68493205,1.0,1.0,0.40721294,1.0
2025-07-21 16:00:25.503,2.2000000000000015,2200,110,-0.119870916,-0.04189277,-0.14415592,-0.38027564,0.17781328,-0.014119986,-0.05435375,0.030871375,0.044604387,0.0,0.0,0.0,0.00811978,0.5,0.0,0.0,-0.039925642,0.17086127,-0.0018590009,0.0011587336,-0.042783216,0.0127579365,-0.020007992,-0.08423753,0.03342359,0.12558252,-0.016434845,0.14451694,0.16639276,0.015744604,-0.114417024,0.0045164493,0.08775116,0.034761325,-0.031056989,-0.13088225,0.08242614,0.08156086,0.15459138,-0.036596693,1.0,-0.07341969,-1.0,0.9063826,1.0,1.0,-1.0,-0.68493205,1.0,1.0,0.40721294,1.0,1.0,-0.26172245,-1.0,1.0,1.0,1.0,-1.0,-1.0,1.0,1.0,-0.5339939,1.0
2025-07-21 16:00:25.520,2.2200000000000015,2220,111,-0.2626187,0.043026052,-0.06382277,-0.45907015,0.1510825,0.084244154,-0.033400644,0.026660336,0.009859354,0.0,0.0,0.0,0.008169467,0.5,0.0,0.0,0.0011732252,0.14434142,-0.024271118,0.021326615,0.016012972,0.018309694,-0.03950379,-0.13703415,0.06342062,0.13675714,-0.045020398,0.15142983,0.12258462,-0.012890266,0.014927468,0.062084287,0.16699085,0.0022170504,-0.030190941,-0.17352106,0.035053,0.0033585145,-0.022149919,0.03611676,1.0,-0.26172245,-1.0,1.0,1.0,1.0,-1.0,-1.0,1.0,1.0,-0.5339939,1.0,1.0,0.0131661855,-1.0,1.0,-1.0,1.0,-1.0,1.0,1.0,0.91739404,1.0,-0.9926777
2025-07-21 16:00:25.540,2.2400000000000015,2240,112,-0.45046023,0.15337932,-0.38192245,-0.5380626,-0.12660101,0.13941176,-0.09305557,-0.0048808693,0.029330445,0.0,0.0,0.0,0.005893048,0.5,0.0,0.0,0.030579172,0.117045075,-0.042057343,0.049090263,0.037385486,0.04898493,-0.06448783,-0.12695357,0.073773675,0.14389129,-0.014508194,0.08864675,0.11694513,0.013325612,-0.032536373,0.009743239,0.04204357,-0.0113634,-0.0428145,0.14744163,0.07859189,-0.06803736,0.11447385,-0.12413518,1.0,0.0131661855,-1.0,1.0,-1.0,1.0,-1.0,1.0,1.0,0.91739404,1.0,-0.9926777,1.0,1.0,-1.0,1.0,1.0,1.0,-1.0,-1.0,1.0,-1.0,0.3368316,-1.0
2025-07-21 16:00:25.560,2.2600000000000016,2260,113,-0.4298749,0.13493283,-0.30223206,-0.09323173,-0.14590421,0.09267499,-0.056597423,-0.0030263069,0.024786813,0.0,0.0,0.0,0.0027553726,0.5,0.0,0.0,0.05310044,0.146807,-0.07016039,0.056802668,0.06917229,0.05479416,-0.08200512,-0.12409311,0.08556807,0.098388106,0.014966492,0.045551505,-0.006900824,0.14646642,-0.020907983,0.058004543,0.07682495,0.003496989,0.043639947,-0.050203778,0.010931453,-0.11693279,-0.009467929,-0.11174483,1.0,1.0,-1.0,1.0,1.0,1.0,-1.0,-1.0,1.0,-1.0,0.3368316,-1.0,1.0,-1.0,-1.0,1.0,1.0,1.0,-1.0,0.08742109,1.0,-1.0,0.48342112,-1.0
2025-07-21 16:00:25.585,2.2800000000000016,2280,114,-0.19647564,0.086144865,-0.23390083,-0.04472106,-0.27414596,0.06521708,-0.07184509,-0.029066226,0.019242255,0.0,0.0,0.0,0.00035653275,0.5,0.0,0.0,0.06438127,0.14199558,-0.08754428,0.07064989,0.103727266,0.06688774,-0.07467533,-0.09842766,0.08309442,0.04028039,0.046082348,0.014474227,0.026767261,-0.14917924,-0.02007754,0.09416139,0.1358385,-0.03510674,-0.050204027,0.110617556,-0.0014196228,-0.13986294,0.051810134,-0.1515758,1.0,-1.0,-1.0,1.0,1.0,1.0,-1.0,0.08742109,1.0,-1.0,0.48342112,-1.0,1.0,1.0,-1.0,1.0,-1.0,1.0,-1.0,-1.0,1.0,-1.0,-0.4899154,-1.0
2025-07-21 16:00:25.603,2.3000000000000016,2300,115,-0.104973026,0.088750854,-0.11614013,-0.00599501,0.115952596,0.041082297,-0.12672825,-0.016775964,-0.03498094,0.0,0.0,0.0,-0.002109871,0.5,0.0,0.0,0.08284288,0.14012446,-0.086965494,0.06810559,0.12963332,0.08451865,-0.082237095,-0.096597664,0.09167627,0.011813621,0.02041102,-0.022565272,0.011994626,0.07070073,-0.07089811,0.06896384,-0.055827383,-0.011332339,-0.0022130448,-0.08009328,-0.019109745,-0.096659064,-0.12303106,-0.12901744,1.0,1.0,-1.0,1.0,-1.0,1.0,-1.0,-1.0,1.0,-1.0,-0.4899154,-1.0,1.0,-1.0,-1.0,1.0,-0.9420664,1.0,-1.0,0.20783666,1.0,-1.0,1.0,-1.0
2025-07-21 16:00:25.621,2.3200000000000016,2320,116,-0.08039107,0.21385163,0.07467245,-0.06326511,0.031480044,-0.08600719,-0.09512071,-0.01166047,-0.015613659,0.0,0.0,0.0,-0.0033463673,0.5,0.0,0.0,0.110176556,0.117001854,-0.09777729,0.07815756,0.11399973,0.08594236,-0.10220329,-0.09958737,0.104297146,-0.013217815,0.035876103,-0.042427063,-0.018333774,-0.13131446,-0.08149511,0.013150333,-0.024186045,0.09862388,0.026339367,0.12163754,0.06862848,-0.045193575,0.15442505,-0.079724446,1.0,-1.0,-1.0,1.0,-0.9420664,1.0,-1.0,0.20783666,1.0,-1.0,1.0,-1.0,1.0,-1.0,-1.0,1.0,1.0,1.0,-1.0,-1.0,1.0,-0.18470158,0.6419158,-1.0
2025-07-21 16:00:25.640,2.3400000000000016,2340,117,0.10473401,-0.13082266,0.16026333,0.10601983,0.11267234,0.09937423,-0.08389244,-0.04232448,0.041681014,0.0,0.0,0.0,-0.0029233035,0.5,0.0,0.0,0.10817374,0.043065477,-0.10985042,0.083496764,0.14065513,0.08803925,-0.10416528,-0.09086638,0.10211213,-0.015722852,0.08449738,-0.061392,0.0597961,-0.2904752,0.0034461936,0.03546812,0.074374914,0.030192992,-0.0019298459,-0.02539388,0.06813333,0.0035517844,0.0271624,-0.045785747,1.0,-1.0,-1.0,1.0,1.0,1.0,-1.0,-1.0,1.0,-0.18470158,0.6419158,-1.0,1.0,0.58929205,1.0,1.0,-1.0,1.0,-1.0,-0.7579191,1.0,1.0,-1.0,-1.0
2025-07-21 16:00:25.661,2.3600000000000017,2360,118,0.036286764,0.28926933,0.029333824,0.111943364,0.35041052,-0.027265003,-0.15433851,-0.027058542,0.0047815894,0.0,0.0,0.0,-0.0030604457,0.5,0.0,0.0,0.12545876,0.009638613,-0.061725825,0.10291846,0.12325921,0.10223924,-0.108109966,-0.14261192,0.120956086,0.014715844,0.04681776,-0.0812825,-0.035350394,0.01149342,0.13475055,-0.030108802,-0.09273143,0.014959029,0.03156506,-0.1389381,-0.009581293,0.044578448,-0.17749351,-0.06985825,1.0,0.58929205,1.0,1.0,-1.0,1.0,-1.0,-0.7579191,1.0,1.0,-1.0,-1.0,-1.0,-1.0,0.9518826,1.0,1.0,1.0,-1.0,0.5346234,1.0,-1.0,0.63012344,-1.0
2025-07-21 16:00:25.686,2.3800000000000017,2380,119,-0.15167351,-0.07581972,0.029618463,0.1698309,-0.2586294,0.08533376,-0.049548335,-0.006817729,0.031929992,0.0,0.0,0.0,-0.0026882582,0.5,0.0,0.0,0.08944709,0.012571727,-0.03135441,0.08872329,0.14964661,0.099990636,-0.109762944,-0.109812714,0.112184696,-0.00990345,0.045228798,-0.089031264,-0.062101044,-0.047388185,0.16104248,-0.024617525,0.102334194,-0.044906776,-0.036940154,0.1842209,-0.037907466,-0.060681347,0.041516505,-0.09672784,-1.0,-1.0,0.9518826,1.0,1.0,1.0,-1.0,0.5346234,1.0,-1.0,0.63012344,-1.0,-0.7198845,1.0,-1.0,1.0,-0.9120873,1.0,-1.0,-1.0,1.0,0.4185294,-1.0,1.0
2025-07-21 16:00:25.703,2.4000000000000017,2400,120,0.052045945,0.25974205,0.31325594,0.1605094,0.13882281,0.018396765,-0.05589082,0.056106184,0.03618304,0.0,0.0,0.0,-0.0025159742,0.5,0.0,0.0,0.06134562,0.04178193,-0.061432797,0.097869545,0.16043516,0.1065641,-0.12985303,-0.11837714,0.12148366,-0.003594662,0.010677218,-0.05790128,-0.08815929,0.07184025,-0.031349786,-0.07028532,-0.09453383,0.070871286,0.012906466,0.013064151,-0.020537652,0.06769905,-0.19230767,0.058707707,-0.7198845,1.0,-1.0,1.0,-0.9120873,1.0,-1.0,-1.0,1.0,0.4185294,-1.0,1.0,-0.33695784,-0.9003636,0.29377568,1.0,-0.84902,1.0,-1.0,-1.0,1.0,-0.6626375,0.68022895,-1.0
2025-07-21 16:00:25.721,2.4200000000000017,2420,121,-0.14862393,-0.13756634,0.13172965,0.08964937,0.19808865,0.049716625,-0.08533954,0.00091064424,-0.046439726,0.0,0.0,0.0,-0.0032466045,0.5,0.0,0.0,0.04049606,0.042388313,-0.042183034,0.09929112,0.1365726,0.12483852,-0.13154481,-0.14971824,0.12746449,-0.0050915824,0.009267907,-0.0627077,-0.08228882,-0.001168413,0.00741803,0.04608884,-0.09306589,0.008744254,0.0456292,-0.15589409,0.024235973,0.036847237,0.15975204,-0.03210404,-0.33695784,-0.9003636,0.29377568,1.0,-0.84902,1.0,-1.0,-1.0,1.0,-0.6626375,0.68022895,-1.0,0.22903763,1.0,-1.0,0.66494584,1.0,1.0,-1.0,1.0,1.0,1.0,-1.0,0.26405463
2025-07-21 16:00:25.741,2.4400000000000017,2440,122,-0.051677763,0.038734112,0.22261867,-0.05480713,0.090976775,-0.13440643,-0.12239529,0.023892714,-0.021117833,0.0,0.0,0.0,-0.002415248,0.5,0.0,0.0,0.041979175,0.055530477,-0.06945437,0.09624703,0.14218257,0.11852298,-0.13507053,-0.14731544,0.13049443,0.005272743,-0.021087736,-0.045118287,-0.06133549,0.14993778,0.010396268,-0.07366564,0.07073212,0.03938306,-0.023164878,0.123464994,-0.0018302713,0.04659693,-0.19955976,-0.0059844283,0.22903763,1.0,-1.0,0.66494584,1.0,1.0,-1.0,1.0,1.0,1.0,-1.0,0.26405463,0.5513077,-1.0,-0.5386393,1.0,-1.0,1.0,-1.0,-1.0,1.0,1.0,1.0,-0.25037298
2025-07-21 16:00:25.761,2.4600000000000017,2460,123,-0.4183597,0.083668314,0.3478068,0.054074228,0.15846567,-0.03188502,-0.12544371,0.025343496,0.041330293,0.0,0.0,0.0,-0.0015625957,0.5,0.0,0.0,0.057310157,0.075832434,-0.07680558,0.119220026,0.16410471,0.13101229,-0.13787052,-0.13718754,0.12648289,0.043667484,-0.025981361,-0.041155666,0.036600854,-0.03852071,-0.064084224,0.03160382,-0.10788289,0.074030034,0.037366744,-0.047165673,0.048359305,0.09556709,0.1262976,0.064998224,0.5513077,-1.0,-0.5386393,1.0,-1.0,1.0,-1.0,-1.0,1.0,1.0,1.0,-0.25037298,1.0,-0.9666289,-1.0,1.0,1.0,1.0,-1.0,0.8315338,1.0,-0.9418467,-0.9592797,0.70331407
2025-07-21 16:00:25.786,2.4800000000000018,2480,124,0.0063724695,0.09361866,0.0054904018,-0.06606628,0.12526283,-0.068724565,-0.13801979,0.010342578,0.01743335,0.0,0.0,0.0,-0.0004372446,0.5,0.0,0.0,0.07987731,0.028818823,-0.077893786,0.12612402,0.17987776,0.120096676,-0.14395393,-0.12065665,0.14309508,0.010787431,-0.033430878,-0.024702718,-0.00083464134,-0.24473497,-0.002332561,-0.046390325,0.139108,-0.024530688,-0.052033126,0.14525309,0.028335603,-0.09709356,-0.16900934,0.10689652,1.0,-0.9666289,-1.0,1.0,1.0,1.0,-1.0,0.8315338,1.0,-0.9418467,-0.9592797,0.70331407,-0.35421064,1.0,1.0,1.0,-1.0,1.0,-1.0,-1.0,1.0,1.0,1.0,-1.0
2025-07-21 16:00:25.803,2.5000000000000018,2500,125,0.0006330408,-0.13724922,0.039755758,0.043953434,-0.32272637,-0.10314207,-0.16070385,0.022503294,-0.008694878,0.0,0.0,0.0,0.0006611383,0.5,0.0,0.0,0.065455675,-0.0047050635,-0.058488876,0.1235199,0.19593033,0.14410573,-0.15747836,-0.104771376,0.149216,0.031695526,-0.01831511,-0.035855286,0.0047887494,-0.010498849,0.027732037,-0.07684431,-0.02514946,0.0742286,-0.034760743,-0.11486642,-0.057366975,-0.00072049757,0.18340182,-0.071597956,-0.35421064,1.0,1.0,1.0,-1.0,1.0,-1.0,-1.0,1.0,1.0,1.0,-1.0,-1.0,1.0,-1.0,-0.8342183,-0.17844728,1.0,0.81904286,0.1861774,1.0,-0.17699192,-1.0,0.885378
2025-07-21 16:00:25.821,2.520000000000002,2520,126,-0.3095074,0.09043109,-0.12654257,0.105654776,-0.35080695,-0.17904471,-0.11869254,0.081943005,-0.048624754,0.0,0.0,0.0,0.0019357625,0.5,0.0,0.0,0.03250717,0.041968983,-0.07679322,0.09124295,0.19847189,0.13061419,-0.12145258,-0.08570039,0.13549632,0.016170068,-0.028501779,-0.0022374871,-0.13527508,0.120878786,-0.012006013,-0.08929807,-0.004875517,0.013691678,0.15037575,0.109412536,0.06593926,-0.005964952,-0.07268791,0.0068191816,-1.0,1.0,-1.0,-0.8342183,-0.17844728,1.0,0.81904286,0.1861774,1.0,-0.17699192,-1.0,0.885378,-1.0,-1.0,1.0,1.0,-1.0,1.0,-1.0,-1.0,1.0,1.0,1.0,1.0
2025-07-21 16:00:25.841,2.540000000000002,2540,127,-0.51805216,0.14157407,-0.027586192,0.053845912,0.016705751,-0.06531777,-0.029178986,0.059684422,-0.013166163,0.0,0.0,0.0,0.004207414,0.5,0.0,0.0,-0.0077654663,0.0444903,-0.043176223,0.07072155,0.20494457,0.1484004,-0.11606004,-0.108856045,0.14118345,0.042546477,-0.045526132,0.01501831,-0.006947429,-0.03373276,0.044621754,-0.035409514,0.029540004,-0.027096797,-0.043485034,0.0065084784,-0.051526867,0.006247144,0.16237879,0.0629549,-1.0,-1.0,1.0,1.0,-1.0,1.0,-1.0,-1.0,1.0,1.0,1.0,1.0,-0.55218387,1.0,-0.86370075,0.7084481,1.0,1.0,-1.0,-0.7839329,1.0,1.0,-0.48695895,1.0
2025-07-21 16:00:25.861,2.560000000000002,2560,128,-0.33518595,-0.03258504,-0.21194857,0.08950666,0.03560525,-0.09008813,-0.04130852,0.015261119,0.0029007543,0.0,0.0,0.0,0.0069116484,0.5,0.0,0.0,-0.006045905,0.055161208,-0.05340207,0.089984536,0.20762296,0.1312381,-0.116608694,-0.12410287,0.15892507,0.06188811,-0.046511408,0.034192722,-0.077346854,0.16843903,-0.13019177,0.0003549209,0.11161767,-0.00967034,-0.015346451,-0.06585618,-0.008457107,0.0482979,-0.026251644,0.04995905,-0.55218387,1.0,-0.86370075,0.7084481,1.0,1.0,-1.0,-0.7839329,1.0,1.0,-0.48695895,1.0,-0.32513502,-1.0,-0.88154674,-0.08459979,-1.0,1.0,-1.0,0.16305855,1.0,1.0,1.0,1.0
2025-07-21 16:00:25.881,2.580000000000002,2580,129,-0.2503359,-0.07679494,-0.3170763,0.13768762,-0.0901011,-0.04320381,-0.11615541,0.07458214,0.0066009425,0.0,0.0,0.0,0.008372277,0.5,0.0,0.0,-0.024465133,0.067299575,-0.081030816,0.058642037,0.20519581,0.14013204,-0.1424124,-0.11336569,0.14112976,0.08151255,-0.028361497,0.06692806,-0.031287078,-0.059756145,-0.0077492576,-0.02368755,-0.06330328,-0.021755219,-0.052825466,0.13650022,0.020009818,0.022249607,0.1695046,0.006927883,-0.32513502,-1.0,-0.88154674,-0.08459979,-1.0,1.0,-1.0,0.16305855,1.0,1.0,1.0,1.0,1.0,-0.3668887,-1.0,1.0,0.08921788,1.0,-1.0,-1.0,1.0,-0.068780765,-0.5530762,0.17268988
2025-07-21 16:00:25.902,2.600000000000002,2600,130,-0.25093958,-0.16147895,-0.35924223,0.03831925,0.26867923,-0.094254404,-0.109499164,0.06644699,-0.0061018663,0.0,0.0,0.0,0.009545392,0.5,0.0,0.0,0.016070226,0.035496745,-0.088309914,0.07986592,0.17410915,0.13755815,-0.13565893,-0.12067897,0.14790298,0.0757042,-0.017808244,0.056634605,0.091182664,-0.055563733,0.021646623,-0.004485256,-0.06952268,-0.065669894,-0.017301023,-0.06161703,0.0058077676,0.027942495,-0.11533381,-0.019489063,1.0,-0.3668887,-1.0,1.0,0.08921788,1.0,-1.0,-1.0,1.0,-0.068780765,-0.5530762,0.17268988,1.0,-0.40088174,-1.0,1.0,-1.0,1.0,-1.0,-1.0,1.0,0.05804886,1.0,0.075621456
2025-07-21 16:00:25.923,2.620000000000002,2620,131,-0.5428816,0.037895154,0.011621458,0.007264422,0.2339735,-0.019320207,-0.06844983,0.03996932,0.031173173,0.0,0.0,0.0,0.01144299,0.5,0.0,0.0,0.026442982,0.014684526,-0.108973965,0.07960575,0.1415324,0.15317255,-0.13254341,-0.16493168,0.15932298,0.07560988,-0.004458325,0.041883618,-0.014505199,-0.065176815,-0.083920985,0.015534813,-0.12831748,-0.04642211,-0.03541391,-0.18837987,-0.058748282,0.024460042,0.10691272,-0.062533624,1.0,-0.40088174,-1.0,1.0,-1.0,1.0,-1.0,-1.0,1.0,0.05804886,1.0,0.075621456,1.0,-1.0,-1.0,1.0,1.0,1.0,-1.0,1.0,1.0,-1.0,0.08661215,-1.0
2025-07-21 16:00:25.943,2.640000000000002,2640,132,-0.6513472,-0.2570908,0.03370224,-0.025493145,0.092598155,-0.050288912,-0.10669745,0.06456325,-0.03617999,0.0,0.0,0.0,0.012532693,0.5,0.0,0.0,0.052779768,-0.036377493,-0.104119144,0.0903589,0.15267308,0.13409923,-0.14666332,-0.16103709,0.13882686,0.033033606,-0.0026567837,0.006561705,-0.0041518947,-0.106739976,-0.0094743315,0.016346904,0.09264318,-0.0030957742,0.049674887,0.049191587,-0.023742896,-0.12160996,-0.04911115,-0.090411775,1.0,-1.0,-1.0,1.0,1.0,1.0,-1.0,1.0,1.0,-1.0,0.08661215,-1.0,1.0,1.0,-1.0,0.740496,0.98178387,0.5480698,-1.0,-0.7713444,1.0,1.0,-0.30838218,1.0
2025-07-21 16:00:25.963,2.660000000000002,2660,133,-0.39899054,-0.28677836,-0.1937089,0.022598026,0.086044244,-0.07646698,-0.085875854,0.05057573,0.024960471,1.5,0.0,0.0,0.013735194,0.060653854,0.0,0.0,0.0861403,-0.027547516,-0.11795551,0.105841145,0.19259709,0.120499134,-0.14821681,-0.16600513,0.14686638,0.045037515,-0.022600321,0.04128076,-0.0241442,0.13524425,0.04506759,0.06531383,0.10124003,-0.051276885,0.005152775,-0.079027615,0.071440496,0.038352326,-0.123245664,0.007621164,1.0,1.0,-1.0,0.740496,0.98178387,0.5480698,-1.0,-0.7713444,1.0,1.0,-0.30838218,1.0,0.9675397,-1.0,-1.0,1.0,-1.0,1.0,-1.0,1.0,1.0,-0.7300209,1.0,0.799443
2025-07-21 16:00:25.986,2.680000000000002,2680,134,-0.27237883,-0.012387797,0.030874595,-0.064876884,-0.07457287,-0.074372455,-0.09968852,0.035206504,0.047836654,1.5,0.0,0.0,0.014218988,0.04153163,0.0,0.0,0.100994766,-0.056838844,-0.14069444,0.11123166,0.19273864,0.1289467,-0.14840175,-0.1381057,0.13490608,0.032515936,0.011785218,0.0462267,0.04446108,-0.09997919,-0.011689908,0.017307231,-0.053808115,-0.011292772,-0.007415263,0.18647046,-0.07180946,-0.12542085,0.13494149,0.032505922,0.9675397,-1.0,-1.0,1.0,-1.0,1.0,-1.0,1.0,1.0,-0.7300209,1.0,0.799443,1.0,-1.0,-1.0,1.0,1.0,1.0,-1.0,1.0,1.0,-1.0,-1.0,-1.0
2025-07-21 16:00:26.003,2.700000000000002,2700,135,-0.16716631,-0.12955855,-0.055444412,-0.056064613,0.020107524,-0.12365639,-0.108913556,0.026169796,0.012738375,1.5,0.0,0.0,0.015371387,0.030466205,0.0,0.0,0.109303735,-0.11138107,-0.14191678,0.12272101,0.23172037,0.120646715,-0.14159437,-0.08782161,0.13046975,0.0002268394,0.021333704,0.019490294,0.03618626,-0.17914003,-0.01847857,-0.03114333,0.12562129,-0.06678994,0.013584892,0.19338107,-0.09845107,-0.15185903,-0.13559796,-0.08964221,1.0,-1.0,-1.0,1.0,1.0,1.0,-1.0,1.0,1.0,-1.0,-1.0,-1.0,1.0,-1.0,-1.0,1.0,1.0,1.0,-1.0,-0.72184455,1.0,1.0,-1.0,-1.0
2025-07-21 16:00:26.023,2.720000000000002,2720,136,-0.15156989,-0.027287334,-0.2875843,0.022458011,0.13711093,-0.0036360137,-0.1402777,0.06127907,-0.047864296,1.5,0.0,0.0,0.017630095,0.023598555,0.0,0.0,0.1088142,-0.16345851,-0.14412868,0.11880386,0.24829897,0.124345236,-0.14191991,-0.09023466,0.1307642,0.024071647,-0.04486965,-0.00403525,-0.035455104,-0.108820766,-0.05916928,0.08601589,0.074210234,0.031888362,-0.009639387,-0.06092833,-0.022029843,0.11095157,-0.2198752,-0.10186861,1.0,-1.0,-1.0,1.0,1.0,1.0,-1.0,-0.72184455,1.0,1.0,-1.0,-1.0,1.0,-1.0,-1.0,1.0,1.0,1.0,-1.0,1.0,1.0,1.0,-1.0,-1.0
2025-07-21 16:00:26.044,2.740000000000002,2740,137,0.055560485,-0.074602194,-0.37065113,-0.088996075,0.012117209,-0.059703417,-0.1353885,0.10322036,0.032723516,1.5,0.0,0.0,0.019237796,0.019101385,0.0,0.0,0.13207027,-0.20884213,-0.14688589,0.1366112,0.29001153,0.12204459,-0.14443241,-0.058788724,0.1305103,0.047494013,-0.10808855,-0.026045986,0.08930769,-0.07192749,0.019062541,0.063329205,0.0964938,-0.056255516,-0.026102453,0.17912069,0.031869605,0.030459566,-0.14193664,-0.07912633,1.0,-1.0,-1.0,1.0,1.0,1.0,-1.0,1.0,1.0,1.0,-1.0,-1.0,-0.47324732,-1.0,-0.6005144,1.0,1.0,1.0,-1.0,-1.0,1.0,1.0,-1.0,1.0
2025-07-21 16:00:26.069,2.760000000000002,2760,138,0.10596267,-0.24956769,-0.09423552,0.15447575,-0.06999126,0.23634751,-0.12504882,0.07761334,0.028983843,1.5,0.0,0.0,0.020361219,0.01603778,0.0,0.0,0.11305971,-0.24318925,-0.12895705,0.11946414,0.299785,0.13337916,-0.1607223,-0.062329657,0.13115066,0.0751088,-0.16388723,-0.011251725,-0.004134149,-0.13100807,0.075970516,-0.035095926,0.102432065,0.042515587,-0.06247653,-0.07497913,0.0508287,0.091353536,-0.13226707,0.11636116,-0.47324732,-1.0,-0.6005144,1.0,1.0,1.0,-1.0,-1.0,1.0,1.0,-1.0,1.0,-0.25723508,-1.0,1.0,1.0,1.0,1.0,-1.0,1.0,1.0,1.0,1.0,1.0
2025-07-21 16:00:26.086,2.780000000000002,2780,139,0.123181075,-0.56253403,0.050351486,0.08575443,-0.44303474,0.22142667,-0.077100076,0.082612,-0.042326402,1.5,0.0,0.0,0.018709768,0.013893739,0.0,0.0,0.08942747,-0.27501976,-0.10531831,0.11574881,0.32915258,0.12423731,-0.1594414,-0.03284805,0.13193929,0.075440295,-0.15347856,0.023131715,0.010761247,-0.13473989,0.12829114,-0.011830658,0.009721444,-0.028333254,0.06340322,0.13633707,-0.048275363,-0.022985667,0.2072037,0.036914125,-0.25723508,-1.0,1.0,1.0,1.0,1.0,-1.0,1.0,1.0,1.0,1.0,1.0,1.0,1.0,1.0,1.0,1.0,-1.0,-1.0,1.0,1.0,1.0,0.33420792,1.0
2025-07-21 16:00:26.105,2.800000000000002,2800,140,0.26737842,-0.524933,-0.18747444,-0.09076361,-0.46000597,-0.044291522,-0.111940645,0.021386601,0.028251642,1.5,0.0,0.0,0.015680987,0.0123714525,0.0,0.0,0.092461094,-0.257459,-0.053015903,0.13078873,0.35514435,0.081274934,-0.15464057,0.03395226,0.14294672,0.092758276,-0.106098555,0.04511235,0.107304186,0.024184491,0.040766455,-0.031659268,0.08642021,-0.051780194,-0.034546725,0.21987306,0.028409382,0.029572075,0.13256496,0.051726423,1.0,1.0,1.0,1.0,1.0,-1.0,-1.0,1.0,1.0,1.0,0.33420792,1.0,-1.0,1.0,1.0,-1.0,1.0,-1.0,-1.0,0.17981818,1.0,1.0,1.0,1.0
2025-07-21 16:00:26.124,2.820000000000002,2820,141,0.44670114,-0.6417762,-0.19087607,0.2737938,-0.531707,0.20734645,0.03419666,0.06610565,-0.006045664,1.5,0.0,0.0,0.014657251,0.011291096,0.0,0.0,0.07086492,-0.21076229,-0.039764486,0.10371258,0.3663175,0.054445423,-0.1704093,0.067398764,0.14938435,0.10071236,-0.018441604,0.06278808,-0.060508218,0.14641584,0.096350715,-0.08383819,0.06080697,-0.13889445,0.054349497,0.06752,-0.026683223,0.023086995,0.19601429,-0.058242228,-1.0,1.0,1.0,-1.0,1.0,-1.0,-1.0,0.17981818,1.0,1.0,1.0,1.0,-0.5984764,1.0,1.0,-0.853665,1.0,-1.0,-0.69315094,1.0,-1.0,1.0,-1.0,1.0
2025-07-21 16:00:26.145,2.840000000000002,2840,142,0.4665739,-0.5496994,-0.24171078,0.13355514,-0.23349057,0.02641754,0.038227025,0.011024607,0.015785297,1.5,0.0,0.0,0.013030298,0.010541213,0.0,0.0,0.032720547,-0.18325892,-0.013724082,0.05794886,0.36677936,0.017911412,-0.16491744,0.12081123,0.09214359,0.11069651,0.02380399,0.06684314,-0.07839719,0.16125712,0.07901925,-0.06980992,0.05150728,-0.08772763,-0.010887958,0.09951341,-0.09795232,0.026418734,0.078063294,0.097422056,-0.5984764,1.0,1.0,-0.853665,1.0,-1.0,-0.69315094,1.0,-1.0,1.0,-1.0,1.0,-1.0,1.0,1.0,-0.7947815,1.0,-1.0,1.0,1.0,-1.0,1.0,-1.0,1.0
2025-07-21 16:00:26.170,2.860000000000002,2860,143,0.5349213,-0.57330865,-0.12841155,0.21711448,-0.19722515,0.057695933,-0.0070515983,0.08862552,-0.024689555,1.5,0.0,0.0,0.011514695,0.010052406,0.0,0.0,0.024172382,-0.15052824,-0.0033577413,0.023973163,0.3719906,-0.01603351,-0.12467597,0.1739045,0.05419731,0.116824314,0.03724752,0.084033914,-0.079657115,0.02287098,0.06823217,-0.07260161,-0.012782634,-0.07936003,0.1718266,0.10391369,-0.14325112,-0.07253349,0.098333135,-0.013444567,-1.0,1.0,1.0,-0.7947815,1.0,-1.0,1.0,1.0,-1.0,1.0,-1.0,1.0,-1.0,1.0,1.0,-0.8601354,1.0,-1.0,1.0,1.0,-1.0,1.0,-1.0,1.0
2025-07-21 16:00:26.186,2.880000000000002,2880,144,0.41717213,-0.40632457,0.11452589,0.25089842,-0.16772492,0.035994798,0.046775185,0.008840474,-0.015498866,1.5,0.0,0.0,0.01091834,0.00978298,0.0,0.0,0.009255975,-0.10976556,0.014229051,-0.008764658,0.3803665,-0.049692687,-0.07631398,0.22539261,0.016911574,0.11345645,0.044839263,0.10654111,-0.05856908,0.052181236,-0.0042358288,-0.13523775,0.03592102,-0.11735271,0.0383661,0.16556413,-0.14993146,0.059569053,0.080559514,0.10569544,-1.0,1.0,1.0,-0.8601354,1.0,-1.0,1.0,1.0,-1.0,1.0,-1.0,1.0,-1.0,1.0,1.0,-0.9367971,-0.3220146,-1.0,1.0,0.28121606,-1.0,1.0,-0.9357948,1.0
2025-07-21 16:00:26.205,2.900000000000002,2900,145,0.26651987,-0.6491507,0.1626435,0.33154178,-0.0063600205,-0.00543605,0.0320951,0.088965654,0.017527692,1.5,0.0,0.0,0.010672646,0.009711151,0.0,0.0,-0.015825557,-0.07637899,0.026113197,-0.02769,0.339238,-0.056407265,-0.035008125,0.20957415,-0.012587406,0.11419625,0.03700434,0.10751183,-0.0018744369,0.07792382,0.08300621,-0.072329715,-0.2524629,0.011098404,0.16033725,-0.08913162,-0.13349208,-0.04272281,0.003415025,0.0018067339,-1.0,1.0,1.0,-0.9367971,-0.3220146,-1.0,1.0,0.28121606,-1.0,1.0,-0.9357948,1.0,-1.0,1.0,1.0,-0.25657707,1.0,-1.0,1.0,0.16535929,-1.0,1.0,0.3297824,1.0
2025-07-21 16:00:26.225,2.920000000000002,2920,146,0.5352219,-0.49021104,0.2631501,0.18320778,-0.03814211,-0.012079583,0.07029578,0.08854508,0.008076261,1.5,0.0,0.0,0.0110781975,0.009831255,0.0,0.0,-0.031370796,-0.022055337,0.04030411,-0.033569306,0.31031495,-0.07023603,0.01210364,0.1876455,-0.033515856,0.11676428,0.060176514,0.11136102,0.0057793055,0.26634276,0.068919376,0.0058227177,0.076525986,0.0066140657,0.1218553,-0.0135719655,-0.07730334,-0.010374492,0.060452998,0.0035569987,-1.0,1.0,1.0,-0.25657707,1.0,-1.0,1.0,0.16535929,-1.0,1.0,0.3297824,1.0,-1.0,1.0,1.0,-1.0,-1.0,-1.0,1.0,-0.7658701,-1.0,1.0,0.06544475,1.0
2025-07-21 16:00:26.245,2.940000000000002,2940,147,0.64186645,-0.7356005,0.27077422,0.28699815,0.06970665,0.025770443,0.057087645,0.12713951,0.0011250481,1.5,0.0,0.0,0.011437697,0.010152795,0.0,0.0,-0.040206987,0.06431491,0.059219707,-0.053203445,0.2766649,-0.08619477,0.037924178,0.110477254,-0.04970635,0.11962674,0.05080186,0.12567423,-0.033763546,0.16687615,-0.012089348,-0.09807978,-0.14480674,-0.059103657,0.13646594,-0.2615885,0.00065176655,0.053703547,0.0038078544,0.053512484,-1.0,1.0,1.0,-1.0,-1.0,-1.0,1.0,-0.7658701,-1.0,1.0,0.06544475,1.0,-0.8987944,1.0,1.0,0.85106915,-1.0,1.0,1.0,-0.26534978,-1.0,1.0,1.0,1.0
2025-07-21 16:00:26.279,2.960000000000002,2960,148,0.47042614,-0.50648355,0.25303793,-0.21094565,0.11797822,-0.12359537,0.10845608,0.089234754,0.043769814,1.5,0.0,0.0,0.011553625,0.5,0.0,0.0,-0.05689726,0.11623918,0.07657174,-0.038654182,0.22467044,-0.06656578,0.060039118,0.0749819,-0.08433854,0.12631612,0.105362706,0.116942026,-0.08084441,0.13338985,0.037772223,0.07502483,-0.09324854,0.08366909,0.09986335,-0.038453378,0.0013280491,0.08828898,0.16666727,0.01580485,-0.8987944,1.0,1.0,0.85106915,-1.0,1.0,1.0,-0.26534978,-1.0,1.0,1.0,1.0,0.23204468,1.0,-1.0,1.0,1.0,1.0,-1.0,-1.0,1.0,1.0,-1.0,1.0
2025-07-21 16:00:26.303,2.980000000000002,2980,149,0.72083426,-0.5179294,-0.028479375,-0.15380555,0.28411916,-0.10773796,0.035197567,0.14559196,-0.040853057,1.5,0.0,0.0,0.011868419,0.7242532,0.0,0.0,-0.041889556,0.16355567,0.04782375,0.0009369143,0.23229155,-0.02436843,0.020932116,-0.0075386716,-0.030161921,0.13599575,0.10405656,0.12225761,-0.0024259612,0.10469679,-0.14664869,0.041769065,0.035741113,0.107940674,-0.14280069,-0.24582724,0.16407007,-0.016735088,0.028301496,-0.04965865,0.23204468,1.0,-1.0,1.0,1.0,1.0,-1.0,-1.0,1.0,1.0,-1.0,1.0,1.0,-1.0,-1.0,-0.2363891,-1.0,1.0,-1.0,1.0,1.0,-1.0,-0.6859518,1.0
2025-07-21 16:00:26.320,3.000000000000002,3000,150,0.55119956,-0.29451847,-0.06581336,0.109907486,0.2261921,-0.26066777,0.03827263,0.07527418,-0.011919715,1.5,0.0,0.0,0.013290711,0.85329676,0.0,0.0,-0.019140366,0.16579002,0.0028268723,-0.01047567,0.23326899,-0.00037250598,-0.018140221,-0.022373391,-0.0051004323,0.10502186,0.0676965,0.1323492,0.06626997,-0.118243545,-0.06977456,-0.018897416,0.009318551,0.012384636,-0.1156242,0.13219342,0.024406925,-0.063562736,-0.11769039,0.022658797,1.0,-1.0,-1.0,-0.2363891,-1.0,1.0,-1.0,1.0,1.0,-1.0,-0.6859518,1.0,1.0,-1.0,-1.0,1.0,1.0,1.0,-1.0,-1.0,1.0,-0.33861876,1.0,0.53651714
2025-07-21 16:00:26.339,3.0200000000000022,3020,151,0.75894386,-0.19359575,-0.16565122,-0.14263071,0.13154924,-0.03355212,0.064219855,0.1489368,0.02340323,1.5,0.0,0.0,0.016927999,0.9147498,0.0,0.0,0.015129438,0.06238966,-0.022159472,0.027022868,0.25882915,0.011114731,-0.041608457,-0.03588356,0.026192127,0.084998935,0.073313534,0.11972024,0.047332507,-0.21070375,-0.0528384,0.017666008,0.05381228,0.046306074,-0.035748832,-0.0956996,0.079011366,-0.07643998,0.16770153,0.02768674,1.0,-1.0,-1.0,1.0,1.0,1.0,-1.0,-1.0,1.0,-0.33861876,1.0,0.53651714,1.0,-0.8114078,-1.0,1.0,0.039457835,1.0,-1.0,1.0,1.0,-1.0,-1.0,-1.0
2025-07-21 16:00:26.359,3.0400000000000023,3040,152,0.42655638,-0.026530715,-0.52314883,-0.29793876,0.15176377,-0.1567735,0.019062046,0.05351241,-0.03150009,1.5,0.0,0.0,0.018929092,0.9452337,0.0,0.0,0.047799017,-0.0079161655,-0.053469576,0.046544064,0.2701194,0.04648854,-0.066657804,-0.037765153,0.03668824,0.03655511,0.05803798,0.082571834,0.12188652,-0.19640209,-0.068492286,0.020785628,0.029360995,0.0051919236,-0.05943817,0.18795061,0.08681306,-0.15508747,-0.124248445,-0.054901876,1.0,-0.8114078,-1.0,1.0,0.039457835,1.0,-1.0,1.0,1.0,-1.0,-1.0,-1.0,-0.33754352,1.0,-1.0,1.0,1.0,1.0,-1.0,-1.0,1.0,1.0,-1.0,-1.0
2025-07-21 16:00:26.379,3.0600000000000023,3060,153,0.753395,0.24532776,-0.36131576,-0.1552876,-0.07188444,-0.04925544,-0.007736944,0.07113524,0.016510896,1.5,0.0,0.0,0.020879187,0.96178675,0.0,0.0,0.05291012,-0.00736168,-0.07332874,0.071868874,0.28714123,0.06082663,-0.08377375,-0.058122072,0.067507096,0.039590526,-0.0062899655,0.045620557,-0.02083892,0.024297206,-0.021873761,0.03943012,0.060406696,0.062220473,-0.031372216,-0.17532411,0.09018279,0.09838132,-0.17791174,-0.021321876,-0.33754352,1.0,-1.0,1.0,1.0,1.0,-1.0,-1.0,1.0,1.0,-1.0,-1.0,0.041693196,-1.0,-1.0,1.0,1.0,1.0,-1.0,-0.5010897,1.0,0.79424345,-0.64871806,-1.0
2025-07-21 16:00:26.404,3.0800000000000023,3080,154,0.4769747,0.105501086,0.08905999,-0.026321605,0.106374554,0.02678435,-0.03847345,0.06799125,-0.02165811,1.5,0.0,0.0,0.02168714,0.9715506,0.0,0.0,0.03909682,0.0071827024,-0.07835563,0.08677185,0.31300676,0.05670987,-0.08767012,-0.07926018,0.07458461,0.056052938,-0.059729688,0.0037952198,-0.036835022,-0.029625494,-0.06968289,-0.01494323,-0.0128953,-0.04332816,0.04859579,0.008588566,0.03538458,0.068911545,-0.038432743,-0.02630438,0.041693196,-1.0,-1.0,1.0,1.0,1.0,-1.0,-0.5010897,1.0,0.79424345,-0.64871806,-1.0,1.0,-0.9925513,-1.0,1.0,1.0,1.0,-1.0,0.7498214,1.0,0.5494195,-1.0,-1.0
2025-07-21 16:00:26.421,3.1000000000000023,3100,155,0.6444886,-0.11346088,0.005053467,0.026255423,0.19290845,-0.0056132404,-0.014207682,0.12995121,-0.028800115,1.5,0.0,0.0,0.021289982,0.9777011,0.0,0.0,0.07154107,-0.006032679,-0.09840386,0.09606784,0.33137563,0.08110134,-0.102403596,-0.062054053,0.08120518,0.07695466,-0.084201515,-0.007183903,0.028954564,-0.039750703,-0.073149696,0.028967516,-0.031150753,-0.0060463506,-0.0018576602,0.17258438,-0.02754882,0.021363875,-0.08668921,-0.0053219767,1.0,-0.9925513,-1.0,1.0,1.0,1.0,-1.0,0.7498214,1.0,0.5494195,-1.0,-1.0,1.0,-1.0,-1.0,1.0,1.0,1.0,-1.0,-0.4766166,1.0,-0.46691072,-1.0,-1.0
2025-07-21 16:00:26.440,3.1200000000000023,3120,156,0.43675697,0.1064693,0.21980558,0.1715568,0.25003088,0.106381066,-0.06882869,0.13161013,0.0055468255,1.5,0.0,0.0,0.021287214,0.98177373,0.0,0.0,0.090335995,-0.058590513,-0.10650239,0.097493865,0.33707756,0.08604429,-0.12288091,-0.06519245,0.10748348,0.03978838,-0.15264358,-0.039070792,0.030159893,-0.19066288,-0.03284615,-0.0006448879,-0.0014904505,-0.03704364,-0.09018406,-0.023813326,-0.023382818,-0.08535632,-0.093500115,-0.008057463,1.0,-1.0,-1.0,1.0,1.0,1.0,-1.0,-0.4766166,1.0,-0.46691072,-1.0,-1.0,1.0,-1.0,-1.0,1.0,1.0,1.0,-1.0,1.0,1.0,-1.0,0.63308114,-1.0
2025-07-21 16:00:26.459,3.1400000000000023,3140,157,0.20892008,-0.13616161,-0.06350334,-0.104188815,0.031515293,0.10834228,-0.04858203,0.16065058,-0.043920375,1.5,0.0,0.0,0.020909166,0.9845701,0.0,0.0,0.10694867,-0.10555136,-0.108861096,0.1087598,0.36715987,0.093719654,-0.12850277,-0.03301096,0.1098392,0.004650062,-0.13008131,-0.06963828,0.010390447,-0.12254738,0.03752864,0.023871684,0.10793224,0.07812259,-0.030260911,0.21793011,0.07924801,-0.11472067,0.17156431,-0.017842202,1.0,-1.0,-1.0,1.0,1.0,1.0,-1.0,1.0,1.0,-1.0,0.63308114,-1.0,0.8417382,-1.0,-0.6616776,1.0,0.45551547,1.0,-1.0,0.46544138,1.0,1.0,-1.0,-1.0
2025-07-21 16:00:26.480,3.1600000000000024,3160,158,0.34761742,0.14282958,0.009410855,-0.03654214,0.20701644,0.12893991,-0.045122657,0.10895342,-0.03148294,1.5,0.0,0.0,0.018866224,0.98653656,0.0,0.0,0.109007664,-0.14909257,-0.12420173,0.11801305,0.35933042,0.106975265,-0.13337155,0.01139474,0.12626086,0.024239585,-0.13389766,-0.07161759,0.037802592,-0.13158149,-0.02602839,0.08646512,-0.08653103,0.09238404,0.037385862,0.1596359,-0.049948163,0.066602,-0.18411297,-0.017808843,0.8417382,-1.0,-0.6616776,1.0,0.45551547,1.0,-1.0,0.46544138,1.0,1.0,-1.0,-1.0,1.0,-0.4296248,1.0,1.0,1.0,1.0,-1.0,0.04134056,1.0,1.0,-1.0,1.0
