openverse-orca/OrcaGym/log/simulation_log_20250721_141241.csv
timestamp,sim_time,physics_step,control_step,imu_angle_roll,imu_angle_pitch,imu_angle_yaw,imu_angular_velocity_roll,imu_angular_velocity_pitch,imu_angular_velocity_yaw,imu_acc_x,imu_acc_y,imu_acc_z,fl_joint1_pos,fl_joint1_vel,fl_joint1_torque,fl_joint2_pos,fl_joint2_vel,fl_joint2_torque,fl_joint3_pos,fl_joint3_vel,fl_joint3_torque,fr_joint1_pos,fr_joint1_vel,fr_joint1_torque,fr_joint2_pos,fr_joint2_vel,fr_joint2_torque,fr_joint3_pos,fr_joint3_vel,fr_joint3_torque,hl_joint1_pos,hl_joint1_vel,hl_joint1_torque,hl_joint2_pos,hl_joint2_vel,hl_joint2_torque,hl_joint3_pos,hl_joint3_vel,hl_joint3_torque,hr_joint1_pos,hr_joint1_vel,hr_joint1_torque,hr_joint2_pos,hr_joint2_vel,hr_joint2_torque,hr_joint3_pos,hr_joint3_vel,hr_joint3_torque,fl_force_x,fl_force_y,fl_force_z,fr_force_x,fr_force_y,fr_force_z,hl_force_x,hl_force_y,hl_force_z,hr_force_x,hr_force_y,hr_force_z,fl_hip_action,fl_thigh_action,fl_calf_action,fr_hip_action,fr_thigh_action,fr_calf_action,hl_hip_action,hl_thigh_action,hl_calf_action,hr_hip_action,hr_thigh_action,hr_calf_action
2025-07-21 14:12:41.810,0.0,0,0,0.035268914,0.03089668,0.0131540345,0.021731911,0.026209196,-0.04104916,0.66307026,-0.39418715,0.0,0.0,0.006701436,0.0084854765,-0.008840226,-0.0030737994,-0.006318875,-0.0076339454,-0.0014361388,-0.00019695726,-0.0065488736,0.0059450935,-0.00025510215,0.00017211017,0.059425447,-0.0047970065,-0.041411042,0.007321939,-0.055737592,0.055268332,-0.018908046,-0.009271168,-0.009581392,0.009904397,0.037391383,0.048915382,0.0,0.0,0.0,0.0,0.0,0.0,0.0,0.0,0.0,0.0,0.0,0.0,1.4893765,-1.2119925,0.32191142,-0.97373646,0.22578658,-0.78157806,0.9187533,2.0,0.63184905,0.04802434,1.0449711,0.9189827
2025-07-21 14:12:41.822,0.02,20,1,0.17915724,0.07938897,0.051916894,0.021731768,-0.02639097,-0.0023397212,0.0,0.0,0.0,0.0,0.035139527,-0.017467652,-0.0013944631,-0.025098791,0.021446567,-0.021967098,0.0287037,0.0447848,0.007981729,-0.003996168,0.04319841,0.025278635,0.08465793,-0.15469654,0.008109838,0.005012642,-0.003934994,0.022116963,0.023649279,0.19414428,0.07252676,-0.06872533,0.2188807,0.030999465,1.4893765,-1.2119925,0.32191142,-0.97373646,0.22578658,-0.78157806,0.9187533,2.0,0.63184905,0.04802434,1.0449711,0.9189827,-0.5114687,-0.31306106,0.720365,-0.5262699,-1.1397983,0.25356638,0.4742295,0.49125332,-0.2978729,-0.27413625,-1.7442095,0.2779519
2025-07-21 14:12:41.844,0.04,40,2,-0.11911249,0.10963038,-0.07699134,-0.037512995,-0.016246691,-0.010876731,0.0,0.0,0.0,-0.00032827625,0.04405242,-0.04711509,0.019630007,-0.035627473,-0.0116760805,-0.018051775,0.039863456,0.09461395,-0.002832761,-0.013228758,0.05444288,0.022736702,-0.0748296,-0.037833657,0.059534844,-0.03997691,-0.0227868,-0.020687109,-0.04018952,-0.005706897,-0.0076258923,-0.10228363,-0.10090432,-0.018216992,-0.5114687,-0.31306106,0.720365,-0.5262699,-1.1397983,0.25356638,0.4742295,0.49125332,-0.2978729,-0.27413625,-1.7442095,0.2779519,0.007778961,-0.74035865,-0.26251742,-0.34613332,-0.28837785,-0.33579227,0.8943359,0.066993125,0.98196274,0.58232844,0.9087194,0.83836305
2025-07-21 14:12:41.860,0.06,60,3,-0.050122276,-0.12475429,0.16831674,0.036994554,0.03807514,-0.04430536,0.0,0.0,0.0,-0.00027297717,0.029601343,-0.08591037,0.0178634,-0.053175487,-0.0337744,-0.008695463,0.05686201,0.07006594,0.0222884,-0.007969689,0.07606547,0.035128023,-0.0002997645,-0.06309026,-0.052556463,-0.023415046,-0.07119668,-0.08577963,0.06566794,-0.043904543,0.056619987,0.10210777,0.118252106,-0.023690784,0.007778961,-0.74035865,-0.26251742,-0.34613332,-0.28837785,-0.33579227,0.8943359,0.066993125,0.98196274,0.58232844,0.9087194,0.83836305,0.510508,-0.26303732,0.32479784,-0.11188287,-0.20843764,-0.08314794,0.5274206,1.4885216,0.23198077,-0.6024789,-1.0057424,0.6550379
2025-07-21 14:12:41.880,0.08,80,4,0.017799748,-0.071695484,-0.16942349,-0.016558178,0.0009911603,-0.0488371,0.0,0.0,0.0,-0.0016442157,0.0468325,-0.09462984,0.0066129477,-0.03324244,-0.02945969,-0.030745672,0.061993957,0.11747041,0.03549111,-0.0045411116,0.07634618,0.04575002,0.08089567,-0.009345618,0.056127183,0.019577535,0.017603463,0.044032954,0.033762306,0.26608148,-0.002778446,0.007367317,-0.07999344,0.07868878,0.510508,-0.26303732,0.32479784,-0.11188287,-0.20843764,-0.08314794,0.5274206,1.4885216,0.23198077,-0.6024789,-1.0057424,0.6550379,-0.66523415,-1.0408056,0.5363811,-0.65501416,-0.09852878,-0.5967116,0.835634,-0.2651824,0.6675128,0.5618189,0.70848197,1.3503919
2025-07-21 14:12:41.900,0.1,100,5,-0.18843232,-0.054322146,0.22800416,-0.0074485624,-0.038034126,-0.0055778385,0.0,0.0,0.0,-0.0005960228,0.028865797,-0.122563556,0.011728403,-0.060255803,-0.041417625,-0.03754925,0.068329915,0.13045806,0.04598527,-0.0061909375,0.098764524,0.058246452,0.0026913974,-0.11019574,-0.01386944,-0.030623734,-0.016196182,-0.102682404,-0.020299008,-0.11037924,0.056263935,-0.007851161,0.10093835,0.1304963,-0.66523415,-1.0408056,0.5363811,-0.65501416,-0.09852878,-0.5967116,0.835634,-0.2651824,0.6675128,0.5618189,0.70848197,1.3503919,0.62281305,0.27012008,0.744718,-0.39259094,-0.08656051,-0.28549317,0.30067533,1.2681528,0.034746252,-0.8595611,-1.7980154,0.9426819
2025-07-21 14:12:41.925,0.12000000000000001,120,6,0.14969529,0.037221782,-0.08685684,0.05089269,0.023920638,0.0050181216,0.0,0.0,0.0,-0.0017861697,0.049721003,-0.11995885,0.026394403,-0.05595504,-0.030533623,-0.036643,0.06919123,0.16152193,0.04269071,-0.028825821,0.08043959,0.07925143,0.015138994,0.097975716,0.08711397,-0.0037461426,0.03470028,-0.0003801874,0.03966378,0.19616412,-0.034021717,-0.006913219,-0.04505694,0.02929848,0.62281305,0.27012008,0.744718,-0.39259094,-0.08656051,-0.28549317,0.30067533,1.2681528,0.034746252,-0.8595611,-1.7980154,0.9426819,-0.39897898,-1.1075267,-0.0018835869,-0.5299118,-0.37845376,-0.431482,0.43876982,-0.28791323,0.3332636,0.30325907,-0.16526975,0.54858565
2025-07-21 14:12:41.944,0.14,140,7,-0.077474385,-0.09692793,0.11253539,-0.036862694,-0.018828485,0.04278652,0.0,0.0,0.0,-0.002453611,0.0511028,-0.12290296,0.013787987,-0.066927746,-0.063487895,-0.04441288,0.07161517,0.16197981,0.032118876,-0.027062349,0.05071795,0.08733741,-0.050884772,-0.035329767,0.021585343,0.026413048,-0.11412468,-0.009323166,-0.0023553343,-0.19657546,0.032634914,0.022756493,0.005065696,-0.06952698,-0.39897898,-1.1075267,-0.0018835869,-0.5299118,-0.37845376,-0.431482,0.43876982,-0.28791323,0.3332636,0.30325907,-0.16526975,0.54858565,0.79818815,-0.121444404,-0.038912185,0.053600438,0.3904588,0.24577734,0.5597283,1.4446229,0.762914,-0.75559235,-0.3644572,0.38706017
2025-07-21 14:12:41.961,0.16,160,8,0.3055717,-0.08691041,-0.02167232,-0.0004698542,0.03838671,-0.043477856,0.0,0.0,0.0,-0.003898223,0.061181016,-0.10993411,0.010609076,-0.0517396,-0.06184884,-0.044990096,0.06979982,0.17531498,0.049981717,-0.04331235,0.029493826,0.08579504,-0.024174305,-0.02084687,-0.0678829,-0.043746952,0.05061687,0.041712914,0.019872718,0.15160793,0.024889043,-0.102973334,-0.05641251,-0.05523956,0.79818815,-0.121444404,-0.038912185,0.053600438,0.3904588,0.24577734,0.5597283,1.4446229,0.762914,-0.75559235,-0.3644572,0.38706017,0.008866239,-0.642472,0.7804626,-0.252775,-0.20522113,-0.49120146,0.694246,-0.07654952,0.2978984,-0.3050672,0.5178474,0.6922015
2025-07-21 14:12:41.980,0.18,180,9,0.048664853,0.09480356,0.11229895,-0.006580011,0.025672458,-0.015082206,0.0,0.0,0.0,-0.0041957083,0.062510274,-0.121634245,0.02997903,-0.06537683,-0.05632232,-0.050847873,0.08340735,0.16853677,0.05777532,-0.040680803,0.040793303,0.07466742,0.030737784,-0.067148805,0.053658213,-0.009594771,-0.0656673,-0.07224864,-0.026815487,-0.12407637,-0.058965385,-0.031666614,0.09784151,-0.016196212,0.008866239,-0.642472,0.7804626,-0.252775,-0.20522113,-0.49120146,0.694246,-0.07654952,0.2978984,-0.3050672,0.5178474,0.6922015,0.24642767,0.04999965,0.8817524,0.123596884,0.20530675,0.3785503,0.6743011,1.435075,-0.0081720725,-0.51290035,-1.3607566,0.11776329
2025-07-21 14:12:42.001,0.19999999999999998,200,10,0.23384643,0.07836756,-0.105778225,-0.011645381,0.0055569876,-0.021449495,0.0,0.0,0.0,-0.0056736683,0.06391386,-0.12644303,0.0435421,-0.03696292,-0.040157694,-0.033777438,0.079144895,0.19428787,0.03622741,-0.056459755,0.05456773,0.072453454,-0.040754147,0.07800084,0.04939688,0.050850842,0.04481404,0.08781647,-0.056238644,0.21501918,-0.09308888,0.00078892225,0.07125956,0.020566378,0.24642767,0.04999965,0.8817524,0.123596884,0.20530675,0.3785503,0.6743011,1.435075,-0.0081720725,-0.51290035,-1.3607566,0.11776329,-0.7182849,-1.1030964,0.46085152,-0.42926198,-0.15822937,-0.5432,0.34483722,-0.6748855,0.17873931,0.51704997,-0.7581618,0.040911205
2025-07-21 14:12:42.026,0.21999999999999997,220,11,-0.2306299,-0.06268791,0.13263832,0.024714189,0.03428133,-0.009350937,0.0,0.0,0.0,-0.005984456,0.04194174,-0.13584393,0.032744158,-0.048056692,-0.045884486,-0.03850618,0.07671071,0.17233016,0.050703637,-0.06136256,0.038098216,0.06690904,-0.005079599,-0.018375082,0.071849935,0.050912663,-0.02605772,-0.054131307,0.010389364,-0.22283337,-0.031155845,0.05448867,-0.08840045,-0.0016551595,-0.7182849,-1.1030964,0.46085152,-0.42926198,-0.15822937,-0.5432,0.34483722,-0.6748855,0.17873931,0.51704997,-0.7581618,0.040911205,1.064301,0.15661597,0.22278047,-0.22249806,0.44622195,-0.59784657,0.63326955,1.2011944,0.59743774,-0.72972155,-0.1872737,0.7759556
2025-07-21 14:12:42.042,0.23999999999999996,240,12,0.052073553,0.10407634,-0.10807503,0.027556147,0.00029812212,-0.00251956,0.0,0.0,0.0,-0.0062125786,0.06495789,-0.13351314,0.032557163,-0.039179202,-0.012314542,-0.050659265,0.0811881,0.18016094,0.050502013,-0.059150327,0.013586234,0.07088234,0.07187209,-0.004816137,-0.022995707,-0.00016649031,0.035560515,0.0242866,0.051100265,0.14306982,0.07681723,-0.0972334,0.011708302,0.048637167,1.064301,0.15661597,0.22278047,-0.22249806,0.44622195,-0.59784657,0.63326955,1.2011944,0.59743774,-0.72972155,-0.1872737,0.7759556,-0.68646914,-0.9878782,0.78076494,-0.56436676,-0.19578892,-0.46032077,0.78803927,-0.28299817,0.5254007,0.42000255,-0.02604786,0.838296
2025-07-21 14:12:42.062,0.25999999999999995,260,13,-0.0855533,0.024664866,0.11102902,-0.0063622915,0.031645384,-0.038295347,0.0,0.0,0.0,-0.0059459447,0.05379613,-0.120997556,0.036285065,-0.059031878,-0.007189906,-0.051306143,0.09279126,0.17616683,0.052133765,-0.057927858,0.003587374,0.06438021,-0.03622187,-0.09627392,0.09668247,-0.031026216,-0.08145066,-0.011692587,0.0660092,-0.14838655,0.071933515,0.09927015,-0.008782102,-0.020651307,-0.68646914,-0.9878782,0.78076494,-0.56436676,-0.19578892,-0.46032077,0.78803927,-0.28299817,0.5254007,0.42000255,-0.02604786,0.838296,0.6769184,0.23846018,0.47083673,-0.07914833,0.36493123,-0.24265137,0.5065873,0.94123375,0.6914672,-0.6469245,-0.31396505,0.53612906
2025-07-21 14:12:42.087,0.27999999999999997,280,14,0.15164039,-0.036394536,-0.123649605,-0.013313263,0.042017497,0.02783421,0.0,0.0,0.0,-0.0064511215,0.06735744,-0.114031866,0.04695327,-0.05565685,0.0014827315,-0.059040837,0.08611371,0.1725779,0.05679497,-0.07176292,-0.0029921706,0.06902658,-0.0034244182,0.09018764,-0.004484872,0.024441354,0.14119957,0.038070645,0.031743463,0.13067226,-0.047517303,-0.053007383,-0.072515406,0.021826483,0.6769184,0.23846018,0.47083673,-0.07914833,0.36493123,-0.24265137,0.5065873,0.94123375,0.6914672,-0.6469245,-0.31396505,0.53612906,-0.390518,-1.3467133,0.57413954,-0.2826778,-0.64755,-0.49259144,0.70170337,-0.21766967,0.103197,0.102276385,0.86764336,0.6010734
2025-07-21 14:12:42.102,0.3,300,15,-0.1269442,0.0654882,0.19676407,-0.041834876,0.08165622,-0.014812412,0.0,0.0,0.0,-0.0061436724,0.066940226,-0.12501277,0.052084677,-0.06034009,-0.02459415,-0.05743411,0.0983644,0.16293047,0.06137942,-0.067779034,0.0034043642,0.061362598,-0.06863962,-0.049184594,0.02188043,0.057979748,-0.13740255,-0.04937663,0.012955416,-0.061856423,-0.018793883,-0.036148492,0.15722576,-0.028498264,-0.390518,-1.3467133,0.57413954,-0.2826778,-0.64755,-0.49259144,0.70170337,-0.21766967,0.103197,0.102276385,0.86764336,0.6010734,0.74977964,0.16551828,0.85029423,-0.090190925,0.20129795,0.03930509,0.86160344,1.3867207,-0.4442052,-0.63074833,-1.6231961,0.54145247
2025-07-21 14:12:42.128,0.32,320,16,0.19370626,0.045146927,-0.03634008,-0.024674263,0.07889411,-0.038133226,0.0,0.0,0.0,-0.0072726957,0.066667385,-0.12925963,0.04884935,-0.03964311,-0.0269116,-0.057086427,0.10517206,0.19674027,0.041820083,-0.065803975,0.0132127395,0.07540528,0.0033538265,0.039695274,-0.0363423,0.07009649,0.03145253,0.03818951,-0.046855353,0.21052574,-0.10033782,0.013632132,-0.08578266,0.038700264,0.74977964,0.16551828,0.85029423,-0.090190925,0.20129795,0.03930509,0.86160344,1.3867207,-0.4442052,-0.63074833,-1.6231961,0.54145247,0.044323582,-0.7021042,0.2727375,-0.70093304,-0.31925404,-0.36298332,0.15768933,-0.4969304,0.39980713,0.14860211,-0.16243702,0.81733036
2025-07-21 14:12:42.147,0.34,340,17,-0.053124495,-0.04118925,0.1685797,-0.05153124,0.0029367052,-0.01954185,0.0,0.0,0.0,-0.007891704,0.06702674,-0.123601235,0.0474249,-0.054469552,-0.03756038,-0.056663148,0.084814124,0.18780953,0.043412525,-0.064666905,-0.011151139,0.08219974,-0.06537864,-0.061046384,-0.030893482,-0.04683282,-0.07579499,0.037196625,0.008058769,-0.19225301,-0.039743308,-0.04641002,-0.08113354,-0.015460997,0.044323582,-0.7021042,0.2727375,-0.70093304,-0.31925404,-0.36298332,0.15768933,-0.4969304,0.39980713,0.14860211,-0.16243702,0.81733036,0.86501324,0.18951291,0.8195664,-0.123620145,0.2679547,-0.16840553,0.55652386,1.2186306,0.35839337,-0.63626015,-0.43297198,0.6877377
2025-07-21 14:12:42.164,0.36000000000000004,360,18,0.07979247,-0.02531654,-0.16704358,-0.024760406,0.023749134,-0.0065011326,0.0,0.0,0.0,-0.008821489,0.0846794,-0.12625849,0.048428893,-0.043016303,-0.027063118,-0.052790042,0.08966899,0.17601646,0.030607315,-0.07918921,-0.025638131,0.08781866,0.039828733,0.0932343,-0.010235593,-0.0058383713,0.016695812,0.012610542,-0.033784233,0.12781389,0.010861045,-0.10591382,-0.0046805176,0.09046973,0.86501324,0.18951291,0.8195664,-0.123620145,0.2679547,-0.16840553,0.55652386,1.2186306,0.35839337,-0.63626015,-0.43297198,0.6877377,-0.82024515,-1.4563111,0.23527755,-0.51277703,0.012588764,-0.22687542,0.74885017,-0.049511515,0.59361273,0.5628934,-0.02759495,0.49163607
2025-07-21 14:12:42.183,0.38000000000000006,380,19,-0.14388274,0.03873328,0.16851681,0.023368476,0.058712374,-0.03784877,0.0,0.0,0.0,-0.008403933,0.075746946,-0.14685021,0.055367775,-0.05913083,-0.005309848,-0.049456317,0.09507687,0.16446109,0.050312944,-0.06914015,-0.031931754,0.08514535,-0.0136878155,-0.13141215,0.02708273,-0.027843656,0.0109982295,0.05253967,0.03554425,-0.12753598,0.025688766,-0.0019730912,0.027807398,-0.0103536295,-0.82024515,-1.4563111,0.23527755,-0.51277703,0.012588764,-0.22687542,0.74885017,-0.049511515,0.59361273,0.5628934,-0.02759495,0.49163607,0.82292944,0.3063321,0.59785867,-0.1845373,0.014810959,-0.5012244,0.55019534,1.0227187,0.6544163,-0.8740903,-0.033026535,0.48179427
2025-07-21 14:12:42.204,0.4000000000000001,400,20,0.10197562,0.056347437,-0.102760084,-0.0022714494,0.029414512,-0.034423944,0.0,0.0,0.0,-0.009162783,0.079462975,-0.13200042,0.04352956,-0.060608983,-0.02037113,-0.050694197,0.089586414,0.179833,0.054366197,-0.08045363,-0.023654062,0.065501295,-0.031612106,0.025808558,0.027617112,0.033964507,0.037301745,-0.04417016,-0.06776285,0.051064197,0.08967526,-0.009709752,-0.010770301,0.033659533,0.82292944,0.3063321,0.59785867,-0.1845373,0.014810959,-0.5012244,0.55019534,1.0227187,0.6544163,-0.8740903,-0.033026535,0.48179427,-0.42048863,-0.8495945,0.46136868,-0.4652852,-0.23979713,-0.45620465,0.6842363,-0.059451066,0.80993676,0.37066522,0.3207129,0.60583603
2025-07-21 14:12:42.227,0.4200000000000001,420,21,-0.0457569,0.083086446,0.18978365,-0.0014577593,0.06518672,-0.00046765385,0.0,0.0,0.0,-0.00922197,0.06566752,-0.13568003,0.047190174,-0.0486501,-0.025294714,-0.04785901,0.10798622,0.17442484,0.07494693,-0.076817706,-0.010515235,0.07064458,0.01016032,-0.02124054,0.07882632,0.04275397,-0.033599757,-0.074277855,0.010189208,-0.12653969,0.008352554,0.06620946,0.009265466,0.017095387,-0.42048863,-0.8495945,0.46136868,-0.4652852,-0.23979713,-0.45620465,0.6842363,-0.059451066,0.80993676,0.37066522,0.3207129,0.60583603,0.90684277,-0.05123115,0.51300144,-0.17805095,0.17559478,-0.16866758,0.2854316,1.2898756,0.3967043,-0.7658319,-0.49365434,0.2965489
2025-07-21 14:12:42.246,0.4400000000000001,440,22,0.10796449,-0.08073823,-0.12125162,-0.019101579,-0.012818772,0.016173184,0.0,0.0,0.0,-0.010858629,0.08150836,-0.13214621,0.054658912,-0.062551245,-0.018467968,-0.055750996,0.095312834,0.20294757,0.07518561,-0.079886,-0.0107914135,0.07124403,-0.014740098,0.08470072,0.04966398,0.0869092,0.0017576467,0.014566746,-0.08279483,0.17777622,-0.071213245,0.0317811,0.032876316,-0.032619663,0.90684277,-0.05123115,0.51300144,-0.17805095,0.17559478,-0.16866758,0.2854316,1.2898756,0.3967043,-0.7658319,-0.49365434,0.2965489,-0.55318075,-1.0973325,0.17858775,-0.36933848,-0.12959293,-0.44354722,0.5894063,-0.10893308,0.3867617,0.073999465,-0.11653833,0.3236161
2025-07-21 14:12:42.265,0.46000000000000013,460,23,-0.11197352,-0.062127326,0.22758867,0.02764011,-0.013697299,-0.02968988,0.0,0.0,0.0,-0.011502703,0.074272454,-0.13515347,0.04863888,-0.058067087,-0.022575641,-0.056372575,0.09760795,0.19156916,0.07094777,-0.070163906,-0.011913753,0.060269773,-0.020318346,-0.031886507,0.038594335,0.003198867,0.004392636,0.028312726,-0.071426496,-0.18609117,-0.002446258,0.060800813,-0.0497892,0.0011092915,-0.55318075,-1.0973325,0.17858775,-0.36933848,-0.12959293,-0.44354722,0.5894063,-0.10893308,0.3867617,0.073999465,-0.11653833,0.3236161,0.9746134,0.1191262,0.69227993,0.07388363,0.3748323,-0.6248494,0.3496763,1.3800356,0.5084545,-0.91225004,-0.60900986,0.57266283
2025-07-21 14:12:42.283,0.48000000000000015,480,24,0.08919276,-0.12606151,-0.070623025,-0.044704348,-0.005612387,0.020383038,0.0,0.0,0.0,-0.013335341,0.08774606,-0.14663325,0.038767517,-0.053528324,-0.0054234923,-0.07421675,0.09397595,0.21448627,0.07180513,-0.08383715,-0.03587718,0.052736245,0.09623726,0.009758762,-0.053115714,0.09043097,0.07330288,-0.044153474,-0.08244709,0.20277148,-0.038789812,-0.077414475,-0.09686074,-0.006236871,0.9746134,0.1191262,0.69227993,0.07388363,0.3748323,-0.6248494,0.3496763,1.3800356,0.5084545,-0.91225004,-0.60900986,0.57266283,0.08994253,-0.8554898,0.5635297,-0.7020941,-0.42297885,-0.9559866,0.13422617,-0.10848933,0.30282766,-0.0053661023,0.41499498,1.0245655
2025-07-21 14:12:42.305,0.5000000000000001,500,25,-0.019633567,0.011220005,0.23665,-0.019968793,-1.634576e-05,-0.039366193,0.0,0.0,0.0,-0.0137917055,0.09726058,-0.15635005,0.039300103,-0.049857747,-0.009144278,-0.07115806,0.08426815,0.20674255,0.07179571,-0.08750258,-0.038192745,0.06758297,0.054521408,-0.02999684,0.055231534,-0.09614822,-0.13119476,-0.004101278,-0.027466673,-0.12341074,-0.020853413,0.010124248,0.049674947,-0.04860437,0.08994253,-0.8554898,0.5635297,-0.7020941,-0.42297885,-0.9559866,0.13422617,-0.10848933,0.30282766,-0.0053661023,0.41499498,1.0245655,0.53513056,0.15737927,1.238378,-0.030089578,0.40904248,0.06651682,0.06114451,0.85450935,0.17445716,-1.0361603,-1.6806858,0.9173621
2025-07-21 14:12:42.328,0.5200000000000001,520,26,0.025101004,0.1286357,-0.16883725,-0.021883285,0.029740576,0.048588455,0.0,0.0,0.0,-0.015160316,0.08588081,-0.16847517,0.0618642,-0.038356382,0.010663054,-0.06183187,0.05484568,0.22254887,0.05936425,-0.113663614,-0.05675944,0.08739578,0.06268904,0.055589464,-0.02088014,-0.009930986,0.11170707,0.02696969,-0.07886179,0.14005533,-0.029413471,-0.08982095,0.020069998,-0.0145207755,0.53513056,0.15737927,1.238378,-0.030089578,0.40904248,0.06651682,0.06114451,0.85450935,0.17445716,-1.0361603,-1.6806858,0.9173621,-0.6308293,-1.168722,0.29182708,-0.6691003,-0.41954315,-0.27704525,0.46738032,-0.49324933,0.33878365,0.6914612,0.2212127,0.44732988
2025-07-21 14:12:42.343,0.5400000000000001,540,27,-0.15236504,-0.0023990187,0.20146479,0.029707242,0.027800253,-0.034680396,0.0,0.0,0.0,-0.015234523,0.08137749,-0.18746293,0.06112889,-0.061481673,0.00029670942,-0.057450175,0.06004242,0.18106136,0.050687574,-0.100991234,-0.04006273,0.066367105,-0.051291853,-0.087774836,0.039068967,-0.070227556,-0.010495766,0.032435138,0.04396346,-0.14463994,-0.06236251,0.0002604264,0.109741636,-0.022825472,-0.6308293,-1.168722,0.29182708,-0.6691003,-0.41954315,-0.27704525,0.46738032,-0.49324933,0.33878365,0.6914612,0.2212127,0.44732988,0.77826494,0.5533674,0.6616869,-0.36610565,-0.2817812,-0.5397768,0.89617693,0.83927053,0.1452291,-0.6518227,-1.0105047,0.5838038
2025-07-21 14:12:42.363,0.5600000000000002,560,28,0.02785697,-0.017129028,-0.12131343,0.00991786,0.022930158,-0.021493018,0.0,0.0,0.0,-0.016423067,0.091103405,-0.19452879,0.06358105,-0.06652522,-0.030568356,-0.059451967,0.08238153,0.17437051,0.055051595,-0.101618186,-0.058390286,0.06960525,0.09555456,0.06746575,-0.029338125,0.034492552,-0.06803474,-0.061771754,0.04597098,0.029981498,0.0008819651,0.0010088563,-0.0031514002,0.013862431,0.77826494,0.5533674,0.6616869,-0.36610565,-0.2817812,-0.5397768,0.89617693,0.83927053,0.1452291,-0.6518227,-1.0105047,0.5838038,-0.25088066,-0.87668306,0.14059001,-0.6763756,-0.21391277,-0.12049419,0.7255474,-0.10721775,0.6965075,0.35433525,0.033817183,0.5999568
2025-07-21 14:12:42.384,0.5800000000000002,580,29,-0.11614317,0.013453733,0.15058811,-0.019442653,0.055775527,0.044974703,0.0,0.0,0.0,-0.016629642,0.08592958,-0.2159922,0.056510534,-0.07187477,-0.038086206,-0.04842687,0.09471882,0.15059592,0.05709476,-0.09258176,-0.058186214,0.065194815,-0.007318026,-0.11034388,-0.065618984,-0.07738831,0.013052731,-0.014147223,-0.020551328,-0.17171606,-0.01395885,0.05485161,0.07990293,0.009966528,-0.25088066,-0.87668306,0.14059001,-0.6763756,-0.21391277,-0.12049419,0.7255474,-0.10721775,0.6965075,0.35433525,0.033817183,0.5999568,0.438246,0.22563416,0.52453387,-0.37207744,-0.06271344,-0.2761518,0.70299494,1.305798,0.5842204,-0.39404842,-0.5191914,0.32449216
2025-07-21 14:12:42.405,0.6000000000000002,600,30,0.15258978,-0.08091081,-0.118442014,0.004676562,0.051820233,0.0073137116,0.0,0.0,0.0,-0.018219793,0.07699426,-0.21324356,0.048598945,-0.07079025,-0.043346107,-0.057011064,0.09769303,0.1739238,0.065534584,-0.07788335,-0.054160986,0.06667211,-0.044098172,-0.028277673,0.00060836197,0.0007203142,-0.058048338,-0.00062402384,-0.01169576,0.2255569,0.05373124,-0.0759747,-0.08619755,-0.011670589,0.438246,0.22563416,0.52453387,-0.37207744,-0.06271344,-0.2761518,0.70299494,1.305798,0.5842204,-0.39404842,-0.5191914,0.32449216,-0.1436053,-0.21612972,0.6331746,-0.7343812,0.25784054,-0.53778255,0.40434647,-0.37649924,0.78414917,0.30827823,0.95346385,1.4140095
2025-07-21 14:12:42.427,0.6200000000000002,620,31,0.20697482,0.10402105,0.04885008,-0.030294942,0.0036247538,-0.025721986,0.0,0.0,0.0,-0.018639129,0.081043966,-0.19899146,0.035416853,-0.082792394,-0.024663819,-0.057607565,0.10010802,0.18659934,0.07281823,-0.08907334,-0.058494557,0.073232576,-0.07475809,0.06825751,-0.021676473,-0.07773641,0.089001074,0.008171069,-0.051711172,-0.16413435,0.045752857,0.021999061,0.10891265,0.030131169,-0.1436053,-0.21612972,0.6331746,-0.7343812,0.25784054,-0.53778255,0.40434647,-0.37649924,0.78414917,0.30827823,0.95346385,1.4140095,-0.16396493,-0.5948828,0.53245956,-0.5426264,-0.87732303,0.27357614,0.25018367,0.024227478,0.07259049,-0.43518457,-0.6863684,0.25372973
2025-07-21 14:12:42.447,0.6400000000000002,640,32,-0.08521438,0.04342955,0.007477544,-0.0059320545,0.08149215,0.031016521,0.0,0.0,0.0,-0.019111374,0.0669539,-0.19749644,0.04174822,-0.08678065,-0.054739907,-0.041278347,0.0812457,0.16258371,0.07319352,-0.08605552,-0.060368888,0.08351949,-0.006309603,0.033704635,0.020774418,0.06621318,-0.08361919,0.038524814,-0.022584641,-0.045357123,-0.06302217,0.04513279,-0.04214621,-0.04404365,-0.16396493,-0.5948828,0.53245956,-0.5426264,-0.87732303,0.27357614,0.25018367,0.024227478,0.07259049,-0.43518457,-0.6863684,0.25372973,0.65586627,-0.27364534,0.20982747,-0.49288896,0.1649041,-0.52363575,0.7806199,0.49104962,0.8331635,0.031554848,0.110797495,0.57841164
2025-07-21 14:12:42.465,0.6600000000000003,660,33,0.16445076,-0.059192628,0.041598927,-0.05903646,0.044981968,-0.016682137,0.0,0.0,0.0,-0.02034466,0.07012776,-0.19575514,0.041743778,-0.07042886,-0.043448973,-0.047337703,0.10363339,0.16467485,0.07950937,-0.08082008,-0.05355596,0.07774853,0.0633603,0.011445483,-0.09189405,-0.0100650955,0.1138321,0.03333749,0.07888248,-0.02761166,-0.025488172,-0.028974619,0.08651094,-0.03015096,0.65586627,-0.27364534,0.20982747,-0.49288896,0.1649041,-0.52363575,0.7806199,0.49104962,0.8331635,0.031554848,0.110797495,0.57841164,-0.101331785,-0.3370778,0.894559,-0.3255736,-0.7028483,0.04714632,0.609281,0.43156168,0.33148018,0.021190703,-0.5718015,-0.00855016
2025-07-21 14:12:42.485,0.6800000000000003,680,34,-0.05948041,0.010062689,-0.057372913,-0.0072943596,0.04357206,0.037429165,0.0,0.0,0.0,-0.020994969,0.08023221,-0.2003926,0.04341622,-0.06895458,-0.07150778,-0.03312311,0.09700566,0.16424002,0.05946208,-0.06396609,-0.053559743,0.055018533,-0.03759728,-0.06798932,0.048015155,0.03149446,-0.034430686,0.006010563,0.051703416,0.081645,-0.009138806,0.043194696,0.022220166,-0.061019164,-0.101331785,-0.3370778,0.894559,-0.3255736,-0.7028483,0.04714632,0.609281,0.43156168,0.33148018,0.021190703,-0.5718015,-0.00855016,0.091438904,0.2828111,0.4564925,-0.57790864,0.05847595,-0.5453036,0.6664355,-0.2322137,0.55011296,0.3452265,0.30195126,0.7544276
2025-07-21 14:12:42.511,0.7000000000000003,700,35,-0.041647535,0.053981118,0.13474685,-0.022716958,0.03557382,-0.033182345,0.0,0.0,0.0,-0.020372372,0.07201258,-0.16818585,0.043084215,-0.08715804,-0.062439725,-0.04971277,0.10356057,0.14693081,0.067230076,-0.056644183,-0.045946438,0.053327963,0.02243496,0.0570318,0.05413102,0.035059314,0.08243352,0.028738322,-0.041948568,-0.01965763,-0.010499989,0.024561496,0.024323596,0.003700149,0.091438904,0.2828111,0.4564925,-0.57790864,0.05847595,-0.5453036,0.6664355,-0.2322137,0.55011296,0.3452265,0.30195126,0.7544276,0.55661255,-0.16824931,0.75994265,-0.5581491,-0.3484841,-0.15077454,0.30052096,0.50072753,0.08337044,-0.48075432,-0.6678794,0.14611548
2025-07-21 14:12:42.528,0.7200000000000003,720,36,-0.07021907,-0.0041220253,-0.096006125,0.006478844,0.023954991,0.007485013,0.0,0.0,0.0,-0.02145614,0.07191228,-0.1519794,0.04525413,-0.08944084,-0.091423586,-0.046158817,0.08223409,0.1513755,0.056943033,-0.070915036,-0.05677224,0.051097114,0.0775295,0.011759003,0.07555226,-0.028615804,-0.04917251,0.079453364,-0.09575031,0.0076590376,-0.023747282,0.02723651,0.0081119565,0.063165925,0.55661255,-0.16824931,0.75994265,-0.5581491,-0.3484841,-0.15077454,0.30052096,0.50072753,0.08337044,-0.48075432,-0.6678794,0.14611548,-0.3506282,-0.5757953,0.39648762,-0.40401635,0.17318596,0.01073426,0.7541632,0.2655209,0.78205687,0.27958518,-0.069440365,0.45341587
2025-07-21 14:12:42.545,0.7400000000000003,740,37,-0.048702247,0.010840941,0.08908157,-0.038433757,0.05558392,-0.022315783,0.0,0.0,0.0,-0.021016104,0.05850062,-0.16883221,0.049355127,-0.077003255,-0.06298769,-0.039503463,0.08943074,0.15860656,0.08113388,-0.05354753,-0.055711135,0.06034725,-0.041823085,0.003758371,0.07457565,-0.06710516,-0.009625914,0.0091011515,0.031261537,0.012377255,0.030826727,0.06850212,-0.0057331915,0.03749393,-0.3506282,-0.5757953,0.39648762,-0.40401635,0.17318596,0.01073426,0.7541632,0.2655209,0.78205687,0.27958518,-0.069440365,0.45341587,0.6651797,-0.044189516,0.55011684,-0.28473598,0.2894122,-0.35519862,0.504724,0.4827301,0.5452219,-0.26174098,0.09854244,0.29828095
2025-07-21 14:12:42.564,0.7600000000000003,760,38,0.02801557,0.08565142,-0.042750917,-0.014852351,0.008326447,0.018792773,0.0,0.0,0.0,-0.02195232,0.07662444,-0.14566639,0.04752817,-0.081896625,-0.03211236,-0.04828181,0.10441091,0.15389892,0.07607224,-0.065502755,-0.04377509,0.044895984,0.028194316,0.053738613,0.0085822875,0.083874054,0.021194452,0.029811779,0.018604578,-0.024747266,0.052657068,-0.039369296,-0.034689408,0.028862506,0.6651797,-0.044189516,0.55011684,-0.28473598,0.2894122,-0.35519862,0.504724,0.4827301,0.5452219,-0.26174098,0.09854244,0.29828095,-0.05763268,-0.8317992,0.50622344,-0.28608766,-0.006648412,-0.09500283,0.6216596,0.76851165,0.59142816,0.120773435,0.2232893,0.15262747
2025-07-21 14:12:42.584,0.7800000000000004,780,39,-0.05711509,0.030415658,0.20603594,-0.007208236,0.006534103,-0.006920988,0.0,0.0,0.0,-0.023015164,0.06287208,-0.1656424,0.042817075,-0.07411472,-0.02994205,-0.03740184,0.103121676,0.18093608,0.07218624,-0.051169313,-0.008809085,0.034669757,0.0636065,-0.13151152,-0.008873992,0.036252495,0.0150342975,-0.0113079585,-0.0058234194,0.07218487,-0.053474475,0.030780153,0.0029844416,-0.023956738,-0.05763268,-0.8317992,0.50622344,-0.28608766,-0.006648412,-0.09500283,0.6216596,0.76851165,0.59142816,0.120773435,0.2232893,0.15262747,0.96938413,0.9532747,1.1614805,-0.42370853,-0.23444007,-0.8497852,-0.012192065,0.5483363,0.56853575,-0.58773446,-0.5337799,1.0144165
2025-07-21 14:12:42.611,0.8000000000000004,800,40,-0.08353793,-0.047674276,-0.13128532,0.0110990275,-0.0074124485,-0.021444501,0.0,0.0,0.0,-0.024941297,0.08553871,-0.15689415,0.05210342,-0.07181197,-0.03299659,-0.0607579,0.08000012,0.19574115,0.08911504,-0.06391906,-0.025520513,0.055031393,0.07506552,0.063975565,-0.037457906,-0.03669716,-0.101736635,0.019550385,-0.10840118,0.04291958,0.048693668,0.0024269873,-0.06753511,0.10462374,0.96938413,0.9532747,1.1614805,-0.42370853,-0.23444007,-0.8497852,-0.012192065,0.5483363,0.56853575,-0.58773446,-0.5337799,1.0144165,-0.37963876,-0.8914455,0.49260986,-0.89456207,-0.14853503,-0.10375297,0.3695225,-0.15440327,0.4144425,0.15583356,-0.581816,0.9789057
2025-07-21 14:12:42.631,0.8200000000000004,820,41,-0.23616752,-0.05656172,0.17074206,-0.0054202466,-0.00061914825,0.038370293,0.0,0.0,0.0,-0.024411466,0.09221943,-0.18387665,0.066900894,-0.076928444,-0.03216579,-0.05196234,0.0683094,0.16513248,0.08058739,-0.06446869,-0.06417274,0.064718805,0.006482593,-0.08889304,0.074136466,0.017435824,-0.055903655,0.033487137,-0.022095183,-0.14057542,0.022655265,0.0716007,-0.03460721,0.016930401,-0.37963876,-0.8914455,0.49260986,-0.89456207,-0.14853503,-0.10375297,0.3695225,-0.15440327,0.4144425,0.15583356,-0.581816,0.9789057,1.0066428,0.6120026,1.07555,-0.4404938,0.40275496,-0.62169373,0.44089082,0.9038672,0.68858284,-0.76073164,-0.37157515,0.98900545
2025-07-21 14:12:42.649,0.8400000000000004,840,42,0.06845475,0.03105023,-0.12006356,-0.01998215,-0.01780032,0.0037580018,0.0,0.0,0.0,-0.0247284,0.0979719,-0.17953171,0.06528692,-0.09192868,-0.008961582,-0.053597324,0.06711889,0.18405928,0.073400036,-0.067269206,-0.07655546,0.07756875,0.10722942,0.01883833,0.058746576,0.061619464,0.10673531,-0.033813227,0.020213794,0.06404324,-0.008525122,-0.050887503,0.010132327,0.04880379,1.0066428,0.6120026,1.07555,-0.4404938,0.40275496,-0.62169373,0.44089082,0.9038672,0.68858284,-0.76073164,-0.37157515,0.98900545,-0.26470762,-0.8352984,0.7135445,-0.49093512,-0.4209712,-0.37485623,0.32709464,-0.16804627,0.31113246,0.04204166,0.1178561,0.38556868
2025-07-21 14:12:42.669,0.8600000000000004,860,43,-0.07674735,0.12162282,0.14811017,0.018406507,-0.031253014,-0.03484516,0.0,0.0,0.0,-0.024847519,0.0953222,-0.16506724,0.07028108,-0.08782863,-0.018377453,-0.04972466,0.064380884,0.15108788,0.086222984,-0.06765048,-0.07478738,0.078261666,-0.020633418,-0.080687396,0.03925681,0.029206458,-0.029186,0.01948754,0.049695216,-0.14847407,-0.04308097,-0.017343728,0.015772728,-0.020809025,-0.26470762,-0.8352984,0.7135445,-0.49093512,-0.4209712,-0.37485623,0.32709464,-0.16804627,0.31113246,0.04204166,0.1178561,0.38556868,0.8426447,0.40008056,1.1369998,0.0026496295,0.21195538,-0.13567036,0.48760575,1.1917263,0.28457797,-0.669477,-0.70019907,0.53857017
2025-07-21 14:12:42.694,0.8800000000000004,880,44,0.17341717,-0.020883804,-0.11948748,0.02002305,0.045952592,0.032147992,0.0,0.0,0.0,-0.026305383,0.095747635,-0.17271106,0.07740492,-0.08348977,-0.01638948,-0.056638032,0.06925159,0.175909,0.080985,-0.07148179,-0.06590752,0.074393995,0.070250995,-0.0010617531,-0.05770434,0.10379849,0.037360813,0.058685023,-0.05128458,0.11143855,0.02077326,-0.016663555,-0.06882267,0.07974568,0.8426447,0.40008056,1.1369998,0.0026496295,0.21195538,-0.13567036,0.48760575,1.1917263,0.28457797,-0.669477,-0.70019907,0.53857017,0.050652433,-0.58586794,0.32148817,-0.6804805,-0.1440234,-0.26426202,0.4957505,0.13936284,0.21027449,0.08845587,0.6043541,0.95365226
2025-07-21 14:12:42.713,0.9000000000000005,900,45,-0.0036949809,0.050428897,0.18016191,-0.05500518,-0.008756266,0.04775633,0.0,0.0,0.0,-0.026387392,0.101356596,-0.16794924,0.079199255,-0.081160545,-0.01694216,-0.05651981,0.067804545,0.18118507,0.06893412,-0.06612485,-0.048761256,0.086303845,-0.08812706,0.022055248,-0.082833,-0.003495603,-0.06259762,-0.00094678765,0.020718234,0.00094464654,0.034912404,0.04518351,0.06919302,0.06727094,0.050652433,-0.58586794,0.32148817,-0.6804805,-0.1440234,-0.26426202,0.4957505,0.13936284,0.21027449,0.08845587,0.6043541,0.95365226,0.6070799,-0.07773304,1.0222281,-0.37213948,-0.03702443,-0.061825275,0.43469024,0.60187215,-0.35595915,-0.63153064,-1.5366426,0.79622364
2025-07-21 14:12:42.728,0.9200000000000005,920,46,0.033062864,0.055412702,-0.1103311,-0.01796136,0.026412448,0.0046375613,0.0,0.0,0.0,-0.027722029,0.1048233,-0.15121141,0.08496324,-0.070077166,-0.026169779,-0.054313943,0.06294041,0.18462342,0.05017636,-0.07752394,-0.044459272,0.09520884,-0.00048968353,0.0749729,-0.02977237,0.07446772,-0.033343397,0.016073873,0.020199576,-0.007976574,-0.09876685,-0.028269563,0.05349602,-0.013465639,0.6070799,-0.07773304,1.0222281,-0.37213948,-0.03702443,-0.061825275,0.43469024,0.60187215,-0.35595915,-0.63153064,-1.5366426,0.79622364,-0.27916133,-1.0077767,0.07859417,-0.6319645,-0.29838988,0.06837708,1.0913837,-0.0018558726,0.032000683,0.44260332,-0.5609383,0.22279224
2025-07-21 14:12:42.752,0.9400000000000005,940,47,-0.24056076,-0.07298206,0.08158384,0.011608303,0.06240944,-0.04906687,0.0,0.0,0.0,-0.02806976,0.10479404,-0.16036254,0.07651171,-0.07629387,-0.04480948,-0.041459695,0.09365509,0.14999579,0.031207772,-0.07680338,-0.07453974,0.08497399,-0.083851375,-0.058589887,0.011285791,-0.0065473965,-0.03236577,0.06568049,0.011210387,-0.083378494,-0.031690117,0.06645327,-0.040868238,-0.08180584,-0.27916133,-1.0077767,0.07859417,-0.6319645,-0.29838988,0.06837708,1.0913837,-0.0018558726,0.032000683,0.44260332,-0.5609383,0.22279224,0.84511703,0.21521395,0.5016158,-0.28179026,-0.053846143,-0.42742282,1.037563,0.7209147,0.45997933,-0.37060827,0.3685166,0.87301785
2025-07-21 14:12:42.772,0.9600000000000005,960,48,0.13871157,-0.06299076,-0.03166142,0.035070717,0.047714658,-0.0212551,0.0,0.0,0.0,-0.028274216,0.11140947,-0.1539933,0.06624059,-0.07118468,-0.037444524,-0.03309951,0.10680313,0.16433138,0.05283129,-0.070621096,-0.062014,0.084849425,0.029350735,0.062773116,-0.07296953,-0.039364543,0.05048444,-0.05815568,0.025683615,0.08811906,0.009061051,0.035959955,0.13173366,0.06607208,0.84511703,0.21521395,0.5016158,-0.28179026,-0.053846143,-0.42742282,1.037563,0.7209147,0.45997933,-0.37060827,0.3685166,0.87301785,-0.37523693,-0.5750355,0.5458362,-0.47360346,-0.7548726,-0.32476383,0.63874626,-0.08780854,0.3924332,0.030406773,-0.8812283,0.34614542
2025-07-21 14:12:42.794,0.9800000000000005,980,49,-0.18340617,0.02512598,0.059243005,0.048989177,-0.018165784,-0.007936626,0.0,0.0,0.0,-0.028578589,0.108557165,-0.16011153,0.062383067,-0.075632185,-0.07351176,-0.04373354,0.101319626,0.14749627,0.05550192,-0.06032018,-0.05743406,0.07342997,0.02650431,-0.09998653,0.020405717,-0.030968368,-0.04858601,0.0007480566,-0.056276318,-0.030883878,0.06418464,0.09135348,-0.06903739,0.0007615515,-0.37523693,-0.5750355,0.5458362,-0.47360346,-0.7548726,-0.32476383,0.63874626,-0.08780854,0.3924332,0.030406773,-0.8812283,0.34614542,0.8878363,0.22086084,0.5569319,-0.2682032,0.5267222,-0.96908236,0.3391688,0.20669901,1.2021003,-0.40414,0.3243974,1.1124251
2025-07-21 14:12:42.812,1.0000000000000004,1000,50,0.19006982,0.0012692638,0.072777405,-0.038278863,0.06454338,0.033012453,0.0,0.0,0.0,-0.029476896,0.104233146,-0.15409896,0.054293424,-0.06983233,-0.048601486,-0.055592857,0.10828495,0.13390455,0.07934899,-0.081607334,-0.034867726,0.08073847,0.037814155,0.1382728,-0.047356635,-0.049678866,0.066237286,0.016684918,0.050833955,0.026804352,-0.015636211,-0.061298072,0.016978674,0.0021303697,0.8878363,0.22086084,0.5569319,-0.2682032,0.5267222,-0.96908236,0.3391688,0.20669901,1.2021003,-0.40414,0.3243974,1.1124251,-0.076747194,-0.6622468,0.91590047,-0.45790908,-1.0461247,-0.020344853,0.04929749,0.43788606,0.30845648,-0.5445445,-0.89055425,0.63362783
2025-07-21 14:12:42.829,1.0200000000000005,1020,51,-0.12956886,0.08029274,-0.027377388,-0.032149926,0.056906354,-0.024299571,0.0,0.0,0.0,-0.030016791,0.10969042,-0.14159359,0.07320701,-0.079986855,-0.059089117,-0.05217927,0.08912198,0.14635402,0.07047682,-0.076310836,-0.028455269,0.08219895,-0.041462865,-0.044237874,0.0047664996,0.010747847,-0.12005921,-0.0191247,-0.103014305,0.06111033,-0.060571592,-0.012051094,-0.08020569,-0.019049251,-0.076747194,-0.6622468,0.91590047,-0.45790908,-1.0461247,-0.020344853,0.04929749,0.43788606,0.30845648,-0.5445445,-0.89055425,0.63362783,0.51776403,-0.111459374,0.25437748,-0.38277635,0.5002995,-0.65270877,0.64342964,0.37099782,0.6397297,0.081219316,0.23817731,1.082048
2025-07-21 14:12:42.849,1.0400000000000005,1040,52,0.17128591,0.026325949,0.10204764,-0.037512247,0.06091001,-0.027845928,0.0,0.0,0.0,-0.03006988,0.10923963,-0.13744473,0.049211487,-0.080728754,-0.05398832,-0.05484123,0.07972417,0.14850757,0.08150686,-0.06681219,-0.029633652,0.08982804,-0.03993399,0.08003951,-0.030145496,-0.060289256,0.12936266,-0.073529534,-0.060752045,0.02105334,0.018915657,-0.016330525,0.06416702,-0.05993999,0.51776403,-0.111459374,0.25437748,-0.38277635,0.5002995,-0.65270877,0.64342964,0.37099782,0.6397297,0.081219316,0.23817731,1.082048,0.29405466,-0.6951575,0.98489034,-0.52685136,-0.82019603,-0.4299263,0.5748937,0.951325,-0.11608467,-0.6219005,-0.78801525,0.29687062
2025-07-21 14:12:42.869,1.0600000000000005,1060,53,-0.15567881,-0.003861533,-0.031693775,-0.049402073,0.005734984,0.010013165,0.0,0.0,0.0,-0.030934224,0.10145884,-0.13496807,0.066667736,-0.088039026,-0.0772674,-0.0614843,0.077667,0.18191533,0.0636309,-0.08286075,-0.019514147,0.096041225,-0.046747927,-0.059064187,-0.012157858,0.0072440347,-0.17497133,0.025069216,0.030201722,0.07194538,-0.06328439,-0.085311234,-0.04626478,0.029504696,0.29405466,-0.6951575,0.98489034,-0.52685136,-0.82019603,-0.4299263,0.5748937,0.951325,-0.11608467,-0.6219005,-0.78801525,0.29687062,0.24402075,-0.09426832,0.41213915,-0.28735363,0.62331766,-0.36565697,0.6258928,0.33587778,0.47974467,0.030777842,-0.41231164,1.3153713
2025-07-21 14:12:42.894,1.0800000000000005,1080,54,0.031159325,-0.010052643,0.013181878,0.012238791,-0.023618577,-0.049540527,0.0,0.0,0.0,-0.030819478,0.111572385,-0.14696716,0.05456136,-0.06842953,-0.06840659,-0.060695983,0.08392507,0.18850492,0.066434875,-0.08635376,-0.042143125,0.109825544,0.0063062296,0.081815034,0.0036395562,0.029503152,0.17532933,0.026533334,0.029544463,-0.060188588,-0.044101205,-0.02233498,-0.058693297,-0.010477129,0.24402075,-0.09426832,0.41213915,-0.28735363,0.62331766,-0.36565697,0.6258928,0.33587778,0.47974467,0.030777842,-0.41231164,1.3153713,0.46392992,-0.9266051,0.7068639,-0.39291212,-0.4715392,-0.68950033,0.6475414,0.58346885,-0.1549449,-0.42456317,0.20363538,0.63340497
2025-07-21 14:12:42.911,1.1000000000000005,1100,55,0.008584106,0.102276765,0.11086038,-0.026783977,0.06581867,-0.006244372,0.0,0.0,0.0,-0.030646114,0.11249164,-0.15016183,0.06600134,-0.06095636,-0.059486162,-0.07894635,0.0944079,0.18239768,0.039643545,-0.08450662,-0.040012583,0.098119296,0.015354994,-0.12413781,-0.029561484,-0.039035648,-0.0058307173,-0.077507555,0.002549194,0.04421136,-0.10101099,-0.054132536,0.0448543,-0.01754656,0.46392992,-0.9266051,0.7068639,-0.39291212,-0.4715392,-0.68950033,0.6475414,0.58346885,-0.1549449,-0.42456317,0.20363538,0.63340497,0.48719484,0.24155611,1.2933875,-0.35839838,-0.13779752,-0.25691152,0.7214153,0.90017945,0.23583978,-0.2437231,-0.96539956,0.77363694
2025-07-21 14:12:42.930,1.1200000000000006,1120,56,0.028122058,0.013656032,-0.070535816,-0.008840646,-0.021582196,0.018592311,0.0,0.0,0.0,-0.030862853,0.10895935,-0.17362092,0.075331524,-0.07169825,-0.061728533,-0.06755988,0.100630865,0.2218266,0.0376086,-0.09305669,-0.028926272,0.09402094,0.006604536,0.06340826,0.014652957,-0.043960482,0.05179157,-0.05786492,-0.04002919,0.101885796,0.03379249,-0.013006903,-0.036265258,-0.0381398,0.48719484,0.24155611,1.2933875,-0.35839838,-0.13779752,-0.25691152,0.7214153,0.90017945,0.23583978,-0.2437231,-0.96539956,0.77363694,0.009897519,-0.6969799,0.2581332,-0.64000905,-0.10693284,-0.4271193,0.47063515,-0.1215081,0.4683194,0.06649622,-0.027109686,0.46394545
2025-07-21 14:12:42.951,1.1400000000000006,1140,57,-0.0693489,0.03109034,0.139067,-0.037694123,0.036049508,-0.018162474,0.0,0.0,0.0,-0.030178424,0.09925936,-0.19514439,0.06945042,-0.08174042,-0.0685111,-0.06860218,0.08759441,0.19009519,0.045679674,-0.0748828,-0.027605223,0.08287616,0.015882071,-0.054343946,-0.013591503,-0.0141163245,-0.00025374818,0.06003794,-0.036910396,-0.08252569,0.0718675,0.06823578,-0.012633778,0.044623144,0.009897519,-0.6969799,0.2581332,-0.64000905,-0.10693284,-0.4271193,0.47063515,-0.1215081,0.4683194,0.06649622,-0.027109686,0.46394545,0.694879,0.19664371,0.896768,-0.27121317,0.3022992,-0.34240785,0.4445176,0.74571806,0.5863216,-0.4321447,-0.6184004,0.55133665
2025-07-21 14:12:42.976,1.1600000000000006,1160,58,0.11693311,-0.01244745,-0.10035434,-0.051194936,0.06650564,0.047988817,0.0,0.0,0.0,-0.030834693,0.10261436,-0.19416565,0.060877588,-0.077571504,-0.043224268,-0.07242119,0.09209623,0.19815178,0.06426419,-0.091009595,-0.03689746,0.089005075,0.04648713,0.103222154,0.03258798,0.01513314,0.06260822,0.056395397,0.038399644,0.07784747,0.03396283,0.02655125,-0.020629711,-0.039897304,0.694879,0.19664371,0.896768,-0.27121317,0.3022992,-0.34240785,0.4445176,0.74571806,0.5863216,-0.4321447,-0.6184004,0.55133665,-0.15209718,-0.7431252,0.41213712,-0.5414816,-0.20699364,-0.012187719,0.5086246,-0.07308089,0.16076255,0.23629323,0.16701938,0.14331031
2025-07-21 14:12:42.994,1.1800000000000006,1180,59,-0.07877389,-0.043875504,0.06688303,0.026703043,0.036068395,0.04738744,0.0,0.0,0.0,-0.030121714,0.10123384,-0.18643437,0.07715256,-0.08362596,-0.03288555,-0.04737719,0.09374846,0.17590667,0.048031207,-0.06451473,-0.03819296,0.07419706,-0.07506088,0.023289436,-0.023286587,-0.028477684,-0.07691905,-0.008185231,-0.06638985,-0.115096934,-0.045906264,-0.014692419,0.09528251,-0.06882106,-0.15209718,-0.7431252,0.41213712,-0.5414816,-0.20699364,-0.012187719,0.5086246,-0.07308089,0.16076255,0.23629323,0.16701938,0.14331031,0.3579483,-0.09285474,0.6162423,-0.28298062,0.073056825,0.15809017,0.95994157,0.9277588,0.068971656,-0.2960759,-1.0147148,-0.07197135
2025-07-21 14:12:43.012,1.2000000000000006,1200,60,0.15727963,0.020835279,-0.15527305,0.012583286,0.0046826066,-0.033900086,0.0,0.0,0.0,-0.03018263,0.107154675,-0.19085494,0.06183367,-0.0660158,-0.022061085,-0.03879479,0.09099884,0.18207724,0.04769586,-0.06665719,-0.018876415,0.06999329,0.07190202,-0.013742165,-0.03149044,0.025556156,0.073399335,0.04756813,-0.04917091,0.103044316,-0.059861105,-0.052794937,-0.0028270343,-0.028417801,0.3579483,-0.09285474,0.6162423,-0.28298062,0.073056825,0.15809017,0.95994157,0.9277588,0.068971656,-0.2960759,-1.0147148,-0.07197135,-0.6289843,-0.68219244,0.7928597,-0.41320854,-0.24494626,-0.17562741,0.92331624,-0.36189407,0.69655997,0.5232794,0.5972763,0.6638151
2025-07-21 14:12:43.030,1.2200000000000006,1220,61,-0.03573411,0.04798813,0.24779637,0.013144025,0.040514342,-0.032058693,0.0,0.0,0.0,-0.029717656,0.08137798,-0.1952389,0.06561875,-0.0711167,-0.036313962,-0.03797653,0.108179145,0.16968668,0.05369989,-0.06228622,-0.002929277,0.06341006,-0.024037937,-0.0014938681,-0.048730925,-0.055083062,-0.08369245,0.01252791,-0.009805528,-0.19822447,-0.038684074,0.007910225,0.15358977,-0.038378626,-0.6289843,-0.68219244,0.7928597,-0.41320854,-0.24494626,-0.17562741,0.92331624,-0.36189407,0.69655997,0.5232794,0.5972763,0.6638151,0.5552336,0.43315953,0.48605523,0.108529694,0.4962121,0.5527959,0.64934015,1.577241,0.04021784,-0.8723683,-1.9537469,0.0716256
2025-07-21 14:12:43.049,1.2400000000000007,1240,62,0.26174456,0.019044103,-0.02713906,-0.051257424,0.07107184,0.04178934,0.0,0.0,0.0,-0.031373717,0.07867293,-0.16850157,0.06851988,-0.06153316,-0.017320424,-0.027342176,0.118344486,0.1674057,0.04287402,-0.08196553,0.011892866,0.045540214,0.031671196,0.11682429,-0.007736926,0.009122788,0.058402885,-0.0076969084,0.03461693,0.121548876,-0.05875637,-0.022697318,0.08103002,-0.012147309,0.5552336,0.43315953,0.48605523,0.108529694,0.4962121,0.5527959,0.64934015,1.577241,0.04021784,-0.8723683,-1.9537469,0.0716256,-0.0050586276,-0.8928398,0.6570454,-0.52091086,-0.3874733,-0.2511811,0.34139615,-0.12617305,-0.03023813,0.31474268,-0.7141008,0.16780463
2025-07-21 14:12:43.069,1.2600000000000007,1260,63,-0.2247763,-0.07864052,0.040768087,0.022554608,0.026702702,-0.043418333,0.0,0.0,0.0,-0.032652482,0.07636882,-0.16397713,0.06453233,-0.06602149,-0.03288757,-0.018821515,0.09593741,0.17026275,0.03249822,-0.0579539,-0.027305914,0.055231396,0.020930026,-0.01240745,0.022287728,-0.032672115,-0.090331286,0.05928254,0.000165025,-0.16778308,0.01771379,0.077101305,-0.11401033,0.06879574,-0.0050586276,-0.8928398,0.6570454,-0.52091086,-0.3874733,-0.2511811,0.34139615,-0.12617305,-0.03023813,0.31474268,-0.7141008,0.16780463,0.72788495,0.16368198,0.5478473,-0.36255884,0.1922508,-0.4226426,0.83513653,0.8893203,0.80997735,-0.39485264,-0.0934515,0.9516018
2025-07-21 14:12:43.093,1.2800000000000007,1280,64,0.09474518,-0.009974733,-0.04611596,-0.014356141,0.025748743,-0.00035002473,0.0,0.0,0.0,-0.033373103,0.084537275,-0.15853342,0.063160874,-0.062029317,-0.019811979,-0.038174808,0.10387289,0.18133277,0.04497414,-0.06208142,-0.027339255,0.06374414,0.09930818,0.008074285,-0.043073144,0.07158524,0.03336586,-0.008185497,-0.01310199,0.1290956,0.08782626,-0.020434707,-0.0002771125,0.049990747,0.72788495,0.16368198,0.5478473,-0.36255884,0.1922508,-0.4226426,0.83513653,0.8893203,0.80997735,-0.39485264,-0.0934515,0.9516018,-0.018723767,-0.52324826,0.60569835,-0.6255168,-0.4389686,-0.5200681,0.43612194,-0.009096049,0.65276283,0.14567006,-0.12882128,0.6205957
2025-07-21 14:12:43.110,1.3000000000000007,1300,65,-0.06576465,-0.01848458,0.12689301,-0.041922554,0.024840152,-0.031608444,0.0,0.0,0.0,-0.033923008,0.08719243,-0.16891825,0.064020045,-0.073824316,-0.041741025,-0.03441465,0.108654454,0.16687931,0.05904428,-0.06289844,-0.038746644,0.0526753,0.045937587,0.043542635,0.0005922046,-0.023015779,-0.110625796,0.01728501,0.049245555,-0.05093209,0.045264833,0.07240182,0.021868197,0.013718062,-0.018723767,-0.52324826,0.60569835,-0.6255168,-0.4389686,-0.5200681,0.43612194,-0.009096049,0.65276283,0.14567006,-0.12882128,0.6205957,0.68970007,-0.088410735,0.8251132,-0.3120816,0.25020927,0.15115923,0.29196775,0.5010886,0.48341146,-0.6851622,-1.1131139,0.38733652
2025-07-21 14:12:43.130,1.3200000000000007,1320,66,0.020436795,-0.038183358,-0.14259061,-0.057327267,0.07196812,0.0035280646,0.0,0.0,0.0,-0.03516546,0.09428787,-0.14743567,0.05717276,-0.06513197,-0.014531611,-0.037020337,0.10209052,0.17499132,0.07111995,-0.07339829,-0.057321243,0.0704039,0.035598405,0.068240084,0.018533904,0.019247154,0.081986524,0.017357726,-0.010110599,-0.030999985,-0.05265373,-0.097225614,-0.12626524,-0.057309423,0.68970007,-0.088410735,0.8251132,-0.3120816,0.25020927,0.15115923,0.29196775,0.5010886,0.48341146,-0.6851622,-1.1131139,0.38733652,-0.17065932,-1.1802049,0.36838526,-0.4532095,-0.26485825,-0.19402766,0.71520203,0.19869545,0.6397811,0.5803234,1.2752979,0.8223652
2025-07-21 14:12:43.150,1.3400000000000007,1340,67,-0.13545796,0.034738358,0.20254171,-0.0062220176,0.021756193,-0.044996057,0.0,0.0,0.0,-0.034638233,0.097106606,-0.15823027,0.06437395,-0.058131497,-0.023782294,-0.039748188,0.09469402,0.15938826,0.066199295,-0.07074504,-0.04220185,0.060610957,0.014729803,-0.095288,0.024648897,0.0113455225,0.022739593,-0.024527615,0.012152764,-0.07168839,0.08363992,0.000147927,0.09698216,0.050734267,-0.17065932,-1.1802049,0.36838526,-0.4532095,-0.26485825,-0.19402766,0.71520203,0.19869545,0.6397811,0.5803234,1.2752979,0.8223652,0.6773024,0.3415854,1.2217203,-0.30992952,-0.5705428,-0.27799305,0.51364106,1.1517887,-0.003989078,-0.8729334,-0.95526975,0.810753
2025-07-21 14:12:43.174,1.3600000000000008,1360,68,-0.032098785,0.012118868,-0.10370538,0.0031316269,0.049297847,0.046149567,0.0,0.0,0.0,-0.03632844,0.09679291,-0.18222116,0.06861765,-0.063068904,-0.061699696,-0.026942194,0.083380744,0.20169087,0.05609392,-0.06900408,-0.062209643,0.066970006,-0.041181866,0.043067414,0.09047856,0.053318467,-0.13495006,-0.003058103,0.03977629,0.11510727,-0.07790592,-0.07829673,-0.11113581,0.05575333,0.6773024,0.3415854,1.2217203,-0.30992952,-0.5705428,-0.27799305,0.51364106,1.1517887,-0.003989078,-0.8729334,-0.95526975,0.810753,0.27495,-0.59118974,-0.0656229,-0.8171133,0.26965553,-0.62265384,0.4181473,0.03713072,0.6690547,-0.039397977,-0.021089617,1.143015
2025-07-21 14:12:43.196,1.3800000000000008,1380,69,-0.07763892,0.0024941377,0.13948444,0.00028077228,0.011027626,0.016518999,0.0,0.0,0.0,-0.03652367,0.08649365,-0.18891324,0.05463584,-0.07149753,-0.0592376,-0.034808528,0.090137996,0.19498372,0.07245554,-0.07508284,-0.06543807,0.07396831,-0.06780643,-0.054023966,-0.015579862,-0.06495242,0.099685036,-0.03654437,0.042408828,-0.07003219,0.0008096674,0.04628449,0.058692884,0.09441,0.27495,-0.59118974,-0.0656229,-0.8171133,0.26965553,-0.62265384,0.4181473,0.03713072,0.6690547,-0.039397977,-0.021089617,1.143015,0.41785425,-0.1376831,1.0533178,-0.5768408,-0.3378569,-0.3640381,0.12698627,0.47884384,0.55901057,-0.39037287,-0.82334906,0.6971184
2025-07-21 14:12:43.213,1.4000000000000008,1400,70,-0.03995975,-0.02206691,-0.1445691,0.014688548,-0.01180848,0.019334858,0.0,0.0,0.0,-0.037552368,0.0986598,-0.18385898,0.06208714,-0.08010991,-0.05525776,-0.04073505,0.07715877,0.18021537,0.0707105,-0.08660092,-0.07151675,0.092191055,0.048196502,0.043466926,0.026013512,0.04621486,-0.013522505,-0.030294256,0.005218871,0.07051923,0.053795125,-0.047244795,-0.032610286,0.08537455,0.41785425,-0.1376831,1.0533178,-0.5768408,-0.3378569,-0.3640381,0.12698627,0.47884384,0.55901057,-0.39037287,-0.82334906,0.6971184,-0.26748636,-0.64278996,0.37935436,-0.71402687,-0.0630221,-0.28542104,0.6000379,-0.38592434,0.7909332,0.41321993,0.38826603,0.8124988
2025-07-21 14:12:43.231,1.4200000000000008,1420,71,-0.037836183,0.046069168,0.12758775,0.037409756,-0.016733434,-0.03822061,0.0,0.0,0.0,-0.036526036,0.077144295,-0.19829433,0.058142155,-0.07942402,-0.048064146,-0.04694175,0.090924665,0.13099065,0.07779807,-0.06572322,-0.037163034,0.09441872,-0.02982613,0.04351273,-0.0054251417,-0.07246703,0.02689577,0.05068115,-0.008078127,-0.22187036,0.06267654,0.01557797,0.15263075,0.06401318,-0.26748636,-0.64278996,0.37935436,-0.71402687,-0.0630221,-0.28542104,0.6000379,-0.38592434,0.7909332,0.41321993,0.38826603,0.8124988,0.24040096,-0.24152797,0.62671983,-0.1168868,-0.0255106,0.5480412,0.33297062,1.2043457,0.50774413,-0.70656884,-1.277601,0.07897089
2025-07-21 14:12:43.250,1.4400000000000008,1440,72,0.14024548,0.06661092,-0.083209276,0.037417866,-0.031414185,-0.004606069,0.0,0.0,0.0,-0.037200928,0.07345077,-0.18573336,0.056623135,-0.073591605,-0.040521145,-0.03205921,0.07133229,0.14498879,0.07946239,-0.084791124,-0.027299603,0.06703015,0.045943644,0.01096897,0.062516205,0.01735946,-0.06337294,0.020159446,-0.0693532,0.16961727,0.034547374,0.024959238,0.02594563,-0.06954467,0.24040096,-0.24152797,0.62671983,-0.1168868,-0.0255106,0.5480412,0.33297062,1.2043457,0.50774413,-0.70656884,-1.277601,0.07897089,-0.0032284968,-0.44141918,0.38445243,-0.47051263,0.34664673,-0.44363317,0.60278124,-0.25557753,0.6760044,0.15087682,0.088248834,0.7481591
2025-07-21 14:12:43.275,1.4600000000000009,1460,73,-0.022682397,0.03630068,0.13558587,0.021947159,0.04088221,0.003176001,0.0,0.0,0.0,-0.03675255,0.07632606,-0.18881984,0.057648413,-0.087182574,-0.021049164,-0.02902023,0.07637966,0.13489343,0.08488386,-0.072659,-0.035095654,0.06451401,-0.06770178,-0.058496952,-0.0077744485,-0.08248059,0.03801622,-0.08108155,0.023511352,-0.09237853,-0.043874826,0.0637228,0.021377971,-0.033688888,-0.0032284968,-0.44141918,0.38445243,-0.47051263,0.34664673,-0.44363317,0.60278124,-0.25557753,0.6760044,0.15087682,0.088248834,0.7481591,0.7311736,0.09382498,0.75105876,-0.2673208,-0.003219178,-0.23565203,0.5167113,1.1099986,0.28879777,-0.5219106,-0.420078,0.38181484
2025-07-21 14:12:43.294,1.4800000000000009,1480,74,0.09321347,-0.032006238,-0.17168017,-0.000265036,0.0577041,-0.0059444793,0.0,0.0,0.0,-0.038228564,0.07987659,-0.17318788,0.061570484,-0.07391831,-0.022661306,-0.028863125,0.082337014,0.16517453,0.07174729,-0.081353866,-0.027288608,0.07104765,-0.038527064,0.038211774,-0.0059911786,0.077629544,-0.0594407,-0.052734006,-0.018704558,0.1674143,0.059611466,-0.09228266,-0.012451534,-0.029805947,0.7311736,0.09382498,0.75105876,-0.2673208,-0.003219178,-0.23565203,0.5167113,1.1099986,0.28879777,-0.5219106,-0.420078,0.38181484,-0.40131018,-0.7231537,0.15083617,-0.63690794,0.20887603,-0.3284793,0.7019865,-0.21841225,0.59201956,0.41617987,0.10405646,0.726653
2025-07-21 14:12:43.310,1.5000000000000009,1500,75,-0.102495626,0.03097668,0.21158014,0.011275049,-0.024549285,0.022006134,0.0,0.0,0.0,-0.03801877,0.06841125,-0.16144463,0.050307415,-0.079852596,-0.0052096043,-0.04775965,0.09637114,0.15576795,0.081301354,-0.06366997,-0.02395893,0.08099541,-0.056650743,-0.069346644,-0.018148404,0.026972683,0.10856419,0.024053229,-0.04018168,-0.12123016,-0.05229812,-0.021492947,0.025628451,0.0392707,-0.40131018,-0.7231537,0.15083617,-0.63690794,0.20887603,-0.3284793,0.7019865,-0.21841225,0.59201956,0.41617987,0.10405646,0.726653,0.7831219,0.13826418,0.7762449,-0.30106038,-0.252544,-0.36282003,0.32268322,1.0166397,0.22831771,-0.82206714,-0.61682814,0.2732202
2025-07-21 14:12:43.330,1.520000000000001,1520,76,0.03586829,-0.042998094,-0.17354932,-0.038470272,0.025139071,0.0005471274,0.0,0.0,0.0,-0.039632633,0.080313765,-0.17264788,0.052634265,-0.07247459,-0.021352915,-0.038977366,0.075311676,0.16495952,0.07831296,-0.08525504,-0.05079395,0.06540711,0.04611068,0.12638311,0.029001866,-0.039852172,-0.08985031,-0.029544508,0.034420963,0.117321,-0.07548058,-0.095230654,-0.12988295,-0.07164002,0.7831219,0.13826418,0.7762449,-0.30106038,-0.252544,-0.36282003,0.32268322,1.0166397,0.22831771,-0.82206714,-0.61682814,0.2732202,-0.1814367,-0.9995885,-0.046579577,-0.50494134,0.15423898,-0.2504983,0.6374027,0.10270242,0.7315532,0.2882092,0.5055227,0.841642
2025-07-21 14:12:43.351,1.540000000000001,1540,77,0.01800304,-0.019380428,0.20255823,0.012981419,0.021140816,-0.0106371455,0.0,0.0,0.0,-0.039539594,0.07253185,-0.17640795,0.049043365,-0.07524303,-0.00896732,-0.045728922,0.097735375,0.15496248,0.07388227,-0.075434096,-0.036980517,0.069098115,-0.04073021,-0.027698966,-0.05964449,-0.008698073,-0.02997312,0.009589796,0.0225301,-0.035099935,-0.056901015,0.029521918,0.04414473,-0.054151688,-0.1814367,-0.9995885,-0.046579577,-0.50494134,0.15423898,-0.2504983,0.6374027,0.10270242,0.7315532,0.2882092,0.5055227,0.841642,0.8960993,0.04952466,0.61251825,-0.13707305,0.12079168,-0.37524366,0.32383984,0.90917474,0.02375301,-0.7972075,-0.5871712,0.38404602
2025-07-21 14:12:43.377,1.560000000000001,1560,78,0.034071542,-0.027197547,-0.041471627,0.00029189524,0.02326403,-0.019003306,0.0,0.0,0.0,-0.041469198,0.09809552,-0.16301383,0.03300077,-0.07811983,-0.00018248035,-0.049406458,0.07854302,0.18546188,0.06827086,-0.0862378,-0.028079284,0.070861086,-0.002646375,0.07409206,0.027628,0.076853946,0.065190695,0.06132352,0.005942423,0.02371838,-0.058516722,-0.030604746,0.032153364,-0.054560933,0.8960993,0.04952466,0.61251825,-0.13707305,0.12079168,-0.37524366,0.32383984,0.90917474,0.02375301,-0.7972075,-0.5871712,0.38404602,-0.039602857,-0.8204603,0.4392857,-0.46215793,-0.37769252,-0.4075595,0.5882009,0.51718915,0.058393262,-0.14614823,-0.70133,0.09876735
2025-07-21 14:12:43.395,1.580000000000001,1580,79,-0.19758974,-0.13903409,-0.028728437,0.022976855,-0.032085817,-0.021629492,0.0,0.0,0.0,-0.042151153,0.086311,-0.17721762,0.044923384,-0.07746248,-0.0012094432,-0.045382544,0.090286456,0.18879129,0.05315013,-0.07172675,-0.056672994,0.05608698,0.05246128,-0.025269918,0.026184525,0.03042141,-0.009898544,0.040768575,-0.028104343,0.05632402,-0.07047505,0.078643985,-0.07694733,-0.0695538,-0.039602857,-0.8204603,0.4392857,-0.46215793,-0.37769252,-0.4075595,0.5882009,0.51718915,0.058393262,-0.14614823,-0.70133,0.09876735,0.43954492,-0.23589015,0.32662952,-0.3284388,0.07322111,-0.9027519,0.30745342,-0.021733873,0.8813869,0.044320166,0.51697695,1.0256482
2025-07-21 14:12:43.414,1.600000000000001,1600,80,0.08285235,-0.08571341,0.0255717,-0.024503142,-0.009930998,-0.0016702238,0.0,0.0,0.0,-0.04185811,0.0988787,-0.18358828,0.029989706,-0.076798804,-0.0009452701,-0.060808793,0.077514656,0.16476431,0.06712756,-0.063578464,-0.042693406,0.0702602,-0.060010634,0.036071464,0.025844438,0.075146414,-0.028197069,0.027987385,-0.016175654,-0.14367136,-0.0038903758,-0.026957659,0.07076354,-0.051121343,0.43954492,-0.23589015,0.32662952,-0.3284388,0.07322111,-0.9027519,0.30745342,-0.021733873,0.8813869,0.044320166,0.51697695,1.0256482,0.16896848,-0.5687141,0.7005397,-0.27085802,-0.32538268,0.24272531,0.43149632,0.93675166,0.09140607,-0.51926243,-0.7301373,0.2030305
2025-07-21 14:12:43.432,1.620000000000001,1620,81,-0.015597078,0.023312373,-0.055692963,-0.026212187,-0.013051546,-0.04316419,0.0,0.0,0.0,-0.0425088,0.082660474,-0.18123582,0.051941246,-0.07009418,-0.0270419,-0.0495626,0.06527799,0.18105233,0.060452733,-0.07227335,-0.039985325,0.065395944,0.05460577,0.00732367,0.013574113,0.0700963,-0.04317167,0.043921255,0.054820765,0.05356925,0.009370903,-0.06964091,-0.0134604,-0.030514272,0.16896848,-0.5687141,0.7005397,-0.27085802,-0.32538268,0.24272531,0.43149632,0.93675166,0.09140607,-0.51926243,-0.7301373,0.2030305,0.18154664,-0.499202,0.45586723,-0.51783186,0.21628205,-0.5266325,0.81910753,0.22030231,0.45518297,0.30605862,-0.12517986,0.8009155
2025-07-21 14:12:43.451,1.640000000000001,1640,82,0.07770265,-0.024401024,0.15731063,-0.0041796053,0.071656734,0.034720577,0.0,0.0,0.0,-0.04232479,0.09634173,-0.18608084,0.04196963,-0.065736435,-0.016805882,-0.06813088,0.07803666,0.16969311,0.054576274,-0.061903592,-0.0422075,0.0784663,-0.022321085,0.0436936,-0.05714724,0.02401762,0.05525223,-0.038482595,-0.048693094,-0.01725247,-0.0006390384,-0.0004754258,0.030320017,0.06536163,0.18154664,-0.499202,0.45586723,-0.51783186,0.21628205,-0.5266325,0.81910753,0.22030231,0.45518297,0.30605862,-0.12517986,0.8009155,0.6936733,-0.08916664,0.6757729,-0.49275675,-0.28554642,-0.37836584,0.53380483,1.1017342,0.06655785,-0.697683,-1.1121455,0.20981073
2025-07-21 14:12:43.476,1.660000000000001,1660,83,0.18210483,0.038367238,-0.15792248,0.018944759,0.08265932,-0.0031234177,0.0,0.0,0.0,-0.04389437,0.09076111,-0.18583336,0.04813373,-0.07770107,-0.026776275,-0.06314026,0.095777296,0.2216811,0.0516706,-0.072907135,-0.06387892,0.074217476,0.032048382,0.047543336,0.043317184,0.03825037,0.022271678,-0.039007593,-0.014945361,0.08525204,-0.07656459,-0.098816186,-0.04601724,-0.021485547,0.6936733,-0.08916664,0.6757729,-0.49275675,-0.28554642,-0.37836584,0.53380483,1.1017342,0.06655785,-0.697683,-1.1121455,0.20981073,-0.1671397,-0.6435657,0.042213477,-0.5163037,-0.2362491,-0.061362803,0.63049155,-0.42993125,0.6949276,0.33850455,0.48789117,0.5428835
2025-07-21 14:12:43.494,1.680000000000001,1680,84,-0.01862491,0.0074444,0.16026278,-0.020456888,0.009376468,-0.025117438,0.0,0.0,0.0,-0.04269203,0.09311329,-0.18499821,0.04234524,-0.06507269,-0.043899003,-0.044064686,0.09216081,0.19710548,0.05747337,-0.06839063,-0.06244286,0.0512052,-0.009480641,-0.052043542,-0.054834366,0.01400697,-0.019697048,-0.012658578,-0.013408029,-0.22997299,-0.014230432,0.09826315,0.061294876,-0.03258373,-0.1671397,-0.6435657,0.042213477,-0.5163037,-0.2362491,-0.061362803,0.63049155,-0.42993125,0.6949276,0.33850455,0.48789117,0.5428835,0.89853543,0.029165741,0.49304107,-0.028158879,0.3986998,-0.075538665,0.6341955,1.3601103,0.32889947,-0.7162572,-0.3875875,0.31617892
2025-07-21 14:12:43.511,1.700000000000001,1700,85,0.09307253,0.036204632,-0.14633207,-0.04106282,0.0018086898,0.035923544,0.0,0.0,0.0,-0.04321163,0.092006154,-0.1751599,0.042990338,-0.05611369,-0.009411258,-0.036931675,0.101404905,0.1989092,0.050232887,-0.07588713,-0.04714932,0.054949246,0.0604248,-0.0047686454,-0.060071737,0.029575547,0.085609265,-0.058909006,-0.06251338,0.17515054,-0.029901851,-0.01492975,-0.01825375,0.009687792,0.89853543,0.029165741,0.49304107,-0.028158879,0.3986998,-0.075538665,0.6341955,1.3601103,0.32889947,-0.7162572,-0.3875875,0.31617892,-0.4239692,-0.9751909,0.7054341,-0.49990082,-0.24055062,-0.5731032,0.70804685,-0.19237497,0.328319,0.075422704,0.53816116,0.71891814
2025-07-21 14:12:43.532,1.720000000000001,1720,86,-0.1584151,0.06280916,0.22833991,0.004469537,0.022633094,-0.010768968,0.0,0.0,0.0,-0.042731076,0.08867638,-0.16710022,0.035293035,-0.05729134,-0.027012771,-0.046404444,0.09652172,0.18596391,0.059575867,-0.07833992,-0.029232623,0.052116673,0.020919887,-0.0625908,0.05536571,0.052719977,-0.0014690346,0.0223562,-0.03723698,-0.10306697,0.06614765,-0.045552816,0.09557873,-0.06656918,-0.4239692,-0.9751909,0.7054341,-0.49990082,-0.24055062,-0.5731032,0.70804685,-0.19237497,0.328319,0.075422704,0.53816116,0.71891814,0.62361914,0.48144418,1.251608,-0.13884953,0.1410863,-0.22117674,0.27829474,1.0857128,0.21742773,-0.8252594,-1.5778513,0.46009517
2025-07-21 14:12:43.554,1.740000000000001,1740,87,0.112719625,-0.03737652,-0.08721559,-0.022521922,0.068075806,-0.023720602,0.0,0.0,0.0,-0.043926105,0.102446705,-0.18114631,0.060051974,-0.0548663,-0.0050172894,-0.05217708,0.09598599,0.19980504,0.05486422,-0.099429645,-0.027929898,0.060950764,0.0017652932,0.09332205,0.09350024,-0.019903183,-0.034558363,-0.03383889,-0.034226224,0.08272821,0.01186293,0.0012966192,-0.08475402,0.017901806,0.62361914,0.48144418,1.251608,-0.13884953,0.1410863,-0.22117674,0.27829474,1.0857128,0.21742773,-0.8252594,-1.5778513,0.46009517,0.32346588,-0.694093,0.026912669,-0.8018034,-0.045023896,-0.4756382,0.33365542,0.21404743,0.1740928,0.06971237,-0.008128006,0.7809806
2025-07-21 14:12:43.577,1.7600000000000011,1760,88,-0.010604152,-0.07896214,0.13936651,-0.024446862,0.0529534,0.043628894,0.0,0.0,0.0,-0.044502914,0.10057618,-0.18486506,0.05567054,-0.073941834,-0.013312795,-0.058535185,0.07433193,0.18781203,0.053188626,-0.08321232,-0.030047301,0.057879686,-0.07147276,-0.10135466,-0.010813081,-0.053775333,-0.048572887,0.0023423862,0.026041668,-0.018455274,0.0025327068,0.059334323,0.012196823,-0.015550248,0.32346588,-0.694093,0.026912669,-0.8018034,-0.045023896,-0.4756382,0.33365542,0.21404743,0.1740928,0.06971237,-0.008128006,0.7809806,0.75224024,0.2078327,1.0155709,-0.43400785,0.027633453,-0.5300157,0.58776337,0.8449756,0.21439165,-0.439333,-0.8359333,0.8878478
2025-07-21 14:12:43.595,1.7800000000000011,1780,89,0.02409588,-0.0735852,-0.20950234,0.0008481528,0.033995334,0.042936992,2.0,0.0,0.0,-0.04548582,0.11637864,-0.18774782,0.048165787,-0.06709447,-0.0010962455,-0.05278659,0.0908428,0.21540233,0.05463932,-0.09082136,-0.045441914,0.083384834,0.03665318,0.094317816,-0.028067341,0.019493615,0.050208792,0.03544732,-0.054420855,0.11462706,-0.02300068,-0.050135206,-0.055287074,0.07500716,0.75224024,0.2078327,1.0155709,-0.43400785,0.027633453,-0.5300157,0.58776337,0.8449756,0.21439165,-0.439333,-0.8359333,0.8878478,-1.324672,2.0,1.6797074,-1.9081944,-0.13716331,-1.6465286,1.4668003,-1.4496914,-1.5801411,2.0,1.2584184,2.0
2025-07-21 14:12:43.612,1.8000000000000012,1800,90,0.16138059,0.20816512,0.08449009,-0.032084156,0.09686932,-0.029118374,2.0,0.0,0.0,-0.04439871,0.09952411,-0.18223734,0.077638626,-0.10048657,-0.023674833,-0.08590037,0.121861026,0.1929246,0.0075171366,-0.091986865,-0.048763447,0.09830159,-0.114688836,0.1153732,0.01592486,-0.029524142,0.026382564,-0.10926158,0.10156881,-0.2429385,-0.13097303,0.019390281,-0.033777222,0.05542645,-1.324672,2.0,1.6797074,-1.9081944,-0.13716331,-1.6465286,1.4668003,-1.4496914,-1.5801411,2.0,1.2584184,2.0,-0.3697425,2.0,0.7564578,-1.8637612,-1.7706531,-1.7625316,2.0,-0.90036315,-1.7466604,1.4114381,-0.28816012,2.0
2025-07-21 14:12:43.633,1.8200000000000012,1820,91,0.10856369,-0.18731315,0.034445643,-0.020486666,0.09390426,-0.033914242,2.0,0.0,0.0,-0.04363387,0.08730633,-0.13619903,0.08104829,-0.14802893,-0.0802713,-0.11843985,0.15516426,0.105551206,-0.04665061,-0.08163381,-0.037546325,0.14003213,-0.072726935,0.15897626,-0.011372468,-0.06730107,-0.32402042,-0.109019265,0.15633833,-0.20529978,-0.085843146,0.07923063,0.03926385,0.12852377,-0.3697425,2.0,0.7564578,-1.8637612,-1.7706531,-1.7625316,2.0,-0.90036315,-1.7466604,1.4114381,-0.28816012,2.0,-0.06945372,2.0,-0.5809721,-1.559586,-1.1543465,0.3713243,1.805711,-1.9577739,0.0009191856,0.17251992,-0.91680133,2.0
2025-07-21 14:12:43.652,1.8400000000000012,1840,92,-0.18134166,-0.19298188,-0.012236571,-0.025154592,0.028242499,0.009813507,2.0,0.0,0.0,-0.044829052,0.07602065,-0.0902185,0.03287489,-0.15909803,-0.14354001,-0.09392114,0.16843735,0.00735184,-0.034339517,-0.060829815,-0.07653892,0.16074608,0.0039907284,0.08169086,-0.06038528,-0.00597535,-0.21745333,0.107568525,0.07085044,-0.22532865,-0.049768604,0.048775904,-0.13517982,0.066619046,-0.06945372,2.0,-0.5809721,-1.559586,-1.1543465,0.3713243,1.805711,-1.9577739,0.0009191856,0.17251992,-0.91680133,2.0,-0.17996119,2.0,-0.9436097,-0.6430907,-0.45075655,0.7698274,1.6717889,-0.69225734,1.4195621,0.73081434,2.0,2.0
2025-07-21 14:12:43.677,1.8600000000000012,1860,93,0.03523264,-0.04474439,0.18812563,0.026210763,0.11011862,0.02851169,2.0,0.0,0.0,-0.04577743,0.05610222,-0.023040751,-0.008427871,-0.15754606,-0.17223544,-0.062418588,0.20392174,-0.05080945,-0.0023219972,-0.033652935,-0.063869044,0.19297817,-0.09050551,0.25134414,-0.1167948,-0.0039845505,-0.030278185,0.101487555,-0.022953633,-0.15943158,0.14584114,0.030835364,0.09493655,0.09499704,-0.17996119,2.0,-0.9436097,-0.6430907,-0.45075655,0.7698274,1.6717889,-0.69225734,1.4195621,0.73081434,2.0,2.0,1.023402,1.4737401,-1.8425115,-0.2757666,0.14718348,1.2921875,-1.1291219,-0.19472909,1.6437037,-0.35288745,1.7565346,0.6549729
2025-07-21 14:12:43.694,1.8800000000000012,1880,94,-0.14185382,0.30736795,0.027313763,-0.014926718,0.10092093,-0.049683128,2.0,0.0,0.0,-0.047197077,0.06717874,0.07988693,-0.059304744,-0.1359149,-0.12649882,-0.006152138,0.18538225,-0.07063907,0.04492072,-0.056698613,0.022502696,0.16457164,-0.032278255,0.24966529,-0.03747892,0.04634163,0.087540925,0.06309906,-0.0909584,0.008142377,0.13633752,0.037706573,0.24088861,-0.058373712,1.023402,1.4737401,-1.8425115,-0.2757666,0.14718348,1.2921875,-1.1291219,-0.19472909,1.6437037,-0.35288745,1.7565346,0.6549729,1.6033219,-0.18860346,-2.0,0.5371231,1.0569893,1.991608,-1.6630609,-0.30564654,2.0,-0.4278532,2.0,-0.68378115
2025-07-21 14:12:43.712,1.9000000000000012,1900,95,-0.37143004,0.5926041,0.11884821,-0.024665551,0.051681694,0.0022788625,2.0,0.0,0.0,-0.04879575,0.10093628,0.1037196,-0.09644271,-0.10662721,-0.055034883,0.038209718,0.15769769,-0.06811951,0.08253608,-0.054314677,0.14801738,0.123322785,0.1167195,-0.043003563,-0.08282606,0.13294847,0.19534428,0.11368261,-0.18777952,0.03291502,0.14801283,-0.077696845,0.30629474,-0.13155375,1.6033219,-0.18860346,-2.0,0.5371231,1.0569893,1.991608,-1.6630609,-0.30564654,2.0,-0.4278532,2.0,-0.68378115,1.8526572,-0.75694096,-2.0,0.54859567,0.725564,1.3698176,-1.5644488,0.37421262,2.0,-0.40537003,-1.1110868,-1.2890221
2025-07-21 14:12:43.732,1.9200000000000013,1920,96,-0.21296428,0.37299246,-0.013612169,-0.05772515,-0.02671774,-0.017976234,2.0,0.0,0.0,-0.05062988,0.14950679,0.03529476,-0.1339156,-0.07554532,-0.00149976,0.06417919,0.08093788,-0.048862994,0.119711116,-0.07069097,0.20078889,0.07088978,0.094963916,-0.19589998,-0.11311496,0.010809808,0.12761045,0.037669465,-0.18499106,0.072822794,0.022872556,0.032562602,-0.026502958,-0.0994941,1.8526572,-0.75694096,-2.0,0.54859567,0.725564,1.3698176,-1.5644488,0.37421262,2.0,-0.40537003,-1.1110868,-1.2890221,1.2381423,-1.5054699,-1.4273864,0.3399808,1.0773101,0.7491231,-0.11293467,-0.028782062,2.0,-1.0007602,-1.4229581,-1.8058772
2025-07-21 14:12:43.760,1.9400000000000013,1940,97,-0.033706654,0.056407563,-0.0049250787,-0.06261877,-0.047673192,-0.003874236,2.0,0.0,0.0,-0.0506229,0.15186624,-0.066912755,-0.14166504,-0.0786587,0.05863328,0.06036524,0.07160347,-0.035965778,0.15878345,-0.06997804,0.14649062,0.013423093,0.03303901,-0.26844913,0.023080695,0.04199717,0.080935076,-0.0397666,-0.05980533,-0.03837102,0.069177836,-0.06449909,-0.16472329,-0.08947499,1.2381423,-1.5054699,-1.4273864,0.3399808,1.0773101,0.7491231,-0.11293467,-0.028782062,2.0,-1.0007602,-1.4229581,-1.8058772,1.4457896,-0.45236218,-0.118016385,-0.26590458,2.0,0.4505279,-0.15123866,1.2939882,2.0,-1.6555928,-0.6930453,-1.6762567
2025-07-21 14:12:43.779,1.9600000000000013,1960,98,0.13402997,0.038107585,-0.09191876,-0.1007592,-0.04320615,-0.0045155473,2.0,0.0,0.0,-0.050677583,0.16363496,-0.0992237,-0.12591174,-0.06404099,0.12914653,0.046906177,0.06380657,0.008355441,0.17186032,-0.11030543,0.072027184,-0.02933864,0.02382787,-0.07730306,-0.017418114,0.048497755,0.17525189,-0.043876883,-0.012289053,0.16053559,0.06998488,-0.016965812,-0.05969368,-0.1151237,1.4457896,-0.45236218,-0.118016385,-0.26590458,2.0,0.4505279,-0.15123866,1.2939882,2.0,-1.6555928,-0.6930453,-1.6762567,0.48329332,-1.6504388,-0.5951271,-0.21465684,0.603006,-0.30814034,-0.004663402,0.08076317,2.0,-1.2200474,-1.5588002,-1.4142625
2025-07-21 14:12:43.794,1.9800000000000013,1980,99,-0.25639609,-0.2384043,-0.11199261,-0.032355458,-0.07751237,0.020467512,2.0,0.0,0.0,-0.04962858,0.16710095,-0.16684826,-0.11905438,-0.06506766,0.1653386,0.045764137,0.055282086,0.016917333,0.20010172,-0.1371461,0.010883872,-0.06905169,-0.04963398,-0.28270954,-0.04459243,0.0039930004,0.08243677,-0.03534916,-0.007850876,-0.03798467,0.031262908,-0.00024643925,-0.21189371,-0.09823061,0.48329332,-1.6504388,-0.5951271,-0.21465684,0.603006,-0.30814034,-0.004663402,0.08076317,2.0,-1.2200474,-1.5588002,-1.4142625,0.71368235,0.8023465,1.9457613,-1.5838747,2.0,-1.5174829,1.3058394,2.0,2.0,0.2504008,0.25582662,0.53753334
2025-07-21 14:12:43.813,2.0000000000000013,2000,100,0.06665489,-0.14835893,-0.093364745,0.00056475995,-0.0014309576,-0.02755343,2.0,0.0,0.0,-0.04747346,0.15264884,-0.20184556,-0.064019926,-0.09572199,0.2313975,-0.007914757,0.079662375,0.065708354,0.20863533,-0.11368863,-0.0019145707,-0.05839785,-0.015053524,0.109660335,0.10132942,-0.018387342,0.23756681,-0.13815655,0.10902442,0.25320423,0.034266707,0.040228605,0.112159304,0.08310685,0.71368235,0.8023465,1.9457613,-1.5838747,2.0,-1.5174829,1.3058394,2.0,2.0,0.2504008,0.25582662,0.53753334,-0.5522626,-1.1211567,0.3480706,-0.73686266,-1.2687421,-1.3675373,1.4064535,2.0,0.68465006,0.8675452,-0.7361775,0.27307558
2025-07-21 14:12:43.833,2.0200000000000014,2020,101,0.029087042,-0.6878241,-0.11936358,0.03622458,-0.028268179,0.019068796,2.0,0.0,0.0,-0.0459548,0.120054916,-0.23252633,-0.032676745,-0.09710842,0.25233173,-0.038763147,0.10274995,0.18877167,0.2003912,-0.06513311,-0.009968298,-0.032935742,-0.06285761,-0.05503002,0.11095701,-0.0023827355,-0.047185212,-0.043381374,0.0098140985,0.3222701,-0.07176533,0.11938098,-0.15517148,0.06347053,-0.5522626,-1.1211567,0.3480706,-0.73686266,-1.2687421,-1.3675373,1.4064535,2.0,0.68465006,0.8675452,-0.7361775,0.27307558,-0.8061585,2.0,2.0,-2.0,-0.6270532,-2.0,1.4762968,-0.9594106,-1.2919369,2.0,1.1631951,2.0
2025-07-21 14:12:43.852,2.0400000000000014,2040,102,0.0008589457,-0.1521434,0.06841208,0.06451774,0.0168579,0.025910877,2.0,0.0,0.0,-0.043978937,0.10820335,-0.24946596,0.008127813,-0.12979123,0.18008904,-0.0821618,0.12761761,0.23543583,0.12315901,-0.045806516,-0.02401026,0.015080728,-0.08194091,-0.087363705,0.023620801,-0.051858507,-0.29031676,-0.13681018,0.0657872,-0.07403127,-0.083566464,0.102587655,0.10304545,0.0525944,-0.8061585,2.0,2.0,-2.0,-0.6270532,-2.0,1.4762968,-0.9594106,-1.2919369,2.0,1.1631951,2.0,-0.27856386,2.0,1.7951657,-2.0,-0.9189125,-1.3972187,1.3859733,-1.6047646,-1.8578215,0.79487234,-1.5187858,2.0
2025-07-21 14:12:43.879,2.0600000000000014,2060,103,-0.05003647,0.06711205,0.024324065,-0.008501268,-0.0035117962,0.03795074,2.0,0.0,0.0,-0.043432254,0.092746034,-0.23655671,0.029467002,-0.16261485,0.08033494,-0.10699038,0.1515647,0.1807807,0.062195305,-0.017180622,-0.014920738,0.05473841,0.03853827,0.01646346,0.1146954,-0.1269439,-0.1610174,-0.014922223,0.0765494,-0.29311934,-0.12675922,-0.014793451,0.051081505,0.1591091,-0.27856386,2.0,1.7951657,-2.0,-0.9189125,-1.3972187,1.3859733,-1.6047646,-1.8578215,0.79487234,-1.5187858,2.0,-0.8833813,2.0,1.015355,-1.8602037,-1.6172322,-1.0152713,2.0,-1.2390769,-1.3524759,0.8410088,-1.3587258,2.0
2025-07-21 14:12:43.894,2.0800000000000014,2080,104,-0.056885894,0.06644427,0.028029345,0.026431803,-0.042426407,0.017364664,2.0,0.0,0.0,-0.044422418,0.09244563,-0.22837669,0.038760882,-0.2004028,-0.040757637,-0.11309617,0.17277636,0.077519655,0.0067092213,-0.024687953,-0.03161429,0.10017163,0.05257721,-0.0053198487,0.06334399,0.0028128868,-0.27367085,-0.02093493,0.13835858,-0.33904058,-0.1473582,0.061282292,-0.10650967,0.16499323,-0.8833813,2.0,1.015355,-1.8602037,-1.6172322,-1.0152713,2.0,-1.2390769,-1.3524759,0.8410088,-1.3587258,2.0,-0.3573184,2.0,-0.133719,-1.5972159,-0.80349505,-0.5635586,2.0,0.07063971,-0.16458708,0.5991302,0.59905,2.0
2025-07-21 14:12:43.914,2.1000000000000014,2100,105,0.22146969,0.16545305,0.14776276,-0.007821907,-0.019023981,-0.02266113,2.0,0.0,0.0,-0.045134246,0.0806767,-0.16966572,0.035544906,-0.21527053,-0.09602786,-0.11906333,0.20613116,0.024895167,-0.0030106881,-0.010760878,-0.0020826398,0.123756595,-0.09811194,0.23285618,-0.04916727,-0.0020908404,-0.04998971,-0.02945587,0.044161826,0.052443832,-0.062451553,0.08510095,0.1952757,0.013535779,-0.3573184,2.0,-0.133719,-1.5972159,-0.80349505,-0.5635586,2.0,0.07063971,-0.16458708,0.5991302,0.59905,2.0,0.30557972,2.0,-0.92171055,-0.9542365,-1.4732151,0.4338714,-0.033848025,-2.0,0.010123737,0.7330208,-0.5854954,1.9372317
2025-07-21 14:12:43.933,2.1200000000000014,2120,106,0.05473259,-0.1081048,-0.04602441,0.011344467,-0.034573562,-0.04516108,2.0,0.0,0.0,-0.04650742,0.0800022,-0.08690672,-0.014015994,-0.20119677,-0.1751185,-0.08479578,0.1915216,-0.03457695,0.0071612285,-0.0051173605,0.0091068,0.16562329,-0.06499582,0.16399972,-0.03499056,-0.0067833923,-0.18223499,0.03246949,-0.114930004,-0.19600593,0.039530754,0.04003706,0.051258363,0.03830895,0.30557972,2.0,-0.92171055,-0.9542365,-1.4732151,0.4338714,-0.033848025,-2.0,0.010123737,0.7330208,-0.5854954,1.9372317,0.48872423,2.0,-2.0,-0.67321813,-0.14953278,1.5989121,0.7813812,-0.55963594,1.3250613,0.5481167,2.0,1.4920505
2025-07-21 14:12:43.953,2.1400000000000015,2140,107,0.16906492,-0.0024152421,0.05949239,0.010612219,0.010673015,-0.010345257,2.0,0.0,0.0,-0.047182076,0.07083981,0.026972169,-0.06827826,-0.18082143,-0.20418368,-0.022606606,0.17759217,-0.07027584,0.047534674,0.023619095,0.07368931,0.17084073,-0.032997496,0.2712606,-0.14918584,0.09265873,0.11208868,0.12018979,-0.02894444,0.02405417,0.12603603,0.044374436,0.18274777,0.06604716,0.48872423,2.0,-2.0,-0.67321813,-0.14953278,1.5989121,0.7813812,-0.55963594,1.3250613,0.5481167,2.0,1.4920505,0.6561559,0.7978538,-2.0,0.11433814,-0.05572223,1.324024,-1.0807148,-1.1044254,1.8231897,-0.17445827,2.0,-0.30805042
2025-07-21 14:12:43.977,2.1600000000000015,2160,108,-0.37478802,0.40968063,0.16241644,0.008409386,-0.011703337,0.028838115,2.0,0.0,0.0,-0.047464512,0.07283026,0.09386017,-0.11282807,-0.16054733,-0.15805016,0.002696574,0.147107,-0.098153934,0.07336077,0.0042041712,0.19636577,0.12576365,0.025988413,0.17221941,-0.047130123,0.0575794,0.019188356,0.07775906,-0.08622995,-0.12662402,0.07961407,-0.010360277,0.35507518,-0.14961438,0.6561559,0.7978538,-2.0,0.11433814,-0.05572223,1.324024,-1.0807148,-1.1044254,1.8231897,-0.17445827,2.0,-0.30805042,2.0,0.27287593,-2.0,0.63938266,2.0,2.0,-2.0,1.9142514,2.0,-0.66316414,0.050847214,-0.3735172
2025-07-21 14:12:43.994,2.1800000000000015,2180,109,0.12363848,0.05744317,-0.06316665,-0.027429797,-0.021522837,0.022154514,2.0,0.0,0.0,-0.049964193,0.122462325,0.09500652,-0.1504561,-0.16293325,-0.14226973,0.04671768,0.12173016,-0.07711105,0.116092466,-0.0037148923,0.2484181,0.1113558,0.16356726,-0.038951576,-0.14327867,0.082334474,0.047562506,0.09278336,-0.064615026,0.09756996,0.12033501,-0.06717271,-0.047361042,-0.09664592,2.0,0.27287593,-2.0,0.63938266,2.0,2.0,-2.0,1.9142514,2.0,-0.66316414,0.050847214,-0.3735172,2.0,-0.4065165,-1.9149646,-0.06447538,2.0,1.1724151,-0.26047766,-0.7250972,2.0,-0.38195452,-0.41595232,-1.0412388
2025-07-21 14:12:44.014,2.2000000000000015,2200,110,-0.0028904653,-0.05769337,0.010587909,-0.014741465,-0.055471767,-0.01911869,2.0,0.0,0.0,-0.050527558,0.15154119,0.072888225,-0.17437577,-0.14743441,-0.11523929,0.06557905,0.09997653,-0.04339344,0.14305958,-0.021066563,0.19309962,0.068218164,0.14384158,-0.14207157,-0.12113952,-0.0257189,0.02393591,0.014286148,-0.031100674,0.07552521,0.13166821,0.050282143,-0.117512286,-0.15652911,2.0,-0.4065165,-1.9149646,-0.06447538,2.0,1.1724151,-0.26047766,-0.7250972,2.0,-0.38195452,-0.41595232,-1.0412388,2.0,-0.032738928,-1.8100919,0.64864635,2.0,1.214363,-1.8220031,-0.7393569,2.0,-2.0,0.6754026,-1.8338907
2025-07-21 14:12:44.033,2.2200000000000015,2220,111,0.000660787,0.06786545,0.13321514,-0.021571456,-0.042075858,-0.047591373,2.0,0.0,0.0,-0.05065957,0.18142693,0.050578773,-0.19877209,-0.15482679,-0.06341242,0.06604086,0.07631979,-0.026197268,0.18831904,-0.05612397,0.18203379,-0.011044508,0.027449243,-0.08951323,0.0032310865,0.041579768,0.10977368,0.01901369,-0.009597047,0.056340452,0.07051678,-0.11923851,0.12007463,-0.10374292,2.0,-0.032738928,-1.8100919,0.64864635,2.0,1.214363,-1.8220031,-0.7393569,2.0,-2.0,0.6754026,-1.8338907,1.506656,-1.4785986,-2.0,1.2593205,2.0,0.73613477,-2.0,0.63936883,2.0,-1.9575764,-1.8409553,-1.3206389
2025-07-21 14:12:44.054,2.2400000000000015,2240,112,0.12892362,0.009815417,-0.012178844,0.027296014,0.025492376,-0.0026628666,2.0,0.0,0.0,-0.052354667,0.19408938,-0.004129621,-0.21835594,-0.12154401,0.007610846,0.07102705,0.06606928,0.014916222,0.20020378,-0.10296668,0.13396628,-0.030463476,-0.0013862879,-0.21335664,-0.09726078,0.091150895,0.20365018,-0.03725034,-0.12034759,0.07523484,0.031539235,-0.10367173,-0.25699663,-0.124340065,1.506656,-1.4785986,-2.0,1.2593205,2.0,0.73613477,-2.0,0.63936883,2.0,-1.9575764,-1.8409553,-1.3206389,0.6349619,-1.8995249,-0.6259297,0.2411047,1.7074505,-0.18041924,-0.7410702,-0.6883598,2.0,-1.6358255,-1.0399829,-1.9336983
2025-07-21 14:12:44.077,2.2600000000000016,2260,113,-0.10594549,0.110786125,0.092221975,-0.058964893,0.0014055049,0.0133848265,2.0,0.0,0.0,-0.053536218,0.18587138,-0.13974358,-0.19040728,-0.113905266,0.082137,0.047471266,0.03607394,0.029071694,0.2163464,-0.13440779,0.04019517,-0.07768415,-0.064198196,-0.29544482,-0.0012717223,-0.008459685,0.17915374,-0.09114077,-0.07012141,0.02769164,0.06370981,-0.032359306,-0.28793928,-0.118272215,0.6349619,-1.8995249,-0.6259297,0.2411047,1.7074505,-0.18041924,-0.7410702,-0.6883598,2.0,-1.6358255,-1.0399829,-1.9336983,1.5303013,0.46102035,1.4779247,-0.5757882,1.0711175,-1.5983936,0.10589529,2.0,2.0,-0.39779794,0.34519675,0.5702007
2025-07-21 14:12:44.094,2.2800000000000016,2280,114,0.13570409,0.07099293,0.0029181235,0.014038902,0.0027402712,-0.024383796,2.0,0.0,0.0,-0.05484309,0.2040074,-0.18025151,-0.12463128,-0.11813362,0.15118538,-0.0046760594,0.031750362,0.085462734,0.22614445,-0.13617463,0.023960643,-0.04991542,0.09732093,0.044827696,0.12336066,-0.043448918,0.21223569,-0.16946623,0.061894245,0.2945752,-0.008811762,0.0073983753,-0.011758609,0.016369613,1.5303013,0.46102035,1.4779247,-0.5757882,1.0711175,-1.5983936,0.10589529,2.0,2.0,-0.39779794,0.34519675,0.5702007,-0.6280998,-0.5392758,1.1118842,-0.6295102,-0.795774,-2.0,0.9248917,2.0,0.7065628,0.7839454,-1.7905052,1.0521274
2025-07-21 14:12:44.113,2.3000000000000016,2300,115,0.017079674,-0.4401221,-0.13844301,0.017446153,-0.034109365,0.013558193,2.0,0.0,0.0,-0.0558004,0.16412856,-0.19808654,-0.07841095,-0.111571416,0.17471543,-0.05798338,0.054031834,0.19631784,0.206117,-0.10065982,-0.010511868,-0.021485988,-0.10133262,-0.0670668,0.1868844,0.033929143,0.003350612,-0.049392182,0.08334263,0.34743288,-0.116132334,0.07577168,-0.1311182,0.15484568,-0.6280998,-0.5392758,1.1118842,-0.6295102,-0.795774,-2.0,0.9248917,2.0,0.7065628,0.7839454,-1.7905052,1.0521274,-0.89134127,1.930756,2.0,-1.952547,-0.045570917,-2.0,1.4940413,-0.82837874,-0.88192743,1.9588093,0.59080714,2.0
2025-07-21 14:12:44.133,2.3200000000000016,2320,116,0.09197336,-0.20970617,0.045235787,0.0057719294,0.037670076,0.04421595,2.0,0.0,0.0,-0.054650974,0.12240388,-0.15720825,-0.014982753,-0.14106192,0.14899342,-0.091600955,0.10019322,0.26238927,0.15627357,-0.047050584,-0.004619693,0.019728748,-0.103725016,0.055074718,0.15132499,-0.05831919,-0.10718818,-0.17275093,0.080380656,-0.08038547,-0.20405921,0.06399791,0.14681143,0.033208653,-0.89134127,1.930756,2.0,-1.952547,-0.045570917,-2.0,1.4940413,-0.82837874,-0.88192743,1.9588093,0.59080714,2.0,-0.63756835,1.9788609,1.6703085,-1.905601,-1.7597923,-1.9162058,2.0,-1.8384563,-2.0,1.0500973,-1.8316209,2.0
2025-07-21 14:12:44.156,2.3400000000000016,2340,117,-0.13754414,-0.024177339,-0.008781487,-0.012803506,0.015686167,0.045681205,2.0,0.0,0.0,-0.054212086,0.115981035,-0.1358027,0.008010606,-0.18160072,0.07693693,-0.13292599,0.12246842,0.19159777,0.07593938,-0.016342176,0.013246485,0.07414096,0.02618876,0.11071721,0.113637894,-0.05995255,-0.31288967,-0.059985504,0.044818286,-0.29664445,-0.13374357,0.08651696,0.030500835,0.04459146,-0.63756835,1.9788609,1.6703085,-1.905601,-1.7597923,-1.9162058,2.0,-1.8384563,-2.0,1.0500973,-1.8316209,2.0,-1.2486346,2.0,0.323175,-1.447714,-2.0,-0.8798659,2.0,-1.8814847,-1.384698,0.67365855,-1.5726084,2.0
2025-07-21 14:12:44.178,2.3600000000000017,2360,118,-0.16240968,0.072835885,0.02402518,0.03847963,0.02986511,-0.007461355,2.0,0.0,0.0,-0.054963823,0.10039768,-0.08377948,0.016990423,-0.18353821,-0.0649576,-0.13671565,0.16458932,0.06639574,0.03124095,-0.0071945773,0.0056309397,0.11202687,-0.059070848,0.09164752,-0.063513815,-0.07052685,-0.44740546,0.005397801,0.10641978,-0.3309506,-0.080146655,0.055338692,-0.0073057325,0.13106732,-1.2486346,2.0,0.323175,-1.447714,-2.0,-0.8798659,2.0,-1.8814847,-1.384698,0.67365855,-1.5726084,2.0,-0.2492931,2.0,-1.152754,-0.922624,-0.8551253,0.81867087,2.0,-1.1443485,0.4797975,0.19137281,0.5869675,2.0
2025-07-21 14:12:44.196,2.3800000000000017,2380,119,0.01613063,0.10564266,-0.0016337166,0.019055491,0.013958932,0.02681317,2.0,0.0,0.0,-0.055042673,0.091335036,-0.0003885517,-0.019960558,-0.17491782,-0.1466422,-0.10007952,0.19638902,-0.035780217,0.03360888,-0.013566869,0.030922238,0.13993062,-0.053074464,0.18363933,-0.08369901,-0.018941626,-0.091583975,0.12002885,0.1346713,-0.16154487,0.06753988,-0.066416524,0.1367284,0.1321089,-0.2492931,2.0,-1.152754,-0.922624,-0.8551253,0.81867087,2.0,-1.1443485,0.4797975,0.19137281,0.5869675,2.0,0.4746233,2.0,-2.0,-0.3222544,0.020668292,1.4987584,0.0062428173,-1.2926635,1.4595802,0.49814183,2.0,1.5174807
2025-07-21 14:12:44.214,2.4000000000000017,2400,120,-0.08796288,0.18090487,0.113220274,0.04939564,-0.012785733,-0.011882765,2.0,0.0,0.0,-0.055700287,0.07714794,0.109793834,-0.08228413,-0.16996326,-0.13493928,-0.027576307,0.18051858,-0.11540128,0.075649284,-0.0065795933,0.11752314,0.1573759,0.071324736,0.28165615,-0.17375964,0.0675938,0.12934868,0.07463002,0.019940767,-0.06598558,0.097498864,0.049984988,0.20002943,0.043049008,0.4746233,2.0,-2.0,-0.3222544,0.020668292,1.4987584,0.0062428173,-1.2926635,1.4595802,0.49814183,2.0,1.5174807,1.3666193,-0.2502825,-2.0,0.6494041,0.2947272,1.3778306,-1.4684501,-0.009816937,2.0,-0.8633253,2.0,-0.3121634
2025-07-21 14:12:44.234,2.4200000000000017,2420,121,0.0065607964,0.23200463,-0.012794543,0.031189581,0.033431537,0.018061161,2.0,0.0,0.0,-0.05773539,0.11080274,0.18098128,-0.11712526,-0.16643588,-0.095930606,-0.010142704,0.15843143,-0.11404203,0.11063815,-0.023445604,0.24418953,0.11715924,0.043889053,0.09036121,-0.1434241,-0.040579002,0.07028267,0.15935248,-0.11331501,0.101416394,0.13824603,-0.09511723,0.2249813,-0.051473483,1.3666193,-0.2502825,-2.0,0.6494041,0.2947272,1.3778306,-1.4684501,-0.009816937,2.0,-0.8633253,2.0,-0.3121634,1.9589989,-1.1621602,-2.0,0.9093271,2.0,2.0,-1.1873075,-1.0444434,2.0,-0.46341428,-0.63943326,-1.4353374
2025-07-21 14:12:44.264,2.4400000000000017,2440,122,-0.03393752,-0.09159848,0.101170644,-0.03278199,-0.036113486,-0.0069219735,2.0,0.0,0.0,-0.058543433,0.14622186,0.14515099,-0.14254092,-0.16453247,-0.05329901,0.032460913,0.1417077,-0.09605597,0.14044861,-0.024601344,0.2713491,0.059027694,0.017236521,-0.14892952,-0.03844346,-0.005597086,0.038046166,0.08033018,-0.051945098,-0.046797033,0.07568078,-0.05990502,-0.045704562,-0.1431823,1.9589989,-1.1621602,-2.0,0.9093271,2.0,2.0,-1.1873075,-1.0444434,2.0,-0.46341428,-0.63943326,-1.4353374,2.0,-1.0815256,-2.0,1.1593313,2.0,1.264147,-1.5950767,1.0583415,2.0,-1.8504245,-0.7775118,-1.7091554
2025-07-21 14:12:44.281,2.4600000000000017,2460,123,0.18737322,-0.017797207,-0.08706986,0.021166215,0.020150945,-0.0035167416,2.0,0.0,0.0,-0.059418235,0.18301065,0.047550082,-0.17793538,-0.1458961,-0.0133012645,0.05432485,0.12060506,-0.061886404,0.1639522,-0.07014997,0.20362265,0.014133112,0.14793496,-0.31081852,-0.05204291,0.10913296,0.1624697,0.104825296,-0.10524491,0.18489598,-0.009736068,-0.089288026,-0.17988804,-0.19670245,2.0,-1.0815256,-2.0,1.1593313,2.0,1.264147,-1.5950767,1.0583415,2.0,-1.8504245,-0.7775118,-1.7091554,1.0244117,-1.5034528,-0.8156522,0.3660382,1.3631899,0.6401476,-0.60099256,-1.9912369,2.0,-1.7172061,-0.6575232,-2.0
2025-07-21 14:12:44.296,2.4800000000000018,2480,124,0.022028176,0.081392534,0.009420255,0.005292593,-0.00093849434,-0.027091973,2.0,0.0,0.0,-0.059350044,0.18580806,-0.07042151,-0.16635796,-0.12856215,0.055690672,0.05293906,0.10177705,-0.0039616516,0.19066286,-0.11629085,0.115010425,-0.043180037,0.023801418,-0.33780578,0.079564326,-0.0035046095,0.21843436,0.03978117,0.0011255954,0.12489569,0.07669307,-0.024337208,-0.23147966,-0.18092087,1.0244117,-1.5034528,-0.8156522,0.3660382,1.3631899,0.6401476,-0.60099256,-1.9912369,2.0,-1.7172061,-0.6575232,-2.0,0.8477153,-0.06392205,0.5301877,0.38722163,0.81103814,-0.03444895,-0.35327303,0.052026995,2.0,-1.9429655,0.23214541,-1.2284837
2025-07-21 14:12:44.317,2.5000000000000018,2500,125,-0.059295304,-0.13273583,-0.03985692,0.004066751,0.008194398,-0.0007265268,2.0,0.0,0.0,-0.059058305,0.17169121,-0.11523274,-0.12767911,-0.11766394,0.110108316,0.0371889,0.07564806,0.02280725,0.22017783,-0.15463951,0.09458579,-0.07906531,-0.040262893,0.09726441,0.04539016,0.05959022,0.046252444,0.037521787,-0.013591641,-0.04395493,0.076264165,-0.10011096,0.030686192,-0.07311904,0.8477153,-0.06392205,0.5301877,0.38722163,0.81103814,-0.03444895,-0.35327303,0.052026995,2.0,-1.9429655,0.23214541,-1.2284837,0.6528815,-1.4724889,-1.2394348,0.30150962,2.0,0.44080865,-1.394583,1.3096735,2.0,-1.0589632,-1.3803544,-1.0278691
2025-07-21 14:12:44.342,2.520000000000002,2520,126,-0.056628782,-0.16532037,-0.15221156,0.03654437,-0.009176378,-0.00871971,2.0,0.0,0.0,-0.05903011,0.16944869,-0.14383909,-0.14645372,-0.09786488,0.18661103,0.032970015,0.059797093,0.06563745,0.23376712,-0.15749899,0.037779845,-0.079408735,0.021789312,-0.17756717,-0.043905683,0.018331543,0.17986058,-0.0017465649,-0.15619275,0.19923316,0.07368715,-0.06932703,-0.20711744,-0.059362516,0.6528815,-1.4724889,-1.2394348,0.30150962,2.0,0.44080865,-1.394583,1.3096735,2.0,-1.0589632,-1.3803544,-1.0278691,0.24189289,-0.3844568,1.1084629,-0.8351268,1.1290648,-1.5437323,0.97963864,-0.86228615,0.95107013,0.45071113,0.4154431,0.013607748
2025-07-21 14:12:44.361,2.540000000000002,2540,127,-0.20888095,-0.22967646,0.0004459581,-0.012904438,-0.01131002,0.017758535,2.0,0.0,0.0,-0.057530403,0.15070689,-0.17632607,-0.09081311,-0.09269007,0.23956795,-0.0010772485,0.065915346,0.122501135,0.22094055,-0.12392352,0.020958506,-0.0670109,0.0057032,-0.028808812,0.15366673,0.04709594,0.12808752,-0.1439887,0.022208817,0.04736489,0.007993384,0.16801512,0.020716066,0.04602783,0.24189289,-0.3844568,1.1084629,-0.8351268,1.1290648,-1.5437323,0.97963864,-0.86228615,0.95107013,0.45071113,0.4154431,0.013607748,-1.2713575,0.75146985,2.0,-1.926786,-1.4504604,-2.0,2.0,2.0,-0.96249205,1.6456345,-2.0,1.6977993
2025-07-21 14:12:44.378,2.560000000000002,2560,128,-0.08168146,0.39558536,-0.040349558,0.0160316,-0.027057482,-0.02001219,2.0,0.0,0.0,-0.057104424,0.12344531,-0.1384718,-0.03096853,-0.1396934,0.25308985,-0.04895894,0.10069608,0.16739571,0.16272038,-0.06912862,0.0013435046,-0.025444478,-0.08864639,0.13504514,0.09069037,-0.054093484,-0.15206107,-0.11028485,0.15569648,0.24964441,-0.10599422,0.14921442,-0.14211087,0.102575086,-1.2713575,0.75146985,2.0,-1.926786,-1.4504604,-2.0,2.0,2.0,-0.96249205,1.6456345,-2.0,1.6977993,-0.9505401,1.4652587,1.9694988,-1.4364064,-2.0,-1.628879,2.0,-1.7780488,-0.6965204,1.5897629,0.5080637,2.0
2025-07-21 14:12:44.397,2.580000000000002,2580,129,0.056649487,0.2270726,0.059543386,-0.02142807,-0.048619054,-0.029138546,2.0,0.0,0.0,-0.057384733,0.07834731,-0.10786157,0.01672746,-0.15748635,0.19191803,-0.0865357,0.1552904,0.21083562,0.11135407,-0.043547444,0.0070537697,0.03861926,-0.086506486,0.14178297,0.16016997,-0.08522584,-0.15186483,-0.022239346,0.14907365,-0.12279952,-0.04989867,0.1163214,0.03326102,0.15255262,-0.9505401,1.4652587,1.9694988,-1.4364064,-2.0,-1.628879,2.0,-1.7780488,-0.6965204,1.5897629,0.5080637,2.0,-0.8809914,2.0,1.6823107,-1.4703946,-2.0,-1.8842552,2.0,-2.0,-2.0,1.3291358,-1.3605329,2.0
2025-07-21 14:12:44.417,2.600000000000002,2600,130,-0.05487994,0.016764212,0.06110274,-0.029064922,-0.04749101,0.019089207,2.0,0.0,0.0,-0.057693545,0.082372,-0.043973878,0.037498776,-0.18133473,0.11451964,-0.12681374,0.17253369,0.13930263,0.047030114,-0.016123246,0.016342985,0.08839609,-0.05672159,0.124932826,0.12087482,-0.0028081278,-0.33011988,-0.032134533,0.11053175,-0.27225116,-0.193249,0.08676322,0.086862,0.093464926,-0.8809914,2.0,1.6823107,-1.4703946,-2.0,-1.8842552,2.0,-2.0,-2.0,1.3291358,-1.3605329,2.0,-0.8024106,2.0,0.4156631,-1.1206291,-2.0,-1.1063051,2.0,-2.0,-1.1675483,0.84917176,-2.0,2.0
2025-07-21 14:12:44.443,2.620000000000002,2620,131,-0.24822639,-0.018072873,-0.014629779,-0.003579599,-0.03809979,0.021147951,2.0,0.0,0.0,-0.05816487,0.050659668,0.018684654,0.038323503,-0.19037084,-0.020985855,-0.12398305,0.19983873,-0.015088619,-0.0008494005,-0.011367555,0.020817203,0.12699653,-0.0912112,0.18565625,-0.05546551,0.033671927,-0.45375034,-0.039534327,0.064840995,-0.42531958,-0.020678177,0.08509643,0.019967824,0.11468133,-0.8024106,2.0,0.4156631,-1.1206291,-2.0,-1.1063051,2.0,-2.0,-1.1675483,0.84917176,-2.0,2.0,-0.48305613,2.0,-1.4522729,-0.5218563,-1.4596403,1.0106859,1.6520301,-0.8839685,1.4473292,0.18606412,1.2983367,2.0
2025-07-21 14:12:44.460,2.640000000000002,2640,132,0.22610876,-0.12295069,-0.049335297,0.038493197,-0.10197761,-0.02042003,2.0,0.0,0.0,-0.05848751,0.04113036,0.12493169,-0.018557925,-0.18162446,-0.11218236,-0.086390845,0.22049172,-0.10242466,0.035069052,0.01184554,0.0650995,0.15275842,-0.040265236,0.32686034,-0.15666276,0.023832321,-0.08492879,0.084866986,0.03132688,-0.114027634,0.14633407,0.08340125,0.13140407,0.04998728,-0.48305613,2.0,-1.4522729,-0.5218563,-1.4596403,1.0106859,1.6520301,-0.8839685,1.4473292,0.18606412,1.2983367,2.0,0.28245762,-0.19214854,-2.0,0.19119988,0.2361744,1.2416257,-0.72296053,-1.488181,1.8845125,-0.45526826,2.0,0.6203178
2025-07-21 14:12:44.477,2.660000000000002,2660,133,0.27918366,-0.09331563,0.0036363597,-0.030465625,0.012646262,0.03635967,2.0,0.0,0.0,-0.05756918,0.044577375,0.22012715,-0.05669625,-0.15776679,-0.12194618,-0.048385393,0.17973478,-0.18585345,0.08714803,-0.008167087,0.17172281,0.13975395,-0.043229435,0.054661598,-0.074660994,0.019224582,0.106314704,0.0492104,-0.19573306,-0.20197253,0.16483924,0.004999697,0.38093814,-0.008411175,0.28245762,-0.19214854,-2.0,0.19119988,0.2361744,1.2416257,-0.72296053,-1.488181,1.8845125,-0.45526826,2.0,0.6203178,1.7062991,-1.0106298,-2.0,0.4848021,1.8825166,2.0,-1.1407259,0.97038907,2.0,-0.6434064,0.6828734,-0.112185605
2025-07-21 14:12:44.497,2.680000000000002,2680,134,0.30473298,-0.013497365,-0.06542182,-0.04429396,0.011577961,0.025730817,2.0,0.0,0.0,-0.056114424,0.08031473,0.19529569,-0.09168964,-0.128108,-0.073135376,0.0020295284,0.13513726,-0.20689544,0.11670962,-0.020220704,0.2190479,0.11890874,0.07208527,-0.11915096,-0.0411618,0.014175458,0.22153538,0.058597866,-0.018084478,0.04397772,0.0029187957,-0.11421306,0.089043505,-0.116856225,1.7062991,-1.0106298,-2.0,0.4848021,1.8825166,2.0,-1.1407259,0.97038907,2.0,-0.6434064,0.6828734,-0.112185605,1.8592607,-1.1093011,-2.0,0.42772177,0.5333045,1.2204744,0.23529617,-0.8123974,2.0,-0.6684965,-1.0469625,-1.4922653
2025-07-21 14:12:44.517,2.700000000000002,2700,135,0.003510562,-0.10932126,-0.0834574,0.0028879435,-0.007868885,0.023072595,2.0,0.0,0.0,-0.05489022,0.12529832,0.0966781,-0.14354226,-0.100658685,-0.012843318,0.031464357,0.13095525,-0.17435285,0.15405782,-0.04213695,0.18528804,0.06392526,0.15879893,-0.25359344,-0.15498638,-0.029065706,0.046399795,0.08675842,-0.03099327,0.011481084,0.11793668,-0.009504747,-0.22082917,-0.14521421,1.8592607,-1.1093011,-2.0,0.42772177,0.5333045,1.2204744,0.23529617,-0.8123974,2.0,-0.6684965,-1.0469625,-1.4922653,1.6063331,-0.40505302,-1.6013983,0.25384936,2.0,1.5245315,-0.3690164,0.17130849,2.0,-1.795391,0.077078685,-2.0
2025-07-21 14:12:44.543,2.720000000000002,2720,136,0.07428226,0.17000729,-0.06568472,0.001233768,0.046296082,0.0309595,2.0,0.0,0.0,-0.05354291,0.13901283,0.03790513,-0.16490789,-0.08953159,0.039890163,0.05076171,0.12254583,-0.130317,0.17818098,-0.09268643,0.13698274,-0.007265482,0.035337508,-0.16008498,-0.11721974,-0.027706359,0.15966187,0.010666282,-0.08681016,0.16159414,0.11884437,-0.0862181,-0.10154694,-0.089911684,1.6063331,-0.40505302,-1.6013983,0.25384936,2.0,1.5245315,-0.3690164,0.17130849,2.0,-1.795391,0.077078685,-2.0,1.092051,-1.4572301,-1.3629249,0.31420982,0.69946027,0.7490223,0.0044863876,-0.7047314,2.0,-1.761289,-1.0976037,-1.9467736
2025-07-21 14:12:44.560,2.740000000000002,2740,137,-0.15134482,-0.091082186,-0.012566753,0.010324322,-0.030492943,-0.012775906,2.0,0.0,0.0,-0.052264526,0.15022255,-0.05382493,-0.16083516,-0.088385515,0.07396818,0.057371583,0.11335948,-0.121652275,0.19135126,-0.1227936,0.057444226,-0.062128786,0.07536407,-0.23054764,0.040353358,0.034508612,0.16658385,0.04366834,-0.033378433,0.019439075,0.12576273,-0.017152222,-0.23795256,-0.096278094,1.092051,-1.4572301,-1.3629249,0.31420982,0.69946027,0.7490223,0.0044863876,-0.7047314,2.0,-1.761289,-1.0976037,-1.9467736,1.1999819,-0.83955306,0.16248143,-0.519169,1.2599478,0.2547408,0.26214933,1.4062808,2.0,-1.6540142,-0.14586265,-1.172122
2025-07-21 14:12:44.578,2.760000000000002,2760,138,0.06575718,0.044243675,-0.03449455,-0.043455485,0.0002766401,-0.0030397754,2.0,0.0,0.0,-0.051378727,0.16374998,-0.10965295,-0.13556957,-0.08620239,0.14953344,0.0547815,0.11661663,-0.07374973,0.22155187,-0.15419604,0.035126932,-0.07944476,0.021089733,-0.073469065,0.08232872,-0.05694646,0.12786694,0.034570687,0.027383985,0.117105015,-0.006348668,-0.06977265,-0.09933749,-0.0090229465,1.1999819,-0.83955306,0.16248143,-0.519169,1.2599478,0.2547408,0.26214933,1.4062808,2.0,-1.6540142,-0.14586265,-1.172122,0.5131823,-1.5299766,0.4025496,-0.61599123,0.95388484,-0.8386411,0.53683406,1.9326391,2.0,-0.6766944,-1.4359808,-0.6564856
2025-07-21 14:12:44.598,2.780000000000002,2780,139,-0.105718434,-0.02650646,-0.23383735,-0.0062970743,-0.010551368,-0.04888783,2.0,0.0,0.0,-0.050481807,0.16127872,-0.19315794,-0.10974447,-0.095169485,0.19164187,0.026448345,0.10673794,0.029439202,0.22809274,-0.14355,-0.034115016,-0.084819354,-0.10171543,-0.29258615,0.1079119,-0.033626117,0.17563449,-0.09853245,-0.04175622,0.32140365,0.095331565,0.08220215,-0.32545072,0.0126496935,0.5131823,-1.5299766,0.4025496,-0.61599123,0.95388484,-0.8386411,0.53683406,1.9326391,2.0,-0.6766944,-1.4359808,-0.6564856,0.12698919,1.0333219,2.0,-1.84491,0.6502694,-2.0,2.0,0.011589535,0.36223224,1.0820237,2.0,2.0
2025-07-21 14:12:44.618,2.800000000000002,2800,140,-0.03976905,-0.27942353,-0.07271443,0.014878644,0.03114867,-0.0031238496,2.0,0.0,0.0,-0.047991116,0.14182805,-0.20479931,-0.03231014,-0.13099085,0.23137109,-0.036049917,0.1381215,0.0877683,0.20153475,-0.098541535,-0.084140524,-0.020960277,-0.07444123,0.059497863,0.17774361,-0.04550705,0.09636069,-0.16108003,0.06443938,-0.040632565,0.008104235,0.052325983,-0.010571782,0.15027052,0.12698919,1.0333219,2.0,-1.84491,0.6502694,-2.0,2.0,0.011589535,0.36223224,1.0820237,2.0,2.0,-0.76195776,0.24822104,2.0,-1.9301088,-1.5138046,-1.6478406,2.0,1.2411835,-0.8441607,1.9383787,0.750571,2.0
2025-07-21 14:12:44.643,2.820000000000002,2820,141,0.25539783,0.014157404,0.009469623,-0.03371686,0.04530667,-0.02931681,2.0,0.0,0.0,-0.046155427,0.12155691,-0.17615017,0.0055075483,-0.16629334,0.1889607,-0.076474644,0.18382855,0.14883642,0.14056715,-0.079477355,-0.055200573,0.025679281,-0.048021045,0.15722494,0.12641275,-0.028345963,-0.13280767,-0.051162053,0.1318639,0.23337285,-0.13178684,0.045624383,0.15895776,0.14497356,-0.76195776,0.24822104,2.0,-1.9301088,-1.5138046,-1.6478406,2.0,1.2411835,-0.8441607,1.9383787,0.750571,2.0,-0.58685976,1.2616668,1.9192007,-2.0,-1.5898843,-1.0632904,1.219982,-2.0,-1.3671896,0.99645233,-1.6095328,2.0
2025-07-21 14:12:44.660,2.840000000000002,2840,142,1.0973899e-06,0.06518439,-0.0050201025,-0.023927597,0.0034594862,-0.040452078,2.0,0.0,0.0,-0.046162654,0.12683061,-0.119105615,0.04481106,-0.19133323,0.06074792,-0.0863566,0.19566134,0.14758079,0.08529461,-0.06299723,-0.024085851,0.072785996,-0.015900604,0.06811581,0.10550423,-0.046431925,-0.39140025,-0.07454626,0.053509727,-0.19462684,-0.13797618,0.06456448,-0.0065944623,0.18925425,-0.58685976,1.2616668,1.9192007,-2.0,-1.5898843,-1.0632904,1.219982,-2.0,-1.3671896,0.99645233,-1.6095328,2.0,-1.0338502,2.0,1.1533679,-1.7712188,-1.8787653,-0.87210363,2.0,-1.7972145,-1.6559159,0.6628153,-0.84313166,2.0
2025-07-21 14:12:44.678,2.860000000000002,2860,143,-0.11661535,0.016985044,0.036165606,-0.0063984566,-0.0049308636,-0.012068594,2.0,0.0,0.0,-0.046613716,0.11346488,-0.078290574,0.06173369,-0.20639811,-0.078255236,-0.10129041,0.21763696,0.038909268,0.0306553,-0.058864888,-0.0031840913,0.117264055,0.051910166,0.059914086,-0.016438957,-0.011146202,-0.33029473,-0.050043702,0.07438022,-0.28128642,-0.18763936,0.061664667,0.0520283,0.031310953,-1.0338502,2.0,1.1533679,-1.7712188,-1.8787653,-0.87210363,2.0,-1.7972145,-1.6559159,0.6628153,-0.84313166,2.0,-0.035086643,2.0,-0.8139279,-1.0531417,-1.2719831,0.4393291,1.8091956,-1.278011,0.3505678,0.29201633,-0.3153616,2.0
2025-07-21 14:12:44.698,2.880000000000002,2880,144,-0.14938484,-0.0876531,-0.12946925,0.027030371,-0.06151974,-0.009598107,2.0,0.0,0.0,-0.046768446,0.09648479,0.016737493,0.024978604,-0.21805239,-0.18003389,-0.06800978,0.23569919,-0.053091943,0.032458466,-0.03978124,-0.02074074,0.14083143,0.00075164833,0.21736038,-0.06536134,0.06804799,-0.24557035,0.032996695,0.058068424,-0.27940154,-0.053258833,0.06479181,-0.024493001,0.015710242,-0.035086643,2.0,-0.8139279,-1.0531417,-1.2719831,0.4393291,1.8091956,-1.278011,0.3505678,0.29201633,-0.3153616,2.0,-0.102452174,1.7295375,-1.6948123,-0.30028683,0.6580774,1.4219053,1.2349255,-0.8212485,2.0,0.54460657,2.0,2.0
