openverse-orca/OrcaGym/log/simulation_log_20250605_115740.csv
timestamp,imu_angle_roll,imu_angle_pitch,imu_angle_yaw,imu_angular_velocity_roll,imu_angular_velocity_pitch,imu_angular_velocity_yaw,imu_acc_x,imu_acc_y,imu_acc_z,fl_joint1_pos,fl_joint1_vel,fl_joint1_torque,fl_joint2_pos,fl_joint2_vel,fl_joint2_torque,fl_joint3_pos,fl_joint3_vel,fl_joint3_torque,fr_joint1_pos,fr_joint1_vel,fr_joint1_torque,fr_joint2_pos,fr_joint2_vel,fr_joint2_torque,fr_joint3_pos,fr_joint3_vel,fr_joint3_torque,hl_joint1_pos,hl_joint1_vel,hl_joint1_torque,hl_joint2_pos,hl_joint2_vel,hl_joint2_torque,hl_joint3_pos,hl_joint3_vel,hl_joint3_torque,hr_joint1_pos,hr_joint1_vel,hr_joint1_torque,hr_joint2_pos,hr_joint2_vel,hr_joint2_torque,hr_joint3_pos,hr_joint3_vel,hr_joint3_torque,fl_force_x,fl_force_y,fl_force_z,fr_force_x,fr_force_y,fr_force_z,hl_force_x,hl_force_y,hl_force_z,hr_force_x,hr_force_y,hr_force_z,fl_hip_action,fl_thigh_action,fl_calf_action,fr_hip_action,fr_thigh_action,fr_calf_action,hl_hip_action,hl_thigh_action,hl_calf_action,hr_hip_action,hr_thigh_action,hr_calf_action
2025-06-05 11:57:40.456,-0.003131973,-0.038682185,0.046145335,0.008818103,0.03871524,-0.0060400493,-1.2270449,-1.5274314,0.0,0.0,-0.0070254374,0.0043619666,0.0027388907,0.0065777157,-0.0030778148,0.0015440191,0.0033767733,-0.0024036057,-0.009921925,0.0070542106,0.009183578,-0.004714692,-0.0507318,-0.050663043,-0.010808647,0.07411671,-0.0007559718,0.019998835,-0.0228891,-0.03507214,-0.037136566,0.028642638,0.039186478,-0.005229505,0.0,0.0,0.0,0.0,0.0,0.0,0.0,0.0,0.0,0.0,0.0,0.0,-0.7071646,0.4498368,0.5526186,-2.0,0.95681554,2.0,-2.0,-0.5464612,-2.0,-2.0,-2.0,-2.0
2025-06-05 11:57:40.466,0.13562907,0.0027499318,0.0027252298,-0.018108632,-0.019101126,0.007825628,0.0,0.0,0.0,0.0,0.0009045766,0.017818794,0.009839422,-0.024523238,0.024350649,0.038037747,-0.009825998,-0.020903938,-0.032632884,-0.013438704,-0.060589343,-0.031713717,-0.035547666,0.08846655,0.061919697,-0.10889325,0.02861176,0.032811265,0.03270209,-0.04170171,-0.16350158,0.0058454718,-0.24446025,-0.09397266,-0.7071646,0.4498368,0.5526186,-2.0,0.95681554,2.0,-2.0,-0.5464612,-2.0,-2.0,-2.0,-2.0,0.9846677,2.0,-2.0,0.78521353,0.9163825,-1.2492528,-2.0,-1.8697058,-2.0,-1.7768847,-2.0,-2.0
2025-06-05 11:57:40.483,0.077283636,0.104804374,-0.020902349,0.042238466,-0.024046624,0.046034627,0.0,0.0,0.0,-0.00023293917,-0.001531602,0.080561884,-0.037870087,-0.0013089151,0.07239053,0.0033618503,-0.030104024,-0.075484686,-0.07634334,-0.024540694,-0.13064864,-0.08039286,-0.017885363,0.22437061,-0.092235416,0.025463523,0.078996964,-0.14678676,-0.04173974,-0.15518948,-0.079380125,-0.0076836706,-0.22084773,-0.019514767,0.9846677,2.0,-2.0,0.78521353,0.9163825,-1.2492528,-2.0,-1.8697058,-2.0,-1.7768847,-2.0,-2.0,2.0,2.0,-2.0,1.8032801,2.0,-2.0,-2.0,-2.0,-2.0,-2.0,-2.0,-2.0
2025-06-05 11:57:40.504,-0.119603805,0.08423132,0.05681002,-0.004707254,0.041104883,0.030874826,0.0,0.0,0.0,-0.0006809633,-0.00043408113,0.12517689,-0.056683972,0.0120845465,0.12525631,-0.041459348,-0.03957523,-0.11604114,-0.060137123,-0.035615027,-0.18757045,-0.05878819,-0.04242542,0.0042862017,-0.091798976,0.0009038223,0.24168369,-0.04319832,-0.08833979,-0.017374242,0.03000173,0.032380465,-0.119241506,-0.014460146,2.0,2.0,-2.0,1.8032801,2.0,-2.0,-2.0,-2.0,-2.0,-2.0,-2.0,-2.0,2.0,2.0,-2.0,-1.8081019,2.0,-2.0,-2.0,-2.0,-2.0,-2.0,-2.0,-2.0
2025-06-05 11:57:40.524,-0.004496018,0.028235774,0.07426332,-0.048072618,0.03361475,-0.034111522,0.0,0.0,0.0,-0.0016734047,0.014957654,0.13503104,-0.05274723,0.015034623,0.16115902,-0.0549942,-0.04406468,-0.14474882,-0.048781097,-0.0409342,-0.20260932,-0.05431223,-0.035879184,-0.02963292,0.05613452,0.040292207,-0.023626786,-0.05808879,-0.087296486,-0.10065329,0.03859395,0.05381328,0.0011981172,0.042376958,2.0,2.0,-2.0,-1.8081019,2.0,-2.0,-2.0,-2.0,-2.0,-2.0,-2.0,-2.0,2.0,2.0,-0.65538186,-2.0,2.0,-2.0,-2.0,-2.0,-2.0,1.3906448,-2.0,-2.0
2025-06-05 11:57:40.544,-0.013936188,0.023562899,0.03718447,0.028954566,0.033411864,0.0462241,0.0,0.0,0.0,-0.0028502888,0.017889703,0.13704856,-0.04953764,0.0054564085,0.17129102,-0.082956605,-0.062904865,-0.18316565,-0.06462352,-0.028088573,-0.24091208,-0.039039258,0.04817639,0.11527446,-0.025681647,-0.069321446,0.07144009,-0.039149128,-0.08550273,-0.16837671,-0.089926995,-0.018516826,-0.0003059486,-0.056883108,2.0,2.0,-0.65538186,-2.0,2.0,-2.0,-2.0,-2.0,-2.0,1.3906448,-2.0,-2.0,2.0,1.8793412,-2.0,-2.0,1.0524151,-2.0,-2.0,-2.0,-2.0,2.0,-2.0,-2.0
2025-06-05 11:57:40.567,0.083312206,0.12655948,0.033503596,0.018872825,0.037576456,-0.033159964,0.0,0.0,0.0,-0.0033035579,0.002495762,0.16580017,-0.073103294,0.023662988,0.18807967,-0.09993237,-0.05813176,-0.2276005,-0.08949549,-0.013852519,-0.26595673,-0.063674465,0.021243818,0.05518272,-0.07742757,0.040007956,-0.032660816,-0.011062736,-0.08266148,-0.17563693,-0.12249745,0.051274702,-0.053024065,-0.0785385,2.0,1.8793412,-2.0,-2.0,1.0524151,-2.0,-2.0,-2.0,-2.0,2.0,-2.0,-2.0,2.0,1.5412043,-2.0,-2.0,1.0180457,-2.0,-2.0,-2.0,-2.0,2.0,-2.0,-2.0
2025-06-05 11:57:40.583,0.15513432,0.15813957,0.059281718,-0.06384564,-0.008987181,0.03076663,0.0,0.0,0.0,-0.003539644,0.0050569074,0.1858445,-0.091871545,0.023385616,0.18008024,-0.105208434,-0.0770765,-0.27867502,-0.13112451,0.0015735879,-0.2950822,-0.09320227,-0.041865375,0.045324832,-0.0024641787,0.005423249,0.072118685,-0.0125328,0.032180864,-0.17143337,-0.023867054,0.04230423,-0.10535333,-0.12762763,2.0,1.5412043,-2.0,-2.0,1.0180457,-2.0,-2.0,-2.0,-2.0,2.0,-2.0,-2.0,2.0,1.4846798,-2.0,-2.0,1.3990475,-2.0,-2.0,-2.0,-2.0,2.0,-1.9915596,-2.0
2025-06-05 11:57:40.603,0.15579815,0.08037915,-0.03545094,-0.046674956,0.023238486,-0.026511278,0.0,0.0,0.0,-0.00404127,0.01757947,0.1839037,-0.117814735,0.014528062,0.19906664,-0.13639522,-0.083875485,-0.31823763,-0.14923675,0.015236649,-0.32650864,-0.11156988,-0.06956561,0.07404707,-0.073323816,-0.04228883,-0.003558631,-0.051222455,0.0061466834,-0.10434887,-0.0408146,0.026938614,-0.08782593,-0.047102198,2.0,1.4846798,-2.0,-2.0,1.3990475,-2.0,-2.0,-2.0,-2.0,2.0,-1.9915596,-2.0,2.0,1.8607484,-2.0,-2.0,0.8441527,-2.0,-2.0,-2.0,-2.0,2.0,-2.0,-2.0
2025-06-05 11:57:40.623,0.13021696,0.11535972,-0.041887436,-0.014603883,0.01500413,0.047407635,0.0,0.0,0.0,-0.004327831,0.012555285,0.22280316,-0.12758215,0.011213344,0.20164575,-0.1433759,-0.072015546,-0.34158573,-0.16670965,0.027521033,-0.35319632,-0.093807295,-0.054945216,0.0683903,-0.007901292,-0.0077202623,0.009547976,-0.0073460694,0.06288995,-0.09176439,0.045619458,0.07243277,0.019496623,-0.040124387,2.0,1.8607484,-2.0,-2.0,0.8441527,-2.0,-2.0,-2.0,-2.0,2.0,-2.0,-2.0,2.0,1.8461705,-2.0,-2.0,1.0882717,-2.0,-2.0,-2.0,-2.0,2.0,-2.0,-2.0
2025-06-05 11:57:40.643,0.11245618,0.10832853,0.007156968,-0.046771865,0.06605375,0.010461917,0.0,0.0,0.0,-0.004658879,0.02048648,0.24022278,-0.1507882,-0.0035002907,0.20666653,-0.15165319,-0.08141374,-0.35463908,-0.17213058,0.024139935,-0.35055223,-0.07959658,0.06794263,-0.020776296,-0.014117381,-0.05488319,0.008786675,-0.016593076,0.0046749837,-0.06583712,-0.03758224,0.024030317,-0.0040923962,0.010888794,2.0,1.8461705,-2.0,-2.0,1.0882717,-2.0,-2.0,-2.0,-2.0,2.0,-2.0,-2.0,2.0,1.7728149,-2.0,-2.0,1.3853788,-2.0,-2.0,-2.0,-2.0,2.0,-2.0,-2.0
2025-06-05 11:57:40.667,0.06447894,-0.0034455701,-0.021228136,-0.082747795,0.09501509,0.027763307,0.0,0.0,0.0,-0.004930146,0.02626083,0.24888778,-0.15414016,0.008298472,0.2285887,-0.17075394,-0.08990901,-0.3627713,-0.1630964,0.038074255,-0.36027905,-0.07435191,0.018190913,0.08780253,-0.05445215,-0.06049813,-0.03351355,-0.020323513,-0.010040152,0.032659054,0.0030588699,-0.040240165,-0.081493676,0.08217188,2.0,1.7728149,-2.0,-2.0,1.3853788,-2.0,-2.0,-2.0,-2.0,2.0,-2.0,-2.0,2.0,2.0,-2.0,-2.0,1.0427461,-2.0,-2.0,-2.0,-2.0,2.0,-2.0,-2.0
2025-06-05 11:57:40.684,0.08316934,0.020278642,0.041637547,-0.022037774,0.054752294,0.0045467033,0.0,0.0,0.0,-0.004985011,0.02322924,0.26603317,-0.16393296,0.005622598,0.22052957,-0.16558062,-0.09552178,-0.38431558,-0.1455044,0.052427355,-0.36674464,-0.077230476,0.004514559,0.031245695,-0.017956179,0.05097455,0.061227415,0.03162459,-0.013756768,0.013310368,0.012023295,0.093643665,-0.06520875,0.0014803144,2.0,2.0,-2.0,-2.0,1.0427461,-2.0,-2.0,-2.0,-2.0,2.0,-2.0,-2.0,2.0,1.8597751,-2.0,-2.0,1.4817541,-2.0,-2.0,-2.0,-2.0,2.0,-2.0,-2.0
2025-06-05 11:57:40.705,0.031662237,0.06589282,-0.00022985006,-0.08235711,0.033908755,-0.042287875,0.0,0.0,0.0,-0.0051823948,0.014192541,0.28983828,-0.18546924,0.0074703516,0.23859479,-0.17265448,-0.09216507,-0.37520015,-0.15560125,0.045918368,-0.3856978,-0.07916028,0.0060713887,-0.008580078,0.011276525,-0.043998808,0.047348045,-0.028191995,0.05841595,-0.078434415,0.009746156,-0.016732741,0.00560639,-0.019671023,2.0,1.8597751,-2.0,-2.0,1.4817541,-2.0,-2.0,-2.0,-2.0,2.0,-2.0,-2.0,2.0,2.0,-2.0,-2.0,1.2281789,-2.0,-2.0,-2.0,-2.0,2.0,-2.0,-2.0
2025-06-05 11:57:40.725,0.042465843,0.07543548,-0.02801947,-0.078074254,0.04588475,-0.010073441,0.0,0.0,0.0,-0.0053284843,0.025104487,0.30776212,-0.17503414,0.0014191056,0.23948385,-0.18815456,-0.10229638,-0.39296502,-0.1349622,0.057340365,-0.39430547,-0.100483276,0.005670506,0.08466491,-0.018805183,-0.067480706,0.023920946,-0.05630645,-0.06543904,-0.028212046,0.042985182,-0.046155844,-0.0098434305,-0.009199727,2.0,2.0,-2.0,-2.0,1.2281789,-2.0,-2.0,-2.0,-2.0,2.0,-2.0,-2.0,2.0,2.0,-2.0,-2.0,0.97165084,-2.0,-2.0,-2.0,-2.0,2.0,-2.0,-2.0
2025-06-05 11:57:40.744,0.03832723,0.039134257,-0.011272768,-0.027703771,0.048367478,0.037711766,0.0,0.0,0.0,-0.0054980647,0.03395776,0.32326856,-0.18588684,0.0055303136,0.2546301,-0.18805473,-0.09888229,-0.40040424,-0.14579421,0.066621736,-0.3977056,-0.098808765,0.06138552,-0.033352464,-0.006642985,-0.046454296,0.029145382,-0.025748974,-0.051853806,0.012090246,-0.039584853,0.020804957,0.027564306,-0.011928332,2.0,2.0,-2.0,-2.0,0.97165084,-2.0,-2.0,-2.0,-2.0,2.0,-2.0,-2.0,2.0,1.9723139,-2.0,-2.0,1.2535173,-2.0,-2.0,-2.0,-2.0,2.0,-2.0,-2.0
2025-06-05 11:57:40.767,0.07001317,-0.035682697,-0.05137268,-0.10671037,0.11066798,-0.017145505,0.0,0.0,0.0,-0.005644998,0.024038386,0.33176354,-0.18744288,-0.01000313,0.24983265,-0.19455816,-0.09730548,-0.40915173,-0.1422036,0.06924558,-0.3948919,-0.09305517,-0.04609988,-0.024631577,0.022819709,-0.009749004,0.07990309,0.016636996,0.008337907,0.053603444,0.0603502,-0.015729656,0.042787902,0.053683016,2.0,1.9723139,-2.0,-2.0,1.2535173,-2.0,-2.0,-2.0,-2.0,2.0,-2.0,-2.0,2.0,2.0,-2.0,-2.0,1.0683992,-2.0,-2.0,-2.0,-2.0,2.0,-2.0,-2.0
2025-06-05 11:57:40.784,0.052753896,0.02852213,0.03943247,-0.07554654,0.13047403,0.014125919,0.0,0.0,0.0,-0.005555884,0.032895368,0.34481722,-0.19353618,-0.011072369,0.25700703,-0.19112897,-0.11644233,-0.4142267,-0.1308998,0.08113596,-0.40354058,-0.088208325,-0.047681004,-0.048615135,-0.022535449,0.0102653615,0.06626347,-0.009029338,-0.0726549,-0.07175092,-0.053497158,0.05559401,0.054031763,-0.041354917,2.0,2.0,-2.0,-2.0,1.0683992,-2.0,-2.0,-2.0,-2.0,2.0,-2.0,-2.0,2.0,1.8680376,-2.0,-2.0,1.506911,-2.0,-2.0,-2.0,-2.0,2.0,-1.9820876,-2.0
2025-06-05 11:57:40.805,0.027010439,-0.023796136,-0.024890343,-0.117052466,0.05661184,0.007768495,0.0,0.0,0.0,-0.005481583,0.032778025,0.35484877,-0.19094712,-0.007636093,0.25362226,-0.19476591,-0.1092385,-0.4162767,-0.1295851,0.08521941,-0.40370145,-0.10722501,-0.02726754,0.08504577,-0.078094035,0.048351925,-0.059978366,-0.057091314,-0.019143298,-0.037101302,-0.022373345,-0.012092571,0.064841904,-0.048456054,2.0,1.8680376,-2.0,-2.0,1.506911,-2.0,-2.0,-2.0,-2.0,2.0,-1.9820876,-2.0,2.0,2.0,-2.0,-2.0,0.827703,-2.0,-2.0,-2.0,-2.0,2.0,-2.0,-2.0
2025-06-05 11:57:40.825,0.018523615,-0.027536983,0.042194854,-0.037419897,0.12362493,0.024491759,0.0,0.0,0.0,-0.0052274424,0.032393605,0.34741405,-0.19274375,-0.00091529015,0.26252866,-0.1822039,-0.118090086,-0.4207147,-0.14042126,0.094710164,-0.40443808,-0.105811335,0.074587576,-0.053557143,0.059545793,-0.06613864,0.023164466,-0.0056272275,0.061312113,-0.00026718265,-0.058570646,-0.019461093,0.044860706,0.010455058,2.0,2.0,-2.0,-2.0,0.827703,-2.0,-2.0,-2.0,-2.0,2.0,-2.0,-2.0,2.0,1.7245911,-2.0,-2.0,1.5854993,-2.0,-2.0,-2.0,-2.0,2.0,-2.0,-2.0
2025-06-05 11:57:40.845,0.025338748,-0.03148391,-0.027303172,-0.024111172,0.044048175,0.010437924,0.0,0.0,0.0,-0.005220935,0.02376906,0.3550273,-0.20075688,-0.009479557,0.25933313,-0.19165094,-0.13123122,-0.42719516,-0.12747999,0.094615884,-0.4191343,-0.10361287,0.025805192,-0.024228217,-0.047581237,0.036439873,-0.048263878,0.054847993,-0.07071159,0.013313879,-0.019800054,-0.013915184,0.021924254,-0.07979836,2.0,1.7245911,-2.0,-2.0,1.5854993,-2.0,-2.0,-2.0,-2.0,2.0,-2.0,-2.0,2.0,2.0,-2.0,-2.0,0.7145416,-2.0,-2.0,-2.0,-2.0,2.0,-2.0,-2.0
2025-06-05 11:57:40.867,0.025911884,0.026532773,-0.019136058,-0.052034017,0.08219801,-0.030214911,0.0,0.0,0.0,-0.005029336,0.03663626,0.35735688,-0.19361071,-0.019742463,0.24230869,-0.19311647,-0.12668096,-0.42470384,-0.12400183,0.102363914,-0.42305276,-0.115575716,-0.020486863,-0.041654397,-0.070829585,-0.028343065,-0.06822057,-0.04583263,0.0015299765,-0.025675243,0.040093757,0.020784,-0.073890805,-0.051595435,2.0,2.0,-2.0,-2.0,0.7145416,-2.0,-2.0,-2.0,-2.0,2.0,-2.0,-2.0,2.0,2.0,-2.0,-2.0,1.0527844,-2.0,-2.0,-2.0,-2.0,2.0,-2.0,-2.0
2025-06-05 11:57:40.885,0.049270347,-0.03291474,0.012166622,-0.07157512,0.104333706,-0.000916707,0.0,0.0,0.0,-0.0051219454,0.033147965,0.37621263,-0.19369948,-0.010883396,0.24478017,-0.18721783,-0.12231768,-0.42596546,-0.13184945,0.10533137,-0.42872348,-0.10593367,0.004721054,0.0234777,-0.013644717,-0.007246156,0.012094092,0.06008941,0.046588473,0.012209833,-0.03210487,-0.055770274,0.05701051,0.055186227,2.0,2.0,-2.0,-2.0,1.0527844,-2.0,-2.0,-2.0,-2.0,2.0,-2.0,-2.0,2.0,1.9786605,-2.0,-2.0,1.2149436,-2.0,-2.0,-2.0,-2.0,2.0,-2.0,-2.0
2025-06-05 11:57:40.905,-0.021271847,0.03427163,0.031836044,-0.07173239,0.093186505,0.04840004,0.0,0.0,0.0,-0.005352766,0.03618318,0.37696844,-0.20508915,-0.01154996,0.25011787,-0.18804133,-0.12939589,-0.4265991,-0.12957883,0.11337979,-0.41497186,-0.123607844,0.053492993,0.021049665,0.040082768,-0.06454743,-0.031625878,-0.044452906,0.023193939,0.022762341,0.045102578,-0.009172069,0.043929514,0.019585133,2.0,1.9786605,-2.0,-2.0,1.2149436,-2.0,-2.0,-2.0,-2.0,2.0,-2.0,-2.0,2.0,1.9960756,-2.0,-2.0,1.4737284,-2.0,-2.0,-2.0,-2.0,2.0,-2.0,-2.0
2025-06-05 11:57:40.924,-0.00035537162,-0.04610296,-0.017041551,-0.075848274,0.09081872,-0.04519684,0.0,0.0,0.0,-0.005455466,0.03666598,0.37396184,-0.19905089,-0.01704092,0.23429547,-0.19041748,-0.13393305,-0.43078688,-0.12455332,0.106872804,-0.42643884,-0.12340816,0.017598603,0.015438067,0.0034942338,0.03911606,0.053279825,-0.013806557,-0.01666753,0.045572706,0.05005386,-0.005522823,-0.038527004,-0.08442705,2.0,1.9960756,-2.0,-2.0,1.4737284,-2.0,-2.0,-2.0,-2.0,2.0,-2.0,-2.0,2.0,2.0,-2.0,-2.0,0.8529811,-2.0,-2.0,-2.0,-2.0,2.0,-2.0,-2.0
2025-06-05 11:57:40.944,-0.028474262,-0.021139447,0.012943292,-0.100523904,0.11330369,0.034123212,0.0,0.0,0.0,-0.0053444663,0.03211637,0.39114144,-0.20416035,-0.01596235,0.25127944,-0.18030661,-0.12735789,-0.42907748,-0.13027896,0.102498576,-0.4356727,-0.11867572,-0.0013784216,-0.06035096,-0.017016368,-0.06410828,-0.033203624,0.046656538,-0.06328761,0.0021865764,0.017879903,-0.03485713,-0.06011578,-0.05841828,2.0,2.0,-2.0,-2.0,0.8529811,-2.0,-2.0,-2.0,-2.0,2.0,-2.0,-2.0,2.0,2.0,-2.0,-2.0,1.1526566,-2.0,-2.0,-2.0,-2.0,2.0,-2.0,-2.0
2025-06-05 11:57:40.965,0.022872418,-0.036903277,-0.03953057,-0.030802106,0.1154641,0.04334108,0.0,0.0,0.0,-0.0054095946,0.04013391,0.38926744,-0.19478951,-0.013279097,0.23124371,-0.18126935,-0.13198116,-0.43549475,-0.1308421,0.10619488,-0.4369611,-0.13463102,-0.013943305,0.041429568,0.019946426,0.06571643,-0.032529183,-0.030590858,-0.058069937,-0.040956274,0.041677974,-0.036506232,0.046812233,-0.0037980971,2.0,2.0,-2.0,-2.0,1.1526566,-2.0,-2.0,-2.0,-2.0,2.0,-2.0,-2.0,2.0,2.0,-2.0,-2.0,0.7731556,-2.0,-2.0,-2.0,-2.0,2.0,-2.0,-2.0
2025-06-05 11:57:40.985,-0.024173196,0.0213474,0.041771796,-0.0711518,0.057514753,-0.033049274,0.0,0.0,0.0,-0.005592834,0.03333891,0.39991754,-0.19827764,-0.015085124,0.24327789,-0.17601925,-0.13493961,-0.4434955,-0.13537325,0.118977785,-0.44205928,-0.13060981,0.025462646,-0.06514944,0.065695204,-0.011241912,-0.048747867,-0.051205326,-0.05352595,0.013064871,0.030642042,0.062454358,0.054818206,-0.034410793,2.0,2.0,-2.0,-2.0,0.7731556,-2.0,-2.0,-2.0,-2.0,2.0,-2.0,-2.0,2.0,1.7368654,-2.0,-2.0,1.4683053,-2.0,-2.0,-2.0,-2.0,2.0,-2.0,-2.0
2025-06-05 11:57:41.005,-0.009230185,0.020814413,-0.057877745,-0.0909059,0.14873353,-0.045070402,0.0,0.0,0.0,-0.005917107,0.04330425,0.39725888,-0.20123987,-0.0132801,0.23496833,-0.1785682,-0.13153327,-0.45442614,-0.1258042,0.10600701,-0.4403769,-0.13315956,0.013641729,0.0036905997,0.04106755,-0.017687095,-0.03663232,0.030880332,-0.0023650352,-0.045582365,-0.054698717,-0.015624461,0.04542576,0.009770258,2.0,1.7368654,-2.0,-2.0,1.4683053,-2.0,-2.0,-2.0,-2.0,2.0,-2.0,-2.0,2.0,2.0,-2.0,-2.0,0.6347972,-2.0,-2.0,-2.0,-2.0,2.0,-2.0,-2.0
2025-06-05 11:57:41.025,0.035104472,-0.015231894,0.01798707,-0.043150134,0.11392661,-0.016299227,0.0,0.0,0.0,-0.005903189,0.05013481,0.3954501,-0.19365022,-0.007782325,0.22834137,-0.18637785,-0.1435466,-0.4506851,-0.12350948,0.11026444,-0.43292293,-0.14455672,-0.037385248,0.042355414,-0.025744775,0.05555695,-0.031354073,0.06824472,0.048660863,-0.022508796,0.024108522,0.06325419,0.0016566215,0.034381162,2.0,2.0,-2.0,-2.0,0.6347972,-2.0,-2.0,-2.0,-2.0,2.0,-2.0,-2.0,2.0,1.7275294,-2.0,-2.0,1.2002683,-2.0,-2.0,-2.0,-2.0,2.0,-2.0,-2.0
2025-06-05 11:57:41.048,-0.025878524,-0.043324213,0.010977329,-0.069907874,0.075463265,-0.0056654597,0.0,0.0,0.0,-0.0060940534,0.04854138,0.40431553,-0.20544584,-0.015440219,0.22394255,-0.18728054,-0.14546414,-0.4531621,-0.14075553,0.12652758,-0.446465,-0.15667728,0.060490996,-0.07481303,-0.033624478,0.064830706,0.011348579,0.050315503,-0.035400666,-0.00038091873,0.044100113,-0.052270524,-0.020519903,-0.084729664,2.0,1.7275294,-2.0,-2.0,1.2002683,-2.0,-2.0,-2.0,-2.0,2.0,-2.0,-2.0,2.0,2.0,-2.0,-2.0,0.99554574,-2.0,-2.0,-2.0,-2.0,2.0,-2.0,-2.0
2025-06-05 11:57:41.067,0.010227413,-0.042613823,0.03151894,-0.03538466,0.14958481,-0.030050905,0.0,0.0,0.0,-0.006169275,0.043454178,0.40590987,-0.1968508,-0.021492997,0.21736321,-0.18521003,-0.14323333,-0.44613388,-0.12358146,0.11741347,-0.44147003,-0.15306285,-0.015218469,-0.03254622,-0.06368993,0.011466773,-0.036626674,-0.059786193,-0.05259,0.06360162,-0.010199725,0.016973794,0.050393756,-0.03805061,2.0,2.0,-2.0,-2.0,0.99554574,-2.0,-2.0,-2.0,-2.0,2.0,-2.0,-2.0,2.0,1.8922251,-2.0,-2.0,1.251417,-2.0,-2.0,-2.0,-2.0,2.0,-2.0,-2.0
2025-06-05 11:57:41.086,-0.018986575,-0.020532088,-0.051553193,-0.019609805,0.073813096,0.04579455,0.0,0.0,0.0,-0.006247621,0.050087757,0.39282584,-0.19455242,-0.02326144,0.22520413,-0.17872344,-0.1428428,-0.4521862,-0.12925076,0.12515594,-0.45218864,-0.1575896,-0.052493423,0.037907366,-0.06835005,-0.029603928,-0.065564655,-0.018851418,-0.032071963,-0.059499394,0.010735421,0.03399587,0.036061253,0.030411536,2.0,1.8922251,-2.0,-2.0,1.251417,-2.0,-2.0,-2.0,-2.0,2.0,-2.0,-2.0,2.0,2.0,-2.0,-2.0,0.72360903,-2.0,-2.0,-2.0,-2.0,2.0,-2.0,-2.0
2025-06-05 11:57:41.108,0.053286485,0.016736541,-0.030126419,-0.028650807,0.05627136,0.0442068,0.0,0.0,0.0,-0.006220398,0.041355614,0.3933865,-0.19117272,-0.014032974,0.21995915,-0.18525529,-0.14441393,-0.4642853,-0.12690952,0.11289445,-0.45403853,-0.15170814,0.07551882,-0.034869876,0.07332415,-0.028998708,0.022581574,-0.05294052,0.050880782,0.021468576,-0.074202694,0.031082515,0.05240179,-0.072480984,2.0,2.0,-2.0,-2.0,0.72360903,-2.0,-2.0,-2.0,-2.0,2.0,-2.0,-2.0,2.0,1.9055746,-2.0,-2.0,1.0900371,-2.0,-2.0,-2.0,-2.0,2.0,-2.0,-2.0
2025-06-05 11:57:41.126,-0.03692665,0.03318319,-0.0258163,-0.065362506,0.1372748,0.0017964185,0.0,0.0,0.0,-0.006371521,0.04552396,0.40957168,-0.19991423,-0.02452112,0.21035838,-0.17317125,-0.15851028,-0.46079364,-0.1284197,0.12695824,-0.44215432,-0.15502793,-0.047012016,0.023241024,0.034643244,-0.027282165,-0.047232796,-0.022756685,0.043310862,0.024269382,0.06448199,-0.03678644,-0.024142848,-0.0703809,2.0,1.9055746,-2.0,-2.0,1.0900371,-2.0,-2.0,-2.0,-2.0,2.0,-2.0,-2.0,2.0,2.0,-2.0,-2.0,0.81027704,-2.0,-2.0,-2.0,-2.0,2.0,-2.0,-2.0
2025-06-05 11:57:41.149,0.035811935,-0.01928698,0.0044838293,-0.09223592,0.077132486,-0.03953685,0.0,0.0,0.0,-0.0064462386,0.049906943,0.4043502,-0.19330472,-0.00696233,0.21364854,-0.1786027,-0.14867227,-0.45992905,-0.13433373,0.12879269,-0.45849946,-0.16409306,-0.035419222,0.008137094,0.07148314,-0.06535119,-0.08212008,0.025447384,0.0024821407,-0.04153968,-0.014041393,0.00096935476,-0.02875172,-0.072720364,2.0,2.0,-2.0,-2.0,0.81027704,-2.0,-2.0,-2.0,-2.0,2.0,-2.0,-2.0,2.0,1.8402377,-2.0,-2.0,0.9144704,-2.0,-2.0,-2.0,-2.0,2.0,-2.0,-2.0
2025-06-05 11:57:41.166,-0.036061734,-0.02583469,-0.0076366332,-0.07129364,0.1329481,0.028286131,0.0,0.0,0.0,-0.0065541016,0.05243682,0.40539026,-0.19711857,-0.013212891,0.21498662,-0.16277258,-0.15746413,-0.46668443,-0.14283003,0.12668087,-0.46041095,-0.17029962,-0.0031120707,-0.008317692,-0.013964838,-0.011361376,-0.03447192,0.033582512,0.06777992,0.05985201,-0.0037173196,-0.02921086,-0.06547768,-0.03980284,2.0,1.8402377,-2.0,-2.0,0.9144704,-2.0,-2.0,-2.0,-2.0,2.0,-2.0,-2.0,2.0,2.0,-2.0,-2.0,0.92459136,-2.0,-2.0,-2.0,-2.0,2.0,-2.0,-2.0
2025-06-05 11:57:41.187,0.050165217,-0.0470127,0.021444157,-0.03241148,0.11655477,-0.011958778,0.0,0.0,0.0,-0.006601422,0.05278417,0.40416792,-0.2096424,-0.015398528,0.2102204,-0.16254689,-0.15021725,-0.46342105,-0.1459394,0.12755075,-0.4632264,-0.1667755,-0.016086621,0.034044024,0.027383747,-0.030144911,-0.043429557,0.03889436,-0.06806439,-0.017665127,0.056054264,0.072461136,-0.022388913,-0.016625686,2.0,2.0,-2.0,-2.0,0.92459136,-2.0,-2.0,-2.0,-2.0,2.0,-2.0,-2.0,2.0,1.7258832,-2.0,-2.0,1.1553553,-2.0,-2.0,-2.0,-2.0,2.0,-2.0,-2.0
2025-06-05 11:57:41.206,0.05122573,-0.007980429,0.009869727,-0.026479306,0.1153566,0.04914917,0.0,0.0,0.0,-0.006617973,0.060161497,0.41090798,-0.19262078,-0.021418342,0.19974294,-0.16418916,-0.14822207,-0.46679813,-0.13986745,0.11465631,-0.44824797,-0.16414358,-0.04565438,-0.07567231,-0.02223389,-0.05745395,-0.022921508,-0.033144787,-0.016930263,-0.0059695267,-0.005734303,0.046324752,0.02225607,-0.07176665,2.0,1.7258832,-2.0,-2.0,1.1553553,-2.0,-2.0,-2.0,-2.0,2.0,-2.0,-2.0,2.0,1.8491496,-2.0,-2.0,1.2177548,-2.0,-2.0,-2.0,-2.0,2.0,-2.0,-2.0
2025-06-05 11:57:41.226,-0.012695256,0.025516395,-0.026790127,-0.019064425,0.09514923,-0.040422536,0.0,0.0,0.0,-0.0064766887,0.047955345,0.41115996,-0.19343533,-0.02760352,0.20306048,-0.17587152,-0.1578476,-0.46563494,-0.13701706,0.12034927,-0.44345328,-0.16599382,-0.019587612,-0.006704317,0.06558119,0.042563505,0.038864978,-0.027438426,0.056494858,-0.029303381,0.06273472,0.006351711,-0.0040318356,-0.048343096,2.0,1.8491496,-2.0,-2.0,1.2177548,-2.0,-2.0,-2.0,-2.0,2.0,-2.0,-2.0,2.0,2.0,-2.0,-2.0,0.8888697,-2.0,-2.0,-2.0,-2.0,2.0,-2.0,-2.0
2025-06-05 11:57:41.249,-0.017585035,0.003276017,-0.019516326,-0.1161409,0.098718114,-0.033255037,0.0,0.0,0.0,-0.0062579084,0.0489439,0.41416237,-0.19278716,-0.02094591,0.20914108,-0.1797703,-0.16310878,-0.45685554,-0.1424616,0.13135533,-0.45748815,-0.17605548,0.041535154,0.04419368,-0.016551474,-0.028214265,-0.056066316,-0.021949379,-0.049540903,0.015333271,0.026487524,-0.06671571,-0.017811857,0.008667989,2.0,2.0,-2.0,-2.0,0.8888697,-2.0,-2.0,-2.0,-2.0,2.0,-2.0,-2.0,2.0,2.0,-2.0,-2.0,0.776004,-2.0,-2.0,-2.0,-2.0,2.0,-2.0,-2.0
2025-06-05 11:57:41.266,0.038943257,-0.015695255,-0.00094369927,-0.0627479,0.13812616,0.037625972,0.0,0.0,0.0,-0.006222366,0.054616787,0.41756815,-0.20197043,-0.01287357,0.20016743,-0.16715774,-0.14529586,-0.46573412,-0.13174385,0.11866861,-0.4607462,-0.18298331,0.0485332,0.06774123,-0.029847782,0.061215356,0.056142483,0.0679078,0.063942865,0.04347765,-0.03155794,-0.009720727,0.027209219,0.037588876,2.0,2.0,-2.0,-2.0,0.776004,-2.0,-2.0,-2.0,-2.0,2.0,-2.0,-2.0,2.0,1.8435835,-2.0,-2.0,1.053523,-2.0,-2.0,-2.0,-2.0,2.0,-2.0,-2.0
2025-06-05 11:57:41.287,-0.014200429,-0.011733183,0.012485047,-0.04368514,0.0728878,-0.00011050343,0.0,0.0,0.0,-0.006334984,0.05418225,0.40190583,-0.20695288,-0.025034318,0.2050127,-0.1624017,-0.16493349,-0.46940255,-0.1463167,0.12920678,-0.4538392,-0.17789982,-0.06578175,0.02276071,-0.051072784,-0.045157447,-0.05227425,-0.073793896,0.043043308,-0.022046141,-0.0046891756,-0.030928185,0.021041619,-0.013096686,2.0,1.8435835,-2.0,-2.0,1.053523,-2.0,-2.0,-2.0,-2.0,2.0,-2.0,-2.0,2.0,1.853728,-2.0,-2.0,1.1549555,-2.0,-2.0,-2.0,-2.0,2.0,-2.0,-2.0
2025-06-05 11:57:41.309,-0.01740043,-0.04500128,0.005396483,-0.04592324,0.13170375,0.028982813,0.0,0.0,0.0,-0.0063131736,0.06149577,0.41843614,-0.1996921,-0.024512807,0.18940286,-0.16908221,-0.15648253,-0.46932212,-0.13310191,0.11721442,-0.44919306,-0.18168607,-0.073260255,0.038141448,0.07054124,0.0361115,0.04304769,-0.07233773,-0.023433905,-0.014434683,-0.01446919,-0.039188765,-0.055070017,-0.0060742446,2.0,1.853728,-2.0,-2.0,1.1549555,-2.0,-2.0,-2.0,-2.0,2.0,-2.0,-2.0,2.0,2.0,-2.0,-2.0,1.0466617,-2.0,-2.0,-2.0,-2.0,2.0,-2.0,-2.0
2025-06-05 11:57:41.327,0.048105497,-0.03099544,-0.05132237,-0.04383061,0.14556453,-0.0023289486,0.0,0.0,0.0,-0.006156092,0.061376557,0.42015734,-0.20027389,-0.022997092,0.20863418,-0.1741585,-0.16340964,-0.4596653,-0.12818976,0.11820569,-0.46256408,-0.1686452,-0.046493154,0.032382242,0.03515183,-0.05493254,-0.0040319497,-0.0621455,-0.051681183,0.040365353,0.036837224,0.0309684,0.019499816,-0.019387264,2.0,2.0,-2.0,-2.0,1.0466617,-2.0,-2.0,-2.0,-2.0,2.0,-2.0,-2.0,2.0,2.0,-2.0,-2.0,0.7447311,-2.0,-2.0,-1.8006243,-2.0,2.0,-2.0,-2.0
2025-06-05 11:57:41.349,0.007829103,0.0010003967,0.035792805,-0.074529715,0.12803571,-0.00044667732,0.0,0.0,0.0,-0.006049767,0.06604245,0.42505565,-0.20059554,-0.02254197,0.19044247,-0.17478819,-0.1496843,-0.46711025,-0.1427087,0.13612139,-0.4603019,-0.18112373,0.02329998,-0.01946632,0.058791615,0.045370832,0.056939684,0.043931708,0.039593752,-0.024721414,-0.041302472,0.06587423,-0.036824696,-0.019535452,2.0,2.0,-2.0,-2.0,0.7447311,-2.0,-2.0,-1.8006243,-2.0,2.0,-2.0,-2.0,2.0,1.5886657,-2.0,-2.0,1.2892022,-2.0,-2.0,-2.0,-2.0,2.0,-2.0,-2.0
2025-06-05 11:57:41.367,0.0034841506,0.028595595,-0.0421569,-0.031560108,0.15754811,-0.014670444,0.0,0.0,0.0,-0.006315584,0.053497408,0.4240027,-0.1916189,-0.03320906,0.20654547,-0.17256382,-0.1580987,-0.4709975,-0.1348842,0.11890642,-0.45015478,-0.18475759,0.03129533,-0.0049185483,0.02135185,0.069816954,-0.02594627,-0.008195788,0.0049373615,-0.060588136,0.028531797,0.04203688,0.063199885,-0.033184484,2.0,1.5886657,-2.0,-2.0,1.2892022,-2.0,-2.0,-2.0,-2.0,2.0,-2.0,-2.0,2.0,2.0,-2.0,-2.0,0.7741684,-2.0,-2.0,-2.0,-2.0,2.0,-2.0,-2.0
2025-06-05 11:57:41.388,0.0012504578,-0.009993842,-0.013653139,-0.038916744,0.12729634,-0.03703209,0.0,0.0,0.0,-0.006228204,0.05425511,0.40753093,-0.20095818,-0.01862672,0.20064685,-0.15769105,-0.15813069,-0.4701979,-0.13966782,0.121360146,-0.4635052,-0.17394745,-0.009506817,0.06367481,0.02816889,0.033691965,0.036021225,-0.05329412,0.0037004414,0.04800498,0.011973179,0.05425477,-0.06260343,-0.066016145,2.0,2.0,-2.0,-2.0,0.7741684,-2.0,-2.0,-2.0,-2.0,2.0,-2.0,-2.0,2.0,1.9553895,-2.0,-2.0,0.9947117,-2.0,-2.0,-2.0,-2.0,2.0,-2.0,-2.0
2025-06-05 11:57:41.407,-0.0060146004,0.024423087,0.040686958,-0.10402793,0.088609315,-0.01200189,0.0,0.0,0.0,-0.0061504967,0.061958857,0.4243854,-0.19412735,-0.03172374,0.18730462,-0.16588686,-0.15774602,-0.46524194,-0.14046992,0.13392083,-0.4598443,-0.17637047,0.039722357,-0.051455185,-0.07259246,0.037592426,-0.043808214,-0.00038138925,0.058092784,-0.053515725,0.027497312,0.028528305,-0.07143741,-0.015470969,2.0,1.9553895,-2.0,-2.0,0.9947117,-2.0,-2.0,-2.0,-2.0,2.0,-2.0,-2.0,2.0,1.8872541,-2.0,-2.0,1.2405343,-2.0,-2.0,-2.0,-2.0,2.0,-2.0,-2.0
2025-06-05 11:57:41.427,-0.030030737,0.03713201,-0.0022142339,-0.066521846,0.13800485,-0.030098148,0.0,0.0,0.0,-0.006086035,0.052852698,0.42765677,-0.2080358,-0.03247612,0.19113478,-0.17369895,-0.15013726,-0.4585816,-0.14165261,0.13160397,-0.4623212,-0.17039815,0.0543515,-0.06363674,0.0051221303,-0.005538036,-0.06455485,0.045681108,0.033193134,-0.02208057,-0.055438448,0.021954743,-0.03634856,0.0021994773,2.0,1.8872541,-2.0,-2.0,1.2405343,-2.0,-2.0,-2.0,-2.0,2.0,-2.0,-2.0,2.0,1.9784673,-2.0,-2.0,0.8838628,-2.0,-2.0,-2.0,-2.0,2.0,-2.0,-2.0
2025-06-05 11:57:41.449,-0.010188723,0.004283272,0.020917831,-0.08191648,0.11005733,-0.025433574,0.0,0.0,0.0,-0.005875052,0.06435401,0.42265502,-0.2047589,-0.032410722,0.194712,-0.17194109,-0.16336603,-0.46302778,-0.14502303,0.120187014,-0.46266857,-0.17853367,0.06193137,0.041829586,-0.02379345,-0.06554551,0.059341196,-0.006308918,-0.036876272,-0.064030334,0.00032112465,-0.05894408,0.056789156,0.05903953,2.0,1.9784673,-2.0,-2.0,0.8838628,-2.0,-2.0,-2.0,-2.0,2.0,-2.0,-2.0,2.0,1.7456224,-2.0,-2.0,1.2577679,-2.0,-2.0,-2.0,-2.0,2.0,-2.0,-2.0
2025-06-05 11:57:41.467,0.046201736,-0.03587815,-0.01760813,-0.058455255,0.11036871,-0.018928744,0.0,0.0,0.0,-0.005786206,0.05821077,0.41491577,-0.19030587,-0.03203459,0.19887064,-0.1635518,-0.1533996,-0.45973605,-0.13340198,0.12349626,-0.45206475,-0.1729217,-0.011198113,0.027265333,-0.04130405,-0.0525727,0.05927537,-0.064566694,0.05870137,0.05647159,0.055285085,0.039879326,0.037008755,-0.054828286,2.0,1.7456224,-2.0,-2.0,1.2577679,-2.0,-2.0,-2.0,-2.0,2.0,-2.0,-2.0,2.0,2.0,-2.0,-2.0,1.0734693,-2.0,-2.0,-2.0,-2.0,2.0,-2.0,-2.0
2025-06-05 11:57:41.489,-0.03974963,0.033518754,-0.02541515,-0.048565183,0.08558116,0.04832916,0.0,0.0,0.0,-0.005589472,0.05647829,0.42683476,-0.19580677,-0.026303448,0.20633453,-0.17107335,-0.15768178,-0.46760675,-0.13670929,0.12405837,-0.46175668,-0.18399082,-0.036254134,-0.0027095336,0.044229887,-0.004987888,-0.0058521302,-0.03878231,-0.040586628,-0.02703517,0.06399311,-0.059305497,-0.003946926,-0.0069467514,2.0,2.0,-2.0,-2.0,1.0734693,-2.0,-2.0,-2.0,-2.0,2.0,-2.0,-2.0,2.0,2.0,-2.0,-2.0,0.8292925,-2.0,-2.0,-2.0,-2.0,2.0,-2.0,-2.0
2025-06-05 11:57:41.507,-0.029780056,-0.005103183,0.0382604,-0.09047108,0.14134273,0.016915096,0.0,0.0,0.0,-0.0054574315,0.07044166,0.42434454,-0.1902976,-0.038460314,0.19212678,-0.16109784,-0.15843621,-0.47947595,-0.13450834,0.13370435,-0.46008122,-0.18297811,0.021962047,-0.04067638,0.03159234,-0.004220362,0.051276956,-0.009889541,0.027011352,-0.04445744,0.069344014,-0.016855951,-0.05750935,0.06744789,2.0,2.0,-2.0,-2.0,0.8292925,-2.0,-2.0,-2.0,-2.0,2.0,-2.0,-2.0,2.0,1.8008052,-2.0,-2.0,1.5022116,-2.0,-2.0,-2.0,-2.0,2.0,-2.0,-2.0
2025-06-05 11:57:41.528,0.049356334,-0.002624289,-0.041422192,-0.059139356,0.1275436,-0.037640516,0.0,0.0,0.0,-0.0055030463,0.052931763,0.4210736,-0.20680293,-0.02512698,0.20547251,-0.16305636,-0.16696306,-0.4669381,-0.14313763,0.12853691,-0.44800606,-0.18529405,-0.05670435,-0.039299544,0.007894603,0.003612874,-0.007873209,-0.022989208,-0.03076533,0.048339527,0.06686889,0.074307166,-0.048929222,-0.018442994,2.0,1.8008052,-2.0,-2.0,1.5022116,-2.0,-2.0,-2.0,-2.0,2.0,-2.0,-2.0,2.0,2.0,-2.0,-2.0,0.7354378,-2.0,-2.0,-1.994598,-2.0,2.0,-2.0,-2.0
2025-06-05 11:57:41.549,0.030570526,0.007047931,0.043637905,-0.039174896,0.13085753,0.009037034,0.0,0.0,0.0,-0.0052723107,0.0674734,0.43186986,-0.19332664,-0.029828569,0.21187425,-0.17047371,-0.16664128,-0.4621804,-0.1366924,0.1340614,-0.44722658,-0.19045487,0.047528323,-0.03342321,-0.035550553,-0.058274698,0.029311001,-0.06254416,-0.056451496,0.011003311,-0.011441421,-0.032854512,-0.014485384,0.062444977,2.0,2.0,-2.0,-2.0,0.7354378,-2.0,-2.0,-1.994598,-2.0,2.0,-2.0,-2.0,2.0,1.6808028,-2.0,-2.0,1.4979898,-2.0,-2.0,-2.0,-2.0,2.0,-2.0,-2.0
2025-06-05 11:57:41.567,0.020302122,-0.03376525,-0.009122039,-0.023249585,0.08120127,0.039902512,0.0,0.0,0.0,-0.005245815,0.060410563,0.43162292,-0.19685374,-0.029383527,0.2086872,-0.17018048,-0.153962,-0.47236946,-0.13141693,0.12926911,-0.4596979,-0.18048894,-0.017687622,0.04712985,0.077723786,-0.073973835,0.019359205,-0.06836388,0.018168941,-0.037665445,0.051059708,0.04226989,0.06314649,-0.011284147,2.0,1.6808028,-2.0,-2.0,1.4979898,-2.0,-2.0,-2.0,-2.0,2.0,-2.0,-2.0,2.0,2.0,-2.0,-2.0,1.1337916,-2.0,-2.0,-2.0,-2.0,2.0,-2.0,-2.0
2025-06-05 11:57:41.588,0.032784447,-0.017768024,0.025860364,-0.10152076,0.07721447,0.044802576,0.0,0.0,0.0,-0.0049897395,0.06777986,0.4332419,-0.1922589,-0.02730316,0.21518649,-0.17095727,-0.16596793,-0.47696257,-0.12668073,0.13514765,-0.45845634,-0.17710574,-0.025254304,-0.06856341,0.071728624,-0.028717916,0.013906751,-0.010683222,0.0321622,0.039520927,-0.04627261,-0.0016711968,-0.030728515,-0.05146342,2.0,2.0,-2.0,-2.0,1.1337916,-2.0,-2.0,-2.0,-2.0,2.0,-2.0,-2.0,2.0,2.0,-2.0,-2.0,1.1799952,-2.0,-2.0,-2.0,-2.0,2.0,-2.0,-2.0
2025-06-05 11:57:41.608,0.004779096,-0.046261273,-0.05113928,-0.02867329,0.117366046,0.002297147,0.0,0.0,0.0,-0.004766652,0.061095923,0.43371546,-0.20042375,-0.023888228,0.21470954,-0.17809787,-0.16811742,-0.47869346,-0.13778669,0.12408962,-0.4437561,-0.18835877,-0.008770107,0.0020769353,0.04372137,0.057362743,0.06508489,-0.009721068,0.055233512,0.008236899,0.01096665,-0.058036808,-0.00032573738,0.05435195,2.0,2.0,-2.0,-2.0,1.1799952,-2.0,-2.0,-2.0,-2.0,2.0,-2.0,-2.0,2.0,2.0,-2.0,-2.0,0.72230655,-2.0,-2.0,-1.8877021,-2.0,2.0,-2.0,-2.0
2025-06-05 11:57:41.628,0.002619024,0.052246194,-0.014284038,-0.04834794,0.09631939,-0.03986679,0.0,0.0,0.0,-0.0046384754,0.06379221,0.43971744,-0.18976194,-0.039172485,0.21446906,-0.17153767,-0.15629394,-0.48004234,-0.12510958,0.13654546,-0.4481755,-0.18755822,0.044282377,-0.02357169,-0.04414445,-0.020864049,-0.021544363,0.08178298,0.03781938,0.005465811,-0.048185583,0.052186232,0.012214844,-0.01074686,2.0,2.0,-2.0,-2.0,0.72230655,-2.0,-2.0,-1.8877021,-2.0,2.0,-2.0,-2.0,2.0,1.805939,-2.0,-2.0,0.9313114,-2.0,-2.0,-2.0,-2.0,2.0,-2.0,-2.0
2025-06-05 11:57:41.649,-0.03038366,0.04043449,0.0015761305,-0.031616434,0.08908698,0.033301137,0.0,0.0,0.0,-0.004864668,0.057694588,0.4433247,-0.19028531,-0.027411021,0.21338095,-0.15923692,-0.16515976,-0.47317535,-0.12518443,0.12216273,-0.452496,-0.18595353,0.036794983,-0.02776672,-0.061276406,-0.030814279,-0.05189474,-0.015123154,-0.039393302,0.037754476,-0.05486135,-0.04064783,0.011293192,0.05430682,2.0,1.805939,-2.0,-2.0,0.9313114,-2.0,-2.0,-2.0,-2.0,2.0,-2.0,-2.0,2.0,1.9009278,-2.0,-2.0,1.0428338,-2.0,-2.0,-2.0,-2.0,2.0,-2.0,-2.0
2025-06-05 11:57:41.668,-0.00372732,0.026394412,-0.015157998,-0.022314517,0.105544016,-0.03112427,0.0,0.0,0.0,-0.0050171087,0.061437294,0.42489275,-0.2053158,-0.02644358,0.20365024,-0.1554312,-0.16053182,-0.48185256,-0.12733708,0.1291937,-0.449229,-0.18262726,0.032268893,0.050293844,0.056691643,-0.021025708,0.059025813,-0.02344394,0.034223974,-0.013454428,-0.044148035,0.010477291,0.034146644,0.06650825,2.0,1.9009278,-2.0,-2.0,1.0428338,-2.0,-2.0,-2.0,-2.0,2.0,-2.0,-2.0,2.0,1.817672,-2.0,-2.0,1.1350459,-2.0,-2.0,-2.0,-2.0,2.0,-2.0,-2.0
2025-06-05 11:57:41.689,-0.047475554,-0.024431251,-0.043572087,-0.08521023,0.107064374,-0.008689806,0.0,0.0,0.0,-0.0049989256,0.06214748,0.44312516,-0.20012105,-0.024017902,0.20455587,-0.16382076,-0.16528685,-0.4738262,-0.1443202,0.12291991,-0.4538251,-0.1873014,-0.064971134,-0.03461967,-0.03319187,0.060686395,0.07157088,0.015761763,0.06663688,-0.07440894,-0.054103557,0.07529014,0.015334119,-0.021300444,2.0,1.817672,-2.0,-2.0,1.1350459,-2.0,-2.0,-2.0,-2.0,2.0,-2.0,-2.0,2.0,2.0,-2.0,-2.0,0.76633006,-2.0,-2.0,-2.0,-2.0,2.0,-2.0,-2.0
2025-06-05 11:57:41.708,0.036751844,0.03310901,-0.022843,-0.053650748,0.14201747,-0.021255488,0.0,0.0,0.0,-0.0048744846,0.05855082,0.42949787,-0.1917798,-0.02694128,0.20623003,-0.16832907,-0.16574703,-0.4683584,-0.13327482,0.13349208,-0.45490217,-0.18434164,0.038652577,0.0337184,-0.027688874,-0.045738477,-0.051215973,0.033644386,-0.019195836,0.05415519,-0.048064988,-0.014031984,0.024932966,-0.01908273,2.0,2.0,-2.0,-2.0,0.76633006,-2.0,-2.0,-2.0,-2.0,2.0,-2.0,-2.0,2.0,1.9890689,-2.0,-2.0,0.78083783,-2.0,-2.0,-2.0,-2.0,2.0,-2.0,-2.0
2025-06-05 11:57:41.728,0.0012616697,0.00978684,-0.04171687,-0.055852104,0.11585146,-0.01760513,0.0,0.0,0.0,-0.0049016676,0.06542176,0.4239695,-0.20767951,-0.038516372,0.19034098,-0.17033128,-0.16627845,-0.46544218,-0.1275743,0.12273069,-0.45640865,-0.17405903,0.0655766,-0.059272956,0.066005364,-0.04265284,0.0062246094,0.024756417,-0.012358591,0.012526789,-0.0521114,0.04968903,-0.070396475,-0.059497662,2.0,1.9890689,-2.0,-2.0,0.78083783,-2.0,-2.0,-2.0,-2.0,2.0,-2.0,-2.0,2.0,2.0,-2.0,-2.0,0.76885575,-2.0,-2.0,-1.7826695,-2.0,2.0,-2.0,-2.0
2025-06-05 11:57:41.749,-0.00740794,-0.030077865,0.030200046,-0.08879395,0.12623547,-0.035032794,0.0,0.0,0.0,-0.004991778,0.07224501,0.43442997,-0.19936426,-0.03394779,0.18682843,-0.16157757,-0.15548037,-0.47506884,-0.13864668,0.13572542,-0.46530244,-0.17988801,-0.022300016,0.07589252,0.020490926,-0.027073342,0.02912608,-0.034431525,0.03144102,-0.036850855,0.018793302,-0.057008583,-0.0756269,-0.017092371,2.0,2.0,-2.0,-2.0,0.76885575,-2.0,-2.0,-1.7826695,-2.0,2.0,-2.0,-2.0,2.0,1.8226084,-2.0,-2.0,1.1654861,-2.0,-2.0,-2.0,-2.0,2.0,-2.0,-2.0
2025-06-05 11:57:41.768,0.0067173303,0.0025946791,0.009463426,-0.03613302,0.15336607,-0.01454493,0.0,0.0,0.0,-0.0052885558,0.066629365,0.44065106,-0.19426355,-0.02119136,0.18707487,-0.14943896,-0.16069116,-0.46630317,-0.14985771,0.1328715,-0.46908063,-0.19138074,0.07265859,0.06883035,0.06820786,0.0194558,0.04604013,-0.03902444,-0.008406418,0.06528444,0.043308597,0.05366315,0.030594999,0.061386507,2.0,1.8226084,-2.0,-2.0,1.1654861,-2.0,-2.0,-2.0,-2.0,2.0,-2.0,-2.0,2.0,1.8624606,-2.0,-2.0,1.1988289,-2.0,-2.0,-2.0,-2.0,2.0,-2.0,-2.0
2025-06-05 11:57:41.789,-0.00715775,0.039200246,0.02066668,-0.112323366,0.10220332,-0.0004332969,0.0,0.0,0.0,-0.0052648797,0.07003318,0.4279053,-0.19374262,-0.026563844,0.19544348,-0.15519078,-0.1579983,-0.47397068,-0.14232628,0.12675889,-0.45241883,-0.17961922,-0.022667777,0.066802636,0.05647769,-0.027961452,-0.056564666,0.06077896,0.06798064,0.045655232,0.07367176,-0.028790947,-0.054723516,0.045451995,2.0,1.8624606,-2.0,-2.0,1.1988289,-2.0,-2.0,-2.0,-2.0,2.0,-2.0,-2.0,2.0,2.0,-2.0,-2.0,1.0221088,-2.0,-2.0,-2.0,-2.0,2.0,-2.0,-2.0
2025-06-05 11:57:41.809,-0.03206655,0.03214148,-0.0075642443,-0.09214119,0.108561285,0.027600957,0.0,0.0,0.0,-0.0049909404,0.06924175,0.42807865,-0.20456898,-0.02818473,0.19218682,-0.1690145,-0.17015505,-0.47298965,-0.14450593,0.13730867,-0.45088714,-0.18046069,-0.059349257,0.07412082,0.04684906,-0.036949925,-0.050327267,-0.020807942,-0.005935458,0.012613078,-0.04155116,-0.0205473,0.003357674,0.070475034,2.0,2.0,-2.0,-2.0,1.0221088,-2.0,-2.0,-2.0,-2.0,2.0,-2.0,-2.0,2.0,2.0,-2.0,-2.0,0.9251159,-2.0,-2.0,-2.0,-2.0,2.0,-2.0,-2.0
2025-06-05 11:57:41.831,0.045917816,-0.039740738,-0.021731215,-0.052893396,0.07605622,0.028274683,0.0,0.0,0.0,-0.0048055556,0.066124074,0.44190523,-0.18955754,-0.04013569,0.19324343,-0.16580701,-0.15768246,-0.46417478,-0.14089635,0.13446473,-0.45923656,-0.18539853,0.028299596,0.059402797,-0.042087827,-0.04775808,0.010565956,0.015228815,0.000268413,0.04919302,-0.069975205,-0.047047053,-0.01697778,-0.043172665,2.0,2.0,-2.0,-2.0,0.9251159,-2.0,-2.0,-2.0,-2.0,2.0,-2.0,-2.0,2.0,2.0,-2.0,-2.0,0.7311499,-2.0,-2.0,-2.0,-2.0,2.0,-2.0,-2.0
2025-06-05 11:57:41.849,0.0378215,-0.02796409,0.040733613,-0.101102374,0.1246843,-0.026593652,0.0,0.0,0.0,-0.004739256,0.06289632,0.42933664,-0.19188116,-0.025569245,0.19509903,-0.16540682,-0.16247165,-0.46713287,-0.13725527,0.13156728,-0.45896426,-0.19100104,-0.03169108,-0.01808918,-0.048849996,-0.0013584661,0.019033778,-0.05607889,-0.02060878,-0.069781505,-0.028905762,-0.041868825,-0.034402955,-0.06378866,2.0,2.0,-2.0,-2.0,0.7311499,-2.0,-2.0,-2.0,-2.0,2.0,-2.0,-2.0,2.0,1.7648281,-2.0,-2.0,1.2227626,-2.0,-2.0,-2.0,-2.0,2.0,-2.0,-2.0
2025-06-05 11:57:41.869,0.014128686,0.019089647,-0.009654925,-0.1118903,0.100265354,-0.0028322728,0.0,0.0,0.0,-0.004796836,0.06421371,0.42635262,-0.20503782,-0.043741543,0.19140905,-0.16848232,-0.16672349,-0.46949282,-0.13913144,0.13413163,-0.46603012,-0.17641567,-0.0066895103,0.024137782,-0.032033097,0.00094139547,-0.012369521,0.06256257,0.04221465,-0.03863427,-0.024679339,0.058204167,0.027163222,-0.04535227,2.0,1.7648281,-2.0,-2.0,1.2227626,-2.0,-2.0,-2.0,-2.0,2.0,-2.0,-2.0,2.0,1.9848539,-2.0,-2.0,0.827547,-2.0,-2.0,-2.0,-2.0,2.0,-2.0,-2.0
2025-06-05 11:57:41.888,0.0042153895,-0.044069335,-0.009761866,-0.10587791,0.12357552,0.042219225,0.0,0.0,0.0,-0.0046306364,0.06664643,0.44327918,-0.1923404,-0.028618684,0.190619,-0.15624866,-0.16511479,-0.478339,-0.15007754,0.129723,-0.46667355,-0.18508863,0.076659426,-0.030373262,0.042175487,0.02015524,-0.014048168,-0.07322397,-0.0031152954,-0.061315913,-0.019989738,-0.0073172897,0.0612368,0.06927831,2.0,1.9848539,-2.0,-2.0,0.827547,-2.0,-2.0,-2.0,-2.0,2.0,-2.0,-2.0,2.0,1.940015,-2.0,-2.0,1.1607535,-2.0,-2.0,-2.0,-2.0,2.0,-2.0,-2.0
2025-06-05 11:57:41.909,-0.04765143,-0.048146512,0.016405052,-0.058379494,0.07504927,0.030745257,0.0,0.0,0.0,-0.00456134,0.07512257,0.44471115,-0.19481385,-0.040045816,0.18845212,-0.15962157,-0.17134991,-0.4711713,-0.15050782,0.13286005,-0.46476638,-0.18465218,0.0212322,0.06967505,-0.001669187,-0.07541704,0.049638074,0.039453804,-0.015479024,0.07401034,-0.026774451,0.021499911,0.028671997,0.048476163,2.0,1.940015,-2.0,-2.0,1.1607535,-2.0,-2.0,-2.0,-2.0,2.0,-2.0,-2.0,2.0,1.9840469,-2.0,-2.0,1.0772935,-2.0,-2.0,-2.0,-2.0,2.0,-2.0,-2.0
2025-06-05 11:57:41.932,0.0038839395,-0.001218844,0.04532626,-0.022873905,0.09353262,-0.0033285955,0.0,0.0,0.0,-0.004481815,0.069999985,0.4460011,-0.20058364,-0.04241798,0.19307484,-0.16770805,-0.17148809,-0.4820335,-0.14544944,0.13109653,-0.45552668,-0.19097629,0.059475552,0.0364746,0.06449667,-0.002776786,-0.016252292,-0.07612816,-0.0032903126,-0.06264856,-0.034226827,0.03180347,0.011662538,0.07378569,2.0,1.9840469,-2.0,-2.0,1.0772935,-2.0,-2.0,-2.0,-2.0,2.0,-2.0,-2.0,2.0,1.7365665,-2.0,-2.0,1.4116204,-2.0,-2.0,-2.0,-2.0,2.0,-2.0,-2.0
2025-06-05 11:57:42.006,0.035062432,-0.0501164,0.02171558,-0.051293,0.08019096,0.03879088,0.0,0.0,0.0,-0.0044025364,0.07218731,0.4337115,-0.20784502,-0.042093795,0.20838611,-0.1577259,-0.15877697,-0.47701284,-0.14253953,0.13811076,-0.4642648,-0.17960528,0.050622333,-0.072592534,0.031746823,0.04849931,-0.0019114228,0.036724396,0.05257285,-0.0027009088,-0.07079078,0.06890227,0.0073118424,0.0063819475,2.0,1.7365665,-2.0,-2.0,1.4116204,-2.0,-2.0,-2.0,-2.0,2.0,-2.0,-2.0,2.0,1.8271685,-2.0,-2.0,1.2295735,-2.0,-2.0,-2.0,-2.0,2.0,-2.0,-2.0
2025-06-05 11:57:42.022,0.016882278,-0.038436856,-0.041304063,-0.038744602,0.1516016,0.011695255,0.0,0.0,0.0,-0.004118909,0.057713777,0.44064233,-0.20342748,-0.03375406,0.2059992,-0.17138554,-0.15761249,-0.48295835,-0.13161005,0.13024478,-0.45883408,-0.18529423,-0.060571503,-0.027888339,0.03342292,0.015495467,-0.015925724,-0.0073388033,-0.04672727,-0.05569396,-0.05128046,0.02520329,0.048664976,0.04477077,2.0,1.8271685,-2.0,-2.0,1.2295735,-2.0,-2.0,-2.0,-2.0,2.0,-2.0,-2.0,2.0,2.0,-2.0,-2.0,0.81118286,-2.0,-2.0,-2.0,-2.0,2.0,-2.0,-2.0
2025-06-05 11:57:42.042,-0.028189735,-0.015704112,0.03386939,-0.033303767,0.14868037,0.023447426,0.0,0.0,0.0,-0.003826703,0.062325113,0.447683,-0.20360099,-0.038902078,0.19746797,-0.16474864,-0.15174544,-0.4733011,-0.13047852,0.123188145,-0.4505688,-0.19696708,-0.03217966,0.07190862,-0.015624299,0.020038983,0.0008661962,0.065632164,-0.06150956,0.04675488,-0.062698446,-0.071666636,-0.0435974,0.067201026,2.0,2.0,-2.0,-2.0,0.81118286,-2.0,-2.0,-2.0,-2.0,2.0,-2.0,-2.0,2.0,1.8449458,-2.0,-2.0,1.0859419,-2.0,-2.0,-2.0,-2.0,2.0,-2.0,-2.0
2025-06-05 11:57:42.066,0.054267265,-0.011267682,-0.019831885,-0.038087692,0.1211455,-0.0039648158,0.0,0.0,0.0,-0.00386418,0.07486251,0.4444256,-0.19209167,-0.0366719,0.20428677,-0.17164789,-0.15351625,-0.48369393,-0.14197844,0.12591495,-0.45629162,-0.18267818,-0.07251403,-0.0018117018,-0.028104754,0.06620254,0.026587386,0.021646457,-0.052895937,-0.0015340317,-0.043119498,0.020565415,0.02415465,-0.04362134,2.0,1.8449458,-2.0,-2.0,1.0859419,-2.0,-2.0,-2.0,-2.0,2.0,-2.0,-2.0,2.0,2.0,-2.0,-2.0,0.79241943,-2.0,-2.0,-2.0,-2.0,2.0,-2.0,-2.0
2025-06-05 11:57:42.083,-0.03101847,-0.01711784,0.020520393,-0.06255751,0.14065908,-0.0015467026,0.0,0.0,0.0,-0.0039203283,0.075490035,0.44309208,-0.19293666,-0.03409506,0.2054519,-0.16365741,-0.16845304,-0.47069368,-0.12683436,0.13842897,-0.4575084,-0.18620782,-0.0028517842,-0.007926528,0.07217246,-0.055803012,-0.071801,-0.06771485,-0.015462317,0.0051214416,-0.06096918,0.040315792,-0.039248735,-0.073352106,2.0,2.0,-2.0,-2.0,0.79241943,-2.0,-2.0,-2.0,-2.0,2.0,-2.0,-2.0,2.0,1.8414755,-2.0,-2.0,1.1211511,-2.0,-2.0,-2.0,-2.0,2.0,-2.0,-2.0
2025-06-05 11:57:42.102,-0.035224967,-0.028687168,0.038931247,-0.09508634,0.14211677,-0.04782229,0.0,0.0,0.0,-0.004069481,0.07071644,0.44751132,-0.19730932,-0.03257309,0.18933204,-0.15748595,-0.17022333,-0.48587775,-0.14394598,0.12775886,-0.45463368,-0.1851089,-0.05788834,-0.05751928,-0.04807722,0.010234476,-0.030142577,0.043299932,-0.034032572,0.055611517,0.07100375,-0.069347605,-0.017992256,-0.036479894,2.0,1.8414755,-2.0,-2.0,1.1211511,-2.0,-2.0,-2.0,-2.0,2.0,-2.0,-2.0,2.0,2.0,-2.0,-2.0,1.0793772,-2.0,-2.0,-2.0,-2.0,2.0,-2.0,-2.0
2025-06-05 11:57:42.122,0.028737986,-0.02193272,-0.035292886,-0.052038148,0.106494084,0.041380778,0.0,0.0,0.0,-0.00408857,0.066971995,0.4413541,-0.18918131,-0.031774674,0.18977828,-0.17058347,-0.15799986,-0.4792595,-0.14542416,0.13750774,-0.4554457,-0.19141012,-0.020596193,-0.049528793,0.003056937,0.041636217,-0.061639618,-0.019127164,-0.050828714,0.06314216,-0.009298502,-0.03629133,-0.034585185,0.0066148285,2.0,2.0,-2.0,-2.0,1.0793772,-2.0,-2.0,-2.0,-2.0,2.0,-2.0,-2.0,2.0,2.0,-2.0,-2.0,0.64246696,-2.0,-2.0,-1.8343359,-2.0,2.0,-2.0,-2.0
2025-06-05 11:57:42.142,0.031986248,-0.029884405,-0.015378735,-0.05608211,0.13401149,0.042659212,0.0,0.0,0.0,-0.004058557,0.07686783,0.44044477,-0.20075776,-0.030755138,0.20437844,-0.16611363,-0.1644167,-0.4810331,-0.1459032,0.1225202,-0.46519732,-0.18960932,0.047914606,0.018251197,0.042750265,-0.049504116,0.012459955,0.05525129,0.047296748,0.07730075,-0.039033826,0.05114944,-0.01896666,0.047051545,2.0,2.0,-2.0,-2.0,0.64246696,-2.0,-2.0,-1.8343359,-2.0,2.0,-2.0,-2.0,2.0,1.8714613,-2.0,-2.0,1.0367236,-2.0,-2.0,-2.0,-2.0,2.0,-2.0,-2.0
2025-06-05 11:57:42.167,0.011815767,-0.010680427,-0.022946855,-0.048106484,0.06759081,0.022157334,0.0,0.0,0.0,-0.0043866886,0.08034807,0.4399275,-0.19679002,-0.030629288,0.19511382,-0.16252181,-0.16664585,-0.46877167,-0.14285897,0.13359424,-0.46810275,-0.18862453,-0.051425174,0.012359528,-0.042566583,0.040055376,-0.00839872,0.048719052,0.017452292,0.041324195,-0.016568098,0.019104866,0.050819214,-0.022830162,2.0,1.8714613,-2.0,-2.0,1.0367236,-2.0,-2.0,-2.0,-2.0,2.0,-2.0,-2.0,2.0,2.0,-2.0,-2.0,0.704899,-2.0,-2.0,-2.0,-2.0,2.0,-2.0,-2.0
2025-06-05 11:57:42.183,0.023351178,0.024559233,0.042614084,-0.042622756,0.15135852,-0.0055974973,0.0,0.0,0.0,-0.0045127687,0.07433844,0.44800878,-0.19254896,-0.037821025,0.19581445,-0.1666115,-0.16711387,-0.48682585,-0.13192174,0.121316664,-0.4692947,-0.18709537,-0.06867878,0.07157107,0.0627468,-0.0014136021,0.016781285,-0.0691152,-0.061256345,0.07051886,0.027839424,-0.06903832,0.059790723,0.0008385744,2.0,2.0,-2.0,-2.0,0.704899,-2.0,-2.0,-2.0,-2.0,2.0,-2.0,-2.0,2.0,1.8331318,-2.0,-2.0,1.3377093,-2.0,-2.0,-2.0,-2.0,2.0,-2.0,-2.0
2025-06-05 11:57:42.203,0.027466284,-0.0060985265,0.013682054,-0.07000998,0.10765377,-0.0438529,0.0,0.0,0.0,-0.004572578,0.07312369,0.4377106,-0.19281647,-0.03969869,0.19568282,-0.1591474,-0.16862497,-0.4711105,-0.13942134,0.12056845,-0.45239374,-0.19743164,0.020668043,-0.032686777,0.048475128,0.046094246,-0.043988314,-0.078697726,0.0015579978,0.0022503054,0.007192611,0.048720255,0.054522827,0.0032533328,2.0,1.8331318,-2.0,-2.0,1.3377093,-2.0,-2.0,-2.0,-2.0,2.0,-2.0,-2.0,2.0,1.9589245,-2.0,-2.0,1.1185914,-2.0,-2.0,-2.0,-2.0,2.0,-2.0,-2.0
2025-06-05 11:57:42.223,0.017754856,0.009070918,-0.04680822,-0.02033224,0.09418078,-0.00948211,0.0,0.0,0.0,-0.0043621026,0.080344476,0.44859272,-0.20734486,-0.037086062,0.19055904,-0.15595825,-0.16608308,-0.47393242,-0.14561446,0.13512143,-0.45857087,-0.18240106,-0.058918722,0.043686308,0.06587081,0.003644787,-0.06371465,-0.06693396,-0.06709032,0.03867991,-0.04481691,0.042589996,0.022931583,-0.034193095,2.0,1.9589245,-2.0,-2.0,1.1185914,-2.0,-2.0,-2.0,-2.0,2.0,-2.0,-2.0,2.0,2.0,-2.0,-2.0,0.6099414,-2.0,-2.0,-1.647163,-2.0,2.0,-2.0,-2.0
2025-06-05 11:57:42.243,-0.0073079723,-0.032710858,0.080347896,-0.055572692,0.13542141,0.014741483,0.0,0.0,0.0,-0.004143819,0.07095199,0.44038832,-0.19659182,-0.044070616,0.20287244,-0.15715668,-0.15874265,-0.4778153,-0.13829435,0.13157782,-0.4512989,-0.19438848,0.02753777,0.029919535,0.037568465,-0.00651664,0.03168945,0.010732924,0.009125376,-0.00255428,-0.07007794,0.025457788,-0.06825104,-0.0121882595,2.0,2.0,-2.0,-2.0,0.6099414,-2.0,-2.0,-1.647163,-2.0,2.0,-2.0,-2.0,2.0,1.42671,-2.0,-2.0,1.5143917,-2.0,-2.0,-2.0,-2.0,2.0,-2.0,-2.0
2025-06-05 11:57:42.268,0.055374913,-0.026861481,-0.06945978,-0.07658599,0.09548167,0.042562313,0.0,0.0,0.0,-0.0045803506,0.06591419,0.44098687,-0.1892589,-0.028561572,0.19328885,-0.15446477,-0.15398748,-0.4726494,-0.13638055,0.13092951,-0.46778795,-0.19585319,-0.07661569,0.04776326,-0.025932848,-0.050160777,-0.010641892,-0.057779633,-0.06424624,-0.041581795,0.010422126,-0.009709638,-0.033464797,-0.0441934,2.0,1.42671,-2.0,-2.0,1.5143917,-2.0,-2.0,-2.0,-2.0,2.0,-2.0,-2.0,2.0,2.0,-2.0,-2.0,0.47788137,-2.0,-2.0,-1.6236054,-2.0,2.0,-2.0,-2.0
2025-06-05 11:57:42.284,-0.0433103,-0.038660895,0.05824704,-0.1094791,0.14160118,-0.016170667,0.0,0.0,0.0,-0.004375706,0.07374918,0.44698998,-0.20431413,-0.028043743,0.2030883,-0.15519996,-0.16719854,-0.46989012,-0.1542923,0.12082397,-0.46029517,-0.1909628,0.029056538,-0.019921873,0.044543773,0.0060950126,-0.0208297,0.03886595,0.035636,0.020430408,-0.005832594,-0.013104864,-0.04275566,0.038891543,2.0,2.0,-2.0,-2.0,0.47788137,-2.0,-2.0,-1.6236054,-2.0,2.0,-2.0,-2.0,2.0,1.4848675,-2.0,-2.0,1.3715161,-2.0,-2.0,-2.0,-2.0,2.0,-2.0,-2.0
2025-06-05 11:57:42.303,-0.02017136,0.03680951,0.0066674897,-0.0497414,0.14121859,-0.023671001,0.0,0.0,0.0,-0.004632828,0.06765546,0.4433045,-0.18764544,-0.030488731,0.18683973,-0.15789302,-0.16404183,-0.4619698,-0.1451538,0.124998406,-0.45918345,-0.18953234,0.061584044,-0.018456452,-0.035612985,0.021509714,-0.030969236,0.027107852,0.0565888,-0.067015514,0.04915183,-0.022365224,-0.05979763,0.05285267,2.0,1.4848675,-2.0,-2.0,1.3715161,-2.0,-2.0,-2.0,-2.0,2.0,-2.0,-2.0,2.0,1.9588789,-2.0,-2.0,0.9582435,-2.0,-2.0,-2.0,-2.0,2.0,-2.0,-2.0
2025-06-05 11:57:42.324,0.047466487,0.003906943,-0.02213427,-0.026814748,0.110841915,-0.033807658,0.0,0.0,0.0,-0.004449569,0.07449917,0.4321413,-0.18556546,-0.040932037,0.18995276,-0.16610874,-0.16779889,-0.48280743,-0.15689209,0.13262753,-0.46417743,-0.19748656,-0.07221503,0.044437107,0.037466913,0.02502115,-0.06720193,0.023292348,-0.04814059,-0.046796467,0.06839011,0.039295927,-0.06560095,0.003204148,2.0,1.9588789,-2.0,-2.0,0.9582435,-2.0,-2.0,-2.0,-2.0,2.0,-2.0,-2.0,2.0,2.0,-2.0,-2.0,0.70637363,-2.0,-2.0,-2.0,-2.0,2.0,-2.0,-2.0
2025-06-05 11:57:42.345,0.030823868,-0.022700207,0.046227764,-0.097761214,0.08986999,0.032341633,0.0,0.0,0.0,-0.004126227,0.0656435,0.42819214,-0.19015522,-0.036334265,0.18866476,-0.15319458,-0.16826174,-0.47254014,-0.15193383,0.12510018,-0.45418417,-0.1904539,0.0037760073,-0.049057763,-0.03235181,-0.06071288,-0.009375368,0.03130046,-0.06443007,0.06492005,0.07239711,0.0032871254,0.041616566,-0.023200916,2.0,2.0,-2.0,-2.0,0.70637363,-2.0,-2.0,-2.0,-2.0,2.0,-2.0,-2.0,2.0,1.7840706,-2.0,-2.0,1.3817756,-2.0,-2.0,-2.0,-2.0,2.0,-2.0,-2.0
2025-06-05 11:57:42.367,0.022700716,-0.027517483,0.0062622386,-0.023298912,0.13131213,-0.021201706,0.0,0.0,0.0,-0.004065931,0.06982791,0.4262459,-0.19397931,-0.029045647,0.19115953,-0.1557456,-0.16429426,-0.4709853,-0.1388225,0.13701622,-0.46348864,-0.18306838,0.015854554,0.007146819,-0.058937036,-0.01021612,0.061171196,0.04362458,0.010258862,-0.0295128,0.062574185,-0.06127089,0.027057406,0.03339428,2.0,1.7840706,-2.0,-2.0,1.3817756,-2.0,-2.0,-2.0,-2.0,2.0,-2.0,-2.0,2.0,2.0,-2.0,-2.0,1.015653,-2.0,-2.0,-2.0,-2.0,2.0,-2.0,-2.0
2025-06-05 11:57:42.384,0.0010579787,-0.038882207,-0.005163224,-0.027170692,0.09093395,0.038249057,0.0,0.0,0.0,-0.0037914724,0.077249974,0.43223137,-0.20396094,-0.046892524,0.19818355,-0.15712544,-0.15998316,-0.48406222,-0.13955946,0.13317272,-0.45253992,-0.20141135,-0.046528656,0.013231395,-0.011656209,-0.06785856,-0.07296496,0.04160824,0.035232708,-0.017932959,-0.047747668,-0.06698549,0.0079092095,0.048317593,2.0,2.0,-2.0,-2.0,1.015653,-2.0,-2.0,-2.0,-2.0,2.0,-2.0,-2.0,2.0,1.9848496,-2.0,-2.0,0.91124624,-2.0,-2.0,-2.0,-2.0,2.0,-2.0,-2.0
2025-06-05 11:57:42.404,-0.043638393,0.04878571,0.04755873,-0.05603264,0.16033533,0.0041714376,0.0,0.0,0.0,-0.0035925002,0.07334266,0.43092352,-0.18757407,-0.046262715,0.1884728,-0.15466954,-0.16411023,-0.47964707,-0.1511471,0.132515,-0.4693324,-0.18866043,0.06407075,0.00034154524,0.034173954,0.037526134,0.03500622,0.028669627,0.005481092,-0.057987135,-0.064015485,0.070587,0.057541747,0.071554534,2.0,1.9848496,-2.0,-2.0,0.91124624,-2.0,-2.0,-2.0,-2.0,2.0,-2.0,-2.0,2.0,1.526491,-2.0,-2.0,1.4662828,-2.0,-2.0,-2.0,-2.0,2.0,-2.0,-2.0
2025-06-05 11:57:42.424,-0.0013754357,-0.041799225,-0.06420653,-0.031691883,0.08106874,0.0012782282,0.0,0.0,0.0,-0.003578365,0.07270171,0.43868697,-0.18671572,-0.04319759,0.20066011,-0.16130596,-0.16552442,-0.4741401,-0.14669962,0.13321021,-0.4530261,-0.19143772,0.014992821,-0.0380405,0.014919375,-0.06828365,0.0078359265,-0.06759119,-0.024728311,0.048036497,0.009964191,0.01877156,-0.039141618,0.010217055,2.0,1.526491,-2.0,-2.0,1.4662828,-2.0,-2.0,-2.0,-2.0,2.0,-2.0,-2.0,2.0,2.0,-2.0,-2.0,0.6888992,-2.0,-2.0,-1.6225375,-2.0,2.0,-2.0,-2.0
2025-06-05 11:57:42.444,-0.034984592,-0.026657166,0.056348566,-0.081475645,0.11699038,0.03644226,0.0,0.0,0.0,-0.0032262984,0.0721409,0.44078296,-0.19162585,-0.027082076,0.19696914,-0.16499744,-0.15311824,-0.48636442,-0.15441804,0.12972592,-0.4507216,-0.18851447,0.041649204,0.048637502,0.06409191,-0.0206032,-0.050216902,0.0039149956,-0.045268834,-0.010836185,0.04296014,-0.063694164,0.045773122,-0.051115796,2.0,2.0,-2.0,-2.0,0.6888992,-2.0,-2.0,-1.6225375,-2.0,2.0,-2.0,-2.0,2.0,1.7257073,-2.0,-2.0,1.255158,-2.0,-2.0,-2.0,-2.0,2.0,-2.0,-2.0
2025-06-05 11:57:42.466,-0.0030609318,0.023364644,-0.04638466,-0.076562904,0.07671807,-0.01778108,0.0,0.0,0.0,-0.0035242336,0.06338702,0.4345222,-0.18617463,-0.029492814,0.20284684,-0.16090004,-0.16268471,-0.47100767,-0.13934901,0.11999928,-0.4504023,-0.18409674,-0.035881743,-0.0033653267,-0.057676353,-0.06941524,-0.015358358,0.06276092,0.043029923,-0.054316223,0.03960855,-0.05767912,0.011925094,-0.04307023,2.0,1.7257073,-2.0,-2.0,1.255158,-2.0,-2.0,-2.0,-2.0,2.0,-2.0,-2.0,2.0,2.0,-2.0,-2.0,0.52879447,-2.0,-2.0,-2.0,-2.0,2.0,-2.0,-2.0
2025-06-05 11:57:42.485,0.030676296,0.020819481,0.018147336,-0.06766022,0.11298094,-0.04551003,0.0,0.0,0.0,-0.0035935226,0.066501915,0.44347718,-0.1945911,-0.035347063,0.19887595,-0.15733688,-0.1661606,-0.47038618,-0.15011929,0.12992416,-0.46209154,-0.1994014,-0.00053884444,-0.04280824,0.045868862,-0.006702677,0.05974662,0.020763805,-0.010721893,0.062114026,-0.037616387,-0.030914333,-0.023020037,-0.007090459,2.0,2.0,-2.0,-2.0,0.52879447,-2.0,-2.0,-2.0,-2.0,2.0,-2.0,-2.0,2.0,1.7160796,-2.0,-2.0,1.2146192,-2.0,-2.0,-2.0,-2.0,2.0,-2.0,-2.0
2025-06-05 11:57:42.504,0.034722056,0.04233131,-0.017154345,-0.06850381,0.11420156,-0.03783569,0.0,0.0,0.0,-0.003672878,0.07594086,0.44453612,-0.18667129,-0.032774728,0.20046116,-0.16066228,-0.15862767,-0.48595533,-0.15726085,0.12936464,-0.45914528,-0.1972675,0.020175517,0.03958046,0.040000428,0.00641174,-0.03506366,0.02981368,0.009458451,-0.0620858,-0.06495679,0.0060635516,-0.0046157446,0.059573606,2.0,1.7160796,-2.0,-2.0,1.2146192,-2.0,-2.0,-2.0,-2.0,2.0,-2.0,-2.0,2.0,1.9943255,-2.0,-2.0,0.8207276,-2.0,-2.0,-2.0,-2.0,2.0,-2.0,-2.0
2025-06-05 11:57:42.524,0.03564006,-0.015783349,-0.02088478,-0.05526983,0.12814462,0.013021701,0.0,0.0,0.0,-0.003519708,0.0733637,0.43057603,-0.19541572,-0.033912085,0.19677849,-0.15688291,-0.15832429,-0.483654,-0.15161522,0.13038461,-0.46547827,-0.19853757,-0.010265325,0.026694413,0.05671322,-0.06126343,0.040719938,-0.061310127,0.067109846,-0.06302991,-0.04059502,0.04683534,0.04996181,0.012992849,2.0,1.9943255,-2.0,-2.0,0.8207276,-2.0,-2.0,-2.0,-2.0,2.0,-2.0,-2.0,2.0,1.7998868,-2.0,-2.0,1.1740223,-2.0,-2.0,-2.0,-2.0,2.0,-2.0,-2.0
2025-06-05 11:57:42.544,0.035984088,-0.02459581,-0.016126111,-0.062283643,0.11211381,0.006109739,0.0,0.0,0.0,-0.0034522722,0.068867624,0.4362724,-0.19139664,-0.04495535,0.18897586,-0.1508342,-0.16479659,-0.48513982,-0.13932976,0.11842082,-0.46391743,-0.20076263,-0.048208095,0.06585866,0.07107317,0.00443857,0.05322247,0.05137908,0.07124214,-0.00013557504,-0.06356914,-0.056575824,0.0034430819,0.045518402,2.0,1.7998868,-2.0,-2.0,1.1740223,-2.0,-2.0,-2.0,-2.0,2.0,-2.0,-2.0,2.0,2.0,-2.0,-2.0,0.8452235,-2.0,-2.0,-2.0,-2.0,2.0,-2.0,-2.0
2025-06-05 11:57:42.567,0.020589065,0.018168066,-0.04731884,-0.07201075,0.09831514,0.009245463,0.0,0.0,0.0,-0.003319213,0.07433113,0.44456083,-0.20226775,-0.041131236,0.19513479,-0.16178724,-0.17071202,-0.48955053,-0.152825,0.138546,-0.46972755,-0.19531178,-0.058483932,0.009360584,0.057352472,0.03781419,-0.031650774,0.07517322,-0.038156677,0.029592466,0.04128771,0.024476437,-0.033566236,-0.07096483,2.0,2.0,-2.0,-2.0,0.8452235,-2.0,-2.0,-2.0,-2.0,2.0,-2.0,-2.0,2.0,2.0,-2.0,-2.0,0.5089271,-2.0,-2.0,-1.813853,-2.0,2.0,-2.0,-2.0
2025-06-05 11:57:42.585,-0.062203463,-0.025725368,-0.01693873,-0.0755698,0.10061574,0.029467598,0.0,0.0,0.0,-0.0033101325,0.08056791,0.4288499,-0.19035959,-0.038046654,0.18989976,-0.15453051,-0.16943526,-0.4794811,-0.14810419,0.120269105,-0.45670378,-0.19955526,-0.015724003,-0.01979009,-0.005944197,-0.034979273,0.049746487,0.008417508,-0.031550817,0.0793743,-0.041848063,-0.050031662,-0.060502205,0.04543502,2.0,2.0,-2.0,-2.0,0.5089271,-2.0,-2.0,-1.813853,-2.0,2.0,-2.0,-2.0,2.0,1.9888333,-2.0,-2.0,0.9638604,-2.0,-2.0,-1.8800699,-2.0,2.0,-2.0,-2.0
2025-06-05 11:57:42.605,-0.050732173,-0.014800957,0.02989268,-0.017678099,0.12355018,-0.029057426,0.0,0.0,0.0,-0.003724134,0.06562423,0.4367967,-0.19605581,-0.041453842,0.18739128,-0.15498939,-0.16964465,-0.47512177,-0.15993375,0.13565664,-0.46819815,-0.2025491,-0.056905817,0.05721662,0.04249817,0.07341164,0.035121586,-0.0040287212,0.05799983,0.07263419,-0.031765316,-0.028932817,0.057534687,0.03735706,2.0,1.9888333,-2.0,-2.0,0.9638604,-2.0,-2.0,-1.8800699,-2.0,2.0,-2.0,-2.0,2.0,1.7810056,-2.0,-2.0,1.153655,-2.0,-2.0,-2.0,-2.0,2.0,-2.0,-2.0
2025-06-05 11:57:42.624,0.023529163,-0.038173925,-0.030709602,-0.10890607,0.100029565,0.039080877,0.0,0.0,0.0,-0.004027183,0.073931456,0.4337409,-0.20228674,-0.028599473,0.1993974,-0.153218,-0.15670876,-0.4784385,-0.15074348,0.12015745,-0.4700359,-0.19982284,-0.06801029,0.04111522,0.07469717,-0.06579681,0.026095623,-0.071648404,0.017482325,-0.009837119,-0.04462469,0.03619288,-0.015181093,-0.023133706,2.0,1.7810056,-2.0,-2.0,1.153655,-2.0,-2.0,-2.0,-2.0,2.0,-2.0,-2.0,2.0,2.0,-2.0,-2.0,0.92835003,-2.0,-2.0,-1.846572,-2.0,2.0,-2.0,-2.0
2025-06-05 11:57:42.648,0.024382783,0.008898733,0.026753785,-0.07041697,0.06645349,0.018900614,0.0,0.0,0.0,-0.003864704,0.07862927,0.43896505,-0.19119102,-0.028862957,0.19974947,-0.14931586,-0.17238902,-0.48375133,-0.14236702,0.12388447,-0.460857,-0.18769002,-0.05774985,0.046768926,-0.050935462,0.041040078,0.02469463,0.061893575,-0.034113716,0.07225003,0.038208224,0.032815624,0.019960457,0.06739458,2.0,2.0,-2.0,-2.0,0.92835003,-2.0,-2.0,-1.846572,-2.0,2.0,-2.0,-2.0,2.0,1.8875004,-2.0,-2.0,1.1108522,-2.0,-2.0,-2.0,-2.0,2.0,-2.0,-2.0
2025-06-05 11:57:42.667,0.038237646,0.03900413,-0.043319263,-0.055711534,0.14120662,0.027006626,0.0,0.0,0.0,-0.0038318706,0.06705448,0.4425096,-0.19212273,-0.039107755,0.18552904,-0.16210155,-0.16967565,-0.48294395,-0.14880358,0.12326664,-0.46321782,-0.19341254,0.009550666,0.0031341207,-0.034296084,-0.055236276,0.059234727,-0.037188258,0.022614695,0.0033579068,0.018705864,-0.023522025,-0.071329184,0.069069274,2.0,1.8875004,-2.0,-2.0,1.1108522,-2.0,-2.0,-2.0,-2.0,2.0,-2.0,-2.0,2.0,2.0,-2.0,-2.0,0.8447474,-2.0,-2.0,-1.8904983,-2.0,2.0,-2.0,-2.0
2025-06-05 11:57:42.685,0.009818413,0.038146332,0.019455824,-0.019330263,0.15224269,-0.018805489,0.0,0.0,0.0,-0.0037245075,0.07187668,0.4454805,-0.19701138,-0.038437832,0.18605244,-0.15926604,-0.15342514,-0.46899858,-0.14157045,0.116780676,-0.46175185,-0.20294893,0.0459138,-0.028952358,-0.013668327,0.005830145,0.020385938,-0.019324915,0.031622987,-0.060505725,0.073612146,0.06844248,0.005830086,0.037804186,2.0,2.0,-2.0,-2.0,0.8447474,-2.0,-2.0,-1.8904983,-2.0,2.0,-2.0,-2.0,2.0,1.6772124,-2.0,-2.0,1.3133777,-2.0,-2.0,-2.0,-2.0,2.0,-2.0,-2.0
2025-06-05 11:57:42.705,-0.031615645,0.005335794,-0.06386729,-0.024806833,0.09012905,-0.023070302,0.0,0.0,0.0,-0.0037704478,0.064784855,0.4500598,-0.20147912,-0.03571699,0.18702897,-0.15929772,-0.15418185,-0.47561446,-0.15458523,0.13470706,-0.45750618,-0.19592324,0.056199487,-0.052195106,-0.0008298643,0.0149928415,-0.060076542,0.045994874,0.023496658,0.0055914596,0.066244,0.01426402,0.051176682,-0.020460298,2.0,1.6772124,-2.0,-2.0,1.3133777,-2.0,-2.0,-2.0,-2.0,2.0,-2.0,-2.0,2.0,2.0,-2.0,-2.0,0.50529987,-2.0,-2.0,-1.9421588,-2.0,2.0,-2.0,-2.0
2025-06-05 11:57:42.725,-0.04729931,0.03783867,0.0074358103,-0.060184557,0.083380654,0.043396175,0.0,0.0,0.0,-0.003537046,0.065248504,0.44523188,-0.1931405,-0.032007396,0.20470344,-0.15446545,-0.16367665,-0.47946548,-0.13984488,0.1282453,-0.45953128,-0.18665606,-0.044953912,0.07006,0.06391721,-0.06953201,-0.036206868,0.079350114,-0.06762374,-0.02312463,-0.008221421,-0.062762,-0.027260642,0.018136408,2.0,2.0,-2.0,-2.0,0.50529987,-2.0,-2.0,-1.9421588,-2.0,2.0,-2.0,-2.0,2.0,1.8417903,-2.0,-2.0,0.96201193,-2.0,-2.0,-2.0,-2.0,2.0,-2.0,-2.0
2025-06-05 11:57:42.748,-0.031769127,-0.033155218,-0.020481436,-0.07956105,0.13290386,-0.011639372,0.0,0.0,0.0,-0.003614698,0.07981399,0.4395749,-0.19441454,-0.04141666,0.20150463,-0.15710871,-0.16754161,-0.47139773,-0.14297956,0.11771371,-0.46917838,-0.19128059,-0.01684735,0.0043143216,0.01795213,0.016198432,0.04458774,-0.022778241,0.0043107336,0.04976376,0.027012153,-0.019446261,-0.04656942,-0.07342747,2.0,1.8417903,-2.0,-2.0,0.96201193,-2.0,-2.0,-2.0,-2.0,2.0,-2.0,-2.0,2.0,2.0,-2.0,-2.0,0.8053828,-2.0,-2.0,-2.0,-2.0,2.0,-2.0,-2.0
2025-06-05 11:57:42.767,0.005961436,-0.020916358,0.020471942,-0.10972299,0.120678484,-0.03528968,0.0,0.0,0.0,-0.0036648784,0.064854585,0.4444832,-0.19998123,-0.037294295,0.20174478,-0.15956889,-0.16123253,-0.47820115,-0.14920005,0.12245292,-0.47231603,-0.1828771,-0.026275972,-0.06298955,-0.015970694,-0.00950297,-0.05219477,-0.026766311,-0.00057557464,-0.0670179,-0.03551169,0.05932513,-0.060959727,0.004533292,2.0,2.0,-2.0,-2.0,0.8053828,-2.0,-2.0,-2.0,-2.0,2.0,-2.0,-2.0,2.0,1.778662,-2.0,-2.0,1.1858693,-2.0,-2.0,-2.0,-2.0,2.0,-2.0,-2.0
2025-06-05 11:57:42.786,0.01942476,-0.012692551,-0.022080977,-0.11233649,0.123017274,-0.028699487,0.0,0.0,0.0,-0.003685259,0.07866489,0.43033254,-0.20301616,-0.03984374,0.20257808,-0.16357002,-0.15916121,-0.48117748,-0.14809111,0.12992944,-0.4726643,-0.20214412,0.014855977,-0.054805964,0.06503243,0.0037967488,0.045368258,-0.06740105,0.031017298,-0.056603216,-0.065662876,0.058361195,0.006139238,-0.008957987,2.0,1.778662,-2.0,-2.0,1.1858693,-2.0,-2.0,-2.0,-2.0,2.0,-2.0,-2.0,2.0,1.9352177,-2.0,-2.0,1.0633485,-2.0,-2.0,-2.0,-2.0,2.0,-2.0,-2.0
2025-06-05 11:57:42.806,0.02780211,0.009614494,-0.024282234,-0.015101307,0.15338916,-0.02893522,0.0,0.0,0.0,-0.0035080211,0.06510183,0.43929732,-0.20024365,-0.029757634,0.19341812,-0.16464727,-0.16938768,-0.47635713,-0.15347928,0.13551012,-0.45616442,-0.19487467,0.018764999,-0.005590306,-0.06360062,0.072407536,-0.027531892,-0.028497556,0.033437178,-0.007873795,0.040913,0.06954223,0.052459985,-0.0015859825,2.0,1.9352177,-2.0,-2.0,1.0633485,-2.0,-2.0,-2.0,-2.0,2.0,-2.0,-2.0,2.0,2.0,-2.0,-2.0,0.8746105,-2.0,-2.0,-2.0,-2.0,2.0,-2.0,-2.0
2025-06-05 11:57:42.825,-0.048336696,-0.028895378,-0.041994985,-0.064753324,0.06470404,-0.040062577,0.0,0.0,0.0,-0.003342152,0.08013171,0.447122,-0.19215335,-0.032430444,0.19634032,-0.1574268,-0.16534108,-0.48275867,-0.14061016,0.13033566,-0.46975964,-0.18973461,-0.020136481,-0.03580232,0.05400108,0.022731904,0.00578089,-0.009662902,-0.056767195,0.042789247,0.073931366,-0.017130977,0.032361045,-0.035371657,2.0,2.0,-2.0,-2.0,0.8746105,-2.0,-2.0,-2.0,-2.0,2.0,-2.0,-2.0,2.0,2.0,-2.0,-2.0,0.6655873,-2.0,-2.0,-1.9052507,-2.0,2.0,-2.0,-2.0
2025-06-05 11:57:42.850,0.024094144,0.050101843,0.0660683,-0.079356804,0.101268075,-0.040603522,0.0,0.0,0.0,-0.0033571485,0.06848064,0.4475052,-0.18828128,-0.027237,0.1984075,-0.15007015,-0.15913299,-0.49069026,-0.15547827,0.12623212,-0.47484645,-0.18520118,0.03941729,0.062050905,0.035012886,0.042112816,0.07028842,0.04544207,0.0076383627,-0.013010206,-0.06045495,-0.045365296,0.044539087,0.031095006,2.0,2.0,-2.0,-2.0,0.6655873,-2.0,-2.0,-1.9052507,-2.0,2.0,-2.0,-2.0,2.0,1.5316228,-2.0,-2.0,1.4357452,-2.0,-2.0,-2.0,-2.0,2.0,-2.0,-2.0
2025-06-05 11:57:42.867,0.017516252,-0.004568269,0.016541906,-0.01995939,0.14328712,0.03142895,0.0,0.0,0.0,-0.0036253403,0.079102665,0.43867835,-0.20308845,-0.033880718,0.2025197,-0.15066701,-0.17185356,-0.48744133,-0.1404436,0.13296959,-0.46864063,-0.18941008,0.0057864436,-0.004354164,0.067856066,-0.0028051469,0.075587206,-0.028675353,0.0011387779,-0.011160646,0.053235773,0.013393379,0.038971834,-0.033559557,2.0,1.5316228,-2.0,-2.0,1.4357452,-2.0,-2.0,-2.0,-2.0,2.0,-2.0,-2.0,2.0,1.8558626,-2.0,-2.0,1.2785586,-2.0,-2.0,-2.0,-2.0,2.0,-2.0,-2.0
2025-06-05 11:57:42.886,0.03455404,-0.0020781015,-0.029227275,-0.10727424,0.13305724,-0.012492925,0.0,0.0,0.0,-0.0033770977,0.062331673,0.44356725,-0.19946592,-0.042830184,0.20248476,-0.15282619,-0.16330864,-0.4902649,-0.1530172,0.11941153,-0.45383322,-0.19818431,0.0709507,-0.06171624,-0.03288476,0.041052952,0.056888,0.05616021,0.003865048,0.0015743575,-0.00922527,-0.040070172,-0.019806167,-0.018890055,2.0,1.8558626,-2.0,-2.0,1.2785586,-2.0,-2.0,-2.0,-2.0,2.0,-2.0,-2.0,2.0,2.0,-2.0,-2.0,0.764395,-2.0,-2.0,-2.0,-2.0,2.0,-2.0,-2.0
2025-06-05 11:57:42.906,0.02021448,-0.021179995,-0.020887708,-0.0460571,0.117139705,-0.008837234,0.0,0.0,0.0,-0.0029809896,0.074920714,0.4328161,-0.19225046,-0.04246178,0.20431535,-0.16642627,-0.155757,-0.47678584,-0.15139295,0.12068294,-0.45804814,-0.19278859,0.009728519,-0.0056359777,0.030180292,-0.021128723,-0.06236377,-0.037782222,0.0041079717,-0.046418816,-0.022867214,-0.047917206,-0.017928854,-0.0044472055,2.0,2.0,-2.0,-2.0,0.764395,-2.0,-2.0,-2.0,-2.0,2.0,-2.0,-2.0,2.0,2.0,-2.0,-2.0,0.88782394,-2.0,-2.0,-2.0,-2.0,2.0,-2.0,-2.0
2025-06-05 11:57:42.926,0.016890535,0.039091274,0.039868917,-0.024049591,0.08316406,0.018310951,0.0,0.0,0.0,-0.002956098,0.07240549,0.44648176,-0.19665766,-0.039742768,0.20740381,-0.151692,-0.15600933,-0.47803685,-0.14196245,0.13642456,-0.45682147,-0.19942856,0.011869238,-0.058774173,-0.0049337363,0.044791047,-0.017345384,-0.021324968,-0.037432823,0.01095465,0.07407969,-0.046505753,0.022170532,-0.071051486,2.0,2.0,-2.0,-2.0,0.88782394,-2.0,-2.0,-2.0,-2.0,2.0,-2.0,-2.0,2.0,1.9223241,-2.0,-2.0,1.2797323,-2.0,-2.0,-2.0,-2.0,2.0,-2.0,-2.0
2025-06-05 11:57:42.950,0.02701259,-0.058791593,-0.030446904,-0.09378044,0.086069964,-0.011409362,0.0,0.0,0.0,-0.0030942599,0.07729018,0.44137982,-0.19033279,-0.031437624,0.19587277,-0.16510676,-0.16606076,-0.48391497,-0.14787988,0.1270792,-0.46596757,-0.1973488,0.067481935,0.059913367,-0.035865415,-0.0524708,-0.009919981,-0.071641594,-0.047991052,0.012205999,-0.040603608,-0.021930033,-0.060419414,-0.041164197,2.0,1.9223241,-2.0,-2.0,1.2797323,-2.0,-2.0,-2.0,-2.0,2.0,-2.0,-2.0,2.0,2.0,-2.0,-2.0,0.6135439,-2.0,-2.0,-1.911889,-2.0,2.0,-2.0,-2.0
2025-06-05 11:57:42.966,-0.016091337,0.005166226,0.043014858,-0.019397698,0.15170509,0.04053325,0.0,0.0,0.0,-0.003035081,0.06271436,0.4321794,-0.18766832,-0.031434115,0.20357674,-0.16532148,-0.15660222,-0.4789657,-0.13921013,0.12753613,-0.47229213,-0.18285513,0.033225395,0.06184734,-0.038535114,0.040736053,-0.057924982,0.075574376,0.005475885,-0.009477695,-0.031180866,0.040618602,0.049993932,-0.07099059,2.0,2.0,-2.0,-2.0,0.6135439,-2.0,-2.0,-1.911889,-2.0,2.0,-2.0,-2.0,2.0,1.6444813,-2.0,-2.0,1.1191659,-2.0,-2.0,-2.0,-2.0,2.0,-2.0,-2.0
2025-06-05 11:57:43.057,0.014697254,0.013624692,-0.0479492,-0.06635362,0.0942338,0.0016634178,0.0,0.0,0.0,-0.0032444852,0.07587059,0.44556153,-0.1974966,-0.03842323,0.20376927,-0.16367632,-0.16144748,-0.4829714,-0.14756398,0.1284056,-0.47311935,-0.19785959,0.008589428,-0.07770637,0.009628928,0.039001755,0.068808965,0.061350103,0.011234124,0.023054179,-0.02365901,0.07468812,0.029341474,-0.022275178,2.0,1.6444813,-2.0,-2.0,1.1191659,-2.0,-2.0,-2.0,-2.0,2.0,-2.0,-2.0,2.0,2.0,-2.0,-2.0,0.7783794,-2.0,-2.0,-1.9825784,-2.0,2.0,-2.0,-2.0
2025-06-05 11:57:43.074,0.010622289,-0.018203266,0.04979726,-0.06623791,0.11639738,0.023530053,0.0,0.0,0.0,-0.003205935,0.073243566,0.43560174,-0.18938507,-0.032940894,0.19049902,-0.16259634,-0.15508907,-0.48841292,-0.14747934,0.12535413,-0.4732261,-0.19022714,-0.042839523,-0.015822403,0.028828943,0.012587705,-0.020710308,0.03127401,-0.0226337,0.042111784,-0.014895101,0.0208762,-0.016204726,0.029948235,2.0,2.0,-2.0,-2.0,0.7783794,-2.0,-2.0,-1.9825784,-2.0,2.0,-2.0,-2.0,2.0,1.7198141,-2.0,-2.0,1.3260359,-2.0,-2.0,-2.0,-2.0,2.0,-2.0,-2.0
2025-06-05 11:57:43.101,0.050734773,-0.05431034,0.0012108281,-0.06991318,0.111723006,0.020941637,0.0,0.0,0.0,-0.0032177542,0.066040054,0.43984073,-0.18831094,-0.04649322,0.20337142,-0.15908855,-0.168208,-0.47544274,-0.1399936,0.12091657,-0.4665847,-0.19424324,-0.055619188,-0.0744895,-0.012238331,-0.041256502,-0.063984774,-0.053591557,-0.014903357,0.04564952,0.005810451,-0.01642417,0.038188938,-0.049349923,2.0,1.7198141,-2.0,-2.0,1.3260359,-2.0,-2.0,-2.0,-2.0,2.0,-2.0,-2.0,2.0,2.0,-2.0,-2.0,0.9869109,-2.0,-2.0,-2.0,-2.0,2.0,-2.0,-2.0
2025-06-05 11:57:43.124,-0.028332898,0.032676175,0.03921005,-0.102323994,0.084604494,-0.04716222,0.0,0.0,0.0,-0.0030201662,0.06656817,0.4352096,-0.1859138,-0.046911675,0.20582229,-0.14954332,-0.15513453,-0.47571748,-0.1515099,0.12705112,-0.45979324,-0.18438464,-0.017919127,0.026168356,-0.04171623,-0.06368405,0.06146149,0.029462066,0.062326487,0.062098324,-0.014234994,0.0004352727,0.07359475,0.0294478,2.0,2.0,-2.0,-2.0,0.9869109,-2.0,-2.0,-2.0,-2.0,2.0,-2.0,-2.0,2.0,1.7730802,-2.0,-2.0,1.3989842,-2.0,-2.0,-2.0,-2.0,2.0,-2.0,-2.0
2025-06-05 11:57:43.141,0.0008816805,0.023468507,-0.049999133,-0.030387647,0.082589485,-0.04851026,0.0,0.0,0.0,-0.0029076682,0.06920317,0.44637403,-0.18800697,-0.04663962,0.20379703,-0.1599046,-0.16240723,-0.48232067,-0.15035674,0.12151524,-0.4531661,-0.18652555,-0.004329675,-0.0629156,-0.021580448,0.011561571,-0.009714582,-0.05774187,-0.058992177,0.06906069,-0.04630392,-0.07264767,0.033024274,0.034852296,2.0,1.7730802,-2.0,-2.0,1.3989842,-2.0,-2.0,-2.0,-2.0,2.0,-2.0,-2.0,2.0,2.0,-2.0,-2.0,0.6312223,-2.0,-2.0,-1.7981594,-2.0,2.0,-2.0,-2.0
2025-06-05 11:57:43.165,0.028289879,-0.032719724,0.022326687,-0.07040908,0.13407181,0.019426338,0.0,0.0,0.0,-0.0026787615,0.064074524,0.4416244,-0.20106472,-0.031582892,0.19857366,-0.15452287,-0.15661298,-0.486003,-0.13909851,0.12933151,-0.45463622,-0.1874299,-0.03245755,-0.062540315,-0.03887519,-0.02999889,0.053301554,0.019510191,-0.02100982,0.0024053266,0.053331625,0.06914218,0.016099066,0.07090246,2.0,2.0,-2.0,-2.0,0.6312223,-2.0,-2.0,-1.7981594,-2.0,2.0,-2.0,-2.0,2.0,1.5881506,-2.0,-2.0,1.4603422,-2.0,-2.0,-2.0,-2.0,2.0,-2.0,-2.0
2025-06-05 11:57:43.183,0.0019836316,0.036758594,-0.025658427,-0.06796491,0.08417712,-0.023277912,0.0,0.0,0.0,-0.0029383965,0.076183535,0.44611958,-0.19717069,-0.0423728,0.20046985,-0.15121686,-0.1542332,-0.48111606,-0.14050637,0.12937091,-0.45935735,-0.18667762,0.012767261,-0.058503855,-0.032116547,0.02424375,-0.03456607,0.069051445,0.008633426,-0.06921996,-0.016937152,0.06680538,-0.049348257,-0.064555,2.0,1.5881506,-2.0,-2.0,1.4603422,-2.0,-2.0,-2.0,-2.0,2.0,-2.0,-2.0,2.0,2.0,-2.0,-2.0,0.68147105,-2.0,-2.0,-2.0,-2.0,2.0,-2.0,-2.0
2025-06-05 11:57:43.202,-0.045322694,0.049271334,0.04700259,-0.097400874,0.106527016,0.044460442,0.0,0.0,0.0,-0.0028138394,0.07552659,0.43513837,-0.19353549,-0.046019886,0.21059509,-0.1504906,-0.15692648,-0.48318043,-0.14958149,0.12922788,-0.4590183,-0.20150383,0.07341025,0.00552782,-0.041935407,-0.0012321959,0.019809613,-0.033968363,-0.012459617,-0.014822923,-0.031874325,-0.012116806,0.005536004,-0.012470587,2.0,2.0,-2.0,-2.0,0.68147105,-2.0,-2.0,-2.0,-2.0,2.0,-2.0,-2.0,2.0,1.727876,-2.0,-2.0,1.4625523,-2.0,-2.0,-2.0,-2.0,2.0,-2.0,-2.0
2025-06-05 11:57:43.223,0.02805435,-0.055612568,0.01751336,-0.05712282,0.12948748,-0.04985469,0.0,0.0,0.0,-0.0027881216,0.0646978,0.4394122,-0.19808073,-0.04443895,0.20759411,-0.16246907,-0.15167907,-0.49376154,-0.15140897,0.13723646,-0.46219683,-0.19337429,0.018330757,-0.040446177,0.061157495,-0.064641826,0.0819348,0.048361227,0.06963402,0.022366995,-0.06757592,0.05726014,-0.023696125,0.056156185,2.0,1.727876,-2.0,-2.0,1.4625523,-2.0,-2.0,-2.0,-2.0,2.0,-2.0,-2.0,2.0,1.7497172,-2.0,-2.0,1.3157654,-2.0,-2.0,-2.0,-2.0,2.0,-2.0,-2.0
2025-06-05 11:57:43.242,-0.026681598,-0.02577577,-0.043103818,-0.09077739,0.077020206,-0.041660804,0.0,0.0,0.0,-0.002559625,0.06013872,0.44029433,-0.18992424,-0.03128461,0.20693645,-0.16556661,-0.16718808,-0.48549443,-0.14538106,0.13389233,-0.458928,-0.19965488,-0.02289398,-0.07061599,0.047820684,-0.06381951,0.0023076497,0.0411969,-0.013357645,-0.015138321,0.06263915,-0.073996186,-0.036983743,0.009180824,2.0,1.7497172,-2.0,-2.0,1.3157654,-2.0,-2.0,-2.0,-2.0,2.0,-2.0,-2.0,2.0,2.0,-2.0,-2.0,0.6253508,-2.0,-2.0,-1.9819244,-2.0,2.0,-2.0,-2.0
2025-06-05 11:57:43.265,-0.034622483,-0.019692393,0.038995463,-0.106375426,0.13752657,-0.039709326,0.0,0.0,0.0,-0.0022067544,0.06380123,0.4332906,-0.190723,-0.04291421,0.20903552,-0.16620995,-0.14960253,-0.4945012,-0.13746928,0.12703188,-0.45471194,-0.19946267,-0.059182514,0.074991405,-0.026096996,-0.008932167,-0.031373136,0.010721538,0.05777084,0.009804939,-0.05037798,-0.0045920215,-0.070491984,0.020549823,2.0,2.0,-2.0,-2.0,0.6253508,-2.0,-2.0,-1.9819244,-2.0,2.0,-2.0,-2.0,2.0,1.7026452,-2.0,-2.0,1.2629468,-2.0,-2.0,-2.0,-2.0,2.0,-2.0,-2.0
2025-06-05 11:57:43.284,0.036281437,0.030816538,-0.046941258,-0.09931277,0.15071149,-0.014365145,0.0,0.0,0.0,-0.002306812,0.07729865,0.43050006,-0.18636762,-0.029998142,0.19922538,-0.16892575,-0.16858363,-0.48755965,-0.14431795,0.12828833,-0.46617445,-0.19066618,0.030342992,0.017645616,-0.024069972,0.038117666,-0.023969553,-0.05026418,0.030510549,0.032596868,0.063171394,-0.026019773,0.019200364,-0.04751285,2.0,1.7026452,-2.0,-2.0,1.2629468,-2.0,-2.0,-2.0,-2.0,2.0,-2.0,-2.0,2.0,2.0,-2.0,-2.0,0.6051877,-2.0,-2.0,-1.952758,-2.0,2.0,-2.0,-2.0
2025-06-05 11:57:43.303,0.039414044,0.011976363,-0.0120878415,-0.079098955,0.13530709,0.040136077,0.0,0.0,0.0,-0.002280861,0.070843615,0.43887892,-0.1924921,-0.04427248,0.19918977,-0.15327689,-0.15192357,-0.47731742,-0.14717688,0.13181359,-0.46827933,-0.18388413,0.023222279,0.072159745,-0.0006406701,-0.02666866,0.0030697552,-0.005695932,-0.024471369,0.042911317,-0.051752836,-0.046660043,-0.004067109,0.024400739,2.0,2.0,-2.0,-2.0,0.6051877,-2.0,-2.0,-1.952758,-2.0,2.0,-2.0,-2.0,2.0,1.9671954,-2.0,-2.0,1.010892,-2.0,-2.0,-2.0,-2.0,2.0,-2.0,-2.0
2025-06-05 11:57:43.322,-0.027185017,0.034017302,-0.037958585,-0.034408752,0.1623118,-0.012506533,0.0,0.0,0.0,-0.002488337,0.08054272,0.43888286,-0.20478608,-0.03200624,0.20653184,-0.16431282,-0.16833898,-0.4774585,-0.14707129,0.12849015,-0.45656136,-0.19218749,-0.06620908,0.06789693,-0.06766254,-0.06798128,-0.055186376,-0.06461351,0.053292748,0.06289889,-0.06475547,-0.047852244,0.046337053,0.01876669,2.0,1.9671954,-2.0,-2.0,1.010892,-2.0,-2.0,-2.0,-2.0,2.0,-2.0,-2.0,2.0,2.0,-2.0,-2.0,0.73112607,-2.0,-2.0,-1.8688254,-2.0,2.0,-2.0,-2.0
2025-06-05 11:57:43.343,-0.022115428,-0.010547621,-0.0021062447,-0.060179807,0.109063305,-0.039480094,0.0,0.0,0.0,-0.0026576582,0.077920035,0.44926277,-0.18864323,-0.0357283,0.19370927,-0.14929649,-0.16734557,-0.48063457,-0.14979918,0.12397098,-0.47186276,-0.1959053,0.07508838,-0.033086907,0.04882425,0.048828628,-0.027560545,0.01810438,0.0030823916,-0.05609197,0.013992643,0.05610427,0.04532644,-0.016618505,2.0,2.0,-2.0,-2.0,0.73112607,-2.0,-2.0,-1.8688254,-2.0,2.0,-2.0,-2.0,2.0,1.827631,-2.0,-2.0,0.9677493,-2.0,-2.0,-2.0,-2.0,2.0,-2.0,-2.0
2025-06-05 11:57:43.366,-0.008666852,0.03598463,0.02535927,-0.051343113,0.13233127,0.021702522,0.0,0.0,0.0,-0.002938357,0.06372245,0.43063188,-0.19578664,-0.030667555,0.20252495,-0.16259547,-0.1569339,-0.48943385,-0.14089586,0.11668532,-0.46194404,-0.19306576,-0.018176805,-0.008561046,-0.01113284,-0.027656028,-0.044920728,-0.020280069,-0.03606889,-0.067764044,-0.051523864,-0.03203981,-0.03240273,-0.06541078,2.0,1.827631,-2.0,-2.0,0.9677493,-2.0,-2.0,-2.0,-2.0,2.0,-2.0,-2.0,2.0,1.8169326,-2.0,-2.0,1.0720352,-2.0,-2.0,-2.0,-2.0,2.0,-2.0,-2.0
2025-06-05 11:57:43.383,-0.022517715,0.035559148,-0.03875662,-0.046720736,0.117874,-0.00028975803,0.0,0.0,0.0,-0.0030027565,0.06963344,0.44092122,-0.18881674,-0.028207405,0.19013195,-0.15048777,-0.16634622,-0.4883961,-0.13858661,0.12586486,-0.46371225,-0.19527411,0.033446167,-0.011098397,0.03839849,-0.06859863,0.07473135,-0.02372988,0.019604554,0.03357227,0.0061586755,0.06602526,0.04039884,0.022327472,2.0,1.8169326,-2.0,-2.0,1.0720352,-2.0,-2.0,-2.0,-2.0,2.0,-2.0,-2.0,2.0,2.0,-2.0,-2.0,0.9799436,-2.0,-2.0,-1.9848524,-2.0,2.0,-2.0,-2.0
2025-06-05 11:57:43.403,0.019840445,0.01537606,0.013977072,-0.021479197,0.12574652,-0.017188951,0.0,0.0,0.0,-0.0028398286,0.06689024,0.44284034,-0.19169833,-0.035624288,0.20430832,-0.16437253,-0.15527251,-0.4844604,-0.15835471,0.12706159,-0.46474883,-0.19403966,0.010026519,0.028639235,-0.06003999,0.013125644,0.06544798,0.037161622,-0.019489266,0.043025054,-0.0048362315,-0.055918004,-0.013538075,0.044541195,2.0,2.0,-2.0,-2.0,0.9799436,-2.0,-2.0,-1.9848524,-2.0,2.0,-2.0,-2.0,2.0,1.985546,-2.0,-2.0,1.0782381,-2.0,-2.0,-2.0,-2.0,2.0,-2.0,-2.0
2025-06-05 11:57:43.423,0.036421977,-0.048602253,0.011542762,-0.06822776,0.06833332,-0.040034607,0.0,0.0,0.0,-0.0027544613,0.07659484,0.44383428,-0.19366866,-0.027344095,0.19735233,-0.1525914,-0.15582521,-0.48167342,-0.1508723,0.13367817,-0.4755513,-0.19890232,0.004998805,-0.0128089115,-0.06544024,0.0043989574,-0.060133226,-0.020433148,0.023578746,0.06505102,-0.05618606,0.021506995,-0.010315314,0.04163178,2.0,1.985546,-2.0,-2.0,1.0782381,-2.0,-2.0,-2.0,-2.0,2.0,-2.0,-2.0,2.0,1.9520596,-2.0,-2.0,0.9828735,-2.0,-2.0,-2.0,-2.0,2.0,-2.0,-2.0
2025-06-05 11:57:43.442,-0.018188892,0.03961779,-0.011111494,-0.09169405,0.07974873,-0.019716324,0.0,0.0,0.0,-0.002706069,0.06383426,0.44735187,-0.19999324,-0.037593253,0.19641635,-0.15254137,-0.16603303,-0.47783905,-0.14595915,0.12278604,-0.45913774,-0.19242142,-0.032127034,0.074363515,0.024269132,0.06274157,-0.007129499,0.06051915,-0.0014514448,-0.03223479,-0.026851935,0.024372067,-0.028666496,0.05462621,2.0,1.9520596,-2.0,-2.0,0.9828735,-2.0,-2.0,-2.0,-2.0,2.0,-2.0,-2.0,2.0,2.0,-2.0,-2.0,0.78598595,-2.0,-2.0,-2.0,-2.0,2.0,-2.0,-2.0
2025-06-05 11:57:43.466,-0.04231953,-0.03790327,-0.028255317,-0.06332943,0.10906377,-0.043874785,0.0,0.0,0.0,-0.0026839287,0.06822903,0.44109073,-0.2061816,-0.0381876,0.2051127,-0.16450638,-0.15710708,-0.48104233,-0.14898135,0.11831484,-0.47459772,-0.19421594,-0.045824647,-0.04772591,-0.022318663,-0.006597231,-0.034715053,-0.03979276,-0.0397219,0.012226503,-0.016383296,-0.072450064,0.038002625,0.043740913,2.0,2.0,-2.0,-2.0,0.78598595,-2.0,-2.0,-2.0,-2.0,2.0,-2.0,-2.0,2.0,2.0,-2.0,-2.0,0.8561709,-2.0,-2.0,-2.0,-2.0,2.0,-2.0,-2.0
2025-06-05 11:57:43.483,0.018994037,-0.038263984,-0.014950875,-0.019673578,0.14488696,-0.0094012,0.0,0.0,0.0,-0.0027811849,0.07702007,0.4374529,-0.19581015,-0.038307913,0.19945095,-0.14890029,-0.15929547,-0.47655392,-0.15192984,0.119062275,-0.47467968,-0.18708454,-0.025015762,-0.0149184745,0.025070315,0.0038560668,-0.037600648,0.029847888,0.052974027,0.046613604,0.050298087,-0.0029829766,-0.013429743,-0.042013258,2.0,2.0,-2.0,-2.0,0.8561709,-2.0,-2.0,-2.0,-2.0,2.0,-2.0,-2.0,2.0,2.0,-2.0,-2.0,0.8488429,-2.0,-2.0,-2.0,-2.0,2.0,-2.0,-2.0
2025-06-05 11:57:43.503,-0.049262967,0.0010543348,-0.031610183,-0.10684344,0.07078562,-0.019336332,0.0,0.0,0.0,-0.0028988866,0.06958723,0.45082578,-0.19148462,-0.04061752,0.18968323,-0.14987476,-0.16969936,-0.4753959,-0.14321741,0.13261053,-0.4584028,-0.19402036,0.01765145,0.049249742,0.031492244,0.019345962,-0.016467657,-0.03513143,-0.062673874,0.01787672,0.057724394,0.018778201,0.05630843,0.07225879,2.0,2.0,-2.0,-2.0,0.8488429,-2.0,-2.0,-2.0,-2.0,2.0,-2.0,-2.0,2.0,2.0,-2.0,-2.0,0.85415447,-2.0,-2.0,-2.0,-2.0,2.0,-2.0,-2.0
2025-06-05 11:57:43.522,0.004811674,0.042135283,-0.0068859495,-0.08648716,0.117150135,0.0061766827,0.0,0.0,0.0,-0.0029893743,0.06709083,0.4312105,-0.19293413,-0.043687865,0.20237912,-0.16095933,-0.17020763,-0.49205747,-0.14121975,0.119303495,-0.47715777,-0.19253215,0.05331623,0.0029720054,-0.005969192,0.06597789,0.014531036,-0.034773566,0.04947076,0.019404078,-0.0590178,0.060089007,0.030036425,0.047013797,2.0,2.0,-2.0,-2.0,0.85415447,-2.0,-2.0,-2.0,-2.0,2.0,-2.0,-2.0,2.0,1.8907833,-2.0,-2.0,1.1210932,-2.0,-2.0,-2.0,-2.0,2.0,-2.0,-2.0
2025-06-05 11:57:43.543,0.023876887,-0.008268808,0.026826903,-0.019697005,0.11557032,0.019223122,0.0,0.0,0.0,-0.0030549709,0.077740066,0.4402975,-0.20512204,-0.039614715,0.19352426,-0.15034051,-0.15796405,-0.48571524,-0.14083512,0.11902193,-0.46203032,-0.19177695,-0.059432168,0.00033749765,0.05416318,-0.03901001,0.051852282,0.008396257,-0.01252629,0.004969034,-0.046555698,-0.012189791,0.056041457,-0.016756201,2.0,1.8907833,-2.0,-2.0,1.1210932,-2.0,-2.0,-2.0,-2.0,2.0,-2.0,-2.0,2.0,1.7806491,-2.0,-2.0,1.2345464,-2.0,-2.0,-2.0,-2.0,2.0,-2.0,-2.0
2025-06-05 11:57:43.566,0.031317927,-0.04791495,0.017648002,-0.019343494,0.121209376,-0.039458465,0.0,0.0,0.0,-0.0029524085,0.07100994,0.43177605,-0.19485918,-0.033091053,0.19153474,-0.16588876,-0.15798458,-0.48489597,-0.1458468,0.13517757,-0.45949072,-0.18469454,-0.07033083,0.059174735,0.019593803,0.06438204,0.027819447,-0.08080787,0.057231564,-0.046128567,0.056890283,0.06443005,0.055915203,0.0624418,2.0,1.7806491,-2.0,-2.0,1.2345464,-2.0,-2.0,-2.0,-2.0,2.0,-2.0,-2.0,2.0,1.821015,-2.0,-2.0,1.3159201,-2.0,-2.0,-2.0,-2.0,2.0,-2.0,-2.0
2025-06-05 11:57:43.584,0.010291292,0.019440822,-0.047881123,-0.03627142,0.13434568,-0.023662683,0.0,0.0,0.0,-0.0026842284,0.07518151,0.44273245,-0.1993632,-0.033318948,0.21312046,-0.16197395,-0.15425177,-0.47572157,-0.14011483,0.13587953,-0.47131997,-0.18938741,-0.045503378,0.06560761,-0.045723356,0.05221511,0.013030991,0.033326756,-0.056012616,0.033501096,-0.069409505,-0.04556058,0.011852662,0.06336194,2.0,1.821015,-2.0,-2.0,1.3159201,-2.0,-2.0,-2.0,-2.0,2.0,-2.0,-2.0,2.0,2.0,-2.0,-2.0,0.5234136,-2.0,-2.0,-1.9153101,-2.0,2.0,-2.0,-2.0
2025-06-05 11:57:43.604,-0.049303647,0.003020442,0.02507434,-0.10724466,0.115342885,0.012889357,0.0,0.0,0.0,-0.00236984,0.077782206,0.4363422,-0.19693783,-0.026706938,0.19855297,-0.15023108,-0.15859862,-0.47898015,-0.14417394,0.12376705,-0.46937284,-0.19354075,-0.03275105,-0.048554573,0.05361823,-0.0005732607,-0.06594149,0.04562348,0.047978383,0.05822347,-0.010503474,0.043164417,-0.00433214,-0.06794072,2.0,2.0,-2.0,-2.0,0.5234136,-2.0,-2.0,-1.9153101,-2.0,2.0,-2.0,-2.0,2.0,1.7112359,-2.0,-2.0,1.1245558,-2.0,-2.0,-2.0,-2.0,2.0,-2.0,-2.0
2025-06-05 11:57:43.624,0.048625182,-0.038939912,-0.014806053,-0.05979143,0.12611917,0.017896818,0.0,0.0,0.0,-0.0025597515,0.06520734,0.44523656,-0.18853031,-0.029421253,0.20732541,-0.15692563,-0.16482095,-0.4883852,-0.15066785,0.11902164,-0.46720213,-0.19196816,0.021992495,0.034594215,0.0032625499,0.03907205,-0.03197066,0.02258816,0.05963803,-0.016761445,0.0042566694,-0.00659888,0.057917006,-0.039553434,2.0,1.7112359,-2.0,-2.0,1.1245558,-2.0,-2.0,-2.0,-2.0,2.0,-2.0,-2.0,2.0,2.0,-2.0,-2.0,0.81295294,-2.0,-2.0,-2.0,-2.0,2.0,-2.0,-2.0
2025-06-05 11:57:43.643,0.037324425,-0.03844289,-0.019027166,-0.07142789,0.10679079,-0.007590474,0.0,0.0,0.0,-0.0025917985,0.07666367,0.44682074,-0.20494248,-0.043868177,0.20342588,-0.14877982,-0.16468073,-0.48214108,-0.13819881,0.12196105,-0.46573097,-0.18242797,-0.031118924,-0.01999805,0.03999052,-0.03744026,-0.070546225,0.0026442143,0.00012954243,0.02395561,0.03218135,-0.024740731,0.05292597,-0.026148422,2.0,2.0,-2.0,-2.0,0.81295294,-2.0,-2.0,-2.0,-2.0,2.0,-2.0,-2.0,2.0,2.0,-2.0,-2.0,0.8903201,-2.0,-2.0,-2.0,-2.0,2.0,-2.0,-2.0
2025-06-05 11:57:43.666,-0.038608987,-0.03992741,-0.024469886,-0.029868215,0.08130385,-0.019015089,0.0,0.0,0.0,-0.0026200616,0.07482543,0.4459875,-0.19107838,-0.03598738,0.20788895,-0.16202606,-0.16305953,-0.48620665,-0.15080646,0.12009685,-0.4756827,-0.18268071,-0.024950156,-0.0421622,0.016626567,-0.017248113,-0.034378186,0.04841186,0.002453742,0.002490761,-0.07369664,-0.02500859,-0.044216923,0.023575041,2.0,2.0,-2.0,-2.0,0.8903201,-2.0,-2.0,-2.0,-2.0,2.0,-2.0,-2.0,2.0,2.0,-2.0,-2.0,0.71379936,-2.0,-2.0,-1.9418389,-2.0,2.0,-2.0,-2.0
2025-06-05 11:57:43.684,-0.0511547,-0.010759321,-0.019187935,-0.060469557,0.0891073,0.04947123,0.0,0.0,0.0,-0.002701727,0.06718957,0.44007516,-0.19444512,-0.026163198,0.19505088,-0.1525642,-0.15879738,-0.4936222,-0.138159,0.117179565,-0.4727338,-0.19263919,0.039892502,0.0703943,0.0306708,-0.010369885,-0.03336233,0.06990139,0.054364737,-0.049389947,0.026491698,-0.051215712,0.019022994,-0.038405035,2.0,2.0,-2.0,-2.0,0.71379936,-2.0,-2.0,-1.9418389,-2.0,2.0,-2.0,-2.0,2.0,2.0,-2.0,-2.0,0.7317486,-2.0,-2.0,-2.0,-2.0,2.0,-2.0,-2.0
2025-06-05 11:57:43.704,0.03397992,-0.037693873,0.034604754,-0.10674348,0.14314853,0.024010768,0.0,0.0,0.0,-0.0029000174,0.079746075,0.44465262,-0.19656914,-0.026757058,0.20506354,-0.15166111,-0.15424883,-0.47988975,-0.14855257,0.13398068,-0.46549597,-0.18482415,0.048382774,-0.0239705,-0.060068365,0.044032276,0.010467972,0.0052754404,-0.051258612,-0.015956974,-0.05341927,0.025845684,0.002102568,-0.039009567,2.0,2.0,-2.0,-2.0,0.7317486,-2.0,-2.0,-2.0,-2.0,2.0,-2.0,-2.0,2.0,1.7728375,-2.0,-2.0,1.2487376,-2.0,-2.0,-2.0,-2.0,2.0,-2.0,-2.0
2025-06-05 11:57:43.724,0.047043134,0.034589097,-0.028328061,-0.016164305,0.1204948,-0.020352086,0.0,0.0,0.0,-0.0030774972,0.069265984,0.43754435,-0.19587418,-0.027240269,0.20360976,-0.15651022,-0.15860079,-0.47739053,-0.15754451,0.12997119,-0.4656126,-0.19157527,0.0035519274,0.061777513,-0.01860324,-0.026457148,0.045108777,0.06588406,-0.041673746,0.06766195,0.034353618,0.02501686,0.030426625,0.044496756,2.0,1.7728375,-2.0,-2.0,1.2487376,-2.0,-2.0,-2.0,-2.0,2.0,-2.0,-2.0,2.0,2.0,-2.0,-2.0,0.7969163,-2.0,-2.0,-2.0,-2.0,2.0,-2.0,-2.0
2025-06-05 11:57:43.744,-0.012194351,-0.016867181,0.039517038,-0.0363719,0.15406258,-0.030262161,0.0,0.0,0.0,-0.0028908611,0.07025872,0.4427758,-0.19476564,-0.032590885,0.20466356,-0.15123318,-0.16512595,-0.4938879,-0.15245804,0.12752376,-0.46503475,-0.18742912,-0.054697707,0.012997651,-0.04008162,-0.027115056,0.06454561,0.06947512,-0.056106046,0.025068607,-0.0526728,-0.042393122,-0.061247844,0.050848976,2.0,2.0,-2.0,-2.0,0.7969163,-2.0,-2.0,-2.0,-2.0,2.0,-2.0,-2.0,2.0,1.7380649,-2.0,-2.0,1.2373079,-2.0,-2.0,-2.0,-2.0,2.0,-2.0,-2.0
2025-06-05 11:57:43.767,-0.004578031,-0.050324507,-0.041314654,-0.04031228,0.085237615,0.0030546216,0.0,0.0,0.0,-0.002801895,0.07315092,0.44333228,-0.20426914,-0.03447499,0.2017456,-0.1635268,-0.15365656,-0.49099904,-0.15548846,0.13036849,-0.46905562,-0.1936557,0.053165298,0.007570994,0.04589449,0.055067886,0.048348907,-0.010665328,0.07058232,-0.03684299,-0.02619642,0.0024611424,0.010020251,0.028315756,2.0,1.7380649,-2.0,-2.0,1.2373079,-2.0,-2.0,-2.0,-2.0,2.0,-2.0,-2.0,2.0,2.0,-2.0,-2.0,0.82742184,-2.0,-2.0,-2.0,-2.0,2.0,-2.0,-2.0
2025-06-05 11:57:43.784,-0.044735268,0.015278814,0.026325868,-0.09317979,0.11679884,0.0021166962,0.0,0.0,0.0,-0.0025944766,0.06533429,0.44701567,-0.19682838,-0.043313462,0.19262657,-0.14943719,-0.16176367,-0.4918608,-0.15850453,0.11833255,-0.46130556,-0.20107101,-0.0030919625,-0.05216965,-0.06790765,0.053928457,0.031380434,0.017180147,-0.03779123,-0.0106993085,-0.062738895,0.03703492,0.0380357,-0.038843434,2.0,2.0,-2.0,-2.0,0.82742184,-2.0,-2.0,-2.0,-2.0,2.0,-2.0,-2.0,2.0,1.7954944,-2.0,-2.0,1.1896532,-2.0,-2.0,-2.0,-2.0,2.0,-2.0,-2.0
2025-06-05 11:57:43.806,-0.0009077995,-0.02955641,0.022555491,-0.030979665,0.077671066,0.007094453,0.0,0.0,0.0,-0.0025492725,0.0672306,0.43173352,-0.191018,-0.040748447,0.2039705,-0.15788978,-0.16517109,-0.49268827,-0.15088874,0.12069779,-0.45869705,-0.19075623,-0.04535633,-0.04341686,-0.045519434,0.044652097,0.03854343,-0.012984804,0.07375371,-0.07209226,0.07550527,0.046676163,-0.02416342,0.05602313,2.0,1.7954944,-2.0,-2.0,1.1896532,-2.0,-2.0,-2.0,-2.0,2.0,-2.0,-2.0,2.0,1.8793924,-2.0,-2.0,1.3591168,-2.0,-2.0,-2.0,-2.0,2.0,-2.0,-2.0
2025-06-05 11:57:43.824,-0.0034270186,0.0275716,-0.060041748,-0.10599888,0.1472926,-0.025128415,0.0,0.0,0.0,-0.002436874,0.07789829,0.4477596,-0.19931094,-0.04656029,0.20595469,-0.16603042,-0.15088187,-0.49534884,-0.15353335,0.124360494,-0.4567,-0.18573137,-0.04632093,0.0013671527,-0.022051835,0.030642342,0.04907032,0.034821928,0.025520364,-0.037556283,0.04940375,0.017623141,0.006178992,0.028176103,2.0,1.8793924,-2.0,-2.0,1.3591168,-2.0,-2.0,-2.0,-2.0,2.0,-2.0,-2.0,2.0,2.0,-2.0,-2.0,0.64941686,-2.0,-2.0,-2.0,-2.0,2.0,-2.0,-2.0
2025-06-05 11:57:43.844,-0.037846107,0.0017880548,0.030112918,-0.013270349,0.1490182,0.033394262,0.0,0.0,0.0,-0.0021920118,0.06801694,0.44072536,-0.2003361,-0.035696376,0.19458917,-0.16735554,-0.15937883,-0.49160314,-0.14730273,0.12571907,-0.47402048,-0.19950128,-0.027415007,0.076778606,-0.0056832638,-0.0058932956,0.0034390201,-0.05542048,-0.005744425,-0.0137767,0.051228613,-0.00023875987,-0.029721407,-0.033858042,2.0,2.0,-2.0,-2.0,0.64941686,-2.0,-2.0,-2.0,-2.0,2.0,-2.0,-2.0,2.0,1.8163803,-2.0,-2.0,1.2574446,-2.0,-2.0,-2.0,-2.0,2.0,-2.0,-2.0
2025-06-05 11:57:43.866,0.038203675,0.036242057,0.03846196,-0.0895093,0.09413817,-0.018197276,0.0,0.0,0.0,-0.00227361,0.07501205,0.44302174,-0.20324787,-0.041167032,0.19671965,-0.15966058,-0.16131389,-0.47783446,-0.14168395,0.12982312,-0.46396285,-0.19140053,0.0733273,-0.067110166,0.010658953,0.02584023,-0.024765616,0.057658445,0.036386084,-0.01855153,0.06196634,-0.05616383,-0.06992608,-0.07454253,2.0,1.8163803,-2.0,-2.0,1.2574446,-2.0,-2.0,-2.0,-2.0,2.0,-2.0,-2.0,2.0,2.0,-2.0,-2.0,1.0607725,-2.0,-2.0,-2.0,-2.0,2.0,-2.0,-2.0
2025-06-05 11:57:43.884,-0.010546939,0.004680664,0.0023559588,-0.077044584,0.15848611,-0.034270953,0.0,0.0,0.0,-0.0022450523,0.07416003,0.43193522,-0.19893993,-0.045576703,0.20836696,-0.15013431,-0.16857632,-0.47726336,-0.14085743,0.122857496,-0.46235725,-0.18372783,-0.05843226,0.01721261,-0.053005096,-0.049356874,0.07151375,0.0038017659,-0.0650915,-0.06315264,0.05135525,-0.030793047,-0.039108813,0.045288455,2.0,2.0,-2.0,-2.0,1.0607725,-2.0,-2.0,-2.0,-2.0,2.0,-2.0,-2.0,2.0,1.9817687,-2.0,-2.0,1.0857801,-2.0,-2.0,-2.0,-2.0,2.0,-2.0,-2.0
2025-06-05 11:57:43.907,-0.042230073,0.014619068,0.009064924,-0.024704123,0.08972906,-0.033265956,0.0,0.0,0.0,-0.0022180665,0.06184027,0.45138472,-0.19077758,-0.03716434,0.2132457,-0.16275555,-0.16750997,-0.4830185,-0.14128153,0.13188575,-0.46198934,-0.18884826,0.001863657,-0.034181602,-0.05704616,0.003326514,-0.068177715,-0.05955565,-0.0031927282,-0.007743427,-0.016650371,-0.0025364577,-0.0112368,0.05295035,2.0,1.9817687,-2.0,-2.0,1.0857801,-2.0,-2.0,-2.0,-2.0,2.0,-2.0,-2.0,2.0,1.9906756,-2.0,-2.0,1.0465602,-2.0,-2.0,-2.0,-2.0,2.0,-2.0,-2.0
2025-06-05 11:57:43.925,-0.03650992,-0.03622704,0.051814336,-0.06017676,0.09746429,-0.012651555,0.0,0.0,0.0,-0.0022434383,0.06466879,0.44270396,-0.20245421,-0.033171773,0.21115707,-0.16490392,-0.15926881,-0.4940795,-0.13445711,0.122658476,-0.46994334,-0.20077315,-0.0650043,0.0077147707,0.038255885,-0.06704385,0.043857865,-0.07045676,0.0358734,-0.069945574,0.025680562,0.051053762,0.00070836314,0.025080806,2.0,1.9906756,-2.0,-2.0,1.0465602,-2.0,-2.0,-2.0,-2.0,2.0,-2.0,-2.0,2.0,1.6790792,-2.0,-2.0,1.534296,-2.0,-2.0,-2.0,-2.0,2.0,-2.0,-2.0
2025-06-05 11:57:43.948,-0.03319653,0.01990621,-0.07151618,-0.06271883,0.15318212,0.03867214,0.0,0.0,0.0,-0.0022914032,0.06472636,0.44637704,-0.19374461,-0.040744204,0.20289816,-0.15920483,-0.15124589,-0.49287698,-0.13464715,0.12438109,-0.45880285,-0.18307064,-0.039523397,-0.0003708713,0.04805603,0.05128165,-0.031146623,-0.067364074,-0.07149162,0.0040784064,0.04701999,0.05677573,-0.02968028,0.022574972,2.0,1.6790792,-2.0,-2.0,1.534296,-2.0,-2.0,-2.0,-2.0,2.0,-2.0,-2.0,2.0,2.0,-2.0,-2.0,0.571143,-2.0,-2.0,-1.5848047,-2.0,2.0,-2.0,-2.0
2025-06-05 11:57:43.967,0.0033117163,-0.028282411,-0.00040210877,-0.08420799,0.12659533,0.036119055,0.0,0.0,0.0,-0.0019995968,0.07118583,0.4523717,-0.20237193,-0.038385313,0.2216435,-0.15846899,-0.1625114,-0.4809727,-0.13914955,0.1297906,-0.45570704,-0.19373639,0.004346356,0.0005539024,0.052915204,-0.043494392,-0.03627175,0.03726664,-0.046429895,0.072086565,-0.071871854,-0.056414556,-0.06858407,-0.03566727,2.0,2.0,-2.0,-2.0,0.571143,-2.0,-2.0,-1.5848047,-2.0,2.0,-2.0,-2.0,2.0,1.9216919,-2.0,-2.0,0.8864464,-2.0,-2.0,-1.9165298,-2.0,2.0,-2.0,-2.0
2025-06-05 11:57:43.986,-0.016771661,-0.013162622,0.03403862,-0.029902242,0.074407965,0.016385831,0.0,0.0,0.0,-0.002431833,0.080351,0.450925,-0.1985706,-0.03711833,0.21501397,-0.16366352,-0.16326474,-0.4870562,-0.14548415,0.1345631,-0.45846537,-0.19559948,0.02247362,-0.021853454,-0.05256165,-0.019156586,-0.028459655,-0.055365704,0.016865488,-0.045781832,0.036710963,0.030062133,-0.008684956,0.034412183,2.0,1.9216919,-2.0,-2.0,0.8864464,-2.0,-2.0,-1.9165298,-2.0,2.0,-2.0,-2.0,2.0,1.7923656,-2.0,-2.0,1.3721132,-2.0,-2.0,-2.0,-2.0,2.0,-2.0,-2.0
2025-06-05 11:57:44.005,-0.025183497,0.0009878251,0.004157363,-0.07157721,0.14181574,-0.033189025,0.0,0.0,0.0,-0.0028740314,0.07224057,0.44533896,-0.19559868,-0.040664647,0.20644246,-0.15302593,-0.16586484,-0.47157246,-0.15031582,0.13189249,-0.45579454,-0.1955634,-0.069536865,-0.028869564,0.055223376,0.044493962,0.031305704,-0.030896898,0.019283134,0.010504457,0.058564544,-0.0018273079,-0.07314565,0.005624105,2.0,1.7923656,-2.0,-2.0,1.3721132,-2.0,-2.0,-2.0,-2.0,2.0,-2.0,-2.0,2.0,2.0,-2.0,-2.0,1.0198561,-2.0,-2.0,-2.0,-2.0,2.0,-2.0,-2.0
2025-06-05 11:57:44.025,0.03791742,0.004340443,0.029893637,-0.095079005,0.11644178,0.046504624,0.0,0.0,0.0,-0.002688294,0.07439347,0.43970463,-0.2034316,-0.035803318,0.20738341,-0.15308295,-0.1643506,-0.4797158,-0.1468932,0.12230289,-0.45724362,-0.19485976,0.020304555,0.015640818,-0.076203376,0.012700825,-0.026460866,0.030181494,0.022206863,-0.062130526,-0.03646263,-0.05141821,0.028208323,0.0008544574,2.0,2.0,-2.0,-2.0,1.0198561,-2.0,-2.0,-2.0,-2.0,2.0,-2.0,-2.0,2.0,1.897107,-2.0,-2.0,1.1077421,-2.0,-2.0,-2.0,-2.0,2.0,-2.0,-2.0
2025-06-05 11:57:44.049,0.020694524,0.010200744,0.03905114,-0.10899268,0.08833101,0.005262447,0.0,0.0,0.0,-0.0024698204,0.07773631,0.44950056,-0.19695115,-0.031376857,0.2120427,-0.16502294,-0.16153552,-0.4852088,-0.15156075,0.13248089,-0.4607396,-0.20026052,-0.046521913,0.0710168,0.02889975,-0.035674985,0.028816825,-0.041424885,0.039232187,0.018680945,-0.0118430955,0.059625518,-0.0220417,0.04974919,2.0,1.897107,-2.0,-2.0,1.1077421,-2.0,-2.0,-2.0,-2.0,2.0,-2.0,-2.0,2.0,1.804769,-2.0,-2.0,1.3805869,-2.0,-2.0,-2.0,-2.0,2.0,-2.0,-2.0
2025-06-05 11:57:44.066,-0.024513252,0.019059852,0.007282987,-0.09424353,0.07893557,-0.002488915,0.0,0.0,0.0,-0.0023259714,0.06499956,0.44512,-0.20388292,-0.0350004,0.20882235,-0.16917272,-0.16420989,-0.4890147,-0.1450128,0.13291764,-0.45110372,-0.18734229,0.0570641,-0.013484961,0.04343911,-0.04888063,-0.012793713,-0.06335955,0.05586278,-0.07384803,-0.048062965,-0.019569788,0.0039437255,0.038199075,2.0,1.804769,-2.0,-2.0,1.3805869,-2.0,-2.0,-2.0,-2.0,2.0,-2.0,-2.0,2.0,1.9951383,-2.0,-2.0,1.1459086,-2.0,-2.0,-2.0,-2.0,2.0,-2.0,-2.0
2025-06-05 11:57:44.085,-0.014993912,0.0466292,-0.05267755,-0.024534574,0.1301952,-0.035654493,0.0,0.0,0.0,-0.002062722,0.06782926,0.44945002,-0.20274672,-0.044900738,0.22514464,-0.16855894,-0.15736914,-0.47817698,-0.1531712,0.13298365,-0.4605106,-0.19184105,-0.011081275,-0.07014757,-0.022997778,0.044675935,-0.057567343,-0.035894684,0.07656611,-0.01133015,-0.035068046,-0.022678297,0.04912117,-0.035500586,2.0,1.9951383,-2.0,-2.0,1.1459086,-2.0,-2.0,-2.0,-2.0,2.0,-2.0,-2.0,2.0,2.0,-2.0,-2.0,0.6524049,-2.0,-2.0,-1.9360591,-2.0,2.0,-2.0,-2.0
2025-06-05 11:57:44.106,0.027251314,0.021464331,0.028013153,-0.059125528,0.1306073,-0.025728093,0.0,0.0,0.0,-0.001928197,0.062792614,0.44114575,-0.19982624,-0.046754554,0.2064012,-0.16523786,-0.15675761,-0.4859905,-0.13882308,0.12032874,-0.4570887,-0.1876978,-0.050367177,-0.047234956,-0.0018410998,-0.05598555,-0.01951251,-0.06446135,0.06834106,0.03047229,-0.03858364,0.011344952,-0.029546678,0.020106785,2.0,2.0,-2.0,-2.0,0.6524049,-2.0,-2.0,-1.9360591,-2.0,2.0,-2.0,-2.0,2.0,1.7030898,-2.0,-2.0,1.3941315,-2.0,-2.0,-2.0,-2.0,2.0,-2.0,-2.0
2025-06-05 11:57:44.125,0.05695482,-0.05116997,-0.015843444,-0.0880387,0.15643738,0.004792132,0.0,0.0,0.0,-0.002186579,0.075436786,0.447255,-0.19341663,-0.041117944,0.20443273,-0.1498414,-0.15666668,-0.4894193,-0.13934404,0.13614257,-0.4660429,-0.18581937,0.0073133726,-0.07142218,0.044386074,-0.053577017,-0.02406724,-0.024881134,-0.001573322,0.06418437,0.043886527,0.0054251556,0.05131893,0.02092736,2.0,1.7030898,-2.0,-2.0,1.3941315,-2.0,-2.0,-2.0,-2.0,2.0,-2.0,-2.0,2.0,2.0,-2.0,-2.0,1.0684874,-2.0,-2.0,-2.0,-2.0,2.0,-2.0,-2.0
2025-06-05 11:57:44.149,0.024846997,0.03235636,0.0015277825,-0.042352825,0.1494444,-0.021391533,0.0,0.0,0.0,-0.0021102359,0.07439293,0.44982332,-0.20318753,-0.02898445,0.21271074,-0.16288397,-0.16086413,-0.49223313,-0.1512006,0.119318895,-0.46511465,-0.19311324,-0.02058781,0.007151226,-0.061630804,0.027511245,-0.010879555,0.06764899,0.018553784,0.066176824,0.073217385,-0.0019236854,-0.06659159,0.020497834,2.0,2.0,-2.0,-2.0,1.0684874,-2.0,-2.0,-2.0,-2.0,2.0,-2.0,-2.0,2.0,2.0,-2.0,-2.0,0.8852994,-2.0,-2.0,-2.0,-2.0,2.0,-2.0,-2.0
2025-06-05 11:57:44.166,0.035685707,0.053978812,-0.0007148113,-0.10854439,0.091059096,-0.041733004,0.0,0.0,0.0,-0.002011889,0.0697796,0.44554746,-0.19476217,-0.031100558,0.22029656,-0.15327762,-0.15547344,-0.48767084,-0.13254239,0.12890558,-0.45172963,-0.18274677,0.028832827,0.043403894,0.005267836,0.033147592,-0.024351433,0.010644414,0.06504383,0.055079214,-0.0011959161,0.008045689,-0.026417196,-0.0044895336,2.0,2.0,-2.0,-2.0,0.8852994,-2.0,-2.0,-2.0,-2.0,2.0,-2.0,-2.0,2.0,2.0,-2.0,-2.0,0.99328744,-2.0,-2.0,-2.0,-2.0,2.0,-2.0,-2.0
2025-06-05 11:57:44.187,0.010244483,-0.0100040175,0.02374913,-0.09405361,0.08879202,0.01974781,0.0,0.0,0.0,-0.0021141095,0.07287487,0.4491591,-0.20528184,-0.033182334,0.20769961,-0.16086175,-0.15146604,-0.49255225,-0.14585741,0.13102612,-0.45863938,-0.18253937,0.03976046,0.05116134,0.051907465,0.036111005,-0.056399964,-0.046551194,0.009788416,0.024612693,-0.016087262,0.013543519,0.040074185,0.068322204,2.0,2.0,-2.0,-2.0,0.99328744,-2.0,-2.0,-2.0,-2.0,2.0,-2.0,-2.0,2.0,1.9254845,-2.0,-2.0,1.2607664,-2.0,-2.0,-2.0,-2.0,2.0,-2.0,-2.0
2025-06-05 11:57:44.206,-0.014335467,0.00245978,0.031108182,-0.010830864,0.13277906,0.038968112,0.0,0.0,0.0,-0.0022349868,0.06814677,0.440395,-0.1935574,-0.03063162,0.21505754,-0.1503632,-0.16534998,-0.48615602,-0.13898635,0.12770931,-0.4553034,-0.19971628,0.0006878347,0.0052462416,0.07084431,-0.010869305,-0.018180313,0.0048753642,-0.041973718,-0.00679991,0.060130477,0.036725312,-0.024137864,-0.020865584,2.0,1.9254845,-2.0,-2.0,1.2607664,-2.0,-2.0,-2.0,-2.0,2.0,-2.0,-2.0,2.0,1.9078193,-2.0,-2.0,1.1924394,-2.0,-2.0,-2.0,-2.0,2.0,-2.0,-2.0
