openverse-orca/OrcaGym/log/simulation_log_20250605_091222.csv
timestamp,imu_angle_roll,imu_angle_pitch,imu_angle_yaw,imu_angular_velocity_roll,imu_angular_velocity_pitch,imu_angular_velocity_yaw,imu_acc_x,imu_acc_y,imu_acc_z,fl_joint1_pos,fl_joint1_vel,fl_joint1_torque,fl_joint2_pos,fl_joint2_vel,fl_joint2_torque,fl_joint3_pos,fl_joint3_vel,fl_joint3_torque,fr_joint1_pos,fr_joint1_vel,fr_joint1_torque,fr_joint2_pos,fr_joint2_vel,fr_joint2_torque,fr_joint3_pos,fr_joint3_vel,fr_joint3_torque,hl_joint1_pos,hl_joint1_vel,hl_joint1_torque,hl_joint2_pos,hl_joint2_vel,hl_joint2_torque,hl_joint3_pos,hl_joint3_vel,hl_joint3_torque,hr_joint1_pos,hr_joint1_vel,hr_joint1_torque,hr_joint2_pos,hr_joint2_vel,hr_joint2_torque,hr_joint3_pos,hr_joint3_vel,hr_joint3_torque,fl_force_x,fl_force_y,fl_force_z,fr_force_x,fr_force_y,fr_force_z,hl_force_x,hl_force_y,hl_force_z,hr_force_x,hr_force_y,hr_force_z,fl_hip_action,fl_thigh_action,fl_calf_action,fr_hip_action,fr_thigh_action,fr_calf_action,hl_hip_action,hl_thigh_action,hl_calf_action,hr_hip_action,hr_thigh_action,hr_calf_action
2025-06-05 09:12:22.398,0.021729061,0.023294117,0.027209425,0.042508014,0.011075365,-0.033260103,2.1818287,1.4118494,0.0,0.0,0.0008604771,-0.0012555055,0.0066453097,-0.008454946,-0.0073042,0.00076722645,-0.009353944,-0.00938761,0.0076770005,-0.0021451977,-0.003959612,-0.0045416425,-0.01959525,-0.039651524,-0.04429508,0.065057635,0.073819734,0.059944127,-0.03285464,-0.052491147,-0.030431828,0.03510806,0.059961155,0.052527584,0.0,0.0,0.0,0.0,0.0,0.0,0.0,0.0,0.0,0.0,0.0,0.0,-0.5256069,0.80158347,-0.5138632,0.81808555,0.75894976,-0.9483622,-0.36894313,-0.39509013,-0.66341615,0.8006686,-0.89315206,-0.9048022
2025-06-05 09:12:22.402,-0.09690662,-0.020374091,0.0063452343,-0.033794113,-0.014497921,-0.028735613,0.0,0.0,0.0,0.0,-0.008324921,0.04496864,-0.023715518,0.008320215,0.052514125,-0.046977352,-0.0069986423,-0.029056925,-0.015240178,0.015362473,-0.05634122,-0.030470913,0.020214833,0.12083499,-0.08067823,-0.017003229,0.21338302,-0.06097701,-0.039608877,-0.120831296,-0.068950266,0.014040842,-0.22509259,-0.031923153,-0.5256069,0.80158347,-0.5138632,0.81808555,0.75894976,-0.9483622,-0.36894313,-0.39509013,-0.66341615,0.8006686,-0.89315206,-0.9048022,-0.27764797,0.5540815,-0.97290355,0.81749463,0.2699489,0.17204197,-0.8067995,-0.80256486,-0.79697245,0.4253518,-0.69826823,-0.87013423
2025-06-05 09:12:22.425,-0.08138489,0.048249308,0.05129114,0.037977625,0.033232648,-0.04026547,0.0,0.0,0.0,-0.00023338127,-0.020218503,0.097415976,-0.049614035,0.029753141,0.068701535,-0.02188082,-0.008239175,-0.07930957,-0.056782655,0.01601849,-0.10750037,-0.06590485,0.031912513,0.02277658,-0.06522846,-0.02694824,0.020858014,0.016831424,0.03611864,-0.1961777,-0.052540638,0.060381617,-0.15872073,-0.0819519,-0.27764797,0.5540815,-0.97290355,0.81749463,0.2699489,0.17204197,-0.8067995,-0.80256486,-0.79697245,0.4253518,-0.69826823,-0.87013423,0.52322835,0.1647593,-0.9926021,0.9151429,0.11467137,0.7922077,-0.9046697,-0.909776,0.7013845,0.29245362,-0.75814766,-0.90884876
2025-06-05 09:12:22.443,-0.08562958,-0.081307225,-0.063167825,0.036863662,0.010788844,0.02300276,0.0,0.0,0.0,-0.00032644146,-0.017357068,0.100937024,-0.067554586,0.029914483,0.081110425,0.008251244,-0.017990923,-0.1481383,-0.019271206,0.023740498,-0.16136807,-0.07038747,-0.006138077,-0.09423877,-0.014977479,-0.0037886119,-0.05209689,0.07557873,-0.017094208,-0.068006076,0.067398645,0.075420134,-0.04653414,0.030481955,0.52322835,0.1647593,-0.9926021,0.9151429,0.11467137,0.7922077,-0.9046697,-0.909776,0.7013845,0.29245362,-0.75814766,-0.90884876,0.91183656,0.14490773,-0.99390125,0.94668543,0.22053805,0.70782954,-0.77833295,-0.36590692,0.9782698,-0.2534989,-0.7873496,-0.96721214
2025-06-05 09:12:22.463,0.008853894,-0.07812876,0.033764437,0.050729115,-0.017576281,0.0037325274,0.0,0.0,0.0,-0.00019589001,-0.0015463035,0.07794428,-0.03847115,0.031995285,0.0798786,0.028450483,-0.033837534,-0.16133353,0.012084534,0.043586705,-0.18501139,-0.04482032,0.07708538,0.016579945,0.058432832,0.07685566,-0.03756325,0.033916682,0.05284647,0.03762286,0.14365576,0.08921609,-0.10445525,0.11801806,0.91183656,0.14490773,-0.99390125,0.94668543,0.22053805,0.70782954,-0.77833295,-0.36590692,0.9782698,-0.2534989,-0.7873496,-0.96721214,0.79782784,-0.008161043,-0.9969126,0.9878677,0.64020073,0.5351134,-0.61888015,-0.0925755,0.98455185,-0.34414366,-0.70582503,-0.9699992
2025-06-05 09:12:22.483,-0.04563895,-0.014393488,-0.011771639,0.041267917,0.03459295,-0.015815284,0.0,0.0,0.0,-0.00051621813,-0.0068130633,0.061779816,-0.012148362,0.054802574,0.1115232,0.05468798,-0.034862988,-0.1483355,0.062120106,0.03346442,-0.20571318,-0.0016957375,0.04111872,-0.09459527,0.00797063,0.0021903696,0.0800026,0.04846951,0.02109589,0.07186228,0.053452805,0.05642847,-0.03108451,0.0573127,0.79782784,-0.008161043,-0.9969126,0.9878677,0.64020073,0.5351134,-0.61888015,-0.0925755,0.98455185,-0.34414366,-0.70582503,-0.9699992,0.5950148,0.37376016,-0.9843534,0.9716342,0.63927144,0.035641428,-0.29676878,0.23171669,0.9271894,-0.48726508,-0.50649697,-0.95994556
2025-06-05 09:12:22.502,0.042853776,-0.04361808,0.03726412,0.031725407,0.049298372,0.035055764,0.0,0.0,0.0,-0.00040624576,-0.010661622,0.07136595,-0.019449288,0.048518814,0.14673893,0.057833087,-0.02658483,-0.10842914,0.08873183,0.052153964,-0.2024322,0.00064185594,0.04041917,-0.039044224,-0.04834147,0.044970345,0.15772818,-0.050457653,0.07880349,0.06276586,0.10081535,0.02860595,-0.03588681,-0.0012786945,0.5950148,0.37376016,-0.9843534,0.9716342,0.63927144,0.035641428,-0.29676878,0.23171669,0.9271894,-0.48726508,-0.50649697,-0.95994556,-0.057677813,0.36630452,-0.99409413,0.98992574,0.38209876,0.37894222,0.17184222,0.28920713,0.83000064,-0.42870602,-0.37627104,-0.94454145
2025-06-05 09:12:22.524,0.06349082,-0.046309076,-0.0780547,-0.026102224,0.012191796,-0.011750439,0.0,0.0,0.0,-0.00011286317,-0.0047818157,0.06974147,-0.020762848,0.053423297,0.17017272,0.055896208,-0.02630428,-0.06272206,0.117795445,0.044770677,-0.19937463,-0.010270719,-0.08253081,0.0051113027,-0.06093749,-0.0048801163,-0.04879655,-0.036038045,-0.035004415,0.074183814,0.012162819,0.014783421,0.0026053793,-0.032543283,-0.057677813,0.36630452,-0.99409413,0.98992574,0.38209876,0.37894222,0.17184222,0.28920713,0.83000064,-0.42870602,-0.37627104,-0.94454145,-0.46429563,0.57633257,-0.90059376,0.9893179,0.15153961,0.34630522,0.8203004,0.5106206,0.43320918,-0.7259395,-0.74161863,-0.918961
2025-06-05 09:12:22.543,-0.03859748,0.025174892,-0.0050018243,0.022544103,0.074049205,0.030062098,0.0,0.0,0.0,0.00039396907,-0.005889452,0.060722765,-0.020445237,0.056273002,0.1538727,0.05166732,-0.010459479,-0.01485227,0.10692338,0.0347511,-0.20704304,-0.011294523,0.0049337274,0.090554945,-0.09646579,0.016962836,-0.025634296,-0.039603073,0.022370376,0.15606527,0.023069669,-0.043458607,-0.015788067,0.01885748,-0.46429563,0.57633257,-0.90059376,0.9893179,0.15153961,0.34630522,0.8203004,0.5106206,0.43320918,-0.7259395,-0.74161863,-0.918961,-0.87192684,0.62653065,-0.5702131,0.9979529,0.50382,-0.07651933,0.9597051,-0.027565628,-0.48811972,-0.6878474,-0.91151553,-0.8045764
2025-06-05 09:12:22.563,-0.07455573,0.067484915,0.09701951,0.021300701,0.030911192,-0.01262189,0.0,0.0,0.0,1.0552852e-05,-0.018142434,0.07828929,-0.036152825,0.062549405,0.16274177,0.037959535,0.016305303,-0.004253183,0.07573913,0.014927936,-0.22982337,-0.012050254,-0.0475604,0.08385223,-0.04187952,-0.025143268,0.03738355,-0.024449654,-0.009341572,-0.022142444,-0.11852767,-0.041557968,-0.10704613,-0.009731927,-0.87192684,0.62653065,-0.5702131,0.9979529,0.50382,-0.07651933,0.9597051,-0.027565628,-0.48811972,-0.6878474,-0.91151553,-0.8045764,-0.93704116,0.39062685,0.571139,0.99371076,0.5065633,-0.5475333,0.98096347,-0.557266,-0.90746486,-0.07416138,-0.8087442,0.27696103
2025-06-05 09:12:22.584,-0.032004643,-0.022959057,0.043900263,-0.022129055,-0.020419298,-0.028073536,0.0,0.0,0.0,-0.0012799607,-0.036891848,0.08950754,-0.016431883,0.07023034,0.18288764,0.017955221,0.031468038,-0.036575895,0.025536006,0.004924962,-0.25097466,-0.0047512916,-0.05185335,0.09833584,0.10451873,0.0046530063,-0.029804742,-0.12668815,0.030644447,-0.054722223,-0.14272971,-0.058244314,-0.118435174,0.06553135,-0.93704116,0.39062685,0.571139,0.99371076,0.5065633,-0.5475333,0.98096347,-0.557266,-0.90746486,-0.07416138,-0.8087442,0.27696103,-0.34701034,-0.3649235,0.9984713,0.6997552,0.3551258,-0.96007663,0.8019076,-0.76481414,-0.9933549,0.8686603,-0.774601,0.9620933
2025-06-05 09:12:22.604,-0.07478139,-0.12148425,-0.032970503,0.052988842,0.08470529,0.023080904,0.0,0.0,0.0,-0.0028007124,-0.04333782,0.060783334,0.03373742,0.08553395,0.17996222,-0.024625754,0.03410787,-0.06720201,0.021426355,0.025408093,-0.28692177,0.041678082,0.04271306,-0.15573135,0.08828572,-0.04767763,0.0119171925,0.010621203,0.053835012,-0.009516409,0.080655254,-0.026787702,-0.0009724547,0.097971216,-0.34701034,-0.3649235,0.9984713,0.6997552,0.3551258,-0.96007663,0.8019076,-0.76481414,-0.9933549,0.8686603,-0.774601,0.9620933,0.29445043,-0.45509034,0.9996101,-0.86847097,0.3268411,-0.98105687,-0.73148286,-0.7992687,-0.9987533,0.96675116,-0.7589234,0.9836103
2025-06-05 09:12:22.626,0.029161055,0.16829133,-0.020439476,-0.019509405,0.014866681,0.039146144,0.0,0.0,0.0,-0.002912178,-0.0295937,0.004387697,0.07254025,0.0729756,0.16979623,-0.026004095,0.030826576,-0.08707754,0.030163553,0.028516024,-0.30477536,0.07546544,-0.04110503,-0.11772533,0.15207547,-0.0796289,-0.013179375,0.063267015,0.030278666,-0.05234602,0.010796625,-0.029030822,0.007344667,0.026181323,0.29445043,-0.45509034,0.9996101,-0.86847097,0.3268411,-0.98105687,-0.73148286,-0.7992687,-0.9987533,0.96675116,-0.7589234,0.9836103,0.6367899,0.37512276,0.9886642,-0.9992118,0.8040738,-0.84455484,-0.9863262,-0.7979868,-0.9984724,0.84873503,-0.7259885,0.67161274
2025-06-05 09:12:22.644,0.020431515,0.22846045,-0.006847046,0.0618813,0.018739225,-0.04763531,0.0,0.0,0.0,-0.0022687921,-0.006609917,0.017127315,0.10249874,0.044530045,0.16982847,-0.011473168,0.01043113,-0.12547207,0.06529548,0.024179358,-0.30474433,0.096090384,0.0496029,0.09466799,0.12978514,0.003952485,-0.060886018,-0.048766956,-0.02067496,-0.06629073,0.038576465,0.081290975,-0.013869759,0.067861505,0.6367899,0.37512276,0.9886642,-0.9992118,0.8040738,-0.84455484,-0.9863262,-0.7979868,-0.9984724,0.84873503,-0.7259885,0.67161274,0.711889,0.31904715,0.8174828,-0.9979568,0.7572961,-0.7746709,-0.9955966,-0.7203448,-0.99713635,0.7369077,-0.6923805,-0.2675672
2025-06-05 09:12:22.664,0.017931607,0.21661523,-0.06248605,0.08060933,0.0024679436,0.015192958,0.0,0.0,0.0,-0.0016919259,5.116232e-06,0.047749575,0.11671547,0.02634379,0.17055412,-0.022793105,-0.012458181,-0.13378696,0.07700634,0.032159965,-0.31108955,0.066086315,0.00954597,0.06629722,-0.009168602,-0.077151716,-0.02907692,0.038345266,-0.019635405,0.0006119549,0.076412186,-0.0319389,0.010280906,-0.12372708,0.711889,0.31904715,0.8174828,-0.9979568,0.7572961,-0.7746709,-0.9955966,-0.7203448,-0.99713635,0.7369077,-0.6923805,-0.2675672,0.7163913,0.46446794,-0.114338435,-0.99040025,0.49199024,-0.7836496,-0.9944019,-0.43286282,-0.9915908,0.77259123,-0.76326,-0.85943574
2025-06-05 09:12:22.684,0.033844694,0.118003234,0.032671146,0.06816607,0.0080757355,0.033656795,0.0,0.0,0.0,-0.00077626295,0.024910642,0.08293935,0.11010261,0.005242708,0.17031714,-0.013941999,-0.031652074,-0.14319524,0.070242606,0.048225243,-0.30993494,0.022210872,0.019623209,0.06990279,-0.018184884,-0.09272619,0.06268056,0.021024602,-0.027875552,0.029702961,0.007595458,0.04676837,-0.027663676,-0.07194379,0.7163913,0.46446794,-0.114338435,-0.99040025,0.49199024,-0.7836496,-0.9944019,-0.43286282,-0.9915908,0.77259123,-0.76326,-0.85943574,0.74938995,0.35289648,-0.69578564,-0.8191631,0.29344934,-0.15298936,-0.97682834,-0.7291329,-0.91214913,0.67950404,-0.6597967,-0.951588
2025-06-05 09:12:22.704,-0.008855178,-0.043182626,-0.09124212,0.07736143,0.0051690345,0.016424067,0.0,0.0,0.0,-0.00027292667,0.046031706,0.10327515,0.050297495,-0.018140176,0.16897494,-0.007884549,-0.0625626,-0.14936058,0.059147492,0.057057414,-0.3117833,-0.01684416,0.003467253,-0.03151578,-0.16539507,-0.10807012,0.02296775,-0.0018882375,-0.052154366,0.034818266,-0.0662234,0.00047045996,0.019424632,-0.12267539,0.74938995,0.35289648,-0.69578564,-0.8191631,0.29344934,-0.15298936,-0.97682834,-0.7291329,-0.91214913,0.67950404,-0.6597967,-0.951588,0.87318575,0.6013007,-0.72865933,-0.6250879,-0.23636895,-0.0643291,-0.9619687,-0.68747264,-0.75077003,0.49886087,-0.8551017,-0.9822732
2025-06-05 09:12:22.726,-0.1797593,-0.13954273,0.042825405,-0.0011871196,0.05244776,0.021259759,0.0,0.0,0.0,0.000659579,0.04172545,0.10652151,0.025702523,-0.018484686,0.1423305,-0.0066204993,-0.06407215,-0.16652371,0.047986854,0.05624245,-0.33555326,-0.067869104,0.04150911,0.069985345,-0.055605818,0.051592592,-0.013285517,0.10508944,-0.00026121392,-0.028556354,0.0272756,0.06884585,-0.019521046,-0.0974382,0.87318575,0.6013007,-0.72865933,-0.6250879,-0.23636895,-0.0643291,-0.9619687,-0.68747264,-0.75077003,0.49886087,-0.8551017,-0.9822732,0.83205944,0.32472205,-0.95737684,0.3347605,0.14376724,0.5226682,-0.9667797,-0.9097309,0.0059661884,0.6092813,-0.7999075,-0.95610017
2025-06-05 09:12:22.744,-0.107592,-0.16657044,-0.06898511,0.034684688,0.051766634,-8.198661e-05,0.0,0.0,0.0,0.0009549419,0.049965095,0.113136515,-0.010823927,-0.0057669743,0.11160446,0.021363642,-0.057721123,-0.19507754,0.052260242,0.046729933,-0.34992364,-0.07747552,0.01741148,-0.036370993,-0.04366665,-0.04037942,-0.0075368555,0.044963926,0.0550459,-0.14332975,-0.010310825,0.08031124,-0.06813757,-0.018885382,0.83205944,0.32472205,-0.95737684,0.3347605,0.14376724,0.5226682,-0.9667797,-0.9097309,0.0059661884,0.6092813,-0.7999075,-0.95610017,0.95412093,0.4113542,-0.942962,0.67831886,0.2820516,0.34727383,-0.89452356,-0.8288395,0.46616596,-0.031171398,-0.8784456,-0.98390263
2025-06-05 09:12:22.764,-0.06838694,-0.12380898,0.03486629,0.08063315,0.09177875,-0.03427359,0.0,0.0,0.0,0.0015637885,0.05289798,0.104565926,-0.007864455,-0.009363585,0.107091315,0.040937744,-0.072389804,-0.23475793,0.058571722,0.05672204,-0.3629218,-0.07930902,-0.03379262,0.018112967,0.028304368,-0.021593569,-0.05506087,0.0982957,-0.02364352,-0.14681531,0.02366227,-0.062805206,0.022394277,0.06599254,0.95412093,0.4113542,-0.942962,0.67831886,0.2820516,0.34727383,-0.89452356,-0.8288395,0.46616596,-0.031171398,-0.8784456,-0.98390263,0.8831906,0.22547036,-0.9934162,0.94254625,0.3397803,0.2856105,-0.82499576,-0.72520554,0.87938166,0.06856967,-0.669564,-0.94217044
2025-06-05 09:12:22.785,0.07238912,-0.1348889,-0.046504032,0.010018222,0.023481824,0.04752282,0.0,0.0,0.0,0.0018253587,0.041473873,0.10885983,-0.033072907,0.0056816954,0.111689106,0.0587803,-0.061151616,-0.25628906,0.07841021,0.0640471,-0.3817221,-0.07250499,0.047775604,0.076205544,-0.069053076,-0.010906673,0.05291756,0.027090205,-0.03519829,0.024201533,-0.0022514546,0.04312887,0.06747755,-0.013645736,0.8831906,0.22547036,-0.9934162,0.94254625,0.3397803,0.2856105,-0.82499576,-0.72520554,0.87938166,0.06856967,-0.669564,-0.94217044,0.83965725,0.50032616,-0.981757,0.92671645,0.47307104,-0.12375771,-0.6020218,-0.48750043,0.6197535,-0.20778324,-0.73388416,-0.97093946
2025-06-05 09:12:22.807,-0.020912066,-0.14035532,-0.016624847,0.02618578,0.09776366,0.009231201,0.0,0.0,0.0,0.0020687573,0.04958542,0.1148232,-0.03529509,0.015173151,0.13016835,0.038327597,-0.064065345,-0.25503096,0.10472292,0.05558129,-0.3694532,-0.076106146,-0.013082792,0.038820427,-0.058980726,0.0049724085,-0.005332515,0.05310098,0.06952088,-0.04746692,0.07908002,-0.06102084,0.07425735,-0.017631058,0.83965725,0.50032616,-0.981757,0.92671645,0.47307104,-0.12375771,-0.6020218,-0.48750043,0.6197535,-0.20778324,-0.73388416,-0.97093946,0.8491445,0.54926527,-0.9847469,0.9634806,0.5165105,0.0140512455,-0.542276,-0.8143121,-0.009317368,-0.31397036,-0.7410306,-0.9609138
2025-06-05 09:12:22.826,0.044299137,-0.14436184,0.06363301,-0.016005065,0.086526625,0.034215417,0.0,0.0,0.0,0.0018990936,0.042049848,0.11863853,-0.045013715,0.028771814,0.14052717,0.037847057,-0.050230503,-0.27337298,0.08925894,0.05747361,-0.37358755,-0.06956519,-0.059690658,0.06067638,-0.08502804,0.010527304,-0.056984156,-0.0085416,-0.0085847955,0.021835797,-0.047015287,-0.022964327,-0.0012070473,-0.042181112,0.8491445,0.54926527,-0.9847469,0.9634806,0.5165105,0.0140512455,-0.542276,-0.8143121,-0.009317368,-0.31397036,-0.7410306,-0.9609138,0.7607832,0.36074042,-0.97190905,0.9384152,0.483325,-0.30506665,-0.47808123,-0.805652,0.10609815,5.2050687e-05,-0.57724667,-0.86649257
2025-06-05 09:12:22.845,-0.009483682,-0.12199495,0.014390349,0.018364435,0.09013269,0.020480383,0.0,0.0,0.0,0.0011477905,0.045279194,0.12511691,-0.06226608,0.024820972,0.13672881,0.040573895,-0.047621325,-0.2764709,0.07264057,0.04807007,-0.36129892,-0.0757038,0.0018998397,-0.028464485,-0.096823715,-0.0030036827,-0.024271084,0.02443571,0.011740224,0.0023571448,0.010938132,-0.044946156,-0.007447025,0.034297634,0.7607832,0.36074042,-0.97190905,0.9384152,0.483325,-0.30506665,-0.47808123,-0.805652,0.10609815,5.2050687e-05,-0.57724667,-0.86649257,0.8222771,0.38371545,-0.93432677,0.8934912,0.53929085,-0.44152492,-0.51392597,-0.8168119,-0.4111076,0.04855027,-0.62691987,-0.90550333
2025-06-05 09:12:22.865,-0.004848961,-0.029275408,0.05316232,0.043573227,0.09325319,-0.031842515,0.0,0.0,0.0,0.00034286766,0.034499653,0.14416182,-0.07613204,0.026797688,0.14975028,0.025874702,-0.060299356,-0.30039594,0.03876497,0.04099065,-0.36044618,-0.09118088,0.058766034,-0.011462534,-0.10075865,-0.04744561,-0.0052651875,-0.040070277,0.0670103,-0.083618864,-0.10715721,-0.033159997,-0.01014665,0.03600772,0.8222771,0.38371545,-0.93432677,0.8934912,0.53929085,-0.44152492,-0.51392597,-0.8168119,-0.4111076,0.04855027,-0.62691987,-0.90550333,0.8438729,0.23014833,-0.83969647,0.7870164,0.6128376,-0.5496426,-0.60045373,-0.85190856,-0.65924275,0.21451844,-0.61280066,-0.88629675
2025-06-05 09:12:22.884,0.018024737,-0.026046148,0.0151134245,-0.050248444,0.116146855,-0.036843985,0.0,0.0,0.0,-0.00037071985,0.05297494,0.15621811,-0.086783916,0.038732555,0.17089145,0.012513842,-0.057109617,-0.32024547,0.0119450325,0.043554462,-0.36054155,-0.0919839,0.021230197,0.06446797,-0.009711978,0.06488723,0.058936913,-0.0825677,0.0150590995,-0.063925736,-0.117822826,-0.011701899,0.03352417,-0.052195147,0.8438729,0.23014833,-0.83969647,0.7870164,0.6128376,-0.5496426,-0.60045373,-0.85190856,-0.65924275,0.21451844,-0.61280066,-0.88629675,0.9008762,0.2762628,-0.6905533,0.4706756,0.67698103,-0.66649485,-0.731568,-0.8440707,-0.8287456,0.25177452,-0.59951395,-0.8897964
2025-06-05 09:12:22.908,0.02873978,0.045099795,0.036706664,0.036665432,0.0952548,0.01730469,0.0,0.0,0.0,-0.0007161117,0.04657073,0.14822924,-0.09005564,0.029203512,0.17221074,0.0077105034,-0.04884835,-0.322086,-0.032318022,0.046559155,-0.34585026,-0.10052809,-0.049273476,-0.03689883,-0.08096422,0.06607745,0.09575188,-0.023466509,-0.013630865,0.017038798,-0.076717325,-0.07902596,0.056292504,0.008501942,0.9008762,0.2762628,-0.6905533,0.4706756,0.67698103,-0.66649485,-0.731568,-0.8440707,-0.8287456,0.25177452,-0.59951395,-0.8897964,0.9156449,0.122209676,-0.68406487,0.14076766,0.6579107,-0.4924277,-0.8473555,-0.862124,-0.793496,0.38301477,-0.48691782,-0.8680737
2025-06-05 09:12:22.926,-0.015338314,0.06990877,-0.04556812,-0.047207955,0.07926599,-0.019476138,0.0,0.0,0.0,-0.0006633324,0.030162817,0.15300971,-0.07535409,0.03817291,0.18042065,-0.012665875,-0.049644973,-0.34796607,-0.05768295,0.026323132,-0.3452849,-0.102550656,-0.04727298,-0.056010187,0.080339454,-0.00068631704,0.10528633,-0.07895699,-0.042405207,0.0038521353,-0.037091818,-0.027021423,0.046626616,0.05460351,0.9156449,0.122209676,-0.68406487,0.14076766,0.6579107,-0.4924277,-0.8473555,-0.862124,-0.793496,0.38301477,-0.48691782,-0.8680737,0.937715,0.28407353,-0.5239973,-0.35689834,0.5579403,-0.6032077,-0.8685664,-0.78741527,-0.823097,0.32823098,-0.5524075,-0.9099535
2025-06-05 09:12:22.945,0.021085715,0.14247629,-0.021605864,0.023970136,0.1078522,0.012688337,0.0,0.0,0.0,0.00020236877,0.02563874,0.13944437,-0.07736449,0.031015199,0.20177728,-0.020225314,-0.06252786,-0.3500399,-0.080875084,0.046155002,-0.34262508,-0.12153991,0.047287602,0.04340391,-0.021890458,0.0472039,-0.0010981199,-0.03139538,-0.040708292,-0.013514741,-0.0013910057,-0.054322746,-0.046973005,-0.08236309,0.937715,0.28407353,-0.5239973,-0.35689834,0.5579403,-0.6032077,-0.8685664,-0.78741527,-0.823097,0.32823098,-0.5524075,-0.9099535,0.90587616,0.20382519,-0.6420748,-0.36395672,0.37420952,-0.19992547,-0.93202484,-0.8052523,-0.8142457,0.46657902,-0.5880764,-0.9049851
2025-06-05 09:12:22.964,-0.008553456,0.062376354,-0.06074244,0.052297663,0.047356352,0.008466206,0.0,0.0,0.0,0.0013665362,0.017669251,0.13011956,-0.07312877,0.022510443,0.20099503,-0.01282241,-0.06400043,-0.35278425,-0.11146008,0.040913288,-0.33246657,-0.10520917,-0.017427858,0.00781595,0.015417496,0.04656322,-0.060252044,0.049072377,0.061730627,-0.059879582,-0.0889745,0.0012033435,0.036178973,0.014734513,0.90587616,0.20382519,-0.6420748,-0.36395672,0.37420952,-0.19992547,-0.93202484,-0.8052523,-0.8142457,0.46657902,-0.5880764,-0.9049851,0.92067677,0.19281279,-0.5089587,-0.35305122,0.36311963,-0.25999132,-0.9315073,-0.8077665,-0.7246231,0.4843925,-0.7492057,-0.9348267
2025-06-05 09:12:22.984,-0.062937275,0.16423061,-0.012445377,-0.024554627,0.012352102,0.0048481757,0.0,0.0,0.0,0.0026533294,0.030107496,0.1310096,-0.06885044,0.025913168,0.19577539,-0.029996317,-0.069129,-0.35625556,-0.12810244,0.04064273,-0.34658232,-0.103531934,0.040515896,-0.059390835,-0.027094351,-0.047888394,0.0009542035,0.004417496,0.02993241,-0.057018857,-0.013071092,-0.05048817,-0.06088476,-0.029369935,0.92067677,0.19281279,-0.5089587,-0.35305122,0.36311963,-0.25999132,-0.9315073,-0.8077665,-0.7246231,0.4843925,-0.7492057,-0.9348267,0.89663225,0.25052258,-0.677964,-0.36314133,0.3358859,-0.22441015,-0.9435452,-0.8097429,-0.6939188,0.53347,-0.6840261,-0.92187154
2025-06-05 09:12:23.008,-0.055377774,0.1092523,-0.05725726,0.063584276,0.018289147,-0.031762306,0.0,0.0,0.0,0.00387924,0.02559466,0.11210857,-0.06137136,0.01881515,0.1887672,-0.0217701,-0.065370254,-0.36971313,-0.13684186,0.060223438,-0.34417856,-0.11290376,-0.0030899632,-0.08036757,-0.0142620765,-0.010544454,0.051554326,0.045716934,-0.034926344,-0.062607065,0.00033949362,0.0024002893,-0.012264795,0.058907595,0.89663225,0.25052258,-0.677964,-0.36314133,0.3358859,-0.22441015,-0.9435452,-0.8097429,-0.6939188,0.53347,-0.6840261,-0.92187154,0.90694386,0.21387242,-0.7079422,-0.36169127,0.23169108,-0.04189638,-0.93263483,-0.81993985,-0.46918333,0.49696803,-0.65281796,-0.9178332
2025-06-05 09:12:23.025,-0.037855122,0.103207305,-0.035454627,0.036784146,0.07579579,-0.014696402,0.0,0.0,0.0,0.005150727,0.02142598,0.103864186,-0.048755985,0.010407001,0.19695455,-0.017649263,-0.079073936,-0.35713294,-0.14605382,0.0711726,-0.3514716,-0.10153928,0.058099,-0.02841709,-0.05178453,0.0033452308,-0.04899621,0.051236052,0.052722562,-0.03379079,0.006257209,-0.020945163,-0.019002555,-0.034009125,0.90694386,0.21387242,-0.7079422,-0.36169127,0.23169108,-0.04189638,-0.93263483,-0.81993985,-0.46918333,0.49696803,-0.65281796,-0.9178332,0.914739,0.21172556,-0.81592023,0.0020859882,0.18527082,0.13446344,-0.9379479,-0.8609204,-0.21771051,0.5022972,-0.74060297,-0.9472737
2025-06-05 09:12:23.045,-0.058668535,0.06116635,-0.04732565,0.016339289,0.08241734,-0.03001228,0.0,0.0,0.0,0.0064175203,0.012567511,0.082426265,-0.04920701,-0.0037157414,0.18360706,0.0021248187,-0.06620987,-0.3632513,-0.119677916,0.0785647,-0.3502729,-0.09495304,-0.06706097,0.048059117,0.03979625,0.023393955,-0.0890656,-0.0277144,-0.026198898,-0.008432548,0.05471539,-0.044427194,-0.00010502012,-0.034916103,0.914739,0.21172556,-0.81592023,0.0020859882,0.18527082,0.13446344,-0.9379479,-0.8609204,-0.21771051,0.5022972,-0.74060297,-0.9472737,0.9182911,0.14021651,-0.9074902,0.3560575,0.3197456,0.028075576,-0.9112491,-0.82058537,0.33197615,0.45042717,-0.6865413,-0.9429782
2025-06-05 09:12:23.065,-0.038762856,0.054856602,-0.05758804,0.07032129,0.02533524,0.010044438,0.0,0.0,0.0,0.0074334554,0.013496482,0.071407974,-0.042221524,0.0052933935,0.16156846,-0.0039662356,-0.07783509,-0.37679246,-0.09470898,0.081261516,-0.35668427,-0.09201334,0.06546256,-0.043158498,-0.01643357,0.067914695,-0.07584146,0.033085074,-0.045025308,-0.07343958,0.07608208,0.005090311,0.032890026,-0.03175382,0.9182911,0.14021651,-0.9074902,0.3560575,0.3197456,0.028075576,-0.9112491,-0.82058537,0.33197615,0.45042717,-0.6865413,-0.9429782,0.91969043,0.19014435,-0.961614,0.70582855,0.30928358,0.08893181,-0.88965434,-0.7826017,0.5097041,0.3409848,-0.65695786,-0.95346427
2025-06-05 09:12:23.086,-0.036895346,0.05591581,-0.06593906,0.07792118,0.06545094,0.037331033,0.0,0.0,0.0,0.008340402,0.017233495,0.07842462,-0.02502873,0.022648606,0.16656268,0.008169942,-0.07067672,-0.3782539,-0.054950498,0.087033294,-0.36135826,-0.100070454,0.046726376,0.027933026,0.006825248,0.02936485,0.06681416,-0.0019427786,-0.05495618,0.035733495,0.020991815,0.005526324,-0.041590262,0.0028046628,0.91969043,0.19014435,-0.961614,0.70582855,0.30928358,0.08893181,-0.88965434,-0.7826017,0.5097041,0.3409848,-0.65695786,-0.95346427,0.9107347,0.30149356,-0.9711599,0.8351419,0.43207648,-0.07128918,-0.7925683,-0.64483595,0.58477664,0.01782105,-0.66283333,-0.96314913
2025-06-05 09:12:23.109,0.025314743,0.12517232,0.03329313,0.08534405,0.0775532,0.042030834,0.0,0.0,0.0,0.009122916,0.025544483,0.05998685,-0.03125077,0.017558476,0.1789904,-0.0037557376,-0.06511303,-0.36684844,-0.014605028,0.102538586,-0.35788703,-0.09632653,-0.056731276,0.044063676,-0.022727076,0.074589655,-0.032441877,-0.005890352,-0.00452328,-0.04250003,0.035782505,-0.009030469,0.03766201,0.046544965,0.9107347,0.30149356,-0.9711599,0.8351419,0.43207648,-0.07128918,-0.7925683,-0.64483595,0.58477664,0.01782105,-0.66283333,-0.96314913,0.789463,0.1651076,-0.9913577,0.9448627,0.3609763,-0.07739418,-0.7145069,-0.6453874,0.76802236,0.20376119,-0.44296372,-0.9173388
2025-06-05 09:12:23.126,0.052837867,0.09205474,-0.023272712,0.05361279,0.03235698,-0.0066006677,0.0,0.0,0.0,0.009348168,0.030574905,0.07306676,-0.028797103,0.032278776,0.17818363,-0.013026556,-0.071644194,-0.33984405,0.021657908,0.09781826,-0.36362264,-0.11161361,0.069373906,-0.063998885,0.042000044,0.06843341,-0.05527062,-0.016960556,0.07604005,-0.03606494,0.13388054,-0.06379728,0.081731915,0.034441132,0.789463,0.1651076,-0.9913577,0.9448627,0.3609763,-0.07739418,-0.7145069,-0.6453874,0.76802236,0.20376119,-0.44296372,-0.9173388,0.8349039,0.31474367,-0.9833432,0.9294546,0.43361866,-0.14406797,-0.65522546,-0.58228,0.5718299,0.059511486,-0.6236881,-0.9579537
2025-06-05 09:12:23.146,-0.014718339,0.0152656725,-0.040884007,0.048771504,-0.029241346,-0.031336702,0.0,0.0,0.0,0.009760892,0.018540313,0.05961575,-0.043952208,0.04565079,0.17491603,-0.01465824,-0.0651857,-0.33402947,0.03401652,0.097688764,-0.3400874,-0.10801675,0.07238211,-0.028850663,0.035665665,0.06820824,-0.04583529,-0.0652476,-0.049432896,0.030129075,0.094076775,-0.030469544,0.05344942,0.0045760167,0.8349039,0.31474367,-0.9833432,0.9294546,0.43361866,-0.14406797,-0.65522546,-0.58228,0.5718299,0.059511486,-0.6236881,-0.9579537,0.7842169,0.30558586,-0.9698134,0.91946566,0.47728482,-0.3883105,-0.57249355,-0.59119254,0.14826432,0.06667294,-0.5390736,-0.94216216
2025-06-05 09:12:23.166,0.014586946,0.04665437,0.025112301,0.024642797,0.0033664766,-0.027553838,0.0,0.0,0.0,0.009965252,0.022140522,0.07557102,-0.04791086,0.0413183,0.18687499,-0.033841312,-0.0652396,-0.33197665,0.048514307,0.09265586,-0.3446739,-0.10760206,-0.055773616,0.017292231,-0.022451703,0.032720782,0.015201818,-0.046496715,0.019223223,0.096344694,-0.003975472,0.06842357,-0.029832186,-0.07520326,0.7842169,0.30558586,-0.9698134,0.91946566,0.47728482,-0.3883105,-0.57249355,-0.59119254,0.14826432,0.06667294,-0.5390736,-0.94216216,0.7414588,0.25725183,-0.9621792,0.89064044,0.48755246,-0.47047293,-0.5181824,-0.741785,-0.12852311,0.16909115,-0.38227916,-0.8996067
2025-06-05 09:12:23.186,0.05732611,0.059549496,-0.0152487885,0.035027035,0.028610807,0.032498106,0.0,0.0,0.0,0.009942901,0.032309864,0.07345384,-0.040296953,0.04894883,0.20803072,-0.047447957,-0.048103638,-0.32795265,0.037388045,0.10643437,-0.34667367,-0.12571435,0.032835055,-0.017974058,0.041742098,0.054770686,-0.04968808,-0.0064458875,0.06890322,-0.060538467,-0.05474322,-0.03538299,-0.0019060891,-0.019468829,0.7414588,0.25725183,-0.9621792,0.89064044,0.48755246,-0.47047293,-0.5181824,-0.741785,-0.12852311,0.16909115,-0.38227916,-0.8996067,0.8319696,0.27637494,-0.8164515,0.76444167,0.526084,-0.6476797,-0.47946322,-0.7895751,-0.6427448,0.21449862,-0.58528364,-0.9143144
2025-06-05 09:12:23.209,-0.0328718,-0.04259301,-0.0033382822,0.057392973,-0.030370822,-0.021076933,0.0,0.0,0.0,0.010355735,0.016368173,0.079977356,-0.049402714,0.04716371,0.215764,-0.06223776,-0.04483948,-0.3251119,0.0028911883,0.094721034,-0.32601905,-0.12490713,0.012815751,-0.007121395,0.008709295,0.07844991,-0.005773759,-0.008511391,0.077479064,-0.0039668586,-0.02781601,0.060708657,-0.033597402,0.06161965,0.8319696,0.27637494,-0.8164515,0.76444167,0.526084,-0.6476797,-0.47946322,-0.7895751,-0.6427448,0.21449862,-0.58528364,-0.9143144,0.9025423,0.010186648,-0.55082506,0.61922044,0.6690966,-0.6198676,-0.65835226,-0.82749796,-0.81796205,0.27795404,-0.64148617,-0.89974725
2025-06-05 09:12:23.225,0.04512833,-0.07445078,0.024266703,0.0884129,-0.03635695,0.0011387661,0.0,0.0,0.0,0.010643155,0.022324217,0.06610205,-0.03611577,0.0612999,0.22796825,-0.090993136,-0.053679828,-0.32355425,-0.0048560007,0.107145295,-0.33165258,-0.11289228,0.022160597,0.018638942,0.0336027,0.050065927,0.09447901,-0.044145055,-0.03101001,-0.05155881,0.032687727,0.04953687,0.010135216,0.06503337,0.9025423,0.010186648,-0.55082506,0.61922044,0.6690966,-0.6198676,-0.65835226,-0.82749796,-0.81796205,0.27795404,-0.64148617,-0.89974725,0.89549583,-0.094196826,-0.33390367,0.117161214,0.70981157,-0.673821,-0.77802277,-0.84395075,-0.82272434,0.5151583,-0.5648885,-0.82842064
2025-06-05 09:12:23.246,0.1109001,-0.11353795,-0.017317442,0.06250916,0.033804115,0.041007932,0.0,0.0,0.0,0.010592258,0.02713593,0.06567799,-0.019073851,0.041932587,0.24861425,-0.096076764,-0.051492114,-0.3316002,-0.0067000166,0.106542274,-0.32296324,-0.12415782,0.012163542,-0.0879604,0.05285766,0.0029127637,0.0070301527,-0.014815019,-0.012973562,0.013980375,0.008333465,0.010139908,-0.049405403,-0.014458356,0.89549583,-0.094196826,-0.33390367,0.117161214,0.70981157,-0.673821,-0.77802277,-0.84395075,-0.82272434,0.5151583,-0.5648885,-0.82842064,0.9058601,-0.05091671,-0.036122613,-0.5411313,0.63593376,-0.6398883,-0.9019898,-0.8043953,-0.91293406,0.6254529,-0.6162418,-0.85255057
2025-06-05 09:12:23.267,0.053117525,0.0057590907,-0.061861567,0.06450249,-0.027445683,0.04257947,0.0,0.0,0.0,0.010626135,0.015936397,0.061498787,-0.011627187,0.045087326,0.24955092,-0.104833186,-0.057495877,-0.32808682,-0.032849118,0.10332206,-0.31995293,-0.11435631,0.032765172,-0.025871325,0.04198337,0.021683527,0.016382795,0.032050427,-0.02104959,0.025352105,-0.019299004,-0.07938834,0.012044156,-0.07173551,0.9058601,-0.05091671,-0.036122613,-0.5411313,0.63593376,-0.6398883,-0.9019898,-0.8043953,-0.91293406,0.6254529,-0.6162418,-0.85255057,0.8688601,0.12798275,0.044854004,-0.89868706,0.48178133,-0.5633184,-0.9600563,-0.6974884,-0.94883066,0.73748064,-0.69954747,-0.8737194
2025-06-05 09:12:23.286,0.0567369,-0.020002022,-0.023608323,0.0020289514,0.015837165,0.035584453,0.0,0.0,0.0,0.010838646,0.021490965,0.05090015,0.010039214,0.041137855,0.23874125,-0.08889825,-0.07006489,-0.3231747,-0.03313724,0.099012,-0.3229303,-0.13040121,0.032496523,-0.04409433,0.07726639,-0.0824603,0.03631198,0.050764352,0.03721714,-0.0060636257,-0.033811882,-0.007395878,0.0071473583,-0.056240182,0.8688601,0.12798275,0.044854004,-0.89868706,0.48178133,-0.5633184,-0.9600563,-0.6974884,-0.94883066,0.73748064,-0.69954747,-0.8737194,0.80255526,0.15983783,-0.092544965,-0.9321221,0.34675798,-0.36999676,-0.96750736,-0.6883955,-0.9282536,0.7818099,-0.70998764,-0.8894243
2025-06-05 09:12:23.310,0.0726885,0.017654246,0.041939225,0.094690114,0.0009954631,-0.032587685,0.0,0.0,0.0,0.010741431,0.018617809,0.040473904,0.029837102,0.0366841,0.23227532,-0.07944243,-0.072339304,-0.32360926,-0.046522897,0.085997544,-0.31158778,-0.12920399,-0.015809942,-0.018953862,-0.028515251,0.031872395,-0.0868032,0.05247209,-0.028913768,0.042709455,-0.0721182,-0.012456607,-0.032896843,-0.04538444,0.80255526,0.15983783,-0.092544965,-0.9321221,0.34675798,-0.36999676,-0.96750736,-0.6883955,-0.9282536,0.7818099,-0.70998764,-0.8894243,0.7815216,-0.027395925,-0.09340045,-0.9117766,0.398432,0.01818713,-0.96769637,-0.8310002,-0.84782547,0.81077164,-0.6135975,-0.80660254
2025-06-05 09:12:23.326,0.016503055,0.0017748795,-0.023243146,0.03571634,-0.010021897,0.009542838,0.0,0.0,0.0,0.010416016,0.0044036745,0.040451013,0.04166859,0.027083011,0.23142603,-0.06426971,-0.08033376,-0.32944262,-0.06411163,0.08868937,-0.31497437,-0.13869919,0.04604403,-0.025160909,0.009062563,0.039106738,-0.065040156,0.069538966,-0.0118029155,-0.06699314,-0.0018514158,-0.018179357,0.033337284,0.03647158,0.7815216,-0.027395925,-0.09340045,-0.9117766,0.398432,0.01818713,-0.96769637,-0.8310002,-0.84782547,0.81077164,-0.6135975,-0.80660254,0.7784909,0.10786225,0.30355102,-0.9471638,0.24066038,-0.17318442,-0.9664469,-0.7931856,-0.8341831,0.8267718,-0.7927849,-0.8490664
2025-06-05 09:12:23.347,0.06340584,-0.0065512145,-0.0002591014,0.030225346,0.015847437,-0.031239439,0.0,0.0,0.0,0.010925124,0.011129822,0.012820069,0.041427705,0.035316665,0.19962184,-0.033208575,-0.06908411,-0.34157148,-0.06052422,0.09586493,-0.33433896,-0.1301234,-0.07716168,-0.009289581,-0.026701687,0.03707013,0.016997637,0.11620363,-0.00886068,-0.040573787,-0.027153205,-0.072019525,0.033253923,0.061052084,0.7784909,0.10786225,0.30355102,-0.9471638,0.24066038,-0.17318442,-0.9664469,-0.7931856,-0.8341831,0.8267718,-0.7927849,-0.8490664,0.6626235,0.11202898,0.1686097,-0.95512706,0.38930532,-0.21225533,-0.97217876,-0.789065,-0.860711,0.86350477,-0.7277356,-0.75463134
2025-06-05 09:12:23.367,0.058437258,-0.030704008,0.007255583,0.018271599,0.037819985,-0.002108816,0.0,0.0,0.0,0.011245001,0.014818198,0.012902813,0.06306737,0.025580073,0.19258358,-0.011136606,-0.083655715,-0.33589765,-0.062494032,0.08078623,-0.3378466,-0.14377348,-0.024206571,0.04891878,0.004022292,0.019009218,-0.030232776,0.099403426,0.039433446,0.008779982,-0.033708654,0.014597513,-0.07142738,0.063660346,0.6626235,0.11202898,0.1686097,-0.95512706,0.38930532,-0.21225533,-0.97217876,-0.789065,-0.860711,0.86350477,-0.7277356,-0.75463134,0.6952274,0.093606584,0.30990973,-0.9428611,0.33142194,-0.24407415,-0.9751412,-0.79496914,-0.90213096,0.8405014,-0.79079515,-0.8163396
2025-06-05 09:12:23.387,0.053899024,0.024011672,0.00039006813,-0.010500482,0.0032697613,-0.047058396,0.0,0.0,0.0,0.011435235,0.010798044,0.0056548333,0.06647571,0.016317116,0.18989548,0.0011279457,-0.08996753,-0.34714425,-0.06972475,0.09297028,-0.33272073,-0.14987285,-0.013349524,0.04683213,0.077855505,-0.057941053,-0.034376167,-0.037598204,-0.021606736,-0.07290746,0.055188186,-0.07234587,-0.033506043,0.04971683,0.6952274,0.093606584,0.30990973,-0.9428611,0.33142194,-0.24407415,-0.9751412,-0.79496914,-0.90213096,0.8405014,-0.79079515,-0.8163396,0.64480793,0.13832588,0.33115426,-0.95973283,0.38590455,-0.30079457,-0.9740805,-0.75919354,-0.90029114,0.87017643,-0.79665303,-0.7677991
2025-06-05 09:12:23.408,-0.0034552708,0.017125824,0.047043756,-0.0047771577,-0.008023727,0.035360124,0.0,0.0,0.0,0.011492699,-0.0055614947,0.0010573138,0.071209304,0.009427425,0.17423189,0.012951288,-0.091536775,-0.35167173,-0.081882946,0.08800279,-0.33247733,-0.14878516,-0.066784784,-0.024217336,0.017857742,-0.04185214,-0.03991405,-0.048391365,-0.027872631,0.036198735,-0.03909307,-0.020778289,-0.071346566,0.022986881,0.64480793,0.13832588,0.33115426,-0.95973283,0.38590455,-0.30079457,-0.9740805,-0.75919354,-0.90029114,0.87017643,-0.79665303,-0.7677991,0.64380217,0.029065743,0.4310498,-0.96435255,0.45786116,-0.2082409,-0.9736988,-0.7984444,-0.91326606,0.85770005,-0.73764217,-0.73668694
2025-06-05 09:12:23.427,0.058078106,-0.0474369,0.009065094,-0.006844008,0.030146966,-0.0049443487,0.0,0.0,0.0,0.011343686,0.006112596,-0.007947831,0.083103366,0.013745856,0.16935167,0.025466286,-0.09700383,-0.3369566,-0.085023664,0.08107393,-0.34378618,-0.13860507,-0.051705413,0.0153465085,0.009686052,-0.02067003,-0.056477286,-0.020348612,0.060766447,-0.03202102,-0.004041502,0.05066735,-0.058378063,0.013117137,0.64380217,0.029065743,0.4310498,-0.96435255,0.45786116,-0.2082409,-0.9736988,-0.7984444,-0.91326606,0.85770005,-0.73764217,-0.73668694,0.6293421,0.08181165,0.5465788,-0.96139574,0.40251702,-0.3714636,-0.9774946,-0.7885688,-0.9364481,0.8705983,-0.8281754,-0.76643515
2025-06-05 09:12:23.448,0.017722858,0.01189462,0.026537076,-0.0003916272,0.007454034,0.013691016,0.0,0.0,0.0,0.011486053,-0.0054700584,-0.010803789,0.09283952,-0.0003649039,0.15579845,0.028958054,-0.10954384,-0.34959757,-0.08777732,0.092219815,-0.34451413,-0.15161611,-0.030648949,0.06466892,-0.032839656,-0.080286555,-0.075151585,0.058992777,0.05518146,0.043277856,-0.0046042134,0.020926325,0.020997608,-0.072485745,0.6293421,0.08181165,0.5465788,-0.96139574,0.40251702,-0.3714636,-0.9774946,-0.7885688,-0.9364481,0.8705983,-0.8281754,-0.76643515,0.5652709,0.17030965,0.41295147,-0.96250314,0.5044836,-0.3627143,-0.98624855,-0.82806486,-0.95644134,0.8844765,-0.8137901,-0.74784064
2025-06-05 09:12:23.468,-0.025958639,-0.0033802516,0.023331156,0.016547926,0.013981331,0.034729227,0.0,0.0,0.0,0.011478638,-0.0005258447,-0.012517307,0.10317512,0.011999917,0.14963065,0.029068463,-0.1006659,-0.35088965,-0.10560979,0.09325598,-0.3449584,-0.15078078,-0.021065518,-0.004814445,-0.019292552,-0.00596174,0.022496728,0.04261645,0.009666029,0.05584488,0.049874775,-0.03728082,0.022439098,-0.029914532,0.5652709,0.17030965,0.41295147,-0.96250314,0.5044836,-0.3627143,-0.98624855,-0.82806486,-0.95644134,0.8844765,-0.8137901,-0.74784064,0.6100995,0.21276726,0.14649165,-0.95393515,0.45276308,-0.3045022,-0.98645854,-0.83160484,-0.92396015,0.8659803,-0.7729368,-0.7729124
2025-06-05 09:12:23.489,-0.052022047,-0.032092687,-0.05846453,0.0003260969,-0.051018707,-0.0038031323,0.0,0.0,0.0,0.011454544,0.00470589,-0.011126484,0.10752131,0.00990342,0.15672809,0.03299612,-0.10912987,-0.3577991,-0.09208452,0.09110641,-0.34748685,-0.16228588,-0.055916782,0.043549247,0.002619399,-0.021232937,0.01765422,0.009138334,0.052109845,-0.08025029,0.051690474,0.033061426,-0.04791846,-0.018913433,0.6100995,0.21276726,0.14649165,-0.95393515,0.45276308,-0.3045022,-0.98645854,-0.83160484,-0.92396015,0.8659803,-0.7729368,-0.7729124,0.6859921,0.33932513,-0.09427551,-0.9140879,0.13537689,-0.43070582,-0.983386,-0.6815164,-0.8934196,0.81292534,-0.85323143,-0.89984024
2025-06-05 09:12:23.509,-0.07284475,-0.022798084,0.05939683,0.06614295,-0.032401294,-0.029890394,0.0,0.0,0.0,0.011616897,0.0025841102,-0.0054480084,0.0952974,-0.006300759,0.14777979,0.029791964,-0.10993591,-0.3645161,-0.091951944,0.08119726,-0.35772792,-0.14813139,-0.01807645,0.08659895,0.0035512093,-0.02045316,0.0021778424,0.008498986,0.028812762,0.021049604,-0.041000932,-0.07245914,0.011933405,0.012752638,0.6859921,0.33932513,-0.09427551,-0.9140879,0.13537689,-0.43070582,-0.983386,-0.6815164,-0.8934196,0.81292534,-0.85323143,-0.89984024,0.6871207,0.047272906,-0.46677044,-0.7501069,0.37134033,-0.14360423,-0.97426134,-0.81645167,-0.7399241,0.8515928,-0.74827635,-0.8766337
2025-06-05 09:12:23.528,-0.058161348,-0.032091256,-0.079114646,-0.0020686993,0.041046336,-0.020843295,0.0,0.0,0.0,0.010997336,0.006664096,0.0013958745,0.08060303,-0.004406963,0.14442235,0.038565274,-0.107805625,-0.3607593,-0.09524163,0.08128101,-0.36742458,-0.15699612,-0.062313143,0.06603566,0.035119012,-0.04871159,0.0063050794,-0.05818501,0.015271204,0.0126113705,-0.0012553586,-0.027615942,-0.02034993,0.035034116,0.6871207,0.047272906,-0.46677044,-0.7501069,0.37134033,-0.14360423,-0.97426134,-0.81645167,-0.7399241,0.8515928,-0.74827635,-0.8766337,0.8385702,0.29856944,-0.19856746,-0.7306747,0.1524873,-0.5061404,-0.9545174,-0.685446,-0.77566886,0.69706357,-0.8710312,-0.9633866
2025-06-05 09:12:23.549,-0.090477906,-0.07012994,-0.0026032485,0.02077149,-0.012378065,-0.0074296654,0.0,0.0,0.0,0.011137385,0.000432904,0.0038622662,0.084703974,0.0029067232,0.14758693,0.029961985,-0.12051392,-0.36845985,-0.101725735,0.08750724,-0.3768496,-0.16223052,0.01842388,-0.05655086,-0.061898205,-0.05477006,0.05756773,-0.012453052,-0.03228842,-0.06633249,-0.045442946,0.018243454,-0.00055738905,0.05821278,0.8385702,0.29856944,-0.19856746,-0.7306747,0.1524873,-0.5061404,-0.9545174,-0.685446,-0.77566886,0.69706357,-0.8710312,-0.9633866,0.74543655,0.109460846,-0.5103657,-0.61445963,0.26540247,-0.33899534,-0.96409637,-0.73105085,-0.75899196,0.7871325,-0.77217275,-0.90464836
2025-06-05 09:12:23.568,-0.041253258,0.018484265,-0.046457116,0.023488801,-0.009874611,-0.032620236,0.0,0.0,0.0,0.010791606,0.006585818,0.008105563,0.063103475,0.006961692,0.15089001,0.020773966,-0.11257223,-0.36032784,-0.10682065,0.080391526,-0.38499266,-0.15341857,-0.030394997,0.012306656,0.01451185,-0.013303613,0.029568657,-0.00970916,0.059597287,0.00464665,0.043208785,0.0108998995,-0.07025924,-0.027512914,0.74543655,0.109460846,-0.5103657,-0.61445963,0.26540247,-0.33899534,-0.96409637,-0.73105085,-0.75899196,0.7871325,-0.77217275,-0.90464836,0.8616352,0.21969531,-0.52604276,-0.44185573,0.25784928,-0.36852023,-0.9564632,-0.7659419,-0.71157855,0.6550492,-0.8171131,-0.954576
2025-06-05 09:12:23.592,-0.07606468,0.013494817,0.05197367,0.06349086,0.057131186,-0.031375203,0.0,0.0,0.0,0.010594423,0.0096152,0.013456615,0.051018603,0.0023631693,0.14820942,0.011961921,-0.111222684,-0.35380822,-0.10878677,0.09136216,-0.37933716,-0.16002138,0.030381517,0.05039201,-0.09833396,-0.037288234,-0.042910505,-0.018200392,-0.008603998,-0.04752363,0.020453898,0.009573023,-0.040145114,0.036799163,0.8616352,0.21969531,-0.52604276,-0.44185573,0.25784928,-0.36852023,-0.9564632,-0.7659419,-0.71157855,0.6550492,-0.8171131,-0.954576,0.8365548,-0.06502555,-0.65338826,-0.19152078,0.41931826,-0.14380494,-0.9569931,-0.866399,-0.5792322,0.7469245,-0.72671115,-0.91044503
2025-06-05 09:12:23.608,-0.0873362,-0.024066517,-0.07215268,0.0077383765,-0.0041921563,-0.021980653,0.0,0.0,0.0,0.010568896,0.011688579,0.02855168,0.032935046,0.015063979,0.1285767,0.010368325,-0.11780779,-0.3610717,-0.111599036,0.09274471,-0.39668953,-0.15693073,-0.035100125,0.015310168,-0.059469033,0.05619175,-0.04668189,-0.02327806,-0.02649357,-0.032585185,0.0044181747,0.05218201,-0.06704128,-0.06199227,0.8365548,-0.06502555,-0.65338826,-0.19152078,0.41931826,-0.14380494,-0.9569931,-0.866399,-0.5792322,0.7469245,-0.72671115,-0.91044503,0.9149162,0.23467429,-0.4042675,-0.30736354,0.39880443,-0.50041366,-0.9477943,-0.79688996,-0.7516391,0.5607102,-0.8213477,-0.95292073
2025-06-05 09:12:23.629,-0.07307319,-0.022485785,0.03403115,0.059484024,0.0019951835,-0.03946719,0.0,0.0,0.0,0.011312396,0.0019580473,0.015832338,0.020537367,0.0054812194,0.1361361,0.00060463604,-0.098557435,-0.37953538,-0.12260415,0.10008316,-0.3862577,-0.14693713,0.07120014,0.06571499,-0.029932717,-0.039052784,0.012624218,-0.084113106,0.0084639955,-0.04558556,0.023868132,0.009471999,-0.05419234,0.07151532,0.9149162,0.23467429,-0.4042675,-0.30736354,0.39880443,-0.50041366,-0.9477943,-0.79688996,-0.7516391,0.5607102,-0.8213477,-0.95292073,0.8360998,-0.095844746,-0.5655695,-0.20739228,0.47962478,-0.3397993,-0.94871557,-0.8341935,-0.7052709,0.72385275,-0.71140087,-0.9009768
2025-06-05 09:12:23.649,0.015374074,0.007152588,-0.0015325435,0.021697048,0.053314388,-0.010681414,0.0,0.0,0.0,0.011532962,0.017224923,0.015671752,0.024152372,0.005499639,0.13643016,-0.0072524655,-0.103516266,-0.37553197,-0.1182067,0.08860368,-0.38768363,-0.16554888,-0.0475044,-0.0030066285,0.0564197,-0.017847817,0.054038983,0.0004678979,-0.02111542,0.008130363,-0.050238244,0.06405883,0.052714255,-0.039701078,0.8360998,-0.095844746,-0.5655695,-0.20739228,0.47962478,-0.3397993,-0.94871557,-0.8341935,-0.7052709,0.72385275,-0.71140087,-0.9009768,0.87983173,0.084743306,-0.3846706,-0.53148174,0.5389948,-0.5783005,-0.93006766,-0.8251311,-0.7099535,0.69949925,-0.6794729,-0.8974489
2025-06-05 09:12:23.668,-0.010113243,0.027196174,-0.050562873,0.0050018644,0.027779404,-0.020167483,0.0,0.0,0.0,0.011963806,0.0066995663,0.023129607,0.025218498,-0.0024117304,0.15335323,-0.0034332783,-0.10084514,-0.37934074,-0.12708949,0.10138906,-0.37817755,-0.15403165,-0.00089917233,0.0042904895,0.0065145353,0.040521853,-0.031506684,-0.008194464,0.067096636,-0.07486744,0.0029312237,0.022209322,-0.046947885,-0.042843428,0.87983173,0.084743306,-0.3846706,-0.53148174,0.5389948,-0.5783005,-0.93006766,-0.8251311,-0.7099535,0.69949925,-0.6794729,-0.8974489,0.86934954,0.17338815,-0.44351056,-0.5408342,0.2995307,-0.42165387,-0.9600787,-0.77745837,-0.8365301,0.6687372,-0.76052266,-0.93416655
2025-06-05 09:12:23.692,-0.061233923,0.031264227,-0.014356025,0.094018,-0.021859292,0.023861373,0.0,0.0,0.0,0.012611382,-0.0029731495,0.015603301,0.013680663,0.0102471085,0.14443779,-0.007246584,-0.10675748,-0.3789264,-0.12859577,0.10512363,-0.38290203,-0.16115083,0.0073634824,-0.028208861,-0.019196512,-0.0050070127,0.0065602935,-0.026770566,-0.047905985,-0.017247697,0.0021804904,0.07720817,-0.010988285,0.0074072313,0.86934954,0.17338815,-0.44351056,-0.5408342,0.2995307,-0.42165387,-0.9600787,-0.77745837,-0.8365301,0.6687372,-0.76052266,-0.93416655,0.8535941,0.013609374,-0.41230577,-0.558606,0.37151068,-0.30919555,-0.9515065,-0.79429555,-0.7155552,0.71556324,-0.7252666,-0.896975
2025-06-05 09:12:23.709,0.022924388,-0.037381627,-0.04770621,0.07678771,-0.023705505,0.010873456,0.0,0.0,0.0,0.012651946,0.014163127,0.019364988,0.019444264,0.011232396,0.14257216,-0.020852389,-0.1103039,-0.38163894,-0.12736638,0.102609724,-0.39088225,-0.15655243,-0.037177317,-0.056399457,0.032812238,-0.07123343,-0.044905644,0.071004234,-0.037482828,0.033077855,-0.019055521,-0.06790555,0.0685684,-0.07262257,0.8535941,0.013609374,-0.41230577,-0.558606,0.37151068,-0.30919555,-0.9515065,-0.79429555,-0.7155552,0.71556324,-0.7252666,-0.896975,0.85638213,0.18524462,-0.33541146,-0.7353188,0.31264883,-0.44661972,-0.95997304,-0.75051165,-0.78369606,0.72202635,-0.7691457,-0.9204298
2025-06-05 09:12:23.729,0.03917996,0.045457512,0.038593706,0.07270469,-0.013602676,-0.02738332,0.0,0.0,0.0,0.012706892,0.014842627,0.008299412,0.013650426,-0.0038028362,0.14991786,-0.017066438,-0.109766334,-0.3695416,-0.13229176,0.094778314,-0.3895644,-0.17104761,-0.071270294,0.013663259,-0.070505776,0.030426467,-0.0096062245,0.019615695,-0.029312257,-0.034102004,-0.00903619,-0.062739186,-0.057310916,0.059634097,0.85638213,0.18524462,-0.33541146,-0.7353188,0.31264883,-0.44661972,-0.95997304,-0.75051165,-0.78369606,0.72202635,-0.7691457,-0.9204298,0.8053036,-0.07203501,-0.50388384,-0.63353205,0.28330803,-0.083158,-0.95773715,-0.8263736,-0.6164593,0.7841424,-0.65302205,-0.8634094
2025-06-05 09:12:23.750,-0.040268548,0.027995506,-0.06805172,0.043240525,0.04397823,0.012243368,0.0,0.0,0.0,0.012561583,0.005785667,0.01748351,0.01525152,0.004004973,0.14253417,-0.0012821744,-0.110705204,-0.3745708,-0.1361254,0.107994474,-0.37715685,-0.17188863,0.0040346836,-0.046093848,-0.009547526,0.00553947,0.018919822,0.027609343,0.06451293,0.020868476,0.0060969596,0.05082242,-0.004433964,0.008513937,0.8053036,-0.07203501,-0.50388384,-0.63353205,0.28330803,-0.083158,-0.95773715,-0.8263736,-0.6164593,0.7841424,-0.65302205,-0.8634094,0.8750584,0.1609264,-0.23107103,-0.63092446,0.20759562,-0.39715633,-0.94310987,-0.7511788,-0.62733114,0.66748947,-0.82876617,-0.95006156
2025-06-05 09:12:23.769,-0.008929508,0.025957748,0.06594016,0.079941116,-0.035406064,-0.035349313,0.0,0.0,0.0,0.013029829,0.011899851,0.009318743,0.017929133,0.005781975,0.13767828,-0.0098224105,-0.09723142,-0.37547013,-0.12743887,0.10448059,-0.37597394,-0.1671394,0.06316871,-0.04208192,-0.052532285,0.03149285,-0.07653696,0.065748446,-0.008566814,0.060702544,-0.048870433,-0.0148198875,0.002842289,0.015490673,0.8750584,0.1609264,-0.23107103,-0.63092446,0.20759562,-0.39715633,-0.94310987,-0.7511788,-0.62733114,0.66748947,-0.82876617,-0.95006156,0.7686989,-0.19504263,-0.41167724,-0.60339916,0.4193521,-0.16946368,-0.95884615,-0.8461592,-0.6735576,0.8319904,-0.64513,-0.84065056
2025-06-05 09:12:23.792,0.056348354,0.046777587,-0.01831139,0.024235852,0.057976194,-0.010439917,0.0,0.0,0.0,0.012889335,0.013106131,0.013212924,0.02867503,-0.0053539905,0.15165281,-0.0005133726,-0.108817436,-0.38974178,-0.11956936,0.109668516,-0.3794519,-0.1734913,-0.055751905,0.023596708,0.019810526,0.012854758,0.062573805,-0.013463035,-0.053013004,0.063689075,0.05192782,-0.06397344,-0.030722873,-0.04333972,0.7686989,-0.19504263,-0.41167724,-0.60339916,0.4193521,-0.16946368,-0.95884615,-0.8461592,-0.6735576,0.8319904,-0.64513,-0.84065056,0.8369337,0.074588634,-0.23410383,-0.7981023,0.33605945,-0.4175039,-0.9443312,-0.787773,-0.584153,0.7705168,-0.69777936,-0.88447607
2025-06-05 09:12:23.809,-0.007380848,0.026284508,-0.024097424,0.019051518,-0.018426554,0.011377544,0.0,0.0,0.0,0.013379936,-0.004846959,-0.005402133,0.017565278,0.0018159616,0.14990535,0.0011125974,-0.10688497,-0.39378133,-0.1322131,0.109098904,-0.3791117,-0.16562226,0.0128730675,0.052773576,-0.05666856,0.0365953,0.0025003734,0.049738303,0.028846554,0.03447592,0.04338069,0.07435243,-0.038020212,0.062864706,0.8369337,0.074588634,-0.23410383,-0.7981023,0.33605945,-0.4175039,-0.9443312,-0.787773,-0.584153,0.7705168,-0.69777936,-0.88447607,0.80467033,-0.0019335722,-0.26044396,-0.69692683,0.20968162,-0.2754767,-0.95676476,-0.7756013,-0.76017666,0.7735096,-0.75826156,-0.91924864
2025-06-05 09:12:23.830,0.023127697,0.026179062,0.00051424,0.09203665,-0.0058533056,-0.007091626,0.0,0.0,0.0,0.013909736,-0.004443451,0.0031610974,0.025803383,-0.005113028,0.14125259,0.01322394,-0.10705088,-0.4001402,-0.124051996,0.101113714,-0.38348162,-0.16311802,-0.07152465,-0.0038019496,0.0019284182,0.0054530464,-0.0034842438,0.008263432,-0.0060709366,-0.02526933,0.051301647,0.03691055,0.05898058,0.026222168,0.80467033,-0.0019335722,-0.26044396,-0.69692683,0.20968162,-0.2754767,-0.95676476,-0.7756013,-0.76017666,0.7735096,-0.75826156,-0.91924864,0.7984683,-0.04146808,-0.26728404,-0.71982014,0.41654193,-0.32706946,-0.9499191,-0.81520545,-0.6161196,0.81174254,-0.7246209,-0.8538227
2025-06-05 09:12:23.850,-0.028268771,-0.014565797,0.022852717,0.060033415,-0.02391138,0.03481794,0.0,0.0,0.0,0.013855272,-0.001705699,-0.0060407016,0.023014156,0.0037643835,0.13638587,-0.0022697365,-0.1024398,-0.3952009,-0.12084439,0.09642244,-0.38587096,-0.15934643,0.042399004,-0.08157382,-0.05017414,0.035558462,0.039597046,0.019154394,-0.051468704,-0.037826676,0.006779569,-0.024374401,-0.051246975,-0.010211139,0.7984683,-0.04146808,-0.26728404,-0.71982014,0.41654193,-0.32706946,-0.9499191,-0.81520545,-0.6161196,0.81174254,-0.7246209,-0.8538227,0.7636143,-0.05081688,-0.24109292,-0.80982876,0.2245474,-0.23535126,-0.9568728,-0.8015022,-0.6302323,0.831881,-0.65810895,-0.84883267
2025-06-05 09:12:23.870,0.014358715,-0.03774157,0.022149036,0.04435326,-0.012833005,0.031910095,0.0,0.0,0.0,0.01396913,0.005194785,-0.01782417,0.03767959,-0.009654907,0.14596403,0.002479603,-0.09659161,-0.39788815,-0.1258998,0.10206016,-0.37583235,-0.1692047,-0.040339533,-0.020214532,0.0015952075,-0.075972505,-0.016977977,0.0036015408,0.042859163,-0.0049588215,0.019149613,-0.06466546,0.018089745,-0.035304934,0.7636143,-0.05081688,-0.24109292,-0.80982876,0.2245474,-0.23535126,-0.9568728,-0.8015022,-0.6302323,0.831881,-0.65810895,-0.84883267,0.7607699,-0.04075558,-0.260478,-0.7949365,0.23552318,-0.2584278,-0.9537279,-0.7720431,-0.54061854,0.8391462,-0.7470937,-0.8960379
2025-06-05 09:12:23.892,0.04384345,-0.030165397,-0.02339548,0.018928383,-0.0012421748,0.02088458,0.0,0.0,0.0,0.014314277,0.0058175186,-0.018169824,0.031969797,-0.007531558,0.12930717,0.015241522,-0.10703096,-0.39764196,-0.11888534,0.11138522,-0.3739821,-0.17004846,0.034987174,-0.0175624,0.06317845,-0.028506406,0.0009853635,0.004492431,0.063760936,0.026791047,0.0014016737,-0.06832822,0.021478761,0.009616586,0.7607699,-0.04075558,-0.260478,-0.7949365,0.23552318,-0.2584278,-0.9537279,-0.7720431,-0.54061854,0.8391462,-0.7470937,-0.8960379,0.7471789,0.053965446,-0.19337897,-0.7499635,0.19487317,-0.45326972,-0.9451497,-0.71676964,-0.68192923,0.82377315,-0.8050376,-0.9319402
2025-06-05 09:12:23.910,-0.02490301,0.008087021,-0.011916091,0.086551584,0.005544167,0.0035588474,0.0,0.0,0.0,0.014463076,-6.946014e-05,-0.02190422,0.03390859,-0.006326403,0.13618074,0.0117486045,-0.09966549,-0.3990339,-0.1170592,0.093769945,-0.389046,-0.16479045,-0.061963826,0.042535342,0.04892116,-0.0018796378,0.036228422,0.021011455,0.020018013,0.03157398,-0.038700216,0.029766774,-0.06395396,-0.05788791,0.7471789,0.053965446,-0.19337897,-0.7499635,0.19487317,-0.45326972,-0.9451497,-0.71676964,-0.68192923,0.82377315,-0.8050376,-0.9319402,0.7567594,0.02479023,-0.27976298,-0.7398106,0.30302426,-0.39306232,-0.95289665,-0.73602605,-0.73910356,0.8075677,-0.7378158,-0.89195514
2025-06-05 09:12:23.930,0.023592226,-0.0072769336,0.016697532,0.0143112,-0.012832218,0.027263133,0.0,0.0,0.0,0.01393391,0.0034163157,-0.005061525,0.041222025,-0.0008216363,0.13414803,0.0036205633,-0.10603308,-0.39399832,-0.12439983,0.098484315,-0.38839996,-0.1643789,0.050957948,0.056147862,0.034923002,0.0440688,0.070574395,-0.0035268716,-0.034273647,0.050424434,-0.021636968,0.057236016,0.049999103,0.030232783,0.7567594,0.02479023,-0.27976298,-0.7398106,0.30302426,-0.39306232,-0.95289665,-0.73602605,-0.73910356,0.8075677,-0.7378158,-0.89195514,0.7742107,-0.027065594,-0.17333874,-0.7647705,0.40699527,-0.3784283,-0.949914,-0.8036046,-0.7524873,0.81855166,-0.72304994,-0.87297547
2025-06-05 09:12:23.953,0.0332036,0.027527107,-0.002024025,0.024623241,0.027471315,0.028257165,0.0,0.0,0.0,0.013428536,0.007366888,-0.012337014,0.035712816,0.004665245,0.12095637,0.009044921,-0.10314451,-0.39056814,-0.11766859,0.09209557,-0.38725576,-0.16895325,-0.01175929,-0.04917503,0.009657764,-0.030109538,0.008315883,-0.06263554,-0.07201028,-0.07078151,0.02266827,0.06337252,0.029148078,0.031967867,0.7742107,-0.027065594,-0.17333874,-0.7647705,0.40699527,-0.3784283,-0.949914,-0.8036046,-0.7524873,0.81855166,-0.72304994,-0.87297547,0.7751307,0.050320275,-0.0061216587,-0.8703049,0.35050038,-0.40817702,-0.9528291,-0.76592743,-0.7895856,0.8165478,-0.730255,-0.84378546
2025-06-05 09:12:23.971,-0.0017589297,-0.007895993,-0.034678616,0.08061641,-0.007639166,0.031199995,0.0,0.0,0.0,0.013444457,-0.0039517377,-0.008312939,0.057773363,-0.009184658,0.13325259,0.015498648,-0.09791398,-0.39869338,-0.12061131,0.10475526,-0.37340295,-0.17261076,0.0506822,-0.04161737,0.024150074,0.04299195,-0.019881664,0.037318937,-0.041381557,-0.036131736,-0.05057184,0.001860618,0.062709115,-0.061186075,0.7751307,0.050320275,-0.0061216587,-0.8703049,0.35050038,-0.40817702,-0.9528291,-0.76592743,-0.7895856,0.8165478,-0.730255,-0.84378546,0.7122233,0.14014143,0.13823551,-0.9252197,0.30000857,-0.3387693,-0.97193223,-0.75722,-0.8811754,0.84882414,-0.77635026,-0.8288895
2025-06-05 09:12:23.991,0.030365555,-0.0057193767,0.0070160963,0.051066846,-0.024732118,0.038487792,0.0,0.0,0.0,0.013430985,-0.008635772,-0.013223432,0.046349026,-0.011053529,0.12564902,0.012029237,-0.111689165,-0.39241517,-0.12535825,0.093330584,-0.37802845,-0.18663391,-0.057357986,-0.0261703,0.068758585,-0.011515327,-0.022475531,0.055436432,0.039603103,-0.05626916,-0.044961248,-0.07314008,-0.011740694,0.057139657,0.7122233,0.14014143,0.13823551,-0.9252197,0.30000857,-0.3387693,-0.97193223,-0.75722,-0.8811754,0.84882414,-0.77635026,-0.8288895,0.6566371,0.08306018,0.19391958,-0.9269452,0.28625444,-0.26086256,-0.9718617,-0.76336217,-0.85305274,0.8592541,-0.78595173,-0.7929991
2025-06-05 09:12:24.011,0.068789355,-0.046213645,-0.02365974,-0.0030516968,0.018890085,0.03133429,0.0,0.0,0.0,0.013067406,-0.0076890206,-0.010401307,0.052852705,-0.011377137,0.12383721,0.024034824,-0.1011373,-0.38191873,-0.1188718,0.0984988,-0.37775755,-0.18087429,0.0625072,0.071022734,0.036008764,-0.025068047,-0.0039918646,-0.037418548,-0.042972166,-0.036822565,-0.060920138,-0.0325534,0.056264717,0.028820867,0.6566371,0.08306018,0.19391958,-0.9269452,0.28625444,-0.26086256,-0.9718617,-0.76336217,-0.85305274,0.8592541,-0.78595173,-0.7929991,0.6000552,0.17182642,0.45923164,-0.9493105,0.2936325,-0.3858635,-0.97342986,-0.7380818,-0.91965985,0.88508725,-0.8545421,-0.7875654
2025-06-05 09:12:24.031,0.0048300535,-0.022752296,0.028369393,-0.0043233074,-0.0408893,-0.014095011,0.0,0.0,0.0,0.0126315765,-0.007891841,-0.00836619,0.072288275,-0.008933762,0.12399912,0.024255613,-0.1021632,-0.37230036,-0.13360764,0.097967625,-0.3907551,-0.18142922,-0.06620743,0.0019081162,0.040151455,-0.019022476,-0.06930962,-0.045790352,-0.028315378,0.031244315,-0.041712716,-0.050092775,-0.04701213,-0.024675917,0.6000552,0.17182642,0.45923164,-0.9493105,0.2936325,-0.3858635,-0.97342986,-0.7380818,-0.91965985,0.88508725,-0.8545421,-0.7875654,0.54395044,0.12712249,0.42799443,-0.96326613,0.4279797,-0.26845825,-0.9824221,-0.7976188,-0.9332982,0.8847108,-0.76981044,-0.63626826
2025-06-05 09:12:24.050,0.008578179,0.029902494,0.0022940692,0.08375884,0.006026039,0.027209487,0.0,0.0,0.0,0.011933436,0.010638209,-0.0072422842,0.09752039,-0.008945808,0.1261094,0.04020753,-0.10715861,-0.38688713,-0.1174899,0.08935848,-0.3733019,-0.16148287,0.06560046,0.079419754,0.081410326,0.026961973,0.035510592,0.079305634,-0.027167974,0.058816414,-0.039381772,-0.022202155,0.04734054,-0.0530894,0.54395044,0.12712249,0.42799443,-0.96326613,0.4279797,-0.26845825,-0.9824221,-0.7976188,-0.9332982,0.8847108,-0.76981044,-0.63626826,0.5656118,0.2644789,0.5066688,-0.9758349,0.4584994,-0.32997087,-0.98717296,-0.82319605,-0.94927406,0.8806772,-0.81268764,-0.673249
2025-06-05 09:12:24.071,-0.0034869318,-0.02811352,0.034084503,0.009393247,-0.029875252,0.0347194,0.0,0.0,0.0,0.011639094,0.0004459154,-0.011291982,0.10618981,-0.0025510353,0.123816036,0.034842364,-0.12189232,-0.37380463,-0.1203957,0.091637135,-0.3897828,-0.16845089,-0.0367349,0.03841368,0.028774677,0.056726266,-0.046478774,0.07502726,-0.06590704,0.056583848,0.02176196,0.018134205,-0.00716316,-0.031528935,0.5656118,0.2644789,0.5066688,-0.9758349,0.4584994,-0.32997087,-0.98717296,-0.82319605,-0.94927406,0.8806772,-0.81268764,-0.673249,0.55107266,0.24273545,0.305087,-0.96810776,0.47116682,-0.22326258,-0.9898458,-0.8582446,-0.9427354,0.87356323,-0.7559899,-0.6153402
2025-06-05 09:12:24.092,0.01898433,-0.027053565,-0.06169987,0.071762465,-0.059918564,-0.002788277,0.0,0.0,0.0,0.011613222,0.0012805802,0.0069794245,0.1113766,-0.0053860196,0.1451164,0.04886499,-0.11757132,-0.3694831,-0.12134814,0.086470775,-0.3794466,-0.15584387,-0.003889519,0.03864701,0.018410407,0.050305296,0.027773675,-0.055465557,-0.056681715,0.015271995,0.041165628,0.071724735,0.011190721,0.018981364,0.55107266,0.24273545,0.305087,-0.96810776,0.47116682,-0.22326258,-0.9898458,-0.8582446,-0.9427354,0.87356323,-0.7559899,-0.6153402,0.6713636,0.2906641,0.25825882,-0.95759606,0.2809118,-0.4712235,-0.9866155,-0.70184624,-0.92935354,0.8454772,-0.85305804,-0.80271614
2025-06-05 09:12:24.111,0.03725791,-0.0055312775,0.009537898,0.02125634,-0.059488345,0.017411882,0.0,0.0,0.0,0.011925137,0.008654529,0.012857731,0.11304929,0.0017889291,0.13487002,0.037689388,-0.13274156,-0.3824473,-0.12445893,0.093978085,-0.38731444,-0.14835358,0.032249287,0.046476413,-0.028358018,-0.048441876,0.052532483,-0.0011521876,-0.03699487,0.017019816,0.06748712,-0.011308146,0.035792343,0.07357516,0.6713636,0.2906641,0.25825882,-0.95759606,0.2809118,-0.4712235,-0.9866155,-0.70184624,-0.92935354,0.8454772,-0.85305804,-0.80271614,0.62871623,0.2627325,-0.23171213,-0.89223075,0.3839601,-0.3680294,-0.98522455,-0.7613911,-0.898502,0.8512691,-0.81093055,-0.83665836
2025-06-05 09:12:24.131,-0.020462863,0.012310159,0.028263694,-0.01133579,0.040141553,0.015500321,0.0,0.0,0.0,0.011608756,0.0008548032,0.016858792,0.093560345,0.0012825615,0.1441461,0.036719352,-0.11796039,-0.37187102,-0.11225824,0.08034274,-0.37646183,-0.14577405,0.062455658,-0.024843989,-0.06443667,-0.043249507,0.07538089,-0.023917558,-0.04425613,-0.04055093,0.04731234,0.033952784,-0.07782823,-0.031944465,0.62871623,0.2627325,-0.23171213,-0.89223075,0.3839601,-0.3680294,-0.98522455,-0.7613911,-0.898502,0.8512691,-0.81093055,-0.83665836,0.73228323,0.22086671,-0.5400474,-0.76633,0.17060694,-0.08896845,-0.97781,-0.8244706,-0.71324813,0.8076643,-0.75296956,-0.8873981
2025-06-05 09:12:24.151,-0.094983496,-0.07338026,-0.0029830055,-0.01213593,0.012029683,0.043797392,0.0,0.0,0.0,0.011340406,0.0083510205,0.020907998,0.08074729,-0.0075121103,0.15055484,0.044699464,-0.12538555,-0.36609572,-0.12445192,0.1007228,-0.38786712,-0.15186375,0.06780105,0.074283876,-0.016742984,-0.066390865,0.0097411,0.035151154,0.042120326,0.022057619,-0.045844536,0.008951351,0.05497274,0.034543738,0.73228323,0.22086671,-0.5400474,-0.76633,0.17060694,-0.08896845,-0.97781,-0.8244706,-0.71324813,0.8076643,-0.75296956,-0.8873981,0.8175943,0.18157591,-0.51342356,-0.4869467,0.18002805,-0.21096839,-0.96408224,-0.8040341,-0.58214283,0.76015097,-0.8656844,-0.9591474
2025-06-05 09:12:24.172,-0.05179429,0.016985092,0.026452297,0.069063105,0.054375667,-0.020060357,0.0,0.0,0.0,0.011630818,0.0058129923,0.02618122,0.06504006,-0.015262657,0.13980499,0.04405178,-0.12909082,-0.38657463,-0.110826485,0.09136332,-0.39786157,-0.14647152,0.0010112718,-0.043746006,-0.10066867,0.07760495,0.013494589,-0.032411087,-0.02199753,-0.08662461,-0.039524216,-0.04198346,0.019404711,0.016227199,0.8175943,0.18157591,-0.51342356,-0.4869467,0.18002805,-0.21096839,-0.96408224,-0.8040341,-0.58214283,0.76015097,-0.8656844,-0.9591474,0.8161977,0.06535752,-0.7371218,-0.21177731,0.34514254,-0.19103028,-0.95376927,-0.85676694,-0.36460266,0.7793283,-0.7265685,-0.9119259
2025-06-05 09:12:24.192,-0.061878726,-0.034066897,0.01271423,0.023684787,-0.03481101,-0.012022205,0.0,0.0,0.0,0.011734859,0.020914814,0.045989916,0.048104744,0.0032376605,0.15053868,0.044062037,-0.1221487,-0.3876364,-0.11142372,0.09878859,-0.39157644,-0.1397742,0.07551364,-0.010813789,-0.01799576,0.054255925,0.052824184,0.034746744,0.036401797,-0.0817021,-0.05270529,0.017603774,-0.03731141,0.0068510445,0.8161977,0.06535752,-0.7371218,-0.21177731,0.34514254,-0.19103028,-0.95376927,-0.85676694,-0.36460266,0.7793283,-0.7265685,-0.9119259,0.8659508,0.07085393,-0.77102876,-0.017433122,0.32400838,-0.2317571,-0.9415672,-0.84172,-0.23458333,0.7150262,-0.7237842,-0.9430599
2025-06-05 09:12:24.211,-0.045456987,-0.028028762,-0.029968295,0.07871073,-0.02275999,-0.031012503,0.0,0.0,0.0,0.012241783,0.006896935,0.049581148,0.029773228,0.0004933409,0.13497303,0.022341846,-0.11418099,-0.40368316,-0.10329735,0.10838742,-0.40661922,-0.14565621,-0.05784046,-0.0054874783,-0.03776164,-0.015224639,0.02842516,0.046615835,0.024619166,0.03923793,0.059959818,0.011711049,-0.05313044,0.028970938,0.8659508,0.07085393,-0.77102876,-0.017433122,0.32400838,-0.2317571,-0.9415672,-0.84172,-0.23458333,0.7150262,-0.7237842,-0.9430599,0.9144838,0.121598616,-0.84328854,0.24114044,0.39672962,-0.18984944,-0.9325587,-0.8479956,-0.19675721,0.56700176,-0.7217535,-0.9546314
2025-06-05 09:12:24.231,-0.10273014,0.013176945,0.030235589,0.08525891,-0.0166163,-0.027371608,0.0,0.0,0.0,0.012917175,0.0064063077,0.044186514,0.030154638,-0.006491219,0.14340797,0.02273659,-0.105868794,-0.40169248,-0.10821001,0.11953747,-0.39559022,-0.14039098,0.07018147,0.0762684,-0.0031537707,-0.0488067,-0.030274395,-0.062999204,-0.009234883,-0.06597516,-0.006176708,0.038143087,-0.073588684,0.07400689,0.9144838,0.121598616,-0.84328854,0.24114044,0.39672962,-0.18984944,-0.9325587,-0.8479956,-0.19675721,0.56700176,-0.7217535,-0.9546314,0.8753002,-0.11338209,-0.85774994,0.48083782,0.479325,-0.31997445,-0.91753155,-0.8139088,0.031446204,0.65663284,-0.6790936,-0.9372668
2025-06-05 09:12:24.251,-0.058590084,0.02118749,-0.015717493,0.023002451,0.049614836,-0.036223464,0.0,0.0,0.0,0.013367064,0.021412369,0.044476055,0.022503346,-0.006678741,0.15161893,0.0070538367,-0.09994572,-0.4067249,-0.09133101,0.11363147,-0.40623063,-0.14592373,0.02337383,0.014110428,0.045870177,-0.019605763,0.02000803,0.012841174,-0.031832915,-0.014762908,-0.025464991,0.069900125,0.0006016932,-0.04612067,0.8753002,-0.11338209,-0.85774994,0.48083782,0.479325,-0.31997445,-0.91753155,-0.8139088,0.031446204,0.65663284,-0.6790936,-0.9372668,0.8883662,0.14313883,-0.8293861,0.36816454,0.5906452,-0.59648824,-0.88875985,-0.81546664,-0.36442208,0.5830664,-0.6227844,-0.93812907
2025-06-05 09:12:24.274,-0.028325226,0.028414214,0.012055685,0.095177725,0.008640876,0.028928591,0.0,0.0,0.0,0.014003038,0.019063719,0.038692627,0.014553116,-0.0009227914,0.17317276,-0.001694565,-0.10871747,-0.3969755,-0.07621057,0.11628153,-0.38969445,-0.14189832,-0.057870507,0.06796425,0.04033168,-0.041804772,0.046388764,0.0027306988,0.039804965,0.035509296,-0.039660387,0.07978955,0.048392028,-0.065453626,0.8883662,0.14313883,-0.8293861,0.36816454,0.5906452,-0.59648824,-0.88875985,-0.81546664,-0.36442208,0.5830664,-0.6227844,-0.93812907,0.90150976,0.14845218,-0.80627626,0.29911748,0.57656455,-0.56666595,-0.8998224,-0.8592514,-0.64580756,0.5612867,-0.5992886,-0.94214165
2025-06-05 09:12:24.291,-0.034952007,-0.0044133575,-0.014109646,0.107835695,0.037665438,0.034046575,0.0,0.0,0.0,0.0144377155,0.017122038,0.054967903,0.0018980729,-0.00040969314,0.1743024,-0.032264587,-0.089136146,-0.39725965,-0.07807313,0.13224544,-0.38263953,-0.1573508,0.07699268,0.047274295,0.010467045,0.03934409,0.04416782,-0.04797217,-0.018837573,-0.026957655,-0.049351864,0.034424167,-0.008129756,0.013550029,0.90150976,0.14845218,-0.80627626,0.29911748,0.57656455,-0.56666595,-0.8998224,-0.8592514,-0.64580756,0.5612867,-0.5992886,-0.94214165,0.917083,0.045330297,-0.60309756,0.110049106,0.5840001,-0.5137689,-0.9077508,-0.8538215,-0.7539253,0.5616808,-0.66697824,-0.9293296
2025-06-05 09:12:24.312,0.010743769,0.056387246,-0.021778014,0.088933535,0.011675322,0.030836128,0.0,0.0,0.0,0.014632163,0.024562264,0.054304484,-0.004984645,0.0060452633,0.1875364,-0.04458855,-0.09329912,-0.38488722,-0.077481814,0.12406405,-0.39324966,-0.1628643,-0.06594932,0.0155346515,0.06235418,0.07240067,-0.051299408,-0.10245442,-0.0349238,-0.059946638,0.0016761558,-0.02027301,-0.0539693,-0.038690098,0.917083,0.045330297,-0.60309756,0.110049106,0.5840001,-0.5137689,-0.9077508,-0.8538215,-0.7539253,0.5616808,-0.66697824,-0.9293296,0.91874355,0.06576307,-0.43748203,-0.20925246,0.58933115,-0.5917895,-0.91660964,-0.82120174,-0.8114461,0.56779313,-0.6672988,-0.9071495
2025-06-05 09:12:24.332,-0.00873397,0.0053345356,-0.04122805,0.026357085,-0.021906158,-0.013270288,0.0,0.0,0.0,0.014697047,0.015038177,0.03993803,-0.002060457,0.012477761,0.19573124,-0.040821142,-0.09133626,-0.38638303,-0.08697636,0.1258937,-0.37449268,-0.17410934,0.009582729,-0.007370715,0.078550294,0.020272423,0.05166396,-0.075176045,0.024712209,0.040900104,-0.05212268,-0.06807568,-0.035657514,0.029137041,0.91874355,0.06576307,-0.43748203,-0.20925246,0.58933115,-0.5917895,-0.91660964,-0.82120174,-0.8114461,0.56779313,-0.6672988,-0.9071495,0.89400035,0.04947109,-0.2161719,-0.52869487,0.48751885,-0.64305776,-0.9240593,-0.7521081,-0.87311995,0.6300051,-0.697628,-0.92167723
2025-06-05 09:12:24.351,0.08973349,-0.010455406,0.047602084,0.10265441,0.053017505,-0.015385711,0.0,0.0,0.0,0.014622285,0.011165444,0.04424043,-0.00094487064,0.0147432685,0.20352873,-0.049551822,-0.090121575,-0.39632758,-0.10112964,0.13070495,-0.38247994,-0.17734736,-0.032349795,-0.026889706,-0.05228004,-0.025616497,0.031010058,0.002021887,0.0007772741,0.057661638,-0.059284892,-0.016459681,0.043123834,0.044224903,0.89400035,0.04947109,-0.2161719,-0.52869487,0.48751885,-0.64305776,-0.9240593,-0.7521081,-0.87311995,0.6300051,-0.697628,-0.92167723,0.8334312,-0.19649833,-0.197599,-0.72304225,0.56299996,-0.28836143,-0.94420654,-0.8534839,-0.80922043,0.78315073,-0.55774856,-0.8000638
2025-06-05 09:12:24.375,0.095810175,0.043964054,-0.049480986,0.07824857,0.05521685,-0.029152486,0.0,0.0,0.0,0.0142537,0.008969032,0.04865765,0.018114245,-0.00080979615,0.19917995,-0.044487767,-0.10259966,-0.38273418,-0.09153497,0.12909223,-0.3751469,-0.1719937,0.05042808,-0.026082315,0.099450015,0.02040383,0.07536026,0.06649421,0.07094715,-0.009426567,-0.0032447698,0.03164579,0.058602747,0.021600408,0.8334312,-0.19649833,-0.197599,-0.72304225,0.56299996,-0.28836143,-0.94420654,-0.8534839,-0.80922043,0.78315073,-0.55774856,-0.8000638,0.84218955,0.087511964,0.2095655,-0.90297776,0.3935484,-0.47034568,-0.9505699,-0.79208237,-0.8369079,0.7734313,-0.75182927,-0.8744191
2025-06-05 09:12:24.392,0.109425426,0.007094547,0.03841874,0.09959611,0.00083998125,0.040419403,0.0,0.0,0.0,0.014797967,0.022942152,0.030224415,0.032647416,-0.002644849,0.2055944,-0.035219062,-0.107645154,-0.38118,-0.09499427,0.12777624,-0.37676302,-0.18388304,0.006685405,-0.08955453,0.08291674,-0.057705965,0.06086664,0.023404768,0.01289542,0.02400073,-0.0060468744,-0.04290515,0.077149965,0.0557368,0.84218955,0.087511964,0.2095655,-0.90297776,0.3935484,-0.47034568,-0.9505699,-0.79208237,-0.8369079,0.7734313,-0.75182927,-0.8744191,0.7315863,-0.039030876,0.1101248,-0.92812127,0.47210363,-0.26808897,-0.96422,-0.80424666,-0.85877997,0.8470075,-0.6789054,-0.78202146
2025-06-05 09:12:24.412,0.09848615,0.053828962,0.007222952,0.07218721,0.011997295,-0.03816541,0.0,0.0,0.0,0.014956549,0.011235646,0.027268121,0.049067054,0.010327422,0.18978335,-0.034521233,-0.10160407,-0.38727298,-0.1032971,0.12580028,-0.3674957,-0.17380029,-0.03571136,-0.07844395,-0.013499253,0.016129654,-0.011590174,-0.006733283,-0.035615776,0.074469306,0.0165297,0.027740678,0.023463834,-0.057784088,0.7315863,-0.039030876,0.1101248,-0.92812127,0.47210363,-0.26808897,-0.96422,-0.80424666,-0.85877997,0.8470075,-0.6789054,-0.78202146,0.76395226,0.030136896,0.20462993,-0.9534322,0.43787888,-0.21598464,-0.9720554,-0.82305956,-0.8581299,0.83855647,-0.6771942,-0.7628397
2025-06-05 09:12:24.434,0.01758473,-0.041303646,-0.009449815,0.089729555,0.0037360883,-0.043198578,0.0,0.0,0.0,0.015008493,0.0032248206,0.018419527,0.06273653,-0.002383353,0.19060053,-0.01737807,-0.1069458,-0.38288656,-0.09941499,0.12641987,-0.3684731,-0.18482846,0.037294492,0.007565604,-0.02621361,0.04731763,-0.07552512,0.041180864,-0.03998272,0.06641224,0.0019667232,-0.034229793,-0.06564051,-0.04555956,0.76395226,0.030136896,0.20462993,-0.9534322,0.43787888,-0.21598464,-0.9720554,-0.82305956,-0.8581299,0.83855647,-0.6771942,-0.7628397,0.6878642,0.08864198,0.43794462,-0.96371883,0.29079616,-0.15140465,-0.9816551,-0.8279383,-0.9137769,0.86498934,-0.77581584,-0.74024665
2025-06-05 09:12:24.452,0.010640511,0.011593197,-0.020338684,0.086544245,-0.032001466,-0.04345682,0.0,0.0,0.0,0.015217965,0.011087491,0.003960463,0.07839034,-0.0035937335,0.19527955,0.004047569,-0.107603595,-0.3871595,-0.108226,0.112251155,-0.37148833,-0.17040052,0.042281844,-0.046723966,0.017238561,0.010882687,-0.039366543,-0.001579917,-0.008313808,-0.062185355,0.040304482,-0.007969872,0.021192983,0.07857696,0.6878642,0.08864198,0.43794462,-0.96371883,0.29079616,-0.15140465,-0.9816551,-0.8279383,-0.9137769,0.86498934,-0.77581584,-0.74024665,0.60351646,0.13888718,0.6105939,-0.9716464,0.38402373,-0.27319637,-0.9817744,-0.81265175,-0.9314345,0.88820684,-0.8319255,-0.6589993
2025-06-05 09:12:24.475,0.03824689,-0.009825873,0.009692039,0.056001373,-0.046372313,0.029997377,0.0,0.0,0.0,0.015066419,-0.0020708991,0.01352588,0.0990135,-0.011723224,0.17980136,0.010893323,-0.1151837,-0.39040244,-0.108533725,0.11233096,-0.36683783,-0.16408554,0.021596352,0.041994452,0.052672118,-0.029095294,-0.04527292,-0.022481779,0.0127128335,-0.06672422,0.05356897,0.057702143,-0.0568142,0.012271041,0.60351646,0.13888718,0.6105939,-0.9716464,0.38402373,-0.27319637,-0.9817744,-0.81265175,-0.9314345,0.88820684,-0.8319255,-0.6589993,0.51276594,0.1949155,0.52885544,-0.9688258,0.42944568,-0.30471146,-0.9871893,-0.83420223,-0.9483405,0.8933877,-0.8182499,-0.59663093
2025-06-05 09:12:24.492,0.023939192,-0.029376613,-0.0072772596,0.00067601993,-0.06307184,-0.018907579,0.0,0.0,0.0,0.014558842,0.015366114,0.0140379965,0.117108114,-0.0018443681,0.17215541,0.017763006,-0.118738435,-0.38701245,-0.103078835,0.106126435,-0.37497592,-0.16083056,-0.0074301474,0.07340454,0.08013417,-0.0314091,-0.04586372,-0.025505694,-0.039589394,-0.017146196,0.0044014985,0.035422944,-0.04204065,0.068297364,0.51276594,0.1949155,0.52885544,-0.9688258,0.42944568,-0.30471146,-0.9871893,-0.83420223,-0.9483405,0.8933877,-0.8182499,-0.59663093,0.5513171,0.23317684,0.54708576,-0.9760793,0.43082792,-0.40707594,-0.98780763,-0.7890447,-0.95867515,0.88513947,-0.8229509,-0.5936589
2025-06-05 09:12:24.513,-0.00641093,0.019365009,0.05206299,0.05885751,-0.020523403,0.021552725,0.0,0.0,0.0,0.014167091,0.0048625255,0.020668713,0.11641257,-0.011680113,0.1806155,0.026296195,-0.117993645,-0.38464615,-0.1029911,0.09788198,-0.36564913,-0.1583046,0.0013410688,-0.058390994,0.03450971,-0.076530755,-0.060992125,-0.017319158,0.039904457,0.05067961,0.071712196,-0.062002365,0.016810035,0.08050825,0.5513171,0.23317684,0.54708576,-0.9760793,0.43082792,-0.40707594,-0.98780763,-0.7890447,-0.95867515,0.88513947,-0.8229509,-0.5936589,0.592484,0.14590731,0.39896265,-0.9645497,0.5787113,-0.278404,-0.98875755,-0.8566798,-0.9515394,0.8689808,-0.7855477,-0.69140375
2025-06-05 09:12:24.532,0.043577712,0.02876579,-0.018223338,0.028842071,0.009499828,-0.0031321868,0.0,0.0,0.0,0.013807765,0.008637184,0.010913715,0.1327097,-0.010287764,0.17885229,0.048481233,-0.11973992,-0.38382936,-0.09243948,0.11097634,-0.38237205,-0.14593826,-0.017311266,0.0071490887,0.051020376,-0.01640643,-0.027099561,-0.0048481026,-0.04660675,0.024226233,-0.006098012,0.04428414,-0.0054595894,-0.058727846,0.592484,0.14590731,0.39896265,-0.9645497,0.5787113,-0.278404,-0.98875755,-0.8566798,-0.9515394,0.8689808,-0.7855477,-0.69140375,0.6712897,0.22249837,0.36139697,-0.97005355,0.45046926,-0.41640002,-0.98554987,-0.7833934,-0.9435838,0.8628315,-0.8168474,-0.77485377
2025-06-05 09:12:24.553,0.03183618,0.044141516,0.008456176,0.06567972,-0.03380644,0.03439718,0.0,0.0,0.0,0.013950092,0.00514674,0.019085757,0.13468492,-0.013415518,0.1754833,0.04751267,-0.12808079,-0.38608053,-0.09829427,0.10058747,-0.3701917,-0.1489429,0.059390165,0.026963046,-0.0148656145,-0.06657722,0.033762455,0.019522827,-0.057913177,0.0040517547,0.00049286295,-0.07709981,-0.0398532,-0.017372975,0.6712897,0.22249837,0.36139697,-0.97005355,0.45046926,-0.41640002,-0.98554987,-0.7833934,-0.9435838,0.8628315,-0.8168474,-0.77485377,0.6107421,0.2730866,0.05908738,-0.95516676,0.32411885,-0.34434223,-0.9868732,-0.76406026,-0.9295046,0.8712276,-0.80921674,-0.8135083
2025-06-05 09:12:24.609,-0.00747973,-0.05745788,-0.021930562,0.0066382242,-0.020028694,-0.045621846,0.0,0.0,0.0,0.013989068,0.0018170975,0.03189779,0.12585431,-0.00030594566,0.17831968,0.041711446,-0.14065972,-0.38989422,-0.10898652,0.10751043,-0.36821187,-0.149308,0.06662237,0.014223291,-0.060668703,0.03889721,0.035282332,-0.01771177,0.065213546,-0.047943495,-0.02498181,-0.053818487,0.014418519,0.07668993,0.6107421,0.2730866,0.05908738,-0.95516676,0.32411885,-0.34434223,-0.9868732,-0.76406026,-0.9295046,0.8712276,-0.80921674,-0.8135083,0.65468824,0.2898463,-0.25266218,-0.8296,0.24255355,-0.3730053,-0.98347646,-0.768077,-0.86907154,0.84113646,-0.8551362,-0.89513665
2025-06-05 09:12:24.632,-0.04768338,0.012218537,-0.01878721,0.05170939,-0.02587161,-0.0017491322,0.0,0.0,0.0,0.01376601,0.010088612,0.045027528,0.12099304,-0.0068784785,0.16620782,0.03567094,-0.13398944,-0.37215674,-0.09657087,0.09456232,-0.37895757,-0.14464235,-0.06136638,-0.056359768,-0.10958813,-0.068108,0.04636881,0.059669822,-0.067550465,0.0041354285,-0.07474533,0.015494668,-0.030145222,-0.02618809,0.65468824,0.2898463,-0.25266218,-0.8296,0.24255355,-0.3730053,-0.98347646,-0.768077,-0.86907154,0.84113646,-0.8551362,-0.89513665,0.7666699,0.35436156,-0.580971,-0.7580348,0.17095147,-0.2346654,-0.9795392,-0.7591404,-0.76168084,0.76732796,-0.7898362,-0.91025686
2025-06-05 09:12:24.650,-0.105555505,-0.004395136,0.014535281,0.018075855,0.04402638,0.025932578,0.0,0.0,0.0,0.01339108,0.009307005,0.04152526,0.09326119,-0.009488062,0.16963653,0.034436382,-0.13395803,-0.3790714,-0.11771769,0.1063135,-0.37671688,-0.15461071,0.064100616,0.05402341,-0.0047541563,0.063782096,0.051071767,-0.012737031,0.013702867,0.014095214,0.044653438,-0.072040975,0.040816784,-0.05264161,0.7666699,0.35436156,-0.580971,-0.7580348,0.17095147,-0.2346654,-0.9795392,-0.7591404,-0.76168084,0.76732796,-0.7898362,-0.91025686,0.8286041,0.24593696,-0.81881195,-0.26376772,0.20031424,0.05648249,-0.97284675,-0.8724681,-0.4475624,0.74419975,-0.7936033,-0.9496884
2025-06-05 09:12:24.670,-0.11544416,-0.09226452,-0.026394561,0.0703662,-0.016469967,0.00047206515,0.0,0.0,0.0,0.0131718265,0.009334678,0.054790363,0.0740313,0.004669041,0.15679881,0.04398662,-0.11986941,-0.38734907,-0.10220879,0.09292959,-0.38395327,-0.15535174,0.023666507,-0.01964756,-0.09413489,-0.06363835,-0.055770446,-0.023038574,-0.036349565,-0.026276732,-0.021219062,0.030215865,-0.0923225,-0.021466464,0.8286041,0.24593696,-0.81881195,-0.26376772,0.20031424,0.05648249,-0.97284675,-0.8724681,-0.4475624,0.74419975,-0.7936033,-0.9496884,0.91249835,0.1638965,-0.7653563,0.06132691,0.18702878,0.059427388,-0.95247513,-0.8478625,-0.23785587,0.56362057,-0.8363742,-0.9660317
2025-06-05 09:12:24.692,-0.05806042,-0.08259036,-0.041596424,0.06941935,0.04768675,-0.009354252,0.0,0.0,0.0,0.013369118,0.030739931,0.058469646,0.059232514,0.0014234934,0.14676084,0.036777023,-0.12803869,-0.39331192,-0.09653079,0.1165132,-0.39294407,-0.14371522,-0.0376927,0.014152661,0.0017862152,-0.015796296,0.04858025,-0.023415934,-0.061267838,-0.014058664,-0.044807587,0.015444893,-0.09408471,9.576283e-05,0.91249835,0.1638965,-0.7653563,0.06132691,0.18702878,0.059427388,-0.95247513,-0.8478625,-0.23785587,0.56362057,-0.8363742,-0.9660317,0.9187022,0.19707751,-0.8546521,0.3937416,0.40121856,-0.19635741,-0.9087261,-0.820264,0.05942621,0.40346342,-0.7809522,-0.9530095
2025-06-05 09:12:24.711,-0.053472843,-0.05961643,-0.015175812,0.027090015,0.040110283,-0.03841673,0.0,0.0,0.0,0.013451343,0.024626547,0.049423546,0.03821139,0.0042865663,0.14448448,0.026692022,-0.10866225,-0.39018172,-0.08453,0.11812773,-0.40383753,-0.14692798,-0.059421312,0.00053503056,-0.08528145,0.0016366995,-0.0094262045,0.016471311,-0.054388266,0.005332057,0.0007708323,0.07508378,-0.012736139,-0.032417558,0.9187022,0.19707751,-0.8546521,0.3937416,0.40121856,-0.19635741,-0.9087261,-0.820264,0.05942621,0.40346342,-0.7809522,-0.9530095,0.91051877,0.17415583,-0.9376022,0.69578254,0.49795726,-0.2169141,-0.893229,-0.85725385,-0.0065939236,0.38641003,-0.65387285,-0.9408623
2025-06-05 09:12:24.730,-0.06191816,-0.014195949,-0.035133403,0.05287449,-0.014422388,-0.035896383,0.0,0.0,0.0,0.013236842,0.02193611,0.05838146,0.025195448,0.014867664,0.15879798,0.022836147,-0.11463223,-0.40067175,-0.07621803,0.10676872,-0.40090743,-0.1417173,-0.0017388061,0.057412174,-0.06632377,-0.030309493,0.079528145,-0.021164406,-0.051573373,0.005188221,0.09200981,0.06764462,-0.063779585,0.036005653,0.91051877,0.17415583,-0.9376022,0.69578254,0.49795726,-0.2169141,-0.893229,-0.85725385,-0.0065939236,0.38641003,-0.65387285,-0.9408623,0.9314155,0.2498497,-0.9241809,0.752229,0.59111255,-0.29961625,-0.86583424,-0.85211504,-0.1468005,0.16786033,-0.7101815,-0.95226395
2025-06-05 09:12:24.750,-0.030713074,0.012046177,0.022094592,0.09500457,0.020595768,0.016588578,0.0,0.0,0.0,0.013232985,0.017860806,0.055125836,0.006641098,0.015318625,0.17854498,0.0028158862,-0.09719598,-0.3981811,-0.06852362,0.110079706,-0.40886104,-0.15304424,-0.020280134,0.02955462,-0.041867178,-0.045189004,0.08154474,-0.016044268,0.08355906,0.0037212668,-0.02395928,0.04181807,0.052623976,-0.06976369,0.9314155,0.2498497,-0.9241809,0.752229,0.59111255,-0.29961625,-0.86583424,-0.85211504,-0.1468005,0.16786033,-0.7101815,-0.95226395,0.8983654,0.23523594,-0.9427756,0.803601,0.6016892,-0.45495227,-0.84122694,-0.86246955,-0.14947766,0.29297662,-0.64511913,-0.93433267
2025-06-05 09:12:24.770,-0.053972784,-0.017933264,0.0002210181,0.011638952,0.016947212,0.03042742,0.0,0.0,0.0,0.01318561,0.029495329,0.071165785,0.0013786684,0.031020254,0.19061798,-0.00010081904,-0.08973187,-0.3934268,-0.06399195,0.11720879,-0.41767567,-0.14443052,0.07165289,-0.0043067522,-0.03496987,-0.053295575,0.008842721,-0.0049400027,0.013683315,0.039761346,0.052218087,0.024330633,0.023506774,-0.018889425,0.8983654,0.23523594,-0.9427756,0.803601,0.6016892,-0.45495227,-0.84122694,-0.86246955,-0.14947766,0.29297662,-0.64511913,-0.93433267,0.9217749,0.265723,-0.8705183,0.70519125,0.6585233,-0.5468303,-0.85589445,-0.8752113,-0.6700101,0.30197987,-0.6941033,-0.9505768
2025-06-05 09:12:24.791,0.00041523363,0.015743783,0.04360949,0.013240178,0.027715774,0.036257025,0.0,0.0,0.0,0.013082759,0.026033511,0.065662466,-0.013967056,0.022597553,0.21283042,-0.02524296,-0.09037069,-0.38562924,-0.082200475,0.10987563,-0.41216892,-0.16061442,0.022568375,0.057129346,-0.032723196,-0.0056963526,-0.03300618,0.030313592,0.046925,0.06514684,-0.07120373,0.059167307,0.007522727,-0.07779921,0.9217749,0.265723,-0.8705183,0.70519125,0.6585233,-0.5468303,-0.85589445,-0.8752113,-0.6700101,0.30197987,-0.6941033,-0.9505768,0.93537176,0.06438907,-0.6959913,0.49190214,0.71626496,-0.546873,-0.89192456,-0.8914616,-0.8007652,0.40956286,-0.69734365,-0.9361213
2025-06-05 09:12:24.810,-0.039514374,0.09544046,0.03716072,0.08159784,-0.013127015,0.027079806,0.0,0.0,0.0,0.012899783,0.023995327,0.07493257,-0.0056747515,0.034651846,0.21379192,-0.041928012,-0.08747575,-0.38795158,-0.10862181,0.11051779,-0.40680292,-0.15502317,0.06382575,-0.051257804,-0.027018175,0.0002716193,0.106424205,0.011589198,-0.025785264,-0.08050483,0.016401155,-0.06049174,-0.05194317,-0.009351805,0.93537176,0.06438907,-0.6959913,0.49190214,0.71626496,-0.546873,-0.89192456,-0.8914616,-0.8007652,0.40956286,-0.69734365,-0.9361213,0.9225434,0.020987356,-0.614496,0.09065571,0.6600859,-0.5164147,-0.90879136,-0.8753069,-0.7420438,0.52854764,-0.60075855,-0.8888283
2025-06-05 09:12:24.832,0.025126742,0.06600501,-0.034444906,0.04754262,-0.016917843,0.0136967255,0.0,0.0,0.0,0.012903483,0.019828647,0.076043084,-0.015531242,0.031069417,0.23081613,-0.048270818,-0.08372399,-0.40593937,-0.11087036,0.111819305,-0.40931502,-0.1480194,-0.05944897,-0.07155002,0.0284574,0.011243206,0.070293106,0.02486079,-0.03773583,0.059887737,-0.03146428,0.027792683,0.04941458,0.043552443,0.9225434,0.020987356,-0.614496,0.09065571,0.6600859,-0.5164147,-0.90879136,-0.8753069,-0.7420438,0.52854764,-0.60075855,-0.8888283,0.9339932,0.094415456,-0.3684955,-0.3856987,0.6020272,-0.6174374,-0.9074632,-0.82559335,-0.82497853,0.5182782,-0.60831356,-0.90732914
2025-06-05 09:12:24.851,0.04122722,0.068517335,0.020470649,0.04278596,-0.018980943,0.048319437,0.0,0.0,0.0,0.0134647805,0.016896516,0.07754978,-0.011522495,0.021882463,0.23859923,-0.052854486,-0.093988545,-0.39627227,-0.120810345,0.11652728,-0.39354336,-0.15556873,-0.07254696,-0.03510963,0.015784804,-0.048370395,-0.01600903,-0.04423645,0.01593794,0.06725232,-0.0744157,-0.04012841,0.07319511,-0.04583903,0.9339932,0.094415456,-0.3684955,-0.3856987,0.6020272,-0.6174374,-0.9074632,-0.82559335,-0.82497853,0.5182782,-0.60831356,-0.90732914,0.8944883,0.00049763167,-0.36682665,-0.6195501,0.5300245,-0.47712588,-0.9328646,-0.81657875,-0.83780384,0.659132,-0.58734584,-0.893889
2025-06-05 09:12:24.874,0.038879316,0.048747335,-0.06667083,0.09150533,0.008532776,-0.046671607,0.0,0.0,0.0,0.013982238,0.018496102,0.07516486,0.016285706,0.016669776,0.24963741,-0.06715004,-0.086037084,-0.40689254,-0.12246203,0.09982591,-0.38736597,-0.16386051,0.06247546,-0.054298405,0.009878553,-0.06691468,0.044567898,0.0606919,0.040333364,0.07132915,-0.05096575,-0.042515405,0.026818067,-0.01693271,0.8944883,0.00049763167,-0.36682665,-0.6195501,0.5300245,-0.47712588,-0.9328646,-0.81657875,-0.83780384,0.659132,-0.58734584,-0.893889,0.89957273,0.14669184,-0.1415825,-0.79775137,0.3067906,-0.43485147,-0.9588319,-0.7432468,-0.8829223,0.6653539,-0.76239413,-0.93002486
2025-06-05 09:12:24.891,0.00828815,-0.0049393843,0.015805067,0.035359778,0.0022639725,-0.02065562,0.0,0.0,0.0,0.014528301,0.017869681,0.068783306,0.0225475,0.024886435,0.24054477,-0.053421546,-0.0810543,-0.39095402,-0.11288074,0.10046627,-0.3719203,-0.17254853,0.009748272,0.0027782314,0.015997965,-0.05189915,0.010060125,0.007615697,-0.051071953,0.033305403,0.043473773,-0.002798349,0.05873452,0.052692093,0.89957273,0.14669184,-0.1415825,-0.79775137,0.3067906,-0.43485147,-0.9588319,-0.7432468,-0.8829223,0.6653539,-0.76239413,-0.93002486,0.8225203,-0.025323095,-0.22993617,-0.8301445,0.4745999,-0.19854183,-0.96377873,-0.81449044,-0.8194407,0.78654706,-0.67136043,-0.82706434
2025-06-05 09:12:24.911,0.013864554,-0.011628521,-0.059397172,0.016462311,-0.0121185705,-0.012560381,0.0,0.0,0.0,0.014265096,0.006022337,0.057560954,0.023005186,0.015785472,0.24358222,-0.052850984,-0.082188845,-0.39861456,-0.12511897,0.11107513,-0.3892253,-0.1671149,-0.08056074,0.002411037,0.006988181,0.053002913,-0.003341651,0.040780142,0.036043234,0.07144364,-0.020519312,-0.026100595,0.076202415,-0.059910893,0.8225203,-0.025323095,-0.22993617,-0.8301445,0.4745999,-0.19854183,-0.96377873,-0.81449044,-0.8194407,0.78654706,-0.67136043,-0.82706434,0.86173934,0.12946138,-0.03348326,-0.88050145,0.35525084,-0.39348972,-0.96506673,-0.7793412,-0.8485329,0.74779177,-0.76369864,-0.9086211
2025-06-05 09:12:24.931,0.07823452,-0.020679064,-0.01615192,0.09394814,0.0030114986,0.014829295,0.0,0.0,0.0,0.01434527,0.0035760107,0.050699707,0.039699104,0.012885108,0.23467818,-0.034099877,-0.09542488,-0.39288205,-0.12187414,0.10354006,-0.37952244,-0.16247165,0.043088138,-0.053031612,0.059114143,-0.024754537,0.05009516,0.09290228,-0.048996013,0.02794857,-0.0036802306,0.016501162,0.0058748126,-0.030924665,0.86173934,0.12946138,-0.03348326,-0.88050145,0.35525084,-0.39348972,-0.96506673,-0.7793412,-0.8485329,0.74779177,-0.76369864,-0.9086211,0.7840269,0.07260197,-0.12529288,-0.89604974,0.31489202,-0.19550633,-0.9692557,-0.78170234,-0.8287015,0.8134516,-0.7090615,-0.82617605
2025-06-05 09:12:24.951,0.056190066,-0.047482535,-0.011278988,0.07499087,-0.02892924,0.030595949,0.0,0.0,0.0,0.014312554,0.003410954,0.049761783,0.043144178,0.016306724,0.22679056,-0.013017258,-0.09762762,-0.3922074,-0.12193962,0.08987835,-0.37429717,-0.16098002,0.0077512017,-0.02268245,0.06797613,0.03824545,0.01667787,0.065313056,-0.013913893,-0.0028183612,0.046689376,-0.02421407,-0.0032005855,0.05944631,0.7840269,0.07260197,-0.12529288,-0.89604974,0.31489202,-0.19550633,-0.9692557,-0.78170234,-0.8287015,0.8134516,-0.7090615,-0.82617605,0.79034555,0.02657397,0.011148964,-0.88367105,0.30615884,-0.1820089,-0.96626526,-0.79680824,-0.7726811,0.81374544,-0.76372707,-0.84600365
2025-06-05 09:12:24.975,-0.010864286,-0.01426716,-0.010372611,0.046217833,0.010432588,-0.01987714,0.0,0.0,0.0,0.014311063,0.010180593,0.040391643,0.050861802,0.011444706,0.22190195,-0.0034621053,-0.09222867,-0.4035455,-0.12069676,0.09363837,-0.39266163,-0.1732115,-0.06662644,-0.06006402,-0.049386937,-0.053713556,-0.052196097,-0.03267946,0.047926888,-0.020113615,-0.014145927,-0.008125799,-0.03018248,0.009585576,0.79034555,0.02657397,0.011148964,-0.88367105,0.30615884,-0.1820089,-0.96626526,-0.79680824,-0.7726811,0.81374544,-0.76372707,-0.84600365,0.77716327,0.029338855,0.10786407,-0.8905813,0.31618905,-0.3492977,-0.9683736,-0.7582295,-0.83517814,0.820099,-0.8005998,-0.8739562
2025-06-05 09:12:24.991,0.037526533,-0.009024614,-0.012984372,0.036403712,0.04170881,0.048423566,0.0,0.0,0.0,0.014407074,0.0068610227,0.02654146,0.057814103,0.0070763947,0.21272847,0.007979678,-0.10678073,-0.4038148,-0.13910852,0.10422128,-0.38640422,-0.16609113,0.003559414,-0.005956706,-0.0069133043,-0.04926138,-0.008891387,0.032566052,-0.0006521026,-0.05329179,-0.055964615,0.05562912,0.06041427,0.014570532,0.77716327,0.029338855,0.10786407,-0.8905813,0.31618905,-0.3492977,-0.9683736,-0.7582295,-0.83517814,0.820099,-0.8005998,-0.8739562,0.7285526,0.077403404,0.21473284,-0.9121698,0.41040668,-0.39005935,-0.97076875,-0.7785715,-0.89581025,0.850183,-0.8064452,-0.8275629
2025-06-05 09:12:25.014,0.02181985,-0.025740663,-0.022029987,-0.0031832652,-0.04858692,0.016533125,0.0,0.0,0.0,0.014231705,0.0034557707,0.023777755,0.067067534,-0.0003233279,0.20917387,0.020083588,-0.104788296,-0.39421678,-0.138371,0.08467659,-0.3989246,-0.18117706,-0.072623886,-0.04145701,0.048879676,-0.03856563,-0.008984973,-0.04821593,0.06531955,0.020992998,-0.0107767265,-0.07180662,-0.044842403,0.024792386,0.7285526,0.077403404,0.21473284,-0.9121698,0.41040668,-0.39005935,-0.97076875,-0.7785715,-0.89581025,0.850183,-0.8064452,-0.8275629,0.7344856,0.08563627,0.25949332,-0.92711383,0.3489485,-0.50827533,-0.9740142,-0.69158554,-0.923841,0.8349834,-0.82971203,-0.87133765
2025-06-05 09:12:25.032,-0.009937684,-0.03362934,0.030361509,-0.0078447955,0.0009704901,-0.048478507,0.0,0.0,0.0,0.013935881,0.011145511,0.014323952,0.07254926,0.013364782,0.18983904,0.024419494,-0.11028069,-0.39736363,-0.14220728,0.09946942,-0.38627708,-0.17969373,0.037216444,0.018496389,-0.012265109,0.07475109,-0.026805673,-0.041803163,-0.052348435,0.062354248,0.04053199,0.05015315,-0.0068865945,-0.034686252,0.7344856,0.08563627,0.25949332,-0.92711383,0.3489485,-0.50827533,-0.9740142,-0.69158554,-0.923841,0.8349834,-0.82971203,-0.87133765,0.67634714,-0.0010169816,0.25016928,-0.92795634,0.5390016,-0.22287627,-0.9812651,-0.8534831,-0.9277442,0.86332166,-0.7218005,-0.6989716
2025-06-05 09:12:25.052,0.064475395,0.03665533,-0.02361402,0.029393682,0.022351732,-0.0058528604,0.0,0.0,0.0,0.013300848,-0.0016019042,0.01431852,0.08060178,2.0846312e-05,0.19551086,0.030411776,-0.10693459,-0.3912799,-0.13733621,0.08793931,-0.39357397,-0.17399117,0.062228102,-0.080069795,0.011715973,-0.00713077,-0.051773794,-0.024252992,-0.036311444,0.037418008,0.02515422,-0.07302837,0.07278212,0.023734393,0.67634714,-0.0010169816,0.25016928,-0.92795634,0.5390016,-0.22287627,-0.9812651,-0.8534831,-0.9277442,0.86332166,-0.7218005,-0.6989716,0.73534083,0.100833476,0.6017008,-0.97036034,0.4436204,-0.40500647,-0.9806896,-0.8009147,-0.94735163,0.8674664,-0.84554136,-0.78868777
2025-06-05 09:12:25.076,0.026802542,0.0013487001,-0.032228634,0.008985878,-0.050512612,0.025575493,0.0,0.0,0.0,0.013409628,0.0031411925,0.015601716,0.10258891,0.0014150199,0.19857576,0.037442505,-0.118294045,-0.39742807,-0.14793018,0.07988327,-0.39791825,-0.17450662,0.026846586,0.014642233,-0.016155025,-0.030337559,-0.060534332,0.062595375,0.06667675,-0.033323005,0.0064147743,0.020925337,-0.04677426,-0.07022342,0.73534083,0.100833476,0.6017008,-0.97036034,0.4436204,-0.40500647,-0.9806896,-0.8009147,-0.94735163,0.8674664,-0.84554136,-0.78868777,0.5804606,0.1874858,0.39303976,-0.96155757,0.24465889,-0.5733172,-0.9901406,-0.72082734,-0.96881056,0.8940475,-0.86412996,-0.7632628
2025-06-05 09:12:25.093,0.037370913,0.022284374,0.058717288,0.009745049,0.028049624,0.003395856,0.0,0.0,0.0,0.0134886475,0.011534088,0.014042048,0.113541156,-0.0016782309,0.18797198,0.027162524,-0.1133369,-0.38897067,-0.14605431,0.0831928,-0.3921964,-0.1676559,0.056852747,0.063403055,0.008573904,-0.048651148,0.026665404,0.055111054,-0.0005078497,0.03008751,0.071168676,-0.00047740963,0.062624544,0.06165231,0.5804606,0.1874858,0.39303976,-0.96155757,0.24465889,-0.5733172,-0.9901406,-0.72082734,-0.96881056,0.8940475,-0.86412996,-0.7632628,0.60354376,0.1612335,0.10376985,-0.9266797,0.59442866,-0.23156123,-0.9872244,-0.8713802,-0.93046016,0.87651694,-0.76792073,-0.6875799
2025-06-05 09:12:25.113,-0.03720368,-0.020731388,-0.010800084,0.002563575,-0.04194201,0.03654521,0.0,0.0,0.0,0.012789158,0.002906295,0.016792007,0.11158009,0.0034583057,0.18296295,0.044050567,-0.11261582,-0.39899233,-0.13544314,0.087881655,-0.38741434,-0.16999845,-0.026165394,0.0782002,0.059972074,-0.06671336,-0.049165033,0.038710974,0.05510535,0.010837009,-0.019926544,-0.020216268,0.061311603,0.051353045,0.60354376,0.1612335,0.10376985,-0.9266797,0.59442866,-0.23156123,-0.9872244,-0.8713802,-0.93046016,0.87651694,-0.76792073,-0.6875799,0.7419965,0.18910237,0.29907098,-0.9355864,0.40027818,-0.4382574,-0.98334306,-0.7885105,-0.9291918,0.8318089,-0.86707056,-0.8852058
2025-06-05 09:12:25.132,-0.0026098825,0.018992966,0.006475364,0.060924914,-0.01317357,-0.0329138,0.0,0.0,0.0,0.012865044,0.0027696693,0.019240804,0.12469194,0.0014308551,0.17979047,0.038162146,-0.12546909,-0.38909808,-0.12965988,0.085901536,-0.40431592,-0.17063257,-0.056288097,-0.046801057,-0.0497258,-0.031423867,-0.012594306,-0.060773943,0.032558434,0.015385318,-0.002191054,-0.01574345,-0.07552162,-0.059217393,0.7419965,0.18910237,0.29907098,-0.9355864,0.40027818,-0.4382574,-0.98334306,-0.7885105,-0.9291918,0.8318089,-0.86707056,-0.8852058,0.69309187,0.15924223,-0.10022115,-0.8981099,0.34205183,-0.432421,-0.9843687,-0.73645,-0.90450156,0.8455998,-0.80784965,-0.8479891
2025-06-05 09:12:25.153,-0.010826202,-0.040385813,0.017220533,0.08368236,0.017669395,-0.037456002,0.0,0.0,0.0,0.012864379,-0.0016417042,0.02595409,0.12302794,0.007529471,0.1949844,0.040925395,-0.121641375,-0.39916262,-0.13066724,0.079822816,-0.39510256,-0.1687783,0.021926679,0.042965338,-0.0019647023,-0.05246229,0.06822101,-0.07238722,-0.05246162,-0.018860953,-0.054063503,0.032820668,0.06452196,-0.03637415,0.69309187,0.15924223,-0.10022115,-0.8981099,0.34205183,-0.432421,-0.9843687,-0.73645,-0.90450156,0.8455998,-0.80784965,-0.8479891,0.7476813,0.10960812,-0.17641261,-0.8623282,0.41803753,-0.32011238,-0.9749118,-0.794267,-0.8321175,0.8350866,-0.77170527,-0.8566799
2025-06-05 09:12:25.176,-0.0225245,-0.053121135,-0.025281768,0.010242019,-0.034147404,0.011785714,0.0,0.0,0.0,0.012636637,0.004399855,0.019402316,0.10836968,0.011690709,0.18853271,0.040541846,-0.1184758,-0.4001492,-0.13552058,0.084664255,-0.39321238,-0.16816735,-0.052867565,0.075577326,0.029529486,0.019717934,-0.058940243,-0.04564087,-0.047574505,-0.038106482,-0.06330861,0.0004691012,-0.011726326,-0.06832746,0.7476813,0.10960812,-0.17641261,-0.8623282,0.41803753,-0.32011238,-0.9749118,-0.794267,-0.8321175,0.8350866,-0.77170527,-0.8566799,0.7852473,0.17411144,-0.081920795,-0.85875654,0.2964913,-0.41207805,-0.9738903,-0.736028,-0.86386067,0.8019937,-0.8248269,-0.9031397
2025-06-05 09:12:25.193,-0.014214686,-0.025990324,-0.030036977,0.07897178,-0.032434624,-0.030201359,0.0,0.0,0.0,0.012825523,-0.0015113974,0.03627033,0.105908066,0.0045139003,0.18895689,0.04208267,-0.12112331,-0.39114055,-0.14255552,0.09094799,-0.40352696,-0.16480552,-0.058791112,-0.007109881,-0.086704426,0.055468556,-0.062211365,-0.018658418,0.04946835,-0.026986206,-0.010446533,-0.019136766,0.06114855,-0.01447603,0.7852473,0.17411144,-0.081920795,-0.85875654,0.2964913,-0.41207805,-0.9738903,-0.736028,-0.86386067,0.8019937,-0.8248269,-0.9031397,0.7881171,0.15568598,-0.29570138,-0.7253609,0.3651115,-0.40759,-0.97973895,-0.7755377,-0.86241466,0.7993827,-0.8387217,-0.90947306
2025-06-05 09:12:25.214,-0.08779621,-0.04354556,0.0013341204,-0.0004793473,0.00041918692,-0.03744092,0.0,0.0,0.0,0.012764877,0.0070785605,0.022870462,0.0842838,0.012598727,0.17745708,0.025153112,-0.12565018,-0.39266133,-0.14634386,0.087966435,-0.40230614,-0.16652599,-0.007947004,0.0011673585,-0.023079416,0.04174565,0.0005477643,0.036804434,0.052282136,-0.012289251,-0.018380143,-0.067324,0.052026197,0.061767243,0.7881171,0.15568598,-0.29570138,-0.7253609,0.3651115,-0.40759,-0.97973895,-0.7755377,-0.86241466,0.7993827,-0.8387217,-0.90947306,0.8223802,0.08709125,-0.3685219,-0.6473062,0.4283409,-0.37512055,-0.9745812,-0.82199436,-0.8148874,0.78159064,-0.80513346,-0.91379255
2025-06-05 09:12:25.232,-0.06420957,-0.05040353,-0.05079099,-0.00866445,0.019332446,-0.019371567,0.0,0.0,0.0,0.012620741,0.0142099215,0.034482677,0.079439595,0.006949699,0.1921589,0.023723857,-0.11627162,-0.39151734,-0.13761732,0.08225571,-0.41191435,-0.18045467,-0.042986363,-0.0625918,-0.019701758,0.02984816,0.013361459,0.015737306,0.03246762,-0.05818036,-0.007373688,-0.029115666,-0.064827636,0.012393767,0.8223802,0.08709125,-0.3685219,-0.6473062,0.4283409,-0.37512055,-0.9745812,-0.82199436,-0.8148874,0.78159064,-0.80513346,-0.91379255,0.8639625,0.1909603,-0.33058763,-0.6416973,0.28336254,-0.43692118,-0.9700946,-0.7598732,-0.82188237,0.69683295,-0.82601535,-0.931822
2025-06-05 09:12:25.253,-0.057934664,0.02693238,-0.01437962,0.058616363,0.027172318,-0.007964741,0.0,0.0,0.0,0.012863445,0.0023400898,0.039589018,0.06367608,0.008702242,0.1863012,0.028328532,-0.11058699,-0.4093366,-0.14781466,0.08823791,-0.4052545,-0.17656285,-0.008391212,0.052842434,-0.08568212,-0.058879044,0.04001015,0.023016233,0.024367018,0.037591446,-0.06321811,0.043401267,-0.028034464,-0.03970939,0.8639625,0.1909603,-0.33058763,-0.6416973,0.28336254,-0.43692118,-0.9700946,-0.7598732,-0.82188237,0.69683295,-0.82601535,-0.931822,0.85161996,0.10792659,-0.44031066,-0.5402751,0.36685008,-0.36234754,-0.96938276,-0.7819449,-0.80984384,0.7121973,-0.80310166,-0.92869323
2025-06-05 09:12:25.275,0.006993637,-0.05879498,-0.05022505,0.040143777,0.02203956,0.020325787,0.0,0.0,0.0,0.012813831,0.017126283,0.035332438,0.058668967,-0.0012703817,0.18258421,0.021766659,-0.11730327,-0.40825424,-0.16101477,0.08632216,-0.4096661,-0.16726044,0.066067785,-0.06731634,-0.0912808,-0.023631552,-0.07450171,-0.02295632,-0.0006729012,-0.016443148,0.049967963,0.008456679,0.0065092165,-0.018950379,0.85161996,0.10792659,-0.44031066,-0.5402751,0.36685008,-0.36234754,-0.96938276,-0.7819449,-0.80984384,0.7121973,-0.80310166,-0.92869323,0.87572336,0.1512432,-0.3834345,-0.43952554,0.35401085,-0.39874685,-0.9730041,-0.7932291,-0.83915615,0.6942271,-0.85781205,-0.9386559
2025-06-05 09:12:25.293,-0.047286503,0.0059006102,0.0023239194,0.018901883,0.020338656,-0.026817875,0.0,0.0,0.0,0.012776389,0.013680143,0.034895685,0.05248722,0.013563396,0.1724921,0.021795768,-0.11042761,-0.39900914,-0.14999443,0.08545213,-0.40645733,-0.18236606,0.048342727,-0.029838976,-0.0025721674,0.06274574,-0.019662367,0.0004889334,0.049947567,-0.044702336,-0.049759805,-0.014817006,0.051550124,0.03771684,0.87572336,0.1512432,-0.3834345,-0.43952554,0.35401085,-0.39874685,-0.9730041,-0.7932291,-0.83915615,0.6942271,-0.85781205,-0.9386559,0.8635108,0.01599647,-0.34059158,-0.4464765,0.5302918,-0.47507143,-0.96501267,-0.82936597,-0.82397574,0.73527104,-0.8001698,-0.9096919
2025-06-05 09:12:25.314,-0.045326293,0.053877044,-0.010978534,0.02623177,0.03609749,0.025498603,0.0,0.0,0.0,0.012664601,0.012840404,0.035012506,0.04182793,-0.0013143806,0.18927324,-0.0015687591,-0.11633639,-0.39860243,-0.16059665,0.08687241,-0.4120666,-0.17676291,0.040500913,0.045128934,-0.035593618,-0.052575562,-0.03010169,0.004014265,-0.06320248,-0.07225734,-0.074603245,0.008204551,0.07034744,0.059867002,0.8635108,0.01599647,-0.34059158,-0.4464765,0.5302918,-0.47507143,-0.96501267,-0.82936597,-0.82397574,0.73527104,-0.8001698,-0.9096919,0.86267877,0.06002348,-0.067609094,-0.71122247,0.5066032,-0.5329273,-0.9668677,-0.8031554,-0.8934311,0.74819064,-0.8020698,-0.8966314
