openverse-orca/OrcaGym/log/simulation_log_20250721_143036.csv
timestamp,sim_time,physics_step,control_step,imu_angle_roll,imu_angle_pitch,imu_angle_yaw,imu_angular_velocity_roll,imu_angular_velocity_pitch,imu_angular_velocity_yaw,imu_acc_x,imu_acc_y,imu_acc_z,fl_joint1_pos,fl_joint1_vel,fl_joint1_torque,fl_joint2_pos,fl_joint2_vel,fl_joint2_torque,fl_joint3_pos,fl_joint3_vel,fl_joint3_torque,fr_joint1_pos,fr_joint1_vel,fr_joint1_torque,fr_joint2_pos,fr_joint2_vel,fr_joint2_torque,fr_joint3_pos,fr_joint3_vel,fr_joint3_torque,hl_joint1_pos,hl_joint1_vel,hl_joint1_torque,hl_joint2_pos,hl_joint2_vel,hl_joint2_torque,hl_joint3_pos,hl_joint3_vel,hl_joint3_torque,hr_joint1_pos,hr_joint1_vel,hr_joint1_torque,hr_joint2_pos,hr_joint2_vel,hr_joint2_torque,hr_joint3_pos,hr_joint3_vel,hr_joint3_torque,fl_force_x,fl_force_y,fl_force_z,fr_force_x,fr_force_y,fr_force_z,hl_force_x,hl_force_y,hl_force_z,hr_force_x,hr_force_y,hr_force_z,fl_hip_action,fl_thigh_action,fl_calf_action,fr_hip_action,fr_thigh_action,fr_calf_action,hl_hip_action,hl_thigh_action,hl_calf_action,hr_hip_action,hr_thigh_action,hr_calf_action
2025-07-21 14:30:36.456,0.0,0,0,0.021999814,-0.033357665,0.034531362,-0.01797184,0.008009088,-0.02245966,1.8549613,-1.2217573,0.0,0.0,-0.0073589683,0.0067951684,0.0077828513,0.009104036,-0.0050350092,0.0035732498,-0.007775386,-0.0004381042,-0.008567467,-0.0020068856,0.0075843516,0.00794833,0.02067133,-0.02089128,-0.06415588,0.06538839,0.0063399402,-0.040451415,0.0072635463,0.047522075,-0.044222403,-0.00023545108,-0.023861753,0.006400621,0.0,0.0,0.0,0.0,0.0,0.0,0.0,0.0,0.0,0.0,0.0,0.0,1.1731224,2.0,-2.0,2.0,2.0,-0.78617394,2.0,-0.42728135,-2.0,-2.0,-0.26969826,-2.0
2025-07-21 14:30:36.466,0.02,20,1,0.033603605,-0.06969215,0.036329526,-0.03304423,0.054867815,0.04378791,0.0,0.0,0.0,0.0,0.0027444914,0.066033185,-0.040357754,0.02659709,0.062624134,-0.020181175,0.00820979,0.0019920147,-0.046172556,-5.441428e-05,0.0015205862,-0.045310583,-0.021944894,0.2550239,-0.15248843,0.124835685,0.22085284,-0.06865654,0.12244806,0.019164594,-0.1447655,-0.043362375,-0.012980996,-0.21104905,1.1731224,2.0,-2.0,2.0,2.0,-0.78617394,2.0,-0.42728135,-2.0,-2.0,-0.26969826,-2.0,1.4206631,-0.28617042,-2.0,2.0,0.9516087,-2.0,2.0,-0.2972614,-2.0,-2.0,-0.972362,-2.0
2025-07-21 14:30:36.492,0.04,40,2,0.049942233,-0.16208886,-0.0021220464,0.009538308,0.03559587,0.044552054,0.0,0.0,0.0,-3.0822048e-05,0.021932956,0.089535974,-0.08707729,0.039213333,0.1310879,-0.07980206,0.03007824,-0.020098187,-0.086256854,-0.016854703,-0.037768796,-0.0828522,0.06508011,0.016494894,-0.025772704,0.069706745,0.1677303,-0.07297544,-0.034547705,-0.07853869,-0.015606033,-0.03286208,-0.07745814,0.021457551,1.4206631,-0.28617042,-2.0,2.0,0.9516087,-2.0,2.0,-0.2972614,-2.0,-2.0,-0.972362,-2.0,-1.5138276,1.2619402,-2.0,2.0,1.7402635,-2.0,2.0,-0.19140048,-2.0,-2.0,-0.41368228,-2.0
2025-07-21 14:30:36.510,0.06,60,3,0.10533241,0.031088244,5.085512e-05,-0.046933454,-0.009192235,0.004759955,0.0,0.0,0.0,-0.0001379293,0.028454466,0.08817907,-0.06075583,0.056710407,0.13211903,-0.08031633,0.034161385,-0.032861125,-0.06516409,-0.02213946,-0.05363853,-0.04474685,0.0026351488,-0.06540008,0.13762417,0.062128663,-0.0018973309,0.11422948,-0.068493865,-0.09552351,0.06882406,-0.076150715,-0.020839313,0.12744519,-1.5138276,1.2619402,-2.0,2.0,1.7402635,-2.0,2.0,-0.19140048,-2.0,-2.0,-0.41368228,-2.0,-2.0,0.18855204,-2.0,2.0,1.3128576,-2.0,2.0,-0.42488158,-2.0,-2.0,-1.333048,-2.0
2025-07-21 14:30:36.526,0.08,80,4,-0.080787666,0.060454547,0.00657347,0.029312855,0.050963957,0.016336005,0.0,0.0,0.0,-0.00029381074,0.026671594,0.0762136,-0.030172734,0.056242444,0.13194436,-0.05085358,0.032607,-0.059029605,-0.049814433,-0.025188282,-0.059567988,-0.015595371,0.035503585,0.0420567,0.08245684,-0.03898476,-0.018611832,0.10159099,-0.017028263,-0.082781084,0.012815126,-0.07314105,-0.015283231,0.03860641,-2.0,0.18855204,-2.0,2.0,1.3128576,-2.0,2.0,-0.42488158,-2.0,-2.0,-1.333048,-2.0,-2.0,1.6531451,-2.0,2.0,1.6305435,-2.0,2.0,-0.64698017,-2.0,-2.0,-1.0262797,-2.0
2025-07-21 14:30:36.546,0.1,100,5,-0.004732493,0.03515763,-0.02481327,-0.009604307,0.02859853,0.023244955,0.0,0.0,0.0,-0.00046955186,0.02215239,0.06307087,-0.012185206,0.04906203,0.13961484,-0.039531864,0.029001204,-0.056804128,-0.013135533,-0.03776626,-0.08371829,-0.0047964244,-0.074289024,0.030450886,-0.03452638,0.028076243,-0.048061095,0.022306822,0.06319427,0.0124967145,-0.035110492,-0.010592391,-0.002393158,0.039671157,-2.0,1.6531451,-2.0,2.0,1.6305435,-2.0,2.0,-0.64698017,-2.0,-2.0,-1.0262797,-2.0,-2.0,0.24911968,-2.0,2.0,0.5493329,-2.0,2.0,-0.5400982,-2.0,-2.0,-0.8856108,-2.0
2025-07-21 14:30:36.566,0.12000000000000001,120,6,-0.07472777,0.015134118,0.0062687355,0.012003377,-0.03656417,-0.034946542,0.0,0.0,0.0,-0.0007608772,0.010233509,0.060575735,-0.005183926,0.04002357,0.12379241,-0.047485296,0.025282007,-0.07263824,-0.011891595,-0.037082292,-0.095588565,0.009571197,0.042423137,0.06926389,0.016973792,-0.0076505714,-0.02273144,0.043348283,-0.036825832,0.017264724,0.101703934,-0.044983875,-0.036864318,0.0008119459,-2.0,0.24911968,-2.0,2.0,0.5493329,-2.0,2.0,-0.5400982,-2.0,-2.0,-0.8856108,-2.0,-2.0,1.2007608,-2.0,2.0,1.9902923,-2.0,2.0,-0.7845497,-2.0,-2.0,-1.4909042,-2.0
2025-07-21 14:30:36.592,0.14,140,7,-0.15417627,-0.041186612,-0.01723576,-0.025424523,-0.040605076,-0.012105513,0.0,0.0,0.0,-0.00106841,0.005903249,0.06632004,-0.013724522,0.04510344,0.1281883,-0.037620015,0.026676087,-0.08753593,0.0071848785,-0.03187856,-0.09475127,0.033648714,-0.05734089,-0.040865134,0.012561018,0.0552033,-0.0023415824,-0.082493044,0.008679849,-0.05526263,0.0116311805,0.04967456,-0.047173392,0.013659941,-2.0,1.2007608,-2.0,2.0,1.9902923,-2.0,2.0,-0.7845497,-2.0,-2.0,-1.4909042,-2.0,-2.0,0.90196806,-2.0,2.0,0.54797876,-2.0,2.0,-0.0637663,-2.0,-2.0,-0.3566084,-2.0
2025-07-21 14:30:36.610,0.16,160,8,-0.031924177,0.0027372164,0.0349491,0.063332595,-0.0031386341,-0.02086568,0.0,0.0,0.0,-0.0013001123,0.017055975,0.06875744,-0.020252036,0.036444303,0.13791814,-0.045806836,0.013515632,-0.0843562,0.004708618,-0.041206516,-0.108882576,0.022194775,-0.014716783,0.10093374,-0.08868613,-0.029224131,0.06334217,-0.022224251,0.011034231,-0.038349833,-0.0071223867,0.019687148,0.07768932,0.031066084,-2.0,0.90196806,-2.0,2.0,0.54797876,-2.0,2.0,-0.0637663,-2.0,-2.0,-0.3566084,-2.0,-2.0,-0.26143056,-2.0,2.0,2.0,-2.0,2.0,-0.03274229,-2.0,-2.0,-1.109929,-2.0
2025-07-21 14:30:36.627,0.18,180,9,-0.053349607,0.055702206,0.007362021,0.063287415,-0.0023692893,-0.012509438,0.0,0.0,0.0,-0.0015745907,0.011244131,0.09509465,-0.029959656,0.036245923,0.14424235,-0.065271795,0.0134149045,-0.058251332,-0.010140014,-0.05478085,-0.08907059,0.022065096,-0.07107356,-0.049995203,-0.043734815,0.07333268,0.05444433,0.034501344,-0.054034323,-0.0428808,-0.028377116,-0.020997142,0.059294812,-0.010362154,-2.0,-0.26143056,-2.0,2.0,2.0,-2.0,2.0,-0.03274229,-2.0,-2.0,-1.109929,-2.0,-2.0,1.3338265,-2.0,2.0,1.1553214,-2.0,2.0,-0.13206145,-2.0,-2.0,-0.19740929,-2.0
2025-07-21 14:30:36.647,0.19999999999999998,200,10,0.012214077,0.005544582,-0.039542157,-0.017956568,0.014743856,0.009682389,0.0,0.0,0.0,-0.0017094504,0.004893413,0.09339146,-0.037838515,0.049150206,0.15555878,-0.067682095,0.013204552,-0.05842964,-0.017082797,-0.040079616,-0.08424761,0.026214885,0.04346132,-0.0004223192,-0.059174865,0.052954435,0.087623484,-0.050490204,-0.038720414,0.087784246,-0.09777045,0.0041169915,0.05239013,0.026205018,-2.0,1.3338265,-2.0,2.0,1.1553214,-2.0,2.0,-0.13206145,-2.0,-2.0,-0.19740929,-2.0,-2.0,-0.15372808,-2.0,2.0,1.128961,-2.0,2.0,0.0053080022,-2.0,-2.0,-1.2305715,-2.0
2025-07-21 14:30:36.667,0.21999999999999997,220,11,-0.05892546,-0.072522916,0.028434379,0.054937378,0.019700151,-0.0491464,0.0,0.0,0.0,-0.0016126334,0.0036101379,0.10538824,-0.051829018,0.038662676,0.18131755,-0.06755502,0.021023868,-0.03142102,-0.007951857,-0.042951256,-0.07530543,0.019636815,0.038517002,-0.061335046,0.041548572,0.023137122,-0.0055456976,-0.07034146,-0.05714231,0.03743776,0.03684261,0.07028185,0.057713296,-0.004316507,-2.0,-0.15372808,-2.0,2.0,1.128961,-2.0,2.0,0.0053080022,-2.0,-2.0,-1.2305715,-2.0,-2.0,1.0631231,-2.0,2.0,1.5833986,-2.0,2.0,-0.5584614,-2.0,-2.0,-0.6991749,-2.0
2025-07-21 14:30:36.693,0.23999999999999996,240,12,-0.0839648,-0.060400575,-0.022239009,-0.027919317,-0.015438764,0.016039088,0.0,0.0,0.0,-0.0016020157,-0.00883481,0.11201137,-0.046581026,0.034558244,0.17595392,-0.08480303,0.02050609,-0.03971073,-0.0030814162,-0.043259285,-0.07209945,0.029269952,0.050008506,-0.03744026,-0.057039414,0.046730917,-0.007397591,-0.07675824,0.064451255,0.08135079,0.04498308,-0.036149785,-0.05640887,0.038472608,-2.0,1.0631231,-2.0,2.0,1.5833986,-2.0,2.0,-0.5584614,-2.0,-2.0,-0.6991749,-2.0,-2.0,0.24796142,-2.0,2.0,0.7272013,-2.0,2.0,-0.010615915,-2.0,-2.0,-0.53009427,-2.0
2025-07-21 14:30:36.710,0.25999999999999995,260,13,-0.0016460876,-0.014881748,-0.019492162,-0.008075127,0.041486733,0.0369755,0.0,0.0,0.0,-0.0014758976,-0.016832974,0.12826248,-0.052890934,0.042999823,0.18247125,-0.08165472,0.02208919,-0.040271178,-0.0070685064,-0.0409459,-0.07108284,0.023377797,-0.029361462,0.0188162,0.05170954,0.07063914,0.013160691,0.03282623,-0.026715748,0.01684945,-0.052421313,0.07019191,0.035692967,0.04664138,-2.0,0.24796142,-2.0,2.0,0.7272013,-2.0,2.0,-0.010615915,-2.0,-2.0,-0.53009427,-2.0,-2.0,0.6859088,-2.0,2.0,2.0,-2.0,2.0,-0.40623596,-2.0,-2.0,-1.3397769,-2.0
2025-07-21 14:30:36.727,0.27999999999999997,280,14,-0.0584357,-0.02820589,-0.039089918,0.042328533,0.0027740574,0.04961198,0.0,0.0,0.0,-0.0012103062,-0.011518738,0.12504761,-0.066451125,0.04478803,0.1936992,-0.08361636,0.019029107,-0.041674778,3.5551977e-05,-0.040208098,-0.07513071,0.038831778,0.063539244,0.07253148,0.054982483,-0.0552446,-0.0016351886,0.04616795,-0.039877053,0.0011977963,0.013225761,0.007884824,-0.085176185,0.0049769995,-2.0,0.6859088,-2.0,2.0,2.0,-2.0,2.0,-0.40623596,-2.0,-2.0,-1.3397769,-2.0,-2.0,0.81346977,-2.0,2.0,0.6290913,-2.0,2.0,-0.26066712,-2.0,-2.0,-0.629938,-2.0
2025-07-21 14:30:36.747,0.3,300,15,-0.03299613,-0.0600938,-0.022029787,0.008380185,0.034678254,-0.028950652,0.0,0.0,0.0,-0.0009281998,-0.015504959,0.13669352,-0.076243915,0.044681493,0.19567074,-0.082699925,0.015214593,-0.038886476,-0.008910118,-0.048650905,-0.064221665,0.031696074,0.028431104,-0.0054412093,0.03279266,0.02006205,-0.025123928,0.014432502,-0.01227738,0.014298697,0.051919073,0.035356592,0.061996803,0.069454834,-2.0,0.81346977,-2.0,2.0,0.6290913,-2.0,2.0,-0.26066712,-2.0,-2.0,-0.629938,-2.0,-2.0,0.49288505,-2.0,2.0,1.7527757,-2.0,2.0,-0.4017066,-2.0,-2.0,-1.3337556,-2.0
2025-07-21 14:30:36.767,0.32,320,16,-0.06669641,0.0010463033,-0.04339104,-0.0063076555,-0.03651928,0.0011789777,0.0,0.0,0.0,-0.0007274993,-0.018189738,0.12871698,-0.08021043,0.049211465,0.20292133,-0.081148036,0.0048287837,-0.04557384,0.009641618,-0.052318964,-0.07864816,0.043051694,0.0010984,0.05166873,-0.02488708,0.070521235,0.05497972,-0.031173201,-0.007324583,-0.073968634,0.001173708,0.029794486,0.007280523,0.081902996,-2.0,0.49288505,-2.0,2.0,1.7527757,-2.0,2.0,-0.4017066,-2.0,-2.0,-1.3337556,-2.0,-2.0,0.7520209,-2.0,2.0,1.1467544,-2.0,2.0,-0.015387446,-2.0,-2.0,-0.7558303,-2.0
2025-07-21 14:30:36.792,0.34,340,17,-0.03623592,0.0009728189,-0.013418744,0.05797581,-0.025439437,0.034356043,0.0,0.0,0.0,-0.00057895377,-0.012898468,0.14191675,-0.075854704,0.043550882,0.20092283,-0.086267464,0.009439961,-0.03399614,0.006430501,-0.05100067,-0.07127515,0.049366716,-0.0726197,-0.04126278,-0.0026004657,-0.0069446447,-0.064188324,0.026184928,-0.0013466105,0.03387535,0.0054443353,-0.0012887109,-0.04872016,0.023240045,-2.0,0.7520209,-2.0,2.0,1.1467544,-2.0,2.0,-0.015387446,-2.0,-2.0,-0.7558303,-2.0,-2.0,0.42879486,-2.0,2.0,1.4479527,-2.0,2.0,-0.31155708,-2.0,-2.0,-0.9703953,-2.0
2025-07-21 14:30:36.809,0.36000000000000004,360,18,-0.0038881977,-0.0069602006,0.02639984,0.00407293,0.02558925,-0.00087315124,0.0,0.0,0.0,-0.0005230207,-0.01975113,0.14429314,-0.07727346,0.038393173,0.21306029,-0.07481556,0.005052104,-0.023383642,0.013141745,-0.05445657,-0.0726372,0.051486984,0.06984626,0.076042846,-0.0058358978,-0.015863432,0.070668116,0.019752268,0.031433824,-0.04878963,-0.03121019,0.027368234,0.010347522,0.06434435,-2.0,0.42879486,-2.0,2.0,1.4479527,-2.0,2.0,-0.31155708,-2.0,-2.0,-0.9703953,-2.0,-2.0,0.41383725,-2.0,2.0,1.7348607,-2.0,2.0,-0.11727947,-2.0,-2.0,-0.9431497,-2.0
2025-07-21 14:30:36.827,0.38000000000000006,380,19,0.01465281,0.03394355,-0.034860406,0.062280964,-0.015641889,-0.035989046,0.0,0.0,0.0,-0.00047151343,-0.00996675,0.15452522,-0.07067091,0.053783644,0.22351195,-0.089021556,0.010384418,-0.031354297,0.016132642,-0.05499519,-0.06917091,0.06609014,-0.03632802,0.039018944,0.029945275,0.047547415,0.059952866,0.06442985,-0.013810687,-0.048069436,0.007223746,0.03878446,-0.012218649,-0.015554018,-2.0,0.41383725,-2.0,2.0,1.7348607,-2.0,2.0,-0.11727947,-2.0,-2.0,-0.9431497,-2.0,-2.0,0.44398552,-2.0,2.0,1.2576718,-2.0,2.0,-0.057721943,-2.0,-2.0,-0.99086285,-2.0
2025-07-21 14:30:36.847,0.4000000000000001,400,20,-0.0041828286,-0.043110516,-0.03376577,0.030033076,0.0019653132,-0.019715654,0.0,0.0,0.0,-0.0002590322,-0.007687664,0.15681435,-0.06967569,0.054830156,0.2135747,-0.07734959,0.0055384464,-0.017710853,0.008499973,-0.052368462,-0.06697504,0.067092784,-0.0046564615,-0.00315772,0.06863498,0.02220449,0.06748071,0.0515949,0.004295488,-0.025311163,0.07329599,0.028525151,-0.018433463,0.036037326,-2.0,0.44398552,-2.0,2.0,1.2576718,-2.0,2.0,-0.057721943,-2.0,-2.0,-0.99086285,-2.0,-2.0,0.6058204,-2.0,2.0,1.5061923,-2.0,2.0,-0.48297557,-2.0,-2.0,-1.3238555,-2.0
2025-07-21 14:30:36.867,0.4200000000000001,420,21,-0.029550442,-0.0028622455,-0.007467595,0.006374608,0.001621093,-0.021805033,0.0,0.0,0.0,-0.00010352026,-0.021687197,0.14614971,-0.066325635,0.03775029,0.21637884,-0.090783015,0.006862634,-0.03361564,0.015585364,-0.04445328,-0.0759723,0.069550544,-0.035223473,-0.020899057,0.03917233,0.061036877,-0.029138636,0.0064949784,0.032510716,0.035771202,-0.0137474,0.020629417,-0.008807347,0.075248115,-2.0,0.6058204,-2.0,2.0,1.5061923,-2.0,2.0,-0.48297557,-2.0,-2.0,-1.3238555,-2.0,-2.0,0.94330174,-2.0,2.0,1.2318575,-2.0,2.0,-0.25698483,-2.0,-2.0,-0.7835143,-2.0
2025-07-21 14:30:36.892,0.4400000000000001,440,22,0.0056536887,0.00850385,0.010968446,0.010040514,0.0037080392,0.0411615,0.0,0.0,0.0,-5.6523997e-05,-0.023860624,0.163664,-0.081492186,0.0420279,0.22555694,-0.07536684,0.021695001,-0.020913118,0.025885012,-0.05305123,-0.06854623,0.08885377,-0.018550761,0.031565275,0.0075073293,0.029632324,0.017219057,0.02364608,-0.009951569,-0.036549516,0.045540877,-0.031032095,0.050098497,0.027734889,-2.0,0.94330174,-2.0,2.0,1.2318575,-2.0,2.0,-0.25698483,-2.0,-2.0,-0.7835143,-2.0,-2.0,0.2571622,-2.0,2.0,1.5491297,-2.0,2.0,-0.29873055,-2.0,-2.0,-1.1434172,-2.0
2025-07-21 14:30:36.910,0.46000000000000013,460,23,-0.0011690359,0.025075456,-0.00011171555,0.077847265,-0.016605156,0.043878537,0.0,0.0,0.0,-4.4747852e-05,-0.011185068,0.16278093,-0.0676581,0.048463207,0.21806338,-0.086408585,0.0068043135,-0.033572942,0.03937387,-0.057370853,-0.083884336,0.07766937,-0.008199818,-0.04067247,0.037469953,-0.010582713,-0.0141523685,0.04424811,0.0649861,0.069872364,0.043058988,0.02627301,-0.07172455,0.05425843,-2.0,0.2571622,-2.0,2.0,1.5491297,-2.0,2.0,-0.29873055,-2.0,-2.0,-1.1434172,-2.0,-2.0,0.8611341,-2.0,2.0,1.1434486,-2.0,2.0,-0.41264385,-2.0,-2.0,-0.9134699,-2.0
2025-07-21 14:30:36.927,0.48000000000000015,480,24,0.004787262,-0.05909779,-0.05050935,0.031791512,-0.039633557,-0.004558199,0.0,0.0,0.0,1.8408724e-05,-0.016042106,0.16828974,-0.081423275,0.04117282,0.23073912,-0.07219245,0.015411105,-0.03648823,0.031886425,-0.04699188,-0.07615104,0.09078,-0.003389588,-0.025203303,-0.07104918,-0.03141121,0.06822043,-0.027305009,0.07436455,-0.03919298,0.06743575,0.038028624,-0.020841314,0.06105688,-2.0,0.8611341,-2.0,2.0,1.1434486,-2.0,2.0,-0.41264385,-2.0,-2.0,-0.9134699,-2.0,-2.0,0.3723563,-2.0,2.0,1.2162092,-2.0,2.0,-0.077993214,-2.0,-2.0,-1.1095065,-2.0
2025-07-21 14:30:36.948,0.5000000000000001,500,25,-0.0017864318,-0.047246825,0.00018241987,0.07911948,0.004549629,0.010207854,0.0,0.0,0.0,0.00011596684,-0.013382934,0.15619695,-0.072060145,0.05732261,0.22051634,-0.07357352,0.0112598725,-0.035829686,0.031895615,-0.055604026,-0.079234615,0.08760092,9.117673e-05,-0.063916214,0.051850196,0.003174131,-0.03452034,-0.018835766,0.062067773,-0.05041923,0.032714833,0.0107480725,-0.07022832,0.06646862,-2.0,0.3723563,-2.0,2.0,1.2162092,-2.0,2.0,-0.077993214,-2.0,-2.0,-1.1095065,-2.0,-2.0,0.6344215,-2.0,2.0,1.691993,-2.0,2.0,-0.24286863,-2.0,-2.0,-1.0557357,-2.0
2025-07-21 14:30:36.968,0.5200000000000001,520,26,0.014594802,0.01626988,0.040111244,0.019844906,0.037233144,0.015010661,0.0,0.0,0.0,6.038438e-05,-0.012500378,0.16512887,-0.065075405,0.049214333,0.23808748,-0.0718186,0.0028147635,-0.024478998,0.04154263,-0.059911564,-0.08077313,0.09211549,-0.06628965,0.06390864,-0.056011498,0.07180735,-0.027007706,-0.04728718,0.034970548,0.008334407,0.039543927,0.0065171337,-0.06918447,0.06522456,-2.0,0.6344215,-2.0,2.0,1.691993,-2.0,2.0,-0.24286863,-2.0,-2.0,-1.0557357,-2.0,-2.0,0.20608632,-2.0,2.0,1.4001551,-2.0,2.0,-0.18873712,-2.0,-2.0,-0.80469733,-2.0
2025-07-21 14:30:36.993,0.5400000000000001,540,27,0.030925475,0.06620376,-0.013074736,0.046417005,0.041082904,-0.0146461,0.0,0.0,0.0,-3.0002699e-05,-0.023192251,0.16360219,-0.06783994,0.044920444,0.2340696,-0.08369122,0.013148214,-0.019996729,0.031391185,-0.046761196,-0.08204423,0.10234279,0.06138291,0.039183736,0.053799912,0.004192042,0.074642204,0.027849931,0.0028916306,0.03475875,-0.04278617,0.011998746,0.038737748,-0.042558488,-2.0,0.20608632,-2.0,2.0,1.4001551,-2.0,2.0,-0.18873712,-2.0,-2.0,-0.80469733,-2.0,-2.0,0.35659188,-2.0,2.0,1.4424958,-2.0,2.0,-0.13316324,-2.0,-2.0,-1.0770229,-2.0
2025-07-21 14:30:37.009,0.5600000000000002,560,28,0.044676844,-4.3116615e-05,-0.041002437,0.02217676,-0.02619407,-0.032864533,0.0,0.0,0.0,7.250886e-05,-0.019668994,0.1679594,-0.066534124,0.046309657,0.22632465,-0.0839353,0.0046648965,-0.018464986,0.038683884,-0.055676214,-0.08016403,0.101934604,-0.030615473,0.04566268,-0.052383643,0.071300656,-0.06219034,-0.07021011,-0.039206613,-0.0065646484,0.065010555,0.07183107,-0.02981471,0.015070688,-2.0,0.35659188,-2.0,2.0,1.4424958,-2.0,2.0,-0.13316324,-2.0,-2.0,-1.0770229,-2.0,-2.0,0.6151235,-2.0,2.0,1.0992559,-2.0,2.0,-0.41969612,-2.0,-2.0,-1.06091,-2.0
2025-07-21 14:30:37.028,0.5800000000000002,580,29,-0.029343622,-0.04028768,0.02352779,0.00040488035,-0.041461412,0.008953936,0.0,0.0,0.0,0.00022477943,-0.02910625,0.16123098,-0.079665445,0.048197746,0.24011758,-0.07261299,0.012854219,-0.019300524,0.047203932,-0.059106536,-0.06629209,0.092979595,0.064229056,-0.02137988,-0.015524273,0.0079049235,-0.00760293,0.022031546,0.06228448,-0.062079687,0.02834834,0.0032762138,0.006819264,0.008416996,-2.0,0.6151235,-2.0,2.0,1.0992559,-2.0,2.0,-0.41969612,-2.0,-2.0,-1.06091,-2.0,-2.0,0.7015786,-2.0,2.0,1.7323446,-2.0,2.0,-0.24802183,-2.0,-2.0,-0.8695745,-2.0
2025-07-21 14:30:37.048,0.6000000000000002,600,30,0.024630602,0.040354304,-0.023231924,0.07222444,0.05494341,0.010392824,0.0,0.0,0.0,0.00028594362,-0.019220974,0.17189479,-0.06864567,0.047639,0.24541683,-0.082486406,0.010934122,-0.024022888,0.04003398,-0.04642868,-0.06862207,0.094216295,0.040746573,-0.036698394,-0.033184115,-0.01260361,-0.027149674,0.062480092,-0.026420714,-0.05213114,0.044194825,-0.05435191,-0.02573251,0.0678504,-2.0,0.7015786,-2.0,2.0,1.7323446,-2.0,2.0,-0.24802183,-2.0,-2.0,-0.8695745,-2.0,-2.0,0.19239299,-2.0,2.0,1.1304882,-2.0,2.0,-0.17447859,-2.0,-2.0,-0.9541826,-2.0
2025-07-21 14:30:37.070,0.6200000000000002,620,31,0.03547812,-0.0066019725,-0.043185797,0.0032330232,-0.017455416,0.046318423,0.0,0.0,0.0,0.00042595813,-0.025211887,0.17080228,-0.060963742,0.049684316,0.22699812,-0.063527144,0.012746125,-0.01964044,0.044221394,-0.06193032,-0.06706388,0.09607182,0.032828897,-0.04639434,-0.0266571,0.027954154,-0.009095397,0.022965083,-0.017241936,0.0712935,0.059080638,-0.07085314,-0.011084767,-0.012092313,-2.0,0.19239299,-2.0,2.0,1.1304882,-2.0,2.0,-0.17447859,-2.0,-2.0,-0.9541826,-2.0,-2.0,0.92438316,-2.0,2.0,1.2542682,-2.0,2.0,-0.65290713,-2.0,-2.0,-1.2534081,-2.0
2025-07-21 14:30:37.092,0.6400000000000002,640,32,-0.04365862,0.008461984,-0.008108472,0.030142235,0.0136561645,0.0011558569,0.0,0.0,0.0,0.0006078096,-0.01526384,0.16716087,-0.064199165,0.05577483,0.24346554,-0.075604774,0.019398723,-0.022445265,0.032728985,-0.060443632,-0.085408665,0.09932779,-0.049258884,0.02307743,-0.0010873184,-0.035373908,0.021200953,0.021925032,-0.05816816,-0.053139742,0.024523098,-0.018671257,0.019917855,-0.053432405,-2.0,0.92438316,-2.0,2.0,1.2542682,-2.0,2.0,-0.65290713,-2.0,-2.0,-1.2534081,-2.0,-2.0,0.74219286,-2.0,2.0,1.2186413,-2.0,2.0,-0.29372197,-2.0,-2.0,-0.9746037,-2.0
2025-07-21 14:30:37.109,0.6600000000000003,660,33,-0.049230237,-0.04111751,-0.025319627,0.072238654,0.048808742,-0.043762162,0.0,0.0,0.0,0.0006876161,-0.028009826,0.1562531,-0.07713435,0.050526395,0.2310397,-0.06731898,0.02206963,-0.034305718,0.052657507,-0.05938768,-0.07260538,0.098372206,-0.03627284,-0.0563599,0.057570167,0.0053727003,0.029856924,-0.013675758,0.026633134,-0.043845568,-0.05799912,0.0026873148,0.06467062,0.03148296,-2.0,0.74219286,-2.0,2.0,1.2186413,-2.0,2.0,-0.29372197,-2.0,-2.0,-0.9746037,-2.0,-2.0,0.2215846,-2.0,2.0,1.5977331,-2.0,2.0,0.13260931,-2.0,-2.0,-1.0842116,-2.0
2025-07-21 14:30:37.128,0.6800000000000003,680,34,0.006077139,-0.033093777,0.059780177,0.080218285,-0.040212516,-0.020899352,0.0,0.0,0.0,0.0006476309,-0.024817567,0.14963679,-0.0698459,0.064674556,0.2376268,-0.068168625,0.016185375,-0.025740158,0.042744737,-0.05414403,-0.08429131,0.107159466,-0.072863355,0.012721717,-0.03189019,-0.06544576,-0.008219523,-0.0041981055,-0.012208233,-0.01686696,0.009911966,0.02113877,-0.03963299,-0.031512152,-2.0,0.2215846,-2.0,2.0,1.5977331,-2.0,2.0,0.13260931,-2.0,-2.0,-1.0842116,-2.0,-2.0,0.28339392,-2.0,2.0,1.578042,-2.0,2.0,-0.18926683,-2.0,-2.0,-0.6555745,-2.0
2025-07-21 14:30:37.148,0.7000000000000003,700,35,0.077078804,0.086363696,-0.012252035,0.010435815,-0.0021619168,-0.027239012,0.0,0.0,0.0,0.0004696033,-0.034242198,0.15811923,-0.074878536,0.05114464,0.23794319,-0.06629621,0.016173381,-0.03246269,0.039398782,-0.059091903,-0.07858404,0.10092821,-0.023014577,0.011837802,0.0225666,-0.07442483,-0.052344937,0.048647124,0.064181715,0.028661536,-0.0050950167,0.036723766,0.060258966,-0.07357406,-2.0,0.28339392,-2.0,2.0,1.578042,-2.0,2.0,-0.18926683,-2.0,-2.0,-0.6555745,-2.0,-2.0,0.6457788,-2.0,2.0,1.169648,-2.0,2.0,-0.26884776,-2.0,-2.0,-0.87582976,-2.0
2025-07-21 14:30:37.170,0.7200000000000003,720,36,-0.018180458,0.030885259,-0.0025140024,-0.0066777417,0.0011279483,-0.040904544,0.0,0.0,0.0,0.0004590163,-0.028808486,0.15144035,-0.076562345,0.05262529,0.239175,-0.068393916,0.013512381,-0.018580833,0.03760988,-0.04639603,-0.07036501,0.08519832,0.055176068,-0.021839008,0.053775337,-0.05279264,-0.007710506,0.06634769,-0.0031702882,-0.029372983,-0.06546052,-0.037750762,-0.056840796,-0.017594725,-2.0,0.6457788,-2.0,2.0,1.169648,-2.0,2.0,-0.26884776,-2.0,-2.0,-0.87582976,-2.0,-2.0,0.32950616,-2.0,2.0,1.7981837,-2.0,2.0,-0.14970103,-2.0,-2.0,-1.1633121,-2.0
2025-07-21 14:30:37.192,0.7400000000000003,740,37,-0.025718095,-0.0110823065,0.02150851,0.045503717,-0.02139139,-0.005208931,0.0,0.0,0.0,0.00059939973,-0.018376252,0.14928706,-0.06274227,0.063803226,0.23282258,-0.08139232,0.009867473,-0.030608838,0.03710944,-0.05012592,-0.071951024,0.08422517,0.032919344,-0.057643097,-0.015148408,-0.044842135,0.04099278,-0.06603288,-0.05129848,-0.026435655,-0.07111051,-0.016385557,-0.030395422,-0.08079425,-2.0,0.32950616,-2.0,2.0,1.7981837,-2.0,2.0,-0.14970103,-2.0,-2.0,-1.1633121,-2.0,-2.0,0.46913093,-2.0,2.0,1.25144,-2.0,2.0,0.18630245,-2.0,-2.0,-0.39076662,-2.0
2025-07-21 14:30:37.209,0.7600000000000003,760,38,0.10433204,0.023878722,0.038936105,0.079565436,-0.0025005916,0.043973316,0.0,0.0,0.0,0.00073184504,-0.0376793,0.15486482,-0.06593593,0.04877715,0.23887952,-0.06366669,0.02016697,-0.019883528,0.03360929,-0.05126576,-0.055463474,0.08557467,0.07224929,0.046381008,-0.04109877,0.047073875,0.037091937,0.028162112,0.05397823,0.0843157,-0.010661164,-0.061786916,0.023915414,-0.03325177,-2.0,0.46913093,-2.0,2.0,1.25144,-2.0,2.0,0.18630245,-2.0,-2.0,-0.39076662,-2.0,-2.0,-0.2029741,-2.0,2.0,1.7308341,-2.0,2.0,-0.13834974,-2.0,-2.0,-0.9884409,-2.0
2025-07-21 14:30:37.229,0.7800000000000004,780,39,0.0060980977,0.050350305,-0.035877373,0.059544265,0.022318004,0.03370347,0.0,0.0,0.0,0.0008839685,-0.020751728,0.15368241,-0.05307066,0.063263714,0.24686119,-0.070662715,0.010090388,-0.007197667,0.024009848,-0.047963157,-0.060837835,0.07513261,-0.070612274,-0.020780398,-0.017489413,-0.052770402,-0.0044909897,-0.028116597,-0.04543934,0.016886508,-0.013129774,0.011314462,-0.0018667415,-0.050497722,-2.0,-0.2029741,-2.0,2.0,1.7308341,-2.0,2.0,-0.13834974,-2.0,-2.0,-0.9884409,-2.0,-2.0,0.7326209,-2.0,2.0,1.103085,-2.0,2.0,-0.14884844,-2.0,-2.0,-0.75897855,-2.0
2025-07-21 14:30:37.249,0.8000000000000004,800,40,0.0075490694,-0.034078058,0.022973217,0.060221825,-0.021856518,0.0007588087,0.0,0.0,0.0,0.0011911555,-0.03453395,0.14560336,-0.059430733,0.053427663,0.22769646,-0.07977249,0.0148943,-0.015779555,0.027735475,-0.049939767,-0.04571923,0.06970236,-0.031639982,0.009182569,0.030347422,-0.059410732,0.030082665,-0.035395887,-0.06288756,0.072521664,0.026490532,0.061283182,-0.005579934,-0.01175145,-2.0,0.7326209,-2.0,2.0,1.103085,-2.0,2.0,-0.14884844,-2.0,-2.0,-0.75897855,-2.0,-2.0,0.08623795,-2.0,2.0,1.4794749,-2.0,2.0,-0.27126667,-2.0,-2.0,-1.2045363,-2.0
2025-07-21 14:30:37.275,0.8200000000000004,820,41,0.007773773,-0.024923638,-0.0060933293,0.067972384,0.043613963,0.045686744,0.0,0.0,0.0,0.0014812343,-0.034980275,0.14105536,-0.05991495,0.06461874,0.23531584,-0.07793049,0.022991715,-0.017687544,0.018573768,-0.043808658,-0.053051263,0.062468175,0.014134272,0.05516994,0.012167778,-0.022975884,0.052554,-0.045899857,-0.04219227,-0.01102353,-0.0071929977,0.011542846,-0.027520968,-0.067272544,-2.0,0.08623795,-2.0,2.0,1.4794749,-2.0,2.0,-0.27126667,-2.0,-2.0,-1.2045363,-2.0,-2.0,0.6392523,-2.0,2.0,1.4714576,-2.0,2.0,-0.13726273,-2.0,-2.0,-0.90521866,-2.0
2025-07-21 14:30:37.292,0.8400000000000004,840,42,0.040036414,-0.051567867,0.0037965865,-0.020113485,-0.04090634,0.03581671,0.0,0.0,0.0,0.0016307359,-0.029485537,0.13948812,-0.058713324,0.05838069,0.22731715,-0.080049746,0.014269008,-0.022488175,0.029054655,-0.054173835,-0.065932035,0.06009946,-0.020434707,-0.037090864,0.023876138,-0.06535512,0.029726744,0.031933676,0.062870376,-0.0056700925,0.06332983,-0.0013553979,-0.05751963,0.06963024,-2.0,0.6392523,-2.0,2.0,1.4714576,-2.0,2.0,-0.13726273,-2.0,-2.0,-0.90521866,-2.0,-2.0,0.5375441,-2.0,2.0,1.4432068,-2.0,2.0,-0.35064635,-2.0,-2.0,-0.9970349,-2.0
2025-07-21 14:30:37.309,0.8600000000000004,860,43,-0.03744459,-0.030322475,0.016573442,0.020197552,-0.010697778,0.025808744,0.0,0.0,0.0,0.0016823757,-0.035078987,0.13009821,-0.06502561,0.05356557,0.23183529,-0.06501097,0.02058531,-0.033169568,0.02800607,-0.03873902,-0.06277727,0.06693145,-0.069457024,0.049052943,0.006150014,-0.004497997,-0.014729036,-0.039486013,0.07198078,-0.039575707,0.072882056,-0.028412042,-0.0020891253,0.050514784,-2.0,0.5375441,-2.0,2.0,1.4432068,-2.0,2.0,-0.35064635,-2.0,-2.0,-0.9970349,-2.0,-2.0,0.44900674,-2.0,2.0,1.677406,-2.0,2.0,-0.1548281,-2.0,-2.0,-1.0019447,-2.0
2025-07-21 14:30:37.329,0.8800000000000004,880,44,-0.034836695,0.028121268,-0.049124185,0.015094709,-0.042136975,-0.0038961049,0.0,0.0,0.0,0.001680928,-0.02692732,0.1288529,-0.06604911,0.061110985,0.21913211,-0.07569609,0.011809178,-0.037639316,0.0202354,-0.040249866,-0.06715322,0.06452042,0.040384747,0.030151667,-0.002013899,0.011393067,0.05587015,-0.037419632,-0.0062928493,-0.018856997,-0.058795054,-0.031325642,-0.015603634,-0.07009247,-2.0,0.44900674,-2.0,2.0,1.677406,-2.0,2.0,-0.1548281,-2.0,-2.0,-1.0019447,-2.0,-2.0,0.44300282,-2.0,2.0,1.1904919,-2.0,2.0,0.14919415,-2.0,-2.0,-0.78953135,-2.0
2025-07-21 14:30:37.349,0.9000000000000005,900,45,0.028494982,0.043313544,0.032364253,0.010933805,0.023288121,-0.037916347,0.0,0.0,0.0,0.0016928451,-0.029794896,0.13255039,-0.04933793,0.059989586,0.22838336,-0.072264336,0.022605231,-0.039018244,0.0081190625,-0.036314532,-0.07584654,0.06781658,0.034836233,-0.07013117,0.009044828,0.009833849,0.037956096,0.068221115,0.048353575,-0.052948717,-0.0282712,-0.018868674,-0.06547853,-0.040284134,-2.0,0.44300282,-2.0,2.0,1.1904919,-2.0,2.0,0.14919415,-2.0,-2.0,-0.78953135,-2.0,-2.0,0.62900275,-2.0,2.0,2.0,-2.0,2.0,-0.24683702,-2.0,-2.0,-0.9106505,-2.0
2025-07-21 14:30:37.375,0.9200000000000005,920,46,-0.010904417,0.020721518,0.012297567,-0.003081905,-0.018816216,0.014471851,0.0,0.0,0.0,0.0015439439,-0.03173219,0.12729998,-0.05976678,0.07316017,0.23081104,-0.07945972,0.018160421,-0.038749814,0.003912686,-0.04713077,-0.07557688,0.048634175,0.005126151,0.05502279,0.0219415,0.053840436,-0.05563031,0.03262447,-0.064651154,0.06547491,-0.0011367205,0.056367524,0.041800734,0.024228994,-2.0,0.62900275,-2.0,2.0,2.0,-2.0,2.0,-0.24683702,-2.0,-2.0,-0.9106505,-2.0,-2.0,0.50514096,-2.0,2.0,1.0882652,-2.0,2.0,-0.3289591,-2.0,-2.0,-0.8438326,-2.0
2025-07-21 14:30:37.392,0.9400000000000005,940,47,-0.034983065,0.04714336,-0.046634108,0.06757296,-0.01774855,0.029334657,0.0,0.0,0.0,0.0014422662,-0.035816927,0.13259615,-0.06546967,0.067560144,0.21769921,-0.072307535,0.023738153,-0.035103947,0.0013779468,-0.03774919,-0.068920635,0.049669847,-0.050139915,0.026969735,-0.04192956,0.07119346,-0.04275527,0.06985639,-0.064761415,0.06019853,0.044187274,0.0687554,-0.027029194,-0.014051468,-2.0,0.50514096,-2.0,2.0,1.0882652,-2.0,2.0,-0.3289591,-2.0,-2.0,-0.8438326,-2.0,-2.0,0.80603486,-2.0,2.0,1.400058,-2.0,2.0,-0.6661105,-2.0,-2.0,-1.4892807,-2.0
2025-07-21 14:30:37.409,0.9600000000000005,960,48,-0.038984798,-0.018538924,0.03377645,0.023601266,0.03166242,0.041309778,0.0,0.0,0.0,0.0014732647,-0.040172722,0.13253106,-0.05542933,0.056901906,0.22931732,-0.071973406,0.022237273,-0.043561924,0.02306036,-0.044547014,-0.07453083,0.06317865,0.04507141,0.049678195,-0.06649381,-0.008647259,-0.0174121,0.05140841,0.05020228,-0.07092869,-0.05696511,-0.005698477,-0.039728448,-0.013435404,-2.0,0.80603486,-2.0,2.0,1.400058,-2.0,2.0,-0.6661105,-2.0,-2.0,-1.4892807,-2.0,-2.0,1.0108442,-2.0,1.0592262,1.4785035,-2.0,2.0,-0.33248684,-2.0,-2.0,-0.6566078,-2.0
2025-07-21 14:30:37.429,0.9800000000000005,980,49,-0.0060437056,0.03701049,-0.0048527466,0.06886327,-0.02621483,-0.042051647,0.0,0.0,0.0,0.0014012582,-0.033392176,0.123887375,-0.06226799,0.060393665,0.21208562,-0.08061717,0.016631685,-0.047795862,0.022022713,-0.04987423,-0.084569976,0.06139571,-0.013795311,-0.07174083,-0.06153216,-0.045756802,-0.045298927,0.06764112,0.033483367,-0.02062461,-0.03239545,0.04644097,-0.010358571,0.0002410316,-2.0,1.0108442,-2.0,1.0592262,1.4785035,-2.0,2.0,-0.33248684,-2.0,-2.0,-0.6566078,-2.0,-2.0,0.4966408,-2.0,0.6229734,0.9968343,-2.0,2.0,0.01730007,-2.0,-2.0,-0.782752,-2.0
2025-07-21 14:30:37.450,1.0000000000000004,1000,50,-0.029408978,0.02461143,-0.05273137,0.014238005,-0.018364334,0.00627145,0.0,0.0,0.0,0.0014127127,-0.028170886,0.11647942,-0.06723344,0.06949696,0.20902963,-0.080011986,0.009867541,-0.038735386,0.0021540476,-0.049266536,-0.07839521,0.05722466,-0.033555903,-0.032279007,-0.0040058703,0.050156184,0.018884694,-0.05630238,-0.019323383,0.030611472,-0.070740014,0.00089439686,0.066483185,-0.05740924,-2.0,0.4966408,-2.0,0.6229734,0.9968343,-2.0,2.0,0.01730007,-2.0,-2.0,-0.782752,-2.0,-2.0,1.0576569,-2.0,1.6121238,1.0072324,-2.0,2.0,-0.0044595897,-2.0,-2.0,-0.80323875,-2.0
2025-07-21 14:30:37.470,1.0200000000000005,1020,51,0.009001682,-0.0594814,-0.021657746,-0.011726109,0.022604102,-0.04647322,0.0,0.0,0.0,0.0015280804,-0.036311526,0.12571765,-0.059965603,0.0683199,0.21353993,-0.08015995,0.009538753,-0.036040846,-0.0018525003,-0.051184367,-0.08612114,0.039628737,-0.0043778853,0.049053486,0.046543818,0.046567343,-0.023336615,-0.05326109,-0.02245698,0.088825606,0.05165844,-0.045987174,0.059071373,-0.06297794,-2.0,1.0576569,-2.0,1.6121238,1.0072324,-2.0,2.0,-0.0044595897,-2.0,-2.0,-0.80323875,-2.0,-2.0,0.5447462,-2.0,2.0,1.2167443,-2.0,2.0,-0.44714674,-2.0,-2.0,-1.069704,-2.0
2025-07-21 14:30:37.491,1.0400000000000005,1040,52,-0.023724642,-0.070537254,0.012072072,0.027397322,0.022826942,0.013237258,0.0,0.0,0.0,0.0013991985,-0.03391941,0.118950054,-0.05815633,0.071708396,0.22095022,-0.081176236,0.013044272,-0.042566568,-0.0013123723,-0.05976353,-0.07955652,0.049066696,0.019986516,0.06423213,-0.06985798,-0.03178856,-0.023027789,0.039038606,0.0730733,0.047693703,0.02710147,0.02764558,-0.03842568,0.07140996,-2.0,0.5447462,-2.0,2.0,1.2167443,-2.0,2.0,-0.44714674,-2.0,-2.0,-1.069704,-2.0,-2.0,0.8304598,-2.0,2.0,1.4856887,-2.0,2.0,-0.52202797,-2.0,-2.0,-1.0608568,-2.0
2025-07-21 14:30:37.516,1.0600000000000005,1060,53,-0.04091986,0.017826173,0.0035979787,0.052868992,-0.021935899,0.040175576,0.0,0.0,0.0,0.0011477863,-0.02439452,0.12114679,-0.067120925,0.06660789,0.2077503,-0.07068578,0.010218812,-0.039393757,0.010305233,-0.05347712,-0.076769546,0.045914438,0.066590555,0.029154513,-0.035065573,0.04923698,0.06389627,-0.028968023,-0.020655558,0.019604268,-0.028730161,0.0020951596,-0.031189071,-0.054602504,-2.0,0.8304598,-2.0,2.0,1.4856887,-2.0,2.0,-0.52202797,-2.0,-2.0,-1.0608568,-2.0,-2.0,0.4349075,-2.0,2.0,1.244223,-2.0,2.0,0.033594847,-2.0,-2.0,-0.8422757,-2.0
2025-07-21 14:30:37.530,1.0800000000000005,1080,54,0.049484674,-0.05312547,0.035841227,0.01672202,0.022072978,-0.012644584,0.0,0.0,0.0,0.0010282408,-0.028719423,0.12403682,-0.06866134,0.06503282,0.2045626,-0.07062994,0.014307296,-0.027978899,0.00042407695,-0.05481503,-0.08004147,0.055007055,0.0040139435,0.040407676,-0.03816936,-0.008241116,0.020943746,0.060992267,-0.002193164,0.053769987,-0.05233854,0.052828643,0.005166833,-0.04229205,-2.0,0.4349075,-2.0,2.0,1.244223,-2.0,2.0,0.033594847,-2.0,-2.0,-0.8422757,-2.0,-2.0,0.5671904,-2.0,2.0,1.739404,-2.0,2.0,-0.40754744,-2.0,-2.0,-0.84608096,-2.0
2025-07-21 14:30:37.550,1.1000000000000005,1100,55,0.004127169,-0.0013216147,0.009680398,-0.025594842,-0.010959532,-0.011591281,0.0,0.0,0.0,0.0009265055,-0.042675428,0.12251158,-0.061371792,0.05994405,0.20226443,-0.073582396,0.016899792,-0.044537596,-0.002145141,-0.046444245,-0.08788736,0.059906553,0.042043574,0.011367392,0.015939493,0.030493226,0.026861874,-0.010763242,0.00079492806,-0.025631497,-0.0016938448,-0.03837553,0.050379314,-0.055627212,-2.0,0.5671904,-2.0,2.0,1.739404,-2.0,2.0,-0.40754744,-2.0,-2.0,-0.84608096,-2.0,-2.0,0.759036,-2.0,1.4992377,1.4042468,-2.0,2.0,-0.056453556,-2.0,-2.0,-0.788276,-2.0
2025-07-21 14:30:37.576,1.1200000000000006,1120,56,0.0066523864,0.01934306,-0.024221376,0.027531289,0.051910955,0.0017469589,0.0,0.0,0.0,0.001029309,-0.037872545,0.12692718,-0.071867764,0.06720567,0.20563255,-0.075341135,0.005954853,-0.03633079,-0.008853706,-0.043297354,-0.080057964,0.04133575,0.037017502,0.002630975,0.0037303828,0.02952226,0.05958669,0.074269764,-0.04658217,0.026066562,0.042970583,-0.038532026,0.082542256,-0.0030201774,-2.0,0.759036,-2.0,1.4992377,1.4042468,-2.0,2.0,-0.056453556,-2.0,-2.0,-0.788276,-2.0,-2.0,0.584641,-2.0,2.0,1.2565744,-2.0,2.0,-0.40888858,-2.0,-2.0,-1.1313307,-2.0
2025-07-21 14:30:37.592,1.1400000000000006,1140,57,0.032980762,-0.037084457,0.010211038,0.06736616,0.03357621,-0.02155967,0.0,0.0,0.0,0.0013095723,-0.031990368,0.13556705,-0.066365086,0.06013033,0.21879832,-0.07901468,0.010636231,-0.03241903,-0.01528904,-0.04142522,-0.07389933,0.058553398,-0.074573,0.01714893,0.024390373,-0.068795376,0.0031017757,0.06607279,0.07194174,0.025598196,0.016395966,-0.05226452,-0.07513404,0.049499948,-2.0,0.584641,-2.0,2.0,1.2565744,-2.0,2.0,-0.40888858,-2.0,-2.0,-1.1313307,-2.0,-2.0,0.755926,-2.0,2.0,1.6466508,-2.0,2.0,-0.28376377,-2.0,-2.0,-1.1419532,-2.0
2025-07-21 14:30:37.610,1.1600000000000006,1160,58,-0.023133343,-0.03477425,-0.024905406,0.025197541,0.0106868,-0.01818095,0.0,0.0,0.0,0.0015248769,-0.038773175,0.13215104,-0.0693222,0.067648835,0.2036653,-0.08121845,0.0017406004,-0.04162089,0.0047865906,-0.04253415,-0.08407548,0.05066252,0.032527186,-0.062038455,0.0012549558,-0.044442434,-0.044598382,-0.06376897,-0.037751738,-0.044055186,-0.062360764,0.070820384,-0.058819603,-0.013470807,-2.0,0.755926,-2.0,2.0,1.6466508,-2.0,2.0,-0.28376377,-2.0,-2.0,-1.1419532,-2.0,-2.0,0.68792087,-2.0,2.0,1.1156994,-2.0,2.0,-0.014320284,-2.0,-2.0,-0.6331913,-2.0
2025-07-21 14:30:37.632,1.1800000000000006,1180,59,-0.017563093,0.0019351081,-0.04784503,-0.018456154,0.030974735,0.03665148,0.0,0.0,0.0,0.0016618934,-0.045585137,0.13333003,-0.07715786,0.061168816,0.20533684,-0.07483739,0.011324653,-0.027468411,-0.0050602444,-0.04974238,-0.078965604,0.051007178,-0.050241694,0.0064609786,-0.04497795,0.0320619,0.04104968,0.026478037,0.019208342,-0.05274939,-0.015452962,-0.06098499,-0.04990549,-0.03537395,-2.0,0.68792087,-2.0,2.0,1.1156994,-2.0,2.0,-0.014320284,-2.0,-2.0,-0.6331913,-2.0,-2.0,0.42262495,-2.0,2.0,1.8172665,-2.0,2.0,-0.16036096,-2.0,-2.0,-1.2059249,-2.0
2025-07-21 14:30:37.651,1.2000000000000006,1200,60,0.03773327,-0.037594154,0.010455948,-0.008315897,-0.019833315,0.041769624,0.0,0.0,0.0,0.0016996885,-0.03372701,0.13386811,-0.070872776,0.064421095,0.20587298,-0.069909304,0.00084433,-0.034307584,-0.0031202375,-0.05866465,-0.07435326,0.060226154,-0.054410465,-0.07183309,0.05737706,-0.0015409553,0.022224909,0.05984502,0.015593795,-0.06002025,0.048535787,-0.028671827,0.070020236,-0.05566011,-2.0,0.42262495,-2.0,2.0,1.8172665,-2.0,2.0,-0.16036096,-2.0,-2.0,-1.2059249,-2.0,-2.0,1.2013297,-2.0,2.0,1.2943106,-2.0,2.0,-0.30525216,-2.0,-2.0,-0.6278871,-2.0
2025-07-21 14:30:37.676,1.2200000000000006,1220,61,0.03607819,-0.01887341,0.002090948,-0.016368186,0.0012133565,0.047129836,0.0,0.0,0.0,0.001711707,-0.038917564,0.13542525,-0.08259596,0.056352645,0.21472792,-0.073826596,0.0018940666,-0.02331801,-0.0034455524,-0.041778583,-0.089874566,0.061644863,-0.016286105,-0.047681797,-0.05627685,-0.054254327,-0.054903507,0.062552795,0.05360124,0.013842413,-0.07534257,0.03847282,-0.024870526,-0.066968024,-2.0,1.2013297,-2.0,2.0,1.2943106,-2.0,2.0,-0.30525216,-2.0,-2.0,-0.6278871,-2.0,-2.0,0.2560966,-2.0,2.0,1.2564011,-2.0,2.0,-0.25310692,-2.0,-2.0,-0.8012861,-2.0
2025-07-21 14:30:37.692,1.2400000000000007,1240,62,-0.0054956554,0.0018981601,-0.04829268,0.017729165,-0.013447166,-0.007073905,0.0,0.0,0.0,0.0017537742,-0.0401776,0.13364904,-0.06855142,0.06904986,0.20800716,-0.060500205,0.0053227697,-0.031743936,-0.015246411,-0.049417693,-0.072484046,0.047238614,0.012728274,-0.07204443,0.026463136,-0.035664912,0.047125522,0.029499974,0.028127538,-0.05357982,0.027803676,0.023435082,0.058642346,-0.03487052,-2.0,0.2560966,-2.0,2.0,1.2564011,-2.0,2.0,-0.25310692,-2.0,-2.0,-0.8012861,-2.0,-2.0,1.0092915,-2.0,2.0,1.4241449,-2.0,2.0,-0.26173028,-2.0,-2.0,-1.1127418,-2.0
2025-07-21 14:30:37.713,1.2600000000000007,1260,63,-0.051609173,0.025435902,-0.03627397,-6.625677e-05,-0.00017569738,0.04114621,0.0,0.0,0.0,0.0019133075,-0.037671793,0.124059096,-0.07107352,0.053493015,0.22220172,-0.060712058,0.01807003,-0.026158715,-0.007376826,-0.040149026,-0.08550304,0.061928295,0.04779734,0.043981384,0.030017478,-0.04340285,-0.05502409,0.043026738,-0.059720073,0.02150218,0.050293144,-0.04759202,-0.008885948,0.04849904,-2.0,1.0092915,-2.0,2.0,1.4241449,-2.0,2.0,-0.26173028,-2.0,-2.0,-1.1127418,-2.0,-2.0,0.5447847,-2.0,2.0,1.062294,-2.0,2.0,-0.66625905,-2.0,-2.0,-1.2007011,-2.0
2025-07-21 14:30:37.732,1.2800000000000007,1280,64,-0.10445057,0.018694567,0.00723248,0.033516757,0.056562837,-0.009532971,0.0,0.0,0.0,0.002006801,-0.026975844,0.12476863,-0.076180376,0.06896712,0.2042368,-0.060757108,0.003843258,-0.042946197,-0.0039002562,-0.044151016,-0.0793334,0.059937492,0.016564416,-0.024507988,0.0649337,0.067378156,0.03746906,0.011373635,-0.047760796,0.02554164,0.027178003,-0.02558414,-0.04051617,-0.051026072,-2.0,0.5447847,-2.0,2.0,1.062294,-2.0,2.0,-0.66625905,-2.0,-2.0,-1.2007011,-2.0,-2.0,0.9888957,-2.0,2.0,1.7584391,-2.0,2.0,-0.36559743,-2.0,-2.0,-1.2372211,-2.0
2025-07-21 14:30:37.754,1.3000000000000007,1300,65,-0.034853976,0.0024897126,0.050084446,0.0021459071,0.048480302,0.039784268,0.0,0.0,0.0,0.0020054863,-0.037566803,0.13156915,-0.07278193,0.061794203,0.2125924,-0.066331685,0.0032668924,-0.04204444,0.0009405753,-0.044358876,-0.093340255,0.060077768,0.033008635,0.049323983,-0.060804144,-0.016443707,0.045109782,-0.05051466,-0.05132177,-0.046974942,-0.06194,-0.0036691534,-0.034661684,0.051674437,-2.0,0.9888957,-2.0,2.0,1.7584391,-2.0,2.0,-0.36559743,-2.0,-2.0,-1.2372211,-2.0,-2.0,0.35294563,-2.0,2.0,1.473855,-2.0,2.0,-0.047751278,-2.0,-2.0,-0.71655864,-2.0
2025-07-21 14:30:37.776,1.3200000000000007,1320,66,-0.0047408943,0.0409516,-0.022061255,0.04435779,0.05224027,0.04684926,0.0,0.0,0.0,0.0019788193,-0.036420386,0.13054699,-0.085012525,0.06269775,0.22315381,-0.08073708,0.019136917,-0.047824904,-0.0033200567,-0.045284938,-0.103539325,0.066093385,-0.014070858,-0.056501433,0.07132098,-0.00715287,-0.0011897546,0.024072103,-0.004401864,0.04561731,0.00017669467,-0.01922137,-0.022956325,-0.03294442,-2.0,0.35294563,-2.0,2.0,1.473855,-2.0,2.0,-0.047751278,-2.0,-2.0,-0.71655864,-2.0,-2.0,0.608762,-2.0,2.0,1.4338253,-2.0,2.0,-0.34521434,-2.0,-2.0,-1.1676143,-2.0
2025-07-21 14:30:37.803,1.3400000000000007,1340,67,0.0069796643,0.03233617,-0.017182615,0.06773191,0.014383196,0.034108292,0.0,0.0,0.0,0.001990588,-0.047058135,0.12675259,-0.07970728,0.06442037,0.21568123,-0.06882983,0.0057355682,-0.036776476,-0.00076772476,-0.054665104,-0.088330224,0.07709888,0.0070667816,-0.005749196,0.0051289615,-0.07090226,-0.05110759,-0.024552388,-0.05544434,0.047481477,-0.0029880304,0.0008682859,-0.02167499,-0.045443308,-2.0,0.608762,-2.0,2.0,1.4338253,-2.0,2.0,-0.34521434,-2.0,-2.0,-1.1676143,-2.0,-2.0,0.7375903,-2.0,2.0,1.1059734,-2.0,2.0,-0.3308334,-2.0,-2.0,-0.9752281,-2.0
2025-07-21 14:30:37.826,1.3600000000000008,1360,68,-0.010002334,-0.04115308,-0.030312892,0.06554397,0.031224586,-0.015603382,0.0,0.0,0.0,0.0020277817,-0.038158275,0.12807216,-0.07025034,0.070041366,0.21073401,-0.07440201,0.008252357,-0.04012331,-0.0025729393,-0.056619704,-0.10119783,0.07619245,-0.06321997,-0.07177815,0.045293245,0.00019705117,-0.008853557,0.02625085,0.019609237,0.036221948,0.015658291,-0.07383991,0.03848791,0.037480418,-2.0,0.7375903,-2.0,2.0,1.1059734,-2.0,2.0,-0.3308334,-2.0,-2.0,-0.9752281,-2.0,-2.0,0.6948841,-2.0,2.0,1.5169072,-2.0,2.0,-0.28802744,-2.0,-2.0,-1.3035845,-2.0
2025-07-21 14:30:37.851,1.3800000000000008,1380,69,0.011549633,-0.010513017,0.011482872,0.055694703,0.018909032,0.04542404,0.0,0.0,0.0,0.0019669866,-0.030019715,0.13762552,-0.07253787,0.06398379,0.21106178,-0.07707305,0.014429758,-0.031988043,0.00077676907,-0.04054522,-0.09339572,0.08171597,0.070411764,-0.009851197,0.07304521,0.024914045,-0.028286979,0.025441526,0.028111156,0.012451736,0.07136567,0.020177107,0.05406371,0.006840517,-2.0,0.6948841,-2.0,2.0,1.5169072,-2.0,2.0,-0.28802744,-2.0,-2.0,-1.3035845,-2.0,-2.0,1.0763209,-2.0,2.0,1.1746763,-2.0,2.0,-0.52427924,-2.0,-2.0,-0.88655764,-2.0
2025-07-21 14:30:37.876,1.4000000000000008,1400,70,-0.03196951,-0.020956298,0.047001716,0.029503223,0.051165756,-0.014967742,0.0,0.0,0.0,0.0017661864,-0.040961295,0.1431744,-0.07670996,0.06681274,0.2126872,-0.06410486,0.009503623,-0.03379038,-0.0010169972,-0.054152217,-0.09720829,0.06929918,-0.040952314,0.063889876,-0.05528184,-0.00024651407,0.06552626,0.048880342,-0.003232407,0.045562774,0.05583518,0.034868952,0.03496233,-0.020897437,-2.0,1.0763209,-2.0,2.0,1.1746763,-2.0,2.0,-0.52427924,-2.0,-2.0,-0.88655764,-2.0,-2.0,0.42131913,-2.0,2.0,1.5475931,-2.0,2.0,-0.4337586,-2.0,-2.0,-1.1501645,-2.0
2025-07-21 14:30:37.892,1.4200000000000008,1420,71,-0.024891136,0.004852039,0.013856845,0.016388344,0.0054393155,0.04154186,0.0,0.0,0.0,0.0015405862,-0.03824995,0.13958117,-0.0737052,0.07008036,0.22460583,-0.08222874,0.015290553,-0.039109133,0.0073487703,-0.05379578,-0.10762948,0.08205531,-2.042192e-05,0.027973082,-0.03075278,0.006782473,0.057073172,0.011707152,0.067381874,-0.07246249,-0.06513947,0.013089051,0.03833166,0.032013305,-2.0,0.42131913,-2.0,2.0,1.5475931,-2.0,2.0,-0.4337586,-2.0,-2.0,-1.1501645,-2.0,-2.0,0.88548714,-2.0,2.0,1.6243875,-2.0,2.0,-0.008190304,-2.0,-2.0,-0.78950363,-2.0
2025-07-21 14:30:37.911,1.4400000000000008,1440,72,0.0040893,-0.018701151,-0.033353534,0.07314277,-0.008340607,-0.014391963,0.0,0.0,0.0,0.0014717415,-0.04261946,0.13796751,-0.07451275,0.07213633,0.2262294,-0.07476156,0.015207166,-0.0332747,0.001566805,-0.04734793,-0.08843607,0.07613308,-0.06689543,0.037917916,0.0014468436,0.04960253,-0.017966017,-0.048882823,0.05954551,0.059814382,-0.069496445,0.03348733,-0.0018071422,-0.070940465,-2.0,0.88548714,-2.0,2.0,1.6243875,-2.0,2.0,-0.008190304,-2.0,-2.0,-0.78950363,-2.0,-2.0,0.059812233,-2.0,2.0,1.1579082,-2.0,2.0,0.14617574,-2.0,-2.0,-0.88688844,-2.0
2025-07-21 14:30:37.934,1.4600000000000009,1460,73,0.0036761295,-0.03140649,0.013244368,0.04767477,0.014481812,-0.00032442127,0.0,0.0,0.0,0.001465867,-0.04029378,0.13918437,-0.06845089,0.06573899,0.21837538,-0.06829889,0.00019381853,-0.031814966,0.013113657,-0.047002364,-0.08416788,0.075325325,0.04931537,-0.066392705,-0.042956002,0.0078406595,0.0026046168,-0.043393955,-0.037767567,-0.027471181,-0.046667904,0.0057104207,0.011744314,-0.012746478,-2.0,0.059812233,-2.0,2.0,1.1579082,-2.0,2.0,0.14617574,-2.0,-2.0,-0.88688844,-2.0,-2.0,0.6030378,-2.0,2.0,1.8125978,-2.0,2.0,-0.19836208,-2.0,-2.0,-0.7539157,-2.0
2025-07-21 14:30:37.951,1.4800000000000009,1480,74,0.009986303,0.04592741,0.013851262,-0.021115242,-0.03205521,-0.026715731,0.0,0.0,0.0,0.0013645731,-0.039013427,0.13512401,-0.07065503,0.057858545,0.21624437,-0.077527925,0.0045561097,-0.013789441,0.010147991,-0.043045327,-0.07657627,0.06439961,0.058015168,0.073951796,-0.047196187,0.053689387,0.064153776,-0.030920066,-0.0177704,-0.009671443,0.035059195,0.06276466,0.07851127,0.0425879,-2.0,0.6030378,-2.0,2.0,1.8125978,-2.0,2.0,-0.19836208,-2.0,-2.0,-0.7539157,-2.0,-2.0,0.18982632,-2.0,2.0,1.2788626,-2.0,2.0,-0.07705256,-2.0,-2.0,-0.84450966,-2.0
2025-07-21 14:30:37.978,1.5000000000000009,1500,75,-0.00076525717,0.040422533,0.00046372358,0.069364615,0.048211943,0.026503893,0.0,0.0,0.0,0.0014085958,-0.04122455,0.14319967,-0.058593534,0.07131252,0.22206326,-0.05849159,0.012990988,-0.023010327,-0.0014548275,-0.049140237,-0.073492676,0.06174104,0.06956621,-0.07207087,0.045273516,-0.07537474,-0.012451179,0.07712978,-0.011813187,0.011068096,-0.020184917,-0.008685682,-0.0073955213,-0.037839722,-2.0,0.18982632,-2.0,2.0,1.2788626,-2.0,2.0,-0.07705256,-2.0,-2.0,-0.84450966,-2.0,-2.0,0.81406885,-2.0,2.0,1.5261683,-2.0,2.0,-0.44508594,-2.0,-2.0,-1.0616641,-2.0
2025-07-21 14:30:37.993,1.520000000000001,1520,76,-0.012643978,-0.03111291,-0.020396456,-0.0041689263,0.056294214,-0.041252825,0.0,0.0,0.0,0.0016364123,-0.049020182,0.14983559,-0.06435931,0.074148856,0.23251292,-0.06944434,-0.00080763514,-0.028410526,0.006820996,-0.04958735,-0.06629074,0.05412486,-0.041421685,-0.03455891,-0.058180533,-0.058807746,-0.057155833,0.04704613,0.047722276,-0.030850228,0.07156215,0.038269043,-0.023140343,0.045804508,-2.0,0.81406885,-2.0,2.0,1.5261683,-2.0,2.0,-0.44508594,-2.0,-2.0,-1.0616641,-2.0,-2.0,0.8320896,-2.0,2.0,1.1766708,-2.0,2.0,-0.4392201,-2.0,-2.0,-0.9007392,-2.0
2025-07-21 14:30:38.014,1.540000000000001,1540,77,-0.02953785,0.00747113,-0.009597208,0.04386639,0.015605735,-0.040814724,0.0,0.0,0.0,0.0018843322,-0.032645438,0.14559571,-0.07053537,0.0634063,0.22295856,-0.057710838,0.00807951,-0.025423061,-0.0015671791,-0.05180462,-0.071295634,0.06522451,0.0024277277,0.049052715,-0.069395155,-0.06958364,-0.04262794,-0.056412593,0.032963514,-0.019054692,-0.03627188,0.025176635,-0.049119342,0.069794595,-2.0,0.8320896,-2.0,2.0,1.1766708,-2.0,2.0,-0.4392201,-2.0,-2.0,-0.9007392,-2.0,-2.0,0.019307777,-2.0,2.0,1.5239198,-2.0,2.0,0.042887956,-2.0,-2.0,-1.0622588,-2.0
2025-07-21 14:30:38.031,1.560000000000001,1560,78,-0.020537728,0.00757701,-0.052912463,0.0056955167,-0.015176158,0.036833096,0.0,0.0,0.0,0.002107659,-0.04471531,0.14220077,-0.07512298,0.07496347,0.23680581,-0.07696603,0.013667851,-0.03437442,0.00826628,-0.041779738,-0.080097295,0.062691554,0.05583199,0.063534044,0.038281918,0.07373377,-0.020493038,-0.007425412,-0.01021128,-0.01499742,0.03421556,0.047157574,-0.016606806,-0.032798994,-2.0,0.019307777,-2.0,2.0,1.5239198,-2.0,2.0,0.042887956,-2.0,-2.0,-1.0622588,-2.0,-2.0,0.9100681,-2.0,2.0,1.2871876,-2.0,2.0,-0.4654589,-2.0,-2.0,-1.1428119,-2.0
2025-07-21 14:30:38.057,1.580000000000001,1580,79,-0.04663443,-0.0028810585,0.004680982,-0.021423407,0.05485883,0.042927887,0.0,0.0,0.0,0.0022405973,-0.043267317,0.136736,-0.06523777,0.076112404,0.23637824,-0.076254964,0.016818749,-0.036416396,0.023002073,-0.04157826,-0.079735644,0.069065966,0.07547815,-0.028779149,-0.056076325,0.0063711987,-0.007084179,-0.04045134,0.009436605,0.010746978,0.0042484133,-0.06430184,-0.0441161,-0.04195884,-2.0,0.9100681,-2.0,2.0,1.2871876,-2.0,2.0,-0.4654589,-2.0,-2.0,-1.1428119,-2.0,-2.0,0.79158515,-2.0,2.0,1.3879588,-2.0,2.0,-0.33386692,-2.0,-2.0,-0.80087,-2.0
2025-07-21 14:30:38.078,1.600000000000001,1600,80,-0.03299677,-0.008512307,-0.036777396,0.012980774,0.020097626,0.022762159,0.0,0.0,0.0,0.002225726,-0.041488983,0.13712703,-0.07510499,0.06538231,0.22423403,-0.07028834,0.008741119,-0.037931833,0.007173764,-0.040910956,-0.07611439,0.07785377,-0.02585877,0.03109751,-0.056003146,0.012486749,0.007923123,-0.054967493,0.02059472,-0.074115954,-0.021008864,-0.06379625,-0.0293299,-0.06615727,-2.0,0.79158515,-2.0,2.0,1.3879588,-2.0,2.0,-0.33386692,-2.0,-2.0,-0.80087,-2.0,-2.0,0.26153392,-2.0,2.0,1.4529434,-2.0,2.0,0.09763196,-2.0,-2.0,-0.9903981,-2.0
2025-07-21 14:30:38.096,1.620000000000001,1620,81,0.01420143,0.00046797178,-0.008412264,0.0177127,0.019109586,0.011634629,0.0,0.0,0.0,0.0021790115,-0.034804247,0.13116162,-0.059551038,0.0631341,0.2364637,-0.07578365,0.019148432,-0.02676485,0.0064698965,-0.04665242,-0.08154733,0.07106808,-0.013212118,0.06334707,-0.06273478,-0.051081542,0.02672472,0.006631282,0.030603668,-0.044866666,0.050824154,-0.0044114445,0.05068643,-0.03462459,-2.0,0.26153392,-2.0,2.0,1.4529434,-2.0,2.0,0.09763196,-2.0,-2.0,-0.9903981,-2.0,-2.0,0.78067505,-2.0,2.0,1.4153479,-2.0,2.0,-0.43332285,-2.0,-2.0,-0.83171076,-2.0
2025-07-21 14:30:38.113,1.640000000000001,1640,82,-0.015868692,-0.006238109,0.022077171,0.055584174,-0.0010369815,-0.021190919,0.0,0.0,0.0,0.002077239,-0.047375295,0.13808897,-0.07190164,0.077947214,0.22031064,-0.06899228,0.0053292117,-0.030732337,0.02177021,-0.051567167,-0.08403277,0.07202085,0.054634538,0.07284438,-0.011410283,0.058307126,-0.042823408,0.06699784,-0.004533673,-0.042734124,0.026051408,0.013904588,0.030793281,-0.029814124,-2.0,0.78067505,-2.0,2.0,1.4153479,-2.0,2.0,-0.43332285,-2.0,-2.0,-0.83171076,-2.0,-2.0,0.49577773,-2.0,1.518419,1.5824478,-2.0,2.0,-0.3213712,-2.0,-2.0,-1.1899699,-2.0
2025-07-21 14:30:38.134,1.660000000000001,1660,83,-0.06263486,-0.024597513,-0.033821054,-0.016187096,-0.017446784,0.012880959,0.0,0.0,0.0,0.002002483,-0.03194313,0.14669183,-0.071763866,0.072545305,0.22962804,-0.068912424,0.0037665737,-0.023620632,0.013008611,-0.04032387,-0.07410138,0.06520015,0.027356407,-0.07705842,0.020100513,0.059095707,0.037014842,-0.06854212,-0.019064978,-0.06341356,-0.040953815,0.048105754,0.052530568,0.012061266,-2.0,0.49577773,-2.0,1.518419,1.5824478,-2.0,2.0,-0.3213712,-2.0,-2.0,-1.1899699,-2.0,-2.0,0.859767,-2.0,2.0,1.2308202,-2.0,2.0,0.1132935,-2.0,-2.0,-0.67574567,-2.0
2025-07-21 14:30:38.156,1.680000000000001,1680,84,0.06362823,0.051118992,0.036724426,0.030573674,-0.029744286,-0.011516174,0.0,0.0,0.0,0.002048352,-0.045601867,0.1295633,-0.06717235,0.07157515,0.23306312,-0.07045278,0.004563906,-0.024074676,0.022041121,-0.045139115,-0.08029329,0.07345515,0.0022424527,-0.0076664872,0.052405443,0.059821814,-0.028042687,0.0013426868,0.011974162,-0.032951813,0.004829455,-0.031922944,0.0694019,-0.08088525,-2.0,0.859767,-2.0,2.0,1.2308202,-2.0,2.0,0.1132935,-2.0,-2.0,-0.67574567,-2.0,-2.0,0.23327307,-2.0,2.0,1.8751414,-2.0,2.0,-0.22524674,-2.0,-2.0,-1.1210182,-2.0
2025-07-21 14:30:38.176,1.700000000000001,1700,85,-0.025635218,0.04381626,0.0013122841,0.019503858,0.042772718,-0.009457022,0.0,0.0,0.0,0.0019582089,-0.0306878,0.13382672,-0.05817829,0.07830279,0.23173597,-0.06798897,0.017249966,-0.020306496,0.014886889,-0.04356888,-0.07664915,0.058168117,0.026145374,-0.06827165,0.069187246,0.060299467,-0.03498051,0.017526502,0.067916006,0.057823963,0.009012234,0.01784221,0.04663501,-0.06590045,-2.0,0.23327307,-2.0,2.0,1.8751414,-2.0,2.0,-0.22524674,-2.0,-2.0,-1.1210182,-2.0,-2.0,1.0506811,-2.0,2.0,1.0768672,-2.0,2.0,-0.22594765,-2.0,-2.0,-0.5365702,-2.0
2025-07-21 14:30:38.193,1.720000000000001,1720,86,0.005666225,-0.014510746,0.027321134,0.059574552,0.001406266,0.030607814,0.0,0.0,0.0,0.0018902344,-0.044343263,0.14874944,-0.070857175,0.06450619,0.23997533,-0.06513917,0.012291619,-0.017842973,0.013654961,-0.042012654,-0.063076094,0.06794902,0.01541859,0.06837612,-0.023085875,-0.055454433,0.015953915,-0.03135088,-0.048018526,0.06911538,0.023014592,-0.02945172,0.049010586,0.015965214,-2.0,1.0506811,-2.0,2.0,1.0768672,-2.0,2.0,-0.22594765,-2.0,-2.0,-0.5365702,-2.0,-2.0,-0.33818114,-2.0,2.0,1.540998,-2.0,2.0,-0.23048773,-2.0,-2.0,-1.3331522,-2.0
2025-07-21 14:30:38.213,1.740000000000001,1740,87,-0.07443447,-0.031307843,0.017699499,0.060133718,-0.037762415,0.048239797,0.0,0.0,0.0,0.0019190786,-0.040507827,0.1441955,-0.066512704,0.06341539,0.23930374,-0.06741441,0.003291527,-0.02251134,0.0060384395,-0.040076543,-0.08511839,0.05278441,-0.00634505,-0.0052844547,0.07412238,0.068306245,0.0018444256,0.042120863,-0.033646353,0.024971997,0.057988513,-0.015083814,-0.016073951,-0.030159004,-2.0,-0.33818114,-2.0,2.0,1.540998,-2.0,2.0,-0.23048773,-2.0,-2.0,-1.3331522,-2.0,-2.0,1.0972025,-2.0,2.0,1.5315813,-2.0,2.0,-0.55808884,-2.0,-2.0,-1.0094988,-2.0
2025-07-21 14:30:38.232,1.7600000000000011,1760,88,-0.008637995,-0.002619914,-0.027044136,-0.014675157,-0.012766461,-0.035819814,0.0,0.0,0.0,0.0019726034,-0.047188085,0.1409261,-0.05870065,0.07094752,0.22624847,-0.07299869,0.01913612,-0.03273896,0.0154989995,-0.050335053,-0.0761224,0.07245283,-0.03858961,0.0021785845,-0.018907018,0.05241114,0.07021532,0.06272905,0.052749965,0.022036731,0.0008788963,-0.033604205,-0.057815474,0.038894393,-2.0,1.0972025,-2.0,2.0,1.5315813,-2.0,2.0,-0.55808884,-2.0,-2.0,-1.0094988,-2.0,-2.0,0.45081538,-2.0,2.0,1.2362388,-2.0,2.0,-0.09803432,-2.0,-2.0,-1.0056738,-2.0
2025-07-21 14:30:38.259,1.7800000000000011,1780,89,-0.041939836,0.029957045,-0.020677418,-0.00060606725,0.05782712,-0.040524073,0.0,0.0,0.0,0.002074185,-0.042532485,0.13291655,-0.07683297,0.06592484,0.23988183,-0.07225485,0.019140216,-0.041604143,0.019810522,-0.048308365,-0.081720114,0.07588568,0.03796813,-0.03350841,-0.011238178,0.005845309,-0.0104852235,0.06448033,0.02594884,-0.0073087025,-0.037811637,-0.06048023,0.020561581,0.01648689,-2.0,0.45081538,-2.0,2.0,1.2362388,-2.0,2.0,-0.09803432,-2.0,-2.0,-1.0056738,-2.0,-2.0,0.6827234,-2.0,2.0,1.6957278,-2.0,2.0,-0.34541282,-2.0,-2.0,-1.0915167,-2.0
2025-07-21 14:30:38.283,1.8000000000000012,1800,90,-0.027450668,0.034852665,0.0073828185,0.057614714,0.014583722,0.021102043,0.0,0.0,0.0,0.0020593125,-0.04992524,0.12411821,-0.07493353,0.07577527,0.22850156,-0.08620655,0.01097803,-0.035298184,0.02637092,-0.05516565,-0.07800735,0.073320486,-0.025840022,0.021023061,0.038881477,-0.058040444,-0.038163863,-0.06418875,-0.005130944,-0.060880642,-0.06965139,0.006137397,-0.04847926,-0.0688349,-2.0,0.6827234,-2.0,2.0,1.6957278,-2.0,2.0,-0.34541282,-2.0,-2.0,-1.0915167,-2.0,-2.0,0.4402427,-2.0,2.0,1.387454,-2.0,2.0,0.16005072,-2.0,-2.0,-0.743274,-2.0
2025-07-21 14:30:38.308,1.8200000000000012,1820,91,0.07548775,-0.0031474433,-0.042267334,0.002789266,0.012651974,0.029346136,0.0,0.0,0.0,0.001979843,-0.04940637,0.1334961,-0.06936093,0.07768618,0.22742534,-0.08251026,0.015158834,-0.038858075,0.01347791,-0.039718915,-0.07785695,0.06235,0.04588724,-0.023775917,0.042487554,-0.06633369,-0.056833938,0.0113335885,0.06715982,0.03824068,-0.04218844,-0.06730422,-0.014922072,-0.006281411,-2.0,0.4402427,-2.0,2.0,1.387454,-2.0,2.0,0.16005072,-2.0,-2.0,-0.743274,-2.0,-2.0,0.70371157,-2.0,2.0,1.3151194,-2.0,2.0,-0.3102939,-2.0,-2.0,-1.0336183,-2.0
2025-07-21 14:30:38.325,1.8400000000000012,1840,92,0.03371183,0.034724355,0.014342735,0.026289342,0.039426196,0.044605453,0.0,0.0,0.0,0.0018627035,-0.030875457,0.12784497,-0.062029336,0.07976407,0.23897545,-0.082380936,0.0031645508,-0.023658883,0.002877154,-0.04388875,-0.07198016,0.0636919,-0.035298515,0.037113212,-0.07027116,-0.014333521,0.056632303,-0.05693246,0.013112406,-0.022877334,0.06947092,0.03679076,0.025031537,-0.07225432,-2.0,0.70371157,-2.0,2.0,1.3151194,-2.0,2.0,-0.3102939,-2.0,-2.0,-1.0336183,-2.0,-2.0,0.76711625,-2.0,2.0,1.4837307,-2.0,2.0,-0.29303253,-2.0,-2.0,-0.922111,-2.0
2025-07-21 14:30:38.344,1.8600000000000012,1860,93,-0.023545578,-0.019767525,0.027121399,0.02635216,-0.011185294,-0.02769025,1.5,0.0,0.0,0.0016644498,-0.046246897,0.12922361,-0.05939872,0.08101821,0.22373757,-0.08061354,0.013287346,-0.025781862,0.007065236,-0.0406353,-0.077785924,0.07207763,0.041762557,-0.002483787,-0.060749274,-0.033731405,0.030484883,-0.014956085,-0.03462885,0.06835193,-0.00820709,0.008230325,-0.002438383,0.0095549235,-2.0,0.76711625,-2.0,2.0,1.4837307,-2.0,2.0,-0.29303253,-2.0,-2.0,-0.922111,-2.0,-2.0,0.09692077,0.20214804,2.0,2.0,-2.0,2.0,-1.4515922,-2.0,-2.0,-2.0,-2.0
2025-07-21 14:30:38.363,1.8800000000000012,1880,94,-0.073234014,0.060650945,-0.031563077,-0.0024679322,0.04744763,-0.03270534,1.5,0.0,0.0,0.0014945368,-0.045346517,0.12261544,-0.048115104,0.07609151,0.240101,-0.08227959,0.004009759,-0.030670656,0.03059753,-0.056770578,-0.09231349,0.07485697,-0.06782886,-0.02180206,-0.0050497376,0.02378635,-0.009816522,-0.004930454,-0.041856166,-0.13250747,0.08020615,0.02341776,-0.11366033,0.042757515,-2.0,0.09692077,0.20214804,2.0,2.0,-2.0,2.0,-1.4515922,-2.0,-2.0,-2.0,-2.0,-2.0,0.87686294,2.0,2.0,1.4622948,-0.8790515,2.0,-1.6277676,-2.0,-2.0,-1.8333949,-2.0
2025-07-21 14:30:38.383,1.9000000000000012,1900,95,-0.11309887,0.1009748,-0.050931253,0.03720059,-0.011340809,-0.002138234,1.5,0.0,0.0,0.0015535022,-0.043593153,0.11027847,0.00666873,0.06266276,0.22846912,-0.061994262,-0.004060057,-0.06640737,0.04593497,-0.044872534,-0.12259384,0.080481976,-0.04369523,-0.020195255,0.21809942,-0.06719536,0.0064848475,0.024032205,0.024084264,-0.083621606,0.087296315,-0.02114056,-0.10025727,-0.012220185,-2.0,0.87686294,2.0,2.0,1.4622948,-0.8790515,2.0,-1.6277676,-2.0,-2.0,-1.8333949,-2.0,-2.0,0.33027786,2.0,2.0,1.38802,-0.296862,2.0,-1.3615587,-2.0,-2.0,-2.0,-2.0
2025-07-21 14:30:38.409,1.9200000000000013,1920,96,-0.0041410644,0.02134172,0.0065879743,0.017673785,-0.03983644,0.016353361,1.5,0.0,0.0,0.0017157624,-0.05072656,0.104596645,0.07328507,0.07017731,0.21917693,-0.056957606,0.006585946,-0.08653809,0.07289076,-0.063895375,-0.14329474,0.10022925,-0.057931963,-0.0009456695,0.23621646,0.032285005,0.075833045,0.0053945086,0.020237328,-0.10559523,0.07100279,0.041713145,-0.04121703,0.020231782,-2.0,0.33027786,2.0,2.0,1.38802,-0.296862,2.0,-1.3615587,-2.0,-2.0,-2.0,-2.0,-2.0,-0.017560795,2.0,2.0,2.0,-0.33873892,2.0,-1.7333987,-2.0,-2.0,-2.0,-2.0
2025-07-21 14:30:38.425,1.9400000000000013,1940,97,0.02288035,0.07865721,0.009709953,-0.003140361,0.025586262,0.003186924,1.5,0.0,0.0,0.0019007394,-0.05841212,0.10077473,0.12352124,0.08456264,0.23699015,-0.040375624,0.006585151,-0.1297876,0.10369544,-0.06391366,-0.16318934,0.11351058,-0.0633204,-0.08024922,0.13696398,-0.019038383,0.12839836,-0.019902539,0.0029108394,-0.041653212,0.015077643,0.042769074,-0.018943284,0.058565587,-2.0,-0.017560795,2.0,2.0,2.0,-0.33873892,2.0,-1.7333987,-2.0,-2.0,-2.0,-2.0,-2.0,-0.07992943,2.0,2.0,2.0,0.16232799,2.0,-1.515956,-2.0,-2.0,-2.0,-2.0
2025-07-21 14:30:38.445,1.9600000000000013,1960,98,0.11086132,0.118863344,-0.006582971,-0.026016686,-0.046826676,-0.0053576394,1.5,0.0,0.0,0.0023380914,-0.06602595,0.078718066,0.16917813,0.09656511,0.27859655,-0.006831445,0.0030090702,-0.15163879,0.11906356,-0.05789455,-0.18055242,0.13976568,0.05593045,-0.08331494,0.14892541,0.029410645,0.07515079,0.08229634,-0.05165913,-0.056148153,0.058444627,-0.023271237,0.0053768875,0.05330693,-2.0,-0.07992943,2.0,2.0,2.0,0.16232799,2.0,-1.515956,-2.0,-2.0,-2.0,-2.0,-2.0,-0.3219332,2.0,2.0,2.0,-0.61089015,2.0,-1.752032,-2.0,-2.0,-2.0,-2.0
2025-07-21 14:30:38.466,1.9800000000000013,1980,99,0.2111942,0.16075747,-0.053556297,0.03280225,0.02343244,-0.017280119,1.5,0.0,0.0,0.0030180388,-0.07415304,0.039008856,0.19613047,0.10312079,0.2963641,0.009051604,0.0032970347,-0.1731244,0.15383717,-0.049455114,-0.19825627,0.13512826,-0.020579252,-0.14144836,0.07164801,0.0014684522,0.0108014215,0.01347597,0.031789664,-0.10893185,0.049348462,0.023354221,-0.037075147,0.09361129,-2.0,-0.3219332,2.0,2.0,2.0,-0.61089015,2.0,-1.752032,-2.0,-2.0,-2.0,-2.0,-2.0,-0.41296273,2.0,2.0,1.8213314,-1.4397372,2.0,-1.6752461,-2.0,-2.0,-2.0,-2.0
2025-07-21 14:30:38.485,2.0000000000000013,2000,100,0.16357093,0.25887662,0.03800203,-0.004174846,-0.061449565,0.028237216,1.5,0.0,0.0,0.0037686222,-0.07736704,0.013997198,0.2122647,0.11366922,0.2959315,0.05050657,-0.008097853,-0.19669053,0.1750651,-0.061209902,-0.20293844,0.1525224,-0.04807185,-0.104350775,0.10045751,-0.054148212,-0.03831834,0.073009595,-0.029789574,-0.063002005,0.03973332,-0.063304275,0.039736006,-0.039625686,-2.0,-0.41296273,2.0,2.0,1.8213314,-1.4397372,2.0,-1.6752461,-2.0,-2.0,-2.0,-2.0,-2.0,-0.085878804,2.0,-2.0,2.0,-2.0,2.0,-1.9625988,-2.0,-2.0,-2.0,-2.0
2025-07-21 14:30:38.509,2.0200000000000014,2020,101,0.06590703,0.40927547,-0.054027162,-0.07209077,-0.023967488,-0.016154142,1.5,0.0,0.0,0.0044011394,-0.07187518,-0.013889837,0.24030393,0.09546774,0.27092728,0.07950154,-0.008462585,-0.20826675,0.21122342,-0.058555633,-0.21784149,0.15298995,-0.06894561,-0.15120558,0.1269123,0.040165704,-0.060680307,0.10671312,-0.054463103,-0.048507597,0.057213686,0.029050468,0.02852015,-0.07357538,-2.0,-0.085878804,2.0,-2.0,2.0,-2.0,2.0,-1.9625988,-2.0,-2.0,-2.0,-2.0,-2.0,-0.20736618,2.0,-2.0,0.2750341,-2.0,2.0,-1.2856447,-2.0,-2.0,-2.0,-2.0
2025-07-21 14:30:38.527,2.0400000000000014,2040,102,0.030421725,0.27284953,0.07005852,-0.030945333,-0.03262456,-0.020877583,1.5,0.0,0.0,0.0051026233,-0.0817388,-0.070809826,0.28981155,0.09802709,0.26700544,0.11310993,-0.032082897,-0.24673456,0.2304097,-0.072188206,-0.23011076,0.1352981,-0.03280735,-0.11243833,0.16572621,0.006676248,-0.059179917,0.049765583,-0.02871046,-0.06632405,0.056299053,-0.082090005,0.02328372,-0.109114565,-2.0,-0.20736618,2.0,-2.0,0.2750341,-2.0,2.0,-1.2856447,-2.0,-2.0,-2.0,-2.0,-2.0,-0.88365227,2.0,-2.0,1.0313236,-2.0,2.0,-2.0,-2.0,-2.0,-2.0,-2.0
2025-07-21 14:30:38.546,2.0600000000000014,2060,103,-0.021046575,0.2729059,-0.014144772,-0.10487989,-0.037454333,-0.0021394922,1.5,0.0,0.0,0.005283074,-0.103244334,-0.11388155,0.343167,0.076925986,0.2322405,0.126607,-0.029403975,-0.2712212,0.23402008,-0.075213745,-0.2334433,0.1110385,0.031277217,-0.14762333,0.10265022,-0.05367131,-0.03032376,0.029254572,0.054108787,-0.019289644,0.064332604,-0.050457034,-0.021209694,-0.015303709,-2.0,-0.88365227,2.0,-2.0,1.0313236,-2.0,2.0,-2.0,-2.0,-2.0,-2.0,-2.0,-2.0,-0.42657655,2.0,-2.0,0.5055428,-2.0,2.0,-1.8920236,-2.0,-2.0,-2.0,-2.0
2025-07-21 14:30:38.565,2.0800000000000014,2080,104,-0.07301527,0.22409505,0.086414136,-0.09286012,-0.05535048,0.024346428,1.5,0.0,0.0,0.0051292432,-0.105724424,-0.16011947,0.36005804,0.089708254,0.21324031,0.12229526,-0.028892824,-0.30168575,0.2468167,-0.078169145,-0.25919345,0.09431021,-0.051822357,-0.17640856,0.10379716,-0.064088754,-0.063843384,0.060312558,0.02138504,-0.08711763,-0.032506686,-0.022038609,0.014615101,-0.01692341,-2.0,-0.42657655,2.0,-2.0,0.5055428,-2.0,2.0,-1.8920236,-2.0,-2.0,-2.0,-2.0,-2.0,-0.31418365,2.0,-2.0,0.98874706,-2.0,2.0,-2.0,-2.0,-2.0,-2.0,-2.0
2025-07-21 14:30:38.586,2.1000000000000014,2100,105,-0.0547686,0.11689607,0.029289672,-0.124661945,-0.12403996,-0.013566683,1.5,0.0,0.0,0.004912241,-0.097429276,-0.19669317,0.3764746,0.08214176,0.1821312,0.12380501,-0.034070898,-0.32456496,0.24863242,-0.079941675,-0.27024022,0.069934584,0.067484364,-0.034464613,-0.014825019,-0.010030164,-0.05516847,-0.057005182,-0.050456498,-0.07694664,-0.029849423,-0.045793977,-0.066180825,-0.080067694,-2.0,-0.31418365,2.0,-2.0,0.98874706,-2.0,2.0,-2.0,-2.0,-2.0,-2.0,-2.0,-2.0,0.41245276,2.0,-2.0,0.21523538,-2.0,2.0,-1.9213219,-2.0,-2.0,-2.0,-2.0
2025-07-21 14:30:38.609,2.1200000000000014,2120,106,-0.008751858,0.10202587,0.07945438,-0.13425864,-0.0702027,-0.018006613,1.5,0.0,0.0,0.004534964,-0.08949023,-0.22549011,0.39188862,0.09216286,0.15038784,0.10142589,-0.04883332,-0.3520997,0.23758684,-0.09760107,-0.2746539,0.028716559,0.013519733,-0.03217821,0.06319503,0.07808174,-0.050235514,-0.07940093,0.058815498,-0.11369023,-0.014896077,-0.05775053,-0.019761821,-0.13530013,-2.0,0.41245276,2.0,-2.0,0.21523538,-2.0,2.0,-1.9213219,-2.0,-2.0,-2.0,-2.0,-2.0,0.16873299,2.0,-2.0,0.44611844,-2.0,2.0,-1.8806655,-2.0,-0.50696427,-2.0,-2.0
2025-07-21 14:30:38.625,2.1400000000000015,2140,107,-0.023195803,-0.023870643,0.08537262,-0.11781265,-0.1185947,-0.006807299,1.5,0.0,0.0,0.003822773,-0.0873129,-0.23787671,0.37434164,0.09694427,0.12853682,0.08373839,-0.031912528,-0.3525267,0.22872496,-0.0838806,-0.3119947,-0.0093966555,0.08073298,-0.02891564,0.055158902,0.045142822,-0.0026953109,-0.07023856,0.0039137034,-0.09259183,-0.080626585,0.059098616,-0.050767954,-0.1289264,-2.0,0.16873299,2.0,-2.0,0.44611844,-2.0,2.0,-1.8806655,-2.0,-0.50696427,-2.0,-2.0,-2.0,0.6573941,2.0,-2.0,-0.30957332,-2.0,2.0,-2.0,-2.0,2.0,-2.0,-2.0
2025-07-21 14:30:38.645,2.1600000000000015,2160,108,-0.010499861,-0.07444274,0.0198161,-0.06409714,-0.06463555,0.018680898,1.5,0.0,0.0,0.0028095138,-0.068554744,-0.23812592,0.37714097,0.11453089,0.11250722,0.08520228,-0.032719713,-0.37109306,0.2022259,-0.056209195,-0.3278349,-0.09064717,0.062588766,0.038452584,0.024139328,0.013151135,-0.029864676,-0.082466945,0.08751213,-0.0695394,-0.02223436,0.109390944,-0.11688681,-0.21466227,-2.0,0.6573941,2.0,-2.0,-0.30957332,-2.0,2.0,-2.0,-2.0,2.0,-2.0,-2.0,-2.0,0.73647934,2.0,-2.0,-1.2697182,-2.0,2.0,-2.0,-2.0,2.0,-2.0,-0.9686049
2025-07-21 14:30:38.666,2.1800000000000015,2180,109,-0.007449182,-0.1525428,0.06621363,-0.04619847,-0.12840514,-0.0014452531,1.5,0.0,0.0,0.0016186513,-0.062731855,-0.25864518,0.35404688,0.11042315,0.07340396,0.065376386,-0.032757793,-0.37721705,0.17810595,-0.019306874,-0.3588978,-0.11685528,-0.036930162,-0.043441437,-0.046951562,0.015738089,-0.03651122,-0.039986722,-0.041322198,-0.03366312,0.00012246684,0.1468155,-0.05877419,-0.060757373,-2.0,0.73647934,2.0,-2.0,-1.2697182,-2.0,2.0,-2.0,-2.0,2.0,-2.0,-0.9686049,-2.0,1.0135709,2.0,-2.0,-0.63980186,-2.0,2.0,-2.0,-2.0,2.0,-1.9616364,2.0
2025-07-21 14:30:38.688,2.2000000000000015,2200,110,-0.009823114,-0.12393041,0.08126883,-0.11207504,-0.12941158,0.03864249,1.5,0.0,0.0,-0.00010065518,-0.06631144,-0.23206286,0.33717585,0.1411625,0.0344558,0.055394594,-0.02658175,-0.385074,0.1755069,0.009364115,-0.39579475,-0.062465902,0.057729557,0.011082714,-0.08328214,0.0822518,-0.11726621,-0.09911752,-0.0022821228,-0.030784208,0.0015420994,0.11598115,-0.12538117,0.25826347,-2.0,1.0135709,2.0,-2.0,-0.63980186,-2.0,2.0,-2.0,-2.0,2.0,-1.9616364,2.0,-2.0,1.7143567,2.0,-2.0,-0.2584308,-2.0,2.0,-2.0,-2.0,2.0,-1.947651,2.0
2025-07-21 14:30:38.709,2.2200000000000015,2220,111,-0.019691968,-0.19695833,0.13635844,-0.03441581,-0.07758306,-0.037897773,1.5,0.0,0.0,-0.002161152,-0.05921224,-0.212099,0.32364514,0.1461437,0.019677429,0.0442897,-0.022956718,-0.39056194,0.15008922,0.021190315,-0.42320564,0.012486924,0.045775242,0.04653497,0.024355518,-0.04271863,0.00014812408,-0.0045058974,-0.005028037,-0.05642806,-0.01158345,0.04784928,-0.025263289,0.1650522,-2.0,1.7143567,2.0,-2.0,-0.2584308,-2.0,2.0,-2.0,-2.0,2.0,-1.947651,2.0,-2.0,1.5001442,2.0,-2.0,-0.24867693,-2.0,2.0,-2.0,-2.0,2.0,-1.528475,2.0
2025-07-21 14:30:38.727,2.2400000000000015,2240,112,-0.026237773,-0.13488416,0.109668404,-0.08755546,-0.05502731,0.031482123,1.5,0.0,0.0,-0.00435136,-0.072322614,-0.16891783,0.2957707,0.15066655,0.009253158,0.048034508,-0.035824314,-0.398653,0.12430125,0.045250796,-0.4022453,0.08633087,-0.080221035,0.19462164,-0.1089432,0.06052125,-0.05764329,-0.030555533,-0.08268902,-0.022996953,5.863075e-05,0.02889672,0.08738899,0.18421346,-2.0,1.5001442,2.0,-2.0,-0.24867693,-2.0,2.0,-2.0,-2.0,2.0,-1.528475,2.0,-2.0,1.7594105,2.0,-2.0,-0.3409848,-2.0,2.0,-2.0,-2.0,2.0,-1.3215758,2.0
2025-07-21 14:30:38.745,2.2600000000000016,2260,113,-0.007963917,-0.066790335,0.050727215,-0.06872906,-0.020975837,-0.037586477,1.5,0.0,0.0,-0.0065605952,-0.08654494,-0.10948314,0.28666964,0.16290934,-0.013696882,0.032082565,-0.0319953,-0.39914298,0.10954262,0.044731822,-0.38351947,0.14731205,0.0172126,0.09062661,-0.08992445,0.065656126,-0.059423476,0.036249973,-0.060202856,0.06160339,-0.09117903,0.040393837,0.06309299,0.17715837,-2.0,1.7594105,2.0,-2.0,-0.3409848,-2.0,2.0,-2.0,-2.0,2.0,-1.3215758,2.0,-2.0,1.9103173,2.0,-2.0,-0.88065994,-2.0,2.0,-2.0,-2.0,2.0,-1.5292951,2.0
2025-07-21 14:30:38.765,2.2800000000000016,2280,114,-0.040454675,-0.12754036,0.09991719,-0.01795819,-0.08042468,-0.04841777,1.5,0.0,0.0,-0.008783328,-0.08786272,-0.035558965,0.27606902,0.16624431,-0.045378853,0.04800413,-0.04863772,-0.40281802,0.10174039,0.054749444,-0.3501468,0.17143203,0.019365178,0.3115292,-0.021527367,0.07353551,-0.10097132,0.02930265,-0.035564583,0.030033378,-0.09519532,0.04443531,0.06687588,0.06677556,-2.0,1.9103173,2.0,-2.0,-0.88065994,-2.0,2.0,-2.0,-2.0,2.0,-1.5292951,2.0,-2.0,1.9828024,2.0,-2.0,-0.7126561,-2.0,2.0,-2.0,-2.0,2.0,-0.8093772,2.0
2025-07-21 14:30:38.791,2.3000000000000016,2300,115,-0.053418927,-0.08102087,0.078293554,-0.027813302,-0.07276828,0.04863897,1.5,0.0,0.0,-0.01112753,-0.105425715,0.06819658,0.26818526,0.17483994,-0.06739135,0.039595902,-0.06203808,-0.4092363,0.09594214,0.06381367,-0.3091812,0.20698996,0.04723333,0.34300002,0.028259909,0.026042363,-0.10213646,0.0045514493,-0.03736442,0.027906377,-0.0077400547,0.051853605,0.051348414,0.007985302,-2.0,1.9828024,2.0,-2.0,-0.7126561,-2.0,2.0,-2.0,-2.0,2.0,-0.8093772,2.0,-2.0,2.0,2.0,-2.0,-1.0405027,-2.0,2.0,-2.0,-2.0,2.0,-0.78919154,2.0
2025-07-21 14:30:38.809,2.3200000000000016,2320,116,-0.04845727,0.004129566,0.032548968,-0.09194158,-0.029051013,-0.01568457,1.5,0.0,0.0,-0.0132871,-0.09784807,0.18970232,0.26082394,0.16047516,-0.091394566,0.047826223,-0.074838065,-0.41883317,0.084911555,0.06229676,-0.27813604,0.22200088,-0.017592957,0.20233749,-0.04672632,-0.04646917,-0.086386375,-0.007562391,-0.048386388,-0.024461739,-0.02487987,0.07013663,0.09463689,-0.01507632,-2.0,2.0,2.0,-2.0,-1.0405027,-2.0,2.0,-2.0,-2.0,2.0,-0.78919154,2.0,-2.0,2.0,2.0,-2.0,-1.094497,-2.0,2.0,-1.8272579,-2.0,2.0,-0.472394,2.0
2025-07-21 14:30:38.826,2.3400000000000016,2340,117,-0.05685114,0.076155804,0.0928098,-0.0019991484,-0.10639656,-0.01854492,1.5,0.0,0.0,-0.015078747,-0.0805423,0.27249134,0.25605845,0.16214524,-0.13597426,0.064812444,-0.100344405,-0.44997627,0.09893807,0.07777527,-0.2240049,0.21501768,0.012595558,0.17625871,-0.051373,-0.05375644,-0.14756513,0.012785797,-0.109157465,-0.10224585,0.0049960613,0.04641585,0.19691841,0.06309143,-2.0,2.0,2.0,-2.0,-1.094497,-2.0,2.0,-1.8272579,-2.0,2.0,-0.472394,2.0,-1.326951,2.0,-2.0,-2.0,-0.27394453,-2.0,2.0,-1.8250945,-2.0,2.0,-0.10313822,2.0
2025-07-21 14:30:38.849,2.3600000000000017,2360,118,-0.03530457,-0.11112775,0.042547736,-0.044014577,-0.083639376,0.040760987,1.5,0.0,0.0,-0.016601415,-0.07526259,0.30462402,0.26015785,0.16863473,-0.1689951,0.07652331,-0.108693965,-0.45663708,0.080622375,0.07710452,-0.17489326,0.22037688,0.026474042,0.01618281,0.002552079,0.029353136,-0.026164446,0.0091632195,-0.04658215,0.02964246,0.024282157,-0.035885192,0.12776451,0.031868726,-1.326951,2.0,-2.0,-2.0,-0.27394453,-2.0,2.0,-1.8250945,-2.0,2.0,-0.10313822,2.0,2.0,1.4098591,-2.0,-2.0,-1.6361347,2.0,2.0,-0.1629647,2.0,-2.0,0.8424745,-2.0
2025-07-21 14:30:38.868,2.3800000000000017,2380,119,0.1710366,-0.23096654,0.020676136,0.006762122,-0.08094601,-0.017952997,1.5,0.0,0.0,-0.017990025,-0.060834907,0.29959786,0.24959719,0.18018126,-0.22163625,0.12693241,-0.08651835,-0.47212085,0.10134171,0.062460337,-0.09214578,0.16349143,0.06379676,0.06706278,0.002607194,-0.03425581,-0.15101174,0.21604073,0.04268877,0.05203674,0.025322154,-0.010063677,0.1693445,-0.14179605,2.0,1.4098591,-2.0,-2.0,-1.6361347,2.0,2.0,-0.1629647,2.0,-2.0,0.8424745,-2.0,2.0,-0.9812283,-2.0,-1.3020107,-2.0,2.0,-0.13516709,-0.20674029,2.0,-2.0,-0.9377072,-2.0
2025-07-21 14:30:38.892,2.4000000000000017,2400,120,0.16634125,-0.11811728,0.038937047,-0.041954465,-0.019440679,0.009934841,1.5,0.0,0.0,-0.019552367,-0.06998645,0.3028905,0.27053526,0.13267216,-0.27406406,0.17219426,-0.08003672,-0.4465511,0.1104318,0.050086647,-0.07648705,0.14757426,-0.05167592,0.022593398,0.07608305,-0.13391873,-0.20507812,0.14876628,0.017056804,-0.0013201226,-0.045316856,-0.01255095,-0.043570943,0.059940096,2.0,-0.9812283,-2.0,-1.3020107,-2.0,2.0,-0.13516709,-0.20674029,2.0,-2.0,-0.9377072,-2.0,2.0,-1.0971804,-2.0,2.0,-1.605373,2.0,2.0,0.3853331,2.0,-2.0,-1.2397234,-2.0
2025-07-21 14:30:38.911,2.4200000000000017,2420,121,0.20267539,-0.20493686,0.0077189277,-0.088799536,0.019354433,-0.004199355,1.5,0.0,0.0,-0.020438805,-0.06178267,0.2749657,0.27875838,0.12420121,-0.3014839,0.21500345,-0.06245423,-0.40848842,0.10373733,0.062021226,-0.107200384,0.18281463,0.09277279,-0.11132548,0.017945945,-0.043332428,-0.11196779,0.12668055,0.008899266,0.120177016,0.08349384,-0.043988887,-0.09532258,0.11593027,2.0,-1.0971804,-2.0,2.0,-1.605373,2.0,2.0,0.3853331,2.0,-2.0,-1.2397234,-2.0,2.0,-1.3416831,-2.0,2.0,-1.5452781,2.0,2.0,0.3435842,2.0,-2.0,-1.2116922,-2.0
2025-07-21 14:30:38.929,2.4400000000000017,2440,122,0.14422502,-0.21013623,-0.08101815,-0.06870794,0.009235325,0.045066886,1.5,0.0,0.0,-0.020573469,-0.05244309,0.2555643,0.27826035,0.13802989,-0.32971543,0.24584019,-0.04392534,-0.36243957,0.1138294,0.07188922,-0.1355952,0.20785756,-0.0400194,-0.123670116,0.046443835,0.06328227,-0.06564213,0.015989233,0.066752195,0.10298781,0.008979373,0.010661086,0.010998892,0.076121606,2.0,-1.3416831,-2.0,2.0,-1.5452781,2.0,2.0,0.3435842,2.0,-2.0,-1.2116922,-2.0,2.0,-0.88349444,-2.0,2.0,-1.6976445,2.0,2.0,0.27926585,2.0,-2.0,-1.5624715,-2.0
2025-07-21 14:30:38.947,2.4600000000000017,2460,123,0.10275753,-0.16578457,0.003023332,-0.05470976,0.04898952,-0.026588207,1.5,0.0,0.0,-0.020077663,-0.03851051,0.23938598,0.2970088,0.13171232,-0.36181414,0.24606007,-0.015412441,-0.32877862,0.11774992,0.08201315,-0.14933588,0.2267407,0.005371853,-0.073933646,-0.061325114,-0.05184946,-0.104327515,0.048761487,0.07989161,0.15364607,0.07574903,0.061276734,-0.071881115,0.0130896885,2.0,-0.88349444,-2.0,2.0,-1.6976445,2.0,2.0,0.27926585,2.0,-2.0,-1.5624715,-2.0,2.0,-1.1330447,-2.0,2.0,-1.5074449,2.0,2.0,0.36883673,2.0,-2.0,-1.4070779,-2.0
2025-07-21 14:30:38.971,2.4800000000000018,2480,124,0.060252994,-0.112169445,-0.04920481,-0.032448582,0.008322825,0.00091534323,1.5,0.0,0.0,-0.019297382,-0.050828822,0.21634233,0.28878978,0.13756987,-0.38855755,0.264728,0.0021385106,-0.2967446,0.13682319,0.08297526,-0.17130059,0.21875082,-0.014610297,-0.0028898115,0.030100755,-0.047346827,-0.100950114,0.020511484,0.036462605,0.10793773,0.05485538,-0.056522734,0.022952385,-0.052035812,2.0,-1.1330447,-2.0,2.0,-1.5074449,2.0,2.0,0.36883673,2.0,-2.0,-1.4070779,-2.0,2.0,-0.7875774,-2.0,2.0,-1.4009982,2.0,2.0,0.11620936,2.0,-2.0,-1.3986962,-2.0
2025-07-21 14:30:38.993,2.5000000000000018,2500,125,0.070868574,-0.14692031,-0.040393695,-0.007363988,0.07563906,-0.020623144,1.5,0.0,0.0,-0.018344313,-0.06303047,0.18908136,0.27554706,0.13190497,-0.40895382,0.261365,0.012065175,-0.2546265,0.1499604,0.10215481,-0.17908451,0.2334087,0.044190586,-0.14389732,0.0261918,-0.01997041,-0.0027850324,0.0635365,0.06485203,0.1739639,0.07550154,0.016580226,-0.07860454,-0.044660013,2.0,-0.7875774,-2.0,2.0,-1.4009982,2.0,2.0,0.11620936,2.0,-2.0,-1.3986962,-2.0,2.0,-0.67458653,-2.0,2.0,-1.4585638,2.0,2.0,0.33624068,2.0,-2.0,-1.487981,-2.0
2025-07-21 14:30:39.010,2.520000000000002,2520,126,0.06540704,-0.12354496,-0.0958386,-0.095962055,0.030371616,-0.039639693,1.5,0.0,0.0,-0.017069781,-0.06706014,0.16318865,0.27589974,0.12110032,-0.42276093,0.2742833,0.04041786,-0.20368443,0.1662953,0.09822329,-0.19699308,0.21643387,-0.08976538,-0.037305232,-0.10065434,-0.06558213,-0.06715242,0.037955947,-0.0055005923,0.0919844,0.04766661,0.046230078,-0.101505116,-0.023565723,2.0,-0.67458653,-2.0,2.0,-1.4585638,2.0,2.0,0.33624068,2.0,-2.0,-1.487981,-2.0,2.0,0.056185946,-2.0,2.0,-0.51294297,2.0,2.0,0.039572626,2.0,-2.0,-1.5761083,-2.0
2025-07-21 14:30:39.027,2.540000000000002,2540,127,-0.02936417,-0.02386225,-0.09475243,-0.023955509,0.08708068,0.0065585063,1.5,0.0,0.0,-0.015646564,-0.08500521,0.14144738,0.26212522,0.11138729,-0.43518808,0.253368,0.048132975,-0.15029748,0.18245517,0.09553582,-0.21540979,0.21725345,-0.0076291147,-0.034020808,0.0079383645,-0.009155676,-0.050933443,-0.049415942,0.08762807,0.13641748,0.018260857,-0.016908674,-0.028054712,-0.024362165,2.0,0.056185946,-2.0,2.0,-0.51294297,2.0,2.0,0.039572626,2.0,-2.0,-1.5761083,-2.0,2.0,-0.09305419,-2.0,2.0,-0.53198,2.0,2.0,-0.16740951,2.0,-2.0,-1.8845965,-2.0
2025-07-21 14:30:39.049,2.560000000000002,2560,128,-0.112622835,0.012242866,-0.039029296,-0.08859969,0.0518868,-0.023827054,1.5,0.0,0.0,-0.014206314,-0.08204008,0.10699372,0.23340945,0.1148605,-0.44849944,0.25408897,0.07491295,-0.121669166,0.19979194,0.08645903,-0.24225633,0.21817055,-0.063856944,-0.072844744,-0.042316582,0.030080209,-0.064296275,-0.05590972,0.054618776,0.1366983,-0.031763438,-0.08287106,-0.05032682,-0.082876556,2.0,-0.09305419,-2.0,2.0,-0.53198,2.0,2.0,-0.16740951,2.0,-2.0,-1.8845965,-2.0,2.0,0.100097224,-2.0,2.0,-0.14987037,2.0,2.0,-0.2673367,2.0,-2.0,-1.6948279,-2.0
2025-07-21 14:30:39.068,2.580000000000002,2580,129,-0.099927716,-0.011229539,-0.047602408,-0.013660047,0.039838467,0.008882328,1.5,0.0,0.0,-0.012774233,-0.107507095,0.09363869,0.20504642,0.100856185,-0.4591916,0.24044155,0.084882975,-0.09832428,0.21457995,0.08847901,-0.270053,0.20576319,0.023508374,-0.047695626,-0.032965053,-0.06020483,-0.05820575,0.019689487,0.06904674,0.02503983,0.06733128,-0.014851865,-0.016741231,-0.040932253,2.0,0.100097224,-2.0,2.0,-0.14987037,2.0,2.0,-0.2673367,2.0,-2.0,-1.6948279,-2.0,2.0,-0.1543401,-2.0,2.0,-0.14623639,2.0,2.0,-0.4288984,2.0,-2.0,-1.6730347,-2.0
2025-07-21 14:30:39.092,2.600000000000002,2600,130,-0.14840765,-0.0023927675,-0.08961334,-0.049562015,0.041943654,-0.04317767,1.5,0.0,0.0,-0.011371647,-0.11508522,0.07261272,0.18874377,0.099439606,-0.4392615,0.21370919,0.094218485,-0.09238298,0.22726564,0.08020071,-0.2835018,0.19094747,-0.09492864,0.017258415,-0.084853545,0.061322235,0.015016848,0.020767694,0.09860281,-0.033331763,0.07265442,-0.078281246,0.01249603,0.044684496,2.0,-0.1543401,-2.0,2.0,-0.14623639,2.0,2.0,-0.4288984,2.0,-2.0,-1.6730347,-2.0,2.0,-0.16564418,-2.0,2.0,0.1804364,2.0,2.0,-0.2934685,2.0,-2.0,-1.8842318,-2.0
2025-07-21 14:30:39.110,2.620000000000002,2620,131,-0.1266393,0.029105628,-0.029512163,-0.076869674,0.053263955,-0.016452404,1.5,0.0,0.0,-0.009928316,-0.13723584,0.046036106,0.1707863,0.09790436,-0.393896,0.20570229,0.10741098,-0.082526,0.24449216,0.07160943,-0.28968573,0.18672705,0.016401445,-0.0338915,-0.03139355,-0.054671697,0.08314316,-0.0014750732,-0.050023057,-0.029850239,0.032358605,-0.076898485,-0.01552695,-0.05688496,2.0,-0.16564418,-2.0,2.0,0.1804364,2.0,2.0,-0.2934685,2.0,-2.0,-1.8842318,-2.0,2.0,-0.46529603,-2.0,2.0,0.4337212,2.0,2.0,-0.10469763,2.0,-2.0,-1.6396388,-2.0
2025-07-21 14:30:39.128,2.640000000000002,2640,132,-0.07689962,0.027010147,-0.031349562,-0.01200643,0.033530246,-0.014394716,1.5,0.0,0.0,-0.008588021,-0.14869334,0.020100836,0.15470548,0.119845435,-0.33053324,0.2150807,0.10742901,-0.0865716,0.24580947,0.05920559,-0.29923403,0.16412118,0.023672663,0.012370841,0.017019246,0.07901767,0.123182856,0.0026572337,-0.06252659,0.033252116,0.0034972958,0.053980943,-0.03128495,-0.10826957,2.0,-0.46529603,-2.0,2.0,0.4337212,2.0,2.0,-0.10469763,2.0,-2.0,-1.6396388,-2.0,2.0,-0.83922505,-2.0,2.0,0.5816232,2.0,2.0,0.025028065,2.0,-2.0,-1.7606734,-2.0
2025-07-21 14:30:39.147,2.660000000000002,2660,133,-0.036318,0.015400061,-0.08340661,-0.030780526,0.045799293,0.038610492,1.5,0.0,0.0,-0.007349586,-0.15450262,0.018970203,0.14049979,0.122457534,-0.26209506,0.2234998,0.11430854,-0.078542516,0.25463763,0.066648304,-0.32317185,0.14475113,-0.059187453,0.0010617814,-0.008443406,-0.04920393,0.20261337,0.015201274,0.018844623,0.035210226,0.017841069,0.046233464,-0.096531585,-0.06505655,2.0,-0.83922505,-2.0,2.0,0.5816232,2.0,2.0,0.025028065,2.0,-2.0,-1.7606734,-2.0,2.0,-0.6166527,-2.0,2.0,0.7409907,2.0,2.0,-0.10534053,2.0,-2.0,-1.8958453,-2.0
2025-07-21 14:30:39.167,2.680000000000002,2680,134,-0.058275864,-0.029103238,-0.056820285,-0.062184166,0.07946834,0.038524743,1.5,0.0,0.0,-0.006140115,-0.15321566,-0.012334768,0.11829323,0.1274239,-0.19039226,0.22407402,0.11560969,-0.07814356,0.257475,0.06835592,-0.32618114,0.14910264,-0.07833625,-0.07966604,-0.0638083,0.042207804,0.17491502,-0.03796825,0.014904714,-0.004108636,0.0620935,0.008644634,-0.018687125,-0.017394986,2.0,-0.6166527,-2.0,2.0,0.7409907,2.0,2.0,-0.10534053,2.0,-2.0,-1.8958453,-2.0,2.0,-0.6518013,-2.0,2.0,1.2345948,2.0,2.0,0.008741833,2.0,-2.0,-1.8150958,-2.0
2025-07-21 14:30:39.193,2.700000000000002,2700,135,0.046148665,0.026447434,0.022587858,-0.06007599,0.036095597,-0.037583202,1.5,0.0,0.0,-0.0051560155,-0.14914411,-0.02371131,0.10623113,0.1363589,-0.10957748,0.2388409,0.11973794,-0.07257893,0.24211518,0.060311243,-0.33673558,0.13529307,-0.045306,-0.016265478,-0.080920644,0.039470278,0.20673552,-0.003326337,-0.013666743,0.020048847,-0.01740831,-0.008670782,-0.10321845,-0.09532256,2.0,-0.6518013,-2.0,2.0,1.2345948,2.0,2.0,0.008741833,2.0,-2.0,-1.8150958,-2.0,-2.0,-0.88515013,-2.0,2.0,2.0,2.0,2.0,-0.01897505,2.0,-2.0,-1.3397129,-2.0
2025-07-21 14:30:39.210,2.720000000000002,2720,136,0.0005976552,0.07571349,-0.07089344,-0.0058906428,0.09124951,0.03324203,1.5,0.0,0.0,-0.00449334,-0.16532053,-0.044904117,0.10833303,0.12609614,0.015443288,0.23714653,0.1078507,-0.08646196,0.248417,0.06506081,-0.35257438,0.11938846,-0.0372855,-0.12713943,0.0076244026,-0.036628444,0.34622487,-0.058351204,-0.04108602,-0.014368928,0.07792599,-0.035485573,-0.031945337,-0.053965963,-2.0,-0.88515013,-2.0,2.0,2.0,2.0,2.0,-0.01897505,2.0,-2.0,-1.3397129,-2.0,-2.0,-0.9052159,-2.0,2.0,2.0,2.0,2.0,0.7156799,2.0,-2.0,-2.0,-2.0
2025-07-21 14:30:39.229,2.740000000000002,2740,137,0.13165231,0.07369132,-0.06212622,-0.059729457,0.08838851,0.032031093,1.5,0.0,0.0,-0.0035440847,-0.17918734,-0.06549832,0.123384885,0.1195452,0.14364265,0.240624,0.11942718,-0.07506567,0.25699586,0.05158118,-0.35407627,0.10440791,0.03613839,-0.08322237,0.0029216225,-0.07378825,0.3253793,-0.05864141,0.05573207,0.036513418,-0.022834092,-0.06811609,-0.035429124,0.01525514,-2.0,-0.9052159,-2.0,2.0,2.0,2.0,2.0,0.7156799,2.0,-2.0,-2.0,-2.0,-2.0,-0.8927613,-2.0,2.0,2.0,2.0,2.0,0.15989992,-2.0,-2.0,-2.0,-2.0
2025-07-21 14:30:39.248,2.760000000000002,2760,138,0.2618939,-0.054083265,0.04569157,-0.06103527,0.020621553,-0.018733062,1.5,0.0,0.0,-0.0026005204,-0.19017476,-0.08224236,0.12348945,0.110958904,0.26564327,0.2413438,0.11396242,-0.05516502,0.22682701,0.058655053,-0.3585646,0.091987744,0.01359962,-0.0741127,0.0753165,-0.022012578,0.17795065,0.0022895026,-0.012476208,0.0856805,0.004341515,-0.003194405,-0.022673445,-0.078816935,-2.0,-0.8927613,-2.0,2.0,2.0,2.0,2.0,0.15989992,-2.0,-2.0,-2.0,-2.0,-2.0,-1.6739304,2.0,2.0,2.0,-2.0,2.0,-1.8988338,-2.0,-2.0,-2.0,-2.0
2025-07-21 14:30:39.270,2.780000000000002,2780,139,0.028024688,0.20402601,0.02074412,-0.065882325,0.039338585,-0.032638,1.5,0.0,0.0,-0.0023901297,-0.179364,-0.12045705,0.1577211,0.11160116,0.28899172,0.24707519,0.09327987,-0.0736394,0.23326369,0.05135216,-0.3633524,0.08514673,-0.005274365,-0.16748427,0.091107175,0.00808962,0.09296236,-0.036940686,0.017957522,-0.004048522,-0.019807557,-0.024191251,0.027970614,-0.040668707,-2.0,-1.6739304,2.0,2.0,2.0,-2.0,2.0,-1.8988338,-2.0,-2.0,-2.0,-2.0,-2.0,-0.75725454,2.0,-2.0,1.7830803,-2.0,2.0,-2.0,-2.0,-2.0,-2.0,-2.0
2025-07-21 14:30:39.294,2.800000000000002,2800,140,-0.06397138,0.33146322,-0.068223156,-0.065738864,0.06667285,0.016181538,1.5,0.0,0.0,-0.002502507,-0.1744385,-0.17391786,0.19445361,0.0919013,0.29469353,0.24521725,0.08398928,-0.08642727,0.22430994,0.029360322,-0.36667097,0.056419875,-0.044040795,-0.02496164,0.09383336,-0.09890788,0.013123879,0.023447394,-0.1361337,-0.1285064,-0.055065736,-0.12887414,-0.0021796022,-0.09213945,-2.0,-0.75725454,2.0,-2.0,1.7830803,-2.0,2.0,-2.0,-2.0,-2.0,-2.0,-2.0,-2.0,0.10079543,2.0,-2.0,0.59222764,-2.0,2.0,-1.8304179,-2.0,-2.0,-2.0,-2.0
2025-07-21 14:30:39.312,2.820000000000002,2820,141,-0.14808321,0.23679732,0.0052355165,-0.083194874,-0.0018399014,0.038401842,1.5,0.0,0.0,-0.0023515546,-0.16522756,-0.19440511,0.20849806,0.06445941,0.2519964,0.24017002,0.058894813,-0.119267404,0.2298544,-0.009263838,-0.37908727,0.033128828,-0.0009786537,0.05299809,0.07631233,-0.030252224,-0.15107134,-0.012131584,-0.06547777,-0.051537093,0.03461479,-0.08290572,0.0013111588,-0.12666,-2.0,0.10079543,2.0,-2.0,0.59222764,-2.0,2.0,-1.8304179,-2.0,-2.0,-2.0,-2.0,-2.0,-0.5828001,2.0,-2.0,0.6344394,-2.0,2.0,-2.0,-2.0,-2.0,-2.0,-2.0
2025-07-21 14:30:39.329,2.840000000000002,2840,142,-0.13227807,0.17454696,0.047209553,-0.02287213,0.005332487,0.0346436,1.5,0.0,0.0,-0.0027035186,-0.18061082,-0.19856977,0.21977317,0.04505109,0.21930064,0.2376494,0.03240961,-0.15283567,0.23371233,-0.017508542,-0.38899133,0.015307872,-0.020803085,-0.0043065436,0.0712989,-0.04590844,-0.021620376,0.02507825,-0.061596807,-0.11402555,0.07825756,0.023464687,-0.091957174,-0.12983367,-2.0,-0.5828001,2.0,-2.0,0.6344394,-2.0,2.0,-2.0,-2.0,-2.0,-2.0,-2.0,-2.0,-0.42516655,2.0,-2.0,0.7626496,-2.0,2.0,-2.0,-2.0,-2.0,-2.0,-2.0
2025-07-21 14:30:39.349,2.860000000000002,2860,143,-0.10160888,0.1986062,0.093565315,-0.1101765,-0.027433053,0.00542273,1.5,0.0,0.0,-0.003466233,-0.1619262,-0.20682016,0.23049624,0.027269168,0.1999972,0.21185426,0.012450692,-0.19989417,0.23274201,-0.05152568,-0.3959413,-0.018022772,-0.0021779274,0.016944995,0.0083631035,0.031210175,-0.14806226,0.0026918333,-0.0168683,-0.05940667,0.02219625,-0.091269664,0.01732017,-0.05046118,-2.0,-0.42516655,2.0,-2.0,0.7626496,-2.0,2.0,-2.0,-2.0,-2.0,-2.0,-2.0,-2.0,0.14865033,2.0,-2.0,0.775088,-2.0,2.0,-2.0,-2.0,-1.761354,-2.0,-2.0
2025-07-21 14:30:39.370,2.880000000000002,2880,144,-0.12144034,0.0849353,0.084510274,-0.069328934,-0.06954524,-0.017681025,1.5,0.0,0.0,-0.0043300027,-0.1583924,-0.20682952,0.2274505,0.020472987,0.1617194,0.20107017,-0.0006813541,-0.2266226,0.22429076,-0.05445435,-0.41809964,-0.045646783,0.04777451,0.02884329,-0.014485431,0.064721905,-0.033601422,-0.09727784,0.016165517,-0.03408388,-0.014182129,-0.034986865,-0.06166458,-0.035446424,-2.0,0.14865033,2.0,-2.0,0.775088,-2.0,2.0,-2.0,-2.0,-1.761354,-2.0,-2.0,-2.0,-0.32185835,2.0,-2.0,0.25985828,-2.0,2.0,-2.0,-2.0,-0.9278818,-2.0,-2.0
2025-07-21 14:30:39.392,2.900000000000002,2900,145,-0.076234885,0.05026145,0.049109835,-0.006957078,-0.095489055,0.022402938,1.5,0.0,0.0,-0.005317115,-0.1584599,-0.19762337,0.23853284,0.019028662,0.14180729,0.18411338,-0.0037235967,-0.23908491,0.22689988,-0.07190753,-0.42211753,-0.07571558,0.00021570368,-0.013198041,0.07655369,0.046091996,-0.071839094,-0.10680497,0.01526265,-0.051469196,-0.0113239605,-0.06054981,-0.07092912,-0.09091274,-2.0,-0.32185835,2.0,-2.0,0.25985828,-2.0,2.0,-2.0,-2.0,-0.9278818,-2.0,-2.0,-2.0,-0.1782157,2.0,-2.0,-0.010155879,-2.0,2.0,-1.9488549,-2.0,-0.20678215,-1.9539832,-2.0
2025-07-21 14:30:39.409,2.920000000000002,2920,146,-0.05111438,-0.031358108,0.023342632,-0.032474615,-0.018918646,-0.0007737756,1.5,0.0,0.0,-0.00633689,-0.14376532,-0.19647877,0.22778404,0.021394407,0.103369914,0.17473185,0.0014734456,-0.26740238,0.20863532,-0.06894168,-0.44030496,-0.088020995,0.090281375,-0.041444093,-0.00025829804,0.04068613,-0.032030363,-0.110666856,0.05921223,-0.05839604,-0.06923116,0.066007726,-0.082986504,-0.08783687,-2.0,-0.1782157,2.0,-2.0,-0.010155879,-2.0,2.0,-1.9488549,-2.0,-0.20678215,-1.9539832,-2.0,-2.0,-0.016404346,2.0,-2.0,-0.5520746,-2.0,2.0,-1.9352719,-2.0,2.0,-1.9874312,-2.0
2025-07-21 14:30:39.428,2.940000000000002,2940,147,-0.060639735,-0.056837417,0.0042236536,-0.03953587,-0.08664741,-0.03488546,1.5,0.0,0.0,-0.0072901365,-0.1248959,-0.1770128,0.24511164,0.0338272,0.07639137,0.14802139,-0.010529624,-0.3034335,0.21335638,-0.05431468,-0.44882146,-0.1247931,0.033501577,0.098712325,-0.054233152,0.05799774,-0.048631452,-0.0963303,-0.006360304,-0.096047394,-0.07109708,0.007186681,0.015906865,-0.13953663,-2.0,-0.016404346,2.0,-2.0,-0.5520746,-2.0,2.0,-1.9352719,-2.0,2.0,-1.9874312,-2.0,-2.0,0.349742,2.0,-2.0,-0.8357686,-2.0,2.0,-1.9001919,-2.0,2.0,-2.0,-2.0
2025-07-21 14:30:39.449,2.960000000000002,2960,148,-0.11714432,-0.08379134,0.048226357,-0.07763937,-0.06399687,0.04127535,1.5,0.0,0.0,-0.008194538,-0.10391839,-0.17211811,0.23750544,0.0531516,0.05059041,0.1339,-0.0015605406,-0.31853625,0.2056529,-0.022945324,-0.44504002,-0.16425635,-0.0017764531,0.07684274,-0.056273513,0.039967287,-0.15702732,-0.080242716,0.018623129,-0.10443193,-0.05622772,0.010489734,-0.018729588,-0.11309626,-2.0,0.349742,2.0,-2.0,-0.8357686,-2.0,2.0,-1.9001919,-2.0,2.0,-2.0,-2.0,-2.0,0.58622664,2.0,-2.0,-0.56069905,-2.0,2.0,-2.0,-2.0,2.0,-1.9925319,2.0
2025-07-21 14:30:39.474,2.980000000000002,2980,149,-0.05603895,-0.033911675,0.07166324,-0.06812817,-0.07765307,-0.015932146,1.5,0.0,0.0,-0.009610788,-0.108475655,-0.13943501,0.22853424,0.06726715,-0.0002564398,0.13909242,0.0055149747,-0.35295826,0.19120936,-0.0019351105,-0.46221295,-0.11624933,-0.009126786,0.16396485,0.013945256,-0.028642239,-0.14397708,0.000965186,-0.068861894,-0.012433357,-0.024343884,0.020425376,-0.013451675,0.30894336,-2.0,0.58622664,2.0,-2.0,-0.56069905,-2.0,2.0,-2.0,-2.0,2.0,-1.9925319,2.0,-2.0,0.6297782,2.0,-2.0,-0.23530632,-2.0,2.0,-2.0,-2.0,2.0,-1.5643772,2.0
2025-07-21 14:30:39.493,3.000000000000002,3000,150,-0.053497244,-0.019598868,0.0921945,-0.03238099,-0.035072766,0.011734431,1.5,0.0,0.0,-0.01147417,-0.0981325,-0.08868306,0.23108315,0.08603599,-0.018428665,0.113550566,-0.008558114,-0.3836617,0.17727165,0.030285263,-0.4373623,-0.006747186,-0.010309645,0.041798227,-0.024574293,0.07268046,-0.047612295,0.009137585,-0.056500204,-0.12450578,0.033285573,0.02332363,0.044107657,0.25685474,-2.0,0.6297782,2.0,-2.0,-0.23530632,-2.0,2.0,-2.0,-2.0,2.0,-1.5643772,2.0,-2.0,1.0613493,2.0,-2.0,-0.2014403,-2.0,2.0,-2.0,-2.0,2.0,-1.5943155,2.0
2025-07-21 14:30:39.511,3.0200000000000022,3020,151,0.020985072,0.04064622,0.09069028,-0.068228684,-0.085163884,-0.026547013,1.5,0.0,0.0,-0.013498483,-0.097023696,-0.051294837,0.25403103,0.07787282,-0.047112253,0.11933969,0.0027396854,-0.39627272,0.17451322,0.037511338,-0.41630027,0.060853317,0.05067963,0.15818101,-0.049698617,-0.04080915,-0.05188246,-0.04902253,0.018534442,-0.08900374,-0.05996205,-0.015310106,0.007279177,0.13078944,-2.0,1.0613493,2.0,-2.0,-0.2014403,-2.0,2.0,-2.0,-2.0,2.0,-1.5943155,2.0,-2.0,2.0,2.0,-2.0,-0.28014523,-2.0,2.0,-2.0,-2.0,2.0,-1.2039177,2.0
2025-07-21 14:30:39.530,3.0400000000000023,3040,152,0.037437577,-0.018517235,0.14894848,-0.07094453,-0.026511459,-0.023248311,1.5,0.0,0.0,-0.015726278,-0.11099882,0.013183381,0.24493526,0.09140686,-0.0755937,0.10251811,-0.010629063,-0.3993175,0.15791918,0.05013229,-0.36887923,0.12815036,-0.026588263,0.2035666,0.093347326,0.077281535,-0.058741253,0.027293885,-0.06779615,0.044608064,-0.09632326,-0.03264458,0.13436648,0.14735036,-2.0,2.0,2.0,-2.0,-0.28014523,-2.0,2.0,-2.0,-2.0,2.0,-1.2039177,2.0,-2.0,0.9774777,2.0,-2.0,-0.097143196,-2.0,2.0,-2.0,-2.0,2.0,-0.8966957,2.0
2025-07-21 14:30:39.550,3.0600000000000023,3060,153,-0.0136565855,0.06379595,0.09693042,-0.046078317,-0.06928118,0.0023214833,1.5,0.0,0.0,-0.018206665,-0.09689012,0.07872779,0.25081804,0.099865295,-0.11630465,0.093838595,-0.029090228,-0.42121384,0.16167372,0.06039804,-0.31874713,0.17155111,0.065953486,0.17415169,0.041180264,0.028788954,-0.011302295,-0.081626944,-0.10073103,-0.036838274,-0.009310527,0.0063411607,0.17203864,0.03570448,-2.0,0.9774777,2.0,-2.0,-0.097143196,-2.0,2.0,-2.0,-2.0,2.0,-0.8966957,2.0,-2.0,2.0,2.0,-2.0,-0.29077923,-2.0,2.0,-2.0,-2.0,2.0,-0.82509345,2.0
2025-07-21 14:30:39.575,3.0800000000000023,3080,154,0.08262344,0.08704882,0.16834353,0.0055101775,-0.0646967,-0.038328733,1.5,0.0,0.0,-0.020545894,-0.10435824,0.13892181,0.26855814,0.098443925,-0.13505888,0.08750654,-0.040912047,-0.42736548,0.13876681,0.067036875,-0.27574357,0.1931092,0.059790008,0.14419559,-0.0488215,-0.039960355,-0.12199413,0.04371898,-0.014200152,0.046212807,0.017252468,-0.017369378,0.17694499,0.05973444,-2.0,2.0,2.0,-2.0,-0.29077923,-2.0,2.0,-2.0,-2.0,2.0,-0.82509345,2.0,-1.2577434,2.0,-2.0,-2.0,0.226248,0.12294839,2.0,-2.0,-2.0,2.0,-0.12940614,2.0
2025-07-21 14:30:39.592,3.1000000000000023,3100,155,0.06334585,-0.15935615,-0.0030525413,-0.0072378204,-0.10513272,-0.009056406,1.5,0.0,0.0,-0.022778133,-0.10121814,0.16790235,0.26176742,0.10672124,-0.17115593,0.104781866,-0.02953728,-0.43325937,0.123047546,0.061444543,-0.20354623,0.21370837,-0.0025008423,-0.0050009955,-0.010804538,-0.021315414,-0.035247616,0.01268921,-0.011987201,0.021163326,-0.048234154,-0.04745006,0.22853717,0.09647439,-1.2577434,2.0,-2.0,-2.0,0.226248,0.12294839,2.0,-2.0,-2.0,2.0,-0.12940614,2.0,2.0,0.29521334,-2.0,-2.0,-1.0959213,2.0,2.0,-0.060088485,2.0,-2.0,0.28148037,-2.0
2025-07-21 14:30:39.609,3.1200000000000023,3120,156,0.120411456,-0.21099623,0.038089547,-0.07550374,-0.019211607,-0.017074525,1.5,0.0,0.0,-0.02432651,-0.06779319,0.15939045,0.2677612,0.10965402,-0.20042543,0.13939372,-0.017191313,-0.41940007,0.11402483,0.05569149,-0.12522529,0.141156,0.09959362,-0.004595141,-0.009270169,-0.020275788,-0.15947078,0.18063276,-0.016813459,0.10607648,0.02327959,-0.049572412,0.1618398,-0.21399824,2.0,0.29521334,-2.0,-2.0,-1.0959213,2.0,2.0,-0.060088485,2.0,-2.0,0.28148037,-2.0,2.0,-1.2379827,-2.0,-0.38564652,-1.8383207,2.0,0.2782797,0.1513435,2.0,-2.0,-0.6244841,-2.0
2025-07-21 14:30:39.629,3.1400000000000023,3140,157,0.11437268,-0.15386207,0.03795202,-0.086978786,-0.021962687,0.04463077,1.5,0.0,0.0,-0.025467038,-0.051022004,0.1531881,0.29026818,0.10746636,-0.24006148,0.16713397,-0.012565163,-0.3982916,0.11416129,0.055530347,-0.10717155,0.09304783,0.090529494,-0.08071817,0.026748119,-0.11070626,-0.1472075,0.05120656,0.057089288,0.0914097,0.017544063,0.034200374,0.035691418,-0.03751516,2.0,-1.2379827,-2.0,-0.38564652,-1.8383207,2.0,0.2782797,0.1513435,2.0,-2.0,-0.6244841,-2.0,2.0,-1.0096152,-2.0,2.0,-1.4752178,2.0,2.0,0.3707007,2.0,-2.0,-0.5731984,-2.0
2025-07-21 14:30:39.649,3.1600000000000024,3160,158,0.18483579,-0.23413818,0.006348415,-0.011001422,0.028535068,-0.033742987,1.5,0.0,0.0,-0.026487457,-0.036731586,0.14153184,0.28920874,0.082412824,-0.27966097,0.19508557,0.002930301,-0.3453365,0.119136035,0.05791821,-0.12446027,0.108464725,-0.027608296,0.011542519,-0.041528936,-0.060762923,-0.08980784,-0.0017590676,0.056016337,0.19098493,0.01598267,-0.03277986,-0.023941528,0.09966609,2.0,-1.0096152,-2.0,2.0,-1.4752178,2.0,2.0,0.3707007,2.0,-2.0,-0.5731984,-2.0,2.0,-1.5034239,-2.0,2.0,-1.1527538,2.0,2.0,0.61168265,2.0,-2.0,-1.020064,-2.0
2025-07-21 14:30:39.675,3.1800000000000024,3180,159,0.21155165,-0.12505618,-0.06472586,-0.09840867,0.04185017,0.022706205,1.5,0.0,0.0,-0.02681143,-0.02888255,0.1193491,0.3002662,0.09918374,-0.29348475,0.22653866,0.03033073,-0.29189754,0.14368083,0.07393985,-0.12890793,0.12307094,-0.006880553,-0.07067448,-0.027537106,-0.0016238414,-0.0083541805,0.080692545,0.082743675,0.10009851,0.077253014,0.07309178,-0.07341844,-0.023528695,2.0,-1.5034239,-2.0,2.0,-1.1527538,2.0,2.0,0.61168265,2.0,-2.0,-1.020064,-2.0,2.0,-0.9734611,-2.0,2.0,-1.0281922,2.0,2.0,0.35855457,2.0,-2.0,-0.9880297,-2.0
2025-07-21 14:30:39.692,3.2000000000000024,3200,160,0.08716641,-0.099070825,-0.019753702,-0.025389321,-0.0066757924,-0.013263813,1.5,0.0,0.0,-0.02642168,-0.03963863,0.100176856,0.3047812,0.0861249,-0.31339017,0.2425294,0.04808495,-0.23672017,0.1508759,0.073017046,-0.14831205,0.11598988,-0.03010054,-0.07610117,-0.019465487,0.022493057,-0.050565787,0.021678783,0.013158601,0.20636709,0.08337995,-0.029189914,0.037343774,0.0288852,2.0,-0.9734611,-2.0,2.0,-1.0281922,2.0,2.0,0.35855457,2.0,-2.0,-0.9880297,-2.0,2.0,-1.2250254,-2.0,2.0,-1.123419,2.0,2.0,0.5395806,2.0,-2.0,-1.2363706,-2.0
2025-07-21 14:30:39.709,3.2200000000000024,3220,161,0.02856245,-0.055122986,-0.09981371,-0.087569095,0.008236208,-0.014837737,1.5,0.0,0.0,-0.025551207,-0.04243466,0.090575665,0.30344898,0.092573635,-0.34686714,0.25638273,0.054447003,-0.17917247,0.15943515,0.085501306,-0.15447794,0.11670258,-0.074823305,0.0041994853,0.029543962,0.02855462,-0.118536256,0.01979312,0.07018444,0.16619617,-0.0018514682,0.021046475,-0.06911764,-0.055627476,2.0,-1.2250254,-2.0,2.0,-1.123419,2.0,2.0,0.5395806,2.0,-2.0,-1.2363706,-2.0,2.0,-0.20840178,-2.0,2.0,-0.44991156,2.0,2.0,0.106740385,2.0,-2.0,-1.222124,-2.0
2025-07-21 14:30:39.730,3.2400000000000024,3240,162,-0.028722538,-0.10038954,-0.07624536,-0.0392475,0.030442046,0.018388484,1.5,0.0,0.0,-0.02434795,-0.05395568,0.06568908,0.30207637,0.0855603,-0.36784708,0.25679094,0.07606329,-0.12568031,0.17945085,0.08570025,-0.16371517,0.13467143,-0.013993034,-0.07828385,-0.021928975,0.028106442,-0.08147557,0.072808094,0.09456516,0.075665675,-0.009062961,-0.02749086,0.018166536,-0.014475199,2.0,-0.20840178,-2.0,2.0,-0.44991156,2.0,2.0,0.106740385,2.0,-2.0,-1.222124,-2.0,2.0,-0.6705683,-2.0,2.0,-0.45221063,2.0,2.0,0.09375927,2.0,-2.0,-1.519113,-2.0
2025-07-21 14:30:39.749,3.2600000000000025,3260,163,-0.102521844,-0.078276075,-0.104865886,-0.030852491,0.026576571,-0.026577508,1.5,0.0,0.0,-0.022916218,-0.06581736,0.042055313,0.2791239,0.083617985,-0.37045664,0.24848166,0.07502786,-0.097183116,0.20179023,0.08588666,-0.19547288,0.12511589,-0.04051502,-0.015878031,-0.056858934,0.026536504,0.0063543012,0.030766865,-0.03924192,0.09657239,0.11104787,-0.0027548084,-0.07315131,-0.03977766,2.0,-0.6705683,-2.0,2.0,-0.45221063,2.0,2.0,0.09375927,2.0,-2.0,-1.519113,-2.0,2.0,-0.13845737,-2.0,2.0,-0.089611016,2.0,2.0,0.12487164,2.0,-2.0,-1.6382197,-2.0
2025-07-21 14:30:39.775,3.2800000000000025,3280,164,-0.12767945,0.0009462244,-0.08537909,-0.05812523,0.017487634,-0.0204048,1.5,0.0,0.0,-0.021329094,-0.062366497,0.0016993438,0.26413494,0.09682511,-0.35613906,0.23548214,0.084004305,-0.08501456,0.22554073,0.0899649,-0.22041436,0.13000293,-0.09158667,-0.11498872,0.007032583,0.018614879,0.119612835,-0.01438185,0.023565348,0.05293322,0.065225296,-0.05852719,-0.022399154,0.04290224,2.0,-0.13845737,-2.0,2.0,-0.089611016,2.0,2.0,0.12487164,2.0,-2.0,-1.6382197,-2.0,2.0,-0.49074608,-2.0,2.0,-0.02747079,2.0,2.0,0.3649884,2.0,-2.0,-1.7788063,-2.0
2025-07-21 14:30:39.792,3.3000000000000025,3300,165,-0.05820616,-0.061871048,-0.014203813,-0.036876004,0.086330175,0.027336782,1.5,0.0,0.0,-0.019866703,-0.08638378,-0.003096076,0.24665402,0.10064399,-0.33625087,0.23524314,0.10112518,-0.06524327,0.23089272,0.086909585,-0.24009581,0.12985574,-0.015725972,0.018655239,-0.047418565,-0.04972921,0.06642195,0.040636353,-0.0011704571,0.10146934,0.0971899,-0.00089701987,-0.01807303,-0.0101181725,2.0,-0.49074608,-2.0,2.0,-0.02747079,2.0,2.0,0.3649884,2.0,-2.0,-1.7788063,-2.0,2.0,-0.52029586,-2.0,2.0,0.2407417,2.0,2.0,-0.024528056,2.0,-2.0,-1.3754069,-2.0
