openverse-orca/OrcaGym/log/simulation_log_20250721_143832.csv
timestamp,sim_time,physics_step,control_step,imu_angle_roll,imu_angle_pitch,imu_angle_yaw,imu_angular_velocity_roll,imu_angular_velocity_pitch,imu_angular_velocity_yaw,imu_acc_x,imu_acc_y,imu_acc_z,fl_joint1_pos,fl_joint1_vel,fl_joint1_torque,fl_joint2_pos,fl_joint2_vel,fl_joint2_torque,fl_joint3_pos,fl_joint3_vel,fl_joint3_torque,fr_joint1_pos,fr_joint1_vel,fr_joint1_torque,fr_joint2_pos,fr_joint2_vel,fr_joint2_torque,fr_joint3_pos,fr_joint3_vel,fr_joint3_torque,hl_joint1_pos,hl_joint1_vel,hl_joint1_torque,hl_joint2_pos,hl_joint2_vel,hl_joint2_torque,hl_joint3_pos,hl_joint3_vel,hl_joint3_torque,hr_joint1_pos,hr_joint1_vel,hr_joint1_torque,hr_joint2_pos,hr_joint2_vel,hr_joint2_torque,hr_joint3_pos,hr_joint3_vel,hr_joint3_torque,fl_force_x,fl_force_y,fl_force_z,fr_force_x,fr_force_y,fr_force_z,hl_force_x,hl_force_y,hl_force_z,hr_force_x,hr_force_y,hr_force_z,fl_hip_action,fl_thigh_action,fl_calf_action,fr_hip_action,fr_thigh_action,fr_calf_action,hl_hip_action,hl_thigh_action,hl_calf_action,hr_hip_action,hr_thigh_action,hr_calf_action
2025-07-21 14:38:32.982,0.0,0,0,0.035647437,-0.0014614747,-0.011127986,0.009336494,0.01770806,0.010650407,0.6277895,0.4543649,0.0,0.0,0.008333831,0.00748671,-0.009393142,0.009917872,-0.009563881,-0.005486969,-0.0064135143,0.007684625,-0.00705134,0.0013652479,-0.007061281,0.0047160396,0.07303035,0.016899036,-0.03744404,-0.063273124,0.0060484456,0.041094944,-0.0508892,0.046485692,0.055051535,0.012667804,0.07036465,0.0023912876,0.0,0.0,0.0,0.0,0.0,0.0,0.0,0.0,0.0,0.0,0.0,0.0,0.34387153,0.40815544,-0.28778112,-0.20290887,-0.33581626,0.59504133,-0.1598621,0.4880995,0.6007743,0.21526933,0.4060615,0.37785736
2025-07-21 14:38:33.002,0.02,20,1,0.12406484,0.113252684,-0.1413354,-0.044065446,0.00062454265,0.018441081,0.0,0.0,0.0,-0.25,0.015541379,0.03289618,-0.007549244,-0.006952308,-0.013292791,0.011959882,0.0034498607,0.02298854,0.010476554,-0.010074985,0.013312077,0.0012462372,-0.007540303,0.024810344,-0.03080749,-0.023439152,-0.0026569248,0.080143146,0.044485517,0.09680611,0.059310354,-0.0032768121,0.07667042,-0.0025768995,0.34387153,0.40815544,-0.28778112,-0.20290887,-0.33581626,0.59504133,-0.1598621,0.4880995,0.6007743,0.21526933,0.4060615,0.37785736,-0.16666275,-0.8547582,-0.22080697,0.28294158,-0.6071193,0.1702669,-0.60356724,-0.13670592,-0.038132727,-0.25939745,-0.29455337,0.13110588
2025-07-21 14:38:33.027,0.04,40,2,-0.14672762,-0.18133503,-0.10716209,-0.031995595,-0.015130263,0.026656868,0.0,0.0,0.0,-0.25,0.006315145,0.028913576,-0.02062372,-0.0011246845,-0.025822213,0.015228462,-0.0037378292,0.025959142,0.010464479,-0.010724628,0.012675347,-0.0042287773,0.07163604,-0.067951955,-0.011170893,0.026261142,-0.116276525,-0.05268034,-0.022314018,-0.076672085,-0.0619559,0.031966817,-0.07278754,-0.01887488,-0.16666275,-0.8547582,-0.22080697,0.28294158,-0.6071193,0.1702669,-0.60356724,-0.13670592,-0.038132727,-0.25939745,-0.29455337,0.13110588,-0.05200502,-0.95107114,0.97120625,0.06740523,0.23424485,-0.58872527,-0.99042046,1.0394212,0.36823016,-0.113430694,0.08379764,0.93702567
2025-07-21 14:38:33.049,0.06,60,3,-0.075914755,0.023431841,-0.11440617,-0.021197045,-0.020149559,0.004780677,0.0,0.0,0.0,-0.25,0.015003401,-0.002921505,0.009892788,-7.925466e-05,-0.020748671,-0.0029406345,-0.04010016,0.050478216,-0.00046812952,-0.0068152887,-0.004887104,0.014287819,-0.046803452,-0.16080174,0.07681186,0.046797346,0.06365662,-0.00033408307,-0.017784873,0.117200054,-0.020738496,-0.074406706,0.031840198,0.030209448,-0.05200502,-0.95107114,0.97120625,0.06740523,0.23424485,-0.58872527,-0.99042046,1.0394212,0.36823016,-0.113430694,0.08379764,0.93702567,0.07336966,-0.23743138,0.51552254,0.286999,0.20034501,-0.8781311,-0.05699335,1.0072087,-0.5438648,-0.26104376,-0.8177785,0.77266407
2025-07-21 14:38:33.093,0.08,80,4,-0.04159397,-0.07510428,-0.11123243,0.018927226,-0.05846462,0.0013211339,0.0,0.0,0.0,-0.25,0.023051927,-0.018715922,0.011406315,-0.0013670062,-0.0019854975,-0.026262857,-0.022904161,0.10353048,-0.007698071,-0.019345433,-0.022353936,0.0405916,0.07729071,0.033487074,0.07771072,0.014384565,0.11072817,-0.12551852,-0.015390452,0.092345454,-0.037645586,0.038160264,-0.15083958,0.11442988,0.07336966,-0.23743138,0.51552254,0.286999,0.20034501,-0.8781311,-0.05699335,1.0072087,-0.5438648,-0.26104376,-0.8177785,0.77266407,0.40572354,-0.7834337,1.1488061,-0.22559531,-0.2706865,-1.5456133,-0.36032075,1.0355566,-0.96413887,0.08853187,-0.692195,1.0165995
2025-07-21 14:38:33.119,0.1,100,5,-0.23408888,-0.13752735,-0.052874114,0.046788935,0.0048359847,0.038032394,0.0,0.0,0.0,-0.25,0.03024559,-0.051754456,0.04275035,0.0041067745,-0.00947129,-0.06463329,-0.041218035,0.1662475,-0.033915352,-0.022800477,-0.082152516,0.057489894,-0.037685998,-0.093754224,-0.0036587366,-0.0907618,-0.066838875,-0.017147033,-0.0866226,0.18028693,-0.11007293,-0.026736258,-0.11601188,0.017646194,0.40572354,-0.7834337,1.1488061,-0.22559531,-0.2706865,-1.5456133,-0.36032075,1.0355566,-0.96413887,0.08853187,-0.692195,1.0165995,0.7474046,-0.12990218,1.0386779,-0.2195901,0.21329856,-0.8740263,-0.19405758,0.8739921,0.018041588,-0.32221588,-0.3731191,1.2338665
2025-07-21 14:38:33.142,0.12000000000000001,120,6,-0.060231306,0.06667742,-0.10192274,-0.02077097,-0.06871206,-0.014949906,0.0,0.0,0.0,-0.25,0.033483673,-0.06571724,0.072672255,-0.005549145,-0.010578384,-0.07546635,-0.044859864,0.1962795,-0.03592907,-0.026855398,-0.09062828,0.09226857,0.06978911,-0.032590438,0.047734477,-0.0071367407,0.037428252,-0.015175844,0.037449457,0.1096501,0.056030724,0.03816523,-0.07057134,0.08025215,0.7474046,-0.12990218,1.0386779,-0.2195901,0.21329856,-0.8740263,-0.19405758,0.8739921,0.018041588,-0.32221588,-0.3731191,1.2338665,0.08241931,-0.27291504,0.58841574,-0.09610038,0.23455516,-0.61443007,-0.08668059,0.40943828,-0.09284179,-0.5109379,-0.61528784,1.0149609
2025-07-21 14:38:33.161,0.14,140,7,-0.16848099,0.05079643,-0.10511287,0.00641445,-0.008012708,-0.018110182,0.0,0.0,0.0,-0.25,0.034401,-0.07242032,0.06956194,-0.0129069695,0.018373169,-0.087468974,-0.024479728,0.19684583,-0.034098662,-0.043789573,-0.11420633,0.10527249,0.027379515,0.031969618,-0.027073268,-0.017436303,-0.006098799,0.026716787,-0.048549578,-0.019516055,-0.044481643,-0.0068361396,-0.09610034,-0.00092282676,0.08241931,-0.27291504,0.58841574,-0.09610038,0.23455516,-0.61443007,-0.08668059,0.40943828,-0.09284179,-0.5109379,-0.61528784,1.0149609,0.5652699,-0.56689024,0.5640073,-0.5645115,0.54429424,-0.9248876,0.15976402,0.7870815,-0.35167402,-0.44556978,-0.7105804,1.0423855
2025-07-21 14:38:33.180,0.16,160,8,-0.18368363,0.038430933,-0.070617594,0.027812885,-0.012498766,0.03711355,0.0,0.0,0.0,-0.25,0.0509819,-0.09194614,0.078827076,-0.022356786,0.044797648,-0.09772456,-0.026118984,0.22446138,-0.040165775,-0.03855261,-0.14111434,0.10639758,-0.004144289,-0.03357556,0.02294805,-0.062152356,0.062711164,-0.0072438163,-0.049836636,0.084528945,0.013949256,0.030490126,-0.0700151,-0.039522182,0.5652699,-0.56689024,0.5640073,-0.5645115,0.54429424,-0.9248876,0.15976402,0.7870815,-0.35167402,-0.44556978,-0.7105804,1.0423855,0.45920858,-0.31970346,0.6642503,-0.4534989,0.28615856,-0.9245716,-0.022664785,0.55442846,-0.11125441,-0.2517998,-0.60817885,0.8338686
2025-07-21 14:38:33.200,0.18,180,9,-0.030742992,-0.023485452,-0.08633671,0.03481586,-0.10974982,-0.040942103,0.0,0.0,0.0,-0.25,0.062177762,-0.10947621,0.079921275,-0.035978913,0.06938368,-0.09985956,-0.013395979,0.2287692,-0.024238177,-0.040968742,-0.17535543,0.1151352,0.09017466,0.048306506,-0.042058513,-0.08281242,-0.0026426932,-0.016115624,0.050897427,0.06459402,-0.004569615,0.057080276,-0.038143467,0.04980016,0.45920858,-0.31970346,0.6642503,-0.4534989,0.28615856,-0.9245716,-0.022664785,0.55442846,-0.11125441,-0.2517998,-0.60817885,0.8338686,0.37004116,-0.5868478,0.75099725,-0.49221724,0.30084825,-0.49941155,0.021720394,0.32206208,-0.23474701,-0.38890472,-0.6668113,0.6188122
2025-07-21 14:38:33.223,0.19999999999999998,200,10,-0.106137566,-0.054584675,0.014866665,0.022106769,-0.05173677,-0.018360883,0.0,0.0,0.0,-0.25,0.053284198,-0.12076645,0.08078945,-0.043177873,0.07952041,-0.11042016,-0.02250506,0.2005302,-0.038838103,-0.059589896,-0.18880528,0.11463653,0.052053817,-0.024241652,0.05630047,-0.015283069,-0.04024065,-0.0058879554,-0.017982174,-0.09162242,-0.053217445,-0.021795824,0.009918038,0.019475956,0.37004116,-0.5868478,0.75099725,-0.49221724,0.30084825,-0.49941155,0.021720394,0.32206208,-0.23474701,-0.38890472,-0.6668113,0.6188122,0.5895589,-0.47294623,0.6727911,-0.3625316,0.6397901,-0.35752937,0.12422037,1.0139419,-0.22990443,-0.5478052,-1.1646446,0.88589776
2025-07-21 14:38:33.243,0.21999999999999997,220,11,0.056554034,-0.10553358,-0.061199546,-0.019257667,-0.11254555,0.009978563,0.0,0.0,0.0,-0.25,0.067417756,-0.14128423,0.08591565,-0.040814396,0.09415272,-0.10515372,-0.0068353927,0.23811704,-0.041161127,-0.05696745,-0.2155262,0.10769037,0.10080381,-0.0052879094,-0.06336251,-0.0032983858,0.13583793,0.036061313,-0.018726062,0.07730419,-0.07515248,0.0058011753,-0.07673309,0.05927458,0.5895589,-0.47294623,0.6727911,-0.3625316,0.6397901,-0.35752937,0.12422037,1.0139419,-0.22990443,-0.5478052,-1.1646446,0.88589776,0.48853806,-0.29948854,0.48389667,-0.59757173,-0.07650123,-0.6567541,0.29252034,0.0708919,-0.10323888,-0.515846,-0.3618052,0.5832236
2025-07-21 14:38:33.260,0.23999999999999996,240,12,0.10637286,0.011241796,-0.062384352,-0.0022382697,-0.045059912,0.039956056,0.0,0.0,0.0,-0.25,0.073573425,-0.14132272,0.07289336,-0.05681631,0.08418268,-0.101684056,-0.005231926,0.22479618,-0.024214212,-0.07048881,-0.2095433,0.097313076,-0.019861268,-0.05139827,-0.06007451,-0.016610662,0.0206065,0.07540092,-0.0001307083,-0.06354023,-0.03666301,0.0043627727,0.06624495,-0.061256476,0.48853806,-0.29948854,0.48389667,-0.59757173,-0.07650123,-0.6567541,0.29252034,0.0708919,-0.10323888,-0.515846,-0.3618052,0.5832236,0.61777276,-0.22751129,0.56160134,-0.39907408,-0.0021937266,0.07416371,-0.026075862,0.10295507,-0.13399388,-0.47654983,-0.53287494,0.6272725
2025-07-21 14:38:33.280,0.25999999999999995,260,13,0.15748698,0.10298525,-0.0620414,0.024868948,-0.024010273,0.042340893,0.0,0.0,0.0,-0.25,0.075902954,-0.12893762,0.08088955,-0.054439306,0.07678085,-0.100704946,-0.0055734967,0.18985686,-0.018764494,-0.063498355,-0.21996199,0.10704215,0.027570251,-0.024911324,0.023884647,0.072841085,-0.054615192,-0.0036690356,0.019303754,-0.10990761,0.054726657,0.019537166,0.022980213,-0.04281573,0.61777276,-0.22751129,0.56160134,-0.39907408,-0.0021937266,0.07416371,-0.026075862,0.10295507,-0.13399388,-0.47654983,-0.53287494,0.6272725,0.65518075,-0.50796056,0.5865687,-0.4023705,0.19096544,0.05851815,0.027371436,0.40463516,-0.25216293,-0.5515754,-0.5911563,0.819836
2025-07-21 14:38:33.303,0.27999999999999997,280,14,0.0726644,0.048889387,-0.048460245,-0.03351332,-0.037851233,-0.017101271,0.0,0.0,0.0,-0.25,0.102517076,-0.1438929,0.08075278,-0.055815943,0.07443905,-0.08012576,-0.00909536,0.17673323,-0.027089681,-0.08263305,-0.20843028,0.102233015,-0.035078727,-0.07743722,0.048061375,0.004022556,0.009070598,-0.044470068,-0.039098777,0.061558288,-0.06750101,-0.017606143,-0.06779198,0.0144340275,0.65518075,-0.50796056,0.5865687,-0.4023705,0.19096544,0.05851815,0.027371436,0.40463516,-0.25216293,-0.5515754,-0.5911563,0.819836,0.64932376,-0.1618703,0.791856,-0.48864627,-0.07805956,-0.9955284,-0.23377152,0.40405032,-0.17770647,-0.3290637,-0.4101,1.1645455
2025-07-21 14:38:33.323,0.3,300,15,0.16618194,0.12655549,-0.09121063,-0.026160626,-0.0006424618,0.044742648,0.0,0.0,0.0,-0.25,0.100730196,-0.120327055,0.075094685,-0.05452728,0.050982058,-0.087031305,-0.018873384,0.17435831,-0.026841512,-0.079949096,-0.21482679,0.104683205,0.021116467,0.06576531,0.012472327,-0.046029925,-0.008955682,-0.055265613,-0.073663555,-0.046527177,0.01257344,0.045631833,0.027882759,0.010979823,0.64932376,-0.1618703,0.791856,-0.48864627,-0.07805956,-0.9955284,-0.23377152,0.40405032,-0.17770647,-0.3290637,-0.4101,1.1645455,0.41208225,-1.0001904,0.61133707,-0.23456639,0.0893245,-0.14471361,-0.21557282,0.64762485,-0.33314115,-0.48247832,-0.82261795,0.9488323
2025-07-21 14:38:33.341,0.32,320,16,0.113048315,-0.05715451,-0.07374192,-0.019962173,-0.043582354,0.019974424,0.0,0.0,0.0,-0.25,0.10895004,-0.13835365,0.08552315,-0.053935975,0.049150534,-0.087807536,-0.0133879725,0.19212708,-0.03109393,-0.08543922,-0.21898845,0.10107804,0.04521762,-0.019339953,-0.04751068,-0.047446474,-0.00668168,0.046232898,0.003715061,0.0048653358,0.014244042,0.019259492,-0.017855262,-0.00670706,0.41208225,-1.0001904,0.61133707,-0.23456639,0.0893245,-0.14471361,-0.21557282,0.64762485,-0.33314115,-0.48247832,-0.82261795,0.9488323,0.7928842,-0.5648223,0.7085889,-0.53295153,0.19773501,-0.57546556,0.056023195,0.6663225,-0.13608904,-0.37571767,-0.41888866,0.8206397
2025-07-21 14:38:33.360,0.34,340,17,0.16894321,-0.027923092,0.05320946,0.035877038,0.019737015,0.025506873,0.0,0.0,0.0,-0.25,0.10348357,-0.1563558,0.089872345,-0.061512154,0.046111654,-0.08325776,-0.014972861,0.21645722,-0.029333206,-0.08788326,-0.21947426,0.10196962,-0.024699183,-0.020635579,-0.011518918,-0.005427512,-0.042990208,0.06550858,0.07772247,-0.02477966,0.016649526,-0.042477384,-0.038568694,0.023206243,0.7928842,-0.5648223,0.7085889,-0.53295153,0.19773501,-0.57546556,0.056023195,0.6663225,-0.13608904,-0.37571767,-0.41888866,0.8206397,0.75950503,-0.023280015,0.86359227,-0.3097188,0.13137823,-0.5482382,-0.019235633,0.6804592,-0.0131389275,-0.0345342,-0.69178855,1.2039721
2025-07-21 14:38:33.381,0.36000000000000004,360,18,0.17278107,-0.011050732,-0.14293131,0.046073418,-0.011548949,0.045833826,0.0,0.0,0.0,-0.25,0.123059325,-0.14412807,0.0731966,-0.062021796,0.05690161,-0.08960955,-0.0062945043,0.22659208,-0.028143167,-0.083563425,-0.23537946,0.112540886,-0.023601295,0.06672003,-0.054455575,-0.06290545,0.022637898,-0.049625166,0.05112983,0.07447758,0.027125169,0.05728992,0.013412146,0.06137142,0.75950503,-0.023280015,0.86359227,-0.3097188,0.13137823,-0.5482382,-0.019235633,0.6804592,-0.0131389275,-0.0345342,-0.69178855,1.2039721,0.4751366,-0.83696383,0.48847303,-0.42130232,-0.07797042,-0.48107168,0.10687551,-0.08675139,-0.119139284,-0.46186507,-0.56130457,0.7986367
2025-07-21 14:38:33.404,0.38000000000000006,380,19,0.08046549,0.025706481,0.00577205,0.04474902,0.050983008,0.04536394,0.0,0.0,0.0,-0.25,0.13580008,-0.16574594,0.07606132,-0.06570012,0.033311024,-0.09115678,-0.010388528,0.18036883,-0.015588562,-0.09172851,-0.23181234,0.10718045,-0.040684026,0.015379291,0.042274978,0.06727166,-0.09966744,0.035416886,-0.022198338,-0.09236125,-0.044434648,-0.050439786,0.0024021952,0.0406032,0.4751366,-0.83696383,0.48847303,-0.42130232,-0.07797042,-0.48107168,0.10687551,-0.08675139,-0.119139284,-0.46186507,-0.56130457,0.7986367,0.76361865,-0.26864773,0.95703536,-0.37705782,0.29539967,-0.50808984,-0.17148116,0.8630903,-0.1851119,-0.14925675,-0.7379714,1.2635124
2025-07-21 14:38:33.424,0.4000000000000001,400,20,0.15374741,0.04628637,-0.14365157,-0.01242297,0.069324575,0.014460631,0.0,0.0,0.0,-0.25,0.12850367,-0.1618031,0.07475419,-0.056328554,0.060525544,-0.08071815,-0.019769926,0.19983438,-0.02510623,-0.086708836,-0.25521675,0.114410296,0.094246484,0.023011282,-0.052390132,0.041622184,0.088014394,0.04467196,0.011153208,0.077399485,0.04062813,-0.03110167,-0.07783087,0.05634755,0.76361865,-0.26864773,0.95703536,-0.37705782,0.29539967,-0.50808984,-0.17148116,0.8630903,-0.1851119,-0.14925675,-0.7379714,1.2635124,0.7796093,-0.6177666,0.511627,-0.4806753,-0.2989741,-0.5151289,0.16445297,-0.12307154,-0.030520856,-0.50317115,-0.08137875,0.7827437
2025-07-21 14:38:33.442,0.4200000000000001,420,21,-0.034318183,-0.09253517,0.038684595,-0.0111345155,0.024219172,0.036210883,0.0,0.0,0.0,-0.25,0.14296085,-0.18051578,0.069129765,-0.0558643,0.034772344,-0.07934861,-0.0029322968,0.1923692,-0.010925108,-0.08176741,-0.22019258,0.10968759,0.013192006,-0.048461992,-0.027320234,-0.056018114,-0.042646386,0.034110766,-0.045078475,0.0037898049,-0.0015347631,0.034395214,0.028497027,0.022705952,0.7796093,-0.6177666,0.511627,-0.4806753,-0.2989741,-0.5151289,0.16445297,-0.12307154,-0.030520856,-0.50317115,-0.08137875,0.7827437,0.47742793,-0.22111344,0.9755269,-0.16627899,0.15109733,-0.5804805,-0.48221546,0.6004129,0.14761624,-0.040796563,-0.7096419,1.213589
2025-07-21 14:38:33.461,0.4400000000000001,440,22,-0.004972953,-0.043422826,-0.13009343,0.068036616,0.079163074,0.045819387,0.0,0.0,0.0,-0.25,0.13741007,-0.18551101,0.0760461,-0.05945095,0.036540322,-0.07572722,-0.015980069,0.19909678,-0.0077434303,-0.085736185,-0.23474513,0.1132873,0.07844743,0.071490124,0.04695661,0.012964827,-0.016656708,-0.05418538,-0.06179434,-0.046144463,-0.02391987,-0.058115236,0.0091023045,-0.020261144,0.47742793,-0.22111344,0.9755269,-0.16627899,0.15109733,-0.5804805,-0.48221546,0.6004129,0.14761624,-0.040796563,-0.7096419,1.213589,0.66175115,-0.8815075,0.44935152,-0.5100671,0.37738022,-0.65977186,0.26651913,0.6484374,-0.110105485,-0.3438829,-0.8828956,1.1097767
2025-07-21 14:38:33.480,0.46000000000000013,460,23,-0.07217386,-0.16011724,0.007436013,0.0006278345,0.069821455,-0.019857936,0.0,0.0,0.0,-0.25,0.13873194,-0.19179472,0.083456606,-0.057012036,0.053351462,-0.09574322,-0.006909653,0.19906153,-0.015181762,-0.093506455,-0.2576339,0.12772903,-0.009064608,-0.038785364,0.01456695,-0.08640844,0.03330245,-0.057913348,-0.046174105,0.017960796,0.05985083,-0.04469375,-0.027069097,0.08963234,0.66175115,-0.8815075,0.44935152,-0.5100671,0.37738022,-0.65977186,0.26651913,0.6484374,-0.110105485,-0.3438829,-0.8828956,1.1097767,0.79215175,-0.014359987,0.8947986,-0.53250176,0.17502904,-1.1181214,0.02927944,0.7724865,-0.023687713,0.049576357,-0.71974176,1.2675683
2025-07-21 14:38:33.504,0.48000000000000015,480,24,0.16182707,-0.0021070691,-0.07272933,0.00027309742,0.057498828,0.020914497,0.0,0.0,0.0,-0.25,0.14645723,-0.20638427,0.07275284,-0.062783204,0.053315595,-0.097567745,-0.0130240265,0.22114703,-0.01589774,-0.085409306,-0.25879458,0.13370466,0.048377875,0.022805896,0.04418432,-0.06338265,0.051803246,-0.053130858,-0.0145316385,0.050266627,-0.05048883,0.0044319956,-0.0154357385,-0.010578576,0.79215175,-0.014359987,0.8947986,-0.53250176,0.17502904,-1.1181214,0.02927944,0.7724865,-0.023687713,0.049576357,-0.71974176,1.2675683,0.59755224,-0.28751016,0.63517064,-0.45551997,-0.14091712,-0.5112926,-0.1047266,0.12878425,0.15654676,-0.22187673,-0.5339122,1.1621915
2025-07-21 14:38:33.524,0.5000000000000001,500,25,0.16895078,0.08687706,-0.083516,-0.00766931,0.026367927,-0.040272992,0.0,0.0,0.0,-0.25,0.16276477,-0.19819327,0.06816487,-0.065971754,0.045990866,-0.09213157,-0.011924785,0.21283768,-0.016198073,-0.09746145,-0.25485158,0.13289754,0.030225402,0.088930234,-0.026332732,-0.04911819,-0.10869765,0.064479575,-0.015602712,-0.066954374,0.03913536,0.0006431344,0.08886127,0.037610207,0.59755224,-0.28751016,0.63517064,-0.45551997,-0.14091712,-0.5112926,-0.1047266,0.12878425,0.15654676,-0.22187673,-0.5339122,1.1621915,0.6001918,-0.75775707,0.6002894,-0.2889518,0.38262308,0.1608012,-0.029696167,0.27204782,-0.13652489,-0.57901955,-1.0068034,1.0689423
2025-07-21 14:38:33.542,0.5200000000000001,520,26,-0.058798783,-0.09654022,-0.048990037,0.065939315,-0.005642286,0.018467689,0.0,0.0,0.0,-0.25,0.15666552,-0.21672834,0.08197532,-0.07110664,0.04391729,-0.07788508,-0.017673187,0.18725748,-0.013692907,-0.10475491,-0.274744,0.14074941,0.066815905,-0.010318234,-0.016350135,0.07394028,0.058724467,0.029838158,0.007584855,-0.07199944,0.03221672,-0.014495645,-0.10988465,-0.047880583,0.6001918,-0.75775707,0.6002894,-0.2889518,0.38262308,0.1608012,-0.029696167,0.27204782,-0.13652489,-0.57901955,-1.0068034,1.0689423,0.7682847,-0.10815131,0.58074737,-0.6665937,0.0012513623,-0.7104634,-0.05502534,0.7192857,-0.22029968,-0.34325385,-0.26426604,0.93879414
2025-07-21 14:38:33.562,0.5400000000000001,540,27,0.02764516,0.13300757,0.048789766,0.021964293,0.05776973,-0.039290898,0.0,0.0,0.0,-0.25,0.14582542,-0.18806188,0.076858304,-0.06487071,0.04157367,-0.08525449,-0.0025685306,0.19905852,-0.018543275,-0.100374125,-0.25642106,0.12755427,-0.027074171,0.035831537,-0.05834043,-0.013487098,-0.010185962,0.049056288,-0.03637064,0.033283688,-0.055640124,0.043409485,0.098227665,0.0076693357,0.7682847,-0.10815131,0.58074737,-0.6665937,0.0012513623,-0.7104634,-0.05502534,0.7192857,-0.22029968,-0.34325385,-0.26426604,0.93879414,0.29715216,-0.5232531,0.74338526,-0.25586057,0.30919364,-0.40601835,-0.2556079,0.54331726,-0.06826836,-0.25222775,-1.3835546,1.1126273
2025-07-21 14:38:33.576,0.5600000000000002,560,28,-0.14932023,-0.07717474,-0.0047993693,0.06589903,0.0034231711,-0.005566774,0.0,0.0,0.0,-0.25,0.1401705,-0.19516578,0.07429445,-0.0758673,0.05700955,-0.07169842,-0.008579681,0.21330284,-0.022785703,-0.10238223,-0.27911752,0.15040232,-0.03201522,-0.016943343,0.052551568,0.044072498,0.10727663,0.055910435,0.011874238,-0.04098491,-0.032281633,-0.009661761,-0.13932577,-0.021469845,0.29715216,-0.5232531,0.74338526,-0.25586057,0.30919364,-0.40601835,-0.2556079,0.54331726,-0.06826836,-0.25222775,-1.3835546,1.1126273,0.9430641,-0.1061684,0.546591,-0.56499195,-0.055290617,-1.0040222,0.18789653,0.75241935,-0.06496045,-0.3330855,-0.39779654,0.99659383
2025-07-21 14:38:33.599,0.5800000000000002,580,29,0.07794463,0.09426764,-0.057579637,-0.0075034127,0.03265207,-0.042501014,0.0,0.0,0.0,-0.25,0.16201793,-0.18689774,0.07608514,-0.062732436,0.042572845,-0.08549175,0.0006975372,0.22048537,-0.01697941,-0.10444972,-0.27335346,0.1423495,-0.027532464,0.10394271,0.037248388,-0.049785964,-0.026956502,-0.017323568,0.053193998,0.06588379,-0.05097727,-0.034180813,-0.022269877,-0.05633334,0.9430641,-0.1061684,0.546591,-0.56499195,-0.055290617,-1.0040222,0.18789653,0.75241935,-0.06496045,-0.3330855,-0.39779654,0.99659383,0.46864364,-0.755155,0.60074276,-0.49470007,0.060699306,-0.6698391,-0.3479394,0.25035074,0.24662589,-0.1280819,-0.6452871,1.165193
2025-07-21 14:38:33.623,0.6000000000000002,600,30,-0.0843868,-0.09012574,0.12480026,0.05318238,-0.009556303,-0.03307351,0.0,0.0,0.0,-0.25,0.15200049,-0.19062978,0.07760437,-0.06920573,0.034463152,-0.08737282,-0.023048544,0.21001889,-0.0024517528,-0.09371138,-0.2752056,0.1425365,-0.04940591,-0.10809976,0.04236102,0.021906918,0.050120886,0.06965828,0.0064296783,0.012753174,0.035113566,-0.012375192,-0.08546215,0.008599472,0.46864364,-0.755155,0.60074276,-0.49470007,0.060699306,-0.6698391,-0.3479394,0.25035074,0.24662589,-0.1280819,-0.6452871,1.165193,0.71166104,0.31127274,0.8552761,-0.23838063,0.029197536,-1.0218498,0.18310985,0.6282294,0.21286827,-0.24463157,-0.68242997,1.2693151
2025-07-21 14:38:33.642,0.6200000000000002,620,31,0.054873727,0.08215484,-0.04915091,0.083760984,-0.006343367,-0.0054413015,0.0,0.0,0.0,-0.25,0.14952032,-0.1957105,0.061295737,-0.0694432,0.042934224,-0.09720937,-0.00054119807,0.22099006,-0.006273602,-0.099220514,-0.2670458,0.14381501,-0.013962317,0.026986694,0.06331986,-0.008323211,-0.02572781,-0.07558297,0.051630665,0.014285425,0.058838002,-0.029097682,-0.07260089,0.07222512,0.71166104,0.31127274,0.8552761,-0.23838063,0.029197536,-1.0218498,0.18310985,0.6282294,0.21286827,-0.24463157,-0.68242997,1.2693151,0.6360368,-0.1238189,0.68180877,-0.42392823,-0.04583127,-0.84220976,0.008859992,0.21404798,0.42064834,-0.1255051,-0.62687105,1.4448453
2025-07-21 14:38:33.663,0.6400000000000002,640,32,-0.11165897,-0.04106251,0.05916145,-0.0035071247,0.026031455,-0.017236225,0.0,0.0,0.0,-0.25,0.15573804,-0.17702737,0.067062885,-0.07064042,0.03259416,-0.111162886,-0.013898199,0.20131177,0.013921764,-0.09276352,-0.27425385,0.14826518,-0.0069507654,-0.023128841,-0.07674392,-0.0074721267,-0.050041333,-0.026243703,-0.031915203,-0.05393813,0.055649478,0.050730664,0.01939009,0.025810964,0.6360368,-0.1238189,0.68180877,-0.42392823,-0.04583127,-0.84220976,0.008859992,0.21404798,0.42064834,-0.1255051,-0.62687105,1.4448453,0.6008919,-0.095581606,0.6191066,-0.18999545,0.6118353,-0.56236196,0.14552292,0.7821977,0.29931843,-0.44353613,-1.3301415,1.4972737
2025-07-21 14:38:33.682,0.6600000000000003,660,33,0.028773041,-0.06207575,-0.03595076,0.08568139,0.0052126325,0.03341018,0.0,0.0,0.0,-0.25,0.14976206,-0.15393712,0.054356713,-0.064087324,0.06648228,-0.09936137,0.0003423979,0.23185283,0.020451104,-0.094406895,-0.3001394,0.1754978,-0.06683732,0.10492381,-0.008676335,0.018145043,0.15157342,-0.009061188,0.026095564,0.06394317,-0.049378656,0.009332384,-0.059850805,0.021174924,0.6008919,-0.095581606,0.6191066,-0.18999545,0.6118353,-0.56236196,0.14552292,0.7821977,0.29931843,-0.44353613,-1.3301415,1.4972737,0.38657314,-0.626181,0.53965974,-0.5167531,-0.15707421,-1.0027541,0.06410908,0.158861,0.07584135,-0.15556277,-0.81934345,1.0494233
2025-07-21 14:38:33.705,0.6800000000000003,680,34,-0.14844607,-0.09377678,0.09117674,0.070593305,0.041228738,-0.03348937,0.0,0.0,0.0,-0.25,0.14537546,-0.15558958,0.059973937,-0.061161697,0.05787016,-0.10995555,-0.008419169,0.20900446,0.016673693,-0.1015887,-0.297976,0.1662244,-0.01776934,-0.05967933,-0.028302224,0.052816384,0.01417575,0.049154103,-0.009813414,-0.061121736,-0.023539586,-0.021483893,-0.029708968,-0.0046528247,0.38657314,-0.626181,0.53965974,-0.5167531,-0.15707421,-1.0027541,0.06410908,0.158861,0.07584135,-0.15556277,-0.81934345,1.0494233,0.8144982,-0.01989994,0.8523393,-0.3834427,0.24761713,-0.716145,0.14651543,0.78466743,0.13664791,-0.19783317,-0.8241479,1.1107818
2025-07-21 14:38:33.724,0.7000000000000003,700,35,-0.047703702,0.0036768576,-0.10360551,0.087714694,0.07043478,0.041587435,0.0,0.0,0.0,-0.25,0.16452354,-0.16377345,0.063350976,-0.0661379,0.05696982,-0.11913202,0.0010324784,0.20992465,0.023262095,-0.099531285,-0.30417308,0.15499078,0.07503685,0.015936928,-0.032065112,0.07646816,0.026818775,-0.021195743,0.00547074,0.07903783,0.05365861,0.002656576,0.017933529,-0.069437735,0.8144982,-0.01989994,0.8523393,-0.3834427,0.24761713,-0.716145,0.14651543,0.78466743,0.13664791,-0.19783317,-0.8241479,1.1107818,0.7129067,-0.515122,0.45651188,-0.5288932,0.0077120885,-0.6296117,0.1324383,-0.06913631,0.21002425,-0.36937937,-0.48055312,0.8383744
2025-07-21 14:38:33.745,0.7200000000000003,720,36,-0.056897283,-0.02889674,0.06516679,0.085651554,0.008626748,-0.018201614,0.0,0.0,0.0,-0.25,0.16709165,-0.16468017,0.058941256,-0.057890706,0.055153094,-0.104760155,0.0028669145,0.19325805,0.028550697,-0.10066182,-0.292228,0.1560184,-0.07800707,-0.027602276,-0.029008253,-0.06777708,-0.095436156,0.0445041,-0.04689333,-0.08175622,0.034609597,0.010531603,0.063862376,0.0095674675,0.7129067,-0.515122,0.45651188,-0.5288932,0.0077120885,-0.6296117,0.1324383,-0.06913631,0.21002425,-0.36937937,-0.48055312,0.8383744,0.5000013,-0.2825364,0.9301721,-0.23209478,0.5740826,-0.45492572,-0.2007516,0.92875755,0.110205345,0.07907708,-1.04656,1.1317385
2025-07-21 14:38:33.766,0.7400000000000003,740,37,-0.06467176,-0.036803648,-0.09202335,0.08438354,0.03510864,-0.008586391,0.0,0.0,0.0,-0.25,0.15277317,-0.15736073,0.06674878,-0.06800715,0.08106605,-0.103924856,0.004558823,0.20167133,0.016481448,-0.097147204,-0.28862235,0.1472323,0.046404667,0.051609956,0.009521202,0.05908322,0.05796565,-0.02327739,-0.05682336,0.15728328,-0.041615684,0.02503121,0.031702153,-0.016395163,0.5000013,-0.2825364,0.9301721,-0.23209478,0.5740826,-0.45492572,-0.2007516,0.92875755,0.110205345,0.07907708,-1.04656,1.1317385,0.6792578,-0.7720384,0.5370544,-0.47056586,0.091979526,-0.8557004,0.23562264,0.043212187,-0.2056003,-0.5486165,-0.9083676,0.7157918
2025-07-21 14:38:33.784,0.7600000000000003,760,38,-0.20632723,-0.13250786,0.031724323,0.04464913,0.024717238,0.002670446,0.0,0.0,0.0,-0.25,0.17107797,-0.16623157,0.073781796,-0.056198433,0.078804515,-0.10600716,0.0059078033,0.18229057,0.014894122,-0.10591832,-0.30324385,0.15038285,0.06856131,-0.030125378,-0.06489667,0.018780049,0.052757204,0.040881746,-0.049764782,-0.07329434,0.0072619678,-0.0929727,-0.092816584,-0.051030777,0.6792578,-0.7720384,0.5370544,-0.47056586,0.091979526,-0.8557004,0.23562264,0.043212187,-0.2056003,-0.5486165,-0.9083676,0.7157918,0.8387445,-0.2751094,0.73301095,-0.47278336,-0.051819243,-0.7534999,-0.033732027,0.84274954,0.023455538,0.09006883,-0.28072459,0.7291845
2025-07-21 14:38:33.803,0.7800000000000004,780,39,0.03839951,0.10603499,0.015762383,0.082006305,0.039257064,-0.016941369,0.0,0.0,0.0,-0.25,0.16875431,-0.17824644,0.07101363,-0.0695107,0.04629864,-0.11886391,0.0051896437,0.20498206,0.0031350418,-0.09149761,-0.3009702,0.12668517,0.012425897,-0.02289549,-0.021169307,-0.049638525,-0.010703126,-0.06123674,0.0006317914,0.12723944,0.01023449,0.046999805,0.0021543233,-0.11044501,0.8387445,-0.2751094,0.73301095,-0.47278336,-0.051819243,-0.7534999,-0.033732027,0.84274954,0.023455538,0.09006883,-0.28072459,0.7291845,0.78064734,-0.23828197,0.827453,-0.3418039,-0.0101484135,-0.8178193,0.07377249,0.12684855,0.22611743,-0.16338424,-0.56022656,1.0910324
2025-07-21 14:38:33.823,0.8000000000000004,800,40,0.01632174,0.11374472,-0.07662516,0.068186186,-0.03761431,-0.014936671,0.0,0.0,0.0,-0.25,0.17617273,-0.15946092,0.06656683,-0.07210038,0.053965844,-0.1204013,0.006809905,0.18271227,0.024334386,-0.092292786,-0.27549967,0.12985599,0.010551251,0.052873336,-0.034703746,-0.062049698,-0.05016111,0.022287203,0.045069627,-0.13638325,-0.025136022,0.074044,0.03463641,-0.0056324536,0.78064734,-0.23828197,0.827453,-0.3418039,-0.0101484135,-0.8178193,0.07377249,0.12684855,0.22611743,-0.16338424,-0.56022656,1.0910324,0.60755837,-0.72513425,0.40835115,-0.33488667,0.33390817,-0.14095703,0.18265438,0.8844226,-0.059094205,-0.24674855,-0.78872573,0.9141109
2025-07-21 14:38:34.161,0.8200000000000004,820,41,-0.0056581004,-0.120885976,-0.054094337,0.01383039,0.04615793,0.04226811,0.0,0.0,0.0,-0.25,0.16667618,-0.16729292,0.06786695,-0.06128972,0.048058372,-0.0952545,0.0018826014,0.2106039,0.0016344021,-0.094681114,-0.28840047,0.13216281,-0.011471644,-0.015040055,0.06320892,0.07066659,0.04342622,0.06928537,0.06891433,0.00513835,0.05442093,0.063329786,0.056939747,-0.012422947,0.60755837,-0.72513425,0.40835115,-0.33488667,0.33390817,-0.14095703,0.18265438,0.8844226,-0.059094205,-0.24674855,-0.78872573,0.9141109,0.823618,-0.54583704,0.68121487,-0.6616652,0.056290917,-0.83673257,0.21148902,0.500366,-0.09007774,-0.16943644,-0.6303916,0.80613625
2025-07-21 14:38:34.185,0.8400000000000004,840,42,0.023684632,-0.03505571,-0.06085773,-0.0008611866,-0.044668835,-0.025418261,0.0,0.0,0.0,-0.25,0.1716049,-0.18378355,0.063056126,-0.065516226,0.057653222,-0.11002012,0.01782164,0.19816531,-0.0016497872,-0.095690526,-0.29125494,0.12531865,-0.034057148,0.029946642,-0.047139976,0.012762688,0.018329304,-0.013848341,0.023316303,-0.008806632,0.03718102,-0.008651792,-0.03258424,-0.08844133,0.823618,-0.54583704,0.68121487,-0.6616652,0.056290917,-0.83673257,0.21148902,0.500366,-0.09007774,-0.16943644,-0.6303916,0.80613625,0.90540254,-0.5916263,0.4430185,-0.7012975,0.040534906,-0.5393123,0.046338767,0.4157617,0.072478965,-0.38902983,-0.2918928,0.7812183
2025-07-21 14:38:34.204,0.8600000000000004,860,43,-0.008152924,0.034963038,0.15229715,0.03221894,0.03704351,0.030333132,0.0,0.0,0.0,-0.25,0.1761566,-0.19673634,0.058940433,-0.07123233,0.048748206,-0.09475431,0.017392509,0.20421177,0.01529602,-0.087369815,-0.26228583,0.114860974,0.019648027,-0.04161744,-0.003285463,0.04462755,0.026370054,0.06292439,0.053824563,-0.043807536,0.01350583,-0.040273562,0.00030848486,-0.013100206,0.90540254,-0.5916263,0.4430185,-0.7012975,0.040534906,-0.5393123,0.046338767,0.4157617,0.072478965,-0.38902983,-0.2918928,0.7812183,0.4523416,0.035300408,0.8420759,-0.28675944,0.104670666,-0.6876561,-0.2400816,0.7639228,0.18512686,0.12994517,-0.92769307,1.1201049
2025-07-21 14:38:34.222,0.8800000000000004,880,44,0.0013338561,0.07710008,-0.10976359,0.004786641,0.017205253,0.026821155,0.0,0.0,0.0,-0.25,0.17618003,-0.1812055,0.056654762,-0.06421562,0.04530546,-0.11073691,-0.004777795,0.22376688,0.0015081093,-0.09407813,-0.2635243,0.113982685,0.033669125,0.08874455,0.040620226,0.018815529,0.0041940277,0.004491841,-0.06327082,0.068999656,0.05711715,-0.02255375,0.046506327,0.07488735,0.4523416,0.035300408,0.8420759,-0.28675944,0.104670666,-0.6876561,-0.2400816,0.7639228,0.18512686,0.12994517,-0.92769307,1.1201049,0.601236,-0.9175762,0.59039706,-0.44617108,0.15677905,-0.60771376,0.15936293,0.32525635,-0.06835215,-0.4955869,-0.93505657,0.91814196
2025-07-21 14:38:34.241,0.9000000000000005,900,45,-0.054768197,-0.025555102,-0.019343693,0.02161831,0.017239587,-0.041418757,0.0,0.0,0.0,-0.25,0.17708322,-0.20937014,0.061343983,-0.070586,0.052885212,-0.108729765,-0.0006367856,0.20129712,0.0014875347,-0.09992546,-0.27830914,0.12713069,-0.011380278,-0.07648445,-0.0619136,-0.02909534,0.051101953,-0.05978426,0.08181524,-0.01689211,0.0026199406,-0.033040166,-0.023791226,-0.045683373,0.601236,-0.9175762,0.59039706,-0.44617108,0.15677905,-0.60771376,0.15936293,0.32525635,-0.06835215,-0.4955869,-0.93505657,0.91814196,0.79495406,0.05090645,0.74469566,-0.4648802,0.08220973,-0.91096216,-0.08551234,0.632203,-0.010684736,-0.081898674,-0.2893192,0.93966436
2025-07-21 14:38:34.264,0.9200000000000005,920,46,0.1422458,0.17249417,0.015439874,0.021763518,-0.05125481,-0.02749607,0.0,0.0,0.0,-0.25,0.16451487,-0.20640302,0.07042209,-0.079149954,0.039033182,-0.12074961,-0.008137571,0.2143402,0.0115131745,-0.088085346,-0.2642133,0.11758073,-0.024029506,0.11781121,-0.070885085,0.012217368,0.021117684,-0.060225625,0.043580998,0.0728846,-0.06977236,0.05744473,0.105845064,-0.029789967,0.79495406,0.05090645,0.74469566,-0.4648802,0.08220973,-0.91096216,-0.08551234,0.632203,-0.010684736,-0.081898674,-0.2893192,0.93966436,0.101823844,-0.7850734,0.72565216,-0.30320287,0.1550504,-0.17551431,-0.29948643,0.35146698,-0.04551032,-0.32814786,-1.3629625,0.8953905
2025-07-21 14:38:34.284,0.9400000000000005,940,47,-0.15310536,-0.06205996,0.044166777,0.03914324,-0.00022964884,-0.049514607,0.0,0.0,0.0,-0.25,0.164824,-0.19612129,0.079067476,-0.07801237,0.05424178,-0.08960564,-0.0033719155,0.21257208,0.0017175792,-0.081563696,-0.26854244,0.1189417,-0.0128878495,-0.07940558,0.04120671,0.01031364,0.058829147,0.0057140165,-0.0365436,-0.054899372,-0.026497697,-0.04143758,-0.0701287,0.049218696,0.101823844,-0.7850734,0.72565216,-0.30320287,0.1550504,-0.17551431,-0.29948643,0.35146698,-0.04551032,-0.32814786,-1.3629625,0.8953905,0.97737956,0.119716674,0.7464221,-0.39794508,0.071176104,-0.9953374,0.21248497,0.8490741,-0.22103347,-0.34847805,-0.5839791,0.91542244
2025-07-21 14:38:34.305,0.9600000000000005,960,48,0.074437864,0.05004802,-0.03661428,0.079521924,-0.03287081,-0.03391048,0.0,0.0,0.0,-0.25,0.16354577,-0.18985477,0.06830469,-0.06445418,0.04450799,-0.115327455,-0.010510812,0.23560032,-0.005254692,-0.08247135,-0.28218967,0.12284233,0.026803654,0.024808919,0.0026036713,0.016106218,-0.028027022,0.039766077,0.0085965255,0.07432078,-0.005011291,0.030718172,-0.028828964,-0.027508171,0.97737956,0.119716674,0.7464221,-0.39794508,0.071176104,-0.9953374,0.21248497,0.8490741,-0.22103347,-0.34847805,-0.5839791,0.91542244,0.59640414,-0.24689701,0.7432845,-0.4328941,-0.0030249432,-0.617237,0.03858085,0.1364971,0.19782348,-0.2021759,-0.50136256,1.0571817
2025-07-21 14:38:34.323,0.9800000000000005,980,49,0.06284501,0.12581971,0.04417073,0.057720814,-0.04779801,-0.042495836,0.0,0.0,0.0,-0.25,0.15796618,-0.17426807,0.076806895,-0.071197204,0.03508299,-0.09725874,0.0078422455,0.19880743,-0.002187792,-0.08749407,-0.26443687,0.12423494,0.004277844,0.048689567,0.04481739,0.031109268,-0.00057148846,-0.01695332,0.02572663,-0.086175926,0.0045025097,0.07613154,0.02237773,0.008891139,0.59640414,-0.24689701,0.7432845,-0.4328941,-0.0030249432,-0.617237,0.03858085,0.1364971,0.19782348,-0.2021759,-0.50136256,1.0571817,0.45749137,-0.6656079,0.69264394,-0.292895,0.43895242,-0.2626154,-0.0013449639,0.86076844,-0.018094033,-0.41801795,-1.275626,1.1533743
2025-07-21 14:38:34.343,1.0000000000000004,1000,50,-0.032815397,-0.059794165,0.023316583,0.046840478,-0.009474984,-0.011407253,0.0,0.0,0.0,-0.25,0.151026,-0.1761359,0.08339152,-0.06523525,0.049434256,-0.101460434,-0.012059644,0.2207505,0.002124451,-0.10483251,-0.2892731,0.12351441,0.06953368,-0.074371696,0.04935376,-0.060698166,0.04002212,0.073510185,0.06461525,0.013418698,0.029982645,-0.03447998,-0.040407736,0.10200473,0.45749137,-0.6656079,0.69264394,-0.292895,0.43895242,-0.2626154,-0.0013449639,0.86076844,-0.018094033,-0.41801795,-1.275626,1.1533743,0.8265407,0.02313877,0.81926316,-0.39166924,0.09883126,-0.99545115,0.2028861,0.7383349,-0.016794711,-0.028325243,-0.6290386,1.0671101
2025-07-21 14:38:34.362,1.0200000000000005,1020,51,0.1402893,0.042443153,-0.062057715,0.015915414,0.040549085,-0.020322138,0.0,0.0,0.0,-0.25,0.1762155,-0.17953043,0.07582262,-0.0705281,0.057973105,-0.099138625,-0.006782039,0.24071595,0.008272544,-0.08540396,-0.29348925,0.124938264,-0.04327792,0.046451382,-0.05619078,-0.026721073,0.049064558,-0.09528971,0.0635857,0.041205194,0.055802256,0.025423024,0.04105768,-0.060980853,0.8265407,0.02313877,0.81926316,-0.39166924,0.09883126,-0.99545115,0.2028861,0.7383349,-0.016794711,-0.028325243,-0.6290386,1.0671101,0.64357024,-0.58774525,0.58635116,-0.3793211,-0.120601095,-0.4946436,0.002590239,-0.03715797,0.11120625,-0.32983962,-0.63089305,0.9007821
2025-07-21 14:38:34.382,1.0400000000000005,1040,52,-0.07163761,-0.003522319,0.08632846,0.064608164,-0.0010371513,-0.009521563,0.0,0.0,0.0,-0.25,0.17204604,-0.17755643,0.07534467,-0.07374666,0.030946571,-0.09260255,0.010986111,0.20764057,-0.004909254,-0.09491735,-0.28688347,0.12913266,0.036159582,0.018928204,0.01027967,-0.0015480607,-0.006565155,-0.018900981,0.06692255,-0.15809143,0.0771899,0.037573226,-0.0005246941,0.034511395,0.64357024,-0.58774525,0.58635116,-0.3793211,-0.120601095,-0.4946436,0.002590239,-0.03715797,0.11120625,-0.32983962,-0.63089305,0.9007821,0.5454521,-0.5399076,0.8331379,-0.20117034,0.4269114,-0.44680732,-0.016418219,1.131542,0.0609899,-0.1263641,-1.1165146,1.1010047
2025-07-21 14:38:34.405,1.0600000000000005,1060,53,-0.019363645,-0.115726605,-0.030376116,0.034350038,0.04187804,-0.01922698,0.0,0.0,0.0,-0.25,0.16541241,-0.18380985,0.0908599,-0.06583341,0.062267225,-0.08943514,-0.00033201877,0.21502027,0.007838963,-0.09072239,-0.29765558,0.1303846,0.07799079,0.045859743,-0.0077205463,0.0058945226,-0.012180402,0.0716292,0.011288736,0.0990698,-0.06792318,0.057651747,-0.12357614,0.074771255,0.5454521,-0.5399076,0.8331379,-0.20117034,0.4269114,-0.44680732,-0.016418219,1.131542,0.0609899,-0.1263641,-1.1165146,1.1010047,1.1092274,-0.33554372,0.70498395,-0.59443116,-0.019391216,-1.1383824,0.4476869,0.45378914,0.07690284,-0.19645832,-0.37359628,1.0924838
2025-07-21 14:38:34.426,1.0800000000000005,1080,54,0.1484139,0.035071295,0.000998375,0.06803874,-0.0060127703,0.023141973,0.0,0.0,0.0,-0.25,0.17329954,-0.177202,0.07122403,-0.05870162,0.04927336,-0.11618443,0.008199904,0.2143382,-0.00020856204,-0.092691004,-0.29135776,0.13356248,0.031187937,-0.033274338,0.06854911,0.01886832,-0.06504116,0.03722763,0.010742481,-0.084608294,-0.038534425,0.0015948185,0.05401014,-0.06923116,1.1092274,-0.33554372,0.70498395,-0.59443116,-0.019391216,-1.1383824,0.4476869,0.45378914,0.07690284,-0.19645832,-0.37359628,1.0924838,0.580079,0.0019582822,0.74121684,-0.30030403,0.12549698,-0.10939547,-0.26337808,0.5660738,0.25772804,-0.053377137,-0.65652245,1.1727054
2025-07-21 14:38:34.443,1.1000000000000005,1100,55,0.09733625,0.10167407,-0.17448263,0.027391667,0.0024799139,0.04994376,0.0,0.0,0.0,-0.25,0.16878888,-0.16883634,0.06574054,-0.06150142,0.056000285,-0.09955975,0.0078169815,0.23127055,0.01149841,-0.085890345,-0.29260832,0.13381258,0.060665224,0.017948471,0.027044388,0.015192498,-0.048019554,0.0021169132,-0.09324923,-0.009604773,0.042946704,-0.014390126,0.050383296,-0.05048744,0.580079,0.0019582822,0.74121684,-0.30030403,0.12549698,-0.10939547,-0.26337808,0.5660738,0.25772804,-0.053377137,-0.65652245,1.1727054,0.60524505,-0.8104043,0.39253703,-0.5774199,0.26448736,-0.30043623,0.2746032,-0.14135809,-0.0019229352,-0.62694216,-0.5581287,0.904107
2025-07-21 14:38:34.462,1.1200000000000006,1120,56,-0.0007045211,0.03443523,0.031024529,0.0723528,0.050952215,0.01705177,0.0,0.0,0.0,-0.25,0.17456228,-0.16467412,0.07700273,-0.074451454,0.055706713,-0.08782075,0.0076029147,0.1796452,0.012948826,-0.097130805,-0.27543312,0.13528714,-0.07023743,-0.01987928,-0.05065876,-0.053307272,0.059426267,-0.019172724,-0.020613981,-0.07489373,0.013307938,-0.043838687,-0.047917787,-0.06366743,0.60524505,-0.8104043,0.39253703,-0.5774199,0.26448736,-0.30043623,0.2746032,-0.14135809,-0.0019229352,-0.62694216,-0.5581287,0.904107,0.6618049,0.048424266,0.8333835,-0.3936,0.08330121,-0.8782448,-0.12194544,0.708289,-0.28021622,0.067012385,-0.5414836,1.0544769
2025-07-21 14:38:34.483,1.1400000000000006,1140,57,0.19735862,0.08045999,-0.06356742,0.03397206,-0.0002218739,0.039195575,0.0,0.0,0.0,-0.25,0.16049291,-0.1693074,0.06469664,-0.066691495,0.05978119,-0.09335988,0.0074998145,0.19842236,0.009339493,-0.09925826,-0.26661345,0.12659486,0.0029301047,0.09310793,-0.052755795,0.059735235,-0.042446278,0.008691586,-0.07853397,0.07696987,-0.054598805,0.05120381,-0.049417872,0.048203964,0.6618049,0.048424266,0.8333835,-0.3936,0.08330121,-0.8782448,-0.12194544,0.708289,-0.28021622,0.067012385,-0.5414836,1.0544769,0.786529,-0.92570186,0.8480982,-0.5329403,-0.036902912,-0.55550945,0.057289124,0.27098703,-0.21721055,-0.37783054,-0.70767254,1.0451399
2025-07-21 14:38:34.505,1.1600000000000006,1160,58,-0.14846697,-0.10686174,0.10177204,0.006095811,-0.015910273,0.0247254,0.0,0.0,0.0,-0.25,0.16544054,-0.18151416,0.07527163,-0.06844903,0.037151936,-0.10065222,-0.0052321875,0.1925722,-0.006518115,-0.10235608,-0.2735383,0.12381395,0.025741983,-0.06694583,-0.022534788,-0.085264795,-0.09454896,0.0052610044,0.065728925,-0.017493974,-0.05882733,-0.02648161,-0.054789566,0.006928373,0.786529,-0.92570186,0.8480982,-0.5329403,-0.036902912,-0.55550945,0.057289124,0.27098703,-0.21721055,-0.37783054,-0.70767254,1.0451399,0.6994113,-0.21665554,0.8265887,-0.20277014,0.50539815,-0.6810258,-0.1689617,1.0977701,0.18107806,-0.15534489,-0.74082917,1.2937748
2025-07-21 14:38:34.527,1.1800000000000006,1180,59,0.031037403,0.011676763,-0.0036311639,0.039225798,-0.027226828,-0.013499244,0.0,0.0,0.0,-0.25,0.16643341,-0.17601928,0.08766546,-0.07106465,0.07680497,-0.088551074,-0.006451051,0.2177216,-0.00013058654,-0.097382285,-0.28426483,0.13055128,0.04514921,0.030647729,-0.067263015,0.09267353,0.02236774,0.007280771,-0.023273861,0.1873574,-0.022393925,0.020268455,-0.054198235,0.020612314,0.6994113,-0.21665554,0.8265887,-0.20277014,0.50539815,-0.6810258,-0.1689617,1.0977701,0.18107806,-0.15534489,-0.74082917,1.2937748,0.63701636,-0.29064974,0.7982922,-0.3986631,0.002302371,-0.91919893,0.19901866,0.12301798,0.14713083,-0.43977448,-0.79826295,1.1100636
2025-07-21 14:38:34.543,1.2000000000000006,1200,60,0.001412551,0.013419924,-0.121979795,0.0024308627,0.03594729,-0.012333636,0.0,0.0,0.0,-0.25,0.17830496,-0.16974403,0.07636972,-0.06489397,0.059291046,-0.09330638,-0.006799258,0.20626584,0.012599521,-0.08957519,-0.2874103,0.14493015,-0.037139755,0.0055698846,-0.07025613,0.026059713,-0.050424874,0.046093334,0.04961016,-0.11054531,-0.01035046,-0.093192846,0.03122366,0.01894443,0.63701636,-0.29064974,0.7982922,-0.3986631,0.002302371,-0.91919893,0.19901866,0.12301798,0.14713083,-0.43977448,-0.79826295,1.1100636,0.8585498,-0.39958814,0.33447227,-0.5047436,0.15623343,-0.1720216,0.16726857,0.49203667,0.0140604,-0.2939531,-0.4673714,0.938964
2025-07-21 14:38:34.563,1.2200000000000006,1220,61,0.08593635,0.010241051,0.032770608,0.07934986,0.0605121,-0.028580794,0.0,0.0,0.0,-0.25,0.17482263,-0.177575,0.07690777,-0.05693408,0.060321875,-0.09645514,0.006392803,0.2035982,0.010997955,-0.1035503,-0.27252617,0.12855147,-0.037267104,0.06677423,-0.06549879,-0.02072441,-0.040990666,0.07814513,0.005380875,-0.046044096,0.053602934,0.06286956,0.08851701,0.03837548,0.8585498,-0.39958814,0.33447227,-0.5047436,0.15623343,-0.1720216,0.16726857,0.49203667,0.0140604,-0.2939531,-0.4673714,0.938964,0.46430263,-0.61008906,0.83564526,-0.37887514,0.3129138,-0.4207222,-0.05966813,0.6659072,-0.1487106,0.06819083,-1.192683,0.96629167
2025-07-21 14:38:34.585,1.2400000000000007,1240,62,-0.065641396,-0.18318264,0.017360622,0.057338826,0.012809456,0.009476795,0.0,0.0,0.0,-0.25,0.16453685,-0.18126212,0.0852229,-0.056536313,0.063072145,-0.084281094,-0.002660888,0.21598905,-0.0021332847,-0.08527609,-0.29194978,0.12890255,0.047595415,-0.1059257,0.019620543,-0.0676302,0.035809312,0.007327322,-0.024036363,0.056597605,-0.008203038,0.005185732,-0.02756243,0.047461044,0.46430263,-0.61008906,0.83564526,-0.37887514,0.3129138,-0.4207222,-0.05966813,0.6659072,-0.1487106,0.06819083,-1.192683,0.96629167,0.97885376,0.17655271,0.8611554,-0.392623,0.012671165,-1.0495765,0.24640751,0.61670566,-0.06131679,-0.09836237,-0.52175117,0.9848746
2025-07-21 14:38:34.605,1.2600000000000007,1260,63,0.061575804,0.10240181,-0.022865301,0.09401265,0.015260716,-0.0302732,0.0,0.0,0.0,-0.25,0.17573527,-0.16986866,0.0717933,-0.062454727,0.062639356,-0.1035475,-0.001148886,0.23030762,0.0075391317,-0.07955521,-0.28155234,0.137021,-0.043524448,0.0012437496,0.018561747,-0.024349373,-0.07280051,-0.03738884,0.023584468,-0.020505683,-0.035548467,-0.0010823064,0.09272687,0.03786051,0.97885376,0.17655271,0.8611554,-0.392623,0.012671165,-1.0495765,0.24640751,0.61670566,-0.06131679,-0.09836237,-0.52175117,0.9848746,0.42763278,-0.33940604,0.7603411,-0.24066187,0.23958963,-0.30348647,-0.09200424,0.42859662,0.07135761,-0.10099088,-0.9980245,1.1476865
2025-07-21 14:38:34.624,1.2800000000000007,1280,64,-0.14721261,0.008095835,-0.0019387471,0.058336005,0.049042553,0.013176873,0.0,0.0,0.0,-0.25,0.18181343,-0.1612332,0.07501054,-0.052100062,0.073648885,-0.080763265,-0.0038158898,0.22313313,-0.004668349,-0.08679249,-0.29928625,0.13977587,-0.0001096274,-0.07370498,-0.04914732,0.0049568373,0.046873227,-0.002496574,0.029875709,-0.052171197,0.06099302,0.04594301,-0.010490412,0.07958402,0.42763278,-0.33940604,0.7603411,-0.24066187,0.23958963,-0.30348647,-0.09200424,0.42859662,0.07135761,-0.10099088,-0.9980245,1.1476865,0.8552109,-0.06810508,0.71120036,-0.34280574,0.08259874,-0.9574861,0.30446,0.6862768,-0.062755466,-0.21573065,-0.73594904,1.05269
2025-07-21 14:38:34.643,1.3000000000000007,1300,65,0.093578465,0.043810718,-0.10185849,0.024811601,-0.021658083,0.0387038,0.0,0.0,0.0,-0.25,0.17861341,-0.14557022,0.06752419,-0.050555997,0.052922156,-0.10454104,0.013657781,0.23031633,-0.0062598935,-0.09803336,-0.29762346,0.12894127,-0.034142613,0.08702272,0.028270693,0.041083664,-0.067238286,-0.08772828,-0.026993154,0.0948846,-0.06054726,-0.07388556,-0.02374423,0.025001017,0.8552109,-0.06810508,0.71120036,-0.34280574,0.08259874,-0.9574861,0.30446,0.6862768,-0.062755466,-0.21573065,-0.73594904,1.05269,0.6160829,-0.92421854,0.8308229,-0.52939516,0.044103317,-0.8037862,-0.19253421,0.26221818,0.13079657,-0.18587624,-0.61336756,1.1445315
2025-07-21 14:38:34.661,1.3200000000000007,1320,66,-0.033257633,-0.01886727,0.01839292,0.06785296,0.016212683,0.015092016,0.0,0.0,0.0,-0.25,0.17772199,-0.16476098,0.07574638,-0.05702428,0.052260086,-0.11359796,-0.002781387,0.21379313,-0.006901179,-0.100295834,-0.28960735,0.1346179,-0.008573766,-0.085619114,0.07569513,0.058379192,0.008952137,-0.0121417735,0.010233291,0.005069564,-0.059502576,-0.024496198,-0.0152864,-0.01984354,0.6160829,-0.92421854,0.8308229,-0.52939516,0.044103317,-0.8037862,-0.19253421,0.26221818,0.13079657,-0.18587624,-0.61336756,1.1445315,0.7804201,-0.11940574,0.80237675,-0.25983766,0.13910732,-0.71459657,0.034421682,0.71354866,0.20495495,-0.18266402,-0.55878305,1.1666037
2025-07-21 14:38:34.683,1.3400000000000007,1340,67,0.15866323,0.10875483,0.0286668,0.022484176,0.023704315,-0.011429363,0.0,0.0,0.0,-0.25,0.18425958,-0.15492965,0.07319844,-0.06798766,0.054736968,-0.09994631,0.009070617,0.21365483,0.01583076,-0.09068622,-0.28973085,0.12672776,0.065015905,0.109421685,-0.05023105,0.050710607,-0.0005267684,0.057907347,-0.018346185,0.014233594,0.04978073,0.059113365,0.097186744,0.043993767,0.7804201,-0.11940574,0.80237675,-0.25983766,0.13910732,-0.71459657,0.034421682,0.71354866,0.20495495,-0.18266402,-0.55878305,1.1666037,0.2468559,-0.79224455,0.8919411,-0.07390385,0.27920553,-0.12616184,-0.12156836,0.49859077,-0.055793762,-0.33986792,-1.4643973,0.8645909
2025-07-21 14:38:34.703,1.3600000000000008,1360,68,-0.10325719,-0.048009567,-0.0207091,0.07439806,-0.031217493,-0.043964483,0.0,0.0,0.0,-0.25,0.163784,-0.15972582,0.0915129,-0.04897047,0.074334316,-0.10097206,0.0012754453,0.21555765,0.00037866514,-0.095694795,-0.29230344,0.13313164,-0.08090014,-0.09644806,0.033148713,-0.053532925,-0.014337403,0.046656027,-0.037463956,0.045613118,-0.023716556,0.047142237,-0.0144497305,0.018737786,0.2468559,-0.79224455,0.8919411,-0.07390385,0.27920553,-0.12616184,-0.12156836,0.49859077,-0.055793762,-0.33986792,-1.4643973,0.8645909,0.99451286,-0.11724161,0.6130309,-0.3460472,-0.005597599,-0.84752864,0.30992562,0.6129507,0.050051913,-0.23359089,-0.39185384,0.68488896
2025-07-21 14:38:34.726,1.3800000000000008,1380,69,0.026216824,0.04061269,0.034858912,0.060572125,0.046060394,0.010436269,0.0,0.0,0.0,-0.25,0.16583516,-0.14980415,0.07985713,-0.055322636,0.06359791,-0.0998198,0.00952123,0.22916028,0.009301744,-0.09387533,-0.28641707,0.11644881,-0.012789932,0.08325143,0.033499505,0.037378438,-0.080987364,-0.0751502,-0.04852277,-0.022569725,-0.043673925,-0.040213406,-0.013795659,0.033392828,0.99451286,-0.11724161,0.6130309,-0.3460472,-0.005597599,-0.84752864,0.30992562,0.6129507,0.050051913,-0.23359089,-0.39185384,0.68488896,0.5778688,-0.6813634,1.0177935,-0.37200207,0.22582915,-0.81325716,-0.15387319,0.64082557,0.18406755,0.14200641,-0.9781945,1.2422258
2025-07-21 14:38:34.747,1.4000000000000008,1400,70,-0.066381946,-0.15830684,-0.000109514775,0.038032606,-0.025666114,-0.049208198,0.0,0.0,0.0,-0.25,0.1657486,-0.15894052,0.094035834,-0.05353064,0.051553145,-0.11132036,-0.009466669,0.23989661,0.005990377,-0.08127409,-0.29446366,0.14026637,-0.074083,-0.024192149,0.058515586,-0.021510223,0.055105865,0.053225804,-0.08618381,0.069292575,0.04401258,-0.015738761,0.028094623,0.033915702,0.5778688,-0.6813634,1.0177935,-0.37200207,0.22582915,-0.81325716,-0.15387319,0.64082557,0.18406755,0.14200641,-0.9781945,1.2422258,0.8277484,-0.38296843,0.59921104,-0.21311878,0.21434236,-0.56036043,0.43187633,0.4324161,0.1137571,-0.66865855,-0.8252117,0.83836365
2025-07-21 14:38:34.777,1.4200000000000008,1420,71,-0.070725605,-0.006297133,-0.10808148,0.02555846,-0.021610929,0.013978528,0.0,0.0,0.0,-0.25,0.1774346,-0.16736595,0.08777524,-0.055151105,0.062206842,-0.09865313,0.0031328294,0.23259926,0.0058707767,-0.0979768,-0.2998773,0.13642557,-0.005305908,-0.03602447,0.05209313,-0.01663069,0.052212607,0.07597958,-0.042960934,-0.031056121,0.022135155,0.00785158,-0.02270946,-0.00972493,0.8277484,-0.38296843,0.59921104,-0.21311878,0.21434236,-0.56036043,0.43187633,0.4324161,0.1137571,-0.66865855,-0.8252117,0.83836365,0.6800856,-0.39176008,0.5489496,-0.523191,-0.14652851,-0.70513636,0.03362578,0.31900597,0.17517081,-0.030407501,0.04104004,0.7091019
2025-07-21 14:38:34.877,1.4400000000000008,1440,72,-0.0024596043,0.08907985,0.015888903,0.00034654673,0.031463634,-0.023392614,0.0,0.0,0.0,-0.25,0.16668755,-0.1601569,0.07800955,-0.043990184,0.054245967,-0.104015894,0.007245654,0.20436217,0.0053814044,-0.084631935,-0.2841736,0.11944203,0.051354174,0.04457672,0.05430915,0.04326117,-0.036918674,0.0018321716,0.029946586,-0.053643305,0.08137838,-0.03942715,0.023127316,0.02310827,0.6800856,-0.39176008,0.5489496,-0.523191,-0.14652851,-0.70513636,0.03362578,0.31900597,0.17517081,-0.030407501,0.04104004,0.7091019,0.6618584,-0.718397,0.8419915,-0.47069755,0.23719138,-0.5883898,0.042537004,0.6453887,0.00893455,-0.21074699,-0.97093815,1.1291584
2025-07-21 14:38:34.909,1.4600000000000009,1460,73,-0.079776935,-0.063276865,-0.019116566,0.013534912,0.025244838,0.032050975,0.0,0.0,0.0,-0.25,0.15977333,-0.17385587,0.082655266,-0.054009784,0.048957277,-0.11024571,0.008874877,0.21688816,0.02035873,-0.07673084,-0.29158178,0.13275647,-0.042045075,-0.0028995643,0.066245854,0.03757245,0.04366696,-0.01909892,-0.06072106,-0.009683444,0.024888368,0.05562605,-0.085242875,-0.025251195,0.6618584,-0.718397,0.8419915,-0.47069755,0.23719138,-0.5883898,0.042537004,0.6453887,0.00893455,-0.21074699,-0.97093815,1.1291584,1.0222961,-0.3791486,0.5291563,-0.4649599,0.048402928,-0.8447127,0.26393738,0.56775445,0.17325202,-0.40130982,-0.38990676,0.987219
2025-07-21 14:38:34.928,1.4800000000000009,1480,74,0.05895709,0.06908044,-0.021800537,0.010335233,0.03929399,0.037262734,0.0,0.0,0.0,-0.25,0.17475589,-0.16540103,0.078351885,-0.06366771,0.047098007,-0.10768859,0.0127120055,0.21359153,0.021631578,-0.078065954,-0.29471916,0.12427553,-0.039440613,-0.041096386,0.010821792,-0.039564077,0.026167257,-0.08116119,0.086129494,-0.0068143485,-0.03123795,-0.07700733,0.009896166,-0.0629397,1.0222961,-0.3791486,0.5291563,-0.4649599,0.048402928,-0.8447127,0.26393738,0.56775445,0.17325202,-0.40130982,-0.38990676,0.987219,0.5421325,-0.1464246,0.69835323,-0.41387576,-0.07302997,-0.7711689,-0.28508347,0.43660718,0.37959075,0.19870351,-0.35449874,1.2062395
2025-07-21 14:38:34.946,1.5000000000000009,1500,75,0.20335336,0.1711292,0.048094023,0.08342569,-0.016834121,-0.023755461,0.0,0.0,0.0,-0.25,0.16922598,-0.16925341,0.079937674,-0.055420797,0.027727848,-0.114393085,0.012184668,0.22594914,0.027513344,-0.07414029,-0.27345282,0.11808248,0.02002303,0.012670758,-0.0013205099,0.057790034,-0.05872694,-0.07710113,0.023986392,-0.07358786,-0.010985969,-0.006912284,-0.021264696,-0.026391467,0.5421325,-0.1464246,0.69835323,-0.41387576,-0.07302997,-0.7711689,-0.28508347,0.43660718,0.37959075,0.19870351,-0.35449874,1.2062395,0.69035256,-0.18414026,0.868952,-0.27664667,0.33609918,-0.51785684,0.20829798,0.49966112,0.12021072,-0.32331172,-0.94954115,1.3932924
2025-07-21 14:38:34.992,1.520000000000001,1520,76,0.061814934,0.03962938,-0.1422677,0.041823655,0.018885082,-0.04479019,0.0,0.0,0.0,-0.25,0.16927691,-0.15747114,0.08583528,-0.053640824,0.05792292,-0.09656527,0.009648826,0.21914858,0.017101036,-0.07836901,-0.27610004,0.13250166,0.02229654,0.03241699,-0.0073225684,0.055283397,-0.0038210927,-0.058600694,0.042817526,0.016624758,-0.049624585,0.01571507,-0.07818587,0.005247707,0.69035256,-0.18414026,0.868952,-0.27664667,0.33609918,-0.51785684,0.20829798,0.49966112,0.12021072,-0.32331172,-0.94954115,1.3932924,0.8509901,-0.5301236,0.52519643,-0.6078466,0.019197918,-0.7575914,0.16526522,0.07528864,0.064215705,-0.40413314,-0.22438927,1.0604129
2025-07-21 14:38:35.012,1.540000000000001,1540,77,0.08055855,-0.015821822,0.076077394,0.06408722,-0.021420235,-0.008450981,0.0,0.0,0.0,-0.25,0.18072432,-0.1635524,0.07955257,-0.055286914,0.04763039,-0.10881425,0.0032517142,0.18405586,0.012039322,-0.083573826,-0.2641387,0.13785514,-0.029426679,-0.08527173,-0.056981843,0.038216896,0.04669683,0.06876138,-0.018506382,-0.14476177,0.0018721672,0.04975507,0.00088915584,-0.012749345,0.8509901,-0.5301236,0.52519643,-0.6078466,0.019197918,-0.7575914,0.16526522,0.07528864,0.064215705,-0.40413314,-0.22438927,1.0604129,0.60865533,0.19967476,0.8892214,-0.23673242,-0.03365276,-0.4555913,-0.15319496,0.9375375,-0.0041305423,8.301809e-06,-0.5788606,1.0788336
2025-07-21 14:38:35.031,1.560000000000001,1560,78,0.14447562,0.023920143,-0.10809766,0.07294399,0.0012484452,0.013174442,0.0,0.0,0.0,-0.25,0.16783512,-0.1482889,0.07542341,-0.05078819,0.02978612,-0.09182615,0.0094703855,0.21010184,0.00507363,-0.083238505,-0.24426039,0.13543196,-0.038193107,0.11817417,0.072296254,0.01253109,-0.053313363,-0.045831103,0.017298365,0.077976815,-0.008630067,0.057344425,-0.005332972,-0.047724187,0.60865533,0.19967476,0.8892214,-0.23673242,-0.03365276,-0.4555913,-0.15319496,0.9375375,-0.0041305423,8.301809e-06,-0.5788606,1.0788336,0.5961499,-1.1549503,0.5888311,-0.39548343,0.15987518,-0.71673036,0.27157634,0.29983786,-0.262361,-0.4490333,-0.9046039,1.0066489
2025-07-21 14:38:35.049,1.580000000000001,1580,79,-0.05241462,-0.1657337,-0.08068952,0.08607304,0.013083607,0.048971538,0.0,0.0,0.0,-0.25,0.18043458,-0.13873667,0.08049214,-0.05366545,0.028002454,-0.1079214,0.012433757,0.191353,0.007457446,-0.09992921,-0.25942963,0.1303385,-0.06473223,-0.10864669,0.050939903,0.053065293,-0.032255307,0.061227128,-0.03170871,-0.04954193,-0.014430056,-0.010240593,-0.0067007495,-0.0019421699,0.5961499,-1.1549503,0.5888311,-0.39548343,0.15987518,-0.71673036,0.27157634,0.29983786,-0.262361,-0.4490333,-0.9046039,1.0066489,0.9670699,-0.064103656,0.7682028,-0.5810009,0.0649698,-0.78183705,0.09133774,0.8656925,0.08812753,0.02265145,-0.10889264,0.924407
2025-07-21 14:38:35.069,1.600000000000001,1600,80,0.06934998,0.14215955,-0.11234875,0.08430483,0.05747315,0.0071479073,0.0,0.0,0.0,-0.25,0.17744723,-0.14292026,0.08274622,-0.07023178,0.031092856,-0.10367723,0.018755514,0.22211169,0.010116413,-0.0834916,-0.25511366,0.13280267,0.0365909,0.0531784,-0.060390867,0.060206547,0.018302433,0.010849971,-0.04117476,0.13610643,0.036947932,-0.0002640349,0.15122785,-0.054213095,0.9670699,-0.064103656,0.7682028,-0.5810009,0.0649698,-0.78183705,0.09133774,0.8656925,0.08812753,0.02265145,-0.10889264,0.924407,0.17844053,-0.5925892,0.5603373,-0.22506998,0.12059649,-0.14516523,-0.04023259,-0.3156348,-0.07955934,-0.46595404,-0.9776085,0.48122063
2025-07-21 14:38:35.091,1.620000000000001,1620,81,-0.24401616,-0.061142217,-0.028549025,0.04297502,-0.025948199,0.0135729555,0.0,0.0,0.0,-0.25,0.1637857,-0.13942523,0.07962859,-0.064754136,0.04563733,-0.08784591,0.0008923315,0.19312327,0.011940995,-0.08573758,-0.26164997,0.120385565,-0.013008628,-0.10004016,0.018844422,-0.018506598,0.07730744,0.05793618,0.031947013,-0.22458668,-0.012798031,0.0067794607,-0.1280951,0.0061167306,0.17844053,-0.5925892,0.5603373,-0.22506998,0.12059649,-0.14516523,-0.04023259,-0.3156348,-0.07955934,-0.46595404,-0.9776085,0.48122063,0.8404525,0.10110124,0.4999842,-0.2393803,-0.35573992,-0.5938438,0.2175493,1.1350356,0.002411075,-0.25675914,-0.0002336707,0.556344
2025-07-21 14:38:35.112,1.640000000000001,1640,82,0.045315094,0.118517324,-0.093353346,0.072208196,-0.004248446,-0.012417613,0.0,0.0,0.0,-0.25,0.16715007,-0.12811907,0.06591127,-0.05676852,0.0035360723,-0.09470047,0.01911016,0.19565657,-0.00762295,-0.10018985,-0.24500877,0.102833495,-0.02380267,0.06369759,-0.026023922,0.08361712,-0.04053012,-0.052806962,-0.03943959,0.06973293,-0.008337219,-0.010039922,0.13851182,-0.016215071,0.8404525,0.10110124,0.4999842,-0.2393803,-0.35573992,-0.5938438,0.2175493,1.1350356,0.002411075,-0.25675914,-0.0002336707,0.556344,0.11442732,-0.80127627,0.9018105,-0.38143966,0.263765,-0.6193662,0.05024892,0.22675702,-0.2885874,-0.30358088,-1.06761,0.9429939
2025-07-21 14:38:35.130,1.660000000000001,1660,83,-0.21711585,-0.10136046,0.030617084,0.04918038,0.025680272,0.031686783,0.0,0.0,0.0,-0.25,0.15331781,-0.123796664,0.07911161,-0.06197616,0.018582812,-0.095543124,0.005159299,0.19259122,-0.00093451794,-0.099004924,-0.25292927,0.116733655,-0.034524124,-0.093427464,-0.049327094,-0.034187198,0.033772986,0.05713651,0.046218045,-0.10550584,-0.021602456,-0.010605397,-0.09995101,-0.045230627,0.11442732,-0.80127627,0.9018105,-0.38143966,0.263765,-0.6193662,0.05024892,0.22675702,-0.2885874,-0.30358088,-1.06761,0.9429939,1.1079041,-0.079188466,0.5327605,-0.40572062,0.23413312,-0.98235446,0.41065836,1.1979766,-0.17374179,-0.22209714,-0.50428736,0.9764805
2025-07-21 14:38:35.150,1.680000000000001,1680,84,0.067494944,0.059329648,-0.088095464,0.052384965,0.013707483,0.035527103,0.0,0.0,0.0,-0.25,0.16537781,-0.11860322,0.06374662,-0.055053513,0.027033323,-0.096535176,0.01904344,0.21796545,-0.017834347,-0.09791842,-0.24703,0.11925336,0.0024405662,0.081600435,0.024657454,0.023090605,0.045417283,0.0335028,0.094914675,0.12631701,0.04596844,0.0038730556,-0.04897077,0.021231208,1.1079041,-0.079188466,0.5327605,-0.40572062,0.23413312,-0.98235446,0.41065836,1.1979766,-0.17374179,-0.22209714,-0.50428736,0.9764805,0.4488636,-0.65465784,0.7823235,-0.40901864,-0.1397495,-0.78244835,-0.045372054,0.22006415,-0.060398936,0.0032532085,-0.4852185,0.8789011
2025-07-21 14:38:35.167,1.700000000000001,1700,85,-0.011672058,-0.12520729,0.15796983,0.060809895,-0.017297516,0.045247495,0.0,0.0,0.0,-0.25,0.15712397,-0.12131447,0.087733015,-0.052428946,0.016841419,-0.103849486,0.014315133,0.21348993,-0.017677788,-0.08958208,-0.23786446,0.11052831,-0.08771547,-0.02802675,-0.024424002,-0.014641051,-0.0050327457,-0.044538468,-0.010624981,-0.052449584,-0.074164346,0.085828446,0.03826448,-3.6938934e-05,0.4488636,-0.65465784,0.7823235,-0.40901864,-0.1397495,-0.78244835,-0.045372054,0.22006415,-0.060398936,0.0032532085,-0.4852185,0.8789011,0.5486483,-0.6045575,1.0855445,-0.072816126,0.57091033,-0.5525487,-0.010076314,1.3579067,-0.058402687,-0.1515082,-1.4985235,1.183436
2025-07-21 14:38:35.189,1.720000000000001,1720,86,-0.049842805,-0.09583157,-0.021379352,0.06351679,-0.029814824,-0.029716786,0.0,0.0,0.0,-0.25,0.16628459,-0.1470784,0.08136481,-0.058264222,0.049747568,-0.09607622,0.009418281,0.24072997,-0.006237714,-0.07996725,-0.26949,0.115376696,0.049603797,-0.064465,-0.039071005,-0.043643307,0.15902825,0.017308017,-0.04537573,0.21217759,-0.06771842,-0.022787983,-0.0589354,-0.01700484,0.5486483,-0.6045575,1.0855445,-0.072816126,0.57091033,-0.5525487,-0.010076314,1.3579067,-0.058402687,-0.1515082,-1.4985235,1.183436,0.8259718,-0.022984168,0.63318133,-0.21143042,-0.24063528,-1.0242758,0.34765634,0.0812092,0.053546354,-0.41452977,-0.30917382,0.7350936
2025-07-21 14:38:35.209,1.740000000000001,1740,87,-0.10480205,0.07118208,0.05605895,0.05068367,0.040967148,0.038937185,0.0,0.0,0.0,-0.25,0.1592036,-0.14440961,0.08900911,-0.056400254,0.037469853,-0.109339625,0.011192691,0.23772871,-0.0073050526,-0.087391935,-0.25581503,0.11816505,0.0060900445,0.019760923,0.02148675,-0.034356214,-0.031619143,-0.09298884,-0.025525788,-0.05940918,0.032337267,-0.0076481616,0.02768653,-0.07784529,0.8259718,-0.022984168,0.63318133,-0.21143042,-0.24063528,-1.0242758,0.34765634,0.0812092,0.053546354,-0.41452977,-0.30917382,0.7350936,0.39085484,-0.5254471,0.9023996,-0.16578445,0.32841587,-0.5537543,-0.29705447,0.68465865,0.2607047,0.11510213,-1.042546,1.1838901
2025-07-21 14:38:35.224,1.7600000000000011,1760,88,-0.06285191,-0.1351536,-0.01663188,0.043983635,0.016846655,0.023348935,0.0,0.0,0.0,-0.25,0.16543083,-0.13107622,0.09493201,-0.038861297,0.042851947,-0.10209733,0.0088027185,0.24718867,0.009603893,-0.085422695,-0.27495164,0.114491224,0.03364695,0.004906682,0.025651041,-0.06581275,0.112203814,-0.0012364868,-0.054216493,0.052122448,0.013319918,0.08388848,-0.03892614,-0.008685104,0.39085484,-0.5254471,0.9023996,-0.16578445,0.32841587,-0.5537543,-0.29705447,0.68465865,0.2607047,0.11510213,-1.042546,1.1838901,0.79398227,-0.5707487,0.6652071,-0.26355726,0.056010656,-1.0235564,0.41724494,0.47927117,0.017269,-0.3343186,-0.7489885,0.9279485
2025-07-21 14:38:35.244,1.7800000000000011,1780,89,-0.06999885,-0.043913614,0.020395558,0.08235134,-0.043853983,-0.03020023,0.0,0.0,0.0,-0.25,0.16827972,-0.14906926,0.0904601,-0.045060758,0.03912485,-0.119010575,0.015067066,0.23996982,0.010499223,-0.07400404,-0.27942824,0.1172033,-0.075604655,-0.064405374,-0.014958831,0.044525705,-0.081576206,0.043553498,0.0045535215,-0.046472915,0.0004729146,-0.032298733,-0.07075642,-0.0070606354,0.79398227,-0.5707487,0.6652071,-0.26355726,0.056010656,-1.0235564,0.41724494,0.47927117,0.017269,-0.3343186,-0.7489885,0.9279485,1.0004368,0.23284616,0.8180236,-0.43629187,0.2118482,-0.6928304,0.23536515,0.6035983,0.18795094,-0.038643286,-0.2615597,1.0632946
2025-07-21 14:38:35.272,1.8000000000000012,1800,90,0.10780487,0.20198153,0.040623635,0.025238933,-0.0027692523,-0.003986249,0.0,0.0,0.0,-0.25,0.15800835,-0.14596127,0.0856056,-0.05772716,0.048391104,-0.12285121,0.018349638,0.24050339,0.00655355,-0.07543064,-0.25988916,0.12270386,0.063527405,0.0917187,-0.031198714,-0.070671424,0.06351843,-0.036626656,0.04042616,0.06210636,-0.049503002,-0.038590975,-0.01177794,-0.044231724,1.0004368,0.23284616,0.8180236,-0.43629187,0.2118482,-0.6928304,0.23536515,0.6035983,0.18795094,-0.038643286,-0.2615597,1.0632946,0.23718077,-0.5869121,0.5815132,-0.2328871,0.10817834,-0.44095418,-0.25238022,0.1331569,0.24157332,-0.32310608,-0.9927581,1.0656176
2025-07-21 14:38:35.285,1.8200000000000012,1820,91,-0.10981409,-0.10826214,0.014599559,0.052752715,-0.06344031,0.041927356,0.0,0.0,0.0,-0.25,0.15519388,-0.13248904,0.09553811,-0.040328614,0.03982893,-0.11736569,-0.0019865055,0.21802658,0.018193236,-0.07434932,-0.27449316,0.11821969,-0.10059457,0.0069722068,-0.05672989,-0.067417055,-0.07490385,-0.06579509,-0.08171585,-0.14290935,0.038459945,0.03334816,-0.018912766,0.041430756,0.23718077,-0.5869121,0.5815132,-0.2328871,0.10817834,-0.44095418,-0.25238022,0.1331569,0.24157332,-0.32310608,-0.9927581,1.0656176,0.7062698,-0.5419407,0.9040603,-0.30142543,0.6484639,-0.6670507,0.39568773,1.3347625,0.13259351,-0.21628074,-1.1413407,1.1445789
2025-07-21 14:38:35.305,1.8400000000000012,1840,92,0.0075713033,-0.07605236,0.006904456,-0.011112303,-0.042359572,-0.035120692,0.0,0.0,0.0,-0.25,0.16513117,-0.14286712,0.09514055,-0.054792345,0.08288661,-0.1166701,0.004747044,0.22696279,0.010231007,-0.08353298,-0.30264232,0.1266149,-0.019629562,0.036566775,0.025748381,0.0060582436,0.05284651,-0.064997084,0.044116717,0.11004456,0.07561879,-0.03966346,-0.0043392796,0.059895147,0.7062698,-0.5419407,0.9040603,-0.30142543,0.6484639,-0.6670507,0.39568773,1.3347625,0.13259351,-0.21628074,-1.1413407,1.1445789,0.78927,-0.3891152,0.67722803,-0.27053806,0.1323607,-0.98706585,0.3589132,0.5289949,0.05588291,-0.3777314,-0.8615676,0.89708805
2025-07-21 14:38:35.325,1.8600000000000012,1860,93,-0.03887422,0.057876296,-0.0043465896,0.018354183,-0.03174785,-0.024658948,0.0,0.0,0.0,-0.25,0.15277089,-0.15540385,0.08403344,-0.051778916,0.076296516,-0.12908708,0.0149726635,0.25082052,0.009484809,-0.09063556,-0.32210997,0.13659157,0.07541117,-0.0009377809,0.007891593,-0.049291674,0.032763273,-0.04089097,-0.0074425517,0.032630425,0.054303557,0.019563757,-0.08625518,-0.043634128,0.78927,-0.3891152,0.67722803,-0.27053806,0.1323607,-0.98706585,0.3589132,0.5289949,0.05588291,-0.3777314,-0.8615676,0.89708805,0.77036613,-0.3408684,0.84637326,-0.4062103,-0.051553644,-0.71338904,-0.045428112,0.15602706,0.32737172,-0.13862441,-0.1914332,0.84859896
2025-07-21 14:38:35.345,1.8800000000000012,1880,94,0.052557796,0.13235524,-0.0052823843,0.041716833,-0.048727956,-0.009050623,0.0,0.0,0.0,-0.25,0.16772936,-0.16435137,0.08239428,-0.059479177,0.066295825,-0.114707395,0.022871114,0.21022314,0.01932591,-0.087616056,-0.30282092,0.12291162,-0.05261503,0.018638683,0.06873391,-0.06740357,-0.057780903,-0.061342187,0.0073895166,-0.07835485,-0.05002046,-0.015030369,0.0991805,-0.035925224,0.77036613,-0.3408684,0.84637326,-0.4062103,-0.051553644,-0.71338904,-0.045428112,0.15602706,0.32737172,-0.13862441,-0.1914332,0.84859896,0.4517618,-0.7370072,0.6090229,-0.22162677,0.47935036,-0.161378,-0.12007508,0.7599111,0.07128264,-0.3059778,-1.1519556,1.100205
2025-07-21 14:38:35.369,1.9000000000000012,1900,95,0.0088448245,-0.01415023,-0.06623686,0.009309022,-0.045392856,0.011759414,0.0,0.0,0.0,-0.25,0.16401157,-0.18165018,0.09699311,-0.039722946,0.07504132,-0.114003524,0.006363601,0.23219348,0.013046252,-0.07946513,-0.29478082,0.12854168,-0.000588175,-0.08816933,-0.014960657,-0.029365111,0.10942163,-0.04512655,-0.002674015,0.07154731,-0.043062974,0.045418076,-0.02631162,0.03470892,0.4517618,-0.7370072,0.6090229,-0.22162677,0.47935036,-0.161378,-0.12007508,0.7599111,0.07128264,-0.3059778,-1.1519556,1.100205,0.8121311,0.14714722,0.8399467,-0.4205956,-0.12546477,-1.0487263,0.24661362,0.21294032,-0.091449335,-0.26927927,-0.27395657,0.8306215
2025-07-21 14:38:35.391,1.9200000000000013,1920,96,0.06990279,0.10855121,-0.07140874,-0.024140416,-0.013632078,0.03133286,0.0,0.0,0.0,-0.25,0.16449343,-0.16080016,0.082829304,-0.057284493,0.06275595,-0.10715247,0.023242183,0.21097387,0.007156809,-0.06994324,-0.29931766,0.12190219,-0.022984298,0.13779207,-0.006401535,-0.017457785,-0.1290113,-0.07906658,0.031509247,0.009020652,0.06012644,-0.024383003,0.12803379,-0.000855491,0.8121311,0.14714722,0.8399467,-0.4205956,-0.12546477,-1.0487263,0.24661362,0.21294032,-0.091449335,-0.26927927,-0.27395657,0.8306215,0.37298888,-1.2645735,0.5895979,-0.30833155,0.28281662,0.06787548,-0.24264207,0.24139853,-0.13331307,-0.60778177,-1.2617697,0.81947553
2025-07-21 14:38:35.412,1.9400000000000013,1940,97,0.043430164,-0.023092007,-0.033998437,0.04373919,-0.04022393,0.02666301,0.0,0.0,0.0,-0.25,0.1482119,-0.17178832,0.08392659,-0.044745922,0.07756583,-0.10620883,0.013369535,0.19887568,-0.0005257288,-0.08797445,-0.3043429,0.117830284,-0.035354525,-0.07971708,0.03540879,-0.028144455,0.019257596,-0.00510657,-0.084269084,-0.11241444,0.056537572,0.015262875,-0.11832654,-0.045980714,0.37298888,-1.2645735,0.5895979,-0.30833155,0.28281662,0.06787548,-0.24264207,0.24139853,-0.13331307,-0.60778177,-1.2617697,0.81947553,1.0380208,0.09182788,0.6168303,-0.49628845,-0.025567867,-0.6962126,0.20710137,0.8640038,0.003313072,-0.2608969,0.08245055,0.6324886
2025-07-21 14:38:35.425,1.9600000000000013,1960,98,0.20476569,0.08967036,-0.07259498,-0.009802517,0.015128469,-0.04097592,0.0,0.0,0.0,-0.25,0.16837658,-0.1578872,0.08577998,-0.052952673,0.06616365,-0.09625827,0.0036116233,0.21675767,0.01042174,-0.092227645,-0.28665546,0.10037543,0.038261455,0.14019631,-0.057592202,0.020118495,-0.006173611,0.002161339,-0.038900323,0.023449909,0.010203528,-0.06902016,0.018113624,-0.091578856,1.0380208,0.09182788,0.6168303,-0.49628845,-0.025567867,-0.6962126,0.20710137,0.8640038,0.003313072,-0.2608969,0.08245055,0.6324886,0.44837376,-1.0149559,0.61527586,-0.5007686,0.07116803,-0.47454712,0.046609342,0.026457261,-0.112042055,-0.35941538,-0.643648,0.86246526
2025-07-21 14:38:35.450,1.9800000000000013,1980,99,-0.005058003,-0.02343509,0.026144909,0.01227982,0.037849203,0.007356238,0.0,0.0,0.0,-0.25,0.15703389,-0.15035313,0.093447514,-0.05427861,0.06276422,-0.09552226,0.00561734,0.1847378,0.0013185785,-0.09142621,-0.26620218,0.10603922,0.007616742,-0.031274416,-0.02805535,0.02264615,-0.06801355,0.0010951934,0.065105245,-0.04082934,0.062470894,-0.011859349,0.009507297,-0.004538988,0.44837376,-1.0149559,0.61527586,-0.5007686,0.07116803,-0.47454712,0.046609342,0.026457261,-0.112042055,-0.35941538,-0.643648,0.86246526,0.8709102,-0.23577377,0.8955471,-0.28780437,0.3600259,-0.5713454,0.092144415,0.8160795,-0.13785501,-0.21036033,-0.75613606,0.9486308
2025-07-21 14:38:35.465,2.0000000000000013,2000,100,0.13026205,0.087100364,-0.09380282,0.046399284,0.010205808,-0.029877072,0.0,0.0,0.0,-0.25,0.16119547,-0.14205092,0.08691966,-0.0565454,0.075095184,-0.09836123,0.008405192,0.20543127,-0.005806992,-0.093122385,-0.27382228,0.1149848,-0.032079615,-0.022626044,0.074173026,-0.0075762775,0.02176834,0.043804314,-0.024126336,0.10536281,0.02461584,0.0345064,0.02608505,-0.06655028,0.8709102,-0.23577377,0.8955471,-0.28780437,0.3600259,-0.5713454,0.092144415,0.8160795,-0.13785501,-0.21036033,-0.75613606,0.9486308,0.68975955,-0.42537752,0.5828929,-0.31960937,-0.12047944,-0.52538943,0.15254575,-0.040457327,0.03752838,-0.32339782,-0.33531225,0.7535957
2025-07-21 14:38:35.488,2.0200000000000014,2020,101,0.084705904,-0.0011727605,0.07589957,0.026196387,-0.0036637909,0.01876405,0.0,0.0,0.0,-0.25,0.16910687,-0.15753673,0.07488433,-0.049915854,0.04930948,-0.086163916,0.0017854123,0.17652749,0.0045430847,-0.09416003,-0.26018932,0.10569617,0.032321125,-0.063570164,0.04100455,0.021153986,0.015252488,-0.06313292,0.046024147,-0.027393062,0.052314065,-0.00900018,-0.006469165,-0.05891587,0.68975955,-0.42537752,0.5828929,-0.31960937,-0.12047944,-0.52538943,0.15254575,-0.040457327,0.03752838,-0.32339782,-0.33531225,0.7535957,0.50582695,-0.19618729,1.0659157,-0.1348776,-0.09571812,-0.8127733,-0.32984492,0.7756281,0.17310326,0.18086813,-0.64779514,1.2095497
2025-07-21 14:38:35.513,2.0400000000000014,2040,102,0.19791996,0.08448993,-0.06363821,-0.018493177,0.02093271,0.044656046,0.0,0.0,0.0,-0.25,0.16404821,-0.14352012,0.08460131,-0.05805706,0.027357485,-0.09292403,-0.0005529004,0.19050156,0.0032719604,-0.07492723,-0.27061257,0.11887591,0.034778852,0.07244081,0.00577626,0.08051297,-0.023665993,-0.040876243,-0.10360032,0.084730074,-0.00089029776,-0.032000694,0.06416492,0.08117895,0.50582695,-0.19618729,1.0659157,-0.1348776,-0.09571812,-0.8127733,-0.32984492,0.7756281,0.17310326,0.18086813,-0.64779514,1.2095497,0.5882254,-0.9037734,0.86968607,-0.10768704,0.16681293,-0.29542997,0.06699583,0.38569537,-0.084845975,-0.6350075,-1.1119812,0.9659058
2025-07-21 14:38:35.526,2.0600000000000014,2060,103,-2.8619226e-05,-0.07011214,-0.012590763,0.040293884,0.013119501,0.003294326,0.0,0.0,0.0,-0.25,0.15769252,-0.16430141,0.09498878,-0.047698516,0.044535566,-0.079599224,-0.010312733,0.1875737,0.005390725,-0.08445451,-0.28082857,0.11450524,0.0016472061,-0.009344171,-0.002640147,-0.038567077,0.013215086,0.049556844,0.01631427,-0.05515842,0.009584553,-0.08123956,-0.08249272,-0.044303223,0.5882254,-0.9037734,0.86968607,-0.10768704,0.16681293,-0.29542997,0.06699583,0.38569537,-0.084845975,-0.6350075,-1.1119812,0.9659058,0.92928594,-0.37312993,0.5662436,-0.39711937,0.0047642216,-0.70458937,0.075381875,0.887954,0.100693,-0.034944996,-0.18754032,0.937649
2025-07-21 14:38:35.551,2.0800000000000014,2080,104,0.10256388,0.08360751,0.0501473,0.07304469,0.00718889,-0.026087627,0.0,0.0,0.0,-0.25,0.16215293,-0.15852854,0.08553734,-0.036860723,0.035602964,-0.094566524,0.009950753,0.20792323,0.010001233,-0.086541295,-0.29328433,0.11273993,0.00953281,-0.06206258,-0.08565381,-0.02418717,-0.06748827,-0.05614292,0.07653015,0.092800945,-0.005120827,0.04622975,0.07899563,-0.03081454,0.92928594,-0.37312993,0.5662436,-0.39711937,0.0047642216,-0.70458937,0.075381875,0.887954,0.100693,-0.034944996,-0.18754032,0.937649,0.45374253,-0.0085617965,1.0008044,-0.14019436,0.23737499,-0.76510507,-0.08943328,0.37556973,0.26309603,0.07215251,-0.9203939,1.217652
2025-07-21 14:38:35.565,2.1000000000000014,2100,105,0.096909836,0.07564007,-0.12519112,0.07843367,0.012702738,0.005507123,0.0,0.0,0.0,-0.25,0.16748473,-0.15791473,0.09107477,-0.04468175,0.045314588,-0.09119172,0.0035478207,0.21806084,0.010891229,-0.08866217,-0.29308507,0.12750012,-0.039928894,0.08598256,0.048845686,-0.010810814,-0.01620068,-0.07431921,-0.046972718,0.031561937,-0.0390005,0.04791735,-0.030381069,0.06646879,0.45374253,-0.0085617965,1.0008044,-0.14019436,0.23737499,-0.76510507,-0.08943328,0.37556973,0.26309603,0.07215251,-0.9203939,1.217652,0.79611397,-0.88731325,0.5953032,-0.39940688,0.031183027,-0.77161455,0.21834265,0.24250717,0.0313787,-0.34510592,-0.6441993,1.1095573
2025-07-21 14:38:35.585,2.1200000000000014,2120,106,-0.06028397,-0.018953929,0.13347115,0.07359946,0.034723572,0.015007834,0.0,0.0,0.0,-0.25,0.16901256,-0.18080951,0.09646728,-0.052540794,0.046289463,-0.10138202,-0.0038734446,0.1938347,0.008738469,-0.07834359,-0.2875077,0.12643673,-0.06497864,-0.15222631,-0.07270004,-0.029848803,0.046431303,-0.07333378,0.05065005,-0.03762403,-0.055580996,-0.07096446,0.0046303933,-0.07796284,0.79611397,-0.88731325,0.5953032,-0.39940688,0.031183027,-0.77161455,0.21834265,0.24250717,0.0313787,-0.34510592,-0.6441993,1.1095573,0.5445383,0.4447943,0.9254784,-0.114648245,0.10918351,-0.9030004,-0.15414928,0.87974715,0.11662747,0.16957088,-0.64830273,1.1857758
2025-07-21 14:38:35.606,2.1400000000000015,2140,107,0.1661639,0.046041407,-0.007647314,0.020728042,0.030520614,0.029056512,0.0,0.0,0.0,-0.25,0.16732055,-0.17971101,0.09338743,-0.030861579,0.050020657,-0.10311903,0.0013797691,0.2237279,0.0082342755,-0.09036024,-0.29641604,0.12807661,-0.041235976,-0.030033713,-0.048996318,0.03279027,-0.055621706,0.016855387,0.061064057,0.10983599,-0.046533868,0.07020889,-0.045316685,-0.018945893,0.5445383,0.4447943,0.9254784,-0.114648245,0.10918351,-0.9030004,-0.15414928,0.87974715,0.11662747,0.16957088,-0.64830273,1.1857758,0.918692,0.08420538,0.72996575,-0.2693298,-0.120376326,-0.87151194,0.37290204,0.03866945,0.22001958,-0.21244554,-0.49312386,1.2871548
2025-07-21 14:38:35.631,2.1600000000000015,2160,108,0.058952607,0.009079832,0.11615879,0.0141822295,-0.0026234773,-0.027264273,0.0,0.0,0.0,-0.25,0.16938314,-0.16051911,0.09219845,-0.038008638,0.022018716,-0.11216671,5.360878e-06,0.20036437,0.009750169,-0.07046606,-0.2888211,0.13023047,-0.021038992,0.14292023,-0.04587163,0.060222983,0.031794008,0.010169903,0.040212255,-0.0658784,0.00064097025,0.010849719,0.06310913,0.011512979,0.918692,0.08420538,0.72996575,-0.2693298,-0.120376326,-0.87151194,0.37290204,0.03866945,0.22001958,-0.21244554,-0.49312386,1.2871548,0.24163474,-0.90048,0.71297723,-0.02096691,0.36144158,0.0028452352,-0.28864756,0.87673193,0.14016968,-0.3509142,-1.6775552,1.0608199
2025-07-21 14:38:35.651,2.1800000000000015,2180,109,-0.15588069,-0.11191052,0.0119441,0.0007951293,-0.0116401445,-0.024526909,0.0,0.0,0.0,-0.25,0.16795127,-0.16168095,0.09460799,-0.037840135,0.032596756,-0.0957669,-0.0072533707,0.23722038,0.012453907,-0.0851272,-0.29497507,0.12751138,-0.07742773,-0.040586967,0.028794626,0.0031708025,0.0988226,0.089498505,-0.04900773,0.039611325,-0.0216909,0.016254285,-0.052875824,0.026633106,0.24163474,-0.90048,0.71297723,-0.02096691,0.36144158,0.0028452352,-0.28864756,0.87673193,0.14016968,-0.3509142,-1.6775552,1.0608199,0.86532336,-0.3338189,0.5384017,-0.28188503,-0.068568625,-0.96448344,0.29837653,0.748657,0.0844674,-0.29880926,-0.49393663,0.7035408
2025-07-21 14:38:35.675,2.2000000000000015,2200,110,0.064074524,0.023825916,0.058478374,0.089513205,0.008247657,-0.04035185,0.0,0.0,0.0,-0.25,0.15997487,-0.1530063,0.09061132,-0.037147142,0.039470844,-0.10534823,0.0069666854,0.24298917,0.01750251,-0.07667714,-0.30553177,0.11728246,-0.004131985,-0.008874864,0.024811031,0.009024052,-0.024214175,-0.073782556,-0.026097508,0.08924078,-0.07381114,-0.012213837,0.077153675,-0.017112888,0.86532336,-0.3338189,0.5384017,-0.28188503,-0.068568625,-0.96448344,0.29837653,0.748657,0.0844674,-0.29880926,-0.49393663,0.7035408,0.37359962,-0.2040333,1.2917604,-0.19174108,0.12532386,-0.77617264,-0.3348959,0.33398077,0.39224416,0.19298501,-0.87578356,1.1067914
2025-07-21 14:38:35.694,2.2200000000000015,2220,111,0.03543447,0.0609577,-0.08978747,0.0075817825,0.05253538,0.048971947,0.0,0.0,0.0,-0.25,0.16556072,-0.15369724,0.08157238,-0.027046857,0.035323326,-0.11447418,0.0023424155,0.23359741,0.029462524,-0.08054572,-0.2973263,0.13780479,-0.04247987,0.06185373,0.03331252,-0.00095947064,-0.029089272,0.05313425,0.029306535,-0.05653687,-0.018916013,0.07845461,-0.08183774,0.008687781,0.37359962,-0.2040333,1.2917604,-0.19174108,0.12532386,-0.77617264,-0.3348959,0.33398077,0.39224416,0.19298501,-0.87578356,1.1067914,1.0356332,-0.69499314,0.2845142,-0.2776149,0.05826869,-0.47122398,0.54145014,0.5216644,0.12458865,-0.44441417,-0.4235687,0.9528748
2025-07-21 14:38:35.712,2.2400000000000015,2240,112,0.085104205,0.10893502,0.063624725,0.08459639,0.015337709,0.0055804686,0.0,0.0,0.0,-0.25,0.16724645,-0.17853616,0.07557648,-0.039198685,0.043530006,-0.104651496,0.014210019,0.21838084,0.020578332,-0.08702323,-0.28373745,0.12535529,0.020868685,0.001440494,-0.0675487,0.04472725,-0.011649792,0.034469016,0.11167495,-0.0530477,-0.010953715,-0.043302152,0.0023998986,-0.011137255,1.0356332,-0.69499314,0.2845142,-0.2776149,0.05826869,-0.47122398,0.54145014,0.5216644,0.12458865,-0.44441417,-0.4235687,0.9528748,0.39466366,0.02014565,0.9973948,-0.37233818,0.10214167,-0.7493034,-0.28903082,0.65975934,0.21608911,0.2984061,-0.57219267,1.0986168
2025-07-21 14:38:35.732,2.2600000000000016,2260,113,0.2654389,0.057117466,-0.06267963,0.022024928,0.034239043,0.007431859,0.0,0.0,0.0,-0.25,0.16473676,-0.16616905,0.076078914,-0.036288794,0.029576324,-0.10094523,0.011266613,0.2399713,0.023059702,-0.0765794,-0.27237797,0.13613658,-0.07337875,0.11501935,0.051010873,-0.008936071,0.024010396,0.0056244074,0.018867927,0.0055277594,0.02001153,-0.0066970456,-0.046001133,0.0014717126,0.39466366,0.02014565,0.9973948,-0.37233818,0.10214167,-0.7493034,-0.28903082,0.65975934,0.21608911,0.2984061,-0.57219267,1.0986168,0.8988791,-0.83211774,0.54834336,-0.34318888,-0.04315389,-0.49207637,0.3429858,0.10783158,-0.08161405,-0.60007536,-0.61680055,0.99616027
2025-07-21 14:38:35.752,2.2800000000000016,2280,114,-0.08151379,-0.13886653,0.132193,0.07379725,0.06816061,0.0039719883,0.0,0.0,0.0,-0.25,0.16210699,-0.1903354,0.07987596,-0.036690656,0.023360476,-0.104991704,0.0091971895,0.21193954,0.025969066,-0.08962435,-0.2691323,0.125325,-0.051415868,-0.031458694,0.020516165,0.032589402,-0.05743978,0.00969274,0.008656546,-0.12583011,-0.07789474,-0.06424026,0.0019532705,-0.052438352,0.8988791,-0.83211774,0.54834336,-0.34318888,-0.04315389,-0.49207637,0.3429858,0.10783158,-0.08161405,-0.60007536,-0.61680055,0.99616027,0.63087326,-0.099967174,0.83707374,-0.16307014,0.40907022,-0.6264231,-0.3302735,1.0583929,0.120697126,0.04159297,-0.7878346,1.2623032
2025-07-21 14:38:35.771,2.3000000000000016,2300,115,-0.015342236,-0.037000038,-0.029286392,0.0671033,0.08808731,0.045155272,0.0,0.0,0.0,-0.25,0.16914879,-0.20288976,0.07712252,-0.039041232,0.04836961,-0.1069275,-0.0038025181,0.249868,0.026434086,-0.08733925,-0.2808688,0.1410351,-0.024384087,-0.030086463,-0.07527945,0.027872808,-0.0019327578,-0.050596505,-0.0020107108,0.116263576,-0.069417916,0.04589911,-0.07715507,0.0003281927,0.63087326,-0.099967174,0.83707374,-0.16307014,0.40907022,-0.6264231,-0.3302735,1.0583929,0.120697126,0.04159297,-0.7878346,1.2623032,0.94092005,0.069752686,0.7101349,-0.49401194,0.11754026,-1.2826262,0.36580038,0.14668538,0.1559511,-0.23464434,-0.5773997,1.3174477
2025-07-21 14:38:35.793,2.3200000000000016,2320,116,-0.0032991085,0.006815201,-0.016706124,0.010312643,0.035793714,0.015440813,0.0,0.0,0.0,-0.25,0.17477717,-0.16867284,0.07597508,-0.05133001,0.05104478,-0.11830115,0.004955369,0.22087085,0.020500988,-0.0737954,-0.27384797,0.13522746,0.02251625,0.105743624,-0.037383426,0.011543509,-0.043470103,-0.07443391,0.02985947,-0.132864,0.07075616,0.06223575,0.014003629,-0.012358643,0.94092005,0.069752686,0.7101349,-0.49401194,0.11754026,-1.2826262,0.36580038,0.14668538,0.1559511,-0.23464434,-0.5773997,1.3174477,0.6006255,-0.5886483,0.5027369,-0.33666328,0.2949799,-0.29499373,-0.0042918473,0.59558904,0.019870281,-0.29029304,-1.1268306,1.1289871
2025-07-21 14:38:35.814,2.3400000000000016,2340,117,-0.048258457,-0.12564446,-0.069324054,0.08095451,0.008983087,-0.018373776,0.0,0.0,0.0,-0.25,0.17375202,-0.15971793,0.07094803,-0.052600034,0.06969587,-0.109298244,0.004966876,0.22211584,0.008454895,-0.09466021,-0.28953025,0.14293338,0.0703236,0.03864541,0.035047274,0.06090777,0.058913615,0.019070623,0.052434962,-0.064097576,-0.042677063,-0.045548007,-0.03714683,0.00019253457,0.6006255,-0.5886483,0.5027369,-0.33666328,0.2949799,-0.29499373,-0.0042918473,0.59558904,0.019870281,-0.29029304,-1.1268306,1.1289871,0.75322527,-0.57571244,0.60360366,-0.7079715,0.042832904,-0.83157367,0.17956236,0.5979202,-0.09985112,-0.106347784,-0.49808773,0.8657073
2025-07-21 14:38:35.834,2.3600000000000017,2360,118,-0.028747026,-0.063954934,0.08084267,0.06656959,0.051660903,0.0034537304,0.0,0.0,0.0,-0.25,0.16836926,-0.18253796,0.06847567,-0.048307817,0.057968188,-0.10505625,0.017928027,0.23806153,0.019300392,-0.07370925,-0.29657242,0.13737494,0.064746656,0.018247152,0.06497227,-0.008448846,-0.087086864,-0.053384997,0.030147305,-0.002109162,-0.081815355,-0.045108266,-0.037912868,0.012628924,0.75322527,-0.57571244,0.60360366,-0.7079715,0.042832904,-0.83157367,0.17956236,0.5979202,-0.09985112,-0.106347784,-0.49808773,0.8657073,0.75580233,-0.20310679,0.99628764,-0.5160272,0.33876082,-0.9158426,-0.13349321,0.7307769,0.17047296,0.015162485,-0.93059057,1.4032753
2025-07-21 14:38:35.853,2.3800000000000017,2380,119,0.0033312994,0.027602859,-0.13437076,0.061509017,0.06378165,-0.00057492807,0.0,0.0,0.0,-0.25,0.18224476,-0.17012328,0.08502945,-0.057007715,0.07427329,-0.10865593,-0.006038629,0.24704018,0.007831682,-0.06972191,-0.30871856,0.14862946,-0.012689749,0.037838146,0.020647002,0.0016944645,0.07216159,-0.04317785,-0.05459732,0.010612929,-0.003460232,0.030867448,0.03116806,0.09744424,0.75580233,-0.20310679,0.99628764,-0.5160272,0.33876082,-0.9158426,-0.13349321,0.7307769,0.17047296,0.015162485,-0.93059057,1.4032753,0.73624724,-0.62180394,0.4362006,-0.4299544,-0.08186201,-0.51073825,0.28884417,0.050617885,0.0037042946,-0.44840235,-0.5263501,0.7932912
2025-07-21 14:38:35.872,2.4000000000000017,2400,120,-0.08404029,0.058131438,0.026934098,0.07034196,0.040666893,-0.02174349,0.0,0.0,0.0,-0.25,0.17112897,-0.17808382,0.07613779,-0.06862333,0.056302752,-0.104633614,0.016124701,0.20524374,0.017292628,-0.079740085,-0.2924376,0.13204962,-0.012695504,-0.057290852,-0.0057602683,-0.040914137,0.0007231238,0.012137212,0.08577931,-0.16760339,-0.036179066,-0.024048151,-0.04575501,-0.05157312,0.73624724,-0.62180394,0.4362006,-0.4299544,-0.08186201,-0.51073825,0.28884417,0.050617885,0.0037042946,-0.44840235,-0.5263501,0.7932912,0.742993,0.032907393,0.6995644,-0.42299098,0.13270095,-0.66922647,-0.08476913,0.8722337,0.005547099,0.010288762,-0.38719776,1.0446441
2025-07-21 14:38:35.891,2.4200000000000017,2420,121,0.09208262,0.1790591,0.016138721,0.045749813,0.072913066,-0.01477722,0.0,0.0,0.0,-0.25,0.17017181,-0.17365077,0.07011156,-0.06104296,0.04785118,-0.11012201,0.0007675639,0.22816208,0.01058601,-0.085227236,-0.27361473,0.1382741,-0.053797748,0.043019623,-0.005281891,-0.007898227,0.06834969,-0.03867167,0.062815,0.09288338,-0.023739146,-0.013936547,0.010525771,-0.03564422,0.742993,0.032907393,0.6995644,-0.42299098,0.13270095,-0.66922647,-0.08476913,0.8722337,0.005547099,0.010288762,-0.38719776,1.0446441,0.53478396,-0.4795339,0.68514884,-0.24781029,-0.05261115,-0.776095,-0.04151027,0.12634732,0.08210161,-0.284829,-0.9227315,1.1306225
2025-07-21 14:38:35.914,2.4400000000000017,2440,122,-0.21279189,-0.08935719,-0.02013724,0.038418055,0.02439497,-0.048842113,0.0,0.0,0.0,-0.25,0.17125899,-0.15852658,0.07513356,-0.053994436,0.045452777,-0.10176484,0.014416657,0.21994463,0.008422901,-0.094656825,-0.2827545,0.13849969,-0.09176342,0.045205496,-0.044220537,-0.037809372,-0.04519877,0.0037351942,-0.026736695,-0.061220203,0.020642662,0.0132294055,-0.049631465,0.01369306,0.53478396,-0.4795339,0.68514884,-0.24781029,-0.05261115,-0.776095,-0.04151027,0.12634732,0.08210161,-0.284829,-0.9227315,1.1306225,0.8324638,-0.6641625,0.5962569,-0.46701995,0.32937115,-0.80872494,0.18390535,0.7922522,0.16402122,-0.21941255,-0.7912651,1.1091576
2025-07-21 14:38:35.935,2.4600000000000017,2460,123,-0.12110892,-0.14396319,0.10194709,0.07939159,0.06724484,-0.049662106,0.0,0.0,0.0,-0.25,0.17541674,-0.17436276,0.06944787,-0.064619206,0.05888948,-0.11082345,0.0135638155,0.22918426,0.020996353,-0.07525843,-0.30489743,0.1495896,0.0037572372,0.026202278,0.027922282,-0.010381346,0.071749076,-0.05439505,0.06481312,0.019822467,0.06966046,0.051584233,0.038986027,0.04596377,0.8324638,-0.6641625,0.5962569,-0.46701995,0.32937115,-0.80872494,0.18390535,0.7922522,0.16402122,-0.21941255,-0.7912651,1.1091576,0.58112764,-0.37311113,0.84452283,-0.2002088,0.29785475,-0.9122302,0.035787657,0.7825076,0.1649819,0.037186876,-1.2540977,0.9966872
2025-07-21 14:38:35.953,2.4800000000000018,2480,124,-0.13093875,-0.05023561,-0.0614393,0.03615581,-0.028282152,-0.019665431,0.0,0.0,0.0,-0.25,0.17819117,-0.1898996,0.07793584,-0.0563271,0.07373777,-0.12748273,0.0006624528,0.24102706,0.016292837,-0.075116135,-0.32836315,0.13603662,-0.060268488,-0.027868606,-0.061801974,0.055450212,-0.03611249,0.027069885,0.047242224,0.0762466,0.03182022,0.051264826,-0.080405965,0.06865024,0.58112764,-0.37311113,0.84452283,-0.2002088,0.29785475,-0.9122302,0.035787657,0.7825076,0.1649819,0.037186876,-1.2540977,0.9966872,1.209439,0.06333881,0.617595,-0.5817063,-0.08925191,-0.8581826,0.48293096,0.1937743,0.2026477,-0.28366145,-0.060579203,0.8528578
2025-07-21 14:38:35.973,2.5000000000000018,2500,125,0.014872637,0.17267436,-0.083726354,0.036629494,-0.0022522348,-0.028152853,0.0,0.0,0.0,-0.25,0.18120833,-0.16976714,0.06473972,-0.05256478,0.05602722,-0.12342974,0.014277161,0.21891396,0.026906783,-0.084880084,-0.31498495,0.13760152,0.003225212,0.14726041,-0.036922216,-0.053042307,0.0026757426,0.062585816,0.10570835,-0.010613052,-0.059951827,-0.069017366,0.058230452,-0.0305815,1.209439,0.06333881,0.617595,-0.5817063,-0.08925191,-0.8581826,0.48293096,0.1937743,0.2026477,-0.28366145,-0.060579203,0.8528578,0.2750875,-1.1922948,0.28368565,-0.50674796,0.12807444,-0.17052802,-0.2984398,0.09328018,0.0026210994,-0.20341904,-0.59055966,0.61597145
2025-07-21 14:38:35.992,2.520000000000002,2520,126,-0.026238723,0.015117993,0.06953218,-0.005017299,-0.045708727,0.006588083,0.0,0.0,0.0,-0.25,0.17936017,-0.16938514,0.06324993,-0.07088648,0.055195313,-0.1122097,-0.00051954266,0.19852576,0.010419941,-0.083874956,-0.30588624,0.12375983,-0.043547407,0.021476874,-0.03555944,0.041052762,0.047023974,0.07575735,-0.10418078,-0.078778334,0.060301762,0.030320186,0.059796777,0.02578423,0.2750875,-1.1922948,0.28368565,-0.50674796,0.12807444,-0.17052802,-0.2984398,0.09328018,0.0026210994,-0.20341904,-0.59055966,0.61597145,0.5757146,-0.845073,0.9411283,-0.5190234,0.462364,-0.46194777,0.35126537,0.8547726,-0.37358773,-0.48933432,-1.1356803,0.5509411
2025-07-21 14:38:36.016,2.540000000000002,2540,127,-0.101720676,-0.14172758,0.0112830065,-0.007078067,0.026669502,-0.00869428,0.0,0.0,0.0,-0.25,0.15894957,-0.20000674,0.06928756,-0.06054255,0.06370397,-0.10084216,0.01898152,0.21352218,-0.0064000883,-0.08504348,-0.32576576,0.10679996,-0.06804533,-0.051702026,0.069568545,-0.057465527,0.019318381,-0.01669264,0.007687963,0.10085428,0.043210194,-0.071008086,-0.08713311,0.030841382,0.5757146,-0.845073,0.9411283,-0.5190234,0.462364,-0.46194777,0.35126537,0.8547726,-0.37358773,-0.48933432,-1.1356803,0.5509411,1.2065074,-0.25749913,0.5474979,-0.55729085,-0.13297844,-1.0565238,0.16103786,0.5790079,0.12062518,-0.17657344,-0.20133816,0.90912163
2025-07-21 14:38:36.035,2.560000000000002,2560,128,0.048782073,0.07175,-0.0025108852,0.031763904,0.029507695,0.025249802,0.0,0.0,0.0,-0.25,0.18138842,-0.18275465,0.076027535,-0.07154778,0.06523634,-0.11005704,0.016803741,0.21633582,-0.0040376903,-0.08873256,-0.3228544,0.11753407,0.09536623,0.05215791,-0.06837792,0.040365852,-0.03526317,0.007776844,0.04052292,-0.041740507,0.04870533,0.012775257,-0.010563565,0.032268535,1.2065074,-0.25749913,0.5474979,-0.55729085,-0.13297844,-1.0565238,0.16103786,0.5790079,0.12062518,-0.17657344,-0.20133816,0.90912163,0.63105005,-0.5228449,0.78067636,-0.50945663,0.011549465,-0.40340182,-0.1180577,0.41427475,0.22085185,0.04399748,-0.6504125,1.0482801
2025-07-21 14:38:36.053,2.580000000000002,2580,129,-0.041716494,-0.0022770627,0.027396755,-0.0048386366,-0.0045221304,0.002972906,0.0,0.0,0.0,-0.25,0.1744308,-0.19598232,0.07147269,-0.07343136,0.04727706,-0.109596044,0.014552301,0.20878664,0.01449231,-0.07638844,-0.31547186,0.107426025,-0.0372733,0.03046443,-0.0033975919,0.06298619,-0.061868325,-0.010481743,-0.09010748,-0.0012610991,0.04268665,-0.039255645,-0.060849387,0.045761775,0.63105005,-0.5228449,0.78067636,-0.50945663,0.011549465,-0.40340182,-0.1180577,0.41427475,0.22085185,0.04399748,-0.6504125,1.0482801,1.014327,-0.46570927,0.59811157,-0.5542487,0.32577905,-0.7515772,0.31004778,0.5063388,0.1773784,-0.68132114,-0.77291244,1.2281597
2025-07-21 14:38:36.072,2.600000000000002,2600,130,-0.071477845,-0.009528418,-0.013049257,0.00051909813,-0.015662294,-0.018357197,0.0,0.0,0.0,-0.25,0.17983527,-0.1965434,0.064086474,-0.08015489,0.060890343,-0.11321823,0.023651063,0.21317065,0.009256726,-0.096678875,-0.31707317,0.12538084,0.038297668,0.00655513,-0.017124185,0.021570196,0.07465354,-0.046060663,0.0064090793,0.005927342,-0.02361926,-0.011231186,-0.048429728,-0.05943237,1.014327,-0.46570927,0.59811157,-0.5542487,0.32577905,-0.7515772,0.31004778,0.5063388,0.1773784,-0.68132114,-0.77291244,1.2281597,0.5782419,-0.35273373,0.49792045,-0.60501873,0.07027935,-0.7743971,-0.27909845,0.36767355,0.38417345,-0.23043175,-0.45490563,1.0730484
2025-07-21 14:38:36.095,2.620000000000002,2620,131,-0.020880343,0.049292866,-0.005410135,0.0019477934,-0.036627393,-0.006535122,0.0,0.0,0.0,-0.25,0.1654612,-0.17953168,0.061080974,-0.088277414,0.054886065,-0.1060462,0.00091941195,0.1997845,0.03115344,-0.09103493,-0.29691422,0.11245388,0.044027925,-0.032854103,-0.031554505,-0.00059034245,0.012295164,-0.0085508395,0.0402592,-0.046650868,-0.013693535,0.025563158,-0.008207584,-0.08378775,0.5782419,-0.35273373,0.49792045,-0.60501873,0.07027935,-0.7743971,-0.27909845,0.36767355,0.38417345,-0.23043175,-0.45490563,1.0730484,0.610224,-0.219871,0.5903643,-0.5170313,0.22139105,-0.74770737,-0.0062500387,0.57807493,0.26790616,-0.23930965,-0.73153335,1.1942009
2025-07-21 14:38:36.116,2.640000000000002,2640,132,0.0298418,0.044934556,-0.034788445,0.029536795,-0.04838586,0.007963205,0.0,0.0,0.0,-0.25,0.17274474,-0.16627191,0.057274833,-0.08582708,0.06580348,-0.10506604,-0.007861322,0.21310769,0.019364545,-0.0898266,-0.30070436,0.12557231,-0.065696806,-0.029681629,-0.079266146,-0.0019300497,0.061412748,-0.060991473,-0.06717534,0.048044425,0.07053088,0.047288187,-0.03265011,0.08185828,0.610224,-0.219871,0.5903643,-0.5170313,0.22139105,-0.74770737,-0.0062500387,0.57807493,0.26790616,-0.23930965,-0.73153335,1.1942009,0.73798716,-0.20687294,0.8561788,-0.5276692,-0.14390418,-0.94560635,0.1300145,0.25557393,0.1973361,-0.22827597,-0.46866432,1.1268198
2025-07-21 14:38:36.133,2.660000000000002,2660,133,0.06598768,0.124529116,-0.048941974,0.04370517,-0.015426326,0.0034669058,0.0,0.0,0.0,-0.25,0.18001208,-0.16024837,0.07967787,-0.081716746,0.051683076,-0.11294726,0.004830301,0.1898788,0.019028172,-0.0917426,-0.2802905,0.12322231,0.06882528,0.070258014,-0.0165452,0.05491424,-0.005937412,-0.04480037,0.035848755,-0.09946201,0.041168492,0.030393127,0.00057390437,0.07191211,0.73798716,-0.20687294,0.8561788,-0.5276692,-0.14390418,-0.94560635,0.1300145,0.25557393,0.1973361,-0.22827597,-0.46866432,1.1268198,0.6887848,-0.7896162,0.6612132,-0.38217494,0.067342065,-0.20069858,0.07892017,0.7301477,-0.061309412,-0.3045291,-0.82950336,0.98483884
2025-07-21 14:38:36.153,2.680000000000002,2680,134,0.006718391,-0.11843371,-0.09181536,0.055979438,0.04670767,0.036065053,0.0,0.0,0.0,-0.25,0.18198383,-0.1691354,0.068662584,-0.087503195,0.040044583,-0.107136115,0.0062545524,0.2013975,0.024320146,-0.091762036,-0.28960314,0.12843196,0.0053453855,-0.020963531,0.0727065,0.049161375,-0.033417325,0.09846104,0.022498656,0.11893589,-0.086751595,-0.00042256666,-0.0026323814,0.0721024,0.6887848,-0.7896162,0.6612132,-0.38217494,0.067342065,-0.20069858,0.07892017,0.7301477,-0.061309412,-0.3045291,-0.82950336,0.98483884,0.9295758,-0.37853605,0.72131866,-0.64285684,-0.1132435,-0.81258285,0.09282076,0.33429372,0.11451623,-0.07566045,-0.25373462,0.9786588
2025-07-21 14:38:36.177,2.700000000000002,2700,135,0.13170834,0.07811199,-0.038300544,0.068106376,0.032581117,0.035539657,0.0,0.0,0.0,-0.25,0.18736726,-0.17379867,0.06672327,-0.0883114,0.028166978,-0.107312895,0.009259239,0.18779132,0.0208694,-0.09022824,-0.27887696,0.113115974,0.010109507,0.010983828,-0.061833024,-0.055510454,-0.07070196,-0.021843852,-0.00814998,-0.09803241,0.015788836,0.052183658,0.12512766,-0.01486621,0.9295758,-0.37853605,0.72131866,-0.64285684,-0.1132435,-0.81258285,0.09282076,0.33429372,0.11451623,-0.07566045,-0.25373462,0.9786588,0.6018969,-0.4495073,0.7109985,-0.19016778,0.287972,-0.008024059,-0.10153835,0.67877257,-0.07999538,-0.17727016,-0.9372955,1.06509
2025-07-21 14:38:36.191,2.720000000000002,2720,136,-0.002548047,-0.09110058,-0.08553975,0.054153103,-0.018667065,-0.022588238,0.0,0.0,0.0,-0.25,0.17817491,-0.17123301,0.07874782,-0.06710516,0.031996004,-0.09812772,0.007947543,0.20834115,0.01697541,-0.08323932,-0.27590692,0.13247941,0.0011648136,0.041504577,-0.04126739,0.0011513087,0.032529093,0.04070417,-0.01178941,0.05022134,-0.06901673,-0.03127137,-0.06971134,0.046932783,0.6018969,-0.4495073,0.7109985,-0.19016778,0.287972,-0.008024059,-0.10153835,0.67877257,-0.07999538,-0.17727016,-0.9372955,1.06509,0.8751421,-0.58848697,0.55779773,-0.76988876,-0.02253554,-0.91454977,0.24569952,0.38989264,-0.19747157,-0.29766712,-0.41405818,0.92904353
2025-07-21 14:38:36.211,2.740000000000002,2740,137,-0.031557366,-0.11580288,0.0063751717,0.008505906,0.028409466,0.023311934,0.0,0.0,0.0,-0.25,0.18404102,-0.1882727,0.067043,-0.07561805,0.023724327,-0.10348006,0.006668515,0.20351304,0.014355361,-0.076106295,-0.2745128,0.12469599,-0.017126076,-0.01978199,-0.06448754,0.0474158,-0.08294283,-0.046815667,0.055136576,0.04990251,0.034122262,-0.07155077,0.100563034,-0.025107397,0.8751421,-0.58848697,0.55779773,-0.76988876,-0.02253554,-0.91454977,0.24569952,0.38989264,-0.19747157,-0.29766712,-0.41405818,0.92904353,0.6336081,-0.32150802,0.8800299,-0.4894752,0.3786619,-0.53485745,-0.258869,0.51712316,0.058444805,-0.123804495,-0.9656934,1.1332783
2025-07-21 14:38:36.239,2.760000000000002,2760,138,-0.0712952,-0.06334304,-0.12202906,0.06960207,-0.016904864,0.015382992,0.0,0.0,0.0,-0.25,0.18660738,-0.18894777,0.08220148,-0.082640015,0.057814866,-0.10370035,-0.012216065,0.20943281,0.017194178,-0.076672144,-0.26726684,0.12976451,0.021190038,-0.05995879,0.0096623115,-0.009109202,0.105978414,-0.06119925,0.041976206,0.036698207,-0.067005925,-0.029306987,-0.06654082,0.04737656,0.6336081,-0.32150802,0.8800299,-0.4894752,0.3786619,-0.53485745,-0.258869,0.51712316,0.058444805,-0.123804495,-0.9656934,1.1332783,0.814564,-0.023231855,0.62807924,-0.49679846,-0.21322522,-0.87589604,0.16468778,0.4370799,-0.14038403,-0.10592373,-0.06328764,0.85599315
2025-07-21 14:38:36.251,2.780000000000002,2780,139,0.069042206,0.13140975,-0.12247244,0.009042229,0.0011594569,-0.048162278,0.0,0.0,0.0,-0.25,0.18776838,-0.17213678,0.0746445,-0.089786954,0.041318055,-0.096078105,-0.0020595812,0.20928277,-0.005525962,-0.09424469,-0.26112556,0.1288439,0.06433694,0.1205134,0.055558648,0.06972844,0.008422013,0.013665114,0.072541595,-0.067347,0.06412876,0.044224024,0.03681099,-0.029858422,0.814564,-0.023231855,0.62807924,-0.49679846,-0.21322522,-0.87589604,0.16468778,0.4370799,-0.14038403,-0.10592373,-0.06328764,0.85599315,0.527057,-1.2913004,0.45971158,-0.52774566,0.045861118,-0.19622973,0.054686338,0.25269732,-0.3125441,-0.5357058,-0.6751235,0.6757767
2025-07-21 14:38:36.277,2.800000000000002,2800,140,-0.07893279,-0.043437336,-0.12093304,0.0772828,0.038339328,0.04894343,0.0,0.0,0.0,-0.25,0.16830727,-0.15551065,0.06377118,-0.08559643,0.021387048,-0.08933089,0.008452945,0.17915061,-0.00036457155,-0.08433964,-0.24054429,0.1158768,0.0364509,-0.09923231,0.068260886,0.05864071,-0.07647691,0.05373764,-0.054346796,-0.07435804,-0.07807904,-0.0036777859,0.046693526,0.061349023,0.527057,-1.2913004,0.45971158,-0.52774566,0.045861118,-0.19622973,0.054686338,0.25269732,-0.3125441,-0.5357058,-0.6751235,0.6757767,0.81605136,-0.13823844,0.6325581,-0.5459209,0.30118826,-0.51066566,-0.117477804,0.7432864,-0.075145885,-0.1717198,-0.20336689,0.82260156
2025-07-21 14:38:36.296,2.820000000000002,2820,141,0.07797134,0.112389185,-0.020214468,0.019671934,-0.022564895,-0.024792444,0.0,0.0,0.0,-0.25,0.17545764,-0.15320092,0.07210391,-0.07585189,0.05053419,-0.07994662,-0.003451368,0.20317096,-0.013538113,-0.0969671,-0.22495642,0.10590297,-0.004840565,0.06605469,0.048095677,-0.053496942,-0.008559621,-0.05986841,0.026102537,0.05597363,-0.06141259,0.0021031478,0.036168326,0.028185649,0.81605136,-0.13823844,0.6325581,-0.5459209,0.30118826,-0.51066566,-0.117477804,0.7432864,-0.075145885,-0.1717198,-0.20336689,0.82260156,0.17880641,-0.8569099,0.7805245,-0.37026408,0.17792577,-0.78387827,-0.29323238,0.6939356,-0.21310042,-0.010267122,-1.213988,1.167447
