openverse-orca/OrcaGym/log/simulation_log_20250721_160108.csv
timestamp,sim_time,physics_step,control_step,imu_angle_roll,imu_angle_pitch,imu_angle_yaw,imu_angular_velocity_roll,imu_angular_velocity_pitch,imu_angular_velocity_yaw,imu_acc_x,imu_acc_y,imu_acc_z,fl_joint1_pos,fl_joint1_vel,fl_joint1_torque,fl_joint2_pos,fl_joint2_vel,fl_joint2_torque,fl_joint3_pos,fl_joint3_vel,fl_joint3_torque,fr_joint1_pos,fr_joint1_vel,fr_joint1_torque,fr_joint2_pos,fr_joint2_vel,fr_joint2_torque,fr_joint3_pos,fr_joint3_vel,fr_joint3_torque,hl_joint1_pos,hl_joint1_vel,hl_joint1_torque,hl_joint2_pos,hl_joint2_vel,hl_joint2_torque,hl_joint3_pos,hl_joint3_vel,hl_joint3_torque,hr_joint1_pos,hr_joint1_vel,hr_joint1_torque,hr_joint2_pos,hr_joint2_vel,hr_joint2_torque,hr_joint3_pos,hr_joint3_vel,hr_joint3_torque,fl_force_x,fl_force_y,fl_force_z,fr_force_x,fr_force_y,fr_force_z,hl_force_x,hl_force_y,hl_force_z,hr_force_x,hr_force_y,hr_force_z,fl_hip_action,fl_thigh_action,fl_calf_action,fr_hip_action,fr_thigh_action,fr_calf_action,hl_hip_action,hl_thigh_action,hl_calf_action,hr_hip_action,hr_thigh_action,hr_calf_action
2025-07-21 16:01:08.096,0.0,0,0,0.15962735,-0.16976583,0.15928487,0.011585272,-0.03122566,0.008866406,-0.024181351,-0.037056625,-0.007905686,0.0,0.0,0.0,0.0,0.5,0.0,0.0,-0.0071386024,-0.0041039316,-0.0088500185,-0.008499091,-0.009102587,-0.0007835534,0.005169497,-0.0065980046,-0.009887077,-0.005500414,0.0062647676,0.009398277,0.04640427,-0.06361732,-0.01211362,-0.00429399,0.06430317,-0.013614201,-0.07499791,0.050509226,0.05261176,0.024534574,0.010504558,0.067026496,0.0,0.0,0.0,0.0,0.0,0.0,0.0,0.0,0.0,0.0,0.0,0.0,-1.0,1.0,-1.0,1.0,-1.0,1.0,-1.0,-1.0,1.0,0.50286543,-1.0,-1.0
2025-07-21 16:01:08.108,0.02,20,1,0.03013736,0.052450497,-0.037224762,0.09385385,-0.0007273022,-0.055151034,0.021013208,0.021522878,-0.043457154,0.0,0.0,0.0,0.0,0.5,0.0,0.0,-0.024779268,0.02933102,-0.038514663,0.014498105,-0.03454631,0.017434964,-0.025033379,-0.0435376,0.023812382,0.008053939,-0.052958243,-0.033527017,-0.088316396,0.19406821,-0.048039906,0.02122958,-0.130374,0.08807238,-0.029537423,-0.16313224,0.051688552,0.07140559,-0.2572657,-0.013093049,-1.0,1.0,-1.0,1.0,-1.0,1.0,-1.0,-1.0,1.0,0.50286543,-1.0,-1.0,1.0,1.0,-1.0,1.0,1.0,1.0,-1.0,-1.0,1.0,-1.0,1.0,-1.0
2025-07-21 16:01:08.127,0.04,40,2,0.08322599,-0.039951153,0.037035294,0.034258578,-0.05511753,-0.02144057,-0.0063325865,-0.012372087,-0.047056094,0.0,0.0,0.0,0.0,0.5,0.0,0.0,-0.01048859,0.10034698,-0.06006813,0.032132443,-0.03141038,0.030279232,-0.033666942,-0.07683152,0.049861077,-0.008349131,-0.05556862,-0.04568167,0.0770225,0.09473963,-0.040497452,0.0906189,0.098100126,-0.0061925966,-0.10581358,-0.098929696,-0.018855402,-0.13670667,0.13931745,-0.10341205,1.0,1.0,-1.0,1.0,1.0,1.0,-1.0,-1.0,1.0,-1.0,1.0,-1.0,1.0,-0.16543198,-1.0,1.0,-1.0,1.0,-1.0,-1.0,1.0,0.51035845,1.0,-1.0
2025-07-21 16:01:08.147,0.06,60,3,-0.20865412,0.089822255,0.15456499,0.17856647,0.24159291,-0.015614003,-0.046259914,0.019204257,0.03051007,0.0,0.0,0.0,0.0,0.5,0.0,0.0,0.022608614,0.09500036,-0.08330008,0.036191758,-0.047611233,0.052083056,-0.047755256,-0.121569,0.076766156,0.008665815,0.019471405,-0.06437739,0.06845997,-0.13672715,-0.0689925,0.09373711,-0.028870106,0.002932544,0.022319175,-0.054609343,-0.023435637,-0.020156775,0.22373174,-0.07679403,1.0,-0.16543198,-1.0,1.0,-1.0,1.0,-1.0,-1.0,1.0,0.51035845,1.0,-1.0,1.0,0.66418844,-1.0,1.0,1.0,1.0,-1.0,-1.0,1.0,-0.5939431,-0.45412406,-1.0
2025-07-21 16:01:08.171,0.08,80,4,-0.34632835,0.018150901,-0.09173613,0.036813457,0.30183712,-0.077490576,0.010800321,0.033902418,-0.030337995,0.0,0.0,0.0,0.0,0.5,0.0,0.0,0.047338136,0.107299276,-0.09156742,0.052551985,-0.05906683,0.06932138,-0.06081809,-0.1706443,0.090567194,-0.0018763207,0.025357436,-0.07941909,0.058929272,0.11412452,-0.10144682,0.09443598,-0.07527876,0.00828046,-0.0076988568,-0.15389964,-0.026860684,-0.077930465,-0.089895666,-0.04149748,1.0,0.66418844,-1.0,1.0,1.0,1.0,-1.0,-1.0,1.0,-0.5939431,-0.45412406,-1.0,1.0,-1.0,-1.0,1.0,1.0,1.0,-1.0,-0.5786712,1.0,0.32482994,1.0,-1.0
2025-07-21 16:01:08.188,0.1,100,5,-0.09518317,-0.1430965,0.13130054,-0.045596357,-0.05078504,0.062011547,-0.016614484,-0.018812126,-0.006431427,0.0,0.0,0.0,0.0,0.5,0.0,0.0,0.081555344,0.08249445,-0.097159326,0.06251567,-0.028119372,0.067768276,-0.056460667,-0.1763159,0.09214423,0.0019936487,0.04286318,-0.095363244,0.06545393,-0.15219902,-0.048641827,-0.0410082,0.0245,-0.0091653,0.06802149,0.0323925,0.0073975124,0.069954395,0.20898515,-0.012251723,1.0,-1.0,-1.0,1.0,1.0,1.0,-1.0,-0.5786712,1.0,0.32482994,1.0,-1.0,1.0,1.0,-1.0,1.0,1.0,1.0,-1.0,-1.0,1.0,0.73797596,-1.0,-1.0
2025-07-21 16:01:08.208,0.12000000000000001,120,6,-0.2163264,-0.0148929665,0.16386892,0.07307701,0.17313413,0.036460344,-0.027347604,-0.03446756,0.04628032,0.0,0.0,0.0,0.0,0.5,0.0,0.0,0.08017391,0.09134262,-0.1120017,0.06870221,0.008651821,0.059519812,-0.07964802,-0.20629394,0.10073005,0.015897745,0.046488427,-0.097949445,0.0026766197,0.037200116,0.0044394787,0.03132968,0.13919155,0.03426937,-0.029530564,-0.10902841,0.07603211,0.01717239,-0.064466655,-0.016944604,1.0,1.0,-1.0,1.0,1.0,1.0,-1.0,-1.0,1.0,0.73797596,-1.0,-1.0,1.0,-1.0,-1.0,1.0,-1.0,1.0,-1.0,0.04009834,1.0,-0.61032444,-0.5093326,-1.0
2025-07-21 16:01:08.228,0.14,140,7,-0.25898466,0.33336315,0.27425972,-0.062568314,0.08751266,-0.08268279,-0.041114807,0.02286518,0.0315517,0.0,0.0,0.0,0.0,0.5,0.0,0.0,0.109341,0.06927859,-0.10656395,0.09133252,0.004473714,0.08646427,-0.087621555,-0.1951787,0.11469982,0.011467743,0.0078058015,-0.111037485,0.10434967,-0.09664356,-0.08023409,0.014052529,-0.01386052,0.0016766916,-0.1013651,0.047703926,-0.008508364,-0.026873851,-0.08919686,0.00077105296,1.0,-1.0,-1.0,1.0,-1.0,1.0,-1.0,0.04009834,1.0,-0.61032444,-0.5093326,-1.0,0.94414306,-1.0,-1.0,1.0,1.0,1.0,-1.0,-1.0,1.0,-1.0,1.0,-1.0
2025-07-21 16:01:08.248,0.16,160,8,-0.023767762,0.0016541057,0.061549176,0.01185192,0.0441718,0.081253156,-0.0101655815,0.0025976046,0.04382401,0.0,0.0,0.0,0.0,0.5,0.0,0.0,0.109642655,-0.011044515,-0.12419087,0.08046016,0.03004451,0.08707333,-0.0913881,-0.18706977,0.10767064,-0.028003313,0.0274845,-0.1277467,0.0691278,-0.15429142,-0.018184306,0.079407424,0.08991584,0.054320734,0.056194868,0.028066227,-0.042879157,-0.05671252,0.22607102,-0.072726704,0.94414306,-1.0,-1.0,1.0,1.0,1.0,-1.0,-1.0,1.0,-1.0,1.0,-1.0,1.0,1.0,0.441768,1.0,-0.7395614,1.0,-1.0,-1.0,1.0,1.0,-1.0,-1.0
2025-07-21 16:01:08.270,0.18,180,9,-0.32138836,0.05832272,0.31824356,0.16957678,0.303505,0.05717839,-0.10479725,-0.002096127,0.03953777,0.0,0.0,0.0,0.0,0.5,0.0,0.0,0.13147305,-0.030890217,-0.096135795,0.106365494,0.033595853,0.09737078,-0.10118474,-0.21328741,0.12678218,-0.0010943471,0.01719466,-0.12460361,-0.00869888,0.050159555,0.0486406,-0.015215043,-0.100167744,-0.03682228,-0.05719119,-0.11485789,0.033974078,0.1503294,-0.18864396,-0.07606817,1.0,1.0,0.441768,1.0,-0.7395614,1.0,-1.0,-1.0,1.0,1.0,-1.0,-1.0,-0.59101987,0.5504854,-1.0,1.0,1.0,1.0,-1.0,1.0,1.0,-1.0,1.0,-1.0
2025-07-21 16:01:08.288,0.19999999999999998,200,10,0.19045071,0.38939416,0.17743146,-0.1811875,0.0330402,0.045769982,-0.0770925,-0.051375695,-0.014193214,0.0,0.0,0.0,0.0,0.5,0.0,0.0,0.0798782,0.003815324,-0.10125621,0.10553848,0.05629461,0.10686817,-0.112271294,-0.20619062,0.11770821,-0.020425415,0.030787196,-0.13434504,-0.076377966,0.101883136,-0.04945784,-0.04716941,0.05467742,-0.05016137,-0.08790305,0.1164189,0.029168671,-0.020674225,0.16924794,0.042169694,-0.59101987,0.5504854,-1.0,1.0,1.0,1.0,-1.0,1.0,1.0,-1.0,1.0,-1.0,0.9078726,-1.0,1.0,1.0,1.0,1.0,-1.0,-1.0,1.0,-1.0,-0.8256902,-1.0
2025-07-21 16:01:08.473,0.21999999999999997,220,11,-0.12354148,0.13815632,0.08419165,0.055608407,0.15100531,0.0759344,-0.08905154,-0.00858923,0.024618693,0.0,0.0,0.0,0.0,0.5,0.0,0.0,0.09781961,-0.0076969382,-0.060562447,0.11813975,0.11166046,0.09576947,-0.111103944,-0.19477583,0.12883396,-0.04607575,0.012053869,-0.1402481,-0.017122272,-0.13081951,0.08921071,0.074763715,0.094854705,0.043636296,-0.055454176,-0.09342142,0.08308326,-0.104954384,-0.20009717,-0.01875099,0.9078726,-1.0,1.0,1.0,1.0,1.0,-1.0,-1.0,1.0,-1.0,-0.8256902,-1.0,-1.0,1.0,1.0,0.8845367,-0.6308547,0.12756664,-1.0,1.0,1.0,-0.49051082,1.0,1.0
2025-07-21 16:01:08.488,0.23999999999999996,240,12,0.23570025,0.07175719,-0.030917386,-0.07050997,-0.17846674,-0.03387827,-0.09316892,-0.06406727,0.007878825,0.0,0.0,0.0,0.0,0.5,0.0,0.0,0.06371553,-0.039070945,-0.028297042,0.10890299,0.14005984,0.0965161,-0.11679312,-0.17359444,0.12184535,-0.0616764,0.026962478,-0.091495305,-0.10223339,0.050895452,0.08315832,-0.045961253,0.069240324,0.0068619396,-0.03500617,0.09427185,0.013282413,0.029874722,0.09968079,0.124386236,-1.0,1.0,1.0,0.8845367,-0.6308547,0.12756664,-1.0,1.0,1.0,-0.49051082,1.0,1.0,-1.0,-0.6016159,1.0,0.16145825,-1.0,1.0,0.2601612,-1.0,1.0,1.0,-1.0,1.0
2025-07-21 16:01:08.508,0.25999999999999995,260,13,-0.26703486,0.17556348,0.26651496,0.26029497,0.0030326024,0.19474728,-0.05797909,-0.046424095,-0.029644528,0.0,0.0,0.0,0.0,0.5,0.0,0.0,0.039873876,-0.045644205,0.010103503,0.1023736,0.11745844,0.09587819,-0.101900145,-0.16801576,0.13311464,-0.020877855,0.005680893,-0.042968716,-0.0022927306,-0.10272038,0.030013146,-0.027109327,-0.012587718,-0.039168917,0.12330946,-0.13375992,0.05930829,0.09853733,-0.19051361,0.0807272,-1.0,-0.6016159,1.0,0.16145825,-1.0,1.0,0.2601612,-1.0,1.0,1.0,-1.0,1.0,1.0,1.0,1.0,-0.19655472,1.0,-1.0,-1.0,1.0,1.0,1.0,-1.0,1.0
2025-07-21 16:01:08.761,0.27999999999999997,280,14,0.040116616,0.25984436,-0.061603863,0.060923234,-0.18204436,-0.0364435,-0.094632685,0.017519271,0.0009551188,0.0,0.0,0.0,0.0,0.5,0.0,0.0,0.051760398,-0.028086046,0.026771935,0.075581856,0.13864398,0.06253147,-0.11800094,-0.1675738,0.12682396,0.0038969582,-0.06457772,-0.009912443,0.0798451,0.14194582,0.020460192,-0.09953674,0.07023548,-0.11936984,-0.014952211,0.08955001,0.027257048,0.009675518,-0.21487209,0.06816087,1.0,1.0,1.0,-0.19655472,1.0,-1.0,-1.0,1.0,1.0,1.0,-1.0,1.0,-1.0,-1.0,1.0,-1.0,-1.0,-0.011503518,-1.0,-1.0,1.0,1.0,-1.0,-1.0
2025-07-21 16:01:08.806,0.3,300,15,-0.14220466,-0.10785211,0.14915688,0.2930307,-0.3771718,0.20707935,-0.037982825,0.04102895,0.022069681,0.0,0.0,0.0,0.0,0.5,0.0,0.0,0.009892791,-0.04877173,0.046277564,0.029895114,0.16021287,0.035226572,-0.13299169,-0.16731253,0.13464434,0.037834834,-0.12807538,-0.038432572,-0.14234821,-0.029238226,0.043886725,-0.14863902,0.018569337,0.05375626,-0.07268232,-0.10922564,-0.013398293,0.13817365,-0.09565586,-0.08688574,-1.0,-1.0,1.0,-1.0,-1.0,-0.011503518,-1.0,-1.0,1.0,1.0,-1.0,-1.0,0.14220987,1.0,-1.0,1.0,-1.0,1.0,-1.0,1.0,1.0,1.0,1.0,1.0
2025-07-21 16:01:08.827,0.32,320,16,0.22255453,0.01936246,-0.051896714,-0.3056985,0.17032263,-0.08320222,-0.030794393,0.022810621,0.009271346,0.0,0.0,0.0,0.0,0.5,0.0,0.0,0.009913767,-0.010260824,-0.0014108134,0.03595034,0.14778087,0.06409378,-0.13055314,-0.13757615,0.14164218,0.07758168,-0.13911897,0.0042698206,-0.04901493,0.115172416,-0.12295534,-0.01710503,-0.10297261,0.031254195,-0.039437756,0.15898377,-0.004820847,0.017343834,0.1363894,0.12961598,0.14220987,1.0,-1.0,1.0,-1.0,1.0,-1.0,1.0,1.0,1.0,1.0,1.0,0.9499357,-0.2744432,-1.0,1.0,-0.38467506,1.0,-1.0,-1.0,1.0,-1.0,1.0,-1.0
2025-07-21 16:01:08.847,0.34,340,17,-0.03034182,0.20035093,0.12015513,-0.025637867,0.17404783,-0.07117491,-0.02800596,-0.032134276,0.047006756,0.0,0.0,0.0,0.0,0.5,0.0,0.0,0.043342926,-0.0073074135,-0.017647553,0.05699202,0.14111152,0.09057579,-0.14432092,-0.13024731,0.13398162,0.051851835,-0.04642068,-0.031307694,0.11486786,-0.13045433,-0.076356694,0.02691495,-0.056040995,-0.036612015,-0.048353553,-0.0041316873,0.0011796146,-0.095141,0.2237189,-0.044490907,0.9499357,-0.2744432,-1.0,1.0,-0.38467506,1.0,-1.0,-1.0,1.0,-1.0,1.0,-1.0,1.0,0.005480524,-1.0,1.0,1.0,1.0,-1.0,-1.0,1.0,-1.0,1.0,-1.0
2025-07-21 16:01:08.869,0.36000000000000004,360,18,-0.13660501,0.13301884,0.01844212,0.05147205,0.15245251,0.0035728223,-0.0649746,-0.032669935,-0.023454504,0.0,0.0,0.0,0.0,0.5,0.0,0.0,0.06764516,0.0022414983,-0.051637106,0.07204651,0.15877749,0.07846765,-0.13228908,-0.15359358,0.14424495,-0.0020263046,0.035770446,-0.051145524,0.0721551,0.030428797,0.010883267,0.0302198,0.066013604,0.010537229,-0.036695164,-0.10372165,0.020129556,-0.108141035,0.121562116,0.015749855,1.0,0.005480524,-1.0,1.0,1.0,1.0,-1.0,-1.0,1.0,-1.0,1.0,-1.0,1.0,-1.0,-0.7495239,1.0,0.00911174,1.0,-1.0,1.0,1.0,0.0027339607,-1.0,-1.0
2025-07-21 16:01:08.887,0.38000000000000006,380,19,-0.3598469,0.45891553,-0.17170653,0.037675552,0.29787195,-0.010641193,-0.12388539,0.0294196,-0.0142033035,0.0,0.0,0.0,0.0,0.5,0.0,0.0,0.07231181,-0.04659929,-0.04634605,0.08788606,0.15217817,0.085238405,-0.1432249,-0.13450786,0.13976689,0.0058947243,0.050588273,-0.066762336,0.06755078,-0.16122544,-0.08272061,0.08209446,0.02453309,-0.004508495,-0.01993232,0.13881932,0.016339444,0.05399564,-0.18781525,-0.004831727,1.0,-1.0,-0.7495239,1.0,0.00911174,1.0,-1.0,1.0,1.0,0.0027339607,-1.0,-1.0,-1.0,1.0,1.0,1.0,1.0,1.0,-1.0,-1.0,1.0,-1.0,0.6581068,-1.0
2025-07-21 16:01:08.907,0.4000000000000001,400,20,-0.10013772,0.26617268,0.11149743,-0.08422128,-0.12038566,0.1010467,-0.117243364,0.0122328885,0.0040489202,0.0,0.0,0.0,0.0,0.5,0.0,0.0,0.046054184,-0.065731734,-0.03589372,0.08486268,0.1814421,0.092048645,-0.14715606,-0.120602675,0.1523644,-0.029291619,0.05621412,-0.08412737,-0.15028383,-0.037476826,-0.007681802,-0.012555326,0.115682885,0.035568293,0.035251502,-0.016170492,-0.0135605,-0.07945637,0.06717645,-0.09132632,-1.0,1.0,1.0,1.0,1.0,1.0,-1.0,-1.0,1.0,-1.0,0.6581068,-1.0,1.0,1.0,0.071841,1.0,0.90971553,1.0,-1.0,-1.0,1.0,-0.58553183,-0.7570781,1.0
2025-07-21 16:01:08.927,0.4200000000000001,420,21,0.12471087,0.17208502,-0.041693576,0.068659574,-0.025079297,0.052479763,-0.10833394,-0.007023527,-0.019291611,0.0,0.0,0.0,0.0,0.5,0.0,0.0,0.072005,-0.04770264,-0.028573722,0.09835681,0.21528623,0.10338737,-0.14187759,-0.14812171,0.15902047,-0.044830274,0.033006173,-0.05029858,0.023853887,0.06532329,-0.029899245,0.05533359,0.13406438,-0.016627463,-0.00021568652,-0.072843194,0.04720151,-0.0064851586,-0.094443455,0.15200895,1.0,1.0,0.071841,1.0,0.90971553,1.0,-1.0,-1.0,1.0,-0.58553183,-0.7570781,1.0,-1.0,0.74392676,1.0,1.0,-1.0,1.0,-1.0,0.48945633,1.0,0.73263204,-1.0,-1.0
2025-07-21 16:01:08.947,0.4400000000000001,440,22,0.033007603,0.2964656,0.15533271,-0.08008391,-0.19408175,-0.13887158,-0.07490813,-0.027816936,0.012716633,0.0,0.0,0.0,0.0,0.5,0.0,0.0,0.048862413,0.0137419915,-0.020255866,0.10312145,0.22257175,0.12260606,-0.15930365,-0.12902495,0.14757754,-0.027295383,-0.04289873,-0.0677008,-0.112500064,0.13618395,0.029933074,0.01976297,-0.09039557,0.064599484,-0.024630716,0.07094042,0.03749342,0.1323549,-0.17531353,-0.094165534,-1.0,0.74392676,1.0,1.0,-1.0,1.0,-1.0,0.48945633,1.0,0.73263204,-1.0,-1.0,-1.0,-1.0,0.5070662,1.0,1.0,1.0,-1.0,-1.0,1.0,1.0,1.0,1.0
2025-07-21 16:01:08.967,0.46000000000000013,460,23,0.07947472,0.19635831,0.029070703,0.08875844,-0.30231935,0.12852414,-0.0699591,0.008227504,0.026528127,0.0,0.0,0.0,0.0,0.5,0.0,0.0,0.012864855,0.022284655,-0.00078932755,0.11740827,0.24526335,0.12068308,-0.16157864,-0.10392542,0.14272462,0.018862713,-0.057072937,-0.027006727,-0.114318855,-0.0068959333,0.05857621,0.0253322,0.069466576,0.0077269953,0.05258047,-0.038152963,0.055036888,0.07570435,0.16192919,0.12366621,-1.0,-1.0,0.5070662,1.0,1.0,1.0,-1.0,-1.0,1.0,1.0,1.0,1.0,-1.0,-1.0,1.0,-0.5154577,-1.0,-1.0,-1.0,1.0,1.0,1.0,-1.0,1.0
2025-07-21 16:01:08.990,0.48000000000000015,480,24,-0.06287135,-0.26443222,0.10185597,0.2718131,-0.39270434,0.07321434,-0.06593876,0.021050194,0.013324946,0.0,0.0,0.0,0.0,0.5,0.0,0.0,-0.010218762,-0.0029371418,0.029828694,0.072715774,0.22029673,0.074230745,-0.16217272,-0.06877732,0.13561048,0.04240509,-0.09053848,-0.00095832726,-0.05400437,-0.06160616,0.06389505,-0.10221417,-0.039098546,-0.17356949,-0.02391195,0.10794669,0.052701287,0.016342346,-0.21129213,0.0653707,-1.0,-1.0,1.0,-0.5154577,-1.0,-1.0,-1.0,1.0,1.0,1.0,-1.0,1.0,-1.0,1.0,1.0,0.2073927,-0.3587089,-1.0,1.0,1.0,-1.0,1.0,-1.0,1.0
2025-07-21 16:01:09.007,0.5000000000000001,500,25,-0.023628041,-0.0072611924,-0.13194446,-0.006559507,-0.18650816,-0.0042998632,-0.06948335,0.044001002,-0.035767484,0.0,0.0,0.0,0.0,0.5,0.0,0.0,-0.036992654,-0.013207383,0.05384034,0.06664807,0.19731528,0.032357976,-0.11634677,0.006419419,0.09352461,0.066187166,-0.13777137,0.035492584,0.011092426,0.0048274887,0.0897103,0.0050511016,-0.0555815,-0.11935507,0.1208338,0.265919,-0.10237927,0.10746453,-0.068652615,0.09698754,-1.0,1.0,1.0,0.2073927,-0.3587089,-1.0,1.0,1.0,-1.0,1.0,-1.0,1.0,-1.0,1.0,1.0,-1.0,0.09180514,-1.0,1.0,-1.0,0.72895133,1.0,-0.6040471,1.0
2025-07-21 16:01:09.027,0.5200000000000001,520,26,-0.32742664,-0.06907966,-0.21042094,0.06046024,-0.20920134,4.09604e-05,-0.06399224,0.0849913,0.021386731,0.0,0.0,0.0,0.0,0.5,0.0,0.0,-0.059592996,0.037425507,0.057698335,0.032514237,0.20043707,0.0139054535,-0.06759615,0.014667257,0.09099973,0.0791785,-0.15652658,0.058482394,0.016326373,0.16067314,0.05606651,-0.11853558,0.01675941,-0.09673147,0.16941303,-0.13928509,-0.05546008,-0.07521664,-0.03188589,-0.009024898,-1.0,1.0,1.0,-1.0,0.09180514,-1.0,1.0,-1.0,0.72895133,1.0,-0.6040471,1.0,-1.0,0.74735713,1.0,-0.19933754,-0.47228512,-1.0,-1.0,-0.11665204,1.0,1.0,1.0,1.0
2025-07-21 16:01:09.050,0.5400000000000001,540,27,-0.2459171,-0.17473537,0.07764276,-0.12199636,-0.13085866,-0.091804974,0.027164143,0.06334749,-0.040063694,0.0,0.0,0.0,0.0,0.5,0.0,0.0,-0.06296386,0.08701693,0.06463871,0.013987517,0.19796109,-0.023106435,-0.086149685,0.009241603,0.11083511,0.0954212,-0.15035607,0.060591582,-0.05438599,0.09112021,0.0392744,-0.07637015,-0.10888445,-0.017129308,-0.015809478,-0.046650227,0.037118062,0.036667943,0.13281627,0.0033411921,-1.0,0.74735713,1.0,-0.19933754,-0.47228512,-1.0,-1.0,-0.11665204,1.0,1.0,1.0,1.0,-1.0,1.0,1.0,-0.46644166,0.07054446,-0.22802287,-0.23460266,-0.9701971,-1.0,1.0,-1.0,1.0
2025-07-21 16:01:09.071,0.5600000000000002,560,28,-0.1595102,0.009054966,-0.21718293,-0.0029254619,0.09199051,-0.16718948,-0.010823263,0.053995624,0.038966004,0.0,0.0,0.0,0.0,0.5,0.0,0.0,-0.071778275,0.14783224,0.0786092,-0.0076806317,0.152186,-0.014404578,-0.07626458,-0.053967506,0.073237486,0.098801225,-0.13943255,0.06947558,0.0070956214,0.13134578,0.069937594,0.015596933,-0.070785776,-0.023470143,-0.0042210193,-0.24405009,-0.15028724,0.049322326,-0.024367027,0.0123818,-1.0,1.0,1.0,-0.46644166,0.07054446,-0.22802287,-0.23460266,-0.9701971,-1.0,1.0,-1.0,1.0,-1.0,-1.0,1.0,-1.0,-0.8317294,-1.0,1.0,1.0,-1.0,1.0,1.0,1.0
2025-07-21 16:01:09.088,0.5800000000000002,580,29,-0.1273947,-0.1896026,-0.20491718,-0.10342263,0.035600998,0.015462503,0.038528524,-0.008044947,0.025515504,0.0,0.0,0.0,0.0,0.5,0.0,0.0,-0.075951956,0.16058394,0.09766211,-0.03387464,0.09572659,-0.033315603,-0.035878047,-0.06779029,0.02780737,0.09181681,-0.12054617,0.08037222,0.0068409913,-0.065623395,-0.011381814,-0.025581438,-0.25942066,-0.07465587,0.024803307,0.08387642,-0.035649408,-0.030753624,0.03851399,0.034159243,-1.0,-1.0,1.0,-1.0,-0.8317294,-1.0,1.0,1.0,-1.0,1.0,1.0,1.0,-1.0,0.30364046,1.0,0.082021445,1.0,-0.5643403,1.0,1.0,0.6202946,1.0,-1.0,1.0
2025-07-21 16:01:09.107,0.6000000000000002,600,30,-0.08261594,-0.08497338,-0.19360675,0.03710469,0.011753401,0.016458891,0.00019554538,0.07493104,-0.02621274,0.0,0.0,0.0,0.0,0.5,0.0,0.0,-0.07825282,0.16421776,0.09225068,-0.031804737,0.06375934,-0.04499009,-0.0039022004,0.0034971265,0.03149009,0.10717564,-0.11681792,0.08249321,0.01318807,-0.061214335,0.067068994,0.061277833,0.10508419,-0.058047004,0.042116653,0.18198724,-0.03420007,-0.058286075,-0.058503132,0.0018742257,-1.0,0.30364046,1.0,0.082021445,1.0,-0.5643403,1.0,1.0,0.6202946,1.0,-1.0,1.0,-1.0,1.0,1.0,-1.0,-1.0,-1.0,1.0,-1.0,-1.0,1.0,-1.0,1.0
2025-07-21 16:01:09.127,0.6200000000000002,620,31,-0.1596391,-0.021485882,-0.23221897,0.3058206,0.14487137,-0.07753868,-0.0686979,0.02209818,-0.0460224,0.0,0.0,0.0,0.0,0.5,0.0,0.0,-0.0855554,0.16282499,0.0932606,-0.035396382,0.042845648,-0.07213641,0.014504199,0.022798538,0.013941597,0.112773664,-0.13601547,0.102109484,0.033239804,0.026850546,-0.016483378,-0.040304605,-0.2094233,0.009239948,0.031587236,-0.14264037,-0.070794314,-0.055478025,-0.13900305,0.036007416,-1.0,1.0,1.0,-1.0,-1.0,-1.0,1.0,-1.0,-1.0,1.0,-1.0,1.0,-1.0,-1.0,1.0,0.016437352,-0.2842082,-0.020258725,1.0,0.10569039,1.0,1.0,1.0,1.0
2025-07-21 16:01:09.149,0.6400000000000002,640,32,0.11111462,0.16742647,-0.18865559,0.06930531,0.08571012,0.012001848,-0.03365953,0.02828091,0.04567763,0.0,0.0,0.0,0.0,0.5,0.0,0.0,-0.09461161,0.18840268,0.10304333,-0.03790295,0.00038925072,-0.056681328,0.050003983,0.009410094,0.03537708,0.119934425,-0.15165403,0.097982444,-0.006371206,-0.043945212,0.005155585,-0.051412318,-0.038007353,-0.029081745,0.07563755,-0.010772719,0.050104756,-0.016673516,0.12774102,0.022473875,-1.0,-1.0,1.0,0.016437352,-0.2842082,-0.020258725,1.0,0.10569039,1.0,1.0,1.0,1.0,-1.0,-1.0,1.0,0.8331997,1.0,-1.0,-1.0,-1.0,0.3186133,1.0,-1.0,1.0
2025-07-21 16:01:09.170,0.6600000000000003,660,33,0.119743794,-0.22061746,0.17456502,0.2108018,0.19073325,0.1059983,-0.03194492,0.090694614,-0.030426536,0.0,0.0,0.0,0.0,0.5,0.0,0.0,-0.10480624,0.16883743,0.10412176,-0.015824364,0.019585112,-0.08252992,0.014157757,-0.021436641,0.04161067,0.1137933,-0.15561177,0.10989893,0.04246712,-0.04175232,0.07976841,0.0017171288,0.12742196,-0.023352731,-0.067195244,-0.25033537,-0.03745317,0.07148678,-0.12025908,-0.024081623,-1.0,-1.0,1.0,0.8331997,1.0,-1.0,-1.0,-1.0,0.3186133,1.0,-1.0,1.0,-1.0,0.1448955,1.0,-1.0,0.15733346,1.0,1.0,1.0,-1.0,0.9639784,-1.0,1.0
2025-07-21 16:01:09.188,0.6800000000000003,680,34,-0.11495109,0.05254736,0.17843539,0.023743605,0.0033375062,0.10175007,-0.04536548,0.03380367,-0.0143871205,0.0,0.0,0.0,0.0,0.5,0.0,0.0,-0.11179531,0.1380454,0.114322014,-0.026394216,0.026858909,-0.056111958,0.026789237,-0.034103848,0.0045464495,0.12486179,-0.19183423,0.1198325,-0.079011716,-0.0056915083,-0.020343337,-0.08782261,-0.048793845,0.16518843,-0.011494564,0.07735119,-0.0065804347,-0.024697507,-0.15016687,-0.016027352,-1.0,0.1448955,1.0,-1.0,0.15733346,1.0,1.0,1.0,-1.0,0.9639784,-1.0,1.0,-1.0,0.58609104,1.0,0.9521155,0.2925919,-1.0,1.0,0.24923244,-0.7475097,-1.0,1.0,1.0
2025-07-21 16:01:09.208,0.7000000000000003,700,35,-0.08896325,0.011658115,0.0126690995,-0.100174405,-0.12627287,0.0059600165,-0.010876191,0.06306448,0.0013546305,0.0,0.0,0.0,0.0,0.5,0.0,0.0,-0.10682578,0.16381077,0.12719959,-0.01012163,0.05859592,-0.08465075,0.06302989,-0.009461212,-0.02641706,0.09545657,-0.17065291,0.11549996,0.03748202,-0.00026000952,0.023888052,0.102376945,-0.002585264,0.022920493,0.01930167,-0.0027468235,-0.051853552,-0.07434994,0.1896258,-0.045681443,-1.0,0.58609104,1.0,0.9521155,0.2925919,-1.0,1.0,0.24923244,-0.7475097,-1.0,1.0,1.0,-1.0,-1.0,1.0,-1.0,-0.49999174,-1.0,1.0,0.5238763,-1.0,1.0,-1.0,1.0
2025-07-21 16:01:09.228,0.7200000000000003,720,36,0.005674199,0.2043396,0.02987464,0.12541535,0.16749947,0.08652997,-0.014263823,0.023988863,-0.018895442,0.0,0.0,0.0,0.0,0.5,0.0,0.0,-0.11589866,0.15139632,0.12892863,-0.030639986,0.017031288,-0.08313925,0.0692598,0.030633228,-0.033395525,0.096271455,-0.18368274,0.12374255,-0.00016324369,-0.07534752,0.061476685,-0.039641753,-0.06557171,-0.037606336,0.09181617,0.083203346,0.0028079564,-0.009180185,-0.057139903,0.052044008,-1.0,-1.0,1.0,-1.0,-0.49999174,-1.0,1.0,0.5238763,-1.0,1.0,-1.0,1.0,-1.0,-1.0,1.0,-1.0,0.352138,-0.6625146,1.0,0.47178063,-0.6026733,-0.535795,1.0,1.0
2025-07-21 16:01:09.254,0.7400000000000003,740,37,-0.14944632,-0.044479966,-0.10958391,0.1728023,-0.13914974,0.19613431,-0.048851233,0.045427226,0.024451112,0.0,0.0,0.0,0.0,0.5,0.0,0.0,-0.13450745,0.14492315,0.13990717,-0.05108161,0.015721194,-0.084148325,0.09300687,0.04895318,-0.056128882,0.071066074,-0.16282351,0.13355964,-0.08568513,-0.078676745,-0.026227962,0.013084722,0.10888464,0.018803502,0.06537377,0.03777426,0.011615425,-0.017819993,0.19387901,0.03358572,-1.0,-1.0,1.0,-1.0,0.352138,-0.6625146,1.0,0.47178063,-0.6026733,-0.535795,1.0,1.0,-1.0,1.0,1.0,-0.64122903,1.0,-1.0,1.0,0.20047858,-0.94111896,1.0,-1.0,1.0
2025-07-21 16:01:09.270,0.7600000000000003,760,38,0.2943585,0.18284702,-0.2850552,0.08549422,-0.09358785,0.13134262,-0.10316969,0.03390301,-0.022171203,0.0,0.0,0.0,0.0,0.5,0.0,0.0,-0.14234142,0.14682862,0.12113249,-0.06654322,0.073042445,-0.102421016,0.10543898,0.07203274,-0.07473703,0.07833367,-0.17071396,0.12976089,0.0077917646,0.1740651,-0.050377022,-0.007986268,0.099260844,-0.045792833,0.060900297,-0.046937503,-0.011043275,0.04049251,-0.15027647,0.02411215,-1.0,1.0,1.0,-0.64122903,1.0,-1.0,1.0,0.20047858,-0.94111896,1.0,-1.0,1.0,-1.0,-1.0,1.0,-1.0,-1.0,-0.8024998,1.0,0.044848174,-0.96571517,0.04089804,0.50086445,0.8422555
2025-07-21 16:01:09.288,0.7800000000000004,780,39,0.11066138,-0.18451257,-0.05119881,0.020127865,-0.14546019,0.032638133,-0.028615732,0.08055189,0.009362318,0.0,0.0,0.0,0.0,0.5,0.0,0.0,-0.14909711,0.16357929,0.14318891,-0.08081361,0.08341424,-0.104329735,0.11457287,0.05039082,-0.08215032,0.0687152,-0.16140506,0.13843326,0.030876102,-0.04335327,-0.017725779,0.016145138,-0.09918062,0.022270387,0.006390042,-0.055286296,-0.04015428,-0.04094825,0.105941564,-0.04158472,-1.0,-1.0,1.0,-1.0,-1.0,-0.8024998,1.0,0.044848174,-0.96571517,0.04089804,0.50086445,0.8422555,-1.0,-1.0,1.0,0.8922947,-0.5994028,1.0,1.0,0.23113528,0.48997712,1.0,0.26863495,1.0
2025-07-21 16:01:09.308,0.8000000000000004,800,40,0.2068781,0.04743395,-0.10659494,-0.073940754,0.09577783,0.09187334,-0.06760421,0.09870334,-0.018444177,0.0,0.0,0.0,0.0,0.5,0.0,0.0,-0.15075245,0.1729422,0.14577678,-0.056820635,0.024465974,-0.07036286,0.12317845,0.06135544,-0.060457733,0.07837832,-0.12496728,0.12012927,0.06240528,0.057309143,-0.023232201,0.026622938,-0.14368233,0.14860679,0.014119965,-0.02964886,0.03202212,0.10946362,0.02599918,0.019057278,-1.0,-1.0,1.0,0.8922947,-0.5994028,1.0,1.0,0.23113528,0.48997712,1.0,0.26863495,1.0,-1.0,-1.0,1.0,1.0,-0.4066035,1.0,-1.0,-1.0,1.0,-1.0,-0.4558908,-1.0
2025-07-21 16:01:09.347,0.8200000000000004,820,41,-0.20447999,-0.14474586,0.17675442,0.008632262,0.14189681,0.038197745,-0.025393011,0.07068425,-0.017955327,0.0,0.0,0.0,0.0,0.5,0.0,0.0,-0.13365519,0.15478425,0.14203142,-0.0512288,-0.0047952677,-0.039627496,0.07711956,0.018848589,-0.008543657,0.054646835,-0.11960694,0.08604924,-0.04202811,0.026729818,-0.053682957,0.08762158,-0.06735414,0.024415573,-0.066849664,-0.19442242,0.06582746,-0.06983429,-0.08734401,-0.17801678,-1.0,-1.0,1.0,1.0,-0.4066035,1.0,-1.0,-1.0,1.0,-1.0,-0.4558908,-1.0,0.7321575,1.0,-1.0,1.0,1.0,1.0,-1.0,-0.29014036,1.0,-1.0,1.0,-0.36542097
2025-07-21 16:01:09.432,0.8400000000000004,840,42,-0.09811368,-0.23289694,-0.08262142,-0.5047373,0.2590349,0.034758706,-0.1040364,0.06804468,0.049594223,0.0,0.0,0.0,0.0,0.5,0.0,0.0,-0.091231644,0.19390795,0.09229937,-0.0014093493,-0.0010650108,-0.004453967,0.037486404,-0.010282991,0.015872438,0.012680258,-0.08248283,0.052993238,0.10886724,0.17247021,-0.081024766,0.13895291,0.15112911,0.1090608,-0.15779576,-0.01400899,0.09375174,-0.029985303,0.23829435,-0.0026671072,0.7321575,1.0,-1.0,1.0,1.0,1.0,-1.0,-0.29014036,1.0,-1.0,1.0,-0.36542097,1.0,0.0584411,-1.0,0.3551976,-1.0,1.0,-1.0,-1.0,1.0,1.0,-1.0,1.0
2025-07-21 16:01:09.454,0.8600000000000004,860,43,-0.23444006,-0.17234696,0.00302596,-0.23835053,0.4832007,0.10900271,-0.120928295,-0.012771682,0.017864915,0.0,0.0,0.0,0.0,0.5,0.0,0.0,-0.044663567,0.20680591,0.054776307,0.012318877,0.007905558,0.010316348,-0.0014552963,-0.08459459,0.04439989,0.025619881,-0.06281099,0.06736537,0.15341955,0.023103885,-0.10767499,0.061270803,-0.049589466,0.076255955,-0.079711236,-0.15498382,0.008187221,0.017025646,-0.058054127,0.008158975,1.0,0.0584411,-1.0,0.3551976,-1.0,1.0,-1.0,-1.0,1.0,1.0,-1.0,1.0,1.0,-1.0,-1.0,1.0,-0.41478416,1.0,-1.0,1.0,1.0,1.0,-0.2033223,1.0
2025-07-21 16:01:09.471,0.8800000000000004,880,44,-0.30565667,-0.15454647,-0.2194143,-0.23776756,0.32135656,0.10111708,-0.09460183,-0.0055634477,-0.023929808,0.0,0.0,0.0,0.0,0.5,0.0,0.0,-0.002078887,0.21440634,0.024687018,0.03174894,-0.013915976,0.041504998,-0.017700894,-0.07362592,0.061462224,0.06559295,-0.07537398,0.097035386,0.13932513,0.02126889,-0.06014572,0.10955872,-0.02766056,-0.004161175,-0.02138837,0.11167393,-0.02207363,0.03327809,0.056680575,0.008623934,1.0,-1.0,-1.0,1.0,-0.41478416,1.0,-1.0,1.0,1.0,1.0,-0.2033223,1.0,1.0,0.2205885,-1.0,1.0,1.0,1.0,-1.0,-1.0,1.0,1.0,-1.0,1.0
2025-07-21 16:01:09.491,0.9000000000000005,900,45,-0.53092873,-0.1751703,0.062263712,-0.0093479995,0.09629552,0.13271406,-0.06530048,-0.03275131,0.043624055,0.0,0.0,0.0,0.0,0.5,0.0,0.0,0.010103434,0.20265451,-0.017444324,0.04509162,-0.004369545,0.04468326,-0.028880656,-0.09090069,0.081822805,0.070841484,-0.11486332,0.10706954,0.037786923,-0.10222548,-0.14024545,0.032454584,-0.0075014327,-0.019527873,-0.075117975,-0.02217119,0.08431175,-0.013935092,-0.08504673,0.0061933305,1.0,0.2205885,-1.0,1.0,1.0,1.0,-1.0,-1.0,1.0,1.0,-1.0,1.0,1.0,1.0,-1.0,1.0,1.0,1.0,-1.0,0.66770804,1.0,1.0,-1.0,1.0
2025-07-21 16:01:09.511,0.9200000000000005,920,46,-0.0004534947,-0.0802585,-0.20966312,-0.22904097,-0.028855937,0.025649047,-0.09783013,-0.106529914,0.042502165,0.0,0.0,0.0,0.0,0.5,0.0,0.0,0.052538488,0.22436154,-0.035334073,0.0660849,0.022375192,0.056911413,-0.056963686,-0.05174789,0.076479934,0.08983544,-0.17606124,0.11975272,0.1107602,0.05425915,0.0019883781,-0.007677315,0.15253341,-0.03573679,-0.059754845,0.0641314,0.06562371,0.009546723,-0.10863652,-0.026528105,1.0,1.0,-1.0,1.0,1.0,1.0,-1.0,0.66770804,1.0,1.0,-1.0,1.0,1.0,-1.0,-1.0,1.0,-1.0,1.0,-1.0,-1.0,1.0,1.0,1.0,1.0
2025-07-21 16:01:09.532,0.9400000000000005,940,47,-0.07492186,-0.21775506,-0.0017395791,0.06875932,0.09491204,0.07507737,-0.08169311,-0.04771471,-0.024979291,0.0,0.0,0.0,0.0,0.5,0.0,0.0,0.06516992,0.21560207,-0.06356595,0.060233653,0.043514483,0.08371811,-0.047537018,-0.0398193,0.089384995,0.09779334,-0.16904038,0.11546132,3.128032e-05,-0.042913985,-0.08616619,-0.0046566753,0.0062491097,-0.017408166,-0.08625788,0.0144555895,0.0325628,0.059539065,0.11439745,0.01687634,1.0,-1.0,-1.0,1.0,-1.0,1.0,-1.0,-1.0,1.0,1.0,1.0,1.0,1.0,-0.7080529,-1.0,1.0,-1.0,1.0,-1.0,-0.5506114,1.0,0.7413279,0.159451,-1.0
2025-07-21 16:01:09.553,0.9600000000000005,960,48,-0.46476117,-0.04986092,0.44046742,0.2224612,0.13930158,0.03797729,-0.0713875,-0.0626863,0.0010683618,0.0,0.0,0.0,0.0,0.5,0.0,0.0,0.07044358,0.20251004,-0.07987975,0.067949615,0.034143005,0.0959033,-0.06833851,-0.086776406,0.09681358,0.10183608,-0.1273672,0.075175196,0.013092452,-0.105200045,-0.051921196,-0.0019957654,-0.0836238,0.025943728,0.0020251062,-0.11330345,0.008083548,0.023904355,0.12253733,-0.15682887,1.0,-0.7080529,-1.0,1.0,-1.0,1.0,-1.0,-0.5506114,1.0,0.7413279,0.159451,-1.0,1.0,0.996186,-1.0,1.0,1.0,1.0,-1.0,1.0,1.0,-0.7286862,1.0,-0.88046396
2025-07-21 16:01:09.571,0.9800000000000005,980,49,-0.3144951,0.069659606,0.14490676,-0.1263604,0.08232302,-0.13354129,-0.11469615,-0.1032034,0.032676294,0.0,0.0,0.0,0.0,0.5,0.0,0.0,0.09081145,0.20942429,-0.09751345,0.08381686,0.03197592,0.097121574,-0.083688304,-0.05901338,0.0958752,0.08203471,-0.04731318,0.037731167,0.022998316,0.07043173,-0.074967176,0.018382177,0.16676551,-0.042451702,-0.0025683022,0.052505754,0.055757176,-0.1615854,0.1771465,-0.013631241,1.0,0.996186,-1.0,1.0,1.0,1.0,-1.0,1.0,1.0,-0.7286862,1.0,-0.88046396,1.0,-1.0,-1.0,1.0,1.0,1.0,-1.0,-1.0,1.0,-1.0,1.0,-1.0
2025-07-21 16:01:09.591,1.0000000000000004,1000,50,-0.28891215,0.14418314,0.1332779,0.026512599,-0.015009456,0.087231785,-0.076427355,-0.021077922,-0.024357248,0.0,0.0,0.0,0.0,0.5,0.0,0.0,0.10375729,0.19342,-0.09042019,0.0841772,0.09903162,0.098947085,-0.085967325,-0.049398568,0.10903264,0.042975124,0.032570716,-0.005718473,0.008864483,-0.2469555,-0.082671255,-0.015978402,0.17865106,0.019229962,-0.05714158,-0.08933473,0.083279505,-0.08447911,0.12699056,-0.11235951,1.0,-1.0,-1.0,1.0,1.0,1.0,-1.0,-1.0,1.0,-1.0,1.0,-1.0,1.0,0.8247117,-0.46596324,1.0,-0.17043969,1.0,-1.0,1.0,1.0,0.6260973,-1.0,-1.0
2025-07-21 16:01:09.611,1.0200000000000005,1020,51,-0.052715898,0.23323327,-0.06372839,-0.020812223,0.16518094,-0.10081595,-0.11600423,-0.039919555,-0.030833913,0.0,0.0,0.0,0.0,0.5,0.0,0.0,0.11539783,0.18278877,-0.09364112,0.10267844,0.10197344,0.09810997,-0.1074156,-0.008926888,0.111699924,0.03280522,0.03213263,-0.028626904,0.058329493,0.09533078,-0.011827984,0.06337745,-0.030991357,-0.014650141,-0.07758617,0.15105997,0.022603905,0.037630133,-0.05532824,-0.081393555,1.0,0.8247117,-0.46596324,1.0,-0.17043969,1.0,-1.0,1.0,1.0,0.6260973,-1.0,-1.0,0.5398998,-1.0,-1.0,1.0,1.0,1.0,-1.0,-1.0,1.0,-1.0,1.0,-1.0
2025-07-21 16:01:09.631,1.0400000000000005,1040,52,0.0727777,-0.035637025,0.039741933,0.043067295,0.0023518717,0.07023293,-0.13918412,-0.114047654,0.02589549,0.0,0.0,0.0,0.0,0.5,0.0,0.0,0.12149636,0.16233698,-0.09955168,0.10296571,0.12193858,0.11422557,-0.11320366,-0.0007292225,0.12735066,0.009293787,0.04140808,-0.054717675,-0.056279697,-0.21715964,0.023388281,-0.007444779,0.15186185,0.06250945,-0.04904276,0.01808394,0.041646253,-0.07781104,0.17196801,-0.11903263,0.5398998,-1.0,-1.0,1.0,1.0,1.0,-1.0,-1.0,1.0,-1.0,1.0,-1.0,1.0,-1.0,0.6024154,1.0,-1.0,1.0,-1.0,-1.0,1.0,1.0,-1.0,-1.0
2025-07-21 16:01:09.651,1.0600000000000005,1060,53,-0.3316526,0.09989663,0.38566533,0.33160543,0.19086963,0.15688892,-0.11481385,-0.06511036,-0.014604993,0.0,0.0,0.0,0.0,0.5,0.0,0.0,0.13201237,0.07044038,-0.07665981,0.11019097,0.13848817,0.10066752,-0.11044335,-0.03679372,0.13483137,0.042629562,0.044365063,-0.074809894,0.03836377,-0.27784398,0.05225666,-0.042879038,-0.10846087,0.089304484,-0.048778247,-0.21627016,-0.036998577,0.03296464,-0.13101943,0.0040096142,1.0,-1.0,0.6024154,1.0,-1.0,1.0,-1.0,-1.0,1.0,1.0,-1.0,-1.0,0.37120208,1.0,-0.4733323,1.0,1.0,1.0,-1.0,1.0,1.0,-0.26938272,0.41016522,-0.71720886
2025-07-21 16:01:09.672,1.0800000000000005,1080,54,-0.07849888,0.2794048,0.014146201,-0.07070797,-0.1010724,0.006752734,-0.13075382,-0.058266535,-0.039481536,0.0,0.0,0.0,0.0,0.5,0.0,0.0,0.11513534,0.040173,-0.07697497,0.12542932,0.14338794,0.11094777,-0.116189495,-0.026389254,0.12339783,0.017654039,0.031507585,-0.06726654,-0.004830325,0.11737703,-0.073752955,0.03155267,0.13834788,-0.0051477957,-0.08517549,0.1234975,-0.06970028,0.035395514,0.07753042,-0.042882826,0.37120208,1.0,-0.4733323,1.0,1.0,1.0,-1.0,1.0,1.0,-0.26938272,0.41016522,-0.71720886,1.0,-1.0,-1.0,1.0,0.44085738,1.0,-1.0,-1.0,1.0,-1.0,-0.7536001,-1.0
2025-07-21 16:01:09.699,1.1000000000000005,1100,55,-0.2332275,-0.03334905,0.061295763,0.19551662,0.054401346,0.082921036,-0.12626928,-0.061626825,-0.02222644,0.0,0.0,0.0,0.0,0.5,0.0,0.0,0.12500194,0.034538012,-0.09237701,0.130507,0.15741955,0.12243823,-0.1343546,-0.01892511,0.13318355,-0.013414241,0.0053116754,-0.08889015,0.029390551,-0.04730353,-0.021733955,-0.022802139,-0.009649292,-0.058593135,0.059257276,-0.11884914,0.089517735,-0.11968289,-0.1282793,-0.090686195,1.0,-1.0,-1.0,1.0,0.44085738,1.0,-1.0,-1.0,1.0,-1.0,-0.7536001,-1.0,1.0,0.48405936,-1.0,1.0,-0.7017185,1.0,-1.0,1.0,1.0,1.0,0.68120795,-1.0
2025-07-21 16:01:09.712,1.1200000000000006,1120,56,-0.1755876,-0.032310978,-0.09954834,-0.1133711,0.101859316,0.006388883,-0.102011316,-0.117338456,-0.0052953893,0.0,0.0,0.0,0.0,0.5,0.0,0.0,0.12687638,0.05420053,-0.09797039,0.12506102,0.1575498,0.13372426,-0.13735896,0.011509989,0.13420221,0.021006474,-0.00050223275,-0.10984053,-0.01835675,0.10235951,-0.036596425,-0.013188405,-0.07486879,0.036950476,-0.059438914,0.23379974,0.046290085,0.13218723,0.08673308,-0.023030905,1.0,0.48405936,-1.0,1.0,-0.7017185,1.0,-1.0,1.0,1.0,1.0,0.68120795,-1.0,1.0,-1.0,-1.0,1.0,0.85602903,1.0,-1.0,-1.0,1.0,-1.0,-1.0,-1.0
2025-07-21 16:01:09.737,1.1400000000000006,1140,57,-0.16513444,0.029102143,-0.027526392,0.017539056,0.04300124,-0.000127221,-0.15414779,-0.092227444,-0.010344513,0.0,0.0,0.0,0.0,0.5,0.0,0.0,0.13543126,0.053482924,-0.12565403,0.13368963,0.17792514,0.12211067,-0.13703597,0.017127248,0.1414286,-0.007953025,0.0016508899,-0.103306994,-0.029245462,-0.14097911,-0.08755205,-0.05954061,0.14509363,-0.025959834,-0.074052,-0.16050212,-0.006017034,-0.10946468,-0.121008255,0.012392365,1.0,-1.0,-1.0,1.0,0.85602903,1.0,-1.0,-1.0,1.0,-1.0,-1.0,-1.0,0.19608615,-0.31205875,1.0,1.0,-1.0,1.0,-1.0,0.3320364,1.0,1.0,1.0,0.49246797
2025-07-21 16:01:09.754,1.1600000000000006,1160,58,-0.22054434,-0.19820717,-0.045461968,-0.13180245,-0.15421614,0.0153145725,-0.17696531,-0.059175383,-0.018938778,0.0,0.0,0.0,0.0,0.5,0.0,0.0,0.13424921,0.018768111,-0.08326796,0.13529725,0.19294095,0.12781963,-0.15340862,0.0240769,0.13289818,0.008022303,-0.0028707338,-0.083802834,-0.036322005,-0.12818995,0.13167043,0.04738787,0.04428543,-0.029298536,0.048500963,0.12022508,0.005609527,0.1378581,0.0976775,0.07177474,0.19608615,-0.31205875,1.0,1.0,-1.0,1.0,-1.0,0.3320364,1.0,1.0,1.0,0.49246797,-1.0,1.0,-1.0,1.0,0.81841815,1.0,-1.0,-1.0,1.0,1.0,-1.0,1.0
2025-07-21 16:01:09.772,1.1800000000000006,1180,59,0.09555439,-0.18470867,0.08953067,0.007110555,-0.20847167,0.02217901,-0.15235215,-0.02978612,-0.033399068,0.0,0.0,0.0,0.0,0.5,0.0,0.0,0.085990675,0.05138226,-0.104516506,0.13194714,0.21285808,0.13278477,-0.1582554,0.0127378665,0.14061151,0.044284057,-0.024999997,-0.029536424,-0.14863937,0.08889167,0.010594496,-0.014566786,0.073130175,-0.026847556,-0.064016536,-0.08020511,0.05831976,0.11666811,-0.17951773,0.16846603,-1.0,1.0,-1.0,1.0,0.81841815,1.0,-1.0,-1.0,1.0,1.0,-1.0,1.0,0.5792465,-1.0,-1.0,-0.87310666,-1.0,1.0,-1.0,-0.57380664,0.15796018,1.0,-0.78300846,1.0
2025-07-21 16:01:09.792,1.2000000000000006,1200,60,-0.17093927,-0.17966531,-0.07753824,0.27473655,-0.18130316,0.24086073,-0.15226837,-0.014405271,0.016623776,0.0,0.0,0.0,0.0,0.5,0.0,0.0,0.08022819,0.03444487,-0.1189989,0.109760076,0.19097188,0.13991724,-0.16565725,-0.0017013774,0.12843324,0.0751643,-0.075057596,-0.010774105,-0.033020638,-0.1014716,0.03498016,-0.16677193,-0.13003694,-0.058013484,-0.013813641,-0.17328559,-0.07984925,0.03273018,-0.18415296,0.019069448,0.5792465,-1.0,-1.0,-0.87310666,-1.0,1.0,-1.0,-0.57380664,0.15796018,1.0,-0.78300846,1.0,-1.0,0.5401367,0.88172454,1.0,-1.0,1.0,-1.0,1.0,1.0,-1.0,-0.6951127,1.0
2025-07-21 16:01:09.812,1.2200000000000006,1220,61,-0.16871901,0.050490685,0.04615846,-0.17595424,-0.20500988,-0.0954724,-0.13418667,-0.04458342,-0.03959474,0.0,0.0,0.0,0.0,0.5,0.0,0.0,0.059572663,0.04045317,-0.08359047,0.06933005,0.17299981,0.14479241,-0.1586535,0.014897338,0.12943105,0.028180072,-0.121840246,0.032356244,-0.104310416,0.09202843,0.07903825,-0.048178665,-0.07778641,-0.04193518,0.043795668,0.11246967,0.0044252933,-0.16130963,-0.06984047,0.08251997,-1.0,0.5401367,0.88172454,1.0,-1.0,1.0,-1.0,1.0,1.0,-1.0,-0.6951127,1.0,-1.0,1.0,1.0,1.0,1.0,-0.8436669,-1.0,-1.0,1.0,1.0,-1.0,1.0
2025-07-21 16:01:09.836,1.2400000000000007,1240,62,0.0856631,-0.2562968,0.110144,-0.1756891,-0.34633708,-0.09289646,-0.13047993,0.0040083104,-0.0075760353,0.0,0.0,0.0,0.0,0.5,0.0,0.0,0.03733021,0.07699868,-0.0509104,0.09734687,0.20454821,0.101822406,-0.17602977,0.030968018,0.14617096,0.041857272,-0.16005062,0.0447121,-0.12762417,0.11891999,0.08123142,0.08611806,0.07763035,-0.17459564,-0.009697713,-0.07762098,0.05119554,0.12063782,-0.06553422,0.048572022,-1.0,1.0,1.0,1.0,1.0,-0.8436669,-1.0,-1.0,1.0,1.0,-1.0,1.0,-1.0,0.880728,1.0,-1.0,0.80979896,-1.0,0.59185386,1.0,-1.0,1.0,-1.0,1.0
2025-07-21 16:01:09.853,1.2600000000000007,1260,63,-0.08404636,-0.16842343,-0.3095735,-0.2733658,-0.27837783,-0.04251542,-0.009087334,0.02905548,0.0335952,0.0,0.0,0.0,0.0,0.5,0.0,0.0,-0.0036868404,0.13027562,-0.02187242,0.059174214,0.22863995,0.050857123,-0.1500061,0.058482386,0.09366266,0.069190316,-0.20319842,0.06911072,-0.08561093,0.17341757,0.05919718,-0.035349898,0.05351205,-0.096654244,0.10803,0.19968091,-0.09491367,-0.014298156,-0.014969223,0.03870715,-1.0,0.880728,1.0,-1.0,0.80979896,-1.0,0.59185386,1.0,-1.0,1.0,-1.0,1.0,-1.0,-1.0,1.0,-1.0,-0.6427376,-0.5321195,1.0,-0.908203,1.0,0.7204646,1.0,1.0
2025-07-21 16:01:09.872,1.2800000000000007,1280,64,-0.0701708,-0.1981407,-0.052507345,-0.020492686,-0.15011406,0.30870008,-0.03900603,0.036446117,-0.013916444,0.0,0.0,0.0,0.0,0.5,0.0,0.0,-0.015879393,0.13544883,0.012574014,0.018009154,0.18949793,0.036757514,-0.087971345,0.06035388,0.088608205,0.075034976,-0.20754111,0.07751364,-0.058884207,-0.08826395,0.0449061,-0.038808398,-0.20655054,-0.04373303,0.11531369,-0.08819604,0.024756685,0.060670853,0.031208815,-0.045298025,-1.0,-1.0,1.0,-1.0,-0.6427376,-0.5321195,1.0,-0.908203,1.0,0.7204646,1.0,1.0,-1.0,1.0,1.0,0.4938768,0.53552544,-1.0,0.048894968,1.0,-0.4380145,1.0,-1.0,1.0
2025-07-21 16:01:09.892,1.3000000000000007,1300,65,-0.028909666,0.02455351,-0.12668537,0.013546575,-0.07175223,0.12792121,-0.038829718,0.020048583,-0.013753652,0.0,0.0,0.0,0.0,0.5,0.0,0.0,-0.038107228,0.16677168,0.017324416,0.037092965,0.18362466,0.0030534144,-0.08450291,0.094351664,0.063908376,0.08864506,-0.20190862,0.084427625,-0.07509942,0.055067584,0.086359106,-0.0065482585,0.06912592,-0.036035374,-0.023396023,0.12121667,0.0012857757,0.08498659,-0.06811935,-0.024672525,-1.0,1.0,1.0,0.4938768,0.53552544,-1.0,0.048894968,1.0,-0.4380145,1.0,-1.0,1.0,-1.0,-1.0,1.0,-1.0,-1.0,-0.8607808,1.0,0.100337714,-1.0,-1.0,-0.21311827,1.0
2025-07-21 16:01:09.912,1.3200000000000007,1320,66,-0.2774994,-0.10901585,-0.07800424,0.1792789,-0.19861181,0.02956334,0.0008863813,-0.018686678,-0.017446548,0.0,0.0,0.0,0.0,0.5,0.0,0.0,-0.064477555,0.16083099,0.037033327,-0.008107402,0.13272423,-0.016417038,-0.046171926,0.09735888,0.040118203,0.06491057,-0.18444422,0.10159933,0.007813637,-0.085188985,-0.00048243452,-0.1483162,-0.23818111,-0.026401129,0.021364812,-0.09884178,-0.124441996,-0.065976396,0.07163063,0.06085611,-1.0,-1.0,1.0,-1.0,-1.0,-0.8607808,1.0,0.100337714,-1.0,-1.0,-0.21311827,1.0,-1.0,1.0,1.0,0.2258724,1.0,-1.0,1.0,1.0,0.1511434,1.0,-1.0,1.0
2025-07-21 16:01:09.937,1.3400000000000007,1340,67,-0.048256636,-0.077915534,-0.07116109,-0.007004896,0.13016416,-0.06664066,-0.07146809,0.055275552,-0.031527966,0.0,0.0,0.0,0.0,0.5,0.0,0.0,-0.07052797,0.18382202,0.060742058,0.009399802,0.12518795,-0.042698685,0.0043600677,0.13893129,0.02723616,0.060706016,-0.18372741,0.10395693,0.038670227,0.07519957,0.031282783,0.06525912,0.10806566,-0.013367508,0.1368793,0.119896896,-0.066642344,-0.035408605,0.016463937,0.084813885,-1.0,1.0,1.0,0.2258724,1.0,-1.0,1.0,1.0,0.1511434,1.0,-1.0,1.0,-1.0,-1.0,1.0,-0.6021592,-1.0,-1.0,1.0,-1.0,-1.0,1.0,0.36740842,1.0
2025-07-21 16:01:09.954,1.3600000000000008,1360,68,0.077295,-0.051906526,0.14449129,0.16134532,-0.090927675,0.08627462,-0.040402643,0.060669664,-0.007060413,0.0,0.0,0.0,0.0,0.5,0.0,0.0,-0.076642714,0.1923036,0.075073004,-0.023955757,0.093442634,-0.06229063,0.026504647,0.11929834,-0.008534305,0.07514133,-0.17938468,0.10269283,-0.00090555666,-0.06303208,0.01766063,-0.048569955,-0.10203064,-0.030724397,0.047901746,-0.102383785,-0.09830216,0.009762915,0.13842769,-0.026699902,-1.0,-1.0,1.0,-0.6021592,-1.0,-1.0,1.0,-1.0,-1.0,1.0,0.36740842,1.0,-1.0,-0.9295956,1.0,-0.62645286,0.35436413,-0.40355295,1.0,0.8885424,-1.0,1.0,-1.0,1.0
2025-07-21 16:01:09.973,1.3800000000000008,1380,69,0.114045866,-0.23681,0.11079582,0.26777622,-0.055316508,0.13238716,-0.0037177256,0.056702062,-0.006643936,0.0,0.0,0.0,0.0,0.5,0.0,0.0,-0.09456241,0.14869294,0.08588521,-0.020109339,0.09371673,-0.062928475,0.043775257,0.13039312,-0.036217723,0.08701065,-0.18450083,0.11880289,0.012916093,-0.023207614,0.047043364,0.038167916,0.09476948,0.06990889,0.04217252,0.028806048,-0.023747552,-0.03389353,-0.11421107,-0.037530646,-1.0,-0.9295956,1.0,-0.62645286,0.35436413,-0.40355295,1.0,0.8885424,-1.0,1.0,-1.0,1.0,-1.0,1.0,1.0,-0.3081887,-1.0,1.0,1.0,1.0,0.61471844,-0.6689843,1.0,1.0
2025-07-21 16:01:09.992,1.4000000000000008,1400,70,-0.10115152,-0.0067629525,0.083553664,-0.08002412,-0.14788522,0.009203414,-0.066522576,0.014352489,-0.04393348,0.0,0.0,0.0,0.0,0.5,0.0,0.0,-0.10673721,0.18153721,0.09367842,-0.038437776,0.07579368,-0.033435225,0.074061304,0.18140464,-0.010472335,0.05474871,-0.15061449,0.104499854,-0.07001247,0.1768883,-0.030350558,-0.036914483,0.009509173,0.024836045,0.08752453,0.11893961,0.10844271,-0.028601728,0.05898436,-0.00075161,-1.0,1.0,1.0,-0.3081887,-1.0,1.0,1.0,1.0,0.61471844,-0.6689843,1.0,1.0,1.0,-0.4253559,-1.0,1.0,0.7959722,1.0,-1.0,-1.0,1.0,-1.0,0.46746925,0.9150336
2025-07-21 16:01:10.012,1.4200000000000008,1420,71,0.1500483,-0.2121994,0.34025383,-0.109299324,0.24098761,0.09967852,-0.037915554,0.07079005,0.0064961966,0.0,0.0,0.0,0.0,0.5,0.0,0.0,-0.07345982,0.18918508,0.044369183,-0.0186369,0.08837773,-0.0033291683,0.04849842,0.1690292,0.021657258,0.019237908,-0.09349022,0.114414215,0.15677585,-0.0040850807,-0.046684437,0.031073697,0.091220215,0.12186454,-0.08858217,-0.16444628,0.021550974,-0.14992774,0.08963914,0.042088367,1.0,-0.4253559,-1.0,1.0,0.7959722,1.0,-1.0,-1.0,1.0,-1.0,0.46746925,0.9150336,1.0,-1.0,-1.0,1.0,-1.0,1.0,-1.0,0.16947559,-0.32217276,1.0,-1.0,-1.0
2025-07-21 16:01:10.037,1.4400000000000008,1440,72,-0.35703894,0.05301124,0.26011565,-0.010186071,0.45790696,0.10512998,-0.02198461,-0.019360457,-0.042220306,0.0,0.0,0.0,0.0,0.5,0.0,0.0,-0.015883628,0.17941111,0.017541774,0.013133696,0.09349746,0.028210532,-0.004466355,0.14273377,0.00042978823,0.044237055,-0.09094824,0.07021429,0.12037309,-0.06596041,-0.107941285,0.027153123,0.0005478125,0.14333214,-0.07465195,-0.05846635,-0.063818276,0.043635704,-0.0741014,-0.17778805,1.0,-1.0,-1.0,1.0,-1.0,1.0,-1.0,0.16947559,-0.32217276,1.0,-1.0,-1.0,-0.7913522,0.6794019,-1.0,1.0,1.0,1.0,-1.0,-1.0,1.0,-1.0,1.0,-1.0
2025-07-21 16:01:10.053,1.4600000000000009,1460,73,0.06425554,0.06458039,-0.06026888,-0.23495723,0.001429719,0.14696741,-0.039838817,0.009268337,-0.022338811,0.0,0.0,0.0,0.0,0.5,0.0,0.0,-0.030797148,0.18105927,-0.018074127,0.030482752,0.116565205,0.040362306,-0.032594983,0.07925584,0.032078654,0.0075775683,-0.08849552,0.02433295,-0.022461519,0.014962054,-0.022892036,0.021726739,0.06376125,-0.026175832,-0.012627384,-0.25883284,0.032279056,-0.084028006,0.14690113,-0.08610552,-0.7913522,0.6794019,-1.0,1.0,1.0,1.0,-1.0,-1.0,1.0,-1.0,1.0,-1.0,1.0,-0.4297557,-1.0,1.0,-1.0,1.0,-1.0,-0.19393155,1.0,-1.0,1.0,-1.0
2025-07-21 16:01:10.073,1.4800000000000009,1480,74,-0.14366989,-0.06818533,-0.39754486,-0.24864556,0.30239046,0.1201709,-0.032708503,-0.05207072,0.04192502,0.0,0.0,0.0,0.0,0.5,0.0,0.0,-0.0064042923,0.1688177,-0.033825032,0.056285318,0.1369173,0.057599783,-0.05668437,0.038648896,0.056007788,-0.024753679,-0.0058544963,-0.00029148962,0.020617161,-0.12838444,-0.087250054,0.06290667,-0.04267256,0.12155707,-0.10120923,-0.047996465,0.08813943,-0.1056547,0.1905,-0.07528391,1.0,-0.4297557,-1.0,1.0,-1.0,1.0,-1.0,-0.19393155,1.0,-1.0,1.0,-1.0,1.0,1.0,-1.0,1.0,-0.5706385,1.0,-1.0,-1.0,1.0,-0.019746408,-1.0,-1.0
2025-07-21 16:01:10.093,1.5000000000000009,1500,75,-0.15664169,-0.06127109,-0.082137465,0.04216856,0.25744554,0.018000834,-0.030040048,-0.09500284,0.044208474,0.0,0.0,0.0,0.0,0.5,0.0,0.0,0.038060352,0.16101542,-0.07438838,0.07320108,0.12000758,0.08256971,-0.06386327,-0.02091083,0.07178,-0.014478033,0.009902627,-0.021018784,0.042107508,0.048103716,-0.1327318,0.043240372,-0.11005672,0.07562444,-0.103932306,-0.2057777,0.044035938,0.058764867,-0.10932322,-0.010535239,1.0,1.0,-1.0,1.0,-0.5706385,1.0,-1.0,-1.0,1.0,-0.019746408,-1.0,-1.0,1.0,-1.0,-1.0,1.0,0.09420619,1.0,-1.0,-0.7994615,1.0,-0.6306921,0.6837674,-1.0
2025-07-21 16:01:10.113,1.520000000000001,1520,76,-0.27588707,-0.05126995,-0.028009847,0.060981676,0.052550968,0.12116964,-0.022322435,-0.11176998,0.013111344,0.0,0.0,0.0,0.0,0.5,0.0,0.0,0.047716513,0.17251989,-0.084157266,0.08463466,0.10336128,0.08432432,-0.07309655,-0.056672532,0.08964639,-0.020532815,0.021987453,-0.05766602,0.059914798,-0.080514096,-0.011828131,0.008216072,-0.04739513,0.06955486,-0.06502632,-0.16225053,0.10090886,-0.08593921,0.13393801,0.01955045,1.0,-1.0,-1.0,1.0,0.09420619,1.0,-1.0,-0.7994615,1.0,-0.6306921,0.6837674,-1.0,1.0,1.0,-1.0,1.0,1.0,1.0,-1.0,1.0,1.0,1.0,-1.0,-1.0
2025-07-21 16:01:10.137,1.540000000000001,1540,77,-0.13368998,-0.13516888,-0.19510663,-0.08781485,0.07477367,-0.032340627,-0.033106416,-0.023426268,0.00095043785,0.0,0.0,0.0,0.0,0.5,0.0,0.0,0.059403878,0.19087307,-0.0900042,0.0942313,0.1178917,0.093946174,-0.08043422,-0.044570267,0.093730055,0.0022151996,0.016424369,-0.06623994,0.08048969,0.12223608,-0.059106406,0.08844258,0.12559643,-0.004328205,-0.06384137,0.11047915,-0.0361398,0.054264583,-0.07826341,0.02346903,1.0,1.0,-1.0,1.0,1.0,1.0,-1.0,1.0,1.0,1.0,-1.0,-1.0,0.41241023,-1.0,-1.0,1.0,-1.0,1.0,-1.0,-1.0,1.0,0.64768565,-1.0,-0.95453846
2025-07-21 16:01:10.153,1.560000000000001,1560,78,-0.21955742,0.13733575,0.04202466,0.24428822,0.06401757,0.013822824,-0.1027377,-0.043544024,-0.014634045,0.0,0.0,0.0,0.0,0.5,0.0,0.0,0.07165582,0.16535026,-0.10326511,0.09123178,0.116136275,0.09616908,-0.088869445,-0.06355583,0.10230853,0.010744211,-0.06347177,-0.077478744,0.0139390845,-0.18260247,0.037997656,0.05043081,0.018632272,-0.025876455,0.017149406,-0.035953507,0.075637765,0.10837536,-0.13315412,-0.03931154,0.41241023,-1.0,-1.0,1.0,-1.0,1.0,-1.0,-1.0,1.0,0.64768565,-1.0,-0.95453846,1.0,-0.47579765,-1.0,1.0,0.15996733,1.0,-1.0,-1.0,1.0,-0.7907374,1.0,-1.0
2025-07-21 16:01:10.173,1.580000000000001,1580,79,-0.353611,-0.023096278,-0.08241642,0.16554908,0.066456094,0.1435821,-0.083908185,-0.05176109,0.010295565,0.0,0.0,0.0,0.0,0.5,0.0,0.0,0.089763016,0.103338964,-0.11006777,0.10222474,0.11085484,0.10175895,-0.08733526,-0.09234483,0.11980072,0.00407009,-0.06867776,-0.09934583,0.040937275,-0.17299782,-0.06570489,0.0653088,0.010282888,0.044965353,-0.034819264,-0.0986909,0.040541597,-0.060865898,0.07836312,0.04107534,1.0,-0.47579765,-1.0,1.0,0.15996733,1.0,-1.0,-1.0,1.0,-0.7907374,1.0,-1.0,1.0,1.0,-1.0,1.0,0.111665465,1.0,-1.0,0.68879557,1.0,0.99422944,-0.51648164,-1.0
2025-07-21 16:01:10.193,1.600000000000001,1600,80,0.0894606,-0.082933836,-0.06455837,-0.12996522,0.049942758,-0.066679955,-0.06866472,-0.0262743,0.027759383,0.0,0.0,0.0,0.0,0.5,0.0,0.0,0.10585916,0.10955301,-0.12004699,0.099416606,0.10117481,0.102493145,-0.11119224,-0.059743576,0.11109808,0.031069642,-0.07164893,-0.107203424,0.073188275,0.14390902,-0.08568723,-0.011595328,-0.03120624,0.09456042,-0.07111464,0.123359516,-0.0391416,0.08507745,-0.119118586,-0.025517017,1.0,1.0,-1.0,1.0,0.111665465,1.0,-1.0,0.68879557,1.0,0.99422944,-0.51648164,-1.0,1.0,-1.0,-1.0,1.0,-1.0,1.0,-1.0,-1.0,1.0,-1.0,1.0,-1.0
2025-07-21 16:01:10.213,1.620000000000001,1620,81,-0.06519064,0.1288263,0.13607015,0.12131065,0.04985377,0.0076211705,-0.10047199,-0.03903161,-0.011794959,0.0,0.0,0.0,0.0,0.5,0.0,0.0,0.11317608,0.07567483,-0.12385459,0.11108707,0.082152694,0.116643704,-0.10501527,-0.060384117,0.11991467,-0.0061627557,-0.051812936,-0.10894929,0.02678366,-0.12249977,-0.039102342,0.011188977,-0.005864811,0.07585413,-0.07363325,-0.0822519,0.08072347,-0.10099681,0.07851332,-0.058729976,1.0,-1.0,-1.0,1.0,-1.0,1.0,-1.0,-1.0,1.0,-1.0,1.0,-1.0,1.0,-1.0,-0.95058835,1.0,0.6019552,1.0,-1.0,-0.71250117,1.0,1.0,1.0,-1.0
2025-07-21 16:01:10.233,1.640000000000001,1640,82,-0.044234715,0.022633124,0.06400287,0.110932074,0.091245785,0.182543,-0.12565957,-0.100783825,0.027369775,0.0,0.0,0.0,0.0,0.5,0.0,0.0,0.13087599,0.0111227,-0.13223775,0.10999788,0.09722848,0.115813635,-0.113350585,-0.08663561,0.12567207,0.027496304,0.026972653,-0.13200177,-0.008184019,-0.14089943,-0.06860506,-0.06863851,0.13705534,-0.03843192,-0.030405566,-0.12760437,0.04114572,0.017010588,0.2643937,0.0020622497,1.0,-1.0,-0.95058835,1.0,0.6019552,1.0,-1.0,-0.71250117,1.0,1.0,1.0,-1.0,-0.5956774,-0.4384572,0.42372048,1.0,-1.0,1.0,-1.0,1.0,1.0,0.11095382,-1.0,-1.0
2025-07-21 16:01:10.295,1.660000000000001,1660,83,-0.10442352,0.092340924,0.09392702,0.021374976,-0.07259982,-0.035398502,-0.15575127,-0.09781087,0.0045468416,0.0,0.0,0.0,0.0,0.5,0.0,0.0,0.117193505,-0.024293551,-0.109660394,0.09884941,0.09841683,0.123938516,-0.123065576,-0.077246726,0.12545548,0.028892297,0.041386627,-0.13020279,-0.0067629754,-0.04031284,0.11745937,0.03028581,-0.0045699268,-0.04076287,-0.08364438,0.1074846,0.044117603,-0.04155765,-0.14877526,-0.011068772,-0.5956774,-0.4384572,0.42372048,1.0,-1.0,1.0,-1.0,1.0,1.0,0.11095382,-1.0,-1.0,-1.0,1.0,-1.0,1.0,1.0,1.0,-1.0,-1.0,1.0,-1.0,0.2564861,-1.0
2025-07-21 16:01:10.317,1.680000000000001,1680,84,0.042533953,0.03570691,0.23555018,-0.13142134,-0.16030921,0.03552713,-0.086300485,-0.019049587,-0.002386716,0.0,0.0,0.0,0.0,0.5,0.0,0.0,0.07342295,-0.0032664912,-0.11824898,0.11937164,0.14051688,0.11627984,-0.147319,-0.06043129,0.14091024,0.0023785997,0.04072125,-0.12578882,-0.14850365,0.12140982,-0.064825624,0.0061722402,0.11679261,0.051783424,-0.06862186,0.025350528,-0.027595859,-0.093528606,0.068481594,-0.00954936,-1.0,1.0,-1.0,1.0,1.0,1.0,-1.0,-1.0,1.0,-1.0,0.2564861,-1.0,1.0,-1.0,-1.0,1.0,-1.0,1.0,-1.0,-1.0,1.0,-1.0,-0.7580063,-1.0
2025-07-21 16:01:10.338,1.700000000000001,1700,85,-0.29009598,-0.06712412,0.14629865,0.18560028,0.08595438,0.029582186,-0.06999533,-0.06895987,-0.022609962,0.0,0.0,0.0,0.0,0.5,0.0,0.0,0.081882015,-0.012214737,-0.13262586,0.12330389,0.12993503,0.12626512,-0.13348368,-0.07519309,0.13585949,-0.025985627,0.0027088495,-0.12555541,0.114029914,-0.069261655,-0.07032127,-0.037597533,-0.10178593,-0.009796856,-0.05695917,-0.07402956,0.0870896,-0.07567939,-0.09141912,0.015744,1.0,-1.0,-1.0,1.0,-1.0,1.0,-1.0,-1.0,1.0,-1.0,-0.7580063,-1.0,1.0,0.5031803,-1.0,1.0,1.0,1.0,-1.0,0.12146118,1.0,0.3693998,-0.33696488,-1.0
2025-07-21 16:01:10.355,1.720000000000001,1720,86,0.08743729,-0.103506036,0.010318961,-0.084070124,0.09489599,0.012861166,-0.11916538,-0.025458163,-0.0018915341,0.0,0.0,0.0,0.0,0.5,0.0,0.0,0.08720675,-0.008222438,-0.13459666,0.13874234,0.16168799,0.114990935,-0.1433694,-0.06961129,0.14339028,-0.022447357,-0.037032865,-0.13249223,0.023307068,0.1660899,-0.0069872164,0.045622166,0.07321199,0.014767807,-0.07514995,0.005702393,-0.01249985,0.01853244,-0.07190982,0.06238064,1.0,0.5031803,-1.0,1.0,1.0,1.0,-1.0,0.12146118,1.0,0.3693998,-0.33696488,-1.0,1.0,-1.0,-1.0,1.0,-1.0,1.0,-1.0,-1.0,1.0,-0.3351454,0.60835344,-0.31861523
2025-07-21 16:01:10.430,1.740000000000001,1740,87,-0.019777495,-0.11815782,-0.01381709,0.18368836,-0.015620606,0.0700378,-0.098660246,-0.096730255,-0.048010442,0.0,0.0,0.0,0.0,0.5,0.0,0.0,0.10979667,-0.021829434,-0.1335665,0.13960825,0.16981478,0.12556545,-0.1404096,-0.082561485,0.14501771,-0.02109292,-0.0051599503,-0.12918101,-0.024547037,-0.2545369,-0.04376246,0.07346666,0.031109475,-0.049454994,-0.06152527,-0.124887325,-0.02014728,0.055426583,0.18845221,0.015306478,1.0,-1.0,-1.0,1.0,-1.0,1.0,-1.0,-1.0,1.0,-0.3351454,0.60835344,-0.31861523,1.0,-0.462311,-0.3827833,1.0,-1.0,1.0,-1.0,1.0,1.0,1.0,-1.0,-0.06788495
2025-07-21 16:01:10.452,1.7600000000000011,1760,88,-0.15257499,-0.006044904,-0.26807594,0.16622323,0.24365197,0.03818054,-0.18281452,-0.04230341,0.037186813,0.0,0.0,0.0,0.0,0.5,0.0,0.0,0.12303923,-0.051076494,-0.12977675,0.14440985,0.14909013,0.13752253,-0.14679568,-0.07093222,0.14016858,-0.000977008,-0.0145553285,-0.09987026,0.024682023,-0.032219592,0.08479693,0.004896627,-0.04315527,0.045561578,-0.056142356,0.089181736,0.07597654,0.015004248,-0.21656223,0.021715173,1.0,-0.462311,-0.3827833,1.0,-1.0,1.0,-1.0,1.0,1.0,1.0,-1.0,-0.06788495,-1.0,1.0,-1.0,1.0,-1.0,1.0,-1.0,-1.0,1.0,-1.0,-0.5125994,0.33792087
2025-07-21 16:01:10.473,1.7800000000000011,1780,89,-0.3208068,0.100120574,-0.25267887,0.06512338,-0.059851654,-0.099589616,-0.17593767,-0.10696843,0.02967296,0.0,0.0,0.0,0.0,0.5,0.0,0.0,0.10590078,-0.03968017,-0.1447221,0.13423958,0.13250312,0.14583328,-0.15483181,-0.08008325,0.14387822,-0.019134514,-0.053359803,-0.069258384,-0.06559992,0.14924514,-0.07313881,-0.028407484,0.028121168,-0.0026213848,-0.056475315,-0.13079144,0.033836797,-0.108631715,-0.0054784482,0.08508098,-1.0,1.0,-1.0,1.0,-1.0,1.0,-1.0,-1.0,1.0,-1.0,-0.5125994,0.33792087,0.05139701,-1.0,-1.0,1.0,0.9970425,1.0,-1.0,-1.0,1.0,-0.27109385,-0.636897,0.96909356
2025-07-21 16:01:10.490,1.8000000000000012,1800,90,-0.3907038,0.0613213,-0.19305462,0.088682,-0.08302541,0.019713286,-0.12274078,-0.055349924,0.0112915225,0.0,0.0,0.0,0.0,0.5,0.0,0.0,0.08954756,-0.042472877,-0.14812791,0.13914718,0.16048124,0.13472009,-0.15343517,-0.14319418,0.15960611,-0.015407127,-0.09226516,-0.034782417,-0.05407622,-0.13894089,0.019400312,-0.080306254,0.11130942,0.037622165,0.029279018,-0.11546615,0.048146654,-0.060151417,-0.010937767,0.14164674,0.05139701,-1.0,-1.0,1.0,0.9970425,1.0,-1.0,-1.0,1.0,-0.27109385,-0.636897,0.96909356,-1.0,0.62593466,1.0,0.3109696,-0.8496595,1.0,-1.0,1.0,1.0,1.0,-0.7412848,1.0
2025-07-21 16:01:10.510,1.8200000000000012,1820,91,-0.2527602,-0.030872054,-0.10796088,-0.15377474,-0.32582378,-0.14327516,-0.14353353,-0.014915507,-0.039394457,0.0,0.0,0.0,0.0,0.5,0.0,0.0,0.056644414,-0.05572102,-0.10867394,0.11593312,0.18116637,0.13843219,-0.16836278,-0.118978664,0.15195791,-0.0023529066,-0.13728534,0.0041418686,-0.027351234,0.021286495,0.08534204,-0.08454145,-0.02070831,0.033822615,-0.02072934,0.14044426,0.05648229,0.13051865,-0.13073957,0.020732932,-1.0,0.62593466,1.0,0.3109696,-0.8496595,1.0,-1.0,1.0,1.0,1.0,-0.7412848,1.0,-1.0,1.0,1.0,0.24534309,1.0,-0.47573125,-1.0,-1.0,1.0,1.0,1.0,1.0
2025-07-21 16:01:10.530,1.8400000000000012,1840,92,0.037666004,0.063352525,0.047936432,-0.18252835,-0.37795952,0.043286745,-0.14804725,-0.009089775,-0.015213812,0.0,0.0,0.0,0.0,0.5,0.0,0.0,0.017152917,-0.017649515,-0.07358784,0.10049896,0.21021244,0.114361696,-0.1810401,-0.09684404,0.15335529,0.04125882,-0.108344704,0.021751093,-0.016633715,0.118658915,0.05270662,-0.044176035,0.09970242,-0.075554945,-0.017338859,-0.035635494,0.018404363,0.14121994,0.13360083,0.0424955,-1.0,1.0,1.0,0.24534309,1.0,-0.47573125,-1.0,-1.0,1.0,1.0,1.0,1.0,-1.0,1.0,1.0,-1.0,-0.60697764,-1.0,-1.0,-0.5820234,1.0,1.0,-1.0,1.0
2025-07-21 16:01:10.553,1.8600000000000012,1860,93,0.032331657,-0.03824686,0.0697551,-0.017703978,-0.43934113,0.04725519,-0.124078035,-0.044799503,-0.046088558,0.0,0.0,0.0,0.0,0.5,0.0,0.0,-0.0007991463,0.041308794,-0.043753274,0.07005986,0.22943997,0.055727214,-0.19164881,-0.11802886,0.15743744,0.05632617,-0.11728794,0.04597572,-0.080207095,0.20775771,0.09819439,-0.13376091,0.01869523,-0.06369912,0.013402505,-0.044239525,0.078590065,0.00649651,-0.17851609,0.11403013,-1.0,1.0,1.0,-1.0,-0.60697764,-1.0,-1.0,-0.5820234,1.0,1.0,-1.0,1.0,-1.0,-0.31588414,1.0,-0.48972106,-0.65091527,-1.0,-1.0,1.0,-1.0,1.0,-0.85486966,1.0
2025-07-21 16:01:10.570,1.8800000000000012,1880,94,-0.44833165,-0.21241821,-0.16506635,-0.07668899,-0.3928276,0.0069333087,-0.10687052,0.005636474,0.018474538,0.0,0.0,0.0,0.0,0.5,0.0,0.0,-0.039945103,0.061743904,-0.0028965827,0.02556199,0.20607819,0.033835545,-0.17973529,-0.08445741,0.092987396,0.083191365,-0.15043068,0.07045665,-0.044899844,-0.09657777,0.031999107,-0.021470655,-0.08126025,-0.075416625,0.02635561,0.20861897,-0.20003891,0.100361645,-0.041816,0.007021552,-1.0,-0.31588414,1.0,-0.48972106,-0.65091527,-1.0,-1.0,1.0,-1.0,1.0,-0.85486966,1.0,-1.0,1.0,1.0,-1.0,1.0,-1.0,1.0,1.0,-1.0,1.0,-1.0,1.0
2025-07-21 16:01:10.591,1.9000000000000012,1900,95,-0.22062263,-0.03960984,-0.24041168,-0.10105879,-0.12902327,-0.045100525,-0.026573585,0.025744747,-0.0073007545,0.0,0.0,0.0,0.0,0.5,0.0,0.0,-0.046116885,0.08626987,0.017720178,0.0045899483,0.23952226,0.0035466698,-0.130258,0.011482206,0.059947938,0.089752525,-0.18730457,0.07320755,-0.043597717,0.040074628,0.08158409,-0.05901038,0.09368842,-0.14757296,0.15403295,0.2543609,-0.16921198,-0.050492708,-0.12419107,-0.038226403,-1.0,1.0,1.0,-1.0,1.0,-1.0,1.0,1.0,-1.0,1.0,-1.0,1.0,-1.0,1.0,1.0,-1.0,-0.6367413,-1.0,1.0,-1.0,0.774328,1.0,1.0,1.0
2025-07-21 16:01:10.610,1.9200000000000013,1920,96,-0.108387,-0.2863713,-0.2764916,-0.124037154,-0.111891784,0.021348113,-0.059849504,0.04698199,-0.015240137,0.0,0.0,0.0,0.0,0.5,0.0,0.0,-0.066539325,0.13243419,0.029990997,-0.024390304,0.20040238,-0.02931611,-0.076800905,0.02372229,0.07159172,0.086398944,-0.19952703,0.089627035,-0.055389866,0.113978565,0.021718958,-0.013340067,-0.12520596,-0.033754162,0.14076352,-0.15718375,0.0469121,-0.052799996,0.0054267943,0.0055689644,-1.0,1.0,1.0,-1.0,-0.6367413,-1.0,1.0,-1.0,0.774328,1.0,1.0,1.0,-1.0,0.34494948,1.0,-0.20253414,-0.6858291,-1.0,0.6651236,1.0,-0.485528,1.0,-0.57499146,1.0
2025-07-21 16:01:10.631,1.9400000000000013,1940,97,-0.06676381,-0.23816411,-0.1218617,0.01781652,-0.05975395,-0.067662284,-0.05329143,0.005414661,-0.00152442,0.0,0.0,0.0,0.0,0.5,0.0,0.0,-0.06573294,0.14171223,0.053399783,-0.040029444,0.1243942,-0.05124836,-0.043792725,0.027563784,0.033888336,0.091023944,-0.18086678,0.08863096,0.048174124,-0.05313415,-0.006162665,0.0024520603,-0.1271992,-0.046812072,0.041852195,0.07984056,-0.07625583,0.07200727,-0.04188737,0.06468374,-1.0,0.34494948,1.0,-0.20253414,-0.6858291,-1.0,0.6651236,1.0,-0.485528,1.0,-0.57499146,1.0,-1.0,1.0,1.0,-0.705888,-0.5490726,-1.0,1.0,0.70451343,-1.0,1.0,0.70728844,1.0
2025-07-21 16:01:10.655,1.9600000000000013,1960,98,0.31661457,0.04794287,-0.30854356,-0.11916126,0.04288215,0.028448012,-0.0020012287,0.05516798,0.04476176,0.0,0.0,0.0,0.0,0.5,0.0,0.0,-0.07779332,0.18487522,0.055603053,-0.04835065,0.06319867,-0.06700571,-0.013269211,0.08382197,0.0007095051,0.097316206,-0.16700524,0.08346183,0.030165065,0.07425127,0.050999276,0.0042701773,-0.09192716,-0.10533148,0.050467636,0.034592353,-0.012692702,0.067128286,0.13433062,0.031294633,-1.0,1.0,1.0,-0.705888,-0.5490726,-1.0,1.0,0.70451343,-1.0,1.0,0.70728844,1.0,-1.0,-1.0,1.0,-0.2841108,-1.0,-1.0,1.0,-0.52498066,-1.0,0.13430668,-1.0,1.0
2025-07-21 16:01:10.671,1.9800000000000013,1980,99,-0.09164453,-0.23889837,-0.049325056,0.26179573,-0.07308015,-0.0017238597,-0.061645802,0.029281087,0.040748797,0.0,0.0,0.0,0.0,0.5,0.0,0.0,-0.080846265,0.17199232,0.06236129,-0.037885856,-0.01146832,-0.07541152,0.010076888,0.054122575,-0.027341403,0.100678466,-0.16877855,0.10122811,-0.07872736,-0.022116171,-0.006236041,-0.01814717,-0.19625269,0.02146397,0.037541267,-0.10206993,-0.07085421,-0.089804955,-0.0031770053,-0.03476774,-1.0,-1.0,1.0,-0.2841108,-1.0,-1.0,1.0,-0.52498066,-1.0,0.13430668,-1.0,1.0,-1.0,0.8469553,1.0,-0.65712124,1.0,1.0,1.0,1.0,-1.0,1.0,-0.7140774,1.0
2025-07-21 16:01:10.691,2.0000000000000013,2000,100,0.08000621,0.27486917,0.34871778,-0.010805429,0.120535776,-0.008352597,-0.05746513,0.003191806,-0.0058463207,0.0,0.0,0.0,0.0,0.5,0.0,0.0,-0.10302954,0.19742957,0.07181,-0.040862348,-0.06438028,-0.05765744,0.050999843,0.05927648,-0.05328981,0.09011176,-0.17495291,0.112861685,0.020797106,0.071741946,0.010372736,-0.07640489,-0.08669698,0.11162436,0.0034305681,0.12315161,0.010919849,0.01789967,-0.08533679,0.034712918,-1.0,0.8469553,1.0,-0.65712124,1.0,1.0,1.0,1.0,-1.0,1.0,-0.7140774,1.0,-1.0,-1.0,1.0,0.14190838,1.0,-1.0,1.0,-1.0,-1.0,-1.0,1.0,1.0
2025-07-21 16:01:10.711,2.0200000000000014,2020,101,0.21733965,0.11330459,0.116549745,-0.003434873,-0.113804206,0.10310903,-0.0427315,0.0071300967,0.003979963,0.0,0.0,0.0,0.0,0.5,0.0,0.0,-0.10532601,0.19891094,0.08777962,-0.039004594,-0.022752687,-0.08895559,0.064456195,0.052991495,-0.060432967,0.06256502,-0.15548506,0.11178676,0.024028756,-0.00028443395,-0.0030645102,0.032131463,0.213637,-0.101562805,0.083770365,-0.17419198,-0.0060187946,-0.079101555,0.11818086,-0.05589538,-1.0,-1.0,1.0,0.14190838,1.0,-1.0,1.0,-1.0,-1.0,-1.0,1.0,1.0,-1.0,-1.0,1.0,-1.0,-0.42263666,-0.7992558,1.0,0.7358811,-1.0,1.0,-1.0,1.0
2025-07-21 16:01:10.731,2.0400000000000014,2040,102,0.08057609,-0.0802131,0.36011508,0.21995048,0.11196521,0.048804466,-0.036453877,0.028113134,-0.011894363,0.0,0.0,0.0,0.0,0.5,0.0,0.0,-0.11293371,0.17801666,0.1041126,-0.06546573,-0.016047696,-0.08974862,0.08891767,0.062112868,-0.089558996,0.0739487,-0.14366904,0.12366864,0.044708446,-0.030893235,-0.026303964,-0.06413234,-0.02828067,-0.0092552295,0.06275389,0.16617386,-0.056674987,-0.038585838,-0.13308983,0.074677296,-1.0,-1.0,1.0,-1.0,-0.42263666,-0.7992558,1.0,0.7358811,-1.0,1.0,-1.0,1.0,-1.0,1.0,1.0,-0.032824725,-0.014323674,1.0,1.0,-1.0,-0.27734303,-0.71076286,1.0,1.0
2025-07-21 16:01:10.755,2.0600000000000014,2060,103,0.18320376,0.119840205,-0.13495576,0.042940523,-0.044585172,0.07956814,-0.037832882,0.099878,-0.003812532,0.0,0.0,0.0,0.0,0.5,0.0,0.0,-0.12925804,0.18703611,0.11142758,-0.058373176,-0.008119696,-0.049799003,0.100320205,0.054798167,-0.079987004,0.033053294,-0.123728015,0.116081215,0.057040554,0.04443126,0.066794135,-0.029814705,0.06287087,0.08133837,0.062176153,-0.19418979,0.022259707,-0.08282022,0.057603743,-0.07333541,-1.0,1.0,1.0,-0.032824725,-0.014323674,1.0,1.0,-1.0,-0.27734303,-0.71076286,1.0,1.0,1.0,-0.98614335,-1.0,1.0,-1.0,1.0,-1.0,-1.0,1.0,0.98855793,-0.056616146,-1.0
2025-07-21 16:01:10.771,2.0800000000000014,2080,104,0.050134707,0.18006131,-0.0036533254,0.12207346,0.5733844,-0.03472572,-0.026803782,0.017926706,-0.025384344,0.0,0.0,0.0,0.0,0.5,0.0,0.0,-0.07839938,0.20176466,0.058702175,-0.01973876,-0.039915644,-0.008704343,0.06437847,-0.038447034,-0.03457115,0.06959793,-0.10088759,0.06860325,0.06206602,0.039920907,-0.079780266,0.060603917,-0.1742869,0.018589972,-0.043821845,-0.22489047,0.13630028,0.026165573,-0.033883035,-0.15350603,1.0,-0.98614335,-1.0,1.0,-1.0,1.0,-1.0,-1.0,1.0,0.98855793,-0.056616146,-1.0,1.0,1.0,-1.0,1.0,1.0,1.0,-1.0,-1.0,1.0,-1.0,1.0,-1.0
2025-07-21 16:01:10.791,2.1000000000000014,2100,105,0.3024043,0.031757813,-0.35902625,-0.27545166,0.47217068,0.055043563,-0.107092455,-0.009169381,-0.019397937,0.0,0.0,0.0,0.0,0.5,0.0,0.0,-0.047550958,0.23296581,0.03641013,0.0063494383,-0.042965397,0.0040385737,0.026048373,-0.10237672,-0.0067010424,0.03779504,-0.049971864,0.03437892,0.058011837,0.08043238,-0.04573813,0.14684604,0.1041219,0.046326663,-0.019669753,-0.22331618,0.019119507,-0.06259014,0.27248538,-0.09761947,1.0,1.0,-1.0,1.0,1.0,1.0,-1.0,-1.0,1.0,-1.0,1.0,-1.0,1.0,-0.7296063,-1.0,0.9286087,-1.0,1.0,-1.0,0.24790862,1.0,0.2681626,1.0,-1.0
2025-07-21 16:01:10.811,2.1200000000000014,2120,106,0.13713977,0.36896786,-0.13893354,-0.2531639,0.44579098,0.05175715,-0.08886572,-0.055772893,-0.008127977,0.0,0.0,0.0,0.0,0.5,0.0,0.0,-2.5111323e-05,0.25510272,-0.0025720967,0.026636245,-0.037992816,0.022820001,-0.017502647,-0.102577284,0.027642103,0.0369012,0.035452537,0.011445761,0.17133646,-0.067835435,-0.087028265,0.045810487,-0.0991965,0.04141063,-0.15566018,0.022122186,0.06551999,-0.002377796,0.22908263,-0.10648196,1.0,-0.7296063,-1.0,0.9286087,-1.0,1.0,-1.0,0.24790862,1.0,0.2681626,1.0,-1.0,1.0,-1.0,-1.0,1.0,1.0,1.0,-1.0,-1.0,1.0,-1.0,0.69034624,-1.0
2025-07-21 16:01:10.831,2.1400000000000015,2140,107,-0.042457696,0.19234169,-0.2495523,-0.088701494,0.103245184,0.14997353,-0.11458094,-0.020562613,0.047728993,0.0,0.0,0.0,0.0,0.5,0.0,0.0,0.022293415,0.23114777,-0.02601712,0.05047842,-0.022748927,0.03628602,-0.028203677,-0.110398404,0.047685098,-0.0075747534,0.08632,-0.032434538,0.11947494,-0.08787614,-0.099446915,0.09306189,0.12161245,0.08419528,-0.047198065,-0.0005662535,0.06863058,-0.011447895,0.14041373,-0.096544236,1.0,-1.0,-1.0,1.0,1.0,1.0,-1.0,-1.0,1.0,-1.0,0.69034624,-1.0,1.0,-1.0,0.32055557,1.0,0.01844994,1.0,-1.0,-0.9294579,1.0,-0.7320571,-1.0,-1.0
2025-07-21 16:01:10.856,2.1600000000000015,2160,108,-0.30130523,-0.09599407,0.027579421,0.18107277,0.22326441,0.14263287,-0.061658125,-0.03155853,-0.00405964,0.0,0.0,0.0,0.0,0.5,0.0,0.0,0.053460624,0.18888578,-0.024218148,0.06416152,-0.018283617,0.061532203,-0.030985788,-0.14684848,0.063998654,-0.015972309,0.052248884,-0.0354483,-0.013939662,-0.121529706,-0.03518675,-0.012759874,0.023171542,0.05877702,-0.035510827,-0.056194894,0.06106826,-0.00040766463,-0.13875604,-0.067511365,1.0,-1.0,0.32055557,1.0,0.01844994,1.0,-1.0,-0.9294579,1.0,-0.7320571,-1.0,-1.0,1.0,1.0,-1.0,1.0,1.0,1.0,-1.0,0.9894291,1.0,-1.0,-1.0,-1.0
2025-07-21 16:01:10.871,2.1800000000000015,2180,109,-0.04978263,0.01879479,-0.16833468,-0.18964154,0.045034714,-0.08682059,-0.1487895,-0.07742222,-0.018515235,0.0,0.0,0.0,0.0,0.5,0.0,0.0,0.06320879,0.20243035,-0.04215855,0.06173539,0.007911907,0.06928578,-0.05831181,-0.13688982,0.07173759,-0.04568811,-0.027815886,-0.064263165,0.028561236,0.09938903,-0.0069939615,0.10313094,0.1948971,-0.030390171,-0.006388162,0.150544,-0.02356534,-0.036355358,-0.20386235,-0.032178853,1.0,1.0,-1.0,1.0,1.0,1.0,-1.0,0.9894291,1.0,-1.0,-1.0,-1.0,1.0,-1.0,-1.0,1.0,-1.0,1.0,-1.0,-1.0,1.0,-1.0,1.0,-1.0
2025-07-21 16:01:10.891,2.2000000000000015,2200,110,-0.120345175,0.033529654,0.3745654,0.111126594,0.047283873,0.066688016,-0.07929579,-0.14011127,0.00060584897,0.0,0.0,0.0,0.0,0.5,0.0,0.0,0.073481485,0.20365278,-0.056427322,0.06812216,0.014160911,0.086100474,-0.05768689,-0.12631604,0.096332125,-0.0716029,-0.039699618,-0.086301126,-0.017353347,-0.0045380085,-0.06814418,-0.0039654486,-0.00066359603,-0.018473338,-0.07580588,-0.09463318,-0.03660717,-0.00947565,0.03221899,0.023755064,1.0,-1.0,-1.0,1.0,-1.0,1.0,-1.0,-1.0,1.0,-1.0,1.0,-1.0,0.75751054,-1.0,-1.0,1.0,1.0,1.0,-1.0,1.0,1.0,1.0,1.0,0.11000916
2025-07-21 16:01:10.911,2.2200000000000015,2220,111,0.09271142,-0.000392255,0.059790436,-0.040359065,-0.062276043,0.038990818,-0.1104084,-0.13426219,0.016770357,0.0,0.0,0.0,0.0,0.5,0.0,0.0,0.101518914,0.18155941,-0.07610903,0.08226492,0.045857307,0.08277056,-0.06898125,-0.1029654,0.09503731,-0.029422555,0.01668648,-0.0681147,0.019912729,-0.14810728,0.0031318718,0.051374577,0.19712743,0.08302852,-0.022025479,0.045574497,-0.019864297,0.12750515,0.14930074,0.0118902465,0.75751054,-1.0,-1.0,1.0,1.0,1.0,-1.0,1.0,1.0,1.0,1.0,0.11000916,1.0,-1.0,-1.0,1.0,-1.0,1.0,-1.0,-1.0,1.0,1.0,-1.0,-1.0
2025-07-21 16:01:10.931,2.2400000000000015,2240,112,-0.23631822,-0.047338016,0.4541322,0.2906465,0.10552695,0.051607627,-0.151731,-0.12272275,-0.035424553,0.0,0.0,0.0,0.0,0.5,0.0,0.0,0.103490405,0.124623135,-0.097185194,0.089120604,0.04887634,0.10064943,-0.08826882,-0.12050856,0.1125824,2.0894784e-05,0.023352705,-0.080702804,0.098137505,-0.1545219,0.03922127,0.07744578,-0.018755252,0.03573162,-0.044548117,-0.044167668,0.06763822,0.027365115,-0.110266864,-0.102629684,1.0,-1.0,-1.0,1.0,-1.0,1.0,-1.0,-1.0,1.0,1.0,-1.0,-1.0,0.43413565,-1.0,-0.9943881,1.0,0.55723864,1.0,-1.0,1.0,1.0,0.5824552,0.30612752,1.0
2025-07-21 16:01:10.953,2.2600000000000016,2260,113,-0.21561638,-0.14917746,0.43511164,0.026998017,-0.06308022,0.07714287,-0.14911011,-0.047266006,-0.032261245,0.0,0.0,0.0,0.0,0.5,0.0,0.0,0.09804059,0.098264664,-0.09743276,0.10226822,0.06855991,0.09339621,-0.10392187,-0.10875025,0.10083188,0.018368265,0.03193545,-0.04262119,-0.08446946,-0.024399027,0.0044584307,-0.00090810546,0.02966334,-0.014578792,-0.08789206,0.13130043,0.05961396,-0.030782387,0.06475562,0.15095955,0.43413565,-1.0,-0.9943881,1.0,0.55723864,1.0,-1.0,1.0,1.0,0.5824552,0.30612752,1.0,1.0,-0.02488387,0.15350652,1.0,1.0,-0.3642379,-1.0,-0.74798775,1.0,1.0,-1.0,1.0
2025-07-21 16:01:10.972,2.2800000000000016,2280,114,-0.34441984,-0.0072555575,-0.02687434,0.015322292,0.051106356,0.005275986,-0.17276226,-0.073435456,-0.023812635,0.0,0.0,0.0,0.0,0.5,0.0,0.0,0.12036294,0.063696206,-0.090762734,0.115926065,0.11111769,0.061308216,-0.10016754,-0.119557515,0.108142,0.035632428,-0.0010369542,0.003657922,0.03135662,-0.0034801215,0.016530389,0.093737684,0.19292976,-0.08834968,-0.05809682,-0.12484949,0.022612046,0.06455551,-0.21171838,0.08007347,1.0,-0.02488387,0.15350652,1.0,1.0,-0.3642379,-1.0,-0.74798775,1.0,1.0,-1.0,1.0,-1.0,1.0,1.0,-1.0,-1.0,-1.0,0.8032582,1.0,1.0,1.0,0.7125603,1.0
2025-07-21 16:01:10.992,2.3000000000000016,2300,115,-0.17559005,-0.034105062,-0.2123346,-0.33718973,-0.4335637,0.04954681,-0.10356268,-0.101560585,-0.040379293,0.0,0.0,0.0,0.0,0.5,0.0,0.0,0.07311888,0.09539889,-0.058775675,0.07746077,0.12436681,0.03738343,-0.105518095,-0.11662141,0.11162242,0.07019294,-0.018442897,0.01890503,-0.103815354,0.10579711,0.08375683,-0.07691953,-0.07101528,-0.121762045,0.065684065,0.1337198,0.006701536,0.07476237,0.08377423,0.1020897,-1.0,1.0,1.0,-1.0,-1.0,-1.0,0.8032582,1.0,1.0,1.0,0.7125603,1.0,-1.0,0.15876317,1.0,0.06686193,-1.0,-1.0,-1.0,-1.0,-0.15449786,1.0,-1.0,1.0
2025-07-21 16:01:11.012,2.3200000000000016,2320,116,-0.2698418,0.008264785,-0.1004805,-0.02580503,-0.48718804,0.038249116,-0.080097996,-0.05499459,-0.0027710244,0.0,0.0,0.0,0.0,0.5,0.0,0.0,0.045418747,0.082516715,-0.026143713,0.056154214,0.054712713,-0.006615261,-0.11530733,-0.11322966,0.1025591,0.08901054,-0.015561098,0.047365446,-0.050175652,-0.082665056,0.03609754,0.04107831,-0.2913945,-0.10325715,0.036242098,-0.17270346,-0.059147507,0.09145662,-0.13354513,0.11030576,-1.0,0.15876317,1.0,0.06686193,-1.0,-1.0,-1.0,-1.0,-0.15449786,1.0,-1.0,1.0,-1.0,1.0,1.0,-0.98359996,1.0,-1.0,1.0,1.0,-1.0,1.0,-1.0,1.0
2025-07-21 16:01:11.032,2.3400000000000016,2340,117,-0.0223758,-0.384165,-0.62761503,-0.3801869,-0.59045553,0.0017807165,-0.06330118,-0.04945763,-0.012208596,0.0,0.0,0.0,0.0,0.5,0.0,0.0,0.016573818,0.11088325,-0.001676505,0.029729446,0.033541225,-0.02287355,-0.07770057,-0.088032044,0.05976604,0.10670108,-0.090838335,0.06623941,-0.15368293,0.12802692,0.119214796,-0.13979848,0.116432935,-0.08290107,0.04463362,0.178282,-0.15071517,0.100365646,-0.19907604,0.0852397,-1.0,1.0,1.0,-0.98359996,1.0,-1.0,1.0,1.0,-1.0,1.0,-1.0,1.0,-1.0,-1.0,1.0,-1.0,-1.0,0.9412361,1.0,1.0,-1.0,1.0,0.69431865,1.0
2025-07-21 16:01:11.055,2.3600000000000017,2360,118,0.027553705,-0.2354196,-0.6189807,-0.2924893,-0.1668184,0.13747355,-0.028867112,0.052209206,0.000979429,0.0,0.0,0.0,0.0,0.5,0.0,0.0,-0.014773778,0.12354271,0.022481725,-0.0076608416,0.015357818,-0.0073705465,-0.036751967,-0.006226876,0.017793769,0.10354879,-0.099525675,0.06416847,-0.03162867,-0.039614853,0.048774958,-0.022179117,-0.09421627,0.100529365,0.07345784,0.27142963,-0.03302973,-0.019774323,0.1210825,-0.035770033,-1.0,-1.0,1.0,-1.0,-1.0,0.9412361,1.0,1.0,-1.0,1.0,0.69431865,1.0,-1.0,-1.0,1.0,1.0,0.2853907,1.0,1.0,-1.0,1.0,-0.048007593,-1.0,1.0
2025-07-21 16:01:11.072,2.3800000000000017,2380,119,-0.19068156,0.11909978,0.033305492,0.036810964,-0.08049412,0.11047076,-0.006287022,-0.028420383,0.049531057,0.0,0.0,0.0,0.0,0.5,0.0,0.0,-0.0357951,0.10947624,0.060096852,-0.014512465,0.029590689,0.011046098,-0.0034237397,-0.002881528,0.03906641,0.097125925,-0.087358534,0.08968924,-0.03585561,-0.09454332,0.044670712,0.07012782,-0.04230478,0.017968565,0.0018196442,-0.18041718,0.025460292,0.034413878,-0.033955943,0.08478876,-1.0,-1.0,1.0,1.0,0.2853907,1.0,1.0,-1.0,1.0,-0.048007593,-1.0,1.0,-1.0,1.0,1.0,1.0,1.0,-1.0,-1.0,0.122784525,1.0,1.0,-1.0,-1.0
2025-07-21 16:01:11.092,2.4000000000000017,2400,120,0.12576048,0.07072357,0.16000034,-0.008935237,-0.051959395,-0.07701316,0.023664929,0.01331349,0.010347067,0.0,0.0,0.0,0.0,0.5,0.0,0.0,-0.04165259,0.11051586,0.074004754,0.014607082,0.07941123,-0.020312047,-0.013551645,-0.0020237162,0.05346411,0.10292147,-0.10060257,0.045053575,-0.09199608,0.042800765,0.025586646,0.09064913,0.13097303,-0.05534988,-0.06930295,0.055721212,-0.039264243,0.062292647,0.031201892,-0.104677245,-1.0,1.0,1.0,1.0,1.0,-1.0,-1.0,0.122784525,1.0,1.0,-1.0,-1.0,-1.0,-0.5676154,1.0,-1.0,0.22455725,-0.10363352,1.0,-1.0,1.0,1.0,-1.0,1.0
2025-07-21 16:01:11.112,2.4200000000000017,2420,121,-0.12921676,-0.08046042,0.3293716,0.35495916,0.03248885,0.15042804,0.020056203,-0.02312701,-0.021746797,0.0,0.0,0.0,0.0,0.5,0.0,0.0,-0.05302605,0.10558447,0.07188624,-0.0063681044,0.073400214,-0.013895732,0.0080153635,-0.04718349,0.07215217,0.11579595,-0.13500379,0.06843579,-0.013235187,-0.032086994,0.046401713,-0.10290072,-0.016480422,0.024131855,0.027054396,-0.20167969,0.011038071,0.03489584,-0.09178575,0.050442994,-1.0,-0.5676154,1.0,-1.0,0.22455725,-0.10363352,1.0,-1.0,1.0,1.0,-1.0,1.0,-1.0,1.0,1.0,-0.80126035,-0.7009558,-1.0,-1.0,1.0,1.0,1.0,-0.74267787,1.0
2025-07-21 16:01:11.238,2.4400000000000017,2440,122,-0.0037430888,0.18424444,0.043914456,0.100386485,0.06532917,0.017535366,-0.03966754,0.048603494,-0.03987165,0.0,0.0,0.0,0.0,0.5,0.0,0.0,-0.08136575,0.11045818,0.08263228,-0.03444572,0.042145,-0.050233074,-0.022517813,-0.05167109,0.08790682,0.11872401,-0.16800971,0.07160903,-0.08691353,0.1203327,0.008742156,0.016426465,-0.14783661,-0.06742819,-0.026243756,0.05964714,0.06665019,0.0601808,-0.021846004,0.025449052,-1.0,1.0,1.0,-0.80126035,-0.7009558,-1.0,-1.0,1.0,1.0,1.0,-0.74267787,1.0,-1.0,-1.0,1.0,-0.28352267,-0.40134797,-1.0,-1.0,0.14092734,-1.0,1.0,-1.0,1.0
2025-07-21 16:01:11.254,2.4600000000000017,2460,123,-0.02546074,-0.014368403,0.26840633,0.26946244,-0.04955074,0.078021996,-0.050050754,0.014981296,0.0048092706,0.0,0.0,0.0,0.0,0.5,0.0,0.0,-0.08507308,0.0951724,0.09053845,-0.02603709,0.0049111405,-0.06412302,-0.05369547,-0.022736108,0.044668272,0.10888784,-0.20741579,0.082338706,0.013053293,-0.1186428,-0.030808322,-0.06055626,-0.11196796,-0.11974154,-0.05422772,-0.01921243,-0.094441414,-0.027332384,-0.05350195,-0.014504926,-1.0,-1.0,1.0,-0.28352267,-0.40134797,-1.0,-1.0,0.14092734,-1.0,1.0,-1.0,1.0,-1.0,1.0,1.0,-1.0,1.0,-1.0,1.0,1.0,-1.0,-0.79246676,0.19599216,1.0
2025-07-21 16:01:11.274,2.4800000000000018,2480,124,0.27215388,-0.05036044,0.053913504,-0.06697463,-0.25079942,0.0823674,-0.040953513,0.07213794,-0.018835586,0.0,0.0,0.0,0.0,0.5,0.0,0.0,-0.10471646,0.116894126,0.09928925,-0.049950443,0.033709288,-0.07710242,-0.027912894,0.041290697,0.0100921905,0.07478139,-0.18929748,0.08393745,0.03647707,0.073237725,0.06723131,-0.122012675,0.24079734,0.023967925,0.060077015,0.15488847,-0.0804143,-0.044564098,0.1365686,0.029191855,-1.0,1.0,1.0,-1.0,1.0,-1.0,1.0,1.0,-1.0,-0.79246676,0.19599216,1.0,-1.0,-1.0,1.0,-1.0,-1.0,0.6773737,1.0,-0.13108437,0.8379111,1.0,-0.5805623,1.0
2025-07-21 16:01:11.294,2.5000000000000018,2500,125,0.029598728,-0.2900542,-0.120490365,0.21639358,0.022966417,0.10390243,-0.080697514,0.10212601,0.045660798,0.0,0.0,0.0,0.0,0.5,0.0,0.0,-0.107747346,0.13822152,0.095541716,-0.07303392,0.019511862,-0.045058265,0.011704099,0.031504508,0.030709011,0.07265291,-0.20393671,0.09184865,0.048697226,-0.11402254,-0.03990161,0.012753764,-0.10325233,0.15220328,0.10546602,-0.0823605,-0.024115087,0.0859962,-0.07669043,-0.05095389,-1.0,-1.0,1.0,-1.0,-1.0,0.6773737,1.0,-0.13108437,0.8379111,1.0,-0.5805623,1.0,-1.0,1.0,1.0,1.0,-0.7912086,0.2712596,-0.073619485,0.38167134,0.13562226,1.0,0.2512708,1.0
2025-07-21 16:01:11.314,2.520000000000002,2520,126,0.16954671,-0.14939617,-0.14047334,-0.11138436,0.16813692,-0.069819786,-0.040362112,0.06090005,0.0030160164,0.0,0.0,0.0,0.0,0.5,0.0,0.0,-0.115631945,0.14672403,0.11166125,-0.055326805,-0.025065122,-0.02831595,0.0043677073,0.061649382,0.026584674,0.094418,-0.17574115,0.09552739,0.032178987,0.13000152,-0.016787594,0.0676371,-0.17817055,0.09344748,-0.061551385,0.1100403,0.019154107,-0.0037632415,0.1866731,0.07192187,-1.0,1.0,1.0,1.0,-0.7912086,0.2712596,-0.073619485,0.38167134,0.13562226,1.0,0.2512708,1.0,-1.0,-1.0,1.0,1.0,1.0,1.0,1.0,-1.0,-1.0,1.0,-1.0,1.0
2025-07-21 16:01:11.337,2.540000000000002,2540,127,-0.07701994,0.13496631,-0.020217236,0.09787838,0.13306764,0.09029982,-0.029753512,0.001898425,0.027620213,0.0,0.0,0.0,0.0,0.5,0.0,0.0,-0.0962931,0.16837981,0.11574072,-0.023415444,-0.045150615,0.0003873284,0.03590848,0.011191818,0.009721547,0.109282926,-0.16166663,0.11781001,0.07389931,0.035140593,-0.020398565,0.03712818,0.018736407,-0.0034444893,0.054583833,-0.18680319,-0.10861087,-0.015576824,-0.11839273,0.061574552,-1.0,-1.0,1.0,1.0,1.0,1.0,1.0,-1.0,-1.0,1.0,-1.0,1.0,-1.0,-1.0,1.0,0.9012763,1.0,-1.0,0.6683989,1.0,-0.43664676,1.0,-1.0,1.0
2025-07-21 16:01:11.355,2.560000000000002,2560,128,0.14607215,-0.03332608,0.22211927,0.07373586,0.049531482,0.015234485,-0.095961496,0.0824976,0.0077313213,0.0,0.0,0.0,0.0,0.5,0.0,0.0,-0.10070616,0.1450689,0.11851506,0.004791767,0.006018646,-0.033126142,0.042197425,-0.0075607984,-0.02256708,0.12175756,-0.20260075,0.1303172,-0.04965027,-0.05386332,0.051486295,0.084741,0.20342039,-0.063824825,0.07236297,0.08213036,-0.028572183,-0.042388972,-0.039058805,-0.041848738,-1.0,-1.0,1.0,0.9012763,1.0,-1.0,0.6683989,1.0,-0.43664676,1.0,-1.0,1.0,-1.0,-1.0,1.0,-1.0,-0.9799783,0.6543794,1.0,1.0,-1.0,1.0,1.0,1.0
2025-07-21 16:01:11.375,2.580000000000002,2580,129,-0.26554886,0.26351947,0.14422373,-0.060805514,-0.095228754,0.15118562,-0.013739163,0.02301413,-0.002514097,0.0,0.0,0.0,0.0,0.5,0.0,0.0,-0.123519264,0.13547277,0.13768098,-0.016176628,0.019519454,-0.015376119,0.06081094,0.058229726,-0.03516275,0.119686216,-0.18877181,0.12218104,0.041999876,-0.06389731,-0.03863963,-0.11636376,-0.030038271,0.030452657,0.053733494,0.10062708,-0.08052197,-0.013080908,0.16694756,-0.00404341,-1.0,-1.0,1.0,-1.0,-0.9799783,0.6543794,1.0,1.0,-1.0,1.0,1.0,1.0,-1.0,-1.0,1.0,1.0,1.0,-1.0,0.57914454,-0.8292457,0.77285147,-1.0,0.44657758,1.0
2025-07-21 16:01:11.395,2.600000000000002,2600,130,-0.1882519,-0.0003487183,0.44210848,-0.021040412,-0.07334534,0.15551054,-0.070379116,0.049202457,0.044991244,0.0,0.0,0.0,0.0,0.5,0.0,0.0,-0.12283626,0.085804984,0.14232238,-0.00010976132,0.05039702,-0.051276173,0.06353286,0.0647304,-0.017223997,0.09538748,-0.12948231,0.12462715,0.031704675,-0.12865399,2.939076e-05,0.08157129,0.13526852,-0.021862563,0.06687045,-0.14493738,0.11543166,-0.10358082,0.16535415,-0.033372987,-1.0,-1.0,1.0,1.0,1.0,-1.0,0.57914454,-0.8292457,0.77285147,-1.0,0.44657758,1.0,-1.0,1.0,1.0,-1.0,-0.6429346,1.0,-1.0,0.64996064,1.0,1.0,-1.0,1.0
2025-07-21 16:01:11.415,2.620000000000002,2620,131,0.15744187,-0.03056949,0.14780816,0.0031959603,-0.031776145,0.06110658,-0.0346515,0.09615849,0.029299121,0.0,0.0,0.0,0.0,0.5,0.0,0.0,-0.13912953,0.09931733,0.14240207,-0.032995168,0.036651433,-0.016141847,0.029269617,0.06103362,0.0069613713,0.09135912,-0.13333341,0.1254987,0.02539559,0.105255395,-0.020725746,-0.09132432,-0.12003927,0.14114356,-0.16682693,0.024542991,-0.0071094884,0.100080535,-0.12551454,0.024404762,-1.0,1.0,1.0,-1.0,-0.6429346,1.0,-1.0,0.64996064,1.0,1.0,-1.0,1.0,-0.25970224,0.7202754,-1.0,1.0,-1.0,1.0,-1.0,-1.0,1.0,-0.35020316,0.10847215,1.0
2025-07-21 16:01:11.437,2.640000000000002,2640,132,-0.22539891,0.025056731,-0.26464397,-0.03585199,0.37269104,-0.088313535,-0.11040944,0.050665766,0.029093055,0.0,0.0,0.0,0.0,0.5,0.0,0.0,-0.114783555,0.14381497,0.08689119,-0.0110395225,0.0083830105,0.020078497,0.012853196,0.050412998,0.041497182,0.07712054,-0.12677066,0.14045615,0.050497383,0.09319103,-0.07211299,0.05242437,-0.044669576,0.0321484,-0.092609234,-0.116449475,0.11343926,-0.05505294,0.13800313,0.060193893,-0.25970224,0.7202754,-1.0,1.0,-1.0,1.0,-1.0,-1.0,1.0,-0.35020316,0.10847215,1.0,1.0,0.21805,-1.0,1.0,1.0,1.0,-1.0,-1.0,1.0,1.0,0.39051518,0.67545974
2025-07-21 16:01:11.455,2.660000000000002,2660,133,0.054301456,0.22383156,-0.058464002,-0.14622302,0.53881484,0.03354156,-0.07187032,0.0073985183,-0.025932398,0.0,0.0,0.0,0.0,0.5,0.0,0.0,-0.07756373,0.14297535,0.040665466,0.020344371,0.0040885797,0.03335567,-0.024952874,-0.01849284,0.05971126,0.08790309,-0.08395182,0.13363543,0.16190173,-0.008646104,-0.032334693,-0.0021040947,0.0967288,0.029007033,-0.020338459,-0.13630302,0.090492636,0.014438362,0.055210147,0.0255817,1.0,0.21805,-1.0,1.0,1.0,1.0,-1.0,-1.0,1.0,1.0,0.39051518,0.67545974,1.0,0.5796994,-1.0,1.0,-1.0,1.0,-1.0,-1.0,1.0,-1.0,1.0,-1.0
2025-07-21 16:01:11.475,2.680000000000002,2680,134,-0.27391413,0.21734434,-0.50857407,-0.19035605,0.43486747,0.016558576,-0.016696425,-0.062282313,0.036866557,0.0,0.0,0.0,0.0,0.5,0.0,0.0,-0.03264722,0.16226752,0.01459553,0.034943197,0.0063416674,0.055577196,-0.050333958,-0.096320875,0.07172237,0.059564773,0.0015266726,0.078982465,0.09257587,0.057724547,-0.042323444,0.12801635,-0.022076545,0.105528414,0.012440971,-0.20465465,0.01793969,-0.1075631,0.1627303,-0.091888115,1.0,0.5796994,-1.0,1.0,-1.0,1.0,-1.0,-1.0,1.0,-1.0,1.0,-1.0,1.0,-0.88111943,-1.0,1.0,1.0,1.0,-1.0,-0.8056147,1.0,-0.5003456,0.7233567,-1.0
2025-07-21 16:01:11.495,2.700000000000002,2700,135,-0.5171198,0.11997846,-0.44443607,-0.051304363,0.084605165,0.091573596,-0.072206974,-0.059069168,0.027312515,0.0,0.0,0.0,0.0,0.030466205,0.0,0.0,-0.00562525,0.16611704,-0.014757246,0.06524714,0.013235939,0.057575904,-0.066957824,-0.14010297,0.08838287,0.028057005,0.05457943,0.044564325,0.05044907,-0.12684433,-0.03245121,0.0014538264,0.017426277,0.00065954385,-0.0029294842,-0.130035,0.016679797,-0.04615595,0.124980465,-0.104162365,1.0,-0.88111943,-1.0,1.0,1.0,1.0,-1.0,-0.8056147,1.0,-0.5003456,0.7233567,-1.0,1.0,1.0,-1.0,1.0,1.0,1.0,-1.0,0.30729583,1.0,-1.0,-1.0,-1.0
2025-07-21 16:01:11.520,2.720000000000002,2720,136,0.1327925,0.24311194,-0.25608224,-0.1241056,0.020160768,-0.12537679,-0.037386365,-0.0924873,0.041935936,0.0,0.0,0.0,0.0,0.023598555,0.0,0.0,0.021337818,0.19065745,-0.053512596,0.07146841,0.06523725,0.065375626,-0.056082264,-0.12403844,0.08996145,-0.002644932,0.043005172,0.0053104623,0.12280529,0.090923436,-0.015881967,0.04217887,0.15573058,0.0790815,-0.029362239,0.1532095,0.056533698,-0.122260004,-0.12164382,-0.12783517,1.0,1.0,-1.0,1.0,1.0,1.0,-1.0,0.30729583,1.0,-1.0,-1.0,-1.0,1.0,-1.0,-1.0,1.0,-1.0,1.0,-1.0,-1.0,1.0,-1.0,1.0,-1.0
2025-07-21 16:01:11.536,2.740000000000002,2740,137,-0.39848506,0.1759667,-0.24152152,0.1839493,-0.051464926,-0.015880315,0.0039306316,-0.04219332,0.017989868,0.0,0.0,0.0,0.0,0.019101385,0.0,0.0,0.03767482,0.18210419,-0.06907969,0.07162975,0.08076298,0.08330985,-0.081464104,-0.105902165,0.10439358,-0.03050482,0.040279888,-0.018500233,0.06852714,-0.082209215,-0.11191321,0.043570127,-0.06715626,-0.03726503,0.048316162,-0.052851386,-0.037616406,0.016729709,0.022548083,-0.13629563,1.0,-1.0,-1.0,1.0,-1.0,1.0,-1.0,-1.0,1.0,-1.0,1.0,-1.0,1.0,-0.59897745,-1.0,1.0,1.0,1.0,-1.0,-1.0,1.0,1.0,0.98458344,-1.0
2025-07-21 16:01:11.555,2.760000000000002,2760,138,-0.39261442,-0.12634571,0.098823346,0.26905698,-0.087559834,0.10560217,-0.06714675,-0.07369385,-0.027917786,0.0,0.0,0.0,0.0,0.01603778,0.0,0.0,0.0599588,0.12942652,-0.087061636,0.07614176,0.095154285,0.07782865,-0.072311945,-0.1382764,0.111987256,-0.001625923,0.10592973,-0.04584253,0.07896327,-0.12645307,-0.10199053,0.059387602,0.1215423,-0.027029857,0.018984096,-0.06968881,0.022692489,0.06839961,0.19852921,-0.10257645,1.0,-0.59897745,-1.0,1.0,1.0,1.0,-1.0,-1.0,1.0,1.0,0.98458344,-1.0,1.0,-1.0,-1.0,1.0,-0.20208165,1.0,-1.0,1.0,1.0,-0.17721568,-1.0,-1.0
2025-07-21 16:01:11.575,2.780000000000002,2780,139,-0.5770471,0.18255492,0.42468172,0.2268887,0.06968706,-0.007438301,-0.08237574,-0.080203675,-0.036029454,0.0,0.0,0.0,0.0,0.013893739,0.0,0.0,0.07601697,0.081158824,-0.08152921,0.08911425,0.0973749,0.08739698,-0.08559402,-0.1403485,0.10977098,-0.004463613,0.09763931,-0.06492479,-0.021091409,-0.18491165,-0.02019562,0.08695098,-0.13687742,0.053359773,-0.0049099233,0.02334158,0.033876557,-0.03231183,-0.16870616,0.008717091,1.0,-1.0,-1.0,1.0,-0.20208165,1.0,-1.0,1.0,1.0,-0.17721568,-1.0,-1.0,1.0,1.0,-1.0,1.0,1.0,1.0,-1.0,-1.0,1.0,-0.64247674,0.41496745,-1.0
2025-07-21 16:01:11.595,2.800000000000002,2800,140,-0.3021252,0.17380187,-0.08166626,0.13446203,0.075416416,0.06258126,-0.08498024,-0.0368329,0.026841814,0.0,0.0,0.0,0.0,0.0123714525,0.0,0.0,0.09470852,0.0760643,-0.113592,0.08542918,0.10525464,0.098359674,-0.10110951,-0.1346837,0.11802219,-0.016146412,0.08803868,-0.08406571,0.05743912,0.116889365,-0.05233782,-0.048259445,0.053604696,-0.015167668,-0.040613748,-0.08118874,-0.02677916,-0.11086478,0.09095292,-0.04905701,1.0,1.0,-1.0,1.0,1.0,1.0,-1.0,-1.0,1.0,-0.64247674,0.41496745,-1.0,1.0,-1.0,-0.3711729,1.0,1.0,1.0,-1.0,0.27055946,1.0,-0.78698814,-1.0,-1.0
2025-07-21 16:01:11.615,2.820000000000002,2820,141,-0.11656625,-0.14436135,0.14628875,0.028751787,0.07421544,-0.04227128,-0.109698676,-0.07474079,0.045863945,0.0,0.0,0.0,0.0,0.011291096,0.0,0.0,0.10952574,0.076138005,-0.088205345,0.09509761,0.14187671,0.10477787,-0.10317465,-0.1238489,0.11530186,-0.032868538,0.05924256,-0.08753745,0.011559842,-0.16243984,-0.015416302,0.08496833,0.19647574,-0.05634738,-0.01481748,0.11891797,-0.030496128,0.021714084,-0.22842042,0.001890092,1.0,-1.0,-0.3711729,1.0,1.0,1.0,-1.0,0.27055946,1.0,-0.78698814,-1.0,-1.0,0.5832392,1.0,-1.0,1.0,-1.0,1.0,-1.0,-1.0,1.0,0.71247154,1.0,-0.51624095
2025-07-21 16:01:11.636,2.840000000000002,2840,142,-0.05855845,0.22680211,0.07703475,0.13191396,0.02631062,-0.010692811,-0.15003933,-0.053695414,-0.032166105,0.0,0.0,0.0,0.0,0.010541213,0.0,0.0,0.10947444,0.08598828,-0.10282875,0.10195291,0.15479249,0.10284982,-0.10870741,-0.1139519,0.1218301,-0.006387034,0.031475563,-0.09323676,0.06283251,0.11299555,-0.06433207,-0.005309475,-0.07053219,-0.001640055,-0.009499568,0.017752474,0.03899365,0.020355396,0.14208636,0.059730906,0.5832392,1.0,-1.0,1.0,-1.0,1.0,-1.0,-1.0,1.0,0.71247154,1.0,-0.51624095,1.0,-1.0,-1.0,1.0,1.0,1.0,-1.0,-1.0,1.0,-1.0,-0.11598833,-1.0
2025-07-21 16:01:11.656,2.860000000000002,2860,143,0.015523271,0.06995527,-0.01504586,0.24535532,0.004990992,0.14367846,-0.124189876,-0.096756324,-0.042332638,0.0,0.0,0.0,0.0,0.010052406,0.0,0.0,0.114089645,0.0722349,-0.10491393,0.111759454,0.17353138,0.105925396,-0.11129611,-0.15872976,0.13057934,-0.030632054,0.02266442,-0.102722526,0.051875077,-0.05110542,-0.05976699,0.033639133,0.14657234,0.017946342,-0.04908092,-0.14575784,0.064790525,-0.088145055,-0.03874368,-0.044453073,1.0,-1.0,-1.0,1.0,1.0,1.0,-1.0,-1.0,1.0,-1.0,-0.11598833,-1.0,-0.1436999,-1.0,1.0,1.0,-1.0,1.0,-1.0,1.0,1.0,0.4463054,-0.69636583,-1.0
2025-07-21 16:01:11.676,2.880000000000002,2880,144,-0.21515308,-0.009388353,0.28825352,-0.0042207944,-0.11637773,0.028117537,-0.15864755,-0.070007175,0.047058444,0.0,0.0,0.0,0.0,0.00978298,0.0,0.0,0.116267994,0.01850454,-0.081985444,0.101516716,0.18221167,0.119859174,-0.114762686,-0.14536609,0.12922934,-0.012208052,-0.0058635785,-0.11622197,-0.04581189,-0.11244866,0.13510402,-0.076583855,-0.10382556,-0.032332595,0.038442764,0.090763256,-0.024377307,0.09185194,-0.19992314,0.030326791,-0.1436999,-1.0,1.0,1.0,-1.0,1.0,-1.0,1.0,1.0,0.4463054,-0.69636583,-1.0,-1.0,1.0,-0.89119697,1.0,1.0,1.0,-1.0,-1.0,1.0,-0.59082866,0.6723519,0.44164643
2025-07-21 16:01:11.696,2.900000000000002,2900,145,-0.036337886,0.0478425,0.10254197,-0.15126938,-0.2300199,0.11949193,-0.16433047,-0.012054001,0.016264623,0.0,0.0,0.0,0.0,0.009711151,0.0,0.0,0.07006813,0.024774995,-0.091184795,0.11259292,0.22074005,0.11825237,-0.12880461,-0.15191235,0.14676082,-0.021464562,-0.013968014,-0.08845118,-0.03371351,0.051422376,-0.0626964,0.06294025,0.12242345,0.061753113,-0.08885252,-0.054716095,0.037859417,-0.07761969,0.124561355,0.008172647,-1.0,1.0,-0.89119697,1.0,1.0,1.0,-1.0,-1.0,1.0,-0.59082866,0.6723519,0.44164643,1.0,-0.88998437,-1.0,1.0,-1.0,1.0,-1.0,0.45399526,1.0,-0.22020434,-1.0,-1.0
2025-07-21 16:01:11.720,2.920000000000002,2920,146,-0.29329595,0.0034333214,0.25455862,0.03897976,-0.032977894,-0.04531688,-0.14763394,-0.05270777,-0.010732942,0.0,0.0,0.0,0.0,0.009831255,0.0,0.0,0.074979335,0.033160716,-0.0978166,0.11988918,0.21557826,0.13178225,-0.13298333,-0.13932543,0.13407576,-0.037720695,-0.021330506,-0.10169855,0.07024398,-0.06132613,0.04864957,-0.03845795,-0.049048945,0.03487386,-0.0037067162,0.061019827,-0.033244286,0.060512412,-0.18760154,-0.027509145,1.0,-0.88998437,-1.0,1.0,-1.0,1.0,-1.0,0.45399526,1.0,-0.22020434,-1.0,-1.0,0.9438734,-0.50831217,-1.0,1.0,-0.5521295,1.0,-1.0,-1.0,1.0,-0.26514465,1.0,0.9147346
2025-07-21 16:01:11.736,2.940000000000002,2940,147,-0.30071288,0.1302236,0.004125586,0.12515035,0.026088564,-0.026945358,-0.10910213,-0.072753675,0.013974595,0.0,0.0,0.0,0.0,0.010152795,0.0,0.0,0.08480285,-0.017197622,-0.11319602,0.13043627,0.203879,0.13550432,-0.15087737,-0.16377804,0.13539182,-0.027157264,-0.024696264,-0.062685974,0.0012874322,-0.046339843,-0.028935382,-0.009582716,-0.044176817,0.017892329,0.05413114,-0.06889527,-0.025603851,-0.028888123,0.049595058,0.14642216,0.9438734,-0.50831217,-1.0,1.0,-0.5521295,1.0,-1.0,-1.0,1.0,-0.26514465,1.0,0.9147346,1.0,-0.8493378,-0.20522285,1.0,1.0,1.0,-1.0,1.0,1.0,1.0,-0.9563703,-1.0
2025-07-21 16:01:11.756,2.960000000000002,2960,148,0.024677347,-0.2692831,-0.28687957,0.077438116,0.019976806,0.02230933,-0.14591528,-0.08810186,0.031039864,0.0,0.0,0.0,0.0,0.5,0.0,0.0,0.10464998,-0.06743209,-0.10629127,0.13317612,0.22922128,0.12980251,-0.1487501,-0.15561625,0.14283316,-0.0048183296,-0.04463661,-0.06210231,0.030073864,-0.06510998,0.08903775,0.004951529,0.0265275,-0.052582428,0.036651984,-0.020785829,-0.030996751,0.05292078,-0.2075463,-0.028915273,1.0,-0.8493378,-0.20522285,1.0,1.0,1.0,-1.0,1.0,1.0,1.0,-0.9563703,-1.0,-1.0,0.772596,-1.0,1.0,-1.0,1.0,-1.0,-1.0,1.0,-0.49214953,1.0,1.0
2025-07-21 16:01:11.776,2.980000000000002,2980,149,-0.044870973,-0.09067303,0.16354048,0.06671014,-0.17893603,0.11018257,-0.09234616,-0.08436813,-0.007199233,0.0,0.0,0.0,0.0,0.7242532,0.0,0.0,0.088846795,-0.075489715,-0.11430794,0.13841185,0.23077281,0.14444463,-0.15853556,-0.16577992,0.137979,-0.006639242,-0.047983695,-0.028975355,-0.08753287,0.1268433,-0.002407986,-0.055206355,-0.062473472,0.0817493,0.037712228,-0.040674392,0.018900875,0.022602445,0.043516956,0.075876296,-1.0,0.772596,-1.0,1.0,-1.0,1.0,-1.0,-1.0,1.0,-0.49214953,1.0,1.0,1.0,-1.0,-1.0,1.0,-1.0,1.0,-1.0,1.0,1.0,-1.0,-1.0,0.21584246
2025-07-21 16:01:11.796,3.000000000000002,3000,150,-0.37185067,-0.07549725,0.12363164,0.15292357,0.008702668,-0.0087191025,-0.13749574,-0.019320006,0.039945077,0.0,0.0,0.0,0.0,0.85329676,0.0,0.0,0.0802961,-0.07329762,-0.12171671,0.13925368,0.23101047,0.13751999,-0.16986322,-0.14672355,0.13713308,-0.04213419,-0.0560834,-0.024831971,0.1178012,-0.072863124,-0.025352271,0.10168978,-0.092978254,0.062451128,0.03090641,0.16805688,-0.0016493227,-0.06975509,-0.1409449,-0.03681146,1.0,-1.0,-1.0,1.0,-1.0,1.0,-1.0,1.0,1.0,-1.0,-1.0,0.21584246,1.0,1.0,-0.93865836,1.0,0.34048215,1.0,-1.0,-1.0,1.0,0.4025625,-1.0,0.4898264
2025-07-21 16:01:11.820,3.0200000000000022,3020,151,-0.23688224,-0.031108206,-0.23289984,0.09449982,0.02042355,0.021904526,-0.13240562,0.0053187325,-0.0051742946,0.0,0.0,0.0,0.0,0.9147498,0.0,0.0,0.09663364,-0.036470693,-0.13505334,0.14337493,0.21236533,0.1446935,-0.16394731,-0.13970375,0.14126548,-0.029839667,-0.12431608,-0.0070100687,-0.01097359,0.20037164,0.008492974,0.08858776,0.04084653,-0.024301741,-0.008865629,-0.18383642,-0.060308643,0.036401197,-0.081672095,0.029705634,1.0,1.0,-0.93865836,1.0,0.34048215,1.0,-1.0,-1.0,1.0,0.4025625,-1.0,0.4898264,0.00011639111,-0.8118925,-1.0,0.58281547,-1.0,1.0,-1.0,1.0,1.0,1.0,-0.5261685,1.0
2025-07-21 16:01:11.836,3.0400000000000023,3040,152,-0.14569081,0.0770568,-0.09756436,0.01416099,-0.115795396,0.053176206,-0.11350021,-0.0049641323,-0.0070498264,0.0,0.0,0.0,0.0,0.9452337,0.0,0.0,0.08260816,-0.011964938,-0.1426548,0.14320578,0.19338037,0.13829938,-0.17431025,-0.1281164,0.1510134,0.020386593,-0.14366317,0.025409028,-0.010794277,-0.06450809,0.018260207,-0.087058954,-0.08157004,-0.0007274346,-0.057164304,0.15919732,-0.035798144,0.14660849,0.020015622,0.10259869,0.00011639111,-0.8118925,-1.0,0.58281547,-1.0,1.0,-1.0,1.0,1.0,1.0,-0.5261685,1.0,-1.0,0.5040997,1.0,1.0,0.3504748,1.0,-1.0,-1.0,1.0,0.042703763,-1.0,-1.0
2025-07-21 16:01:11.856,3.0600000000000023,3060,153,-0.40695176,-0.33556187,0.06653016,-0.28804183,-0.36272386,-0.08497326,-0.12289616,-0.009058075,-0.03954399,0.0,0.0,0.0,0.0,0.96178675,0.0,0.0,0.061225474,-0.006480552,-0.11539731,0.12323169,0.1994099,0.14613332,-0.17774703,-0.124661244,0.15678869,0.020317413,-0.18389527,-0.0022964857,-0.04407188,-0.04620107,0.07651817,-0.012602208,-0.03444626,-0.046361245,0.049500715,-0.14951111,-0.0031478421,0.055551723,-0.14242114,-0.101417,-1.0,0.5040997,1.0,1.0,0.3504748,1.0,-1.0,-1.0,1.0,0.042703763,-1.0,-1.0,-0.49914107,1.0,-1.0,-1.0,1.0,1.0,-1.0,1.0,1.0,1.0,1.0,1.0
2025-07-21 16:01:11.877,3.0800000000000023,3080,154,-0.009705462,-0.08048884,-0.17932503,-0.49982604,-0.3172143,-0.07438169,-0.056868613,0.020911455,-0.0076358137,0.0,0.0,0.0,0.0,0.9715506,0.0,0.0,0.042403616,0.053534735,-0.12095166,0.08416157,0.23521076,0.15734604,-0.168041,-0.10792423,0.14438365,0.03519084,-0.1701169,0.02839009,-0.06936563,0.11784146,-0.035103012,-0.0598833,0.096508205,0.022755694,0.054876648,0.1897321,-0.07372421,0.056349672,0.16136467,0.05794716,-0.49914107,1.0,-1.0,-1.0,1.0,1.0,-1.0,1.0,1.0,1.0,1.0,1.0,-1.0,-1.0,1.0,0.88401455,-1.0,1.0,-1.0,-1.0,1.0,1.0,0.13827087,1.0
2025-07-21 16:01:11.897,3.1000000000000023,3100,155,-0.20522279,-0.23983872,-0.18929853,-0.012968324,-0.07396714,0.060968,-0.041195028,0.026365181,0.029225593,0.0,0.0,0.0,0.0,0.9777011,0.0,0.0,-0.0031790917,0.03581002,-0.073922835,0.08646449,0.2396824,0.15289012,-0.16271347,-0.11203381,0.14128724,0.06785414,-0.12841885,0.04915175,-0.022739837,-0.111311205,0.09464401,-0.042252567,-0.016703412,0.0055969646,-0.04023841,0.05180768,-0.037305865,-0.012176492,0.028365536,-0.012741495,-1.0,-1.0,1.0,0.88401455,-1.0,1.0,-1.0,-1.0,1.0,1.0,0.13827087,1.0,-1.0,1.0,0.3661666,1.0,-1.0,1.0,-1.0,1.0,1.0,1.0,-1.0,1.0
2025-07-21 16:01:11.920,3.1200000000000023,3120,156,-0.062034823,-0.27193868,-0.0006329036,-0.090301685,0.03150965,-0.23695521,-0.050805148,-0.026879754,-0.005777856,0.0,0.0,0.0,0.0,0.98177373,0.0,0.0,-0.014525713,0.048180293,-0.052841336,0.0908353,0.25117686,0.15158677,-0.17082413,-0.0743121,0.13822217,0.07751276,-0.14481884,0.06026199,-0.068549804,0.07725092,0.007951817,0.094008274,-0.07752385,-0.06134801,0.026702605,0.13442868,0.024972728,0.015150753,-0.17554739,0.05706323,-1.0,1.0,0.3661666,1.0,-1.0,1.0,-1.0,1.0,1.0,1.0,-1.0,1.0,-1.0,1.0,-1.0,0.1940907,-1.0,1.0,-0.24068001,-1.0,1.0,1.0,1.0,1.0
2025-07-21 16:01:11.938,3.1400000000000023,3140,157,-0.051073298,-0.07472978,-0.003351686,-0.011979351,-0.019599253,-0.06962984,-0.10532486,0.048542585,0.049134415,0.0,0.0,0.0,0.0,0.9845701,0.0,0.0,-0.02981834,0.08507536,-0.07429492,0.08226857,0.240878,0.14828031,-0.14926599,-0.06144295,0.14587681,0.09344627,-0.14975601,0.07782538,-0.10605043,0.06770483,-0.042863045,-0.046344228,0.029551685,0.035408083,0.07711772,0.03073508,0.06099804,-0.04183282,-0.012686698,-0.05536875,-1.0,1.0,-1.0,0.1940907,-1.0,1.0,-0.24068001,-1.0,1.0,1.0,1.0,1.0,1.0,-1.0,-1.0,1.0,-1.0,1.0,-1.0,-1.0,1.0,-0.0014083236,1.0,-0.14782962
2025-07-21 16:01:11.957,3.1600000000000024,3160,158,-0.22481984,-0.008358895,0.29860958,0.19630456,0.120639995,-0.04710282,-0.10131732,0.040303815,-0.03359068,0.0,0.0,0.0,0.0,0.98653656,0.0,0.0,-0.002340414,0.08742813,-0.091642454,0.08932893,0.2082574,0.15999056,-0.1503051,-0.09685482,0.15174225,0.07553905,-0.09385062,0.06323444,0.07527989,-0.20411968,-0.048510097,0.05565165,-0.061908215,-0.034599245,0.029835388,-0.14367461,-0.041853312,-0.037525617,0.25786197,-0.0073503265,1.0,-1.0,-1.0,1.0,-1.0,1.0,-1.0,-1.0,1.0,-0.0014083236,1.0,-0.14782962,1.0,-0.98921406,-1.0,-0.055812776,1.0,1.0,-1.0,1.0,1.0,-1.0,0.115660444,-1.0
2025-07-21 16:01:11.977,3.1800000000000024,3180,159,-0.13399358,-0.2987021,-0.18691322,0.022160888,-0.12912029,-0.04262436,-0.05920659,0.030405302,-0.0030835269,0.0,0.0,0.0,0.0,0.9879348,0.0,0.0,0.020893905,-0.004309407,-0.111853056,0.081027076,0.225224,0.1566491,-0.14637567,-0.08727976,0.15342337,0.048329733,-0.059104558,0.025273303,0.1390949,-0.23533422,0.009032012,-0.061574236,0.07196665,-0.0035737471,0.05151891,0.10911114,-0.056806937,-0.11427164,0.058172423,-0.05735721,1.0,-0.98921406,-1.0,-0.055812776,1.0,1.0,-1.0,1.0,1.0,-1.0,0.115660444,-1.0,0.5815793,1.0,-1.0,1.0,-1.0,1.0,-1.0,-1.0,1.0,1.0,0.24384503,-0.8152623
2025-07-21 16:01:11.997,3.2000000000000024,3200,160,0.043944746,0.08435436,-0.13049687,0.18483898,0.18362646,-0.0439086,-0.111632474,-0.021085529,0.0008455686,0.0,0.0,0.0,0.0,0.9889241,0.0,0.0,0.029315863,-0.0095663,-0.10801025,0.0832687,0.22896674,0.15528896,-0.15600854,-0.10401948,0.14328007,0.058319196,-0.04125473,-0.011464368,-0.0048046727,0.1272664,-0.09280346,-0.00065887225,-0.07594831,-0.06287553,-0.011344041,-0.17334758,0.08297678,0.071979366,0.09250168,-0.0818413,0.5815793,1.0,-1.0,1.0,-1.0,1.0,-1.0,-1.0,1.0,1.0,0.24384503,-0.8152623,1.0,-1.0,-1.0,1.0,-1.0,1.0,-1.0,0.98886645,1.0,-1.0,1.0,-1.0
