openverse-orca/OrcaGym/log/simulation_log_20250606_161549.csv
timestamp,imu_angle_roll,imu_angle_pitch,imu_angle_yaw,imu_angular_velocity_roll,imu_angular_velocity_pitch,imu_angular_velocity_yaw,imu_acc_x,imu_acc_y,imu_acc_z,fl_joint1_pos,fl_joint1_vel,fl_joint1_torque,fl_joint2_pos,fl_joint2_vel,fl_joint2_torque,fl_joint3_pos,fl_joint3_vel,fl_joint3_torque,fr_joint1_pos,fr_joint1_vel,fr_joint1_torque,fr_joint2_pos,fr_joint2_vel,fr_joint2_torque,fr_joint3_pos,fr_joint3_vel,fr_joint3_torque,hl_joint1_pos,hl_joint1_vel,hl_joint1_torque,hl_joint2_pos,hl_joint2_vel,hl_joint2_torque,hl_joint3_pos,hl_joint3_vel,hl_joint3_torque,hr_joint1_pos,hr_joint1_vel,hr_joint1_torque,hr_joint2_pos,hr_joint2_vel,hr_joint2_torque,hr_joint3_pos,hr_joint3_vel,hr_joint3_torque,fl_force_x,fl_force_y,fl_force_z,fr_force_x,fr_force_y,fr_force_z,hl_force_x,hl_force_y,hl_force_z,hr_force_x,hr_force_y,hr_force_z,fl_hip_action,fl_thigh_action,fl_calf_action,fr_hip_action,fr_thigh_action,fr_calf_action,hl_hip_action,hl_thigh_action,hl_calf_action,hr_hip_action,hr_thigh_action,hr_calf_action
2025-06-06 16:15:49.669,0.010075836,-0.038398407,0.03386505,-0.014893034,0.028694436,0.032616798,2.8347204,-0.8167551,0.0,0.0,0.0006910512,-0.0065838816,-0.009488623,-0.00032751277,0.008278094,-0.0025150976,-0.00037514072,0.00872195,0.004368021,0.008505737,-0.009169896,-0.008065306,-0.022432888,-0.007343042,-0.05074231,0.06794216,0.043298766,-0.050972044,0.014635693,0.029701484,0.018089194,0.045501087,0.039092258,-0.028318726,0.0,0.0,0.0,0.0,0.0,0.0,0.0,0.0,0.0,0.0,0.0,0.0,3.0,-0.40069965,-1.524962,0.3980748,-2.6772196,0.7661201,-2.0417173,-3.0,1.0294703,3.0,-3.0,-3.0
2025-06-06 16:15:49.675,-0.19437107,0.3535297,0.051824123,0.013285533,0.0084807435,-0.027349632,0.0,0.0,0.0,0.0,0.023391837,-0.02733941,-0.04783173,-0.0034625195,-0.094518974,0.013756501,-0.02013246,-0.12610543,0.037901077,0.032220773,-0.10243461,-0.06754573,0.033864237,-0.07499894,-0.16699803,0.063858025,-0.34366634,-0.006716963,-0.02832382,-0.3732158,0.15441802,0.05690278,-0.4367455,-0.21546526,3.0,-0.40069965,-1.524962,0.3980748,-2.6772196,0.7661201,-2.0417173,-3.0,1.0294703,3.0,-3.0,-3.0,3.0,3.0,-2.014314,3.0,0.7135533,2.6979814,-3.0,-3.0,-3.0,3.0,-0.40308204,-3.0
2025-06-06 16:15:49.693,-0.10920033,-0.009537692,-0.057340026,-0.031673625,0.07796219,0.0054874225,0.0,0.0,0.0,-0.000482256,0.053140327,0.07474503,-0.098726094,0.020743132,-0.119830966,0.07320447,-0.042183712,-0.24793439,-0.049506016,0.06293784,-0.16796106,-0.10728984,-0.009558555,0.18523747,-0.08452719,0.039820813,0.052839514,0.18304926,-0.04766126,-0.25774288,-0.27723336,0.07852581,-0.04966728,-0.052822337,3.0,3.0,-2.014314,3.0,0.7135533,2.6979814,-3.0,-3.0,-3.0,3.0,-0.40308204,-3.0,3.0,3.0,-3.0,3.0,3.0,-1.9544833,-3.0,-3.0,-3.0,3.0,-3.0,-3.0
2025-06-06 16:15:49.714,-0.2062819,0.116277955,0.10255465,-0.059955265,-0.008289542,0.004863908,0.0,0.0,0.0,-0.00033384663,0.06791565,0.11186695,-0.10433075,0.07609696,0.036974754,0.021389686,-0.046187073,-0.36475205,-0.14612658,0.08368932,-0.22478142,-0.09037287,0.07272023,-0.012015945,0.06572939,0.05766352,0.39001623,-0.23373662,-0.033611275,-0.18607269,-0.29107356,0.043794006,-0.09559501,0.07218967,3.0,3.0,-3.0,3.0,3.0,-1.9544833,-3.0,-3.0,-3.0,3.0,-3.0,-3.0,3.0,3.0,-3.0,3.0,3.0,-3.0,-3.0,-3.0,-3.0,3.0,-2.3211179,-3.0
2025-06-06 16:15:49.734,-0.2932282,0.09242758,0.122128665,-0.08726988,0.0946947,0.039181188,0.0,0.0,0.0,-0.0009803892,0.08996619,0.12832355,-0.10319557,0.10142701,0.21313447,-0.07841248,-0.06996408,-0.44179425,-0.2112216,0.11598911,-0.26074773,-0.05678953,0.045934685,0.06139815,-0.05324813,0.12170126,0.32132068,-0.14133352,-0.0068515893,-0.19174816,-0.14060082,0.059568338,-0.109278575,0.039825242,3.0,3.0,-3.0,3.0,3.0,-3.0,-3.0,-3.0,-3.0,3.0,-2.3211179,-3.0,3.0,3.0,-3.0,3.0,3.0,-3.0,-3.0,-3.0,-3.0,3.0,-2.370003,-3.0
2025-06-06 16:15:49.754,-0.14610921,0.079563476,0.052892122,-0.041512493,0.10373996,0.041800905,0.0,0.0,0.0,-0.0028315317,0.11058128,0.14127414,-0.10240385,0.11138873,0.28593838,-0.124020904,-0.08784042,-0.47773924,-0.2492622,0.11264303,-0.27871633,-0.022655888,-0.008949525,0.114655346,0.042334452,0.02840569,0.12940235,-0.07836394,-0.02399669,-0.1202262,-0.08721193,0.032615934,-0.07763454,0.082899,3.0,3.0,-3.0,3.0,3.0,-3.0,-3.0,-3.0,-3.0,3.0,-2.370003,-3.0,3.0,3.0,-3.0,3.0,3.0,-3.0,-3.0,-3.0,-3.0,3.0,-3.0,-3.0
2025-06-06 16:15:49.775,-0.043890204,0.18521903,0.16474316,-0.10521866,0.11629459,-0.02858974,0.0,0.0,0.0,-0.004850022,0.121531844,0.19319203,-0.1231354,0.1215038,0.32227477,-0.1493249,-0.09284588,-0.53174037,-0.28930938,0.114639856,-0.31719813,-0.032581694,-0.011967302,0.1011523,-0.103805296,0.06855414,0.13777462,-0.14331369,0.03350009,-0.15151584,-0.09304571,0.07185229,-0.16883403,-0.15601304,3.0,3.0,-3.0,3.0,3.0,-3.0,-3.0,-3.0,-3.0,3.0,-3.0,-3.0,3.0,3.0,-3.0,3.0,3.0,-3.0,-3.0,-3.0,-3.0,3.0,-1.6575034,-3.0
2025-06-06 16:15:49.794,0.02192094,0.11006242,0.11110905,-0.106412016,0.062125426,-0.047080938,0.0,0.0,0.0,-0.007508316,0.111052,0.22701149,-0.14548555,0.12939225,0.36159733,-0.18106996,-0.093939066,-0.5496893,-0.29642853,0.107398234,-0.3096981,-0.051517922,0.04410228,0.12346124,-0.040193144,0.06560439,0.115510635,-0.0250416,0.0605029,-0.099745125,-0.025123432,-0.05209048,0.03842816,-0.1073847,3.0,3.0,-3.0,3.0,3.0,-3.0,-3.0,-3.0,-3.0,3.0,-1.6575034,-3.0,3.0,3.0,-3.0,3.0,3.0,-3.0,-3.0,-3.0,-3.0,3.0,-2.7595296,-3.0
2025-06-06 16:15:49.814,0.08645837,0.09840293,0.099070445,-0.072828315,0.06346388,0.009480198,0.0,0.0,0.0,-0.00990008,0.11840709,0.27675492,-0.17024681,0.14768316,0.41961873,-0.23242228,-0.11436334,-0.5474904,-0.3026122,0.12612101,-0.331943,-0.041418027,-0.02459957,0.18596578,-0.13175581,0.048607416,0.084681585,-0.16063865,-0.0681019,0.035925265,-0.056967776,0.030972786,-0.065451115,-0.029309718,3.0,3.0,-3.0,3.0,3.0,-3.0,-3.0,-3.0,-3.0,3.0,-2.7595296,-3.0,3.0,3.0,-3.0,3.0,3.0,-3.0,-3.0,-3.0,-3.0,3.0,-3.0,-3.0
2025-06-06 16:15:49.834,0.014070225,0.1806222,0.2360423,-0.04093814,0.11185591,0.039432958,0.0,0.0,0.0,-0.012574298,0.12525696,0.3205228,-0.19637072,0.1299626,0.4696122,-0.26700422,-0.10730146,-0.56338656,-0.30659965,0.12233192,-0.36204594,-0.0782723,-0.00632181,0.11666719,-0.053833336,0.05639027,0.119512014,-0.09797926,-0.06671434,0.056160323,0.03416715,-0.031427335,-0.18058386,0.017452694,3.0,3.0,-3.0,3.0,3.0,-3.0,-3.0,-3.0,-3.0,3.0,-3.0,-3.0,3.0,3.0,-3.0,3.0,3.0,-3.0,-3.0,-3.0,-3.0,3.0,-1.6245617,-3.0
2025-06-06 16:15:49.854,0.12753339,-0.054606453,0.097478904,-0.046732817,0.051943816,-0.010546813,0.0,0.0,0.0,-0.01623106,0.13405943,0.36679003,-0.20542069,0.12345274,0.52219206,-0.27655786,-0.10178815,-0.5638115,-0.30801216,0.11431748,-0.3703286,-0.08732794,0.045265134,0.15413983,-0.08520794,0.017909968,0.13381855,-0.109026365,0.022901706,-0.008034276,-0.0006790578,-0.08065397,0.02136211,-0.0016507759,3.0,3.0,-3.0,3.0,3.0,-3.0,-3.0,-3.0,-3.0,3.0,-1.6245617,-3.0,3.0,3.0,-3.0,3.0,3.0,-3.0,-3.0,-3.0,-3.0,3.0,-3.0,-3.0
2025-06-06 16:15:49.876,0.114228934,0.031780243,0.19449103,-0.08394029,0.084638245,-0.045963213,0.0,0.0,0.0,-0.019481178,0.13350683,0.41963816,-0.20575543,0.12185737,0.54800117,-0.2976794,-0.100706615,-0.56500244,-0.30632898,0.10424006,-0.39418754,-0.05321046,-0.010514203,0.12879547,-0.030562822,-0.06628752,0.113795735,0.036826145,-0.044795156,-0.03657896,0.014029128,0.07111765,-0.10682388,0.03639586,3.0,3.0,-3.0,3.0,3.0,-3.0,-3.0,-3.0,-3.0,3.0,-3.0,-3.0,3.0,3.0,-3.0,3.0,3.0,-3.0,-3.0,-3.0,-3.0,3.0,-2.5498712,-3.0
2025-06-06 16:15:49.895,0.14118218,0.05346135,0.11655952,-0.026106238,0.14869581,0.019404223,0.0,0.0,0.0,-0.022721587,0.1479131,0.4536896,-0.21964535,0.119107544,0.5500656,-0.30601883,-0.11434595,-0.5704881,-0.31465945,0.11943311,-0.40814823,-0.07754944,0.02844786,0.1484879,0.0046895663,0.04036512,-0.0051300614,-0.04933038,0.006421386,-0.040947113,-0.0037715575,0.032435533,-0.06793318,0.050544333,3.0,3.0,-3.0,3.0,3.0,-3.0,-3.0,-3.0,-3.0,3.0,-2.5498712,-3.0,3.0,3.0,-3.0,2.8502247,3.0,-3.0,-3.0,-3.0,-3.0,3.0,-3.0,-3.0
2025-06-06 16:15:49.915,0.19567287,0.08804766,0.1622972,-0.034011982,0.104045555,0.03880748,0.0,0.0,0.0,-0.026026355,0.14965722,0.4751214,-0.20456338,0.11219769,0.56220657,-0.30498788,-0.102983095,-0.5733465,-0.32235923,0.11469626,-0.42045823,-0.040979534,-0.005948957,0.06057541,0.043438956,8.2954044e-05,0.08931056,-0.012084695,0.04456531,0.016611746,0.050406627,0.06787358,0.0084076235,-0.010518707,3.0,3.0,-3.0,2.8502247,3.0,-3.0,-3.0,-3.0,-3.0,3.0,-3.0,-3.0,3.0,3.0,-3.0,1.9603083,3.0,-3.0,-3.0,-3.0,-3.0,3.0,-2.9237614,-3.0
2025-06-06 16:15:49.936,0.2219192,0.11057199,0.11042484,0.03846359,0.074250616,0.02357582,0.0,0.0,0.0,-0.028923033,0.15602592,0.5039992,-0.17909296,0.09906564,0.58030254,-0.31255236,-0.122155935,-0.5609538,-0.3199974,0.11710567,-0.4644217,-0.0451061,-0.002755719,0.052093677,0.034055762,-0.07116613,0.0021649841,0.038952433,0.03688831,-0.011078664,-0.012993187,0.07088859,-0.10111809,0.08256357,3.0,3.0,-3.0,1.9603083,3.0,-3.0,-3.0,-3.0,-3.0,3.0,-2.9237614,-3.0,3.0,3.0,-3.0,-3.0,3.0,-3.0,-3.0,-3.0,-3.0,3.0,-3.0,-3.0
2025-06-06 16:15:49.959,0.31945333,0.0225019,0.042315938,0.036457885,0.1602848,0.04497265,0.0,0.0,0.0,-0.031462662,0.14536951,0.52053374,-0.15734582,0.049586874,0.5679556,-0.31171694,-0.12057717,-0.58591676,-0.3020445,0.11482864,-0.48249283,-0.024836693,0.018551335,0.015444183,-0.017461551,-0.14919284,0.08174441,0.016327044,-0.08058125,-0.11797797,0.111597106,-0.036636066,-0.0020002725,0.09347025,3.0,3.0,-3.0,-3.0,3.0,-3.0,-3.0,-3.0,-3.0,3.0,-3.0,-3.0,3.0,3.0,-3.0,-3.0,3.0,-3.0,-3.0,-3.0,-3.0,3.0,-3.0,-3.0
2025-06-06 16:15:49.976,0.22278261,-0.03389447,0.05747036,0.030603245,0.15481015,-0.023098392,0.0,0.0,0.0,-0.032858744,0.15023345,0.53079313,-0.14178962,0.038667362,0.58167773,-0.29343018,-0.14602613,-0.6103689,-0.23553468,0.12269163,-0.4845999,-0.042648416,0.054456454,0.048857637,0.107669495,-0.053951617,-0.028917998,0.09402424,-0.014737652,0.01590055,0.15141335,0.08052961,-0.0009420082,-0.008496695,3.0,3.0,-3.0,-3.0,3.0,-3.0,-3.0,-3.0,-3.0,3.0,-3.0,-3.0,3.0,3.0,-3.0,-3.0,3.0,-3.0,-3.0,-3.0,-3.0,3.0,-3.0,-3.0
2025-06-06 16:15:49.996,0.16691133,-0.09034956,-0.04663924,0.045174874,0.109299704,-0.044644486,0.0,0.0,0.0,-0.033252172,0.144678,0.5558914,-0.120516464,0.019275144,0.59370166,-0.28972685,-0.16289742,-0.6256699,-0.21007144,0.12075102,-0.49427184,-0.06658323,0.025140038,0.066131085,-0.0074896556,0.02775704,0.04881496,0.035126124,-0.07461056,-0.030717881,0.11171696,0.03656777,0.032431766,-0.029720737,3.0,3.0,-3.0,-3.0,3.0,-3.0,-3.0,-3.0,-3.0,3.0,-3.0,-3.0,3.0,3.0,-3.0,-3.0,3.0,-3.0,-3.0,-3.0,-3.0,3.0,-3.0,-3.0
2025-06-06 16:15:50.016,0.12592232,-0.05047655,0.045038085,0.07938756,0.14985521,-0.021176009,0.0,0.0,0.0,-0.033325933,0.14940381,0.5844649,-0.11612208,-0.0032520334,0.6072,-0.2768729,-0.16370602,-0.6283994,-0.16476637,0.13872227,-0.50719345,-0.11421333,0.04856345,0.085034825,-0.011411264,-0.05117676,0.03703759,0.01617579,-0.0018875197,-0.08513851,0.00996208,0.03136201,-0.06605973,-0.08773956,3.0,3.0,-3.0,-3.0,3.0,-3.0,-3.0,-3.0,-3.0,3.0,-3.0,-3.0,3.0,3.0,-3.0,-3.0,3.0,-3.0,-3.0,-3.0,-3.0,3.0,-3.0,-3.0
2025-06-06 16:15:50.036,0.052285593,-0.03478388,-0.01868499,0.035504557,0.08806402,-0.02982061,0.0,0.0,0.0,-0.0333548,0.142865,0.59243596,-0.11638074,-0.004449281,0.62896526,-0.26653385,-0.17858304,-0.63191783,-0.15687421,0.14952068,-0.50652117,-0.1291745,-0.070633575,0.04493765,-0.017286696,0.03950465,0.017326703,0.02653196,-0.08536139,0.05078749,0.07999641,0.042763848,0.013121784,-0.025285106,3.0,3.0,-3.0,-3.0,3.0,-3.0,-3.0,-3.0,-3.0,3.0,-3.0,-3.0,3.0,3.0,-3.0,-3.0,3.0,-3.0,-3.0,-3.0,-3.0,3.0,-3.0,-3.0
2025-06-06 16:15:50.059,-0.046452057,-0.049173806,0.03641648,0.062862195,0.15991521,0.004537865,0.0,0.0,0.0,-0.033349883,0.14466633,0.5991913,-0.103044495,-0.019381458,0.62869114,-0.252704,-0.16873586,-0.6474696,-0.1373596,0.1480663,-0.51640433,-0.14526342,0.01444056,-0.04546451,0.015586795,0.012400396,0.06631249,-0.04261209,0.009059209,0.016775234,-0.0089150155,-0.05554416,-0.043330565,-0.048487037,3.0,3.0,-3.0,-3.0,3.0,-3.0,-3.0,-3.0,-3.0,3.0,-3.0,-3.0,3.0,3.0,-3.0,-3.0,3.0,-3.0,-3.0,-3.0,-3.0,3.0,-3.0,-3.0
2025-06-06 16:15:50.076,-0.07222128,-0.00865717,-0.054959983,0.044982724,0.10779931,-0.030011505,0.0,0.0,0.0,-0.033275526,0.13448551,0.61550736,-0.112079635,-0.027437365,0.6425739,-0.25386858,-0.17545827,-0.6531046,-0.13844728,0.15603065,-0.526657,-0.14878927,-0.07367103,-0.023657648,-0.028363993,-0.038719792,0.06475098,0.0916301,0.020962618,-0.002135566,0.058866486,0.008541112,-0.020395953,-0.008607254,3.0,3.0,-3.0,-3.0,3.0,-3.0,-3.0,-3.0,-3.0,3.0,-3.0,-3.0,3.0,3.0,-3.0,-3.0,3.0,-3.0,-3.0,-3.0,-3.0,3.0,-3.0,-3.0
2025-06-06 16:15:50.096,-0.06802759,0.029851032,-0.02043962,0.083484314,0.14077426,0.021839462,0.0,0.0,0.0,-0.033022642,0.124347724,0.62770367,-0.12731262,-0.02516361,0.63515455,-0.22754787,-0.18353343,-0.64479846,-0.1347313,0.1612855,-0.5410867,-0.15003401,-0.083963715,0.043598786,-0.033244427,-0.0144351795,-4.3649907e-05,0.053179458,0.013838621,0.010640113,-0.029349709,0.036133163,0.025320627,0.021937788,3.0,3.0,-3.0,-3.0,3.0,-3.0,-3.0,-3.0,-3.0,3.0,-3.0,-3.0,3.0,3.0,-3.0,-3.0,3.0,-3.0,-3.0,-3.0,-3.0,3.0,-3.0,-3.0
2025-06-06 16:15:50.116,-0.055097952,0.033587255,-0.0065006595,0.057999633,0.08109334,0.04637317,0.0,0.0,0.0,-0.03255545,0.12866515,0.61745834,-0.114203416,-0.041529194,0.6507409,-0.22698353,-0.17943339,-0.6435126,-0.1442788,0.16399053,-0.5444279,-0.13988818,-0.02708246,-0.053487472,-0.0553803,-0.06388211,0.04724905,-0.040531047,0.07155538,-0.003912694,-0.086534806,0.025636965,-0.06700456,-0.028767282,3.0,3.0,-3.0,-3.0,3.0,-3.0,-3.0,-3.0,-3.0,3.0,-3.0,-3.0,3.0,3.0,-3.0,-3.0,3.0,-3.0,-3.0,-3.0,-3.0,3.0,-3.0,-3.0
2025-06-06 16:15:50.136,-0.09044565,0.0060954425,0.0024607119,-0.009061083,0.15899748,0.012135678,0.0,0.0,0.0,-0.031930014,0.10937283,0.62026834,-0.12542069,-0.032431405,0.6333631,-0.2232056,-0.17806372,-0.6389124,-0.16138823,0.16502085,-0.55347884,-0.1425434,-0.008335753,-0.064764895,0.010045433,-0.08814376,0.012805189,0.064901136,0.06522282,0.03683759,0.029887112,-0.013099789,0.019618327,-0.048239965,3.0,3.0,-3.0,-3.0,3.0,-3.0,-3.0,-3.0,-3.0,3.0,-3.0,-3.0,3.0,3.0,-3.0,-3.0,3.0,-3.0,-3.0,-3.0,-3.0,3.0,-3.0,-3.0
2025-06-06 16:15:50.159,-0.06588776,-0.009792242,-0.012818645,0.032036636,0.15841585,0.029860163,0.0,0.0,0.0,-0.031220233,0.107202634,0.61287564,-0.13009614,-0.047737136,0.63548374,-0.20454966,-0.17110623,-0.6226829,-0.17158851,0.15576659,-0.56803083,-0.14147443,-0.08612574,-0.015443819,-0.09435992,-0.06294177,-0.02234488,0.0028255016,-0.04448558,-0.043435685,-0.09388519,-0.00088976306,0.026680391,-0.03944467,3.0,3.0,-3.0,-3.0,3.0,-3.0,-3.0,-3.0,-3.0,3.0,-3.0,-3.0,3.0,3.0,-3.0,-3.0,3.0,-3.0,-3.0,-3.0,-3.0,3.0,-3.0,-3.0
2025-06-06 16:15:50.177,-0.10004952,0.034240242,0.003859504,-0.004592145,0.11895942,0.030321728,0.0,0.0,0.0,-0.0304884,0.097155005,0.5995684,-0.14995508,-0.0576966,0.6204946,-0.20901129,-0.18430483,-0.61567366,-0.17422712,0.16743954,-0.5741731,-0.14327303,-0.011053383,0.06060339,0.03714358,-0.082623735,-0.01694455,0.061359875,0.06413961,0.03484192,0.007552292,0.043107055,-0.018608162,-0.06285801,3.0,3.0,-3.0,-3.0,3.0,-3.0,-3.0,-3.0,-3.0,3.0,-3.0,-3.0,3.0,3.0,-3.0,-3.0,3.0,-3.0,-3.0,-3.0,-3.0,3.0,-3.0,-3.0
2025-06-06 16:15:50.197,-0.07821257,0.023311354,-0.07931312,0.047322705,0.09398747,0.031328492,0.0,0.0,0.0,-0.029771466,0.09415772,0.60323405,-0.1481301,-0.052525356,0.6122676,-0.19700249,-0.16704656,-0.6247396,-0.18997073,0.17165923,-0.5734439,-0.14834453,0.017723186,0.024177676,-0.07973991,-0.07105992,0.04506855,0.03820993,0.074897826,0.05922726,0.030867785,0.0683856,0.048617058,-0.04114129,3.0,3.0,-3.0,-3.0,3.0,-3.0,-3.0,-3.0,-3.0,3.0,-3.0,-3.0,3.0,3.0,-3.0,-3.0,3.0,-3.0,-3.0,-3.0,-3.0,3.0,-3.0,-3.0
2025-06-06 16:15:50.217,-0.04068983,0.049210377,-0.0033145074,0.009856843,0.06698656,0.034474693,0.0,0.0,0.0,-0.029089017,0.07905071,0.59586686,-0.16026868,-0.059423205,0.6116507,-0.19909848,-0.16685013,-0.6098577,-0.21733695,0.16224296,-0.5877027,-0.16977438,0.010758944,-0.07981335,-0.07224911,-0.010987644,-0.02681575,0.07584144,0.06934855,0.009471554,-0.088987,-0.036453564,0.0405556,0.0009493363,3.0,3.0,-3.0,-3.0,3.0,-3.0,-3.0,-3.0,-3.0,3.0,-3.0,-3.0,3.0,3.0,-3.0,-3.0,3.0,-3.0,-3.0,-3.0,-3.0,3.0,-3.0,-3.0
2025-06-06 16:15:50.237,-0.09733811,0.05270739,0.0034412292,-0.021164587,0.118450336,0.028951274,0.0,0.0,0.0,-0.028460318,0.07800981,0.59280896,-0.1724211,-0.0657804,0.6120287,-0.19138277,-0.16450298,-0.6157401,-0.22457767,0.17054488,-0.5878347,-0.17200385,-0.01155712,0.027785063,0.030230068,0.021849154,0.0022427011,-0.038391225,0.048668135,0.032330975,-0.08784731,-0.016368592,0.018628504,0.009349376,3.0,3.0,-3.0,-3.0,3.0,-3.0,-3.0,-3.0,-3.0,3.0,-3.0,-3.0,3.0,3.0,-3.0,-3.0,3.0,-3.0,-3.0,-3.0,-3.0,3.0,-3.0,-3.0
2025-06-06 16:15:50.258,-0.09155439,0.05950973,0.022212656,-0.027166408,0.091204956,-0.027909158,0.0,0.0,0.0,-0.027906224,0.08158851,0.5904407,-0.1834738,-0.06922592,0.59520423,-0.19601505,-0.17526163,-0.60345167,-0.22284687,0.178244,-0.58384407,-0.1799617,-0.046233676,0.056198787,0.004173168,-0.042323153,-0.014007097,0.040266376,0.012245666,-0.070208676,-0.0799445,0.051846158,-0.06898598,0.009065533,3.0,3.0,-3.0,-3.0,3.0,-3.0,-3.0,-3.0,-3.0,3.0,-3.0,-3.0,3.0,3.0,-3.0,-3.0,3.0,-3.0,-3.0,-3.0,-3.0,3.0,-3.0,-3.0
2025-06-06 16:15:50.311,-0.05034613,-0.0112218065,-0.06493412,-0.029260345,0.15650122,-0.024119081,0.0,0.0,0.0,-0.027444419,0.063349746,0.5833537,-0.18965687,-0.084122136,0.6012713,-0.19595979,-0.16700633,-0.60496134,-0.24674219,0.17182611,-0.5966999,-0.16681996,0.065249965,0.04057254,-0.021937292,0.014161325,0.017361434,-0.06365142,-0.04811374,-0.04636499,0.0156437,0.03701356,-0.007517629,0.022787241,3.0,3.0,-3.0,-3.0,3.0,-3.0,-3.0,-3.0,-3.0,3.0,-3.0,-3.0,3.0,3.0,-3.0,-3.0,3.0,-3.0,-3.0,-3.0,-3.0,3.0,-3.0,-3.0
2025-06-06 16:15:50.332,0.029657334,-0.038875062,0.0012571865,-0.03393659,0.10162382,0.037926026,0.0,0.0,0.0,-0.027091071,0.06553981,0.59591985,-0.1779478,-0.07561458,0.59501463,-0.17583275,-0.17908551,-0.61896384,-0.24389045,0.17946924,-0.6098361,-0.17684704,0.034019113,0.035721004,0.029689364,0.0041913115,-0.06975431,-0.0354986,-0.06452592,0.032967366,0.04515113,0.03784709,-0.0007778585,-0.02416108,3.0,3.0,-3.0,-3.0,3.0,-3.0,-3.0,-3.0,-3.0,3.0,-3.0,-3.0,3.0,3.0,-3.0,-3.0,3.0,-3.0,-3.0,-3.0,-3.0,3.0,-3.0,-3.0
2025-06-06 16:15:50.351,0.0113043925,-0.009176293,-0.002523792,0.0382925,0.101751074,0.029003695,0.0,0.0,0.0,-0.026850197,0.05798998,0.58865494,-0.17678732,-0.08791249,0.58558613,-0.18732934,-0.17065029,-0.6126042,-0.25324255,0.16979821,-0.6135019,-0.17869352,0.06427831,-0.0339205,-0.03327386,-0.0746431,-0.061011888,0.068527766,0.009910269,0.05703472,-0.034592275,0.027629279,0.056463536,-0.026559614,3.0,3.0,-3.0,-3.0,3.0,-3.0,-3.0,-3.0,-3.0,3.0,-3.0,-3.0,3.0,3.0,-3.0,-3.0,3.0,-3.0,-3.0,-3.0,-3.0,3.0,-3.0,-3.0
2025-06-06 16:15:50.371,-0.031792995,-0.02654833,-0.008066635,0.0065047313,0.07748223,-0.014675564,0.0,0.0,0.0,-0.026713962,0.06720058,0.5938733,-0.19155051,-0.08252345,0.58956915,-0.1741786,-0.17908801,-0.60600066,-0.24866298,0.17469937,-0.6063034,-0.18733217,-0.0037272857,0.05696223,-0.018124957,-0.064985156,0.0017560897,0.07653217,0.05851239,-0.0015668522,-0.054569907,0.06124318,-0.06889754,-0.040447254,3.0,3.0,-3.0,-3.0,3.0,-3.0,-3.0,-3.0,-3.0,3.0,-3.0,-3.0,3.0,3.0,-3.0,-3.0,3.0,-3.0,-3.0,-3.0,-3.0,3.0,-3.0,-3.0
2025-06-06 16:15:50.393,0.014866865,0.0023693468,-0.03904224,0.032455903,0.123469904,0.031925157,0.0,0.0,0.0,-0.026668563,0.07101613,0.5971859,-0.18652977,-0.07866837,0.58547443,-0.16961382,-0.17791301,-0.6068421,-0.24687842,0.17851983,-0.5974706,-0.17473257,0.072537184,-0.047063127,0.06484639,-0.027607769,0.0141945835,0.035585064,-0.054029316,0.032048315,-0.0476535,0.004292682,-0.014512509,0.04531924,3.0,3.0,-3.0,-3.0,3.0,-3.0,-3.0,-3.0,-3.0,3.0,-3.0,-3.0,3.0,3.0,-3.0,-3.0,3.0,-3.0,-3.0,-3.0,-3.0,3.0,-3.0,-3.0
2025-06-06 16:15:50.412,0.04710724,-0.015228209,0.023404162,0.04119742,0.16894715,0.009722094,0.0,0.0,0.0,-0.026697457,0.07295459,0.59418786,-0.18094376,-0.08422723,0.5866445,-0.18760706,-0.17792456,-0.6230865,-0.25005403,0.17057137,-0.60769254,-0.18765853,0.06372519,0.012328077,0.039414663,0.05274822,0.04648501,0.069005534,-0.064124644,-0.05878487,-0.01718412,0.010733427,0.004530688,-0.0015307831,3.0,3.0,-3.0,-3.0,3.0,-3.0,-3.0,-3.0,-3.0,3.0,-3.0,-3.0,3.0,3.0,-3.0,-3.0,3.0,-3.0,-3.0,-3.0,-3.0,3.0,-3.0,-3.0
2025-06-06 16:15:50.431,0.03499261,0.008865691,-0.00041510045,0.036270525,0.13138814,0.021669315,0.0,0.0,0.0,-0.026784161,0.07498646,0.59007186,-0.18972206,-0.071299836,0.5801073,-0.17686291,-0.17874418,-0.6259622,-0.2432594,0.16700774,-0.60354817,-0.18063541,-0.056131586,0.025143387,0.04482227,0.017518215,-0.025194697,-0.015028511,0.04702744,0.03504996,0.015659323,-0.049554754,-0.01606041,0.06540815,3.0,3.0,-3.0,-3.0,3.0,-3.0,-3.0,-3.0,-3.0,3.0,-3.0,-3.0,3.0,3.0,-3.0,-3.0,3.0,-3.0,-3.0,-3.0,-3.0,3.0,-3.0,-3.0
2025-06-06 16:15:50.451,-0.02930778,-0.043494195,0.05620059,0.042453222,0.11380155,-0.035384767,0.0,0.0,0.0,-0.026915409,0.066723995,0.5920128,-0.17536798,-0.06866412,0.58556914,-0.17607528,-0.16365506,-0.62873054,-0.24403688,0.1644785,-0.6055271,-0.19510064,0.0030982345,0.04501445,-0.041155737,0.017398436,0.04612698,-0.06664555,0.020604197,0.010430109,-0.05140175,0.033824485,-0.022365594,-0.04883658,3.0,3.0,-3.0,-3.0,3.0,-3.0,-3.0,-3.0,-3.0,3.0,-3.0,-3.0,3.0,3.0,-3.0,-3.0,3.0,-3.0,-3.0,-3.0,-3.0,3.0,-3.0,-3.0
2025-06-06 16:15:50.471,0.014718924,-0.023462709,-0.0029575888,-0.041975625,0.16804866,-0.01800443,0.0,0.0,0.0,-0.027080705,0.07777614,0.5867307,-0.17146994,-0.082237095,0.59523565,-0.17531732,-0.17708851,-0.62394685,-0.2347475,0.17146485,-0.599496,-0.18558832,-0.0673901,-0.054572135,-0.057912372,0.03454558,0.06832475,-0.0069666677,-0.03286808,-0.0273391,-0.05494368,-0.027315188,-0.027496854,0.003680774,3.0,3.0,-3.0,-3.0,3.0,-3.0,-3.0,-3.0,-3.0,3.0,-3.0,-3.0,3.0,3.0,-3.0,-3.0,3.0,-3.0,-3.0,-3.0,-3.0,3.0,-3.0,-3.0
2025-06-06 16:15:50.493,0.010074742,0.010444191,-0.007433755,0.044420622,0.13732128,-0.0025911,0.0,0.0,0.0,-0.027267462,0.07542418,0.585583,-0.16783716,-0.08293634,0.6023075,-0.18178768,-0.17908381,-0.62115127,-0.23475982,0.16229168,-0.60778475,-0.1974828,-0.052509014,0.06724263,-0.031286247,-0.069134645,-0.04713325,-0.02834706,-0.06096359,0.05012099,-0.026482042,-0.034271356,-0.023812687,-0.02573427,3.0,3.0,-3.0,-3.0,3.0,-3.0,-3.0,-3.0,-3.0,3.0,-3.0,-3.0,3.0,3.0,-3.0,-3.0,3.0,-3.0,-3.0,-3.0,-3.0,3.0,-3.0,-3.0
2025-06-06 16:15:50.512,0.018596375,0.032507572,0.0138209965,-0.0051397933,0.08009805,0.029487813,0.0,0.0,0.0,-0.02746353,0.0735197,0.599827,-0.16584913,-0.07332184,0.5921167,-0.17548928,-0.17358905,-0.6291719,-0.24061288,0.17803703,-0.60978276,-0.2037726,0.02880394,-0.03164011,-0.060313564,-0.034356736,-0.06551489,-0.030635206,0.061031573,0.014553093,0.01428804,0.008226856,0.025435183,-0.025679123,3.0,3.0,-3.0,-3.0,3.0,-3.0,-3.0,-3.0,-3.0,3.0,-3.0,-3.0,3.0,3.0,-3.0,-3.0,3.0,-3.0,-3.0,-3.0,-3.0,3.0,-3.0,-3.0
2025-06-06 16:15:50.532,0.020466734,0.042733215,0.044201802,-0.014967639,0.07885061,0.041294947,0.0,0.0,0.0,-0.02765775,0.08042958,0.59059155,-0.17116755,-0.071797356,0.5905717,-0.18245852,-0.17299609,-0.62918663,-0.23426452,0.17531236,-0.59966755,-0.19704606,-0.030076988,0.041699987,-0.029372783,0.04965077,-0.0076911366,0.07032484,0.055764873,-0.07749992,0.052446984,0.054320883,0.0500842,-0.020268874,3.0,3.0,-3.0,-3.0,3.0,-3.0,-3.0,-3.0,-3.0,3.0,-3.0,-3.0,3.0,3.0,-3.0,-3.0,3.0,-3.0,-3.0,-3.0,-3.0,3.0,-3.0,-3.0
2025-06-06 16:15:50.552,0.057044324,-0.04354566,-0.037091877,0.027399547,0.13227092,0.0012167819,0.0,0.0,0.0,-0.027840402,0.07139953,0.59644336,-0.16494527,-0.06916881,0.5954629,-0.18510006,-0.17325889,-0.63157135,-0.22425176,0.17471094,-0.61296594,-0.20438242,-0.0028641366,0.058559157,-0.0142547395,0.019960275,-0.021371683,0.010744348,0.065285236,-0.058486734,-0.05515026,-0.060831264,-0.053105798,-0.06775071,3.0,3.0,-3.0,-3.0,3.0,-3.0,-3.0,-3.0,-3.0,3.0,-3.0,-3.0,3.0,3.0,-3.0,-3.0,3.0,-3.0,-3.0,-3.0,-3.0,3.0,-3.0,-3.0
2025-06-06 16:15:50.575,0.054527465,0.006578199,-0.042797185,-0.00036053688,0.12509651,0.04759908,0.0,0.0,0.0,-0.028003639,0.07159851,0.6028998,-0.16026479,-0.06679925,0.6042511,-0.19149297,-0.17218366,-0.6275889,-0.21410719,0.17115363,-0.6073905,-0.20936528,0.0459524,-0.06497291,0.07389617,-0.07066878,-0.039635748,-0.02910611,0.02546652,-0.06560876,-0.037694413,-0.023598336,-0.012613638,0.022662062,3.0,3.0,-3.0,-3.0,3.0,-3.0,-3.0,-3.0,-3.0,3.0,-3.0,-3.0,3.0,3.0,-3.0,-3.0,3.0,-3.0,-3.0,-3.0,-3.0,3.0,-3.0,-3.0
2025-06-06 16:15:50.593,0.0007726369,0.017855724,-0.038612727,0.056666177,0.1469936,-0.031037876,0.0,0.0,0.0,-0.028141709,0.077413425,0.60804504,-0.16484743,-0.066012315,0.6015858,-0.19182205,-0.17117517,-0.6214523,-0.21710822,0.17361434,-0.5964818,-0.20883256,-0.005326252,0.011396269,-0.021760479,-0.05467789,0.059123106,0.0366975,-0.03860314,0.036200773,-0.02511791,0.045002393,0.014196795,0.059014678,3.0,3.0,-3.0,-3.0,3.0,-3.0,-3.0,-3.0,-3.0,3.0,-3.0,-3.0,3.0,3.0,-3.0,-3.0,3.0,-3.0,-3.0,-3.0,-3.0,3.0,-3.0,-3.0
2025-06-06 16:15:50.612,0.022713095,0.020058217,-0.012792744,0.013385546,0.15518862,-0.03578525,0.0,0.0,0.0,-0.028251003,0.091670156,0.6000282,-0.17145042,-0.05972718,0.6096233,-0.18081453,-0.1827691,-0.63198507,-0.2174646,0.16855094,-0.6091977,-0.22050114,0.058066394,0.04741842,0.005864103,0.060358044,0.053792365,0.017192874,-0.044294823,-0.0034039458,0.06718338,-0.068019554,-0.042532712,0.047031395,3.0,3.0,-3.0,-3.0,3.0,-3.0,-3.0,-3.0,-3.0,3.0,-3.0,-3.0,3.0,3.0,-3.0,-3.0,3.0,-3.0,-3.0,-3.0,-3.0,3.0,-3.0,-3.0
2025-06-06 16:15:50.632,0.028848577,0.026329506,-0.0054724766,-0.010696377,0.1388215,-0.03805126,0.0,0.0,0.0,-0.028329972,0.08691836,0.5995885,-0.17288844,-0.06909106,0.60166633,-0.19095804,-0.16846548,-0.62727314,-0.22193502,0.16556433,-0.6045091,-0.21328892,0.046577428,-0.036584485,0.0025962025,-0.05362554,0.0035870755,-0.030847909,0.015523757,0.026933635,0.012509908,-0.0117892325,0.063530855,0.0718251,3.0,3.0,-3.0,-3.0,3.0,-3.0,-3.0,-3.0,-3.0,3.0,-3.0,-3.0,3.0,3.0,-3.0,-3.0,3.0,-3.0,-3.0,-3.0,-3.0,3.0,-3.0,-3.0
2025-06-06 16:15:50.652,-0.028679116,0.008617619,0.017709391,0.04557193,0.07033801,-0.04218262,0.0,0.0,0.0,-0.028378898,0.082274966,0.60406435,-0.15815422,-0.070451975,0.61027944,-0.18115039,-0.16864397,-0.6360032,-0.22451577,0.16621922,-0.6160918,-0.21587884,0.009820981,0.019565456,0.06064306,0.055376768,-0.07037228,0.041108925,-0.0036045124,-0.05460583,0.07458361,-0.03076731,0.063971184,-0.03751618,3.0,3.0,-3.0,-3.0,3.0,-3.0,-3.0,-3.0,-3.0,3.0,-3.0,-3.0,3.0,3.0,-3.0,-3.0,3.0,-3.0,-3.0,-3.0,-3.0,3.0,-3.0,-3.0
2025-06-06 16:15:50.676,0.0022505538,-0.00417067,-0.03888013,0.011882935,0.15666273,0.029017199,0.0,0.0,0.0,-0.028399622,0.07392944,0.60554695,-0.17060885,-0.06586389,0.61082566,-0.18838981,-0.18279944,-0.6301577,-0.20875716,0.1631206,-0.61110264,-0.20748019,-0.049522523,0.049273994,0.054889604,-0.053685345,0.026700325,0.033381384,-0.06664295,-0.006971451,0.043661285,-0.038312364,-0.0004634474,-0.060068004,3.0,3.0,-3.0,-3.0,3.0,-3.0,-3.0,-3.0,-3.0,3.0,-3.0,-3.0,3.0,3.0,-3.0,-3.0,3.0,-3.0,-3.0,-3.0,-3.0,3.0,-3.0,-3.0
2025-06-06 16:15:50.693,-0.04972373,0.031664215,-0.038686305,0.0015274087,0.15091886,0.04963216,0.0,0.0,0.0,-0.028395211,0.08298134,0.611284,-0.16082603,-0.07075185,0.5971379,-0.18431726,-0.18161957,-0.6276343,-0.2066732,0.1688284,-0.6092931,-0.21338755,0.050210964,0.06529117,0.041363426,-0.036380835,0.028860565,-0.006620065,0.013706231,0.03108209,-0.06107915,0.03506011,0.019263221,-0.06383377,3.0,3.0,-3.0,-3.0,3.0,-3.0,-3.0,-3.0,-3.0,3.0,-3.0,-3.0,3.0,3.0,-3.0,-3.0,3.0,-3.0,-3.0,-3.0,-3.0,3.0,-3.0,-3.0
2025-06-06 16:15:50.712,-0.0015075085,0.00093762705,-0.026490044,0.014736488,0.14133252,-0.010904122,0.0,0.0,0.0,-0.028369598,0.09221066,0.6071515,-0.16944817,-0.075425535,0.61175936,-0.18253939,-0.1700703,-0.62553966,-0.2126706,0.17228067,-0.6111086,-0.20202781,-0.0028272765,0.013107304,-0.046265118,-0.022424378,0.00054030225,0.03337269,-0.049591005,0.030689357,-0.06318777,0.050195936,-0.0054103774,-0.052789778,3.0,3.0,-3.0,-3.0,3.0,-3.0,-3.0,-3.0,-3.0,3.0,-3.0,-3.0,3.0,3.0,-3.0,-3.0,3.0,-3.0,-3.0,-3.0,-3.0,3.0,-3.0,-3.0
2025-06-06 16:15:50.732,0.016118309,0.01894523,-0.01676796,0.046573423,0.11126474,-0.04174949,0.0,0.0,0.0,-0.028327078,0.08830972,0.6060186,-0.17697391,-0.07372694,0.6067428,-0.18444608,-0.17479931,-0.6249588,-0.212509,0.18035798,-0.6112079,-0.20028174,-0.04836492,0.0024146298,-0.03915006,-0.050252028,-0.07397591,-0.04583071,0.048387483,-0.06544784,0.025215523,-0.0063501466,0.046205424,-0.051901843,3.0,3.0,-3.0,-3.0,3.0,-3.0,-3.0,-3.0,-3.0,3.0,-3.0,-3.0,3.0,3.0,-3.0,-3.0,3.0,-3.0,-3.0,-3.0,-3.0,3.0,-3.0,-3.0
2025-06-06 16:15:50.753,-0.03439845,0.0003206624,-0.010192934,0.014732425,0.10085427,0.029321479,0.0,0.0,0.0,-0.028271914,0.08934476,0.6071063,-0.16587867,-0.07201446,0.5957673,-0.18660423,-0.16912875,-0.63456255,-0.22725119,0.17110123,-0.6174542,-0.20111255,-0.026602883,0.06223357,0.039659124,0.008418173,0.038700078,0.0692884,0.042451017,0.006644264,0.0090988865,-0.031021088,-0.05127628,0.03434841,3.0,3.0,-3.0,-3.0,3.0,-3.0,-3.0,-3.0,-3.0,3.0,-3.0,-3.0,3.0,3.0,-3.0,-3.0,3.0,-3.0,-3.0,-3.0,-3.0,3.0,-3.0,-3.0
2025-06-06 16:15:50.776,-0.0041056606,0.039309993,-0.04110698,0.036378007,0.16235623,0.0072999294,0.0,0.0,0.0,-0.02820878,0.07688369,0.60100836,-0.17554569,-0.07116124,0.60913235,-0.17567518,-0.17016946,-0.62933356,-0.21882184,0.17216524,-0.6042766,-0.20419414,0.043077294,0.036001865,-0.007389743,-0.006484108,-0.046582963,-0.058712147,0.0107261455,0.038479023,0.048917767,0.038423464,-0.06055957,0.026652,3.0,3.0,-3.0,-3.0,3.0,-3.0,-3.0,-3.0,-3.0,3.0,-3.0,-3.0,3.0,3.0,-3.0,-3.0,3.0,-3.0,-3.0,-3.0,-3.0,3.0,-3.0,-3.0
2025-06-06 16:15:50.793,0.03618207,0.016493527,-0.040757928,0.010264652,0.073027596,0.042041644,0.0,0.0,0.0,-0.02814227,0.08183006,0.6014082,-0.17924008,-0.0747615,0.60625416,-0.18692243,-0.16959262,-0.6219045,-0.22267987,0.17881195,-0.6190392,-0.2129104,-0.069026925,0.0102014,0.018334864,-0.0026353446,-0.06525466,0.029186687,0.027038554,-0.061410915,0.0637137,0.016692307,0.039819255,-0.050524585,3.0,3.0,-3.0,-3.0,3.0,-3.0,-3.0,-3.0,-3.0,3.0,-3.0,-3.0,3.0,3.0,-3.0,-3.0,3.0,-3.0,-3.0,-3.0,-3.0,3.0,-3.0,-3.0
2025-06-06 16:15:50.813,0.03277309,-0.005506755,-0.019317565,0.014855891,0.16536975,-0.048657365,0.0,0.0,0.0,-0.028076451,0.07051789,0.61105573,-0.16310854,-0.07528943,0.60477346,-0.17940624,-0.16903178,-0.62243825,-0.22752523,0.16342194,-0.61177546,-0.20021057,0.04399247,-0.0053489944,0.016879577,-0.04240417,0.023644222,-0.02582972,-0.013946264,0.048684556,-0.02979024,0.04496258,0.013247999,-0.010000078,3.0,3.0,-3.0,-3.0,3.0,-3.0,-3.0,-3.0,-3.0,3.0,-3.0,-3.0,3.0,3.0,-3.0,-3.0,3.0,-3.0,-3.0,-3.0,-3.0,3.0,-3.0,-3.0
2025-06-06 16:15:50.833,-0.053431574,0.024932148,-0.017327653,-0.014020472,0.06825873,0.0027628997,0.0,0.0,0.0,-0.02801463,0.07400532,0.6003612,-0.17008431,-0.072937146,0.60707104,-0.18681905,-0.17488019,-0.6150932,-0.21626212,0.1661871,-0.6092002,-0.21434201,0.0366346,-0.06895716,-0.061437342,-0.05673168,0.008609061,0.0344089,0.03087981,-0.009220497,-0.0616595,0.074884616,0.036730073,-0.051297203,3.0,3.0,-3.0,-3.0,3.0,-3.0,-3.0,-3.0,-3.0,3.0,-3.0,-3.0,3.0,3.0,-3.0,-3.0,3.0,-3.0,-3.0,-3.0,-3.0,3.0,-3.0,-3.0
2025-06-06 16:15:50.853,-0.03344277,0.02180146,-0.035905797,0.051902797,0.14471947,0.048348382,0.0,0.0,0.0,-0.027959276,0.08172878,0.6020972,-0.16200985,-0.07976258,0.61065394,-0.17501779,-0.17236976,-0.62528884,-0.22843085,0.1774155,-0.6197615,-0.20175672,0.0041122986,0.06451615,-0.03049652,-0.059278548,-0.04034259,-0.072295,-0.03069669,0.07491222,-0.020481208,-0.05776082,0.050460804,0.017212281,3.0,3.0,-3.0,-3.0,3.0,-3.0,-3.0,-3.0,-3.0,3.0,-3.0,-3.0,3.0,3.0,-3.0,-3.0,3.0,-3.0,-3.0,-3.0,-3.0,3.0,-3.0,-3.0
2025-06-06 16:15:50.876,0.0030190442,0.041349806,0.02717902,-0.0060112313,0.15452686,0.017884815,0.0,0.0,0.0,-0.027912065,0.078086846,0.6080399,-0.17157933,-0.08041206,0.6103179,-0.17593358,-0.16496034,-0.6281834,-0.21498306,0.16903536,-0.6194308,-0.204877,-0.050795645,0.028642993,-0.027604915,-0.023303375,-0.058976218,-0.057254486,0.07293337,0.0590246,0.039646164,-0.06244616,0.06494891,-0.038227867,3.0,3.0,-3.0,-3.0,3.0,-3.0,-3.0,-3.0,-3.0,3.0,-3.0,-3.0,3.0,3.0,-3.0,-3.0,3.0,-3.0,-3.0,-3.0,-3.0,3.0,-3.0,-3.0
2025-06-06 16:15:50.893,0.02688577,0.012944224,0.013853658,0.051749352,0.07057254,0.02654722,0.0,0.0,0.0,-0.02787396,0.07844972,0.60221624,-0.17892554,-0.07358366,0.5971879,-0.18899001,-0.16733944,-0.6332826,-0.22578251,0.17634997,-0.6075271,-0.20629083,-0.025380574,-0.04110593,-0.0064072916,0.028888267,0.014072765,0.07166959,0.025085608,0.056455046,0.043090623,-0.06820513,0.038716257,-0.017594678,3.0,3.0,-3.0,-3.0,3.0,-3.0,-3.0,-3.0,-3.0,3.0,-3.0,-3.0,3.0,3.0,-3.0,-3.0,3.0,-3.0,-3.0,-3.0,-3.0,3.0,-3.0,-3.0
2025-06-06 16:15:50.913,0.02746443,0.028368227,0.020731537,-0.04008104,0.094691016,0.013967579,0.0,0.0,0.0,-0.027845304,0.068825915,0.61001956,-0.16875865,-0.072173595,0.6027865,-0.1774598,-0.16696665,-0.6288667,-0.22105618,0.17170054,-0.6019766,-0.21249367,-0.0058149863,-0.04234772,0.043050207,-0.03343482,-0.04661846,0.06951981,-0.04679741,0.01079125,0.0012040589,-0.05869241,-0.013808628,0.071921326,3.0,3.0,-3.0,-3.0,3.0,-3.0,-3.0,-3.0,-3.0,3.0,-3.0,-3.0,3.0,3.0,-3.0,-3.0,3.0,-3.0,-3.0,-3.0,-3.0,3.0,-3.0,-3.0
2025-06-06 16:15:50.933,-0.035478983,-0.025145363,-0.002506642,0.021605503,0.13209875,-0.0028222175,0.0,0.0,0.0,-0.02782594,0.06869427,0.61280024,-0.17619808,-0.06610267,0.6019865,-0.18200149,-0.1765204,-0.6149492,-0.22596335,0.1718161,-0.6107422,-0.20526475,-0.06689126,0.005978023,-0.02395664,-0.07112739,0.0106557235,0.054836337,0.023828821,0.06502206,-0.031503603,-0.025157413,-0.017193433,0.031754445,3.0,3.0,-3.0,-3.0,3.0,-3.0,-3.0,-3.0,-3.0,3.0,-3.0,-3.0,3.0,3.0,-3.0,-3.0,3.0,-3.0,-3.0,-3.0,-3.0,3.0,-3.0,-3.0
2025-06-06 16:15:50.953,-0.010923911,-0.02947963,0.015448594,-0.0019176423,0.14636305,0.037022598,0.0,0.0,0.0,-0.027815301,0.072162405,0.5994307,-0.1713494,-0.071967654,0.6010293,-0.18538976,-0.17552859,-0.6251963,-0.23442262,0.17609653,-0.6201758,-0.20802346,-0.045481417,0.05169025,-0.02824553,-0.05663199,-0.06451503,-0.06789668,0.045983486,0.044152092,-0.05818994,0.073382206,-0.056222647,0.059088808,3.0,3.0,-3.0,-3.0,3.0,-3.0,-3.0,-3.0,-3.0,3.0,-3.0,-3.0,3.0,3.0,-3.0,-3.0,3.0,-3.0,-3.0,-3.0,-3.0,3.0,-3.0,-3.0
2025-06-06 16:15:50.976,-0.037092663,-0.008487325,-0.007483928,-0.028562583,0.11752092,0.028110364,0.0,0.0,0.0,-0.027812522,0.08104072,0.60037595,-0.16793759,-0.068253785,0.59668076,-0.18920518,-0.1682049,-0.6152912,-0.22771299,0.17641763,-0.6098919,-0.20442024,-0.0429916,0.0498297,0.054059375,0.04279073,-0.059045393,-0.052037235,0.004704135,0.02711077,-0.025532857,-0.021721903,-0.047073785,-0.0530104,3.0,3.0,-3.0,-3.0,3.0,-3.0,-3.0,-3.0,-3.0,3.0,-3.0,-3.0,3.0,3.0,-3.0,-3.0,3.0,-3.0,-3.0,-3.0,-3.0,3.0,-3.0,-3.0
2025-06-06 16:15:50.993,-0.001770004,-0.028991641,-0.03038058,-0.029034471,0.13863936,-0.012861421,0.0,0.0,0.0,-0.027816525,0.07141186,0.60576636,-0.17848505,-0.080565766,0.60695994,-0.18931052,-0.17642368,-0.61667573,-0.21576558,0.16744892,-0.61169446,-0.21520248,-0.069344975,0.029602358,0.043193895,-0.0013670898,0.0048420145,-0.0481539,0.048176337,-0.058576502,-0.009782935,0.010296506,-0.028210232,0.0712368,3.0,3.0,-3.0,-3.0,3.0,-3.0,-3.0,-3.0,-3.0,3.0,-3.0,-3.0,3.0,3.0,-3.0,-3.0,3.0,-3.0,-3.0,-3.0,-3.0,3.0,-3.0,-3.0
2025-06-06 16:15:51.014,-0.0005380004,0.013922351,0.02230065,0.025619943,0.10950504,-0.020715736,0.0,0.0,0.0,-0.027826099,0.06954992,0.6080659,-0.16212456,-0.08051856,0.60850537,-0.17311984,-0.169285,-0.61696047,-0.22265962,0.16874887,-0.6048244,-0.20833294,0.021774214,0.07067074,-0.020620761,0.031469904,-0.015647445,0.026219955,-0.0318319,0.04219123,0.0025781174,0.03025874,0.07418179,-0.024262842,3.0,3.0,-3.0,-3.0,3.0,-3.0,-3.0,-3.0,-3.0,3.0,-3.0,-3.0,3.0,3.0,-3.0,-3.0,3.0,-3.0,-3.0,-3.0,-3.0,3.0,-3.0,-3.0
2025-06-06 16:15:51.033,-0.0025726417,-0.032339618,0.032139473,0.054190725,0.13572183,0.046079744,0.0,0.0,0.0,-0.027839977,0.08314446,0.59509677,-0.18014985,-0.067876585,0.6029935,-0.17828941,-0.17548995,-0.62630844,-0.22984585,0.17234334,-0.6095834,-0.21390279,-0.06597407,-0.0024109099,0.07254297,-0.06553355,0.008320569,-0.05679658,0.07410984,-0.040840484,-0.033496495,0.028628113,-0.06701444,-0.021150853,3.0,3.0,-3.0,-3.0,3.0,-3.0,-3.0,-3.0,-3.0,3.0,-3.0,-3.0,3.0,3.0,-3.0,-3.0,3.0,-3.0,-3.0,-3.0,-3.0,3.0,-3.0,-3.0
2025-06-06 16:15:51.054,-0.03670615,0.0024010865,-0.0046171485,0.004824411,0.088396996,-0.013346734,0.0,0.0,0.0,-0.027856903,0.08688904,0.60035557,-0.17313807,-0.06382042,0.6108603,-0.17195573,-0.1647262,-0.6162937,-0.21964815,0.17054316,-0.6207969,-0.20717283,0.043751504,0.07286556,0.07372254,0.010424216,0.061296165,0.050873995,0.026553428,-0.057604406,-0.042652763,0.005301303,-0.03580772,0.07445264,3.0,3.0,-3.0,-3.0,3.0,-3.0,-3.0,-3.0,-3.0,3.0,-3.0,-3.0,3.0,3.0,-3.0,-3.0,3.0,-3.0,-3.0,-3.0,-3.0,3.0,-3.0,-3.0
2025-06-06 16:15:51.077,0.037481938,0.039924093,0.020357488,0.035928145,0.12704627,0.005277519,0.0,0.0,0.0,-0.027875682,0.06950952,0.60162646,-0.16684377,-0.063504815,0.6046386,-0.17842221,-0.1709394,-0.61597973,-0.2304084,0.16326633,-0.6083222,-0.20950185,0.016220331,0.06794002,0.023703326,-0.0057566916,-0.023597885,0.071497865,-0.027993655,-0.023919899,-0.034856416,-0.004613561,0.035611127,-0.06727621,3.0,3.0,-3.0,-3.0,3.0,-3.0,-3.0,-3.0,-3.0,3.0,-3.0,-3.0,3.0,3.0,-3.0,-3.0,3.0,-3.0,-3.0,-3.0,-3.0,3.0,-3.0,-3.0
2025-06-06 16:15:51.094,-0.042068217,-0.025396058,0.046896856,-0.040660225,0.0779033,0.035772923,0.0,0.0,0.0,-0.027895216,0.07822996,0.5990448,-0.16129486,-0.06188371,0.61246526,-0.17930876,-0.16781998,-0.6244717,-0.23353519,0.1697884,-0.6060611,-0.20213944,0.011795694,0.041548047,-0.06708188,0.060642604,0.010580071,-0.029345708,-0.015216502,0.048971906,0.061247498,0.0014995065,-0.012788747,0.027030922,3.0,3.0,-3.0,-3.0,3.0,-3.0,-3.0,-3.0,-3.0,3.0,-3.0,-3.0,3.0,3.0,-3.0,-3.0,3.0,-3.0,-3.0,-3.0,-3.0,3.0,-3.0,-3.0
2025-06-06 16:15:51.114,-0.028146377,-0.03624404,0.015343088,-0.033494383,0.15508911,0.04159748,0.0,0.0,0.0,-0.027914545,0.07435386,0.6097303,-0.17378905,-0.074473344,0.6065855,-0.17157961,-0.1801916,-0.6299661,-0.23030104,0.17043655,-0.60749,-0.19988334,0.05338714,-0.06598192,0.050706256,-0.0066808145,-0.05732545,-0.015198184,-0.04276715,0.04876618,-0.06056956,-0.00259325,-0.06597187,-0.0084928125,3.0,3.0,-3.0,-3.0,3.0,-3.0,-3.0,-3.0,-3.0,3.0,-3.0,-3.0,3.0,3.0,-3.0,-3.0,3.0,-3.0,-3.0,-3.0,-3.0,3.0,-3.0,-3.0
2025-06-06 16:15:51.134,-0.0117739355,0.02068081,-0.032090157,-0.033859834,0.1557983,-0.009500332,0.0,0.0,0.0,-0.027932864,0.08515289,0.6097359,-0.16875386,-0.078346595,0.5990835,-0.18410613,-0.17278588,-0.6167993,-0.22956885,0.16278018,-0.60918164,-0.20435068,0.017213076,0.048239987,-0.004805983,0.01053018,0.021794064,0.018351318,0.022167787,0.043717913,-0.041325707,-0.056446716,0.073310606,-0.036871705,3.0,3.0,-3.0,-3.0,3.0,-3.0,-3.0,-3.0,-3.0,3.0,-3.0,-3.0,3.0,3.0,-3.0,-3.0,3.0,-3.0,-3.0,-3.0,-3.0,3.0,-3.0,-3.0
2025-06-06 16:15:51.154,-0.041899383,0.007593815,-0.012655721,0.043366954,0.13885373,0.020445036,0.0,0.0,0.0,-0.02794953,0.07582959,0.6108702,-0.17237362,-0.07886267,0.6111644,-0.17459348,-0.17625056,-0.6193981,-0.22866432,0.16495113,-0.6078594,-0.2027845,-0.009473116,-0.010664938,-0.03128604,-0.035596807,-0.030972326,0.05903236,0.047172733,0.06535777,-0.022881053,-0.066730045,0.038054876,-0.018073156,3.0,3.0,-3.0,-3.0,3.0,-3.0,-3.0,-3.0,-3.0,3.0,-3.0,-3.0,3.0,3.0,-3.0,-3.0,3.0,-3.0,-3.0,-3.0,-3.0,3.0,-3.0,-3.0
2025-06-06 16:15:51.176,0.04398526,0.02000252,-0.018207058,-0.0043892465,0.1057986,-0.0061851633,0.0,0.0,0.0,-0.027964076,0.07517713,0.5968571,-0.1761387,-0.065277465,0.5937166,-0.19118996,-0.17844312,-0.61753064,-0.2144756,0.17099111,-0.6148686,-0.21855153,0.011547994,-0.00032629093,0.002850613,-0.05455298,-0.040967826,0.0018891942,-0.061191294,-0.007376572,0.008742697,0.06272983,-0.024467397,0.028282488,3.0,3.0,-3.0,-3.0,3.0,-3.0,-3.0,-3.0,-3.0,3.0,-3.0,-3.0,3.0,3.0,-3.0,-3.0,3.0,-3.0,-3.0,-3.0,-3.0,3.0,-3.0,-3.0
2025-06-06 16:15:51.194,0.00078388635,-0.03912749,-0.010995309,0.049200214,0.14380379,-0.010192396,0.0,0.0,0.0,-0.027976189,0.075718924,0.6000582,-0.17375578,-0.06797661,0.6032397,-0.1833955,-0.16989219,-0.6204905,-0.23058142,0.17555326,-0.60646135,-0.2020196,-0.0266752,0.07015734,0.030892892,0.01827981,0.05477943,0.069997,0.029183572,-0.012524452,-0.03529437,-0.04819149,-0.007654859,-0.012197441,3.0,3.0,-3.0,-3.0,3.0,-3.0,-3.0,-3.0,-3.0,3.0,-3.0,-3.0,3.0,3.0,-3.0,-3.0,3.0,-3.0,-3.0,-3.0,-3.0,3.0,-3.0,-3.0
2025-06-06 16:15:51.214,-0.036809076,0.026094628,-0.021144364,0.04271419,0.14013171,0.002055858,0.0,0.0,0.0,-0.027985709,0.0857123,0.6109965,-0.16448937,-0.072887436,0.5968307,-0.17776611,-0.17866632,-0.6202973,-0.22106561,0.17235614,-0.60995597,-0.21180987,-0.051352654,-0.05026984,-0.027545575,0.05212183,0.016206963,0.037933655,0.009239238,0.038634416,0.034796294,0.013497575,0.04294879,-0.039973028,3.0,3.0,-3.0,-3.0,3.0,-3.0,-3.0,-3.0,-3.0,3.0,-3.0,-3.0,3.0,3.0,-3.0,-3.0,3.0,-3.0,-3.0,-3.0,-3.0,3.0,-3.0,-3.0
2025-06-06 16:15:51.234,-0.039850783,-0.00778907,-0.0076946435,-0.009090887,0.13419813,-0.019955967,0.0,0.0,0.0,-0.027992615,0.07860301,0.6026115,-0.17684206,-0.06529431,0.6127477,-0.1862449,-0.1698668,-0.6196574,-0.23304686,0.18110666,-0.60345227,-0.21051869,0.07217364,-0.005201664,-0.0022494583,-0.051269066,0.043503776,0.030801337,-0.028060116,0.058811236,0.07321038,-0.022341384,-0.020655245,-0.0018831359,3.0,3.0,-3.0,-3.0,3.0,-3.0,-3.0,-3.0,-3.0,3.0,-3.0,-3.0,3.0,3.0,-3.0,-3.0,3.0,-3.0,-3.0,-3.0,-3.0,3.0,-3.0,-3.0
2025-06-06 16:15:51.254,-0.048623517,7.619493e-05,-0.026877532,0.02562022,0.1478207,0.008675296,0.0,0.0,0.0,-0.027997002,0.07549752,0.59741366,-0.16666746,-0.06289798,0.60090864,-0.17759603,-0.17522489,-0.61787975,-0.22196157,0.17485116,-0.61880934,-0.20802604,0.019015085,-0.07330663,0.053369865,0.06508876,0.001247125,-0.015770165,-0.034460064,0.0052149133,-0.0266684,0.071949616,-0.013477743,-0.02170609,3.0,3.0,-3.0,-3.0,3.0,-3.0,-3.0,-3.0,-3.0,3.0,-3.0,-3.0,3.0,3.0,-3.0,-3.0,3.0,-3.0,-3.0,-3.0,-3.0,3.0,-3.0,-3.0
2025-06-06 16:15:51.277,0.049433146,-0.038201723,0.0066462588,0.033947162,0.084046744,-0.0053235446,0.0,0.0,0.0,-0.027999053,0.083036,0.6039143,-0.16874714,-0.0623744,0.6003053,-0.19109659,-0.1781199,-0.6255648,-0.22547816,0.171427,-0.60741186,-0.2058146,-0.013341991,0.055737756,-0.027249219,-0.031701464,0.012423395,0.035299014,0.059639715,-0.012749987,0.0645138,0.0015311625,-0.040076632,-0.032049425,3.0,3.0,-3.0,-3.0,3.0,-3.0,-3.0,-3.0,-3.0,3.0,-3.0,-3.0,3.0,3.0,-3.0,-3.0,3.0,-3.0,-3.0,-3.0,-3.0,3.0,-3.0,-3.0
2025-06-06 16:15:51.294,0.0051263645,0.028067943,-0.012544794,0.010685983,0.15402079,-0.018119432,0.0,0.0,0.0,-0.02799903,0.078995876,0.6043055,-0.16415031,-0.07478721,0.6067323,-0.18647917,-0.17982495,-0.61684686,-0.23062699,0.17161508,-0.6052727,-0.20095058,-0.016017884,0.024390658,-0.050268006,-0.03320293,-0.019338809,-0.05772775,0.061636142,-0.06984205,0.0115180155,-0.05884744,0.017075853,-0.040591836,3.0,3.0,-3.0,-3.0,3.0,-3.0,-3.0,-3.0,-3.0,3.0,-3.0,-3.0,3.0,3.0,-3.0,-3.0,3.0,-3.0,-3.0,-3.0,-3.0,3.0,-3.0,-3.0
2025-06-06 16:15:51.314,0.03990191,-0.011204378,0.038078826,0.007089092,0.103211425,0.025251377,0.0,0.0,0.0,-0.027997246,0.08704627,0.59666973,-0.16775823,-0.06666339,0.6103109,-0.19142933,-0.18388806,-0.63469857,-0.22542392,0.1645218,-0.60746306,-0.20114437,-0.07254326,-0.0513322,-0.04562889,0.0018042926,0.02171682,0.009334956,0.021364253,-0.04893916,-0.054867376,-0.056668583,-0.041260645,0.033324264,3.0,3.0,-3.0,-3.0,3.0,-3.0,-3.0,-3.0,-3.0,3.0,-3.0,-3.0,3.0,3.0,-3.0,-3.0,3.0,-3.0,-3.0,-3.0,-3.0,3.0,-3.0,-3.0
2025-06-06 16:15:51.334,0.025786817,-0.04389505,-0.041669082,-0.018326052,0.14628333,-0.015673399,0.0,0.0,0.0,-0.027994037,0.07266264,0.60222703,-0.17496789,-0.07577431,0.61057466,-0.1894884,-0.18279639,-0.632298,-0.22699381,0.17113793,-0.60115993,-0.20018603,-0.054154515,0.05100299,-0.05961853,-0.063159265,0.062346492,-0.06436726,-0.03249094,0.0633857,-0.022167047,-0.02987678,-0.06550285,-0.016222216,3.0,3.0,-3.0,-3.0,3.0,-3.0,-3.0,-3.0,-3.0,3.0,-3.0,-3.0,3.0,3.0,-3.0,-3.0,3.0,-3.0,-3.0,-3.0,-3.0,3.0,-3.0,-3.0
2025-06-06 16:15:51.355,-0.01404134,-0.011004907,-0.003521178,0.022696702,0.12607715,-0.021969413,0.0,0.0,0.0,-0.027989754,0.08869245,0.5983283,-0.17681304,-0.06857409,0.59339756,-0.18597859,-0.17462458,-0.6216592,-0.22863837,0.17018478,-0.61417514,-0.19986047,-0.047962267,-0.0012829077,0.03893636,0.0045580426,-0.04800893,0.07053827,-0.0045742337,0.05431556,-0.05263815,0.0449849,0.027637802,-0.002237694,3.0,3.0,-3.0,-3.0,3.0,-3.0,-3.0,-3.0,-3.0,3.0,-3.0,-3.0,3.0,3.0,-3.0,-3.0,3.0,-3.0,-3.0,-3.0,-3.0,3.0,-3.0,-3.0
2025-06-06 16:15:51.376,-0.042444777,0.02624824,-0.0029915306,-0.012925478,0.12253039,-0.014593001,0.0,0.0,0.0,-0.027984744,0.08457058,0.61312985,-0.16357344,-0.07720908,0.6073436,-0.17542942,-0.1686566,-0.62035364,-0.22879429,0.17110232,-0.6011328,-0.20609005,0.044516534,-0.047046356,0.024905957,-0.0326663,-0.026942093,-0.017278438,0.050161794,0.06511871,0.07076338,0.046511736,0.02657587,-0.046447817,3.0,3.0,-3.0,-3.0,3.0,-3.0,-3.0,-3.0,-3.0,3.0,-3.0,-3.0,3.0,3.0,-3.0,-3.0,3.0,-3.0,-3.0,-3.0,-3.0,3.0,-3.0,-3.0
2025-06-06 16:15:51.395,-0.028518826,0.003822732,0.002650323,-0.018981954,0.10028988,0.037289817,0.0,0.0,0.0,-0.027979327,0.07413673,0.61172295,-0.16077416,-0.06752729,0.6112851,-0.1734852,-0.17543688,-0.61940414,-0.22198133,0.17084588,-0.6165893,-0.21056357,0.024227127,-0.039485734,-0.03721316,-0.049999963,-0.010795215,-0.045269113,-0.060102355,-0.05760627,-0.047383197,-0.068225995,0.071243994,-0.0054643718,3.0,3.0,-3.0,-3.0,3.0,-3.0,-3.0,-3.0,-3.0,3.0,-3.0,-3.0,3.0,3.0,-3.0,-3.0,3.0,-3.0,-3.0,-3.0,-3.0,3.0,-3.0,-3.0
2025-06-06 16:15:51.415,0.008025519,0.029265061,-0.0011647705,0.0452822,0.16408852,-0.031450618,0.0,0.0,0.0,-0.0279738,0.08570694,0.6088347,-0.1798478,-0.07967351,0.59639734,-0.17734134,-0.1680199,-0.62419945,-0.22882812,0.1627638,-0.618399,-0.21749213,0.058659986,0.020659767,0.0073877024,-0.017411709,-0.011299889,0.03875661,0.021414071,0.005666441,0.07123972,-0.07165403,0.04942237,0.00059437205,3.0,3.0,-3.0,-3.0,3.0,-3.0,-3.0,-3.0,-3.0,3.0,-3.0,-3.0,3.0,3.0,-3.0,-3.0,3.0,-3.0,-3.0,-3.0,-3.0,3.0,-3.0,-3.0
2025-06-06 16:15:51.435,-0.026226243,-0.030038044,-0.026734753,0.005754439,0.13625026,-0.021772822,0.0,0.0,0.0,-0.027968418,0.08069352,0.594554,-0.17455389,-0.064003564,0.59418225,-0.17897423,-0.18194608,-0.6238701,-0.22475462,0.16343074,-0.6115076,-0.20581785,0.023716327,-0.036979727,0.063977934,0.0263178,-0.042189457,0.0614062,-0.07009359,-0.0100711435,0.015801657,-0.0013621602,0.033267554,-0.03344874,3.0,3.0,-3.0,-3.0,3.0,-3.0,-3.0,-3.0,-3.0,3.0,-3.0,-3.0,3.0,3.0,-3.0,-3.0,3.0,-3.0,-3.0,-3.0,-3.0,3.0,-3.0,-3.0
2025-06-06 16:15:51.455,0.018844858,-0.048287928,-0.028812643,-0.0016584069,0.118984036,0.035888776,0.0,0.0,0.0,-0.027963387,0.08253775,0.594649,-0.17373765,-0.077354334,0.60092044,-0.1847074,-0.16524418,-0.631594,-0.22850424,0.163531,-0.61431724,-0.2143534,0.046437666,-0.019660704,-0.06817903,-0.074357614,0.066276625,-0.06689832,0.022589892,0.041553594,-0.026904693,-0.02926658,-0.05452727,-0.053257577,3.0,3.0,-3.0,-3.0,3.0,-3.0,-3.0,-3.0,-3.0,3.0,-3.0,-3.0,3.0,3.0,-3.0,-3.0,3.0,-3.0,-3.0,-3.0,-3.0,3.0,-3.0,-3.0
2025-06-06 16:15:51.476,-0.009693461,0.03829125,-0.04251975,0.03430234,0.10876874,-0.035722464,0.0,0.0,0.0,-0.027958874,0.07172114,0.60682607,-0.16428794,-0.0804936,0.59930265,-0.18721773,-0.17849438,-0.6300254,-0.22426638,0.17180082,-0.61082137,-0.19970787,0.013287905,0.006267678,0.034276288,-0.016318321,0.06368349,-0.0068357773,0.004004517,-0.010261601,-0.070057735,-0.036566593,0.04133682,0.039190527,3.0,3.0,-3.0,-3.0,3.0,-3.0,-3.0,-3.0,-3.0,3.0,-3.0,-3.0,3.0,3.0,-3.0,-3.0,3.0,-3.0,-3.0,-3.0,-3.0,3.0,-3.0,-3.0
2025-06-06 16:15:51.495,0.0032831032,-0.011176352,-0.04509849,0.043846995,0.105863914,0.037171412,0.0,0.0,0.0,-0.027954994,0.0748389,0.6007329,-0.16936147,-0.071567304,0.5983203,-0.18932745,-0.18148647,-0.6179903,-0.22757147,0.17620763,-0.61065227,-0.21255796,0.058313962,0.028811004,0.05346348,-0.035917044,-0.036178567,0.063091025,-0.018391043,0.022802167,-0.035659518,-0.01125908,-0.028541915,0.037295792,3.0,3.0,-3.0,-3.0,3.0,-3.0,-3.0,-3.0,-3.0,3.0,-3.0,-3.0,3.0,3.0,-3.0,-3.0,3.0,-3.0,-3.0,-3.0,-3.0,3.0,-3.0,-3.0
2025-06-06 16:15:51.515,-0.031809833,-0.024465954,0.0078626545,-0.0031015777,0.15262237,0.046256244,0.0,0.0,0.0,-0.027951822,0.07049736,0.6095496,-0.17475392,-0.06815195,0.60155267,-0.19096205,-0.16501558,-0.6248035,-0.23346242,0.1725009,-0.6171493,-0.21447726,-0.04849286,0.07022071,0.061768863,-0.013668468,0.066379294,0.017485667,-0.05571377,0.019533502,-0.019267613,0.039658614,-0.012650863,-0.045562506,3.0,3.0,-3.0,-3.0,3.0,-3.0,-3.0,-3.0,-3.0,3.0,-3.0,-3.0,3.0,3.0,-3.0,-3.0,3.0,-3.0,-3.0,-3.0,-3.0,3.0,-3.0,-3.0
2025-06-06 16:15:51.535,-0.042931445,-0.0063248067,-0.033069916,-0.01182156,0.122490965,0.031705458,0.0,0.0,0.0,-0.027949387,0.07450673,0.60359836,-0.17315133,-0.07542729,0.61251634,-0.18122102,-0.18000913,-0.62737703,-0.22083417,0.16276512,-0.6056479,-0.20930448,-0.055651776,-0.028241578,0.035989154,-0.053993806,-0.05317536,-0.053049475,-0.020659229,-0.03192663,0.03957015,-0.017030664,0.0610045,0.056692004,3.0,3.0,-3.0,-3.0,3.0,-3.0,-3.0,-3.0,-3.0,3.0,-3.0,-3.0,3.0,3.0,-3.0,-3.0,3.0,-3.0,-3.0,-3.0,-3.0,3.0,-3.0,-3.0
2025-06-06 16:15:51.558,0.046318326,0.0005741837,-0.023791272,-0.031181218,0.09816937,-0.008687126,0.0,0.0,0.0,-0.027947687,0.07721684,0.59595644,-0.16732116,-0.07410193,0.6018447,-0.180062,-0.16790535,-0.6268187,-0.21384199,0.17945826,-0.6125897,-0.21067429,-0.01304408,0.0104484605,-0.04457072,0.024530914,0.015016051,-0.008644345,0.01587341,-0.015007259,0.048195653,-0.03255175,0.072065346,-0.042828716,3.0,3.0,-3.0,-3.0,3.0,-3.0,-3.0,-3.0,-3.0,3.0,-3.0,-3.0,3.0,3.0,-3.0,-3.0,3.0,-3.0,-3.0,-3.0,-3.0,3.0,-3.0,-3.0
2025-06-06 16:15:51.576,-0.04157639,0.00052410865,0.030598147,-0.022812888,0.08833095,0.023747502,0.0,0.0,0.0,-0.02794668,0.08563979,0.6105472,-0.1612287,-0.07691794,0.60464925,-0.18648735,-0.17298768,-0.6241627,-0.21447803,0.1754106,-0.60141647,-0.21470892,-0.03237415,0.035350047,0.003328355,0.05738727,-0.0713021,-0.032640312,-0.054438204,-0.061049618,0.06768618,0.061312087,-0.014845936,0.034927376,3.0,3.0,-3.0,-3.0,3.0,-3.0,-3.0,-3.0,-3.0,3.0,-3.0,-3.0,3.0,3.0,-3.0,-3.0,3.0,-3.0,-3.0,-3.0,-3.0,3.0,-3.0,-3.0
2025-06-06 16:15:51.595,-0.047528863,-0.025612494,-0.0063248742,0.016384719,0.07760064,0.015803676,0.0,0.0,0.0,-0.027946314,0.07738761,0.60044307,-0.16224998,-0.06340791,0.6128912,-0.17747314,-0.17557774,-0.6190568,-0.23230906,0.1786851,-0.6175467,-0.21063416,0.05160673,-0.022245707,-0.065954246,-0.073055394,-0.005172582,-0.0139247,0.06545185,-0.020936377,-0.06990925,-0.03590119,0.018899024,0.053101644,3.0,3.0,-3.0,-3.0,3.0,-3.0,-3.0,-3.0,-3.0,3.0,-3.0,-3.0,3.0,3.0,-3.0,-3.0,3.0,-3.0,-3.0,-3.0,-3.0,3.0,-3.0,-3.0
2025-06-06 16:15:51.615,0.001226274,0.03992366,-0.018517053,-0.027466528,0.15823136,0.018455263,0.0,0.0,0.0,-0.027946504,0.07972933,0.6013692,-0.17409925,-0.07742621,0.60263443,-0.19098717,-0.17590886,-0.6204069,-0.21908714,0.16258457,-0.61863154,-0.19928597,0.070835754,-0.026203496,0.064570434,0.033664666,0.057369284,0.01611763,0.004955602,-0.06314147,-0.06197465,0.04029996,0.04321626,0.01212167,3.0,3.0,-3.0,-3.0,3.0,-3.0,-3.0,-3.0,-3.0,3.0,-3.0,-3.0,3.0,3.0,-3.0,-3.0,3.0,-3.0,-3.0,-3.0,-3.0,3.0,-3.0,-3.0
2025-06-06 16:15:51.636,0.021081198,0.039107837,0.005016305,-0.006589544,0.09245937,-0.005356757,0.0,0.0,0.0,-0.02794716,0.07011511,0.6065052,-0.1746809,-0.07840903,0.6069452,-0.1838287,-0.17991857,-0.63419646,-0.21810123,0.17932738,-0.61985755,-0.20257887,-0.015364021,-0.057223298,-0.0741558,0.0005155394,-0.0067013353,-0.0002855053,-0.046394303,0.047821026,-0.028540088,0.0046082926,0.05629621,0.011211927,3.0,3.0,-3.0,-3.0,3.0,-3.0,-3.0,-3.0,-3.0,3.0,-3.0,-3.0,3.0,3.0,-3.0,-3.0,3.0,-3.0,-3.0,-3.0,-3.0,3.0,-3.0,-3.0
2025-06-06 16:15:51.659,-0.047135074,0.015149044,0.0052475845,0.00080846745,0.08464036,-0.016783306,0.0,0.0,0.0,-0.027948186,0.0787243,0.60047805,-0.16249652,-0.07079968,0.609649,-0.17494968,-0.17191987,-0.6310786,-0.22995965,0.16374548,-0.604591,-0.20631205,-0.03912562,-0.020235822,0.01763905,-0.046398353,0.070134915,-0.02063649,-0.040505975,-0.058642626,-0.06375331,-0.013471607,-0.06823673,0.019842675,3.0,3.0,-3.0,-3.0,3.0,-3.0,-3.0,-3.0,-3.0,3.0,-3.0,-3.0,3.0,3.0,-3.0,-3.0,3.0,-3.0,-3.0,-3.0,-3.0,3.0,-3.0,-3.0
2025-06-06 16:15:51.676,0.048591733,0.047341753,0.034692865,0.003772466,0.10690459,-0.019579597,0.0,0.0,0.0,-0.027949484,0.08719709,0.59707165,-0.16573964,-0.07004418,0.600207,-0.18984568,-0.1783195,-0.6271799,-0.23159564,0.17968228,-0.61192185,-0.2185826,-0.05013296,-0.00084033626,-0.056451116,0.06875164,0.004018262,0.013506284,-0.0571159,-0.016161656,-0.03625213,0.030450456,-0.06307164,0.05620296,3.0,3.0,-3.0,-3.0,3.0,-3.0,-3.0,-3.0,-3.0,3.0,-3.0,-3.0,3.0,3.0,-3.0,-3.0,3.0,-3.0,-3.0,-3.0,-3.0,3.0,-3.0,-3.0
2025-06-06 16:15:51.696,-0.0022127002,-0.03955297,0.03277493,-0.032268815,0.07395616,-0.034784224,0.0,0.0,0.0,-0.027950956,0.081828326,0.6077673,-0.16412015,-0.07415743,0.6125973,-0.18045332,-0.16696037,-0.6240065,-0.22601166,0.16292101,-0.6126368,-0.20066385,0.053880587,-0.00426137,-0.06944393,0.0647659,0.016452912,0.0041221585,-0.043571655,0.014667753,0.059840225,0.026711138,0.042002253,-0.061063133,3.0,3.0,-3.0,-3.0,3.0,-3.0,-3.0,-3.0,-3.0,3.0,-3.0,-3.0,3.0,3.0,-3.0,-3.0,3.0,-3.0,-3.0,-3.0,-3.0,3.0,-3.0,-3.0
2025-06-06 16:15:51.716,0.006246655,-0.0010409278,0.009368448,0.049051516,0.08314205,0.025308922,0.0,0.0,0.0,-0.027952513,0.07117742,0.61392295,-0.16108678,-0.07568808,0.60647357,-0.1899307,-0.17242378,-0.615134,-0.21876526,0.17064749,-0.6092584,-0.21179003,0.008757345,0.06664607,-0.06219918,-0.04313429,0.026931634,0.05500826,0.04732454,0.02012386,0.054861225,0.0064997254,0.06710797,-0.067186005,3.0,3.0,-3.0,-3.0,3.0,-3.0,-3.0,-3.0,-3.0,3.0,-3.0,-3.0,3.0,3.0,-3.0,-3.0,3.0,-3.0,-3.0,-3.0,-3.0,3.0,-3.0,-3.0
2025-06-06 16:15:51.736,0.049106892,0.022289747,0.03065249,0.019969756,0.13703863,0.027970001,0.0,0.0,0.0,-0.027954075,0.07148128,0.6028319,-0.16899022,-0.07922184,0.6002068,-0.17272685,-0.16818768,-0.61608505,-0.2303064,0.17802404,-0.6078678,-0.19964437,0.008639439,0.06618397,-0.041561835,0.072243676,-0.012011014,-0.071720414,0.024098933,0.07088578,0.041945416,0.018021392,-0.036863577,-0.0064854664,3.0,3.0,-3.0,-3.0,3.0,-3.0,-3.0,-3.0,-3.0,3.0,-3.0,-3.0,3.0,3.0,-3.0,-3.0,3.0,-3.0,-3.0,-3.0,-3.0,3.0,-3.0,-3.0
2025-06-06 16:15:51.759,0.021235757,-0.033592414,0.042306427,-0.022022974,0.07501063,-0.023557002,0.0,0.0,0.0,-0.027955577,0.0696495,0.59815747,-0.17672059,-0.07632506,0.5997691,-0.18942215,-0.17131953,-0.62200505,-0.2232166,0.17842416,-0.6077045,-0.20186314,0.017567236,0.056342274,0.017332474,0.025179412,-0.016413871,0.020444553,0.03233161,-0.06250294,-0.049129836,0.01831588,0.068063736,-0.01959668,3.0,3.0,-3.0,-3.0,3.0,-3.0,-3.0,-3.0,-3.0,3.0,-3.0,-3.0,3.0,3.0,-3.0,-3.0,3.0,-3.0,-3.0,-3.0,-3.0,3.0,-3.0,-3.0
2025-06-06 16:15:51.776,0.018567473,0.003338406,0.0098355785,0.021352334,0.08748862,-0.030114576,0.0,0.0,0.0,-0.027956959,0.08680548,0.59623694,-0.16244261,-0.06300574,0.60374177,-0.1794785,-0.17446762,-0.6331806,-0.23344736,0.17348295,-0.61723787,-0.20647436,0.06511909,-0.027490254,-0.061954,0.0677831,0.030638693,0.0034537152,-0.057379976,0.033272844,0.05465275,0.06739841,-0.0018851912,-0.031257205,3.0,3.0,-3.0,-3.0,3.0,-3.0,-3.0,-3.0,-3.0,3.0,-3.0,-3.0,3.0,3.0,-3.0,-3.0,3.0,-3.0,-3.0,-3.0,-3.0,3.0,-3.0,-3.0
2025-06-06 16:15:51.796,-0.004933996,0.040678736,0.03622592,0.04292388,0.097824536,0.048554134,0.0,0.0,0.0,-0.027958184,0.08557449,0.59948426,-0.17554955,-0.068535276,0.60527855,-0.17475018,-0.18235585,-0.6243934,-0.2222176,0.17085035,-0.6094705,-0.20237112,0.06379042,0.013207697,0.01094306,-0.04773595,-0.008609154,0.02213501,-0.043439794,-0.06915341,-0.041106377,0.02301065,-0.045442708,0.020347636,3.0,3.0,-3.0,-3.0,3.0,-3.0,-3.0,-3.0,-3.0,3.0,-3.0,-3.0,3.0,3.0,-3.0,-3.0,3.0,-3.0,-3.0,-3.0,-3.0,3.0,-3.0,-3.0
2025-06-06 16:15:51.816,-0.010865422,0.021443691,0.028888395,0.021352235,0.09118178,0.01626748,0.0,0.0,0.0,-0.02795922,0.074615,0.60734123,-0.17125542,-0.06228501,0.59554535,-0.18342035,-0.18436414,-0.62562686,-0.2151444,0.16984855,-0.61135715,-0.21655896,0.026215674,-0.0027341172,0.07176136,0.06378253,-0.046073113,-0.01878935,0.04569573,-0.048272755,0.027977414,0.06245359,-0.06247868,0.02963883,3.0,3.0,-3.0,-3.0,3.0,-3.0,-3.0,-3.0,-3.0,3.0,-3.0,-3.0,3.0,3.0,-3.0,-3.0,3.0,-3.0,-3.0,-3.0,-3.0,3.0,-3.0,-3.0
2025-06-06 16:15:51.836,-0.032617215,-0.041109785,0.0014665449,0.054930996,0.1055529,-0.044882044,0.0,0.0,0.0,-0.02796005,0.07977069,0.5993447,-0.16294362,-0.06337947,0.61089706,-0.19065247,-0.18075794,-0.63361627,-0.21642566,0.1660889,-0.6109713,-0.19934946,0.06318358,0.022509463,-0.046717897,0.02889072,-0.01488812,-0.062840484,0.017015332,-0.0042076986,-0.0278133,0.020573057,0.057062585,0.051298745,3.0,3.0,-3.0,-3.0,3.0,-3.0,-3.0,-3.0,-3.0,3.0,-3.0,-3.0,3.0,3.0,-3.0,-3.0,3.0,-3.0,-3.0,-3.0,-3.0,3.0,-3.0,-3.0
2025-06-06 16:15:51.859,-0.019121075,-0.008158654,0.033047583,-0.0065546567,0.121014185,-0.011120138,0.0,0.0,0.0,-0.027960673,0.08220898,0.59734464,-0.16754265,-0.06991693,0.6032127,-0.18372671,-0.18410024,-0.62577206,-0.23104827,0.18013251,-0.60977894,-0.20561032,-0.035754003,0.018412033,0.038583066,0.057396013,-0.046964888,0.014340351,-0.014208206,-0.023798496,0.06278435,0.012816088,0.001909505,0.07328657,3.0,3.0,-3.0,-3.0,3.0,-3.0,-3.0,-3.0,-3.0,3.0,-3.0,-3.0,3.0,3.0,-3.0,-3.0,3.0,-3.0,-3.0,-3.0,-3.0,3.0,-3.0,-3.0
2025-06-06 16:15:51.876,-0.03489098,0.027799679,0.014612058,-0.044035494,0.070498966,0.011412137,0.0,0.0,0.0,-0.027961088,0.071232915,0.6060505,-0.16138816,-0.07901372,0.60042465,-0.18641795,-0.18035945,-0.62212783,-0.21745752,0.16219582,-0.61856997,-0.21127936,-0.011874077,0.038297106,-0.033051595,0.01578333,0.018526297,0.04288048,0.073394716,0.0006200937,-0.019570226,0.019048912,0.038315967,0.0059168893,3.0,3.0,-3.0,-3.0,3.0,-3.0,-3.0,-3.0,-3.0,3.0,-3.0,-3.0,3.0,3.0,-3.0,-3.0,3.0,-3.0,-3.0,-3.0,-3.0,3.0,-3.0,-3.0
2025-06-06 16:15:51.896,-0.01342973,-0.040290818,-0.033623464,-0.026286744,0.16534594,0.018424278,0.0,0.0,0.0,-0.02796131,0.087366894,0.59466594,-0.17488278,-0.071289465,0.5952743,-0.18820147,-0.18015783,-0.63187236,-0.22324163,0.1665731,-0.6012543,-0.2152484,0.029499559,-0.04412357,0.06141689,-0.07329018,-0.0050620614,-0.05093331,-0.07017132,-0.013008548,0.07060399,-0.04769367,0.05119058,-0.010602766,3.0,3.0,-3.0,-3.0,3.0,-3.0,-3.0,-3.0,-3.0,3.0,-3.0,-3.0,3.0,3.0,-3.0,-3.0,3.0,-3.0,-3.0,-3.0,-3.0,3.0,-3.0,-3.0
2025-06-06 16:15:51.917,-0.04153905,0.04782495,0.008664529,0.01011963,0.12788674,-0.0060249935,0.0,0.0,0.0,-0.027961358,0.06978985,0.59651333,-0.17368741,-0.07281495,0.6040123,-0.18399973,-0.17479718,-0.6340534,-0.21401729,0.16425578,-0.60749954,-0.2044686,-0.04735912,-0.05060648,0.027642129,-0.008900568,0.014446052,-0.0350707,0.06278384,-0.030225951,0.020109344,0.0091861775,0.064266354,-0.04007955,3.0,3.0,-3.0,-3.0,3.0,-3.0,-3.0,-3.0,-3.0,3.0,-3.0,-3.0,3.0,3.0,-3.0,-3.0,3.0,-3.0,-3.0,-3.0,-3.0,3.0,-3.0,-3.0
2025-06-06 16:15:51.937,-0.0046342453,0.027655572,-0.03543883,0.017031154,0.097951084,0.04251381,0.0,0.0,0.0,-0.027961256,0.06917466,0.6052172,-0.17978424,-0.07910622,0.6031162,-0.17919363,-0.16977109,-0.63004804,-0.22516908,0.1743508,-0.6078941,-0.21453817,0.007298851,-0.0026564954,-0.03695406,-0.041433778,-0.061176386,0.048443917,-0.02308296,-0.01891588,0.03610244,-0.021423006,0.038463924,-0.07122473,3.0,3.0,-3.0,-3.0,3.0,-3.0,-3.0,-3.0,-3.0,3.0,-3.0,-3.0,3.0,3.0,-3.0,-3.0,3.0,-3.0,-3.0,-3.0,-3.0,3.0,-3.0,-3.0
2025-06-06 16:15:51.959,0.0067499843,0.029588172,-0.04427881,0.045673445,0.16172796,0.012024757,0.0,0.0,0.0,-0.027961029,0.07179143,0.5982955,-0.16610508,-0.07767872,0.6125977,-0.18503153,-0.18087794,-0.62864035,-0.21410355,0.17382583,-0.61207545,-0.20989755,-0.074770264,-0.061277505,-0.006568131,0.013467438,0.003417996,0.05149073,-0.038843784,0.010151812,0.067908265,-0.03577982,-0.050556198,-0.030773904,3.0,3.0,-3.0,-3.0,3.0,-3.0,-3.0,-3.0,-3.0,3.0,-3.0,-3.0,3.0,3.0,-3.0,-3.0,3.0,-3.0,-3.0,-3.0,-3.0,3.0,-3.0,-3.0
2025-06-06 16:15:51.976,-0.021958018,-0.01399413,-0.023920637,0.050286803,0.07069138,0.0018351896,0.0,0.0,0.0,-0.027960707,0.07761504,0.5969987,-0.17229223,-0.062256824,0.6059508,-0.18245043,-0.16548376,-0.61928135,-0.22932117,0.16223764,-0.60520065,-0.21550226,-0.056042574,0.009980739,0.009617491,-0.059608914,0.042948235,-0.030957997,-0.0203501,0.0571322,0.064364694,-0.021281777,0.014955891,0.026935419,3.0,3.0,-3.0,-3.0,3.0,-3.0,-3.0,-3.0,-3.0,3.0,-3.0,-3.0,3.0,3.0,-3.0,-3.0,3.0,-3.0,-3.0,-3.0,-3.0,3.0,-3.0,-3.0
2025-06-06 16:15:51.996,0.0027265507,0.03980871,0.03492562,0.0014435181,0.0907409,-0.023514014,0.0,0.0,0.0,-0.027960317,0.0694633,0.6018327,-0.16925083,-0.06905643,0.5981371,-0.18354717,-0.17938666,-0.6203535,-0.22652113,0.16764887,-0.60851187,-0.21757299,0.070160136,-0.05816623,0.061708994,-0.04645962,0.021527788,0.056462742,-0.066265166,-0.009262942,-0.033373836,0.062624864,-0.017860496,0.029561408,3.0,3.0,-3.0,-3.0,3.0,-3.0,-3.0,-3.0,-3.0,3.0,-3.0,-3.0,3.0,3.0,-3.0,-3.0,3.0,-3.0,-3.0,-3.0,-3.0,3.0,-3.0,-3.0
2025-06-06 16:15:52.017,-0.037481308,0.0067566633,-0.04815271,0.005763324,0.1550816,0.019197807,0.0,0.0,0.0,-0.027959887,0.072862856,0.5951274,-0.16922721,-0.067420624,0.5954993,-0.18332441,-0.16662925,-0.619524,-0.21526138,0.16411741,-0.6019797,-0.20012611,0.021563185,0.0020293084,0.023498686,-0.027718727,-0.033433996,0.07483077,0.06467912,-0.009603161,0.07238026,0.051873527,-0.028720561,0.041250285,3.0,3.0,-3.0,-3.0,3.0,-3.0,-3.0,-3.0,-3.0,3.0,-3.0,-3.0,3.0,3.0,-3.0,-3.0,3.0,-3.0,-3.0,-3.0,-3.0,3.0,-3.0,-3.0
2025-06-06 16:15:52.037,-0.042583205,-0.026460042,-0.024079254,-0.028891744,0.07123164,-0.042669814,0.0,0.0,0.0,-0.02795944,0.071239226,0.6128939,-0.16374786,-0.0766517,0.5998403,-0.18173146,-0.17953953,-0.63129896,-0.22969861,0.16338538,-0.61836326,-0.19991603,-0.034441594,0.060577076,0.004887781,-0.04481404,-0.019669965,-0.035331536,0.009184616,-0.032293394,-0.026037749,0.05215876,0.0030212174,-0.06477031,3.0,3.0,-3.0,-3.0,3.0,-3.0,-3.0,-3.0,-3.0,3.0,-3.0,-3.0,3.0,3.0,-3.0,-3.0,3.0,-3.0,-3.0,-3.0,-3.0,3.0,-3.0,-3.0
2025-06-06 16:15:52.059,-0.008297615,-0.022731971,-0.035773877,0.032804783,0.10971512,-0.045450088,0.0,0.0,0.0,-0.027958998,0.087370865,0.606521,-0.17502196,-0.071567364,0.5935637,-0.18564464,-0.17679028,-0.6225461,-0.22351933,0.17878953,-0.60356665,-0.20470096,-0.060598876,0.0043614856,0.04473693,0.07417735,0.016895067,-0.04870753,0.005547378,-0.0745395,-0.03881381,0.057054132,0.045158885,0.06933483,3.0,3.0,-3.0,-3.0,3.0,-3.0,-3.0,-3.0,-3.0,3.0,-3.0,-3.0,3.0,3.0,-3.0,-3.0,3.0,-3.0,-3.0,-3.0,-3.0,3.0,-3.0,-3.0
2025-06-06 16:15:52.077,0.0037541925,0.030629307,-0.043733884,-0.010236464,0.077192016,0.017260268,0.0,0.0,0.0,-0.02795858,0.085001305,0.61342096,-0.17306474,-0.071014464,0.6055324,-0.17972647,-0.1794434,-0.6209022,-0.21454291,0.17907478,-0.60379744,-0.21231428,-0.035811763,-0.03235418,0.057245936,-0.019424746,0.008322689,-0.014401614,-0.06263951,0.015215435,0.05497723,-0.060000762,-0.035568967,-0.051971108,3.0,3.0,-3.0,-3.0,3.0,-3.0,-3.0,-3.0,-3.0,3.0,-3.0,-3.0,3.0,3.0,-3.0,-3.0,3.0,-3.0,-3.0,-3.0,-3.0,3.0,-3.0,-3.0
2025-06-06 16:15:52.097,-0.04723524,-0.0100001795,-0.0340453,0.02876931,0.081580766,-0.0071045114,0.0,0.0,0.0,-0.0279582,0.07634383,0.5995018,-0.17642215,-0.061007034,0.6038603,-0.17931631,-0.1806512,-0.6165415,-0.22790721,0.168381,-0.61944294,-0.20606117,-0.03738313,0.055076405,0.05834759,0.00712423,-0.002267946,0.030840235,0.030898226,-0.03801615,-0.062088676,0.017918466,-0.035593644,0.018471308,3.0,3.0,-3.0,-3.0,3.0,-3.0,-3.0,-3.0,-3.0,3.0,-3.0,-3.0,3.0,3.0,-3.0,-3.0,3.0,-3.0,-3.0,-3.0,-3.0,3.0,-3.0,-3.0
2025-06-06 16:15:52.117,0.030874807,-0.039572816,0.008213652,0.05206892,0.06988658,0.03195133,0.0,0.0,0.0,-0.027957868,0.08338367,0.6125493,-0.16398717,-0.063265964,0.6081024,-0.17161524,-0.17554325,-0.62544227,-0.2295094,0.17098767,-0.60240835,-0.20614439,-0.0018787424,0.028713657,-0.05806663,0.04389536,-0.03051964,0.028717086,0.028108595,0.006222503,0.03998587,-0.073853485,0.041948527,0.05561476,3.0,3.0,-3.0,-3.0,3.0,-3.0,-3.0,-3.0,-3.0,3.0,-3.0,-3.0,3.0,3.0,-3.0,-3.0,3.0,-3.0,-3.0,-3.0,-3.0,3.0,-3.0,-3.0
2025-06-06 16:15:52.137,-0.025216507,0.039964404,-0.018829383,-0.0046421145,0.091675654,0.004246154,0.0,0.0,0.0,-0.027957592,0.08519824,0.59903705,-0.18004274,-0.06561027,0.59957904,-0.18173577,-0.16630459,-0.61723924,-0.22775674,0.1641143,-0.6179809,-0.20984776,-0.038136296,-0.06460996,-0.021026455,-0.06595725,0.040296063,0.04453961,-0.067683056,-0.06680641,0.069650486,-0.032553814,0.0560173,-0.051375788,3.0,3.0,-3.0,-3.0,3.0,-3.0,-3.0,-3.0,-3.0,3.0,-3.0,-3.0,3.0,3.0,-3.0,-3.0,3.0,-3.0,-3.0,-3.0,-3.0,3.0,-3.0,-3.0
2025-06-06 16:15:52.160,-0.03308698,0.03892306,-0.028402511,-0.041424833,0.10551269,0.027652683,0.0,0.0,0.0,-0.027957376,0.075134516,0.59466517,-0.16308585,-0.06833892,0.5996593,-0.18935446,-0.17430373,-0.6188248,-0.23242193,0.18047558,-0.60271585,-0.21360491,0.070393644,0.02808455,0.052316584,0.02820221,-0.054160066,0.03749449,-0.06495268,0.032950304,0.046604138,-0.0027051754,0.0015063784,0.009604873,3.0,3.0,-3.0,-3.0,3.0,-3.0,-3.0,-3.0,-3.0,3.0,-3.0,-3.0,3.0,3.0,-3.0,-3.0,3.0,-3.0,-3.0,-3.0,-3.0,3.0,-3.0,-3.0
2025-06-06 16:15:52.177,-0.003506904,-0.049789447,-0.015743874,0.018531948,0.13920218,0.031168995,0.0,0.0,0.0,-0.02795722,0.07959558,0.6140646,-0.17995723,-0.07040566,0.59709656,-0.18386781,-0.16605438,-0.6343024,-0.22711878,0.17425205,-0.61653155,-0.20901708,0.009250171,-0.011773776,-0.05210724,0.04550301,0.00016432194,0.016403377,0.044806626,-0.037120882,-0.04500042,0.050223198,-0.0140419295,0.048379846,3.0,3.0,-3.0,-3.0,3.0,-3.0,-3.0,-3.0,-3.0,3.0,-3.0,-3.0,3.0,3.0,-3.0,-3.0,3.0,-3.0,-3.0,-3.0,-3.0,3.0,-3.0,-3.0
2025-06-06 16:15:52.197,-0.043566097,0.03368112,0.02269552,0.04187637,0.073649004,0.04991124,0.0,0.0,0.0,-0.02795712,0.0864625,0.6116497,-0.17258161,-0.07654607,0.6121832,-0.17770752,-0.16461039,-0.61795324,-0.23362397,0.17564888,-0.614269,-0.21171476,-0.0027440996,0.008248721,-0.048533753,-0.0089651905,0.07096785,-0.023165924,0.008307631,-0.023483854,-0.06155583,-0.06423999,0.008812696,0.008076393,3.0,3.0,-3.0,-3.0,3.0,-3.0,-3.0,-3.0,-3.0,3.0,-3.0,-3.0,3.0,3.0,-3.0,-3.0,3.0,-3.0,-3.0,-3.0,-3.0,3.0,-3.0,-3.0
2025-06-06 16:15:52.218,-0.03859719,-0.034075618,0.038314294,0.030659711,0.16797166,0.011159548,0.0,0.0,0.0,-0.027957076,0.068760894,0.5979629,-0.17548808,-0.075637765,0.60306746,-0.19043064,-0.18079352,-0.62876916,-0.23292993,0.17321189,-0.6202357,-0.21295424,-0.008552644,0.04783432,0.015410421,0.06730309,-0.0030855031,-0.043596577,-0.04581238,-0.06077604,-0.073184974,-0.007929262,0.005975704,0.038226437,3.0,3.0,-3.0,-3.0,3.0,-3.0,-3.0,-3.0,-3.0,3.0,-3.0,-3.0,3.0,3.0,-3.0,-3.0,3.0,-3.0,-3.0,-3.0,-3.0,3.0,-3.0,-3.0
2025-06-06 16:15:52.238,0.0437086,0.013268941,-0.0012641599,0.035876606,0.10764047,0.0004296497,0.0,0.0,0.0,-0.027957078,0.0864956,0.61302173,-0.16848545,-0.07412636,0.60271496,-0.18578173,-0.16900261,-0.61860925,-0.21401773,0.18007451,-0.6050045,-0.20316523,-0.031501856,0.07213865,0.034574017,-0.042467166,-0.04196172,0.04212798,0.040440354,-0.06658807,0.01730369,-0.040850397,-0.040614337,-0.007524155,3.0,3.0,-3.0,-3.0,3.0,-3.0,-3.0,-3.0,-3.0,3.0,-3.0,-3.0,3.0,3.0,-3.0,-3.0,3.0,-3.0,-3.0,-3.0,-3.0,3.0,-3.0,-3.0
2025-06-06 16:15:52.259,0.028661951,-0.022909757,-0.026757147,0.010493111,0.1505347,0.03246732,0.0,0.0,0.0,-0.02795712,0.08352166,0.61168116,-0.17533098,-0.07773443,0.594375,-0.18355848,-0.17668884,-0.62764865,-0.21980308,0.178596,-0.6010363,-0.20243165,-0.0076667657,0.04374185,0.06372706,0.06849997,-0.050444063,0.048759855,-0.025718339,-0.036983687,-0.012358074,0.048746184,0.0038052537,0.05189571,3.0,3.0,-3.0,-3.0,3.0,-3.0,-3.0,-3.0,-3.0,3.0,-3.0,-3.0,3.0,3.0,-3.0,-3.0,3.0,-3.0,-3.0,-3.0,-3.0,3.0,-3.0,-3.0
2025-06-06 16:15:52.277,0.011336607,0.026834559,0.012800518,-0.039352413,0.13982737,0.029529192,0.0,0.0,0.0,-0.027957195,0.08021816,0.6005165,-0.179066,-0.06572812,0.6074818,-0.17654592,-0.16537318,-0.63408923,-0.23252851,0.17269664,-0.604223,-0.20575799,-0.032100838,-0.06255251,0.030125972,-0.068573624,0.028701242,0.019184735,-0.060832065,0.072098084,-0.01014175,0.014012559,0.06916912,0.011966885,3.0,3.0,-3.0,-3.0,3.0,-3.0,-3.0,-3.0,-3.0,3.0,-3.0,-3.0,3.0,3.0,-3.0,-3.0,3.0,-3.0,-3.0,-3.0,-3.0,3.0,-3.0,-3.0
2025-06-06 16:15:52.298,0.028625699,-0.024483232,0.02229721,0.021288974,0.09104754,-0.043973006,0.0,0.0,0.0,-0.027957294,0.07876098,0.6042358,-0.17536928,-0.06428751,0.5993482,-0.17685187,-0.17024963,-0.62848395,-0.22015803,0.16347605,-0.61346936,-0.21384715,0.04373479,-0.009457144,-0.0061784163,-0.051919263,0.0036859007,-0.07188834,-0.017918607,-0.03640909,0.026724735,-0.012816267,0.005113955,-0.019391913,3.0,3.0,-3.0,-3.0,3.0,-3.0,-3.0,-3.0,-3.0,3.0,-3.0,-3.0,3.0,3.0,-3.0,-3.0,3.0,-3.0,-3.0,-3.0,-3.0,3.0,-3.0,-3.0
2025-06-06 16:15:52.318,0.014023641,0.03112547,0.024171606,0.014365147,0.07937975,-0.039997663,0.0,0.0,0.0,-0.027957411,0.07298193,0.60038775,-0.16938758,-0.06657875,0.6039478,-0.18014374,-0.18377994,-0.62222564,-0.22797722,0.16669624,-0.6179666,-0.20174249,0.015581525,-0.039438266,0.061310805,-0.004760941,-0.051071186,-0.039638847,0.005460878,0.056445878,0.056093674,-0.06712803,0.048232544,-0.048307385,3.0,3.0,-3.0,-3.0,3.0,-3.0,-3.0,-3.0,-3.0,3.0,-3.0,-3.0,3.0,3.0,-3.0,-3.0,3.0,-3.0,-3.0,-3.0,-3.0,3.0,-3.0,-3.0
2025-06-06 16:15:52.338,0.036671545,-0.03894572,0.011614683,-0.023494707,0.07247246,0.03716736,0.0,0.0,0.0,-0.027957536,0.07119848,0.5944217,-0.17527239,-0.0755449,0.59950036,-0.18662173,-0.1755182,-0.6327387,-0.21851046,0.17221531,-0.6174217,-0.2180868,-0.050073583,0.031988464,0.009217223,-0.010731584,0.00027070352,0.05022858,0.021883005,-0.0060717515,-0.04955172,0.036733504,-0.027780294,0.014989309,3.0,3.0,-3.0,-3.0,3.0,-3.0,-3.0,-3.0,-3.0,3.0,-3.0,-3.0,3.0,3.0,-3.0,-3.0,3.0,-3.0,-3.0,-3.0,-3.0,3.0,-3.0,-3.0
2025-06-06 16:15:52.359,-0.029673077,-0.015631823,0.021917231,-0.023257686,0.13307224,0.017277563,0.0,0.0,0.0,-0.027957665,0.07492268,0.5952405,-0.17844582,-0.07652516,0.59431833,-0.1743281,-0.17338763,-0.6169854,-0.21702681,0.165581,-0.6157542,-0.20760004,-0.014733828,0.02778064,-0.0022005672,-0.04991443,0.04769146,0.009587738,-0.039770238,-0.061510757,0.048385236,-0.069034405,0.017434074,-0.06532347,3.0,3.0,-3.0,-3.0,3.0,-3.0,-3.0,-3.0,-3.0,3.0,-3.0,-3.0,3.0,3.0,-3.0,-3.0,3.0,-3.0,-3.0,-3.0,-3.0,3.0,-3.0,-3.0
2025-06-06 16:15:52.378,-0.004887426,0.024393862,0.025931394,-0.0045418246,0.15334456,-0.043912757,0.0,0.0,0.0,-0.02795779,0.07520827,0.6050107,-0.17429987,-0.066956304,0.60869044,-0.17391975,-0.17500894,-0.63443446,-0.22951533,0.17101763,-0.60704,-0.21586734,0.026484357,-0.071274176,0.04618808,0.031276777,-0.028028699,-0.071482204,0.048309457,0.04297835,-0.03848621,-0.050777435,0.0057645543,-0.044867944,3.0,3.0,-3.0,-3.0,3.0,-3.0,-3.0,-3.0,-3.0,3.0,-3.0,-3.0,3.0,3.0,-3.0,-3.0,3.0,-3.0,-3.0,-3.0,-3.0,3.0,-3.0,-3.0
2025-06-06 16:15:52.398,0.0050446377,0.02254799,0.037601747,0.0015672572,0.085471384,-0.035968643,0.0,0.0,0.0,-0.027957905,0.076427735,0.6014795,-0.16782826,-0.06084548,0.61259454,-0.18659872,-0.17958683,-0.6330634,-0.22041278,0.18108504,-0.6176519,-0.20673001,-0.025030565,0.020418575,0.038250633,-0.026278215,0.019298702,-0.021424776,-0.057091486,0.0068017193,-0.062346034,0.049557693,0.047369022,-0.033131354,3.0,3.0,-3.0,-3.0,3.0,-3.0,-3.0,-3.0,-3.0,3.0,-3.0,-3.0,3.0,3.0,-3.0,-3.0,3.0,-3.0,-3.0,-3.0,-3.0,3.0,-3.0,-3.0
2025-06-06 16:15:52.418,-0.032983694,0.0017129062,0.0059853345,0.04723624,0.097715415,-0.022037093,0.0,0.0,0.0,-0.02795801,0.08767109,0.6122991,-0.16611731,-0.063326724,0.6039412,-0.18411346,-0.18284939,-0.6241047,-0.21446,0.17743085,-0.607498,-0.20950131,-0.052064694,-0.035357255,0.005580758,0.033997167,0.031627867,-0.061050944,-0.05578969,0.022412596,-0.052035436,0.047553383,0.056891903,0.023860563,3.0,3.0,-3.0,-3.0,3.0,-3.0,-3.0,-3.0,-3.0,3.0,-3.0,-3.0,3.0,3.0,-3.0,-3.0,3.0,-3.0,-3.0,-3.0,-3.0,3.0,-3.0,-3.0
2025-06-06 16:15:52.440,0.04179633,-0.037778396,0.024523279,0.04701469,0.14490442,0.04287928,0.0,0.0,0.0,-0.027958099,0.08770748,0.6042957,-0.16403988,-0.072556935,0.59407824,-0.17427845,-0.16867858,-0.6158317,-0.22777043,0.17845397,-0.6187324,-0.20632873,-0.05114449,-0.015000941,0.068139955,-0.0018866366,-0.016362894,-0.02410794,0.07308838,0.0480134,-0.02990184,-0.036346693,0.06431883,0.04038233,3.0,3.0,-3.0,-3.0,3.0,-3.0,-3.0,-3.0,-3.0,3.0,-3.0,-3.0,3.0,3.0,-3.0,-3.0,3.0,-3.0,-3.0,-3.0,-3.0,3.0,-3.0,-3.0
2025-06-06 16:15:52.459,0.014993961,0.040423367,-0.047421396,0.011824615,0.11734584,0.033136897,0.0,0.0,0.0,-0.027958171,0.07895636,0.6038384,-0.16732761,-0.0718372,0.5939734,-0.17232965,-0.1777091,-0.63355726,-0.21727055,0.17329659,-0.6067679,-0.20270734,-0.055783086,0.04741774,0.0043972074,-0.03225003,0.07038115,0.031105487,-0.004605847,0.041546196,-0.050090067,-0.011209601,0.029501949,0.007801379,3.0,3.0,-3.0,-3.0,3.0,-3.0,-3.0,-3.0,-3.0,3.0,-3.0,-3.0,3.0,3.0,-3.0,-3.0,3.0,-3.0,-3.0,-3.0,-3.0,3.0,-3.0,-3.0
2025-06-06 16:15:52.479,-0.021235371,0.0049936436,0.017599141,0.023595324,0.08518472,-0.005600756,0.0,0.0,0.0,-0.027958227,0.072496995,0.5945896,-0.16611704,-0.062486794,0.607378,-0.18202478,-0.17601256,-0.6255175,-0.21685159,0.17466903,-0.6132579,-0.20074537,0.047831975,-0.015736487,0.072458506,0.025125945,-0.039039448,-0.058042042,-0.02144386,-0.070520654,0.015031051,-0.005331018,0.07082051,-0.044527303,3.0,3.0,-3.0,-3.0,3.0,-3.0,-3.0,-3.0,-3.0,3.0,-3.0,-3.0,3.0,3.0,-3.0,-3.0,3.0,-3.0,-3.0,-3.0,-3.0,3.0,-3.0,-3.0
2025-06-06 16:15:52.499,0.014774556,-0.009886843,0.007949882,-0.02598927,0.16553336,-0.04490903,0.0,0.0,0.0,-0.027958265,0.08516853,0.60365665,-0.16471808,-0.066831924,0.6015386,-0.18930653,-0.18391123,-0.63469875,-0.2218137,0.17329665,-0.6065834,-0.20840934,-0.070248246,-0.01383708,0.047635972,0.06275396,0.005616515,0.051530976,-0.008753919,0.0054146815,0.062558964,-0.06319743,-0.0708757,-0.02346464,3.0,3.0,-3.0,-3.0,3.0,-3.0,-3.0,-3.0,-3.0,3.0,-3.0,-3.0,3.0,3.0,-3.0,-3.0,3.0,-3.0,-3.0,-3.0,-3.0,3.0,-3.0,-3.0
2025-06-06 16:15:52.519,0.031153923,-0.026557537,-0.022381905,0.050374273,0.10220296,0.03262539,0.0,0.0,0.0,-0.027958289,0.07676561,0.6010233,-0.16544461,-0.07012464,0.61179906,-0.17747192,-0.16592677,-0.6295338,-0.22942682,0.17746814,-0.61168504,-0.21060227,-0.04636915,0.031551324,-0.00244506,0.04357999,-0.024177283,0.027878128,-0.01113893,0.044461098,-0.020410271,-0.005827338,0.07423203,-0.06100814,3.0,3.0,-3.0,-3.0,3.0,-3.0,-3.0,-3.0,-3.0,3.0,-3.0,-3.0,3.0,3.0,-3.0,-3.0,3.0,-3.0,-3.0,-3.0,-3.0,3.0,-3.0,-3.0
2025-06-06 16:15:52.541,-0.0048252833,0.01640227,-0.014743062,0.048035324,0.12546535,0.031105377,0.0,0.0,0.0,-0.027958296,0.06881174,0.6119237,-0.17434184,-0.06355218,0.59787947,-0.18977956,-0.16868475,-0.62061876,-0.22472756,0.17725506,-0.60844517,-0.19940767,0.045525447,-0.025884973,-0.055709157,0.014207794,-0.05366787,-0.054799717,-0.06790302,0.03848621,-0.0055504674,-0.033606917,-0.071992725,0.006286461,3.0,3.0,-3.0,-3.0,3.0,-3.0,-3.0,-3.0,-3.0,3.0,-3.0,-3.0,3.0,3.0,-3.0,-3.0,3.0,-3.0,-3.0,-3.0,-3.0,3.0,-3.0,-3.0
2025-06-06 16:15:52.559,0.019699,0.0057544657,-0.033556297,-0.021682557,0.13427085,-0.022082537,0.0,0.0,0.0,-0.02795829,0.0700035,0.5972901,-0.17627782,-0.06520643,0.60763645,-0.18863551,-0.16734715,-0.6325675,-0.23158419,0.17277496,-0.6040107,-0.20950444,0.058723044,-0.04413513,-0.06801102,0.0034310701,-0.02633101,-0.061879043,0.04343534,-0.01184034,-0.016843379,-0.0126593895,0.021553535,-0.04597293,3.0,3.0,-3.0,-3.0,3.0,-3.0,-3.0,-3.0,-3.0,3.0,-3.0,-3.0,3.0,3.0,-3.0,-3.0,3.0,-3.0,-3.0,-3.0,-3.0,3.0,-3.0,-3.0
2025-06-06 16:15:52.579,0.010290224,0.0004289386,0.018853337,-0.043465734,0.06943345,-0.0055239373,0.0,0.0,0.0,-0.027958276,0.08085977,0.6031888,-0.16498017,-0.077278435,0.59576625,-0.17728302,-0.17051427,-0.6237719,-0.22836661,0.16982894,-0.61494446,-0.21889088,0.057032578,-0.06384828,0.058850307,0.056756258,0.046657708,-0.04505163,0.018968984,0.07218698,-0.006749656,0.020971155,-0.07227464,0.04230909,3.0,3.0,-3.0,-3.0,3.0,-3.0,-3.0,-3.0,-3.0,3.0,-3.0,-3.0,3.0,3.0,-3.0,-3.0,3.0,-3.0,-3.0,-3.0,-3.0,3.0,-3.0,-3.0
2025-06-06 16:15:52.599,-0.04492253,0.019313129,-0.04791376,0.014308534,0.16158144,-0.043941464,0.0,0.0,0.0,-0.027958252,0.08174716,0.6065862,-0.1726076,-0.064068794,0.6100849,-0.17988278,-0.16583002,-0.6240621,-0.21787813,0.18120502,-0.6100371,-0.2179122,0.020520734,-0.002358403,0.033875827,-0.06397161,-0.010894553,-0.00067175576,-0.0047188755,-0.0019981307,-0.0088312,0.02660349,0.029655566,-0.007379678,3.0,3.0,-3.0,-3.0,3.0,-3.0,-3.0,-3.0,-3.0,3.0,-3.0,-3.0,3.0,3.0,-3.0,-3.0,3.0,-3.0,-3.0,-3.0,-3.0,3.0,-3.0,-3.0
2025-06-06 16:15:52.619,0.0149205495,-0.031363234,0.02025734,0.033646904,0.15052657,-0.046522744,0.0,0.0,0.0,-0.02795822,0.081309274,0.5989327,-0.16641593,-0.0739886,0.5951056,-0.18967173,-0.1794324,-0.6301969,-0.23016381,0.16668612,-0.607845,-0.21634924,-0.0040144105,-0.001629232,0.02485915,0.04526814,0.064111054,0.06704773,0.043646853,-0.07454212,0.013752598,0.0041385135,0.037470974,-0.008045284,3.0,3.0,-3.0,-3.0,3.0,-3.0,-3.0,-3.0,-3.0,3.0,-3.0,-3.0,3.0,3.0,-3.0,-3.0,3.0,-3.0,-3.0,-3.0,-3.0,3.0,-3.0,-3.0
2025-06-06 16:15:52.642,0.046258453,0.030259589,-0.04355202,0.026048718,0.123403326,0.017441524,0.0,0.0,0.0,-0.027958186,0.08593515,0.60730994,-0.16561419,-0.0679563,0.60085815,-0.1844697,-0.16762193,-0.6283919,-0.22915322,0.16859843,-0.62042457,-0.21808194,-0.03223134,0.0010326585,-0.010479223,-0.014649549,-0.05466853,-0.0499298,-0.019990617,0.0034488142,0.06394663,0.044159338,-0.07471143,0.0710966,3.0,3.0,-3.0,-3.0,3.0,-3.0,-3.0,-3.0,-3.0,3.0,-3.0,-3.0,3.0,3.0,-3.0,-3.0,3.0,-3.0,-3.0,-3.0,-3.0,3.0,-3.0,-3.0
2025-06-06 16:15:52.659,0.035939485,0.018684415,-0.046487365,0.01626781,0.08373417,0.03491072,0.0,0.0,0.0,-0.02795815,0.070681356,0.614228,-0.16944346,-0.07812895,0.5979966,-0.17395027,-0.17287487,-0.6321293,-0.22623436,0.16914633,-0.6041729,-0.19937223,-0.0025810038,-0.016152274,-0.014538768,-0.06881541,-0.05913797,0.0073762387,0.029616473,-0.018597692,-0.03431703,-0.030670866,-0.003402524,0.01277822,3.0,3.0,-3.0,-3.0,3.0,-3.0,-3.0,-3.0,-3.0,3.0,-3.0,-3.0,3.0,3.0,-3.0,-3.0,3.0,-3.0,-3.0,-3.0,-3.0,3.0,-3.0,-3.0
2025-06-06 16:15:52.679,0.015222315,0.0027088202,-0.029800706,0.02515698,0.08241251,-0.048119977,0.0,0.0,0.0,-0.027958114,0.070067555,0.59748274,-0.1664287,-0.07782123,0.6114801,-0.18999505,-0.17453718,-0.6305181,-0.23175952,0.17392948,-0.61123234,-0.2006289,-0.07479628,-0.0696646,-0.050427377,-0.03360836,0.035110902,-0.06047086,-0.073871784,0.053890843,-0.05813308,-0.010902675,0.02195444,0.0368904,3.0,3.0,-3.0,-3.0,3.0,-3.0,-3.0,-3.0,-3.0,3.0,-3.0,-3.0,3.0,3.0,-3.0,-3.0,3.0,-3.0,-3.0,-3.0,-3.0,3.0,-3.0,-3.0
2025-06-06 16:15:52.699,-0.004769235,-0.019822432,0.0065072565,-0.029645333,0.1679764,-0.031893328,0.0,0.0,0.0,-0.027958078,0.08070322,0.59609973,-0.16911364,-0.06523979,0.6103593,-0.18408766,-0.1787586,-0.61607534,-0.21562499,0.17266399,-0.61220634,-0.21823208,-0.040951625,0.055460285,0.023544407,-0.067578785,0.06573865,0.05413742,-0.05625787,-0.06894516,-0.057365082,0.008540808,0.061353814,0.008950734,3.0,3.0,-3.0,-3.0,3.0,-3.0,-3.0,-3.0,-3.0,3.0,-3.0,-3.0,3.0,3.0,-3.0,-3.0,3.0,-3.0,-3.0,-3.0,-3.0,3.0,-3.0,-3.0
2025-06-06 16:15:52.719,0.030606816,-0.032550417,0.03181062,-0.035218015,0.15725009,-0.042028427,0.0,0.0,0.0,-0.027958047,0.0739284,0.597692,-0.17195356,-0.0714513,0.60676837,-0.18427098,-0.16774677,-0.617238,-0.22726534,0.17558748,-0.6107807,-0.21505807,-0.07019831,0.06002545,-0.019728024,-0.03776371,-0.06912675,0.032341655,0.009887472,-0.015637059,-0.058876134,0.03016908,-0.06408153,-0.039854728,3.0,3.0,-3.0,-3.0,3.0,-3.0,-3.0,-3.0,-3.0,3.0,-3.0,-3.0,3.0,3.0,-3.0,-3.0,3.0,-3.0,-3.0,-3.0,-3.0,3.0,-3.0,-3.0
2025-06-06 16:15:52.743,-0.03522525,0.031477883,0.0029431821,0.022576634,0.068264835,-0.01108315,0.0,0.0,0.0,-0.027958019,0.079176374,0.61162615,-0.16451843,-0.06255412,0.6090987,-0.18282157,-0.16570586,-0.6178433,-0.21380404,0.17664474,-0.60299605,-0.20342799,-0.05880925,-0.048842963,-0.05936939,-0.06795982,0.058534935,-0.0130615365,0.027859056,0.06417389,-0.032241214,0.07063233,-0.050081424,-0.014139816,3.0,3.0,-3.0,-3.0,3.0,-3.0,-3.0,-3.0,-3.0,3.0,-3.0,-3.0,3.0,3.0,-3.0,-3.0,3.0,-3.0,-3.0,-3.0,-3.0,3.0,-3.0,-3.0
2025-06-06 16:15:52.760,-0.0373452,0.042610023,0.0067730877,-0.037115496,0.09361095,0.034070868,0.0,0.0,0.0,-0.027957994,0.06902172,0.6110997,-0.16963534,-0.07804014,0.6031985,-0.17812061,-0.17446072,-0.6211511,-0.225799,0.17685308,-0.60389906,-0.21307473,0.06273032,0.010528936,0.06350026,-0.044206005,-0.07091312,-0.04198603,0.016768513,0.034561876,0.048089735,0.027296191,0.06801551,-0.05213324,3.0,3.0,-3.0,-3.0,3.0,-3.0,-3.0,-3.0,-3.0,3.0,-3.0,-3.0,3.0,3.0,-3.0,-3.0,3.0,-3.0,-3.0,-3.0,-3.0,3.0,-3.0,-3.0
2025-06-06 16:15:52.779,0.043688785,0.0014245355,-0.02770654,-0.0256825,0.13894165,-0.032717604,0.0,0.0,0.0,-0.027957976,0.08216607,0.60961705,-0.17114049,-0.07168009,0.595119,-0.19029124,-0.17414078,-0.63003665,-0.22732376,0.18103121,-0.60276896,-0.20121633,0.048198156,0.008768983,0.07081323,0.013938075,-0.056972243,-0.0020620194,-0.054923803,-0.050604522,-0.039811093,0.025773564,-0.055456672,0.0028606337,3.0,3.0,-3.0,-3.0,3.0,-3.0,-3.0,-3.0,-3.0,3.0,-3.0,-3.0,3.0,3.0,-3.0,-3.0,3.0,-3.0,-3.0,-3.0,-3.0,3.0,-3.0,-3.0
2025-06-06 16:15:52.800,-0.007074011,-0.037812255,-0.016331553,-0.014426379,0.07547196,-0.0036887643,0.0,0.0,0.0,-0.027957961,0.08554828,0.6081625,-0.17704026,-0.07697052,0.59507644,-0.1825673,-0.17143856,-0.632202,-0.22791032,0.16935343,-0.6071518,-0.21699964,0.029207265,-0.05290659,0.0431184,-0.04211095,0.014964318,0.04509305,0.04406811,-0.04912335,-0.069320455,0.0377465,0.01216444,-0.05429021,3.0,3.0,-3.0,-3.0,3.0,-3.0,-3.0,-3.0,-3.0,3.0,-3.0,-3.0,3.0,3.0,-3.0,-3.0,3.0,-3.0,-3.0,-3.0,-3.0,3.0,-3.0,-3.0
2025-06-06 16:15:52.819,-0.0026608172,0.015664062,0.020897193,0.03039638,0.1651162,0.022805594,0.0,0.0,0.0,-0.027957952,0.074648224,0.5988496,-0.16322155,-0.07970951,0.5953338,-0.17458223,-0.17078923,-0.61540616,-0.23118725,0.16465947,-0.60427725,-0.20300837,-0.043615073,-0.06990152,-0.01616676,0.045911025,0.030507555,0.039347142,-0.055968422,-0.010219958,0.044766106,0.055872772,-0.0392106,0.06636928,3.0,3.0,-3.0,-3.0,3.0,-3.0,-3.0,-3.0,-3.0,3.0,-3.0,-3.0,3.0,3.0,-3.0,-3.0,3.0,-3.0,-3.0,-3.0,-3.0,3.0,-3.0,-3.0
2025-06-06 16:15:52.843,-0.0044854213,0.009593356,0.0031933049,-0.012346237,0.083743975,0.04207516,0.0,0.0,0.0,-0.027957948,0.07810933,0.6034744,-0.16453795,-0.06928482,0.6031775,-0.18954265,-0.18225685,-0.621688,-0.22126557,0.17439206,-0.61827964,-0.20091318,0.060726415,-0.042970132,0.0030939295,0.047321897,-0.05273611,0.027320176,-0.0030212114,0.04752824,0.0030937113,0.014811324,-0.06859553,0.03917449,3.0,3.0,-3.0,-3.0,3.0,-3.0,-3.0,-3.0,-3.0,3.0,-3.0,-3.0,3.0,3.0,-3.0,-3.0,3.0,-3.0,-3.0,-3.0,-3.0,3.0,-3.0,-3.0
2025-06-06 16:15:52.860,-0.02648089,-0.013355493,0.012263623,0.03048,0.11288659,-0.03596856,0.0,0.0,0.0,-0.027957946,0.07297737,0.60096294,-0.17614558,-0.06261222,0.59715176,-0.18459241,-0.16473272,-0.63121146,-0.21677859,0.16164811,-0.6020849,-0.20833254,-0.014883684,-0.031182926,-0.011716689,0.02222577,-0.020411268,0.0036454343,-0.040164225,0.04369756,0.056846563,-0.026406884,0.044957872,0.027394902,3.0,3.0,-3.0,-3.0,3.0,-3.0,-3.0,-3.0,-3.0,3.0,-3.0,-3.0,3.0,3.0,-3.0,-3.0,3.0,-3.0,-3.0,-3.0,-3.0,3.0,-3.0,-3.0
2025-06-06 16:15:52.880,-0.03490473,0.013704548,-0.022689484,-0.030471383,0.1382617,-0.029174166,0.0,0.0,0.0,-0.027957948,0.07365599,0.6071937,-0.17288569,-0.07730722,0.60033756,-0.18271366,-0.17650971,-0.63368624,-0.22784588,0.18070845,-0.60306823,-0.20473559,0.0077444487,-0.06196275,0.022859238,0.012174071,-0.03585611,0.020162724,-0.02218664,-0.0070261382,-0.015813773,0.0065239808,0.05091635,0.004198606,3.0,3.0,-3.0,-3.0,3.0,-3.0,-3.0,-3.0,-3.0,3.0,-3.0,-3.0,3.0,3.0,-3.0,-3.0,3.0,-3.0,-3.0,-3.0,-3.0,3.0,-3.0,-3.0
2025-06-06 16:15:52.900,0.008330713,-0.018554475,0.021303594,-0.041832376,0.10230332,-0.039117724,0.0,0.0,0.0,-0.027957954,0.07905199,0.60467064,-0.17361343,-0.07929869,0.5977093,-0.18218191,-0.18150394,-0.6349052,-0.22065389,0.16982065,-0.6047906,-0.2089429,0.074105024,0.059835117,0.040620316,0.013323997,-0.035139225,0.06609068,0.055613484,-0.070480675,-0.02740825,-0.007462341,-0.03372994,-0.04790549,3.0,3.0,-3.0,-3.0,3.0,-3.0,-3.0,-3.0,-3.0,3.0,-3.0,-3.0,3.0,3.0,-3.0,-3.0,3.0,-3.0,-3.0,-3.0,-3.0,3.0,-3.0,-3.0
2025-06-06 16:15:52.920,0.04334803,0.013511885,-0.035489485,-0.016728137,0.1147262,-0.016970046,0.0,0.0,0.0,-0.027957961,0.078691676,0.60189503,-0.16263108,-0.07799834,0.60297555,-0.17778918,-0.17626278,-0.6343892,-0.22534534,0.16220473,-0.61089313,-0.20848149,-0.042631034,0.06895818,-0.05861764,0.02310667,0.07113332,0.048004646,0.026544595,0.029299676,-0.024108648,0.04152185,-0.005023035,-0.026505357,3.0,3.0,-3.0,-3.0,3.0,-3.0,-3.0,-3.0,-3.0,3.0,-3.0,-3.0,3.0,3.0,-3.0,-3.0,3.0,-3.0,-3.0,-3.0,-3.0,3.0,-3.0,-3.0
2025-06-06 16:15:52.942,0.03272928,0.011725358,-0.027924154,-0.00776109,0.12794957,-0.03524121,0.0,0.0,0.0,-0.02795797,0.08164595,0.599121,-0.1697161,-0.0735719,0.6011547,-0.19062272,-0.16653341,-0.63024443,-0.2297867,0.16627651,-0.6054141,-0.21749586,-0.019632775,-0.03794392,-0.012344333,0.0057625985,0.060662836,-0.04625463,-0.020226019,0.04107221,-0.07077814,0.07393042,0.024998197,-0.05771636,3.0,3.0,-3.0,-3.0,3.0,-3.0,-3.0,-3.0,-3.0,3.0,-3.0,-3.0,3.0,3.0,-3.0,-3.0,3.0,-3.0,-3.0,-3.0,-3.0,3.0,-3.0,-3.0
2025-06-06 16:15:52.960,-0.004778155,-0.009200561,-0.028657982,-0.03907877,0.16269815,0.018470697,0.0,0.0,0.0,-0.027957981,0.08803841,0.5995162,-0.16244185,-0.07558978,0.5973498,-0.18815705,-0.16612607,-0.61961854,-0.21614096,0.17418791,-0.6051356,-0.20875801,-0.02047024,-0.028431883,-0.040551797,-0.0015099492,0.053080115,-0.043201983,-0.029356278,-0.07264396,0.023964453,0.014706051,-0.046923082,-0.05282646,3.0,3.0,-3.0,-3.0,3.0,-3.0,-3.0,-3.0,-3.0,3.0,-3.0,-3.0,3.0,3.0,-3.0,-3.0,3.0,-3.0,-3.0,-3.0,-3.0,3.0,-3.0,-3.0
2025-06-06 16:15:52.981,-0.04733152,-0.009934955,-0.045904547,0.05150169,0.14242865,0.013848281,0.0,0.0,0.0,-0.02795799,0.068760484,0.61039835,-0.16328618,-0.07832812,0.59457904,-0.18892242,-0.16888289,-0.62554014,-0.23133387,0.1790697,-0.61600155,-0.21493238,-0.0622982,0.00760237,0.07271542,0.031364363,-0.03488742,0.02983733,-0.003537291,0.06351682,0.017684069,0.008347594,0.07149843,0.038768116,3.0,3.0,-3.0,-3.0,3.0,-3.0,-3.0,-3.0,-3.0,3.0,-3.0,-3.0,3.0,3.0,-3.0,-3.0,3.0,-3.0,-3.0,-3.0,-3.0,3.0,-3.0,-3.0
2025-06-06 16:15:53.000,-0.03906798,0.008003089,0.0032003305,0.038859602,0.08233271,0.049151596,0.0,0.0,0.0,-0.027958002,0.08210804,0.59547615,-0.17534773,-0.062671915,0.6025319,-0.19061053,-0.17573516,-0.61772203,-0.22390799,0.17279476,-0.6115432,-0.21837038,-0.072061345,0.03465214,0.010615054,-0.04871103,0.007369701,-0.062578976,-0.0049362504,-0.0017438383,-0.05443718,0.011226526,0.044432685,-0.05201083,3.0,3.0,-3.0,-3.0,3.0,-3.0,-3.0,-3.0,-3.0,3.0,-3.0,-3.0,3.0,3.0,-3.0,-3.0,3.0,-3.0,-3.0,-3.0,-3.0,3.0,-3.0,-3.0
2025-06-06 16:15:53.020,0.026220074,0.012551174,0.0048546004,0.03154414,0.07950103,-0.0019552847,0.0,0.0,0.0,-0.027958011,0.07543985,0.5973167,-0.17744128,-0.07381331,0.60613966,-0.18722412,-0.17511216,-0.6288543,-0.22679876,0.16280803,-0.6052836,-0.21321349,-0.015630523,0.0075087245,-0.035480306,-0.022282034,0.055868335,-0.044832975,0.038805056,0.062977746,-0.057829693,0.047088936,-0.05624159,0.027020188,3.0,3.0,-3.0,-3.0,3.0,-3.0,-3.0,-3.0,-3.0,3.0,-3.0,-3.0,3.0,3.0,-3.0,-3.0,3.0,-3.0,-3.0,-3.0,-3.0,3.0,-3.0,-3.0
2025-06-06 16:15:53.043,-0.048675526,-0.028216407,-0.0028554562,-0.0127877155,0.088614784,0.04040939,0.0,0.0,0.0,-0.02795802,0.07898834,0.61417943,-0.1685015,-0.07301314,0.5977345,-0.18151794,-0.1800164,-0.6305196,-0.22803749,0.17845799,-0.6132472,-0.1997768,-0.059783507,0.03904661,0.001980085,0.036104288,0.049237095,0.062156443,0.01186641,0.04108644,0.025458446,0.040702324,-0.05700737,-0.056050546,3.0,3.0,-3.0,-3.0,3.0,-3.0,-3.0,-3.0,-3.0,3.0,-3.0,-3.0,3.0,3.0,-3.0,-3.0,3.0,-3.0,-3.0,-3.0,-3.0,3.0,-3.0,-3.0
2025-06-06 16:15:53.060,0.005284457,0.037987795,0.023768628,-0.0013223238,0.08140333,-0.0045113643,0.0,0.0,0.0,-0.027958028,0.07483427,0.6072092,-0.1721145,-0.067152485,0.6046828,-0.17462093,-0.17607981,-0.6156157,-0.21533695,0.1709794,-0.6167625,-0.21184461,-0.07381004,-0.06439306,0.0009385695,-0.0014385754,0.019202411,-0.064418904,0.07072731,0.029875202,0.06875854,-0.019159127,-0.0020154833,-0.013092498,3.0,3.0,-3.0,-3.0,3.0,-3.0,-3.0,-3.0,-3.0,3.0,-3.0,-3.0,3.0,3.0,-3.0,-3.0,3.0,-3.0,-3.0,-3.0,-3.0,3.0,-3.0,-3.0
2025-06-06 16:15:53.081,-0.0023658492,-0.049486447,-0.04340846,-0.034260593,0.15630352,-0.0016628277,0.0,0.0,0.0,-0.027958034,0.07092149,0.6020347,-0.18023318,-0.06293437,0.60861826,-0.18376233,-0.17936341,-0.6267168,-0.23284394,0.17924158,-0.60833544,-0.21418956,0.039106023,0.025038207,-0.02448388,-0.023543248,0.066165075,-0.056923438,0.014782607,-0.011450574,0.005543695,0.03523379,-0.052477058,-0.054072298,3.0,3.0,-3.0,-3.0,3.0,-3.0,-3.0,-3.0,-3.0,3.0,-3.0,-3.0,3.0,3.0,-3.0,-3.0,3.0,-3.0,-3.0,-3.0,-3.0,3.0,-3.0,-3.0
2025-06-06 16:15:53.100,0.03075086,0.045667663,-0.0011380173,0.015218081,0.13690567,-0.011543845,0.0,0.0,0.0,-0.02795804,0.07412211,0.5962611,-0.17975874,-0.07999397,0.6111994,-0.1850864,-0.16801417,-0.61714554,-0.23153032,0.1654567,-0.6131114,-0.20567998,-0.009414702,0.036508687,-0.041674558,-0.052072413,-0.030316267,0.065355085,0.015852593,0.008921487,0.042948883,-0.07236065,-0.052095458,-0.01823686,3.0,3.0,-3.0,-3.0,3.0,-3.0,-3.0,-3.0,-3.0,3.0,-3.0,-3.0,3.0,3.0,-3.0,-3.0,3.0,-3.0,-3.0,-3.0,-3.0,3.0,-3.0,-3.0
2025-06-06 16:15:53.121,-0.00261056,-0.038336784,0.007466424,0.015891496,0.06847201,0.04308023,0.0,0.0,0.0,-0.027958043,0.07942328,0.6046771,-0.16522315,-0.07921983,0.59533656,-0.1755992,-0.17356502,-0.631167,-0.22276701,0.1619112,-0.6163131,-0.2145701,0.013687757,0.025192773,-0.005676464,0.05350596,-0.011135191,0.07011652,-0.0500896,0.043739162,-0.058344577,-0.06745099,-0.015318335,-0.044388287,3.0,3.0,-3.0,-3.0,3.0,-3.0,-3.0,-3.0,-3.0,3.0,-3.0,-3.0,3.0,3.0,-3.0,-3.0,3.0,-3.0,-3.0,-3.0,-3.0,3.0,-3.0,-3.0
2025-06-06 16:15:53.143,0.04740339,0.021335501,-0.01292833,-0.020827755,0.081713066,0.043524947,0.0,0.0,0.0,-0.027958045,0.073378325,0.6078258,-0.17440398,-0.06344293,0.5999741,-0.17148621,-0.16825856,-0.61520934,-0.22144324,0.17404832,-0.6047878,-0.2012195,-0.04251454,0.003085795,0.033609305,0.044426013,-0.02757581,0.061524592,0.0017862391,-0.047354717,0.040689476,0.061903365,0.06995942,0.045316912,3.0,3.0,-3.0,-3.0,3.0,-3.0,-3.0,-3.0,-3.0,3.0,-3.0,-3.0,3.0,3.0,-3.0,-3.0,3.0,-3.0,-3.0,-3.0,-3.0,3.0,-3.0,-3.0
2025-06-06 16:15:53.161,-0.004352454,-0.04837402,-0.008477065,-0.025686596,0.097961,-0.04862191,0.0,0.0,0.0,-0.027958047,0.087644294,0.6095482,-0.17843395,-0.073904924,0.5958576,-0.189961,-0.17275557,-0.6310423,-0.23365,0.18080951,-0.61537796,-0.21321607,-0.0054861107,-0.04952247,0.07300044,-0.048387803,-0.058513086,0.026992219,0.00017262597,-0.029836452,-0.05591372,0.06926912,0.054194346,-0.03245995,3.0,3.0,-3.0,-3.0,3.0,-3.0,-3.0,-3.0,-3.0,3.0,-3.0,-3.0,3.0,3.0,-3.0,-3.0,3.0,-3.0,-3.0,-3.0,-3.0,3.0,-3.0,-3.0
2025-06-06 16:15:53.181,-0.027739864,0.02508917,0.043399572,-0.039674535,0.07993879,-0.027057735,0.0,0.0,0.0,-0.027958045,0.07455077,0.6068552,-0.16938785,-0.06699059,0.5949378,-0.18579982,-0.16623472,-0.6269891,-0.22444952,0.1625066,-0.6133072,-0.20882146,0.053255193,0.04672375,0.025621139,0.044376723,0.024153883,-0.05325601,0.03716796,-0.06729323,-0.027111022,-0.021313496,-0.01099416,0.049284376,3.0,3.0,-3.0,-3.0,3.0,-3.0,-3.0,-3.0,-3.0,3.0,-3.0,-3.0,3.0,3.0,-3.0,-3.0,3.0,-3.0,-3.0,-3.0,-3.0,3.0,-3.0,-3.0
2025-06-06 16:15:53.201,-0.009808033,0.029771721,0.03174157,0.026431544,0.15657647,-0.019123064,0.0,0.0,0.0,-0.027958045,0.078843065,0.6003932,-0.16602726,-0.06970061,0.6037574,-0.18860899,-0.16963972,-0.61498535,-0.21800104,0.16537248,-0.6108213,-0.2178,0.026113389,0.022312358,-0.061060075,0.064556636,0.06609026,-0.0309809,-0.013505064,0.023942938,-0.03753334,0.06414505,0.03383981,-0.055934466,3.0,3.0,-3.0,-3.0,3.0,-3.0,-3.0,-3.0,-3.0,3.0,-3.0,-3.0,3.0,3.0,-3.0,-3.0,3.0,-3.0,-3.0,-3.0,-3.0,3.0,-3.0,-3.0
2025-06-06 16:15:53.221,0.0032281578,0.045780536,0.033226576,-0.041982803,0.15039194,-0.016452229,0.0,0.0,0.0,-0.027958043,0.0687344,0.6109167,-0.17440093,-0.07717525,0.597747,-0.17617609,-0.17012447,-0.63199043,-0.21650209,0.17942935,-0.6118254,-0.21430376,-0.05212113,0.017843429,0.074275374,-0.0006599706,0.07440753,0.05148711,0.053097624,-0.055656366,0.0515847,-0.034820117,-0.035045754,-0.05936358,3.0,3.0,-3.0,-3.0,3.0,-3.0,-3.0,-3.0,-3.0,3.0,-3.0,-3.0,3.0,3.0,-3.0,-3.0,3.0,-3.0,-3.0,-3.0,-3.0,3.0,-3.0,-3.0
2025-06-06 16:15:53.242,-0.025285983,0.040719297,0.007173302,0.027416047,0.15444392,-0.010735378,0.0,0.0,0.0,-0.027958041,0.07859143,0.5998189,-0.16502385,-0.061744593,0.6051206,-0.17615357,-0.16635166,-0.63406426,-0.2158026,0.1781907,-0.6110211,-0.21553834,-0.06921393,0.07415296,-0.012784463,0.02222633,0.006863979,-0.046949968,0.0038637512,0.047551863,0.036244854,0.046505265,-0.07023168,0.04913175,3.0,3.0,-3.0,-3.0,3.0,-3.0,-3.0,-3.0,-3.0,3.0,-3.0,-3.0,3.0,3.0,-3.0,-3.0,3.0,-3.0,-3.0,-3.0,-3.0,3.0,-3.0,-3.0
2025-06-06 16:15:53.261,0.005554287,0.03612892,0.016049571,-0.029278422,0.10183338,-0.020123435,0.0,0.0,0.0,-0.027958037,0.068780795,0.5946913,-0.16215046,-0.07459113,0.6053992,-0.17900619,-0.16778013,-0.6330986,-0.22133061,0.1695598,-0.6036644,-0.21533693,-0.05183583,0.05904625,-0.02278075,-0.03912619,-0.009557541,0.059809566,-0.062618785,-0.047451433,-0.06825154,-0.02923238,-0.06082728,-0.008016055,3.0,3.0,-3.0,-3.0,3.0,-3.0,-3.0,-3.0,-3.0,3.0,-3.0,-3.0,3.0,3.0,-3.0,-3.0,3.0,-3.0,-3.0,-3.0,-3.0,3.0,-3.0,-3.0
2025-06-06 16:15:53.282,-0.0045379484,-0.038772784,3.232117e-05,-0.04017754,0.12354438,0.038749166,0.0,0.0,0.0,-0.027958035,0.07683914,0.606838,-0.16166991,-0.07202191,0.6097409,-0.18807778,-0.17778917,-0.63011706,-0.22180334,0.17816085,-0.6086212,-0.20213616,0.028634127,0.05259543,-0.02923268,-0.041134533,-0.066130154,-0.054445464,-0.056337383,-0.028336879,0.044898894,-0.014159383,0.017569505,-0.010958982,3.0,3.0,-3.0,-3.0,3.0,-3.0,-3.0,-3.0,-3.0,3.0,-3.0,-3.0,3.0,3.0,-3.0,-3.0,3.0,-3.0,-3.0,-3.0,-3.0,3.0,-3.0,-3.0
2025-06-06 16:15:53.301,-0.039189514,-0.0052745813,-0.036310524,-0.029332126,0.14650182,-0.028609147,0.0,0.0,0.0,-0.027958032,0.07970935,0.613349,-0.16196333,-0.08015018,0.6002794,-0.19090381,-0.18036084,-0.6327778,-0.21819617,0.17615308,-0.61744475,-0.21296474,0.059319086,0.052013267,-0.039827798,-0.015279865,-0.061582427,-0.048988815,0.04727138,0.018235799,0.009105953,0.02121413,0.0568254,-0.05411332,3.0,3.0,-3.0,-3.0,3.0,-3.0,-3.0,-3.0,-3.0,3.0,-3.0,-3.0,3.0,3.0,-3.0,-3.0,3.0,-3.0,-3.0,-3.0,-3.0,3.0,-3.0,-3.0
2025-06-06 16:15:53.321,-0.018678136,-0.021209698,-0.0391967,0.013508864,0.12871493,0.007277865,0.0,0.0,0.0,-0.02795803,0.07980291,0.59829456,-0.16192316,-0.06828064,0.5989058,-0.17665341,-0.18177205,-0.6180993,-0.22045134,0.17198665,-0.6099554,-0.21337539,-0.051564004,-0.016341059,-0.01836218,0.039995294,0.06646899,0.037309133,-0.0146986665,-0.062352728,-0.03318028,-0.06054058,0.020037694,-0.03304071,3.0,3.0,-3.0,-3.0,3.0,-3.0,-3.0,-3.0,-3.0,3.0,-3.0,-3.0,3.0,3.0,-3.0,-3.0,3.0,-3.0,-3.0,-3.0,-3.0,3.0,-3.0,-3.0
2025-06-06 16:15:53.342,-0.045957446,-0.029604252,0.04491329,-0.02494217,0.12704861,0.028204197,0.0,0.0,0.0,-0.027958026,0.08289674,0.59759885,-0.17467824,-0.06633361,0.60835135,-0.17572787,-0.17091872,-0.6163559,-0.21848306,0.16570088,-0.60655814,-0.21119647,-0.03968435,-0.0524314,0.031328782,0.008560424,0.065547995,-0.07312643,0.04447666,-0.033205234,0.036586124,0.051642727,-0.061949145,-0.011802971,3.0,3.0,-3.0,-3.0,3.0,-3.0,-3.0,-3.0,-3.0,3.0,-3.0,-3.0,3.0,3.0,-3.0,-3.0,3.0,-3.0,-3.0,-3.0,-3.0,3.0,-3.0,-3.0
2025-06-06 16:15:53.361,-0.009654304,0.039519683,-0.014190591,-0.0102643315,0.16360621,-0.0027452225,0.0,0.0,0.0,-0.027958024,0.088355914,0.5999993,-0.16916846,-0.06785224,0.59925836,-0.18648419,-0.18158731,-0.63113636,-0.2322275,0.17322378,-0.6158887,-0.19961408,0.061313763,0.004055126,-0.013009953,-0.013753613,-0.052923355,0.028787587,0.009120307,-0.0631931,-0.048622973,0.058749758,-0.035926748,0.0042366995,3.0,3.0,-3.0,-3.0,3.0,-3.0,-3.0,-3.0,-3.0,3.0,-3.0,-3.0,3.0,3.0,-3.0,-3.0,3.0,-3.0,-3.0,-3.0,-3.0,3.0,-3.0,-3.0
2025-06-06 16:15:53.381,-0.019286474,-0.048664596,-0.04913755,-0.040273674,0.0811789,0.03064255,0.0,0.0,0.0,-0.027958022,0.07073623,0.59761083,-0.16734515,-0.07303683,0.6093834,-0.18662383,-0.16465758,-0.62943375,-0.22457159,0.16972858,-0.6006462,-0.21586198,0.015193444,0.046897028,-0.06816489,-0.011072925,0.0071550496,-0.03904361,0.062393166,0.028911324,0.013898031,-0.074424036,-0.06503145,-0.018706692,3.0,3.0,-3.0,-3.0,3.0,-3.0,-3.0,-3.0,-3.0,3.0,-3.0,-3.0,3.0,3.0,-3.0,-3.0,3.0,-3.0,-3.0,-3.0,-3.0,3.0,-3.0,-3.0
2025-06-06 16:15:53.401,0.0039382004,0.025988575,-0.011350406,-0.029770747,0.1134456,-0.009299855,0.0,0.0,0.0,-0.02795802,0.08410587,0.59683305,-0.16070598,-0.06204264,0.60170007,-0.17951936,-0.17661187,-0.6167315,-0.22849064,0.17854953,-0.61091584,-0.21727702,-0.07098665,-0.014452525,-0.02557044,-0.023679242,0.03668537,-0.06687705,-0.0534653,0.06499078,0.026506271,0.023418587,-0.027784029,-0.032591026,3.0,3.0,-3.0,-3.0,3.0,-3.0,-3.0,-3.0,-3.0,3.0,-3.0,-3.0,3.0,3.0,-3.0,-3.0,3.0,-3.0,-3.0,-3.0,-3.0,3.0,-3.0,-3.0
2025-06-06 16:15:53.424,-0.028668785,0.033701718,-0.04650861,0.0064187297,0.09297045,0.015620775,0.0,0.0,0.0,-0.027958019,0.08742037,0.60090816,-0.16091259,-0.062225975,0.5936216,-0.18320811,-0.17977811,-0.6214517,-0.22338967,0.17034741,-0.61537904,-0.21537644,-0.0059652473,0.031042289,0.0133938,0.022100572,-0.0749012,0.055770166,-0.025399176,0.045246374,-0.06890295,0.023483066,0.070512705,0.02144941,3.0,3.0,-3.0,-3.0,3.0,-3.0,-3.0,-3.0,-3.0,3.0,-3.0,-3.0,3.0,3.0,-3.0,-3.0,3.0,-3.0,-3.0,-3.0,-3.0,3.0,-3.0,-3.0
2025-06-06 16:15:53.443,0.033884626,-0.03141012,0.020536864,-0.034260258,0.15759546,-0.04739537,0.0,0.0,0.0,-0.027958019,0.07610212,0.6107521,-0.1731862,-0.070625916,0.6026427,-0.18361008,-0.18038179,-0.62501013,-0.21828471,0.17520288,-0.6194343,-0.21088442,-0.041128095,0.056212943,-0.011512213,-0.059002187,0.05174246,0.07118079,0.0035391618,0.025049258,0.069096126,0.020487454,-0.063922256,0.06064579,3.0,3.0,-3.0,-3.0,3.0,-3.0,-3.0,-3.0,-3.0,3.0,-3.0,-3.0,3.0,3.0,-3.0,-3.0,3.0,-3.0,-3.0,-3.0,-3.0,3.0,-3.0,-3.0
2025-06-06 16:15:53.462,0.029477004,0.030756125,0.03037523,0.028425891,0.1324624,-0.04208847,0.0,0.0,0.0,-0.027958017,0.07698895,0.6012707,-0.17592418,-0.07193541,0.60023767,-0.17531459,-0.16574901,-0.62954545,-0.22835901,0.1687727,-0.61250377,-0.21398711,-0.062254578,0.05465835,0.03497585,0.00652882,-0.0012077454,-0.05791636,0.068403944,-0.025672132,-0.019486533,-0.02256821,-0.054600175,-0.069409244,3.0,3.0,-3.0,-3.0,3.0,-3.0,-3.0,-3.0,-3.0,3.0,-3.0,-3.0,3.0,3.0,-3.0,-3.0,3.0,-3.0,-3.0,-3.0,-3.0,3.0,-3.0,-3.0
2025-06-06 16:15:53.482,-0.026735596,-0.03736963,-0.031701695,-0.018645328,0.0796645,0.02236408,0.0,0.0,0.0,-0.027958017,0.08522757,0.5988564,-0.1659821,-0.075513236,0.6040018,-0.1806673,-0.16853145,-0.6155541,-0.21785735,0.17383842,-0.6179964,-0.20028265,-0.061721604,-0.00064414035,-0.03997184,0.03822238,0.021877578,-0.044470564,-0.07044928,-0.026189502,-0.039798338,-0.055804286,-0.02498335,-0.03423631,3.0,3.0,-3.0,-3.0,3.0,-3.0,-3.0,-3.0,-3.0,3.0,-3.0,-3.0,3.0,3.0,-3.0,-3.0,3.0,-3.0,-3.0,-3.0,-3.0,3.0,-3.0,-3.0
