openverse-orca/OrcaGym/log/simulation_log_20250605_115629.csv
timestamp,imu_angle_roll,imu_angle_pitch,imu_angle_yaw,imu_angular_velocity_roll,imu_angular_velocity_pitch,imu_angular_velocity_yaw,imu_acc_x,imu_acc_y,imu_acc_z,fl_joint1_pos,fl_joint1_vel,fl_joint1_torque,fl_joint2_pos,fl_joint2_vel,fl_joint2_torque,fl_joint3_pos,fl_joint3_vel,fl_joint3_torque,fr_joint1_pos,fr_joint1_vel,fr_joint1_torque,fr_joint2_pos,fr_joint2_vel,fr_joint2_torque,fr_joint3_pos,fr_joint3_vel,fr_joint3_torque,hl_joint1_pos,hl_joint1_vel,hl_joint1_torque,hl_joint2_pos,hl_joint2_vel,hl_joint2_torque,hl_joint3_pos,hl_joint3_vel,hl_joint3_torque,hr_joint1_pos,hr_joint1_vel,hr_joint1_torque,hr_joint2_pos,hr_joint2_vel,hr_joint2_torque,hr_joint3_pos,hr_joint3_vel,hr_joint3_torque,fl_force_x,fl_force_y,fl_force_z,fr_force_x,fr_force_y,fr_force_z,hl_force_x,hl_force_y,hl_force_z,hr_force_x,hr_force_y,hr_force_z,fl_hip_action,fl_thigh_action,fl_calf_action,fr_hip_action,fr_thigh_action,fr_calf_action,hl_hip_action,hl_thigh_action,hl_calf_action,hr_hip_action,hr_thigh_action,hr_calf_action
2025-06-05 11:56:29.891,0.031958543,-0.04716658,0.02296496,-0.022993142,0.039157856,0.041044604,-1.6778048,0.0,0.0,0.0,0.009545533,-0.00013530883,0.008819477,-0.0035819365,0.0010214123,-0.008726907,-0.005848172,0.0056622108,-9.589644e-05,-0.005454465,-0.0055715297,-0.0089302175,0.063692875,0.0035190126,-0.042297766,0.028739003,-0.06525968,-0.024591768,0.038001064,-0.06888767,0.038940653,-0.039856847,0.073621064,0.0012476477,0.0,0.0,0.0,0.0,0.0,0.0,0.0,0.0,0.0,0.0,0.0,0.0,2.0,1.7087677,1.042246,2.0,-1.253657,2.0,-2.0,-0.395788,-2.0,-1.9378977,0.30884165,0.23045212
2025-06-05 11:56:29.898,-0.004676849,-0.10383986,0.033990942,-0.036472127,-0.019316737,0.033190142,0.0,0.0,0.0,0.0,0.017360855,0.04898234,0.021040902,0.0038886734,-0.038527347,0.03332234,-0.02069945,-0.006870693,-0.036143713,-0.013383808,0.0015289091,0.0039678193,0.05715674,0.09593593,0.07690729,0.07761233,-0.1924014,0.07159332,-0.0455548,-0.06396199,-0.055061348,-0.010036994,0.05841847,0.07571428,2.0,1.7087677,1.042246,2.0,-1.253657,2.0,-2.0,-0.395788,-2.0,-1.9378977,0.30884165,0.23045212,1.3977561,1.1726712,-2.0,2.0,0.64741313,-1.8336223,-2.0,0.05662704,-2.0,-2.0,0.8128489,-0.1140849
2025-06-05 11:56:29.917,0.031122021,-0.047941905,0.0017367702,-0.033293065,-0.035041567,-0.007940998,0.0,0.0,0.0,-0.0006126226,0.026676401,0.10222118,-0.016019825,0.031517405,-0.02126742,0.0016519255,-0.038272146,-0.01433992,-0.08406703,-0.024459442,0.035573095,0.009822357,-0.012509021,0.16585043,-0.114848316,0.023467781,0.011330982,-0.05439944,-0.10093628,-0.05194312,-0.05517116,-0.040628802,0.14676481,-0.027490135,1.3977561,1.1726712,-2.0,2.0,0.64741313,-1.8336223,-2.0,0.05662704,-2.0,-2.0,0.8128489,-0.1140849,-0.07644647,2.0,-2.0,2.0,0.89517385,-2.0,-2.0,-1.1469578,-2.0,-2.0,0.5975844,-1.8108219
2025-06-05 11:56:29.937,0.05666789,-0.06912416,0.02597845,0.0024720104,0.050583053,0.0017211458,0.0,0.0,0.0,-0.0009688876,0.022354562,0.13385771,-0.047805034,0.03795609,0.023310577,-0.03233733,-0.049165245,-0.023570525,-0.07854138,-0.03517473,0.048024565,-0.0069343057,0.050604593,0.022390002,0.016431402,0.01753412,0.12897182,-0.036027487,0.043950077,0.016034747,0.033338375,-0.062583074,-0.012706702,0.045700297,-0.07644647,2.0,-2.0,2.0,0.89517385,-2.0,-2.0,-1.1469578,-2.0,-2.0,0.5975844,-1.8108219,-2.0,2.0,-2.0,2.0,1.9607023,-2.0,-2.0,-0.69682604,-2.0,-2.0,-0.55710566,-2.0
2025-06-05 11:56:29.957,0.01502365,0.039900206,0.0137061495,-0.02705651,0.022909865,-0.011898194,0.0,0.0,0.0,-0.0007731371,0.01353199,0.14287427,-0.042203374,0.036742285,0.037246317,-0.04816335,-0.05937754,-0.043110408,-0.0809269,-0.054072704,0.050679028,-0.008695031,-0.04276236,0.09525943,-0.06790775,-0.012186934,0.0026040669,-0.06476063,0.021752844,-0.00018625622,-0.05778794,0.00036341968,-0.058970544,0.018406387,-2.0,2.0,-2.0,2.0,1.9607023,-2.0,-2.0,-0.69682604,-2.0,-2.0,-0.55710566,-2.0,-2.0,2.0,-2.0,2.0,1.7586775,-2.0,-2.0,-1.8322021,-2.0,-2.0,-2.0,-2.0
2025-06-05 11:56:29.980,-0.19250262,0.15462309,0.08685112,0.038836226,-0.042195264,-0.037272397,0.0,0.0,0.0,-0.00077325635,-0.006078127,0.16295911,-0.06429847,0.04171663,0.056686606,-0.08387151,-0.062031854,-0.06297634,-0.056195214,-0.042678658,0.02796394,0.012820762,-0.04171396,0.047124777,-0.040202234,0.059563145,0.07571283,-0.02191998,0.00269829,-0.105235316,0.056370556,-0.0095411725,-0.17985535,-0.0063168965,-2.0,2.0,-2.0,2.0,1.7586775,-2.0,-2.0,-1.8322021,-2.0,-2.0,-2.0,-2.0,-2.0,2.0,-2.0,2.0,2.0,-2.0,-2.0,-2.0,-2.0,-1.5533782,-2.0,-2.0
2025-06-05 11:56:29.999,-0.15619324,0.21673898,0.012194726,0.035449035,-0.015339134,-0.037538607,0.0,0.0,0.0,-0.0014452961,-0.026802242,0.17912935,-0.076363824,0.04868664,0.10235273,-0.10007865,-0.07580213,-0.12355472,-0.085834295,-0.04921414,-0.025928011,-0.0024346597,-0.03731693,0.12267673,-0.107571736,0.0137754055,0.031331614,-0.11767991,0.05833315,-0.18442325,-0.098205656,0.050947092,-0.10570768,-0.06915197,-2.0,2.0,-2.0,2.0,2.0,-2.0,-2.0,-2.0,-2.0,-1.5533782,-2.0,-2.0,-2.0,2.0,-2.0,2.0,1.7499605,-2.0,-2.0,-2.0,-2.0,-1.5742985,-2.0,-2.0
2025-06-05 11:56:30.017,-0.14113535,0.24607769,0.04787629,0.06030548,0.019016713,-0.0061792578,0.0,0.0,0.0,-0.0022305443,-0.040137455,0.21492602,-0.10170476,0.060951255,0.14965026,-0.1380664,-0.08337689,-0.18070479,-0.11163339,-0.049169004,-0.092943594,-0.015404497,0.014716419,0.11505607,-0.08599724,-0.0015936439,0.056873307,-0.047128998,-0.027115282,-0.15036653,-0.061653875,0.0050004204,-0.08242136,-0.003733196,-2.0,2.0,-2.0,2.0,1.7499605,-2.0,-2.0,-2.0,-2.0,-1.5742985,-2.0,-2.0,-2.0,2.0,-2.0,2.0,2.0,-2.0,-2.0,-2.0,-2.0,-0.98750347,-2.0,-2.0
2025-06-05 11:56:30.037,-0.086739175,0.0941984,0.034438446,0.048894573,-0.0097039165,0.003954645,0.0,0.0,0.0,-0.0033302142,-0.04423692,0.25694305,-0.14561068,0.057376392,0.20639792,-0.15465945,-0.077181086,-0.2201546,-0.119859844,-0.05305887,-0.15702085,-0.03788887,0.020716213,0.17977916,-0.06471451,-0.024559269,0.14596242,-0.07117684,-0.056839097,-0.13393135,-0.011401889,-0.075115606,-0.1747676,-0.00893157,-2.0,2.0,-2.0,2.0,2.0,-2.0,-2.0,-2.0,-2.0,-0.98750347,-2.0,-2.0,-2.0,2.0,-2.0,2.0,1.9116825,-2.0,-2.0,-2.0,-2.0,0.54593545,-2.0,-2.0
2025-06-05 11:56:30.057,-0.11510555,0.0594875,0.040748857,0.10402709,-0.04236737,-0.0034613016,0.0,0.0,0.0,-0.004511762,-0.049427446,0.30905584,-0.16257699,0.06547061,0.24632996,-0.17344308,-0.08188875,-0.25084835,-0.111208715,-0.05629329,-0.18886407,-0.0431726,0.047557883,0.032059688,0.0045604776,0.059039023,0.16151085,0.03282194,0.021338716,-0.02996324,0.020134438,0.039251104,-0.048651297,0.060031656,-2.0,2.0,-2.0,2.0,1.9116825,-2.0,-2.0,-2.0,-2.0,0.54593545,-2.0,-2.0,-2.0,2.0,-2.0,2.0,1.6324832,-0.67647904,-2.0,-2.0,-2.0,2.0,-2.0,-2.0
2025-06-05 11:56:30.078,-0.05805902,-0.0018344081,-0.008737758,0.058020893,0.009023376,0.016952105,0.0,0.0,0.0,-0.0050035417,-0.05261267,0.33747151,-0.18763338,0.07303441,0.27779981,-0.1649656,-0.089120425,-0.27722484,-0.11445797,-0.03464796,-0.21259937,-0.028183596,0.049581327,0.109352306,0.02642592,0.010895438,0.040447105,-0.02117353,0.021678109,-0.08529274,0.047655452,-0.0061977394,-0.05611054,0.040203296,-2.0,2.0,-2.0,2.0,1.6324832,-0.67647904,-2.0,-2.0,-2.0,2.0,-2.0,-2.0,-2.0,2.0,-2.0,2.0,0.93263197,2.0,-2.0,-2.0,-2.0,2.0,-2.0,-2.0
2025-06-05 11:56:30.098,-0.014827307,-0.07025568,-0.0093702795,0.09303836,0.03115072,-0.024645101,0.0,0.0,0.0,-0.004743189,-0.07140072,0.35645932,-0.19707417,0.07663514,0.269278,-0.09482171,-0.093031704,-0.288621,-0.118555374,-0.016841674,-0.23400569,-0.016178241,-0.027400577,0.0012367328,-0.017733999,-0.035687264,-0.077681266,0.2051886,0.011909116,-0.07669629,-0.051422697,0.10193546,-0.061224423,-0.045650404,-2.0,2.0,-2.0,2.0,0.93263197,2.0,-2.0,-2.0,-2.0,2.0,-2.0,-2.0,-2.0,2.0,-2.0,2.0,0.21279795,2.0,-2.0,-2.0,-0.1805447,2.0,-2.0,-2.0
2025-06-05 11:56:30.118,-0.016117295,-0.08514752,0.018492525,0.06274249,0.030741857,-0.018270537,0.0,0.0,0.0,-0.0043372572,-0.061763287,0.37173742,-0.19216795,0.09070198,0.24153128,-0.029142516,-0.096063234,-0.3237875,-0.09597468,-0.0050547537,-0.25645754,-0.027414793,0.037498526,0.07028761,-0.008984664,0.017760351,-0.1540409,0.13162205,-0.0477262,-0.034551896,0.022251578,0.094595104,-0.096054494,0.03826199,-2.0,2.0,-2.0,2.0,0.21279795,2.0,-2.0,-2.0,-0.1805447,2.0,-2.0,-2.0,-2.0,1.9557791,-2.0,2.0,-0.013457822,2.0,-2.0,-2.0,2.0,2.0,-2.0,-2.0
2025-06-05 11:56:30.139,-0.019414272,-0.11206267,0.005296922,0.05001435,0.024682816,-0.007252643,0.0,0.0,0.0,-0.004195595,-0.07737501,0.37370402,-0.17396346,0.073928274,0.20036456,0.019104442,-0.0979325,-0.3596102,-0.039335888,0.009302075,-0.27449295,-0.009341308,0.044697184,0.020508045,0.087811776,0.06192123,-0.11045766,0.17781158,-0.009629685,-0.1254783,0.10299881,0.019729545,-0.0806579,0.009606478,-2.0,1.9557791,-2.0,2.0,-0.013457822,2.0,-2.0,-2.0,2.0,2.0,-2.0,-2.0,-2.0,1.7944586,-2.0,2.0,-0.6438181,2.0,-2.0,-1.8610302,2.0,2.0,-2.0,-2.0
2025-06-05 11:56:30.158,-0.04892779,-0.033366516,-0.023807134,0.06997962,0.06460145,0.028330913,0.0,0.0,0.0,-0.0043469523,-0.08655914,0.34705657,-0.16235219,0.08630751,0.14168334,0.062154602,-0.088732794,-0.36476347,-0.005625872,0.024251852,-0.29836762,-0.01239214,-0.05795343,-0.01859849,0.027841702,0.010047374,-0.1862537,0.05580471,-0.06749898,0.0140596805,0.10672095,0.08218568,-0.037638724,0.012947341,-2.0,1.7944586,-2.0,2.0,-0.6438181,2.0,-2.0,-1.8610302,2.0,2.0,-2.0,-2.0,-2.0,1.7664899,-2.0,2.0,-0.42382783,2.0,-2.0,-1.4716955,2.0,1.2007979,-2.0,-2.0
2025-06-05 11:56:30.182,-0.010188566,-0.08046535,0.044050742,0.07125008,-0.006114832,-0.035017107,0.0,0.0,0.0,-0.0045422832,-0.073084995,0.34780538,-0.1450843,0.07455911,0.109816074,0.0949181,-0.087183304,-0.3757556,0.04058474,0.043473966,-0.31092307,0.008644868,-0.006173463,-0.03423839,-0.018084185,0.014499449,-0.03631604,0.06444286,0.051849317,0.038083714,0.15419675,0.04269349,-0.016590415,0.025147667,-2.0,1.7664899,-2.0,2.0,-0.42382783,2.0,-2.0,-1.4716955,2.0,1.2007979,-2.0,-2.0,-2.0,1.2439938,-2.0,2.0,-0.17062347,2.0,-2.0,-1.3759817,2.0,1.078262,-1.6235718,-2.0
2025-06-05 11:56:30.199,0.006712763,-0.02609374,-0.053187087,0.03156744,0.03000737,0.028832912,0.0,0.0,0.0,-0.004762342,-0.08901414,0.33804983,-0.122775614,0.09081637,0.07345962,0.12848131,-0.09683368,-0.36532998,0.07751043,0.043848727,-0.32067668,0.009958296,0.01755001,-0.027556356,0.03506104,-0.046093892,-0.10456115,0.13672924,0.03060259,-0.004117532,0.120099805,0.019199656,0.046544258,0.039014574,-2.0,1.2439938,-2.0,2.0,-0.17062347,2.0,-2.0,-1.3759817,2.0,1.078262,-1.6235718,-2.0,-2.0,1.6020694,-2.0,2.0,-0.117933914,2.0,-2.0,-1.2822715,2.0,-2.0,-2.0,-2.0
2025-06-05 11:56:30.219,0.067790754,0.08579322,-0.0032561398,0.012295647,0.039928265,-0.020530308,0.0,0.0,0.0,-0.0042051775,-0.08953794,0.323918,-0.11451631,0.07137931,0.055952966,0.14122434,-0.08937632,-0.35221866,0.11066521,0.042921342,-0.3313587,0.0038727168,-0.01384555,-0.055637136,-0.04373332,-0.051190067,0.013377289,0.045699775,0.0042878883,-0.02071172,0.097057134,0.008512667,0.036827184,-0.016580317,-2.0,1.6020694,-2.0,2.0,-0.117933914,2.0,-2.0,-1.2822715,2.0,-2.0,-2.0,-2.0,-2.0,1.8697022,-2.0,2.0,0.5046399,2.0,-2.0,-1.1751958,2.0,-2.0,-1.326763,-2.0
2025-06-05 11:56:30.238,0.14937384,0.09551375,0.08271741,0.032531902,0.03942463,0.036251053,0.0,0.0,0.0,-0.0043562762,-0.09713874,0.32549202,-0.09773782,0.07420728,0.07451779,0.16763306,-0.09815225,-0.33983237,0.1453233,0.021430725,-0.33728316,0.0058294223,-0.0135283945,-0.03799673,-0.053637743,-0.0571939,-0.040152565,0.036252048,-0.019304795,0.091728695,0.087721854,-0.076323666,-0.007620326,-0.03643933,-2.0,1.8697022,-2.0,2.0,0.5046399,2.0,-2.0,-1.1751958,2.0,-2.0,-1.326763,-2.0,-2.0,0.97633713,-2.0,2.0,0.44696164,2.0,-2.0,-0.7443917,2.0,-2.0,-0.115741335,-2.0
2025-06-05 11:56:30.259,0.21531618,0.017889548,-0.015970109,0.027680913,0.005793541,0.007935875,0.0,0.0,0.0,-0.0052949786,-0.12757201,0.30997393,-0.09729475,0.0824074,0.07312871,0.17096974,-0.08710462,-0.31543675,0.16781846,0.015368286,-0.31328687,-0.019964878,0.023227993,0.0059471363,0.044459272,-0.06409164,-0.02413507,-0.02557612,0.06612594,0.125764,0.07673803,-0.047021005,0.094091974,-0.103499345,-2.0,0.97633713,-2.0,2.0,0.44696164,2.0,-2.0,-0.7443917,2.0,-2.0,-0.115741335,-2.0,-2.0,1.2297574,-2.0,2.0,0.3186381,2.0,-2.0,-0.4334854,2.0,-2.0,-0.500031,-2.0
2025-06-05 11:56:30.282,0.13624322,-0.057606824,-0.021659458,0.083971836,-0.0033868544,0.02666905,0.0,0.0,0.0,-0.0049940133,-0.13471577,0.3143315,-0.086645186,0.09194731,0.06957828,0.18957645,-0.0864986,-0.27646697,0.18302558,0.012826392,-0.28616515,-0.03199528,-0.043752294,-0.049044203,0.071364015,-0.0604487,-0.006055621,0.10151894,-0.01946099,0.03481117,0.0570055,-0.009893233,0.063674,-0.09026299,-2.0,1.2297574,-2.0,2.0,0.3186381,2.0,-2.0,-0.4334854,2.0,-2.0,-0.500031,-2.0,-2.0,1.3131808,-2.0,2.0,0.30029953,2.0,-2.0,-0.6433841,2.0,-2.0,-0.7382096,-2.0
2025-06-05 11:56:30.299,0.019688863,-0.007861744,-0.06178137,0.02227991,-0.027406476,-0.0473024,0.0,0.0,0.0,-0.0040012365,-0.1399029,0.32005495,-0.07859704,0.08462346,0.081522025,0.20050074,-0.083370574,-0.24880329,0.20194061,0.0037112036,-0.27976644,-0.057465065,-0.0658873,0.022710752,-0.010897355,-0.0052259937,-0.06879315,0.018498214,0.005282402,0.09262715,0.061608627,0.03772198,0.019080706,-0.05326707,-2.0,1.3131808,-2.0,2.0,0.30029953,2.0,-2.0,-0.6433841,2.0,-2.0,-0.7382096,-2.0,-2.0,1.9010723,-2.0,2.0,0.3856147,1.9539082,-2.0,-0.9389571,2.0,-2.0,-1.7768043,-2.0
2025-06-05 11:56:30.320,-0.015329324,0.042878788,0.07207503,0.05647716,-0.024053583,-0.04124368,0.0,0.0,0.0,-0.0031531272,-0.14769304,0.32665628,-0.0719599,0.08488387,0.087059624,0.21513572,-0.08161921,-0.23047349,0.20220867,0.01025714,-0.28336564,-0.055858053,0.060416523,0.028688492,-0.0558491,0.034003835,0.049894627,0.07971378,0.00430757,0.07110297,0.011114279,0.020943007,-0.08665526,0.018113045,-2.0,1.9010723,-2.0,2.0,0.3856147,1.9539082,-2.0,-0.9389571,2.0,-2.0,-1.7768043,-2.0,-2.0,1.029933,-2.0,2.0,0.8289862,2.0,-2.0,-0.93269604,2.0,-2.0,-0.7953598,-2.0
2025-06-05 11:56:30.339,0.122980334,0.05937804,-0.015072107,0.07125261,0.003327852,-0.045695737,0.0,0.0,0.0,-0.0036459812,-0.15625557,0.3203222,-0.06811489,0.08027634,0.099765435,0.2112893,-0.085392706,-0.22694203,0.21254319,-0.0026389984,-0.27946407,-0.05356979,-0.09236502,-0.017113265,0.05144383,0.043040372,-0.0020379825,-0.029457591,-0.025009809,0.0019809722,0.036305957,-0.051748853,0.07745478,-0.023474852,-2.0,1.029933,-2.0,2.0,0.8289862,2.0,-2.0,-0.93269604,2.0,-2.0,-0.7953598,-2.0,-2.0,1.5075624,-2.0,2.0,0.3577993,1.7144912,-2.0,-0.63846874,2.0,-2.0,-0.88004845,-2.0
2025-06-05 11:56:30.359,0.0496915,-0.04220295,0.031549115,0.07128983,-0.024562359,-0.0065029985,0.0,0.0,0.0,-0.0038579223,-0.16513346,0.3182906,-0.06665966,0.08886632,0.091568,0.23169106,-0.083481595,-0.22117841,0.21515565,-0.008451014,-0.28052136,-0.064352855,0.05600204,0.08094542,0.0016517844,0.056032117,-0.0004474104,-0.04242105,0.0134227425,0.020244764,-0.031712346,0.036882643,-0.04003968,0.052033585,-2.0,1.5075624,-2.0,2.0,0.3577993,1.7144912,-2.0,-0.63846874,2.0,-2.0,-0.88004845,-2.0,-2.0,0.9956278,-2.0,2.0,0.80957776,1.0888581,-2.0,-0.5475528,2.0,-2.0,-0.72462356,-2.0
2025-06-05 11:56:30.382,0.0304876,-0.04547844,-0.018318677,0.06577158,0.015610754,-0.01236414,0.0,0.0,0.0,-0.0038424185,-0.15515678,0.3242547,-0.0663478,0.09721531,0.116724595,0.20813772,-0.07794942,-0.19654119,0.22201572,-0.015300227,-0.2602158,-0.05790682,0.025198836,0.018653123,0.015590048,-0.02180504,0.002700629,-0.050561715,-0.06823461,0.09899968,0.04650081,0.019676521,-0.0044902335,-0.011256562,-2.0,0.9956278,-2.0,2.0,0.80957776,1.0888581,-2.0,-0.5475528,2.0,-2.0,-0.72462356,-2.0,-2.0,1.6263502,-2.0,2.0,1.0406766,-1.0259,-2.0,-0.63171387,2.0,-2.0,-1.275962,-2.0
2025-06-05 11:56:30.399,0.021109797,-0.03943918,-0.02607142,0.02687898,-0.04832559,0.00922134,0.0,0.0,0.0,-0.0033919967,-0.16215746,0.32057723,-0.07214585,0.09277962,0.14651527,0.15890577,-0.07961321,-0.19737726,0.22565795,-0.020547125,-0.27409953,-0.060997605,0.0038278636,-0.04204469,0.052997988,0.07020115,0.12178289,-0.13995808,-0.07472219,-0.0041481373,-0.00051286636,-0.048249923,0.0074571804,0.07072495,-2.0,1.6263502,-2.0,2.0,1.0406766,-1.0259,-2.0,-0.63171387,2.0,-2.0,-1.275962,-2.0,-2.0,2.0,-2.0,2.0,2.0,-2.0,-2.0,-1.1593418,-2.0,-2.0,-2.0,-2.0
2025-06-05 11:56:30.419,-0.088171914,-0.1008631,0.11392333,0.029149821,-0.06421385,0.025476435,0.0,0.0,0.0,-0.0034258235,-0.15785837,0.32541236,-0.07765807,0.0882539,0.19678392,0.091788925,-0.09593384,-0.20495443,0.15877257,-0.020370753,-0.28594342,-0.051341884,-0.043055393,0.04852127,-0.008599727,-0.029877694,0.064885624,-0.18779922,0.021827247,-0.082644194,-0.26757255,-0.054793723,0.014464075,0.036497537,-2.0,2.0,-2.0,2.0,2.0,-2.0,-2.0,-1.1593418,-2.0,-2.0,-2.0,-2.0,-2.0,1.5594406,1.4907387,1.1616929,2.0,-2.0,-2.0,-1.5617758,-2.0,-2.0,-1.9672823,0.27819222
2025-06-05 11:56:30.439,-0.0053242673,-0.0041086255,0.12663162,0.008534705,0.015434925,-0.021919195,0.0,0.0,0.0,-0.0046854303,-0.16326347,0.32753557,-0.044537615,0.09129299,0.24135156,0.03142607,-0.09319941,-0.23237376,0.08643454,-0.026342623,-0.31166092,-0.039369944,-0.0052652624,-0.0028786822,0.067800224,0.03994714,0.099941954,-0.16327216,-0.06116187,-0.051559165,-0.1790539,-0.03340283,-0.051331796,0.08777072,-2.0,1.5594406,1.4907387,1.1616929,2.0,-2.0,-2.0,-1.5617758,-2.0,-2.0,-1.9672823,0.27819222,-2.0,0.7331495,2.0,-2.0,2.0,-2.0,-2.0,-1.6225969,-2.0,2.0,-2.0,2.0
2025-06-05 11:56:30.459,0.10237476,-0.03849075,0.011567114,-0.013625926,0.009720909,-0.041868564,0.0,0.0,0.0,-0.0066929506,-0.15441817,0.30403277,0.016662555,0.052882943,0.26985836,-0.015247862,-0.089584045,-0.25243792,0.026697988,-0.021773301,-0.3519338,0.011211174,0.079610206,-0.031342596,0.1730846,-0.0024819036,0.04116795,-0.06512244,-0.006083439,0.0066713123,-0.16088073,0.055166855,-0.097892284,0.08711054,-2.0,0.7331495,2.0,-2.0,2.0,-2.0,-2.0,-1.6225969,-2.0,2.0,-2.0,2.0,-2.0,-0.106116235,2.0,-2.0,1.4152071,-2.0,-2.0,-1.1074108,-2.0,2.0,-1.2886168,2.0
2025-06-05 11:56:30.483,0.14947893,0.04526755,-0.027278006,0.06321155,0.002348263,-0.048334233,0.0,0.0,0.0,-0.00759383,-0.13797353,0.26632565,0.06018794,0.056088172,0.28839055,-0.019434012,-0.10595912,-0.2689321,0.023691038,-0.015717128,-0.36883098,0.048254203,0.038010567,-0.15668225,0.10167215,-0.080110766,0.0023529038,0.026197841,0.037609518,-0.021616826,-0.06393041,0.06278681,0.06317353,0.14316778,-2.0,-0.106116235,2.0,-2.0,1.4152071,-2.0,-2.0,-1.1074108,-2.0,2.0,-1.2886168,2.0,-2.0,-0.15161937,2.0,-2.0,1.5207552,-2.0,-2.0,-0.9746981,-2.0,2.0,-0.93783945,2.0
2025-06-05 11:56:30.503,0.12445545,0.07716867,0.057915654,0.035179976,-0.016026733,-0.034331333,0.0,0.0,0.0,-0.0076581636,-0.13723269,0.23056477,0.100377046,0.046370707,0.28008243,0.00638983,-0.11586881,-0.27290964,0.022934737,4.579204e-05,-0.34706149,0.08593012,-0.015502466,-0.13163173,0.070307285,-0.0418849,0.039938368,0.073123135,-0.050574135,-0.06345051,0.03595426,0.07398953,0.03389927,0.008349735,-2.0,-0.15161937,2.0,-2.0,1.5207552,-2.0,-2.0,-0.9746981,-2.0,2.0,-0.93783945,2.0,-2.0,0.3070225,2.0,-2.0,1.8759656,-2.0,-2.0,-2.0,-2.0,2.0,-1.0397054,2.0
2025-06-05 11:56:30.523,-0.022254832,0.14842199,-0.024079911,0.0069140564,-0.02110627,0.0026349397,0.0,0.0,0.0,-0.008303917,-0.13622986,0.20858699,0.13985887,0.027340792,0.29080662,0.008530428,-0.12529992,-0.29182595,0.039523326,0.015173547,-0.31418544,0.12032881,0.06283363,-0.123253055,0.064996146,-0.0383492,0.026972959,0.0114244865,-0.035424832,-0.020360498,-0.039583113,0.006414937,0.027606929,0.09606265,-2.0,0.3070225,2.0,-2.0,1.8759656,-2.0,-2.0,-2.0,-2.0,2.0,-1.0397054,2.0,-2.0,0.36224705,2.0,-2.0,1.6958808,-2.0,-2.0,-1.4191046,-2.0,2.0,-1.1485944,2.0
2025-06-05 11:56:30.542,0.027995806,0.10547848,-0.07170068,0.032778453,-0.094028585,-0.044545766,0.0,0.0,0.0,-0.008020015,-0.12372686,0.18140909,0.16286336,0.012923322,0.29547414,0.010404482,-0.13900195,-0.29817635,0.042188916,0.026499907,-0.3096285,0.14522968,0.036023017,0.007954718,0.05539004,0.02838663,-0.0046889056,-0.06005913,0.04089353,-0.08315715,0.05592386,0.020756818,0.0064109536,0.06712447,-2.0,0.36224705,2.0,-2.0,1.6958808,-2.0,-2.0,-1.4191046,-2.0,2.0,-1.1485944,2.0,-2.0,0.29266733,2.0,-2.0,1.3219694,-2.0,-2.0,-0.7704721,-2.0,2.0,-0.7621857,2.0
2025-06-05 11:56:30.565,0.031705722,0.017740494,0.0586373,0.05478869,-0.04620342,-0.00046987264,0.0,0.0,0.0,-0.007310258,-0.113106504,0.16827273,0.18246628,0.005510605,0.3004706,0.0077754078,-0.15472119,-0.2796127,0.021373581,0.033169515,-0.2974353,0.17132469,0.022920534,-0.09809231,-0.01776105,0.04927307,-0.007607793,-0.02017044,0.040709462,0.08617606,-0.014127904,-0.01925789,0.083644964,0.0020559197,-2.0,0.29266733,2.0,-2.0,1.3219694,-2.0,-2.0,-0.7704721,-2.0,2.0,-0.7621857,2.0,-2.0,0.42625093,2.0,-2.0,2.0,-2.0,-2.0,-1.9362582,-2.0,2.0,-1.0593058,2.0
2025-06-05 11:56:30.582,-0.0077932593,0.12861049,-0.043640688,0.005329515,-0.07208479,0.0058697355,0.0,0.0,0.0,-0.0072065867,-0.10948893,0.1532578,0.1861235,-0.008213801,0.32539076,-0.015493731,-0.15355162,-0.28255895,0.029187629,0.054401748,-0.2732331,0.17180006,-0.011644105,-0.08583534,0.024436012,0.008323783,0.08686554,-0.07268607,0.023014804,-0.08849278,-0.056879908,0.07049976,0.050791305,0.05802956,-2.0,0.42625093,2.0,-2.0,2.0,-2.0,-2.0,-1.9362582,-2.0,2.0,-1.0593058,2.0,-2.0,0.4581954,2.0,-2.0,1.7625973,-2.0,-2.0,-1.3511657,-2.0,2.0,-1.2718741,2.0
2025-06-05 11:56:30.604,-0.016176246,0.07657455,-0.093640424,0.019883573,-0.015760966,0.022126831,0.0,0.0,0.0,-0.0061927107,-0.10204878,0.15030591,0.19629686,-0.012985867,0.33206943,-0.02567449,-0.15817496,-0.28967667,0.017961936,0.060274642,-0.2696495,0.1906366,0.027904045,0.04055552,0.08649592,-0.034173265,0.007622289,0.028707018,-0.035080943,-0.04010483,-0.020088105,-0.013082233,0.019414756,-0.036200225,-2.0,0.4581954,2.0,-2.0,1.7625973,-2.0,-2.0,-1.3511657,-2.0,2.0,-1.2718741,2.0,-2.0,0.42929298,2.0,-2.0,1.1977398,-2.0,-2.0,-0.7204256,-2.0,2.0,-0.8285502,2.0
2025-06-05 11:56:30.623,-0.0067169666,-0.057721928,0.020604901,0.017691769,-0.058423344,0.0005325487,0.0,0.0,0.0,-0.0045832084,-0.10314404,0.14822285,0.21887265,-0.011292832,0.34594062,-0.03352207,-0.15237334,-0.29136458,-0.0052710027,0.06784003,-0.27181926,0.212021,0.0089756325,0.01101124,-0.04038415,-0.005260094,0.087270774,0.007861031,-0.011723741,0.08378815,1.5804106e-05,-0.03830774,-0.020504285,-0.0045486907,-2.0,0.42929298,2.0,-2.0,1.1977398,-2.0,-2.0,-0.7204256,-2.0,2.0,-0.8285502,2.0,-2.0,0.72647727,1.7715297,-2.0,1.780797,-2.0,-2.0,-1.7600632,-2.0,2.0,-1.0917512,1.9983294
2025-06-05 11:56:30.647,-0.008771808,0.024385547,-0.11809674,0.030194532,-0.10253601,-0.047135357,0.0,0.0,0.0,-0.003835809,-0.10959624,0.13928856,0.20563906,-0.032843597,0.35348845,-0.04705229,-0.16333313,-0.2964275,-0.005611203,0.07831345,-0.26400587,0.21738079,0.03594202,-0.044626117,0.019797983,0.020784432,-0.048571028,-0.080057964,-0.05155105,-0.03031176,-0.054696962,-0.039288368,0.041188166,-0.0064315824,-2.0,0.72647727,1.7715297,-2.0,1.780797,-2.0,-2.0,-1.7600632,-2.0,2.0,-1.0917512,1.9983294,-2.0,0.66528,0.99661285,-2.0,1.0766664,-2.0,-2.0,-0.47948837,-2.0,2.0,-0.90709376,1.8180885
2025-06-05 11:56:30.666,0.06583834,-0.07188865,0.020485334,0.092062466,-0.019194499,-0.0013828803,0.0,0.0,0.0,-0.002775726,-0.097763,0.15057744,0.20373763,-0.030360073,0.34546024,-0.060518607,-0.15814655,-0.29324335,-0.019912018,0.06321402,-0.26249328,0.20994188,0.05484228,0.07445137,-0.060071927,-0.06747993,-0.01027461,0.023387933,-0.025702393,0.0014640534,-0.010746756,-0.013527136,0.05349895,0.019757101,-2.0,0.66528,0.99661285,-2.0,1.0766664,-2.0,-2.0,-0.47948837,-2.0,2.0,-0.90709376,1.8180885,-2.0,0.76785105,0.41970998,-2.0,1.6379923,-2.0,-2.0,-1.8255798,-2.0,2.0,-1.082556,-0.02158242
2025-06-05 11:56:30.686,-0.11966618,0.0069736135,-0.07087035,0.026733281,-0.046903268,-0.03982124,0.0,0.0,0.0,-0.0026343232,-0.09001962,0.15475354,0.18027993,-0.030509535,0.33803216,-0.055044934,-0.16325156,-0.29996806,-0.037024893,0.08416474,-0.25470668,0.1877999,-0.045579653,-0.023325305,-0.009073539,0.012916983,0.046450783,-0.032341544,0.031567767,-0.068823285,-0.024825517,-0.04315615,-0.0068371575,-0.112497024,-2.0,0.76785105,0.41970998,-2.0,1.6379923,-2.0,-2.0,-1.8255798,-2.0,2.0,-1.082556,-0.02158242,-2.0,1.7293148,-2.0,-2.0,0.7891187,-0.46743616,-2.0,-1.2928746,-2.0,2.0,-1.8942169,-2.0
2025-06-05 11:56:30.707,-0.10192124,-0.06793183,0.013877815,0.019883538,-0.07686007,0.024229692,0.0,0.0,0.0,-0.0022729472,-0.10145754,0.1870619,0.10852989,-0.030396119,0.34174877,-0.052599225,-0.15935563,-0.2939763,-0.029743735,0.07621538,-0.2849814,0.10823269,-0.018956544,0.095276415,-0.22900234,-0.020470599,-0.099372625,0.033401158,0.0058632437,0.03430791,0.030128477,-0.053595208,-0.08697738,-0.11617587,-2.0,1.7293148,-2.0,-2.0,0.7891187,-0.46743616,-2.0,-1.2928746,-2.0,2.0,-1.8942169,-2.0,-2.0,2.0,-2.0,1.62233,0.9213088,2.0,-2.0,-2.0,-2.0,2.0,-2.0,-2.0
2025-06-05 11:56:30.725,-0.13550533,-0.29280213,-0.04696564,0.015274922,-0.006540571,0.0010032948,0.0,0.0,0.0,-0.001951284,-0.09015463,0.23351716,0.040992178,-0.01672229,0.32102823,-0.0074539017,-0.1466259,-0.32239604,-0.050211836,0.08644551,-0.3208362,0.048783395,0.01787561,0.17164737,-0.12257384,0.08504734,-0.06127271,0.1180782,-0.024214147,-0.061792005,-0.030642437,0.07830239,-0.09736537,-0.1605461,-2.0,2.0,-2.0,1.62233,0.9213088,2.0,-2.0,-2.0,-2.0,2.0,-2.0,-2.0,-2.0,2.0,-2.0,2.0,-0.045772955,2.0,-2.0,-2.0,1.5916171,2.0,-2.0,-2.0
2025-06-05 11:56:30.748,-0.21941438,-0.2802171,-0.024012642,0.030501232,-0.05759299,-0.043654475,0.0,0.0,0.0,-0.0013696348,-0.09786253,0.26986754,0.0010352073,-0.0019157766,0.26393232,0.049785566,-0.13686593,-0.3464847,-0.0028751832,0.08762865,-0.34929916,-0.0129249515,0.012603645,-0.030548831,-0.058807366,0.07424915,-0.061516263,0.13106504,0.039147947,-0.013996645,0.11741616,0.07486272,-0.090911984,-0.060023785,-2.0,2.0,-2.0,2.0,-0.045772955,2.0,-2.0,-2.0,1.5916171,2.0,-2.0,-2.0,-2.0,2.0,-2.0,2.0,-0.6340541,2.0,-2.0,-1.8308316,2.0,2.0,-2.0,-2.0
2025-06-05 11:56:30.766,-0.22923301,-0.15528192,0.031051489,0.0065216534,0.010702476,0.008357751,0.0,0.0,0.0,-0.001103596,-0.09604902,0.27373114,-0.009872203,0.026889013,0.21479881,0.09993203,-0.1332938,-0.35045052,0.046513148,0.088861085,-0.3696168,-0.020584969,0.06327152,0.060414307,-0.020305488,-0.006364721,-0.1231962,0.14700101,-0.051777974,-0.068429954,0.1493888,0.0839048,-0.13908932,0.0039610895,-2.0,2.0,-2.0,2.0,-0.6340541,2.0,-2.0,-1.8308316,2.0,2.0,-2.0,-2.0,-2.0,1.6536422,-2.0,2.0,-0.2027226,2.0,-2.0,-1.6494176,2.0,2.0,-2.0,-2.0
2025-06-05 11:56:30.785,-0.055681303,-0.091155306,-0.09308482,0.05339337,0.08005176,0.049184464,0.0,0.0,0.0,-0.0009788976,-0.10022868,0.2705684,-0.00485849,0.024726132,0.17883112,0.14294471,-0.12938233,-0.3612567,0.08298563,0.108244695,-0.4137164,-0.006125253,0.017504223,-0.009511176,-0.031324107,0.053622417,-0.11337675,0.08606635,0.03334575,-0.0047331145,0.03193089,0.014448788,-0.03407983,0.040177446,-2.0,1.6536422,-2.0,2.0,-0.2027226,2.0,-2.0,-1.6494176,2.0,2.0,-2.0,-2.0,-2.0,1.9661998,-2.0,2.0,-0.4078229,2.0,-2.0,-1.1153166,2.0,-1.0934969,-2.0,-2.0
2025-06-05 11:56:30.806,0.12418986,-0.03797844,-0.012091091,0.027084323,0.06933249,-0.038848095,0.0,0.0,0.0,-0.00037667627,-0.12249628,0.29855984,-0.00012889922,0.033924405,0.13559213,0.16679727,-0.124723956,-0.35568896,0.110437654,0.09987221,-0.4095914,0.00988441,-0.075330645,-0.021336855,0.03219037,0.021100655,-0.14453594,0.13183062,0.005559474,0.1153658,0.0807809,-0.016717535,-0.01853584,0.068453595,-2.0,1.9661998,-2.0,2.0,-0.4078229,2.0,-2.0,-1.1153166,2.0,-1.0934969,-2.0,-2.0,-2.0,1.3950104,-2.0,2.0,0.34079057,2.0,-2.0,-1.1634558,2.0,-2.0,-2.0,-2.0
2025-06-05 11:56:30.826,0.10979355,0.016406756,0.031214733,0.01295784,-0.022235176,0.0345662,0.0,0.0,0.0,-0.0006192269,-0.12083578,0.2901321,-0.014281464,0.04546136,0.122435614,0.1805919,-0.12264302,-0.33847293,0.13707246,0.08372466,-0.43322316,0.004717045,-0.0075691137,0.090826556,0.041440587,0.015472198,-0.038962506,0.04686236,0.03466759,0.06414744,0.08990276,-0.07645112,0.049339425,0.037660275,-2.0,1.3950104,-2.0,2.0,0.34079057,2.0,-2.0,-1.1634558,2.0,-2.0,-2.0,-2.0,-2.0,1.496337,-2.0,2.0,0.5354094,2.0,-2.0,-1.0005867,2.0,-2.0,-1.2143211,-2.0
2025-06-05 11:56:30.848,0.124896355,-0.0251889,0.029849716,-0.021721248,0.021863772,0.042071067,0.0,0.0,0.0,-0.0016724033,-0.13402756,0.3024946,-0.009679372,0.057671852,0.11641339,0.1837607,-0.0972582,-0.31744188,0.16258828,0.06336488,-0.4196071,0.00036653574,-0.022599626,-0.04482628,-0.01684995,0.073568985,-0.06332119,0.049475756,0.037937958,0.10687216,0.109692566,0.012604587,0.015900293,-0.018384935,-2.0,1.496337,-2.0,2.0,0.5354094,2.0,-2.0,-1.0005867,2.0,-2.0,-1.2143211,-2.0,-2.0,1.3795677,-2.0,2.0,0.2771588,2.0,-2.0,-0.83474994,2.0,-2.0,-0.74325204,-2.0
2025-06-05 11:56:30.866,0.18434487,-0.14455235,-0.032110833,-0.018395718,0.061359983,0.04968555,0.0,0.0,0.0,-0.0024224143,-0.1584017,0.3295539,-0.01253216,0.06773585,0.11489597,0.20057338,-0.10585728,-0.28591582,0.1758666,0.051151652,-0.39031348,-0.01136762,-0.09938115,-0.0007484636,-0.058933258,-0.008385719,0.030083336,0.07759156,0.009986144,0.03489548,0.013633838,-0.09732217,0.12710114,-0.050584823,-2.0,1.3795677,-2.0,2.0,0.2771588,2.0,-2.0,-0.83474994,2.0,-2.0,-0.74325204,-2.0,-2.0,1.5941794,-2.0,2.0,0.24612172,2.0,-2.0,-0.89570415,2.0,-2.0,-1.1712815,-2.0
2025-06-05 11:56:30.886,0.08292214,-0.09226781,-0.001125188,-0.050675094,0.012633836,0.017914489,0.0,0.0,0.0,-0.0024933566,-0.15309773,0.33570483,-0.026146112,0.05758214,0.097112805,0.21096534,-0.09010614,-0.26771295,0.19476336,0.031523775,-0.37241867,-0.014259965,0.008760514,-0.022224613,-0.015431402,0.07574644,-0.03894509,-0.02796352,-0.036430057,0.055910796,-0.0032291692,-0.063741684,0.00082231883,-0.017571364,-2.0,1.5941794,-2.0,2.0,0.24612172,2.0,-2.0,-0.89570415,2.0,-2.0,-1.1712815,-2.0,-2.0,1.9089828,-2.0,2.0,0.19639315,2.0,-2.0,-1.0516285,2.0,-2.0,-1.1244099,-2.0
2025-06-05 11:56:30.906,0.12073207,-0.10881888,0.08442024,0.007554421,-0.0037989486,0.044258025,0.0,0.0,0.0,-0.002779082,-0.16743368,0.3529969,-0.03503525,0.07492032,0.103574224,0.2141951,-0.10503724,-0.27814606,0.20439044,0.01632027,-0.3584792,-0.03613785,-0.043435715,-0.0048873113,0.03973453,-0.059835512,0.003238427,0.056569073,0.014684933,-0.02206888,-0.044466607,0.004357545,0.05876794,-0.05945308,-2.0,1.9089828,-2.0,2.0,0.19639315,2.0,-2.0,-1.0516285,2.0,-2.0,-1.1244099,-2.0,-2.0,0.70123607,-2.0,2.0,0.54638314,2.0,-2.0,-0.60043675,2.0,-2.0,0.049333252,-2.0
2025-06-05 11:56:30.929,0.21840009,-0.16090001,0.0024428149,-0.10136006,0.021186335,0.030751664,0.0,0.0,0.0,-0.0036711905,-0.17296879,0.34330535,-0.02412773,0.08249192,0.092426606,0.2243604,-0.09803212,-0.23797847,0.21231046,0.011638991,-0.33615136,-0.052070472,-0.011608946,-0.029542992,0.014697725,-0.041879553,0.029544327,0.054555852,0.048906785,0.03860284,-0.050939146,-0.0013131893,0.036473244,-0.06335735,-2.0,0.70123607,-2.0,2.0,0.54638314,2.0,-2.0,-0.60043675,2.0,-2.0,0.049333252,-2.0,-2.0,1.2349423,-2.0,2.0,0.33061236,1.4999652,-2.0,-0.5005487,2.0,-2.0,-0.3314229,-2.0
2025-06-05 11:56:30.948,0.15723048,-0.22901627,-0.029173369,-0.033338547,0.057656236,0.00042094477,0.0,0.0,0.0,-0.003250371,-0.19165458,0.35614508,-0.036805365,0.06870006,0.10638043,0.21562572,-0.09656914,-0.23394156,0.22319053,0.005212119,-0.30586243,-0.0685372,-0.06980839,-0.0099912025,-0.049278975,-0.0670533,-0.011681886,-0.06610169,-0.013276398,0.07153174,0.079080455,-0.07305371,0.105784304,-0.06928445,-2.0,1.2349423,-2.0,2.0,0.33061236,1.4999652,-2.0,-0.5005487,2.0,-2.0,-0.3314229,-2.0,-2.0,1.6254476,-2.0,2.0,0.4112627,1.0290346,-2.0,-0.69774526,2.0,-2.0,-0.8447534,-2.0
2025-06-05 11:56:30.966,0.038639642,-0.16744515,-0.029849755,-0.1132954,-0.0067296596,0.01552761,0.0,0.0,0.0,-0.0022228074,-0.19866168,0.3569073,-0.04682519,0.087686464,0.10074791,0.21858443,-0.08482399,-0.2169911,0.21977761,0.0056841313,-0.2836671,-0.07093944,0.050051916,-0.043538935,-0.09529168,-0.043305755,-0.003941478,-0.015526914,-0.060810506,0.042673577,0.023769867,-0.0443424,0.077649854,-0.080110945,-2.0,1.6254476,-2.0,2.0,0.4112627,1.0290346,-2.0,-0.69774526,2.0,-2.0,-0.8447534,-2.0,-2.0,1.9407256,-2.0,2.0,0.8422215,-0.27069703,-2.0,-1.0904022,2.0,-2.0,-1.2291836,-2.0
2025-06-05 11:56:30.987,-0.06363586,-0.04403705,0.057388548,-0.1078558,0.07091421,-0.039941274,0.0,0.0,0.0,-0.0019992867,-0.18641433,0.37655738,-0.047444038,0.07740309,0.10516025,0.21357678,-0.08681027,-0.20804818,0.22388938,0.007847792,-0.291664,-0.07754265,0.046482872,-0.013683207,0.01442321,0.02658336,0.009804808,-0.083984,-0.036970384,-0.07688679,0.009453218,0.03368899,-0.051076017,0.046130545,-2.0,1.9407256,-2.0,2.0,0.8422215,-0.27069703,-2.0,-1.0904022,2.0,-2.0,-1.2291836,-2.0,-2.0,1.433481,-2.0,2.0,1.9844663,-2.0,-2.0,-0.9702607,-2.0,-2.0,-0.7081679,-2.0
2025-06-05 11:56:31.008,-0.0034340671,0.14735925,0.10519937,-0.061835736,0.05413303,-0.016600426,0.0,0.0,0.0,-0.0032767423,-0.19224094,0.3782989,-0.07941804,0.069793984,0.11483716,0.1794492,-0.103995696,-0.22038066,0.167664,-0.016437864,-0.28956175,-0.08890538,-0.015653426,-0.013493235,-0.057999242,-0.0055313352,0.03917762,-0.09250391,0.050848346,0.040983386,-0.2305087,-0.05705022,-0.005825836,-0.018491527,-2.0,1.433481,-2.0,2.0,1.9844663,-2.0,-2.0,-0.9702607,-2.0,-2.0,-0.7081679,-2.0,-2.0,1.4871582,1.6955956,1.4468329,2.0,-2.0,-2.0,-1.1430744,-2.0,-2.0,-1.4034144,1.1740124
2025-06-05 11:56:31.027,-0.011494133,0.33943203,0.06595579,-0.019637791,-0.03420365,0.015752984,0.0,0.0,0.0,-0.004777705,-0.18338734,0.3694898,-0.024633616,0.070881784,0.1535067,0.13201222,-0.09272474,-0.22803979,0.08945786,-0.02448858,-0.30342847,-0.06501235,0.036435176,0.05244343,0.11963144,-0.03464174,0.10002534,-0.1744385,0.05783663,-0.019534232,-0.13057855,-0.020591,-0.05811039,0.06851358,-2.0,1.4871582,1.6955956,1.4468329,2.0,-2.0,-2.0,-1.1430744,-2.0,-2.0,-1.4034144,1.1740124,-2.0,0.7850367,2.0,-2.0,2.0,-2.0,-2.0,-0.9471519,-2.0,2.0,-1.5764599,2.0
2025-06-05 11:56:31.048,-0.054325424,0.45484197,-0.053844824,0.00870526,0.0134757655,0.044235032,0.0,0.0,0.0,-0.005985357,-0.1622028,0.34025177,0.021176709,0.059484918,0.18899447,0.095657505,-0.09087105,-0.22968054,0.02464538,-0.02308495,-0.29805747,-0.008714125,0.051660076,-0.008127443,0.08457253,-0.1265253,0.11605885,-0.17060381,-0.003955885,-0.07437432,-0.12039392,-0.024244312,-0.036114756,0.096243486,-2.0,0.7850367,2.0,-2.0,2.0,-2.0,-2.0,-0.9471519,-2.0,2.0,-1.5764599,2.0,-2.0,-0.29769856,2.0,-2.0,1.0014855,-2.0,-2.0,-0.42332655,-2.0,2.0,-0.72824347,2.0
2025-06-05 11:56:31.067,0.010919922,0.5480906,-0.013840403,-0.026318686,-0.04399535,-0.015385487,0.0,0.0,0.0,-0.005998905,-0.15841404,0.28140962,0.054179803,0.021956088,0.20233293,0.0495813,-0.098012134,-0.20703018,-0.0283074,-0.00821184,-0.28676865,0.02579816,-0.016800288,-0.23997632,0.04675917,-0.09438614,0.06585785,-0.0959054,-0.025353404,0.111925595,-0.11609497,0.011651544,0.11611078,0.068874575,-2.0,-0.29769856,2.0,-2.0,1.0014855,-2.0,-2.0,-0.42332655,-2.0,2.0,-0.72824347,2.0,-2.0,-0.12185961,2.0,-2.0,1.5070674,-2.0,-2.0,-0.8756952,-2.0,2.0,-0.52216166,2.0
2025-06-05 11:56:31.087,-0.01855688,0.2610081,0.052562967,0.03332461,-0.09093909,-0.0075888024,0.0,0.0,0.0,-0.005949669,-0.1504169,0.23886697,0.08916935,0.0003928949,0.20480584,-0.00037941357,-0.11817684,-0.21120547,-0.041840788,0.011891999,-0.26494423,0.06758687,-0.0061624786,-0.15874076,0.07802686,-0.039517034,0.038975425,-0.045653373,-0.0010844584,-0.010640145,0.032294724,-0.0023105189,0.09708423,0.15084983,-2.0,-0.12185961,2.0,-2.0,1.5070674,-2.0,-2.0,-0.8756952,-2.0,2.0,-0.52216166,2.0,-2.0,0.2872414,2.0,-2.0,1.9351406,-2.0,-2.0,-1.90072,-2.0,2.0,-0.9339064,2.0
2025-06-05 11:56:31.107,0.0006522883,0.14255288,0.026153848,0.07994968,-0.051645476,-0.04115979,0.0,0.0,0.0,-0.0065017557,-0.1364059,0.19523682,0.13102524,-0.004574161,0.22584139,-0.015417113,-0.1305964,-0.23809293,-0.027792126,0.031880073,-0.24187265,0.113621086,0.04267713,-0.04089094,0.040932134,0.04433348,-0.014785311,0.009964766,0.04049807,-0.11326818,0.09061539,0.059687734,-0.0028264464,0.04004217,-2.0,0.2872414,2.0,-2.0,1.9351406,-2.0,-2.0,-1.90072,-2.0,2.0,-0.9339064,2.0,-2.0,0.73379594,2.0,-2.0,1.6584644,-2.0,-2.0,-2.0,-2.0,2.0,-0.97687554,2.0
2025-06-05 11:56:31.126,0.026238244,0.13212126,0.0008945677,0.032141984,-0.033341736,0.043944445,0.0,0.0,0.0,-0.0064950096,-0.12658285,0.19786404,0.14780773,-0.013416925,0.23865253,-0.022812625,-0.12665427,-0.27266255,0.0031222717,0.031758178,-0.24799976,0.12989086,0.08234656,0.004694224,0.026379254,-0.060227826,0.086152606,0.04026528,0.016673954,0.0016043622,0.07756314,0.029547019,0.0345902,0.10410763,-2.0,0.73379594,2.0,-2.0,1.6584644,-2.0,-2.0,-2.0,-2.0,2.0,-0.97687554,2.0,-2.0,0.77601224,2.0,-2.0,1.6443003,-2.0,-2.0,-1.9020108,-2.0,2.0,-1.1069891,2.0
2025-06-05 11:56:31.148,0.005444867,0.06896589,-0.02588727,0.028721018,-0.040489897,-0.022917425,0.0,0.0,0.0,-0.0057464777,-0.108705506,0.19700465,0.1554103,-0.01738131,0.25099474,-0.032659072,-0.14126883,-0.27857378,0.024818556,0.05308688,-0.24596038,0.15454833,0.0047147027,-0.017031563,0.030037813,-0.027784461,0.100284085,0.03309544,6.3581865e-06,-0.06370061,-0.032891337,0.0248131,0.032374773,0.022494506,-2.0,0.77601224,2.0,-2.0,1.6443003,-2.0,-2.0,-1.9020108,-2.0,2.0,-1.1069891,2.0,-2.0,0.7169897,2.0,-2.0,1.4633056,-2.0,-2.0,-1.379508,-2.0,2.0,-0.8821646,2.0
2025-06-05 11:56:31.167,0.10793319,0.046077326,-0.022143707,0.07929669,-0.094076104,0.037809532,0.0,0.0,0.0,-0.004579183,-0.11229181,0.19799599,0.18390638,-0.025520578,0.27407655,-0.040545117,-0.13858527,-0.2944883,0.02715808,0.048702244,-0.23673911,0.17994323,0.06832002,0.041608762,0.002567916,-0.06371087,-0.018664211,-0.07499185,-0.02214004,-0.011205654,0.02209124,0.07752016,-0.013068787,-0.02237195,-2.0,0.7169897,2.0,-2.0,1.4633056,-2.0,-2.0,-1.379508,-2.0,2.0,-0.8821646,2.0,-2.0,0.77054983,2.0,-2.0,1.5450623,-2.0,-2.0,-1.2722343,-2.0,2.0,-0.88566387,2.0
2025-06-05 11:56:31.187,0.089671455,0.05423027,-0.036228996,-0.0025350065,-0.06291177,-0.019764556,0.0,0.0,0.0,-0.0036274595,-0.1055046,0.2015964,0.2008121,-0.02097064,0.29321256,-0.036032766,-0.14793597,-0.27348778,0.021057373,0.06505059,-0.22468863,0.19020894,0.037087582,-0.047746457,0.03424028,-0.084532216,-0.032016736,-0.08806671,0.021853605,0.008275615,-0.024695626,-0.04216787,0.002487504,0.050484385,-2.0,0.77054983,2.0,-2.0,1.5450623,-2.0,-2.0,-1.2722343,-2.0,2.0,-0.88566387,2.0,-2.0,0.58556825,2.0,-2.0,1.5211015,-2.0,-2.0,-0.97810113,-2.0,2.0,-0.95443547,2.0
2025-06-05 11:56:31.207,0.085467696,-0.013780058,-0.001197665,0.055427592,-0.09041455,0.020031596,0.0,0.0,0.0,-0.0029546754,-0.107982405,0.17669302,0.2126656,-0.040090587,0.2930832,-0.038758032,-0.13314486,-0.28235504,0.020333357,0.060489263,-0.23829825,0.19639099,-0.059944566,-0.07112985,0.00788786,-0.08261778,-0.004193895,0.051019587,-0.052899897,0.035870135,-0.029735846,-0.05567733,0.023617217,0.036338486,-2.0,0.58556825,2.0,-2.0,1.5211015,-2.0,-2.0,-0.97810113,-2.0,2.0,-0.95443547,2.0,-2.0,0.6461705,2.0,-2.0,1.7941577,-2.0,-2.0,-1.4912897,-2.0,2.0,-1.0977272,2.0
2025-06-05 11:56:31.230,0.0110439565,0.037194643,-0.085573696,0.09333294,-0.10787118,-0.025370166,0.0,0.0,0.0,-0.0025698193,-0.10109233,0.17844734,0.210223,-0.049746066,0.31089813,-0.06602813,-0.1386471,-0.27404875,0.008323465,0.060371842,-0.23476529,0.22006932,-0.04753747,-0.01146267,0.042079404,-0.023741983,-0.02367536,-0.06182767,0.026753753,0.042235862,0.021108948,-0.060748026,-0.01872421,0.08487002,-2.0,0.6461705,2.0,-2.0,1.7941577,-2.0,-2.0,-1.4912897,-2.0,2.0,-1.0977272,2.0,-2.0,0.60794586,1.3190063,-2.0,1.3371439,-2.0,-2.0,-0.5855538,-2.0,2.0,-1.086146,2.0
2025-06-05 11:56:31.248,0.07187731,0.0010011288,-0.0096784355,0.004333799,-0.09872494,-0.04803319,0.0,0.0,0.0,-0.001720181,-0.0971227,0.17044586,0.21327858,-0.05042295,0.31348476,-0.0577414,-0.14967234,-0.25206345,0.0031796712,0.07403849,-0.22961473,0.21150355,0.019627586,0.04943258,-0.025844863,-0.024741802,0.022398962,-0.050770804,0.06546553,0.0663501,0.018387618,0.06667312,-0.043492284,0.08774805,-2.0,0.60794586,1.3190063,-2.0,1.3371439,-2.0,-2.0,-0.5855538,-2.0,2.0,-1.086146,2.0,-2.0,0.5946645,0.84062904,-2.0,1.4505999,-2.0,-2.0,-1.2477006,-2.0,2.0,-1.1010056,1.0491792
2025-06-05 11:56:31.267,0.050504785,0.053432774,0.008881415,0.022951704,-0.1218561,0.034230128,0.0,0.0,0.0,-0.001414219,-0.08500564,0.1634014,0.18727636,-0.042802863,0.32792807,-0.062385727,-0.15130495,-0.24714565,-0.0014117453,0.07611508,-0.23635748,0.20931812,-0.061774176,-0.0002310879,0.01182864,0.045359198,-0.044378046,0.0034427375,0.0409526,0.034288455,0.007926054,0.045889396,0.014448359,-0.053074364,-2.0,0.5946645,0.84062904,-2.0,1.4505999,-2.0,-2.0,-1.2477006,-2.0,2.0,-1.1010056,1.0491792,-2.0,0.90338457,-1.2862703,-2.0,1.7173564,-2.0,-2.0,-1.6987602,-2.0,2.0,-1.3824974,-2.0
2025-06-05 11:56:31.287,-0.013300656,0.05543376,-0.027101062,0.038138874,-0.14908819,-0.0031482175,0.0,0.0,0.0,-0.0012465518,-0.0987852,0.1870291,0.13539697,-0.052344736,0.31602538,-0.084529124,-0.15575719,-0.27270213,0.0005605465,0.08851751,-0.24139513,0.13758406,0.07344458,-0.01284188,-0.18079835,-0.00011666155,0.039258435,-0.008167876,0.027250802,-0.08032851,-0.022498762,0.014689081,-0.005129751,-0.20718127,-2.0,0.90338457,-1.2862703,-2.0,1.7173564,-2.0,-2.0,-1.6987602,-2.0,2.0,-1.3824974,-2.0,-2.0,2.0,-2.0,-2.0,1.1607186,2.0,-2.0,-2.0,-2.0,2.0,-2.0,-2.0
2025-06-05 11:56:31.308,-0.08881364,-0.21801074,-0.13242039,0.050778955,-0.08380052,-0.025127616,0.0,0.0,0.0,-0.0003944101,-0.098912895,0.2091023,0.07171789,-0.062898345,0.31567037,-0.03295617,-0.1521622,-0.2760586,-0.0060638464,0.07787984,-0.2782043,0.07673481,-0.03747738,0.11073481,-0.15426072,-0.06945007,-0.026819956,0.21094535,0.020459682,-0.08534152,-0.07403372,-0.035305478,-0.12898456,-0.21528107,-2.0,2.0,-2.0,-2.0,1.1607186,2.0,-2.0,-2.0,-2.0,2.0,-2.0,-2.0,-2.0,2.0,-2.0,2.0,-0.8214044,2.0,-2.0,-1.9174215,-0.44262043,2.0,-2.0,-2.0
2025-06-05 11:56:31.330,-0.27309594,-0.30867544,-0.026877994,-0.003616993,-0.108769655,0.028597595,0.0,0.0,0.0,0.0010017538,-0.07733723,0.23013051,0.03879753,-0.04150094,0.2562903,0.03405145,-0.13086236,-0.29949743,0.0044557657,0.08140014,-0.32894474,0.010423289,0.06858659,0.02921807,-0.09429344,0.07421256,-0.22885904,0.1500202,0.06779739,-0.10782266,0.06228933,0.06302801,-0.028097296,-0.1368865,-2.0,2.0,-2.0,2.0,-0.8214044,2.0,-2.0,-1.9174215,-0.44262043,2.0,-2.0,-2.0,-2.0,2.0,-2.0,2.0,-0.5049862,2.0,-2.0,-2.0,2.0,2.0,-2.0,-2.0
2025-06-05 11:56:31.348,-0.40012333,-0.34036735,-0.09687671,0.020616075,-0.0716355,-0.042109206,0.0,0.0,0.0,0.0019916932,-0.069724016,0.2467304,0.025182579,-0.015710331,0.17307931,0.06200286,-0.12445856,-0.3358397,0.03934248,0.082581215,-0.34426627,-0.030533466,-0.03845426,0.102525175,-0.108218685,0.12186152,-0.15378498,0.057341542,-0.048921384,-0.112817265,0.13921177,0.064849205,-0.08187513,-0.100124545,-2.0,2.0,-2.0,2.0,-0.5049862,2.0,-2.0,-2.0,2.0,2.0,-2.0,-2.0,-2.0,2.0,-2.0,2.0,-1.1204525,2.0,-2.0,-2.0,2.0,0.75795954,-2.0,-2.0
2025-06-05 11:56:31.368,-0.28632998,-0.2978939,-0.111392975,0.08929675,-0.021651413,-0.0025628563,0.0,0.0,0.0,0.0031079245,-0.072417706,0.2766712,0.0007171274,0.011968012,0.114149265,0.09337268,-0.117275596,-0.3562151,0.06681888,0.093500115,-0.38194612,-0.056365598,-0.081459425,0.040468328,-0.108956985,0.08713048,-0.1937765,0.0035060928,0.00045280528,-0.09047763,0.14511955,-0.010489865,-0.05284312,0.049567457,-2.0,2.0,-2.0,2.0,-1.1204525,2.0,-2.0,-2.0,2.0,0.75795954,-2.0,-2.0,-2.0,2.0,-2.0,2.0,-0.59101576,2.0,-2.0,-1.9476697,2.0,-2.0,-2.0,-2.0
2025-06-05 11:56:31.388,0.03364143,-0.03608442,-0.029051334,0.015719363,0.05332098,-0.026097614,0.0,0.0,0.0,0.004545892,-0.09892243,0.2907283,-0.014076304,0.020679517,0.06340118,0.12484768,-0.120961696,-0.37363374,0.102708496,0.09798024,-0.40558133,-0.046776313,-0.11617648,0.083872,-0.049692273,0.012913744,-0.10882822,0.024385406,-0.033794492,-0.035270534,0.07072077,0.029809691,-0.10556748,0.045463208,-2.0,2.0,-2.0,2.0,-0.59101576,2.0,-2.0,-1.9476697,2.0,-2.0,-2.0,-2.0,-2.0,1.9344838,-2.0,2.0,0.5734425,2.0,-2.0,-1.4352523,2.0,-2.0,-2.0,-2.0
2025-06-05 11:56:31.408,0.13796243,0.040309075,0.012748542,0.0046921163,-0.018614465,-0.036105197,0.0,0.0,0.0,0.0051913867,-0.106360495,0.29581574,-0.01709012,0.02676822,0.068164155,0.13943301,-0.103155315,-0.37016758,0.1377678,0.071539775,-0.4178316,-0.035689075,-0.08866176,0.11429442,-0.07711973,0.08044869,0.08397584,0.0952679,0.08051698,0.01135677,0.010330967,-0.08527696,0.029624745,-0.013507048,-2.0,1.9344838,-2.0,2.0,0.5734425,2.0,-2.0,-1.4352523,2.0,-2.0,-2.0,-2.0,-2.0,1.6589917,-2.0,2.0,0.56526345,2.0,-2.0,-1.4008714,2.0,-2.0,-1.7757865,-2.0
2025-06-05 11:56:31.431,0.1351511,-0.06662518,0.011493318,0.05662474,-0.03645769,0.04121701,0.0,0.0,0.0,0.004687834,-0.13187023,0.3161594,-0.011343265,0.04590026,0.08421852,0.17122287,-0.10495864,-0.36325243,0.15466797,0.055042405,-0.41716415,-5.7605364e-05,0.0354848,0.025385592,0.04944303,0.062323593,0.014546098,0.025251828,-0.060249534,0.08329752,-0.0063930694,-0.013278381,0.071338765,-0.016601972,-2.0,1.6589917,-2.0,2.0,0.56526345,2.0,-2.0,-1.4008714,2.0,-2.0,-1.7757865,-2.0,-2.0,1.8207712,-2.0,2.0,0.42184436,2.0,-2.0,-1.151486,2.0,-2.0,-1.4619571,-2.0
2025-06-05 11:56:31.449,0.13254634,-0.058644693,0.0753934,0.0070364466,0.024049345,0.0031474435,0.0,0.0,0.0,0.0038889644,-0.14107116,0.33877558,-0.018220618,0.045392208,0.08449526,0.17929527,-0.095912755,-0.34209973,0.1794972,0.039044492,-0.41121542,0.0058896705,-0.034463983,0.10690924,-0.017323628,0.05817771,-0.016227558,0.056912284,0.008814027,0.019753013,-0.009906475,0.024219628,0.095782846,0.0068326243,-2.0,1.8207712,-2.0,2.0,0.42184436,2.0,-2.0,-1.151486,2.0,-2.0,-1.4619571,-2.0,-2.0,1.0451308,-2.0,2.0,0.5944718,2.0,-2.0,-0.93896395,2.0,-2.0,-0.6099328,-2.0
2025-06-05 11:56:31.469,0.17000343,-0.14189805,-0.045328606,-0.0054337773,0.010953898,0.028504604,0.0,0.0,0.0,0.0032146217,-0.14669973,0.36602634,-0.0040551736,0.04603446,0.10007293,0.19094759,-0.09558815,-0.3318498,0.19044921,0.018759858,-0.37994117,0.0033622885,-0.089672774,0.053970326,-0.06569586,0.01567144,0.087869056,0.088676,-0.06331585,-0.014476786,-0.025932191,0.015367751,0.12251376,-0.012492273,-2.0,1.0451308,-2.0,2.0,0.5944718,2.0,-2.0,-0.93896395,2.0,-2.0,-0.6099328,-2.0,-2.0,1.9724442,-2.0,2.0,0.3063221,2.0,-2.0,-0.96942335,2.0,-2.0,-1.3491771,-2.0
2025-06-05 11:56:31.488,0.06535782,-0.1668272,-0.026961287,-0.021469606,0.024694467,-0.03345651,0.0,0.0,0.0,0.0038435312,-0.15883994,0.37874666,-0.01685138,0.056379285,0.10026559,0.207213,-0.10318773,-0.30737793,0.20566171,0.019470675,-0.37335497,-0.015697854,0.030961284,-0.014600945,0.014250888,0.018962508,-0.05258762,0.07592865,-0.010584328,-0.014460384,0.018022358,0.008869304,0.10617625,-0.085729204,-2.0,1.9724442,-2.0,2.0,0.3063221,2.0,-2.0,-0.96942335,2.0,-2.0,-1.3491771,-2.0,-2.0,2.0,-2.0,2.0,0.238077,2.0,-2.0,-1.4157721,2.0,-2.0,-1.6358036,-2.0
2025-06-05 11:56:31.508,0.059917994,-0.11855891,0.049851734,-0.021318259,-0.04087472,-0.030291671,0.0,0.0,0.0,0.004093046,-0.17218818,0.38096285,-0.029014427,0.0728019,0.08254888,0.21882854,-0.08660706,-0.29952818,0.20303318,0.0083901305,-0.36027646,-0.0051478758,0.066064574,-0.004781346,0.022177268,0.038887855,-0.02205305,0.05486801,0.022464022,0.06492515,-0.023275876,-0.08233791,0.011384615,0.043930024,-2.0,2.0,-2.0,2.0,0.238077,2.0,-2.0,-1.4157721,2.0,-2.0,-1.6358036,-2.0,-2.0,1.7897058,-2.0,2.0,0.39628184,2.0,-2.0,-1.1820781,2.0,-2.0,-1.0656295,-2.0
2025-06-05 11:56:31.532,0.14832568,-0.078853875,-0.0016215068,-0.062177937,0.013909253,-0.04979478,0.0,0.0,0.0,0.0032417222,-0.16806737,0.387966,-0.048901778,0.06337607,0.095583536,0.23033781,-0.09306042,-0.30404094,0.22136809,-0.01119638,-0.34686202,-0.020545028,-0.0384115,-0.03243348,0.049163155,0.044207416,0.037782673,0.09158492,-0.015309793,0.053250767,0.08206723,0.027809925,-0.006914265,0.033595942,-2.0,1.7897058,-2.0,2.0,0.39628184,2.0,-2.0,-1.1820781,2.0,-2.0,-1.0656295,-2.0,-2.0,1.9895751,-2.0,2.0,0.3319959,2.0,-2.0,-1.0219395,2.0,-2.0,-1.3031507,-2.0
2025-06-05 11:56:31.548,0.09746903,-0.14649093,0.02303313,-0.03915327,0.029996453,0.016745022,0.0,0.0,0.0,0.0023269688,-0.17379199,0.40134084,-0.042071648,0.073236264,0.092069335,0.23965381,-0.09815395,-0.29710278,0.22151029,-0.019371433,-0.34500727,-0.014045128,0.0024047846,0.01288625,-0.006884363,0.030890977,0.033203643,-0.033767387,0.061914243,-0.017848112,-0.02134612,0.038622677,0.03370005,-0.018196229,-2.0,1.9895751,-2.0,2.0,0.3319959,2.0,-2.0,-1.0219395,2.0,-2.0,-1.3031507,-2.0,-2.0,1.9350061,-2.0,2.0,0.26582044,1.8608817,-2.0,-0.9925371,2.0,-2.0,-0.8355818,-2.0
2025-06-05 11:56:31.569,0.093222424,-0.20235208,0.020920835,-0.05821724,0.000977284,0.027884703,0.0,0.0,0.0,0.0012466265,-0.16579233,0.4166968,-0.04703416,0.08060591,0.08252021,0.23406412,-0.08166117,-0.28654447,0.22618194,-0.0328524,-0.32566178,-0.020581046,0.040836237,0.07553263,-0.06527821,-0.020205617,-0.025567824,0.06632066,-0.016610937,0.06635157,-0.040021215,-0.035102412,-0.0235686,0.00025812586,-2.0,1.9350061,-2.0,2.0,0.26582044,1.8608817,-2.0,-0.9925371,2.0,-2.0,-0.8355818,-2.0,-2.0,1.8951095,-2.0,2.0,0.35790497,2.0,-2.0,-1.086388,2.0,-2.0,-1.0402337,-2.0
2025-06-05 11:56:31.590,0.08052311,-0.19315112,0.065803595,-0.07392773,0.053006303,0.004586932,0.0,0.0,0.0,0.0003804997,-0.16071369,0.43569955,-0.060411274,0.075381175,0.09401014,0.24178244,-0.09411476,-0.27542117,0.23094837,-0.03798024,-0.3084738,-0.025237095,-5.7619636e-05,-0.0016745199,-0.022245577,0.06093925,0.0064095743,0.01662648,0.010605082,-0.055427063,0.014159275,0.05591832,0.08611756,-0.0481211,-2.0,1.8951095,-2.0,2.0,0.35790497,2.0,-2.0,-1.086388,2.0,-2.0,-1.0402337,-2.0,-2.0,1.5597434,-2.0,2.0,0.29039592,1.9884892,-2.0,-0.93894356,2.0,-2.0,-0.10609528,-2.0
2025-06-05 11:56:31.608,0.14209148,-0.24019672,-0.039131295,-0.13319454,0.019433053,-0.0062049176,0.0,0.0,0.0,-0.00031457943,-0.18084973,0.43072933,-0.04658657,0.07616056,0.0892346,0.24569264,-0.07746526,-0.25813675,0.235672,-0.036516424,-0.28696567,-0.040213436,-0.056723308,0.093322776,-0.058069795,0.063565634,-0.005823595,-0.04081197,-0.03199408,0.049644932,0.012449669,0.011583526,0.05735595,-0.051702734,-2.0,1.5597434,-2.0,2.0,0.29039592,1.9884892,-2.0,-0.93894356,2.0,-2.0,-0.10609528,-2.0,-2.0,2.0,-2.0,2.0,0.07109995,1.8095639,-2.0,-1.0908433,2.0,-2.0,-1.2187074,-2.0
2025-06-05 11:56:31.632,0.023397215,-0.19809721,0.0821468,-0.107348524,0.041631345,-0.021686066,0.0,0.0,0.0,-7.073327e-05,-0.18197714,0.43699434,-0.060516603,0.09292596,0.08344317,0.25770628,-0.09353575,-0.26940924,0.23619436,-0.034526255,-0.27596655,-0.05633168,0.056835964,-0.062985055,0.01048397,0.022662112,0.0013449102,-0.036228985,0.028143033,-0.04346239,0.0034726947,0.059863586,-0.004237168,0.01639485,-2.0,2.0,-2.0,2.0,0.07109995,1.8095639,-2.0,-1.0908433,2.0,-2.0,-1.2187074,-2.0,-2.0,1.5559615,-2.0,2.0,0.48843646,0.89143676,-2.0,-0.7796932,1.3131431,-2.0,-0.031033536,-2.0
2025-06-05 11:56:31.648,0.13718668,-0.07901317,0.035463452,-0.13683248,0.040560696,-0.046593647,0.0,0.0,0.0,-0.00033609534,-0.17633963,0.45413843,-0.06611079,0.07235682,0.07873299,0.2691618,-0.07792429,-0.2519904,0.2348121,-0.03966549,-0.2727185,-0.06609609,-0.054879025,-0.057712004,-0.039950296,0.039175466,0.053989958,0.07560513,-0.020703858,0.071085356,-0.045051344,-0.049500663,0.117736645,-0.108081184,-2.0,1.5559615,-2.0,2.0,0.48843646,0.89143676,-2.0,-0.7796932,1.3131431,-2.0,-0.031033536,-2.0,-2.0,1.6503004,-2.0,2.0,0.88998276,-2.0,-2.0,-0.572588,-2.0,-2.0,0.0749471,-2.0
2025-06-05 11:56:31.668,-0.034286518,0.111142434,0.025734928,-0.17060128,0.026058584,-0.0018321434,0.0,0.0,0.0,-0.00062404777,-0.18887359,0.46586078,-0.08393925,0.06198152,0.07676197,0.23561697,-0.08631619,-0.21896796,0.1528439,-0.045858413,-0.2577874,-0.09640541,0.035516907,0.05236239,0.024827268,0.017287875,0.069882855,-0.09665812,0.06707121,0.11245397,-0.14973879,-0.09677951,-0.006945982,-0.046434455,-2.0,1.6503004,-2.0,2.0,0.88998276,-2.0,-2.0,-0.572588,-2.0,-2.0,0.0749471,-2.0,-2.0,2.0,0.8096817,2.0,2.0,-2.0,-2.0,-0.54713833,-2.0,-2.0,-1.450097,1.9989638
2025-06-05 11:56:31.688,-0.07634287,0.27900892,0.026930382,-0.07572833,0.014639643,0.018114366,0.0,0.0,0.0,-0.001420659,-0.17827035,0.46435556,-0.058173366,0.06564175,0.09922687,0.19259354,-0.08658013,-0.20508921,0.076496266,-0.06302469,-0.27206403,-0.04710228,-0.0029177999,-0.052459367,0.14011024,0.048075017,0.07010308,-0.0879447,-0.034985803,0.038631503,-0.110316604,-0.06147635,-0.019413369,0.08486479,-2.0,2.0,0.8096817,2.0,2.0,-2.0,-2.0,-0.54713833,-2.0,-2.0,-1.450097,1.9989638,-2.0,1.2971228,2.0,-0.86314845,2.0,-2.0,-2.0,-0.60344344,-2.0,2.0,-1.1628509,2.0
2025-06-05 11:56:31.709,-0.03502152,0.41717386,0.0005765025,-0.079858966,-0.014093585,0.0056355973,0.0,0.0,0.0,-0.0024632772,-0.15430214,0.43308794,0.0014118719,0.057173762,0.13836356,0.14938374,-0.095196,-0.20255217,0.01648446,-0.05215013,-0.27226916,0.00917963,0.021462679,-0.083926916,0.09889326,-0.054177094,0.047396697,-0.07772329,-0.057513364,-0.027404064,-0.17416361,0.02451673,0.006398397,0.11009179,-2.0,1.2971228,2.0,-0.86314845,2.0,-2.0,-2.0,-0.60344344,-2.0,2.0,-1.1628509,2.0,-2.0,-0.24311799,2.0,-2.0,1.0893797,-2.0,-2.0,-0.5628564,-2.0,2.0,-0.5254001,2.0
2025-06-05 11:56:31.732,-0.10021398,0.5588006,-0.07295746,-0.06665824,-0.05251998,0.0102866525,0.0,0.0,0.0,-0.002413197,-0.14219595,0.3783868,0.052395318,0.02517499,0.17596988,0.090487346,-0.09995882,-0.18908063,-0.015335917,-0.008413504,-0.2523189,0.046783876,0.095620565,-0.1669975,0.058911823,-0.13260637,0.11049992,-0.15235965,0.06519031,0.0076468405,-0.11784849,0.10928537,0.012153343,0.09038566,-2.0,-0.24311799,2.0,-2.0,1.0893797,-2.0,-2.0,-0.5628564,-2.0,2.0,-0.5254001,2.0,-2.0,-0.29792947,2.0,-2.0,1.2442802,-2.0,-2.0,-0.03514674,-2.0,2.0,-0.22014494,2.0
2025-06-05 11:56:31.750,-0.072545946,0.5691577,0.04213313,0.015447809,-0.0064440635,-0.0075186635,0.0,0.0,0.0,-0.0018790654,-0.14198522,0.29757774,0.086977854,-0.008553569,0.17433578,0.033233717,-0.10521852,-0.1656663,-0.07035361,-0.0050860154,-0.21296878,0.096800484,0.010209985,-0.17553346,0.06833426,-0.08114237,-0.04577108,-0.12556954,0.035861224,0.08537775,-0.038849063,0.031094054,0.00802085,0.12158425,-2.0,-0.29792947,2.0,-2.0,1.2442802,-2.0,-2.0,-0.03514674,-2.0,2.0,-0.22014494,2.0,-2.0,0.11041558,2.0,-2.0,1.7471077,-2.0,-2.0,-1.1920016,-2.0,2.0,-0.49502698,2.0
2025-06-05 11:56:31.769,-0.06611476,0.28550315,0.047246728,0.057847515,-0.024543764,0.036775347,0.0,0.0,0.0,-0.001924804,-0.12987424,0.23663121,0.11283213,-0.01749985,0.19915825,0.010993514,-0.11805942,-0.17299938,-0.06858929,0.013593942,-0.20361513,0.11164949,0.012568016,-0.14233847,0.09053699,0.0354679,0.06000332,-0.01368863,-0.024356391,0.005396872,-0.004716355,-0.016841985,0.020828897,0.10201981,-2.0,0.11041558,2.0,-2.0,1.7471077,-2.0,-2.0,-1.1920016,-2.0,2.0,-0.49502698,2.0,-2.0,0.46949887,2.0,-2.0,1.8063378,-2.0,-2.0,-1.7415639,-2.0,2.0,-0.8649272,2.0
2025-06-05 11:56:31.789,0.008072342,0.096802846,-0.04391558,0.014915624,-0.02230405,-0.040610317,0.0,0.0,0.0,-0.0019863034,-0.122988574,0.22462523,0.14336026,-0.026200853,0.20522797,-0.011346259,-0.11942603,-0.215182,-0.037551828,0.038711693,-0.19830798,0.14593366,0.0011240491,-0.09635396,0.07392929,-0.012624571,0.037238497,-0.04617895,-0.07058069,0.002694326,0.015857156,0.06834391,-0.058435455,0.027322903,-2.0,0.46949887,2.0,-2.0,1.8063378,-2.0,-2.0,-1.7415639,-2.0,2.0,-0.8649272,2.0,-2.0,0.6388938,2.0,-2.0,1.2371216,-2.0,-2.0,-0.88827693,-2.0,2.0,-0.6534121,2.0
2025-06-05 11:56:31.809,0.12373239,0.06376891,0.091303445,0.028549794,-0.04000309,9.2205446e-05,0.0,0.0,0.0,-0.0017342166,-0.1167427,0.20955974,0.15543336,-0.014716167,0.22898331,-0.022411743,-0.12424961,-0.2099254,-0.009650891,0.038342755,-0.18277499,0.16344488,0.048652995,-0.07781897,0.09525967,0.018071664,0.10356173,0.041091014,0.048040044,0.019214995,0.079835705,0.06255456,0.00020675026,-0.014020995,-2.0,0.6388938,2.0,-2.0,1.2371216,-2.0,-2.0,-0.88827693,-2.0,2.0,-0.6534121,2.0,-2.0,0.53489566,2.0,-2.0,2.0,-2.0,-2.0,-2.0,-2.0,2.0,-0.7566793,2.0
2025-06-05 11:56:31.831,0.053816967,0.19648464,-0.05793756,0.007526656,-0.04686167,-0.011440767,0.0,0.0,0.0,-0.0021924058,-0.104415655,0.19352783,0.1770883,-0.022585275,0.24669087,-0.029442806,-0.12695418,-0.21536365,0.02053487,0.056300994,-0.17089719,0.18855324,0.05769034,-0.08402749,0.08061788,0.0053083445,0.101228975,-0.049963374,0.042962976,-0.016334955,-0.012175454,0.056668516,-0.032431286,0.11282712,-2.0,0.53489566,2.0,-2.0,2.0,-2.0,-2.0,-2.0,-2.0,2.0,-0.7566793,2.0,-2.0,0.67597944,2.0,-2.0,1.4777491,-2.0,-2.0,-0.9404405,-2.0,2.0,-0.9549086,2.0
2025-06-05 11:56:31.849,0.067228325,0.07064645,-0.060604654,0.029197479,-0.08393797,-0.04731731,0.0,0.0,0.0,-0.0017284125,-0.105927445,0.18476346,0.19520546,-0.021676501,0.25691444,-0.026971607,-0.1369695,-0.21613003,0.019782228,0.060422815,-0.18172988,0.18663564,0.060289487,0.026792374,0.024864359,0.060634743,0.11356943,-0.020628177,-0.07641007,-0.046439767,0.025029333,0.02514576,0.04883017,0.052313674,-2.0,0.67597944,2.0,-2.0,1.4777491,-2.0,-2.0,-0.9404405,-2.0,2.0,-0.9549086,2.0,-2.0,0.6260373,1.8613627,-2.0,0.9761021,-2.0,-2.0,-0.726494,-2.0,2.0,-0.37713596,2.0
2025-06-05 11:56:31.869,0.030773839,0.09522051,0.048711967,0.014369857,-0.11311707,-0.039639354,0.0,0.0,0.0,-0.0011382211,-0.092079096,0.17640938,0.20290418,-0.028009543,0.27321327,-0.042941622,-0.14911039,-0.22034144,0.0058939834,0.06821978,-0.17258558,0.20357887,-0.05217054,0.056498658,0.025109116,-0.016121235,0.011401031,0.0532822,0.034496225,-0.010844424,0.046101198,0.048234574,0.004695251,0.09648862,-2.0,0.6260373,1.8613627,-2.0,0.9761021,-2.0,-2.0,-0.726494,-2.0,2.0,-0.37713596,2.0,-2.0,0.7472501,1.7086747,-2.0,1.8784406,-2.0,-2.0,-1.7571937,-2.0,2.0,-0.6930437,2.0
2025-06-05 11:56:31.889,-0.025126318,0.08027232,-0.04294986,0.050348062,-0.1106715,-0.029953511,0.0,0.0,0.0,-0.0012465826,-0.09200298,0.1811242,0.19403264,-0.0366417,0.27845782,-0.046957776,-0.1540088,-0.22329243,0.012268465,0.067503646,-0.16872972,0.22108448,0.06982377,0.02877571,-0.052222203,0.042172983,0.049923,-0.07177975,-0.041520018,-0.059306223,-0.062134016,-0.034484077,-0.055406995,0.038869236,-2.0,0.7472501,1.7086747,-2.0,1.8784406,-2.0,-2.0,-1.7571937,-2.0,2.0,-0.6930437,2.0,-2.0,1.0531192,-0.87393206,-2.0,1.2484756,-2.0,-2.0,-1.0146654,-2.0,2.0,-0.79192936,0.25643516
2025-06-05 11:56:31.909,-0.021377549,0.020273972,-0.041466262,0.029297525,-0.11530853,0.023670703,0.0,0.0,0.0,-0.000652748,-0.09591869,0.20385455,0.16333324,-0.032837417,0.28862932,-0.064714044,-0.15094818,-0.21618547,0.005755237,0.067875475,-0.17643556,0.1889517,-0.052140664,0.032340642,-0.08228437,-0.039933905,0.027197383,-0.02204648,0.00857972,-0.010818514,-0.007293713,-0.057746496,-0.0057521667,-0.08447775,-2.0,1.0531192,-0.87393206,-2.0,1.2484756,-2.0,-2.0,-1.0146654,-2.0,2.0,-0.79192936,0.25643516,-2.0,1.5843577,-2.0,-2.0,0.77012676,0.4721686,-2.0,-1.0802226,-2.0,2.0,-1.652521,-2.0
2025-06-05 11:56:31.932,0.0036112482,-0.1566563,-0.016141523,-0.003051099,-0.11965705,-0.021971619,0.0,0.0,0.0,2.5999014e-05,-0.095450714,0.21295337,0.08433618,-0.047193725,0.28608376,-0.036325637,-0.14088574,-0.2310044,-0.0045039034,0.06650893,-0.19926699,0.114425816,0.06720746,0.07231087,-0.050554927,0.03964175,-0.081096545,0.11523663,-0.0087627275,0.07289965,-0.03748226,0.0035097194,-0.08752637,-0.13196214,-2.0,1.5843577,-2.0,-2.0,0.77012676,0.4721686,-2.0,-1.0802226,-2.0,2.0,-1.652521,-2.0,-2.0,2.0,-2.0,2.0,0.39951313,2.0,-2.0,-2.0,-2.0,2.0,-2.0,-2.0
2025-06-05 11:56:31.950,-0.2390506,-0.27600688,-0.06849819,0.023006234,-0.10899038,-0.00035127555,0.0,0.0,0.0,0.0002953651,-0.09341751,0.24013484,0.065288596,-0.025340248,0.24515662,-0.000758176,-0.13783611,-0.24675767,-0.011216414,0.07548648,-0.24310887,0.048064277,0.058803193,0.016817003,-0.11351386,0.051017262,-0.06481182,0.1392386,0.04282539,0.020653678,0.004243186,0.06284468,-0.10459762,-0.08503516,-2.0,2.0,-2.0,2.0,0.39951313,2.0,-2.0,-2.0,-2.0,2.0,-2.0,-2.0,-2.0,2.0,-2.0,2.0,-0.49959087,2.0,-2.0,-2.0,1.628514,2.0,-2.0,-2.0
2025-06-05 11:56:31.970,-0.38727593,-0.31549916,-0.10409489,0.0040114284,-0.047165092,-0.020585848,0.0,0.0,0.0,0.00082237646,-0.08055729,0.24816696,0.038372092,-0.0075147026,0.20462231,0.042967886,-0.1123209,-0.27579606,0.02718423,0.07899345,-0.2800516,0.005052336,-0.004712501,0.054921143,-0.042630356,-0.0007653365,-0.19029588,0.13941759,0.06475533,-0.1140493,0.048967082,0.00963724,-0.169297,-0.1219242,-2.0,2.0,-2.0,2.0,-0.49959087,2.0,-2.0,-2.0,1.628514,2.0,-2.0,-2.0,-2.0,2.0,-2.0,2.0,-1.2059927,2.0,-2.0,-2.0,2.0,0.9213974,-2.0,-2.0
2025-06-05 11:56:31.989,-0.5011589,-0.34438637,-0.020710202,0.03214556,-0.044142928,0.028023368,0.0,0.0,0.0,0.0014945144,-0.07734802,0.25891304,0.023899864,0.013915989,0.11976159,0.08556718,-0.12565495,-0.31415352,0.058929626,0.07487796,-0.3269729,-0.053372346,0.012852024,0.09129119,0.0019156344,0.019720467,-0.18306859,0.11994471,0.07574239,-0.029172316,0.03229392,0.037190054,-0.14310873,-0.08413675,-2.0,2.0,-2.0,2.0,-1.2059927,2.0,-2.0,-2.0,2.0,0.9213974,-2.0,-2.0,-2.0,2.0,-2.0,2.0,-0.5326949,2.0,-2.0,-2.0,2.0,-1.6754233,-2.0,-2.0
2025-06-05 11:56:32.010,-0.22823864,-0.10688581,-0.025944995,-0.01583496,0.015441863,-0.042183127,0.0,0.0,0.0,0.0023549397,-0.08401063,0.27521494,-0.012124065,0.028507246,0.06608935,0.12457864,-0.12321699,-0.33674723,0.10490277,0.07966286,-0.34758958,-0.06302793,-0.06450024,0.076594286,-0.07481598,0.030082494,-0.10651272,0.09680279,-0.045398463,-0.09864975,0.0049976353,-0.025209196,-0.071887225,0.0880631,-2.0,2.0,-2.0,2.0,-0.5326949,2.0,-2.0,-2.0,2.0,-1.6754233,-2.0,-2.0,-2.0,1.8855307,-2.0,2.0,0.47662497,2.0,-2.0,-1.7031335,2.0,-2.0,-2.0,-2.0
2025-06-05 11:56:32.031,0.120537065,0.013459047,-0.0054624733,-0.017136285,0.015806634,-0.04519367,0.0,0.0,0.0,0.0033885718,-0.090319484,0.30228612,-0.017155336,0.040308077,0.071843185,0.1428323,-0.101177715,-0.35075048,0.12413638,0.06088313,-0.3768051,-0.039802704,-0.06414468,0.003992909,-0.0055752383,0.0007864912,0.0093074525,0.00082957774,0.08126275,0.030925432,0.06544496,-0.041336823,-0.09604814,0.08701552,-2.0,1.8855307,-2.0,2.0,0.47662497,2.0,-2.0,-1.7031335,2.0,-2.0,-2.0,-2.0,-2.0,2.0,-2.0,2.0,0.37167078,2.0,-2.0,-1.2816292,2.0,-2.0,-1.9418324,-2.0
2025-06-05 11:56:32.050,0.1070715,-0.06932574,0.058801614,0.03797644,0.014183499,-0.026275458,0.0,0.0,0.0,0.0038191613,-0.11748799,0.31533873,-0.018631293,0.040460017,0.08505438,0.1555158,-0.097691365,-0.3356372,0.15825903,0.045155674,-0.39419597,-0.014710216,-0.062581465,0.044033945,-0.06071327,0.035574146,0.07777784,0.062296208,0.06588105,0.026725184,0.097466305,-0.08561498,0.027444193,0.12273608,-2.0,2.0,-2.0,2.0,0.37167078,2.0,-2.0,-1.2816292,2.0,-2.0,-1.9418324,-2.0,-2.0,1.4316149,-2.0,2.0,0.49269575,2.0,-2.0,-1.1567242,2.0,-2.0,-1.1210651,-2.0
2025-06-05 11:56:32.070,0.1576912,-0.1552397,-0.052825417,0.0069879238,0.0065881517,-0.03655996,0.0,0.0,0.0,0.0033492811,-0.13787764,0.33226588,-0.026304549,0.042041507,0.08385382,0.18570147,-0.094477184,-0.32530776,0.17651014,0.022082482,-0.38341853,-0.006273476,-0.014045436,0.11569107,-0.0474495,-0.03082717,0.044454195,-0.021255787,-0.023098765,0.049728777,-0.020175777,0.009140937,-0.014625112,0.04087887,-2.0,1.4316149,-2.0,2.0,0.49269575,2.0,-2.0,-1.1567242,2.0,-2.0,-1.1210651,-2.0,-2.0,2.0,-2.0,2.0,0.46032137,2.0,-2.0,-1.0939862,2.0,-2.0,-2.0,-2.0
2025-06-05 11:56:32.090,0.030660208,-0.17090765,0.063668475,-0.046016783,0.009570656,0.019476105,0.0,0.0,0.0,0.003390285,-0.14432457,0.3508205,-0.028934471,0.061389964,0.09727625,0.19527751,-0.103092164,-0.31960738,0.19089065,0.0221587,-0.37173635,0.0030663307,-0.003964685,-0.02837373,-0.07776886,0.025626216,0.054148324,0.06923923,0.0017417863,0.04268756,0.08120188,-0.052222643,0.008444654,0.014648359,-2.0,2.0,-2.0,2.0,0.46032137,2.0,-2.0,-1.0939862,2.0,-2.0,-2.0,-2.0,-2.0,1.8199776,-2.0,2.0,0.25593686,2.0,-2.0,-1.3421682,2.0,-2.0,-0.7673794,-2.0
2025-06-05 11:56:32.110,0.14330694,-0.15267242,-0.008547234,-0.07479236,0.0035626485,-0.04912916,0.0,0.0,0.0,0.0028770631,-0.14351325,0.363358,-0.025284432,0.05961005,0.08567625,0.20603722,-0.08780607,-0.31935108,0.1982297,0.0014943407,-0.367588,0.013467393,0.051072158,0.021706969,-0.074391596,-0.050191626,0.048887435,0.0666384,-0.019987417,0.043436598,-0.011085429,-0.052363064,0.08513988,-0.073413156,-2.0,1.8199776,-2.0,2.0,0.25593686,2.0,-2.0,-1.3421682,2.0,-2.0,-0.7673794,-2.0,-2.0,1.7545309,-2.0,2.0,0.35945106,2.0,-2.0,-1.1957341,2.0,-2.0,-1.2619984,-2.0
2025-06-05 11:56:32.131,0.037500653,-0.18425074,0.028587373,-0.060564764,-0.020503597,-0.03825368,0.0,0.0,0.0,0.0026530947,-0.1504974,0.38207343,-0.034318797,0.07549046,0.09340359,0.2032657,-0.100726336,-0.3081509,0.2030705,-0.0033042666,-0.3439328,0.0010650541,0.033441357,0.08613358,-0.028299648,0.048598938,0.0044042226,0.07446825,0.026228195,0.08275151,0.02305896,0.036629744,0.09860937,0.048697475,-2.0,1.7545309,-2.0,2.0,0.35945106,2.0,-2.0,-1.1957341,2.0,-2.0,-1.2619984,-2.0,-2.0,1.8508867,-2.0,2.0,0.39320457,2.0,-2.0,-1.1959732,2.0,-2.0,-1.171599,-2.0
2025-06-05 11:56:32.150,0.09599421,-0.13157721,0.037104934,-0.034553688,-0.0048063463,-0.009217009,0.0,0.0,0.0,0.0023907842,-0.1660804,0.4031335,-0.037853803,0.06921851,0.091462746,0.23019333,-0.09052212,-0.29548842,0.22495653,-0.016305925,-0.33085197,-0.014533753,-0.010782619,0.06124725,-0.044329923,0.012339993,0.0005009893,-0.044777136,0.0074604508,0.048147645,0.07258434,-0.045306552,-0.047050167,-0.06804105,-2.0,1.8508867,-2.0,2.0,0.39320457,2.0,-2.0,-1.1959732,2.0,-2.0,-1.171599,-2.0,-2.0,1.888767,-2.0,2.0,0.17352362,2.0,-2.0,-1.075731,2.0,-2.0,-0.7205584,-2.0
2025-06-05 11:56:32.170,0.090149164,-0.194277,0.043248795,-0.119302854,0.07728806,-0.004102216,0.0,0.0,0.0,0.0018797449,-0.16328348,0.41648966,-0.04744532,0.07920637,0.09106141,0.2333995,-0.09156465,-0.28229386,0.21595153,-0.015519579,-0.32296053,-0.02072744,0.032394294,0.059671607,0.014240747,-0.016122254,-0.05546551,0.052932736,-0.0016297562,0.06106924,0.015939025,-0.08033879,0.11093267,-0.041629236,-2.0,1.888767,-2.0,2.0,0.17352362,2.0,-2.0,-1.075731,2.0,-2.0,-0.7205584,-2.0,-2.0,1.5663029,-2.0,2.0,0.28145558,2.0,-2.0,-1.0136669,2.0,-2.0,-0.5737588,-2.0
2025-06-05 11:56:32.190,0.053383827,-0.17983477,0.033952754,-0.12720363,0.030141516,-0.027278747,0.0,0.0,0.0,0.0014721929,-0.17264335,0.42136294,-0.047165778,0.06784651,0.084688835,0.2365673,-0.0920675,-0.28403956,0.2253803,-0.036289774,-0.29886734,-0.025096936,0.0030390813,-0.012494266,-0.0164947,-0.066704966,-0.036472768,0.04378968,0.057585098,-0.03068123,0.07908198,0.042584095,0.099126376,0.02213663,-2.0,1.5663029,-2.0,2.0,0.28145558,2.0,-2.0,-1.0136669,2.0,-2.0,-0.5737588,-2.0,-2.0,1.6432099,-2.0,2.0,0.2501341,1.9488214,-2.0,-0.8371512,2.0,-2.0,-0.24755122,-2.0
2025-06-05 11:56:32.213,0.14337544,-0.16307741,0.047990885,-0.13994619,0.05457712,0.041903947,0.0,0.0,0.0,0.0014179329,-0.17765951,0.42982936,-0.063725315,0.0670113,0.07946242,0.25279754,-0.09001504,-0.26846144,0.24150464,-0.024902394,-0.26565045,-0.035558894,0.061728034,0.0043833614,-0.07330367,0.049904823,0.015206923,0.03419719,-0.073020205,-0.021119667,0.04807149,-0.0005628791,0.11272803,-0.08448796,-2.0,1.6432099,-2.0,2.0,0.2501341,1.9488214,-2.0,-0.8371512,2.0,-2.0,-0.24755122,-2.0,-2.0,1.2776351,-2.0,2.0,0.31858957,2.0,-2.0,-0.81711984,2.0,-2.0,0.29710707,-2.0
2025-06-05 11:56:32.231,0.16526638,-0.20177858,-0.042379584,-0.083959766,0.010668262,-0.019868845,0.0,0.0,0.0,0.001406694,-0.18910845,0.44903907,-0.056060947,0.061066717,0.07623034,0.28197703,-0.09297793,-0.25354618,0.23907132,-0.028552566,-0.2492573,-0.055487312,-0.053121567,0.064122275,-0.013708379,-0.07608081,-0.0655089,0.045914765,0.026128165,-0.021281231,-0.05271404,-0.058823414,0.0873992,0.015168021,-2.0,1.2776351,-2.0,2.0,0.31858957,2.0,-2.0,-0.81711984,2.0,-2.0,0.29710707,-2.0,-2.0,1.8897772,-2.0,2.0,0.071821466,0.6987836,-2.0,-0.8033518,1.5520593,-2.0,-0.8117476,-2.0
2025-06-05 11:56:32.251,-0.05542343,-0.061690744,0.079998925,-0.18747458,0.07159702,-0.04260975,0.0,0.0,0.0,0.0018749161,-0.18170197,0.44129372,-0.06503818,0.07465181,0.079464994,0.27311674,-0.0879532,-0.2442071,0.2368194,-0.032728,-0.23233,-0.08117927,0.03251134,-0.06041465,-0.015243131,-0.07496075,0.015250254,0.030033013,-0.07201033,0.0147862695,0.014624429,-0.07656074,-0.03888344,-0.0317272,-2.0,1.8897772,-2.0,2.0,0.071821466,0.6987836,-2.0,-0.8033518,1.5520593,-2.0,-0.8117476,-2.0,-2.0,1.6544392,-2.0,2.0,1.172092,-1.8730389,-2.0,-0.6963537,-2.0,-2.0,0.109970935,-2.0
2025-06-05 11:56:32.272,0.019313559,0.10932272,0.028975839,-0.14216344,0.024889674,0.04841313,0.0,0.0,0.0,0.0011411537,-0.17196253,0.4418156,-0.0824915,0.071414955,0.08354129,0.24962048,-0.08433253,-0.22283082,0.16586447,-0.045542978,-0.2248019,-0.110150896,0.02257041,0.012097461,-0.016591571,-0.003442604,-0.009247687,-0.16837664,0.055124037,0.102502435,-0.1537659,-0.032011308,0.100118205,-0.025760584,-2.0,1.6544392,-2.0,2.0,1.172092,-1.8730389,-2.0,-0.6963537,-2.0,-2.0,0.109970935,-2.0,-2.0,2.0,0.588116,2.0,2.0,-2.0,-2.0,-0.37144935,-2.0,-2.0,-1.296429,1.7010317
2025-06-05 11:56:32.292,-0.017478539,0.26437297,0.06776629,-0.15796147,0.026278747,0.04095565,0.0,0.0,0.0,-5.2058473e-05,-0.15759192,0.45759675,-0.06693803,0.052081138,0.10089172,0.19585401,-0.10210791,-0.20876652,0.085614026,-0.05307461,-0.23292819,-0.062921315,-0.025075318,-0.041531634,0.13024285,0.021509327,0.030879825,-0.19404322,-0.005922327,0.12673883,-0.20031174,0.016376434,-0.016083354,0.124940984,-2.0,2.0,0.588116,2.0,2.0,-2.0,-2.0,-0.37144935,-2.0,-2.0,-1.296429,1.7010317,-2.0,1.4137366,2.0,-0.6720152,2.0,-2.0,-2.0,-0.5125321,-2.0,0.7474182,-1.2656366,2.0
2025-06-05 11:56:32.314,-0.05051403,0.4629002,0.031301912,-0.062030967,0.03388589,-0.028352007,0.0,0.0,0.0,-0.0013137634,-0.16614208,0.42883974,-0.005150667,0.05451369,0.14336406,0.15844133,-0.08901748,-0.20055269,0.030159522,-0.053389564,-0.25465444,0.006935215,0.039918914,-0.029538153,0.19586936,-0.066470325,0.09425374,-0.1376949,-0.0011865558,0.051955093,-0.20497213,-0.03828491,0.048943717,0.09372648,-2.0,1.4137366,2.0,-0.6720152,2.0,-2.0,-2.0,-0.5125321,-2.0,0.7474182,-1.2656366,2.0,-2.0,-0.11025518,2.0,-2.0,1.7961369,-2.0,-2.0,-0.53255457,-2.0,2.0,-0.85648125,2.0
2025-06-05 11:56:32.331,-0.025972001,0.5971323,-0.09444326,-0.07916106,0.015261949,-0.03945414,0.0,0.0,0.0,-0.0016284244,-0.1504991,0.36695543,0.028318118,0.015650833,0.16543558,0.08933168,-0.10123908,-0.17441091,-0.022107083,-0.031816524,-0.24445641,0.03889152,0.08828877,-0.18631728,0.12243219,-0.114112504,0.11026712,-0.102746665,-0.05873486,0.041543756,-0.16466245,0.0023531066,0.038443938,0.17803985,-2.0,-0.11025518,2.0,-2.0,1.7961369,-2.0,-2.0,-0.53255457,-2.0,2.0,-0.85648125,2.0,-2.0,-0.4573967,2.0,-2.0,0.8164295,-2.0,-2.0,0.1636301,-2.0,2.0,-0.15167333,2.0
2025-06-05 11:56:32.351,-0.013469339,0.59842163,0.045930445,0.007857304,-0.086581126,-0.04433685,0.0,0.0,0.0,-0.00095874065,-0.13076672,0.30118045,0.073800124,-0.011840905,0.17868125,0.046753213,-0.102476664,-0.15456182,-0.07178649,0.00062085595,-0.21823995,0.07995053,-0.023476243,-0.17725924,0.06824345,-0.07135672,-0.030519178,-0.07121584,-0.015292816,0.15009487,-0.04352415,0.022787306,0.026104232,0.09242545,-2.0,-0.4573967,2.0,-2.0,0.8164295,-2.0,-2.0,0.1636301,-2.0,2.0,-0.15167333,2.0,-2.0,0.15241987,2.0,-2.0,1.7113194,-2.0,-2.0,-1.1641222,-2.0,2.0,-0.31141165,2.0
2025-06-05 11:56:32.371,-0.050889075,0.34592402,0.0042759986,-0.013297126,-0.05944582,-0.02898732,0.0,0.0,0.0,-0.0009948924,-0.12134659,0.24743547,0.10951251,-0.02884338,0.20552272,0.0032388433,-0.10929154,-0.15557674,-0.07221323,0.013254003,-0.1933834,0.11016325,-0.007520489,-0.090129696,0.048884302,-0.042865366,0.0107820025,-0.06554102,0.013372022,-0.13050377,0.01082327,-0.009318251,0.1328854,0.012898292,-2.0,0.15241987,2.0,-2.0,1.7113194,-2.0,-2.0,-1.1641222,-2.0,2.0,-0.31141165,2.0,-2.0,0.5343328,2.0,-2.0,1.559464,-2.0,-2.0,-1.3924836,-2.0,2.0,-0.48872533,2.0
2025-06-05 11:56:32.391,0.0916775,0.12423154,0.01585306,0.039561775,-0.10731287,-0.01887101,0.0,0.0,0.0,-0.0015135137,-0.109899834,0.22093342,0.1356351,-0.030614195,0.2069987,0.00091700593,-0.11384618,-0.19027755,-0.05372871,0.025972549,-0.16977338,0.12997906,-0.046868585,-0.056160863,0.044992577,0.036640417,-0.02642431,-0.0025560516,-0.033886295,-0.06253431,0.037243027,0.061670262,0.01782076,0.101962015,-2.0,0.5343328,2.0,-2.0,1.559464,-2.0,-2.0,-1.3924836,-2.0,2.0,-0.48872533,2.0,-2.0,0.75393134,2.0,-2.0,1.572942,-2.0,-2.0,-1.4650798,-2.0,2.0,-0.6537626,2.0
2025-06-05 11:56:32.415,0.121356905,0.0722744,0.06062748,0.024440512,-0.06698364,0.016686713,0.0,0.0,0.0,-0.0022261324,-0.118869595,0.2159388,0.15493022,-0.029833907,0.226649,-0.012774239,-0.13363498,-0.20576073,-0.009930813,0.03064247,-0.15558353,0.15137102,-0.027190575,0.017769437,-0.011142016,0.044454753,-0.007596793,-0.026753243,-0.00066362706,-0.010134722,0.03203248,0.05842508,-0.022716263,0.09077591,-2.0,0.75393134,2.0,-2.0,1.572942,-2.0,-2.0,-1.4650798,-2.0,2.0,-0.6537626,2.0,-2.0,0.7954592,2.0,-2.0,1.8944693,-2.0,-2.0,-1.9828464,-2.0,2.0,-0.86786866,2.0
2025-06-05 11:56:32.432,0.048794866,0.09349467,-0.08676345,0.07902332,-0.07958357,-0.006279732,0.0,0.0,0.0,-0.0028426186,-0.09641775,0.2120239,0.17492221,-0.029106563,0.23705015,-0.01965488,-0.14018422,-0.22056438,0.022521665,0.04720318,-0.15649718,0.18456617,0.06850238,-0.038858976,0.059685133,-0.020837337,0.032705083,0.013382217,0.03352349,-0.11015745,0.11037839,0.08486092,0.04574236,0.028155899,-2.0,0.7954592,2.0,-2.0,1.8944693,-2.0,-2.0,-1.9828464,-2.0,2.0,-0.86786866,2.0,-2.0,0.7550966,1.5523857,-2.0,1.2184379,-2.0,-2.0,-0.81231546,-2.0,2.0,-0.7211994,2.0
2025-06-05 11:56:32.452,0.1814739,0.033712078,0.07206447,0.038502943,-0.07175589,0.011025925,0.0,0.0,0.0,-0.0023862263,-0.10756788,0.21815494,0.17159985,-0.026960125,0.24912462,-0.037288494,-0.1333537,-0.218307,0.02645815,0.045114927,-0.16907325,0.19414662,-0.046756532,0.004224011,0.08053919,-0.04604798,-0.02794856,0.03564709,0.035931643,0.084623836,0.065715335,0.017685607,-0.069961675,0.06562315,-2.0,0.7550966,1.5523857,-2.0,1.2184379,-2.0,-2.0,-0.81231546,-2.0,2.0,-0.7211994,2.0,-2.0,0.62205845,2.0,-2.0,2.0,-2.0,-2.0,-1.8831962,-2.0,2.0,-0.9155434,2.0
2025-06-05 11:56:32.472,0.030613136,0.20597182,-0.06617454,0.043678347,-0.17422822,-0.016179657,0.0,0.0,0.0,-0.0021918025,-0.099548765,0.19910035,0.1854086,-0.042269893,0.28201196,-0.048825126,-0.1467933,-0.22692469,0.018680729,0.052053846,-0.16677846,0.2101974,0.033859786,0.031026322,0.010655871,0.0045886054,0.006606512,0.00603024,0.05679034,-0.087987825,-0.0043853885,0.08379262,0.036755677,0.04706508,-2.0,0.62205845,2.0,-2.0,2.0,-2.0,-2.0,-1.8831962,-2.0,2.0,-0.9155434,2.0,-2.0,0.84123677,1.1462027,-2.0,1.3522213,-2.0,-2.0,-1.0081561,-2.0,2.0,-0.8756034,2.0
2025-06-05 11:56:32.492,0.13453917,0.04311981,-0.018221816,0.08077392,-0.12064347,0.009141376,0.0,0.0,0.0,-0.001371637,-0.090704754,0.20817918,0.17600656,-0.036343787,0.28795698,-0.055176742,-0.14841355,-0.23384163,0.015365535,0.058926184,-0.18268412,0.20587137,0.07100639,-0.00914343,0.0041183387,-0.013454356,0.035429988,-0.034016386,0.016563023,0.011647046,-0.07571215,0.07474027,-0.031016793,0.09241207,-2.0,0.84123677,1.1462027,-2.0,1.3522213,-2.0,-2.0,-1.0081561,-2.0,2.0,-0.8756034,2.0,-2.0,0.62859625,0.63553506,-2.0,1.4523683,-2.0,-2.0,-0.9984141,-2.0,2.0,-0.96475846,1.5584517
2025-06-05 11:56:32.515,0.08336598,0.11566647,-0.027118998,0.008714985,-0.19252317,0.04576629,0.0,0.0,0.0,-0.00050591415,-0.10042681,0.20158285,0.16088587,-0.038945395,0.29241645,-0.0560272,-0.14390115,-0.21761349,0.009586579,0.073088795,-0.1928621,0.21590672,-0.0110849645,0.0014209552,0.0086288005,-0.03428249,0.034143087,-0.08720584,-0.040520787,0.03896529,0.0050942763,-0.044127192,-0.048564553,-0.07204234,-2.0,0.62859625,0.63553506,-2.0,1.4523683,-2.0,-2.0,-0.9984141,-2.0,2.0,-0.96475846,1.5584517,-2.0,0.8564596,-1.7972463,-2.0,1.4412292,-2.0,-2.0,-1.0869088,-2.0,2.0,-1.0491744,-2.0
2025-06-05 11:56:32.532,-0.14666595,0.0065930914,-0.06662957,-0.0029888942,-0.15653549,0.015674278,0.0,0.0,0.0,-2.2653812e-05,-0.095289506,0.19235063,0.1498397,-0.04611065,0.31164294,-0.0852119,-0.12487549,-0.21818854,0.003997914,0.06714601,-0.18918076,0.13550746,-0.008992738,-0.058559764,-0.06484062,-0.0661692,-0.026918948,-0.019970478,0.030230483,0.052936517,-0.05471424,0.0474093,0.036168996,-0.20506766,-2.0,0.8564596,-1.7972463,-2.0,1.4412292,-2.0,-2.0,-1.0869088,-2.0,2.0,-1.0491744,-2.0,-2.0,2.0,-2.0,-2.0,0.9360488,2.0,-2.0,-1.0885974,-2.0,2.0,-2.0,-2.0
2025-06-05 11:56:32.552,-0.18041126,-0.20629852,-0.0598481,0.048767462,-0.16224335,-0.0060832635,0.0,0.0,0.0,0.00080348074,-0.084011,0.21115144,0.11610988,-0.05107414,0.29037732,-0.027122924,-0.12055382,-0.22641002,0.002534573,0.08101005,-0.22615336,0.077677794,0.0117446305,0.0076188985,-0.039885197,-0.09094288,0.040042195,0.109880805,0.05588608,-0.017255465,0.026015675,-0.062324014,-0.1811371,-0.12765278,-2.0,2.0,-2.0,-2.0,0.9360488,2.0,-2.0,-1.0885974,-2.0,2.0,-2.0,-2.0,-2.0,2.0,-2.0,2.0,-0.5084404,2.0,-2.0,-2.0,0.18000564,2.0,-2.0,-2.0
2025-06-05 11:56:32.573,-0.34437,-0.17565472,-0.0313116,0.049105663,-0.1224853,-0.015663441,0.0,0.0,0.0,0.001371452,-0.080957234,0.24189547,0.06875951,-0.03773733,0.23176092,0.023566294,-0.11017783,-0.24924436,0.0056129755,0.08511955,-0.27622062,0.017840162,-0.045592558,0.04685159,-0.12999958,-0.015555217,-0.22210485,0.119379625,0.022733927,-0.023670765,0.05910205,-0.012624196,-0.16721252,-0.19743504,-2.0,2.0,-2.0,2.0,-0.5084404,2.0,-2.0,-2.0,0.18000564,2.0,-2.0,-2.0,-2.0,2.0,-2.0,2.0,-0.78768694,2.0,-2.0,-2.0,2.0,2.0,-2.0,-2.0
2025-06-05 11:56:32.592,-0.36238396,-0.25070977,-0.04866589,0.093561605,-0.106865376,-0.04421339,0.0,0.0,0.0,0.0015093144,-0.091266096,0.26899642,0.0071209474,-0.0054833535,0.16185997,0.07041136,-0.114901245,-0.30298114,0.0449691,0.09547096,-0.31332487,-0.039233666,-0.0058331913,0.011678826,-0.13748343,0.01831407,-0.22438395,0.1594942,0.016816877,-0.11110702,0.06137717,-0.021101555,-0.10290258,-0.18730725,-2.0,2.0,-2.0,2.0,-0.78768694,2.0,-2.0,-2.0,2.0,2.0,-2.0,-2.0,-2.0,2.0,-2.0,2.0,-0.93360406,2.0,-2.0,-2.0,2.0,2.0,-2.0,-2.0
2025-06-05 11:56:32.615,-0.405115,-0.23561817,-0.04607434,0.04944977,-0.0682132,0.004511913,0.0,0.0,0.0,0.0016029899,-0.07021748,0.29854256,-0.019615844,0.015214032,0.10209761,0.09928334,-0.11249421,-0.32920468,0.07811683,0.09192502,-0.3424649,-0.0701249,0.04189456,-0.010043335,-0.14168681,0.074121766,-0.09684,0.12610023,0.008619129,-0.07280327,0.15277284,0.03909922,-0.10255882,-0.07477057,-2.0,2.0,-2.0,2.0,-0.93360406,2.0,-2.0,-2.0,2.0,2.0,-2.0,-2.0,-2.0,2.0,-2.0,2.0,-0.8679258,2.0,-2.0,-2.0,2.0,1.6230175,-2.0,-2.0
2025-06-05 11:56:32.633,-0.29380897,-0.1729789,-0.006228458,0.056766495,-0.040913038,-0.028108096,0.0,0.0,0.0,0.0020714847,-0.092282176,0.31824905,-0.04362561,0.025402129,0.052836068,0.122675136,-0.10127924,-0.35867587,0.10455611,0.08957053,-0.37454373,-0.1009692,-0.015277533,0.028589772,-0.08412501,0.005328348,-0.094234616,0.07060491,-0.013172055,-0.036312383,0.11871834,0.050699413,-0.08205817,0.06385513,-2.0,2.0,-2.0,2.0,-0.8679258,2.0,-2.0,-2.0,2.0,1.6230175,-2.0,-2.0,-2.0,1.6346605,-2.0,2.0,-0.29978663,2.0,-2.0,-1.8021431,2.0,0.40064365,-2.0,-2.0
2025-06-05 11:56:32.653,0.06359996,0.018519083,-0.070034295,0.09660084,-0.039696164,-0.031892363,0.0,0.0,0.0,0.0029418168,-0.10291014,0.32700816,-0.047364213,0.02480404,0.016045405,0.13872091,-0.11002099,-0.37172896,0.13038033,0.101470634,-0.39533144,-0.07710505,-0.021065649,-0.032988526,0.049542047,0.07717308,-0.048006605,0.059298683,0.028301358,0.00016739816,0.0028154682,0.06883675,0.013097571,-0.0006094185,-2.0,1.6346605,-2.0,2.0,-0.29978663,2.0,-2.0,-1.8021431,2.0,0.40064365,-2.0,-2.0,-2.0,1.5312812,-2.0,2.0,-0.005927192,2.0,-2.0,-1.4869856,2.0,-2.0,-2.0,-2.0
2025-06-05 11:56:32.673,0.09144445,0.06515346,-0.00984802,0.033795323,0.032392886,-0.003569674,0.0,0.0,0.0,0.004303544,-0.12144619,0.3318245,-0.040931962,0.041881658,0.01205821,0.16519217,-0.1107039,-0.35548216,0.1507836,0.09290383,-0.42511514,-0.049510945,-0.017118001,0.09021562,0.010780873,0.030556183,-0.06769003,-0.006971154,0.059829082,0.038510207,0.040109474,-0.08758575,-0.09996381,0.02229078,-2.0,1.5312812,-2.0,2.0,-0.005927192,2.0,-2.0,-1.4869856,2.0,-2.0,-2.0,-2.0,-2.0,2.0,-2.0,2.0,0.55434865,2.0,-2.0,-1.2974516,2.0,-2.0,-2.0,-2.0
2025-06-05 11:56:32.693,0.073861994,-0.022764359,0.027679069,0.06895071,-0.055181768,-0.012113531,0.0,0.0,0.0,0.005038672,-0.14423934,0.34783864,-0.020930307,0.046344627,0.034153815,0.17537059,-0.10032326,-0.34483784,0.18338463,0.083812244,-0.41793957,-0.024244996,-0.025177067,0.09248355,-0.035160985,0.044888895,0.046745542,-0.0317276,0.03378407,0.09139724,0.08749569,0.025904957,0.05960179,0.053449024,-2.0,2.0,-2.0,2.0,0.55434865,2.0,-2.0,-1.2974516,2.0,-2.0,-2.0,-2.0,-2.0,1.7721702,-2.0,2.0,0.45867133,2.0,-2.0,-1.1819223,2.0,-2.0,-1.4283879,-2.0
2025-06-05 11:56:32.715,0.105886936,-0.0015949447,0.06212694,0.0039022632,-0.05265891,-0.049712174,0.0,0.0,0.0,0.0046710977,-0.14130132,0.3534536,-0.014135528,0.043853126,0.055265415,0.1949932,-0.0933677,-0.34722865,0.19480343,0.06532393,-0.42131066,0.004943136,0.008025176,0.04708724,0.035857417,-0.019516287,0.0407703,0.062417567,0.066238515,-0.030503804,-0.03823091,-0.09341133,0.08087055,0.04716343,-2.0,1.7721702,-2.0,2.0,0.45867133,2.0,-2.0,-1.1819223,2.0,-2.0,-1.4283879,-2.0,-2.0,1.2129892,-2.0,2.0,0.54910433,2.0,-2.0,-0.90301067,2.0,-2.0,-0.59157336,-2.0
2025-06-05 11:56:32.733,0.18184054,-0.05560946,-0.025076235,0.066529274,-0.06668064,-0.03608264,0.0,0.0,0.0,0.0040487777,-0.1677823,0.36893898,-0.0078586675,0.058391307,0.071228966,0.20963863,-0.10296463,-0.32076457,0.20379697,0.041223146,-0.38662142,-0.002844567,0.01033739,0.04257193,0.0815559,-0.048313238,-0.033786405,0.0036113511,-0.033280224,0.04781654,0.090553686,0.033153024,0.12322081,-0.024280071,-2.0,1.2129892,-2.0,2.0,0.54910433,2.0,-2.0,-0.90301067,2.0,-2.0,-0.59157336,-2.0,-2.0,1.6721458,-2.0,2.0,0.313147,2.0,-2.0,-0.8312962,2.0,-2.0,-1.2019905,-2.0
2025-06-05 11:56:32.754,0.0697168,-0.026214229,-0.04592566,0.041656535,0.014461912,0.037775207,0.0,0.0,0.0,0.0045823166,-0.16758476,0.38599426,-0.014606772,0.070183136,0.067656465,0.22287388,-0.091919005,-0.3015113,0.20490512,0.046966057,-0.3650602,-0.017253518,-0.044513885,0.05448829,0.011202859,0.03163943,-0.018565547,0.009959178,-0.034575295,0.07069912,0.010476417,-0.031265154,-0.0024561882,-0.057756994,-2.0,1.6721458,-2.0,2.0,0.313147,2.0,-2.0,-0.8312962,2.0,-2.0,-1.2019905,-2.0,-2.0,2.0,-2.0,2.0,0.2645501,2.0,-2.0,-1.1877944,2.0,-2.0,-1.8356715,-2.0
2025-06-05 11:56:32.773,-0.02215211,-0.058643695,0.071355246,0.07413519,0.015635833,0.018147437,0.0,0.0,0.0,0.0049459473,-0.17575298,0.39240715,-0.021730853,0.07091439,0.077385075,0.22950853,-0.08918942,-0.28441373,0.23008625,0.030828984,-0.3707369,-0.018592384,0.024101593,0.05716081,-0.10602171,0.068467826,-0.07510676,-0.0040035928,0.065953314,0.045887813,0.041092183,0.034759775,-0.028336793,-0.031557698,-2.0,2.0,-2.0,2.0,0.2645501,2.0,-2.0,-1.1877944,2.0,-2.0,-1.8356715,-2.0,-2.0,1.5144287,-2.0,2.0,0.4197368,2.0,-2.0,-1.1573054,2.0,-2.0,-0.7185393,-2.0
2025-06-05 11:56:32.794,0.13807724,0.020804456,-0.04434221,0.04206442,-0.03864674,-0.0078316,0.0,0.0,0.0,0.0040308214,-0.16767155,0.40933043,-0.027387703,0.06348288,0.06620012,0.2200848,-0.091499336,-0.2873591,0.2336247,0.018168673,-0.3536153,-0.014761054,-0.041217767,-0.013379789,0.03176772,-0.05495781,0.020308856,0.04743729,-0.046684995,-0.010408011,0.060688376,-0.10072683,0.04337626,0.047717705,-2.0,1.5144287,-2.0,2.0,0.4197368,2.0,-2.0,-1.1573054,2.0,-2.0,-0.7185393,-2.0,-2.0,2.0,-2.0,2.0,0.22283997,2.0,-2.0,-1.0360078,2.0,-2.0,-1.4742286,-2.0
2025-06-05 11:56:32.815,0.036463723,-0.0861057,0.049835972,-0.02251462,-0.00794937,-0.013690202,0.0,0.0,0.0,0.0035771301,-0.18589467,0.41295192,-0.047405887,0.066234715,0.07911074,0.22603428,-0.0847531,-0.27012986,0.22871454,-0.0006228087,-0.36033142,-0.030812051,-0.019837923,0.05348661,-0.03558725,0.047952645,0.058516447,0.042378917,-0.059373546,-0.037902243,0.04030798,0.008050444,0.072203755,-0.025081612,-2.0,2.0,-2.0,2.0,0.22283997,2.0,-2.0,-1.0360078,2.0,-2.0,-1.4742286,-2.0,-2.0,1.5148966,-2.0,2.0,0.51285154,2.0,-2.0,-1.1127131,2.0,-2.0,-0.7809934,-2.0
2025-06-05 11:56:32.834,0.08473208,-0.08479647,-0.0032337212,-0.0066669695,-0.02248242,0.02739574,0.0,0.0,0.0,0.0027389037,-0.17255066,0.42165914,-0.038225032,0.07064157,0.074841976,0.24404858,-0.09299047,-0.28185257,0.22917664,-0.0074558165,-0.32995984,-0.043862432,0.05521625,0.08411747,0.066162705,0.046665303,0.086557455,-0.008104409,0.044967365,0.083016165,-0.04676011,-0.069057025,0.02372835,0.040423464,-2.0,1.5148966,-2.0,2.0,0.51285154,2.0,-2.0,-1.1127131,2.0,-2.0,-0.7809934,-2.0,-2.0,2.0,-2.0,2.0,0.30735022,1.8228521,-2.0,-0.9025602,2.0,-2.0,-1.2009348,-2.0
2025-06-05 11:56:32.854,0.019263484,-0.05447308,0.041403104,0.00042089066,-0.008962179,0.044063,0.0,0.0,0.0,0.0023289367,-0.17999835,0.44266188,-0.04276166,0.072564356,0.08372148,0.24348101,-0.089782946,-0.2731657,0.23391086,-0.011815934,-0.3265896,-0.047254972,-0.0008423266,0.06757112,0.0020187735,0.0011177377,-0.041755527,-0.004273363,0.013790375,-0.0135379275,-0.014755427,0.041569665,0.061653104,-0.06636987,-2.0,2.0,-2.0,2.0,0.30735022,1.8228521,-2.0,-0.9025602,2.0,-2.0,-1.2009348,-2.0,-2.0,1.6888607,-2.0,2.0,0.41927403,1.3760731,-2.0,-0.93026924,2.0,-2.0,-0.5824121,-2.0
2025-06-05 11:56:32.873,0.118987404,-0.038187094,-0.008625257,0.027384173,-0.05871799,0.00986745,0.0,0.0,0.0,0.0017223242,-0.19462137,0.4404759,-0.053294547,0.08710242,0.077049695,0.22340505,-0.083283044,-0.2554619,0.23774771,-0.010561708,-0.30981165,-0.052402835,-0.013685549,0.024263335,0.027564347,-0.04739471,-0.060686268,0.045156643,0.030946922,-0.038757205,-0.04154329,0.027069205,0.07843309,-0.015078069,-2.0,1.6888607,-2.0,2.0,0.41927403,1.3760731,-2.0,-0.93026924,2.0,-2.0,-0.5824121,-2.0,-2.0,1.737189,-2.0,2.0,0.63090134,-0.5086492,-2.0,-0.83210975,1.1027071,-2.0,-0.92941153,-2.0
2025-06-05 11:56:32.894,0.001176525,-0.08268453,0.005483736,-0.038711578,-0.018951759,0.04057728,0.0,0.0,0.0,0.0015032246,-0.19332951,0.44172302,-0.039753754,0.08900397,0.086868115,0.18969099,-0.094361864,-0.2458454,0.2292677,-0.01576138,-0.3126401,-0.06509555,0.01585014,0.0058668894,-0.068901464,0.057100672,-0.034214873,-0.1775912,-0.03061556,0.05714607,-0.05832824,-0.061248913,-0.025156152,0.046217114,-2.0,1.737189,-2.0,2.0,0.63090134,-0.5086492,-2.0,-0.83210975,1.1027071,-2.0,-0.92941153,-2.0,-2.0,2.0,-2.0,2.0,1.8557308,-2.0,-2.0,-1.0593221,-2.0,-2.0,-1.6930529,-2.0
2025-06-05 11:56:32.915,-0.08854092,-0.10996348,0.061888237,-0.03823018,-0.031882938,0.030106176,0.0,0.0,0.0,0.0013992144,-0.18542822,0.45142937,-0.052318845,0.092641614,0.14723356,0.10348928,-0.09418414,-0.24299146,0.14818694,-0.009405405,-0.319042,-0.06374055,-0.030737158,-0.058394585,0.034977406,-0.033575945,0.18207487,-0.23151244,0.059462916,0.05839433,-0.26956844,0.0022137838,0.007775979,0.018746028,-2.0,2.0,-2.0,2.0,1.8557308,-2.0,-2.0,-1.0593221,-2.0,-2.0,-1.6930529,-2.0,-2.0,2.0,1.0078562,2.0,2.0,-2.0,-2.0,-0.8974708,-2.0,-2.0,-2.0,1.0336947
2025-06-05 11:56:32.934,0.02628306,0.07248991,0.020647867,-0.05651905,0.0162084,0.014123927,0.0,0.0,0.0,0.0006776216,-0.16762508,0.45209023,-0.019840179,0.08522932,0.18486364,0.05406715,-0.099794246,-0.23658256,0.07752641,-0.035908967,-0.3346222,-0.026819365,0.054816876,-0.035710245,0.008637202,-0.04927439,0.013495603,-0.03562584,-0.0021591363,0.0101120835,-0.14058578,-0.04331797,-0.06997162,0.009980522,-2.0,2.0,1.0078562,2.0,2.0,-2.0,-2.0,-0.8974708,-2.0,-2.0,-2.0,1.0336947,-2.0,1.3996621,2.0,-0.48589322,2.0,-2.0,-2.0,-0.76078916,-2.0,2.0,-1.7229644,2.0
2025-06-05 11:56:32.954,0.067307934,0.2707385,-0.04908273,-0.0059941947,-0.027988022,0.035775885,0.0,0.0,0.0,-0.000514387,-0.16013892,0.43471056,0.018578066,0.09080825,0.21937667,0.046878666,-0.09625238,-0.2422485,0.032314822,-0.011201021,-0.36824033,0.003415678,0.09043973,-0.012730739,0.123936355,-0.016247008,0.035326693,-0.08263922,-0.009895117,0.007579651,-0.09693411,0.0793784,0.035620008,0.09462812,-2.0,1.3996621,2.0,-0.48589322,2.0,-2.0,-2.0,-0.76078916,-2.0,2.0,-1.7229644,2.0,-2.0,-0.3540252,2.0,-2.0,0.69422746,-2.0,-2.0,-0.29188913,-2.0,2.0,-0.8152095,2.0
2025-06-05 11:56:32.974,0.071411766,0.17171821,0.083701335,0.027616857,-0.04733326,-0.02582367,0.0,0.0,0.0,-0.00040551677,-0.15183,0.3755554,0.06765918,0.06376924,0.21164618,0.03187882,-0.111399725,-0.2375121,0.0039300844,-0.0037299506,-0.34557936,0.04675829,-0.017992003,-0.09548079,0.20664787,0.011468501,0.07099562,-0.015292991,0.011388731,-0.009883855,-0.067688406,0.06656051,0.13675256,0.043683495,-2.0,-0.3540252,2.0,-2.0,0.69422746,-2.0,-2.0,-0.29188913,-2.0,2.0,-0.8152095,2.0,-2.0,0.03906709,2.0,-2.0,1.7801323,-2.0,-2.0,-1.4408181,-2.0,2.0,-0.37361363,2.0
2025-06-05 11:56:32.996,0.075488,0.14561264,-0.011311966,-0.00037347898,-0.024735382,0.016885825,0.0,0.0,0.0,-0.0010593494,-0.14494282,0.32053703,0.11027415,0.049233288,0.23691046,0.022796266,-0.13768724,-0.23815553,0.023632938,0.022302652,-0.28942153,0.092958145,0.048222117,-0.09618256,0.089999534,0.031166041,0.027835725,0.01875366,0.008705733,-0.04075838,0.09093992,0.09791834,0.09369391,0.12428025,-2.0,0.03906709,2.0,-2.0,1.7801323,-2.0,-2.0,-1.4408181,-2.0,2.0,-0.37361363,2.0,-2.0,0.29047835,2.0,-2.0,1.477096,-2.0,-2.0,-1.0586045,-2.0,2.0,-0.5297884,2.0
2025-06-05 11:56:33.015,0.07318359,0.052321274,-0.027075542,-0.0070986548,-0.027893705,0.042417318,0.0,0.0,0.0,-0.0012602822,-0.12556747,0.26194063,0.13938048,0.051801212,0.23723903,0.023896571,-0.15389308,-0.24826114,0.023883397,0.035654146,-0.2656491,0.12040021,0.066222504,-0.08295509,0.07874174,-0.08801365,0.07413217,-0.03339357,-0.027418261,-0.057113975,0.02934409,-0.0032557165,0.023332477,0.023765253,-2.0,0.29047835,2.0,-2.0,1.477096,-2.0,-2.0,-1.0586045,-2.0,2.0,-0.5297884,2.0,-2.0,0.26287216,2.0,-2.0,1.3574907,-2.0,-2.0,-0.7143127,-2.0,2.0,-0.37483436,2.0
2025-06-05 11:56:33.034,0.12861443,0.02245173,-0.03948624,0.03927115,-0.1109149,0.010220229,0.0,0.0,0.0,-0.0010639767,-0.13055837,0.2324459,0.16158032,0.031728856,0.2618032,0.014945415,-0.15173858,-0.22407301,0.016409654,0.03223783,-0.24095185,0.14559335,-0.041705627,-0.0862972,0.062612325,-0.014257643,0.04690968,-0.09691311,0.028145123,0.072063744,0.004115907,0.084789366,0.0061363215,0.09624525,-2.0,0.26287216,2.0,-2.0,1.3574907,-2.0,-2.0,-0.7143127,-2.0,2.0,-0.37483436,2.0,-2.0,0.045948565,2.0,-2.0,1.4156195,-2.0,-2.0,-0.26938403,-2.0,2.0,-0.55327713,2.0
2025-06-05 11:56:33.054,0.105497584,0.025507402,-0.01590095,0.030333282,-0.09529922,0.03568996,0.0,0.0,0.0,-0.0010022382,-0.11799123,0.19152021,0.17864797,0.03893626,0.2784315,-0.0018598983,-0.16395369,-0.21637729,0.007166149,0.051726624,-0.21479847,0.16814324,0.039363742,-0.12599538,0.11087501,-0.014089618,0.11236938,-0.08710416,-0.062105626,0.052045144,-0.010867757,0.09067267,0.11017642,0.036658175,-2.0,0.045948565,2.0,-2.0,1.4156195,-2.0,-2.0,-0.26938403,-2.0,2.0,-0.55327713,2.0,-2.0,0.025051534,2.0,-2.0,1.5624264,-2.0,-2.0,-0.7548654,-2.0,2.0,-0.64627707,2.0
2025-06-05 11:56:33.075,-0.0029431859,0.07481299,-0.017279085,-0.000679797,-0.055147283,0.026878988,0.0,0.0,0.0,-0.001248066,-0.11468896,0.15754682,0.19615622,0.015641347,0.28010488,-0.019599618,-0.17585269,-0.20036843,0.0032904313,0.0471774,-0.20406015,0.18753345,-0.03509102,-0.030055232,0.005976937,-0.059737504,0.0654133,-0.07219657,-0.020612901,0.049280394,0.034955993,-0.038386814,0.027739648,-0.0006848196,-2.0,0.025051534,2.0,-2.0,1.5624264,-2.0,-2.0,-0.7548654,-2.0,2.0,-0.64627707,2.0,-2.0,0.40073484,2.0,-2.0,1.4815327,-2.0,-2.0,-0.9101016,-2.0,2.0,-0.70149755,2.0
2025-06-05 11:56:33.097,-0.044718627,0.10957587,-0.047535647,0.05183781,-0.09034974,-0.018872194,0.0,0.0,0.0,-0.0009533582,-0.11243777,0.14303055,0.1935077,0.004128533,0.2974441,-0.041043445,-0.1678413,-0.1880056,-0.011082896,0.07093059,-0.18526544,0.1891849,0.07447273,-0.005032639,-0.00822212,0.02049676,0.023699101,-0.03339908,0.03838041,0.03247295,-0.07588977,-0.015170795,0.07224953,0.04300573,-2.0,0.40073484,2.0,-2.0,1.4815327,-2.0,-2.0,-0.9101016,-2.0,2.0,-0.70149755,2.0,-2.0,0.4823417,2.0,-2.0,1.1782225,-2.0,-2.0,-0.6381035,-2.0,2.0,-0.54861164,2.0
2025-06-05 11:56:33.115,-0.0031581598,0.04970599,-0.01698415,0.023723863,-0.111677125,0.015106533,0.0,0.0,0.0,1.6783857e-06,-0.11314365,0.14166783,0.21523383,-0.003223034,0.3094521,-0.04534193,-0.17710868,-0.18856506,-0.024493204,0.057363804,-0.17441823,0.21598233,-0.015842196,-0.0804425,-0.050496902,-0.083109654,0.07203627,0.033638556,0.02639437,0.04248754,0.007987415,-0.060730364,0.0069837705,0.06432066,-2.0,0.4823417,2.0,-2.0,1.1782225,-2.0,-2.0,-0.6381035,-2.0,2.0,-0.54861164,2.0,-2.0,0.5939385,1.1236852,-2.0,1.4918382,-2.0,-2.0,-1.027187,-2.0,2.0,-0.83314383,2.0
2025-06-05 11:56:33.135,-0.008504133,0.08329327,-0.059525397,0.010645786,-0.096053936,0.023236027,0.0,0.0,0.0,0.00081146817,-0.09966842,0.14318286,0.19505663,0.00072404573,0.3185632,-0.044482905,-0.16869931,-0.17763257,-0.012921091,0.078097135,-0.1813286,0.2249982,-0.008911697,0.07465752,0.01954398,-0.0017308996,-0.016053855,0.048619106,-0.057384674,-0.07831383,0.0003198233,0.04250836,-0.045660254,0.016579026,-2.0,0.5939385,1.1236852,-2.0,1.4918382,-2.0,-2.0,-1.027187,-2.0,2.0,-0.83314383,2.0,-2.0,0.74853957,0.10856492,-2.0,0.8809059,-2.0,-2.0,-0.67799264,-2.0,2.0,-0.5225487,1.0655681
2025-06-05 11:56:33.155,-0.07392725,-0.009629888,0.037878413,0.06413723,-0.1127522,-0.009680188,0.0,0.0,0.0,0.0017538801,-0.10687581,0.15528108,0.17494765,-1.4322195e-05,0.3010313,-0.060389444,-0.16537488,-0.1966512,-0.023759907,0.07703198,-0.16458926,0.20728691,0.019489553,-0.0073697213,-0.14347972,-0.078841604,0.030625662,-0.08273817,-0.050013818,0.056037556,-0.081692055,-0.0062304186,-0.0369814,0.0042925696,-2.0,0.74853957,0.10856492,-2.0,0.8809059,-2.0,-2.0,-0.67799264,-2.0,2.0,-0.5225487,1.0655681,-2.0,0.91894525,-2.0,-2.0,1.5315682,-1.6148145,-2.0,-1.5477144,-2.0,2.0,-1.0398525,-2.0
2025-06-05 11:56:33.175,-0.12006737,0.0561983,-0.07949433,0.0126246475,-0.06592423,0.0021809696,0.0,0.0,0.0,0.0022308405,-0.091320515,0.16937971,0.10119259,-0.015251532,0.31647152,-0.06404059,-0.1791256,-0.2046437,-0.033591256,0.07625018,-0.18564808,0.12629367,0.021317106,0.09303904,-0.20132476,-0.045843344,-0.035822812,0.050043523,-0.0648909,0.024983812,0.063381195,-0.00012614968,-0.04553216,-0.23929523,-2.0,0.91894525,-2.0,-2.0,1.5315682,-1.6148145,-2.0,-1.5477144,-2.0,2.0,-1.0398525,-2.0,-2.0,2.0,-2.0,-0.06515954,0.34481764,2.0,-2.0,-1.4311342,-2.0,2.0,-2.0,-2.0
2025-06-05 11:56:33.198,-0.27392006,-0.33288828,-0.038059436,0.02751234,-0.046163164,0.015134289,0.0,0.0,0.0,0.0032931764,-0.08918498,0.18563065,0.07323762,-0.0063795554,0.27999187,-0.0043328763,-0.1590978,-0.2112712,-0.038357344,0.0843471,-0.21427862,0.06843163,-0.051214986,0.12955329,-0.011066925,0.07927915,-0.08892079,0.12888925,0.070579946,-0.020985886,-0.06915513,0.036486346,-0.14705889,-0.23188683,-2.0,2.0,-2.0,-0.06515954,0.34481764,2.0,-2.0,-1.4311342,-2.0,2.0,-2.0,-2.0,-2.0,2.0,-2.0,2.0,-0.33235317,2.0,-2.0,-2.0,1.046412,2.0,-2.0,-2.0
2025-06-05 11:56:33.215,-0.4274172,-0.3491415,-0.012059349,-0.0063769286,-0.051794924,0.0399685,0.0,0.0,0.0,0.004243884,-0.09460509,0.19819777,0.033053998,0.0032191211,0.2184155,0.028920699,-0.13926539,-0.24902998,-0.0053836745,0.08234069,-0.27776775,0.00441964,-0.023456976,0.060825493,-0.032156058,-0.02791441,-0.15250182,0.14688009,0.021851867,-0.17555256,0.057660684,0.071958505,-0.05837144,-0.17498374,-2.0,2.0,-2.0,2.0,-0.33235317,2.0,-2.0,-2.0,1.046412,2.0,-2.0,-2.0,-2.0,2.0,-2.0,2.0,-0.7107956,2.0,-2.0,-2.0,2.0,2.0,-1.9841424,-2.0
2025-06-05 11:56:33.235,-0.48827812,-0.37368512,0.004072361,0.0017433346,0.027733585,-0.015042705,0.0,0.0,0.0,0.0049986024,-0.0773961,0.24010096,-0.00093030115,0.027224237,0.14800963,0.07822311,-0.13433276,-0.28752038,0.033714768,0.09569174,-0.31141642,-0.03493438,0.016421488,0.10361349,-0.15489063,0.011833613,-0.204283,0.13045134,-0.031484287,-0.12291916,0.08230652,0.022924805,-0.0437835,-0.1586185,-2.0,2.0,-2.0,2.0,-0.7107956,2.0,-2.0,-2.0,2.0,2.0,-1.9841424,-2.0,-2.0,2.0,-2.0,2.0,-0.68076026,2.0,-2.0,-2.0,2.0,2.0,-2.0,-2.0
2025-06-05 11:56:33.255,-0.06233171,-0.211241,-0.04478102,0.036771562,0.023026478,0.01560647,0.0,0.0,0.0,0.0058795237,-0.08321032,0.26547572,-0.040588032,0.03482691,0.09425754,0.097568944,-0.1270952,-0.3276535,0.075994745,0.09852422,-0.34124267,-0.031839743,-0.036261432,-0.0017793463,-0.0012672785,0.02410199,-0.049803544,0.04793446,0.03214342,-0.04501273,0.08645344,-0.031744692,-0.10951475,0.062122874,-2.0,2.0,-2.0,2.0,-0.68076026,2.0,-2.0,-2.0,2.0,2.0,-2.0,-2.0,-2.0,2.0,-2.0,2.0,-0.7207497,2.0,-2.0,-1.7278394,2.0,0.18919298,-2.0,-2.0
2025-06-05 11:56:33.276,0.050468583,-0.033565722,-0.0319735,-0.0020043477,0.014562283,-0.011600177,0.0,0.0,0.0,0.0069136927,-0.109732024,0.2912709,-0.03989181,0.035380304,0.06797762,0.14610924,-0.12755801,-0.32923433,0.09824517,0.11043181,-0.36527613,-0.01927213,-0.10235748,0.048110873,0.039453924,-0.016261032,-0.15277712,0.07752967,0.031577174,-0.04677923,0.053484898,-0.07395485,0.015718069,0.03737574,-2.0,2.0,-2.0,2.0,-0.7207497,2.0,-2.0,-1.7278394,2.0,0.18919298,-2.0,-2.0,-2.0,1.5168087,-2.0,2.0,-0.09954785,2.0,-2.0,-1.6292826,2.0,-2.0,-2.0,-2.0
2025-06-05 11:56:33.299,0.10977429,-0.019186469,0.0516084,-0.0408011,0.051533844,-0.041735426,0.0,0.0,0.0,0.007293012,-0.13027644,0.290726,-0.04022144,0.049613845,0.04081614,0.16147262,-0.11035898,-0.3347816,0.12434406,0.08709409,-0.3652641,0.008338132,0.0062293992,0.07841325,-0.01094715,0.05305918,-0.054112557,0.07848548,0.07314324,0.01669676,0.07408356,-0.040556695,-0.054306388,0.108093165,-2.0,1.5168087,-2.0,2.0,-0.09954785,2.0,-2.0,-1.6292826,2.0,-2.0,-2.0,-2.0,-2.0,1.5253019,-2.0,2.0,0.6605514,2.0,-2.0,-1.2470962,2.0,-2.0,-1.3443861,-2.0
2025-06-05 11:56:33.316,0.16297424,0.013197975,0.030310756,-0.008248594,0.029233862,0.030405229,0.0,0.0,0.0,0.0062727355,-0.1385415,0.31399766,-0.024922349,0.043476023,0.062309828,0.19067338,-0.109613515,-0.33985028,0.15081432,0.07284637,-0.3640259,0.020822562,-0.039946675,0.03145811,0.031279493,-0.0019075476,0.12041216,-0.0030557031,-0.049608685,-0.046521604,0.0033352342,-0.122005574,-0.04067216,-0.027305577,-2.0,1.5253019,-2.0,2.0,0.6605514,2.0,-2.0,-1.2470962,2.0,-2.0,-1.3443861,-2.0,-2.0,1.5563403,-2.0,2.0,0.3496803,2.0,-2.0,-0.87695175,2.0,-2.0,-0.6581357,-2.0
2025-06-05 11:56:33.336,0.17478952,-0.12677354,-0.005043087,-0.037164178,0.025716424,-0.016320474,0.0,0.0,0.0,0.0052531837,-0.1471666,0.33072528,-0.027815582,0.06018738,0.0632239,0.19026864,-0.10745088,-0.3059509,0.17964777,0.043121696,-0.353176,0.01992664,-0.004747921,0.032503005,0.0012040209,0.03016983,-0.043507494,0.019884743,0.009534865,0.11140235,-0.032823138,-0.029931663,0.021892998,-0.057391092,-2.0,1.5563403,-2.0,2.0,0.3496803,2.0,-2.0,-0.87695175,2.0,-2.0,-0.6581357,-2.0,-2.0,1.8085399,-2.0,2.0,0.16784771,2.0,-2.0,-1.0301945,2.0,-2.0,-1.1323788,-2.0
2025-06-05 11:56:33.356,0.061316576,-0.087883644,0.08372908,-0.049957242,-0.022516448,-0.0075451992,0.0,0.0,0.0,0.004931775,-0.15349038,0.3427988,-0.017891707,0.06709845,0.053249363,0.2128442,-0.09988943,-0.3038713,0.19186881,0.043219037,-0.3238841,0.0069939257,-0.009929188,-0.028362298,-0.01958606,0.069554254,0.052535497,0.06818682,-0.058863204,0.015096788,0.08030424,-0.10258105,0.11410046,0.0008808133,-2.0,1.8085399,-2.0,2.0,0.16784771,2.0,-2.0,-1.0301945,2.0,-2.0,-1.1323788,-2.0,-2.0,1.082474,-2.0,2.0,0.3745163,2.0,-2.0,-1.0144897,2.0,-2.0,-0.03795024,-2.0
