openverse-orca/OrcaGym/log/simulation_log_20250721_142458.csv
timestamp,sim_time,physics_step,control_step,imu_angle_roll,imu_angle_pitch,imu_angle_yaw,imu_angular_velocity_roll,imu_angular_velocity_pitch,imu_angular_velocity_yaw,imu_acc_x,imu_acc_y,imu_acc_z,fl_joint1_pos,fl_joint1_vel,fl_joint1_torque,fl_joint2_pos,fl_joint2_vel,fl_joint2_torque,fl_joint3_pos,fl_joint3_vel,fl_joint3_torque,fr_joint1_pos,fr_joint1_vel,fr_joint1_torque,fr_joint2_pos,fr_joint2_vel,fr_joint2_torque,fr_joint3_pos,fr_joint3_vel,fr_joint3_torque,hl_joint1_pos,hl_joint1_vel,hl_joint1_torque,hl_joint2_pos,hl_joint2_vel,hl_joint2_torque,hl_joint3_pos,hl_joint3_vel,hl_joint3_torque,hr_joint1_pos,hr_joint1_vel,hr_joint1_torque,hr_joint2_pos,hr_joint2_vel,hr_joint2_torque,hr_joint3_pos,hr_joint3_vel,hr_joint3_torque,fl_force_x,fl_force_y,fl_force_z,fr_force_x,fr_force_y,fr_force_z,hl_force_x,hl_force_y,hl_force_z,hr_force_x,hr_force_y,hr_force_z,fl_hip_action,fl_thigh_action,fl_calf_action,fr_hip_action,fr_thigh_action,fr_calf_action,hl_hip_action,hl_thigh_action,hl_calf_action,hr_hip_action,hr_thigh_action,hr_calf_action
2025-07-21 14:24:58.259,0.0,0,0,0.0348072,-0.04884534,-0.022283277,0.029307952,-0.048093725,-0.021319589,1.0674771,0.99379647,0.0,0.0,0.0042479197,-0.0092687085,0.0014886903,-0.0060865832,0.0033899136,0.0060035638,0.009000733,0.0018497665,-0.0013129187,0.0016801377,-3.7476666e-06,-0.0045526223,-0.06579809,0.0030895357,0.05410128,-0.062409632,0.06439415,-0.03256504,0.040817156,0.012528335,-0.05328609,-0.018419791,0.0050405185,0.047255382,0.0,0.0,0.0,0.0,0.0,0.0,0.0,0.0,0.0,0.0,0.0,0.0,0.17832732,-0.20937325,2.0,-1.556209,0.594607,-0.4977808,2.0,-0.8736563,-2.0,-2.0,-1.4043657,-2.0
2025-07-21 14:24:58.269,0.02,20,1,0.021787072,-0.005483208,-0.042513605,0.00343633,-0.006695525,0.018129963,0.0,0.0,0.0,0.0,0.010613621,-0.016173925,0.045190435,-0.0014372305,0.022124128,-0.01625241,0.009774469,-0.024378471,-0.040123336,-0.017511735,-0.02657349,-0.03907867,-0.0395422,-0.06380535,0.11899989,0.015984928,0.10388245,-0.097743616,0.023052974,-0.08988027,-0.20582776,-0.10889778,-0.21905184,-0.08283814,0.17832732,-0.20937325,2.0,-1.556209,0.594607,-0.4977808,2.0,-0.8736563,-2.0,-2.0,-1.4043657,-2.0,-2.0,-0.9067667,2.0,-1.6300623,1.8287942,-2.0,2.0,-0.028391004,-2.0,-2.0,-1.014936,2.0
2025-07-21 14:24:58.289,0.04,40,2,-0.056922525,0.0003503546,0.009367159,-0.010594425,-0.006114158,0.031901713,0.0,0.0,0.0,-8.689554e-08,0.004586532,-0.033329956,0.110069774,-0.030686388,0.081925586,-0.05987254,0.01104107,-0.051317856,-0.06334704,-0.036397908,-0.10459744,-0.009202187,-0.10712979,-0.09301939,0.1776401,0.01162778,0.05887257,-0.11672621,0.08276434,-0.10918188,0.018023256,-0.06757925,-0.16127005,0.09299368,-2.0,-0.9067667,2.0,-1.6300623,1.8287942,-2.0,2.0,-0.028391004,-2.0,-2.0,-1.014936,2.0,0.8440294,0.9461308,2.0,-2.0,-0.7980186,-2.0,2.0,-1.3662338,-2.0,-2.0,0.30188793,2.0
2025-07-21 14:24:58.309,0.06,60,3,0.019298129,0.03389088,0.009149411,-0.031970445,0.0020587603,-0.014994543,0.0,0.0,0.0,0.0002377693,-0.01619303,-0.034496613,0.14927998,-0.030355886,0.080199264,-0.029751085,0.014940515,-0.07519726,-0.037691887,-0.062929794,-0.12018514,0.058859747,0.007941273,0.12846689,0.1261496,-0.021433165,-0.029619984,0.090674944,0.066071294,-0.14290088,0.06693059,0.022861531,0.014817386,0.16262397,0.8440294,0.9461308,2.0,-2.0,-0.7980186,-2.0,2.0,-1.3662338,-2.0,-2.0,0.30188793,2.0,2.0,0.85771686,0.12192616,-2.0,1.5335817,-1.7104883,2.0,-0.46759927,-2.0,-2.0,0.29459244,2.0
2025-07-21 14:24:58.334,0.08,80,4,-0.118022844,-0.02492903,0.057784606,0.053737383,-0.037265263,-0.043239582,0.0,0.0,0.0,0.00037950694,0.0028590243,0.021976179,0.13023618,-0.012053582,0.056447994,0.026027445,0.0320157,-0.10454902,0.026602445,-0.08367904,-0.06864193,0.096844986,0.1192239,0.19600973,-0.054132253,0.02626487,-0.07708044,0.1871912,-0.055713043,-0.12154546,0.039763723,-0.022598738,0.08074069,0.06403698,2.0,0.85771686,0.12192616,-2.0,1.5335817,-1.7104883,2.0,-0.46759927,-2.0,-2.0,0.29459244,2.0,2.0,1.0951391,-2.0,-2.0,-0.18932325,0.9175606,2.0,-0.9809322,-1.4316696,-2.0,0.48885733,-2.0
2025-07-21 14:24:58.351,0.1,100,5,-0.1602217,0.057602935,-0.03673745,-0.030358687,-0.05168922,0.044414066,0.0,0.0,0.0,0.000231783,0.037169255,0.09204671,0.07639482,-0.021151425,0.034980528,0.086845376,0.0370105,-0.111128695,0.062471587,-0.091791674,-0.024113566,0.089287885,0.03494161,0.10971854,-0.020200757,0.07409572,-0.12545682,0.24504423,-0.03567963,-0.020001944,0.14542058,0.0019181941,0.037599266,-0.050255418,2.0,1.0951391,-2.0,-2.0,-0.18932325,0.9175606,2.0,-0.9809322,-1.4316696,-2.0,0.48885733,-2.0,2.0,1.7452277,-2.0,-2.0,0.0035890304,0.92592907,2.0,-0.96382934,2.0,-2.0,0.061805837,-2.0
2025-07-21 14:24:58.371,0.12000000000000001,120,6,-0.106338695,0.030274171,-0.02984648,-0.012575771,-0.0050935205,0.009641193,0.0,0.0,0.0,0.00022250257,0.038378287,0.089124225,0.10814617,-0.021546783,0.010968774,0.14033149,0.049312912,-0.13587745,0.09894278,-0.094782785,-0.02473467,0.11533115,-0.02534931,0.0069393157,0.18282087,0.040884376,-0.0060689584,0.115521125,0.09677583,0.01619653,0.1655034,-0.03820886,-0.03342489,0.118725024,2.0,1.7452277,-2.0,-2.0,0.0035890304,0.92592907,2.0,-0.96382934,2.0,-2.0,0.061805837,-2.0,2.0,2.0,-2.0,0.056058004,0.16519165,2.0,2.0,-1.3464582,2.0,-2.0,-0.7622761,-2.0
2025-07-21 14:24:58.395,0.14,140,7,-0.06778421,0.11249798,-0.023042161,0.038291734,-0.0394145,0.02275274,0.0,0.0,0.0,0.0010081622,0.030989517,0.08993991,0.15490259,-0.013867684,0.0042855022,0.18907553,0.068102576,-0.16049708,0.14044622,-0.09226325,-0.012743659,0.14086764,0.04782038,-0.02726515,0.053010996,0.03769605,0.042711187,0.10357669,0.027407398,-0.09563452,0.15971442,0.033615865,0.027771898,0.10098521,2.0,2.0,-2.0,0.056058004,0.16519165,2.0,2.0,-1.3464582,2.0,-2.0,-0.7622761,-2.0,0.10309443,2.0,-2.0,2.0,-0.22691733,2.0,2.0,-1.7629526,0.13179119,-2.0,-0.33224404,-2.0
2025-07-21 14:24:58.414,0.16,160,8,-0.022473658,0.11008639,-0.0075981184,0.007023534,-0.06986083,0.0322939,0.0,0.0,0.0,0.0019962238,0.036841657,0.075713076,0.1912392,0.0016973421,-0.004551224,0.22232105,0.09321591,-0.20146763,0.14311285,-0.0702933,-0.011820647,0.167078,0.07491918,-0.06313452,0.07642548,0.031223048,-0.042389624,0.06568142,0.118882954,-0.18155125,-0.041690536,-0.014596249,0.050741274,0.009178488,0.10309443,2.0,-2.0,2.0,-0.22691733,2.0,2.0,-1.7629526,0.13179119,-2.0,-0.33224404,-2.0,-2.0,1.3688033,-2.0,2.0,-0.30196768,-0.1697954,2.0,-1.2034624,-2.0,-2.0,-0.13200122,-2.0
2025-07-21 14:24:58.435,0.18,180,9,-0.013341473,0.085743554,-0.08272726,0.07255096,-0.037288122,-0.002918535,0.0,0.0,0.0,0.0029830069,0.047882885,0.08000263,0.18661663,-0.011069777,0.018428462,0.24728012,0.10812052,-0.23005193,0.11202195,-0.079403736,-0.0032052144,0.20050275,-0.021650176,0.00993179,-0.0674195,0.045185227,-0.030088313,0.0022062147,0.06375392,-0.026811732,-0.072589755,-0.030980263,-0.027229786,0.0056147827,-2.0,1.3688033,-2.0,2.0,-0.30196768,-0.1697954,2.0,-1.2034624,-2.0,-2.0,-0.13200122,-2.0,-2.0,1.5581592,1.0460865,2.0,0.76896536,-2.0,2.0,-0.48155752,-2.0,-1.1401427,-0.89295256,-2.0
2025-07-21 14:24:58.458,0.19999999999999998,200,10,-0.02192221,0.04586115,0.033250906,0.024833677,-0.03703872,-0.042200234,0.0,0.0,0.0,0.0040239543,0.03075234,0.1139848,0.19103,-0.009352778,0.026106825,0.22980063,0.10686492,-0.21089861,0.10868988,-0.07848883,0.0057651005,0.20729716,-0.022307172,0.124350965,-0.019014059,-0.0015626859,0.09034523,-0.008505699,-0.06635216,0.06087377,-0.047110785,0.03656581,-0.0048083887,-0.06669459,-2.0,1.5581592,1.0460865,2.0,0.76896536,-2.0,2.0,-0.48155752,-2.0,-1.1401427,-0.89295256,-2.0,-2.0,-0.66063845,1.2240627,0.16929443,0.39874232,-2.0,2.0,-0.8476646,-2.0,0.5382856,-0.26233587,2.0
2025-07-21 14:24:58.478,0.21999999999999997,220,11,-0.0024487802,-0.01459585,0.08821601,0.020637207,-0.030751193,0.038889576,0.0,0.0,0.0,0.0039195092,0.017646683,0.10589466,0.19761422,0.00339726,0.052677035,0.2140553,0.09639992,-0.1973645,0.112594575,-0.07233856,0.009313709,0.20536096,-0.011062956,-0.06657805,-0.0025746392,-0.029228918,0.062917635,-0.030491283,-0.021394614,0.024751699,0.031055402,-0.038226232,-0.028703727,0.03416073,-2.0,-0.66063845,1.2240627,0.16929443,0.39874232,-2.0,2.0,-0.8476646,-2.0,0.5382856,-0.26233587,2.0,0.29033855,0.73672545,2.0,-2.0,1.0685409,-2.0,2.0,-1.575294,-2.0,1.4294386,0.11304476,2.0
2025-07-21 14:24:58.502,0.23999999999999996,240,12,0.08516,0.020771226,0.0731804,0.043626875,-0.014341856,0.0069839708,0.0,0.0,0.0,0.0027275397,0.0004903163,0.08691856,0.18819931,0.001733045,0.066963896,0.20322523,0.097539626,-0.20242128,0.1264002,-0.0453902,0.00820522,0.21867292,0.045843437,0.030050667,0.042294957,-0.057118624,0.08378978,-0.104955986,0.05024221,-0.018199248,0.016881391,0.098195605,-0.053870473,-0.019558957,0.29033855,0.73672545,2.0,-2.0,1.0685409,-2.0,2.0,-1.575294,-2.0,1.4294386,0.11304476,2.0,2.0,1.0831065,0.31070408,-2.0,1.5428747,0.061463945,2.0,-0.8046525,-2.0,-0.78682184,0.25295132,2.0
2025-07-21 14:24:58.521,0.25999999999999995,260,13,0.0062546455,-0.009986829,0.051203333,0.044246055,-0.046082865,-0.02320516,0.0,0.0,0.0,0.0014109004,0.013156347,0.10338905,0.17293449,-0.0029694315,0.081170104,0.2018459,0.09261128,-0.18528806,0.14364488,-0.040338796,0.010155049,0.23053603,0.0803616,0.13382009,-0.019433195,0.06624739,0.04617064,0.0746629,-0.044942684,0.021130828,0.019282483,0.023764264,-0.015830616,0.06621338,2.0,1.0831065,0.31070408,-2.0,1.5428747,0.061463945,2.0,-0.8046525,-2.0,-0.78682184,0.25295132,2.0,2.0,-0.18859462,-2.0,-2.0,1.2913874,1.2144979,2.0,-0.5114529,-2.0,-2.0,-0.50189483,-2.0
2025-07-21 14:24:58.541,0.27999999999999997,280,14,-0.034719974,0.079925254,0.0156979,-0.024924252,-0.0738259,-0.00250246,0.0,0.0,0.0,0.00020975851,0.013096011,0.128949,0.16769068,0.00871727,0.09660683,0.21661784,0.07463445,-0.17925003,0.13749741,-0.035503533,0.028495995,0.17869698,0.041470047,-0.010562813,-0.012529694,0.028518304,0.020916793,0.046478424,0.061244283,0.02746228,-0.017031055,0.021557428,0.009387558,-0.06696728,2.0,-0.18859462,-2.0,-2.0,1.2913874,1.2144979,2.0,-0.5114529,-2.0,-2.0,-0.50189483,-2.0,2.0,1.0244119,-2.0,-2.0,0.20860207,-1.4881704,2.0,-0.37439084,-1.8927772,-2.0,0.5148458,-2.0
2025-07-21 14:24:58.563,0.3,300,15,0.004145123,0.051285937,-0.007142739,0.005296501,-0.060590442,-0.031725146,0.0,0.0,0.0,-0.0006221987,0.018876914,0.15908907,0.15699469,0.0045175217,0.12192746,0.21404544,0.08509087,-0.15566193,0.13727453,-0.03449569,0.04716153,0.17067735,-0.02212495,0.11298254,-0.074477434,-0.026923485,0.119223304,0.0115343025,0.019742887,0.045874134,0.0359095,0.048808817,-0.0047949953,0.0404468,2.0,1.0244119,-2.0,-2.0,0.20860207,-1.4881704,2.0,-0.37439084,-1.8927772,-2.0,0.5148458,-2.0,2.0,0.9037397,-2.0,-2.0,-0.054736827,2.0,2.0,-0.319665,0.43858904,-2.0,0.53550214,-2.0
2025-07-21 14:24:58.585,0.32,320,16,-0.05947545,0.013779093,-0.037032105,0.038449913,-0.047607683,0.04245853,0.0,0.0,0.0,-0.0009519395,0.023449633,0.1773438,0.14268066,-0.017785717,0.1258187,0.22679186,0.07521421,-0.1350095,0.12893447,-0.055316426,0.04910784,0.17602202,0.010825154,0.053527493,-0.10288787,-0.00081623025,-0.082920246,0.023625143,-0.056803204,0.042295955,-0.08469088,-0.0704941,0.049660254,-0.009590522,2.0,0.9037397,-2.0,-2.0,-0.054736827,2.0,2.0,-0.319665,0.43858904,-2.0,0.53550214,-2.0,1.8761709,1.872936,-2.0,-0.00045995414,-0.3585927,2.0,2.0,-0.8706192,1.2552155,-2.0,0.06039297,-2.0
2025-07-21 14:24:58.602,0.34,340,17,0.021957247,0.05896012,0.00433912,0.005612036,-0.04006301,-0.006089832,0.0,0.0,0.0,-0.00077325566,0.01697115,0.21573542,0.12354025,-0.016926397,0.08844921,0.23141728,0.0818676,-0.1284199,0.1206405,-0.038099367,0.06703625,0.18159133,0.055288684,0.04551176,-0.103487656,0.047274034,-0.10026718,-0.04174109,0.06546751,0.0010706107,-0.017120803,-0.05933736,0.10526324,0.027290722,1.8761709,1.872936,-2.0,-0.00045995414,-0.3585927,2.0,2.0,-0.8706192,1.2552155,-2.0,0.06039297,-2.0,-0.90928257,1.7085083,-2.0,2.0,-0.3495481,2.0,2.0,-1.5071027,-1.946785,-2.0,0.13024023,-2.0
2025-07-21 14:24:58.622,0.36000000000000004,360,18,-0.013029945,0.080588095,-0.0572491,0.0037501398,-0.031161573,-0.035775315,0.0,0.0,0.0,-0.00027560059,0.017605612,0.23270118,0.10062321,-0.023564642,0.045294553,0.23518363,0.08645564,-0.12376071,0.08913812,-0.035226207,0.08919056,0.18184483,-0.045995884,0.099775374,-0.07933094,0.032533128,-0.046684768,-0.010900824,0.047321856,-0.007944125,0.037522927,0.0017184615,0.041809283,-0.009401612,-0.90928257,1.7085083,-2.0,2.0,-0.3495481,2.0,2.0,-1.5071027,-1.946785,-2.0,0.13024023,-2.0,-2.0,1.2107463,-0.013515148,2.0,0.6470605,-2.0,2.0,-0.3764259,-2.0,-2.0,-0.53720975,-2.0
2025-07-21 14:24:58.641,0.38000000000000006,380,19,0.030865202,0.024470618,0.008770564,0.018554788,-0.087959036,0.016867686,0.0,0.0,0.0,0.000633085,0.0037324466,0.24271922,0.08364091,-0.01722329,0.04349626,0.208114,0.08841891,-0.12810522,0.08537413,-0.0414926,0.11585182,0.17525782,0.03382365,0.05442162,0.005674338,-0.05858875,0.05042308,-0.08055149,0.012474511,0.023324246,-0.06134339,-0.03419076,-0.032753013,0.06726442,-2.0,1.2107463,-0.013515148,2.0,0.6470605,-2.0,2.0,-0.3764259,-2.0,-2.0,-0.53720975,-2.0,-2.0,-0.29486448,1.4680611,2.0,0.38651145,-2.0,2.0,-0.720501,-2.0,-0.3795673,-0.42278945,-0.77151924
2025-07-21 14:24:58.667,0.4000000000000001,400,20,0.15247731,-0.042831734,0.087196626,0.012397383,-0.05839578,0.015070882,0.0,0.0,0.0,0.0011977627,-0.008013311,0.22644877,0.10911939,-0.009768494,0.053876683,0.20016259,0.087947406,-0.11225232,0.10134703,-0.05780512,0.12379887,0.17610139,-0.057116713,-0.11713978,0.068915576,-0.016494194,0.006865701,-0.103434645,-0.02021428,0.0769961,0.085045695,0.021461027,-0.077550866,0.0390249,-2.0,-0.29486448,1.4680611,2.0,0.38651145,-2.0,2.0,-0.720501,-2.0,-0.3795673,-0.42278945,-0.77151924,-2.0,-0.43293706,2.0,-2.0,1.0086689,-2.0,2.0,-0.82955694,-2.0,1.7772628,0.09672638,2.0
2025-07-21 14:24:58.686,0.4200000000000001,420,21,0.11670582,-0.04191873,0.063977644,0.010009956,-0.016640013,0.02496233,0.0,0.0,0.0,0.0005184337,-0.013085002,0.15070264,0.14398178,-0.01809585,0.06299316,0.18138942,0.0754451,-0.12015644,0.11080318,-0.045331433,0.1011311,0.2058903,0.024674088,-0.23914152,0.13755898,0.046250675,0.07872787,0.010506408,-0.016992053,0.024806868,0.07711451,0.08987853,0.0045028934,0.084661335,-2.0,-0.43293706,2.0,-2.0,1.0086689,-2.0,2.0,-0.82955694,-2.0,1.7772628,0.09672638,2.0,2.0,0.79351103,1.7167938,-2.0,1.1806195,-1.7643288,2.0,-1.0711372,-2.0,1.837288,-0.105069466,2.0
2025-07-21 14:24:58.704,0.4400000000000001,440,22,0.20335966,0.0072957575,0.069554776,-0.0050837505,-0.09753515,0.04558093,0.0,0.0,0.0,-0.0004070302,-0.0054987352,0.11573801,0.1679168,-0.019985365,0.07089901,0.16788958,0.06306451,-0.13706267,0.12831339,-0.022107461,0.075299606,0.2195557,0.059132434,0.016882373,0.10571011,-0.0034793997,0.003127134,-0.003009771,-0.007683218,0.055510957,0.03447597,0.069813356,-0.04865161,-0.029649701,2.0,0.79351103,1.7167938,-2.0,1.1806195,-1.7643288,2.0,-1.0711372,-2.0,1.837288,-0.105069466,2.0,2.0,0.3734464,-1.3055607,-2.0,1.7374986,-0.4752742,2.0,-0.61618286,-2.0,-1.181678,0.061388724,2.0
2025-07-21 14:24:58.723,0.46000000000000013,460,23,0.026592301,0.03138108,0.06527754,0.028013865,-0.025542455,-0.04908425,0.0,0.0,0.0,-0.0013488451,0.012653655,0.100576065,0.12036828,-0.014657919,0.07960519,0.16385777,0.065734096,-0.12627538,0.14230226,-0.011013005,0.05345367,0.23107131,0.018742315,-0.02238064,-0.2546209,-0.029049749,0.005361302,-0.04724099,-0.049855035,0.077656835,0.021184567,-0.08007825,-0.028367693,0.040228218,2.0,0.3734464,-1.3055607,-2.0,1.7374986,-0.4752742,2.0,-0.61618286,-2.0,-1.181678,0.061388724,2.0,2.0,0.48555985,-2.0,-2.0,1.3113877,1.0819212,2.0,-0.6925732,-1.7684532,-2.0,-0.17700958,-2.0
2025-07-21 14:24:58.746,0.48000000000000015,480,24,-0.04618934,-0.0180672,-0.03297155,0.00053352356,-0.080233805,-0.005595165,0.0,0.0,0.0,-0.0022650547,0.027034268,0.1138925,0.058960002,-0.005357885,0.10494242,0.15763043,0.06259262,-0.10907754,0.14632484,-0.0312815,0.054040242,0.19580677,-0.066200286,0.06918142,-0.04349617,0.0608076,0.101487815,0.011214064,-0.017307237,0.046600375,-0.06666666,0.024613706,0.05827284,-0.09263876,2.0,0.48555985,-2.0,-2.0,1.3113877,1.0819212,2.0,-0.6925732,-1.7684532,-2.0,-0.17700958,-2.0,2.0,1.2967528,-2.0,-2.0,0.2948452,-0.9930463,2.0,-0.20406002,-0.95234567,-2.0,0.5910778,-2.0
2025-07-21 14:24:58.774,0.5000000000000001,500,25,-0.05745239,0.02754523,0.01727947,-0.041804604,-0.009103393,0.048592623,0.0,0.0,0.0,-0.0028242648,0.026987633,0.1372087,0.062094737,-0.017115155,0.12653235,0.17551266,0.058017507,-0.08479343,0.13357079,-0.034505267,0.07096704,0.18596871,-0.05987905,0.06489163,0.013465616,-0.04673208,0.044456616,-0.029550185,0.042860314,0.031135332,-0.026747417,-0.06777803,0.100591116,0.06861594,2.0,1.2967528,-2.0,-2.0,0.2948452,-0.9930463,2.0,-0.20406002,-0.95234567,-2.0,0.5910778,-2.0,2.0,1.0521398,-2.0,-2.0,0.086346805,2.0,2.0,-0.52690375,2.0,-2.0,0.6419315,-2.0
2025-07-21 14:24:58.791,0.5200000000000001,520,26,-0.01637444,-0.029847585,-0.06720434,-0.062082022,-0.013835379,0.0490646,0.0,0.0,0.0,-0.0028812622,0.02981863,0.15390122,0.05580194,-0.038685333,0.12770467,0.17736734,0.066023305,-0.07065495,0.14675643,-0.035006657,0.08327026,0.18024516,0.018578017,0.003940308,0.067621216,-0.06724409,-0.036896273,0.11258728,0.039550982,0.005571452,0.019677036,0.06266567,0.07169574,-0.02529718,2.0,1.0521398,-2.0,-2.0,0.086346805,2.0,2.0,-0.52690375,2.0,-2.0,0.6419315,-2.0,1.090897,1.9577475,-2.0,-0.46397763,-0.4623763,2.0,1.7197526,-0.988501,2.0,-2.0,-0.18560022,-2.0
2025-07-21 14:24:58.822,0.5400000000000001,540,27,0.021392692,0.05342856,-0.047895115,-0.036085457,-0.007003862,0.00068353297,0.0,0.0,0.0,-0.0023726453,0.027661618,0.15873398,0.056184497,-0.05799087,0.10037807,0.20480289,0.07944502,-0.103457004,0.18184358,-0.037561573,0.1072621,0.18485223,-0.069013394,0.013826785,0.024386022,0.03043187,-0.14594752,0.0039974265,0.01667711,-0.016962415,0.08968599,0.027461711,0.03644545,0.07699362,1.090897,1.9577475,-2.0,-0.46397763,-0.4623763,2.0,1.7197526,-0.988501,2.0,-2.0,-0.18560022,-2.0,-2.0,2.0,-2.0,2.0,-0.49854463,2.0,2.0,-1.6208591,-2.0,-2.0,-0.27642766,-2.0
2025-07-21 14:24:58.840,0.5600000000000002,560,28,0.09778211,0.06765744,-0.027467463,0.010137672,-0.07469504,0.032225132,0.0,0.0,0.0,-0.0017285827,0.02274973,0.18071932,0.05177058,-0.046255123,0.04632895,0.21215785,0.09288592,-0.13743353,0.13593605,-0.043464553,0.12811181,0.20399842,-0.05725026,0.0017069564,0.014641561,0.05803645,-0.12347493,0.022463676,0.047052804,0.0017946212,-4.4390432e-05,0.061790593,0.016285952,0.043486457,-2.0,2.0,-2.0,2.0,-0.49854463,2.0,2.0,-1.6208591,-2.0,-2.0,-0.27642766,-2.0,-2.0,1.5187838,0.678896,2.0,0.67178357,-2.0,2.0,-0.2928593,-2.0,-1.4229311,-0.25774765,-2.0
2025-07-21 14:24:58.865,0.5800000000000002,580,29,0.011119868,-0.020258233,0.06461868,-0.048904233,-0.08515026,-0.027308114,0.0,0.0,0.0,-0.0010262282,-0.00092925783,0.21202466,0.063302554,-0.02436328,0.034466185,0.17412156,0.09335564,-0.121878654,0.13587123,-0.05230993,0.14747573,0.20684329,-0.008007273,0.12324701,0.07307539,-0.045688223,0.11010933,-0.12286839,0.02678898,0.105243705,-0.047181793,-0.08369477,0.06429338,-0.070416294,-2.0,1.5187838,0.678896,2.0,0.67178357,-2.0,2.0,-0.2928593,-2.0,-1.4229311,-0.25774765,-2.0,-2.0,-0.33553654,0.7115522,2.0,0.39786232,-2.0,2.0,-0.8998447,-2.0,0.34132633,0.1837422,0.96969706
2025-07-21 14:24:58.885,0.6000000000000002,600,30,0.031838812,0.10777216,0.106843546,-0.050365537,-0.09910235,-0.009935369,0.0,0.0,0.0,-0.0008789117,-0.011524007,0.20585018,0.075589426,-0.011423714,0.04243975,0.16867457,0.07304412,-0.10996167,0.14892831,-0.03902728,0.15902728,0.21527933,0.03841732,-0.07044635,0.02952014,-0.04513057,0.086529784,-0.020360457,0.061141506,-0.057194073,0.088344045,0.07088133,-0.060946334,-0.006060917,-2.0,-0.33553654,0.7115522,2.0,0.39786232,-2.0,2.0,-0.8998447,-2.0,0.34132633,0.1837422,0.96969706,-2.0,0.15411705,2.0,-2.0,1.6374254,-2.0,2.0,-1.5347996,-2.0,2.0,0.25880808,2.0
2025-07-21 14:24:58.903,0.6200000000000002,620,31,0.17429395,-0.044448845,-0.0077281813,-0.036846727,-0.08627014,0.025996309,0.0,0.0,0.0,-0.0020383575,-0.019314785,0.15572788,0.09442177,-0.022545895,0.065722175,0.16566077,0.06887397,-0.11458878,0.16972914,-0.038648374,0.14099327,0.23238446,-0.012731169,-0.18706943,0.1745679,-0.03718534,0.06820215,-0.06545585,-0.04408059,-0.029622193,0.08585335,0.048370652,-0.067214206,-0.040228494,-2.0,0.15411705,2.0,-2.0,1.6374254,-2.0,2.0,-1.5347996,-2.0,2.0,0.25880808,2.0,2.0,1.0540578,1.2918216,-2.0,1.1681808,-1.1154593,2.0,-0.5917771,-2.0,1.7634368,-0.109609075,2.0
2025-07-21 14:24:58.920,0.6400000000000002,640,32,0.12536648,0.053446263,0.033855494,-0.0787479,-0.029798126,-0.03015298,0.0,0.0,0.0,-0.0030659116,-0.00150784,0.14508359,0.12842649,-0.013016217,0.07112713,0.16534898,0.07881567,-0.121280156,0.18454218,-0.017743312,0.12528193,0.25342056,0.0826874,0.01476978,0.034533754,0.003624552,0.05237673,0.037304915,-0.017904019,0.018844187,-0.004699991,0.08077989,-0.12171714,-0.0109563805,2.0,1.0540578,1.2918216,-2.0,1.1681808,-1.1154593,2.0,-0.5917771,-2.0,1.7634368,-0.109609075,2.0,2.0,-0.35121596,-1.1583022,-2.0,2.0,-0.42287874,2.0,-0.4463699,-2.0,-1.2331183,-0.32338482,2.0
2025-07-21 14:24:58.940,0.6600000000000003,660,33,0.0495202,-0.0027976974,0.07039382,-0.062326115,-0.04106397,-0.048249967,0.0,0.0,0.0,-0.004075942,0.0062342877,0.11835796,0.08469438,-0.00585715,0.09863442,0.15633102,0.060402993,-0.099164516,0.19414577,-0.0035175711,0.08512609,0.26931176,0.018709155,-0.0882798,-0.08010251,-0.043637607,0.06663152,-0.021904657,-0.08206044,0.018330326,0.040896907,0.05209716,-0.04117963,0.009168057,2.0,-0.35121596,-1.1583022,-2.0,2.0,-0.42287874,2.0,-0.4463699,-2.0,-1.2331183,-0.32338482,2.0,2.0,0.602763,-0.9177255,-2.0,1.6676265,0.36544728,2.0,-0.8536432,-2.0,-2.0,-0.3688575,-2.0
2025-07-21 14:24:58.962,0.6800000000000003,680,34,0.014219962,-0.06360365,0.01181716,-0.08156276,-0.054377757,0.018598488,0.0,0.0,0.0,-0.0052018454,0.033632617,0.12212912,0.04710074,-0.013725808,0.12124863,0.16131942,0.0673797,-0.076004945,0.19316275,-0.029483587,0.103148855,0.26999873,-0.058475073,0.03876897,0.050299816,-0.014949118,0.06968015,0.085783444,-0.061835922,0.09280143,-0.04901099,-0.054696403,0.032670602,-0.06541222,2.0,0.602763,-0.9177255,-2.0,1.6676265,0.36544728,2.0,-0.8536432,-2.0,-2.0,-0.3688575,-2.0,1.4157996,1.1283156,-2.0,-2.0,0.1731604,-0.26776648,2.0,-0.0861173,-1.9060202,-2.0,0.5784475,-2.0
2025-07-21 14:24:58.992,0.7000000000000003,700,35,-0.022554768,-0.020346731,0.00022621872,-0.09371889,-0.019724444,0.008410533,0.0,0.0,0.0,-0.0060654324,0.03672041,0.14284962,0.06043529,-0.028883096,0.14426015,0.17988595,0.043424543,-0.048627686,0.19119261,-0.03814196,0.13245033,0.2479344,0.010107421,0.107049234,-0.031888124,-0.0033666992,-0.0019880573,-0.033553116,-0.031687245,0.076894954,-0.052565936,0.046684828,0.13488951,-0.023519535,1.4157996,1.1283156,-2.0,-2.0,0.1731604,-0.26776648,2.0,-0.0861173,-1.9060202,-2.0,0.5784475,-2.0,0.70926917,1.299368,-2.0,-2.0,-0.16311991,1.5207633,2.0,-0.38416672,-1.2696843,-2.0,0.803737,-2.0
2025-07-21 14:24:59.007,0.7200000000000003,720,36,0.0003740478,0.057071127,0.0012197054,-0.031280182,-0.0983061,0.0078103216,0.0,0.0,0.0,-0.0066569434,0.02807648,0.15664093,0.05573506,-0.027137673,0.15563287,0.19079104,0.04827832,-0.00844645,0.18780978,-0.030252874,0.16216145,0.23620309,0.0030194886,0.044522744,-0.04541754,-0.12188659,-0.050533686,0.08059831,-0.013790487,0.069597736,-0.08113644,0.013399802,0.054115094,-0.031628095,0.70926917,1.299368,-2.0,-2.0,-0.16311991,1.5207633,2.0,-0.38416672,-1.2696843,-2.0,0.803737,-2.0,-2.0,1.7401252,-2.0,0.7768701,-0.6365712,1.0413889,2.0,-0.6395511,-2.0,-2.0,0.88891226,-2.0
2025-07-21 14:24:59.034,0.7400000000000003,740,37,0.0076641478,0.10065695,-0.063474335,-0.06008668,-0.049135577,0.032075543,0.0,0.0,0.0,-0.0067147827,0.023704391,0.1825878,0.04648297,-0.044290632,0.10851356,0.20250918,0.051712714,0.034464724,0.17493136,-0.03604486,0.1926934,0.23326258,-0.06839814,0.053971067,-0.000552669,0.024588726,-0.14688382,0.0034371298,0.032243,0.0051567913,-0.019278739,0.04643556,0.10914409,-0.0036728703,-2.0,1.7401252,-2.0,0.7768701,-0.6365712,1.0413889,2.0,-0.6395511,-2.0,-2.0,0.88891226,-2.0,-2.0,1.6491642,-0.5741374,2.0,0.574494,-2.0,2.0,-0.2995123,-2.0,-1.6314046,-0.30177155,-2.0
2025-07-21 14:24:59.053,0.7600000000000003,760,38,0.0844097,0.07238779,0.030832296,-0.03408909,-0.059233785,-0.031324174,0.0,0.0,0.0,-0.005806109,0.013192296,0.22340384,0.028478056,-0.03667084,0.11346664,0.18365017,0.04596536,0.043312605,0.15864784,-0.042720564,0.22023481,0.23140968,-0.0143841645,0.09664476,-0.06575663,0.038404804,-0.00924856,-0.055842478,-0.018923674,0.09908409,-0.05087089,-0.030514466,0.10355813,-0.062159363,-2.0,1.6491642,-0.5741374,2.0,0.574494,-2.0,2.0,-0.2995123,-2.0,-1.6314046,-0.30177155,-2.0,-2.0,0.5406202,1.4481008,2.0,0.19517887,-2.0,2.0,-0.72659653,-2.0,-0.19723561,0.07911355,-2.0
2025-07-21 14:24:59.070,0.7800000000000004,780,39,0.19707695,0.09733951,0.017386265,-0.06533431,-0.11000137,-0.015221485,0.0,0.0,0.0,-0.0052426346,0.007959656,0.22358234,0.049176678,-0.030371595,0.13737072,0.1617404,0.034934733,0.052114926,0.16106743,-0.044794917,0.23133802,0.23509556,-0.0073244506,-0.02747226,0.14770317,-0.046535052,0.031648785,-0.03898019,0.025300182,-0.06203125,-0.036573995,-0.051638864,-0.02505055,-0.011579766,-2.0,0.5406202,1.4481008,2.0,0.19517887,-2.0,2.0,-0.72659653,-2.0,-0.19723561,0.07911355,-2.0,-2.0,-0.33692294,1.9660053,1.547322,0.48587394,-2.0,2.0,0.16568896,-2.0,2.0,0.23717117,2.0
2025-07-21 14:24:59.089,0.8000000000000004,800,40,0.23483354,0.23338102,0.08236572,-0.11019504,-0.069712736,0.016249133,0.0,0.0,0.0,-0.0056128567,0.005420044,0.17775816,0.09829112,-0.01842637,0.13862981,0.12745751,0.040846493,0.057984423,0.15098882,-0.031788312,0.2206876,0.25127333,-0.04725033,-0.16899964,0.14107332,0.06521649,0.017495265,-0.023051096,0.07474158,0.057337135,0.0037621015,0.07503845,-0.012281441,-0.009735917,-2.0,-0.33692294,1.9660053,1.547322,0.48587394,-2.0,2.0,0.16568896,-2.0,2.0,0.23717117,2.0,1.8091023,-0.34905067,2.0,-2.0,1.9547855,-2.0,2.0,-1.6656692,-2.0,2.0,0.10058331,2.0
2025-07-21 14:24:59.110,0.8200000000000004,820,41,0.36307362,0.19802833,-0.0031086984,-0.13064939,-0.098869294,0.04904339,0.0,0.0,0.0,-0.0066922363,0.008078161,0.113933615,0.13749883,-0.009002467,0.14809598,0.09527559,0.045625698,0.04402662,0.17439352,-0.0066173724,0.17856498,0.2603246,-0.022761926,-0.22067277,0.09522359,0.05157865,0.0012005056,-0.121738814,0.04278495,-0.053915612,0.0093669165,0.004700065,-0.041839477,0.016708212,1.8091023,-0.34905067,2.0,-2.0,1.9547855,-2.0,2.0,-1.6656692,-2.0,2.0,0.10058331,2.0,2.0,0.8911264,0.18906197,-2.0,1.897788,-1.0488459,2.0,-0.19862765,-2.0,-1.2097781,-0.26784897,2.0
2025-07-21 14:24:59.134,0.8400000000000004,840,42,0.22888245,0.10184803,0.0013332875,-0.17198151,-0.10121029,-0.013960335,0.0,0.0,0.0,-0.00735692,0.032204375,0.094573,0.12886557,0.0008787998,0.16395184,0.07966985,0.04930202,0.034433346,0.19143473,0.0027004916,0.14759515,0.30155194,-0.004973006,0.0034366737,-0.035884053,-0.057119414,0.09403144,-0.072631374,-0.075017676,0.046974942,-0.037454188,-0.018390387,-0.12107843,0.065347314,2.0,0.8911264,0.18906197,-2.0,1.897788,-1.0488459,2.0,-0.19862765,-2.0,-1.2097781,-0.26784897,2.0,2.0,-0.082032904,-2.0,-2.0,0.9816522,0.6656219,2.0,-0.23372364,-2.0,-2.0,-0.4301737,-2.0
2025-07-21 14:24:59.154,0.8600000000000004,860,43,0.065089844,-0.019233646,0.009722734,-0.118018866,-0.099807434,-0.041418865,0.0,0.0,0.0,-0.0076827845,0.048348837,0.09611588,0.05317662,-0.018613081,0.1867504,0.07625238,0.052776568,0.052416164,0.19791134,-0.008639521,0.15548626,0.31856826,0.07127479,-0.05269126,-0.30420804,-0.061993934,0.034467127,0.07083605,-0.033499222,-0.00638206,0.006392034,-0.08991209,-0.04904092,-0.056548964,2.0,-0.082032904,-2.0,-2.0,0.9816522,0.6656219,2.0,-0.23372364,-2.0,-2.0,-0.4301737,-2.0,2.0,2.0,-2.0,-2.0,0.37621877,0.13377023,2.0,-0.5880142,-1.0025787,-2.0,1.1447202,-2.0
2025-07-21 14:24:59.170,0.8800000000000004,880,44,-0.028273657,-0.058472425,-0.0019643176,-0.18927193,-0.12643713,0.044373184,0.0,0.0,0.0,-0.008279984,0.06250132,0.120669775,-0.028303454,-0.026336804,0.19858842,0.083086275,0.03445981,0.07284854,0.18354411,-0.014638062,0.18147579,0.31647477,0.08432225,0.10942572,-0.24455144,-0.12461336,0.06899662,0.09366672,-0.09408892,0.010880227,0.028476031,-0.04578269,0.054270014,-0.08749824,2.0,2.0,-2.0,-2.0,0.37621877,0.13377023,2.0,-0.5880142,-1.0025787,-2.0,1.1447202,-2.0,2.0,1.9277449,-2.0,-2.0,-0.31304634,2.0,2.0,-0.604931,2.0,-2.0,1.6783656,-2.0
2025-07-21 14:24:59.188,0.9000000000000005,900,45,-0.12693915,-0.111220874,-0.102862984,-0.12713516,-0.10318506,0.008038179,0.0,0.0,0.0,-0.008334177,0.062918305,0.17780034,-0.082703516,-0.054632295,0.17360416,0.12177383,0.04514036,0.06985896,0.21992087,-0.0418588,0.21129203,0.28701094,-0.0354778,0.14527203,-0.04123005,0.0132501535,-0.03659355,0.18037365,0.04186705,-0.060203925,-0.017730772,0.022596158,0.19669645,0.034134176,2.0,1.9277449,-2.0,-2.0,-0.31304634,2.0,2.0,-0.604931,2.0,-2.0,1.6783656,-2.0,-0.12473908,2.0,-2.0,0.83212894,-0.43871772,2.0,1.5593312,-1.3204813,0.10334416,-2.0,-0.3772419,-2.0
2025-07-21 14:24:59.208,0.9200000000000005,920,46,-0.1409882,-0.18679164,0.022749225,-0.13617621,-0.07006166,0.012113317,0.0,0.0,0.0,-0.0072443536,0.03633134,0.1976417,-0.055511624,-0.06641763,0.11871728,0.16627306,0.049205,0.048622888,0.24089088,-0.030568453,0.2689178,0.27469674,0.029032435,0.040983256,0.0611615,0.06870232,-0.11520258,0.0016153927,0.028791107,-0.083898395,0.020124152,0.030813416,0.082123555,-0.07367204,-0.12473908,2.0,-2.0,0.83212894,-0.43871772,2.0,1.5593312,-1.3204813,0.10334416,-2.0,-0.3772419,-2.0,-2.0,1.7599237,-2.0,2.0,-0.8142153,0.49741423,2.0,-0.93726176,-2.0,-2.0,0.93914866,-2.0
2025-07-21 14:24:59.234,0.9400000000000005,940,47,-0.12623638,-0.07951038,0.018109554,-0.0867684,-0.08155911,-0.0133314,0.0,0.0,0.0,-0.006019628,0.025858985,0.21461627,-0.030145343,-0.050334774,0.05653883,0.16570105,0.038165994,0.037863877,0.23171696,-0.036720984,0.29348862,0.26057932,-0.0065876646,0.023172196,0.093083404,0.02069175,-0.07667229,0.0038742588,-0.04601549,0.079289906,-0.08519931,0.023260098,0.018272482,0.010072626,-2.0,1.7599237,-2.0,2.0,-0.8142153,0.49741423,2.0,-0.93726176,-2.0,-2.0,0.93914866,-2.0,-2.0,1.0684155,-0.3353291,2.0,0.39991367,-2.0,2.0,-0.0581201,-2.0,-0.5396609,0.0919944,-2.0
2025-07-21 14:24:59.252,0.9600000000000005,960,48,-0.0075688115,-0.11184687,0.051381942,-0.12443268,-0.08368967,-0.0422271,0.0,0.0,0.0,-0.0051962845,0.02530432,0.224547,-0.012866605,-0.047125384,0.050864324,0.15928407,0.03341482,0.07755793,0.2123946,-0.057289593,0.3169945,0.22974329,-0.01166032,0.05210337,-0.030444635,0.07078037,-0.013653925,-0.05899518,0.038083185,0.016315047,-0.08711466,-0.057572927,0.040847663,-0.089714244,-2.0,1.0684155,-0.3353291,2.0,0.39991367,-2.0,2.0,-0.0581201,-2.0,-0.5396609,0.0919944,-2.0,-2.0,0.3124348,1.513261,2.0,0.5354036,-2.0,2.0,-0.3346742,-2.0,1.8289281,0.3787452,-1.4086835
2025-07-21 14:24:59.270,0.9800000000000005,980,49,0.0029093993,0.010568565,0.038171962,-0.12639964,-0.02428676,-0.022882493,0.0,0.0,0.0,-0.004882107,0.009315675,0.21630299,0.007978271,-0.036766414,0.06077568,0.14193985,0.050779704,0.08591205,0.21129759,-0.04011246,0.34663656,0.20810734,-0.072874114,-0.1253053,0.17494538,0.020912206,0.05482488,-0.057981133,0.0025907557,-0.022647334,-0.007302779,0.05932233,0.027542863,-0.0660611,-2.0,0.3124348,1.513261,2.0,0.5354036,-2.0,2.0,-0.3346742,-2.0,1.8289281,0.3787452,-1.4086835,-2.0,-0.90291613,2.0,-1.6101389,1.8754405,-2.0,2.0,-0.09158391,-2.0,2.0,0.29461455,2.0
2025-07-21 14:24:59.289,1.0000000000000004,1000,50,0.13416712,-0.022475088,0.018720398,-0.075459875,-0.09511424,0.030791767,0.0,0.0,0.0,-0.005148217,-0.0048094555,0.15876691,0.08609882,-0.02278706,0.08247023,0.11701983,0.03954365,0.08861987,0.19142283,-0.03385008,0.32160485,0.22693734,-0.013588142,-0.15124561,0.13091512,0.004357109,0.014944341,-0.054281507,-0.019724037,0.07504824,0.012838359,0.0144428145,-0.1735915,0.008998248,-2.0,-0.90291613,2.0,-1.6101389,1.8754405,-2.0,2.0,-0.09158391,-2.0,2.0,0.29461455,2.0,2.0,0.22943148,2.0,-2.0,1.1479546,-2.0,2.0,-0.9414708,-2.0,2.0,-0.7333789,2.0
2025-07-21 14:24:59.309,1.0200000000000005,1020,51,0.23345034,0.017389404,-0.03748493,-0.13412656,-0.04613368,-0.038967937,0.0,0.0,0.0,-0.005431837,0.006603148,0.089205146,0.13817373,-0.017608354,0.0986419,0.0941755,0.048369147,0.07986289,0.20246336,-0.00462868,0.23474213,0.25364292,0.034052856,-0.046936627,0.12794362,0.03737031,-0.037111912,-0.0243102,-0.031785924,-0.06222055,-0.04031022,0.1056551,-0.24745141,0.16098148,2.0,0.22943148,2.0,-2.0,1.1479546,-2.0,2.0,-0.9414708,-2.0,2.0,-0.7333789,2.0,2.0,-0.042424988,-0.33219245,-2.0,2.0,-2.0,2.0,0.24607337,-2.0,-0.036625884,-0.28597653,2.0
2025-07-21 14:24:59.334,1.0400000000000005,1040,52,0.15691398,-0.042767152,0.05397973,-0.08890428,-0.04535271,0.009521636,0.0,0.0,0.0,-0.0056733666,0.027336245,0.051447902,0.12630863,-0.014949121,0.1255586,0.059682667,0.048555274,0.084950946,0.21363287,0.015306389,0.16700044,0.26284006,0.11488865,0.015198036,-0.02469245,-0.02764072,0.09346911,-0.06329422,-0.04387523,0.021522317,0.03347352,0.03518015,-0.15970603,0.09031989,2.0,-0.042424988,-0.33219245,-2.0,2.0,-2.0,2.0,0.24607337,-2.0,-0.036625884,-0.28597653,2.0,2.0,0.46623364,-1.5889179,-2.0,1.2433115,0.029553406,2.0,-0.5631908,-2.0,-2.0,-0.23786399,-2.0
2025-07-21 14:24:59.352,1.0600000000000005,1060,53,0.09024611,-0.14146551,-0.008368109,-0.09909963,-0.07506638,0.011215076,0.0,0.0,0.0,-0.0062493817,0.047563232,0.052485216,0.041801404,-0.030939806,0.14707819,0.06284086,0.03244686,0.10406478,0.21405636,-0.0005555948,0.14875853,0.25585273,0.10210509,0.064992964,-0.26893267,0.03504475,0.05362019,0.04025821,-0.026014725,0.0962488,0.079965524,-0.014326759,0.0963015,-0.07624885,2.0,0.46623364,-1.5889179,-2.0,1.2433115,0.029553406,2.0,-0.5631908,-2.0,-2.0,-0.23786399,-2.0,2.0,1.964253,-2.0,-2.0,0.24661922,0.2934245,2.0,-0.4694637,-0.59859926,-2.0,1.0266095,-2.0
2025-07-21 14:24:59.371,1.0800000000000005,1080,54,-0.07638217,-0.12786332,-0.0013608937,-0.12132703,-0.035980612,-0.0070673893,0.0,0.0,0.0,-0.006857814,0.065361254,0.08670531,-0.012670361,-0.048694294,0.16070057,0.06554124,0.026092542,0.12430053,0.23062396,-0.0071970434,0.17545728,0.2547786,0.052175693,0.0565991,0.02179699,-0.013104742,0.07398789,0.04363459,-0.043049634,0.052526474,0.045990504,0.04629072,0.13259141,-0.08375535,2.0,1.964253,-2.0,-2.0,0.24661922,0.2934245,2.0,-0.4694637,-0.59859926,-2.0,1.0266095,-2.0,1.1376349,2.0,-2.0,0.05230923,-0.23922342,2.0,2.0,-0.84651244,2.0,-2.0,1.2508131,-2.0
2025-07-21 14:24:59.389,1.1000000000000005,1100,55,-0.0033806846,-0.029584112,-0.030977063,-0.1258858,-0.019582855,-0.024749966,0.0,0.0,0.0,-0.006779943,0.058922984,0.10468536,-0.0071401657,-0.04424734,0.12544532,0.091548316,0.045531046,0.09367881,0.23804192,0.0074324203,0.21130581,0.24161318,-0.08393346,0.07545213,0.08313112,-0.08518922,-0.1562767,0.14127211,0.00040193106,-0.059465904,0.098177016,-0.055835485,0.15075773,-0.076649256,1.1376349,2.0,-2.0,0.05230923,-0.23922342,2.0,2.0,-0.84651244,2.0,-2.0,1.2508131,-2.0,-2.0,1.9251857,-2.0,2.0,-0.6090679,2.0,2.0,-1.27809,0.67329115,-2.0,0.011178575,-2.0
2025-07-21 14:24:59.409,1.1200000000000006,1120,56,0.09261663,0.01244555,-0.0811355,-0.12460843,-0.057411768,0.045280788,0.0,0.0,0.0,-0.0056820167,0.052411053,0.11136481,0.008749542,-0.037841327,0.08578072,0.14325133,0.057896852,0.058833838,0.2688893,0.0039329343,0.22661364,0.21517049,-0.029488804,-0.02489172,-0.020730054,-0.0014366158,-0.13448164,0.1343986,0.047315013,-0.03001078,0.015905391,-0.015525997,-0.008128467,-0.038596682,-2.0,1.9251857,-2.0,2.0,-0.6090679,2.0,2.0,-1.27809,0.67329115,-2.0,0.011178575,-2.0,-2.0,2.0,-2.0,2.0,-0.24213874,-0.53112185,2.0,-0.73878413,-2.0,-2.0,-0.21980307,-2.0
2025-07-21 14:24:59.435,1.1400000000000006,1140,57,0.04704741,0.00788878,-0.08429219,-0.1707207,-0.026701298,0.009697244,0.0,0.0,0.0,-0.004052206,0.037804365,0.12801562,-0.0045684376,-0.014275025,0.026789447,0.12915473,0.049488477,0.05096207,0.27438894,-0.008264251,0.25693697,0.22276446,-0.104063764,0.10176411,0.028015839,0.08043583,-0.14067186,-0.0711356,-0.057584547,0.03199471,-0.065596856,0.0064331754,0.121654615,0.026532961,-2.0,2.0,-2.0,2.0,-0.24213874,-0.53112185,2.0,-0.73878413,-2.0,-2.0,-0.21980307,-2.0,-2.0,2.0,2.0,2.0,1.1338352,-2.0,2.0,-0.43987435,-2.0,-0.316376,-0.9129585,-2.0
2025-07-21 14:24:59.454,1.1600000000000006,1160,58,0.10890538,0.03856062,-0.0007711141,-0.10341054,0.00078760413,0.019471604,0.0,0.0,0.0,-0.0025207628,0.008794592,0.1795554,0.036898386,0.012169369,0.02874837,0.034386944,0.05584968,0.0631174,0.27031186,-0.010152642,0.27462113,0.22595058,-0.007845364,0.097533345,0.175642,0.007689296,0.07977564,-0.09096583,-0.01943609,-0.030761003,0.055536952,0.051230893,0.028997727,0.057021637,-2.0,2.0,2.0,2.0,1.1338352,-2.0,2.0,-0.43987435,-2.0,-0.316376,-0.9129585,-2.0,-2.0,-0.9082595,2.0,1.2648969,0.44523013,-2.0,2.0,-0.41578215,-2.0,1.5431021,-0.24052644,2.0
2025-07-21 14:24:59.491,1.1800000000000006,1180,59,0.17524032,0.1490236,-0.019437049,-0.2001293,-0.05540984,-0.008576395,0.0,0.0,0.0,-0.0019647372,0.011633207,0.17997219,0.08593071,0.019877722,0.048422765,0.020278933,0.04115726,0.084000476,0.27365226,-4.17112e-05,0.2577581,0.24763566,0.051332,-0.07921151,0.2321186,0.010061708,-0.032441393,-0.077175915,-0.06114721,0.05869961,0.09626397,0.034559388,-0.043714672,0.06083604,-2.0,-0.9082595,2.0,1.2648969,0.44523013,-2.0,2.0,-0.41578215,-2.0,1.5431021,-0.24052644,2.0,1.8829875,-0.16658197,2.0,-2.0,1.4448984,-2.0,2.0,-0.6417972,-2.0,2.0,-0.4054407,2.0
2025-07-21 14:24:59.520,1.2000000000000006,1200,60,0.19349906,0.060544252,0.04133663,-0.14286816,-0.014222468,0.038049623,0.0,0.0,0.0,-0.0025107225,0.0035890383,0.12304721,0.13943234,0.040215272,0.04648981,-0.0012789943,0.04544199,0.069164045,0.27833015,0.015892126,0.20646791,0.27244592,-0.016756635,-0.09892895,0.12156786,0.025466155,-0.024743963,-0.08379646,0.018473009,-0.036514573,-0.018942777,-0.016310021,-0.050247386,0.03304489,1.8829875,-0.16658197,2.0,-2.0,1.4448984,-2.0,2.0,-0.6417972,-2.0,2.0,-0.4054407,2.0,2.0,0.45360142,-0.6742504,-2.0,1.7253635,-1.6289936,2.0,-0.19256419,-2.0,-0.7004384,-0.10768116,2.0
2025-07-21 14:24:59.539,1.2200000000000006,1220,61,0.17676793,0.030180532,0.007011273,-0.1670534,-0.033478692,0.037885506,0.0,0.0,0.0,-0.0034474407,0.03079811,0.08164195,0.12368757,0.020732151,0.057074267,-0.0071714115,0.050965548,0.087345175,0.29806897,0.024207624,0.17174307,0.29933307,0.012125274,0.049423035,-0.18850347,0.04320738,-0.029219799,-0.05955072,0.049665358,0.107394606,-0.040173166,-0.08414712,-0.052011557,0.06991333,2.0,0.45360142,-0.6742504,-2.0,1.7253635,-1.6289936,2.0,-0.19256419,-2.0,-0.7004384,-0.10768116,2.0,2.0,0.3918622,-2.0,-2.0,1.1417187,0.34688544,2.0,-0.060003698,-2.0,-2.0,-0.32965058,-2.0
2025-07-21 14:24:59.562,1.2400000000000007,1240,62,-0.08012206,-0.15468055,0.02201335,-0.16202274,-0.010382109,0.034465455,0.0,0.0,0.0,-0.00460718,0.04334646,0.08791136,0.048253667,0.023078814,0.0935063,0.014781114,0.026001658,0.10896622,0.2842113,0.0043056565,0.16600932,0.31279317,0.09090707,-0.01208814,-0.25483766,-0.112888396,0.062868185,-0.02412567,-0.043511663,0.024132328,0.021107567,0.0042846035,0.08840164,-0.08549501,2.0,0.3918622,-2.0,-2.0,1.1417187,0.34688544,2.0,-0.060003698,-2.0,-2.0,-0.32965058,-2.0,2.0,2.0,-2.0,-2.0,0.4190138,1.080291,2.0,-0.48527896,0.35894793,-2.0,1.1086785,-2.0
2025-07-21 14:24:59.586,1.2600000000000007,1260,63,-0.19737494,-0.20649515,-0.034878958,-0.1940312,0.042897984,0.020883609,0.0,0.0,0.0,-0.005552116,0.045154274,0.1283469,-0.032844346,-0.012215377,0.10858144,0.037221275,0.014440258,0.14414233,0.29022017,-0.010727107,0.20510137,0.2857414,-0.0630975,0.09186053,-0.054841083,-0.003978419,0.097851194,0.1541818,-0.02462603,0.09688713,0.06218077,-0.059359558,0.13707912,-0.05436117,2.0,2.0,-2.0,-2.0,0.4190138,1.080291,2.0,-0.48527896,0.35894793,-2.0,1.1086785,-2.0,1.1412454,2.0,-2.0,-0.002318427,-0.33056855,2.0,2.0,-1.061559,2.0,-2.0,0.62685686,-2.0
2025-07-21 14:24:59.603,1.2800000000000007,1280,64,-0.10892465,-0.16513582,0.056477904,-0.1228676,0.010537462,0.041354608,0.0,0.0,0.0,-0.0054662684,0.04698545,0.15383695,-0.029160455,-0.044360373,0.085535884,0.0821483,0.03225088,0.120220646,0.29349875,-0.001476934,0.24581312,0.24357364,-0.053524613,0.03230367,0.13020259,-0.03952214,-0.09372714,0.17269531,0.042221133,-0.118986934,0.059760027,-0.0112707475,0.08837437,-0.07860557,1.1412454,2.0,-2.0,-0.002318427,-0.33056855,2.0,2.0,-1.061559,2.0,-2.0,0.62685686,-2.0,-2.0,1.9281014,-2.0,2.0,-0.6746992,2.0,2.0,-1.461767,-0.7768503,-2.0,0.7674894,-2.0
2025-07-21 14:24:59.622,1.3000000000000007,1300,65,-0.13047147,-0.032454304,0.0069468925,-0.1087359,0.031655606,-9.361108e-06,0.0,0.0,0.0,-0.005055391,0.04196475,0.1675106,-0.008769805,-0.026150716,0.03737575,0.12503758,0.034685243,0.104188375,0.3092327,-0.017465662,0.29168782,0.22089615,0.05804867,0.06939208,0.052776113,0.0042487867,-0.073546134,0.07470835,-0.028652452,-0.04243217,-0.056235082,0.024264824,0.09942998,-0.1202013,-2.0,1.9281014,-2.0,2.0,-0.6746992,2.0,2.0,-1.461767,-0.7768503,-2.0,0.7674894,-2.0,-2.0,1.5163765,-2.0,2.0,-0.13487482,-2.0,2.0,-0.42231634,-2.0,-2.0,0.37907952,-2.0
2025-07-21 14:24:59.639,1.3200000000000007,1320,66,-0.037925933,-0.014699478,-0.029118216,-0.09670964,-0.0048243557,-0.024473395,0.0,0.0,0.0,-0.0044880407,0.045765407,0.18408309,-0.0040105972,-0.0059119654,0.009675189,0.07480049,0.039741844,0.09340931,0.28986922,-0.00834996,0.30172828,0.20397574,0.009988127,0.10107216,0.04904638,0.101694204,-0.01556557,-0.26771462,-0.019403026,0.01706736,-0.09155599,-0.02337125,0.108682424,-0.08189844,-2.0,1.5163765,-2.0,2.0,-0.13487482,-2.0,2.0,-0.42231634,-2.0,-2.0,0.37907952,-2.0,-2.0,1.783726,1.9932244,2.0,0.79188514,-2.0,2.0,-0.5380269,-2.0,-0.17317244,-0.4816841,-2.0
2025-07-21 14:24:59.660,1.3400000000000007,1340,67,-0.02688727,-0.023087418,0.07521376,-0.108596206,0.047420472,0.02362114,0.0,0.0,0.0,-0.003832445,0.027941095,0.22649238,0.024612805,0.0012722109,0.027366988,0.0034214146,0.024908317,0.12435246,0.2856947,-0.013863715,0.3192846,0.18323731,0.031842068,0.10722084,0.13548349,0.02467885,-0.015928142,-0.16761152,0.0025869298,0.04844366,0.01731985,-0.06747634,-0.008635343,-0.05027618,-2.0,1.783726,1.9932244,2.0,0.79188514,-2.0,2.0,-0.5380269,-2.0,-0.17317244,-0.4816841,-2.0,-2.0,-0.47464895,2.0,2.0,0.6955656,-2.0,2.0,-0.3287883,-2.0,2.0,0.19617116,2.0
2025-07-21 14:24:59.685,1.3600000000000008,1360,68,0.13107122,0.05848793,0.008805636,-0.13208668,-0.0126880845,-0.005182762,0.0,0.0,0.0,-0.003778479,0.021187857,0.20018493,0.087387376,0.024381407,0.0277556,-0.011154882,0.029967336,0.13348709,0.2703342,-0.003998483,0.3010573,0.20463441,0.049424503,-0.070868805,0.08589507,-0.0017265669,-0.05507668,-0.01216409,0.08229671,-0.0077083395,-0.049351733,0.06461041,-0.16534227,0.01944893,-2.0,-0.47464895,2.0,2.0,0.6955656,-2.0,2.0,-0.3287883,-2.0,2.0,0.19617116,2.0,1.9021511,-0.15939063,2.0,-2.0,1.9311551,-2.0,2.0,-0.8950384,-2.0,2.0,-0.35962486,2.0
2025-07-21 14:24:59.702,1.3800000000000008,1380,69,0.20213369,0.04663673,0.0017990834,-0.17494218,0.057123136,0.0063324124,0.0,0.0,0.0,-0.0044950955,0.015080394,0.14593619,0.14462058,0.020139957,0.039600253,-0.024982011,0.041638564,0.13206229,0.28124323,0.017912235,0.23027743,0.23020273,-0.028607285,-0.13666603,0.10337226,-0.033049937,-0.002068532,-0.03289311,-0.022331081,-0.0839359,-0.03210803,0.064860985,-0.13648005,0.06996013,1.9021511,-0.15939063,2.0,-2.0,1.9311551,-2.0,2.0,-0.8950384,-2.0,2.0,-0.35962486,2.0,2.0,0.48496896,-1.0120156,-2.0,1.5574623,-1.7662084,2.0,0.09116894,-2.0,-0.9039407,-0.118834175,2.0
2025-07-21 14:24:59.721,1.4000000000000008,1400,70,0.11239596,-0.020827511,0.0016993431,-0.17815623,0.060218032,-0.035954803,0.0,0.0,0.0,-0.0050478396,0.03203077,0.111007296,0.116815194,0.025242006,0.03762132,-0.033388235,0.046238735,0.13966323,0.29208896,0.026149588,0.18410563,0.25121948,0.0029388736,-0.097395,-0.11678158,-0.063245624,0.051031042,-0.017549014,-0.044544812,0.06613478,-0.003132783,-0.062034864,-0.09588468,0.052116152,2.0,0.48496896,-1.0120156,-2.0,1.5574623,-1.7662084,2.0,0.09116894,-2.0,-0.9039407,-0.118834175,2.0,2.0,0.4491125,-2.0,-2.0,0.9376263,0.27660537,2.0,0.11447224,-1.9931532,-2.0,-0.056382917,-2.0
2025-07-21 14:24:59.741,1.4200000000000008,1420,71,-0.040595043,-0.12712707,0.016640417,-0.15423258,0.070954934,0.0055107526,0.0,0.0,0.0,-0.005547255,0.05362409,0.11069835,0.029526886,0.00583289,0.058968365,-0.014704896,0.03994664,0.15953836,0.27791122,0.0037446667,0.16262074,0.25227755,0.0065379334,-0.020164736,-0.24275114,-0.008497891,0.11748499,0.06911837,-0.06263779,0.04428697,-0.0073427893,-0.064029,-0.026506275,0.008431163,2.0,0.4491125,-2.0,-2.0,0.9376263,0.27660537,2.0,0.11447224,-1.9931532,-2.0,-0.056382917,-2.0,2.0,1.8971536,-2.0,-2.0,0.37592322,0.9910126,2.0,-0.37065643,-1.6374173,-2.0,0.8952859,-2.0
2025-07-21 14:24:59.763,1.4400000000000008,1440,72,-0.053815905,-0.002107368,-0.011812422,-0.15141948,0.036332134,-0.04383503,0.0,0.0,0.0,-0.006088608,0.05286902,0.12830266,-0.026673324,-0.012757853,0.06843859,0.012266274,0.02723958,0.18968792,0.272885,-0.0033296186,0.19760445,0.25200972,-0.021438524,0.11263926,-0.08380201,-0.03608013,0.040499818,0.16477662,-0.010550567,0.12477013,-0.082088836,-0.0100663835,0.064460374,-0.11288396,2.0,1.8971536,-2.0,-2.0,0.37592322,0.9910126,2.0,-0.37065643,-1.6374173,-2.0,0.8952859,-2.0,2.0,2.0,-2.0,0.26440555,0.040861066,1.9175688,2.0,-0.6553754,-0.6021734,-2.0,0.96310776,-2.0
2025-07-21 14:24:59.785,1.4600000000000009,1460,73,-0.043649755,0.116336636,-0.109847404,-0.20715936,0.01981035,-0.025440998,0.0,0.0,0.0,-0.00605173,0.060878363,0.14524996,-0.014549525,-0.031932957,0.08501636,0.07131738,0.022367341,0.20802194,0.2611449,0.019469358,0.24774855,0.2407709,0.065710306,0.109750636,0.06868393,-0.004756906,-0.08322778,0.096552536,0.011618115,0.020636074,0.023992926,0.091388136,0.09795915,-0.0002742487,2.0,2.0,-2.0,0.26440555,0.040861066,1.9175688,2.0,-0.6553754,-0.6021734,-2.0,0.96310776,-2.0,0.2581943,2.0,-2.0,2.0,-0.48075193,1.5820771,2.0,-1.0672512,-2.0,-2.0,-0.31733435,-2.0
2025-07-21 14:24:59.803,1.4800000000000009,1480,74,0.04366313,0.13409883,-0.09889462,-0.21823364,-0.024106175,0.0075987624,0.0,0.0,0.0,-0.0050411257,0.07296048,0.1682545,-0.029673181,-0.03120564,0.04650599,0.10676928,0.03755834,0.21428572,0.25747913,0.016602578,0.25382954,0.23121929,0.03122252,0.09975247,0.04326029,-0.027720207,-0.123514056,0.01476629,0.017737113,0.08085253,0.033351596,0.0026744439,0.06545306,0.030613277,0.2581943,2.0,-2.0,2.0,-0.48075193,1.5820771,2.0,-1.0672512,-2.0,-2.0,-0.31733435,-2.0,-2.0,2.0,2.0,2.0,1.3075147,-2.0,2.0,-0.19304945,-2.0,-1.7483629,-1.0878304,-2.0
2025-07-21 14:24:59.822,1.5000000000000009,1500,75,-0.01339477,-0.08287576,-0.0141285015,-0.12971252,-0.014848784,-0.04546662,0.0,0.0,0.0,-0.0036717963,0.046389133,0.21621896,0.020444449,6.154176e-07,0.06126531,0.06022327,0.04233173,0.23123673,0.2483519,0.012959491,0.28218284,0.22132899,-0.040742833,0.19790404,0.21254416,-0.0034539944,0.115567476,-0.20677933,-0.096404284,0.060208943,0.045319848,-0.021038458,0.074187316,-0.010010574,-2.0,2.0,2.0,2.0,1.3075147,-2.0,2.0,-0.19304945,-2.0,-1.7483629,-1.0878304,-2.0,-2.0,-1.0998995,2.0,2.0,0.45728457,-2.0,2.0,-0.23481888,-2.0,-1.3079231,-0.7853747,-1.2710207
2025-07-21 14:24:59.840,1.520000000000001,1520,76,0.05251304,-0.15682638,0.009741625,-0.12873836,0.0132342065,-0.011558849,0.0,0.0,0.0,-0.003127249,0.01734997,0.18737306,0.0872432,0.008953806,0.096653864,-0.027031716,0.016739348,0.23651311,0.23043928,0.01050675,0.28785056,0.21308798,-0.11348592,-0.12521738,0.23389457,0.056097716,-0.0403433,-0.043173183,-0.06298938,-0.076227695,0.0017790013,-0.008695692,-0.08187633,0.023292731,-2.0,-1.0998995,2.0,2.0,0.45728457,-2.0,2.0,-0.23481888,-2.0,-1.3079231,-0.7853747,-1.2710207,-2.0,-0.8273716,2.0,1.6570303,0.9668603,-2.0,2.0,0.40037102,-2.0,0.7373271,-0.32528836,2.0
2025-07-21 14:24:59.862,1.540000000000001,1540,77,0.058932185,0.024051096,0.102828704,-0.1653617,0.07171935,-0.043373402,0.0,0.0,0.0,-0.003318501,-0.0002828914,0.10175606,0.14958912,0.011914412,0.10632757,-0.03664992,0.009834392,0.24034037,0.24533013,0.013178193,0.26361254,0.22152367,-0.077741005,-0.25015482,0.03806078,0.002749381,-0.035316847,-0.005730087,0.053371124,-0.033071116,-0.039066818,0.0664153,-0.1189844,0.004923808,-2.0,-0.8273716,2.0,1.6570303,0.9668603,-2.0,2.0,0.40037102,-2.0,0.7373271,-0.32528836,2.0,0.32395825,0.1670721,2.0,-2.0,1.5664152,-2.0,2.0,-2.0,-2.0,2.0,0.22819477,2.0
2025-07-21 14:24:59.885,1.560000000000001,1560,78,0.09537086,0.09177024,-0.018917236,-0.15848655,-0.019689957,-0.021802165,0.0,0.0,0.0,-0.0048232405,0.0018513581,0.044623423,0.17335594,0.028519472,0.093122385,-0.05263168,0.0193746,0.2352913,0.25069365,0.026033353,0.21378826,0.24278064,-0.052235264,-0.10517682,0.043441642,0.021450907,-0.065743335,0.032601018,0.0676413,-0.07330787,0.045309924,0.08533626,-0.093863904,-0.008748341,0.32395825,0.1670721,2.0,-2.0,1.5664152,-2.0,2.0,-2.0,-2.0,2.0,0.22819477,2.0,2.0,1.2386978,-0.044024978,-2.0,1.7916541,-1.4140755,2.0,0.17556715,-2.0,-0.69132257,-0.06947593,2.0
2025-07-21 14:24:59.901,1.580000000000001,1580,79,0.05117435,0.048780054,-0.019397601,-0.15140562,0.06864678,-0.029732699,0.0,0.0,0.0,-0.005939945,0.004601992,0.051862866,0.15459721,0.02652081,0.10092583,-0.051724125,0.01738163,0.21095051,0.26144952,0.024335612,0.18091786,0.26006693,-0.009167412,0.09811383,-0.09171673,0.028541636,0.0021021876,0.002244677,0.080364816,0.069605865,0.022312654,0.0098229395,-0.026796114,0.014216066,2.0,1.2386978,-0.044024978,-2.0,1.7916541,-1.4140755,2.0,0.17556715,-2.0,-0.69132257,-0.06947593,2.0,2.0,-0.05099028,-2.0,-2.0,0.8425498,0.27470112,2.0,0.24482852,-1.7113738,-2.0,-0.3840684,-2.0
2025-07-21 14:24:59.923,1.600000000000001,1600,80,-0.0459487,-0.099673174,0.017931292,-0.14747915,0.06917214,-0.041062824,0.0,0.0,0.0,-0.006043805,0.024565088,0.06697457,0.058915403,0.009026991,0.099185936,-0.039713014,0.023367187,0.2242411,0.24291016,0.015181822,0.15945746,0.26284188,0.09154078,-0.028658763,-0.28662387,-0.11424149,0.08492929,0.0149175525,-0.06655972,0.040230982,-0.013227608,-0.0039594104,-0.013887164,-0.043296885,2.0,-0.05099028,-2.0,-2.0,0.8425498,0.27470112,2.0,0.24482852,-1.7113738,-2.0,-0.3840684,-2.0,2.0,2.0,-2.0,-2.0,0.64992857,0.8518972,2.0,-0.41451347,-0.54623467,-2.0,1.0633751,-2.0
2025-07-21 14:24:59.943,1.620000000000001,1620,81,-0.19975841,-0.103915565,-0.057193656,-0.17201947,-0.018808175,0.0076523554,0.0,0.0,0.0,-0.0059458134,0.038144,0.1097569,-0.018115677,-0.012169264,0.107716344,0.01160583,0.017499216,0.23608601,0.24495877,0.024115788,0.18550636,0.24973233,0.029981162,0.10145469,-0.13543347,-0.1327773,0.0964541,0.040138923,0.00025584822,-0.034934606,-0.074614055,-0.022257373,0.1264681,0.026402228,2.0,2.0,-2.0,-2.0,0.64992857,0.8518972,2.0,-0.41451347,-0.54623467,-2.0,1.0633751,-2.0,2.0,2.0,-2.0,-0.22868519,-0.01375312,2.0,2.0,-0.85442567,2.0,-2.0,0.9258552,-2.0
2025-07-21 14:24:59.968,1.640000000000001,1640,82,-0.16350856,-0.0010097469,-0.067709945,-0.133997,0.02380992,-0.035455644,0.0,0.0,0.0,-0.004915515,0.041274995,0.1336409,-0.026182804,-0.029154543,0.102166064,0.058506396,0.031593546,0.21587127,0.2623605,0.028130181,0.22096337,0.24217354,0.049453262,0.084982745,0.035994936,-0.056283697,-0.03210584,0.22690722,0.098613076,-0.05795125,0.03133783,0.051307697,0.14471176,-0.0680497,2.0,2.0,-2.0,-0.22868519,-0.01375312,2.0,2.0,-0.85442567,2.0,-2.0,0.9258552,-2.0,0.16187033,2.0,-2.0,2.0,-0.6749716,2.0,2.0,-1.4534533,0.39672112,-2.0,0.18819648,-2.0
2025-07-21 14:24:59.992,1.660000000000001,1660,83,-0.041979156,0.14967233,-0.07667116,-0.19347583,-0.000281658,-0.015760414,0.0,0.0,0.0,-0.0028207637,0.03931742,0.13125528,-0.014835912,-0.0315927,0.062782295,0.1181863,0.040311854,0.14222628,0.28254235,0.03859562,0.24693516,0.22642699,-0.031763896,0.04390055,-0.016236693,-0.009380834,-0.09150018,0.11564645,0.045685895,-0.20847686,0.08689376,0.0278657,0.056858618,-0.03605972,0.16187033,2.0,-2.0,2.0,-0.6749716,2.0,2.0,-1.4534533,0.39672112,-2.0,0.18819648,-2.0,-2.0,2.0,-2.0,2.0,-0.38806498,0.8607868,2.0,-1.1403513,-2.0,-2.0,-0.051045544,-2.0
2025-07-21 14:25:00.026,1.680000000000001,1680,84,-0.011407509,0.12548342,-0.1364111,-0.19058117,0.04658695,-0.010937145,0.0,0.0,0.0,-0.0003868167,0.03743978,0.14802715,0.0077429204,-0.019412076,0.030347882,0.13042277,0.055015154,0.12907335,0.29586285,0.03498481,0.261455,0.22885555,-0.101703905,0.046500515,-0.020330476,0.091937385,-0.14902374,0.021713616,-0.005041008,-0.020500133,-0.02463628,0.04862037,-0.028095549,-0.008399232,-2.0,2.0,-2.0,2.0,-0.38806498,0.8607868,2.0,-1.1403513,-2.0,-2.0,-0.051045544,-2.0,-2.0,2.0,2.0,2.0,1.2664267,-2.0,2.0,-0.21255723,-2.0,-0.5843004,-1.0667459,-2.0
2025-07-21 14:25:00.051,1.700000000000001,1700,85,-0.103379,-0.015627047,-0.0666713,-0.11910112,0.04476675,0.02729071,0.0,0.0,0.0,0.0022213154,0.015784783,0.19354264,0.04133023,0.006283749,0.031087773,0.060736142,0.042175315,0.12938462,0.28329936,0.0376027,0.27075645,0.23029122,-0.14215678,0.08210514,0.19745111,-0.0030117698,0.06986982,-0.1658696,0.052707184,0.08724785,-0.081861585,-0.029631834,0.053347077,-0.0687008,-2.0,2.0,2.0,2.0,1.2664267,-2.0,2.0,-0.21255723,-2.0,-0.5843004,-1.0667459,-2.0,-2.0,-1.0086069,2.0,2.0,0.6769308,-2.0,2.0,0.1786499,-2.0,0.7879733,-0.98454505,-0.17959715
2025-07-21 14:25:00.075,1.720000000000001,1720,86,0.06625787,-0.02483768,0.070209324,-0.13289942,0.012125848,-0.03160103,0.0,0.0,0.0,0.0039269784,-0.0023968709,0.17362572,0.10684244,0.030465838,0.056165524,0.028557472,0.047125917,0.1472174,0.2887379,0.049578495,0.26415947,0.23902854,0.010347159,-0.15360309,0.11726994,0.0002548774,-0.06279926,-0.00987182,0.0070334184,0.07450037,-0.08307347,0.008001391,0.00046011727,0.05290848,-2.0,-1.0086069,2.0,2.0,0.6769308,-2.0,2.0,0.1786499,-2.0,0.7879733,-0.98454505,-0.17959715,-2.0,-0.6725446,2.0,-2.0,1.2875375,-2.0,2.0,-0.7800767,-2.0,2.0,0.1659745,2.0
2025-07-21 14:25:00.089,1.740000000000001,1740,87,0.07009065,-0.06084083,0.0062294127,-0.17470878,-0.041725084,-0.0042199036,0.0,0.0,0.0,0.00376094,-0.026649607,0.10707484,0.14486222,0.024930146,0.053507004,0.023478068,0.025084198,0.14350156,0.27633905,0.051054418,0.245609,0.24203068,-0.0007778819,-0.13851584,0.02909156,0.011889189,0.032496642,-0.023639765,0.042666096,0.008057363,-0.04957689,0.034463916,-0.021075903,0.11438799,-2.0,-0.6725446,2.0,-2.0,1.2875375,-2.0,2.0,-0.7800767,-2.0,2.0,0.1659745,2.0,2.0,0.6983616,2.0,-2.0,1.3098027,-1.846776,2.0,-0.5565419,-2.0,1.4004592,-0.4579819,2.0
2025-07-21 14:25:00.110,1.7600000000000011,1760,88,0.08771016,0.015745236,0.03355028,-0.13225842,-0.0320586,0.015556338,0.0,0.0,0.0,0.0029725942,-0.01944822,0.053144634,0.17115422,0.025852162,0.056249227,0.0075366274,0.024194436,0.14373085,0.2845226,0.040805735,0.18539406,0.26567963,0.01966866,0.033017978,0.030278975,-0.020393996,-0.037683144,0.05735619,-0.051644117,-0.070388496,0.004992198,0.049444214,-0.080652915,0.10217204,2.0,0.6983616,2.0,-2.0,1.3098027,-1.846776,2.0,-0.5565419,-2.0,1.4004592,-0.4579819,2.0,2.0,0.38028845,-1.4681442,-2.0,1.6270634,-1.1222203,2.0,-0.14400882,-2.0,-1.5440146,-0.07480986,2.0
2025-07-21 14:25:00.134,1.7800000000000011,1780,89,0.039324656,-0.0068227886,-0.018996954,-0.22402003,0.025739666,-0.046709556,0.0,0.0,0.0,0.002140192,0.0065106084,0.07190155,0.1278747,0.0163481,0.04997597,0.010082374,0.018737368,0.14169484,0.295109,0.034122415,0.14254569,0.29188523,0.050240062,0.034463096,-0.24924856,-0.037527498,0.08270315,0.0642309,-0.045235768,0.023558779,0.015437321,-0.080550134,-0.09760416,0.05209598,2.0,0.38028845,-1.4681442,-2.0,1.6270634,-1.1222203,2.0,-0.14400882,-2.0,-1.5440146,-0.07480986,2.0,2.0,0.7720217,-2.0,-2.0,1.1342717,-0.029833801,2.0,0.056794763,-2.0,-2.0,-0.014894225,-2.0
2025-07-21 14:25:00.152,1.8000000000000012,1800,90,-0.073396996,-0.17418061,0.061435398,-0.16586272,0.046213165,0.024571966,0.0,0.0,0.0,0.001207427,0.035437625,0.08292988,0.032296065,-0.0019108395,0.060721703,0.013347647,0.01752691,0.15147436,0.2784092,0.033210468,0.14713794,0.29672873,-0.0035531523,0.0011744105,-0.2460408,0.001715285,0.001890476,0.0212875,-0.039405927,0.091762416,0.0049891314,-0.07603642,0.12090593,-0.0028606993,2.0,0.7720217,-2.0,-2.0,1.1342717,-0.029833801,2.0,0.056794763,-2.0,-2.0,-0.014894225,-2.0,2.0,1.8584074,-2.0,-2.0,0.3163491,1.9519366,2.0,-0.3940859,0.58402544,-2.0,1.1692592,-2.0
2025-07-21 14:25:00.171,1.8200000000000012,1820,91,-0.1422693,0.0028521474,-0.08844911,-0.14898476,0.025737857,0.0034970378,0.0,0.0,0.0,0.00066608,0.047210336,0.11637905,-0.011007445,-0.009666108,0.08415556,0.053465024,0.008993949,0.17754304,0.2792384,0.019773766,0.18532026,0.288466,0.06026892,-0.011316462,-0.033263758,-0.09844424,0.08748767,0.071668714,0.08747014,0.045112886,-0.06191021,-0.060266607,0.16150674,-0.061383445,2.0,1.8584074,-2.0,-2.0,0.3163491,1.9519366,2.0,-0.3940859,0.58402544,-2.0,1.1692592,-2.0,0.9459089,2.0,-2.0,0.88139004,-0.390014,2.0,1.9204946,-1.1132057,0.14600988,-2.0,0.3078218,-2.0
2025-07-21 14:25:00.190,1.8400000000000012,1840,92,-0.023448823,0.12485144,-0.093014196,-0.20330364,0.02001661,0.0043812455,0.0,0.0,0.0,0.0012829654,0.03887064,0.13427837,-0.015065021,-0.029627007,0.067711316,0.112404674,0.01667373,0.15930676,0.2781565,0.01647398,0.20855346,0.27627173,0.002500085,0.008127895,0.07115911,0.027214862,-0.10973288,0.12785779,0.058022127,-0.038120758,0.06618127,0.05482692,0.08162389,-0.06616396,0.9459089,2.0,-2.0,0.88139004,-0.390014,2.0,1.9204946,-1.1132057,0.14600988,-2.0,0.3078218,-2.0,-2.0,2.0,-2.0,2.0,-0.40186232,1.7265188,2.0,-1.1921129,-2.0,-2.0,-0.35486907,-2.0
2025-07-21 14:25:00.212,1.8600000000000012,1860,93,-0.020004725,0.13010067,-0.069621645,-0.18319835,0.043131784,-0.018978408,0.0,0.0,0.0,0.0028715646,0.03805886,0.15673561,-0.013043409,-0.024061838,0.03899285,0.15609057,0.027241042,0.16829635,0.27902216,0.027527003,0.23628822,0.26074982,-0.017655043,0.07542434,0.035503466,-0.030406922,-0.077552155,0.04294588,0.073753245,0.014021468,-0.051660594,-0.029403562,0.09848681,-0.0040169116,-2.0,2.0,-2.0,2.0,-0.40186232,1.7265188,2.0,-1.1921129,-2.0,-2.0,-0.35486907,-2.0,-2.0,2.0,2.0,2.0,1.2287672,-2.0,2.0,-0.17617893,-2.0,-1.0514534,-0.70107085,-2.0
2025-07-21 14:25:00.234,1.8800000000000012,1880,94,-0.12053556,-0.05910622,0.007133737,-0.15544221,0.0120101515,-0.006261584,1.5,0.0,0.0,0.0047752685,0.0054934286,0.18504047,0.031199364,-0.0041515743,0.045447845,0.08047151,0.01929956,0.18243782,0.2502064,0.019897033,0.26664644,0.25369436,-0.07763273,0.07597834,0.11708718,0.042875078,0.16626297,-0.25877392,-0.040346235,0.0566869,-0.06912842,-0.079431206,0.011826266,-0.10922441,-2.0,2.0,2.0,2.0,1.2287672,-2.0,2.0,-0.17617893,-2.0,-1.0514534,-0.70107085,-2.0,-2.0,-0.52642304,2.0,2.0,0.6304343,-2.0,2.0,-1.1918788,-2.0,-2.0,-1.653856,-0.78042996
2025-07-21 14:25:00.252,1.9000000000000012,1900,95,0.16753425,-0.11877561,-0.0201795,-0.1884595,-0.0364576,-0.040064063,1.5,0.0,0.0,0.0057139248,-0.0054242546,0.1913072,0.10038946,0.011464665,0.067670055,0.011234974,0.013362098,0.17348658,0.25513092,0.015068648,0.2623698,0.2439944,-0.03173074,-0.06273139,0.19495247,-0.0019925972,-0.040345255,-0.16875283,-0.10325761,0.01758858,0.05831026,-0.05117216,-0.12074766,0.028425494,-2.0,-0.52642304,2.0,2.0,0.6304343,-2.0,2.0,-1.1918788,-2.0,-2.0,-1.653856,-0.78042996,-2.0,-0.30280882,2.0,2.0,1.0184873,-2.0,2.0,-0.75039464,-2.0,-2.0,-1.9454416,1.2996916
2025-07-21 14:25:00.272,1.9200000000000013,1920,96,0.19274502,-0.029080642,0.061450038,-0.16594952,0.026397146,-0.033556778,1.5,0.0,0.0,0.005538437,-0.021031179,0.13858879,0.13570149,0.0042718877,0.05748853,-0.009104021,-0.008323246,0.15621035,0.25468493,-0.009025048,0.19537595,0.27709213,0.04406023,-0.10329779,0.0710228,-0.049178,-0.05767367,-0.09718655,0.039140765,-0.01956478,0.0070022168,-0.035667438,-0.25601855,0.14550096,-2.0,-0.30280882,2.0,2.0,1.0184873,-2.0,2.0,-0.75039464,-2.0,-2.0,-1.9454416,1.2996916,-2.0,0.1009116,2.0,-2.0,0.31606418,-2.0,2.0,-1.5489662,-2.0,-2.0,-0.6583405,2.0
2025-07-21 14:25:00.292,1.9400000000000013,1940,97,0.28622523,-0.06370355,0.0053419103,-0.1493096,0.0029297972,-0.037731178,1.5,0.0,0.0,0.003932325,-0.027143123,0.079082355,0.173831,0.022265257,0.0551905,-0.029257705,-0.015998492,0.12090146,0.27248666,-0.008289993,0.113712214,0.31340176,-0.06742077,-0.035942186,0.038913596,0.025575709,0.015650118,-0.039077677,0.007054402,-0.03615136,0.025611812,0.01712501,-0.13433272,0.14758869,-2.0,0.1009116,2.0,-2.0,0.31606418,-2.0,2.0,-1.5489662,-2.0,-2.0,-0.6583405,2.0,-2.0,1.1783156,2.0,-2.0,0.097293675,-2.0,2.0,-0.8573714,-2.0,-2.0,0.054027192,2.0
2025-07-21 14:25:00.317,1.9600000000000013,1960,98,0.14471892,0.046712175,0.06710763,-0.16753544,-0.009003354,0.031406622,1.5,0.0,0.0,0.002064376,-0.051287945,0.08688233,0.19948585,0.010123199,0.03614054,-0.04585613,-0.019220892,0.09922929,0.29499927,-0.036031876,0.06964538,0.34202003,-0.03568122,0.039318703,-0.011344199,0.004334021,-0.09461979,0.02593217,-0.035782866,-0.06871126,-0.02250748,-0.08671572,-0.12594116,0.004416868,-2.0,1.1783156,2.0,-2.0,0.097293675,-2.0,2.0,-0.8573714,-2.0,-2.0,0.054027192,2.0,-0.88850874,1.620104,2.0,-2.0,-0.049780194,-2.0,2.0,-1.1628356,-2.0,-2.0,0.8217381,2.0
2025-07-21 14:25:00.336,1.9800000000000013,1980,99,0.11090637,-0.009271098,-0.01514905,-0.2293503,0.072726294,-0.013889227,1.5,0.0,0.0,0.00044788196,-0.05204337,0.1487563,0.20734009,0.010996916,0.028502405,-0.045765128,-0.026392067,0.081226096,0.30962217,-0.022583876,0.06572769,0.35998815,-0.026072683,0.10909319,0.083240286,-0.050972175,0.029477848,-0.025786383,-0.012956304,-0.0067631938,0.057807896,-0.04398369,-0.010074547,-0.0030563918,-0.88850874,1.620104,2.0,-2.0,-0.049780194,-2.0,2.0,-1.1628356,-2.0,-2.0,0.8217381,2.0,2.0,1.7046802,0.3543487,-2.0,-0.08559996,-1.6691815,2.0,-0.5556297,-2.0,-2.0,0.7061754,2.0
2025-07-21 14:25:00.353,2.0000000000000013,2000,100,-0.032427903,0.11764395,-0.020939,-0.22084463,0.067249775,-0.02372977,1.5,0.0,0.0,-0.0005401512,-0.026674075,0.21398847,0.18599366,0.00546363,0.009795023,-0.043556217,-0.03506084,0.08243945,0.30685887,-0.040554076,0.075123005,0.364442,0.1452794,0.21225324,-0.07482624,0.071751416,-0.0089148,-0.02831159,-0.027952237,0.02398339,0.044148095,0.04836919,-0.013373488,0.06549973,2.0,1.7046802,0.3543487,-2.0,-0.08559996,-1.6691815,2.0,-0.5556297,-2.0,-2.0,0.7061754,2.0,2.0,0.7043079,-2.0,-2.0,-0.2728656,0.16954833,2.0,-0.49247214,-0.8865489,-2.0,0.21767336,-2.0
2025-07-21 14:25:00.373,2.0200000000000014,2020,101,-0.16412468,-0.044790708,0.014587767,-0.17970979,0.012756087,0.047689404,1.5,0.0,0.0,-0.00089110975,-0.0066200006,0.25424123,0.10391825,0.009141443,0.012672495,-0.011592065,-0.02596933,0.09548663,0.30549753,-0.039807893,0.07527847,0.35790116,0.069530286,0.007624767,-0.30080053,0.036346454,0.054543603,0.104355544,0.033755377,0.023145128,0.025491705,-0.023958256,0.12501043,-0.007903471,2.0,0.7043079,-2.0,-2.0,-0.2728656,0.16954833,2.0,-0.49247214,-0.8865489,-2.0,0.21767336,-2.0,2.0,0.21668117,-2.0,-2.0,0.6949824,2.0,2.0,-1.0000379,2.0,-2.0,-1.7726998,-2.0
2025-07-21 14:25:00.392,2.0400000000000014,2040,102,-0.01766584,-0.17560916,-0.039809767,-0.20554821,0.043358553,-0.04387494,1.5,0.0,0.0,-0.00017914423,0.035974186,0.23180728,-0.009008356,-0.022433871,0.014043674,0.040182665,-0.036632143,0.08459487,0.3249553,-0.042211477,0.09547195,0.36366433,0.061950203,-0.15966399,-0.17355518,-0.007466517,0.055841908,0.107030764,0.0093481075,-0.12077672,0.07692032,-0.049269654,0.008967174,0.014508954,2.0,0.21668117,-2.0,-2.0,0.6949824,2.0,2.0,-1.0000379,2.0,-2.0,-1.7726998,-2.0,2.0,0.6985554,-1.4194133,-1.2633388,1.712811,2.0,2.0,-0.9548561,0.056809023,-2.0,-2.0,-2.0
2025-07-21 14:25:00.418,2.0600000000000014,2060,103,-0.0719071,-0.052625604,-0.06962563,-0.239932,0.016273342,0.0400142,1.5,0.0,0.0,0.0010028646,0.06278488,0.1982917,-0.046973273,-0.047072545,0.07095526,0.09047076,-0.031297464,0.052894775,0.35835794,-0.044853337,0.09781835,0.35515627,0.0020806058,-0.13916893,-0.038428813,-0.08896414,0.19207375,0.06876765,0.024617415,0.013156384,0.0035555395,-0.005582618,0.014598621,0.024297688,2.0,0.6985554,-1.4194133,-1.2633388,1.712811,2.0,2.0,-0.9548561,0.056809023,-2.0,-2.0,-2.0,-2.0,0.474887,2.0,2.0,2.0,2.0,2.0,-1.1010637,-2.0,-2.0,-2.0,-2.0
2025-07-21 14:25:00.435,2.0800000000000014,2080,104,-0.19727354,-0.017484037,0.085810415,-0.17567535,0.01455172,0.027838286,1.5,0.0,0.0,0.001971501,0.050749086,0.17926818,-0.010623364,-0.03662535,0.17645454,0.14025448,-0.022334518,0.05102381,0.36982295,-0.04568492,0.08252588,0.37438023,0.009836618,-0.034631595,0.18879707,0.047739558,0.2307539,0.08344312,0.0034483008,0.037077602,0.084377885,0.049153425,-0.05107951,0.07413295,-2.0,0.474887,2.0,2.0,2.0,2.0,2.0,-1.1010637,-2.0,-2.0,-2.0,-2.0,-2.0,0.28426218,2.0,2.0,1.8989139,-2.0,2.0,-1.6564329,-2.0,-2.0,-2.0,-2.0
2025-07-21 14:25:00.452,2.1000000000000014,2100,105,-0.11206635,-0.013685296,0.022760257,-0.20528096,0.08048134,-0.02194759,1.5,0.0,0.0,0.002246714,0.04609558,0.14999963,0.07585304,-0.011851924,0.2723514,0.095433086,-0.03322963,0.046882715,0.3894619,-0.040148526,0.070154585,0.39377806,-0.07904402,-0.10311521,0.21232124,0.06293002,0.25244582,-0.22275323,0.04586129,-0.09770948,0.0312484,0.070428915,-0.082892336,-0.008514129,-2.0,0.28426218,2.0,2.0,1.8989139,-2.0,2.0,-1.6564329,-2.0,-2.0,-2.0,-2.0,-2.0,-0.048873555,2.0,1.6509366,0.598951,-2.0,2.0,-1.2211385,-2.0,-2.0,-2.0,-2.0
2025-07-21 14:25:00.472,2.1200000000000014,2120,106,-0.2365785,0.014844116,0.08321057,-0.15321648,0.04197766,-0.037773553,1.5,0.0,0.0,0.0020299286,0.014323786,0.12687339,0.12733892,0.025134386,0.2931224,-0.012615728,-0.0239258,0.032577682,0.39386126,-0.03682876,0.04179342,0.39583203,-0.003653928,-0.11943099,0.10697531,0.108827315,-0.019124981,-0.2326842,0.035409305,-0.061889444,0.011449204,-0.058867916,0.007470884,-0.03285176,-2.0,-0.048873555,2.0,1.6509366,0.598951,-2.0,2.0,-1.2211385,-2.0,-2.0,-2.0,-2.0,-2.0,0.499358,2.0,2.0,1.0076455,-2.0,2.0,-1.643981,-2.0,-2.0,-1.5656763,-1.0290344
2025-07-21 14:25:00.493,2.1400000000000015,2140,107,-0.19875997,-0.05380607,0.10636238,-0.17789468,0.07523859,0.013301934,1.5,0.0,0.0,0.0011351134,-0.003948612,0.09946051,0.1673995,0.037119422,0.2864512,-0.017297577,-0.0215733,0.021644665,0.3899283,-0.04522418,0.032031536,0.41183358,-0.05748558,-0.09206793,-0.006235954,0.052257676,-0.13904236,0.082470864,-0.04048642,-0.02859327,0.008076054,-0.057471517,-0.016966803,-0.016099593,-2.0,0.499358,2.0,2.0,1.0076455,-2.0,2.0,-1.643981,-2.0,-2.0,-1.5656763,-1.0290344,-2.0,0.6837787,2.0,-2.0,0.4539441,-2.0,2.0,-1.5218732,-2.0,-2.0,-0.9540253,0.7633287
2025-07-21 14:25:00.519,2.1600000000000015,2160,108,-0.10050054,-0.09883835,0.14933394,-0.1665243,0.058040526,0.048144955,1.5,0.0,0.0,-0.00048410843,-0.019115716,0.10256151,0.17958844,0.04179907,0.24487801,0.0026198716,-0.025375476,-0.007318989,0.4100078,-0.05052864,0.007106874,0.40381187,0.008453839,0.047945213,0.023204347,-0.023623645,-0.027411656,0.11114295,0.020850299,-0.09264218,-0.04664157,-0.027456716,-0.048628613,-0.025765954,-2.0,0.6837787,2.0,-2.0,0.4539441,-2.0,2.0,-1.5218732,-2.0,-2.0,-0.9540253,0.7633287,-2.0,1.0337001,2.0,-2.0,0.43498755,-1.9874629,2.0,-1.5968456,-2.0,-2.0,0.0018321797,2.0
2025-07-21 14:25:00.535,2.1800000000000015,2180,109,-0.100661874,-0.12489614,0.014152651,-0.15289803,0.09121736,-0.01815671,1.5,0.0,0.0,-0.002278057,-0.0460322,0.120260455,0.21385403,0.044683613,0.22474523,0.04523293,-0.037543766,-0.017463071,0.39682654,-0.052967604,-0.031764396,0.40712506,-0.055825494,0.08021549,0.0460117,0.05984077,-0.06879189,0.13092823,-0.0383462,-0.0014235128,0.07500513,0.021212718,-0.10050195,0.0044342144,-2.0,1.0337001,2.0,-2.0,0.43498755,-1.9874629,2.0,-1.5968456,-2.0,-2.0,0.0018321797,2.0,-1.9077601,1.4599506,2.0,-2.0,-0.046816412,-2.0,2.0,-0.80558294,-2.0,-2.0,0.28713775,2.0
2025-07-21 14:25:00.555,2.2000000000000015,2200,110,-0.15218261,-0.11917744,0.1097532,-0.12076409,0.030162258,0.027930517,1.5,0.0,0.0,-0.0035506084,-0.05032832,0.17921108,0.2082788,0.040987145,0.20676214,0.07749145,-0.046038203,-0.028130453,0.41256812,-0.0614673,-0.039699182,0.3913824,0.0401275,0.14817943,-0.014144093,0.051693685,-0.0031861155,0.03044113,0.052104697,-0.031858806,0.03660445,0.030706633,-0.0666416,-0.027039802,-1.9077601,1.4599506,2.0,-2.0,-0.046816412,-2.0,2.0,-0.80558294,-2.0,-2.0,0.28713775,2.0,-1.2518413,1.0953538,2.0,-2.0,0.20940676,-1.5423627,2.0,-1.3177938,-2.0,-2.0,0.6617399,2.0
2025-07-21 14:25:00.573,2.2200000000000015,2220,111,-0.16797647,-0.19801901,0.046855565,-0.12086835,0.064388536,-0.0143019,1.5,0.0,0.0,-0.004532674,-0.053075485,0.2224102,0.22975174,0.045883354,0.18725224,0.103434905,-0.0556554,-0.03198396,0.3898263,-0.058498062,-0.018443476,0.37597528,0.059757736,0.13003759,0.04004983,0.046619408,-0.08348771,0.043642852,0.00052170514,-0.062485248,0.033955038,-0.06301933,0.049191866,-0.08975246,-1.2518413,1.0953538,2.0,-2.0,0.20940676,-1.5423627,2.0,-1.3177938,-2.0,-2.0,0.6617399,2.0,0.7298299,1.3498996,1.434979,-2.0,0.19569549,-0.8704425,2.0,-0.76316833,-2.0,-2.0,0.2396912,1.6195747
2025-07-21 14:25:00.593,2.2400000000000015,2240,112,-0.2391068,-0.10723607,0.059508946,-0.10312149,0.07531359,0.01943222,1.5,0.0,0.0,-0.0051255333,-0.038834892,0.2497707,0.22799022,0.04395507,0.17142598,0.11807674,-0.048609633,-0.034083012,0.39233857,-0.06239645,0.005101007,0.36555701,0.026942626,0.05452349,-0.08604098,0.028762804,-0.02051798,0.0668779,-0.0710817,0.06897599,-0.029397221,-0.06916256,0.032550663,0.016962754,0.7298299,1.3498996,1.434979,-2.0,0.19569549,-0.8704425,2.0,-0.76316833,-2.0,-2.0,0.2396912,1.6195747,2.0,0.65318704,-0.26676777,-2.0,0.25747454,0.57321614,2.0,-0.7919765,-2.0,-2.0,-0.2869492,-2.0
2025-07-21 14:25:00.618,2.2600000000000016,2260,113,-0.3188077,-0.013432676,-0.020172993,-0.028131327,0.101976685,-0.03747331,1.5,0.0,0.0,-0.0054141427,-0.029217198,0.24628241,0.21903226,0.035184745,0.15801278,0.15574197,-0.046008453,-0.022063427,0.36876425,-0.06857659,0.0009913602,0.32174715,0.10323393,-0.021283612,-0.0031817013,0.010285937,-0.041526727,0.06314671,-0.044047527,0.08689474,-0.10236956,0.025961028,0.011447067,-0.060487833,2.0,0.65318704,-0.26676777,-2.0,0.25747454,0.57321614,2.0,-0.7919765,-2.0,-2.0,-0.2869492,-2.0,0.9570795,0.11686616,1.0270951,-1.2462893,1.1847696,1.4475769,2.0,-1.055058,-2.0,-2.0,-2.0,-2.0
2025-07-21 14:25:00.634,2.2800000000000016,2280,114,-0.26863965,-0.0034257295,-0.028776843,-0.0017973474,0.034408476,0.024147766,1.5,0.0,0.0,-0.005312674,-0.011497429,0.2407788,0.25302345,0.046727426,0.13195053,0.18250105,-0.048847478,-0.01997967,0.35529414,-0.05732444,0.016992543,0.2996604,0.03405963,-0.11694311,0.016828045,-0.020717435,-0.01359113,0.09598165,-0.0439945,-0.059526566,-0.08212583,0.0071530384,0.023376059,-0.038505502,0.9570795,0.11686616,1.0270951,-1.2462893,1.1847696,1.4475769,2.0,-1.055058,-2.0,-2.0,-2.0,-2.0,-2.0,0.1688803,2.0,2.0,2.0,-2.0,2.0,-1.2207184,-2.0,-2.0,-2.0,-2.0
2025-07-21 14:25:00.653,2.3000000000000016,2300,115,-0.11764313,-0.07935958,-0.029895186,0.018424135,0.01591255,0.0037350543,1.5,0.0,0.0,-0.004954697,-0.016487032,0.2187736,0.28063673,0.04720873,0.13035432,0.19007325,-0.040212963,-0.02583367,0.33931494,-0.058109637,-0.012401302,0.2840257,6.607337e-05,-0.030154543,0.0356234,0.024169046,-0.00091900147,-0.10071905,0.06533887,-0.002632912,-0.0642277,0.037350275,-0.027396355,-0.12247755,-2.0,0.1688803,2.0,2.0,2.0,-2.0,2.0,-1.2207184,-2.0,-2.0,-2.0,-2.0,-2.0,-0.61609054,2.0,1.9438245,0.46760148,-2.0,2.0,-0.60236037,-2.0,-2.0,-2.0,-0.562115
2025-07-21 14:25:00.673,2.3200000000000016,2320,116,-6.107092e-05,-0.074006945,0.10198793,-0.03695955,0.10735313,0.030105976,1.5,0.0,0.0,-0.0046372823,-0.006131259,0.16125302,0.289563,0.067577146,0.12732446,0.16125342,-0.03954773,-0.059757967,0.32978603,-0.056224823,-0.036327757,0.26721427,0.017251272,-0.13514319,0.09260327,0.06842078,0.014948401,-0.10283316,-0.054380786,-0.049433228,-0.03708454,-0.07692594,-0.082006834,0.026439972,-2.0,-0.61609054,2.0,1.9438245,0.46760148,-2.0,2.0,-0.60236037,-2.0,-2.0,-2.0,-0.562115,-2.0,-0.6654755,2.0,-0.34771025,0.8197522,-2.0,2.0,-1.6129951,-2.0,-2.0,-1.3425641,2.0
2025-07-21 14:25:00.693,2.3400000000000016,2340,117,0.022897432,-0.002194148,0.055161797,0.039663777,0.022182023,-0.035600103,1.5,0.0,0.0,-0.0052596773,-0.0174015,0.08925315,0.2931311,0.076099485,0.112636656,0.14369254,-0.03205651,-0.07521539,0.3122212,-0.06374508,-0.08898679,0.26945087,0.050266135,-0.1490259,0.06354469,0.08004854,-0.013902238,-0.06670543,-0.020153886,-0.06507753,0.056014266,-0.033512507,-0.18032947,0.005875482,-2.0,-0.6654755,2.0,-0.34771025,0.8197522,-2.0,2.0,-1.6129951,-2.0,-2.0,-1.3425641,2.0,-2.0,0.71024156,2.0,-2.0,0.0021191798,-2.0,2.0,-1.4198158,-2.0,-2.0,-0.4353767,2.0
2025-07-21 14:25:00.718,2.3600000000000017,2360,118,-0.0042007095,-0.0038609556,0.07066059,0.035162512,0.114919536,-0.021229586,1.5,0.0,0.0,-0.0063916156,-0.03160017,0.057275645,0.2904508,0.06732471,0.07476405,0.1228986,-0.03320203,-0.10653494,0.29822847,-0.076603256,-0.14161363,0.26306832,-0.04804215,-0.03828497,-0.10276233,0.060780425,-0.02964774,-0.090949565,0.062329948,-0.07599736,-0.015496198,-0.022720087,-0.022265436,-0.09063702,-2.0,0.71024156,2.0,-2.0,0.0021191798,-2.0,2.0,-1.4198158,-2.0,-2.0,-0.4353767,2.0,-2.0,1.3418949,2.0,-2.0,0.035358187,-2.0,2.0,-1.297025,-2.0,-2.0,0.45117947,2.0
2025-07-21 14:25:00.735,2.3800000000000017,2380,119,-0.016108483,-0.07369339,0.082108,0.024538875,0.09270432,0.000848368,1.5,0.0,0.0,-0.007188783,-0.05188211,0.09681777,0.26672173,0.0807295,0.07145027,0.11761083,-0.03069453,-0.119461074,0.29903483,-0.09013496,-0.109206386,0.2498607,-0.060844194,0.14430833,-0.08663153,-0.023531338,-0.007884365,-0.0479668,-0.06627178,-0.0324272,-0.035327557,-0.08206318,0.16699739,-0.029585946,-2.0,1.3418949,2.0,-2.0,0.035358187,-2.0,2.0,-1.297025,-2.0,-2.0,0.45117947,2.0,-0.0076254867,1.5010681,1.3610165,-2.0,-0.06318653,-2.0,2.0,-1.0789058,-2.0,-2.0,0.74474293,2.0
2025-07-21 14:25:00.756,2.4000000000000017,2400,120,-0.03750257,-0.019461483,0.060448755,0.057482403,0.025750874,-0.020736977,1.5,0.0,0.0,-0.007910248,-0.04978654,0.12051815,0.25997844,0.0888441,0.048622858,0.09949182,-0.036124922,-0.13872965,0.286665,-0.09750528,-0.058496963,0.23607238,0.012097622,0.032313634,0.006725513,0.080824725,-0.11730655,-0.080024295,-0.05630778,0.041618258,-0.05522713,-0.051262055,0.13212071,0.0398759,-0.0076254867,1.5010681,1.3610165,-2.0,-0.06318653,-2.0,2.0,-1.0789058,-2.0,-2.0,0.74474293,2.0,2.0,1.2346036,-0.84895915,-2.0,-0.10314584,-0.6689578,2.0,-0.8084117,-2.0,-2.0,0.7201944,1.8381377
2025-07-21 14:25:00.773,2.4200000000000017,2420,121,-0.104299694,0.23281479,0.13080119,0.062415075,0.048781376,-0.007286358,1.5,0.0,0.0,-0.008856988,-0.028189067,0.12939118,0.26095513,0.11646382,0.02202433,0.10217911,-0.021034548,-0.15443866,0.26442596,-0.10744576,0.012553495,0.23270945,0.04012564,0.02128689,-0.06921498,0.06539664,-0.094526716,0.05162657,0.10958047,0.06559884,-0.0777487,0.053097177,0.17690602,-0.049001966,2.0,1.2346036,-0.84895915,-2.0,-0.10314584,-0.6689578,2.0,-0.8084117,-2.0,-2.0,0.7201944,1.8381377,2.0,-0.0751241,-2.0,-2.0,-0.58897567,2.0,2.0,-0.9417835,2.0,-2.0,0.30660576,-2.0
2025-07-21 14:25:00.795,2.4400000000000017,2440,122,-0.026387485,0.097169995,-0.04924973,0.062465064,0.059593372,0.020349538,1.5,0.0,0.0,-0.010274906,-0.027141249,0.12245934,0.24084331,0.095051154,-0.009217548,0.13036971,-0.0062490017,-0.14913934,0.254348,-0.10536699,0.04549048,0.21520938,0.054265533,0.025302207,0.0233406,-0.057273954,-0.03629647,0.13481243,0.07552249,0.018880002,0.06556369,0.04664038,-0.0059223925,-0.01238582,2.0,-0.0751241,-2.0,-2.0,-0.58897567,2.0,2.0,-0.9417835,2.0,-2.0,0.30660576,-2.0,2.0,0.017927129,-2.0,-1.4410945,0.45858687,2.0,2.0,-0.58321553,2.0,-2.0,-1.9608072,-2.0
2025-07-21 14:25:00.818,2.4600000000000017,2460,123,0.14077023,0.20660396,0.020617293,0.05485727,0.06197528,-0.02138327,1.5,0.0,0.0,-0.010689693,-0.006229805,0.10920975,0.2332305,0.06639482,-0.014011092,0.15978372,0.020031834,-0.16145559,0.25093895,-0.072924785,0.00869718,0.2255958,0.06870381,-0.066770054,0.007811219,-0.10897707,0.068945296,0.049343683,0.043247014,0.00748895,0.013318436,0.053676967,-0.066759884,0.04186534,2.0,0.017927129,-2.0,-1.4410945,0.45858687,2.0,2.0,-0.58321553,2.0,-2.0,-1.9608072,-2.0,2.0,-0.2946609,-2.0,-1.3301105,1.31487,2.0,2.0,-1.0561478,-0.4457801,-2.0,-2.0,-2.0
2025-07-21 14:25:00.834,2.4800000000000018,2480,124,0.070311196,0.31739047,-0.02220469,-0.01994015,0.0175388,0.041959174,1.5,0.0,0.0,-0.010213197,0.016995199,0.07364444,0.2092473,0.029742792,0.037543267,0.19051464,0.04481291,-0.19620481,0.23739567,-0.07144327,-0.029748056,0.22889124,0.11342123,-0.05423688,-0.10613812,-0.1289812,0.23460414,0.095157124,0.0061945575,-0.017028162,-0.08991257,0.0019454419,-0.14941926,0.03463554,2.0,-0.2946609,-2.0,-1.3301105,1.31487,2.0,2.0,-1.0561478,-0.4457801,-2.0,-2.0,-2.0,-2.0,-0.4767319,2.0,-1.1883094,1.769198,0.6400318,2.0,-1.3749335,-2.0,-2.0,-2.0,-2.0
2025-07-21 14:25:00.854,2.5000000000000018,2500,125,-0.07527754,0.022061734,-0.029357826,-0.02008886,-0.010273867,0.04317695,1.5,0.0,0.0,-0.010070733,0.014168763,0.045870777,0.20310035,0.0013724855,0.0896793,0.19145955,0.064317375,-0.20285526,0.22025205,-0.05519136,-0.07086806,0.2482769,-0.026328314,-0.1430504,0.015199573,0.012139186,0.054593526,-0.039985254,-0.0010386853,-0.09785032,0.026170408,-0.047295243,-0.048820093,0.014436136,-2.0,-0.4767319,2.0,-1.1883094,1.769198,0.6400318,2.0,-1.3749335,-2.0,-2.0,-2.0,-2.0,-2.0,-0.004531171,2.0,-2.0,1.3269832,-2.0,2.0,-1.3213792,-2.0,-2.0,-2.0,0.3730083
2025-07-21 14:25:00.874,2.520000000000002,2520,126,0.0069272853,-0.061986163,0.05347331,0.018712176,0.013535,0.040551886,1.5,0.0,0.0,-0.010139546,-0.0074416567,0.013985261,0.20774321,-0.01678857,0.10723329,0.18184264,0.05451065,-0.22714335,0.22261702,-0.05646636,-0.103907965,0.23649156,-0.0051956316,-0.090769134,0.08528361,0.026713334,-0.034386165,-0.005776537,0.045284342,-0.056125138,0.0040186318,-0.015087255,-0.15706578,-0.08490643,-2.0,-0.004531171,2.0,-2.0,1.3269832,-2.0,2.0,-1.3213792,-2.0,-2.0,-2.0,0.3730083,-2.0,0.6843673,2.0,-2.0,-0.06881499,-2.0,2.0,-1.7684233,-2.0,-2.0,-0.3656609,2.0
2025-07-21 14:25:00.896,2.540000000000002,2540,127,-0.023312664,-0.1434627,0.044296555,-0.002470375,0.033698224,0.028094655,1.5,0.0,0.0,-0.010290415,-0.032173734,0.021549648,0.21242976,-0.019245384,0.08991122,0.17198639,0.03237659,-0.23560853,0.21011055,-0.075258814,-0.14127217,0.22891554,-0.11044641,-0.009896937,-0.041739203,-0.013877531,-0.08149337,-0.00321818,-0.04998703,0.014181864,-0.050977066,-0.004206681,-0.01945323,-0.035214137,-2.0,0.6843673,2.0,-2.0,-0.06881499,-2.0,2.0,-1.7684233,-2.0,-2.0,-0.3656609,2.0,-2.0,1.5727245,2.0,-2.0,0.23468286,-2.0,2.0,-1.4425943,-2.0,-2.0,0.36342221,2.0
2025-07-21 14:25:00.918,2.560000000000002,2560,128,-0.049851853,-0.09445823,0.00056256354,-0.024157392,0.06026845,0.018054852,1.5,0.0,0.0,-0.010683836,-0.049349107,0.08476932,0.22511086,-0.027529515,0.075460926,0.16851953,0.024739208,-0.24922512,0.19723454,-0.07457509,-0.13940422,0.21891527,0.028106848,0.15601872,-0.027378844,0.053093795,-0.059728533,0.06190026,-0.05977793,-0.06969483,-0.08725596,-0.045540303,0.09718571,0.030157857,-2.0,1.5727245,2.0,-2.0,0.23468286,-2.0,2.0,-1.4425943,-2.0,-2.0,0.36342221,2.0,0.4882466,1.6152807,0.9100403,-2.0,-0.14661518,-2.0,2.0,-1.1433313,-2.0,-2.0,0.75124747,2.0
2025-07-21 14:25:00.935,2.580000000000002,2580,129,-0.05831137,-0.013403631,0.053188283,0.047903858,-0.021051092,-0.048251957,1.5,0.0,0.0,-0.011231581,-0.051882043,0.1625799,0.1970981,-0.020856233,0.03583272,0.17901362,0.025900573,-0.25608173,0.18184231,-0.08670516,-0.066873394,0.22954857,0.04132043,0.20310494,-0.009492346,-0.030276855,-0.0018240062,-0.06360244,-0.07862733,0.047526333,0.028175883,-0.061615318,0.15611443,0.056388564,0.4882466,1.6152807,0.9100403,-2.0,-0.14661518,-2.0,2.0,-1.1433313,-2.0,-2.0,0.75124747,2.0,2.0,0.93164074,-2.0,-2.0,-0.13102639,0.90756655,2.0,-1.0663114,-2.0,-2.0,0.6826455,0.26511627
2025-07-21 14:25:00.955,2.600000000000002,2600,130,-0.18099135,0.0759704,0.004696673,0.02580177,-0.016270028,0.015880091,1.5,0.0,0.0,-0.0122747645,-0.021086205,0.21188794,0.14351463,-0.008609294,0.028577963,0.18254551,0.028610706,-0.25762546,0.16018622,-0.100345425,-0.014730139,0.20673798,-0.015734622,0.029706812,-0.034252364,-0.03172052,-0.00080739876,0.099847,0.05845142,-0.00094462954,-0.03900072,-0.04947229,0.06173767,0.024706975,2.0,0.93164074,-2.0,-2.0,-0.13102639,0.90756655,2.0,-1.0663114,-2.0,-2.0,0.6826455,0.26511627,2.0,-0.9117765,-2.0,-2.0,-0.7508883,2.0,2.0,-0.6891274,2.0,-2.0,-0.67851615,-2.0
2025-07-21 14:25:00.974,2.620000000000002,2620,131,-0.06303011,0.068210416,-0.04508675,0.046834014,-0.009124128,0.000790671,1.5,0.0,0.0,-0.0131548345,-0.0041975807,0.19231462,0.14965741,-0.0076743686,-0.007055984,0.22842826,0.034545053,-0.25086474,0.16012378,-0.074766845,-0.030338755,0.21581426,-0.012620178,-0.10794218,0.062495317,-0.0355729,-0.08944309,0.029981466,0.07464257,0.08336088,-0.017783664,0.0013128953,-0.08864556,0.0031525567,2.0,-0.9117765,-2.0,-2.0,-0.7508883,2.0,2.0,-0.6891274,2.0,-2.0,-0.67851615,-2.0,2.0,-0.31755173,-2.0,-0.026662156,1.053083,2.0,2.0,-0.67760265,1.6065769,-2.0,-2.0,-2.0
2025-07-21 14:25:01.001,2.640000000000002,2640,132,0.04559637,0.16511424,-0.022693045,0.065345146,-0.007201184,0.021392127,1.5,0.0,0.0,-0.012992637,-0.004055569,0.16288723,0.17334726,-0.0047418624,-0.017994672,0.231812,0.049023177,-0.23976767,0.18245755,-0.07391646,-0.052319366,0.20779985,0.062975466,-0.04912374,0.0641295,0.080534935,0.010918207,0.028010223,-0.006006083,0.03875751,-0.032083534,0.0362658,-0.07658458,0.050874468,2.0,-0.31755173,-2.0,-0.026662156,1.053083,2.0,2.0,-0.67760265,1.6065769,-2.0,-2.0,-2.0,-1.0111312,-0.7804247,0.31181,1.9311166,1.4981033,2.0,2.0,-0.96284866,-2.0,-2.0,-2.0,-2.0
2025-07-21 14:25:01.018,2.660000000000002,2660,133,-0.042733777,0.1313193,-0.021358354,0.06918463,-0.023805762,0.005933285,1.5,0.0,0.0,-0.011935966,-0.008526779,0.12250733,0.1934399,-0.00076168065,0.031284254,0.22822127,0.06686914,-0.2474024,0.17435518,-0.0632331,-0.089938544,0.22315724,-0.053286206,-0.07887499,-0.0036920581,0.0037683235,0.18793425,0.04776894,0.055955626,-0.04703991,-0.08063541,-0.003229038,-0.079380676,-0.01708585,-1.0111312,-0.7804247,0.31181,1.9311166,1.4981033,2.0,2.0,-0.96284866,-2.0,-2.0,-2.0,-2.0,-2.0,-0.35470802,2.0,2.0,2.0,-2.0,2.0,-1.5589957,-2.0,-2.0,-2.0,-2.0
2025-07-21 14:25:01.035,2.680000000000002,2680,134,-0.010518822,-0.12779364,0.028063158,-0.011370856,-0.055403482,0.02676531,1.5,0.0,0.0,-0.010982678,-0.026670031,0.076117724,0.22022463,0.010490715,0.09138208,0.2194831,0.06609985,-0.25554013,0.1673553,-0.06879313,-0.10126785,0.21806264,-0.042413678,-0.12578656,0.024662172,0.085478075,0.11032329,0.0033622708,-0.089451365,0.02104032,0.027393933,0.046531275,-0.04688926,0.04759342,-2.0,-0.35470802,2.0,2.0,2.0,-2.0,2.0,-1.5589957,-2.0,-2.0,-2.0,-2.0,-2.0,0.040525306,2.0,-2.0,0.68061805,-2.0,2.0,-1.7284651,-2.0,-2.0,-1.8370689,2.0
2025-07-21 14:25:01.055,2.700000000000002,2700,135,-0.018403862,-0.23007013,0.023453837,0.038995154,-0.010361592,-0.027137524,1.5,0.0,0.0,-0.010459936,-0.035936892,0.03966589,0.2274702,0.015023389,0.070622794,0.21642195,0.056649532,-0.29060766,0.16524051,-0.07943222,-0.16457503,0.21463548,-0.016200105,-0.119385146,0.05272554,-0.088174336,0.0056275255,-0.10384281,0.018290484,-0.0072731925,-0.01295662,-0.1134663,-0.16121031,-0.033762444,-2.0,0.040525306,2.0,-2.0,0.68061805,-2.0,2.0,-1.7284651,-2.0,-2.0,-1.8370689,2.0,-2.0,1.055947,2.0,-2.0,-0.10046655,-2.0,2.0,-1.5287597,-2.0,-2.0,0.056957357,2.0
2025-07-21 14:25:01.075,2.720000000000002,2720,136,0.009315784,-0.19078659,0.038591217,-0.00240263,-0.022430986,-0.01513206,1.5,0.0,0.0,-0.010435992,-0.04158713,0.03822082,0.2277962,0.001194901,0.049549475,0.21193957,0.046075024,-0.311611,0.14539196,-0.08457691,-0.17268522,0.22318979,0.026265033,-0.020779932,-0.0066017234,0.058253564,-0.11128531,0.06648053,0.025553932,-0.048095338,-0.06711613,-0.047680102,0.10111692,0.028040938,-2.0,1.055947,2.0,-2.0,-0.10046655,-2.0,2.0,-1.5287597,-2.0,-2.0,0.056957357,2.0,-0.74871314,1.6140234,1.8795469,-2.0,0.15309095,-2.0,2.0,-1.4632308,-2.0,-2.0,0.6626403,2.0
2025-07-21 14:25:01.100,2.740000000000002,2740,137,-0.072125666,-0.079852134,0.065336086,0.051241048,0.05633332,0.02593402,1.5,0.0,0.0,-0.01087175,-0.06922596,0.07798053,0.24275756,0.0064786077,0.03139049,0.20012905,0.04300719,-0.31405425,0.14139402,-0.100206785,-0.11352572,0.22695917,0.002946885,0.086892374,0.008698288,-0.043123756,-0.023081617,0.0029173258,-0.07836454,0.04783926,-0.063136,-0.025092745,0.20148644,0.059539173,-0.74871314,1.6140234,1.8795469,-2.0,0.15309095,-2.0,2.0,-1.4632308,-2.0,-2.0,0.6626403,2.0,2.0,1.590843,-1.8851907,-2.0,0.11989869,0.16642404,2.0,-1.3431435,-2.0,-2.0,0.85686225,2.0
2025-07-21 14:25:01.118,2.760000000000002,2760,138,-0.007206615,0.16997099,0.12433157,0.0869223,-0.019326808,0.03198779,1.5,0.0,0.0,-0.012006362,-0.042940594,0.088042825,0.2323457,0.014711685,0.0033065893,0.2052115,0.04790955,-0.30472732,0.121613905,-0.09205853,-0.035841245,0.22774228,0.06639392,-0.04258111,0.0025976868,0.020720983,-0.00035221604,-0.008866909,-0.034179103,-0.02135571,-0.026506154,0.022042865,0.2585219,0.0043090717,2.0,1.590843,-1.8851907,-2.0,0.11989869,0.16642404,2.0,-1.3431435,-2.0,-2.0,0.85686225,2.0,2.0,-0.7517246,-2.0,-2.0,-0.7338575,2.0,2.0,-0.794213,2.0,-2.0,0.5193622,-2.0
2025-07-21 14:25:01.135,2.780000000000002,2780,139,-0.062513344,0.075021125,-0.052784033,0.02406,0.0140694585,0.041183464,1.5,0.0,0.0,-0.013552153,-0.034271948,0.09132981,0.23251402,0.029768277,-0.03084786,0.22985318,0.045607943,-0.32371035,0.13444415,-0.08960138,0.01549402,0.19622004,0.061264463,0.006894852,-0.0014319522,0.06903765,-0.16186738,0.072314374,0.0782885,0.056751907,0.08607228,0.0090215225,-0.045870375,0.0045393845,2.0,-0.7517246,-2.0,-2.0,-0.7338575,2.0,2.0,-0.794213,2.0,-2.0,0.5193622,-2.0,2.0,-0.40133667,-2.0,-2.0,0.13329233,2.0,2.0,-0.16226605,2.0,-2.0,-1.638023,-2.0
2025-07-21 14:25:01.155,2.800000000000002,2800,140,0.06531966,0.16836366,0.015667157,0.028007602,0.026597392,-0.03499947,1.5,0.0,0.0,-0.01442442,-0.016394895,0.06056621,0.22943921,0.026995748,-0.042467166,0.24919295,0.070326805,-0.28065845,0.15901738,-0.09357829,-0.010598959,0.19347829,0.063902475,-0.017163878,-0.031781167,-0.11262096,-0.05599915,0.043056473,0.05619674,0.16514103,0.037859358,-0.014775939,-0.15461037,0.047900252,2.0,-0.40133667,-2.0,-2.0,0.13329233,2.0,2.0,-0.16226605,2.0,-2.0,-1.638023,-2.0,2.0,-0.66090447,-2.0,-2.0,1.1782311,2.0,2.0,-0.8601273,1.6587641,-2.0,-1.9317397,-2.0
2025-07-21 14:25:01.176,2.820000000000002,2820,141,0.11220165,0.0800806,-0.047430366,-0.008500103,0.008146945,-0.022526458,1.5,0.0,0.0,-0.013932247,-0.023552582,0.048488803,0.20243075,0.0054519656,-0.044120427,0.25258517,0.07397456,-0.2704151,0.17168401,-0.07195212,-0.053150285,0.21445638,-0.043255992,-0.06381194,0.022677405,-0.025998633,-0.0046640635,-0.040293463,-0.0033486027,-0.013345899,-0.0064296317,0.08123857,-0.14830038,0.029333705,2.0,-0.66090447,-2.0,-2.0,1.1782311,2.0,2.0,-0.8601273,1.6587641,-2.0,-1.9317397,-2.0,-0.21485892,-0.6844763,-1.1494584,-2.0,1.3628341,2.0,2.0,-0.83392394,-1.3413768,-2.0,-2.0,-2.0
2025-07-21 14:25:01.201,2.840000000000002,2840,142,-0.031810887,0.04073094,-0.034115884,0.034620643,-0.015064439,-0.048074394,1.5,0.0,0.0,-0.0128789395,-0.020347657,0.023428837,0.20754081,-0.019003442,0.0055029206,0.26069173,0.094465345,-0.2840629,0.16510268,-0.06765357,-0.07103286,0.2416538,-0.04472663,-0.0824527,0.011751027,-0.09981411,0.17380244,0.03679211,-0.0057560527,0.027464418,-0.07873088,0.015875706,-0.13711414,-0.0021754715,-0.21485892,-0.6844763,-1.1494584,-2.0,1.3628341,2.0,2.0,-0.83392394,-1.3413768,-2.0,-2.0,-2.0,-2.0,-0.7848867,2.0,-2.0,2.0,-2.0,2.0,-1.3649263,-2.0,-2.0,-2.0,-2.0
2025-07-21 14:25:01.218,2.860000000000002,2860,143,-0.005569454,-0.18502377,-0.053108476,-0.025273638,-0.03456948,0.037118364,1.5,0.0,0.0,-0.011627717,-0.021588715,-0.012889549,0.1981761,-0.038029633,0.029799396,0.23043403,0.0895887,-0.29159877,0.14692546,-0.067964025,-0.09575217,0.21946932,-0.0850301,-0.1684921,-0.015101732,-0.020483615,0.004759844,-0.002970303,0.034623567,-0.07537564,-0.0054240823,-0.017571313,-0.058091108,0.026221598,-2.0,-0.7848867,2.0,-2.0,2.0,-2.0,2.0,-1.3649263,-2.0,-2.0,-2.0,-2.0,-2.0,0.7992658,2.0,-2.0,0.20183116,-2.0,2.0,-1.3199742,-2.0,-2.0,-1.3246272,2.0
2025-07-21 14:25:01.235,2.880000000000002,2880,144,0.019451031,-0.14676788,0.050550602,0.0031436486,0.026469624,-0.01331071,1.5,0.0,0.0,-0.010529129,-0.050312553,-0.008643634,0.2069429,-0.037197422,0.03462397,0.20970954,0.06870377,-0.3179193,0.13346905,-0.08517127,-0.12951049,0.22740182,-0.07408984,0.13706113,0.042849425,0.015125848,0.019278266,-0.07153277,-0.0792331,0.008399328,0.008296304,-0.08626241,-0.14033952,-0.06268595,-2.0,0.7992658,2.0,-2.0,0.20183116,-2.0,2.0,-1.3199742,-2.0,-2.0,-1.3246272,2.0,-2.0,1.10045,2.0,-2.0,-0.06121141,-2.0,2.0,-1.7818458,-2.0,-2.0,0.4247719,2.0
2025-07-21 14:25:01.255,2.900000000000002,2900,145,0.030735446,-0.120824695,0.015649175,0.011678735,0.024426302,0.04014129,1.5,0.0,0.0,-0.010174416,-0.055214424,0.03565014,0.20984693,-0.057567358,0.025733046,0.21153547,0.06589569,-0.31013995,0.12886341,-0.10733001,-0.11601133,0.22301584,-0.073693104,0.15243913,-0.032793257,0.020755352,0.013401001,0.0064870487,-0.10287418,0.038149737,-0.06450289,0.040525883,0.116812445,-0.07267672,-2.0,1.10045,2.0,-2.0,-0.06121141,-2.0,2.0,-1.7818458,-2.0,-2.0,0.4247719,2.0,-0.49405888,1.6807694,1.8519589,-2.0,0.06353521,-2.0,2.0,-1.2636039,-2.0,-2.0,0.5429248,2.0
2025-07-21 14:25:01.275,2.920000000000002,2920,146,-0.04221881,-0.06469067,0.090672925,-0.00546145,0.010228632,-0.03725002,1.5,0.0,0.0,-0.01039507,-0.05399832,0.12682174,0.21900222,-0.06502111,0.0135744335,0.1990918,0.042453147,-0.32873514,0.12042247,-0.09731531,-0.07290387,0.21729119,0.0248393,0.18924956,-0.00073141087,0.06239995,-0.09825641,0.04029269,-0.057408042,-0.036368113,0.043288477,-0.010501731,0.20133859,-0.010301109,-0.49405888,1.6807694,1.8519589,-2.0,0.06353521,-2.0,2.0,-1.2636039,-2.0,-2.0,0.5429248,2.0,2.0,1.4821904,-2.0,-2.0,0.21680494,1.0478588,2.0,-1.5237634,-2.0,-2.0,0.9640519,2.0
2025-07-21 14:25:01.301,2.940000000000002,2940,147,-0.058308035,0.1979981,0.0932286,-0.007903761,0.03975223,0.038129907,1.5,0.0,0.0,-0.011143393,-0.034697823,0.18665612,0.16629013,-0.05738506,-0.009679058,0.20197128,0.04382998,-0.32875603,0.10667041,-0.0986206,0.0074742907,0.21996899,0.017398726,0.06424817,0.009806453,-0.003594566,-0.0959678,0.009934433,0.020104013,0.0058733127,0.019635793,-0.03926741,0.1597411,-0.015620866,2.0,1.4821904,-2.0,-2.0,0.21680494,1.0478588,2.0,-1.5237634,-2.0,-2.0,0.9640519,2.0,2.0,-0.9239553,-2.0,-2.0,-1.1302472,2.0,2.0,-0.6316551,2.0,-2.0,0.4973616,-2.0
2025-07-21 14:25:01.321,2.960000000000002,2960,148,0.03625813,0.11391076,-0.020344459,0.057054482,-0.036409937,-0.04132957,1.5,0.0,0.0,-0.01205043,-0.015226826,0.1856908,0.17013553,-0.033428885,-0.048602015,0.23195654,0.06440242,-0.3322987,0.10961233,-0.09812868,0.041970804,0.18649568,-0.0031622704,-0.008563418,0.018833578,-0.024527438,-0.04620325,0.00782018,0.01025392,-0.026316334,-0.026774125,0.069426775,-0.04254643,-0.0923445,2.0,-0.9239553,-2.0,-2.0,-1.1302472,2.0,2.0,-0.6316551,2.0,-2.0,0.4973616,-2.0,2.0,-0.5561594,-2.0,-1.7273492,0.31688246,2.0,2.0,-0.32627973,2.0,-2.0,-1.5202187,-2.0
2025-07-21 14:25:01.341,2.980000000000002,2980,149,0.05125763,0.090817176,-0.093398705,0.011430646,-0.043173987,-0.010189996,1.5,0.0,0.0,-0.012670057,-0.0018284438,0.16225307,0.18997888,-0.038384616,-0.077757396,0.2411224,0.07365636,-0.3123092,0.14320026,-0.07900171,0.031335507,0.18841866,-0.047640394,-0.012606797,-0.04828621,-0.018513264,-0.03407337,0.019206746,-0.0221861,0.106657535,0.07627368,0.07454259,-0.13603045,-0.007944629,2.0,-0.5561594,-2.0,-1.7273492,0.31688246,2.0,2.0,-0.32627973,2.0,-2.0,-1.5202187,-2.0,2.0,-0.20343669,-2.0,-1.9094238,1.227023,2.0,2.0,-0.94931537,0.94069844,-2.0,-2.0,-2.0
2025-07-21 14:25:01.374,3.000000000000002,3000,150,0.061548173,0.13385865,-0.08360313,0.038434494,-0.013376691,-0.04103009,1.5,0.0,0.0,-0.011970736,-0.0041166977,0.12920883,0.18309066,-0.02923469,-0.062865116,0.26094994,0.08472642,-0.3239888,0.15241805,-0.071620636,0.0032263917,0.22642776,0.06290006,-0.02362455,0.01785632,-0.02093038,0.11936209,0.04479281,0.010132293,-0.09444878,0.076456204,-0.053652007,-0.07956076,0.054984137,2.0,-0.20343669,-2.0,-1.9094238,1.227023,2.0,2.0,-0.94931537,0.94069844,-2.0,-2.0,-2.0,0.2002804,-0.83840424,-0.91313475,-2.0,1.2626073,2.0,2.0,-0.94991773,-2.0,-2.0,-2.0,-2.0
2025-07-21 14:25:01.401,3.0200000000000022,3020,151,0.004873882,0.09349856,-0.006321978,0.057450257,-0.033247724,0.027206475,1.5,0.0,0.0,-0.010980257,-0.00035972177,0.106629424,0.19103642,-0.038459282,-0.032150038,0.25727603,0.09695041,-0.32616818,0.1397369,-0.06813492,-0.036078822,0.23321623,0.016461374,-0.07632502,0.047921028,-0.04189581,0.10594804,0.08249881,0.07227101,-0.0033774215,-0.08207479,0.04865245,-0.060159016,0.09189642,0.2002804,-0.83840424,-0.91313475,-2.0,1.2626073,2.0,2.0,-0.94991773,-2.0,-2.0,-2.0,-2.0,-2.0,-0.82757854,2.0,-2.0,2.0,-2.0,2.0,-1.4710429,-2.0,-2.0,-2.0,-2.0
2025-07-21 14:25:01.418,3.0400000000000023,3040,152,-0.014339858,-0.27857637,-0.080519654,-0.02459353,0.016208006,-0.013013908,1.5,0.0,0.0,-0.0099344775,-0.008346012,0.06731257,0.19635242,-0.03960593,0.004851759,0.23250231,0.08880075,-0.34206828,0.120524906,-0.07287077,-0.05611674,0.22620043,-0.024458313,-0.20278811,0.023128245,-0.07260361,0.11496312,0.011674368,-0.07420834,-0.066160984,0.018658498,0.012797006,-0.001720318,-0.100461766,-2.0,-0.82757854,2.0,-2.0,2.0,-2.0,2.0,-1.4710429,-2.0,-2.0,-2.0,-2.0,-2.0,0.78233635,2.0,-2.0,0.03497481,-2.0,2.0,-1.0954914,-2.0,-2.0,-1.1973246,2.0
2025-07-21 14:25:01.434,3.0600000000000023,3060,153,-0.030903786,-0.11245552,0.024221145,-0.0072657056,-0.014134562,0.04272374,1.5,0.0,0.0,-0.008996378,-0.022675434,0.051580746,0.22210442,-0.059588496,-0.006029068,0.21999706,0.07288197,-0.36020422,0.12295575,-0.0977014,-0.08459109,0.23807812,-0.08202718,0.06642913,0.0060706446,-0.09401792,-0.091226704,-0.0001334694,-0.030181965,-0.005847482,-0.09949024,-0.034001593,-0.07338662,-0.06097945,-2.0,0.78233635,2.0,-2.0,0.03497481,-2.0,2.0,-1.0954914,-2.0,-2.0,-1.1973246,2.0,-2.0,1.1727505,2.0,-2.0,-0.17848349,-2.0,2.0,-1.6777413,-2.0,-2.0,0.5630836,2.0
2025-07-21 14:25:01.457,3.0800000000000023,3080,154,-0.0668375,-0.12368766,0.08171898,0.011894914,-0.016845714,0.023227436,1.5,0.0,0.0,-0.008947568,-0.036555883,0.07792844,0.22267625,-0.076823406,-0.015163546,0.22227646,0.06167184,-0.36141953,0.10079863,-0.10766662,-0.0827102,0.23018956,0.02207756,0.08883806,0.019739365,-0.07619573,-0.06816321,-0.09028201,0.013710718,0.06315173,-0.06486529,-0.019430965,0.07754382,0.044373415,-2.0,1.1727505,2.0,-2.0,-0.17848349,-2.0,2.0,-1.6777413,-2.0,-2.0,0.5630836,2.0,-0.082332045,1.5240215,0.9209599,-2.0,0.3732436,-1.3120584,2.0,-1.4218729,-2.0,-2.0,0.5830671,2.0
2025-07-21 14:25:01.480,3.1000000000000023,3100,155,-0.03144377,-0.03180674,0.028500434,-0.013333735,0.017862089,-0.03275766,1.5,0.0,0.0,-0.009640472,-0.047371093,0.15120834,0.20753345,-0.060829133,-0.032537203,0.21865235,0.043967616,-0.35547537,0.09612851,-0.09840093,-0.03555718,0.23588155,0.03620485,0.24237666,-0.04528114,0.06718963,-0.015745107,-0.07849536,0.0015107004,0.07006003,-0.016172249,0.059989695,0.15514195,0.012796302,-0.082332045,1.5240215,0.9209599,-2.0,0.3732436,-1.3120584,2.0,-1.4218729,-2.0,-2.0,0.5830671,2.0,2.0,0.923241,-2.0,-2.0,-0.15821521,0.1958816,2.0,-1.1690338,-2.0,-2.0,0.3313836,0.38365108
2025-07-21 14:25:01.501,3.1200000000000023,3120,156,-0.01833102,0.1953029,0.1087819,0.0411638,-0.019967228,-0.033020284,1.5,0.0,0.0,-0.010624238,-0.021559052,0.17309357,0.18927346,-0.057623774,-0.048173018,0.20887585,0.058779642,-0.33943915,0.075467594,-0.10959655,0.003045783,0.19824094,0.10544556,0.011379104,-0.06634641,0.048951592,-0.09825586,0.07271966,0.09980392,0.031682633,-0.054634247,-0.035963353,0.1524055,-0.062963724,2.0,0.923241,-2.0,-2.0,-0.15821521,0.1958816,2.0,-1.1690338,-2.0,-2.0,0.3313836,0.38365108,2.0,-1.2160454,-2.0,-2.0,-0.9602137,2.0,2.0,-0.658917,2.0,-2.0,0.14476922,-2.0
2025-07-21 14:25:01.518,3.1400000000000023,3140,157,0.014763924,0.13305862,0.02791434,0.026148705,-0.035284314,0.016326018,1.5,0.0,0.0,-0.01196774,-0.008449644,0.16036206,0.17429426,-0.053961165,-0.08406229,0.22926949,0.06543048,-0.3440852,0.07303806,-0.09435533,0.02148578,0.17234895,0.08639192,-0.066797845,0.02391546,0.062175572,-0.0767954,0.11655278,-0.032288156,0.015052874,0.10912548,0.021495802,0.0253864,-0.0095314635,2.0,-1.2160454,-2.0,-2.0,-0.9602137,2.0,2.0,-0.658917,2.0,-2.0,0.14476922,-2.0,2.0,-0.5789185,-2.0,-2.0,0.15295249,2.0,2.0,-0.3988055,2.0,-2.0,-1.2017541,-2.0
2025-07-21 14:25:01.537,3.1600000000000024,3160,158,0.08015541,0.035825472,-0.11567625,0.027394887,-0.010215856,0.031941928,1.5,0.0,0.0,-0.012562501,-0.0048322976,0.14533018,0.19868483,-0.04819095,-0.090208724,0.24652018,0.06897808,-0.2998019,0.11187156,-0.08786321,-0.0023427785,0.1910888,0.045475435,-0.13805962,-0.04216685,-0.022147762,-0.023215052,0.08822458,0.050361738,0.13421518,0.05643409,0.0035844874,-0.045569874,-0.023023538,2.0,-0.5789185,-2.0,-2.0,0.15295249,2.0,2.0,-0.3988055,2.0,-2.0,-1.2017541,-2.0,2.0,-0.24263574,-2.0,-2.0,1.0066078,2.0,2.0,-0.81139106,2.0,-2.0,-2.0,-2.0
2025-07-21 14:25:01.558,3.1800000000000024,3180,159,0.17165686,0.053517435,-0.11065512,-0.019349273,-0.032572854,0.011999393,1.5,0.0,0.0,-0.011609068,-0.0013330962,0.097038336,0.18369111,-0.055878382,-0.07958605,0.24637437,0.08966114,-0.28070962,0.15416722,-0.07934564,-0.034517866,0.20188153,-0.046338003,-0.06993347,-0.078713715,-0.027514217,0.020303736,0.031406686,0.022956569,0.024131449,-0.010927036,0.026286578,-0.14038908,0.06776199,2.0,-0.24263574,-2.0,-2.0,1.0066078,2.0,2.0,-0.81139106,2.0,-2.0,-2.0,-2.0,0.38387492,-0.23935772,-1.3900912,-1.695385,1.4934949,2.0,2.0,-0.8489068,-0.15020351,-2.0,-2.0,-2.0
2025-07-21 14:25:01.584,3.2000000000000024,3200,160,0.059840757,0.052719224,-0.093383424,0.0057841144,0.01994925,-0.022056993,1.5,0.0,0.0,-0.010055305,0.0030793177,0.080400884,0.18146649,-0.048766498,-0.031229593,0.24702613,0.093356535,-0.297626,0.16252552,-0.062236007,-0.068433,0.22336899,-0.03339667,0.011101885,0.06067454,-0.07159854,0.23992515,9.502505e-06,0.007121613,-0.014629826,-0.045578316,0.06291746,-0.033281717,0.0548283,0.38387492,-0.23935772,-1.3900912,-1.695385,1.4934949,2.0,2.0,-0.8489068,-0.15020351,-2.0,-2.0,-2.0,-2.0,-0.89469975,2.0,-0.37568468,1.8387364,-2.0,2.0,-1.02274,-2.0,-2.0,-2.0,-2.0
2025-07-21 14:25:01.601,3.2200000000000024,3220,161,-0.020827612,-0.1974439,0.047716875,-0.0012081651,-0.016856618,-0.0043656877,1.5,0.0,0.0,-0.008793244,-0.020552466,0.045338348,0.19041577,-0.0679686,0.013267385,0.2183574,0.08959941,-0.32339537,0.14091621,-0.0765152,-0.09033809,0.21183635,-0.093907416,-0.0955048,-0.0026014687,-0.02629305,0.04342186,-0.05888889,0.03304916,-0.0722409,-0.07252824,-0.02489949,-0.028192492,-0.10204066,-2.0,-0.89469975,2.0,-0.37568468,1.8387364,-2.0,2.0,-1.02274,-2.0,-2.0,-2.0,-2.0,-2.0,0.53932345,2.0,-2.0,0.51382846,-2.0,2.0,-1.9455194,-2.0,-2.0,-1.2033099,2.0
