openverse-orca/OrcaGym/log/simulation_log_20250721_141207.csv
timestamp,sim_time,physics_step,control_step,imu_angle_roll,imu_angle_pitch,imu_angle_yaw,imu_angular_velocity_roll,imu_angular_velocity_pitch,imu_angular_velocity_yaw,imu_acc_x,imu_acc_y,imu_acc_z,fl_joint1_pos,fl_joint1_vel,fl_joint1_torque,fl_joint2_pos,fl_joint2_vel,fl_joint2_torque,fl_joint3_pos,fl_joint3_vel,fl_joint3_torque,fr_joint1_pos,fr_joint1_vel,fr_joint1_torque,fr_joint2_pos,fr_joint2_vel,fr_joint2_torque,fr_joint3_pos,fr_joint3_vel,fr_joint3_torque,hl_joint1_pos,hl_joint1_vel,hl_joint1_torque,hl_joint2_pos,hl_joint2_vel,hl_joint2_torque,hl_joint3_pos,hl_joint3_vel,hl_joint3_torque,hr_joint1_pos,hr_joint1_vel,hr_joint1_torque,hr_joint2_pos,hr_joint2_vel,hr_joint2_torque,hr_joint3_pos,hr_joint3_vel,hr_joint3_torque,fl_force_x,fl_force_y,fl_force_z,fr_force_x,fr_force_y,fr_force_z,hl_force_x,hl_force_y,hl_force_z,hr_force_x,hr_force_y,hr_force_z,fl_hip_action,fl_thigh_action,fl_calf_action,fr_hip_action,fr_thigh_action,fr_calf_action,hl_hip_action,hl_thigh_action,hl_calf_action,hr_hip_action,hr_thigh_action,hr_calf_action
2025-07-21 14:12:07.862,0.0,0,0,-0.0042391797,-0.04278249,-0.0030210677,-0.021487035,0.013609408,0.03529152,1.3921388,-0.12417981,0.0,0.0,0.0097429,-0.009727376,-0.00011589454,-0.0023764763,-0.00017772765,0.009685189,0.0052722706,0.009693593,-0.006049792,-0.008347073,-0.0035924902,0.0069042146,0.03266945,-0.0065624807,0.0060057277,0.002796841,-0.05807321,-0.054348182,0.010469953,-0.009644738,0.046663597,-0.028729232,-0.065475985,-0.031291086,0.0,0.0,0.0,0.0,0.0,0.0,0.0,0.0,0.0,0.0,0.0,0.0,0.8134566,1.4113119,0.25145888,-1.3834579,0.72222996,-0.5279094,1.0267378,1.0585184,0.50364697,0.6034277,1.9435415,1.1550915
2025-07-21 14:12:07.877,0.02,20,1,0.3387073,-0.051415242,0.00804029,-0.055498444,0.014630825,-0.037756298,0.0,0.0,0.0,0.0,0.024989417,0.031681333,-0.008011987,-0.040325094,0.048889164,-0.02299851,0.023992838,0.04999162,0.0045075547,0.014318042,0.044318866,0.02788311,0.10271513,0.21598543,-0.0064987727,-0.018634973,0.097752854,0.010200566,0.035675436,0.24911581,0.09760396,0.06285725,0.20675059,0.043115597,0.8134566,1.4113119,0.25145888,-1.3834579,0.72222996,-0.5279094,1.0267378,1.0585184,0.50364697,0.6034277,1.9435415,1.1550915,-0.7358579,-1.5746387,-0.23122245,-0.014752051,-1.3749295,-0.39756024,-0.7689274,-0.49670628,-0.9729813,-0.32312173,-0.30209032,-0.68046534
2025-07-21 14:12:07.894,0.04,40,2,-0.14911832,0.1789424,0.009000867,-0.01267829,-0.030632379,0.036658745,0.0,0.0,0.0,-0.0002745388,0.015502759,0.06471806,-0.009065034,-0.04317018,0.025514329,-0.02062603,0.01149422,0.046168115,-0.012031951,-0.010230362,0.089282215,0.0108908685,-0.07897701,-0.016745782,-0.09737696,0.07660045,-0.1358432,-0.04439406,-0.074818954,-0.15601707,-0.09583534,0.023801124,-0.06425486,-0.05829176,-0.7358579,-1.5746387,-0.23122245,-0.014752051,-1.3749295,-0.39756024,-0.7689274,-0.49670628,-0.9729813,-0.32312173,-0.30209032,-0.68046534,0.38709328,-0.55024767,-0.456934,-0.16156486,-0.0748316,0.26054668,0.8927729,1.6179357,0.6127257,-0.31459403,-0.4336505,0.41122502
2025-07-21 14:12:07.912,0.06,60,3,-0.19049042,-0.100743435,-0.052757457,-0.053894885,-0.0002074872,-0.04261009,0.0,0.0,0.0,-0.00029956774,0.013147226,0.065931015,-0.024984188,-0.027742127,0.0023322308,-0.020276189,0.011623813,0.053922057,-0.005307009,-0.008799483,0.063972704,0.018836489,0.018253483,0.026850153,-0.016221544,-0.011968105,-0.039752737,0.03129953,0.08751591,0.0923433,0.07306248,-0.018558076,-0.06366458,0.01773266,0.38709328,-0.55024767,-0.456934,-0.16156486,-0.0748316,0.26054668,0.8927729,1.6179357,0.6127257,-0.31459403,-0.4336505,0.41122502,0.15482534,-1.4743973,-0.26973432,-0.31060654,-0.23195238,-0.5681061,0.48092467,0.44288126,0.7169445,-0.119472876,0.95278615,0.7345188
2025-07-21 14:12:07.932,0.08,80,4,-0.107476786,0.027052075,0.0016526036,-0.039277814,-0.031156188,-0.02250125,0.0,0.0,0.0,0.00049224304,0.02819045,0.021880463,-0.025707027,-0.028451152,-0.012331068,-0.033192813,0.035301905,0.080521256,0.02195176,-0.0024760605,0.093810834,0.026521558,0.060201626,-0.08426109,0.0012732216,-0.021600017,-0.095460735,0.026702877,-0.048858944,0.021926943,0.07727306,-0.0034327796,0.11338184,0.026717931,0.15482534,-1.4743973,-0.26973432,-0.31060654,-0.23195238,-0.5681061,0.48092467,0.44288126,0.7169445,-0.119472876,0.95278615,0.7345188,0.04544464,-1.0920033,0.25756526,-0.06930172,-0.14378716,0.2692656,0.6065334,0.6618846,0.43581614,-0.1452201,-0.7054245,0.396551
2025-07-21 14:12:07.952,0.1,100,5,0.03179632,0.056047957,0.017985048,-0.04325119,-0.025179397,-0.022549963,0.0,0.0,0.0,0.0012287232,0.03137493,-0.019236365,-0.02069041,-0.028807173,-0.039630927,-0.023893887,0.041329425,0.10629861,0.028432142,-0.0045655062,0.09575965,0.04274273,-0.057700247,-0.13774988,-0.0036576535,0.042854257,-0.055236325,0.058056757,0.08567674,0.058176823,0.06691962,-0.02233828,-0.091773115,0.0021108752,0.04544464,-1.0920033,0.25756526,-0.06930172,-0.14378716,0.2692656,0.6065334,0.6618846,0.43581614,-0.1452201,-0.7054245,0.396551,0.30510432,-0.17794007,0.49040422,-0.33927044,0.42500135,-0.6328588,1.179763,0.6816278,0.57384354,0.3312165,-0.070950925,1.1780463
2025-07-21 14:12:07.977,0.12000000000000001,120,6,0.056237344,-0.0997046,-0.0004643046,-0.05202964,-0.02354754,-0.023758857,0.0,0.0,0.0,0.0011192755,0.032762244,-0.03530751,-0.0058898665,-0.041226834,-0.0015624637,-0.051252738,0.07557149,0.14459738,0.04245549,-0.005392347,0.0697724,0.066431955,0.06328451,-0.005708323,0.003639501,0.044803105,0.0282723,-0.08580407,0.046503697,0.0103352815,0.08453055,-0.005728636,-0.05457449,0.09783088,0.30510432,-0.17794007,0.49040422,-0.33927044,0.42500135,-0.6328588,1.179763,0.6816278,0.57384354,0.3312165,-0.070950925,1.1780463,-0.08892296,-0.9668515,0.66493285,-0.48994884,-0.50037295,-0.3957572,0.76228076,0.9778428,0.2484524,0.2907829,-0.073912024,0.9513315
2025-07-21 14:12:07.994,0.14,140,7,-0.053092472,0.00019855275,0.09125689,-0.02189979,0.012763159,0.038300976,0.0,0.0,0.0,0.00034648547,0.021771537,-0.06116089,0.007820389,-0.045216218,-0.0065540588,-0.038187433,0.0795288,0.19590406,0.030908067,0.010749666,0.042530086,0.06868783,-0.032290053,-0.12292894,0.07747561,0.045604516,-0.04343291,-0.078390464,0.015122716,0.14698325,0.06560565,0.040921163,-0.040102307,0.012170352,-0.08892296,-0.9668515,0.66493285,-0.48994884,-0.50037295,-0.3957572,0.76228076,0.9778428,0.2484524,0.2907829,-0.073912024,0.9513315,0.5007751,0.18240291,0.49866357,-0.50114036,-0.4613943,-1.1039428,0.3402876,-0.03136096,0.7000863,-0.32233948,-0.19559714,1.1720924
2025-07-21 14:12:08.012,0.16,160,8,-0.021541942,-0.030422159,-0.116336815,0.003097584,0.033878617,0.0018567857,0.0,0.0,0.0,-0.00013203996,0.03683037,-0.07131181,0.0079167,-0.06196542,-0.04110521,-0.074541025,0.07445036,0.17831637,0.058843195,-0.00061714713,0.030151742,0.091168836,0.06519773,0.016622137,-0.06308338,-0.05352908,-0.09449871,-0.061604142,-0.00059769966,-0.10951576,0.027965572,-0.070472844,0.0039255354,0.090259336,0.5007751,0.18240291,0.49866357,-0.50114036,-0.4613943,-1.1039428,0.3402876,-0.03136096,0.7000863,-0.32233948,-0.19559714,1.1720924,-0.76576936,-1.3977289,0.100904435,-0.44386485,-0.6599695,0.44110593,0.6839904,0.21100727,0.6515048,0.58729964,0.21519597,0.9399886
2025-07-21 14:12:08.032,0.18,180,9,0.09337534,-0.06748973,0.10542251,0.023584811,0.018673874,0.04533753,0.0,0.0,0.0,0.00042336422,0.04030059,-0.08077834,0.01256303,-0.067543104,-0.06815325,-0.052929636,0.08731416,0.15579659,0.06458006,-0.003033997,0.03189369,0.081044726,-0.013052518,-0.060031347,-0.009706554,0.032650333,-0.059653632,0.030624194,0.08652729,-0.01619605,0.048553273,0.09174207,0.05698032,-0.045892153,-0.76576936,-1.3977289,0.100904435,-0.44386485,-0.6599695,0.44110593,0.6839904,0.21100727,0.6515048,0.58729964,0.21519597,0.9399886,0.70077085,-0.40043908,0.024161125,0.017971763,-0.06942689,-0.22379005,0.44131052,0.088467486,0.45377305,-0.76844513,-0.013937868,0.23994067
2025-07-21 14:12:08.054,0.19999999999999998,200,10,0.084903754,-0.031754464,0.036232427,0.02806795,0.013548906,-0.04093589,0.0,0.0,0.0,-0.00071405614,0.04387819,-0.0973874,0.013986378,-0.058319144,-0.07847754,-0.05543183,0.083359316,0.14342347,0.056477148,-0.0222841,0.02945301,0.08901785,0.06370187,-0.06760931,-0.073551334,0.07376408,0.031817,-0.04990285,0.06701625,0.0113076465,-0.05285349,-0.11925979,-0.03843039,-0.07455966,0.70077085,-0.40043908,0.024161125,0.017971763,-0.06942689,-0.22379005,0.44131052,0.088467486,0.45377305,-0.76844513,-0.013937868,0.23994067,0.33697447,-0.21875107,0.55221665,-0.16242005,0.043270268,-0.53348416,0.6823852,0.34316215,0.5769097,0.049843073,0.005914632,0.5291329
2025-07-21 14:12:08.077,0.21999999999999997,220,11,0.19931433,-0.0626787,-0.07131095,0.036233213,0.012853031,-0.042751823,0.0,0.0,0.0,-0.0017648824,0.04196711,-0.09439368,0.01015143,-0.03743701,-0.053835087,-0.04469853,0.096272886,0.13869151,0.06764476,-0.02387475,0.026674425,0.07480052,-0.006834889,-0.0029193002,0.07386472,-0.033586543,0.03794206,0.052366972,0.046427477,-0.045471627,0.022938589,-0.0018609739,0.060608346,-0.077406794,0.33697447,-0.21875107,0.55221665,-0.16242005,0.043270268,-0.53348416,0.6823852,0.34316215,0.5769097,0.049843073,0.005914632,0.5291329,-0.56142753,-0.78583765,0.44483176,-0.21324567,-0.38355947,0.41201025,0.757277,0.2850805,0.6412991,0.42424968,-0.027048845,0.07178188
2025-07-21 14:12:08.094,0.23999999999999996,240,12,0.021515014,-0.010824997,0.14577436,-0.02209393,0.029062994,-0.013423009,0.0,0.0,0.0,-0.0016675997,0.036982156,-0.12831797,0.025136663,-0.051627293,-0.065198295,-0.040835496,0.09671902,0.1333539,0.068704255,-0.0053448686,0.023919465,0.061571963,-0.084148996,-0.018378654,0.07835122,-0.0058125774,-0.014946511,0.077756606,0.033290017,-0.06991263,0.04611537,0.06572271,-0.042683467,-0.09228662,-0.56142753,-0.78583765,0.44483176,-0.21324567,-0.38355947,0.41201025,0.757277,0.2850805,0.6412991,0.42424968,-0.027048845,0.07178188,0.9055219,0.14313245,0.4375498,0.016558716,0.18910275,-0.20724377,0.7632033,1.0812311,0.45873585,-0.6330434,-0.03783803,0.3363089
2025-07-21 14:12:08.113,0.25999999999999995,260,13,0.18466061,-0.12806123,-0.019309156,0.019100673,-0.012684767,-0.02731672,0.0,0.0,0.0,-0.0030244687,0.058590878,-0.12550348,0.01916961,-0.044821974,-0.0571564,-0.033601027,0.10089677,0.17426564,0.07396741,-0.021243002,0.020260343,0.058982864,0.0880772,0.09340667,-0.017469374,0.027356347,-0.0058104093,0.056593306,0.046679955,0.06433659,0.04834529,0.02124487,-0.011721807,0.007007111,0.9055219,0.14313245,0.4375498,0.016558716,0.18910275,-0.20724377,0.7632033,1.0812311,0.45873585,-0.6330434,-0.03783803,0.3363089,-0.20882978,-0.7593978,0.193589,-0.2392605,-0.00821959,-0.3578,0.4519597,0.26588613,0.6149108,0.0007737274,-0.44218454,0.5249235
2025-07-21 14:12:08.133,0.27999999999999997,280,14,-0.15397863,-0.024655597,0.054022957,-0.03356949,-0.01376492,0.046358064,0.0,0.0,0.0,-0.003734141,0.06535412,-0.13358077,0.020941626,-0.041864797,-0.046190314,-0.04168652,0.098565854,0.17120655,0.07294938,-0.026436886,0.0050589815,0.0648595,0.053786132,-0.034563474,0.022076804,0.07027857,-0.0064572413,0.02371722,0.031023515,0.016408162,-0.010314027,0.007654431,-0.095028184,0.07395478,-0.20882978,-0.7593978,0.193589,-0.2392605,-0.00821959,-0.3578,0.4519597,0.26588613,0.6149108,0.0007737274,-0.44218454,0.5249235,0.5235344,-0.31539202,0.61650765,-0.38182274,0.28557545,-0.8536961,0.27898845,0.6777074,0.705204,0.057754308,0.17249529,0.8328357
2025-07-21 14:12:08.160,0.3,300,15,0.12976988,-0.09173448,0.02558421,-0.034322128,0.030172018,-0.04282117,0.0,0.0,0.0,-0.0043602935,0.061019894,-0.14676653,0.013912114,-0.045632556,-0.015941363,-0.047326166,0.08876086,0.18420051,0.08803734,-0.040739615,0.0032613538,0.07335196,0.053184364,-0.016824936,-0.0028327338,-0.06945965,0.002121462,-0.0019236547,0.04266788,0.015002164,0.061627362,-0.047927562,-0.03284067,0.04172486,0.5235344,-0.31539202,0.61650765,-0.38182274,0.28557545,-0.8536961,0.27898845,0.6777074,0.705204,0.057754308,0.17249529,0.8328357,-0.078001514,-0.38654426,0.951161,-0.48082134,-0.31328458,-0.42032808,0.42921272,0.8052998,0.31552392,0.048603415,-0.70495677,0.71972084
2025-07-21 14:12:08.177,0.32,320,16,0.0053157555,0.00044886844,-0.13028467,-0.016448334,0.07082518,0.0010227688,0.0,0.0,0.0,-0.0051202867,0.056113,-0.15527005,0.03384848,-0.048611287,-0.031063814,-0.062042173,0.08625689,0.22360684,0.069673665,-0.03456077,-0.012162309,0.06808112,-0.023043633,-0.06622759,-0.013945408,0.0040791207,-0.114391476,-0.017166646,0.06488364,0.03452105,-0.051677644,0.009736484,-0.016861696,0.009312954,-0.078001514,-0.38654426,0.951161,-0.48082134,-0.31328458,-0.42032808,0.42921272,0.8052998,0.31552392,0.048603415,-0.70495677,0.71972084,-0.44547987,-0.4685762,0.27283597,-0.51330405,0.1644062,-0.020761967,0.7957789,-0.17541933,0.7362031,0.7193421,0.49682757,0.64664316
2025-07-21 14:12:08.194,0.34,340,17,-0.03003467,0.07124962,0.18057382,-0.060986638,0.048978556,0.017214658,0.0,0.0,0.0,-0.0038764798,0.041663054,-0.16485165,0.029513353,-0.051812157,-0.025580559,-0.049793173,0.097239695,0.19757594,0.08618784,-0.02839456,0.019510034,0.06300362,-0.10466497,0.026358444,0.04445709,-0.08671538,0.050973482,0.050525647,-0.022040447,-0.072474346,-0.014389281,0.0061673196,0.010613922,0.018025972,-0.44547987,-0.4685762,0.27283597,-0.51330405,0.1644062,-0.020761967,0.7957789,-0.17541933,0.7362031,0.7193421,0.49682757,0.64664316,0.47329134,-0.03793407,0.42483035,-0.36871177,-0.35314146,-0.07101652,0.41876742,0.3737436,0.0064495727,-0.547057,-0.45847657,0.014846094
2025-07-21 14:12:08.213,0.36000000000000004,360,18,-0.060718406,-0.020037794,-0.14500049,-0.0032853999,0.017879538,0.014020543,0.0,0.0,0.0,-0.0056246,0.063267045,-0.15693082,0.027717253,-0.060374018,-0.041496016,-0.041168205,0.09862222,0.17986189,0.071339026,-0.035299405,0.0140830865,0.059039682,-0.05621958,0.07308432,-0.07502693,0.039584655,-0.10955383,0.035310823,-0.06854385,0.027461171,-0.087527506,0.019356737,-0.06686145,0.00031951984,0.47329134,-0.03793407,0.42483035,-0.36871177,-0.35314146,-0.07101652,0.41876742,0.3737436,0.0064495727,-0.547057,-0.45847657,0.014846094,-0.5515792,-0.9679244,-0.06762531,-0.32822046,0.19462691,-0.07154453,0.94303364,0.12948433,1.0713838,0.8494406,0.62354356,0.5199989
2025-07-21 14:12:08.234,0.38000000000000006,380,19,0.014454996,0.10472103,0.27495387,0.024555244,0.046224274,0.01531537,0.0,0.0,0.0,-0.0057669976,0.04937759,-0.17066953,0.021345807,-0.054753967,-0.02133653,-0.028813174,0.109213226,0.16777873,0.07847037,-0.01636812,0.036249626,0.04611843,-0.011267429,-0.07188532,-0.0049688756,0.04091405,0.022373676,-0.041771583,0.06008685,-0.121133946,-0.020010702,0.030404015,0.12733415,0.006792053,-0.5515792,-0.9679244,-0.06762531,-0.32822046,0.19462691,-0.07154453,0.94303364,0.12948433,1.0713838,0.8494406,0.62354356,0.5199989,0.71248335,0.15849912,0.4898311,-0.12133186,-0.018945774,0.043033957,0.25334996,1.243415,0.09440293,-0.85630345,-0.8037246,0.05984623
2025-07-21 14:12:08.260,0.4000000000000001,400,20,-0.01530145,0.06789144,-0.14398919,0.027863016,0.04066577,-0.021663977,0.0,0.0,0.0,-0.007664546,0.04695527,-0.15782268,0.02543979,-0.04465612,-0.017691497,-0.037119716,0.095230155,0.2025066,0.065725334,-0.048568927,0.03616818,0.0431453,0.08893392,0.06658638,-0.07073462,0.049059313,-0.009449925,0.070283875,-0.01282245,0.10843751,0.04880862,-0.019013595,-0.05871423,-0.0785794,0.71248335,0.15849912,0.4898311,-0.12133186,-0.018945774,0.043033957,0.25334996,1.243415,0.09440293,-0.85630345,-0.8037246,0.05984623,-0.59248847,-1.071834,0.105872236,-0.46027336,0.018369207,-0.3516615,0.7455208,-0.13339707,0.6243152,0.38605487,0.50865364,0.60170317
2025-07-21 14:12:08.277,0.4200000000000001,420,21,-0.023832642,0.02369762,0.23276736,-0.028306838,-0.0035185823,0.043582506,0.0,0.0,0.0,-0.0077746212,0.0526341,-0.18117628,0.011657921,-0.04892282,-0.006769331,-0.042771265,0.10813865,0.18168497,0.08484638,-0.030192576,0.054948818,0.04149133,-0.07189355,-0.033089824,-0.013224445,-0.040251378,0.056588784,0.039314073,0.0034177033,-0.058359332,-0.06443979,0.09762523,0.14417817,-0.009643842,-0.59248847,-1.071834,0.105872236,-0.46027336,0.018369207,-0.3516615,0.7455208,-0.13339707,0.6243152,0.38605487,0.50865364,0.60170317,0.33277485,0.050947066,0.5491757,-0.20282948,-0.30843666,-0.2138694,0.20257162,0.61805695,-0.08342231,-0.60828745,-1.2796319,0.18386394
2025-07-21 14:12:08.294,0.4400000000000001,440,22,0.06140376,-0.087023824,-0.13451631,0.012347248,0.017924018,-0.03055233,0.0,0.0,0.0,-0.009613819,0.042980846,-0.19551703,0.011275667,-0.058295008,-0.02245496,-0.038777113,0.08619073,0.2001994,0.06493308,-0.043774255,0.05157481,0.054144427,-0.036825623,0.09010152,0.031266328,-0.0036091525,-0.070412345,0.072850876,-0.09226727,0.044832412,-0.10840009,-0.0584242,-0.1127572,0.0061113373,0.33277485,0.050947066,0.5491757,-0.20282948,-0.30843666,-0.2138694,0.20257162,0.61805695,-0.08342231,-0.60828745,-1.2796319,0.18386394,-0.35454583,-0.8027891,0.07613052,-0.54727846,0.049540564,-0.47220623,0.7683389,0.16607448,0.664951,0.67738533,0.45541447,0.80588543
2025-07-21 14:12:08.314,0.46000000000000013,460,23,0.01857781,0.0015824175,0.19404012,0.012722244,0.063460335,0.044057585,0.0,0.0,0.0,-0.009746505,0.054950144,-0.20994256,0.020494074,-0.063114814,-0.015166912,-0.03196841,0.09407073,0.17077686,0.07439996,-0.04047565,0.06358702,0.045837004,0.0064050835,-0.04876687,0.020394426,0.012525571,-0.041222457,0.05710461,0.054272886,-0.064747155,0.021509044,0.08176008,0.09731649,-0.036849182,-0.35454583,-0.8027891,0.07613052,-0.54727846,0.049540564,-0.47220623,0.7683389,0.16607448,0.664951,0.67738533,0.45541447,0.80588543,0.47008485,0.18964005,0.34887895,-0.24309412,0.09886988,-0.14238524,0.42364252,0.86692595,0.086763375,-0.7014177,-1.2364784,0.15168917
2025-07-21 14:12:08.334,0.48000000000000015,480,24,0.06538576,-0.036061257,-0.09046054,0.0047373613,0.07482306,-0.010683307,0.0,0.0,0.0,-0.011549873,0.041794904,-0.19410823,0.010806868,-0.06353867,-0.013143456,-0.030037463,0.08389094,0.1987935,0.06357687,-0.045157667,0.061004195,0.040734675,-0.04109856,0.055367514,-0.020418828,0.04545174,0.04168062,0.041421413,-0.019688774,0.08165504,-0.039986193,-0.059238907,-0.07397696,-0.015132504,0.47008485,0.18964005,0.34887895,-0.24309412,0.09886988,-0.14238524,0.42364252,0.86692595,0.086763375,-0.7014177,-1.2364784,0.15168917,-0.2647805,-0.8043871,0.39916366,-0.6742146,-0.2514823,-0.6046822,0.6426056,-0.1761061,0.38128912,0.568449,0.48126322,0.7333009
2025-07-21 14:12:08.363,0.5000000000000001,500,25,-0.10052829,0.052248146,0.12987655,-0.043238863,0.014252089,-0.024796963,0.0,0.0,0.0,-0.011713048,0.037877258,-0.2155505,0.021193141,-0.07262245,-0.015250251,-0.041434225,0.096556254,0.1737617,0.06395738,-0.034914546,0.07532892,0.056606323,-0.010002533,-0.080523945,0.06864125,0.014402609,0.02480132,-0.0314607,-0.012206765,-0.113945246,-0.043969482,-0.0049391086,0.12345305,0.07098332,-0.2647805,-0.8043871,0.39916366,-0.6742146,-0.2514823,-0.6046822,0.6426056,-0.1761061,0.38128912,0.568449,0.48126322,0.7333009,0.048984993,0.16642857,0.7102962,-0.29380146,-0.3064146,-0.034675658,0.48576012,0.9145408,-0.008160926,-0.24682128,-1.4384279,0.12157745
2025-07-21 14:12:08.380,0.5200000000000001,520,26,0.005164056,0.033467133,-0.14988987,0.008646531,0.07735158,-0.013149396,0.0,0.0,0.0,-0.012776539,0.033101823,-0.2202586,0.030542677,-0.057304893,-0.042595163,-0.0318053,0.09239264,0.19349077,0.047403477,-0.044183392,0.076567665,0.05673662,0.07594104,0.023194663,0.026281292,-0.01742839,-0.105217725,0.04182727,0.028215226,0.038377058,-0.03487981,-0.086209916,-0.09424288,-0.0655945,0.048984993,0.16642857,0.7102962,-0.29380146,-0.3064146,-0.034675658,0.48576012,0.9145408,-0.008160926,-0.24682128,-1.4384279,0.12157745,-0.33252475,-0.5317376,0.13412434,-0.65669054,0.0653578,-0.21684772,0.7468004,-0.008662306,0.54548943,0.67441785,0.43189707,0.73884267
2025-07-21 14:12:08.400,0.5400000000000001,540,27,0.062282324,-0.049208347,0.126211,-0.068845,0.012574288,0.02103109,0.0,0.0,0.0,-0.0123630455,0.030986782,-0.21545704,0.019236239,-0.08016724,-0.030935965,-0.037212785,0.09829948,0.161177,0.054008134,-0.040226977,0.08793995,0.04486874,-0.025804266,-0.01107754,-0.015949486,0.009738038,-0.021987194,-0.06979517,0.0006348697,-0.12540244,0.02759026,0.09870979,0.10040943,0.020667458,-0.33252475,-0.5317376,0.13412434,-0.65669054,0.0653578,-0.21684772,0.7468004,-0.008662306,0.54548943,0.67441785,0.43189707,0.73884267,0.04075407,-0.052837793,0.11267229,-0.16710325,0.095382996,0.2644019,0.31695464,1.0022048,-0.050487615,-0.17055124,-1.3864937,0.006424792
2025-07-21 14:12:08.427,0.5600000000000002,560,28,0.059344195,-0.010801425,-0.13414195,-0.055721357,0.041228376,0.034638684,0.0,0.0,0.0,-0.013497153,0.025592307,-0.1998511,0.0034023928,-0.06644835,-0.026593346,-0.038400646,0.090770625,0.18757153,0.042909853,-0.04421298,0.079192564,0.043890413,-0.02031703,0.027838916,-0.03401462,0.08363646,0.05510979,-0.047330152,-0.004071616,0.14627363,-0.047156405,-0.06324464,-0.004769414,-0.044335257,0.04075407,-0.052837793,0.11267229,-0.16710325,0.095382996,0.2644019,0.31695464,1.0022048,-0.050487615,-0.17055124,-1.3864937,0.006424792,-0.55403453,-0.61264145,0.51098394,-0.6097747,-0.32535613,-0.57391006,0.60768217,-0.7083385,0.20820051,0.6827468,0.40479895,0.22082108
2025-07-21 14:12:08.448,0.5800000000000002,580,29,-0.14474681,0.1217881,0.18946277,0.014962468,-0.019320657,0.014535479,0.0,0.0,0.0,-0.013154606,0.01255794,-0.18789515,0.02255378,-0.076208055,-0.035091143,-0.04768829,0.092285104,0.18169563,0.041720673,-0.026499521,0.09168314,0.045372657,-0.06375893,-0.04994257,-0.021263186,0.014796553,0.022435652,-0.08818452,0.05996101,-0.15520443,0.04645441,0.10413807,-0.013230598,-0.030935952,-0.55403453,-0.61264145,0.51098394,-0.6097747,-0.32535613,-0.57391006,0.60768217,-0.7083385,0.20820051,0.6827468,0.40479895,0.22082108,0.78243357,0.3236699,0.27613398,-0.103068344,0.33785427,-0.19815126,0.38466507,0.96995103,0.19528529,-0.57683945,-0.94902056,0.40214354
2025-07-21 14:12:08.468,0.6000000000000002,600,30,-0.009283894,-0.015337764,-0.10785204,0.0013575215,0.023758411,0.047353335,0.0,0.0,0.0,-0.013725924,0.028665356,-0.1862828,0.017129334,-0.07208296,-0.026023198,-0.03144025,0.08729729,0.18465017,0.038257185,-0.042211246,0.07183936,0.04794536,0.1221238,0.10835942,-0.00903338,-0.043900426,0.08132782,0.03594205,0.041587602,0.032237716,-0.020198662,0.013712823,-0.040209092,-0.039075945,0.78243357,0.3236699,0.27613398,-0.103068344,0.33785427,-0.19815126,0.38466507,0.96995103,0.19528529,-0.57683945,-0.94902056,0.40214354,-0.5568169,-1.2579663,0.3234165,-0.464332,-0.45033988,-0.25507176,0.7946993,-0.0017653331,0.2797317,0.37361306,0.2595251,0.32067126
2025-07-21 14:12:08.494,0.6200000000000002,620,31,-0.1216129,0.08006416,0.116245575,-0.00032867453,-0.022351585,0.02834686,0.0,0.0,0.0,-0.01294444,0.03759049,-0.18741824,0.010947067,-0.061535448,-0.02254539,-0.04693792,0.09730683,0.18536226,0.042589188,-0.023762422,0.07824882,0.04402865,-0.0051119803,-0.012649427,-0.02902869,0.026524331,-0.096499465,0.024785485,0.04226971,-0.085902736,-0.059568156,0.036927547,0.014338357,0.009713589,-0.5568169,-1.2579663,0.3234165,-0.464332,-0.45033988,-0.25507176,0.7946993,-0.0017653331,0.2797317,0.37361306,0.2595251,0.32067126,0.34187445,-0.038865272,0.1147658,0.075851835,0.40029165,-0.077586114,0.59389323,0.6376956,0.19901529,-0.44383514,-0.6978283,-0.030349664
2025-07-21 14:12:08.514,0.6400000000000002,640,32,0.08971787,-0.08998678,-0.1588494,-0.04259057,0.0046319263,-0.040423647,0.0,0.0,0.0,-0.013165263,0.030921167,-0.18884948,0.002633645,-0.06679998,-0.0038861595,-0.036305197,0.09869913,0.17894836,0.037406314,-0.032897703,0.07407633,0.038976353,0.04657661,0.041547295,-0.060082324,0.067886196,0.10819103,0.040154096,-0.07273766,-0.01614791,0.013256212,-0.092085406,0.0012008409,-0.06627136,0.34187445,-0.038865272,0.1147658,0.075851835,0.40029165,-0.077586114,0.59389323,0.6376956,0.19901529,-0.44383514,-0.6978283,-0.030349664,-0.8261116,-1.1915538,0.4007344,-0.32963738,-0.6989391,-0.10550654,0.9597029,-0.28574112,0.6065127,0.7784007,0.96790224,0.34691074
2025-07-21 14:12:08.528,0.6600000000000003,660,33,-0.033851083,0.04667289,0.18207766,0.007701787,0.05916459,0.0038377724,0.0,0.0,0.0,-0.0123855965,0.02172491,-0.19176647,0.017690876,-0.05312703,-0.01933082,-0.027781323,0.11903854,0.13821557,0.051615965,-0.023285614,0.07087422,0.022353172,-0.11062537,-0.12436981,0.06726893,-0.06386131,-0.037543166,0.029631708,-0.024979256,-0.19825761,-0.010839604,0.10428506,0.12836465,-0.018725425,-0.8261116,-1.1915538,0.4007344,-0.32963738,-0.6989391,-0.10550654,0.9597029,-0.28574112,0.6065127,0.7784007,0.96790224,0.34691074,0.47508287,0.34946263,0.21072844,-0.10194414,0.20403759,0.046678305,0.64284354,1.5540273,0.19396213,-0.6895,-1.0417861,0.36092296
2025-07-21 14:12:08.548,0.6800000000000003,680,34,0.15638204,-0.11620548,-0.14755312,-0.0022419118,-0.0059441663,-0.039359156,0.0,0.0,0.0,-0.013600404,0.03255589,-0.19324228,0.009939181,-0.06017078,-0.019524625,-0.021613669,0.10639364,0.17047295,0.04173644,-0.042025156,0.0826075,0.033674072,0.023339199,0.0378749,0.019411102,0.017321223,0.00022736174,-0.02263934,0.033820834,0.09670168,-0.066534884,-0.044633344,-0.024246715,0.031559885,0.47508287,0.34946263,0.21072844,-0.10194414,0.20403759,0.046678305,0.64284354,1.5540273,0.19396213,-0.6895,-1.0417861,0.36092296,-0.62298054,-0.8812728,0.3427788,-0.57367635,-0.13364004,-0.53010774,0.75971675,-0.045430087,0.46380326,0.6495962,0.3188593,0.85848355
2025-07-21 14:12:08.568,0.7000000000000003,700,35,-0.06720438,-0.0070428126,0.19831295,-0.049364988,0.006927342,0.034552332,0.0,0.0,0.0,-0.013620615,0.017325336,-0.20474145,0.018272806,-0.06072718,-0.022373859,-0.030672818,0.11297412,0.14926556,0.04320157,-0.018318655,0.0913903,0.040729787,-0.09450002,-0.070190184,0.02955608,0.05526427,0.021394111,-0.036739714,-0.045206986,-0.02310042,0.0013105707,0.09391636,0.057292327,-0.032181036,-0.62298054,-0.8812728,0.3427788,-0.57367635,-0.13364004,-0.53010774,0.75971675,-0.045430087,0.46380326,0.6495962,0.3188593,0.85848355,0.5746816,0.22553164,0.41280118,-0.37503067,-0.020648604,-0.48279345,0.18584035,0.64579386,-0.129217,-0.59482473,-1.0613042,0.4199628
2025-07-21 14:12:08.594,0.7200000000000003,720,36,0.027858386,-0.008469851,-0.13426718,-0.03892346,-0.014052956,-0.041205313,0.0,0.0,0.0,-0.014993697,0.034923706,-0.18573798,0.008344428,-0.06567595,-0.014529943,-0.037259597,0.10293326,0.17335299,0.03674272,-0.04391562,0.08256059,0.048564836,-0.009421661,0.09672411,0.06682721,-0.05910163,0.015384902,-0.060428802,-0.06226098,0.12254441,0.02236158,-0.09491135,-0.0037222963,0.03309752,0.5746816,0.22553164,0.41280118,-0.37503067,-0.020648604,-0.48279345,0.18584035,0.64579386,-0.129217,-0.59482473,-1.0613042,0.4199628,-0.76043063,-1.0271814,0.57709664,-0.7126578,-0.34057927,-0.5075444,0.6517119,-0.22483373,0.25873104,0.7655143,-0.20024292,0.27104437
2025-07-21 14:12:08.611,0.7400000000000003,740,37,-0.21382567,0.11506546,0.12965564,0.031069435,0.030529518,-0.020252988,0.0,0.0,0.0,-0.01504121,0.031097816,-0.2068637,0.030269599,-0.06309912,-0.04497883,-0.042714756,0.09842048,0.14015087,0.045593753,-0.033545967,0.05882364,0.052163254,-0.043378644,-0.060634222,0.01723678,-0.07312117,-0.072395645,0.015960302,0.010145235,-0.08017547,0.004015243,-0.025922447,-0.06622227,0.03805185,-0.76043063,-1.0271814,0.57709664,-0.7126578,-0.34057927,-0.5075444,0.6517119,-0.22483373,0.25873104,0.7655143,-0.20024292,0.27104437,0.70043296,0.37492293,0.2806423,-0.17365791,0.59267205,-0.49403167,0.56569207,0.72880787,0.6795318,-0.6049901,-0.16401674,0.4363122
2025-07-21 14:12:08.629,0.7600000000000003,760,38,0.16926888,-0.04177904,-0.054051455,-0.058572207,0.0009275707,0.045615584,0.0,0.0,0.0,-0.015532977,0.03778016,-0.21301022,0.023107965,-0.07110488,-0.016968012,-0.06450574,0.10718406,0.13975416,0.04784149,-0.02714792,0.037340727,0.0515415,-0.007065846,0.007634317,0.05894225,-0.051906474,0.09651312,-0.012039858,0.03558778,0.029329378,-0.042723842,-0.10104559,0.020093173,0.0715503,0.70043296,0.37492293,0.2806423,-0.17365791,0.59267205,-0.49403167,0.56569207,0.72880787,0.6795318,-0.6049901,-0.16401674,0.4363122,-0.5826564,-0.2651011,1.1616002,-0.45490173,-0.5694491,-0.22402501,0.59558207,0.22378817,0.054799043,0.5463252,-0.6464692,0.3317083
2025-07-21 14:12:08.649,0.7800000000000004,780,39,0.13658401,-0.01146758,-0.032540437,0.0108913025,-0.0053248447,-0.04000823,0.0,0.0,0.0,-0.015565509,0.049231797,-0.20313501,0.031779274,-0.06790214,-0.040952485,-0.055011354,0.09584191,0.15024482,0.03958576,-0.042642523,0.011845098,0.047431413,0.041771535,0.004836309,0.09568579,0.047932714,-0.13418476,-0.05534434,0.051841963,-0.020812085,-0.022413172,0.021108257,-0.12993732,-0.009962876,-0.5826564,-0.2651011,1.1616002,-0.45490173,-0.5694491,-0.22402501,0.59558207,0.22378817,0.054799043,0.5463252,-0.6464692,0.3317083,0.44144586,-0.00957853,0.097258806,-0.20428453,0.35861015,-0.5376514,0.69138783,0.15166786,0.59158367,-0.16734926,0.15208475,0.7061571
2025-07-21 14:12:08.669,0.8000000000000004,800,40,0.019826965,-0.02108411,0.07465526,-0.0622958,0.03899863,-0.042697325,0.0,0.0,0.0,-0.014468945,0.037549984,-0.17229716,0.019520044,-0.061536126,-0.022636231,-0.05749033,0.10431982,0.12796324,0.039522257,-0.035879165,0.010096039,0.06409759,-0.0346131,0.03814574,0.025827043,0.07089581,0.038330153,-0.026923416,-0.05097674,-0.035611857,0.08176042,-0.06403694,0.016427606,-0.02542603,0.44144586,-0.00957853,0.097258806,-0.20428453,0.35861015,-0.5376514,0.69138783,0.15166786,0.59158367,-0.16734926,0.15208475,0.7061571,0.24749129,-0.37951893,0.8164276,-0.45949516,-0.23895817,-0.23106241,0.41077045,0.92512065,0.21168134,-0.07748771,-0.7700011,0.10178787
2025-07-21 14:12:08.693,0.8200000000000004,820,41,-0.11151647,-0.0133241555,-0.1666119,0.0042799856,-0.018990219,0.039748702,0.0,0.0,0.0,-0.01497959,0.04203518,-0.1738594,0.024930246,-0.06482625,-0.026962427,-0.06426859,0.08787381,0.15627195,0.041566886,-0.041832596,0.008943583,0.04424681,-0.02830219,-0.04583349,0.08584629,-0.060887232,-0.10575818,0.006342359,-0.014685989,0.0632762,0.023459088,0.050837252,-0.1140362,0.012632764,0.24749129,-0.37951893,0.8164276,-0.45949516,-0.23895817,-0.23106241,0.41077045,0.92512065,0.21168134,-0.07748771,-0.7700011,0.10178787,-0.3970104,-0.48785853,0.32843426,-0.45136547,0.36904213,-0.25761485,0.82623243,0.11608652,0.98451567,0.87301606,1.1469162,1.0588803
2025-07-21 14:12:08.710,0.8400000000000004,840,42,0.030581536,0.023496443,0.17212918,0.012773046,0.060980592,0.0429514,0.0,0.0,0.0,-0.013440503,0.050136827,-0.1737056,0.024895111,-0.057207737,-0.014019023,-0.06339082,0.114131875,0.15202416,0.056125388,-0.03462425,0.0009607913,0.05548819,-0.08468249,-0.0088073425,-0.06464635,-0.057059,0.055634007,0.062541574,0.08407305,-0.09588727,0.09914254,0.0006685285,0.05893291,-0.02954277,-0.3970104,-0.48785853,0.32843426,-0.45136547,0.36904213,-0.25761485,0.82623243,0.11608652,0.98451567,0.87301606,1.1469162,1.0588803,0.51049787,-0.01898164,0.31465763,-0.3699806,-0.6218247,0.125296,0.35810646,0.8223339,-0.010513462,-0.79995775,-0.49422613,0.09282512
2025-07-21 14:12:08.729,0.8600000000000004,860,43,0.029306738,0.035944168,-0.13093956,-0.015629675,0.065872386,0.011497038,0.0,0.0,0.0,-0.014217131,0.06120765,-0.15481393,0.029507786,-0.06179304,-0.03981953,-0.03216815,0.104939856,0.1836166,0.058783516,-0.038814798,0.0127598075,0.06315925,0.0752966,0.1050585,-0.07330633,0.054516036,-0.16124757,-0.038929027,0.033671375,0.08181934,-0.09754093,-0.034846038,-0.10798217,-0.024346009,0.51049787,-0.01898164,0.31465763,-0.3699806,-0.6218247,0.125296,0.35810646,0.8223339,-0.010513462,-0.79995775,-0.49422613,0.09282512,-0.22392137,-0.9121479,-0.27757528,-0.39945802,0.24670133,-0.32620257,0.7069428,0.09896163,0.75740427,0.39205348,0.473229,0.8050518
2025-07-21 14:12:08.749,0.8800000000000004,880,44,-0.04458678,0.08429178,0.1415272,-0.007960357,0.05492294,0.03467608,0.0,0.0,0.0,-0.013404278,0.050012343,-0.178625,0.011051674,-0.06412883,-0.016390549,-0.04190394,0.1084838,0.17065942,0.05612046,-0.0498778,0.023914069,0.05440303,0.011454463,-0.059377685,0.022150628,0.038445856,0.053920295,-0.041703712,0.01005897,-0.045798495,0.01808798,0.09313304,0.07625984,-0.057885017,-0.22392137,-0.9121479,-0.27757528,-0.39945802,0.24670133,-0.32620257,0.7069428,0.09896163,0.75740427,0.39205348,0.473229,0.8050518,0.3944676,-0.17023218,0.5068957,-0.37732697,-0.2909464,-0.29962093,0.30366918,0.7406376,0.26466435,-0.40315634,-0.45654252,0.090195306
2025-07-21 14:12:08.769,0.9000000000000005,900,45,-0.017283186,0.0023497806,-0.13530602,-0.05125052,0.008211225,-0.011586967,0.0,0.0,0.0,-0.0144198015,0.055478174,-0.1766519,0.02270759,-0.05673269,-0.033978816,-0.033041,0.094920084,0.17181954,0.06599995,-0.042028405,0.030209275,0.055345684,0.07379603,-0.006243272,0.011781338,0.03819039,-0.07985676,-0.034174066,-0.01828794,0.0046098153,-0.061549105,-0.025278876,-0.0881727,-0.04249,0.3944676,-0.17023218,0.5068957,-0.37732697,-0.2909464,-0.29962093,0.30366918,0.7406376,0.26466435,-0.40315634,-0.45654252,0.090195306,-0.47852778,-0.7050332,0.27184802,-0.39824024,0.31827188,-0.33280003,0.84210926,0.4865915,0.7197312,0.8902184,0.5856039,0.72742033
2025-07-21 14:12:08.793,0.9200000000000005,920,46,0.07066182,0.026044205,0.21037847,-0.05855807,0.011279119,0.041569743,0.0,0.0,0.0,-0.014155052,0.04805282,-0.18657924,0.022819405,-0.0599719,-0.009260705,-0.056483213,0.10769308,0.19197576,0.07421122,-0.031122489,0.055523492,0.042320203,-0.059419435,-0.10431742,0.056733314,0.010313405,0.14257142,0.033576384,0.07991978,0.027289873,0.04042696,0.058732744,0.035563778,0.039730158,-0.47852778,-0.7050332,0.27184802,-0.39824024,0.31827188,-0.33280003,0.84210926,0.4865915,0.7197312,0.8902184,0.5856039,0.72742033,0.52136236,0.6010489,0.9830819,-0.59070265,-0.8034202,-0.359959,0.21951345,0.13944378,0.08937835,-0.70675194,-0.82212454,0.5407403
2025-07-21 14:12:08.810,0.9400000000000005,940,47,0.033030573,0.030649757,-0.059897818,-0.0003325876,0.0032521393,0.007758237,0.0,0.0,0.0,-0.01614013,0.047472715,-0.19599509,0.033383463,-0.07063132,-0.049530208,-0.049295593,0.0941057,0.17126508,0.06978766,-0.045219894,0.05041329,0.054295562,-0.05085045,0.00064333656,0.033824105,0.015924394,-0.08488693,-0.045727678,-0.04085412,-0.06860364,0.034324426,-0.088683814,-0.05624981,0.08837797,0.52136236,0.6010489,0.9830819,-0.59070265,-0.8034202,-0.359959,0.21951345,0.13944378,0.08937835,-0.70675194,-0.82212454,0.5407403,-0.13217454,-0.30542314,0.64489955,-0.6514644,0.080708094,-0.17524326,0.7102202,0.5161617,0.4324618,0.49571902,-0.4919102,0.96835935
2025-07-21 14:12:08.829,0.9600000000000005,960,48,-0.011306088,-0.01050137,-0.013567306,-0.0518233,0.06250862,0.018143764,0.0,0.0,0.0,-0.016891824,0.050802153,-0.18747213,0.028931312,-0.06834322,-0.050278466,-0.03661149,0.092297696,0.16811189,0.06413589,-0.04839804,0.04077657,0.07127572,0.0006928809,0.054191057,0.06986217,0.00046373517,-0.025999192,0.083959654,0.056237888,0.076424286,-0.01584984,0.07940342,-0.040053267,0.040288374,-0.13217454,-0.30542314,0.64489955,-0.6514644,0.080708094,-0.17524326,0.7102202,0.5161617,0.4324618,0.49571902,-0.4919102,0.96835935,-0.31978738,-0.5901445,0.41435218,-0.4338161,-0.018211773,-0.21254098,0.62664396,-0.15056688,0.45515156,0.35797948,-0.3938121,0.3374771
2025-07-21 14:12:08.849,0.9800000000000005,980,49,-0.06298637,0.017791543,0.06433147,-0.03165226,0.054972757,-0.012995865,0.0,0.0,0.0,-0.015826194,0.05868061,-0.1931507,0.030362878,-0.083855964,-0.041378707,-0.043638147,0.09606453,0.13256744,0.056157175,-0.046220157,0.004021599,0.07878964,0.03376573,-0.08862486,-0.07911469,-0.045864217,-0.013476436,-0.061452355,-0.010389952,-0.14546376,-0.009287503,-0.010969122,-0.027952446,-0.043389246,-0.31978738,-0.5901445,0.41435218,-0.4338161,-0.018211773,-0.21254098,0.62664396,-0.15056688,0.45515156,0.35797948,-0.3938121,0.3374771,0.38906118,0.06333524,0.41361067,-0.18223695,0.05909682,-0.05729705,0.81461066,1.2001017,0.7605324,-0.093859136,0.10727832,0.32890797
2025-07-21 14:12:08.872,1.0000000000000004,1000,50,0.13338193,-0.009293663,-0.09311641,-0.0015089432,0.007309384,0.019689744,0.0,0.0,0.0,-0.016617397,0.058549818,-0.17759362,0.031828087,-0.06643681,-0.027237056,-0.03683728,0.10256094,0.16323458,0.07888123,-0.039392885,0.023492705,0.06829877,0.07931952,0.07959593,-0.04721277,-0.008797615,-0.034112252,0.00030985527,0.08051501,0.10176054,-0.04859798,-0.036793984,-0.01843762,0.037194055,0.38906118,0.06333524,0.41361067,-0.18223695,0.05909682,-0.05729705,0.81461066,1.2001017,0.7605324,-0.093859136,0.10727832,0.32890797,-0.48778474,-0.8643282,0.29249242,-0.18689977,0.18847963,-0.060577393,0.936282,0.13282955,0.47115085,0.42501557,0.16903016,0.45429322
2025-07-21 14:12:08.893,1.0200000000000005,1020,51,0.010182628,0.0316365,0.23709244,-0.000883861,-0.017720388,0.02889955,0.0,0.0,0.0,-0.016453572,0.06352692,-0.17501031,0.020079771,-0.060668316,-0.006756821,-0.030993573,0.10657903,0.16402544,0.07325397,-0.03109498,0.030972118,0.054404903,0.030244974,-0.0669078,-0.057886165,-0.041089755,0.02217069,0.015971964,0.026144054,-0.105640866,-0.03046551,0.030803798,0.09692584,0.012258881,-0.48778474,-0.8643282,0.29249242,-0.18689977,0.18847963,-0.060577393,0.936282,0.13282955,0.47115085,0.42501557,0.16903016,0.45429322,0.5890469,0.35671818,0.75485945,-0.043193407,0.15831296,-0.23835203,0.4691478,1.1445485,-0.14676228,-0.8513279,-1.3911499,0.20001674
2025-07-21 14:12:08.910,1.0400000000000005,1040,52,0.11220113,-0.04152551,-0.18014735,-0.043653686,0.01304443,-0.04861674,0.0,0.0,0.0,-0.018171137,0.072720274,-0.18941975,0.03425658,-0.056869272,-0.009646187,-0.037076272,0.105738476,0.20261174,0.047213152,-0.045531843,0.008315936,0.066850476,0.05875147,0.06504964,0.01359398,0.06939248,0.056398105,0.0009442431,-0.05782289,0.07800241,-0.06934466,-0.049671285,-0.065571,0.04920166,0.5890469,0.35671818,0.75485945,-0.043193407,0.15831296,-0.23835203,0.4691478,1.1445485,-0.14676228,-0.8513279,-1.3911499,0.20001674,-0.5754342,-1.2203977,0.52731526,-0.7045592,-0.37529755,-0.54155546,0.74785775,0.18881324,0.5886333,0.8068553,0.5945392,0.7571153
2025-07-21 14:12:08.930,1.0600000000000005,1060,53,0.011056086,0.10193292,0.20667401,-0.063432455,0.02443967,0.0068449825,0.0,0.0,0.0,-0.018044217,0.06488564,-0.19420126,0.03539252,-0.061524127,-0.014692339,-0.047037408,0.10561113,0.19987558,0.07172514,-0.050172567,0.039169025,0.05078858,0.024583852,-0.049096063,0.01371741,-0.014897956,-0.10348739,-0.089729115,-0.015289361,-0.05724366,0.024401855,0.0691641,0.09180474,-0.017507544,-0.5754342,-1.2203977,0.52731526,-0.7045592,-0.37529755,-0.54155546,0.74785775,0.18881324,0.5886333,0.8068553,0.5945392,0.7571153,0.6746443,0.2103597,0.38722733,-0.24795842,0.25755915,-0.11490992,0.18189782,0.5495178,-0.018814884,-0.9147167,-1.0579841,0.30845544
2025-07-21 14:12:08.950,1.0800000000000005,1080,54,-0.06463402,0.04309121,-0.03420613,0.01333532,-0.014183441,0.008885953,0.0,0.0,0.0,-0.019590797,0.064041875,-0.19391413,0.026115993,-0.062322147,-0.0023548587,-0.039278615,0.100393556,0.20600381,0.047952972,-0.06316851,0.043292575,0.049198803,0.039827038,0.059111334,-0.01217209,-0.015376329,0.046956044,-0.02889346,0.03924191,-0.0071917195,0.013701208,-0.12165868,0.024479076,-0.0153878685,0.6746443,0.2103597,0.38722733,-0.24795842,0.25755915,-0.11490992,0.18189782,0.5495178,-0.018814884,-0.9147167,-1.0579841,0.30845544,-0.26275712,-0.8268767,0.68048805,-0.61922544,-0.17945647,-0.4544645,0.6069055,0.10157887,0.24075112,0.29860544,-0.73854494,0.22243232
2025-07-21 14:12:08.975,1.1000000000000005,1100,55,-0.19756253,0.00010222033,0.12380762,0.03643942,0.043337353,0.036011666,0.0,0.0,0.0,-0.020890968,0.06475175,-0.19772108,0.04835541,-0.061509594,-0.02324991,-0.056364577,0.085193425,0.16346397,0.051939894,-0.06070744,-0.0028266015,0.061774198,0.017761994,-0.07414333,0.06615522,-0.08854514,0.029009381,0.05285322,-0.01893575,-0.024880487,-0.04953327,0.044084568,-0.17182839,0.026705844,-0.26275712,-0.8268767,0.68048805,-0.61922544,-0.17945647,-0.4544645,0.6069055,0.10157887,0.24075112,0.29860544,-0.73854494,0.22243232,0.92810124,0.53763473,0.6715036,-0.3477884,0.07042255,-1.002684,0.3982896,0.46918842,0.8615678,-0.24604103,0.4306523,1.1528932
2025-07-21 14:12:08.993,1.1200000000000006,1120,56,0.17538995,-0.117221296,-0.006290598,-0.0071137724,-0.00014851968,-0.017901372,0.0,0.0,0.0,-0.021420052,0.07032227,-0.19780712,0.051782425,-0.07011777,-0.016367689,-0.075073786,0.09331724,0.16864933,0.060732342,-0.053706262,0.0059951493,0.06629383,0.0055683865,0.07719583,0.06074423,-0.062328633,-0.041020457,-0.075635634,0.022331947,-0.043576,0.06534899,-0.059114642,0.13684033,0.04202416,0.92810124,0.53763473,0.6715036,-0.3477884,0.07042255,-1.002684,0.3982896,0.46918842,0.8615678,-0.24604103,0.4306523,1.1528932,-0.52013594,-0.33573985,1.0706028,-0.44358385,-0.7120011,0.53427875,0.3641526,0.36096823,0.0353859,-0.040618643,-1.8371339,0.5992509
2025-07-21 14:12:09.010,1.1400000000000006,1140,57,0.02058838,0.080162115,-0.0057537565,0.011925828,0.0138489,-0.010193908,0.0,0.0,0.0,-0.021841682,0.08145691,-0.19749369,0.04700743,-0.07131634,-0.053966027,-0.04120528,0.09363051,0.16742763,0.061455566,-0.06015322,0.006534887,0.08341339,0.014407641,-0.014376835,-0.04102427,-0.010605578,-0.14605011,0.1173939,0.006343904,0.013724633,-0.028368436,-0.017106624,-0.027073529,-0.054216966,-0.52013594,-0.33573985,1.0706028,-0.44358385,-0.7120011,0.53427875,0.3641526,0.36096823,0.0353859,-0.040618643,-1.8371339,0.5992509,0.311906,-0.08184689,0.20448796,-0.49686363,0.1601484,-0.2806068,0.9982887,-0.31822625,0.6476152,-0.07029691,-0.3679117,0.3989095
2025-07-21 14:12:09.030,1.1600000000000006,1160,58,-0.09087545,-0.04397282,-0.057703994,0.020859348,0.056717783,-0.0019789452,0.0,0.0,0.0,-0.021923257,0.07826626,-0.16772549,0.05091288,-0.06284358,-0.04787067,-0.05195422,0.09033865,0.13815217,0.05859231,-0.0569045,-0.012630015,0.0828045,0.0022386895,-0.0035378041,-0.075779885,0.027472021,0.013036608,-0.03364555,0.06822375,-0.07801166,-0.04756127,-0.04927127,-0.06783207,-0.0048028636,0.311906,-0.08184689,0.20448796,-0.49686363,0.1601484,-0.2806068,0.9982887,-0.31822625,0.6476152,-0.07029691,-0.3679117,0.3989095,-0.03083567,-0.6205874,0.28149357,-0.40003946,-0.054636516,-0.09062475,0.9099917,0.33255944,0.9413672,0.638036,0.8185696,0.72433686
2025-07-21 14:12:09.050,1.1800000000000006,1180,59,0.020322638,0.0358677,0.13580295,-0.014824241,-0.00032502256,-0.0023666746,0.0,0.0,0.0,-0.021484999,0.07920291,-0.19040006,0.034482654,-0.07670062,-0.030133093,-0.039915677,0.11419005,0.121154994,0.07738274,-0.047724094,0.002850281,0.06984042,0.02882786,0.0326735,-0.019432783,0.042926386,-0.05986357,0.07411627,0.015992517,-0.040642828,0.01193388,0.029034723,0.0362437,0.04703602,-0.03083567,-0.6205874,0.28149357,-0.40003946,-0.054636516,-0.09062475,0.9099917,0.33255944,0.9413672,0.638036,0.8185696,0.72433686,0.40648252,-0.20829177,0.4269043,-0.06268323,-0.05185359,0.22281504,0.46029943,1.040303,0.13871762,-0.7332335,-0.5653005,0.12932968
2025-07-21 14:12:09.076,1.2000000000000006,1200,60,0.049982954,-0.037558958,-0.11176321,-0.024253685,0.0031484938,-0.03416029,0.0,0.0,0.0,-0.02266014,0.0686448,-0.16986492,0.0412036,-0.06698878,-0.02911175,-0.025946608,0.09924239,0.1699479,0.07338975,-0.063072756,0.023766737,0.066875234,0.08886274,-0.0351637,0.046310354,-0.042227335,-0.07133907,0.034698725,-0.030117638,0.16644195,-0.019497339,-0.05200515,-0.017248971,0.035330437,0.40648252,-0.20829177,0.4269043,-0.06268323,-0.05185359,0.22281504,0.46029943,1.040303,0.13871762,-0.7332335,-0.5653005,0.12932968,-0.5799461,-0.39334103,0.64267933,-0.6846578,0.47394028,-0.76406753,0.56217605,-0.1798127,0.36432287,0.5711686,0.0015262179,1.2164124
2025-07-21 14:12:09.094,1.2200000000000006,1220,61,0.06607551,0.059107877,0.14893949,-0.01010548,0.070093505,0.020450365,0.0,0.0,0.0,-0.022317214,0.06359686,-0.17714216,0.03594506,-0.06500611,-0.009642643,-0.043094132,0.104578346,0.15504773,0.06592916,-0.050418932,0.013412724,0.07224733,-0.105688,0.0017327194,-0.052940942,-0.057669062,0.15618894,-0.10534048,0.009363216,-0.14179592,0.024251036,0.041208275,-0.056185775,0.031007206,-0.5799461,-0.39334103,0.64267933,-0.6846578,0.47394028,-0.76406753,0.56217605,-0.1798127,0.36432287,0.5711686,0.0015262179,1.2164124,0.5931638,-0.26634043,0.50075257,-0.5411613,-0.67798334,-0.4505751,0.45426282,0.81450385,-0.04179094,-0.6866467,-0.45053038,0.605006
2025-07-21 14:12:09.110,1.2400000000000007,1240,62,-0.0023065247,-0.026025428,-0.09926268,-0.0039311475,0.06776336,0.019519275,0.0,0.0,0.0,-0.024034878,0.066120505,-0.17079246,0.036760725,-0.069723636,-0.032070756,-0.052253675,0.10245595,0.17227603,0.043276723,-0.076748826,-0.012166238,0.07370449,0.06740506,-0.054221164,-0.05169881,-0.06005191,-0.083651505,0.016257359,-0.046539374,0.071691,-0.015881248,0.021037918,-0.10914677,0.07478849,0.5931638,-0.26634043,0.50075257,-0.5411613,-0.67798334,-0.4505751,0.45426282,0.81450385,-0.04179094,-0.6866467,-0.45053038,0.605006,-0.27730346,-0.4499116,0.23911339,-0.59455675,0.036552258,-0.6868758,0.6241828,0.17221168,0.96230906,0.5669849,0.45825186,1.1536189
2025-07-21 14:12:09.130,1.2600000000000007,1260,63,0.014099839,-0.04026167,0.19699879,-0.059544317,0.03371069,-0.00489583,0.0,0.0,0.0,-0.024132818,0.075150825,-0.1711139,0.045130923,-0.08357837,-0.018554535,-0.058263227,0.10898701,0.15196164,0.07334481,-0.06483538,0.001204275,0.091590986,-0.008266898,-0.018943015,-0.027871381,0.052939996,0.07003548,0.043587603,-0.050329942,-0.09539868,0.03276318,-0.030473268,0.1290744,-0.0018108358,-0.27730346,-0.4499116,0.23911339,-0.59455675,0.036552258,-0.6868758,0.6241828,0.17221168,0.96230906,0.5669849,0.45825186,1.1536189,0.44231397,0.010571953,0.7964868,-0.5511373,-0.5133213,0.03837633,0.19852434,0.9941809,-0.16794762,-0.6603892,-1.3868451,0.15389496
2025-07-21 14:12:09.150,1.2800000000000007,1280,64,0.07327776,-0.012919202,-0.17852144,-0.037222955,-0.01641023,-0.028373389,0.0,0.0,0.0,-0.025970828,0.0728847,-0.16285889,0.032980278,-0.0750138,-0.05765936,-0.03914977,0.09384789,0.1826069,0.05793307,-0.06445115,0.009437065,0.07453724,0.081184596,0.045807987,-0.023430375,0.020421263,-0.08990746,-0.01131419,-0.06981005,0.11632216,0.03807614,-0.037012685,-0.035622545,0.017241072,0.44231397,0.010571953,0.7964868,-0.5511373,-0.5133213,0.03837633,0.19852434,0.9941809,-0.16794762,-0.6603892,-1.3868451,0.15389496,-0.67447096,-0.95997465,0.20850872,-0.6674178,0.025453066,-0.25357634,0.8770464,-0.023314916,0.72363365,0.82424206,0.2405811,0.8327806
2025-07-21 14:12:09.176,1.3000000000000007,1300,65,-0.025964698,0.028729185,0.31454712,-0.065548375,-0.0044135493,-0.026369711,0.0,0.0,0.0,-0.02601044,0.066690154,-0.16139539,0.044829924,-0.08191732,-0.048255485,-0.043732405,0.09423875,0.16497512,0.05607497,-0.05885067,0.0151879,0.08882032,-0.083874255,-0.11222422,-0.035160434,-0.045162328,-0.04459526,0.0010615031,0.07634528,-0.037923343,0.05504055,-0.02356048,-0.036917977,0.016747119,-0.67447096,-0.95997465,0.20850872,-0.6674178,0.025453066,-0.25357634,0.8770464,-0.023314916,0.72363365,0.82424206,0.2405811,0.8327806,1.0939755,0.7260493,1.1391557,-0.23496106,0.38529542,-0.540257,0.25351453,0.36282918,0.04303702,-0.87236637,-0.6474784,0.8656196
2025-07-21 14:12:09.193,1.3200000000000007,1320,66,-0.036604896,0.031560674,-0.0825425,-0.028960932,0.051800884,-0.044337504,0.0,0.0,0.0,-0.028114816,0.06947695,-0.16701189,0.050839864,-0.0694974,-0.012193471,-0.04820643,0.084684774,0.16746198,0.06284017,-0.06594726,0.003867957,0.08939754,0.10583076,0.04456852,0.06740262,-0.015237394,0.013191278,0.017271284,-0.07328809,-0.051231384,-0.071160786,0.011203997,-0.08713816,0.09271499,1.0939755,0.7260493,1.1391557,-0.23496106,0.38529542,-0.540257,0.25351453,0.36282918,0.04303702,-0.87236637,-0.6474784,0.8656196,-0.20324536,-0.7801916,0.73418576,-0.5793434,0.02810129,-0.25743294,0.5187726,0.7414848,0.086815976,0.33109447,-0.5308452,0.633975
2025-07-21 14:12:09.211,1.3400000000000007,1340,67,-0.22389902,0.047611482,0.08446469,-0.05738789,0.040378314,0.048475042,0.0,0.0,0.0,-0.028882515,0.07252741,-0.18487339,0.05943715,-0.08118756,-0.018387305,-0.052293383,0.08234809,0.1895358,0.053317197,-0.073141694,-0.029251833,0.10247496,0.04294745,-0.0076272287,0.07578327,-0.0651167,0.0019767089,0.029345639,0.04162556,0.026907708,0.0015062642,0.026112974,-0.06487279,0.00836154,-0.20324536,-0.7801916,0.73418576,-0.5793434,0.02810129,-0.25743294,0.5187726,0.7414848,0.086815976,0.33109447,-0.5308452,0.633975,0.6969336,0.06749076,0.81888205,-0.54177874,-0.04509557,-0.64408684,0.37527823,0.27954313,0.31153235,-0.3357469,-0.24847461,0.48377872
2025-07-21 14:12:09.231,1.3600000000000008,1360,68,-0.112174235,0.038730226,-0.12227335,0.034073357,-0.006357436,0.03138258,0.0,0.0,0.0,-0.02854567,0.08652904,-0.19167948,0.06684704,-0.09086331,-0.010288848,-0.057003774,0.09065497,0.18142503,0.052960277,-0.07410656,-0.025836283,0.093027346,-0.031867843,-0.024086801,0.05217882,-0.06657014,0.03337552,0.012361326,-0.08200986,-0.1011574,0.0033387768,0.03219626,-0.033148367,-0.017117053,0.6969336,0.06749076,0.81888205,-0.54177874,-0.04509557,-0.64408684,0.37527823,0.27954313,0.31153235,-0.3357469,-0.24847461,0.48377872,-0.5411303,-0.66749656,0.57582575,-0.38313463,-0.15050896,-0.04867232,0.6678382,0.3765686,0.8476324,0.6010053,0.36496973,0.38581496
2025-07-21 14:12:09.251,1.3800000000000008,1380,69,-0.027213773,0.009364044,0.21288,0.017399749,-0.03058415,0.046957225,0.0,0.0,0.0,-0.028467927,0.076828375,-0.19945584,0.0723269,-0.08110031,-0.005540994,-0.04991548,0.09268521,0.17228034,0.06136437,-0.06515813,-0.01283535,0.08128243,-0.040097266,-0.07544328,0.05761553,-0.0048942952,0.045221716,-0.015688991,0.056571506,-0.05321011,0.07141147,-0.02588799,0.12087438,-0.05136321,-0.5411303,-0.66749656,0.57582575,-0.38313463,-0.15050896,-0.04867232,0.6678382,0.3765686,0.8476324,0.6010053,0.36496973,0.38581496,0.58288026,0.8292834,1.0521305,-0.34835032,-0.48540604,-0.06840712,0.35944223,0.5928466,0.1292294,-0.8003804,-1.5102934,0.19234821
2025-07-21 14:12:09.277,1.4000000000000008,1400,70,0.017902717,-0.058848437,-0.19448972,-0.032016415,-0.0073544406,0.027804827,0.0,0.0,0.0,-0.030251373,0.079499155,-0.18378091,0.07160054,-0.079790615,-0.033126533,-0.04743338,0.07889844,0.1846858,0.05149018,-0.07280337,-0.025227355,0.06604621,0.05802273,0.09224497,-0.00084809744,0.027654592,-0.006293196,0.07704055,-0.07079314,0.022452807,-0.07085607,-0.051276956,0.0075224885,0.041729696,0.58288026,0.8292834,1.0521305,-0.34835032,-0.48540604,-0.06840712,0.35944223,0.5928466,0.1292294,-0.8003804,-1.5102934,0.19234821,-0.4733169,-1.1582499,0.238848,-0.7679734,-0.4420518,0.07069737,0.8249417,-0.0741111,0.48286858,0.64130974,-0.02620652,0.35975564
2025-07-21 14:12:09.294,1.4200000000000008,1420,71,-0.023815757,0.12514228,0.1511124,-0.020631457,0.033836674,-0.00088726095,0.0,0.0,0.0,-0.029805953,0.07970288,-0.19630073,0.060312092,-0.089614846,-0.061994176,-0.030723864,0.08880079,0.15160914,0.05141756,-0.066327676,-0.017171148,0.06225886,0.033287495,-0.066761896,-0.0029376843,-0.06384312,-0.076488204,-0.03298112,0.010950995,-0.021850845,-0.06358283,-0.010505313,0.064678624,0.0036338295,-0.4733169,-1.1582499,0.238848,-0.7679734,-0.4420518,0.07069737,0.8249417,-0.0741111,0.48286858,0.64130974,-0.02620652,0.35975564,0.6817995,0.26011515,0.49908638,-0.21022819,0.093563266,-0.18146771,0.6165952,0.3826275,0.40644526,-0.6006053,-0.3311456,0.16522807
2025-07-21 14:12:09.312,1.4400000000000008,1440,72,0.05200577,0.050904922,-0.016282586,-0.027910294,0.016557183,-0.026967924,0.0,0.0,0.0,-0.030850196,0.077514194,-0.1879749,0.051860623,-0.07230691,-0.059050824,-0.036820382,0.089504085,0.15427461,0.06901416,-0.06436976,-0.026698748,0.061196044,0.015397042,0.07272642,0.045770027,-0.045740772,-0.024669398,0.01324321,0.0061574075,0.019074691,-0.051006667,-0.067363635,0.006462961,-0.081590705,0.6817995,0.26011515,0.49908638,-0.21022819,0.093563266,-0.18146771,0.6165952,0.3826275,0.40644526,-0.6006053,-0.3311456,0.16522807,0.081276014,-0.42667925,0.59804386,-0.27131394,0.18720748,-0.044487476,0.65242463,0.30122265,0.28052524,0.104594916,-0.3447642,0.1139648
2025-07-21 14:12:09.332,1.4600000000000009,1460,73,0.064259775,-0.019829545,0.037529457,-0.030695817,0.05747875,-0.043465294,0.0,0.0,0.0,-0.031424284,0.09109707,-0.19412866,0.05845449,-0.0722254,-0.029907303,-0.03729791,0.09793454,0.1468786,0.06658943,-0.065926395,-0.04202362,0.046012238,0.05685692,0.043703683,-0.072295286,0.013591808,0.07050343,0.00021772395,0.072871536,0.06262761,-0.024133656,0.026105555,-0.04653931,-0.04337155,0.081276014,-0.42667925,0.59804386,-0.27131394,0.18720748,-0.044487476,0.65242463,0.30122265,0.28052524,0.104594916,-0.3447642,0.1139648,0.70175695,-0.2851706,0.6978008,-0.51732177,-0.2260481,-0.51015306,0.7196256,0.3578358,0.09965151,0.024087489,0.14567739,0.5159624
2025-07-21 14:12:09.352,1.4800000000000009,1480,74,0.21490136,-0.10543471,0.027640244,-0.036231127,-0.020614387,-0.017629506,0.0,0.0,0.0,-0.031941414,0.095376335,-0.1788521,0.066649415,-0.0693641,-0.029545818,-0.035601117,0.10420447,0.14731836,0.04785284,-0.053801425,-0.036598988,0.05296757,-0.014087244,0.010614118,0.0078051337,0.069799975,-0.09093071,0.020753408,-0.024900973,-0.038262863,-0.03510758,0.052568596,-0.018982857,-0.027785892,0.70175695,-0.2851706,0.6978008,-0.51732177,-0.2260481,-0.51015306,0.7196256,0.3578358,0.09965151,0.024087489,0.14567739,0.5159624,0.115492746,-0.017289165,0.558095,-0.1806139,0.09692515,-0.17996204,0.7404448,0.86021477,0.20993689,-0.1774623,-0.93161094,0.45866406
2025-07-21 14:12:09.377,1.5000000000000009,1500,75,0.07153742,-0.019875193,-0.18016466,-0.018395312,0.04010597,0.011637113,0.0,0.0,0.0,-0.032331057,0.10244802,-0.15873848,0.056613907,-0.061596904,-0.02101901,-0.043121364,0.09692727,0.1849056,0.04954339,-0.058055613,-0.034949943,0.049161397,0.050077505,0.048451472,-0.0054072374,0.06052674,0.045517277,-0.033912748,0.00624189,0.14794439,0.061119292,0.042399466,-0.057869263,0.07967041,0.115492746,-0.017289165,0.558095,-0.1806139,0.09692515,-0.17996204,0.7404448,0.86021477,0.20993689,-0.1774623,-0.93161094,0.45866406,-0.36661965,-1.0086217,0.5440933,-0.65559745,-0.11065809,-0.36175007,0.73255247,-0.19831103,0.6627638,0.80771005,0.96720326,1.1253904
2025-07-21 14:12:09.393,1.520000000000001,1520,76,-0.06563117,0.08554395,0.20069124,-0.07049673,-0.020017708,0.011108282,0.0,0.0,0.0,-0.030746259,0.08128447,-0.16621616,0.050695017,-0.073707364,-0.03027729,-0.034223694,0.116049774,0.15780266,0.06470665,-0.058941938,-0.010272645,0.06078816,-0.012087418,-0.14868662,-0.011117997,-0.04810007,0.05092068,0.013544366,0.07519597,-0.10071256,-0.0006491277,0.06411865,0.15247369,0.026212027,-0.36661965,-1.0086217,0.5440933,-0.65559745,-0.11065809,-0.36175007,0.73255247,-0.19831103,0.6627638,0.80771005,0.96720326,1.1253904,0.4147437,0.4809978,1.2210826,-0.46519506,-0.48107368,0.08893752,0.38063657,0.71755344,-0.09627501,-0.7969658,-1.323327,0.67388254
2025-07-21 14:12:09.412,1.540000000000001,1540,77,-0.041573647,0.0084408,-0.16544227,-0.0007875056,-0.028015101,-0.027415365,0.0,0.0,0.0,-0.032350548,0.08689685,-0.19529365,0.070156366,-0.08259918,-0.06762698,-0.036151342,0.10307211,0.16884384,0.03370948,-0.074028134,-0.017581055,0.06217915,0.041017395,0.08219029,-0.0042644073,-0.0039507668,-0.023967544,-0.02389023,-0.02566665,0.020649524,-0.047776826,-0.09705659,-0.08984849,-0.00033229316,0.4147437,0.4809978,1.2210826,-0.46519506,-0.48107368,0.08893752,0.38063657,0.71755344,-0.09627501,-0.7969658,-1.323327,0.67388254,-0.3198853,-1.1050527,0.10732732,-0.696031,0.093069226,-0.23541898,0.7846789,0.064936616,0.92165726,0.7031714,0.30827937,0.7578567
2025-07-21 14:12:09.433,1.560000000000001,1560,78,-0.07881539,-0.021482939,0.16611649,-0.06590034,0.061187323,-0.041046757,0.0,0.0,0.0,-0.03242943,0.07577438,-0.21251641,0.06550674,-0.085246004,-0.04142611,-0.042210303,0.113937445,0.15184945,0.05777054,-0.06178597,0.008706789,0.06399836,-0.059156172,-0.072650485,0.02455895,-0.009253264,0.03383928,-0.047386702,0.055146527,-0.05161535,0.0803159,0.020858567,0.08632241,-0.047344666,-0.3198853,-1.1050527,0.10732732,-0.696031,0.093069226,-0.23541898,0.7846789,0.064936616,0.92165726,0.7031714,0.30827937,0.7578567,0.66001225,0.35640353,0.69360906,-0.40485647,-0.17599966,-0.20223987,0.3754099,0.76977056,0.049490057,-0.5079677,-0.6138215,0.29236674
2025-07-21 14:12:09.455,1.580000000000001,1580,79,-0.06602648,-0.09058314,-0.17245033,-0.07302845,0.024378942,-0.044955622,0.0,0.0,0.0,-0.03358886,0.07260142,-0.228099,0.050839677,-0.07452792,-0.058929835,-0.023497961,0.10218606,0.17880374,0.054881316,-0.0527907,0.011667808,0.075196296,-0.030795092,-0.013520655,0.06144548,0.015086892,-0.044900578,0.06165043,-0.0030986902,0.11536165,0.023667945,-0.087422505,-0.10992248,0.064327575,0.66001225,0.35640353,0.69360906,-0.40485647,-0.17599966,-0.20223987,0.3754099,0.76977056,0.049490057,-0.5079677,-0.6138215,0.29236674,-0.5154531,-0.4779898,0.69116616,-0.78987867,0.36552364,-0.6858534,0.60892624,0.09147469,0.55565435,0.85410094,0.55594516,1.2141727
2025-07-21 14:12:09.477,1.600000000000001,1600,80,0.038245488,0.0043631657,0.20127194,0.010720274,-0.032850068,0.029873762,0.0,0.0,0.0,-0.033301186,0.060546283,-0.2129639,0.056864344,-0.09308723,-0.011068861,-0.046747625,0.09166407,0.147554,0.06259588,-0.05383904,0.008120654,0.06793945,-0.021787634,-0.027715156,0.016230851,-0.012147799,0.14481711,-0.008471004,-0.0030904354,-0.057681818,-0.020206708,0.011530999,0.11543866,-0.02540121,-0.5154531,-0.4779898,0.69116616,-0.78987867,0.36552364,-0.6858534,0.60892624,0.09147469,0.55565435,0.85410094,0.55594516,1.2141727,0.3449572,0.20279369,0.7074583,-0.65072125,-0.7913641,-0.17507994,0.16018409,0.47131032,-0.3225074,-0.906617,-1.3935573,0.27771318
2025-07-21 14:12:09.494,1.620000000000001,1620,81,-0.05937989,0.036426365,-0.1373033,-0.04039612,0.022361945,-0.027061563,0.0,0.0,0.0,-0.03416925,0.07288784,-0.20880838,0.05164491,-0.08774517,-0.04667843,-0.038090773,0.08430943,0.16698436,0.03570529,-0.07736584,0.019814102,0.0631277,0.043033734,0.043317303,0.04651229,0.018853297,-0.06594585,0.045478858,0.028170677,-0.03795423,-0.033914804,0.029384652,0.011425696,-0.028969204,0.3449572,0.20279369,0.7074583,-0.65072125,-0.7913641,-0.17507994,0.16018409,0.47131032,-0.3225074,-0.906617,-1.3935573,0.27771318,-0.4746639,-0.74827665,0.3272874,-0.5776335,-0.13572055,0.06085509,0.9929895,0.15155259,0.44768068,0.5699176,-0.4406026,0.5606702
2025-07-21 14:12:09.513,1.640000000000001,1640,82,-0.2124347,-0.033903174,0.15203007,-0.030136524,-0.017982999,-0.023969427,0.0,0.0,0.0,-0.033570588,0.0672426,-0.20697394,0.048594236,-0.09943751,-0.06237296,-0.030186482,0.09316719,0.14502156,0.047427602,-0.075032234,-0.009216882,0.06653288,-0.056600872,-0.08006415,-0.044266913,-0.0531604,0.064009,-0.062033866,0.012680004,-0.098190434,-0.0054923072,0.0012309839,-0.12776513,-0.050620016,-0.4746639,-0.74827665,0.3272874,-0.5776335,-0.13572055,0.06085509,0.9929895,0.15155259,0.44768068,0.5699176,-0.4406026,0.5606702,1.0141735,0.36649352,0.6950266,-0.19379197,0.13903289,-0.9131853,0.5499441,0.89243895,0.42652762,-0.51751214,0.4645678,0.9373065
2025-07-21 14:12:09.533,1.660000000000001,1660,83,0.14715463,-0.07759334,-0.010382201,0.0009866995,0.048330557,0.032080412,0.0,0.0,0.0,-0.034466323,0.079789706,-0.19757062,0.053067748,-0.08977485,-0.042423096,-0.051022906,0.09370118,0.18546633,0.04987588,-0.06923754,0.006536158,0.08269338,0.024504313,0.0016600551,0.029438855,-0.027482776,0.064964175,-0.0059702345,-0.064907216,0.08577045,0.036594886,0.055481046,0.10879795,0.05794015,1.0141735,0.36649352,0.6950266,-0.19379197,0.13903289,-0.9131853,0.5499441,0.89243895,0.42652762,-0.51751214,0.4645678,0.9373065,-0.33865047,-0.13091522,1.138191,-0.5239721,-0.6490225,-0.15849829,0.34701344,0.08869109,0.23339352,-0.053563446,-1.5236411,0.51111203
2025-07-21 14:12:09.563,1.680000000000001,1680,84,0.053164784,0.12894937,0.0224657,-0.059272215,0.0025492215,-0.035479076,0.0,0.0,0.0,-0.03535128,0.07622657,-0.17785642,0.054603294,-0.080912665,-0.07719129,-0.051343977,0.09765011,0.16852885,0.055112373,-0.07797074,0.015760364,0.09153505,-0.017495317,0.06256208,0.0440872,0.037119534,-0.03200662,-0.03886043,-0.020481396,0.008944278,-0.009213572,-0.06636095,-0.0066941986,0.018987246,-0.33865047,-0.13091522,1.138191,-0.5239721,-0.6490225,-0.15849829,0.34701344,0.08869109,0.23339352,-0.053563446,-1.5236411,0.51111203,0.49615782,-0.24812365,0.5190201,-0.5781005,0.2521867,-0.28137898,0.6555684,0.23290545,0.1258781,-0.14059629,-0.88595253,-0.066915505
2025-07-21 14:12:09.577,1.700000000000001,1700,85,-0.030860214,-0.03253908,-0.08639287,-0.060332675,-0.019699771,-0.028997853,0.0,0.0,0.0,-0.035168413,0.083928734,-0.16846916,0.06135717,-0.0929943,-0.06775264,-0.047821905,0.09746817,0.15092199,0.04141408,-0.07017266,0.012459865,0.077984996,-0.028556013,-0.0558137,0.0044185626,0.019913267,0.0061348113,0.015293853,-0.030696124,-0.030940905,-0.067289636,0.052059222,-0.008041385,-0.022184683,0.49615782,-0.24812365,0.5190201,-0.5781005,0.2521867,-0.28137898,0.6555684,0.23290545,0.1258781,-0.14059629,-0.88595253,-0.066915505,-0.36431062,-0.5189145,0.4950512,-0.2524322,0.37958467,0.024608552,0.97973794,0.45861402,0.6335059,0.7133525,0.01995739,0.28922302
2025-07-21 14:12:09.597,1.720000000000001,1720,86,0.05866165,-0.022028502,0.14823441,-0.0012246768,-0.028694324,0.02096631,0.0,0.0,0.0,-0.03403432,0.09250307,-0.16549487,0.06301786,-0.08649597,-0.02814989,-0.051265113,0.097782865,0.1558543,0.05603524,-0.04877676,-0.0016083389,0.052324913,0.04091881,-0.057013627,-0.012491228,-0.020052651,0.078343235,0.06076025,-0.028297074,-0.030641662,-0.047752235,0.048436,0.020492211,0.0234216,-0.36431062,-0.5189145,0.4950512,-0.2524322,0.37958467,0.024608552,0.97973794,0.45861402,0.6335059,0.7133525,0.01995739,0.28922302,0.7361103,0.3615982,0.6240286,-0.24477924,-0.2611817,-0.35742956,0.582902,0.8082818,0.065637074,-0.8490626,-0.44199917,0.22476423
2025-07-21 14:12:09.617,1.740000000000001,1740,87,0.022865796,-0.040919185,-0.17213568,0.012151539,0.05450941,0.022381157,0.0,0.0,0.0,-0.03508616,0.09430021,-0.1560091,0.06329198,-0.07337361,-0.028904425,-0.054644313,0.104202524,0.19421732,0.034813747,-0.06014722,-0.0021841214,0.06351241,0.0059171612,0.10301132,-0.034321457,0.04120052,-0.10294445,-0.038885355,0.051985733,0.010529891,0.0318418,-0.06814225,0.0013552924,-0.022402361,0.7361103,0.3615982,0.6240286,-0.24477924,-0.2611817,-0.35742956,0.582902,0.8082818,0.065637074,-0.8490626,-0.44199917,0.22476423,-0.39898276,-0.97946244,-0.03259433,-0.5552795,-0.09564155,0.07945365,0.9019291,0.05668942,0.5495612,0.54529166,-0.01830798,0.40054923
2025-07-21 14:12:09.642,1.7600000000000011,1760,88,-0.053383097,-0.019535422,0.17824635,-0.057845958,0.0053514964,0.03635435,0.0,0.0,0.0,-0.034511983,0.09620758,-0.16486426,0.053445034,-0.081536636,-0.036087226,-0.027736291,0.11224933,0.16197242,0.05400724,-0.060267504,-0.012502771,0.048330553,-0.046276838,-0.113095626,-0.078735575,-0.009657997,0.025884066,-0.038630564,0.019230928,-0.053573553,0.02775061,0.021735124,0.06332096,0.01883771,-0.39898276,-0.97946244,-0.03259433,-0.5552795,-0.09564155,0.07945365,0.9019291,0.05668942,0.5495612,0.54529166,-0.01830798,0.40054923,0.75922054,0.23585594,0.7283104,-0.33200034,-0.025350219,-0.5285843,0.5484112,0.9331154,-0.015669145,-0.52365685,-0.5106991,0.4591678
2025-07-21 14:12:09.660,1.7800000000000011,1780,89,0.01710402,-0.005775083,-0.11743025,-0.059018917,-0.027516626,-0.0496778,0.0,0.0,0.0,-0.03574295,0.10154617,-0.15145148,0.054472603,-0.07032217,-0.030512841,-0.05496771,0.11238592,0.19233523,0.042714167,-0.07317827,-0.026067521,0.056689873,0.048352934,-0.021143196,0.014162416,-0.019881185,0.004978227,-0.018627273,-0.072972514,0.15688281,-0.08358987,-0.035579488,-0.031534895,0.06754199,0.75922054,0.23585594,0.7283104,-0.33200034,-0.025350219,-0.5285843,0.5484112,0.9331154,-0.015669145,-0.52365685,-0.5106991,0.4591678,-0.5005576,-0.8374901,0.63610446,-0.67548436,-0.04605984,-0.5913637,0.571314,0.036620684,0.29717278,0.5120359,-0.15820283,0.8508421
2025-07-21 14:12:09.678,1.8000000000000012,1800,90,-0.06301202,0.10449476,0.16223878,-0.0077778315,9.473803e-05,-0.033814874,0.0,0.0,0.0,-0.035530172,0.09100278,-0.17380574,0.056908686,-0.0844734,-0.022011293,-0.045095958,0.113200285,0.17994162,0.05102742,-0.061150253,-0.031746574,0.06975492,-0.09957408,-0.05276578,-0.029291505,0.0165499,-0.06961914,-0.056064487,-0.03955918,-0.11589839,0.06052334,0.05003077,0.023123955,0.08121728,-0.5005576,-0.8374901,0.63610446,-0.67548436,-0.04605984,-0.5913637,0.571314,0.036620684,0.29717278,0.5120359,-0.15820283,0.8508421,0.8828979,0.36170363,0.62128663,-0.18862194,0.47799128,-0.2162022,0.37190366,0.7791752,0.21977893,-0.97895426,-0.9848842,0.43708038
2025-07-21 14:12:09.698,1.8200000000000012,1820,91,0.04184193,-0.12283081,-0.042687014,-0.030761508,0.018053597,0.033574063,0.0,0.0,0.0,-0.036830965,0.09193465,-0.17360306,0.060745742,-0.08420195,-0.0012307966,-0.05693753,0.088613085,0.18253799,0.03919082,-0.074242145,-0.05898949,0.07263494,0.09693551,0.06304146,0.0020058507,0.0146518415,0.05507773,0.066082284,-0.061910294,0.030193249,-0.07240202,-0.042190198,-0.08619448,0.01626394,0.8828979,0.36170363,0.62128663,-0.18862194,0.47799128,-0.2162022,0.37190366,0.7791752,0.21977893,-0.97895426,-0.9848842,0.43708038,0.34825253,-0.8503113,0.47431776,-0.56998765,-0.23654957,-0.5161232,0.29544222,0.36652842,0.4218348,0.034902483,0.228417,0.71900785
2025-07-21 14:12:09.718,1.8400000000000012,1840,92,0.06778623,-0.08257777,0.11505791,-0.04456869,0.047719337,0.044220567,0.0,0.0,0.0,-0.037772376,0.09179272,-0.17195667,0.047977973,-0.08167625,0.00088638935,-0.05019546,0.08509742,0.19199878,0.040145174,-0.074706905,-0.059408925,0.05526957,0.025454132,-0.07542621,-0.023544995,-0.029456273,-0.070268475,0.025667042,-0.093055196,-0.015289118,0.017131552,0.014291481,0.01423178,-0.06373572,0.34825253,-0.8503113,0.47431776,-0.56998765,-0.23654957,-0.5161232,0.29544222,0.36652842,0.4218348,0.034902483,0.228417,0.71900785,0.66331726,0.1637376,0.8047794,-0.46523353,-0.10799857,-0.38394767,0.41358665,0.6268299,0.5702297,-0.65060407,-0.80990475,0.4861024
2025-07-21 14:12:09.743,1.8600000000000012,1860,93,0.016342355,-0.011029,-0.110377744,0.014075064,0.040445294,-0.034631964,0.0,0.0,0.0,-0.03923871,0.11096947,-0.17003968,0.05387254,-0.08332707,-0.010802571,-0.06787406,0.08990036,0.20952341,0.04658484,-0.07265855,-0.04272905,0.06694125,0.0010341111,0.056882754,0.00011698298,-0.05872412,-0.027445683,0.06031492,0.022289304,0.078010075,0.0054953913,0.000103967315,-0.101851545,-0.01990444,0.66331726,0.1637376,0.8047794,-0.46523353,-0.10799857,-0.38394767,0.41358665,0.6268299,0.5702297,-0.65060407,-0.80990475,0.4861024,0.023802835,-0.5096576,0.11671344,-0.5131625,-0.02293042,-0.19756746,0.5565363,-0.3391471,0.7510841,0.38217852,0.66598046,0.8322115
2025-07-21 14:12:09.760,1.8800000000000012,1880,94,0.0041558226,0.038566798,0.1744035,-0.03615636,0.032601707,-0.02356257,0.0,0.0,0.0,-0.039172057,0.108560875,-0.17835334,0.047750026,-0.08684362,-0.017574152,-0.052547917,0.078080796,0.16909355,0.07123943,-0.077674106,-0.037879396,0.06442458,-0.011641776,0.0407851,-0.006989582,0.047227032,0.02001116,0.018029487,0.014242122,-0.17843641,-0.017330531,0.0014229969,0.12467878,0.076573886,0.023802835,-0.5096576,0.11671344,-0.5131625,-0.02293042,-0.19756746,0.5565363,-0.3391471,0.7510841,0.38217852,0.66598046,0.8322115,0.592436,-0.30520087,0.84187436,-0.17174502,-0.20934407,0.32147914,0.54285526,1.5652356,-0.17968026,-0.75083387,-0.9713524,0.16544348
2025-07-21 14:12:09.778,1.9000000000000012,1900,95,0.054182142,0.03448723,-0.12457482,0.026449222,-0.024178399,-0.039150964,0.0,0.0,0.0,-0.040584978,0.105062395,-0.1736939,0.05321523,-0.07753096,-0.028803876,-0.032870404,0.081042334,0.17042674,0.04291664,-0.088028945,-0.025320675,0.063623175,0.04983717,0.017634,0.030988764,-0.019603264,-0.09348688,0.049321465,0.07141828,0.10549106,-0.006648582,-0.04777896,0.0569054,0.0014592814,0.592436,-0.30520087,0.84187436,-0.17174502,-0.20934407,0.32147914,0.54285526,1.5652356,-0.17968026,-0.75083387,-0.9713524,0.16544348,-0.7138343,-0.80060685,0.13372996,-0.54552305,0.1768188,-0.07751572,0.9346246,-0.037905686,0.26270238,0.40336114,-0.86402655,0.8420533
2025-07-21 14:12:09.799,1.9200000000000013,1920,96,-0.18106036,-0.0051101116,0.12435756,-0.011834718,-0.016854953,-0.04469445,0.0,0.0,0.0,-0.040238366,0.104140475,-0.1937317,0.047676276,-0.078455456,-0.011388475,-0.03878861,0.104930714,0.14799261,0.04275534,-0.0758818,-0.044945527,0.07348359,-0.053218707,-0.1086599,-0.06101048,-0.03147901,0.02555305,-0.07856747,0.004127562,-0.014121623,-0.070169225,0.085599735,-0.11224862,0.092793904,-0.7138343,-0.80060685,0.13372996,-0.54552305,0.1768188,-0.07751572,0.9346246,-0.037905686,0.26270238,0.40336114,-0.86402655,0.8420533,0.9651737,0.2965691,0.69672686,-0.31339464,0.14124781,-1.0462879,0.47343394,0.52569044,0.4858869,-0.34524179,0.6740456,1.1218058
2025-07-21 14:12:09.819,1.9400000000000013,1940,97,0.1621785,-0.08551511,0.031195622,-0.029958528,0.0048907627,-0.035794068,0.0,0.0,0.0,-0.04120132,0.103862666,-0.1782243,0.050751545,-0.06542515,0.0035747983,-0.06273427,0.092796676,0.1551341,0.044161227,-0.069850825,-0.042737283,0.08780275,-0.009699997,0.13839473,0.021048257,-0.011970946,0.025246343,0.00043283377,0.00010001276,0.08666015,-0.011127885,-0.03135023,0.11333521,-0.023615897,0.9651737,0.2965691,0.69672686,-0.31339464,0.14124781,-1.0462879,0.47343394,0.52569044,0.4858869,-0.34524179,0.6740456,1.1218058,-0.29170254,-0.7196865,0.95670515,-0.5015912,-1.0667539,-0.0689441,0.13753955,0.23906225,-0.26034552,-0.45468104,-1.6792865,0.39775926
2025-07-21 14:12:09.839,1.9600000000000013,1960,98,-0.08702346,0.1905964,0.034039646,0.011697752,0.066698775,0.045721218,0.0,0.0,0.0,-0.04268718,0.096167475,-0.18060625,0.052966893,-0.074617565,-0.053995524,-0.045291465,0.076879755,0.14714561,0.03604445,-0.087712884,-0.033365794,0.08522608,-0.011754372,-0.06650235,0.059050668,0.013137837,-0.1441647,0.038224168,-0.025782231,0.042636387,-0.0037765994,0.01493485,-0.108367026,-0.029555723,-0.29170254,-0.7196865,0.95670515,-0.5015912,-1.0667539,-0.0689441,0.13753955,0.23906225,-0.26034552,-0.45468104,-1.6792865,0.39775926,1.2012702,0.39440346,0.50081533,-0.6402086,0.51393217,-1.0415494,0.54679435,0.14539224,0.7959179,-0.2476664,-0.033364046,1.36294
2025-07-21 14:12:09.859,1.9800000000000013,1980,99,0.09135525,0.009845724,0.0059737056,0.032755677,0.046932075,0.023573563,0.0,0.0,0.0,-0.043701816,0.10289874,-0.16749528,0.05007136,-0.06967722,-0.057870075,-0.06950256,0.08450991,0.13885865,0.059129942,-0.06955995,-0.017658902,0.10177599,0.028671965,0.09587982,0.00032687027,0.003045056,0.11842555,0.0073683336,0.0718406,-0.08992983,0.03972024,0.057222378,0.022738326,0.0067409333,1.2012702,0.39440346,0.50081533,-0.6402086,0.51393217,-1.0415494,0.54679435,0.14539224,0.7959179,-0.2476664,-0.033364046,1.36294,-0.30523646,-0.6458806,0.91181517,-0.39027563,-1.0766014,0.1133039,0.27078128,0.5871149,0.23134813,-0.38390124,-0.8113057,0.7524384
2025-07-21 14:12:09.885,2.0000000000000013,2000,100,-0.14702493,0.14506769,-0.0024593037,0.038404178,-0.0005128216,0.0046301973,0.0,0.0,0.0,-0.04419354,0.10984974,-0.1784964,0.06730706,-0.08660641,-0.080083236,-0.04888962,0.06528099,0.1513346,0.053859923,-0.07582371,-0.045980003,0.1074328,-0.06688812,-0.049083676,0.023332637,0.06493075,-0.10708065,0.0447524,0.0013370094,-0.01990382,0.035039563,0.021667954,-0.12874444,0.071100935,-0.30523646,-0.6458806,0.91181517,-0.39027563,-1.0766014,0.1133039,0.27078128,0.5871149,0.23134813,-0.38390124,-0.8113057,0.7524384,0.8170768,0.09635651,0.42572019,-0.27542916,0.59424794,-0.86949676,0.6480642,0.49972892,0.91594046,-0.17782544,0.16862784,1.3380625
2025-07-21 14:12:09.900,2.0200000000000014,2020,101,0.07173885,-0.12295313,-0.0038664436,0.015295281,-0.019811913,-0.028910972,0.0,0.0,0.0,-0.04372433,0.120517015,-0.15998149,0.06182471,-0.061944984,-0.07984979,-0.06669885,0.08037002,0.16116743,0.065329954,-0.08325402,-0.033861373,0.11514697,0.08480917,0.1067906,-0.03494183,-0.046533026,0.06875106,-0.048719123,0.055750307,0.06953148,-0.009629476,-0.004504704,0.079031855,0.0848168,0.8170768,0.09635651,0.42572019,-0.27542916,0.59424794,-0.86949676,0.6480642,0.49972892,0.91594046,-0.17782544,0.16862784,1.3380625,-0.09228422,-0.7004361,0.72026205,-0.3690963,-0.48122787,-0.34366143,0.13243712,0.19495407,0.16190007,-0.44698077,-1.1377798,0.65230083
2025-07-21 14:12:09.919,2.0400000000000014,2040,102,-0.1591119,0.061596308,0.016156096,-0.041440986,0.00034015323,-0.016013732,0.0,0.0,0.0,-0.044227462,0.1089783,-0.16366981,0.07191382,-0.07575526,-0.093724236,-0.060805466,0.07161548,0.150013,0.06723338,-0.081144825,-0.05233537,0.1038042,0.011625082,-0.035354573,0.0050730756,-0.035018202,-0.06566728,0.07045762,-0.10155291,-0.04163356,-0.048885062,-0.0075548026,-0.05249634,-0.027662843,-0.09228422,-0.7004361,0.72026205,-0.3690963,-0.48122787,-0.34366143,0.13243712,0.19495407,0.16190007,-0.44698077,-1.1377798,0.65230083,0.80000234,-0.037680153,0.8160749,-0.26364258,0.71631706,-0.35653105,0.52341384,0.7902189,0.50840884,-0.3119558,-0.11474416,0.6677395
2025-07-21 14:12:09.944,2.0600000000000014,2060,103,0.10397838,-0.07210415,-0.11515364,0.0013067658,-0.0044635325,-0.025991341,0.0,0.0,0.0,-0.04447503,0.110582136,-0.14285433,0.07547117,-0.07758325,-0.06686774,-0.07636645,0.073578954,0.17287266,0.06377965,-0.076008,-0.044022117,0.10686675,0.019363029,0.0837838,-0.060292367,0.07164006,0.16740042,-0.048219476,0.08018529,0.06597055,-0.04818707,-0.0368051,0.048738148,0.06724546,0.80000234,-0.037680153,0.8160749,-0.26364258,0.71631706,-0.35653105,0.52341384,0.7902189,0.50840884,-0.3119558,-0.11474416,0.6677395,-0.24280585,-1.0779204,0.28406984,-0.22945051,-0.38652977,-0.33266902,0.6094971,-0.006554164,-0.3301275,-0.14968613,-0.00958224,0.023847885
2025-07-21 14:12:09.960,2.0800000000000014,2080,104,-0.0944501,0.05017115,0.05514587,-0.028431114,-0.017081015,-0.020527883,0.0,0.0,0.0,-0.04380365,0.10678867,-0.16145657,0.06460738,-0.059734896,-0.072868824,-0.07198827,0.07419123,0.16040705,0.045251593,-0.07477268,-0.041215245,0.09663053,-0.03985639,-0.091506355,0.013027917,0.02379366,-0.010065423,-0.04384793,-0.04769496,-0.10526842,-0.06445844,0.02234612,-0.05278643,-0.09577626,-0.24280585,-1.0779204,0.28406984,-0.22945051,-0.38652977,-0.33266902,0.6094971,-0.006554164,-0.3301275,-0.14968613,-0.00958224,0.023847885,0.84868544,-0.10169721,0.70474863,0.1430149,0.73351896,-0.5586938,0.7617077,1.3177992,0.070211075,-0.2560898,0.03173996,0.70525646
2025-07-21 14:12:09.980,2.1000000000000014,2100,105,0.23314051,-0.06894864,-0.08379391,-0.014231067,0.044777997,-0.006521215,0.0,0.0,0.0,-0.04434296,0.105965935,-0.16145581,0.06981383,-0.05970277,-0.05646222,-0.07819069,0.09040269,0.1817602,0.04229001,-0.06759613,-0.036617495,0.09243851,-0.04489742,-0.016680824,0.07558858,-0.014125588,0.14503273,-0.05973272,0.07371489,0.19290182,-0.060779598,-0.059692193,-0.025048764,-0.049325187,0.84868544,-0.10169721,0.70474863,0.1430149,0.73351896,-0.5586938,0.7617077,1.3177992,0.070211075,-0.2560898,0.03173996,0.70525646,0.11939141,-0.5092911,0.7324079,-0.36942306,-0.35319483,-0.53136134,0.474406,-0.12172412,-0.30965304,-0.33479947,0.107740626,0.61636853
2025-07-21 14:12:09.999,2.1200000000000014,2120,106,-0.01465245,0.07928654,0.051754005,-0.04055872,0.018770961,-0.015037418,0.0,0.0,0.0,-0.044396654,0.11047562,-0.16010606,0.06507446,-0.049615342,-0.038571164,-0.07885966,0.08499736,0.17781027,0.031876147,-0.08155151,-0.009665738,0.08261354,-0.038162056,-0.015831104,0.057780735,0.056548633,-0.12312634,-0.008902173,0.05768935,-0.1752706,0.034428664,0.054555584,-0.02169638,0.0473344,0.11939141,-0.5092911,0.7324079,-0.36942306,-0.35319483,-0.53136134,0.474406,-0.12172412,-0.30965304,-0.33479947,0.107740626,0.61636853,0.5180112,0.099090695,0.9887401,0.040722467,0.74775964,0.20428038,0.9162179,1.4528695,-0.34091052,-0.21810317,-1.3208582,0.7464546
2025-07-21 14:12:10.023,2.1400000000000015,2140,107,0.20929392,-0.06841881,-0.15500578,-0.032763783,-0.023120105,0.0065621347,0.0,0.0,0.0,-0.045058835,0.10747985,-0.1415566,0.07473005,-0.037200786,-0.029008023,-0.07231948,0.09361679,0.19656415,0.0020165993,-0.07597804,-0.010043905,0.08745804,-0.018111397,0.105248734,0.00091887434,0.026690278,0.041842446,0.09027892,-0.04834787,0.22588605,-0.08678947,0.019156976,0.022379726,0.01595372,0.5180112,0.099090695,0.9887401,0.040722467,0.74775964,0.20428038,0.9162179,1.4528695,-0.34091052,-0.21810317,-1.3208582,0.7464546,-0.4214285,-1.5033923,0.25378367,-0.3132384,0.02579529,-0.3119014,0.36741155,-0.51749915,0.14790452,0.21283205,-0.48059413,0.7241581
2025-07-21 14:12:10.043,2.1600000000000015,2160,108,-0.21208929,0.0472383,0.09260833,-0.013946007,0.06273896,-0.012675523,0.0,0.0,0.0,-0.044382352,0.10793875,-0.14056219,0.07558471,-0.05141834,-0.012278681,-0.054735724,0.080256835,0.19425023,0.022553599,-0.06578911,-0.044373676,0.09814245,-0.08331272,-0.1394252,-0.03640291,0.05090164,0.06909638,0.019751739,0.050652437,-0.11601813,0.07025141,0.042064484,-0.03011561,0.07513901,-0.4214285,-1.5033923,0.25378367,-0.3132384,0.02579529,-0.3119014,0.36741155,-0.51749915,0.14790452,0.21283205,-0.48059413,0.7241581,1.1432637,0.34893095,0.96596014,-0.35740057,-0.08071316,-0.8467021,0.6748619,0.64993185,0.4829003,-0.37635607,0.28380162,1.0232122
2025-07-21 14:12:10.060,2.1800000000000015,2180,109,0.0983208,-0.104511015,-0.030046504,-0.05160982,0.014621936,-0.034471594,0.0,0.0,0.0,-0.044377472,0.12575124,-0.15306129,0.07084413,-0.043112673,-0.024572764,-0.06610756,0.0863527,0.18580341,0.012686782,-0.08082459,-0.03421842,0.10616297,0.013396283,0.09106675,0.02264812,-0.025644178,-0.052225642,-0.039656,0.03540694,0.08943596,-0.04178169,-0.057391863,0.029644348,-0.011857654,1.1432637,0.34893095,0.96596014,-0.35740057,-0.08071316,-0.8467021,0.6748619,0.64993185,0.4829003,-0.37635607,0.28380162,1.0232122,-0.13281073,-0.5618818,0.64921236,-0.4669053,-0.4136708,0.033308506,0.29719007,0.42619774,0.14347336,-0.23263563,-1.2046963,0.4008149
2025-07-21 14:12:10.081,2.2000000000000015,2200,110,-0.14292209,0.06274822,0.07617029,0.019338213,0.0075460984,0.043972235,0.0,0.0,0.0,-0.044469498,0.123013,-0.15331963,0.0707145,-0.05443529,-0.05134752,-0.06065229,0.08538325,0.17279263,0.026811816,-0.07373606,-0.033309076,0.090582706,-0.0018055364,-0.066392206,0.032554787,0.04636316,-0.13866495,0.10329413,0.036623735,-0.03760426,0.069728754,-0.04069983,0.0019250547,-0.081631705,-0.13281073,-0.5618818,0.64921236,-0.4669053,-0.4136708,0.033308506,0.29719007,0.42619774,0.14347336,-0.23263563,-1.2046963,0.4008149,1.0374961,0.3441589,1.1095198,-0.5433779,0.45713192,-0.38002324,0.64876616,0.5157296,0.5979457,-0.44125378,-0.9903149,0.71861374
2025-07-21 14:12:10.101,2.2200000000000015,2220,111,-0.00455138,-0.03583305,-0.16608775,0.00591873,0.0013643475,0.0115329,0.0,0.0,0.0,-0.044320993,0.12608834,-0.154963,0.07740437,-0.057534263,-0.024016703,-0.055325143,0.089016594,0.19609311,0.032749247,-0.091768526,-0.047223207,0.09021286,-0.038078275,0.12442755,-0.049573075,-0.004063375,0.041632183,0.004904282,-0.009195492,-0.0027152365,0.048217867,-0.03817703,-0.13743402,-0.06338507,1.0374961,0.3441589,1.1095198,-0.5433779,0.45713192,-0.38002324,0.64876616,0.5157296,0.5979457,-0.44125378,-0.9903149,0.71861374,-0.2447265,-1.3359532,0.068517275,-0.46192878,-0.13513154,-0.043098927,0.6773621,-0.040741198,0.723844,0.44832033,0.8703236,0.7512884
2025-07-21 14:12:10.122,2.2400000000000015,2240,112,-0.033968445,0.014687809,0.06932021,-0.0026325057,0.054611366,0.011417144,0.0,0.0,0.0,-0.042118307,0.12323949,-0.15273589,0.06686695,-0.075565055,-0.00997172,-0.06098704,0.09155265,0.15868574,0.05487991,-0.0693677,-0.042954657,0.091163725,-0.053902786,-0.14106625,-0.098390505,-0.07419339,-0.010946099,0.042137593,0.066183396,-0.16086471,0.069251224,-0.035371695,0.09427984,0.0032949867,-0.2447265,-1.3359532,0.068517275,-0.46192878,-0.13513154,-0.043098927,0.6773621,-0.040741198,0.723844,0.44832033,0.8703236,0.7512884,0.50019985,-0.052380685,0.61652803,-0.05008077,-0.46140146,0.10896623,0.8428739,1.2799977,0.39343867,-0.5967752,-0.047668327,0.36088198
2025-07-21 14:12:10.143,2.2600000000000016,2260,113,0.18143877,-0.07972288,-0.1735837,0.03219926,-0.0035424535,0.023435025,0.0,0.0,0.0,-0.041383386,0.13461696,-0.15110661,0.06394983,-0.06703879,-0.03960782,-0.031500485,0.10031021,0.18193142,0.059649277,-0.07787605,-0.041943677,0.09427981,0.027015945,0.0771402,0.013668003,0.05147567,-0.05150782,0.027323047,0.04198934,0.16266863,-0.0042187,-0.031282555,0.046495847,-0.029575482,0.50019985,-0.052380685,0.61652803,-0.05008077,-0.46140146,0.10896623,0.8428739,1.2799977,0.39343867,-0.5967752,-0.047668327,0.36088198,-0.60590243,-0.8442016,-0.058974795,-0.32646555,0.10648856,-0.16774619,0.86230457,-0.43619,0.6813609,0.122199655,-0.25356904,0.8330258
2025-07-21 14:12:10.162,2.2800000000000016,2280,114,-0.12499462,0.14851551,0.19791451,-0.034812886,0.07120096,-0.030206654,0.0,0.0,0.0,-0.03982261,0.12674968,-0.16121759,0.056207232,-0.07006181,-0.021462312,-0.042096213,0.11666391,0.17178123,0.06511288,-0.07224053,-0.061472833,0.09462689,-0.09884624,-0.092936754,-0.045828667,-0.03986303,0.06496344,-0.044822104,0.018368455,-0.16851544,0.06522391,-0.022607788,0.03270682,0.022094669,-0.60590243,-0.8442016,-0.058974795,-0.32646555,0.10648856,-0.16774619,0.86230457,-0.43619,0.6813609,0.122199655,-0.25356904,0.8330258,0.9946385,0.019314643,1.0856215,-0.25846046,-0.0028491076,-0.3035046,0.53611046,1.2373776,0.3454432,-0.48829293,-0.24612166,0.39576152
2025-07-21 14:12:10.180,2.3000000000000016,2300,115,0.12500867,-0.0627139,-0.118137494,0.03670392,0.07386212,-0.034230795,0.0,0.0,0.0,-0.04018505,0.13126765,-0.16911872,0.06958878,-0.06061775,-0.03216688,-0.039702877,0.106034175,0.19500129,0.0567739,-0.08306984,-0.056584798,0.08289727,0.043811347,0.035741866,0.076991275,0.036365926,0.036459208,-0.0029499708,-0.008283183,0.101757415,0.03682004,0.054229803,0.02830381,-0.057778988,0.9946385,0.019314643,1.0856215,-0.25846046,-0.0028491076,-0.3035046,0.53611046,1.2373776,0.3454432,-0.48829293,-0.24612166,0.39576152,-0.32992676,-0.50831395,0.34503677,-0.5540548,-0.32890478,-0.16013283,0.5070888,-0.087157704,0.23770967,-0.056189835,-0.08737339,0.29321912
2025-07-21 14:12:10.200,2.3200000000000016,2320,116,0.05570269,0.14606519,0.09902396,-0.031659976,-0.006434751,0.026497561,0.0,0.0,0.0,-0.039647076,0.123336144,-0.17818597,0.056041572,-0.071605116,-0.047851007,-0.031210607,0.10467019,0.16978686,0.04915847,-0.08093166,-0.06211995,0.07818833,-0.105882965,0.020378256,0.007279476,-0.005733931,-0.017467408,0.0541846,0.028615199,-0.068904,0.011721298,-0.009151863,0.06243618,-0.030096862,-0.32992676,-0.50831395,0.34503677,-0.5540548,-0.32890478,-0.16013283,0.5070888,-0.087157704,0.23770967,-0.056189835,-0.08737339,0.29321912,0.49232283,-0.16668278,1.0421289,-0.25649777,0.21403159,0.073740065,0.58473104,0.60343677,-0.007385619,-0.34403694,-0.9195869,0.04066748
2025-07-21 14:12:10.220,2.3400000000000016,2340,117,0.083463386,-0.08267652,-0.11178188,-0.043425236,0.018197626,0.015141021,0.0,0.0,0.0,-0.039723594,0.10664767,-0.1645491,0.05731973,-0.067050084,-0.034231313,-0.030856038,0.10170391,0.17672442,0.03732772,-0.08863798,-0.072462715,0.063321486,-0.035521433,0.02694458,0.018013623,0.07579662,0.0112392735,0.036728438,0.06790662,0.104586735,0.046949226,0.050939355,-0.116795905,-0.056102086,0.49232283,-0.16668278,1.0421289,-0.25649777,0.21403159,0.073740065,0.58473104,0.60343677,-0.007385619,-0.34403694,-0.9195869,0.04066748,0.1785235,-0.53930974,0.33606339,-0.5927299,0.14046513,-0.33644083,0.38025996,-0.009642027,0.5173835,0.36746323,1.0173985,0.9852065
2025-07-21 14:12:10.245,2.3600000000000017,2360,118,-0.05150957,-0.012396303,0.12865093,-0.01566641,0.0077516814,-0.030144103,0.0,0.0,0.0,-0.038958315,0.1108117,-0.18228045,0.063008465,-0.06376327,-0.011849384,-0.03269694,0.093911946,0.15574357,0.057687256,-0.08337713,-0.059996508,0.07225162,-0.067983285,-0.09493792,-0.08471883,0.018688258,-0.03398298,0.016649911,0.024979917,-0.028457457,0.080341205,0.05066245,0.08503353,0.05152724,0.1785235,-0.53930974,0.33606339,-0.5927299,0.14046513,-0.33644083,0.38025996,-0.009642027,0.5173835,0.36746323,1.0173985,0.9852065,0.40398905,0.31457514,1.0293841,-0.47633955,-0.13014461,-0.24278396,0.43296686,0.61035424,-0.005528368,-0.4054018,-1.1480017,0.803638
2025-07-21 14:12:10.261,2.3800000000000017,2380,119,-0.04076309,-0.05986602,-0.17637642,-0.04174877,0.006983397,0.020327363,0.0,0.0,0.0,-0.0397655,0.10748872,-0.1718443,0.060151514,-0.061540715,-0.02849366,-0.033767063,0.09695356,0.17608868,0.033709116,-0.081945784,-0.06377487,0.08710265,0.04074328,0.10778054,-0.019620543,-0.0018227237,-0.054145414,-0.06911383,-0.047285102,0.08833266,-0.062271327,-0.043183383,0.022859719,0.034690145,0.40398905,0.31457514,1.0293841,-0.47633955,-0.13014461,-0.24278396,0.43296686,0.61035424,-0.005528368,-0.4054018,-1.1480017,0.803638,-0.655865,-1.3712305,0.08297579,-0.70937365,-0.21351324,-0.077332914,0.8093306,-0.3960238,0.5070765,0.55441976,-0.23242463,0.3253765
2025-07-21 14:12:10.281,2.4000000000000017,2400,120,-0.21082567,0.19798385,0.19643189,0.013442176,0.06323982,0.04764132,0.0,0.0,0.0,-0.038946636,0.08418468,-0.19682817,0.04651145,-0.07106355,-0.028832832,-0.034437034,0.08840822,0.1388651,0.046078935,-0.07121206,-0.06432092,0.059623007,-0.0055827354,-0.07837167,0.024488846,0.03516883,-0.047057692,-0.04008338,0.018257644,-0.1656841,0.07101291,0.060623493,-0.09460471,-0.09750676,-0.655865,-1.3712305,0.08297579,-0.70937365,-0.21351324,-0.077332914,0.8093306,-0.3960238,0.5070765,0.55441976,-0.23242463,0.3253765,1.3660334,0.37996745,0.5024294,-0.04537814,0.35520604,-0.5900141,0.40372923,1.1447127,0.8727806,-0.9487777,0.7495658,0.82507265
2025-07-21 14:12:10.301,2.4200000000000017,2420,121,0.13090627,-0.03228359,0.050585054,0.03082859,0.03830068,0.0035976807,0.0,0.0,0.0,-0.04061983,0.11066998,-0.19661872,0.046968967,-0.072777174,-0.004039468,-0.04130442,0.089334466,0.14697374,0.061562885,-0.08701078,-0.030659862,0.064854585,-0.002000445,0.027113302,-0.07612381,0.052847113,0.027352955,-0.08787689,-0.057130493,0.1933754,-0.019302435,-0.057018775,0.111046016,-0.028565913,1.3660334,0.37996745,0.5024294,-0.04537814,0.35520604,-0.5900141,0.40372923,1.1447127,0.8727806,-0.9487777,0.7495658,0.82507265,-0.08950724,-0.056266192,0.82539004,-0.43832347,-0.9079739,-0.50554854,0.102678664,0.085636266,0.32827094,-0.3286418,-0.9987895,0.63136524
2025-07-21 14:12:10.327,2.4400000000000017,2440,122,-0.020370927,0.10440516,0.0059706494,-0.03866786,-0.026651273,0.04043015,0.0,0.0,0.0,-0.042811338,0.10626326,-0.17365426,0.050375547,-0.06588619,-0.03162414,-0.049115118,0.08268008,0.1542972,0.06403946,-0.087685,-0.026752904,0.084856376,-0.018301768,-0.0137358615,0.079601176,-0.075975105,-0.1914698,-0.04640405,0.0022070804,-0.010503898,-0.04103731,0.023234993,0.043707173,-0.033861883,-0.08950724,-0.056266192,0.82539004,-0.43832347,-0.9079739,-0.50554854,0.102678664,0.085636266,0.32827094,-0.3286418,-0.9987895,0.63136524,0.5306649,-0.12354016,0.81082124,-0.36718047,0.71943706,0.16627628,0.411911,0.54854923,0.12529951,-0.31092104,-1.0583692,0.4050716
2025-07-21 14:12:10.346,2.4600000000000017,2460,123,-0.021800887,0.0051853918,-0.1538433,0.013223069,0.056670062,-0.043328445,0.0,0.0,0.0,-0.043609515,0.10621008,-0.1471304,0.059082884,-0.06966052,-0.041190397,-0.02880165,0.076986596,0.1632564,0.050315175,-0.08222861,-0.036881134,0.0727825,-0.048451453,0.06656027,-0.04912354,-0.056530774,0.18104644,-0.0019979996,0.024602594,-0.035628915,0.00013392781,-0.07034933,-0.10616567,0.051550988,0.5306649,-0.12354016,0.81082124,-0.36718047,0.71943706,0.16627628,0.411911,0.54854923,0.12529951,-0.31092104,-1.0583692,0.4050716,-0.3834982,-1.3283442,0.26156536,-0.3311503,-0.5535501,-0.33181167,1.0170474,-0.07071789,0.16554394,0.6615711,1.2640846,1.0304592
2025-07-21 14:12:10.364,2.4800000000000018,2480,124,-0.08800273,0.046983942,0.16395228,0.014579536,-0.008472387,-0.02696078,0.0,0.0,0.0,-0.04229034,0.10047969,-0.16512258,0.058878124,-0.07003727,-0.054097712,-0.032290474,0.101425976,0.13933548,0.0462619,-0.07017827,-0.02786033,0.08937054,-0.08208422,-0.05043274,-0.026807776,0.062164687,-0.110711284,-0.02916642,-0.0049228654,-0.07429836,-0.04782059,0.05539135,0.1322664,0.039867982,-0.3834982,-1.3283442,0.26156536,-0.3311503,-0.5535501,-0.33181167,1.0170474,-0.07071789,0.16554394,0.6615711,1.2640846,1.0304592,0.67437416,-0.10856652,0.6305121,-0.032398067,0.32685158,-0.1559014,0.83667594,1.2565724,-0.41115564,-0.93408376,-1.1129968,0.7360979
2025-07-21 14:12:10.382,2.5000000000000018,2500,125,0.12599325,-0.044211272,-0.09169768,0.016217371,-0.01905099,-0.002052645,0.0,0.0,0.0,-0.043406803,0.11375001,-0.17612848,0.04851824,-0.04798916,-0.030497922,-0.032348327,0.091815144,0.17711182,0.028870283,-0.080463186,-0.017661853,0.07969807,0.05741107,0.024860522,0.015795156,0.0022857408,0.11114456,-0.037671603,0.026186937,0.10434464,-0.046897527,-0.11147746,0.010897102,0.045804374,0.67437416,-0.10856652,0.6305121,-0.032398067,0.32685158,-0.1559014,0.83667594,1.2565724,-0.41115564,-0.93408376,-1.1129968,0.7360979,-0.29473805,-0.89180756,0.45516723,-0.6258929,-0.32349533,-0.677365,0.5490197,-0.08441161,0.39268586,0.1412954,-0.44006935,0.7721701
2025-07-21 14:12:10.401,2.520000000000002,2520,126,-0.2071452,0.04457852,0.14887428,-0.01115511,0.03259205,0.04407032,0.0,0.0,0.0,-0.04364502,0.09952142,-0.1917999,0.056360193,-0.06522835,-0.051082093,-0.04364785,0.10257717,0.16097984,0.030977089,-0.09359793,-0.039068747,0.08631522,-0.057238188,-0.11906757,0.0115897115,0.005931565,-0.00690414,-0.06603698,-0.07853771,-0.10868814,0.07851039,0.076908596,-0.13370077,-0.036619157,-0.29473805,-0.89180756,0.45516723,-0.6258929,-0.32349533,-0.677365,0.5490197,-0.08441161,0.39268586,0.1412954,-0.44006935,0.7721701,1.0806153,0.42398816,0.7666777,-0.33302876,0.50766987,-1.0087427,0.22262475,0.9659214,0.90717274,-0.54217756,0.13499834,1.1149672
2025-07-21 14:12:10.427,2.540000000000002,2540,127,0.0796913,-0.017274776,-0.031154908,0.02453427,0.021366805,-0.013874912,0.0,0.0,0.0,-0.04385148,0.11765185,-0.17389236,0.05751115,-0.069804564,-0.01556203,-0.07624045,0.09754524,0.17335835,0.043597214,-0.08106852,-0.029139675,0.10041975,0.05830695,0.086990274,-0.06899782,0.07003595,0.10825584,-0.092964135,-0.043267984,0.17668773,-0.008820217,-0.044328917,0.009554578,0.0884844,1.0806153,0.42398816,0.7666777,-0.33302876,0.50766987,-1.0087427,0.22262475,0.9659214,0.90717274,-0.54217756,0.13499834,1.1149672,-0.07070489,-0.80516034,0.6201476,-0.5243049,-0.74945164,-0.76637864,0.10851667,-0.27695963,0.18424436,-0.48303223,-0.8040039,0.46073782
2025-07-21 14:12:10.445,2.560000000000002,2560,128,-0.30017436,0.074650526,0.03249286,-0.04768492,0.05260445,-0.047402196,0.0,0.0,0.0,-0.0441273,0.10979423,-0.18906575,0.06868279,-0.06600263,-0.02934876,-0.07567108,0.08424288,0.15810752,0.042819314,-0.08858387,-0.05699573,0.09673417,0.013261575,-0.068096854,-0.005122083,0.023195174,-0.1275813,0.037611835,-0.030186232,-0.19448803,0.004334003,-0.07279875,-0.039499205,0.025171205,-0.07070489,-0.80516034,0.6201476,-0.5243049,-0.74945164,-0.76637864,0.10851667,-0.27695963,0.18424436,-0.48303223,-0.8040039,0.46073782,0.8092433,0.28552413,0.9986444,-0.32430294,0.6897618,-0.15028566,0.7259451,1.4440681,0.53275084,-0.20007479,-0.68170696,1.0323145
2025-07-21 14:12:10.464,2.580000000000002,2580,129,0.06302878,-0.1405743,-0.21205702,0.014961777,0.035360787,0.020807082,0.0,0.0,0.0,-0.04406812,0.12225595,-0.18503655,0.06382526,-0.07554199,-0.057083398,-0.07012547,0.07281762,0.16829993,0.054456946,-0.095164746,-0.078527875,0.112022355,-0.029826768,0.044387635,0.06539683,-0.025926346,-0.013543888,0.051056605,0.023495374,0.12603563,-0.038310144,-0.026599491,0.0013896505,-0.0064287,0.8092433,0.28552413,0.9986444,-0.32430294,0.6897618,-0.15028566,0.7259451,1.4440681,0.53275084,-0.20007479,-0.68170696,1.0323145,-0.64452326,-1.0985527,0.2672786,-0.43661872,0.35236132,0.28990397,0.8220346,-0.104431294,0.29596612,0.24087566,0.3101562,0.71728486
2025-07-21 14:12:10.481,2.600000000000002,2600,130,0.04892899,0.045307286,0.22016542,0.030693732,0.06781371,-0.040787596,0.0,0.0,0.0,-0.0422258,0.10199573,-0.20023593,0.070256375,-0.06471441,-0.010980734,-0.05195228,0.09876067,0.18037099,0.046587236,-0.082942314,-0.06067069,0.104248516,-0.11780629,-0.06542134,0.039784044,-0.075325266,0.14250536,0.014229859,-0.031653102,-0.06919402,0.05773073,-0.020782305,0.15924637,-0.05331211,-0.64452326,-1.0985527,0.2672786,-0.43661872,0.35236132,0.28990397,0.8220346,-0.104431294,0.29596612,0.24087566,0.3101562,0.71728486,0.5287947,0.5140717,1.2083594,-0.4533908,-0.68509126,-0.31017548,0.7098687,0.66342133,0.021928988,-0.7278254,-0.9598809,0.08220265
2025-07-21 14:12:10.501,2.620000000000002,2620,131,0.10691698,0.0037636845,-0.16350645,-0.05884968,0.023814704,0.020481205,0.0,0.0,0.0,-0.043192346,0.11837029,-0.21923167,0.08189815,-0.07285808,-0.03165885,-0.06304627,0.09239755,0.18561064,0.03837656,-0.094458446,-0.06980032,0.077998154,0.085246295,-0.011871962,0.018100467,0.0027879176,-0.15377541,0.055691794,0.033890937,0.10189397,-0.059010793,-0.09731934,0.005024746,-0.093847424,0.5287947,0.5140717,1.2083594,-0.4533908,-0.68509126,-0.31017548,0.7098687,0.66342133,0.021928988,-0.7278254,-0.9598809,0.08220265,-0.34238344,-0.23484313,0.36940953,-0.6700471,-0.076177366,0.08911717,0.85657364,-0.27395082,0.39630684,0.26349533,-0.053238187,0.5189571
2025-07-21 14:12:10.528,2.640000000000002,2640,132,0.09612502,-0.068978325,0.1262864,-0.07018926,0.0025353485,-0.0063078897,0.0,0.0,0.0,-0.042928994,0.10028964,-0.19428128,0.060347885,-0.08862405,-0.03558263,-0.05251858,0.09992976,0.15176022,0.053813245,-0.091858864,-0.064705715,0.079517476,-0.04804235,-0.025861831,-0.101133004,-0.07992656,0.073419206,-0.020665454,0.092768595,-0.07446677,0.058413256,0.007849426,0.015905319,-0.047266945,-0.34238344,-0.23484313,0.36940953,-0.6700471,-0.076177366,0.08911717,0.85657364,-0.27395082,0.39630684,0.26349533,-0.053238187,0.5189571,0.7483347,0.11249894,0.95676136,-0.42916545,-0.1626058,-0.31511694,0.8190083,0.54717505,0.006817721,-0.3313975,-0.4757798,0.34077176
2025-07-21 14:12:10.545,2.660000000000002,2660,133,0.051850874,-0.08008095,-0.1574918,-0.0630863,0.03040768,0.0007390176,0.0,0.0,0.0,-0.0431566,0.10114206,-0.17426787,0.0704146,-0.08455192,-0.044178545,-0.04082533,0.111013174,0.15962097,0.039733324,-0.092184335,-0.0670107,0.07253313,0.094969235,0.032289457,0.0481218,0.0045091663,-0.005929416,-0.0725117,0.061768267,0.04156829,-0.036536943,0.0414439,-0.09719096,-0.08211338,0.7483347,0.11249894,0.95676136,-0.42916545,-0.1626058,-0.31511694,0.8190083,0.54717505,0.006817721,-0.3313975,-0.4757798,0.34077176,-0.25095305,-0.74116945,0.28996202,-0.50198346,-0.0775918,-0.14577192,0.6861384,0.122632004,0.6968735,0.44743016,0.8303207,0.70525855
2025-07-21 14:12:10.563,2.680000000000002,2680,134,-0.054256756,0.03921389,0.22837485,0.0018083459,0.04346578,0.043770898,0.0,0.0,0.0,-0.041309666,0.100805536,-0.16912872,0.055348154,-0.076058455,-0.04787241,-0.03363791,0.11144998,0.13528286,0.048499506,-0.06597347,-0.049551032,0.065128244,-0.026550736,-0.09853555,-0.06741516,0.021181038,-0.043919057,-0.040323906,-0.030988278,-0.09952486,0.049239404,0.02737116,0.068675205,-0.024611153,-0.25095305,-0.74116945,0.28996202,-0.50198346,-0.0775918,-0.14577192,0.6861384,0.122632004,0.6968735,0.44743016,0.8303207,0.70525855,0.87571067,0.39157927,0.8186654,-0.19806255,0.35419023,-0.24327779,0.51694375,1.5390747,0.012678586,-0.79911876,-0.9450343,0.6179178
2025-07-21 14:12:10.581,2.700000000000002,2700,135,-0.01793494,0.017271088,-0.19825527,-0.0341874,0.03085432,-0.009407429,0.0,0.0,0.0,-0.042300202,0.11171097,-0.17578647,0.064706944,-0.06748295,-0.013470201,-0.03970721,0.11279652,0.16557959,0.042155147,-0.083244026,-0.048806798,0.082489245,-0.008656535,0.034854926,0.07861687,-0.044890102,0.093750685,0.035290338,0.027772862,0.10886505,-0.010810492,-0.045551836,-0.06886109,-0.013821337,0.87571067,0.39157927,0.8186654,-0.19806255,0.35419023,-0.24327779,0.51694375,1.5390747,0.012678586,-0.79911876,-0.9450343,0.6179178,-0.5094566,-1.2825258,0.40090862,-0.4441974,-0.124930225,-0.30648947,0.56895614,0.05252651,0.52946156,0.310123,0.68678004,0.6227671
2025-07-21 14:12:10.603,2.720000000000002,2720,136,-0.053109683,0.1879751,0.21203364,-0.060776368,0.029930748,-0.027504876,0.0,0.0,0.0,-0.042026803,0.09495563,-0.16680355,0.06426205,-0.073039316,-0.026153151,-0.036862504,0.0976572,0.1662277,0.03710555,-0.07507149,-0.016864333,0.06687668,-0.043578364,-0.07709672,0.05105174,-0.013708162,0.024321387,0.04052985,0.032797445,-0.13366412,0.046142954,0.03817751,0.14894757,-0.05526822,-0.5094566,-1.2825258,0.40090862,-0.4441974,-0.124930225,-0.30648947,0.56895614,0.05252651,0.52946156,0.310123,0.68678004,0.6227671,0.66862077,0.2643003,1.296117,-0.19074024,-0.14899391,0.14626563,0.52719593,1.2836136,-0.019033827,-0.8740962,-1.2100539,0.32259622
2025-07-21 14:12:10.629,2.740000000000002,2740,137,0.0015524846,0.0068203732,-0.12129516,0.0009645638,0.044226605,-0.02529874,0.0,0.0,0.0,-0.042579982,0.087762214,-0.18568724,0.07967418,-0.06463063,-0.018431991,-0.030384075,0.098830014,0.19442965,0.031745397,-0.081596956,-0.017202424,0.063437134,0.014862842,0.07760839,0.09215307,0.058588527,0.0047007715,0.06058808,0.044021368,0.21607175,-0.08536094,-0.09993097,-0.010772887,0.021664947,0.66862077,0.2643003,1.296117,-0.19074024,-0.14899391,0.14626563,0.52719593,1.2836136,-0.019033827,-0.8740962,-1.2100539,0.32259622,-0.32353354,-0.89171994,0.19360639,-0.72961915,-0.10575309,-0.375485,0.20483589,-0.565855,0.049749844,0.17753701,-0.660863,0.51951087
2025-07-21 14:12:10.646,2.760000000000002,2760,138,-0.33476537,0.05644991,0.06691609,-0.022801623,-0.00441403,-0.03898697,0.0,0.0,0.0,-0.042026117,0.08014522,-0.20823407,0.064542994,-0.078140885,-0.026242938,-0.039487638,0.10006907,0.18375026,0.041197155,-0.085645966,-0.04412147,0.07662401,-0.035904873,-0.101989605,-0.09317367,-0.107034825,0.0068679815,-0.10268286,-0.04376565,-0.10565942,0.049009684,0.023934856,-0.1718306,0.06908701,-0.32353354,-0.89171994,0.19360639,-0.72961915,-0.10575309,-0.375485,0.20483589,-0.565855,0.049749844,0.17753701,-0.660863,0.51951087,0.87512,0.36328137,0.52902883,-0.4734998,0.44974265,-1.0509385,0.32613215,0.21763179,0.7760302,-0.058653414,0.95023227,1.410235
2025-07-21 14:12:10.664,2.780000000000002,2780,139,0.13342969,-0.10058701,0.04379384,-0.04239406,0.011483628,0.017212702,0.0,0.0,0.0,-0.041371617,0.08656111,-0.19428314,0.05677317,-0.08172188,0.0012113017,-0.054019608,0.09536522,0.17687103,0.052257583,-0.08821211,-0.043090392,0.078389674,0.033944704,0.059792504,-0.05346903,0.018565927,0.054393258,0.0019764255,0.0028840054,-0.053829048,0.09443895,0.022380974,0.09692572,0.04819829,0.87512,0.36328137,0.52902883,-0.4734998,0.44974265,-1.0509385,0.32613215,0.21763179,0.7760302,-0.058653414,0.95023227,1.410235,-0.33447337,-0.5463117,1.109547,-0.7022361,-1.1048673,0.08581841,0.13442454,0.21908331,-0.05555556,-0.33168513,-1.5682297,0.69896406
2025-07-21 14:12:10.682,2.800000000000002,2800,140,-0.07631327,0.069986336,-0.011470293,-0.033845115,-0.0047121025,-0.0448466,0.0,0.0,0.0,-0.042033322,0.094201736,-0.18486576,0.06726923,-0.08209684,-0.02136145,-0.049606595,0.08263912,0.14429444,0.03620589,-0.07733124,-0.026538812,0.099535815,-0.024449926,0.04381964,-0.04085884,-0.064091116,-0.11856905,0.0334732,0.027543347,-0.0017597416,-0.06709771,0.028776584,0.012713297,0.012216229,-0.33447337,-0.5463117,1.109547,-0.7022361,-1.1048673,0.08581841,0.13442454,0.21908331,-0.05555556,-0.33168513,-1.5682297,0.69896406,0.17557466,-0.27431762,0.45739666,-0.43684682,-0.042540543,0.027282327,1.0235054,0.111493655,0.23257938,-0.11493236,-0.78272814,0.33229053
