openverse-orca/OrcaGym/log/simulation_log_20250604_170902.csv
timestamp,imu_angle_roll,imu_angle_pitch,imu_angle_yaw,imu_angular_velocity_roll,imu_angular_velocity_pitch,imu_angular_velocity_yaw,imu_acc_x,imu_acc_y,imu_acc_z,fl_joint1_pos,fl_joint1_vel,fl_joint1_torque,fl_joint2_pos,fl_joint2_vel,fl_joint2_torque,fl_joint3_pos,fl_joint3_vel,fl_joint3_torque,fr_joint1_pos,fr_joint1_vel,fr_joint1_torque,fr_joint2_pos,fr_joint2_vel,fr_joint2_torque,fr_joint3_pos,fr_joint3_vel,fr_joint3_torque,hl_joint1_pos,hl_joint1_vel,hl_joint1_torque,hl_joint2_pos,hl_joint2_vel,hl_joint2_torque,hl_joint3_pos,hl_joint3_vel,hl_joint3_torque,hr_joint1_pos,hr_joint1_vel,hr_joint1_torque,hr_joint2_pos,hr_joint2_vel,hr_joint2_torque,hr_joint3_pos,hr_joint3_vel,hr_joint3_torque,fl_force_x,fl_force_y,fl_force_z,fr_force_x,fr_force_y,fr_force_z,hl_force_x,hl_force_y,hl_force_z,hr_force_x,hr_force_y,hr_force_z,fl_hip_action,fl_thigh_action,fl_calf_action,fr_hip_action,fr_thigh_action,fr_calf_action,hl_hip_action,hl_thigh_action,hl_calf_action,hr_hip_action,hr_thigh_action,hr_calf_action
2025-06-04 17:09:02.928,0.020169832,0.04244832,-0.02341234,0.027574372,-0.016153874,0.011166443,-2.2610257,-1.181727,0.0,0.0,-0.0036332468,0.0037112827,-0.005504515,-0.0054718805,0.006313945,-0.0047708964,-0.006020413,0.0058092885,0.008805345,0.002299701,-0.0094519835,0.005784842,0.00026982688,0.02116107,-0.029942064,0.044967268,0.019010901,-0.023899445,0.047978893,0.04123412,-0.07325742,0.016556738,0.06784817,-0.045945056,0.0,0.0,0.0,0.0,0.0,0.0,0.0,0.0,0.0,0.0,0.0,0.0,-0.9619337,0.89084685,-0.63056815,0.58716506,0.87921447,-0.2215901,-0.9556422,-0.59472585,-0.8001106,-0.92514324,-0.20795777,-0.9717885
2025-06-04 17:09:02.932,0.02021078,-0.07777813,-0.040950477,-0.04334173,-0.025563244,-0.045156144,0.0,0.0,0.0,0.0,-0.015635617,0.055692546,-0.017943993,0.01326221,0.046910044,-0.009641356,-0.016491406,-0.043779783,-0.026631873,-0.021470653,-0.014062243,-0.04045435,-0.07180252,0.18570407,-0.0702497,0.07355099,0.09305918,-0.08024648,-0.079594515,-0.18017673,-0.1271783,-0.021143114,0.027188474,-0.10273745,-0.9619337,0.89084685,-0.63056815,0.58716506,0.87921447,-0.2215901,-0.9556422,-0.59472585,-0.8001106,-0.92514324,-0.20795777,-0.9717885,-0.85820735,0.5884113,-0.98196906,0.6781528,-0.0804135,0.44251147,-0.7958277,-0.97693837,-0.3774428,-0.9457923,-0.77092636,-0.88911986
2025-06-04 17:09:02.952,0.14496957,-0.03851003,0.05560145,0.013248796,0.058943365,-0.03984095,0.0,0.0,0.0,-1.6960155e-05,-0.034073837,0.10044456,-0.05600031,0.011259687,0.06353865,0.0008343676,-0.01833178,-0.09797233,-0.052160114,-0.018303946,-0.057481922,-0.058876723,-0.04541556,0.06360428,-0.061589636,0.053688444,-0.029392976,0.059552114,-0.06912916,-0.11832781,-0.018387567,-0.0703311,-0.07374398,-0.041746646,-0.85820735,0.5884113,-0.98196906,0.6781528,-0.0804135,0.44251147,-0.7958277,-0.97693837,-0.3774428,-0.9457923,-0.77092636,-0.88911986,-0.72255933,0.17717358,-0.991803,0.9369661,0.6369677,0.39222738,-0.70787114,-0.96974856,0.0610352,-0.93417555,-0.43756664,-0.9410768
2025-06-04 17:09:02.973,0.0100394795,-0.087428086,-0.076219775,0.022537151,0.039760105,-0.04542967,0.0,0.0,0.0,-0.00026888552,-0.052897938,0.11152657,-0.05871583,0.021298015,0.0875224,0.032783523,-0.031429816,-0.15623704,-0.042982567,-0.044194203,-0.096076064,-0.050242405,-0.08210345,-0.0697988,0.08688946,0.06616912,0.1133664,0.098323554,-0.010773736,-0.13012257,0.015396851,0.027610006,-0.09181857,0.017751513,-0.72255933,0.17717358,-0.991803,0.9369661,0.6369677,0.39222738,-0.70787114,-0.96974856,0.0610352,-0.93417555,-0.43756664,-0.9410768,-0.58137214,0.53832567,-0.9929092,0.95011467,0.7361828,0.7263566,-0.83859926,-0.8108322,0.7886833,-0.9748348,-0.83843076,-0.8164004
2025-06-04 17:09:02.992,0.075142875,0.07163542,-0.050949097,0.010932815,0.020084882,0.038745977,0.0,0.0,0.0,0.00067328557,-0.04678506,0.093265176,-0.04717868,0.027092407,0.13508946,0.054883603,-0.02608044,-0.20035654,-0.005729209,-0.035138536,-0.12962013,-0.027925856,0.03736558,0.02416544,0.03568713,-0.050717376,0.04654837,0.08118004,-0.017156854,-0.115443364,0.14610435,-0.06515124,-0.10759727,0.029157465,-0.58137214,0.53832567,-0.9929092,0.95011467,0.7361828,0.7263566,-0.83859926,-0.8108322,0.7886833,-0.9748348,-0.83843076,-0.8164004,-0.63073355,0.6527287,-0.9947539,0.9562249,0.8548927,0.09408625,-0.86678404,-0.87431324,0.61208963,-0.97678983,-0.7731606,-0.86732703
2025-06-04 17:09:03.016,0.035604328,0.025993252,-0.053767893,0.01893547,0.013232911,-0.0010241008,0.0,0.0,0.0,0.0015550931,-0.05694438,0.08643769,-0.046905175,0.041042782,0.1915829,0.05535264,-0.039237067,-0.24229209,0.02227102,-0.03651794,-0.15070738,0.004529966,0.05090436,0.020469343,-0.0119118355,0.08159371,0.084873594,0.032259405,0.021288453,-0.014262368,0.016890062,0.03620083,-0.09053075,0.09400213,-0.63073355,0.6527287,-0.9947539,0.9562249,0.8548927,0.09408625,-0.86678404,-0.87431324,0.61208963,-0.97678983,-0.7731606,-0.86732703,-0.7151706,0.67392874,-0.98925894,0.9090051,0.84627753,-0.4801,-0.8180273,-0.89773494,0.40507635,-0.97942734,-0.75344217,-0.80423415
2025-06-04 17:09:03.033,0.014131157,0.06777759,0.025034742,-0.016835902,0.042312875,-0.022933768,0.0,0.0,0.0,0.0018983933,-0.05830504,0.08669227,-0.045212913,0.048699327,0.2215765,0.019206908,-0.045931336,-0.26728982,0.05127534,-0.034036007,-0.16562209,0.02461555,0.02961436,0.022038665,-0.05805168,0.080139756,0.10243337,-0.09808103,0.037774403,-0.119165175,0.03480228,0.057828132,0.013972817,0.08672251,-0.7151706,0.67392874,-0.98925894,0.9090051,0.84627753,-0.4801,-0.8180273,-0.89773494,0.40507635,-0.97942734,-0.75344217,-0.80423415,-0.86482024,0.5001653,-0.9894109,0.86909425,0.868256,-0.7063764,-0.65117073,-0.9209307,0.39996696,-0.97774494,-0.5089234,-0.7041133
2025-06-04 17:09:03.053,0.05949461,-0.016456174,0.015408357,0.028005376,0.041025426,0.0443855,0.0,0.0,0.0,0.0016361871,-0.059645984,0.09580977,-0.04183968,0.043867197,0.26528534,-0.017745515,-0.041218724,-0.3031278,0.046512432,-0.0412043,-0.17401326,0.036687735,0.017209439,0.0809645,-0.048761856,-0.03185153,0.07992798,-0.11958176,-0.033632204,-0.11252571,-0.034132857,0.027115278,-0.035519645,2.4424595e-05,-0.86482024,0.5001653,-0.9894109,0.86909425,0.868256,-0.7063764,-0.65117073,-0.9209307,0.39996696,-0.97774494,-0.5089234,-0.7041133,-0.9373853,0.35142642,-0.98865706,0.85735166,0.8437135,-0.72234464,-0.55670345,-0.87040484,0.56987655,-0.97744155,-0.48607746,-0.55543953
2025-06-04 17:09:03.073,-0.009428155,0.042112794,-0.024196396,0.023456372,-0.013409425,0.013075492,0.0,0.0,0.0,0.0014445988,-0.071035594,0.11211341,-0.058579657,0.04871768,0.27806088,-0.04344144,-0.045769665,-0.3159403,0.063009225,-0.04892802,-0.17376423,0.042649888,0.032444973,0.07096267,0.019361407,-0.008562179,-0.0038894361,-0.0023218773,-0.009772633,-0.076446995,-0.02116192,-0.03913183,-0.044173814,0.03268262,-0.9373853,0.35142642,-0.98865706,0.85735166,0.8437135,-0.72234464,-0.55670345,-0.87040484,0.56987655,-0.97744155,-0.48607746,-0.55543953,-0.9434309,0.53618914,-0.9749744,0.8125066,0.84043837,-0.83767605,-0.5315893,-0.84109104,0.19063163,-0.98677164,-0.6639192,-0.62728274
2025-06-04 17:09:03.093,0.03201493,0.096796356,-0.036831275,0.006466132,0.059347883,-0.040146224,0.0,0.0,0.0,0.0015896825,-0.08930981,0.11140369,-0.0697956,0.060967773,0.31163913,-0.08583855,-0.04838469,-0.32435,0.06614575,-0.055336542,-0.17900899,0.046076745,0.021623788,0.08420613,-0.0588235,0.04731275,0.071119666,-0.10369148,0.076047964,-0.0054603782,0.005021865,-0.031240618,0.034648858,0.078455485,-0.9434309,0.53618914,-0.9749744,0.8125066,0.84043837,-0.83767605,-0.5315893,-0.84109104,0.19063163,-0.98677164,-0.6639192,-0.62728274,-0.92740744,0.67544425,-0.950682,0.72107995,0.7974062,-0.88080984,-0.44619387,-0.92178327,-0.26765954,-0.98637253,-0.7402259,-0.7127515
2025-06-04 17:09:03.116,0.023368975,0.037815686,0.059017546,-0.055971812,-0.0070192623,-0.032810163,0.0,0.0,0.0,0.0015025388,-0.088018216,0.115584776,-0.09431634,0.06830408,0.31985226,-0.11054869,-0.03612654,-0.35378262,0.046337713,-0.07011691,-0.18916744,0.047922097,0.058338914,0.031171469,-0.06533025,0.0063972296,0.014517234,-0.028308785,-0.05360512,-0.04673429,0.0061145225,-0.05647729,0.03910487,-0.048954513,-0.92740744,0.67544425,-0.950682,0.72107995,0.7974062,-0.88080984,-0.44619387,-0.92178327,-0.26765954,-0.98637253,-0.7402259,-0.7127515,-0.9497574,0.3707059,-0.96332926,0.54781985,0.76227295,-0.8354602,0.2699201,-0.956228,-0.33857775,-0.9721989,-0.4964666,-0.70910907
2025-06-04 17:09:03.133,0.010116016,0.017841231,0.028998394,0.024816545,-0.024652224,-0.019704299,0.0,0.0,0.0,0.0007710601,-0.101980485,0.12362979,-0.09444657,0.055125974,0.3290985,-0.12400863,-0.029330524,-0.36252716,0.027406314,-0.08318188,-0.19400552,0.048268713,0.040991213,0.06810669,-0.025022065,-0.0035621894,-0.053545177,-0.054261766,0.027281566,-0.09738072,-0.11603444,-0.030835425,-0.042982556,0.07020931,-0.9497574,0.3707059,-0.96332926,0.54781985,0.76227295,-0.8354602,0.2699201,-0.956228,-0.33857775,-0.9721989,-0.4964666,-0.70910907,-0.97128034,0.29808143,-0.9396224,0.67412937,0.69208205,-0.70934516,0.5724685,-0.8469799,0.11258733,-0.9615299,-0.55559385,-0.38438806
2025-06-04 17:09:03.154,0.01171241,0.060677692,0.03390317,-0.051231965,-0.016484512,0.011576607,0.0,0.0,0.0,0.0003558204,-0.097831205,0.13799241,-0.102260835,0.0653909,0.33254552,-0.12727188,-0.023595711,-0.36706546,0.013632027,-0.077939756,-0.2067044,0.045753878,-0.019411307,0.052122004,0.023499755,-0.041982282,-0.040650964,0.0026097104,0.018454256,-0.022469101,0.075704895,-0.06228867,-0.009651291,-0.05769758,-0.97128034,0.29808143,-0.9396224,0.67412937,0.69208205,-0.70934516,0.5724685,-0.8469799,0.11258733,-0.9615299,-0.55559385,-0.38438806,-0.97801614,0.44392338,-0.95859563,0.87273777,0.85269946,-0.7620633,0.65843487,-0.7590183,0.11958207,-0.9911351,-0.51388323,-0.28882766
2025-06-04 17:09:03.174,0.05615173,0.06888529,0.037590798,-0.032655817,0.046551168,-0.025251314,0.0,0.0,0.0,0.00017676406,-0.11427436,0.1411409,-0.11594593,0.06191591,0.32153895,-0.12211522,0.009744232,-0.3647286,0.025086164,-0.0925425,-0.20438713,0.052257992,-0.081024356,-0.027070777,-0.06226828,-0.03172554,0.060040496,0.0021053953,0.09489225,-0.0068807434,-0.062014867,0.012924948,-0.012267896,-0.006063293,-0.97801614,0.44392338,-0.95859563,0.87273777,0.85269946,-0.7620633,0.65843487,-0.7590183,0.11958207,-0.9911351,-0.51388323,-0.28882766,-0.98463917,0.4194643,-0.97059315,0.93209136,0.8928335,-0.7452793,0.6537416,-0.7449577,0.23115501,-0.9947339,-0.52981716,-0.26581845
2025-06-04 17:09:03.194,0.0013023028,0.034655537,-0.009040142,0.004915843,-0.0040458604,-0.007122893,0.0,0.0,0.0,0.0002253105,-0.10914728,0.14090027,-0.11187483,0.06208671,0.3435217,-0.12109429,0.02587983,-0.36777127,0.028441928,-0.09184883,-0.21695043,0.06658021,0.03305733,-0.033968613,-0.049301304,-0.06612923,-0.03965996,0.06356195,-0.03665106,0.00025569386,0.022770535,-0.031658817,-0.039246473,-0.0004215845,-0.98463917,0.4194643,-0.97059315,0.93209136,0.8928335,-0.7452793,0.6537416,-0.7449577,0.23115501,-0.9947339,-0.52981716,-0.26581845,-0.97522914,0.4450911,-0.95051634,0.9079669,0.8818244,-0.7971375,0.6784799,-0.7332587,-0.09869169,-0.9940139,-0.66442823,-0.2482722
2025-06-04 17:09:03.216,0.045405418,-0.007742893,0.014519057,-0.0835914,0.024634602,-0.016877288,0.0,0.0,0.0,0.0004501869,-0.11462361,0.13630615,-0.12091728,0.067355424,0.34219795,-0.12664424,0.020338222,-0.3585826,0.023242887,-0.091078185,-0.22379999,0.078797035,-0.0675515,0.011474426,0.002266963,0.07244579,0.06086025,0.05470359,0.09428156,0.06403806,-0.014887124,-0.06307787,-0.045377452,0.052142393,-0.97522914,0.4450911,-0.95051634,0.9079669,0.8818244,-0.7971375,0.6784799,-0.7332587,-0.09869169,-0.9940139,-0.66442823,-0.2482722,-0.9681508,0.49681672,-0.93818563,0.88480306,0.8904913,-0.8330487,0.7288878,-0.79538107,-0.39676878,-0.9938671,-0.71992093,-0.4031424
2025-06-04 17:09:03.233,0.06931837,0.05984019,-0.048590828,-0.02651159,0.046911877,-0.040684372,0.0,0.0,0.0,0.000594143,-0.10879444,0.1408918,-0.12862344,0.06627872,0.36038002,-0.14331323,0.038072933,-0.35446227,-0.001963269,-0.09108471,-0.22342002,0.086975545,-0.03436877,-0.02345777,-0.072933905,-0.030239265,0.025064614,-0.051198,-0.045414265,0.044305235,-0.06277018,-0.07264292,-0.0071982527,0.020596106,-0.9681508,0.49681672,-0.93818563,0.88480306,0.8904913,-0.8330487,0.7288878,-0.79538107,-0.39676878,-0.9938671,-0.71992093,-0.4031424,-0.96203274,0.5455836,-0.9062605,0.84210163,0.79244417,-0.7717121,0.71805,-0.8131598,-0.35393122,-0.9878355,-0.7626159,-0.3529843
2025-06-04 17:09:03.255,0.03067373,0.074746065,0.044077527,-0.0209091,0.051002186,0.049437113,0.0,0.0,0.0,0.0006073425,-0.11646566,0.15215673,-0.1289835,0.061715376,0.3614716,-0.15108407,0.050935745,-0.356045,-0.001408939,-0.093608946,-0.24677472,0.09246612,-0.06458746,0.034108635,0.007052431,0.07473916,-0.0306943,-0.08294857,-0.037816938,0.03276388,-0.04543308,0.040017333,-0.0051018214,0.022961536,-0.96203274,0.5455836,-0.9062605,0.84210163,0.79244417,-0.7717121,0.71805,-0.8131598,-0.35393122,-0.9878355,-0.7626159,-0.3529843,-0.97704196,0.3927288,-0.95317453,0.844102,0.87189186,-0.81441534,0.8173272,-0.86757565,-0.3257076,-0.9882102,-0.5887361,-0.42522642
2025-06-04 17:09:03.274,0.026208004,-0.0053191576,-0.049165398,-0.056093138,0.004200151,-0.026912639,0.0,0.0,0.0,0.00037900129,-0.10537078,0.15566456,-0.1392376,0.05926666,0.35660508,-0.15120281,0.05164148,-0.35700524,-0.0008166394,-0.089718446,-0.24476388,0.10531278,0.01776778,0.0045109848,-0.07065762,-0.014010054,-0.018748151,-0.0012253384,-0.040197544,-0.0140192695,-0.027208395,0.06597595,-0.04689146,0.001751376,-0.97704196,0.3927288,-0.95317453,0.844102,0.87189186,-0.81441534,0.8173272,-0.86757565,-0.3257076,-0.9882102,-0.5887361,-0.42522642,-0.96395993,0.5680833,-0.91745234,0.8376419,0.7748578,-0.6953676,0.7587049,-0.769969,-0.22095634,-0.98879904,-0.76039404,-0.27694845
2025-06-04 17:09:03.294,-0.0562996,0.072553895,0.014252423,-0.025164459,0.03642631,0.036187615,0.0,0.0,0.0,0.0007031985,-0.11628328,0.16202696,-0.13123031,0.07977568,0.35943887,-0.15340726,0.04493318,-0.36137742,0.007109199,-0.083140895,-0.24099435,0.112789996,-0.04417868,-0.005421794,-0.021545663,-0.020102466,-0.034366105,-0.04924096,-0.014587629,0.054874714,0.03739405,-0.026116606,-0.073483914,-0.059357304,-0.96395993,0.5680833,-0.91745234,0.8376419,0.7748578,-0.6953676,0.7587049,-0.769969,-0.22095634,-0.98879904,-0.76039404,-0.27694845,-0.9624284,0.5678166,-0.94076896,0.8759434,0.87261045,-0.8354797,0.7523041,-0.85501003,-0.5233631,-0.99312645,-0.66970426,-0.49198085
2025-06-04 17:09:03.318,-0.031013522,0.0047021047,-0.022727901,-0.09254804,-0.010169109,0.00011905165,0.0,0.0,0.0,0.00066397194,-0.11922415,0.16209835,-0.13586959,0.08088446,0.37811682,-0.15185885,0.05984038,-0.35778508,0.003371475,-0.08603044,-0.24482068,0.10504577,0.022893108,0.009229857,0.039327823,0.03405247,-0.059605103,0.04642224,-0.0066245077,0.05173248,-0.034973368,0.00017574932,0.047484245,0.020386584,-0.9624284,0.5678166,-0.94076896,0.8759434,0.87261045,-0.8354797,0.7523041,-0.85501003,-0.5233631,-0.99312645,-0.66970426,-0.49198085,-0.9488926,0.5436301,-0.902047,0.7756311,0.7842925,-0.78652513,0.8049275,-0.844057,-0.49813926,-0.98693895,-0.7683642,-0.42635006
2025-06-04 17:09:03.334,-0.029977158,0.004537329,0.007384983,-0.05765908,0.07946563,-0.009678034,0.0,0.0,0.0,0.0004707655,-0.106308155,0.17562477,-0.15195641,0.08582572,0.36713907,-0.15197074,0.044730768,-0.35921854,-0.003025724,-0.07485725,-0.25196126,0.10932719,0.06649768,0.04933308,-0.03576888,-0.0315728,0.037106298,0.017771281,-0.015856327,0.01850912,-0.021377325,-0.06391826,0.03216185,-0.0014798319,-0.9488926,0.5436301,-0.902047,0.7756311,0.7842925,-0.78652513,0.8049275,-0.844057,-0.49813926,-0.98693895,-0.7683642,-0.42635006,-0.9607456,0.49110627,-0.89455754,0.7160388,0.78614163,-0.77664256,0.8871183,-0.86430097,-0.6251441,-0.97958803,-0.7603421,-0.42919406
2025-06-04 17:09:03.354,0.011042657,0.050755978,0.011132729,-0.028420027,0.03493181,-0.01677759,0.0,0.0,0.0,0.00017853384,-0.11372417,0.17267102,-0.14599118,0.086490996,0.36785796,-0.14790472,0.047886677,-0.36726668,-0.0049006026,-0.08221698,-0.2530354,0.106220886,0.069723554,-0.06933069,-0.06929364,-0.059175067,0.061511282,0.023712331,0.06156188,-0.004111292,-0.035937607,0.02570795,0.021413248,0.010601419,-0.9607456,0.49110627,-0.89455754,0.7160388,0.78614163,-0.77664256,0.8871183,-0.86430097,-0.6251441,-0.97958803,-0.7603421,-0.42919406,-0.9674332,0.50915605,-0.9024054,0.7415366,0.77986956,-0.7303746,0.88899887,-0.8443569,-0.52373827,-0.9806681,-0.7483129,-0.39578092
2025-06-04 17:09:03.374,-0.073952064,0.026796898,-0.034366515,-0.034292873,-0.013515326,-0.033535503,0.0,0.0,0.0,1.7496188e-05,-0.11282298,0.17213322,-0.16135673,0.07361648,0.3517459,-0.16214348,0.048694097,-0.36042935,-0.0038908517,-0.07456674,-0.2531434,0.09833583,0.02221655,0.0141031295,0.0121082775,0.06585982,-0.00739392,-0.06818237,0.063298136,0.042130493,0.027341722,0.025650008,-0.060424626,0.0026947497,-0.9674332,0.50915605,-0.9024054,0.7415366,0.77986956,-0.7303746,0.88899887,-0.8443569,-0.52373827,-0.9806681,-0.7483129,-0.39578092,-0.93551093,0.61922324,-0.897639,0.8171234,0.7815705,-0.7643046,0.77593076,-0.83245146,-0.57516575,-0.9878959,-0.7967688,-0.4880124
2025-06-04 17:09:03.395,-0.05996596,0.03179424,-0.005346805,-0.06866259,0.06353954,0.023893071,0.0,0.0,0.0,6.200682e-05,-0.10911113,0.17843486,-0.16199839,0.09101346,0.36310458,-0.15111023,0.0525622,-0.36822158,-0.01575677,-0.08836604,-0.2603637,0.1089722,0.012022993,-0.06883041,-0.04906889,-0.029058147,-0.05269959,0.006508762,-0.019011445,-0.008126117,-0.090325944,0.05783137,0.028216414,0.042789117,-0.93551093,0.61922324,-0.897639,0.8171234,0.7815705,-0.7643046,0.77593076,-0.83245146,-0.57516575,-0.9878959,-0.7967688,-0.4880124,-0.94654775,0.53583336,-0.903602,0.7776232,0.7799407,-0.75935996,0.8428892,-0.87527126,-0.5949204,-0.98388004,-0.7719389,-0.48477778
2025-06-04 17:09:03.416,0.003257434,0.00313927,-0.0064935945,-0.03085018,0.031088315,-0.017618887,0.0,0.0,0.0,-0.00012911319,-0.120360896,0.17210984,-0.17689978,0.09219172,0.34653506,-0.14179483,0.05848588,-0.3670601,-0.019341651,-0.08306566,-0.25824103,0.10890013,-0.04701743,-0.05301684,0.012329214,-0.0165567,-0.04321164,0.062789194,0.069922216,-0.041724566,0.02421613,0.023960741,-0.05329867,-0.022679081,-0.94654775,0.53583336,-0.903602,0.7776232,0.7799407,-0.75935996,0.8428892,-0.87527126,-0.5949204,-0.98388004,-0.7719389,-0.48477778,-0.9467981,0.5851432,-0.90919304,0.7856329,0.78263307,-0.73321676,0.8291334,-0.8387479,-0.49724704,-0.98701817,-0.7672799,-0.44503745
2025-06-04 17:09:03.434,-0.04155145,-0.019607298,-0.021865219,-0.0618802,0.040023156,0.039578866,0.0,0.0,0.0,-0.00033947176,-0.12954831,0.16993803,-0.17519991,0.099165045,0.3420161,-0.15057214,0.06327172,-0.3668289,-0.03442347,-0.073668495,-0.2591746,0.08782878,-0.050630014,0.03187608,-0.034217525,0.06694411,0.0028533933,0.058952287,0.02220832,0.03777802,-0.006792667,-0.04359379,-0.02399036,-0.049837384,-0.9467981,0.5851432,-0.90919304,0.7856329,0.78263307,-0.73321676,0.8291334,-0.8387479,-0.49724704,-0.98701817,-0.7672799,-0.44503745,-0.9506923,0.607145,-0.9137434,0.79885733,0.77490544,-0.7445998,0.83216965,-0.8636379,-0.5788843,-0.98918504,-0.75512683,-0.5041453
2025-06-04 17:09:03.455,0.0051791174,-0.03373884,-0.030651402,-0.06575134,0.020533646,0.032051094,0.0,0.0,0.0,-0.00052009453,-0.12336323,0.18577603,-0.17698163,0.09680106,0.33728325,-0.14845353,0.061160687,-0.36284316,-0.04073117,-0.08141795,-0.27416417,0.095084995,-0.006809916,-0.0007064726,-0.06371509,-0.03737045,0.0075645866,-0.022299506,-0.00045083722,0.07011118,0.0042824307,-0.039458368,-0.017746381,-0.06112465,-0.9506923,0.607145,-0.9137434,0.79885733,0.77490544,-0.7445998,0.83216965,-0.8636379,-0.5788843,-0.98918504,-0.75512683,-0.5041453,-0.9343365,0.6426722,-0.9067819,0.82233894,0.74235153,-0.7237438,0.7837752,-0.8621838,-0.5458716,-0.98909295,-0.7728303,-0.49792907
2025-06-04 17:09:03.476,-0.06614096,-0.03129912,-0.020186964,-0.08213235,-0.0031486694,0.010949729,0.0,0.0,0.0,-0.0007067991,-0.1176359,0.16996968,-0.16722426,0.09220251,0.33288965,-0.14555646,0.052533723,-0.37955612,-0.050286803,-0.07794058,-0.2762127,0.08231471,0.021904694,-0.04445756,0.022644825,0.059726533,0.007329354,-0.02821296,0.0738837,0.011947424,-0.08274254,0.04930318,-0.06550951,0.048038326,-0.9343365,0.6426722,-0.9067819,0.82233894,0.74235153,-0.7237438,0.7837752,-0.8621838,-0.5458716,-0.98909295,-0.7728303,-0.49792907,-0.92124987,0.5606809,-0.92530435,0.85917914,0.7930747,-0.7090938,0.7469665,-0.8664835,-0.539218,-0.99023837,-0.7915302,-0.5517366
2025-06-04 17:09:03.499,0.02181075,0.02601613,0.027329836,-0.04451774,0.013067456,-0.023691267,0.0,0.0,0.0,-0.00105994,-0.13544165,0.18077774,-0.17563486,0.10057123,0.33327878,-0.13721198,0.052257646,-0.37482733,-0.05304675,-0.08064812,-0.2771095,0.07718006,0.04445366,0.036818117,-0.008254279,0.053275995,0.05126566,0.0515776,0.021638393,-0.038364988,-0.05940456,-0.043527197,0.016708052,-0.08133741,-0.92124987,0.5606809,-0.92530435,0.85917914,0.7930747,-0.7090938,0.7469665,-0.8664835,-0.539218,-0.99023837,-0.7915302,-0.5517366,-0.9699099,0.4440562,-0.9465405,0.8161137,0.803489,-0.6994438,0.8598947,-0.8877956,-0.3994257,-0.98827547,-0.65671563,-0.48462784
2025-06-04 17:09:03.516,-0.033359412,-0.076597996,-0.06346293,-0.0038370937,0.05797089,0.03162903,0.0,0.0,0.0,-0.0014052333,-0.12776044,0.18270749,-0.17631386,0.106907226,0.33483434,-0.15015543,0.06288435,-0.37078127,-0.046387505,-0.08568712,-0.2722314,0.077522054,-0.017644577,-0.02293605,0.059026483,0.049879145,0.05502456,-0.043855283,0.060779095,-0.013506734,-0.042089727,0.012048845,0.022399582,0.0047636363,-0.9699099,0.4440562,-0.9465405,0.8161137,0.803489,-0.6994438,0.8598947,-0.8877956,-0.3994257,-0.98827547,-0.65671563,-0.48462784,-0.95229,0.6414113,-0.9241945,0.8778795,0.7655203,-0.61306584,0.6905601,-0.8036585,-0.31158063,-0.9924123,-0.7878707,-0.4474295
2025-06-04 17:09:03.536,-0.011910825,-0.05525445,-0.0221033,-0.051826302,0.028172255,0.03089305,0.0,0.0,0.0,-0.0011989663,-0.13354462,0.18506142,-0.17459579,0.103820264,0.3350168,-0.13877867,0.06251001,-0.3808339,-0.06285208,-0.07947496,-0.28685609,0.07459651,0.05269034,-0.054341402,0.04337087,0.064007424,-0.07466951,-0.024395032,0.011054872,0.059543423,0.060993873,0.023873614,0.04128637,-0.06057365,-0.95229,0.6414113,-0.9241945,0.8778795,0.7655203,-0.61306584,0.6905601,-0.8036585,-0.31158063,-0.9924123,-0.7878707,-0.4474295,-0.9286814,0.6208941,-0.94112635,0.8901902,0.8194208,-0.744447,0.69011796,-0.8793562,-0.5204808,-0.99472713,-0.732721,-0.5883551
2025-06-04 17:09:03.556,-0.02608569,0.008709312,0.05295813,-0.058683094,0.0004736725,-0.040277068,0.0,0.0,0.0,-0.0012746931,-0.13930489,0.16980119,-0.1776043,0.11208721,0.3203061,-0.1327134,0.06341851,-0.38148668,-0.052044045,-0.0873665,-0.2851686,0.074277565,-0.04644967,0.015532725,-0.05157943,0.03969086,-0.019075967,-0.0356063,0.068843655,0.07291486,-0.009260334,0.0026949288,0.029499168,-0.027659591,-0.9286814,0.6208941,-0.94112635,0.8901902,0.8194208,-0.744447,0.69011796,-0.8793562,-0.5204808,-0.99472713,-0.732721,-0.5883551,-0.9633988,0.5011613,-0.95943487,0.8692276,0.8382598,-0.75403506,0.77632916,-0.89353657,-0.2940173,-0.99255663,-0.6165694,-0.5112729
2025-06-04 17:09:03.576,-0.0065658586,1.1163042e-05,0.011664978,-0.006211199,-0.021728568,0.048670456,0.0,0.0,0.0,-0.0015266554,-0.1306576,0.17772965,-0.17659143,0.11216621,0.3201504,-0.14893186,0.062762484,-0.3800565,-0.048874192,-0.09085219,-0.27533442,0.059450656,0.039625525,0.07286606,0.041057743,-0.05880269,0.030980825,-0.0016157008,-0.037041087,-0.040445752,0.037032668,0.06935943,-0.05005394,0.055831287,-0.9633988,0.5011613,-0.95943487,0.8692276,0.8382598,-0.75403506,0.77632916,-0.89353657,-0.2940173,-0.99255663,-0.6165694,-0.5112729,-0.96557945,0.4014549,-0.9505287,0.8615,0.8100532,-0.67087114,0.80046594,-0.8248045,-0.18502077,-0.9884817,-0.7062771,-0.3380969
2025-06-04 17:09:03.599,0.051625952,-0.024460718,-0.0036731071,-0.049695324,0.069152966,0.01521171,0.0,0.0,0.0,-0.0014033597,-0.13555749,0.18657508,-0.16425547,0.107000135,0.3214102,-0.13913606,0.06347957,-0.3922785,-0.060111117,-0.08263893,-0.28921247,0.06251692,0.062839486,-0.03338886,0.059223283,-0.044966068,0.009554013,0.058709513,0.079700254,-0.010923761,-0.05072318,-0.029863007,-0.044547014,0.005303835,-0.96557945,0.4014549,-0.9505287,0.8615,0.8100532,-0.67087114,0.80046594,-0.8248045,-0.18502077,-0.9884817,-0.7062771,-0.3380969,-0.9619533,0.4850576,-0.93506336,0.8923726,0.8419111,-0.698829,0.7836193,-0.7894907,-0.3554594,-0.9925657,-0.7564449,-0.4085311
2025-06-04 17:09:03.617,0.008738423,0.0024854708,0.036902033,-0.078588195,-0.0060142786,-0.026326543,0.0,0.0,0.0,-0.0011114504,-0.1419495,0.18228593,-0.16932906,0.11218625,0.33590168,-0.14130537,0.071768984,-0.39854318,-0.056135766,-0.08692943,-0.27212393,0.0777954,0.069103695,-0.034946892,0.005732423,-0.0415142,0.014730513,0.032037437,0.07308026,0.055173397,0.056405112,-0.02623739,-0.050175652,-0.016248807,-0.9619533,0.4850576,-0.93506336,0.8923726,0.8419111,-0.698829,0.7836193,-0.7894907,-0.3554594,-0.9925657,-0.7564449,-0.4085311,-0.95862216,0.47104347,-0.9508301,0.88975877,0.8660035,-0.7547975,0.8127285,-0.8523962,-0.39691246,-0.9937174,-0.68441343,-0.4865708
2025-06-04 17:09:03.637,-0.004607955,-0.05499355,-0.030636555,-0.00011228508,0.06968202,-0.021578463,0.0,0.0,0.0,-0.000976819,-0.13523008,0.16947626,-0.1678917,0.11822077,0.33034784,-0.14039692,0.070880555,-0.38407454,-0.04864306,-0.07681068,-0.28884298,0.062757164,0.029020207,-0.050279338,-0.014503159,0.05318313,-0.018443944,-0.005560954,-0.019390183,0.06807545,-0.021527428,0.024871755,-0.0037946985,0.038617775,-0.95862216,0.47104347,-0.9508301,0.88975877,0.8660035,-0.7547975,0.8127285,-0.8523962,-0.39691246,-0.9937174,-0.68441343,-0.4865708,-0.9527046,0.54170054,-0.9254943,0.8552666,0.7920084,-0.6909995,0.78805125,-0.828408,-0.36623186,-0.9900401,-0.75846213,-0.40047765
2025-06-04 17:09:03.657,-0.013090318,0.008505465,-0.03137541,-0.0030770483,0.008840821,-0.044126276,0.0,0.0,0.0,-0.00071059726,-0.14036138,0.16496447,-0.16147475,0.11339435,0.3385001,-0.13224182,0.06141265,-0.38346684,-0.046310566,-0.08858063,-0.27778623,0.06269497,0.012174505,0.004629234,0.057039965,0.02661027,0.027335098,-0.010606589,0.023001032,0.019604249,-0.043887507,-0.011923665,-0.07108408,0.056855716,-0.9527046,0.54170054,-0.9254943,0.8552666,0.7920084,-0.6909995,0.78805125,-0.828408,-0.36623186,-0.9900401,-0.75846213,-0.40047765,-0.9433367,0.50265896,-0.91985273,0.8680888,0.81633437,-0.7550791,0.7382532,-0.8225351,-0.4881683,-0.98954344,-0.7922095,-0.4635165
2025-06-04 17:09:03.677,0.02790322,-0.013157381,0.0072422526,-0.05866454,0.014721432,-0.039374292,0.0,0.0,0.0,-0.00064158655,-0.14818862,0.18111226,-0.1605415,0.119630635,0.34344232,-0.1496203,0.06962067,-0.38681546,-0.04119813,-0.07682575,-0.28278673,0.077410474,0.009378024,-0.040173993,-0.030860718,0.05793956,-0.012540325,0.04239971,0.04793013,-0.011141494,0.052776475,0.07194003,0.06258321,-0.059965007,-0.9433367,0.50265896,-0.91985273,0.8680888,0.81633437,-0.7550791,0.7382532,-0.8225351,-0.4881683,-0.98954344,-0.7922095,-0.4635165,-0.95911145,0.57874215,-0.93950564,0.8211925,0.82109344,-0.7339006,0.83883286,-0.87081945,-0.4357969,-0.9921542,-0.708102,-0.4875115
2025-06-04 17:09:03.700,0.0062581273,-0.007055023,-0.041588087,-0.055514578,0.02729572,0.0066183773,0.0,0.0,0.0,-0.0008798075,-0.14027995,0.17563073,-0.16515945,0.10646089,0.33116874,-0.14269195,0.0621331,-0.38681176,-0.05586995,-0.086497925,-0.2889465,0.0706386,-0.049699802,0.07202947,-0.06608447,-0.07067795,-0.0339382,-0.00081535435,0.03646854,0.044980105,0.02520611,0.042756453,-0.06466332,0.060695626,-0.95911145,0.57874215,-0.93950564,0.8211925,0.82109344,-0.7339006,0.83883286,-0.87081945,-0.4357969,-0.9921542,-0.708102,-0.4875115,-0.9265488,0.6292801,-0.904231,0.84873843,0.7507671,-0.72186077,0.71425885,-0.8242344,-0.4976501,-0.9886804,-0.81727004,-0.45160916
2025-06-04 17:09:03.717,-0.0514573,0.024785254,0.067208774,-0.07357924,0.002799301,-0.029884396,0.0,0.0,0.0,-0.000988022,-0.14605916,0.18772732,-0.15655705,0.11090579,0.34719235,-0.14508082,0.063311234,-0.39446783,-0.0466964,-0.0827778,-0.29398283,0.072294064,0.03231721,0.016826006,-0.07031943,0.04980604,-0.02334463,-0.017198516,-0.052450184,0.03640893,-0.04972386,-0.05600724,-0.022595227,0.071110606,-0.9265488,0.6292801,-0.904231,0.84873843,0.7507671,-0.72186077,0.71425885,-0.8242344,-0.4976501,-0.9886804,-0.81727004,-0.45160916,-0.9663701,0.31983638,-0.9480264,0.79608506,0.8428788,-0.76629966,0.89277154,-0.908811,-0.5637866,-0.98426586,-0.6289866,-0.5341257
2025-06-04 17:09:03.738,0.0011838481,-0.04770359,-0.07601936,-0.029533427,-0.030079158,0.0010813028,0.0,0.0,0.0,-0.0014490638,-0.14339556,0.18799424,-0.1524152,0.1176068,0.3427615,-0.15091659,0.061725143,-0.38795835,-0.06028925,-0.07999281,-0.29442027,0.07300607,-0.034017134,-0.07184536,0.037254255,-0.05822447,-0.011986094,-0.017045068,-0.018024039,0.044224042,-0.009860928,-0.01914601,-0.05635972,0.03982666,-0.9663701,0.31983638,-0.9480264,0.79608506,0.8428788,-0.76629966,0.89277154,-0.908811,-0.5637866,-0.98426586,-0.6289866,-0.5341257,-0.9356784,0.6416041,-0.8943737,0.846969,0.7209351,-0.6184639,0.6942563,-0.7547684,-0.27849326,-0.98919606,-0.8103828,-0.38784134
2025-06-04 17:09:03.757,0.024769481,-0.0047219098,0.0030593597,-0.054520592,0.032066986,0.028358959,0.0,0.0,0.0,-0.0012172968,-0.14832012,0.17321709,-0.16205233,0.109831125,0.34148034,-0.13896553,0.07006582,-0.39123902,-0.046030104,-0.073495954,-0.29555753,0.06447237,-0.031391576,-0.06475023,0.061441023,-0.063353784,-0.013673492,0.07908861,-0.04648933,-0.0026586766,-0.019399548,-0.027090972,-0.0056873783,-0.031924278,-0.9356784,0.6416041,-0.8943737,0.846969,0.7209351,-0.6184639,0.6942563,-0.7547684,-0.27849326,-0.98919606,-0.8103828,-0.38784134,-0.95485985,0.47208226,-0.9433722,0.87330157,0.8533805,-0.78191614,0.7849615,-0.8688016,-0.49971023,-0.99233776,-0.6804228,-0.52615005
2025-06-04 17:09:03.777,0.012789467,-0.00050581497,-0.05400762,-0.02551958,0.002365199,0.048229337,0.0,0.0,0.0,-0.0013755081,-0.1562683,0.18078135,-0.15287663,0.104678415,0.3370991,-0.13710554,0.061065566,-0.39274478,-0.04543985,-0.08487659,-0.28270906,0.05992831,0.01975281,0.027769966,-0.041003373,0.06396899,0.008390332,-0.03814914,-0.07559013,-0.013313218,-0.04434498,0.012374222,-0.050469432,0.042892523,-0.95485985,0.47208226,-0.9433722,0.87330157,0.8533805,-0.78191614,0.7849615,-0.8688016,-0.49971023,-0.99233776,-0.6804228,-0.52615005,-0.95716286,0.5620092,-0.9184706,0.81580174,0.7361988,-0.66428477,0.78185534,-0.8341985,-0.3565662,-0.9864748,-0.76526684,-0.3903705
2025-06-04 17:09:03.799,0.04503027,-0.031787068,-0.0101497695,-0.059445146,0.06432298,0.011435841,0.0,0.0,0.0,-0.0014610371,-0.15120508,0.1840722,-0.1625578,0.11012299,0.34297344,-0.1417696,0.07376755,-0.3988233,-0.05453556,-0.07997075,-0.29554936,0.059127346,0.011640035,0.05693747,-0.026909059,0.0615047,-0.07744771,-0.037738677,-0.067952506,0.042543087,-0.052443173,-0.016529683,-0.030416943,-0.06975743,-0.95716286,0.5620092,-0.9184706,0.81580174,0.7361988,-0.66428477,0.78185534,-0.8341985,-0.3565662,-0.9864748,-0.76526684,-0.3903705,-0.9626253,0.52501297,-0.93485445,0.84227896,0.79962647,-0.74110067,0.81946504,-0.8643755,-0.48735815,-0.9900447,-0.68692625,-0.4798586
2025-06-04 17:09:03.817,-0.058201063,-0.05429636,0.017024549,-0.04605699,0.016799929,0.0101157045,0.0,0.0,0.0,-0.0015491425,-0.15114711,0.19064556,-0.15015617,0.10747551,0.33987913,-0.13019396,0.058081716,-0.38279867,-0.054391306,-0.08537088,-0.2854912,0.06536805,-0.04875596,-0.020686,-0.058593363,0.05916739,0.05192685,-0.072131895,0.008323653,-0.05131587,0.0613504,0.038386956,0.0475984,0.041744087,-0.9626253,0.52501297,-0.93485445,0.84227896,0.79962647,-0.74110067,0.81946504,-0.8643755,-0.48735815,-0.9900447,-0.68692625,-0.4798586,-0.9704772,0.5240323,-0.95748085,0.8559659,0.8115049,-0.6315794,0.83534473,-0.8708973,-0.26161462,-0.991434,-0.6306517,-0.4465956
2025-06-04 17:09:03.838,-0.0426512,-0.012920817,0.0018503644,-0.043938268,-0.026109137,-0.002319532,0.0,0.0,0.0,-0.0015014664,-0.14486215,0.18292701,-0.15304162,0.10618266,0.34930506,-0.12969828,0.0718228,-0.40067297,-0.044161048,-0.07241776,-0.28039822,0.069576986,-0.0020015007,0.01460409,-0.022824265,-0.019016722,-0.049156938,-0.024229027,-0.034707822,-0.031091934,0.020230155,0.032419235,0.038863335,-0.022181578,-0.9704772,0.5240323,-0.95748085,0.8559659,0.8115049,-0.6315794,0.83534473,-0.8708973,-0.26161462,-0.991434,-0.6306517,-0.4465956,-0.9748124,0.4825753,-0.9613004,0.8978844,0.8234485,-0.6732338,0.78335655,-0.82791245,-0.08566765,-0.99267906,-0.58153164,-0.37341487
2025-06-04 17:09:03.858,0.018715486,-0.0072934893,-0.014175277,-0.08360652,0.026299268,-0.049519867,0.0,0.0,0.0,-0.0011714636,-0.14772512,0.1887064,-0.15326087,0.10829451,0.33597192,-0.13598904,0.07391528,-0.3956069,-0.053216986,-0.08591275,-0.27456856,0.07082759,0.0071259746,0.013054285,-0.0060526477,-0.046885364,-0.0074097617,-0.045524787,0.021804588,-0.023433289,0.022568814,0.03945152,0.00078890315,-0.039897658,-0.9748124,0.4825753,-0.9613004,0.8978844,0.8234485,-0.6732338,0.78335655,-0.82791245,-0.08566765,-0.99267906,-0.58153164,-0.37341487,-0.9701166,0.55102307,-0.9626975,0.93083787,0.8432813,-0.64866066,0.6711105,-0.77814496,0.0007257367,-0.9956408,-0.6585865,-0.35805213
2025-06-04 17:09:03.878,0.02177734,-0.043480795,-0.031646118,-0.07683231,0.047288425,0.029869137,0.0,0.0,0.0,-0.00073963683,-0.15142724,0.18739484,-0.16052207,0.12038964,0.34393725,-0.12688321,0.059763916,-0.39436924,-0.034862753,-0.08070638,-0.29140458,0.07759915,0.07031009,-0.06891164,0.06724685,0.0037064296,-0.04451553,-0.0048820726,0.06790435,0.018771984,-0.04662997,-0.0585278,0.068946876,-0.031233655,-0.9701166,0.55102307,-0.9626975,0.93083787,0.8432813,-0.64866066,0.6711105,-0.77814496,0.0007257367,-0.9956408,-0.6585865,-0.35805213,-0.9581438,0.589669,-0.9449352,0.9254668,0.8588472,-0.7638898,0.58668953,-0.80275875,-0.32955086,-0.9962169,-0.7410401,-0.4783981
2025-06-04 17:09:03.899,-0.022062719,0.0025961644,-0.0049169697,-0.022589082,-0.008517688,0.0075958767,0.0,0.0,0.0,-0.00061847176,-0.14665507,0.1961768,-0.15691175,0.122196995,0.3492288,-0.13751434,0.07494328,-0.39781633,-0.037159067,-0.06848502,-0.2850496,0.06410964,0.033484884,-0.002257875,-0.0046251025,-0.073002554,-0.014893728,-0.049036473,0.06535293,-0.00051391043,-0.014617322,0.06344726,-0.071772255,0.0067990427,-0.9581438,0.589669,-0.9449352,0.9254668,0.8588472,-0.7638898,0.58668953,-0.80275875,-0.32955086,-0.9962169,-0.7410401,-0.4783981,-0.93894255,0.5677027,-0.94456196,0.8787416,0.843263,-0.80433774,0.6295444,-0.8717057,-0.4116017,-0.9931339,-0.7513225,-0.5258739
2025-06-04 17:09:03.917,0.0124982,0.04221476,-0.018150797,-0.061979108,-0.027657436,0.042195253,0.0,0.0,0.0,-0.0009793572,-0.1584958,0.20154749,-0.15047924,0.10527948,0.34639624,-0.12802191,0.06325497,-0.39432365,-0.030388787,-0.08396461,-0.28010303,0.0740026,0.038945362,-0.0015483996,-0.040457807,0.050736982,-0.056631137,-0.068623945,-0.029330326,0.049916748,0.06711534,0.012074844,-0.0029417553,0.015745306,-0.93894255,0.5677027,-0.94456196,0.8787416,0.843263,-0.80433774,0.6295444,-0.8717057,-0.4116017,-0.9931339,-0.7513225,-0.5258739,-0.94731647,0.6164532,-0.93353385,0.82246166,0.7984289,-0.7682078,0.73020124,-0.87550306,-0.43899557,-0.991146,-0.73418266,-0.49060932
2025-06-04 17:09:03.937,-0.013896938,-0.010340284,-0.028890267,-0.027559299,0.06032416,-0.033348944,0.0,0.0,0.0,-0.001422606,-0.14684059,0.18738209,-0.15032706,0.11382472,0.36181465,-0.15061016,0.07509636,-0.39480746,-0.038367063,-0.08119477,-0.27327582,0.08257189,0.014107504,-0.044368614,0.04013277,-0.011866764,-0.03853029,-0.06757573,-0.02583569,-0.0014842417,-0.055380423,-0.0631292,0.03135077,-0.052754458,-0.94731647,0.6164532,-0.93353385,0.82246166,0.7984289,-0.7682078,0.73020124,-0.87550306,-0.43899557,-0.991146,-0.73418266,-0.49060932,-0.9598916,0.56629705,-0.9326845,0.8339211,0.7800646,-0.7175435,0.76489514,-0.86944854,-0.40620512,-0.9901821,-0.7109221,-0.47276124
2025-06-04 17:09:03.957,-0.0073582865,0.05335918,-0.02127895,-0.055377573,0.057343986,0.011726415,0.0,0.0,0.0,-0.0017430166,-0.14948522,0.18830922,-0.15994722,0.122016646,0.35018066,-0.1454701,0.06533638,-0.3898295,-0.04601652,-0.08475018,-0.27700755,0.08422841,-0.02535244,-0.052304476,0.06793779,0.060461834,0.058883786,0.03961069,0.04710181,0.02142365,-0.025027106,0.0044249925,-0.062401015,-0.054511223,-0.9598916,0.56629705,-0.9326845,0.8339211,0.7800646,-0.7175435,0.76489514,-0.86944854,-0.40620512,-0.9901821,-0.7109221,-0.47276124,-0.96052885,0.60231745,-0.94373584,0.88151026,0.81036615,-0.69012266,0.73549163,-0.85350496,-0.36197558,-0.99378574,-0.71156484,-0.4923299
2025-06-04 17:09:03.977,0.023012005,0.02975016,-0.00078055996,-0.063540585,0.044917095,0.01185529,0.0,0.0,0.0,-0.0018924243,-0.1420803,0.20746444,-0.14911301,0.11684096,0.36342567,-0.1348817,0.066879936,-0.38947827,-0.037418403,-0.07281644,-0.28579095,0.06766136,0.038275864,-0.014709142,-0.026205378,0.019076508,-0.036007732,0.05422049,-0.026366053,-0.054350544,0.03560982,0.055495847,-0.054836296,-0.033850912,-0.96052885,0.60231745,-0.94373584,0.88151026,0.81036615,-0.69012266,0.73549163,-0.85350496,-0.36197558,-0.99378574,-0.71156484,-0.4923299,-0.96173155,0.53228956,-0.94904155,0.85772914,0.7975165,-0.6773472,0.80310947,-0.8712193,-0.36513638,-0.9916387,-0.6743101,-0.46825555
2025-06-04 17:09:03.999,0.037998505,-0.009912923,-0.0038738186,-0.028202044,0.06808147,-0.046182085,0.0,0.0,0.0,-0.0019491799,-0.14752592,0.20701191,-0.15809096,0.12087852,0.3506435,-0.15143605,0.06424386,-0.3976665,-0.0370813,-0.07886849,-0.2744365,0.0704545,-0.011252335,-0.0740186,-0.051101457,0.02545286,-0.041135978,-0.0008621176,0.05262578,0.008294348,-0.0020026432,-0.06519426,0.035320647,-0.028838815,-0.96173155,0.53228956,-0.94904155,0.85772914,0.7975165,-0.6773472,0.80310947,-0.8712193,-0.36513638,-0.9916387,-0.6743101,-0.46825555,-0.969966,0.58526665,-0.9475969,0.87699294,0.7954382,-0.6371641,0.7862594,-0.853912,-0.29416656,-0.99348265,-0.66401374,-0.46595886
2025-06-04 17:09:04.018,-0.023754543,0.013659265,-0.02564585,-0.047703132,0.030538483,-0.0010136374,0.0,0.0,0.0,-0.0018185038,-0.15536742,0.19561443,-0.15913624,0.11145123,0.35642225,-0.13994355,0.07116145,-0.39897648,-0.03024901,-0.08015907,-0.28249383,0.07346602,0.0172768,0.035495907,-0.009035956,-0.042324767,0.056320716,0.007582536,0.062252514,0.0052482304,-0.013602645,-0.017499514,0.06261916,0.056351557,-0.969966,0.58526665,-0.9475969,0.87699294,0.7954382,-0.6371641,0.7862594,-0.853912,-0.29416656,-0.99348265,-0.66401374,-0.46595886,-0.96459854,0.5749675,-0.9394644,0.8852376,0.80909455,-0.71999645,0.7289183,-0.8438768,-0.37438262,-0.9926077,-0.73406255,-0.4644264
2025-06-04 17:09:04.038,0.0038671726,0.036188476,-0.0081717465,-0.06286344,0.052783728,0.025618594,0.0,0.0,0.0,-0.0016152654,-0.15958188,0.19398905,-0.1657578,0.12415165,0.35344425,-0.1369024,0.065165035,-0.38586903,-0.03733908,-0.076229155,-0.27799264,0.07843453,-0.008279668,-0.0055285757,0.044379458,-0.065814115,-0.01646559,-0.012018826,0.013267282,0.017347531,-0.01587631,0.05419535,-0.03938745,-0.0391647,-0.96459854,0.5749675,-0.9394644,0.8852376,0.80909455,-0.71999645,0.7289183,-0.8438768,-0.37438262,-0.9926077,-0.73406255,-0.4644264,-0.9549176,0.5756624,-0.9401761,0.8810506,0.83079875,-0.7710812,0.71282876,-0.85039437,-0.37193933,-0.99276865,-0.7142087,-0.4583718
2025-06-04 17:09:04.058,-0.0056714546,0.038400024,0.0016099727,-0.056925453,-0.02987777,0.027266456,0.0,0.0,0.0,-0.0016439939,-0.14809108,0.19178596,-0.16667928,0.11807082,0.35654435,-0.14236325,0.07388471,-0.39117268,-0.042168505,-0.07850138,-0.2839166,0.0855258,-0.034449134,-0.04052284,-0.049543437,0.03400007,0.04319275,-0.01598768,0.016161783,-0.05288452,-0.034619816,0.06441508,-0.042292006,-0.06029224,-0.9549176,0.5756624,-0.9401761,0.8810506,0.83079875,-0.7710812,0.71282876,-0.85039437,-0.37193933,-0.99276865,-0.7142087,-0.4583718,-0.97158676,0.5327146,-0.96156424,0.8842564,0.84001905,-0.7158203,0.7619535,-0.8660219,-0.20027135,-0.9938097,-0.63998485,-0.45083973
2025-06-04 17:09:04.082,0.010192286,0.038384404,-0.033518538,-0.0068249325,0.05268254,-0.030355005,0.0,0.0,0.0,-0.0017851709,-0.15778436,0.19163981,-0.15659833,0.12251554,0.36020944,-0.14448793,0.06125398,-0.38551316,-0.02888902,-0.07576687,-0.27103084,0.083309315,-0.009460363,0.0105665885,-0.036602505,0.06935901,0.03300244,-0.012100808,-0.073078856,-0.026265562,0.06164038,0.06109531,-0.02027789,0.032570094,-0.97158676,0.5327146,-0.96156424,0.8842564,0.84001905,-0.7158203,0.7619535,-0.8660219,-0.20027135,-0.9938097,-0.63998485,-0.45083973,-0.9715044,0.54324764,-0.9538844,0.8850727,0.8069623,-0.6562851,0.7496935,-0.82670736,-0.15697934,-0.9923163,-0.6651499,-0.36042103
2025-06-04 17:09:04.099,0.0062959334,0.0006931043,0.02988977,-0.040710267,0.009076817,-0.0066069136,0.0,0.0,0.0,-0.0016832814,-0.15370741,0.2070774,-0.14825737,0.10946725,0.36739522,-0.14947483,0.07912941,-0.40127033,-0.028299615,-0.08206765,-0.27249467,0.067339614,0.055854235,0.040352643,-0.049328562,-0.014031555,0.012697739,-0.028491935,-0.026747072,0.06249924,-0.0027140693,-0.06845381,-0.058601763,0.033340324,-0.9715044,0.54324764,-0.9538844,0.8850727,0.8069623,-0.6562851,0.7496935,-0.82670736,-0.15697934,-0.9923163,-0.6651499,-0.36042103,-0.97432053,0.39278507,-0.9624092,0.8955113,0.8634735,-0.74742794,0.80115193,-0.86128294,-0.30556986,-0.9925571,-0.5910267,-0.4715442
2025-06-04 17:09:04.119,0.008126188,0.0024863912,0.00690412,-0.013205069,-0.00079071405,-0.04480964,0.0,0.0,0.0,-0.0015415689,-0.15538709,0.19949687,-0.16125585,0.12120049,0.36460295,-0.13629031,0.073790215,-0.39168492,-0.03923731,-0.073211245,-0.27917552,0.07457703,0.0670984,0.028782863,0.010319741,0.049293213,-0.041859597,0.007927046,0.07506533,-0.022549985,-0.026828837,0.05146396,0.0024015051,0.055219527,-0.97432053,0.39278507,-0.9624092,0.8955113,0.8634735,-0.74742794,0.80115193,-0.86128294,-0.30556986,-0.9925571,-0.5910267,-0.4715442,-0.972439,0.44728824,-0.94995725,0.8733328,0.8340794,-0.71297055,0.7910223,-0.7982347,-0.10117321,-0.9911442,-0.6858738,-0.33492595
2025-06-04 17:09:04.139,0.00044305177,0.022004684,-0.02944155,-0.0842408,0.034431662,-0.04055627,0.0,0.0,0.0,-0.0010820782,-0.15457252,0.19488914,-0.15844463,0.110184535,0.35455438,-0.13602486,0.06710361,-0.40518874,-0.02369063,-0.07964817,-0.27663973,0.07158968,0.013926235,-0.051992808,-0.009516956,-0.061888292,-0.014115103,0.048276916,-0.04666198,-0.019590808,0.012345248,-0.050135374,0.06582493,0.033590946,-0.972439,0.44728824,-0.94995725,0.8733328,0.8340794,-0.71297055,0.7910223,-0.7982347,-0.10117321,-0.9911442,-0.6858738,-0.33492595,-0.9727307,0.52205586,-0.9337411,0.873498,0.8414432,-0.73771787,0.8037848,-0.8054758,-0.35470286,-0.99248207,-0.7232674,-0.3679178
2025-06-04 17:09:04.159,-0.0556518,-0.038695466,-0.02537051,-0.047580075,0.044794217,0.036650404,0.0,0.0,0.0,-0.0007466249,-0.15277319,0.20669837,-0.15023066,0.10604512,0.37088993,-0.13597843,0.08155431,-0.40353045,-0.034932595,-0.077581376,-0.28472146,0.08904766,-0.016805053,0.051553242,-0.008875759,0.030406687,-0.066047885,-0.026735432,0.05708338,0.06985579,0.064248644,-0.072894186,-0.042205647,-0.05942264,-0.9727307,0.52205586,-0.9337411,0.873498,0.8414432,-0.73771787,0.8037848,-0.8054758,-0.35470286,-0.99248207,-0.7232674,-0.3679178,-0.9463645,0.65711254,-0.9237112,0.85536385,0.82479584,-0.8071316,0.7469969,-0.8538126,-0.5529976,-0.9934301,-0.75357056,-0.5175139
2025-06-04 17:09:04.183,-0.028823081,-0.011566841,0.021760926,-0.054692686,0.0565853,-0.037831597,0.0,0.0,0.0,-0.0007941957,-0.1493582,0.20621715,-0.15780987,0.11664382,0.35941777,-0.13872582,0.07841394,-0.39195466,-0.024966573,-0.07384418,-0.28275102,0.08258929,-0.043211844,-0.03117031,-0.030777862,0.060165223,0.05332614,-0.07838954,-0.02842064,0.029131114,-0.08116298,-0.04953203,0.022040628,-0.07051803,-0.9463645,0.65711254,-0.9237112,0.85536385,0.82479584,-0.8071316,0.7469969,-0.8538126,-0.5529976,-0.9934301,-0.75357056,-0.5175139,-0.9749724,0.51972616,-0.95534736,0.8345439,0.8243975,-0.73392785,0.83422315,-0.90805197,-0.39240378,-0.991455,-0.6009066,-0.52404386
2025-06-04 17:09:04.201,-0.0035937256,0.0034857916,0.022209363,-0.053436454,0.012933123,0.0003927305,0.0,0.0,0.0,-0.0012143876,-0.14395872,0.20675677,-0.15280358,0.117395006,0.36863193,-0.14170651,0.080574945,-0.39175996,-0.04211741,-0.07501611,-0.27314532,0.07107208,-0.0033535762,-0.030636577,0.053453162,-0.06191261,0.00964491,-0.058061678,-0.049350128,-0.05616605,0.033976994,-0.061083626,0.04978237,-0.032377094,-0.9749724,0.51972616,-0.95534736,0.8345439,0.8243975,-0.73392785,0.83422315,-0.90805197,-0.39240378,-0.991455,-0.6009066,-0.52404386,-0.9815654,0.4160413,-0.9667392,0.88271224,0.8140244,-0.5971435,0.81884456,-0.84443045,0.03829646,-0.99122363,-0.5200398,-0.3571051
2025-06-04 17:09:04.221,0.00802426,-0.003948908,-0.020574596,-0.025472844,0.0033682436,-0.0471519,0.0,0.0,0.0,-0.0012575143,-0.16592571,0.19756077,-0.14302436,0.10867601,0.36631122,-0.14099258,0.08442106,-0.39503112,-0.034770716,-0.08546361,-0.27018777,0.07363095,-0.07075012,-0.060372736,0.028028896,0.020881558,0.0037751452,0.026942912,0.07367518,0.038989555,0.024411079,-0.029181069,-0.043926258,0.06106044,-0.9815654,0.4160413,-0.9667392,0.88271224,0.8140244,-0.5971435,0.81884456,-0.84443045,0.03829646,-0.99122363,-0.5200398,-0.3571051,-0.97322303,0.5425886,-0.9708258,0.9508655,0.87539905,-0.65074354,0.59338313,-0.6990938,0.2021704,-0.9966375,-0.63996696,-0.35558668
2025-06-04 17:09:04.240,-0.004771446,0.00030868276,-0.002344259,-0.028647296,0.069259256,0.00057979056,0.0,0.0,0.0,-0.0008422291,-0.16555902,0.20123851,-0.15335567,0.10430801,0.37205973,-0.13686657,0.06978754,-0.38360304,-0.019732466,-0.07015599,-0.2598683,0.06683862,0.01949089,0.025843533,-0.0106675,0.048667636,0.011364592,0.045487817,0.0029334228,-0.06165028,-0.044071805,0.0606661,-0.055160046,0.03488075,-0.97322303,0.5425886,-0.9708258,0.9508655,0.87539905,-0.65074354,0.59338313,-0.6990938,0.2021704,-0.9966375,-0.63996696,-0.35558668,-0.9733622,0.42391488,-0.9740543,0.9369171,0.89955443,-0.7699892,0.62665427,-0.82716507,-0.06813382,-0.99574965,-0.60755336,-0.46486622
2025-06-04 17:09:04.264,-0.023081606,0.01396367,0.030384222,-0.03618556,0.04897461,-0.025254482,0.0,0.0,0.0,-0.0005846981,-0.15753563,0.20859963,-0.14924936,0.10299769,0.37728116,-0.13730995,0.08344425,-0.39765918,-0.009533548,-0.08301271,-0.26795515,0.085256405,-0.033033542,-0.017397553,-0.015675578,0.05981857,0.032438114,0.02541775,0.020786602,0.017798433,0.0735929,0.05770214,0.0117001645,0.031075513,-0.9733622,0.42391488,-0.9740543,0.9369171,0.89955443,-0.7699892,0.62665427,-0.82716507,-0.06813382,-0.99574965,-0.60755336,-0.46486622,-0.980695,0.46769387,-0.9754525,0.90983886,0.8929842,-0.7531059,0.7326312,-0.85197127,0.07015317,-0.9952377,-0.5177801,-0.42188781
2025-06-04 17:09:04.283,0.027705103,-0.022208463,-0.056679547,-0.06433374,-0.012867455,-0.035881232,0.0,0.0,0.0,-0.0003170821,-0.16469835,0.2044074,-0.13864833,0.12021968,0.37268627,-0.13207631,0.07478753,-0.38703698,-0.009990409,-0.087183505,-0.26632258,0.0760056,0.05938723,-0.023166016,0.02465124,0.032019995,-0.052152935,0.030771093,0.03150084,0.035929143,-0.0243198,0.07010134,0.024561955,-0.029961197,-0.980695,0.46769387,-0.9754525,0.90983886,0.8929842,-0.7531059,0.7326312,-0.85197127,0.07015317,-0.9952377,-0.5177801,-0.42188781,-0.96668535,0.62859225,-0.9506161,0.9202113,0.84365237,-0.72030413,0.5701034,-0.74224895,-0.06799538,-0.9965356,-0.74550474,-0.35579672
2025-06-04 17:09:04.301,-0.03358338,0.041586183,0.016066847,-0.027493773,0.05235748,-0.0032716761,0.0,0.0,0.0,0.00021260462,-0.15373607,0.20237441,-0.1369081,0.119349375,0.3822718,-0.14374104,0.08091423,-0.38874924,-0.008143586,-0.08724934,-0.2604868,0.06994541,-0.06684826,0.046624485,0.06100633,0.07586612,0.026796278,0.014849171,0.0547144,0.020033738,-0.015689654,-0.066680096,0.024055429,0.019541968,-0.96668535,0.62859225,-0.9506161,0.9202113,0.84365237,-0.72030413,0.5701034,-0.74224895,-0.06799538,-0.9965356,-0.74550474,-0.35579672,-0.9718682,0.5227838,-0.9606048,0.88729286,0.8927078,-0.84049755,0.69396985,-0.8901169,-0.47204414,-0.9952677,-0.66482097,-0.5923977
2025-06-04 17:09:04.322,0.04291208,-0.024516689,0.031301793,-0.07846424,0.055544484,-0.029907629,0.0,0.0,0.0,-8.511314e-05,-0.16908139,0.19624455,-0.13425927,0.103660315,0.3811994,-0.14503317,0.078213625,-0.3943412,-0.006305365,-0.077967465,-0.27211252,0.07386347,-0.018326221,-0.033709705,-0.016869077,0.052422434,0.013006732,-0.07092786,0.015890442,0.03578559,-0.07934555,0.050955694,0.005908471,-0.019832602,-0.9718682,0.5227838,-0.9606048,0.88729286,0.8927078,-0.84049755,0.69396985,-0.8901169,-0.47204414,-0.9952677,-0.66482097,-0.5923977,-0.97887576,0.46307254,-0.968135,0.8801043,0.84834445,-0.7281021,0.76868176,-0.87744445,0.009175511,-0.9923848,-0.5248058,-0.4155606
2025-06-04 17:09:04.341,0.040094428,0.030409116,-0.025420591,-0.03401626,0.031185796,0.008344122,0.0,0.0,0.0,-0.00043581807,-0.1617105,0.21170516,-0.13423607,0.11283112,0.39060563,-0.15096113,0.07489515,-0.38103384,-0.0014289065,-0.075690135,-0.25865176,0.074074134,0.035936568,-0.056609757,-0.02837675,0.016121047,0.054125153,0.04563639,0.03768818,-0.078267395,0.07198423,0.022708114,0.009157295,0.06175259,-0.97887576,0.46307254,-0.968135,0.8801043,0.84834445,-0.7281021,0.76868176,-0.87744445,0.009175511,-0.9923848,-0.5248058,-0.4155606,-0.9786179,0.5199324,-0.9648664,0.9137582,0.8412643,-0.60164917,0.7285266,-0.75347584,0.12709603,-0.99450296,-0.65434337,-0.27057567
2025-06-04 17:09:04.364,-0.056462254,0.0032635697,-0.016323615,-0.04955583,0.011359639,0.030152356,0.0,0.0,0.0,-0.00027010127,-0.1545453,0.21099907,-0.14181328,0.11652351,0.3877679,-0.14852682,0.06801096,-0.38324982,0.00939419,-0.072186746,-0.27344218,0.07948975,0.040619344,-0.03494974,-0.027429316,0.02650001,0.062457666,-0.004815124,0.03154281,0.06611338,0.0678729,0.034139507,0.0070911576,0.02844983,-0.9786179,0.5199324,-0.9648664,0.9137582,0.8412643,-0.60164917,0.7285266,-0.75347584,0.12709603,-0.99450296,-0.65434337,-0.27057567,-0.9655954,0.5998885,-0.9615666,0.9330107,0.8988339,-0.80141723,0.64696777,-0.82469934,-0.36975718,-0.99685985,-0.6890358,-0.50585836
2025-06-04 17:09:04.383,0.024766974,0.04646197,-0.013639819,-0.071941,0.024703868,-0.04687843,0.0,0.0,0.0,-0.00023322778,-0.15534346,0.19750476,-0.14561121,0.10712027,0.39282313,-0.1471796,0.07492236,-0.38938046,0.011051468,-0.06930446,-0.25700083,0.08980315,-0.013169929,0.015741648,-0.01991621,-0.069540754,0.007436684,0.05702904,0.072686225,-0.0012262643,0.036695734,0.024564141,0.036251184,0.05774798,-0.9655954,0.5998885,-0.9615666,0.9330107,0.8988339,-0.80141723,0.64696777,-0.82469934,-0.36975718,-0.99685985,-0.6890358,-0.50585836,-0.95842534,0.5801715,-0.93419594,0.8417915,0.83019406,-0.8046851,0.7177829,-0.86005855,-0.3885523,-0.991777,-0.74131054,-0.46122107
2025-06-04 17:09:04.402,-0.018577455,0.02796046,-0.021130191,-0.05529845,0.018209845,0.029706815,0.0,0.0,0.0,-0.00049013825,-0.15090284,0.20096456,-0.13939664,0.12150483,0.3969146,-0.14670302,0.07981195,-0.39321995,-0.0009077364,-0.085823946,-0.27235794,0.08208062,-0.03213476,-0.057149883,-0.028733522,-0.043283552,-0.043721244,0.066964015,-0.07662062,-0.00864113,0.06356508,-0.048122503,-0.035203543,0.05807025,-0.95842534,0.5801715,-0.93419594,0.8417915,0.83019406,-0.8046851,0.7177829,-0.86005855,-0.3885523,-0.991777,-0.74131054,-0.46122107,-0.9571043,0.551721,-0.91929805,0.7740525,0.80149364,-0.7699963,0.8301481,-0.86272705,-0.52662945,-0.98743284,-0.7526945,-0.44484788
2025-06-04 17:09:04.422,0.03193965,0.010235042,0.030985164,-0.059184458,0.055259105,-0.038279317,0.0,0.0,0.0,-0.0008909957,-0.14880992,0.21396026,-0.14823052,0.11567219,0.39232463,-0.14321727,0.06580092,-0.38604736,-0.0016154756,-0.070308544,-0.27745897,0.07809075,0.059106804,-0.037483912,0.06179201,0.073965296,0.021322483,-0.034245286,-0.03204776,0.0048478115,0.005265686,0.0065188683,0.0056803655,0.06772388,-0.9571043,0.551721,-0.91929805,0.7740525,0.80149364,-0.7699963,0.8301481,-0.86272705,-0.52662945,-0.98743284,-0.7526945,-0.44484788,-0.9723705,0.39985523,-0.9394341,0.78365326,0.82429945,-0.73082936,0.8887579,-0.8743933,-0.44580486,-0.983845,-0.65153956,-0.4402278
2025-06-04 17:09:04.442,0.032817896,-0.015550505,-0.012024548,0.0018440606,-0.0043484056,-0.047263354,0.0,0.0,0.0,-0.0011970871,-0.15995048,0.21452297,-0.14383,0.10852473,0.3739141,-0.16150944,0.08400223,-0.3771016,-0.0077751987,-0.078890264,-0.27613947,0.08510793,-0.05752938,-0.06387093,-0.009953616,0.0066400142,-0.0042872783,0.023072679,-0.031405244,0.013743548,0.05352372,0.032605592,0.036346383,-0.02881939,-0.9723705,0.39985523,-0.9394341,0.78365326,0.82429945,-0.73082936,0.8887579,-0.8743933,-0.44580486,-0.983845,-0.65153956,-0.4402278,-0.9765181,0.58875215,-0.94126874,0.8198939,0.8030401,-0.67921805,0.8491861,-0.8316207,-0.258526,-0.9916814,-0.6510608,-0.39296612
2025-06-04 17:09:04.461,-0.005727283,0.016598633,0.006114094,-0.04827671,0.07069263,0.04335301,0.0,0.0,0.0,-0.00094202766,-0.1538349,0.20375428,-0.1525578,0.11020899,0.3894471,-0.15951142,0.06845557,-0.37975422,-0.01727294,-0.07023221,-0.28217423,0.08923084,0.03427879,-0.009091843,-0.068769984,-0.009027773,0.04010553,-0.0073353807,-0.008138187,-0.004451192,-0.014373357,-0.061227426,-0.034746405,0.045020163,-0.9765181,0.58875215,-0.94126874,0.8198939,0.8030401,-0.67921805,0.8491861,-0.8316207,-0.258526,-0.9916814,-0.6510608,-0.39296612,-0.9753442,0.46709245,-0.9489321,0.8716629,0.8262146,-0.7031114,0.8308435,-0.8496716,-0.35045776,-0.9906911,-0.64658976,-0.4146923
2025-06-04 17:09:04.481,-0.014276303,-0.03524564,-0.03445927,-0.0600119,0.02340309,0.028145296,0.0,0.0,0.0,-0.00060974347,-0.15457627,0.19456139,-0.1488516,0.12427063,0.36923692,-0.15284014,0.070454426,-0.3856556,-0.007567627,-0.080344796,-0.27566966,0.06878955,0.053661972,-0.05255696,0.0007158065,-0.04631546,-0.04952343,-0.039926656,-0.03352901,-0.012382641,0.03378632,0.022511942,0.044408966,0.056645397,-0.9753442,0.46709245,-0.9489321,0.8716629,0.8262146,-0.7031114,0.8308435,-0.8496716,-0.35045776,-0.9906911,-0.64658976,-0.4146923,-0.9565928,0.5689298,-0.9203534,0.85073924,0.7898878,-0.6994065,0.78622127,-0.80765575,-0.37015146,-0.9900684,-0.74980557,-0.3727449
2025-06-04 17:09:04.501,-0.015208376,0.060948644,-0.017130908,-0.081963204,0.006581794,0.016334137,0.0,0.0,0.0,-0.00033527781,-0.16022266,0.19806042,-0.14288063,0.11230039,0.3704194,-0.14963132,0.0843069,-0.3842868,-0.0140238,-0.083697334,-0.2686292,0.06912053,-0.0675389,-0.05552797,-0.0097628385,-0.06054438,0.010326535,-0.038733672,-0.04614,-0.045088354,-0.047806665,0.0021984987,-0.03737749,-0.040093035,-0.9565928,0.5689298,-0.9203534,0.85073924,0.7898878,-0.6994065,0.78622127,-0.80765575,-0.37015146,-0.9900684,-0.74980557,-0.3727449,-0.9692251,0.5605843,-0.94633687,0.88075745,0.8326751,-0.737766,0.7675647,-0.8533287,-0.34465697,-0.992918,-0.6709485,-0.45693046
2025-06-04 17:09:04.525,-0.030185474,0.018587759,-0.020775596,-0.02307856,0.031808015,-0.03241406,0.0,0.0,0.0,-0.00047483647,-0.16738653,0.19851708,-0.15538862,0.107164726,0.36619598,-0.14628878,0.07383608,-0.38038686,-0.02405823,-0.079209805,-0.26945508,0.072188966,0.04888002,0.005619332,0.04624393,-0.01446692,-0.04977006,-0.058337376,-0.033860564,0.060795818,-0.073922314,-0.039335303,0.05963325,-0.04520121,-0.9692251,0.5605843,-0.94633687,0.88075745,0.8326751,-0.737766,0.7675647,-0.8533287,-0.34465697,-0.992918,-0.6709485,-0.45693046,-0.96751225,0.53242284,-0.93398994,0.8570146,0.8147233,-0.7717397,0.7632519,-0.8505719,-0.37286526,-0.9914833,-0.6959641,-0.43324783
2025-06-04 17:09:04.542,0.026966078,-0.026818072,0.01243266,-0.045151707,0.0054256897,0.049344078,0.0,0.0,0.0,-0.00065797934,-0.15813234,0.20709758,-0.15259832,0.113282084,0.372267,-0.14962325,0.071727745,-0.3874269,-0.019655438,-0.07961824,-0.26985568,0.07668912,-0.037439916,0.011558563,0.006918873,0.058608983,0.04177187,-0.046780434,-0.03710395,-0.06454773,-0.04642643,0.035356924,-0.01965768,0.058156215,-0.96751225,0.53242284,-0.93398994,0.8570146,0.8147233,-0.7717397,0.7632519,-0.8505719,-0.37286526,-0.9914833,-0.6959641,-0.43324783,-0.97685724,0.43116748,-0.95860136,0.8514458,0.83840185,-0.70455885,0.82912284,-0.86225986,-0.22657917,-0.99008745,-0.62365955,-0.42075482
2025-06-04 17:09:04.565,0.023010414,-0.046796963,-0.0022036028,-0.0024783108,0.03937368,0.032221626,0.0,0.0,0.0,-0.0008022096,-0.15597051,0.20113909,-0.16127007,0.1231966,0.3718404,-0.14446416,0.08016829,-0.387683,-0.027218165,-0.077318564,-0.28415608,0.07243728,0.024537755,-0.0149411,-0.06564712,-0.03655389,-0.032251496,0.021070318,0.022964314,-0.013666196,0.06049731,0.036785983,0.032689907,0.049495105,-0.97685724,0.43116748,-0.95860136,0.8514458,0.83840185,-0.70455885,0.82912284,-0.86225986,-0.22657917,-0.99008745,-0.62365955,-0.42075482,-0.9717968,0.5201011,-0.9447978,0.8602648,0.8256973,-0.70274395,0.81836474,-0.8078371,-0.222135,-0.9913356,-0.6897611,-0.3334205
2025-06-04 17:09:04.582,0.0015362626,0.022786336,0.013050228,-0.013919932,0.06124549,0.0055693504,0.0,0.0,0.0,-0.00057354884,-0.16202462,0.1986452,-0.15223129,0.11291253,0.37114164,-0.13726273,0.07531783,-0.3855576,-0.02623383,-0.0870948,-0.2900641,0.07934648,-0.03307264,0.063450016,0.044360127,0.057900798,-0.033536732,-0.01756679,0.052926365,-0.037129965,-0.0010365677,-0.018615255,0.059691653,0.021396345,-0.9717968,0.5201011,-0.9447978,0.8602648,0.8256973,-0.70274395,0.81836474,-0.8078371,-0.222135,-0.9913356,-0.6897611,-0.3334205,-0.9768589,0.49579117,-0.9447964,0.85813373,0.857427,-0.77965647,0.81938803,-0.83441,-0.37523928,-0.9918641,-0.6822183,-0.41455227
2025-06-04 17:09:04.602,0.011318704,0.007183204,0.015804725,-0.0015420113,0.053013835,-0.04153797,0.0,0.0,0.0,-0.00041660853,-0.15871988,0.19229975,-0.1616495,0.12303131,0.36552933,-0.12995145,0.077891946,-0.39390728,-0.020458559,-0.08759356,-0.27497625,0.07445309,-0.034294218,0.057580285,-0.07143454,-0.037335336,0.024222823,-0.008007658,0.063045695,0.059099223,0.049794026,0.031958748,0.012322775,0.0075695235,-0.9768589,0.49579117,-0.9447964,0.85813373,0.857427,-0.77965647,0.81938803,-0.83441,-0.37523928,-0.9918641,-0.6822183,-0.41455227,-0.97065526,0.5496107,-0.9378447,0.83927774,0.84254616,-0.79308176,0.8173704,-0.8439965,-0.38667464,-0.9909893,-0.7068887,-0.3969041
2025-06-04 17:09:04.622,-0.0049464502,-0.0067020836,-0.014805832,-2.0284453e-05,-0.011346306,0.025807498,0.0,0.0,0.0,-0.0003820553,-0.16827402,0.20156696,-0.1558958,0.12326266,0.36244935,-0.14615828,0.074223064,-0.3895808,-0.033346422,-0.07703907,-0.28877887,0.076646164,-0.06958439,-0.0629225,0.065307744,0.026093394,-0.002008042,-0.057911996,-0.018107237,0.068879955,-0.047506634,0.034002896,-0.042736232,0.005415396,-0.97065526,0.5496107,-0.9378447,0.83927774,0.84254616,-0.79308176,0.8173704,-0.8439965,-0.38667464,-0.9909893,-0.7068887,-0.3969041,-0.9639762,0.5609262,-0.9422276,0.8704431,0.8464786,-0.77871776,0.7609756,-0.83735317,-0.36012056,-0.9930743,-0.713036,-0.44022897
2025-06-04 17:09:04.642,0.027316282,0.03837021,0.026037082,-0.02835339,0.05110069,0.029609649,0.0,0.0,0.0,-0.0004628278,-0.15974373,0.18929015,-0.1633387,0.115607426,0.36165738,-0.1367567,0.077279195,-0.39456543,-0.02453025,-0.07919496,-0.29097432,0.06592335,0.07629052,0.045412578,-0.024457486,-0.028978491,-0.034455754,-0.065158166,0.059435494,0.07376707,0.056072954,0.07247011,-0.066290095,-0.0055974834,-0.9639762,0.5609262,-0.9422276,0.8704431,0.8464786,-0.77871776,0.7609756,-0.83735317,-0.36012056,-0.9930743,-0.713036,-0.44022897,-0.95663834,0.51513785,-0.9414662,0.8605725,0.8505086,-0.8105323,0.7781948,-0.8513087,-0.40638724,-0.9907108,-0.71138984,-0.40946034
2025-06-04 17:09:04.665,0.048199322,0.021630248,-0.030397044,0.0026704879,0.014727374,-0.006108491,0.0,0.0,0.0,-0.0006662747,-0.15105014,0.18532476,-0.16567591,0.11920136,0.37408447,-0.14523351,0.06624579,-0.3834453,-0.024010893,-0.0714181,-0.27677825,0.07247339,0.065585315,0.04058406,-0.007021725,-0.058782276,0.044098906,0.013496632,0.010032224,0.032364126,-0.054338362,-0.017346818,0.0051388377,0.04857397,-0.95663834,0.51513785,-0.9414662,0.8605725,0.8505086,-0.8105323,0.7781948,-0.8513087,-0.40638724,-0.9907108,-0.71138984,-0.40946034,-0.95824206,0.4737955,-0.8976478,0.7932257,0.79959756,-0.7911253,0.8136158,-0.81854045,-0.49853063,-0.983654,-0.7989005,-0.35232425
2025-06-04 17:09:04.682,0.028894668,0.057057526,0.035378236,-0.04851335,-0.024319317,-0.021496797,0.0,0.0,0.0,-0.00085902924,-0.1634942,0.19851221,-0.16229083,0.12017494,0.36622563,-0.15071337,0.08062385,-0.38602436,-0.022724409,-0.07896342,-0.28569376,0.07109607,0.014468942,-0.044430107,0.048211545,0.021155737,-0.058646645,0.04393625,-0.031248825,0.05952983,-0.057882145,0.03056978,-0.080892906,0.0429063,-0.95824206,0.4737955,-0.8976478,0.7932257,0.79959756,-0.7911253,0.8136158,-0.81854045,-0.49853063,-0.983654,-0.7989005,-0.35232425,-0.96606934,0.38183355,-0.92090744,0.77320886,0.8521644,-0.80826235,0.89177233,-0.85263544,-0.5568617,-0.9844352,-0.7215328,-0.42200047
2025-06-04 17:09:04.703,-0.00342509,0.041573536,-0.019319039,-0.063755386,0.025027255,-0.014615054,0.0,0.0,0.0,-0.0011868987,-0.15816967,0.19526269,-0.15028955,0.12344442,0.35933957,-0.14799325,0.07676501,-0.3884528,-0.02981273,-0.07495052,-0.2861458,0.0666134,-0.010745011,-0.03273207,0.050816733,-0.012938032,-0.049051486,0.071559936,0.048817948,-0.014985535,0.0330366,-0.07131748,-0.0126407845,-0.01977038,-0.96606934,0.38183355,-0.92090744,0.77320886,0.8521644,-0.80826235,0.89177233,-0.85263544,-0.5568617,-0.9844352,-0.7215328,-0.42200047,-0.96024555,0.5785482,-0.8898204,0.7517611,0.76946855,-0.7283343,0.8649429,-0.8082901,-0.49594742,-0.98562515,-0.7778897,-0.3854605
2025-06-04 17:09:04.723,-0.0053277477,0.05062888,-0.008130601,-0.021853453,0.06072391,0.015614292,0.0,0.0,0.0,-0.0011694327,-0.14951494,0.19677363,-0.15543,0.11162722,0.35788143,-0.14573002,0.07747177,-0.39213607,-0.031244105,-0.08190762,-0.29548594,0.074617654,0.05703809,0.021150662,0.040703833,0.056432743,-0.03194077,-0.0006984338,-0.07269632,0.06987276,-0.004814342,-0.06496756,0.008726444,-0.039286055,-0.96024555,0.5785482,-0.8898204,0.7517611,0.76946855,-0.7283343,0.8649429,-0.8082901,-0.49594742,-0.98562515,-0.7778897,-0.3854605,-0.9628997,0.52290165,-0.8982017,0.74386173,0.78085077,-0.77466786,0.8887073,-0.8657088,-0.6534711,-0.98389906,-0.7432661,-0.47565296
2025-06-04 17:09:04.743,-0.027283436,0.024643796,0.0006728415,-0.014425085,0.020324694,-0.034701336,0.0,0.0,0.0,-0.0012629179,-0.15462995,0.19937436,-0.16350225,0.10999695,0.36066288,-0.14595205,0.07929318,-0.3919092,-0.04641654,-0.07985378,-0.28527775,0.07677282,-0.05335696,-0.034687053,-0.06636996,0.043198336,0.03367412,0.05556568,0.040044814,0.052838553,-0.07405869,0.002151407,-0.06409463,0.0410511,-0.9628997,0.52290165,-0.8982017,0.74386173,0.78085077,-0.77466786,0.8887073,-0.8657088,-0.6534711,-0.98389906,-0.7432661,-0.47565296,-0.96586,0.5386882,-0.9215274,0.7698749,0.7801282,-0.72375584,0.8765534,-0.86724085,-0.54078186,-0.98591304,-0.74066323,-0.49032548
2025-06-04 17:09:04.766,0.03415163,-0.015464969,0.016356831,-0.0093180435,0.037941035,-0.016230803,0.0,0.0,0.0,-0.0013771123,-0.15071885,0.17963609,-0.15479355,0.12109193,0.34193465,-0.13465044,0.06590379,-0.3865051,-0.03954923,-0.07637545,-0.29228395,0.05780947,0.048616983,-0.053392187,0.047310445,0.036127977,0.018008096,0.05102847,-0.04423626,0.050635323,-0.04912445,0.0068673464,-0.055469293,-0.03365796,-0.96586,0.5386882,-0.9215274,0.7698749,0.7801282,-0.72375584,0.8765534,-0.86724085,-0.54078186,-0.98591304,-0.74066323,-0.49032548,-0.9676822,0.4298953,-0.93338156,0.80852085,0.79533494,-0.69603604,0.88289934,-0.85803634,-0.4274741,-0.98573774,-0.668646,-0.41911295
2025-06-04 17:09:04.783,-0.003458353,-0.0036887885,0.014467696,-0.0044008777,-0.03294634,0.009309287,0.0,0.0,0.0,-0.0013823445,-0.15489012,0.18499555,-0.1680846,0.10847255,0.3517706,-0.13909243,0.08405798,-0.3830524,-0.053675827,-0.08836377,-0.2962666,0.06603691,-0.0639191,0.050018642,0.003070599,0.0006248699,-0.026503077,-0.012171016,-0.022167573,-0.022846162,0.023327162,0.028353693,-0.04730397,-0.07018266,-0.9676822,0.4298953,-0.93338156,0.80852085,0.79533494,-0.69603604,0.88289934,-0.85803634,-0.4274741,-0.98573774,-0.668646,-0.41911295,-0.97509456,0.4784457,-0.95202684,0.8539507,0.8269672,-0.7185614,0.8369487,-0.82688326,-0.19807062,-0.99080664,-0.6263426,-0.36918956
2025-06-04 17:09:04.804,-0.009217907,-0.0689049,-0.04929858,-0.0018245063,-0.028508002,-0.019967401,0.0,0.0,0.0,-0.0011248946,-0.15619992,0.17450999,-0.16802737,0.10832856,0.34325138,-0.13053592,0.07269427,-0.39871335,-0.040341444,-0.07590056,-0.28940308,0.054804616,0.05675221,0.002662168,-0.0683858,-0.06235219,-0.031826157,-0.041747153,0.037242997,-0.014221928,0.005031023,-0.038753796,-0.037228618,-0.07085144,-0.97509456,0.4784457,-0.95202684,0.8539507,0.8269672,-0.7185614,0.8369487,-0.82688326,-0.19807062,-0.99080664,-0.6263426,-0.36918956,-0.95711446,0.5811807,-0.9287577,0.8840206,0.8056556,-0.72829485,0.7184991,-0.77669793,-0.2997596,-0.9926629,-0.7601862,-0.34337738
2025-06-04 17:09:04.823,0.0011069241,-0.043509893,-0.021166947,-0.068022236,0.03840792,0.047105785,0.0,0.0,0.0,-0.000721634,-0.1651741,0.1789398,-0.16211815,0.11072284,0.34196693,-0.12925829,0.06671665,-0.38367987,-0.047333974,-0.0788376,-0.28883588,0.06965504,0.073298015,-0.0593372,-0.043946084,-0.01495907,0.052750718,0.057017688,-0.07066736,-0.024696236,-0.029145207,0.044844955,-0.07336715,-0.00012939535,-0.95711446,0.5811807,-0.9287577,0.8840206,0.8056556,-0.72829485,0.7184991,-0.77669793,-0.2997596,-0.9926629,-0.7601862,-0.34337738,-0.95172864,0.47649235,-0.92921317,0.8450871,0.8204085,-0.7360084,0.831268,-0.8539352,-0.5305686,-0.98956394,-0.73761,-0.44099864
2025-06-04 17:09:04.843,-0.01880069,0.03016702,-0.0071203094,-0.069200754,-0.02097325,-0.04481536,0.0,0.0,0.0,-0.0009042832,-0.14909731,0.17227869,-0.15632212,0.1270035,0.34213912,-0.13217537,0.07483951,-0.38170722,-0.049623117,-0.080888845,-0.28925824,0.0581462,0.064482115,-0.062778905,0.009926736,0.050208926,-0.003767495,-0.051319715,-0.019880595,0.04199819,0.05903295,-0.03942455,-0.0715533,-0.03456783,-0.95172864,0.47649235,-0.92921317,0.8450871,0.8204085,-0.7360084,0.831268,-0.8539352,-0.5305686,-0.98956394,-0.73761,-0.44099864,-0.9520733,0.5294996,-0.93192375,0.8536618,0.8017583,-0.69636834,0.81372553,-0.8366986,-0.39229572,-0.9903478,-0.7182889,-0.42615202
2025-06-04 17:09:04.865,-0.054071818,0.0005169628,-0.017279841,-0.06489354,0.037457068,-0.0022590982,0.0,0.0,0.0,-0.0011456715,-0.16625084,0.18526895,-0.15029667,0.12901103,0.33917302,-0.13154279,0.08012883,-0.39146742,-0.049941957,-0.08567529,-0.2876427,0.057398,0.0626027,0.06101982,-0.07243468,0.06657434,0.064716734,0.010347233,0.06541753,-0.03330615,0.042886965,-0.038684003,0.013045268,-0.049541604,-0.9520733,0.5294996,-0.93192375,0.8536618,0.8017583,-0.69636834,0.81372553,-0.8366986,-0.39229572,-0.9903478,-0.7182889,-0.42615202,-0.9617,0.60028136,-0.9328887,0.838272,0.7814361,-0.6790416,0.82820666,-0.86049044,-0.4892151,-0.9914301,-0.7336974,-0.4711261
2025-06-04 17:09:04.883,-0.008280076,-0.042159952,0.045836706,-0.0874473,0.0032981653,-0.03714714,0.0,0.0,0.0,-0.0012121676,-0.15835196,0.17455257,-0.15553054,0.126692,0.33878273,-0.14414674,0.0813423,-0.39361164,-0.039052434,-0.07667574,-0.29144585,0.06690088,3.4387787e-05,0.027404396,-0.01819127,-0.023168944,-0.043391373,-0.016527917,0.066170216,0.051340394,0.014949373,-0.06972967,-0.023996085,0.0031641356,-0.9617,0.60028136,-0.9328887,0.838272,0.7814361,-0.6790416,0.82820666,-0.86049044,-0.4892151,-0.9914301,-0.7336974,-0.4711261,-0.961737,0.47753692,-0.9470431,0.8601102,0.8323619,-0.74694526,0.8332982,-0.8674179,-0.4216102,-0.9910483,-0.65357065,-0.48497975
2025-06-04 17:09:04.903,-0.009777015,-0.04874662,0.031177875,-0.05202693,-0.0057377117,0.02222525,0.0,0.0,0.0,-0.0012813554,-0.15557252,0.19147114,-0.16167507,0.118375726,0.3389527,-0.13779567,0.07607009,-0.3852515,-0.045929085,-0.08272308,-0.3000868,0.06429151,0.012571527,-0.05420891,-0.041351642,0.06680445,0.009760411,0.022531606,-0.0034256557,0.011236329,0.036081143,-0.068433546,-0.044426747,-0.07627075,-0.961737,0.47753692,-0.9470431,0.8601102,0.8323619,-0.74694526,0.8332982,-0.8674179,-0.4216102,-0.9910483,-0.65357065,-0.48497975,-0.97458094,0.47960788,-0.95808154,0.85741657,0.8259852,-0.651364,0.86256146,-0.860577,-0.23566137,-0.99257684,-0.59163797,-0.41993046
2025-06-04 17:09:04.924,-0.022440363,-0.011547041,-0.061780997,-0.01597008,0.015907986,0.023322191,0.0,0.0,0.0,-0.001139352,-0.16437195,0.19270565,-0.16629735,0.11681072,0.34347737,-0.12737635,0.06898314,-0.38187963,-0.042150423,-0.08112489,-0.29601353,0.062393516,0.05071986,0.03758336,0.021926548,0.02038269,-0.0020645647,0.014150336,0.0027092928,0.020800794,0.026254924,0.054243334,-0.0006439651,0.07010926,-0.97458094,0.47960788,-0.95808154,0.85741657,0.8259852,-0.651364,0.86256146,-0.860577,-0.23566137,-0.99257684,-0.59163797,-0.41993046,-0.9509735,0.5948805,-0.91581684,0.8755462,0.7730879,-0.6819657,0.7167966,-0.7699598,-0.37246782,-0.9910748,-0.79381686,-0.37435332
2025-06-04 17:09:04.943,0.016353277,-0.034984827,0.0089182705,-0.044884168,0.060145218,0.028771684,0.0,0.0,0.0,-0.00071118027,-0.15632987,0.19102049,-0.16473326,0.12592606,0.35281384,-0.13467263,0.07597224,-0.3821919,-0.03899236,-0.07262776,-0.28719336,0.0648912,-0.047608815,0.008277259,0.021260107,0.070926934,-0.03355191,0.06759055,-0.025861703,-0.011766707,0.037542243,0.034919836,-0.0564913,0.06738058,-0.9509735,0.5948805,-0.91581684,0.8755462,0.7730879,-0.6819657,0.7167966,-0.7699598,-0.37246782,-0.9910748,-0.79381686,-0.37435332,-0.9497057,0.48793116,-0.9339003,0.82584023,0.83719534,-0.7743389,0.83402693,-0.8708523,-0.5779296,-0.98965293,-0.7237339,-0.5183363
2025-06-04 17:09:04.965,0.043907445,0.03146165,0.010759525,-0.082780816,-0.019593263,0.00031722433,0.0,0.0,0.0,-0.0009477114,-0.15159698,0.18655996,-0.15633385,0.124872565,0.3559077,-0.12963982,0.068486325,-0.38234428,-0.047170725,-0.06965816,-0.29049796,0.05344473,-0.06275292,-0.0692152,0.059331305,0.070084244,0.042971354,-0.033399493,0.042030927,0.04444452,-0.06916218,0.07030664,0.030840203,0.04529229,-0.9497057,0.48793116,-0.9339003,0.82584023,0.83719534,-0.7743389,0.83402693,-0.8708523,-0.5779296,-0.98965293,-0.7237339,-0.5183363,-0.9695321,0.49584356,-0.9521346,0.8787371,0.83648336,-0.70950246,0.78799725,-0.8362043,-0.14891668,-0.99170583,-0.6672596,-0.41288882
2025-06-04 17:09:04.984,0.046495605,-0.013546005,-0.024533793,-0.0054806056,-0.009708164,0.002114084,0.0,0.0,0.0,-0.0012105713,-0.15319528,0.18152666,-0.15974078,0.11057625,0.34473407,-0.12446747,0.07969749,-0.39735365,-0.043418612,-0.07367983,-0.29895496,0.0572417,-0.027818289,-0.06151991,0.05335846,0.028766157,-0.037943684,-0.027943775,0.032183897,0.06733827,-0.035475,-0.04806775,-0.05871262,-0.004197483,-0.9695321,0.49584356,-0.9521346,0.8787371,0.83648336,-0.70950246,0.78799725,-0.8362043,-0.14891668,-0.99170583,-0.6672596,-0.41288882,-0.96474177,0.54167736,-0.9535255,0.9221513,0.86417025,-0.75943923,0.64907926,-0.77787876,-0.12454309,-0.9950135,-0.70884097,-0.384404
2025-06-04 17:09:05.003,0.03011971,0.02368727,0.04005029,-0.030171271,-0.019335033,-0.03230407,0.0,0.0,0.0,-0.0011775934,-0.15391245,0.19595835,-0.16537112,0.12827428,0.34780318,-0.13440512,0.080556,-0.38526988,-0.045000963,-0.08729097,-0.2856296,0.05437838,0.063662775,-0.034347605,-0.030486306,-0.0010416,-0.06407979,0.05177291,-0.02336963,-0.045104977,0.07475561,0.0070481123,0.015458715,0.026171576,-0.96474177,0.54167736,-0.9535255,0.9221513,0.86417025,-0.75943923,0.64907926,-0.77787876,-0.12454309,-0.9950135,-0.70884097,-0.384404,-0.9708807,0.35788378,-0.9579453,0.858533,0.8683376,-0.75464666,0.83944917,-0.86066103,-0.31531423,-0.9918312,-0.6409597,-0.42087838
2025-06-04 17:09:05.024,0.043676063,-0.028425226,-0.008075427,-0.085846946,0.012736592,-0.038784824,0.0,0.0,0.0,-0.0013186554,-0.15668046,0.19031635,-0.15413788,0.120615035,0.3493804,-0.14424695,0.07698363,-0.38624007,-0.028188704,-0.08573736,-0.2823607,0.057104632,0.021404656,-0.012849937,-0.05816284,0.014258829,0.0075723,0.037799753,-0.05192147,0.017231643,-0.034747694,0.022598622,0.07454479,0.039299417,-0.9708807,0.35788378,-0.9579453,0.858533,0.8683376,-0.75464666,0.83944917,-0.86066103,-0.31531423,-0.9918312,-0.6409597,-0.42087838,-0.97813153,0.47904345,-0.93886095,0.8354809,0.8098968,-0.6681335,0.862036,-0.8140573,-0.22883007,-0.9896588,-0.6877316,-0.32146347
2025-06-04 17:09:05.044,-0.013347149,0.050798982,0.032232847,-0.0756632,-0.012560985,-0.007636207,0.0,0.0,0.0,-0.0011076935,-0.16033788,0.17823295,-0.14612171,0.11090845,0.36416864,-0.13537005,0.07272621,-0.38401085,-0.032773707,-0.088150464,-0.28382036,0.07556293,-0.04665596,0.0013964392,-0.030207045,-0.060820147,0.03075849,0.00967648,0.06674383,-0.034281064,0.05253229,0.049185395,-0.056948125,0.008324109,-0.97813153,0.47904345,-0.93886095,0.8354809,0.8098968,-0.6681335,0.862036,-0.8140573,-0.22883007,-0.9896588,-0.6877316,-0.32146347,-0.9742925,0.46787012,-0.96124834,0.910537,0.877214,-0.75165933,0.79384196,-0.80277526,-0.15854904,-0.993555,-0.62234384,-0.36855048
2025-06-04 17:09:05.065,-0.025724195,-0.05624698,0.002658674,-0.08294733,-0.013384297,-0.045781616,0.0,0.0,0.0,-0.00081423146,-0.16558276,0.184696,-0.15524729,0.11041307,0.3590724,-0.12674704,0.07614422,-0.40127483,-0.033440057,-0.07302239,-0.29405555,0.05983446,-0.028360356,-0.0006739229,0.020017624,0.0017335414,-0.044354614,-0.046331227,0.06596902,-0.02245564,0.05547037,-0.0010698009,-0.057089765,0.0072442223,-0.9742925,0.46787012,-0.96124834,0.910537,0.877214,-0.75165933,0.79384196,-0.80277526,-0.15854904,-0.993555,-0.62234384,-0.36855048,-0.96441466,0.51758814,-0.9592788,0.9163716,0.87797487,-0.76278687,0.71000993,-0.78645957,-0.10841899,-0.9950697,-0.6806112,-0.36154953
2025-06-04 17:09:05.084,-0.015583164,-0.012295434,0.029123787,-0.063787326,0.027304908,0.034096833,0.0,0.0,0.0,-0.00057587615,-0.17053688,0.19816133,-0.15293762,0.10942096,0.3693447,-0.13983043,0.084524676,-0.38988295,-0.03181926,-0.08683747,-0.29415268,0.06574263,0.0062193945,-0.053634223,0.07326117,0.030847825,0.014840989,-0.06431959,0.008842379,0.02349998,0.046311453,-0.032314673,-0.04984751,0.07249433,-0.96441466,0.51758814,-0.9592788,0.9163716,0.87797487,-0.76278687,0.71000993,-0.78645957,-0.10841899,-0.9950697,-0.6806112,-0.36154953,-0.9690404,0.40697867,-0.9682556,0.9185544,0.9027071,-0.77759993,0.7405425,-0.8336148,-0.16635554,-0.9945236,-0.627218,-0.4296535
2025-06-04 17:09:05.105,0.015924925,0.032898072,-0.049184807,-0.084142424,0.027445666,-0.012253856,0.0,0.0,0.0,-0.00061762804,-0.16739562,0.18677518,-0.14467022,0.1101601,0.3675898,-0.14450836,0.07912849,-0.3908853,-0.014411734,-0.07460505,-0.2795998,0.07492455,0.03513324,-0.019709252,0.03333327,0.06267209,0.046149902,-0.045123536,-0.053821597,0.059437063,-0.03540821,0.0468309,0.03058738,0.042716242,-0.9690404,0.40697867,-0.9682556,0.9185544,0.9027071,-0.77759993,0.7405425,-0.8336148,-0.16635554,-0.9945236,-0.627218,-0.4296535,-0.97185844,0.55585515,-0.948465,0.9047554,0.8476517,-0.73639756,0.6857922,-0.7879721,-0.08727973,-0.9940258,-0.7077111,-0.3359255
2025-06-04 17:09:05.125,-0.02752127,0.05111696,-0.004375505,0.008153705,0.02393077,-0.024147315,0.0,0.0,0.0,-0.0005423621,-0.16748019,0.19800149,-0.1551419,0.12085159,0.3658317,-0.14952865,0.072138675,-0.39811525,-0.021641675,-0.07775241,-0.28608826,0.0723003,0.038762696,0.017536098,-0.050773844,0.007321976,-0.0030634007,0.00028208617,0.009918287,-0.015933843,0.066850245,-0.009375117,-0.04583061,-0.010470418,-0.97185844,0.55585515,-0.948465,0.9047554,0.8476517,-0.73639756,0.6857922,-0.7879721,-0.08727973,-0.9940258,-0.7077111,-0.3359255,-0.96693444,0.52713263,-0.94835854,0.8723098,0.86113745,-0.79809874,0.76594806,-0.8537981,-0.4347451,-0.99335337,-0.70769584,-0.45158044
2025-06-04 17:09:05.144,-0.047965404,0.03864412,-0.03395067,-0.031781808,-0.0038324804,0.033510536,0.0,0.0,0.0,-0.00072355714,-0.17020337,0.1987897,-0.15711859,0.11050749,0.38308436,-0.15033987,0.073225945,-0.40103588,-0.006272224,-0.06986478,-0.28158125,0.082830764,-0.044863816,0.022176102,0.05097505,0.07729667,-0.040239025,0.033897363,-0.061113533,0.047602374,-0.04802753,-0.06099201,-0.06670427,-0.06738437,-0.96693444,0.52713263,-0.94835854,0.8723098,0.86113745,-0.79809874,0.76594806,-0.8537981,-0.4347451,-0.99335337,-0.70769584,-0.45158044,-0.96588355,0.5748241,-0.9253143,0.80777234,0.8170526,-0.805956,0.79677427,-0.8577542,-0.47010064,-0.9905172,-0.7217605,-0.45438394
2025-06-04 17:09:05.165,0.021454385,0.053154603,0.012613512,-0.07029833,0.012498923,-0.026083361,0.0,0.0,0.0,-0.0010001427,-0.16628453,0.19378243,-0.15434328,0.12432279,0.37519705,-0.15405448,0.079075955,-0.38378018,-0.011557054,-0.072512865,-0.28704548,0.07093263,0.04610163,0.035880804,-0.074873604,-0.0449717,-0.043293506,0.035128944,-0.0736152,0.03690088,-0.01603411,0.038135312,0.041574556,0.043858737,-0.96588355,0.5748241,-0.9253143,0.80777234,0.8170526,-0.805956,0.79677427,-0.8577542,-0.47010064,-0.9905172,-0.7217605,-0.45438394,-0.97007805,0.44992638,-0.9160823,0.7339511,0.7957392,-0.77627623,0.89232665,-0.863552,-0.5243977,-0.98137695,-0.72072047,-0.38189375
2025-06-04 17:09:05.185,0.025794348,-0.0062217596,-0.04217433,-0.0041372655,-0.015040595,-0.02811209,0.0,0.0,0.0,-0.0012563188,-0.1617601,0.19120452,-0.15248445,0.11508091,0.3752358,-0.15518469,0.07316093,-0.38764253,-0.012247866,-0.08051849,-0.27729663,0.06874419,-0.047872987,-0.043377828,0.027393948,-0.016704122,-0.05778506,-0.06758006,-0.001996544,-0.007466888,-0.07299247,0.061202955,-0.025067357,0.06500618,-0.97007805,0.44992638,-0.9160823,0.7339511,0.7957392,-0.77627623,0.89232665,-0.863552,-0.5243977,-0.98137695,-0.72072047,-0.38189375,-0.95845664,0.5539106,-0.90013367,0.7959727,0.78159535,-0.7514787,0.80299884,-0.7955387,-0.42455333,-0.98481494,-0.782121,-0.37766477
2025-06-04 17:09:05.205,0.009322951,0.012583508,0.013329361,-0.051381987,0.01932942,0.02588582,0.0,0.0,0.0,-0.0012933708,-0.15204817,0.19671349,-0.14797547,0.11833733,0.36722177,-0.14653338,0.08421578,-0.3915662,-0.023990288,-0.08051021,-0.2881006,0.08106931,-0.001275946,0.05246889,0.056124207,-0.020209292,-0.061734196,-0.028280275,-0.030011244,0.02974724,-0.004109224,0.009459833,-0.043840233,0.03828005,-0.95845664,0.5539106,-0.90013367,0.7959727,0.78159535,-0.7514787,0.80299884,-0.7955387,-0.42455333,-0.98481494,-0.782121,-0.37766477,-0.95730287,0.48873356,-0.92022836,0.7994477,0.8379724,-0.81591034,0.84397995,-0.8560548,-0.57815087,-0.98720497,-0.7393936,-0.46324915
2025-06-04 17:09:05.225,-0.0424807,0.0068787285,0.03417798,-0.028838355,-0.022040142,0.00122382,0.0,0.0,0.0,-0.0015108368,-0.16474201,0.20253696,-0.14467357,0.11879705,0.3731957,-0.15173806,0.0704774,-0.3816655,-0.023324637,-0.07233748,-0.28751493,0.07593181,0.014086238,-0.017701881,0.027802235,0.03810151,0.005550111,-0.07224721,-0.056433164,-0.05227047,-0.07544231,0.040016666,-0.0052754157,-0.006503122,-0.95730287,0.48873356,-0.92022836,0.7994477,0.8379724,-0.81591034,0.84397995,-0.8560548,-0.57815087,-0.98720497,-0.7393936,-0.46324915,-0.9785563,0.3859632,-0.9488837,0.7877109,0.8284483,-0.72801256,0.8922379,-0.8756726,-0.3156726,-0.98481596,-0.6070189,-0.3992361
2025-06-04 17:09:05.248,0.047305502,-0.05711892,-0.030864198,-0.055216186,-0.027716694,0.019999519,0.0,0.0,0.0,-0.001642614,-0.16465586,0.1968426,-0.15507407,0.120130315,0.35820583,-0.14617674,0.07180814,-0.381204,-0.031549897,-0.079115026,-0.29395422,0.070821956,0.038267497,-0.080221124,0.07593356,-0.023976184,0.027094668,0.047407795,-0.038315494,-0.049391806,0.065003455,-0.0390534,-0.032005806,-0.06393033,-0.9785563,0.3859632,-0.9488837,0.7877109,0.8284483,-0.72801256,0.8922379,-0.8756726,-0.3156726,-0.98481596,-0.6070189,-0.3992361,-0.97043973,0.5437159,-0.9361133,0.8509356,0.79466665,-0.61887103,0.8309409,-0.76734084,-0.19232099,-0.991847,-0.6998908,-0.30364755
2025-06-04 17:09:05.265,-0.061192922,0.032172468,-0.04458027,-0.06577526,-0.014987505,0.024020111,0.0,0.0,0.0,-0.0011774683,-0.17061622,0.18952793,-0.15394913,0.1165228,0.36284363,-0.13782865,0.07077983,-0.38180465,-0.024739014,-0.07871302,-0.28930524,0.078376696,0.02305395,0.0057957172,-0.027863586,0.033696298,0.05812562,-0.008879081,-0.03970249,0.0142184775,-0.024042811,-0.049944703,-0.011980694,-0.026081039,-0.97043973,0.5437159,-0.9361133,0.8509356,0.79466665,-0.61887103,0.8309409,-0.76734084,-0.19232099,-0.991847,-0.6998908,-0.30364755,-0.96592516,0.5805265,-0.93419987,0.8915548,0.8318884,-0.7588973,0.7584678,-0.8282167,-0.47343624,-0.9937171,-0.72038937,-0.46404183
2025-06-04 17:09:05.285,-0.041368477,0.013922913,-0.033998575,-0.043791696,0.05529392,0.008789739,0.0,0.0,0.0,-0.0009199294,-0.16895846,0.19524606,-0.15766704,0.12417882,0.36657912,-0.14110252,0.07244707,-0.3877016,-0.037329238,-0.08688905,-0.29486603,0.07462937,-0.052683428,0.02818577,-0.01582034,-0.0672668,0.06091903,-0.01371936,0.008772059,0.07481829,-0.03897811,0.004776618,0.030618522,-0.058378644,-0.96592516,0.5805265,-0.93419987,0.8915548,0.8318884,-0.7588973,0.7584678,-0.8282167,-0.47343624,-0.9937171,-0.72038937,-0.46404183,-0.9532787,0.63559246,-0.9227572,0.8556589,0.8069092,-0.7935027,0.72579134,-0.8638636,-0.48395997,-0.99222827,-0.7574261,-0.48931703
2025-06-04 17:09:05.305,0.034020334,0.01713799,0.037724257,-0.028598564,0.034669444,-0.021552723,0.0,0.0,0.0,-0.0010891964,-0.1677844,0.1905874,-0.16070816,0.11296277,0.35420907,-0.13550891,0.07959949,-0.39162886,-0.0455967,-0.07804581,-0.28341362,0.059682194,-0.056527928,-0.04430011,-0.03393227,0.03955078,-0.004299777,-0.04983905,-0.04962981,0.07387996,-0.0055366005,-0.01247593,0.012465873,0.07011258,-0.9532787,0.63559246,-0.9227572,0.8556589,0.8069092,-0.7935027,0.72579134,-0.8638636,-0.48395997,-0.99222827,-0.7574261,-0.48931703,-0.97304267,0.39973587,-0.957544,0.8416432,0.84219456,-0.7486875,0.8408252,-0.88966364,-0.32022852,-0.9887283,-0.58941054,-0.46491823
2025-06-04 17:09:05.325,-0.0123112155,0.01999312,-0.06716681,-0.017203338,-0.0082877,0.031953443,0.0,0.0,0.0,-0.00152828,-0.16162372,0.19700754,-0.14944379,0.119360775,0.366684,-0.14734603,0.07977669,-0.3793346,-0.040435422,-0.074202344,-0.2945491,0.06973743,0.064183384,-0.011788347,0.06761405,-0.02743986,0.07236304,-0.06541373,0.048040926,0.047540035,-0.017209228,-0.030904852,0.013175854,-0.001655773,-0.97304267,0.39973587,-0.957544,0.8416432,0.84219456,-0.7486875,0.8408252,-0.88966364,-0.32022852,-0.9887283,-0.58941054,-0.46491823,-0.95973325,0.6225747,-0.92488605,0.8906684,0.79447913,-0.69013184,0.646085,-0.758044,-0.1899828,-0.9929868,-0.7822561,-0.35470727
2025-06-04 17:09:05.348,-0.01011527,0.006737542,0.008185925,-0.082844995,-0.010578977,0.03526186,0.0,0.0,0.0,-0.0013762381,-0.16763239,0.19905698,-0.16336648,0.11110449,0.35406503,-0.14800829,0.068809696,-0.39664248,-0.03883513,-0.07650653,-0.29830444,0.06230939,0.02938825,-0.0058159214,-0.0037682657,0.004528701,0.026073577,0.06468424,0.042189695,0.06107512,0.006510691,0.021508332,0.038249366,-0.0020652956,-0.95973325,0.6225747,-0.92488605,0.8906684,0.79447913,-0.69013184,0.646085,-0.758044,-0.1899828,-0.9929868,-0.7822561,-0.35470727,-0.9558695,0.53806555,-0.94604653,0.87244225,0.87337905,-0.826934,0.77292824,-0.88133335,-0.58310384,-0.99447376,-0.7299193,-0.57259786
2025-06-04 17:09:05.365,0.00979883,0.030542642,-0.007921454,0.0021294989,-0.019427907,0.03643516,0.0,0.0,0.0,-0.0016509403,-0.15582092,0.19545865,-0.16290972,0.12500043,0.35967705,-0.14664155,0.06817321,-0.3973651,-0.046415675,-0.07937615,-0.28968072,0.07050547,0.023946352,-0.027913356,-0.043878473,0.044190656,0.04121917,-0.07552812,-0.03957586,0.027513219,0.0651859,-0.025187666,-0.056314178,0.046330616,-0.9558695,0.53806555,-0.94604653,0.87244225,0.87337905,-0.826934,0.77292824,-0.88133335,-0.58310384,-0.99447376,-0.7299193,-0.57259786,-0.9604598,0.53174704,-0.9412454,0.8238102,0.7897488,-0.7043781,0.81051654,-0.86951065,-0.34347904,-0.9885378,-0.7164525,-0.43056643
2025-06-04 17:09:05.384,-0.040887687,-0.008962409,0.029351272,0.005085506,0.057059288,0.0042455536,0.0,0.0,0.0,-0.0019740828,-0.15238655,0.19097733,-0.16200309,0.11792409,0.3489487,-0.15051986,0.076560944,-0.39042825,-0.045257818,-0.08635136,-0.29023415,0.056960635,0.009562204,-0.042594764,0.006460932,-0.06269836,0.07007478,-0.04711988,-0.070040375,0.024345685,0.054203507,-0.062499892,-0.035782225,0.028862415,-0.9604598,0.53174704,-0.9412454,0.8238102,0.7897488,-0.7043781,0.81051654,-0.86951065,-0.34347904,-0.9885378,-0.7164525,-0.43056643,-0.972971,0.38168466,-0.957839,0.8682349,0.8411489,-0.6851584,0.8490873,-0.8687612,-0.2957753,-0.98897403,-0.60376847,-0.4227503
2025-06-04 17:09:05.450,0.024731262,-0.0311119,-0.01751677,-0.044881728,0.06601384,0.012519222,0.0,0.0,0.0,-0.0020377305,-0.16935942,0.18739483,-0.16452534,0.124894716,0.36038512,-0.15104318,0.08075711,-0.39146778,-0.03534605,-0.07524052,-0.302576,0.05994119,0.022370698,0.0066390433,-0.05328237,-0.0053620925,0.052763026,0.036841948,0.026466746,-0.0035136146,-0.0472007,-0.0339752,-0.06953777,0.0002748703,-0.972971,0.38168466,-0.957839,0.8682349,0.8411489,-0.6851584,0.8490873,-0.8687612,-0.2957753,-0.98897403,-0.60376847,-0.4227503,-0.97374415,0.5010287,-0.94391793,0.8830917,0.8145071,-0.65992916,0.79901797,-0.7896356,-0.16084917,-0.9912985,-0.6966888,-0.31963104
2025-06-04 17:09:05.470,-0.040149357,0.021472363,-0.044251684,-0.008731814,-0.0067046755,0.013874995,0.0,0.0,0.0,-0.0015671409,-0.16356118,0.18427229,-0.16125251,0.11429353,0.35849616,-0.140889,0.07275275,-0.3960342,-0.042976294,-0.07985063,-0.28666002,0.07017515,-0.05703831,-0.052166875,0.051974993,-0.023226142,-0.0024780289,0.03231817,0.06308083,0.0047712578,-0.028591933,-0.00945164,-0.05640876,-0.03804244,-0.97374415,0.5010287,-0.94391793,0.8830917,0.8145071,-0.65992916,0.79901797,-0.7896356,-0.16084917,-0.9912985,-0.6966888,-0.31963104,-0.95857656,0.6030847,-0.9415726,0.91533226,0.8598392,-0.77855617,0.64970094,-0.7909943,-0.34842977,-0.9954425,-0.75518924,-0.4542176
2025-06-04 17:09:05.490,-0.0410098,-0.022502957,-0.0012624345,0.010462901,-0.029915301,0.022399878,0.0,0.0,0.0,-0.0012572877,-0.15879871,0.18525322,-0.1520528,0.12541942,0.34921086,-0.13757983,0.085299015,-0.389547,-0.029899564,-0.07663186,-0.29893053,0.05898272,0.030915797,-0.06694231,0.07039946,0.037008632,0.07638324,-0.03880076,0.028850386,0.074972376,-0.064818844,-0.015192817,-0.019783458,0.07223522,-0.95857656,0.6030847,-0.9415726,0.91533226,0.8598392,-0.77855617,0.64970094,-0.7909943,-0.34842977,-0.9954425,-0.75518924,-0.4542176,-0.9530328,0.47972512,-0.9467762,0.8763275,0.8681188,-0.81240076,0.7252425,-0.8735881,-0.45192412,-0.9926008,-0.73705715,-0.5223472
2025-06-04 17:09:05.510,-0.011033777,-0.017818896,0.028299347,-0.0052511203,-0.030282376,0.04547639,0.0,0.0,0.0,-0.0015646314,-0.15257119,0.18643196,-0.1621257,0.12995099,0.35047647,-0.146015,0.08046546,-0.3844497,-0.032670222,-0.081209175,-0.29498503,0.07028258,-0.005332189,0.058268856,-0.06396164,0.017959518,0.07402812,0.0346189,0.019924574,-0.00037314708,0.073050424,-0.033181787,-0.06646564,-0.05305701,-0.9530328,0.47972512,-0.9467762,0.8763275,0.8681188,-0.81240076,0.7252425,-0.8735881,-0.45192412,-0.9926008,-0.73705715,-0.5223472,-0.96945465,0.50942135,-0.95014876,0.8058995,0.8342398,-0.75818545,0.8497734,-0.87777096,-0.3658836,-0.99041057,-0.6798198,-0.4359339
2025-06-04 17:09:05.532,0.044650286,-0.04430579,-0.021506542,0.004905169,-0.0029485829,0.023043359,0.0,0.0,0.0,-0.001852941,-0.16311803,0.18576977,-0.15851675,0.119006775,0.3561597,-0.14643037,0.083210595,-0.39178264,-0.031589832,-0.08634523,-0.29947126,0.07403903,-0.05831234,-0.046230666,0.0053579356,-0.02609185,-0.024414659,-0.042760227,0.03310089,-0.019890927,0.016297674,-0.03758393,0.00037882075,0.06149808,-0.96945465,0.50942135,-0.95014876,0.8058995,0.8342398,-0.75818545,0.8497734,-0.87777096,-0.3658836,-0.99041057,-0.6798198,-0.4359339,-0.966396,0.5550965,-0.93479025,0.8533945,0.8112447,-0.7143116,0.7803357,-0.8020576,-0.2673307,-0.990612,-0.7380059,-0.35938072
2025-06-04 17:09:05.551,-0.03238652,-0.00611677,0.02886989,-0.04914791,-0.030867746,-0.0028515118,0.0,0.0,0.0,-0.0017655835,-0.15564448,0.19352074,-0.1557776,0.11156239,0.3520816,-0.13420424,0.07905101,-0.3856405,-0.033580184,-0.08566971,-0.2861293,0.064864025,-0.06472497,0.018476533,0.021502385,0.024056515,0.028944524,0.06349887,-0.01109849,0.054071505,-0.050506506,0.028675064,-0.017743135,-0.0046116393,-0.966396,0.5550965,-0.93479025,0.8533945,0.8112447,-0.7143116,0.7803357,-0.8020576,-0.2673307,-0.990612,-0.7380059,-0.35938072,-0.97307956,0.4454219,-0.9550615,0.8674547,0.878766,-0.80012786,0.83468807,-0.8683079,-0.4336256,-0.99307907,-0.64891535,-0.49727672
2025-06-04 17:09:05.571,-0.008821784,-0.004279269,-0.023910426,-0.033168543,-0.008921787,0.045949344,0.0,0.0,0.0,-0.0018147355,-0.16635147,0.19626531,-0.15204749,0.111524634,0.36154175,-0.14070338,0.07237713,-0.382948,-0.037093636,-0.08763214,-0.29985848,0.06761745,0.00042734048,-0.060626697,0.016410353,-0.03771121,-0.037298918,-0.014740632,-0.06918315,0.0071583283,0.037765794,-0.021781309,0.05758663,0.013347154,-0.97307956,0.4454219,-0.9550615,0.8674547,0.878766,-0.80012786,0.83468807,-0.8683079,-0.4336256,-0.99307907,-0.64891535,-0.49727672,-0.9683054,0.5503167,-0.9289052,0.824278,0.7950789,-0.70978796,0.8232258,-0.82194257,-0.2805883,-0.9897661,-0.7218785,-0.3355267
2025-06-04 17:09:05.591,-0.043979917,0.02124467,-0.036549482,-0.079065,-0.011585099,-0.0005563507,0.0,0.0,0.0,-0.001636927,-0.16982944,0.1912802,-0.15992008,0.124852724,0.36437172,-0.13584843,0.075636685,-0.3994213,-0.029161701,-0.07074189,-0.2841393,0.070086434,0.06485578,0.07327113,-0.049845766,0.06985597,0.059713587,-0.045830335,0.035555527,0.026463911,-0.066159815,-0.010512118,0.021273673,0.032774232,-0.9683054,0.5503167,-0.9289052,0.824278,0.7950789,-0.70978796,0.8232258,-0.82194257,-0.2805883,-0.9897661,-0.7218785,-0.3355267,-0.9652469,0.5557979,-0.9261656,0.85549676,0.82067513,-0.77404565,0.7925528,-0.8382797,-0.51962775,-0.99088925,-0.7584895,-0.4559285
2025-06-04 17:09:05.611,-0.03286434,0.020920832,-0.03124751,-0.0018599122,0.05722146,0.014136177,0.0,0.0,0.0,-0.001569929,-0.15388852,0.20233451,-0.15756808,0.12430495,0.36576533,-0.14786988,0.07881345,-0.40051532,-0.03671164,-0.074431926,-0.29401207,0.06556687,-0.06323146,-0.0016200917,-0.03227712,-0.060028426,-0.0025266914,0.04591673,0.04817957,-0.020042727,-0.016330699,0.045092236,0.04474716,0.06708912,-0.9652469,0.5557979,-0.9261656,0.85549676,0.82067513,-0.77404565,0.7925528,-0.8382797,-0.51962775,-0.99088925,-0.7584895,-0.4559285,-0.95180696,0.5937031,-0.90574753,0.78851426,0.78202355,-0.76553494,0.8134892,-0.85751045,-0.55759573,-0.9867734,-0.79995155,-0.4710252
2025-06-04 17:09:05.632,0.049116373,0.008855585,0.011821736,-0.07848509,-0.0064238305,-0.025839007,0.0,0.0,0.0,-0.0017816357,-0.16904514,0.19804351,-0.16375722,0.11955942,0.36278203,-0.13504271,0.08061482,-0.3915259,-0.028411958,-0.07156523,-0.28874493,0.06896135,0.052712966,0.0672472,0.041406326,-0.01997082,-0.01899497,0.0008703132,0.06625264,0.052811496,0.052654505,-0.01266223,0.0103392815,-0.0011844151,-0.95180696,0.5937031,-0.90574753,0.78851426,0.78202355,-0.76553494,0.8134892,-0.85751045,-0.55759573,-0.9867734,-0.79995155,-0.4710252,-0.94968426,0.5340457,-0.9152095,0.7816235,0.814914,-0.80218524,0.8449081,-0.85845184,-0.57260394,-0.9870423,-0.7617465,-0.47488332
2025-06-04 17:09:05.651,0.00439013,0.05246879,-0.013134021,-0.043627735,0.010743015,-0.04878758,0.0,0.0,0.0,-0.0021759646,-0.16320485,0.20330799,-0.1504742,0.11807761,0.36660704,-0.14869915,0.0649614,-0.39456135,-0.03868055,-0.07149855,-0.29228407,0.06942988,0.058048557,0.059143826,-0.016600454,-0.06306558,0.026228102,0.02773117,-0.075306095,0.00029815835,-0.05179752,-0.0031207125,0.0086322725,0.012741183,-0.94968426,0.5340457,-0.9152095,0.7816235,0.814914,-0.80218524,0.8449081,-0.85845184,-0.57260394,-0.9870423,-0.7617465,-0.47488332,-0.9650813,0.4759992,-0.8995023,0.71192336,0.75597334,-0.74600804,0.8925015,-0.86038804,-0.56892574,-0.9779227,-0.7635681,-0.40123066
2025-06-04 17:09:05.672,0.027850525,0.03394479,0.031592615,-0.063554294,-0.02766852,-0.039829347,0.0,0.0,0.0,-0.0024309992,-0.15907168,0.19792867,-0.1698465,0.12241819,0.3528345,-0.14479901,0.06564556,-0.3838416,-0.05339369,-0.08077989,-0.2984827,0.054105874,-0.026300922,0.03442584,-0.059295014,0.060988527,0.03624142,0.03879992,-0.06786697,-0.04640905,0.0075284448,0.06186733,-0.01526803,-0.04011507,-0.9650813,0.4759992,-0.8995023,0.71192336,0.75597334,-0.74600804,0.8925015,-0.86038804,-0.56892574,-0.9779227,-0.7635681,-0.40123066,-0.9796044,0.42558366,-0.9411737,0.73891246,0.78966904,-0.6767047,0.92406404,-0.87211555,-0.45287344,-0.98306787,-0.6393228,-0.4296658
2025-06-04 17:09:05.691,-0.032877162,-0.04674151,-0.011883444,-0.006022495,0.057646178,-0.009430885,0.0,0.0,0.0,-0.0024325321,-0.16590309,0.20168,-0.1631083,0.11376039,0.34535313,-0.1510857,0.07541729,-0.38842884,-0.05381106,-0.089465216,-0.30628434,0.05193274,-0.050725017,-0.07571284,-0.050712734,-0.02979179,0.03644544,0.057188973,-0.04577476,0.050314613,0.060580287,-0.034829427,-0.047626674,-0.04731769,-0.9796044,0.42558366,-0.9411737,0.73891246,0.78966904,-0.6767047,0.92406404,-0.87211555,-0.45287344,-0.98306787,-0.6393228,-0.4296658,-0.9699699,0.5810723,-0.93456537,0.8283249,0.76735204,-0.6156903,0.8635869,-0.8408546,-0.394904,-0.990513,-0.6791298,-0.42753372
2025-06-04 17:09:05.715,0.0117418375,-0.013915377,-0.030097144,-0.042560674,0.03200525,-0.009075441,0.0,0.0,0.0,-0.001923671,-0.16215737,0.18033601,-0.16322969,0.11429664,0.35606518,-0.13389112,0.08221965,-0.3923594,-0.04150778,-0.079643704,-0.301733,0.065648325,0.0591672,-0.011754516,-0.022810731,0.00917825,0.020311406,0.059120055,0.02486821,-0.036244426,-0.048100635,-0.06831852,0.07122048,-0.06328565,-0.9699699,0.5810723,-0.93456537,0.8283249,0.76735204,-0.6156903,0.8635869,-0.8408546,-0.394904,-0.990513,-0.6791298,-0.42753372,-0.9706009,0.53877157,-0.9291959,0.84709203,0.77123475,-0.6738111,0.83149236,-0.8399029,-0.41994762,-0.99028945,-0.70487857,-0.42978084
2025-06-04 17:09:05.732,-0.05387574,0.006208936,-0.03832808,0.002869436,-0.014293174,-0.025626177,0.0,0.0,0.0,-0.0014963151,-0.15698542,0.19188681,-0.16138387,0.11669,0.3504901,-0.13474496,0.07306135,-0.385765,-0.04178896,-0.072942324,-0.30209115,0.051015683,0.06743041,-0.03182351,-0.04363654,0.05110158,0.041085534,0.033978578,-0.006024273,-0.0031883589,0.05150252,0.04438895,-0.052099846,-0.002689177,-0.9706009,0.53877157,-0.9291959,0.84709203,0.77123475,-0.6738111,0.83149236,-0.8399029,-0.41994762,-0.99028945,-0.70487857,-0.42978084,-0.9489192,0.5676027,-0.9258215,0.84089994,0.7803464,-0.6938914,0.8124315,-0.84742695,-0.5029021,-0.99004406,-0.7627749,-0.46485576
2025-06-04 17:09:05.751,-0.025010003,0.019994773,-0.011481107,-0.003295529,0.029623965,-0.031820163,0.0,0.0,0.0,-0.0013997108,-0.16753332,0.19442315,-0.16122054,0.13018689,0.343207,-0.1380646,0.086470455,-0.39891294,-0.054776598,-0.079334006,-0.29288915,0.065447114,-0.036172237,-0.072238535,0.022366954,0.07606716,0.03605382,0.0071573746,-0.033621054,0.021132132,0.031763,-0.029232644,-0.030556183,0.07185873,-0.9489192,0.5676027,-0.9258215,0.84089994,0.7803464,-0.6938914,0.8124315,-0.84742695,-0.5029021,-0.99004406,-0.7627749,-0.46485576,-0.96120673,0.51971716,-0.9411431,0.8466303,0.8031875,-0.6753739,0.82922375,-0.8689567,-0.44615468,-0.9900947,-0.6982968,-0.4996717
2025-06-04 17:09:05.772,-0.0161172,0.0046637114,0.014276858,-0.058999807,0.04646615,-0.032625023,0.0,0.0,0.0,-0.0015723489,-0.1692366,0.18969437,-0.17042293,0.124613,0.3510215,-0.12263535,0.08346357,-0.38831848,-0.06403427,-0.07693137,-0.29865214,0.057347838,0.036415305,0.012093547,0.03195453,-0.03759278,0.062682256,0.039670043,0.06892099,0.02429607,-0.018827716,0.052332822,-0.029697446,0.041530054,-0.96120673,0.51971716,-0.9411431,0.8466303,0.8031875,-0.6753739,0.82922375,-0.8689567,-0.44615468,-0.9900947,-0.6982968,-0.4996717,-0.9622491,0.45665854,-0.94803905,0.8829441,0.8309292,-0.71019745,0.7993052,-0.84087193,-0.2963469,-0.99062526,-0.6944895,-0.4299194
2025-06-04 17:09:05.792,0.04805654,-0.045391917,-0.02039135,-0.036149263,0.004966213,-0.04996975,0.0,0.0,0.0,-0.0016142351,-0.16893323,0.18134485,-0.16770396,0.11147268,0.35069644,-0.1308774,0.07644243,-0.3889988,-0.0490781,-0.083567865,-0.30518925,0.06294116,-0.011218175,-0.047735624,-0.06831633,-0.048133772,-0.024049783,-0.047741782,-0.06814736,-0.069189586,-0.036530714,-0.02972422,-0.03856075,0.046386655,-0.9622491,0.45665854,-0.94803905,0.8829441,0.8309292,-0.71019745,0.7993052,-0.84087193,-0.2963469,-0.99062526,-0.6944895,-0.4299194,-0.9695687,0.43308586,-0.9486784,0.8882824,0.8247227,-0.6804894,0.7800082,-0.796248,-0.09497272,-0.989819,-0.68486893,-0.31266898
2025-06-04 17:09:05.815,-0.02799522,0.003149922,-0.017622905,-0.035797853,0.044031978,-0.0011024864,0.0,0.0,0.0,-0.0014841435,-0.15763031,0.19223998,-0.16709536,0.11104174,0.34771144,-0.12022925,0.06878896,-0.40347,-0.057470948,-0.07692242,-0.30140465,0.058335114,0.049278937,0.0010625211,-0.0051546874,-0.06630384,0.050041866,-0.0025713213,0.0388869,0.0014500758,0.0154674975,-0.026231367,-0.024313096,-0.05483344,-0.9695687,0.43308586,-0.9486784,0.8882824,0.8247227,-0.6804894,0.7800082,-0.796248,-0.09497272,-0.989819,-0.68486893,-0.31266898,-0.96688443,0.5354535,-0.94642746,0.90806353,0.86463606,-0.76394147,0.7377142,-0.8025601,-0.31330675,-0.99431056,-0.72161835,-0.39190084
2025-06-04 17:09:05.832,-0.013113534,-0.048825815,-0.03465236,0.013272805,0.03126356,-0.03831068,0.0,0.0,0.0,-0.0013405876,-0.16343138,0.19399118,-0.14826526,0.11710466,0.3435048,-0.12376629,0.08548088,-0.39187598,-0.03901271,-0.08715353,-0.31174916,0.059281014,0.042280965,0.04922394,0.039249282,-0.039706003,0.08168949,0.061783347,0.012816328,-0.05663065,0.008466178,0.0032713874,0.017819306,0.07543761,-0.96688443,0.5354535,-0.94642746,0.90806353,0.86463606,-0.76394147,0.7377142,-0.8025601,-0.31330675,-0.99431056,-0.72161835,-0.39190084,-0.9522467,0.50072795,-0.9080818,0.80347943,0.8052846,-0.7655968,0.8162365,-0.83929306,-0.5606444,-0.98700595,-0.8106191,-0.4275519
2025-06-04 17:09:05.852,0.022432517,-0.03192339,-0.022938702,-0.023626573,0.05278331,-0.033327177,0.0,0.0,0.0,-0.0014219515,-0.17062464,0.18315077,-0.15782866,0.13149802,0.33935276,-0.13947408,0.0689417,-0.40106422,-0.04171896,-0.07503249,-0.30006513,0.060271703,0.027910227,0.018035807,-0.0076485085,0.008871869,0.0007358991,-0.0423788,0.06561669,0.041260935,0.06722092,-0.01857764,-0.028791586,-0.010725315,-0.9522467,0.50072795,-0.9080818,0.80347943,0.8052846,-0.7655968,0.8162365,-0.83929306,-0.5606444,-0.98700595,-0.8106191,-0.4275519,-0.93278307,0.6046829,-0.8978152,0.7969752,0.7807194,-0.7641584,0.8092678,-0.8409131,-0.57266414,-0.9867406,-0.7937073,-0.46440613
2025-06-04 17:09:05.874,0.041909486,-0.031705648,0.022826908,-0.0017182301,0.047704317,0.005121584,0.0,0.0,0.0,-0.0017465479,-0.1691505,0.19750619,-0.15725152,0.12824765,0.35147956,-0.12963031,0.08329491,-0.3821368,-0.054370455,-0.08485012,-0.31514788,0.062382653,-0.05319755,-0.03792132,0.00033059463,-0.00017814043,-0.07077868,0.012502297,-0.008229529,0.048854563,0.018111179,-0.06860067,0.054983605,0.028919406,-0.93278307,0.6046829,-0.8978152,0.7969752,0.7807194,-0.7641584,0.8092678,-0.8409131,-0.57266414,-0.9867406,-0.7937073,-0.46440613,-0.9593228,0.50506765,-0.91721976,0.7493658,0.8032992,-0.7665193,0.8822677,-0.86988497,-0.5631725,-0.9855284,-0.72596407,-0.46457237
