openverse-orca/OrcaGym/log/simulation_log_20250721_142608.csv
timestamp,sim_time,physics_step,control_step,imu_angle_roll,imu_angle_pitch,imu_angle_yaw,imu_angular_velocity_roll,imu_angular_velocity_pitch,imu_angular_velocity_yaw,imu_acc_x,imu_acc_y,imu_acc_z,fl_joint1_pos,fl_joint1_vel,fl_joint1_torque,fl_joint2_pos,fl_joint2_vel,fl_joint2_torque,fl_joint3_pos,fl_joint3_vel,fl_joint3_torque,fr_joint1_pos,fr_joint1_vel,fr_joint1_torque,fr_joint2_pos,fr_joint2_vel,fr_joint2_torque,fr_joint3_pos,fr_joint3_vel,fr_joint3_torque,hl_joint1_pos,hl_joint1_vel,hl_joint1_torque,hl_joint2_pos,hl_joint2_vel,hl_joint2_torque,hl_joint3_pos,hl_joint3_vel,hl_joint3_torque,hr_joint1_pos,hr_joint1_vel,hr_joint1_torque,hr_joint2_pos,hr_joint2_vel,hr_joint2_torque,hr_joint3_pos,hr_joint3_vel,hr_joint3_torque,fl_force_x,fl_force_y,fl_force_z,fr_force_x,fr_force_y,fr_force_z,hl_force_x,hl_force_y,hl_force_z,hr_force_x,hr_force_y,hr_force_z,fl_hip_action,fl_thigh_action,fl_calf_action,fr_hip_action,fr_thigh_action,fr_calf_action,hl_hip_action,hl_thigh_action,hl_calf_action,hr_hip_action,hr_thigh_action,hr_calf_action
2025-07-21 14:26:08.436,0.0,0,0,-0.03968375,-0.025484333,0.009975723,0.014743565,0.022409745,-0.003008558,0.88089925,0.6361025,0.0,0.0,-0.0066919206,0.0047889785,-0.0034638431,-0.0021547587,0.007421284,0.008246921,0.0013247321,-0.0058950516,0.0018542614,0.0071641044,-0.007955244,-0.007011284,-0.011895666,0.050080024,0.040055975,0.060073517,0.06900612,0.07270549,-0.0039761686,-0.073329896,0.055671696,-0.06982532,-0.0634064,0.029444588,0.0,0.0,0.0,0.0,0.0,0.0,0.0,0.0,0.0,0.0,0.0,0.0,0.377876,-0.41901463,-1.2023307,0.89800864,0.8151555,-0.5333529,2.0,-1.2665669,-1.1480026,-2.0,-0.026717125,-1.4144411
2025-07-21 14:26:08.452,0.02,20,1,0.019956646,0.010278276,-0.0026038333,-0.027735328,0.00501972,0.0028704135,0.0,0.0,0.0,0.0,-0.0075133857,-0.009180752,-0.027438996,0.0068956823,0.029511051,-0.02182465,0.017453425,-0.035636496,-0.02789951,-0.017694306,-0.0065097925,-0.024473442,0.07026989,-0.09606011,-0.1589975,-0.051702186,0.02734896,-0.103891425,0.10577689,-0.09653728,-0.1469345,-0.000100690035,0.051261906,-0.13320233,0.377876,-0.41901463,-1.2023307,0.89800864,0.8151555,-0.5333529,2.0,-1.2665669,-1.1480026,-2.0,-0.026717125,-1.4144411,0.47917733,-0.31218183,-0.34316644,-0.118227765,1.832258,-0.21750614,1.6486723,-1.019589,-1.170941,-2.0,-0.91731566,1.211468
2025-07-21 14:26:08.469,0.04,40,2,0.015521579,0.0126847075,-0.060587175,0.028062683,-0.010150186,0.0029298698,0.0,0.0,0.0,0.0003720806,0.0071313963,-0.032173123,-0.0361106,0.012236978,0.08881732,-0.030832574,0.04010835,-0.0946859,-0.046076626,-0.03591088,-0.034287736,-0.009765671,-0.019601343,-0.02118687,0.026140824,-0.053151123,0.2667591,0.041793764,-0.0015155389,-0.08234123,-0.098282605,-0.08647931,-0.13762833,0.16429794,0.47917733,-0.31218183,-0.34316644,-0.118227765,1.832258,-0.21750614,1.6486723,-1.019589,-1.170941,-2.0,-0.91731566,1.211468,1.4656488,0.34405568,-0.9852604,-1.3951857,0.9082714,-1.1253474,0.19139057,-0.5442794,0.2549537,-2.0,-0.9185351,2.0
2025-07-21 14:26:08.486,0.06,60,3,0.049037196,0.093212046,0.014936677,-0.044207018,-0.0113803325,0.038753953,0.0,0.0,0.0,0.0010197299,0.016829258,-0.054681238,-0.015533382,0.018950958,0.13702047,-0.039622013,0.04714538,-0.12659366,-0.015276632,-0.062874466,-0.08342717,0.03990824,0.005162253,-0.02311076,0.07349221,0.021840828,-0.05577454,0.0579959,0.027757918,-0.18202168,0.12652592,-0.043157708,-0.14279166,0.12049386,1.4656488,0.34405568,-0.9852604,-1.3951857,0.9082714,-1.1253474,0.19139057,-0.5442794,0.2549537,-2.0,-0.9185351,2.0,2.0,0.39779893,-2.0,-2.0,1.7458047,1.6272128,-2.0,-1.3383877,2.0,-2.0,-0.6708727,1.2433492
2025-07-21 14:26:08.506,0.08,80,4,0.064591244,0.056820083,-0.049884267,-0.012250238,-0.032598283,0.008611095,0.0,0.0,0.0,0.0012070539,0.026560916,-0.072261065,0.014723699,0.0036544332,0.124332376,0.031931918,0.033604156,-0.18121219,0.048351973,-0.07514137,-0.12234295,0.09732359,0.024208128,-0.1147142,0.06901605,-0.053645387,-0.040733844,0.16924179,-0.04478547,-0.15020621,0.123570375,-0.038776197,-0.026726646,0.20491911,2.0,0.39779893,-2.0,-2.0,1.7458047,1.6272128,-2.0,-1.3383877,2.0,-2.0,-0.6708727,1.2433492,2.0,0.6867579,-2.0,-2.0,1.1067992,2.0,-2.0,0.11396807,2.0,-2.0,-2.0,-2.0
2025-07-21 14:26:08.527,0.1,100,5,0.054399535,0.08386081,0.023487637,-0.03563908,-0.04391593,0.048062187,0.0,0.0,0.0,0.0016005005,0.019458836,-0.10397124,0.06626391,-0.012722485,0.11614018,0.10582942,0.019651292,-0.19241849,0.124347694,-0.0720271,-0.14845495,0.16335952,-0.03199982,-0.11803108,0.09492357,0.0032784594,0.03819939,0.13041764,-0.031761333,0.12051229,0.16882697,-0.04395286,-0.03157942,0.083013855,2.0,0.6867579,-2.0,-2.0,1.1067992,2.0,-2.0,0.11396807,2.0,-2.0,-2.0,-2.0,2.0,-0.09585872,-2.0,-2.0,1.3961453,2.0,-2.0,0.25626704,2.0,-2.0,-1.2749676,-2.0
2025-07-21 14:26:08.552,0.12000000000000001,120,6,-0.01338056,0.09471214,-0.055543073,-0.031072967,-0.05221767,0.02879611,0.0,0.0,0.0,0.0020427392,0.007911598,-0.12261222,0.09538811,-0.021234378,0.14507428,0.15126613,-0.0004637667,-0.1490303,0.15342984,-0.080880314,-0.16330455,0.21855879,0.056015626,-0.0785872,0.13869244,-0.1372811,0.090642825,0.02122228,0.013784424,0.08733777,0.10890598,0.068981245,0.019364206,0.13139196,2.0,-0.09585872,-2.0,-2.0,1.3961453,2.0,-2.0,0.25626704,2.0,-2.0,-1.2749676,-2.0,2.0,0.3812914,-2.0,-2.0,1.29704,1.686307,-2.0,0.43476826,2.0,-2.0,-2.0,-2.0
2025-07-21 14:26:08.569,0.14,140,7,0.10257067,0.14010212,-0.055008594,-0.045044124,-0.030612277,-0.044758353,0.0,0.0,0.0,0.0026943074,0.02699147,-0.122720174,0.12643111,-0.045215614,0.1773642,0.17920703,-0.012756882,-0.082324095,0.18857999,-0.07700574,-0.18754883,0.26546228,-0.00415433,-0.070229076,0.06785644,-0.08528927,0.069964305,0.14697368,-0.07201371,0.14356613,0.008387151,-0.017852206,-0.05698558,0.06255818,2.0,0.3812914,-2.0,-2.0,1.29704,1.686307,-2.0,0.43476826,2.0,-2.0,-2.0,-2.0,2.0,0.62123305,-1.734055,-2.0,1.3170497,1.5140045,-2.0,0.4334026,2.0,-2.0,-2.0,-2.0
2025-07-21 14:26:08.587,0.16,160,8,0.08186489,0.09620215,-0.1280063,-0.01680715,-0.0026672,0.034104478,0.0,0.0,0.0,0.003810807,0.01742396,-0.135405,0.13388678,-0.0677218,0.20475802,0.22204144,-0.037467565,-0.004154334,0.19304645,-0.07621105,-0.21309951,0.31194007,-0.06881594,-0.015723946,-0.012945927,-0.016765792,-0.034004178,0.05893362,-0.08575353,0.18850042,0.023231179,-0.056717094,-0.04521113,0.04078493,2.0,0.62123305,-1.734055,-2.0,1.3170497,1.5140045,-2.0,0.4334026,2.0,-2.0,-2.0,-2.0,2.0,1.290828,-0.92709607,-2.0,1.0373131,0.95829785,-2.0,0.368321,2.0,-2.0,-2.0,-2.0
2025-07-21 14:26:08.607,0.18,180,9,0.15481158,0.033642024,-0.09130707,0.008802957,-0.06504462,-0.041049786,0.0,0.0,0.0,0.00534604,0.0040421598,-0.12815374,0.14504616,-0.074420825,0.21725217,0.22954549,-0.03602048,0.03743104,0.21354912,-0.068703756,-0.2153376,0.33622423,0.0064034583,0.07154049,-0.026863676,0.0354619,-0.037764803,-0.016025333,-0.057182096,0.078622,0.08636933,0.068205886,-0.039495666,0.075475335,2.0,1.290828,-0.92709607,-2.0,1.0373131,0.95829785,-2.0,0.368321,2.0,-2.0,-2.0,-2.0,2.0,1.0908682,-1.0779808,-2.0,1.0199926,1.3267257,-2.0,0.19667017,2.0,-1.7433007,-2.0,-2.0
2025-07-21 14:26:08.627,0.19999999999999998,200,10,0.122593656,0.04280122,-0.04611907,-0.036209963,-0.047555324,-0.01648972,0.0,0.0,0.0,0.00691325,0.005304706,-0.13832065,0.14899018,-0.077579275,0.22471626,0.24614523,-0.053693417,0.071310535,0.21597584,-0.07626439,-0.2321918,0.37092,-0.036496367,0.055231463,0.04017651,0.005819214,0.07507353,0.028792782,-0.032485947,0.09089683,0.04657606,0.0023646874,0.032613643,0.11541218,2.0,1.0908682,-1.0779808,-2.0,1.0199926,1.3267257,-2.0,0.19667017,2.0,-1.7433007,-2.0,-2.0,2.0,0.9838883,-1.2951859,-2.0,0.93955266,1.3756996,-2.0,0.2812606,2.0,-1.6641028,-2.0,-2.0
2025-07-21 14:26:08.653,0.21999999999999997,220,11,0.15305999,0.07611777,-0.09668977,-0.042219583,-0.05515994,-0.037192438,0.0,0.0,0.0,0.008252422,-0.0076637133,-0.12813807,0.14819048,-0.08766526,0.23279852,0.24768122,-0.04528108,0.08054174,0.2311582,-0.0626367,-0.24074508,0.4040829,0.01959717,0.0601382,-0.083829485,-0.04728136,0.018237283,0.036091663,-0.06618379,0.0631696,0.07151617,0.033076514,0.053065218,0.046708997,2.0,0.9838883,-1.2951859,-2.0,0.93955266,1.3756996,-2.0,0.2812606,2.0,-1.6641028,-2.0,-2.0,2.0,1.1064434,-0.99202925,-2.0,0.9001461,1.172428,-2.0,0.44041058,2.0,-1.5126921,-2.0,-2.0
2025-07-21 14:26:08.670,0.23999999999999996,240,12,0.06736364,0.06532954,-0.019319864,-0.06840774,-0.08243277,-0.034002475,0.0,0.0,0.0,0.009400475,-0.001528505,-0.10889811,0.1292703,-0.08661859,0.24152933,0.24506317,-0.04029295,0.082714185,0.23153816,-0.07841092,-0.2436095,0.4206395,0.05096342,0.07076272,-0.027321426,-0.06882671,0.07993428,-0.06492558,0.0069527198,0.002107582,-0.0070338715,0.019014118,-0.050519723,0.11810151,2.0,1.1064434,-0.99202925,-2.0,0.9001461,1.172428,-2.0,0.44041058,2.0,-1.5126921,-2.0,-2.0,2.0,0.91775554,-1.0463966,-2.0,0.8606262,1.2132728,-2.0,0.40080854,2.0,-0.9280475,-2.0,-2.0
2025-07-21 14:26:08.688,0.25999999999999995,260,13,0.049127437,0.06569896,-0.04978937,-0.033762224,-0.091477275,0.03614895,0.0,0.0,0.0,0.0101879295,-0.00014632668,-0.11352775,0.120266125,-0.09224505,0.24947168,0.24627942,-0.0443377,0.09393115,0.22338364,-0.070238285,-0.23526573,0.4391318,-0.013968078,0.061517205,0.019539792,-0.03587927,-0.035378266,-0.034679603,0.06744185,0.03712256,0.019202856,-0.037928835,-0.05123785,0.10838863,2.0,0.91775554,-1.0463966,-2.0,0.8606262,1.2132728,-2.0,0.40080854,2.0,-0.9280475,-2.0,-2.0,2.0,1.0494733,-0.8363974,-2.0,0.60258573,1.0841577,-2.0,0.5239782,2.0,-0.34756866,-2.0,-2.0
2025-07-21 14:26:08.708,0.27999999999999997,280,14,0.1157255,0.10464778,-0.005390768,-0.10068131,-0.071848206,-0.017060656,0.0,0.0,0.0,0.010649558,-0.0069113728,-0.09551469,0.123192176,-0.09302546,0.25847945,0.24752714,-0.037202332,0.11111913,0.23322268,-0.08404902,-0.23760852,0.45312464,0.080188304,0.026155325,-0.092642516,0.058846794,0.02263908,0.03340872,-0.018818516,0.018710898,-0.026490778,0.06146403,-0.0076563517,0.031179039,2.0,1.0494733,-0.8363974,-2.0,0.60258573,1.0841577,-2.0,0.5239782,2.0,-0.34756866,-2.0,-2.0,2.0,0.65013427,-1.0191839,-2.0,0.2801667,1.2493725,-2.0,0.62570614,2.0,0.6316572,-1.8925352,-2.0
2025-07-21 14:26:08.728,0.3,300,15,0.07599164,0.10679173,-0.023673745,-0.047155872,-0.093727626,-0.024665363,0.0,0.0,0.0,0.010834845,0.011711286,-0.08629132,0.1075543,-0.081814915,0.24355404,0.24414903,-0.054071285,0.12803052,0.22697468,-0.06536422,-0.23270696,0.46291077,0.026857154,-0.034183845,-0.09516969,-0.0028230157,-0.04957951,-0.052455,-0.001578304,0.015043602,-0.06645675,-0.035768766,0.07826716,0.10165336,2.0,0.65013427,-1.0191839,-2.0,0.2801667,1.2493725,-2.0,0.62570614,2.0,0.6316572,-1.8925352,-2.0,2.0,0.861127,-0.6679542,-2.0,-0.12726867,0.7811628,-2.0,0.92726666,1.4890059,1.5795963,-1.7883565,-2.0
2025-07-21 14:26:08.753,0.32,320,16,0.061856356,0.06308842,0.02925837,-0.08865409,-0.14041017,0.0002041338,0.0,0.0,0.0,0.010933013,0.019035682,-0.07490855,0.10927154,-0.088268876,0.22974189,0.2527525,-0.055498287,0.13014978,0.22503366,-0.06651316,-0.22709298,0.47384202,-0.03364416,0.002432626,0.05019653,-0.035729222,-0.09354741,0.043933343,0.064213544,0.08339374,-0.090517335,-0.0073724836,0.062117517,0.026176289,2.0,0.861127,-0.6679542,-2.0,-0.12726867,0.7811628,-2.0,0.92726666,1.4890059,1.5795963,-1.7883565,-2.0,2.0,0.9736026,-1.0100586,-2.0,-0.34130913,0.8409868,-1.9626333,0.43532634,0.19390337,2.0,-1.552714,-2.0
2025-07-21 14:26:08.769,0.34,340,17,0.09782074,0.08881091,-0.022685083,-0.069823526,-0.07773017,0.027815318,0.0,0.0,0.0,0.011070197,0.018524917,-0.048062548,0.0993845,-0.082570136,0.19955884,0.2589385,-0.0544692,0.15396346,0.17608206,-0.055599723,-0.2312275,0.47390622,0.0718747,0.0942169,-0.03585441,-0.013099401,-0.13694717,-0.03511645,0.028691141,0.0801596,-0.08291484,0.027709473,0.008169255,-0.06958352,2.0,0.9736026,-1.0100586,-2.0,-0.34130913,0.8409868,-1.9626333,0.43532634,0.19390337,2.0,-1.552714,-2.0,2.0,2.0,-1.2152036,-2.0,0.2434848,0.3857323,-2.0,0.274014,-0.38534003,2.0,-2.0,-2.0
2025-07-21 14:26:08.788,0.36000000000000004,360,18,0.0583883,0.089521736,0.016098585,-0.09024804,-0.15076962,-0.00020238057,0.0,0.0,0.0,0.011517238,0.029121775,-0.03803812,0.073214166,-0.075169966,0.19830537,0.2549629,-0.050440904,0.15751687,0.15290092,-0.0376553,-0.21928363,0.48331383,-0.039407857,0.117163934,-0.11432118,-0.043929044,-0.026863592,0.023570832,0.02457258,-0.004753108,-0.079374835,-0.019027602,-0.020996917,0.008511527,2.0,2.0,-1.2152036,-2.0,0.2434848,0.3857323,-2.0,0.274014,-0.38534003,2.0,-2.0,-2.0,2.0,2.0,-2.0,-2.0,0.80826,0.74622023,-2.0,-0.32167128,-0.7625539,2.0,-2.0,-2.0
2025-07-21 14:26:08.809,0.38000000000000006,380,19,0.14560893,0.1288234,-0.07558924,-0.11470906,-0.14688724,-0.02953104,0.0,0.0,0.0,0.011888816,0.04319601,-0.0048884493,0.048110425,-0.06476336,0.19343275,0.22821331,-0.046622947,0.15261717,0.1402068,-0.021977114,-0.206028,0.48430198,-0.01903717,0.010415427,-0.072801694,0.03513421,0.02110934,-0.04879146,-0.028334394,-0.059145886,-0.08598014,-0.02502242,0.026853576,-0.0033653493,2.0,2.0,-2.0,-2.0,0.80826,0.74622023,-2.0,-0.32167128,-0.7625539,2.0,-2.0,-2.0,2.0,2.0,-2.0,-2.0,1.0896353,0.26264435,-2.0,0.21281797,-0.39717975,2.0,-2.0,-2.0
2025-07-21 14:26:08.831,0.4000000000000001,400,20,0.066260494,0.11671116,-0.019416435,-0.134731,-0.16502717,0.018615974,0.0,0.0,0.0,0.01220841,0.032045543,0.035083074,0.012178855,-0.060724847,0.20693266,0.21067382,-0.03536327,0.15971182,0.12882802,-0.016703438,-0.20109335,0.46991405,-0.01761525,0.03445808,-0.076991044,0.036503717,0.0509403,-0.14819941,-0.037241183,-0.07322491,-0.08394329,0.007999775,0.018227842,-0.058514543,2.0,2.0,-2.0,-2.0,1.0896353,0.26264435,-2.0,0.21281797,-0.39717975,2.0,-2.0,-2.0,2.0,2.0,-2.0,-2.0,0.97425526,0.4462477,-2.0,-0.0077589806,-0.7747778,2.0,-2.0,-2.0
2025-07-21 14:26:08.853,0.4200000000000001,420,21,0.089969054,0.11614415,-0.07409532,-0.13607259,-0.12673043,-0.013556193,0.0,0.0,0.0,0.01270352,0.0408952,0.075590454,-0.029300792,-0.051734712,0.23507516,0.18325877,-0.033273745,0.14071074,0.11552755,-0.008941853,-0.18230112,0.45761278,0.059315223,0.09163028,-0.11710218,-0.0153750405,-0.02094655,0.007215833,-0.013447806,0.0035124838,-0.0073376475,0.047491826,0.0858674,0.02337621,2.0,2.0,-2.0,-2.0,0.97425526,0.4462477,-2.0,-0.0077589806,-0.7747778,2.0,-2.0,-2.0,2.0,2.0,-2.0,-2.0,1.0934794,0.3456241,-2.0,0.020965392,-0.59470576,2.0,-2.0,-2.0
2025-07-21 14:26:08.869,0.4400000000000001,440,22,0.11796088,0.023565218,-0.002339654,-0.08928117,-0.17025784,0.046104345,0.0,0.0,0.0,0.013184437,0.043558355,0.1093071,-0.068589784,-0.057428658,0.23404875,0.1552245,-0.049706556,0.13103713,0.09769347,0.010513773,-0.17350891,0.44392794,-0.035018448,0.13177824,-0.035544064,-0.013950845,-0.042143963,-0.008782651,-0.084865056,-0.03834539,0.024735197,0.052519206,-0.04043762,-0.07267696,2.0,2.0,-2.0,-2.0,1.0934794,0.3456241,-2.0,0.020965392,-0.59470576,2.0,-2.0,-2.0,2.0,2.0,-2.0,-2.0,1.0235337,0.62373435,-2.0,-0.2212069,-0.68793774,2.0,-1.9278048,-2.0
2025-07-21 14:26:08.889,0.46000000000000013,460,23,0.012696386,0.052852154,-0.058682542,-0.15117653,-0.14842875,-0.046414502,0.0,0.0,0.0,0.013609689,0.047985736,0.15849161,-0.090104945,-0.04947538,0.24570113,0.12842694,-0.055127233,0.13332422,0.08315608,0.02686772,-0.15551999,0.42941666,0.049248386,0.14401332,-0.11760718,0.058192324,0.032201555,-0.0029411332,-0.046565328,-0.057011254,0.011528245,0.020754999,-0.02341675,0.008102043,2.0,2.0,-2.0,-2.0,1.0235337,0.62373435,-2.0,-0.2212069,-0.68793774,2.0,-1.9278048,-2.0,2.0,2.0,-2.0,-2.0,1.0319521,0.39747405,-2.0,0.12477755,-0.5186555,2.0,-2.0,-2.0
2025-07-21 14:26:08.909,0.48000000000000015,480,24,0.074010484,0.030425087,-0.024025591,-0.13775302,-0.17495768,0.028813213,0.0,0.0,0.0,0.013978962,0.042408165,0.20078905,-0.12546082,-0.063428625,0.2495142,0.12095643,-0.0621385,0.10820863,0.055171847,0.02776454,-0.14376926,0.42235407,-0.05562689,0.09144844,-0.113163866,0.027921114,-0.047161546,-0.00041672276,-0.06093121,-0.035802286,-0.08801004,0.029884893,-0.011302552,-0.037282616,2.0,2.0,-2.0,-2.0,1.0319521,0.39747405,-2.0,0.12477755,-0.5186555,2.0,-2.0,-2.0,2.0,2.0,-2.0,-2.0,0.94695395,0.48147815,-2.0,-0.13131091,-0.7627496,2.0,-2.0,-2.0
2025-07-21 14:26:08.935,0.5000000000000001,500,25,0.055419102,-0.050177936,0.015514713,-0.076201186,-0.1541745,-0.0029297639,0.0,0.0,0.0,0.014137379,0.041121233,0.2311673,-0.14771204,-0.0583105,0.25975496,0.11029866,-0.06624164,0.10096979,0.055813782,0.028110694,-0.1505413,0.43093336,0.043139357,0.04836577,-0.01990785,0.03363265,0.021089833,-0.01911108,-0.0184199,-0.06686211,0.07442208,-0.03954675,-0.013372881,0.060054168,2.0,2.0,-2.0,-2.0,0.94695395,0.48147815,-2.0,-0.13131091,-0.7627496,2.0,-2.0,-2.0,2.0,2.0,-2.0,-2.0,0.9985603,0.57652456,-2.0,-0.38916835,-0.8157838,2.0,-1.65337,-2.0
2025-07-21 14:26:08.953,0.5200000000000001,520,26,-0.017093824,-0.0033244644,-0.026499184,-0.14064427,-0.1883165,0.049706582,0.0,0.0,0.0,0.014031833,0.0360604,0.2435596,-0.15428686,-0.07178529,0.26183584,0.1146262,-0.0829663,0.09952889,0.059183452,0.04530498,-0.12919107,0.42814794,-0.010425912,0.051593423,0.001843566,-0.0519955,0.02279086,-0.0039691883,-0.074397996,0.040874403,-0.023663998,-0.026174093,-0.004431971,-0.036974765,2.0,2.0,-2.0,-2.0,0.9985603,0.57652456,-2.0,-0.38916835,-0.8157838,2.0,-1.65337,-2.0,2.0,2.0,-2.0,-2.0,0.93059933,0.35903484,-2.0,-0.10463182,-0.7628167,2.0,-1.8547142,-2.0
2025-07-21 14:26:08.970,0.5400000000000001,540,27,-0.008152195,-0.021678174,0.0284569,-0.08373509,-0.1561481,0.008255536,0.0,0.0,0.0,0.013999278,0.038688205,0.26518127,-0.14251834,-0.06472076,0.25869682,0.1149183,-0.07376724,0.08619146,0.057618238,0.035670586,-0.12582949,0.42143172,-0.038406376,-0.008250293,0.05617114,-0.02765177,0.012390784,0.012368634,-0.064335704,-0.04651839,-0.03492369,-0.05695358,-0.056452814,-0.011530187,2.0,2.0,-2.0,-2.0,0.93059933,0.35903484,-2.0,-0.10463182,-0.7628167,2.0,-1.8547142,-2.0,2.0,2.0,-2.0,-2.0,0.974962,0.53175765,-2.0,-0.46645775,-0.97327113,2.0,-1.5866104,-2.0
2025-07-21 14:26:08.990,0.5600000000000002,560,28,-0.0673334,-0.003318493,0.043061215,-0.12546891,-0.18485102,0.0018687572,0.0,0.0,0.0,0.013956477,0.041151524,0.2786188,-0.13578492,-0.06925899,0.250558,0.1129322,-0.07250303,0.086485885,0.06840907,0.046046756,-0.13055497,0.40948278,0.05596236,-0.032713503,0.03342364,-0.0374097,-0.018963883,0.019865954,-0.039030906,-0.05584802,0.023838965,0.07709013,0.024293259,-0.06496416,2.0,2.0,-2.0,-2.0,0.974962,0.53175765,-2.0,-0.46645775,-0.97327113,2.0,-1.5866104,-2.0,2.0,2.0,-2.0,-2.0,0.9273404,0.52095795,-2.0,-0.48240182,-1.0034202,2.0,-1.1331223,-2.0
2025-07-21 14:26:09.010,0.5800000000000002,580,29,-0.09347473,-0.078379884,0.004034704,-0.13420585,-0.17685597,-0.017408941,0.0,0.0,0.0,0.013962388,0.030221712,0.26830283,-0.12711923,-0.059207454,0.26265997,0.12043686,-0.082781024,0.0787175,0.06899549,0.049922217,-0.12250164,0.40868488,-0.040010545,-0.061346654,0.101929374,-0.0010728167,0.08406862,-0.009175212,0.0667886,0.025451314,0.07241491,-0.027446425,0.06699032,0.044580754,2.0,2.0,-2.0,-2.0,0.9273404,0.52095795,-2.0,-0.48240182,-1.0034202,2.0,-1.1331223,-2.0,2.0,2.0,-2.0,-2.0,0.79575074,0.30160993,-2.0,-0.3611903,-1.2452034,2.0,-1.266938,-2.0
2025-07-21 14:26:09.035,0.6000000000000002,600,30,-0.090493605,-0.102524,-0.029580342,-0.058925953,-0.13305493,0.031988494,0.0,0.0,0.0,0.01437564,0.036638673,0.2683663,-0.12631556,-0.06165177,0.262962,0.13012972,-0.06686644,0.07955538,0.076527305,0.05106993,-0.10603098,0.40259394,-0.0050061434,-0.047484815,0.048562195,0.030973425,-0.038693264,-0.004160646,0.05249412,0.0075559225,-0.036480017,-0.0010944734,0.07471349,-0.06032727,2.0,2.0,-2.0,-2.0,0.79575074,0.30160993,-2.0,-0.3611903,-1.2452034,2.0,-1.266938,-2.0,2.0,2.0,-2.0,-2.0,1.0525964,0.17165275,-2.0,-0.43002942,-1.3705802,2.0,-1.6885972,-2.0
2025-07-21 14:26:09.053,0.6200000000000002,620,31,-0.05995262,-0.06801996,-0.048060432,-0.12128206,-0.16506116,-0.0109688975,0.0,0.0,0.0,0.014986544,0.030759055,0.26864007,-0.114696145,-0.07110388,0.27099833,0.123904906,-0.08300461,0.077063,0.0871583,0.06468037,-0.088490166,0.39269477,-0.041634873,-0.061451506,0.015663896,0.025785394,0.042854983,-0.052487656,0.07856127,-0.057039667,0.062084302,0.015252396,0.015436478,-0.04273604,2.0,2.0,-2.0,-2.0,1.0525964,0.17165275,-2.0,-0.43002942,-1.3705802,2.0,-1.6885972,-2.0,2.0,2.0,-2.0,-2.0,1.320581,0.30263793,-2.0,-0.39931557,-1.236568,2.0,-1.8579233,-2.0
2025-07-21 14:26:09.070,0.6400000000000002,640,32,-0.018664498,-0.051554672,-0.030052736,-0.13107546,-0.17570929,0.03744865,0.0,0.0,0.0,0.015416244,0.038468424,0.26849735,-0.09511085,-0.060138974,0.27822003,0.12052814,-0.07452197,0.08706199,0.09632898,0.07877751,-0.08715631,0.37776774,-0.03220571,-0.04832882,-0.040361267,-0.0025219575,0.023778094,0.030281197,0.055729054,-0.07580604,0.07021244,0.022442997,0.045394346,-0.058564883,2.0,2.0,-2.0,-2.0,1.320581,0.30263793,-2.0,-0.39931557,-1.236568,2.0,-1.8579233,-2.0,2.0,2.0,-2.0,-2.0,1.2816133,0.47036004,-2.0,-0.4402228,-1.1003954,2.0,-1.6138304,-2.0
2025-07-21 14:26:09.090,0.6600000000000003,660,33,0.007947917,-0.026427083,-0.0055511305,-0.1250562,-0.17362322,0.002209189,0.0,0.0,0.0,0.0155381,0.03971879,0.26598498,-0.09017201,-0.06713355,0.27851105,0.120217696,-0.06620927,0.07741026,0.10835422,0.06473885,-0.08344813,0.3847367,-0.006001206,0.033051714,0.041297257,0.040131226,0.06012623,0.004244188,-0.017606158,-0.0007688037,0.07835516,-0.008955357,-0.0692487,-0.01437513,2.0,2.0,-2.0,-2.0,1.2816133,0.47036004,-2.0,-0.4402228,-1.1003954,2.0,-1.6138304,-2.0,2.0,2.0,-2.0,-2.0,1.0874826,0.5328381,-2.0,-0.38237154,-0.98284644,2.0,-1.4075842,-2.0
2025-07-21 14:26:09.110,0.6800000000000003,680,34,-0.031709936,-0.07314364,0.05268119,-0.12573746,-0.14641638,0.014580427,0.0,0.0,0.0,0.015494294,0.04517514,0.26677707,-0.079287454,-0.055123467,0.28343558,0.12114502,-0.06326966,0.07443711,0.10059662,0.07260776,-0.08378871,0.37057665,0.035333037,0.042283073,-0.046395358,0.009493381,0.0045084506,0.05866078,0.0074992627,0.031410567,0.08544235,0.035218023,-0.003783256,-0.046352275,2.0,2.0,-2.0,-2.0,1.0874826,0.5328381,-2.0,-0.38237154,-0.98284644,2.0,-1.4075842,-2.0,2.0,2.0,-2.0,-2.0,0.8284876,0.63914686,-2.0,-0.503647,-1.0918057,2.0,-0.7066093,-2.0
2025-07-21 14:26:09.136,0.7000000000000003,700,35,-0.10084589,-0.0060403887,-0.058789827,-0.112282194,-0.098208785,-0.049914323,0.0,0.0,0.0,0.015432466,0.037800305,0.2717454,-0.08508542,-0.05819044,0.2752341,0.1241024,-0.07373073,0.08122946,0.101480335,0.0704555,-0.08076129,0.37021524,-0.015379255,0.053983748,0.044247814,0.014624417,-0.013801655,0.029373664,-0.061537743,-0.04895236,0.0052080005,0.05388044,0.1047807,0.044790477,2.0,2.0,-2.0,-2.0,0.8284876,0.63914686,-2.0,-0.503647,-1.0918057,2.0,-0.7066093,-2.0,2.0,2.0,-2.0,-2.0,0.7414855,0.08270948,-2.0,-0.1011766,-1.1886654,2.0,-1.5415766,-2.0
2025-07-21 14:26:09.153,0.7200000000000003,720,36,-0.054540504,-0.05823757,0.03276367,-0.06613504,-0.09686458,0.006537153,0.0,0.0,0.0,0.015653253,0.049884018,0.28287408,-0.06660123,-0.06416893,0.26680496,0.13301718,-0.072736464,0.07285556,0.10620666,0.08099759,-0.06278881,0.36341086,0.059751038,-0.022378339,0.055325776,-0.0038596052,0.0196861,0.0680847,0.062100034,0.023109801,0.04669004,-0.015184848,0.04048759,-0.08070307,2.0,2.0,-2.0,-2.0,0.7414855,0.08270948,-2.0,-0.1011766,-1.1886654,2.0,-1.5415766,-2.0,2.0,2.0,-2.0,-2.0,1.0504699,0.44568086,-2.0,-0.846153,-1.553462,2.0,-1.2359605,-2.0
2025-07-21 14:26:09.171,0.7400000000000003,740,37,-0.0534995,-0.057803255,-0.036318336,-0.08229507,-0.15939543,0.02032251,0.0,0.0,0.0,0.015697869,0.049770083,0.27781475,-0.078398034,-0.055724278,0.26727548,0.11436607,-0.07660303,0.06768846,0.10843098,0.08644134,-0.06968369,0.3622025,-0.060528126,0.011394392,0.062375974,0.06630427,-0.014504619,0.024250614,-0.0390306,0.026364142,-0.06102423,0.0027599449,-0.028965686,-0.03580499,2.0,2.0,-2.0,-2.0,1.0504699,0.44568086,-2.0,-0.846153,-1.553462,2.0,-1.2359605,-2.0,2.0,2.0,-2.0,-2.0,1.1982306,0.21812095,-2.0,-0.29669148,-1.1931555,2.0,-1.6288894,-2.0
2025-07-21 14:26:09.191,0.7600000000000003,760,38,0.04332647,-0.022149345,-0.029589314,-0.05294221,-0.106377445,0.047733124,0.0,0.0,0.0,0.015645225,0.04602997,0.27587545,-0.07782177,-0.055606734,0.28205815,0.11927036,-0.06223663,0.07523666,0.10777056,0.08464621,-0.04981884,0.35241827,0.07246001,-0.044339143,0.0055865133,-0.041931394,0.010716078,-0.01795001,-0.0704476,-0.025256766,-0.015432201,-0.06373851,0.03805418,0.060440656,2.0,2.0,-2.0,-2.0,1.1982306,0.21812095,-2.0,-0.29669148,-1.1931555,2.0,-1.6288894,-2.0,2.0,2.0,-2.0,-2.0,1.2057287,0.41240346,-2.0,-0.4415646,-1.1518545,2.0,-1.6619365,-2.0
2025-07-21 14:26:09.211,0.7800000000000004,780,39,0.06502303,-0.040094018,0.011920951,-0.11764737,-0.17073055,0.028547237,0.0,0.0,0.0,0.015581768,0.056921497,0.2850479,-0.07059887,-0.058005743,0.28338546,0.105749875,-0.0644992,0.06973028,0.119719476,0.083559796,-0.059341934,0.33899528,0.012895148,0.0006777782,0.0034227597,-0.021800667,-0.071503654,-0.00022628283,-0.06773576,-0.031374447,0.04641613,0.006808081,-0.06112528,-0.004852636,2.0,2.0,-2.0,-2.0,1.2057287,0.41240346,-2.0,-0.4415646,-1.1518545,2.0,-1.6619365,-2.0,2.0,2.0,-2.0,-2.0,1.1505898,0.51084214,-2.0,-0.48135197,-1.0525454,2.0,-1.3478771,-2.0
2025-07-21 14:26:09.236,0.8000000000000004,800,40,0.023243949,-0.01530168,0.014049695,-0.04661702,-0.09887594,-0.023954257,0.0,0.0,0.0,0.015255737,0.050936695,0.29020026,-0.07279511,-0.06864472,0.2650592,0.111229405,-0.071602866,0.07373151,0.11114411,0.08281819,-0.058000654,0.35557666,-0.04011867,-0.049657136,-0.007380655,-0.03186354,0.056428354,0.041147757,-0.07365122,-0.06403642,0.048550427,0.07170975,0.036410503,0.016701907,2.0,2.0,-2.0,-2.0,1.1505898,0.51084214,-2.0,-0.48135197,-1.0525454,2.0,-1.3478771,-2.0,2.0,2.0,-2.0,-2.0,0.8936393,0.5523243,-2.0,-0.41521963,-1.0781841,2.0,-0.8849829,-2.0
2025-07-21 14:26:09.253,0.8200000000000004,820,41,-0.03773914,0.0011159468,0.004684999,-0.13240744,-0.13532658,-0.003606139,0.0,0.0,0.0,0.014950216,0.044130277,0.2754442,-0.060184058,-0.064604275,0.2798197,0.120688446,-0.076997764,0.0689373,0.11482342,0.09270942,-0.06424839,0.33190605,-0.061178405,-0.061042517,-0.003581086,-0.05064015,0.035798904,0.015890755,-0.003120288,0.010856028,-0.021312594,0.017436804,-0.047403038,0.044436593,2.0,2.0,-2.0,-2.0,0.8936393,0.5523243,-2.0,-0.41521963,-1.0781841,2.0,-0.8849829,-2.0,2.0,2.0,-2.0,-2.0,0.7606884,0.18164594,-2.0,-0.31181538,-1.3444592,2.0,-1.0839071,-2.0
2025-07-21 14:26:09.271,0.8400000000000004,840,42,-0.065444954,-0.036044847,0.03614023,-0.04679592,-0.08303638,-0.0052619814,0.0,0.0,0.0,0.014904318,0.050523594,0.28320974,-0.074025534,-0.05940124,0.2650272,0.11783863,-0.06375235,0.079973124,0.12353808,0.080669835,-0.061362136,0.33018166,0.022669856,-0.00039852757,-0.034914173,0.00042915766,-0.053784303,0.0545332,-0.026182216,-0.022265589,-0.065899074,-0.056397215,0.053328376,0.0049352446,2.0,2.0,-2.0,-2.0,0.7606884,0.18164594,-2.0,-0.31181538,-1.3444592,2.0,-1.0839071,-2.0,2.0,2.0,-2.0,-2.0,1.0689118,0.23258908,-2.0,-0.68311924,-1.6653863,2.0,-1.0813721,-2.0
2025-07-21 14:26:09.291,0.8600000000000004,860,43,-0.0261092,-0.05629758,-0.05988988,-0.072359934,-0.08609332,0.0121555785,0.0,0.0,0.0,0.014935909,0.054933254,0.29034927,-0.06007994,-0.074139476,0.2671546,0.11497446,-0.06317487,0.072618395,0.12318698,0.087958336,-0.0572691,0.32010573,0.058179606,0.038635828,-0.019852094,-0.06886478,0.06340472,-0.036840647,-0.05961686,0.046738602,0.06419731,-0.0006357491,-0.028506143,0.023621991,2.0,2.0,-2.0,-2.0,1.0689118,0.23258908,-2.0,-0.68311924,-1.6653863,2.0,-1.0813721,-2.0,2.0,2.0,-2.0,-2.0,1.240115,0.08888771,-2.0,-0.25603187,-1.2938883,2.0,-1.9221835,-2.0
2025-07-21 14:26:09.311,0.8800000000000004,880,44,-0.022137187,-0.03496469,0.039925344,-0.04366017,-0.084303826,0.0025072838,0.0,0.0,0.0,0.01506982,0.047590613,0.29433373,-0.05854333,-0.06987697,0.26336062,0.11204839,-0.06632239,0.07453115,0.12041417,0.08908094,-0.059539262,0.32350615,-0.04265333,-0.06466875,0.034577508,0.009451471,0.06734423,-0.03605871,-0.042262796,0.010313171,-0.0142507665,-0.07375828,-0.038979996,-0.062286135,2.0,2.0,-2.0,-2.0,1.240115,0.08888771,-2.0,-0.25603187,-1.2938883,2.0,-1.9221835,-2.0,2.0,2.0,-2.0,-2.0,1.2747203,0.5790287,-2.0,-0.7803101,-1.3493369,2.0,-1.3756517,-2.0
2025-07-21 14:26:09.336,0.9000000000000005,900,45,0.07532125,0.036399297,-0.037674636,-0.06885222,-0.07674029,-0.012638389,0.0,0.0,0.0,0.014926156,0.061450817,0.30408332,-0.061556228,-0.058045134,0.27919373,0.11593739,-0.066883914,0.062396586,0.10901458,0.075033836,-0.052022524,0.3213255,-0.022005748,0.04639306,-0.0809268,0.01975818,0.050370533,-0.05867161,-0.04412942,0.003019512,-0.021065662,-0.023533063,0.0366697,0.06274151,2.0,2.0,-2.0,-2.0,1.2747203,0.5790287,-2.0,-0.7803101,-1.3493369,2.0,-1.3756517,-2.0,2.0,2.0,-2.0,-2.0,1.1095806,0.29199708,-2.0,-0.16524726,-0.9501506,2.0,-1.5920911,-2.0
2025-07-21 14:26:09.353,0.9200000000000005,920,46,-0.024541052,-0.041795164,0.04339861,-0.109388016,-0.085318126,-0.0491598,0.0,0.0,0.0,0.014674776,0.044945013,0.30344594,-0.069427036,-0.06552672,0.2684101,0.10880442,-0.07558353,0.061806902,0.1149308,0.09258758,-0.059532486,0.33743307,0.078923486,0.047762655,0.016990224,-0.014705382,0.055395283,0.06071071,0.010071712,-0.055287953,0.05601637,-0.062399328,0.045643333,0.011307268,2.0,2.0,-2.0,-2.0,1.1095806,0.29199708,-2.0,-0.16524726,-0.9501506,2.0,-1.5920911,-2.0,2.0,2.0,-2.0,-2.0,0.93741345,0.6324493,-2.0,-0.6550524,-1.2544535,2.0,-0.8795533,-2.0
2025-07-21 14:26:09.371,0.9400000000000005,940,47,-0.013181227,-0.010869124,-0.039430235,-0.06938022,-0.1574192,-0.0148640545,0.0,0.0,0.0,0.014370296,0.056245696,0.2974871,-0.0610101,-0.074498616,0.26241088,0.0996063,-0.06826803,0.064564444,0.11233751,0.088751175,-0.052353244,0.3269098,-0.05178158,0.057230353,0.062703565,-0.07571908,0.022336036,0.00017668241,0.022161437,0.06363694,-0.0072780987,-0.047202893,0.08187041,0.0474133,2.0,2.0,-2.0,-2.0,0.93741345,0.6324493,-2.0,-0.6550524,-1.2544535,2.0,-0.8795533,-2.0,2.0,2.0,-2.0,-2.0,0.80180466,0.16096781,-2.0,-0.2106944,-1.2040899,2.0,-1.455082,-2.0
2025-07-21 14:26:09.391,0.9600000000000005,960,48,0.01943479,0.04854359,-0.008955266,-0.08077998,-0.07939422,0.013038717,0.0,0.0,0.0,0.014230754,0.05554527,0.29820517,-0.07083937,-0.07671213,0.26409268,0.11811482,-0.08199698,0.06438397,0.104215704,0.07704967,-0.06315093,0.32158735,-0.050750438,0.006246399,0.014111096,0.04800173,0.04346093,0.039477173,0.020391323,0.018807981,-0.06322811,0.03459852,-0.030355526,-0.068447314,2.0,2.0,-2.0,-2.0,0.80180466,0.16096781,-2.0,-0.2106944,-1.2040899,2.0,-1.455082,-2.0,2.0,2.0,-2.0,-2.0,1.0877339,0.24112864,-2.0,-0.58681595,-1.4104775,2.0,-1.6282154,-2.0
2025-07-21 14:26:09.411,0.9800000000000005,980,49,0.058287438,0.012886854,0.013034991,-0.1245137,-0.108555436,0.010279961,0.0,0.0,0.0,0.014120323,0.04833755,0.30232543,-0.070902444,-0.057726786,0.2735491,0.11838705,-0.07253036,0.063383535,0.10956468,0.08656133,-0.06422461,0.33043,0.012022452,-0.025625236,0.010635586,-0.06422554,0.017772246,0.022764407,0.033729125,0.009932772,0.023487523,-0.06016491,-0.08413957,0.013409196,2.0,2.0,-2.0,-2.0,1.0877339,0.24112864,-2.0,-0.58681595,-1.4104775,2.0,-1.6282154,-2.0,2.0,2.0,-2.0,-2.0,1.2686332,0.3518607,-2.0,-0.57974,-1.2182788,2.0,-1.5070493,-2.0
2025-07-21 14:26:09.436,1.0000000000000004,1000,50,0.025107922,-0.016057778,-0.023370419,-0.116832584,-0.08319947,0.03020933,0.0,0.0,0.0,0.013793488,0.05337101,0.2952485,-0.07860799,-0.06350011,0.26186758,0.11682187,-0.08310958,0.062754005,0.11331748,0.075618535,-0.061789747,0.33374172,0.011997405,0.0041057304,0.06366006,0.00894817,0.06874109,0.059875995,0.06362697,0.0033865515,0.035570674,0.05895635,-0.083427966,-0.027710631,2.0,2.0,-2.0,-2.0,1.2686332,0.3518607,-2.0,-0.57974,-1.2182788,2.0,-1.5070493,-2.0,2.0,2.0,-2.0,-2.0,1.1488571,0.39540184,-2.0,-0.35124186,-1.0500063,2.0,-1.5953262,-2.0
2025-07-21 14:26:09.453,1.0200000000000005,1020,51,0.027029727,0.04611511,0.047816057,-0.122848704,-0.16056184,0.015844464,0.0,0.0,0.0,0.013579824,0.059737,0.31363648,-0.06829574,-0.056379195,0.26877365,0.11731866,-0.075857185,0.049549125,0.119480856,0.08833902,-0.071174555,0.3259248,0.04751753,-0.06493203,-0.008327669,-0.0040347236,0.055986002,-0.015190084,-0.070851274,0.026533188,-0.037908997,-0.059381176,-0.07139262,0.036778312,2.0,2.0,-2.0,-2.0,1.1488571,0.39540184,-2.0,-0.35124186,-1.0500063,2.0,-1.5953262,-2.0,2.0,2.0,-2.0,-2.0,0.99978083,0.478831,-2.0,-0.55813724,-1.1633345,2.0,-1.1161842,-2.0
2025-07-21 14:26:09.472,1.0400000000000005,1040,52,0.017668538,-0.017832091,0.021225374,-0.07423708,-0.1637185,-0.033300776,0.0,0.0,0.0,0.013388567,0.06251814,0.3145176,-0.069426194,-0.06801224,0.2617804,0.1092057,-0.07564299,0.06636982,0.12681538,0.07113574,-0.06592839,0.3399092,-0.026909407,-0.05828645,0.04448041,-0.0035789544,0.016477374,0.038780034,-0.03965834,-0.048956808,0.06757202,0.020423522,0.07241937,-0.020794576,2.0,2.0,-2.0,-2.0,0.99978083,0.478831,-2.0,-0.55813724,-1.1633345,2.0,-1.1161842,-2.0,2.0,2.0,-2.0,-2.0,0.8484484,0.44053304,-2.0,-0.48876327,-1.3281915,2.0,-0.76800984,-2.0
2025-07-21 14:26:09.492,1.0600000000000005,1060,53,-0.07404441,0.011921563,-0.05240193,-0.051887367,-0.09043613,0.013771467,0.0,0.0,0.0,0.013384617,0.049347095,0.31159475,-0.071213946,-0.078022525,0.26628724,0.10906954,-0.06913802,0.06694537,0.10987149,0.083358936,-0.066492185,0.32681158,0.0525804,0.027358135,0.01772112,0.005265165,-0.059774455,0.008770226,0.036002863,-0.02136356,0.0061233896,-0.057710666,0.08871003,0.046706147,2.0,2.0,-2.0,-2.0,0.8484484,0.44053304,-2.0,-0.48876327,-1.3281915,2.0,-0.76800984,-2.0,2.0,2.0,-2.0,-2.0,0.9079365,-0.023783669,-2.0,-0.3326203,-1.5179489,2.0,-1.5376059,-2.0
2025-07-21 14:26:09.513,1.0800000000000005,1080,54,0.011452493,0.023390492,0.018067466,-0.047315322,-0.16382354,-0.004704738,0.0,0.0,0.0,0.013807099,0.048814528,0.30235156,-0.07283925,-0.07843885,0.26581073,0.11761833,-0.07603321,0.05826155,0.10379724,0.088160485,-0.06844776,0.3225077,0.051720433,0.038374625,0.04518034,-0.066995315,0.027200177,-0.07039993,0.0016217591,0.04044514,-0.023579372,-0.02488939,0.023970911,-0.03506974,2.0,2.0,-2.0,-2.0,0.9079365,-0.023783669,-2.0,-0.3326203,-1.5179489,2.0,-1.5376059,-2.0,2.0,2.0,-2.0,-2.0,1.2828428,0.3345067,-2.0,-0.78516227,-1.5539234,2.0,-1.5734143,-2.0
2025-07-21 14:26:09.536,1.1000000000000005,1100,55,-0.011888739,-0.0030267409,-0.0025754196,-0.076427415,-0.12431594,-0.044542406,0.0,0.0,0.0,0.014118718,0.04583202,0.30594653,-0.066459924,-0.07744147,0.25639936,0.120334536,-0.07460404,0.051610786,0.10426599,0.08852125,-0.06053655,0.33033982,-0.0046619484,-0.059167664,0.0020834378,-0.00527746,0.027809896,-0.003113918,-0.01729431,-0.015808431,-0.030979933,-0.016475441,-0.010099198,-0.034890547,2.0,2.0,-2.0,-2.0,1.2828428,0.3345067,-2.0,-0.78516227,-1.5539234,2.0,-1.5734143,-2.0,2.0,2.0,-2.0,-2.0,1.2933624,0.4259932,-2.0,-0.5116898,-1.181437,2.0,-1.3343453,-2.0
2025-07-21 14:26:09.553,1.1200000000000006,1120,56,-0.007876792,0.01605914,0.006643353,-0.039543092,-0.11337079,-0.01355932,0.0,0.0,0.0,0.014281412,0.056593694,0.30586562,-0.07465036,-0.07750843,0.27261668,0.117776856,-0.08042508,0.06471387,0.11870365,0.0848023,-0.07488651,0.32522517,-0.031287707,0.06297034,-0.040150337,0.013859609,-0.048251994,0.058619734,0.03801775,-0.064157434,0.0045454693,0.05296557,-0.054922227,0.025231173,2.0,2.0,-2.0,-2.0,1.2933624,0.4259932,-2.0,-0.5116898,-1.181437,2.0,-1.3343453,-2.0,2.0,2.0,-2.0,-2.0,1.1196027,0.4076882,-2.0,-0.40778062,-1.1836191,2.0,-1.2820585,-2.0
2025-07-21 14:26:09.572,1.1400000000000006,1140,57,0.02778137,0.042564895,0.02309074,-0.081464246,-0.09648611,0.038451254,0.0,0.0,0.0,0.014580878,0.056735624,0.30982324,-0.07295414,-0.06451104,0.25676325,0.12769587,-0.07167041,0.058054,0.11497977,0.07567016,-0.058457248,0.32706335,0.05477311,0.010783406,0.039437115,-0.074965246,-0.010031477,-0.032816414,-0.07049892,0.031601503,-0.06596495,-0.05688136,0.048009813,-0.061275937,2.0,2.0,-2.0,-2.0,1.1196027,0.4076882,-2.0,-0.40778062,-1.1836191,2.0,-1.2820585,-2.0,2.0,2.0,-2.0,-2.0,0.9541614,0.39093733,-2.0,-0.4931972,-1.2576964,2.0,-1.1991168,-2.0
2025-07-21 14:26:09.592,1.1600000000000006,1160,58,-0.05840177,-0.026765713,0.022245456,-0.087137245,-0.12732679,0.039185416,0.0,0.0,0.0,0.014899181,0.055132117,0.31302592,-0.06573543,-0.06506151,0.27273014,0.12149018,-0.075854845,0.05217005,0.10049882,0.083811685,-0.0557878,0.32831594,0.02877892,0.0066240914,0.061637864,0.04631535,-0.022760058,-0.02000244,-0.010188173,-0.03437012,0.021151703,0.06361241,0.023289619,-0.07800921,2.0,2.0,-2.0,-2.0,0.9541614,0.39093733,-2.0,-0.4931972,-1.2576964,2.0,-1.1991168,-2.0,2.0,2.0,-2.0,-2.0,0.9594948,0.39616352,-2.0,-0.6138437,-1.435223,2.0,-0.942829,-2.0
2025-07-21 14:26:09.616,1.1800000000000006,1180,59,-0.063069284,0.046581585,-0.07075195,-0.041623447,-0.14042856,0.0061942902,0.0,0.0,0.0,0.015204757,0.052431475,0.31097904,-0.07988984,-0.07602455,0.26193926,0.12177669,-0.07555334,0.053186268,0.1139465,0.093461245,-0.05372453,0.32088462,0.040554196,0.07048326,0.07670747,-0.063615486,-0.016453978,-0.016784877,0.051856842,0.023018327,-0.046619006,-0.035928488,-0.015809845,0.045382522,2.0,2.0,-2.0,-2.0,0.9594948,0.39616352,-2.0,-0.6138437,-1.435223,2.0,-0.942829,-2.0,2.0,2.0,-2.0,-2.0,1.0434769,-0.059919283,-2.0,-0.18240985,-1.3240895,2.0,-1.9805827,-2.0
2025-07-21 14:26:09.636,1.2000000000000006,1200,60,0.03169201,-0.009281922,-0.026320497,-0.07450208,-0.08376328,-0.046294454,0.0,0.0,0.0,0.015670573,0.05086779,0.31066796,-0.07011672,-0.07557548,0.2683884,0.1204363,-0.07946235,0.047808755,0.10451588,0.08873668,-0.054953128,0.32011312,-0.04457539,0.030549124,0.04844067,0.06750839,-0.016911818,0.018510703,-0.072985396,-0.026035007,-0.04227189,0.012984254,0.041782677,-0.0058623143,2.0,2.0,-2.0,-2.0,1.0434769,-0.059919283,-2.0,-0.18240985,-1.3240895,2.0,-1.9805827,-2.0,2.0,2.0,-2.0,-2.0,1.3789147,0.5116998,-2.0,-0.7120349,-1.2825637,2.0,-1.9179976,-2.0
2025-07-21 14:26:09.653,1.2200000000000006,1220,61,0.09411646,0.024389077,0.04608522,-0.07142657,-0.08501486,0.0085467035,0.0,0.0,0.0,0.015690787,0.050300706,0.32467428,-0.081261545,-0.069556564,0.25931323,0.11825587,-0.07721076,0.05083279,0.11203546,0.08610722,-0.07654791,0.33774546,0.021993319,0.062417924,-0.054685026,-0.07306609,-0.034543063,-0.04631606,0.006303757,0.021944769,0.068542786,-0.06790805,-0.00040938947,0.06256856,2.0,2.0,-2.0,-2.0,1.3789147,0.5116998,-2.0,-0.7120349,-1.2825637,2.0,-1.9179976,-2.0,2.0,2.0,-2.0,-2.0,1.2148114,0.5954452,-2.0,-0.57236993,-0.9242551,2.0,-1.282796,-2.0
2025-07-21 14:26:09.673,1.2400000000000007,1240,62,-0.018113742,0.02397288,0.009294324,-0.074141786,-0.11128134,0.044892773,0.0,0.0,0.0,0.015230821,0.054289836,0.3208239,-0.0815487,-0.07445509,0.25450963,0.11704014,-0.06744072,0.042426646,0.11441991,0.076858856,-0.08745354,0.33679697,-0.041581843,-0.07296295,-0.061159786,0.04342869,-0.030272976,-0.00927515,0.033768576,0.0042631156,0.07070071,-0.05058571,-0.0029070997,0.014449226,2.0,2.0,-2.0,-2.0,1.2148114,0.5954452,-2.0,-0.57236993,-0.9242551,2.0,-1.282796,-2.0,2.0,2.0,-2.0,-2.0,0.8083619,0.40962052,-2.0,-0.38845932,-1.1653593,2.0,-0.97201663,-2.0
2025-07-21 14:26:09.693,1.2600000000000007,1260,63,-0.006707355,-0.019701852,0.019453945,-0.09235021,-0.105546854,-0.006261947,0.0,0.0,0.0,0.014985479,0.047426462,0.31935996,-0.07655075,-0.07083155,0.25523168,0.13423564,-0.08165282,0.036796622,0.12082216,0.080847286,-0.08190139,0.33601636,-0.05621093,-0.04881393,-0.010024003,-0.024855189,0.05539321,0.008947529,0.05854615,-0.042746413,0.0065786205,0.009892087,0.040305767,0.06500052,2.0,2.0,-2.0,-2.0,0.8083619,0.40962052,-2.0,-0.38845932,-1.1653593,2.0,-0.97201663,-2.0,2.0,2.0,-2.0,-2.0,0.82790935,0.2021633,-2.0,-0.5289138,-1.5444369,2.0,-0.9627094,-2.0
2025-07-21 14:26:09.719,1.2800000000000007,1280,64,-0.0069334134,0.048158765,-0.024780426,-0.05918359,-0.15549226,-0.010933814,0.0,0.0,0.0,0.015016048,0.05215785,0.32284698,-0.07995815,-0.07132279,0.26111913,0.12238327,-0.07951365,0.046886943,0.11058547,0.08767251,-0.06874633,0.32109323,0.049325727,0.0293217,0.0022755442,0.01245958,0.017449921,0.00665444,0.050767433,0.0075666066,0.030076075,-0.050942782,0.051660515,-0.045442786,2.0,2.0,-2.0,-2.0,0.82790935,0.2021633,-2.0,-0.5289138,-1.5444369,2.0,-0.9627094,-2.0,2.0,2.0,-2.0,-2.0,1.080192,0.05703427,-2.0,-0.5581109,-1.6619166,2.0,-1.3997202,-2.0
2025-07-21 14:26:09.736,1.3000000000000007,1300,65,0.028574651,-0.030369896,-0.050652213,-0.123056486,-0.16161315,-0.036495227,0.0,0.0,0.0,0.01520732,0.051903486,0.32421684,-0.07890363,-0.08054693,0.25447488,0.12192373,-0.07722254,0.052527223,0.11077611,0.08341595,-0.061541546,0.3254622,-0.021843487,0.07837457,0.053464647,0.053862467,-0.033790547,-0.010218365,-0.06943906,-0.06283696,0.06317827,-0.04862122,0.060689922,0.051052414,2.0,2.0,-2.0,-2.0,1.080192,0.05703427,-2.0,-0.5581109,-1.6619166,2.0,-1.3997202,-2.0,2.0,2.0,-2.0,-2.0,1.4378973,0.23440422,-2.0,-0.557032,-1.4451187,2.0,-1.8411722,-2.0
2025-07-21 14:26:09.753,1.3200000000000007,1320,66,0.05613383,0.020284774,0.019812204,-0.0859316,-0.089133754,-0.04957889,0.0,0.0,0.0,0.015394512,0.06088354,0.32241336,-0.07325419,-0.07122081,0.2647888,0.135733,-0.06817033,0.0449977,0.09799757,0.087706156,-0.06357882,0.3356203,0.01892537,0.0034492614,0.031537786,-0.01953828,-0.06257516,-0.06134133,-0.025586879,-0.04304841,0.0123776635,-0.04177817,-0.06507249,0.006867098,2.0,2.0,-2.0,-2.0,1.4378973,0.23440422,-2.0,-0.557032,-1.4451187,2.0,-1.8411722,-2.0,2.0,2.0,-2.0,-2.0,1.393385,0.51624316,-2.0,-0.5982459,-1.1413298,2.0,-1.5523951,-2.0
2025-07-21 14:26:09.773,1.3400000000000007,1340,67,0.0644322,0.028908422,-0.011333624,-0.040249784,-0.1041024,0.014065265,0.0,0.0,0.0,0.015362531,0.061640542,0.3206554,-0.073177315,-0.08596359,0.25891495,0.12587097,-0.07895328,0.04731941,0.10320334,0.09009336,-0.07058952,0.3333294,0.04487852,-0.048302386,0.015687738,-0.014760344,-0.027339632,0.06834533,0.04181356,-0.08145028,0.06303544,0.07300375,0.04295893,-0.0075456877,2.0,2.0,-2.0,-2.0,1.393385,0.51624316,-2.0,-0.5982459,-1.1413298,2.0,-1.5523951,-2.0,2.0,2.0,-2.0,-2.0,1.0407802,0.54298997,-2.0,-0.44714746,-1.0159829,2.0,-1.1253843,-2.0
2025-07-21 14:26:09.793,1.3600000000000008,1360,68,-0.067894906,-0.056142043,-0.0040329187,-0.06932447,-0.15805748,-0.038878854,0.0,0.0,0.0,0.01528198,0.04364911,0.32964307,-0.07789527,-0.07556801,0.2715145,0.12904547,-0.07358338,0.040955782,0.10864278,0.08612888,-0.073585995,0.32445127,-0.07147995,0.020683283,-0.04348887,-0.054707035,0.010332407,0.056115646,-0.03859344,0.0051735817,-0.07133624,0.04987941,-0.01499059,0.055607326,2.0,2.0,-2.0,-2.0,1.0407802,0.54298997,-2.0,-0.44714746,-1.0159829,2.0,-1.1253843,-2.0,2.0,2.0,-2.0,-2.0,0.85878617,0.34671205,-2.0,-0.302106,-1.1212525,2.0,-1.2947683,-2.0
2025-07-21 14:26:09.819,1.3800000000000008,1380,69,-0.07087303,0.049326763,0.015863674,-0.0628264,-0.09201199,0.03479265,0.0,0.0,0.0,0.015371517,0.052182704,0.32678035,-0.071811244,-0.07396784,0.2618089,0.13352819,-0.07699103,0.039867874,0.10141853,0.07933399,-0.07035891,0.3268608,-0.029830951,0.044232074,0.01747475,0.05103067,0.04418359,0.049163878,0.04622436,3.280417e-05,0.06674656,-0.074363865,0.01879656,-0.06622008,2.0,2.0,-2.0,-2.0,0.85878617,0.34671205,-2.0,-0.302106,-1.1212525,2.0,-1.2947683,-2.0,2.0,2.0,-2.0,-2.0,0.9056575,0.34591502,-2.0,-0.6783937,-1.482954,2.0,-1.0729704,-2.0
2025-07-21 14:26:09.836,1.4000000000000008,1400,70,-0.029962413,0.01642419,-0.019677235,-0.10991684,-0.1386613,0.032720376,0.0,0.0,0.0,0.0154103115,0.059522815,0.3233154,-0.060917687,-0.06969479,0.2546915,0.13755064,-0.06734203,0.03861709,0.097704515,0.07796621,-0.07975256,0.32669577,0.07119622,-0.037398107,0.030289259,0.05391861,0.001767738,0.046856962,0.03414984,0.03718642,0.00085676316,-0.039080802,-0.012268468,0.009301621,2.0,2.0,-2.0,-2.0,0.9056575,0.34591502,-2.0,-0.6783937,-1.482954,2.0,-1.0729704,-2.0,2.0,2.0,-2.0,-2.0,1.0746369,0.12750275,-2.0,-0.4999665,-1.4325373,2.0,-1.4533434,-2.0
2025-07-21 14:26:09.853,1.4200000000000008,1420,71,-0.04114892,0.033905793,0.045946643,-0.04592137,-0.14490409,0.0315293,0.0,0.0,0.0,0.015503336,0.043996386,0.3277813,-0.06671599,-0.073677324,0.26029226,0.13745268,-0.06581357,0.047687355,0.10991651,0.08591654,-0.071992874,0.3280503,-0.022643974,0.03175774,-0.06285381,-0.04405304,0.04534104,-0.06856533,-0.07208664,-0.075796895,-0.07177017,0.015839491,-0.010884441,-0.020455906,2.0,2.0,-2.0,-2.0,1.0746369,0.12750275,-2.0,-0.4999665,-1.4325373,2.0,-1.4533434,-2.0,2.0,2.0,-2.0,-2.0,1.2618513,0.39567,-2.0,-0.72011304,-1.4990484,2.0,-1.1359999,-2.0
2025-07-21 14:26:09.873,1.4400000000000008,1440,72,-0.03634665,-0.0025929222,-0.032374796,-0.034210354,-0.11834562,-0.00999897,0.0,0.0,0.0,0.015608608,0.054027412,0.33525068,-0.067054406,-0.08947403,0.26808047,0.12856714,-0.06612793,0.031778265,0.098635614,0.09197038,-0.079088986,0.31053674,0.017242229,0.06108665,-0.04492902,0.051330592,-0.007715753,0.057376053,0.018061817,-0.00045135833,0.03752907,-0.05762348,-0.012045939,-0.02691262,2.0,2.0,-2.0,-2.0,1.2618513,0.39567,-2.0,-0.72011304,-1.4990484,2.0,-1.1359999,-2.0,2.0,2.0,-2.0,-2.0,1.1488367,0.3184666,-2.0,-0.42081374,-1.3106724,2.0,-1.320651,-2.0
2025-07-21 14:26:09.893,1.4600000000000009,1460,73,-0.026513672,0.010403524,-0.040855028,-0.047127128,-0.137086,-0.006049292,0.0,0.0,0.0,0.01581353,0.059003107,0.3284908,-0.076711394,-0.07379725,0.25627723,0.123082645,-0.08003127,0.033437975,0.0946156,0.08542595,-0.07934894,0.3242289,-0.06406111,-0.05991413,0.0062419404,-0.052595675,-0.060542732,-0.049769036,-0.007886491,-0.027898347,0.01880513,-0.008688946,0.042020928,0.04532362,2.0,2.0,-2.0,-2.0,1.1488367,0.3184666,-2.0,-0.42081374,-1.3106724,2.0,-1.320651,-2.0,2.0,2.0,-2.0,-2.0,1.1399283,0.18307526,-2.0,-0.38017178,-1.2889035,2.0,-1.7912295,-2.0
2025-07-21 14:26:09.919,1.4800000000000009,1480,74,0.014160413,0.047111336,0.045972057,-0.116300456,-0.09489431,0.018038042,0.0,0.0,0.0,0.016063541,0.053843945,0.34145948,-0.073107205,-0.070689194,0.2566731,0.1277973,-0.06422171,0.036975313,0.095127456,0.08412098,-0.06687558,0.32440186,0.018156288,-0.0150715215,0.06360531,-0.027886646,0.02658025,0.0322723,-0.063281514,0.0262004,-0.04326868,0.029977914,-0.047598038,-0.005344394,2.0,2.0,-2.0,-2.0,1.1399283,0.18307526,-2.0,-0.38017178,-1.2889035,2.0,-1.7912295,-2.0,2.0,2.0,-2.0,-2.0,1.1983268,0.54260045,-2.0,-0.81600106,-1.2542813,2.0,-1.3786585,-2.0
2025-07-21 14:26:09.936,1.5000000000000009,1500,75,0.028027577,-0.059744496,0.0016042853,-0.038149964,-0.16852565,-0.01026564,0.0,0.0,0.0,0.015910631,0.054548424,0.33903757,-0.07734372,-0.07501266,0.2532486,0.12921819,-0.07381917,0.028284596,0.10721822,0.08573458,-0.06862444,0.30867216,-0.06382283,0.05256301,0.019397756,-0.035139993,0.029914934,-0.044044845,0.023735331,0.01961923,-0.036421724,0.06439715,0.012423348,0.03098886,2.0,2.0,-2.0,-2.0,1.1983268,0.54260045,-2.0,-0.81600106,-1.2542813,2.0,-1.3786585,-2.0,2.0,2.0,-2.0,-2.0,1.0388923,0.47068155,-2.0,-0.36855885,-1.0196965,2.0,-1.2994347,-2.0
2025-07-21 14:26:09.954,1.520000000000001,1520,76,-0.007371352,-0.02964619,0.049969684,-0.1060609,-0.15928933,0.035738457,0.0,0.0,0.0,0.015728723,0.04650086,0.32842353,-0.06810415,-0.07185482,0.25564373,0.12505105,-0.078872494,0.028563468,0.11111946,0.086471565,-0.075127594,0.32576865,0.06552147,0.056067105,0.033713818,0.06741216,-0.03707426,-0.060819313,0.014741248,-0.056943364,0.039382964,0.05354783,-0.02511218,-0.05205512,2.0,2.0,-2.0,-2.0,1.0388923,0.47068155,-2.0,-0.36855885,-1.0196965,2.0,-1.2994347,-2.0,2.0,2.0,-2.0,-2.0,0.82018375,0.51956743,-2.0,-0.5926989,-1.3395896,2.0,-0.6661569,-2.0
2025-07-21 14:26:09.974,1.540000000000001,1540,77,-0.07658137,0.039417543,-0.058446158,-0.047857016,-0.16505314,0.031455334,0.0,0.0,0.0,0.015665028,0.060773138,0.33313417,-0.0690012,-0.08235769,0.24801067,0.1282906,-0.08439606,0.034002893,0.09943369,0.089880906,-0.08176311,0.31092477,-0.03135993,0.037445623,-0.02459808,0.040269814,0.06458786,0.013368974,-0.0030377554,0.033944998,-0.049735826,-5.2753044e-06,-0.05046476,0.02788509,2.0,2.0,-2.0,-2.0,0.82018375,0.51956743,-2.0,-0.5926989,-1.3395896,2.0,-0.6661569,-2.0,2.0,2.0,-2.0,-2.0,0.8368085,-0.13136892,-2.0,-0.15679798,-1.436487,2.0,-1.6725631,-2.0
2025-07-21 14:26:09.994,1.560000000000001,1560,78,0.027855339,-0.007732046,-0.010292845,-0.10103174,-0.0899346,-0.04802945,0.0,0.0,0.0,0.015828237,0.050786424,0.32972345,-0.06176521,-0.07523264,0.25257167,0.13867572,-0.06574213,0.041603617,0.10908045,0.07616428,-0.07803315,0.30206737,0.037400953,0.030792266,0.0397638,0.021294873,-0.0042674197,-0.023534225,-0.0020745131,0.02401329,0.036682893,0.012063317,-0.054566666,0.02218108,2.0,2.0,-2.0,-2.0,0.8368085,-0.13136892,-2.0,-0.15679798,-1.436487,2.0,-1.6725631,-2.0,2.0,2.0,-2.0,-2.0,1.3372196,0.35236758,-2.0,-0.7452562,-1.4497081,2.0,-1.9888897,-2.0
2025-07-21 14:26:10.019,1.580000000000001,1580,79,0.062416896,0.024644377,-0.0068791662,-0.024942497,-0.096527405,0.02740605,0.0,0.0,0.0,0.015710453,0.06063418,0.32996422,-0.068243295,-0.068726726,0.25110662,0.12444821,-0.084044844,0.023864698,0.10890507,0.08817495,-0.073453024,0.31554827,0.04142915,-0.023049958,-0.037900675,0.021937352,0.018489974,0.029629465,0.04055432,-0.00044444995,-0.030625364,-0.05250325,-0.06285935,0.028260358,2.0,2.0,-2.0,-2.0,1.3372196,0.35236758,-2.0,-0.7452562,-1.4497081,2.0,-1.9888897,-2.0,2.0,2.0,-2.0,-2.0,1.3707258,0.469756,-2.0,-0.4784821,-0.9772337,2.0,-1.6675394,-2.0
2025-07-21 14:26:10.036,1.600000000000001,1600,80,0.07425087,-0.016381659,-0.0061294804,-0.096678585,-0.12329617,-0.023126375,0.0,0.0,0.0,0.015136599,0.053323988,0.3467383,-0.061703622,-0.07505073,0.25414544,0.12155921,-0.077594206,0.027323278,0.10883694,0.07771431,-0.1007444,0.3156966,0.025259946,0.006924049,0.029098902,0.050740007,0.05672857,0.045776177,-0.061694622,0.04302701,-0.047804963,-0.062222518,-0.016830387,0.01508436,2.0,2.0,-2.0,-2.0,1.3707258,0.469756,-2.0,-0.4784821,-0.9772337,2.0,-1.6675394,-2.0,2.0,2.0,-2.0,-2.0,1.0016329,0.56554186,-2.0,-0.36527303,-0.8542527,2.0,-1.489528,-2.0
2025-07-21 14:26:10.054,1.620000000000001,1620,81,0.046980124,0.033673014,0.039564867,-0.048329435,-0.12369516,-0.043512527,0.0,0.0,0.0,0.014554097,0.06728235,0.33528635,-0.056652244,-0.07060483,0.2599664,0.119937055,-0.08728849,0.019388877,0.10060555,0.08221186,-0.100058295,0.31561738,-0.03311454,-0.05919016,0.018416455,-0.036989182,-0.08240327,-0.040418755,0.041747242,-0.046267923,-0.00865936,-0.04516355,0.044107124,0.059284743,2.0,2.0,-2.0,-2.0,1.0016329,0.56554186,-2.0,-0.36527303,-0.8542527,2.0,-1.489528,-2.0,2.0,2.0,-2.0,-2.0,0.80044174,0.41792893,-2.0,-0.53239137,-1.1291618,2.0,-1.0853688,-2.0
2025-07-21 14:26:10.074,1.640000000000001,1640,82,0.004072363,-0.03417424,0.051558807,-0.09865267,-0.14183292,0.0045347568,0.0,0.0,0.0,0.014014464,0.064504646,0.33399567,-0.055366553,-0.07556586,0.25402045,0.12407173,-0.084120944,0.017748758,0.10714101,0.06747685,-0.10381144,0.32893077,-0.030255599,0.0019053355,0.0067267,-0.031488393,0.064682476,-0.06341851,-0.015730659,-0.029607674,-0.010298787,0.07185258,0.00065098,0.003972912,2.0,2.0,-2.0,-2.0,0.80044174,0.41792893,-2.0,-0.53239137,-1.1291618,2.0,-1.0853688,-2.0,2.0,2.0,-2.0,-2.0,0.83353317,0.35195243,-2.0,-0.5413612,-1.3783977,2.0,-0.90320146,-2.0
2025-07-21 14:26:10.094,1.660000000000001,1660,83,-0.040686637,-0.017102832,0.028877018,-0.030758841,-0.16062273,0.035167955,0.0,0.0,0.0,0.0137048345,0.060732175,0.33330113,-0.064766675,-0.06387732,0.24762449,0.12969327,-0.089710586,0.029142186,0.10700912,0.072686106,-0.0917941,0.3261819,0.016823089,-0.048107363,-0.05839795,0.06177408,-0.03859376,0.024288021,-0.05254119,0.012661509,-0.019165818,0.020989364,0.068963,-0.06373562,2.0,2.0,-2.0,-2.0,0.83353317,0.35195243,-2.0,-0.5413612,-1.3783977,2.0,-0.90320146,-2.0,2.0,2.0,-2.0,-2.0,0.9036366,0.2299846,-2.0,-0.60510045,-1.6349795,2.0,-0.8521493,-2.0
2025-07-21 14:26:10.119,1.680000000000001,1680,84,-0.053356975,-0.040364183,0.014055743,-0.09340103,-0.12901092,0.0067968233,0.0,0.0,0.0,0.01378091,0.0626536,0.3475059,-0.053959213,-0.06878928,0.25318325,0.13480473,-0.08629674,0.031758934,0.09298494,0.080653176,-0.09208443,0.3027185,0.041196395,-0.027927885,-0.008682996,0.046756603,-0.04534402,-0.045904674,0.060510825,0.07530152,0.037050862,-0.006383002,-0.037820913,-0.040391866,2.0,2.0,-2.0,-2.0,0.9036366,0.2299846,-2.0,-0.60510045,-1.6349795,2.0,-0.8521493,-2.0,2.0,2.0,-2.0,-2.0,1.0858257,0.05135937,-2.0,-0.6020356,-1.723273,2.0,-1.3531125,-2.0
2025-07-21 14:26:10.136,1.700000000000001,1700,85,-0.021688968,-0.019922646,0.0065341163,-0.028921612,-0.15671925,0.0410042,0.0,0.0,0.0,0.014207747,0.06488908,0.3508409,-0.06039298,-0.08417833,0.2650371,0.13738883,-0.075948775,0.02780163,0.10063051,0.079047486,-0.08751439,0.31260082,-0.072675064,-0.016952625,0.056448855,-0.04160359,0.011555061,-0.027412806,-0.030627258,0.015334762,-0.015343675,0.07704955,-0.0459273,0.018959384,2.0,2.0,-2.0,-2.0,1.0858257,0.05135937,-2.0,-0.6020356,-1.723273,2.0,-1.3531125,-2.0,2.0,2.0,-2.0,-2.0,1.3789614,0.26847607,-2.0,-0.73157626,-1.5361645,2.0,-1.6712611,-2.0
2025-07-21 14:26:10.155,1.720000000000001,1720,86,0.037739147,-0.029618729,0.008765689,-0.10855051,-0.13396089,-0.00039023114,0.0,0.0,0.0,0.014692272,0.06351557,0.33799407,-0.05437875,-0.085386224,0.26177013,0.13776371,-0.068494275,0.019546425,0.10570869,0.0794677,-0.086366616,0.29500517,0.039874237,0.06856689,-0.058389068,-0.012135775,-0.004020175,0.030695966,-0.04509209,0.019017981,-0.00702281,-0.049010802,-0.07872503,-0.048820745,2.0,2.0,-2.0,-2.0,1.3789614,0.26847607,-2.0,-0.73157626,-1.5361645,2.0,-1.6712611,-2.0,2.0,2.0,-2.0,-2.0,1.3714485,0.4969861,-2.0,-0.5465679,-1.1222467,2.0,-1.4916612,-2.0
2025-07-21 14:26:10.175,1.740000000000001,1740,87,-0.0016750516,-0.04511352,-0.011531389,-0.09401988,-0.13990876,-0.0003749,0.0,0.0,0.0,0.015044615,0.057517514,0.35340437,-0.06262768,-0.07845038,0.25002715,0.12367648,-0.08597929,0.013950916,0.108812876,0.0778748,-0.072699554,0.29877058,-0.022347337,-0.03815789,0.0058695236,-0.048731856,0.021415563,-0.059447296,0.038912542,-0.003076973,0.01377013,0.0572771,0.009578252,-0.0033029362,2.0,2.0,-2.0,-2.0,1.3714485,0.4969861,-2.0,-0.5465679,-1.1222467,2.0,-1.4916612,-2.0,2.0,2.0,-2.0,-2.0,1.0138985,0.4307627,-2.0,-0.35989758,-1.0424743,2.0,-1.453797,-2.0
2025-07-21 14:26:10.195,1.7600000000000011,1760,88,0.00064176234,0.028093144,-0.016764127,-0.044097986,-0.08397896,-0.04995669,0.0,0.0,0.0,0.015316235,0.05777238,0.34592927,-0.063751094,-0.084189825,0.25792086,0.12640052,-0.07636817,0.014703753,0.10335283,0.09207687,-0.08076179,0.29813597,0.03590996,-0.021960117,0.034438804,-0.038938485,-0.03692911,0.061826304,-0.010485972,-0.030453501,-0.0031469231,0.03214364,0.029179813,-0.018487735,2.0,2.0,-2.0,-2.0,1.0138985,0.4307627,-2.0,-0.35989758,-1.0424743,2.0,-1.453797,-2.0,2.0,2.0,-2.0,-2.0,0.92937607,0.42289907,-2.0,-0.5094726,-1.0873079,2.0,-1.4128824,-2.0
2025-07-21 14:26:10.219,1.7800000000000011,1780,89,0.036288705,0.005588476,0.049150754,-0.03023015,-0.089706324,-0.022529203,0.0,0.0,0.0,0.01538541,0.055167254,0.35011637,-0.054751404,-0.083563626,0.2605744,0.12271841,-0.072889596,0.018903648,0.11161093,0.08143231,-0.097866684,0.30883816,0.040338904,-0.054189593,0.026824616,0.041630365,-0.008951447,0.062657416,-0.065804236,0.002248078,0.016576717,-0.044737205,-0.021220159,-0.02854525,2.0,2.0,-2.0,-2.0,0.92937607,0.42289907,-2.0,-0.5094726,-1.0873079,2.0,-1.4128824,-2.0,2.0,2.0,-2.0,-2.0,0.8589692,0.5648877,-2.0,-0.67075545,-1.1993515,2.0,-0.7629876,-2.0
2025-07-21 14:26:10.236,1.8000000000000012,1800,90,-0.031115098,0.017922644,0.018198604,-0.05008759,-0.12304163,-0.034369756,0.0,0.0,0.0,0.015265982,0.06378177,0.336919,-0.059459813,-0.07699672,0.24986455,0.13161771,-0.0779638,0.017189985,0.094069995,0.07874091,-0.09449214,0.3071013,0.05236531,-0.017329993,-0.03555333,-0.042616468,0.056451112,-0.049461205,0.043814294,-0.053329803,-0.008730916,0.045298528,0.07266252,0.057434715,2.0,2.0,-2.0,-2.0,0.8589692,0.5648877,-2.0,-0.67075545,-1.1993515,2.0,-0.7629876,-2.0,2.0,2.0,-2.0,-2.0,0.7161516,0.26791292,-2.0,-0.36529467,-1.3664676,2.0,-0.8328696,-2.0
2025-07-21 14:26:10.255,1.8200000000000012,1820,91,-0.06341034,0.0015407868,-0.022000458,-0.06478091,-0.13760537,0.035724115,0.0,0.0,0.0,0.015419527,0.05330771,0.34768212,-0.05138497,-0.0764028,0.26000094,0.14119343,-0.06874413,0.026839988,0.10503649,0.08909961,-0.071018554,0.28909576,0.035476465,0.0805902,0.034265954,0.04326985,-0.052032992,-0.024663659,0.03837807,0.022342708,-0.064826615,0.03976006,-0.049487494,0.043313846,2.0,2.0,-2.0,-2.0,0.7161516,0.26791292,-2.0,-0.36529467,-1.3664676,2.0,-0.8328696,-2.0,2.0,2.0,-2.0,-2.0,0.99274564,-0.018950388,-2.0,-0.50846493,-1.6214076,2.0,-1.6699389,-2.0
2025-07-21 14:26:10.275,1.8400000000000012,1840,92,-0.027440384,0.045722634,-0.02387203,-0.048741728,-0.11862905,-0.049915846,0.0,0.0,0.0,0.015768822,0.051338013,0.3499343,-0.053211655,-0.07087713,0.2526768,0.13316438,-0.07988905,0.02674088,0.10409662,0.08425674,-0.0866093,0.29300916,0.055189043,-0.03646193,-0.011222666,0.07876196,0.06531146,0.010790658,0.010255024,0.062223047,0.013851667,-0.028419098,0.02029733,-0.015572038,2.0,2.0,-2.0,-2.0,0.99274564,-0.018950388,-2.0,-0.50846493,-1.6214076,2.0,-1.6699389,-2.0,2.0,2.0,-2.0,-2.0,1.3664881,0.2995119,-2.0,-0.6867866,-1.4041799,2.0,-1.8545985,-2.0
2025-07-21 14:26:10.297,1.8600000000000012,1860,93,0.089179344,-0.023117943,-0.020072553,-0.087564155,-0.11815002,0.0076845097,0.0,0.0,0.0,0.01576953,0.060971137,0.34267938,-0.055623263,-0.07327777,0.2618884,0.12733796,-0.066080056,0.011065725,0.093287654,0.085679166,-0.07798874,0.30706397,0.030467764,-0.0061511574,-0.0047844164,-0.012296527,-0.012492323,0.014849919,-0.044879805,-0.047517948,-0.047435857,0.017420238,-0.027499871,0.0036111954,2.0,2.0,-2.0,-2.0,1.3664881,0.2995119,-2.0,-0.6867866,-1.4041799,2.0,-1.8545985,-2.0,2.0,2.0,-2.0,-2.0,1.3454419,0.5061255,-2.0,-0.47478145,-0.97425884,2.0,-1.6630998,-2.0
2025-07-21 14:26:10.320,1.8800000000000012,1880,94,0.0026984566,0.017564844,0.045346964,-0.051539075,-0.12536721,0.013988711,0.0,0.0,0.0,0.015432103,0.065588616,0.3521006,-0.061277453,-0.0801682,0.25852227,0.12761663,-0.085873105,0.0019026067,0.0956059,0.08813727,-0.087983884,0.30366516,-0.0036449558,-0.0068343934,-0.01915277,-0.011503164,0.07120753,-0.012645698,0.0114110075,-0.06992981,-0.011048646,0.005099041,-0.03240555,-0.056746695,2.0,2.0,-2.0,-2.0,1.3454419,0.5061255,-2.0,-0.47478145,-0.97425884,2.0,-1.6630998,-2.0,2.0,2.0,-2.0,-2.0,0.91539586,0.6523726,-2.0,-0.5521955,-1.053797,2.0,-0.82768416,-2.0
2025-07-21 14:26:10.336,1.9000000000000012,1900,95,-0.00017731971,-0.005245726,0.0007188478,-0.020608911,-0.14356151,-0.04134085,0.0,0.0,0.0,0.014992074,0.06550109,0.34671786,-0.047736023,-0.08128945,0.25392285,0.13272673,-0.086736895,0.008507925,0.10249636,0.08466196,-0.104207665,0.30639306,-0.05188497,0.0020062723,0.014667191,0.04421271,0.0027551784,-0.031654123,-0.017482655,-0.059687626,-0.031189404,-0.018459482,0.041688733,-0.012522301,2.0,2.0,-2.0,-2.0,0.91539586,0.6523726,-2.0,-0.5521955,-1.053797,2.0,-0.82768416,-2.0,2.0,2.0,-2.0,-2.0,0.6496761,0.29905128,-2.0,-0.3086075,-1.302969,2.0,-0.8944351,-2.0
2025-07-21 14:26:10.355,1.9200000000000013,1920,96,-0.04922949,0.043390132,0.014857842,-0.06082763,-0.14014772,0.03379061,0.0,0.0,0.0,0.014839418,0.050622866,0.3516018,-0.058532406,-0.06783882,0.24878287,0.14751235,-0.07248155,0.0146070095,0.09169242,0.08999949,-0.08901948,0.29327735,0.003580979,0.020140389,0.08443834,0.072388776,0.06245422,0.08404506,-0.06257585,0.0119160535,-0.060103092,0.051040582,0.09135528,-0.08707255,2.0,2.0,-2.0,-2.0,0.6496761,0.29905128,-2.0,-0.3086075,-1.302969,2.0,-0.8944351,-2.0,2.0,2.0,-2.0,-2.0,0.77848446,0.29059172,-2.0,-0.76917785,-1.6824677,2.0,-0.9200503,-2.0
2025-07-21 14:26:10.375,1.9400000000000013,1940,97,-0.0836145,0.038544897,-0.057066396,-0.08604449,-0.06464913,0.025355944,0.0,0.0,0.0,0.014904975,0.061416537,0.34737912,-0.044253916,-0.0817313,0.26425132,0.13917665,-0.06716085,0.02517991,0.093554996,0.09058388,-0.083462395,0.28284317,-0.04326272,0.07474175,0.0050339997,0.020508196,-0.050905682,0.041365657,0.07422691,-0.045412462,-0.067362264,-0.039427854,0.030698128,-0.018818581,2.0,2.0,-2.0,-2.0,0.77848446,0.29059172,-2.0,-0.76917785,-1.6824677,2.0,-0.9200503,-2.0,2.0,2.0,-2.0,-2.0,1.1591704,-0.10918413,-2.0,-0.45862812,-1.560627,2.0,-1.7904453,-2.0
2025-07-21 14:26:10.398,1.9600000000000013,1960,98,0.028327933,0.01808567,0.0047629573,-0.078371376,-0.07488724,-0.019390339,0.0,0.0,0.0,0.015139752,0.06021674,0.35283372,-0.047811314,-0.069669195,0.25959954,0.14790711,-0.083390616,0.007762562,0.09540597,0.08156567,-0.08273407,0.28519493,-0.006713139,-0.023253135,-0.02538969,0.0590948,0.018672094,-0.07102817,0.004934818,-0.06952399,-0.07447802,0.05206494,0.04024691,0.036555517,2.0,2.0,-2.0,-2.0,1.1591704,-0.10918413,-2.0,-0.45862812,-1.560627,2.0,-1.7904453,-2.0,2.0,2.0,-2.0,-2.0,1.4824315,0.37408125,-2.0,-0.76760584,-1.4407212,2.0,-1.7271607,-2.0
2025-07-21 14:26:10.419,1.9800000000000013,1980,99,0.0673135,0.0043125707,0.055136032,-0.030577712,-0.08187274,0.009448901,0.0,0.0,0.0,0.015191925,0.06758186,0.36112556,-0.046702206,-0.075955234,0.26445153,0.1380363,-0.076957814,0.021473275,0.09154855,0.08713427,-0.09089403,0.28969583,0.06146229,0.020548314,-0.07650118,0.06923364,-0.071986526,0.008875111,-0.039359324,-0.06445707,-0.059944045,-0.06677283,-0.06424299,0.019980418,2.0,2.0,-2.0,-2.0,1.4824315,0.37408125,-2.0,-0.76760584,-1.4407212,2.0,-1.7271607,-2.0,2.0,2.0,-2.0,-2.0,1.3170441,0.5633611,-2.0,-0.63684684,-1.1660134,2.0,-1.0790118,-2.0
2025-07-21 14:26:10.436,2.0000000000000013,2000,100,0.010295188,-0.0011500368,0.008903997,-0.02682531,-0.068997465,0.01201471,0.0,0.0,0.0,0.015015963,0.05099475,0.36176708,-0.062054418,-0.08305083,0.25833705,0.13451035,-0.08499622,0.007244522,0.08935606,0.073298596,-0.094595164,0.301046,0.010245379,0.049203217,0.064377405,-0.015256706,0.07208141,0.058862604,0.06589002,-0.049236134,0.058570616,-0.06530728,-0.042703457,-0.0041322117,2.0,2.0,-2.0,-2.0,1.3170441,0.5633611,-2.0,-0.63684684,-1.1660134,2.0,-1.0790118,-2.0,2.0,2.0,-2.0,-2.0,0.84229493,0.51813203,-2.0,-0.41093034,-1.157488,2.0,-0.92144483,-2.0
2025-07-21 14:26:10.456,2.0200000000000014,2020,101,-0.03516983,0.00027480436,-0.056409862,-0.08023763,-0.11288604,-0.0031199057,0.0,0.0,0.0,0.015126642,0.047351323,0.35421607,-0.055896237,-0.08320135,0.26714212,0.13631001,-0.07012278,0.0039075892,0.10421719,0.07915811,-0.09529893,0.2841173,0.055003706,-0.02674902,0.07712357,0.031491462,-0.000114849325,0.08366022,0.01224595,-0.035386506,-0.052059747,0.015680168,-0.05133124,0.04668181,2.0,2.0,-2.0,-2.0,0.84229493,0.51813203,-2.0,-0.41093034,-1.157488,2.0,-0.92144483,-2.0,2.0,2.0,-2.0,-2.0,0.8180708,0.08672066,-2.0,-0.32628995,-1.2613297,2.0,-1.627939,-2.0
2025-07-21 14:26:10.476,2.0400000000000014,2040,102,-0.004762891,-0.039392143,0.053596433,-0.072373584,-0.11548849,0.014117938,0.0,0.0,0.0,0.015464498,0.05263452,0.34468767,-0.04375314,-0.07240408,0.24918827,0.14279391,-0.08030243,0.016735628,0.088924676,0.08309871,-0.084006704,0.28274855,-0.00010705115,0.027083669,-0.070195824,0.050701015,0.06294133,-0.067418166,-0.06886871,0.07150119,0.057383727,-0.048143145,0.03234162,-0.020220403,2.0,2.0,-2.0,-2.0,0.8180708,0.08672066,-2.0,-0.32628995,-1.2613297,2.0,-1.627939,-2.0,2.0,2.0,-2.0,-2.0,1.1035956,0.47983783,-2.0,-0.9062154,-1.4957068,2.0,-1.1870971,-2.0
2025-07-21 14:26:10.501,2.0600000000000014,2060,103,0.045615025,-0.02187971,-0.01090003,-0.10061913,-0.12030511,-0.0053733173,0.0,0.0,0.0,0.015455943,0.06104049,0.355889,-0.05045137,-0.086627826,0.2545887,0.14744222,-0.07383407,0.015518767,0.08995754,0.079500824,-0.083376735,0.29099667,-0.050359383,-0.028254801,-0.008218635,-0.040369987,0.02853078,-0.060987365,-0.035397142,-0.009340465,0.0031352465,-0.046326533,0.0027865942,0.027819626,2.0,2.0,-2.0,-2.0,1.1035956,0.47983783,-2.0,-0.9062154,-1.4957068,2.0,-1.1870971,-2.0,2.0,2.0,-2.0,-2.0,1.0880193,0.2721547,-2.0,-0.40136957,-1.2068378,2.0,-1.3463823,-2.0
2025-07-21 14:26:10.519,2.0800000000000014,2080,104,0.040875446,-0.020622192,0.018163709,-0.01683907,-0.13513522,-0.019349003,0.0,0.0,0.0,0.0154308025,0.057187293,0.36065853,-0.053610295,-0.074226186,0.25565577,0.14500822,-0.08527508,-0.00021677563,0.095671155,0.0845333,-0.08681234,0.28958732,0.020197596,0.030417439,-0.070507154,-0.053622738,0.028874448,-0.06711981,0.040198956,0.05341015,0.0059314426,0.07429402,-0.07598664,0.024298836,2.0,2.0,-2.0,-2.0,1.0880193,0.2721547,-2.0,-0.40136957,-1.2068378,2.0,-1.3463823,-2.0,2.0,2.0,-2.0,-2.0,1.0431412,0.36089182,-2.0,-0.5094688,-1.2525995,2.0,-1.4672388,-2.0
2025-07-21 14:26:10.536,2.1000000000000014,2100,105,0.007022767,-0.010648608,-0.026989337,-0.06662211,-0.1114386,-0.024326343,0.0,0.0,0.0,0.015508189,0.06609938,0.35504726,-0.041282337,-0.07539873,0.24461597,0.13196231,-0.07810439,-0.0014029081,0.098100826,0.080161706,-0.087429546,0.2896774,-0.046141353,0.009228121,-0.07411388,-0.038179263,-0.058167662,-0.069564,-0.06671247,0.031182924,-0.012349951,-0.04719637,-0.029928297,0.059018783,2.0,2.0,-2.0,-2.0,1.0431412,0.36089182,-2.0,-0.5094688,-1.2525995,2.0,-1.4672388,-2.0,2.0,2.0,-2.0,-2.0,1.1305791,0.24419977,-2.0,-0.3368013,-1.0856001,2.0,-1.9028158,-2.0
2025-07-21 14:26:10.556,2.1200000000000014,2120,106,0.06041193,-0.023989018,0.04359578,-0.022848263,-0.15150592,-0.029254803,0.0,0.0,0.0,0.015400428,0.06532781,0.35812283,-0.04416741,-0.079581745,0.25606093,0.14195172,-0.07379008,0.009379911,0.09580162,0.07289233,-0.11077137,0.28495154,-0.0014964032,-0.068433076,0.017832149,-0.057787504,-0.08245264,-0.016417952,0.025048899,0.022236539,0.019444095,-0.054697067,0.048139103,-0.032013938,2.0,2.0,-2.0,-2.0,1.1305791,0.24419977,-2.0,-0.3368013,-1.0856001,2.0,-1.9028158,-2.0,2.0,2.0,-2.0,-2.0,1.1049384,0.58874005,-2.0,-0.7940946,-1.178957,2.0,-1.3800827,-2.0
2025-07-21 14:26:10.576,2.1400000000000015,2140,107,-0.028239388,0.021132484,-0.003714177,-0.094262585,-0.077159055,-0.020232327,0.0,0.0,0.0,0.014926006,0.053462744,0.35773683,-0.0555132,-0.084767245,0.23983814,0.14211215,-0.070218146,0.00096264924,0.0904935,0.07899649,-0.10539926,0.30175614,0.072643,0.030864256,-0.013152964,-0.0709667,0.031142881,-0.030841513,-0.03495424,0.022914715,0.05178581,-0.033446588,0.052425552,0.06057699,2.0,2.0,-2.0,-2.0,1.1049384,0.58874005,-2.0,-0.7940946,-1.178957,2.0,-1.3800827,-2.0,2.0,2.0,-2.0,-2.0,0.9373878,0.46939516,-2.0,-0.39903384,-0.8951056,2.0,-1.3734008,-2.0
2025-07-21 14:26:10.602,2.1600000000000015,2160,108,-0.01815483,0.004647829,0.05329855,-0.05773412,-0.14275916,-0.023388123,0.0,0.0,0.0,0.014490011,0.056597702,0.35070896,-0.053363126,-0.068733074,0.23887871,0.15139931,-0.07399391,-0.0039487635,0.106115475,0.07933611,-0.10475605,0.29284865,-0.029005267,0.018257432,0.06156932,-0.06664466,0.043691684,-0.019746328,-0.019495388,-0.048635673,0.03725979,0.040037166,-0.02420676,-0.00063231174,2.0,2.0,-2.0,-2.0,0.9373878,0.46939516,-2.0,-0.39903384,-0.8951056,2.0,-1.3734008,-2.0,2.0,2.0,-2.0,-2.0,0.7733158,0.5859752,-2.0,-0.6109921,-1.1318973,2.0,-0.8829111,-2.0
2025-07-21 14:26:10.620,2.1800000000000015,2180,109,-0.04972368,-0.014950617,-0.035469785,-0.028464906,-0.076002836,0.017870702,0.0,0.0,0.0,0.014268157,0.056292683,0.3505757,-0.054432157,-0.06833968,0.24396215,0.15174417,-0.08345071,-0.0034056948,0.107904956,0.076756895,-0.1102881,0.30202883,-0.07594398,0.00053566793,0.07510386,0.049056638,0.041894432,0.054257683,0.015613245,-0.030316735,0.003865133,-0.035737164,0.0642549,0.015479315,2.0,2.0,-2.0,-2.0,0.7733158,0.5859752,-2.0,-0.6109921,-1.1318973,2.0,-0.8829111,-2.0,2.0,2.0,-2.0,-2.0,0.7284171,0.19700964,-2.0,-0.3823791,-1.2794039,2.0,-1.318284,-2.0
2025-07-21 14:26:10.636,2.2000000000000015,2200,110,0.013148505,-0.033386003,-0.0023335402,-0.0806502,-0.14868845,0.010540822,0.0,0.0,0.0,0.0143086985,0.060418807,0.35262027,-0.048091926,-0.06923672,0.23485339,0.14856602,-0.08946631,0.00672783,0.09021398,0.06972569,-0.111153774,0.29348645,0.01229989,-0.00205142,0.03868318,-0.034922816,0.061169274,-0.036672726,-0.021912575,0.041619264,-0.05158255,-0.032046355,0.01931345,0.050928753,2.0,2.0,-2.0,-2.0,0.7284171,0.19700964,-2.0,-0.3823791,-1.2794039,2.0,-1.318284,-2.0,2.0,2.0,-2.0,-2.0,1.0497361,0.15787967,-2.0,-0.5649512,-1.3715572,2.0,-1.7974898,-2.0
2025-07-21 14:26:10.656,2.2200000000000015,2220,111,-0.02530911,-0.013984519,-0.031320855,-0.037041694,-0.09770586,0.04732468,0.0,0.0,0.0,0.014400188,0.06452131,0.36364585,-0.04807474,-0.07098082,0.24954191,0.14902806,-0.07464424,-0.011027432,0.091196865,0.07955655,-0.10526013,0.29373398,0.051791567,-0.062192384,-0.03113227,-0.056730986,-0.0419505,0.02574777,0.04796742,0.032043736,0.05483524,-0.027650503,-0.08444807,0.041240428,2.0,2.0,-2.0,-2.0,1.0497361,0.15787967,-2.0,-0.5649512,-1.3715572,2.0,-1.7974898,-2.0,2.0,2.0,-2.0,-2.0,1.3118966,0.3593698,-2.0,-0.5139983,-1.0844522,2.0,-2.0,-2.0
2025-07-21 14:26:10.676,2.2400000000000015,2240,112,0.024154147,-0.04462117,0.0012397516,-0.0679995,-0.11115719,0.024488067,0.0,0.0,0.0,0.014191116,0.07421659,0.36449254,-0.03813219,-0.081765324,0.23646206,0.14122131,-0.07814286,0.0036274916,0.09147186,0.08654078,-0.12233212,0.3106055,0.042205747,0.036405776,-0.03864924,-0.025538066,0.014838845,0.02167879,-0.0633526,-0.0664891,-0.055753246,0.03558065,-0.02317482,0.021207662,2.0,2.0,-2.0,-2.0,1.3118966,0.3593698,-2.0,-0.5139983,-1.0844522,2.0,-2.0,-2.0,2.0,2.0,-2.0,-2.0,1.2262577,0.61336863,-2.0,-0.45343626,-0.8228337,2.0,-1.7193857,-2.0
2025-07-21 14:26:10.702,2.2600000000000016,2260,113,0.0123034185,-0.031399064,0.018073997,-0.017719502,-0.13112968,0.025707861,0.0,0.0,0.0,0.013712134,0.06669616,0.35329342,-0.048393592,-0.07025986,0.23687442,0.1545803,-0.088167034,-0.011398011,0.1115809,0.06792404,-0.11842215,0.31113192,0.00037512794,-0.039223965,0.04498135,-0.045864906,0.062515035,0.057625838,-0.076834776,0.0052529266,-0.009353097,0.052082356,-0.0393396,0.019848647,2.0,2.0,-2.0,-2.0,1.2262577,0.61336863,-2.0,-0.45343626,-0.8228337,2.0,-1.7193857,-2.0,2.0,2.0,-2.0,-2.0,0.85508823,0.6936659,-2.0,-0.44664586,-0.70560724,2.0,-1.3298653,-2.0
2025-07-21 14:26:10.719,2.2800000000000016,2280,114,-0.03165441,-0.04293822,0.022565445,-0.0207762,-0.120662585,-0.0478803,0.0,0.0,0.0,0.01315988,0.0630991,0.36066872,-0.039319873,-0.07156809,0.2438754,0.1503376,-0.08253102,-0.004291202,0.106551245,0.071305566,-0.1362968,0.29869676,0.06171184,0.060407117,-0.063719295,-0.015348321,-0.06660672,-0.020643754,-0.043251075,-0.04975141,-0.0440459,0.028538834,-0.025321731,0.023912555,2.0,2.0,-2.0,-2.0,0.85508823,0.6936659,-2.0,-0.44664586,-0.70560724,2.0,-1.3298653,-2.0,2.0,2.0,-2.0,-2.0,0.7085786,0.45676994,-2.0,-0.2948473,-0.84518445,2.0,-1.2778946,-2.0
2025-07-21 14:26:10.737,2.3000000000000016,2300,115,-0.030488001,0.020138508,-0.0078085377,-0.020638166,-0.152267,0.00017511696,0.0,0.0,0.0,0.012798766,0.074591756,0.36363336,-0.048117843,-0.06949804,0.22398119,0.14450501,-0.09681365,-0.0027232,0.10750548,0.066521116,-0.13654338,0.29849902,0.07675225,-0.04606269,-0.009865575,0.051218253,0.028389366,-0.011497888,-0.04875936,-0.0005073535,-0.050161112,-0.050599393,-0.06456441,-0.054093182,2.0,2.0,-2.0,-2.0,0.7085786,0.45676994,-2.0,-0.2948473,-0.84518445,2.0,-1.2778946,-2.0,2.0,2.0,-2.0,-2.0,0.7773535,0.1882462,-2.0,-0.32318816,-1.1480391,2.0,-1.6121715,-2.0
2025-07-21 14:26:10.757,2.3200000000000016,2320,116,-0.029495098,-0.039291993,0.049105264,-0.085551426,-0.064486824,-0.041490633,0.0,0.0,0.0,0.012571108,0.07038436,0.35776764,-0.036847986,-0.06959368,0.2317022,0.15804967,-0.08530068,-0.0060503287,0.094463274,0.069629185,-0.13974869,0.3051488,-0.0094639165,-0.06883496,-0.03312957,-0.0117505435,-0.030622039,-0.0057523623,0.009222075,0.021715289,-0.05915693,0.061108977,0.039224945,0.02628317,2.0,2.0,-2.0,-2.0,0.7773535,0.1882462,-2.0,-0.32318816,-1.1480391,2.0,-1.6121715,-2.0,2.0,2.0,-2.0,-2.0,1.0656582,0.3842706,-2.0,-0.78554535,-1.3056891,2.0,-1.5205175,-2.0
2025-07-21 14:26:10.777,2.3400000000000016,2340,117,0.031505745,0.027126998,-0.039549343,-0.08063417,-0.10195394,0.0061756684,0.0,0.0,0.0,0.012198696,0.07179924,0.36743918,-0.026478572,-0.072870106,0.22787917,0.14831908,-0.08295312,0.002424206,0.106852286,0.0776268,-0.13927482,0.31175816,-0.020300094,0.030859135,-0.026521415,0.04791981,-0.016397174,-0.072058365,0.02717154,0.04770808,0.043424748,0.00046295323,0.00087749725,0.054666452,2.0,2.0,-2.0,-2.0,1.0656582,0.3842706,-2.0,-0.78554535,-1.3056891,2.0,-1.5205175,-2.0,2.0,2.0,-2.0,-2.0,1.1592721,0.21186103,-2.0,-0.27869606,-1.0153228,2.0,-2.0,-2.0
2025-07-21 14:26:10.802,2.3600000000000017,2360,118,-0.025663847,0.008401889,0.03713062,-0.062637314,-0.06380074,0.03635058,0.0,0.0,0.0,0.011962938,0.07407014,0.3699269,-0.027652752,-0.061584,0.22487734,0.148684,-0.08298469,-0.012020836,0.11446767,0.068883926,-0.13437136,0.30509874,-0.041299857,-0.05878974,-0.06433591,0.046550166,-0.0053314846,-0.034938402,0.0080595715,0.05915602,0.05736254,-0.019346489,-0.060041994,0.042149454,2.0,2.0,-2.0,-2.0,1.1592721,0.21186103,-2.0,-0.27869606,-1.0153228,2.0,-2.0,-2.0,2.0,2.0,-2.0,-2.0,1.1617415,0.5643293,-2.0,-0.707056,-1.0787048,2.0,-1.7060935,-2.0
2025-07-21 14:26:10.819,2.3800000000000017,2380,119,0.037029535,0.001662772,-0.03336652,-0.110638864,-0.12987366,0.018143699,0.0,0.0,0.0,0.011673709,0.08091343,0.3573044,-0.044101704,-0.074050166,0.2245593,0.13725989,-0.083281964,-0.020015392,0.112682514,0.07521739,-0.14518006,0.30567595,-0.01962766,0.02397164,0.005724021,-0.024893373,0.010613246,0.008119447,-0.019865455,-0.03691396,0.02996472,-0.0068100845,-0.04143907,0.0071606897,2.0,2.0,-2.0,-2.0,1.1617415,0.5643293,-2.0,-0.707056,-1.0787048,2.0,-1.7060935,-2.0,2.0,2.0,-2.0,-2.0,1.0714614,0.42089224,-2.0,-0.2546083,-0.7548479,2.0,-1.8208123,-2.0
2025-07-21 14:26:10.837,2.4000000000000017,2400,120,0.019479834,-0.05023073,0.041995075,-0.051122725,-0.14542478,0.026438452,0.0,0.0,0.0,0.01137961,0.07787138,0.36400723,-0.037063845,-0.054909714,0.22902167,0.15286922,-0.08974431,-0.01929779,0.09984631,0.060201783,-0.147563,0.32076094,0.0105206,0.012966536,0.046601202,-0.010035606,-0.008656281,-0.04330315,-0.01174652,0.055798028,-0.010150164,-0.06609532,-0.038011998,-0.066875994,2.0,2.0,-2.0,-2.0,1.0714614,0.42089224,-2.0,-0.2546083,-0.7548479,2.0,-1.8208123,-2.0,2.0,2.0,-2.0,-2.0,0.8774456,0.6151302,-2.0,-0.5694588,-0.9274325,2.0,-1.5190225,-2.0
2025-07-21 14:26:10.857,2.4200000000000017,2420,121,0.017943688,-0.054220356,-0.0064094784,-0.032260604,-0.10993398,0.046562668,0.0,0.0,0.0,0.011115688,0.06835854,0.35666376,-0.03608175,-0.057092555,0.21872796,0.15222645,-0.0838325,-0.022529168,0.11546352,0.06353889,-0.1412651,0.32291773,0.029867057,-0.016053567,-0.017716005,-0.044519164,0.05658755,-0.033309355,0.024646427,0.067177154,0.053213406,0.009795256,0.01888063,0.06918043,2.0,2.0,-2.0,-2.0,0.8774456,0.6151302,-2.0,-0.5694588,-0.9274325,2.0,-1.5190225,-2.0,2.0,2.0,-2.0,-2.0,0.8220576,0.39279264,-2.0,-0.36327818,-0.8316412,2.0,-1.6344715,-2.0
2025-07-21 14:26:10.877,2.4400000000000017,2440,122,-0.053108726,0.031669967,0.03979699,-0.06991326,-0.05635233,0.025457686,0.0,0.0,0.0,0.010918976,0.07187973,0.36045855,-0.041415337,-0.054167148,0.23274656,0.14666022,-0.08337197,-0.016624747,0.11267033,0.059623785,-0.15448712,0.3043809,0.053797964,0.021146229,-0.051685356,-0.007112755,0.04087062,0.019419722,-0.01146438,0.07389596,0.07476625,-0.06542325,-0.048612963,0.05092787,2.0,2.0,-2.0,-2.0,0.8220576,0.39279264,-2.0,-0.36327818,-0.8316412,2.0,-1.6344715,-2.0,2.0,2.0,-2.0,-2.0,0.88261735,0.46382546,-2.0,-0.61098737,-0.99565953,2.0,-1.5460017,-2.0
2025-07-21 14:26:10.903,2.4600000000000017,2460,123,0.02869547,0.012804921,0.011556044,-0.10229275,-0.13380794,-0.022007981,0.0,0.0,0.0,0.010814494,0.06716415,0.37329698,-0.034863636,-0.063264176,0.21685447,0.14984488,-0.097442456,-0.017916188,0.11232564,0.071493335,-0.14956212,0.309715,0.0124428645,-0.0013935838,-0.012583662,-0.028445024,-0.025698747,-0.05178662,0.038642135,0.06573296,-0.017989498,0.047242712,-0.045711167,-0.057424273,2.0,2.0,-2.0,-2.0,0.88261735,0.46382546,-2.0,-0.61098737,-0.99565953,2.0,-1.5460017,-2.0,2.0,2.0,-2.0,-2.0,0.93136585,0.32960236,-2.0,-0.3798643,-0.93995297,2.0,-1.7007215,-2.0
2025-07-21 14:26:10.919,2.4800000000000018,2480,124,-0.018679766,-0.03672378,-0.03092819,-0.0401241,-0.13220163,0.04340479,0.0,0.0,0.0,0.010811875,0.08543054,0.36585373,-0.037045613,-0.07053238,0.22734496,0.14560367,-0.08773991,-0.01884742,0.11166493,0.0658186,-0.14490005,0.3165507,0.062327534,-0.0314172,0.009458456,-0.037842974,-0.075926416,-0.041520197,-0.053126242,-0.071929224,0.06292366,0.027977593,0.015709529,-0.029291343,2.0,2.0,-2.0,-2.0,0.93136585,0.32960236,-2.0,-0.3798643,-0.93995297,2.0,-1.7007215,-2.0,2.0,2.0,-2.0,-2.0,1.0504591,0.41158378,-2.0,-0.40289134,-0.96499175,2.0,-1.9021486,-2.0
2025-07-21 14:26:10.937,2.5000000000000018,2500,125,0.0063930107,-0.020319758,0.034966424,-0.07824584,-0.13838579,-0.027983135,0.0,0.0,0.0,0.010827947,0.08390598,0.3603778,-0.028427012,-0.063447535,0.21840028,0.14500952,-0.093000166,-0.018634949,0.1059985,0.060914505,-0.14990647,0.32250756,0.025704602,-0.012063989,0.072359554,0.07105028,-0.054733373,0.057472147,-0.04074367,0.05341135,-0.03808848,-0.013853719,-0.041532315,0.05728323,2.0,2.0,-2.0,-2.0,1.0504591,0.41158378,-2.0,-0.40289134,-0.96499175,2.0,-1.9021486,-2.0,2.0,2.0,-2.0,-2.0,1.060075,0.5892567,-2.0,-0.6307933,-0.897915,2.0,-1.6992646,-2.0
2025-07-21 14:26:10.957,2.520000000000002,2520,126,0.038743217,-0.03482736,0.033393946,-0.037638072,-0.1045183,-0.025979932,0.0,0.0,0.0,0.010659109,0.083255745,0.36471036,-0.026139518,-0.058933765,0.22564128,0.14140493,-0.10384263,-0.014797477,0.10900142,0.06375116,-0.15802911,0.31390432,0.006559327,-0.06486476,-0.040970597,0.026232507,0.010845297,-0.025957989,0.013898497,-0.008274154,-0.00731094,-0.021417413,-0.029255433,-0.048750814,2.0,2.0,-2.0,-2.0,1.060075,0.5892567,-2.0,-0.6307933,-0.897915,2.0,-1.6992646,-2.0,2.0,2.0,-2.0,-2.0,0.9026989,0.51590526,-2.0,-0.39336258,-0.8280744,2.0,-1.3482372,-2.0
2025-07-21 14:26:10.977,2.540000000000002,2540,127,-0.06713185,0.019166917,-0.005388122,-0.10469613,-0.070797175,0.021809025,0.0,0.0,0.0,0.010567316,0.08240601,0.36852133,-0.035218455,-0.06720175,0.21297985,0.15019742,-0.10107676,-0.026406283,0.11329753,0.07583351,-0.16029646,0.30817893,0.0114601925,0.031682573,0.054507285,0.06240655,-0.014345987,-0.04382289,0.03946069,0.047912803,-0.060374804,-0.03670486,-0.009257528,0.04093066,2.0,2.0,-2.0,-2.0,0.9026989,0.51590526,-2.0,-0.39336258,-0.8280744,2.0,-1.3482372,-2.0,2.0,2.0,-2.0,-2.0,0.8073711,0.19419102,-2.0,-0.3432352,-1.0581886,2.0,-1.8519588,-2.0
2025-07-21 14:26:11.003,2.560000000000002,2560,128,-0.0020550417,0.018226646,-0.005495101,-0.059580505,-0.096971266,-0.047712747,0.0,0.0,0.0,0.010705141,0.07116243,0.36356828,-0.02521556,-0.053823233,0.21715383,0.14959262,-0.09501982,-0.026765428,0.118411504,0.067982174,-0.14494503,0.3196734,0.047071885,-0.06740222,0.013437652,0.0721663,-0.06528992,-0.016629538,0.06900295,-0.02011328,-0.030417275,-0.022699287,-0.056096155,-0.029496757,2.0,2.0,-2.0,-2.0,0.8073711,0.19419102,-2.0,-0.3432352,-1.0581886,2.0,-1.8519588,-2.0,2.0,2.0,-2.0,-2.0,1.1341566,0.3616863,-2.0,-0.5442271,-1.0925969,2.0,-1.924021,-2.0
2025-07-21 14:26:11.020,2.580000000000002,2580,129,-0.029484984,-0.03872274,0.033253904,-0.057258613,-0.08535223,0.023159321,0.0,0.0,0.0,0.01068257,0.074197106,0.37381884,-0.025822883,-0.0626112,0.22932534,0.1555768,-0.09615122,-0.022981962,0.105507195,0.066494636,-0.15317461,0.31665596,0.05767306,-0.02565325,0.003523288,-0.029623736,0.041228984,-0.006766068,0.023376679,-0.063131906,-0.02897038,0.039226964,0.021700528,-0.05756819,2.0,2.0,-2.0,-2.0,1.1341566,0.3616863,-2.0,-0.5442271,-1.0925969,2.0,-1.924021,-2.0,2.0,2.0,-2.0,-2.0,1.1174824,0.5840732,-2.0,-0.6381498,-0.9691028,2.0,-1.4880337,-2.0
2025-07-21 14:26:11.038,2.600000000000002,2600,130,0.021488898,0.0064845905,-0.04139267,-0.10119989,-0.09193345,0.043507904,0.0,0.0,0.0,0.010449968,0.07517862,0.37974668,-0.041384492,-0.06069341,0.21463102,0.14281796,-0.09910591,-0.02279624,0.112318896,0.074137524,-0.16119543,0.3158345,-0.054202285,0.04198587,0.0046327184,-0.010842153,0.0060365265,-0.04952427,-0.072343506,-0.06329767,-0.042520158,0.07162615,0.07352368,-0.0009553384,2.0,2.0,-2.0,-2.0,1.1174824,0.5840732,-2.0,-0.6381498,-0.9691028,2.0,-1.4880337,-2.0,2.0,2.0,-2.0,-2.0,0.93341374,0.2876252,-2.0,-0.1833417,-0.8280576,2.0,-1.88971,-2.0
2025-07-21 14:26:11.058,2.620000000000002,2620,131,0.019844472,-0.017644553,0.061783794,-0.0902303,-0.13196135,0.0042827665,0.0,0.0,0.0,0.01045849,0.07634666,0.37578502,-0.039959647,-0.069493115,0.22846349,0.14371313,-0.10312549,-0.021206364,0.108992666,0.06910063,-0.16301093,0.30222365,-0.009805864,-0.031618115,0.06827719,-0.04800378,0.052990012,-0.010081342,-0.044224236,-0.029475167,0.035200823,-0.0040919203,0.011070036,0.05256655,2.0,2.0,-2.0,-2.0,0.93341374,0.2876252,-2.0,-0.1833417,-0.8280576,2.0,-1.88971,-2.0,2.0,2.0,-2.0,-2.0,0.945612,0.6010169,-2.0,-0.8038102,-1.0998975,2.0,-1.4198531,-2.0
2025-07-21 14:26:11.078,2.640000000000002,2640,132,-0.045363817,0.031171536,-0.030231487,-0.016145455,-0.100151844,-0.012958948,0.0,0.0,0.0,0.010393209,0.07098932,0.3741841,-0.029006261,-0.058664735,0.2235541,0.15351795,-0.092461795,-0.017814338,0.10657099,0.06079535,-0.16261648,0.30894232,-0.036949888,0.030333664,-0.07279439,0.06043064,0.0038303046,0.060829893,0.068028055,-0.043893527,0.060955897,0.02264831,0.0072217733,-0.0020051312,2.0,2.0,-2.0,-2.0,0.945612,0.6010169,-2.0,-0.8038102,-1.0998975,2.0,-1.4198531,-2.0,2.0,2.0,-2.0,-2.0,0.9635189,0.29284543,-2.0,-0.2881556,-0.9155975,2.0,-1.6710708,-2.0
2025-07-21 14:26:11.103,2.660000000000002,2660,133,0.030573577,0.024182562,0.0072584553,-0.01767027,-0.13307501,0.043169387,0.0,0.0,0.0,0.010445558,0.07217549,0.36761218,-0.03411766,-0.055353515,0.22526357,0.14554384,-0.09275941,-0.03164126,0.120027505,0.068130426,-0.14549874,0.30352098,0.008937305,0.06418943,0.060730875,-0.07484365,0.027691055,-0.04545542,-0.013740647,0.013947839,0.059731066,-0.009135573,-0.026831781,0.0051934896,2.0,2.0,-2.0,-2.0,0.9635189,0.29284543,-2.0,-0.2881556,-0.9155975,2.0,-1.6710708,-2.0,2.0,2.0,-2.0,-2.0,0.9625689,0.4732129,-2.0,-0.5735088,-1.0292151,2.0,-1.7782788,-2.0
2025-07-21 14:26:11.119,2.680000000000002,2680,134,-0.008767639,0.0034923195,0.04400833,-0.056069706,-0.09460763,-0.009955852,0.0,0.0,0.0,0.01061592,0.07062428,0.38245264,-0.032105856,-0.068503305,0.22549868,0.14722471,-0.094539955,-0.020627456,0.12128558,0.06508372,-0.1444841,0.2961289,-0.069893375,0.053448707,-0.052211456,0.06066688,0.011133612,0.034228105,-0.026410295,0.0093494,-0.04083776,0.0033732743,-0.02793336,0.03463783,2.0,2.0,-2.0,-2.0,0.9625689,0.4732129,-2.0,-0.5735088,-1.0292151,2.0,-1.7782788,-2.0,2.0,2.0,-2.0,-2.0,1.0433081,0.5261227,-2.0,-0.6331304,-0.9687257,2.0,-1.4392407,-2.0
2025-07-21 14:26:11.138,2.700000000000002,2700,135,-0.026735717,0.030081917,-0.059695795,-0.069501765,-0.12365103,-0.04511734,0.0,0.0,0.0,0.010661825,0.08475182,0.37009442,-0.03911748,-0.054245893,0.21227188,0.15532294,-0.10113945,-0.02168873,0.10547438,0.06695653,-0.1445086,0.31146714,-0.0065690055,0.0025901047,0.019807845,0.0046306998,-0.060567223,0.002049826,-0.033572175,-0.005351157,-0.034074116,0.007323414,0.07834143,-0.060442712,2.0,2.0,-2.0,-2.0,1.0433081,0.5261227,-2.0,-0.6331304,-0.9687257,2.0,-1.4392407,-2.0,2.0,2.0,-2.0,-2.0,0.92666,0.22964273,-2.0,-0.12453935,-0.8573715,2.0,-2.0,-2.0
2025-07-21 14:26:11.158,2.720000000000002,2720,136,-0.008974614,0.021918094,0.05667152,-0.038581096,-0.09588274,-0.0017567053,0.0,0.0,0.0,0.010903489,0.0799755,0.3716001,-0.040485878,-0.060337037,0.2237395,0.15344882,-0.096104234,-0.028818639,0.110655956,0.06752191,-0.1549576,0.29738054,-0.06403976,-0.04100182,0.04691604,0.032168925,-0.06453908,0.054482657,-0.059937812,0.030833745,-0.038037937,0.029974518,0.06792034,0.059845854,2.0,2.0,-2.0,-2.0,0.92666,0.22964273,-2.0,-0.12453935,-0.8573715,2.0,-2.0,-2.0,2.0,2.0,-2.0,-2.0,1.0073775,0.6347551,-2.0,-0.9245866,-1.1295818,2.0,-1.5751214,-2.0
2025-07-21 14:26:11.178,2.740000000000002,2740,137,0.012468125,-0.031359382,0.028027464,-0.020810006,-0.09984919,-0.012897322,0.0,0.0,0.0,0.010882123,0.07503573,0.37617996,-0.034410767,-0.06639611,0.22437929,0.14896466,-0.0961221,-0.032822028,0.12096504,0.067774765,-0.14807053,0.29582748,-0.019261066,-0.074395806,0.041319173,-0.06370597,0.0382674,0.035130497,0.0207104,0.01810322,0.045215238,0.025066517,-0.057750154,-0.057768535,2.0,2.0,-2.0,-2.0,1.0073775,0.6347551,-2.0,-0.9245866,-1.1295818,2.0,-1.5751214,-2.0,2.0,2.0,-2.0,-2.0,0.91388917,0.5789029,-2.0,-0.46813732,-0.7947121,2.0,-1.2339303,-2.0
2025-07-21 14:26:11.203,2.760000000000002,2760,138,-0.083853185,-0.034959823,-0.02975927,-0.088956356,-0.085825786,-0.035000045,0.0,0.0,0.0,0.010862737,0.06933351,0.3705687,-0.03683467,-0.062567964,0.21085165,0.14550166,-0.09695757,-0.035224766,0.106847905,0.07222113,-0.157949,0.30589738,0.04958683,0.024621136,0.0019183108,-0.03076163,0.00577743,0.057001084,0.057845514,0.042452786,-0.06798586,-0.056469496,-0.019259887,-0.035576064,2.0,2.0,-2.0,-2.0,0.91388917,0.5789029,-2.0,-0.46813732,-0.7947121,2.0,-1.2339303,-2.0,2.0,2.0,-2.0,-2.0,0.7224684,0.20061688,-2.0,-0.17420328,-0.9048327,2.0,-1.8297744,-2.0
2025-07-21 14:26:11.220,2.780000000000002,2780,139,-0.05759945,-0.031193687,0.030180996,-0.061366234,-0.09389302,-0.0145011,0.0,0.0,0.0,0.011251449,0.07072406,0.38717967,-0.026225312,-0.060824577,0.22646786,0.15829721,-0.08996346,-0.033041004,0.1221495,0.07394332,-0.15737773,0.3043227,-0.05998785,0.04733492,0.065123945,0.051455926,0.043011542,-0.026071683,-0.0027665591,-0.03510714,-0.039304323,0.022094611,0.028870553,0.00127276,2.0,2.0,-2.0,-2.0,0.7224684,0.20061688,-2.0,-0.17420328,-0.9048327,2.0,-1.8297744,-2.0,2.0,2.0,-2.0,-2.0,0.9988334,0.51162523,-2.0,-0.8055387,-1.2042303,2.0,-1.6833823,-2.0
2025-07-21 14:26:11.239,2.800000000000002,2800,140,-0.0009470024,0.040478136,-0.03394698,-0.019138658,-0.13896392,-0.037937615,0.0,0.0,0.0,0.011345871,0.077168636,0.3874993,-0.026169403,-0.068827815,0.21801418,0.15573506,-0.090161055,-0.025283802,0.11379916,0.07732156,-0.143624,0.30736184,0.02574567,-0.00033685603,0.033405095,0.047428638,-0.052109197,-0.03733861,0.0521307,0.048257057,-0.06359238,-0.023614217,0.05029358,-0.05025608,2.0,2.0,-2.0,-2.0,0.9988334,0.51162523,-2.0,-0.8055387,-1.2042303,2.0,-1.6833823,-2.0,2.0,2.0,-2.0,-2.0,1.0618979,0.32953495,-2.0,-0.32503697,-0.89386886,2.0,-1.9189286,-2.0
2025-07-21 14:26:11.259,2.820000000000002,2820,141,0.019060034,-0.021865778,-0.025693795,-0.107785925,-0.057381827,0.049111634,0.0,0.0,0.0,0.011283698,0.07388063,0.36901024,-0.019446056,-0.06627887,0.21090049,0.15363124,-0.09436901,-0.029983671,0.12516493,0.07218684,-0.14802317,0.29731607,-0.038371414,-0.030737381,-0.06926337,-0.01357361,0.009470705,0.0017213293,0.04352285,-0.0038340865,-0.039746545,0.07010743,-0.073309824,-0.04999519,2.0,2.0,-2.0,-2.0,1.0618979,0.32953495,-2.0,-0.32503697,-0.89386886,2.0,-1.9189286,-2.0,2.0,2.0,-2.0,-2.0,1.0734411,0.4194569,-2.0,-0.31201053,-0.8351768,2.0,-2.0,-2.0
2025-07-21 14:26:11.280,2.840000000000002,2840,142,0.052099127,-0.040430296,0.04189594,-0.10281475,-0.055376265,0.0028486787,0.0,0.0,0.0,0.011147592,0.084146224,0.37095767,-0.033664644,-0.057710536,0.20604445,0.15476613,-0.08594562,-0.035049915,0.10709182,0.07542766,-0.16789028,0.3126655,-0.027380299,-0.036086526,0.060806733,0.008106087,-0.061490983,-0.05381902,0.011265995,-0.014862448,-0.042087242,0.0126284,-0.08545131,-0.0042642443,2.0,2.0,-2.0,-2.0,1.0734411,0.4194569,-2.0,-0.31201053,-0.8351768,2.0,-2.0,-2.0,2.0,2.0,-2.0,-2.0,1.0108094,0.58548915,-2.0,-0.59442014,-0.8541952,2.0,-1.6977093,-2.0
2025-07-21 14:26:11.303,2.860000000000002,2860,143,-0.01962372,-0.007565149,0.0557259,-0.015899844,-0.10561317,-0.019678943,0.0,0.0,0.0,0.010683245,0.07394629,0.3772503,-0.022185558,-0.06246833,0.21961436,0.14711212,-0.10294238,-0.035101376,0.11419232,0.06967666,-0.15445465,0.31107092,-0.061377063,0.0041544307,0.013411537,0.016411962,0.062020883,0.040847912,0.060170244,0.053331614,0.052332714,-0.04758597,0.06734806,0.0661487,2.0,2.0,-2.0,-2.0,1.0108094,0.58548915,-2.0,-0.59442014,-0.8541952,2.0,-1.6977093,-2.0,2.0,2.0,-2.0,-2.0,0.8127097,0.6332718,-2.0,-0.6696728,-0.9221156,2.0,-1.123753,-2.0
2025-07-21 14:26:11.319,2.880000000000002,2880,144,-0.004471982,0.032981023,-0.039306197,-0.10793097,-0.10715737,0.011509483,0.0,0.0,0.0,0.0102809975,0.08974557,0.3799782,-0.032034244,-0.06830315,0.20855305,0.15828745,-0.08688019,-0.04125165,0.11185743,0.06251379,-0.15689887,0.29552522,-0.061365686,-0.036803734,-0.026930053,0.024461241,0.07508906,0.0042845206,0.00025708324,-0.012745902,0.050071526,-0.027430156,0.036871895,0.036294077,2.0,2.0,-2.0,-2.0,0.8127097,0.6332718,-2.0,-0.6696728,-0.9221156,2.0,-1.123753,-2.0,2.0,2.0,-2.0,-2.0,0.71402717,0.14604144,-2.0,-0.23648927,-1.0251448,2.0,-1.6172829,-2.0
2025-07-21 14:26:11.339,2.900000000000002,2900,145,0.02068208,0.013249181,0.044683482,-0.044657536,-0.05292434,0.040310025,0.0,0.0,0.0,0.010409965,0.082191005,0.38711137,-0.018618725,-0.067568414,0.21171874,0.15826677,-0.10146693,-0.023680424,0.10921607,0.07171736,-0.15531412,0.30737746,-0.0740238,0.03402938,0.07244937,0.014620104,-0.006985777,0.0528666,0.0643738,0.05246205,-0.064772695,0.017027995,-0.016422242,-0.014745221,2.0,2.0,-2.0,-2.0,0.71402717,0.14604144,-2.0,-0.23648927,-1.0251448,2.0,-1.6172829,-2.0,2.0,2.0,-2.0,-2.0,0.9920025,0.3596775,-2.0,-0.82776433,-1.3459467,2.0,-1.7049003,-2.0
2025-07-21 14:26:11.359,2.920000000000002,2920,146,-0.029555121,0.008110377,-0.04576482,-0.08369356,-0.12923211,-0.009718224,0.0,0.0,0.0,0.010584387,0.08127798,0.38119158,-0.024569042,-0.063733086,0.21085884,0.14717792,-0.095296435,-0.03038304,0.1144836,0.06812996,-0.15123399,0.30225486,0.04908509,-0.06445042,0.06388967,-0.07021637,0.021307796,-0.011395189,0.015285294,0.01747715,-0.052929237,-0.06278752,-0.02019454,-0.031297147,2.0,2.0,-2.0,-2.0,0.9920025,0.3596775,-2.0,-0.82776433,-1.3459467,2.0,-1.7049003,-2.0,2.0,2.0,-2.0,-2.0,1.1797295,0.2086332,-2.0,-0.23005012,-0.9155861,2.0,-2.0,-2.0
2025-07-21 14:26:11.381,2.940000000000002,2940,147,0.052952364,0.010285391,-0.007989209,-0.04131641,-0.088271655,-0.011701701,0.0,0.0,0.0,0.010695625,0.08730741,0.3839114,-0.019293504,-0.055148575,0.2032554,0.15910298,-0.08919654,-0.029608946,0.102979675,0.06944585,-0.15460339,0.2931404,-0.058279373,-0.058143836,0.05280139,0.012229761,0.033603523,0.028172005,-0.072957076,-0.0721756,0.062649615,-0.05648437,-0.023737622,-0.023268865,2.0,2.0,-2.0,-2.0,1.1797295,0.2086332,-2.0,-0.23005012,-0.9155861,2.0,-2.0,-2.0,2.0,2.0,-2.0,-2.0,1.1098163,0.5927601,-2.0,-0.5768765,-0.9411171,2.0,-1.8465444,-2.0
2025-07-21 14:26:11.403,2.960000000000002,2960,148,0.056508854,0.025123702,-0.0019604983,-0.070111655,-0.13650025,-0.005403104,0.0,0.0,0.0,0.010633779,0.072253965,0.3755108,-0.020411037,-0.06125199,0.22087756,0.15559569,-0.102495454,-0.034253724,0.11607525,0.07277934,-0.15029225,0.30804953,0.007998251,-0.016869167,-0.023493264,0.05988726,0.0092171775,0.016012754,0.027685951,-0.06405914,-0.020615129,0.056569632,-0.03909254,0.016386848,2.0,2.0,-2.0,-2.0,1.1098163,0.5927601,-2.0,-0.5768765,-0.9411171,2.0,-1.8465444,-2.0,2.0,2.0,-2.0,-2.0,1.0027038,0.503855,-2.0,-0.39830798,-0.77277964,2.0,-1.5869241,-2.0
2025-07-21 14:26:11.419,2.980000000000002,2980,149,-0.047292147,-0.018092021,-0.020609232,-0.05606794,-0.059225116,-0.02616161,0.0,0.0,0.0,0.010412729,0.08456195,0.37616393,-0.039831597,-0.0591941,0.20544027,0.14657648,-0.09741376,-0.028275896,0.11117112,0.0620812,-0.1628353,0.30774465,0.0068592606,0.058307167,0.044125736,-0.016559884,0.033638082,-0.0010117664,0.06491679,-0.045731764,-0.061040726,0.027642429,0.03515066,-0.018488556,2.0,2.0,-2.0,-2.0,1.0027038,0.503855,-2.0,-0.39830798,-0.77277964,2.0,-1.5869241,-2.0,2.0,2.0,-2.0,-2.0,0.8602197,0.3442822,-2.0,-0.2721651,-0.8429174,2.0,-1.9354633,-2.0
2025-07-21 14:26:11.439,3.000000000000002,3000,150,0.03633146,0.03950464,0.06418687,-0.06451807,-0.12088246,-0.0151822725,0.0,0.0,0.0,0.010313442,0.08271966,0.392786,-0.02767804,-0.05635524,0.21281725,0.14955391,-0.09072154,-0.03713107,0.10424505,0.058829248,-0.15546216,0.29285362,0.029342208,0.0011060418,-0.04323323,0.0056192903,0.037751693,-0.068087295,-0.0068766433,0.072319254,-0.027540447,0.0581299,-0.011087622,0.029146397,2.0,2.0,-2.0,-2.0,0.8602197,0.3442822,-2.0,-0.2721651,-0.8429174,2.0,-1.9354633,-2.0,2.0,2.0,-2.0,-2.0,0.927083,0.563481,-2.0,-0.7138658,-0.98198426,2.0,-1.5695438,-2.0
2025-07-21 14:26:11.460,3.0200000000000022,3020,151,0.006995363,-0.00096098636,0.0065486506,-0.08677609,-0.060438097,-0.015830455,0.0,0.0,0.0,0.010049955,0.087960064,0.38277486,-0.028869994,-0.05528802,0.21557277,0.14812572,-0.08863546,-0.042885996,0.11196692,0.06997655,-0.1603646,0.30917904,0.016918635,0.042964596,-0.027014652,-0.022445586,0.07075835,0.041141767,0.06937777,0.043668758,0.029660678,-0.018628195,-0.014169503,-0.04258592,2.0,2.0,-2.0,-2.0,0.927083,0.563481,-2.0,-0.7138658,-0.98198426,2.0,-1.5695438,-2.0,2.0,2.0,-2.0,-2.0,0.8793756,0.43527853,-2.0,-0.39852,-0.80774766,2.0,-1.5705446,-2.0
2025-07-21 14:26:11.486,3.0400000000000023,3040,152,0.005212012,0.040176827,0.0070018615,-0.061780013,-0.12036492,-0.039332498,0.0,0.0,0.0,0.009888078,0.08306409,0.376036,-0.032438114,-0.04954375,0.21336861,0.13962999,-0.098796785,-0.034072407,0.105660476,0.06039302,-0.15821743,0.3002201,0.005125917,-0.007321471,0.016010165,-0.045803662,0.033253685,0.036162075,0.073681235,0.030405337,-0.031875547,-0.006521424,0.055966653,0.05825792,2.0,2.0,-2.0,-2.0,0.8793756,0.43527853,-2.0,-0.39852,-0.80774766,2.0,-1.5705446,-2.0,2.0,2.0,-2.0,-2.0,0.83810365,0.3322909,-2.0,-0.44900453,-0.9522061,2.0,-1.7699968,-2.0
2025-07-21 14:26:11.503,3.0600000000000023,3060,153,0.0051626028,-0.049216464,-0.0019220372,-0.1085294,-0.09920505,0.04185042,0.0,0.0,0.0,0.009965006,0.07778605,0.37432972,-0.03168458,-0.06611416,0.20926909,0.16039117,-0.103896946,-0.040750854,0.11364871,0.056390334,-0.16782802,0.3043515,-0.058619816,0.053126138,0.05415324,0.030411528,0.038222097,-0.010573714,0.04791355,-0.06783131,-0.030666342,0.041090894,0.009693414,0.06631264,2.0,2.0,-2.0,-2.0,0.83810365,0.3322909,-2.0,-0.44900453,-0.9522061,2.0,-1.7699968,-2.0,2.0,2.0,-2.0,-2.0,1.0691379,0.3759848,-2.0,-0.5290767,-1.0075214,2.0,-1.9063513,-2.0
2025-07-21 14:26:11.521,3.0800000000000023,3080,154,0.017883211,-0.0321319,0.011909487,-0.015336004,-0.042444,-0.0071518538,0.0,0.0,0.0,0.009978582,0.07790255,0.37434524,-0.028681835,-0.051025532,0.20500545,0.15725411,-0.10299227,-0.037808955,0.11080471,0.071976736,-0.17395124,0.2931425,-0.023074728,-0.07026765,0.025287056,0.0288393,-0.011393893,-0.06455253,-0.033378825,-0.036410153,0.004046877,0.067179054,-0.006032008,-0.032523166,2.0,2.0,-2.0,-2.0,1.0691379,0.3759848,-2.0,-0.5290767,-1.0075214,2.0,-1.9063513,-2.0,2.0,2.0,-2.0,-2.0,1.0776944,0.5421485,-2.0,-0.52878815,-0.86278623,2.0,-1.7457201,-2.0
2025-07-21 14:26:11.541,3.1000000000000023,3100,155,0.010192962,-0.04674576,-0.017021805,-0.056628197,-0.06959171,-0.014820142,0.0,0.0,0.0,0.009907068,0.09151995,0.37728614,-0.024871431,-0.061505217,0.21017116,0.14353837,-0.10422959,-0.03184072,0.12061069,0.0629277,-0.16531946,0.30008334,-0.07299515,-0.05528886,-0.059862975,0.01794478,0.041564826,0.02674401,0.061928604,-0.06514845,-0.053244,-0.028114686,0.06723297,-0.058711637,2.0,2.0,-2.0,-2.0,1.0776944,0.5421485,-2.0,-0.52878815,-0.86278623,2.0,-1.7457201,-2.0,2.0,2.0,-2.0,-2.0,0.93948805,0.39206094,-2.0,-0.2943521,-0.843602,2.0,-1.6892672,-2.0
2025-07-21 14:26:11.561,3.1200000000000023,3120,156,-0.0110641215,0.011337214,0.046912476,-0.04521371,-0.124479584,-0.021860061,0.0,0.0,0.0,0.009898201,0.079065,0.38826716,-0.029845662,-0.06438918,0.21090226,0.14140253,-0.09204453,-0.0425302,0.12046864,0.06981216,-0.16644774,0.3049071,0.034158546,-0.023789871,-0.071483284,0.03724601,0.06923152,-0.014768133,0.019899905,0.021718193,0.046449147,-0.059376806,-0.024045004,0.033231266,2.0,2.0,-2.0,-2.0,0.93948805,0.39206094,-2.0,-0.2943521,-0.843602,2.0,-1.6892672,-2.0,2.0,2.0,-2.0,-2.0,0.87171984,0.49396354,-2.0,-0.64301425,-1.0941882,2.0,-1.3233972,-2.0
2025-07-21 14:26:11.586,3.1400000000000023,3140,157,-0.025879545,-0.0046578883,-0.037972383,-0.08003294,-0.10404407,-0.038986936,0.0,0.0,0.0,0.009866572,0.09281222,0.38469073,-0.019739496,-0.054248005,0.2021478,0.15016602,-0.0887187,-0.04217887,0.11431395,0.060498983,-0.1555405,0.2960889,-0.0010993843,0.07560988,-0.034536205,0.035637636,0.04351909,-0.003973623,-0.013121039,0.03577347,0.011922048,-0.044786245,-0.0307167,-0.027482012,2.0,2.0,-2.0,-2.0,0.87171984,0.49396354,-2.0,-0.64301425,-1.0941882,2.0,-1.3233972,-2.0,2.0,2.0,-2.0,-2.0,0.92665267,0.17696624,-2.0,-0.2021921,-0.94769174,2.0,-1.9886836,-2.0
2025-07-21 14:26:11.603,3.1600000000000024,3160,158,-0.012128038,0.021900935,-0.009697903,-0.022384971,-0.071426116,0.04370452,0.0,0.0,0.0,0.01001753,0.08680133,0.3757791,-0.02760995,-0.065668814,0.20855144,0.15006912,-0.094204426,-0.027644759,0.10570896,0.06518211,-0.17009696,0.29748094,-0.058529533,-0.006691107,-0.060478717,-0.011038349,-0.009472432,-0.023254119,0.010742489,-0.063413545,0.0069152806,0.014506978,0.021328047,0.028886966,2.0,2.0,-2.0,-2.0,0.92665267,0.17696624,-2.0,-0.2021921,-0.94769174,2.0,-1.9886836,-2.0,2.0,2.0,-2.0,-2.0,1.1520166,0.4458133,-2.0,-0.5404541,-1.0136675,2.0,-2.0,-2.0
2025-07-21 14:26:11.622,3.1800000000000024,3180,159,-0.027785074,0.050595134,0.049553618,-0.051863402,-0.1297755,0.028739568,0.0,0.0,0.0,0.010027478,0.08606625,0.37667698,-0.033956192,-0.04947637,0.22060134,0.14650553,-0.0927581,-0.024777094,0.10365562,0.07102811,-0.1740708,0.29960677,-0.01155607,0.02203971,0.06643154,0.041939635,0.07364397,-0.011921584,0.0042654313,-0.05589482,0.014372441,0.031652115,0.027917244,0.054436732,2.0,2.0,-2.0,-2.0,1.1520166,0.4458133,-2.0,-0.5404541,-1.0136675,2.0,-2.0,-2.0,2.0,2.0,-2.0,-2.0,1.0895684,0.6218605,-2.0,-0.7406608,-0.94090635,2.0,-1.4892898,-2.0
2025-07-21 14:26:11.642,3.2000000000000024,3200,160,0.04184181,-0.057887517,-0.0017796931,-0.048749015,-0.04109623,-0.018460477,0.0,0.0,0.0,0.009759779,0.0934537,0.37965852,-0.034178395,-0.050012402,0.2090337,0.15672086,-0.09459019,-0.035607304,0.10968705,0.059035104,-0.17458744,0.30263022,-0.043541685,0.06379282,0.049986515,-0.0119414,0.05377584,-0.0061538112,0.057167687,0.060651306,-0.023922332,-0.043424726,0.008637456,0.06492557,2.0,2.0,-2.0,-2.0,1.0895684,0.6218605,-2.0,-0.7406608,-0.94090635,2.0,-1.4892898,-2.0,2.0,2.0,-2.0,-2.0,0.8680235,0.38409543,-2.0,-0.24301133,-0.7156101,2.0,-1.8653136,-2.0
2025-07-21 14:26:11.665,3.2200000000000024,3220,161,0.03821001,-0.036168918,-0.03580168,-0.052331444,-0.04532524,0.0027540466,0.0,0.0,0.0,0.009830307,0.07505115,0.39226463,-0.028200466,-0.0640845,0.20365669,0.15127616,-0.10652088,-0.036450274,0.11275489,0.0548632,-0.16994353,0.30629247,-0.020812778,0.014034046,-0.061041735,-0.06136913,0.030674465,0.046461396,0.037370034,0.05632319,0.0026751526,0.0031115713,0.056094427,-0.04960801,2.0,2.0,-2.0,-2.0,0.8680235,0.38409543,-2.0,-0.24301133,-0.7156101,2.0,-1.8653136,-2.0,2.0,2.0,-2.0,-2.0,0.87116337,0.39970338,-2.0,-0.3202469,-0.77109736,2.0,-2.0,-2.0
2025-07-21 14:26:11.686,3.2400000000000024,3240,162,0.058343016,0.025028784,0.06773153,-0.094105236,-0.08003044,-0.004113612,0.0,0.0,0.0,0.009940547,0.07664363,0.37909225,-0.035286944,-0.05641178,0.20167176,0.13948698,-0.09369279,-0.039295364,0.11837733,0.06875044,-0.17993292,0.3038248,0.054163463,-0.052311644,0.028915256,0.031861886,0.029919835,0.049204398,0.046544258,0.028314412,0.053895403,0.04081749,0.008659388,-0.015208829,2.0,2.0,-2.0,-2.0,0.87116337,0.39970338,-2.0,-0.3202469,-0.77109736,2.0,-2.0,-2.0,2.0,2.0,-2.0,-2.0,0.85197484,0.6392268,-2.0,-0.82655805,-0.9622152,2.0,-1.2717873,-2.0
