openverse-orca/OrcaGym/log/simulation_log_20250609_122939.csv
timestamp,imu_angle_roll,imu_angle_pitch,imu_angle_yaw,imu_angular_velocity_roll,imu_angular_velocity_pitch,imu_angular_velocity_yaw,imu_acc_x,imu_acc_y,imu_acc_z,fl_joint1_pos,fl_joint1_vel,fl_joint1_torque,fl_joint2_pos,fl_joint2_vel,fl_joint2_torque,fl_joint3_pos,fl_joint3_vel,fl_joint3_torque,fr_joint1_pos,fr_joint1_vel,fr_joint1_torque,fr_joint2_pos,fr_joint2_vel,fr_joint2_torque,fr_joint3_pos,fr_joint3_vel,fr_joint3_torque,hl_joint1_pos,hl_joint1_vel,hl_joint1_torque,hl_joint2_pos,hl_joint2_vel,hl_joint2_torque,hl_joint3_pos,hl_joint3_vel,hl_joint3_torque,hr_joint1_pos,hr_joint1_vel,hr_joint1_torque,hr_joint2_pos,hr_joint2_vel,hr_joint2_torque,hr_joint3_pos,hr_joint3_vel,hr_joint3_torque,fl_force_x,fl_force_y,fl_force_z,fr_force_x,fr_force_y,fr_force_z,hl_force_x,hl_force_y,hl_force_z,hr_force_x,hr_force_y,hr_force_z,fl_hip_action,fl_thigh_action,fl_calf_action,fr_hip_action,fr_thigh_action,fr_calf_action,hl_hip_action,hl_thigh_action,hl_calf_action,hr_hip_action,hr_thigh_action,hr_calf_action
2025-06-09 12:29:39.968,0.008869679,-0.045749456,-0.033380173,0.020011831,0.03962751,0.01759429,0.86178243,-1.5529134,0.0,0.0,0.006994581,0.00856573,-0.0043845074,0.0063775573,-0.0012134118,-0.00790247,-0.00027019338,0.002828587,0.009925542,-0.0070261313,-0.0029231342,0.004285183,-0.017062556,0.071330644,0.011113997,0.0642837,-0.0043677804,-0.010191125,-0.06179872,0.05947187,-0.05678422,0.07147575,-0.017248401,-0.047133617,0.0,0.0,0.0,0.0,0.0,0.0,0.0,0.0,0.0,0.0,0.0,0.0,-2.0,2.0,-2.0,2.0,2.0,-1.9728167,-2.0,-0.5298695,-2.0,2.0,-1.2257406,2.0
2025-06-09 12:29:39.973,-0.038679656,0.05258903,-0.008953133,-0.025493668,-0.02793775,0.016015356,0.0,0.0,0.0,0.0,-0.018283568,0.06569905,-0.058712047,0.011428496,0.06700448,-0.045685112,-0.006017763,-0.013715788,-0.056159314,0.009473538,-0.056726288,0.04991863,-0.087907955,0.31628627,-0.23166175,0.067991294,0.2644816,-0.12064311,-0.05184954,-0.02015703,-0.18065284,0.050164223,-0.19231077,0.17378989,-2.0,2.0,-2.0,2.0,2.0,-1.9728167,-2.0,-0.5298695,-2.0,2.0,-1.2257406,2.0,-2.0,2.0,-2.0,2.0,1.6823132,-2.0,2.0,-2.0,-2.0,-2.0,1.8940861,-2.0
2025-06-09 12:29:39.993,0.043116342,-0.012599424,-0.0539981,-0.012922267,-0.02532874,-0.0039277063,0.0,0.0,0.0,-6.618115e-05,-0.052065466,0.1460903,-0.099650964,0.03726752,0.15563665,-0.105178714,-0.003579176,-0.084584035,-0.09045556,0.009053402,0.020930734,0.00036034902,-0.035523135,0.06504681,-0.03260954,0.029994842,0.14136705,0.016565444,0.066207804,-0.21031134,0.039106235,-0.04948111,0.2632585,-0.22160116,-2.0,2.0,-2.0,2.0,1.6823132,-2.0,2.0,-2.0,-2.0,-2.0,1.8940861,-2.0,-2.0,2.0,-2.0,2.0,2.0,-2.0,2.0,-2.0,-2.0,-2.0,-2.0,-2.0
2025-06-09 12:29:40.014,-0.15871395,0.15205798,-0.013618778,-0.047302194,0.01358404,-0.042824622,0.0,0.0,0.0,0.00068184844,-0.05702406,0.1734785,-0.11302435,0.051732954,0.14555673,-0.091469325,-0.00041966955,-0.1604482,-0.06685784,-0.016539231,-0.00094015535,-0.04239529,-0.05397629,-0.020627547,-0.04705349,-0.02178914,0.040860172,-0.036302473,-0.03340865,-0.14034314,0.04835887,0.05097161,-0.17521603,0.045884803,-2.0,2.0,-2.0,2.0,2.0,-2.0,2.0,-2.0,-2.0,-2.0,-2.0,-2.0,-2.0,2.0,-2.0,2.0,2.0,-2.0,2.0,-2.0,-2.0,-2.0,-2.0,-2.0
2025-06-09 12:29:40.036,-0.116637245,0.15477222,-0.014296283,0.027674016,0.029995728,0.025740724,0.0,0.0,0.0,0.0012124792,-0.04944831,0.16649123,-0.11084109,0.055152014,0.15284829,-0.10303553,0.020022953,-0.18972977,-0.03423983,-0.018838119,-0.062220175,0.002902191,-0.010374015,-0.0042873765,-0.01960819,0.066168115,0.006207074,0.06280501,0.0114807505,-0.017762948,0.117299795,0.0095469095,-0.07726686,0.034121886,-2.0,2.0,-2.0,2.0,2.0,-2.0,2.0,-2.0,-2.0,-2.0,-2.0,-2.0,-2.0,2.0,-2.0,2.0,2.0,-2.0,2.0,-2.0,-2.0,-2.0,-2.0,-2.0
2025-06-09 12:29:40.054,-0.039432585,0.17176804,0.019208957,0.042927455,0.047366448,0.018000577,0.0,0.0,0.0,0.0014356755,-0.06171965,0.17313057,-0.11480285,0.06867841,0.15339842,-0.10237137,0.019670924,-0.21658596,-0.0028479756,-0.017880313,-0.097345985,0.030208131,-0.034253094,-0.041970227,0.0070597352,-0.012510366,-0.009270871,-0.036995724,0.04831026,-0.10191096,-0.0012099071,-0.039742276,-0.07328601,0.11014321,-2.0,2.0,-2.0,2.0,2.0,-2.0,2.0,-2.0,-2.0,-2.0,-2.0,-2.0,-2.0,2.0,-2.0,2.0,2.0,-2.0,2.0,-2.0,-2.0,-2.0,-2.0,-2.0
2025-06-09 12:29:40.074,-0.0047761346,0.13510123,0.047305264,-0.020064965,0.10432622,-0.03351884,0.0,0.0,0.0,0.0013927799,-0.06699829,0.18874665,-0.13909627,0.075404026,0.16284162,-0.120958544,0.0024808506,-0.23883922,0.0066121994,-0.011460628,-0.12818028,0.054459315,0.010992751,0.028764255,0.015993994,0.071531415,0.04895892,0.00030852176,-0.041718636,0.02249178,-0.025196362,-0.076319225,-0.035268582,0.038951434,-2.0,2.0,-2.0,2.0,2.0,-2.0,2.0,-2.0,-2.0,-2.0,-2.0,-2.0,-2.0,2.0,-2.0,2.0,2.0,-2.0,2.0,-2.0,-2.0,-2.0,-2.0,-2.0
2025-06-09 12:29:40.094,-0.08882816,0.1074972,0.014285019,0.07688088,0.08708692,-0.013368264,0.0,0.0,0.0,0.0011008267,-0.074162535,0.21092069,-0.1618158,0.08651176,0.2131744,-0.14876561,0.006496632,-0.24260412,0.014448247,-0.019009365,-0.14957668,0.0571512,-0.044530753,0.014388571,-0.05698843,0.060621455,0.12525766,-0.03557382,-0.027159467,-0.05363757,0.07463193,-0.018515164,-0.11277399,-0.0020724318,-2.0,2.0,-2.0,2.0,2.0,-2.0,2.0,-2.0,-2.0,-2.0,-2.0,-2.0,-2.0,2.0,-2.0,2.0,2.0,-2.0,2.0,-2.0,-2.0,-2.0,-2.0,-2.0
2025-06-09 12:29:40.117,-0.06103764,0.07327469,0.042839568,0.028926529,0.02710078,-0.042728778,0.0,0.0,0.0,0.00053422386,-0.07716978,0.22410792,-0.16618516,0.08079873,0.27711132,-0.18045056,0.013698827,-0.24893416,0.008646813,-0.0113528315,-0.17194393,0.06567473,0.023493009,0.0075826608,0.018911269,0.02775983,0.10415601,-0.006991249,-0.003824317,-0.009205779,-0.030426811,-0.059362806,0.018318761,0.062572636,-2.0,2.0,-2.0,2.0,2.0,-2.0,2.0,-2.0,-2.0,-2.0,-2.0,-2.0,-2.0,2.0,-2.0,2.0,2.0,-2.0,2.0,-2.0,-2.0,-2.0,-2.0,-2.0
2025-06-09 12:29:40.137,0.01541329,-0.012633253,0.032504275,-0.013137626,0.11600958,-0.037950356,0.0,0.0,0.0,-0.00051895017,-0.067088954,0.25434613,-0.18370086,0.082155935,0.31158334,-0.19213152,0.011936747,-0.2656291,0.012707717,-0.0057341643,-0.18529306,0.070449755,0.039642528,0.08531547,0.046892826,-0.0018462348,0.05087424,-0.023079833,-0.058745578,0.004906951,0.042986527,0.028028559,-0.09144652,-0.0033929201,-2.0,2.0,-2.0,2.0,2.0,-2.0,2.0,-2.0,-2.0,-2.0,-2.0,-2.0,-2.0,2.0,-2.0,2.0,2.0,-2.0,2.0,-2.0,-2.0,-2.0,-2.0,-2.0
2025-06-09 12:29:40.154,-0.030832186,-0.024973303,0.075635284,0.011776801,0.09871136,0.031151082,0.0,0.0,0.0,-0.0019339987,-0.06443096,0.2660032,-0.17136246,0.09304529,0.3311389,-0.18114038,-0.00027775372,-0.26055926,0.014605026,-0.00859015,-0.18946199,0.08156128,0.035152875,0.04202893,-0.029436072,0.027307887,0.04097757,0.072755046,-0.0573324,-0.0022653386,3.1852876e-05,-0.020023905,0.0125301955,-0.035542242,-2.0,2.0,-2.0,2.0,2.0,-2.0,2.0,-2.0,-2.0,-2.0,-2.0,-2.0,-2.0,2.0,-2.0,2.0,2.0,-2.0,2.0,-2.0,-2.0,-2.0,-2.0,-2.0
2025-06-09 12:29:40.174,0.016171291,-0.06516857,0.027085988,0.048895884,0.07520264,0.039996617,0.0,0.0,0.0,-0.0032911357,-0.07459835,0.26556545,-0.17037965,0.08971495,0.3317728,-0.18522035,-0.0046710656,-0.25899926,0.023859099,-0.021917889,-0.20215,0.08830929,-0.06603186,0.06451909,0.05533012,-0.045261275,0.06660619,0.04364881,-0.05127568,0.04711899,-0.004559761,0.04888033,-0.068503544,-0.035743672,-2.0,2.0,-2.0,2.0,2.0,-2.0,2.0,-2.0,-2.0,-2.0,-2.0,-2.0,-2.0,2.0,-2.0,2.0,2.0,-2.0,2.0,-2.0,-2.0,-2.0,-2.0,-2.0
2025-06-09 12:29:40.194,0.012017924,-0.003991358,0.029301437,-0.008828035,0.050832275,-0.023866722,0.0,0.0,0.0,-0.0044453805,-0.06958,0.26027766,-0.15840612,0.09092181,0.31221482,-0.17492525,-0.0058211447,-0.27394068,0.009603599,-0.015014332,-0.22828978,0.08418301,0.06348403,0.0044407435,-0.019406233,0.05210535,-0.06986199,0.051668238,0.07014151,0.056580305,-0.0579369,-0.026130233,0.050008275,0.045129664,-2.0,2.0,-2.0,2.0,2.0,-2.0,2.0,-2.0,-2.0,-2.0,-2.0,-2.0,-2.0,2.0,-2.0,2.0,2.0,-2.0,2.0,-2.0,-2.0,-2.0,-2.0,-2.0
2025-06-09 12:29:40.214,0.0131129855,-0.07787292,0.0675943,0.045562334,0.10744801,0.022922195,0.0,0.0,0.0,-0.0053415257,-0.06674228,0.26672992,-0.15020269,0.093173265,0.31153128,-0.16082937,-0.0047727497,-0.2781367,-0.002886675,-0.014219826,-0.23244038,0.07461709,-0.06633847,-0.006421713,0.021189608,-0.02353552,-0.014388331,0.043799683,-0.011268376,-0.030228013,-0.018366795,0.0458443,0.04748794,0.039813057,-2.0,2.0,-2.0,2.0,2.0,-2.0,2.0,-2.0,-2.0,-2.0,-2.0,-2.0,-2.0,2.0,-2.0,2.0,2.0,-2.0,2.0,-2.0,-2.0,-2.0,-2.0,-2.0
2025-06-09 12:29:40.236,-0.004140077,-0.06934464,0.05842684,-0.03386626,0.047120348,0.03920387,0.0,0.0,0.0,-0.0059701353,-0.07790714,0.27757102,-0.15371995,0.094660714,0.29580522,-0.15701735,-0.002700103,-0.286069,-0.0041019362,-0.029166738,-0.23636049,0.07124624,-0.009154899,0.050067406,0.010233271,-0.011102427,0.01746323,0.05555111,0.050635014,-0.043360896,-0.052181594,-0.019598706,-0.042415712,-0.021500438,-2.0,2.0,-2.0,2.0,2.0,-2.0,2.0,-2.0,-2.0,-2.0,-2.0,-2.0,-2.0,2.0,-2.0,2.0,2.0,-2.0,2.0,-2.0,-2.0,-2.0,-2.0,-2.0
2025-06-09 12:29:40.254,0.0542673,-0.0726399,0.0393774,0.030830706,0.00978989,0.019030182,0.0,0.0,0.0,-0.0063670967,-0.08055997,0.27619624,-0.14165725,0.099676155,0.2943226,-0.15321968,-0.001823656,-0.28014168,-0.0045494037,-0.028751923,-0.23963146,0.059692875,0.057710983,-0.0016894995,0.0029756478,0.038676888,-0.009070116,-0.018821964,-0.020616915,0.054947335,0.014632773,-0.059792846,0.03650943,-0.07904124,-2.0,2.0,-2.0,2.0,2.0,-2.0,2.0,-2.0,-2.0,-2.0,-2.0,-2.0,-2.0,2.0,-2.0,2.0,2.0,-2.0,2.0,-2.0,-2.0,-2.0,-2.0,-2.0
2025-06-09 12:29:40.275,0.043861706,-0.02686975,0.014667897,0.05510005,0.009199621,0.01670534,0.0,0.0,0.0,-0.0065836967,-0.0780787,0.27776253,-0.15379854,0.10600776,0.29377517,-0.1480212,-0.0015505147,-0.2846319,-0.01964056,-0.013838127,-0.25753814,0.053343784,0.0011579737,-0.006970912,-0.05429767,0.0101977885,0.011662024,0.008107809,0.012796081,0.009882277,-0.07490139,0.010019924,-0.072488084,0.018764053,-2.0,2.0,-2.0,2.0,2.0,-2.0,2.0,-2.0,-2.0,-2.0,-2.0,-2.0,-2.0,2.0,-2.0,2.0,2.0,-2.0,2.0,-2.0,-2.0,-2.0,-2.0,-2.0
2025-06-09 12:29:40.295,0.048491903,-0.010150459,-0.047722686,0.025636895,0.024048254,-0.0053091566,0.0,0.0,0.0,-0.0066785,-0.09496527,0.2691779,-0.15598093,0.10030239,0.2814103,-0.14311717,0.0070954193,-0.28663716,-0.019205766,-0.016805636,-0.2572897,0.035819914,0.041542824,0.06072631,0.07243131,0.06507425,0.007519649,-0.048929166,-0.0021886535,-0.07719092,-0.015142153,-0.01875914,-0.0710266,-0.014111213,-2.0,2.0,-2.0,2.0,2.0,-2.0,2.0,-2.0,-2.0,-2.0,-2.0,-2.0,-2.0,2.0,-2.0,2.0,2.0,-2.0,2.0,-2.0,-2.0,-2.0,-2.0,-2.0
2025-06-09 12:29:40.315,-0.010114252,-0.05065221,0.005271066,0.0028080395,0.07263064,-0.006911724,0.0,0.0,0.0,-0.006707307,-0.10579531,0.26883155,-0.15493958,0.10180712,0.2866689,-0.14517969,-0.0032390729,-0.30173433,-0.02585546,-0.013837597,-0.2575403,0.038019173,0.06151326,0.07351401,-0.058183353,-0.05344075,-0.06809714,0.04087475,-0.07051933,-0.038332842,0.002729885,-0.030414551,-0.08481635,0.026867146,-2.0,2.0,-2.0,2.0,2.0,-2.0,2.0,-2.0,-2.0,-2.0,-2.0,-2.0,-2.0,2.0,-2.0,2.0,2.0,-2.0,2.0,-2.0,-2.0,-2.0,-2.0,-2.0
2025-06-09 12:29:40.336,-0.010359735,-0.055054907,-0.014597546,0.052837178,0.090327464,0.04186042,0.0,0.0,0.0,-0.0067140325,-0.09678765,0.27737546,-0.15183328,0.11106523,0.28083727,-0.13275285,-0.0026913632,-0.29954398,-0.044921182,-0.017366601,-0.25709623,0.01902918,0.044714507,0.03648496,0.03549203,-0.022757778,0.022606878,-0.014819741,0.023511188,0.028030543,-0.020699918,0.07577119,-0.04830406,0.050518554,-2.0,2.0,-2.0,2.0,2.0,-2.0,2.0,-2.0,-2.0,-2.0,-2.0,-2.0,-2.0,2.0,-2.0,2.0,2.0,-2.0,2.0,-2.0,-2.0,-2.0,-2.0,-2.0
2025-06-09 12:29:40.355,0.033337183,-0.045589283,0.0048218668,0.035811633,0.08353085,0.012328869,0.0,0.0,0.0,-0.0067308173,-0.10052321,0.26178193,-0.14253964,0.11488246,0.26921266,-0.14511463,-0.00334768,-0.3145061,-0.053273447,-0.016063444,-0.26801813,0.019069828,0.062806636,0.0696972,0.062356237,0.034143798,-0.07754884,0.067433156,-0.069200575,-0.06033392,0.013739241,0.017342001,0.059251297,-0.05256879,-2.0,2.0,-2.0,2.0,2.0,-2.0,2.0,-2.0,-2.0,-2.0,-2.0,-2.0,-2.0,2.0,-2.0,2.0,2.0,-2.0,2.0,-2.0,-2.0,-2.0,-2.0,-2.0
2025-06-09 12:29:40.375,0.051718812,-0.056515355,0.0451031,0.043951146,0.0586418,-0.009723053,0.0,0.0,0.0,-0.0067785433,-0.11181903,0.2665157,-0.13802081,0.11182086,0.25717837,-0.13239685,0.0043025427,-0.31504548,-0.05438217,-0.01928311,-0.2690948,0.008048544,0.023685431,-0.009867611,0.026707279,-0.0055456776,0.028636564,0.036281485,-0.011343016,0.02461772,-0.041795567,0.023725864,0.058480304,0.008964732,-2.0,2.0,-2.0,2.0,2.0,-2.0,2.0,-2.0,-2.0,-2.0,-2.0,-2.0,-2.0,2.0,-2.0,2.0,2.0,-2.0,2.0,-2.0,-2.0,-2.0,-2.0,-2.0
2025-06-09 12:29:40.395,-0.0061837314,-0.05488832,0.029624723,0.05704452,0.08054759,-0.0070001567,0.0,0.0,0.0,-0.0068703447,-0.11392808,0.27710006,-0.14736715,0.10695549,0.25512004,-0.13349304,-0.00052301533,-0.32515815,-0.06185091,-0.014811538,-0.2836731,-0.007836848,-0.010866032,-0.05573052,0.050267342,-0.067243285,0.018321117,0.027011218,0.020419504,0.043885197,-0.07678668,-0.014348574,0.056944065,0.044319622,-2.0,2.0,-2.0,2.0,2.0,-2.0,2.0,-2.0,-2.0,-2.0,-2.0,-2.0,-2.0,2.0,-2.0,2.0,2.0,-2.0,2.0,-2.0,-2.0,-2.0,-2.0,-2.0
2025-06-09 12:29:40.415,0.042688448,0.02942885,0.0017953838,0.020939564,0.074434325,0.02102607,0.0,0.0,0.0,-0.0070079803,-0.10454882,0.26700515,-0.1442846,0.10947131,0.26727146,-0.13658741,0.0005490175,-0.32146594,-0.06275285,-0.020609897,-0.28448355,-0.012373942,-0.07452568,-0.009365838,-0.023471044,0.07111757,-0.011161894,0.061744295,0.056014743,0.024373615,-0.005106399,-0.026109984,-0.014755565,0.018161057,-2.0,2.0,-2.0,2.0,2.0,-2.0,2.0,-2.0,-2.0,-2.0,-2.0,-2.0,-2.0,2.0,-2.0,2.0,2.0,-2.0,2.0,-2.0,-2.0,-2.0,-2.0,-2.0
2025-06-09 12:29:40.436,-0.016367344,-0.019148683,0.051253334,0.006072459,0.00010733279,0.023999292,0.0,0.0,0.0,-0.0071767145,-0.106264524,0.26780358,-0.1435258,0.11896288,0.2529922,-0.13823944,0.012340124,-0.3306568,-0.05582809,-0.019331127,-0.28884915,-0.024883397,-0.068100065,-0.004599335,0.0711105,0.030047609,-0.06680112,-0.05184446,-0.06050637,-0.038636696,-0.034819443,0.0055678682,-0.019181304,-0.072452344,-2.0,2.0,-2.0,2.0,2.0,-2.0,2.0,-2.0,-2.0,-2.0,-2.0,-2.0,-2.0,2.0,-2.0,2.0,2.0,-2.0,2.0,-2.0,-2.0,-2.0,-2.0,-2.0
2025-06-09 12:29:40.455,-0.017019704,0.017405057,0.023138205,-0.025855985,-0.0126070315,0.044458143,0.0,0.0,0.0,-0.0073634107,-0.11827953,0.27703673,-0.12219969,0.122703135,0.26035017,-0.14969936,0.0027591286,-0.33394745,-0.0740034,-0.012134317,-0.27873242,-0.030193947,-0.021215068,-0.04572037,0.07705426,-0.050093126,-0.07781085,0.032438084,0.01327828,-0.009744894,0.029264377,0.03308718,-0.005129021,-0.00951524,-2.0,2.0,-2.0,2.0,2.0,-2.0,2.0,-2.0,-2.0,-2.0,-2.0,-2.0,-2.0,2.0,-2.0,2.0,2.0,-2.0,2.0,-2.0,-2.0,-2.0,-2.0,-2.0
2025-06-09 12:29:40.476,0.012845849,0.005645246,0.005804948,0.06283549,0.07160258,0.03465688,0.0,0.0,0.0,-0.0075598643,-0.1207694,0.27043852,-0.12753972,0.11107484,0.25210392,-0.14498979,0.010823896,-0.3365808,-0.06009805,-0.020520866,-0.29469875,-0.034548175,-0.0712503,0.026923697,0.07741828,0.056856953,-0.06022431,-0.055920936,0.0490535,-0.018113162,-0.003131129,-0.018975338,0.023867639,-0.045625843,-2.0,2.0,-2.0,2.0,2.0,-2.0,2.0,-2.0,-2.0,-2.0,-2.0,-2.0,-2.0,2.0,-2.0,2.0,2.0,-2.0,2.0,-2.0,-2.0,-2.0,-2.0,-2.0
2025-06-09 12:29:40.495,0.021249145,-0.046835404,0.0049620005,0.020219473,-0.01568177,0.013836405,0.0,0.0,0.0,-0.007757814,-0.12649068,0.28624737,-0.12714654,0.11632265,0.24715166,-0.1381738,0.0118633555,-0.3373662,-0.07125499,-0.01819135,-0.3011429,-0.020657733,-0.0748135,0.047244452,0.060911406,-0.00789901,0.07235931,0.07146995,0.060501408,0.03187789,0.02360348,-0.06267969,0.011197413,-0.056873493,-2.0,2.0,-2.0,2.0,2.0,-2.0,2.0,-2.0,-2.0,-2.0,-2.0,-2.0,-2.0,2.0,-2.0,2.0,2.0,-2.0,2.0,-2.0,-2.0,-2.0,-2.0,-2.0
2025-06-09 12:29:40.518,0.006525147,-0.045900505,-0.009655793,0.004965416,0.0014800817,0.0092108,0.0,0.0,0.0,-0.007952436,-0.12133309,0.28942713,-0.13267125,0.12018486,0.24312748,-0.13612239,0.010015996,-0.33762908,-0.07091571,-0.011392149,-0.29182792,-0.037270576,-0.04323832,-0.015570757,-0.033355854,0.0060837194,-0.023394205,-0.042063817,-0.05853429,-0.077238694,0.07129683,-0.015755069,-0.017792035,0.023837136,-2.0,2.0,-2.0,2.0,2.0,-2.0,2.0,-2.0,-2.0,-2.0,-2.0,-2.0,-2.0,2.0,-2.0,2.0,2.0,-2.0,2.0,-2.0,-2.0,-2.0,-2.0,-2.0
2025-06-09 12:29:40.536,0.06662215,-0.040443134,0.035681568,0.03996476,-0.01371316,-0.037383076,0.0,0.0,0.0,-0.008140367,-0.11681132,0.2926616,-0.11490862,0.121248804,0.25756463,-0.1412251,0.016652921,-0.34807828,-0.072401665,-0.010592354,-0.306877,-0.0314456,-0.072718084,0.01360783,0.055104535,0.0466838,-0.030022243,-0.005035019,0.015581269,0.0644946,0.07037976,-0.00400089,0.06461707,-0.042641718,-2.0,2.0,-2.0,2.0,2.0,-2.0,2.0,-2.0,-2.0,-2.0,-2.0,-2.0,-2.0,2.0,-2.0,2.0,2.0,-2.0,2.0,-2.0,-2.0,-2.0,-2.0,-2.0
2025-06-09 12:29:40.556,-0.020385519,0.0056089745,-0.034325574,0.026775708,0.041394144,-0.02632656,0.0,0.0,0.0,-0.008318262,-0.12421458,0.28699404,-0.12105979,0.1146859,0.24516867,-0.13966902,0.022076944,-0.33353806,-0.06154579,-0.009636766,-0.30790657,-0.033758663,-0.06076882,-0.007663221,0.051199365,0.05554679,0.07052481,-0.049153488,-0.061311748,0.043410923,-0.0035290471,0.07240558,-0.07788417,-0.05665211,-2.0,2.0,-2.0,2.0,2.0,-2.0,2.0,-2.0,-2.0,-2.0,-2.0,-2.0,-2.0,2.0,-2.0,2.0,2.0,-2.0,2.0,-2.0,-2.0,-2.0,-2.0,-2.0
2025-06-09 12:29:40.575,0.044522896,-0.028204137,0.024590796,0.055978306,0.020016251,0.019192755,0.0,0.0,0.0,-0.008473372,-0.120547555,0.307915,-0.11083958,0.13101506,0.25531995,-0.1427408,0.017756037,-0.35065013,-0.06186263,-0.0064128954,-0.29271322,-0.05024979,5.3304524e-05,-0.038184356,0.009103512,-0.025487142,-0.05906096,0.064457536,-0.013376743,0.006483821,0.06268157,0.009945254,-0.058103353,0.049788017,-2.0,2.0,-2.0,2.0,2.0,-2.0,2.0,-2.0,-2.0,-2.0,-2.0,-2.0,-2.0,2.0,-2.0,2.0,2.0,-2.0,2.0,-2.0,-2.0,-2.0,-2.0,-2.0
2025-06-09 12:29:40.596,0.013909412,0.0050986977,-0.017210059,0.00850658,0.07002138,-0.013863862,0.0,0.0,0.0,-0.008589469,-0.11465208,0.3078706,-0.12473325,0.12352932,0.26174042,-0.13947335,0.020179592,-0.34744415,-0.055705667,-0.020353818,-0.30643928,-0.03544916,-0.06159293,-0.010178713,0.013354589,-0.061013933,-0.020894527,-0.005129656,-0.02998272,-0.00036215797,0.08179461,0.07113073,0.02603579,-0.05055063,-2.0,2.0,-2.0,2.0,2.0,-2.0,2.0,-2.0,-2.0,-2.0,-2.0,-2.0,-2.0,2.0,-2.0,2.0,2.0,-2.0,2.0,-2.0,-2.0,-2.0,-2.0,-2.0
2025-06-09 12:29:40.618,0.007556573,-0.03923496,-0.026095971,0.0018062708,0.05491382,-0.018498532,0.0,0.0,0.0,-0.008668199,-0.12235931,0.31256878,-0.12249614,0.11885056,0.25876635,-0.14432645,0.018204713,-0.33309218,-0.06019632,-0.015233642,-0.29885197,-0.036936272,-0.032665282,0.050532945,0.046007846,-0.037444085,0.032762554,-0.009962868,0.061575137,-0.05047522,-0.038436655,-0.0679777,0.007984142,-0.0152113475,-2.0,2.0,-2.0,2.0,2.0,-2.0,2.0,-2.0,-2.0,-2.0,-2.0,-2.0,-2.0,2.0,-2.0,2.0,2.0,-2.0,2.0,-2.0,-2.0,-2.0,-2.0,-2.0
2025-06-09 12:29:40.636,0.04295323,-0.0064059715,0.050597727,0.06344171,0.019254168,-0.028891323,0.0,0.0,0.0,-0.0087176515,-0.12574895,0.317361,-0.11308297,0.13468477,0.2642888,-0.13847756,0.013373489,-0.33641738,-0.04434134,-0.009664272,-0.31528267,-0.052063152,0.0013364706,0.07666099,0.07461521,0.07096325,-0.055457857,0.062664,0.037990242,0.061422467,0.07274694,0.008494428,-0.01077956,-0.018730525,-2.0,2.0,-2.0,2.0,2.0,-2.0,2.0,-2.0,-2.0,-2.0,-2.0,-2.0,-2.0,2.0,-2.0,2.0,2.0,-2.0,2.0,-2.0,-2.0,-2.0,-2.0,-2.0
2025-06-09 12:29:40.656,0.016429339,0.026069544,0.016721291,0.06384647,0.056794196,0.00889133,0.0,0.0,0.0,-0.008745582,-0.118820086,0.31548578,-0.11322315,0.12942344,0.26761085,-0.14269464,0.012090174,-0.34892166,-0.051619448,-0.0099894265,-0.29904127,-0.038649477,0.0040259636,0.075118475,-0.016372718,-0.021531446,-0.061621625,-0.048689798,-0.061448667,-0.049744707,-0.06357158,0.013023063,-0.056848727,0.053906962,-2.0,2.0,-2.0,2.0,2.0,-2.0,2.0,-2.0,-2.0,-2.0,-2.0,-2.0,-2.0,2.0,-2.0,2.0,2.0,-2.0,2.0,-2.0,-2.0,-2.0,-2.0,-2.0
2025-06-09 12:29:40.676,0.009750748,0.045841865,0.0076023065,-0.004498383,-0.015648128,0.04628351,0.0,0.0,0.0,-0.008758764,-0.12958504,0.32645246,-0.11284127,0.12631488,0.2755748,-0.13868037,0.01319351,-0.34299806,-0.04081582,-0.015087494,-0.30341512,-0.047286347,0.04770925,-0.026760325,-0.05970416,0.0058038123,-0.06388508,0.03699238,0.032645274,-0.040629014,-0.019436905,-0.055722937,-0.029379768,-0.074925266,-2.0,2.0,-2.0,2.0,2.0,-2.0,2.0,-2.0,-2.0,-2.0,-2.0,-2.0,-2.0,2.0,-2.0,2.0,2.0,-2.0,2.0,-2.0,-2.0,-2.0,-2.0,-2.0
2025-06-09 12:29:40.696,0.052837007,0.022516677,0.018683933,0.011648789,-0.021907749,-0.0028662567,0.0,0.0,0.0,-0.008762247,-0.11791347,0.31895915,-0.10596995,0.12962143,0.26298946,-0.13809623,0.01114025,-0.35095072,-0.041250844,-0.015198016,-0.30814564,-0.048983317,0.007295534,0.020955643,-0.046124533,-0.015174745,0.037048582,-0.027542965,0.041503575,0.06828983,-0.057577755,0.015539298,0.052152805,0.05851873,-2.0,2.0,-2.0,2.0,2.0,-2.0,2.0,-2.0,-2.0,-2.0,-2.0,-2.0,-2.0,2.0,-2.0,2.0,2.0,-2.0,2.0,-2.0,-2.0,-2.0,-2.0,-2.0
2025-06-09 12:29:40.719,-0.02202121,0.035020143,-0.018717708,0.041055314,-0.009545856,0.009806628,0.0,0.0,0.0,-0.0087593775,-0.13271585,0.31953117,-0.11501037,0.13451588,0.27164355,-0.13923907,0.017007103,-0.34282362,-0.02737037,-0.0059955087,-0.3145998,-0.061357263,0.03276664,0.07903963,0.035379667,-0.035509422,-0.04407093,-0.029686201,-0.0476622,-0.045613095,-0.06498157,0.004064954,0.053579614,0.029980125,-2.0,2.0,-2.0,2.0,2.0,-2.0,2.0,-2.0,-2.0,-2.0,-2.0,-2.0,-2.0,2.0,-2.0,2.0,2.0,-2.0,2.0,-2.0,-2.0,-2.0,-2.0,-2.0
2025-06-09 12:29:40.736,-0.024274524,0.0035438854,0.003187368,0.016641371,0.011050527,0.049806148,0.0,0.0,0.0,-0.008756871,-0.12900908,0.32428408,-0.10807936,0.13243121,0.27412495,-0.1420321,0.02930182,-0.3479606,-0.03711771,-0.014806617,-0.30734622,-0.051463146,-0.023622412,0.03528757,-0.04059243,0.052678823,-0.0094418945,0.0689093,-0.026246458,-0.04822203,0.030523285,-0.046478786,0.041800097,-0.07245042,-2.0,2.0,-2.0,2.0,2.0,-2.0,2.0,-2.0,-2.0,-2.0,-2.0,-2.0,-2.0,2.0,-2.0,2.0,2.0,-2.0,2.0,-2.0,-2.0,-2.0,-2.0,-2.0
2025-06-09 12:29:40.757,-0.017938048,-0.0075061973,-0.03290276,0.0088923555,-0.018700713,-0.000716763,0.0,0.0,0.0,-0.008766639,-0.12644133,0.33978307,-0.108224854,0.12326759,0.2794928,-0.1290853,0.015820527,-0.3468182,-0.03409783,-0.013284813,-0.31596726,-0.056128584,0.06263313,-0.014747173,-0.065479934,-0.07073348,-0.028037487,0.03257814,0.006409957,0.07333796,0.024372175,0.058233954,-0.033827785,-0.039063256,-2.0,2.0,-2.0,2.0,2.0,-2.0,2.0,-2.0,-2.0,-2.0,-2.0,-2.0,-2.0,2.0,-2.0,2.0,2.0,-2.0,2.0,-2.0,-2.0,-2.0,-2.0,-2.0
2025-06-09 12:29:40.776,0.038638346,-0.026869215,-0.026364744,-0.00077616004,-0.025901219,-0.007303395,0.0,0.0,0.0,-0.008796524,-0.12948099,0.3333848,-0.108135514,0.13893531,0.28667113,-0.14433609,0.011074458,-0.3399027,-0.025478149,-0.019257495,-0.31973407,-0.05374949,-0.0033644896,0.072254755,-0.010889451,-0.03536315,0.07467327,0.04846358,-0.0018064016,0.024339754,-0.013225182,-0.00487346,-0.008223572,0.04433179,-2.0,2.0,-2.0,2.0,2.0,-2.0,2.0,-2.0,-2.0,-2.0,-2.0,-2.0,-2.0,2.0,-2.0,2.0,2.0,-2.0,2.0,-2.0,-2.0,-2.0,-2.0,-2.0
2025-06-09 12:29:40.797,0.0048630564,-0.020946,0.04539331,0.05391171,0.032857392,0.0199971,0.0,0.0,0.0,-0.008841911,-0.12304619,0.34379873,-0.10010206,0.13041362,0.270454,-0.13803962,0.010245725,-0.33523896,-0.022676187,-0.0162172,-0.31657264,-0.063343965,0.0338064,-0.025924945,0.01709356,-0.044369433,-0.02378312,0.07105636,0.011515211,0.026343342,0.07199396,-0.00041533358,-0.04191171,-0.071075715,-2.0,2.0,-2.0,2.0,2.0,-2.0,2.0,-2.0,-2.0,-2.0,-2.0,-2.0,-2.0,2.0,-2.0,2.0,2.0,-2.0,2.0,-2.0,-2.0,-2.0,-2.0,-2.0
2025-06-09 12:29:40.819,0.025209187,0.00068722066,0.023141354,0.00094175193,0.005186333,0.038800046,0.0,0.0,0.0,-0.008894262,-0.13215236,0.344394,-0.11167182,0.13112769,0.27284294,-0.13775888,0.016837977,-0.3379016,-0.02784803,-0.002237809,-0.3106233,-0.04875421,-0.027313607,0.041409165,-0.032865297,-0.0075970185,0.067901045,0.016572308,-0.014069683,-0.03581032,0.066922806,-0.046433553,-0.06461979,-0.03750464,-2.0,2.0,-2.0,2.0,2.0,-2.0,2.0,-2.0,-2.0,-2.0,-2.0,-2.0,-2.0,2.0,-2.0,2.0,2.0,-2.0,2.0,-2.0,-2.0,-2.0,-2.0,-2.0
2025-06-09 12:29:40.837,0.029719533,-0.036055095,-0.039325677,0.037728544,0.062999666,0.03773966,0.0,0.0,0.0,-0.008946086,-0.12001146,0.34218287,-0.09829398,0.14041361,0.2855365,-0.1322716,0.023823967,-0.33242586,-0.018700847,-0.0028452205,-0.32020366,-0.05143368,-0.024580874,0.072388396,-0.010183992,-0.020351514,-0.02818033,-0.052762605,0.0662961,0.05148037,0.05414439,0.023323176,0.030597392,-0.022701265,-2.0,2.0,-2.0,2.0,2.0,-2.0,2.0,-2.0,-2.0,-2.0,-2.0,-2.0,-2.0,2.0,-2.0,2.0,2.0,-2.0,2.0,-2.0,-2.0,-2.0,-2.0,-2.0
2025-06-09 12:29:40.857,0.006828265,0.033411525,0.035990234,0.02225469,0.014798184,-0.028342994,0.0,0.0,0.0,-0.0089918785,-0.12332449,0.33080596,-0.10934335,0.1385627,0.28064278,-0.14042349,0.02611497,-0.32824677,-0.025707055,-0.0119342,-0.32462308,-0.057435047,-0.025388703,-0.0706716,0.0152060725,0.023366785,0.0020703855,0.009850909,0.00286782,0.024198476,-0.035056263,0.03940338,0.0018850466,-0.056969956,-2.0,2.0,-2.0,2.0,2.0,-2.0,2.0,-2.0,-2.0,-2.0,-2.0,-2.0,-2.0,2.0,-2.0,2.0,2.0,-2.0,2.0,-2.0,-2.0,-2.0,-2.0,-2.0
2025-06-09 12:29:40.877,0.03424169,-0.011671076,0.04089769,0.020261867,-0.021998737,0.016998857,0.0,0.0,0.0,-0.009028425,-0.118962586,0.33249533,-0.10178702,0.13649116,0.27758008,-0.12917377,0.021230077,-0.33142412,-0.03185057,-0.006205272,-0.32307905,-0.053438514,0.06781766,0.030725181,0.0104297185,0.039595038,0.055812564,0.06664099,-0.054258995,-0.030687684,0.011258897,0.03257589,0.033024497,0.0010167763,-2.0,2.0,-2.0,2.0,2.0,-2.0,2.0,-2.0,-2.0,-2.0,-2.0,-2.0,-2.0,2.0,-2.0,2.0,2.0,-2.0,2.0,-2.0,-2.0,-2.0,-2.0,-2.0
2025-06-09 12:29:40.938,-0.007776032,0.017964205,-0.016425623,0.009325112,0.06263767,0.042784143,0.0,0.0,0.0,-0.009054674,-0.11556183,0.34091407,-0.11252317,0.1243318,0.2753078,-0.13928446,0.011782881,-0.3319193,-0.019211182,-0.007998694,-0.31036592,-0.067406245,-0.05591373,-0.000481375,-0.062008075,0.02131412,-0.052638832,-0.03635131,-0.06419909,-0.053546496,-0.07014389,-0.056719225,-0.015974808,-0.03887667,-2.0,2.0,-2.0,2.0,2.0,-2.0,2.0,-2.0,-2.0,-2.0,-2.0,-2.0,-2.0,2.0,-2.0,2.0,2.0,-2.0,2.0,-2.0,-2.0,-2.0,-2.0,-2.0
2025-06-09 12:29:40.958,0.02639494,0.033662297,-0.029118316,0.029098865,0.0330511,-0.026315583,0.0,0.0,0.0,-0.009071319,-0.12864079,0.34190273,-0.11317159,0.13265646,0.27924106,-0.120146945,0.017505448,-0.32918295,-0.03256113,3.6252375e-06,-0.3248669,-0.05676999,-0.029455375,0.044397075,-0.0010338203,0.016300697,-0.06525642,-0.017718446,-0.024641724,-0.071950026,0.030195547,0.00037782232,-0.042220388,-0.014489544,-2.0,2.0,-2.0,2.0,2.0,-2.0,2.0,-2.0,-2.0,-2.0,-2.0,-2.0,-2.0,2.0,-2.0,2.0,2.0,-2.0,2.0,-2.0,-2.0,-2.0,-2.0,-2.0
2025-06-09 12:29:40.978,-0.053981367,-0.027593702,-0.032651823,-0.025126535,0.0013894762,0.042115055,0.0,0.0,0.0,-0.009080268,-0.12998164,0.3491376,-0.114095464,0.136373,0.28705585,-0.13121608,0.024697753,-0.33131707,-0.019584438,-0.006265325,-0.3210756,-0.06850089,0.020587062,-0.07134617,0.06506632,0.07167662,0.046316974,-0.060007267,-0.008146921,-0.072985,0.0012110781,-0.062167656,-0.0022911774,0.06922185,-2.0,2.0,-2.0,2.0,2.0,-2.0,2.0,-2.0,-2.0,-2.0,-2.0,-2.0,-2.0,2.0,-2.0,2.0,2.0,-2.0,2.0,-2.0,-2.0,-2.0,-2.0,-2.0
2025-06-09 12:29:41.003,0.004788479,-0.046652067,0.020920899,0.045249406,-0.014595545,-0.026695373,0.0,0.0,0.0,-0.009084096,-0.1288664,0.3310013,-0.11607001,0.12085478,0.27048233,-0.12337468,0.016520908,-0.34104633,-0.020877942,-0.005500126,-0.3234501,-0.067288905,0.06767801,-0.07154478,-0.043910336,-0.05342578,-0.014568884,0.04226329,-0.024642533,0.04057178,-0.04610283,0.070275314,-0.029267812,0.03570318,-2.0,2.0,-2.0,2.0,2.0,-2.0,2.0,-2.0,-2.0,-2.0,-2.0,-2.0,-2.0,2.0,-2.0,2.0,2.0,-2.0,2.0,-2.0,-2.0,-2.0,-2.0,-2.0
2025-06-09 12:29:41.020,-0.035637107,0.024846023,0.026292816,0.043570925,0.020183297,-0.030805632,0.0,0.0,0.0,-0.009085507,-0.12203347,0.3460126,-0.11396993,0.13718832,0.28151724,-0.123707905,0.0122000845,-0.33690712,-0.035103448,-0.0026677062,-0.33409354,-0.065300964,0.050372332,0.012793488,-0.027411735,-0.01730649,0.03494371,-0.022827499,0.02780719,0.019618321,0.06985752,0.03313354,0.031129772,-0.016385162,-2.0,2.0,-2.0,2.0,2.0,-2.0,2.0,-2.0,-2.0,-2.0,-2.0,-2.0,-2.0,2.0,-2.0,2.0,2.0,-2.0,2.0,-2.0,-2.0,-2.0,-2.0,-2.0
2025-06-09 12:29:41.038,0.026038725,0.0030010499,0.024085322,0.05488676,-0.010903393,0.02592681,0.0,0.0,0.0,-0.009085874,-0.12063212,0.3334825,-0.10297687,0.13379267,0.273684,-0.12250249,0.01294067,-0.33790356,-0.02332305,-0.008023184,-0.3280288,-0.05472588,-0.00871045,-0.01186808,0.0037869923,0.0024196377,0.0051682475,0.00096046174,0.018741876,0.04043139,-0.036268253,0.025021713,0.0013533327,-0.04558502,-2.0,2.0,-2.0,2.0,2.0,-2.0,2.0,-2.0,-2.0,-2.0,-2.0,-2.0,-2.0,2.0,-2.0,2.0,2.0,-2.0,2.0,-2.0,-2.0,-2.0,-2.0,-2.0
2025-06-09 12:29:41.058,-0.03617861,-0.050224822,-0.03047132,0.05966039,0.02878344,-0.018367695,0.0,0.0,0.0,-0.009084984,-0.13563998,0.3389654,-0.11167168,0.13290058,0.27345538,-0.12526609,0.0076072933,-0.33806235,-0.03337453,-0.016028387,-0.3240024,-0.055915963,0.060423367,-0.070207715,0.0077576996,-0.021191254,0.05906212,-0.04860584,0.0029513813,-0.06624626,0.046447624,-0.02885245,-0.022135753,0.030852208,-2.0,2.0,-2.0,2.0,2.0,-2.0,2.0,-2.0,-2.0,-2.0,-2.0,-2.0,-2.0,2.0,-2.0,2.0,2.0,-2.0,2.0,-2.0,-2.0,-2.0,-2.0,-2.0
2025-06-09 12:29:41.078,0.04287994,-0.022042012,-0.008377909,-0.027891675,-0.012738728,-0.023731176,0.0,0.0,0.0,-0.009082456,-0.123762116,0.34386832,-0.1109185,0.13482296,0.27952874,-0.11936463,0.022641217,-0.32952306,-0.029227002,-0.0057321466,-0.33700582,-0.07064548,0.023767116,0.033292916,0.036573358,0.019627651,-0.026012277,0.042655468,-0.048676934,-0.038616974,0.06724246,0.023430116,0.06989185,-0.028800895,-2.0,2.0,-2.0,2.0,2.0,-2.0,2.0,-2.0,-2.0,-2.0,-2.0,-2.0,-2.0,2.0,-2.0,2.0,2.0,-2.0,2.0,-2.0,-2.0,-2.0,-2.0,-2.0
2025-06-09 12:29:41.098,-0.036410153,-0.046607617,-0.023213334,-0.0027904224,0.061956502,0.04694828,0.0,0.0,0.0,-0.009078407,-0.11784917,0.33976173,-0.107860684,0.12791292,0.27102286,-0.12100131,0.014931017,-0.32897398,-0.024629679,-0.01243969,-0.32268652,-0.06609201,-0.010034874,-0.032584816,0.030883305,0.00960426,-0.069166355,0.06502802,-0.025915561,0.06681717,-0.009588586,0.051210653,-0.01991968,-0.04093903,-2.0,2.0,-2.0,2.0,2.0,-2.0,2.0,-2.0,-2.0,-2.0,-2.0,-2.0,-2.0,2.0,-2.0,2.0,2.0,-2.0,2.0,-2.0,-2.0,-2.0,-2.0,-2.0
2025-06-09 12:29:41.119,-0.008000201,0.04936199,-0.018807055,-0.02633044,-0.010105757,-0.018199725,0.0,0.0,0.0,-0.009073597,-0.13481995,0.3382961,-0.11540877,0.12745854,0.28147566,-0.13030715,0.010633179,-0.32487428,-0.025774326,0.0021131553,-0.3326432,-0.07148358,-0.017085796,0.056664113,0.013358935,0.041487075,0.03949448,-0.01898892,-0.04613798,-0.049349926,-0.071004935,-0.015618263,0.031459294,-0.028518159,-2.0,2.0,-2.0,2.0,2.0,-2.0,2.0,-2.0,-2.0,-2.0,-2.0,-2.0,-2.0,2.0,-2.0,2.0,2.0,-2.0,2.0,-2.0,-2.0,-2.0,-2.0,-2.0
2025-06-09 12:29:41.139,-0.0135873975,0.0257207,-0.030891636,0.026664076,0.054263398,0.03422519,0.0,0.0,0.0,-0.009069258,-0.1269614,0.3416828,-0.107639104,0.12551497,0.2809753,-0.13217297,0.0032499814,-0.34363228,-0.03372069,-0.0074886484,-0.32521805,-0.06581732,0.03294635,0.010330703,-0.06854351,-0.03038652,-0.059652563,-0.008429169,0.04055531,0.0324123,0.07424519,0.04976768,-0.058727253,0.05936502,-2.0,2.0,-2.0,2.0,2.0,-2.0,2.0,-2.0,-2.0,-2.0,-2.0,-2.0,-2.0,2.0,-2.0,2.0,2.0,-2.0,2.0,-2.0,-2.0,-2.0,-2.0,-2.0
2025-06-09 12:29:41.159,0.0051998496,0.02482952,-0.046291653,0.021285804,0.04573169,0.031394094,0.0,0.0,0.0,-0.009066774,-0.123410754,0.34771147,-0.12000008,0.12877138,0.28053686,-0.124260895,0.014683025,-0.32921946,-0.030825317,-0.009341481,-0.320444,-0.060477134,-0.06632422,-0.011043206,-0.031997237,-0.007533555,0.031527843,0.025579967,0.0060999407,-0.06627008,-0.031754278,-0.045334283,0.058144167,0.026244352,-2.0,2.0,-2.0,2.0,2.0,-2.0,2.0,-2.0,-2.0,-2.0,-2.0,-2.0,-2.0,2.0,-2.0,2.0,2.0,-2.0,2.0,-2.0,-2.0,-2.0,-2.0,-2.0
2025-06-09 12:29:41.179,-0.020704096,-0.040138405,0.04641305,-0.008673869,0.018228374,0.045818698,0.0,0.0,0.0,-0.009067369,-0.12200696,0.34664407,-0.11590814,0.13011381,0.28379622,-0.11696777,0.01707088,-0.33501494,-0.029355502,-0.014159448,-0.32175937,-0.058368254,-0.04207035,-0.0092622535,-0.018557573,0.05482122,-0.016236296,0.02865123,0.049796484,0.026672954,0.06896948,-0.022723649,0.04236905,-0.058537275,-2.0,2.0,-2.0,2.0,2.0,-2.0,2.0,-2.0,-2.0,-2.0,-2.0,-2.0,-2.0,2.0,-2.0,2.0,2.0,-2.0,2.0,-2.0,-2.0,-2.0,-2.0,-2.0
2025-06-09 12:29:41.202,0.035826,0.022624662,0.003083913,0.0061248965,0.016593687,0.045606963,0.0,0.0,0.0,-0.009071882,-0.124626175,0.3333443,-0.12118032,0.11872034,0.26731715,-0.115407586,0.014094352,-0.33523315,-0.028732933,-0.0048511135,-0.33517402,-0.059081912,-0.015611725,0.05534966,0.056365076,0.015357262,-0.038250435,-0.05859225,0.030039798,-0.036710232,0.06617107,-0.06946333,0.022891935,-0.07240276,-2.0,2.0,-2.0,2.0,2.0,-2.0,2.0,-2.0,-2.0,-2.0,-2.0,-2.0,-2.0,2.0,-2.0,2.0,2.0,-2.0,2.0,-2.0,-2.0,-2.0,-2.0,-2.0
2025-06-09 12:29:41.220,-0.0060494645,0.043802142,-0.00069756765,0.05679984,-0.0029752492,0.024293376,0.0,0.0,0.0,-0.009080642,-0.12550168,0.33710968,-0.10652079,0.13012223,0.27739888,-0.13142078,0.009265236,-0.3419723,-0.030667735,0.0018756811,-0.3332952,-0.07325625,-0.051997244,0.022630608,-0.043047063,-0.0703779,0.013791161,0.042516883,-0.028421253,-0.055443093,-0.011135039,0.05092874,0.03167797,0.054304074,-2.0,2.0,-2.0,2.0,2.0,-2.0,2.0,-2.0,-2.0,-2.0,-2.0,-2.0,-2.0,2.0,-2.0,2.0,2.0,-2.0,2.0,-2.0,-2.0,-2.0,-2.0,-2.0
2025-06-09 12:29:41.239,-0.039063923,-0.03516593,0.0343133,-0.006372254,0.032998826,0.0053885547,0.0,0.0,0.0,-0.009093463,-0.12859903,0.33062816,-0.119285084,0.13530084,0.28327757,-0.11810984,0.011404495,-0.33146468,-0.03470261,0.000292901,-0.33644632,-0.0697138,0.005441124,-0.009127959,-0.050883953,0.056180447,0.04435395,-0.02945092,0.07332209,0.054515194,0.008481226,-0.042866983,-0.04112888,-0.06124968,-2.0,2.0,-2.0,2.0,2.0,-2.0,2.0,-2.0,-2.0,-2.0,-2.0,-2.0,-2.0,2.0,-2.0,2.0,2.0,-2.0,2.0,-2.0,-2.0,-2.0,-2.0,-2.0
2025-06-09 12:29:41.259,0.0060061095,-0.029157748,-0.008715904,0.061841432,0.029699478,-0.040582858,0.0,0.0,0.0,-0.009109721,-0.12606843,0.33360475,-0.11366254,0.12625918,0.26846352,-0.11545239,0.014496045,-0.339818,-0.02747569,-0.0073981057,-0.3276666,-0.05757881,0.012909644,-0.063269444,-0.019978505,0.0063727354,0.050864417,0.0130437175,0.03545053,0.02294769,-0.0744477,0.047401823,0.01973138,0.0340785,-2.0,2.0,-2.0,2.0,2.0,-2.0,2.0,-2.0,-2.0,-2.0,-2.0,-2.0,-2.0,2.0,-2.0,2.0,2.0,-2.0,2.0,-2.0,-2.0,-2.0,-2.0,-2.0
2025-06-09 12:29:41.279,0.024610039,0.027618634,-0.018280799,-0.018484328,0.014378703,0.016808929,0.0,0.0,0.0,-0.009128468,-0.12775438,0.33045155,-0.1216208,0.13293135,0.27924255,-0.1273873,0.012960316,-0.3384219,-0.03151542,-0.008875235,-0.33635667,-0.073938735,-0.040560957,0.0034364008,0.02521736,-0.0022228297,0.050558962,-0.03169962,0.033965345,-0.061206013,0.041970413,-0.049337957,-0.023083283,-0.0069589354,-2.0,2.0,-2.0,2.0,2.0,-2.0,2.0,-2.0,-2.0,-2.0,-2.0,-2.0,-2.0,2.0,-2.0,2.0,2.0,-2.0,2.0,-2.0,-2.0,-2.0,-2.0,-2.0
2025-06-09 12:29:41.302,-0.030174304,0.04456389,0.0019483526,-0.013863811,-0.0093647,-0.026622307,0.0,0.0,0.0,-0.009148581,-0.13131927,0.34959605,-0.10514688,0.118661754,0.2756303,-0.11577718,0.010398656,-0.32671174,-0.03144528,0.0012020064,-0.33351403,-0.06783484,-0.025550373,-0.030216243,-0.009679838,0.06951961,0.073939234,-0.053341523,-0.06899693,-0.065022126,0.059988294,0.029109538,-0.009181115,-0.050467633,-2.0,2.0,-2.0,2.0,2.0,-2.0,2.0,-2.0,-2.0,-2.0,-2.0,-2.0,-2.0,2.0,-2.0,2.0,2.0,-2.0,2.0,-2.0,-2.0,-2.0,-2.0,-2.0
2025-06-09 12:29:41.320,-0.026456617,-0.039998807,0.0382743,0.042103153,0.04144092,0.04258563,0.0,0.0,0.0,-0.009168902,-0.123479284,0.33515045,-0.106979884,0.13629304,0.26659662,-0.12113037,0.011246712,-0.34435803,-0.032726035,-0.0057756687,-0.32642108,-0.0755302,-0.051512092,0.024814311,0.045502927,0.037885312,0.004870866,-0.001073885,-0.01796691,-0.07202765,-0.06308134,0.02235225,-0.0022316088,0.03831082,-2.0,2.0,-2.0,2.0,2.0,-2.0,2.0,-2.0,-2.0,-2.0,-2.0,-2.0,-2.0,2.0,-2.0,2.0,2.0,-2.0,2.0,-2.0,-2.0,-2.0,-2.0,-2.0
2025-06-09 12:29:41.339,-0.019305082,-0.013342226,0.022889387,0.067908265,0.0050874264,0.024385167,0.0,0.0,0.0,-0.009188355,-0.123483926,0.33945197,-0.11172355,0.13220645,0.28054667,-0.12591253,0.010393695,-0.33667135,-0.023758952,-0.015285165,-0.3293278,-0.06813774,0.029205097,0.012004147,0.0028511395,0.019769935,0.052450217,0.03675916,-0.0012595316,-0.04529362,0.0029376028,-0.06387469,-0.006093285,0.067750886,-2.0,2.0,-2.0,2.0,2.0,-2.0,2.0,-2.0,-2.0,-2.0,-2.0,-2.0,-2.0,2.0,-2.0,2.0,2.0,-2.0,2.0,-2.0,-2.0,-2.0,-2.0,-2.0
2025-06-09 12:29:41.359,0.04913276,-0.022704674,0.048636924,-0.019428274,-0.019970572,0.020136794,0.0,0.0,0.0,-0.009206027,-0.12847164,0.34069893,-0.112103224,0.12417782,0.26985756,-0.12899925,0.017304493,-0.32673427,-0.030867657,-0.0066851904,-0.32856572,-0.074188344,-0.0037994653,0.008318641,-0.050438687,0.009551577,-0.041553807,-0.015287301,0.015194132,-0.01313382,0.025702132,-0.035716407,0.042060133,-0.07250962,-2.0,2.0,-2.0,2.0,2.0,-2.0,2.0,-2.0,-2.0,-2.0,-2.0,-2.0,-2.0,2.0,-2.0,2.0,2.0,-2.0,2.0,-2.0,-2.0,-2.0,-2.0,-2.0
2025-06-09 12:29:41.379,0.03614799,-0.044150606,0.010186115,0.047571003,-0.015720097,0.034033533,0.0,0.0,0.0,-0.009221223,-0.12470986,0.34585387,-0.11634166,0.12532191,0.2783551,-0.13042127,0.0055242986,-0.3366702,-0.034332246,-0.0011118437,-0.33325446,-0.07509658,0.07115581,0.0660059,-0.06274136,-0.026871964,0.04792751,-0.056819987,-0.010817794,-0.026379794,-0.01325672,-0.019666802,0.0059893434,0.013779214,-2.0,2.0,-2.0,2.0,2.0,-2.0,2.0,-2.0,-2.0,-2.0,-2.0,-2.0,-2.0,2.0,-2.0,2.0,2.0,-2.0,2.0,-2.0,-2.0,-2.0,-2.0,-2.0
2025-06-09 12:29:41.403,-0.03626651,-0.023647334,0.013036287,0.05585558,0.00046067915,-0.0025808634,0.0,0.0,0.0,-0.009233491,-0.13428026,0.33176103,-0.12024113,0.13778229,0.27528962,-0.13337302,0.02075395,-0.336571,-0.022590056,-0.003898271,-0.3355965,-0.057593465,-0.022166047,-0.03757565,0.060654398,-0.061576914,-0.025919404,0.024496585,0.058574338,0.010959509,0.06310989,-0.0025763188,0.0313413,-0.0046211327,-2.0,2.0,-2.0,2.0,2.0,-2.0,2.0,-2.0,-2.0,-2.0,-2.0,-2.0,-2.0,2.0,-2.0,2.0,2.0,-2.0,2.0,-2.0,-2.0,-2.0,-2.0,-2.0
2025-06-09 12:29:41.419,0.015857281,-0.025060939,-0.011468255,0.020454416,0.020193754,0.02505308,0.0,0.0,0.0,-0.009242615,-0.13084203,0.34193808,-0.118785374,0.12240699,0.26944584,-0.11999468,0.007595208,-0.34468973,-0.025529915,-0.008104546,-0.330234,-0.058011644,-0.06750343,-0.060628906,0.037531354,0.025784746,0.03867381,-0.056711767,0.07080041,-0.038524404,-0.049940966,0.04568326,0.03540645,-0.040023923,-2.0,2.0,-2.0,2.0,2.0,-2.0,2.0,-2.0,-2.0,-2.0,-2.0,-2.0,-2.0,2.0,-2.0,2.0,2.0,-2.0,2.0,-2.0,-2.0,-2.0,-2.0,-2.0
2025-06-09 12:29:41.440,-0.03472663,0.012545485,0.021428963,0.03175815,0.018029613,0.001839109,0.0,0.0,0.0,-0.009248594,-0.1312588,0.33553413,-0.1157758,0.13436185,0.2781431,-0.13236701,0.012492061,-0.33695588,-0.03582752,0.0023664043,-0.33785266,-0.070029296,0.05908457,-0.049799014,-0.019570567,-0.05945636,-0.001476358,-0.020572959,0.034357447,-0.02957994,-0.059683394,-0.0134012755,0.038362842,0.027329044,-2.0,2.0,-2.0,2.0,2.0,-2.0,2.0,-2.0,-2.0,-2.0,-2.0,-2.0,-2.0,2.0,-2.0,2.0,2.0,-2.0,2.0,-2.0,-2.0,-2.0,-2.0,-2.0
2025-06-09 12:29:41.460,0.03728186,0.0447181,0.027759818,-0.0062905983,0.017120741,0.036330517,0.0,0.0,0.0,-0.009251609,-0.12614147,0.3439204,-0.10300092,0.13561192,0.2671101,-0.12805626,0.012101096,-0.32676962,-0.023373473,0.002735417,-0.32060814,-0.057777237,0.05074874,0.0221523,0.041962855,-0.043128014,0.02151847,-0.055596966,0.0735447,0.0088838795,-0.03970878,-0.073625095,-0.049380776,0.036986213,-2.0,2.0,-2.0,2.0,2.0,-2.0,2.0,-2.0,-2.0,-2.0,-2.0,-2.0,-2.0,2.0,-2.0,2.0,2.0,-2.0,2.0,-2.0,-2.0,-2.0,-2.0,-2.0
2025-06-09 12:29:41.480,0.01661902,0.026038378,0.014333771,0.03274182,-0.01045441,0.027011197,0.0,0.0,0.0,-0.0092519745,-0.1313191,0.33759615,-0.12138269,0.13296323,0.2761086,-0.13493037,0.017298536,-0.33292022,-0.01841428,-0.0026325383,-0.32239673,-0.060821768,0.01195049,0.03572965,-0.036427993,0.006688005,-0.034819428,0.045278423,-0.0026437866,0.043094635,-0.025682122,0.055860706,-0.027734421,-0.0100624785,-2.0,2.0,-2.0,2.0,2.0,-2.0,2.0,-2.0,-2.0,-2.0,-2.0,-2.0,-2.0,2.0,-2.0,2.0,2.0,-2.0,2.0,-2.0,-2.0,-2.0,-2.0,-2.0
2025-06-09 12:29:41.503,0.02163223,0.021536572,-0.021684675,-0.006287911,-0.017431254,0.012198946,0.0,0.0,0.0,-0.009250101,-0.12845834,0.3474751,-0.11867261,0.13328074,0.28473797,-0.13254611,0.013370012,-0.32576546,-0.026603226,-0.0014137522,-0.31853864,-0.059751336,0.02093375,0.06306725,0.024025964,0.0022970485,0.06771133,-0.0029412683,0.054756816,-0.06442728,0.019410748,-0.064746596,0.06992525,-0.0036828888,-2.0,2.0,-2.0,2.0,2.0,-2.0,2.0,-2.0,-2.0,-2.0,-2.0,-2.0,-2.0,2.0,-2.0,2.0,2.0,-2.0,2.0,-2.0,-2.0,-2.0,-2.0,-2.0
2025-06-09 12:29:41.520,-0.030640744,0.041075952,-0.04014961,-0.0058919615,0.03850643,0.04304953,0.0,0.0,0.0,-0.009246463,-0.122746915,0.33435166,-0.11394981,0.13340992,0.27294424,-0.12898925,0.012278459,-0.33820984,-0.037193373,-0.011150532,-0.32174772,-0.0755164,0.0132732475,0.012300387,-0.07259375,-0.03863173,-0.06719374,0.011529726,0.07339026,0.0628634,0.03191714,-0.047556676,-0.05469012,0.033316627,-2.0,2.0,-2.0,2.0,2.0,-2.0,2.0,-2.0,-2.0,-2.0,-2.0,-2.0,-2.0,2.0,-2.0,2.0,2.0,-2.0,2.0,-2.0,-2.0,-2.0,-2.0,-2.0
2025-06-09 12:29:41.540,-0.01663481,0.01657102,-0.018335558,0.01637206,-0.0059808698,0.032017704,0.0,0.0,0.0,-0.009241563,-0.13003023,0.33462396,-0.1094193,0.11874153,0.28136697,-0.12222382,0.018028999,-0.33953193,-0.032500234,-0.00769734,-0.3257554,-0.05868071,-0.01931892,0.005490597,0.05002612,-0.06692401,-0.013020201,0.0724919,0.056880616,0.016481489,-0.03363137,-0.008276515,0.024462165,-0.0052932445,-2.0,2.0,-2.0,2.0,2.0,-2.0,2.0,-2.0,-2.0,-2.0,-2.0,-2.0,-2.0,2.0,-2.0,2.0,2.0,-2.0,2.0,-2.0,-2.0,-2.0,-2.0,-2.0
2025-06-09 12:29:41.560,0.023669848,-0.0025792287,-0.013905988,-0.026705006,-0.031191578,0.0040991483,0.0,0.0,0.0,-0.009235935,-0.12015479,0.34007773,-0.11017533,0.1342872,0.28540963,-0.13049527,0.008506234,-0.33075398,-0.019748272,-0.006995447,-0.32385868,-0.07167991,0.03977489,-0.03777387,-0.023421755,-0.029556422,0.010792353,0.00019879578,-0.032221176,-0.07422657,-0.029764296,-0.020560732,-0.031242123,-0.020295529,-2.0,2.0,-2.0,2.0,2.0,-2.0,2.0,-2.0,-2.0,-2.0,-2.0,-2.0,-2.0,2.0,-2.0,2.0,2.0,-2.0,2.0,-2.0,-2.0,-2.0,-2.0,-2.0
2025-06-09 12:29:41.580,-0.043372136,0.010065616,0.03763007,0.020537551,0.013245421,0.013098258,0.0,0.0,0.0,-0.0092300745,-0.120143645,0.33265153,-0.10804051,0.1354872,0.28255868,-0.12265746,0.005666517,-0.3281022,-0.021838868,0.0032426566,-0.33551222,-0.066107675,0.06769145,-0.024580209,0.059843123,0.03873899,-0.029154222,-0.00025660248,-0.023996083,0.04772891,-0.005456742,0.074453115,-0.030412722,-0.06945466,-2.0,2.0,-2.0,2.0,2.0,-2.0,2.0,-2.0,-2.0,-2.0,-2.0,-2.0,-2.0,2.0,-2.0,2.0,2.0,-2.0,2.0,-2.0,-2.0,-2.0,-2.0,-2.0
2025-06-09 12:29:41.603,0.020650988,-0.01721364,0.00361659,-0.0101335915,0.029250503,0.003317199,0.0,0.0,0.0,-0.009224395,-0.11894848,0.33403915,-0.12003106,0.12628166,0.27931488,-0.12205063,0.0129959285,-0.33984768,-0.023811627,0.0018830342,-0.32794055,-0.06304206,0.05710088,-0.020497765,0.04703841,0.06955851,-0.030402107,-0.014651521,0.061387375,-0.07178834,-0.02947154,-0.02644797,0.058492403,-0.009102249,-2.0,2.0,-2.0,2.0,2.0,-2.0,2.0,-2.0,-2.0,-2.0,-2.0,-2.0,-2.0,2.0,-2.0,2.0,2.0,-2.0,2.0,-2.0,-2.0,-2.0,-2.0,-2.0
2025-06-09 12:29:41.620,0.039028663,0.036412522,-0.001942055,0.033904757,-0.014894387,-0.04986599,0.0,0.0,0.0,-0.009219212,-0.1316914,0.3387251,-0.110766836,0.13592346,0.27211556,-0.11902457,0.013501329,-0.34173372,-0.036266975,-0.015742125,-0.31862718,-0.060407642,0.06170843,-0.018235138,-0.045498535,0.024118232,0.046915587,-0.03795481,0.061171222,0.038612533,-0.0052244444,0.016352331,-0.032776684,0.01534778,-2.0,2.0,-2.0,2.0,2.0,-2.0,2.0,-2.0,-2.0,-2.0,-2.0,-2.0,-2.0,2.0,-2.0,2.0,2.0,-2.0,2.0,-2.0,-2.0,-2.0,-2.0,-2.0
2025-06-09 12:29:41.640,-0.037987832,0.03523182,0.046940945,-0.0024526769,-0.01920392,-0.009587232,0.0,0.0,0.0,-0.009214746,-0.13371229,0.3374787,-0.106063925,0.1231758,0.28571963,-0.120272785,0.016184675,-0.3387892,-0.023453295,-0.0063559455,-0.33804667,-0.06589174,-0.04155805,-0.073006265,-0.00055250974,-0.017713204,0.02740404,-0.05711721,-0.04955638,0.039289486,0.017229937,0.015476249,-0.01624464,0.03925831,-2.0,2.0,-2.0,2.0,2.0,-2.0,2.0,-2.0,-2.0,-2.0,-2.0,-2.0,-2.0,2.0,-2.0,2.0,2.0,-2.0,2.0,-2.0,-2.0,-2.0,-2.0,-2.0
2025-06-09 12:29:41.660,0.0390084,0.011710813,-0.022415988,-0.01257416,-0.0076538543,-0.02735625,0.0,0.0,0.0,-0.00921112,-0.12209425,0.333595,-0.10958542,0.13421376,0.274164,-0.13377106,0.01469382,-0.33171692,-0.027284175,-0.013858958,-0.3283619,-0.058381423,0.033244707,-0.004688775,0.030825956,-0.021518754,0.051109456,0.066993095,0.060577665,0.02992547,0.06628967,-0.02383456,-0.04788995,0.03697576,-2.0,2.0,-2.0,2.0,2.0,-2.0,2.0,-2.0,-2.0,-2.0,-2.0,-2.0,-2.0,2.0,-2.0,2.0,2.0,-2.0,2.0,-2.0,-2.0,-2.0,-2.0,-2.0
2025-06-09 12:29:41.681,0.040126853,-0.027596658,0.04556401,0.017068641,0.018703189,-0.049727485,0.0,0.0,0.0,-0.009208386,-0.11965471,0.3408944,-0.10897696,0.123076886,0.2828559,-0.123286076,0.007115501,-0.33273417,-0.029181492,0.0013874742,-0.32875556,-0.07156606,-0.017826248,-0.059967227,-0.027548423,-0.018148586,-0.06792181,-0.041507944,-0.019170862,0.041904762,0.05251489,0.022203667,0.036667258,0.0008684949,-2.0,2.0,-2.0,2.0,2.0,-2.0,2.0,-2.0,-2.0,-2.0,-2.0,-2.0,-2.0,2.0,-2.0,2.0,2.0,-2.0,2.0,-2.0,-2.0,-2.0,-2.0,-2.0
2025-06-09 12:29:41.703,-0.02487526,0.023578756,-0.023501836,0.025110548,-0.026522959,-0.03974851,0.0,0.0,0.0,-0.009206527,-0.11774723,0.34048873,-0.11789746,0.12092328,0.26588538,-0.12339768,0.008664771,-0.32896167,-0.018183136,-0.007299226,-0.33297408,-0.060602315,0.07389487,-0.044906892,-0.046519406,-0.046242226,0.018387903,0.05241418,0.017146954,0.07146799,-0.07220646,-0.0062053106,-0.062128812,0.04557279,-2.0,2.0,-2.0,2.0,2.0,-2.0,2.0,-2.0,-2.0,-2.0,-2.0,-2.0,-2.0,2.0,-2.0,2.0,2.0,-2.0,2.0,-2.0,-2.0,-2.0,-2.0,-2.0
2025-06-09 12:29:41.792,0.039221447,0.005038562,-0.030132301,0.020978492,0.042910106,0.017266657,0.0,0.0,0.0,-0.009205481,-0.12845291,0.342306,-0.10279609,0.13095191,0.27634662,-0.119135514,0.0045807892,-0.33017114,-0.019177012,0.00090681046,-0.32160744,-0.058982905,0.044533994,0.02837196,0.031279318,-0.07495371,-0.070716545,0.06786526,0.0013609327,0.028517367,0.054191623,0.014769353,0.0344865,-0.016500428,-2.0,2.0,-2.0,2.0,2.0,-2.0,2.0,-2.0,-2.0,-2.0,-2.0,-2.0,-2.0,2.0,-2.0,2.0,2.0,-2.0,2.0,-2.0,-2.0,-2.0,-2.0,-2.0
2025-06-09 12:29:41.808,-0.049096137,-0.03201241,-0.036521427,0.022757689,-0.016492007,0.043622755,0.0,0.0,0.0,-0.009205152,-0.13109206,0.33604768,-0.1199288,0.121525586,0.28133085,-0.12875688,0.021682959,-0.32688436,-0.029410532,-0.01567392,-0.32246545,-0.061467107,-0.02869518,0.034574974,-0.014723728,0.04222186,0.0628478,-0.041823853,-0.034929466,0.032022767,-0.027655495,-0.0038217155,0.03147588,0.0716891,-2.0,2.0,-2.0,2.0,2.0,-2.0,2.0,-2.0,-2.0,-2.0,-2.0,-2.0,-2.0,2.0,-2.0,2.0,2.0,-2.0,2.0,-2.0,-2.0,-2.0,-2.0,-2.0
2025-06-09 12:29:41.830,0.006911118,-0.004334485,-0.046311706,-0.0058090743,-0.014812176,-0.04318924,0.0,0.0,0.0,-0.009205426,-0.122874215,0.34919044,-0.105512835,0.13586488,0.26898172,-0.12101521,0.021119568,-0.3384592,-0.024703965,-0.0064230952,-0.33376563,-0.057738323,0.003210089,-0.018784083,-0.015370196,-0.037610482,0.026423058,-0.02662439,-0.035926063,0.0045970366,0.07054611,0.018449545,0.047124576,0.0040266383,-2.0,2.0,-2.0,2.0,2.0,-2.0,2.0,-2.0,-2.0,-2.0,-2.0,-2.0,-2.0,2.0,-2.0,2.0,2.0,-2.0,2.0,-2.0,-2.0,-2.0,-2.0,-2.0
2025-06-09 12:29:41.849,-0.023401618,-0.044233777,-0.021122316,0.01815876,0.048043475,0.046024773,0.0,0.0,0.0,-0.009206177,-0.119993046,0.34118038,-0.10968055,0.13626297,0.28333345,-0.12457562,0.008810311,-0.3311704,-0.024342317,0.002213917,-0.32428136,-0.07091618,0.067304075,0.02526164,0.051348094,-0.028386258,-0.04233949,0.026563322,0.028822713,-0.040283754,-0.051671207,-0.04030089,0.056570742,0.059774827,-2.0,2.0,-2.0,2.0,2.0,-2.0,2.0,-2.0,-2.0,-2.0,-2.0,-2.0,-2.0,2.0,-2.0,2.0,2.0,-2.0,2.0,-2.0,-2.0,-2.0,-2.0,-2.0
2025-06-09 12:29:41.869,-0.0063220235,-0.021826524,-0.006201749,0.006515522,0.013147793,-0.045064628,0.0,0.0,0.0,-0.009207281,-0.13294263,0.34090894,-0.104891434,0.12942594,0.2803808,-0.12664984,0.010889981,-0.34396428,-0.029237246,-0.004378621,-0.3216626,-0.06963494,-0.0067585744,0.045974758,0.009838824,0.06790128,-0.01206777,0.07114171,0.010138115,0.004077318,0.06765848,-0.061548453,0.06580423,-0.013600177,-2.0,2.0,-2.0,2.0,2.0,-2.0,2.0,-2.0,-2.0,-2.0,-2.0,-2.0,-2.0,2.0,-2.0,2.0,2.0,-2.0,2.0,-2.0,-2.0,-2.0,-2.0,-2.0
2025-06-09 12:29:41.890,0.038914096,0.0494631,0.028090274,0.042930756,-0.007155767,-0.011702554,0.0,0.0,0.0,-0.00920862,-0.12130073,0.3325031,-0.10313722,0.128564,0.27049282,-0.11613259,0.021898337,-0.32778326,-0.029817466,-0.010770846,-0.3364295,-0.06681989,-0.032939818,-0.054753605,-0.035793796,0.061365396,0.034473777,-0.024340864,0.035247233,0.015103431,-0.04270954,0.020220364,-0.02345836,0.036299255,-2.0,2.0,-2.0,2.0,2.0,-2.0,2.0,-2.0,-2.0,-2.0,-2.0,-2.0,-2.0,2.0,-2.0,2.0,2.0,-2.0,2.0,-2.0,-2.0,-2.0,-2.0,-2.0
2025-06-09 12:29:41.909,-0.029697748,0.045018613,0.0060043205,-0.0031631994,-0.0061333203,-0.0319482,0.0,0.0,0.0,-0.009210085,-0.12414531,0.34791836,-0.12175874,0.1200143,0.26851404,-0.13431229,0.010485336,-0.34340858,-0.02241615,0.0011380949,-0.33534032,-0.06790765,-0.009785338,0.00308525,-0.024232438,0.018511796,0.07009273,-0.06641461,0.023212064,-0.010844031,0.00788733,-0.06425172,-0.032448176,-0.035988495,-2.0,2.0,-2.0,2.0,2.0,-2.0,2.0,-2.0,-2.0,-2.0,-2.0,-2.0,-2.0,2.0,-2.0,2.0,2.0,-2.0,2.0,-2.0,-2.0,-2.0,-2.0,-2.0
2025-06-09 12:29:41.929,0.034535408,0.02348156,0.047911335,0.06603476,0.017851483,-0.025343373,0.0,0.0,0.0,-0.009211583,-0.1350726,0.3388881,-0.115408584,0.13810667,0.2725724,-0.12653366,0.020380368,-0.3277398,-0.023040272,-0.015912585,-0.33037993,-0.059327625,-0.029705161,-0.06729996,0.052789163,0.05376763,0.037789553,0.035325356,-0.048303828,-0.04660963,-0.04637574,-0.017122563,-0.07227418,0.027651925,-2.0,2.0,-2.0,2.0,2.0,-2.0,2.0,-2.0,-2.0,-2.0,-2.0,-2.0,-2.0,2.0,-2.0,2.0,2.0,-2.0,2.0,-2.0,-2.0,-2.0,-2.0,-2.0
2025-06-09 12:29:41.952,-0.013442741,0.029516049,-0.003988192,-0.014554676,0.040861722,-0.025097135,0.0,0.0,0.0,-0.009213037,-0.12274441,0.33179635,-0.11648715,0.12776868,0.28345165,-0.123940036,0.022768117,-0.3384367,-0.025342455,-0.0053770207,-0.33036047,-0.06669344,-0.03333026,0.041195046,0.053445198,-0.013234547,0.044453774,0.053000003,-0.038928457,-0.06930487,-0.054014225,0.07278987,-0.017690705,-0.07424379,-2.0,2.0,-2.0,2.0,2.0,-2.0,2.0,-2.0,-2.0,-2.0,-2.0,-2.0,-2.0,2.0,-2.0,2.0,2.0,-2.0,2.0,-2.0,-2.0,-2.0,-2.0,-2.0
2025-06-09 12:29:41.969,-0.046068236,-0.006536171,0.007874177,0.058828913,0.049805794,-0.0040244767,0.0,0.0,0.0,-0.009214384,-0.13093327,0.33560994,-0.11039318,0.13247544,0.28268415,-0.119395204,0.0122343525,-0.34094554,-0.030229805,-0.00029191904,-0.33238804,-0.06621848,-0.018763043,0.06644112,-0.023114733,0.043639045,-0.053357143,0.011484548,0.044374015,-0.05129805,-0.06867294,0.040056787,-0.067732364,0.061015945,-2.0,2.0,-2.0,2.0,2.0,-2.0,2.0,-2.0,-2.0,-2.0,-2.0,-2.0,-2.0,2.0,-2.0,2.0,2.0,-2.0,2.0,-2.0,-2.0,-2.0,-2.0,-2.0
2025-06-09 12:29:41.989,-0.0412934,0.031226726,0.007842894,0.012702197,0.018278694,7.9385965e-05,0.0,0.0,0.0,-0.0092155775,-0.123841316,0.33420104,-0.11710887,0.12178008,0.2730932,-0.12571765,0.02077436,-0.331162,-0.03643877,-0.0065475004,-0.32573402,-0.06947045,-0.051065978,-0.040859647,-0.014073413,0.0058280495,-0.07079303,0.012625308,0.025254745,-0.05004847,-0.0081029115,-0.012393917,0.06847834,-0.044893805,-2.0,2.0,-2.0,2.0,2.0,-2.0,2.0,-2.0,-2.0,-2.0,-2.0,-2.0,-2.0,2.0,-2.0,2.0,2.0,-2.0,2.0,-2.0,-2.0,-2.0,-2.0,-2.0
2025-06-09 12:29:42.009,0.03177409,-0.00896042,-0.022190923,0.0074065505,0.030775169,-0.0021739262,0.0,0.0,0.0,-0.009216589,-0.12716916,0.34618717,-0.121686086,0.12590048,0.28510842,-0.1338053,0.011679973,-0.3379526,-0.0364931,0.0013558127,-0.33636856,-0.065214664,-0.038985543,0.052640576,-0.018213138,0.016206015,-0.005055943,-0.05867,0.053080495,-0.015988277,-0.039598312,-0.052143946,-0.050880734,-0.012655863,-2.0,2.0,-2.0,2.0,2.0,-2.0,2.0,-2.0,-2.0,-2.0,-2.0,-2.0,-2.0,2.0,-2.0,2.0,2.0,-2.0,2.0,-2.0,-2.0,-2.0,-2.0,-2.0
2025-06-09 12:29:42.029,0.04426158,-0.038030345,-0.022625519,0.061528414,0.019895142,-0.0073586297,0.0,0.0,0.0,-0.009217401,-0.12917592,0.33430958,-0.115798965,0.123479754,0.27292395,-0.12532507,0.0073740906,-0.33996493,-0.03300454,-0.0029345327,-0.31818277,-0.069914505,-0.05692159,0.05387541,0.028112598,-0.03587537,-0.032508213,0.01834502,0.01695302,-0.028694682,-0.032460984,-0.07494343,0.059041664,-0.0026364082,-2.0,2.0,-2.0,2.0,2.0,-2.0,2.0,-2.0,-2.0,-2.0,-2.0,-2.0,-2.0,2.0,-2.0,2.0,2.0,-2.0,2.0,-2.0,-2.0,-2.0,-2.0,-2.0
2025-06-09 12:29:42.052,-0.018965019,-0.009446278,0.045587543,0.0008877641,0.061798587,0.020159274,0.0,0.0,0.0,-0.009218009,-0.12748443,0.3330846,-0.116104305,0.13063164,0.27163222,-0.11606802,0.022410009,-0.34446716,-0.038000673,0.00071247475,-0.32729816,-0.0639121,0.016270434,-0.061613772,0.030967547,0.00034928424,0.048618183,-0.026069338,0.019582601,0.074095346,-0.0273387,-0.052915547,-0.0065233535,-0.07113101,-2.0,2.0,-2.0,2.0,2.0,-2.0,2.0,-2.0,-2.0,-2.0,-2.0,-2.0,-2.0,2.0,-2.0,2.0,2.0,-2.0,2.0,-2.0,-2.0,-2.0,-2.0,-2.0
2025-06-09 12:29:42.069,-0.024473106,0.011163155,0.04644155,0.055597506,-0.030452795,-0.04886481,0.0,0.0,0.0,-0.00921842,-0.12419803,0.3435466,-0.10496833,0.13136858,0.2822965,-0.1336666,0.012725387,-0.340659,-0.029307727,-0.004320092,-0.32408077,-0.06167593,0.0019297637,0.020234205,0.011951001,0.052518655,0.0021099413,-0.017614814,-0.057197075,0.00066595734,-0.036477808,-0.017679468,0.041645806,0.06477071,-2.0,2.0,-2.0,2.0,2.0,-2.0,2.0,-2.0,-2.0,-2.0,-2.0,-2.0,-2.0,2.0,-2.0,2.0,2.0,-2.0,2.0,-2.0,-2.0,-2.0,-2.0,-2.0
2025-06-09 12:29:42.090,-0.018004417,0.006299168,-0.008157281,0.04438484,-0.003451961,0.021494139,0.0,0.0,0.0,-0.009218646,-0.13130888,0.34116,-0.12169362,0.1367004,0.27347502,-0.119377725,0.0071412763,-0.33194718,-0.034332186,-0.0016134343,-0.32412112,-0.07136326,0.028130297,-0.028847627,-0.030036835,0.012093108,-0.02859988,0.06412151,0.06915614,0.041787744,0.046319015,-0.00097217155,0.017879277,-0.060726456,-2.0,2.0,-2.0,2.0,2.0,-2.0,2.0,-2.0,-2.0,-2.0,-2.0,-2.0,-2.0,2.0,-2.0,2.0,2.0,-2.0,2.0,-2.0,-2.0,-2.0,-2.0,-2.0
2025-06-09 12:29:42.110,0.026148764,0.030536104,-0.0103883175,0.0679172,-0.0021153123,0.026678182,0.0,0.0,0.0,-0.00921871,-0.13345408,0.34161267,-0.11076891,0.12464394,0.27295017,-0.1303715,0.020888837,-0.344021,-0.019610658,-0.0049521094,-0.33323818,-0.05987325,0.0045548594,-0.0016972338,-0.073317334,0.058665805,-0.006925809,-0.039487317,0.06667762,0.043151148,0.016871588,0.031861432,-0.02816171,-0.041315045,-2.0,2.0,-2.0,2.0,2.0,-2.0,2.0,-2.0,-2.0,-2.0,-2.0,-2.0,-2.0,2.0,-2.0,2.0,2.0,-2.0,2.0,-2.0,-2.0,-2.0,-2.0,-2.0
2025-06-09 12:29:42.130,0.020476885,0.038341396,-0.0058236676,0.004201241,-0.005658634,-0.047388427,0.0,0.0,0.0,-0.009218635,-0.13200489,0.33719507,-0.10991025,0.12224727,0.26858172,-0.12739897,0.0045880354,-0.3317041,-0.03509763,-0.01042324,-0.31828183,-0.07063185,0.0077016763,-0.00086316915,0.05206817,0.05407384,0.044417165,-0.007578682,-0.054821715,-0.058248565,0.046144556,0.06719375,0.06425818,0.065486625,-2.0,2.0,-2.0,2.0,2.0,-2.0,2.0,-2.0,-2.0,-2.0,-2.0,-2.0,-2.0,2.0,-2.0,2.0,2.0,-2.0,2.0,-2.0,-2.0,-2.0,-2.0,-2.0
2025-06-09 12:29:42.152,-0.040361926,-0.04624612,-0.02955881,0.0121565,0.010353255,-0.003365656,0.0,0.0,0.0,-0.009218448,-0.1335429,0.34198055,-0.10538531,0.1341331,0.27465308,-0.13196735,0.0059363875,-0.32588607,-0.032215796,-0.011084592,-0.33463103,-0.06500574,-0.05223388,0.06736456,-0.0137495,0.05935777,-0.04426796,0.0073754066,-0.07199064,-0.045010958,-0.070740476,-0.04294221,0.016607601,-0.045226064,-2.0,2.0,-2.0,2.0,2.0,-2.0,2.0,-2.0,-2.0,-2.0,-2.0,-2.0,-2.0,2.0,-2.0,2.0,2.0,-2.0,2.0,-2.0,-2.0,-2.0,-2.0,-2.0
2025-06-09 12:29:42.171,0.027074613,-0.0005797321,-0.038249526,0.024746513,0.057889838,0.016924178,0.0,0.0,0.0,-0.009218178,-0.118733354,0.33619565,-0.10275613,0.1353724,0.2745183,-0.120687716,0.01673238,-0.33383137,-0.029763592,-0.004810888,-0.3321378,-0.07006614,-0.018776132,0.06997375,0.04402369,-0.0030821217,-0.05916189,0.048805036,-0.057583295,0.007935122,0.068140015,-0.05018206,-0.01972987,-0.023922745,-2.0,2.0,-2.0,2.0,2.0,-2.0,2.0,-2.0,-2.0,-2.0,-2.0,-2.0,-2.0,2.0,-2.0,2.0,2.0,-2.0,2.0,-2.0,-2.0,-2.0,-2.0,-2.0
2025-06-09 12:29:42.191,0.017316269,-0.020831821,-0.02960984,-0.0036195987,0.042744678,-0.02833898,0.0,0.0,0.0,-0.00921785,-0.120434664,0.3454397,-0.103287935,0.12939057,0.26832,-0.11845945,0.008677423,-0.34090933,-0.03027088,0.0008856611,-0.3372634,-0.06890804,-0.04130789,0.011787743,-0.008343776,-0.00051602937,0.048614237,-0.051042397,0.0021112747,-0.05097978,0.02291925,-0.07288291,0.046631925,-0.04995299,-2.0,2.0,-2.0,2.0,2.0,-2.0,2.0,-2.0,-2.0,-2.0,-2.0,-2.0,-2.0,2.0,-2.0,2.0,2.0,-2.0,2.0,-2.0,-2.0,-2.0,-2.0,-2.0
2025-06-09 12:29:42.211,0.025626985,0.04018386,0.027612405,-0.016699854,0.056612495,-0.028061409,0.0,0.0,0.0,-0.00921749,-0.12782404,0.34787053,-0.10612524,0.13192189,0.27850717,-0.1221911,0.010702231,-0.34448782,-0.019643119,0.00087533344,-0.3302489,-0.072153874,0.014363954,-0.05136431,-0.0051911697,-0.042817913,-0.053941768,-0.006332658,0.03957924,0.057083804,0.045452766,0.047369633,0.038466718,-0.03129798,-2.0,2.0,-2.0,2.0,2.0,-2.0,2.0,-2.0,-2.0,-2.0,-2.0,-2.0,-2.0,2.0,-2.0,2.0,2.0,-2.0,2.0,-2.0,-2.0,-2.0,-2.0,-2.0
2025-06-09 12:29:42.231,-0.02986098,0.026568558,0.043587316,0.06846122,0.053149004,0.00822323,0.0,0.0,0.0,-0.009217123,-0.13276537,0.3419758,-0.11839363,0.119188644,0.2779633,-0.1259367,0.011235312,-0.32959092,-0.030536955,-0.0036743965,-0.31911996,-0.06946518,-0.052239615,0.04266496,-0.0042263,0.03013328,0.024878982,0.030050315,0.07161065,0.059675273,-0.052359607,0.03191936,-0.0036746243,-0.0052551255,-2.0,2.0,-2.0,2.0,2.0,-2.0,2.0,-2.0,-2.0,-2.0,-2.0,-2.0,-2.0,2.0,-2.0,2.0,2.0,-2.0,2.0,-2.0,-2.0,-2.0,-2.0,-2.0
2025-06-09 12:29:42.252,-0.04804214,-0.0049917307,-0.022743741,-0.021865426,0.008057199,0.02902721,0.0,0.0,0.0,-0.009216765,-0.12219126,0.3451046,-0.104514,0.13292046,0.2792264,-0.11956821,0.01607651,-0.329708,-0.020157583,-0.00622755,-0.33202174,-0.0579713,0.014148826,-0.007060176,-0.071214825,-0.008843359,0.01676144,0.072537385,-0.04577829,-0.039507773,-0.014048988,-0.03993003,-0.01505672,-0.010372145,-2.0,2.0,-2.0,2.0,2.0,-2.0,2.0,-2.0,-2.0,-2.0,-2.0,-2.0,-2.0,2.0,-2.0,2.0,2.0,-2.0,2.0,-2.0,-2.0,-2.0,-2.0,-2.0
2025-06-09 12:29:42.271,0.04977352,-0.027593313,-0.012524199,0.03728023,0.035086833,0.018609386,0.0,0.0,0.0,-0.009216432,-0.122566596,0.3429393,-0.120153025,0.12554377,0.28129598,-0.12675716,0.011032354,-0.33031905,-0.035786536,-0.00653491,-0.33791402,-0.06557841,-0.051108826,-0.026750108,0.049121663,0.0074671684,-0.0027722947,0.02493775,-0.012484795,-0.06374766,-0.04583108,0.02302839,-0.0056285434,0.007932502,-2.0,2.0,-2.0,2.0,2.0,-2.0,2.0,-2.0,-2.0,-2.0,-2.0,-2.0,-2.0,2.0,-2.0,2.0,2.0,-2.0,2.0,-2.0,-2.0,-2.0,-2.0,-2.0
2025-06-09 12:29:42.293,-0.021153696,0.022698672,-0.04164116,0.04025946,0.019983934,0.009322099,0.0,0.0,0.0,-0.009216137,-0.1267955,0.34140965,-0.11087576,0.13661575,0.2710921,-0.117078334,0.019137371,-0.33166263,-0.030164829,-0.0076478263,-0.32371944,-0.06374911,-0.053352173,0.07103129,-0.068672605,-0.072505236,0.03763083,0.0660305,-0.06812154,-0.021728162,-0.008596679,0.057038575,0.043508302,0.047204778,-2.0,2.0,-2.0,2.0,2.0,-2.0,2.0,-2.0,-2.0,-2.0,-2.0,-2.0,-2.0,2.0,-2.0,2.0,2.0,-2.0,2.0,-2.0,-2.0,-2.0,-2.0,-2.0
2025-06-09 12:29:42.311,0.03331574,-0.012203865,-0.04615926,0.019820241,-0.016136408,-0.043707006,0.0,0.0,0.0,-0.009215888,-0.13239092,0.34397694,-0.118028186,0.130041,0.28323653,-0.11804524,0.019441115,-0.33900213,-0.019543959,-0.006282838,-0.32476485,-0.073531546,-0.06017341,-0.037486162,0.015905732,0.05520319,0.021246046,-0.011498558,0.0067462935,-0.020584926,0.036760848,-0.03803543,0.03848136,0.025012925,-2.0,2.0,-2.0,2.0,2.0,-2.0,2.0,-2.0,-2.0,-2.0,-2.0,-2.0,-2.0,2.0,-2.0,2.0,2.0,-2.0,2.0,-2.0,-2.0,-2.0,-2.0,-2.0
2025-06-09 12:29:42.332,-0.023460023,-0.004934034,0.02743917,-0.0064419345,0.041345306,0.04832939,0.0,0.0,0.0,-0.009215687,-0.13257587,0.3328213,-0.11035163,0.1378271,0.26790786,-0.12095741,0.016988343,-0.34394258,-0.02439924,0.0012667851,-0.32196444,-0.056858473,-0.045369446,-0.049409878,0.06898209,0.015795836,0.041744545,0.045312867,-0.027031727,-0.036233086,0.040846746,-0.011262643,0.029234283,-0.054671217,-2.0,2.0,-2.0,2.0,2.0,-2.0,2.0,-2.0,-2.0,-2.0,-2.0,-2.0,-2.0,2.0,-2.0,2.0,2.0,-2.0,2.0,-2.0,-2.0,-2.0,-2.0,-2.0
2025-06-09 12:29:42.352,-0.018240666,-0.028121004,-0.04937691,0.016869776,-0.007135014,0.03229825,0.0,0.0,0.0,-0.009215538,-0.12433583,0.33946976,-0.10926243,0.122014366,0.27692568,-0.122714505,0.013049886,-0.34191865,-0.028829897,-0.0031557227,-0.32214713,-0.06743582,-0.002280447,-0.030187814,-0.035962343,0.034021214,-0.049927402,0.010857621,-0.07278527,-0.013415402,0.05356772,-0.015922338,-0.012101763,-0.047508784,-2.0,2.0,-2.0,2.0,2.0,-2.0,2.0,-2.0,-2.0,-2.0,-2.0,-2.0,-2.0,2.0,-2.0,2.0,2.0,-2.0,2.0,-2.0,-2.0,-2.0,-2.0,-2.0
2025-06-09 12:29:42.372,-0.022338036,-0.014331009,0.034638632,0.05401464,0.055011474,-0.017278645,0.0,0.0,0.0,-0.009215439,-0.12155674,0.33389804,-0.11208809,0.12239274,0.26886544,-0.13169411,0.021317877,-0.33384556,-0.02545229,-0.016323172,-0.33809045,-0.059537765,0.055360217,0.043985404,0.0484858,-0.03488107,-0.052445553,0.049438678,0.012724395,-0.024694096,-0.03280847,0.07106145,-0.020930445,0.035344277,-2.0,2.0,-2.0,2.0,2.0,-2.0,2.0,-2.0,-2.0,-2.0,-2.0,-2.0,-2.0,2.0,-2.0,2.0,2.0,-2.0,2.0,-2.0,-2.0,-2.0,-2.0,-2.0
2025-06-09 12:29:42.392,0.002834902,-0.015307811,-0.0379488,-0.024227463,-0.0116794715,0.03759236,0.0,0.0,0.0,-0.009215385,-0.12675719,0.34065327,-0.11994233,0.12561227,0.26731724,-0.12325752,0.017002476,-0.3293507,-0.019331656,-0.0008284324,-0.3320873,-0.06352833,-0.047093708,-0.046158142,0.023237897,0.06235731,-0.0025371334,0.053473387,-0.015314038,-0.07263827,0.048774235,-0.0145823425,0.058228873,-0.019363571,-2.0,2.0,-2.0,2.0,2.0,-2.0,2.0,-2.0,-2.0,-2.0,-2.0,-2.0,-2.0,2.0,-2.0,2.0,2.0,-2.0,2.0,-2.0,-2.0,-2.0,-2.0,-2.0
2025-06-09 12:29:42.412,0.014759035,-0.02317176,-0.049575727,0.062665164,0.061608605,0.008402868,0.0,0.0,0.0,-0.009215371,-0.11806972,0.33740684,-0.11165419,0.118494935,0.27293682,-0.12087423,0.008060947,-0.33804372,-0.024648333,-0.007919165,-0.32704705,-0.061259255,-0.015575187,-0.045932453,-0.067981154,0.050223682,-0.03936063,0.07256883,-0.029031329,-0.014818675,-0.0605299,-0.04513067,-0.012951693,-0.055789992,-2.0,2.0,-2.0,2.0,2.0,-2.0,2.0,-2.0,-2.0,-2.0,-2.0,-2.0,-2.0,2.0,-2.0,2.0,2.0,-2.0,2.0,-2.0,-2.0,-2.0,-2.0,-2.0
2025-06-09 12:29:42.432,-0.026781904,-0.0338353,-0.008288116,0.07133051,-0.0084938845,-0.024037648,0.0,0.0,0.0,-0.009215392,-0.12358689,0.34809372,-0.11847169,0.13691771,0.27351397,-0.12942752,0.016815828,-0.3397056,-0.019334972,-0.008808723,-0.31896204,-0.061157476,-0.04015881,-0.01837106,-0.07324312,0.026906988,0.023764873,0.017743351,0.057408728,0.013183001,-0.027081158,-0.037904873,-0.05903156,0.06878626,-2.0,2.0,-2.0,2.0,2.0,-2.0,2.0,-2.0,-2.0,-2.0,-2.0,-2.0,-2.0,2.0,-2.0,2.0,2.0,-2.0,2.0,-2.0,-2.0,-2.0,-2.0,-2.0
2025-06-09 12:29:42.452,-0.0018386837,-0.01948943,0.0077213217,0.0011789752,0.049983107,-0.035247773,0.0,0.0,0.0,-0.009215441,-0.12666133,0.3492442,-0.107439525,0.1251778,0.2747316,-0.12112344,0.007825064,-0.33706725,-0.020838393,-0.0010832081,-0.33709264,-0.07386182,-0.042770337,0.0021951848,-0.06010355,0.073335394,-0.012892828,-0.008914583,-0.051273953,0.039690025,-0.07415993,0.04931072,-0.060879745,-0.022867061,-2.0,2.0,-2.0,2.0,2.0,-2.0,2.0,-2.0,-2.0,-2.0,-2.0,-2.0,-2.0,2.0,-2.0,2.0,2.0,-2.0,2.0,-2.0,-2.0,-2.0,-2.0,-2.0
2025-06-09 12:29:42.472,-0.009863,-0.03051157,0.028558353,-0.02702648,0.008987752,0.015249425,0.0,0.0,0.0,-0.00921551,-0.11761235,0.34657314,-0.12075645,0.12352833,0.27459407,-0.12665677,0.022948481,-0.3435695,-0.027084935,-0.0029651446,-0.3291827,-0.068725504,-0.027339006,0.03443538,0.06004472,-0.046760213,0.029738672,-0.04200277,-0.034319673,-0.02430314,0.047337946,-0.031456117,-0.052713875,-0.048270408,-2.0,2.0,-2.0,2.0,2.0,-2.0,2.0,-2.0,-2.0,-2.0,-2.0,-2.0,-2.0,2.0,-2.0,2.0,2.0,-2.0,2.0,-2.0,-2.0,-2.0,-2.0,-2.0
2025-06-09 12:29:42.492,-0.038575087,-0.0030489087,-0.01201782,0.026234495,-0.023167502,0.003102215,0.0,0.0,0.0,-0.009215592,-0.12253314,0.34943905,-0.10908871,0.12638724,0.2800058,-0.121011786,0.007858529,-0.33708057,-0.022233952,-0.013732559,-0.32349017,-0.07266712,-0.028986271,-0.04168283,0.04101492,0.039181195,-0.04927648,0.063712716,-0.06072424,0.040417444,0.01577826,0.0072379177,0.012042695,0.07209262,-2.0,2.0,-2.0,2.0,2.0,-2.0,2.0,-2.0,-2.0,-2.0,-2.0,-2.0,-2.0,2.0,-2.0,2.0,2.0,-2.0,2.0,-2.0,-2.0,-2.0,-2.0,-2.0
2025-06-09 12:29:42.512,-0.03663256,-0.03075839,0.035331428,0.045270644,-0.012231994,-0.034795236,0.0,0.0,0.0,-0.009215683,-0.12878956,0.33288434,-0.12020906,0.13780671,0.27153563,-0.13458687,0.008477556,-0.34092528,-0.02143952,-0.016262017,-0.32736674,-0.057602376,0.032826573,-0.011281796,0.01477742,-0.05717194,-0.073288366,0.059905097,-0.0414219,-0.0065890816,0.016921906,-0.070835635,0.029666536,-0.034839675,-2.0,2.0,-2.0,2.0,2.0,-2.0,2.0,-2.0,-2.0,-2.0,-2.0,-2.0,-2.0,2.0,-2.0,2.0,2.0,-2.0,2.0,-2.0,-2.0,-2.0,-2.0,-2.0
2025-06-09 12:29:42.535,0.045008603,-0.0024154203,0.010624269,0.050939962,-0.030594079,0.04941095,0.0,0.0,0.0,-0.009215773,-0.13590364,0.34255153,-0.10660506,0.1287159,0.27252373,-0.12451655,0.008376328,-0.3293381,-0.018429896,-0.0046792193,-0.32678586,-0.06462155,0.06875135,0.058054935,0.011349582,-0.074400716,0.032471396,-0.024468396,-0.032734577,-0.0049043205,0.06095379,0.019079076,0.054234922,-0.04633677,-2.0,2.0,-2.0,2.0,2.0,-2.0,2.0,-2.0,-2.0,-2.0,-2.0,-2.0,-2.0,2.0,-2.0,2.0,2.0,-2.0,2.0,-2.0,-2.0,-2.0,-2.0,-2.0
2025-06-09 12:29:42.552,0.042118855,0.04855072,-0.015377353,0.009806744,0.027446134,-0.031460244,0.0,0.0,0.0,-0.009215862,-0.13000086,0.34745097,-0.11778763,0.13805692,0.26559156,-0.12532508,0.016485078,-0.3292449,-0.036393214,-0.015332727,-0.33199233,-0.06257136,0.04740224,-0.012027906,0.058321115,-0.050296027,0.065135635,0.03860265,0.057932593,0.03772722,-0.06404337,-0.05437879,0.052709732,0.044969868,-2.0,2.0,-2.0,2.0,2.0,-2.0,2.0,-2.0,-2.0,-2.0,-2.0,-2.0,-2.0,2.0,-2.0,2.0,2.0,-2.0,2.0,-2.0,-2.0,-2.0,-2.0,-2.0
2025-06-09 12:29:42.573,-0.025467303,-0.03197705,0.016202798,0.024375938,-0.01949819,0.011800874,0.0,0.0,0.0,-0.009215943,-0.12036301,0.35011995,-0.11356196,0.13037838,0.27816507,-0.121685155,0.0061932555,-0.33911148,-0.028272117,-0.0028380838,-0.32533196,-0.064005986,0.0018180818,0.022570102,-0.007964667,0.044730704,-0.06726275,-0.05207692,0.025427325,-0.05337384,-0.035011366,-0.04767174,-0.07339969,-0.062653944,-2.0,2.0,-2.0,2.0,2.0,-2.0,2.0,-2.0,-2.0,-2.0,-2.0,-2.0,-2.0,2.0,-2.0,2.0,2.0,-2.0,2.0,-2.0,-2.0,-2.0,-2.0,-2.0
2025-06-09 12:29:42.594,-0.039370857,0.005709205,0.014625945,0.023357062,0.04776034,0.011807332,0.0,0.0,0.0,-0.009216013,-0.13572347,0.33095393,-0.11987797,0.12387275,0.2812262,-0.12584001,0.005294636,-0.32747883,-0.03114394,0.00094548316,-0.33148572,-0.072791934,0.052473642,0.062338218,-0.002065204,0.06935961,-0.022035811,-0.0087962765,-0.053414248,-0.012586436,-0.06298789,-0.051858462,-0.061625626,-0.03377854,-2.0,2.0,-2.0,2.0,2.0,-2.0,2.0,-2.0,-2.0,-2.0,-2.0,-2.0,-2.0,2.0,-2.0,2.0,2.0,-2.0,2.0,-2.0,-2.0,-2.0,-2.0,-2.0
2025-06-09 12:29:42.613,-0.01461548,-0.007162882,-0.0039849468,0.053354733,0.053352952,-0.02366655,0.0,0.0,0.0,-0.009216073,-0.12614366,0.34198856,-0.10475467,0.13209555,0.27903777,-0.13461085,0.009776088,-0.33601642,-0.020751502,-0.012808401,-0.3244169,-0.07346221,0.018972917,-0.010310244,0.056541428,-0.07022284,-0.06800527,-0.022540396,-0.008381959,0.070147686,-0.054920856,-0.062789336,0.05817123,0.06416369,-2.0,2.0,-2.0,2.0,2.0,-2.0,2.0,-2.0,-2.0,-2.0,-2.0,-2.0,-2.0,2.0,-2.0,2.0,2.0,-2.0,2.0,-2.0,-2.0,-2.0,-2.0,-2.0
2025-06-09 12:29:42.635,-0.03286305,0.037200905,-0.039240222,0.000833516,0.040077675,0.046975337,0.0,0.0,0.0,-0.00921612,-0.13297842,0.34996113,-0.11109675,0.12509777,0.26979256,-0.11752515,0.019910494,-0.33914632,-0.032037023,-0.014810456,-0.33730528,-0.069191575,0.0723341,-0.024532791,-0.036699306,-0.020228222,0.02166698,0.052587483,0.052984446,0.0071473476,0.0014234558,-0.012890789,-0.0056626806,0.06741646,-2.0,2.0,-2.0,2.0,2.0,-2.0,2.0,-2.0,-2.0,-2.0,-2.0,-2.0,-2.0,2.0,-2.0,2.0,2.0,-2.0,2.0,-2.0,-2.0,-2.0,-2.0,-2.0
2025-06-09 12:29:42.654,0.046735566,0.0082031395,-0.04242668,0.010695631,-0.013832705,-0.036366653,0.0,0.0,0.0,-0.009216153,-0.12737517,0.33284912,-0.11642845,0.118608885,0.2778946,-0.11896951,0.0033620829,-0.34344319,-0.03541056,-0.009177411,-0.330367,-0.076048695,-0.0016934719,-0.0026325851,-0.061284613,0.06009351,-0.03180777,-0.011591694,-0.01345904,0.004199808,-0.026080823,-0.03656202,0.021955311,-0.049421925,-2.0,2.0,-2.0,2.0,2.0,-2.0,2.0,-2.0,-2.0,-2.0,-2.0,-2.0,-2.0,2.0,-2.0,2.0,2.0,-2.0,2.0,-2.0,-2.0,-2.0,-2.0,-2.0
2025-06-09 12:29:42.675,0.016598068,0.023446117,0.001770596,0.049277116,0.031613257,0.044815104,0.0,0.0,0.0,-0.009216175,-0.121663675,0.33627427,-0.1103991,0.12325444,0.27948415,-0.12740621,0.009737327,-0.33245063,-0.025348717,-0.00956488,-0.322695,-0.07319707,-0.0004382646,0.006557933,-0.029471012,-0.054162692,0.0056690085,0.04197326,-0.04653071,-0.062868625,-0.06911777,0.049857646,-0.03559246,0.051374264,-2.0,2.0,-2.0,2.0,2.0,-2.0,2.0,-2.0,-2.0,-2.0,-2.0,-2.0,-2.0,2.0,-2.0,2.0,2.0,-2.0,2.0,-2.0,-2.0,-2.0,-2.0,-2.0
2025-06-09 12:29:42.694,0.020991037,-0.040750667,-0.041854028,0.031234805,0.010228574,-0.039867353,0.0,0.0,0.0,-0.009216186,-0.12189971,0.333256,-0.11856757,0.13711695,0.2784931,-0.12499382,0.017016673,-0.34249187,-0.038029,-0.012685883,-0.32924905,-0.06091765,-0.064236455,-0.04729323,-0.049973235,0.06985591,0.008599962,-0.027595397,0.049860075,-0.038842473,0.04921905,-0.043674335,0.0672082,0.0069942544,-2.0,2.0,-2.0,2.0,2.0,-2.0,2.0,-2.0,-2.0,-2.0,-2.0,-2.0,-2.0,2.0,-2.0,2.0,2.0,-2.0,2.0,-2.0,-2.0,-2.0,-2.0,-2.0
2025-06-09 12:29:42.714,-0.008617875,0.0026715302,0.00744353,0.033761047,0.014491671,-0.027511705,0.0,0.0,0.0,-0.009216187,-0.121559136,0.33500236,-0.11925371,0.13256615,0.28162104,-0.13042398,0.018830642,-0.33214006,-0.02686451,-0.015622109,-0.331231,-0.07199434,-0.061048847,0.052313212,-0.03695867,-0.026566602,-0.037900593,-0.061881065,-0.034274317,0.042102262,0.0051005734,0.028740624,0.0026894582,-0.02708872,-2.0,2.0,-2.0,2.0,2.0,-2.0,2.0,-2.0,-2.0,-2.0,-2.0,-2.0,-2.0,2.0,-2.0,2.0,2.0,-2.0,2.0,-2.0,-2.0,-2.0,-2.0,-2.0
2025-06-09 12:29:42.735,-0.028916398,-0.03294867,-0.016661393,-0.013998306,0.065342814,0.021673812,0.0,0.0,0.0,-0.009216179,-0.12741257,0.33318335,-0.11993508,0.121186435,0.26555023,-0.11644774,0.014885951,-0.33493164,-0.030842228,-0.0044590686,-0.32699755,-0.05711502,-0.055218134,-0.009268096,-0.063857794,-0.04105381,-0.016130544,-0.025311176,0.0500153,-0.013058746,-0.060154185,-0.03380922,-0.020626538,-0.07030447,-2.0,2.0,-2.0,2.0,2.0,-2.0,2.0,-2.0,-2.0,-2.0,-2.0,-2.0,-2.0,2.0,-2.0,2.0,2.0,-2.0,2.0,-2.0,-2.0,-2.0,-2.0,-2.0
2025-06-09 12:29:42.756,0.0076590227,0.049334254,0.011976604,-0.009401275,-0.025738329,-0.049780026,0.0,0.0,0.0,-0.009216166,-0.1315086,0.34891778,-0.10459981,0.13171507,0.26979393,-0.13192645,0.018598182,-0.33971414,-0.02632744,0.0015961396,-0.33532265,-0.0596222,0.04161774,-0.07230438,0.04912855,0.033730287,0.02702171,-0.039443437,0.055547033,-0.009478448,-0.052110076,0.047421098,-0.02694518,-0.017891567,-2.0,2.0,-2.0,2.0,2.0,-2.0,2.0,-2.0,-2.0,-2.0,-2.0,-2.0,-2.0,2.0,-2.0,2.0,2.0,-2.0,2.0,-2.0,-2.0,-2.0,-2.0,-2.0
2025-06-09 12:29:42.774,-0.04591284,0.048924144,-0.029272739,0.0068593035,-0.005832718,-0.0366036,0.0,0.0,0.0,-0.0092161475,-0.1314074,0.3502897,-0.11018342,0.1323133,0.28124958,-0.12774415,0.021596732,-0.32806107,-0.023264734,-0.0014682907,-0.32697603,-0.06439289,-0.054792825,-0.028943693,0.009180446,-0.016762873,-0.073609404,0.05684693,-0.04653712,-0.00230473,-0.0102166375,0.011889071,-0.01354994,0.052895572,-2.0,2.0,-2.0,2.0,2.0,-2.0,2.0,-2.0,-2.0,-2.0,-2.0,-2.0,-2.0,2.0,-2.0,2.0,2.0,-2.0,2.0,-2.0,-2.0,-2.0,-2.0,-2.0
2025-06-09 12:29:42.795,-0.032326084,0.012655369,-0.041839525,0.031615112,-0.025812218,-0.037037835,0.0,0.0,0.0,-0.009216127,-0.13414389,0.33051735,-0.10300699,0.12830311,0.2831498,-0.115781605,0.009844473,-0.3298669,-0.035048373,-0.015961772,-0.33279675,-0.059812777,-0.07267538,-0.05077207,-0.006805887,-0.045442015,-0.015558611,0.0006838814,0.056129344,-0.046133664,0.0671856,0.067817725,0.04095689,0.035741754,-2.0,2.0,-2.0,2.0,2.0,-2.0,2.0,-2.0,-2.0,-2.0,-2.0,-2.0,-2.0,2.0,-2.0,2.0,2.0,-2.0,2.0,-2.0,-2.0,-2.0,-2.0,-2.0
2025-06-09 12:29:42.815,0.03307234,0.006465887,-0.023830075,-0.023530645,0.026945023,0.029217387,0.0,0.0,0.0,-0.009216105,-0.13005571,0.34049743,-0.10599759,0.12749416,0.2741305,-0.1219484,0.019052893,-0.34297493,-0.03195541,-0.0021863708,-0.32090935,-0.06989374,0.016872559,0.029536964,0.043724824,-0.06277444,0.06013396,-0.050000124,0.07012547,-0.007306163,0.03322943,0.020964526,-0.024379954,-0.037587672,-2.0,2.0,-2.0,2.0,2.0,-2.0,2.0,-2.0,-2.0,-2.0,-2.0,-2.0,-2.0,2.0,-2.0,2.0,2.0,-2.0,2.0,-2.0,-2.0,-2.0,-2.0,-2.0
2025-06-09 12:29:42.835,-0.006003158,-0.0057545197,0.046431016,-0.010637015,0.023301156,0.020959906,0.0,0.0,0.0,-0.009216082,-0.13212937,0.34659624,-0.1167182,0.12249961,0.28535715,-0.1248012,0.019488895,-0.3273483,-0.022395443,0.0022034533,-0.3318388,-0.071683,0.009272745,-0.058386084,-0.053545535,-0.009636577,0.05785017,-0.038911,0.06603236,-0.054751895,-0.0020569973,-0.060791053,0.014647316,0.06140711,-2.0,2.0,-2.0,2.0,2.0,-2.0,2.0,-2.0,-2.0,-2.0,-2.0,-2.0,-2.0,2.0,-2.0,2.0,2.0,-2.0,2.0,-2.0,-2.0,-2.0,-2.0,-2.0
2025-06-09 12:29:42.856,0.03498761,-0.013843799,0.045039304,0.060212802,-0.008179002,-0.02609316,0.0,0.0,0.0,-0.009216062,-0.12233813,0.33270296,-0.10285515,0.119529255,0.2776939,-0.1278074,0.010738776,-0.329265,-0.037554555,0.0026957237,-0.3353742,-0.07186641,-0.025599126,0.0419282,-0.06890799,0.03487143,-0.06682546,0.04004403,0.0033431642,0.004072264,0.05330556,-0.011129016,-0.04348389,0.054278076,-2.0,2.0,-2.0,2.0,2.0,-2.0,2.0,-2.0,-2.0,-2.0,-2.0,-2.0,-2.0,2.0,-2.0,2.0,2.0,-2.0,2.0,-2.0,-2.0,-2.0,-2.0,-2.0
2025-06-09 12:29:42.879,0.016001849,-0.0014218331,0.04095441,0.05467197,0.0343895,0.029434605,0.0,0.0,0.0,-0.009216043,-0.12541068,0.33681363,-0.11059823,0.13279809,0.2661988,-0.13329338,0.014787308,-0.3449514,-0.031355035,-0.006732208,-0.32579878,-0.059718046,0.019230193,0.034035534,0.05916125,0.026138753,0.047728788,-0.06338613,-0.050321653,-0.071269594,-0.057448022,-0.016443498,-0.048358966,-0.0073795854,-2.0,2.0,-2.0,2.0,2.0,-2.0,2.0,-2.0,-2.0,-2.0,-2.0,-2.0,-2.0,2.0,-2.0,2.0,2.0,-2.0,2.0,-2.0,-2.0,-2.0,-2.0,-2.0
2025-06-09 12:29:42.899,-0.015303622,0.039119396,0.0030035416,0.0689106,0.018024832,0.0051700715,0.0,0.0,0.0,-0.009216026,-0.121904135,0.33946478,-0.1193433,0.12369899,0.27601334,-0.13424428,0.010985342,-0.34359673,-0.020758683,-0.013350392,-0.32392263,-0.075136624,-0.019232022,-0.06367296,0.007852175,-0.023933975,0.0024281063,0.05817654,0.03036223,0.026492469,0.009447637,0.06030758,0.05482808,0.049650367,-2.0,2.0,-2.0,2.0,2.0,-2.0,2.0,-2.0,-2.0,-2.0,-2.0,-2.0,-2.0,2.0,-2.0,2.0,2.0,-2.0,2.0,-2.0,-2.0,-2.0,-2.0,-2.0
2025-06-09 12:29:42.919,-0.028738275,-0.043976422,0.010242619,-0.015956432,-0.017032705,0.048016466,0.0,0.0,0.0,-0.009216013,-0.12854235,0.33703873,-0.112183265,0.13549815,0.27970308,-0.122387595,0.01848666,-0.33255082,-0.037173096,-0.0021154468,-0.33727795,-0.07028652,-0.032727234,-0.009044779,-0.012229558,-0.047585063,0.0031946662,0.012917439,0.012626918,0.02237414,-0.04464159,-0.012934204,0.022623671,0.039623264,-2.0,2.0,-2.0,2.0,2.0,-2.0,2.0,-2.0,-2.0,-2.0,-2.0,-2.0,-2.0,2.0,-2.0,2.0,2.0,-2.0,2.0,-2.0,-2.0,-2.0,-2.0,-2.0
2025-06-09 12:29:42.941,0.034273565,0.037154425,-0.029673241,-0.019606177,-0.020883517,-0.029503679,0.0,0.0,0.0,-0.009216004,-0.12718119,0.35003856,-0.12168034,0.13146539,0.27263883,-0.12217265,0.0036773593,-0.33026442,-0.027464867,-0.01106232,-0.33759707,-0.067863,0.07344331,-0.021967813,-0.029266337,0.036953464,0.019542776,-0.051330354,-0.024731418,-0.0033421265,0.055938523,-0.0024541696,-0.013254954,-0.06329498,-2.0,2.0,-2.0,2.0,2.0,-2.0,2.0,-2.0,-2.0,-2.0,-2.0,-2.0,-2.0,2.0,-2.0,2.0,2.0,-2.0,2.0,-2.0,-2.0,-2.0,-2.0,-2.0
2025-06-09 12:29:42.961,0.01358455,0.0137578035,-0.03729017,0.046745334,0.022219218,0.036882136,0.0,0.0,0.0,-0.009215997,-0.120430715,0.3440758,-0.11901537,0.13249221,0.27423894,-0.12293794,0.020705748,-0.34354252,-0.035241924,-8.660912e-05,-0.33312497,-0.06390854,0.00084086997,-0.013083986,-0.026968146,-0.026945988,-0.049755473,0.042812917,0.050293628,0.027877461,0.040161658,0.047364756,-0.056921553,-0.010852588,-2.0,2.0,-2.0,2.0,2.0,-2.0,2.0,-2.0,-2.0,-2.0,-2.0,-2.0,-2.0,2.0,-2.0,2.0,2.0,-2.0,2.0,-2.0,-2.0,-2.0,-2.0,-2.0
2025-06-09 12:29:42.981,0.017966952,0.013471447,-0.027280945,0.051310852,0.040516753,-0.021127347,0.0,0.0,0.0,-0.009215993,-0.119402476,0.3402507,-0.11564677,0.12864433,0.2809018,-0.12431108,0.01940427,-0.331961,-0.03391615,-0.014378911,-0.32297322,-0.06409621,-0.032976598,0.06941718,0.0016185393,0.05000763,0.073065236,-0.040976528,0.04586203,-0.041124325,-0.0035832499,0.04231979,0.039962433,0.06843099,-2.0,2.0,-2.0,2.0,2.0,-2.0,2.0,-2.0,-2.0,-2.0,-2.0,-2.0,-2.0,2.0,-2.0,2.0,2.0,-2.0,2.0,-2.0,-2.0,-2.0,-2.0,-2.0
2025-06-09 12:29:43.002,-0.0046585198,-0.042473335,0.0423811,0.008154849,0.035808682,-0.030168733,0.0,0.0,0.0,-0.009215992,-0.117605984,0.34075955,-0.10777266,0.12490383,0.27682334,-0.13403386,0.020500522,-0.33577546,-0.018869223,-0.011828729,-0.32840312,-0.065546185,0.062720336,0.020229015,0.034282085,-0.050615244,0.012961822,0.01717231,-0.025406815,-0.055002984,0.004073679,-0.044172786,-0.06762892,0.0011453608,-2.0,2.0,-2.0,2.0,2.0,-2.0,2.0,-2.0,-2.0,-2.0,-2.0,-2.0,-2.0,2.0,-2.0,2.0,2.0,-2.0,2.0,-2.0,-2.0,-2.0,-2.0,-2.0
2025-06-09 12:29:43.021,-0.018147018,-0.034015495,-0.031704705,-0.023185248,0.03209333,-0.02696714,0.0,0.0,0.0,-0.009215993,-0.117496766,0.33622956,-0.1065371,0.12640011,0.28272235,-0.12114068,0.004167889,-0.33092228,-0.027024074,-0.0012070532,-0.32792324,-0.06099738,-0.053139936,-0.035207868,0.057633054,0.01587357,0.03867603,-0.061180606,-0.06596974,-0.06690333,-0.010360511,0.045111917,0.05558951,-0.06570035,-2.0,2.0,-2.0,2.0,2.0,-2.0,2.0,-2.0,-2.0,-2.0,-2.0,-2.0,-2.0,2.0,-2.0,2.0,2.0,-2.0,2.0,-2.0,-2.0,-2.0,-2.0,-2.0
2025-06-09 12:29:43.041,-0.040188342,-0.0022036342,-0.0424651,0.035954792,0.0032544453,-0.012731579,0.0,0.0,0.0,-0.009215996,-0.119090974,0.34618267,-0.114657894,0.122647546,0.27132547,-0.12588696,0.0110529605,-0.33451858,-0.025891358,-0.010329171,-0.32053155,-0.06898656,-0.021176433,0.054478455,-0.019956231,0.01640163,0.03575068,-0.06970092,0.0016363307,-0.059660863,0.05543878,0.019195242,-0.03465078,-0.051817194,-2.0,2.0,-2.0,2.0,2.0,-2.0,2.0,-2.0,-2.0,-2.0,-2.0,-2.0,-2.0,2.0,-2.0,2.0,2.0,-2.0,2.0,-2.0,-2.0,-2.0,-2.0,-2.0
2025-06-09 12:29:43.062,0.0210667,0.01656727,0.023255369,0.06752557,0.017409902,0.039884742,0.0,0.0,0.0,-0.009216,-0.13586403,0.34816173,-0.10711801,0.13802959,0.26670015,-0.13306943,0.00626094,-0.32764146,-0.031181535,-0.007897614,-0.32675278,-0.06975224,0.025841752,-0.06211933,-0.042724837,0.03777742,0.031917997,0.06663688,-0.07313632,0.037791215,-0.04214472,0.06498259,0.010092173,-0.00060423475,-2.0,2.0,-2.0,2.0,2.0,-2.0,2.0,-2.0,-2.0,-2.0,-2.0,-2.0,-2.0,2.0,-2.0,2.0,2.0,-2.0,2.0,-2.0,-2.0,-2.0,-2.0,-2.0
2025-06-09 12:29:43.082,0.025759226,0.025899913,-0.04692472,0.047942508,0.04059878,-0.037770957,0.0,0.0,0.0,-0.009216005,-0.11748549,0.33556715,-0.119621664,0.124931395,0.28289196,-0.12178713,0.008640933,-0.33255297,-0.036095902,-0.011264301,-0.33724,-0.07189791,-0.06901249,0.054373063,0.030506777,-0.050745726,-0.04823123,-0.04113998,-0.01858689,0.024918804,-0.07370212,-0.05063175,-0.051122803,-0.033441983,-2.0,2.0,-2.0,2.0,2.0,-2.0,2.0,-2.0,-2.0,-2.0,-2.0,-2.0,-2.0,2.0,-2.0,2.0,2.0,-2.0,2.0,-2.0,-2.0,-2.0,-2.0,-2.0
2025-06-09 12:29:43.102,-0.04550518,-0.04035102,0.033241812,0.007421798,-0.005253641,-0.01820641,0.0,0.0,0.0,-0.009216011,-0.13536368,0.33633593,-0.11701774,0.119333275,0.28504962,-0.11700987,0.006853633,-0.3280884,-0.018474424,-0.012929948,-0.3235762,-0.058534153,0.004708677,0.0074803187,0.03078732,0.032706402,-0.041348614,0.071737014,-0.045499504,0.055878103,0.017029379,-0.031635817,-0.03693409,0.06293838,-2.0,2.0,-2.0,2.0,2.0,-2.0,2.0,-2.0,-2.0,-2.0,-2.0,-2.0,-2.0,2.0,-2.0,2.0,2.0,-2.0,2.0,-2.0,-2.0,-2.0,-2.0,-2.0
2025-06-09 12:29:43.122,-0.040146053,0.018901275,-0.03685715,-0.00085098884,-0.022007499,0.023328632,0.0,0.0,0.0,-0.009216016,-0.13481705,0.34467688,-0.10368027,0.11985289,0.28252348,-0.13339627,0.021810459,-0.3316582,-0.020428898,-0.010979365,-0.3241912,-0.074097596,-0.065757215,0.043459076,-0.05110809,0.018795704,0.056281533,-0.07387494,-0.021885073,0.016642224,0.020599114,0.029888254,0.06384672,0.03673434,-2.0,2.0,-2.0,2.0,2.0,-2.0,2.0,-2.0,-2.0,-2.0,-2.0,-2.0,-2.0,2.0,-2.0,2.0,2.0,-2.0,2.0,-2.0,-2.0,-2.0,-2.0,-2.0
2025-06-09 12:29:43.142,-0.009266766,0.04954334,-0.041001145,0.01750635,0.023510033,0.002830341,0.0,0.0,0.0,-0.009216021,-0.12087484,0.34209082,-0.115985624,0.12556218,0.276263,-0.12916505,0.012663681,-0.34457946,-0.020628981,-0.0039899377,-0.3299627,-0.06409336,-0.05452916,0.020658083,0.038954377,0.023946736,0.07007745,0.018599413,0.038038686,-0.027496446,0.05355845,0.009656605,-0.038040504,-0.01421531,-2.0,2.0,-2.0,2.0,2.0,-2.0,2.0,-2.0,-2.0,-2.0,-2.0,-2.0,-2.0,2.0,-2.0,2.0,2.0,-2.0,2.0,-2.0,-2.0,-2.0,-2.0,-2.0
2025-06-09 12:29:43.162,0.049260452,-0.0023067018,0.03939683,0.050560188,0.047430985,-0.013254047,0.0,0.0,0.0,-0.0092160255,-0.12887768,0.33988506,-0.10451593,0.13093977,0.27559537,-0.12263687,0.013864756,-0.33793944,-0.03415519,0.0032147567,-0.33158207,-0.061777007,0.014372425,-0.065353505,0.038924325,0.028047098,-0.06852843,0.05008197,0.06604827,-0.029468756,-0.024064794,0.06423284,0.018347729,-0.027280375,-2.0,2.0,-2.0,2.0,2.0,-2.0,2.0,-2.0,-2.0,-2.0,-2.0,-2.0,-2.0,2.0,-2.0,2.0,2.0,-2.0,2.0,-2.0,-2.0,-2.0,-2.0,-2.0
2025-06-09 12:29:43.185,-0.005836635,0.04028504,0.026905278,0.060714237,0.061961535,-0.0020657151,0.0,0.0,0.0,-0.00921603,-0.1255852,0.3434483,-0.11328979,0.12810728,0.28455853,-0.13116586,0.0075004846,-0.32640606,-0.02415775,-0.008416915,-0.33309236,-0.059250545,0.06607641,-0.01621616,0.05771386,0.061028156,-0.017085575,0.050947513,-0.02462387,0.055611834,-0.038917504,0.015335807,-0.06118635,-0.069937475,-2.0,2.0,-2.0,2.0,2.0,-2.0,2.0,-2.0,-2.0,-2.0,-2.0,-2.0,-2.0,2.0,-2.0,2.0,2.0,-2.0,2.0,-2.0,-2.0,-2.0,-2.0,-2.0
2025-06-09 12:29:43.202,0.028648317,-0.029530162,0.031816732,0.070463434,0.06249526,-0.014232957,0.0,0.0,0.0,-0.009216033,-0.13345158,0.3342002,-0.10642143,0.12004308,0.2813443,-0.11947254,0.0035341538,-0.33935207,-0.02840442,-0.012494964,-0.32967737,-0.056472898,0.04413573,-0.051427335,-0.011961521,-0.0146700535,-0.050670072,-0.03046531,-0.03525769,0.059598397,0.018712237,0.06708299,0.063178115,0.03717021,-2.0,2.0,-2.0,2.0,2.0,-2.0,2.0,-2.0,-2.0,-2.0,-2.0,-2.0,-2.0,2.0,-2.0,2.0,2.0,-2.0,2.0,-2.0,-2.0,-2.0,-2.0,-2.0
2025-06-09 12:29:43.223,0.0046403036,-0.04683127,-0.040666196,0.008181068,0.061469495,-0.012179489,0.0,0.0,0.0,-0.009216036,-0.13068937,0.34981066,-0.11328944,0.12895302,0.26931053,-0.1325435,0.022765461,-0.32804525,-0.02523257,-0.0070395907,-0.32791066,-0.07489153,-0.0015178579,-0.019736929,0.036977734,-0.018680537,0.02538918,-0.004802718,0.046157423,0.041450452,0.049275674,0.020466492,-0.012211488,-0.029100746,-2.0,2.0,-2.0,2.0,2.0,-2.0,2.0,-2.0,-2.0,-2.0,-2.0,-2.0,-2.0,2.0,-2.0,2.0,2.0,-2.0,2.0,-2.0,-2.0,-2.0,-2.0,-2.0
2025-06-09 12:29:43.244,-0.042162087,0.0070024547,-0.002840827,0.022767404,-0.011133966,0.049293425,0.0,0.0,0.0,-0.009216038,-0.1311246,0.33083057,-0.105899975,0.123505175,0.2749424,-0.12994857,0.022537157,-0.3421302,-0.032675967,-0.010280127,-0.32229123,-0.05927849,-0.05606735,-0.031621557,-0.039568424,-0.041654535,0.061574373,-0.009166976,0.017512476,0.034717,-0.018187674,0.01910067,0.056341987,-0.07230744,-2.0,2.0,-2.0,2.0,2.0,-2.0,2.0,-2.0,-2.0,-2.0,-2.0,-2.0,-2.0,2.0,-2.0,2.0,2.0,-2.0,2.0,-2.0,-2.0,-2.0,-2.0,-2.0
2025-06-09 12:29:43.264,0.00084311125,0.01740451,0.00802486,-0.023566129,0.041027218,-0.0044630338,0.0,0.0,0.0,-0.0092160385,-0.12863298,0.3311594,-0.11773121,0.12587442,0.27954605,-0.13455379,0.013135097,-0.3361733,-0.024895342,-0.0041309414,-0.32464558,-0.07527906,0.064657755,-0.06944071,-0.0121688545,-0.027643759,-0.061147384,-0.045963943,-0.04634022,0.012489734,-0.07321212,-0.061137047,0.0019901583,-0.056357283,-2.0,2.0,-2.0,2.0,2.0,-2.0,2.0,-2.0,-2.0,-2.0,-2.0,-2.0,-2.0,2.0,-2.0,2.0,2.0,-2.0,2.0,-2.0,-2.0,-2.0,-2.0,-2.0
2025-06-09 12:29:43.285,-0.011941156,-0.018188022,0.027504936,0.031850673,0.047569994,-0.011945769,0.0,0.0,0.0,-0.0092160385,-0.12727295,0.34343424,-0.113854036,0.12405416,0.2683511,-0.12084502,0.013902239,-0.33862042,-0.021473916,-0.015607898,-0.32796556,-0.067646526,0.070008576,0.02531091,0.01951689,0.021041771,-0.053828612,0.03903291,-0.06555563,0.030718697,0.028909948,-0.026289804,-0.008341859,0.007872167,-2.0,2.0,-2.0,2.0,2.0,-2.0,2.0,-2.0,-2.0,-2.0,-2.0,-2.0,-2.0,2.0,-2.0,2.0,2.0,-2.0,2.0,-2.0,-2.0,-2.0,-2.0,-2.0
2025-06-09 12:29:43.306,-0.03737896,0.025072321,-0.0070304275,0.06901037,0.028881863,0.015747072,0.0,0.0,0.0,-0.0092160385,-0.12883723,0.3495642,-0.11599799,0.12790357,0.26876596,-0.11963736,0.018532097,-0.3349451,-0.028735887,0.00235097,-0.32027605,-0.057571262,-0.0556606,-0.015242131,-0.061306752,-0.027274437,-0.047322776,0.062450845,-0.022413371,-0.072564505,0.03492039,-0.053605232,0.03555963,0.067777626,-2.0,2.0,-2.0,2.0,2.0,-2.0,2.0,-2.0,-2.0,-2.0,-2.0,-2.0,-2.0,2.0,-2.0,2.0,2.0,-2.0,2.0,-2.0,-2.0,-2.0,-2.0,-2.0
2025-06-09 12:29:43.326,0.026032476,0.011085738,0.010974133,0.025642501,0.0101559,-0.035087064,0.0,0.0,0.0,-0.009216038,-0.13312814,0.35000834,-0.11988472,0.13394201,0.2763589,-0.12717208,0.017779157,-0.3259898,-0.036999892,-0.00014292134,-0.33475286,-0.07068716,0.020940965,-0.009681193,0.073059015,-0.010665409,-0.00378564,0.047806565,-0.017955843,0.06629705,-0.026343284,0.0029677171,-0.018359616,-0.071631745,-2.0,2.0,-2.0,2.0,2.0,-2.0,2.0,-2.0,-2.0,-2.0,-2.0,-2.0,-2.0,2.0,-2.0,2.0,2.0,-2.0,2.0,-2.0,-2.0,-2.0,-2.0,-2.0
2025-06-09 12:29:43.346,-0.037984386,0.009388266,-0.042077575,0.02648144,0.010842145,-0.027634604,0.0,0.0,0.0,-0.009216037,-0.11868108,0.3444358,-0.11396739,0.118988775,0.27225637,-0.13322754,0.011232074,-0.33948523,-0.03337618,-0.0049639395,-0.33568725,-0.07552429,0.024090251,-0.022453476,0.0505965,-0.011249861,-0.052043613,0.023474066,0.008090065,0.044422682,-0.010254706,-0.07253931,0.018225953,-0.018517075,-2.0,2.0,-2.0,2.0,2.0,-2.0,2.0,-2.0,-2.0,-2.0,-2.0,-2.0,-2.0,2.0,-2.0,2.0,2.0,-2.0,2.0,-2.0,-2.0,-2.0,-2.0,-2.0
2025-06-09 12:29:43.369,0.012323755,0.022857843,-0.024025856,0.016652368,0.015047032,-0.011515693,0.0,0.0,0.0,-0.009216035,-0.12849258,0.33458173,-0.12050788,0.13757277,0.2690221,-0.12791748,0.015965533,-0.32714725,-0.029084783,-0.011823927,-0.3360465,-0.06554263,-0.06459519,0.06052694,0.0056243744,-0.017032834,0.030195154,-0.034859948,-0.013080124,-0.011590253,0.049705733,0.0070370496,0.004752661,0.024764169,-2.0,2.0,-2.0,2.0,2.0,-2.0,2.0,-2.0,-2.0,-2.0,-2.0,-2.0,-2.0,2.0,-2.0,2.0,2.0,-2.0,2.0,-2.0,-2.0,-2.0,-2.0,-2.0
2025-06-09 12:29:43.386,-0.004113507,-0.041550826,-0.028958756,-0.017826948,0.01017716,-0.03566694,0.0,0.0,0.0,-0.009216034,-0.13658723,0.3394439,-0.11108228,0.12939061,0.2815639,-0.12060478,0.014460963,-0.3394685,-0.025889453,0.0030210698,-0.32720274,-0.06872971,0.027759869,0.034217253,0.07376537,-0.055229347,0.021468755,0.027180597,-0.025286268,-0.04384317,0.0115296645,0.047702875,-0.035157137,0.061054945,-2.0,2.0,-2.0,2.0,2.0,-2.0,2.0,-2.0,-2.0,-2.0,-2.0,-2.0,-2.0,2.0,-2.0,2.0,2.0,-2.0,2.0,-2.0,-2.0,-2.0,-2.0,-2.0
2025-06-09 12:29:43.406,-0.009832762,-0.005049701,0.018269647,0.048642643,-0.011466404,-0.043101855,0.0,0.0,0.0,-0.009216032,-0.12960215,0.3432625,-0.10954599,0.13517357,0.26781344,-0.12453457,0.00855641,-0.33531588,-0.029118307,-0.003740241,-0.3240314,-0.06301421,0.041628964,-0.016431326,0.027224166,-0.06350995,0.009395546,0.048386548,0.05706291,-0.006297734,-0.0051555163,-0.051475074,-0.03553709,0.0060784747,-2.0,2.0,-2.0,2.0,2.0,-2.0,2.0,-2.0,-2.0,-2.0,-2.0,-2.0,-2.0,2.0,-2.0,2.0,2.0,-2.0,2.0,-2.0,-2.0,-2.0,-2.0,-2.0
2025-06-09 12:29:43.427,-0.03467903,0.04217778,0.04306736,0.04523849,-0.03140283,-0.0097142095,0.0,0.0,0.0,-0.009216031,-0.11973094,0.33485904,-0.12005688,0.1377761,0.27334213,-0.12922613,0.019975204,-0.33358034,-0.019304873,-0.009385173,-0.3201589,-0.06927963,0.015976762,0.04433243,0.003502291,0.05286723,-0.002851286,-0.062240563,-0.058939204,0.008591809,0.035817884,-0.048861176,-0.05659357,-0.07432695,-2.0,2.0,-2.0,2.0,2.0,-2.0,2.0,-2.0,-2.0,-2.0,-2.0,-2.0,-2.0,2.0,-2.0,2.0,2.0,-2.0,2.0,-2.0,-2.0,-2.0,-2.0,-2.0
2025-06-09 12:29:43.446,-0.008261471,-0.048897333,-0.025920654,-0.025579149,0.021129891,0.0003319201,0.0,0.0,0.0,-0.009216029,-0.11732731,0.34599274,-0.113816604,0.12667136,0.27854407,-0.13109869,0.013093888,-0.32536605,-0.03595859,-0.008775512,-0.3360585,-0.07126347,0.037197564,0.07079353,0.029232413,0.043784022,-0.0101968115,0.059687946,-0.0318049,0.018333955,0.055510007,0.05359499,-0.028177395,0.013939159,-2.0,2.0,-2.0,2.0,2.0,-2.0,2.0,-2.0,-2.0,-2.0,-2.0,-2.0,-2.0,2.0,-2.0,2.0,2.0,-2.0,2.0,-2.0,-2.0,-2.0,-2.0,-2.0
2025-06-09 12:29:43.469,0.0014785647,-0.023074826,0.008201643,0.04456213,-0.022184491,0.0072500804,0.0,0.0,0.0,-0.009216028,-0.124832466,0.33748114,-0.119767,0.13396038,0.26622158,-0.120087415,0.010582463,-0.335764,-0.029144231,0.00094555033,-0.32916206,-0.07317553,0.04173162,0.06946155,-0.0077670603,-0.07376348,-0.071328536,-0.06915259,0.07047579,0.04471633,-0.006885766,-0.010542625,0.027805636,-0.027667433,-2.0,2.0,-2.0,2.0,2.0,-2.0,2.0,-2.0,-2.0,-2.0,-2.0,-2.0,-2.0,2.0,-2.0,2.0,2.0,-2.0,2.0,-2.0,-2.0,-2.0,-2.0,-2.0
2025-06-09 12:29:43.487,0.027142733,-0.04803622,0.018567204,0.05314626,-0.0018001443,0.019494802,0.0,0.0,0.0,-0.009216027,-0.12895206,0.33793753,-0.11334599,0.13399209,0.2675197,-0.12486923,0.0191736,-0.3367694,-0.037059214,0.0016657123,-0.31879807,-0.06548206,0.027172241,-0.061772324,0.06351705,-0.021419333,-0.008249699,-0.032915726,-0.05236091,-0.053685963,0.05164758,0.047257513,0.010232721,0.06552257,-2.0,2.0,-2.0,2.0,2.0,-2.0,2.0,-2.0,-2.0,-2.0,-2.0,-2.0,-2.0,2.0,-2.0,2.0,2.0,-2.0,2.0,-2.0,-2.0,-2.0,-2.0,-2.0
2025-06-09 12:29:43.507,-0.0038920194,-0.0030665735,0.039526425,0.015608692,0.028227603,-0.04084429,0.0,0.0,0.0,-0.009216027,-0.1296978,0.3429994,-0.11339903,0.1262995,0.27199724,-0.13191144,0.021535454,-0.33158898,-0.035457153,-0.005694812,-0.32306927,-0.06232871,-0.011437033,-0.013330092,-0.06099281,-0.020890323,-0.027521424,0.04402259,-0.03536436,-0.061865617,0.029108698,0.07073108,0.030405851,-0.025690049,-2.0,2.0,-2.0,2.0,2.0,-2.0,2.0,-2.0,-2.0,-2.0,-2.0,-2.0,-2.0,2.0,-2.0,2.0,2.0,-2.0,2.0,-2.0,-2.0,-2.0,-2.0,-2.0
2025-06-09 12:29:43.527,0.033629175,0.027638426,-0.045906447,0.06974285,0.04786041,-0.03455092,0.0,0.0,0.0,-0.009216026,-0.11862747,0.33106908,-0.11504297,0.12470759,0.2686298,-0.12538534,0.012109654,-0.34165105,-0.03138056,-0.013965189,-0.33554274,-0.06710721,-0.025433365,0.06602372,0.0029288973,0.027854605,0.039553214,-0.013317287,-0.032901928,0.06329928,-0.015861228,-0.018169632,-0.037582666,-0.025383586,-2.0,2.0,-2.0,2.0,2.0,-2.0,2.0,-2.0,-2.0,-2.0,-2.0,-2.0,-2.0,2.0,-2.0,2.0,2.0,-2.0,2.0,-2.0,-2.0,-2.0,-2.0,-2.0
2025-06-09 12:29:43.547,0.005355079,-0.004810727,-0.029376388,0.05097111,-0.0060793203,-0.039414268,0.0,0.0,0.0,-0.009216026,-0.118971996,0.34383857,-0.10881724,0.12487779,0.28537083,-0.12629963,0.008007859,-0.3397796,-0.028367862,-0.007199423,-0.33007416,-0.06469461,-0.03929183,0.017344251,-0.03416835,0.0700908,-0.068586856,-0.03108571,0.059525304,-0.05426785,0.014605493,0.062575705,0.056263823,0.0574336,-2.0,2.0,-2.0,2.0,2.0,-2.0,2.0,-2.0,-2.0,-2.0,-2.0,-2.0,-2.0,2.0,-2.0,2.0,2.0,-2.0,2.0,-2.0,-2.0,-2.0,-2.0,-2.0
2025-06-09 12:29:43.569,0.025781434,0.011082832,-0.03123405,-0.015921237,0.028302483,-0.0106513705,0.0,0.0,0.0,-0.009216026,-0.123381965,0.33750972,-0.102356955,0.13318,0.2717408,-0.13131306,0.009247075,-0.34179583,-0.02350988,-0.008751849,-0.32895404,-0.073875844,-0.017808344,0.04991148,-0.019782942,-0.06574118,-0.02194362,0.013676301,-0.020764032,0.0651816,0.052270953,-0.04254386,-0.053404927,-0.03920389,-2.0,2.0,-2.0,2.0,2.0,-2.0,2.0,-2.0,-2.0,-2.0,-2.0,-2.0,-2.0,2.0,-2.0,2.0,2.0,-2.0,2.0,-2.0,-2.0,-2.0,-2.0,-2.0
2025-06-09 12:29:43.587,-0.018635109,-0.04764706,0.04650543,0.038739253,0.05075979,-0.031200424,0.0,0.0,0.0,-0.009216026,-0.13527986,0.34347075,-0.12111302,0.13366342,0.28223148,-0.1200569,0.005680812,-0.32588455,-0.020479988,-0.010675249,-0.33340243,-0.07508201,0.05651779,-0.014731741,-0.052620582,-0.018227024,-0.0035010034,0.058764186,-0.009297496,-0.0063629793,0.053845126,-0.06207733,0.023931509,0.045525286,-2.0,2.0,-2.0,2.0,2.0,-2.0,2.0,-2.0,-2.0,-2.0,-2.0,-2.0,-2.0,2.0,-2.0,2.0,2.0,-2.0,2.0,-2.0,-2.0,-2.0,-2.0,-2.0
2025-06-09 12:29:43.607,0.03675885,0.0452013,-0.013036842,-0.0029865562,0.0659061,0.013699901,0.0,0.0,0.0,-0.009216027,-0.13149256,0.33739847,-0.112689234,0.1195172,0.27884594,-0.12765515,0.022244323,-0.33218473,-0.034613375,-0.0069997045,-0.3195727,-0.0755075,-0.014278293,-0.016539725,0.06278898,-0.07369098,-0.0069699637,0.06967591,0.0017290781,-0.055934973,-0.069667384,0.0365368,0.046128996,0.0021098775,-2.0,2.0,-2.0,2.0,2.0,-2.0,2.0,-2.0,-2.0,-2.0,-2.0,-2.0,-2.0,2.0,-2.0,2.0,2.0,-2.0,2.0,-2.0,-2.0,-2.0,-2.0,-2.0
2025-06-09 12:29:43.627,0.019355915,0.04525198,0.0008710345,0.0029524607,0.039447248,0.0484949,0.0,0.0,0.0,-0.009216027,-0.1234615,0.33288336,-0.108648166,0.124742225,0.2839337,-0.12987715,0.0062626363,-0.34304968,-0.030461146,-0.004811554,-0.3276831,-0.06178914,0.001644718,-0.06633655,0.01761936,0.0572366,-0.021202328,0.06221167,-0.055575512,-0.06721353,-0.055313155,0.039638005,-0.052743204,-0.07232387,-2.0,2.0,-2.0,2.0,2.0,-2.0,2.0,-2.0,-2.0,-2.0,-2.0,-2.0,-2.0,2.0,-2.0,2.0,2.0,-2.0,2.0,-2.0,-2.0,-2.0,-2.0,-2.0
2025-06-09 12:29:43.647,-0.04333291,-0.005510827,-0.014230548,0.010794451,0.06578263,-0.043969583,0.0,0.0,0.0,-0.009216028,-0.12496529,0.33282822,-0.103390634,0.12624538,0.28045297,-0.12648858,0.015592739,-0.34164822,-0.024043908,-0.008431689,-0.33256963,-0.06257488,-0.068044156,-0.027603496,-0.06955211,0.052751023,-0.027781587,-0.049212687,-0.03718286,0.04591958,0.022555225,0.07330773,-0.054694604,-0.014504076,-2.0,2.0,-2.0,2.0,2.0,-2.0,2.0,-2.0,-2.0,-2.0,-2.0,-2.0,-2.0,2.0,-2.0,2.0,2.0,-2.0,2.0,-2.0,-2.0,-2.0,-2.0,-2.0
2025-06-09 12:29:43.669,-0.010067392,0.012673555,-0.04177116,-0.020754034,0.0038391303,0.022772385,0.0,0.0,0.0,-0.009216028,-0.12177665,0.3452702,-0.10342589,0.12394117,0.27367702,-0.11805931,0.021554984,-0.33583924,-0.03730669,-0.015568739,-0.3363596,-0.06931541,0.055862393,0.0048768227,0.016540667,0.047164883,-0.04559825,0.06257925,0.014046097,0.04152282,0.015048489,0.039731033,0.008528247,0.06526815,-2.0,2.0,-2.0,2.0,2.0,-2.0,2.0,-2.0,-2.0,-2.0,-2.0,-2.0,-2.0,2.0,-2.0,2.0,2.0,-2.0,2.0,-2.0,-2.0,-2.0,-2.0,-2.0
2025-06-09 12:29:43.687,0.0016949049,-0.04491472,0.006732344,-0.015779134,0.05344159,-0.01546421,0.0,0.0,0.0,-0.009216029,-0.12665805,0.3414847,-0.109319106,0.1321781,0.2842516,-0.11597766,0.016043928,-0.336912,-0.020963263,-0.012243044,-0.33019578,-0.06431817,-0.0011394778,-0.029648976,0.021649031,0.055638988,0.010325308,0.05350048,0.030187093,0.038044963,-0.030532248,-0.022033298,-0.056498352,-0.014510212,-2.0,2.0,-2.0,2.0,2.0,-2.0,2.0,-2.0,-2.0,-2.0,-2.0,-2.0,-2.0,2.0,-2.0,2.0,2.0,-2.0,2.0,-2.0,-2.0,-2.0,-2.0,-2.0
2025-06-09 12:29:43.707,-0.023257269,-0.031398166,-0.040675018,0.06757998,0.059238244,0.043456864,0.0,0.0,0.0,-0.009216029,-0.12974595,0.33682698,-0.1029352,0.13000563,0.2741322,-0.117983446,0.020577218,-0.32973924,-0.03410493,0.0013622355,-0.3339388,-0.057087608,0.038431134,0.032795463,0.011386816,0.032060727,0.07407732,0.019714044,-0.043069668,0.02423244,-0.042547822,-0.0063171517,0.04392595,-0.008591854,-2.0,2.0,-2.0,2.0,2.0,-2.0,2.0,-2.0,-2.0,-2.0,-2.0,-2.0,-2.0,2.0,-2.0,2.0,2.0,-2.0,2.0,-2.0,-2.0,-2.0,-2.0,-2.0
2025-06-09 12:29:43.727,-0.033339504,0.043863025,-0.046483632,0.010263989,-0.018718284,-0.028950196,0.0,0.0,0.0,-0.00921603,-0.11933575,0.3457439,-0.108604126,0.13215666,0.26672202,-0.13001363,0.020639798,-0.33859295,-0.03397923,0.0018736557,-0.31907025,-0.06606307,-0.045168944,-0.021734886,-0.046710387,0.0067539113,0.019257868,0.034542434,-0.027095191,0.056282062,0.04485709,-0.06920736,0.04041025,0.049140338,-2.0,2.0,-2.0,2.0,2.0,-2.0,2.0,-2.0,-2.0,-2.0,-2.0,-2.0,-2.0,2.0,-2.0,2.0,2.0,-2.0,2.0,-2.0,-2.0,-2.0,-2.0,-2.0
2025-06-09 12:29:43.747,-0.048381757,-0.046667237,0.035515096,0.048539747,-0.0026257443,0.04555119,0.0,0.0,0.0,-0.00921603,-0.12016839,0.3490928,-0.11061059,0.13358662,0.26626965,-0.118027054,0.01376678,-0.33293492,-0.03742388,-0.009270573,-0.3379005,-0.065868795,0.018910987,0.035038777,0.032192435,0.027455125,0.055810757,-0.0121433595,0.026393242,0.039993454,0.032806747,-0.06637918,-0.050171304,0.054401096,-2.0,2.0,-2.0,2.0,2.0,-2.0,2.0,-2.0,-2.0,-2.0,-2.0,-2.0,-2.0,2.0,-2.0,2.0,2.0,-2.0,2.0,-2.0,-2.0,-2.0,-2.0,-2.0
2025-06-09 12:29:43.769,0.034810886,-0.03583314,-0.018349316,0.052789167,-0.028871037,0.017889526,0.0,0.0,0.0,-0.00921603,-0.12626536,0.34885216,-0.12005924,0.12200209,0.27170888,-0.1284596,0.01647815,-0.34091184,-0.02249278,-0.0039932937,-0.32238352,-0.073034,0.049869247,-0.015967283,-0.03900545,-0.017946221,0.06329989,0.05535438,-0.038331084,-0.05589697,-0.056494903,0.02082084,0.00552219,0.024525205,-2.0,2.0,-2.0,2.0,2.0,-2.0,2.0,-2.0,-2.0,-2.0,-2.0,-2.0,-2.0,2.0,-2.0,2.0,2.0,-2.0,2.0,-2.0,-2.0,-2.0,-2.0,-2.0
2025-06-09 12:29:43.788,-0.0045385608,-0.039397758,0.011498472,0.0134205,-0.0034968678,0.035751503,0.0,0.0,0.0,-0.00921603,-0.11816155,0.34755844,-0.10661509,0.12825577,0.27155438,-0.12424011,0.0056298734,-0.33420965,-0.025676088,-0.003700406,-0.32936215,-0.057979517,-0.026068086,-0.025823174,-0.003758791,0.006152611,0.009146027,-0.0071548256,-0.014035592,-0.036091432,0.02510085,-0.029850928,0.0029423048,0.06597766,-2.0,2.0,-2.0,2.0,2.0,-2.0,2.0,-2.0,-2.0,-2.0,-2.0,-2.0,-2.0,2.0,-2.0,2.0,2.0,-2.0,2.0,-2.0,-2.0,-2.0,-2.0,-2.0
2025-06-09 12:29:43.808,-0.0007145571,-0.012064655,0.002875664,0.036470678,0.047878556,-0.015496606,0.0,0.0,0.0,-0.00921603,-0.11893702,0.34519264,-0.11300162,0.13026552,0.2753329,-0.13232645,0.022662925,-0.3382895,-0.023920164,-0.0029501873,-0.32489115,-0.066599004,-0.028644368,-0.044240672,0.039136227,-0.050584015,-0.030155836,0.00856277,-0.0526198,0.011290439,0.056446195,0.023381347,0.0074534756,-0.06465087,-2.0,2.0,-2.0,2.0,2.0,-2.0,2.0,-2.0,-2.0,-2.0,-2.0,-2.0,-2.0,2.0,-2.0,2.0,2.0,-2.0,2.0,-2.0,-2.0,-2.0,-2.0,-2.0
2025-06-09 12:29:43.828,0.04907665,-0.033912495,-0.03462269,-0.024671508,0.05995773,0.047817226,0.0,0.0,0.0,-0.00921603,-0.1269414,0.33703768,-0.10784445,0.13771518,0.2845814,-0.12326834,0.004681087,-0.33570313,-0.034923676,0.0034227362,-0.3370463,-0.06987437,0.020954344,0.0011744585,-0.02913407,0.059998136,0.036174975,-0.060325194,-0.07181811,0.0008800705,-0.06231867,-0.06770546,-0.05286887,0.028767023,-2.0,2.0,-2.0,2.0,2.0,-2.0,2.0,-2.0,-2.0,-2.0,-2.0,-2.0,-2.0,2.0,-2.0,2.0,2.0,-2.0,2.0,-2.0,-2.0,-2.0,-2.0,-2.0
