openverse-orca/OrcaGym/log/simulation_log_20250606_141200.csv
timestamp,imu_angle_roll,imu_angle_pitch,imu_angle_yaw,imu_angular_velocity_roll,imu_angular_velocity_pitch,imu_angular_velocity_yaw,imu_acc_x,imu_acc_y,imu_acc_z,fl_joint1_pos,fl_joint1_vel,fl_joint1_torque,fl_joint2_pos,fl_joint2_vel,fl_joint2_torque,fl_joint3_pos,fl_joint3_vel,fl_joint3_torque,fr_joint1_pos,fr_joint1_vel,fr_joint1_torque,fr_joint2_pos,fr_joint2_vel,fr_joint2_torque,fr_joint3_pos,fr_joint3_vel,fr_joint3_torque,hl_joint1_pos,hl_joint1_vel,hl_joint1_torque,hl_joint2_pos,hl_joint2_vel,hl_joint2_torque,hl_joint3_pos,hl_joint3_vel,hl_joint3_torque,hr_joint1_pos,hr_joint1_vel,hr_joint1_torque,hr_joint2_pos,hr_joint2_vel,hr_joint2_torque,hr_joint3_pos,hr_joint3_vel,hr_joint3_torque,fl_force_x,fl_force_y,fl_force_z,fr_force_x,fr_force_y,fr_force_z,hl_force_x,hl_force_y,hl_force_z,hr_force_x,hr_force_y,hr_force_z,fl_hip_action,fl_thigh_action,fl_calf_action,fr_hip_action,fr_thigh_action,fr_calf_action,hl_hip_action,hl_thigh_action,hl_calf_action,hr_hip_action,hr_thigh_action,hr_calf_action
2025-06-06 14:12:00.306,-0.016910555,-0.01815844,0.037982605,0.045807224,-0.0044893064,-0.04408453,2.9428117,1.0886066,0.0,0.0,0.0050830925,-0.008577042,0.0020824845,-0.0045205355,8.503256e-05,0.006118009,-0.0048532514,0.008985717,0.0007200887,-0.0028110864,-0.0015945033,-0.006396424,0.0502758,-0.035811987,-0.03756219,-0.023741841,-0.06709592,0.018462287,-0.071050055,-0.04420155,0.057477713,-0.06923546,0.036633402,-0.017580647,0.0,0.0,0.0,0.0,0.0,0.0,0.0,0.0,0.0,0.0,0.0,0.0,-3.0,-0.04646963,3.0,-1.0693516,-0.9553344,-0.18686691,3.0,-1.5909339,3.0,-3.0,-2.0488224,0.22389314
2025-06-06 14:12:00.310,-0.17453472,-0.034710024,0.011294365,0.020144999,0.011165998,-0.04629259,0.0,0.0,0.0,0.0,-0.021880114,-0.008247674,0.06306554,-0.007496193,-0.044849105,-0.00010135868,0.015043034,-0.07256957,0.08475852,-0.023586975,-0.069028184,0.012858694,-0.009491737,0.025980959,0.2103434,-0.06674285,-0.15602161,0.046839632,0.039828658,-0.2416968,0.17462936,-0.09337108,-0.22619522,0.008422268,-3.0,-0.04646963,3.0,-1.0693516,-0.9553344,-0.18686691,3.0,-1.5909339,3.0,-3.0,-2.0488224,0.22389314,-3.0,0.022275297,1.6205477,0.21378198,1.0479655,-3.0,3.0,-2.5396926,-3.0,-3.0,-1.5221002,3.0
2025-06-06 14:12:00.330,-0.09156345,-0.006816039,-0.02178345,0.023151195,0.02629181,0.0020094388,0.0,0.0,0.0,-0.00024772075,-0.056051288,-0.013592282,0.12571093,-0.010625962,-0.013030193,-0.08779045,0.055844937,-0.16181578,0.02318025,-0.07091754,-0.15596817,0.09142253,-0.1098696,-0.009997344,0.04812694,0.08992322,0.12936662,-0.17333575,0.0503193,-0.31672725,-0.20536812,-0.0072153993,-0.17885682,0.24054967,-3.0,0.022275297,1.6205477,0.21378198,1.0479655,-3.0,3.0,-2.5396926,-3.0,-3.0,-1.5221002,3.0,-3.0,1.0801718,0.25821245,3.0,1.6120521,-3.0,3.0,-3.0,-3.0,-3.0,-2.4327302,3.0
2025-06-06 14:12:00.350,-0.09518649,-0.13513066,-0.038270414,-0.030752463,0.0011444278,-0.025191262,0.0,0.0,0.0,0.0001694362,-0.07371286,0.03766492,0.09943973,0.009886577,-0.005628215,-0.11554368,0.074851476,-0.2644681,-0.031194424,-0.08058049,-0.25322977,0.16626477,-0.066468716,0.11976138,-0.1479514,0.017264688,0.043898236,0.046521593,0.021278698,-0.2241951,0.089250915,0.009627324,-0.22449492,0.2178226,-3.0,1.0801718,0.25821245,3.0,1.6120521,-3.0,3.0,-3.0,-3.0,-3.0,-2.4327302,3.0,-3.0,0.55823386,-3.0,3.0,2.9221191,-3.0,3.0,-3.0,-3.0,-3.0,-3.0,3.0
2025-06-06 14:12:00.372,-0.076192684,-0.13782437,-0.056518096,-0.0076120286,-0.055892356,-0.04654706,0.0,0.0,0.0,0.000645705,-0.08569492,0.08675092,0.0038356707,0.024539042,-0.010160357,-0.10901373,0.08269044,-0.33639354,0.00572409,-0.11232814,-0.35184288,0.20715535,0.029400365,0.13328815,-0.2538703,-0.016359812,-0.06351284,0.038516317,0.10742102,-0.09669846,0.09714977,-0.12638004,-0.27356553,0.04613397,-3.0,0.55823386,-3.0,3.0,2.9221191,-3.0,3.0,-3.0,-3.0,-3.0,-3.0,3.0,-3.0,0.73631936,-3.0,3.0,3.0,-3.0,3.0,-2.4249992,-3.0,-3.0,-2.8292503,-3.0
2025-06-06 14:12:00.390,-0.08886064,-0.030154131,-0.048818644,-0.03234666,-0.008392596,0.011257379,0.0,0.0,0.0,0.0016225982,-0.08402053,0.11236119,-0.102891415,0.03536129,0.0057571656,-0.094746955,0.104553744,-0.37364566,0.04822766,-0.13138984,-0.40748337,0.10053569,0.00750669,0.088082395,-0.09998761,0.035052083,0.06065939,-0.019741068,0.07051892,-0.080881685,0.108464584,-0.04670932,-0.053695675,-0.3640419,-3.0,0.73631936,-3.0,3.0,3.0,-3.0,3.0,-2.4249992,-3.0,-3.0,-2.8292503,-3.0,-3.0,1.7909791,-3.0,3.0,2.7128901,-3.0,3.0,-3.0,-3.0,-3.0,-3.0,-3.0
2025-06-06 14:12:00.411,-0.03262259,-0.083350495,-0.093860686,-0.011158773,-0.023685476,0.004498801,0.0,0.0,0.0,0.0029668892,-0.09164294,0.11729703,-0.1151902,0.06150309,0.043136906,-0.115694575,0.12152042,-0.39402843,0.05994155,-0.13014337,-0.45438203,-0.024038594,0.04628143,-0.015136459,-0.05689154,0.09371527,0.10710728,-0.01643716,0.08078154,-0.0153515395,0.01528903,-0.05934542,-0.08297729,-0.22103532,-3.0,1.7909791,-3.0,3.0,2.7128901,-3.0,3.0,-3.0,-3.0,-3.0,-3.0,-3.0,-3.0,2.0552378,-3.0,3.0,1.583263,-3.0,2.8687656,-3.0,-3.0,-3.0,-3.0,-3.0
2025-06-06 14:12:00.430,-0.043897007,-0.1435159,-0.041890215,-4.9295963e-05,-0.048597705,-0.03220205,0.0,0.0,0.0,0.0047693434,-0.09292863,0.1362198,-0.15806863,0.06711082,0.08464035,-0.1438643,0.13632485,-0.39289328,0.03618425,-0.12052645,-0.4747655,-0.08217573,-0.07566372,0.012605466,-0.07601934,-0.011829834,0.030461775,-0.14405541,-0.020580474,-0.0656526,-0.030864174,-0.0022246395,-0.04833548,-0.19546582,-3.0,2.0552378,-3.0,3.0,1.583263,-3.0,2.8687656,-3.0,-3.0,-3.0,-3.0,-3.0,-3.0,1.7712997,-3.0,3.0,1.8446306,-3.0,2.9131021,-3.0,-0.81608194,-3.0,-3.0,-3.0
2025-06-06 14:12:00.451,-0.1598404,-0.112894416,-0.057244677,-0.0096539315,-0.06400478,-0.031603407,0.0,0.0,0.0,0.00625696,-0.08393124,0.16374265,-0.17697577,0.08140613,0.11602264,-0.18923678,0.14523284,-0.42495984,0.046678666,-0.12609549,-0.51278293,-0.16115476,-0.044080626,0.115076564,-0.10401634,0.08912897,0.13189279,-0.15919293,-0.03936375,-0.13793105,0.010565998,-0.036603596,-0.02333888,-0.12570141,-3.0,1.7712997,-3.0,3.0,1.8446306,-3.0,2.9131021,-3.0,-0.81608194,-3.0,-3.0,-3.0,-2.3115842,1.0479698,-3.0,3.0,1.6931087,-3.0,-2.0795612,-3.0,3.0,-3.0,-3.0,-3.0
2025-06-06 14:12:00.472,-0.26940936,-0.19237562,-0.07797612,0.011243925,-0.047916234,-0.03637011,0.0,0.0,0.0,0.007504595,-0.10494388,0.17048608,-0.19947831,0.086180486,0.14969684,-0.22770098,0.10080095,-0.476532,0.09884965,-0.115469396,-0.53248155,-0.21774241,0.048944935,0.053187214,0.018046752,0.08748657,0.097171254,-0.08582807,-0.14002828,-0.040731728,0.20673239,-0.008144912,-0.09284025,-0.14236964,-2.3115842,1.0479698,-3.0,3.0,1.6931087,-3.0,-2.0795612,-3.0,3.0,-3.0,-3.0,-3.0,-1.7401247,2.0335095,-3.0,3.0,2.166269,-3.0,-3.0,-3.0,3.0,-3.0,-3.0,-3.0
2025-06-06 14:12:00.491,-0.131746,-0.17559445,-0.029977068,0.06977909,-0.07562141,-0.034444783,0.0,0.0,0.0,0.008668518,-0.10143446,0.16683078,-0.22301309,0.101361826,0.21460849,-0.26982233,0.035885222,-0.49462906,0.1603221,-0.13008489,-0.5571065,-0.23928681,0.037214473,0.014467848,0.0160993,0.039836995,0.15584984,-0.087783,-0.20273858,-0.05481796,0.12929636,-0.03668122,-0.07857068,0.031884197,-1.7401247,2.0335095,-3.0,3.0,2.166269,-3.0,-3.0,-3.0,3.0,-3.0,-3.0,-3.0,-0.35760614,1.6834397,-3.0,3.0,2.7069001,-3.0,-3.0,-3.0,3.0,-3.0,-3.0,-3.0
2025-06-06 14:12:00.511,-0.042417966,-0.11848421,0.006806793,0.036672235,-0.1304956,0.029526016,0.0,0.0,0.0,0.009543858,-0.09750224,0.18681622,-0.23083048,0.0978589,0.3062405,-0.28607404,-0.021389326,-0.522997,0.22071812,-0.1161377,-0.57466716,-0.22497594,0.02442907,-0.0063705067,-0.056177437,0.06611929,0.1810395,-0.04036323,-0.13556415,-0.046649102,0.14536749,-0.037616845,-0.0471867,0.13769071,-0.35760614,1.6834397,-3.0,3.0,2.7069001,-3.0,-3.0,-3.0,3.0,-3.0,-3.0,-3.0,1.509274,0.83390635,-3.0,3.0,3.0,-3.0,-3.0,-3.0,1.8242908,-3.0,-3.0,-3.0
2025-06-06 14:12:00.531,0.043095686,-0.03604106,0.035093784,0.054049168,-0.10593042,-0.025825504,0.0,0.0,0.0,0.009925116,-0.09099826,0.19529489,-0.21960863,0.11583262,0.38533735,-0.29944697,-0.054639496,-0.5282166,0.23663706,-0.09645839,-0.58518976,-0.19053824,-0.00016904488,0.025203729,0.03683664,-0.027657129,0.20250979,0.02812329,-0.10608878,0.0054591796,0.042309385,0.07419396,-0.017810816,0.04115807,1.509274,0.83390635,-3.0,3.0,3.0,-3.0,-3.0,-3.0,1.8242908,-3.0,-3.0,-3.0,3.0,0.23989975,-3.0,3.0,3.0,-3.0,-3.0,-2.6713974,-1.7144794,-3.0,-2.532095,-3.0
2025-06-06 14:12:00.554,0.20474066,0.0128738005,0.03718824,0.102733836,-0.08267965,0.008418449,0.0,0.0,0.0,0.009735788,-0.06745824,0.17778477,-0.17426966,0.12609977,0.46702757,-0.30205953,-0.07880606,-0.5332132,0.13650215,-0.07825322,-0.60726655,-0.15105253,0.095653884,0.02500748,0.12790583,0.041955143,0.22382484,-0.029356014,0.024703229,0.029641831,-0.3702072,0.10345958,-0.057824157,0.03640987,3.0,0.23989975,-3.0,3.0,3.0,-3.0,-3.0,-2.6713974,-1.7144794,-3.0,-2.532095,-3.0,3.0,-0.009586038,-3.0,3.0,3.0,-3.0,-3.0,-3.0,-3.0,-3.0,-1.8237306,-3.0
2025-06-06 14:12:00.572,0.17174242,0.1371058,-0.041588604,0.06736769,-0.0716126,-0.044092607,0.0,0.0,0.0,0.009187046,-0.055112273,0.17720513,-0.14569965,0.12009261,0.514449,-0.31371206,-0.0820738,-0.5171195,-0.0045356867,-0.061649818,-0.5947239,-0.13575417,-0.024597298,-0.0074390597,0.1717623,0.010119648,0.07106653,0.037815385,0.0345377,-0.082315095,-0.30194446,0.0024241116,0.07524381,0.059258256,3.0,-0.009586038,-3.0,3.0,3.0,-3.0,-3.0,-3.0,-3.0,-3.0,-1.8237306,-3.0,3.0,-0.059975207,-3.0,3.0,3.0,-3.0,-3.0,-3.0,-3.0,-3.0,-2.4574118,-3.0
2025-06-06 14:12:00.591,0.059188858,0.085416384,-0.014279037,0.105272554,-0.13133058,0.0035324835,0.0,0.0,0.0,0.008977213,-0.032858625,0.17859618,-0.09251993,0.12442008,0.5277853,-0.31030306,-0.09051337,-0.54077476,-0.12129749,-0.04586099,-0.5811654,-0.12861411,-0.0005837348,-0.09642945,0.08379137,0.092404105,0.043732785,0.05680551,-0.049692933,-0.077899456,-0.22015442,0.026365189,0.057740197,0.019214896,3.0,-0.059975207,-3.0,3.0,3.0,-3.0,-3.0,-3.0,-3.0,-3.0,-2.4574118,-3.0,3.0,0.07086629,-3.0,3.0,3.0,-3.0,-3.0,-3.0,-3.0,-3.0,-2.4111385,-3.0
2025-06-06 14:12:00.611,-0.04586081,0.12123891,0.0314262,0.08022718,-0.12968707,0.0047760694,0.0,0.0,0.0,0.008937348,-0.030901896,0.17239758,-0.06617502,0.118840575,0.5481113,-0.29904148,-0.10242206,-0.54869807,-0.20256893,-0.027162833,-0.5848908,-0.12122344,-0.0026642003,-0.053515088,0.0935903,-0.04949124,0.045414362,0.063145876,-0.018953562,0.025205849,-0.1705585,0.06479972,-0.010041133,0.014382675,3.0,0.07086629,-3.0,3.0,3.0,-3.0,-3.0,-3.0,-3.0,-3.0,-2.4111385,-3.0,3.0,-0.52241784,-3.0,3.0,3.0,-3.0,-3.0,-3.0,-3.0,-3.0,-2.2216167,-3.0
2025-06-06 14:12:00.631,-0.05524356,0.106587,0.007227297,0.07817149,-0.103052,-0.0011758198,0.0,0.0,0.0,0.009002247,-0.026803136,0.14430559,-0.033388283,0.12977017,0.5402539,-0.28412998,-0.10623024,-0.5518796,-0.24195313,-0.021413727,-0.5861466,-0.11654855,0.007515033,-0.107719205,0.027468916,-0.063106425,-0.0077477717,0.008114659,-0.044591654,-0.03667396,-0.09008393,0.006689881,-0.021119835,0.042820476,3.0,-0.52241784,-3.0,3.0,3.0,-3.0,-3.0,-3.0,-3.0,-3.0,-2.2216167,-3.0,3.0,-0.17666048,-3.0,3.0,3.0,-3.0,-3.0,-3.0,-3.0,-3.0,-2.5076225,-3.0
2025-06-06 14:12:00.655,-0.04117431,0.07208024,0.00045671788,0.026218427,-0.12843718,0.018663855,0.0,0.0,0.0,0.009352778,-0.024291573,0.13099685,-0.020963408,0.1412779,0.5411012,-0.2949886,-0.10046824,-0.56213135,-0.24310568,-0.02270992,-0.5752478,-0.13263786,-0.003831415,-0.09709317,0.09495967,0.030545441,-0.06979301,-0.03977343,-0.011178669,0.013511469,-0.030230766,0.080254786,0.0081358645,-0.07387595,3.0,-0.17666048,-3.0,3.0,3.0,-3.0,-3.0,-3.0,-3.0,-3.0,-2.5076225,-3.0,3.0,0.08107835,-3.0,3.0,3.0,-3.0,-3.0,-3.0,-3.0,-3.0,-2.2896607,-3.0
2025-06-06 14:12:00.672,-0.0380592,0.025115328,0.033636432,0.06278447,-0.120380715,0.028834775,0.0,0.0,0.0,0.009483997,-0.016882967,0.122179724,-0.0073551508,0.13678259,0.53671426,-0.28710315,-0.09980036,-0.5832725,-0.24948362,-0.0097031165,-0.57257026,-0.14891148,-0.043812126,-0.02276594,0.07263197,0.06936528,-0.06961887,0.054234486,0.060098015,0.044369873,-0.08892246,-0.004590886,0.0073317937,-0.10938035,3.0,0.08107835,-3.0,3.0,3.0,-3.0,-3.0,-3.0,-3.0,-3.0,-2.2896607,-3.0,3.0,-0.6012611,-3.0,3.0,3.0,-3.0,-3.0,-3.0,-3.0,-3.0,-2.1244822,-3.0
2025-06-06 14:12:00.691,-0.06811335,0.0142534925,-0.025836168,0.0088883275,-0.09427369,-0.016349005,0.0,0.0,0.0,0.009256599,-0.011316161,0.1132972,0.010620458,0.13290808,0.55895036,-0.29528266,-0.1043972,-0.5821697,-0.2676043,-0.019458812,-0.572625,-0.14851159,-0.044744823,0.0071536265,-0.038887773,0.020813,-0.030760132,0.039712988,0.032057423,0.026658762,-0.04622562,0.06684088,0.051790174,0.02446762,3.0,-0.6012611,-3.0,3.0,3.0,-3.0,-3.0,-3.0,-3.0,-3.0,-2.1244822,-3.0,3.0,-0.12671942,-3.0,3.0,3.0,-3.0,-3.0,-3.0,-3.0,-3.0,-2.7212217,-3.0
2025-06-06 14:12:00.711,0.0168337,-0.009575881,0.06938834,0.037691265,-0.06823019,-0.029621564,0.0,0.0,0.0,0.008998238,-0.0035542243,0.10546892,0.0011029603,0.13756014,0.5429261,-0.30442998,-0.10723123,-0.5900659,-0.27708265,-0.021777097,-0.5812822,-0.1808413,-0.041313365,-0.004702804,0.058409076,-0.07947628,-0.046084642,-0.01901991,-0.037982248,0.019972749,-0.017259186,0.04816782,0.014413418,-0.10574373,3.0,-0.12671942,-3.0,3.0,3.0,-3.0,-3.0,-3.0,-3.0,-3.0,-2.7212217,-3.0,3.0,-0.68044657,-3.0,3.0,3.0,-3.0,-3.0,-3.0,-3.0,-3.0,-2.200594,-3.0
2025-06-06 14:12:00.732,-0.06101753,-0.05750235,0.035836138,0.0069216173,-0.086509414,0.03138612,0.0,0.0,0.0,0.008201387,0.010829085,0.07310796,0.0031094404,0.12327407,0.54952854,-0.31437477,-0.09695381,-0.59428376,-0.2900524,-0.012792861,-0.57749236,-0.19521053,-0.031319547,-0.05876953,-0.06608424,0.03923482,-0.049941387,-0.064097516,-0.06553238,0.010670577,0.005722203,-0.029056827,0.042386785,-0.03517472,3.0,-0.68044657,-3.0,3.0,3.0,-3.0,-3.0,-3.0,-3.0,-3.0,-2.200594,-3.0,3.0,-0.4100147,-3.0,3.0,3.0,-3.0,-3.0,-3.0,-3.0,-3.0,-2.6056676,-3.0
2025-06-06 14:12:00.755,0.04189811,-0.062486093,0.034301456,0.049085394,-0.058350787,0.005694275,0.0,0.0,0.0,0.007127647,0.006715735,0.062114615,0.018876057,0.12325483,0.55668247,-0.3215651,-0.095008984,-0.59117293,-0.30383506,-0.0032304616,-0.5895626,-0.20408404,-0.045253526,-0.07918703,0.018416053,-0.012157315,-0.063576005,-0.025753675,0.057463214,0.008324426,0.020481098,-0.032442745,-0.09351962,0.015887951,3.0,-0.4100147,-3.0,3.0,3.0,-3.0,-3.0,-3.0,-3.0,-3.0,-2.6056676,-3.0,3.0,-0.49598616,-3.0,3.0,3.0,-3.0,-3.0,-3.0,-3.0,-3.0,-2.3514662,-3.0
2025-06-06 14:12:00.772,0.011366074,-0.054460272,0.013879156,-0.0006816556,-0.13882394,0.008062663,0.0,0.0,0.0,0.0058034393,0.019660605,0.045627777,0.02001901,0.1280987,0.5610001,-0.30924773,-0.107779525,-0.6123587,-0.30954334,-0.0052083903,-0.60957915,-0.23190257,0.029014586,-0.056104213,0.01710392,0.00153349,-0.054917995,-0.034709148,0.010940995,-0.026281605,-0.048201684,0.0567518,-0.061996635,-0.05057022,3.0,-0.49598616,-3.0,3.0,3.0,-3.0,-3.0,-3.0,-3.0,-3.0,-2.3514662,-3.0,3.0,-0.20755333,-3.0,3.0,3.0,-3.0,-3.0,-3.0,-3.0,-3.0,-2.2108014,-3.0
2025-06-06 14:12:00.792,0.0805468,-0.014438796,0.023630114,0.076949745,-0.09965145,0.041210197,0.0,0.0,0.0,0.0044400673,0.027651563,0.019453248,0.0099379895,0.114749074,0.5739526,-0.32202548,-0.100433215,-0.60866344,-0.33230677,-0.021688322,-0.60390073,-0.24542776,0.01604321,-0.025724819,-0.049220804,0.04167269,0.06757131,0.008727693,-0.042592835,-0.023713833,-0.055219345,0.05378117,-0.060381252,-0.10751573,3.0,-0.20755333,-3.0,3.0,3.0,-3.0,-3.0,-3.0,-3.0,-3.0,-2.2108014,-3.0,3.0,-0.48529392,-3.0,3.0,3.0,-3.0,-3.0,-3.0,-3.0,-3.0,-2.1540887,-3.0
2025-06-06 14:12:00.813,-0.015763812,0.006335752,-0.010247589,-0.0018659605,-0.050873075,-0.011418394,0.0,0.0,0.0,0.0032340745,0.03476889,0.0046807528,0.015467973,0.11958354,0.56478083,-0.3156011,-0.101088434,-0.5884126,-0.32290372,-0.0106054265,-0.6123677,-0.25307444,-0.010966172,-0.011466331,-0.066931866,-0.06885309,0.039733022,0.015474241,0.035631664,-0.044428024,-0.051941074,0.03303136,0.05323177,-0.120086595,3.0,-0.48529392,-3.0,3.0,3.0,-3.0,-3.0,-3.0,-3.0,-3.0,-2.1540887,-3.0,3.0,-0.29416555,-3.0,3.0,3.0,-3.0,-3.0,-3.0,-3.0,-3.0,-2.408825,-3.0
2025-06-06 14:12:00.832,0.061375357,-0.020193396,0.019353028,0.05244736,-0.117065154,-0.01283611,0.0,0.0,0.0,0.00241524,0.039989296,0.0012961979,0.02047138,0.12025984,0.5638775,-0.2987455,-0.12054231,-0.58481467,-0.32947454,-0.012474686,-0.62989515,-0.28664705,0.086709276,-0.07761972,-0.041284695,0.015212289,0.026553733,0.016630407,-0.03675534,0.06405121,-0.015259867,0.037689965,-0.012474031,-0.043287743,3.0,-0.29416555,-3.0,3.0,3.0,-3.0,-3.0,-3.0,-3.0,-3.0,-2.408825,-3.0,3.0,-0.33542103,-3.0,3.0,3.0,-3.0,-3.0,-3.0,-3.0,-3.0,-2.3390725,-3.0
2025-06-06 14:12:00.855,0.0724546,-0.036707953,-0.03506332,0.07472591,-0.080971204,-0.03438425,0.0,0.0,0.0,0.001774246,0.04033821,-0.0229069,-0.0015560993,0.11753628,0.5581467,-0.30282447,-0.11151903,-0.58457315,-0.33525386,-0.021662973,-0.63645935,-0.2974802,0.06618298,-0.009923363,0.019146565,0.0242557,-0.045455553,0.07855167,-0.050791,-0.050278436,0.03210961,0.06368499,-0.07316986,-0.008177786,3.0,-0.33542103,-3.0,3.0,3.0,-3.0,-3.0,-3.0,-3.0,-3.0,-2.3390725,-3.0,3.0,-0.19750828,-3.0,3.0,3.0,-3.0,-3.0,-3.0,-3.0,-3.0,-2.4938679,-3.0
2025-06-06 14:12:00.872,0.018893113,-0.08805341,-0.023766253,0.10566466,-0.07844792,0.038017392,0.0,0.0,0.0,0.0012667091,0.053351186,-0.03452694,0.008363006,0.12581284,0.55785465,-0.3062044,-0.112099655,-0.5837123,-0.32731384,-0.02383777,-0.62639904,-0.30076373,0.01734926,0.033597026,-0.030724252,-0.029955741,-0.004542768,0.02041304,-0.074006915,0.046977565,0.019207407,-0.0764868,-0.0037262721,-0.07952946,3.0,-0.19750828,-3.0,3.0,3.0,-3.0,-3.0,-3.0,-3.0,-3.0,-2.4938679,-3.0,3.0,-0.110393345,-3.0,3.0,3.0,-3.0,-3.0,-3.0,-3.0,-3.0,-2.5342205,-3.0
2025-06-06 14:12:00.892,0.06509403,-0.09352467,0.006563581,0.079268724,-0.054267608,0.042953108,0.0,0.0,0.0,0.0008228143,0.055788077,-0.045817047,-0.0076940027,0.123835266,0.56248456,-0.30298963,-0.10517292,-0.5760137,-0.3210253,-0.019244445,-0.6386755,-0.30892685,-0.05853867,0.04521574,0.043106772,-0.018331653,-0.0010457907,0.084046535,-0.054872558,0.030128423,0.072378,0.0048328605,0.02930966,0.037650537,3.0,-0.110393345,-3.0,3.0,3.0,-3.0,-3.0,-3.0,-3.0,-3.0,-2.5342205,-3.0,3.0,-0.853097,-3.0,3.0,3.0,-3.0,-3.0,-3.0,-3.0,-3.0,-2.8507304,-3.0
2025-06-06 14:12:00.912,0.03853821,-0.084319495,-0.047551807,0.04474063,-0.13727981,0.045091584,0.0,0.0,0.0,0.00040131173,0.054281306,-0.05455241,-0.02161101,0.12770438,0.55946374,-0.28563273,-0.11735115,-0.5928708,-0.33129752,-0.033507872,-0.6567469,-0.32559514,-0.045930486,-0.09124631,-0.022307329,-0.029708723,-0.03199389,-0.0019305656,-0.0083791455,-0.023525203,-0.011994426,-0.04434752,-0.06499282,0.048345353,3.0,-0.853097,-3.0,3.0,3.0,-3.0,-3.0,-3.0,-3.0,-3.0,-2.8507304,-3.0,3.0,0.030130206,-3.0,3.0,3.0,-3.0,-3.0,-3.0,-3.0,-3.0,-2.8431945,-3.0
2025-06-06 14:12:00.933,0.06900039,-0.10547234,0.027559256,0.07995591,-0.12742144,0.04803214,0.0,0.0,0.0,0.000118591044,0.048696328,-0.06577445,-0.011919402,0.13791731,0.54824865,-0.28847992,-0.1106121,-0.5854804,-0.32667628,-0.01706682,-0.68417144,-0.32336125,0.06888872,-0.00645168,-0.047847986,0.041817818,0.013510868,-0.025400937,0.011766613,-0.05408087,-0.05868683,-0.010628826,0.006720198,-0.065936744,3.0,0.030130206,-3.0,3.0,3.0,-3.0,-3.0,-3.0,-3.0,-3.0,-2.8431945,-3.0,3.0,-0.687897,-3.0,3.0,3.0,-3.0,-3.0,-3.0,-3.0,-3.0,-2.4267185,-3.0
2025-06-06 14:12:00.956,0.05490976,-0.0036603608,0.011038936,0.12170468,-0.069971845,0.026978308,0.0,0.0,0.0,-0.0001835984,0.03807472,-0.056631427,-0.033453822,0.13220945,0.5511639,-0.28693232,-0.11053126,-0.58263195,-0.3263094,-0.03554005,-0.69447297,-0.32754844,-0.05499039,-0.029087914,-0.03675324,-0.0417753,-0.0622839,-0.052730072,-0.06311034,-0.06840753,0.07325622,0.045747705,-0.012280737,0.057918243,3.0,-0.687897,-3.0,3.0,3.0,-3.0,-3.0,-3.0,-3.0,-3.0,-2.4267185,-3.0,3.0,-0.72854406,-3.0,3.0,3.0,-3.0,-3.0,-3.0,-3.0,-3.0,-3.0,-3.0
2025-06-06 14:12:00.972,0.016302124,-0.067095146,-0.068473734,0.120732754,-0.058709197,-0.023791805,0.0,0.0,0.0,-3.3346543e-05,0.048366375,-0.063001715,-0.02603545,0.14034665,0.538094,-0.27298233,-0.12538597,-0.5957668,-0.34104633,-0.044457626,-0.69152546,-0.32327732,0.04020995,-0.027703596,0.057963848,0.0475025,0.0036684202,0.05955097,-0.07627884,0.064867444,-0.012981874,-0.029065656,-0.08472683,-0.025097808,3.0,-0.72854406,-3.0,3.0,3.0,-3.0,-3.0,-3.0,-3.0,-3.0,-3.0,-3.0,3.0,0.28380805,-3.0,3.0,3.0,-3.0,-3.0,-3.0,-3.0,-3.0,-2.9451642,-3.0
2025-06-06 14:12:00.993,0.046196226,-0.06771492,0.0002888665,0.10264302,-0.036677126,0.0074689896,0.0,0.0,0.0,0.00036072647,0.038216162,-0.062830664,-0.050924204,0.14025946,0.53212017,-0.26269993,-0.10974784,-0.5778351,-0.32546428,-0.03385813,-0.7188362,-0.3202019,0.040684205,0.033722393,0.011994155,-0.033162706,0.05092659,-0.009979174,-0.0229791,-0.031532384,-0.03421896,-0.016465105,0.036454592,0.04105695,3.0,0.28380805,-3.0,3.0,3.0,-3.0,-3.0,-3.0,-3.0,-3.0,-2.9451642,-3.0,3.0,-0.8403097,-3.0,3.0,3.0,-3.0,-3.0,-3.0,-3.0,-3.0,-2.868381,-3.0
2025-06-06 14:12:01.013,0.09177704,-0.04794774,-0.03627231,0.14133899,-0.106398165,0.030950448,0.0,0.0,0.0,0.0005546437,0.037541654,-0.07557288,-0.04434206,0.12982407,0.5377571,-0.2638357,-0.11163453,-0.57566893,-0.3294176,-0.039693046,-0.71508425,-0.31694707,-0.010694646,-0.060023606,0.007312188,-0.019278755,0.05950491,0.072896115,-0.050180186,0.025576305,0.0022686713,-0.051049035,-0.08981938,-0.049964026,3.0,-0.8403097,-3.0,3.0,3.0,-3.0,-3.0,-3.0,-3.0,-3.0,-2.868381,-3.0,3.0,-0.08631641,-3.0,3.0,3.0,-3.0,-3.0,-3.0,-3.0,-3.0,-2.8657534,-3.0
2025-06-06 14:12:01.033,0.11738685,-0.09091644,-0.035587646,0.072750226,-0.10820812,0.009485691,0.0,0.0,0.0,0.0008848723,0.031021614,-0.06512458,-0.06719105,0.14295715,0.52780616,-0.24129966,-0.12210799,-0.58355135,-0.33267897,-0.038399898,-0.733226,-0.30554593,-0.032986872,0.03592554,0.03851639,-0.068498015,-0.01864901,0.009191074,-0.008820842,0.07719158,0.053835213,-0.047670297,-0.013519774,0.06599648,3.0,-0.08631641,-3.0,3.0,3.0,-3.0,-3.0,-3.0,-3.0,-3.0,-2.8657534,-3.0,3.0,-0.752063,-3.0,3.0,3.0,-3.0,-3.0,-3.0,-3.0,-3.0,-3.0,-3.0
2025-06-06 14:12:01.055,0.06532186,-0.008841966,-0.048803553,0.117378436,-0.056062743,-0.048106406,0.0,0.0,0.0,0.0012978764,0.02976261,-0.07449708,-0.06974457,0.13005598,0.5460718,-0.24065834,-0.11324272,-0.58180857,-0.33603853,-0.05137225,-0.73538774,-0.30245838,0.042085156,-0.03510071,-0.0749056,0.03649639,-0.052440353,0.08664987,0.02651733,-0.06370206,0.016084613,-0.034316886,-0.0011306214,0.023181656,3.0,-0.752063,-3.0,3.0,3.0,-3.0,-3.0,-3.0,-3.0,-3.0,-3.0,-3.0,2.2512631,-0.56486386,-3.0,3.0,3.0,-3.0,-3.0,-3.0,-3.0,-3.0,-3.0,-3.0
2025-06-06 14:12:01.073,-0.012717117,-0.025178898,-0.015417701,0.16785586,-0.07909203,-0.019059898,0.0,0.0,0.0,0.0017566514,0.020840332,-0.06505866,-0.0700834,0.1374934,0.53647596,-0.23274627,-0.10976209,-0.5836303,-0.32409242,-0.05711664,-0.7506139,-0.29426286,-0.04190488,0.06694887,-0.008806035,0.03938248,0.058178566,-0.029280603,-0.00052953704,0.044535376,0.065316804,-0.0016492783,0.0039170436,0.04752065,2.2512631,-0.56486386,-3.0,3.0,3.0,-3.0,-3.0,-3.0,-3.0,-3.0,-3.0,-3.0,-1.1031427,-0.75665563,-3.0,3.0,3.0,-3.0,-3.0,-3.0,-3.0,-3.0,-3.0,-3.0
2025-06-06 14:12:01.093,-0.07489769,0.067694016,-0.06277703,0.07096752,-0.07154938,-0.03801373,0.0,0.0,0.0,0.0023941896,0.016223306,-0.082512885,-0.071874365,0.12385584,0.5410631,-0.23202999,-0.12781216,-0.58748233,-0.31828216,-0.066957496,-0.7542719,-0.30340764,-0.07756411,-0.029594364,-0.047066953,-0.071510114,0.060329318,0.010940753,0.0058841007,-0.01248784,0.026405308,-0.012721367,-0.061675563,0.028820805,-1.1031427,-0.75665563,-3.0,3.0,3.0,-3.0,-3.0,-3.0,-3.0,-3.0,-3.0,-3.0,-3.0,0.30668908,-3.0,3.0,3.0,-3.0,-3.0,-3.0,-3.0,-3.0,-3.0,-3.0
2025-06-06 14:12:01.113,-0.09491373,0.037839368,-0.08939939,0.15847553,-0.064636275,-0.00091820763,0.0,0.0,0.0,0.0036569126,-0.016816707,-0.07530813,-0.089657664,0.09269961,0.56360066,-0.22983006,-0.12960245,-0.5762933,-0.3238466,-0.06801407,-0.7438128,-0.28624195,-0.029869301,-0.0053539565,-0.04040346,-0.020636901,-0.006570425,0.037892774,-0.068402685,0.013926658,-0.01668835,-0.017646568,0.017616387,-0.02123293,-3.0,0.30668908,-3.0,3.0,3.0,-3.0,-3.0,-3.0,-3.0,-3.0,-3.0,-3.0,-3.0,0.9630342,-3.0,3.0,3.0,-3.0,-3.0,-3.0,-3.0,-3.0,-3.0,-3.0
2025-06-06 14:12:01.133,-0.021678982,0.09786007,-0.121643506,0.0751068,-0.12560265,0.038769275,0.0,0.0,0.0,0.0054636677,-0.031712875,-0.05569957,-0.08441649,0.0894243,0.5626241,-0.22857584,-0.12789433,-0.5893255,-0.33421108,-0.077115625,-0.74609596,-0.27938977,0.004110452,-0.0050831814,-0.017166667,0.03468063,0.1105185,-0.017400488,-0.005359124,0.068214566,-0.043209214,-0.022600673,0.04920798,-0.040726155,-3.0,0.9630342,-3.0,3.0,3.0,-3.0,-3.0,-3.0,-3.0,-3.0,-3.0,-3.0,-3.0,1.4010228,-3.0,3.0,3.0,-3.0,-3.0,-3.0,-3.0,-3.0,-3.0,-3.0
2025-06-06 14:12:01.157,0.04209528,0.04006355,-0.07460715,0.11641209,-0.02320627,0.0031200997,0.0,0.0,0.0,0.0071321353,-0.06192548,-0.036489874,-0.11042483,0.070211284,0.57570374,-0.22202124,-0.12311337,-0.57543963,-0.32888034,-0.084925234,-0.7271612,-0.2849499,-0.04281818,0.054848786,0.026884865,0.037590124,0.061646566,-0.051695462,0.05587257,0.0391574,0.02943833,0.025144462,-0.012466752,-0.05058656,-3.0,1.4010228,-3.0,3.0,3.0,-3.0,-3.0,-3.0,-3.0,-3.0,-3.0,-3.0,-3.0,0.654844,-3.0,3.0,3.0,-3.0,-3.0,-3.0,-3.0,-3.0,-3.0,-3.0
2025-06-06 14:12:01.173,0.028998712,0.030374004,-0.06517037,0.09565998,-0.057255782,0.023942538,0.0,0.0,0.0,0.00816719,-0.071383335,-0.023134805,-0.12016146,0.07188272,0.5983532,-0.2301386,-0.11428591,-0.5673504,-0.3291603,-0.09315518,-0.7345624,-0.2847674,-0.08937948,-0.00079509546,-0.006226391,0.05438752,0.036175,0.009513153,-0.025602024,0.016398199,0.05425842,-0.0755827,0.042313267,-0.025733205,-3.0,0.654844,-3.0,3.0,3.0,-3.0,-3.0,-3.0,-3.0,-3.0,-3.0,-3.0,-3.0,0.5734318,-3.0,3.0,3.0,-3.0,-3.0,-3.0,-3.0,-3.0,-3.0,-3.0
2025-06-06 14:12:01.193,0.037443902,-0.020788578,-0.072973594,0.12831824,-0.04017602,-0.006108953,0.0,0.0,0.0,0.00884468,-0.08845714,-0.002114556,-0.1293733,0.067760155,0.5962327,-0.21661015,-0.09723947,-0.56400347,-0.32006755,-0.09917314,-0.7151343,-0.25723293,0.024176138,0.04746677,0.023153108,-0.014382033,-0.03719481,0.047277085,0.021645252,0.037039004,0.05921126,-0.074891984,-0.058243155,0.0065486324,-3.0,0.5734318,-3.0,3.0,3.0,-3.0,-3.0,-3.0,-3.0,-3.0,-3.0,-3.0,-3.0,0.52783066,-3.0,3.0,3.0,-3.0,-3.0,-3.0,-3.0,-3.0,-3.0,-3.0
2025-06-06 14:12:01.213,0.073040664,0.018725697,0.0012459884,0.09232917,-0.016620317,0.022826264,0.0,0.0,0.0,0.009385709,-0.1010621,0.018587478,-0.15424387,0.06370949,0.62447566,-0.20976499,-0.109386794,-0.5664028,-0.3168748,-0.09868513,-0.7249794,-0.25596362,-0.024825396,0.095367044,0.027972477,-0.057938185,-0.04246339,0.058847167,0.055838298,-0.060961824,-0.044019464,0.010826634,0.012233154,0.09190624,-3.0,0.52783066,-3.0,3.0,3.0,-3.0,-3.0,-3.0,-3.0,-3.0,-3.0,-3.0,-3.0,-0.35560077,-3.0,3.0,3.0,-3.0,-3.0,-3.0,-3.0,-3.0,-3.0,-3.0
2025-06-06 14:12:01.233,0.08030076,0.02122283,-0.011789298,0.09522538,-0.045038983,-0.035868913,0.0,0.0,0.0,0.00979829,-0.10971909,0.026093565,-0.1453269,0.043988835,0.6232921,-0.19615357,-0.1073143,-0.5546703,-0.32132986,-0.10922949,-0.7161098,-0.25226325,-0.05477607,0.0027824172,-0.019248163,0.013423855,0.04876223,0.08746355,0.041038714,0.0671972,-0.050636183,-0.04750712,0.023580126,0.0565583,-3.0,-0.35560077,-3.0,3.0,3.0,-3.0,-3.0,-3.0,-3.0,-3.0,-3.0,-3.0,-3.0,-0.10327333,-3.0,3.0,3.0,-3.0,-3.0,-3.0,-3.0,-3.0,-3.0,-3.0
2025-06-06 14:12:01.255,0.09426215,-0.012776346,-0.023425063,0.09166854,-0.07186451,0.013185996,0.0,0.0,0.0,0.010320965,-0.12130257,0.017531369,-0.15142965,0.036480844,0.6313159,-0.18512417,-0.09975648,-0.5640029,-0.32380968,-0.117316425,-0.72766155,-0.24594608,-0.05516357,-0.017931491,-0.014917101,-0.081511065,0.017480496,0.03630756,-0.046841644,0.029503578,0.047538653,0.0527782,-0.0319859,-0.043393146,-3.0,-0.10327333,-3.0,3.0,3.0,-3.0,-3.0,-3.0,-3.0,-3.0,-3.0,-3.0,-3.0,-0.021243038,-3.0,3.0,3.0,-3.0,-3.0,-3.0,-3.0,-3.0,-3.0,-3.0
2025-06-06 14:12:01.273,0.059454694,-0.017849598,-0.008635206,0.14755532,-0.029412532,0.026396044,0.0,0.0,0.0,0.010961764,-0.12497819,0.0182086,-0.16384088,0.044189986,0.63513726,-0.1772343,-0.09545971,-0.553965,-0.3289883,-0.11408469,-0.73879963,-0.23583578,0.04545878,-0.04736303,0.06748087,-0.015492163,-0.049266987,0.055672634,0.011189269,0.035727415,0.07160488,0.039907765,-0.01264022,-0.023499848,-3.0,-0.021243038,-3.0,3.0,3.0,-3.0,-3.0,-3.0,-3.0,-3.0,-3.0,-3.0,-3.0,-0.09684032,-3.0,3.0,3.0,-3.0,-3.0,-3.0,-3.0,-3.0,-3.0,-3.0
2025-06-06 14:12:01.294,0.013891506,0.028690385,-0.04630503,0.08843274,-0.08732143,-0.036180787,0.0,0.0,0.0,0.011591501,-0.1331114,0.02119986,-0.15151058,0.030266251,0.63116866,-0.18505509,-0.095612735,-0.5557101,-0.3179084,-0.11618805,-0.74842095,-0.23362547,0.06308045,0.029783724,0.013627321,0.020660134,-0.014934026,0.01779605,-0.052156422,-0.010775105,0.07020157,0.03440586,-0.06692552,0.07968209,-3.0,-0.09684032,-3.0,3.0,3.0,-3.0,-3.0,-3.0,-3.0,-3.0,-3.0,-3.0,-3.0,0.10420543,-3.0,3.0,3.0,-3.0,-3.0,-3.0,-3.0,-3.0,-3.0,-3.0
2025-06-06 14:12:01.314,0.004729816,0.04492664,-0.008412696,0.14698847,0.001763715,0.03831279,0.0,0.0,0.0,0.012182331,-0.12882864,0.018155878,-0.16012356,0.04320558,0.63200104,-0.1765677,-0.107391775,-0.5622361,-0.32923067,-0.12460327,-0.750972,-0.22493565,-0.028408945,-0.017243965,0.07461597,0.0074259746,0.06843199,0.076945424,0.060772233,0.014418382,0.03953335,-0.035258647,0.061967783,-0.0119110625,-3.0,0.10420543,-3.0,3.0,3.0,-3.0,-3.0,-3.0,-3.0,-3.0,-3.0,-3.0,-3.0,-0.16692084,-3.0,3.0,3.0,-3.0,-3.0,-3.0,-3.0,-3.0,-3.0,-3.0
2025-06-06 14:12:01.334,-0.015491435,-0.026471853,0.012476893,0.07933143,-0.00012031315,0.013170204,0.0,0.0,0.0,0.012661145,-0.1264429,0.009255782,-0.16501264,0.037452947,0.63059944,-0.15798232,-0.10402755,-0.56254137,-0.3222997,-0.11531315,-0.7496779,-0.23097289,-0.024345163,0.049554124,0.052591424,0.01800235,-0.00033308938,-0.024095364,-0.014699285,0.044706102,-0.043714553,0.017834391,-0.046887476,-0.070312195,-3.0,-0.16692084,-3.0,3.0,3.0,-3.0,-3.0,-3.0,-3.0,-3.0,-3.0,-3.0,-3.0,-0.20893782,-3.0,3.0,3.0,-3.0,-3.0,-3.0,-3.0,-3.0,-3.0,-3.0
2025-06-06 14:12:01.355,-0.055888604,-0.03716227,-0.014040508,0.083803356,-0.04991539,-0.0028284157,0.0,0.0,0.0,0.013083656,-0.13345401,0.00586995,-0.14781027,0.04127279,0.6313695,-0.16829436,-0.09499515,-0.56139684,-0.31642157,-0.11967385,-0.74965703,-0.23429082,-0.010419184,-0.025695516,-0.016096907,-0.057648983,0.009667996,0.0006407436,0.063795224,-0.004732652,-0.01591752,0.044184618,0.016825665,-0.012598689,-3.0,-0.20893782,-3.0,3.0,3.0,-3.0,-3.0,-3.0,-3.0,-3.0,-3.0,-3.0,-3.0,-0.14328688,-3.0,3.0,3.0,-3.0,-3.0,-3.0,-3.0,-3.0,-3.0,-3.0
2025-06-06 14:12:01.374,-0.004643706,-0.045555245,-0.054237764,0.16956729,-0.049508937,0.032632183,0.0,0.0,0.0,0.013501546,-0.12639953,-0.001681816,-0.14709333,0.04433291,0.63899744,-0.16580053,-0.1008922,-0.5607836,-0.3160601,-0.1172859,-0.7463382,-0.2337595,-0.014569633,-0.08443376,0.0589333,0.06431049,0.009952201,-0.04718468,-0.022789275,-0.00076430675,-0.06425764,0.046418842,0.04550582,-0.035732616,-3.0,-0.14328688,-3.0,3.0,3.0,-3.0,-3.0,-3.0,-3.0,-3.0,-3.0,-3.0,-3.0,0.37707597,-3.0,3.0,3.0,-3.0,-3.0,-3.0,-3.0,-3.0,-3.0,-3.0
2025-06-06 14:12:01.394,0.024351656,-0.0072906506,0.022501307,0.10903967,-0.0864315,0.010529565,0.0,0.0,0.0,0.013884392,-0.14606291,-0.010436659,-0.14760688,0.040831394,0.6288912,-0.1500282,-0.100565314,-0.55624616,-0.32815698,-0.12094084,-0.75910515,-0.24698949,-0.043273572,0.056850497,0.01587393,-0.057377018,0.030303832,-0.07068219,-0.04483895,-0.037365388,0.06485324,0.012808811,0.02662303,0.024268081,-3.0,0.37707597,-3.0,3.0,3.0,-3.0,-3.0,-3.0,-3.0,-3.0,-3.0,-3.0,-3.0,-0.51576346,-3.0,3.0,3.0,-3.0,-3.0,-3.0,-3.0,-3.0,-3.0,-3.0
2025-06-06 14:12:01.414,-0.024989884,-0.019070948,-0.038984798,0.08941331,-0.03253746,0.0041391696,0.0,0.0,0.0,0.014052909,-0.13086736,-0.008700352,-0.15923005,0.038607717,0.62776995,-0.15699978,-0.09872308,-0.55954325,-0.3219524,-0.11326264,-0.76086545,-0.2525586,-0.06924103,-0.05612224,0.063760385,0.002770931,0.04170066,-0.010490826,-0.012520169,0.05782777,-0.05700725,-0.062438056,0.0033487915,0.039994355,-3.0,-0.51576346,-3.0,3.0,3.0,-3.0,-3.0,-3.0,-3.0,-3.0,-3.0,-3.0,-3.0,0.04048401,-3.0,3.0,3.0,-3.0,-3.0,-3.0,-3.0,-3.0,-3.0,-3.0
2025-06-06 14:12:01.437,-0.027285915,0.00443937,-0.01844673,0.15540722,-0.05620003,-0.03175919,0.0,0.0,0.0,0.014259818,-0.14263801,-0.03798354,-0.1560733,0.049343985,0.637012,-0.16825697,-0.09666856,-0.5560882,-0.32309052,-0.11548557,-0.7498945,-0.2627049,-0.015657738,-0.08796483,0.050410796,-0.008550031,0.06701554,-0.040506087,-0.047025114,0.016574075,0.05522989,0.009880298,-0.0765118,-0.017950973,-3.0,0.04048401,-3.0,3.0,3.0,-3.0,-3.0,-3.0,-3.0,-3.0,-3.0,-3.0,-3.0,-0.14222473,-3.0,3.0,3.0,-3.0,-3.0,-3.0,-3.0,-3.0,-3.0,-3.0
2025-06-06 14:12:01.454,-0.07070049,-0.024965247,-0.012342937,0.078334816,-0.05403474,0.02889932,0.0,0.0,0.0,0.0144714955,-0.13795078,-0.0409078,-0.14087933,0.044841472,0.6236015,-0.17258292,-0.09716987,-0.55780107,-0.32836446,-0.106416404,-0.7616675,-0.27073288,0.018311325,-0.01841484,-0.036589447,0.04403103,-0.070394464,-0.031073138,-0.059811227,-0.060991663,0.031126564,0.06415412,-0.008327084,0.021532957,-3.0,-0.14222473,-3.0,3.0,3.0,-3.0,-3.0,-3.0,-3.0,-3.0,-3.0,-3.0,-3.0,-0.11220187,-3.0,3.0,3.0,-3.0,-3.0,-3.0,-3.0,-3.0,-3.0,-3.0
2025-06-06 14:12:01.474,-0.07420961,0.0075939945,-0.0350615,0.06977069,-0.0391052,-0.03911697,0.0,0.0,0.0,0.014604008,-0.13493063,-0.047235105,-0.14140701,0.049637042,0.62824345,-0.18154907,-0.11090841,-0.568108,-0.31692204,-0.1036195,-0.7485607,-0.26529804,-0.03824714,-0.0017880592,0.063832454,-0.06426852,-0.040439624,0.012712889,-0.058021422,-0.0045931195,0.034152806,0.045431476,0.0033976512,-0.08122656,-3.0,-0.11220187,-3.0,3.0,3.0,-3.0,-3.0,-3.0,-3.0,-3.0,-3.0,-3.0,-3.0,0.010244666,-3.0,3.0,3.0,-3.0,-3.0,-3.0,-3.0,-3.0,-3.0,-3.0
2025-06-06 14:12:01.495,-0.06350678,0.0016042002,0.04477121,0.08372125,-0.09830154,-0.024541698,0.0,0.0,0.0,0.014612488,-0.12769043,-0.045354474,-0.1409729,0.058000002,0.6160214,-0.18367599,-0.097793795,-0.5748715,-0.32747445,-0.105099924,-0.7555506,-0.28584808,0.054571036,-0.052404422,0.049049065,-0.013272459,-0.064941704,0.0662635,-0.038850125,-0.015105184,-0.0642207,-0.020176295,-0.04834722,-0.07260122,-3.0,0.010244666,-3.0,3.0,3.0,-3.0,-3.0,-3.0,-3.0,-3.0,-3.0,-3.0,-3.0,-0.53719944,-3.0,3.0,3.0,-3.0,-3.0,-3.0,-3.0,-3.0,-3.0,-3.0
2025-06-06 14:12:01.514,-0.07477709,-0.013176249,0.052933592,0.080390975,-0.021259744,-0.0455997,0.0,0.0,0.0,0.014510598,-0.14588767,-0.05903718,-0.1398255,0.06028385,0.61246294,-0.18276975,-0.10914764,-0.5825315,-0.317881,-0.09856146,-0.75908613,-0.28891903,0.03475174,0.015762744,-0.00985066,-0.0010139712,-0.03495232,0.020124452,-0.0067156265,-0.022447562,-0.044962212,0.04192835,0.0068472447,-0.054024167,-3.0,-0.53719944,-3.0,3.0,3.0,-3.0,-3.0,-3.0,-3.0,-3.0,-3.0,-3.0,-3.0,-0.5641236,-3.0,3.0,3.0,-3.0,-3.0,-3.0,-3.0,-3.0,-3.0,-3.0
2025-06-06 14:12:01.536,-0.05503781,0.035836484,0.044012867,0.118378505,-0.10230473,0.008470918,0.0,0.0,0.0,0.01448251,-0.1412854,-0.07651882,-0.14018577,0.061079413,0.6224563,-0.17669062,-0.111453176,-0.58146614,-0.32546434,-0.10940755,-0.7484801,-0.29390475,0.033753872,0.032364193,-0.03505139,0.0138089415,0.011227788,0.027032295,0.0034071219,-0.07361913,0.054530077,0.021178527,-0.020123137,-0.052330192,-3.0,-0.5641236,-3.0,3.0,3.0,-3.0,-3.0,-3.0,-3.0,-3.0,-3.0,-3.0,-3.0,-0.56535393,-3.0,3.0,3.0,-3.0,-3.0,-3.0,-3.0,-3.0,-3.0,-3.0
2025-06-06 14:12:01.555,-0.05603815,-0.007059338,-0.028828446,0.12961331,-0.012965595,-0.049783967,0.0,0.0,0.0,0.014571783,-0.13049982,-0.078097306,-0.117236115,0.06736671,0.6259787,-0.18777397,-0.11283367,-0.57940865,-0.331766,-0.09217449,-0.760769,-0.29807073,0.04979106,0.050090794,0.042767648,-0.0037621106,-0.05220308,-0.043444287,0.052146796,0.028915182,0.0117122885,0.003042775,0.026251573,-0.002682091,-3.0,-0.56535393,-3.0,3.0,3.0,-3.0,-3.0,-3.0,-3.0,-3.0,-3.0,-3.0,-3.0,-0.019733371,-3.0,3.0,3.0,-3.0,-3.0,-3.0,-3.0,-3.0,-3.0,-3.0
2025-06-06 14:12:01.575,0.04173121,-0.0017715625,-0.046226032,0.10989028,-0.02428079,-0.005733859,0.0,0.0,0.0,0.014717288,-0.13321592,-0.09005713,-0.11875501,0.07186521,0.6274224,-0.18853739,-0.10157642,-0.58597344,-0.33093205,-0.09808798,-0.7573083,-0.302671,-0.04525854,0.016395563,-0.052144486,-0.0093050795,-0.0057704207,0.037856966,-0.0036139584,0.06164482,0.067537345,-0.02337632,0.017314088,-0.06532686,-3.0,-0.019733371,-3.0,3.0,3.0,-3.0,-3.0,-3.0,-3.0,-3.0,-3.0,-3.0,-3.0,0.026466666,-3.0,3.0,3.0,-3.0,-3.0,-3.0,-3.0,-3.0,-3.0,-3.0
2025-06-06 14:12:01.595,0.054727953,-0.020447956,-0.031662066,0.08552517,-0.059933905,0.00014231968,0.0,0.0,0.0,0.014757689,-0.1370695,-0.08477519,-0.118094735,0.072227426,0.6243349,-0.18001677,-0.11382226,-0.5979051,-0.32927325,-0.09787284,-0.7650535,-0.301259,0.004230027,-0.05099635,-0.035491213,0.08132839,0.07519409,0.021505715,-0.04724205,0.027176443,0.008445254,-0.04091852,0.011655669,-0.06819991,-3.0,0.026466666,-3.0,3.0,3.0,-3.0,-3.0,-3.0,-3.0,-3.0,-3.0,-3.0,-3.0,0.032893956,-3.0,3.0,3.0,-3.0,-3.0,-3.0,-3.0,-3.0,-3.0,-3.0
2025-06-06 14:12:01.615,0.04838827,0.02187786,0.011319328,0.11779356,-0.02642824,-0.039551504,0.0,0.0,0.0,0.014688873,-0.12862793,-0.08913208,-0.12286013,0.06314174,0.6154329,-0.18614496,-0.10962466,-0.5892153,-0.33701265,-0.095241874,-0.75332433,-0.31205377,0.013932787,0.018409768,-0.027130201,-0.052248057,-0.058704816,0.05803692,0.06725877,0.046874393,-0.03231041,0.05128627,-0.031846486,0.016189782,-3.0,0.032893956,-3.0,3.0,3.0,-3.0,-3.0,-3.0,-3.0,-3.0,-3.0,-3.0,-3.0,-0.5241763,-3.0,3.0,3.0,-3.0,-3.0,-3.0,-3.0,-3.0,-3.0,-3.0
2025-06-06 14:12:01.638,0.004934717,-0.022883404,-0.031540163,0.088520356,-0.048082944,0.04214903,0.0,0.0,0.0,0.0145943,-0.129899,-0.09038122,-0.12833533,0.075262785,0.6338417,-0.18431556,-0.11312182,-0.5820522,-0.3229447,-0.09636289,-0.7616412,-0.30462834,-0.07142312,-0.061940655,-0.04693272,-0.06308841,-0.016396362,0.029820235,0.06894457,-0.02993964,0.002219582,-0.058817025,-0.042493645,0.02032913,-3.0,-0.5241763,-3.0,3.0,3.0,-3.0,-3.0,-3.0,-3.0,-3.0,-3.0,-3.0,-3.0,-0.111296594,-3.0,3.0,3.0,-3.0,-3.0,-3.0,-3.0,-3.0,-3.0,-3.0
2025-06-06 14:12:01.655,0.0031810356,-0.05328127,-0.013637798,0.09290262,-0.060234513,-0.016247394,0.0,0.0,0.0,0.014660483,-0.13577937,-0.09877171,-0.11651267,0.065072544,0.6309744,-0.19026995,-0.09957826,-0.5942616,-0.33219174,-0.09855082,-0.75690985,-0.30043322,-0.035276607,0.020205773,-0.037878063,-0.07284692,0.018349553,0.0013430332,-0.07550569,0.06181529,-0.0017335827,0.062604904,-0.03771521,0.010692787,-3.0,-0.111296594,-3.0,3.0,3.0,-3.0,-3.0,-3.0,-3.0,-3.0,-3.0,-3.0,-3.0,-0.28040284,-3.0,3.0,3.0,-3.0,-3.0,-3.0,-3.0,-3.0,-3.0,-3.0
2025-06-06 14:12:01.675,0.04530625,-0.049230594,-0.0039957766,0.059339784,-0.050697528,0.04586223,0.0,0.0,0.0,0.014806492,-0.12764233,-0.092322834,-0.13492788,0.075991295,0.6295533,-0.1871197,-0.11408699,-0.5921689,-0.32503775,-0.10297841,-0.7700287,-0.31421953,0.06460792,-0.023911655,0.029339839,-0.04307052,0.07710044,-0.03593735,-0.041662477,0.051110882,-0.000844172,0.0694082,-0.03204238,0.07407819,-3.0,-0.28040284,-3.0,3.0,3.0,-3.0,-3.0,-3.0,-3.0,-3.0,-3.0,-3.0,-3.0,-0.21576089,-3.0,3.0,3.0,-3.0,-3.0,-3.0,-3.0,-3.0,-3.0,-3.0
2025-06-06 14:12:01.695,0.041354533,0.03506155,-0.0039257947,0.061152983,-0.09904026,-0.043824542,0.0,0.0,0.0,0.014995672,-0.14536722,-0.09665513,-0.12357264,0.07440286,0.63963723,-0.19151795,-0.10135779,-0.5882008,-0.3336705,-0.09355345,-0.7537689,-0.300751,-0.008646451,0.039347026,0.028084962,-0.03360942,0.05442297,0.031698022,0.035286397,0.06791601,0.013482791,-0.015583714,0.033176236,-0.05774939,-3.0,-0.21576089,-3.0,3.0,3.0,-3.0,-3.0,-3.0,-3.0,-3.0,-3.0,-3.0,-3.0,-0.38014978,-3.0,3.0,3.0,-3.0,-3.0,-3.0,-3.0,-3.0,-3.0,-3.0
2025-06-06 14:12:01.715,0.06584373,0.01836756,-0.00021068283,0.11930082,-0.08032509,-0.0060252957,0.0,0.0,0.0,0.015214598,-0.14962128,-0.08157877,-0.1350664,0.06944948,0.6291539,-0.17132282,-0.112149365,-0.57546777,-0.33559024,-0.09278364,-0.771376,-0.31013247,0.040934786,0.052030332,-0.01419627,0.027953327,0.0133008445,-0.030649547,-0.006980052,0.0045551592,-0.03210957,-0.04316927,0.0038677924,-0.0324613,-3.0,-0.38014978,-3.0,3.0,3.0,-3.0,-3.0,-3.0,-3.0,-3.0,-3.0,-3.0,-3.0,-0.31257337,-3.0,3.0,3.0,-3.0,-3.0,-3.0,-3.0,-3.0,-3.0,-3.0
2025-06-06 14:12:01.738,0.04996516,-0.015556459,0.019677248,0.118428454,-0.089778,-0.025347421,0.0,0.0,0.0,0.015476286,-0.1451904,-0.088632055,-0.12250117,0.06432656,0.64575756,-0.18169947,-0.101125546,-0.5784437,-0.32677123,-0.10365252,-0.75993705,-0.3016713,0.016598351,-0.07188488,0.029780297,0.0019996867,-0.04655713,-0.052612245,-0.058615066,-0.06627266,0.03777979,-0.018982667,0.05069875,0.00090318127,-3.0,-0.31257337,-3.0,3.0,3.0,-3.0,-3.0,-3.0,-3.0,-3.0,-3.0,-3.0,-3.0,-0.39622217,-3.0,3.0,3.0,-3.0,-3.0,-3.0,-3.0,-3.0,-3.0,-3.0
2025-06-06 14:12:01.755,0.043145712,-0.023787785,-0.043538723,0.15478197,-0.07773251,-0.00015859946,0.0,0.0,0.0,0.015754193,-0.1515017,-0.09752546,-0.12312517,0.07678778,0.6371872,-0.1826145,-0.106355734,-0.589518,-0.32465202,-0.09117674,-0.7695832,-0.30751657,0.058975346,0.03797737,0.026458962,-0.030314442,0.07838572,0.04328329,0.045634177,-0.010109467,0.022143723,-0.010048337,0.06919826,0.020284105,-3.0,-0.39622217,-3.0,3.0,3.0,-3.0,-3.0,-3.0,-3.0,-3.0,-3.0,-3.0,-3.0,-0.18219823,-3.0,3.0,3.0,-3.0,-3.0,-3.0,-3.0,-3.0,-3.0,-3.0
2025-06-06 14:12:01.775,0.00021083238,-0.046511248,0.017587023,0.06805124,-0.08194278,0.01842444,0.0,0.0,0.0,0.016036205,-0.15042587,-0.08978306,-0.1260542,0.06744583,0.65004706,-0.17440517,-0.10672306,-0.5797258,-0.33170322,-0.097966164,-0.7743966,-0.29124054,-0.034617253,-0.0094449,-0.0626082,0.04728452,-0.01715153,0.02596983,0.021398963,0.058067173,-0.031355556,-0.033992663,0.014424327,0.011683614,-3.0,-0.18219823,-3.0,3.0,3.0,-3.0,-3.0,-3.0,-3.0,-3.0,-3.0,-3.0,-3.0,-0.45709234,-3.0,3.0,3.0,-3.0,-3.0,-3.0,-3.0,-3.0,-3.0,-3.0
2025-06-06 14:12:01.795,-0.019534647,-0.032345966,0.036516044,0.1057737,-0.028117886,-0.0030431068,0.0,0.0,0.0,0.016270177,-0.13753858,-0.095780335,-0.13592811,0.0627414,0.6352147,-0.1618694,-0.113975875,-0.56997037,-0.33178723,-0.104544096,-0.76735914,-0.29718113,0.049353823,0.027062062,0.01844016,0.015920881,0.02736932,-0.012690753,-0.009296795,-0.028783822,-0.020728989,-0.033127967,-0.010815276,-0.05664878,-3.0,-0.45709234,-3.0,3.0,3.0,-3.0,-3.0,-3.0,-3.0,-3.0,-3.0,-3.0,-3.0,-0.50330883,-3.0,3.0,3.0,-3.0,-3.0,-3.0,-3.0,-3.0,-3.0,-3.0
2025-06-06 14:12:01.815,0.017817404,0.032648597,-0.031225624,0.12218344,-0.008885203,0.02416953,0.0,0.0,0.0,0.016494943,-0.14291647,-0.093750104,-0.14193809,0.07088478,0.6517055,-0.16200241,-0.10061009,-0.5762744,-0.322025,-0.10851718,-0.76407886,-0.2941362,0.017874561,-0.06680429,-0.055147525,0.054006826,-0.004867124,0.00020683727,-0.054768633,-0.07302026,0.023193322,0.00037831243,0.025011264,0.012655901,-3.0,-0.50330883,-3.0,3.0,3.0,-3.0,-3.0,-3.0,-3.0,-3.0,-3.0,-3.0,-3.0,-0.09718603,-3.0,3.0,3.0,-3.0,-3.0,-3.0,-3.0,-3.0,-3.0,-3.0
2025-06-06 14:12:01.838,0.052301694,0.0013687027,0.015062261,0.14027898,-0.08489677,0.046451315,0.0,0.0,0.0,0.016739951,-0.14279403,-0.10038511,-0.12749839,0.07712151,0.64897263,-0.17698753,-0.11524243,-0.5797438,-0.33021918,-0.08948909,-0.7803118,-0.2879618,-0.022225568,0.06095957,-0.0040761493,0.040821116,-0.027336212,-0.0015952793,0.0045395773,0.036035564,-0.051265948,-0.008549739,-0.039165143,-0.02019729,-3.0,-0.09718603,-3.0,3.0,3.0,-3.0,-3.0,-3.0,-3.0,-3.0,-3.0,-3.0,-3.0,-0.3996212,-3.0,3.0,3.0,-3.0,-3.0,-3.0,-3.0,-3.0,-3.0,-3.0
2025-06-06 14:12:01.855,0.016124804,0.029428078,-0.03549503,0.13134278,-0.04387986,0.0033129028,0.0,0.0,0.0,0.016887715,-0.1443934,-0.08664405,-0.13312858,0.070753105,0.65534437,-0.17525437,-0.1015106,-0.57115084,-0.3292054,-0.09870736,-0.7840243,-0.28947493,-0.041407876,-0.02582998,-0.05026817,0.004858745,-0.014860157,0.046996124,0.04037573,-0.0061558695,0.046857864,0.030195713,-0.046921626,-0.017260455,-3.0,-0.3996212,-3.0,3.0,3.0,-3.0,-3.0,-3.0,-3.0,-3.0,-3.0,-3.0,-3.0,-0.1046316,-3.0,3.0,3.0,-3.0,-3.0,-3.0,-3.0,-3.0,-3.0,-3.0
2025-06-06 14:12:01.876,0.053302832,-0.014155547,0.0021077741,0.16558869,-0.06592664,-0.015080045,0.0,0.0,0.0,0.01700433,-0.15595011,-0.08950409,-0.13879779,0.06325933,0.64361465,-0.17204075,-0.108899556,-0.57373214,-0.3296644,-0.09908597,-0.770436,-0.30787614,-0.025200471,0.0014843263,0.05811516,0.046053566,0.06672738,0.021818113,0.07506415,0.014296917,0.018122857,-0.043131113,0.0013618612,-0.021745052,-3.0,-0.1046316,-3.0,3.0,3.0,-3.0,-3.0,-3.0,-3.0,-3.0,-3.0,-3.0,-3.0,-0.4727953,-3.0,3.0,3.0,-3.0,-3.0,-3.0,-3.0,-3.0,-3.0,-3.0
2025-06-06 14:12:01.896,0.03201571,-0.029075664,-0.011180432,0.09899259,-0.03459497,-0.017417602,0.0,0.0,0.0,0.017062863,-0.15263006,-0.08371514,-0.14869739,0.07666703,0.6466213,-0.17078793,-0.10964481,-0.57891154,-0.31862676,-0.105860755,-0.7762173,-0.3050648,-0.053811017,0.034992423,-0.0429521,0.041137926,0.010357898,0.057715934,0.055656575,0.009494355,-0.05483977,-0.015996847,0.050968572,0.06626914,-3.0,-0.4727953,-3.0,3.0,3.0,-3.0,-3.0,-3.0,-3.0,-3.0,-3.0,-3.0,-3.0,-0.40805596,-3.0,3.0,3.0,-3.0,-3.0,-3.0,-3.0,-3.0,-3.0,-3.0
2025-06-06 14:12:01.916,0.023094416,-0.040241748,-0.0067134965,0.09223649,-0.06611658,0.00789484,0.0,0.0,0.0,0.017133472,-0.15444823,-0.0969833,-0.13331482,0.06857978,0.65317816,-0.16291702,-0.11782439,-0.5824488,-0.3268516,-0.1060065,-0.76798564,-0.30711117,0.024975318,-0.03694045,0.05007622,0.044306446,-0.011352282,0.007102559,-0.054412507,-0.044469707,-0.045798015,0.017816514,0.00964966,-0.02814544,-3.0,-0.40805596,-3.0,3.0,3.0,-3.0,-3.0,-3.0,-3.0,-3.0,-3.0,-3.0,-3.0,-0.27110213,-3.0,3.0,3.0,-3.0,-3.0,-3.0,-3.0,-3.0,-3.0,-3.0
2025-06-06 14:12:01.938,-0.0049702185,0.032002684,-0.03954401,0.09818435,-0.022947272,-0.036447186,0.0,0.0,0.0,0.01724121,-0.15469241,-0.09289561,-0.1412647,0.06779835,0.6458032,-0.16280341,-0.10775954,-0.57352054,-0.32694936,-0.09938614,-0.7714795,-0.3072767,-0.05707776,-0.06694602,-0.049910393,-0.052840546,-0.038010977,0.03191189,-0.039897658,0.033990737,-0.0230021,-0.047747705,-0.06736939,0.065664954,-3.0,-0.27110213,-3.0,3.0,3.0,-3.0,-3.0,-3.0,-3.0,-3.0,-3.0,-3.0,-3.0,-0.20446008,-3.0,3.0,3.0,-3.0,-3.0,-3.0,-3.0,-3.0,-3.0,-3.0
2025-06-06 14:12:01.956,-0.02746276,-0.03305329,-0.010488102,0.12147637,-0.03887817,0.0016858655,0.0,0.0,0.0,0.017316356,-0.1470987,-0.09903846,-0.14378814,0.06567239,0.65603495,-0.15821747,-0.11458268,-0.57262784,-0.33654332,-0.09910947,-0.78193504,-0.30440533,0.010088296,0.04005381,-0.0463795,-0.059149176,-0.03903564,0.061523374,-0.0022992867,-0.026427781,0.011504952,0.025462607,0.004767289,0.061596405,-3.0,-0.20446008,-3.0,3.0,3.0,-3.0,-3.0,-3.0,-3.0,-3.0,-3.0,-3.0,-3.0,-0.5065078,-3.0,3.0,3.0,-3.0,-3.0,-3.0,-3.0,-3.0,-3.0,-3.0
2025-06-06 14:12:01.976,-0.0324397,-0.03194576,-0.0377901,0.14871126,-0.051851362,-0.009897833,0.0,0.0,0.0,0.01733318,-0.15429875,-0.10437575,-0.13255933,0.061533067,0.6468965,-0.15579294,-0.10189229,-0.5775483,-0.33019117,-0.10269269,-0.7793615,-0.30747524,0.037482955,-0.019064544,-0.0112870615,-0.030689616,-0.00799479,-0.00599525,0.070633635,-0.04772991,-0.00999163,-0.059412047,-0.015362663,-0.026086409,-3.0,-0.5065078,-3.0,3.0,3.0,-3.0,-3.0,-3.0,-3.0,-3.0,-3.0,-3.0,-3.0,-0.21983713,-3.0,3.0,3.0,-3.0,-3.0,-3.0,-3.0,-3.0,-3.0,-3.0
2025-06-06 14:12:02.046,0.011392466,0.039869446,-0.01868364,0.10180368,-0.078727014,-0.0024205567,0.0,0.0,0.0,0.017377872,-0.14384656,-0.103825,-0.14305757,0.07174476,0.65415674,-0.1529471,-0.10007866,-0.57972324,-0.33003667,-0.10578087,-0.7746223,-0.30208156,-0.019410025,-0.05468007,0.010100277,-0.020012604,0.061371207,0.004435848,0.036215525,0.06815794,0.028798785,-0.056321286,0.06837148,-0.07097848,-3.0,-0.21983713,-3.0,3.0,3.0,-3.0,-3.0,-3.0,-3.0,-3.0,-3.0,-3.0,-3.0,-0.3093862,-3.0,3.0,3.0,-3.0,-3.0,-3.0,-3.0,-3.0,-3.0,-3.0
2025-06-06 14:12:02.063,-0.023514511,-0.0076143174,0.00335286,0.12507784,-0.026290692,0.023665309,0.0,0.0,0.0,0.017405862,-0.16010219,-0.08914183,-0.13648574,0.06798996,0.6371964,-0.16289541,-0.10686785,-0.58386225,-0.33294737,-0.09028903,-0.77433234,-0.30399218,-0.074806616,-0.064232066,0.005806015,-0.03944159,-0.040812507,0.0014650415,0.03430609,0.010458058,-0.062079415,0.0005353783,0.0053375233,-0.05830659,-3.0,-0.3093862,-3.0,3.0,3.0,-3.0,-3.0,-3.0,-3.0,-3.0,-3.0,-3.0,-3.0,-0.3962614,-3.0,3.0,3.0,-3.0,-3.0,-3.0,-3.0,-3.0,-3.0,-3.0
2025-06-06 14:12:02.082,-0.041299842,0.013869406,-0.018914554,0.11367388,-0.07401547,-0.0015869513,0.0,0.0,0.0,0.017408423,-0.16096024,-0.10427455,-0.15206707,0.07477971,0.65303564,-0.16043265,-0.11634671,-0.56457335,-0.31752002,-0.099410236,-0.77869856,-0.29802153,0.0061565978,0.071513325,-0.036356416,-0.036106214,-0.009524898,0.05232476,0.073145606,0.033770446,-0.052143205,0.023201648,-0.069141,0.015710128,-3.0,-0.3962614,-3.0,3.0,3.0,-3.0,-3.0,-3.0,-3.0,-3.0,-3.0,-3.0,-3.0,-0.40733093,-3.0,3.0,3.0,-3.0,-3.0,-3.0,-3.0,-3.0,-3.0,-3.0
2025-06-06 14:12:02.105,0.03124917,0.02433942,0.0341688,0.16271478,-0.07508601,-0.037623726,0.0,0.0,0.0,0.017424881,-0.15541285,-0.101653375,-0.14999676,0.076378345,0.6384288,-0.15235619,-0.11170596,-0.570662,-0.33114973,-0.1054369,-0.77221614,-0.30054,0.066116266,0.041183613,0.070760936,-0.0023257756,0.041185565,-0.041055493,0.0003071025,-0.041772425,-0.042599216,-0.045765497,0.07200826,-0.026167357,-3.0,-0.40733093,-3.0,3.0,3.0,-3.0,-3.0,-3.0,-3.0,-3.0,-3.0,-3.0,-3.0,-0.65951437,-3.0,3.0,3.0,-3.0,-3.0,-3.0,-3.0,-3.0,-3.0,-3.0
2025-06-06 14:12:02.123,-0.050681766,0.02408175,-0.013054784,0.10720031,-0.017214417,0.024523117,0.0,0.0,0.0,0.017456569,-0.15933134,-0.09608904,-0.1353116,0.07048438,0.63965577,-0.15272218,-0.11545979,-0.5703938,-0.319654,-0.09028546,-0.772281,-0.31003386,-0.05407283,0.028462714,0.01536507,0.031252135,0.040867418,0.062189765,0.043435212,0.012156211,-0.049342982,0.021191295,-0.017428536,0.04063376,-3.0,-0.65951437,-3.0,3.0,3.0,-3.0,-3.0,-3.0,-3.0,-3.0,-3.0,-3.0,-3.0,-0.3517601,-3.0,3.0,3.0,-3.0,-3.0,-3.0,-3.0,-3.0,-3.0,-3.0
2025-06-06 14:12:02.143,-0.040324498,0.0375049,0.01902442,0.07342226,-0.020624567,0.045721374,0.0,0.0,0.0,0.0175419,-0.14455548,-0.1116349,-0.1359292,0.07683362,0.6458888,-0.15877771,-0.109100066,-0.5757819,-0.3285842,-0.089411415,-0.7697468,-0.30923232,-0.04078437,0.014376276,-0.044979572,-0.046276342,-0.03156265,-0.015805474,0.06333576,-0.054647338,0.0067221103,0.06506065,0.01755966,0.04276219,-3.0,-0.3517601,-3.0,3.0,3.0,-3.0,-3.0,-3.0,-3.0,-3.0,-3.0,-3.0,-3.0,-0.57933253,-3.0,3.0,3.0,-3.0,-3.0,-3.0,-3.0,-3.0,-3.0,-3.0
2025-06-06 14:12:02.163,-0.03155492,0.052176777,0.005313573,0.08407384,-0.0630545,-0.038024303,0.0,0.0,0.0,0.017600922,-0.14851634,-0.09843581,-0.14143544,0.062211968,0.65208614,-0.1691452,-0.100135356,-0.5837318,-0.32206035,-0.102280915,-0.78712595,-0.3109596,-0.03484796,-0.007312089,0.06773975,0.021719068,-0.07192834,-0.026894191,-0.015818475,-0.007758917,-0.036719594,-0.031472366,0.039540716,0.052012835,-3.0,-0.57933253,-3.0,3.0,3.0,-3.0,-3.0,-3.0,-3.0,-3.0,-3.0,-3.0,-3.0,-0.44207138,-3.0,3.0,3.0,-3.0,-3.0,-3.0,-3.0,-3.0,-3.0,-3.0
2025-06-06 14:12:02.183,0.02301158,0.018558402,0.030204166,0.13996124,-0.025691593,0.042356938,0.0,0.0,0.0,0.017646993,-0.14564522,-0.10757941,-0.14489941,0.06960414,0.64243853,-0.16842096,-0.10643222,-0.5918808,-0.33448705,-0.10332325,-0.7801524,-0.3206592,0.06808163,0.0645151,0.023578286,-0.0034875704,-0.016406666,-0.043147396,-0.06315247,0.036623366,0.07057324,-0.023182955,-0.024092011,0.00940258,-3.0,-0.44207138,-3.0,3.0,3.0,-3.0,-3.0,-3.0,-3.0,-3.0,-3.0,-3.0,-3.0,-0.49680012,-3.0,3.0,3.0,-3.0,-3.0,-3.0,-3.0,-3.0,-3.0,-3.0
2025-06-06 14:12:02.205,0.0320153,-0.034456503,-0.040475648,0.06862443,-0.05127236,-0.0017864056,0.0,0.0,0.0,0.017672742,-0.15102826,-0.117843725,-0.1255853,0.073619924,0.6546442,-0.15958188,-0.109672874,-0.5802657,-0.32672054,-0.08809225,-0.7744638,-0.32340974,-0.07359887,-0.035853103,-0.01503153,0.0700082,-0.026776958,0.016041536,0.0063724774,0.015473414,-0.036785387,0.00016664264,-0.04644719,0.05927382,-3.0,-0.49680012,-3.0,3.0,3.0,-3.0,-3.0,-3.0,-3.0,-3.0,-3.0,-3.0,-3.0,-0.16536564,-3.0,3.0,3.0,-3.0,-3.0,-3.0,-3.0,-3.0,-3.0,-3.0
2025-06-06 14:12:02.223,-0.029480478,-0.012699214,0.025037361,0.113995716,-0.055317055,-0.02861898,0.0,0.0,0.0,0.01767966,-0.1521326,-0.10263682,-0.12644993,0.079672895,0.6509051,-0.15581593,-0.10775163,-0.57850903,-0.33545437,-0.09734082,-0.7841819,-0.31553277,-0.052886955,0.049523216,0.001189634,0.07814955,-0.00305091,0.07360268,0.027919836,0.007141761,0.06388083,0.060432542,0.06834527,0.04432626,-3.0,-0.16536564,-3.0,3.0,3.0,-3.0,-3.0,-3.0,-3.0,-3.0,-3.0,-3.0,-3.0,-0.67990714,-3.0,3.0,3.0,-3.0,-3.0,-3.0,-3.0,-3.0,-3.0,-3.0
2025-06-06 14:12:02.243,0.013001072,-0.0304388,-0.0069103115,0.12915833,-0.06305279,-0.0040188297,0.0,0.0,0.0,0.017615633,-0.15801005,-0.10851063,-0.13054454,0.07157694,0.65289545,-0.16439804,-0.10443733,-0.588378,-0.3369776,-0.08938531,-0.7839666,-0.310117,0.022188729,0.06578993,-0.068946056,-0.0443182,0.015945774,0.06274915,-0.07107134,0.058757003,0.025430033,-0.06003519,-0.043429498,0.0685907,-3.0,-0.67990714,-3.0,3.0,3.0,-3.0,-3.0,-3.0,-3.0,-3.0,-3.0,-3.0,-3.0,-0.42616767,-3.0,3.0,3.0,-3.0,-3.0,-3.0,-3.0,-3.0,-3.0,-3.0
2025-06-06 14:12:02.263,0.044948686,0.0070738704,0.015543201,0.11843246,-0.07432822,0.0027917724,0.0,0.0,0.0,0.017605495,-0.14980488,-0.10909701,-0.13008057,0.066924654,0.63917875,-0.16407639,-0.10600977,-0.5831213,-0.33061993,-0.09528091,-0.7689078,-0.32476607,-0.017048927,0.0320443,-0.042771272,0.022286251,0.041949626,0.0656013,0.05303371,-0.05874222,0.0080664335,-0.013053082,-0.068491004,0.060195323,-3.0,-0.42616767,-3.0,3.0,3.0,-3.0,-3.0,-3.0,-3.0,-3.0,-3.0,-3.0,-3.0,-0.6324232,-3.0,3.0,3.0,-3.0,-3.0,-3.0,-3.0,-3.0,-3.0,-3.0
2025-06-06 14:12:02.283,0.023291953,-0.024920199,0.03318409,0.11889921,-0.03360675,-0.008636523,0.0,0.0,0.0,0.017624693,-0.15036106,-0.1182423,-0.13784541,0.08201392,0.65478826,-0.16699418,-0.1185926,-0.5795334,-0.33743268,-0.09216835,-0.7820372,-0.31036127,-0.07653368,0.014699786,0.033359796,-0.0053048646,0.019680498,-0.00018253546,-0.023212634,0.0589387,0.06276108,0.04127698,-0.07469652,0.03143805,-3.0,-0.6324232,-3.0,3.0,3.0,-3.0,-3.0,-3.0,-3.0,-3.0,-3.0,-3.0,-3.0,-0.5421067,-3.0,3.0,3.0,-3.0,-3.0,-3.0,-3.0,-3.0,-3.0,-3.0
2025-06-06 14:12:02.305,-0.03540161,0.04549795,-0.0036705155,0.16318356,-0.0014894734,-0.020970365,0.0,0.0,0.0,0.017673569,-0.16419266,-0.11198685,-0.13024202,0.07878238,0.6375129,-0.16025993,-0.105239026,-0.5933863,-0.3277866,-0.10478877,-0.7765569,-0.319698,0.032544963,0.027596239,0.056074023,0.067854,0.07439851,0.053650703,0.05842538,-0.05796823,-0.0072964183,-0.07103197,-0.05696126,-0.03551522,-3.0,-0.5421067,-3.0,3.0,3.0,-3.0,-3.0,-3.0,-3.0,-3.0,-3.0,-3.0,-3.0,-0.43645066,-3.0,3.0,3.0,-3.0,-3.0,-3.0,-3.0,-3.0,-3.0,-3.0
2025-06-06 14:12:02.323,0.013434557,-0.032048404,-0.018082013,0.12227087,-0.0063260063,0.03225744,0.0,0.0,0.0,0.017732376,-0.1570848,-0.12130706,-0.13517065,0.080109864,0.64537543,-0.16812018,-0.11862071,-0.58070105,-0.32349074,-0.1039916,-0.7802002,-0.32673022,0.0006207272,-0.06168279,-0.036829375,-0.07187934,-0.034629326,-0.04213407,-0.0034901362,0.04499177,-0.022589393,-0.045781337,-0.026962867,0.018846408,-3.0,-0.43645066,-3.0,3.0,3.0,-3.0,-3.0,-3.0,-3.0,-3.0,-3.0,-3.0,-3.0,-0.19969076,-3.0,3.0,3.0,-3.0,-3.0,-3.0,-3.0,-3.0,-3.0,-3.0
2025-06-06 14:12:02.343,-0.008427796,-0.026662236,-0.011064707,0.06984367,-0.08971206,0.026859775,0.0,0.0,0.0,0.017758096,-0.14436936,-0.11300382,-0.13505821,0.067420036,0.65478534,-0.16093744,-0.10861269,-0.5774753,-0.33041802,-0.09325543,-0.7782221,-0.32327852,0.029010866,-0.021203289,0.029606683,-0.010227598,-0.017040249,0.03012715,0.070815556,-0.0037111123,0.0070292903,0.008499298,0.0017281463,0.05608344,-3.0,-0.19969076,-3.0,3.0,3.0,-3.0,-3.0,-3.0,-3.0,-3.0,-3.0,-3.0,-3.0,-0.4548921,-3.0,3.0,3.0,-3.0,-3.0,-3.0,-3.0,-3.0,-3.0,-3.0
2025-06-06 14:12:02.363,0.02059302,0.04193679,-0.04837247,0.10165491,-0.027974049,-0.036117557,0.0,0.0,0.0,0.017709674,-0.148335,-0.12337972,-0.140771,0.07081141,0.6558013,-0.16061042,-0.10436597,-0.58982646,-0.3255834,-0.09974,-0.78372246,-0.3232239,0.028818391,-0.047354355,-0.074068405,0.038743246,0.05704846,0.06278193,-0.03579218,0.0072393925,0.033888727,-0.014805279,0.030230375,-0.06052783,-3.0,-0.4548921,-3.0,3.0,3.0,-3.0,-3.0,-3.0,-3.0,-3.0,-3.0,-3.0,-3.0,-0.13770074,-3.0,3.0,3.0,-3.0,-3.0,-3.0,-3.0,-3.0,-3.0,-3.0
2025-06-06 14:12:02.384,0.011404676,-0.024285102,-0.043544047,0.12719262,-0.047378857,-0.02754862,0.0,0.0,0.0,0.01766911,-0.16054946,-0.107206024,-0.13465026,0.06718976,0.65494525,-0.16012263,-0.117303744,-0.59055436,-0.32166636,-0.0973437,-0.772507,-0.31859222,-0.05875845,-0.041532483,0.0076854234,-0.047663502,0.07765411,-0.004000966,0.029328197,0.003908943,-0.011138354,-0.06422443,0.009960599,0.07150482,-3.0,-0.13770074,-3.0,3.0,3.0,-3.0,-3.0,-3.0,-3.0,-3.0,-3.0,-3.0,-3.0,-0.34672207,-3.0,3.0,3.0,-3.0,-3.0,-3.0,-3.0,-3.0,-3.0,-3.0
2025-06-06 14:12:02.405,0.0513824,0.0347059,-0.007230365,0.15580377,-0.07307232,0.006095587,0.0,0.0,0.0,0.01760673,-0.14680403,-0.116578035,-0.14291477,0.07737027,0.6568531,-0.17113304,-0.11232671,-0.58338577,-0.32314038,-0.096920796,-0.7714516,-0.30972296,-0.07416251,0.06597083,-0.0033358096,0.04494989,0.013890485,0.05199564,0.06057019,0.029141977,0.05717397,0.004588586,0.04452656,0.041003484,-3.0,-0.34672207,-3.0,3.0,3.0,-3.0,-3.0,-3.0,-3.0,-3.0,-3.0,-3.0,-3.0,-0.4840514,-3.0,3.0,3.0,-3.0,-3.0,-3.0,-3.0,-3.0,-3.0,-3.0
2025-06-06 14:12:02.424,0.011071629,-0.01890128,-0.046165273,0.14333242,-0.06900398,-0.002756555,0.0,0.0,0.0,0.017560605,-0.1533454,-0.10361757,-0.13591258,0.08555539,0.65440553,-0.16074626,-0.106604435,-0.5750261,-0.33555397,-0.08963894,-0.78738785,-0.30820197,-0.01141111,0.040729295,0.024453366,0.023084851,0.04771413,-0.014746896,-0.036241405,0.01827529,-0.014703307,0.01201439,-0.0073792613,-0.044255964,-3.0,-0.4840514,-3.0,3.0,3.0,-3.0,-3.0,-3.0,-3.0,-3.0,-3.0,-3.0,-3.0,-0.041472137,-3.0,3.0,3.0,-3.0,-3.0,-3.0,-3.0,-3.0,-3.0,-3.0
2025-06-06 14:12:02.444,0.0177448,-0.0054736133,-0.04143883,0.12450655,-0.014822825,-0.042827383,0.0,0.0,0.0,0.017586753,-0.15577029,-0.098820604,-0.15025528,0.07243801,0.6460891,-0.16768838,-0.10250443,-0.57381195,-0.32075664,-0.10265234,-0.78724235,-0.3229078,-0.052290954,-0.034008548,-0.059835013,0.057855092,0.062637545,-0.062436424,0.054893542,0.016804302,-0.016112564,0.03317836,-0.010322824,0.024545986,-3.0,-0.041472137,-3.0,3.0,3.0,-3.0,-3.0,-3.0,-3.0,-3.0,-3.0,-3.0,-3.0,-0.20966214,-3.0,3.0,3.0,-3.0,-3.0,-3.0,-3.0,-3.0,-3.0,-3.0
2025-06-06 14:12:02.464,0.048125938,0.030757438,0.031759053,0.167207,0.005528363,0.015315838,0.0,0.0,0.0,0.017574513,-0.14558747,-0.105029196,-0.13699406,0.081195496,0.65442944,-0.1697711,-0.1119546,-0.58122134,-0.3287861,-0.09025162,-0.77195257,-0.30935,0.010628834,0.009694807,0.0005202026,0.043746788,-0.019772379,-0.008761476,-0.065315306,0.053342436,-0.010101433,-0.05143271,0.029509768,0.0687006,-3.0,-0.20966214,-3.0,3.0,3.0,-3.0,-3.0,-3.0,-3.0,-3.0,-3.0,-3.0,-3.0,-0.55053467,-3.0,3.0,3.0,-3.0,-3.0,-3.0,-3.0,-3.0,-3.0,-3.0
2025-06-06 14:12:02.484,-0.01855641,-0.030832699,0.02452995,0.15788941,-0.040049598,0.004988862,0.0,0.0,0.0,0.017539443,-0.14399977,-0.104870655,-0.14193894,0.066715375,0.65728915,-0.17133209,-0.10519658,-0.5804869,-0.32541233,-0.09350837,-0.7800545,-0.3110271,-0.03770072,-0.06655723,0.030782776,-0.04978041,0.0047553107,0.04421455,0.066021,0.04888823,0.05338338,0.027489388,0.036990535,-0.03302658,-3.0,-0.55053467,-3.0,3.0,3.0,-3.0,-3.0,-3.0,-3.0,-3.0,-3.0,-3.0,-3.0,-0.531287,-3.0,3.0,3.0,-3.0,-3.0,-3.0,-3.0,-3.0,-3.0,-3.0
2025-06-06 14:12:02.505,0.041235663,0.033036582,-0.04846492,0.08783077,-0.024078868,-0.022401119,0.0,0.0,0.0,0.017593626,-0.16115913,-0.110426255,-0.13855405,0.07386369,0.6576295,-0.15902689,-0.112475745,-0.56810915,-0.32215217,-0.1026998,-0.78656965,-0.3139172,0.058475815,-0.058264628,0.050739508,-0.047954652,-0.065059,-0.0021894698,-0.07401318,-0.009089879,-0.018418234,0.038851466,0.045158267,-0.014218748,-3.0,-0.531287,-3.0,3.0,3.0,-3.0,-3.0,-3.0,-3.0,-3.0,-3.0,-3.0,-3.0,0.008384762,-3.0,3.0,3.0,-3.0,-3.0,-3.0,-3.0,-3.0,-3.0,-3.0
2025-06-06 14:12:02.524,0.022963723,-0.02302108,-0.00084914634,0.1652788,-0.034463145,0.042833064,0.0,0.0,0.0,0.017722161,-0.1492725,-0.10154317,-0.14048274,0.07686256,0.66192126,-0.16150552,-0.10011562,-0.5674785,-0.31682247,-0.090856016,-0.7870406,-0.30713126,0.059399065,0.018412583,0.04829387,-0.00072829245,0.01447825,-0.0411093,-0.033967927,-0.010594247,0.07354876,0.064644806,0.056174796,-0.024291854,-3.0,0.008384762,-3.0,3.0,3.0,-3.0,-3.0,-3.0,-3.0,-3.0,-3.0,-3.0,-3.0,-0.37117165,-3.0,3.0,3.0,-3.0,-3.0,-3.0,-3.0,-3.0,-3.0,-3.0
2025-06-06 14:12:02.544,-0.025062406,0.01996276,-0.030035399,0.076849006,-0.055105764,-0.047022868,0.0,0.0,0.0,0.017756276,-0.14917886,-0.09382235,-0.15124598,0.084200226,0.6571035,-0.16260797,-0.11394449,-0.5659268,-0.32098696,-0.09186064,-0.78430986,-0.30055535,-0.020720681,0.050709046,-0.017840255,-0.07477716,0.07416552,-0.0058420636,0.06409879,0.0028756273,0.006781195,0.06954605,-0.06117294,0.02997448,-3.0,-0.37117165,-3.0,3.0,3.0,-3.0,-3.0,-3.0,-3.0,-3.0,-3.0,-3.0,-3.0,-0.32990736,-3.0,3.0,3.0,-3.0,-3.0,-3.0,-3.0,-3.0,-3.0,-3.0
2025-06-06 14:12:02.564,0.010509225,0.010877812,-0.019124866,0.08140558,0.00094367325,0.049486898,0.0,0.0,0.0,0.0177588,-0.14649987,-0.10747592,-0.14321981,0.0790401,0.6638405,-0.1608311,-0.11698955,-0.57401377,-0.3328282,-0.10223806,-0.78144795,-0.3166415,0.01149129,-0.006916843,0.018316759,-0.002806752,-0.04286852,-0.033811126,-0.03452305,-0.015610314,0.06582293,0.03211681,-0.009617447,0.047006294,-3.0,-0.32990736,-3.0,3.0,3.0,-3.0,-3.0,-3.0,-3.0,-3.0,-3.0,-3.0,-3.0,-0.21525258,-3.0,3.0,3.0,-3.0,-3.0,-3.0,-3.0,-3.0,-3.0,-3.0
2025-06-06 14:12:02.584,-0.020293767,0.04772464,-0.0046510706,0.16444564,-0.064501055,0.0346732,0.0,0.0,0.0,0.01777859,-0.15331797,-0.09196763,-0.14906417,0.06633075,0.6652379,-0.15764147,-0.10089277,-0.5761067,-0.32641974,-0.09236411,-0.78408927,-0.31441274,-0.030002672,0.041346423,0.028425409,-0.013247906,-0.008307946,0.069074884,0.01468117,-0.051030405,-0.0017850524,0.059690416,0.035400864,0.055586386,-3.0,-0.21525258,-3.0,3.0,3.0,-3.0,-3.0,-3.0,-3.0,-3.0,-3.0,-3.0,-3.0,-0.60421723,-3.0,3.0,3.0,-3.0,-3.0,-3.0,-3.0,-3.0,-3.0,-3.0
2025-06-06 14:12:02.605,0.026954437,0.0043360335,0.04539205,0.1220301,-0.0062566306,-0.048721444,0.0,0.0,0.0,0.017776705,-0.14865954,-0.10536715,-0.14948615,0.0672554,0.65234625,-0.16272902,-0.1094662,-0.5692372,-0.32352465,-0.101304635,-0.77552813,-0.29961714,0.04066966,-0.055543765,0.03660636,-0.009669483,-0.031891596,-0.06962126,0.0618748,0.06895991,0.058888216,-0.035007782,0.008678798,0.009773774,-3.0,-0.60421723,-3.0,3.0,3.0,-3.0,-3.0,-3.0,-3.0,-3.0,-3.0,-3.0,-3.0,-0.54705364,-3.0,3.0,3.0,-3.0,-3.0,-3.0,-3.0,-3.0,-3.0,-3.0
2025-06-06 14:12:02.624,0.011607277,-0.03293641,0.010008315,0.14369616,-0.07761343,0.008909835,0.0,0.0,0.0,0.017829204,-0.14969234,-0.10193424,-0.13877329,0.066013165,0.64593804,-0.17003247,-0.09897503,-0.57294995,-0.3300321,-0.09455349,-0.7762626,-0.3117455,0.021303544,-0.020256547,-0.059351273,-0.06417384,0.04334806,-0.04953746,-0.03983758,-0.0016858106,-0.02264865,-0.046136227,0.04346645,0.01336257,-3.0,-0.54705364,-3.0,3.0,3.0,-3.0,-3.0,-3.0,-3.0,-3.0,-3.0,-3.0,-3.0,-0.4389848,-3.0,3.0,3.0,-3.0,-3.0,-3.0,-3.0,-3.0,-3.0,-3.0
2025-06-06 14:12:02.644,-0.030101096,0.007603736,0.030654868,0.08888369,-0.039558187,-0.021696113,0.0,0.0,0.0,0.017924037,-0.14604965,-0.09962124,-0.13689765,0.064593405,0.6469072,-0.16612129,-0.10463115,-0.5844725,-0.31984192,-0.095567316,-0.79014087,-0.30229762,-0.027881896,-0.034184407,0.042360086,-0.06834448,-0.07453807,-0.017384788,-0.047616612,0.023148466,-0.0163841,0.043893497,-0.03906629,0.055500925,-3.0,-0.4389848,-3.0,3.0,3.0,-3.0,-3.0,-3.0,-3.0,-3.0,-3.0,-3.0,-3.0,-0.56223756,-3.0,3.0,3.0,-3.0,-3.0,-3.0,-3.0,-3.0,-3.0,-3.0
2025-06-06 14:12:02.664,-0.024314035,0.009609158,0.03487915,0.1432831,-0.0063315285,-0.0013674289,0.0,0.0,0.0,0.017989667,-0.1479336,-0.11619269,-0.13862824,0.0681905,0.6499747,-0.16023853,-0.107434615,-0.57486546,-0.32143643,-0.10859096,-0.77979696,-0.30154487,-0.0048498036,-0.044715818,-0.002790604,0.06441494,0.0022813831,-0.045878183,0.02221506,-0.010743303,0.02895412,-0.052636016,-0.037325542,0.06110251,-3.0,-0.56223756,-3.0,3.0,3.0,-3.0,-3.0,-3.0,-3.0,-3.0,-3.0,-3.0,-3.0,-0.5282617,-3.0,3.0,3.0,-3.0,-3.0,-3.0,-3.0,-3.0,-3.0,-3.0
2025-06-06 14:12:02.687,-0.020564094,-0.005637613,0.0028022763,0.117166355,-0.065923564,0.03169686,0.0,0.0,0.0,0.018035058,-0.15822834,-0.11496069,-0.14559504,0.07060803,0.6406139,-0.16299388,-0.11261059,-0.5839445,-0.31637958,-0.0946996,-0.7778417,-0.30175558,-0.048274525,-0.03127263,0.04517431,0.05048607,-0.017429302,0.014166872,-0.06288697,0.029033752,0.04880724,-0.002188292,0.052922837,-0.05395859,-3.0,-0.5282617,-3.0,3.0,3.0,-3.0,-3.0,-3.0,-3.0,-3.0,-3.0,-3.0,-3.0,-0.3107564,-3.0,3.0,3.0,-3.0,-3.0,-3.0,-3.0,-3.0,-3.0,-3.0
2025-06-06 14:12:02.705,0.021743357,0.047913406,-0.019959057,0.15614218,-0.0636362,0.02315272,0.0,0.0,0.0,0.018061677,-0.15989168,-0.11601636,-0.14015956,0.07286007,0.65657467,-0.14956166,-0.110941574,-0.5704561,-0.32707956,-0.09776439,-0.7816465,-0.32109505,0.0106184,0.014930221,0.003834286,0.05827843,0.009143367,-0.05597013,-0.059315167,0.07269751,-0.012208087,0.013195332,0.028288873,-0.008121347,-3.0,-0.3107564,-3.0,3.0,3.0,-3.0,-3.0,-3.0,-3.0,-3.0,-3.0,-3.0,-3.0,-0.23663563,-3.0,3.0,3.0,-3.0,-3.0,-3.0,-3.0,-3.0,-3.0,-3.0
2025-06-06 14:12:02.725,-0.036354035,-0.037873153,0.030412281,0.1184184,-0.051864423,-0.041661736,0.0,0.0,0.0,0.01802103,-0.14792866,-0.10851375,-0.13363457,0.06651683,0.6431506,-0.15534386,-0.10186435,-0.5696083,-0.32589373,-0.10782024,-0.7801204,-0.32353148,0.07498085,0.05769588,0.061437804,0.010984072,-0.022554595,-0.044190988,0.019861244,-0.023580996,0.03757967,0.06624778,0.012203489,-0.037025068,-3.0,-0.23663563,-3.0,3.0,3.0,-3.0,-3.0,-3.0,-3.0,-3.0,-3.0,-3.0,-3.0,-0.6215448,-3.0,3.0,3.0,-3.0,-3.0,-3.0,-3.0,-3.0,-3.0,-3.0
2025-06-06 14:12:02.745,0.010568563,-0.02635169,0.028472189,0.08617909,-0.07132826,-0.047661513,0.0,0.0,0.0,0.017911576,-0.14500885,-0.11002463,-0.14547159,0.08302813,0.65436083,-0.15735666,-0.09859332,-0.58527184,-0.317908,-0.10226798,-0.7723307,-0.30710346,0.031742252,0.065907545,0.06712857,0.025342992,0.03422818,0.043010164,-0.015254906,0.057644043,-0.028390862,-0.012052848,0.07450888,-0.007737787,-3.0,-0.6215448,-3.0,3.0,3.0,-3.0,-3.0,-3.0,-3.0,-3.0,-3.0,-3.0,-3.0,-0.6147203,-3.0,3.0,3.0,-3.0,-3.0,-3.0,-3.0,-3.0,-3.0,-3.0
2025-06-06 14:12:02.765,-0.04984076,-0.038322203,0.017937765,0.16199201,-0.0580189,0.03533015,0.0,0.0,0.0,0.017853932,-0.14787109,-0.10594869,-0.14466242,0.07420028,0.65101266,-0.16761518,-0.108197734,-0.5739481,-0.32290924,-0.10369223,-0.78940755,-0.31353018,0.071137264,-0.036055062,0.07133525,0.01138843,0.004298945,-0.059234638,-0.04864369,0.0011997772,-0.06345255,-0.014008411,0.01934314,0.013352197,-3.0,-0.6147203,-3.0,3.0,3.0,-3.0,-3.0,-3.0,-3.0,-3.0,-3.0,-3.0,-3.0,-0.36445373,-3.0,3.0,3.0,-3.0,-3.0,-3.0,-3.0,-3.0,-3.0,-3.0
2025-06-06 14:12:02.789,0.00860963,-0.009409035,0.04555755,0.14863977,-0.084966786,0.0063434844,0.0,0.0,0.0,0.01786454,-0.1476278,-0.11321815,-0.13593689,0.07707053,0.6392711,-0.16727255,-0.11531242,-0.5814719,-0.33057046,-0.09956339,-0.780653,-0.32054722,0.039995693,0.031626638,-0.03441057,-0.05860711,-0.005997194,0.015698124,-0.03151268,-0.050736066,-0.062172193,-0.013060758,0.022011293,-0.068442024,-3.0,-0.36445373,-3.0,3.0,3.0,-3.0,-3.0,-3.0,-3.0,-3.0,-3.0,-3.0,-3.0,-0.689552,-3.0,3.0,3.0,-3.0,-3.0,-3.0,-3.0,-3.0,-3.0,-3.0
2025-06-06 14:12:02.805,-0.026497532,0.026750933,-0.03794438,0.110694975,-0.08346515,0.02122149,0.0,0.0,0.0,0.017853497,-0.15959394,-0.108435735,-0.13258576,0.08388198,0.6466937,-0.15277041,-0.108262435,-0.58988357,-0.32715064,-0.09571005,-0.77536845,-0.3262578,0.020066291,0.02203461,-0.04593175,-0.056478046,-0.009592423,-0.04876299,0.0623553,-0.030431738,-0.04027079,-0.023643704,0.05254756,0.0069451365,-3.0,-0.689552,-3.0,3.0,3.0,-3.0,-3.0,-3.0,-3.0,-3.0,-3.0,-3.0,-3.0,-0.22890085,-3.0,3.0,3.0,-3.0,-3.0,-3.0,-3.0,-3.0,-3.0,-3.0
2025-06-06 14:12:02.825,0.016459426,0.049125165,-0.043622013,0.1653491,0.002201001,0.030755782,0.0,0.0,0.0,0.017869532,-0.16475148,-0.111260615,-0.12965062,0.06831524,0.6361831,-0.15780859,-0.099763356,-0.58365774,-0.32843935,-0.090755925,-0.7823984,-0.31440932,0.0070176143,-0.02468233,0.032018013,0.060218297,-0.032968473,0.028528824,-0.07185908,0.036184367,0.05350986,-0.04757546,-0.014982809,-0.036449566,-3.0,-0.22890085,-3.0,3.0,3.0,-3.0,-3.0,-3.0,-3.0,-3.0,-3.0,-3.0,-3.0,-0.046008527,-3.0,3.0,3.0,-3.0,-3.0,-3.0,-3.0,-3.0,-3.0,-3.0
2025-06-06 14:12:02.845,0.0659621,-0.011479731,-0.0017513311,0.14389625,-0.031725258,0.017333383,0.0,0.0,0.0,0.017837089,-0.14573123,-0.10732348,-0.13808809,0.07922448,0.6394719,-0.16288766,-0.10189068,-0.5722715,-0.33127543,-0.10179444,-0.7771817,-0.31409717,0.0049175858,0.02592477,-0.06920821,-0.024310667,-0.02955401,-0.027335431,-0.07122806,-0.00691716,-0.0297556,-0.009516509,-0.030787837,-0.007279599,-3.0,-0.046008527,-3.0,3.0,3.0,-3.0,-3.0,-3.0,-3.0,-3.0,-3.0,-3.0,-3.0,-0.37130994,-3.0,3.0,3.0,-3.0,-3.0,-3.0,-3.0,-3.0,-3.0,-3.0
2025-06-06 14:12:02.865,-0.01833546,0.028269839,-0.004265598,0.06997729,-0.019421805,-0.010392323,0.0,0.0,0.0,0.017706504,-0.14362259,-0.1083319,-0.13660917,0.07873175,0.64421606,-0.15758775,-0.1088384,-0.58361995,-0.3213793,-0.10112034,-0.77979,-0.32756636,-0.044168636,0.048800543,-0.01830747,0.0698448,-0.038414355,0.021833474,-0.064602494,0.0017385648,0.03408682,-0.017355977,0.02916985,0.029234868,-3.0,-0.37130994,-3.0,3.0,3.0,-3.0,-3.0,-3.0,-3.0,-3.0,-3.0,-3.0,-3.0,-0.385868,-3.0,3.0,3.0,-3.0,-3.0,-3.0,-3.0,-3.0,-3.0,-3.0
2025-06-06 14:12:02.889,0.0452292,-0.021628749,-0.045261104,0.11257502,-0.058011293,-0.044637978,0.0,0.0,0.0,0.017603442,-0.159617,-0.104684964,-0.14354734,0.0809834,0.6446213,-0.15682022,-0.11587326,-0.58361936,-0.33196843,-0.102774315,-0.77492136,-0.31751648,0.0637634,0.071534835,-0.037774112,-0.07300038,-0.021739699,-0.0071382085,-0.035524942,-0.052276228,0.023817927,0.0017231132,-0.050431598,0.01545506,-3.0,-0.385868,-3.0,3.0,3.0,-3.0,-3.0,-3.0,-3.0,-3.0,-3.0,-3.0,-3.0,-0.22208303,-3.0,3.0,3.0,-3.0,-3.0,-3.0,-3.0,-3.0,-3.0,-3.0
2025-06-06 14:12:02.905,0.04910731,0.04300979,-0.011664421,0.08918921,-0.04893524,0.005894279,0.0,0.0,0.0,0.0175746,-0.14757039,-0.099968806,-0.15014538,0.08369036,0.6506485,-0.16610783,-0.11065443,-0.5798777,-0.32566527,-0.0906723,-0.7718817,-0.31061763,-0.002798888,-0.06550203,-0.07422455,-0.021697091,-0.0055537787,0.0375237,0.073162705,-0.020435877,-0.061368898,-0.036729086,0.05596987,0.065938085,-3.0,-0.22208303,-3.0,3.0,3.0,-3.0,-3.0,-3.0,-3.0,-3.0,-3.0,-3.0,-3.0,-0.45375556,-3.0,3.0,3.0,-3.0,-3.0,-3.0,-3.0,-3.0,-3.0,-3.0
2025-06-06 14:12:02.925,-0.031199232,0.044838224,-0.0061164307,0.076712795,-0.09126153,-0.023083856,0.0,0.0,0.0,0.017563593,-0.15894769,-0.10888245,-0.13769794,0.068539105,0.65867895,-0.16422439,-0.10441728,-0.5792242,-0.32479978,-0.101082616,-0.77546954,-0.32028475,-0.07310181,0.05590023,-0.042465467,-0.004995834,-0.0059393076,0.024062892,-0.029493093,-0.0416974,0.027230436,0.011830607,0.038767166,0.054600555,-3.0,-0.45375556,-3.0,3.0,3.0,-3.0,-3.0,-3.0,-3.0,-3.0,-3.0,-3.0,-3.0,-0.5430195,-3.0,3.0,3.0,-3.0,-3.0,-3.0,-3.0,-3.0,-3.0,-3.0
2025-06-06 14:12:02.945,0.020769104,0.0077802455,-0.017099822,0.12458873,-0.06180083,0.029080827,0.0,0.0,0.0,0.017599488,-0.14963,-0.10099945,-0.1519265,0.07792596,0.65070194,-0.1583547,-0.09947711,-0.58401716,-0.32694986,-0.10663103,-0.7786558,-0.32009032,-0.028440254,-0.053577416,0.0034269996,0.009549467,0.020008044,-0.008005014,-0.015872443,0.03626039,0.042210627,-0.07479909,-0.045807544,0.045993894,-3.0,-0.5430195,-3.0,3.0,3.0,-3.0,-3.0,-3.0,-3.0,-3.0,-3.0,-3.0,-3.0,-0.27844423,-3.0,3.0,3.0,-3.0,-3.0,-3.0,-3.0,-3.0,-3.0,-3.0
2025-06-06 14:12:02.965,0.053859077,-0.020392938,-0.04242636,0.15517998,-0.07538455,0.043978028,0.0,0.0,0.0,0.017699316,-0.16234598,-0.11366769,-0.1413976,0.08355844,0.64441067,-0.17158985,-0.110112794,-0.5685591,-0.3288172,-0.09327409,-0.7833349,-0.31525573,0.03036232,-0.059597407,-0.032469068,-0.0033153237,0.043101035,0.06076426,-0.067675576,0.0039948565,-0.01844653,-0.018510452,-0.023878016,0.06270299,-3.0,-0.27844423,-3.0,3.0,3.0,-3.0,-3.0,-3.0,-3.0,-3.0,-3.0,-3.0,-3.0,-0.12653941,-3.0,3.0,3.0,-3.0,-3.0,-3.0,-3.0,-3.0,-3.0,-3.0
2025-06-06 14:12:02.989,-0.02780993,-0.008610054,-0.028181076,0.11151556,-0.021442562,0.04702234,0.0,0.0,0.0,0.01777529,-0.15067865,-0.09787234,-0.14502713,0.06733874,0.64743954,-0.16655914,-0.1177217,-0.57283056,-0.33415967,-0.108484976,-0.7793522,-0.3085557,0.07497797,-0.046936065,-0.063782506,0.029226488,-0.047938082,0.06047237,0.06491364,-0.03427498,-0.018009389,0.029833032,0.07497591,0.026097894,-3.0,-0.12653941,-3.0,3.0,3.0,-3.0,-3.0,-3.0,-3.0,-3.0,-3.0,-3.0,-3.0,-0.24604648,-3.0,3.0,3.0,-3.0,-3.0,-3.0,-3.0,-3.0,-3.0,-3.0
2025-06-06 14:12:03.006,-0.0035771204,0.04741019,-0.03706544,0.13018268,-0.045717154,0.015932411,0.0,0.0,0.0,0.017773591,-0.1583314,-0.10125984,-0.14529592,0.084526576,0.6534212,-0.17021947,-0.10233916,-0.57161623,-0.32727733,-0.10448928,-0.77151066,-0.31120357,-0.048396956,0.026607046,-0.050574966,-0.0101610515,0.038962588,-0.032868944,-0.0054388624,0.036430586,-0.059157282,-0.03413915,0.039487153,-0.011546988,-3.0,-0.24604648,-3.0,3.0,3.0,-3.0,-3.0,-3.0,-3.0,-3.0,-3.0,-3.0,-3.0,-0.1722216,-3.0,3.0,3.0,-3.0,-3.0,-3.0,-3.0,-3.0,-3.0,-3.0
2025-06-06 14:12:03.026,0.038238253,-0.04845903,-0.012063061,0.07540047,-0.044891372,-0.00040588796,0.0,0.0,0.0,0.017744243,-0.15077136,-0.10560216,-0.14896019,0.070550285,0.66481364,-0.15393694,-0.09902726,-0.5699923,-0.3196754,-0.10201048,-0.7755988,-0.31929243,0.05284147,-0.06933287,-0.069310404,-0.020730603,-0.060809996,0.012947778,0.0443032,0.0025078836,-0.016395394,0.022352418,-0.02076007,0.06916149,-3.0,-0.1722216,-3.0,3.0,3.0,-3.0,-3.0,-3.0,-3.0,-3.0,-3.0,-3.0,-3.0,-0.44594043,-3.0,3.0,3.0,-3.0,-3.0,-3.0,-3.0,-3.0,-3.0,-3.0
2025-06-06 14:12:03.046,0.010820627,0.045381285,0.005855257,0.16242059,-0.085374504,-0.038071092,0.0,0.0,0.0,0.017707532,-0.14411183,-0.10058989,-0.14630738,0.078863665,0.6640285,-0.16900016,-0.10111129,-0.57793176,-0.3328441,-0.10256144,-0.78219557,-0.3026829,0.07133132,-0.05274697,0.07437008,0.062108826,0.017288735,-0.02235527,0.045169633,-0.071842685,0.02361154,-0.038975343,-0.063979745,-0.0051956014,-3.0,-0.44594043,-3.0,3.0,3.0,-3.0,-3.0,-3.0,-3.0,-3.0,-3.0,-3.0,-3.0,-0.40847105,-3.0,3.0,3.0,-3.0,-3.0,-3.0,-3.0,-3.0,-3.0,-3.0
2025-06-06 14:12:03.066,0.0362864,0.03972947,-0.017151063,0.14995454,-0.047307413,0.04346844,0.0,0.0,0.0,0.01772667,-0.1597009,-0.100705884,-0.14931472,0.07536476,0.6562407,-0.1673583,-0.09894092,-0.5694268,-0.3207808,-0.09929024,-0.7860757,-0.3177624,0.051205542,0.031981923,-0.019753607,0.024752704,0.015362976,0.019282388,-0.07073636,-0.014682229,-0.007795577,-0.0681442,-0.07630306,-0.07035175,-3.0,-0.40847105,-3.0,3.0,3.0,-3.0,-3.0,-3.0,-3.0,-3.0,-3.0,-3.0,-3.0,-0.19811004,-3.0,3.0,3.0,-3.0,-3.0,-3.0,-3.0,-3.0,-3.0,-3.0
2025-06-06 14:12:03.089,0.0018134605,-0.009955842,-0.009511436,0.1074812,-0.050500233,0.0014447588,0.0,0.0,0.0,0.017795047,-0.152561,-0.09933708,-0.14133897,0.076567456,0.6626172,-0.16873579,-0.1069048,-0.57310826,-0.31463313,-0.109349154,-0.78621846,-0.31734285,-0.07084428,0.01691808,-0.06821213,-0.012315703,0.07030292,0.044526923,0.061327398,-0.041659288,0.05971903,-0.019784978,0.048907794,0.050323,-3.0,-0.19811004,-3.0,3.0,3.0,-3.0,-3.0,-3.0,-3.0,-3.0,-3.0,-3.0,-3.0,-0.5065339,-3.0,3.0,3.0,-3.0,-3.0,-3.0,-3.0,-3.0,-3.0,-3.0
2025-06-06 14:12:03.106,0.018576428,-0.047485564,-0.050111786,0.097178824,-0.066117875,-0.048891515,0.0,0.0,0.0,0.017831666,-0.16459914,-0.1086833,-0.14116481,0.07769642,0.6589616,-0.17105626,-0.102040164,-0.5788969,-0.33319166,-0.10949739,-0.7843136,-0.30685782,0.017092401,-0.06607665,0.027007984,-0.02100405,-0.009031797,-0.018216629,-0.0027494621,-0.07312649,-0.063305855,0.053009223,0.0393853,-0.012351078,-3.0,-0.5065339,-3.0,3.0,3.0,-3.0,-3.0,-3.0,-3.0,-3.0,-3.0,-3.0,-3.0,-0.09783095,-3.0,3.0,3.0,-3.0,-3.0,-3.0,-3.0,-3.0,-3.0,-3.0
2025-06-06 14:12:03.126,0.0108398255,-0.023356413,0.045377593,0.15695201,-0.015552904,-0.03006443,0.0,0.0,0.0,0.017884757,-0.14493077,-0.105691664,-0.14513561,0.08217469,0.65055156,-0.16177495,-0.10833094,-0.5632399,-0.31882423,-0.09771663,-0.7841361,-0.30916092,-0.06894503,-0.03953644,-0.01414598,-0.054658532,-0.050766595,-0.010754139,0.046596073,0.011666903,-0.058650933,0.05727686,0.04264098,0.0030188037,-3.0,-0.09783095,-3.0,3.0,3.0,-3.0,-3.0,-3.0,-3.0,-3.0,-3.0,-3.0,-3.0,-0.75240713,-3.0,3.0,3.0,-3.0,-3.0,-3.0,-3.0,-3.0,-3.0,-3.0
2025-06-06 14:12:03.147,-0.015331237,0.02576223,-0.04550905,0.15085988,-0.04400499,0.040847108,0.0,0.0,0.0,0.017886054,-0.15471701,-0.10751718,-0.13850227,0.074571714,0.6478294,-0.16425326,-0.115223475,-0.57911885,-0.32249615,-0.09189866,-0.78521734,-0.3121763,0.049683735,-0.07377956,0.0342073,0.071491055,0.051294383,0.04746883,0.07300073,0.04945565,0.022990195,-0.033732552,-0.055493183,0.05531018,-3.0,-0.75240713,-3.0,3.0,3.0,-3.0,-3.0,-3.0,-3.0,-3.0,-3.0,-3.0,-3.0,-0.019538345,-3.0,3.0,3.0,-3.0,-3.0,-3.0,-3.0,-3.0,-3.0,-3.0
2025-06-06 14:12:03.166,-0.0188111,-0.00018004177,0.028998366,0.09908844,-0.035012186,0.0039600306,0.0,0.0,0.0,0.01794645,-0.15458988,-0.0935995,-0.14041264,0.065346606,0.65082467,-0.15365265,-0.10033279,-0.5672976,-0.32568556,-0.100464396,-0.7837913,-0.30136782,0.025910899,-0.07230605,0.022184728,0.020742971,0.034302473,-0.06885391,-0.04475821,0.03361942,0.06949425,-0.025873985,0.008001676,0.03739593,-3.0,-0.019538345,-3.0,3.0,3.0,-3.0,-3.0,-3.0,-3.0,-3.0,-3.0,-3.0,-3.0,-0.5245871,-3.0,3.0,3.0,-3.0,-3.0,-3.0,-3.0,-3.0,-3.0,-3.0
2025-06-06 14:12:03.188,-0.057420637,0.005391312,0.01912659,0.11357784,-0.040535048,-0.026801435,0.0,0.0,0.0,0.017943826,-0.15563965,-0.103151284,-0.14319722,0.07016821,0.6459986,-0.16211164,-0.105057925,-0.5628135,-0.33078322,-0.09601469,-0.77130485,-0.31262326,0.051204033,0.011823722,0.061312787,0.020101301,-0.032734975,-0.059076585,-0.008723544,-0.021330852,0.046892196,-0.05912243,0.054792933,-0.06244107,-3.0,-0.5245871,-3.0,3.0,3.0,-3.0,-3.0,-3.0,-3.0,-3.0,-3.0,-3.0,-3.0,-0.42261356,-3.0,3.0,3.0,-3.0,-3.0,-3.0,-3.0,-3.0,-3.0,-3.0
2025-06-06 14:12:03.207,-0.051076878,0.02410814,-0.0106934,0.10607694,-0.019963043,0.013213881,0.0,0.0,0.0,0.017932316,-0.14773038,-0.11444866,-0.15332088,0.07621034,0.64712274,-0.16310787,-0.110655,-0.5743579,-0.317839,-0.10804636,-0.7876598,-0.30552295,0.019475231,0.067991555,-0.013407971,-0.0063550463,0.06460409,0.030123275,0.016971972,-0.004228432,-0.06729001,-0.043297563,0.03614705,0.07209205,-3.0,-0.42261356,-3.0,3.0,3.0,-3.0,-3.0,-3.0,-3.0,-3.0,-3.0,-3.0,-3.0,-0.46387047,-3.0,3.0,3.0,-3.0,-3.0,-3.0,-3.0,-3.0,-3.0,-3.0
2025-06-06 14:12:03.226,0.01922281,-0.003765446,-0.019705907,0.15963201,-0.0010857244,0.04197752,0.0,0.0,0.0,0.017943963,-0.14947249,-0.115393944,-0.14368147,0.07094709,0.64380467,-0.15633011,-0.10754711,-0.57969517,-0.3136258,-0.10437666,-0.77594936,-0.31916687,-0.028191525,-0.01625427,0.06287676,0.06812303,-0.024762925,0.061524224,-0.0074370485,-0.0076748612,-0.014926495,-0.04379521,0.072714426,-0.07592297,-3.0,-0.46387047,-3.0,3.0,3.0,-3.0,-3.0,-3.0,-3.0,-3.0,-3.0,-3.0,-3.0,-0.23388976,-3.0,3.0,3.0,-3.0,-3.0,-3.0,-3.0,-3.0,-3.0,-3.0
2025-06-06 14:12:03.247,0.0063875876,-0.04318867,0.04515099,0.120045386,-0.04891676,0.004527347,0.0,0.0,0.0,0.017957447,-0.14933226,-0.11240181,-0.13368534,0.069823295,0.65090907,-0.1531999,-0.11237015,-0.5840338,-0.32338926,-0.10105765,-0.77319425,-0.31088278,-0.06693151,-0.023887571,0.01472486,0.063665606,-0.056550603,-0.026751535,-0.07202283,-0.0113303065,0.026735958,0.0021209703,0.04790192,0.014105864,-3.0,-0.23388976,-3.0,3.0,3.0,-3.0,-3.0,-3.0,-3.0,-3.0,-3.0,-3.0,-3.0,-0.657252,-3.0,3.0,3.0,-3.0,-3.0,-3.0,-3.0,-3.0,-3.0,-3.0
2025-06-06 14:12:03.267,-0.0036452143,0.018978382,0.04203093,0.15122008,-0.08658443,-0.00012463097,0.0,0.0,0.0,0.017923215,-0.15340552,-0.115949675,-0.14733775,0.06896147,0.6602378,-0.15338275,-0.113348335,-0.5793126,-0.3328751,-0.09617493,-0.7899355,-0.3045965,0.031108245,-0.06560799,-0.000890175,-0.04849622,-0.011839759,-0.050381023,-0.030326528,-0.06579921,0.049514074,-0.044265065,0.05344922,-0.06929654,-3.0,-0.657252,-3.0,3.0,3.0,-3.0,-3.0,-3.0,-3.0,-3.0,-3.0,-3.0,-3.0,-0.5762616,-3.0,3.0,3.0,-3.0,-3.0,-3.0,-3.0,-3.0,-3.0,-3.0
2025-06-06 14:12:03.288,-0.06152812,-0.025596237,-0.0029597082,0.10563031,-0.013500167,0.02888879,0.0,0.0,0.0,0.017926473,-0.16045702,-0.11099199,-0.14750859,0.066081576,0.64770305,-0.16295111,-0.11006789,-0.5710407,-0.3243993,-0.10271931,-0.7882451,-0.3094348,-0.021326033,-0.011100818,-0.0149064185,0.0048305197,-0.038556233,0.033907898,-0.02640302,-0.054754328,0.037275217,-0.033676997,-0.012063989,-0.04471624,-3.0,-0.5762616,-3.0,3.0,3.0,-3.0,-3.0,-3.0,-3.0,-3.0,-3.0,-3.0,-3.0,-0.339271,-3.0,3.0,3.0,-3.0,-3.0,-3.0,-3.0,-3.0,-3.0,-3.0
2025-06-06 14:12:03.307,-0.026258308,0.0018888807,-0.04327584,0.13491806,-0.08344253,-0.034177125,0.0,0.0,0.0,0.017966937,-0.15582506,-0.12089735,-0.12970679,0.07044751,0.64697635,-0.15003373,-0.113683835,-0.5831369,-0.3237565,-0.09238818,-0.7746921,-0.31107223,-0.05886446,-0.052859068,0.0026486777,0.03374444,0.0021367108,0.071265236,0.06789973,0.06515738,0.009311576,0.031770293,-0.04566874,-0.02956122,-3.0,-0.339271,-3.0,3.0,3.0,-3.0,-3.0,-3.0,-3.0,-3.0,-3.0,-3.0,-3.0,-0.23080319,-3.0,3.0,3.0,-3.0,-3.0,-3.0,-3.0,-3.0,-3.0,-3.0
2025-06-06 14:12:03.327,0.042871792,-0.03329065,-0.0149471,0.13469933,-0.081654936,-0.028831515,0.0,0.0,0.0,0.01795819,-0.1458631,-0.116740406,-0.13825908,0.07496862,0.64615536,-0.15068845,-0.10840872,-0.5855458,-0.3160042,-0.10143373,-0.7730791,-0.32482168,0.022940107,-0.05862111,-0.02008255,-0.04435517,-0.009980685,0.01197477,0.060145188,-0.012402167,-0.055993844,0.06980741,0.04455667,-0.031471837,-3.0,-0.23080319,-3.0,3.0,3.0,-3.0,-3.0,-3.0,-3.0,-3.0,-3.0,-3.0,-3.0,-0.44959635,-3.0,3.0,3.0,-3.0,-3.0,-3.0,-3.0,-3.0,-3.0,-3.0
2025-06-06 14:12:03.347,-0.023884378,0.041383956,-0.0055773845,0.1690517,-0.046184912,0.04737657,0.0,0.0,0.0,0.01787766,-0.16304374,-0.111669615,-0.144668,0.06729528,0.6450358,-0.15960357,-0.115098685,-0.587507,-0.33394924,-0.09729104,-0.77450466,-0.31759223,-0.07082753,-0.036329217,-0.01176154,0.07569925,-0.072956294,0.043884486,0.053691663,-0.062048458,-0.01643372,0.00023420752,-0.048241008,-0.03226547,-3.0,-0.44959635,-3.0,3.0,3.0,-3.0,-3.0,-3.0,-3.0,-3.0,-3.0,-3.0,-3.0,-0.40723246,-3.0,3.0,3.0,-3.0,-3.0,-3.0,-3.0,-3.0,-3.0,-3.0
2025-06-06 14:12:03.367,0.032759767,0.043029394,0.033990603,0.16956513,-0.08617814,0.011318892,0.0,0.0,0.0,0.017806875,-0.16079853,-0.1048757,-0.14537275,0.06839866,0.653808,-0.15204608,-0.11194409,-0.58589464,-0.32954895,-0.10316353,-0.7746007,-0.3229727,0.011188316,0.027257932,0.009673142,0.02148269,0.044662535,3.2546082e-05,-0.024511553,0.015475934,0.040587742,0.007590747,0.02433216,0.01577402,-3.0,-0.40723246,-3.0,3.0,3.0,-3.0,-3.0,-3.0,-3.0,-3.0,-3.0,-3.0,-3.0,-0.6936855,-3.0,3.0,3.0,-3.0,-3.0,-3.0,-3.0,-3.0,-3.0,-3.0
2025-06-06 14:12:03.388,-0.020459633,-0.039824165,-0.023046656,0.15859492,-0.06813937,-0.025205517,0.0,0.0,0.0,0.01776608,-0.16376446,-0.113008246,-0.14629565,0.072586164,0.6538128,-0.15647095,-0.1043,-0.5833324,-0.33305624,-0.101558745,-0.78353435,-0.32111707,-0.03319494,-0.036268964,-0.048325118,0.007616902,0.0055261627,0.0742921,-0.039970912,-0.04331842,0.003889355,0.005673919,-0.004656986,0.013930747,-3.0,-0.6936855,-3.0,3.0,3.0,-3.0,-3.0,-3.0,-3.0,-3.0,-3.0,-3.0,-3.0,-0.39470547,-3.0,3.0,3.0,-3.0,-3.0,-3.0,-3.0,-3.0,-3.0,-3.0
2025-06-06 14:12:03.408,-0.01445493,-0.04244442,-0.04325328,0.08696749,-0.090716295,0.038314924,0.0,0.0,0.0,0.01779735,-0.15516661,-0.11574252,-0.13653658,0.06826518,0.6421885,-0.15970619,-0.09908356,-0.58223957,-0.32229823,-0.09467613,-0.77367926,-0.32736966,0.026175432,-0.06416533,-0.00047919172,0.028922588,-0.0311331,0.06613091,0.03518294,0.03194802,0.029911317,-0.03840035,0.06805355,-0.009953127,-3.0,-0.39470547,-3.0,3.0,3.0,-3.0,-3.0,-3.0,-3.0,-3.0,-3.0,-3.0,-3.0,-0.17262071,-3.0,3.0,3.0,-3.0,-3.0,-3.0,-3.0,-3.0,-3.0,-3.0
2025-06-06 14:12:03.428,0.0021936912,-0.04696732,0.042909294,0.08990853,-0.033448596,0.001158599,0.0,0.0,0.0,0.017826743,-0.15559271,-0.105020985,-0.14128365,0.07292434,0.64759064,-0.16703983,-0.1099821,-0.57527316,-0.31402722,-0.09524237,-0.7850424,-0.31741983,-0.026797608,-0.0066045397,0.02770213,-0.044588935,0.058875483,0.06601681,0.060251083,-0.025912723,-0.005477982,0.06483664,0.013775178,0.03818454,-3.0,-0.17262071,-3.0,3.0,3.0,-3.0,-3.0,-3.0,-3.0,-3.0,-3.0,-3.0,-3.0,-0.80890983,-3.0,3.0,3.0,-3.0,-3.0,-3.0,-3.0,-3.0,-3.0,-3.0
2025-06-06 14:12:03.448,-0.0119381845,-0.035566133,0.041038193,0.096968696,-0.08677089,0.041197333,0.0,0.0,0.0,0.017777748,-0.16396007,-0.11758268,-0.13057342,0.07726331,0.6434396,-0.15079129,-0.10613187,-0.57228965,-0.33246914,-0.09804495,-0.7710889,-0.3128551,0.068621576,0.06071318,0.017177194,0.034384325,0.033579458,-0.041782472,-0.016383562,-0.02078275,-0.04311697,-0.01884477,-0.012076754,-0.04678114,-3.0,-0.80890983,-3.0,3.0,3.0,-3.0,-3.0,-3.0,-3.0,-3.0,-3.0,-3.0,-3.0,-0.5159169,-3.0,3.0,3.0,-3.0,-3.0,-3.0,-3.0,-3.0,-3.0,-3.0
2025-06-06 14:12:03.470,0.042810954,0.008039865,-0.0040246155,0.099613436,-0.06894344,0.027763631,0.0,0.0,0.0,0.017804844,-0.15775988,-0.11967482,-0.13569255,0.084748656,0.63767374,-0.15989693,-0.11366154,-0.5820664,-0.3179799,-0.09115972,-0.7808042,-0.32873756,-0.041197266,-0.025022525,0.07590866,-0.066983834,0.00465964,0.042154323,-0.052762832,-0.07213424,0.048107322,0.03350486,-0.05769707,0.0654849,-3.0,-0.5159169,-3.0,3.0,3.0,-3.0,-3.0,-3.0,-3.0,-3.0,-3.0,-3.0,-3.0,-0.4460234,-3.0,3.0,3.0,-3.0,-3.0,-3.0,-3.0,-3.0,-3.0,-3.0
2025-06-06 14:12:03.488,0.030123644,0.01078086,0.047709417,0.107340366,-0.013203459,-0.04310437,0.0,0.0,0.0,0.01786873,-0.1545747,-0.123285234,-0.13630143,0.07614816,0.6514577,-0.16259024,-0.09960865,-0.5763728,-0.31933278,-0.10203947,-0.78333473,-0.31058073,0.067209035,-0.042103022,0.046332445,-0.059500057,0.048731614,-0.022089744,0.0117561985,-0.020034801,-0.018602887,0.007918598,0.05343265,-0.064878024,-3.0,-0.4460234,-3.0,3.0,3.0,-3.0,-3.0,-3.0,-3.0,-3.0,-3.0,-3.0,-3.0,-0.66537577,-3.0,3.0,3.0,-3.0,-3.0,-3.0,-3.0,-3.0,-3.0,-3.0
2025-06-06 14:12:03.508,-0.057221036,-0.04033603,-0.0016269771,0.0704907,-0.0682117,0.003704716,0.0,0.0,0.0,0.017896054,-0.14678006,-0.1239272,-0.12688132,0.06712839,0.65035063,-0.16767693,-0.112262204,-0.58445793,-0.31750372,-0.10439778,-0.77477247,-0.32187217,0.017858779,0.025809648,-0.01896016,0.05056014,0.005743023,0.030826198,0.061578985,0.039297394,-0.008774543,-0.026723543,-0.0018591002,0.02599869,-3.0,-0.66537577,-3.0,3.0,3.0,-3.0,-3.0,-3.0,-3.0,-3.0,-3.0,-3.0,-3.0,-0.3811347,-3.0,3.0,3.0,-3.0,-3.0,-3.0,-3.0,-3.0,-3.0,-3.0
2025-06-06 14:12:03.529,-0.019155221,-0.012983835,0.04928445,0.15068401,-0.07037916,0.028928118,0.0,0.0,0.0,0.017936585,-0.16501063,-0.12736279,-0.13820636,0.06657774,0.6422983,-0.15553653,-0.110866345,-0.5926584,-0.32545626,-0.10655965,-0.7814489,-0.3193884,-0.055116136,0.021120936,0.05058278,-0.072657414,0.007935182,-0.0611082,-0.0018767911,-0.02741305,-0.054236695,-0.004224748,-0.0027081533,-0.011649704,-3.0,-0.3811347,-3.0,3.0,3.0,-3.0,-3.0,-3.0,-3.0,-3.0,-3.0,-3.0,-3.0,-0.8092179,-3.0,3.0,3.0,-3.0,-3.0,-3.0,-3.0,-3.0,-3.0,-3.0
2025-06-06 14:12:03.548,0.03265104,0.04624364,-0.0027602834,0.09666462,-0.05779023,0.04793419,0.0,0.0,0.0,0.017944071,-0.16553932,-0.12249594,-0.14366265,0.08360844,0.6376831,-0.15380271,-0.107373014,-0.5781946,-0.318182,-0.10831648,-0.78310466,-0.326562,-0.043859605,-0.0017913415,0.06263621,0.06271819,0.032201547,0.07197737,-0.03258924,-0.025896559,0.054427236,0.02457661,0.005385884,-0.060144152,-3.0,-0.8092179,-3.0,3.0,3.0,-3.0,-3.0,-3.0,-3.0,-3.0,-3.0,-3.0,-3.0,-0.298495,-3.0,3.0,3.0,-3.0,-3.0,-3.0,-3.0,-3.0,-3.0,-3.0
2025-06-06 14:12:03.572,0.00077841664,-0.04286898,-0.03121525,0.087481506,-0.051084056,0.03846085,0.0,0.0,0.0,0.017991047,-0.15443495,-0.111765884,-0.13914305,0.0691049,0.64122987,-0.16280034,-0.09941121,-0.58144116,-0.33214802,-0.10252823,-0.7730898,-0.31279954,-0.04363285,-0.01296178,0.04481146,-0.030860769,-0.026346277,-0.07071851,0.01430431,-0.020406954,-0.017491085,0.06764117,-0.021274727,0.034379926,-3.0,-0.298495,-3.0,3.0,3.0,-3.0,-3.0,-3.0,-3.0,-3.0,-3.0,-3.0,-3.0,-0.22943562,-3.0,3.0,3.0,-3.0,-3.0,-3.0,-3.0,-3.0,-3.0,-3.0
2025-06-06 14:12:03.588,0.006897593,-0.04185908,0.015821064,0.115935214,-0.092861176,0.035921074,0.0,0.0,0.0,0.017992891,-0.16157632,-0.11087313,-0.1285761,0.076794714,0.6549066,-0.16669467,-0.11377271,-0.5905251,-0.31952447,-0.1079362,-0.77728903,-0.32300657,-0.035950795,-0.06369912,0.048577283,-0.014875664,0.07296687,-0.07071066,-0.0252889,0.012831403,-0.00084852224,0.04773299,-0.045187794,0.06270494,-3.0,-0.22943562,-3.0,3.0,3.0,-3.0,-3.0,-3.0,-3.0,-3.0,-3.0,-3.0,-3.0,-0.5022418,-3.0,3.0,3.0,-3.0,-3.0,-3.0,-3.0,-3.0,-3.0,-3.0
2025-06-06 14:12:03.612,0.047489367,-0.0096153505,0.007278215,0.08595296,-0.005116341,0.035168197,0.0,0.0,0.0,0.01791006,-0.16444978,-0.11601556,-0.14377463,0.08143629,0.6450284,-0.1497201,-0.1101211,-0.5780616,-0.33331242,-0.092401795,-0.78962123,-0.31959593,0.018156223,0.02131448,0.047575668,0.050672274,-0.013257298,-0.07387991,0.025422268,0.018127488,0.013270074,0.051139455,0.02260167,0.045544874,-3.0,-0.5022418,-3.0,3.0,3.0,-3.0,-3.0,-3.0,-3.0,-3.0,-3.0,-3.0,-3.0,-0.41410702,-3.0,3.0,3.0,-3.0,-3.0,-3.0,-3.0,-3.0,-3.0,-3.0
2025-06-06 14:12:03.629,-0.03810201,0.04459185,-0.0037295772,0.15101129,-0.020794662,-0.012791619,0.0,0.0,0.0,0.017854622,-0.14754428,-0.123442054,-0.13041107,0.08386208,0.6462218,-0.16509086,-0.108714804,-0.59031516,-0.33278614,-0.09069711,-0.7810183,-0.3201778,0.06659198,-0.014223488,0.009931701,-0.005094369,0.008791673,-0.016855855,-0.054849602,-0.009072442,0.021917524,0.021020936,-0.0014670412,-0.051077917,-3.0,-0.41410702,-3.0,3.0,3.0,-3.0,-3.0,-3.0,-3.0,-3.0,-3.0,-3.0,-3.0,-0.31794184,-3.0,3.0,3.0,-3.0,-3.0,-3.0,-3.0,-3.0,-3.0,-3.0
2025-06-06 14:12:03.649,0.031894643,0.037156783,-0.049737185,0.093570344,-0.06987799,-0.035391845,0.0,0.0,0.0,0.017835816,-0.16057183,-0.11013061,-0.12968531,0.077177346,0.65198404,-0.15552214,-0.09766903,-0.5830714,-0.31615254,-0.09170695,-0.7760323,-0.32901293,0.038633063,-0.06752306,0.068334594,-0.045837432,0.069818094,0.030873904,-0.0066702585,0.025202164,0.066797785,0.05236266,0.060986504,0.056008387,-3.0,-0.31794184,-3.0,3.0,3.0,-3.0,-3.0,-3.0,-3.0,-3.0,-3.0,-3.0,-3.0,-0.22957772,-3.0,3.0,3.0,-3.0,-3.0,-3.0,-3.0,-3.0,-3.0,-3.0
2025-06-06 14:12:03.671,-0.030128298,0.029026132,0.022780279,0.11752861,-0.009971377,-0.037099767,0.0,0.0,0.0,0.017816264,-0.16303697,-0.10558085,-0.14248942,0.080346234,0.6406943,-0.15271832,-0.10621612,-0.5840953,-0.33360353,-0.106623,-0.7723043,-0.31193823,0.011928802,0.014987228,-0.05359236,0.063673116,-0.029183548,0.018507205,0.06294319,-0.013516369,0.014782217,0.064155124,-0.006247363,0.07790392,-3.0,-0.22957772,-3.0,3.0,3.0,-3.0,-3.0,-3.0,-3.0,-3.0,-3.0,-3.0,-3.0,-0.684959,-3.0,3.0,3.0,-3.0,-3.0,-3.0,-3.0,-3.0,-3.0,-3.0
2025-06-06 14:12:03.689,-0.03244664,-0.019364204,-0.040691316,0.13826096,-0.08504225,0.0013457723,0.0,0.0,0.0,0.017778415,-0.15249571,-0.12000553,-0.13475561,0.06809905,0.65521264,-0.15758832,-0.11409993,-0.5746799,-0.3281775,-0.09741094,-0.7775947,-0.3125319,-0.076036274,0.055538595,0.015524711,0.054597165,0.009788132,0.05820622,0.025950896,-0.012532422,0.0694627,0.015327455,0.03010296,-0.005921055,-3.0,-0.684959,-3.0,3.0,3.0,-3.0,-3.0,-3.0,-3.0,-3.0,-3.0,-3.0,-3.0,-0.24365562,-3.0,3.0,3.0,-3.0,-3.0,-3.0,-3.0,-3.0,-3.0,-3.0
2025-06-06 14:12:03.710,0.0002572051,0.01911979,0.017365124,0.15009175,-0.057702612,0.02237364,0.0,0.0,0.0,0.017823918,-0.14794752,-0.11023321,-0.14105333,0.066741124,0.65431863,-0.15717323,-0.10833816,-0.56927204,-0.32873756,-0.10676166,-0.784073,-0.31670254,-0.063279144,0.0407991,0.03519086,0.02231228,-0.05442475,0.038534634,-0.0035743816,-0.026444055,-0.013449536,-0.034016173,0.055750534,-0.0664153,-3.0,-0.24365562,-3.0,3.0,3.0,-3.0,-3.0,-3.0,-3.0,-3.0,-3.0,-3.0,-3.0,-0.5636068,-3.0,3.0,3.0,-3.0,-3.0,-3.0,-3.0,-3.0,-3.0,-3.0
2025-06-06 14:12:03.730,-0.019550353,-0.02066966,-0.026468609,0.13328648,-0.032553162,-0.02415335,0.0,0.0,0.0,0.017865755,-0.16286634,-0.100969814,-0.14028095,0.08279625,0.65926385,-0.16046454,-0.09955378,-0.58259004,-0.33219144,-0.09770667,-0.7718958,-0.31654462,0.010861485,0.04725705,-0.029661302,-0.05209131,0.032112867,0.03380016,0.017482067,0.01776235,0.0750922,-0.047463283,-0.007816805,-0.049505413,-3.0,-0.5636068,-3.0,3.0,3.0,-3.0,-3.0,-3.0,-3.0,-3.0,-3.0,-3.0,-3.0,-0.31380647,-3.0,3.0,3.0,-3.0,-3.0,-3.0,-3.0,-3.0,-3.0,-3.0
2025-06-06 14:12:03.750,0.013789762,0.015363807,0.047247376,0.13387547,-0.06911777,-0.036960866,0.0,0.0,0.0,0.017919896,-0.15177627,-0.10219174,-0.15052353,0.069878936,0.65553486,-0.157135,-0.10215442,-0.5743666,-0.33363545,-0.10087785,-0.7849598,-0.31560415,0.06926752,-0.04206094,-0.041535094,0.041673616,-0.045930155,0.04360535,-0.061539553,-0.009611192,-0.0037714588,-0.0101544205,0.028768871,-0.023069832,-3.0,-0.31380647,-3.0,3.0,3.0,-3.0,-3.0,-3.0,-3.0,-3.0,-3.0,-3.0,-3.0,-0.7070945,-3.0,3.0,3.0,-3.0,-3.0,-3.0,-3.0,-3.0,-3.0,-3.0
2025-06-06 14:12:03.771,-0.019613164,0.022777844,0.03702518,0.1562326,-0.061980348,-0.036186296,0.0,0.0,0.0,0.017955938,-0.14670548,-0.11374813,-0.13413243,0.06532727,0.6598534,-0.16177754,-0.09994974,-0.5718847,-0.32263333,-0.105197,-0.789822,-0.31617856,-0.020859655,0.01108403,-0.055727407,-0.04002029,0.062250834,0.039246824,0.025182886,-0.07537177,-0.0120971585,0.02229187,0.000825716,0.017980913,-3.0,-0.7070945,-3.0,3.0,3.0,-3.0,-3.0,-3.0,-3.0,-3.0,-3.0,-3.0,-3.0,-0.69742066,-3.0,3.0,3.0,-3.0,-3.0,-3.0,-3.0,-3.0,-3.0,-3.0
2025-06-06 14:12:03.790,0.0058601373,0.015049377,-0.020296063,0.14323097,0.00070212875,-0.027637064,0.0,0.0,0.0,0.018029237,-0.15690203,-0.1181519,-0.1368149,0.0769989,0.6557143,-0.1625205,-0.09916941,-0.58098304,-0.31927985,-0.10128258,-0.7877658,-0.31703857,0.009110707,-0.044289414,-0.05224801,0.05824805,0.008025834,0.06830737,0.0503658,-0.060809556,0.0013073847,-0.05310421,0.014353699,0.070542336,-3.0,-0.69742066,-3.0,3.0,3.0,-3.0,-3.0,-3.0,-3.0,-3.0,-3.0,-3.0,-3.0,-0.3657865,-3.0,3.0,3.0,-3.0,-3.0,-3.0,-3.0,-3.0,-3.0,-3.0
2025-06-06 14:12:03.810,0.0046071596,0.042625956,-0.0032188122,0.1541547,-0.011471725,-0.012266619,0.0,0.0,0.0,0.018141929,-0.15636787,-0.10874457,-0.14309213,0.08174156,0.6568337,-0.15714385,-0.100865535,-0.57269514,-0.31883058,-0.10251801,-0.7864319,-0.30662885,-0.0048517142,-0.043546688,0.071638644,-0.049248356,0.01393328,0.07174297,0.03122521,0.06547431,-0.038579706,-0.055740252,-0.041090894,-0.034792744,-3.0,-0.3657865,-3.0,3.0,3.0,-3.0,-3.0,-3.0,-3.0,-3.0,-3.0,-3.0,-3.0,-0.41175526,-3.0,3.0,3.0,-3.0,-3.0,-3.0,-3.0,-3.0,-3.0,-3.0
2025-06-06 14:12:03.831,-0.03653022,-0.017557053,-0.045978393,0.15826981,-0.07312613,-0.014599654,0.0,0.0,0.0,0.01818462,-0.15110908,-0.1132791,-0.14331518,0.07950437,0.64345664,-0.1533606,-0.1117435,-0.57882816,-0.33024237,-0.1059765,-0.7761061,-0.3213373,-0.059997752,0.03944519,-0.03598992,0.07311534,-0.029988166,-0.00012934624,-0.07088682,-0.05388677,0.017254291,0.04638564,-0.017468732,0.06588128,-3.0,-0.41175526,-3.0,3.0,3.0,-3.0,-3.0,-3.0,-3.0,-3.0,-3.0,-3.0,-3.0,-0.22016257,-3.0,3.0,3.0,-3.0,-3.0,-3.0,-3.0,-3.0,-3.0,-3.0
2025-06-06 14:12:03.851,0.03599839,-0.0084260795,0.040443424,0.07395583,-0.030779779,-0.020436134,0.0,0.0,0.0,0.01815792,-0.16273075,-0.120981306,-0.13854353,0.07797406,0.6519442,-0.16028923,-0.10106201,-0.58865666,-0.3323188,-0.100278914,-0.7879632,-0.32457414,0.051840924,0.008371358,0.024387758,-0.0037859643,-0.02685611,0.010212691,-0.003638208,0.032306787,-0.06989305,0.038179643,0.016997464,-0.010230061,-3.0,-0.22016257,-3.0,3.0,3.0,-3.0,-3.0,-3.0,-3.0,-3.0,-3.0,-3.0,-3.0,-0.7421791,-3.0,3.0,3.0,-3.0,-3.0,-3.0,-3.0,-3.0,-3.0,-3.0
2025-06-06 14:12:03.871,0.007605749,0.01107336,-0.009682818,0.09967005,0.00040590094,-0.032747585,0.0,0.0,0.0,0.01806818,-0.1524527,-0.11807485,-0.14663245,0.068069115,0.64418703,-0.1499668,-0.11134487,-0.57482797,-0.32587805,-0.10553773,-0.77577037,-0.30948123,-0.040202755,-0.043419562,0.00076906686,-0.0151192825,0.049113274,0.07073635,-0.017052747,-0.021282516,0.041579124,-7.667454e-05,-0.041821435,0.055539064,-3.0,-0.7421791,-3.0,3.0,3.0,-3.0,-3.0,-3.0,-3.0,-3.0,-3.0,-3.0,-3.0,-0.41125363,-3.0,3.0,3.0,-3.0,-3.0,-3.0,-3.0,-3.0,-3.0,-3.0
2025-06-06 14:12:03.892,-0.020300511,0.048097268,0.010798949,0.11962588,-0.01894123,0.0355443,0.0,0.0,0.0,0.018047683,-0.15046617,-0.1221554,-0.13831784,0.07330663,0.658058,-0.1476855,-0.11538292,-0.5777888,-0.32724828,-0.094188385,-0.78259766,-0.31242976,-0.0015594298,-0.072572514,0.05254489,0.06714026,0.07194883,-0.073237814,-0.032452133,0.04237449,-0.026720623,-0.05075623,0.008824375,0.071279176,-3.0,-0.41125363,-3.0,3.0,3.0,-3.0,-3.0,-3.0,-3.0,-3.0,-3.0,-3.0,-3.0,-0.4170944,-3.0,3.0,3.0,-3.0,-3.0,-3.0,-3.0,-3.0,-3.0,-3.0
2025-06-06 14:12:03.912,0.0055490215,0.007378455,-0.0027967491,0.07549596,-0.04354619,0.03406548,0.0,0.0,0.0,0.018046208,-0.1511698,-0.11052287,-0.1395093,0.07069862,0.6442186,-0.14770323,-0.11225427,-0.58168745,-0.31716046,-0.08970814,-0.78322655,-0.31386894,0.067491286,-0.013739297,-0.066146724,0.0011530062,0.05133208,-0.06996584,-0.045551173,-0.026667232,0.022935607,-0.020123716,0.011550154,0.017403094,-3.0,-0.4170944,-3.0,3.0,3.0,-3.0,-3.0,-3.0,-3.0,-3.0,-3.0,-3.0,-3.0,-0.3425929,-3.0,3.0,3.0,-3.0,-3.0,-3.0,-3.0,-3.0,-3.0,-3.0
2025-06-06 14:12:03.932,0.010128683,0.013233914,0.019097254,0.11368557,-0.091294825,0.041015733,0.0,0.0,0.0,0.018020066,-0.15362172,-0.11087778,-0.14238138,0.08111625,0.6557588,-0.15160117,-0.11418748,-0.57243985,-0.32664663,-0.101933576,-0.7747863,-0.32888073,0.04186906,-0.0056772847,0.0032114838,-0.02502507,-0.06970461,-0.037412785,-0.03786928,0.06867088,-0.056549847,-0.008894609,-0.055067815,-0.032374416,-3.0,-0.3425929,-3.0,3.0,3.0,-3.0,-3.0,-3.0,-3.0,-3.0,-3.0,-3.0,-3.0,-0.43779796,-3.0,3.0,3.0,-3.0,-3.0,-3.0,-3.0,-3.0,-3.0,-3.0
2025-06-06 14:12:03.955,0.030956663,-0.02523245,-0.030880388,0.12928103,-0.03358357,0.009991841,0.0,0.0,0.0,0.017970938,-0.16214198,-0.11473374,-0.14214061,0.08426775,0.64189243,-0.16604868,-0.098243356,-0.57768387,-0.3200881,-0.10902314,-0.77302957,-0.31066248,0.056375954,-0.008314239,-0.014628664,0.027209174,0.07232038,-0.050635744,-0.03133206,-0.016445162,0.046113197,0.016010167,0.034739595,0.030732904,-3.0,-0.43779796,-3.0,3.0,3.0,-3.0,-3.0,-3.0,-3.0,-3.0,-3.0,-3.0,-3.0,-0.16899651,-3.0,3.0,3.0,-3.0,-3.0,-3.0,-3.0,-3.0,-3.0,-3.0
2025-06-06 14:12:03.976,0.042103786,-0.024635047,0.042874314,0.16491397,-0.0046270005,0.036403753,0.0,0.0,0.0,0.017930185,-0.14816229,-0.10634254,-0.14885196,0.06936754,0.6577141,-0.16677928,-0.099301,-0.5837506,-0.32574168,-0.091784015,-0.79010636,-0.3200233,-0.057961486,0.07224286,0.009304141,-0.06706178,0.07711919,0.044843867,-0.004424954,-0.004121847,-0.0521478,-0.0250289,0.032836784,-0.007084776,-3.0,-0.16899651,-3.0,3.0,3.0,-3.0,-3.0,-3.0,-3.0,-3.0,-3.0,-3.0,-3.0,-0.844734,-3.0,3.0,3.0,-3.0,-3.0,-3.0,-3.0,-3.0,-3.0,-3.0
2025-06-06 14:12:03.996,-0.0076767476,-0.035648208,0.0009141514,0.12008102,-0.044884324,0.026860477,0.0,0.0,0.0,0.017859321,-0.14906305,-0.11719658,-0.14336763,0.08402652,0.64356047,-0.16852714,-0.11396333,-0.58174896,-0.3326334,-0.1073907,-0.7885466,-0.31402218,0.06528475,0.056805495,-0.06364685,-0.016988333,0.073728085,-0.030486269,-0.06525452,-0.0053211427,0.020995256,0.036078256,0.012766524,0.025775854,-3.0,-0.844734,-3.0,3.0,3.0,-3.0,-3.0,-3.0,-3.0,-3.0,-3.0,-3.0,-3.0,-0.2996325,-3.0,3.0,3.0,-3.0,-3.0,-3.0,-3.0,-3.0,-3.0,-3.0
