openverse-orca/OrcaGym/log/simulation_log_20250719_151740.csv
timestamp,sim_time,physics_step,control_step,imu_angle_roll,imu_angle_pitch,imu_angle_yaw,imu_angular_velocity_roll,imu_angular_velocity_pitch,imu_angular_velocity_yaw,imu_acc_x,imu_acc_y,imu_acc_z,fl_joint1_pos,fl_joint1_vel,fl_joint1_torque,fl_joint2_pos,fl_joint2_vel,fl_joint2_torque,fl_joint3_pos,fl_joint3_vel,fl_joint3_torque,fr_joint1_pos,fr_joint1_vel,fr_joint1_torque,fr_joint2_pos,fr_joint2_vel,fr_joint2_torque,fr_joint3_pos,fr_joint3_vel,fr_joint3_torque,hl_joint1_pos,hl_joint1_vel,hl_joint1_torque,hl_joint2_pos,hl_joint2_vel,hl_joint2_torque,hl_joint3_pos,hl_joint3_vel,hl_joint3_torque,hr_joint1_pos,hr_joint1_vel,hr_joint1_torque,hr_joint2_pos,hr_joint2_vel,hr_joint2_torque,hr_joint3_pos,hr_joint3_vel,hr_joint3_torque,fl_force_x,fl_force_y,fl_force_z,fr_force_x,fr_force_y,fr_force_z,hl_force_x,hl_force_y,hl_force_z,hr_force_x,hr_force_y,hr_force_z,fl_hip_action,fl_thigh_action,fl_calf_action,fr_hip_action,fr_thigh_action,fr_calf_action,hl_hip_action,hl_thigh_action,hl_calf_action,hr_hip_action,hr_thigh_action,hr_calf_action
2025-07-19 15:17:40.372,0.0,0,0,-0.025101822,-0.020657914,0.01305263,-0.023211291,-0.00196664,-0.046177734,0.86274105,-0.32921866,0.0,0.0,-0.00052763656,0.004188886,-0.0051292386,0.008467041,-0.00884044,-0.00923483,0.0037662815,-0.008641211,-0.0065874355,-0.005394726,0.0033012407,0.00040869552,-0.045391724,0.040836178,0.033012148,-0.012823352,0.00092099834,-0.05276487,0.004812719,0.07164467,-0.045328114,-0.0740578,0.051184986,-0.014250444,0.0,0.0,0.0,0.0,0.0,0.0,0.0,0.0,0.0,0.0,0.0,0.0,0.36618024,-0.08280141,-0.107217334,-0.10910559,0.55341977,-0.65018064,-0.510651,0.04551302,-0.41076604,0.2053911,0.4179661,0.10693336
2025-07-19 15:17:40.392,0.02,20,1,-0.09211683,0.07559273,0.020972436,0.030010724,-0.02312808,0.04147349,0.0,0.0,0.0,0.0,0.016474286,0.0066344854,-0.0017035193,0.0019010071,0.03337829,-0.02560741,-0.0077495575,-0.0057783034,-0.0057342984,0.007457081,0.02200873,0.008132408,-0.043074474,0.048513573,-0.0090288725,-0.06777899,0.060568616,-0.052144684,-0.005774761,0.059713658,-0.0033467382,0.08564106,0.06010615,-0.031563614,0.36618024,-0.08280141,-0.107217334,-0.10910559,0.55341977,-0.65018064,-0.510651,0.04551302,-0.41076604,0.2053911,0.4179661,0.10693336,-0.33544376,-2.0,-0.019982638,0.4336732,-1.7019984,-0.64598614,0.1999902,0.263825,-1.4343382,0.14505492,-0.4751194,-1.1695726
2025-07-19 15:17:40.408,0.04,40,2,0.057362158,0.100757234,0.05271642,-0.0020013936,0.009343353,0.023456931,0.0,0.0,0.0,-0.00060543965,0.0035034553,-0.015841238,0.0062507726,0.00070550473,0.0521461,-0.03181175,-0.014803329,0.025854122,-0.055430137,0.013234167,0.0058695395,-0.035650644,0.033871282,-0.045021072,0.043160398,-0.0395043,-0.014034866,-0.0041912054,0.028717665,-0.00022185195,-0.12571709,-0.028208999,-0.06784428,-0.036073893,-0.33544376,-2.0,-0.019982638,0.4336732,-1.7019984,-0.64598614,0.1999902,0.263825,-1.4343382,0.14505492,-0.4751194,-1.1695726,0.13468875,-1.5904185,0.23688728,0.12068996,-0.39901692,-0.43966654,0.58565253,0.2579676,-0.07845585,0.20375852,0.442504,-0.6079362
2025-07-19 15:17:40.428,0.06,60,3,0.005532096,0.082220264,0.099944964,0.015638614,0.025785761,0.030250663,0.0,0.0,0.0,-0.0011344436,0.0063861,-0.06583819,0.009417814,-0.0067196423,0.034878034,-0.047701277,0.013719122,0.040456887,-0.035859745,0.0093131345,0.012889854,-0.035983227,-0.038993325,-0.17189665,-0.0026448395,-0.008612662,-0.13385211,-0.04145755,0.0855266,0.09167729,-0.04604564,0.0030457748,0.010473889,-0.028836042,0.13468875,-1.5904185,0.23688728,0.12068996,-0.39901692,-0.43966654,0.58565253,0.2579676,-0.07845585,0.20375852,0.442504,-0.6079362,0.17950019,0.1306304,0.75797796,0.32267773,0.27570438,-0.8212765,-0.29743966,-0.7625803,0.026091835,-0.3971747,-0.09969971,0.55347484
2025-07-19 15:17:40.448,0.08,80,4,-0.008622463,-0.085513666,-0.026567815,0.0068513146,0.00166849,-0.039857972,0.0,0.0,0.0,-0.0020932353,0.015628768,-0.08120996,0.020504396,-0.002038439,0.029532056,-0.060705673,0.006072874,0.028043909,-0.039319247,-0.004156888,0.0076067764,-0.02123909,-0.054309726,-0.024356658,0.054827176,0.014354607,0.07081273,-0.034226917,0.042191103,-0.09261085,0.08453972,-0.06636671,-0.090171136,0.03509915,0.17950019,0.1306304,0.75797796,0.32267773,0.27570438,-0.8212765,-0.29743966,-0.7625803,0.026091835,-0.3971747,-0.09969971,0.55347484,0.2826202,-0.22766584,-0.95480275,-0.33458275,-1.6213486,-0.53821784,0.097674906,0.23199129,0.11095877,-0.055182055,0.91859305,0.18719831
2025-07-19 15:17:40.468,0.1,100,5,0.067119054,0.07567385,0.05305645,0.02961169,-0.028231747,-0.0058411057,0.0,0.0,0.0,-0.0026275704,0.022472588,-0.07634293,-0.016169174,-0.012713643,0.0067026136,-0.06970171,0.005867085,0.023954377,-0.041813307,0.003722412,0.039420355,-0.033078916,0.034043696,-0.04936215,-0.09027635,0.0115121445,-0.08637482,-0.06823741,0.036094025,0.0008909121,0.004839312,0.055586796,0.15047288,-0.04634797,0.2826202,-0.22766584,-0.95480275,-0.33458275,-1.6213486,-0.53821784,0.097674906,0.23199129,0.11095877,-0.055182055,0.91859305,0.18719831,-0.21178006,-0.12978607,-0.11124245,0.52548075,-1.2431823,0.36401725,-0.043756496,-0.47833425,0.079199865,-0.3546578,-0.30749428,0.050528064
2025-07-19 15:17:40.492,0.12000000000000001,120,6,0.10975862,0.022790298,-0.07346635,0.056058105,0.039626833,-0.012641851,0.0,0.0,0.0,-0.0037985612,0.022702686,-0.07965592,-0.018133046,-0.0061336425,-0.009316363,-0.047858093,0.0043588732,0.01864057,-0.02967937,-0.012183153,0.01306346,-0.018509556,0.03242864,-0.02145305,0.020090468,0.04720314,-0.03749428,-0.007813475,-0.05335447,-0.05157738,0.09451277,-0.06429127,-0.071543984,0.08176405,-0.21178006,-0.12978607,-0.11124245,0.52548075,-1.2431823,0.36401725,-0.043756496,-0.47833425,0.079199865,-0.3546578,-0.30749428,0.050528064,0.07226184,-0.4422009,-1.1268919,-0.6141599,-0.63312423,0.08477539,0.104436845,0.040870383,0.45354682,-0.06458042,0.7377786,-0.33295107
2025-07-19 15:17:40.509,0.14,140,7,-0.00041004727,-0.08527869,-0.040782753,0.030661311,0.01662979,0.0313162,0.0,0.0,0.0,-0.0037846232,0.015683549,-0.09720974,-0.04215783,-0.0101534035,-0.05852941,-0.04773875,0.01447915,0.0036100275,-0.008828057,-0.0124716265,0.045669198,-0.03002055,0.011592325,-0.11453147,-0.051726747,0.0065737055,-0.10239113,0.088025816,0.038870785,0.0211111,0.105713286,0.00022649992,0.1465274,0.01848946,0.07226184,-0.4422009,-1.1268919,-0.6141599,-0.63312423,0.08477539,0.104436845,0.040870383,0.45354682,-0.06458042,0.7377786,-0.33295107,-0.006963595,0.79293406,-0.8056,0.30418092,0.7600848,0.8701673,-0.8130847,-1.5378242,1.239249,-0.3174358,0.018099897,-0.33954358
2025-07-19 15:17:40.528,0.16,160,8,-0.010242581,-0.03223445,-0.034790084,-0.01709554,0.018995622,-0.04799434,0.0,0.0,0.0,-0.0037256712,0.004873156,-0.07044504,-0.058118306,-0.020936692,-0.07543513,-0.02731283,0.0012155706,-0.015243481,0.03144427,-0.025189627,0.056954887,-0.029423192,-0.045909356,0.1687797,-0.07743534,-0.048037346,-0.07465409,-0.016338706,-0.097196884,-0.10267916,0.045154564,-0.00805904,-0.017455956,0.057707846,-0.006963595,0.79293406,-0.8056,0.30418092,0.7600848,0.8701673,-0.8130847,-1.5378242,1.239249,-0.3174358,0.018099897,-0.33954358,0.3347996,-0.9524138,-1.1807683,-0.012550969,0.109967425,0.49783152,0.20578906,0.232666,0.5496587,-0.28939116,0.054970555,-0.6429419
2025-07-19 15:17:40.549,0.18,180,9,-0.09922693,0.16903831,0.039373856,0.055819113,0.044202987,-0.032926004,0.0,0.0,0.0,-0.0032582302,0.02023168,-0.06765696,-0.090222515,-0.009317169,-0.061799344,-0.01088426,0.009878457,-0.010731414,0.025258698,-0.020943942,0.04198993,-0.048381194,0.034576826,-0.07521718,0.016566247,0.039436918,0.09790404,-0.011762186,0.07071441,0.028749658,0.050912455,0.057077374,0.0076307678,-0.008464725,0.3347996,-0.9524138,-1.1807683,-0.012550969,0.109967425,0.49783152,0.20578906,0.232666,0.5496587,-0.28939116,0.054970555,-0.6429419,-0.20873524,-0.8789704,0.08080722,-0.049262498,-1.0684235,-0.092714,-0.08280361,0.053317316,0.98302865,-0.1574866,-0.1507956,-0.77098465
2025-07-19 15:17:40.569,0.19999999999999998,200,10,-0.005226465,0.019642772,-0.02524287,0.015955668,-0.03363726,-0.001663254,0.0,0.0,0.0,-0.003994337,0.0118815545,-0.123213425,-0.06149503,-0.015383614,-0.07092905,-0.011115474,0.014665704,-0.0039667822,0.04620395,-0.03222706,0.01995195,-0.044149335,0.043238994,-0.15080434,0.012251144,0.0071848882,-0.10431223,0.008752783,0.07575876,0.04346239,0.04743184,-0.06369702,0.020430222,-0.076034896,-0.20873524,-0.8789704,0.08080722,-0.049262498,-1.0684235,-0.092714,-0.08280361,0.053317316,0.98302865,-0.1574866,-0.1507956,-0.77098465,0.0027877549,0.9409777,-0.0072008613,0.057574596,0.02194022,-0.11651094,0.14842924,-0.62790483,1.2050925,-0.27875045,-0.49516994,0.046690628
2025-07-19 15:17:40.591,0.21999999999999997,220,11,0.09258083,0.00909649,0.009429987,-0.020572532,0.044583913,-0.0041585,0.0,0.0,0.0,-0.0037695987,0.013129875,-0.11183126,-0.057115953,-0.025836378,-0.05344855,-0.014824073,0.018492289,-0.020557672,0.05651381,-0.031411413,-0.011871781,-0.049660135,-0.054211877,0.14225854,0.07419078,-0.025532756,0.0886801,-0.051463142,0.025268538,-0.08396799,0.065273985,-0.07443798,-0.106661975,-0.03476082,0.0027877549,0.9409777,-0.0072008613,0.057574596,0.02194022,-0.11651094,0.14842924,-0.62790483,1.2050925,-0.27875045,-0.49516994,0.046690628,-0.1655865,-0.7364213,-1.1925603,0.04642695,-2.0,-0.35015762,0.32013926,0.59996814,0.30481148,-0.53759,0.7883509,-0.149152
2025-07-19 15:17:40.609,0.23999999999999996,240,12,0.06383615,0.12201629,-0.0014395767,-0.028302236,0.036489848,-0.00917107,0.0,0.0,0.0,-0.0036430198,0.0033783456,-0.11549398,-0.08713446,-0.022340465,-0.059258714,-0.021683602,0.018917546,-0.009134884,0.051853094,-0.03218413,0.0048985854,-0.04418432,0.03332789,-0.029850075,-0.016665874,-0.019723838,-0.025171924,-0.0047295275,0.08321335,0.061331704,0.02989219,-0.06808767,0.18243194,-0.051647592,-0.1655865,-0.7364213,-1.1925603,0.04642695,-2.0,-0.35015762,0.32013926,0.59996814,0.30481148,-0.53759,0.7883509,-0.149152,-0.31269065,-0.08636906,-0.08433629,0.32166675,-1.0829093,0.41125643,-0.050198004,-1.1318465,0.93384284,-0.3123158,-0.49036914,-0.024045661
2025-07-19 15:17:40.629,0.25999999999999995,260,13,0.08965328,-0.08529562,-0.076464936,-0.0057058926,-0.004693257,0.03486204,0.0,0.0,0.0,-0.0043761097,-0.006365834,-0.12882207,-0.083992295,-0.016468566,-0.098930106,-0.02273892,0.02869166,-0.0035746843,0.058568567,-0.029756773,0.0067085577,-0.025585633,-0.035464182,-0.00019767351,-0.07301726,-0.015442683,-0.04016677,0.019405773,0.0051102666,-0.08204409,0.017994946,0.02925058,-0.047475886,-0.018727122,-0.31269065,-0.08636906,-0.08433629,0.32166675,-1.0829093,0.41125643,-0.050198004,-1.1318465,0.93384284,-0.3123158,-0.49036914,-0.024045661,-0.08297931,0.18979296,-1.0953809,-0.28254834,0.31442276,0.32259786,-0.25561658,-0.3094092,1.0771497,-0.069448926,0.25810418,-0.1585489
2025-07-19 15:17:40.649,0.27999999999999997,280,14,-0.038276184,-0.0056065987,0.017524775,0.041736145,-0.0544587,0.007939321,0.0,0.0,0.0,-0.0034344872,-0.002738638,-0.08788945,-0.10393936,-0.021657344,-0.09111482,-0.008759558,0.017522406,-0.020743335,0.09186095,-0.033681612,0.00022906704,-0.024338208,-0.052293025,0.10219441,-0.010827975,-0.027390156,0.0040954784,0.015792888,-0.0014152166,0.0075997524,0.032562956,0.007941096,-0.018258762,0.036971293,-0.08297931,0.18979296,-1.0953809,-0.28254834,0.31442276,0.32259786,-0.25561658,-0.3094092,1.0771497,-0.069448926,0.25810418,-0.1585489,-0.23958217,-0.9790827,-0.56382555,0.12270716,-0.6192033,0.08620161,-0.0615453,-0.031354368,0.41771182,-0.37388358,0.26795557,-0.6870298
2025-07-19 15:17:40.670,0.3,300,15,0.05701185,0.029006073,-0.04659375,0.050110936,0.0075271465,0.022879798,0.0,0.0,0.0,-0.0029446078,-0.004640537,-0.11501933,-0.10191647,-0.031635642,-0.1042879,-0.015557858,0.020784039,-0.036327787,0.07221421,-0.042259652,0.030733373,-0.04150697,0.01778784,-0.19363704,0.02342549,-0.06293729,-0.034216944,0.028506177,0.0118328,0.017989732,-0.06262973,-0.07280676,0.003964654,0.019862827,-0.23958217,-0.9790827,-0.56382555,0.12270716,-0.6192033,0.08620161,-0.0615453,-0.031354368,0.41771182,-0.37388358,0.26795557,-0.6870298,0.15242553,1.3304098,-0.28807715,-0.02804986,0.8410857,0.04831527,-0.33235368,-0.4163388,1.146016,-0.21898831,-0.008306545,-0.038928792
2025-07-19 15:17:40.692,0.32,320,16,0.058772545,-0.060838923,-0.026751062,0.0648119,0.015911248,0.02557653,0.0,0.0,0.0,-0.0024911426,-0.0025575822,-0.11104222,-0.086418815,-0.034661952,-0.0888038,-0.006579231,0.009382495,-0.04654903,0.08937943,-0.036509704,0.030438492,-0.04335421,0.07028975,0.06849151,0.05940878,-0.07977766,-0.001368116,0.019636681,-0.0413643,-0.07763325,0.0038185932,0.026693823,-0.028455239,-0.048622485,0.15242553,1.3304098,-0.28807715,-0.02804986,0.8410857,0.04831527,-0.33235368,-0.4163388,1.146016,-0.21898831,-0.008306545,-0.038928792,-0.14979382,0.19568253,-0.6175701,0.09732893,-0.34576473,-0.010267272,0.41759607,0.18516056,0.06534663,-0.17193718,-0.22118416,-0.39510417
2025-07-19 15:17:40.709,0.34,340,17,-0.050276387,0.077634014,-0.10879029,-0.0139774475,-0.048779186,0.028713748,0.0,0.0,0.0,-0.0017056693,0.0015260046,-0.07811142,-0.08549919,-0.019252958,-0.09665364,-0.018618373,0.022387313,-0.029919095,0.072735675,-0.03589913,0.0102533,-0.051533017,0.046470538,0.09667621,-0.015115202,0.05877694,-0.009907125,0.018663011,0.011076069,0.10888541,-0.06437172,-0.03771748,-0.07391649,0.019131232,-0.14979382,0.19568253,-0.6175701,0.09732893,-0.34576473,-0.010267272,0.41759607,0.18516056,0.06534663,-0.17193718,-0.22118416,-0.39510417,-0.33575937,-1.1341705,-0.74797875,-0.21455269,0.16992535,-0.18189672,-0.22575703,-1.326607,-0.3132547,0.22345078,0.4068839,-0.7387193
2025-07-19 15:17:40.730,0.36000000000000004,360,18,-0.078857236,-0.13379064,0.07958498,-0.036802202,0.038201354,0.004092125,0.0,0.0,0.0,-0.0008162336,-0.01342872,-0.10368278,-0.088215314,-0.03875571,-0.06798592,-0.020254014,0.019148868,-0.03429914,0.058412597,-0.030146884,0.0156157175,-0.058145728,-0.00053751207,-0.081683286,0.04116153,-0.06613551,0.07529514,-0.08715875,-0.048538033,-0.039898,-0.09556967,0.09754946,0.0018766581,0.014652284,-0.33575937,-1.1341705,-0.74797875,-0.21455269,0.16992535,-0.18189672,-0.22575703,-1.326607,-0.3132547,0.22345078,0.4068839,-0.7387193,0.23313072,0.24139419,-0.22202319,0.2699863,-0.025049206,-0.3800262,-0.31737518,0.74055606,0.10072209,-0.29202786,-0.10818868,-0.16143808
2025-07-19 15:17:40.750,0.38000000000000006,380,19,-0.15894708,0.13064817,-0.12496553,0.028716886,0.006726393,-0.024193743,0.0,0.0,0.0,-0.0016976933,-0.01661915,-0.10634928,-0.08632716,-0.030264286,-0.05945112,-0.040396877,0.006670637,-0.013860943,0.03616945,-0.031945534,0.012602821,-0.045041442,0.038663264,0.09490916,-0.022686748,-0.04501997,-0.04420854,-0.009943881,-0.0868584,0.14578523,0.027695244,0.009127005,-0.04531251,0.013458825,0.23313072,0.24139419,-0.22202319,0.2699863,-0.025049206,-0.3800262,-0.31737518,0.74055606,0.10072209,-0.29202786,-0.10818868,-0.16143808,-0.7839287,-0.80047107,0.109871544,-0.042586062,0.2782829,-0.75459266,0.34013245,-1.171725,-0.75564957,0.6205006,-0.04321707,-0.51223725
2025-07-19 15:17:40.769,0.4000000000000001,400,20,-0.09725123,-0.16642654,0.1345165,0.058524072,-0.024026155,0.0042082276,0.0,0.0,0.0,-0.0012014839,-0.016436897,-0.0868031,-0.07383192,-0.03151193,-0.033503108,-0.044455502,0.008191396,-0.005829363,0.008590975,0.0009832138,0.015941815,-0.062514484,-0.029131472,-0.098971605,0.060260203,-0.036423568,0.017011965,0.009050692,0.0057271393,-0.032081347,-0.09906484,0.024593322,-0.044560682,-0.03448558,-0.7839287,-0.80047107,0.109871544,-0.042586062,0.2782829,-0.75459266,0.34013245,-1.171725,-0.75564957,0.6205006,-0.04321707,-0.51223725,0.7290592,0.7172608,-0.18376106,-0.15866217,-0.03944241,-0.93777585,0.22802779,0.2974782,-0.0986305,-0.5937996,0.28747422,0.7162857
2025-07-19 15:17:40.792,0.4200000000000001,420,21,-0.091490634,0.055199217,0.014493071,-0.015144715,-0.006610477,-0.0447953,0.0,0.0,0.0,-0.0020305666,0.0026451803,-0.08439711,-0.06456703,-0.03621223,-0.031722154,-0.06878147,0.026937233,0.015390573,-0.003949569,-0.02760261,0.018993778,-0.037825048,0.029796321,0.1272762,-0.0473742,-0.010733328,0.063166656,0.029145343,-0.04844898,0.12276418,-0.0041607334,-0.04891631,0.012581802,0.06083432,0.7290592,0.7172608,-0.18376106,-0.15866217,-0.03944241,-0.93777585,0.22802779,0.2974782,-0.0986305,-0.5937996,0.28747422,0.7162857,-0.56735444,-1.5498643,0.07687918,0.30431917,-1.2145988,-0.40968734,-0.27540338,-0.30584717,-0.99529624,-0.2361362,-0.55785006,0.06859632
2025-07-19 15:17:40.810,0.4400000000000001,440,22,0.1843783,-0.24772476,-0.07617852,-0.03219387,0.017825348,0.045296766,0.0,0.0,0.0,-0.0023085682,-0.011504499,-0.07911516,-0.060343266,-0.02572541,-0.06708175,-0.074270256,0.0067961803,-0.0026196865,-0.016679442,-0.028172567,-0.007864411,-0.034224726,0.034251943,0.0127951335,0.049118344,0.02629485,-0.19471955,0.046109848,-0.058781035,-0.04219719,-0.13375227,0.056190435,-0.14907035,0.02942959,-0.56735444,-1.5498643,0.07687918,0.30431917,-1.2145988,-0.40968734,-0.27540338,-0.30584717,-0.99529624,-0.2361362,-0.55785006,0.06859632,-0.07169472,-1.4322017,-0.25493044,-0.42990178,1.2123524,0.3288326,0.21791884,0.51451474,-0.1155244,0.53666145,0.5364104,-0.15769199
2025-07-19 15:17:40.830,0.46000000000000013,460,23,-0.090657435,0.06977586,0.18515673,0.008688326,-0.024681507,0.011014537,0.0,0.0,0.0,-0.0017767858,-0.0085381875,-0.11230726,-0.06367014,-0.039101493,-0.09490235,-0.049470842,0.026813613,0.0012737749,-0.029677294,-0.018103743,0.008671299,-0.04301199,0.065948434,-0.09534059,0.029788803,0.033435814,0.054673173,0.106161244,-0.0025134298,0.14569353,0.03557394,0.098679125,0.03533343,0.050009068,-0.07169472,-1.4322017,-0.25493044,-0.42990178,1.2123524,0.3288326,0.21791884,0.51451474,-0.1155244,0.53666145,0.5364104,-0.15769199,0.06701453,0.19490318,1.2306547,0.48632604,0.09221919,0.018098684,-0.6180955,-0.26893255,-0.09891744,-0.36823538,-1.3871866,-0.19292389
2025-07-19 15:17:40.850,0.48000000000000015,480,24,-0.09466656,0.063073315,-0.08716627,-0.038455535,0.05590139,0.036934588,0.0,0.0,0.0,-0.0034368932,-0.0024161737,-0.14579068,-0.02599487,-0.020767732,-0.068726145,-0.04176379,-0.00029617985,-0.002192207,-0.028680192,-0.03035369,0.0026989114,-0.035722286,0.0098235,-0.014529362,0.072960325,0.017078608,-0.018976016,-0.05269473,-0.06898478,0.029209068,0.025257288,-0.032195646,-0.07783468,0.07585141,0.06701453,0.19490318,1.2306547,0.48632604,0.09221919,0.018098684,-0.6180955,-0.26893255,-0.09891744,-0.36823538,-1.3871866,-0.19292389,-0.16928557,0.37154043,-0.22842738,-0.05844267,-0.12399423,-0.59649503,0.13278228,0.5292847,-0.1274571,0.58136714,0.10239907,-0.20755605
2025-07-19 15:17:40.871,0.5000000000000001,500,25,0.015715264,0.15408042,-0.062980525,0.0018726451,-0.00083682884,0.031913638,0.0,0.0,0.0,-0.0034359917,-0.0031937424,-0.09959674,-0.021467222,-0.013738008,-0.064811744,-0.06036753,0.018069483,0.017161997,-0.02369956,-0.002788046,0.019406991,-0.040057987,-0.06381815,0.11364945,0.027824748,-0.054557845,-0.048498426,0.057192605,0.032521296,0.14254096,-0.006442886,0.02321312,-0.033191133,-0.017498558,-0.16928557,0.37154043,-0.22842738,-0.05844267,-0.12399423,-0.59649503,0.13278228,0.5292847,-0.1274571,0.58136714,0.10239907,-0.20755605,-0.3489139,-1.3348199,-0.56282014,0.16353679,0.9689493,-0.25855744,-0.25835645,-1.332017,-1.1166773,0.58812416,0.02419927,-1.2033609
2025-07-19 15:17:40.890,0.5200000000000001,520,26,0.12959531,-0.07948541,0.043743506,0.027428914,0.019863058,0.0067404998,0.0,0.0,0.0,-0.0022355404,-0.004205038,-0.11500786,-0.040895846,-0.0017955013,-0.009390007,-0.0530207,-0.004953003,0.0096833,-0.060636975,-0.0003166201,0.022075314,-0.058113474,0.018018292,-0.15930782,0.02840955,0.026087517,0.17731155,0.054455005,0.02602146,-0.23711835,-0.12496515,0.07284648,0.03087794,-0.0028323806,-0.3489139,-1.3348199,-0.56282014,0.16353679,0.9689493,-0.25855744,-0.25835645,-1.332017,-1.1166773,0.58812416,0.02419927,-1.2033609,0.40598428,0.8616059,-0.48073268,-0.34972182,-0.08270843,-0.06378241,0.1472551,1.5739443,0.5230965,-0.009107926,0.2528355,-0.088424265
2025-07-19 15:17:40.910,0.5400000000000001,540,27,-0.0049821227,0.015114315,-0.0063146674,-0.008761769,0.026396975,0.015937949,0.0,0.0,0.0,-0.0022378806,0.0013975541,-0.107840374,-0.035669528,-0.018242225,0.016780103,-0.044244125,0.00041174333,-0.030606652,-0.052501637,0.009883572,0.023655608,-0.06097862,0.10491927,0.19137757,-0.03218941,0.037793014,-0.0066347313,0.033776812,0.08111875,-0.058125425,-0.018839639,-0.070412345,-0.0062480695,-0.06461517,0.40598428,0.8616059,-0.48073268,-0.34972182,-0.08270843,-0.06378241,0.1472551,1.5739443,0.5230965,-0.009107926,0.2528355,-0.088424265,0.16959745,-1.378716,-0.8470362,-0.31319392,-1.1482522,0.14295763,0.23610924,1.1390709,-0.38442478,-0.13476829,0.842608,-0.82664317
2025-07-19 15:17:40.930,0.5600000000000002,560,28,0.052446526,0.030999258,-0.044081703,0.016560132,-0.023009775,0.023244487,0.0,0.0,0.0,-0.0028455527,-0.0057003507,-0.12648477,-0.054648478,-0.024272047,0.0017170467,-0.042085912,0.0137838,0.008405809,-0.059723362,-0.0036014998,0.074959524,-0.07291859,0.019607326,-0.11397144,-0.0074445303,-0.006272061,-0.11867967,-0.035427995,-0.05239936,0.10793461,0.01745236,0.019079853,0.118276015,-0.09740727,0.16959745,-1.378716,-0.8470362,-0.31319392,-1.1482522,0.14295763,0.23610924,1.1390709,-0.38442478,-0.13476829,0.842608,-0.82664317,-0.018986866,-0.136491,-0.14578402,-0.004091408,0.2466736,0.39657247,-0.57553124,-1.1708868,1.0176165,-0.011696153,-0.024993602,-0.69918317
2025-07-19 15:17:40.950,0.5800000000000002,580,29,-0.024855712,-0.07858037,0.057603,-0.033945486,0.03850766,0.006918438,0.0,0.0,0.0,-0.002620795,0.005746767,-0.13762613,-0.057549816,-0.016999524,-0.0008052192,-0.029569633,-0.0017808232,0.02095255,-0.020756546,-0.0107290605,0.06928727,-0.09080829,-0.068155356,0.06724335,-0.042017307,-0.042490456,0.04519097,0.010905222,-0.050522,-0.03897469,0.03563698,-0.02984754,-0.11124413,-0.02412666,-0.018986866,-0.136491,-0.14578402,-0.004091408,0.2466736,0.39657247,-0.57553124,-1.1708868,1.0176165,-0.011696153,-0.024993602,-0.69918317,-0.07650062,-0.8977562,-0.59942406,0.13787355,-1.7605686,-0.4392971,0.36457852,0.8888374,0.41415375,-0.037025906,0.35890016,-0.45163333
2025-07-19 15:17:40.972,0.6000000000000002,600,30,0.11038287,-0.013782146,-0.021893349,0.026765114,0.011787985,0.028668126,0.0,0.0,0.0,-0.0024533235,-0.008421986,-0.14909689,-0.067272514,-0.025981141,-0.00904535,-0.030232232,0.02291244,0.04740464,-0.016846746,-0.00701389,0.0758721,-0.08731877,-0.01308057,-0.13915741,-0.045766085,-0.05230678,-0.040576313,-0.016180512,0.08044451,0.06733051,-0.020075666,0.046474203,0.09934086,-0.037207097,-0.07650062,-0.8977562,-0.59942406,0.13787355,-1.7605686,-0.4392971,0.36457852,0.8888374,0.41415375,-0.037025906,0.35890016,-0.45163333,-0.056044236,0.72322804,-0.43866533,0.025568273,-0.46540225,0.26295587,-0.05507997,-1.3779683,0.85776925,-0.2982232,0.01755669,-0.40345562
2025-07-19 15:17:40.993,0.6200000000000002,620,31,0.14487806,-0.16144717,0.006530492,0.036006313,0.04381296,0.03264076,0.0,0.0,0.0,-0.0025808376,-0.003003705,-0.15261036,-0.053531867,-0.02480239,-0.037320767,-0.03335123,0.016903814,0.040353414,0.012505975,-0.010566113,0.07761124,-0.07219739,0.029471487,0.18065184,-0.046808876,0.03466802,-0.09928243,0.037646208,0.060291108,-0.10986256,0.09631463,0.050337214,0.0001710669,0.019729545,-0.056044236,0.72322804,-0.43866533,0.025568273,-0.46540225,0.26295587,-0.05507997,-1.3779683,0.85776925,-0.2982232,0.01755669,-0.40345562,0.06087631,-0.70826316,-1.2085285,0.07158966,-0.09601165,0.4043774,-0.2721627,-0.42500708,0.39272115,-0.16418031,-0.40157774,-0.13192405
2025-07-19 15:17:41.011,0.6400000000000002,640,32,0.0787439,-0.12198925,0.07691737,-0.025459332,-0.032172807,-0.0030111703,0.0,0.0,0.0,-0.0015441477,-0.0024364651,-0.13414133,-0.08120959,-0.022945654,-0.047506087,-0.029370045,0.018086053,0.021096263,0.01567162,-0.018016012,0.026797274,-0.07031092,-0.04810202,-0.067906,-0.034214173,-0.061019868,0.025542485,0.02633853,-0.053715374,-0.097458884,-0.01881794,0.038726725,-0.16350655,0.005057045,0.06087631,-0.70826316,-1.2085285,0.07158966,-0.09601165,0.4043774,-0.2721627,-0.42500708,0.39272115,-0.16418031,-0.40157774,-0.13192405,0.086324826,0.18431327,-0.33899742,0.097756684,-0.23776926,-0.68951166,-0.33038458,1.2902201,0.69643766,-0.33518925,1.0981551,0.0022846907
2025-07-19 15:17:41.030,0.6600000000000003,660,33,-0.16109195,-0.105014555,-0.10199781,-0.060603775,0.013826668,0.04981548,0.0,0.0,0.0,-0.0022916729,-0.004679041,-0.10748068,-0.08483299,-0.011932555,-0.05144535,-0.042108435,0.007064988,0.024238825,0.027897187,-0.027677635,0.052785024,-0.063782275,0.053529132,0.14470947,0.0035935405,0.062008753,0.019221615,-0.10096194,-0.06566009,0.09281962,-0.010026983,0.028791863,0.2188433,-0.022140931,0.086324826,0.18431327,-0.33899742,0.097756684,-0.23776926,-0.68951166,-0.33038458,1.2902201,0.69643766,-0.33518925,1.0981551,0.0022846907,-0.80440116,-1.4513032,0.74347454,0.5620934,-0.34843338,-0.24824953,0.5490774,-1.3213303,-0.6163904,0.42197385,-1.6655313,-0.1149521
2025-07-19 15:17:41.050,0.6800000000000003,680,34,-0.101389505,-0.087630115,0.041896943,-0.018179225,-0.024846178,-0.022905292,0.0,0.0,0.0,-0.0019670008,-0.020111077,-0.10874375,-0.058592305,-0.0066580633,-0.059737686,-0.034866944,0.019124005,0.004665061,-0.0024583817,-0.0033097754,0.05663558,-0.05663319,-0.06250614,-0.114187315,0.016852096,0.057794444,-0.046107605,-0.037450124,0.015704859,-0.15140042,-0.03199602,-0.00710075,-0.12666084,0.03863174,-0.80440116,-1.4513032,0.74347454,0.5620934,-0.34843338,-0.24824953,0.5490774,-1.3213303,-0.6163904,0.42197385,-1.6655313,-0.1149521,0.30325958,0.78080773,-0.61223036,-0.2990327,0.6111807,-0.3566666,0.3909589,1.4240018,0.79827064,-0.39702794,0.5137918,1.4109796
2025-07-19 15:17:41.072,0.7000000000000003,700,35,-0.20077814,0.28999317,-0.06214511,0.0021322176,0.015463705,0.045076735,0.0,0.0,0.0,-0.0015289073,0.005507863,-0.069782436,-0.06268415,-0.023283307,-0.044091113,-0.044969555,0.031788185,-0.00390138,0.024516983,-0.0084484,0.03561906,-0.015248683,-0.019710075,0.14465092,0.022568408,-0.036543228,0.18617642,0.03360358,-0.013640124,0.2041861,0.028861867,0.021716217,0.113855734,0.041147448,0.30325958,0.78080773,-0.61223036,-0.2990327,0.6111807,-0.3566666,0.3909589,1.4240018,0.79827064,-0.39702794,0.5137918,1.4109796,-0.8383303,-1.4449431,0.44953305,0.34576982,-0.28852174,-0.6182605,0.08293265,-1.90629,-0.37945506,0.023851462,-1.1619619,-0.49176174
2025-07-19 15:17:41.094,0.7200000000000003,720,36,0.10970234,-0.15947129,0.0019553464,0.028313758,0.054827373,-0.03829544,0.0,0.0,0.0,-0.0010007233,-0.021566205,-0.0742628,-0.03352403,-0.009600819,-0.027581135,-0.061916925,0.027143247,0.027109385,0.0065827817,-0.011856909,0.032288883,-0.016355453,-0.09705387,-0.09212527,0.039577622,0.02156928,-0.0935422,0.03704006,0.055473566,-0.08353047,0.041906606,0.021904109,-0.1371778,0.010737012,-0.8383303,-1.4449431,0.44953305,0.34576982,-0.28852174,-0.6182605,0.08293265,-1.90629,-0.37945506,0.023851462,-1.1619619,-0.49176174,-0.08087064,-0.44266787,-0.695532,-0.4803106,0.9927517,-0.19314191,0.32223535,0.7591985,0.27835503,0.030766629,0.43780583,0.6118807
2025-07-19 15:17:41.111,0.7400000000000003,740,37,-0.0058274423,0.21439402,0.14999259,0.009623581,-0.0036236607,-0.041743502,0.0,0.0,0.0,-0.00037668704,-0.010683874,-0.081864916,-0.060798544,-0.0139063625,-0.006813791,-0.055022284,0.02850951,0.038939442,0.014745086,-0.01113152,0.031165114,-0.020345407,0.030466825,-0.085263096,-0.080129325,0.0087122135,0.11030712,0.018385906,-0.020922199,0.0976713,0.07363414,-0.017156152,0.022178018,0.020488517,-0.08087064,-0.44266787,-0.695532,-0.4803106,0.9927517,-0.19314191,0.32223535,0.7591985,0.27835503,0.030766629,0.43780583,0.6118807,-0.30718097,0.051822897,0.7540739,0.6000098,-1.2022932,-0.33128402,-0.5079359,-0.0062923874,-0.06839611,-0.47893986,-0.74103695,-0.3406189
2025-07-19 15:17:41.131,0.7600000000000003,760,38,-0.037271366,0.08270922,-0.17685643,0.01532688,0.047566846,0.024731966,0.0,0.0,0.0,-0.0014636642,-0.019414783,-0.10232475,-0.047982812,-0.0041409545,0.0012188569,-0.06331744,0.009503335,0.05001248,0.013914517,-0.027919702,0.030940168,-0.025070341,0.053342804,-0.026795128,0.017433345,0.029974496,-0.069054276,0.057349186,0.0064637107,0.010166624,-0.0032033937,-0.022061609,-0.043184184,-0.001915642,-0.30718097,0.051822897,0.7540739,0.6000098,-1.2022932,-0.33128402,-0.5079359,-0.0062923874,-0.06839611,-0.47893986,-0.74103695,-0.3406189,-0.30642232,-0.65227115,-0.47181302,-0.58704144,-0.24956445,0.1370596,0.3927754,-0.6042375,-0.21766077,1.1052092,0.22318147,-0.9897545
2025-07-19 15:17:41.151,0.7800000000000004,780,39,0.11342578,-0.0751497,0.20527051,0.04761201,0.03172267,0.017131664,0.0,0.0,0.0,-0.00055030844,-0.010554848,-0.10936909,-0.046613667,-0.02532648,-0.017734563,-0.04913314,0.028751567,0.024908908,0.013731564,0.00456078,0.039462093,-0.034347694,-0.028836578,-0.052824304,-0.04736105,-0.007238701,-0.05271147,0.009076161,0.027986186,-0.16723299,-0.08539655,0.04299431,-0.01373496,-0.12277933,-0.30642232,-0.65227115,-0.47181302,-0.58704144,-0.24956445,0.1370596,0.3927754,-0.6042375,-0.21766077,1.1052092,0.22318147,-0.9897545,0.6001192,0.4464936,-0.46100697,0.41184255,-0.18800648,-0.46543396,-0.22080776,1.0537312,0.4883969,-0.29195255,0.5687147,-0.18989484
2025-07-19 15:17:41.175,0.8000000000000004,800,40,-0.09959386,0.11252781,-0.026588645,0.054754615,-0.018291473,0.022722965,0.0,0.0,0.0,-0.0022847431,-0.0015926026,-0.11397378,-0.048980407,-0.011519709,-0.026511535,-0.06299082,0.021661246,0.029854255,0.019962575,-0.005798218,0.0615466,-0.04693548,0.106115885,0.19714646,0.043529306,0.078311145,-0.07553299,0.014388158,-0.029730815,0.050186202,-0.012308681,-0.09481951,0.14198457,0.024671573,0.6001192,0.4464936,-0.46100697,0.41184255,-0.18800648,-0.46543396,-0.22080776,1.0537312,0.4883969,-0.29195255,0.5687147,-0.18989484,-0.4782075,-1.2476727,0.26402324,0.43850583,-0.38706246,-0.349704,0.35510847,-0.43454212,-0.64700663,0.117395185,-1.3428429,0.00813131
2025-07-19 15:17:41.193,0.8200000000000004,820,41,0.1171291,-0.09438639,-0.036847446,-0.027427677,0.02586797,-0.035565935,0.0,0.0,0.0,-0.002853761,-0.007709233,-0.10077366,-0.037208777,0.004094386,-0.045221545,-0.046802524,0.030511368,0.020702632,-0.012543631,0.0051480155,0.041215714,-0.030065665,-0.053046606,-0.06242052,0.08282057,0.008556333,-0.08867967,-0.07696974,0.069803625,-0.109330386,-0.07094301,0.00219763,-0.22191896,0.004087286,-0.4782075,-1.2476727,0.26402324,0.43850583,-0.38706246,-0.349704,0.35510847,-0.43454212,-0.64700663,0.117395185,-1.3428429,0.00813131,0.18848939,-0.2666416,-0.56152,-0.34020174,0.6168619,-0.3047184,0.29336157,0.9460401,0.4755768,-0.07023876,1.30549,0.76064897
2025-07-19 15:17:41.211,0.8400000000000004,840,42,-0.09704391,0.21719806,0.02172322,0.032417584,0.024124146,-0.0039840853,0.0,0.0,0.0,-0.002077226,0.0029310826,-0.09927199,-0.04155503,-0.0037207108,-0.030362241,-0.06203837,0.040455524,0.03413075,0.006987748,0.003401001,0.012495705,-0.019249527,0.07510152,0.031664073,0.01848241,0.021068111,0.19909997,0.056539215,0.08231733,0.15073869,0.06505872,-0.024240129,0.0029015022,0.023277935,0.18848939,-0.2666416,-0.56152,-0.34020174,0.6168619,-0.3047184,0.29336157,0.9460401,0.4755768,-0.07023876,1.30549,0.76064897,-0.6515094,-1.6267835,0.28829524,0.4341972,-1.5230825,-0.26341173,-0.2276342,-1.0096443,-0.33181635,-0.037433214,0.27634534,-0.7759233
2025-07-19 15:17:41.231,0.8600000000000004,860,43,-0.056566566,-0.055193517,0.1463627,0.004375263,-0.004861683,-0.017037611,0.0,0.0,0.0,-0.0024866972,-0.017537532,-0.13265406,-0.039129406,-0.00837086,-0.031151298,-0.055796243,0.024296116,0.04628468,-5.7155805e-05,-0.015171523,0.034263786,-0.03557765,-0.012582679,-0.11067467,0.062387623,-0.04646845,-0.060215283,-0.061504252,0.04840579,-0.096339665,-0.036870703,-0.06988973,0.017049352,-0.08301382,-0.6515094,-1.6267835,0.28829524,0.4341972,-1.5230825,-0.26341173,-0.2276342,-1.0096443,-0.33181635,-0.037433214,0.27634534,-0.7759233,0.27204487,1.5450791,0.35040852,0.45843327,0.2768801,-0.7971784,0.29460865,0.40687472,0.6350735,-0.5769385,-0.5320797,0.6451288
2025-07-19 15:17:41.251,0.8800000000000004,880,44,0.020940095,-0.002705054,-0.14770095,0.03894874,0.021953335,0.020525416,0.0,0.0,0.0,-0.0045039062,-0.014693214,-0.12377461,-0.0309988,0.011594997,-0.0228453,-0.07397521,0.028366843,0.060522217,0.013903427,-0.011410127,0.016830612,-0.010835177,0.0042495397,0.04247228,-0.04805453,-0.005794312,0.077710696,0.032393888,-0.021532683,0.075164534,0.018960567,-0.07346289,-0.045476712,0.10718916,0.27204487,1.5450791,0.35040852,0.45843327,0.2768801,-0.7971784,0.29460865,0.40687472,0.6350735,-0.5769385,-0.5320797,0.6451288,-0.35403776,0.06900242,-0.48631686,-0.44693577,-0.16249073,-0.49717963,0.39861768,-1.0806932,-0.11595243,0.10548012,0.3736872,-0.14943965
2025-07-19 15:17:41.276,0.9000000000000005,900,45,0.043657113,-0.12296712,-0.028932404,-0.022662451,0.07315997,-0.017113987,0.0,0.0,0.0,-0.00365101,-0.0087553775,-0.09125118,-0.046619352,-0.010855892,-0.030582035,-0.06357058,0.03244482,0.027207749,-0.00081114826,-0.016492017,0.007382842,-0.032424588,0.057124946,-0.020603115,-0.01224144,-0.0018054562,-0.09382528,0.01045052,0.03623988,-0.1851694,-0.020364612,0.03550603,0.014264726,-0.012902845,-0.35403776,0.06900242,-0.48631686,-0.44693577,-0.16249073,-0.49717963,0.39861768,-1.0806932,-0.11595243,0.10548012,0.3736872,-0.14943965,-0.19465886,-0.16222337,-1.6641656,0.06861295,0.005968947,0.82117766,-0.5248743,-0.17137134,0.5259895,-0.13614896,0.8076892,-0.054749705
2025-07-19 15:17:41.291,0.9200000000000005,920,46,-0.08623539,-0.06399474,0.038930904,-0.04081285,-0.01165801,-0.011755954,0.0,0.0,0.0,-0.002846477,-0.01968162,-0.0879924,-0.08330499,-0.0037966836,-0.031079603,-0.051977888,0.022710308,0.0028828608,0.0026618366,-0.018164312,0.053249165,-0.032057546,-0.077752635,0.015472084,-0.05645455,-0.016989542,-0.013970674,0.09097172,0.031849016,-0.04647306,0.009311552,-0.07259525,0.080784336,-0.067797974,-0.19465886,-0.16222337,-1.6641656,0.06861295,0.005968947,0.82117766,-0.5248743,-0.17137134,0.5259895,-0.13614896,0.8076892,-0.054749705,0.18389109,-0.451845,-0.7239512,-0.32046217,-0.52591777,0.47595164,0.2598841,-0.05830443,0.70498,-0.64723504,0.44768447,-0.9524347
2025-07-19 15:17:41.311,0.9400000000000005,940,47,0.0013224492,-0.047877584,-0.026578678,-0.027635278,0.056488104,0.034051646,0.0,0.0,0.0,-0.002684828,-0.013555316,-0.11154469,-0.08119244,-0.023192436,-0.04052245,-0.029592538,0.022742104,-0.006413989,0.017412536,-0.025024183,0.07888641,-0.048617814,0.03198554,-0.039634373,-0.019855656,-0.028436542,-0.068733044,0.074012056,-0.014437296,0.039835963,0.005911358,-0.108681895,0.0998688,-0.04835781,0.18389109,-0.451845,-0.7239512,-0.32046217,-0.52591777,0.47595164,0.2598841,-0.05830443,0.70498,-0.64723504,0.44768447,-0.9524347,0.14596793,0.23253414,-0.3584168,0.23179531,0.15801226,0.70326555,-0.48334953,-1.5280042,1.5742544,-0.37964794,-0.79763216,-0.28054065
2025-07-19 15:17:41.332,0.9600000000000005,960,48,0.11206608,-0.13008583,0.0066811037,-0.01322911,0.009933078,-0.04491384,0.0,0.0,0.0,-0.0016313612,-0.012079597,-0.087190844,-0.08261561,-0.018372938,-0.05273779,-0.010107762,0.022826495,-0.02982693,0.053584892,-0.047661185,0.039822742,-0.04971453,-0.015077381,0.105688624,0.02171195,0.01197751,0.032900393,0.051146556,0.004966332,-0.103458494,0.0399553,0.060740568,-0.22068915,0.04294504,0.14596793,0.23253414,-0.3584168,0.23179531,0.15801226,0.70326555,-0.48334953,-1.5280042,1.5742544,-0.37964794,-0.79763216,-0.28054065,-0.26238495,-1.3886124,-0.938736,-0.29844353,-1.1417291,-0.17495918,0.31703666,1.0852021,0.8404527,-0.2606484,1.0184753,-0.3808602
2025-07-19 15:17:41.352,0.9800000000000005,980,49,0.026042799,0.047237877,-0.02263591,0.03166066,0.018519975,-0.015796851,0.0,0.0,0.0,-0.00100339,-0.019909183,-0.10825565,-0.09048751,-0.028155943,-0.08956564,-0.0201762,0.022352401,-0.025239687,0.06778309,-0.048519153,0.027905453,-0.04722847,0.00995702,-0.18083544,-0.029892044,-0.10005607,-0.10561347,-0.058124673,0.04243934,0.12613414,-0.05300515,-0.032253455,0.10606043,-0.037119485,-0.26238495,-1.3886124,-0.938736,-0.29844353,-1.1417291,-0.17495918,0.31703666,1.0852021,0.8404527,-0.2606484,1.0184753,-0.3808602,-0.16392593,0.53621066,-0.06952431,0.38392085,0.34632134,0.36251494,-0.38857204,-1.4558605,1.5764108,-0.18810771,-0.2894379,0.0936435
2025-07-19 15:17:41.374,1.0000000000000004,1000,50,0.022016853,-0.03005196,-0.028756823,0.003049535,0.07030543,0.0326519,0.0,0.0,0.0,-0.001668937,-0.021071136,-0.10144857,-0.07969816,-0.011420229,-0.09271238,-0.01414356,0.02393313,-0.038770042,0.0958219,-0.048279386,0.02367348,-0.031860873,0.032486286,0.12693071,0.019725608,0.044851054,-0.036538396,0.06288171,-0.010722322,-0.02977767,0.022414003,0.03455844,-0.11563818,0.01867745,-0.16392593,0.53621066,-0.06952431,0.38392085,0.34632134,0.36251494,-0.38857204,-1.4558605,1.5764108,-0.18810771,-0.2894379,0.0936435,-0.0910057,-0.86875165,-0.84706473,-0.043346185,-0.26945168,-0.20753893,0.24832058,-0.17256033,0.33133492,-0.17644076,0.106508754,-0.0069110543
2025-07-19 15:17:41.392,1.0200000000000005,1020,51,0.059406105,-0.063849814,0.104327396,-0.002265703,-0.022587517,0.012823296,0.0,0.0,0.0,-0.0015873123,-0.016587125,-0.114592455,-0.0931852,-0.015351,-0.0937742,-0.025181172,0.025720676,-0.04298157,0.08348163,-0.04141154,0.019062316,-0.042863607,-0.050665144,0.018441057,-0.015157464,0.0019068401,-0.02186718,-0.014863629,-0.043772344,-0.06514769,0.0030411477,-0.058240462,0.053321782,-0.03298361,-0.0910057,-0.86875165,-0.84706473,-0.043346185,-0.26945168,-0.20753893,0.24832058,-0.17256033,0.33133492,-0.17644076,0.106508754,-0.0069110543,0.19100718,-0.19378996,-0.31042725,0.49288,-0.22616877,-0.41317502,-0.47305024,1.1781842,0.44011325,-0.67451286,-0.609499,0.6709679
2025-07-19 15:17:41.412,1.0400000000000005,1040,52,0.07106199,0.019324575,-0.17035767,0.00046664776,0.020146448,-0.02962463,0.0,0.0,0.0,-0.0025440245,-0.00085842126,-0.09917977,-0.07778599,-0.011707237,-0.09367331,-0.025565118,0.025206804,-0.008791527,0.08508443,-0.052020848,-0.0049051004,-0.01821578,0.014713793,0.04322386,-0.0373236,0.10317222,0.04578305,-0.008712347,-0.071813345,0.17195979,-0.066156685,0.031879414,-0.124655835,0.12060375,0.19100718,-0.19378996,-0.31042725,0.49288,-0.22616877,-0.41317502,-0.47305024,1.1781842,0.44011325,-0.67451286,-0.609499,0.6709679,-0.68007606,-0.7802222,-0.14869907,-0.18744889,0.04775526,-1.078564,0.38337424,-0.9881004,-0.20118517,0.17196617,0.53416497,-0.049903885
2025-07-19 15:17:41.432,1.0600000000000005,1060,53,0.007917023,-0.15993397,0.16565576,-0.070526175,-0.011910327,0.006688358,0.0,0.0,0.0,-0.000290778,-0.017800696,-0.11109534,-0.07537339,-0.021861458,-0.090340756,-0.062227238,0.023732975,0.0028401422,0.056738496,-0.0455129,0.015186779,-0.01357591,0.0074918587,-0.022541584,0.025013532,0.005915606,0.036538545,-0.12978397,0.01236093,-0.027075471,-0.06571312,0.045052115,0.11022241,-0.027117567,-0.68007606,-0.7802222,-0.14869907,-0.18744889,0.04775526,-1.078564,0.38337424,-0.9881004,-0.20118517,0.17196617,0.53416497,-0.049903885,0.40710798,0.40972605,0.20857239,0.59023684,-0.12838885,-0.5997982,0.17001009,0.3159058,-0.053330034,-1.0832855,-1.3161134,1.3344566
2025-07-19 15:17:41.452,1.0800000000000005,1080,54,-0.0630843,0.12821345,-0.14173692,-0.07013943,0.060771756,0.046814177,0.0,0.0,0.0,-0.00081570674,0.0048431894,-0.11082267,-0.06320256,-0.013880712,-0.06644851,-0.06421205,0.020271908,0.009852306,0.054675832,-0.055245824,-0.005967057,0.033164598,0.02406605,0.005038551,0.060153637,-0.019407682,-0.021526119,-0.041444212,0.026194502,0.11516769,-0.057120655,-0.031740673,-0.09690775,0.14902537,0.40710798,0.40972605,0.20857239,0.59023684,-0.12838885,-0.5997982,0.17001009,0.3159058,-0.053330034,-1.0832855,-1.3161134,1.3344566,-0.46605602,-0.12148603,-0.03194528,-0.2198953,0.68161327,-0.3615819,0.25398663,-0.52697194,0.2041123,0.2386944,0.02778893,0.6869058
2025-07-19 15:17:41.475,1.1000000000000005,1100,55,-0.011192119,0.04231934,0.19168295,0.020825082,0.06835627,0.017223053,0.0,0.0,0.0,6.6949404e-05,0.0034141068,-0.10725608,-0.05746733,-3.9810762e-05,-0.044747632,-0.068297796,0.03542628,-0.010504046,0.05567913,-0.062473048,-0.004192825,0.02633464,-0.09871585,-0.053281303,0.010288149,-0.033357184,0.12507078,-0.064848766,-0.04630798,-0.13387303,0.04689579,0.04111034,0.052414577,0.04470796,-0.46605602,-0.12148603,-0.03194528,-0.2198953,0.68161327,-0.3615819,0.25398663,-0.52697194,0.2041123,0.2386944,0.02778893,0.6869058,0.46223214,1.1289212,-0.34074503,0.4225403,-1.2958453,-0.76255476,-0.09129503,1.5311542,0.7144374,-1.1084532,-0.50142497,1.5441815
2025-07-19 15:17:41.492,1.1200000000000006,1120,56,0.026520463,0.03465198,-0.26677403,-0.009058606,0.062881626,0.047242265,0.0,0.0,0.0,-0.0008173213,0.0140355835,-0.056930542,-0.061270863,-0.0094317775,-0.029226705,-0.0807459,0.022207534,0.0001081475,0.059004065,-0.08155472,-0.040289763,0.057868317,0.053663637,0.19668947,0.009444148,0.05685196,-0.09122142,0.03766018,-0.015124019,0.06526427,0.024159918,0.01691818,-0.038305685,0.14854339,0.46223214,1.1289212,-0.34074503,0.4225403,-1.2958453,-0.76255476,-0.09129503,1.5311542,0.7144374,-1.1084532,-0.50142497,1.5441815,-0.37549382,-1.5141482,-0.34693158,-0.6443943,0.1995833,0.26582798,0.27966157,-1.4288818,0.40712222,0.38110268,0.6347254,0.8770781
2025-07-19 15:17:41.512,1.1400000000000006,1140,57,0.095617965,-0.027003465,0.23915602,0.025211712,0.009058026,-0.004323069,0.0,0.0,0.0,0.0010223301,0.011204575,-0.017829567,-0.062063143,-0.010909065,-0.019478722,-0.065579526,0.03379997,-0.0056851674,0.047459338,-0.06845244,-0.02387731,0.07911679,0.004039867,0.021054177,0.009175617,-0.08164801,0.028042374,0.04682507,-0.013542753,-0.0898649,0.02234238,-0.012254583,0.16719893,-0.058552496,-0.37549382,-1.5141482,-0.34693158,-0.6443943,0.1995833,0.26582798,0.27966157,-1.4288818,0.40712222,0.38110268,0.6347254,0.8770781,0.07876663,-2.0,0.063698314,0.8836504,-1.6753564,0.037154555,0.21729878,0.7153523,1.0736377,-1.1353682,-1.4091535,0.4572717
2025-07-19 15:17:41.532,1.1600000000000006,1160,58,0.23238197,0.08565129,-0.084888875,-0.007768616,-0.046776906,0.0151577415,0.0,0.0,0.0,0.00014204705,0.012873314,-0.034546785,-0.05746968,0.003924374,-0.040587027,-0.064270005,0.030618764,0.0045730886,0.06275145,-0.06946146,-0.028850066,0.07212686,0.08961305,-0.06628,0.0020652667,-0.015945759,-0.11337271,0.08337732,-0.04107018,0.14698388,-0.013164474,-0.083297804,-0.11504635,-0.0076297573,0.07876663,-2.0,0.063698314,0.8836504,-1.6753564,0.037154555,0.21729878,0.7153523,1.0736377,-1.1353682,-1.4091535,0.4572717,-0.22998129,-1.3722697,0.10642374,-0.03845847,-0.26465094,0.04770729,0.29217014,-0.8579249,0.9107479,-0.6310717,0.0020646518,0.40106863
2025-07-19 15:17:41.552,1.1800000000000006,1180,59,0.025450293,-0.097189605,0.10419108,0.024138456,0.033285573,-0.01723397,0.0,0.0,0.0,-7.2086885e-05,0.012707459,-0.08113741,-0.030785622,-0.0096922275,-0.050805107,-0.050757322,0.04297318,-0.013813008,0.07412272,-0.08569813,-0.03305107,0.07378322,0.056575697,-0.13047528,0.020102836,-0.029777631,-0.028700452,-0.054504883,-0.019184489,-0.1906737,0.03834282,-0.04758771,-0.019831643,0.040303037,-0.22998129,-1.3722697,0.10642374,-0.03845847,-0.26465094,0.04770729,0.29217014,-0.8579249,0.9107479,-0.6310717,0.0020646518,0.40106863,0.11599077,0.635239,-0.060106687,0.49915457,-0.88246715,-0.22705403,-0.17721623,1.3401136,1.7478055,-0.8797362,-0.054356985,1.3996068
2025-07-19 15:17:41.572,1.2000000000000006,1200,60,-0.002456465,0.17418183,-0.11779427,-0.064273536,0.031187166,0.02012786,0.0,0.0,0.0,-0.0014921455,0.011557827,-0.0747017,-0.03538293,-0.000836757,-0.08498949,-0.055752244,0.0271994,-0.017369311,0.12334841,-0.085792266,-0.020010708,0.10591555,0.095813945,0.012700329,-0.031358477,0.10257163,-0.05730689,-0.02228138,-0.09196941,0.2212282,0.0027244994,0.00448977,0.0465467,0.033105213,0.11599077,0.635239,-0.060106687,0.49915457,-0.88246715,-0.22705403,-0.17721623,1.3401136,1.7478055,-0.8797362,-0.054356985,1.3996068,-0.43248588,0.0064706253,0.66894495,0.11577281,0.81930625,-0.725321,0.58187395,-1.9154615,0.36752173,-0.39220694,-1.3805786,1.0965986
2025-07-19 15:17:41.609,1.2200000000000006,1220,61,-0.20832157,0.021622514,-0.011114327,0.0141099645,-0.009099403,0.026736919,0.0,0.0,0.0,-0.0016495499,-0.0024022711,-0.07654225,-0.021032073,0.0015123838,-0.0723526,-0.05476778,0.04161768,-0.00066126726,0.1150227,-0.09113007,-0.057209454,0.10623998,-0.030009305,0.024347354,0.015010794,0.07190319,0.13536423,-0.030469893,0.037458792,-0.07658338,-0.07772891,0.052177977,-0.1299867,-0.029606735,-0.43248588,0.0064706253,0.66894495,0.11577281,0.81930625,-0.725321,0.58187395,-1.9154615,0.36752173,-0.39220694,-1.3805786,1.0965986,0.025160715,-0.55376375,-0.95543736,-0.20036334,-1.0022808,-0.16475287,0.4737728,0.39821708,0.6996404,-0.3405782,0.37238955,0.75355023
2025-07-19 15:17:41.624,1.2400000000000007,1240,62,-0.24562696,0.06424026,0.08009495,0.04009654,0.04633098,0.04236999,0.0,0.0,0.0,-0.0012285617,0.011024477,-0.094049476,-0.051861886,0.0017829693,-0.08860859,-0.05433287,0.048081823,-0.0067432113,0.09632348,-0.095978014,-0.08028895,0.10459366,0.03031074,-0.005621659,0.013894552,-0.044308078,-0.07678023,-0.026922861,0.04068277,0.08245096,0.020632248,0.050211653,-0.02513321,0.01779394,0.025160715,-0.55376375,-0.95543736,-0.20036334,-1.0022808,-0.16475287,0.4737728,0.39821708,0.6996404,-0.3405782,0.37238955,0.75355023,-0.105264604,0.01959202,0.4353562,0.6923306,-0.056771096,-0.40843377,-0.5445148,-0.70292264,0.33795106,-0.67615175,-0.4569124,0.88874805
2025-07-19 15:17:41.644,1.2600000000000007,1260,63,0.016120812,-0.17280863,-0.042665236,0.015892943,0.036192194,0.01930918,0.0,0.0,0.0,-0.0018789003,0.00894772,-0.08214671,-0.022179935,0.008478376,-0.10854511,-0.06647079,0.025695832,0.001744729,0.08443234,-0.08875393,-0.10507631,0.11693206,-0.056931738,0.054576915,-0.009936332,0.032413438,0.00423561,-0.09752396,-0.09797727,-0.09685387,0.053914346,-0.043158244,-0.07333656,0.063349776,-0.105264604,0.01959202,0.4353562,0.6923306,-0.056771096,-0.40843377,-0.5445148,-0.70292264,0.33795106,-0.67615175,-0.4569124,0.88874805,0.117878124,-0.37817675,-0.7289499,-0.15223385,0.112675816,-0.777969,0.065987974,0.67908424,0.40593663,-0.22474717,0.25546393,0.9696115
2025-07-19 15:17:41.664,1.2800000000000007,1280,64,0.054186072,0.053177085,0.08351897,0.007175772,0.06560557,0.034539632,0.0,0.0,0.0,-0.0014113983,0.00842686,-0.0840206,-0.046263993,-0.0018237176,-0.08995766,-0.07984525,0.024828516,0.03199171,0.084013104,-0.085790515,-0.08339796,0.1025264,-0.061178148,-0.08054532,0.032637548,0.0122664785,-0.011741483,-0.055660862,-0.04288804,0.06996568,0.057219803,0.060057838,0.15127763,0.0055766013,0.117878124,-0.37817675,-0.7289499,-0.15223385,0.112675816,-0.777969,0.065987974,0.67908424,0.40593663,-0.22474717,0.25546393,0.9696115,-0.2631069,0.59276795,0.9050513,0.657016,0.9419379,-0.9674252,-0.38973394,-0.12982783,-0.49183586,-0.84987247,-1.6565069,0.9917065
2025-07-19 15:17:41.684,1.3000000000000007,1300,65,-0.025065992,0.0013989585,-0.06815522,-0.052766506,-0.025093606,-0.03545902,0.0,0.0,0.0,-0.0027458556,0.009441021,-0.08365257,-0.021015165,0.019669354,-0.044122323,-0.094858624,0.020172533,0.050034013,0.065536,-0.104741246,-0.090336934,0.11436254,0.021549104,-0.01204435,0.029992588,0.084284134,0.07021115,0.033784516,-0.033615343,0.017890982,0.0063331905,-0.038620997,0.00714584,0.047737613,-0.2631069,0.59276795,0.9050513,0.657016,0.9419379,-0.9674252,-0.38973394,-0.12982783,-0.49183586,-0.84987247,-1.6565069,0.9917065,-0.2147405,0.35233557,-0.20005018,-0.43757826,-0.20297617,-0.6409628,0.5742634,0.41015875,0.679384,0.015749954,-0.083017595,0.25890237
2025-07-19 15:17:41.704,1.3200000000000007,1320,66,0.07105477,0.12451518,-0.032940246,0.041697618,0.0034876831,0.014329555,0.0,0.0,0.0,-0.003058078,-0.005675351,-0.04143463,-0.021412987,0.009072835,-0.036143173,-0.09676396,0.03346509,0.055527512,0.06049128,-0.09964293,-0.069650695,0.103402965,0.036538944,0.10510775,0.0063078497,-0.10256378,0.046486266,0.019921232,-0.010511776,0.012206847,0.013315915,-0.032328326,-0.02059052,-0.02213625,-0.2147405,0.35233557,-0.20005018,-0.43757826,-0.20297617,-0.6409628,0.5742634,0.41015875,0.679384,0.015749954,-0.083017595,0.25890237,-0.3414646,-1.7528136,-0.7972463,0.5953764,-0.6219915,0.0639389,0.08179605,-0.98102516,-0.26891255,-0.3391679,-0.053443052,-0.70592374
2025-07-19 15:17:41.728,1.3400000000000007,1340,67,0.120431215,-0.073753856,0.08683739,-0.051682867,-0.013529034,-0.025962394,0.0,0.0,0.0,-0.0031696449,-0.005579574,-0.047117837,-0.03404294,0.021425007,-0.07931701,-0.07603948,0.028971666,0.01754047,0.036273137,-0.08862162,-0.061777767,0.07048768,-0.04452653,-0.015924444,-0.042749,0.044974532,-0.047363818,0.040454056,-0.048944525,-0.22911075,0.025922693,0.045169417,0.07406395,-0.12650771,-0.3414646,-1.7528136,-0.7972463,0.5953764,-0.6219915,0.0639389,0.08179605,-0.98102516,-0.26891255,-0.3391679,-0.053443052,-0.70592374,0.32631648,0.022901628,-0.57868296,0.06637813,1.1724267,0.24367271,-0.28422317,1.1654613,1.1400491,-0.6750895,-0.4379177,0.050605312
2025-07-19 15:17:41.746,1.3600000000000008,1360,68,0.008343896,-0.05720109,-0.051148664,-0.008298359,-0.027031926,0.0066730445,0.0,0.0,0.0,-0.003908504,-0.0041341274,-0.046144538,-0.05387462,0.00041404399,-0.0697355,-0.069166675,0.028545141,-0.01007428,0.05308942,-0.09710593,-0.07798854,0.050307278,-0.022926891,0.054986488,-0.06751272,-0.057119314,0.031363122,-0.0013907745,-0.034487084,-0.049361207,0.067056485,0.04440092,-0.039608248,0.02497009,0.32631648,0.022901628,-0.57868296,0.06637813,1.1724267,0.24367271,-0.28422317,1.1654613,1.1400491,-0.6750895,-0.4379177,0.050605312,-0.56422967,-0.9652979,-0.4990612,0.009254467,0.15860313,-0.18201557,-0.013237061,0.5150226,0.20116653,0.017331146,0.57313365,-0.4532045
2025-07-19 15:17:41.764,1.3800000000000008,1380,69,-0.10719375,0.016577471,0.081846766,-0.040876474,-0.010701345,-0.035213158,0.0,0.0,0.0,-0.0029796986,0.0020812508,-0.051115237,-0.050319813,-0.004572399,-0.06096738,-0.065789886,0.012359638,0.027365176,0.04746546,-0.09253378,-0.051642846,0.038892493,-0.08197764,-0.021257553,-0.078481264,-0.03287806,0.028609613,0.07447514,-0.043041747,0.097029,-0.03517488,0.033640124,0.07822146,-0.05260137,-0.56422967,-0.9652979,-0.4990612,0.009254467,0.15860313,-0.18201557,-0.013237061,0.5150226,0.20116653,0.017331146,0.57313365,-0.4532045,-0.18174787,-0.6412326,0.4602811,0.46885276,0.12318444,-0.4877759,-0.3510715,-0.4299307,-0.11091514,-0.30097455,-0.71869016,-0.481256
2025-07-19 15:17:41.784,1.4000000000000008,1400,70,0.043387186,-0.09314246,0.018627828,-0.006117131,0.0715465,0.03387202,0.0,0.0,0.0,-0.0036627143,-0.0063649896,-0.06574735,-0.038371567,0.009575058,-0.041701037,-0.07519268,0.009568986,0.007818366,0.037796836,-0.082407504,-0.032761183,0.013269511,0.039894357,-0.10070754,0.05689251,-0.010007687,0.0375963,0.024619296,-0.073413566,-0.045276653,-0.09089311,0.033580355,-0.01630682,-0.019793727,-0.18174787,-0.6412326,0.4602811,0.46885276,0.12318444,-0.4877759,-0.3510715,-0.4299307,-0.11091514,-0.30097455,-0.71869016,-0.481256,-0.094934985,0.40123147,-0.08812651,0.02690458,-0.1976246,-1.1044742,0.34700698,0.7448199,0.039583728,-0.12188063,-0.35631877,0.7125941
2025-07-19 15:17:41.808,1.4200000000000008,1420,71,0.054740436,0.009791107,-0.08279472,0.030702118,0.032939743,0.025741471,0.0,0.0,0.0,-0.0050101243,0.0032494857,-0.06848766,-0.03676345,0.022631783,-0.051468443,-0.0875518,0.009543805,0.035114326,0.026977792,-0.081311345,-0.056356985,0.025859885,0.045356624,0.07396828,0.029739173,-0.021696215,-0.018574182,0.028690089,-0.016444936,0.08526858,0.031301364,-0.03222686,0.017092397,0.049876317,-0.094934985,0.40123147,-0.08812651,0.02690458,-0.1976246,-1.1044742,0.34700698,0.7448199,0.039583728,-0.12188063,-0.35631877,0.7125941,-0.47512564,-1.1544517,-0.23259106,0.1666309,0.7244392,-0.3506782,0.19591233,-0.58678323,-0.9069621,-0.061544277,-0.56166357,-0.2610675
2025-07-19 15:17:41.826,1.4400000000000008,1440,72,0.056441326,-0.05759184,0.06157466,-0.009481621,0.03688779,-0.0013991317,0.0,0.0,0.0,-0.0048189615,-0.008663238,-0.049905665,-0.03353365,0.006146337,-0.034245472,-0.09230811,0.010172201,0.024772605,0.010025098,-0.067501485,-0.06757443,0.016118431,-0.028509095,-0.022285985,0.006031362,0.06739657,0.08127228,-0.060719874,-0.03316927,-0.13244982,-0.014993753,-0.04585433,-0.118846074,-0.059340257,-0.47512564,-1.1544517,-0.23259106,0.1666309,0.7244392,-0.3506782,0.19591233,-0.58678323,-0.9069621,-0.061544277,-0.56166357,-0.2610675,0.46152434,-0.65974337,-0.29659718,-0.2688378,-0.7261679,-1.1769783,0.29698625,1.166298,0.3775399,-0.563293,1.1696855,0.6153855
2025-07-19 15:17:41.845,1.4600000000000009,1460,73,0.01688995,0.055250917,0.09111932,0.020699492,0.039271258,0.04508211,0.0,0.0,0.0,-0.0050872583,-0.0031130577,-0.07665757,-0.03606077,0.001113427,-0.06119513,-0.118459255,0.029634053,0.031845283,0.011608339,-0.066303134,-0.04493756,0.035112463,0.09852244,-0.1521628,0.031849317,-0.016764758,-0.056225017,-0.044378884,-0.03508373,0.06580285,-0.025207128,0.03396705,0.119696364,0.07851722,0.46152434,-0.65974337,-0.29659718,-0.2688378,-0.7261679,-1.1769783,0.29698625,1.166298,0.3775399,-0.563293,1.1696855,0.6153855,-0.29830268,0.37520257,0.93160653,0.79315233,-0.20592141,-0.8446899,-0.14486355,0.28766015,-0.33885118,-0.49367407,-1.6377631,1.4177288
2025-07-19 15:17:41.864,1.4800000000000009,1480,74,-0.13326676,-0.033004493,-0.09919973,-0.02951884,0.042841688,0.0075382967,0.0,0.0,0.0,-0.006195869,0.008898426,-0.09530767,-0.02827033,0.029248016,-0.061386276,-0.10747775,0.0021853135,0.043159317,0.011766076,-0.077916935,-0.05220031,0.069746256,-0.005412044,0.09160274,0.0925213,0.061675992,-0.0035526408,-0.06969553,-0.037958004,-0.022953786,0.031668182,-0.0042051827,0.0069905226,0.115635686,-0.29830268,0.37520257,0.93160653,0.79315233,-0.20592141,-0.8446899,-0.14486355,0.28766015,-0.33885118,-0.49367407,-1.6377631,1.4177288,-0.1243702,-0.33451983,-0.41175467,-0.3114533,0.31950074,-0.2763342,0.43180043,0.4390444,0.16017182,-0.062287875,-0.51688987,0.5457194
2025-07-19 15:17:41.885,1.5000000000000009,1500,75,0.05922609,0.06676148,0.04728282,0.01882858,0.02726833,-0.0065936865,0.0,0.0,0.0,-0.006239699,0.005013491,-0.0979672,-0.03312526,0.021401353,-0.046498176,-0.11790619,0.020414762,0.07289133,0.001281815,-0.079278365,-0.072037995,0.06463898,-0.04458773,0.013342584,-0.0748869,0.0067137363,0.09592463,-0.027552608,0.07724735,-0.019277776,0.009305639,0.027234852,-0.068547755,-0.05100511,-0.1243702,-0.33451983,-0.41175467,-0.3114533,0.31950074,-0.2763342,0.43180043,0.4390444,0.16017182,-0.062287875,-0.51688987,0.5457194,-0.15431957,-0.661936,-0.33660215,0.33115667,-0.27544582,-0.8168322,-0.11232449,0.3241038,0.16676903,-0.6244383,0.96103853,-0.053946704
2025-07-19 15:17:41.908,1.520000000000001,1520,76,0.07164486,0.11354403,0.027545728,-0.03408498,0.038223047,0.006859523,0.0,0.0,0.0,-0.0058088354,-0.0010905495,-0.1097192,-0.039236747,0.019026639,-0.032876156,-0.108564794,0.016369361,0.07990666,0.018702777,-0.08404761,-0.04998593,0.053989742,0.057642303,-0.005573313,-0.07640572,0.05562827,-0.032537945,0.0492744,0.0072262976,0.03416119,0.061831024,0.0014629015,0.085327335,-0.03612416,-0.15431957,-0.661936,-0.33660215,0.33115667,-0.27544582,-0.8168322,-0.11232449,0.3241038,0.16676903,-0.6244383,0.96103853,-0.053946704,-0.48577154,-0.073496856,0.45954132,0.48568684,0.28188488,-0.6848707,0.0371547,-0.5926724,-0.18497087,-0.34802303,-0.66931015,0.4632445
2025-07-19 15:17:41.925,1.540000000000001,1540,77,0.016818993,0.025953153,-0.06266052,0.0348058,-0.019078786,-0.012129955,0.0,0.0,0.0,-0.0064456756,-0.0041937027,-0.1351948,-0.024641093,0.017430702,-0.02519553,-0.121326,0.0025472674,0.049586263,0.0106681455,-0.07382352,-0.043359455,0.05996484,-0.040855728,-0.010917512,0.011027621,0.05486938,0.117411695,0.02026988,-0.012621272,-0.18616831,0.031132396,0.021175258,-0.021200009,-0.024803728,-0.48577154,-0.073496856,0.45954132,0.48568684,0.28188488,-0.6848707,0.0371547,-0.5926724,-0.18497087,-0.34802303,-0.66931015,0.4632445,0.06313082,0.538486,-1.345637,-0.42565855,-0.8348067,-0.19232515,0.30892393,0.7590235,0.89441276,-0.14958547,0.9436847,0.425565
2025-07-19 15:17:41.945,1.560000000000001,1560,78,-0.1774065,0.1577636,-0.09382896,0.007774816,0.02252096,-0.0448128,0.0,0.0,0.0,-0.006314231,0.011165311,-0.08517646,-0.05623989,0.014234426,-0.043287918,-0.09222424,0.027360499,0.03862669,0.02132673,-0.067463085,-0.011430549,0.05078413,0.00062632957,0.20607701,-0.035020325,-0.020572757,-0.18524891,-0.031358317,0.09815128,0.03245523,0.07723513,0.06900144,0.18377915,-0.004242981,0.06313082,0.538486,-1.345637,-0.42565855,-0.8348067,-0.19232515,0.30892393,0.7590235,0.89441276,-0.14958547,0.9436847,0.425565,-0.49652824,-1.4958713,-0.004784206,0.54605365,0.86140555,0.72656924,-0.37998423,-2.0,0.6045435,-0.006757566,-0.44891572,0.07808475
2025-07-19 15:17:41.965,1.580000000000001,1580,79,0.10160545,-0.096113086,0.087548256,-0.013033267,0.049879532,-0.04716521,0.0,0.0,0.0,-0.0047992566,0.0028755576,-0.063729115,-0.059620906,0.027316004,-0.06206876,-0.081485376,0.00608512,0.041015815,0.030174257,-0.08008885,0.0122039,0.044560097,0.03155848,-0.06825725,-0.043973707,-0.032876037,-0.054429173,0.045842964,-0.045010746,-0.105190225,-0.016958466,0.07539912,-0.07417534,0.061600924,-0.49652824,-1.4958713,-0.004784206,0.54605365,0.86140555,0.72656924,-0.37998423,-2.0,0.6045435,-0.006757566,-0.44891572,0.07808475,0.61608195,-0.25471452,-0.098705046,-0.36283436,0.3234212,-0.30260488,0.13041505,0.9318573,1.03663,-0.6228788,-0.22863908,0.80517626
2025-07-19 15:17:41.985,1.600000000000001,1600,80,-0.094666764,0.021050693,-0.07666092,-0.006181807,0.048810955,0.029652955,0.0,0.0,0.0,-0.004185218,0.002415443,-0.07904217,-0.0436029,0.01332245,-0.04567151,-0.080041826,0.021920873,0.0422939,0.05042301,-0.06670455,-0.017936008,0.060309738,0.0703337,-0.011870402,0.064781524,0.026846455,0.0011051714,-0.012680038,0.0826851,0.117733814,0.082044,-0.06650172,-0.07161096,0.0047886325,0.61608195,-0.25471452,-0.098705046,-0.36283436,0.3234212,-0.30260488,0.13041505,0.9318573,1.03663,-0.6228788,-0.22863908,0.80517626,-0.6562835,-0.7877246,0.19176222,0.097933754,0.15995136,-0.49405038,-0.023171494,-1.0693581,0.24549527,-0.106486775,0.35518962,0.24841242
2025-07-19 15:17:42.008,1.620000000000001,1620,81,-0.014496559,-0.17588425,0.17717344,0.011444487,0.035480693,-0.01763529,0.0,0.0,0.0,-0.00398051,-0.0012891971,-0.09777158,-0.040220346,0.0007125998,-0.015528541,-0.0705402,0.019830253,0.061738916,0.053522535,-0.07633435,0.0135998055,0.05695588,-0.06863605,-0.13203923,-0.012794181,-0.048632026,0.10413146,-0.0047621103,-0.018444708,-0.13512585,0.05824869,0.03372613,0.045919612,0.043851078,-0.6562835,-0.7877246,0.19176222,0.097933754,0.15995136,-0.49405038,-0.023171494,-1.0693581,0.24549527,-0.106486775,0.35518962,0.24841242,0.34348345,1.6388626,0.030732876,0.37087807,-1.1509793,-0.7329585,0.10416195,0.77964365,1.0106176,-1.128617,-0.4183278,1.7112373
2025-07-19 15:17:42.026,1.640000000000001,1640,82,0.05632442,-0.024280397,-0.1769129,-0.036362648,0.054024283,-0.04375998,0.0,0.0,0.0,-0.0055361204,0.010472598,-0.08264244,-0.037313495,0.0020671824,-0.05448949,-0.09006678,0.019649873,0.074847706,0.065072566,-0.07957174,-0.011845479,0.071775615,-0.0123767415,0.05824791,0.055720422,0.00082542055,-0.16157292,0.021919178,-0.018862955,0.06837475,0.077497415,-0.0017252422,-0.02874827,0.0856347,0.34348345,1.6388626,0.030732876,0.37087807,-1.1509793,-0.7329585,0.10416195,0.77964365,1.0106176,-1.128617,-0.4183278,1.7112373,-0.24638431,-0.4158716,0.1513961,-0.52612835,1.1087205,-0.113327116,0.38929436,-1.3574355,0.37030226,-0.109035574,-0.23029555,1.4920409
2025-07-19 15:17:42.045,1.660000000000001,1660,83,0.10199029,-0.05785313,0.10708378,-0.020086434,0.035233986,0.00087133097,0.0,0.0,0.0,-0.0044813,0.009182057,-0.08681472,-0.03186972,0.0021549047,-0.041255847,-0.07336252,0.03325393,0.05606999,0.059337817,-0.07701699,-0.027024025,0.09886929,-0.03022959,0.005950063,-0.029654551,-0.09577627,0.075464614,-0.026406128,-0.0006900147,-0.20226726,-0.054473184,-0.020302283,0.0054394356,0.07046504,-0.24638431,-0.4158716,0.1513961,-0.52612835,1.1087205,-0.113327116,0.38929436,-1.3574355,0.37030226,-0.109035574,-0.23029555,1.4920409,0.22324911,-0.7153529,-0.60900307,-0.0144385435,-1.3230507,0.08477381,0.28940505,0.6259557,1.1715964,-1.0388274,-0.22249228,1.1299633
2025-07-19 15:17:42.075,1.680000000000001,1680,84,0.07733694,0.06846019,-0.05416905,-0.01982826,0.038328774,-0.02798801,0.0,0.0,0.0,-0.0046081394,0.0175275,-0.10936855,-0.041729663,-0.011199083,-0.031429127,-0.053691745,0.03371023,0.060310926,0.08788508,-0.087591685,-0.033693966,0.12023278,0.011885009,-0.11664271,0.02795051,0.058603555,0.009078903,0.054096304,0.042920724,0.10784993,0.062260892,-0.09148404,-0.02872459,0.025466826,0.22324911,-0.7153529,-0.60900307,-0.0144385435,-1.3230507,0.08477381,0.28940505,0.6259557,1.1715964,-1.0388274,-0.22249228,1.1299633,-0.2422501,0.23382589,0.113238506,-0.03760833,-0.9907156,-0.14342263,-0.04197867,-1.446602,1.315236,-0.77810454,0.44647276,0.6231792
2025-07-19 15:17:42.092,1.700000000000001,1700,85,-0.050205916,0.026155744,-0.09427581,0.024277441,-0.031467114,0.024579227,0.0,0.0,0.0,-0.005276657,0.0013238393,-0.09494689,-0.0459729,-0.006949442,-0.061427254,-0.056934144,0.022996332,0.03307644,0.11233012,-0.10041401,-0.020170353,0.11776821,0.041486297,0.101804,0.051863663,-0.0005050207,-0.08076353,-0.02159462,-0.004090152,-0.20364526,0.0059910095,-0.06368656,0.06251196,-0.030250141,-0.2422501,0.23382589,0.113238506,-0.03760833,-0.9907156,-0.14342263,-0.04197867,-1.446602,1.315236,-0.77810454,0.44647276,0.6231792,-0.14178552,-1.011557,-0.40400174,0.41292638,-0.16796903,0.7362699,0.057413224,-1.0472049,0.9387033,-0.009153546,-0.6008794,0.57646054
2025-07-19 15:17:42.109,1.720000000000001,1720,86,0.04666588,0.096589305,0.12128625,-0.013362566,0.021720584,-0.0077947252,0.0,0.0,0.0,-0.004859339,0.007972877,-0.11876188,-0.038835812,-0.0048380285,-0.0870523,-0.030340625,0.029341603,-0.038692005,0.11625848,-0.080443054,-0.03453008,0.10455971,0.0143810455,-0.15484944,-0.006912785,-0.02408074,-0.073198155,0.048542157,0.0794233,-0.12924893,0.06415507,0.02497847,-0.058375537,0.05999969,-0.14178552,-1.011557,-0.40400174,0.41292638,-0.16796903,0.7362699,0.057413224,-1.0472049,0.9387033,-0.009153546,-0.6008794,0.57646054,0.39821312,1.7158552,-0.117160514,0.328441,0.04271518,-0.2246657,-0.29454452,0.98833084,1.7798663,-0.9943674,-0.12574966,0.99351144
2025-07-19 15:17:42.129,1.740000000000001,1740,87,-0.2360218,0.012839528,-0.063540705,-0.018582236,-0.01675631,0.00273577,0.0,0.0,0.0,-0.005927041,0.01590287,-0.09728568,-0.03197133,0.007932325,-0.06576392,-0.040224127,0.013853773,-0.052543122,0.1332954,-0.09607815,-0.040519003,0.109019436,0.004733021,0.13913873,-0.04905212,0.021761201,-0.008849574,-0.05527366,0.022742491,0.033047047,0.09207516,-0.03533285,0.055854548,-0.0049837367,0.39821312,1.7158552,-0.117160514,0.328441,0.04271518,-0.2246657,-0.29454452,0.98833084,1.7798663,-0.9943674,-0.12574966,0.99351144,-0.20792711,-0.19152473,-0.12180313,-0.046443637,0.3254911,-0.5346348,0.3423322,-0.04384771,0.5480825,-0.37300795,-0.4009285,0.78859454
2025-07-19 15:17:42.149,1.7600000000000011,1760,88,0.10407182,0.021315841,-0.031790055,-0.011886302,0.010766167,-0.0039348737,0.0,0.0,0.0,-0.0066181477,-0.000973115,-0.08316562,-0.036182225,0.009859577,-0.03272118,-0.0496744,0.024202025,-0.035631508,0.12394443,-0.09683018,-0.04612765,0.11871826,-0.0010506149,-0.053542748,-0.053423252,0.051611636,0.11436645,0.010553965,0.08042323,0.07105724,-0.0766797,-0.064787805,-0.11008623,0.026005922,-0.20792711,-0.19152473,-0.12180313,-0.046443637,0.3254911,-0.5346348,0.3423322,-0.04384771,0.5480825,-0.37300795,-0.4009285,0.78859454,-0.30814913,-0.19493012,-0.5589671,0.062369537,-1.0185833,-0.61264306,0.15061097,-0.251512,0.27891028,-0.43015245,0.7829707,0.2177412
2025-07-19 15:17:42.259,1.7800000000000011,1780,89,0.110345535,-0.06186872,0.065964706,0.0030572603,-0.011545638,0.033251215,0.0,0.0,0.0,-0.0066407365,-0.008938586,-0.07025797,-0.05572014,-0.0014073752,-0.042128753,-0.0689236,0.039958037,-0.043696437,0.11745705,-0.1078618,-0.017792638,0.107949585,-0.032812532,0.042923056,0.029562173,0.06334318,-0.028870583,0.033027887,-0.041933067,-0.064144924,-0.09929815,-0.034634013,0.1919355,0.0014100915,-0.30814913,-0.19493012,-0.5589671,0.062369537,-1.0185833,-0.61264306,0.15061097,-0.251512,0.27891028,-0.43015245,0.7829707,0.2177412,0.017474532,-0.057049748,0.0015859958,0.8186739,-0.5743402,0.060685456,0.22246304,0.41705036,0.09165418,-0.62438595,-1.5500528,0.8547325
2025-07-19 15:17:42.278,1.8000000000000012,1800,90,-0.0108149275,0.1944641,-0.2668392,-0.018210903,-0.013736979,-0.0018013294,0.0,0.0,0.0,-0.0072793113,0.0028595668,-0.067681156,-0.05158218,0.01917339,-0.06947456,-0.058911625,0.0334761,-0.027165232,0.07960587,-0.10677506,-0.021076787,0.10161127,-0.017323472,-0.043659873,0.024693549,0.1047254,-0.023198154,-0.01787261,0.02632569,0.072719246,-0.030053599,-0.042621873,-0.12724896,0.009606397,0.017474532,-0.057049748,0.0015859958,0.8186739,-0.5743402,0.060685456,0.22246304,0.41705036,0.09165418,-0.62438595,-1.5500528,0.8547325,-0.38266954,-0.39752826,-0.45198476,-0.47228205,0.48188642,0.0064519355,0.3429812,-1.0840583,0.726387,0.28570634,0.95094526,-0.08768265
2025-07-19 15:17:42.298,1.8200000000000012,1820,91,-0.02971882,-0.008139747,0.164372,0.0009648949,0.022772854,0.003753236,0.0,0.0,0.0,-0.00467807,-0.0017197947,-0.08789305,-0.057730693,-0.0018471022,-0.03479181,-0.0514591,0.049142476,-0.035326682,0.0920982,-0.09066624,-0.027801441,0.08934935,0.033838023,-0.05367125,-0.04371843,-0.056998014,0.07414216,0.040165253,0.026066894,-0.10423816,0.0017016686,0.059740525,0.1585134,-0.077297,-0.38266954,-0.39752826,-0.45198476,-0.47228205,0.48188642,0.0064519355,0.3429812,-1.0840583,0.726387,0.28570634,0.95094526,-0.08768265,0.1456639,0.36561412,-0.5529255,0.9095627,-1.5842391,0.42810327,-0.27901492,0.42489082,1.2706919,-0.83061224,-0.86087984,0.08960514
2025-07-19 15:17:42.318,1.8400000000000012,1840,92,0.017113816,0.18951963,-0.26119483,0.003718442,0.038082667,0.011281022,0.0,0.0,0.0,-0.004837249,0.0029790062,-0.069214806,-0.061586253,0.009473774,-0.028025651,-0.024772368,0.03127252,-0.018908333,0.09641987,-0.08121883,-0.055830732,0.07369693,0.063518286,0.1574776,0.0269604,0.07076128,0.01345771,0.105449535,0.00092366943,0.00880782,0.08640915,-0.06914267,-0.17453547,0.0021935117,0.1456639,0.36561412,-0.5529255,0.9095627,-1.5842391,0.42810327,-0.27901492,0.42489082,1.2706919,-0.83061224,-0.86087984,0.08960514,-0.061352506,-1.7111412,-0.84777015,-1.3063725,-0.9467575,0.46369174,0.7208804,-1.9887018,1.0884233,0.0038613295,1.8885698,-0.16458668
2025-07-19 15:17:42.342,1.8600000000000012,1860,93,0.01451414,-0.14600885,0.13197757,-0.034419764,0.009602981,0.048385832,0.0,0.0,0.0,-0.003322164,0.0021170177,-0.07928148,-0.06264772,-0.010252088,-0.0780938,-0.024687776,0.040285055,-0.047581483,0.10094576,-0.079951614,-0.04773108,0.063058496,0.061790027,-0.11543296,-0.0655082,-0.12394176,-0.081371,0.055509895,0.012504006,-0.09375539,0.06771164,0.11094993,0.09375308,-0.061011396,-0.061352506,-1.7111412,-0.84777015,-1.3063725,-0.9467575,0.46369174,0.7208804,-1.9887018,1.0884233,0.0038613295,1.8885698,-0.16458668,-0.078470424,-0.12853445,0.188088,0.9286601,-1.0939176,0.7783002,-0.07999095,-0.6050185,1.7542228,-0.3835691,-0.41009638,-0.46101665
2025-07-19 15:17:42.358,1.8800000000000012,1880,94,0.18444698,0.012600269,-0.20369706,0.055920865,0.015145088,-0.03585465,0.0,0.0,0.0,-0.0031495786,-0.0036003704,-0.09910318,-0.06296138,-0.019015078,-0.11165365,0.0079305405,0.05574196,-0.07508948,0.12178474,-0.067668594,-0.063711986,0.039610997,-0.004316094,0.0538664,0.016115965,0.07979026,-0.11067446,0.001835306,-0.032505404,-0.053797703,0.03320774,-0.06554129,-0.09906483,-0.08712245,-0.078470424,-0.12853445,0.188088,0.9286601,-1.0939176,0.7783002,-0.07999095,-0.6050185,1.7542228,-0.3835691,-0.41009638,-0.46101665,0.30091548,-0.44327888,-0.95362955,-1.1308476,0.1513996,0.46604604,0.514855,-1.1345671,1.5785247,-0.0119023705,1.2887219,0.028039739
2025-07-19 15:17:42.378,1.9000000000000012,1900,95,-0.029127846,-0.19043183,0.13978718,-0.003706345,-0.052699648,-0.011796759,0.0,0.0,0.0,-0.0017243556,-0.00027476856,-0.114999644,-0.06825626,-0.038236525,-0.13605297,0.008333448,0.045522507,-0.1379251,0.1506822,-0.06927556,-0.024830855,0.035050727,0.008135445,-0.07826798,0.009374883,-0.025236156,0.11567597,0.09639427,-0.022647317,-0.14650348,0.08651,0.006580131,0.12960368,-0.06810634,0.30091548,-0.44327888,-0.95362955,-1.1308476,0.1513996,0.46604604,0.514855,-1.1345671,1.5785247,-0.0119023705,1.2887219,0.028039739,0.29526347,0.07385213,-0.70956916,0.485511,-2.0,0.91422635,-0.23322462,1.2926168,2.0,-0.31934014,-0.34190065,-0.4412982
2025-07-19 15:17:42.398,1.9200000000000013,1920,96,0.14567402,0.034397896,-0.24432048,-0.050609674,0.013396076,0.0035700116,0.0,0.0,0.0,-0.0018384677,0.020600181,-0.08663995,-0.08376184,-0.024353215,-0.14018676,0.032373242,0.045581896,-0.1435474,0.16800065,-0.06035774,-0.004329362,0.018212786,-0.031780716,0.12519333,-0.07633981,0.1013415,-0.043327205,0.113687634,-0.00462022,0.03833968,0.11311449,0.017669018,-0.12147714,-0.011176255,0.29526347,0.07385213,-0.70956916,0.485511,-2.0,0.91422635,-0.23322462,1.2926168,2.0,-0.31934014,-0.34190065,-0.4412982,0.41497818,-0.6675138,-1.0169625,-1.5038147,-0.31542817,0.8544286,1.2434288,-1.5646133,2.0,-0.25453833,1.8633534,0.14447813
2025-07-19 15:17:42.418,1.9400000000000013,1940,97,0.0744043,-0.1033849,0.22094381,-0.025492996,-0.070668034,-0.004843428,0.0,0.0,0.0,-0.00043727265,0.02159494,-0.12689075,-0.08619461,-0.05423298,-0.152078,0.03342226,0.07300061,-0.16810854,0.20289576,-0.055581108,0.023999903,0.014021433,0.0152236,-0.12178482,0.021028569,-0.09367061,-0.03866051,-0.02020362,0.13738437,-0.117104046,0.031475898,0.0040873894,0.16085047,0.064103514,0.41497818,-0.6675138,-1.0169625,-1.5038147,-0.31542817,0.8544286,1.2434288,-1.5646133,2.0,-0.25453833,1.8633534,0.14447813,0.7218201,0.8053103,-0.13133284,0.69115055,-1.7150705,1.0667335,-0.34743685,0.8169139,2.0,-0.5599011,-1.1005609,-0.11418317
2025-07-19 15:17:42.442,1.9600000000000013,1960,98,0.16032842,0.14145721,-0.21422347,-0.04823154,-0.022251321,-0.04228459,0.0,0.0,0.0,-0.0011627822,0.038220458,-0.098575115,-0.08034664,-0.06647898,-0.16395046,0.056599706,0.065401636,-0.18430296,0.19563894,-0.062305577,0.01600288,0.0075778253,-0.015722943,0.14015917,0.076787606,-0.015951686,-0.066037536,0.098132096,0.012764044,0.0103969425,0.09019329,-0.09334508,-0.19973049,-0.06879245,0.7218201,0.8053103,-0.13133284,0.69115055,-1.7150705,1.0667335,-0.34743685,0.8169139,2.0,-0.5599011,-1.1005609,-0.11418317,0.5868401,-0.4964395,-1.0518707,-1.5525627,-0.25486982,0.72058636,1.1672574,-0.89740455,1.8057019,-0.49579713,1.6550232,0.5802371
2025-07-19 15:17:42.459,1.9800000000000013,1980,99,0.06649535,0.012927981,0.21434432,0.010607357,-0.03980057,-0.016669426,0.0,0.0,0.0,-0.0003120409,0.037016943,-0.08349623,-0.0958403,-0.085348785,-0.17338957,0.054535203,0.0771223,-0.20466195,0.21431011,-0.06168928,0.04090079,0.025451006,0.02561613,-0.04708263,-0.0022314528,-0.07427324,-0.026374802,-0.061531927,0.09725206,-0.06044633,0.07458096,0.044098187,0.2193797,0.09115972,0.5868401,-0.4964395,-1.0518707,-1.5525627,-0.25486982,0.72058636,1.1672574,-0.89740455,1.8057019,-0.49579713,1.6550232,0.5802371,0.4839227,-0.077447124,-0.07742398,1.0966442,-1.8068787,1.1513346,-0.61608285,0.87621087,2.0,-0.71375144,-1.650297,0.15667428
2025-07-19 15:17:42.478,2.0000000000000013,2000,100,0.16559562,0.05655279,-0.18183213,0.004331453,-0.039110076,-0.027466746,0.0,0.0,0.0,-0.00065233064,0.060104683,-0.07193556,-0.07801478,-0.07572706,-0.1914774,0.072647326,0.07262114,-0.20878397,0.21797541,-0.06851094,0.034604132,0.015437286,0.07126954,0.017762803,0.0003307881,-0.005775965,-0.05654522,0.028164081,0.019702706,0.063813046,0.048895676,-0.084003806,-0.096372895,-0.017506722,0.4839227,-0.077447124,-0.07742398,1.0966442,-1.8068787,1.1513346,-0.61608285,0.87621087,2.0,-0.71375144,-1.650297,0.15667428,0.56107855,-0.47406462,-0.71640253,-0.8040913,0.18342525,0.6368411,0.94123495,-1.0002706,1.4531897,-0.7045791,0.33899164,0.583342
2025-07-19 15:17:42.498,2.0200000000000014,2020,101,0.095063455,-0.110779576,0.08764445,-0.013166917,-0.060226876,0.0029640936,0.0,0.0,0.0,4.5920926e-05,0.06730967,-0.09359625,-0.09486942,-0.088317156,-0.16796052,0.08298311,0.08358637,-0.23205176,0.22083406,-0.0884698,0.022008004,0.03734309,-0.03279889,-0.087354794,0.006715189,-0.06881156,0.17631254,-0.044906374,-0.01748954,-0.117314324,-0.000534887,0.0030295649,0.028862115,0.010823886,0.56107855,-0.47406462,-0.71640253,-0.8040913,0.18342525,0.6368411,0.94123495,-1.0002706,1.4531897,-0.7045791,0.33899164,0.583342,-0.13772596,-0.17293489,-0.38761914,0.2658107,-2.0,0.56991047,-0.0795511,1.807932,2.0,-0.16548769,-0.5861622,-0.033014193
2025-07-19 15:17:42.521,2.0400000000000014,2040,102,0.029131055,-0.044764783,-0.23491223,-0.0016038277,-0.067336574,-0.005283031,0.0,0.0,0.0,0.00016464101,0.058070444,-0.10065743,-0.08644412,-0.08094696,-0.16491728,0.08856246,0.06693773,-0.23115438,0.22529677,-0.07467723,0.0016076228,0.020613303,0.053144637,0.07944233,-0.041219056,0.08241681,-0.09956831,-0.041106474,-0.10289851,-0.0067134686,0.014107031,-0.01511177,-0.13357933,-0.076455176,-0.13772596,-0.17293489,-0.38761914,0.2658107,-2.0,0.56991047,-0.0795511,1.807932,2.0,-0.16548769,-0.5861622,-0.033014193,0.47085118,-0.15134057,-0.84485036,-0.97892994,-0.39618525,0.7760735,1.2605108,-0.67324394,1.7596442,-0.20455651,1.3152889,0.3473515
2025-07-19 15:17:42.543,2.0600000000000014,2060,103,-0.086006485,-0.028739344,0.08387583,-0.028096829,-0.027081657,-0.04211539,0.0,0.0,0.0,0.0021167104,0.06529907,-0.08991648,-0.103654414,-0.08765117,-0.17333275,0.09210422,0.08468988,-0.23348656,0.23394091,-0.068850294,0.01787607,0.040769856,0.00132004,-0.024122752,-0.0044859494,-0.027325593,0.061857644,-0.017592944,0.11342419,-0.08013017,-0.048570946,-0.049844142,0.14687905,-0.006921997,0.47085118,-0.15134057,-0.84485036,-0.97892994,-0.39618525,0.7760735,1.2605108,-0.67324394,1.7596442,-0.20455651,1.3152889,0.3473515,0.24340348,-0.18208927,-0.46100417,0.09991799,-1.7846746,0.87677586,-0.04377349,0.2658205,2.0,-0.29152098,-0.6074974,0.009443387
2025-07-19 15:17:42.558,2.0800000000000014,2080,104,0.057270154,0.07272529,-0.2662592,0.009339749,-0.03273646,-0.045683414,0.0,0.0,0.0,0.0028289917,0.057180434,-0.09538547,-0.10145699,-0.089457646,-0.18976428,0.08929786,0.08925109,-0.20885365,0.2439365,-0.052168936,0.014774162,0.027992252,0.006119607,0.037451662,-0.012554672,0.067668095,-0.13553566,-0.015752988,-0.047163986,0.02778889,-0.028345661,0.07196064,-0.19405434,0.058664806,0.24340348,-0.18208927,-0.46100417,0.09991799,-1.7846746,0.87677586,-0.04377349,0.2658205,2.0,-0.29152098,-0.6074974,0.009443387,0.4548091,-0.29029706,-0.71459323,-1.0519778,0.5804351,1.0004334,0.7415686,-1.5322404,2.0,-0.44156963,1.6990863,0.6102556
2025-07-19 15:17:42.579,2.1000000000000014,2100,105,-0.015891487,-0.009850345,0.107259125,-0.032440543,-0.113574274,0.032362126,0.0,0.0,0.0,0.0052815056,0.05607889,-0.098000966,-0.08964598,-0.095949054,-0.17979872,0.088079736,0.08810756,-0.22024006,0.25389487,-0.055117678,0.023251569,0.040872656,0.024220303,-0.07485773,-0.049406223,-0.09835327,0.05750913,-0.024393812,-0.03405027,-0.1073453,-0.013310208,-0.0024226394,0.10508155,0.0133316405,0.4548091,-0.29029706,-0.71459323,-1.0519778,0.5804351,1.0004334,0.7415686,-1.5322404,2.0,-0.44156963,1.6990863,0.6102556,0.28952557,-0.3421863,-0.27645475,0.39860666,-1.7145278,1.0810356,-0.01103601,0.6272449,2.0,-0.43126518,-0.824064,-0.1904224
2025-07-19 15:17:42.599,2.1200000000000014,2120,106,0.008827888,0.13541429,-0.19931304,0.030277899,-0.04529589,0.0030849024,0.0,0.0,0.0,0.0062947557,0.053349447,-0.09331906,-0.08106586,-0.08749404,-0.18932456,0.101495735,0.08286158,-0.20631452,0.25033677,-0.062342506,0.020033319,0.024989918,0.03944502,-0.0151201775,0.047316257,0.0778385,-0.121446796,0.006384889,0.016065063,0.09431876,0.04761879,0.06488739,-0.13279665,0.007953837,0.28952557,-0.3421863,-0.27645475,0.39860666,-1.7145278,1.0810356,-0.01103601,0.6272449,2.0,-0.43126518,-0.824064,-0.1904224,0.56186074,0.18332466,-0.36922035,-0.8116348,0.578519,0.9293677,0.81250125,-1.553782,2.0,-0.6095656,0.73301977,0.48399478
2025-07-19 15:17:42.619,2.1400000000000015,2140,107,-0.054766912,-0.005193355,0.11023692,0.021837868,-0.038742192,0.038801625,0.0,0.0,0.0,0.007992578,0.061674334,-0.076414324,-0.086951695,-0.09552481,-0.18070509,0.09603664,0.08762497,-0.19666214,0.26696277,-0.061570242,0.02203615,0.044524163,0.0056245695,0.016741661,0.014005409,0.0035758347,0.1045384,0.024144163,0.07048044,-0.028690832,0.025882214,0.060960244,0.10114737,-0.0039976365,0.56186074,0.18332466,-0.36922035,-0.8116348,0.578519,0.9293677,0.81250125,-1.553782,2.0,-0.6095656,0.73301977,0.48399478,-0.043560877,-0.63774824,0.021225205,0.42724356,-1.6499642,0.80956453,0.090153515,0.054412633,2.0,-0.32406434,-1.2682476,-0.35447204
2025-07-19 15:17:42.642,2.1600000000000015,2160,108,0.10335683,-0.103985205,-0.10037743,-0.012175547,-0.053823683,-0.023905743,0.0,0.0,0.0,0.008720935,0.059588917,-0.08712479,-0.06629733,-0.09186149,-0.1564719,0.11297385,0.08193882,-0.18280485,0.2610651,-0.060500696,0.0020805749,0.016285611,-0.023284674,-0.09961401,-0.024615219,0.0010233453,0.0025581883,0.014494531,-0.071066014,0.15710083,0.07226937,0.07917068,-0.21313536,0.0021254653,-0.043560877,-0.63774824,0.021225205,0.42724356,-1.6499642,0.80956453,0.090153515,0.054412633,2.0,-0.32406434,-1.2682476,-0.35447204,0.17926182,0.19037178,-0.29611117,-0.716745,-0.5452853,0.36300895,0.57591856,-0.49459368,1.9511954,-0.6600452,0.4848586,-0.010583177
2025-07-19 15:17:42.659,2.1800000000000015,2180,109,-0.072111495,-0.054747887,-0.085360415,-0.056003027,-0.09096246,-0.046145145,0.0,0.0,0.0,0.009450811,0.049899176,-0.06117638,-0.07359856,-0.09577711,-0.16967577,0.106705785,0.082424454,-0.19153817,0.26934907,-0.07572441,0.010328075,0.019726567,-0.0053064097,0.030359369,0.028955359,-0.045472432,-0.039353628,-0.0073336624,-0.0005481523,0.035875306,0.029681971,0.05346621,0.058176972,0.03489888,0.17926182,0.19037178,-0.29611117,-0.716745,-0.5452853,0.36300895,0.57591856,-0.49459368,1.9511954,-0.6600452,0.4848586,-0.010583177,0.01678814,-0.17000228,-0.09270599,0.24167287,-0.10822798,0.8580182,0.08039307,-1.6243852,2.0,-0.26401168,-0.5258847,0.29641956
2025-07-19 15:17:42.679,2.2000000000000015,2200,110,-0.082888104,-0.0715613,0.07175705,-0.042680454,-0.065450996,0.010929616,0.0,0.0,0.0,0.010919741,0.04411072,-0.07778681,-0.07205472,-0.09335652,-0.18302107,0.10353326,0.07452799,-0.19946198,0.27758002,-0.0731825,-0.018469,0.014495078,0.023113308,-0.059122693,-0.035177033,0.0065383045,0.07167245,0.039345283,-0.039769825,-0.089077905,-0.002202329,-0.020526653,-0.09107457,-0.05251842,0.01678814,-0.17000228,-0.09270599,0.24167287,-0.10822798,0.8580182,0.08039307,-1.6243852,2.0,-0.26401168,-0.5258847,0.29641956,0.0137408385,0.23586078,-0.5162565,0.021711435,-1.3388464,0.28946224,0.095906466,1.2635026,1.794154,-0.3989409,-0.29894915,-0.024902716
2025-07-19 15:17:42.699,2.2200000000000015,2220,111,-0.07526364,0.03172991,-0.13050646,-0.031511676,-0.038202386,0.029234635,0.0,0.0,0.0,0.010994978,0.05145811,-0.045062367,-0.070263624,-0.07728439,-0.18922545,0.09601719,0.084180176,-0.19400746,0.27268773,-0.07026597,-0.033553172,0.010771951,0.017701322,0.11881956,-0.064428784,0.07194068,-0.017914165,-0.025602954,-0.019240545,0.17540202,0.032965984,0.028312203,0.026596393,-0.005467312,0.0137408385,0.23586078,-0.5162565,0.021711435,-1.3388464,0.28946224,0.095906466,1.2635026,1.794154,-0.3989409,-0.29894915,-0.024902716,-0.12738527,-0.5719957,-0.16514152,-0.12552606,-0.015851479,0.4686062,0.6355128,-1.6061563,1.1168216,-0.27561906,-0.21070763,0.2279797
2025-07-19 15:17:42.719,2.2400000000000015,2240,112,-0.09752897,-0.071782716,0.08422264,-0.049502727,-0.016768074,-0.031650357,0.0,0.0,0.0,0.012130233,0.02589105,-0.053028297,-0.06014444,-0.07267693,-0.193395,0.06699269,0.08372116,-0.18681774,0.25947052,-0.06753943,-0.041207775,0.014751818,-0.011518253,-0.045290932,0.007271724,0.051549938,0.1067727,0.015870983,-0.004314233,-0.042457618,-0.068132505,-0.018255377,0.009083864,0.07329028,-0.12738527,-0.5719957,-0.16514152,-0.12552606,-0.015851479,0.4686062,0.6355128,-1.6061563,1.1168216,-0.27561906,-0.21070763,0.2279797,0.09275681,-0.09183747,-0.40887487,0.083346546,-1.1595782,0.12292233,-0.10272999,1.4353509,1.328978,-0.2862976,-0.847059,0.3457989
2025-07-19 15:17:42.743,2.2600000000000016,2260,113,-0.11153543,-0.081640325,-0.22429836,-0.01917699,-0.011961642,-0.0038876405,0.0,0.0,0.0,0.01220955,0.028232684,-0.055218358,-0.06696357,-0.066446915,-0.18715142,0.06850081,0.085186556,-0.15131223,0.23478714,-0.06360864,-0.09338351,0.021146234,-0.04438046,0.02137164,-0.0097176,-0.0007126492,-0.12363837,-0.047524586,-0.0015317268,0.057063203,-0.044424806,0.07897173,-0.18752408,0.03884307,0.09275681,-0.09183747,-0.40887487,0.083346546,-1.1595782,0.12292233,-0.10272999,1.4353509,1.328978,-0.2862976,-0.847059,0.3457989,0.12882687,-0.25742438,-0.8230345,-0.79048693,0.7532307,0.026325556,0.50987816,-0.7486318,1.1834685,0.12083953,1.9736335,0.6540546
2025-07-19 15:17:42.760,2.2800000000000016,2280,114,-0.23114514,-0.12105829,0.09658369,-0.066125035,0.00041037536,0.049231514,0.0,0.0,0.0,0.013554615,0.024118066,-0.062944174,-0.07353696,-0.080825835,-0.17777085,0.04168674,0.084604375,-0.15806696,0.22551283,-0.04327009,-0.0719366,0.047815934,0.022521198,0.00757413,-0.020282555,-0.007681118,0.108129196,0.0070994836,0.09045086,-0.012372785,-0.08028534,0.07545294,0.14104412,-0.006682673,0.12882687,-0.25742438,-0.8230345,-0.79048693,0.7532307,0.026325556,0.50987816,-0.7486318,1.1834685,0.12083953,1.9736335,0.6540546,-0.29780442,-1.2941695,-0.1716239,0.7147961,-1.3253831,0.8554078,-0.21038187,0.08753276,0.94097376,-0.4621536,-0.45012355,-0.28593338
2025-07-19 15:17:42.780,2.3000000000000016,2300,115,-0.028820448,0.038135167,-0.17842537,-0.04884885,0.0016044974,-0.021889985,0.0,0.0,0.0,0.01335292,0.022588903,-0.11405459,-0.05729975,-0.08463257,-0.17276579,0.06232142,0.07898294,-0.13635597,0.20576875,-0.047158714,-0.08462098,0.031135354,-0.06795564,-0.15847702,-0.008461503,0.123408236,-0.111351885,0.015606364,-0.10261244,0.06963421,-0.110064976,-0.06588537,-0.10818812,-0.04503414,-0.29780442,-1.2941695,-0.1716239,0.7147961,-1.3253831,0.8554078,-0.21038187,0.08753276,0.94097376,-0.4621536,-0.45012355,-0.28593338,0.52858067,0.644924,-0.26299673,-0.7975868,1.2027104,0.423415,0.25915647,-0.739343,1.7190648,-0.11233548,1.0071638,-0.01353319
2025-07-19 15:17:42.800,2.3200000000000016,2320,116,-0.15854183,-0.054816216,0.10482563,0.016384628,-0.023934564,-0.005803483,0.0,0.0,0.0,0.013862051,0.020863015,-0.13710779,-0.06964719,-0.08474571,-0.17569685,0.04534435,0.06607881,-0.124560684,0.22973338,-0.0437943,-0.036286242,0.014634195,0.049453076,0.076922484,0.062646694,-0.082832284,0.012827982,0.04396029,0.00018865625,0.020181173,-0.03234415,-0.051823765,0.25705653,-0.038880475,0.52858067,0.644924,-0.26299673,-0.7975868,1.2027104,0.423415,0.25915647,-0.739343,1.7190648,-0.11233548,1.0071638,-0.01353319,0.21629685,0.13316293,0.30238977,1.1202083,-0.115129724,0.9383726,-0.32992622,-0.7352652,1.3221644,-0.23365301,-2.0,-0.54689467
2025-07-19 15:17:42.822,2.3400000000000016,2340,117,-0.105331,-0.006531509,0.06297862,0.013610418,0.016127747,0.0016092401,0.0,0.0,0.0,0.013611507,0.03761102,-0.120132245,-0.042926572,-0.077950425,-0.14380918,0.054708518,0.0653829,-0.14555901,0.21517691,-0.03705116,-0.037394296,-0.0042674444,-0.026653003,0.14815696,0.052287355,-0.021944987,-0.044280145,0.02892437,0.010581736,-0.020537632,-0.06909404,0.01529285,-0.17999801,0.022772137,0.21629685,0.13316293,0.30238977,1.1202083,-0.115129724,0.9383726,-0.32992622,-0.7352652,1.3221644,-0.23365301,-2.0,-0.54689467,0.114874676,-0.8595747,-0.8653049,0.0831525,-0.5469531,-0.20017165,-0.16457552,1.735659,0.31884906,-0.11679218,0.15826263,0.3053643
2025-07-19 15:17:42.842,2.3600000000000017,2360,118,-0.05171434,0.11639604,-0.093699604,-0.06943978,-0.024491904,0.0027071184,0.0,0.0,0.0,0.012449657,0.03516756,-0.13435575,-0.062498674,-0.08052103,-0.15935454,0.04460755,0.063003816,-0.12149386,0.19039813,-0.03375289,-0.037218906,0.004466031,0.06842273,-0.09329571,-0.013097207,0.029289858,0.024767807,-0.062223736,-0.012341319,0.1361032,-0.028243922,0.038569175,0.10814044,0.06118792,0.114874676,-0.8595747,-0.8653049,0.0831525,-0.5469531,-0.20017165,-0.16457552,1.735659,0.31884906,-0.11679218,0.15826263,0.3053643,-0.3247746,0.36569884,0.5168248,0.23698542,1.012825,-0.15925346,0.123198494,-1.0577848,0.32696015,0.054013506,-0.79110086,-0.055712774
2025-07-19 15:17:42.860,2.3800000000000017,2380,119,0.05545446,-0.00050602324,-0.043945204,-0.05274441,0.022555323,0.007879682,0.0,0.0,0.0,0.012726344,0.026435422,-0.13201123,-0.04777618,-0.052617103,-0.1399684,0.020285364,0.0483304,-0.10315644,0.16377132,-0.03047687,-0.05060528,-0.002002745,-0.08658637,0.054567132,0.048245497,0.037223324,0.1335869,-0.0151494285,0.04731882,0.01752212,-0.028035901,0.006735556,-0.13669674,-0.025418842,-0.3247746,0.36569884,0.5168248,0.23698542,1.012825,-0.15925346,0.123198494,-1.0577848,0.32696015,0.054013506,-0.79110086,-0.055712774,-0.22761182,-0.23210458,-0.77725405,-0.5046198,-0.95848656,-0.53143615,0.4717516,0.59954584,-0.21204875,0.33867046,0.6009857,-0.3621468
2025-07-19 15:17:42.880,2.4000000000000017,2400,120,-0.007878833,0.066363804,0.051623378,-0.05052106,0.012163082,-0.026513137,0.0,0.0,0.0,0.013534084,0.009487955,-0.12806393,-0.05338532,-0.065646045,-0.14821479,-0.0044514355,0.055855077,-0.06375665,0.13483857,-0.029980984,-0.03800075,-0.012976746,-0.0700596,-0.06473763,0.0026851026,0.008167189,-0.12689158,-0.06872929,0.0019197166,0.11287997,-0.07605252,-0.025123686,0.111734614,-0.0020996379,-0.22761182,-0.23210458,-0.77725405,-0.5046198,-0.95848656,-0.53143615,0.4717516,0.59954584,-0.21204875,0.33867046,0.6009857,-0.3621468,-0.14517297,1.2800789,0.082894094,0.47670442,1.0169429,-0.09997177,-0.47829524,-0.2765402,-0.14289688,-0.06878347,-0.68293446,0.04300116
2025-07-19 15:17:42.900,2.4200000000000017,2420,121,-0.006658722,-0.077266455,-0.12211186,0.023973247,0.018003125,0.0403202,0.0,0.0,0.0,0.013303782,0.017807964,-0.1078812,-0.056792147,-0.059324443,-0.1491717,-0.009825738,0.054150097,-0.048561893,0.10713863,-0.019667922,-0.035721857,-0.0033801321,0.058787927,0.06280202,0.039834157,-0.016865574,0.023393532,-0.10093556,0.028495453,-0.016989946,0.017833004,-0.014203762,-0.10500215,-0.037470106,-0.14517297,1.2800789,0.082894094,0.47670442,1.0169429,-0.09997177,-0.47829524,-0.2765402,-0.14289688,-0.06878347,-0.68293446,0.04300116,-0.40080205,0.09273464,-0.81491643,-0.5900723,0.26360846,-0.66406024,0.23348135,0.24346063,-0.6065347,0.73086923,0.5639529,-0.9247915
2025-07-19 15:17:42.922,2.4400000000000017,2440,122,-0.046233032,0.044555366,0.042271324,-0.010695354,0.0059691174,0.017189767,0.0,0.0,0.0,0.014734314,0.00779778,-0.07569867,-0.061186813,-0.06007227,-0.1039877,-0.02438082,0.042121142,-0.023744415,0.067272164,-0.00025014617,-2.2484462e-06,-0.03457645,-0.07408532,0.09712792,0.015400398,0.018167546,0.17166321,0.006118977,-0.06594216,0.05624681,-0.1350703,0.047934055,0.071410835,-0.120932415,-0.40080205,0.09273464,-0.81491643,-0.5900723,0.26360846,-0.66406024,0.23348135,0.24346063,-0.6065347,0.73086923,0.5639529,-0.9247915,-0.26675647,-1.7942137,-0.77404577,0.3071866,-1.1047031,-0.18680976,-0.20548365,0.23703644,-1.1331292,0.28906706,0.009810424,-1.7748841
2025-07-19 15:17:42.943,2.4600000000000017,2460,123,0.044937205,0.09029099,-0.06549109,-0.036091194,-0.03953078,-0.008808178,0.0,0.0,0.0,0.0147569375,-0.0087655205,-0.105158046,-0.075925946,-0.05383235,-0.11243435,-0.034071878,0.04234606,-0.0023383982,0.029413937,0.0018815506,0.0022361835,-0.067253165,-0.014530771,-0.14198126,0.007147375,-0.0430522,-0.028856222,0.06292287,-0.023058757,0.012447908,-0.07895679,0.060364187,0.023078136,-0.12011808,-0.26675647,-1.7942137,-0.77404577,0.3071866,-1.1047031,-0.18680976,-0.20548365,0.23703644,-1.1331292,0.28906706,0.009810424,-1.7748841,-0.14803113,0.03778741,-0.312304,-0.35762215,1.7167177,0.36665356,-0.5951106,-0.10528487,0.90242004,0.6310423,0.24472369,-1.4915496
2025-07-19 15:17:42.960,2.4800000000000018,2480,124,-0.22359587,-0.08276208,0.02998276,0.01721232,-0.0058946875,-0.0005196408,0.0,0.0,0.0,0.015380907,-0.0075879176,-0.12394524,-0.083276294,-0.05567991,-0.11246504,-0.024979252,0.02346552,-0.015961269,0.033781912,0.023632666,0.011679729,-0.11296069,0.061119188,0.06339326,-0.020092355,0.029916588,0.0803117,0.045440283,-0.051019926,0.013843943,0.10168589,0.10297822,0.0076295757,-0.058262352,-0.14803113,0.03778741,-0.312304,-0.35762215,1.7167177,0.36665356,-0.5951106,-0.10528487,0.90242004,0.6310423,0.24472369,-1.4915496,-0.25309515,-0.39357224,-0.30588627,-0.06279108,-0.6780714,0.34092888,0.25236484,-0.15870416,-0.37712377,0.30761382,-0.5377264,-1.2235246
2025-07-19 15:17:42.980,2.5000000000000018,2500,125,0.11387045,-0.07449791,-0.04910335,0.014403424,-0.014206541,-0.026332036,0.0,0.0,0.0,0.015171199,-0.007981117,-0.13337253,-0.06952462,-0.045082726,-0.123601936,-0.013336908,0.026696177,-0.010552727,0.03234954,0.024891004,0.011514499,-0.12571476,-0.041665506,-0.049601987,0.010316688,-0.030333802,-0.069494806,-0.04481297,-0.07014968,0.0041444483,0.008924883,-0.007578685,-0.12886041,-2.7968432e-05,-0.25309515,-0.39357224,-0.30588627,-0.06279108,-0.6780714,0.34092888,0.25236484,-0.15870416,-0.37712377,0.30761382,-0.5377264,-1.2235246,0.22138755,0.44285318,-1.0500515,-0.564615,1.0131152,-0.29920208,-0.53043664,0.3307652,0.6621306,0.31504786,1.1236429,-0.72541946
2025-07-19 15:17:43.000,2.520000000000002,2520,126,-0.1254789,0.05510166,-0.104299404,-0.0012334505,0.006316183,-0.030855319,0.0,0.0,0.0,0.015981497,-0.0039257025,-0.10234071,-0.101290286,-0.060999125,-0.092491955,-0.024724584,0.010072893,0.0024569435,0.034573983,0.016066127,0.015729569,-0.13497043,0.060972992,0.2062142,0.014965536,0.00216949,0.1257564,-0.0023931917,-0.026766121,0.049553223,-0.033713557,0.02974862,0.08828911,-0.016737306,0.22138755,0.44285318,-1.0500515,-0.564615,1.0131152,-0.29920208,-0.53043664,0.3307652,0.6621306,0.31504786,1.1236429,-0.72541946,-0.76992977,-2.0,-0.21917401,0.047841024,-1.1907102,0.087693304,0.6637525,-1.0491548,-0.75875485,0.39250165,0.18150626,-1.2404858
2025-07-19 15:17:43.025,2.540000000000002,2540,127,0.17045051,-0.08558182,-0.0021512588,-0.009151053,0.042391255,0.03798251,0.0,0.0,0.0,0.017869605,-0.020092018,-0.100009166,-0.07602569,-0.06461845,-0.0936458,-0.02096865,0.019460442,-0.009469531,0.0057950364,0.030209802,0.033260968,-0.13445272,-0.053170826,-0.1384929,-0.04235382,-0.036405534,-0.14037271,-0.060050976,-0.011904508,-0.121828444,0.009005075,-0.006183339,0.029960776,-0.022102,-0.76992977,-2.0,-0.21917401,0.047841024,-1.1907102,0.087693304,0.6637525,-1.0491548,-0.75875485,0.39250165,0.18150626,-1.2404858,0.21473785,0.54827666,-1.342793,-0.04118525,1.6452535,0.7936986,-0.5211968,-0.06778586,1.2834235,-0.07612487,0.4162994,-0.23942365
2025-07-19 15:17:43.043,2.560000000000002,2560,128,-0.20124312,-0.08225311,-0.07589921,0.044332255,-0.0036241035,-0.015799955,0.0,0.0,0.0,0.018025361,-0.0076581934,-0.072964005,-0.10703999,-0.06136376,-0.09785078,-0.0077400403,0.03609876,-0.021494571,0.02982148,0.019840986,0.053127438,-0.12474912,-0.025974467,0.12817307,-0.09257912,0.003920411,0.0716525,0.0147991525,-0.05742868,-0.014747199,0.10348082,-0.053324983,0.041138478,-0.0052577113,0.21473785,0.54827666,-1.342793,-0.04118525,1.6452535,0.7936986,-0.5211968,-0.06778586,1.2834235,-0.07612487,0.4162994,-0.23942365,-0.2195368,-1.0618819,-0.607894,-0.29575258,-0.15847477,0.31748724,0.7746351,-1.13018,0.40547827,0.021513782,0.49555632,-0.94548917
2025-07-19 15:17:43.061,2.580000000000002,2580,129,-0.03488828,-0.06360328,0.15949515,-0.0019248981,0.0041437293,-0.0014875284,0.0,0.0,0.0,0.018679447,-0.010685587,-0.07453325,-0.11101385,-0.057603545,-0.09067563,-0.0023588943,0.035221506,-0.048484836,0.027591718,0.019633468,0.08322093,-0.121775106,-0.07865954,-0.20441751,0.052487966,-0.06370213,-0.034330375,0.031875696,0.07416259,-0.1654198,0.08326926,-0.021884168,0.12740643,0.043805428,-0.2195368,-1.0618819,-0.607894,-0.29575258,-0.15847477,0.31748724,0.7746351,-1.13018,0.40547827,0.021513782,0.49555632,-0.94548917,0.9693738,1.6547569,-0.7556607,0.24635369,-0.0014509447,0.3688156,-0.5071902,1.057323,1.9480277,-0.62934756,-0.5861616,0.31632835
2025-07-19 15:17:43.080,2.600000000000002,2600,130,-0.019211993,0.0058087776,-0.2163716,-0.04198377,0.021216765,-0.013309522,0.0,0.0,0.0,0.017831301,0.011951602,-0.070411205,-0.103377484,-0.04775096,-0.08726274,-0.0073600975,0.05006366,-0.069842204,0.06338017,-0.007823225,0.050504796,-0.10012186,0.0480804,0.08933209,-0.013078252,0.0038976646,0.06511756,-0.04119008,-0.052800328,-0.0088953525,0.15742491,0.002996382,-0.13688922,0.08970148,0.9693738,1.6547569,-0.7556607,0.24635369,-0.0014509447,0.3688156,-0.5071902,1.057323,1.9480277,-0.62934756,-0.5861616,0.31632835,-0.12748323,-0.56458694,-0.9478224,-1.2610294,-0.0072416477,0.014865787,1.0965434,-0.9594197,1.2977606,-0.32234898,1.7297665,0.53857654
2025-07-19 15:17:43.143,2.620000000000002,2620,131,0.115639314,-0.15345515,0.1423708,-0.026050512,0.028325928,-0.028736938,0.0,0.0,0.0,0.01879511,0.015695691,-0.08457596,-0.121343665,-0.07185769,-0.063918695,-0.003001541,0.058220863,-0.103464946,0.09211067,-0.004501791,0.060922205,-0.07765065,-0.004833103,-0.14796287,-0.05204757,-0.07884742,0.058219135,-0.048617147,0.10527133,-0.095401116,0.017911956,-0.057536684,0.03286775,-0.0033878188,-0.12748323,-0.56458694,-0.9478224,-1.2610294,-0.0072416477,0.014865787,1.0965434,-0.9594197,1.2977606,-0.32234898,1.7297665,0.53857654,-0.1438124,-0.022042718,-0.63040406,0.42360944,-2.0,0.55574226,-0.03073457,0.57470626,1.7652934,-0.4221175,0.4313609,0.42497426
2025-07-19 15:17:43.160,2.640000000000002,2640,132,0.092241965,0.033092607,-0.11199088,0.029153533,0.017627055,-0.04973398,0.0,0.0,0.0,0.017771909,0.008073988,-0.06641724,-0.10603301,-0.07199779,-0.083112694,0.0027249472,0.055136204,-0.10997747,0.10354228,-0.029151762,0.08998179,-0.050454985,-0.083221115,0.01348794,0.08122576,-0.008027285,-0.09913761,0.10308193,0.010261424,0.12663005,0.071609005,0.04139966,0.053420573,0.033084538,-0.1438124,-0.022042718,-0.63040406,0.42360944,-2.0,0.55574226,-0.03073457,0.57470626,1.7652934,-0.4221175,0.4313609,0.42497426,0.19867708,-0.32370195,-0.1979923,-0.5556735,-0.20796336,0.6699498,0.821252,-2.0,1.6384966,-0.37981483,-0.004283839,0.5201432
2025-07-19 15:17:43.180,2.660000000000002,2660,133,0.21266256,-0.012640477,0.07933722,0.027747037,-0.0054954663,-0.0074516986,0.0,0.0,0.0,0.018073078,0.0106261335,-0.077773675,-0.091857255,-0.078036115,-0.09521735,0.014355359,0.07195484,-0.11607891,0.13325574,-0.019901266,0.062017802,-0.035899572,-0.044309184,-0.02707818,-0.035898168,-0.008514283,0.039705362,-0.016770603,0.087148234,-0.06885579,0.122656174,-0.04577946,-0.048178628,0.007182791,0.19867708,-0.32370195,-0.1979923,-0.5556735,-0.20796336,0.6699498,0.821252,-2.0,1.6384966,-0.37981483,-0.004283839,0.5201432,-0.40057275,-0.7753326,-0.44799104,0.036209192,-1.9224365,0.21608336,0.3972761,0.65685755,1.8891891,-0.14548396,0.05279293,0.13427322
2025-07-19 15:17:43.200,2.680000000000002,2680,134,0.19778116,0.003961286,-0.09387075,-0.06699232,0.0070090005,0.014971713,0.0,0.0,0.0,0.018394278,-0.00903149,-0.12747255,-0.0961045,-0.07086097,-0.118982315,0.014529964,0.0867174,-0.122740485,0.1634932,-0.029296461,0.07093149,-0.020511031,-0.08264614,-0.14665432,-0.019930001,-0.026184775,-0.00762504,0.048657324,-0.019216763,0.025514664,0.093892254,-0.023242554,0.024064923,0.06892419,-0.40057275,-0.7753326,-0.44799104,0.036209192,-1.9224365,0.21608336,0.3972761,0.65685755,1.8891891,-0.14548396,0.05279293,0.13427322,0.354034,1.2317425,-0.9040474,-0.23838153,-0.52757317,0.80850166,0.47271284,-1.363533,2.0,-0.5478059,0.34211624,0.20978685
2025-07-19 15:17:43.225,2.700000000000002,2700,135,0.100727305,0.014711304,0.027264679,-0.0297874,-0.0588436,-0.027202893,0.0,0.0,0.0,0.0190776,-0.0035010434,-0.114556484,-0.111496665,-0.056306817,-0.12343011,0.030876989,0.08110759,-0.12895618,0.17548357,-0.033474285,0.06816763,-0.0023739638,0.012526975,0.06619822,0.006628965,-0.03899832,-0.07565861,-0.021784764,0.06893862,-0.018161824,0.08000361,-0.02191286,0.06285438,0.04541035,0.354034,1.2317425,-0.9040474,-0.23838153,-0.52757317,0.80850166,0.47271284,-1.363533,2.0,-0.5478059,0.34211624,0.20978685,0.41637218,0.7988211,-0.6158698,0.22902739,0.1473851,0.74849564,-0.0023055393,-1.2247679,2.0,-0.7440288,-0.66833055,0.18222658
2025-07-19 15:17:43.241,2.720000000000002,2720,136,0.06218091,0.045116317,0.015611946,-0.068935245,-0.015719688,-0.049666774,0.0,0.0,0.0,0.01999914,0.021577662,-0.06744368,-0.10932503,-0.051922496,-0.12656239,0.028406039,0.07187106,-0.14166763,0.20614375,-0.050440792,0.04039022,0.0020592168,0.036924437,0.19436799,-0.015057377,-0.004518269,0.0737618,-0.006644364,-0.038277265,-0.06054226,0.08578475,-0.016840843,-0.13961703,0.014504473,0.41637218,0.7988211,-0.6158698,0.22902739,0.1473851,0.74849564,-0.0023055393,-1.2247679,2.0,-0.7440288,-0.66833055,0.18222658,-0.39715886,-1.375456,-0.71364516,-0.12288159,-1.3529975,0.44787744,0.37977046,0.2643922,1.1869181,-0.572598,0.22377592,-0.2799257
2025-07-19 15:17:43.260,2.740000000000002,2740,137,-0.039154455,0.047542933,-0.03570532,-0.0027126446,-8.136102e-05,0.047674473,0.0,0.0,0.0,0.020524083,0.0066877436,-0.05386654,-0.103059195,-0.06124368,-0.12140382,0.034565773,0.08379036,-0.12122364,0.2058556,-0.06049986,0.03560556,-0.0084191365,-0.04308931,-0.0077022277,-0.05172704,-0.01029984,-0.014808399,0.08583529,-0.064587906,0.16225736,-0.05490478,0.03127887,0.014567596,0.020770555,-0.39715886,-1.375456,-0.71364516,-0.12288159,-1.3529975,0.44787744,0.37977046,0.2643922,1.1869181,-0.572598,0.22377592,-0.2799257,-0.12793748,-1.0004934,-0.089734904,-0.10396092,-0.12511201,0.5538643,-0.0036217887,-1.5954225,1.5195069,-0.29594934,-0.5624946,-0.16330694
2025-07-19 15:17:43.280,2.760000000000002,2760,138,0.028612053,-0.032917544,0.098794766,-0.060290348,-0.0259399,0.007868724,0.0,0.0,0.0,0.020171613,-0.005082383,-0.08589644,-0.10533501,-0.0639765,-0.12997945,0.04389574,0.07099932,-0.12472247,0.20220967,-0.04870363,0.007616311,-0.017990135,-0.054962512,-0.22549896,0.11316144,0.015781755,0.06919952,0.025011303,0.056998298,-0.061774995,-0.03213367,-0.033552933,-0.11492792,0.010271251,-0.12793748,-1.0004934,-0.089734904,-0.10396092,-0.12511201,0.5538643,-0.0036217887,-1.5954225,1.5195069,-0.29594934,-0.5624946,-0.16330694,0.04799196,1.1579138,-0.004137451,0.054708626,-0.8375891,-0.30412003,-0.25380546,1.5253308,1.793575,-0.14716955,-0.1517634,0.23969018
2025-07-19 15:17:43.300,2.780000000000002,2780,139,-0.074828684,0.025352545,-0.15035152,-0.046443805,-0.025694717,0.010235505,0.0,0.0,0.0,0.019168457,0.0060454505,-0.07927435,-0.09067086,-0.059308536,-0.14248274,0.02609029,0.05755141,-0.10591242,0.21748488,-0.059999622,-0.016231665,-0.0059599667,-0.051286627,0.17570162,0.066641465,0.07958106,-0.0069237794,0.027021285,-0.013012892,0.17121573,-0.026797652,0.07506683,0.048532087,-0.0121015785,0.04799196,1.1579138,-0.004137451,0.054708626,-0.8375891,-0.30412003,-0.25380546,1.5253308,1.793575,-0.14716955,-0.1517634,0.23969018,-0.1898538,-0.30556902,0.15960777,-0.1819651,0.15668558,-0.10396364,0.9779603,-1.4798911,0.17932187,0.027119033,-0.46444327,-0.084517315
