openverse-orca/OrcaGym/log/simulation_log_20250605_091311.csv
timestamp,imu_angle_roll,imu_angle_pitch,imu_angle_yaw,imu_angular_velocity_roll,imu_angular_velocity_pitch,imu_angular_velocity_yaw,imu_acc_x,imu_acc_y,imu_acc_z,fl_joint1_pos,fl_joint1_vel,fl_joint1_torque,fl_joint2_pos,fl_joint2_vel,fl_joint2_torque,fl_joint3_pos,fl_joint3_vel,fl_joint3_torque,fr_joint1_pos,fr_joint1_vel,fr_joint1_torque,fr_joint2_pos,fr_joint2_vel,fr_joint2_torque,fr_joint3_pos,fr_joint3_vel,fr_joint3_torque,hl_joint1_pos,hl_joint1_vel,hl_joint1_torque,hl_joint2_pos,hl_joint2_vel,hl_joint2_torque,hl_joint3_pos,hl_joint3_vel,hl_joint3_torque,hr_joint1_pos,hr_joint1_vel,hr_joint1_torque,hr_joint2_pos,hr_joint2_vel,hr_joint2_torque,hr_joint3_pos,hr_joint3_vel,hr_joint3_torque,fl_force_x,fl_force_y,fl_force_z,fr_force_x,fr_force_y,fr_force_z,hl_force_x,hl_force_y,hl_force_z,hr_force_x,hr_force_y,hr_force_z,fl_hip_action,fl_thigh_action,fl_calf_action,fr_hip_action,fr_thigh_action,fr_calf_action,hl_hip_action,hl_thigh_action,hl_calf_action,hr_hip_action,hr_thigh_action,hr_calf_action
2025-06-05 09:13:11.899,0.037445396,-0.0149649605,0.012804868,-0.0029107835,-0.012266008,-0.048926868,1.5503756,-0.8577344,0.0,0.0,-0.0077120597,-0.005586203,-0.0062626144,0.0024096973,-0.0024763562,0.0016593857,0.004918791,0.0056891674,-0.0033516416,-0.0080196215,0.0027352183,9.247427e-05,-0.0496703,-0.012374751,0.04275457,0.018256973,-0.06154386,0.043050744,0.038952436,-0.046278678,-0.009657667,-0.011134695,0.04363376,-0.05238174,0.0,0.0,0.0,0.0,0.0,0.0,0.0,0.0,0.0,0.0,0.0,0.0,-0.7989556,0.60192025,-0.19873275,0.23393665,0.70070106,-0.1940472,-0.017231368,-0.5767354,-0.24108587,0.4744363,-0.86999226,-0.8813837
2025-06-05 09:13:11.903,-0.020588579,-0.023210581,0.04320265,-0.03400183,0.039026856,-0.044403914,0.0,0.0,0.0,0.0,-0.005929808,0.03950132,-0.0020570613,0.002775086,0.03577932,-0.013407902,0.0024320222,-0.04648696,-0.013261412,0.010290847,-0.0636001,-0.022876788,-0.09318128,0.091806866,0.008910484,-0.054904684,0.16633137,0.007827554,0.015926037,-0.17049348,0.021906953,0.0031786528,-0.22970381,-0.124647036,-0.7989556,0.60192025,-0.19873275,0.23393665,0.70070106,-0.1940472,-0.017231368,-0.5767354,-0.24108587,0.4744363,-0.86999226,-0.8813837,-0.38894925,0.32569394,-0.9548103,0.8784879,-0.4677198,0.55452347,-0.5808401,-0.69868416,0.4849103,0.291443,-0.44871578,-0.51812416
2025-06-05 09:13:11.926,-0.054693367,-0.04377858,-0.027995903,0.029295634,-0.036151003,-0.04456042,0.0,0.0,0.0,-3.2727934e-05,-0.010180135,0.05459179,-0.044543482,0.007896692,0.016307512,0.015110814,-0.0059132855,-0.086522415,0.01802209,0.006339542,-0.08564849,-0.06293302,-0.0099924095,0.062258426,-0.13443936,0.025616014,-0.11128099,0.09194612,-0.00804797,-0.121652715,0.114465274,0.07098084,-0.08849689,-0.108296454,-0.38894925,0.32569394,-0.9548103,0.8784879,-0.4677198,0.55452347,-0.5808401,-0.69868416,0.4849103,0.291443,-0.44871578,-0.51812416,0.8048682,-0.031357925,-0.98885375,0.97225636,-0.0030554214,0.7847316,-0.8203971,-0.6757723,0.9388754,-0.57594377,-0.7705159,-0.8564202
2025-06-05 09:13:11.944,-0.023925059,0.056958817,0.020867264,-0.02756093,0.0440034,-0.0051948912,0.0,0.0,0.0,-0.00024247536,-0.022483172,0.063140765,-0.066715375,0.03653273,-0.00057723676,0.051823307,-0.013353449,-0.13768284,0.041601174,0.005483645,-0.13185725,-0.049420927,-0.013858608,0.017988494,0.040499866,0.030221956,0.05636233,0.04829951,-0.06499675,-0.022051608,0.11851565,0.036362324,-0.040944073,-0.0021407353,0.8048682,-0.031357925,-0.98885375,0.97225636,-0.0030554214,0.7847316,-0.8203971,-0.6757723,0.9388754,-0.57594377,-0.7705159,-0.8564202,0.92585707,0.045544077,-0.9845529,0.9520529,0.64213353,0.69292426,-0.79182917,-0.31621864,0.96778977,-0.5436212,-0.6792253,-0.8552959
2025-06-05 09:13:11.965,-0.07456764,-0.03667276,0.014488601,0.03766458,0.0012487237,-0.047515858,0.0,0.0,0.0,-0.0007625228,-0.021814086,0.03194966,-0.04811002,0.034590367,0.04265376,0.06263333,-0.02604553,-0.14062569,0.08757147,0.021752436,-0.15426998,-0.010737502,-0.018369079,-0.12642598,0.10026925,0.043711983,0.10475735,0.10185194,0.008679905,-0.07019696,0.060629454,0.015946494,-0.14521742,0.014676292,0.92585707,0.045544077,-0.9845529,0.9520529,0.64213353,0.69292426,-0.79182917,-0.31621864,0.96778977,-0.5436212,-0.6792253,-0.8552959,0.8585113,0.102664664,-0.95405483,0.91315114,0.6853788,0.52826774,-0.7826995,0.39314815,0.93396187,-0.33006454,-0.5137317,-0.82453257
2025-06-05 09:13:11.985,0.007294829,-0.10995481,-0.061550308,-0.014494791,-0.0019471539,0.009693258,0.0,0.0,0.0,-0.0009894158,-0.013721456,0.012614676,-0.008024309,0.05278084,0.09352195,0.08764675,-0.023723273,-0.09531935,0.10815054,0.03067897,-0.16943423,0.014148903,-0.01682011,-0.08793116,-0.01960946,0.013005741,0.15352231,-0.028795794,-0.02733168,0.10680686,0.08819679,0.028966576,-0.047335736,-0.007183661,0.8585113,0.102664664,-0.95405483,0.91315114,0.6853788,0.52826774,-0.7826995,0.39314815,0.93396187,-0.33006454,-0.5137317,-0.82453257,0.62280977,0.25034305,-0.7088784,0.8815683,0.7623162,0.24078655,-0.69571084,0.7441034,0.6453718,-0.36825678,-0.6242968,-0.8973025
2025-06-05 09:13:12.004,0.01180502,-0.084798485,0.045108214,0.061703745,0.05323284,0.0029000544,0.0,0.0,0.0,-0.0006506697,-0.008617508,0.018094841,-0.010610399,0.057371613,0.13753545,0.07962254,-0.024088508,-0.024966067,0.11479817,0.026400693,-0.18247211,0.031990193,-0.00505735,-0.07692349,0.028466852,0.016261743,0.17665842,0.011688032,-0.0030589022,0.24583983,-0.046824604,-0.051985715,-0.050515372,0.079289995,0.62280977,0.25034305,-0.7088784,0.8815683,0.7623162,0.24078655,-0.69571084,0.7441034,0.6453718,-0.36825678,-0.6242968,-0.8973025,-0.09925015,-0.060818665,-0.3976079,0.912403,0.7583689,-0.30175477,-0.6508321,0.7597965,0.02552212,0.13641956,-0.6032859,-0.8429017
2025-06-05 09:13:12.025,-0.026159523,0.0019489025,-0.0014490521,0.0045536165,0.025978116,0.04775044,0.0,0.0,0.0,-0.0004942576,-0.008264053,0.0069391094,0.0044104983,0.05874784,0.18077819,0.049330592,-0.044977214,0.05498023,0.101187505,0.031015256,-0.18045777,0.021323083,0.038914252,-0.054753684,0.06312181,0.047291033,0.07800502,-0.0881606,-0.038939185,0.10749102,-0.05133191,-0.026302978,-0.053513806,0.01925916,-0.09925015,-0.060818665,-0.3976079,0.912403,0.7583689,-0.30175477,-0.6508321,0.7597965,0.02552212,0.13641956,-0.6032859,-0.8429017,-0.607064,0.09800649,0.82292473,0.8567372,0.6158283,-0.88422585,-0.59506935,0.068488486,-0.95336646,0.30358213,-0.80779487,-0.6373464
2025-06-05 09:13:12.044,0.005611162,0.09919525,-0.010387842,0.027462048,-0.004041173,0.041425094,0.0,0.0,0.0,-0.00013547917,-0.01888899,-0.010210296,0.03106523,0.061311793,0.20900647,0.016380142,-0.043718766,0.05647375,0.04396559,0.037951864,-0.20382352,0.031238278,-0.054868095,0.05334533,0.11098384,-0.047619715,0.017750798,-0.10428883,-0.05657143,-0.02093026,-0.1597982,-0.06711622,-0.040338553,-0.0012490633,-0.607064,0.09800649,0.82292473,0.8567372,0.6158283,-0.88422585,-0.59506935,0.068488486,-0.95336646,0.30358213,-0.80779487,-0.6373464,-0.514215,-0.43095812,0.9504312,-0.25737286,-0.07161042,-0.95952785,-0.8865548,-0.34412965,-0.9909604,0.63981086,-0.8961997,0.7251967
2025-06-05 09:13:12.064,-0.07514644,0.058517575,0.03287124,-0.00213434,0.03358318,0.0008331253,0.0,0.0,0.0,8.3489416e-05,-0.027797334,-0.031761795,0.07720572,0.050767474,0.19211802,-0.0118801035,-0.05105957,0.047906745,0.038076337,0.025531385,-0.23994315,0.057122115,-0.058239456,-0.039219346,0.061647523,-0.045289714,-0.10162557,-0.08545478,0.019607963,-0.020729681,-0.05108283,-0.041244887,-0.04858076,0.05979505,-0.514215,-0.43095812,0.9504312,-0.25737286,-0.07161042,-0.95952785,-0.8865548,-0.34412965,-0.9909604,0.63981086,-0.8961997,0.7251967,-0.20138122,0.10138145,0.9535792,-0.9828722,0.23220608,-0.95582026,-0.9628289,-0.81186473,-0.9890815,0.71424437,-0.60652524,0.970857
2025-06-05 09:13:12.084,-0.12421155,0.22055623,-0.039647438,0.050938956,-0.002055791,0.001968788,0.0,0.0,0.0,-0.00032966345,-0.021092953,-0.036396407,0.095129505,0.035223607,0.18217288,-0.021131994,-0.06613922,-0.00586208,0.049225632,0.032552518,-0.26495162,0.08698562,0.07940179,0.015914518,0.1414029,0.01032428,-0.053380914,0.015673973,-0.07155043,-0.16568811,0.010787138,0.022848122,0.034075655,0.12224876,-0.20138122,0.10138145,0.9535792,-0.9828722,0.23220608,-0.95582026,-0.9628289,-0.81186473,-0.9890815,0.71424437,-0.60652524,0.970857,0.22460866,0.5916736,0.8537217,-0.99496937,0.3960414,-0.8992577,-0.98773736,-0.8538149,-0.98927325,0.5850034,-0.70111114,0.8726387
2025-06-05 09:13:12.106,-0.08326166,0.071808524,-0.060605984,0.08239635,0.0003998869,0.018543573,0.0,0.0,0.0,-9.329108e-05,-0.011411672,0.027315091,0.1285984,0.03722452,0.15134746,-0.021368995,-0.073523685,-0.035266016,0.07851102,0.0428553,-0.2841717,0.11949792,-0.026092932,0.17023604,-0.019595444,-0.074820355,0.030002803,0.044218343,-0.091972455,-0.097629316,0.11490819,0.0157454,-0.07011895,0.10162082,0.22460866,0.5916736,0.8537217,-0.99496937,0.3960414,-0.8992577,-0.98773736,-0.8538149,-0.98927325,0.5850034,-0.70111114,0.8726387,0.44103304,0.6631497,0.26676422,-0.98753345,0.11656481,-0.89629203,-0.9956698,-0.7443168,-0.9757379,0.3471164,-0.66266775,0.47887692
2025-06-05 09:13:12.126,-0.06947025,0.03604066,0.007339862,0.056221854,0.0072561535,0.025822094,0.0,0.0,0.0,0.0005224551,-0.0088005215,0.07418279,0.11511553,0.012356615,0.13520436,-0.03388299,-0.091354996,-0.059125356,0.09073862,0.035698988,-0.27353597,0.1169166,-0.01919054,0.1174298,-0.0913281,-0.045607705,-0.005782775,-0.07925087,-0.07634023,-0.046027012,0.05242733,-0.005536785,0.01606338,0.036627047,0.44103304,0.6631497,0.26676422,-0.98753345,0.11656481,-0.89629203,-0.9956698,-0.7443168,-0.9757379,0.3471164,-0.66266775,0.47887692,0.49824107,0.7454173,-0.3679072,-0.91762656,0.29137436,-0.6314658,-0.9913027,-0.82724994,-0.9324861,0.17536063,-0.7325275,-0.51672536
2025-06-05 09:13:12.145,-0.056908093,0.018279774,-0.024993729,0.047474165,0.010451485,-0.011774866,0.0,0.0,0.0,0.0009799006,0.019407792,0.11223858,0.09118965,0.015452668,0.12883699,-0.037470527,-0.09427886,-0.097784154,0.09959452,0.038453702,-0.282707,0.07198328,0.009506734,0.07552549,-0.02187093,-0.06214412,-0.113008335,0.03831009,-0.091311105,-0.09071216,0.05135668,-0.0653333,-0.049611904,-0.10929654,0.49824107,0.7454173,-0.3679072,-0.91762656,0.29137436,-0.6314658,-0.9913027,-0.82724994,-0.9324861,0.17536063,-0.7325275,-0.51672536,0.75317216,0.74443954,-0.8352492,-0.2245591,-0.068752065,-0.013431226,-0.9913623,-0.8440724,-0.8095037,0.13573615,-0.8584482,-0.94352686
2025-06-05 09:13:12.166,-0.011545515,-0.0686914,-0.078608185,0.087286316,0.04006909,-0.031239638,0.0,0.0,0.0,0.0018330181,0.015618362,0.15608698,0.03495856,0.0044966033,0.09571262,-0.033390753,-0.11142917,-0.12364713,0.081255026,0.026344288,-0.29951712,0.039944615,0.052914664,0.083117485,-0.10732407,0.020717736,-0.0529941,0.059990592,0.026294714,-0.1398339,-0.03381522,-0.024210257,-0.041444078,0.004306992,0.75317216,0.74443954,-0.8352492,-0.2245591,-0.068752065,-0.013431226,-0.9913623,-0.8440724,-0.8095037,0.13573615,-0.8584482,-0.94352686,0.8913617,0.6548141,-0.9360463,0.78712183,-0.292833,0.0926054,-0.9880691,-0.87751895,-0.5279563,-0.21574849,-0.91518617,-0.9654143
2025-06-05 09:13:12.186,0.055894163,-0.08981758,0.0045917784,0.061141234,0.053992994,-0.041227803,0.0,0.0,0.0,0.0031250191,0.02545092,0.19492197,-0.004755624,0.0042455485,0.06289112,-0.0061610183,-0.10937782,-0.1575317,0.07214191,0.02965913,-0.31781897,0.020337988,-0.028737495,0.10009901,-0.112568505,0.05857614,-0.02832547,0.09964099,-0.014851684,-0.12799513,0.03633707,-0.017460953,-0.044046693,0.018718896,0.8913617,0.6548141,-0.9360463,0.78712183,-0.292833,0.0926054,-0.9880691,-0.87751895,-0.5279563,-0.21574849,-0.91518617,-0.9654143,0.9160538,0.35321882,-0.9826427,0.94795036,0.23121463,0.29835072,-0.964318,-0.94843,0.05871224,-0.40798566,-0.86297524,-0.92739487
2025-06-05 09:13:12.209,0.017459214,-0.09394868,0.004845748,0.012519944,-0.026879203,-0.022490148,0.0,0.0,0.0,0.0040242956,0.03576021,0.1801912,-0.030096386,0.007111681,0.0481414,0.008426143,-0.10392443,-0.19966446,0.06963129,0.0300934,-0.32932162,0.01580626,0.0067959386,-0.07723387,-0.09897322,0.030840512,-0.09244879,0.04135596,-0.009413471,-0.069928706,-0.05060169,-0.0028145749,-0.02171511,0.03499263,0.9160538,0.35321882,-0.9826427,0.94795036,0.23121463,0.29835072,-0.964318,-0.94843,0.05871224,-0.40798566,-0.86297524,-0.92739487,0.9206925,0.4685628,-0.96821135,0.9324255,0.3893884,0.039095663,-0.9327738,-0.9234661,0.060271,-0.48229045,-0.74273425,-0.87529486
2025-06-05 09:13:12.225,0.07309194,-0.12539871,0.05667333,0.01810553,0.04452269,0.012745604,0.0,0.0,0.0,0.0045437654,0.028749416,0.16112252,-0.042582147,0.020118937,0.070442244,0.0052235313,-0.106701314,-0.2236347,0.06026631,0.021630932,-0.3535367,-0.0049677514,0.049456354,-0.028517377,-0.057871196,-0.026549391,0.09371307,-0.07640804,0.07314323,-0.15834172,-0.039605353,0.048196036,-0.0783457,0.01701857,0.9206925,0.4685628,-0.96821135,0.9324255,0.3893884,0.039095663,-0.9327738,-0.9234661,0.060271,-0.48229045,-0.74273425,-0.87529486,0.8860736,0.35044375,-0.9777003,0.9324933,0.26624537,0.20105739,-0.9101908,-0.876993,0.32969773,-0.27851814,-0.65469456,-0.83391154
2025-06-05 09:13:12.246,0.06770925,-0.17549849,-0.017445417,0.06421938,0.040708147,0.0072353673,0.0,0.0,0.0,0.004473017,0.027971322,0.15180431,-0.03350811,0.044686504,0.07399346,0.015700001,-0.09271061,-0.26320404,0.074710816,0.026165597,-0.35624698,-0.018379638,-0.032576542,-0.05102321,-0.0640745,0.09458204,0.019058354,-0.003206793,-0.062761925,-0.09364032,-0.013050927,-0.06422818,-0.05071501,-0.10362026,0.8860736,0.35044375,-0.9777003,0.9324933,0.26624537,0.20105739,-0.9101908,-0.876993,0.32969773,-0.27851814,-0.65469456,-0.83391154,0.9173502,0.45514312,-0.96027344,0.9178324,0.4483967,0.12875909,-0.8992288,-0.843875,0.20044371,-0.433492,-0.70535827,-0.8706321
2025-06-05 09:13:12.266,-0.004432275,-0.11992412,0.050237175,-0.004650339,0.018445149,0.026903814,0.0,0.0,0.0,0.00409008,0.04832627,0.1428132,-0.04490713,0.0507609,0.09145603,0.0148000205,-0.09437546,-0.29305783,0.06233649,0.022791328,-0.34817037,-0.036003698,0.0152168125,0.017661713,-0.08210889,-0.014668989,0.095278226,-0.024634631,0.005106684,-0.011170003,-0.0052843844,-0.045726765,-0.011568377,-0.0303384,0.9173502,0.45514312,-0.96027344,0.9178324,0.4483967,0.12875909,-0.8992288,-0.843875,0.20044371,-0.433492,-0.70535827,-0.8706321,0.8754502,0.32171932,-0.9725728,0.9244911,0.362565,0.16172257,-0.911802,-0.7945261,0.30166855,-0.2030192,-0.6286601,-0.83729243
2025-06-05 09:13:12.286,0.06501578,-0.17166291,0.062965505,-0.01100562,0.016384684,-0.0018237658,0.0,0.0,0.0,0.0034060238,0.0377543,0.1528925,-0.037155237,0.04233255,0.12411156,0.024325915,-0.084833406,-0.29183945,0.073064856,0.03249662,-0.35852084,-0.039942026,-0.013169827,0.027353989,-0.06577286,0.045305997,0.058963973,0.03254743,0.053426635,-0.10867822,0.070016496,-0.018149192,0.058469098,0.0024162289,0.8754502,0.32171932,-0.9725728,0.9244911,0.362565,0.16172257,-0.911802,-0.7945261,0.30166855,-0.2030192,-0.6286601,-0.83729243,0.8589051,0.26634154,-0.984103,0.9253655,0.39126495,0.15936166,-0.9020817,-0.78098184,0.5570804,0.020902596,-0.5530745,-0.8068323
2025-06-05 09:13:12.309,0.08080533,-0.22402222,0.030333895,0.034800507,0.086557694,-0.036908194,0.0,0.0,0.0,0.0027872524,0.050229378,0.14311099,-0.056851275,0.05983163,0.13819362,0.017195208,-0.083762474,-0.3080892,0.08284549,0.036378354,-0.35537547,-0.04507174,0.0112745715,-0.07745227,-0.08385789,-0.025648402,0.07165506,-0.051483244,-0.02920551,-0.024622083,0.083068706,0.034144286,0.07497724,-0.058634378,0.8589051,0.26634154,-0.984103,0.9253655,0.39126495,0.15936166,-0.9020817,-0.78098184,0.5570804,0.020902596,-0.5530745,-0.8068323,0.8274979,0.33257702,-0.98022556,0.8883792,0.43983924,0.10268737,-0.8807977,-0.47629017,0.63031006,0.08988875,-0.36101827,-0.7619459
2025-06-05 09:13:12.325,0.109254725,-0.17798635,-0.067972936,-0.039301276,0.095517725,0.035261758,0.0,0.0,0.0,0.0028431148,0.039408248,0.14083986,-0.056892764,0.05994134,0.13457164,0.034106806,-0.08773454,-0.3054861,0.09416765,0.0398487,-0.34950295,-0.074154645,0.06610071,0.044430047,0.04291496,-0.001225708,-0.008720053,-0.012724832,0.073348045,0.10508763,-0.014475332,0.04806361,0.08896368,0.021966374,0.8274979,0.33257702,-0.98022556,0.8883792,0.43983924,0.10268737,-0.8807977,-0.47629017,0.63031006,0.08988875,-0.36101827,-0.7619459,0.7889696,0.5155372,-0.7825056,0.8638378,0.58311594,-0.24007371,-0.88241637,-0.12930247,-0.40107802,-0.2528443,-0.7629845,-0.91314316
2025-06-05 09:13:12.347,0.002806461,-0.097942986,0.056461312,-0.027154703,0.038795933,-0.013812616,0.0,0.0,0.0,0.0036147255,0.05403682,0.13352117,-0.052171897,0.06901118,0.1542991,0.033142906,-0.084009655,-0.25913826,0.055398546,0.03101748,-0.33830857,-0.08192765,-0.0033315327,0.04917356,-0.038597133,0.052166883,0.050610565,-0.03269593,-0.041561645,0.172056,-0.06363895,-0.061011713,-0.01709842,0.004377315,0.7889696,0.5155372,-0.7825056,0.8638378,0.58311594,-0.24007371,-0.88241637,-0.12930247,-0.40107802,-0.2528443,-0.7629845,-0.91314316,0.74023616,0.05405472,-0.6672345,0.8794604,0.52052116,-0.5977378,-0.9530151,-0.5957974,-0.8070895,-0.018104395,-0.77049047,-0.87743485
2025-06-05 09:13:12.366,-0.058155224,0.0043406044,0.049481526,0.01568721,0.08749941,0.009137556,0.0,0.0,0.0,0.0037185072,0.05404855,0.14064276,-0.05736451,0.06849885,0.1549905,0.024681715,-0.087281734,-0.2618202,0.028379498,0.02700163,-0.33910543,-0.093111485,0.054907028,-0.089804985,-0.06947425,-0.071887635,-0.04256826,0.0067073866,-0.05709737,0.044156354,-0.04179161,0.03719248,-0.059008308,-0.082976535,0.74023616,0.05405472,-0.6672345,0.8794604,0.52052116,-0.5977378,-0.9530151,-0.5957974,-0.8070895,-0.018104395,-0.77049047,-0.87743485,0.8445422,0.123878986,-0.42189845,0.5792253,0.5556439,-0.70734,-0.9678436,-0.75787437,-0.89108723,-0.02568741,-0.74153244,-0.76776236
2025-06-05 09:13:12.386,-0.05057403,0.036991198,-0.008524431,0.03070297,0.033537704,-0.03272682,0.0,0.0,0.0,0.00358157,0.038338486,0.114898026,-0.060448203,0.05541006,0.14639226,0.004807313,-0.08601634,-0.26664346,-0.031933326,0.012031606,-0.36200455,-0.085177384,0.032948393,-0.025409592,-0.06138483,0.051528104,-0.054055113,-0.0073224814,-0.004310317,-0.019521354,-0.04419935,0.04522974,0.045469876,-0.05382953,0.8445422,0.123878986,-0.42189845,0.5792253,0.5556439,-0.70734,-0.9678436,-0.75787437,-0.89108723,-0.02568741,-0.74153244,-0.76776236,0.87794745,0.2702888,-0.31508797,0.24833584,0.476832,-0.7601876,-0.97899777,-0.7321961,-0.9363267,-0.10913523,-0.8311212,-0.783798
2025-06-05 09:13:12.409,-0.04348268,0.09355599,0.06175502,0.040070284,0.0822934,-0.021427553,0.0,0.0,0.0,0.0035526792,0.044650707,0.11291803,-0.05626188,0.0422331,0.15327606,-0.004483869,-0.080362424,-0.27897578,-0.070811756,0.007930054,-0.3560625,-0.08198408,0.012391179,0.056954127,-0.007959566,-0.06988161,-0.04012209,-0.050278846,-0.068554975,-0.0006059347,-0.15847279,-0.048112083,0.04642456,-0.05397445,0.87794745,0.2702888,-0.31508797,0.24833584,0.476832,-0.7601876,-0.97899777,-0.7321961,-0.9363267,-0.10913523,-0.8311212,-0.783798,0.84768426,0.22058822,-0.41316032,0.10501213,0.49221462,-0.58837444,-0.9784266,-0.77835727,-0.92263484,0.054561853,-0.8077543,-0.80464435
2025-06-05 09:13:12.426,0.020035038,0.1740198,-0.032795355,0.022289472,0.048049957,0.031224664,0.0,0.0,0.0,0.0031436344,0.028450126,0.099126816,-0.07092268,0.04900219,0.15751617,-0.004640798,-0.0785353,-0.3051281,-0.1004439,0.0006731901,-0.38300383,-0.08992203,0.049203865,-0.035949137,0.02224946,0.024583261,0.05905818,0.043116808,-0.033309635,-0.08842844,-0.14096902,0.036508746,-0.022857111,0.071044184,0.84768426,0.22058822,-0.41316032,0.10501213,0.49221462,-0.58837444,-0.9784266,-0.77835727,-0.92263484,0.054561853,-0.8077543,-0.80464435,0.8917483,0.33928627,-0.3303262,0.10882994,0.30205753,-0.69547075,-0.9833714,-0.72181517,-0.92593,-0.054739613,-0.8520309,-0.84259033
2025-06-05 09:13:12.447,0.017435968,0.19078462,0.028500488,-0.008860963,0.06991565,0.045037456,0.0,0.0,0.0,0.0028598234,0.039128985,0.10413054,-0.060626924,0.053609055,0.14415962,-0.028327929,-0.09023894,-0.31441668,-0.11617533,-0.007114245,-0.38281304,-0.10195635,-0.042289637,0.0055655297,0.041760694,-0.019216117,0.035755683,-0.03234609,0.053674735,0.013879688,-0.0479879,0.03770313,-0.0014571765,0.009765749,0.8917483,0.33928627,-0.3303262,0.10882994,0.30205753,-0.69547075,-0.9833714,-0.72181517,-0.92593,-0.054739613,-0.8520309,-0.84259033,0.8826306,0.37891665,-0.6704066,0.39563897,0.35732558,-0.58237123,-0.9830253,-0.7612636,-0.8781076,-0.1094282,-0.84684485,-0.8825455
2025-06-05 09:13:12.467,-0.09237696,0.11900641,0.031550936,0.045932513,0.062766396,-0.039713603,0.0,0.0,0.0,0.0023391126,0.036035527,0.08942234,-0.05336357,0.03654825,0.15162237,-0.026050847,-0.08209636,-0.3201564,-0.13707553,0.0020997855,-0.38485596,-0.082499884,-0.024090182,-0.010651957,0.034731463,-0.0010189156,-0.07352444,-0.07662124,0.06942819,0.03659052,-0.058010288,0.049324907,0.05241404,-0.068123296,0.8826306,0.37891665,-0.6704066,0.39563897,0.35732558,-0.58237123,-0.9830253,-0.7612636,-0.8781076,-0.1094282,-0.84684485,-0.8825455,0.9101031,0.3659069,-0.8449616,0.6490234,0.39453,-0.4655926,-0.98378617,-0.79475296,-0.80243546,-0.14823169,-0.811887,-0.90730006
2025-06-05 09:13:12.487,-0.09521265,0.10248572,0.037263513,0.08026977,0.0838948,0.0015764785,0.0,0.0,0.0,0.0016836443,0.035534527,0.09064982,-0.06233817,0.058921777,0.15353993,-0.042580675,-0.08571589,-0.3138238,-0.16094159,-0.011110303,-0.39492336,-0.09155437,0.07989777,-0.014511643,0.009193028,-0.019995589,-0.04329163,-0.048825204,0.021069113,-0.09466013,-0.028252581,0.051033784,0.037786733,0.010921054,0.9101031,0.3659069,-0.8449616,0.6490234,0.39453,-0.4655926,-0.98378617,-0.79475296,-0.80243546,-0.14823169,-0.811887,-0.90730006,0.91986483,0.29915056,-0.910378,0.80687165,0.39264303,-0.3528375,-0.9818022,-0.8322722,-0.67014116,-0.20329298,-0.7974714,-0.90401226
2025-06-05 09:13:12.509,-0.07137226,0.09293806,0.0151724415,0.04453533,0.0018214561,-0.0072463024,0.0,0.0,0.0,0.0012423291,0.032576457,0.10153023,-0.06457693,0.043459762,0.1536211,-0.05785293,-0.08393301,-0.34144202,-0.1609334,0.0037537545,-0.39239866,-0.086545594,0.0592297,0.047897976,0.015626483,-0.045654457,0.05416518,-0.0044327034,0.060157314,-0.04805446,0.044363983,-0.031958174,0.01713217,-0.042462207,0.91986483,0.29915056,-0.910378,0.80687165,0.39264303,-0.3528375,-0.9818022,-0.8322722,-0.67014116,-0.20329298,-0.7974714,-0.90401226,0.93105435,0.3306935,-0.95238674,0.8756667,0.43357983,-0.23231995,-0.98013157,-0.8650907,-0.48404223,-0.29504248,-0.7824055,-0.9128813
2025-06-05 09:13:12.527,-0.047102675,0.1010393,-0.0315736,0.064546905,-0.009573204,-0.030028237,0.0,0.0,0.0,0.0010598118,0.0543308,0.09268276,-0.052246463,0.05449919,0.16729257,-0.05992617,-0.08252621,-0.34552866,-0.15468304,0.007865389,-0.40997535,-0.08878163,0.02165174,0.063271396,-0.030224722,0.04162609,0.025375688,-0.0030092278,0.034664527,-0.041116644,-0.013954555,0.050716557,-0.062309433,0.048003696,0.93105435,0.3306935,-0.95238674,0.8756667,0.43357983,-0.23231995,-0.98013157,-0.8650907,-0.48404223,-0.29504248,-0.7824055,-0.9128813,0.9514788,0.41835067,-0.91151613,0.90741736,0.48308742,-0.33834103,-0.977347,-0.85298985,-0.6272719,-0.5513017,-0.86802185,-0.93692374
2025-06-05 09:13:12.547,-0.08139981,0.061529543,0.05259988,0.062659524,-0.018864214,-0.040686034,0.0,0.0,0.0,0.0009687365,0.044981748,0.10096623,-0.048989248,0.05505079,0.17957738,-0.0677141,-0.08025187,-0.3524975,-0.15494613,0.006844846,-0.41064242,-0.09742636,0.07068545,-0.06675641,0.06047578,-0.017771317,0.09836764,-0.05063181,0.03499026,0.05125867,-0.010576154,-0.061304513,-0.01707622,-0.0062068165,0.9514788,0.41835067,-0.91151613,0.90741736,0.48308742,-0.33834103,-0.977347,-0.85298985,-0.6272719,-0.5513017,-0.86802185,-0.93692374,0.9278104,0.21382232,-0.9596765,0.89745736,0.496666,-0.20169714,-0.97634834,-0.8547874,-0.3826416,-0.2887015,-0.73293066,-0.8907549
2025-06-05 09:13:12.567,-0.06892209,0.0852062,0.028028686,0.082450025,0.04674002,0.046973903,0.0,0.0,0.0,0.00038286566,0.045766216,0.088312924,-0.05594098,0.062221233,0.1827924,-0.05251118,-0.09147517,-0.35907304,-0.15797408,-0.00420147,-0.4098496,-0.08068239,-0.061032724,-0.0300055,0.0473742,0.005522447,0.05787033,0.042831544,-0.009143375,0.03767429,-0.03198691,-0.003239385,-0.07493849,-0.06394459,0.9278104,0.21382232,-0.9596765,0.89745736,0.496666,-0.20169714,-0.97634834,-0.8547874,-0.3826416,-0.2887015,-0.73293066,-0.8907549,0.9497756,0.34960845,-0.9369156,0.889538,0.576735,-0.34096438,-0.9762445,-0.8379334,-0.48260695,-0.42643923,-0.7628728,-0.9133133
2025-06-05 09:13:12.587,-0.03168151,0.010598908,0.03032746,0.014825103,0.022494478,-0.006476623,0.0,0.0,0.0,-5.8395974e-05,0.04544428,0.08924365,-0.04652486,0.06581745,0.19811407,-0.06811884,-0.091236316,-0.3667722,-0.14423968,-0.0005579779,-0.41425583,-0.09194533,-0.021537257,-0.0035139336,0.03956091,0.03516918,0.036420505,-0.06556268,0.069906965,-0.06763175,-0.056470923,0.028143816,0.07394117,-0.008674556,0.9497756,0.34960845,-0.9369156,0.889538,0.576735,-0.34096438,-0.9762445,-0.8379334,-0.48260695,-0.42643923,-0.7628728,-0.9133133,0.92680734,0.38326883,-0.9416395,0.8864858,0.48998335,-0.35050884,-0.9713936,-0.868047,-0.52753556,-0.32870984,-0.7589624,-0.89204335
2025-06-05 09:13:12.609,-0.04055494,0.020505762,0.001328483,0.046035398,-0.0106922295,-0.045297258,0.0,0.0,0.0,-0.00043134208,0.06504912,0.092389636,-0.0547023,0.076539464,0.20680332,-0.06676428,-0.085120626,-0.37981158,-0.13271062,-0.001741055,-0.39553142,-0.08337234,-0.06367079,0.030580373,-0.07344817,-0.007277125,-0.041038748,-0.03809576,0.029246615,0.04439449,0.0076135537,-0.054212183,-0.029673886,-0.017521564,0.92680734,0.38326883,-0.9416395,0.8864858,0.48998335,-0.35050884,-0.9713936,-0.868047,-0.52753556,-0.32870984,-0.7589624,-0.89204335,0.946171,0.37020594,-0.90199375,0.885399,0.52601206,-0.4085278,-0.97808295,-0.8291619,-0.6911938,-0.45222116,-0.84198153,-0.92740065
2025-06-05 09:13:12.628,-0.003991448,0.047518082,0.02796227,0.11432169,0.05172525,0.0025445886,0.0,0.0,0.0,-0.0008204427,0.063704774,0.09704943,-0.06298641,0.06597576,0.22319645,-0.08779982,-0.087037,-0.3735071,-0.15460004,-0.0016355858,-0.4054176,-0.088999815,0.0058625406,-0.063398354,0.04245165,-0.048116386,0.006620661,0.045032233,0.042183053,-0.04617374,-0.029372405,0.025961656,0.011760937,0.042677745,0.946171,0.37020594,-0.90199375,0.885399,0.52601206,-0.4085278,-0.97808295,-0.8291619,-0.6911938,-0.45222116,-0.84198153,-0.92740065,0.9431722,0.30288804,-0.9225608,0.8827298,0.5489624,-0.34584284,-0.9811258,-0.87066686,-0.64329726,-0.40989378,-0.8313048,-0.91540337
2025-06-05 09:13:12.648,-0.02680006,-0.024689516,0.024871998,0.09987894,-0.02420584,-0.004328043,0.0,0.0,0.0,-0.0013885719,0.0686022,0.10097079,-0.06498629,0.07548474,0.21498364,-0.081521556,-0.075627,-0.38545588,-0.14865361,0.013874798,-0.4038947,-0.095354185,0.013599782,0.025138617,0.05032376,0.077191554,-0.0046246205,0.04816097,0.02417441,0.013862556,-0.067076124,-0.060769074,-0.07759909,-0.040567447,0.9431722,0.30288804,-0.9225608,0.8827298,0.5489624,-0.34584284,-0.9811258,-0.87066686,-0.64329726,-0.40989378,-0.8313048,-0.91540337,0.946595,0.2602113,-0.89114994,0.8778127,0.561454,-0.44781342,-0.98093545,-0.8338974,-0.6913799,-0.384786,-0.8389944,-0.916201
2025-06-05 09:13:12.667,0.0074367854,-0.029351648,0.028189573,0.031930316,0.054649107,-0.017226823,0.0,0.0,0.0,-0.001908749,0.071205534,0.0944558,-0.063382156,0.06286863,0.23337989,-0.08997339,-0.09317703,-0.3880435,-0.14575118,0.013921623,-0.40395653,-0.09245873,0.062561505,0.018759213,-0.055320084,-0.0073031993,0.00037901415,-0.06353329,-0.07183794,0.009150969,-0.061333947,0.061288122,-0.059914455,-0.0076789637,0.946595,0.2602113,-0.89114994,0.8778127,0.561454,-0.44781342,-0.98093545,-0.8338974,-0.6913799,-0.384786,-0.8389944,-0.916201,0.9199997,0.22393715,-0.88934195,0.850261,0.49783325,-0.4411191,-0.97477937,-0.820611,-0.6634958,-0.25534567,-0.7654525,-0.8757954
2025-06-05 09:13:12.687,0.012955072,-0.017713869,0.029847555,0.068518735,-0.0049934397,-0.01863429,0.0,0.0,0.0,-0.002325635,0.07386055,0.10793702,-0.055011097,0.079006016,0.22674873,-0.10026217,-0.07621499,-0.36935082,-0.14130928,0.0027660325,-0.40641215,-0.0968621,0.07504326,0.050424565,0.06325614,-0.06551167,-0.057814393,0.048493885,0.037518203,0.039157767,-0.061863896,0.06747367,0.040885597,0.049433384,0.9199997,0.22393715,-0.88934195,0.850261,0.49783325,-0.4411191,-0.97477937,-0.820611,-0.6634958,-0.25534567,-0.7654525,-0.8757954,0.9313561,0.30703944,-0.862663,0.8431644,0.5587325,-0.5233902,-0.9812403,-0.8329394,-0.77217066,-0.31576547,-0.83545065,-0.90756994
2025-06-05 09:13:12.709,-0.021614239,-0.046194077,0.040841967,0.09208848,-0.0021888788,-0.035248343,0.0,0.0,0.0,-0.0024280467,0.06381247,0.091749564,-0.06456794,0.06455806,0.2367319,-0.10204064,-0.08930955,-0.37041712,-0.16023703,0.003177688,-0.4060124,-0.084343866,-0.056702465,-0.0036751358,0.0386023,0.025854196,-0.018630203,-0.013238873,0.06984411,0.0141254505,0.040875047,0.04474814,-0.007037941,-0.07475522,0.9313561,0.30703944,-0.862663,0.8431644,0.5587325,-0.5233902,-0.9812403,-0.8329394,-0.77217066,-0.31576547,-0.83545065,-0.90756994,0.9354652,0.31886494,-0.9222621,0.8412743,0.5540727,-0.38471597,-0.98194075,-0.86050105,-0.6764043,-0.32708722,-0.7956035,-0.9053807
2025-06-05 09:13:12.727,-0.0120296385,-0.01757354,-0.049726788,0.025588237,-0.016965423,-0.028378882,0.0,0.0,0.0,-0.0024585812,0.08244836,0.087670185,-0.049437124,0.07124919,0.23646145,-0.09428172,-0.09535034,-0.3785691,-0.15951204,0.00054532144,-0.41748393,-0.08238486,-0.058335185,0.017094703,-0.073076025,0.052576598,0.07506659,-0.06060173,-0.06661382,0.0020216575,-0.043160986,0.058684994,-0.07545826,0.062364753,0.9354652,0.31886494,-0.9222621,0.8412743,0.5540727,-0.38471597,-0.98194075,-0.86050105,-0.6764043,-0.32708722,-0.7956035,-0.9053807,0.94878703,0.44809702,-0.8624197,0.8653897,0.47371808,-0.53198755,-0.97799003,-0.8065737,-0.76841855,-0.5374371,-0.8563027,-0.92241853
2025-06-05 09:13:12.747,0.036750086,-0.062390074,0.03603902,0.044284903,0.049524643,-0.036249317,0.0,0.0,0.0,-0.0024334458,0.06498911,0.08856107,-0.06481629,0.07302288,0.2532175,-0.1006673,-0.08398188,-0.37002644,-0.16754444,0.00293502,-0.41351664,-0.09107302,-0.0361496,0.039303094,-0.0073243063,-0.0101946145,-0.029917955,-0.08215018,0.04602996,0.024307212,-0.030724404,-0.03871893,-0.02377764,0.03365889,0.94878703,0.44809702,-0.8624197,0.8653897,0.47371808,-0.53198755,-0.97799003,-0.8065737,-0.76841855,-0.5374371,-0.8563027,-0.92241853,0.93729836,0.21645728,-0.89329743,0.89305675,0.5410185,-0.40521282,-0.97718626,-0.83188796,-0.7002765,-0.38316596,-0.8582385,-0.9159199
2025-06-05 09:13:12.767,-0.022074686,-0.00020550865,0.029520513,0.012129791,0.036947332,0.030522184,0.0,0.0,0.0,-0.002816048,0.07113078,0.09205416,-0.059990536,0.06441301,0.2363412,-0.10532576,-0.08017969,-0.3853987,-0.16297351,0.012732539,-0.41522634,-0.0849148,0.045949727,0.018966677,0.07186195,0.07235785,0.0034704993,0.006266413,-0.053311713,-0.06685869,-0.029298479,0.050598197,0.05204967,0.062382184,0.93729836,0.21645728,-0.89329743,0.89305675,0.5410185,-0.40521282,-0.97718626,-0.83188796,-0.7002765,-0.38316596,-0.8582385,-0.9159199,0.92142475,0.26835507,-0.9243668,0.865284,0.5513998,-0.39203805,-0.97438544,-0.8827235,-0.59403735,-0.24522676,-0.7549101,-0.86773527
2025-06-05 09:13:12.788,0.038783453,-0.03305284,0.018346777,0.09082848,0.018378507,-0.027238188,0.0,0.0,0.0,-0.0031776454,0.076195516,0.083851404,-0.058933206,0.06735658,0.24701798,-0.11625153,-0.07842862,-0.3753354,-0.16305415,0.0005461541,-0.4254609,-0.08774834,-0.024677897,-0.07183384,0.04429391,-0.07544128,-0.0059810583,-0.02891504,0.058496397,-0.0780714,-0.06156813,-0.026252488,-0.06605207,0.068234675,0.92142475,0.26835507,-0.9243668,0.865284,0.5513998,-0.39203805,-0.97438544,-0.8827235,-0.59403735,-0.24522676,-0.7549101,-0.86773527,0.9433409,0.34318364,-0.89152557,0.85105515,0.5440475,-0.49118763,-0.978848,-0.82976407,-0.691464,-0.3683977,-0.79753053,-0.9037772
2025-06-05 09:13:12.809,-0.009605447,0.006600059,-0.033639755,0.08157688,0.047264047,0.0353265,0.0,0.0,0.0,-0.0029859687,0.06761524,0.10150464,-0.06260842,0.07821956,0.25009724,-0.1097209,-0.07762884,-0.3916911,-0.17029539,0.008493875,-0.40972757,-0.09173881,0.056746807,0.003599091,0.01662346,-0.04793386,-0.017094176,0.017609155,-0.0010624652,-0.024663161,0.009849515,0.06882727,0.04611593,0.034292795,0.9433409,0.34318364,-0.89152557,0.85105515,0.5440475,-0.49118763,-0.978848,-0.82976407,-0.691464,-0.3683977,-0.79753053,-0.9037772,0.94693786,0.37224543,-0.8918923,0.8695415,0.5251715,-0.40792683,-0.9827335,-0.84502554,-0.75489354,-0.4767476,-0.8728418,-0.9300723
2025-06-05 09:13:12.828,-0.018557962,-0.010608119,0.018991353,0.024979182,0.010081826,-0.042269334,0.0,0.0,0.0,-0.00277346,0.06591409,0.09757853,-0.06136569,0.06680026,0.24622212,-0.10154768,-0.07600094,-0.3858788,-0.17892729,-0.005398126,-0.40995428,-0.075573765,0.01696308,0.074578956,-0.021088494,0.037671722,-0.011075736,-0.006496149,0.0026213198,0.031448085,-0.07815761,-0.06327035,-0.015660638,0.038438562,0.94693786,0.37224543,-0.8918923,0.8695415,0.5251715,-0.40792683,-0.9827335,-0.84502554,-0.75489354,-0.4767476,-0.8728418,-0.9300723,0.9422232,0.25904298,-0.89137447,0.88662153,0.5394447,-0.41982675,-0.9802748,-0.84383154,-0.71522856,-0.40302536,-0.8604276,-0.91867304
2025-06-05 09:13:12.848,-0.009728439,0.00237601,0.01196622,0.08689475,0.056894224,0.029428158,0.0,0.0,0.0,-0.0029391355,0.06866611,0.10451987,-0.057135228,0.06498772,0.24696536,-0.09667148,-0.08798393,-0.39240292,-0.17028011,0.00931611,-0.42344308,-0.08288486,-0.016845737,0.0709818,0.0047071744,-0.07036741,-0.014822393,0.07586942,0.067637496,-0.01224834,0.001040762,-0.028210605,-0.07279349,-0.050065976,0.9422232,0.25904298,-0.89137447,0.88662153,0.5394447,-0.41982675,-0.9802748,-0.84383154,-0.71522856,-0.40302536,-0.8604276,-0.91867304,0.9568396,0.2956627,-0.8940985,0.8934694,0.57810163,-0.39355406,-0.9849398,-0.8583569,-0.7216799,-0.49579874,-0.88956505,-0.939446
2025-06-05 09:13:12.868,0.02789134,-0.055749074,0.056040205,0.09457399,0.028344076,0.036192056,0.0,0.0,0.0,-0.003195727,0.061560098,0.09354523,-0.057884775,0.08040236,0.2535538,-0.09512603,-0.08482465,-0.3950412,-0.18042514,-0.0056074867,-0.42484808,-0.0807893,0.028411701,-0.021137921,-0.067996785,0.06291396,0.04299263,-0.012855286,-0.005345843,0.026570234,-0.008897696,-0.058424734,0.026440203,0.0049493555,0.9568396,0.2956627,-0.8940985,0.8934694,0.57810163,-0.39355406,-0.9849398,-0.8583569,-0.7216799,-0.49579874,-0.88956505,-0.939446,0.93269503,0.18222167,-0.9286483,0.8811496,0.5638023,-0.31173438,-0.9779358,-0.8820426,-0.5687393,-0.26566964,-0.78677046,-0.88818187
2025-06-05 09:13:12.889,0.046357214,-0.049577225,-0.058912575,0.06607214,0.054598607,-0.04312302,0.0,0.0,0.0,-0.0034313505,0.061417226,0.10213883,-0.058993526,0.076412566,0.24719667,-0.10103934,-0.077426754,-0.4003305,-0.17879355,0.00038602253,-0.4203417,-0.08015378,0.012504208,0.015223333,-0.03628794,-0.018544408,0.07878223,0.0014789893,-0.027593737,0.05004474,0.03473043,-0.026063515,-0.075799674,-0.032379825,0.93269503,0.18222167,-0.9286483,0.8811496,0.5638023,-0.31173438,-0.9779358,-0.8820426,-0.5687393,-0.26566964,-0.78677046,-0.88818187,0.95656127,0.42178655,-0.89237165,0.8703659,0.56007177,-0.462864,-0.9813941,-0.82506347,-0.7174158,-0.5386546,-0.8481097,-0.92896444
2025-06-05 09:13:12.909,-0.019086262,-0.011767034,-0.029297777,0.038133908,0.0630085,-0.010046314,0.0,0.0,0.0,-0.003197917,0.060107075,0.092870265,-0.068516746,0.07078568,0.24708574,-0.105242394,-0.07859438,-0.3868323,-0.1768532,0.0032670165,-0.41983768,-0.082730345,0.056663927,0.03827415,0.05139523,-0.054297578,0.06292397,-0.023158321,0.05985212,0.056337364,-0.00865499,-0.041487765,0.040706642,-0.064876586,0.95656127,0.42178655,-0.89237165,0.8703659,0.56007177,-0.462864,-0.9813941,-0.82506347,-0.7174158,-0.5386546,-0.8481097,-0.92896444,0.9507631,0.38338324,-0.90907085,0.8934258,0.5220901,-0.38713217,-0.9833251,-0.83259344,-0.7391748,-0.52531093,-0.88770515,-0.9412331
2025-06-05 09:13:12.928,0.00012868515,-0.006982759,0.048108935,0.10281629,0.026804738,0.020746687,0.0,0.0,0.0,-0.003117905,0.072692946,0.087873735,-0.06369361,0.07669776,0.24295667,-0.10904279,-0.08097439,-0.39791748,-0.18075623,-0.012009321,-0.43285838,-0.08457282,-0.0127230985,-0.035733406,-0.078246385,0.07162299,-0.0017184278,0.07891177,-0.029695002,-0.014810257,-0.052352227,0.004953285,0.020391667,0.04922779,0.9507631,0.38338324,-0.90907085,0.8934258,0.5220901,-0.38713217,-0.9833251,-0.83259344,-0.7391748,-0.52531093,-0.88770515,-0.9412331,0.9443364,0.18869817,-0.92053044,0.89309263,0.5792233,-0.26611415,-0.98021114,-0.8890071,-0.6134622,-0.3795521,-0.83675873,-0.9105013
2025-06-05 09:13:12.948,-0.04685073,-0.023194274,-0.007759438,0.09905125,0.07358917,-0.04024051,0.0,0.0,0.0,-0.0034655787,0.067647286,0.09390718,-0.057480715,0.07983243,0.24066092,-0.10418794,-0.07419043,-0.39468354,-0.17688031,-0.01337297,-0.4237294,-0.08244023,0.060487512,-0.045184378,-0.04103738,0.043647908,-0.011089925,-0.008946866,-0.000493686,-0.044078615,0.041591514,0.00922345,0.045167066,0.044621404,0.9443364,0.18869817,-0.92053044,0.89309263,0.5792233,-0.26611415,-0.98021114,-0.8890071,-0.6134622,-0.3795521,-0.83675873,-0.9105013,0.9487348,0.36643624,-0.91877556,0.86590743,0.5835345,-0.38468224,-0.9793965,-0.882725,-0.6477954,-0.43666482,-0.81284356,-0.9034815
2025-06-05 09:13:12.968,0.028410034,-0.031373482,-0.037500963,0.03743518,0.029830832,0.03385771,0.0,0.0,0.0,-0.0035093166,0.06426547,0.08393621,-0.057048865,0.06772863,0.25584245,-0.10099228,-0.07442932,-0.3946186,-0.17830475,-0.0075497706,-0.43844143,-0.07974814,-0.034303617,0.061900783,0.062488887,-0.06246099,0.0689793,0.04203967,0.0639786,-0.052811373,-0.04901764,0.058068186,0.061121438,-0.0686783,0.9487348,0.36643624,-0.91877556,0.86590743,0.5835345,-0.38468224,-0.9793965,-0.882725,-0.6477954,-0.43666482,-0.81284356,-0.9034815,0.95405257,0.47907212,-0.91340876,0.89405197,0.5111365,-0.41327646,-0.98307776,-0.86375034,-0.73822224,-0.55781436,-0.8883406,-0.94176525
2025-06-05 09:13:12.992,0.0032405497,-0.05602188,0.025187133,0.015417158,0.06341288,-0.03218375,0.0,0.0,0.0,-0.0033990475,0.06761727,0.10372256,-0.07218646,0.07157098,0.25581908,-0.09967799,-0.076037295,-0.3986728,-0.1868849,-0.016718475,-0.42350814,-0.082510434,0.007001474,0.055385113,-0.05020071,-0.025999352,0.036791667,-0.06813868,0.06454138,0.059862107,-0.0034384327,-0.07504496,-0.041968502,0.073146224,0.95405257,0.47907212,-0.91340876,0.89405197,0.5111365,-0.41327646,-0.98307776,-0.86375034,-0.73822224,-0.55781436,-0.8883406,-0.94176525,0.94654405,0.23736608,-0.9191302,0.9111884,0.54961723,-0.28970668,-0.9799145,-0.8574083,-0.6528336,-0.44418794,-0.8702848,-0.92866945
2025-06-05 09:13:13.009,0.0029556304,0.004447353,-0.0134533085,0.0715201,0.067618676,0.0051759733,0.0,0.0,0.0,-0.0037748883,0.07770632,0.10208347,-0.06530176,0.08255516,0.2463034,-0.083858185,-0.08291918,-0.3888322,-0.18089825,-0.016469166,-0.4253946,-0.07311935,-0.004983484,-0.06730895,-0.04055006,-0.06256366,0.06284147,-0.04406117,-0.047387384,0.006057987,-0.036195904,0.053914983,-0.023579666,0.07573377,0.94654405,0.23736608,-0.9191302,0.9111884,0.54961723,-0.28970668,-0.9799145,-0.8574083,-0.6528336,-0.44418794,-0.8702848,-0.92866945,0.9485938,0.39139545,-0.8955381,0.8822176,0.56114364,-0.49173597,-0.978003,-0.84441864,-0.7012734,-0.51587933,-0.8337526,-0.91018856
2025-06-05 09:13:13.029,0.0012187494,-0.06154339,0.03827622,0.0745496,0.028188568,0.039535634,0.0,0.0,0.0,-0.0041391323,0.06277095,0.08983428,-0.073785804,0.07506724,0.24719483,-0.087032445,-0.077676296,-0.4045114,-0.19075407,-0.020916834,-0.42581216,-0.08638881,0.061773267,-0.024546215,0.06669644,0.0008684168,-0.007865157,-0.07103924,-0.02909733,0.06290808,0.0048000054,0.017925916,0.044258706,0.010974183,0.9485938,0.39139545,-0.8955381,0.8822176,0.56114364,-0.49173597,-0.978003,-0.84441864,-0.7012734,-0.51587933,-0.8337526,-0.91018856,0.9302133,0.21962218,-0.9263952,0.87689584,0.55697435,-0.33357686,-0.97864044,-0.84900486,-0.63620186,-0.30480382,-0.80108917,-0.8985503
2025-06-05 09:13:13.049,0.0046405164,-0.07199604,0.009526426,0.025930196,0.060831722,0.016331669,0.0,0.0,0.0,-0.0044555375,0.06160356,0.10915664,-0.063387774,0.08080463,0.2554337,-0.08402214,-0.090943016,-0.38724852,-0.17159279,-0.020740464,-0.42214587,-0.08889569,0.066706255,-0.027377602,0.061143797,-0.015142005,-0.033122115,0.07380392,0.0046712523,0.035671387,0.03317354,-0.019004487,0.0025149072,0.049385495,0.9302133,0.21962218,-0.9263952,0.87689584,0.55697435,-0.33357686,-0.97864044,-0.84900486,-0.63620186,-0.30480382,-0.80108917,-0.8985503,0.94884115,0.28240022,-0.899017,0.8683535,0.6099895,-0.41685644,-0.98232996,-0.8624133,-0.70207566,-0.39620784,-0.8358508,-0.9165131
2025-06-05 09:13:13.069,0.0060040858,-0.050650153,-0.0048136446,0.011969038,0.022058228,-0.04483041,0.0,0.0,0.0,-0.0043963534,0.06746524,0.10633099,-0.07868855,0.07428899,0.26088318,-0.08597219,-0.08624277,-0.39217037,-0.17615551,-0.0066204146,-0.43215322,-0.091220275,-0.047838807,-0.051564228,-0.06715386,0.04599544,-0.04764692,-0.06381368,-0.038314316,-0.026459452,-0.0066447877,0.03428705,-0.02684873,-0.014355156,0.94884115,0.28240022,-0.899017,0.8683535,0.6099895,-0.41685644,-0.98232996,-0.8624133,-0.70207566,-0.39620784,-0.8358508,-0.9165131,0.94534916,0.32803467,-0.88055253,0.8497677,0.55367994,-0.47078672,-0.97736496,-0.8401135,-0.7230697,-0.42149553,-0.81269175,-0.8995061
2025-06-05 09:13:13.092,0.012593076,0.016923243,-0.020137955,0.07716114,0.04875414,-0.021738268,0.0,0.0,0.0,-0.0040907515,0.06948868,0.104707174,-0.076020494,0.07789044,0.25040895,-0.07801738,-0.08968251,-0.3928744,-0.17921275,-0.023038816,-0.438064,-0.08143768,-0.020477567,0.019587878,-0.026933447,-0.06772379,-0.031780176,0.054491486,-0.059904706,-0.047040563,-0.025597569,0.070349954,-0.022164688,-0.06591877,0.94534916,0.32803467,-0.88055253,0.8497677,0.55367994,-0.47078672,-0.97736496,-0.8401135,-0.7230697,-0.42149553,-0.81269175,-0.8995061,0.9570834,0.35311893,-0.8805473,0.8743327,0.5378423,-0.43895903,-0.9841865,-0.8241546,-0.76497793,-0.54144216,-0.8849493,-0.93565786
2025-06-05 09:13:13.109,-0.0023753894,-0.0040975716,0.0022875045,0.0077266935,0.040482897,-0.040929895,0.0,0.0,0.0,-0.003932424,0.059175927,0.10774864,-0.071725525,0.073058076,0.2443305,-0.09250259,-0.07934929,-0.4022207,-0.18301551,-0.011686944,-0.43648553,-0.09361745,-0.040928263,0.0545845,-0.06700942,-0.03607897,0.059662014,-0.003988858,-0.05612166,0.07962756,0.033765353,0.050490722,0.037875924,-0.015574943,0.9570834,0.35311893,-0.8805473,0.8743327,0.5378423,-0.43895903,-0.9841865,-0.8241546,-0.76497793,-0.54144216,-0.8849493,-0.93565786,0.94341725,0.3106263,-0.9260393,0.8884927,0.55841565,-0.31161892,-0.979509,-0.8684074,-0.6491523,-0.45077682,-0.83551174,-0.9160167
2025-06-05 09:13:13.177,0.044428233,0.030403089,-0.03613214,0.015996985,0.06634937,0.028377885,0.0,0.0,0.0,-0.0041403566,0.072353,0.09708446,-0.08011408,0.08264507,0.26228788,-0.07421224,-0.08190616,-0.39958256,-0.19134536,-0.008199572,-0.43868187,-0.0943992,0.025494855,0.04898062,-0.03295021,-0.02638508,0.0008900863,-0.020565044,-0.034408834,-0.06313357,0.07271116,0.009138835,-0.0028672037,0.061842825,0.94341725,0.3106263,-0.9260393,0.8884927,0.55841565,-0.31161892,-0.979509,-0.8684074,-0.6491523,-0.45077682,-0.83551174,-0.9160167,0.9551991,0.325438,-0.8999559,0.90717727,0.55809927,-0.36279985,-0.9793072,-0.86402756,-0.6845852,-0.52178633,-0.880186,-0.93086195
2025-06-05 09:13:13.199,0.04393554,0.00730395,-0.031244704,0.008183156,0.09627786,0.034280088,0.0,0.0,0.0,-0.004313657,0.06811195,0.09332085,-0.07496027,0.07654495,0.2498912,-0.08115609,-0.08073308,-0.40474522,-0.18398702,-0.015405632,-0.43471667,-0.08225162,0.024842221,-0.07547276,0.050791234,-0.042896934,-0.026206026,0.057364408,-0.01623773,-0.04001915,0.06750418,-0.022946417,0.055265184,0.062687986,0.9551991,0.325438,-0.8999559,0.90717727,0.55809927,-0.36279985,-0.9793072,-0.86402756,-0.6845852,-0.52178633,-0.880186,-0.93086195,0.95666987,0.3424292,-0.91405463,0.8984823,0.59776664,-0.35259062,-0.9817635,-0.88528275,-0.68497664,-0.52647614,-0.8745532,-0.92761445
2025-06-05 09:13:13.217,0.052039944,-0.041811317,0.023720687,0.048018113,0.09478458,-0.019284127,0.0,0.0,0.0,-0.00449279,0.06925594,0.09939507,-0.06983898,0.085724846,0.26125747,-0.08853556,-0.07467754,-0.39468455,-0.18536258,-0.025633726,-0.43930146,-0.095096335,-0.01444235,0.07001218,-0.010810108,-0.06905332,-0.029481744,-0.05547693,0.04673651,0.01162568,-0.012854638,0.009152653,-0.07259642,0.06059049,0.95666987,0.3424292,-0.91405463,0.8984823,0.59776664,-0.35259062,-0.9817635,-0.88528275,-0.68497664,-0.52647614,-0.8745532,-0.92761445,0.95360124,0.2730329,-0.8737735,0.9040244,0.5841039,-0.45440477,-0.9812349,-0.8371103,-0.74470186,-0.49746573,-0.88545597,-0.9306972
2025-06-05 09:13:13.237,0.018831603,-0.003825001,0.03858545,0.036174458,0.037267122,-0.025262877,0.0,0.0,0.0,-0.0046952716,0.072193146,0.10240452,-0.07024202,0.08213404,0.2591136,-0.07441736,-0.09220332,-0.39293203,-0.19544508,-0.028635047,-0.42983785,-0.08808679,-0.018294279,0.0343913,0.07397027,-0.023517285,-0.011251047,0.017745672,-0.020533606,0.0050234376,0.060648743,-0.024887789,-0.07589082,0.047033243,0.95360124,0.2730329,-0.8737735,0.9040244,0.5841039,-0.45440477,-0.9812349,-0.8371103,-0.74470186,-0.49746573,-0.88545597,-0.9306972,0.95109975,0.22389792,-0.9073856,0.8940078,0.6239049,-0.37272856,-0.98112214,-0.86623013,-0.66805303,-0.4330947,-0.8499798,-0.91840154
2025-06-05 09:13:13.259,-0.042656343,0.045694765,-0.03752979,0.08751146,0.030401468,-0.017669825,0.0,0.0,0.0,-0.0049040015,0.07294355,0.08735325,-0.07558036,0.08665013,0.2600408,-0.0824321,-0.08168479,-0.40706807,-0.18464516,-0.02678121,-0.42881194,-0.08353858,-0.03156965,-0.027801922,0.003419047,-0.03078114,0.0069087534,0.014186041,0.05629183,-0.04988355,0.02536522,-0.025479944,0.055041544,-0.072988056,0.95109975,0.22389792,-0.9073856,0.8940078,0.6239049,-0.37272856,-0.98112214,-0.86623013,-0.66805303,-0.4330947,-0.8499798,-0.91840154,0.96324575,0.46456736,-0.88477606,0.87388414,0.5917951,-0.5087116,-0.9841571,-0.85115147,-0.7776702,-0.5982947,-0.885313,-0.9387895
2025-06-05 09:13:13.278,0.026036883,0.03824138,0.0069156345,0.090947516,0.06962309,0.03476019,0.0,0.0,0.0,-0.004822851,0.062420554,0.10391126,-0.0708835,0.0811157,0.26244092,-0.09284661,-0.093869954,-0.39695275,-0.18983185,-0.023246096,-0.4289129,-0.09401278,-0.029863859,-0.02738841,0.035264667,0.0049921274,-0.052020553,-0.034835342,-0.06513305,0.038985435,0.031753883,0.03533243,-0.012404176,-0.0017784239,0.96324575,0.46456736,-0.88477606,0.87388414,0.5917951,-0.5087116,-0.9841571,-0.85115147,-0.7776702,-0.5982947,-0.885313,-0.9387895,0.95538837,0.2805586,-0.9025253,0.8944432,0.57206136,-0.34873074,-0.98368764,-0.8486285,-0.73159486,-0.5221043,-0.8834913,-0.9329244
2025-06-05 09:13:13.297,-0.0422144,-0.05204903,-0.026793607,0.05252106,0.012354383,0.003257908,0.0,0.0,0.0,-0.00498401,0.06841236,0.09666531,-0.078058116,0.07174001,0.26535317,-0.08401943,-0.091881074,-0.3886674,-0.19379365,-0.021340227,-0.43184292,-0.089068785,-0.0145187825,0.067452125,0.021488788,-0.049811002,0.03325461,0.028157365,0.016292501,-0.07063267,0.066070154,-0.059866257,0.0028744515,-0.007557082,0.95538837,0.2805586,-0.9025253,0.8944432,0.57206136,-0.34873074,-0.98368764,-0.8486285,-0.73159486,-0.5221043,-0.8834913,-0.9329244,0.96156406,0.34680328,-0.90853035,0.9061974,0.58827555,-0.3580601,-0.9826367,-0.87209284,-0.69769335,-0.5718895,-0.8957385,-0.94008243
2025-06-05 09:13:13.317,-0.038445577,-0.04969573,0.059341703,0.088805825,0.085372984,-0.04917874,0.0,0.0,0.0,-0.005239625,0.066228695,0.09630706,-0.07757379,0.073841944,0.26305267,-0.07944023,-0.08252566,-0.3984013,-0.18686117,-0.024317637,-0.43484804,-0.091131315,-0.0070785005,-0.022488318,-0.036545604,0.022895576,-0.042820055,-0.06677144,-0.006956921,0.006481571,0.0659817,-0.07235305,-0.024427364,-0.05480444,0.96156406,0.34680328,-0.90853035,0.9061974,0.58827555,-0.3580601,-0.9826367,-0.87209284,-0.69769335,-0.5718895,-0.8957385,-0.94008243,0.9451313,0.15824856,-0.93735045,0.8877543,0.6006986,-0.23460925,-0.9788581,-0.8742186,-0.5428027,-0.33214083,-0.7912799,-0.9001648
2025-06-05 09:13:13.337,-0.005662052,0.003340844,-0.044649545,0.0046755904,0.06970191,-0.00064343296,0.0,0.0,0.0,-0.005448079,0.07224307,0.09261554,-0.08064973,0.08592774,0.26207572,-0.079432465,-0.08733906,-0.4058309,-0.18714297,-0.018062169,-0.44083336,-0.086519875,0.033014823,-0.046574034,-0.040569782,-0.019650744,0.01818555,0.027465347,-0.0680007,0.058052234,0.013331958,-0.016884943,0.024460334,-0.042049542,0.9451313,0.15824856,-0.93735045,0.8877543,0.6006986,-0.23460925,-0.9788581,-0.8742186,-0.5428027,-0.33214083,-0.7912799,-0.9001648,0.95629126,0.40717942,-0.8779157,0.8627033,0.60175204,-0.50132376,-0.98043466,-0.8300532,-0.7411505,-0.51939034,-0.83806205,-0.9225086
2025-06-05 09:13:13.359,0.005721128,-0.021683846,0.03783394,0.03644979,0.06629199,-0.034009606,0.0,0.0,0.0,-0.0051215934,0.07395478,0.09030034,-0.06737413,0.091847815,0.2627476,-0.08158286,-0.08822856,-0.39424896,-0.1931676,-0.031811275,-0.4473341,-0.080679975,-0.04192794,0.07140879,0.065746896,0.024314865,0.02350213,-0.0023781944,0.0030242968,0.01043808,0.0028468268,0.00012249009,0.05750963,0.0026892843,0.95629126,0.40717942,-0.8779157,0.8627033,0.60175204,-0.50132376,-0.98043466,-0.8300532,-0.7411505,-0.51939034,-0.83806205,-0.9225086,0.94538355,0.30925423,-0.9224795,0.88837844,0.5877328,-0.3557912,-0.98148406,-0.8721885,-0.69142777,-0.4172486,-0.8515007,-0.9218944
2025-06-05 09:13:13.378,-0.04726928,0.026867079,0.035351243,0.035090633,0.11106923,0.029323667,0.0,0.0,0.0,-0.004863247,0.070134096,0.08714366,-0.07008522,0.07577104,0.26667693,-0.0703353,-0.07504711,-0.38823256,-0.17952906,-0.02981463,-0.44140476,-0.0862557,0.056631185,-0.06407658,0.05456063,-0.061960183,-8.393208e-05,-0.01841443,0.019969301,0.029819714,-0.0106807025,0.031656038,-0.010068366,-0.048556548,0.94538355,0.30925423,-0.9224795,0.88837844,0.5877328,-0.3557912,-0.98148406,-0.8721885,-0.69142777,-0.4172486,-0.8515007,-0.9218944,0.9451763,0.2766655,-0.9100811,0.8661143,0.57669365,-0.41634744,-0.98206264,-0.8371129,-0.6865707,-0.37720013,-0.8118059,-0.91105944
2025-06-05 09:13:13.399,0.0500378,-0.006952076,-0.06275606,0.0069833226,0.040452,0.04194103,0.0,0.0,0.0,-0.0047430354,0.06407564,0.1040587,-0.080828786,0.08768318,0.26707634,-0.08397676,-0.07732127,-0.3884182,-0.18075502,-0.030126093,-0.4399123,-0.080114335,0.045609128,0.012537648,0.066339396,-0.044332117,0.03008327,0.004173884,0.03332263,-0.04675522,-0.030789984,0.031686697,-0.05886101,-0.03816669,0.9451763,0.2766655,-0.9100811,0.8661143,0.57669365,-0.41634744,-0.98206264,-0.8371129,-0.6865707,-0.37720013,-0.8118059,-0.91105944,0.9619236,0.4238586,-0.81855,0.88740194,0.5286196,-0.5861715,-0.98421574,-0.7703519,-0.8380611,-0.62268746,-0.91634524,-0.9494626
2025-06-05 09:13:13.418,-0.03198981,0.05915998,-0.0066736126,0.039116006,0.07379095,-0.033126924,0.0,0.0,0.0,-0.0045249327,0.07095259,0.09326578,-0.08494665,0.07842296,0.26803923,-0.08801854,-0.08614585,-0.38621056,-0.1863422,-0.017692573,-0.4391732,-0.083685145,0.023965446,-0.072049506,0.012112694,-0.019513827,-0.030349018,0.008670568,-0.035099223,0.06508449,-0.019289602,-0.079167545,-0.025298692,-0.020049978,0.9619236,0.4238586,-0.81855,0.88740194,0.5286196,-0.5861715,-0.98421574,-0.7703519,-0.8380611,-0.62268746,-0.91634524,-0.9494626,0.9576198,0.2158348,-0.8446224,0.88165,0.5952042,-0.47794273,-0.9835712,-0.7906027,-0.79402995,-0.5405765,-0.8968737,-0.9323124
2025-06-05 09:13:13.442,-0.012150702,0.023593845,0.05794152,0.035713937,0.06141932,0.01745551,0.0,0.0,0.0,-0.0048865955,0.06703847,0.09715969,-0.0743201,0.078002386,0.26388505,-0.08085007,-0.080251835,-0.38128483,-0.19260056,-0.030701848,-0.44601446,-0.088713415,-0.036353182,0.0027576715,-0.037444778,-0.07251331,0.053273957,0.023919327,-0.045008626,-0.023344582,0.017438963,0.005377471,0.013435615,0.002587979,0.9576198,0.2158348,-0.8446224,0.88165,0.5952042,-0.47794273,-0.9835712,-0.7906027,-0.79402995,-0.5405765,-0.8968737,-0.9323124,0.941599,0.2028667,-0.9092773,0.87387365,0.609692,-0.3495602,-0.9776945,-0.87910753,-0.63190585,-0.36262837,-0.8055396,-0.8967148
2025-06-05 09:13:13.460,0.049367175,-0.03765103,0.0019600745,0.0614459,0.075030185,-0.009959441,0.0,0.0,0.0,-0.0053602387,0.059139837,0.0915167,-0.07162106,0.085456654,0.2557313,-0.07822345,-0.08741815,-0.3915096,-0.1835906,-0.016999956,-0.43453494,-0.09392151,0.0032010635,0.02325942,-0.014976051,0.040764876,0.07099859,0.06400743,-0.008117097,-0.07069341,0.070276745,0.042029545,0.017214919,-0.06083363,0.941599,0.2028667,-0.9092773,0.87387365,0.609692,-0.3495602,-0.9776945,-0.87910753,-0.63190585,-0.36262837,-0.8055396,-0.8967148,0.94802904,0.32473293,-0.93330157,0.87828267,0.5772199,-0.30420274,-0.9790773,-0.88951296,-0.5768539,-0.3893024,-0.8028558,-0.9067837
2025-06-05 09:13:13.478,0.034950037,-0.051060792,-0.017284906,0.08251219,0.055330798,-0.012566681,0.0,0.0,0.0,-0.0051961616,0.067686655,0.088614754,-0.06637961,0.07317801,0.2686827,-0.09023181,-0.08814333,-0.38233945,-0.17700559,-0.019370819,-0.43366742,-0.098787054,-0.047764774,0.016498445,0.01977855,-0.014491414,-0.0036241447,-0.0076527633,0.041077998,0.0089850845,0.012654813,0.04481594,0.013798658,-0.01364964,0.94802904,0.32473293,-0.93330157,0.87828267,0.5772199,-0.30420274,-0.9790773,-0.88951296,-0.5768539,-0.3893024,-0.8028558,-0.9067837,0.9556389,0.4066266,-0.90057975,0.88869935,0.5739417,-0.44212112,-0.9816938,-0.8508191,-0.72963643,-0.52378637,-0.86787987,-0.93269765
2025-06-05 09:13:13.501,-0.010038158,-0.050380424,0.016461374,0.06336223,0.017594416,0.005462894,0.0,0.0,0.0,-0.004699831,0.07214774,0.09335426,-0.08087715,0.08287535,0.26064232,-0.08872324,-0.082471974,-0.38386863,-0.18299899,-0.021417262,-0.440803,-0.09690196,0.04665111,0.05217637,-0.040639486,0.03324196,-0.032727115,-0.030370751,0.0022017183,-0.015608257,0.053948388,0.06225595,-0.008281461,0.028018476,0.9556389,0.4066266,-0.90057975,0.88869935,0.5739417,-0.44212112,-0.9816938,-0.8508191,-0.72963643,-0.52378637,-0.86787987,-0.93269765,0.9465525,0.23002784,-0.9027137,0.90144897,0.5656527,-0.31051502,-0.9801243,-0.86056995,-0.69578874,-0.44209716,-0.8756998,-0.9264413
2025-06-05 09:13:13.519,0.018831605,-0.033037137,0.017744916,0.042513434,0.02064376,0.0013394043,0.0,0.0,0.0,-0.0045643263,0.06857774,0.084239885,-0.074966334,0.083292164,0.26258925,-0.082875445,-0.0906237,-0.38796028,-0.18958268,-0.0128647275,-0.4447264,-0.09506959,0.034813784,0.020271523,0.041460596,-0.07138281,-0.0018175209,0.03245026,-0.032279667,0.015818099,-0.062631875,0.05235146,-0.03272568,-0.06086556,0.9465525,0.23002784,-0.9027137,0.90144897,0.5656527,-0.31051502,-0.9801243,-0.86056995,-0.69578874,-0.44209716,-0.8756998,-0.9264413,0.94597334,0.27752656,-0.8824642,0.8814308,0.572554,-0.50431126,-0.98122305,-0.8201399,-0.72560257,-0.4228116,-0.8467297,-0.9145396
2025-06-05 09:13:13.542,-0.05382012,-0.029926568,-0.01986177,0.007069514,0.092050254,0.03266621,0.0,0.0,0.0,-0.0045365,0.060429767,0.09147159,-0.07243479,0.077653125,0.26985937,-0.08903861,-0.081601225,-0.4009767,-0.196801,-0.013790639,-0.44646156,-0.085416555,-0.06148584,0.0033015094,-0.019469481,0.030977294,-0.013177551,-0.06059277,0.035328418,-0.014188543,-0.016202707,0.054516222,-0.02743803,-0.04063061,0.94597334,0.27752656,-0.8824642,0.8814308,0.572554,-0.50431126,-0.98122305,-0.8201399,-0.72560257,-0.4228116,-0.8467297,-0.9145396,0.9551334,0.37398145,-0.85225034,0.8742837,0.56952304,-0.53240037,-0.9804875,-0.820451,-0.79247427,-0.53743136,-0.8805726,-0.92916185
2025-06-05 09:13:13.560,0.028905403,0.039864432,0.059500195,-0.00078069617,0.091202684,0.028747866,0.0,0.0,0.0,-0.004481897,0.060815386,0.07850999,-0.07677998,0.079947636,0.27450788,-0.074653,-0.09262438,-0.3853264,-0.19832776,-0.02920917,-0.44542748,-0.09229148,-0.007184556,-0.02743213,0.0647817,-0.02719588,0.00058447616,0.058527347,0.029969689,0.012833552,-0.0077911955,0.008469346,0.02577029,0.03360981,0.9551334,0.37398145,-0.85225034,0.8742837,0.56952304,-0.53240037,-0.9804875,-0.820451,-0.79247427,-0.53743136,-0.8805726,-0.92916185,0.9431354,0.18285075,-0.9058185,0.8851049,0.61160755,-0.3494195,-0.9806731,-0.8722399,-0.67909694,-0.35929462,-0.84138834,-0.91294414
2025-06-05 09:13:13.579,0.021701893,-0.037301175,0.0067002005,0.037387997,0.063539736,-0.023379592,0.0,0.0,0.0,-0.004687138,0.06309472,0.08467116,-0.082905635,0.089886196,0.27099478,-0.08122352,-0.08488421,-0.3838242,-0.1829291,-0.023540793,-0.43714368,-0.10103184,0.0412096,0.01834382,0.00971808,0.01178292,0.05749694,-0.05795461,0.036275607,0.014595449,-0.019589117,-0.06354664,0.05833026,-0.051326297,0.9431354,0.18285075,-0.9058185,0.8851049,0.61160755,-0.3494195,-0.9806731,-0.8722399,-0.67909694,-0.35929462,-0.84138834,-0.91294414,0.94350696,0.34802005,-0.8752751,0.85931015,0.58023703,-0.5634443,-0.97890425,-0.82905585,-0.74471974,-0.38014227,-0.82615906,-0.9030635
2025-06-05 09:13:13.600,0.032206677,0.0044359122,-0.021749938,0.057788018,0.031874433,0.04839383,0.0,0.0,0.0,-0.004607865,0.055191264,0.07776402,-0.081620604,0.090099186,0.26247895,-0.08117896,-0.08429112,-0.39846075,-0.18720587,-0.018439863,-0.43834743,-0.09992745,-0.0060989494,0.06831935,0.07020304,-0.055082195,-0.040244468,-0.0635352,-0.03016343,-0.0609759,-0.0022235408,0.04564371,0.013905999,-0.04068817,0.94350696,0.34802005,-0.8752751,0.85931015,0.58023703,-0.5634443,-0.97890425,-0.82905585,-0.74471974,-0.38014227,-0.82615906,-0.9030635,0.946547,0.34321037,-0.8480622,0.87485856,0.5193931,-0.54214966,-0.9817311,-0.7910167,-0.81196684,-0.4666328,-0.8881832,-0.93084437
2025-06-05 09:13:13.620,-0.05156604,0.003801075,0.01690871,0.08063117,0.045919713,0.034793902,0.0,0.0,0.0,-0.0044378536,0.05562976,0.08988644,-0.07448552,0.07747051,0.26698315,-0.09572724,-0.07689533,-0.39727232,-0.1931758,-0.022598742,-0.43497148,-0.103436105,0.0056110825,0.043293085,-0.06548383,-0.06066147,-0.02920677,-0.06706534,-0.054881293,0.06897465,-0.006293734,-0.0013781029,0.039543934,0.059229225,0.946547,0.34321037,-0.8480622,0.87485856,0.5193931,-0.54214966,-0.9817311,-0.7910167,-0.81196684,-0.4666328,-0.8881832,-0.93084437,0.94120586,0.19811617,-0.84654814,0.86927676,0.57562673,-0.46376118,-0.9801137,-0.8192539,-0.7836814,-0.40846643,-0.8694618,-0.91450953
2025-06-05 09:13:13.644,-0.0028111988,-0.028297655,-0.02409221,0.0036630216,0.06261528,0.004717902,0.0,0.0,0.0,-0.004609104,0.055805363,0.07354276,-0.07151991,0.08506426,0.2663541,-0.09948659,-0.07714175,-0.37974766,-0.20330337,-0.012121226,-0.45269585,-0.09027084,0.017957993,0.048830193,-0.070038885,0.012143922,-0.074152164,0.031036826,-0.07376172,-0.03798515,0.04032422,-0.031868465,0.0037220924,0.045522645,0.94120586,0.19811617,-0.84654814,0.86927676,0.57562673,-0.46376118,-0.9801137,-0.8192539,-0.7836814,-0.40846643,-0.8694618,-0.91450953,0.9535219,0.21638034,-0.8146915,0.86790484,0.58715767,-0.51177335,-0.98064834,-0.8315124,-0.78806514,-0.46135664,-0.88582516,-0.9158946
2025-06-05 09:13:13.659,-0.025414364,0.01548444,-0.007812978,-0.0025088964,0.027339641,-0.0053643747,0.0,0.0,0.0,-0.004689093,0.06581434,0.07495675,-0.06734778,0.07824494,0.26846364,-0.08649933,-0.07488064,-0.3876397,-0.19379291,-0.012507169,-0.45737952,-0.09154237,-0.043979853,-0.012354858,0.03408489,-0.011858224,-0.057396635,0.047708463,0.04585298,0.06518659,0.068193056,0.054120068,-0.078890115,-0.048486248,0.9535219,0.21638034,-0.8146915,0.86790484,0.58715767,-0.51177335,-0.98064834,-0.8315124,-0.78806514,-0.46135664,-0.88582516,-0.9158946,0.95986784,0.2901993,-0.82447475,0.86331284,0.62226427,-0.5468991,-0.98407555,-0.8134495,-0.8103174,-0.53456426,-0.8898217,-0.9307251
2025-06-05 09:13:13.679,-0.046546686,0.0819452,-0.0071542524,0.026631057,0.07118217,0.03615622,0.0,0.0,0.0,-0.004630747,0.06759639,0.07079954,-0.068627566,0.08144642,0.2753115,-0.09453835,-0.0780767,-0.38581944,-0.20751584,-0.015435043,-0.4479943,-0.10197585,0.07040113,-0.0035729012,0.015233053,-0.065304294,-0.03664707,-0.043940213,-0.030552085,0.0667858,0.06195093,0.002316112,0.056383714,0.064861886,0.95986784,0.2901993,-0.82447475,0.86331284,0.62226427,-0.5468991,-0.98407555,-0.8134495,-0.8103174,-0.53456426,-0.8898217,-0.9307251,0.9497343,0.25156793,-0.8345461,0.86319774,0.59864175,-0.4922445,-0.98238105,-0.8263831,-0.8076085,-0.46809047,-0.8838069,-0.92245173
2025-06-05 09:13:13.699,0.008146555,0.023749094,-0.035913117,0.047371812,0.08777071,-0.047079448,0.0,0.0,0.0,-0.004673582,0.05289657,0.06754677,-0.07918688,0.08664987,0.26716784,-0.100462735,-0.08710278,-0.385556,-0.20133485,-0.019792488,-0.45119184,-0.08981914,-0.025552308,-0.02018226,-0.053436894,0.025963759,0.0240165,-0.034723848,0.065623544,-0.019071475,0.015576549,-0.0023809308,-0.048947588,0.038614165,0.9497343,0.25156793,-0.8345461,0.86319774,0.59864175,-0.4922445,-0.98238105,-0.8263831,-0.8076085,-0.46809047,-0.8838069,-0.92245173,0.9601733,0.33110356,-0.8035968,0.86969113,0.5673572,-0.5997,-0.98249364,-0.79388654,-0.81920284,-0.5673164,-0.8982409,-0.92821556
2025-06-05 09:13:13.719,-0.0012427202,0.03150234,0.0647423,0.07711908,0.08117667,0.0006549847,0.0,0.0,0.0,-0.0047180443,0.059923496,0.06970887,-0.07703603,0.07898517,0.2648123,-0.099146724,-0.09429301,-0.38030836,-0.1994212,-0.020974705,-0.4527145,-0.08870032,0.023224607,0.0077400967,0.07700992,0.007136848,-0.07052864,-0.007654223,-0.064596064,-0.06823364,-0.0066924337,-0.026771221,-0.06489378,-0.042686366,0.9601733,0.33110356,-0.8035968,0.86969113,0.5673572,-0.5997,-0.98249364,-0.79388654,-0.81920284,-0.5673164,-0.8982409,-0.92821556,0.9432083,0.10276857,-0.8852979,0.87516785,0.6006759,-0.3535344,-0.97978145,-0.84451705,-0.68929064,-0.34821856,-0.8459822,-0.9075195
2025-06-05 09:13:13.743,-0.046406236,0.03142018,-0.040992536,0.069188505,0.067909695,-0.019516252,0.0,0.0,0.0,-0.0049785976,0.06652307,0.06579554,-0.058987573,0.08336838,0.27935836,-0.09365834,-0.076620646,-0.38997057,-0.2051229,-0.02181329,-0.45204777,-0.097218506,0.064907484,0.062218025,-0.06252365,-0.0554575,-0.008803918,-0.060870167,-0.07160943,0.028315678,0.026714249,0.07412184,0.037792046,-0.014992765,0.9432083,0.10276857,-0.8852979,0.87516785,0.6006759,-0.3535344,-0.97978145,-0.84451705,-0.68929064,-0.34821856,-0.8459822,-0.9075195,0.9496864,0.37130094,-0.81841433,0.8518331,0.5712457,-0.59782434,-0.98107964,-0.79922086,-0.8163506,-0.48841894,-0.8709363,-0.91800666
2025-06-05 09:13:13.760,0.043068085,0.061414815,0.022250308,0.049173146,0.09635169,0.03227592,0.0,0.0,0.0,-0.0048435684,0.054046504,0.06695025,-0.061479073,0.082079984,0.26879978,-0.093941234,-0.08008775,-0.3869864,-0.20772047,-0.014186369,-0.4505705,-0.102373265,0.046354216,0.057835154,-0.056662034,-0.064845525,-0.04018933,-0.0525871,0.03633849,0.076265156,-0.04708536,0.06815723,-0.021538958,-0.0029355036,0.9496864,0.37130094,-0.81841433,0.8518331,0.5712457,-0.59782434,-0.98107964,-0.79922086,-0.8163506,-0.48841894,-0.8709363,-0.91800666,0.9433706,0.19326222,-0.79863113,0.87616587,0.53705776,-0.5150382,-0.9829134,-0.7852128,-0.8274635,-0.42887574,-0.90060514,-0.92994153
2025-06-05 09:13:13.780,-0.033195853,0.025457704,-0.04134309,0.058336098,0.047387157,-0.035260413,0.0,0.0,0.0,-0.0047495435,0.054955356,0.059602235,-0.061733887,0.07774773,0.2769144,-0.11187563,-0.09079845,-0.3748051,-0.21841905,-0.019447444,-0.45089424,-0.09362217,-0.033712998,0.010461054,0.01406537,0.013287469,0.06585089,-0.07476066,-0.027746452,-0.049617257,-0.014179808,-0.0039059725,0.059204124,0.052970417,0.9433706,0.19326222,-0.79863113,0.87616587,0.53705776,-0.5150382,-0.9829134,-0.7852128,-0.8274635,-0.42887574,-0.90060514,-0.92994153,0.94908917,0.39216575,-0.839752,0.8604462,0.5638199,-0.62447375,-0.9794098,-0.81425303,-0.80275977,-0.5173298,-0.87649304,-0.9110061
2025-06-05 09:13:13.800,0.04550607,0.066194475,0.0031078109,0.041468997,0.07532956,-0.0128760785,0.0,0.0,0.0,-0.0048017525,0.06502912,0.06838523,-0.07146812,0.089366555,0.26208296,-0.10959723,-0.09154942,-0.36798164,-0.20526075,-0.017559726,-0.45114022,-0.098652646,-0.022778764,-0.056672096,0.0046115573,-0.061817165,-0.018615339,0.046323173,-0.058169384,-0.040117547,0.04292649,0.048057906,-0.033559866,-0.013808954,0.94908917,0.39216575,-0.839752,0.8604462,0.5638199,-0.62447375,-0.9794098,-0.81425303,-0.80275977,-0.5173298,-0.87649304,-0.9110061,0.956419,0.24917923,-0.89217633,0.88471115,0.5769214,-0.3533286,-0.98306715,-0.8418642,-0.7165225,-0.5127695,-0.8766438,-0.9296684
2025-06-05 09:13:13.820,0.03203566,0.033268124,-0.0014981792,0.070325285,0.042792626,-0.048379175,0.0,0.0,0.0,-0.0050111953,0.07467551,0.056460198,-0.06075356,0.07590706,0.2780604,-0.11420302,-0.078939155,-0.37826782,-0.19735722,-0.021929096,-0.45272207,-0.0900434,0.054082084,0.002941816,-0.060354948,-0.006070989,-0.039265893,0.041322533,0.0070100995,0.02256326,0.05824519,0.04845516,-0.022815123,0.01647561,0.956419,0.24917923,-0.89217633,0.88471115,0.5769214,-0.3533286,-0.98306715,-0.8418642,-0.7165225,-0.5127695,-0.8766438,-0.9296684,0.9578755,0.24728538,-0.87507665,0.89366543,0.60584986,-0.41437516,-0.9824956,-0.85079217,-0.72550344,-0.5081325,-0.88303876,-0.93053293
2025-06-05 09:13:13.843,-0.026911262,-0.008967793,-0.016087817,0.055851478,0.020645244,-0.025326844,0.0,0.0,0.0,-0.0051918253,0.056748465,0.059704773,-0.058418203,0.078239776,0.26651263,-0.10405769,-0.0846167,-0.38634774,-0.2060655,-0.013061105,-0.44897914,-0.08911677,0.06007562,0.061946522,0.06407294,0.039203465,0.06131858,0.0086376555,0.018037207,-0.041571192,-0.045436453,0.05039763,0.035688106,-0.06249791,0.9578755,0.24728538,-0.87507665,0.89366543,0.60584986,-0.41437516,-0.9824956,-0.85079217,-0.72550344,-0.5081325,-0.88303876,-0.93053293,0.9480501,0.36959308,-0.89521754,0.8867854,0.5565495,-0.4849881,-0.9807958,-0.8458707,-0.7323135,-0.47902247,-0.86977226,-0.92300713
2025-06-05 09:13:13.860,-0.015834542,0.020942554,-0.01486479,0.048103265,0.062478945,0.009601481,0.0,0.0,0.0,-0.0052073263,0.07532057,0.071469374,-0.062487263,0.089644745,0.26985514,-0.09842423,-0.092860974,-0.37934506,-0.19901778,-0.021159034,-0.45384532,-0.10033819,0.07611802,-0.007356061,0.06822784,-0.027613277,0.06722957,0.038236342,0.06959914,0.058660723,-0.050771963,-0.016792698,-0.01959133,-0.07071093,0.9480501,0.36959308,-0.89521754,0.8867854,0.5565495,-0.4849881,-0.9807958,-0.8458707,-0.7323135,-0.47902247,-0.86977226,-0.92300713,0.9612884,0.34788412,-0.8644126,0.894814,0.57023126,-0.50250274,-0.98636043,-0.7987938,-0.8048272,-0.5792419,-0.91270393,-0.949895
2025-06-05 09:13:13.881,-0.039904278,-0.049696557,-0.009322771,0.0896067,0.07397408,0.041015856,0.0,0.0,0.0,-0.005269018,0.066507876,0.060761005,-0.06080538,0.09169498,0.27861398,-0.10784386,-0.08697875,-0.3838361,-0.20088057,-0.023386762,-0.45727867,-0.10103808,0.06720718,0.0006035795,-0.07109756,-0.024223398,0.061257184,-0.010218934,-0.058900315,0.022535285,0.06597686,0.04849918,-0.05812556,-0.009191812,0.9612884,0.34788412,-0.8644126,0.894814,0.57023126,-0.50250274,-0.98636043,-0.7987938,-0.8048272,-0.5792419,-0.91270393,-0.949895,0.95531464,0.19653189,-0.8765563,0.89804274,0.5738412,-0.35834706,-0.9819655,-0.8242148,-0.7283996,-0.52386296,-0.89243984,-0.9327817
2025-06-05 09:13:13.902,0.031779036,0.023605332,0.036492534,0.09445628,0.036459018,0.009238654,0.0,0.0,0.0,-0.005568125,0.07664326,0.07094637,-0.05378871,0.08608452,0.28282592,-0.100075796,-0.088828854,-0.38585842,-0.19550335,-0.024518587,-0.4603666,-0.09030352,-0.0026370191,0.07276163,-0.015585995,0.054057296,-0.018351082,-0.064892426,0.013055037,-0.03153933,0.0347498,-0.04199547,-0.019061454,0.071434945,0.95531464,0.19653189,-0.8765563,0.89804274,0.5738412,-0.35834706,-0.9819655,-0.8242148,-0.7283996,-0.52386296,-0.89243984,-0.9327817,0.9511062,0.23155253,-0.86679226,0.9021047,0.6184076,-0.49177215,-0.9785114,-0.86371434,-0.71698976,-0.43799517,-0.8759522,-0.9162544
2025-06-05 09:13:13.921,-0.04465257,-0.025411807,-0.049947735,0.078667305,0.02586189,-0.030900221,0.0,0.0,0.0,-0.0057358183,0.064360484,0.07233648,-0.07269987,0.08664142,0.27301517,-0.10292558,-0.0811007,-0.38821095,-0.19638471,-0.02731203,-0.45718852,-0.10483033,0.031011125,-0.005618386,0.01651144,0.025365002,-0.029589219,0.051259533,0.00046487994,-0.00884228,0.027631499,-0.0053623826,-0.008361045,0.03041284,0.9511062,0.23155253,-0.86679226,0.9021047,0.6184076,-0.49177215,-0.9785114,-0.86371434,-0.71698976,-0.43799517,-0.8759522,-0.9162544,0.9642819,0.32450196,-0.80364513,0.8734004,0.61377496,-0.58584774,-0.9848922,-0.8020631,-0.8361929,-0.58509123,-0.90978855,-0.93567735
2025-06-05 09:13:13.943,0.025677577,0.007923266,0.03786021,0.06033772,0.016770221,-0.0011060802,0.0,0.0,0.0,-0.0056040813,0.07776672,0.05681113,-0.060151014,0.076357715,0.28307164,-0.103024304,-0.08840016,-0.3834362,-0.20750177,-0.017453326,-0.4504996,-0.097296014,0.018361231,-0.0597295,0.005083631,-0.06927132,0.021407198,0.049611043,0.02355837,0.0121458545,-0.055073105,0.04729633,0.04905347,0.008751877,0.9642819,0.32450196,-0.80364513,0.8734004,0.61377496,-0.58584774,-0.9848922,-0.8020631,-0.8361929,-0.58509123,-0.90978855,-0.93567735,0.9420962,0.22523935,-0.8728248,0.8629089,0.5958836,-0.4416592,-0.98168737,-0.85300845,-0.751751,-0.40606666,-0.85679865,-0.9113834
2025-06-05 09:13:13.960,0.0022180222,0.020210207,-0.048200183,0.047427017,0.02171752,0.04315127,0.0,0.0,0.0,-0.0056716185,0.06618376,0.07146137,-0.07193896,0.08730394,0.2723538,-0.10177193,-0.07541219,-0.37946537,-0.20279905,-0.014694552,-0.4576465,-0.098804034,0.004587466,-0.0020442351,0.014599502,-0.063784964,0.054569356,0.07563158,0.06803186,-0.032014433,0.010987085,0.06720625,-0.026287189,0.051850103,0.9420962,0.22523935,-0.8728248,0.8629089,0.5958836,-0.4416592,-0.98168737,-0.85300845,-0.751751,-0.40606666,-0.85679865,-0.9113834,0.962806,0.37291792,-0.82138216,0.88170755,0.5761503,-0.56463057,-0.9845695,-0.81614554,-0.8201848,-0.596466,-0.91054744,-0.9417749
2025-06-05 09:13:13.981,0.008389279,-0.02720085,-0.011921946,0.06879803,0.021696206,0.04012437,0.0,0.0,0.0,-0.005588432,0.062265806,0.065292396,-0.057111774,0.076349504,0.27903658,-0.10310697,-0.08488651,-0.39028817,-0.20341165,-0.026039733,-0.45444724,-0.10613298,-0.021057248,-0.052102428,0.04722164,0.025647828,-0.056340147,-0.013077523,-0.072880924,-0.05860378,-0.0776704,0.02030917,-0.06303987,0.013746464,0.962806,0.37291792,-0.82138216,0.88170755,0.5761503,-0.56463057,-0.9845695,-0.81614554,-0.8201848,-0.596466,-0.91054744,-0.9417749,0.95649207,0.21899137,-0.8015467,0.8797615,0.5614878,-0.55791974,-0.9820503,-0.7835418,-0.8147696,-0.5341058,-0.90300184,-0.9232554
2025-06-05 09:13:14.001,0.027982311,-0.005540374,0.032588392,0.050468814,0.0043975213,0.04309774,0.0,0.0,0.0,-0.0057300692,0.07231819,0.06795911,-0.064523764,0.0812809,0.27639487,-0.10468551,-0.09339543,-0.37699008,-0.21047272,-0.035031553,-0.45915726,-0.10079216,0.050295215,-0.030166682,0.04723512,-0.014383909,-0.0126468325,0.059315983,-0.038127843,-0.052896585,-0.047929328,-0.04757324,0.06964157,-0.010321187,0.95649207,0.21899137,-0.8015467,0.8797615,0.5614878,-0.55791974,-0.9820503,-0.7835418,-0.8147696,-0.5341058,-0.90300184,-0.9232554,0.94791245,0.20804158,-0.8536741,0.87065583,0.61349094,-0.49118003,-0.98142606,-0.8547708,-0.75994015,-0.4202199,-0.8767048,-0.91218895
2025-06-05 09:13:14.021,0.032491487,-0.02963499,-0.032581147,0.011059872,0.071016975,-0.046663437,0.0,0.0,0.0,-0.006042322,0.07459081,0.060927283,-0.072995014,0.09147606,0.28516573,-0.10525019,-0.07585799,-0.39145502,-0.205649,-0.026719753,-0.4598829,-0.10204257,-0.06307485,0.04735635,0.048064504,0.0027292324,0.017258411,0.021290421,-0.06950968,0.029977845,-0.06020727,0.023213737,-0.05698511,0.038702894,0.94791245,0.20804158,-0.8536741,0.87065583,0.61349094,-0.49118003,-0.98142606,-0.8547708,-0.75994015,-0.4202199,-0.8767048,-0.91218895,0.9584883,0.3242793,-0.7556783,0.85721457,0.6026804,-0.67361724,-0.98213774,-0.76529473,-0.8543219,-0.5391815,-0.8908075,-0.9201191
2025-06-05 09:13:14.043,-0.0038806556,0.020961706,0.016294697,0.094933815,0.08314395,-0.04252989,0.0,0.0,0.0,-0.0060011884,0.06904313,0.056729697,-0.06082883,0.08565346,0.27062896,-0.11122584,-0.09230327,-0.37137172,-0.20421684,-0.027767027,-0.46405956,-0.094840094,0.00379076,0.025161497,-0.028167304,-0.06332664,-0.02726479,-0.019417182,0.055869263,-0.040503666,-0.062966034,-0.057970073,0.0034194097,-0.0396328,0.9584883,0.3242793,-0.7556783,0.85721457,0.6026804,-0.67361724,-0.98213774,-0.76529473,-0.8543219,-0.5391815,-0.8908075,-0.9201191,0.954851,0.22866644,-0.7830597,0.86109126,0.56075835,-0.5907156,-0.98541504,-0.77200013,-0.84449184,-0.5069175,-0.9129946,-0.9303781
2025-06-05 09:13:14.061,0.0023908908,0.04434652,-0.03834232,0.07145898,0.027577227,-0.0025545927,0.0,0.0,0.0,-0.0060782097,0.05956962,0.05817417,-0.072104864,0.09221864,0.27598786,-0.11364477,-0.094359875,-0.36958644,-0.21718189,-0.032402657,-0.46582174,-0.10108275,-0.072040066,0.0004762049,0.030983562,-0.044125974,0.031136878,-0.019051261,0.03466727,0.063630916,-0.06351464,0.06841248,0.056482986,-0.027438601,0.954851,0.22866644,-0.7830597,0.86109126,0.56075835,-0.5907156,-0.98541504,-0.77200013,-0.84449184,-0.5069175,-0.9129946,-0.9303781,0.9602228,0.3806276,-0.74424314,0.862282,0.554604,-0.74201906,-0.9860876,-0.71302736,-0.88451034,-0.614297,-0.92050284,-0.93296677
2025-06-05 09:13:14.081,0.010410147,-0.008912962,0.004119596,0.025261957,0.044826724,-0.005768986,0.0,0.0,0.0,-0.006283631,0.060014978,0.07055394,-0.062365152,0.079532824,0.28672314,-0.12276973,-0.091443814,-0.37466848,-0.21137184,-0.041441333,-0.46756396,-0.099235885,-0.052349992,0.021256363,0.073497005,-0.03645971,0.049762852,-0.004604638,-0.074587606,-0.01384509,-0.044506464,-0.051619943,0.022691945,0.016013462,0.9602228,0.3806276,-0.74424314,0.862282,0.554604,-0.74201906,-0.9860876,-0.71302736,-0.88451034,-0.614297,-0.92050284,-0.93296677,0.9523298,0.23682004,-0.83954215,0.8816369,0.5952209,-0.5185497,-0.9821138,-0.8023305,-0.80254126,-0.5301255,-0.9002762,-0.9253695
2025-06-05 09:13:14.102,-0.031735692,-0.011116919,-0.00070843636,0.036739938,0.0684105,0.007317329,0.0,0.0,0.0,-0.006802669,0.07105945,0.063211344,-0.06222625,0.08276663,0.285472,-0.108566314,-0.08542272,-0.36413798,-0.22406746,-0.043337706,-0.45659816,-0.0994513,0.054984443,0.033195566,0.029868737,0.01178048,-0.06602999,-0.038964413,-0.010404809,0.002984372,0.0635226,-0.037275303,0.042985126,0.020225784,0.9523298,0.23682004,-0.83954215,0.8816369,0.5952209,-0.5185497,-0.9821138,-0.8023305,-0.80254126,-0.5301255,-0.9002762,-0.9253695,0.9587545,0.24493967,-0.8385929,0.88514245,0.6193454,-0.51331,-0.98357266,-0.82973486,-0.7996314,-0.52381986,-0.9055654,-0.9312343
2025-06-05 09:13:14.125,0.03019976,0.006544511,-0.017870089,0.012779397,0.029862786,0.03372849,0.0,0.0,0.0,-0.0071047405,0.07306538,0.0595461,-0.06586969,0.08497501,0.28653434,-0.12515163,-0.082227424,-0.3771471,-0.22165419,-0.03600538,-0.45927194,-0.10612157,0.075195245,-0.031945072,-0.000573614,0.06122573,-0.022772722,-0.055339463,-0.04509286,-0.0118933795,0.023492144,-0.041813586,-0.071919225,-0.04772565,0.9587545,0.24493967,-0.8385929,0.88514245,0.6193454,-0.51331,-0.98357266,-0.82973486,-0.7996314,-0.52381986,-0.9055654,-0.9312343,0.9612204,0.22183786,-0.80549645,0.87976307,0.5732738,-0.5498834,-0.98312914,-0.7825295,-0.80272317,-0.5439148,-0.90294915,-0.9287044
2025-06-05 09:13:14.143,-0.022216015,0.050095268,0.03184142,0.028495105,-0.0013824331,0.017679673,0.0,0.0,0.0,-0.0070593534,0.07882064,0.06423573,-0.06297192,0.08678926,0.28513014,-0.11745146,-0.08494161,-0.37031093,-0.22153722,-0.03713149,-0.46061182,-0.103543065,-0.04358679,0.048104424,0.039989267,0.064893745,0.045344718,-0.052996185,0.038202945,0.06567696,0.00032265452,-0.002437084,-0.06771398,-0.06058026,0.9612204,0.22183786,-0.80549645,0.87976307,0.5732738,-0.5498834,-0.98312914,-0.7825295,-0.80272317,-0.5439148,-0.90294915,-0.9287044,0.9582357,0.27786523,-0.829684,0.8875896,0.62183297,-0.5617368,-0.9816631,-0.8087075,-0.7946563,-0.5383171,-0.8947184,-0.9320612
2025-06-05 09:13:14.162,-0.019475462,-0.010924231,-0.016737599,0.06532012,0.036241915,0.018802049,0.0,0.0,0.0,-0.007075154,0.063221894,0.05440464,-0.055168383,0.0806908,0.2689572,-0.11566917,-0.0922812,-0.37824538,-0.20744267,-0.03168706,-0.47301653,-0.097065546,-0.048127104,-0.009805249,0.03826761,-0.029233264,-0.044425715,-0.06630348,-0.018115086,-0.05843475,-0.028876366,0.029086761,-0.044708822,-0.048587374,0.9582357,0.27786523,-0.829684,0.8875896,0.62183297,-0.5617368,-0.9816631,-0.8087075,-0.7946563,-0.5383171,-0.8947184,-0.9320612,0.9599604,0.32658395,-0.8083051,0.87680894,0.5566761,-0.611617,-0.9837293,-0.77150196,-0.8319961,-0.58209944,-0.90763164,-0.9331398
2025-06-05 09:13:14.182,0.04640334,-0.0032472427,0.04602435,0.088012934,0.05576212,0.037371043,0.0,0.0,0.0,-0.007098248,0.0764049,0.0632449,-0.06304186,0.086869776,0.27997905,-0.113899,-0.077955075,-0.36198828,-0.2167245,-0.031172706,-0.46260527,-0.1002083,-0.050556995,0.07444296,0.03998328,0.011693023,0.06788239,-0.0076153656,-0.056802902,0.009403172,-0.0030655973,0.058871467,0.06779538,-0.008635977,0.9599604,0.32658395,-0.8083051,0.87680894,0.5566761,-0.611617,-0.9837293,-0.77150196,-0.8319961,-0.58209944,-0.90763164,-0.9331398,0.9425136,0.23322381,-0.90044576,0.89277446,0.60394645,-0.40681985,-0.9796608,-0.863783,-0.7067934,-0.42138758,-0.8636704,-0.9144291
2025-06-05 09:13:14.202,0.05003877,-0.00013847825,-0.03484204,0.041186076,0.0076738005,0.0019241846,0.0,0.0,0.0,-0.0073277005,0.06822407,0.069269516,-0.06849798,0.091454394,0.28367236,-0.117833264,-0.08610037,-0.38190168,-0.20278397,-0.04132055,-0.4708274,-0.095370665,0.049490597,-0.06136625,0.011843771,-0.004008787,-0.03861899,0.025804644,-0.0218499,-0.062308393,-0.024729684,0.041876383,-0.02586371,-0.07366553,0.9425136,0.23322381,-0.90044576,0.89277446,0.60394645,-0.40681985,-0.9796608,-0.863783,-0.7067934,-0.42138758,-0.8636704,-0.9144291,0.96359473,0.34905925,-0.83408946,0.87963164,0.5705064,-0.56648135,-0.98468554,-0.79869056,-0.80861545,-0.58767885,-0.90153974,-0.9370792
2025-06-05 09:13:14.226,0.044813085,0.005440852,0.018072477,0.087581314,0.032743234,-0.003897389,0.0,0.0,0.0,-0.007239215,0.06820921,0.05599751,-0.06798818,0.095457025,0.27618113,-0.11202417,-0.07963549,-0.3720052,-0.20978563,-0.03279034,-0.46595487,-0.093931094,0.06706055,0.004649773,-0.011799807,-0.019837143,-0.019394109,-0.0048977598,0.00052602333,0.049320556,-0.00012842558,-0.07258115,-0.038942207,-0.03189172,0.96359473,0.34905925,-0.83408946,0.87963164,0.5705064,-0.56648135,-0.98468554,-0.79869056,-0.80861545,-0.58767885,-0.90153974,-0.9370792,0.95742,0.15707323,-0.8278801,0.89393276,0.59503376,-0.4847806,-0.983848,-0.79403585,-0.79248726,-0.49844882,-0.9087816,-0.93667793
2025-06-05 09:13:14.243,-0.033495262,-0.024507517,-6.732395e-05,0.0913397,0.06696076,-0.01056145,0.0,0.0,0.0,-0.0072102305,0.06831457,0.058383882,-0.061083272,0.09653807,0.28648922,-0.11002189,-0.07876352,-0.37073994,-0.21690708,-0.03665702,-0.4693673,-0.10156959,0.046601333,-0.0656161,0.02783223,0.057607334,-0.0069693336,0.048674863,-0.040659763,-0.027454315,0.05302602,-0.03811538,0.046905786,0.036360577,0.95742,0.15707323,-0.8278801,0.89393276,0.59503376,-0.4847806,-0.983848,-0.79403585,-0.79248726,-0.49844882,-0.9087816,-0.93667793,0.9580099,0.2248352,-0.84445184,0.86155355,0.6569204,-0.51289487,-0.98212236,-0.8528128,-0.76796347,-0.47936365,-0.87287664,-0.9110817
2025-06-05 09:13:14.262,-0.0190232,-0.040084727,-0.009493054,0.05320626,0.017700346,0.0029693432,0.0,0.0,0.0,-0.007121095,0.065169625,0.06050079,-0.055066384,0.07884161,0.27954867,-0.121717274,-0.091387406,-0.3795056,-0.21539456,-0.03309869,-0.4724941,-0.10719582,0.07028042,-0.06694474,-0.05865802,-0.015071394,0.0018121516,-0.03641105,-0.043693263,0.015827898,-0.033272833,-0.025827603,-0.052387152,0.0048965877,0.9580099,0.2248352,-0.84445184,0.86155355,0.6569204,-0.51289487,-0.98212236,-0.8528128,-0.76796347,-0.47936365,-0.87287664,-0.9110817,0.9563748,0.23704427,-0.7898474,0.8450706,0.5697924,-0.5628266,-0.9828637,-0.78616214,-0.8149301,-0.493542,-0.8814561,-0.91742945
2025-06-05 09:13:14.350,-0.0036060072,0.046630923,0.015795475,0.048988957,0.020980544,-0.006227174,0.0,0.0,0.0,-0.006737801,0.060969792,0.06511301,-0.06696421,0.092467465,0.28138918,-0.11378154,-0.07949469,-0.36648643,-0.20725891,-0.04003272,-0.46135044,-0.10306267,-0.056421503,0.03491238,0.012301677,-0.015697548,0.033872988,-0.049098015,0.07418949,0.007945829,0.01492226,-0.013909515,-0.007153829,0.0030863588,0.9563748,0.23704427,-0.7898474,0.8450706,0.5697924,-0.5628266,-0.9828637,-0.78616214,-0.8149301,-0.493542,-0.8814561,-0.91742945,0.95637447,0.3093175,-0.8176265,0.8736955,0.60324764,-0.58183324,-0.98167914,-0.81147826,-0.81397134,-0.5250341,-0.8957854,-0.92987007
2025-06-05 09:13:14.367,0.017154614,0.041449692,-0.047632407,0.059165377,0.08524262,-0.045603633,0.0,0.0,0.0,-0.006429874,0.059767336,0.055260308,-0.06644493,0.088820845,0.2860908,-0.109083824,-0.0894871,-0.37287855,-0.20851405,-0.028050782,-0.46436232,-0.10029988,0.040943895,-0.027600491,-0.04149007,-0.03726174,-0.029568512,-0.018327886,-0.022995718,-0.01614149,-0.017842442,-0.031023776,0.030088345,0.02911094,0.95637447,0.3093175,-0.8176265,0.8736955,0.60324764,-0.58183324,-0.98167914,-0.81147826,-0.81397134,-0.5250341,-0.8957854,-0.92987007,0.96024394,0.27195215,-0.7677546,0.86909854,0.5554657,-0.6277241,-0.98469496,-0.7546927,-0.8528725,-0.56398916,-0.9156656,-0.9302541
2025-06-05 09:13:14.387,0.045501933,-0.0020547423,0.056738857,0.08768692,0.027193032,-0.002512958,0.0,0.0,0.0,-0.0063355123,0.06606523,0.048189722,-0.053668227,0.07928635,0.27305588,-0.11254617,-0.08297527,-0.3764385,-0.22172739,-0.02852556,-0.46293974,-0.09834467,0.054352947,-0.0064260587,0.006758423,0.024850693,0.012363854,-0.0042692935,-0.006818752,0.0051808013,-0.04323688,-0.03007771,-0.0679014,0.054215673,0.96024394,0.27195215,-0.7677546,0.86909854,0.5554657,-0.6277241,-0.98469496,-0.7546927,-0.8528725,-0.56398916,-0.9156656,-0.9302541,0.9417429,0.074202225,-0.8199425,0.8722249,0.6079117,-0.4655954,-0.97929853,-0.8294047,-0.7559011,-0.3638348,-0.8711859,-0.9049334
2025-06-05 09:13:14.411,0.026728168,-0.0042604012,-0.055214476,0.023037285,0.057553492,-0.038639486,0.0,0.0,0.0,-0.006541811,0.07282563,0.06074097,-0.05468873,0.09635299,0.28620863,-0.1050587,-0.07581595,-0.36603844,-0.22037582,-0.027757037,-0.46393496,-0.101712435,-0.022849493,0.013083622,-0.027657837,0.024686838,0.0491873,0.02134164,-0.04083724,-0.059192453,-0.016064584,0.06406301,-0.042782325,-0.017092241,0.9417429,0.074202225,-0.8199425,0.8722249,0.6079117,-0.4655954,-0.97929853,-0.8294047,-0.7559011,-0.3638348,-0.8711859,-0.9049334,0.96100056,0.36495793,-0.76500887,0.8497327,0.57840836,-0.6854994,-0.9826541,-0.77365816,-0.83789504,-0.57541764,-0.89305997,-0.91805166
2025-06-05 09:13:14.428,-0.03834917,0.026674306,0.022099357,0.0792851,0.01993044,-0.024668355,0.0,0.0,0.0,-0.006338117,0.07387893,0.04935447,-0.050651085,0.08575111,0.27484545,-0.124731794,-0.07891429,-0.38364452,-0.21417028,-0.021869589,-0.45955238,-0.110751,0.058862854,0.044840556,-0.050774563,-0.0049041696,-0.038671784,-0.061370313,0.062503405,-0.051827304,0.016792351,-0.021927316,0.0023137985,0.058871686,0.96100056,0.36495793,-0.76500887,0.8497327,0.57840836,-0.6854994,-0.9826541,-0.77365816,-0.83789504,-0.57541764,-0.89305997,-0.91805166,0.94841903,0.18138516,-0.8249549,0.8793922,0.5762899,-0.43899363,-0.9816146,-0.8267302,-0.7974906,-0.4631406,-0.9058844,-0.9284961
2025-06-05 09:13:14.448,0.022659777,-0.022713775,-0.025239525,0.0741937,0.027567528,0.004261465,0.0,0.0,0.0,-0.0064242054,0.06698013,0.05863609,-0.056186523,0.08345796,0.28112903,-0.119695336,-0.07872419,-0.36769947,-0.20348278,-0.02053165,-0.46589848,-0.099682055,-0.036656015,-0.01586053,0.025953319,-0.029492104,0.06363707,-0.06658253,0.03320928,-0.023469297,-0.053557165,0.00912897,-0.03093761,-0.028211568,0.94841903,0.18138516,-0.8249549,0.8793922,0.5762899,-0.43899363,-0.9816146,-0.8267302,-0.7974906,-0.4631406,-0.9058844,-0.9284961,0.9555031,0.37945652,-0.79888475,0.86550796,0.5603555,-0.6702577,-0.9819102,-0.7768134,-0.8321812,-0.55564135,-0.8938528,-0.9234392
2025-06-05 09:13:14.468,0.021454148,0.018781498,-0.008523125,0.04877291,0.083890475,0.014560392,0.0,0.0,0.0,-0.0064828843,0.07024452,0.045443986,-0.053444874,0.08336425,0.2820095,-0.120088495,-0.090718664,-0.37872988,-0.21351063,-0.039222516,-0.4558982,-0.11202355,0.06796956,-3.874192e-05,0.048401143,-0.04517679,0.006072619,-0.056437194,-0.011273966,-0.036587965,0.0017250814,-0.00050331466,-0.060336415,-0.039291464,0.9555031,0.37945652,-0.79888475,0.86550796,0.5603555,-0.6702577,-0.9819102,-0.7768134,-0.8321812,-0.55564135,-0.8938528,-0.9234392,0.9568296,0.22558896,-0.8294127,0.8883436,0.53976583,-0.50599575,-0.98435694,-0.7627045,-0.80606335,-0.5449607,-0.91428804,-0.9382557
2025-06-05 09:13:14.488,-0.033560786,0.023795584,-0.023214446,0.052018765,0.033815,-0.034237474,0.0,0.0,0.0,-0.0067274724,0.06738194,0.05427493,-0.053333573,0.08728656,0.27407342,-0.1192208,-0.07885495,-0.37463102,-0.22006476,-0.029068941,-0.4736648,-0.11079722,0.04852654,-0.061838593,0.036211297,0.054530602,-0.041429047,-0.033695277,0.07137865,0.009024935,-0.032266855,-0.0009512948,0.0487985,-0.020382041,0.9568296,0.22558896,-0.8294127,0.8883436,0.53976583,-0.50599575,-0.98435694,-0.7627045,-0.80606335,-0.5449607,-0.91428804,-0.9382557,0.9612412,0.30635193,-0.78790396,0.8740729,0.59888434,-0.649441,-0.98465866,-0.77964467,-0.8426861,-0.576958,-0.91381145,-0.93155825
2025-06-05 09:13:14.509,-0.050256956,-0.043450113,0.05487137,0.10397128,-0.0009754002,-0.0076754885,0.0,0.0,0.0,-0.0070280363,0.07543336,0.052432124,-0.06416541,0.07989831,0.26982725,-0.11168907,-0.07802705,-0.37436464,-0.21188903,-0.031543534,-0.46772295,-0.09617971,-0.06892955,0.036754552,0.07230258,0.023739237,-0.06833017,0.02365896,0.046183325,0.039899424,-0.040269032,0.05876255,-0.05955079,0.03155837,0.9612412,0.30635193,-0.78790396,0.8740729,0.59888434,-0.649441,-0.98465866,-0.77964467,-0.8426861,-0.576958,-0.91381145,-0.93155825,0.9537175,0.17239095,-0.7963417,0.8710439,0.646116,-0.54031056,-0.9830578,-0.81632906,-0.82693547,-0.48403442,-0.89810556,-0.9247446
2025-06-05 09:13:14.528,0.008013552,0.034229703,-0.031882424,0.055135813,0.06598483,0.04315233,0.0,0.0,0.0,-0.007299133,0.069276005,0.05643335,-0.060017817,0.080470614,0.28892446,-0.11144553,-0.09175123,-0.37236294,-0.21453024,-0.04215785,-0.47049093,-0.10348064,0.018734185,0.0030718094,0.077698074,0.05844894,0.010982418,0.05368385,-0.0018106097,-0.0030089768,0.014496446,-0.04106397,0.053415067,0.04809508,0.9537175,0.17239095,-0.7963417,0.8710439,0.646116,-0.54031056,-0.9830578,-0.81632906,-0.82693547,-0.48403442,-0.89810556,-0.9247446,0.9635456,0.30241436,-0.7661093,0.8640859,0.6213527,-0.6552565,-0.9861707,-0.8098092,-0.8574422,-0.56440276,-0.918583,-0.9289059
2025-06-05 09:13:14.549,-0.039994847,-0.010653276,-0.03491012,0.05621517,0.07646697,-0.03032212,0.0,0.0,0.0,-0.0072346353,0.06037884,0.06399173,-0.06543627,0.09103153,0.28508535,-0.11486952,-0.08301292,-0.36574534,-0.21369807,-0.035840224,-0.4576657,-0.10143216,0.002492731,-0.05224811,0.063880935,0.0317899,-0.05301278,0.023498742,-0.04395735,0.055525556,-0.010688464,0.0692859,0.045284055,-0.005080271,0.9635456,0.30241436,-0.7661093,0.8640859,0.6213527,-0.6552565,-0.9861707,-0.8098092,-0.8574422,-0.56440276,-0.918583,-0.9289059,0.96106297,0.27057505,-0.7764733,0.8392953,0.6004783,-0.6466847,-0.986534,-0.75339806,-0.8630245,-0.5703703,-0.9052052,-0.91847944
2025-06-05 09:13:14.568,0.0013627892,-0.045682434,-0.01139582,0.03608361,0.083243355,0.030068325,0.0,0.0,0.0,-0.007204493,0.07615143,0.06150927,-0.05768147,0.09108067,0.27273852,-0.120301485,-0.091739446,-0.36085045,-0.22356851,-0.044243455,-0.45731345,-0.10267261,-0.026185252,-0.059515957,-0.011530753,0.029917408,-0.05394706,-0.06898089,0.044291846,0.076768294,-0.07302677,-0.06337571,-0.04983516,0.013564793,0.96106297,0.27057505,-0.7764733,0.8392953,0.6004783,-0.6466847,-0.986534,-0.75339806,-0.8630245,-0.5703703,-0.9052052,-0.91847944,0.9665356,0.15194789,-0.6286323,0.85233814,0.52946734,-0.764172,-0.98804533,-0.612064,-0.8915138,-0.59027475,-0.9280041,-0.9212138
2025-06-05 09:13:14.588,-0.013008642,-0.02880317,0.05455765,0.07012717,0.075694494,-0.015903065,0.0,0.0,0.0,-0.0073862085,0.06870265,0.047054823,-0.065837845,0.08321592,0.28736755,-0.11942742,-0.08837711,-0.36734244,-0.21528569,-0.03289658,-0.47067872,-0.09784649,0.031801112,0.01767317,-0.05634787,0.07606386,-0.07410555,-0.024539324,0.012413348,0.070428,-0.06366068,-0.06759039,-0.0360536,0.01609717,0.9665356,0.15194789,-0.6286323,0.85233814,0.52946734,-0.764172,-0.98804533,-0.612064,-0.8915138,-0.59027475,-0.9280041,-0.9212138,0.94213915,-0.05413037,-0.51295274,0.81945443,0.63958895,-0.6695274,-0.979599,-0.75370747,-0.8836957,-0.38072076,-0.904454,-0.8722038
2025-06-05 09:13:14.609,0.044296347,0.035184495,0.0059776832,0.018712854,0.062159862,0.0027607915,0.0,0.0,0.0,-0.008053358,0.07297953,0.04134304,-0.04863257,0.09556555,0.28726068,-0.12843215,-0.08838043,-0.37276998,-0.22097965,-0.04291327,-0.45838737,-0.102581054,0.007401386,-0.005893899,0.08263966,0.0610494,0.030071288,-0.06578768,-0.01383393,-0.01824197,-0.06989227,-0.06520409,-0.009014206,-0.026153345,0.94213915,-0.05413037,-0.51295274,0.81945443,0.63958895,-0.6695274,-0.979599,-0.75370747,-0.8836957,-0.38072076,-0.904454,-0.8722038,0.93900955,0.20989105,-0.46659926,0.6869588,0.58871657,-0.82060176,-0.98259187,-0.72320104,-0.91120327,-0.3575056,-0.88480467,-0.8295389
2025-06-05 09:13:14.628,-0.01922795,0.050264936,0.010406905,0.011888162,-0.009563057,-0.0020729336,0.0,0.0,0.0,-0.008232387,0.061586868,0.04140448,-0.05004038,0.092086606,0.28637472,-0.1319121,-0.09850517,-0.3607708,-0.2283595,-0.041496366,-0.45833486,-0.100700736,-0.028381139,0.0018099,0.045216437,-0.02314435,0.032153063,-0.05358745,-0.018073045,-0.022713905,-0.058255285,-0.07233194,-0.04865412,0.0009084739,0.93900955,0.20989105,-0.46659926,0.6869588,0.58871657,-0.82060176,-0.98259187,-0.72320104,-0.91120327,-0.3575056,-0.88480467,-0.8295389,0.939245,0.16940308,-0.5879909,0.68039715,0.5294837,-0.7335705,-0.98497325,-0.67744386,-0.9000804,-0.39975405,-0.8854887,-0.8657278
2025-06-05 09:13:14.649,0.012873949,0.024924984,0.022154493,0.03993425,-0.010056503,-0.027950235,0.0,0.0,0.0,-0.0082901195,0.06787975,0.050674245,-0.035150528,0.08705441,0.28705868,-0.12157312,-0.097786665,-0.36233294,-0.22984275,-0.03571022,-0.45585725,-0.11289557,-0.061309516,-0.017317235,-0.049024798,-0.009151536,-0.0011410348,-0.040731706,0.026678639,-0.03322824,-0.046536747,0.05453806,0.067153014,-0.042040437,0.939245,0.16940308,-0.5879909,0.68039715,0.5294837,-0.7335705,-0.98497325,-0.67744386,-0.9000804,-0.39975405,-0.8854887,-0.8657278,0.93764365,0.2557206,-0.7458322,0.7494531,0.5500472,-0.6524732,-0.9832801,-0.78442514,-0.8470517,-0.39591876,-0.8703783,-0.88423115
2025-06-05 09:13:14.668,-0.011976799,-0.001749865,-0.010594204,0.048152562,0.06729297,0.04549018,0.0,0.0,0.0,-0.008543844,0.07084861,0.044057515,-0.027507268,0.08593281,0.27405643,-0.1327038,-0.09276699,-0.37379998,-0.22103569,-0.04409073,-0.45518097,-0.116244644,-0.043682735,-0.019148437,0.002323444,0.019751135,-0.023331638,-0.06813986,0.05000836,-0.031919047,0.03252409,-0.06663863,-0.07249495,0.002482407,0.93764365,0.2557206,-0.7458322,0.7494531,0.5500472,-0.6524732,-0.9832801,-0.78442514,-0.8470517,-0.39591876,-0.8703783,-0.88423115,0.9628684,0.2527954,-0.77062464,0.8402187,0.52387214,-0.63171816,-0.9872518,-0.7403985,-0.8394159,-0.54515576,-0.9138762,-0.9292494
2025-06-05 09:13:14.692,-0.010017085,-0.04904062,-0.02802936,0.061023246,0.020936254,-0.016678138,0.0,0.0,0.0,-0.008576015,0.07230057,0.042510986,-0.034034442,0.10248179,0.27252507,-0.13262357,-0.08840787,-0.35809058,-0.21071783,-0.04551308,-0.45821506,-0.12020455,0.011053364,-0.047634266,0.020784741,-0.026206434,-0.009493622,-0.059820384,-0.04341332,0.011635573,-0.06346213,0.0595527,0.0038614767,-0.044328436,0.9628684,0.2527954,-0.77062464,0.8402187,0.52387214,-0.63171816,-0.9872518,-0.7403985,-0.8394159,-0.54515576,-0.9138762,-0.9292494,0.95793927,0.2602045,-0.74388146,0.8484606,0.5145618,-0.7156497,-0.98548454,-0.6666045,-0.8603184,-0.57100445,-0.9101492,-0.9177572
2025-06-05 09:13:14.709,-0.031360842,-0.0534147,0.05703057,0.081142075,0.018135142,0.040035117,0.0,0.0,0.0,-0.008731161,0.07168663,0.051059917,-0.03840157,0.08876036,0.28427127,-0.12979184,-0.09519556,-0.36207741,-0.22393501,-0.035069577,-0.46776915,-0.11804828,-0.062248256,-0.05510783,-0.049887236,-0.015575926,-0.03950839,-0.04395751,0.043763205,0.07518338,0.007160314,-0.06693542,0.052338317,-0.012777663,0.95793927,0.2602045,-0.74388146,0.8484606,0.5145618,-0.7156497,-0.98548454,-0.6666045,-0.8603184,-0.57100445,-0.9101492,-0.9177572,0.951908,0.13562438,-0.8070794,0.8607697,0.6402099,-0.52696717,-0.9825307,-0.8178309,-0.800934,-0.464394,-0.89101833,-0.9182597
2025-06-05 09:13:14.729,0.00691367,0.04291021,0.020349463,0.0789417,-0.006025162,-0.017222486,0.0,0.0,0.0,-0.009252208,0.07435775,0.04746183,-0.041960333,0.099114604,0.28175074,-0.11932841,-0.08435129,-0.36266866,-0.22433661,-0.03980264,-0.4695722,-0.122208595,-0.063763015,-0.0499395,0.052003395,0.06976516,-0.013546131,-0.04773896,-0.008066338,0.0098927785,-0.059122648,-0.01861099,-0.0033913972,-0.05187181,0.951908,0.13562438,-0.8070794,0.8607697,0.6402099,-0.52696717,-0.9825307,-0.8178309,-0.800934,-0.464394,-0.89101833,-0.9182597,0.9582665,0.3090391,-0.7670938,0.83174527,0.621369,-0.68290067,-0.9829401,-0.7923207,-0.8406321,-0.49957925,-0.8768294,-0.9098059
2025-06-05 09:13:14.749,-0.02607612,-0.020431526,-0.009732221,0.048089802,0.03330654,-0.01723041,0.0,0.0,0.0,-0.009218191,0.072828494,0.044197373,-0.052182574,0.09688322,0.27352542,-0.11868987,-0.098582216,-0.36724806,-0.21336988,-0.039803173,-0.45347616,-0.1219191,-0.0071566226,-0.024259211,0.067548595,0.023569781,-0.008492347,-0.0665338,0.011502875,0.04123797,-0.044907227,-0.06407474,-0.07235894,0.05047884,0.9582665,0.3090391,-0.7670938,0.83174527,0.621369,-0.68290067,-0.9829401,-0.7923207,-0.8406321,-0.49957925,-0.8768294,-0.9098059,0.95994425,0.22101885,-0.6842012,0.83716273,0.56500125,-0.6955972,-0.9851665,-0.6898354,-0.8820995,-0.5404953,-0.9125325,-0.9234865
2025-06-05 09:13:14.769,-0.027513335,0.039480258,-0.037892897,0.053730704,0.011520678,-0.02462416,0.0,0.0,0.0,-0.008952475,0.07585764,0.051753484,-0.037955854,0.08922574,0.2843034,-0.13565409,-0.09651303,-0.36835435,-0.22824958,-0.03489801,-0.46680942,-0.12808439,0.024297986,-0.022609118,0.06797855,0.013399092,0.074348316,-0.010938453,-0.06891096,-0.038174927,-0.05188786,-0.016395994,-0.042793605,0.047538195,0.95994425,0.22101885,-0.6842012,0.83716273,0.56500125,-0.6955972,-0.9851665,-0.6898354,-0.8820995,-0.5404953,-0.9125325,-0.9234865,0.9582365,0.19984384,-0.7100022,0.8381442,0.536614,-0.7112921,-0.98549414,-0.6818602,-0.85687256,-0.5602173,-0.9093945,-0.9059529
2025-06-05 09:13:14.792,-0.029482117,-0.0059625087,0.041283883,0.03912758,0.0828576,-0.007849897,0.0,0.0,0.0,-0.009071821,0.07170021,0.053742986,-0.038233384,0.10110111,0.2721252,-0.12822734,-0.08446181,-0.36530563,-0.23015866,-0.046135858,-0.46890283,-0.11628477,-0.052307438,-0.056705393,0.055209924,0.06696417,-0.038214702,-0.046795256,-0.0018271066,-0.013986638,-0.024255503,0.05583311,0.058606017,-0.022317627,0.9582365,0.19984384,-0.7100022,0.8381442,0.536614,-0.7112921,-0.98549414,-0.6818602,-0.85687256,-0.5602173,-0.9093945,-0.9059529,0.9504553,0.23125173,-0.811341,0.83470297,0.6348969,-0.5928987,-0.98196375,-0.818716,-0.8053986,-0.47910237,-0.873482,-0.8991272
2025-06-05 09:13:14.809,-0.027285486,-0.050920215,-0.057725523,0.04845919,0.06897094,-0.029158607,0.0,0.0,0.0,-0.009414735,0.07858089,0.04453029,-0.05168838,0.09417717,0.29036674,-0.1314406,-0.096892215,-0.37088025,-0.22573654,-0.04511106,-0.4714143,-0.12842953,0.065861076,-0.06716433,-0.016408097,-0.03901516,-0.03668389,-0.01442826,0.018522106,0.030124415,-0.008433647,0.036007643,-0.003348728,0.048360012,0.9504553,0.23125173,-0.811341,0.83470297,0.6348969,-0.5928987,-0.98196375,-0.818716,-0.8053986,-0.47910237,-0.873482,-0.8991272,0.9673365,0.22302191,-0.67849433,0.83223647,0.5271871,-0.7321248,-0.9889281,-0.6441039,-0.88768196,-0.5990076,-0.92270505,-0.92386043
2025-06-05 09:13:14.829,0.0013645518,0.028987668,-0.010902193,0.09476292,0.0033082834,0.0033323173,0.0,0.0,0.0,-0.00929475,0.080693044,0.042226467,-0.034872103,0.08997873,0.27759978,-0.12825345,-0.0992396,-0.36996856,-0.22504449,-0.043956876,-0.4707143,-0.11764434,0.020473277,0.062746584,-0.068784915,-0.053547427,0.04760526,0.0038449378,0.03361665,0.034341518,0.03133463,-0.037562445,-0.031094225,0.040327225,0.9673365,0.22302191,-0.67849433,0.83223647,0.5271871,-0.7321248,-0.9889281,-0.6441039,-0.88768196,-0.5990076,-0.92270505,-0.92386043,0.96103024,0.110226706,-0.70742154,0.8821855,0.5427109,-0.66688114,-0.98717535,-0.69430864,-0.85139936,-0.5778736,-0.9358088,-0.9288646
2025-06-05 09:13:14.849,0.019947547,-0.0029020368,0.014602384,0.03605352,0.08227104,-0.031479795,0.0,0.0,0.0,-0.009522473,0.08329154,0.059522,-0.03611487,0.09726647,0.28431877,-0.13585964,-0.099520706,-0.36769646,-0.2223165,-0.04189885,-0.4664798,-0.11676423,-0.018067105,0.037347928,-0.0061838967,-0.018844975,0.06991476,0.06319599,0.003938001,-0.07252806,-0.07497086,-0.011096892,-0.07083027,0.059575282,0.96103024,0.110226706,-0.70742154,0.8821855,0.5427109,-0.66688114,-0.98717535,-0.69430864,-0.85139936,-0.5778736,-0.9358088,-0.9288646,0.959673,0.1607321,-0.7360516,0.87354887,0.60745305,-0.6586462,-0.98336476,-0.779075,-0.8174545,-0.5509512,-0.91154873,-0.909751
2025-06-05 09:13:14.869,-0.027982613,0.012847402,-0.02495924,0.0554785,-0.009715931,0.017791418,0.0,0.0,0.0,-0.009859563,0.083575904,0.055589315,-0.037422255,0.106026515,0.28440592,-0.12984532,-0.09751258,-0.36921683,-0.22630873,-0.04308906,-0.45815995,-0.11756956,0.0070224847,-0.07792999,-0.06661611,-0.018852329,0.056550033,-0.017821493,-0.017777896,0.03829498,-0.052303266,0.02427658,0.016298167,0.022890026,0.959673,0.1607321,-0.7360516,0.87354887,0.60745305,-0.6586462,-0.98336476,-0.779075,-0.8174545,-0.5509512,-0.91154873,-0.909751,0.9600183,0.27324137,-0.7190261,0.83835185,0.5615547,-0.7201643,-0.98521864,-0.72420394,-0.86110353,-0.5801376,-0.90604985,-0.90975934
2025-06-05 09:13:14.892,0.024095051,0.016018981,-0.03530453,0.07581163,0.04469967,-0.02871801,0.0,0.0,0.0,-0.009817814,0.07370005,0.046675984,-0.052985106,0.105351746,0.27461085,-0.12232788,-0.08597053,-0.35600218,-0.22532992,-0.044693653,-0.45964736,-0.11907428,-0.049822763,0.041697096,-0.06746469,0.0044179517,0.00931519,-0.05589554,-0.052298874,0.063110165,0.052898243,0.01606156,-0.06551164,0.035897393,0.9600183,0.27324137,-0.7190261,0.83835185,0.5615547,-0.7201643,-0.98521864,-0.72420394,-0.86110353,-0.5801376,-0.90604985,-0.90975934,0.9646488,0.14920896,-0.7004392,0.8730801,0.5354792,-0.7003935,-0.98590124,-0.6365464,-0.8587707,-0.60707843,-0.92420316,-0.92086494
2025-06-05 09:13:14.910,-0.024299506,0.029632779,0.041731752,0.028606847,-0.005049616,0.021675315,0.0,0.0,0.0,-0.009855287,0.081629924,0.043110576,-0.0350129,0.08949332,0.27887222,-0.123195864,-0.10238543,-0.3552094,-0.2265068,-0.037430372,-0.4697182,-0.12889782,0.067771204,0.00070706755,0.025169257,-0.038825832,0.025578486,-0.051104248,-0.07435075,0.0273101,0.06474555,0.008757999,0.034572374,0.034757975,0.9646488,0.14920896,-0.7004392,0.8730801,0.5354792,-0.7003935,-0.98590124,-0.6365464,-0.8587707,-0.60707843,-0.92420316,-0.92086494,0.93949866,0.12724209,-0.81636715,0.86252016,0.63441116,-0.5033116,-0.978199,-0.8294125,-0.7682751,-0.41866097,-0.8719902,-0.90054196
