openverse-orca/OrcaGym/log/simulation_log_20250605_111516.csv
timestamp,imu_angle_roll,imu_angle_pitch,imu_angle_yaw,imu_angular_velocity_roll,imu_angular_velocity_pitch,imu_angular_velocity_yaw,imu_acc_x,imu_acc_y,imu_acc_z,fl_joint1_pos,fl_joint1_vel,fl_joint1_torque,fl_joint2_pos,fl_joint2_vel,fl_joint2_torque,fl_joint3_pos,fl_joint3_vel,fl_joint3_torque,fr_joint1_pos,fr_joint1_vel,fr_joint1_torque,fr_joint2_pos,fr_joint2_vel,fr_joint2_torque,fr_joint3_pos,fr_joint3_vel,fr_joint3_torque,hl_joint1_pos,hl_joint1_vel,hl_joint1_torque,hl_joint2_pos,hl_joint2_vel,hl_joint2_torque,hl_joint3_pos,hl_joint3_vel,hl_joint3_torque,hr_joint1_pos,hr_joint1_vel,hr_joint1_torque,hr_joint2_pos,hr_joint2_vel,hr_joint2_torque,hr_joint3_pos,hr_joint3_vel,hr_joint3_torque,fl_force_x,fl_force_y,fl_force_z,fr_force_x,fr_force_y,fr_force_z,hl_force_x,hl_force_y,hl_force_z,hr_force_x,hr_force_y,hr_force_z,fl_hip_action,fl_thigh_action,fl_calf_action,fr_hip_action,fr_thigh_action,fr_calf_action,hl_hip_action,hl_thigh_action,hl_calf_action,hr_hip_action,hr_thigh_action,hr_calf_action
2025-06-05 11:15:16.978,0.04851146,0.037926193,-0.009976943,-0.028791182,-0.041751567,0.045154717,1.5369339,0.7075057,0.0,0.0,-0.0016978178,0.008338708,0.0041794586,0.0019588305,-0.0074374345,0.008346872,-0.0036111197,-0.008136272,0.0061462433,-0.0043833577,0.0014252601,-0.0019619914,0.043078206,0.002274979,-0.045870356,-0.030564275,-0.04382214,0.038542744,-0.027997067,-0.0016764533,-0.04007759,0.07192927,-0.06142999,0.040211014,0.0,0.0,0.0,0.0,0.0,0.0,0.0,0.0,0.0,0.0,0.0,0.0,-2.0,1.1874106,0.76918054,2.0,-0.0458673,-2.0,-2.0,0.048111215,-1.5866768,2.0,-1.4384465,-2.0
2025-06-05 11:15:16.982,0.06861962,0.024399169,0.025923464,0.009957958,-0.022534987,-0.021344991,0.0,0.0,0.0,0.0,-0.016350621,0.04333184,0.016265774,0.016075466,-0.009829489,-0.035159275,-0.00611597,-0.0027838268,-0.03206681,0.022581926,-0.04012578,-0.046833757,-0.037091035,0.08861666,0.051267415,0.099145725,-0.049547944,-0.13540459,0.005945401,-0.03635691,-0.0418054,0.09087456,-0.07384629,-0.15426774,-2.0,1.1874106,0.76918054,2.0,-0.0458673,-2.0,-2.0,0.048111215,-1.5866768,2.0,-1.4384465,-2.0,-2.0,0.6180963,2.0,2.0,0.7271529,-2.0,-2.0,-1.9410402,-2.0,2.0,-2.0,2.0
2025-06-05 11:15:17.003,0.11023511,-0.0049733473,0.024367165,-0.011738628,0.019949714,-0.024306672,0.0,0.0,0.0,-0.0006037291,-0.035996147,0.064169675,0.061592538,0.022603441,0.025797699,-0.08256993,-0.027863942,-0.05851189,-0.066877775,0.03434532,-0.12361485,-0.0036557622,-0.049612448,0.008260411,0.098959684,0.08184599,0.09827457,-0.06767008,0.037476078,-0.14628395,-0.07228922,0.11067161,-0.17783993,0.079456754,-2.0,0.6180963,2.0,2.0,0.7271529,-2.0,-2.0,-1.9410402,-2.0,2.0,-2.0,2.0,-2.0,0.088085726,2.0,2.0,1.4259795,-2.0,-1.6618987,-2.0,-2.0,2.0,-2.0,2.0
2025-06-05 11:15:17.023,0.120842494,-0.06924522,-0.036314953,-0.04900597,0.010442559,-0.035487957,0.0,0.0,0.0,-0.00063383416,-0.047764897,0.06909462,0.096840985,0.029225305,0.030108038,-0.09344848,-0.033995252,-0.11126862,-0.053859096,0.034064986,-0.17738768,0.046435807,0.042981483,0.06532945,0.06531226,0.016233578,-0.059065085,-0.041072287,-0.090926416,-0.16738471,0.011226417,0.024869801,-0.09439054,0.16971782,-2.0,0.088085726,2.0,2.0,1.4259795,-2.0,-1.6618987,-2.0,-2.0,2.0,-2.0,2.0,-2.0,0.65869963,2.0,2.0,0.6934709,-2.0,-0.61294633,-2.0,-2.0,2.0,-1.8836818,2.0
2025-06-05 11:15:17.046,0.021751339,0.009358922,0.046546996,-0.016122501,0.037512675,-0.04950141,0.0,0.0,0.0,-0.0001988194,-0.048910264,0.071385324,0.11075529,0.03175637,0.016227374,-0.08392615,-0.037505936,-0.1585439,-0.02502116,0.055810887,-0.21766697,0.091101214,-0.018104203,0.041983347,0.110599995,0.018532762,0.012840614,-0.0081364615,-0.06654171,-0.16423026,0.13332777,0.030429946,-0.0460219,0.14760669,-2.0,0.65869963,2.0,2.0,0.6934709,-2.0,-0.61294633,-2.0,-2.0,2.0,-1.8836818,2.0,-2.0,1.1005331,2.0,2.0,1.5981652,-2.0,2.0,-2.0,-2.0,2.0,-1.9097085,2.0
2025-06-05 11:15:17.064,0.0084675355,0.01685847,-0.08943171,0.00051111385,-0.03409736,-0.028970392,0.0,0.0,0.0,-0.00029351434,-0.048370223,0.11258093,0.14391057,0.05256296,0.015066453,-0.07213553,-0.031042129,-0.17797714,0.0021886337,0.059152525,-0.26570624,0.10743588,0.04943716,0.062325496,0.00104061,-0.019297056,-0.02289597,0.087494634,0.04488747,-0.010481571,0.06482126,-0.026368752,-0.121903054,0.075228594,-2.0,1.1005331,2.0,2.0,1.5981652,-2.0,2.0,-2.0,-2.0,2.0,-1.9097085,2.0,-2.0,2.0,0.74861604,2.0,-0.9136661,-2.0,2.0,-0.35080683,-2.0,2.0,-1.8116543,2.0
2025-06-05 11:15:17.084,-0.102892004,0.13663922,0.110349484,0.01427357,-0.00658354,0.031008217,0.0,0.0,0.0,0.00013493793,-0.04533036,0.17739765,0.1431938,0.067326054,-0.00017789075,-0.049586058,-0.010601728,-0.19400683,0.014378145,0.05593804,-0.2992436,0.14194229,0.037907325,0.12707354,0.048084393,0.07914232,-0.0012686786,0.087977305,0.020738522,0.07984251,0.06992332,0.07606476,-0.06234563,0.005022071,-2.0,2.0,0.74861604,2.0,-0.9136661,-2.0,2.0,-0.35080683,-2.0,2.0,-1.8116543,2.0,-2.0,2.0,-1.213438,2.0,1.2067019,-2.0,2.0,-1.3743979,-2.0,2.0,-1.1797585,2.0
2025-06-05 11:15:17.104,0.039231163,0.020733254,0.028780188,0.0014888573,-0.0016126788,0.04138838,0.0,0.0,0.0,-0.001130844,-0.064087205,0.21643014,0.10038548,0.076223984,-0.0018710735,-0.05646722,-0.0016619738,-0.18626171,-0.002142841,0.06172178,-0.2864517,0.16655754,0.04969404,0.10503937,-0.14391774,0.016058534,0.056841318,-0.031122722,-0.0054531726,-0.074590534,0.02245763,0.07204451,0.009134973,0.0036652088,-2.0,2.0,-1.213438,2.0,1.2067019,-2.0,2.0,-1.3743979,-2.0,2.0,-1.1797585,2.0,-2.0,2.0,-2.0,2.0,1.4731096,-2.0,2.0,-2.0,-2.0,2.0,-2.0,-1.9883368
2025-06-05 11:15:17.124,0.105478875,-0.03182509,-0.079367414,-0.018250844,0.02027549,-0.011454769,0.0,0.0,0.0,-0.0021800676,-0.073702395,0.27826637,0.036624417,0.08389682,0.0061958414,-0.0873218,-0.0008902398,-0.19664489,0.012171111,0.07523398,-0.31812862,0.094229,0.020796515,0.093428,-0.2193881,0.06373699,0.04705407,-0.025307925,0.09665018,-0.10092508,0.052825537,-0.042940438,-0.011968417,-0.15821563,-2.0,2.0,-2.0,2.0,1.4731096,-2.0,2.0,-2.0,-2.0,2.0,-2.0,-1.9883368,-2.0,2.0,-2.0,2.0,0.23043293,-2.0,2.0,-2.0,-2.0,-2.0,-2.0,-2.0
2025-06-05 11:15:17.146,0.06354866,0.019062497,-0.05836773,-0.074944876,-0.044063803,-0.032802936,0.0,0.0,0.0,-0.0014283875,-0.059719544,0.3002762,-0.027152833,0.0977498,0.02817219,-0.09089197,0.010371065,-0.21927358,0.013302577,0.037067838,-0.33708572,0.043702655,0.020141896,0.08291278,-0.18158361,0.02530998,-0.057147972,0.026231661,0.013441793,-0.11412053,-0.0057249363,-0.044462405,-0.13042507,-0.117216386,-2.0,2.0,-2.0,2.0,0.23043293,-2.0,2.0,-2.0,-2.0,-2.0,-2.0,-2.0,-2.0,2.0,-2.0,2.0,0.5523691,-1.8891733,2.0,-2.0,-2.0,-2.0,-2.0,-2.0
2025-06-05 11:15:17.164,0.038815033,-0.008316628,-0.08791543,0.0035823202,0.046654113,-0.035502713,0.0,0.0,0.0,0.0001250295,-0.07086356,0.34125808,-0.06633219,0.09587179,0.01946647,-0.115238056,0.03550656,-0.2538963,0.012181151,0.0070358594,-0.3579794,-0.025964117,-0.026535612,0.0036057418,-0.09036426,-0.039253764,-0.049488828,0.02417521,0.08694473,-0.005262186,-0.00072037644,-0.061964124,-0.03129333,-0.07059803,-2.0,2.0,-2.0,2.0,0.5523691,-1.8891733,2.0,-2.0,-2.0,-2.0,-2.0,-2.0,-2.0,2.0,-2.0,2.0,0.55383134,-2.0,2.0,-2.0,-2.0,-2.0,-2.0,-2.0
2025-06-05 11:15:17.185,0.015235464,-0.056514744,-0.123699114,-0.050824456,0.008079347,-0.023551473,0.0,0.0,0.0,0.0020377655,-0.08054844,0.3570688,-0.103648625,0.106034935,0.02991707,-0.119762085,0.04603881,-0.27618343,0.02058758,-0.0037079526,-0.3768889,-0.053795733,-0.024876932,0.073952414,-0.103933,0.051626388,-0.014513015,-0.03733479,0.06984687,-0.06240516,0.0454016,-0.044355307,-0.024800126,-0.108487815,-2.0,2.0,-2.0,2.0,0.55383134,-2.0,2.0,-2.0,-2.0,-2.0,-2.0,-2.0,-2.0,2.0,-2.0,2.0,0.00942158,-2.0,2.0,-1.6527754,-2.0,-2.0,-2.0,-2.0
2025-06-05 11:15:17.205,-0.018003669,-0.0396607,-0.0058577666,-0.07200745,-0.019862542,-0.0056087784,0.0,0.0,0.0,0.004102298,-0.08736994,0.39144194,-0.11793727,0.10692429,0.019027807,-0.11746523,0.060888786,-0.28614563,0.013457702,-0.022864427,-0.40031296,-0.08667705,0.04404257,0.08273264,-0.015569868,-0.003876549,-0.027302617,-0.02964114,0.0036340246,-0.001152965,-0.064777896,0.00907307,0.032187738,-0.045270856,-2.0,2.0,-2.0,2.0,0.00942158,-2.0,2.0,-1.6527754,-2.0,-2.0,-2.0,-2.0,-2.0,2.0,-2.0,2.0,1.3634912,-2.0,2.0,-2.0,-2.0,-2.0,-2.0,-2.0
2025-06-05 11:15:17.224,-0.003377088,-0.20438275,-0.060286082,-0.03416501,0.031125909,0.002597158,0.0,0.0,0.0,0.005454497,-0.087824985,0.40084574,-0.15780075,0.11446486,0.030358158,-0.12627982,0.061432973,-0.30459228,0.02185328,-0.03684422,-0.4150613,-0.1140906,0.011688552,0.0031862191,0.03389194,-0.025236221,0.0031455597,-0.09681678,0.04011574,-0.061058886,-0.022185408,0.024983928,-0.013771741,-0.101354,-2.0,2.0,-2.0,2.0,1.3634912,-2.0,2.0,-2.0,-2.0,-2.0,-2.0,-2.0,-2.0,2.0,-2.0,2.0,1.1263632,-2.0,2.0,-2.0,-2.0,-2.0,-2.0,-2.0
2025-06-05 11:15:17.246,-0.0652984,-0.09441963,-0.13285288,-0.035228256,0.009756029,-0.04003983,0.0,0.0,0.0,0.006798345,-0.08670281,0.3987726,-0.16080369,0.11846891,0.03011076,-0.13724642,0.075218454,-0.3072552,0.014640287,-0.05600032,-0.41179505,-0.14192507,0.025806831,0.047083344,0.03436801,0.051584736,-0.030538999,0.015738953,-0.03400554,0.021341808,0.010222491,0.002716739,-0.029588073,-0.018389886,-2.0,2.0,-2.0,2.0,1.1263632,-2.0,2.0,-2.0,-2.0,-2.0,-2.0,-2.0,-2.0,2.0,-2.0,2.0,-0.09546048,-2.0,2.0,-1.2290394,-2.0,-2.0,-2.0,-2.0
2025-06-05 11:15:17.265,-0.019858167,0.03700773,-0.03332489,-0.07369239,0.033867795,-0.00035352536,0.0,0.0,0.0,0.008526302,-0.082588606,0.39630044,-0.14709161,0.12211124,0.038545057,-0.14873204,0.085611604,-0.31430617,0.0026366408,-0.07075591,-0.42122713,-0.16673614,0.010571363,-0.043141674,0.023590352,0.08899068,-0.062290035,0.038518675,0.026806954,0.061309032,-0.05703516,-0.018938791,-0.049362265,-0.11503067,-2.0,2.0,-2.0,2.0,-0.09546048,-2.0,2.0,-1.2290394,-2.0,-2.0,-2.0,-2.0,-2.0,2.0,-2.0,2.0,0.7405646,-2.0,2.0,-1.7467794,-2.0,-2.0,-2.0,-2.0
2025-06-05 11:15:17.285,-0.0057980116,-0.0432921,-0.066836394,-0.026470747,0.032425933,0.0335093,0.0,0.0,0.0,0.009536935,-0.086008474,0.41226134,-0.16392092,0.11470149,0.036562875,-0.16431876,0.09702393,-0.3206105,-0.021955494,-0.07546354,-0.44095218,-0.18274345,0.0116132535,0.029812463,-0.033721574,-0.006454042,-0.0036640856,0.019978788,-0.0412805,-0.01679113,0.01737743,0.00077303307,-0.04810655,-0.0016466222,-2.0,2.0,-2.0,2.0,0.7405646,-2.0,2.0,-1.7467794,-2.0,-2.0,-2.0,-2.0,-2.0,2.0,-2.0,2.0,0.72956175,-2.0,2.0,-2.0,-2.0,-2.0,-2.0,-2.0
2025-06-05 11:15:17.305,0.013751596,-0.010429282,-0.023833383,-0.022406038,0.004102681,-0.046328384,0.0,0.0,0.0,0.010440711,-0.08754144,0.4047266,-0.15702425,0.11568136,0.037396055,-0.16867676,0.09929318,-0.33409405,-0.015144505,-0.08675723,-0.44287932,-0.1966309,0.008921973,-0.014674045,0.007030048,-0.034110844,-0.02977806,0.034507304,-0.0578065,-0.10409008,-0.060304217,-0.088266715,-0.088898286,-0.026407596,-2.0,2.0,-2.0,2.0,0.72956175,-2.0,2.0,-2.0,-2.0,-2.0,-2.0,-2.0,-2.0,2.0,-2.0,2.0,1.3437425,-2.0,2.0,-2.0,-2.0,-2.0,-2.0,-2.0
2025-06-05 11:15:17.328,0.008986384,-0.051198464,-0.11447784,-0.008899376,0.03982144,-0.004905621,0.0,0.0,0.0,0.011645936,-0.10283463,0.41187197,-0.16646504,0.1104869,0.04180675,-0.18918301,0.11444682,-0.33207688,-0.03564692,-0.08191445,-0.45112616,-0.20046744,-0.037701715,0.06436735,-0.020957226,0.028051065,0.011123805,-0.041116614,-0.056383424,-0.033343468,-0.03592306,-0.0888467,-0.051463537,0.020939995,-2.0,2.0,-2.0,2.0,1.3437425,-2.0,2.0,-2.0,-2.0,-2.0,-2.0,-2.0,-2.0,2.0,-2.0,2.0,0.5486524,-2.0,2.0,-1.8990059,-2.0,-2.0,-2.0,-2.0
2025-06-05 11:15:17.346,0.028067287,0.046911642,-0.060008932,-0.038074072,0.06144312,0.0019699263,0.0,0.0,0.0,0.013301339,-0.09114676,0.40035164,-0.18912052,0.12639244,0.0477133,-0.19014017,0.11163715,-0.342935,-0.044719707,-0.099345304,-0.4461426,-0.21849503,0.029248696,0.01772754,-0.041783664,-0.0049050953,0.0071130083,0.0379969,-0.032580554,0.04724217,0.020606555,-0.055497114,6.47295e-05,-0.087059066,-2.0,2.0,-2.0,2.0,0.5486524,-2.0,2.0,-1.8990059,-2.0,-2.0,-2.0,-2.0,-2.0,2.0,-2.0,2.0,0.8719604,-2.0,2.0,-2.0,-2.0,-2.0,-2.0,-2.0
2025-06-05 11:15:17.365,-0.017287565,0.029944703,-0.07532685,-0.073229276,0.036061678,0.035968706,0.0,0.0,0.0,0.014808043,-0.09997146,0.4171363,-0.19239832,0.11425459,0.055632345,-0.19816421,0.126893,-0.36485162,-0.05223385,-0.09022278,-0.45345044,-0.23742647,0.03874474,-0.037868,0.006893189,0.065502584,-0.04309391,-0.01072644,-0.0029843678,-0.043000642,0.046828352,0.03245081,0.046324946,-0.056365285,-2.0,2.0,-2.0,2.0,0.8719604,-2.0,2.0,-2.0,-2.0,-2.0,-2.0,-2.0,-2.0,2.0,-2.0,2.0,1.0839115,-2.0,2.0,-2.0,-2.0,-2.0,-2.0,-2.0
2025-06-05 11:15:17.385,-0.030357143,-0.04798615,-0.014780345,-0.038033776,-0.0171661,0.027313398,0.0,0.0,0.0,0.016012298,-0.10859665,0.40407234,-0.19629842,0.11468131,0.053784065,-0.18209997,0.12489651,-0.35931048,-0.041433502,-0.10490658,-0.46102747,-0.22941807,-0.0060696015,0.065018445,-0.030366404,0.00796958,-0.061429594,-0.031425387,0.035660326,0.0019287026,-0.016799042,-0.014643504,0.0035892744,0.039620303,-2.0,2.0,-2.0,2.0,1.0839115,-2.0,2.0,-2.0,-2.0,-2.0,-2.0,-2.0,-2.0,2.0,-2.0,2.0,1.7118982,-2.0,2.0,-2.0,-2.0,-2.0,-2.0,-2.0
2025-06-05 11:15:17.404,0.00033838104,-0.08387904,-0.08921447,-0.033849824,-0.00028976685,-0.03777233,0.0,0.0,0.0,0.017064186,-0.11088905,0.42539218,-0.19511221,0.1245415,0.061760146,-0.19050162,0.12420013,-0.36814594,-0.04070748,-0.10950183,-0.4588151,-0.24745686,0.05680707,0.0062287436,-0.03309,-0.008502647,0.01420914,0.061411522,-0.06554021,0.04919214,0.0011297212,-0.014544217,-0.043179434,-0.046180703,-2.0,2.0,-2.0,2.0,1.7118982,-2.0,2.0,-2.0,-2.0,-2.0,-2.0,-2.0,-2.0,2.0,-2.0,2.0,0.83068204,-2.0,2.0,-2.0,-2.0,-2.0,-2.0,-2.0
2025-06-05 11:15:17.428,0.041494362,0.037648827,-0.04828868,-0.036368806,-0.017980475,-0.013471471,0.0,0.0,0.0,0.018362023,-0.117503054,0.41344184,-0.20025095,0.116766155,0.078728676,-0.20726496,0.13076952,-0.3705461,-0.05662014,-0.11372565,-0.4629165,-0.24484514,0.02045059,0.01328478,0.021724695,0.07505348,-0.03921839,-0.04974661,0.028834935,-0.049726456,-0.06679854,-0.07229505,0.03281504,0.021049911,-2.0,2.0,-2.0,2.0,0.83068204,-2.0,2.0,-2.0,-2.0,-2.0,-2.0,-2.0,-2.0,2.0,-2.0,2.0,1.5590973,-2.0,2.0,-2.0,-2.0,-2.0,-2.0,-2.0
2025-06-05 11:15:17.446,0.012456267,-0.040620644,-0.10697054,-0.07485415,-0.0027293165,-0.016329627,0.0,0.0,0.0,0.01949294,-0.12338532,0.42434675,-0.2020514,0.1145488,0.08675514,-0.19893344,0.12621863,-0.37297627,-0.05252888,-0.10893022,-0.4637184,-0.24448845,-0.07810055,0.01598555,-0.06567415,-0.034520857,-0.0046010516,-0.01224043,0.00069156935,-0.045164254,0.008725109,0.040866934,-0.019396244,0.010574313,-2.0,2.0,-2.0,2.0,1.5590973,-2.0,2.0,-2.0,-2.0,-2.0,-2.0,-2.0,-2.0,2.0,-2.0,2.0,0.8435794,-2.0,2.0,-1.9872799,-2.0,-2.0,-2.0,-2.0
2025-06-05 11:15:17.465,0.04766057,0.02999981,-0.04952806,-0.018689647,0.019783275,-0.025880538,0.0,0.0,0.0,0.02063276,-0.11538196,0.4324492,-0.19739136,0.12986048,0.08606878,-0.1955609,0.14503512,-0.3853731,-0.042052414,-0.11250548,-0.4635322,-0.25473818,0.053043384,0.006666838,-0.019030238,-0.044964105,0.0753826,0.07256051,0.048647754,0.014290309,0.032969296,-0.025035031,0.010982502,-0.07861591,-2.0,2.0,-2.0,2.0,0.8435794,-2.0,2.0,-1.9872799,-2.0,-2.0,-2.0,-2.0,-2.0,2.0,-2.0,2.0,1.3496963,-2.0,2.0,-2.0,-2.0,-2.0,-2.0,-2.0
2025-06-05 11:15:17.486,0.051398586,-0.049268484,-0.04134553,-0.0272007,0.007730433,-0.007845315,0.0,0.0,0.0,0.02153088,-0.13024905,0.44017205,-0.21121576,0.12799674,0.08502685,-0.19275291,0.13605247,-0.397944,-0.03976377,-0.10833317,-0.47274598,-0.24788794,-0.03726482,-0.00806078,0.008753655,0.06486048,0.03898901,0.023923833,0.032315325,-0.06428279,-0.045692928,-0.040016945,0.054353327,-0.018207721,-2.0,2.0,-2.0,2.0,1.3496963,-2.0,2.0,-2.0,-2.0,-2.0,-2.0,-2.0,-2.0,2.0,-2.0,2.0,1.7738202,-2.0,2.0,-2.0,-2.0,-2.0,-2.0,-2.0
2025-06-05 11:15:17.505,0.0002534723,-0.0059151296,-0.081809334,-0.07034622,0.08067307,0.034159884,0.0,0.0,0.0,0.022226967,-0.1210944,0.43773714,-0.20664197,0.117235646,0.10548569,-0.1948846,0.14618397,-0.3943151,-0.037057873,-0.113413535,-0.47136027,-0.24843071,-0.07281604,-0.033699363,-0.021001441,0.05431584,-0.017597867,-0.06738074,-0.05833051,0.011974369,0.0046591945,-0.070095755,0.00039220287,-0.01041806,-2.0,2.0,-2.0,2.0,1.7738202,-2.0,2.0,-2.0,-2.0,-2.0,-2.0,-2.0,-2.0,2.0,-2.0,2.0,1.5333923,-2.0,2.0,-2.0,-2.0,-2.0,-2.0,-2.0
2025-06-05 11:15:17.527,0.018243698,-0.07883489,-0.057946894,-0.042258225,0.0145375,-0.017996399,0.0,0.0,0.0,0.023121659,-0.135138,0.45384425,-0.20788527,0.11914989,0.12003195,-0.2150687,0.13829266,-0.3985579,-0.034280755,-0.12397195,-0.4596614,-0.26299956,0.020147195,-0.025773777,-0.05821241,-0.029801516,-0.016664203,0.033075184,-0.003666011,0.04453331,0.005357289,0.02414771,-0.012683887,-0.06690868,-2.0,2.0,-2.0,2.0,1.5333923,-2.0,2.0,-2.0,-2.0,-2.0,-2.0,-2.0,-2.0,2.0,-2.0,2.0,1.4776961,-2.0,2.0,-2.0,-2.0,-2.0,-2.0,-2.0
2025-06-05 11:15:17.545,-0.0070025506,-0.016444407,-0.07549028,-0.06462063,0.061799884,0.018402342,0.0,0.0,0.0,0.024156403,-0.13259837,0.44559044,-0.20867442,0.13533196,0.13548501,-0.21092385,0.14356144,-0.4006009,-0.036988508,-0.11909771,-0.45786017,-0.2578666,0.06858939,0.047726683,0.024449967,-0.061615605,-0.045491885,0.018839614,-0.059787534,-0.0034442141,-0.059096787,0.016002294,0.066711426,-0.051884178,-2.0,2.0,-2.0,2.0,1.4776961,-2.0,2.0,-2.0,-2.0,-2.0,-2.0,-2.0,-2.0,2.0,-2.0,2.0,1.230145,-2.0,2.0,-2.0,-2.0,-2.0,-2.0,-2.0
2025-06-05 11:15:17.567,-0.009195519,-0.012065993,-0.06355134,-0.014760357,0.015800703,0.008333643,0.0,0.0,0.0,0.025190113,-0.12574263,0.4524682,-0.20885193,0.13577618,0.14070548,-0.20332615,0.14440104,-0.4025464,-0.035120778,-0.1103947,-0.46737874,-0.25846326,-0.030852424,0.015489039,-0.07065808,0.07363872,0.028288877,0.04023241,-0.012361266,0.04790498,0.05155266,0.005733152,-0.0016398474,-0.053611323,-2.0,2.0,-2.0,2.0,1.230145,-2.0,2.0,-2.0,-2.0,-2.0,-2.0,-2.0,-2.0,2.0,-2.0,2.0,1.4226822,-2.0,2.0,-2.0,-2.0,-2.0,-2.0,-2.0
2025-06-05 11:15:17.586,0.04882823,-0.034920935,-0.071471594,0.006746434,0.08104168,-0.047356527,0.0,0.0,0.0,0.026034718,-0.13022164,0.4659437,-0.1969512,0.12552924,0.1577805,-0.20820995,0.15413366,-0.4054822,-0.03511669,-0.117615394,-0.45911127,-0.2676144,-0.07007765,0.019054133,-0.0474036,-0.013125961,0.014454109,-3.7076109e-06,-0.027947346,0.06220839,-0.011920775,0.01866896,-0.040648486,0.06758388,-2.0,2.0,-2.0,2.0,1.4226822,-2.0,2.0,-2.0,-2.0,-2.0,-2.0,-2.0,-2.0,2.0,-2.0,2.0,1.6169943,-2.0,2.0,-2.0,-2.0,-2.0,-2.0,-2.0
2025-06-05 11:15:17.606,0.015874969,-0.062594436,-0.0025906505,0.0063399244,-0.00092448556,-0.025620865,0.0,0.0,0.0,0.026754374,-0.13430612,0.46963337,-0.21036181,0.12561336,0.16215259,-0.20721845,0.1444125,-0.40815544,-0.03109285,-0.119120955,-0.4681082,-0.2570883,0.032677155,-0.023544274,-0.06152031,0.028355751,-0.040751938,-0.04788295,-0.051858276,0.026171943,0.059063043,-0.027536627,-0.040654678,0.061279554,-2.0,2.0,-2.0,2.0,1.6169943,-2.0,2.0,-2.0,-2.0,-2.0,-2.0,-2.0,-2.0,2.0,-2.0,2.0,2.0,-2.0,2.0,-2.0,-2.0,-2.0,-2.0,-2.0
2025-06-05 11:15:17.629,0.010263135,-0.05072594,-0.09933447,0.0020561332,0.050981585,0.03817497,0.0,0.0,0.0,0.027534282,-0.14310503,0.46449485,-0.21503143,0.12663215,0.172164,-0.20417713,0.15673989,-0.39493093,-0.033401843,-0.11086339,-0.4725022,-0.27119985,0.005783172,0.07956057,-0.020460488,0.043825228,0.021473978,0.037092105,-0.005843949,-0.06392071,-0.05296721,-0.06798133,-0.034859147,-0.057828754,-2.0,2.0,-2.0,2.0,2.0,-2.0,2.0,-2.0,-2.0,-2.0,-2.0,-2.0,-2.0,2.0,-2.0,2.0,1.0683514,-2.0,2.0,-2.0,-2.0,-2.0,-2.0,-2.0
2025-06-05 11:15:17.646,-0.035326783,0.007838974,0.0042731967,0.0037669442,-0.0024708062,0.0102563035,0.0,0.0,0.0,0.028544538,-0.14474955,0.47937238,-0.20109949,0.13297383,0.18763907,-0.20175552,0.16242588,-0.40491107,-0.016537497,-0.1205232,-0.47426954,-0.26093894,-0.054113623,0.06793926,0.027390126,0.046635203,0.016615475,-0.003074682,-0.005088311,-0.02390987,0.05555138,-0.0584067,-0.022513263,-0.01022499,-2.0,2.0,-2.0,2.0,1.0683514,-2.0,2.0,-2.0,-2.0,-2.0,-2.0,-2.0,-2.0,2.0,-2.0,2.0,2.0,-2.0,2.0,-2.0,-2.0,-2.0,-2.0,-2.0
2025-06-05 11:15:17.665,-0.048430145,0.001603652,-0.0037870144,-0.040469814,0.008819084,0.018938387,0.0,0.0,0.0,0.029181086,-0.14728025,0.48069352,-0.19794828,0.13382484,0.19939478,-0.20405626,0.15218341,-0.40048394,-0.031223482,-0.1245437,-0.47690412,-0.25405657,0.031625967,0.02430435,-0.034916632,0.015015917,0.023774795,0.04342734,-0.038834758,-0.066158496,-0.035289265,-0.052994527,-0.057099126,0.056276944,-2.0,2.0,-2.0,2.0,2.0,-2.0,2.0,-2.0,-2.0,-2.0,-2.0,-2.0,-2.0,2.0,-2.0,2.0,2.0,-2.0,2.0,-2.0,-2.0,-2.0,-2.0,-2.0
2025-06-05 11:15:17.686,0.007781892,-0.054440953,-0.08263291,-0.047776766,0.09368855,-0.02213416,0.0,0.0,0.0,0.02979521,-0.14765406,0.48021317,-0.21043567,0.13060144,0.20653112,-0.19743857,0.1549015,-0.40573174,-0.025892083,-0.11910519,-0.47641173,-0.26587003,0.044171546,-0.007858666,0.043631945,0.06208403,0.007328656,-0.05865939,0.036613327,0.045348633,0.03569744,-0.06590516,-0.043180536,-0.06494204,-2.0,2.0,-2.0,2.0,2.0,-2.0,2.0,-2.0,-2.0,-2.0,-2.0,-2.0,-2.0,2.0,-2.0,2.0,1.5341958,-2.0,2.0,-2.0,-2.0,-2.0,-2.0,-2.0
2025-06-05 11:15:17.705,-0.06511645,-0.025783664,-0.05766362,0.0109812915,0.06085886,-0.0062296246,0.0,0.0,0.0,0.030552108,-0.15019241,0.49105385,-0.21281995,0.14416029,0.23104191,-0.21150857,0.1555517,-0.3968949,-0.020098347,-0.10997353,-0.4601259,-0.25771728,-0.03949107,0.07898045,0.005024263,0.040354762,0.09308111,-0.077588774,-0.0058683627,-0.037633885,0.06058294,-0.06556786,0.062303815,-0.03357269,-2.0,2.0,-2.0,2.0,1.5341958,-2.0,2.0,-2.0,-2.0,-2.0,-2.0,-2.0,-2.0,2.0,-2.0,2.0,1.9635605,-2.0,2.0,-2.0,-2.0,-2.0,-2.0,-2.0
2025-06-05 11:15:17.725,-0.0210115,-0.0015460807,-0.06277636,-0.007649815,0.059160847,-0.018212872,0.0,0.0,0.0,0.03115647,-0.1444825,0.4900877,-0.19759677,0.13672757,0.24382496,-0.21149668,0.1647686,-0.39241776,-0.01943485,-0.115658715,-0.4672224,-0.2597184,-0.05655637,0.03875474,0.07230054,0.00089643535,0.001834409,-0.0112464735,0.007813961,0.053852737,0.060229503,0.04888934,-0.024576643,-0.07016502,-2.0,2.0,-2.0,2.0,1.9635605,-2.0,2.0,-2.0,-2.0,-2.0,-2.0,-2.0,-2.0,2.0,-2.0,2.0,1.633442,-2.0,2.0,-2.0,-2.0,-2.0,-2.0,-2.0
2025-06-05 11:15:17.745,0.009506416,0.037652824,-0.06323076,-0.037280288,0.07619117,0.023532659,0.0,0.0,0.0,0.031862207,-0.14471212,0.47446862,-0.20287214,0.14741425,0.2544504,-0.21617754,0.16029848,-0.3955529,-0.011487742,-0.12747072,-0.47524756,-0.2670716,0.072566114,0.06984716,-3.226873e-05,0.020364972,-0.056110788,-0.068150796,-0.022697119,-0.053942513,-0.022407908,0.031597707,0.0016065572,-0.02326523,-2.0,2.0,-2.0,2.0,1.633442,-2.0,2.0,-2.0,-2.0,-2.0,-2.0,-2.0,-2.0,2.0,-2.0,2.0,1.6682663,-2.0,2.0,-2.0,-2.0,-2.0,-2.0,-2.0
2025-06-05 11:15:17.768,0.02922901,0.04689055,-0.026660904,-0.067800984,0.006436158,-0.047081824,0.0,0.0,0.0,0.032507326,-0.14182709,0.47988638,-0.1952879,0.15384752,0.2585226,-0.20964618,0.1713685,-0.3940398,-0.004276629,-0.12634659,-0.4740392,-0.25577337,0.06473038,0.04042894,-0.033826742,-0.0021802182,-0.04847445,0.06282079,-0.0027978793,-0.036360204,0.07303741,-0.026855323,0.049257547,-0.020670848,-2.0,2.0,-2.0,2.0,1.6682663,-2.0,2.0,-2.0,-2.0,-2.0,-2.0,-2.0,-2.0,2.0,-2.0,2.0,1.9767953,-2.0,2.0,-2.0,-2.0,-2.0,-2.0,-2.0
2025-06-05 11:15:17.789,-0.006215263,-0.0012685171,-0.017399,-0.039067864,0.004478373,0.017466823,0.0,0.0,0.0,0.033054315,-0.1584119,0.49371457,-0.20274377,0.1394087,0.26239884,-0.20625985,0.15539731,-0.39051634,-0.017386159,-0.11809833,-0.4778074,-0.27091387,-0.036842145,0.052169092,0.037726633,0.009810404,0.011388487,-0.02324381,-0.058733437,0.010260468,-0.05528192,-0.052882496,0.075262144,0.033774544,-2.0,2.0,-2.0,2.0,1.9767953,-2.0,2.0,-2.0,-2.0,-2.0,-2.0,-2.0,-2.0,2.0,-2.0,2.0,2.0,-2.0,2.0,-2.0,-2.0,-2.0,-2.0,-2.0
2025-06-05 11:15:17.806,0.03478782,0.032051925,-0.0094914315,-0.018569227,0.055212323,0.04521125,0.0,0.0,0.0,0.03368955,-0.16106184,0.47643343,-0.20398104,0.1448567,0.27494496,-0.19893898,0.15995465,-0.40119976,-0.019877432,-0.12506583,-0.46170533,-0.2649866,-0.00011423348,-0.0039215977,-0.073998,0.025301456,-0.03109545,-0.0050743525,0.045038264,0.05147084,-0.015196538,-0.013160296,0.010587344,0.027262544,-2.0,2.0,-2.0,2.0,2.0,-2.0,2.0,-2.0,-2.0,-2.0,-2.0,-2.0,-2.0,2.0,-2.0,2.0,2.0,-2.0,2.0,-2.0,-2.0,-2.0,-2.0,-2.0
2025-06-05 11:15:17.828,-0.013905472,0.036873296,-0.01942229,-0.021653663,0.040944867,-0.018059105,0.0,0.0,0.0,0.03438476,-0.15159316,0.4874094,-0.21507455,0.1550682,0.27538338,-0.20589387,0.1720494,-0.40665704,-0.013395205,-0.11660867,-0.46307033,-0.262341,-0.04163891,-0.064285345,-0.019975921,-0.025314435,0.07025925,0.006257371,0.05423176,-0.0045926254,0.0342366,-0.06575265,-0.0117212515,0.06978311,-2.0,2.0,-2.0,2.0,2.0,-2.0,2.0,-2.0,-2.0,-2.0,-2.0,-2.0,-2.0,2.0,-2.0,2.0,2.0,-2.0,2.0,-2.0,-2.0,-2.0,-2.0,-2.0
2025-06-05 11:15:17.846,0.008437065,0.038697638,0.0009996408,-0.065011725,0.0097900415,-0.004054854,0.0,0.0,0.0,0.03508629,-0.1602347,0.49414447,-0.20316942,0.14697523,0.2928169,-0.19238682,0.16497229,-0.39235777,-0.012512233,-0.124151155,-0.4749753,-0.2605158,0.029921338,0.053405073,-0.04615281,-0.004079357,-0.0029311904,0.064560644,-0.051733714,0.000997509,0.050405502,0.018428167,0.06902492,0.05609178,-2.0,2.0,-2.0,2.0,2.0,-2.0,2.0,-2.0,-2.0,-2.0,-2.0,-2.0,-2.0,2.0,-2.0,2.0,2.0,-2.0,2.0,-2.0,-2.0,-2.0,-2.0,-2.0
2025-06-05 11:15:17.867,-0.031383187,0.0762845,-0.03367503,0.005051362,-0.005115996,0.01128388,0.0,0.0,0.0,0.035781715,-0.16625735,0.4822251,-0.20091592,0.16163284,0.28279105,-0.19439508,0.15552971,-0.3909423,-0.0077529727,-0.12448087,-0.46322703,-0.26057878,-0.06616114,-0.025266439,-0.049686607,0.07002148,-0.02241636,-0.04817691,-0.028922273,-0.04024967,-0.059543718,0.025007166,-0.07137561,0.023847071,-2.0,2.0,-2.0,2.0,2.0,-2.0,2.0,-2.0,-2.0,-2.0,-2.0,-2.0,-2.0,2.0,-2.0,2.0,2.0,-2.0,2.0,-2.0,-2.0,-2.0,-2.0,-2.0
2025-06-05 11:15:17.887,-0.057677172,0.0048365807,-0.004639776,-0.02078223,0.027616126,0.020819997,0.0,0.0,0.0,0.036454797,-0.15532106,0.47997612,-0.2081234,0.15701936,0.2933241,-0.20319103,0.15310143,-0.39822385,-0.017971091,-0.12948881,-0.4685811,-0.26065597,-0.015659016,0.03259853,0.04326991,-0.04747716,-0.048248343,-0.010360252,0.057327013,0.034313627,0.07215479,0.060471743,-0.0083446,-0.06354864,-2.0,2.0,-2.0,2.0,2.0,-2.0,2.0,-2.0,-2.0,-2.0,-2.0,-2.0,-2.0,2.0,-2.0,2.0,2.0,-2.0,2.0,-2.0,-2.0,-2.0,-2.0,-2.0
2025-06-05 11:15:17.907,-0.015126162,0.013552371,-0.07348406,-0.0010552895,0.007801749,-0.023029162,0.0,0.0,0.0,0.037091255,-0.1635878,0.48318478,-0.21455875,0.14951363,0.31068236,-0.19485292,0.16794023,-0.40396717,-0.009394403,-0.112103514,-0.46072325,-0.26043934,-0.06356749,-0.03990547,-0.019919317,-0.059862677,-0.017002583,0.069681585,-0.027237903,0.044436973,-0.009306765,-0.017392525,0.03478906,-0.012824424,-2.0,2.0,-2.0,2.0,2.0,-2.0,2.0,-2.0,-2.0,-2.0,-2.0,-2.0,-2.0,2.0,-2.0,2.0,2.0,-2.0,2.0,-2.0,-2.0,-2.0,-2.0,-2.0
2025-06-05 11:15:17.928,-0.060966033,-0.0010467499,-0.036081396,-0.045611225,0.052916385,0.04840386,0.0,0.0,0.0,0.03769937,-0.15227427,0.49780107,-0.20692012,0.14340158,0.3056422,-0.1853917,0.16962141,-0.40177265,-0.011663364,-0.12568241,-0.46753737,-0.26570797,0.056130193,0.009835628,0.03977545,0.047148652,0.08392054,0.07629041,-0.014332769,0.034488432,0.05032825,-0.033445295,-0.038443603,-0.06985359,-2.0,2.0,-2.0,2.0,2.0,-2.0,2.0,-2.0,-2.0,-2.0,-2.0,-2.0,-2.0,2.0,-2.0,2.0,2.0,-2.0,2.0,-2.0,-2.0,-2.0,-2.0,-2.0
2025-06-05 11:15:17.947,0.02857704,0.044478446,0.01999428,0.0015327818,0.043204,0.0014127296,0.0,0.0,0.0,0.03829513,-0.1524262,0.48857716,-0.2179892,0.14833501,0.31060138,-0.18528223,0.1548265,-0.4053312,-0.014683899,-0.113550596,-0.46943668,-0.26863435,-0.021411465,0.054909047,0.0037636638,-0.038860705,0.018488113,0.046723936,-0.055010118,-0.033157937,-0.032902084,0.016378773,-0.065913625,0.042806987,-2.0,2.0,-2.0,2.0,2.0,-2.0,2.0,-2.0,-2.0,-2.0,-2.0,-2.0,-2.0,2.0,-2.0,2.0,2.0,-2.0,2.0,-2.0,-2.0,-2.0,-2.0,-2.0
2025-06-05 11:15:17.968,0.015941434,-0.00012228901,-0.013174633,-0.0144717395,0.06417253,0.045321003,0.0,0.0,0.0,0.03884215,-0.15915652,0.4950976,-0.21474881,0.15459587,0.31544927,-0.17966461,0.16737984,-0.41328165,-0.011455404,-0.11043007,-0.47322506,-0.26002616,-0.04439156,0.026287546,0.03082064,-0.054574843,0.0040316125,-0.047366936,0.070774585,-0.067057654,0.07269201,0.06682976,0.022217613,0.03251625,-2.0,2.0,-2.0,2.0,2.0,-2.0,2.0,-2.0,-2.0,-2.0,-2.0,-2.0,-2.0,2.0,-2.0,2.0,2.0,-2.0,2.0,-2.0,-2.0,-2.0,-2.0,-2.0
2025-06-05 11:15:17.987,-0.039269928,-0.029222783,-0.031048002,-0.03858873,0.026253715,0.028114662,0.0,0.0,0.0,0.039241504,-0.16257806,0.4988329,-0.22059502,0.15972409,0.32981518,-0.19347574,0.1595875,-0.41386238,-0.004110985,-0.12340029,-0.45945913,-0.2610037,0.038895525,0.04528003,-0.06650058,-0.022266388,0.042613316,0.052523468,0.012043649,0.05600552,0.063368194,0.060351204,-0.067299165,0.010635533,-2.0,2.0,-2.0,2.0,2.0,-2.0,2.0,-2.0,-2.0,-2.0,-2.0,-2.0,-2.0,2.0,-2.0,2.0,2.0,-2.0,2.0,-2.0,-2.0,-2.0,-2.0,-2.0
2025-06-05 11:15:18.007,-0.029290218,0.010649581,-0.03617749,-0.025077702,0.06149854,-0.016927011,0.0,0.0,0.0,0.039487503,-0.15813014,0.48480636,-0.2043439,0.14948498,0.3318205,-0.19424617,0.14606823,-0.4065698,-0.008211182,-0.10500605,-0.47094357,-0.26867732,0.04419586,0.03916186,-0.025104301,-0.017866895,0.043154303,-0.027055535,-0.07043418,-0.015210542,0.024484562,-0.053915102,0.023717003,-0.03984432,-2.0,2.0,-2.0,2.0,2.0,-2.0,2.0,-2.0,-2.0,-2.0,-2.0,-2.0,-2.0,2.0,-2.0,2.0,2.0,-2.0,2.0,-2.0,-2.0,-2.0,-2.0,-2.0
2025-06-05 11:15:18.029,-0.0027508365,-0.04175619,0.014714673,-0.06202443,-0.0004483278,-0.0340663,0.0,0.0,0.0,0.03960547,-0.16007484,0.49387372,-0.22243777,0.15660328,0.3340655,-0.18386129,0.14989872,-0.3982444,-0.00808476,-0.11379719,-0.4725974,-0.24871388,-0.0401887,-0.044784922,0.019978391,-0.0266202,0.034957804,-0.036804408,0.056848016,0.009903291,0.05792583,-0.054526128,0.05013167,0.01351698,-2.0,2.0,-2.0,2.0,2.0,-2.0,2.0,-2.0,-2.0,-2.0,-2.0,-2.0,-2.0,2.0,-2.0,2.0,2.0,-2.0,2.0,-2.0,-2.0,-2.0,-2.0,-2.0
2025-06-05 11:15:18.048,-0.045182075,-0.010755405,-0.002776705,-0.044024993,0.043864056,-0.047690067,0.0,0.0,0.0,0.03963246,-0.16923082,0.48940668,-0.22073245,0.14738847,0.32852143,-0.19091946,0.15663823,-0.40168214,-0.009817579,-0.108490355,-0.47341472,-0.2507404,0.04397756,0.04328426,-7.088377e-05,-0.06649201,0.054039855,-0.052891914,-0.06468418,-0.07504294,0.064134434,0.0004080679,-0.0412496,-0.03209917,-2.0,2.0,-2.0,2.0,2.0,-2.0,2.0,-2.0,-2.0,-2.0,-2.0,-2.0,-2.0,2.0,-2.0,2.0,2.0,-2.0,2.0,-2.0,-2.0,-2.0,-2.0,-2.0
2025-06-05 11:15:18.067,0.0053800396,0.050721783,0.0017935061,-0.06572505,0.018638788,-0.0010236602,0.0,0.0,0.0,0.039607003,-0.16882166,0.48973104,-0.20556138,0.14602397,0.34484378,-0.1939062,0.14642215,-0.4124825,-0.013072364,-0.10230491,-0.4712658,-0.2564528,0.003465566,-0.018838566,-0.0008365535,0.051646136,0.03266013,0.06943922,-0.052540563,-0.0125389,0.020568691,0.011701595,0.0061424314,0.07473656,-2.0,2.0,-2.0,2.0,2.0,-2.0,2.0,-2.0,-2.0,-2.0,-2.0,-2.0,-2.0,2.0,-2.0,2.0,2.0,-2.0,2.0,-2.0,-2.0,-2.0,-2.0,-2.0
2025-06-05 11:15:18.089,0.002338864,0.034076393,0.03822497,-0.06497227,0.0073897424,-0.03463722,0.0,0.0,0.0,0.039558113,-0.1649862,0.49562135,-0.21279268,0.14248392,0.34319693,-0.17992632,0.1507142,-0.40037942,-0.024494695,-0.11863464,-0.46304864,-0.26591614,-0.030348184,-0.022876343,-0.042715788,0.047447626,-0.022364294,0.029995738,0.05711127,-0.027409274,0.0671143,-0.06488333,-0.0152587695,-0.056989886,-2.0,2.0,-2.0,2.0,2.0,-2.0,2.0,-2.0,-2.0,-2.0,-2.0,-2.0,-2.0,2.0,-2.0,2.0,2.0,-2.0,2.0,-2.0,-2.0,-2.0,-2.0,-2.0
2025-06-05 11:15:18.107,-0.018633261,-0.03339372,0.013422441,-0.036380965,0.06650967,-0.0067024897,0.0,0.0,0.0,0.03949995,-0.16306779,0.48515126,-0.20787914,0.14786883,0.34626105,-0.17723139,0.14585163,-0.40537733,-0.014176597,-0.118632235,-0.46472827,-0.26233456,0.059326187,0.02850418,-0.05208417,-0.056299902,0.060518,0.050446898,-0.032090236,-0.06363686,-0.012819563,0.07126777,-0.0010365536,0.03188359,-2.0,2.0,-2.0,2.0,2.0,-2.0,2.0,-2.0,-2.0,-2.0,-2.0,-2.0,-2.0,2.0,-2.0,2.0,2.0,-2.0,2.0,-2.0,-2.0,-2.0,-2.0,-2.0
2025-06-05 11:15:18.128,-0.036929313,-0.0384086,-0.046048462,0.019140277,0.053807486,0.027748864,0.0,0.0,0.0,0.039442725,-0.16424443,0.4972806,-0.20954762,0.14394285,0.34333265,-0.17628497,0.15470527,-0.3964983,-0.022705965,-0.11332883,-0.47862446,-0.2517657,-0.0653775,0.025167128,0.008098359,-0.0064113303,-0.048477035,0.063703634,0.032546043,-0.05375845,-0.04648971,-0.028691404,-0.022337947,-0.023036912,-2.0,2.0,-2.0,2.0,2.0,-2.0,2.0,-2.0,-2.0,-2.0,-2.0,-2.0,-2.0,2.0,-2.0,2.0,2.0,-2.0,2.0,-2.0,-2.0,-2.0,-2.0,-2.0
2025-06-05 11:15:18.147,0.0139095355,0.012266273,-0.04392924,-0.004787196,0.031507336,0.04770543,0.0,0.0,0.0,0.03939583,-0.15012819,0.48344454,-0.21237282,0.14120257,0.3500667,-0.17485648,0.15702832,-0.41416642,-0.0139694605,-0.12012297,-0.47929242,-0.2514491,0.012036522,0.029082676,0.034507398,-0.060152743,-0.0026987924,-0.007863358,0.07178624,0.051334407,-0.023120862,-0.05528235,0.072344996,-0.002565776,-2.0,2.0,-2.0,2.0,2.0,-2.0,2.0,-2.0,-2.0,-2.0,-2.0,-2.0,-2.0,2.0,-2.0,2.0,2.0,-2.0,2.0,-2.0,-2.0,-2.0,-2.0,-2.0
2025-06-05 11:15:18.167,0.0031796915,0.029673235,0.03241604,-0.013182908,-0.001011576,-0.02333459,0.0,0.0,0.0,0.039364588,-0.15772682,0.4785616,-0.20476328,0.13987793,0.3439906,-0.17640787,0.1508294,-0.40206826,-0.013070236,-0.11807586,-0.47549367,-0.25037584,0.068396814,0.06211936,-0.052385587,0.058218595,0.048347294,0.038569134,0.017580919,0.054550763,-0.049264893,-0.0067357295,0.05262912,0.025600018,-2.0,2.0,-2.0,2.0,2.0,-2.0,2.0,-2.0,-2.0,-2.0,-2.0,-2.0,-2.0,2.0,-2.0,2.0,2.0,-2.0,2.0,-2.0,-2.0,-2.0,-2.0,-2.0
2025-06-05 11:15:18.187,-0.00053994736,-0.026644075,0.012643177,-0.018470408,0.010298051,-0.03346647,0.0,0.0,0.0,0.039350882,-0.1493454,0.4861166,-0.20516711,0.15402094,0.34349442,-0.17949416,0.14052027,-0.4062948,-0.025881737,-0.10916654,-0.4705827,-0.25826353,-0.017738247,0.032026276,0.015939867,-0.037124995,0.009228477,0.062850215,0.014030766,-0.059677545,-0.061248112,-0.033701323,-0.02046585,-0.0045745997,-2.0,2.0,-2.0,2.0,2.0,-2.0,2.0,-2.0,-2.0,-2.0,-2.0,-2.0,-2.0,2.0,-2.0,2.0,2.0,-2.0,2.0,-2.0,-2.0,-2.0,-2.0,-2.0
2025-06-05 11:15:18.207,0.018372837,0.04033057,-0.047570314,-0.050997812,-0.0016175696,-0.01592875,0.0,0.0,0.0,0.039354548,-0.1606063,0.48071364,-0.2086738,0.14378412,0.34899378,-0.17726298,0.14814703,-0.40481988,-0.03043025,-0.10977687,-0.48137897,-0.26508716,0.042532075,0.014810322,0.026759023,-0.055574693,-0.051274814,-0.027103437,-0.0059112264,0.06984344,0.018704643,0.007557884,-0.051182024,0.002260248,-2.0,2.0,-2.0,2.0,2.0,-2.0,2.0,-2.0,-2.0,-2.0,-2.0,-2.0,-2.0,2.0,-2.0,2.0,2.0,-2.0,2.0,-2.0,-2.0,-2.0,-2.0,-2.0
2025-06-05 11:15:18.228,-0.0038057545,-0.023112975,0.021961188,0.012579376,0.0142072495,0.023424014,0.0,0.0,0.0,0.03937414,-0.16088088,0.4867583,-0.21394028,0.14235106,0.3480618,-0.17845337,0.14306289,-0.41429594,-0.032114472,-0.114104494,-0.4750383,-0.24910304,-0.027816622,0.005035341,-0.025289241,-0.039206494,-0.0083974255,0.011671014,0.06330241,0.019450625,-0.053677015,0.03328105,0.053839073,0.003415851,-2.0,2.0,-2.0,2.0,2.0,-2.0,2.0,-2.0,-2.0,-2.0,-2.0,-2.0,-2.0,2.0,-2.0,2.0,2.0,-2.0,2.0,-2.0,-2.0,-2.0,-2.0,-2.0
2025-06-05 11:15:18.247,0.037441164,0.043478854,-0.024805248,-0.072086126,-0.033564523,0.0014303336,0.0,0.0,0.0,0.039407387,-0.14969443,0.4898172,-0.21669821,0.13771905,0.36142454,-0.1787508,0.14491129,-0.4125292,-0.027163466,-0.11877227,-0.4751553,-0.26279116,-0.06419519,-0.008929541,0.009624503,0.003943533,-0.023549838,-0.036097113,-0.055268537,0.06954988,-0.075198494,-0.034988068,0.061555494,-0.028401438,-2.0,2.0,-2.0,2.0,2.0,-2.0,2.0,-2.0,-2.0,-2.0,-2.0,-2.0,-2.0,2.0,-2.0,2.0,2.0,-2.0,2.0,-2.0,-2.0,-2.0,-2.0,-2.0
2025-06-05 11:15:18.267,-0.041343328,-0.042062987,0.030139651,0.013737812,0.06451913,0.008841994,0.0,0.0,0.0,0.039451458,-0.16244823,0.47809973,-0.21774593,0.13755073,0.35550603,-0.1757082,0.1361114,-0.40035394,-0.017997783,-0.11784705,-0.48639375,-0.2514938,-0.016042454,0.013211998,-0.030874178,0.072496824,-0.012343946,0.06951748,-0.06921685,-0.016271342,0.07075076,-0.067175426,0.026041258,0.060250703,-2.0,2.0,-2.0,2.0,2.0,-2.0,2.0,-2.0,-2.0,-2.0,-2.0,-2.0,-2.0,2.0,-2.0,2.0,2.0,-2.0,2.0,-2.0,-2.0,-2.0,-2.0,-2.0
2025-06-05 11:15:18.288,-0.025421744,-0.015986852,-0.016043633,-0.011077155,0.05503901,-0.005579321,0.0,0.0,0.0,0.039503213,-0.16462393,0.47846916,-0.2163174,0.14109863,0.35021,-0.18341462,0.14685231,-0.41444647,-0.024811931,-0.10863388,-0.4766867,-0.25493,0.0051175766,-0.034576494,0.049447138,0.03696316,0.035505064,0.040139165,0.02422126,-0.0101873875,-0.06317685,0.027200306,-0.05441156,0.044429827,-2.0,2.0,-2.0,2.0,2.0,-2.0,2.0,-2.0,-2.0,-2.0,-2.0,-2.0,-2.0,2.0,-2.0,2.0,2.0,-2.0,2.0,-2.0,-2.0,-2.0,-2.0,-2.0
2025-06-05 11:15:18.309,-0.04348258,-0.022037763,-0.051324904,-0.062605806,0.024126973,0.046213448,0.0,0.0,0.0,0.03955949,-0.15878804,0.48537582,-0.21591991,0.14002752,0.35497236,-0.1747255,0.14929062,-0.41712564,-0.02736485,-0.09999401,-0.47960716,-0.25554514,-0.0035136994,0.069034256,0.010751868,-0.015356919,-0.012319334,0.04088916,-0.05431171,-0.056186914,0.06416742,0.04560985,-0.056980435,0.026480323,-2.0,2.0,-2.0,2.0,2.0,-2.0,2.0,-2.0,-2.0,-2.0,-2.0,-2.0,-2.0,2.0,-2.0,2.0,2.0,-2.0,2.0,-2.0,-2.0,-2.0,-2.0,-2.0
2025-06-05 11:15:18.329,0.02199588,0.01074719,0.015477546,-0.06577964,0.05525631,-0.025565825,0.0,0.0,0.0,0.039617326,-0.15046194,0.48959452,-0.21120374,0.14239068,0.3585543,-0.17392948,0.13990472,-0.41223207,-0.022409985,-0.10903539,-0.48240253,-0.2582502,-0.069013976,0.048049062,-0.016612556,-0.041913256,-0.05627813,-0.06602199,0.017097084,0.006593218,0.027096728,0.01645893,-0.0011954196,0.072571106,-2.0,2.0,-2.0,2.0,2.0,-2.0,2.0,-2.0,-2.0,-2.0,-2.0,-2.0,-2.0,2.0,-2.0,2.0,2.0,-2.0,2.0,-2.0,-2.0,-2.0,-2.0,-2.0
2025-06-05 11:15:18.350,-0.0035276064,-0.013495689,0.03956584,-0.053899825,0.023739532,-0.018918209,0.0,0.0,0.0,0.03967413,-0.15917604,0.48392436,-0.2108587,0.14324118,0.34958643,-0.17689651,0.13710557,-0.41515124,-0.037609704,-0.11106436,-0.47209433,-0.24474461,0.0045693256,-0.045566935,0.059023093,-0.015014552,-0.06180025,0.0501716,-0.06055638,0.041048195,0.04900619,-0.055311214,-0.06265841,0.04989357,-2.0,2.0,-2.0,2.0,2.0,-2.0,2.0,-2.0,-2.0,-2.0,-2.0,-2.0,-2.0,2.0,-2.0,2.0,2.0,-2.0,2.0,-2.0,-2.0,-2.0,-2.0,-2.0
2025-06-05 11:15:18.369,0.0011829644,-0.03604508,-0.0448702,0.00085101323,0.04514614,-0.005883763,0.0,0.0,0.0,0.039727814,-0.15613194,0.47346666,-0.22115491,0.14547387,0.36558878,-0.16464792,0.13999102,-0.41233465,-0.028535303,-0.109813266,-0.47531238,-0.24999703,0.069262065,0.0001442779,0.05968875,0.03567962,-4.964392e-05,0.002538952,0.012365809,0.07315642,0.06852096,-0.020621628,-0.06074454,0.026042627,-2.0,2.0,-2.0,2.0,2.0,-2.0,2.0,-2.0,-2.0,-2.0,-2.0,-2.0,-2.0,2.0,-2.0,2.0,2.0,-2.0,2.0,-2.0,-2.0,-2.0,-2.0,-2.0
2025-06-05 11:15:18.388,0.03849657,0.019479694,0.010000121,-0.066540904,-0.035148416,0.0149043035,0.0,0.0,0.0,0.03977648,-0.16106044,0.4802071,-0.20844899,0.13643557,0.3584704,-0.1684631,0.13931997,-0.40077636,-0.028603846,-0.10552753,-0.47575623,-0.24954206,0.062185887,-0.07187977,-0.028486088,0.06828822,0.05846199,-0.05601862,-0.009225475,0.053585794,-0.020663213,-0.036216963,-0.0070048072,-0.07220785,-2.0,2.0,-2.0,2.0,2.0,-2.0,2.0,-2.0,-2.0,-2.0,-2.0,-2.0,-2.0,2.0,-2.0,2.0,2.0,-2.0,2.0,-2.0,-2.0,-2.0,-2.0,-2.0
2025-06-05 11:15:18.410,-0.04437406,-0.033237524,0.0015756005,-0.02212628,-0.02574938,0.04139929,0.0,0.0,0.0,0.039818794,-0.15853453,0.48228684,-0.2155836,0.13724963,0.368529,-0.1678179,0.14071503,-0.41211218,-0.027106445,-0.098719925,-0.4852485,-0.25040495,-0.07449707,-0.042172525,0.016913692,0.04226775,-0.032349676,-0.04728073,0.027196608,-0.06711412,-0.0033622263,-0.023500651,0.02548247,-0.0012139312,-2.0,2.0,-2.0,2.0,2.0,-2.0,2.0,-2.0,-2.0,-2.0,-2.0,-2.0,-2.0,2.0,-2.0,2.0,2.0,-2.0,2.0,-2.0,-2.0,-2.0,-2.0,-2.0
2025-06-05 11:15:18.429,-0.04279542,0.02820026,-0.017721629,-0.022117624,0.010187017,-0.01624119,0.0,0.0,0.0,0.039854586,-0.15301931,0.47360384,-0.21678817,0.13949059,0.35156164,-0.1682418,0.14452899,-0.40703648,-0.03706224,-0.10826339,-0.4918771,-0.24925959,0.034297936,-0.028654367,0.031092048,0.044371117,-0.055893783,-0.021604918,-0.018207638,0.037559994,-0.06587062,-0.020513497,0.03359774,0.056421563,-2.0,2.0,-2.0,2.0,2.0,-2.0,2.0,-2.0,-2.0,-2.0,-2.0,-2.0,-2.0,2.0,-2.0,2.0,2.0,-2.0,2.0,-2.0,-2.0,-2.0,-2.0,-2.0
2025-06-05 11:15:18.448,-0.0012886014,0.020979948,-0.025035469,-0.013943529,-0.00057080865,-0.046211094,0.0,0.0,0.0,0.039884266,-0.15557154,0.47712225,-0.20931189,0.13460407,0.3663226,-0.16726719,0.13345128,-0.40280142,-0.025201175,-0.110330805,-0.4773573,-0.2508006,-0.046005506,0.052605953,0.004530923,-0.024526862,-0.04964896,-0.05730251,0.032538608,0.021478167,-0.055718157,0.0172426,0.002435916,-0.018882593,-2.0,2.0,-2.0,2.0,2.0,-2.0,2.0,-2.0,-2.0,-2.0,-2.0,-2.0,-2.0,2.0,-2.0,2.0,2.0,-2.0,2.0,-2.0,-2.0,-2.0,-2.0,-2.0
2025-06-05 11:15:18.469,-0.0040259287,-0.015148476,-0.009011843,-0.041427493,0.021707844,-0.020584563,0.0,0.0,0.0,0.039908484,-0.15317631,0.4803574,-0.21836343,0.1469072,0.3580823,-0.17678203,0.13307396,-0.40088078,-0.028293535,-0.102816984,-0.47532114,-0.25338158,0.010545065,0.011378285,0.02964692,-0.023062173,0.046219572,0.07466144,-0.06626772,-0.06793935,0.06913057,0.015276604,0.056623805,-0.017977912,-2.0,2.0,-2.0,2.0,2.0,-2.0,2.0,-2.0,-2.0,-2.0,-2.0,-2.0,-2.0,2.0,-2.0,2.0,2.0,-2.0,2.0,-2.0,-2.0,-2.0,-2.0,-2.0
2025-06-05 11:15:18.489,-0.0028226415,0.048927337,0.01741852,-0.06337087,0.04551915,0.046952087,0.0,0.0,0.0,0.039927956,-0.15093844,0.48961046,-0.21118999,0.13623698,0.35551,-0.17607124,0.12773293,-0.41525105,-0.025200516,-0.09723476,-0.47247204,-0.24578267,0.0040235887,-0.05548642,-0.06506767,-0.071397595,0.029258866,-0.020831825,0.05872004,0.034645412,-0.017437613,-0.06243993,0.022251984,0.010663676,-2.0,2.0,-2.0,2.0,2.0,-2.0,2.0,-2.0,-2.0,-2.0,-2.0,-2.0,-2.0,2.0,-2.0,2.0,2.0,-2.0,2.0,-2.0,-2.0,-2.0,-2.0,-2.0
2025-06-05 11:15:18.512,0.014861728,0.031947907,-0.032716587,0.00879745,0.013892637,0.010394747,0.0,0.0,0.0,0.039943397,-0.14538923,0.4833953,-0.21118036,0.14724922,0.36019367,-0.16960916,0.14380677,-0.402102,-0.030732952,-0.09572757,-0.47383195,-0.2524036,0.007154009,0.054938678,0.056180105,0.027579227,-0.06681383,0.027584594,0.020991433,-0.011508965,-0.068670444,0.010483571,-0.015278614,-0.06792156,-2.0,2.0,-2.0,2.0,2.0,-2.0,2.0,-2.0,-2.0,-2.0,-2.0,-2.0,-2.0,2.0,-2.0,2.0,2.0,-2.0,2.0,-2.0,-2.0,-2.0,-2.0,-2.0
2025-06-05 11:15:18.529,-0.044315707,0.04382626,-0.040222384,-0.034428608,0.022271343,-0.04192433,0.0,0.0,0.0,0.0399555,-0.14825134,0.4793125,-0.21898833,0.13636343,0.36794394,-0.1635334,0.13691896,-0.40086246,-0.024836637,-0.10718426,-0.48643684,-0.2521191,-0.023224147,-0.029128,0.030958535,0.05605615,-0.06266637,0.064690374,0.017400678,0.035834882,0.020845143,0.045580044,-0.022757255,0.0024733373,-2.0,2.0,-2.0,2.0,2.0,-2.0,2.0,-2.0,-2.0,-2.0,-2.0,-2.0,-2.0,2.0,-2.0,2.0,2.0,-2.0,2.0,-2.0,-2.0,-2.0,-2.0,-2.0
2025-06-05 11:15:18.550,0.025757508,0.0100378785,-0.02325094,-0.04342205,-0.026766555,0.039013054,0.0,0.0,0.0,0.039964914,-0.16309094,0.47794828,-0.20506117,0.1434306,0.35441613,-0.17480038,0.14306708,-0.40626103,-0.024914902,-0.105995305,-0.48724136,-0.24115142,0.067790434,0.048709,0.06753745,-0.03464786,-0.031386077,0.05642634,0.045315538,-0.07395858,0.06755689,0.07233767,0.04385842,-0.056168355,-2.0,2.0,-2.0,2.0,2.0,-2.0,2.0,-2.0,-2.0,-2.0,-2.0,-2.0,-2.0,2.0,-2.0,2.0,2.0,-2.0,2.0,-2.0,-2.0,-2.0,-2.0,-2.0
2025-06-05 11:15:18.569,0.00027605638,0.012112622,-0.04035309,-0.0092941895,-0.011887156,-0.039255943,0.0,0.0,0.0,0.03997223,-0.16086464,0.47669923,-0.21871823,0.135859,0.37154907,-0.1771297,0.14554742,-0.40762675,-0.042723928,-0.10150318,-0.48519558,-0.25563765,0.062448297,0.07454752,0.06883117,-0.016052168,0.024163235,0.041645944,0.014488012,-0.023492372,-0.051494215,-0.068921454,0.05438029,-0.012699764,-2.0,2.0,-2.0,2.0,2.0,-2.0,2.0,-2.0,-2.0,-2.0,-2.0,-2.0,-2.0,2.0,-2.0,2.0,2.0,-2.0,2.0,-2.0,-2.0,-2.0,-2.0,-2.0
2025-06-05 11:15:18.590,0.015711548,0.04009889,0.03437491,-0.014639503,-0.017425101,-0.035906706,0.0,0.0,0.0,0.039977975,-0.15650262,0.48603407,-0.21598019,0.14185122,0.3645521,-0.16765973,0.14416258,-0.4049074,-0.03764137,-0.11446443,-0.47649187,-0.24886775,-0.0094415955,0.013619785,-0.022761017,-0.005542124,0.040888187,0.0035464384,-0.0024725285,0.034452207,0.061358076,0.066587634,-0.015435617,-0.043460153,-2.0,2.0,-2.0,2.0,2.0,-2.0,2.0,-2.0,-2.0,-2.0,-2.0,-2.0,-2.0,2.0,-2.0,2.0,2.0,-2.0,2.0,-2.0,-2.0,-2.0,-2.0,-2.0
2025-06-05 11:15:18.612,-0.0049221157,-0.032591958,-0.005945491,-0.050855983,0.026053628,-0.018951261,0.0,0.0,0.0,0.03998258,-0.15498751,0.48979124,-0.2161521,0.13732077,0.3613595,-0.1680583,0.14398028,-0.40427938,-0.032098245,-0.104669675,-0.4815213,-0.25919983,-0.026973778,0.011429785,-0.051793672,-0.04216112,0.0017656006,-0.018591112,-0.032691475,-0.038556892,-0.018106047,-0.014597541,0.048233517,0.053557247,-2.0,2.0,-2.0,2.0,2.0,-2.0,2.0,-2.0,-2.0,-2.0,-2.0,-2.0,-2.0,2.0,-2.0,2.0,2.0,-2.0,2.0,-2.0,-2.0,-2.0,-2.0,-2.0
2025-06-05 11:15:18.630,0.028623164,0.022349482,0.02920684,0.013847134,-0.008099809,-0.022385754,0.0,0.0,0.0,0.039986406,-0.14958625,0.47753698,-0.20601462,0.14393301,0.3662849,-0.1704488,0.14251569,-0.41438198,-0.028374964,-0.1140848,-0.4893295,-0.2480734,-0.018199237,0.035785105,-0.00759286,-0.003852619,-0.015374795,-0.044631347,0.06435425,0.019071642,0.029107032,-0.072923504,-0.028745487,-0.05669674,-2.0,2.0,-2.0,2.0,2.0,-2.0,2.0,-2.0,-2.0,-2.0,-2.0,-2.0,-2.0,2.0,-2.0,2.0,2.0,-2.0,2.0,-2.0,-2.0,-2.0,-2.0,-2.0
2025-06-05 11:15:18.650,-0.04591659,-0.006459095,0.040840067,-0.07853469,-0.025292827,-0.030262683,0.0,0.0,0.0,0.039989714,-0.14668006,0.49203742,-0.21977493,0.15027937,0.37182176,-0.1776594,0.1436629,-0.40625888,-0.042251237,-0.10205707,-0.48493835,-0.24631824,-0.026919564,0.0039231344,-0.063623175,-0.027728796,0.023552468,0.030204289,0.0510351,0.028445326,-0.06531915,0.06521751,0.024752285,-0.06659032,-2.0,2.0,-2.0,2.0,2.0,-2.0,2.0,-2.0,-2.0,-2.0,-2.0,-2.0,-2.0,2.0,-2.0,2.0,2.0,-2.0,2.0,-2.0,-2.0,-2.0,-2.0,-2.0
2025-06-05 11:15:18.670,-0.03850972,-0.042327065,0.04212893,-0.020284336,0.0049809557,0.0120550115,0.0,0.0,0.0,0.039992694,-0.14634463,0.48662037,-0.20592971,0.1446461,0.36408827,-0.16265741,0.12922709,-0.40815133,-0.026021764,-0.10477071,-0.478296,-0.25035122,-0.0016718358,0.062095046,0.05710905,-0.053178113,0.018350432,0.021568118,0.0102587035,0.048334274,0.026656704,0.0059704566,0.039041538,0.034627255,-2.0,2.0,-2.0,2.0,2.0,-2.0,2.0,-2.0,-2.0,-2.0,-2.0,-2.0,-2.0,2.0,-2.0,2.0,2.0,-2.0,2.0,-2.0,-2.0,-2.0,-2.0,-2.0
2025-06-05 11:15:18.689,-0.03303244,0.041151524,-0.003959498,-0.07561955,-0.0023035703,-0.009256588,0.0,0.0,0.0,0.039995477,-0.14553128,0.48620638,-0.21074864,0.14400214,0.37204483,-0.16653995,0.14223681,-0.4011848,-0.038991764,-0.09651279,-0.4755596,-0.24388328,-0.04684378,0.05074314,-0.052712735,0.054172482,-0.034881175,-0.04919712,0.03108295,0.01702664,-0.021946594,0.028039116,0.04356869,0.043098904,-2.0,2.0,-2.0,2.0,2.0,-2.0,2.0,-2.0,-2.0,-2.0,-2.0,-2.0,-2.0,2.0,-2.0,2.0,2.0,-2.0,2.0,-2.0,-2.0,-2.0,-2.0,-2.0
2025-06-05 11:15:18.712,0.024651175,-0.025534958,0.014053772,-0.046296734,0.046574607,-0.01480294,0.0,0.0,0.0,0.039998118,-0.14623906,0.479956,-0.21895795,0.13606538,0.3597152,-0.17344639,0.12700002,-0.41309133,-0.040305194,-0.111067496,-0.48619205,-0.24494699,0.06149765,0.052039385,-0.05070954,0.020561649,0.003161872,0.04456277,-0.063479714,-0.02921042,0.064664215,0.048829332,-0.013269727,0.039676085,-2.0,2.0,-2.0,2.0,2.0,-2.0,2.0,-2.0,-2.0,-2.0,-2.0,-2.0,-2.0,2.0,-2.0,2.0,2.0,-2.0,2.0,-2.0,-2.0,-2.0,-2.0,-2.0
2025-06-05 11:15:18.730,0.022699514,-0.010113613,0.008692826,-0.06837712,0.02048089,0.03747381,0.0,0.0,0.0,0.040000647,-0.14814985,0.47602472,-0.2195742,0.14298527,0.37423557,-0.17201412,0.14000103,-0.4061249,-0.028212294,-0.09958083,-0.4837348,-0.2589686,0.013495052,-0.051288173,-0.07372615,-0.028033817,0.047229487,0.06072543,0.020785976,-0.06341509,0.043632757,0.020122001,-0.07435361,-0.052771203,-2.0,2.0,-2.0,2.0,2.0,-2.0,2.0,-2.0,-2.0,-2.0,-2.0,-2.0,-2.0,2.0,-2.0,2.0,2.0,-2.0,2.0,-2.0,-2.0,-2.0,-2.0,-2.0
2025-06-05 11:15:18.752,0.024268867,0.045802183,-0.015030744,-0.043915253,0.041002102,0.0269263,0.0,0.0,0.0,0.040003046,-0.14968757,0.47285685,-0.20766373,0.13448381,0.37227494,-0.17570478,0.14006746,-0.40244576,-0.03900827,-0.10380453,-0.4887232,-0.25477403,0.028592736,0.06575273,0.008333544,0.049888946,-0.027539656,0.0023384402,-0.0026949428,0.07333707,0.057389416,0.061099913,-0.056504816,0.010582208,-2.0,2.0,-2.0,2.0,2.0,-2.0,2.0,-2.0,-2.0,-2.0,-2.0,-2.0,-2.0,2.0,-2.0,2.0,2.0,-2.0,2.0,-2.0,-2.0,-2.0,-2.0,-2.0
2025-06-05 11:15:18.770,-0.01905861,0.003279388,-0.044555884,0.0049852217,-0.037535377,0.017645726,0.0,0.0,0.0,0.040005293,-0.15049912,0.4744435,-0.20729807,0.13739301,0.3611241,-0.17655255,0.12861519,-0.40503028,-0.04436034,-0.11339349,-0.47873327,-0.24519865,0.028308818,0.0019808835,0.07329604,-0.07266163,0.040297724,0.0009087088,0.038086385,0.001126378,0.064705275,0.012199191,-0.051365685,-0.02361392,-2.0,2.0,-2.0,2.0,2.0,-2.0,2.0,-2.0,-2.0,-2.0,-2.0,-2.0,-2.0,2.0,-2.0,2.0,2.0,-2.0,2.0,-2.0,-2.0,-2.0,-2.0,-2.0
2025-06-05 11:15:18.791,0.021514202,0.0007680259,0.0086928,-0.053055752,0.029145703,-0.04495672,0.0,0.0,0.0,0.040007345,-0.16042174,0.4738507,-0.21941634,0.14629453,0.3624465,-0.16201393,0.13066377,-0.40687916,-0.041379873,-0.09447094,-0.48573488,-0.24089673,-0.032416705,-0.030539677,-0.036982626,0.032731157,-0.020014942,0.06739965,-0.039415516,0.023308875,-0.07385971,-0.07483876,-0.044025548,0.045226436,-2.0,2.0,-2.0,2.0,2.0,-2.0,2.0,-2.0,-2.0,-2.0,-2.0,-2.0,-2.0,2.0,-2.0,2.0,2.0,-2.0,2.0,-2.0,-2.0,-2.0,-2.0,-2.0
2025-06-05 11:15:18.812,-0.03322023,0.024584433,-0.027810289,-0.0067653153,0.03210093,-0.035213888,0.0,0.0,0.0,0.04000916,-0.14951746,0.47998762,-0.20387955,0.14461716,0.37550354,-0.17609996,0.13627775,-0.41012383,-0.039845034,-0.096741475,-0.47712228,-0.24721313,-0.008774466,-0.060300414,0.04151197,0.058457132,0.063574724,0.036339793,0.073777094,-0.07018474,-0.07489646,-0.03746483,0.021091698,-0.04903475,-2.0,2.0,-2.0,2.0,2.0,-2.0,2.0,-2.0,-2.0,-2.0,-2.0,-2.0,-2.0,2.0,-2.0,2.0,2.0,-2.0,2.0,-2.0,-2.0,-2.0,-2.0,-2.0
2025-06-05 11:15:18.831,-0.012531293,-0.037294175,-0.0256147,-0.015063296,0.01017974,-0.043409836,0.0,0.0,0.0,0.040010713,-0.16066764,0.47733256,-0.21339002,0.14911695,0.36290357,-0.16354895,0.1256891,-0.41742203,-0.02968969,-0.10864029,-0.48186764,-0.24279545,-0.05485747,-0.013365979,0.060544867,0.0029225564,0.003971868,-0.07087718,0.061670497,0.030644009,0.05997963,0.023070935,0.0030319104,-0.042895842,-2.0,2.0,-2.0,2.0,2.0,-2.0,2.0,-2.0,-2.0,-2.0,-2.0,-2.0,-2.0,2.0,-2.0,2.0,2.0,-2.0,2.0,-2.0,-2.0,-2.0,-2.0,-2.0
2025-06-05 11:15:18.851,0.019716484,-0.015931081,-0.02791653,0.0045059854,0.04886701,0.014243179,0.0,0.0,0.0,0.040011972,-0.15165415,0.48717046,-0.2212145,0.14056952,0.37603584,-0.18074667,0.1364011,-0.4157715,-0.03596216,-0.09931345,-0.4765293,-0.24186979,0.0024180284,0.0035671059,-0.066295594,0.044649635,-0.04062428,-0.051533744,-0.0066949283,-0.074221045,0.06950104,-0.0599039,-0.0026163696,-0.053748026,-2.0,2.0,-2.0,2.0,2.0,-2.0,2.0,-2.0,-2.0,-2.0,-2.0,-2.0,-2.0,2.0,-2.0,2.0,2.0,-2.0,2.0,-2.0,-2.0,-2.0,-2.0,-2.0
2025-06-05 11:15:18.871,0.0021525808,0.022793634,-0.03925345,-0.01581689,0.025815966,0.03341128,0.0,0.0,0.0,0.040012933,-0.14596486,0.47952053,-0.21119396,0.13603401,0.36814144,-0.17385957,0.13115597,-0.41265666,-0.033662442,-0.11258502,-0.4881299,-0.25877947,0.06815598,0.023184905,0.015041695,-0.010478165,0.070242666,-0.0134202875,-0.008783604,0.041841257,-0.053705763,0.016342035,-0.0114512835,0.026494933,-2.0,2.0,-2.0,2.0,2.0,-2.0,2.0,-2.0,-2.0,-2.0,-2.0,-2.0,-2.0,2.0,-2.0,2.0,2.0,-2.0,2.0,-2.0,-2.0,-2.0,-2.0,-2.0
2025-06-05 11:15:18.891,0.046095584,-0.0237246,0.025148071,-0.07838336,0.009562557,-0.0057919775,0.0,0.0,0.0,0.0400136,-0.1559182,0.47846067,-0.2026736,0.14977716,0.3725822,-0.16130053,0.12932372,-0.40405938,-0.044250146,-0.10804924,-0.4822084,-0.25055087,-0.045205116,0.07205522,0.023757035,-0.044499382,0.0068576247,-0.009755173,0.04641499,0.010745646,-0.060248516,0.034315754,0.014571739,-0.03891699,-2.0,2.0,-2.0,2.0,2.0,-2.0,2.0,-2.0,-2.0,-2.0,-2.0,-2.0,-2.0,2.0,-2.0,2.0,2.0,-2.0,2.0,-2.0,-2.0,-2.0,-2.0,-2.0
2025-06-05 11:15:18.912,-0.027477136,0.02904823,0.044820227,0.018951565,0.05438434,-0.017086998,0.0,0.0,0.0,0.04001399,-0.14738262,0.47606426,-0.21159412,0.15123405,0.3714958,-0.17593537,0.12525815,-0.4125179,-0.041343123,-0.107271016,-0.47606155,-0.25704515,-0.03654727,-0.04225491,-0.01816747,-0.0025553312,0.074224554,0.06880435,-0.04028213,0.027798863,0.0022344992,-0.06819549,0.06638134,0.054784436,-2.0,2.0,-2.0,2.0,2.0,-2.0,2.0,-2.0,-2.0,-2.0,-2.0,-2.0,-2.0,2.0,-2.0,2.0,2.0,-2.0,2.0,-2.0,-2.0,-2.0,-2.0,-2.0
2025-06-05 11:15:18.931,0.043676108,0.00027881484,-0.0057568867,-0.05791082,-0.008785558,0.026654733,0.0,0.0,0.0,0.040014125,-0.15061624,0.48256007,-0.21245,0.14335945,0.36039367,-0.16350499,0.13282163,-0.41875538,-0.04643175,-0.112291194,-0.4875519,-0.25610274,-0.02385148,-0.03338446,-0.015488541,-0.026544068,0.000110343855,-0.02725835,0.010165665,0.035869285,-0.026386967,-0.022161158,-0.06283992,-0.023335638,-2.0,2.0,-2.0,2.0,2.0,-2.0,2.0,-2.0,-2.0,-2.0,-2.0,-2.0,-2.0,2.0,-2.0,2.0,2.0,-2.0,2.0,-2.0,-2.0,-2.0,-2.0,-2.0
2025-06-05 11:15:18.952,0.034173004,-0.019552559,-0.035754632,0.019581575,0.0032597464,-0.031205578,0.0,0.0,0.0,0.040014047,-0.16309145,0.48412493,-0.21526986,0.14296354,0.376568,-0.17462102,0.12558044,-0.41051653,-0.041072037,-0.10682602,-0.4783069,-0.24030313,-0.034978453,0.054605316,-0.07435513,0.03922012,-0.0055530346,-0.02138166,-0.0680778,-0.0399956,-0.035332114,-0.03925554,0.004637032,-0.051669262,-2.0,2.0,-2.0,2.0,2.0,-2.0,2.0,-2.0,-2.0,-2.0,-2.0,-2.0,-2.0,2.0,-2.0,2.0,2.0,-2.0,2.0,-2.0,-2.0,-2.0,-2.0,-2.0
2025-06-05 11:15:18.971,0.014353507,0.029197482,0.030015355,0.005662374,-0.012546385,-0.02241307,0.0,0.0,0.0,0.04001379,-0.16309246,0.47500724,-0.21204789,0.13675515,0.36803195,-0.16207641,0.13001888,-0.40342572,-0.03455591,-0.107380114,-0.48744133,-0.24443267,-0.048855234,-0.031745818,-0.027505478,-0.05561667,-0.011486583,-0.03451764,0.046927646,0.04339272,-0.034149885,-0.017463893,-0.004941902,0.06469776,-2.0,2.0,-2.0,2.0,2.0,-2.0,2.0,-2.0,-2.0,-2.0,-2.0,-2.0,-2.0,2.0,-2.0,2.0,2.0,-2.0,2.0,-2.0,-2.0,-2.0,-2.0,-2.0
2025-06-05 11:15:18.994,0.009567904,-0.03767455,0.019955054,-0.017026633,-0.00048229125,-0.0073394096,0.0,0.0,0.0,0.0400134,-0.15101172,0.49228373,-0.20334853,0.13949832,0.36329582,-0.17074154,0.12801668,-0.41434404,-0.042918947,-0.10626643,-0.4926351,-0.24068081,-0.050582442,-0.0077517503,-0.015799062,0.037644655,0.07192412,-0.05579375,-0.020140884,-0.06437293,0.03926894,-0.031177318,0.032105155,0.0027981456,-2.0,2.0,-2.0,2.0,2.0,-2.0,2.0,-2.0,-2.0,-2.0,-2.0,-2.0,-2.0,2.0,-2.0,2.0,2.0,-2.0,2.0,-2.0,-2.0,-2.0,-2.0,-2.0
2025-06-05 11:15:19.012,0.022126075,0.04093425,0.026294254,-0.031647407,0.0030013656,0.04547239,0.0,0.0,0.0,0.040012915,-0.16036202,0.48566508,-0.20923623,0.14975841,0.36235347,-0.16376908,0.13393463,-0.4132898,-0.035770983,-0.09710612,-0.48168886,-0.25019825,-0.019374732,0.026574422,-0.056478444,0.0034012373,-0.06436039,0.036601216,0.054363195,-0.058660433,-0.019807851,-0.023068907,-0.017096093,0.04207862,-2.0,2.0,-2.0,2.0,2.0,-2.0,2.0,-2.0,-2.0,-2.0,-2.0,-2.0,-2.0,2.0,-2.0,2.0,2.0,-2.0,2.0,-2.0,-2.0,-2.0,-2.0,-2.0
2025-06-05 11:15:19.031,0.0028953173,0.002472366,-0.0376095,-0.06358088,-0.029249685,0.0063964403,0.0,0.0,0.0,0.04001237,-0.16193286,0.482042,-0.20717716,0.14785817,0.3599634,-0.1711969,0.13168238,-0.40434605,-0.03477176,-0.11183628,-0.4771956,-0.2537028,-0.005903842,-0.066214815,-0.046555165,0.030179957,-0.0024739401,-0.025255084,0.026681203,-0.057832178,0.036820922,-0.055939846,0.045627333,0.0590762,-2.0,2.0,-2.0,2.0,2.0,-2.0,2.0,-2.0,-2.0,-2.0,-2.0,-2.0,-2.0,2.0,-2.0,2.0,2.0,-2.0,2.0,-2.0,-2.0,-2.0,-2.0,-2.0
2025-06-05 11:15:19.054,-0.04415362,-0.02452968,0.01998711,-0.0020287924,0.028997097,0.010632948,0.0,0.0,0.0,0.040011805,-0.14808156,0.4871166,-0.21209423,0.14139019,0.36363468,-0.17280328,0.14060684,-0.40591112,-0.032058366,-0.10342968,-0.47508767,-0.24542728,0.034263898,-0.03630625,0.0126321325,-0.033525467,0.019943291,0.025686651,0.029453523,-0.037152942,0.025806768,0.016908113,-0.025363334,-0.053471223,-2.0,2.0,-2.0,2.0,2.0,-2.0,2.0,-2.0,-2.0,-2.0,-2.0,-2.0,-2.0,2.0,-2.0,2.0,2.0,-2.0,2.0,-2.0,-2.0,-2.0,-2.0,-2.0
2025-06-05 11:15:19.072,0.0026936312,-0.030817885,-0.012258261,-0.020940086,0.049668018,-0.010642699,0.0,0.0,0.0,0.04001124,-0.15556452,0.477777,-0.21362491,0.15070553,0.36324272,-0.16184756,0.12969573,-0.40178287,-0.046260905,-0.09563663,-0.47375774,-0.2538104,0.0117965,-0.052017547,0.031743873,0.06036301,0.04331335,0.07419665,-0.044553015,-0.046527583,-0.041154366,0.037474,0.013184017,-0.0150555,-2.0,2.0,-2.0,2.0,2.0,-2.0,2.0,-2.0,-2.0,-2.0,-2.0,-2.0,-2.0,2.0,-2.0,2.0,2.0,-2.0,2.0,-2.0,-2.0,-2.0,-2.0,-2.0
2025-06-05 11:15:19.094,-0.03575461,0.04507737,-0.01923231,-0.0009318163,0.0031456237,-0.036810867,0.0,0.0,0.0,0.040010694,-0.1620898,0.48878157,-0.2100021,0.13566379,0.37016618,-0.16774829,0.14238693,-0.4138402,-0.03379766,-0.10099112,-0.4733447,-0.24875505,-0.013726001,0.03399323,0.052095514,-0.019289177,-0.021876454,-0.02822933,0.028619641,0.013869488,-0.07408289,-0.04241127,-0.056709252,-0.030905174,-2.0,2.0,-2.0,2.0,2.0,-2.0,2.0,-2.0,-2.0,-2.0,-2.0,-2.0,-2.0,2.0,-2.0,2.0,2.0,-2.0,2.0,-2.0,-2.0,-2.0,-2.0,-2.0
2025-06-05 11:15:19.112,-0.003104942,-0.045308396,-0.023401862,-0.0661796,0.03390267,-0.028522482,0.0,0.0,0.0,0.040010188,-0.15025167,0.48540062,-0.20663266,0.15177217,0.36595038,-0.17925338,0.12513173,-0.41659397,-0.030515037,-0.10039579,-0.49315894,-0.25449684,-7.387324e-05,-0.05285952,0.061189394,-0.02503492,-0.062238563,-0.025072912,-0.04719288,0.028006602,-0.034518678,0.051363263,-0.0015786575,0.011624439,-2.0,2.0,-2.0,2.0,2.0,-2.0,2.0,-2.0,-2.0,-2.0,-2.0,-2.0,-2.0,2.0,-2.0,2.0,2.0,-2.0,2.0,-2.0,-2.0,-2.0,-2.0,-2.0
2025-06-05 11:15:19.131,-0.018078515,0.0017874497,-0.039355397,0.017276114,0.04540461,0.024682362,0.0,0.0,0.0,0.040009726,-0.15346782,0.49060395,-0.20249394,0.13336459,0.37424985,-0.1652948,0.13576874,-0.40368646,-0.028622087,-0.111879334,-0.49283344,-0.24260558,-0.06663442,-0.0045377156,-0.024653073,-0.06351372,0.06229718,0.03513954,-0.049149226,-0.01299069,0.026251856,-0.03850851,-0.038777858,0.020230949,-2.0,2.0,-2.0,2.0,2.0,-2.0,2.0,-2.0,-2.0,-2.0,-2.0,-2.0,-2.0,2.0,-2.0,2.0,2.0,-2.0,2.0,-2.0,-2.0,-2.0,-2.0,-2.0
2025-06-05 11:15:19.152,-0.048923623,-0.020438649,0.03632331,-0.01412181,-0.0011448895,0.023344126,0.0,0.0,0.0,0.040009312,-0.15212247,0.47612286,-0.21540321,0.1471873,0.3676721,-0.16237353,0.1331555,-0.41515622,-0.037627,-0.11084957,-0.48998913,-0.2513971,0.05554669,-0.003266334,0.065930694,0.057094123,-0.018606365,-0.017811337,-0.049253397,0.045835026,0.0686587,-0.06937942,-0.015947843,0.061690196,-2.0,2.0,-2.0,2.0,2.0,-2.0,2.0,-2.0,-2.0,-2.0,-2.0,-2.0,-2.0,2.0,-2.0,2.0,2.0,-2.0,2.0,-2.0,-2.0,-2.0,-2.0,-2.0
2025-06-05 11:15:19.173,-0.038132064,-0.008098845,0.0025005518,-0.0155501645,0.04638471,0.017471915,0.0,0.0,0.0,0.04000894,-0.15590489,0.47917703,-0.21523327,0.1413503,0.36212572,-0.16310447,0.13985217,-0.41154814,-0.038013723,-0.09592859,-0.48831013,-0.2416989,0.07330687,0.034281444,0.054359995,0.0050950665,0.050696354,-0.046267178,0.036354925,-0.043350406,0.059826188,0.052290235,-0.01436727,-0.06355444,-2.0,2.0,-2.0,2.0,2.0,-2.0,2.0,-2.0,-2.0,-2.0,-2.0,-2.0,-2.0,2.0,-2.0,2.0,2.0,-2.0,2.0,-2.0,-2.0,-2.0,-2.0,-2.0
2025-06-05 11:15:19.194,-0.047971692,0.04763851,0.034251917,-0.06303502,0.057550132,0.04316755,0.0,0.0,0.0,0.04000861,-0.15634768,0.48184556,-0.20138279,0.15014161,0.37531492,-0.17458196,0.13420689,-0.419363,-0.045324244,-0.11104481,-0.48203447,-0.2517143,0.061717167,0.023364695,-0.06972654,-0.029136188,0.068923265,0.05914971,-0.03505478,0.03984303,-0.054856226,-0.025584338,-0.0717984,-0.05048896,-2.0,2.0,-2.0,2.0,2.0,-2.0,2.0,-2.0,-2.0,-2.0,-2.0,-2.0,-2.0,2.0,-2.0,2.0,2.0,-2.0,2.0,-2.0,-2.0,-2.0,-2.0,-2.0
2025-06-05 11:15:19.213,-0.033495154,0.04191986,-0.01758939,-0.028116945,0.0072935973,-0.040642355,0.0,0.0,0.0,0.040008314,-0.15135455,0.49289456,-0.21003643,0.14363676,0.37064496,-0.17855076,0.13201326,-0.41013217,-0.035051942,-0.11389597,-0.47675222,-0.253443,-0.025253624,-0.074411824,0.043998864,0.038186956,0.018858215,0.05884679,0.035223268,-0.020769794,-0.060273886,-0.008259027,-0.053283796,-0.05856319,-2.0,2.0,-2.0,2.0,2.0,-2.0,2.0,-2.0,-2.0,-2.0,-2.0,-2.0,-2.0,2.0,-2.0,2.0,2.0,-2.0,2.0,-2.0,-2.0,-2.0,-2.0,-2.0
2025-06-05 11:15:19.232,-0.04133791,-0.016827516,-0.049198687,-0.053821407,-0.020830961,-0.010535242,0.0,0.0,0.0,0.040008042,-0.15721427,0.48133543,-0.21854594,0.14171413,0.37446484,-0.17744094,0.14348674,-0.4198404,-0.034266237,-0.11022161,-0.4866037,-0.24000862,-0.00407601,-0.03700565,-0.067333125,-0.05352968,-0.02364003,0.064640634,-0.055191725,0.0055461302,0.0010766903,0.042871,0.054919362,-0.021595908,-2.0,2.0,-2.0,2.0,2.0,-2.0,2.0,-2.0,-2.0,-2.0,-2.0,-2.0,-2.0,2.0,-2.0,2.0,2.0,-2.0,2.0,-2.0,-2.0,-2.0,-2.0,-2.0
2025-06-05 11:15:19.252,-0.03645462,-0.048343703,0.042486463,-0.059247952,0.03685948,-0.007619426,0.0,0.0,0.0,0.040007792,-0.1459492,0.47919476,-0.20336671,0.14950609,0.36430383,-0.17381051,0.14100656,-0.41406202,-0.045134146,-0.110116705,-0.4793847,-0.25057596,0.07323984,0.018538805,0.018283458,0.0044869017,-0.02509371,0.051376015,-0.05672363,-0.057604507,-0.03774341,0.06933384,-0.06754111,-0.008576685,-2.0,2.0,-2.0,2.0,2.0,-2.0,2.0,-2.0,-2.0,-2.0,-2.0,-2.0,-2.0,2.0,-2.0,2.0,2.0,-2.0,2.0,-2.0,-2.0,-2.0,-2.0,-2.0
2025-06-05 11:15:19.273,-0.030928977,0.0025310519,-0.0036926055,-0.031671017,0.02934883,-0.024584547,0.0,0.0,0.0,0.040007554,-0.15126018,0.4865599,-0.2055937,0.13581218,0.36224964,-0.16687304,0.12456234,-0.40650025,-0.028619885,-0.11266572,-0.49042422,-0.2508871,0.07265829,0.017005399,-0.066414125,-0.046193592,0.038711924,0.00980494,-0.012675954,-0.00021979545,0.06137033,-0.06605495,0.008051618,0.06574673,-2.0,2.0,-2.0,2.0,2.0,-2.0,2.0,-2.0,-2.0,-2.0,-2.0,-2.0,-2.0,2.0,-2.0,2.0,2.0,-2.0,2.0,-2.0,-2.0,-2.0,-2.0,-2.0
2025-06-05 11:15:19.295,-0.04247537,-0.006260387,-0.017909277,-0.014207138,0.022408864,-0.01223835,0.0,0.0,0.0,0.040007323,-0.15545791,0.48095927,-0.21736294,0.13382031,0.36492962,-0.16798948,0.1338058,-0.4122639,-0.04763701,-0.100460425,-0.48205224,-0.24248604,-0.04124058,0.0021983176,0.014565831,0.018973324,0.038717758,0.035262506,-0.02605142,0.020732522,0.05102912,-0.044099998,-0.018545633,0.048328154,-2.0,2.0,-2.0,2.0,2.0,-2.0,2.0,-2.0,-2.0,-2.0,-2.0,-2.0,-2.0,2.0,-2.0,2.0,2.0,-2.0,2.0,-2.0,-2.0,-2.0,-2.0,-2.0
2025-06-05 11:15:19.312,-0.026521243,0.032097127,-0.047729935,-0.042002846,0.061082,0.004184965,0.0,0.0,0.0,0.040007092,-0.16287169,0.4744143,-0.21137887,0.14681265,0.36265245,-0.17173098,0.13838072,-0.41022345,-0.03392346,-0.10274693,-0.48874405,-0.24472676,0.058653068,0.03383693,0.037693374,0.029689556,0.020369556,-0.019150453,-0.050386533,0.010956616,0.06578544,0.036454353,0.054958396,-0.016646972,-2.0,2.0,-2.0,2.0,2.0,-2.0,2.0,-2.0,-2.0,-2.0,-2.0,-2.0,-2.0,2.0,-2.0,2.0,2.0,-2.0,2.0,-2.0,-2.0,-2.0,-2.0,-2.0
2025-06-05 11:15:19.332,-0.030212536,0.00271008,-0.025809009,-0.04186092,0.038576964,-2.6200467e-05,0.0,0.0,0.0,0.04000686,-0.15758568,0.4881666,-0.2073447,0.13576011,0.37039122,-0.17774363,0.14302284,-0.4056613,-0.030551536,-0.09748031,-0.47455826,-0.25421092,-0.07421396,-0.07076921,0.022043161,-0.049041774,-0.035337944,0.008905002,-0.066475764,0.0555111,-0.05802296,-0.062829465,0.0016083454,-0.065915756,-2.0,2.0,-2.0,2.0,2.0,-2.0,2.0,-2.0,-2.0,-2.0,-2.0,-2.0,-2.0,2.0,-2.0,2.0,2.0,-2.0,2.0,-2.0,-2.0,-2.0,-2.0,-2.0
2025-06-05 11:15:19.352,0.009378969,0.047251333,-0.026541801,0.009459333,-0.037322454,-0.002432853,0.0,0.0,0.0,0.04000663,-0.15103827,0.47743767,-0.20692772,0.13912503,0.36709937,-0.17303191,0.14435458,-0.40279347,-0.036301833,-0.11205147,-0.47481325,-0.24158773,-0.025565745,-0.013997504,0.013126026,0.040938124,-0.04458255,0.05450941,0.07383841,0.033540603,0.06298256,0.015214977,0.024898566,0.03567559,-2.0,2.0,-2.0,2.0,2.0,-2.0,2.0,-2.0,-2.0,-2.0,-2.0,-2.0,-2.0,2.0,-2.0,2.0,2.0,-2.0,2.0,-2.0,-2.0,-2.0,-2.0,-2.0
2025-06-05 11:15:19.373,-0.0021387236,0.04397607,-0.012911691,-0.01734369,0.01492389,-0.04287618,0.0,0.0,0.0,0.040006395,-0.14540817,0.48045138,-0.22033,0.14839005,0.37617314,-0.17897187,0.12768765,-0.41231152,-0.040611528,-0.10168973,-0.47884047,-0.25509524,-0.014134853,0.051618315,0.061767157,0.020914044,0.020728579,0.054407537,-0.016677143,0.04475595,-0.056254346,-0.04153654,-0.07045911,0.011619344,-2.0,2.0,-2.0,2.0,2.0,-2.0,2.0,-2.0,-2.0,-2.0,-2.0,-2.0,-2.0,2.0,-2.0,2.0,2.0,-2.0,2.0,-2.0,-2.0,-2.0,-2.0,-2.0
2025-06-05 11:15:19.396,0.04438006,-0.030217052,0.018152758,-0.016064432,-0.018448537,0.023604998,0.0,0.0,0.0,0.04000616,-0.15472089,0.48025224,-0.21629792,0.14658867,0.36257142,-0.16106865,0.14174804,-0.4018343,-0.038832743,-0.10098585,-0.4808563,-0.23988993,-0.020291258,-0.059418228,-0.012339182,-1.9799316e-05,0.03249204,-0.018434115,0.011751294,-0.051602196,-0.042150952,-0.02950588,-0.043818574,-0.041783594,-2.0,2.0,-2.0,2.0,2.0,-2.0,2.0,-2.0,-2.0,-2.0,-2.0,-2.0,-2.0,2.0,-2.0,2.0,2.0,-2.0,2.0,-2.0,-2.0,-2.0,-2.0,-2.0
2025-06-05 11:15:19.413,0.038326018,-0.019900322,-0.017128687,0.00369322,0.022710728,-0.007371815,0.0,0.0,0.0,0.04000593,-0.14714055,0.47602594,-0.2012583,0.14269678,0.37318385,-0.17399406,0.14333877,-0.4158578,-0.039467294,-0.106304385,-0.4833735,-0.24885572,0.07452827,-0.045196205,-0.036052857,0.011040844,0.06853996,0.0711818,-0.058764182,0.04572806,0.04029966,0.053130653,0.007892821,0.059601612,-2.0,2.0,-2.0,2.0,2.0,-2.0,2.0,-2.0,-2.0,-2.0,-2.0,-2.0,-2.0,2.0,-2.0,2.0,2.0,-2.0,2.0,-2.0,-2.0,-2.0,-2.0,-2.0
2025-06-05 11:15:19.433,0.033187356,0.0012921736,0.03195526,-0.026992267,-0.019655788,0.009672313,0.0,0.0,0.0,0.0400057,-0.14795017,0.49089023,-0.21146354,0.15026778,0.36372858,-0.16682076,0.12679152,-0.42005193,-0.030448118,-0.102245376,-0.4795664,-0.2572882,0.0686095,-0.050219927,-0.017272504,-0.033215154,-0.003310305,0.06966042,-0.02891786,0.07419146,-0.0147751765,0.058974713,-0.00036128866,-0.0040654126,-2.0,2.0,-2.0,2.0,2.0,-2.0,2.0,-2.0,-2.0,-2.0,-2.0,-2.0,-2.0,2.0,-2.0,2.0,2.0,-2.0,2.0,-2.0,-2.0,-2.0,-2.0,-2.0
2025-06-05 11:15:19.453,-0.020197961,0.015153087,-0.018454324,-0.05994302,-0.02367493,0.025389917,0.0,0.0,0.0,0.04000547,-0.14937305,0.48947397,-0.21115845,0.14129902,0.3613437,-0.17344873,0.1308245,-0.4098475,-0.030224228,-0.10101422,-0.48282248,-0.2564562,0.061203614,-0.009929431,-0.06582479,0.045022313,0.07209208,0.07444862,0.020794097,-0.010042518,-0.06570558,0.0166273,0.006662657,-0.022528648,-2.0,2.0,-2.0,2.0,2.0,-2.0,2.0,-2.0,-2.0,-2.0,-2.0,-2.0,-2.0,2.0,-2.0,2.0,2.0,-2.0,2.0,-2.0,-2.0,-2.0,-2.0,-2.0
2025-06-05 11:15:19.473,-0.017283622,-0.015751934,-0.040369455,-0.04453627,-0.033185713,0.0025876036,0.0,0.0,0.0,0.040005255,-0.15122797,0.47997558,-0.214803,0.14479595,0.3637817,-0.16972251,0.13913618,-0.40318498,-0.043718953,-0.111132674,-0.47692573,-0.24053377,-0.004555097,-0.03724494,-0.027303616,-0.03224603,0.019108523,0.074616745,0.015763257,0.06530943,0.019375449,-0.03749116,0.06505656,0.036756396,-2.0,2.0,-2.0,2.0,2.0,-2.0,2.0,-2.0,-2.0,-2.0,-2.0,-2.0,-2.0,2.0,-2.0,2.0,2.0,-2.0,2.0,-2.0,-2.0,-2.0,-2.0,-2.0
2025-06-05 11:15:19.495,0.013722432,-0.008326294,0.018496402,-0.023473172,0.05077895,0.016616223,0.0,0.0,0.0,0.040005047,-0.15500817,0.47423095,-0.20962143,0.15176794,0.36410362,-0.16133276,0.12855183,-0.4018259,-0.047358915,-0.11124346,-0.489008,-0.24381778,-0.038703177,0.010999237,0.07388084,-0.046057876,-0.023322448,0.06653399,0.007864113,-0.05728955,-0.021508157,0.010211696,0.015171786,0.02419418,-2.0,2.0,-2.0,2.0,2.0,-2.0,2.0,-2.0,-2.0,-2.0,-2.0,-2.0,-2.0,2.0,-2.0,2.0,2.0,-2.0,2.0,-2.0,-2.0,-2.0,-2.0,-2.0
2025-06-05 11:15:19.514,-0.04190816,0.02036791,-0.022555051,-0.01113932,-0.025868865,-0.03272225,0.0,0.0,0.0,0.040004853,-0.15505421,0.4862427,-0.20890364,0.13336818,0.36976606,-0.16597497,0.12669222,-0.40424588,-0.034570463,-0.11299841,-0.49005088,-0.24531955,0.0023057219,-0.02712707,0.046463136,-0.07170813,-0.05898074,0.0039716503,-0.0595496,0.062529325,-0.063606,-0.019467738,0.026842723,0.05294629,-2.0,2.0,-2.0,2.0,2.0,-2.0,2.0,-2.0,-2.0,-2.0,-2.0,-2.0,-2.0,2.0,-2.0,2.0,2.0,-2.0,2.0,-2.0,-2.0,-2.0,-2.0,-2.0
2025-06-05 11:15:19.534,0.02254229,0.049777493,0.04484831,0.017946979,-0.037089244,-0.023955332,0.0,0.0,0.0,0.04000467,-0.15720078,0.48995245,-0.20280764,0.13403744,0.3649898,-0.16643298,0.13040216,-0.40923643,-0.044440906,-0.109157845,-0.4769539,-0.25214556,0.0009349547,0.050169416,-0.054615274,0.0018765606,-0.013434184,0.020697288,-0.0073172757,0.05308401,0.028811468,-0.017928053,0.060446773,0.052790094,-2.0,2.0,-2.0,2.0,2.0,-2.0,2.0,-2.0,-2.0,-2.0,-2.0,-2.0,-2.0,2.0,-2.0,2.0,2.0,-2.0,2.0,-2.0,-2.0,-2.0,-2.0,-2.0
2025-06-05 11:15:19.554,-0.049280923,-0.010388506,0.0069172084,-0.0054379627,-0.008611681,0.030786138,0.0,0.0,0.0,0.0400045,-0.14806119,0.47771192,-0.2195103,0.139461,0.37320313,-0.16597055,0.12662305,-0.41921338,-0.045507845,-0.09930746,-0.4803258,-0.24692129,0.07296074,-0.041021165,-0.065007284,-0.02859352,-0.013822104,0.03718904,0.049762353,0.008186865,-0.041173417,-0.028723301,0.053092375,0.031012505,-2.0,2.0,-2.0,2.0,2.0,-2.0,2.0,-2.0,-2.0,-2.0,-2.0,-2.0,-2.0,2.0,-2.0,2.0,2.0,-2.0,2.0,-2.0,-2.0,-2.0,-2.0,-2.0
2025-06-05 11:15:19.574,-0.04923688,-0.012310045,0.025027407,-0.037864365,0.02882076,-0.012004469,0.0,0.0,0.0,0.040004347,-0.14745817,0.47685805,-0.20502658,0.14708817,0.35843256,-0.1668612,0.13612184,-0.41338015,-0.04248039,-0.11263015,-0.480278,-0.2512504,0.063521035,0.035366304,0.029846288,-0.020754104,0.059229933,-0.0011645498,-0.042331062,-0.021292033,-0.02819249,-0.04085568,-0.031464398,0.02200691,-2.0,2.0,-2.0,2.0,2.0,-2.0,2.0,-2.0,-2.0,-2.0,-2.0,-2.0,-2.0,2.0,-2.0,2.0,2.0,-2.0,2.0,-2.0,-2.0,-2.0,-2.0,-2.0
2025-06-05 11:15:19.595,-0.019850064,0.031734776,0.044470746,-0.060813624,0.01815233,0.0111075165,0.0,0.0,0.0,0.0400042,-0.14547332,0.49224356,-0.21225387,0.14669329,0.3634529,-0.17746766,0.12959053,-0.40601075,-0.029454611,-0.09455309,-0.4768507,-0.23975256,0.015231022,-0.064795844,0.012143235,-0.07486141,-0.014998605,0.07483665,-0.036893785,0.030510273,-0.047168747,-0.018170383,0.06999091,0.035864536,-2.0,2.0,-2.0,2.0,2.0,-2.0,2.0,-2.0,-2.0,-2.0,-2.0,-2.0,-2.0,2.0,-2.0,2.0,2.0,-2.0,2.0,-2.0,-2.0,-2.0,-2.0,-2.0
2025-06-05 11:15:19.614,0.043255337,0.031230796,-0.028636923,-0.077266194,0.044960868,0.021186395,0.0,0.0,0.0,0.04000407,-0.14888927,0.48850015,-0.21801881,0.14871617,0.37220252,-0.16805135,0.13837507,-0.4201662,-0.035212032,-0.113440745,-0.48560786,-0.23913442,-0.0050742417,-0.062644586,-0.03557028,-0.049892914,-0.05651244,0.0012592705,0.011985779,0.012328502,-0.01855419,-0.04877773,0.052158806,-0.022707764,-2.0,2.0,-2.0,2.0,2.0,-2.0,2.0,-2.0,-2.0,-2.0,-2.0,-2.0,-2.0,2.0,-2.0,2.0,2.0,-2.0,2.0,-2.0,-2.0,-2.0,-2.0,-2.0
2025-06-05 11:15:19.634,0.008344953,-0.031212756,0.018572534,-0.054781258,0.016989341,0.03459094,0.0,0.0,0.0,0.040003955,-0.1491363,0.4887531,-0.20933406,0.13906333,0.375833,-0.17927445,0.12456903,-0.41975653,-0.0301969,-0.10485413,-0.48619184,-0.24412285,-0.0013402358,0.011979351,0.0219168,0.051359173,0.0033276135,0.06470146,0.01606537,-0.05616448,0.035738863,0.048296984,-0.06610432,0.056758214,-2.0,2.0,-2.0,2.0,2.0,-2.0,2.0,-2.0,-2.0,-2.0,-2.0,-2.0,-2.0,2.0,-2.0,2.0,2.0,-2.0,2.0,-2.0,-2.0,-2.0,-2.0,-2.0
2025-06-05 11:15:19.654,0.026551995,0.039746974,0.018582525,-0.07671577,-0.029253444,-0.043336175,0.0,0.0,0.0,0.040003847,-0.15417087,0.48608685,-0.2190021,0.13830845,0.36584407,-0.16660802,0.13033397,-0.42120984,-0.0429609,-0.09443929,-0.4859696,-0.24514563,0.014823027,-0.0123792635,-0.016853957,-0.016662069,0.07211399,-0.066753924,-0.01976747,-0.030023837,0.0063086273,0.03199153,0.016924711,-0.06001383,-2.0,2.0,-2.0,2.0,2.0,-2.0,2.0,-2.0,-2.0,-2.0,-2.0,-2.0,-2.0,2.0,-2.0,2.0,2.0,-2.0,2.0,-2.0,-2.0,-2.0,-2.0,-2.0
2025-06-05 11:15:19.674,0.008060257,0.009157808,-0.033392016,-0.017083958,0.047045533,-0.013698727,0.0,0.0,0.0,0.040003747,-0.15942322,0.49291798,-0.20263584,0.13837527,0.37626535,-0.17605576,0.12579073,-0.403954,-0.04326829,-0.09870314,-0.4915022,-0.2397119,0.03737089,0.07169124,0.036633972,-0.00055108045,-0.042945154,0.06044208,-0.033144474,-0.04851039,-0.057039436,-0.0255335,0.048424866,-0.0643417,-2.0,2.0,-2.0,2.0,2.0,-2.0,2.0,-2.0,-2.0,-2.0,-2.0,-2.0,-2.0,2.0,-2.0,2.0,2.0,-2.0,2.0,-2.0,-2.0,-2.0,-2.0,-2.0
2025-06-05 11:15:19.695,-0.0056947307,-0.021905074,0.041140832,-0.011020306,-0.013803402,-0.048480827,0.0,0.0,0.0,0.040003657,-0.15755111,0.4858878,-0.21241298,0.14601603,0.3666678,-0.17481308,0.14360951,-0.40377384,-0.04805123,-0.0972689,-0.47489384,-0.2585237,0.019732486,0.06695456,0.053902082,0.049651034,0.052918047,-0.017845714,0.047447834,-0.07052769,0.045944188,-0.036020808,0.023377836,-0.07090622,-2.0,2.0,-2.0,2.0,2.0,-2.0,2.0,-2.0,-2.0,-2.0,-2.0,-2.0,-2.0,2.0,-2.0,2.0,2.0,-2.0,2.0,-2.0,-2.0,-2.0,-2.0,-2.0
2025-06-05 11:15:19.714,-0.04252447,-0.037767522,-0.0026845196,-0.005407589,0.046799958,-0.027427807,0.0,0.0,0.0,0.040003575,-0.16444114,0.479772,-0.21020848,0.13684846,0.3666431,-0.17482002,0.13121416,-0.4159144,-0.047260072,-0.09674955,-0.48985174,-0.25386307,0.054131143,-0.0307473,-0.071954034,-0.025979917,-0.048951823,0.028205605,0.023431119,-0.0074383407,-0.06248921,0.0612458,0.01938244,-0.04800997,-2.0,2.0,-2.0,2.0,2.0,-2.0,2.0,-2.0,-2.0,-2.0,-2.0,-2.0,-2.0,2.0,-2.0,2.0,2.0,-2.0,2.0,-2.0,-2.0,-2.0,-2.0,-2.0
2025-06-05 11:15:19.735,0.0067228586,0.004079381,-0.03531099,0.017825482,0.012848243,-0.0037708804,0.0,0.0,0.0,0.040003497,-0.15958942,0.48001313,-0.21863744,0.13759612,0.36182904,-0.16712852,0.13309792,-0.40555876,-0.043013297,-0.098241046,-0.48826975,-0.2519327,-0.040158123,0.00086940866,0.02394394,-0.050420053,0.026853364,-0.057399485,-0.016539462,0.044675916,0.03637719,0.060396887,-0.048521157,-0.015636386,-2.0,2.0,-2.0,2.0,2.0,-2.0,2.0,-2.0,-2.0,-2.0,-2.0,-2.0,-2.0,2.0,-2.0,2.0,2.0,-2.0,2.0,-2.0,-2.0,-2.0,-2.0,-2.0
2025-06-05 11:15:19.754,-0.011571571,-0.020839019,0.036350287,0.0070813033,0.020189594,0.030831695,0.0,0.0,0.0,0.040003423,-0.15805814,0.480663,-0.22034808,0.13823412,0.3669362,-0.16101064,0.13283312,-0.4168176,-0.03383658,-0.098481,-0.48319453,-0.24969323,0.057428494,0.04465105,0.021470705,-0.007287587,0.069716446,0.012963427,-0.04939069,0.07051758,-0.048330154,-0.034575563,0.024453323,0.00718622,-2.0,2.0,-2.0,2.0,2.0,-2.0,2.0,-2.0,-2.0,-2.0,-2.0,-2.0,-2.0,2.0,-2.0,2.0,2.0,-2.0,2.0,-2.0,-2.0,-2.0,-2.0,-2.0
2025-06-05 11:15:19.777,-0.037895083,-0.04768754,0.031691793,-0.014120685,0.030068515,-0.024730535,0.0,0.0,0.0,0.040003352,-0.14715604,0.48664418,-0.21874893,0.14275035,0.35960507,-0.17315516,0.12893252,-0.41158938,-0.038457356,-0.10376929,-0.4867985,-0.23986354,-0.038349446,-0.016851759,0.0091375755,-0.058495976,-0.06708955,0.06690903,0.005224945,0.06611529,0.037370708,-0.01917207,0.055946074,0.026680922,-2.0,2.0,-2.0,2.0,2.0,-2.0,2.0,-2.0,-2.0,-2.0,-2.0,-2.0,-2.0,2.0,-2.0,2.0,2.0,-2.0,2.0,-2.0,-2.0,-2.0,-2.0,-2.0
2025-06-05 11:15:19.795,-0.019884795,0.009777581,-0.04948872,0.013550402,0.007727673,0.0320947,0.0,0.0,0.0,0.040003285,-0.14933927,0.4926252,-0.20712909,0.14736296,0.36185727,-0.1750979,0.13369086,-0.41588885,-0.031064974,-0.10755841,-0.4766255,-0.24737541,0.037445433,-0.036951277,-0.012510281,-0.00931413,-0.05838527,0.03973962,0.024143254,0.022906413,0.015675139,-0.06189474,-0.06310431,-0.023100046,-2.0,2.0,-2.0,2.0,2.0,-2.0,2.0,-2.0,-2.0,-2.0,-2.0,-2.0,-2.0,2.0,-2.0,2.0,2.0,-2.0,2.0,-2.0,-2.0,-2.0,-2.0,-2.0
2025-06-05 11:15:19.815,-0.011392287,0.032379083,-0.0073318947,-0.057155095,0.026575625,-0.029982448,0.0,0.0,0.0,0.04000322,-0.14544915,0.48785436,-0.2073578,0.14934291,0.36642185,-0.16991484,0.12749945,-0.4103773,-0.04668371,-0.106758095,-0.4812243,-0.2569314,0.036190983,0.023295986,-0.015676623,-0.04765111,0.034128144,0.024413297,0.07121721,-0.0010697937,-0.04683766,0.0023485853,0.07274925,0.03659716,-2.0,2.0,-2.0,2.0,2.0,-2.0,2.0,-2.0,-2.0,-2.0,-2.0,-2.0,-2.0,2.0,-2.0,2.0,2.0,-2.0,2.0,-2.0,-2.0,-2.0,-2.0,-2.0
2025-06-05 11:15:19.834,0.012052048,-0.014990102,-0.012997264,-0.017082745,-0.00035694282,0.047422424,0.0,0.0,0.0,0.040003162,-0.16084895,0.47368252,-0.21852621,0.15241504,0.36455974,-0.17538427,0.13365339,-0.4161558,-0.033361387,-0.10744628,-0.48127538,-0.24217528,-0.040294193,-0.062254395,-0.056482915,-0.023375941,-0.054724727,-0.010490159,-0.017534442,-0.04114024,-0.011345812,0.006147908,0.002017298,-0.047910288,-2.0,2.0,-2.0,2.0,2.0,-2.0,2.0,-2.0,-2.0,-2.0,-2.0,-2.0,-2.0,2.0,-2.0,2.0,2.0,-2.0,2.0,-2.0,-2.0,-2.0,-2.0,-2.0
2025-06-05 11:15:19.855,0.0005556145,0.016558247,-0.030763216,-0.063301705,0.03472975,-0.007209683,0.0,0.0,0.0,0.040003106,-0.1553752,0.48456794,-0.20372547,0.14494081,0.37493044,-0.17803547,0.13716625,-0.4184987,-0.044226397,-0.09466991,-0.48362026,-0.2501051,-0.06673715,0.04297787,0.058430266,0.008849544,-0.045493275,-0.035367448,0.06275995,0.0032700922,0.028460268,0.04123608,0.068458855,0.024089146,-2.0,2.0,-2.0,2.0,2.0,-2.0,2.0,-2.0,-2.0,-2.0,-2.0,-2.0,-2.0,2.0,-2.0,2.0,2.0,-2.0,2.0,-2.0,-2.0,-2.0,-2.0,-2.0
2025-06-05 11:15:19.877,0.047941986,0.033281747,0.03146347,-0.04231455,0.0031556764,0.006139835,0.0,0.0,0.0,0.040003054,-0.1512922,0.48331806,-0.22027983,0.14927144,0.35802114,-0.16549163,0.13391489,-0.40697438,-0.03855767,-0.10026985,-0.48083013,-0.23996326,-0.06487492,-0.024541432,0.052644007,0.029707897,0.045014776,0.05740111,-0.024935748,0.02000106,0.04291674,0.0019854393,-6.686101e-05,-0.051584724,-2.0,2.0,-2.0,2.0,2.0,-2.0,2.0,-2.0,-2.0,-2.0,-2.0,-2.0,-2.0,2.0,-2.0,2.0,2.0,-2.0,2.0,-2.0,-2.0,-2.0,-2.0,-2.0
2025-06-05 11:15:19.895,-0.02965802,0.03095486,-0.016052017,-0.07888532,-0.033554412,-0.0018320074,0.0,0.0,0.0,0.040003005,-0.14925951,0.49054047,-0.20208481,0.13356556,0.3658592,-0.17696518,0.12736301,-0.4090645,-0.029545508,-0.10516498,-0.48498794,-0.24052759,0.070039324,0.02652929,0.018894156,-0.013246056,0.01486037,-0.05360977,-0.06237265,0.06826691,0.063791625,-0.06747482,-0.020400658,-0.042912833,-2.0,2.0,-2.0,2.0,2.0,-2.0,2.0,-2.0,-2.0,-2.0,-2.0,-2.0,-2.0,2.0,-2.0,2.0,2.0,-2.0,2.0,-2.0,-2.0,-2.0,-2.0,-2.0
2025-06-05 11:15:19.915,0.040723693,-0.0022820916,0.04624798,-0.0764441,0.011190682,0.040156633,0.0,0.0,0.0,0.040002957,-0.16378506,0.49042234,-0.21921849,0.15253878,0.36343625,-0.17479089,0.12859383,-0.4090875,-0.03067765,-0.099007085,-0.49049434,-0.25236094,0.04569472,-0.043476246,0.06764961,-0.042238146,-0.06517413,-0.0638466,-0.016793208,0.057621375,0.015394312,0.0060768626,-0.0034023055,0.04549676,-2.0,2.0,-2.0,2.0,2.0,-2.0,2.0,-2.0,-2.0,-2.0,-2.0,-2.0,-2.0,2.0,-2.0,2.0,2.0,-2.0,2.0,-2.0,-2.0,-2.0,-2.0,-2.0
2025-06-05 11:15:19.935,-0.04348881,-0.029095031,0.017217224,-0.07844998,0.04297089,-0.037643466,0.0,0.0,0.0,0.040002916,-0.14646474,0.47910178,-0.2074317,0.1415069,0.37293756,-0.17579085,0.13691573,-0.4021499,-0.03573687,-0.09983342,-0.4734926,-0.25373286,0.024348855,-0.06842288,-0.011922434,-0.0119390795,-0.06808312,-0.073118635,0.042506132,-0.017935757,0.06537988,0.021641511,0.045625698,-0.060556773,-2.0,2.0,-2.0,2.0,2.0,-2.0,2.0,-2.0,-2.0,-2.0,-2.0,-2.0,-2.0,2.0,-2.0,2.0,2.0,-2.0,2.0,-2.0,-2.0,-2.0,-2.0,-2.0
2025-06-05 11:15:19.955,-0.027483562,-0.029366422,0.021077648,-0.06475131,0.024044685,0.014926963,0.0,0.0,0.0,0.040002875,-0.16164044,0.4917293,-0.2022838,0.1503121,0.36261514,-0.17351152,0.12661631,-0.40576094,-0.03698942,-0.097100906,-0.48510754,-0.25294837,0.024178887,0.019144492,-0.063844584,0.036581963,-0.01879568,0.024112487,0.025356412,-0.05270626,0.013616607,-0.053639468,0.044132836,0.005680471,-2.0,2.0,-2.0,2.0,2.0,-2.0,2.0,-2.0,-2.0,-2.0,-2.0,-2.0,-2.0,2.0,-2.0,2.0,2.0,-2.0,2.0,-2.0,-2.0,-2.0,-2.0,-2.0
2025-06-05 11:15:19.977,0.039314795,0.042834833,-0.04947539,-0.0058158357,0.0495425,0.032671157,0.0,0.0,0.0,0.040002838,-0.14628951,0.48970377,-0.20444666,0.13854589,0.3722802,-0.16640548,0.12768981,-0.41220444,-0.039014887,-0.10716517,-0.48470744,-0.24626704,0.0030378245,0.07296417,0.02434653,0.027427027,-0.0071067493,-0.012461148,0.04865226,-0.06419098,-0.055673312,0.039688695,0.027077159,-0.020805093,-2.0,2.0,-2.0,2.0,2.0,-2.0,2.0,-2.0,-2.0,-2.0,-2.0,-2.0,-2.0,2.0,-2.0,2.0,2.0,-2.0,2.0,-2.0,-2.0,-2.0,-2.0,-2.0
2025-06-05 11:15:19.995,0.0120354,-0.049460143,0.04116567,-0.013960869,0.025749018,-0.031684138,0.0,0.0,0.0,0.0400028,-0.16170551,0.47809237,-0.21776335,0.14027023,0.37473923,-0.16126046,0.12838131,-0.40643916,-0.032625776,-0.09780414,-0.49020174,-0.2458222,0.071425065,0.07294689,-0.061374385,0.056651335,-0.049125347,-0.018213466,-0.012139287,-0.023256186,-0.057398528,0.002102331,-0.044424623,-0.065811105,-2.0,2.0,-2.0,2.0,2.0,-2.0,2.0,-2.0,-2.0,-2.0,-2.0,-2.0,-2.0,2.0,-2.0,2.0,2.0,-2.0,2.0,-2.0,-2.0,-2.0,-2.0,-2.0
2025-06-05 11:15:20.016,-3.987166e-05,0.030667914,0.019474322,0.011672994,0.0064229555,0.036880087,0.0,0.0,0.0,0.040002767,-0.16205098,0.48338252,-0.21846922,0.15079525,0.3670774,-0.1778818,0.14133342,-0.41581655,-0.0399076,-0.09812185,-0.48440996,-0.24356075,-0.07299046,0.028223041,-0.026572242,0.025147425,-0.059235904,-0.07420491,-0.060223434,-0.068584114,-0.070671156,-0.057191532,-0.07429469,0.009834521,-2.0,2.0,-2.0,2.0,2.0,-2.0,2.0,-2.0,-2.0,-2.0,-2.0,-2.0,-2.0,2.0,-2.0,2.0,2.0,-2.0,2.0,-2.0,-2.0,-2.0,-2.0,-2.0
2025-06-05 11:15:20.036,-0.010890246,0.043817665,-0.0033982007,-0.04654997,0.00428217,0.043844502,0.0,0.0,0.0,0.040002737,-0.15642402,0.48810855,-0.20155643,0.14441872,0.37241524,-0.17436337,0.12519844,-0.40865442,-0.041397244,-0.1021803,-0.48641446,-0.24451011,0.017258741,-0.06723193,-0.058523756,0.06025895,-0.0002444991,-0.055773366,0.0025481833,0.06584745,-0.031566195,-0.06828104,-0.06848955,0.030703159,-2.0,2.0,-2.0,2.0,2.0,-2.0,2.0,-2.0,-2.0,-2.0,-2.0,-2.0,-2.0,2.0,-2.0,2.0,2.0,-2.0,2.0,-2.0,-2.0,-2.0,-2.0,-2.0
2025-06-05 11:15:20.055,0.01469278,-0.009779057,-0.008959412,-0.03072158,0.054783445,-0.020029543,0.0,0.0,0.0,0.040002707,-0.1498599,0.47367066,-0.21063137,0.13730806,0.3601315,-0.16409372,0.14277902,-0.41621304,-0.036111943,-0.09467078,-0.48627865,-0.24100618,-0.00808542,0.060539123,-0.02573522,-0.0012578072,-0.047540322,0.048662864,-0.017568223,-0.0067471443,-0.021978779,0.04737662,-0.06655199,-0.07100829,-2.0,2.0,-2.0,2.0,2.0,-2.0,2.0,-2.0,-2.0,-2.0,-2.0,-2.0,-2.0,2.0,-2.0,2.0,2.0,-2.0,2.0,-2.0,-2.0,-2.0,-2.0,-2.0
2025-06-05 11:15:20.079,0.048443947,0.038736496,-0.03332258,-0.06453244,-0.008977381,0.030763416,0.0,0.0,0.0,0.04000268,-0.16239782,0.49289623,-0.20463528,0.1515207,0.37380546,-0.16486388,0.13741428,-0.41760328,-0.048545297,-0.10852741,-0.4923181,-0.24629608,0.072652616,0.040415328,-0.011479339,0.05604249,0.044851925,-0.0069421465,0.028570559,-0.05201534,0.03429557,-0.04271941,0.064352825,-0.06171549,-2.0,2.0,-2.0,2.0,2.0,-2.0,2.0,-2.0,-2.0,-2.0,-2.0,-2.0,-2.0,2.0,-2.0,2.0,2.0,-2.0,2.0,-2.0,-2.0,-2.0,-2.0,-2.0
2025-06-05 11:15:20.096,-0.03671775,-0.017676534,-0.043308184,-0.017420357,0.059438117,-0.0077629075,0.0,0.0,0.0,0.04000266,-0.1623235,0.48680905,-0.21551827,0.13810676,0.36790228,-0.16141878,0.14036827,-0.41563526,-0.035236366,-0.09824502,-0.4819193,-0.24525517,-0.019681718,-0.022685764,-0.05471126,-0.050642177,0.06942861,0.00354954,-0.064302884,0.053366978,-0.004946482,-0.04813234,0.0021055883,0.032102842,-2.0,2.0,-2.0,2.0,2.0,-2.0,2.0,-2.0,-2.0,-2.0,-2.0,-2.0,-2.0,2.0,-2.0,2.0,2.0,-2.0,2.0,-2.0,-2.0,-2.0,-2.0,-2.0
2025-06-05 11:15:20.116,0.037790928,0.017249998,-0.027185304,-0.012875528,-0.02396208,-0.036794163,0.0,0.0,0.0,0.040002637,-0.1502569,0.4854616,-0.20694877,0.13350107,0.369355,-0.16153596,0.13568926,-0.4071373,-0.03786405,-0.11117193,-0.48896235,-0.25692928,-0.018631773,-0.060725123,-0.06142037,-0.032463107,-0.026257074,-0.034226295,-0.0046009747,0.035689216,-0.023999088,-0.013907467,-0.032338783,-0.031128932,-2.0,2.0,-2.0,2.0,2.0,-2.0,2.0,-2.0,-2.0,-2.0,-2.0,-2.0,-2.0,2.0,-2.0,2.0,2.0,-2.0,2.0,-2.0,-2.0,-2.0,-2.0,-2.0
2025-06-05 11:15:20.136,-0.012148701,-0.0012891114,0.04900521,-0.03512365,0.04548924,0.037175324,0.0,0.0,0.0,0.040002614,-0.15363409,0.49216998,-0.21507181,0.14992614,0.37158826,-0.1728463,0.13950263,-0.40279287,-0.047101196,-0.09806085,-0.48016062,-0.25740626,0.071292214,-0.004128145,0.012689308,-0.028329125,-0.028749267,0.029727168,-0.04326017,-0.018712573,-0.07186869,0.054424867,0.060689665,-0.028906051,-2.0,2.0,-2.0,2.0,2.0,-2.0,2.0,-2.0,-2.0,-2.0,-2.0,-2.0,-2.0,2.0,-2.0,2.0,2.0,-2.0,2.0,-2.0,-2.0,-2.0,-2.0,-2.0
2025-06-05 11:15:20.156,0.012043881,-0.029180676,0.03637062,0.0184176,-0.024624856,0.020470012,0.0,0.0,0.0,0.040002596,-0.15650867,0.4891626,-0.21391518,0.14582545,0.36623394,-0.16658965,0.13436708,-0.41340476,-0.037913263,-0.09673201,-0.48960736,-0.24351747,-0.055152226,0.06388794,0.033867925,0.030140681,0.043084238,-0.072287746,-0.018244764,-0.07431555,-0.056743912,0.0008534725,0.024097705,0.05597871,-2.0,2.0,-2.0,2.0,2.0,-2.0,2.0,-2.0,-2.0,-2.0,-2.0,-2.0,-2.0,2.0,-2.0,2.0,2.0,-2.0,2.0,-2.0,-2.0,-2.0,-2.0,-2.0
2025-06-05 11:15:20.179,0.038874183,-0.012552037,0.02407075,-0.060257744,-0.0025435523,-0.027373826,0.0,0.0,0.0,0.040002577,-0.14490943,0.48673022,-0.20656133,0.1462785,0.35749188,-0.16335139,0.13458043,-0.40530303,-0.0342498,-0.10486344,-0.49173522,-0.24353985,-0.021597337,0.058531646,-0.037382364,0.052985933,-0.009015419,0.009679012,-0.0060514524,0.056593586,0.010747398,-0.057398744,-0.06702849,0.025195478,-2.0,2.0,-2.0,2.0,2.0,-2.0,2.0,-2.0,-2.0,-2.0,-2.0,-2.0,-2.0,2.0,-2.0,2.0,2.0,-2.0,2.0,-2.0,-2.0,-2.0,-2.0,-2.0
2025-06-05 11:15:20.196,0.04959612,0.038830224,-0.008291685,-0.04722558,-0.035953943,0.033991877,0.0,0.0,0.0,0.04000256,-0.1489648,0.49154338,-0.20194422,0.14053334,0.36685777,-0.16169317,0.14187013,-0.41881922,-0.04409779,-0.104163885,-0.4776077,-0.24237612,-0.048410855,0.014333568,-0.022901854,0.021277566,-0.07161053,-0.033272054,0.010186412,0.008494104,-0.035371237,0.042287126,-0.04264857,-0.011866544,-2.0,2.0,-2.0,2.0,2.0,-2.0,2.0,-2.0,-2.0,-2.0,-2.0,-2.0,-2.0,2.0,-2.0,2.0,2.0,-2.0,2.0,-2.0,-2.0,-2.0,-2.0,-2.0
2025-06-05 11:15:20.217,-0.008605182,-0.045416515,0.026356295,0.004672974,-0.027187195,-0.00525385,0.0,0.0,0.0,0.040002543,-0.14896788,0.4817306,-0.2030247,0.14769946,0.36508286,-0.1703239,0.1320194,-0.41415232,-0.043991502,-0.10901519,-0.48317116,-0.24808395,-0.030174145,-0.0716245,-0.016864438,0.008800962,0.041359745,-0.061523255,-0.03190918,0.041488655,-0.014244795,-0.06887,-0.048116412,-0.05974856,-2.0,2.0,-2.0,2.0,2.0,-2.0,2.0,-2.0,-2.0,-2.0,-2.0,-2.0,-2.0,2.0,-2.0,2.0,2.0,-2.0,2.0,-2.0,-2.0,-2.0,-2.0,-2.0
2025-06-05 11:15:20.236,-0.015045202,-0.02240426,-0.04578626,-0.011955349,0.05224095,-0.008910516,0.0,0.0,0.0,0.04000253,-0.14955762,0.4827758,-0.21494544,0.14853184,0.37309974,-0.17407359,0.1352881,-0.4086508,-0.038797844,-0.09921321,-0.49002752,-0.24385014,-0.04758078,0.017139709,0.06334274,-0.06230855,-0.027808426,-0.034628253,-0.0040918174,-0.041316945,0.031674825,0.06400624,-0.0011955511,0.03722722,-2.0,2.0,-2.0,2.0,2.0,-2.0,2.0,-2.0,-2.0,-2.0,-2.0,-2.0,-2.0,2.0,-2.0,2.0,2.0,-2.0,2.0,-2.0,-2.0,-2.0,-2.0,-2.0
2025-06-05 11:15:20.256,-0.010483545,0.011691836,0.019503264,-0.06486646,0.037987206,-0.043499965,0.0,0.0,0.0,0.040002514,-0.15977192,0.48077935,-0.21195099,0.1478536,0.37325388,-0.16995971,0.1436277,-0.40953395,-0.038103163,-0.10493995,-0.47614783,-0.24313447,-0.037431914,0.06362133,0.049675133,-0.013499764,-0.059659805,-0.037973333,0.0025010025,0.055285864,0.058899287,-0.0045856484,-0.0021670808,-0.074941926,-2.0,2.0,-2.0,2.0,2.0,-2.0,2.0,-2.0,-2.0,-2.0,-2.0,-2.0,-2.0,2.0,-2.0,2.0,2.0,-2.0,2.0,-2.0,-2.0,-2.0,-2.0,-2.0
2025-06-05 11:15:20.279,-0.04629667,0.022503352,-0.02086539,-0.055689253,-0.01725915,0.040099274,0.0,0.0,0.0,0.040002503,-0.14566933,0.48660952,-0.20296735,0.1486042,0.3607053,-0.17933702,0.13895255,-0.40225205,-0.044024855,-0.094846085,-0.4787654,-0.24125692,0.07100848,0.07430221,-0.015733093,0.047908004,0.042420097,0.05282982,0.038967773,0.06255237,0.06633496,-0.052871563,0.026120134,0.06601029,-2.0,2.0,-2.0,2.0,2.0,-2.0,2.0,-2.0,-2.0,-2.0,-2.0,-2.0,-2.0,2.0,-2.0,2.0,2.0,-2.0,2.0,-2.0,-2.0,-2.0,-2.0,-2.0
2025-06-05 11:15:20.296,0.02326568,0.040778685,0.026368162,-0.031265408,0.048141368,-0.019014163,0.0,0.0,0.0,0.04000249,-0.14944251,0.48911682,-0.21489097,0.14008597,0.36170533,-0.16865899,0.13062549,-0.40541106,-0.04728742,-0.110156976,-0.47589386,-0.24913913,0.015653124,0.041698623,-0.032035418,-0.03773017,-0.0067453277,-0.066154934,0.0034229103,-0.0703025,0.037171192,-0.025799688,0.045941588,0.043956332,-2.0,2.0,-2.0,2.0,2.0,-2.0,2.0,-2.0,-2.0,-2.0,-2.0,-2.0,-2.0,2.0,-2.0,2.0,2.0,-2.0,2.0,-2.0,-2.0,-2.0,-2.0,-2.0
2025-06-05 11:15:20.316,0.006509489,0.022890283,0.010694483,-0.0017359882,-0.030860286,-0.04801232,0.0,0.0,0.0,0.04000248,-0.16317408,0.47365773,-0.21221493,0.14242195,0.37278336,-0.1670652,0.12617679,-0.4158942,-0.038144574,-0.110122494,-0.48760083,-0.25388354,-0.0042132717,0.056454632,-0.05574818,0.06424966,0.03490874,0.016515328,-0.067432985,0.047480844,-0.021703335,0.037235077,-0.0054586567,-0.008491677,-2.0,2.0,-2.0,2.0,2.0,-2.0,2.0,-2.0,-2.0,-2.0,-2.0,-2.0,-2.0,2.0,-2.0,2.0,2.0,-2.0,2.0,-2.0,-2.0,-2.0,-2.0,-2.0
2025-06-05 11:15:20.336,0.0343848,-0.009129298,0.045293696,-0.011322484,-0.0067758346,0.010844819,0.0,0.0,0.0,0.04000247,-0.16188654,0.48309243,-0.20836005,0.13395731,0.3690667,-0.16896485,0.1342536,-0.41377676,-0.04078909,-0.09750372,-0.4871839,-0.24021892,-0.020701448,-0.058238626,-0.05098983,0.01967095,-0.041352738,0.061077725,0.053426996,0.071619965,0.026663557,0.04435878,0.056615315,0.02692309,-2.0,2.0,-2.0,2.0,2.0,-2.0,2.0,-2.0,-2.0,-2.0,-2.0,-2.0,-2.0,2.0,-2.0,2.0,2.0,-2.0,2.0,-2.0,-2.0,-2.0,-2.0,-2.0
2025-06-05 11:15:20.356,0.024428986,-0.03659522,0.0456081,0.012510392,-0.03168158,0.032672204,0.0,0.0,0.0,0.04000246,-0.15871656,0.4911671,-0.2017368,0.14871609,0.3605488,-0.16194077,0.14335556,-0.41891176,-0.040803824,-0.10352589,-0.48159224,-0.24159642,-0.04882192,-0.051037446,-0.06954142,0.037800036,0.023225911,-0.05380057,-0.06911779,-0.055887774,-0.05523644,-0.07078232,-0.042458333,0.042585973,-2.0,2.0,-2.0,2.0,2.0,-2.0,2.0,-2.0,-2.0,-2.0,-2.0,-2.0,-2.0,2.0,-2.0,2.0,2.0,-2.0,2.0,-2.0,-2.0,-2.0,-2.0,-2.0
2025-06-05 11:15:20.379,0.012902183,-0.0128531875,-0.044660755,-0.03235543,-0.010381094,-0.029317044,0.0,0.0,0.0,0.040002454,-0.16347937,0.48778644,-0.20799035,0.14589724,0.3769662,-0.17991549,0.14378442,-0.40217546,-0.030250344,-0.10152774,-0.4875921,-0.24728335,0.025290107,0.02356282,-0.07387507,-0.07040514,0.027842069,0.046421062,0.048064463,0.03061726,0.0042345673,0.014805508,0.07140358,0.0612019,-2.0,2.0,-2.0,2.0,2.0,-2.0,2.0,-2.0,-2.0,-2.0,-2.0,-2.0,-2.0,2.0,-2.0,2.0,2.0,-2.0,2.0,-2.0,-2.0,-2.0,-2.0,-2.0
2025-06-05 11:15:20.396,-0.015702052,-0.034748428,0.042051014,-0.06444423,0.036226675,-0.01582548,0.0,0.0,0.0,0.040002447,-0.1533851,0.4863087,-0.20627815,0.13919465,0.37569445,-0.16699107,0.12497228,-0.42168725,-0.043881714,-0.112540506,-0.49029362,-0.25073722,0.0702558,0.0008709575,-0.03384471,0.041255336,-0.0042911465,-0.047740567,-0.031551532,0.048506957,0.018902935,0.0027426747,-0.03169508,-0.06962105,-2.0,2.0,-2.0,2.0,2.0,-2.0,2.0,-2.0,-2.0,-2.0,-2.0,-2.0,-2.0,2.0,-2.0,2.0,2.0,-2.0,2.0,-2.0,-2.0,-2.0,-2.0,-2.0
2025-06-05 11:15:20.416,0.008646489,0.03916863,0.035900794,-0.052047893,-0.02659667,0.025355896,0.0,0.0,0.0,0.04000244,-0.15832515,0.4764551,-0.20295489,0.15198898,0.36700496,-0.16427098,0.13383877,-0.40270045,-0.046867497,-0.11253585,-0.48993847,-0.25316885,-0.05573807,-0.03822533,0.06697588,-0.0065221377,-0.07009669,-0.03293902,-0.070947796,0.042688586,-0.059729323,0.005182146,0.032583512,-0.03786538,-2.0,2.0,-2.0,2.0,2.0,-2.0,2.0,-2.0,-2.0,-2.0,-2.0,-2.0,-2.0,2.0,-2.0,2.0,2.0,-2.0,2.0,-2.0,-2.0,-2.0,-2.0,-2.0
2025-06-05 11:15:20.436,0.028760731,-0.04381431,-0.032267965,-0.027297862,0.019006073,0.01715384,0.0,0.0,0.0,0.04000243,-0.15188749,0.4766769,-0.21275763,0.1375912,0.37634954,-0.16885313,0.14052936,-0.40633523,-0.039087757,-0.10630442,-0.49010614,-0.24870078,0.03844394,-0.06357639,0.026139133,0.0585513,0.06795107,0.016326623,-0.025869697,0.066587925,-0.004880823,0.056969468,-0.039473176,-0.038316317,-2.0,2.0,-2.0,2.0,2.0,-2.0,2.0,-2.0,-2.0,-2.0,-2.0,-2.0,-2.0,2.0,-2.0,2.0,2.0,-2.0,2.0,-2.0,-2.0,-2.0,-2.0,-2.0
2025-06-05 11:15:20.457,0.020030119,0.0015480168,-0.0011751289,-0.0073436834,-0.030990308,-0.014068562,0.0,0.0,0.0,0.040002424,-0.16347776,0.48256162,-0.21111816,0.14052415,0.3660421,-0.16946375,0.13136873,-0.4179369,-0.040048234,-0.098103635,-0.47653103,-0.25590345,-0.018684726,-0.040340215,-0.025926689,0.071606174,-0.022864383,0.018057164,-0.035294376,0.07238862,-0.044748455,0.053514317,-0.0692673,0.07243703,-2.0,2.0,-2.0,2.0,2.0,-2.0,2.0,-2.0,-2.0,-2.0,-2.0,-2.0,-2.0,2.0,-2.0,2.0,2.0,-2.0,2.0,-2.0,-2.0,-2.0,-2.0,-2.0
2025-06-05 11:15:20.479,0.030640643,0.041413583,0.017847015,0.0024358656,0.031348076,-0.04221688,0.0,0.0,0.0,0.04000242,-0.14864905,0.47943214,-0.21971336,0.13853927,0.3712937,-0.17624976,0.13852188,-0.41716963,-0.041083865,-0.09631282,-0.4904767,-0.24332592,-0.03836247,-0.04032438,0.0021653997,-0.012857925,-0.010653344,-0.050888326,0.073419794,0.055449005,0.06269992,-0.06509782,0.069453284,-0.055539507,-2.0,2.0,-2.0,2.0,2.0,-2.0,2.0,-2.0,-2.0,-2.0,-2.0,-2.0,-2.0,2.0,-2.0,2.0,2.0,-2.0,2.0,-2.0,-2.0,-2.0,-2.0,-2.0
2025-06-05 11:15:20.497,-0.022815753,0.010115016,-0.0036113,-0.013358891,0.012381435,0.043869436,0.0,0.0,0.0,0.040002413,-0.15185927,0.48675188,-0.21223965,0.14467528,0.3735815,-0.16536804,0.14269578,-0.40446067,-0.02925112,-0.10155313,-0.47498646,-0.24286892,0.054320447,-0.046935566,0.030655894,-0.033177346,0.022392223,0.039120402,0.00803362,-0.0366184,-0.06625198,0.049862254,-0.002839226,-0.007632018,-2.0,2.0,-2.0,2.0,2.0,-2.0,2.0,-2.0,-2.0,-2.0,-2.0,-2.0,-2.0,2.0,-2.0,2.0,2.0,-2.0,2.0,-2.0,-2.0,-2.0,-2.0,-2.0
2025-06-05 11:15:20.517,0.016295658,-0.035328563,-0.049296953,-0.025477221,-0.014157987,-0.028924972,0.0,0.0,0.0,0.04000241,-0.15032692,0.48584485,-0.22064775,0.13932468,0.36597607,-0.1774936,0.1316557,-0.40756676,-0.02995153,-0.09682512,-0.4774811,-0.24227881,0.01263661,-0.02551014,-0.007966494,-0.043892276,-0.032406144,-0.042166103,-0.049146038,-0.009120291,0.002646436,-0.052965224,-0.057026405,0.020832123,-2.0,2.0,-2.0,2.0,2.0,-2.0,2.0,-2.0,-2.0,-2.0,-2.0,-2.0,-2.0,2.0,-2.0,2.0,2.0,-2.0,2.0,-2.0,-2.0,-2.0,-2.0,-2.0
2025-06-05 11:15:20.537,-0.031112239,-0.026040358,-0.020470733,-0.053022195,0.056387156,-0.004357616,0.0,0.0,0.0,0.040002406,-0.15499738,0.48900834,-0.20216057,0.13354889,0.3640176,-0.1639121,0.14139909,-0.4119101,-0.03447384,-0.105054125,-0.4879397,-0.25102487,0.020929737,0.024333566,-0.027600728,-0.047803197,0.012073011,0.05351889,0.022481913,0.049327433,0.00092724676,-0.037730996,0.06264811,0.061652347,-2.0,2.0,-2.0,2.0,2.0,-2.0,2.0,-2.0,-2.0,-2.0,-2.0,-2.0,-2.0,2.0,-2.0,2.0,2.0,-2.0,2.0,-2.0,-2.0,-2.0,-2.0,-2.0
2025-06-05 11:15:20.557,-0.04946641,0.0044110655,0.0044309176,-0.057346515,0.01162964,0.042641226,0.0,0.0,0.0,0.040002402,-0.16387929,0.4895399,-0.20534122,0.15257579,0.36810386,-0.16325524,0.13243,-0.41893113,-0.04744615,-0.11154917,-0.48343563,-0.25847462,0.02811259,-0.010025002,-0.040137216,0.070452616,0.0007565114,-0.06545075,-0.06542886,-0.058488276,0.006440901,-0.04911414,0.017872376,0.057015743,-2.0,2.0,-2.0,2.0,2.0,-2.0,2.0,-2.0,-2.0,-2.0,-2.0,-2.0,-2.0,2.0,-2.0,2.0,2.0,-2.0,2.0,-2.0,-2.0,-2.0,-2.0,-2.0
2025-06-05 11:15:20.578,-0.04574349,-0.026068093,0.043212306,-0.020732725,-0.031166451,-0.00621705,0.0,0.0,0.0,0.0400024,-0.16085413,0.4897384,-0.20967215,0.14467324,0.3661473,-0.16503261,0.14245397,-0.4118275,-0.041323215,-0.09999149,-0.4771917,-0.24415348,-0.029851241,-0.031953804,0.0006330539,-0.05034016,-0.026768621,0.049395747,-0.026249452,-0.051143683,0.032097057,0.026823351,-0.058851022,0.009831136,-2.0,2.0,-2.0,2.0,2.0,-2.0,2.0,-2.0,-2.0,-2.0,-2.0,-2.0,-2.0,2.0,-2.0,2.0,2.0,-2.0,2.0,-2.0,-2.0,-2.0,-2.0,-2.0
2025-06-05 11:15:20.597,-0.012565364,0.048890952,0.0077806553,-0.075701214,-0.002636805,-0.04957937,0.0,0.0,0.0,0.040002394,-0.15435538,0.4836573,-0.20613657,0.14948438,0.36036614,-0.1619298,0.14222358,-0.40647835,-0.041618142,-0.10753385,-0.48269787,-0.25833264,-0.031739883,-0.038898647,-0.07382417,0.058563747,-0.044877216,0.013545807,0.013043104,-0.057874534,-0.058424138,0.039039362,0.008415985,-0.07047495,-2.0,2.0,-2.0,2.0,2.0,-2.0,2.0,-2.0,-2.0,-2.0,-2.0,-2.0,-2.0,2.0,-2.0,2.0,2.0,-2.0,2.0,-2.0,-2.0,-2.0,-2.0,-2.0
2025-06-05 11:15:20.617,0.002158151,0.02883606,-0.012963542,0.01005269,0.055990934,-0.0375049,0.0,0.0,0.0,0.04000239,-0.14795524,0.48251826,-0.20257686,0.14177951,0.3608767,-0.16387668,0.13293152,-0.40895188,-0.035014816,-0.106331736,-0.49117702,-0.2406729,-0.02783516,0.0400313,0.03128273,0.027272992,0.055958778,0.070044346,-0.019957643,0.047792405,0.05976442,-0.04382667,-0.041579366,0.06205498,-2.0,2.0,-2.0,2.0,2.0,-2.0,2.0,-2.0,-2.0,-2.0,-2.0,-2.0,-2.0,2.0,-2.0,2.0,2.0,-2.0,2.0,-2.0,-2.0,-2.0,-2.0,-2.0
2025-06-05 11:15:20.637,0.002071671,-0.03393226,0.019704187,-0.01704512,-0.018964907,-0.04233408,0.0,0.0,0.0,0.040002387,-0.14782621,0.48833832,-0.20908841,0.140855,0.3699495,-0.1770266,0.13786334,-0.4171119,-0.03867995,-0.1053215,-0.4734088,-0.2546611,0.038678646,0.048133574,0.06799006,0.04576027,0.05444576,-0.044980574,-0.04411577,-0.018695131,-0.010062392,-0.05537192,0.073678076,0.028241102,-2.0,2.0,-2.0,2.0,2.0,-2.0,2.0,-2.0,-2.0,-2.0,-2.0,-2.0,-2.0,2.0,-2.0,2.0,2.0,-2.0,2.0,-2.0,-2.0,-2.0,-2.0,-2.0
2025-06-05 11:15:20.658,-0.02873786,-0.04467457,0.013145879,0.004726347,0.0010320955,-0.0018243826,0.0,0.0,0.0,0.040002383,-0.15196007,0.4908803,-0.22017339,0.1411609,0.36622164,-0.16649859,0.14041357,-0.42037126,-0.032939985,-0.099917024,-0.47354984,-0.25080687,0.06288911,0.019982304,-0.023283618,-0.024542354,0.014305149,0.054172773,0.05051574,-0.02660555,0.04108319,-0.027182773,-0.02450098,-0.047952015,-2.0,2.0,-2.0,2.0,2.0,-2.0,2.0,-2.0,-2.0,-2.0,-2.0,-2.0,-2.0,2.0,-2.0,2.0,2.0,-2.0,2.0,-2.0,-2.0,-2.0,-2.0,-2.0
2025-06-05 11:15:20.679,0.028664326,0.010800412,-0.046154223,-0.07076282,0.0439561,-0.037358325,0.0,0.0,0.0,0.040002383,-0.1624196,0.47521937,-0.213237,0.15222402,0.37543947,-0.16393445,0.14409143,-0.41816178,-0.044791713,-0.109367326,-0.47398984,-0.2546284,-0.018029014,0.028089289,-0.0023867975,-0.042074163,-0.060554516,-0.043924693,0.023238067,0.04095037,-0.008595438,-0.036905963,0.03747778,0.011724467,-2.0,2.0,-2.0,2.0,2.0,-2.0,2.0,-2.0,-2.0,-2.0,-2.0,-2.0,-2.0,2.0,-2.0,2.0,2.0,-2.0,2.0,-2.0,-2.0,-2.0,-2.0,-2.0
2025-06-05 11:15:20.698,0.03392252,0.011522418,0.043220703,-0.05280942,0.019628603,-0.004006554,0.0,0.0,0.0,0.04000238,-0.16192055,0.49068737,-0.205001,0.1349542,0.3576744,-0.16665478,0.12587045,-0.40513635,-0.032291863,-0.104870945,-0.4743547,-0.25081462,-0.04898037,-0.045509588,-0.05979859,0.071441546,-0.023399046,0.029219316,-0.0073638842,-0.033693574,-0.06332514,-0.04597958,0.02643736,0.0064377333,-2.0,2.0,-2.0,2.0,2.0,-2.0,2.0,-2.0,-2.0,-2.0,-2.0,-2.0,-2.0,2.0,-2.0,2.0,2.0,-2.0,2.0,-2.0,-2.0,-2.0,-2.0,-2.0
2025-06-05 11:15:20.718,0.03201828,-0.03537527,-0.013850652,-0.0058132755,0.026950113,-0.03040721,0.0,0.0,0.0,0.04000238,-0.15847643,0.47387218,-0.21415628,0.14142226,0.36314678,-0.17884943,0.1360744,-0.4214474,-0.034601748,-0.09981358,-0.48757595,-0.24711977,0.029049536,0.009089093,-0.05534551,0.018881988,-0.03144811,0.047432367,0.045992658,0.061694253,0.023515124,0.07404007,0.012649947,0.014682003,-2.0,2.0,-2.0,2.0,2.0,-2.0,2.0,-2.0,-2.0,-2.0,-2.0,-2.0,-2.0,2.0,-2.0,2.0,2.0,-2.0,2.0,-2.0,-2.0,-2.0,-2.0,-2.0
