openverse-orca/OrcaGym/log/simulation_log_20250721_143423.csv
timestamp,sim_time,physics_step,control_step,imu_angle_roll,imu_angle_pitch,imu_angle_yaw,imu_angular_velocity_roll,imu_angular_velocity_pitch,imu_angular_velocity_yaw,imu_acc_x,imu_acc_y,imu_acc_z,fl_joint1_pos,fl_joint1_vel,fl_joint1_torque,fl_joint2_pos,fl_joint2_vel,fl_joint2_torque,fl_joint3_pos,fl_joint3_vel,fl_joint3_torque,fr_joint1_pos,fr_joint1_vel,fr_joint1_torque,fr_joint2_pos,fr_joint2_vel,fr_joint2_torque,fr_joint3_pos,fr_joint3_vel,fr_joint3_torque,hl_joint1_pos,hl_joint1_vel,hl_joint1_torque,hl_joint2_pos,hl_joint2_vel,hl_joint2_torque,hl_joint3_pos,hl_joint3_vel,hl_joint3_torque,hr_joint1_pos,hr_joint1_vel,hr_joint1_torque,hr_joint2_pos,hr_joint2_vel,hr_joint2_torque,hr_joint3_pos,hr_joint3_vel,hr_joint3_torque,fl_force_x,fl_force_y,fl_force_z,fr_force_x,fr_force_y,fr_force_z,hl_force_x,hl_force_y,hl_force_z,hr_force_x,hr_force_y,hr_force_z,fl_hip_action,fl_thigh_action,fl_calf_action,fr_hip_action,fr_thigh_action,fr_calf_action,hl_hip_action,hl_thigh_action,hl_calf_action,hr_hip_action,hr_thigh_action,hr_calf_action
2025-07-21 14:34:23.364,0.0,0,0,0.0014211109,-0.016181292,-0.036348864,0.044150554,0.04885089,0.03539296,2.1287243,0.22514397,0.0,0.0,-0.0012724153,-0.004790647,-0.0075921053,0.0066331504,-0.000665173,0.009657737,-0.0096392995,0.0027395305,0.0061340546,-0.0010820171,-0.0039325855,-0.003424068,0.0053253192,0.056973957,-0.055444542,0.021907063,-0.03763201,-0.0040714685,-0.01604238,-0.03171422,-0.03438398,-0.052954968,0.051507134,-0.040749427,0.0,0.0,0.0,0.0,0.0,0.0,0.0,0.0,0.0,0.0,0.0,0.0,0.7605644,2.0,-0.15681742,-0.95468223,1.7406967,0.1452238,-0.32364982,0.21663754,0.38584888,1.174576,0.3386232,1.181447
2025-07-21 14:34:23.382,0.02,20,1,0.14396937,-0.20738836,0.067795046,-0.00477106,0.012928252,-0.027503733,0.0,0.0,0.0,0.0,0.029434096,0.046052705,-0.009861917,-0.030330272,0.03749537,-0.00011332051,0.0030282289,0.022335917,0.0028799458,0.020786017,0.020800266,0.019888258,0.08003766,0.09245208,-0.100804664,-0.0770714,0.1687314,-0.008742128,-0.0571801,0.012965745,-0.04712651,0.12580319,0.04941928,0.1257553,0.7605644,2.0,-0.15681742,-0.95468223,1.7406967,0.1452238,-0.32364982,0.21663754,0.38584888,1.174576,0.3386232,1.181447,-0.25579488,-0.8328334,0.23819216,-0.4650179,-0.4638651,-0.21060532,-0.34764272,0.16087244,-0.5362089,0.0016166139,-0.85497195,0.20593947
2025-07-21 14:34:23.401,0.04,40,2,-0.04737686,0.059294116,-0.0094430335,0.017200701,0.019859565,-0.027954,0.0,0.0,0.0,-0.00053606794,0.012276892,0.057506625,0.00017689899,-0.040500235,0.0349726,-0.011226497,-0.009490706,0.033787902,4.5534718e-05,0.01907632,0.013600724,0.021676157,0.033876684,-0.07629723,-0.0006281138,-0.08487325,-0.1285051,-0.065023474,-0.09436315,0.04684628,-0.02575576,-0.04154245,-0.1529284,0.072608404,-0.25579488,-0.8328334,0.23819216,-0.4650179,-0.4638651,-0.21060532,-0.34764272,0.16087244,-0.5362089,0.0016166139,-0.85497195,0.20593947,0.2103183,-0.37268275,0.25574508,-0.37008658,-0.24133468,-0.30540726,0.11835213,0.35507816,-0.11910224,-0.063886374,0.7167267,0.5932727
2025-07-21 14:34:23.421,0.06,60,3,-0.0040674163,0.05042481,0.018178388,-0.022599872,-0.039035086,-0.019423367,0.0,0.0,0.0,-8.352415e-05,0.014128667,0.042356316,0.0009566699,-0.03226897,0.024481684,-0.0037733656,-0.004045419,0.0477953,-0.0011468653,0.019981084,0.031017873,0.044224817,0.06533636,-0.11975369,0.088895746,0.053533953,0.015848117,0.05687924,-0.047333714,0.062379293,-0.069231756,0.029585496,0.07303593,-0.059982814,0.2103183,-0.37268275,0.25574508,-0.37008658,-0.24133468,-0.30540726,0.11835213,0.35507816,-0.11910224,-0.063886374,0.7167267,0.5932727,-0.110262,-0.31539255,0.2558144,-0.38943738,-0.21474236,-0.5282704,0.17976573,0.0027731918,-0.7180414,0.011298509,-0.11839261,0.1425421
2025-07-21 14:34:23.446,0.08,80,4,-0.10589361,0.10728498,0.014762669,-0.020219982,0.010721565,-0.040590122,0.0,0.0,0.0,-0.00035138894,0.016164757,0.02707728,0.011768357,-0.051952746,-0.010772759,-0.028355405,-0.002461047,0.031760477,-0.021544632,0.011856393,0.034270655,0.0358698,-0.02467278,-0.10526357,0.08524023,0.0021583976,0.02286379,-0.075074755,-0.03972732,-0.061621483,-0.09150165,0.021701064,-0.08714201,0.042781696,-0.110262,-0.31539255,0.2558144,-0.38943738,-0.21474236,-0.5282704,0.17976573,0.0027731918,-0.7180414,0.011298509,-0.11839261,0.1425421,0.23324433,0.00017520168,0.15493266,-0.3684429,-0.2418383,-0.6309639,0.07908894,0.66212666,-0.2581727,-0.09964347,0.6732722,0.48811772
2025-07-21 14:34:23.463,0.1,100,5,0.009904056,-0.0042305836,0.049370177,0.060843743,-0.007815757,-0.00991681,0.0,0.0,0.0,-0.0017085844,0.02873049,0.0092447065,0.011264352,-0.03866279,-0.019139802,-0.036910422,-0.005039139,0.07370229,-0.03538774,0.0020634993,0.050330598,0.03170871,0.03007146,-0.049206242,0.06561816,0.02787256,-0.08614979,-0.021655446,-0.013125843,0.055347275,0.028699605,0.0074105957,0.14201106,0.030875383,0.23324433,0.00017520168,0.15493266,-0.3684429,-0.2418383,-0.6309639,0.07908894,0.66212666,-0.2581727,-0.09964347,0.6732722,0.48811772,-0.34856436,-0.43373555,0.38318995,-0.15264188,-0.04872846,-0.33229083,0.113878116,-0.14892949,-0.4468689,-0.15826581,-0.8409577,0.55589855
2025-07-21 14:34:23.482,0.12000000000000001,120,6,-0.013836879,0.06505733,0.06315105,-0.0070578638,-0.041881837,0.020781415,0.0,0.0,0.0,-0.0021246257,0.018211642,-0.015087408,0.014503189,-0.058992263,-0.01796046,-0.058419928,-0.0074153487,0.06310588,-0.034202594,0.011441471,0.05372682,0.05216068,-0.008076256,-0.12716316,0.057866924,-0.0047887447,0.051898703,-0.09185,0.044410612,-0.065564655,-0.057744216,0.043245587,-0.09256906,0.08373139,-0.34856436,-0.43373555,0.38318995,-0.15264188,-0.04872846,-0.33229083,0.113878116,-0.14892949,-0.4468689,-0.15826581,-0.8409577,0.55589855,0.18657586,0.46936792,0.46383244,-0.17088014,-0.04534395,-0.54991466,0.17052606,0.959253,-0.29105425,-0.17830074,-0.13587205,0.6682637
2025-07-21 14:34:23.502,0.14,140,7,0.053618938,0.02076642,-0.10205125,-0.0053261938,-0.02434049,-0.00865341,0.0,0.0,0.0,-0.0032584877,0.025734864,0.0011961494,0.00848778,-0.03925896,-0.013058362,-0.05165246,-0.002764121,0.08644549,-0.03885402,0.0024977454,0.03745343,0.051787958,0.055646952,0.09835815,-0.031632774,-0.054559242,0.041061193,-0.025082424,0.06765479,0.15996277,0.05946222,0.0071799774,-0.07281971,0.032000538,0.18657586,0.46936792,0.46383244,-0.17088014,-0.04534395,-0.54991466,0.17052606,0.959253,-0.29105425,-0.17830074,-0.13587205,0.6682637,-0.4149573,-1.142287,0.24353206,-0.5180584,-0.29151735,-0.6477138,0.51665103,-0.026655693,-0.7984077,0.95121807,0.3792347,0.10961172
2025-07-21 14:34:23.522,0.16,160,8,-0.068039134,0.0037038436,0.14772046,0.0037789198,-0.031618893,-0.015274283,0.0,0.0,0.0,-0.0025158662,0.008740358,-0.0017432072,0.021598421,-0.051297314,-0.037983265,-0.05665652,0.021580163,0.10251495,-0.05451182,0.012805016,0.04729436,0.043728463,-0.028093938,0.008386822,-0.0051969504,-0.018534094,0.03322252,-0.07303473,-0.038823247,-0.028142288,-0.03934641,-0.012529866,0.04649954,-0.036674444,-0.4149573,-1.142287,0.24353206,-0.5180584,-0.29151735,-0.6477138,0.51665103,-0.026655693,-0.7984077,0.95121807,0.3792347,0.10961172,0.4869308,-0.7096048,0.026579961,-0.17830877,-0.09310978,-0.16845411,0.08545948,0.05586989,-0.29490012,-0.3489984,-0.28038475,0.038955867
2025-07-21 14:34:23.546,0.18,180,9,-0.11114875,0.03464397,0.062073294,-0.012579715,-0.043249827,-0.0033635437,0.0,0.0,0.0,-0.0031385736,0.032184355,-0.020427553,0.020191368,-0.047398172,-0.038244303,-0.073347196,0.025389222,0.08170228,-0.057846412,0.0006783368,0.028298108,0.032134693,-0.03891364,-0.0631622,0.008633241,0.07061093,0.02160272,-0.07011463,0.01695753,-0.072785,-0.05624809,-0.09915342,-0.001140339,-0.040308908,0.4869308,-0.7096048,0.026579961,-0.17830877,-0.09310978,-0.16845411,0.08545948,0.05586989,-0.29490012,-0.3489984,-0.28038475,0.038955867,0.11673448,0.121357255,0.23714133,-0.13986342,0.12791052,-0.6664658,-0.18130419,0.7674621,-0.31251055,-0.1720032,-0.023395738,0.4039901
2025-07-21 14:34:23.564,0.19999999999999998,200,10,0.072974555,-0.07715257,-0.045092437,0.06244639,-0.0013401486,-0.03306049,0.0,0.0,0.0,-0.004446532,0.03626672,-0.015000758,0.019056836,-0.052371588,-0.021442788,-0.08502086,-0.00116531,0.12033161,-0.042735063,0.005559036,0.020286199,0.034605004,0.045946524,0.047444783,-0.051505215,0.022662556,0.08369046,-0.045742042,-0.045086786,0.08018953,-0.04923591,0.057592865,-0.062508315,-0.0023931458,0.11673448,0.121357255,0.23714133,-0.13986342,0.12791052,-0.6664658,-0.18130419,0.7674621,-0.31251055,-0.1720032,-0.023395738,0.4039901,-0.0738871,-0.6231174,0.31543127,-0.47566187,-0.07920321,-0.5005361,0.47607374,0.13396202,-0.679561,0.56220174,0.3088167,0.26480818
2025-07-21 14:34:23.582,0.21999999999999997,220,11,-0.035940673,-0.018183932,0.18103555,0.010782956,0.03176127,-0.032332566,0.0,0.0,0.0,-0.0048631285,0.034058914,-0.029734358,0.016315848,-0.06268642,-0.03342037,-0.07765869,0.016654886,0.10869051,-0.058123987,0.0043582,0.04290959,0.037312265,0.04590088,-0.07327272,0.018101292,-0.08742329,-0.0644023,-0.06297384,0.05774224,-0.06013354,-0.028311122,0.04323515,-0.006112722,-0.0090841,-0.0738871,-0.6231174,0.31543127,-0.47566187,-0.07920321,-0.5005361,0.47607374,0.13396202,-0.679561,0.56220174,0.3088167,0.26480818,0.4323408,0.051617943,0.371993,-0.13845661,0.14557841,-0.40460262,0.07489236,0.50328153,-0.41359562,-0.5532711,-0.677387,0.7492957
2025-07-21 14:34:23.602,0.23999999999999996,240,12,-0.021208256,-0.048311,-0.082117304,0.041718524,0.0128121525,-0.010848948,0.0,0.0,0.0,-0.006467959,0.027094595,-0.023379967,0.025857782,-0.04940315,-0.013146132,-0.08107808,0.020973215,0.115608,-0.053606246,0.0006984065,0.029678632,0.041808262,-0.048211303,0.034439795,-0.03125367,0.050137866,-0.009001428,-0.034745444,0.0048770285,0.07948979,0.035602808,0.0232146,-0.04088468,0.04453528,0.4323408,0.051617943,0.371993,-0.13845661,0.14557841,-0.40460262,0.07489236,0.50328153,-0.41359562,-0.5532711,-0.677387,0.7492957,-0.32236245,-0.6897297,0.364194,-0.43152198,0.038565584,-0.40079722,0.6801902,0.16243176,-0.37573105,0.84319484,0.12502988,0.4861918
2025-07-21 14:34:23.622,0.25999999999999995,260,13,-0.076660976,-0.05625328,0.12314078,-0.010160563,0.008481636,-0.037050482,0.0,0.0,0.0,-0.006099609,0.04005485,-0.03383686,0.029364442,-0.063347355,-0.0124455625,-0.0886335,0.034771573,0.119005375,-0.06589242,0.0015388777,0.033502586,0.0382178,0.055975173,-0.088878155,0.0055514527,-0.072992526,-0.048889995,-0.017491044,0.05011033,0.0041171527,0.057597876,0.10122282,0.017196242,-0.030437097,-0.32236245,-0.6897297,0.364194,-0.43152198,0.038565584,-0.40079722,0.6801902,0.16243176,-0.37573105,0.84319484,0.12502988,0.4861918,0.37437588,0.061754845,0.33862975,-0.20488508,0.07769915,-0.19383156,0.33702344,0.14645223,-0.23292954,0.025173457,-0.4655542,0.41078883
2025-07-21 14:34:23.646,0.27999999999999997,280,14,-0.012742655,-0.080400355,-0.05808517,-0.04403681,-0.018237604,-0.005253538,0.0,0.0,0.0,-0.007075989,0.03809461,-0.036854748,0.016447801,-0.058250777,-0.01569748,-0.07379003,0.026050027,0.09965672,-0.05509572,0.014790625,0.008519811,0.04102918,0.07842484,-0.05376045,-0.049473852,-0.04384472,-0.04790602,0.015406194,0.021054719,-0.026370216,-0.04207187,0.042958576,-0.008010135,0.043645125,0.37437588,0.061754845,0.33862975,-0.20488508,0.07769915,-0.19383156,0.33702344,0.14645223,-0.23292954,0.025173457,-0.4655542,0.41078883,-0.34570044,-0.24102661,0.42515787,-0.46652767,0.18724218,-0.09069959,0.57036036,0.2968735,-0.21172835,0.9303257,0.23914263,0.44938388
2025-07-21 14:34:23.663,0.3,300,15,0.06886768,-0.0329075,0.13881955,-0.051943287,-0.00062345975,-0.018110478,0.0,0.0,0.0,-0.007709903,0.041994464,-0.044247095,0.030508818,-0.059615966,0.014007832,-0.07359295,0.052237816,0.10735414,-0.056552935,0.026173959,0.015889803,0.038268115,-0.0244613,-0.03318201,-0.004450482,0.029302599,0.05480767,0.008958887,-0.050082024,0.067450464,0.06974821,-0.0054072062,-0.038481478,-0.018829683,-0.34570044,-0.24102661,0.42515787,-0.46652767,0.18724218,-0.09069959,0.57036036,0.2968735,-0.21172835,0.9303257,0.23914263,0.44938388,0.47506168,-0.18787572,0.065399274,-0.26050344,-0.22238404,-0.4024235,0.5667617,-0.24202584,-0.21514656,-0.09332125,-0.12564145,0.21182194
2025-07-21 14:34:23.682,0.32,320,16,-0.09221064,-0.05106284,-0.011314751,-0.006148097,0.042251125,1.9858626e-05,0.0,0.0,0.0,-0.009480322,0.033497144,-0.051009987,0.007264296,-0.06320974,-0.0030580028,-0.06060863,0.045982867,0.06900017,-0.038273085,0.021183904,0.011436582,0.051652715,-0.010637981,-0.0120431185,-0.0015168717,0.01641246,-0.00067683513,-0.00071476784,-0.05263472,-0.032221872,-0.03229516,0.0073615704,0.031624198,-0.007563092,0.47506168,-0.18787572,0.065399274,-0.26050344,-0.22238404,-0.4024235,0.5667617,-0.24202584,-0.21514656,-0.09332125,-0.12564145,0.21182194,-0.20140985,-0.36705917,0.15972884,-0.22799575,-0.13194689,-0.14752853,0.46609125,0.19583695,-0.0065564215,0.5168694,0.07592889,0.33459428
2025-07-21 14:34:23.702,0.34,340,17,-0.06385517,0.017793268,0.08770944,-0.04409181,0.019908994,0.03256277,0.0,0.0,0.0,-0.010471061,0.029406037,-0.07426919,0.018255701,-0.043946605,-0.017253995,-0.056312803,0.06633041,0.06433938,-0.043185692,0.024647813,0.010606697,0.043538865,-0.020460771,0.036508348,-0.009374574,-0.05405808,-0.053125534,0.08351145,-0.011229222,0.033030685,0.054306895,0.011649097,0.04875256,-0.013699857,-0.20140985,-0.36705917,0.15972884,-0.22799575,-0.13194689,-0.14752853,0.46609125,0.19583695,-0.0065564215,0.5168694,0.07592889,0.33459428,0.07729254,-0.46818107,0.021378148,-0.21970391,0.035082825,-0.061989866,0.31922376,-0.05056696,-0.2710415,0.27132064,-0.48712352,0.17860365
2025-07-21 14:34:23.723,0.36000000000000004,360,18,-0.12331436,-0.07185711,0.10604744,-0.0071297777,0.06884488,-0.0068090493,0.0,0.0,0.0,-0.011320471,0.033384327,-0.090121515,0.0015520216,-0.06285328,-0.0117118005,-0.055232726,0.056288227,0.058215175,-0.038749903,0.03620565,-0.012416558,0.031223193,-0.026169574,-0.023595547,-0.042404205,0.016085288,0.05873173,0.019341765,-0.036188163,-0.059491843,-0.05836041,-0.047214795,-0.09399951,-0.0489295,0.07729254,-0.46818107,0.021378148,-0.21970391,0.035082825,-0.061989866,0.31922376,-0.05056696,-0.2710415,0.27132064,-0.48712352,0.17860365,0.3152694,0.23276544,0.11511846,-0.24467106,-0.08956563,-0.3818111,0.15053672,0.5961522,0.08311765,0.031796232,0.17164485,0.44448107
2025-07-21 14:34:23.746,0.38000000000000006,380,19,0.14668146,-0.067847826,0.033940814,-0.033969607,0.009861651,-0.019767245,0.0,0.0,0.0,-0.01316609,0.048968736,-0.0649405,-0.0011427738,-0.052951604,-0.028890181,-0.04966219,0.050873343,0.08956666,-0.0381783,0.019797774,0.0014798058,0.04280341,-0.025391042,0.09160289,-0.08396939,0.005580958,0.01290166,-0.06293265,-0.033800293,0.06312865,0.05005227,-0.060965538,0.050880272,0.057607148,0.3152694,0.23276544,0.11511846,-0.24467106,-0.08956563,-0.3818111,0.15053672,0.5961522,0.08311765,0.031796232,0.17164485,0.44448107,-0.08839003,-0.67267936,0.1578472,-0.37573737,-0.1737321,-0.3051787,0.2347318,-0.15138495,-0.25196552,0.25919855,-0.4305333,0.397373
2025-07-21 14:34:23.763,0.4000000000000001,400,20,-0.15574999,0.13019732,0.059943967,-0.033715226,0.02096183,-0.026070459,0.0,0.0,0.0,-0.014001986,0.04204775,-0.08250119,-0.0021968593,-0.05551481,-0.03150455,-0.06341962,0.048443735,0.076093584,-0.037854202,0.0111772185,-0.018707123,0.039194796,-0.010864958,-0.096233174,0.002116434,-0.018736832,-0.047118586,0.009394387,-0.0034752383,-0.0034670641,-0.030686643,0.051713474,-0.10750709,-0.0015132608,-0.08839003,-0.67267936,0.1578472,-0.37573737,-0.1737321,-0.3051787,0.2347318,-0.15138495,-0.25196552,0.25919855,-0.4305333,0.397373,0.16951743,0.58333147,0.3765836,-0.38330105,0.124992274,-0.3240603,-0.10423298,0.38276866,-0.017116532,0.093664125,0.45815206,0.7042346
2025-07-21 14:34:23.783,0.4200000000000001,420,21,0.19857746,-0.022802966,0.058205515,-0.048777685,0.029421553,-0.04895568,0.0,0.0,0.0,-0.015406818,0.03306012,-0.070468135,0.0007654263,-0.047888488,-0.025209107,-0.047510445,0.046535388,0.08929106,-0.02083143,0.015454438,-0.008762174,0.04449769,0.05076851,-0.0011094069,0.007587412,0.03862847,0.026353061,0.0540899,-0.08532446,0.098867886,-0.00289548,0.042343292,0.057206277,-0.061182335,0.16951743,0.58333147,0.3765836,-0.38330105,0.124992274,-0.3240603,-0.10423298,0.38276866,-0.017116532,0.093664125,0.45815206,0.7042346,-0.019557262,-0.29010072,0.14563145,-0.41665658,-0.101388276,-0.19939426,-0.04757157,-0.33337227,-0.1297825,0.0011179764,-0.496681,0.28707802
2025-07-21 14:34:23.803,0.4400000000000001,440,22,-0.12892465,0.047976185,0.056648258,-0.043579716,0.053833,-0.007025939,0.0,0.0,0.0,-0.016964898,0.045842543,-0.079833865,0.0027909891,-0.06794534,-0.031442415,-0.053358547,0.037880845,0.054393392,-0.021708632,0.0066174543,-0.009447178,0.034942504,0.025303442,-0.027448243,0.0035274725,0.059976354,0.004364465,0.007528466,-0.026440842,-0.088670254,-0.035036437,-0.039799236,-0.10590947,0.03916911,-0.019557262,-0.29010072,0.14563145,-0.41665658,-0.101388276,-0.19939426,-0.04757157,-0.33337227,-0.1297825,0.0011179764,-0.496681,0.28707802,0.16872945,0.3073874,0.2591224,-0.19644661,0.003508605,-0.4426493,0.095770165,0.68779767,-0.05607377,-0.02548745,0.2041731,0.6184777
2025-07-21 14:34:23.835,0.46000000000000013,460,23,0.2161219,-0.050504234,-0.013739671,0.019448632,0.010866837,-0.04718399,0.0,0.0,0.0,-0.018309196,0.036258686,-0.057563774,0.0060551027,-0.06206821,-0.018860571,-0.060488857,0.026723363,0.07057938,-0.03227134,0.0072665615,0.0010460222,0.039796386,0.043552037,0.01831716,-0.061791357,-0.017679645,0.034590583,0.019051999,-0.07831768,0.069623284,-0.0010903218,0.0056527695,0.067847185,0.059633154,0.16872945,0.3073874,0.2591224,-0.19644661,0.003508605,-0.4426493,0.095770165,0.68779767,-0.05607377,-0.02548745,0.2041731,0.6184777,-0.16601092,-0.4439339,0.23234105,-0.36849958,-0.194987,-0.30186892,0.33630788,-0.13786869,-0.4141528,0.3885177,-0.2836286,0.35304752
2025-07-21 14:34:23.863,0.48000000000000015,480,24,-0.09383003,0.06705771,0.101181254,0.008223421,0.052052017,0.0025976289,0.0,0.0,0.0,-0.018344117,0.031720035,-0.05821949,0.007339884,-0.061375692,-0.02388562,-0.05051893,0.024060259,0.06405033,-0.036319386,-0.0013455317,-0.0038414074,0.056785833,0.0033143421,-0.10294517,0.056385685,0.006574583,0.025911313,0.009919008,0.07104352,-0.11814301,-0.018402375,-0.056117475,-0.019623425,0.00470853,-0.16601092,-0.4439339,0.23234105,-0.36849958,-0.194987,-0.30186892,0.33630788,-0.13786869,-0.4141528,0.3885177,-0.2836286,0.35304752,0.24384853,0.4921834,0.25552306,-0.14555494,0.0026556477,-0.31761396,0.055548802,0.74318874,-0.037700698,-0.12956008,-0.12020435,0.7037904
2025-07-21 14:34:23.882,0.5000000000000001,500,25,0.114375494,-0.021551419,-0.034656893,-0.03705994,-0.014346066,0.043942224,0.0,0.0,0.0,-0.018834433,0.038274486,-0.03998858,0.013319411,-0.059046004,-0.02231735,-0.068198994,0.02740428,0.09320589,-0.032769922,-0.0065034637,-0.013031933,0.04692314,0.03369322,0.12713493,0.014272271,-0.03809716,0.027095892,-0.038018074,-0.025424452,0.15722504,-0.040599015,-0.011144856,-0.042868607,0.033365797,0.24384853,0.4921834,0.25552306,-0.14555494,0.0026556477,-0.31761396,0.055548802,0.74318874,-0.037700698,-0.12956008,-0.12020435,0.7037904,-0.27543613,-1.0610775,0.27417982,-0.5674417,-0.25588307,-0.645814,0.25836468,0.019249242,-0.63341874,0.7084192,-0.026870793,0.422397
2025-07-21 14:34:23.897,0.5200000000000001,520,26,-0.05109586,0.020756021,0.13926673,0.0025505996,0.02656616,-0.037320167,0.0,0.0,0.0,-0.01844015,0.044188954,-0.03716106,0.011637428,-0.07057567,-0.040138587,-0.07304406,0.032821354,0.08824615,-0.045146495,0.003429417,-0.0023455033,0.054772247,-0.059848644,-0.06715724,0.047341343,-0.05062641,-0.09972039,-0.060437214,0.06606368,-0.088840075,0.0043372484,-0.018227872,-0.00071306893,0.02853509,-0.27543613,-1.0610775,0.27417982,-0.5674417,-0.25588307,-0.645814,0.25836468,0.019249242,-0.63341874,0.7084192,-0.026870793,0.422397,0.47107062,0.07801547,0.37989438,-0.2054999,0.29269567,-0.20291889,-0.025079742,0.71222794,-0.20410751,-0.586277,-0.40178254,0.6897074
2025-07-21 14:34:23.917,0.5400000000000001,540,27,0.07015075,-0.03165256,-0.06998243,0.04990878,-0.02443669,-0.0025766776,0.0,0.0,0.0,-0.019055383,0.04488897,-0.026017392,0.009306038,-0.050369143,-0.026264196,-0.06567339,0.028297968,0.11591791,-0.046768323,-0.007282473,-0.034193415,0.062390827,0.03304041,0.035701673,0.014115365,-0.013014883,0.07230514,-0.026528727,0.025613759,0.07705649,0.034370195,-0.109334245,-0.011754046,0.07533049,0.47107062,0.07801547,0.37989438,-0.2054999,0.29269567,-0.20291889,-0.025079742,0.71222794,-0.20410751,-0.586277,-0.40178254,0.6897074,-0.3539081,-0.72460425,0.40642342,-0.59210575,-0.022303693,-0.48821327,0.38248646,0.20219763,-0.7016097,0.61865735,0.09364968,0.4794412
2025-07-21 14:34:23.937,0.5600000000000002,560,28,-0.056739934,0.055085115,0.12519313,-0.04228259,0.04827067,-0.017097598,0.0,0.0,0.0,-0.018443761,0.025749378,-0.039605774,0.020889016,-0.058573104,-0.02560212,-0.06853933,0.035267588,0.10784499,-0.061077148,-0.0026905877,-0.017782412,0.06533738,-0.061300375,-0.08598376,0.044474307,-0.042858906,-0.007968525,0.010227336,0.021508912,0.0024363901,0.002810834,0.04208725,0.0025181896,0.032161817,-0.3539081,-0.72460425,0.40642342,-0.59210575,-0.022303693,-0.48821327,0.38248646,0.20219763,-0.7016097,0.61865735,0.09364968,0.4794412,0.57883227,-0.043444045,0.30634052,-0.23396824,0.07921099,-0.24287745,0.04317276,0.27778035,-0.18052024,-0.25136998,-0.10608392,0.39688918
2025-07-21 14:34:23.963,0.5800000000000002,580,29,0.018391373,-0.007994064,-0.03395621,0.02716461,-0.026971206,0.006078005,0.0,0.0,0.0,-0.019234503,0.040162478,-0.038999293,0.02476379,-0.060587462,-0.018147085,-0.056622665,0.0160548,0.103028506,-0.040240813,0.0001337218,-0.022850793,0.05003401,0.048001148,0.029722812,-0.035193224,-0.028333293,-0.053992044,-0.031938925,-0.027635256,0.06861322,0.009261627,-0.08518962,-0.0024382002,-0.0057000667,0.57883227,-0.043444045,0.30634052,-0.23396824,0.07921099,-0.24287745,0.04317276,0.27778035,-0.18052024,-0.25136998,-0.10608392,0.39688918,-0.32441923,-0.5273594,0.4528649,-0.51865715,0.18073949,-0.41260788,0.23625314,0.13565363,-0.59122336,0.57051015,-0.094360955,0.5721947
2025-07-21 14:34:23.981,0.6000000000000002,600,30,-0.083734944,0.033744782,0.16171755,-0.002078621,0.049417816,-0.034714494,0.0,0.0,0.0,-0.019313497,0.02955826,-0.05444841,0.016262116,-0.05899607,-0.0021471486,-0.057482827,0.019637845,0.10831754,-0.050051395,0.015188944,-0.03513003,0.05920267,-0.004762423,0.012430182,0.043624043,-0.08406223,0.06039311,-0.038583618,-0.029102674,-0.08089054,-0.040845662,0.0048650964,0.022506226,0.04594518,-0.32441923,-0.5273594,0.4528649,-0.51865715,0.18073949,-0.41260788,0.23625314,0.13565363,-0.59122336,0.57051015,-0.094360955,0.5721947,0.49714056,-0.4450422,0.2751651,-0.18170016,0.02863574,-0.41606024,0.11411968,0.4819653,-0.56736124,-0.48143095,-0.79836434,0.45114294
2025-07-21 14:34:23.998,0.6200000000000002,620,31,-0.112933904,0.058825277,-0.052553546,-0.0308924,0.048806917,0.0145235825,0.0,0.0,0.0,-0.020841744,0.053040415,-0.063345976,0.029227534,-0.06360184,0.007540823,-0.07096957,0.031802483,0.116646044,-0.06191298,0.0076041543,-0.051546853,0.06940897,-0.02920789,-0.074656904,0.019048398,-0.030457964,0.05325499,-0.017475784,-0.010289535,0.053418387,-0.052526925,-0.046465814,-0.13570991,0.021055896,0.49714056,-0.4450422,0.2751651,-0.18170016,0.02863574,-0.41606024,0.11411968,0.4819653,-0.56736124,-0.48143095,-0.79836434,0.45114294,0.012987201,-0.07435129,0.50288117,-0.47918177,-0.31781334,-0.44828227,0.31426913,0.3656821,-0.0065375865,0.7259843,0.80290407,0.54727507
2025-07-21 14:34:24.017,0.6400000000000002,640,32,0.13724409,-0.011944068,0.052375253,0.058685526,-0.015237453,-0.014019144,0.0,0.0,0.0,-0.021520741,0.054260366,-0.07746433,0.021909466,-0.055645116,-0.020300921,-0.060993686,0.021176325,0.11975076,-0.049735118,0.0053900885,-0.0434395,0.053213347,-0.048356645,0.03329097,-0.045121424,0.014408374,-0.035808843,-0.066244826,-0.04725372,-0.040368862,-0.0011375285,-0.017875701,0.057496462,-0.022243846,0.012987201,-0.07435129,0.50288117,-0.47918177,-0.31781334,-0.44828227,0.31426913,0.3656821,-0.0065375865,0.7259843,0.80290407,0.54727507,0.19318722,-0.5982929,0.035873264,-0.5074703,-0.01761067,-0.30985826,0.46213877,-0.19242166,-0.55307186,-0.30692643,-0.4298156,0.45305142
2025-07-21 14:34:24.039,0.6600000000000003,660,33,-0.088355474,0.17284621,-0.0051395344,0.036778633,0.008053056,0.04340141,0.0,0.0,0.0,-0.021948682,0.03654481,-0.09429657,0.017946249,-0.06698598,-0.02265466,-0.063638836,0.03407316,0.09786157,-0.04855376,-0.003955956,-0.043493617,0.06457283,0.021401005,-0.042920657,0.03803285,0.026977807,0.019690625,-0.0602235,-0.015566516,-0.14448215,-0.086151764,-0.046631403,-0.008413662,0.0020887947,0.19318722,-0.5982929,0.035873264,-0.5074703,-0.01761067,-0.30985826,0.46213877,-0.19242166,-0.55307186,-0.30692643,-0.4298156,0.45305142,-0.111452155,-0.016874468,0.22399406,-0.2207944,0.06838023,-0.27167478,0.054279946,0.5794027,0.21921192,0.21987286,0.31963626,0.5463853
2025-07-21 14:34:24.086,0.6800000000000003,680,34,0.14810477,-0.06059225,0.04250285,0.0114723295,0.009725969,0.036529977,0.0,0.0,0.0,-0.022270875,0.04649707,-0.08708376,0.016078372,-0.059242684,-0.010197828,-0.059318688,0.037087243,0.10736699,-0.044524163,-0.0022720152,-0.030386187,0.06559534,0.0677161,0.002807173,0.041697107,0.064844824,0.029900223,-0.038194086,-0.057753816,0.06225296,0.061730023,0.043633856,0.07899059,0.05717717,-0.111452155,-0.016874468,0.22399406,-0.2207944,0.06838023,-0.27167478,0.054279946,0.5794027,0.21921192,0.21987286,0.31963626,0.5463853,0.004558985,-0.33031288,0.32474756,-0.43366864,-0.17391396,-0.48780134,0.31262818,-0.14359768,-0.25308084,0.22040896,-0.5625166,0.45443425
2025-07-21 14:34:24.119,0.7000000000000003,700,35,-0.14570153,0.004435613,-0.0615587,0.032685913,-0.03337757,0.020931998,0.0,0.0,0.0,-0.0222637,0.03539737,-0.09099875,0.024813902,-0.07541108,-0.0148995975,-0.073181316,0.0294506,0.097211294,-0.03450356,0.0026755251,-0.047708336,0.063967295,0.053275894,-0.044667028,0.06899224,-0.019158589,0.026893606,-0.06934476,-0.06580881,-0.081337236,0.04781964,-0.020179192,-0.11432889,0.07413324,0.004558985,-0.33031288,0.32474756,-0.43366864,-0.17391396,-0.48780134,0.31262818,-0.14359768,-0.25308084,0.22040896,-0.5625166,0.45443425,0.03596965,-0.048597224,0.3051723,-0.60343546,-0.1107892,-0.19004086,0.48389655,0.4653348,0.16400489,0.5777996,0.90851545,0.6206553
2025-07-21 14:34:24.148,0.7200000000000003,720,36,0.11748896,-0.08765359,-0.034769636,-0.040204067,0.010748398,-0.027982624,0.0,0.0,0.0,-0.022034446,0.0391558,-0.083691396,0.012752144,-0.08011088,-0.018003378,-0.066698834,0.047582995,0.10436498,-0.034102324,0.02050685,-0.019347806,0.05974248,-0.033652134,-0.030439964,-0.04192733,-0.012276107,0.058460183,0.054859053,0.03833017,0.010577418,0.034620706,-0.045205917,0.15782034,-0.023964567,0.03596965,-0.048597224,0.3051723,-0.60343546,-0.1107892,-0.19004086,0.48389655,0.4653348,0.16400489,0.5777996,0.90851545,0.6206553,-0.23332122,-0.7746066,0.011256885,-0.29427248,-0.17600608,-0.1461736,0.42772382,-0.4828931,-0.25828463,0.38557035,-0.24454309,-0.16820276
2025-07-21 14:34:24.168,0.7400000000000003,740,37,-0.15302433,0.0019947544,0.10568115,-0.016870532,-0.03692616,0.028892215,0.0,0.0,0.0,-0.02187859,0.03618998,-0.091695055,0.008849654,-0.06218536,-0.040014166,-0.06017794,0.051069826,0.0736082,-0.029492037,0.02410008,-0.0046799937,0.04338037,-0.08591217,-0.12953338,0.0014900004,-0.031426325,-0.07098492,-0.058742363,0.08037119,-0.18094033,-0.029222243,0.052366298,0.0011677272,-0.029210864,-0.23332122,-0.7746066,0.011256885,-0.29427248,-0.17600608,-0.1461736,0.42772382,-0.4828931,-0.25828463,0.38557035,-0.24454309,-0.16820276,0.29678562,0.8079978,-0.070677206,-0.01608979,0.21493909,-0.13251746,-0.033533685,1.0057318,0.4277438,-0.35663512,0.12872073,0.45891598
2025-07-21 14:34:24.188,0.7600000000000003,760,38,0.13236544,-0.17979486,-0.11587913,-0.033966575,-0.017989872,-0.01958792,0.0,0.0,0.0,-0.02275446,0.041836124,-0.07867736,0.009346767,-0.06943477,-0.023755923,-0.059554525,0.03995858,0.07766973,-0.019104142,0.0024028486,-0.004453013,0.037065566,0.018036814,0.08469629,-0.040386174,-0.01260515,0.015884886,-0.05716332,-0.033810403,0.09200527,-0.013193601,0.022422856,0.08262076,-0.019838791,0.29678562,0.8079978,-0.070677206,-0.01608979,0.21493909,-0.13251746,-0.033533685,1.0057318,0.4277438,-0.35663512,0.12872073,0.45891598,-0.379113,-0.63627493,0.081126824,-0.4861706,-0.26429513,-0.33691666,0.43281165,-0.37909043,-0.13677153,0.6295818,-0.07409372,0.047168493
2025-07-21 14:34:24.208,0.7800000000000004,780,39,-0.060061947,0.070125185,0.1365954,-0.029336235,0.026836753,-0.027422434,0.0,0.0,0.0,-0.022727491,0.042632505,-0.08112913,0.0049331845,-0.073535964,-0.042047866,-0.045045085,0.050221168,0.07659527,-0.018162506,0.010698834,0.008447007,0.044961795,-0.07464486,-0.015948303,-0.034252353,0.06361565,-0.09731899,0.042316943,0.047081586,-0.045480147,-0.07336374,-0.027847352,-0.08641849,-0.0320344,-0.379113,-0.63627493,0.081126824,-0.4861706,-0.26429513,-0.33691666,0.43281165,-0.37909043,-0.13677153,0.6295818,-0.07409372,0.047168493,0.32224962,0.2595014,-0.042811353,-0.10718249,0.14555103,-0.18050814,0.23870003,0.338154,0.020983517,-0.2334937,-0.054796048,0.60697556
2025-07-21 14:34:24.230,0.8000000000000004,800,40,0.027287222,0.022080028,-0.011540198,-0.009617944,-0.008470571,-0.015755335,0.0,0.0,0.0,-0.023566807,0.039554294,-0.05889727,-0.014890338,-0.05381212,-0.023392279,-0.0631554,0.0351795,0.09057912,-0.01522535,0.013711305,-0.007877083,0.034273926,-0.019922225,0.13459176,0.056457784,0.07437591,0.08635932,-0.014615053,0.040994916,-0.045520544,0.008024902,-0.07902248,0.03441118,0.054702487,0.32224962,0.2595014,-0.042811353,-0.10718249,0.14555103,-0.18050814,0.23870003,0.338154,0.020983517,-0.2334937,-0.054796048,0.60697556,-0.3225968,-0.9042145,0.06468512,-0.3601969,-0.24162546,-0.3593086,0.3026149,0.094620824,-0.36510754,0.3865443,-0.29322317,0.3468977
2025-07-21 14:34:24.249,0.8200000000000004,820,41,-0.118988,0.059270315,0.025626834,-0.041668437,-0.01700904,-0.03783692,0.0,0.0,0.0,-0.024590563,0.032255664,-0.070216395,-0.0071166568,-0.0745095,-0.04112071,-0.062010348,0.03718291,0.06899098,-0.020209797,0.004234654,-0.021887591,0.04020135,-0.062422983,-0.12080159,0.050716933,0.02142022,-0.0961433,-0.07499852,-0.02330773,-0.06289251,0.03651543,0.07390882,-0.1100054,0.053706754,-0.3225968,-0.9042145,0.06468512,-0.3601969,-0.24162546,-0.3593086,0.3026149,0.094620824,-0.36510754,0.3865443,-0.29322317,0.3468977,0.24604371,0.44753245,0.27569082,-0.52818054,0.42072955,-0.41150662,-0.018132359,0.69355416,0.14687262,-0.014080955,0.92372566,0.7415457
2025-07-21 14:34:24.268,0.8400000000000004,840,42,0.2121748,-0.11168218,0.020815061,0.013255259,-0.017815135,-0.048866596,0.0,0.0,0.0,-0.025184782,0.043477416,-0.04999015,-0.012770686,-0.07525295,-0.0068543884,-0.054569967,0.026267644,0.109125346,-0.011168298,0.0030002194,0.012140024,0.051631846,-0.032062702,0.1475263,0.010382599,-0.06798396,0.048414953,-0.012898024,-0.030938722,0.09617219,-0.04005849,0.05544746,0.10085,0.06310512,0.24604371,0.44753245,0.27569082,-0.52818054,0.42072955,-0.41150662,-0.018132359,0.69355416,0.14687262,-0.014080955,0.92372566,0.7415457,-0.40679035,-0.81160736,0.28384706,-0.41380346,-0.44547027,-0.40468872,0.076244116,-0.24549173,-0.52658993,0.21595618,-0.8840689,0.13942862
2025-07-21 14:34:24.314,0.8600000000000004,860,43,-0.15194042,0.14395119,0.071250945,-0.023187026,0.029038182,0.01874809,0.0,0.0,0.0,-0.026021253,0.035432946,-0.04694078,-0.0073565226,-0.07465075,-0.024246676,-0.0615007,0.025257926,0.07688624,-0.019173896,0.010634959,0.012673727,0.048316464,0.042141814,-0.10358864,0.040495716,-0.07098016,-0.09803817,0.0024962206,-0.031574257,-0.09345152,-0.10256036,-0.054178104,0.010512246,0.0075003398,-0.40679035,-0.81160736,0.28384706,-0.41380346,-0.44547027,-0.40468872,0.076244116,-0.24549173,-0.52658993,0.21595618,-0.8840689,0.13942862,0.25860372,0.42925724,0.31341392,0.12900572,0.41271356,0.14787862,0.0266667,0.67163163,-0.08704546,-0.62117726,-0.4451103,0.62223506
2025-07-21 14:34:24.330,0.8800000000000004,880,44,0.044153806,-0.071095444,-0.06575487,0.025945416,0.008301058,-0.029008878,0.0,0.0,0.0,-0.027505266,0.037632357,-0.043466337,-0.0033431784,-0.058461826,-0.02052705,-0.05601153,0.03318526,0.109011464,-0.016236037,-0.011016225,-0.00395241,0.04515654,0.05339961,0.15925999,-0.05046065,-0.049899578,0.033813752,-0.014693141,-0.040846158,0.07305376,0.06272168,-0.006780151,-0.03518463,0.031400524,0.25860372,0.42925724,0.31341392,0.12900572,0.41271356,0.14787862,0.0266667,0.67163163,-0.08704546,-0.62117726,-0.4451103,0.62223506,-0.39564505,-1.0534755,0.2673823,-0.685315,-0.16192181,-0.51949686,0.37544173,0.072144434,-0.62083256,0.7031432,-0.0015578922,0.27443188
2025-07-21 14:34:24.347,0.9000000000000005,900,45,-0.007053925,-0.043130387,0.082379006,-0.0425366,-0.008986677,0.014264036,0.0,0.0,0.0,-0.026726816,0.040148184,-0.037678324,0.006910223,-0.07345628,-0.030328993,-0.061782658,0.030666303,0.09222098,-0.037679195,0.0029341662,0.0016126073,0.039067294,-0.021198535,-0.085910395,-0.027626112,-0.070560515,0.033207387,0.058039017,-0.049567614,-0.08058542,0.01649556,0.039056655,-0.06437499,0.05507225,-0.39564505,-1.0534755,0.2673823,-0.685315,-0.16192181,-0.51949686,0.37544173,0.072144434,-0.62083256,0.7031432,-0.0015578922,0.27443188,0.62223643,0.10075908,0.1692196,-0.30789816,-0.18150571,-0.19251826,0.2391068,0.5971747,0.10483664,-0.18430842,0.38579658,0.2684927
2025-07-21 14:34:24.367,0.9200000000000005,920,46,0.11636813,-0.19771168,-0.03191565,0.002567967,-0.003995608,0.041646674,0.0,0.0,0.0,-0.027322352,0.037181143,-0.02634565,7.198622e-05,-0.06500519,-0.023105886,-0.0522009,0.03129402,0.11027664,-0.017975844,-0.014456577,0.012979566,0.040652618,0.011068657,0.09628009,0.062040336,0.036008812,-0.08653668,0.0402524,-0.04560721,0.04332053,0.08835193,-0.052949987,0.05369459,-0.07364137,0.62223643,0.10075908,0.1692196,-0.30789816,-0.18150571,-0.19251826,0.2391068,0.5971747,0.10483664,-0.18430842,0.38579658,0.2684927,-0.34070146,-0.81400377,0.4383398,-0.27303505,0.031818993,-0.14589861,0.32212463,-0.17155124,-0.5766564,0.37484327,-0.37785497,0.4001589
2025-07-21 14:34:24.387,0.9400000000000005,940,47,-0.13492323,0.13051371,0.0810238,-0.043580934,0.057945486,0.024854971,0.0,0.0,0.0,-0.028274668,0.041187,-0.045491282,0.0117151495,-0.062368292,-0.02814634,-0.044246234,0.035874613,0.10442615,-0.04365113,-0.010358956,0.0070150867,0.047766726,-0.049508892,-0.086228825,-0.018790212,0.03515407,0.012946412,-0.043323353,0.06449719,-0.085884795,0.034613762,0.011288175,-0.08588532,-0.048080634,-0.34070146,-0.81400377,0.4383398,-0.27303505,0.031818993,-0.14589861,0.32212463,-0.17155124,-0.5766564,0.37484327,-0.37785497,0.4001589,0.48033464,0.26562953,0.31526074,-0.27287996,0.035269268,-0.39501032,0.06930059,0.64948356,0.13221613,-0.19793995,0.14431776,0.5543721
2025-07-21 14:34:24.409,0.9600000000000005,960,48,0.13964665,-0.0058093914,-0.017176278,-0.023659144,-0.0041962727,-0.03462599,0.0,0.0,0.0,-0.029954534,0.048470337,-0.03193463,0.0126824295,-0.06759171,-0.019002182,-0.058716714,0.029898496,0.11708444,-0.033258483,-0.020395115,0.008769972,0.03863049,0.1019715,0.108112775,0.03958479,0.056811456,-0.0031753215,-0.07406232,-0.016226033,0.06592679,0.0432331,-0.07275278,-0.02901968,0.022893386,0.48033464,0.26562953,0.31526074,-0.27287996,0.035269268,-0.39501032,0.06930059,0.64948356,0.13221613,-0.19793995,0.14431776,0.5543721,-0.12543504,-0.82250655,0.38047644,-0.4451504,-0.092095785,-0.49022266,0.17799795,0.10125686,-0.4437893,0.3071098,-0.32034144,0.58163464
2025-07-21 14:34:24.430,0.9800000000000005,980,49,-0.13114472,0.038519286,0.07520111,-0.026273193,0.0106640365,-0.007203411,0.0,0.0,0.0,-0.03084948,0.050362792,-0.036388118,0.021488534,-0.0633423,-0.014771313,-0.05496463,0.021577746,0.10585362,-0.025922414,-0.001238605,-0.0022452285,0.04881418,-0.00044637683,-0.0014424449,-0.008463978,-0.030835828,0.024939105,-0.040239885,-0.04319074,-0.053366594,0.026787113,0.00610118,-0.010563314,-0.05543451,-0.12543504,-0.82250655,0.38047644,-0.4451504,-0.092095785,-0.49022266,0.17799795,0.10125686,-0.4437893,0.3071098,-0.32034144,0.58163464,0.41674122,-0.46880004,0.24021526,-0.2119398,0.18919876,-0.21868777,0.07416097,0.5245224,-0.23814376,-0.33970764,-0.3265637,0.39165974
2025-07-21 14:34:24.447,1.0000000000000004,1000,50,-0.083693884,0.0011767657,0.057451986,-0.037226245,0.005340109,0.011744505,0.0,0.0,0.0,-0.031904876,0.051030423,-0.05307935,0.02085892,-0.06956342,-0.011972138,-0.06196725,0.018684816,0.1146822,-0.04223501,-0.0056628687,-0.026212357,0.0534579,-0.012784537,-0.10113022,0.013552776,0.025084432,0.042391922,-0.014344476,0.009897642,0.044784047,0.06690478,0.020017602,0.0031757166,-0.072155766,0.41674122,-0.46880004,0.24021526,-0.2119398,0.18919876,-0.21868777,0.07416097,0.5245224,-0.23814376,-0.33970764,-0.3265637,0.39165974,0.14915739,0.031105453,0.5284745,-0.34143847,0.045397513,-0.53127074,-0.16434506,0.48371193,-0.2751972,0.051818952,-0.13592304,0.50707376
2025-07-21 14:34:24.467,1.0200000000000005,1020,51,0.07813803,0.023449041,0.030767871,0.031770308,-0.028465709,0.033663943,0.0,0.0,0.0,-0.033504434,0.050479397,-0.06807696,0.015362728,-0.06324668,-0.005626296,-0.06290406,0.0221094,0.1327482,-0.039316077,-0.020898994,-0.024427285,0.044771884,0.02037851,0.08673403,-0.041664973,0.02854187,-0.01965951,-0.022140723,-0.0332882,0.037128113,0.056564577,-0.070609994,0.042343333,-0.0025338717,0.14915739,0.031105453,0.5284745,-0.34143847,0.045397513,-0.53127074,-0.16434506,0.48371193,-0.2751972,0.051818952,-0.13592304,0.50707376,0.00018191827,-0.7711583,0.36066297,-0.38647085,0.07790408,-0.16049996,0.14098911,0.136012,-0.5211024,0.08472891,-0.6602191,0.4242539
2025-07-21 14:34:24.487,1.0400000000000005,1040,52,-0.118510015,-0.00014928632,0.078777395,-0.014879121,0.042676494,-0.009504606,0.0,0.0,0.0,-0.03440962,0.05669307,-0.072309904,0.031393345,-0.057183288,-0.002021213,-0.059582315,0.008529484,0.123143986,-0.05050027,-0.012102344,-0.037061185,0.057297535,-0.040360034,-0.0006257794,0.05651209,-0.07242552,-0.011310947,-0.03454161,0.071176685,-0.0546857,-0.016007746,-0.05984791,-0.13896948,-0.02149675,0.00018191827,-0.7711583,0.36066297,-0.38647085,0.07790408,-0.16049996,0.14098911,0.136012,-0.5211024,0.08472891,-0.6602191,0.4242539,0.448171,-0.01606018,0.47066864,-0.39860475,0.10418882,-0.530904,-0.026796103,0.7095232,-0.22405924,-0.027816338,0.098448865,0.76542246
2025-07-21 14:34:24.513,1.0600000000000005,1060,53,0.10210797,-0.07890869,0.026118219,-0.009874976,0.042145595,-0.032720793,0.0,0.0,0.0,-0.035430767,0.058851354,-0.07250179,0.029466666,-0.06295272,0.01279619,-0.05782172,0.014506433,0.14400491,-0.033326633,-0.0152858,-0.042606164,0.056091137,0.015125673,0.09332048,0.024674732,-0.0003869672,-0.055471197,0.039979327,-0.03546178,0.14098752,-0.057570387,-0.029242637,0.002797026,-0.065406024,0.448171,-0.01606018,0.47066864,-0.39860475,0.10418882,-0.530904,-0.026796103,0.7095232,-0.22405924,-0.027816338,0.098448865,0.76542246,-0.051080104,-0.8088074,0.45124766,-0.4271307,0.07976971,-0.3885332,0.1748223,-0.045408327,-0.44597375,0.16994436,-0.58579445,0.5889249
2025-07-21 14:34:24.531,1.0800000000000005,1080,54,-0.14115597,0.11474948,0.050308984,-0.010632108,0.047679994,0.019468348,0.0,0.0,0.0,-0.03654238,0.048856404,-0.07993142,0.03283518,-0.060963903,0.0025401423,-0.063879184,0.0029972377,0.1275702,-0.049992967,-0.014630406,-0.05533882,0.07251797,0.04335614,-0.071009435,0.042109214,0.06086341,-0.025845772,0.042016376,0.07143278,-0.045621227,0.05489952,0.074023,-0.13535936,-0.021603918,-0.051080104,-0.8088074,0.45124766,-0.4271307,0.07976971,-0.3885332,0.1748223,-0.045408327,-0.44597375,0.16994436,-0.58579445,0.5889249,0.44283068,0.2676246,0.47772262,-0.3491196,-0.02789355,-0.28770038,0.1423818,0.5582376,0.045749955,0.056560054,0.37612846,0.67031384
2025-07-21 14:34:24.547,1.1000000000000005,1100,55,0.10754267,-0.013189959,0.0637067,-0.01613339,0.008539232,-0.0038651153,0.0,0.0,0.0,-0.03791764,0.05815924,-0.07607273,0.030514663,-0.054047305,0.013617917,-0.061598342,0.009540585,0.13185506,-0.044208303,-0.02827319,-0.047899302,0.071730874,-0.051437058,0.09661656,-0.004150501,0.048040837,-0.055532683,-0.010341753,-0.06936543,0.042918645,0.06588638,0.059547227,0.08192822,-0.07435221,0.44283068,0.2676246,0.47772262,-0.3491196,-0.02789355,-0.28770038,0.1423818,0.5582376,0.045749955,0.056560054,0.37612846,0.67031384,-0.008595626,-0.88276994,0.2348192,-0.32088575,0.04958517,-0.15927199,0.13156325,-0.08802408,-0.40774268,-0.3635033,-0.99482757,0.46089944
2025-07-21 14:34:24.567,1.1200000000000006,1120,56,-0.05477423,0.17206874,0.07444375,-0.03442956,0.028141297,-0.047804218,0.0,0.0,0.0,-0.03893156,0.059409264,-0.0888627,0.03341118,-0.07277358,0.012270861,-0.05628413,0.015409934,0.11843317,-0.05065699,-0.025472112,-0.05475425,0.06005292,0.02893278,0.008895912,-0.07185154,0.05210637,0.028328273,-0.06271057,0.050190397,-0.05415058,0.03329599,-0.05431197,-0.0552574,0.025620466,-0.008595626,-0.88276994,0.2348192,-0.32088575,0.04958517,-0.15927199,0.13156325,-0.08802408,-0.40774268,-0.3635033,-0.99482757,0.46089944,0.3203598,-0.10873858,0.32575428,-0.27118188,0.165746,-0.36989716,0.02568353,0.52914536,-0.071015105,-0.24640878,-0.304798,0.5223417
2025-07-21 14:34:24.587,1.1400000000000006,1140,57,0.04160369,-0.0313739,-0.11340613,-0.046051115,0.0013566425,-0.015548079,0.0,0.0,0.0,-0.03970602,0.0627475,-0.08348341,0.033423737,-0.07237329,0.013253865,-0.053361762,0.016172424,0.1329311,-0.040541794,-0.025628334,-0.059063066,0.06942027,0.044062756,-0.0078427,0.027245048,0.03344329,-0.005892837,0.06213755,-0.06809315,0.02111916,0.064265504,0.049455013,0.009405811,0.0053463397,0.3203598,-0.10873858,0.32575428,-0.27118188,0.165746,-0.36989716,0.02568353,0.52914536,-0.071015105,-0.24640878,-0.304798,0.5223417,-0.34645656,-0.67889315,0.3690364,-0.4891254,0.04525327,-0.20441985,0.5842071,0.09435715,-0.17044738,0.9010583,0.3613216,0.28722984
2025-07-21 14:34:24.613,1.1600000000000006,1160,58,0.056221966,-0.0999872,0.13214868,0.010628478,0.04874908,0.008892224,0.0,0.0,0.0,-0.039252542,0.045148637,-0.09567667,0.028006699,-0.07212512,0.01910237,-0.059065312,0.025939642,0.12508476,-0.030180378,-0.02175838,-0.022501431,0.04420417,-0.09352508,-0.11767622,0.0147250835,0.015028415,0.037348725,-0.05314821,0.0121128,-0.064635485,-0.05110812,0.0695246,0.08950593,-0.06135257,-0.34645656,-0.67889315,0.3690364,-0.4891254,0.04525327,-0.20441985,0.5842071,0.09435715,-0.17044738,0.9010583,0.3613216,0.28722984,0.5899094,0.18777302,0.14903216,-0.13373755,-0.21368301,-0.33207908,0.33679703,0.16491915,-0.09990038,-0.1768813,-0.5509886,0.33785608
2025-07-21 14:34:24.630,1.1800000000000006,1180,59,-0.026609086,0.044319253,-0.091911815,-0.030419063,0.052953087,0.029635204,0.0,0.0,0.0,-0.041073658,0.06354414,-0.09350771,0.021123616,-0.052517228,-0.0071477867,-0.05243507,0.023790669,0.09934688,-0.027697029,-0.017144924,-0.03760698,0.047564074,0.055727478,0.016786058,-0.0066013304,0.020987714,-0.05527725,0.0501501,0.07191249,-0.009919208,-0.052102637,-0.021757333,0.01298242,-0.008489166,0.5899094,0.18777302,0.14903216,-0.13373755,-0.21368301,-0.33207908,0.33679703,0.16491915,-0.09990038,-0.1768813,-0.5509886,0.33785608,-0.32315844,-0.3772753,0.36386728,-0.45188546,0.04527866,-0.17848754,0.40362388,0.11873101,-0.09352611,1.0513998,0.13169943,0.54703134
2025-07-21 14:34:24.648,1.2000000000000006,1200,60,-0.056026682,-0.08079427,0.21172513,0.0015660954,0.021436078,-0.04506063,0.0,0.0,0.0,-0.041226305,0.06275194,-0.100472845,0.017440598,-0.05774478,0.007761374,-0.057447813,0.030167427,0.10272692,-0.035534672,-0.009822327,-0.033978537,0.04061241,-0.08168304,0.0077557475,-0.030689472,0.019896053,-0.017699804,0.06533014,-0.047564782,0.030903714,0.07924863,-0.02663642,0.023805428,-0.06618255,-0.32315844,-0.3772753,0.36386728,-0.45188546,0.04527866,-0.17848754,0.40362388,0.11873101,-0.09352611,1.0513998,0.13169943,0.54703134,0.589723,-0.18524507,0.05940524,-0.33381256,0.0012391806,-0.47188506,0.5379224,0.005698424,-0.37405348,-0.49420688,-1.1337347,0.4475575
2025-07-21 14:34:24.668,1.2200000000000006,1220,61,-0.13928428,-0.028023591,-0.060215596,-0.0005323425,0.06245368,-0.00057619263,0.0,0.0,0.0,-0.042576116,0.07125194,-0.106627375,0.01507471,-0.06640459,0.0028993632,-0.06258322,0.045245625,0.07625997,-0.023516316,-0.012873665,-0.041270204,0.060602408,-0.043890096,0.01029999,-0.071412705,-0.034345586,-0.04336293,-0.0075037833,0.066433236,0.02489326,-0.07984819,0.012090312,-0.09101468,0.020969192,0.589723,-0.18524507,0.05940524,-0.33381256,0.0012391806,-0.47188506,0.5379224,0.005698424,-0.37405348,-0.49420688,-1.1337347,0.4475575,-0.18532974,-0.13680394,0.46798274,-0.46550602,0.042284556,-0.3846099,0.3981767,0.2479236,-0.03795591,0.85463756,0.2734876,0.7126453
2025-07-21 14:34:24.688,1.2400000000000007,1240,62,0.14103603,-0.11197548,0.09078089,-0.011203717,-0.036636245,-0.028574893,0.0,0.0,0.0,-0.042999208,0.071824424,-0.0990395,0.019180566,-0.069193244,5.45104e-05,-0.055942863,0.050990902,0.08723252,-0.028473947,-0.009037331,-0.032794256,0.053407542,0.028644485,-0.03555785,-0.032437876,-0.04302803,0.07172934,0.0685705,0.02265038,-0.029598475,0.002781212,0.05101229,0.088297114,-0.049587958,-0.18532974,-0.13680394,0.46798274,-0.46550602,0.042284556,-0.3846099,0.3981767,0.2479236,-0.03795591,0.85463756,0.2734876,0.7126453,0.28442302,-0.3348797,0.10635166,-0.31072998,-0.13076623,-0.15436503,0.37692922,0.083691895,-0.32798505,-0.0069579016,-0.6469319,0.27984288
2025-07-21 14:34:24.713,1.2600000000000007,1260,63,-0.13803996,0.0062174834,-0.07628604,0.008413644,0.05641998,0.007071453,0.0,0.0,0.0,-0.043045737,0.057374585,-0.114078276,0.007520413,-0.068420224,-0.0070830015,-0.048763953,0.059246343,0.079877436,-0.021901166,-0.017841797,-0.05416168,0.056350745,0.08125057,-0.027150223,-0.01330969,-0.057653688,0.035972483,0.08180132,-0.037251055,0.021367112,-0.0004944343,-0.05295008,-0.04586928,0.0070710764,0.28442302,-0.3348797,0.10635166,-0.31072998,-0.13076623,-0.15436503,0.37692922,0.083691895,-0.32798505,-0.0069579016,-0.6469319,0.27984288,-0.14504331,-0.08155606,0.36177686,-0.46264488,-0.14954117,-0.13447532,0.27679333,0.07938941,0.0075696856,0.95394915,0.49947542,0.33504465
2025-07-21 14:34:24.730,1.2800000000000007,1280,64,0.034090474,-0.033285394,0.08641123,0.0218039,0.037885174,-0.026794283,0.0,0.0,0.0,-0.043405987,0.063896656,-0.09904569,0.015601311,-0.056149635,-0.015581872,-0.05360835,0.04936346,0.07277989,-0.02154069,0.008203897,-0.027956996,0.03797935,-0.06457701,0.037139326,-0.01862048,-0.0044958415,-0.0030696315,-0.030432058,0.015736843,0.008221041,-0.0054928577,0.03470929,0.11532375,0.053185105,-0.14504331,-0.08155606,0.36177686,-0.46264488,-0.14954117,-0.13447532,0.27679333,0.07938941,0.0075696856,0.95394915,0.49947542,0.33504465,0.17409454,-0.7309972,0.005886469,-0.26585382,-0.0789826,-0.35567483,0.42329544,-0.096471295,-0.54760015,0.012027251,-0.829346,0.14119117
2025-07-21 14:34:24.748,1.3000000000000007,1300,65,-0.12122298,0.085896686,0.10876815,-0.018120976,0.060838502,-0.049862925,0.0,0.0,0.0,-0.04406962,0.06405786,-0.12152976,0.013272031,-0.053867638,-0.025717627,-0.047698088,0.064296,0.06074761,-0.038617093,0.010623982,-0.030024717,0.04783748,-0.03634488,-0.073565096,0.001668681,0.034641515,-0.010049992,0.013396604,-0.019689169,-0.091902055,-0.043261506,-0.041530002,-0.015842522,0.035024147,0.17409454,-0.7309972,0.005886469,-0.26585382,-0.0789826,-0.35567483,0.42329544,-0.096471295,-0.54760015,0.012027251,-0.829346,0.14119117,0.24910495,0.5125172,0.3803934,-0.14149408,0.20955855,-0.38508722,-0.11564796,0.91988534,-0.025694042,-0.31772718,-0.37740847,0.7709131
2025-07-21 14:34:24.768,1.3200000000000007,1320,66,0.06997473,-0.0859247,-0.1454093,-0.03239456,-0.016552372,-0.025018362,0.0,0.0,0.0,-0.045352917,0.06582549,-0.12973201,0.0016532096,-0.056781255,-0.0028157253,-0.052787106,0.052043736,0.08353927,-0.028220678,-0.007595394,-0.045655135,0.04609658,-0.030431585,0.021654677,-0.042010132,-0.05096372,0.005092208,-0.015611401,-0.033837892,0.20225565,0.025176082,-0.08436146,-0.0663303,0.07706314,0.24910495,0.5125172,0.3803934,-0.14149408,0.20955855,-0.38508722,-0.11564796,0.91988534,-0.025694042,-0.31772718,-0.37740847,0.7709131,-0.30281013,-0.36587247,0.3739522,-0.77677023,-0.05220622,-0.58739406,0.33172774,-0.10740997,-0.30284035,0.94662106,0.46286467,0.5622183
2025-07-21 14:34:24.788,1.3400000000000007,1340,67,0.07550127,0.049521927,0.16360404,0.009385589,0.03927451,0.012301364,0.0,0.0,0.0,-0.044653453,0.044761807,-0.11539625,0.011279474,-0.07988904,-0.018379254,-0.066291176,0.04864567,0.08796916,-0.03310256,0.01253314,-0.015950536,0.051348362,0.03448271,-0.01899236,0.08371167,0.0017720669,0.010167604,-0.04339137,-0.044029966,0.0037946587,0.01760408,0.0064898017,0.12667848,-0.037930682,-0.30281013,-0.36587247,0.3739522,-0.77677023,-0.05220622,-0.58739406,0.33172774,-0.10740997,-0.30284035,0.94662106,0.46286467,0.5622183,0.29145518,-0.29715055,0.15641941,-0.22204159,-0.09199164,-0.2680791,0.25279307,-0.09469855,-0.27569187,-0.30114624,-1.1772059,0.48291472
2025-07-21 14:34:24.814,1.3600000000000008,1360,68,-0.11958085,0.076674804,-0.0790108,0.03836043,0.020931153,0.043154147,0.0,0.0,0.0,-0.04589171,0.046470743,-0.12881094,0.007899824,-0.06472457,-0.021448413,-0.05310003,0.037559852,0.06993438,-0.03938646,-0.0026992995,-0.03351195,0.046485603,-0.06162105,-0.011160037,-0.027792973,0.029735703,-0.06794596,0.00058567984,0.052462295,-0.087368965,-0.02942233,0.022915177,-0.113686286,0.074040495,0.29145518,-0.29715055,0.15641941,-0.22204159,-0.09199164,-0.2680791,0.25279307,-0.09469855,-0.27569187,-0.30114624,-1.1772059,0.48291472,-0.09225353,0.11466243,0.38403,-0.558455,0.22370303,-0.34424654,0.3830058,0.63801,0.12281653,0.7794169,0.5396666,0.8526721
2025-07-21 14:34:24.831,1.3800000000000008,1380,69,0.16785711,-0.09025707,0.0076327175,0.025140464,0.024800442,0.042652804,0.0,0.0,0.0,-0.046114944,0.048926707,-0.10616994,0.013895147,-0.0756728,0.008827067,-0.067432225,0.04583261,0.084614836,-0.024801206,0.003676086,-0.004225067,0.053635437,0.0005002077,0.08438057,0.071190245,-0.016680138,0.0892135,0.07093247,0.0055501913,0.096812785,-0.005770514,0.09273769,0.09954206,-0.05218124,-0.09225353,0.11466243,0.38403,-0.558455,0.22370303,-0.34424654,0.3830058,0.63801,0.12281653,0.7794169,0.5396666,0.8526721,-0.28506437,-1.0125937,0.1786942,-0.39145014,-0.40906018,-0.45117798,0.56931204,-0.28727457,-0.47804564,0.5886555,-0.617895,0.07292174
2025-07-21 14:34:24.848,1.4000000000000008,1400,70,-0.15452352,0.050814122,0.04037623,0.016846707,0.06432279,-0.04316382,0.0,0.0,0.0,-0.045428604,0.050069086,-0.10513498,0.00095055497,-0.06143097,-0.025747065,-0.05851467,0.05682656,0.072079286,-0.03152952,0.0143585475,0.0125750005,0.04794151,-0.023065442,-0.019547677,0.07501786,-0.06495067,-0.039192665,0.027881581,-0.016955258,-0.14036465,-0.031267088,0.033491578,0.027127465,-0.031243261,-0.28506437,-1.0125937,0.1786942,-0.39145014,-0.40906018,-0.45117798,0.56931204,-0.28727457,-0.47804564,0.5886555,-0.617895,0.07292174,0.2673276,-0.048585065,0.09488484,-0.14705381,0.20543057,0.22030193,0.27541837,0.7537432,0.24951948,-0.14944312,-0.26040986,0.46846673
2025-07-21 14:34:24.868,1.4200000000000008,1420,71,0.0014044308,-0.07101893,-0.14340109,-0.019879302,0.0067010946,-0.007033435,0.0,0.0,0.0,-0.045767408,0.0415665,-0.09485038,0.005028462,-0.05973501,-0.020078814,-0.059444886,0.047368973,0.08900766,-0.017423494,0.010370038,-0.0006014679,0.06327805,0.004498814,-0.026826417,-0.0046114186,-0.056939933,-0.01384718,-0.014400772,-0.010396705,0.09468975,0.068126366,-0.07008292,-0.041638885,0.029019307,0.2673276,-0.048585065,0.09488484,-0.14705381,0.20543057,0.22030193,0.27541837,0.7537432,0.24951948,-0.14944312,-0.26040986,0.46846673,-0.35170177,-0.23980564,0.41697818,-0.7722908,0.12998629,-0.25648174,0.4524441,0.0110892765,-0.3499236,1.1317613,0.5116983,0.41870695
2025-07-21 14:34:24.888,1.4400000000000008,1440,72,0.043654308,0.009437912,0.15392171,-0.009699747,0.032526217,0.044103906,0.0,0.0,0.0,-0.044301406,0.038889144,-0.09506608,0.015810007,-0.07687222,-0.005012138,-0.040942624,0.06356195,0.08816538,-0.0209296,0.019671686,0.0201493,0.057730906,0.018496504,0.048528925,0.010650944,-0.051733173,0.102241844,-0.06665373,0.013945545,-0.049873892,0.029447092,0.08399627,0.071082935,-0.019227415,-0.35170177,-0.23980564,0.41697818,-0.7722908,0.12998629,-0.25648174,0.4524441,0.0110892765,-0.3499236,1.1317613,0.5116983,0.41870695,0.1678441,-0.83776104,-0.06607716,-0.036285467,-0.2774454,-0.31879804,0.29252064,-0.003641624,-0.41248906,-0.13041079,-0.95163274,0.052953668
2025-07-21 14:34:24.914,1.4600000000000009,1460,73,-0.20115547,-0.010523157,-0.06275409,-0.043780226,0.028739758,-0.0003973206,0.0,0.0,0.0,-0.044892035,0.050870992,-0.12607172,0.00747542,-0.070936486,-0.01586681,-0.056867074,0.06046309,0.06886706,-0.02611534,0.014521876,0.004173042,0.04180302,0.039209314,-0.037465006,-0.034371205,0.018535461,-0.08089496,-0.024412807,-0.013715154,-0.041095454,-0.06836755,0.020015229,-0.03568629,-0.06572037,0.1678441,-0.83776104,-0.06607716,-0.036285467,-0.2774454,-0.31879804,0.29252064,-0.003641624,-0.41248906,-0.13041079,-0.95163274,0.052953668,-0.051105406,0.026440972,0.26811135,-0.3194239,0.3994499,0.034100033,0.23006019,0.37263304,0.0918698,0.57788247,0.21889386,0.471286
2025-07-21 14:34:24.932,1.4800000000000009,1480,74,0.17611402,-0.1700037,-0.03889607,0.020860456,-0.010704445,0.005370011,0.0,0.0,0.0,-0.04482087,0.05015237,-0.1280235,-0.007187347,-0.058961105,-0.003272136,-0.038388405,0.042689893,0.07693282,-0.028085217,0.027635703,0.0045934683,0.032762818,2.1496244e-05,0.06144024,0.011007819,0.023362037,0.016030103,0.07021633,-0.0075828726,0.085991435,0.06929814,0.029946143,0.08738784,0.00013033731,-0.051105406,0.026440972,0.26811135,-0.3194239,0.3994499,0.034100033,0.23006019,0.37263304,0.0918698,0.57788247,0.21889386,0.471286,-0.39577782,-0.6844982,0.17311332,-0.49118745,-0.06246271,-0.23160067,0.59083474,-0.3512537,-0.551147,0.6881596,-0.3768099,0.008570865
2025-07-21 14:34:24.949,1.5000000000000009,1500,75,-0.07519332,0.06658865,0.12106301,-0.0070734513,-0.020400276,-0.0024486615,0.0,0.0,0.0,-0.044826478,0.024901938,-0.122316726,-0.002118563,-0.07953077,-0.0036994002,-0.046005346,0.066219434,0.040288277,-0.026714327,0.044212975,0.011381089,0.044994913,0.01596301,-0.10535405,-0.03490983,-0.058113072,0.036064498,-0.0116143115,0.023833541,-0.15843637,-0.038078178,0.068537034,-0.11702648,-0.050957195,-0.39577782,-0.6844982,0.17311332,-0.49118745,-0.06246271,-0.23160067,0.59083474,-0.3512537,-0.551147,0.6881596,-0.3768099,0.008570865,0.40546516,0.85828,0.11008808,0.019282334,-0.25283638,-0.062099427,0.28568172,0.9348091,0.5493899,-0.42213872,0.362161,0.3468859
2025-07-21 14:34:24.969,1.520000000000001,1520,76,0.24023548,0.023274662,-0.07476158,-0.05712565,0.008813402,0.04485593,0.0,0.0,0.0,-0.04584558,0.03802555,-0.12581047,0.0010997214,-0.060061943,-0.021619396,-0.04065886,0.06256849,0.069362976,-0.018755704,0.010931844,0.010414527,0.039040744,0.07080199,0.052766096,0.04013018,0.08273751,-0.047766455,-0.040007327,-0.07537507,0.14966403,-0.04879731,-0.067367084,0.103201464,-0.027808582,0.40546516,0.85828,0.11008808,0.019282334,-0.25283638,-0.062099427,0.28568172,0.9348091,0.5493899,-0.42213872,0.362161,0.3468859,-0.2541691,-0.28846106,-0.0411114,-0.6111596,-0.1921294,-0.34467545,0.11613706,-0.42430568,0.24770476,0.3182402,-0.36285555,0.12654828
2025-07-21 14:34:24.989,1.540000000000001,1540,77,-0.120578185,0.11068753,0.07708068,-0.018342584,-0.017282814,-0.029991658,0.0,0.0,0.0,-0.04545808,0.032576192,-0.10078807,-0.010606356,-0.06530131,-0.025409529,-0.03737045,0.04982536,0.053405814,-0.017770082,0.016581187,0.002985018,0.031713657,-0.036639955,-0.082416825,-0.023556512,-0.07999623,-0.07055622,0.02822753,-0.06239626,-0.15998928,0.07273333,-0.06509845,-0.06790149,-0.04097756,-0.2541691,-0.28846106,-0.0411114,-0.6111596,-0.1921294,-0.34467545,0.11613706,-0.42430568,0.24770476,0.3182402,-0.36285555,0.12654828,0.20206133,0.84238416,-0.032688472,0.044540334,0.14193356,-0.09408303,0.19062296,0.8075645,0.36975437,-0.43811855,0.063950665,0.47798747
2025-07-21 14:34:25.009,1.560000000000001,1560,78,0.14969017,-0.0068321344,-0.15412356,-0.03648461,-0.0013674959,0.011519654,0.0,0.0,0.0,-0.04588167,0.0322229,-0.08690823,-0.01098322,-0.06905566,-0.019626334,-0.04108657,0.05009769,0.058777176,-0.005067289,0.010562779,0.014867368,0.031074183,0.015181034,0.1410978,0.047807373,-0.044400636,0.0036998447,0.026436802,-0.043360993,0.055458527,0.0025306805,-0.064713545,0.0279085,0.010014802,0.20206133,0.84238416,-0.032688472,0.044540334,0.14193356,-0.09408303,0.19062296,0.8075645,0.36975437,-0.43811855,0.063950665,0.47798747,-0.35058278,-0.8314505,-0.08207761,-0.4427107,-0.22168541,-0.26687545,0.40487033,-0.20865895,-0.024563476,0.6463006,0.07311075,0.14034376
2025-07-21 14:34:25.034,1.580000000000001,1580,79,-0.06858347,0.11830656,0.1226667,0.03455718,-0.005304872,0.036136102,0.0,0.0,0.0,-0.04482974,0.01852674,-0.06280549,-0.01411595,-0.06345004,-0.027515395,-0.041934017,0.043985236,0.061622716,-0.0048210747,0.012430752,0.02443109,0.03285711,-0.08570285,-0.024714649,0.05221031,-0.07398243,-0.031215237,-0.033693615,-0.061461758,-0.12864374,-0.056302477,0.060165916,-0.051429972,-0.013506173,-0.35058278,-0.8314505,-0.08207761,-0.4427107,-0.22168541,-0.26687545,0.40487033,-0.20865895,-0.024563476,0.6463006,0.07311075,0.14034376,0.30275375,0.2431438,-0.10229005,0.07348468,0.011786379,-0.35574934,-0.057017982,0.57477605,0.0888658,-0.42946956,-0.1515099,0.52762043
2025-07-21 14:34:25.049,1.600000000000001,1600,80,0.011014913,0.028079549,-0.107049845,-0.024215547,-0.034371607,0.02131543,0.0,0.0,0.0,-0.04502676,0.023525922,-0.055183068,-0.021933032,-0.04645121,-0.02577879,-0.04419111,0.042308718,0.07853801,0.0016730654,-0.0048562624,0.011505762,0.043822233,0.08546125,0.06354216,0.030132059,0.031343035,0.079147294,-0.045352615,-0.005773377,0.11303769,0.0765306,-0.021689579,-0.029897239,0.02371973,0.30275375,0.2431438,-0.10229005,0.07348468,0.011786379,-0.35574934,-0.057017982,0.57477605,0.0888658,-0.42946956,-0.1515099,0.52762043,-0.3047636,-0.77399766,0.3332782,-0.5148697,-0.36903882,-0.6477107,0.1949767,-0.017372388,-0.57432365,0.5884073,0.16160865,0.33716846
2025-07-21 14:34:25.069,1.620000000000001,1620,81,-0.080380246,0.03454667,0.07054063,-0.002622356,0.025453366,0.0018269578,0.0,0.0,0.0,-0.04413119,0.022438183,-0.064092286,-0.0140670715,-0.060935628,-0.039386556,-0.06567291,0.04612914,0.07915601,-0.008244953,0.0134798745,0.006073204,0.029933067,0.035517596,-0.11149596,0.089793235,0.0036141379,-0.06380666,0.03809155,-0.06809654,0.008915901,-0.056349616,0.045573678,0.006544424,0.025913436,-0.3047636,-0.77399766,0.3332782,-0.5148697,-0.36903882,-0.6477107,0.1949767,-0.017372388,-0.57432365,0.5884073,0.16160865,0.33716846,0.45010623,0.24172145,0.35376158,-0.3323917,0.12679365,-0.24512619,-0.039566994,0.28957528,-0.26577574,-0.22026154,-0.096792005,0.68461645
2025-07-21 14:34:25.089,1.640000000000001,1640,82,0.0897718,0.059290815,-0.081823565,-0.039315328,-0.014501178,-0.043004755,0.0,0.0,0.0,-0.0442138,0.026754249,-0.039224796,-0.0156712,-0.06260991,-0.028108304,-0.047776114,0.023921298,0.08180983,-0.02329148,0.0056521045,0.0031527283,0.04543622,0.09502335,0.05878058,0.056136332,-0.069416724,-0.030150544,0.027748626,-0.092835896,0.08033264,0.035034515,-0.0821722,-0.056229357,0.0025056703,0.45010623,0.24172145,0.35376158,-0.3323917,0.12679365,-0.24512619,-0.039566994,0.28957528,-0.26577574,-0.22026154,-0.096792005,0.68461645,-0.3259022,-0.8589511,0.3397946,-0.5721747,0.1636725,-0.45150977,0.3336279,0.1327094,-0.62453616,0.51164013,0.05563218,0.58369696
2025-07-21 14:34:25.114,1.660000000000001,1660,83,-0.019448873,0.042607658,0.14335541,0.03207877,0.01947133,-0.0015488161,0.0,0.0,0.0,-0.043282013,0.040870853,-0.04475855,0.0062253503,-0.06936423,-0.01754919,-0.054021966,0.024839673,0.06946585,-0.032292333,0.0045626094,0.0050704326,0.054663066,-0.009679694,-0.055353194,-0.043566518,-0.033844743,0.08109123,-0.05899047,0.06931149,-0.023011077,-0.041406937,0.045016762,-0.031282738,-0.0009258898,-0.3259022,-0.8589511,0.3397946,-0.5721747,0.1636725,-0.45150977,0.3336279,0.1327094,-0.62453616,0.51164013,0.05563218,0.58369696,0.47189918,-0.10971785,0.24845116,-0.20573218,-0.0063032806,-0.70614576,0.15682225,0.46372843,-0.4414696,-0.27751684,-0.63749164,0.4975663
2025-07-21 14:34:25.131,1.680000000000001,1680,84,-0.13050012,0.021475552,-0.15326099,-0.029755889,0.04760541,-0.019692013,0.0,0.0,0.0,-0.044187315,0.030817777,-0.04704751,0.0014187408,-0.058720365,-0.015653763,-0.07179358,0.02734465,0.09516884,-0.04645419,0.0008101847,-0.011281415,0.051508337,0.068266936,0.02518385,0.04681584,0.008914631,-0.013123972,0.018815812,-0.0034804102,0.086548686,0.02210445,0.012443196,-0.1290487,0.05388225,0.47189918,-0.10971785,0.24845116,-0.20573218,-0.0063032806,-0.70614576,0.15682225,0.46372843,-0.4414696,-0.27751684,-0.63749164,0.4975663,-0.3083643,-0.8003012,0.37792456,-0.5792588,-0.003739588,-0.44364542,0.5172504,0.1493931,-0.1916291,1.0771785,0.7415382,0.5588634
2025-07-21 14:34:25.149,1.700000000000001,1700,85,-0.049813464,0.011020026,0.2332766,-0.0063596973,-0.019245153,-0.042205967,0.0,0.0,0.0,-0.04365046,0.029196883,-0.059942782,0.0064894725,-0.05603473,-0.0155782895,-0.070455715,0.044548925,0.0879342,-0.032885507,0.011312601,0.0003371052,0.05460573,-0.027162943,-0.04506081,0.02964857,-0.022110458,0.024601737,-0.0062358635,0.017088754,-0.08475914,-0.02042424,0.03280849,0.14252739,0.04143827,-0.3083643,-0.8003012,0.37792456,-0.5792588,-0.003739588,-0.44364542,0.5172504,0.1493931,-0.1916291,1.0771785,0.7415382,0.5588634,0.43173593,-0.36920136,0.13280527,-0.05224567,-0.035200156,-0.30043542,0.31189677,0.35659844,-0.4810422,-0.7448095,-1.5993847,0.3965657
2025-07-21 14:34:25.169,1.720000000000001,1720,86,-0.08888503,0.009478585,-0.023696711,0.046846956,-0.030499319,0.04372155,0.0,0.0,0.0,-0.045275226,0.03665188,-0.07342856,0.0142797455,-0.06579934,-0.0066655627,-0.06630792,0.039459404,0.09436854,-0.044627454,-0.0016660789,-0.0091012325,0.057702098,0.0052073007,-0.030643193,0.06907765,0.07309124,0.04181154,-0.06739661,-0.06046271,0.04554409,0.0015181734,0.010715519,-0.13819548,-0.031040698,0.43173593,-0.36920136,0.13280527,-0.05224567,-0.035200156,-0.30043542,0.31189677,0.35659844,-0.4810422,-0.7448095,-1.5993847,0.3965657,0.10376961,0.043981053,0.6800819,-0.43940875,-0.33929583,-0.63552684,0.02671434,0.7122107,-0.19173126,0.4630252,0.249358,0.688715
2025-07-21 14:34:25.191,1.740000000000001,1740,87,0.13890253,-0.11895392,-0.03513702,-0.02231505,0.06583081,-0.043404013,0.0,0.0,0.0,-0.046207707,0.05353713,-0.078089215,0.004310088,-0.0630968,-0.024554633,-0.08131307,0.043497734,0.13148803,-0.03718875,0.0050220513,0.001581292,0.06609306,-0.0036410317,0.042880364,0.08014366,0.048356354,0.0153119,-0.07585061,-0.03694118,0.055596545,0.06432565,-0.03324961,0.11329158,-0.042887703,0.10376961,0.043981053,0.6800819,-0.43940875,-0.33929583,-0.63552684,0.02671434,0.7122107,-0.19173126,0.4630252,0.249358,0.688715,0.049277697,-0.9499079,0.34881815,-0.15328342,0.018247098,-0.09572592,0.34000582,-0.3571857,-0.5329297,0.016894834,-0.6024556,0.07780801
2025-07-21 14:34:25.214,1.7600000000000011,1760,88,-0.09768896,0.113492616,0.03247064,0.034990888,0.04722473,-0.037487477,0.0,0.0,0.0,-0.045762997,0.03488094,-0.077099256,0.02754496,-0.06476838,-0.03860123,-0.06679106,0.045990996,0.10705598,-0.047364466,-0.005119174,0.001875897,0.059850708,0.04979398,-0.015570724,-0.05505075,0.030141125,-0.036817513,0.07964727,-0.009747096,-0.08423213,0.013966466,0.0065552196,-0.07353677,0.038384818,0.049277697,-0.9499079,0.34881815,-0.15328342,0.018247098,-0.09572592,0.34000582,-0.3571857,-0.5329297,0.016894834,-0.6024556,0.07780801,0.33366144,-0.032648273,0.28934175,-0.34671712,0.10573877,-0.16172644,0.19138926,0.4873495,0.07661441,0.1063557,-0.036317497,0.4615974
2025-07-21 14:34:25.231,1.7800000000000011,1780,89,0.11576443,-0.04921291,-0.059679177,0.036977816,0.00019938643,-0.039906092,0.0,0.0,0.0,-0.04620665,0.051760178,-0.0914877,0.008489402,-0.06333481,-0.022691334,-0.052865095,0.044077,0.10298989,-0.030825272,-0.0061541554,0.0046861432,0.053545456,-0.02174644,0.057693962,-0.05674486,-0.045052923,0.037571,0.02817119,-0.056801837,0.027712414,0.025614128,0.04443782,0.048631825,0.016105397,0.33366144,-0.032648273,0.28934175,-0.34671712,0.10573877,-0.16172644,0.19138926,0.4873495,0.07661441,0.1063557,-0.036317497,0.4615974,-0.29008773,-0.6350381,0.22913165,-0.5078322,0.038621165,-0.21944183,0.4398606,-0.012047682,-0.45437735,0.70666724,-0.18237497,0.21626273
2025-07-21 14:34:25.250,1.8000000000000012,1800,90,-0.07306666,0.042505953,0.105869435,0.02790825,0.036778312,-0.030189306,0.0,0.0,0.0,-0.04636701,0.032553878,-0.092548475,0.01645336,-0.059495483,-0.019810218,-0.06628371,0.051037412,0.0950803,-0.03533056,0.009767378,-0.014579472,0.042387277,-0.028589848,-0.06556849,0.022428786,-0.0073126643,-0.040584218,0.069220886,-0.026707567,0.010044286,0.01509641,0.0072752805,-0.08445313,-0.046797417,-0.29008773,-0.6350381,0.22913165,-0.5078322,0.038621165,-0.21944183,0.4398606,-0.012047682,-0.45437735,0.70666724,-0.18237497,0.21626273,0.61947685,0.45803657,0.21833949,-0.2836678,-0.016931199,-0.3004143,0.23323974,0.16608553,-0.12508464,-0.119190395,0.13733155,0.48808917
2025-07-21 14:34:25.270,1.8200000000000012,1820,91,0.070190206,-0.10804391,-0.009564232,0.03046284,-0.030545624,-0.026836319,0.0,0.0,0.0,-0.047798555,0.04958237,-0.07938834,0.02072926,-0.059333093,-0.008454324,-0.058491357,0.034509405,0.08831491,-0.0429173,0.003040673,0.008071142,0.041457742,0.023095421,0.09063202,-0.06772475,-0.05575731,0.04564204,0.0038218137,-0.022137487,0.04199952,0.025760856,-0.04239186,0.10066802,-0.06220391,0.61947685,0.45803657,0.21833949,-0.2836678,-0.016931199,-0.3004143,0.23323974,0.16608553,-0.12508464,-0.119190395,0.13733155,0.48808917,-0.3538451,-0.6353088,0.17623137,-0.38355315,-0.19887355,-0.079524405,0.16965036,-0.21929656,-0.4680931,0.2800456,-0.65679556,0.21640787
2025-07-21 14:34:25.297,1.8400000000000012,1840,92,-0.09957859,0.10575268,0.089200966,0.020896008,-0.018343162,0.03715857,0.0,0.0,0.0,-0.048834164,0.047527656,-0.084451064,0.01722927,-0.05965694,-0.033452395,-0.064254016,0.027595585,0.054990657,-0.037195746,-0.001681049,-0.019314697,0.05323983,-0.041035574,-0.1240777,0.03375977,0.034105133,-0.049894318,-0.029372763,-0.05890784,-0.039544873,-0.066966236,0.0772078,-0.029013794,0.04964499,-0.3538451,-0.6353088,0.17623137,-0.38355315,-0.19887355,-0.079524405,0.16965036,-0.21929656,-0.4680931,0.2800456,-0.65679556,0.21640787,0.37880006,0.76132655,0.4600797,-0.011090479,0.1682558,-0.37876555,-0.16061737,0.6892619,-0.12428336,-0.52327335,-0.23071642,0.67644
2025-07-21 14:34:25.314,1.8600000000000012,1860,93,0.13396022,-0.077194385,-0.15731537,0.004927214,0.015138526,-0.019118674,0.0,0.0,0.0,-0.049729228,0.05330948,-0.07448908,0.015137324,-0.058042116,-0.008578542,-0.05790318,0.017915279,0.07969755,-0.034981158,-0.0023341957,-0.016840227,0.06403534,0.0302495,0.04063196,0.0684839,0.06612206,0.018361196,-0.02371924,-0.04673431,0.05128294,-0.00784025,0.032134242,0.008445997,-0.0051691756,0.37880006,0.76132655,0.4600797,-0.011090479,0.1682558,-0.37876555,-0.16061737,0.6892619,-0.12428336,-0.52327335,-0.23071642,0.67644,-0.3714918,-0.6955172,0.23546411,-0.5890228,-0.059807025,-0.46780184,0.545551,0.119367436,-0.37174714,0.6773556,0.2329849,0.38399002
2025-07-21 14:34:25.331,1.8800000000000012,1880,94,-0.0048545445,0.0008001486,0.13189684,-0.0035872262,0.0027209846,-0.049252167,0.0,0.0,0.0,-0.04894015,0.04789597,-0.06706221,0.010590324,-0.0625017,-0.024970427,-0.054673024,0.041770093,0.08557614,-0.037868645,-0.0063418597,-0.0071335873,0.056799397,0.015434644,-0.014680908,0.025625588,0.022717696,0.03675621,-0.07314423,-0.035752017,-0.014570734,-0.028709177,0.008301634,0.029191734,-0.019029805,-0.3714918,-0.6955172,0.23546411,-0.5890228,-0.059807025,-0.46780184,0.545551,0.119367436,-0.37174714,0.6773556,0.2329849,0.38399002,0.4486942,-0.37214482,0.1803638,-0.3145666,-0.0062426105,-0.57452756,0.23024684,0.1759585,-0.3541909,-0.2983035,-0.6993895,0.5284728
2025-07-21 14:34:25.351,1.9000000000000012,1900,95,-0.15338267,0.06774049,-0.0949573,-0.0044005862,-0.02786749,-0.027430572,0.0,0.0,0.0,-0.049616378,0.05437584,-0.08033805,0.015366334,-0.06235156,-0.014196766,-0.071226165,0.04071503,0.084370896,-0.055087887,-0.008494295,-0.033784024,0.0572251,0.06416469,-0.0044293627,0.042594753,-0.021472955,0.039901696,-0.02826454,-0.01479052,0.03505968,-0.014452767,-0.08882514,-0.02854586,0.059452653,0.4486942,-0.37214482,0.1803638,-0.3145666,-0.0062426105,-0.57452756,0.23024684,0.1759585,-0.3541909,-0.2983035,-0.6993895,0.5284728,-0.16594017,-0.48393816,0.3675053,-0.43476266,0.028564833,-0.40366456,0.2995352,0.19325955,-0.25379682,0.5997244,0.31207952,0.45406625
2025-07-21 14:34:25.371,1.9200000000000013,1920,96,0.062230103,0.020117462,0.11110331,0.012702868,0.008447338,-0.009986539,0.0,0.0,0.0,-0.0493735,0.051536553,-0.096441284,0.025899552,-0.06755995,-0.013860582,-0.07119825,0.039385896,0.07185421,-0.048816316,0.0033070124,-0.014970305,0.03953272,0.02746783,0.0095622195,0.0042888443,-0.026608583,-0.05873872,-0.032791376,0.0122924615,-0.008958945,0.0390243,0.03820873,0.124390535,0.035758775,-0.16594017,-0.48393816,0.3675053,-0.43476266,0.028564833,-0.40366456,0.2995352,0.19325955,-0.25379682,0.5997244,0.31207952,0.45406625,0.3005121,-0.47232932,0.36167124,-0.15177493,0.08478647,-0.28536782,0.31503704,0.1191899,-0.5429903,-0.22549574,-1.1783128,0.4450793
2025-07-21 14:34:25.397,1.9400000000000013,1940,97,-0.1166929,-0.025012769,-0.025483985,0.009013221,-0.02169072,0.030727955,0.0,0.0,0.0,-0.049779247,0.056981746,-0.11886165,0.019819785,-0.06674318,-0.006659084,-0.07383775,0.037564952,0.06530383,-0.048677273,-0.001579375,-0.037498556,0.05439284,0.014667033,-0.012451061,0.06287879,0.059845038,0.016682763,0.006115214,-0.050412133,-0.028872643,-0.008234497,0.021448333,-0.02503486,0.03117467,0.3005121,-0.47232932,0.36167124,-0.15177493,0.08478647,-0.28536782,0.31503704,0.1191899,-0.5429903,-0.22549574,-1.1783128,0.4450793,0.11128742,-0.06072391,0.51300275,-0.4468124,0.0029639527,-0.35553703,0.316414,0.73445433,-0.18634899,0.3705754,0.048829414,0.58455884
2025-07-21 14:34:25.414,1.9600000000000013,1960,98,0.11148074,-0.14900285,0.019065203,-0.058028772,-0.03487168,0.036102723,0.0,0.0,0.0,-0.05001558,0.06084354,-0.09928358,0.025670704,-0.055768073,-0.0048560495,-0.065319695,0.033492517,0.11265683,-0.043868333,0.0124123655,-0.01718937,0.06033244,-0.061027024,0.00023239285,-0.05602754,0.06778055,0.040573698,0.015021604,0.033489026,0.06222346,-0.06291162,0.0018142267,0.022629287,-0.07301454,0.11128742,-0.06072391,0.51300275,-0.4468124,0.0029639527,-0.35553703,0.316414,0.73445433,-0.18634899,0.3705754,0.048829414,0.58455884,0.19734508,-0.43971655,0.13820346,-0.44534644,-0.018440329,-0.23988926,0.45415816,0.029712688,-0.41413063,0.20437378,-0.21587087,0.23948695
2025-07-21 14:34:25.431,1.9800000000000013,1980,99,-0.019651555,-0.045147564,0.048739646,-0.059364952,0.047092773,-0.040425047,0.0,0.0,0.0,-0.049671575,0.047857173,-0.11935307,0.02121214,-0.06860992,-0.002707792,-0.0707687,0.04123449,0.092958175,-0.04625921,0.014023962,-0.026274987,0.04546912,-0.019459104,-0.074188046,-0.07392594,-0.06657284,0.0046141203,-0.0023500165,-0.014762251,0.018712586,-0.013322472,-0.02290244,-0.07797597,0.05135716,0.19734508,-0.43971655,0.13820346,-0.44534644,-0.018440329,-0.23988926,0.45415816,0.029712688,-0.41413063,0.20437378,-0.21587087,0.23948695,0.29959443,0.37255746,0.29104772,-0.32226354,-0.08751219,-0.37971157,0.10099724,0.3042519,-0.046274275,0.14116046,0.32274482,0.60735404
2025-07-21 14:34:25.451,2.0000000000000013,2000,100,0.18763073,-0.10682077,0.025941191,-0.011810338,0.0454893,0.034630973,0.0,0.0,0.0,-0.049886186,0.068038985,-0.09751275,0.023255488,-0.06587409,-0.018215295,-0.064127915,0.040370613,0.10694474,-0.03961776,0.0022374396,-0.0037516484,0.04716716,0.06927599,0.0439119,0.033897515,0.0036685762,-0.076688714,0.034523137,-0.042046268,0.02834716,-0.056328822,-0.0048464295,-0.0032455437,-0.029770028,0.29959443,0.37255746,0.29104772,-0.32226354,-0.08751219,-0.37971157,0.10099724,0.3042519,-0.046274275,0.14116046,0.32274482,0.60735404,0.11205769,-0.46467,0.33162096,-0.3577796,0.02742733,-0.2956688,0.23925495,-0.04685219,-0.42362332,0.12378724,-0.47991392,0.7603308
2025-07-21 14:34:25.471,2.0200000000000014,2020,101,-0.13804877,0.10017567,0.00834001,-0.05853745,0.013827881,0.023542417,0.0,0.0,0.0,-0.049811777,0.057366446,-0.106051415,0.019638842,-0.07199084,-0.0051775137,-0.06019353,0.046040963,0.08390363,-0.05157762,0.0036770864,-0.020486346,0.05263498,0.031171203,-0.06088856,-0.044441786,0.012870004,0.068048984,-0.017101068,0.013851901,-0.05113678,0.01312803,-0.055822503,0.0024676742,-0.034971293,0.11205769,-0.46467,0.33162096,-0.3577796,0.02742733,-0.2956688,0.23925495,-0.04685219,-0.42362332,0.12378724,-0.47991392,0.7603308,0.15058747,-0.06493629,0.25798362,-0.29553175,0.0366183,-0.20103726,0.14100423,0.47769952,0.04980249,0.15036228,-0.08379328,0.4342303
2025-07-21 14:34:25.497,2.0400000000000014,2040,102,0.0024600825,-0.026393626,-0.038795818,0.030568456,-0.0023890717,-0.0011396183,0.0,0.0,0.0,-0.050010912,0.06615599,-0.10539707,0.008274128,-0.055461764,-0.0018059342,-0.061582092,0.02887087,0.092297785,-0.03458739,-0.0019607954,-0.031070136,0.04750042,0.003036484,0.021213247,-0.0316267,-0.068042174,0.022259338,0.013272597,0.014349572,-0.015331882,0.081736825,0.0602906,-0.046859216,-0.07270574,0.15058747,-0.06493629,0.25798362,-0.29553175,0.0366183,-0.20103726,0.14100423,0.47769952,0.04980249,0.15036228,-0.08379328,0.4342303,0.031522457,-0.2756414,0.2732668,-0.6037618,0.013308041,-0.36817697,0.4519695,0.38251173,-0.4286272,0.6709065,0.3535462,0.40545908
2025-07-21 14:34:25.514,2.0600000000000014,2060,103,0.008856593,0.0066543585,0.11659897,0.031387053,-0.023426292,-0.019470453,0.0,0.0,0.0,-0.04949104,0.054855004,-0.089572676,0.004626786,-0.060821764,-0.00059618376,-0.06011676,0.04714649,0.105645664,-0.039431445,0.01284269,-0.004048616,0.0453736,-0.013520251,-0.0027808931,0.05613969,0.05090129,0.033613887,-0.020495161,-0.0009178642,0.03110051,-0.031619526,0.021697659,-0.010789568,0.011849187,0.031522457,-0.2756414,0.2732668,-0.6037618,0.013308041,-0.36817697,0.4519695,0.38251173,-0.4286272,0.6709065,0.3535462,0.40545908,0.25700486,-0.3225847,0.1942513,-0.5621809,-0.032214783,-0.6641303,0.26897997,0.0788752,-0.47942042,-0.10010147,-0.52549356,0.6161351
2025-07-21 14:34:25.531,2.0800000000000014,2080,104,-0.15630332,0.12712653,-0.11416103,0.015522014,0.007856603,-0.01482203,0.0,0.0,0.0,-0.050546765,0.058443148,-0.097001456,0.0047293054,-0.07561432,-0.0020312124,-0.06894531,0.040842984,0.10418821,-0.048840024,0.007821985,-0.015685838,0.04667069,0.010635712,0.028831402,0.030863928,-0.07696587,-0.028463738,0.03155711,0.0036673632,-0.07859337,0.04377442,-0.06839147,-0.14719824,-0.042465586,0.25700486,-0.3225847,0.1942513,-0.5621809,-0.032214783,-0.6641303,0.26897997,0.0788752,-0.47942042,-0.10010147,-0.52549356,0.6161351,-0.23638219,-0.5680605,0.2383181,-0.516529,0.058261313,-0.27608743,0.59548694,0.37307268,0.2100267,0.8721089,0.8276588,0.55119896
2025-07-21 14:34:25.551,2.1000000000000014,2100,105,-0.022703292,-0.0057826485,0.108497396,0.041776106,0.0108635845,0.01717807,0.0,0.0,0.0,-0.050288487,0.038225837,-0.10856696,0.006223075,-0.08187334,0.0059676575,-0.06683807,0.048410013,0.110113464,-0.027510317,0.015373841,-0.0022583874,0.0415009,-0.008245935,-0.0075829364,-0.064387076,0.028926661,-0.060449038,-0.00962966,0.066572234,0.00817292,0.093751065,-0.01162986,0.14190523,0.033648074,-0.23638219,-0.5680605,0.2383181,-0.516529,0.058261313,-0.27608743,0.59548694,0.37307268,0.2100267,0.8721089,0.8276588,0.55119896,0.11276234,-0.34326565,0.07915653,-0.34207952,-0.0044760182,-0.30012247,0.647992,-0.28184307,-0.34424156,-0.027847422,-1.1349019,0.2586378
2025-07-21 14:34:25.571,2.1200000000000014,2120,106,-0.031593632,-0.009821034,-0.0104724765,0.0071629896,-0.015581721,-0.032239076,0.0,0.0,0.0,-0.05145615,0.040395275,-0.12386141,-0.0012938618,-0.06668415,-0.007223914,-0.066441186,0.066979155,0.06986026,-0.03420232,0.022429248,0.010191574,0.05450255,0.017588139,0.04381719,-0.0039744475,-0.010310901,-0.066533774,-0.040899035,-0.036532376,-0.1655271,-0.011807048,-0.08284086,-0.016888186,0.027748136,0.11276234,-0.34326565,0.07915653,-0.34207952,-0.0044760182,-0.30012247,0.647992,-0.28184307,-0.34424156,-0.027847422,-1.1349019,0.2586378,0.02531526,-0.118553884,0.14906357,-0.19073662,0.21751913,0.20232868,0.4878825,0.7336837,0.21484415,0.1640702,-0.27908847,0.61931276
2025-07-21 14:34:25.597,2.1400000000000015,2140,107,0.01963725,-0.018374862,-0.112040214,-0.017065547,0.018978626,0.023524666,0.0,0.0,0.0,-0.052289627,0.050955743,-0.11408593,0.010289139,-0.067899235,0.0074174297,-0.046964504,0.05659474,0.10493415,-0.021681717,0.012975361,-0.0007465373,0.065472595,-0.007689044,0.032979984,-0.050586227,0.008880984,0.045758832,0.097087376,-0.043841545,0.029654449,0.0962221,-0.037982214,-0.102225594,-0.04441793,0.02531526,-0.118553884,0.14906357,-0.19073662,0.21751913,0.20232868,0.4878825,0.7336837,0.21484415,0.1640702,-0.27908847,0.61931276,-0.15106325,-0.41494274,0.08924544,-0.64106727,-0.18876454,-0.03736139,0.71879447,0.028224435,0.096796796,0.9125337,0.7163711,0.32494876
2025-07-21 14:34:25.614,2.1600000000000015,2160,108,0.047066584,-0.049657937,0.06241125,0.031023078,0.058071833,-0.028077966,0.0,0.0,0.0,-0.050988957,0.032323834,-0.124054246,0.0005595878,-0.079715885,-2.9918967e-05,-0.039630305,0.07706525,0.08551366,-0.008022031,0.026684644,0.017069062,0.046618022,-0.0313284,-0.023009656,-0.019274032,-0.0052487515,-0.09606374,0.06342108,-0.0013531164,0.012245734,-0.01941364,0.0029412496,0.07171946,0.033487875,-0.15106325,-0.41494274,0.08924544,-0.64106727,-0.18876454,-0.03736139,0.71879447,0.028224435,0.096796796,0.9125337,0.7163711,0.32494876,0.048994694,-0.235457,-0.13426238,-0.25682312,-0.05689592,-0.009445779,0.3879039,-0.40178198,-0.1038907,0.066315256,-0.44119015,0.29277924
2025-07-21 14:34:25.632,2.1800000000000015,2180,109,0.0024448277,-0.04250059,-0.085984066,-0.00955082,0.027270814,0.019189565,0.0,0.0,0.0,-0.05168888,0.028946657,-0.12000069,-0.0015845584,-0.070377015,-0.006622293,-0.047874417,0.07235445,0.048510388,-0.009538354,0.033259567,0.029562173,0.057803266,-0.0683923,0.055677257,-0.036280997,-0.020145096,-0.07820401,0.0008380611,-0.021444011,-0.043487884,-0.033925362,-0.054655064,0.034222722,0.04510459,0.048994694,-0.235457,-0.13426238,-0.25682312,-0.05689592,-0.009445779,0.3879039,-0.40178198,-0.1038907,0.066315256,-0.44119015,0.29277924,-0.24632454,-0.46836746,-0.14182869,-0.22190757,0.08482417,0.5063362,0.2774969,0.017484706,0.33280474,0.6586362,0.17652524,0.21056643
2025-07-21 14:34:25.652,2.2000000000000015,2200,110,0.057044335,-0.06330159,0.098065965,0.03320151,0.022422986,0.0013985357,0.0,0.0,0.0,-0.05194724,0.023651173,-0.13827938,-0.008272135,-0.0764267,-0.0049898154,-0.019969413,0.062473126,0.03011298,-0.0143116135,0.0351907,0.02826078,0.042525772,-0.035260625,-0.0358061,0.008527589,-0.016201736,-0.019006245,0.01910709,-0.0063625993,-0.019133238,0.05768454,-0.013420623,0.049672566,-0.030749058,-0.24632454,-0.46836746,-0.14182869,-0.22190757,0.08482417,0.5063362,0.2774969,0.017484706,0.33280474,0.6586362,0.17652524,0.21056643,0.02937637,0.23547828,-0.1834673,-0.09528886,-0.13090143,-0.115246914,0.20260872,0.100101665,-0.10116668,-0.04844939,-0.5147174,0.040034473
2025-07-21 14:34:25.672,2.2200000000000015,2220,111,-0.061248086,0.008606815,-0.11546366,0.016091218,0.02637921,0.023262564,0.0,0.0,0.0,-0.052996084,0.027936647,-0.11296495,-0.034672726,-0.066108435,-0.00776277,-0.026793059,0.063333966,0.04836885,-0.011942078,0.027130863,0.013594896,0.043689266,0.0040874467,0.018993134,-0.090910815,0.05091605,0.028099371,-0.015668243,-0.0057386234,-0.006198509,0.03371853,-0.09729851,-0.057252087,-0.06442282,0.02937637,0.23547828,-0.1834673,-0.09528886,-0.13090143,-0.115246914,0.20260872,0.100101665,-0.10116668,-0.04844939,-0.5147174,0.040034473,-0.16790208,-0.2066234,-0.19722521,-0.34399125,-0.06206744,-0.13105133,0.29457104,-0.054256696,0.31045407,0.7915025,0.6550533,0.14196543
2025-07-21 14:34:25.698,2.2400000000000015,2240,112,-0.008256158,0.037711527,0.0968795,-0.0016700344,-0.015233432,0.010121056,0.0,0.0,0.0,-0.05206353,0.028502049,-0.10090954,-0.029452704,-0.061650265,-0.022700327,-0.022322044,0.06320415,0.03507348,-0.006847043,0.036243286,0.045596235,0.023892766,0.021642933,0.014228556,-0.036065105,0.028537147,0.03886731,0.04464212,0.032716427,-0.06285666,0.07594576,0.01969546,0.15168677,0.039811358,-0.16790208,-0.2066234,-0.19722521,-0.34399125,-0.06206744,-0.13105133,0.29457104,-0.054256696,0.31045407,0.7915025,0.6550533,0.14196543,-0.0020057063,-0.24009925,-0.5401921,-0.002186126,-0.40980405,-0.115766115,0.26111057,-0.14573674,0.037827164,-0.091873825,-0.6262232,-0.021388471
2025-07-21 14:34:25.715,2.2600000000000016,2260,113,-0.15933652,-0.0002598968,-0.07442583,0.02673099,0.05978474,0.036346033,0.0,0.0,0.0,-0.052679677,0.036653303,-0.11412566,-0.045683578,-0.0641075,-0.027058778,-0.016464068,0.065695286,0.014783247,-0.0006323196,0.031417713,0.03568193,0.027053863,-0.0008853294,-0.020804297,-0.056058973,0.08302606,-0.09927515,-0.05130496,0.04421787,-0.08822385,-0.03526199,0.014509066,-0.060827743,0.06406086,-0.0020057063,-0.24009925,-0.5401921,-0.002186126,-0.40980405,-0.115766115,0.26111057,-0.14573674,0.037827164,-0.091873825,-0.6262232,-0.021388471,0.020114755,0.26725262,-0.5859928,-0.101690836,0.6171011,0.1083376,-0.24362114,0.18157688,0.47327906,0.14701483,0.8269339,0.5505862
2025-07-21 14:34:25.733,2.2800000000000016,2280,114,0.05813058,-0.055617444,-0.012544938,-0.03140495,0.047212314,-0.012610981,0.0,0.0,0.0,-0.052015945,0.01983295,-0.08205366,-0.05537046,-0.06620235,-0.017203966,-0.028955894,0.05347352,0.02269235,0.0041344734,0.029098276,0.03250191,0.030507186,0.03683088,0.013294685,-0.09175242,0.015583661,0.075638436,-0.0234379,0.013808535,0.06309201,0.07853669,0.0073502474,0.120149374,0.056521185,0.020114755,0.26725262,-0.5859928,-0.101690836,0.6171011,0.1083376,-0.24362114,0.18157688,0.47327906,0.14701483,0.8269339,0.5505862,-0.2457616,-0.35508844,0.12795988,-0.31944123,-0.57481444,-0.3493,0.3287965,-0.30741188,-0.18142793,0.21535371,-0.5176871,-0.0640682
2025-07-21 14:34:25.752,2.3000000000000016,2300,115,-0.006709483,0.2613489,-0.050563395,-0.0075859344,-0.00018148804,0.0021316647,0.0,0.0,0.0,-0.05040647,0.010201503,-0.08030483,-0.03885718,-0.05054212,-0.022397539,-0.027537387,0.057614136,-0.0032877976,-0.0060062357,0.015422349,0.025740141,0.024522208,-0.03798711,-0.05675596,0.0051550004,-0.06947443,-0.1171701,0.007096802,0.01676757,-0.011346903,-0.037689663,0.043142132,-0.05222623,0.0333117,-0.2457616,-0.35508844,0.12795988,-0.31944123,-0.57481444,-0.3493,0.3287965,-0.30741188,-0.18142793,0.21535371,-0.5176871,-0.0640682,0.11533002,0.321577,-0.24309234,-0.18690537,0.31723985,0.022647016,-0.015047669,0.3513406,0.12748013,0.22694246,0.567267,0.5390323
2025-07-21 14:34:25.772,2.3200000000000016,2320,116,0.1593411,-0.18182504,0.009850534,-0.028918182,0.012545774,0.013293652,0.0,0.0,0.0,-0.050079226,0.020495998,-0.052121364,-0.056812245,-0.067292556,-0.012044086,-0.018865936,0.04691467,0.02675224,0.0034358385,0.030739877,0.025113594,0.0314002,-0.01483955,0.106436245,0.046380296,-0.02917818,0.107236125,0.06804786,0.021468192,0.0567003,-0.024291512,0.05525615,0.10494865,0.07106576,0.11533002,0.321577,-0.24309234,-0.18690537,0.31723985,0.022647016,-0.015047669,0.3513406,0.12748013,0.22694246,0.567267,0.5390323,-0.24467312,-0.80844265,0.108158454,-0.3197043,-0.7928066,-0.41374552,0.27526256,-0.18628298,-0.4735877,0.2936395,-0.56249285,0.07492313
2025-07-21 14:34:25.797,2.3400000000000016,2340,117,-0.18848121,0.113878936,-0.008619089,-0.054573856,-0.012628431,-0.020536838,0.0,0.0,0.0,-0.049971372,0.021792512,-0.06161357,-0.046834007,-0.055897534,-0.042522658,-0.028457873,0.047660667,0.014303829,-0.018429503,0.019726163,0.037066974,0.023070255,-0.06174243,0.029747127,0.03894299,0.045205772,-0.14649743,0.0034524992,0.057495255,-0.01842235,0.010522057,-0.060347103,-0.006501151,0.024097377,-0.24467312,-0.80844265,0.108158454,-0.3197043,-0.7928066,-0.41374552,0.27526256,-0.18628298,-0.4735877,0.2936395,-0.56249285,0.07492313,0.108725555,-0.44383085,-0.03374405,-0.22665603,0.46916428,0.09334291,0.14874482,0.4753087,0.01467143,-0.15222928,-0.009801215,0.48285398
2025-07-21 14:34:25.814,2.3600000000000017,2360,118,-0.08757821,0.022130607,-0.0073263417,-0.037357397,0.066271156,0.043045487,0.0,0.0,0.0,-0.050443504,0.01547136,-0.06587069,-0.030159177,-0.059215337,-0.06306859,-0.026140718,0.029731609,0.023394158,-0.005474425,0.016451463,0.03373249,0.036536884,-0.05420924,-0.005001879,0.05230469,-0.009806377,0.05402154,-0.014376955,-0.073924,0.0086136805,0.028996803,0.06450202,0.04023425,-0.00064451573,0.108725555,-0.44383085,-0.03374405,-0.22665603,0.46916428,0.09334291,0.14874482,0.4753087,0.01467143,-0.15222928,-0.009801215,0.48285398,-0.050506335,-0.37936017,0.19340557,-0.14464943,0.14071354,-0.43700626,0.11526883,0.46826303,-0.42547446,0.093762256,-0.26360136,0.19634327
2025-07-21 14:34:25.832,2.3800000000000017,2380,119,-0.05919159,-0.032947525,0.0038095126,-0.01194634,0.0230203,0.02392868,0.0,0.0,0.0,-0.05091071,0.027296156,-0.088544875,-0.027967965,-0.05239917,-0.051061474,-0.039255153,0.025941487,0.059361696,-0.010011371,0.01755323,0.0070630973,0.030596256,0.015122943,-0.0040888134,-0.012737123,0.07064585,0.039978944,-0.04170972,-0.036975164,0.08717133,0.046364833,0.056503735,-0.023479052,-0.04709459,-0.050506335,-0.37936017,0.19340557,-0.14464943,0.14071354,-0.43700626,0.11526883,0.46826303,-0.42547446,0.093762256,-0.26360136,0.19634327,0.1473839,-0.38986638,0.30915642,-0.42358577,0.15540746,-0.61492515,0.038143836,0.37334293,-0.40394074,0.2945069,0.01283958,0.45111445
2025-07-21 14:34:25.853,2.4000000000000017,2400,120,0.023024468,-0.058639277,0.073005505,-0.036681097,0.070203274,0.013966536,0.0,0.0,0.0,-0.051311996,0.017847568,-0.09540475,-0.014725366,-0.061274465,-0.032310843,-0.050920963,0.03523001,0.08099161,-0.032419153,0.018083405,0.013775108,0.029026462,-0.03823737,0.018144144,0.029572923,-0.01965963,0.07372641,0.004598231,-0.057011172,0.018671826,-0.071885966,-0.004093134,0.023168348,0.011109639,0.1473839,-0.38986638,0.30915642,-0.42358577,0.15540746,-0.61492515,0.038143836,0.37334293,-0.40394074,0.2945069,0.01283958,0.45111445,0.2739589,-0.47188166,0.20647866,-0.31633425,0.054157145,-0.35916528,0.018025607,0.3889345,-0.39241403,-0.13646366,-0.51627034,0.44870898
2025-07-21 14:34:25.872,2.4200000000000017,2420,121,-0.16048183,0.06078608,-0.107428096,0.03187329,0.019356364,-0.0027191862,0.0,0.0,0.0,-0.052191686,0.034717675,-0.11285017,-0.02344491,-0.05211623,-0.021245617,-0.06471507,0.024071163,0.101233974,-0.039315395,0.024703022,-0.022128295,0.034720693,0.07519946,0.0070168828,-0.06635211,-0.0063005267,-0.0348308,-0.008036431,0.009506562,-0.011435744,0.007955482,0.017037917,-0.10422244,-0.036570203,0.2739589,-0.47188166,0.20647866,-0.31633425,0.054157145,-0.35916528,0.018025607,0.3889345,-0.39241403,-0.13646366,-0.51627034,0.44870898,-0.110841624,-0.31383607,0.33560288,-0.63571346,0.25128788,-0.32585678,0.35630053,0.3584182,-0.13919887,0.82850707,0.75026524,0.46225154
2025-07-21 14:34:25.897,2.4400000000000017,2440,122,0.15804006,-0.06112955,0.086503044,0.04283061,0.038655754,0.030446121,0.0,0.0,0.0,-0.051353596,0.03440773,-0.10606025,-0.008870076,-0.07288645,-0.0005727533,-0.06623115,0.025114084,0.0970946,-0.027640054,0.020531816,0.0026358806,0.03490721,-0.00961067,0.023523193,0.012083749,-0.088944696,0.06423312,-0.062354553,-0.053918198,-0.047149006,-0.043587137,0.015623081,0.02566714,0.002793905,-0.110841624,-0.31383607,0.33560288,-0.63571346,0.25128788,-0.32585678,0.35630053,0.3584182,-0.13919887,0.82850707,0.75026524,0.46225154,0.2119503,-0.603458,0.13448007,-0.34852266,-0.14631686,-0.60018635,0.38984537,0.16294596,-0.47663045,-0.08365852,-0.58665985,0.46831223
2025-07-21 14:34:25.914,2.4600000000000017,2460,123,-0.13861962,0.11020191,0.027745934,-0.010743478,0.048023053,-0.037340406,0.0,0.0,0.0,-0.052213978,0.02763712,-0.13537097,-0.008750078,-0.060152706,-0.0065926677,-0.059407078,0.028714528,0.08923392,-0.035894513,0.029465549,-0.006030624,0.034089103,0.00850416,-0.061476666,-0.06016923,-0.069935195,-0.077604584,0.039193735,0.06976801,0.049326707,-0.065426506,0.042539734,-0.031657998,-0.051640417,0.2119503,-0.603458,0.13448007,-0.34852266,-0.14631686,-0.60018635,0.38984537,0.16294596,-0.47663045,-0.08365852,-0.58665985,0.46831223,0.013735567,0.27606955,0.40030006,-0.28938305,0.3101899,-0.10611091,0.009288013,0.1232992,-0.116625234,0.25824073,-0.1079055,0.6902416
2025-07-21 14:34:25.933,2.4800000000000018,2480,124,0.14516105,0.015253753,0.038048547,-0.013639276,0.029594973,0.0059395763,0.0,0.0,0.0,-0.052980788,0.044289973,-0.13151446,-0.010177179,-0.07225755,0.010939351,-0.06480213,0.036834557,0.08655989,-0.029189436,0.023311267,-0.0055050827,0.048141148,0.0711473,0.096010834,-0.0076389736,0.03879929,0.0671798,0.024192108,0.0014686689,0.030923897,-0.03310159,-0.029589871,-0.03281019,-0.018695971,0.013735567,0.27606955,0.40030006,-0.28938305,0.3101899,-0.10611091,0.009288013,0.1232992,-0.116625234,0.25824073,-0.1079055,0.6902416,-0.02440148,-0.6033425,0.098502755,-0.4482072,-0.045896783,-0.37216192,0.31365633,0.030166205,-0.33013195,0.19253531,-0.47161075,0.39011624
2025-07-21 14:34:25.953,2.5000000000000018,2500,125,-0.10408186,0.08119775,-0.009556243,-0.01988825,-0.005046166,0.019377656,0.0,0.0,0.0,-0.052960835,0.02729583,-0.12865222,0.0035300332,-0.07454151,0.005296472,-0.062054817,0.033257008,0.08290552,-0.03288138,0.010892793,-0.027891407,0.04666009,0.035444133,-0.04195049,0.044088375,0.054843552,0.043832466,0.06210953,-0.054465793,-0.03064303,-0.024623325,0.035053726,-0.07742135,0.024772622,-0.02440148,-0.6033425,0.098502755,-0.4482072,-0.045896783,-0.37216192,0.31365633,0.030166205,-0.33013195,0.19253531,-0.47161075,0.39011624,0.16670662,0.16274142,0.18401694,-0.37150416,-0.12044052,-0.13913074,0.21602044,0.3320141,0.17829278,0.32352692,0.51934993,0.42039233
2025-07-21 14:34:25.974,2.520000000000002,2520,126,0.19468229,-0.09122719,-0.010537364,0.019152842,0.0031619845,0.0399049,0.0,0.0,0.0,-0.052960236,0.028262362,-0.11671871,-0.0061447113,-0.06755317,0.0050485986,-0.062345263,0.038847435,0.083542064,-0.031696305,0.016874196,-0.00784611,0.040406913,0.034235958,0.020278217,0.060643684,-0.028845627,0.040102586,0.080219336,-0.013211148,0.08075074,-0.033170518,0.006072395,0.10386231,-0.06273723,0.16670662,0.16274142,0.18401694,-0.37150416,-0.12044052,-0.13913074,0.21602044,0.3320141,0.17829278,0.32352692,0.51934993,0.42039233,-0.24794438,-0.41104198,0.10543062,-0.4547552,-0.2866294,-0.27510598,0.32298383,-0.3391993,-0.37202734,0.453759,-0.3715896,0.10331145
2025-07-21 14:34:25.997,2.540000000000002,2540,127,-0.016562983,0.08815924,0.023032203,0.013382164,0.019698583,0.013523094,0.0,0.0,0.0,-0.053271756,0.036677312,-0.12587135,0.0020753646,-0.06738927,-0.028506214,-0.045158096,0.039284054,0.061858892,-0.02140903,0.018813282,0.003163368,0.043464504,-0.037305187,-0.09030378,-0.06615391,0.021569822,-0.014862787,-0.025081325,-0.04397537,-0.032192774,-0.08348805,0.08341439,-0.10931405,-0.032688167,-0.24794438,-0.41104198,0.10543062,-0.4547552,-0.2866294,-0.27510598,0.32298383,-0.3391993,-0.37202734,0.453759,-0.3715896,0.10331145,0.2454147,0.76259166,0.07711412,-0.15065326,-0.02065979,-0.27890006,0.048152238,0.32539627,0.17672063,-0.018625332,0.7373596,0.5298524
2025-07-21 14:34:26.014,2.560000000000002,2560,128,0.18163458,-0.2198531,-0.02172788,-0.008338343,0.0018617056,-0.03904413,0.0,0.0,0.0,-0.054266647,0.038437914,-0.09276381,-0.0063261646,-0.054787282,-0.019175947,-0.04693671,0.038388085,0.055393793,-0.019403469,0.0067273322,0.024798552,0.040416952,0.0025317487,0.095081866,-0.0038533611,0.042838372,0.0013129328,-0.06512446,0.03357062,0.06295941,0.040190943,0.018942913,0.20550512,0.05646631,0.2454147,0.76259166,0.07711412,-0.15065326,-0.02065979,-0.27890006,0.048152238,0.32539627,0.17672063,-0.018625332,0.7373596,0.5298524,-0.24809465,-0.6429288,0.09752391,-0.21946031,-0.512667,-0.09699636,0.00040358305,-0.4576459,-0.10184856,0.2087152,-0.8721205,0.02026293
2025-07-21 14:34:26.033,2.580000000000002,2580,129,-0.140189,0.123933434,0.03214939,0.033338618,0.023919009,-0.005058923,0.0,0.0,0.0,-0.05456738,0.037480693,-0.08272066,-0.011577189,-0.05411542,-0.042569596,-0.04115869,0.025274869,0.031025255,-0.015658844,0.008450025,0.02737209,0.041419514,0.04001188,-0.023655482,0.079333976,-0.012227858,-0.07216911,-0.032595582,-0.04076965,-0.14220431,0.062709205,0.017951803,0.021122769,-0.06284327,-0.24809465,-0.6429288,0.09752391,-0.21946031,-0.512667,-0.09699636,0.00040358305,-0.4576459,-0.10184856,0.2087152,-0.8721205,0.02026293,0.34077328,0.25030804,0.056404065,0.20607968,0.3160114,0.024900146,-0.05295021,0.7851981,0.12156111,-0.56458056,-0.38368317,0.4793696
2025-07-21 14:34:26.053,2.600000000000002,2600,130,0.103922024,-0.12569126,-0.14803281,-0.0097121885,-0.027037976,-0.0033134778,0.0,0.0,0.0,-0.055202693,0.032913353,-0.07514396,-0.0027184442,-0.051301345,-0.047071602,-0.053912345,0.030029112,0.043698214,-0.01873916,0.005326738,0.011624933,0.05365558,0.04130146,0.0055221654,0.0077160853,-0.011515153,0.077925146,-0.047112536,0.004253598,0.13217519,-0.019045107,-0.11375289,-0.03867452,0.06537552,0.34077328,0.25030804,0.056404065,0.20607968,0.3160114,0.024900146,-0.05295021,0.7851981,0.12156111,-0.56458056,-0.38368317,0.4793696,-0.23985612,-0.32518578,0.39402315,-0.6773862,-0.11973243,-0.5548044,0.26969576,0.044681367,-0.6253052,0.63651055,0.16770686,0.45400783
2025-07-21 14:34:26.075,2.620000000000002,2620,131,0.021795252,0.10934036,0.08341779,-0.052028302,0.0016585211,0.04692878,0.0,0.0,0.0,-0.053504772,0.026650846,-0.064150006,-0.011958693,-0.05808243,-0.04467788,-0.05753753,0.03503583,0.033725385,-0.027609386,0.014156189,0.014756175,0.04784617,-0.08224677,-0.076313145,0.09046896,-0.054002695,-0.028122392,-0.0409025,-0.03748319,0.030993015,-0.09745764,0.09744224,0.053419963,0.04945183,-0.23985612,-0.32518578,0.39402315,-0.6773862,-0.11973243,-0.5548044,0.26969576,0.044681367,-0.6253052,0.63651055,0.16770686,0.45400783,0.22385657,-0.2607997,0.18050371,-0.08932937,0.14346603,-0.38370737,0.039466172,0.5081907,-0.53437996,-0.45018682,-0.58445734,0.4826626
2025-07-21 14:34:26.097,2.640000000000002,2640,132,-0.062094916,0.043494288,-0.100283846,-0.031542715,0.00062974804,-0.01960238,0.0,0.0,0.0,-0.05366904,0.030107547,-0.08627814,-0.002222222,-0.05118936,-0.03957277,-0.06322616,0.021262335,0.07543395,-0.045974463,0.0018745085,-0.0015716793,0.060393184,-0.03839583,0.0029689723,0.023553934,-0.0095733125,-0.0013468185,-0.08173064,0.05261605,0.021734765,-0.009037702,-0.008308114,-0.119134285,-0.04544861,0.22385657,-0.2607997,0.18050371,-0.08932937,0.14346603,-0.38370737,0.039466172,0.5081907,-0.53437996,-0.45018682,-0.58445734,0.4826626,-0.0813412,-0.4098894,0.39242548,-0.6651141,0.2627683,-0.6929887,0.27376,0.5314448,-0.21958886,0.59324354,0.65304863,0.6355009
2025-07-21 14:34:26.114,2.660000000000002,2660,133,0.07035243,-0.020185977,0.04930759,0.009084872,0.011700582,0.015476825,0.0,0.0,0.0,-0.052871577,0.023014981,-0.08811952,0.0010573004,-0.058941573,-0.012526912,-0.061709493,0.030582597,0.09313919,-0.046151575,-5.2748077e-05,0.0062224367,0.047554567,0.05485063,-0.011353109,0.017113626,-0.09473154,0.024713637,-0.020704761,-0.027253583,0.005543187,-0.06786368,0.0715936,0.1414896,-0.07245001,-0.0813412,-0.4098894,0.39242548,-0.6651141,0.2627683,-0.6929887,0.27376,0.5314448,-0.21958886,0.59324354,0.65304863,0.6355009,-0.047379907,-0.7628894,0.2005552,-0.21753912,0.03981667,-0.17438245,0.17045271,0.06534059,-0.45740265,0.012665795,-0.9354798,0.23565838
2025-07-21 14:34:26.133,2.680000000000002,2680,134,-0.06859665,0.12048428,0.13389498,-0.028161868,0.009145325,-0.023522682,0.0,0.0,0.0,-0.053256553,0.03603169,-0.1260197,0.0035711525,-0.058155835,0.0018261275,-0.070808224,0.0152857965,0.09178489,-0.044183854,0.001977467,0.004410313,0.04758249,-0.032480773,-0.13823856,-0.025691526,0.042651266,-0.010378649,-0.0782557,0.065789096,-0.0074914386,0.0010497022,0.023706406,-0.10508569,0.054067865,-0.047379907,-0.7628894,0.2005552,-0.21753912,0.03981667,-0.17438245,0.17045271,0.06534059,-0.45740265,0.012665795,-0.9354798,0.23565838,0.38735244,0.9666525,0.63857603,-0.16779472,0.021188177,-0.7088517,-0.21821918,0.64751345,-0.17482676,-0.3709323,-0.34741396,0.8949388
2025-07-21 14:34:26.153,2.700000000000002,2700,135,0.11523565,0.06654815,-0.095220976,0.030133935,-0.0052843736,0.048458252,0.0,0.0,0.0,-0.05489027,0.04950044,-0.11857006,0.018233003,-0.06519495,0.0011660111,-0.07985718,0.0053710104,0.11668265,-0.052908435,-0.0078447405,-0.028137373,0.06816868,0.040573016,0.02867279,0.058971323,0.063892625,0.037511416,-0.043403286,-0.07931733,0.022658829,0.053694475,0.021631757,-0.114207216,-0.001677407,0.38735244,0.9666525,0.63857603,-0.16779472,0.021188177,-0.7088517,-0.21821918,0.64751345,-0.17482676,-0.3709323,-0.34741396,0.8949388,-0.1087276,-0.2223069,0.25479326,-0.42289197,-0.11979038,-0.4167281,0.3763019,0.09672193,-0.23341535,0.23973699,0.27475247,0.700593
2025-07-21 14:34:26.178,2.720000000000002,2720,136,0.1421175,-0.032265697,0.054309368,0.06338265,0.03724467,-0.0262312,0.0,0.0,0.0,-0.05447674,0.048312888,-0.11770559,0.014105699,-0.06580059,-0.006061546,-0.07795794,0.014844412,0.1089677,-0.035439473,0.00033849815,-0.005646739,0.06317221,0.025536727,-0.050122447,0.054980103,0.027577924,-0.062331673,0.018185679,0.07085266,-0.03891969,-0.041778505,0.04336991,0.06940292,0.015311977,-0.1087276,-0.2223069,0.25479326,-0.42289197,-0.11979038,-0.4167281,0.3763019,0.09672193,-0.23341535,0.23973699,0.27475247,0.700593,0.10772879,-0.0016623201,0.41311282,-0.34685302,0.031782545,-0.32221895,0.30434275,0.08125216,-0.37267953,0.13563702,-0.6402324,0.8280002
2025-07-21 14:34:26.197,2.740000000000002,2740,137,0.09287498,-0.077055715,-0.05397118,0.059428528,0.03658386,-0.014933414,0.0,0.0,0.0,-0.05457299,0.03552965,-0.09322327,0.023828048,-0.06471597,-0.017374251,-0.078094654,0.020606413,0.0973831,-0.0478414,-0.010369514,-0.015608908,0.06591939,-0.004114508,0.059080724,0.01197464,0.028490532,0.07170189,0.00862338,0.030842222,-0.06570744,0.04069804,-0.031479605,-0.021267118,0.07052929,0.10772879,-0.0016623201,0.41311282,-0.34685302,0.031782545,-0.32221895,0.30434275,0.08125216,-0.37267953,0.13563702,-0.6402324,0.8280002,-0.10086625,-0.61924803,0.28063375,-0.5119897,-0.071022056,-0.24577793,0.6134473,0.2918532,-0.13880262,0.5501268,-0.1451331,0.62272584
2025-07-21 14:34:26.214,2.760000000000002,2760,138,-0.09321632,-0.12697242,0.0637424,0.011300122,0.0022966326,0.024315862,0.0,0.0,0.0,-0.053437456,0.041898474,-0.109879866,0.021745421,-0.062143225,-0.015010062,-0.06677482,0.03164694,0.10320714,-0.04042294,-0.0016903884,-0.015701527,0.081829585,0.0033558146,-0.0794751,-0.041489944,0.012815251,-0.03145117,0.054498527,0.04491596,0.05816182,0.05360421,-0.012029451,-0.0057058884,-0.053139556,-0.10086625,-0.61924803,0.28063375,-0.5119897,-0.071022056,-0.24577793,0.6134473,0.2918532,-0.13880262,0.5501268,-0.1451331,0.62272584,0.27534708,0.31820184,0.26406,-0.48079658,0.033348292,-0.22249931,0.40632218,0.052022245,-0.16699064,0.25251436,-0.28694236,0.5399627
