openverse-orca/OrcaGym/log/simulation_log_20250605_181211.csv
timestamp,imu_angle_roll,imu_angle_pitch,imu_angle_yaw,imu_angular_velocity_roll,imu_angular_velocity_pitch,imu_angular_velocity_yaw,imu_acc_x,imu_acc_y,imu_acc_z,fl_joint1_pos,fl_joint1_vel,fl_joint1_torque,fl_joint2_pos,fl_joint2_vel,fl_joint2_torque,fl_joint3_pos,fl_joint3_vel,fl_joint3_torque,fr_joint1_pos,fr_joint1_vel,fr_joint1_torque,fr_joint2_pos,fr_joint2_vel,fr_joint2_torque,fr_joint3_pos,fr_joint3_vel,fr_joint3_torque,hl_joint1_pos,hl_joint1_vel,hl_joint1_torque,hl_joint2_pos,hl_joint2_vel,hl_joint2_torque,hl_joint3_pos,hl_joint3_vel,hl_joint3_torque,hr_joint1_pos,hr_joint1_vel,hr_joint1_torque,hr_joint2_pos,hr_joint2_vel,hr_joint2_torque,hr_joint3_pos,hr_joint3_vel,hr_joint3_torque,fl_force_x,fl_force_y,fl_force_z,fr_force_x,fr_force_y,fr_force_z,hl_force_x,hl_force_y,hl_force_z,hr_force_x,hr_force_y,hr_force_z,fl_hip_action,fl_thigh_action,fl_calf_action,fr_hip_action,fr_thigh_action,fr_calf_action,hl_hip_action,hl_thigh_action,hl_calf_action,hr_hip_action,hr_thigh_action,hr_calf_action
2025-06-05 18:12:11.583,0.0041827974,0.009827568,0.0018447629,0.045114405,-0.02817601,0.028381167,0.0,0.0,0.0,0.0,0.004171392,0.0002682277,-0.009418771,-0.004395679,0.008871508,0.0063291094,-0.0056120874,-0.009677439,-0.0066125826,-0.0075948546,-0.00339667,-0.0077370913,0.068479486,-0.048879407,0.0026510053,-0.065991625,-0.049730394,0.06797483,-0.06431727,-0.022385692,-0.06647061,-0.07088173,-0.04330175,-0.055896807,0.0,0.0,0.0,0.0,0.0,0.0,0.0,0.0,0.0,0.0,0.0,0.0,-3.0,1.4431078,-3.0,-2.3551314,0.6549141,-1.5999143,3.0,-0.79335845,1.7903166,-0.57176983,-0.7866106,-3.0
2025-06-05 18:12:11.589,0.11761521,0.045128375,-0.035188768,-0.017489748,-0.015482691,-0.0038244496,0.0,0.0,0.0,0.0,-0.03139427,0.069293074,-0.103336476,-0.028578283,0.027040046,-0.052732248,0.035706054,-0.050120216,0.07007238,-0.006697608,-0.030769061,-0.09788283,-0.0854403,0.23257464,-0.34897047,-0.025570821,0.13632253,-0.15245654,0.06259673,-0.13154,0.1747005,-0.006726899,-0.10885554,-0.2601881,-3.0,1.4431078,-3.0,-2.3551314,0.6549141,-1.5999143,3.0,-0.79335845,1.7903166,-0.57176983,-0.7866106,-3.0,-3.0,0.8898714,-3.0,3.0,0.63754195,2.6738265,3.0,-0.28673258,-3.0,-3.0,-0.45610708,-3.0
2025-06-05 18:12:11.607,0.043640956,-0.068431914,-0.020707529,-0.021150338,0.033751417,0.008782278,0.0,0.0,0.0,0.0,-0.056426805,0.093688525,-0.14239638,-0.01775714,0.067859024,0.011674138,0.06622495,-0.06837672,-0.010539482,-0.020419424,-0.05193104,-0.14399178,-0.016378747,0.05622054,-0.075658314,0.031731512,0.04186108,0.1929315,0.18538548,0.041926127,-0.26737112,-0.071808584,0.009911082,0.050839376,-3.0,0.8898714,-3.0,3.0,0.63754195,2.6738265,3.0,-0.28673258,-3.0,-3.0,-0.45610708,-3.0,-3.0,2.3848302,-3.0,3.0,2.1093757,-3.0,3.0,-2.1211615,-3.0,-3.0,-0.36048335,-3.0
2025-06-05 18:12:11.628,-0.014613156,-0.048430957,-0.09799289,-0.03698109,-0.0008432502,0.041217674,0.0,0.0,0.0,0.0,-0.071681425,0.09843072,-0.1492802,0.02892312,0.19344501,-0.047656022,0.09320612,-0.1184226,-0.06815185,-0.016489757,-0.06986182,-0.13498849,-0.06472417,-0.03354302,0.058634978,0.1008457,0.30845758,-0.31301144,0.031362683,-0.110776104,-0.08194244,0.05321082,-0.047115155,0.038897518,-3.0,2.3848302,-3.0,3.0,2.1093757,-3.0,3.0,-2.1211615,-3.0,-3.0,-0.36048335,-3.0,-3.0,2.780816,-3.0,3.0,1.358667,-3.0,3.0,-0.1047876,-3.0,-3.0,-0.15037832,-3.0
2025-06-05 18:12:11.648,-0.13747713,-0.07435627,-0.054784294,-0.02548632,0.013430949,-0.036547173,0.0,0.0,0.0,0.0,-0.09035488,0.12174563,-0.16910794,0.0586386,0.30320746,-0.16415185,0.10323866,-0.10323351,-0.08518415,-0.013678051,-0.050661292,-0.13062337,-0.07601395,0.05215079,-0.10559447,0.10108844,0.14557298,-0.1186235,0.023646466,0.022215022,-0.05074716,-0.014330851,0.12084189,0.04736309,-3.0,2.780816,-3.0,3.0,1.358667,-3.0,3.0,-0.1047876,-3.0,-3.0,-0.15037832,-3.0,-3.0,2.0881777,-3.0,3.0,0.99623275,-3.0,3.0,-0.6942297,-3.0,-3.0,-0.44120818,-3.0
2025-06-05 18:12:11.668,-0.16042823,0.064900644,0.011431164,0.03140135,-0.008368835,-0.048029985,0.0,0.0,0.0,0.0,-0.0900901,0.1459862,-0.19876382,0.059389167,0.31927362,-0.18891874,0.116462424,-0.08801416,-0.11615295,-0.017399475,-0.025477305,-0.14134033,-0.07430335,0.11758385,-0.1681661,-0.05318799,0.09567899,-0.08411814,0.035927605,0.028064998,-0.054521028,-0.058016166,0.043047093,-0.10096541,-3.0,2.0881777,-3.0,3.0,0.99623275,-3.0,3.0,-0.6942297,-3.0,-3.0,-0.44120818,-3.0,-3.0,1.6740097,-3.0,3.0,1.3610972,-3.0,3.0,-0.5532949,-3.0,-3.0,-0.1513459,-3.0
2025-06-05 18:12:11.690,-0.016807757,0.064389035,0.040649693,-0.040835444,-0.054142024,0.033080287,0.0,0.0,0.0,0.0,-0.099173516,0.18503232,-0.24348976,0.06877784,0.32851103,-0.20729603,0.10892438,-0.0620054,-0.16025041,-0.017613543,-0.024649221,-0.14335749,-0.016317323,0.0928067,-0.17110239,-0.019697461,0.024212033,-0.13482587,-0.046617374,-0.011758566,-0.13183047,-0.071593225,0.0606149,-0.09502346,-3.0,1.6740097,-3.0,3.0,1.3610972,-3.0,3.0,-0.5532949,-3.0,-3.0,-0.1513459,-3.0,-3.0,1.6114419,-3.0,3.0,1.760818,-3.0,3.0,-0.54645157,-3.0,-3.0,-0.06538854,-3.0
2025-06-05 18:12:11.707,-0.053478424,0.049069785,0.011188524,-0.030039404,-0.0071523874,-0.02431267,0.0,0.0,0.0,0.0,-0.11073955,0.2228837,-0.29225618,0.06943637,0.36146003,-0.24698032,0.08819761,-0.03320588,-0.197304,-0.032190233,-0.0061409655,-0.1799402,-0.08760376,0.059750296,-0.19858943,-0.08040296,0.07847591,-0.12491783,-0.00818334,0.07281917,-0.08973264,0.022985972,0.03995245,-0.08436533,-3.0,1.6114419,-3.0,3.0,1.760818,-3.0,3.0,-0.54645157,-3.0,-3.0,-0.06538854,-3.0,-3.0,1.9646451,-3.0,3.0,1.4429091,-3.0,3.0,-0.435093,-3.0,-3.0,0.091970764,-3.0
2025-06-05 18:12:11.728,0.011931273,0.019321352,0.035369378,-0.013141067,-0.022712803,-0.00017619779,0.0,0.0,0.0,0.0,-0.11815657,0.2702936,-0.3440737,0.05606844,0.37313947,-0.27172244,0.08484989,-0.0155297555,-0.2340647,-0.043645535,0.015296656,-0.21559721,-0.0020215383,0.16742729,-0.19112659,-0.031590674,-0.024396315,-0.118804134,0.0369881,0.012008112,-0.14945939,-0.047596112,0.020093495,-0.039797857,-3.0,1.9646451,-3.0,3.0,1.4429091,-3.0,3.0,-0.435093,-3.0,-3.0,0.091970764,-3.0,-3.0,1.3278391,-3.0,3.0,1.4918641,-3.0,3.0,-0.60821784,-3.0,-3.0,0.1604964,-3.0
2025-06-05 18:12:11.748,0.00397336,0.04317435,0.09342138,-0.03081766,0.041194092,-0.009474159,0.0,0.0,0.0,0.0,-0.12324881,0.30745804,-0.40836105,0.061889615,0.39502206,-0.3254738,0.08844322,-0.031417187,-0.26788187,-0.044050522,0.026452832,-0.22635977,-0.028977852,0.063590385,-0.186579,0.046450578,0.052414738,-0.052853823,-0.0025679106,-0.008862846,-0.05143715,-0.076890714,0.08873096,-0.014460671,-3.0,1.3278391,-3.0,3.0,1.4918641,-3.0,3.0,-0.60821784,-3.0,-3.0,0.1604964,-3.0,-3.0,1.1512005,-3.0,3.0,1.9375658,-3.0,3.0,-0.7085707,-3.0,-3.0,0.23655103,-3.0
2025-06-05 18:12:11.768,0.0811377,-0.052354548,0.12410487,-0.04276832,-0.00915232,0.015586257,0.0,0.0,0.0,0.0,-0.14500046,0.32763878,-0.44191623,0.06253208,0.40760028,-0.3498945,0.10588515,-0.039908253,-0.31089926,-0.06115563,0.055477124,-0.2558449,0.0037138045,0.023219792,-0.08633824,0.040878896,0.0025217657,0.006984838,-0.025534753,-0.11458625,-0.1096072,-0.07530745,0.07979108,-0.083779514,-3.0,1.1512005,-3.0,3.0,1.9375658,-3.0,3.0,-0.7085707,-3.0,-3.0,0.23655103,-3.0,-3.0,1.0416625,-3.0,3.0,2.6108773,-3.0,3.0,-0.85169816,-3.0,-3.0,0.28494173,-3.0
2025-06-05 18:12:11.790,0.17590603,-0.14537784,0.011092727,0.032979682,0.035269547,-0.012873624,0.0,0.0,0.0,0.0,-0.14823166,0.35975838,-0.44448742,0.07919493,0.46538022,-0.39548102,0.12149659,-0.0825859,-0.34981525,-0.093078755,0.061083835,-0.2847154,-0.097546905,-0.01131416,0.027423235,0.07910732,0.24447401,-0.13641861,-0.022745904,-0.055704135,-0.118489265,0.003533744,-0.022599004,-0.031374812,-3.0,1.0416625,-3.0,3.0,2.6108773,-3.0,3.0,-0.85169816,-3.0,-3.0,0.28494173,-3.0,-3.0,2.0423307,-3.0,3.0,2.1292772,-3.0,3.0,-0.20275532,-3.0,-3.0,0.39558253,-3.0
2025-06-05 18:12:11.808,-0.011067567,-0.17640562,0.07971439,0.02521192,-0.0012698445,-0.006310762,0.0,0.0,0.0,0.0,-0.16448681,0.36237866,-0.45341066,0.10827731,0.5540596,-0.43410832,0.13528436,-0.08629101,-0.39609647,-0.114437565,0.10318254,-0.27915898,-0.001156006,-0.0030552582,-0.0039567794,0.13580944,0.11809761,-0.06747121,0.008631056,-0.0066928333,-0.08712015,-0.03911056,-0.006051924,0.003059995,-3.0,2.0423307,-3.0,3.0,2.1292772,-3.0,3.0,-0.20275532,-3.0,-3.0,0.39558253,-3.0,-3.0,1.1357343,-3.0,3.0,2.6130238,-3.0,3.0,-0.8713665,-3.0,-3.0,0.12737189,-3.0
2025-06-05 18:12:11.830,0.06018103,-0.17164792,-0.017921485,0.007470271,0.011703056,0.016030632,0.0,0.0,0.0,0.0,-0.18892391,0.3827901,-0.43070915,0.12007752,0.61677384,-0.4643968,0.15415536,-0.121995665,-0.41629934,-0.12784065,0.1056431,-0.28038278,-0.079043664,-0.011507228,0.07536384,0.04667063,0.17170918,-0.119034946,0.020424992,-0.047380872,-0.091000445,-0.00979497,0.06420924,-0.055591583,-3.0,1.1357343,-3.0,3.0,2.6130238,-3.0,3.0,-0.8713665,-3.0,-3.0,0.12737189,-3.0,-3.0,2.105689,-3.0,3.0,2.2271256,-3.0,3.0,-0.33142325,-3.0,-3.0,0.2242329,-3.0
2025-06-05 18:12:11.848,0.01259774,-0.18256892,-0.0009849484,-0.010383706,-0.04136144,-0.027088769,0.0,0.0,0.0,0.0,-0.2033093,0.37026578,-0.40936095,0.15552029,0.68775016,-0.49007848,0.16027966,-0.12097936,-0.45863095,-0.12335441,0.12314393,-0.27817953,-0.008127971,0.06090596,0.062006205,-0.007584884,0.18106928,-0.09483687,0.052993387,-0.011056609,-0.04043542,0.034831297,7.6689255e-05,0.025194906,-3.0,2.105689,-3.0,3.0,2.2271256,-3.0,3.0,-0.33142325,-3.0,-3.0,0.2242329,-3.0,-3.0,1.7539093,-3.0,3.0,2.4216375,-3.0,3.0,-0.52862495,-3.0,-3.0,0.23556153,-3.0
2025-06-05 18:12:11.868,-0.08352164,-0.0984524,-0.017435037,0.07716422,-0.07853926,0.022859847,0.0,0.0,0.0,0.0,-0.20455968,0.38213566,-0.38055554,0.17207757,0.7187658,-0.4971813,0.1711315,-0.13031729,-0.4559739,-0.13553822,0.12455347,-0.25051796,0.006580115,-0.015501122,0.11460556,0.09486575,0.093053915,0.093580335,-0.05614833,-0.051720902,-0.033669826,-0.031896703,0.057396457,-0.012601865,-3.0,1.7539093,-3.0,3.0,2.4216375,-3.0,3.0,-0.52862495,-3.0,-3.0,0.23556153,-3.0,-3.0,2.0872905,-3.0,3.0,2.6649668,-3.0,3.0,-0.59707975,-3.0,-3.0,-0.081031926,-3.0
2025-06-05 18:12:11.890,-0.0746619,-0.107671335,-0.012644371,0.073691435,-0.044796914,-0.008311969,0.0,0.0,0.0,0.0,-0.22020435,0.38099152,-0.362983,0.17733365,0.7260563,-0.47927535,0.17073938,-0.12404634,-0.4631314,-0.16181044,0.12504329,-0.24669948,-0.043591443,0.087395035,-0.009440878,0.0930178,0.10586783,-0.00997926,-0.06542765,-0.06926399,0.08497741,0.044311643,-0.045979597,0.041627895,-3.0,2.0872905,-3.0,3.0,2.6649668,-3.0,3.0,-0.59707975,-3.0,-3.0,-0.081031926,-3.0,-3.0,2.0264685,-3.0,3.0,2.385484,-3.0,3.0,-0.67788386,-3.0,-3.0,0.018172255,-3.0
2025-06-05 18:12:11.910,-0.123362914,-0.02985643,0.04864433,0.038109716,-0.05304231,0.04961338,0.0,0.0,0.0,0.0,-0.2227619,0.39686245,-0.3439839,0.18255192,0.7482394,-0.44768637,0.17327455,-0.14109838,-0.4484096,-0.15840393,0.12832367,-0.2220298,-0.046788145,-0.0282015,0.024733944,0.075063646,0.04610618,0.009878054,-0.051438008,-0.019550946,0.044376932,-0.06965743,-0.004155326,0.06071829,-3.0,2.0264685,-3.0,3.0,2.385484,-3.0,3.0,-0.67788386,-3.0,-3.0,0.018172255,-3.0,-3.0,1.6103919,-3.0,3.0,2.9037213,-3.0,3.0,-0.910835,-3.0,-3.0,-0.13165899,-3.0
2025-06-05 18:12:11.928,-0.03714723,0.048307944,-0.0041139023,-0.024076188,-0.039394405,0.0026513455,0.0,0.0,0.0,0.0,-0.23294161,0.40832332,-0.3238365,0.17822237,0.7507128,-0.42966798,0.18909764,-0.16533656,-0.45132083,-0.15826099,0.12504126,-0.1787582,-0.09145211,-0.0025392957,0.025589816,-0.040376414,0.0017396903,-0.003145311,-0.034860633,0.01319702,-0.08738285,-0.0023203548,0.03750007,0.13225323,-3.0,1.6103919,-3.0,3.0,2.9037213,-3.0,3.0,-0.910835,-3.0,-3.0,-0.13165899,-3.0,-3.0,1.9376521,-3.0,3.0,2.4410946,-3.0,3.0,-0.87145627,-3.0,-3.0,-0.22864904,-3.0
2025-06-05 18:12:11.948,-0.08501232,0.0410856,0.013610953,0.0028263927,-0.06472964,0.01183499,0.0,0.0,0.0,0.0,-0.23261222,0.42347544,-0.3240276,0.18002649,0.76766497,-0.42005405,0.19624296,-0.17813033,-0.44598424,-0.1707389,0.12438369,-0.16060892,-0.05719567,0.026648138,-0.014269868,0.051649928,0.090048045,0.064911574,0.037474312,-0.027698578,0.047460843,0.0462217,-0.032813404,0.14110784,-3.0,1.9376521,-3.0,3.0,2.4410946,-3.0,3.0,-0.87145627,-3.0,-3.0,-0.22864904,-3.0,-3.0,1.707293,-3.0,3.0,2.6925383,-3.0,3.0,-0.8049459,-3.0,-3.0,-0.06666619,-3.0
2025-06-05 18:12:11.969,-0.11461586,-0.010610247,-0.0049578534,-0.0017082496,-0.05505553,0.01382993,0.0,0.0,0.0,0.0,-0.25470835,0.43352136,-0.31960237,0.18578176,0.78268546,-0.42062992,0.18370375,-0.19164065,-0.43675768,-0.19154496,0.117597364,-0.124771826,-0.059111994,0.06737086,-0.045049317,-0.004905261,0.013193733,0.057360105,0.05864311,-0.08134128,-0.02389506,0.0043468373,-0.015662784,0.025635555,-3.0,1.707293,-3.0,3.0,2.6925383,-3.0,3.0,-0.8049459,-3.0,-3.0,-0.06666619,-3.0,-3.0,1.8854434,-3.0,3.0,2.5894246,-3.0,3.0,-0.8153268,-3.0,-3.0,-0.04528285,-3.0
2025-06-05 18:12:11.990,-0.09432443,0.04517406,0.017258305,-0.025254091,-0.022738239,0.047884237,0.0,0.0,0.0,0.0,-0.25307515,0.4390972,-0.32215807,0.18577483,0.7912889,-0.4016517,0.19027491,-0.20530261,-0.42182514,-0.18930486,0.10828107,-0.09785534,-0.062259566,-0.018964492,0.0229646,0.046731856,-0.02385501,-0.04257579,0.026691187,0.062713526,0.09771272,-0.06449037,-0.02213414,0.08243468,-3.0,1.8854434,-3.0,3.0,2.5894246,-3.0,3.0,-0.8153268,-3.0,-3.0,-0.04528285,-3.0,-3.0,1.795801,-3.0,3.0,2.5654259,-3.0,3.0,-1.0111152,-3.0,-3.0,-0.3314126,-3.0
2025-06-05 18:12:12.009,-0.11971774,0.051118817,-0.024977438,0.0017047698,-0.05672061,0.02008653,0.0,0.0,0.0,0.0,-0.2501507,0.4486502,-0.33174777,0.18534014,0.8011143,-0.39571694,0.2008412,-0.21083488,-0.40545395,-0.18172525,0.116162926,-0.08844729,0.03747425,-0.028720003,-0.08137595,0.0009928236,0.03915835,0.050050553,0.04973084,0.034812063,0.063951,-0.07710653,0.019115593,0.0987329,-3.0,1.795801,-3.0,3.0,2.5654259,-3.0,3.0,-1.0111152,-3.0,-3.0,-0.3314126,-3.0,-3.0,1.8447728,-3.0,3.0,2.3012557,-3.0,3.0,-0.99926853,-3.0,-3.0,-0.26226497,-3.0
2025-06-05 18:12:12.029,-0.07958945,0.11481521,-0.02791339,0.016011808,-0.10255758,0.045130942,0.0,0.0,0.0,0.0,-0.26015976,0.462848,-0.34751076,0.18776071,0.80341494,-0.39721483,0.1986307,-0.21352139,-0.39876997,-0.2024533,0.109158576,-0.055087402,-0.035079118,0.013223953,-0.03482316,0.007647339,0.0113553675,0.03949401,0.002923108,0.024433581,0.096497014,0.05739313,0.060731687,0.09287984,-3.0,1.8447728,-3.0,3.0,2.3012557,-3.0,3.0,-0.99926853,-3.0,-3.0,-0.26226497,-3.0,-3.0,1.8632478,-3.0,3.0,2.2614164,-3.0,3.0,-0.9302169,-3.0,-3.0,-0.19006188,-3.0
2025-06-05 18:12:12.049,-0.057343785,0.005927398,0.040417425,0.025904458,-0.022372806,-0.01717922,0.0,0.0,0.0,0.0,-0.25057083,0.4800281,-0.35377187,0.17757273,0.81197506,-0.37983128,0.19893275,-0.2184151,-0.38346106,-0.1995664,0.099294536,-0.04068014,0.005146027,0.042118885,-0.039509527,0.0660864,-0.062100302,0.06976705,-0.058302592,-0.054833826,0.016162002,0.01725556,-0.07255267,-0.02621018,-3.0,1.8632478,-3.0,3.0,2.2614164,-3.0,3.0,-0.9302169,-3.0,-3.0,-0.19006188,-3.0,-3.0,1.5107864,-3.0,3.0,2.8809412,-3.0,3.0,-1.040814,-3.0,-3.0,0.04288327,-3.0
2025-06-05 18:12:12.069,-0.052907337,-0.028643643,0.008157612,0.020352153,-0.016277403,-0.0349136,0.0,0.0,0.0,0.0,-0.25786215,0.48714867,-0.3639188,0.18172233,0.83445793,-0.3839439,0.17938842,-0.22875507,-0.3741507,-0.19401179,0.10711257,-0.036145266,0.021163067,0.053967427,-0.05637688,-0.015822805,-0.0014351228,-0.057767235,0.04866751,-0.07871044,0.044781044,0.024139129,-0.014253424,-0.006821514,-3.0,1.5107864,-3.0,3.0,2.8809412,-3.0,3.0,-1.040814,-3.0,-3.0,0.04288327,-3.0,-3.0,1.5910573,-3.0,3.0,2.4393315,-3.0,3.0,-1.0242075,-3.0,-3.0,-0.0012083147,-3.0
2025-06-05 18:12:12.090,-0.047868937,-0.0044931294,-0.062292997,-0.003471667,-0.04877529,0.048887216,0.0,0.0,0.0,0.0,-0.25745475,0.49726483,-0.35629734,0.1801021,0.8356259,-0.37343386,0.19233637,-0.2367163,-0.3783145,-0.20418759,0.104767986,-0.023365958,-0.061919656,0.032793593,0.04637281,-0.0038254033,0.018677387,0.052293133,0.012842494,-0.06977111,-0.09313657,0.038623337,-0.027433138,0.010897239,-3.0,1.5910573,-3.0,3.0,2.4393315,-3.0,3.0,-1.0242075,-3.0,-3.0,-0.0012083147,-3.0,-3.0,2.1165917,-3.0,3.0,2.229412,-3.0,3.0,-0.7100505,-3.0,-3.0,0.05547958,-3.0
2025-06-05 18:12:12.109,-0.12035145,-0.027034197,0.052078236,0.016731985,-0.08922692,0.032616694,0.0,0.0,0.0,0.0,-0.25687554,0.50461465,-0.3766407,0.18127069,0.84927964,-0.37615636,0.18468162,-0.22422484,-0.39797533,-0.21730167,0.12242551,-0.009887732,-0.06894158,0.007780782,-0.075143926,0.0027107096,0.07625637,-0.005959022,-0.06269382,0.040679693,-0.056991406,-0.025027039,0.024401616,0.08156592,-3.0,2.1165917,-3.0,3.0,2.229412,-3.0,3.0,-0.7100505,-3.0,-3.0,0.05547958,-3.0,-3.0,1.126758,-3.0,3.0,2.704523,-3.0,3.0,-1.2825338,-3.0,-3.0,0.055619888,-3.0
2025-06-05 18:12:12.129,0.010503288,-0.017800286,-0.014339736,-0.06878655,-0.1051063,-0.011897274,0.0,0.0,0.0,0.0,-0.27013063,0.5105075,-0.3660821,0.16245621,0.86709225,-0.36609015,0.19670418,-0.23399054,-0.39767265,-0.21165144,0.12724118,0.0033141538,0.010171197,-0.05168557,-0.05877264,-0.07228271,0.001772416,-0.0034002443,0.056226667,-0.058091663,-0.09732216,-0.058514573,-0.038427148,0.03635641,-3.0,1.126758,-3.0,3.0,2.704523,-3.0,3.0,-1.2825338,-3.0,-3.0,0.055619888,-3.0,-3.0,1.608995,-3.0,3.0,2.4198494,-3.0,3.0,-1.0781939,-3.0,-3.0,0.15773992,-3.0
2025-06-05 18:12:12.149,0.0026163058,-0.01650311,-0.04193812,-0.077632,-0.09728259,0.048347846,0.0,0.0,0.0,0.0,-0.2666901,0.51221734,-0.37744775,0.15718174,0.8745213,-0.36180252,0.19216365,-0.26518524,-0.42832685,-0.22678502,0.13190667,-0.005242726,-0.049418263,-0.04568724,-0.03815755,-0.030873982,0.031827204,0.061843343,0.046426177,0.0031515232,-0.050303686,-0.018286157,-0.06562793,-0.053462867,-3.0,1.608995,-3.0,3.0,2.4198494,-3.0,3.0,-1.0781939,-3.0,-3.0,0.15773992,-3.0,-3.0,1.8472996,-3.0,3.0,2.435247,-3.0,3.0,-0.94673944,-3.0,-3.0,0.20012592,-3.0
2025-06-05 18:12:12.169,0.09246288,-0.035713837,-0.016260514,0.01467223,-0.04942091,0.0456949,0.0,0.0,0.0,0.0,-0.2909672,0.52133787,-0.36631566,0.16935794,0.8781226,-0.3655376,0.21582527,-0.2741052,-0.4629934,-0.22905229,0.13189994,-0.0020183541,0.038889416,0.055215772,-0.030375404,0.050784584,-0.002665919,-0.07357288,0.09173958,0.026333043,-0.1220049,-0.03756856,0.01371156,0.05488386,-3.0,1.8472996,-3.0,3.0,2.435247,-3.0,3.0,-0.94673944,-3.0,-3.0,0.20012592,-3.0,-3.0,1.3024924,-3.0,3.0,2.5150816,-3.0,3.0,-1.1116649,-3.0,-3.0,0.0134797,-3.0
2025-06-05 18:12:12.190,0.119629845,0.02730364,0.072145216,-0.056397688,-0.033552654,0.020010857,0.0,0.0,0.0,0.0,-0.28947863,0.52258855,-0.35470676,0.15915611,0.8764798,-0.3638884,0.21570759,-0.28235736,-0.48471963,-0.23406787,0.13797726,0.006221689,-0.015277537,0.05120269,-0.047963876,0.012240575,0.081215836,0.0140303895,-0.006901627,-0.11121499,0.007633506,0.028498443,0.007989843,-0.04756556,-3.0,1.3024924,-3.0,3.0,2.5150816,-3.0,3.0,-1.1116649,-3.0,-3.0,0.0134797,-3.0,-3.0,1.0279641,-3.0,3.0,3.0,-3.0,3.0,-0.9645717,-3.0,-3.0,0.25275028,-3.0
2025-06-05 18:12:12.209,0.121484846,-0.030859627,-0.02681111,0.0032838727,-0.08733402,0.0077724922,0.0,0.0,0.0,0.0,-0.2993668,0.5304455,-0.35312006,0.16534668,0.89816976,-0.3765561,0.22940227,-0.29279587,-0.49720004,-0.24955228,0.14453687,0.018099345,-0.07340807,-0.0122148115,0.060132176,-0.054498777,-0.0055860467,-0.054879792,0.046722647,0.04213894,-0.054101992,-0.017644873,0.0363077,-0.04616645,-3.0,1.0279641,-3.0,3.0,3.0,-3.0,3.0,-0.9645717,-3.0,-3.0,0.25275028,-3.0,-3.0,1.8906353,-3.0,3.0,2.7820983,-3.0,3.0,-1.040702,-3.0,-3.0,-0.08223117,-3.0
2025-06-05 18:12:12.229,-0.0024759052,-0.05107968,-0.0010241066,-0.04875597,-0.060320806,-0.047351316,0.0,0.0,0.0,0.0,-0.30286807,0.53997356,-0.3316767,0.16642241,0.90448976,-0.38160628,0.22101235,-0.29727384,-0.493581,-0.24397649,0.13275088,0.03593475,-0.014981494,0.085291035,-0.053419568,-0.06165018,0.07942139,0.027699595,0.014195817,0.047788903,0.10047787,-0.05598436,0.004234731,-0.023030668,-3.0,1.8906353,-3.0,3.0,2.7820983,-3.0,3.0,-1.040702,-3.0,-3.0,-0.08223117,-3.0,-3.0,1.5813797,-3.0,3.0,2.7450364,-3.0,3.0,-1.0728706,-3.0,-3.0,-0.09636802,-3.0
2025-06-05 18:12:12.249,0.008156419,0.042056184,0.034212843,0.035087727,-0.045534965,-0.03772334,0.0,0.0,0.0,0.0,-0.30027786,0.53894013,-0.34339094,0.16680725,0.90703547,-0.3818039,0.23271014,-0.30588666,-0.48809057,-0.25993738,0.138666,0.03333389,-0.032187082,0.07248627,0.03534028,-0.008870833,0.091757365,-0.0883198,0.050341677,-0.039267287,0.10134533,0.017697873,0.019399278,-0.052297127,-3.0,1.5813797,-3.0,3.0,2.7450364,-3.0,3.0,-1.0728706,-3.0,-3.0,-0.09636802,-3.0,-3.0,1.3456589,-3.0,3.0,3.0,-3.0,3.0,-0.8895257,-3.0,-3.0,-0.029489169,-3.0
2025-06-05 18:12:12.272,-0.018993929,0.009609743,0.023264918,-0.03656584,-0.059452474,-0.017897196,0.0,0.0,0.0,0.0,-0.29830816,0.5448898,-0.3200335,0.1598042,0.9315444,-0.39097068,0.23022802,-0.314578,-0.47791758,-0.24341652,0.14805439,0.03783253,0.04197363,0.009798222,0.0734653,0.015596723,0.090264544,-0.06278759,0.014196586,-0.027916133,-0.023148391,0.058366675,-0.046054553,-0.04783645,-3.0,1.3456589,-3.0,3.0,3.0,-3.0,3.0,-0.8895257,-3.0,-3.0,-0.029489169,-3.0,-3.0,1.6879141,-3.0,3.0,3.0,-3.0,3.0,-0.84097016,-3.0,-3.0,0.10163825,-3.0
2025-06-05 18:12:12.290,-0.022448583,-0.065205246,-0.05129522,-0.04012647,-0.07656482,-0.007190856,0.0,0.0,0.0,0.0,-0.29885447,0.54446787,-0.31480265,0.17914923,0.93953276,-0.3879802,0.23251708,-0.2914153,-0.46231833,-0.23809877,0.15755048,0.033199605,0.028796386,-0.010218941,-0.000113692295,0.021563396,0.026188249,0.018865211,-0.06285781,-0.039128654,0.08536244,0.08163615,-0.031928286,-0.029254712,-3.0,1.6879141,-3.0,3.0,3.0,-3.0,3.0,-0.84097016,-3.0,-3.0,0.10163825,-3.0,-3.0,2.1890438,-3.0,3.0,2.7580671,-3.0,3.0,-0.8537412,-3.0,-3.0,-0.08284665,-3.0
2025-06-05 18:12:12.310,-0.0490482,-0.04974916,0.033634145,0.023871409,-0.03691823,0.019593682,0.0,0.0,0.0,0.0,-0.3038292,0.5596893,-0.30680376,0.16836402,0.9552684,-0.39413428,0.2339618,-0.28870815,-0.4586603,-0.23624894,0.17431493,0.04281202,-0.027519334,0.091577776,-0.06599037,0.011202001,0.07226563,-0.043244407,0.062184017,0.02228474,-0.015658297,0.07261695,0.06997531,0.03924366,-3.0,2.1890438,-3.0,3.0,2.7580671,-3.0,3.0,-0.8537412,-3.0,-3.0,-0.08284665,-3.0,-3.0,1.075625,-3.0,3.0,2.9355793,-3.0,3.0,-1.1172785,-3.0,-3.0,-0.04392094,-3.0
2025-06-05 18:12:12.330,-0.0058724154,0.018076714,-0.02167734,0.015741691,-0.114710264,-0.012673314,0.0,0.0,0.0,0.0,-0.29909807,0.56216717,-0.3013495,0.17224845,0.9589074,-0.40258467,0.2420943,-0.28975978,-0.45541608,-0.23234385,0.17710501,0.048506696,0.0652422,0.007880854,0.007901972,-0.0024283575,-0.04601413,0.040247448,-0.015661549,-0.041938752,0.070321076,0.058024198,0.0049316776,-0.016626399,-3.0,1.075625,-3.0,3.0,2.9355793,-3.0,3.0,-1.1172785,-3.0,-3.0,-0.04392094,-3.0,-3.0,1.8589288,-3.0,3.0,2.8155618,-3.0,3.0,-0.86142516,-3.0,-3.0,-0.10040302,-3.0
2025-06-05 18:12:12.350,-0.00033656377,0.032332063,0.001524801,0.030704755,-0.03548495,-0.044005193,0.0,0.0,0.0,0.0,-0.30282605,0.558748,-0.31660905,0.17658094,0.9642432,-0.40669,0.24057736,-0.3056295,-0.45190024,-0.23497854,0.1811143,0.04418056,-0.06457994,0.01819099,0.06838566,0.07693464,0.045147635,-0.0076203314,-0.021360258,0.06432397,0.0040749414,-0.061066993,-0.05323757,0.01130988,-3.0,1.8589288,-3.0,3.0,2.8155618,-3.0,3.0,-0.86142516,-3.0,-3.0,-0.10040302,-3.0,-3.0,1.7338719,-3.0,3.0,2.962356,-3.0,3.0,-0.9919551,-3.0,-3.0,-0.06227965,-3.0
2025-06-05 18:12:12.373,-0.013492897,-0.015214205,0.0009574256,-0.011835189,-0.032223757,-0.035169322,0.0,0.0,0.0,0.0,-0.28989404,0.5556164,-0.30143958,0.17962408,0.9722528,-0.41127363,0.24217047,-0.3013363,-0.45298088,-0.23660205,0.19496796,0.038034372,0.024914851,-0.026498307,0.058462314,0.011350916,-0.011784323,0.057960317,0.030204913,-0.047924675,-0.048565697,-0.05850424,-0.03206326,0.033075802,-3.0,1.7338719,-3.0,3.0,2.962356,-3.0,3.0,-0.9919551,-3.0,-3.0,-0.06227965,-3.0,-3.0,1.6834866,-3.0,3.0,3.0,-3.0,3.0,-0.99170804,-3.0,-3.0,-0.1431749,-3.0
2025-06-05 18:12:12.390,-0.027407598,0.04867482,0.0011131095,-0.0035284692,-0.062708035,0.0125674475,0.0,0.0,0.0,0.0,-0.29736236,0.5588797,-0.2996232,0.19513026,0.98544866,-0.42193064,0.24057858,-0.29995823,-0.45635372,-0.24091257,0.17886731,0.035854544,0.055135082,-0.013300896,-0.026332956,-0.020448936,-0.048492685,-0.03542898,-0.058637083,0.011764815,0.06411019,0.0156095885,0.056928325,0.03649217,-3.0,1.6834866,-3.0,3.0,3.0,-3.0,3.0,-0.99170804,-3.0,-3.0,-0.1431749,-3.0,-3.0,1.6789474,-3.0,3.0,2.828858,-3.0,3.0,-1.0874349,-3.0,-3.0,-0.20888056,-3.0
2025-06-05 18:12:12.410,0.042823855,0.04469763,-0.042143185,-0.047114987,-0.0989421,0.0064014024,0.0,0.0,0.0,0.0,-0.29117727,0.55168146,-0.30399463,0.18643755,0.9724495,-0.4180702,0.2408416,-0.30183563,-0.455427,-0.23986934,0.1796379,0.055895627,-0.013229507,-0.04172334,-0.057391074,0.0386371,-0.06377771,-0.03383799,0.017878616,-0.0101854615,0.007500639,-0.053703763,-0.0445554,0.013969267,-3.0,1.6789474,-3.0,3.0,2.828858,-3.0,3.0,-1.0874349,-3.0,-3.0,-0.20888056,-3.0,-3.0,2.0229967,-3.0,3.0,2.598506,-3.0,3.0,-0.9401034,-3.0,-3.0,-0.02102221,-3.0
2025-06-05 18:12:12.430,0.013066633,0.003709209,0.05363272,-0.02351521,-0.09629505,-0.025225371,0.0,0.0,0.0,0.0,-0.29897282,0.5593364,-0.3014298,0.19198766,0.98289096,-0.41553125,0.23630446,-0.30372512,-0.448383,-0.2429288,0.1776704,0.04727041,-0.017578734,-0.061539095,-0.060819678,-0.017127095,0.025267791,0.020058911,-0.07491502,0.0704871,0.016420502,-0.06315305,0.039564062,0.033044804,-3.0,2.0229967,-3.0,3.0,2.598506,-3.0,3.0,-0.9401034,-3.0,-3.0,-0.02102221,-3.0,-3.0,1.2478372,-3.0,3.0,3.0,-3.0,3.0,-1.2347571,-3.0,-3.0,-0.11861969,-3.0
2025-06-05 18:12:12.450,0.009206635,0.034116603,-0.04849167,-0.030901782,-0.06766326,-0.0036266332,0.0,0.0,0.0,0.0,-0.29852846,0.564673,-0.31546625,0.19737075,0.96782285,-0.42587367,0.23820569,-0.31363168,-0.439062,-0.23780546,0.17361386,0.055128902,0.06864895,-0.08376891,0.06494986,0.007770714,-0.010653033,-0.04938395,-0.045240626,0.044469435,0.07149467,-0.031727973,0.041514717,-0.0063878456,-3.0,1.2478372,-3.0,3.0,3.0,-3.0,3.0,-1.2347571,-3.0,-3.0,-0.11861969,-3.0,-3.0,2.2335048,-3.0,3.0,2.66252,-3.0,3.0,-0.8966229,-3.0,-3.0,-0.23873688,-3.0
2025-06-05 18:12:12.473,-0.042854246,-0.027863048,0.012679679,-0.019323278,-0.052577328,-0.03710543,0.0,0.0,0.0,0.0,-0.29360408,0.56308687,-0.30689573,0.18664376,0.9778842,-0.42780408,0.24209116,-0.31089863,-0.44946206,-0.23300026,0.1591938,0.052706305,-0.016017135,0.0614563,0.04657529,-0.02739406,-0.049340844,0.006058745,-0.00672027,0.022957738,-0.017750842,0.042132616,-0.00703743,0.034902193,-3.0,2.2335048,-3.0,3.0,2.66252,-3.0,3.0,-0.8966229,-3.0,-3.0,-0.23873688,-3.0,-3.0,1.5365831,-3.0,3.0,2.8861504,-3.0,3.0,-0.98765033,-3.0,-3.0,-0.07731236,-3.0
2025-06-05 18:12:12.492,-0.010586895,0.0027671447,0.05867619,-0.05755137,-0.041050244,0.023569351,0.0,0.0,0.0,0.0,-0.29987577,0.55606073,-0.3128702,0.18653075,0.97356737,-0.44152918,0.24294612,-0.31330854,-0.4485053,-0.2349616,0.16020079,0.045729544,0.005200925,0.021778677,0.055944074,0.030915976,-0.0062661706,-0.06997582,0.0070778765,-0.06435705,0.05971549,-0.057661887,-0.052866522,-0.039404105,-3.0,1.5365831,-3.0,3.0,2.8861504,-3.0,3.0,-0.98765033,-3.0,-3.0,-0.07731236,-3.0,-3.0,1.426771,-3.0,3.0,3.0,-3.0,3.0,-0.8771243,-3.0,-3.0,-0.015532682,-3.0
2025-06-05 18:12:12.510,-0.031471193,0.019866236,0.013178523,0.015622727,-0.10940546,0.01903089,0.0,0.0,0.0,0.0,-0.29669398,0.54855496,-0.3112826,0.20094776,0.97132975,-0.43120718,0.2440239,-0.31840333,-0.45203415,-0.23004094,0.16281213,0.051768284,-0.06974114,0.02255827,-0.029741129,0.06267787,-0.0031987967,0.07338283,0.045263283,0.021739129,0.027776584,-0.044182006,0.05031947,-0.06343714,-3.0,1.426771,-3.0,3.0,3.0,-3.0,3.0,-0.8771243,-3.0,-3.0,-0.015532682,-3.0,-3.0,1.6729605,-3.0,3.0,3.0,-3.0,3.0,-1.0340209,-3.0,-3.0,-0.08659012,-3.0
2025-06-05 18:12:12.530,0.032992575,-0.027549597,-0.024043376,-0.010222812,-0.10791826,0.02617785,0.0,0.0,0.0,0.0,-0.3048459,0.5574939,-0.29849494,0.18746518,0.9701958,-0.4245787,0.23399018,-0.30706224,-0.46841294,-0.23046727,0.16362923,0.043622106,0.051405024,0.033983093,0.0021404892,0.052700352,0.071061395,0.06301319,0.03783321,0.07615279,0.0047392896,0.01857049,-0.02698214,-0.053061344,-3.0,1.6729605,-3.0,3.0,3.0,-3.0,3.0,-1.0340209,-3.0,-3.0,-0.08659012,-3.0,-3.0,1.9045131,-3.0,3.0,2.8877373,-3.0,3.0,-0.91274023,-3.0,-3.0,0.0230863,-3.0
2025-06-05 18:12:12.551,0.037504684,0.0046026385,-0.0061006444,-0.05312926,-0.028324781,-0.046286315,0.0,0.0,0.0,0.0,-0.30307055,0.55390334,-0.2958215,0.19380201,0.9714779,-0.42521012,0.23096386,-0.30152526,-0.46429107,-0.24058877,0.17406029,0.047819488,-0.05102666,-0.0728149,-0.05381404,-0.06376391,-0.048668377,0.05331631,-0.07422023,0.07037275,-0.07688156,0.06571037,-0.05649225,-0.035728667,-3.0,1.9045131,-3.0,3.0,2.8877373,-3.0,3.0,-0.91274023,-3.0,-3.0,0.0230863,-3.0,-3.0,1.9842662,-3.0,3.0,2.9889722,-3.0,3.0,-1.0361282,-3.0,-3.0,0.011797538,-3.0
2025-06-05 18:12:12.574,0.0036332223,-0.06700076,-0.035087936,0.014479847,-0.09959754,-0.028565573,0.0,0.0,0.0,0.0,-0.30125478,0.5500115,-0.2969754,0.19319656,0.9756959,-0.43035018,0.2278368,-0.2930122,-0.48628476,-0.22748654,0.17577922,0.041788757,0.021282578,0.042065766,-0.025776297,-0.047790658,0.0136847375,0.026270822,-0.04183814,0.06272933,-0.06783448,-0.048493814,0.034809228,0.0090029165,-3.0,1.9842662,-3.0,3.0,2.9889722,-3.0,3.0,-1.0361282,-3.0,-3.0,0.011797538,-3.0,-3.0,1.8119507,-3.0,3.0,2.650248,-3.0,3.0,-1.0947897,-3.0,-3.0,-0.112001605,-3.0
2025-06-05 18:12:12.591,-0.005021752,0.071070865,-0.039855354,0.027457243,-0.10907034,-0.017418686,0.0,0.0,0.0,0.0,-0.30681485,0.5357835,-0.3133142,0.18944746,0.9679757,-0.43303826,0.2368452,-0.2927554,-0.47596383,-0.2412865,0.17522778,0.027520234,-0.071419075,-0.061169494,-0.009078575,0.069480516,0.046303973,0.0017342031,-0.032110594,0.048675697,0.063342564,-0.019213509,-0.07450113,-0.0007588379,-3.0,1.8119507,-3.0,3.0,2.650248,-3.0,3.0,-1.0947897,-3.0,-3.0,-0.112001605,-3.0,-3.0,2.0965774,-3.0,3.0,2.84803,-3.0,3.0,-0.859983,-3.0,-3.0,-0.04259462,-3.0
2025-06-05 18:12:12.611,-0.0403737,0.014046096,0.058485903,0.024091253,-0.03864569,0.048699837,0.0,0.0,0.0,0.0,-0.30803168,0.5410981,-0.31209606,0.18808632,0.97381216,-0.4317999,0.23941934,-0.2960943,-0.4884727,-0.24310687,0.16102755,0.041133195,0.056667175,0.027635662,-0.033711806,0.06388311,-0.008058476,-0.03345509,-0.058271863,0.026704092,-0.062041476,0.06469083,-0.01365618,0.029288586,-3.0,2.0965774,-3.0,3.0,2.84803,-3.0,3.0,-0.859983,-3.0,-3.0,-0.04259462,-3.0,-3.0,1.1809337,-3.0,3.0,3.0,-3.0,3.0,-1.1844501,-3.0,-3.0,-0.044587202,-3.0
2025-06-05 18:12:12.632,0.046087667,0.005541045,0.016681783,-0.052299965,-0.09927089,-0.025791002,0.0,0.0,0.0,0.0,-0.30002314,0.53981125,-0.29849237,0.19201753,0.96551716,-0.42814848,0.23167333,-0.30358002,-0.4815347,-0.23685095,0.1653413,0.045455404,-0.04835307,-0.07313934,-0.058659073,-0.06865759,-0.0031770102,-0.04395098,0.01708867,-0.064273685,0.049406867,-0.0022718892,0.00039336053,-0.053069398,-3.0,1.1809337,-3.0,3.0,3.0,-3.0,3.0,-1.1844501,-3.0,-3.0,-0.044587202,-3.0,-3.0,1.8073013,-3.0,3.0,3.0,-3.0,3.0,-0.90781564,-3.0,-3.0,-0.0061310623,-3.0
2025-06-05 18:12:12.651,-0.016171217,-0.034486428,0.016222581,-0.05531084,-0.0692155,-0.011704277,0.0,0.0,0.0,0.0,-0.30026853,0.53289306,-0.30501541,0.19381809,0.9814315,-0.4370377,0.2360062,-0.2981217,-0.4942258,-0.2281909,0.16940276,0.034172952,-0.047228143,-0.009212625,0.016304247,-0.066922836,0.032165367,0.022254063,0.04025175,-0.030717192,-0.06122937,-0.057840653,0.060349774,-0.04686004,-3.0,1.8073013,-3.0,3.0,3.0,-3.0,3.0,-0.90781564,-3.0,-3.0,-0.0061310623,-3.0,-3.0,1.6469547,-3.0,3.0,3.0,-3.0,3.0,-0.99651366,-3.0,-3.0,-0.07569117,-3.0
2025-06-05 18:12:12.673,0.00015166106,-0.049559973,-0.034125492,-0.0067329467,-0.112793796,-0.010871827,0.0,0.0,0.0,0.0,-0.29762098,0.54370844,-0.30799696,0.18024328,0.9805067,-0.43343258,0.22934353,-0.3041822,-0.48600894,-0.23311985,0.15712267,0.03097362,-0.029421922,-0.043569054,0.015792117,-0.07333345,-0.008145475,-0.028578365,0.014713204,0.010541037,-0.015761245,0.0021353902,0.07358728,0.0008739684,-3.0,1.6469547,-3.0,3.0,3.0,-3.0,3.0,-0.99651366,-3.0,-3.0,-0.07569117,-3.0,-3.0,2.0053735,-3.0,3.0,2.8470933,-3.0,3.0,-0.96165365,-3.0,-3.0,-0.12830408,-3.0
2025-06-05 18:12:12.691,-0.0564998,0.016732754,0.040953644,0.01290061,-0.102853514,0.019400934,0.0,0.0,0.0,0.0,-0.29832023,0.5402115,-0.30365786,0.18600732,0.9871595,-0.4405583,0.2300503,-0.3053507,-0.48497865,-0.2465064,0.16376717,0.042832576,0.059554838,-0.034313876,-0.029940482,0.043878768,0.051466104,0.00040731407,0.05644663,0.008071999,0.057894427,-0.011368944,0.068062015,0.04255048,-3.0,2.0053735,-3.0,3.0,2.8470933,-3.0,3.0,-0.96165365,-3.0,-3.0,-0.12830408,-3.0,-3.0,1.2652369,-3.0,3.0,3.0,-3.0,3.0,-1.0857304,-3.0,-3.0,-0.22615118,-3.0
2025-06-05 18:12:12.711,-0.0033238614,0.0421635,-0.027036682,-0.017445238,-0.08165336,-0.016323024,0.0,0.0,0.0,0.0,-0.29702052,0.546044,-0.30042207,0.1975304,0.9800688,-0.42904195,0.23906668,-0.30170754,-0.495717,-0.23545422,0.15004398,0.034038693,0.03554828,-0.07940324,-0.0065412703,-0.06615494,-0.054525476,-0.020750804,0.07978853,0.0004992466,-0.045203183,0.047910634,0.056887243,-0.027297921,-3.0,1.2652369,-3.0,3.0,3.0,-3.0,3.0,-1.0857304,-3.0,-3.0,-0.22615118,-3.0,-3.0,2.0792298,-3.0,3.0,2.9804451,-3.0,3.0,-0.8476497,-3.0,-3.0,-0.08261681,-3.0
2025-06-05 18:12:12.731,-0.017590286,0.020778047,-0.015177812,0.032422718,-0.019311072,0.04544545,0.0,0.0,0.0,0.0,-0.3017498,0.5283343,-0.30452418,0.18873782,0.97668654,-0.44419432,0.24222213,-0.30126914,-0.48600438,-0.24426396,0.16043526,0.04992665,0.04026149,-0.0019960152,-0.0570435,0.016243763,0.08138293,0.0021585661,0.039715677,0.082936704,-0.00042274292,-0.04646461,0.07194392,0.030925706,-3.0,2.0792298,-3.0,3.0,2.9804451,-3.0,3.0,-0.8476497,-3.0,-3.0,-0.08261681,-3.0,-3.0,1.6691813,-3.0,3.0,2.8188682,-3.0,3.0,-1.1371839,-3.0,-3.0,-0.23969294,-3.0
2025-06-05 18:12:12.751,0.014030549,0.012891825,-0.02855301,-0.013168873,-0.08652445,-0.0014166542,0.0,0.0,0.0,0.0,-0.3039706,0.5434205,-0.30202296,0.19966294,0.9750146,-0.42703003,0.23372853,-0.31349888,-0.5012743,-0.23528732,0.15439829,0.04167465,-0.060378905,0.012457632,0.06290708,0.019846726,-0.059822086,0.00069133437,0.029043948,-0.080957614,-0.006103672,-0.05923391,-0.061533365,-0.026057677,-3.0,1.6691813,-3.0,3.0,2.8188682,-3.0,3.0,-1.1371839,-3.0,-3.0,-0.23969294,-3.0,-3.0,2.1003618,-3.0,3.0,3.0,-3.0,3.0,-0.7564125,-3.0,-3.0,-0.066516705,-3.0
2025-06-05 18:12:12.774,-0.027376037,-0.0017025783,-0.01191418,-0.00034365652,-0.090241246,0.017129224,0.0,0.0,0.0,0.0,-0.30682948,0.53271925,-0.30635425,0.19164106,0.97193044,-0.44059768,0.24871065,-0.30161932,-0.5021589,-0.23982422,0.15509315,0.054981984,-0.06744163,-0.031819094,0.015034541,-0.025959296,-0.036878925,0.0396101,-0.024899028,0.058240283,0.0055130064,-0.042887326,0.058472797,0.038522944,-3.0,2.1003618,-3.0,3.0,3.0,-3.0,3.0,-0.7564125,-3.0,-3.0,-0.066516705,-3.0,-3.0,1.9131274,-3.0,3.0,2.9792168,-3.0,3.0,-1.1528329,-3.0,-3.0,-0.3353901,-3.0
2025-06-05 18:12:12.791,0.026608812,0.0054472517,-0.0025857398,-0.01842968,-0.020206228,0.04988218,0.0,0.0,0.0,0.0,-0.3050713,0.54657906,-0.31371945,0.19118364,0.9866462,-0.43512234,0.2480431,-0.31325433,-0.48657238,-0.2393728,0.1541413,0.058072556,-0.047624484,-0.043724608,0.041017003,0.03758984,0.018149707,-0.0127326045,-0.02659215,0.051175836,0.06284065,-0.010036252,0.037155967,0.04992548,-3.0,1.9131274,-3.0,3.0,2.9792168,-3.0,3.0,-1.1528329,-3.0,-3.0,-0.3353901,-3.0,-3.0,1.8086796,-3.0,3.0,3.0,-3.0,3.0,-1.0853926,-3.0,-3.0,-0.30143708,-3.0
2025-06-05 18:12:12.812,-0.015499356,0.042145647,0.022189295,0.023728518,-0.018592477,0.046885878,0.0,0.0,0.0,0.0,-0.3061586,0.5439296,-0.30794555,0.18917452,0.98987365,-0.44409132,0.23598428,-0.30615464,-0.5020678,-0.24247217,0.15157758,0.060952116,-0.029087456,0.011137905,0.02761697,-0.054029077,-0.058989033,-0.014870987,0.04320299,0.044907518,0.062675804,-0.033558797,-0.0139764035,-0.010591379,-3.0,1.8086796,-3.0,3.0,3.0,-3.0,3.0,-1.0853926,-3.0,-3.0,-0.30143708,-3.0,-3.0,1.6708595,-3.0,3.0,3.0,-3.0,3.0,-1.0624617,-3.0,-3.0,-0.257244,-3.0
2025-06-05 18:12:12.832,-0.023483563,-0.0040316633,-0.03805935,-0.041416544,-0.0462876,0.046062894,0.0,0.0,0.0,0.0,-0.2955511,0.54123,-0.30356935,0.20478979,0.9916142,-0.44243774,0.24070026,-0.31241035,-0.49105686,-0.2509169,0.13605666,0.070526384,0.017155534,-0.01814174,-0.010987781,0.0033875948,0.06492475,0.043977853,0.06331191,-0.038161963,-0.025240054,0.055346344,-0.07767904,-0.005111133,-3.0,1.6708595,-3.0,3.0,3.0,-3.0,3.0,-1.0624617,-3.0,-3.0,-0.257244,-3.0,-3.0,2.1686177,-3.0,3.0,2.9489412,-3.0,3.0,-0.7767893,-3.0,-3.0,0.009080222,-3.0
2025-06-05 18:12:12.852,-0.07458773,-0.00663565,0.02321436,0.033634566,-0.061376777,-0.022833364,0.0,0.0,0.0,0.0,-0.30712792,0.5551752,-0.3152913,0.19128011,0.97563255,-0.44524446,0.24115306,-0.3151254,-0.49614805,-0.2319175,0.15241764,0.06863271,0.057313096,0.08381931,-0.076524615,-0.021185063,-0.0047469214,0.0466687,-0.06255182,0.036660623,0.056401446,0.071511276,-0.044437733,0.027294178,-3.0,2.1686177,-3.0,3.0,2.9489412,-3.0,3.0,-0.7767893,-3.0,-3.0,0.009080222,-3.0,-3.0,1.4479059,-3.0,3.0,3.0,-3.0,3.0,-1.1182009,-3.0,-3.0,-0.18693943,-3.0
2025-06-05 18:12:12.874,-0.04684623,-0.036793444,0.027320571,-0.044519022,-0.06666211,0.01152898,0.0,0.0,0.0,0.0,-0.30193952,0.5391775,-0.3053457,0.20228331,0.9886225,-0.43669945,0.23796284,-0.30729276,-0.49035653,-0.24026215,0.14050367,0.053987294,-0.07030084,0.06254833,-0.06946042,-0.07093389,-0.0040756958,0.067975596,0.013719797,-0.04117405,-0.047217168,-0.003003865,-0.021374758,0.0016690113,-3.0,1.4479059,-3.0,3.0,3.0,-3.0,3.0,-1.1182009,-3.0,-3.0,-0.18693943,-3.0,-3.0,1.5271022,-3.0,3.0,3.0,-3.0,3.0,-1.080194,-3.0,-3.0,0.026554814,-3.0
2025-06-05 18:12:12.892,0.02793183,0.019019047,-0.05256657,0.01931317,-0.1072344,0.005005055,0.0,0.0,0.0,0.0,-0.31596795,0.5456154,-0.31451908,0.20688573,0.9903966,-0.43818507,0.23270236,-0.30941945,-0.4982845,-0.23669206,0.14250183,0.06946574,-0.012348363,0.059595775,-0.039728694,-0.042305056,-0.030581724,-0.014123574,-0.056690946,-0.064690985,0.05651144,-0.024075396,-0.058859143,0.055931415,-3.0,1.5271022,-3.0,3.0,3.0,-3.0,3.0,-1.080194,-3.0,-3.0,0.026554814,-3.0,-3.0,2.1018202,-3.0,3.0,2.6403337,-3.0,3.0,-0.9157662,-3.0,-3.0,-0.16092516,-3.0
2025-06-05 18:12:12.915,-0.007207027,0.03861232,-0.024324015,-0.06560731,-0.041178565,0.017321227,0.0,0.0,0.0,0.0,-0.31128153,0.5463796,-0.312372,0.20177703,0.98842865,-0.42942837,0.2357671,-0.3030544,-0.48568067,-0.23494272,0.15727976,0.06469063,-0.02680792,0.03458873,-0.02609033,-0.036275603,-0.0074331686,-0.05101762,-0.020890126,0.059208617,-0.031550664,0.023425275,-0.066698395,-0.0029333406,-3.0,2.1018202,-3.0,3.0,2.6403337,-3.0,3.0,-0.9157662,-3.0,-3.0,-0.16092516,-3.0,-3.0,1.9063575,-3.0,3.0,2.7384238,-3.0,3.0,-0.9359392,-3.0,-3.0,0.061421268,-3.0
2025-06-05 18:12:12.935,-0.070738696,-0.03128716,-0.032525074,-0.006208684,-0.0942528,0.009634186,0.0,0.0,0.0,0.0,-0.29967344,0.55272263,-0.3167686,0.20166989,0.9928923,-0.4315331,0.22464502,-0.30440143,-0.48957393,-0.24683663,0.15795769,0.06017195,-0.035298906,-0.001836308,-0.049513478,0.055705003,0.0016768364,0.017209653,0.06318517,0.02183037,-0.009447095,0.01083531,0.022291029,0.036609754,-3.0,1.9063575,-3.0,3.0,2.7384238,-3.0,3.0,-0.9359392,-3.0,-3.0,0.061421268,-3.0,-3.0,1.7737852,-3.0,3.0,2.6924453,-3.0,3.0,-0.989583,-3.0,-3.0,-0.10651285,-3.0
2025-06-05 18:12:12.957,0.017107597,0.008673375,-0.0075095473,-0.03967043,-0.06658808,0.0008206687,0.0,0.0,0.0,0.0,-0.30859324,0.5519559,-0.3246892,0.19499955,0.9978771,-0.42809853,0.2315715,-0.30910394,-0.4992807,-0.25307846,0.1619212,0.061154425,-0.009526639,-0.06019359,0.016466543,-0.017459081,0.053502448,0.052978087,0.038528945,0.070587605,-0.057903226,-0.044394873,-0.016212609,0.016833223,-3.0,1.7737852,-3.0,3.0,2.6924453,-3.0,3.0,-0.989583,-3.0,-3.0,-0.10651285,-3.0,-3.0,1.7917972,-3.0,3.0,3.0,-3.0,3.0,-1.0475993,-3.0,-3.0,-0.037345894,-3.0
2025-06-05 18:12:12.975,-0.023877565,0.0172004,0.019398479,0.0145439245,-0.102408364,0.0065460782,0.0,0.0,0.0,0.0,-0.31436196,0.55187786,-0.31779367,0.21078005,1.0017569,-0.42378655,0.23042981,-0.31162983,-0.5068921,-0.25177234,0.15240782,0.07476776,-0.017103486,0.026328355,0.029686939,0.03478684,-0.068845354,0.05820869,0.062416945,0.012089344,-0.057461254,0.032022633,0.044732932,0.03061752,-3.0,1.7917972,-3.0,3.0,3.0,-3.0,3.0,-1.0475993,-3.0,-3.0,-0.037345894,-3.0,-3.0,1.4798992,-3.0,3.0,3.0,-3.0,3.0,-1.164932,-3.0,-3.0,-0.17097409,-3.0
2025-06-05 18:12:12.999,0.014074996,0.040627826,-0.028573886,-0.0057474608,-0.10141325,0.048807643,0.0,0.0,0.0,0.0,-0.30982873,0.5521956,-0.32188597,0.19965558,0.9880733,-0.41596964,0.23356691,-0.30803865,-0.4992157,-0.25602707,0.14035572,0.07689816,-0.020296186,0.009687281,-0.06406064,-0.0749025,0.07428442,-0.015951648,0.011169859,0.012267977,-0.06417053,0.017868642,-0.028269995,0.0713623,-3.0,1.4798992,-3.0,3.0,3.0,-3.0,3.0,-1.164932,-3.0,-3.0,-0.17097409,-3.0,-3.0,1.8222358,-3.0,3.0,2.7280946,-3.0,3.0,-1.063149,-3.0,-3.0,0.0209124,-3.0
2025-06-05 18:12:13.015,-0.0313053,0.040621698,-0.026165154,-0.057853434,-0.1013021,-0.024154894,0.0,0.0,0.0,0.0,-0.3190278,0.54429185,-0.31393316,0.20398073,0.99305695,-0.4300224,0.22468922,-0.30955958,-0.49855268,-0.25580752,0.14017668,0.06512996,0.016355686,-0.036501862,0.04628218,0.024982933,-0.061687276,-0.027665602,0.06087435,0.023191066,0.0048346487,-0.06922567,-0.00031084637,-0.03542109,-3.0,1.8222358,-3.0,3.0,2.7280946,-3.0,3.0,-1.063149,-3.0,-3.0,0.0209124,-3.0,-3.0,1.9771177,-3.0,3.0,2.9376576,-3.0,3.0,-0.9344872,-3.0,-3.0,-0.14620419,-3.0
2025-06-05 18:12:13.036,0.027511284,-0.0103959665,0.031458385,-0.013350065,-0.0722618,-0.031056069,0.0,0.0,0.0,0.0,-0.3148711,0.5590985,-0.31590256,0.20148562,0.98658466,-0.4321398,0.23053563,-0.32114497,-0.5067539,-0.25285876,0.14818953,0.081489205,0.003067034,0.03554057,0.04378697,0.06731262,0.03013449,0.0021731283,-0.05471467,0.055002388,-0.008380748,-0.05737089,-0.061596896,0.0015928433,-3.0,1.9771177,-3.0,3.0,2.9376576,-3.0,3.0,-0.9344872,-3.0,-3.0,-0.14620419,-3.0,-3.0,1.6374792,-3.0,3.0,3.0,-3.0,3.0,-1.0929266,-3.0,-3.0,-0.07887972,-3.0
2025-06-05 18:12:13.056,-0.012649292,0.038263407,-0.024448821,-0.0118666785,-0.062101457,-0.04906306,0.0,0.0,0.0,0.0,-0.30638614,0.55399054,-0.3153908,0.1941741,0.99228984,-0.43109137,0.23133975,-0.30553216,-0.50651634,-0.24026972,0.15115535,0.06999528,-0.07670832,0.017364038,-0.032632668,0.068311155,0.08071478,0.044857565,-0.024476355,0.07160671,0.07269508,-0.023478733,-0.04639043,-0.046745602,-3.0,1.6374792,-3.0,3.0,3.0,-3.0,3.0,-1.0929266,-3.0,-3.0,-0.07887972,-3.0,-3.0,2.0136824,-3.0,3.0,2.9046826,-3.0,3.0,-0.93564796,-3.0,-3.0,-0.027533183,-3.0
2025-06-05 18:12:13.075,-0.008627583,-0.015346019,0.0032660689,-0.005372262,-0.031152947,-0.010567555,0.0,0.0,0.0,0.0,-0.3057102,0.55697536,-0.31638068,0.19542922,0.9896823,-0.41966197,0.22999434,-0.31126884,-0.49036998,-0.24703214,0.14927986,0.07167868,-0.02858141,-0.032118734,0.0011899626,0.01440449,0.049768597,0.02440219,0.019157827,-0.021790534,0.05461049,-0.012257316,-0.043475483,-0.05555157,-3.0,2.0136824,-3.0,3.0,2.9046826,-3.0,3.0,-0.93564796,-3.0,-3.0,-0.027533183,-3.0,-3.0,1.7935145,-3.0,3.0,3.0,-3.0,3.0,-0.915172,-3.0,-3.0,-0.1444778,-3.0
2025-06-05 18:12:13.095,0.0078509925,0.01908315,0.039091267,-0.012756607,-0.11806275,-0.027558202,0.0,0.0,0.0,0.0,-0.3033699,0.5653603,-0.325575,0.19474097,1.0047584,-0.42770758,0.23375306,-0.30759764,-0.5001842,-0.24775979,0.1577499,0.06450943,0.011023675,0.036685362,0.017393539,0.020911355,-0.021341076,-0.060021404,0.058265183,-0.023368292,0.046085972,0.019008104,0.049161896,0.05093699,-3.0,1.7935145,-3.0,3.0,3.0,-3.0,3.0,-0.915172,-3.0,-3.0,-0.1444778,-3.0,-3.0,1.3574598,-3.0,3.0,3.0,-3.0,3.0,-1.102778,-3.0,-3.0,-0.09244747,-3.0
2025-06-05 18:12:13.115,0.03237676,-0.01683231,-0.0010457579,-0.057882633,-0.11689304,0.004002908,0.0,0.0,0.0,0.0,-0.3066556,0.5476456,-0.3112201,0.19070262,0.9992313,-0.42104432,0.21866485,-0.31460142,-0.49427155,-0.24145085,0.1576684,0.0758261,-0.047167547,0.017693873,-0.02647848,-0.03531089,0.026988704,0.020644672,-0.02532864,0.03281133,0.057506103,-0.061288226,-0.02790246,0.054820754,-3.0,1.3574598,-3.0,3.0,3.0,-3.0,3.0,-1.102778,-3.0,-3.0,-0.09244747,-3.0,-3.0,1.7536559,-3.0,3.0,2.857308,-3.0,3.0,-1.1452152,-3.0,-3.0,-0.07534308,-3.0
2025-06-05 18:12:13.137,0.008948808,0.034885414,-0.03381587,-0.0022837415,-0.03562269,-0.024628201,0.0,0.0,0.0,0.0,-0.3246592,0.55250347,-0.32367337,0.1866665,0.9963712,-0.4150481,0.2275848,-0.3179999,-0.49669278,-0.25532115,0.1554076,0.06779393,0.04699943,0.031294882,-0.034922667,-0.030211633,-0.0036955494,-0.03789634,-0.028223993,-0.0025537778,0.06706648,0.0035475662,0.03897412,0.026863448,-3.0,1.7536559,-3.0,3.0,2.857308,-3.0,3.0,-1.1452152,-3.0,-3.0,-0.07534308,-3.0,-3.0,1.746063,-3.0,3.0,2.7019985,-3.0,3.0,-1.0502641,-3.0,-3.0,-0.18632664,-3.0
2025-06-05 18:12:13.156,-0.035391893,0.061087728,0.023828328,-0.0005489357,-0.031844083,0.0073343753,0.0,0.0,0.0,0.0,-0.3140029,0.54449934,-0.3112807,0.18531284,0.99548477,-0.41444963,0.23944677,-0.32479018,-0.50007975,-0.24524884,0.15356733,0.07129683,-0.049399782,0.0027101815,0.017260259,-0.060065173,-0.0693586,-0.028491924,0.0750544,0.022269966,0.019761331,-0.025314016,-0.07669312,0.07940885,-3.0,1.746063,-3.0,3.0,2.7019985,-3.0,3.0,-1.0502641,-3.0,-3.0,-0.18632664,-3.0,-3.0,1.4830596,-3.0,3.0,3.0,-3.0,3.0,-1.0726868,-3.0,-3.0,-0.20607908,-3.0
2025-06-05 18:12:13.177,0.047983103,0.061200242,-0.03539762,0.026612215,-0.10412247,0.024945507,0.0,0.0,0.0,0.0,-0.3167605,0.54449433,-0.3179209,0.1878778,0.99891716,-0.4310929,0.23926692,-0.3138372,-0.4935109,-0.2576711,0.14004096,0.088702396,0.043859176,-0.07603505,-0.0623237,-0.06626123,0.06408931,-0.023968052,-0.055939954,-0.010454342,-0.054845832,0.036596816,0.0073430114,0.012598131,-3.0,1.4830596,-3.0,3.0,3.0,-3.0,3.0,-1.0726868,-3.0,-3.0,-0.20607908,-3.0,-3.0,2.051869,-3.0,3.0,3.0,-3.0,3.0,-1.0150875,-3.0,-3.0,-0.011255274,-3.0
2025-06-05 18:12:13.196,0.022944959,-0.06590666,-0.0045031384,-0.043174237,-0.022641262,0.021785317,0.0,0.0,0.0,0.0,-0.32606354,0.5558229,-0.3187765,0.20241888,1.0066996,-0.4235028,0.22806442,-0.32238093,-0.4926756,-0.2468663,0.13973783,0.07512535,0.011429264,-0.0058207735,-0.021800382,-0.009088585,0.0013629048,0.0052273297,-0.055558313,-0.020250624,0.011723725,0.050055236,-0.06055913,-0.072808675,-3.0,2.051869,-3.0,3.0,3.0,-3.0,3.0,-1.0150875,-3.0,-3.0,-0.011255274,-3.0,-3.0,1.8603166,-3.0,3.0,3.0,-3.0,3.0,-1.0004417,-3.0,-3.0,-0.0549903,-3.0
2025-06-05 18:12:13.216,-0.0007676986,-0.016281553,0.01107376,-0.01894374,-0.058232278,0.029564597,0.0,0.0,0.0,0.0,-0.32286933,0.5489399,-0.31875893,0.1897693,0.9974544,-0.425007,0.23569573,-0.3112789,-0.49507183,-0.25426763,0.15219481,0.08182641,0.0021732461,0.0580962,0.042762633,-0.048237924,0.006823702,0.05659147,-0.025287854,-0.060491707,0.047837056,-0.05170003,-0.02065553,-0.0280138,-3.0,1.8603166,-3.0,3.0,3.0,-3.0,3.0,-1.0004417,-3.0,-3.0,-0.0549903,-3.0,-3.0,1.6476153,-3.0,3.0,3.0,-3.0,3.0,-1.0501541,-3.0,-3.0,-0.18438019,-3.0
2025-06-05 18:12:13.239,0.04008112,-0.00932644,-0.022517513,0.017705314,-0.10307412,0.03454098,0.0,0.0,0.0,0.0,-0.3124901,0.55354416,-0.3229243,0.2042172,1.0082701,-0.4169246,0.224705,-0.31627557,-0.5101967,-0.24612884,0.14037447,0.08185544,-0.047017697,-0.03206782,0.00577559,-0.04777728,0.024512058,0.0072204103,0.07496016,-0.034128048,-0.0057732426,0.012750712,0.055078484,0.04947235,-3.0,1.6476153,-3.0,3.0,3.0,-3.0,3.0,-1.0501541,-3.0,-3.0,-0.18438019,-3.0,-3.0,1.8945031,-3.0,3.0,3.0,-3.0,3.0,-1.0250735,-3.0,-3.0,-0.16837879,-3.0
2025-06-05 18:12:13.257,-0.014645629,-0.040193927,-0.019716345,-0.043000232,-0.04101933,0.047166947,0.0,0.0,0.0,0.0,-0.3159134,0.5491856,-0.31917965,0.19436905,1.0039704,-0.4370566,0.22729728,-0.308574,-0.50207275,-0.25446326,0.14812408,0.06927364,0.029064242,-0.017733764,-0.036665827,0.057263095,-0.054275196,0.012056492,0.04972609,-0.046417687,0.013798429,0.00029195723,0.044529825,-0.027697507,-3.0,1.8945031,-3.0,3.0,3.0,-3.0,3.0,-1.0250735,-3.0,-3.0,-0.16837879,-3.0,-3.0,1.8300767,-3.0,3.0,2.9875288,-3.0,3.0,-1.0309898,-3.0,-3.0,-0.15907516,-3.0
2025-06-05 18:12:13.277,0.04523581,-0.032686327,0.003892797,0.008644677,-0.06266666,-0.03889471,0.0,0.0,0.0,0.0,-0.30999193,0.5455541,-0.31328195,0.19143373,1.0154724,-0.42286927,0.23210333,-0.31144452,-0.4979074,-0.23655713,0.15815541,0.082351685,-0.06333636,0.04313602,-0.072559066,-0.0029808367,0.059103865,-0.032497678,-0.05642217,-0.03068244,-0.03663101,-0.062335882,-0.02564547,0.07153297,-3.0,1.8300767,-3.0,3.0,2.9875288,-3.0,3.0,-1.0309898,-3.0,-3.0,-0.15907516,-3.0,-3.0,1.5513167,-3.0,3.0,2.9882412,-3.0,3.0,-1.1704551,-3.0,-3.0,-0.00271512,-3.0
2025-06-05 18:12:13.297,-0.008930898,-0.019156577,-0.029051732,-0.017824456,-0.10936657,0.049674615,0.0,0.0,0.0,0.0,-0.3069863,0.54739076,-0.31313142,0.19535369,1.0023541,-0.4372647,0.23922855,-0.31091765,-0.49399856,-0.2386609,0.15028523,0.07425414,-0.017545795,0.06889692,-0.05748855,-0.06831032,-0.05821404,0.0475596,0.0670847,-0.019852407,-0.006647517,0.021814274,0.014832108,-0.024325348,-3.0,1.5513167,-3.0,3.0,2.9882412,-3.0,3.0,-1.1704551,-3.0,-3.0,-0.00271512,-3.0,-3.0,1.7328647,-3.0,3.0,2.691818,-3.0,3.0,-1.0314807,-3.0,-3.0,-0.076161034,-3.0
2025-06-05 18:12:13.317,0.04185975,-0.03720467,0.04744887,-0.055170536,-0.028848592,-0.018632885,0.0,0.0,0.0,0.0,-0.3112098,0.54530954,-0.32311794,0.18691774,1.0054044,-0.43930838,0.2427179,-0.32934654,-0.4972347,-0.2448381,0.14207286,0.06675379,0.016116714,-0.01955499,-0.057488978,0.004031157,-0.027047504,0.03766331,0.040989812,0.042403743,-0.034442544,-0.035931017,0.065659754,-0.052383516,-3.0,1.7328647,-3.0,3.0,2.691818,-3.0,3.0,-1.0314807,-3.0,-3.0,-0.076161034,-3.0,-3.0,1.2181236,-3.0,3.0,3.0,-3.0,3.0,-1.1617621,-3.0,-3.0,-0.049426265,-3.0
2025-06-05 18:12:13.339,0.0059051425,-0.022651523,0.0055098403,-0.02139094,-0.065677844,-0.0051562726,0.0,0.0,0.0,0.0,-0.32725585,0.5495501,-0.31623548,0.18482426,1.0114684,-0.4266803,0.2447239,-0.3331345,-0.49227652,-0.23865949,0.14701797,0.083825186,0.030390799,0.04088257,-0.026507756,0.045310583,-0.07410294,0.028592287,-0.06934914,0.05283435,0.05047389,0.050959982,-0.010673906,-0.033526633,-3.0,1.2181236,-3.0,3.0,3.0,-3.0,3.0,-1.1617621,-3.0,-3.0,-0.049426265,-3.0,-3.0,1.5864882,-3.0,3.0,2.9780405,-3.0,3.0,-1.1557552,-3.0,-3.0,-0.115285106,-3.0
2025-06-05 18:12:13.357,-0.009721982,0.058204196,-0.026894419,0.025358003,-0.023637393,-0.030713659,0.0,0.0,0.0,0.0,-0.32917365,0.54163885,-0.30692062,0.18149474,1.0044111,-0.4301951,0.23786494,-0.3235734,-0.4967156,-0.25282338,0.14885363,0.082562774,-0.028150545,-0.023565823,0.079163395,0.06317838,0.03323758,0.053299617,0.034667242,0.055971764,0.0131285675,-0.03148528,-0.06912199,-0.029254403,-3.0,1.5864882,-3.0,3.0,2.9780405,-3.0,3.0,-1.1557552,-3.0,-3.0,-0.115285106,-3.0,-3.0,2.0335753,-3.0,3.0,3.0,-3.0,3.0,-0.934872,-3.0,-3.0,-0.1878028,-3.0
2025-06-05 18:12:13.377,0.014573206,0.03183713,0.0117451055,-0.0052787247,-0.04738049,0.019677034,0.0,0.0,0.0,0.0,-0.31419826,0.5463812,-0.3165808,0.19070421,1.0078857,-0.43780285,0.23996696,-0.32312375,-0.504972,-0.24906434,0.13452756,0.089667134,-0.02150325,-0.055929307,0.00064634444,-0.033106506,-0.022748884,-0.023460377,0.059452027,0.019637281,-0.010756462,-0.03194979,0.07170332,-0.0015614579,-3.0,2.0335753,-3.0,3.0,3.0,-3.0,3.0,-0.934872,-3.0,-3.0,-0.1878028,-3.0,-3.0,1.6838359,-3.0,3.0,3.0,-3.0,3.0,-1.1283227,-3.0,-3.0,-0.25856054,-3.0
2025-06-05 18:12:13.397,-0.016137654,-0.015319132,-0.014476378,-0.050281733,-0.10142625,-0.045951493,0.0,0.0,0.0,0.0,-0.32709137,0.536193,-0.30017084,0.1829038,1.0098457,-0.43309554,0.2508805,-0.32183245,-0.49478915,-0.24630539,0.14275083,0.07280588,-0.04162294,-0.025934618,0.06346943,0.06710301,-0.017051075,-0.07327807,-0.038970284,0.05231938,-0.059150524,0.03436965,-0.011807867,-0.032709427,-3.0,1.6838359,-3.0,3.0,3.0,-3.0,3.0,-1.1283227,-3.0,-3.0,-0.25856054,-3.0,-3.0,1.9457941,-3.0,3.0,3.0,-3.0,3.0,-0.9953987,-3.0,-3.0,-0.01818646,-3.0
2025-06-05 18:12:13.417,-0.025973123,-0.05300747,-0.016468944,0.023528367,-0.059518058,0.043042578,0.0,0.0,0.0,0.0,-0.31732467,0.54019624,-0.31042254,0.18840456,1.0047437,-0.4366808,0.23778588,-0.3269249,-0.49507326,-0.24455482,0.13263094,0.07588168,-0.011771533,0.03466976,0.0031044832,-0.06820777,0.07014465,0.054740947,-0.019804947,-0.03202947,0.049576495,0.01094582,-0.043552756,0.035896763,-3.0,1.9457941,-3.0,3.0,3.0,-3.0,3.0,-0.9953987,-3.0,-3.0,-0.01818646,-3.0,-3.0,1.778702,-3.0,3.0,3.0,-3.0,3.0,-0.998715,-3.0,-3.0,-0.23823346,-3.0
2025-06-05 18:12:13.439,-0.048343915,0.008733336,0.0018721464,-0.057273664,-0.03529452,-0.03337318,0.0,0.0,0.0,0.0,-0.3122261,0.5444976,-0.30117676,0.2031768,1.0148501,-0.43769532,0.24016729,-0.32441673,-0.51308846,-0.23192488,0.148499,0.08193896,-0.022468565,-0.06672202,-0.0139456345,-0.04705298,0.02797972,0.017230881,0.0032883892,-0.043376774,0.039165664,-0.07244094,0.022631025,-0.007437975,-3.0,1.778702,-3.0,3.0,3.0,-3.0,3.0,-0.998715,-3.0,-3.0,-0.23823346,-3.0,-3.0,1.8702109,-3.0,3.0,3.0,-3.0,3.0,-0.9647634,-3.0,-3.0,-0.27477998,-3.0
2025-06-05 18:12:13.457,-0.046703994,-0.033008218,-0.01570685,-0.020416675,-0.10077554,0.012522439,0.0,0.0,0.0,0.0,-0.31137708,0.5499675,-0.3002176,0.19515936,1.0077523,-0.44505712,0.24392076,-0.31812936,-0.5065058,-0.23540194,0.14036088,0.08300944,-0.05278889,0.05124277,-0.05054108,0.007246336,-0.010460875,0.0037563166,-0.012428035,-0.020531664,0.00308296,0.028385468,-0.06924294,0.043347903,-3.0,1.8702109,-3.0,3.0,3.0,-3.0,3.0,-0.9647634,-3.0,-3.0,-0.27477998,-3.0,-3.0,1.8779457,-3.0,3.0,2.9175084,-3.0,3.0,-0.96277004,-3.0,-3.0,-0.048063286,-3.0
2025-06-05 18:12:13.477,-0.050522715,-0.04869462,-0.017594965,-0.043094773,-0.031609893,-0.010358115,0.0,0.0,0.0,0.0,-0.31397775,0.54171014,-0.31250694,0.20821658,1.0111386,-0.4407044,0.2474702,-0.31208414,-0.5132976,-0.2503958,0.13963494,0.07370838,-0.035371028,-0.033271875,0.011507056,0.053190373,0.06198011,-0.007748252,-0.0195395,-0.043967668,0.04252589,-0.051907416,0.072424255,0.039517466,-3.0,1.8779457,-3.0,3.0,2.9175084,-3.0,3.0,-0.96277004,-3.0,-3.0,-0.048063286,-3.0,-3.0,1.8276833,-3.0,3.0,3.0,-3.0,3.0,-0.9981563,-3.0,-3.0,-0.33287197,-3.0
2025-06-05 18:12:13.498,-0.040928077,0.056072064,0.0067297067,-0.014252015,-0.06190293,-0.0034393682,0.0,0.0,0.0,0.0,-0.3212588,0.5448812,-0.3137343,0.20312206,0.99841607,-0.444881,0.23804538,-0.32425871,-0.5128453,-0.23851296,0.15735307,0.06889522,0.020610856,-0.021319218,-0.0106509905,-0.03709547,-0.074576855,0.043757033,-0.042207763,-0.06860405,0.0303009,0.021043908,0.06398186,-0.038375996,-3.0,1.8276833,-3.0,3.0,3.0,-3.0,3.0,-0.9981563,-3.0,-3.0,-0.33287197,-3.0,-3.0,1.803144,-3.0,3.0,3.0,-3.0,3.0,-0.9829578,-3.0,-3.0,-0.23429652,-3.0
2025-06-05 18:12:13.518,-0.014477671,-0.022827411,-0.0067012305,-0.037089672,-0.09920967,-0.020359868,0.0,0.0,0.0,0.0,-0.31346434,0.5524675,-0.3017962,0.19667174,1.0159658,-0.44743466,0.23163995,-0.32136557,-0.51077986,-0.2353589,0.14540066,0.069201805,0.039706334,-0.017573649,-0.07489124,-0.0020657296,0.041921716,0.050567843,0.023186518,-0.001220699,-0.040561356,-0.002225287,-0.01949198,0.06522971,-3.0,1.803144,-3.0,3.0,3.0,-3.0,3.0,-0.9829578,-3.0,-3.0,-0.23429652,-3.0,-3.0,1.7614031,-3.0,3.0,3.0,-3.0,3.0,-1.0324672,-3.0,-3.0,-0.057576902,-3.0
2025-06-05 18:12:13.540,0.02763305,0.019410906,-0.023179242,-0.0542473,-0.026131362,-0.047788505,0.0,0.0,0.0,0.0,-0.3102908,0.5483915,-0.308328,0.19936538,1.0101684,-0.44776574,0.22686122,-0.3251454,-0.5141648,-0.24908684,0.1537378,0.07720967,0.011350196,0.03593121,-0.009328608,-0.044411745,-0.039432824,-0.019240238,0.03200309,-0.04005106,0.05895871,-0.005518005,0.03023779,-0.032050017,-3.0,1.7614031,-3.0,3.0,3.0,-3.0,3.0,-1.0324672,-3.0,-3.0,-0.057576902,-3.0,-3.0,1.8925893,-3.0,3.0,2.9056344,-3.0,3.0,-0.9041031,-3.0,-3.0,-0.15831949,-3.0
2025-06-05 18:12:13.558,-0.03511426,0.03213499,0.037025873,0.023883166,-0.07773451,0.016572325,0.0,0.0,0.0,0.0,-0.3200498,0.54543275,-0.31969786,0.21131939,1.016525,-0.43831053,0.22213756,-0.308293,-0.51387835,-0.25429195,0.13922492,0.08152146,-0.016780844,0.036240656,-0.028964018,0.06489437,-0.017790936,-0.016458226,-0.05848519,-0.039293885,-0.04097708,-0.01518965,0.03410735,-0.0055850893,-3.0,1.8925893,-3.0,3.0,2.9056344,-3.0,3.0,-0.9041031,-3.0,-3.0,-0.15831949,-3.0,-3.0,1.4754956,-3.0,3.0,3.0,-3.0,3.0,-1.1197765,-3.0,-3.0,-0.048411854,-3.0
2025-06-05 18:12:13.578,0.047480755,0.012112392,-0.027194915,0.0032244038,-0.058111034,0.013233473,0.0,0.0,0.0,0.0,-0.309135,0.5416241,-0.3174857,0.19939798,1.0041159,-0.43520102,0.23854743,-0.3150819,-0.49872762,-0.25021502,0.14849988,0.067405045,-0.038178988,-0.021392584,-0.04390461,-0.0009322531,0.00065455085,0.04246892,0.010303658,0.012427118,0.01467375,0.0070777657,0.032734066,0.033921383,-3.0,1.4754956,-3.0,3.0,3.0,-3.0,3.0,-1.1197765,-3.0,-3.0,-0.048411854,-3.0,-3.0,1.8573825,-3.0,3.0,2.8516104,-3.0,3.0,-1.0769101,-3.0,-3.0,-0.17754342,-3.0
2025-06-05 18:12:13.598,-0.0049713696,-0.024124885,-0.00455802,-0.041525457,-0.11760393,0.01593572,0.0,0.0,0.0,0.0,-0.3087344,0.5584901,-0.30438864,0.20607845,1.001914,-0.4365117,0.23830624,-0.32733077,-0.5007695,-0.25300455,0.1476128,0.07611447,0.0002599961,-0.020453077,-0.03557685,-0.023413084,-0.052314617,0.02084852,0.041886367,-0.056598704,0.039714582,-0.03461833,0.011967396,0.014272615,-3.0,1.8573825,-3.0,3.0,2.8516104,-3.0,3.0,-1.0769101,-3.0,-3.0,-0.17754342,-3.0,-3.0,1.7497964,-3.0,3.0,3.0,-3.0,3.0,-0.9832499,-3.0,-3.0,-0.19467498,-3.0
2025-06-05 18:12:13.618,-0.01991106,0.03719225,0.00967892,0.022706028,-0.0916891,0.0493621,0.0,0.0,0.0,0.0,-0.30864984,0.548566,-0.30961815,0.2017887,1.0110008,-0.4426089,0.23726961,-0.31927893,-0.49621165,-0.24889398,0.14062725,0.08186353,0.025889033,0.013842714,0.059581425,-0.010525088,-0.057512138,-0.0111201955,0.041058782,0.06893004,0.047737688,0.06336356,0.042507052,-0.03974336,-3.0,1.7497964,-3.0,3.0,3.0,-3.0,3.0,-0.9832499,-3.0,-3.0,-0.19467498,-3.0,-3.0,1.7428672,-3.0,3.0,3.0,-3.0,3.0,-1.0464064,-3.0,-3.0,-0.1950192,-3.0
2025-06-05 18:12:13.640,0.005914973,0.022867845,-0.031595305,0.025737483,-0.084186785,0.03922674,0.0,0.0,0.0,0.0,-0.3093868,0.5531072,-0.32057482,0.19960378,0.9987769,-0.43425268,0.2242994,-0.32607153,-0.5042608,-0.24072914,0.14661892,0.072564825,-0.026005847,-0.040324826,0.03462117,0.037316766,0.04410747,-0.052343715,0.016320338,0.005804635,0.021238126,-0.073869474,-0.03609731,-0.024045771,-3.0,1.7428672,-3.0,3.0,3.0,-3.0,3.0,-1.0464064,-3.0,-3.0,-0.1950192,-3.0,-3.0,2.1338239,-3.0,3.0,3.0,-3.0,3.0,-0.8862785,-3.0,-3.0,-0.11765934,-3.0
2025-06-05 18:12:13.658,-0.041174542,-0.06618889,0.044949427,-0.033045873,-0.09032586,-0.0043458454,0.0,0.0,0.0,0.0,-0.3174579,0.560442,-0.31071383,0.20525368,1.0038015,-0.4385441,0.23923069,-0.32669166,-0.5052357,-0.25391838,0.15240557,0.077654496,0.06361605,-0.0037248614,-0.03510629,0.0049017873,-0.024978917,0.045063958,-0.050555035,-0.043211214,0.012599162,0.07588869,0.009216573,0.009260904,-3.0,2.1338239,-3.0,3.0,3.0,-3.0,3.0,-0.8862785,-3.0,-3.0,-0.11765934,-3.0,-3.0,1.4061829,-3.0,3.0,3.0,-3.0,3.0,-1.1052572,-3.0,-3.0,-0.1608022,-3.0
2025-06-05 18:12:13.678,-0.031777136,0.023021523,0.002679451,-0.028965661,-0.04088668,-0.0032133018,0.0,0.0,0.0,0.0,-0.32120988,0.5549652,-0.31925672,0.1990664,1.0119375,-0.42951092,0.22969294,-0.31620833,-0.4983649,-0.23689567,0.14914726,0.08632527,0.0052815033,-0.052945327,0.010802107,-0.043009102,0.018586809,0.044757355,0.07075655,-0.018360933,0.032046374,0.06702684,-0.029634625,0.011917175,-3.0,1.4061829,-3.0,3.0,3.0,-3.0,3.0,-1.1052572,-3.0,-3.0,-0.1608022,-3.0,-3.0,1.8339102,-3.0,3.0,3.0,-3.0,3.0,-0.9424614,-3.0,-3.0,-0.15590884,-3.0
2025-06-05 18:12:13.699,-0.011844967,-0.03903353,0.006398388,-0.026253572,-0.03333536,-9.6519994e-05,0.0,0.0,0.0,0.0,-0.31015638,0.5595923,-0.31383494,0.19854291,1.0047995,-0.43932042,0.2394389,-0.32155985,-0.50663114,-0.2415149,0.1533296,0.072640136,0.034378316,-0.008356197,-0.019370848,-0.033439916,-0.05811804,-0.023829786,0.028390175,0.073742405,-0.031898353,0.048385542,0.07430942,-0.04111912,-3.0,1.8339102,-3.0,3.0,3.0,-3.0,3.0,-0.9424614,-3.0,-3.0,-0.15590884,-3.0,-3.0,1.661266,-3.0,3.0,3.0,-3.0,3.0,-1.1132239,-3.0,-3.0,-0.14320739,-3.0
2025-06-05 18:12:13.719,0.0112235285,0.038344614,-0.0021632016,-0.033802893,-0.058757737,0.033559367,0.0,0.0,0.0,0.0,-0.3211295,0.5492618,-0.3083101,0.19356303,1.0070592,-0.42619583,0.23847353,-0.31429785,-0.5146356,-0.25237885,0.15799369,0.07457033,-0.06890451,-0.0024522762,0.04148098,0.007110107,-0.02891187,-0.060699124,0.045150857,-0.07394257,0.046578128,-0.02262293,-0.023408862,0.027211837,-3.0,1.661266,-3.0,3.0,3.0,-3.0,3.0,-1.1132239,-3.0,-3.0,-0.14320739,-3.0,-3.0,1.8023782,-3.0,3.0,3.0,-3.0,3.0,-0.9332739,-3.0,-3.0,-0.19141676,-3.0
2025-06-05 18:12:13.740,-0.037209652,-0.0008360169,0.038296264,0.020139454,-0.048321843,0.029901916,0.0,0.0,0.0,0.0,-0.3218388,0.5567631,-0.31066355,0.20145188,1.0120124,-0.43118188,0.22909589,-0.32648033,-0.50645393,-0.24649492,0.14195378,0.079781495,0.03037048,-0.034511838,0.021156296,0.05397947,-0.059600737,-0.031344403,0.046087734,-0.011326564,0.034421545,-0.028049707,0.013328892,0.0061636074,-3.0,1.8023782,-3.0,3.0,3.0,-3.0,3.0,-0.9332739,-3.0,-3.0,-0.19141676,-3.0,-3.0,1.5407144,-3.0,3.0,3.0,-3.0,3.0,-1.069779,-3.0,-3.0,-0.26568484,-3.0
2025-06-05 18:12:13.759,0.04421988,0.016685871,0.022920476,0.020417154,-0.07403629,-0.04456384,0.0,0.0,0.0,0.0,-0.31355342,0.553633,-0.31519827,0.19827123,1.0051628,-0.44013375,0.23874742,-0.32418194,-0.5010667,-0.24384616,0.14277524,0.07637259,0.0045378217,-0.043748707,0.004286682,-0.0060929814,-0.04424046,0.0023384748,0.025834283,-0.002657076,0.009278974,-0.00788906,0.039415717,-0.023736458,-3.0,1.5407144,-3.0,3.0,3.0,-3.0,3.0,-1.069779,-3.0,-3.0,-0.26568484,-3.0,-3.0,1.6902245,-3.0,3.0,3.0,-3.0,3.0,-1.0383121,-3.0,-3.0,-0.15066458,-3.0
2025-06-05 18:12:13.778,-0.036916498,0.026155977,0.027940828,-0.012957361,-0.043958444,-0.039017715,0.0,0.0,0.0,0.0,-0.31499925,0.55546093,-0.32051983,0.19493768,1.0176743,-0.42516038,0.23862635,-0.32359415,-0.5109802,-0.24933825,0.15278673,0.09439434,-0.076633334,-0.05633111,0.06923276,0.01062701,0.054750998,0.01930414,0.04268702,-0.06783533,0.055879805,0.023648228,-0.06657389,0.07638495,-3.0,1.6902245,-3.0,3.0,3.0,-3.0,3.0,-1.0383121,-3.0,-3.0,-0.15066458,-3.0,-3.0,1.6539497,-3.0,3.0,3.0,-3.0,3.0,-0.9564271,-3.0,-3.0,-0.23554732,-3.0
2025-06-05 18:12:13.798,-0.0068416316,0.015702106,-0.01353032,-0.04044024,-0.07375771,-0.039150786,0.0,0.0,0.0,0.0,-0.3242439,0.55204487,-0.31279448,0.20234555,1.0098494,-0.4347696,0.23388222,-0.32995826,-0.512117,-0.23989488,0.14448345,0.08697298,-0.063555576,0.06016161,0.022950131,0.056117184,0.04193048,0.0449008,-0.014943461,0.033634584,-0.041764703,0.015442426,0.059903853,-0.019246353,-3.0,1.6539497,-3.0,3.0,3.0,-3.0,3.0,-0.9564271,-3.0,-3.0,-0.23554732,-3.0,-3.0,1.872043,-3.0,3.0,3.0,-3.0,3.0,-0.98850644,-3.0,-3.0,-0.034455426,-3.0
2025-06-05 18:12:13.819,-0.04729198,-0.054129235,-0.04044864,-0.00727554,-0.096743576,0.042070597,0.0,0.0,0.0,0.0,-0.32628053,0.54389817,-0.3091382,0.20435768,1.013642,-0.43137324,0.23587584,-0.32191107,-0.5062226,-0.2500433,0.15256257,0.090842165,0.061338566,0.052695252,-0.06192863,0.018278673,0.05679704,0.0019612059,0.04411955,0.034828607,0.060606573,0.009836295,0.0076266997,-0.057952985,-3.0,1.872043,-3.0,3.0,3.0,-3.0,3.0,-0.98850644,-3.0,-3.0,-0.034455426,-3.0,-3.0,1.8586609,-3.0,3.0,2.7911224,-3.0,3.0,-1.0111561,-3.0,-3.0,-0.105291195,-3.0
2025-06-05 18:12:13.840,0.008330847,0.021966869,0.060509454,-0.007597977,-0.08408721,0.007492088,0.0,0.0,0.0,0.0,-0.32386607,0.54482645,-0.3158061,0.20139627,0.9997263,-0.42161983,0.24345513,-0.32501903,-0.50074923,-0.23488824,0.15619051,0.08103048,-0.05758542,-0.016858215,0.027267227,0.051603522,0.051372964,-0.06907151,-0.0012086746,-0.038840458,-0.047533635,-0.020280376,-0.03849896,0.024836248,-3.0,1.8586609,-3.0,3.0,2.7911224,-3.0,3.0,-1.0111561,-3.0,-3.0,-0.105291195,-3.0,-3.0,1.2759322,-3.0,3.0,3.0,-3.0,3.0,-1.0159276,-3.0,-3.0,-0.0122500155,-3.0
2025-06-05 18:12:13.859,-0.011497424,0.026696341,-0.007144731,0.022473944,-0.091209546,0.028646696,0.0,0.0,0.0,0.0,-0.32102326,0.5400025,-0.31198457,0.19371238,1.0012958,-0.4326039,0.22937815,-0.31624863,-0.5178216,-0.24592797,0.1509633,0.08095698,-0.033369,0.06118368,-0.03405677,-0.07475158,-0.052205108,-0.05308899,0.0013831981,0.032444015,-0.020608615,0.073060185,-0.055608742,0.015945602,-3.0,1.2759322,-3.0,3.0,3.0,-3.0,3.0,-1.0159276,-3.0,-3.0,-0.0122500155,-3.0,-3.0,1.7216555,-3.0,3.0,2.8146844,-3.0,3.0,-1.0489966,-3.0,-3.0,-0.035397537,-3.0
2025-06-05 18:12:13.879,0.05660594,-0.03068861,-0.04077328,-0.03165923,-0.07682709,-0.003545549,0.0,0.0,0.0,0.0,-0.3255257,0.5402277,-0.3122523,0.1926192,1.0073571,-0.42230627,0.23655999,-0.31411445,-0.5049292,-0.2482211,0.15335675,0.07055942,-0.06723273,-0.07174574,0.025211336,-0.009536075,0.017607272,-0.05719376,0.06793291,-0.057501882,-0.07424338,-0.028662268,0.06399739,0.070821926,-3.0,1.7216555,-3.0,3.0,2.8146844,-3.0,3.0,-1.0489966,-3.0,-3.0,-0.035397537,-3.0,-3.0,1.9320607,-3.0,3.0,3.0,-3.0,3.0,-0.9783416,-3.0,-3.0,-0.18147583,-3.0
2025-06-05 18:12:13.899,0.044409458,0.022539955,-0.0014306444,-0.037138283,-0.079062775,-0.046000626,0.0,0.0,0.0,0.0,-0.32528913,0.53662884,-0.3167762,0.19805932,1.0089817,-0.42052796,0.24096385,-0.31951785,-0.51661617,-0.2403946,0.15418962,0.073265076,0.020010678,-0.04067869,-0.05046564,-0.03994594,-0.013612133,0.069798976,-0.0014129196,0.020616075,0.055486895,0.020135583,-0.04373465,0.061751414,-3.0,1.9320607,-3.0,3.0,3.0,-3.0,3.0,-0.9783416,-3.0,-3.0,-0.18147583,-3.0,-3.0,1.7723334,-3.0,3.0,3.0,-3.0,3.0,-1.1764314,-3.0,-3.0,-0.19136138,-3.0
2025-06-05 18:12:13.920,-0.023938539,-0.017772458,0.01847221,-0.045574643,-0.06765046,-0.021977905,0.0,0.0,0.0,0.0,-0.31291094,0.54716164,-0.30660012,0.18887852,1.0017946,-0.42432135,0.23635925,-0.32897574,-0.5043211,-0.23859477,0.14926945,0.07431265,-0.04529532,-0.032721214,-0.02043063,0.010269166,0.058260195,-0.06599701,-0.047505587,0.060719468,0.056333456,-0.035045393,0.04794434,-0.051423956,-3.0,1.7723334,-3.0,3.0,3.0,-3.0,3.0,-1.1764314,-3.0,-3.0,-0.19136138,-3.0,-3.0,1.6271926,-3.0,3.0,3.0,-3.0,3.0,-1.0927908,-3.0,-3.0,-0.14218129,-3.0
2025-06-05 18:12:13.939,0.04803232,0.048670355,0.04105595,-0.064494014,-0.056184627,0.0027043396,0.0,0.0,0.0,0.0,-0.3150703,0.5454261,-0.3146282,0.1916552,0.99950725,-0.42529017,0.23733245,-0.3312689,-0.49977833,-0.24663447,0.13794106,0.07737672,0.042605244,-0.06705105,0.0035800866,-0.0173902,0.046545506,0.01593155,-0.0032996,-0.016054029,-0.033091296,-0.02821451,0.02343202,0.015319717,-3.0,1.6271926,-3.0,3.0,3.0,-3.0,3.0,-1.0927908,-3.0,-3.0,-0.14218129,-3.0,-3.0,1.5190575,-3.0,3.0,3.0,-3.0,3.0,-1.1047571,-3.0,-3.0,-0.09987492,-3.0
2025-06-05 18:12:13.959,0.057497114,0.024922904,-0.05752002,0.0043697567,-0.07515516,-0.023817666,0.0,0.0,0.0,0.0,-0.3254381,0.53789693,-0.31839365,0.18288061,0.9967739,-0.44001094,0.23757957,-0.326286,-0.5156189,-0.24594148,0.13656694,0.083507165,-0.06842634,-0.012850604,0.025438342,0.05728731,0.060052514,-0.05914407,-0.069996536,0.009070356,0.018534828,0.034229845,-0.05421843,0.020213464,-3.0,1.5190575,-3.0,3.0,3.0,-3.0,3.0,-1.1047571,-3.0,-3.0,-0.09987492,-3.0,-3.0,2.2856536,-3.0,3.0,2.897697,-3.0,3.0,-0.8544713,-3.0,-3.0,-0.07057441,-3.0
2025-06-05 18:12:13.979,0.012858825,-0.00089523545,0.042536892,-0.034968585,-0.06692395,-0.004525726,0.0,0.0,0.0,0.0,-0.3292243,0.5526471,-0.30186158,0.1873527,1.0082769,-0.43078014,0.23657039,-0.33453563,-0.5043088,-0.23428322,0.1353893,0.086637616,0.035907935,0.045899864,-0.05848222,0.05793382,-0.046147913,0.02403536,0.027563207,0.025652505,-0.010782006,0.05481945,-0.024038134,0.029645039,-3.0,2.2856536,-3.0,3.0,2.897697,-3.0,3.0,-0.8544713,-3.0,-3.0,-0.07057441,-3.0,-3.0,1.294395,-3.0,3.0,3.0,-3.0,3.0,-1.1593932,-3.0,-3.0,-0.12301541,-3.0
2025-06-05 18:12:13.999,0.036836676,-0.024375154,-0.038693156,-0.001409896,-0.031771757,-0.00957419,0.0,0.0,0.0,0.0,-0.31775415,0.5365259,-0.30001557,0.19681989,1.011912,-0.42726314,0.24380644,-0.3340473,-0.5201109,-0.24408214,0.14122337,0.07667373,-0.07288013,0.011395382,-0.04681349,-0.048782405,-0.017425304,-0.07075992,0.029685652,0.055465046,-0.009936826,0.00026398833,0.0063875313,-0.024550235,-3.0,1.294395,-3.0,3.0,3.0,-3.0,3.0,-1.1593932,-3.0,-3.0,-0.12301541,-3.0,-3.0,1.9763403,-3.0,3.0,2.7447972,-3.0,3.0,-0.9945102,-3.0,-3.0,-0.093382664,-3.0
2025-06-05 18:12:14.019,-0.0062880195,0.01841849,0.022130214,0.01833621,-0.07869343,0.032449912,0.0,0.0,0.0,0.0,-0.3278129,0.540328,-0.30649018,0.18969402,1.0134406,-0.43514886,0.23883103,-0.33437115,-0.5129317,-0.24129073,0.15492982,0.08424203,-0.042831305,0.028996544,-0.05904966,0.06450555,0.046943735,-0.04929567,0.02186646,0.016914789,0.06651116,-0.06948277,0.001296064,-0.047811177,-3.0,1.9763403,-3.0,3.0,2.7447972,-3.0,3.0,-0.9945102,-3.0,-3.0,-0.093382664,-3.0,-3.0,1.398744,-3.0,3.0,3.0,-3.0,3.0,-1.0171257,-3.0,-3.0,-0.14142133,-3.0
2025-06-05 18:12:14.040,0.024208395,-0.018964296,0.002579447,0.022329006,-0.018365538,0.038164522,0.0,0.0,0.0,0.0,-0.3132044,0.5364888,-0.31386033,0.19864543,1.0100482,-0.438043,0.2262926,-0.32626382,-0.51888174,-0.2437223,0.15041895,0.06954392,0.05219374,-0.06395417,-0.030117804,0.06100292,0.000110695815,0.051681638,-0.052579287,0.0299889,-0.030511962,0.0104007395,-0.066280834,-0.05917048,-3.0,1.398744,-3.0,3.0,3.0,-3.0,3.0,-1.0171257,-3.0,-3.0,-0.14142133,-3.0,-3.0,1.9003284,-3.0,3.0,3.0,-3.0,3.0,-1.0196861,-3.0,-3.0,-0.055341788,-3.0
2025-06-05 18:12:14.060,0.0022327995,-0.045873936,0.013322825,0.0031737208,-0.05481011,0.01579941,0.0,0.0,0.0,0.0,-0.3284381,0.55132157,-0.30907875,0.20585594,1.010397,-0.42909527,0.23693298,-0.3210824,-0.50256175,-0.235577,0.14448042,0.08336945,0.024207892,0.07395268,0.026729424,-0.030495977,0.052367818,-0.06702268,-0.059954412,0.035375107,0.0125194,0.041540544,0.026912289,0.03112579,-3.0,1.9003284,-3.0,3.0,3.0,-3.0,3.0,-1.0196861,-3.0,-3.0,-0.055341788,-3.0,-3.0,1.5231746,-3.0,3.0,3.0,-3.0,3.0,-1.1023209,-3.0,-3.0,-0.18171717,-3.0
2025-06-05 18:12:14.080,-0.004571964,0.050015517,-0.047642898,0.010022467,-0.05936082,-0.021636365,0.0,0.0,0.0,0.0,-0.3293518,0.54713535,-0.30773842,0.1943973,1.0100048,-0.44252115,0.23635149,-0.32664034,-0.51666045,-0.24962443,0.14641552,0.070924476,0.06183061,0.010767048,0.022732755,0.065570705,-0.011410318,0.0020861228,-0.019938728,-0.022952782,-0.02084633,-0.025815763,0.030628923,-0.071090914,-3.0,1.5231746,-3.0,3.0,3.0,-3.0,3.0,-1.1023209,-3.0,-3.0,-0.18171717,-3.0,-3.0,2.1220822,-3.0,3.0,3.0,-3.0,3.0,-0.84594285,-3.0,-3.0,-0.101041086,-3.0
2025-06-05 18:12:14.100,-0.041725297,-0.046508092,0.0031893132,0.0040666847,-0.043221608,0.037716713,0.0,0.0,0.0,0.0,-0.32185423,0.5358826,-0.30253738,0.20166539,1.0049545,-0.4444425,0.24360652,-0.32310426,-0.51470184,-0.2437426,0.13955134,0.071522705,0.00810983,0.0773534,0.016784234,0.067569785,0.0471942,-0.058772504,0.013746377,-0.019149076,0.027694091,-0.016696129,0.06126832,-0.03815594,-3.0,2.1220822,-3.0,3.0,3.0,-3.0,3.0,-0.84594285,-3.0,-3.0,-0.101041086,-3.0,-3.0,1.5966647,-3.0,3.0,3.0,-3.0,3.0,-0.9631709,-3.0,-3.0,-0.20894267,-3.0
2025-06-05 18:12:14.122,0.0035364272,-0.016868988,-0.00071580795,-0.028820656,-0.11428818,-0.025872258,0.0,0.0,0.0,0.0,-0.31508374,0.55564874,-0.29711524,0.19155498,1.016176,-0.4346098,0.24677193,-0.31043085,-0.5103134,-0.25030035,0.1401741,0.06805004,-0.040063262,0.061403662,0.074242525,0.016577,0.041476954,-0.023241753,0.022196285,0.0630346,-0.06152755,0.024177566,-0.032281917,-0.02065875,-3.0,1.5966647,-3.0,3.0,3.0,-3.0,3.0,-0.9631709,-3.0,-3.0,-0.20894267,-3.0,-3.0,1.8374556,-3.0,3.0,3.0,-3.0,3.0,-0.9280125,-3.0,-3.0,0.08286392,-3.0
2025-06-05 18:12:14.140,-0.008888291,-0.02817277,-0.0030615365,-0.042248324,-0.075912364,0.027592493,0.0,0.0,0.0,0.0,-0.3128096,0.5539194,-0.3061769,0.202415,1.022097,-0.43113863,0.22861168,-0.31405804,-0.50685805,-0.2445285,0.14576618,0.07090254,-0.021218395,0.05698318,0.016731927,0.045346215,0.025106365,0.045196097,0.008263177,0.011898223,0.059760414,0.016325142,0.014692097,-0.04595643,-3.0,1.8374556,-3.0,3.0,3.0,-3.0,3.0,-0.9280125,-3.0,-3.0,0.08286392,-3.0,-3.0,1.7375883,-3.0,3.0,3.0,-3.0,3.0,-0.9820549,-3.0,-3.0,-0.103527434,-3.0
2025-06-05 18:12:14.160,0.031121256,-0.016690841,-0.04549765,-0.023643179,-0.11481901,-0.049160052,0.0,0.0,0.0,0.0,-0.3242536,0.54426366,-0.29273397,0.19291875,1.0218307,-0.43193683,0.23771378,-0.32059455,-0.5208917,-0.23880173,0.16676478,0.07355456,0.02001716,-0.012635945,-0.005021868,-0.029808464,-0.041418735,-0.039129343,0.06420693,-0.0049454705,-0.049135447,-0.04036545,-0.011688549,-0.06675573,-3.0,1.7375883,-3.0,3.0,3.0,-3.0,3.0,-0.9820549,-3.0,-3.0,-0.103527434,-3.0,-3.0,2.0975049,-3.0,3.0,2.9803984,-3.0,3.0,-0.89881134,-3.0,-3.0,-0.015490541,-3.0
2025-06-05 18:12:14.180,-0.0034442525,0.019898852,-0.017487906,0.0026299583,-0.08498147,0.027038889,0.0,0.0,0.0,0.0,-0.3167394,0.5451076,-0.29465452,0.19699177,1.0137814,-0.4295367,0.24531548,-0.3077798,-0.50732654,-0.24070035,0.16564934,0.059967227,-0.041984145,-0.020916393,-0.029137982,-0.009022452,0.041245054,0.008352151,-0.032812014,0.035627108,-0.023070315,0.0034274526,-0.038847294,-0.058058605,-3.0,2.0975049,-3.0,3.0,2.9803984,-3.0,3.0,-0.89881134,-3.0,-3.0,-0.015490541,-3.0,-3.0,1.929659,-3.0,3.0,3.0,-3.0,3.0,-0.98087966,-3.0,-3.0,-0.032301314,-3.0
2025-06-05 18:12:14.201,0.02781021,0.0043478087,-0.03597681,-0.029185172,-0.07596984,-0.0469659,0.0,0.0,0.0,0.0,-0.31359106,0.56096834,-0.2943121,0.21230283,1.0260996,-0.43951726,0.22425908,-0.30181724,-0.50720257,-0.24933618,0.15913737,0.06299794,0.039311033,0.05110171,-0.020079596,0.07899203,0.056520578,0.06282171,-0.06470919,0.0594591,-0.03927484,-0.05203415,-0.009813663,0.01163625,-3.0,1.929659,-3.0,3.0,3.0,-3.0,3.0,-0.98087966,-3.0,-3.0,-0.032301314,-3.0,-3.0,1.9557009,-3.0,3.0,2.7809443,-3.0,3.0,-1.017016,-3.0,-3.0,-0.013361463,-3.0
2025-06-05 18:12:14.223,0.021717591,-0.013175503,0.040768847,-0.04959455,-0.039104413,-0.011283109,0.0,0.0,0.0,0.0,-0.32467103,0.5687608,-0.30296916,0.2013452,1.0227832,-0.4313608,0.22520587,-0.30383733,-0.5163971,-0.23841697,0.17507108,0.0690518,-0.0035834368,0.044318635,-0.051527124,0.026044337,-0.033631235,0.01733907,-0.057948895,0.04554142,0.017177949,-0.07729743,-0.05251151,0.010780006,-3.0,1.9557009,-3.0,3.0,2.7809443,-3.0,3.0,-1.017016,-3.0,-3.0,-0.013361463,-3.0,-3.0,1.3548343,-3.0,3.0,3.0,-3.0,3.0,-1.165654,-3.0,-3.0,-0.08662916,-3.0
2025-06-05 18:12:14.240,-0.010971473,0.0049979626,-0.0031131757,-0.0043337666,-0.09939848,-0.009051344,0.0,0.0,0.0,0.0,-0.3209178,0.56884325,-0.3000388,0.20054749,1.0309899,-0.43588418,0.22618431,-0.31486446,-0.5038361,-0.2415667,0.16070348,0.07084204,-0.015967907,-0.06751943,0.036762524,-0.070726864,-0.044766683,-0.03749674,-0.04585781,-0.038412508,0.027974546,-0.020173477,0.04799194,0.00096877315,-3.0,1.3548343,-3.0,3.0,3.0,-3.0,3.0,-1.165654,-3.0,-3.0,-0.08662916,-3.0,-3.0,1.8975089,-3.0,3.0,3.0,-3.0,3.0,-0.9647962,-3.0,-3.0,-0.22754146,-3.0
2025-06-05 18:12:14.261,0.035409104,0.007902284,0.026974674,0.013536411,-0.05764852,-0.003099364,0.0,0.0,0.0,0.0,-0.32191247,0.56214154,-0.30118152,0.21019535,1.0215306,-0.43293503,0.22871892,-0.31633034,-0.49602923,-0.2478519,0.1547788,0.073716104,0.071586326,-0.010621012,0.020201672,-0.022204956,0.025555251,0.027863752,0.012817907,-0.049933754,-0.034686327,0.00777009,-0.08142726,0.07761161,-3.0,1.8975089,-3.0,3.0,3.0,-3.0,3.0,-0.9647962,-3.0,-3.0,-0.22754146,-3.0,-3.0,1.6291037,-3.0,3.0,3.0,-3.0,3.0,-1.0138067,-3.0,-3.0,-0.10387207,-3.0
2025-06-05 18:12:14.280,-0.019765206,0.0021973953,0.021552365,-0.06537529,-0.04054595,0.017423684,0.0,0.0,0.0,0.0,-0.3281768,0.5520094,-0.29966438,0.20474814,1.0126498,-0.43392217,0.22245976,-0.32469606,-0.49907684,-0.24628523,0.15327896,0.08469226,0.013539946,0.0023679808,-0.050433822,0.025585193,-0.0019196027,-0.049265657,0.056516267,-0.029494444,0.0074065425,-0.061581086,-0.053324297,-0.021830626,-3.0,1.6291037,-3.0,3.0,3.0,-3.0,3.0,-1.0138067,-3.0,-3.0,-0.10387207,-3.0,-3.0,1.6482564,-3.0,3.0,3.0,-3.0,3.0,-0.9960458,-3.0,-3.0,-0.059350856,-3.0
2025-06-05 18:12:14.300,-0.025984442,-0.028360086,0.029497735,0.008479308,-0.032649096,0.027007084,0.0,0.0,0.0,0.0,-0.31764582,0.5604346,-0.30941874,0.21096452,1.0230849,-0.44217974,0.22562476,-0.32258582,-0.50197047,-0.24250764,0.16633645,0.07174236,-0.046779558,-0.04834598,-0.028113676,-0.013680236,-0.002504895,-0.006012402,0.0051080952,-0.004151167,-0.023269659,0.06475181,-0.056808934,0.03126511,-3.0,1.6482564,-3.0,3.0,3.0,-3.0,3.0,-0.9960458,-3.0,-3.0,-0.059350856,-3.0,-3.0,1.6214838,-3.0,3.0,3.0,-3.0,3.0,-1.0437381,-3.0,-3.0,-0.10041226,-3.0
2025-06-05 18:12:14.323,0.040599573,0.045610014,-0.01995128,-0.059693586,-0.082276255,-0.02085126,0.0,0.0,0.0,0.0,-0.326183,0.5598626,-0.30078924,0.20189592,1.0185426,-0.43411696,0.23304304,-0.3138774,-0.50803894,-0.24659505,0.14930561,0.076104596,0.041590087,0.056021865,0.021798724,-0.045055408,-0.06476382,0.07300272,0.05247903,-0.019688679,-0.041529097,0.060802523,0.024520442,0.06059337,-3.0,1.6214838,-3.0,3.0,3.0,-3.0,3.0,-1.0437381,-3.0,-3.0,-0.10041226,-3.0,-3.0,1.7962713,-3.0,3.0,2.929103,-3.0,3.0,-0.9973819,-3.0,-3.0,-0.12755986,-3.0
2025-06-05 18:12:14.341,-0.011645216,-0.0053729042,0.027516538,0.017632226,-0.031944145,-0.0008127132,0.0,0.0,0.0,0.0,-0.32512254,0.56547064,-0.31060216,0.19476146,1.0154912,-0.42845082,0.24569589,-0.31285572,-0.5060705,-0.2415702,0.15899028,0.0848245,-0.06324692,-0.06744324,-0.06377212,0.051004563,-0.034788158,0.073233396,-0.026890518,-0.003088526,-0.045071576,0.02542853,0.032027997,-0.043243065,-3.0,1.7962713,-3.0,3.0,2.929103,-3.0,3.0,-0.9973819,-3.0,-3.0,-0.12755986,-3.0,-3.0,1.5705626,-3.0,3.0,3.0,-3.0,3.0,-1.0959202,-3.0,-3.0,-0.1459908,-3.0
2025-06-05 18:12:14.361,0.055972915,0.018389294,0.011422782,-0.051776826,-0.058330867,-0.0038211958,0.0,0.0,0.0,0.0,-0.32795897,0.56140316,-0.31001097,0.1978562,1.0186025,-0.42693356,0.2305758,-0.328254,-0.5084182,-0.24240464,0.14652266,0.078572825,-0.064230606,-0.044564173,0.012829454,0.06711491,-0.07082567,0.0052958387,-0.06074158,-0.01742391,-0.029601619,0.016073635,0.06412601,-0.03939546,-3.0,1.5705626,-3.0,3.0,3.0,-3.0,3.0,-1.0959202,-3.0,-3.0,-0.1459908,-3.0,-3.0,1.8030468,-3.0,3.0,3.0,-3.0,3.0,-1.038478,-3.0,-3.0,-0.10933543,-3.0
2025-06-05 18:12:14.381,0.049650025,-0.010586078,0.02369189,0.026999403,-0.07820316,-0.014095207,0.0,0.0,0.0,0.0,-0.31869668,0.5527313,-0.31417316,0.19161691,1.0258541,-0.4225801,0.23220026,-0.31656638,-0.5108982,-0.24339953,0.15481047,0.07646602,0.0023077363,0.0651674,0.047618203,0.046676926,0.02206524,0.037583444,-0.023958122,0.018467695,0.030055437,-0.059044357,0.052538898,0.061825275,-3.0,1.8030468,-3.0,3.0,3.0,-3.0,3.0,-1.038478,-3.0,-3.0,-0.10933543,-3.0,-3.0,1.3827775,-3.0,3.0,3.0,-3.0,3.0,-1.2172136,-3.0,-3.0,-0.21701755,-3.0
2025-06-05 18:12:14.402,0.04017615,0.054046225,0.030644609,-0.027605264,-0.0510197,-0.040088058,0.0,0.0,0.0,0.0,-0.33309475,0.55262315,-0.3154686,0.18830253,1.0191209,-0.42840105,0.24637318,-0.33043715,-0.5030995,-0.24756901,0.14444812,0.08464506,-0.029865928,-0.004578718,0.044121224,0.060700137,-0.08122911,0.038373083,-0.07042075,-0.07986229,0.006636956,0.04214352,0.038502056,-0.030377362,-3.0,1.3827775,-3.0,3.0,3.0,-3.0,3.0,-1.2172136,-3.0,-3.0,-0.21701755,-3.0,-3.0,1.5915712,-3.0,3.0,3.0,-3.0,3.0,-1.0045147,-3.0,-3.0,-0.1102115,-3.0
2025-06-05 18:12:14.423,0.0021422582,0.00841108,0.031250577,-0.04977544,-0.0970439,0.04310074,0.0,0.0,0.0,0.0,-0.3209439,0.5483548,-0.30718067,0.18316533,1.016601,-0.43359125,0.24786085,-0.33327112,-0.50287336,-0.23330055,0.14494734,0.082489796,-0.07325224,-0.00039116168,-0.050153114,-0.05159056,-0.047127374,-0.0661414,-0.034026213,0.04831058,-0.057301864,-0.020703694,-0.0036519808,0.06651672,-3.0,1.5915712,-3.0,3.0,3.0,-3.0,3.0,-1.0045147,-3.0,-3.0,-0.1102115,-3.0,-3.0,1.4387808,-3.0,3.0,3.0,-3.0,3.0,-1.2628032,-3.0,-3.0,-0.07304401,-3.0
2025-06-05 18:12:14.442,0.0056557357,-0.029129019,-0.04841664,-0.010003707,-0.031060135,0.032759164,0.0,0.0,0.0,0.0,-0.32069314,0.54662573,-0.30258095,0.19415805,1.0173931,-0.43059796,0.24699995,-0.3446449,-0.49633726,-0.23644319,0.15121242,0.086192906,-0.032154713,-0.02465596,-0.027327765,-0.051351424,0.0077923266,-0.047298323,-0.061028004,-0.060631722,0.023798347,0.028076034,0.011116624,0.050371755,-3.0,1.4387808,-3.0,3.0,3.0,-3.0,3.0,-1.2628032,-3.0,-3.0,-0.07304401,-3.0,-3.0,2.0024655,-3.0,3.0,2.8785105,-3.0,3.0,-0.9408167,-3.0,-3.0,-0.24749203,-3.0
2025-06-05 18:12:14.462,0.00023392898,-0.032840732,0.00032739202,-0.0069320854,-0.063114755,0.012662225,0.0,0.0,0.0,0.0,-0.31953347,0.52923924,-0.3088948,0.19009359,1.0081236,-0.43935198,0.24077201,-0.34718144,-0.50119627,-0.23922646,0.13610989,0.08328954,0.04375119,-0.03417019,-0.054697767,-0.042751748,0.0055358135,0.06833964,-0.059594665,0.06613085,-0.046685334,0.029774014,-0.023103343,-0.04175009,-3.0,2.0024655,-3.0,3.0,2.8785105,-3.0,3.0,-0.9408167,-3.0,-3.0,-0.24749203,-3.0,-3.0,1.7736926,-3.0,3.0,3.0,-3.0,3.0,-1.1375574,-3.0,-3.0,-0.08401585,-3.0
2025-06-05 18:12:14.525,-0.027386703,0.017675424,0.0037431929,0.022390634,-0.067239106,0.02465788,0.0,0.0,0.0,0.0,-0.32658193,0.5285492,-0.30468094,0.18846355,1.0003996,-0.42676327,0.23792714,-0.33854377,-0.5172907,-0.23298922,0.13324778,0.09512807,-0.0034195944,0.033108227,-0.071585625,-0.03746003,0.06464635,-0.020174552,-0.015497474,0.033235405,-0.06157515,0.020701902,-0.06121404,-0.031352397,-3.0,1.7736926,-3.0,3.0,3.0,-3.0,3.0,-1.1375574,-3.0,-3.0,-0.08401585,-3.0,-3.0,1.6057069,-3.0,3.0,3.0,-3.0,3.0,-1.072461,-3.0,-3.0,-0.021587322,-3.0
2025-06-05 18:12:14.545,-0.018072596,0.026831314,0.044236854,0.031041943,-0.09842484,0.04562979,0.0,0.0,0.0,0.0,-0.3180911,0.5423498,-0.29789954,0.19650047,1.0141963,-0.43878442,0.2488793,-0.32900518,-0.51614743,-0.23488508,0.13567773,0.07804064,-0.034089237,0.002915517,0.052268077,-0.065832615,0.019248663,0.07219546,-0.046932038,0.030523848,-0.011730883,-0.05888036,-0.0061994554,-0.011605357,-3.0,1.6057069,-3.0,3.0,3.0,-3.0,3.0,-1.072461,-3.0,-3.0,-0.021587322,-3.0,-3.0,1.5042028,-3.0,3.0,3.0,-3.0,3.0,-1.0892965,-3.0,-3.0,-0.2095166,-3.0
2025-06-05 18:12:14.565,0.050535675,-0.002927608,-0.037234526,-0.05395229,-0.019817928,-0.04218304,0.0,0.0,0.0,0.0,-0.32408914,0.5445042,-0.29582602,0.19790271,1.0025312,-0.4312755,0.24087305,-0.34461325,-0.520031,-0.23898041,0.13050039,0.0746465,-0.045717478,0.043982856,0.0735945,0.052179117,0.061622426,-0.015730835,0.051406678,0.06386821,-0.03073782,-0.06310439,-0.06857635,0.044691052,-3.0,1.5042028,-3.0,3.0,3.0,-3.0,3.0,-1.0892965,-3.0,-3.0,-0.2095166,-3.0,-3.0,2.1197362,-3.0,3.0,2.9172902,-3.0,3.0,-0.8591472,-3.0,-3.0,-0.10820902,-3.0
2025-06-05 18:12:14.585,-0.02674624,-0.07321561,0.0039801598,-0.0053576515,-0.09467605,-0.03656428,0.0,0.0,0.0,0.0,-0.33583936,0.5393683,-0.30332226,0.19480129,1.0064112,-0.43942323,0.2516077,-0.33873782,-0.50706637,-0.23272483,0.1345304,0.074261546,-0.00076895725,-0.05008202,0.0361506,-0.017968994,-0.036898278,0.044342432,0.004262885,0.010768291,-0.013859068,0.041806202,-0.029699717,0.0113531705,-3.0,2.1197362,-3.0,3.0,2.9172902,-3.0,3.0,-0.8591472,-3.0,-3.0,-0.10820902,-3.0,-3.0,1.7985709,-3.0,3.0,3.0,-3.0,3.0,-1.02882,-3.0,-3.0,-0.27078116,-3.0
2025-06-05 18:12:14.607,-0.031022647,-0.049561553,0.056814034,-0.027761837,-0.05966622,-0.025201285,0.0,0.0,0.0,0.0,-0.33043045,0.5395927,-0.29686835,0.19168797,1.002064,-0.42845336,0.24821101,-0.33639452,-0.5185537,-0.24841602,0.15049064,0.08827186,-0.044668224,0.0066916053,0.0021482822,-0.019953636,0.017692529,0.016712222,0.016452756,0.061782192,-0.015251783,-0.044854503,-0.020159524,-0.04987303,-3.0,1.7985709,-3.0,3.0,3.0,-3.0,3.0,-1.02882,-3.0,-3.0,-0.27078116,-3.0,-3.0,1.4058056,-3.0,3.0,3.0,-3.0,3.0,-1.1601475,-3.0,-3.0,-0.118644305,-3.0
2025-06-05 18:12:14.625,0.020186935,0.053823076,0.050343376,0.023624634,-0.06933112,-0.017449172,0.0,0.0,0.0,0.0,-0.32477847,0.5463797,-0.31099084,0.1985969,1.0168723,-0.4456797,0.23433067,-0.32381135,-0.5132298,-0.24153917,0.15018806,0.07413966,0.039216362,0.041690864,0.06861591,0.07230217,0.04146779,0.04781346,0.056849293,-0.043971054,0.058900654,0.02458163,0.062470675,-0.027430907,-3.0,1.4058056,-3.0,3.0,3.0,-3.0,3.0,-1.1601475,-3.0,-3.0,-0.118644305,-3.0,-3.0,1.2926927,-3.0,3.0,3.0,-3.0,3.0,-0.92358977,-3.0,-3.0,-0.14191033,-3.0
2025-06-05 18:12:14.645,0.0020371773,-0.01893612,-0.017457824,0.015858728,-0.09645697,-0.023835076,0.0,0.0,0.0,0.0,-0.3290167,0.53189546,-0.3025842,0.19281249,1.0057598,-0.44804376,0.23302071,-0.32688916,-0.51894855,-0.23115252,0.14721201,0.07585347,-0.04869302,-0.010439841,-0.022506773,-0.022735447,0.057895657,-0.07085653,-0.0724484,-0.047511246,0.0012554979,-0.020681122,0.026030038,-0.025856616,-3.0,1.2926927,-3.0,3.0,3.0,-3.0,3.0,-0.92358977,-3.0,-3.0,-0.14191033,-3.0,-3.0,2.0256047,-3.0,3.0,3.0,-3.0,3.0,-0.8839015,-3.0,-3.0,-0.09217382,-3.0
2025-06-05 18:12:14.665,-0.04597149,-0.07888113,0.020372115,0.012826792,-0.09375574,-0.03673106,0.0,0.0,0.0,0.0,-0.33486885,0.53990793,-0.29241648,0.19000275,1.0071646,-0.4385578,0.24472289,-0.3221693,-0.51153165,-0.24298845,0.14604452,0.07003782,0.021672145,-0.02979289,0.058489162,0.0551046,-0.0015906155,-0.04042626,-0.03881915,-0.033720613,0.03059554,-0.00039929556,0.043039586,0.027153362,-3.0,2.0256047,-3.0,3.0,3.0,-3.0,3.0,-0.8839015,-3.0,-3.0,-0.09217382,-3.0,-3.0,1.6009276,-3.0,3.0,3.0,-3.0,3.0,-1.0306002,-3.0,-3.0,-0.34412074,-3.0
2025-06-05 18:12:14.685,0.04316757,0.00040246145,-0.02830787,-0.029112,-0.026692523,-0.034523845,0.0,0.0,0.0,0.0,-0.32185447,0.54405063,-0.301598,0.20736618,1.0086949,-0.44825113,0.2388585,-0.3333568,-0.5152091,-0.23494883,0.15254915,0.075229265,0.0036392228,0.051005114,-0.018756319,-0.039556064,-0.059281856,-0.07212256,0.034211192,0.032729797,-0.046596862,0.021805832,-0.049614478,0.043248523,-3.0,1.6009276,-3.0,3.0,3.0,-3.0,3.0,-1.0306002,-3.0,-3.0,-0.34412074,-3.0,-3.0,1.9563596,-3.0,3.0,2.7370229,-3.0,3.0,-0.94155127,-3.0,-3.0,-0.06631441,-3.0
2025-06-05 18:12:14.707,0.027597683,-0.052373797,0.07042959,-0.034739334,-0.02519675,0.040139914,0.0,0.0,0.0,0.0,-0.32806775,0.5443316,-0.30209383,0.20477663,0.9953786,-0.4303665,0.24487446,-0.3301773,-0.5130852,-0.2406402,0.13728556,0.07386056,-0.06379181,0.032073267,0.055028927,0.043246288,-0.052113183,0.06694529,-0.0075376993,0.04756766,-0.0530574,0.037499987,-0.049599126,-0.011634159,-3.0,1.9563596,-3.0,3.0,2.7370229,-3.0,3.0,-0.94155127,-3.0,-3.0,-0.06631441,-3.0,-3.0,1.3051974,-3.0,3.0,3.0,-3.0,3.0,-1.0779456,-3.0,-3.0,-0.11818672,-3.0
2025-06-05 18:12:14.725,0.030614005,0.030939283,0.026299285,0.028707972,-0.023428664,0.01326607,0.0,0.0,0.0,0.0,-0.31919324,0.53909177,-0.29037488,0.19665578,1.0034964,-0.43054593,0.23570448,-0.31829664,-0.516558,-0.24448274,0.14524345,0.07951167,-0.036271654,0.024483088,0.044794716,-0.024086915,0.030427583,0.005759919,-0.013147412,-0.07465439,-0.035541054,0.026551278,-0.03584784,-0.015628383,-3.0,1.3051974,-3.0,3.0,3.0,-3.0,3.0,-1.0779456,-3.0,-3.0,-0.11818672,-3.0,-3.0,1.6867032,-3.0,3.0,3.0,-3.0,3.0,-0.8646197,-3.0,-3.0,-0.08241887,-3.0
2025-06-05 18:12:14.746,-0.050179433,0.017335052,-0.0051530725,0.040490344,-0.06613977,-0.04446248,0.0,0.0,0.0,0.0,-0.3227386,0.5258302,-0.29112577,0.19140968,0.99660856,-0.43444902,0.24390784,-0.33449948,-0.5329054,-0.24310187,0.14254051,0.07781069,-0.038322605,0.014521751,0.05891138,0.054940626,-0.03997985,-0.054369215,0.0037317136,0.00049775746,-0.017824717,-0.029766133,-0.062561445,0.04335859,-3.0,1.6867032,-3.0,3.0,3.0,-3.0,3.0,-0.8646197,-3.0,-3.0,-0.08241887,-3.0,-3.0,1.8811386,-3.0,3.0,3.0,-3.0,3.0,-0.9510752,-3.0,-3.0,-0.24640961,-3.0
2025-06-05 18:12:14.766,-0.04414828,9.050663e-05,-0.019999105,-0.014491468,-0.09540269,0.019262811,0.0,0.0,0.0,0.0,-0.3172755,0.54576325,-0.29318526,0.2052805,1.0009542,-0.43639883,0.24627161,-0.3221138,-0.5244255,-0.2395673,0.1347162,0.07376493,0.034388233,-0.028999686,-0.07337759,-0.06624668,-0.009145676,0.070710406,-0.003961875,0.009721746,0.0654935,0.027670834,-0.005620926,-0.019914865,-3.0,1.8811386,-3.0,3.0,3.0,-3.0,3.0,-0.9510752,-3.0,-3.0,-0.24640961,-3.0,-3.0,1.9998459,-3.0,3.0,3.0,-3.0,3.0,-0.96924704,-3.0,-3.0,-0.22925414,-3.0
2025-06-05 18:12:14.786,0.027280867,0.030891659,0.032068603,0.021601498,-0.059580985,0.0023025936,0.0,0.0,0.0,0.0,-0.32310024,0.5316348,-0.2884566,0.19844797,1.0073589,-0.437083,0.24245991,-0.3224254,-0.5318358,-0.23223568,0.1516733,0.06571749,-0.01743574,-0.0044662086,0.022051439,-0.023938596,-0.047313835,0.048198555,-0.07783761,0.020625744,0.032810703,-0.06355054,-0.05556365,-0.0035783916,-3.0,1.9998459,-3.0,3.0,3.0,-3.0,3.0,-0.96924704,-3.0,-3.0,-0.22925414,-3.0,-3.0,1.7113976,-3.0,3.0,3.0,-3.0,3.0,-1.090003,-3.0,-3.0,-0.25620484,-3.0
2025-06-05 18:12:14.807,0.018912325,0.058161862,0.048021603,0.008275475,-0.031696364,0.03386661,0.0,0.0,0.0,0.0,-0.32703045,0.53061104,-0.30501842,0.20293203,1.0098524,-0.446339,0.24018686,-0.3209247,-0.5338344,-0.22921856,0.13587002,0.083147265,0.0580438,-0.027999533,-0.044521987,0.038588926,0.013009949,0.058634385,-0.043724295,-0.05675133,-0.01329562,0.03007661,0.028623516,0.011181548,-3.0,1.7113976,-3.0,3.0,3.0,-3.0,3.0,-1.090003,-3.0,-3.0,-0.25620484,-3.0,-3.0,1.429132,-3.0,3.0,3.0,-3.0,3.0,-1.031082,-3.0,-3.0,-0.18968959,-3.0
2025-06-05 18:12:14.826,0.029106433,0.015800275,0.011148295,-0.02381755,-0.10217447,0.011073134,0.0,0.0,0.0,0.0,-0.31451434,0.5372698,-0.2958254,0.20837162,1.0001489,-0.43897387,0.23322563,-0.3340162,-0.5149824,-0.24903855,0.13119349,0.0826188,0.044783384,-0.076863565,-0.054164223,-0.008179281,-0.013028975,0.028483633,0.056582097,-0.028525801,-0.041103285,-0.0767371,-0.04836999,0.059298,-3.0,1.429132,-3.0,3.0,3.0,-3.0,3.0,-1.031082,-3.0,-3.0,-0.18968959,-3.0,-3.0,1.8244541,-3.0,3.0,3.0,-3.0,3.0,-1.0378875,-3.0,-3.0,-0.1521417,-3.0
2025-06-05 18:12:14.846,0.030371753,0.031683244,2.0191406e-05,-0.005735447,-0.058689453,0.010692384,0.0,0.0,0.0,0.0,-0.3268772,0.54642797,-0.30733392,0.20332533,0.99925905,-0.4384259,0.23627143,-0.327636,-0.52225363,-0.2457742,0.14376129,0.08458068,0.03516702,0.075009316,0.0009569177,0.065455765,0.0069562537,-0.046074223,0.02029939,0.05908126,0.038557727,0.04427582,-0.06882766,0.031164117,-3.0,1.8244541,-3.0,3.0,3.0,-3.0,3.0,-1.0378875,-3.0,-3.0,-0.1521417,-3.0,-3.0,1.7121102,-3.0,3.0,2.987156,-3.0,3.0,-1.0156361,-3.0,-3.0,-0.10893602,-3.0
2025-06-05 18:12:14.866,0.011528532,0.002655939,-0.00027430625,-0.028790994,-0.08695245,0.032809027,0.0,0.0,0.0,0.0,-0.32201776,0.54442656,-0.30210593,0.1935351,1.007893,-0.4391524,0.23602179,-0.32496428,-0.52043027,-0.23340522,0.14610445,0.08475994,0.020670364,0.055900455,0.01849334,-0.010605691,0.023787508,-0.02994995,-0.04204086,0.05784339,0.019002192,-0.01820981,0.068573795,-0.074413605,-3.0,1.7121102,-3.0,3.0,2.987156,-3.0,3.0,-1.0156361,-3.0,-3.0,-0.10893602,-3.0,-3.0,1.7309672,-3.0,3.0,3.0,-3.0,3.0,-1.0227464,-3.0,-3.0,-0.13200708,-3.0
2025-06-05 18:12:14.886,-0.0021564574,0.0019674255,0.014568246,-0.028213616,-0.049193528,-0.04867583,0.0,0.0,0.0,0.0,-0.3273404,0.5314511,-0.3047977,0.20096397,1.0147662,-0.4375792,0.24353874,-0.32269424,-0.52638906,-0.23548183,0.1394967,0.07317946,0.03713719,0.07349527,-0.020104297,-0.052757494,-0.0039028611,-0.016572746,0.048629697,-0.064364314,-0.040368836,-0.034909397,0.05476761,-0.07382952,-3.0,1.7309672,-3.0,3.0,3.0,-3.0,3.0,-1.0227464,-3.0,-3.0,-0.13200708,-3.0,-3.0,1.5123084,-3.0,3.0,3.0,-3.0,3.0,-0.9683297,-3.0,-3.0,-0.056988306,-3.0
2025-06-05 18:12:14.907,0.016522238,-0.028284814,0.01461546,-0.03874642,-0.058172904,0.034457248,0.0,0.0,0.0,0.0,-0.32526237,0.5328164,-0.30555296,0.19767825,1.0089285,-0.4506272,0.23413758,-0.3356906,-0.5179943,-0.23205765,0.15005451,0.0701438,0.044514555,0.007831854,0.040299077,0.041720882,-0.02913963,-0.062343698,-0.0011902109,-0.007736788,0.07131813,0.022269657,0.024212584,-0.017188592,-3.0,1.5123084,-3.0,3.0,3.0,-3.0,3.0,-0.9683297,-3.0,-3.0,-0.056988306,-3.0,-3.0,1.6917202,-3.0,3.0,3.0,-3.0,3.0,-0.96177274,-3.0,-3.0,-0.22641183,-3.0
2025-06-05 18:12:14.927,0.017188963,-0.03640366,0.031251308,0.01331288,-0.05400816,0.03548345,0.0,0.0,0.0,0.0,-0.3236752,0.54880285,-0.3082178,0.20120561,1.0129826,-0.44892648,0.23718417,-0.33483574,-0.5245648,-0.23407358,0.14055514,0.07661109,0.04431695,0.07354662,0.067644134,-0.0616526,0.055579994,0.026837124,0.07043836,0.06969,-0.02481891,0.03127909,0.019642496,-0.025252216,-3.0,1.6917202,-3.0,3.0,3.0,-3.0,3.0,-0.96177274,-3.0,-3.0,-0.22641183,-3.0,-3.0,1.499669,-3.0,3.0,3.0,-3.0,3.0,-1.0129946,-3.0,-3.0,-0.11874396,-3.0
2025-06-05 18:12:14.946,0.009540568,-0.004519615,-0.03895381,-0.0027585474,-0.06826836,-0.012749079,0.0,0.0,0.0,0.0,-0.32607174,0.5389997,-0.2931077,0.20577562,1.0193272,-0.43842486,0.24185805,-0.33242506,-0.51146966,-0.23547633,0.15293932,0.06834883,-0.04031304,-0.017330855,0.07521336,0.06782071,-0.05992364,0.053404853,-0.0602365,0.032789037,0.05493445,-0.0029333453,0.030588014,0.050613616,-3.0,1.499669,-3.0,3.0,3.0,-3.0,3.0,-1.0129946,-3.0,-3.0,-0.11874396,-3.0,-3.0,2.1366494,-3.0,3.0,2.9702501,-3.0,3.0,-0.9921088,-3.0,-3.0,-0.37039602,-3.0
2025-06-05 18:12:14.967,0.015413725,-0.02577367,0.01649739,0.035896935,-0.037477683,-0.027820654,0.0,0.0,0.0,0.0,-0.321798,0.5379936,-0.2913416,0.20176072,1.0042329,-0.44408584,0.25117192,-0.3274566,-0.51282763,-0.2476175,0.15232678,0.07488503,0.00038610768,0.012626734,-0.012678243,-0.022288468,-0.06286425,-0.06032506,-0.050910495,-0.035844643,-0.03870916,0.042026997,-0.072301805,0.04547253,-3.0,2.1366494,-3.0,3.0,2.9702501,-3.0,3.0,-0.9921088,-3.0,-3.0,-0.37039602,-3.0,-3.0,1.6852843,-3.0,3.0,3.0,-3.0,3.0,-1.0452148,-3.0,-3.0,-0.15262486,-3.0
2025-06-05 18:12:14.989,-0.033911884,-0.026437929,-0.035666987,0.03508313,-0.048259985,0.03506169,0.0,0.0,0.0,0.0,-0.32745978,0.5475076,-0.29584077,0.20928134,1.0185612,-0.4434137,0.23748997,-0.33171302,-0.5238899,-0.24493352,0.14254288,0.09063447,0.063601024,0.02389984,0.053652022,0.018547231,-0.011555171,0.056885507,-0.026004188,0.05832702,-0.04145221,0.03191509,0.054517325,-0.065702304,-3.0,1.6852843,-3.0,3.0,3.0,-3.0,3.0,-1.0452148,-3.0,-3.0,-0.15262486,-3.0,-3.0,2.0247538,-3.0,3.0,3.0,-3.0,3.0,-0.96111774,-3.0,-3.0,-0.23223002,-3.0
2025-06-05 18:12:15.007,0.007404554,-0.008015116,0.04462341,-0.028193204,-0.02936454,-0.044284645,0.0,0.0,0.0,0.0,-0.31857082,0.5451479,-0.31403577,0.20454618,1.0031284,-0.42819235,0.23582996,-0.33263636,-0.50623065,-0.23956504,0.15356323,0.07728263,0.026165538,0.048550583,-0.0005411085,0.051349778,0.051421724,0.015839938,-0.018606106,0.028775124,-0.030765705,0.0494396,0.059715867,0.030582644,-3.0,2.0247538,-3.0,3.0,3.0,-3.0,3.0,-0.96111774,-3.0,-3.0,-0.23223002,-3.0,-3.0,1.2960504,-3.0,3.0,3.0,-3.0,3.0,-1.1785924,-3.0,-3.0,-0.11373205,-3.0
2025-06-05 18:12:15.027,0.02676898,0.04045961,-0.051974263,-0.062099416,-0.04681202,-0.04727422,0.0,0.0,0.0,0.0,-0.32279667,0.55111367,-0.29666898,0.19853862,1.0062845,-0.44641587,0.23097831,-0.33992755,-0.52250314,-0.23955327,0.14198233,0.07768585,0.02087317,-0.051285386,-0.070879996,0.065714024,0.06254409,0.011750217,0.06290884,0.058257647,-0.052857053,-0.070998624,0.0065409066,0.05288183,-3.0,1.2960504,-3.0,3.0,3.0,-3.0,3.0,-1.1785924,-3.0,-3.0,-0.11373205,-3.0,-3.0,2.1045408,-3.0,3.0,2.8578238,-3.0,3.0,-0.92966753,-3.0,-3.0,-0.123518534,-3.0
2025-06-05 18:12:15.047,-0.03825662,0.013569334,0.014247296,0.03067991,-0.041290525,0.036501247,0.0,0.0,0.0,0.0,-0.3259523,0.5454241,-0.3044485,0.2056319,1.0052515,-0.44443682,0.23072357,-0.32800242,-0.50856763,-0.24775666,0.14308552,0.0749692,-0.009032993,0.04583295,-0.030077595,0.010320134,-0.052327223,0.05373255,0.019555984,0.020598339,-0.05393051,-0.07541935,-0.029482646,0.045720875,-3.0,2.1045408,-3.0,3.0,2.8578238,-3.0,3.0,-0.92966753,-3.0,-3.0,-0.123518534,-3.0,-3.0,1.5440624,-3.0,3.0,3.0,-3.0,3.0,-1.15235,-3.0,-3.0,-0.21851863,-3.0
2025-06-05 18:12:15.068,0.0214421,0.03429582,-0.030325912,-0.015738916,-0.07210576,0.03781223,0.0,0.0,0.0,0.0,-0.32747176,0.544117,-0.29716563,0.20058516,1.0169209,-0.4337992,0.22649434,-0.33641008,-0.5221261,-0.25101095,0.13444416,0.09274639,0.01963523,0.0153866215,-0.032456517,0.06523467,0.071398936,0.041987434,0.04226296,0.046605613,0.021387566,0.024676278,0.009784256,-0.007108082,-3.0,1.5440624,-3.0,3.0,3.0,-3.0,3.0,-1.15235,-3.0,-3.0,-0.21851863,-3.0,-3.0,1.9486487,-3.0,3.0,3.0,-3.0,3.0,-0.9537238,-3.0,-3.0,-0.10319341,-3.0
2025-06-05 18:12:15.090,-0.026877971,-0.039668012,-0.013552459,-0.019278076,-0.05580142,0.0071263127,0.0,0.0,0.0,0.0,-0.31556097,0.5464187,-0.30752954,0.20595716,1.0009552,-0.4363335,0.226342,-0.32625395,-0.52029693,-0.24553645,0.14541152,0.08058439,-0.012668233,0.041655377,0.05587649,0.043286867,-0.005000735,0.06353518,-0.07641345,-0.020451909,0.032754514,-0.03400182,0.076182485,0.067437746,-3.0,1.9486487,-3.0,3.0,3.0,-3.0,3.0,-0.9537238,-3.0,-3.0,-0.10319341,-3.0,-3.0,1.8064458,-3.0,3.0,3.0,-3.0,3.0,-1.0842514,-3.0,-3.0,-0.3764397,-3.0
2025-06-05 18:12:15.107,-0.030426161,-0.015589064,0.025955774,-0.04801541,-0.034059074,-0.009947619,0.0,0.0,0.0,0.0,-0.32701704,0.55790186,-0.31139466,0.20383504,1.0032879,-0.4368569,0.22823896,-0.3376455,-0.5162857,-0.24547356,0.14511651,0.09397805,-0.022417031,0.023650667,-0.024094552,-0.009140928,0.032468464,-0.02169303,0.0064768684,-0.05218554,0.07734629,-0.044214502,-0.074758686,-0.040683363,-3.0,1.8064458,-3.0,3.0,3.0,-3.0,3.0,-1.0842514,-3.0,-3.0,-0.3764397,-3.0,-3.0,1.7003827,-3.0,3.0,3.0,-3.0,3.0,-0.91553205,-3.0,-3.0,-0.12148405,-3.0
2025-06-05 18:12:15.129,-0.049885653,-0.028305696,0.02727913,-0.050478313,-0.025638854,0.0421748,0.0,0.0,0.0,0.0,-0.31761563,0.5556763,-0.30538672,0.20113201,1.0182679,-0.4475308,0.22712447,-0.32366827,-0.5136632,-0.2527096,0.13735011,0.082281634,-0.018809086,-0.059289716,0.04219785,-0.01984553,-0.0050694067,-0.06011037,-0.0270614,0.049891878,-0.018374592,0.073262654,0.0022912784,0.01585258,-3.0,1.7003827,-3.0,3.0,3.0,-3.0,3.0,-0.91553205,-3.0,-3.0,-0.12148405,-3.0,-3.0,1.7779152,-3.0,3.0,3.0,-3.0,3.0,-1.046166,-3.0,-3.0,-0.18321373,-3.0
2025-06-05 18:12:15.147,-0.022970889,-0.04503061,-0.04638093,-0.009875965,-0.030632926,-0.033446096,0.0,0.0,0.0,0.0,-0.3303887,0.54557806,-0.31708202,0.20744899,1.0016276,-0.4291892,0.23667736,-0.32030985,-0.50307745,-0.24735641,0.13569868,0.08364219,-0.019290144,-0.06675266,0.036189016,0.046713706,0.029159361,-0.019334393,0.042236578,-0.03829502,0.052965634,0.04790744,-0.06751393,-0.00033988032,-3.0,1.7779152,-3.0,3.0,3.0,-3.0,3.0,-1.046166,-3.0,-3.0,-0.18321373,-3.0,-3.0,2.2669582,-3.0,3.0,3.0,-3.0,3.0,-0.8253939,-3.0,-3.0,-0.21271862,-3.0
2025-06-05 18:12:15.167,0.0019317792,-0.071847916,0.0077028745,0.02461642,-0.06697548,0.008907393,0.0,0.0,0.0,0.0,-0.32037535,0.55337363,-0.30561882,0.20602754,1.0083846,-0.43725854,0.23644608,-0.32122883,-0.5209772,-0.23921286,0.13979957,0.089591675,-0.01596842,-0.026721083,-0.026710272,0.008146615,-0.064301334,-0.047796007,-0.069642745,0.004096856,0.008235099,-0.0033861003,0.082018785,-0.06631637,-3.0,2.2669582,-3.0,3.0,3.0,-3.0,3.0,-0.8253939,-3.0,-3.0,-0.21271862,-3.0,-3.0,1.7861904,-3.0,3.0,3.0,-3.0,3.0,-1.0980762,-3.0,-3.0,-0.26039732,-3.0
2025-06-05 18:12:15.189,0.038310245,0.032727774,0.054805122,-0.0347169,-0.049696483,0.046039432,0.0,0.0,0.0,0.0,-0.3162365,0.55867714,-0.31932658,0.20923835,1.0086491,-0.43883333,0.23647785,-0.31554258,-0.5159903,-0.25326353,0.157556,0.09443126,-0.025377715,0.0152275665,-0.037279505,-0.06453811,0.027652252,0.06292752,0.05064514,-0.04707546,0.052312743,-0.052162938,0.030931357,-0.027668433,-3.0,1.7861904,-3.0,3.0,3.0,-3.0,3.0,-1.0980762,-3.0,-3.0,-0.26039732,-3.0,-3.0,1.3521452,-3.0,3.0,3.0,-3.0,3.0,-1.0919995,-3.0,-3.0,-0.1543038,-3.0
