openverse-orca/OrcaGym/log/simulation_log_20250721_143007.csv
timestamp,sim_time,physics_step,control_step,imu_angle_roll,imu_angle_pitch,imu_angle_yaw,imu_angular_velocity_roll,imu_angular_velocity_pitch,imu_angular_velocity_yaw,imu_acc_x,imu_acc_y,imu_acc_z,fl_joint1_pos,fl_joint1_vel,fl_joint1_torque,fl_joint2_pos,fl_joint2_vel,fl_joint2_torque,fl_joint3_pos,fl_joint3_vel,fl_joint3_torque,fr_joint1_pos,fr_joint1_vel,fr_joint1_torque,fr_joint2_pos,fr_joint2_vel,fr_joint2_torque,fr_joint3_pos,fr_joint3_vel,fr_joint3_torque,hl_joint1_pos,hl_joint1_vel,hl_joint1_torque,hl_joint2_pos,hl_joint2_vel,hl_joint2_torque,hl_joint3_pos,hl_joint3_vel,hl_joint3_torque,hr_joint1_pos,hr_joint1_vel,hr_joint1_torque,hr_joint2_pos,hr_joint2_vel,hr_joint2_torque,hr_joint3_pos,hr_joint3_vel,hr_joint3_torque,fl_force_x,fl_force_y,fl_force_z,fr_force_x,fr_force_y,fr_force_z,hl_force_x,hl_force_y,hl_force_z,hr_force_x,hr_force_y,hr_force_z,fl_hip_action,fl_thigh_action,fl_calf_action,fr_hip_action,fr_thigh_action,fr_calf_action,hl_hip_action,hl_thigh_action,hl_calf_action,hr_hip_action,hr_thigh_action,hr_calf_action
2025-07-21 14:30:07.876,0.0,0,0,-0.047950864,-0.049996607,-0.043033972,-0.046799988,-0.03910558,0.011454394,1.793738,0.5906673,0.0,0.0,0.0038825618,0.007238743,-0.0011323909,-0.0011071949,-0.00502072,-0.0027955144,-0.0031719564,0.005392118,0.004007934,0.0056112325,0.008010556,0.003356594,-0.07027066,-0.03461933,0.020891497,0.07122331,-0.07166794,-0.06297912,0.07459694,0.06128667,-0.02050825,0.018694205,0.07435495,-0.044924274,0.0,0.0,0.0,0.0,0.0,0.0,0.0,0.0,0.0,0.0,0.0,0.0,2.0,2.0,-2.0,-2.0,0.7261027,-2.0,2.0,-1.1259501,-2.0,-2.0,-0.17828414,-2.0
2025-07-21 14:30:07.892,0.02,20,1,-0.014003622,-0.057293747,0.039256297,-0.003997666,0.021445574,-0.010603291,0.0,0.0,0.0,0.0,-0.0025255675,0.060811095,-0.058271743,-0.017896255,0.027115498,-0.04852602,0.021119697,-0.027553093,-0.033534255,-0.016688619,-0.0033383158,-0.039199885,0.08584093,0.18795878,-0.16535272,-0.04525491,0.026421357,-0.13990153,0.09229053,-0.05376316,-0.2056498,-0.026222236,0.05514997,-0.15909107,2.0,2.0,-2.0,-2.0,0.7261027,-2.0,2.0,-1.1259501,-2.0,-2.0,-0.17828414,-2.0,2.0,-1.0479741,-2.0,-2.0,2.0,1.6363864,2.0,-2.0,-2.0,-2.0,-2.0,-2.0
2025-07-21 14:30:07.909,0.04,40,2,0.053312793,-0.12206024,-0.000506748,0.027500942,-0.03585583,0.003819921,0.0,0.0,0.0,-3.826826e-05,0.0149397,0.07324449,-0.076857686,-0.031204911,0.08581324,-0.045937188,0.023167662,-0.10327471,-0.084384866,-0.02947847,-0.0486839,-0.066886686,0.05539566,0.0019754816,0.0072800494,-0.00992335,0.2735652,0.12378538,0.06841857,-0.17916915,0.06677075,0.01640302,-0.22208036,0.009731407,2.0,-1.0479741,-2.0,-2.0,2.0,1.6363864,2.0,-2.0,-2.0,-2.0,-2.0,-2.0,2.0,2.0,-2.0,-2.0,2.0,-2.0,2.0,-1.5227981,-2.0,-2.0,-0.1800271,-2.0
2025-07-21 14:30:07.926,0.06,60,3,0.0146459965,0.009950822,-0.038054895,0.0034075985,0.0019009179,0.041322507,0.0,0.0,0.0,0.00033452097,0.013188511,0.055259895,-0.052398924,-0.052792,0.14157498,-0.019951029,0.04596629,-0.14042641,-0.05621218,-0.018840399,-0.09480237,-0.02758281,0.020351466,-0.06500184,-0.0026195683,0.02766032,0.07669774,0.06185321,-0.03660343,-0.06844404,0.1434051,0.06954131,-0.11371737,0.06932417,2.0,2.0,-2.0,-2.0,2.0,-2.0,2.0,-1.5227981,-2.0,-2.0,-0.1800271,-2.0,2.0,-0.5709162,-2.0,-2.0,2.0,-2.0,2.0,-1.2828355,-2.0,-2.0,-2.0,-2.0
2025-07-21 14:30:07.946,0.08,80,4,0.018743565,-0.06941156,-0.050252687,-0.031246554,-0.013661743,0.006726507,0.0,0.0,0.0,0.0012188014,0.023587374,0.044713464,-0.036343608,-0.046566118,0.15258731,-0.011143197,0.056658056,-0.17904386,-0.008068442,-0.016842606,-0.12153093,-0.0040048226,-0.02603824,-0.061787266,0.11256205,-0.07411896,0.035385095,-0.053871,0.033059724,-0.042882077,0.09325862,0.07356977,-0.045966513,0.15650813,2.0,-0.5709162,-2.0,-2.0,2.0,-2.0,2.0,-1.2828355,-2.0,-2.0,-2.0,-2.0,2.0,1.4555959,-2.0,-2.0,2.0,-2.0,2.0,-2.0,-2.0,-2.0,-1.4891171,-2.0
2025-07-21 14:30:07.966,0.1,100,5,-0.045516465,-0.101281896,-0.07078281,0.036427516,-0.07521121,0.041934285,0.0,0.0,0.0,0.002307194,0.009113045,0.028324947,-0.0399679,-0.043520767,0.16102138,-0.008066673,0.049412854,-0.20392542,0.018540053,-0.025086496,-0.1353764,0.03873401,0.054923806,0.013980605,-0.035086405,-0.014851078,0.022298265,-0.03760476,0.06707739,-0.07752966,0.06153709,0.012840671,-0.08969795,0.040027775,2.0,1.4555959,-2.0,-2.0,2.0,-2.0,2.0,-2.0,-2.0,-2.0,-1.4891171,-2.0,2.0,1.1478385,-2.0,-2.0,2.0,-2.0,2.0,-1.4965913,-2.0,-2.0,-1.8007493,-2.0
2025-07-21 14:30:07.992,0.12000000000000001,120,6,-0.009517295,-0.13937956,-0.010304657,0.055447504,0.0030442486,0.032626126,0.0,0.0,0.0,0.0032351776,0.022439247,0.021531988,-0.034066238,-0.046339042,0.15964375,-0.03503043,0.04530302,-0.22895442,0.03418828,-0.008582485,-0.16211523,0.06059492,0.036365535,-0.0023379477,0.01198366,0.023935502,0.011524572,0.04024771,-0.04767947,-0.050642014,0.04972667,0.042882897,-0.047836646,0.023218287,2.0,1.1478385,-2.0,-2.0,2.0,-2.0,2.0,-1.4965913,-2.0,-2.0,-1.8007493,-2.0,2.0,0.8297537,-2.0,-2.0,1.8908716,-2.0,2.0,-1.92375,-2.0,-2.0,-1.5100805,-2.0
2025-07-21 14:30:08.009,0.14,140,7,-0.03318059,-0.12976824,-0.021554697,0.010794505,-0.025909765,-0.03434318,0.0,0.0,0.0,0.0037863401,0.019513894,0.017085178,-0.054857954,-0.051764075,0.1775492,-0.05061177,0.04730614,-0.24454144,0.048158947,-0.0088949585,-0.17918728,0.061340254,0.03265749,-0.036930952,0.030349774,-0.06870638,-0.002767759,-0.08744454,-0.065154076,0.033268474,-0.02003205,0.026188007,-0.087609656,0.0072024576,2.0,0.8297537,-2.0,-2.0,1.8908716,-2.0,2.0,-1.92375,-2.0,-2.0,-1.5100805,-2.0,2.0,1.1064507,-2.0,-2.0,2.0,-2.0,2.0,-1.5638335,-2.0,-2.0,-1.7870817,-2.0
2025-07-21 14:30:08.026,0.16,160,8,0.020173322,-0.0798362,-0.025121212,0.037835304,-0.10517851,-0.025651485,0.0,0.0,0.0,0.0041090916,0.012630225,0.03299642,-0.06552179,-0.05775174,0.18019855,-0.05827944,0.04669378,-0.26438227,0.0498001,-0.018771991,-0.17734887,0.061284933,-0.051239025,-0.027959548,-0.028449092,0.056372397,0.0076342947,0.007095401,-0.027442187,0.01506358,-0.050694484,0.01801345,0.0153883835,0.059008423,2.0,1.1064507,-2.0,-2.0,2.0,-2.0,2.0,-1.5638335,-2.0,-2.0,-1.7870817,-2.0,2.0,0.93944,-2.0,-2.0,2.0,-2.0,2.0,-1.6630083,-2.0,-2.0,-1.7422109,-2.0
2025-07-21 14:30:08.046,0.18,180,9,0.012759942,-0.114471,0.024806377,-0.03458336,-0.10438059,-0.030907828,0.0,0.0,0.0,0.00420089,0.012693143,0.027211066,-0.08608267,-0.048978083,0.19112276,-0.077221915,0.050514754,-0.26472443,0.049679127,-0.018797629,-0.1889144,0.07279176,-0.054115497,0.03552514,-0.074099384,0.021013053,0.051587477,-0.028192513,0.016697183,-0.06836128,-0.0010300364,-0.057227224,0.026318688,-0.019563772,2.0,0.93944,-2.0,-2.0,2.0,-2.0,2.0,-1.6630083,-2.0,-2.0,-1.7422109,-2.0,2.0,1.1559395,-2.0,-2.0,2.0,-2.0,2.0,-1.8225398,-2.0,-2.0,-1.7764108,-2.0
2025-07-21 14:30:08.066,0.19999999999999998,200,10,0.029242152,-0.08970879,-0.020688262,0.031091942,-0.12853864,-0.024615623,0.0,0.0,0.0,0.0039596125,0.010524658,0.054818552,-0.095134996,-0.05612736,0.22189331,-0.095042385,0.04756014,-0.27280793,0.056922324,-0.00843803,-0.1928866,0.082437314,-0.046636973,0.042328514,-0.03229866,-0.011182649,0.024417512,-0.07315261,0.036384314,0.04560149,-0.0333239,-0.045996275,0.011283473,0.036645923,2.0,1.1559395,-2.0,-2.0,2.0,-2.0,2.0,-1.8225398,-2.0,-2.0,-1.7764108,-2.0,2.0,1.1278348,-2.0,-2.0,2.0,-2.0,2.0,-1.4810625,-2.0,-2.0,-1.7204895,-2.0
2025-07-21 14:30:08.092,0.21999999999999997,220,11,0.0071105566,-0.07284913,0.069186985,-0.0049054106,-0.12625396,-0.041556545,0.0,0.0,0.0,0.0035560501,0.010817197,0.06258102,-0.1193576,-0.03982154,0.22129051,-0.11811134,0.050431818,-0.2643262,0.059709173,-0.023581188,-0.20059963,0.086529315,-0.058204055,0.031627413,-0.006452231,-0.015945645,0.110318154,-0.06271437,0.06804311,-0.0032101711,0.012315404,-0.021223817,-0.044165716,0.009284898,2.0,1.1278348,-2.0,-2.0,2.0,-2.0,2.0,-1.4810625,-2.0,-2.0,-1.7204895,-2.0,2.0,0.8648989,-2.0,-2.0,2.0,-2.0,2.0,-1.5855682,-2.0,-2.0,-1.735786,-2.0
2025-07-21 14:30:08.109,0.23999999999999996,240,12,0.067657754,-0.047009014,0.04812826,-0.029133828,-0.12580499,-0.005739417,0.0,0.0,0.0,0.002946734,0.028284783,0.06250736,-0.13198249,-0.04429597,0.231785,-0.12128269,0.050379038,-0.25315222,0.05847346,-0.026697183,-0.20239672,0.092796735,0.075824164,0.06792311,-0.056574244,0.020018071,0.086314656,-0.07455237,-0.004488988,-0.042818133,-0.028334806,0.0424565,-0.078152485,0.06888317,2.0,0.8648989,-2.0,-2.0,2.0,-2.0,2.0,-1.5855682,-2.0,-2.0,-1.735786,-2.0,2.0,1.2565356,-2.0,-2.0,2.0,-2.0,2.0,-1.6882625,-2.0,-2.0,-1.7769203,-2.0
2025-07-21 14:30:08.127,0.25999999999999995,260,13,0.01664668,-0.022103116,0.032884073,0.04858144,-0.094599,0.00052438816,0.0,0.0,0.0,0.0022219731,0.02622429,0.08687118,-0.13230394,-0.041012462,0.2541704,-0.12274245,0.04710616,-0.25104502,0.064083725,-0.028065493,-0.2093274,0.08138817,0.0037094508,-0.026384128,-0.066049844,0.02500849,0.009422247,0.0020557158,0.03945144,-0.05677093,-0.031191852,0.04333964,-0.08039373,-0.05366755,2.0,1.2565356,-2.0,-2.0,2.0,-2.0,2.0,-1.6882625,-2.0,-2.0,-1.7769203,-2.0,2.0,0.8404969,-2.0,-2.0,2.0,-2.0,2.0,-1.3152578,-2.0,-2.0,-1.5151169,-2.0
2025-07-21 14:30:08.147,0.27999999999999997,280,14,0.07437013,0.043081608,-0.015797239,0.030292653,-0.12786312,-0.0062130257,0.0,0.0,0.0,0.0014786726,0.030818297,0.096576415,-0.13531369,-0.035884228,0.27559876,-0.14456443,0.037102573,-0.23246849,0.056386035,-0.031740203,-0.19750477,0.09767851,0.05515449,-0.015681963,-0.044304565,-0.067182995,0.055789568,-0.06999608,0.0595416,0.018225593,0.040034153,0.008985329,-0.05755345,0.06884702,2.0,0.8404969,-2.0,-2.0,2.0,-2.0,2.0,-1.3152578,-2.0,-2.0,-1.5151169,-2.0,2.0,1.3693784,-2.0,-2.0,2.0,-2.0,2.0,-1.9659226,-2.0,-2.0,-1.7945123,-2.0
2025-07-21 14:30:08.167,0.3,300,15,0.064570084,-0.06537117,0.04438174,0.062490243,-0.089883685,-0.010880519,0.0,0.0,0.0,0.0007710723,0.025733655,0.10107869,-0.1437019,-0.041891616,0.28115126,-0.14610736,0.046743363,-0.24253999,0.06433522,-0.027861394,-0.19399506,0.08959732,0.016722182,-0.03952941,-0.074758,-0.0170447,0.032387685,-0.0451209,-0.018768134,0.020762732,0.0037813636,-0.003723271,-0.030400408,-0.012505418,2.0,1.3693784,-2.0,-2.0,2.0,-2.0,2.0,-1.9659226,-2.0,-2.0,-1.7945123,-2.0,2.0,0.7964307,-2.0,-2.0,2.0,-2.0,2.0,-1.0013101,-2.0,-2.0,-1.4435744,-2.0
2025-07-21 14:30:08.192,0.32,320,16,0.03942656,0.058927953,0.029834358,0.0026770409,-0.09868676,0.04441867,0.0,0.0,0.0,0.00021338274,0.021252533,0.11323248,-0.13129759,-0.034531895,0.29558077,-0.15000398,0.035184063,-0.22004968,0.067186475,-0.027170373,-0.20526887,0.110119045,-0.05564594,0.009800359,0.04294937,0.043821078,0.020287547,0.042138554,0.051155243,0.06227316,-0.011988046,-0.048512835,-0.04065592,0.014689524,2.0,0.7964307,-2.0,-2.0,2.0,-2.0,2.0,-1.0013101,-2.0,-2.0,-1.4435744,-2.0,2.0,0.8053194,-2.0,-2.0,2.0,-2.0,2.0,-2.0,-2.0,-2.0,-1.5944843,-2.0
2025-07-21 14:30:08.213,0.34,340,17,0.04560336,-0.039293274,0.008487979,0.01817149,-0.04303808,0.03847396,0.0,0.0,0.0,-0.00028409573,0.025859846,0.11617661,-0.13707182,-0.03703714,0.29421332,-0.13541134,0.046263408,-0.22531825,0.06187915,-0.028222144,-0.18665923,0.10358929,-0.054289445,-0.0076023005,-0.028591696,-0.047094695,0.018799078,0.07113609,0.03761782,0.014101171,-0.056283846,0.022051128,-0.020113222,0.03521023,2.0,0.8053194,-2.0,-2.0,2.0,-2.0,2.0,-2.0,-2.0,-2.0,-1.5944843,-2.0,2.0,1.177756,-2.0,-2.0,2.0,-2.0,2.0,-1.255536,-2.0,-2.0,-1.5857798,-2.0
2025-07-21 14:30:08.234,0.36000000000000004,360,18,0.07302528,-0.014768137,0.0019416518,0.042777937,-0.105875015,0.01289956,0.0,0.0,0.0,-0.0004655361,0.016602583,0.10474021,-0.122125655,-0.037297726,0.29858795,-0.13659996,0.044732884,-0.22613288,0.06706661,-0.040260322,-0.19076933,0.112029664,0.019162282,0.06224384,-0.02294116,-0.05285595,0.055838354,0.057889085,-0.063953,0.051463846,-0.06302453,0.03365423,0.036541652,0.06120913,2.0,1.177756,-2.0,-2.0,2.0,-2.0,2.0,-1.255536,-2.0,-2.0,-1.5857798,-2.0,2.0,0.86457574,-2.0,-2.0,2.0,-2.0,2.0,-1.8204402,-2.0,-2.0,-1.6932352,-2.0
2025-07-21 14:30:08.265,0.38000000000000006,380,19,0.042564932,0.019720126,-0.030548913,0.0077486183,-0.08805989,0.03205657,0.0,0.0,0.0,-0.0004994918,0.03085816,0.10756029,-0.13580371,-0.03458417,0.31178433,-0.1390776,0.040036276,-0.21529809,0.07607557,-0.029256744,-0.19208814,0.12340033,-0.021282285,-0.05494339,-0.0020840063,-0.063729726,0.063288055,0.00792396,0.0634735,-0.042460635,-0.036393356,-0.04573024,-0.047019795,0.06401598,2.0,0.86457574,-2.0,-2.0,2.0,-2.0,2.0,-1.8204402,-2.0,-2.0,-1.6932352,-2.0,2.0,1.4558553,-2.0,-2.0,2.0,-2.0,2.0,-1.459031,-2.0,-2.0,-1.6350043,-2.0
2025-07-21 14:30:08.296,0.4000000000000001,400,20,0.074209765,0.0038538224,-0.005098137,0.08115266,-0.0768796,0.04041678,0.0,0.0,0.0,-0.00045786414,0.01552712,0.12291919,-0.13420212,-0.043224744,0.3146333,-0.12154823,0.043488737,-0.21987008,0.06413282,-0.0394672,-0.19256346,0.13368762,-0.055129435,-0.01336268,0.010201956,-0.05387483,0.08602378,-0.04341623,-0.06509011,-0.05911423,0.0051377276,-0.029304065,0.024411522,-0.029893398,2.0,1.4558553,-2.0,-2.0,2.0,-2.0,2.0,-1.459031,-2.0,-2.0,-1.6350043,-2.0,2.0,0.8475609,-2.0,-2.0,2.0,-2.0,2.0,-1.578964,-2.0,-2.0,-1.5556967,-2.0
2025-07-21 14:30:08.317,0.4200000000000001,420,21,-0.0064399266,0.05110986,-0.05027086,0.08090798,-0.054107327,-0.040013075,0.0,0.0,0.0,-0.00039008222,0.028715592,0.11882786,-0.11636556,-0.041840155,0.32629734,-0.12807071,0.03791182,-0.21858843,0.07733522,-0.029577762,-0.1802339,0.13703236,-0.07270281,0.004789425,0.059050873,-0.06355061,-0.00076765864,0.013857053,0.07067649,0.033668596,0.015488131,-0.07278353,0.021092383,0.010139641,2.0,0.8475609,-2.0,-2.0,2.0,-2.0,2.0,-1.578964,-2.0,-2.0,-1.5556967,-2.0,2.0,1.1468331,-2.0,-2.0,2.0,-2.0,2.0,-1.7846876,-2.0,-2.0,-1.6005605,-2.0
2025-07-21 14:30:08.347,0.4400000000000001,440,22,-0.02998055,-0.055976253,0.023245197,0.022570064,-0.101627365,-0.03698819,0.0,0.0,0.0,-0.00027067683,0.017128337,0.12347428,-0.12384879,-0.043432463,0.33576593,-0.12456715,0.037139077,-0.21830113,0.070585154,-0.027266167,-0.19323984,0.14835691,0.045817964,0.018450009,0.011560059,-0.07907618,0.04965886,-0.054948945,-0.0686848,0.008004101,0.004541756,0.064340554,-0.032888122,-0.054253973,2.0,1.1468331,-2.0,-2.0,2.0,-2.0,2.0,-1.7846876,-2.0,-2.0,-1.6005605,-2.0,2.0,0.84370196,-2.0,-2.0,2.0,-2.0,2.0,-1.2302923,-2.0,-2.0,-1.6531298,-2.0
2025-07-21 14:30:08.373,0.46000000000000013,460,23,0.05237837,0.055033147,-0.06369572,0.036066283,-0.110461324,-0.042641003,0.0,0.0,0.0,5.9479375e-05,0.02688809,0.12843549,-0.12533651,-0.03469156,0.34140384,-0.12134241,0.039173614,-0.21265279,0.08608659,-0.038835432,-0.18848029,0.14349271,0.025426697,0.058686525,-0.040599428,-0.018230785,-0.040377773,-0.007480048,0.020889018,0.020432083,-0.015976097,-0.0009873799,-0.046063215,-0.036501404,2.0,0.84370196,-2.0,-2.0,2.0,-2.0,2.0,-1.2302923,-2.0,-2.0,-1.6531298,-2.0,2.0,1.275479,-2.0,-2.0,2.0,-2.0,2.0,-2.0,-2.0,-2.0,-1.5385525,-2.0
2025-07-21 14:30:08.393,0.48000000000000015,480,24,0.009887218,-0.029490776,-0.07283554,0.0015781882,-0.061817598,0.0016559113,0.0,0.0,0.0,0.00033589778,0.019550534,0.12392297,-0.1148357,-0.029513154,0.35687652,-0.11631966,0.033195645,-0.21781608,0.087078676,-0.023627719,-0.17939714,0.15992536,0.0030189757,-0.028105997,0.024652105,-0.047740597,0.059288852,0.04715011,0.043126885,0.0061034327,-0.017671889,-0.03574135,0.025452668,-0.04829986,2.0,1.275479,-2.0,-2.0,2.0,-2.0,2.0,-2.0,-2.0,-2.0,-1.5385525,-2.0,2.0,1.2493428,-2.0,-2.0,2.0,-2.0,2.0,-1.4136645,-2.0,-2.0,-1.60442,-2.0
2025-07-21 14:30:08.409,0.5000000000000001,500,25,0.039471753,0.0149276955,-0.014024914,0.03652995,-0.048753146,-0.011703869,0.0,0.0,0.0,0.0006960608,0.024895824,0.13778871,-0.12049813,-0.04889443,0.3617831,-0.12150309,0.047161024,-0.21122888,0.09266519,-0.036204763,-0.1904725,0.16178493,-0.0047804397,0.0015351307,-0.076048896,-0.071958005,-0.030155879,0.02907786,-0.038998965,-0.04003,-0.064601466,0.01838661,0.024371335,-0.059893478,2.0,1.2493428,-2.0,-2.0,2.0,-2.0,2.0,-1.4136645,-2.0,-2.0,-1.60442,-2.0,2.0,1.0302029,-2.0,-2.0,2.0,-2.0,2.0,-1.728088,-2.0,-2.0,-1.6842347,-2.0
2025-07-21 14:30:08.429,0.5200000000000001,520,26,-0.0060028196,0.036679197,0.004876451,0.019285385,-0.1218908,0.021424398,0.0,0.0,0.0,0.0010721483,0.022739083,0.1305289,-0.12839028,-0.04824335,0.357444,-0.1141828,0.03275131,-0.20695625,0.07546157,-0.03045751,-0.18934917,0.16789651,-0.0744154,-0.053205088,-0.0047809286,-0.0785447,0.012337406,0.01881049,0.04656204,0.014031429,0.029757753,-0.020560594,-0.033393808,0.06654032,2.0,1.0302029,-2.0,-2.0,2.0,-2.0,2.0,-1.728088,-2.0,-2.0,-1.6842347,-2.0,2.0,1.1454104,-2.0,-2.0,2.0,-2.0,2.0,-1.3692691,-2.0,-2.0,-1.784092,-2.0
2025-07-21 14:30:08.449,0.5400000000000001,540,27,0.04791596,0.03479078,-0.015295326,0.05307878,-0.046809897,0.030091116,0.0,0.0,0.0,0.0013786636,0.013625774,0.13918935,-0.12839153,-0.044521417,0.36948034,-0.10573341,0.043536138,-0.22316591,0.08634354,-0.026849363,-0.19255213,0.16106474,-0.01230551,-0.02970214,-0.048217453,0.070369184,-0.023020962,-0.040458124,-0.042844534,0.03061876,-0.0016097827,0.024475226,0.039960407,0.07403696,2.0,1.1454104,-2.0,-2.0,2.0,-2.0,2.0,-1.3692691,-2.0,-2.0,-1.784092,-2.0,2.0,1.1049719,-2.0,-2.0,2.0,-2.0,2.0,-1.7327423,-2.0,-2.0,-1.5658123,-2.0
2025-07-21 14:30:08.469,0.5600000000000002,560,28,0.03665903,0.034806836,-0.0014469466,0.018052762,-0.08228663,0.0010541673,0.0,0.0,0.0,0.001514738,0.023002971,0.1264926,-0.1279739,-0.037386384,0.36279926,-0.105370544,0.044833276,-0.22430691,0.08689264,-0.020306274,-0.19959001,0.16321151,-0.03641646,0.044568967,0.06320398,-0.018130988,-0.032935508,-0.040245544,0.053239796,-0.06089797,-0.031241411,-0.07199277,-0.000560368,-0.0030712658,2.0,1.1049719,-2.0,-2.0,2.0,-2.0,2.0,-1.7327423,-2.0,-2.0,-1.5658123,-2.0,2.0,0.9905551,-2.0,-2.0,2.0,-2.0,2.0,-1.3977984,-2.0,-2.0,-1.6408808,-2.0
2025-07-21 14:30:08.494,0.5800000000000002,580,29,0.07383408,-0.01602316,-0.017355265,0.061304726,-0.08679008,-0.027778922,0.0,0.0,0.0,0.0016165125,0.006519049,0.1228996,-0.124444954,-0.04592813,0.3634958,-0.099395305,0.051896203,-0.21084696,0.0849867,-0.031304307,-0.19869839,0.16384642,-0.07303012,-0.053037733,0.018527271,-0.011421217,-0.010886472,0.0431458,-0.045296095,-0.046357278,-0.03167352,-0.0087748505,-0.05534372,0.03285906,2.0,0.9905551,-2.0,-2.0,2.0,-2.0,2.0,-1.3977984,-2.0,-2.0,-1.6408808,-2.0,2.0,0.94693565,-2.0,-2.0,2.0,-2.0,2.0,-1.5803887,-2.0,-2.0,-1.6250988,-2.0
2025-07-21 14:30:08.509,0.6000000000000002,600,30,0.031673532,-0.004384786,-0.040777884,0.037241075,-0.11222643,0.023377504,0.0,0.0,0.0,0.0017523682,0.012787091,0.13451953,-0.1269104,-0.041812655,0.36889502,-0.1109025,0.049852725,-0.20709898,0.06976858,-0.022482794,-0.20143813,0.16804501,0.05045472,-0.034510348,0.023976792,-0.022692678,-0.047392752,0.013023358,-0.003971065,-0.03620487,0.0071880673,0.0651442,-0.012663622,-0.028242378,2.0,0.94693565,-2.0,-2.0,2.0,-2.0,2.0,-1.5803887,-2.0,-2.0,-1.6250988,-2.0,2.0,1.1274351,-2.0,-2.0,2.0,-2.0,2.0,-1.5938925,-2.0,-2.0,-1.6252568,-2.0
2025-07-21 14:30:08.529,0.6200000000000002,620,31,0.005485354,-0.011916183,-0.05772522,0.07842523,-0.048286088,0.031387404,0.0,0.0,0.0,0.0018871393,0.019058058,0.1359769,-0.11963505,-0.051776506,0.36975718,-0.10192411,0.035439454,-0.2064514,0.07766216,-0.036982324,-0.19552568,0.16696356,0.024179593,0.04046545,0.030224435,-0.035566267,-0.05647233,-0.015071886,-0.04625098,-0.060260195,0.011226717,-0.024079189,-0.023218988,-0.008396887,2.0,1.1274351,-2.0,-2.0,2.0,-2.0,2.0,-1.5938925,-2.0,-2.0,-1.6252568,-2.0,2.0,1.067542,-2.0,-2.0,2.0,-2.0,2.0,-1.7291207,-2.0,-2.0,-1.4923853,-2.0
2025-07-21 14:30:08.554,0.6400000000000002,640,32,0.060226012,-0.006957248,-0.025049686,0.086685866,-0.08053363,-0.016302234,0.0,0.0,0.0,0.0020695059,0.0032275596,0.12916611,-0.1213364,-0.055453874,0.36390457,-0.097365186,0.045666456,-0.21349995,0.06876905,-0.030902525,-0.19691466,0.17456885,0.040897124,-0.012152782,0.02051776,-0.015486204,0.06943106,-0.0024089948,0.02939566,-0.019190397,0.021507023,-0.052760538,0.057409607,-0.058477037,2.0,1.067542,-2.0,-2.0,2.0,-2.0,2.0,-1.7291207,-2.0,-2.0,-1.4923853,-2.0,2.0,1.1287001,-2.0,-2.0,2.0,-2.0,2.0,-1.4813395,-2.0,-2.0,-1.6753528,-2.0
2025-07-21 14:30:08.576,0.6600000000000003,660,33,0.032619845,0.01702461,-0.054777298,0.02612416,-0.0993012,-0.043526158,0.0,0.0,0.0,0.0023906967,0.0031818086,0.12699948,-0.13742888,-0.05537903,0.38073826,-0.08837195,0.039965604,-0.21152757,0.0674189,-0.039508387,-0.19923641,0.17617597,0.015696557,-0.07089662,-0.039327294,-0.0077856346,0.048971403,-0.029548137,-0.0095242765,0.048884112,0.013156467,0.030101918,0.059851207,-0.0328692,2.0,1.1287001,-2.0,-2.0,2.0,-2.0,2.0,-1.4813395,-2.0,-2.0,-1.6753528,-2.0,2.0,1.2406777,-2.0,-2.0,2.0,-2.0,2.0,-1.7428707,-2.0,-2.0,-1.7611618,-2.0
2025-07-21 14:30:08.594,0.6800000000000003,680,34,0.07422923,-0.02132961,-0.062051665,0.032074932,-0.117536046,0.018743645,0.0,0.0,0.0,0.002704872,0.019389056,0.13816641,-0.12627839,-0.056675855,0.382384,-0.091270514,0.043136332,-0.21798491,0.06520336,-0.02605313,-0.19693947,0.18121782,-0.07592181,0.05774917,0.0077903224,-0.02658927,0.022767873,0.04998534,-0.03167266,0.013490386,-0.044939853,0.030445559,-0.011206479,0.062192015,2.0,1.2406777,-2.0,-2.0,2.0,-2.0,2.0,-1.7428707,-2.0,-2.0,-1.7611618,-2.0,2.0,1.1498343,-2.0,-2.0,2.0,-2.0,2.0,-1.45821,-2.0,-2.0,-1.551855,-2.0
2025-07-21 14:30:08.610,0.7000000000000003,700,35,0.017808495,0.06587385,-0.038716137,0.05648325,-0.03380621,0.034006823,0.0,0.0,0.0,0.0028957613,0.0043831347,0.12275887,-0.12640685,-0.057104796,0.37857494,-0.09036822,0.036078043,-0.21327741,0.056510806,-0.039923325,-0.20886007,0.17292704,0.03352873,0.0073745316,0.007329785,0.010232137,-0.00594295,-0.065062344,-0.012731876,0.01192492,-0.08044572,0.029977946,0.023429113,-0.046602733,2.0,1.1498343,-2.0,-2.0,2.0,-2.0,2.0,-1.45821,-2.0,-2.0,-1.551855,-2.0,2.0,1.0577661,-2.0,-2.0,2.0,-2.0,2.0,-1.6771123,-2.0,-2.0,-1.6281222,-2.0
2025-07-21 14:30:08.629,0.7200000000000003,720,36,0.02733449,0.04885838,0.029178455,0.062259052,-0.12824653,-0.033865366,0.0,0.0,0.0,0.003032149,0.0048679938,0.13506873,-0.14626716,-0.051286165,0.37638548,-0.08302558,0.045539003,-0.22672637,0.056801427,-0.036543302,-0.20379929,0.18082531,-0.016524924,0.06730781,0.0206338,0.025355546,0.044082444,-0.03661696,0.051733658,0.013506332,0.0060143834,0.01161037,-0.07050121,0.054511968,2.0,1.0577661,-2.0,-2.0,2.0,-2.0,2.0,-1.6771123,-2.0,-2.0,-1.6281222,-2.0,2.0,0.91656876,-2.0,-2.0,2.0,-2.0,2.0,-1.148926,-2.0,-2.0,-1.7110498,-2.0
2025-07-21 14:30:08.649,0.7400000000000003,740,37,0.058276765,0.067214794,0.038294245,0.092271015,-0.04160564,0.02860247,0.0,0.0,0.0,0.003197879,0.014710003,0.1173559,-0.14068809,-0.048492067,0.37637636,-0.09415849,0.04129207,-0.20983478,0.053564038,-0.027278356,-0.20831026,0.17349444,0.020497229,-0.06579622,0.07540503,-0.023306502,-0.0266596,-0.053506464,-0.03161057,-0.05679583,0.032119814,-0.025467614,-0.021395275,-0.015327091,2.0,0.91656876,-2.0,-2.0,2.0,-2.0,2.0,-1.148926,-2.0,-2.0,-1.7110498,-2.0,2.0,0.75132406,-2.0,-2.0,2.0,-2.0,2.0,-1.8053812,-2.0,-2.0,-1.5299702,-2.0
2025-07-21 14:30:08.676,0.7600000000000003,760,38,-0.047480173,-0.0022127663,-0.033048145,0.07122441,-0.11833336,0.01114811,0.0,0.0,0.0,0.0032059278,0.011785324,0.11260293,-0.14103067,-0.056763034,0.3882183,-0.080560066,0.036008064,-0.2124148,0.04472239,-0.022502137,-0.2044701,0.17680903,0.034416735,-0.047912538,0.037860367,-0.01592231,0.06680274,-0.013666814,0.037149034,0.04891364,-0.052576445,0.026156055,-0.04369848,-0.015744349,2.0,0.75132406,-2.0,-2.0,2.0,-2.0,2.0,-1.8053812,-2.0,-2.0,-1.5299702,-2.0,2.0,1.2184755,-2.0,-2.0,2.0,-2.0,2.0,-1.2021272,-2.0,-2.0,-1.791057,-2.0
2025-07-21 14:30:08.692,0.7800000000000004,780,39,0.037898295,0.03281345,0.00024347626,0.07718415,-0.06102231,-0.04818397,0.0,0.0,0.0,0.0033035534,0.0063437573,0.12216143,-0.12737355,-0.05081727,0.3685884,-0.085076585,0.044858094,-0.21033098,0.038826536,-0.03139871,-0.21264122,0.17916062,0.0427402,-0.0758437,0.057916652,0.07870878,-0.07268903,-0.058389265,0.06536579,0.00018322917,-0.027013924,0.031708393,0.05151151,-0.029173857,2.0,1.2184755,-2.0,-2.0,2.0,-2.0,2.0,-1.2021272,-2.0,-2.0,-1.791057,-2.0,2.0,0.6883728,-2.0,-2.0,2.0,-2.0,2.0,-1.7935904,-2.0,-2.0,-1.5413095,-2.0
2025-07-21 14:30:08.710,0.8000000000000004,800,40,-0.047887545,-0.007894477,-0.03533505,0.026845625,-0.026486533,0.014166925,0.0,0.0,0.0,0.0033120173,0.002232766,0.1091098,-0.12673108,-0.05540384,0.3844769,-0.073468156,0.045662005,-0.21566503,0.03156351,-0.04240275,-0.21096176,0.17612837,0.058965825,-0.026852507,0.06953871,-0.034788765,0.06476422,-0.022625554,0.017863937,-0.0124754915,0.02849295,0.022276305,0.02119558,-0.056555092,2.0,0.6883728,-2.0,-2.0,2.0,-2.0,2.0,-1.7935904,-2.0,-2.0,-1.5413095,-2.0,2.0,1.3124055,-2.0,-2.0,2.0,-2.0,2.0,-1.4587146,-2.0,-2.0,-1.6726959,-2.0
2025-07-21 14:30:08.730,0.8200000000000004,820,41,0.034340393,-0.016592544,-0.05137374,0.08969296,-0.028398424,-0.026567059,0.0,0.0,0.0,0.003359099,0.012550074,0.110567264,-0.13662426,-0.05115097,0.3761008,-0.08312316,0.042227093,-0.22011556,0.030752447,-0.04275569,-0.22235945,0.17802861,0.06383869,-0.023517786,-0.055515878,0.051652502,0.0063382383,0.06377624,-0.06914592,-0.046113953,0.05885261,0.047949832,-0.056571197,-0.037560325,2.0,1.3124055,-2.0,-2.0,2.0,-2.0,2.0,-1.4587146,-2.0,-2.0,-1.6726959,-2.0,2.0,0.98372304,-2.0,-2.0,2.0,-2.0,2.0,-1.7401009,-2.0,-2.0,-1.539227,-2.0
2025-07-21 14:30:08.750,0.8400000000000004,840,42,0.030002264,-0.037854306,0.0070953527,0.09525934,-0.05211743,-0.019553225,0.0,0.0,0.0,0.0034844426,0.004767749,0.108892426,-0.1355753,-0.052575015,0.37673843,-0.08071793,0.038213708,-0.2291031,0.01926145,-0.039178208,-0.21815684,0.1698742,0.061494973,-0.06552704,-0.014581105,-0.07236616,-0.0071068807,-0.040753674,0.072769806,-0.04917065,-0.02103864,0.024345199,0.036521085,-0.013464978,2.0,0.98372304,-2.0,-2.0,2.0,-2.0,2.0,-1.7401009,-2.0,-2.0,-1.539227,-2.0,2.0,0.89284086,-2.0,-2.0,2.0,-2.0,2.0,-1.2278283,-2.0,-2.0,-1.7046769,-2.0
2025-07-21 14:30:08.776,0.8600000000000004,860,43,0.023064615,0.03880369,0.046457067,0.08332673,-0.089604124,-0.0026731526,0.0,0.0,0.0,0.003652062,0.0041501573,0.10735341,-0.1448632,-0.056460146,0.37826017,-0.075850636,0.031774357,-0.23059477,0.026797926,-0.039187282,-0.22842747,0.16108218,0.069941804,-0.02013834,-0.036140162,0.05291081,-0.05311709,0.030636739,0.048551325,0.07414087,-0.0075245798,0.0045900038,0.063461766,-0.020752307,2.0,0.89284086,-2.0,-2.0,2.0,-2.0,2.0,-1.2278283,-2.0,-2.0,-1.7046769,-2.0,2.0,0.8108473,-2.0,-2.0,2.0,-2.0,2.0,-1.8285724,-2.0,-2.0,-1.7072663,-2.0
2025-07-21 14:30:08.794,0.8800000000000004,880,44,0.00948119,-0.047851544,-0.0427541,0.04711138,-0.03395061,-0.0427665,0.0,0.0,0.0,0.003765328,0.003261096,0.109445415,-0.13560252,-0.05226131,0.36687964,-0.07163144,0.039736126,-0.2287299,0.016424762,-0.04144527,-0.21494065,0.15970634,-0.024237217,-0.00046928876,0.024411438,-0.07797413,0.070182085,-0.02168685,-0.057449903,-0.09313954,-0.03955041,0.06503181,0.05018106,0.051299803,2.0,0.8108473,-2.0,-2.0,2.0,-2.0,2.0,-1.8285724,-2.0,-2.0,-1.7072663,-2.0,2.0,1.2883625,-2.0,-2.0,2.0,-2.0,2.0,-1.3189938,-2.0,-2.0,-1.6708121,-2.0
2025-07-21 14:30:08.812,0.9000000000000005,900,45,0.0022514693,0.06453233,-0.031847,0.06213503,-0.055660956,-0.001818875,0.0,0.0,0.0,0.0038770353,-0.0027049636,0.09133083,-0.14051852,-0.059640232,0.3826455,-0.07433003,0.033215016,-0.22535336,0.0098267365,-0.029622234,-0.23137775,0.16141601,-0.03968525,-0.050982755,0.05819064,0.0349235,0.07060778,-0.036936134,-0.016169453,-0.018328607,-0.02741785,-0.06376134,-0.022686211,0.06651588,2.0,1.2883625,-2.0,-2.0,2.0,-2.0,2.0,-1.3189938,-2.0,-2.0,-1.6708121,-2.0,2.0,0.8404379,-2.0,-2.0,2.0,-2.0,2.0,-1.609113,-2.0,-2.0,-1.6282837,-2.0
2025-07-21 14:30:08.830,0.9200000000000005,920,46,0.014221185,0.012006325,-0.016032606,0.106055714,-0.05571414,2.595526e-05,0.0,0.0,0.0,0.0039088563,0.0066058766,0.09323386,-0.12982567,-0.046516508,0.37230048,-0.06569994,0.033668954,-0.23443078,0.018329354,-0.025942516,-0.22048561,0.15915489,0.0045354804,-0.060130198,-0.0085211275,0.032629225,0.0057181953,-0.042332865,-0.06263716,-0.06961622,0.054099858,-0.045273814,-0.00039882108,-0.06556457,2.0,0.8404379,-2.0,-2.0,2.0,-2.0,2.0,-1.609113,-2.0,-2.0,-1.6282837,-2.0,2.0,1.145727,-2.0,-2.0,2.0,-2.0,2.0,-1.4916325,-2.0,-2.0,-1.6520445,-2.0
2025-07-21 14:30:08.851,0.9400000000000005,940,47,-0.007587556,0.033830427,-0.01131398,0.04534617,-0.052953195,-0.013076235,0.0,0.0,0.0,0.0038842473,0.014030961,0.09156453,-0.14013515,-0.049450662,0.37325856,-0.07377079,0.04014069,-0.23569798,0.008256616,-0.034467302,-0.23491412,0.15540056,0.0071511148,-0.07945669,-0.041541178,-0.011069282,-0.054259095,0.0060450104,-0.0032953124,-0.074350975,-0.047750365,0.04437048,0.0055069383,-0.06450771,2.0,1.145727,-2.0,-2.0,2.0,-2.0,2.0,-1.4916325,-2.0,-2.0,-1.6520445,-2.0,2.0,0.8534342,-2.0,-2.0,2.0,-2.0,2.0,-1.442384,-2.0,-2.0,-1.7113863,-2.0
2025-07-21 14:30:08.879,0.9600000000000005,960,48,-0.035384852,0.03662779,0.037429847,0.029359255,-0.033219554,0.0076013347,0.0,0.0,0.0,0.0038799795,0.013709148,0.085283585,-0.13272165,-0.05855839,0.3745546,-0.07500951,0.031598896,-0.23605686,0.0003567955,-0.036549598,-0.23091482,0.14364603,0.054805063,0.0064112563,-0.029097712,0.059446134,0.03995542,0.04005733,-0.025893766,-0.05283735,0.048517898,-0.033430148,0.009299066,-0.026991917,2.0,0.8534342,-2.0,-2.0,2.0,-2.0,2.0,-1.442384,-2.0,-2.0,-1.7113863,-2.0,2.0,0.9784909,-2.0,-2.0,2.0,-2.0,2.0,-1.6927265,-2.0,-2.0,-1.6781946,-2.0
2025-07-21 14:30:08.893,0.9800000000000005,980,49,-0.04115218,-0.019575858,0.030717904,0.08560648,-0.10232465,-0.031508967,0.0,0.0,0.0,0.0038085966,0.013047519,0.076979995,-0.12878424,-0.060504064,0.37890714,-0.07610902,0.037388515,-0.22936967,-0.0019398995,-0.028195424,-0.23778152,0.15132734,0.004892077,-0.036396105,0.027985552,-0.0012051244,0.042166505,-0.021327864,0.045908254,0.047976397,0.056507792,0.04085408,-0.056478564,-0.027353754,2.0,0.9784909,-2.0,-2.0,2.0,-2.0,2.0,-1.6927265,-2.0,-2.0,-1.6781946,-2.0,2.0,0.81729347,-2.0,-2.0,2.0,-2.0,2.0,-1.2123346,-2.0,-2.0,-1.693065,-2.0
2025-07-21 14:30:08.910,1.0000000000000004,1000,50,0.049245786,0.056343675,0.0011833899,0.12065433,-0.04120982,-0.014224554,0.0,0.0,0.0,0.003788516,-0.0028668607,0.07616939,-0.13651142,-0.04641835,0.37685576,-0.063362546,0.04929306,-0.22860897,-0.0009812963,-0.031159835,-0.23688315,0.1495925,-0.0064681433,-0.021280013,-0.03590459,-0.029083325,0.02609601,0.024412775,-0.014479977,-0.059780944,-0.086524546,0.0394581,-0.038541988,-0.0077609383,2.0,0.81729347,-2.0,-2.0,2.0,-2.0,2.0,-1.2123346,-2.0,-2.0,-1.693065,-2.0,2.0,0.8770368,-2.0,-2.0,2.0,-2.0,2.0,-1.711765,-2.0,-2.0,-1.668832,-2.0
2025-07-21 14:30:08.930,1.0200000000000005,1020,51,-0.04203819,0.0456143,-0.029261354,0.09381189,-0.023277147,0.012891246,0.0,0.0,0.0,0.0037089803,0.010082689,0.06783295,-0.12683278,-0.05335592,0.37053323,-0.07520424,0.04208969,-0.24914639,-0.009453535,-0.0353765,-0.24148864,0.13753498,-0.057164352,0.021442244,-0.01946824,0.05850244,-0.013549716,0.00022084844,0.07135844,-0.074942306,0.04033343,0.015677601,0.026093729,-0.01787693,2.0,0.8770368,-2.0,-2.0,2.0,-2.0,2.0,-1.711765,-2.0,-2.0,-1.668832,-2.0,2.0,1.2071617,-2.0,-2.0,2.0,-2.0,2.0,-1.4667757,-2.0,-2.0,-1.7016108,-2.0
2025-07-21 14:30:08.951,1.0400000000000005,1040,52,0.039135247,-0.032998413,-6.366412e-05,0.08745285,-0.1116941,0.010294133,0.0,0.0,0.0,0.0036526602,0.008110182,0.07122865,-0.1362782,-0.053542297,0.36357686,-0.06282637,0.046047013,-0.24468721,-0.019794378,-0.035144426,-0.24654774,0.14580686,0.040668536,-0.03764646,-0.045811705,0.005540352,0.058141157,0.04583663,-0.045524158,-0.03598976,0.00573624,0.050547983,0.0023425953,-0.022220304,2.0,1.2071617,-2.0,-2.0,2.0,-2.0,2.0,-1.4667757,-2.0,-2.0,-1.7016108,-2.0,2.0,0.71507096,-2.0,-2.0,2.0,-2.0,2.0,-1.4149729,-2.0,-2.0,-1.6812949,-2.0
2025-07-21 14:30:08.976,1.0600000000000005,1060,53,0.026089393,-0.007871177,-0.034516994,0.09828147,-0.055009887,-0.02594374,0.0,0.0,0.0,0.0036069234,0.0013006624,0.065456405,-0.12984441,-0.043232165,0.37578171,-0.059659503,0.04814656,-0.24979322,-0.004265259,-0.02759761,-0.24950883,0.13813129,-0.025006644,0.057403967,-0.068216555,0.06709469,-0.024814365,-0.039344855,0.019925036,0.051449023,0.016896823,-0.015098751,-0.039571498,0.031146908,2.0,0.71507096,-2.0,-2.0,2.0,-2.0,2.0,-1.4149729,-2.0,-2.0,-1.6812949,-2.0,2.0,1.187782,-2.0,-2.0,2.0,-2.0,2.0,-1.7667102,-2.0,-2.0,-1.7184312,-2.0
2025-07-21 14:30:08.994,1.0800000000000005,1080,54,0.046379562,-0.04356736,0.011066131,0.10016332,-0.036608227,-0.02155614,0.0,0.0,0.0,0.0035167749,0.0024096633,0.07401856,-0.14145297,-0.060844056,0.36606574,-0.06517643,0.037296783,-0.23675351,-0.011823147,-0.04132206,-0.2509036,0.13563898,0.07174622,0.031486265,-0.034927264,-0.045170594,0.010472568,-0.036092877,0.009861294,0.044035368,-0.027831016,-0.0077328966,-0.05457534,0.04013458,2.0,1.187782,-2.0,-2.0,2.0,-2.0,2.0,-1.7667102,-2.0,-2.0,-1.7184312,-2.0,2.0,0.7467236,-2.0,-2.0,2.0,-2.0,2.0,-1.1899067,-2.0,-2.0,-1.5490806,-2.0
2025-07-21 14:30:09.011,1.1000000000000005,1100,55,0.0016750119,0.004335317,0.046402328,0.044236768,-0.10437447,-0.010136426,0.0,0.0,0.0,0.0034950883,0.0024096027,0.069603756,-0.13821608,-0.061337776,0.37736046,-0.07384846,0.036475815,-0.2555952,-0.022800438,-0.03188864,-0.24337651,0.13477018,0.03431224,-0.0116529735,0.072112836,0.059257466,-0.058182575,0.0013869223,-0.0704877,-0.012769133,-0.033340096,0.020423543,0.00019831797,0.021408362,2.0,0.7467236,-2.0,-2.0,2.0,-2.0,2.0,-1.1899067,-2.0,-2.0,-1.5490806,-2.0,2.0,0.5233542,-2.0,-2.0,2.0,-2.0,2.0,-1.6189451,-2.0,-2.0,-1.6764612,-2.0
2025-07-21 14:30:09.031,1.1200000000000006,1120,56,-0.046056632,0.050128035,0.039891392,0.075897634,-0.014436769,-0.0133230565,0.0,0.0,0.0,0.0034799606,0.014669984,0.063879065,-0.13573278,-0.05070097,0.37881196,-0.058801662,0.029440964,-0.24859627,-0.017776445,-0.040275987,-0.2554306,0.13196428,-0.07782634,-0.0664106,-0.049927764,-0.00691226,-0.06280254,-0.021386482,0.0008573924,0.059935126,-0.03760607,-0.06481152,0.013825052,0.066663586,2.0,0.5233542,-2.0,-2.0,2.0,-2.0,2.0,-1.6189451,-2.0,-2.0,-1.6764612,-2.0,2.0,1.1174164,-2.0,-2.0,2.0,-2.0,2.0,-1.5427703,-2.0,-2.0,-1.7903137,-2.0
2025-07-21 14:30:09.057,1.1400000000000006,1140,57,0.005348015,-0.020390084,0.011291202,0.12241872,-0.021406082,-0.012854634,0.0,0.0,0.0,0.003560926,-0.0028284877,0.055833757,-0.1354054,-0.057008695,0.36638305,-0.06507872,0.0451027,-0.25918865,-0.013085161,-0.03908436,-0.2571373,0.13174216,0.043874945,0.019574462,-0.002528214,0.041683014,-0.05328227,-0.07050309,0.043691225,-0.03348369,0.030447444,0.062419865,0.004901288,-0.018211557,2.0,1.1174164,-2.0,-2.0,2.0,-2.0,2.0,-1.5427703,-2.0,-2.0,-1.7903137,-2.0,2.0,0.65276587,-2.0,-2.0,2.0,-2.0,2.0,-1.4264045,-2.0,-2.0,-1.529577,-2.0
2025-07-21 14:30:09.077,1.1600000000000006,1160,58,-0.057606056,0.01919547,-0.024821045,0.032513957,-0.09508822,-0.027900646,0.0,0.0,0.0,0.0036443367,0.0074433167,0.06170965,-0.12497157,-0.05417316,0.3797888,-0.056137405,0.043210596,-0.24831721,-0.014427823,-0.03610302,-0.24650641,0.13038284,0.06956577,-0.07200255,0.026938971,0.0066526914,0.009641566,-0.004272241,-0.024181861,-0.04388279,-0.07030722,-0.03606423,0.055944826,0.029419214,2.0,0.65276587,-2.0,-2.0,2.0,-2.0,2.0,-1.4264045,-2.0,-2.0,-1.529577,-2.0,2.0,1.0628755,-2.0,-2.0,2.0,-2.0,2.0,-1.6602724,-2.0,-2.0,-1.844161,-2.0
2025-07-21 14:30:09.094,1.1800000000000006,1180,59,0.029394234,0.024152216,-0.00560346,0.045792606,-0.057355847,-0.009847151,0.0,0.0,0.0,0.003729209,0.005976505,0.059692767,-0.13065046,-0.050911322,0.38700643,-0.05432777,0.03574183,-0.2543357,-0.026831962,-0.038576365,-0.2663077,0.13997999,-0.024383185,0.03370179,-0.051254716,-0.055685684,0.030772965,-0.033718057,0.07292664,-0.074461,-0.06301545,-0.003938901,0.0056780614,0.020020353,2.0,1.0628755,-2.0,-2.0,2.0,-2.0,2.0,-1.6602724,-2.0,-2.0,-1.844161,-2.0,2.0,1.0502489,-2.0,-2.0,2.0,-2.0,2.0,-1.41802,-2.0,-2.0,-1.6590011,-2.0
2025-07-21 14:30:09.134,1.2000000000000006,1200,60,0.052921344,0.022065079,0.0040968005,0.06302063,-0.015897967,0.016948326,0.0,0.0,0.0,0.0038110227,-0.0022033548,0.05209107,-0.12286329,-0.06061971,0.38225153,-0.053004686,0.042202964,-0.25283474,-0.025447216,-0.026687859,-0.2570116,0.12488185,-0.07188583,-0.054798726,0.029312465,-0.020408694,-0.028369173,-0.008072245,0.0036711812,-0.067412086,0.05855013,0.023555076,-0.05933769,-0.05697156,2.0,1.0502489,-2.0,-2.0,2.0,-2.0,2.0,-1.41802,-2.0,-2.0,-1.6590011,-2.0,2.0,0.65480125,-2.0,-2.0,2.0,-2.0,2.0,-1.510591,-2.0,-2.0,-1.6278654,-2.0
2025-07-21 14:30:09.182,1.2200000000000006,1220,61,-0.046651307,0.00089566346,0.036241923,0.09034349,-0.055882875,0.0032162315,0.0,0.0,0.0,0.003782953,-0.0007400011,0.044459745,-0.12324383,-0.046762474,0.37336332,-0.056968167,0.03867879,-0.24869265,-0.026036914,-0.03133963,-0.25311875,0.13077252,0.0022123377,-0.008956775,-0.04825543,-0.0021812585,-0.008085029,0.07311761,-0.024863739,-0.036676534,0.0063995547,0.0036113868,-0.042267233,-0.016672384,2.0,0.65480125,-2.0,-2.0,2.0,-2.0,2.0,-1.510591,-2.0,-2.0,-1.6278654,-2.0,2.0,0.86716604,-2.0,-2.0,2.0,-2.0,2.0,-1.5845115,-2.0,-2.0,-1.7794466,-2.0
2025-07-21 14:30:09.238,1.2400000000000007,1240,62,0.025617579,0.018726807,-0.031282086,0.06414985,-0.053064194,-0.034757547,0.0,0.0,0.0,0.003786823,0.0035283098,0.04950842,-0.11674481,-0.050498974,0.3807634,-0.06150223,0.03354923,-0.2528289,-0.0221584,-0.029544665,-0.27132496,0.12270772,-0.054215398,-0.061882336,0.03142905,0.017909525,-0.06029684,-0.013500596,-0.0009866772,-0.04144019,-0.03808474,-0.061480507,-0.02665969,-0.070134565,2.0,0.86716604,-2.0,-2.0,2.0,-2.0,2.0,-1.5845115,-2.0,-2.0,-1.7794466,-2.0,2.0,0.989001,-2.0,-2.0,2.0,-2.0,2.0,-1.6254314,-2.0,-2.0,-1.5785079,-2.0
2025-07-21 14:30:09.283,1.2600000000000007,1260,63,-0.029654108,-0.033615217,-0.046119623,0.10153054,-0.09227906,0.034913473,0.0,0.0,0.0,0.0038332604,-0.0029242688,0.03777637,-0.11867106,-0.053758048,0.37865025,-0.055528864,0.041143715,-0.26627418,-0.031815026,-0.026148507,-0.26481718,0.12445243,0.0042592734,-0.05768904,0.034789097,0.013992102,-0.067933284,-0.03580566,-0.040585186,0.06466119,0.03878165,-0.024599059,0.045238618,-0.010050434,2.0,0.989001,-2.0,-2.0,2.0,-2.0,2.0,-1.6254314,-2.0,-2.0,-1.5785079,-2.0,2.0,0.8583474,-2.0,-2.0,2.0,-2.0,2.0,-1.4667696,-2.0,-2.0,-1.7943912,-2.0
2025-07-21 14:30:09.309,1.2800000000000007,1280,64,0.051819894,0.007121741,0.010022687,0.054900914,-0.08475746,-0.034855664,0.0,0.0,0.0,0.003930935,0.002405699,0.044069175,-0.11962521,-0.057979874,0.38248894,-0.06633576,0.03855343,-0.26337773,-0.031591464,-0.036264863,-0.26610017,0.11704034,-0.06781522,0.008281499,0.032774076,-0.03264385,-0.015451733,-0.05016969,0.019023776,-0.059207473,0.061600674,-0.040112525,-0.048014164,-0.05463244,2.0,0.8583474,-2.0,-2.0,2.0,-2.0,2.0,-1.4667696,-2.0,-2.0,-1.7943912,-2.0,2.0,0.86060864,-2.0,-2.0,2.0,-2.0,2.0,-1.6384134,-2.0,-2.0,-1.6313587,-2.0
2025-07-21 14:30:09.326,1.3000000000000007,1300,65,0.028215911,0.01770139,-0.0095358575,0.068275526,-0.102938965,0.019546378,0.0,0.0,0.0,0.003994092,0.013659333,0.037370577,-0.1312419,-0.055715214,0.3904628,-0.06268864,0.03875042,-0.26851508,-0.0314274,-0.029580785,-0.27003893,0.11673082,0.034891568,-0.015640955,0.031857688,0.002407656,-0.03155191,-0.06452324,0.036201455,0.018054936,0.05890371,0.0023037132,0.07046767,0.03408619,2.0,0.86060864,-2.0,-2.0,2.0,-2.0,2.0,-1.6384134,-2.0,-2.0,-1.6313587,-2.0,2.0,1.0533899,-2.0,-2.0,2.0,-2.0,2.0,-1.5522757,-2.0,-2.0,-1.7976353,-2.0
2025-07-21 14:30:09.343,1.3200000000000007,1320,66,0.05191644,-0.01553951,-0.00049663865,0.11605124,-0.10253877,-0.023401953,1.5,0.0,0.0,0.004060765,-0.004144324,0.04243617,-0.12148677,-0.045733396,0.38248277,-0.058840953,0.03473598,-0.2731953,-0.026644949,-0.02724668,-0.25901362,0.12519526,-0.012609492,-0.04568656,-0.026883053,0.048636686,-0.055826873,-0.067479335,-0.028722404,-0.07282651,0.043944094,0.021006469,-0.01352781,-0.0018317525,2.0,1.0533899,-2.0,-2.0,2.0,-2.0,2.0,-1.5522757,-2.0,-2.0,-1.7976353,-2.0,2.0,-1.1783836,-2.0,-2.0,-0.61490405,-2.0,2.0,-1.1057078,-2.0,-2.0,-0.3544155,-2.0
2025-07-21 14:30:09.364,1.3400000000000007,1340,67,-0.1161921,0.074226595,0.029011209,0.11929952,-0.027710378,0.016102342,1.5,0.0,0.0,0.00410036,0.008048477,0.025448216,-0.11045632,-0.046774726,0.3695445,-0.047505807,0.029764714,-0.2683318,-0.04106001,-0.039548688,-0.26803035,0.12014849,0.051783286,-0.14164145,-0.0431929,-0.065989085,-0.110660285,0.045213345,0.049997073,-0.046014212,-0.05579962,0.0005187364,0.03846579,0.029599877,2.0,-1.1783836,-2.0,-2.0,-0.61490405,-2.0,2.0,-1.1057078,-2.0,-2.0,-0.3544155,-2.0,2.0,-0.42068318,-2.0,-2.0,-0.06202899,-2.0,2.0,-1.7522781,-2.0,-2.0,-1.0031863,-2.0
2025-07-21 14:30:09.395,1.3600000000000008,1360,68,-0.117579296,0.05346479,-0.042272538,0.05933764,-0.09918778,0.022506082,1.5,0.0,0.0,0.0043353806,0.008011676,-0.00015495814,-0.09729808,-0.055846013,0.32940733,-0.026624097,0.042081457,-0.2690002,-0.04255264,-0.032126665,-0.26447478,0.118469894,0.036434576,-0.10352281,0.024633912,0.03299299,-0.10058019,-0.02313529,6.225677e-05,-0.007867054,-0.01791583,-0.07570547,-0.022945447,-0.0437723,2.0,-0.42068318,-2.0,-2.0,-0.06202899,-2.0,2.0,-1.7522781,-2.0,-2.0,-1.0031863,-2.0,2.0,-0.6634275,-2.0,-2.0,-0.26060522,-2.0,2.0,-0.91844887,-2.0,-2.0,-1.0180311,-2.0
2025-07-21 14:30:09.416,1.3800000000000008,1380,69,0.0051131775,0.059022095,0.022339921,0.10874573,-0.026429556,-0.01042751,1.5,0.0,0.0,0.0048861965,0.0077244863,-0.020527354,-0.0989242,-0.057975702,0.2995979,-0.021867022,0.026284553,-0.28788403,-0.045310903,-0.03886197,-0.2717916,0.10867974,0.011745765,0.0069710077,-0.03856765,0.04177881,-0.04323856,0.059748188,-0.053779412,-0.039032433,0.050056454,0.045616683,-0.08235526,0.029359657,2.0,-0.6634275,-2.0,-2.0,-0.26060522,-2.0,2.0,-0.91844887,-2.0,-2.0,-1.0180311,-2.0,2.0,-0.6899374,-2.0,-2.0,-0.4157964,-2.0,2.0,-2.0,-2.0,-2.0,-0.985751,-2.0
2025-07-21 14:30:09.442,1.4000000000000008,1400,70,-0.10711955,-0.0031634916,-0.022803644,0.018319674,-0.07331517,0.02902864,1.5,0.0,0.0,0.005198067,0.0032822227,-0.041598774,-0.09414228,-0.071524255,0.2720733,0.0015339436,0.03709795,-0.30411372,-0.034288816,-0.043662854,-0.29066244,0.102146596,-0.06471722,-0.10286863,-0.020899506,-0.06321297,-0.12446245,0.08534793,-0.027179413,-0.010014408,0.04589799,-0.03812884,-0.07532618,-0.06110586,2.0,-0.6899374,-2.0,-2.0,-0.4157964,-2.0,2.0,-2.0,-2.0,-2.0,-0.985751,-2.0,2.0,-0.5170661,-2.0,-2.0,-0.5866469,-2.0,2.0,-1.2099379,-2.0,-2.0,-1.2480091,-2.0
2025-07-21 14:30:09.460,1.4200000000000008,1420,71,-0.009144539,0.047456674,-0.034729373,0.04858965,-0.08647309,-0.0392097,1.5,0.0,0.0,0.005482006,0.0021451062,-0.06894955,-0.085225746,-0.069993295,0.24634811,0.014845491,0.039777562,-0.31357569,-0.040242255,-0.03499139,-0.30486712,0.084143706,-0.0025805158,0.0001315843,0.022590857,0.06842225,-0.016824042,0.09330808,-0.048390634,-0.10108394,-0.030605383,0.039150894,0.032880444,-0.044848353,2.0,-0.5170661,-2.0,-2.0,-0.5866469,-2.0,2.0,-1.2099379,-2.0,-2.0,-1.2480091,-2.0,2.0,-0.7671758,-2.0,-2.0,-0.6486008,-2.0,2.0,-1.9884615,-2.0,-2.0,-1.1026893,-2.0
2025-07-21 14:30:09.478,1.4400000000000008,1440,72,-0.067496434,0.027056947,-0.01652523,0.0561841,0.0028514815,0.036065657,1.5,0.0,0.0,0.005593263,0.0045644506,-0.0905977,-0.08843892,-0.07260038,0.20378618,0.01899391,0.033210862,-0.33284068,-0.050532132,-0.043171667,-0.3074566,0.07239051,0.07267083,-0.035280358,0.036355324,-0.059673797,-0.01180108,-0.047384493,-0.042180974,-0.07202585,-0.06601184,-0.04354504,-0.098549224,-0.08940206,2.0,-0.7671758,-2.0,-2.0,-0.6486008,-2.0,2.0,-1.9884615,-2.0,-2.0,-1.1026893,-2.0,2.0,-0.4553394,-2.0,-2.0,-0.46443045,-0.942596,2.0,-1.2177725,-2.0,-2.0,-1.2551441,-2.0
2025-07-21 14:30:09.496,1.4600000000000009,1460,73,-0.02356122,0.04211459,0.031559944,0.08421088,-0.07582321,-0.03654531,1.5,0.0,0.0,0.005585019,0.008498347,-0.10756682,-0.069107614,-0.062162187,0.18711679,0.04403045,0.033353418,-0.34602934,-0.0689788,-0.039884306,-0.32738557,0.074712865,0.05150647,-0.010574692,0.09454151,0.07054921,-0.15989538,0.094258875,-0.04140807,0.030183328,-0.027986,0.04981669,0.042755466,-0.074421026,2.0,-0.4553394,-2.0,-2.0,-0.46443045,-0.942596,2.0,-1.2177725,-2.0,-2.0,-1.2551441,-2.0,2.0,-1.0779232,-2.0,-2.0,-0.6922004,-1.3641715,2.0,-2.0,-2.0,-2.0,-0.9907691,-2.0
2025-07-21 14:30:09.516,1.4800000000000009,1480,74,-0.09657559,0.08616059,-0.062396884,0.053315118,-0.07885514,0.037353534,1.5,0.0,0.0,0.005505959,-0.0012921571,-0.12967068,-0.07364221,-0.061047737,0.13884284,0.059207354,0.049748287,-0.35582295,-0.07290464,-0.023309551,-0.33200872,0.046181843,0.0068177595,-0.01305107,0.023126666,-0.0046798596,-0.1141648,0.06416966,-0.015002291,-0.111948796,-0.022516195,0.029710565,0.030025804,0.022309361,2.0,-1.0779232,-2.0,-2.0,-0.6922004,-1.3641715,2.0,-2.0,-2.0,-2.0,-0.9907691,-2.0,2.0,-0.40148768,-2.0,-2.0,-0.9263493,-1.2016001,2.0,-1.5632833,-2.0,-2.0,-1.5017809,-2.0
2025-07-21 14:30:09.542,1.5000000000000009,1500,75,-0.0033714175,0.026719663,-0.015680933,0.03437839,-0.027457414,0.03454091,1.5,0.0,0.0,0.0055827987,0.0023600988,-0.17523676,-0.06554534,-0.06884188,0.09713121,0.08004243,0.035288293,-0.37306952,-0.10465317,-0.035302695,-0.3431572,0.025107257,-0.0023746688,-0.05268853,0.02967667,0.077889636,-0.08121549,0.10100078,-0.0013396471,-0.030971536,-0.018927462,-0.030105915,0.032866888,-0.11683884,2.0,-0.40148768,-2.0,-2.0,-0.9263493,-1.2016001,2.0,-1.5632833,-2.0,-2.0,-1.5017809,-2.0,2.0,-0.81705225,-2.0,-2.0,-0.6638814,-0.43876606,2.0,-2.0,-2.0,-2.0,-1.0339626,-2.0
2025-07-21 14:30:09.559,1.520000000000001,1520,76,-0.007967079,0.048224237,-0.027922595,0.054220796,-0.02344584,0.020890873,1.5,0.0,0.0,0.005621349,0.017979689,-0.192212,-0.042910337,-0.054594945,0.07187043,0.082805894,0.05551049,-0.3861906,-0.116949685,-0.029905396,-0.37028316,0.018668972,-0.021963201,-0.09323106,0.03788954,0.034598757,-0.07363167,-0.026848195,-0.034337316,-0.0837987,-0.12116776,-0.05321192,-0.075419635,-0.07273146,2.0,-0.81705225,-2.0,-2.0,-0.6638814,-0.43876606,2.0,-2.0,-2.0,-2.0,-1.0339626,-2.0,2.0,-0.4419925,-2.0,-2.0,-0.61586106,0.59060997,2.0,-1.5033699,-2.0,-2.0,-1.3066051,-2.0
2025-07-21 14:30:09.576,1.540000000000001,1540,77,0.033334382,0.11518169,0.024404995,-0.010192203,0.018017037,0.017689,1.5,0.0,0.0,0.005751896,0.01201183,-0.22185856,-0.044524565,-0.052448604,0.026415778,0.1171377,0.05847001,-0.38858348,-0.14557783,-0.028299002,-0.36107433,-0.0038794617,0.022100039,-0.097232364,-0.017899107,-0.036093216,-0.103716545,0.0096052755,0.084998935,0.0169037,-0.064221315,-0.04579535,0.040973917,-0.066138744,2.0,-0.4419925,-2.0,-2.0,-0.61586106,0.59060997,2.0,-1.5033699,-2.0,-2.0,-1.3066051,-2.0,2.0,-1.0459298,-2.0,-2.0,-0.45049572,2.0,2.0,-2.0,-2.0,-2.0,-1.1870651,-2.0
2025-07-21 14:30:09.596,1.560000000000001,1560,78,0.049492177,0.19768094,-0.018177163,0.034299783,-0.04697103,-0.04522877,1.5,0.0,0.0,0.0061421716,0.023013474,-0.26233038,-0.025954055,-0.058094494,-0.0033120543,0.15348625,0.06686605,-0.39641115,-0.16203639,-0.015424873,-0.3652005,-0.037857134,0.011543758,-0.14560145,0.09332853,0.06413375,-0.11949307,0.07164711,0.09773299,-0.06850689,-0.07882013,-0.011941408,0.058307473,-0.08979526,2.0,-1.0459298,-2.0,-2.0,-0.45049572,2.0,2.0,-2.0,-2.0,-2.0,-1.1870651,-2.0,2.0,-0.6219212,-2.0,-2.0,0.3164531,2.0,2.0,-1.5876365,-2.0,-2.0,-1.6220863,-2.0
2025-07-21 14:30:09.616,1.580000000000001,1580,79,0.02819951,0.2174434,-0.10123795,0.003991487,0.053046566,-0.03279291,1.5,0.0,0.0,0.0069276136,0.023721725,-0.30205888,-0.021197509,-0.057981424,-0.042146195,0.19626455,0.06655742,-0.39042065,-0.19605494,-0.010927189,-0.36634335,-0.063575454,-0.037516087,-0.055357017,0.11203179,-0.06579987,-0.027773298,0.042365108,-0.027868357,0.012671278,-0.075615555,0.08705312,0.031950794,-0.049336165,2.0,-0.6219212,-2.0,-2.0,0.3164531,2.0,2.0,-1.5876365,-2.0,-2.0,-1.6220863,-2.0,2.0,-1.1303871,-1.2214762,-2.0,0.2331406,-1.4312742,2.0,-1.3949633,-2.0,-2.0,-1.8682435,-2.0
2025-07-21 14:30:09.643,1.600000000000001,1600,80,-0.11514292,0.16601703,-0.042514514,0.04901562,0.062360007,0.024088293,1.5,0.0,0.0,0.008165939,0.00802162,-0.33830723,-0.010501746,-0.069973685,-0.07399332,0.2064569,0.068906926,-0.405074,-0.21605512,-0.0036114182,-0.37334213,-0.0774899,0.035639517,-0.043217752,0.021291839,-0.06465896,-0.026341097,-0.012406012,-0.0103864195,-0.029330505,-0.051132496,-0.013568669,-0.019880868,-0.007798615,2.0,-1.1303871,-1.2214762,-2.0,0.2331406,-1.4312742,2.0,-1.3949633,-2.0,-2.0,-1.8682435,-2.0,2.0,-0.830197,2.0,-2.0,-1.649939,1.7852163,2.0,-2.0,-2.0,-2.0,-1.7577263,-2.0
2025-07-21 14:30:09.660,1.620000000000001,1620,81,-0.105498135,0.15214792,0.05642549,0.03793589,0.08954236,0.015097886,1.5,0.0,0.0,0.009038604,0.016604977,-0.36892036,0.033011783,-0.07930604,-0.1182519,0.24408749,0.06488269,-0.4159493,-0.22945657,-0.008931963,-0.37767178,-0.08509342,0.040979836,-0.13302782,0.043203436,0.016985815,-0.08952722,0.12754746,-0.017082378,0.017786808,0.016748408,-0.047222663,-0.063780345,0.0034679342,2.0,-0.830197,2.0,-2.0,-1.649939,1.7852163,2.0,-2.0,-2.0,-2.0,-1.7577263,-2.0,2.0,1.4256576,-1.321072,-2.0,-0.25002182,-1.7208068,2.0,-1.687493,-2.0,-2.0,-1.6144981,-2.0
2025-07-21 14:30:09.677,1.640000000000001,1640,82,-0.018605074,0.08061431,0.10937486,-0.0035528927,0.09429753,0.038167283,1.5,0.0,0.0,0.008865805,0.02137696,-0.4042306,0.035538573,-0.0791331,-0.17107502,0.27608833,0.072635286,-0.41891026,-0.23438153,-0.006948638,-0.40690827,-0.097255714,-0.024715079,-0.027626153,-0.047004923,-0.059936706,-0.082169704,0.087201156,0.024479292,-0.029100386,-0.0447306,0.040792808,-0.03074417,0.030735219,2.0,1.4256576,-1.321072,-2.0,-0.25002182,-1.7208068,2.0,-1.687493,-2.0,-2.0,-1.6144981,-2.0,2.0,-2.0,-2.0,-2.0,-1.4951845,0.9231908,2.0,-2.0,-2.0,-2.0,-0.48383066,-2.0
2025-07-21 14:30:09.697,1.660000000000001,1660,83,-0.12060106,0.17742823,0.03555697,0.005660787,0.0696069,0.03752234,1.5,0.0,0.0,0.007766866,0.005547238,-0.4366462,0.04396484,-0.078647025,-0.2063994,0.27906248,0.07364104,-0.42698175,-0.24311498,-0.02138968,-0.39751157,-0.122652,0.041791763,-0.094593,0.032325786,0.05323028,-0.09233979,0.038416523,0.08348017,0.016723732,-0.08123591,0.047259666,-0.03904392,-0.05171527,2.0,-2.0,-2.0,-2.0,-1.4951845,0.9231908,2.0,-2.0,-2.0,-2.0,-0.48383066,-2.0,2.0,-0.41198984,2.0,-2.0,-0.12783085,2.0,2.0,-2.0,-2.0,-2.0,-2.0,-2.0
2025-07-21 14:30:09.717,1.680000000000001,1680,84,-0.106887415,0.16051142,0.021214064,0.023586215,0.061977535,0.045022473,1.5,0.0,0.0,0.006907217,0.002368414,-0.4633809,0.07225731,-0.06964527,-0.24322008,0.30066648,0.07991955,-0.4196307,-0.23534736,-0.03370724,-0.41452757,-0.1491088,-0.04806208,-0.1437206,-0.007871703,-0.05146289,-0.022604976,0.13948432,-0.02226467,-0.057732858,-0.04775522,0.016239334,0.00533284,-0.017269187,2.0,-0.41198984,2.0,-2.0,-0.12783085,2.0,2.0,-2.0,-2.0,-2.0,-2.0,-2.0,2.0,0.58298504,-2.0,-2.0,-1.0248078,-2.0,2.0,-2.0,-2.0,-2.0,-1.3325531,-2.0
2025-07-21 14:30:09.742,1.700000000000001,1700,85,-0.068569675,0.027229905,0.09319806,0.0018036193,0.12345258,0.017276326,1.5,0.0,0.0,0.006038536,0.0053452253,-0.47292754,0.067226686,-0.080748245,-0.26117447,0.32408068,0.08906916,-0.4378146,-0.25441423,-0.026436664,-0.4230048,-0.16161817,0.068941206,0.035882924,-0.037598398,-0.04098345,-0.06323239,-0.0575265,0.011761869,-0.03954493,-0.08515573,0.042942245,-0.008906626,-0.10048407,2.0,0.58298504,-2.0,-2.0,-1.0248078,-2.0,2.0,-2.0,-2.0,-2.0,-1.3325531,-2.0,2.0,-2.0,-2.0,-2.0,-1.2592692,2.0,2.0,-2.0,-2.0,-2.0,-1.0073115,-2.0
2025-07-21 14:30:09.759,1.720000000000001,1720,86,0.010485008,0.015581697,-0.017773025,0.023734596,0.10894102,0.009710909,1.5,0.0,0.0,0.0046727844,0.011421677,-0.5075255,0.06424619,-0.07685802,-0.29628626,0.31784666,0.1002327,-0.43345475,-0.25063932,-0.04596173,-0.421506,-0.19083786,0.030320667,-0.0034858317,-0.009983419,-0.039596744,-0.031065328,-0.03998577,-0.040833067,0.010548335,0.02783102,0.041801687,-0.0037741151,-0.060811758,2.0,-2.0,-2.0,-2.0,-1.2592692,2.0,2.0,-2.0,-2.0,-2.0,-1.0073115,-2.0,2.0,-0.38051417,2.0,-2.0,0.22228219,2.0,2.0,-2.0,-2.0,-2.0,-2.0,-2.0
2025-07-21 14:30:09.779,1.740000000000001,1740,87,-0.07139982,0.17113386,0.049823992,-0.04893554,0.10616237,0.023797693,1.5,0.0,0.0,0.0038241516,0.009871327,-0.51634693,0.06629922,-0.08407546,-0.32905343,0.33725575,0.09285843,-0.44020593,-0.2516105,-0.042281833,-0.42144284,-0.19905822,0.042153817,-0.057923052,0.03254653,-0.0093335705,-0.12644574,0.0009325171,-0.03264323,0.077107765,0.031090904,0.034014344,-0.066279665,-0.059646327,2.0,-0.38051417,2.0,-2.0,0.22228219,2.0,2.0,-2.0,-2.0,-2.0,-2.0,-2.0,2.0,0.47807387,-1.6681741,-2.0,-0.9331751,-1.6166979,2.0,-2.0,-2.0,-2.0,-1.3284304,-2.0
2025-07-21 14:30:09.797,1.7600000000000011,1760,88,-0.03744468,0.037568185,0.08907527,0.010035757,0.106489494,-0.00081614096,1.5,0.0,0.0,0.0031262552,0.005689342,-0.5443788,0.056316808,-0.06565069,-0.359333,0.33511406,0.10360953,-0.45480043,-0.25708786,-0.05199017,-0.41936094,-0.2282498,0.032965858,0.051720113,-0.08067795,0.06866931,0.006264745,-0.07441628,-0.0041228067,0.037725966,-0.079554595,-0.068531685,-0.018942444,0.014644155,2.0,0.47807387,-1.6681741,-2.0,-0.9331751,-1.6166979,2.0,-2.0,-2.0,-2.0,-1.3284304,-2.0,2.0,-2.0,-2.0,-2.0,-0.68771064,2.0,2.0,-2.0,-2.0,-2.0,-1.3756975,-2.0
2025-07-21 14:30:09.822,1.7800000000000011,1780,89,-0.01682665,-0.012481022,0.036674988,-0.0065982854,0.07533351,0.008688967,1.5,0.0,0.0,0.00207075,0.017160324,-0.53938746,0.044622004,-0.07820696,-0.3685874,0.32666495,0.11089365,-0.45405602,-0.25134,-0.053838864,-0.4339588,-0.24665071,0.07140058,0.017237786,-0.05076201,0.048625536,-0.020391425,-0.018629069,0.04083142,-0.08767846,0.003278555,0.06766452,0.019742073,-0.06730431,2.0,-2.0,-2.0,-2.0,-0.68771064,2.0,2.0,-2.0,-2.0,-2.0,-1.3756975,-2.0,2.0,-0.31624404,1.8804518,-2.0,0.5132225,2.0,2.0,-2.0,-2.0,-2.0,-2.0,-2.0
2025-07-21 14:30:09.843,1.8000000000000012,1800,90,-0.06878019,0.13990153,-0.032209706,0.042452782,0.054442223,-0.031445142,1.5,0.0,0.0,0.0015330238,0.01581124,-0.5645122,0.047483817,-0.07947111,-0.3766495,0.32780528,0.10634682,-0.4623018,-0.2695266,-0.07101685,-0.43667915,-0.25292614,-0.06732097,-0.015853964,0.03198704,0.057073843,-0.014009375,0.05713319,-0.039250724,-0.0063262987,-0.02084105,0.0076035336,-0.039780684,-0.05085661,2.0,-0.31624404,1.8804518,-2.0,0.5132225,2.0,2.0,-2.0,-2.0,-2.0,-2.0,-2.0,2.0,-0.31558165,2.0,-2.0,-0.802369,-2.0,2.0,-1.7655647,-2.0,-2.0,-1.6583467,-2.0
2025-07-21 14:30:09.861,1.8200000000000012,1820,91,-0.14934853,0.028600428,0.044686567,-0.049635552,0.14612037,0.01919578,1.5,0.0,0.0,0.0012174081,0.018567448,-0.57305247,0.073238924,-0.08034409,-0.40088966,0.31714028,0.10734052,-0.4474328,-0.2611037,-0.0840337,-0.43681857,-0.2417745,-0.07470633,-0.015253263,-0.012962404,0.03463619,-0.070848815,-0.017521534,-0.06746115,-0.060405888,0.048536543,-0.039526097,0.06782382,0.015851934,2.0,-0.31558165,2.0,-2.0,-0.802369,-2.0,2.0,-1.7655647,-2.0,-2.0,-1.6583467,-2.0,2.0,0.46004757,2.0,-2.0,-2.0,-1.0120922,2.0,-2.0,-2.0,-2.0,-1.5406827,-2.0
2025-07-21 14:30:09.879,1.8400000000000012,1840,92,-0.0705892,0.0037475247,0.18804696,0.008825019,0.08820668,-0.030817492,1.5,0.0,0.0,-0.00019307702,0.015780898,-0.57663023,0.07675094,-0.0667952,-0.40285572,0.31296402,0.08939972,-0.45094875,-0.27005202,-0.09936955,-0.4246712,-0.2556497,-0.047663935,0.055033565,0.038485236,0.013597187,0.03588133,-0.02391766,-0.055957,0.05348488,-0.014688948,-0.09243827,-0.07478113,0.046948295,2.0,0.46004757,2.0,-2.0,-2.0,-1.0120922,2.0,-2.0,-2.0,-2.0,-1.5406827,-2.0,2.0,-0.16042434,-2.0,-2.0,-1.0180237,1.4321125,2.0,-2.0,-2.0,-2.0,-1.7836905,-2.0
2025-07-21 14:30:09.897,1.8600000000000012,1860,93,0.08491327,-0.0021942288,0.12275569,-0.010488499,0.11318018,-0.045327317,1.5,0.0,0.0,-0.0028897612,0.026871983,-0.5835519,0.07096414,-0.0575027,-0.42188802,0.3169649,0.110199615,-0.4568348,-0.26893717,-0.093262516,-0.445436,-0.25792953,0.034486942,-0.06119423,0.03652738,0.07163937,-0.049613666,-0.046122864,0.06333756,0.039976865,0.008920125,-0.074407205,-0.06948034,-0.041321386,2.0,-0.16042434,-2.0,-2.0,-1.0180237,1.4321125,2.0,-2.0,-2.0,-2.0,-1.7836905,-2.0,2.0,-2.0,-2.0,-2.0,-0.011987671,2.0,2.0,-2.0,-2.0,-2.0,-1.3963445,-2.0
2025-07-21 14:30:09.919,1.8800000000000012,1880,94,-0.01185532,-0.0069118054,-0.038073633,0.0080374,0.07886605,-0.024164084,1.5,0.0,0.0,-0.005314211,0.043370012,-0.58847463,0.06508084,-0.04237318,-0.42822713,0.29891574,0.09652684,-0.45554927,-0.2675162,-0.0895516,-0.451843,-0.2725872,-0.062082406,0.032618005,-0.032926872,0.044438988,-0.07941136,-0.023142215,0.035424657,-0.08004085,0.050470844,-0.061407935,-0.0051199626,0.0045480505,2.0,-2.0,-2.0,-2.0,-0.011987671,2.0,2.0,-2.0,-2.0,-2.0,-1.3963445,-2.0,2.0,-0.77286893,2.0,-2.0,0.12848522,2.0,2.0,-2.0,-2.0,-2.0,-2.0,-2.0
2025-07-21 14:30:09.942,1.9000000000000012,1900,95,-0.075418115,0.07874624,0.0515478,-0.051522426,0.1283689,-0.045282416,1.5,0.0,0.0,-0.006259196,0.037671745,-0.5889909,0.077723905,-0.045946,-0.4361194,0.30820426,0.112219445,-0.45851195,-0.27138883,-0.10432087,-0.4608105,-0.25989202,-0.059191138,-0.08909016,-0.028498681,0.04650151,-0.05194406,0.055741325,0.016950151,-0.050162375,-0.027379384,0.02313025,0.062432017,0.03498199,2.0,-0.77286893,2.0,-2.0,0.12848522,2.0,2.0,-2.0,-2.0,-2.0,-2.0,-2.0,2.0,0.53353006,0.6508385,-2.0,-1.1125944,0.0936758,2.0,-2.0,-2.0,-2.0,-1.5329248,-2.0
2025-07-21 14:30:09.963,1.9200000000000013,1920,96,-0.02459272,-0.0020603049,0.01889261,-0.0036072116,0.06878991,-0.017659051,1.5,0.0,0.0,-0.006548053,0.043073483,-0.5958293,0.07073948,-0.043388035,-0.42312145,0.30534118,0.108798474,-0.44555902,-0.2552323,-0.09943614,-0.4527907,-0.2774656,-0.03859664,-0.037745077,0.033485226,0.07575789,0.0049678334,0.04749592,0.034652002,0.057164267,-0.023325797,0.06898032,-0.060957056,0.060637977,2.0,0.53353006,0.6508385,-2.0,-1.1125944,0.0936758,2.0,-2.0,-2.0,-2.0,-1.5329248,-2.0,2.0,-0.73818386,-2.0,-2.0,-0.665789,-1.0641955,2.0,-2.0,-2.0,-2.0,-2.0,-2.0
2025-07-21 14:30:09.998,1.9400000000000013,1940,97,0.014179583,-0.10900377,0.021953894,-0.029569589,0.1421563,0.0054077134,1.5,0.0,0.0,-0.0070502437,0.04785935,-0.59314907,0.0650416,-0.024921773,-0.43647262,0.2990819,0.11424062,-0.45333967,-0.2654157,-0.09743702,-0.44952202,-0.2594826,0.07197202,-0.0005522162,0.028417213,-0.054063678,-0.047170807,-0.07809655,-0.06372284,0.03596674,-0.04899199,-0.004174258,-0.0875314,0.037066832,2.0,-0.73818386,-2.0,-2.0,-0.665789,-1.0641955,2.0,-2.0,-2.0,-2.0,-2.0,-2.0,2.0,-1.3742312,-1.1376909,-2.0,-0.29858482,2.0,2.0,-2.0,-2.0,-2.0,-2.0,-2.0
2025-07-21 14:30:10.034,1.9600000000000013,1960,98,-0.038918175,-0.13730799,-0.03607502,0.0039873,0.13505241,-0.03952663,1.5,0.0,0.0,-0.0075481636,0.045280684,-0.5945859,0.054421723,-0.032473356,-0.42325008,0.2930321,0.112418875,-0.46377927,-0.26384163,-0.10625878,-0.4685416,-0.26500276,0.036896914,0.05325107,-0.08100043,-0.03083415,0.059565336,0.036494933,0.041078184,-0.059596673,0.029649956,-0.034452867,0.036613192,-0.015692903,2.0,-1.3742312,-1.1376909,-2.0,-0.29858482,2.0,2.0,-2.0,-2.0,-2.0,-2.0,-2.0,2.0,-0.7603582,2.0,-2.0,0.82635355,2.0,2.0,-2.0,-2.0,-2.0,-2.0,-2.0
2025-07-21 14:30:10.065,1.9800000000000013,1980,99,-0.039298113,0.039278682,-0.038681265,-0.03742663,0.10255651,0.04874454,1.5,0.0,0.0,-0.0074502407,0.047395512,-0.587647,0.06880238,-0.026865017,-0.41628906,0.2909495,0.1087528,-0.46326092,-0.25288287,-0.11418024,-0.46843806,-0.26415116,-0.037702043,-0.041807976,0.027794791,0.034978114,0.08543712,0.066884235,-0.05276351,0.029440356,0.01927595,-0.08239637,-0.041892096,0.05122069,2.0,-0.7603582,2.0,-2.0,0.82635355,2.0,2.0,-2.0,-2.0,-2.0,-2.0,-2.0,2.0,-0.54934865,2.0,-2.0,-1.3523031,-2.0,2.0,-1.974268,-2.0,-2.0,-1.7209716,-2.0
2025-07-21 14:30:10.092,2.0000000000000013,2000,100,-0.089046724,-0.02027,0.03662201,-0.0532111,0.08494247,0.0026034007,1.5,0.0,0.0,-0.00707865,0.030340437,-0.5965416,0.07638654,-0.036138844,-0.40705767,0.28489766,0.09674035,-0.4641128,-0.24185061,-0.1038419,-0.45559692,-0.26044068,0.017336281,-0.057508938,0.051892933,0.024126248,0.010325422,-0.07761923,0.013252601,0.05477699,0.055968426,0.019469446,0.05165435,0.050888687,2.0,-0.54934865,2.0,-2.0,-1.3523031,-2.0,2.0,-1.974268,-2.0,-2.0,-1.7209716,-2.0,2.0,0.55968726,2.0,-2.0,-1.5992266,0.38451666,2.0,-2.0,-2.0,-2.0,-2.0,-2.0
2025-07-21 14:30:10.116,2.0200000000000014,2020,101,0.012491649,0.026106097,0.112386055,-0.006586909,0.108440824,-0.031051135,1.5,0.0,0.0,-0.007559152,0.029185435,-0.5923259,0.08490234,-0.032728378,-0.39435992,0.27678257,0.106022656,-0.47534227,-0.23214135,-0.11575157,-0.45525262,-0.25125328,-0.009221555,0.017667077,0.01915449,-0.0005346448,0.051876567,0.018597225,-0.045937568,-0.0054203453,0.01611203,0.05709792,0.06927339,0.07835046,2.0,0.55968726,2.0,-2.0,-1.5992266,0.38451666,2.0,-2.0,-2.0,-2.0,-2.0,-2.0,2.0,0.15785445,-2.0,-2.0,-0.57051957,0.14119977,2.0,-2.0,-2.0,-2.0,-1.8106563,-2.0
2025-07-21 14:30:10.142,2.0400000000000014,2040,102,0.10117629,-0.1032164,0.029845964,0.0123234475,0.06023955,0.003520311,1.5,0.0,0.0,-0.008967124,0.045850534,-0.57837725,0.097367465,-0.014565286,-0.38769853,0.28128946,0.09999482,-0.47209913,-0.23602402,-0.123181485,-0.46638083,-0.24129628,0.0434976,0.054728474,-0.042615898,0.0045728977,0.05838402,0.037861004,0.07810969,-0.009484395,0.031642556,0.015716035,0.016843861,0.015440287,2.0,0.15785445,-2.0,-2.0,-0.57051957,0.14119977,2.0,-2.0,-2.0,-2.0,-1.8106563,-2.0,2.0,-2.0,-2.0,-2.0,-0.32463896,2.0,2.0,-2.0,-2.0,-2.0,-1.4828492,-2.0
2025-07-21 14:30:10.159,2.0600000000000014,2060,103,0.0008998758,-0.048781645,0.004333851,-0.05895898,0.055069,-0.0027940066,1.5,0.0,0.0,-0.010086259,0.047093086,-0.56920534,0.07430924,-0.016920513,-0.37601486,0.2743004,0.11327803,-0.45176983,-0.230479,-0.10515704,-0.46003613,-0.25132093,-0.02973622,0.029778551,-0.06371668,0.062018286,-0.034748226,0.0571088,0.032402076,0.020125883,-0.0689571,0.037549492,0.026330573,0.039982885,2.0,-2.0,-2.0,-2.0,-0.32463896,2.0,2.0,-2.0,-2.0,-2.0,-1.4828492,-2.0,2.0,-0.5559565,2.0,-2.0,0.26673615,2.0,2.0,-2.0,-2.0,-2.0,-2.0,-2.0
2025-07-21 14:30:10.180,2.0800000000000014,2080,104,-0.037183605,0.10100196,-0.0052150805,-0.057620674,0.07074658,0.0013258785,1.5,0.0,0.0,-0.009980465,0.041275196,-0.55965334,0.09049238,-0.012388298,-0.36307225,0.29096946,0.11575344,-0.46238676,-0.2168687,-0.09954155,-0.4477373,-0.24320157,-0.021919893,-0.033537637,-0.028151719,0.028204031,0.06812763,0.062256254,0.05344028,0.034164943,0.07944309,0.00866333,-0.035340674,0.033517558,2.0,-0.5559565,2.0,-2.0,0.26673615,2.0,2.0,-2.0,-2.0,-2.0,-2.0,-2.0,2.0,0.09789337,2.0,-2.0,-0.8183814,-2.0,2.0,-2.0,-2.0,-2.0,-1.7752905,-2.0
2025-07-21 14:30:10.197,2.1000000000000014,2100,105,-0.08340176,0.04819905,0.062387284,0.0031576424,0.117168516,0.032889698,1.5,0.0,0.0,-0.009317967,0.037967198,-0.5563501,0.088407345,-0.027690357,-0.35811177,0.28469315,0.10151739,-0.45063117,-0.20806631,-0.10936172,-0.45109347,-0.23806413,-0.033705577,0.011223491,0.048999276,-0.050673876,0.07168143,-0.032261595,-0.023024226,0.06345171,0.00404306,-0.044994663,0.06570822,-0.023898652,2.0,0.09789337,2.0,-2.0,-0.8183814,-2.0,2.0,-2.0,-2.0,-2.0,-1.7752905,-2.0,2.0,0.08704288,-0.061218172,-2.0,-1.9368855,-2.0,2.0,-2.0,-2.0,-2.0,-1.6529396,-2.0
2025-07-21 14:30:10.219,2.1200000000000014,2120,106,0.039390016,-0.080530144,0.10300663,-0.05097313,0.1339136,-0.007839442,1.5,0.0,0.0,-0.009485267,0.047027044,-0.55986416,0.102422446,-0.00937293,-0.35228106,0.26759833,0.08706849,-0.44624013,-0.20400324,-0.11661568,-0.43691087,-0.2383885,-0.03318019,0.08462505,-0.07860585,-0.042832926,0.017957294,-0.073686644,-0.085656665,0.06065627,-0.04822055,-0.021642797,0.015807819,-0.05406532,2.0,0.08704288,-0.061218172,-2.0,-1.9368855,-2.0,2.0,-2.0,-2.0,-2.0,-1.6529396,-2.0,2.0,-0.47675392,-2.0,-2.0,-1.0265056,2.0,2.0,-2.0,-2.0,-2.0,-1.883767,-2.0
2025-07-21 14:30:10.242,2.1400000000000015,2140,107,0.111936174,-0.12713203,-0.014592127,-0.00082491024,0.13117367,0.019746253,1.5,0.0,0.0,-0.0105220275,0.053886127,-0.5494457,0.094328165,0.0007286527,-0.3325982,0.26931545,0.09518982,-0.44458517,-0.21254657,-0.12115164,-0.45588598,-0.2123187,-0.014218528,0.060055204,0.026492473,0.051391114,-0.061113827,-0.07125337,-0.020971522,-0.058607593,0.026386289,0.053747088,0.043519784,0.014985276,2.0,-0.47675392,-2.0,-2.0,-1.0265056,2.0,2.0,-2.0,-2.0,-2.0,-1.883767,-2.0,2.0,-1.9170476,-2.0,-2.0,0.5897584,2.0,2.0,-2.0,-2.0,-2.0,-1.9216458,-2.0
2025-07-21 14:30:10.260,2.1600000000000015,2160,108,0.014822765,-0.025768526,-0.037473667,0.0050727604,0.04719726,0.04766842,1.5,0.0,0.0,-0.011033596,0.0546177,-0.5250221,0.07424392,-0.013248807,-0.3368078,0.2576113,0.096678436,-0.46243384,-0.19243662,-0.10166739,-0.46313193,-0.22082275,-0.06751681,0.03570307,-0.0585199,-0.05521097,0.06671823,0.04864849,-0.0018670609,0.055343073,0.027571114,0.06817322,-0.01590004,0.029460838,2.0,-1.9170476,-2.0,-2.0,0.5897584,2.0,2.0,-2.0,-2.0,-2.0,-1.9216458,-2.0,2.0,-0.79537237,2.0,-2.0,0.56137645,2.0,2.0,-2.0,-2.0,-2.0,-2.0,-2.0
2025-07-21 14:30:10.280,2.1800000000000015,2180,109,0.0018621226,0.08546617,-0.08180855,-0.01451127,0.051529802,-0.0005297658,1.5,0.0,0.0,-0.010250246,0.044799726,-0.5247976,0.084607355,-0.006791413,-0.30208552,0.27309668,0.10088067,-0.4610946,-0.20001552,-0.09976601,-0.4575689,-0.20305485,0.016505925,0.021167718,-0.031023059,-0.071225494,0.11589516,0.028571276,-0.03801802,-0.034802034,0.006923656,-0.054683,0.031269465,0.040352292,2.0,-0.79537237,2.0,-2.0,0.56137645,2.0,2.0,-2.0,-2.0,-2.0,-2.0,-2.0,2.0,-0.40579626,2.0,-2.0,-1.3010837,-2.0,2.0,-1.7432545,-2.0,-2.0,-1.8001343,-2.0
2025-07-21 14:30:10.298,2.2000000000000015,2200,110,-0.053653426,0.072100446,0.000113764174,-0.061829105,0.07356982,-0.03020383,1.5,0.0,0.0,-0.008980471,0.05110027,-0.5277203,0.08684655,-0.027400782,-0.2986388,0.2680065,0.10283605,-0.440354,-0.184085,-0.11605269,-0.44716558,-0.2024414,-0.07907571,0.035934627,-0.008279886,-0.06458089,0.09143348,0.0070435777,0.0048448676,-0.01220434,0.052444827,0.0071596988,-0.046468887,0.00027363058,2.0,-0.40579626,2.0,-2.0,-1.3010837,-2.0,2.0,-1.7432545,-2.0,-2.0,-1.8001343,-2.0,2.0,0.5430435,2.0,-2.0,-1.5367373,-2.0,2.0,-2.0,-2.0,-2.0,-1.8274112,-2.0
2025-07-21 14:30:10.321,2.2200000000000015,2220,111,0.025407685,-0.06205207,0.120183565,-0.031580947,0.07655262,-0.015653938,1.5,0.0,0.0,-0.008726833,0.03664475,-0.5128839,0.0981455,-0.020777563,-0.29329067,0.2748956,0.09129457,-0.44107616,-0.18541665,-0.11228853,-0.44083425,-0.20394628,-0.021628331,-0.03098677,0.011600113,-0.0018042085,0.029847927,0.043385964,0.034991056,0.06302153,0.087163225,0.007917523,0.018790448,-0.04062166,2.0,0.5430435,2.0,-2.0,-1.5367373,-2.0,2.0,-2.0,-2.0,-2.0,-1.8274112,-2.0,2.0,0.21046592,-2.0,-2.0,-1.4213096,1.3266327,2.0,-2.0,-2.0,-2.0,-1.7299439,-2.0
2025-07-21 14:30:10.343,2.2400000000000015,2240,112,0.1578622,-0.078115195,0.07228268,-0.042665467,0.10245175,-0.0341809,1.5,0.0,0.0,-0.009926377,0.043944642,-0.49902925,0.1013722,-0.008668123,-0.2884361,0.26243567,0.096024476,-0.44448623,-0.16939397,-0.110388845,-0.45091212,-0.19072804,0.046291426,0.07096181,-0.051991686,-0.04415825,-0.05281004,-0.06342293,0.026247196,-0.057124306,-0.04685149,0.08152475,-0.064091355,-0.03488115,2.0,0.21046592,-2.0,-2.0,-1.4213096,1.3266327,2.0,-2.0,-2.0,-2.0,-1.7299439,-2.0,2.0,-2.0,-2.0,-2.0,-0.021205649,2.0,2.0,-2.0,-2.0,-2.0,-1.6262321,-2.0
2025-07-21 14:30:10.360,2.2600000000000016,2260,113,0.07726551,-0.0035235854,-0.040002707,0.03122643,0.116748914,0.00810319,1.5,0.0,0.0,-0.011004216,0.049670853,-0.49336147,0.093878016,-0.011377926,-0.27755666,0.28423634,0.10761259,-0.44093323,-0.17236733,-0.10977962,-0.45118994,-0.17169346,-0.018747952,-0.046914432,-0.0817477,-0.058392663,-0.0053628455,-0.026575128,0.054377854,0.0169935,0.06930435,0.024076037,-0.048252467,0.008136652,2.0,-2.0,-2.0,-2.0,-0.021205649,2.0,2.0,-2.0,-2.0,-2.0,-1.6262321,-2.0,2.0,-0.3699701,2.0,-2.0,0.5091113,2.0,2.0,-2.0,-2.0,-2.0,-2.0,-2.0
2025-07-21 14:30:10.380,2.2800000000000016,2280,114,0.051808495,0.045217752,-0.05205409,-0.02854439,0.030533375,0.0014479449,1.5,0.0,0.0,-0.010732756,0.04072551,-0.4874841,0.0951741,-0.0120308045,-0.2730916,0.29700437,0.11163107,-0.4368421,-0.1773405,-0.10725826,-0.4588223,-0.1801224,0.009229357,0.079256944,0.010315085,0.01488038,-0.037822206,0.01452359,-0.049373306,-0.0033393365,0.0361172,0.0050939233,-0.017246705,0.023624515,2.0,-0.3699701,2.0,-2.0,0.5091113,2.0,2.0,-2.0,-2.0,-2.0,-2.0,-2.0,2.0,-0.34887615,2.0,-2.0,-0.9595181,-2.0,2.0,-1.6208751,-2.0,-2.0,-1.6151845,-2.0
2025-07-21 14:30:10.398,2.3000000000000016,2300,115,-0.030053943,0.051464543,0.021156978,0.038842607,0.08682183,-0.046005674,1.5,0.0,0.0,-0.009803624,0.052625902,-0.4858175,0.10850604,-0.0124553265,-0.25101206,0.28408277,0.093598224,-0.41216156,-0.16884023,-0.107935175,-0.44246164,-0.16161616,0.028410792,0.005200233,-0.022390949,-0.008430504,-0.028619675,0.010217833,-0.088482216,0.02891439,0.018544199,0.02076681,0.030970005,-0.035834037,2.0,-0.34887615,2.0,-2.0,-0.9595181,-2.0,2.0,-1.6208751,-2.0,-2.0,-1.6151845,-2.0,2.0,0.5036481,2.0,-2.0,-1.6982162,-2.0,2.0,-2.0,-2.0,-2.0,-1.6700416,-2.0
2025-07-21 14:30:10.420,2.3200000000000016,2320,116,-0.07707584,-0.040416304,0.09472704,0.02428013,0.13204837,0.015281555,1.5,0.0,0.0,-0.009730553,0.0494,-0.49276102,0.13410284,-0.02795603,-0.25336576,0.29739565,0.08630934,-0.4243479,-0.16081508,-0.1290744,-0.42800316,-0.1634135,-0.019489607,0.08509981,-0.036949854,0.03290995,-0.044147994,-0.04903619,-0.040719766,0.07109721,0.08457376,-0.067433506,-0.014113026,-0.046438105,2.0,0.5036481,2.0,-2.0,-1.6982162,-2.0,2.0,-2.0,-2.0,-2.0,-1.6700416,-2.0,2.0,0.48660347,-2.0,-2.0,-1.2163014,0.9603109,2.0,-2.0,-2.0,-2.0,-1.8388969,-2.0
2025-07-21 14:30:10.443,2.3400000000000016,2340,117,0.13860613,-0.1374454,0.04148166,-0.006120912,0.09901936,-0.010794533,1.5,0.0,0.0,-0.010978744,0.045535035,-0.4671051,0.118617825,-0.004431568,-0.23881237,0.28584534,0.09628256,-0.4077509,-0.16686402,-0.11879991,-0.44091612,-0.1613392,0.08774734,-0.007784065,-0.0028434817,0.0037359835,-0.011152502,0.039395668,0.0623277,0.060651567,-0.04660505,-0.041601185,0.009617568,0.0061027803,2.0,0.48660347,-2.0,-2.0,-1.2163014,0.9603109,2.0,-2.0,-2.0,-2.0,-1.8388969,-2.0,2.0,-2.0,-2.0,-2.0,-0.26094115,2.0,2.0,-2.0,-2.0,-2.0,-1.4544048,-2.0
2025-07-21 14:30:10.459,2.3600000000000017,2360,118,0.055090155,-0.055733718,-0.012962445,0.02439741,0.065682106,-0.041253597,1.5,0.0,0.0,-0.012095122,0.042236794,-0.4650555,0.10148833,0.002427149,-0.24845244,0.292979,0.09150082,-0.4145771,-0.17331108,-0.12276713,-0.4564455,-0.14822531,0.023963345,-0.03332196,-0.07657226,-0.07100136,0.07682685,0.002829632,-0.05397509,0.011211006,-0.07830546,0.0302039,0.016369341,0.021462595,2.0,-2.0,-2.0,-2.0,-0.26094115,2.0,2.0,-2.0,-2.0,-2.0,-1.4544048,-2.0,2.0,-0.31626725,2.0,-2.0,0.44454432,2.0,2.0,-2.0,-2.0,-2.0,-2.0,-2.0
2025-07-21 14:30:10.479,2.3800000000000017,2380,119,0.04430693,0.09472188,-0.045444816,0.0058639175,0.12756221,0.01361633,1.5,0.0,0.0,-0.011781378,0.044103917,-0.45801133,0.11005568,-0.009440356,-0.24203208,0.30996805,0.09559923,-0.40397406,-0.17456265,-0.12149569,-0.44294,-0.14871469,0.0056309267,0.006645479,-0.01592004,0.011993888,-0.011832132,0.07552292,-0.030172285,0.05135198,0.0146199465,0.057917148,-0.008683413,-0.018459585,2.0,-0.31626725,2.0,-2.0,0.44454432,2.0,2.0,-2.0,-2.0,-2.0,-2.0,-2.0,2.0,-0.19568686,1.6305248,-2.0,-0.9270412,-2.0,2.0,-1.6875893,-2.0,-2.0,-1.4612473,-2.0
2025-07-21 14:30:10.499,2.4000000000000017,2400,120,-0.10055958,0.0030992953,-0.039621454,-0.022961294,0.105006255,0.016630087,1.5,0.0,0.0,-0.010723222,0.04698786,-0.4668645,0.11473676,-0.015082532,-0.233226,0.31099117,0.08761614,-0.39592656,-0.17059164,-0.113310054,-0.4375949,-0.14676619,0.005689603,-0.027058462,-0.0067792926,0.0021237826,0.06305981,0.07113575,8.350103e-05,0.084865585,0.06893664,0.019875506,-0.0036482387,-0.069540724,2.0,-0.19568686,1.6305248,-2.0,-0.9270412,-2.0,2.0,-1.6875893,-2.0,-2.0,-1.4612473,-2.0,2.0,-0.11660211,2.0,-2.0,-1.8861728,-2.0,2.0,-2.0,-2.0,-2.0,-1.7392236,-2.0
2025-07-21 14:30:10.525,2.4200000000000017,2420,121,-0.083070375,0.02422202,0.05368171,0.017056594,0.10336205,0.040842175,1.5,0.0,0.0,-0.010397003,0.03679647,-0.4600016,0.13731489,-0.021088134,-0.2160423,0.29664296,0.09340671,-0.4056618,-0.17003888,-0.12278108,-0.42800936,-0.14834297,0.0294161,0.051939633,0.056723878,0.0048705325,-0.068786845,0.028887615,-0.053753905,-0.07661695,0.033029404,0.039431363,0.010044823,0.0164556,2.0,-0.11660211,2.0,-2.0,-1.8861728,-2.0,2.0,-2.0,-2.0,-2.0,-1.7392236,-2.0,2.0,0.9955501,-1.0410093,-2.0,-0.98008215,0.56297296,2.0,-2.0,-2.0,-2.0,-1.7978066,-2.0
2025-07-21 14:30:10.543,2.4400000000000017,2440,122,0.07870097,-0.033202868,0.030450728,0.057870504,0.0721651,-0.025004715,1.5,0.0,0.0,-0.011306279,0.03609131,-0.45256677,0.12611383,-0.024497392,-0.21897207,0.30772904,0.09074906,-0.40739483,-0.16196932,-0.12917177,-0.44428656,-0.14392656,0.011673365,0.083240665,0.032692038,0.095378466,-0.02999578,0.05963817,-0.0033252207,0.037876155,0.020352166,0.062247675,-0.069873534,0.039895445,2.0,0.9955501,-1.0410093,-2.0,-0.98008215,0.56297296,2.0,-2.0,-2.0,-2.0,-1.7978066,-2.0,2.0,-2.0,-2.0,-2.0,-0.6158291,-1.6260115,2.0,-1.7951183,-2.0,-2.0,-1.4154196,-2.0
2025-07-21 14:30:10.563,2.4600000000000017,2460,123,-0.037165716,-0.16636156,-0.04158984,0.034018,0.052576352,0.04525173,1.5,0.0,0.0,-0.012318231,0.03696699,-0.43982694,0.11222147,-0.0034545767,-0.21559131,0.28653994,0.09098162,-0.41155505,-0.16627187,-0.1326675,-0.45891452,-0.12752694,0.054375116,-0.0382899,-0.026627216,-0.041624837,0.07509841,-0.07022825,-0.016560223,0.038766965,0.04286711,-0.008168324,-0.032833103,0.036465537,2.0,-2.0,-2.0,-2.0,-0.6158291,-1.6260115,2.0,-1.7951183,-2.0,-2.0,-1.4154196,-2.0,2.0,-0.7666125,2.0,-2.0,-1.1528791,1.4063089,2.0,-2.0,-2.0,-2.0,-2.0,-2.0
2025-07-21 14:30:10.580,2.4800000000000018,2480,124,0.026446745,-0.00021934001,-0.021875288,0.013831926,0.09026129,0.0430746,1.5,0.0,0.0,-0.012662543,0.0498886,-0.44441646,0.106214374,-0.004429746,-0.22521807,0.2723832,0.08346917,-0.40732136,-0.16590254,-0.13787508,-0.4539166,-0.13377364,-0.023075955,-0.0715035,0.07227371,-0.037881155,-0.057132535,0.040393587,0.06679854,-0.07024992,0.0019156579,0.0072658835,0.015024955,-0.045667112,2.0,-0.7666125,2.0,-2.0,-1.1528791,1.4063089,2.0,-2.0,-2.0,-2.0,-2.0,-2.0,2.0,0.7312338,2.0,-2.0,-0.38286483,-2.0,2.0,-1.9575062,-2.0,-2.0,-1.9448575,-2.0
2025-07-21 14:30:10.599,2.5000000000000018,2500,125,-0.051374305,-0.017126244,0.018604517,-0.0073728026,0.053680036,-0.03100141,1.5,0.0,0.0,-0.012749063,0.04370523,-0.43282163,0.10601457,-0.018794678,-0.21560754,0.2744073,0.07553107,-0.42289752,-0.1834626,-0.15101728,-0.45493034,-0.14127743,0.015724849,-0.0018350446,0.051798917,-0.011759892,-0.040538028,-0.0018574727,-0.045668237,0.053536527,-0.026371855,-0.064500995,0.0702129,-0.0054981243,2.0,0.7312338,2.0,-2.0,-0.38286483,-2.0,2.0,-1.9575062,-2.0,-2.0,-1.9448575,-2.0,2.0,-0.4231992,-1.354051,-2.0,-2.0,-2.0,2.0,-1.8987124,-2.0,-2.0,-1.3979955,-2.0
2025-07-21 14:30:10.625,2.520000000000002,2520,126,-0.048856568,-0.111225374,0.076876916,0.021851765,0.11076832,-0.027988572,1.5,0.0,0.0,-0.013429012,0.050290074,-0.4447278,0.111549504,-0.008695968,-0.22322163,0.25692093,0.08174737,-0.41409224,-0.17055753,-0.14210843,-0.46488872,-0.14635384,0.011743382,0.0066741826,-0.0800745,0.039289143,0.03370201,0.025402594,0.069091074,-0.001933981,0.020455701,-0.043603707,-0.051651508,0.049895447,2.0,-0.4231992,-1.354051,-2.0,-2.0,-2.0,2.0,-1.8987124,-2.0,-2.0,-1.3979955,-2.0,2.0,-0.89458805,-2.0,-2.0,-0.38947642,2.0,2.0,-2.0,-2.0,-2.0,-1.9724796,-2.0
2025-07-21 14:30:10.642,2.540000000000002,2540,127,0.036403276,-0.072121166,-0.026417896,0.036119163,0.089211956,-0.0066717598,1.5,0.0,0.0,-0.0144000985,0.04358894,-0.4224037,0.0843996,-0.0015607144,-0.23815224,0.24870507,0.0742048,-0.43148938,-0.17714658,-0.15202416,-0.47777814,-0.13631663,-0.049956303,0.056481063,-0.08834767,0.027127082,-0.061548334,0.0029920728,0.008550925,-0.0013645086,-0.009137074,-0.0037640757,0.026124192,0.07273026,2.0,-0.89458805,-2.0,-2.0,-0.38947642,2.0,2.0,-2.0,-2.0,-2.0,-1.9724796,-2.0,2.0,-1.3072134,-0.15198198,-2.0,0.56630886,2.0,2.0,-2.0,-2.0,-2.0,-1.9684062,-2.0
2025-07-21 14:30:10.659,2.560000000000002,2560,128,-0.021046216,0.07093066,-0.043277204,0.06172676,0.04521124,-0.025287285,1.5,0.0,0.0,-0.0144079,0.043374777,-0.43799183,0.085411064,-0.008054905,-0.23238921,0.25694856,0.0794688,-0.4342939,-0.19295979,-0.13034782,-0.46987677,-0.14695643,0.06520174,-0.02822641,-0.064341925,0.06232431,-0.01500548,0.06480411,-0.009362348,-0.026233409,-0.07908015,0.013353393,-0.043666862,0.012530047,2.0,-1.3072134,-0.15198198,-2.0,0.56630886,2.0,2.0,-2.0,-2.0,-2.0,-1.9684062,-2.0,2.0,-0.67101514,2.0,-2.0,-0.64295113,-0.82965356,2.0,-2.0,-2.0,-2.0,-1.962128,-2.0
2025-07-21 14:30:10.679,2.580000000000002,2580,129,-0.054136544,0.060747832,-0.06901685,-0.013259208,0.01740662,-0.045289695,1.5,0.0,0.0,-0.013220946,0.04123835,-0.44198483,0.09021142,-0.008276722,-0.23222919,0.26733756,0.08694592,-0.43147594,-0.18296458,-0.12391953,-0.47061506,-0.13983156,0.050136853,0.017230716,0.08899193,0.04907637,0.05773304,-0.006522061,0.02062144,-0.05349209,0.007670956,-0.028787399,0.08208637,-0.030012632,2.0,-0.67101514,2.0,-2.0,-0.64295113,-0.82965356,2.0,-2.0,-2.0,-2.0,-1.962128,-2.0,2.0,0.015521545,2.0,-2.0,-1.8849878,-2.0,2.0,-1.8018444,-2.0,-2.0,-1.8027437,-2.0
2025-07-21 14:30:10.699,2.600000000000002,2600,130,-0.11314537,0.07355523,-0.008371501,-0.026985917,0.10646452,0.037946083,1.5,0.0,0.0,-0.012155398,0.036061753,-0.4549901,0.096631125,-0.017144164,-0.22441751,0.27174085,0.08139591,-0.4293242,-0.185757,-0.13085267,-0.46074703,-0.14262404,0.006940504,0.016936332,0.08225025,0.010706226,0.040948585,-0.059765536,-0.071441665,-0.038912702,0.04449957,-0.05796029,0.043636274,0.05721413,2.0,0.015521545,2.0,-2.0,-1.8849878,-2.0,2.0,-1.8018444,-2.0,-2.0,-1.8027437,-2.0,2.0,0.65586776,1.6061713,-2.0,-0.8477074,-2.0,2.0,-1.7530109,-2.0,-2.0,-1.8789316,-2.0
2025-07-21 14:30:10.732,2.620000000000002,2620,131,-0.004972188,0.004184474,0.06540418,-0.033112504,0.027741555,0.0050947564,1.5,0.0,0.0,-0.012345372,0.036492053,-0.45490065,0.11212942,-0.013558548,-0.23453932,0.26521274,0.08350882,-0.43072087,-0.17158347,-0.14408572,-0.46868953,-0.15391025,-0.0054231705,-0.0017989393,-0.006442657,-0.027213857,-0.037711535,-0.0045602783,-0.07126054,-0.023285763,0.030768428,0.010338328,0.051016476,-0.0031897132,2.0,0.65586776,1.6061713,-2.0,-0.8477074,-2.0,2.0,-1.7530109,-2.0,-2.0,-1.8789316,-2.0,2.0,-0.34481958,-2.0,-2.0,-2.0,-2.0,2.0,-2.0,-2.0,-2.0,-1.2739162,-2.0
2025-07-21 14:30:10.763,2.640000000000002,2640,132,0.04925977,-0.11739414,0.08066538,0.006024404,0.0145229595,-0.002181895,1.5,0.0,0.0,-0.013689671,0.05262841,-0.46122295,0.09776291,-0.011898928,-0.2427045,0.24383332,0.07135733,-0.42333093,-0.19156228,-0.1443313,-0.4691463,-0.15983334,0.060867917,-0.046795618,-0.016879797,-0.027088027,0.04087426,-0.08924203,0.0293584,-0.043374956,-0.07993944,-0.07648879,-0.08349662,0.020248132,2.0,-0.34481958,-2.0,-2.0,-2.0,-2.0,2.0,-2.0,-2.0,-2.0,-1.2739162,-2.0,2.0,-1.3191377,-2.0,-2.0,-0.42322218,2.0,2.0,-2.0,-2.0,-2.0,-1.7902137,-2.0
2025-07-21 14:30:10.783,2.660000000000002,2660,133,0.0323415,-0.051980153,0.008776481,-0.031885367,0.105720416,0.03760783,1.5,0.0,0.0,-0.015064794,0.05574787,-0.45717686,0.08868369,-0.001892804,-0.23470002,0.24897769,0.07721226,-0.4438114,-0.1908847,-0.14791317,-0.47675338,-0.164368,-0.032450944,-0.025543746,-0.008072477,0.026928699,-0.0391445,0.060210824,0.0792881,-0.06841266,0.014378586,-0.00590504,0.0051661134,-0.022247672,2.0,-1.3191377,-2.0,-2.0,-0.42322218,2.0,2.0,-2.0,-2.0,-2.0,-1.7902137,-2.0,2.0,-0.5940953,-0.10431686,-2.0,0.33753157,2.0,2.0,-2.0,-2.0,-2.0,-1.8468741,-2.0
2025-07-21 14:30:10.816,2.680000000000002,2680,134,0.020477334,0.061178733,-0.10915347,0.04160233,0.06742525,0.016613422,1.5,0.0,0.0,-0.015212532,0.06328033,-0.4585001,0.09073878,0.0043894616,-0.24676697,0.2588182,0.09532154,-0.433049,-0.19625336,-0.1270464,-0.47536957,-0.17155996,0.022154192,0.059658583,0.03144664,-0.061328888,0.05702969,-0.011939189,0.03905272,0.042635255,-0.003394611,0.044840906,0.09079189,-0.04394976,2.0,-0.5940953,-0.10431686,-2.0,0.33753157,2.0,2.0,-2.0,-2.0,-2.0,-1.8468741,-2.0,2.0,-1.6562215,2.0,-2.0,-0.36842215,-2.0,2.0,-1.7168517,-2.0,-2.0,-2.0,-2.0
2025-07-21 14:30:10.847,2.700000000000002,2700,135,-0.1780927,0.010071324,-0.03620122,0.04477708,0.09007844,0.018582076,1.5,0.0,0.0,-0.01412831,0.05065128,-0.470821,0.1090263,-0.00092360954,-0.23725644,0.2549751,0.07752896,-0.4460895,-0.20157011,-0.13812453,-0.47683218,-0.17355725,0.065829076,-0.11921798,0.0011580563,-0.074634306,0.007223854,0.005148055,-0.062587894,-0.012503978,0.04924212,0.031271514,0.07515695,-0.066629924,2.0,-1.6562215,2.0,-2.0,-0.36842215,-2.0,2.0,-1.7168517,-2.0,-2.0,-2.0,-2.0,2.0,0.7990084,2.0,-2.0,-2.0,-2.0,2.0,-2.0,-2.0,-2.0,-1.5637492,-2.0
2025-07-21 14:30:10.879,2.720000000000002,2720,136,-0.054984722,0.006147631,-0.007228987,-0.018913278,0.027852586,0.04612139,0.0,0.0,0.0,-0.013279521,0.043441586,-0.47752964,0.114954144,-0.021099703,-0.23002523,0.25192782,0.08814041,-0.44729078,-0.19970079,-0.14394902,-0.4625497,-0.1826769,0.036260713,-0.035959437,0.016951991,-0.07034443,-0.0006496477,-0.03021437,-0.07583783,0.022427987,-0.040528987,0.026338233,0.07085747,-0.006535547,2.0,0.7990084,2.0,-2.0,-2.0,-2.0,2.0,-2.0,-2.0,-2.0,-1.5637492,-2.0,2.0,2.0,-0.16573992,-2.0,2.0,-2.0,2.0,-2.0,-2.0,-2.0,-2.0,-2.0
2025-07-21 14:30:10.898,2.740000000000002,2740,137,-0.029993702,-0.052417785,0.030772977,-0.04075563,0.09744369,0.0032779397,0.0,0.0,0.0,-0.013527149,0.057136774,-0.45694196,0.107126474,-0.0034899397,-0.21967182,0.21382374,0.085230015,-0.4381311,-0.19030094,-0.13334805,-0.45325664,-0.1919553,-0.046945486,0.045530118,0.040237166,0.031230457,0.06878029,-0.032454956,-0.0627291,-0.051488627,0.01412529,-0.009928122,0.08167318,-6.1114624e-05,2.0,2.0,-0.16573992,-2.0,2.0,-2.0,2.0,-2.0,-2.0,-2.0,-2.0,-2.0,2.0,1.6255192,-2.0,-2.0,1.3987157,-2.0,2.0,-2.0,-2.0,-2.0,-1.5086787,-2.0
2025-07-21 14:30:10.931,2.760000000000002,2760,138,-0.06732611,-0.15716773,0.020931106,-0.0127223795,0.052919295,0.04039132,0.0,0.0,0.0,-0.014125956,0.060286336,-0.42751327,0.0929035,-0.007635767,-0.19931182,0.1793509,0.089523956,-0.44380262,-0.2027191,-0.12693639,-0.44067076,-0.19968258,-0.031407256,0.061440136,-0.032878876,0.008532299,0.10848892,-0.04910706,-0.00050065556,0.032324612,0.036718067,-0.039266594,-0.02166762,-0.039170854,2.0,1.6255192,-2.0,-2.0,1.3987157,-2.0,2.0,-2.0,-2.0,-2.0,-1.5086787,-2.0,2.0,1.2152709,-2.0,-2.0,2.0,-2.0,2.0,-2.0,-2.0,-2.0,-2.0,-2.0
2025-07-21 14:30:10.950,2.780000000000002,2780,139,-0.07719303,-0.18965021,-0.016028386,0.024543036,0.036957618,-0.042295814,0.0,0.0,0.0,-0.014134594,0.052566383,-0.40587676,0.04895248,-0.013607028,-0.15559547,0.13799235,0.0858611,-0.42555064,-0.21285649,-0.13152976,-0.43653983,-0.21594104,0.044134416,0.10836316,-0.07722335,0.027088936,0.096942544,-0.15182823,0.07281009,0.00634474,-0.07790375,0.041754216,0.03613575,-0.026068136,2.0,1.2152709,-2.0,-2.0,2.0,-2.0,2.0,-2.0,-2.0,-2.0,-2.0,-2.0,2.0,1.8249667,-2.0,-2.0,2.0,-2.0,2.0,-2.0,-2.0,-2.0,-1.9120455,-2.0
2025-07-21 14:30:10.980,2.800000000000002,2800,140,0.0036750697,-0.2191689,-0.062893815,0.0012350789,0.03504749,-0.040878247,0.0,0.0,0.0,-0.013554604,0.0611637,-0.36958298,-0.011187047,-0.013681635,-0.12791198,0.0772288,0.092569776,-0.42443022,-0.22373642,-0.12454862,-0.43667313,-0.2275701,0.019577896,0.1274599,-0.09958291,-0.0021915378,0.16111182,-0.12728646,-0.011099588,-0.06693664,0.04764502,0.05154571,0.03226149,0.04838153,2.0,1.8249667,-2.0,-2.0,2.0,-2.0,2.0,-2.0,-2.0,-2.0,-1.9120455,-2.0,2.0,1.3886378,-2.0,-2.0,2.0,-2.0,2.0,-2.0,-2.0,-2.0,-1.6675261,-2.0
2025-07-21 14:30:11.000,2.820000000000002,2820,141,-0.09057059,-0.2130159,-0.046052724,-0.014417761,0.01502525,0.017019948,3.0,0.0,0.0,-0.012558047,0.057727493,-0.3234739,-0.05955655,-0.017529586,-0.067102425,0.02073943,0.115670756,-0.43772283,-0.23440854,-0.12000787,-0.41924167,-0.2346542,0.05394655,0.18000759,-0.13779557,-0.016052598,0.19161724,-0.08689616,-0.024099678,0.021189483,-0.0018706736,0.0030587616,-0.023053268,-0.061831027,2.0,1.3886378,-2.0,-2.0,2.0,-2.0,2.0,-2.0,-2.0,-2.0,-1.6675261,-2.0,2.0,-0.09143101,-2.0,-2.0,0.1313516,-2.0,2.0,-1.3085518,-2.0,-2.0,-0.4303744,-2.0
2025-07-21 14:30:11.031,2.840000000000002,2840,142,-0.0695686,-0.06442257,-0.103383295,-0.04073449,-0.024596175,0.038309753,3.0,0.0,0.0,-0.011308528,0.042738467,-0.27897695,-0.101643525,-0.011901636,-0.018507823,-0.035795305,0.11961266,-0.42529967,-0.22934324,-0.11224226,-0.4011309,-0.23004359,-0.041798133,0.100071214,-0.1257459,-0.07492704,0.11737304,-0.019323342,-0.06214835,0.047429133,0.03489419,0.023172809,0.133109,-0.00951964,2.0,-0.09143101,-2.0,-2.0,0.1313516,-2.0,2.0,-1.3085518,-2.0,-2.0,-0.4303744,-2.0,2.0,-0.03876267,1.9426757,-2.0,0.49023807,-2.0,2.0,-1.3418415,-2.0,-2.0,-1.5299037,-2.0
2025-07-21 14:30:11.062,2.860000000000002,2860,143,-0.109898426,-0.06827219,-0.07682348,0.029328482,-0.05810441,0.032396022,3.0,0.0,0.0,-0.009893028,0.036247063,-0.25635165,-0.05257808,-0.017617038,0.019237349,-0.053760722,0.11506733,-0.39420596,-0.22036196,-0.10242832,-0.3651296,-0.24146077,0.078849606,0.07416033,0.19940758,-0.061286096,0.16179734,0.0040814965,0.04212038,-0.014458969,0.06520992,0.069063775,0.10773391,0.047768027,2.0,-0.03876267,1.9426757,-2.0,0.49023807,-2.0,2.0,-1.3418415,-2.0,-2.0,-1.5299037,-2.0,2.0,2.0,2.0,-2.0,0.47392273,-2.0,2.0,-1.3019345,-2.0,-2.0,-1.4596744,-2.0
2025-07-21 14:30:11.083,2.880000000000002,2880,144,-0.09036553,-0.009282232,-0.042894833,-0.030563284,-0.036697447,0.043706555,3.0,0.0,0.0,-0.008884372,0.05206244,-0.13384345,0.008069235,-0.017678557,0.04266952,-0.082582735,0.1047866,-0.3783499,-0.21917059,-0.10945776,-0.3591313,-0.23940702,-0.03259132,0.2973055,0.15380293,0.06018274,0.063389055,-0.06362758,0.040515404,0.071139485,0.06431453,0.055004857,0.02286186,0.056099873,2.0,2.0,2.0,-2.0,0.47392273,-2.0,2.0,-1.3019345,-2.0,-2.0,-1.4596744,-2.0,2.0,2.0,-2.0,-2.0,0.4633137,-2.0,2.0,-0.87670165,-2.0,-2.0,-1.0386379,-2.0
2025-07-21 14:30:11.113,2.900000000000002,2900,145,-0.07326781,0.09823935,0.0065398747,0.016531989,0.008817015,0.020346055,3.0,0.0,0.0,-0.008566418,0.047358423,0.028516918,-0.0012490212,-0.037496246,0.06967301,-0.069259584,0.10493761,-0.37152293,-0.19860554,-0.11225885,-0.3372415,-0.21698995,0.08423142,0.4452005,-0.1149135,-0.07502546,0.0017729003,0.048965722,-0.06271556,-0.021621961,0.10109687,0.06448238,0.02231086,0.10246304,2.0,2.0,-2.0,-2.0,0.4633137,-2.0,2.0,-0.87670165,-2.0,-2.0,-1.0386379,-2.0,2.0,0.06389727,-2.0,-2.0,0.98087215,-0.9185751,2.0,-1.208054,-2.0,-2.0,-0.37030718,-2.0
2025-07-21 14:30:11.146,2.920000000000002,2920,146,-0.024923433,0.16230437,-0.042119328,0.009072385,0.023883367,-0.004763472,3.0,0.0,0.0,-0.008663681,0.06277706,0.102188855,-0.016178334,-0.021781912,0.09686156,-0.06493331,0.105129965,-0.35079992,-0.18849564,-0.11289461,-0.30710194,-0.21115421,0.018515643,0.08656187,0.040560395,-0.043820944,0.12906441,-0.024936004,0.04686926,0.057205107,0.0066662882,0.027398791,0.120278694,0.07939355,2.0,0.06389727,-2.0,-2.0,0.98087215,-0.9185751,2.0,-1.208054,-2.0,-2.0,-0.37030718,-2.0,2.0,-0.3890178,-2.0,-2.0,0.48234737,-1.1444283,2.0,-0.65687543,-2.0,-2.0,-1.2645992,-2.0
2025-07-21 14:30:11.166,2.940000000000002,2940,147,0.02181544,0.09129736,-0.07292303,-0.041660048,-0.004556238,0.0065874695,3.0,0.0,0.0,-0.008433246,0.059837252,0.12786518,0.023291249,-0.023880081,0.11577563,-0.044580348,0.1007622,-0.33659115,-0.15750958,-0.103577375,-0.29574215,-0.18803929,-0.05634753,-0.0009859614,0.0668088,-0.050374154,0.048159126,0.025872827,0.004107858,0.010702775,0.08356966,0.043448973,0.0431123,0.011021246,2.0,-0.3890178,-2.0,-2.0,0.48234737,-1.1444283,2.0,-0.65687543,-2.0,-2.0,-1.2645992,-2.0,2.0,0.3650749,-2.0,-2.0,-0.052706823,-0.67468697,2.0,-0.7328691,-2.0,-2.0,-1.0557173,-2.0
2025-07-21 14:30:11.192,2.960000000000002,2960,148,0.13776319,0.033030353,0.011138632,-0.053868648,0.028458688,-0.024325771,3.0,0.0,0.0,-0.007759135,0.055217844,0.13646771,0.03558515,-0.026156597,0.13636597,-0.022905285,0.10366639,-0.31720114,-0.15260543,-0.10002909,-0.28513855,-0.18149555,0.07725835,0.02210234,0.017663363,0.04538457,-0.003755778,0.12916878,0.048646033,-0.05265565,0.09605481,-0.046086278,0.030766793,0.048311606,2.0,0.3650749,-2.0,-2.0,-0.052706823,-0.67468697,2.0,-0.7328691,-2.0,-2.0,-1.0557173,-2.0,2.0,0.12131782,-2.0,-2.0,0.5952767,2.0,2.0,-1.2899061,-2.0,-2.0,-0.7169158,-2.0
2025-07-21 14:30:11.209,2.980000000000002,2980,149,0.12541956,0.104891315,-0.0634494,-0.05050353,-0.0064091817,0.035011347,3.0,0.0,0.0,-0.0072278725,0.07584308,0.15556376,0.057748243,-0.045643635,0.1239311,0.043800436,0.120694965,-0.31076512,-0.11901966,-0.08852855,-0.26796615,-0.15743777,0.03152052,0.056997877,0.08018539,-0.087022014,-0.072082035,0.22561315,0.004990534,0.038900014,0.023783682,0.059248064,-0.037669506,0.123866335,2.0,0.12131782,-2.0,-2.0,0.5952767,2.0,2.0,-1.2899061,-2.0,-2.0,-0.7169158,-2.0,2.0,0.61735094,-2.0,-2.0,1.0533522,-2.0,2.0,-0.8443479,-2.0,-2.0,-1.5475107,-2.0
2025-07-21 14:30:11.227,3.000000000000002,3000,150,0.076565675,0.008603495,-0.031165102,-0.0017748495,-0.025756424,-0.035498157,3.0,0.0,0.0,-0.0064239763,0.070101984,0.15017399,0.073652215,-0.044705804,0.15226088,0.040372916,0.12195379,-0.31387097,-0.11047317,-0.093635,-0.26986519,-0.11517152,-7.140852e-05,0.041471586,0.016404048,-0.029574629,0.10638041,-0.011628344,0.071947046,0.07053176,0.081936724,-0.023655709,-0.038632084,0.06671313,2.0,0.61735094,-2.0,-2.0,1.0533522,-2.0,2.0,-0.8443479,-2.0,-2.0,-1.5475107,-2.0,2.0,0.14054443,-2.0,-2.0,0.33079612,-2.0,2.0,-0.9442162,-2.0,-2.0,-0.7957229,-2.0
2025-07-21 14:30:11.247,3.0200000000000022,3020,151,0.057227626,0.005287118,0.013606579,-0.021113653,0.057193466,-0.00086640945,3.0,0.0,0.0,-0.0055800457,0.06521366,0.17350428,0.09747878,-0.054976482,0.15803641,0.058160283,0.12853672,-0.31597283,-0.09355864,-0.0760727,-0.26606685,-0.11023624,-0.069739014,0.07146519,-0.0033260887,0.04907034,-0.00065119076,0.09137077,0.057322916,0.07233426,0.0031594592,0.0053990725,0.06198502,0.015054979,2.0,0.14054443,-2.0,-2.0,0.33079612,-2.0,2.0,-0.9442162,-2.0,-2.0,-0.7957229,-2.0,2.0,-0.33269545,-2.0,-2.0,0.3194139,2.0,2.0,-1.0193744,-2.0,-2.0,-1.0158058,-2.0
2025-07-21 14:30:11.267,3.0400000000000023,3040,152,0.15226172,0.070162036,-0.028361963,-0.037013263,-0.020147812,-0.040342692,3.0,0.0,0.0,-0.005025941,0.06704488,0.18101488,0.10947457,-0.062269166,0.15088065,0.09904598,0.12799446,-0.30501115,-0.07188295,-0.08467807,-0.2786794,-0.086565524,-0.00479838,-0.03264761,0.039366923,-0.015125447,-0.056325395,0.141916,0.07264885,-0.0050835484,0.030435605,0.080576554,-0.0133295795,0.076376304,2.0,-0.33269545,-2.0,-2.0,0.3194139,2.0,2.0,-1.0193744,-2.0,-2.0,-1.0158058,-2.0,2.0,0.4434159,-2.0,-2.0,0.9392232,0.31814903,2.0,-1.1263674,-2.0,-2.0,-1.2004952,-2.0
2025-07-21 14:30:11.292,3.0600000000000023,3060,153,0.057158772,0.044851184,-0.060597487,-0.028866325,-0.009059588,0.0023616797,3.0,0.0,0.0,-0.004237354,0.058028344,0.17972285,0.11328492,-0.06605564,0.14128928,0.13112171,0.13958724,-0.30904347,-0.07872778,-0.07261733,-0.27551907,-0.07232651,-0.0068494068,0.07494713,0.019935535,-0.06731487,-0.043764535,0.04011844,0.07487371,-0.034229655,0.0041319053,0.029748915,-0.06611364,0.115981534,2.0,0.4434159,-2.0,-2.0,0.9392232,0.31814903,2.0,-1.1263674,-2.0,-2.0,-1.2004952,-2.0,2.0,0.0052364357,-2.0,-2.0,0.33980703,-2.0,2.0,-0.8594127,-2.0,-2.0,-1.016286,-2.0
2025-07-21 14:30:11.309,3.0800000000000023,3080,154,-0.0043663788,-0.022187693,0.0034886112,0.032280087,0.02519598,-0.025255073,3.0,0.0,0.0,-0.003132931,0.05282924,0.18201028,0.120863326,-0.07150173,0.15333343,0.145493,0.14030704,-0.30666968,-0.068602435,-0.083511874,-0.28422144,-0.050590068,0.01679262,-0.029608142,0.022065628,0.03241426,0.042692453,-0.014761522,-0.061132606,-0.021339279,-0.055781506,-0.06513856,-0.056365207,0.07020585,2.0,0.0052364357,-2.0,-2.0,0.33980703,-2.0,2.0,-0.8594127,-2.0,-2.0,-1.016286,-2.0,2.0,-0.16852258,-2.0,-2.0,0.56182456,1.2072401,2.0,-0.9710132,-2.0,-2.0,-1.0021408,-2.0
2025-07-21 14:30:11.329,3.1000000000000023,3100,155,0.14098886,0.07481881,-0.081355475,0.017488211,0.033613052,0.011532231,3.0,0.0,0.0,-0.0022697262,0.06293792,0.18685064,0.1147309,-0.07620012,0.14134662,0.16018113,0.14346513,-0.30287233,-0.07163637,-0.08286963,-0.2682984,-0.04862483,-0.023577157,-0.020806368,-0.012077331,0.036786847,-0.049007602,0.052303128,0.062092688,0.042731028,-0.058707733,-0.049481735,0.05868539,-0.011234488,2.0,-0.16852258,-2.0,-2.0,0.56182456,1.2072401,2.0,-0.9710132,-2.0,-2.0,-1.0021408,-2.0,2.0,0.4717647,-2.0,-2.0,0.74322057,-0.96568924,2.0,-1.1306078,-2.0,-2.0,-1.3491547,-2.0
2025-07-21 14:30:11.347,3.1200000000000023,3120,156,0.026953584,-0.071347184,-0.010477182,-0.020415552,0.014956688,0.017563818,3.0,0.0,0.0,-0.0013932318,0.058451764,0.18017681,0.11253525,-0.08152021,0.13586062,0.17056467,0.15688872,-0.29472685,-0.07397896,-0.074780755,-0.28868255,-0.020232877,-0.04262831,0.05231401,-0.023358438,-0.046915654,0.048266686,-0.040048048,0.028663326,0.07032312,-0.074612565,0.0071355295,0.0554328,-0.019494664,2.0,0.4717647,-2.0,-2.0,0.74322057,-0.96568924,2.0,-1.1306078,-2.0,-2.0,-1.3491547,-2.0,2.0,-0.21168695,-2.0,-2.0,0.29587018,-0.46610886,2.0,-1.1617565,-2.0,-2.0,-0.772881,-2.0
2025-07-21 14:30:11.367,3.1400000000000023,3140,157,0.049393855,-0.03946732,-0.013244006,0.059734773,0.030682854,0.04780432,3.0,0.0,0.0,-0.00056072196,0.048406478,0.1899447,0.096601374,-0.09794549,0.13928495,0.16878115,0.1395138,-0.30090714,-0.07425781,-0.07404191,-0.29659185,-0.033442218,-0.0704608,-0.06009116,-0.086644486,-0.030771215,0.00450544,-0.056655288,0.013407249,0.0012364617,-0.076231666,0.0025471628,-0.080494486,-0.05609801,2.0,-0.21168695,-2.0,-2.0,0.29587018,-0.46610886,2.0,-1.1617565,-2.0,-2.0,-0.772881,-2.0,2.0,0.17922671,-2.0,-2.0,0.73677206,2.0,2.0,-0.94724315,-2.0,-2.0,-0.9635263,-2.0
2025-07-21 14:30:11.392,3.1600000000000024,3160,158,0.13006067,0.08828005,-0.026032938,0.0066956887,0.0008358409,0.028429642,3.0,0.0,0.0,0.00019031983,0.042643007,0.18884286,0.10905166,-0.100207195,0.13459611,0.1973359,0.14184004,-0.29355517,-0.07137223,-0.07502647,-0.2948773,-0.023761109,0.027871983,-0.052656543,0.012476813,0.040517956,-0.031783585,0.1293186,0.055283893,0.004880937,-0.04401685,-0.046053782,-0.019560542,0.052436277,2.0,0.17922671,-2.0,-2.0,0.73677206,2.0,2.0,-0.94724315,-2.0,-2.0,-0.9635263,-2.0,2.0,0.35384896,-2.0,-2.0,1.3272656,-2.0,2.0,-1.2244657,-2.0,-2.0,-1.1118492,-2.0
2025-07-21 14:30:11.408,3.1800000000000024,3180,159,0.017049178,0.0032596726,-0.08570059,0.045379635,0.046046477,-0.047211215,3.0,0.0,0.0,0.0012409526,0.023502305,0.17881314,0.096833706,-0.09967875,0.13809536,0.18892506,0.14454807,-0.28375152,-0.09304072,-0.06731771,-0.28037307,-0.026796868,0.0004328802,-0.07851745,-0.08300044,0.031148707,0.019153398,0.014781013,0.041013468,-0.041661553,-0.05646769,-0.03175626,0.057165124,0.009987153,2.0,0.35384896,-2.0,-2.0,1.3272656,-2.0,2.0,-1.2244657,-2.0,-2.0,-1.1118492,-2.0,2.0,0.22926737,-2.0,-2.0,0.30037177,-2.0,2.0,-1.0512282,-2.0,-2.0,-0.9581039,-2.0
2025-07-21 14:30:11.427,3.2000000000000024,3200,160,-0.021615803,-0.07149198,0.029224118,0.052845918,0.08974715,0.04770473,3.0,0.0,0.0,0.0022990133,0.032104064,0.17818499,0.084194675,-0.114581406,0.12289754,0.18908781,0.15235436,-0.29826632,-0.10093261,-0.07431661,-0.29142073,-0.021484837,-0.049942277,0.006504553,0.0039415834,0.02215842,-0.035503887,0.0017251957,-0.04644879,0.031748973,-0.02207223,-0.081953414,0.0023147622,-0.065809615,2.0,0.22926737,-2.0,-2.0,0.30037177,-2.0,2.0,-1.0512282,-2.0,-2.0,-0.9581039,-2.0,2.0,-0.08255844,-2.0,-2.0,0.72316384,1.6039491,2.0,-1.3441236,-2.0,-2.0,-0.8450816,-2.0
2025-07-21 14:30:11.447,3.2200000000000024,3220,161,0.017307239,-0.050277233,-0.03332974,0.04265847,0.0075616282,-0.04398995,3.0,0.0,0.0,0.0029339746,0.024147322,0.17813003,0.0741636,-0.117985144,0.12409909,0.18465815,0.15429361,-0.29409614,-0.107903965,-0.06384087,-0.29572052,-0.03358319,0.012652786,0.0028604274,0.00082060363,-0.032544572,0.04621434,0.024539521,0.07000706,-0.06916441,-0.095313296,-0.019457942,0.018598009,0.05004415,2.0,-0.08255844,-2.0,-2.0,0.72316384,1.6039491,2.0,-1.3441236,-2.0,-2.0,-0.8450816,-2.0,2.0,-0.1356437,-2.0,-2.0,1.2720488,-2.0,2.0,-0.8557478,-2.0,-2.0,-1.1598666,-2.0
2025-07-21 14:30:11.467,3.2400000000000024,3240,162,-0.029649347,-0.039499935,-0.0656778,0.0072357287,0.0039818594,-0.036457255,3.0,0.0,0.0,0.0036881869,0.0048842737,0.17350408,0.062101588,-0.11456338,0.12606828,0.1744213,0.14678694,-0.28874078,-0.12577957,-0.076603316,-0.2945374,-0.040534165,-0.039068907,-0.084344864,0.038672704,-0.01329434,-0.018274372,-0.07456374,0.032256033,-0.06586708,0.007204816,0.023558037,-0.06358633,-0.011798507,2.0,-0.1356437,-2.0,-2.0,1.2720488,-2.0,2.0,-0.8557478,-2.0,-2.0,-1.1598666,-2.0,2.0,0.039577026,-2.0,-2.0,0.4747162,-2.0,2.0,-0.99822265,-2.0,-2.0,-1.15789,-2.0
2025-07-21 14:30:11.492,3.2600000000000025,3260,163,-0.048801597,-0.12698881,0.043745756,0.08197814,0.05580419,0.0013577348,3.0,0.0,0.0,0.004550905,0.017528001,0.17139043,0.049415454,-0.122765265,0.11322824,0.15947267,0.14629272,-0.29447132,-0.12214572,-0.08060661,-0.30172935,-0.047575284,0.014461016,-0.018972881,0.023319101,-0.016828919,-0.018347133,0.023579104,0.010292868,-0.011789314,0.008687974,-0.07935945,-0.04768834,-0.08310684,2.0,0.039577026,-2.0,-2.0,0.4747162,-2.0,2.0,-0.99822265,-2.0,-2.0,-1.15789,-2.0,2.0,0.08552159,-2.0,-2.0,0.77633744,1.84883,2.0,-1.5057124,-2.0,-2.0,-0.7435532,-2.0
2025-07-21 14:30:11.509,3.2800000000000025,3280,164,0.076328136,0.05792209,-0.015688412,0.038274173,-0.0048739174,0.032518223,3.0,0.0,0.0,0.004962055,0.011335696,0.14655726,0.026522264,-0.1350205,0.114315875,0.17668359,0.14436585,-0.30524257,-0.13109678,-0.07709303,-0.310451,-0.060328014,-0.017293492,-0.03653465,0.00374574,0.012806656,-0.06762525,0.05950892,0.06982075,0.03595084,-0.096776,-0.040477987,-0.035195682,-0.06028902,2.0,0.08552159,-2.0,-2.0,0.77633744,1.84883,2.0,-1.5057124,-2.0,-2.0,-0.7435532,-2.0,2.0,0.26370442,-2.0,-2.0,1.6648674,-2.0,2.0,-0.7578026,-2.0,-2.0,-1.0478039,-2.0
2025-07-21 14:30:11.528,3.3000000000000025,3300,165,-0.052537803,0.061723024,0.017829232,0.074110225,0.031708766,-0.016009483,3.0,0.0,0.0,0.005533214,-0.003398954,0.14510748,0.018206561,-0.1358792,0.113046825,0.15775324,0.13812964,-0.301467,-0.15012804,-0.06702125,-0.3073115,-0.066691875,-0.04515824,-0.053174943,0.046735317,0.035355832,-0.015584717,-0.030175263,0.06758371,0.06558369,-0.014454189,-0.071949795,-0.03146183,-0.04749031,2.0,0.26370442,-2.0,-2.0,1.6648674,-2.0,2.0,-0.7578026,-2.0,-2.0,-1.0478039,-2.0,2.0,-0.10817729,-2.0,-2.0,1.1693163,-2.0,2.0,-1.3162332,-2.0,-2.0,-0.9924343,-2.0
2025-07-21 14:30:11.548,3.3200000000000025,3320,166,-0.08159758,-0.020798735,0.013241691,0.060627304,0.03171041,0.012145527,3.0,0.0,0.0,0.0062380987,-0.0077770604,0.1541714,0.022498664,-0.12850237,0.113496326,0.15129304,0.1333701,-0.29952976,-0.15838401,-0.07405662,-0.30709353,-0.06524129,0.03815718,0.026750438,-0.06608137,-0.029478196,-0.027482029,-0.094813265,0.005941553,0.03644686,0.018938037,-0.0454828,0.05239392,-0.06197758,2.0,-0.10817729,-2.0,-2.0,1.1693163,-2.0,2.0,-1.3162332,-2.0,-2.0,-0.9924343,-2.0,2.0,0.15022852,-2.0,-2.0,0.62770885,0.33929676,2.0,-1.2571762,-2.0,-2.0,-0.8003782,-2.0
