openverse-orca/OrcaGym/log/simulation_log_20250721_131130.csv
timestamp,sim_time,physics_step,control_step,imu_angle_roll,imu_angle_pitch,imu_angle_yaw,imu_angular_velocity_roll,imu_angular_velocity_pitch,imu_angular_velocity_yaw,imu_acc_x,imu_acc_y,imu_acc_z,fl_joint1_pos,fl_joint1_vel,fl_joint1_torque,fl_joint2_pos,fl_joint2_vel,fl_joint2_torque,fl_joint3_pos,fl_joint3_vel,fl_joint3_torque,fr_joint1_pos,fr_joint1_vel,fr_joint1_torque,fr_joint2_pos,fr_joint2_vel,fr_joint2_torque,fr_joint3_pos,fr_joint3_vel,fr_joint3_torque,hl_joint1_pos,hl_joint1_vel,hl_joint1_torque,hl_joint2_pos,hl_joint2_vel,hl_joint2_torque,hl_joint3_pos,hl_joint3_vel,hl_joint3_torque,hr_joint1_pos,hr_joint1_vel,hr_joint1_torque,hr_joint2_pos,hr_joint2_vel,hr_joint2_torque,hr_joint3_pos,hr_joint3_vel,hr_joint3_torque,fl_force_x,fl_force_y,fl_force_z,fr_force_x,fr_force_y,fr_force_z,hl_force_x,hl_force_y,hl_force_z,hr_force_x,hr_force_y,hr_force_z,fl_hip_action,fl_thigh_action,fl_calf_action,fr_hip_action,fr_thigh_action,fr_calf_action,hl_hip_action,hl_thigh_action,hl_calf_action,hr_hip_action,hr_thigh_action,hr_calf_action
2025-07-21 13:11:30.684,0.0,0,0,-0.027297707,-0.031766687,-0.04174695,0.0134551935,0.018771986,-0.037611026,2.3287451,-0.28139645,0.0,0.0,-0.006259186,0.0020677242,-0.00879885,0.0039031801,0.006909653,-0.009027035,0.0013342599,-0.0060795015,0.0018477633,-0.0061204173,-0.0057851197,0.004594313,0.072534986,-0.029396081,0.069529526,-0.06501337,-0.06922601,0.070167065,-0.06759611,-0.060149238,-0.008728358,-0.07066154,-0.06620994,0.061107736,0.0,0.0,0.0,0.0,0.0,0.0,0.0,0.0,0.0,0.0,0.0,0.0,1.0,1.0,1.0,-1.0,1.0,-0.13556413,1.0,1.0,-0.41893968,1.0,1.0,1.0
2025-07-21 13:11:30.703,0.02,20,1,-0.2745128,0.2553496,0.00513782,0.06476939,-0.038945675,0.047649123,0.0,0.0,0.0,0.0,0.01677917,0.041290406,0.017739076,-0.016323017,0.04323968,-0.010878955,0.03411477,0.06168731,-0.015043326,0.016490439,0.049340595,0.02896439,0.0308184,0.1862773,0.114456855,-0.08175439,0.1331079,-0.014690861,0.033748478,0.1795271,0.04349029,0.10048066,0.17963585,0.07020265,1.0,1.0,1.0,-1.0,1.0,-0.13556413,1.0,1.0,-0.41893968,1.0,1.0,1.0,-1.0,-1.0,-0.4171589,-0.7994341,-1.0,-0.6745518,-0.76215005,-1.0,-1.0,-1.0,-0.6786651,1.0
2025-07-21 13:11:30.729,0.04,40,2,0.024906168,-0.38382655,-0.12564576,0.01542923,-0.027147403,0.03772267,0.0,0.0,0.0,-2.4738252e-05,0.011431949,0.059573382,0.010993349,-0.050039478,0.040730137,-0.027139626,-0.0007088604,0.05276866,-0.032451246,0.009051049,0.06905202,0.048418526,-0.037176047,-0.064738475,0.019826993,-0.030096035,-0.119489685,0.01541352,-0.05374912,-0.19292009,-0.027758082,-0.023053724,-0.07668693,-0.011828476,-1.0,-1.0,-0.4171589,-0.7994341,-1.0,-0.6745518,-0.76215005,-1.0,-1.0,-1.0,-0.6786651,1.0,1.0,-0.105828874,-1.0,-1.0,-1.0,1.0,1.0,1.0,1.0,1.0,1.0,1.0
2025-07-21 13:11:30.742,0.06,60,3,0.17800434,0.25672588,0.004924368,0.03689882,0.035580523,0.025817655,0.0,0.0,0.0,0.0012921693,0.025478546,0.036970697,-0.02631387,-0.052741718,-0.026839066,0.0052768546,0.021498164,0.05027228,0.0014933782,0.022108959,0.077842094,0.06052734,0.05579495,-0.04669021,0.003619865,-0.020940332,-0.21045688,0.03631714,0.064426735,0.103560105,0.05312076,0.079527356,0.07015258,0.009605539,1.0,-0.105828874,-1.0,-1.0,-1.0,1.0,1.0,1.0,1.0,1.0,1.0,1.0,-1.0,-1.0,-1.0,-1.0,-1.0,1.0,-1.0,-1.0,1.0,-0.7562456,1.0,-1.0
2025-07-21 13:11:30.762,0.08,80,4,0.13509981,-0.28731954,0.01845883,-0.0003604147,-0.033520464,-0.0023361298,0.0,0.0,0.0,0.0017690558,0.012882973,0.02088422,-0.03870187,-0.095884256,-0.078544796,0.034431085,0.003636449,0.030334292,0.024494894,0.0052134935,0.14659454,0.01690837,-0.087395996,-0.14981116,-0.08689661,-0.13916776,-0.12773985,0.07197945,0.0032946544,-0.10892685,0.13289376,-0.07216276,0.18131672,-0.012556532,-1.0,-1.0,-1.0,-1.0,-1.0,1.0,-1.0,-1.0,1.0,-0.7562456,1.0,-1.0,1.0,-0.253924,0.8895571,1.0,0.5952755,1.0,1.0,1.0,1.0,1.0,-1.0,-1.0
2025-07-21 13:11:30.788,0.1,100,5,-0.07373123,0.36427832,-0.15457956,0.029885333,-0.008454409,-0.005754148,0.0,0.0,0.0,0.0009014785,0.030266037,0.00095751154,-0.03984954,-0.06691453,-0.08589525,0.055420253,0.026086714,0.042777374,0.039967895,0.018289281,0.13230799,-0.0013828666,0.0833744,-0.07710122,0.017948821,0.08092727,0.019520545,0.021886658,0.1382453,0.13969766,0.07037826,0.057552524,-0.049337696,-0.014801273,1.0,-0.253924,0.8895571,1.0,0.5952755,1.0,1.0,1.0,1.0,1.0,-1.0,-1.0,1.0,-1.0,-1.0,-1.0,-1.0,1.0,-1.0,-1.0,1.0,-1.0,0.4794913,-1.0
2025-07-21 13:11:30.803,0.12000000000000001,120,6,-0.03441391,-0.32855994,-0.115299925,0.041308634,0.018077677,-0.005580858,0.0,0.0,0.0,0.002290836,0.046015035,-0.06648261,-0.058552276,-0.072687805,-0.098524116,0.06728643,0.014039957,0.034138232,0.060495894,-0.0032750468,0.12294336,-0.038635336,-0.012783666,-0.14615525,-0.022952821,-0.08703117,-0.046345927,0.07839111,-0.13605984,-0.035052005,0.055958193,-0.07742312,0.035653733,-0.073592044,1.0,-1.0,-1.0,-1.0,-1.0,1.0,-1.0,-1.0,1.0,-1.0,0.4794913,-1.0,1.0,-1.0,1.0,-1.0,1.0,1.0,1.0,1.0,1.0,0.5523848,-1.0,-1.0
2025-07-21 13:11:30.829,0.14,140,7,-0.066612035,0.112226315,-0.028741853,0.021687098,0.0087847095,-0.018260885,0.0,0.0,0.0,0.0041244095,0.06750404,-0.12869416,-0.02149987,-0.09844931,-0.09469446,0.081316754,0.022192989,0.04073377,0.06955587,0.009337853,0.10631948,-0.054380603,0.04287411,-0.14142212,0.11708429,-0.08864047,0.096433334,-0.044528797,0.12990244,0.18353114,0.0703847,-0.020328935,-0.13402754,0.020100953,1.0,-1.0,1.0,-1.0,1.0,1.0,1.0,1.0,1.0,0.5523848,-1.0,-1.0,1.0,-1.0,-1.0,1.0,-1.0,0.7591396,-1.0,-1.0,1.0,-1.0,1.0,-1.0
2025-07-21 13:11:30.843,0.16,160,8,0.03463342,0.07506212,-0.09959511,-0.027569488,0.00697891,0.0073192073,0.0,0.0,0.0,0.0050598667,0.08363793,-0.16449076,-0.02947722,-0.08098595,-0.10491395,0.08568414,0.014333168,0.06336447,0.08474521,-0.015606011,0.08021881,-0.07311464,-0.023216486,-0.06617102,-0.024342783,0.008113294,-0.034482498,0.028548507,0.019644916,0.022883175,0.056172814,-0.13101944,0.049017962,-0.007708433,1.0,-1.0,-1.0,1.0,-1.0,0.7591396,-1.0,-1.0,1.0,-1.0,1.0,-1.0,1.0,-1.0,1.0,-1.0,1.0,1.0,1.0,-1.0,1.0,1.0,-1.0,-0.79464394
2025-07-21 13:11:30.863,0.18,180,9,0.2780033,0.12006025,0.13997127,-0.0035929075,-0.051001903,-0.043442376,0.0,0.0,0.0,0.0070510255,0.111596346,-0.22402172,-0.014038826,-0.09054146,-0.10037545,0.07518494,0.03785722,0.011558961,0.10925588,0.004107587,0.058593024,-0.07369528,0.027282454,-0.15889364,0.0036398103,-0.027862012,0.10190035,-0.002922951,0.07548827,-0.14111568,0.099851735,0.021332812,-0.18565206,0.014674626,1.0,-1.0,1.0,-1.0,1.0,1.0,1.0,-1.0,1.0,1.0,-1.0,-0.79464394,1.0,-1.0,-1.0,1.0,-1.0,-1.0,-1.0,1.0,1.0,-1.0,1.0,-0.1940662
2025-07-21 13:11:30.884,0.19999999999999998,200,10,0.13579634,0.103892,-0.15378757,-0.0003376442,0.006781359,0.02504304,0.0,0.0,0.0,0.0067963675,0.10885378,-0.25109664,-0.021114597,-0.076397315,-0.095262855,0.035367902,0.032079495,0.019373111,0.104365125,-0.012891739,0.046667643,-0.07551283,0.040659796,-0.14541407,-0.01834263,-0.0033682077,-0.0788587,-0.15972988,-0.1308202,0.093837634,-0.06591151,-0.07216982,0.14142251,-0.039240975,1.0,-1.0,-1.0,1.0,-1.0,-1.0,-1.0,1.0,1.0,-1.0,1.0,-0.1940662,1.0,-0.7037965,1.0,-1.0,-0.13027391,1.0,-1.0,-1.0,-1.0,1.0,-1.0,1.0
2025-07-21 13:11:30.910,0.21999999999999997,220,11,0.045952443,-0.05290746,-0.060152467,-0.023938838,0.010417362,-0.035550926,0.0,0.0,0.0,0.007924381,0.12013379,-0.26792955,0.0013355146,-0.107384,-0.11298596,0.044109084,0.006263291,0.043470148,0.06443952,0.017065404,0.027902966,-0.028475031,-0.052768264,-0.043292057,-0.013998177,0.006060007,-0.005610905,0.05983745,-0.012649856,-0.0018045465,-0.10792737,0.08652139,-0.16031365,0.07813739,1.0,-0.7037965,1.0,-1.0,-0.13027391,1.0,-1.0,-1.0,-1.0,1.0,-1.0,1.0,1.0,-1.0,-0.005930042,-1.0,-1.0,-1.0,1.0,1.0,-1.0,-1.0,1.0,1.0
2025-07-21 13:11:30.926,0.23999999999999996,240,12,-0.031110289,0.03767385,-0.036107816,-0.04511883,-0.0699984,0.033243857,0.0,0.0,0.0,0.009522003,0.12984031,-0.2781324,0.006367205,-0.1070291,-0.12151358,0.024354428,0.018199733,0.07325444,0.019817142,-0.0086196065,0.030022027,-0.003137313,0.028470725,-0.10764946,0.02494633,-0.001912853,-0.08587709,-0.068979055,0.079765975,0.19580229,-0.15913175,-0.014304559,0.12915637,-0.029627558,1.0,-1.0,-0.005930042,-1.0,-1.0,-1.0,1.0,1.0,-1.0,-1.0,1.0,1.0,0.09798891,1.0,1.0,-1.0,-1.0,1.0,-1.0,-1.0,0.63173753,1.0,-1.0,1.0
2025-07-21 13:11:30.945,0.25999999999999995,260,13,0.12133262,-0.113074206,-0.031815287,-0.041947562,-0.042406254,0.042317376,0.0,0.0,0.0,0.010515442,0.12788595,-0.3159093,0.0014305215,-0.12406845,-0.1846964,0.024883475,0.010294392,0.06447179,0.01711141,-0.029752936,0.0069462094,0.01686631,-0.068078555,-0.09353911,0.082592234,-0.07707664,-0.18685587,0.1261705,-0.052246913,-0.14384675,0.041413464,0.053409044,-0.1492628,0.026613826,0.09798891,1.0,1.0,-1.0,-1.0,1.0,-1.0,-1.0,0.63173753,1.0,-1.0,1.0,-1.0,1.0,-1.0,-1.0,-1.0,1.0,1.0,1.0,-0.26358858,0.06144896,1.0,0.6690653
2025-07-21 13:11:30.966,0.27999999999999997,280,14,-0.24523841,0.08433262,0.019469595,0.02787597,0.010998996,-0.011306961,0.0,0.0,0.0,0.01154574,0.087310456,-0.2665721,-0.011793075,-0.1381756,-0.21631934,0.046262924,0.014230443,0.09912233,0.01745253,-0.027285486,0.028670428,0.032431405,-0.053421892,0.18338692,-0.08710904,0.02047204,-0.07982888,0.093473144,0.08906137,0.13138373,0.008445142,-0.0038458917,0.102664985,-0.024549896,-1.0,1.0,-1.0,-1.0,-1.0,1.0,1.0,1.0,-0.26358858,0.06144896,1.0,0.6690653,-1.0,-0.7072526,-1.0,-1.0,-1.0,1.0,1.0,-1.0,1.0,1.0,0.9251146,-1.0
2025-07-21 13:11:30.984,0.3,300,15,-0.03570135,-0.014077479,0.09782991,-0.00037717933,-0.008828534,-0.03170577,0.0,0.0,0.0,0.011166015,0.044911835,-0.24985729,-0.038440447,-0.15118313,-0.24337523,0.077205956,0.04976592,0.08290888,0.0404277,-0.002005381,0.09437482,-0.010106657,-0.1767185,0.0009922272,-0.019805284,-0.09329272,-0.09921253,0.045077194,0.097596824,-0.117647395,0.09146425,0.01426493,0.17180593,-0.015278794,-1.0,-0.7072526,-1.0,-1.0,-1.0,1.0,1.0,-1.0,1.0,1.0,0.9251146,-1.0,-1.0,1.0,-1.0,-1.0,-1.0,1.0,-1.0,1.0,1.0,1.0,-1.0,-1.0
2025-07-21 13:11:31.009,0.32,320,16,-0.0690244,-0.097014405,-0.111735635,-0.029456563,0.033338696,-0.048324995,0.0,0.0,0.0,0.008988249,0.02577255,-0.22673254,-0.06251182,-0.1535012,-0.2864584,0.092631824,0.020490833,0.0830009,0.051777873,0.026874676,0.112783484,-0.021169268,-0.059336975,0.12636022,-0.056739893,-0.038037058,-0.032744117,0.08641174,-0.117756076,0.10672986,-0.009463627,0.083516814,-0.0480306,-0.06918118,-1.0,1.0,-1.0,-1.0,-1.0,1.0,-1.0,1.0,1.0,1.0,-1.0,-1.0,0.0764652,-0.1388712,-1.0,1.0,-1.0,1.0,1.0,-1.0,1.0,-1.0,1.0,-1.0
2025-07-21 13:11:31.029,0.34,340,17,0.0350984,0.17134488,-0.057057902,-0.035211083,-0.009214559,-0.037197974,0.0,0.0,0.0,0.009047871,0.030767916,-0.20399563,-0.09281696,-0.13800937,-0.2963501,0.10102011,0.045988075,0.066520035,0.071955524,-0.0019402654,0.14289889,-0.058208447,0.0018022036,0.0064086453,0.02650876,0.075803146,-0.0010617584,-0.02432022,0.07568293,-0.12499587,0.045025814,-0.04444519,0.10542024,-0.09447924,0.0764652,-0.1388712,-1.0,1.0,-1.0,1.0,1.0,-1.0,1.0,-1.0,1.0,-1.0,-0.82268447,1.0,-0.8575428,-1.0,1.0,1.0,-1.0,0.8902757,1.0,1.0,-1.0,0.050924562
2025-07-21 13:11:31.046,0.36000000000000004,360,18,-0.26178628,-0.09702253,-0.033947807,0.023654439,0.017712165,-0.04418441,0.0,0.0,0.0,0.010209267,0.0063225124,-0.15274577,-0.100473404,-0.13561814,-0.29613715,0.09040529,0.030878056,0.09685888,0.0756124,0.021008354,0.14438748,-0.03654731,-0.12580986,0.19356295,-0.05133123,-0.036028724,0.11510769,-0.034273785,-0.03459649,0.19161935,-0.028468143,0.02551558,-0.115569465,0.02480492,-0.82268447,1.0,-0.8575428,-1.0,1.0,1.0,-1.0,0.8902757,1.0,1.0,-1.0,0.050924562,-0.5346519,-1.0,-1.0,1.0,-1.0,1.0,1.0,-1.0,1.0,-1.0,1.0,-1.0
2025-07-21 13:11:31.065,0.38000000000000006,380,19,0.0028975692,0.11631512,-0.01898438,0.058848947,0.033533007,-0.0341474,0.0,0.0,0.0,0.011066086,-0.0036111723,-0.13810188,-0.11264115,-0.10888562,-0.2969929,0.10070929,0.034960594,0.1123834,0.078923754,0.0035926313,0.15401924,-0.0649552,-0.040445883,-0.03647188,-0.086913124,0.038137615,0.020971412,-0.007555005,0.12089812,-0.01013384,0.013313185,-0.02224492,0.1829015,-0.051691893,-0.5346519,-1.0,-1.0,1.0,-1.0,1.0,1.0,-1.0,1.0,-1.0,1.0,-1.0,1.0,1.0,-0.13603747,-1.0,1.0,1.0,-1.0,-1.0,1.0,1.0,-1.0,-1.0
2025-07-21 13:11:31.084,0.4000000000000001,400,20,0.04949253,-0.21805029,-0.018341774,-0.02197042,0.020646634,0.02105512,0.0,0.0,0.0,0.012072652,0.018787479,-0.124810554,-0.10873215,-0.12682647,-0.29010633,0.11110579,0.034303512,0.079083145,0.097765714,0.011703189,0.12619475,-0.066091545,0.01533018,0.10125475,0.018414542,-0.077660985,-0.007358959,0.053634714,-0.09456008,-0.17635532,-0.0022913236,0.015319539,-0.11391701,-0.067963876,1.0,1.0,-0.13603747,-1.0,1.0,1.0,-1.0,-1.0,1.0,1.0,-1.0,-1.0,-1.0,-1.0,-1.0,1.0,-1.0,1.0,1.0,1.0,1.0,-1.0,1.0,-1.0
2025-07-21 13:11:31.109,0.4200000000000001,420,21,-0.11455333,0.14201717,-0.14144726,0.027984763,0.035940904,0.03316896,0.0,0.0,0.0,0.012601366,-0.016696539,-0.1230226,-0.10020975,-0.110436834,-0.3086802,0.10754095,0.06010897,0.09039824,0.108638994,0.004529007,0.13356502,-0.084870346,-0.053044986,-0.020414684,-0.027369693,0.030799884,-0.076174,0.06961581,0.04856777,0.11190986,-0.0722705,-0.030156067,0.13555388,-0.0359439,-1.0,-1.0,-1.0,1.0,-1.0,1.0,1.0,1.0,1.0,-1.0,1.0,-1.0,1.0,1.0,-1.0,-1.0,1.0,1.0,-0.21519469,-1.0,1.0,1.0,-1.0,-1.0
2025-07-21 13:11:31.126,0.4400000000000001,440,22,0.025404053,-0.08172903,-0.018913647,-0.021627372,0.017671047,0.0017209859,0.0,0.0,0.0,0.013998936,0.018185211,-0.10081424,-0.117966406,-0.12198273,-0.30577552,0.10995885,0.05408902,0.09629872,0.11598393,0.018568378,0.13159986,-0.09956116,0.071844704,0.15239005,-0.033291645,-0.09861773,0.0829447,-0.008865898,-0.03546985,-0.0604283,-0.008217912,-0.0056208656,-0.13880053,-0.013363449,1.0,1.0,-1.0,-1.0,1.0,1.0,-0.21519469,-1.0,1.0,1.0,-1.0,-1.0,-1.0,-1.0,0.48539633,1.0,-1.0,1.0,1.0,1.0,1.0,-1.0,1.0,-1.0
2025-07-21 13:11:31.144,0.46000000000000013,460,23,-0.16695076,0.02199645,-0.12182891,-0.009911415,0.04002671,0.02527503,0.0,0.0,0.0,0.015645985,-0.0018957269,-0.096191995,-0.0786352,-0.10162311,-0.32675937,0.11339926,0.08065698,0.11541874,0.11689844,0.0052844477,0.12774141,-0.11526831,-0.00089879456,0.033886567,0.04584953,0.059569508,0.001846998,0.027249902,0.05766427,0.12344328,0.01171416,-0.111117035,0.031786572,-0.055613805,-1.0,-1.0,0.48539633,1.0,-1.0,1.0,1.0,1.0,1.0,-1.0,1.0,-1.0,1.0,-1.0,-1.0,-1.0,1.0,1.0,-0.22478573,-1.0,1.0,-1.0,-0.38687897,-1.0
2025-07-21 13:11:31.164,0.48000000000000015,480,24,-0.017560093,-0.17696151,0.019121187,0.049779765,0.07733004,0.021039793,0.0,0.0,0.0,0.01762291,0.025721427,-0.14289443,-0.09182568,-0.11653301,-0.33261418,0.10942087,0.07211255,0.13566071,0.12337151,-0.032972183,0.09490762,-0.12699479,-0.00655778,-0.07846397,-0.03964483,-0.03034455,0.038231153,0.05007974,0.032514874,-0.021618916,-0.045804,-0.13195874,-0.17500189,-0.06821681,1.0,-1.0,-1.0,-1.0,1.0,1.0,-0.22478573,-1.0,1.0,-1.0,-0.38687897,-1.0,1.0,-1.0,1.0,1.0,1.0,-0.9529161,-1.0,-1.0,1.0,-1.0,1.0,-1.0
2025-07-21 13:11:31.185,0.5000000000000001,500,25,-0.082634956,-0.23190339,0.05820734,-0.006263636,0.031798493,0.037530355,0.0,0.0,0.0,0.01869761,0.050401527,-0.18860239,-0.05986453,-0.12735043,-0.28199497,0.06590656,0.035596155,0.10485085,0.13444494,-0.060219582,0.119307905,-0.12778163,0.007044376,-0.16101153,0.027604073,0.07559718,0.0850477,-0.12707861,-0.017500037,-0.052953903,0.03773165,0.0066375495,0.12506811,-0.08559653,1.0,-1.0,1.0,1.0,1.0,-0.9529161,-1.0,-1.0,1.0,-1.0,1.0,-1.0,1.0,-1.0,1.0,1.0,1.0,-1.0,-1.0,-1.0,-1.0,-1.0,-1.0,1.0
2025-07-21 13:11:31.210,0.5200000000000001,520,26,0.16695373,0.10645844,-0.011489385,-0.03615368,0.008466128,-0.04005686,0.0,0.0,0.0,0.018349737,0.059738047,-0.22729768,-0.027727399,-0.094831735,-0.23694308,0.0040154275,0.015239811,0.09728937,0.099782154,-0.0665935,0.10588108,-0.07448497,0.086417116,-0.12581766,0.084477805,0.014264833,0.16684872,-0.10297924,-0.01037959,-0.0510305,-0.10403034,0.016109062,-0.10129007,0.14399488,1.0,-1.0,1.0,1.0,1.0,-1.0,-1.0,-1.0,-1.0,-1.0,-1.0,1.0,1.0,-1.0,1.0,1.0,1.0,-1.0,-1.0,1.0,-1.0,-1.0,1.0,1.0
2025-07-21 13:11:31.228,0.5400000000000001,540,27,-0.021759316,0.30691046,-0.12539908,0.044758018,0.04105479,0.020170463,0.0,0.0,0.0,0.018524183,0.09413733,-0.27030852,0.0061817407,-0.077582024,-0.19675648,-0.028080633,0.0008458278,0.14154547,0.048199378,-0.08078585,0.09341259,-0.0612063,0.056921802,-0.105007924,0.08120015,0.16424398,0.20429072,-0.081210226,-0.064994834,0.13427237,-0.026132196,-0.083496615,-0.021469312,0.1296383,1.0,-1.0,1.0,1.0,1.0,-1.0,-1.0,1.0,-1.0,-1.0,1.0,1.0,1.0,-1.0,1.0,1.0,1.0,-1.0,-1.0,-1.0,-1.0,-1.0,1.0,1.0
2025-07-21 13:11:31.246,0.5600000000000002,560,28,-0.06579176,0.10437829,-0.07187522,0.0539512,0.027188795,-0.0496267,0.0,0.0,0.0,0.020412195,0.09652491,-0.2959008,0.031373624,-0.030493908,-0.124512516,-0.05564905,-0.014825269,0.1685801,0.01624585,-0.10800502,0.14177202,-0.02698718,-0.01421742,-0.11614751,0.043115817,0.09045676,0.14082469,-0.06404047,0.00037717557,0.045794975,-0.036887858,0.018039709,0.1941568,0.028019655,1.0,-1.0,1.0,1.0,1.0,-1.0,-1.0,-1.0,-1.0,-1.0,1.0,1.0,0.5028557,0.5375651,1.0,1.0,-0.9910253,-1.0,-1.0,1.0,-1.0,1.0,-1.0,1.0
2025-07-21 13:11:31.265,0.5800000000000002,580,29,0.078748755,0.31219923,-0.24218696,0.060818795,-0.03440172,-0.018178856,0.0,0.0,0.0,0.021862512,0.11214033,-0.2687606,0.055154126,-0.015058451,-0.10035798,-0.06465693,-0.03310962,0.20561282,-0.017445652,-0.06821818,0.116929375,0.010578336,0.011521978,0.09534459,-0.035740253,0.08092865,-0.026243735,-0.07679784,-0.0652901,0.08938922,-0.04164646,0.041298494,-0.108000934,0.061130565,0.5028557,0.5375651,1.0,1.0,-0.9910253,-1.0,-1.0,1.0,-1.0,1.0,-1.0,1.0,-1.0,-1.0,-0.72483283,-1.0,-1.0,0.33557087,1.0,-1.0,-1.0,-0.7828156,1.0,1.0
2025-07-21 13:11:31.285,0.6000000000000002,600,30,-0.048328523,-0.1312514,0.058041822,0.019120352,-0.02970839,-0.009931933,0.0,0.0,0.0,0.02522411,0.0746347,-0.26204535,0.018347403,-0.02378255,-0.1479086,-0.061429627,-0.01514615,0.1802039,-0.048677776,-0.07510714,0.13147205,0.022151984,-0.026335558,-0.036654506,-0.028434483,-0.070300095,-0.06272997,-0.015904335,0.048985943,-0.20695914,0.007812715,-0.008828087,0.009766497,0.052991256,-1.0,-1.0,-0.72483283,-1.0,-1.0,0.33557087,1.0,-1.0,-1.0,-0.7828156,1.0,1.0,-0.1376515,1.0,1.0,-1.0,-1.0,1.0,1.0,1.0,1.0,1.0,-1.0,1.0
2025-07-21 13:11:31.311,0.6200000000000002,620,31,0.10193075,0.22791995,-0.028028842,0.012686606,-0.034973845,0.015816206,0.0,0.0,0.0,0.025782665,0.059790608,-0.288917,0.034221742,-0.037536174,-0.18615177,-0.015151976,0.0045895567,0.15117843,-0.029153282,-0.06959257,0.1362541,0.05938646,0.009315207,-0.06581343,0.042588867,-0.053915612,-0.13684347,0.10205434,0.11509303,0.05555448,-0.008216946,0.00027460462,0.024915755,0.08863034,-0.1376515,1.0,1.0,-1.0,-1.0,1.0,1.0,1.0,1.0,1.0,-1.0,1.0,-1.0,1.0,-1.0,-1.0,-1.0,1.0,0.95633644,-1.0,-0.0196644,1.0,-1.0,-1.0
2025-07-21 13:11:31.327,0.6400000000000002,640,32,0.11468861,-0.047904976,0.04865005,0.03427082,-0.04499268,0.002106539,0.0,0.0,0.0,0.025136327,0.03693383,-0.25960833,0.003777202,-0.05834526,-0.22495036,0.014913166,0.032130394,0.10722772,-0.01997239,-0.035447832,0.10989186,0.02942704,-0.1292672,0.028777052,-0.16244464,0.0025552781,-0.15375812,0.11592753,0.0101160705,-0.2445288,0.0078087663,0.105903044,-0.08077729,-0.09299889,-1.0,1.0,-1.0,-1.0,-1.0,1.0,0.95633644,-1.0,-0.0196644,1.0,-1.0,-1.0,-1.0,1.0,-1.0,-1.0,-1.0,1.0,1.0,1.0,1.0,-1.0,1.0,-1.0
2025-07-21 13:11:31.347,0.6600000000000003,660,33,-0.37156436,-0.035701342,-0.008077242,0.014667161,0.016379068,-0.03682316,0.0,0.0,0.0,0.02445762,-0.00091529393,-0.17941575,-0.041445807,-0.09074659,-0.26652414,0.042960253,0.054686293,0.087364554,0.0040287976,-0.04524841,0.12427299,-0.012476614,-0.10230277,0.28028965,-0.07800217,-0.060554303,-0.055659752,0.1143261,0.10277179,0.112892024,0.026182491,-0.13070498,0.20391217,-0.10881722,-1.0,1.0,-1.0,-1.0,-1.0,1.0,1.0,1.0,1.0,-1.0,1.0,-1.0,0.59892637,-1.0,-1.0,1.0,-1.0,1.0,-0.46005213,-1.0,1.0,1.0,-1.0,-1.0
2025-07-21 13:11:31.367,0.6800000000000003,680,34,0.30578488,-0.035539016,-0.035685122,0.058334,0.041044507,0.0062405863,0.0,0.0,0.0,0.024919752,0.013641057,-0.1795958,-0.054668784,-0.047143772,-0.28567952,0.05685876,0.06678353,0.08492861,0.033044975,-0.03906103,0.11180923,-0.036905482,-0.0076922956,-0.0974944,0.020634439,0.03439878,-0.042757064,0.081813134,-0.021418437,-0.06453713,0.0640972,0.118105195,-0.1774765,-0.015395342,0.59892637,-1.0,-1.0,1.0,-1.0,1.0,-0.46005213,-1.0,1.0,1.0,-1.0,-1.0,1.0,1.0,1.0,-1.0,1.0,1.0,1.0,-1.0,1.0,-1.0,-0.22450942,-1.0
2025-07-21 13:11:31.387,0.7000000000000003,700,35,0.0552001,-0.072934814,0.20525469,-0.0006149881,-0.0071039465,0.040575273,0.0,0.0,0.0,0.026004104,0.044512495,-0.17578815,-0.03417088,-0.07713786,-0.29228956,0.05993993,0.08268406,0.058166858,0.06031828,-0.053774163,0.07581405,-0.050193787,0.03239981,0.03829811,0.036505006,-0.09346409,0.057066374,0.012242458,0.00338424,-0.12614438,-0.015170188,-0.08511483,-0.14847906,-0.11639338,1.0,1.0,1.0,-1.0,1.0,1.0,1.0,-1.0,1.0,-1.0,-0.22450942,-1.0,1.0,-1.0,-1.0,1.0,1.0,-1.0,-1.0,1.0,1.0,-1.0,1.0,-1.0
2025-07-21 13:11:31.411,0.7200000000000003,720,36,-0.10046146,-0.10815986,0.061531276,-0.03218326,0.015250459,0.03407856,0.0,0.0,0.0,0.024529906,0.063547455,-0.17985785,-0.04964091,-0.06895786,-0.25332078,0.01815645,0.071783155,0.06404281,0.057329148,-0.06386795,0.113357715,-0.077376105,0.10240239,-0.048316225,-0.110225625,0.048983697,0.09268325,-0.16035971,-0.021956746,0.1445411,0.0014420608,-0.05719089,0.102189496,-0.0039113993,1.0,-1.0,-1.0,1.0,1.0,-1.0,-1.0,1.0,1.0,-1.0,1.0,-1.0,1.0,-1.0,1.0,1.0,1.0,-1.0,-1.0,-1.0,-1.0,-1.0,-1.0,1.0
2025-07-21 13:11:31.430,0.7400000000000003,740,37,0.08045813,-0.026275268,-0.07659257,-0.032214984,0.045913376,-0.020377096,0.0,0.0,0.0,0.022728411,0.08945519,-0.231093,-0.006031525,-0.03383727,-0.1906687,-0.012762886,0.047261585,0.08679128,0.028969137,-0.07972297,0.08779647,-0.027809018,0.050428297,-0.13028231,0.13932864,0.0048142713,0.16650362,-0.042767193,-0.050072942,0.039810292,-0.056278743,-0.06543592,-0.17471527,0.089042634,1.0,-1.0,1.0,1.0,1.0,-1.0,-1.0,-1.0,-1.0,-1.0,-1.0,1.0,1.0,-1.0,1.0,1.0,1.0,-1.0,-1.0,1.0,-1.0,-1.0,1.0,1.0
2025-07-21 13:11:31.448,0.7600000000000003,760,38,-0.27195027,0.10540703,-0.04726189,0.03427874,-0.020457946,0.028705552,0.0,0.0,0.0,0.023021143,0.09513645,-0.25997132,0.025619688,-0.014147462,-0.12296111,-0.061971437,0.02125983,0.13036758,-0.0062951273,-0.10733109,0.08656816,-0.00403172,0.01286775,-0.10884351,0.09099046,-0.0031714577,0.23960094,-0.14332294,-0.03156489,0.21403784,-0.044840917,0.0050874786,0.14580142,-0.013128072,1.0,-1.0,1.0,1.0,1.0,-1.0,-1.0,1.0,-1.0,-1.0,1.0,1.0,1.0,-1.0,1.0,1.0,-1.0,-1.0,-1.0,-1.0,-1.0,-0.33082613,-1.0,1.0
2025-07-21 13:11:31.468,0.7800000000000004,780,39,0.3401764,0.10923921,-0.18166469,0.016228963,0.029646557,0.011028748,0.0,0.0,0.0,0.024420962,0.11100651,-0.28617445,0.04113414,0.007304475,-0.08923813,-0.0828383,-0.0067677097,0.14250696,-0.022214878,-0.102385305,0.091537595,0.029545713,-0.037584685,-0.062067278,0.028899657,0.10416175,-0.008767309,-0.032871295,-0.065319575,-0.056013655,-0.07810818,-0.007984487,-0.18162556,0.030329298,1.0,-1.0,1.0,1.0,-1.0,-1.0,-1.0,-1.0,-1.0,-0.33082613,-1.0,1.0,0.89457786,1.0,1.0,-1.0,-1.0,1.0,0.39245123,1.0,-1.0,1.0,1.0,1.0
2025-07-21 13:11:31.492,0.8000000000000004,800,40,-0.06497311,0.27929074,-0.0039362735,0.00986302,-0.028943181,-0.020489998,0.0,0.0,0.0,0.02729293,0.1188419,-0.2873103,0.053354464,0.011315129,-0.12603693,-0.04217647,0.016400542,0.16155517,-0.05108053,-0.072353125,0.095653586,0.03216268,0.052716233,0.13552679,0.054381687,-0.099013545,-0.15166844,0.049788482,0.034501087,0.18745224,0.021483015,0.080398895,0.12564111,0.061676245,0.89457786,1.0,1.0,-1.0,-1.0,1.0,0.39245123,1.0,-1.0,1.0,1.0,1.0,-1.0,0.6886425,-0.6465283,-1.0,-1.0,0.414766,1.0,-1.0,-1.0,1.0,-1.0,1.0
2025-07-21 13:11:31.511,0.8200000000000004,820,41,0.13895403,0.26442987,-0.026687227,0.071172364,-0.0056573576,-8.990277e-05,0.0,0.0,0.0,0.029282406,0.11832118,-0.23494421,0.019914743,-0.031687398,-0.17938013,-0.030881234,0.037630506,0.15032938,-0.06156037,-0.042167194,0.10386903,0.056349173,-0.09556271,0.09106759,-0.045357052,-0.069896586,-0.17881942,0.09095984,0.10236439,-0.18937139,-0.03430547,0.01924097,-0.05035732,0.11839761,-1.0,0.6886425,-0.6465283,-1.0,-1.0,0.414766,1.0,-1.0,-1.0,1.0,-1.0,1.0,-1.0,1.0,-1.0,-1.0,-1.0,1.0,1.0,1.0,1.0,1.0,1.0,1.0
2025-07-21 13:11:31.531,0.8400000000000004,840,42,-0.204589,0.1906619,0.09008705,0.010440019,-0.008730007,0.04309291,0.0,0.0,0.0,0.029548163,0.09029132,-0.1748017,-0.021719467,-0.05272285,-0.21301079,-0.0025856998,0.054513175,0.13891254,-0.044251073,-0.011792206,0.1285818,0.05647343,-0.14952497,0.14568114,-0.045384917,-0.0998661,-0.039284557,0.044287223,0.038355377,0.12876096,0.12755792,0.12007164,0.0819888,0.049658686,-1.0,1.0,-1.0,-1.0,-1.0,1.0,1.0,1.0,1.0,1.0,1.0,1.0,-1.0,-0.10779505,-1.0,-1.0,-1.0,1.0,1.0,-1.0,1.0,-1.0,1.0,-1.0
2025-07-21 13:11:31.551,0.8600000000000004,860,43,-0.11005496,-0.15336084,0.21881841,0.08892078,-0.064919285,-0.010028658,0.0,0.0,0.0,0.027970724,0.03483977,-0.13087325,-0.04266323,-0.06292782,-0.25558397,0.022883248,0.07160024,0.120955065,-0.00781455,-0.037644375,0.17782107,0.031607464,-0.12663971,0.013212037,-0.014043646,-0.018338945,-0.0590516,0.1224507,0.01914153,-0.08663513,0.12380836,-0.062314726,0.13117026,-0.10420809,-1.0,-0.10779505,-1.0,-1.0,-1.0,1.0,1.0,-1.0,1.0,-1.0,1.0,-1.0,1.0,-0.83142745,-0.2646557,-1.0,0.56266606,1.0,-1.0,1.0,1.0,1.0,-1.0,-1.0
2025-07-21 13:11:31.568,0.8800000000000004,880,44,0.024129165,-0.24279658,0.09992864,0.06249237,-0.053690545,-0.011405682,0.0,0.0,0.0,0.024050057,0.04569748,-0.15249586,-0.054517545,-0.083118364,-0.24123776,0.04434778,0.04812642,0.14434825,0.015000533,-0.0054756985,0.15765396,0.0055751195,0.08186195,-0.05694437,-0.024210598,-0.023879144,0.12711331,0.06402437,-0.15558584,0.1530278,0.022968534,0.10897741,-0.18422042,-0.081286125,1.0,-0.83142745,-0.2646557,-1.0,0.56266606,1.0,-1.0,1.0,1.0,1.0,-1.0,-1.0,-0.44906497,-1.0,1.0,1.0,-1.0,0.90256655,1.0,-1.0,1.0,-1.0,1.0,-1.0
2025-07-21 13:11:31.600,0.9000000000000005,900,45,0.049135465,-0.051147863,0.12996835,0.011245248,0.007861607,-0.044990372,0.0,0.0,0.0,0.02096852,0.041877963,-0.20049708,-0.0134443855,-0.082618594,-0.20975766,0.057002388,0.057314172,0.14689991,0.032068606,-0.02533762,0.1563955,-0.038439956,-0.09278323,-0.03220496,0.055682786,0.10205881,-0.08030284,0.069541864,0.082603045,-0.06308666,-0.011738305,-0.051235158,0.12381874,-0.011792651,-0.44906497,-1.0,1.0,1.0,-1.0,0.90256655,1.0,-1.0,1.0,-1.0,1.0,-1.0,1.0,0.3979946,-1.0,-1.0,-1.0,1.0,-1.0,-1.0,1.0,1.0,-1.0,-1.0
2025-07-21 13:11:31.631,0.9200000000000005,920,46,0.3197494,-0.275149,0.12043752,0.041313235,-0.03163728,0.00464112,0.0,0.0,0.0,0.018464375,0.048349548,-0.18334931,-0.03171595,-0.0865124,-0.25411442,0.06934721,0.04021643,0.092389084,0.057280086,-0.009323536,0.1381821,-0.050557315,0.12526461,0.16420573,-0.07580163,-0.051086158,-0.13456963,0.09368654,-0.041589633,-0.12655838,-0.016790828,0.09286068,-0.14619443,-0.07608974,1.0,0.3979946,-1.0,-1.0,-1.0,1.0,-1.0,-1.0,1.0,1.0,-1.0,-1.0,-1.0,-1.0,-0.28572983,-0.6443202,-1.0,1.0,1.0,1.0,1.0,-1.0,1.0,-1.0
2025-07-21 13:11:31.648,0.9400000000000005,940,47,-0.033439763,-0.09514205,0.04424621,0.03289831,0.04173484,-0.007916498,0.0,0.0,0.0,0.016287638,0.03865037,-0.17741941,-0.050974328,-0.106064565,-0.28099084,0.08786405,0.06391994,0.10786868,0.06568452,-0.023253327,0.12722822,-0.059999872,-0.08936027,0.0011274322,0.043984838,-0.06624767,-0.10421716,0.061867345,0.11903313,0.15860978,0.043965597,-0.015710054,0.17602551,-0.005015315,-1.0,-1.0,-0.28572983,-0.6443202,-1.0,1.0,1.0,1.0,1.0,-1.0,1.0,-1.0,1.0,1.0,0.4248864,-0.24298128,1.0,1.0,-1.0,-1.0,1.0,1.0,-1.0,-1.0
2025-07-21 13:11:31.668,0.9600000000000005,960,48,-0.09919445,0.104102105,0.029461663,-0.031338148,0.042473834,-0.03475386,0.0,0.0,0.0,0.014961267,0.055881187,-0.17361455,-0.03695241,-0.09187717,-0.27371138,0.09792063,0.024995396,0.104598366,0.08363984,0.004349401,0.11849245,-0.07570007,0.07558069,-0.018318212,0.005437266,0.05460686,0.082152724,0.06523138,-0.017060822,-0.04637591,0.050363738,0.11393855,-0.08525732,8.224755e-05,1.0,1.0,0.4248864,-0.24298128,1.0,1.0,-1.0,-1.0,1.0,1.0,-1.0,-1.0,-0.693983,-1.0,-1.0,1.0,-1.0,-0.14916937,1.0,-1.0,1.0,-1.0,1.0,-1.0
2025-07-21 13:11:31.697,0.9800000000000005,980,49,0.05439358,-0.0038444276,0.18486679,-0.02934502,-0.035213795,0.032598417,0.0,0.0,0.0,0.015032476,0.03358803,-0.19043362,-0.044506006,-0.08590631,-0.27735528,0.07475958,0.047817808,0.07747908,0.09731364,-0.008505185,0.11634705,-0.10659853,-0.01984699,-0.118060015,0.02225815,0.075648114,-0.0068693557,0.017669167,0.06507593,-0.17550273,0.032299224,-0.02389881,0.04471299,0.025934458,-0.693983,-1.0,-1.0,1.0,-1.0,-0.14916937,1.0,-1.0,1.0,-1.0,1.0,-1.0,1.0,1.0,1.0,-1.0,1.0,1.0,-1.0,1.0,1.0,1.0,-1.0,1.0
2025-07-21 13:11:31.715,1.0000000000000004,1000,50,-0.18815558,-0.04294098,0.018276585,0.008377035,-0.034876347,0.04976361,0.0,0.0,0.0,0.0131368,0.052165087,-0.1840499,-0.027237298,-0.087838836,-0.26880795,0.08732747,0.039969392,0.07215635,0.103023246,0.0040875576,0.103433825,-0.047725044,0.11742783,0.08430475,0.094166614,-0.089952916,0.06313577,0.055713672,-0.068340704,0.1497045,0.025007632,-0.03074734,-0.114820294,0.0901207,1.0,1.0,1.0,-1.0,1.0,1.0,-1.0,1.0,1.0,1.0,-1.0,1.0,-1.0,-1.0,-1.0,1.0,-1.0,0.12570484,1.0,-1.0,-1.0,-1.0,1.0,-1.0
2025-07-21 13:11:31.735,1.0200000000000005,1020,51,0.0014006849,0.17569597,0.03111214,0.03861079,0.00057120307,0.03348953,0.0,0.0,0.0,0.011850675,0.02977774,-0.20329499,-0.04462698,-0.078563415,-0.2802011,0.0672041,0.052778352,0.10426354,0.061542604,-0.019721845,0.13179493,-0.07266039,-0.12078749,-0.11582918,-0.012005077,0.010359349,-0.020019392,0.0442291,0.13524187,-0.071074516,-0.10949467,-0.07171061,0.13546343,-0.060466275,-1.0,-1.0,-1.0,1.0,-1.0,0.12570484,1.0,-1.0,-1.0,-1.0,1.0,-1.0,1.0,1.0,1.0,-1.0,1.0,1.0,-1.0,1.0,1.0,1.0,-1.0,1.0
2025-07-21 13:11:31.766,1.0400000000000005,1040,52,-0.03831691,0.07900544,-0.111518934,0.07045876,-0.033456862,-0.00243258,0.0,0.0,0.0,0.011592363,0.03091075,-0.20793352,-0.025354978,-0.07642356,-0.28771567,0.08136805,0.055829793,0.123638116,0.07041113,-0.011703311,0.13312726,-0.033605006,0.12156983,0.09352872,0.015130496,-0.07823225,0.06710642,0.016996467,-0.028217226,0.18807575,0.034033354,-0.0009678864,-0.08409608,0.12231084,1.0,1.0,1.0,-1.0,1.0,1.0,-1.0,1.0,1.0,1.0,-1.0,1.0,-1.0,-1.0,-1.0,1.0,-1.0,1.0,1.0,-1.0,-0.22465596,-1.0,1.0,-1.0
2025-07-21 13:11:31.784,1.0600000000000005,1060,53,0.1082915,0.12206817,0.0008851999,0.07871029,0.015648475,-0.03495794,0.0,0.0,0.0,0.012501527,0.027624872,-0.21443313,-0.03782762,-0.067986265,-0.28794432,0.09404334,0.07524219,0.121561565,0.042985972,-0.017059168,0.15290347,-0.05547919,-0.14223874,-0.06074508,-0.0041250647,0.089918315,-0.032907423,0.07481836,0.059844885,-0.056130208,0.018998144,-0.12794226,0.06390933,-0.062580146,-1.0,-1.0,-1.0,1.0,-1.0,1.0,1.0,-1.0,-0.22465596,-1.0,1.0,-1.0,1.0,1.0,0.010877246,-1.0,1.0,1.0,-1.0,-1.0,1.0,1.0,-1.0,0.97355753
2025-07-21 13:11:31.815,1.0800000000000005,1080,54,0.13805664,-0.26656738,-0.026406748,0.043948215,-0.02138921,-0.01294924,0.0,0.0,0.0,0.013278739,0.032750122,-0.22320439,-0.036795985,-0.08291369,-0.30287018,0.08724869,0.054386277,0.08157671,0.06896911,-0.006035691,0.13328952,-0.026941339,0.016025342,-0.0053851106,-0.024378933,-0.07264878,0.089027956,5.0214254e-05,-0.087131836,-0.14212,0.09034896,0.11224663,-0.11710543,0.012957218,1.0,1.0,0.010877246,-1.0,1.0,1.0,-1.0,-1.0,1.0,1.0,-1.0,0.97355753,-1.0,-1.0,-1.0,0.29330185,-1.0,1.0,1.0,1.0,0.9687868,-1.0,1.0,-1.0
2025-07-21 13:11:31.832,1.1000000000000005,1100,55,-0.0977383,0.081403434,-0.1214953,-0.034355287,-0.0021271743,0.0136224115,0.0,0.0,0.0,0.013550056,-0.0036096035,-0.2368848,-0.049343627,-0.06575135,-0.3180663,0.09736328,0.07928852,0.09809427,0.08295191,-0.020425936,0.15070246,-0.048271056,-0.13162963,-0.02411563,-0.06371943,0.0037565688,-0.033735953,0.05757959,0.087753795,0.12108017,-0.024986655,-0.11500093,0.06680728,-0.0407191,-1.0,-1.0,-1.0,0.29330185,-1.0,1.0,1.0,1.0,0.9687868,-1.0,1.0,-1.0,1.0,1.0,-0.10063059,-1.0,1.0,1.0,-1.0,-1.0,1.0,1.0,-1.0,-1.0
2025-07-21 13:11:31.854,1.1200000000000006,1120,56,0.029381054,-0.018394189,-0.022411305,0.047696073,-0.0052060885,-0.0070298766,0.0,0.0,0.0,0.015266415,0.021583624,-0.23344974,-0.0525632,-0.078019656,-0.30651316,0.09386926,0.045815125,0.118095994,0.09034507,0.009483646,0.12852728,-0.070057936,0.08224312,0.13638663,0.05812791,-0.07953614,0.10887867,-0.07267907,0.0070436546,-0.061689544,-0.034543358,0.061305285,-0.0810781,-0.072923176,1.0,1.0,-0.10063059,-1.0,1.0,1.0,-1.0,-1.0,1.0,1.0,-1.0,-1.0,-1.0,-1.0,0.35994607,1.0,-1.0,1.0,1.0,-1.0,1.0,-1.0,1.0,-1.0
2025-07-21 13:11:31.878,1.1400000000000006,1140,57,-0.06434545,-0.17553273,0.13341074,-0.03267084,-0.010852015,-0.012421095,0.0,0.0,0.0,0.017091688,0.014601828,-0.2222881,-0.035459835,-0.08383559,-0.30203462,0.103219345,0.058421995,0.07166713,0.0993041,-0.008557208,0.14711666,-0.08437632,-0.027915541,0.0044920268,0.06615342,-0.043268777,-0.07487846,0.015372526,0.050292835,-0.19088277,-0.014144894,-0.04018815,0.117247865,-0.074089274,-1.0,-1.0,0.35994607,1.0,-1.0,1.0,1.0,-1.0,1.0,-1.0,1.0,-1.0,1.0,1.0,-1.0,-1.0,1.0,1.0,-0.7639258,1.0,1.0,1.0,-1.0,0.30098888
2025-07-21 13:11:31.896,1.1600000000000006,1160,58,-0.24411438,-0.19460465,-0.050524853,0.011718089,0.0095865475,-0.008365892,0.0,0.0,0.0,0.01630362,0.024155967,-0.19541276,-0.06797477,-0.103441775,-0.3120918,0.10870478,0.042096015,0.09264972,0.10719036,-0.0009512939,0.1278647,-0.050446626,0.055177122,0.106927894,-0.08724698,0.03779689,0.015770897,0.06261412,-0.052315496,0.06863471,-0.005771591,0.038737737,-0.14297909,0.014012995,1.0,1.0,-1.0,-1.0,1.0,1.0,-0.7639258,1.0,1.0,1.0,-1.0,0.30098888,-1.0,-1.0,-1.0,1.0,-1.0,1.0,1.0,-1.0,1.0,-1.0,1.0,-1.0
2025-07-21 13:11:31.915,1.1800000000000006,1180,59,-0.0034328143,0.056008033,0.018229064,0.047838673,0.053708654,0.00710194,0.0,0.0,0.0,0.015394855,0.015083,-0.18753457,-0.068006,-0.09527606,-0.30423734,0.12375801,0.0670327,0.10500044,0.112809576,0.0014885518,0.12568769,-0.08409668,-0.10880923,-0.17256439,-0.011124827,0.059256975,0.008229079,0.058832716,3.8642615e-05,-0.06337363,0.08833826,-0.112607025,0.07425437,-0.06994055,-1.0,-1.0,-1.0,1.0,-1.0,1.0,1.0,-1.0,1.0,-1.0,1.0,-1.0,1.0,1.0,1.0,-1.0,1.0,1.0,-1.0,-1.0,1.0,1.0,-1.0,-0.06664894
2025-07-21 13:11:31.933,1.2000000000000006,1200,60,0.1610763,-0.085044794,0.019900993,-0.007447069,0.050309796,0.01197099,0.0,0.0,0.0,0.014783482,0.03637494,-0.19954272,-0.043665294,-0.10212408,-0.30907878,0.104489714,0.0581071,0.058045227,0.12247746,0.002698084,0.102197476,-0.059794664,0.024499418,0.040106032,0.048794836,-0.101448536,-0.05708229,0.057354417,-0.030878091,-0.17247674,-0.010923308,0.049175516,-0.114209056,0.037027437,1.0,1.0,1.0,-1.0,1.0,1.0,-1.0,-1.0,1.0,1.0,-1.0,-0.06664894,-1.0,-1.0,-1.0,0.86715573,-0.019566633,1.0,1.0,1.0,1.0,-1.0,1.0,-1.0
2025-07-21 13:11:31.954,1.2200000000000006,1220,61,-0.22960822,0.1879625,0.0746753,-0.032814946,0.06549802,-0.025020804,0.0,0.0,0.0,0.01389917,0.015972616,-0.19430214,-0.06948059,-0.105258,-0.28737816,0.1083691,0.07416323,0.067896046,0.13546428,-0.013906131,0.11906437,-0.09259291,-0.065014556,-0.10482624,0.027410166,0.02478694,0.15711898,-0.020511573,0.11119882,0.0820459,-0.0410506,-0.04493287,0.14538607,-0.012864668,-1.0,-1.0,-1.0,0.86715573,-0.019566633,1.0,1.0,1.0,1.0,-1.0,1.0,-1.0,1.0,-0.94510317,1.0,1.0,1.0,1.0,-1.0,-1.0,1.0,-1.0,-1.0,-1.0
2025-07-21 13:11:31.977,1.2400000000000007,1240,62,-0.093275756,0.17309977,-0.045016937,0.03505614,0.036848355,0.020198366,0.0,0.0,0.0,0.012547535,0.021855108,-0.23223957,-0.028809873,-0.08072281,-0.23908173,0.1132976,0.10027351,0.08907785,0.13356744,-0.033648457,0.11310078,-0.08809539,0.08316111,-0.107359,0.06208576,0.040462486,0.15389535,-0.062458724,0.07710832,0.008943819,0.0063964683,-0.02304715,-0.09811711,-0.053814825,1.0,-0.94510317,1.0,1.0,1.0,1.0,-1.0,-1.0,1.0,-1.0,-1.0,-1.0,1.0,-1.0,0.2039488,1.0,1.0,-1.0,-1.0,-1.0,1.0,-1.0,-0.5290367,-0.71422035
2025-07-21 13:11:31.994,1.2600000000000007,1260,63,0.013303841,-0.037382975,-0.055658273,-0.0025534418,-0.012382162,-0.034438815,0.0,0.0,0.0,0.012405836,0.054853283,-0.27120832,-0.016105752,-0.045274,-0.17038774,0.062080573,0.07870132,0.052576434,0.13216831,-0.06703613,0.05075015,-0.099019274,0.03302988,-0.103885196,0.04142304,0.062357534,0.18684085,-0.1572598,0.019668927,-0.043026943,-0.056936983,-0.008293475,-0.17934498,0.055010114,1.0,-1.0,0.2039488,1.0,1.0,-1.0,-1.0,-1.0,1.0,-1.0,-0.5290367,-0.71422035,1.0,-1.0,1.0,1.0,1.0,-1.0,-1.0,-1.0,-1.0,-1.0,1.0,1.0
2025-07-21 13:11:32.015,1.2800000000000007,1280,64,-0.0565192,-0.13409181,0.02105309,-0.008483373,-0.01032613,0.048828226,0.0,0.0,0.0,0.013178301,0.066690765,-0.29531547,0.020522233,-0.036499947,-0.110197365,0.01720895,0.05843622,0.050628077,0.09892366,-0.0864986,0.05942278,-0.049393445,0.09236092,-0.017564245,0.039419867,0.119922474,0.102562144,-0.13226011,-0.10901695,-0.038407236,-0.13012293,-0.019836567,0.08897316,0.08298068,1.0,-1.0,1.0,1.0,1.0,-1.0,-1.0,-1.0,-1.0,-1.0,1.0,1.0,1.0,-1.0,1.0,1.0,1.0,-1.0,-1.0,1.0,-1.0,1.0,-1.0,1.0
2025-07-21 13:11:32.034,1.3000000000000007,1300,65,0.18398018,0.3354346,-0.11052501,0.05441717,0.013459014,0.017120259,0.0,0.0,0.0,0.013578333,0.08742827,-0.31656063,0.033583865,0.0074328613,-0.048663974,-0.020947488,0.0314515,0.075963266,0.052072223,-0.06423938,0.063232794,-0.028315136,0.10727738,0.0059972894,0.10859692,0.13335289,0.1272881,-0.078375235,-0.05007129,0.19711451,-0.06311162,0.1190945,-0.111274116,0.08928918,1.0,-1.0,1.0,1.0,1.0,-1.0,-1.0,1.0,-1.0,1.0,-1.0,1.0,-0.21783173,-1.0,0.8599706,-1.0,-0.9436501,-1.0,-1.0,1.0,-1.0,-1.0,1.0,1.0
2025-07-21 13:11:32.059,1.3200000000000007,1320,66,-0.015334685,0.016455906,-0.04653021,0.07798232,-0.01381356,0.0038629002,0.0,0.0,0.0,0.01476844,0.07857031,-0.3317825,0.051467694,-0.018169012,-0.02031612,-0.04670825,-0.005297132,0.13708699,0.009641058,-0.080803,0.09085805,-0.0018180627,-0.087048665,-0.08370456,-0.032369617,-0.105434366,0.0012561822,-0.02758333,-0.11727436,0.20171757,-0.05584978,-0.056287073,0.19138636,0.04279403,-0.21783173,-1.0,0.8599706,-1.0,-0.9436501,-1.0,-1.0,1.0,-1.0,-1.0,1.0,1.0,1.0,1.0,1.0,-1.0,-1.0,1.0,-0.428589,-1.0,-1.0,1.0,-1.0,1.0
2025-07-21 13:11:32.077,1.3400000000000007,1340,67,0.15465388,0.07116238,-0.12540913,0.039743755,-0.048964806,-0.035225194,0.0,0.0,0.0,0.016381932,0.087929755,-0.30612877,0.058283903,-0.04505953,-0.06714129,-0.033361893,0.0015662699,0.1401045,-0.026457308,-0.05149451,0.06793234,0.03634081,0.10898138,0.10702745,0.052010283,-0.01679019,-0.18995564,0.096877106,-0.07816659,-0.07317466,0.0038206226,0.055632345,-0.1630946,0.021124698,1.0,1.0,1.0,-1.0,-1.0,1.0,-0.428589,-1.0,-1.0,1.0,-1.0,1.0,-1.0,0.44509453,0.48907715,-1.0,-1.0,0.70025176,1.0,0.7041066,-1.0,-1.0,1.0,1.0
2025-07-21 13:11:32.093,1.3600000000000008,1360,68,-0.36337784,-0.18817972,-0.061652254,0.012029306,0.036254518,0.015274359,0.0,0.0,0.0,0.017079605,0.05145046,-0.2763362,0.05759767,-0.053916186,-0.1274511,-0.0044918978,0.011292174,0.1532754,-0.049119085,-0.062634684,0.08302858,0.05114206,-0.022031058,0.20446746,-0.055201456,-0.047306925,-0.12614368,0.04541565,0.087095805,0.13397262,-0.0035631484,-0.07315401,0.06133731,0.08314164,-1.0,0.44509453,0.48907715,-1.0,-1.0,0.70025176,1.0,0.7041066,-1.0,-1.0,1.0,1.0,-0.50465375,-1.0,-1.0,-1.0,-1.0,1.0,1.0,-1.0,1.0,1.0,-1.0,1.0
2025-07-21 13:11:32.113,1.3800000000000008,1380,69,0.26314616,0.24136649,0.021565706,0.050385926,-0.03164796,-0.042908557,1.5,0.0,0.0,0.01845017,0.029610937,-0.2787623,0.017894426,-0.084140405,-0.17914067,0.029084126,0.04966814,0.12036676,-0.00579413,-0.05206828,0.07223366,0.06550171,-0.049253587,-0.13474485,-0.09705544,0.034380406,-0.05155803,-0.0051930794,0.01552574,-0.20644158,0.035143387,0.050102565,0.0021748387,0.05574279,-0.50465375,-1.0,-1.0,-1.0,-1.0,1.0,1.0,-1.0,1.0,1.0,-1.0,1.0,0.49492735,1.0,0.62507445,-1.0,1.0,1.0,0.8154778,1.0,0.74186623,1.0,1.0,1.0
2025-07-21 13:11:32.135,1.4000000000000008,1400,70,-0.11393649,0.19764619,0.007543728,0.019896619,0.0017264395,-0.007176439,1.5,0.0,0.0,0.017791614,0.045220785,-0.2678551,0.028752519,-0.09129829,-0.14901498,0.05506576,0.0701302,0.099268794,0.006869376,-0.028173935,0.10582769,0.07810816,0.09134635,0.0383533,0.02889119,0.016915487,0.1195314,0.0067923195,0.0049078916,-0.013082235,-0.03393302,0.13232443,0.104044706,0.037755303,0.49492735,1.0,0.62507445,-1.0,1.0,1.0,0.8154778,1.0,0.74186623,1.0,1.0,1.0,0.5280894,1.0,-1.0,-1.0,-1.0,1.0,0.7643551,-1.0,-1.0,-1.0,-1.0,1.0
2025-07-21 13:11:32.159,1.4200000000000008,1420,71,0.20256789,-0.091053315,-0.18046016,0.042783566,0.01336068,-0.0015196445,1.5,0.0,0.0,0.016912246,0.0475001,-0.21240531,-0.012870562,-0.103818774,-0.15568508,0.06422121,0.068189666,0.08643337,-0.011309179,-0.047331933,0.10752211,0.08051117,0.088947676,0.16812247,-0.14654146,-0.06585663,-0.17669375,-0.019681213,0.08855135,-0.011704975,-0.12989807,-0.109566495,-0.03709356,-0.01698066,0.5280894,1.0,-1.0,-1.0,-1.0,1.0,0.7643551,-1.0,-1.0,-1.0,-1.0,1.0,-0.3557353,1.0,0.87638146,-1.0,1.0,1.0,1.0,-1.0,-1.0,1.0,1.0,1.0
2025-07-21 13:11:32.177,1.4400000000000008,1440,72,-0.026284201,-0.07295877,0.103692375,0.021774074,-0.00023229384,-0.02966155,1.5,0.0,0.0,0.018491602,0.0468184,-0.1775663,0.0019568102,-0.12223906,-0.15168887,0.08425351,0.1037365,0.06966969,-0.03740192,-0.035135217,0.13401268,0.095232494,0.019574435,0.07915195,0.11145163,-0.07776329,0.0047644796,0.052837282,-0.019726275,-0.054379877,-0.008025281,0.09429553,0.10744575,-0.04502232,-0.3557353,1.0,0.87638146,-1.0,1.0,1.0,1.0,-1.0,-1.0,1.0,1.0,1.0,1.0,1.0,-0.95831877,-1.0,-1.0,1.0,1.0,-0.11403676,-0.9715288,-1.0,-1.0,1.0
2025-07-21 13:11:32.194,1.4600000000000009,1460,73,0.098799706,0.04948059,-0.08479971,0.0058345553,0.010740066,-0.022464415,1.5,0.0,0.0,0.018254032,0.062088884,-0.13220796,-0.027456418,-0.13035624,-0.16789739,0.089262486,0.11383526,0.044145543,-0.06403039,-0.036629047,0.14960775,0.111339174,0.057814363,0.14710669,-0.05230737,-0.050865613,-0.04716644,0.061595827,0.09935656,-0.06589759,-0.039777946,-0.042570036,-0.07661859,-0.03204208,1.0,1.0,-0.95831877,-1.0,-1.0,1.0,1.0,-0.11403676,-0.9715288,-1.0,-1.0,1.0,1.0,1.0,0.49189848,-1.0,-0.5426783,1.0,0.020983884,0.36586595,-1.0,1.0,1.0,1.0
2025-07-21 13:11:32.216,1.4800000000000009,1480,74,-0.12193659,0.28689912,-0.05928552,0.02672654,-0.039523154,0.006352076,1.5,0.0,0.0,0.01836814,0.09110104,-0.06421842,-0.0332475,-0.13536689,-0.17081602,0.091835305,0.08990015,0.05838123,-0.072508246,-0.032109264,0.17603534,0.10308002,0.08903369,0.16432399,-0.035350554,0.031191453,0.027291255,-0.039321333,-0.046213962,0.12728976,-0.014088438,0.06758115,0.10572339,0.013478243,1.0,1.0,0.49189848,-1.0,-0.5426783,1.0,0.020983884,0.36586595,-1.0,1.0,1.0,1.0,-1.0,-1.0,0.48830634,-1.0,-1.0,-1.0,1.0,-1.0,0.31062213,0.42453733,-1.0,1.0
2025-07-21 13:11:32.234,1.5000000000000009,1500,75,0.2212122,-0.35991764,0.14202657,0.04807076,-0.033782996,0.04571824,1.5,0.0,0.0,0.021042999,0.07906715,-0.052770566,-0.025764953,-0.13659568,-0.20259899,0.057419628,0.10490597,0.04487961,-0.055762526,-0.024388155,0.15486515,0.11740805,-0.1172573,-0.03697977,0.10546865,0.03331328,-0.055709437,-0.10374484,0.02074005,-0.18517222,0.060294747,0.08804245,-0.10667276,0.023836909,-1.0,-1.0,0.48830634,-1.0,-1.0,-1.0,1.0,-1.0,0.31062213,0.42453733,-1.0,1.0,1.0,1.0,-1.0,-1.0,-1.0,1.0,0.057884704,1.0,1.0,1.0,1.0,0.8204041
2025-07-21 13:11:32.259,1.520000000000001,1520,76,0.051152717,-0.13790227,0.10989909,0.032308456,-0.024111403,0.007267886,1.5,0.0,0.0,0.020347169,0.08350627,-0.013103845,-0.035386115,-0.15312907,-0.24436432,0.06667236,0.089499004,0.037290346,-0.022596594,0.012260036,0.18046467,0.12130689,0.10182117,0.26161474,-0.05133961,-0.029712219,-0.09006971,0.044022962,-0.025703713,0.11345655,0.024267757,0.021585472,0.07525321,-0.057362147,1.0,1.0,-1.0,-1.0,-1.0,1.0,0.057884704,1.0,1.0,1.0,1.0,0.8204041,-1.0,-1.0,-1.0,-1.0,-1.0,-0.79688746,-1.0,-1.0,1.0,-0.8010559,1.0,-1.0
2025-07-21 13:11:32.278,1.540000000000001,1540,77,0.06424041,-0.5882482,0.17640935,0.055648323,0.0353083,-0.04277904,1.5,0.0,0.0,0.018262902,0.043294147,0.00712208,-0.063917466,-0.1504666,-0.28263852,0.040958162,0.042577684,0.038735874,0.017607385,-0.0039717196,0.22924791,0.077255815,-0.08302272,-0.062989645,-0.07550992,0.009665879,-0.029289775,-0.075993255,-0.06456165,-0.092384644,0.044264294,-0.051665768,0.11920355,-0.048203126,-1.0,-1.0,-1.0,-1.0,-1.0,-0.79688746,-1.0,-1.0,1.0,-0.8010559,1.0,-1.0,1.0,1.0,0.5254888,-1.0,1.0,1.0,-1.0,1.0,-1.0,1.0,-1.0,-1.0
2025-07-21 13:11:32.296,1.560000000000001,1560,78,-0.019386444,-0.056278806,0.0711666,-0.012309029,0.059571162,0.028009422,1.5,0.0,0.0,0.01642515,0.055562887,0.009735176,-0.035317592,-0.16838133,-0.26525316,0.04566081,0.014410692,0.048003174,-0.013902417,0.020311905,0.21803972,0.029059587,-0.009372937,0.14044456,0.052690696,0.05384461,0.113517165,-0.007367932,-0.083676025,0.2030813,-0.011951933,0.07652465,-0.20894858,-0.12615526,1.0,1.0,0.5254888,-1.0,1.0,1.0,-1.0,1.0,-1.0,1.0,-1.0,-1.0,1.0,-1.0,-1.0,-1.0,-0.781735,-1.0,1.0,-1.0,1.0,-1.0,1.0,-1.0
2025-07-21 13:11:32.315,1.580000000000001,1580,79,0.18287101,-0.10766388,0.16882655,-0.06536229,0.08485867,-0.0079104975,1.5,0.0,0.0,0.014558586,0.072399564,0.030491259,-0.05222852,-0.16257781,-0.272906,0.024068903,0.017165551,0.040769838,0.0006367676,-0.004837592,0.20517981,0.0010573859,0.024292884,-0.030996008,0.008300873,0.017026784,-0.024778452,-0.0365823,0.12538578,-0.110827126,0.06538886,-0.009960989,0.08521643,-0.025511311,1.0,-1.0,-1.0,-1.0,-0.781735,-1.0,1.0,-1.0,1.0,-1.0,1.0,-1.0,1.0,0.11138225,-1.0,-1.0,1.0,1.0,-1.0,1.0,-0.13203952,1.0,-1.0,-0.72736067
2025-07-21 13:11:32.334,1.600000000000001,1600,80,-0.020622555,0.0714406,0.16380838,-0.008268373,0.019568589,0.044312317,1.5,0.0,0.0,0.011643885,0.09536496,0.03671197,-0.07949319,-0.16349253,-0.26382902,0.025933057,0.010768884,0.0761067,-0.0207417,0.01507293,0.1904887,-0.009157084,0.008641542,0.003423275,-0.10090924,-0.03900512,-0.034728456,0.069530696,-0.0681609,0.19258219,0.004887172,0.050939947,-0.10086689,-0.02718291,1.0,0.11138225,-1.0,-1.0,1.0,1.0,-1.0,1.0,-0.13203952,1.0,-1.0,-0.72736067,1.0,-1.0,1.0,0.099904455,1.0,1.0,1.0,-1.0,1.0,-1.0,1.0,-1.0
2025-07-21 13:11:32.359,1.620000000000001,1620,81,0.039897613,0.129848,0.30369225,0.0018025112,-0.012450028,0.039463963,1.5,0.0,0.0,0.007515222,0.105171904,0.006740892,-0.035548665,-0.1728702,-0.24068494,0.028518815,0.02261255,0.09702316,0.005726333,0.006248333,0.21628274,-0.044293836,-0.025507063,-0.12169978,0.12159979,0.08460786,0.1330059,0.014859287,0.120020345,0.048097413,0.025241109,-0.091197565,0.03725989,0.009245173,1.0,-1.0,1.0,0.099904455,1.0,1.0,1.0,-1.0,1.0,-1.0,1.0,-1.0,1.0,-1.0,-1.0,1.0,1.0,0.64143425,-1.0,1.0,1.0,-1.0,-1.0,-1.0
2025-07-21 13:11:32.381,1.640000000000001,1640,82,-0.064126246,0.11934734,0.26779133,-0.043307904,-0.015643824,0.022469405,1.5,0.0,0.0,0.002155628,0.12778713,-0.037055563,-0.048498515,-0.15502201,-0.18464845,0.038173348,0.04237122,0.1380512,0.032610398,-0.032328986,0.20077585,-0.056600202,0.034038696,-0.16846824,-0.06188825,0.02109485,0.083182395,-0.0027387897,-0.11571919,0.17711537,0.019407047,-0.11969393,-0.098793745,-0.017640896,1.0,-1.0,-1.0,1.0,1.0,0.64143425,-1.0,1.0,1.0,-1.0,-1.0,-1.0,1.0,-1.0,1.0,1.0,1.0,-1.0,-1.0,-1.0,1.0,-1.0,-1.0,-0.037326016
2025-07-21 13:11:32.402,1.660000000000001,1660,83,-0.0073598833,-0.056965355,0.2042042,0.037112888,0.0034981894,0.029898742,1.5,0.0,0.0,-0.0030063712,0.13272613,-0.09665944,-0.02099272,-0.117267504,-0.11143166,0.002044687,0.013766237,0.13750029,0.0493099,-0.050518163,0.10053366,-0.048102118,0.011528389,-0.16074362,0.12404005,0.095022485,0.13515635,-0.15320285,-0.052360367,0.012592088,-0.009941971,-0.097152196,-0.25886807,0.061011862,1.0,-1.0,1.0,1.0,1.0,-1.0,-1.0,-1.0,1.0,-1.0,-1.0,-0.037326016,1.0,1.0,1.0,-1.0,1.0,-1.0,-1.0,1.0,1.0,-1.0,0.49321133,1.0
2025-07-21 13:11:32.431,1.680000000000001,1680,84,-0.23167999,-0.11296657,0.1717719,-0.029940479,0.07809852,-0.034236997,1.5,0.0,0.0,-0.007050533,0.13947698,-0.0943448,0.0014618831,-0.12686136,-0.0153797185,-0.042517386,-0.0055028554,0.17438985,0.071857326,-0.06420108,0.068899356,-0.024203392,0.08875142,0.16838089,0.14225404,0.022321444,0.18518062,-0.04388626,-0.027831946,0.15216714,0.061441965,-0.09267019,0.08327782,0.0066834697,1.0,1.0,1.0,-1.0,1.0,-1.0,-1.0,1.0,1.0,-1.0,0.49321133,1.0,0.8672692,-1.0,1.0,-1.0,-1.0,-0.11168651,-1.0,1.0,-1.0,0.9610013,-1.0,1.0
2025-07-21 13:11:32.451,1.700000000000001,1700,85,0.26433846,0.19010116,0.15827318,0.038612112,0.05236951,-0.01362166,1.5,0.0,0.0,-0.009889088,0.1502781,-0.093208276,0.030187946,-0.13336268,0.012531346,-0.034511775,-0.033900913,0.22705582,0.042434424,-0.05493879,0.060657572,0.0038296958,0.036835466,-0.08017504,0.011151811,-0.044540737,-0.002861705,0.025810245,-0.010709323,0.07025585,-0.15397651,0.051311713,-0.049554337,0.07718853,0.8672692,-1.0,1.0,-1.0,-1.0,-0.11168651,-1.0,1.0,-1.0,0.9610013,-1.0,1.0,1.0,1.0,1.0,-1.0,-1.0,-1.0,-0.3052043,1.0,-1.0,0.45561984,-1.0,1.0
2025-07-21 13:11:32.478,1.720000000000001,1720,86,0.30167642,0.076074004,-0.0633573,-0.042292383,0.029736025,-0.039888714,1.5,0.0,0.0,-0.012911609,0.16647758,-0.12033182,0.039162204,-0.1428994,-0.033174947,-0.050473906,-0.03841608,0.24749613,-0.0029786262,-0.032617692,0.018403707,0.030486288,0.042555153,-0.06413235,0.0950656,0.013739624,-0.19376937,-0.045669366,-0.022809934,0.14720151,-0.06801719,0.095907584,-0.17244466,0.076976866,1.0,1.0,1.0,-1.0,-1.0,-1.0,-0.3052043,1.0,-1.0,0.45561984,-1.0,1.0,-1.0,1.0,1.0,-1.0,0.11482563,0.80213827,1.0,-1.0,-1.0,-1.0,1.0,1.0
2025-07-21 13:11:32.499,1.740000000000001,1740,87,-0.26063854,-0.19973664,0.08152442,-0.054358955,0.010294545,-0.02048027,1.5,0.0,0.0,-0.0135302665,0.14464894,-0.08189504,0.06294392,-0.15707469,-0.036383174,-0.027190553,-0.009562562,0.23632091,-0.01775689,-0.049217198,0.02529778,0.040203635,-0.16288587,0.04489155,-0.016218036,-0.07126898,0.04249959,0.1368597,0.056343243,-0.13590458,-0.020754075,-0.039438482,0.15000248,-0.0370838,-1.0,1.0,1.0,-1.0,0.11482563,0.80213827,1.0,-1.0,-1.0,-1.0,1.0,1.0,1.0,1.0,1.0,-1.0,-1.0,0.73711115,1.0,-1.0,-1.0,0.9430372,-0.6955221,1.0
2025-07-21 13:11:32.519,1.7600000000000011,1760,88,0.16466568,0.22068,-0.09983082,-0.017848242,-0.033669334,-0.00305525,1.5,0.0,0.0,-0.014110654,0.15569626,-0.04985783,0.06639544,-0.15507284,-0.051487383,0.003143621,0.021459494,0.14179598,-0.04650047,-0.04803702,0.025742266,0.06945363,0.09854649,0.08068634,0.016718797,0.060207635,-0.03937872,0.06948022,0.06449499,-0.2324476,-0.028737336,0.1427358,-0.0275388,0.008003,1.0,1.0,1.0,-1.0,-1.0,0.73711115,1.0,-1.0,-1.0,0.9430372,-0.6955221,1.0,-1.0,1.0,1.0,-1.0,-1.0,1.0,1.0,-0.8323116,-1.0,0.73797506,1.0,1.0
2025-07-21 13:11:32.548,1.7800000000000011,1780,89,-0.2748049,0.082702585,-0.021132374,0.00029845294,-0.008705713,-0.021281853,1.5,0.0,0.0,-0.013908904,0.13925779,0.035879645,0.06917509,-0.15039136,-0.079017885,0.028194517,0.03904931,0.0441555,-0.062127165,-0.029407421,0.06329197,0.08135495,-0.022861747,0.1739103,0.07377212,-0.05660967,-0.1227463,0.07103983,0.12921755,-0.20598729,-0.07450297,-0.01770484,0.14360686,0.011584692,-1.0,1.0,1.0,-1.0,-1.0,1.0,1.0,-0.8323116,-1.0,0.73797506,1.0,1.0,1.0,0.3348049,-0.75261265,-1.0,-1.0,1.0,1.0,-0.47012237,-0.27670434,1.0,1.0,1.0
2025-07-21 13:11:32.565,1.8000000000000012,1800,90,-0.033654775,0.17090318,0.11659415,0.015335827,0.013725377,0.04755334,1.5,0.0,0.0,-0.012797694,0.13156681,0.05612788,0.03361363,-0.1531251,-0.14175127,0.05532512,0.07154638,0.008595787,-0.06252055,0.008829739,0.11923226,0.07955837,0.046934117,-0.0021742154,-0.12273574,0.044612017,-0.07314596,0.07856161,0.010139842,-0.060176067,-0.02717703,0.015697097,0.10890211,-0.053192303,1.0,0.3348049,-0.75261265,-1.0,-1.0,1.0,1.0,-0.47012237,-0.27670434,1.0,1.0,1.0,0.70418733,1.0,0.78226334,-1.0,-1.0,-1.0,-0.5162607,-0.35205388,1.0,1.0,-0.16341567,1.0
2025-07-21 13:11:32.583,1.8200000000000012,1820,91,0.21925454,-0.20174828,-0.08053835,0.06072564,-0.004035678,0.011050386,1.5,0.0,0.0,-0.013426795,0.14115773,0.10258556,0.05692591,-0.15247244,-0.1900851,0.014188871,0.06531105,-0.033362575,-0.031192288,0.022804175,0.14271286,0.10599654,0.029211963,0.2225336,0.09237016,-0.03489982,-0.07717885,-0.12325275,-0.058235615,-0.029965745,0.10797708,0.052998085,-0.05887733,0.014361317,0.70418733,1.0,0.78226334,-1.0,-1.0,-1.0,-0.5162607,-0.35205388,1.0,1.0,-0.16341567,1.0,-0.71377045,-1.0,-1.0,-1.0,-0.7877573,1.0,-0.40269846,1.0,1.0,-1.0,1.0,-1.0
2025-07-21 13:11:32.614,1.8400000000000012,1840,92,-0.10400956,-0.4290441,0.028161254,-0.025141016,0.023062006,-0.020582272,1.5,0.0,0.0,-0.013396733,0.10249216,0.11510379,0.011015931,-0.1558284,-0.21793073,0.034879416,0.035093226,-0.014381962,-0.005059161,-0.0095896805,0.16863607,0.051193763,-0.14144987,-0.17314184,-0.1125935,-0.045121405,-0.05208872,0.041091636,-0.115283154,0.11381822,0.05422363,-0.014092007,0.10789389,-0.072780244,-0.71377045,-1.0,-1.0,-1.0,-0.7877573,1.0,-0.40269846,1.0,1.0,-1.0,1.0,-1.0,1.0,1.0,1.0,1.0,1.0,1.0,1.0,0.793015,-0.6581262,0.64619845,-1.0,-1.0
2025-07-21 13:11:32.632,1.8600000000000012,1860,93,-0.008891169,0.36978444,-0.06488097,-0.02806779,0.035477042,0.024174636,1.5,0.0,0.0,-0.012942925,0.11416099,0.11088415,0.03370429,-0.12545142,-0.2164678,0.041599084,0.06093393,0.04633458,-0.019647647,0.021435305,0.16521077,0.02199301,0.06319157,0.15111074,-0.0037736516,0.08302745,0.14419577,-0.036731526,-0.00059018156,0.093854904,-0.105147615,-0.03474601,-0.08019224,-0.06728356,1.0,1.0,1.0,1.0,1.0,1.0,1.0,0.793015,-0.6581262,0.64619845,-1.0,-1.0,1.0,-1.0,-1.0,-1.0,-1.0,0.43571824,-1.0,-1.0,1.0,-1.0,1.0,-1.0
2025-07-21 13:11:32.652,1.8800000000000012,1880,94,0.00088240847,-0.21647859,-0.048694372,-0.040719893,-0.0050065746,-0.026721003,1.5,0.0,0.0,-0.011464955,0.12710644,0.110960685,-0.002978021,-0.13525647,-0.21116349,0.057420786,0.024611838,0.043433655,-0.0011341714,-0.015593406,0.1723141,-0.007573241,0.08198321,-0.029956609,-0.08184731,-0.0822316,-0.030770425,0.007947655,-0.07455875,-0.007940298,0.1440252,-0.048418697,0.11250292,-0.07550824,1.0,-1.0,-1.0,-1.0,-1.0,0.43571824,-1.0,-1.0,1.0,-1.0,1.0,-1.0,1.0,-1.0,1.0,0.2229208,1.0,1.0,1.0,1.0,1.0,1.0,-1.0,-1.0
2025-07-21 13:11:32.682,1.9000000000000012,1900,95,0.09766108,0.2431241,-0.025755676,-0.029457502,-0.021893675,-0.008021829,1.5,0.0,0.0,-0.010390991,0.14657378,0.07117591,0.037776727,-0.115678,-0.21937123,0.051531967,0.050310638,0.07682797,0.018078312,0.012279836,0.1681731,-0.027961578,-0.018511532,-0.14012134,0.11335069,0.09355738,0.08474911,0.053042658,0.124865554,0.11765242,0.049278237,-0.0049863462,-0.073667444,-0.015322392,1.0,-1.0,1.0,0.2229208,1.0,1.0,1.0,1.0,1.0,1.0,-1.0,-1.0,1.0,-1.0,-1.0,-1.0,1.0,1.0,-1.0,-1.0,1.0,-1.0,-1.0,-1.0
2025-07-21 13:11:32.698,1.9200000000000013,1920,96,-0.007421146,-0.28087017,0.056562793,-0.034447476,0.028648602,0.04047454,1.5,0.0,0.0,-0.009989269,0.15570486,0.029251315,-0.0045215976,-0.13813013,-0.2114173,0.060958207,0.031969693,0.08355004,0.04067495,-0.007581709,0.14290468,-0.057506215,0.06355958,-0.11396957,-0.021354605,-0.06941981,0.0572019,-0.018865764,-0.09755064,0.002566258,0.012680185,-0.0325086,-0.08940151,-0.03242594,1.0,-1.0,-1.0,-1.0,1.0,1.0,-1.0,-1.0,1.0,-1.0,-1.0,-1.0,1.0,-1.0,0.56293356,1.0,1.0,0.10717006,1.0,1.0,1.0,-1.0,-1.0,-0.774726
2025-07-21 13:11:32.718,1.9400000000000013,1940,97,-0.0018255321,0.222362,0.0088381525,0.0039414894,0.017887024,-0.0037571453,1.5,0.0,0.0,-0.010379018,0.15007973,-0.03930744,0.013276645,-0.113763064,-0.16078228,0.05201273,0.054697167,0.09735393,0.060774565,-0.032524537,0.050563328,-0.06904196,0.07112111,-0.100421526,0.012308282,0.046994057,0.1547886,0.02364562,0.116220035,0.11186166,0.033290047,-0.014857835,-0.18317208,-0.021709498,1.0,-1.0,0.56293356,1.0,1.0,0.10717006,1.0,1.0,1.0,-1.0,-1.0,-0.774726,1.0,-1.0,-1.0,-0.1231366,1.0,-1.0,-1.0,-1.0,1.0,-1.0,1.0,-0.5352035
2025-07-21 13:11:32.748,1.9600000000000013,1960,98,-0.13719368,-0.093311384,0.11769523,-0.012984783,-0.028966319,-0.003220117,1.5,0.0,0.0,-0.010715028,0.16187291,-0.1079877,-0.0045941495,-0.10899595,-0.08385299,0.00012907072,0.03198973,0.10451127,0.0729099,-0.053981017,0.04280793,-0.070969336,0.0472193,-0.17629531,-0.14210941,0.010268043,0.14043923,-0.090698496,-0.1160205,-0.056122713,0.027050206,-0.117456384,0.068537965,-0.022348598,1.0,-1.0,-1.0,-0.1231366,1.0,-1.0,-1.0,-1.0,1.0,-1.0,1.0,-0.5352035,1.0,1.0,1.0,1.0,1.0,-1.0,-1.0,1.0,-1.0,-0.33839712,-1.0,1.0
2025-07-21 13:11:32.767,1.9800000000000013,1980,99,0.059392218,0.17403978,-0.095297195,0.006456157,-0.0075979605,-0.024832562,1.5,0.0,0.0,-0.012459439,0.15727758,-0.101852305,0.015318115,-0.07510323,-0.0075668106,-0.038279463,0.01043526,0.15309623,0.042740315,-0.05358255,0.045064893,-0.03804343,0.036404468,0.09713897,0.00021549253,0.15361683,0.26006755,-0.0432145,-0.092716895,0.18128389,-0.09051158,-0.037211113,-0.004682577,0.11005413,1.0,1.0,1.0,1.0,1.0,-1.0,-1.0,1.0,-1.0,-0.33839712,-1.0,1.0,-0.60460156,-1.0,1.0,-1.0,-1.0,-1.0,-1.0,1.0,-1.0,-1.0,1.0,1.0
2025-07-21 13:11:32.788,2.0000000000000013,2000,100,-0.092986666,-0.071497075,0.005671608,0.044366386,0.06410716,0.031287458,1.5,0.0,0.0,-0.012760208,0.1389345,-0.095691174,0.04449328,-0.08153934,0.015166141,-0.049050845,-0.026901698,0.20440601,0.0058463016,-0.08344512,0.043008007,-0.00055576034,-0.018714568,-0.098320015,0.065724194,-0.101291075,-0.052054316,-0.12121307,-0.1443164,0.09146967,-0.058436424,-0.091911346,0.12838325,-0.014806545,-0.60460156,-1.0,1.0,-1.0,-1.0,-1.0,-1.0,1.0,-1.0,-1.0,1.0,1.0,1.0,1.0,1.0,-1.0,-1.0,1.0,1.0,-0.67640054,-1.0,1.0,-1.0,1.0
2025-07-21 13:11:32.810,2.0200000000000014,2020,101,0.26255867,0.28655726,0.0006420854,0.049750175,-0.00051967514,-0.034421384,1.5,0.0,0.0,-0.012157279,0.1423598,-0.10562512,0.058535103,-0.09122696,-0.0013968822,-0.021075517,0.009251201,0.17433926,-0.01580684,-0.055393733,0.052667357,0.018957878,0.116502285,0.0010480946,0.0033968396,-0.018538244,-0.15051089,0.040791795,0.15050144,-0.109734274,-0.13093522,0.051629376,0.003901916,0.1284403,1.0,1.0,1.0,-1.0,-1.0,1.0,1.0,-0.67640054,-1.0,1.0,-1.0,1.0,-1.0,1.0,1.0,-1.0,-1.0,-1.0,1.0,-1.0,-1.0,0.7491364,1.0,1.0
2025-07-21 13:11:32.828,2.0400000000000014,2040,102,-0.115681365,-0.17899191,0.21513657,0.053072114,-0.040621698,0.013038368,1.5,0.0,0.0,-0.013325842,0.11831078,-0.058404986,0.051649105,-0.10666207,-0.07970918,-0.04657758,0.022537585,0.09543841,-0.04488789,-0.044639483,0.08218561,0.035883658,-0.13487028,0.11150496,0.027885575,-0.09941371,-0.17662543,-0.12047795,0.017651673,-0.14067437,-0.1019305,-0.0018665498,0.18788022,0.08256757,-1.0,1.0,1.0,-1.0,-1.0,-1.0,1.0,-1.0,-1.0,0.7491364,1.0,1.0,1.0,1.0,1.0,-1.0,-1.0,1.0,1.0,1.0,-1.0,1.0,-1.0,1.0
2025-07-21 13:11:32.847,2.0600000000000014,2060,103,0.07822547,0.21370612,-0.016368773,-0.0017276517,-0.039052434,-0.049562458,1.5,0.0,0.0,-0.01551316,0.14061248,-0.019663088,0.072443254,-0.112894446,-0.14131357,-0.008935026,0.048565,0.10402127,-0.05687016,-0.0061647827,0.10234227,0.05761284,0.062359326,0.20600758,-0.05547367,-0.027263097,-0.13092269,0.042262815,0.09542237,0.058481175,-0.038868655,0.015829885,0.009662345,0.12321895,1.0,1.0,1.0,-1.0,-1.0,1.0,1.0,1.0,-1.0,1.0,-1.0,1.0,-1.0,1.0,1.0,-1.0,-1.0,1.0,1.0,-1.0,-1.0,-0.878682,1.0,1.0
2025-07-21 13:11:32.866,2.0800000000000014,2080,104,-0.36976716,-0.28548142,0.07843303,0.015446161,0.039653257,0.0023093708,1.5,0.0,0.0,-0.017258208,0.09466758,0.049132325,0.08222611,-0.12269282,-0.19491431,0.02157246,0.07903791,0.0902327,-0.0719516,-0.027745724,0.13594224,0.07671077,-0.16678469,0.16752553,0.07845895,-0.07189823,-0.18570654,0.1280852,0.05648429,-0.077193186,-0.092160076,-0.118139215,0.18119137,0.06577108,-1.0,1.0,1.0,-1.0,-1.0,1.0,1.0,-1.0,-1.0,-0.878682,1.0,1.0,1.0,1.0,-0.25581318,-1.0,-1.0,1.0,1.0,-0.79347897,-1.0,1.0,-1.0,1.0
2025-07-21 13:11:32.892,2.1000000000000014,2100,105,0.2301945,0.18562946,-0.0047715586,0.009794878,0.022187268,0.0032884595,1.5,0.0,0.0,-0.017679285,0.11383416,0.1090891,0.048265584,-0.1409033,-0.23468685,0.04091826,0.09056152,0.0059970696,-0.09962797,-0.021847965,0.15816626,0.084395446,0.026390303,0.14866218,-0.104618415,0.02409227,-0.1665267,-0.005810117,0.10094346,-0.10745481,0.024337128,-0.0116464,0.047246456,-0.03141121,1.0,1.0,-0.25581318,-1.0,-1.0,1.0,1.0,-0.79347897,-1.0,1.0,-1.0,1.0,-1.0,1.0,-0.9666415,-1.0,-1.0,1.0,0.6427998,0.021812238,1.0,1.0,1.0,1.0
2025-07-21 13:11:32.910,2.1200000000000014,2120,106,0.012352094,0.01520198,0.12842564,0.05447492,0.0008347674,0.047159318,1.5,0.0,0.0,-0.01875046,0.091760434,0.16304079,0.010104093,-0.14536889,-0.25222617,0.065981254,0.09196421,0.0030897737,-0.053646017,0.0077664414,0.19053301,0.08769274,-0.06427421,0.1294061,-0.12035243,0.012760719,-0.10315442,0.060037255,0.008257361,-0.046419855,0.033047773,0.12040823,0.15298092,0.025295014,-1.0,1.0,-0.9666415,-1.0,-1.0,1.0,0.6427998,0.021812238,1.0,1.0,1.0,1.0,1.0,1.0,-1.0,-1.0,0.16088405,0.98966485,0.43798012,-1.0,1.0,-1.0,-0.03154463,-1.0
2025-07-21 13:11:32.927,2.1400000000000015,2140,107,0.23592623,-0.3208508,0.23149998,0.03596899,0.02766835,-0.016695948,1.5,0.0,0.0,-0.020376261,0.10300122,0.22131127,-0.021040745,-0.15476927,-0.24590218,0.069926314,0.092826486,-0.026910663,-0.013840572,-0.017479287,0.18794863,0.053228207,0.0034059507,0.15570424,-0.0191779,-0.039315134,0.15027119,0.0025963814,0.0010184059,-0.17694288,0.15936276,-0.07034749,-0.043566436,-0.12100613,1.0,1.0,-1.0,-1.0,0.16088405,0.98966485,0.43798012,-1.0,1.0,-1.0,-0.03154463,-1.0,1.0,-1.0,-1.0,1.0,1.0,1.0,-1.0,1.0,1.0,-0.5877617,-1.0,-1.0
2025-07-21 13:11:32.947,2.1600000000000015,2160,108,0.096361086,0.025497299,0.028457312,-0.014584917,-0.014567552,0.026982388,1.5,0.0,0.0,-0.023365589,0.11585267,0.1892486,-0.041555483,-0.13715994,-0.19329211,0.0813865,0.072375305,-0.011872555,-0.00026954652,-0.032163817,0.11033691,0.02589137,-0.0062725698,-0.093915686,-0.09011974,-0.008739802,0.1825806,-0.016648838,-0.04173158,0.08619711,0.09887718,-0.053232223,-0.24148819,-0.08008213,1.0,-1.0,-1.0,1.0,1.0,1.0,-1.0,1.0,1.0,-0.5877617,-1.0,-1.0,1.0,-1.0,-1.0,1.0,1.0,1.0,-1.0,0.7537321,1.0,-1.0,-1.0,-1.0
2025-07-21 13:11:32.967,2.1800000000000015,2180,109,0.13314845,-0.041708905,-0.092383824,-0.008702898,-0.029115235,-0.016029252,1.5,0.0,0.0,-0.02586454,0.124093786,0.14718206,-0.058893703,-0.12415405,-0.14844379,0.078787655,0.048532628,0.035007644,0.017569954,-0.053240065,0.04047289,-0.011209886,0.0878796,0.007900097,-0.013117855,0.11170769,0.16189028,-0.010095548,-0.039458845,0.1367362,0.10982222,0.012679122,-0.16124725,-0.052852813,1.0,-1.0,-1.0,1.0,1.0,1.0,-1.0,0.7537321,1.0,-1.0,-1.0,-1.0,1.0,-1.0,-1.0,-1.0,1.0,0.77698535,-1.0,-1.0,1.0,-1.0,-1.0,-1.0
2025-07-21 13:11:32.993,2.2000000000000015,2200,110,0.01451854,-0.22843565,0.13331763,-0.001533829,-0.006087463,0.019038776,1.5,0.0,0.0,-0.024684852,0.13065217,0.085302554,-0.065405875,-0.13320999,-0.10637228,0.082579084,0.027282085,0.047093328,0.03818825,-0.07457551,-0.02170788,-0.03353799,-0.03502197,-0.26455945,0.009662456,0.031045103,0.10190736,-0.034091488,-0.10505798,-0.012224306,0.10755227,-0.070259444,-0.18387811,0.008470336,1.0,-1.0,-1.0,-1.0,1.0,0.77698535,-1.0,-1.0,1.0,-1.0,-1.0,-1.0,1.0,-1.0,1.0,-0.6791174,1.0,-1.0,-1.0,1.0,1.0,-1.0,-1.0,1.0
2025-07-21 13:11:33.010,2.2200000000000015,2220,111,-0.017080233,-0.14927608,0.00043072714,0.018671598,0.00554917,-0.0176298,1.5,0.0,0.0,-0.02510205,0.13447417,-0.007996495,-0.04333825,-0.13342232,-0.03212599,0.024921577,-0.016375666,0.06325955,0.059443034,-0.09223898,-0.10130329,-0.0039104153,0.026167188,-0.1376763,0.15672591,-0.06812071,0.23001675,-0.082658485,-0.0011192167,0.21253029,0.015987683,-0.05843974,-0.1515514,0.12267188,1.0,-1.0,1.0,-0.6791174,1.0,-1.0,-1.0,1.0,1.0,-1.0,-1.0,1.0,1.0,-1.0,0.08029022,0.26973188,0.78007996,-1.0,-1.0,1.0,-1.0,-1.0,1.0,1.0
2025-07-21 13:11:33.027,2.2400000000000015,2240,112,-0.026672855,0.10117198,0.07909055,-0.008830228,-0.05053172,0.0041603167,1.5,0.0,0.0,-0.02627803,0.14882454,-0.0506751,-0.0379104,-0.12756667,0.020966403,-0.009171094,-0.041081987,0.14168033,0.029075783,-0.09730386,-0.09119818,0.030784369,0.04220173,-0.15479845,0.078878134,0.03061693,0.08107447,-0.06005553,-0.13444452,0.2048633,-0.13887385,0.03481131,0.08815898,0.057853542,1.0,-1.0,0.08029022,0.26973188,0.78007996,-1.0,-1.0,1.0,-1.0,-1.0,1.0,1.0,1.0,1.0,1.0,-1.0,-1.0,-1.0,-1.0,1.0,-1.0,0.5457612,-1.0,1.0
2025-07-21 13:11:33.047,2.2600000000000016,2260,113,0.14613558,0.18228887,-0.064686865,-0.032142714,-0.07079906,0.016097216,1.5,0.0,0.0,-0.02763475,0.17838463,-0.067556314,-0.009189058,-0.12493265,0.040527023,-0.03349926,-0.062306184,0.17778277,-0.010307872,-0.0845794,-0.081373386,0.041907948,0.013112659,0.049320057,0.042994298,-0.023638118,0.03192692,-0.0715467,-0.042735066,0.15248035,-0.061562162,0.03280318,-0.07271002,-0.0022894444,1.0,1.0,1.0,-1.0,-1.0,-1.0,-1.0,1.0,-1.0,0.5457612,-1.0,1.0,-1.0,1.0,1.0,-1.0,-1.0,-0.5140069,1.0,-1.0,-1.0,0.033469766,1.0,1.0
2025-07-21 13:11:33.067,2.2800000000000016,2280,114,-0.124790914,0.07026213,0.025404207,-0.0052042357,-0.015666345,-0.040868666,1.5,0.0,0.0,-0.028033767,0.15842436,-0.030558927,0.011337049,-0.14052947,0.0036865298,-0.02875627,-0.02510277,0.16834429,-0.031043977,-0.07806023,-0.057172142,0.06600838,-0.020373154,0.07643634,0.031295408,0.018398624,-0.1346439,0.040866878,0.07524722,-0.20707777,-0.109916896,-0.0669046,0.13643213,0.06238937,-1.0,1.0,1.0,-1.0,-1.0,-0.5140069,1.0,-1.0,-1.0,0.033469766,1.0,1.0,0.97966063,1.0,1.0,-1.0,-1.0,1.0,1.0,-1.0,-1.0,1.0,-0.4188146,1.0
2025-07-21 13:11:33.092,2.3000000000000016,2300,115,0.15209872,0.23098256,-0.01246067,0.025881046,-0.029883225,0.015455665,1.5,0.0,0.0,-0.028185854,0.16175115,0.013693109,0.028194703,-0.13423872,-0.07978557,-0.013182721,-0.00048545984,0.07096939,-0.060100265,-0.05800315,-0.042367,0.06665254,-0.028626766,0.19497988,-0.004037601,-0.026243927,-0.20475315,0.0746434,0.0825067,-0.16895944,-0.05254175,0.12626688,-0.037595935,0.0028246567,0.97966063,1.0,1.0,-1.0,-1.0,1.0,1.0,-1.0,-1.0,1.0,-0.4188146,1.0,-0.833364,0.5809628,1.0,-1.0,-1.0,1.0,1.0,-0.6709136,-1.0,-1.0,1.0,1.0
2025-07-21 13:11:33.110,2.3200000000000016,2320,116,-0.33598605,-0.12987752,0.10055377,-0.0061418246,-0.048966806,-0.00021349893,1.5,0.0,0.0,-0.02830625,0.14755417,0.060837604,0.058289807,-0.15164322,-0.13093987,0.0146537535,0.01989605,0.0022817906,-0.06635879,-0.083893955,-0.0047954256,0.09208392,-0.16369972,0.046035063,-0.025273884,-0.00404196,-0.08727507,0.12718375,0.040707514,-0.11022355,0.013599029,-0.0859215,0.1885276,0.032453354,-0.833364,0.5809628,1.0,-1.0,-1.0,1.0,1.0,-0.6709136,-1.0,-1.0,1.0,1.0,1.0,1.0,1.0,-1.0,-1.0,1.0,1.0,1.0,-1.0,1.0,-1.0,1.0
2025-07-21 13:11:33.127,2.3400000000000016,2340,117,0.13264666,0.33852673,-0.103250556,-0.03233697,-0.070374146,0.031589173,1.5,0.0,0.0,-0.028295899,0.14020242,0.105222955,0.06660545,-0.1504731,-0.18738209,0.04505389,0.05390464,0.020375874,-0.084475145,-0.06550373,0.030598162,0.107312135,0.07316687,0.18693787,0.07790198,-0.023178676,-0.13689642,0.048292365,0.115857355,0.06176512,0.029159343,0.045756336,0.016781503,0.031809926,1.0,1.0,1.0,-1.0,-1.0,1.0,1.0,1.0,-1.0,1.0,-1.0,1.0,-1.0,-1.0,-0.40463,-1.0,-1.0,1.0,1.0,-1.0,-1.0,-0.9834318,1.0,1.0
2025-07-21 13:11:33.147,2.3600000000000017,2360,118,-0.0926869,-0.25511643,0.044415154,-0.023004783,0.030512782,0.029713346,1.5,0.0,0.0,-0.027947415,0.13068491,0.14814526,0.03247827,-0.1600069,-0.22163248,0.055848632,0.06286554,0.0012223999,-0.10666954,-0.07610371,0.09804216,0.09810756,-0.15764672,0.022139078,-0.087984845,-0.025258178,-0.031622455,0.009241181,0.11239046,-0.17884633,0.03293208,0.0078098564,0.13909242,0.06361724,-1.0,-1.0,-0.40463,-1.0,-1.0,1.0,1.0,-1.0,-1.0,-0.9834318,1.0,1.0,1.0,1.0,-0.18238735,-1.0,-0.7432037,1.0,1.0,1.0,1.0,1.0,-0.064263284,0.7237734
2025-07-21 13:11:33.167,2.3800000000000017,2380,119,0.14629966,0.1445162,-0.032245792,0.037687127,0.012536683,-0.01919495,1.5,0.0,0.0,-0.028630929,0.12937988,0.19044368,0.021655602,-0.16890737,-0.23318599,0.06952646,0.08680545,-0.014636642,-0.058956336,-0.051630206,0.1122107,0.103286736,0.012329963,0.058888115,-0.028724253,0.03028348,-0.08262743,-0.017312324,0.07600774,0.09470984,0.019962909,0.009771169,-0.03471501,-0.03721881,1.0,1.0,-0.18238735,-1.0,-0.7432037,1.0,1.0,1.0,1.0,1.0,-0.064263284,0.7237734,0.9262416,-1.0,-1.0,-1.0,1.0,-0.6285488,-1.0,-1.0,1.0,-1.0,1.0,-1.0
2025-07-21 13:11:33.192,2.4000000000000017,2400,120,0.00048651404,-0.37687346,0.05922412,-0.034679987,-0.04836464,-0.015634218,1.5,0.0,0.0,-0.028457854,0.14069803,0.1858087,0.0033506497,-0.1874102,-0.21634412,0.0442511,0.07912913,-0.021299995,-0.027841171,-0.072004855,0.1589359,0.07393672,-0.02080403,0.031148944,-0.0022320654,-0.015361488,0.06431043,-0.07806006,-0.058122724,-0.113112465,0.15140009,-0.035878096,0.18663387,-0.06729801,0.9262416,-1.0,-1.0,-1.0,1.0,-0.6285488,-1.0,-1.0,1.0,-1.0,1.0,-1.0,1.0,-1.0,1.0,1.0,1.0,1.0,-1.0,1.0,-0.2236422,1.0,-1.0,-1.0
2025-07-21 13:11:33.210,2.4200000000000017,2420,121,-0.017648714,0.09536505,-0.039580327,-0.019822964,-0.060137384,0.032179832,1.5,0.0,0.0,-0.028145472,0.13881655,0.1611647,0.012825251,-0.15590903,-0.18727955,0.040909957,0.034650918,0.012032795,-0.027765661,-0.04117823,0.15148403,0.037424434,0.055046212,-0.06866143,0.09342148,0.03391955,0.085973054,0.054499254,-0.10411424,0.121824354,-0.0005409204,0.07175562,-0.116049305,-0.15759721,1.0,-1.0,1.0,1.0,1.0,1.0,-1.0,1.0,-0.2236422,1.0,-1.0,-1.0,1.0,-1.0,-1.0,-1.0,0.43874422,-0.16217981,-0.6021424,0.93031454,1.0,-1.0,0.9433873,-1.0
2025-07-21 13:11:33.228,2.4400000000000017,2440,122,-0.35601112,-0.22234105,0.056802236,-0.03520406,0.026688118,0.026562924,1.5,0.0,0.0,-0.02808673,0.14649162,0.138825,-0.0029039597,-0.1617741,-0.12836365,0.030703759,0.013116395,0.06320284,-0.0109851975,-0.05262818,0.16069637,-0.006606874,-0.036135968,-0.06562872,-0.037805665,-0.014555584,0.21277484,-0.024798205,-0.03380682,0.10696868,0.06471924,-0.073437035,0.14849757,-0.061751105,1.0,-1.0,-1.0,-1.0,0.43874422,-0.16217981,-0.6021424,0.93031454,1.0,-1.0,0.9433873,-1.0,1.0,-1.0,1.0,1.0,1.0,1.0,-1.0,1.0,-1.0,1.0,-1.0,-1.0
2025-07-21 13:11:33.248,2.4600000000000017,2460,123,0.10496304,0.32285386,0.018325932,0.033731163,0.033981692,0.005443773,1.5,0.0,0.0,-0.028074788,0.16169567,0.05309831,0.024778226,-0.13702922,-0.07374195,0.030027553,0.008193598,0.13574971,-0.04231579,-0.02240538,0.17016296,-0.021090584,-0.004046246,-0.18901682,0.09605782,0.12539627,0.1320973,-0.027169414,-0.0023736355,0.119593106,-0.108922794,0.11218495,0.049343817,-0.05942982,1.0,-1.0,1.0,1.0,1.0,1.0,-1.0,1.0,-1.0,1.0,-1.0,-1.0,1.0,-1.0,-1.0,-1.0,-1.0,-1.0,-1.0,0.7707789,1.0,-1.0,-1.0,-0.49053636
2025-07-21 13:11:33.268,2.4800000000000018,2480,124,0.20420547,-0.16050132,-0.21289597,0.002410228,0.01903212,0.024658296,1.5,0.0,0.0,-0.028145198,0.1578564,-0.03145206,-0.0029694939,-0.15303427,-0.04995706,0.014242553,-0.026014281,0.15239449,-0.014902944,-0.05000755,0.11572453,-0.034448907,0.017124606,-0.16428046,-0.020746283,0.0064063254,-0.11900548,-0.14733794,-0.016177801,0.046415705,0.010121848,-0.0046964623,-0.16498697,0.021682682,1.0,-1.0,-1.0,-1.0,-1.0,-1.0,-1.0,0.7707789,1.0,-1.0,-1.0,-0.49053636,1.0,-1.0,0.043087237,-1.0,1.0,-1.0,-1.0,-1.0,-1.0,-0.09405026,1.0,0.9626113
2025-07-21 13:11:33.293,2.5000000000000018,2500,125,0.12771979,-0.0018298026,-0.04585857,-0.011950404,0.05424236,0.010993504,1.5,0.0,0.0,-0.026366336,0.16092832,-0.09299417,-0.0015160858,-0.16109066,-0.028451525,-0.030266194,-0.04557743,0.14568885,-0.027714022,-0.03571056,0.08845709,-0.0093601765,0.04844556,-0.22364181,0.03313404,-0.00798164,0.06862025,-0.05270623,-0.11789658,-0.11603677,-0.04981684,0.05493353,0.02067074,0.004307435,1.0,-1.0,0.043087237,-1.0,1.0,-1.0,-1.0,-1.0,-1.0,-0.09405026,1.0,0.9626113,0.52371085,1.0,1.0,-1.0,-1.0,1.0,1.0,1.0,-1.0,-0.38970205,-1.0,1.0
2025-07-21 13:11:33.310,2.520000000000002,2520,126,-0.06606583,0.21336648,-0.062251497,-0.039018188,0.008565422,0.017796641,1.5,0.0,0.0,-0.024784071,0.15552728,-0.106412105,0.018367853,-0.16196664,-0.01262843,-0.014258587,-0.02102956,0.1527342,-0.065939695,-0.054874446,0.08599495,0.024348222,-0.03854813,0.12025907,0.098261826,-0.01633392,-0.013172215,0.09980203,0.059995882,0.1457476,-0.053325873,-0.05343856,-0.03951843,0.143847,0.52371085,1.0,1.0,-1.0,-1.0,1.0,1.0,1.0,-1.0,-0.38970205,-1.0,1.0,1.0,1.0,1.0,-1.0,-1.0,-1.0,1.0,-1.0,-1.0,1.0,1.0,1.0
2025-07-21 13:11:33.329,2.540000000000002,2540,127,-0.029634962,0.28374204,0.042392906,-0.026517572,-0.038554672,0.010196423,1.5,0.0,0.0,-0.024376895,0.17199095,-0.064554416,0.023575125,-0.15721057,-0.04114807,-0.020380959,0.010731912,0.14188352,-0.0666979,-0.022452723,0.12028977,0.03859642,0.02802539,0.056160614,0.059731256,-0.009091316,-0.20443405,-0.117122464,0.06772421,-0.1793724,0.008872632,0.08485693,0.15982024,0.014470845,1.0,1.0,1.0,-1.0,-1.0,-1.0,1.0,-1.0,-1.0,1.0,1.0,1.0,-1.0,1.0,1.0,-1.0,-1.0,1.0,1.0,-1.0,-1.0,1.0,-1.0,1.0
2025-07-21 13:11:33.349,2.560000000000002,2560,128,0.15383312,-0.10623191,0.11958952,-0.019728737,-0.0774309,-0.034797046,1.5,0.0,0.0,-0.023281204,0.16788316,-0.021157378,0.03165112,-0.16987574,-0.12237878,-0.0011901245,0.035315406,0.11562741,-0.08949157,-0.0048585767,0.12856403,0.05949691,-0.051526938,0.085173406,-0.0149135105,0.058515258,-0.08734079,0.09662753,0.0071949833,-0.12728463,-0.009682667,0.003394692,-0.077578746,0.09508144,-1.0,1.0,1.0,-1.0,-1.0,1.0,1.0,-1.0,-1.0,1.0,-1.0,1.0,1.0,1.0,1.0,-1.0,-1.0,-0.1479982,1.0,1.0,-1.0,-1.0,1.0,1.0
2025-07-21 13:11:33.370,2.580000000000002,2580,129,-0.25225508,-0.057365052,-0.07562344,0.037384644,-0.047233958,-0.017651765,1.5,0.0,0.0,-0.024401385,0.17021663,0.021832634,0.050543897,-0.16908781,-0.1641684,-0.0067009158,0.054134727,0.13363299,-0.0884291,-0.030831374,0.16190349,0.07319128,-0.04033819,0.1068951,0.05616299,-0.07646063,-0.08484402,0.006895757,0.12259822,0.1899213,0.018633354,-0.06143559,0.17573921,0.023628337,1.0,1.0,1.0,-1.0,-1.0,-0.1479982,1.0,1.0,-1.0,-1.0,1.0,1.0,0.5285217,-0.49825186,1.0,-1.0,-1.0,1.0,1.0,-1.0,-1.0,1.0,-1.0,1.0
2025-07-21 13:11:33.393,2.600000000000002,2600,130,0.09427565,-0.2414928,0.02085732,-0.027798409,-0.0558587,-0.006422456,1.5,0.0,0.0,-0.024084317,0.16100043,0.052508097,0.07751559,-0.16400729,-0.21852246,0.030312683,0.08501572,0.1031008,-0.100415386,-0.01292257,0.16998546,0.08677439,-0.05100366,0.021205857,0.015774338,-0.06044112,-0.042003337,0.03951741,-0.026426025,-0.20839949,0.052017327,0.031013384,-0.04454175,0.07958019,0.5285217,-0.49825186,1.0,-1.0,-1.0,1.0,1.0,-1.0,-1.0,1.0,-1.0,1.0,0.64308316,1.0,-1.0,-1.0,-1.0,1.0,1.0,1.0,0.66055137,-0.9953711,1.0,1.0
2025-07-21 13:11:33.410,2.620000000000002,2620,131,-0.07613264,0.10156621,-0.13305373,0.050294302,-0.05140016,-0.04446823,1.5,0.0,0.0,-0.024159651,0.15572235,0.116186984,0.025559802,-0.17543729,-0.24526429,0.04445966,0.096061744,0.09786922,-0.074050836,-0.023479806,0.18633592,0.10920139,0.04632367,0.13135117,-0.11038994,-0.06867857,-0.09052568,0.10342469,0.0563199,0.06934452,0.123255536,-0.087695874,0.16585423,-0.00016653132,0.64308316,1.0,-1.0,-1.0,-1.0,1.0,1.0,1.0,0.66055137,-0.9953711,1.0,1.0,-1.0,-1.0,1.0,0.44481423,1.0,1.0,-0.7828075,-1.0,0.05061076,1.0,-0.0028435625,-1.0
2025-07-21 13:11:33.429,2.640000000000002,2640,132,0.0951676,0.03685144,-0.05950408,0.021058545,-0.045773655,-0.023317708,1.5,0.0,0.0,-0.023413267,0.13263017,0.124953926,0.04110886,-0.15903912,-0.24535774,0.06112141,0.055722103,0.0948708,-0.058097873,-0.011780125,0.2017044,0.06717073,0.01751752,-0.008738331,0.07975836,0.07876939,0.055734254,-0.055695735,-0.04526216,-0.08993816,0.009815799,0.047989406,0.023506679,-0.111305125,-1.0,-1.0,1.0,0.44481423,1.0,1.0,-0.7828075,-1.0,0.05061076,1.0,-0.0028435625,-1.0,1.0,-1.0,-1.0,-1.0,0.48818412,1.0,1.0,1.0,1.0,-1.0,-1.0,-1.0
2025-07-21 13:11:33.449,2.660000000000002,2660,133,-0.032128662,0.017701345,0.03974732,-0.01111452,-0.02878637,-0.024712402,1.5,0.0,0.0,-0.021445682,0.14159498,0.112905845,0.016904006,-0.1719071,-0.19531125,0.06444387,0.08089994,0.08335127,-0.02919682,-0.024386939,0.16458635,0.033901323,0.032430127,-0.01970503,-0.056623593,0.038477007,0.11184739,0.066282354,0.08929349,0.107599646,0.0028653503,-0.13288799,-0.13614063,-0.11390037,1.0,-1.0,-1.0,-1.0,0.48818412,1.0,1.0,1.0,1.0,-1.0,-1.0,-1.0,1.0,-1.0,-1.0,1.0,1.0,1.0,-1.0,0.90360355,1.0,-1.0,1.0,-1.0
2025-07-21 13:11:33.472,2.680000000000002,2680,134,-0.42948937,-0.1550237,0.048311766,0.04816043,0.04515067,-0.030282093,1.5,0.0,0.0,-0.021802949,0.1534566,0.094623104,-0.0103302775,-0.16491139,-0.1331976,0.065741576,0.0746974,0.12684576,-0.0028569098,-0.04813654,0.16630074,-0.00402273,0.002607981,-0.03823893,-0.07922082,0.059140775,0.22564958,0.014795035,-0.035298973,0.11743858,0.07121801,-0.12736012,0.10816864,-0.08414924,1.0,-1.0,-1.0,1.0,1.0,1.0,-1.0,0.90360355,1.0,-1.0,1.0,-1.0,1.0,-1.0,0.46742624,1.0,1.0,1.0,-1.0,-1.0,1.0,-1.0,-1.0,-1.0
2025-07-21 13:11:33.493,2.700000000000002,2700,135,-0.13587122,-0.07719303,-0.014623469,0.050724946,0.05186796,0.0178384,1.5,0.0,0.0,-0.022859868,0.15923163,0.015254617,-0.0019197982,-0.16432679,-0.06230493,0.06990216,0.03331568,0.13708942,0.024273714,-0.07234996,0.16646053,-0.033431325,0.08081431,-0.15026857,0.054268878,0.011018386,0.11957791,-0.052271083,0.010515999,0.011372076,0.074939124,-0.08359926,-0.11644539,0.0042336765,1.0,-1.0,0.46742624,1.0,1.0,1.0,-1.0,-1.0,1.0,-1.0,-1.0,-1.0,1.0,-1.0,-1.0,0.3784713,1.0,-1.0,-1.0,1.0,1.0,-1.0,-1.0,-1.0
2025-07-21 13:11:33.510,2.720000000000002,2720,136,0.025377216,-0.020631414,-0.2093059,-0.023150448,0.06560433,0.008624592,1.5,0.0,0.0,-0.023192821,0.16259772,-0.054639373,-0.026870877,-0.12990119,0.0013581525,0.026703902,0.010849501,0.17683996,0.035705134,-0.08595787,0.09816903,-0.046554077,-0.0017138538,-0.12308613,-0.040191308,0.059016496,0.15867707,-0.13110423,-0.13243909,0.17260586,0.07252372,-0.09273334,-0.14445549,-0.116024196,1.0,-1.0,-1.0,0.3784713,1.0,-1.0,-1.0,1.0,1.0,-1.0,-1.0,-1.0,1.0,-1.0,1.0,-0.663245,1.0,-1.0,-1.0,-1.0,-1.0,-1.0,-0.47433192,1.0
2025-07-21 13:11:33.530,2.740000000000002,2740,137,0.22067691,-0.031059869,-0.17229828,0.021602288,-0.0028764943,0.035557296,1.5,0.0,0.0,-0.020983003,0.17293707,-0.12784317,0.0059600146,-0.12005546,0.08274377,-0.010301112,-0.00990774,0.16340683,0.011306073,-0.10174117,0.052592635,-0.011046858,-0.035734426,-0.219286,0.09702781,0.019602718,0.11571028,-0.1280661,-0.08583723,-0.16142996,-0.04821957,0.005393495,-0.078785345,0.1594264,1.0,-1.0,1.0,-0.663245,1.0,-1.0,-1.0,-1.0,-1.0,-1.0,-0.47433192,1.0,1.0,1.0,1.0,-1.0,-1.0,-0.29871547,1.0,1.0,-1.0,1.0,1.0,1.0
2025-07-21 13:11:33.549,2.760000000000002,2760,138,0.2307837,0.5963173,-0.13248897,0.060706064,0.03866747,0.048906952,1.5,0.0,0.0,-0.018327847,0.16675644,-0.121263236,0.026315749,-0.1213645,0.1042627,-0.005215892,0.019034501,0.17271897,-0.01554246,-0.08110595,0.05798951,0.0050961883,0.004377973,0.18948172,0.08545544,-0.0038535995,-0.07809349,0.04905775,0.07874961,0.08829558,-0.12381077,0.047718156,0.031547915,0.021080201,1.0,1.0,1.0,-1.0,-1.0,-0.29871547,1.0,1.0,-1.0,1.0,1.0,1.0,-1.0,-1.0,1.0,-1.0,-1.0,-1.0,1.0,-1.0,-1.0,0.89239854,1.0,1.0
2025-07-21 13:11:33.576,2.780000000000002,2780,139,-0.055951156,-0.2294537,0.17947349,0.0019828118,0.025733996,0.021171588,1.5,0.0,0.0,-0.01654159,0.1584796,-0.10506311,0.055158008,-0.14266157,0.03496121,-0.04348582,0.024904788,0.16621645,-0.036510788,-0.048592757,0.112231955,0.0397085,-0.057993393,-0.038908076,0.103495464,0.008167041,-0.2796747,-0.073306896,0.061273325,-0.11696253,-0.08605276,0.088991515,0.09515775,0.07911126,-1.0,-1.0,1.0,-1.0,-1.0,-1.0,1.0,-1.0,-1.0,0.89239854,1.0,1.0,1.0,1.0,1.0,-1.0,-1.0,1.0,1.0,1.0,-1.0,0.91213673,-1.0,1.0
2025-07-21 13:11:33.593,2.800000000000002,2800,140,0.106778905,0.077495396,-0.010940738,0.031816185,0.008645847,0.023583895,1.5,0.0,0.0,-0.017668856,0.17417008,-0.07864513,0.05907141,-0.14174567,-0.052191347,-0.0037340764,0.053846437,0.15939258,-0.059876315,-0.010944554,0.15212952,0.04786168,-0.024802655,0.055551827,0.0051793065,-0.068610944,-0.1552468,0.1023357,0.07934256,0.12763947,-0.09685877,0.03129555,0.032711945,0.08269605,1.0,1.0,1.0,-1.0,-1.0,1.0,1.0,1.0,-1.0,0.91213673,-1.0,1.0,0.30027872,1.0,1.0,-1.0,-1.0,-0.57127416,1.0,-1.0,-1.0,0.038980514,1.0,1.0
2025-07-21 13:11:33.610,2.820000000000002,2820,141,-0.15976237,-0.10569081,0.051373158,0.04321123,0.027414372,-0.043541815,1.5,0.0,0.0,-0.018212946,0.16994216,-0.035560384,0.055369392,-0.14256097,-0.10593549,-0.019061228,0.082067005,0.14845905,-0.07183288,-0.021756792,0.19950691,0.058757387,-0.019988433,0.1393845,0.029208845,0.028702417,-0.11718929,-0.057785463,0.033613984,-0.20006411,0.019690525,-0.043347646,0.16255006,0.012575557,0.30027872,1.0,1.0,-1.0,-1.0,-0.57127416,1.0,-1.0,-1.0,0.038980514,1.0,1.0,0.7504683,1.0,1.0,-1.0,-1.0,1.0,1.0,0.03398428,-1.0,1.0,-1.0,1.0
2025-07-21 13:11:33.630,2.840000000000002,2840,142,0.039055232,0.073057234,0.006450834,0.06318551,0.011155403,-0.008804506,1.5,0.0,0.0,-0.018219242,0.17308536,0.022514464,0.07743551,-0.14322947,-0.17184395,0.017739603,0.10064107,0.11591861,-0.09216152,-0.024327068,0.20798598,0.07795945,0.011399478,0.10467599,0.07666179,-0.0027190726,-0.08187005,0.09303868,-0.00054345885,0.008154498,-0.054690935,0.018103234,-0.009970031,0.11856203,0.7504683,1.0,1.0,-1.0,-1.0,1.0,1.0,0.03398428,-1.0,1.0,-1.0,1.0,0.013256377,1.0,1.0,-1.0,-1.0,0.5013361,1.0,-1.0,-1.0,0.29685643,1.0,1.0
2025-07-21 13:11:33.650,2.860000000000002,2860,143,0.017646812,-0.124361806,-0.00438107,0.0029081288,-0.030079624,-0.026340267,1.5,0.0,0.0,-0.018564908,0.16093771,0.07861682,0.06862787,-0.16008498,-0.20538202,0.022181137,0.11043468,0.07313344,-0.093303345,-0.0065741814,0.2599047,0.097595155,0.01907108,0.16293173,-0.040824793,0.009444229,-0.123198725,0.09388806,0.081791684,-0.12395965,-0.061026588,-0.035037193,0.14780772,0.037307758,0.013256377,1.0,1.0,-1.0,-1.0,0.5013361,1.0,-1.0,-1.0,0.29685643,1.0,1.0,-1.0,1.0,-0.17084605,-1.0,-1.0,1.0,1.0,-1.0,-0.856384,1.0,-1.0,1.0
2025-07-21 13:11:33.676,2.880000000000002,2880,144,0.091996096,0.027160384,-0.09150036,0.017895339,-0.047542147,0.04599085,1.5,0.0,0.0,-0.018979115,0.12485251,0.13797276,0.046767663,-0.16617349,-0.222472,0.035097193,0.12166375,-0.007054051,-0.10295679,0.0030797296,0.23729858,0.099442214,-0.01907722,0.123007104,-0.075255126,-0.08721697,-0.08608326,0.1134908,0.0048230337,-0.20980524,0.00060187496,-0.0007298575,-0.023872811,0.05281486,-1.0,1.0,-0.17084605,-1.0,-1.0,1.0,1.0,-1.0,-0.856384,1.0,-1.0,1.0,-1.0,1.0,-1.0,-1.0,-1.0,1.0,1.0,1.0,1.0,1.0,1.0,1.0
2025-07-21 13:11:33.693,2.900000000000002,2900,145,-0.06778891,-0.10965493,-0.02641788,0.02800976,0.008401181,-0.029438855,1.5,0.0,0.0,-0.019319909,0.09863856,0.18872546,0.0064700935,-0.17178097,-0.25692746,0.06216072,0.13431677,-0.035586797,-0.061644007,0.028401364,0.2531147,0.11958074,-0.10752637,0.058207836,-0.02995057,-0.08423607,-0.008600989,0.01618203,-0.03419254,0.02795551,0.01816138,0.018716695,0.15033934,0.057730276,-1.0,1.0,-1.0,-1.0,-1.0,1.0,1.0,1.0,1.0,1.0,1.0,1.0,1.0,0.08893562,-1.0,-1.0,0.13148227,0.8985123,1.0,-1.0,1.0,-0.15265277,-1.0,-1.0
2025-07-21 13:11:33.711,2.920000000000002,2920,146,0.13493802,-0.08700534,0.20818587,-0.013738413,0.041771594,0.04084619,1.5,0.0,0.0,-0.01894313,0.09578272,0.20193118,-0.020535966,-0.17873046,-0.26526606,0.07345324,0.14558893,-0.038547482,-0.023485098,0.038694046,0.22389612,0.0626568,0.037407532,0.022530815,-0.039294302,-0.05145558,0.016521325,-0.06005192,-0.021599764,-0.10477664,0.13212274,-0.04374159,-0.21736969,-0.1310081,1.0,0.08893562,-1.0,-1.0,0.13148227,0.8985123,1.0,-1.0,1.0,-0.15265277,-1.0,-1.0,1.0,-1.0,-1.0,-0.8775013,1.0,1.0,-1.0,1.0,1.0,-1.0,1.0,-1.0
2025-07-21 13:11:33.731,2.940000000000002,2940,147,-0.3254641,-0.11376235,0.09909956,-0.014342619,-0.0056412155,0.033839967,1.5,0.0,0.0,-0.020486547,0.10371854,0.16464123,-0.04067804,-0.19099407,-0.232351,0.06877118,0.11333773,-0.023841362,-0.0043338886,0.0048620477,0.22818586,0.0400239,-0.033080958,-0.14232208,-0.028342636,0.00043283796,0.072525576,-0.02159388,-0.060703482,0.10802177,-0.0025942358,-0.093489684,0.09823903,-0.14281297,1.0,-1.0,-1.0,-0.8775013,1.0,1.0,-1.0,1.0,1.0,-1.0,1.0,-1.0,1.0,-1.0,1.0,1.0,1.0,1.0,-1.0,1.0,1.0,-1.0,-1.0,-1.0
2025-07-21 13:11:33.751,2.960000000000002,2960,148,-0.28707492,0.029374925,-0.094366565,0.0011153197,-0.0016781269,-0.03193674,1.5,0.0,0.0,-0.023331985,0.11289289,0.0721773,0.0019382866,-0.19638461,-0.15765834,0.08599335,0.091933794,0.033394836,0.0005099,-0.028456558,0.19796601,-0.0047422065,-0.038027566,-0.2919553,0.032508057,0.10852815,0.14922306,0.00906222,-0.06278279,0.21018921,-0.031369627,-0.07992589,-0.17844018,-0.10284127,1.0,-1.0,1.0,1.0,1.0,1.0,-1.0,1.0,1.0,-1.0,-1.0,-1.0,1.0,-1.0,-1.0,1.0,1.0,0.30074757,-1.0,-1.0,1.0,-1.0,-1.0,-1.0
2025-07-21 13:11:33.776,2.980000000000002,2980,149,0.118971705,-0.01153676,-0.1287425,0.027466947,0.08450641,0.048346743,1.5,0.0,0.0,-0.02317327,0.13422194,-0.022878367,-0.021173514,-0.16212302,-0.092351556,0.061962776,0.07790296,0.056455582,0.033522543,-0.047980916,0.13912408,-0.013189027,0.09440184,-0.24370597,-0.113350414,0.100275725,0.16048469,0.018216154,-0.101183176,-0.03895452,0.08631103,-0.008113104,-0.15343495,-0.07933952,1.0,-1.0,-1.0,1.0,1.0,0.30074757,-1.0,-1.0,1.0,-1.0,-1.0,-1.0,1.0,-1.0,0.95412767,-1.0,1.0,-1.0,-1.0,1.0,1.0,-1.0,-1.0,1.0
2025-07-21 13:11:33.793,3.000000000000002,3000,150,0.19971906,-0.04075484,-0.26334405,0.042254694,0.037937194,-0.026820436,1.5,0.0,0.0,-0.020391403,0.13310038,-0.07863268,-0.008337782,-0.16822205,-0.024850788,0.015929338,0.029860694,0.09005921,0.04990933,-0.072486825,0.0543588,0.00075812143,0.02325637,-0.11256014,0.0038525662,-0.0063382518,0.19792749,-0.11467688,-0.08400842,0.19283552,0.011456429,-0.0038376916,-0.16697566,0.02249652,1.0,-1.0,0.95412767,-1.0,1.0,-1.0,-1.0,1.0,1.0,-1.0,-1.0,1.0,1.0,-1.0,-0.30560413,-1.0,0.00769224,-1.0,-1.0,0.4257634,-1.0,-1.0,1.0,1.0
2025-07-21 13:11:33.811,3.0200000000000022,3020,151,0.16731036,0.033160534,-0.20727496,-0.027828885,0.040640295,-0.034990855,1.5,0.0,0.0,-0.016184127,0.14290036,-0.13602361,-0.0049418095,-0.17456073,0.008773628,-0.0058807577,0.0027966243,0.11871667,0.026182534,-0.09668507,0.059470486,0.0387487,0.048359584,-0.064016595,-0.04381984,0.03350519,-0.06983643,-0.12988691,-0.0204399,0.10447502,-0.13545099,-0.01333932,0.12890291,0.081381865,1.0,-1.0,-0.30560413,-1.0,0.00769224,-1.0,-1.0,0.4257634,-1.0,-1.0,1.0,1.0,-1.0,0.45528013,1.0,-1.0,-1.0,1.0,-1.0,-1.0,-1.0,1.0,-1.0,1.0
2025-07-21 13:11:33.831,3.0400000000000023,3040,152,0.22480674,-0.06110649,-0.22063874,-0.04374339,-0.025491733,-0.044155307,1.5,0.0,0.0,-0.011795238,0.10760224,-0.15216936,0.0188034,-0.16081068,-0.054333538,0.0138297705,-0.042960126,0.06588159,0.0022431838,-0.06440055,0.031975858,0.047050007,-0.018764006,-0.0062074666,-0.009126506,0.02360769,-0.20301372,0.115136355,-0.006179744,-0.28112188,0.00042635546,0.07202396,-0.21872373,0.039498527,-1.0,0.45528013,1.0,-1.0,-1.0,1.0,-1.0,-1.0,-1.0,1.0,-1.0,1.0,0.26829755,1.0,-0.029928273,-1.0,-1.0,1.0,1.0,1.0,1.0,1.0,1.0,1.0
2025-07-21 13:11:33.851,3.0600000000000023,3060,153,-0.016513752,0.29294848,-0.15854178,-0.011220632,0.0041957386,-0.04295645,1.5,0.0,0.0,-0.007502044,0.09993418,-0.088266715,0.0034975933,-0.158888,-0.093080305,0.04479554,-0.0011821948,0.058532692,0.013218206,-0.028013406,0.02897877,0.073199436,-0.020005418,0.23060453,0.044093948,0.059471052,-0.19945242,0.0006421201,0.052870553,0.049151506,0.006417715,0.07956901,0.043577816,0.07967995,0.26829755,1.0,-0.029928273,-1.0,-1.0,1.0,1.0,1.0,1.0,1.0,1.0,1.0,0.23292875,-1.0,-1.0,-1.0,-1.0,-1.0,1.0,-1.0,1.0,-1.0,1.0,0.60037977
2025-07-21 13:11:33.876,3.0800000000000023,3080,154,0.20915323,-0.021844307,-0.09440167,-0.060725853,-0.014443277,0.014438458,1.5,0.0,0.0,-0.003053973,0.101680614,-0.06838621,-0.024833007,-0.17249654,-0.14025871,0.01370831,0.018990755,0.0624637,0.041270442,-0.050089628,0.10428814,0.07786497,0.0018681046,0.046522625,-0.104985535,-0.0891532,-0.1180738,-0.04854968,0.07755819,-0.072701916,0.11292577,-0.012324442,0.13140087,0.035082664,0.23292875,-1.0,-1.0,-1.0,-1.0,-1.0,1.0,-1.0,1.0,-1.0,1.0,0.60037977,1.0,1.0,-1.0,-1.0,1.0,1.0,-1.0,1.0,0.24254766,1.0,-1.0,0.82105225
2025-07-21 13:11:33.893,3.1000000000000023,3100,155,-0.071676545,0.09595154,-0.15278308,-0.0147750955,-0.033345927,0.0027622685,1.5,0.0,0.0,-0.0005679175,0.11533495,-0.024081768,-0.04718696,-0.17784052,-0.14316723,0.016712768,0.012277988,0.087510675,0.038348883,-0.01175733,0.10268901,0.08918764,0.028960137,0.09847752,-0.1343799,-0.006015559,0.07332829,0.025405306,-0.079230644,0.20418441,0.06082179,0.08252377,-0.14741583,0.063713074,1.0,1.0,-1.0,-1.0,1.0,1.0,-1.0,1.0,0.24254766,1.0,-1.0,0.82105225,-1.0,-1.0,1.0,-1.0,-1.0,-1.0,1.0,-1.0,1.0,-1.0,1.0,-1.0
2025-07-21 13:11:33.911,3.1200000000000023,3120,156,-0.12130114,-0.38854668,0.11619347,0.026384655,0.04134611,0.02727099,1.5,0.0,0.0,0.0012010225,0.07142819,-0.014646255,-0.025266943,-0.17471087,-0.18073064,-0.008554493,0.0057133413,0.11223197,0.051319063,-0.029462893,0.13233836,0.039013937,-0.11598922,0.026554521,0.050229978,0.042162973,-0.1310602,-0.030629167,-0.0023607581,-0.059349682,0.013444073,-0.060298,0.18433769,-0.16811004,-1.0,-1.0,1.0,-1.0,-1.0,-1.0,1.0,-1.0,1.0,-1.0,1.0,-1.0,1.0,1.0,-0.8913377,-1.0,1.0,1.0,0.11556918,1.0,-0.6803284,1.0,-1.0,-1.0
2025-07-21 13:11:33.931,3.1400000000000023,3140,157,-0.099771865,0.07847288,0.16238794,-0.05088251,-0.0016336951,-0.042421445,1.5,0.0,0.0,0.0014236463,0.083053686,0.048910204,-0.054215148,-0.18470985,-0.18250774,0.019469554,0.019072961,0.1488953,0.020452892,0.0011352474,0.118940584,0.005935752,-0.022125347,0.23531482,-0.034166425,0.022278827,0.062397107,0.10387687,-0.011364149,0.15052056,-0.13244385,0.024456335,-0.1260869,-0.051324792,1.0,1.0,-0.8913377,-1.0,1.0,1.0,0.11556918,1.0,-0.6803284,1.0,-1.0,-1.0,1.0,-1.0,1.0,-1.0,-1.0,0.47266215,-1.0,-1.0,1.0,-1.0,1.0,0.071474396
2025-07-21 13:11:33.951,3.1600000000000024,3160,158,-0.12988599,-0.018577104,0.0813643,-0.044208292,0.06403094,0.017300893,1.5,0.0,0.0,-0.0012360518,0.106051676,0.045618843,-0.015233654,-0.1962849,-0.1932919,0.012227167,-0.009827558,0.1451258,0.04916844,-0.027527979,0.12678379,0.0026002184,0.0155411605,-0.04007163,0.091208085,0.00538852,-0.04256689,0.007947646,-0.010238581,-0.19223745,0.0041305088,-0.09897541,0.13010333,-0.00686304,1.0,-1.0,1.0,-1.0,-1.0,0.47266215,-1.0,-1.0,1.0,-1.0,1.0,0.071474396,1.0,0.33343023,-0.5537317,-1.0,1.0,1.0,1.0,1.0,0.98793525,1.0,-1.0,-1.0
2025-07-21 13:11:33.976,3.1800000000000024,3180,159,-0.032428313,0.24364996,0.09210653,-0.02929834,-0.035076823,0.038789015,1.5,0.0,0.0,-0.0020157679,0.12257496,0.069212355,-0.03712573,-0.18550313,-0.16681431,0.039922636,0.009476452,0.14635521,0.06732175,0.0045719496,0.14399879,-0.018248782,0.047635097,0.090565704,-0.02227873,0.004960924,0.12654208,0.010168491,0.043619536,0.07302546,0.025594447,-0.0033227995,0.057537563,0.008359371,1.0,0.33343023,-0.5537317,-1.0,1.0,1.0,1.0,1.0,0.98793525,1.0,-1.0,-1.0,-0.16965204,-1.0,-1.0,1.0,-1.0,1.0,-1.0,-1.0,1.0,-1.0,0.84722215,-1.0
2025-07-21 13:11:33.993,3.2000000000000024,3200,160,0.053878292,-0.22762002,-0.021354808,-0.001525532,-0.009982657,0.01692549,1.5,0.0,0.0,-0.0035635377,0.10384493,0.06878663,-0.055537127,-0.19067444,-0.16025802,0.04979389,-0.0075800195,0.15253107,0.074277505,-0.025268342,0.17705351,-0.040981445,-0.09782452,-0.08938892,-0.02168402,0.014204235,0.009119338,0.005251522,-0.1022952,-0.023560511,-0.007605289,-0.11400683,0.09353558,-0.006162207,-0.16965204,-1.0,-1.0,1.0,-1.0,1.0,-1.0,-1.0,1.0,-1.0,0.84722215,-1.0,1.0,0.7853143,1.0,-1.0,1.0,1.0,1.0,-0.83555794,1.0,-1.0,-1.0,-1.0
2025-07-21 13:11:34.012,3.2200000000000024,3220,161,-0.04631126,-0.0048238123,0.027125996,-0.03130712,0.038578037,-0.023590494,1.5,0.0,0.0,-0.0042523374,0.10842416,0.06427467,-0.034046493,-0.1972973,-0.14114079,0.06792083,0.027403397,0.12369367,0.094475366,-0.053683802,0.16946286,-0.051623106,0.010952957,0.07533187,0.0874114,-0.00046077365,0.09411324,0.081584714,0.0152197,-0.0399486,0.013860151,-0.056487378,-0.12485072,-0.065827794,1.0,0.7853143,1.0,-1.0,1.0,1.0,1.0,-0.83555794,1.0,-1.0,-1.0,-1.0,1.0,-1.0,-1.0,1.0,1.0,1.0,-1.0,1.0,1.0,-1.0,1.0,-1.0
2025-07-21 13:11:34.032,3.2400000000000024,3240,162,-0.31169033,0.09904388,-0.038569044,0.05141844,0.058900923,0.033061355,1.5,0.0,0.0,-0.003727708,0.13346303,0.025909744,-0.061958637,-0.17405848,-0.07609198,0.06881799,0.013035835,0.13361497,0.10046406,-0.06790282,0.16748868,-0.07352515,-0.019174505,-0.09510748,-0.1120625,0.09656996,0.16024491,0.03648105,0.016875377,0.20205648,0.06290691,-0.0138339745,0.10151649,-0.014393066,1.0,-1.0,-1.0,1.0,1.0,1.0,-1.0,1.0,1.0,-1.0,1.0,-1.0,1.0,-1.0,1.0,1.0,1.0,1.0,-1.0,-1.0,1.0,-1.0,-1.0,-1.0
2025-07-21 13:11:34.052,3.2600000000000025,3260,163,-0.06412227,0.058633912,-0.06847464,0.051650353,0.048384495,0.028354453,1.5,0.0,0.0,-0.0030256922,0.13514718,-0.04685424,-0.02366733,-0.13921176,-0.008210454,0.077716835,-0.009059426,0.1634139,0.11544824,-0.09121462,0.14074992,-0.08019708,-0.017542407,-0.22886927,0.02857037,0.16351682,0.21015322,0.05272682,-0.095041364,-0.016593277,0.04059022,-0.024518562,-0.10231798,-0.06627952,1.0,-1.0,1.0,1.0,1.0,1.0,-1.0,-1.0,1.0,-1.0,-1.0,-1.0,1.0,-1.0,-0.082018085,-1.0,0.8484032,-1.0,-0.49517208,1.0,1.0,-1.0,-1.0,-0.30599055
2025-07-21 13:11:34.076,3.2800000000000025,3280,164,-0.12497875,-0.099326365,-0.11217767,0.028908078,-0.015911838,-0.045029953,1.5,0.0,0.0,-0.0010485839,0.14528544,-0.1207547,-0.017156787,-0.14324619,0.050373342,0.04058024,-0.010636571,0.20460847,0.108882286,-0.09444991,0.043258194,-0.07678679,0.0015402532,-0.18017393,0.07749025,-0.038589146,0.20985979,-0.07160242,-0.061024267,0.054522496,0.08620695,-0.013525576,-0.27559385,0.0135629745,1.0,-1.0,-0.082018085,-1.0,0.8484032,-1.0,-0.49517208,1.0,1.0,-1.0,-1.0,-0.30599055,1.0,-1.0,1.0,1.0,1.0,-1.0,-1.0,0.1316751,-1.0,-1.0,1.0,1.0
2025-07-21 13:11:34.093,3.3000000000000025,3300,165,0.008151867,0.03377991,-0.036310416,-0.01150211,-0.01593528,-0.035384253,1.5,0.0,0.0,0.0017829945,0.13639112,-0.1657798,0.017670695,-0.12756673,0.12035298,-0.008134206,-0.03706115,0.23199756,0.06989506,-0.11936063,0.023224559,-0.058575578,0.038943876,-0.1348484,0.13813865,0.16441268,0.07797146,-0.04518151,-0.070289575,0.08272381,-0.07346614,0.04541128,0.015818527,0.14390618,1.0,-1.0,1.0,1.0,1.0,-1.0,-1.0,0.1316751,-1.0,-1.0,1.0,1.0,1.0,1.0,1.0,-1.0,-1.0,-1.0,-1.0,1.0,-1.0,-0.6234364,-1.0,1.0
2025-07-21 13:11:34.112,3.3200000000000025,3320,166,0.3780688,0.1635164,-0.27717412,0.0053295367,0.032291673,-0.038203802,1.5,0.0,0.0,0.0039349827,0.15984705,-0.16052887,0.032444924,-0.11816278,0.12275611,-0.019956425,-0.050362553,0.27449614,0.034218546,-0.10852047,-0.011638427,-0.01533182,0.021901287,0.19133705,0.10711485,-0.033876974,-0.1602121,-0.072113544,0.005652405,0.07902599,-0.14567563,-0.074171014,-0.14375831,0.033280365,1.0,1.0,1.0,-1.0,-1.0,-1.0,-1.0,1.0,-1.0,-0.6234364,-1.0,1.0,-1.0,-1.0,1.0,-1.0,-1.0,1.0,-0.3035664,-1.0,-1.0,1.0,1.0,1.0
2025-07-21 13:11:34.132,3.3400000000000025,3340,167,0.2411528,-0.06530709,0.15113305,0.024334786,0.042783618,0.028841713,1.5,0.0,0.0,0.0071423026,0.14206515,-0.13588385,0.05569512,-0.13769427,0.06859745,-0.0033116282,-0.04932489,0.25036407,0.010237709,-0.09397818,-0.0023930094,0.002488322,-0.0005009046,0.022576239,-0.023718396,-0.048104465,-0.12312828,0.12456365,0.032277428,-0.12370178,-0.011585015,0.04990357,0.009949431,0.04567838,-1.0,-1.0,1.0,-1.0,-1.0,1.0,-0.3035664,-1.0,-1.0,1.0,1.0,1.0,1.0,1.0,1.0,-1.0,-1.0,-1.0,1.0,-1.0,-1.0,-1.0,1.0,1.0
2025-07-21 13:11:34.152,3.3600000000000025,3360,168,0.205583,-0.023168879,0.049865205,-0.03851224,-0.0205705,0.017400168,1.5,0.0,0.0,-0.00044150956,0.16545746,-0.1355733,0.05173861,-0.14147002,0.013044436,-0.015401038,-0.020646403,0.14565226,-0.021368884,-0.10131455,0.041729793,0.019301152,0.043628924,0.077123515,0.083978996,-0.035745252,-0.15337601,-0.025196467,0.021573922,-0.21109945,-0.03866745,-0.105482236,0.14388406,0.12246256,1.0,1.0,1.0,-1.0,-1.0,-1.0,1.0,-1.0,-1.0,-1.0,1.0,1.0,-0.213175,1.0,1.0,-1.0,-1.0,1.0,1.0,1.0,-1.0,1.0,-1.0,1.0
2025-07-21 13:11:34.176,3.3800000000000026,3380,169,-0.118081406,0.0008149869,-0.08963383,0.024871545,0.020110272,0.031320557,1.5,0.0,0.0,-0.009781424,0.14797212,-0.10505279,0.06201636,-0.1565849,-0.036095258,0.0063169985,0.006064733,0.1451614,-0.04779066,-0.067781106,0.05644653,0.056433916,-0.10203006,0.070310794,0.029385349,0.04583198,-0.057358056,0.1399532,0.096862674,0.08540368,0.015579963,0.15756387,-0.04594022,0.08474584,-0.213175,1.0,1.0,-1.0,-1.0,1.0,1.0,1.0,-1.0,1.0,-1.0,1.0,1.0,1.0,0.22329885,-1.0,-1.0,-1.0,1.0,-1.0,-1.0,-1.0,1.0,1.0
2025-07-21 13:11:34.194,3.4000000000000026,3400,170,-0.18540573,0.08187404,-0.18174593,0.032073405,-0.009638179,0.020716634,1.5,0.0,0.0,-0.017983455,0.1470689,-0.024705196,0.06484138,-0.16291325,-0.08145388,-0.03008233,0.03315042,0.13240868,-0.057971634,-0.08327174,0.07676966,0.06989439,0.064784996,0.13848229,-0.09481958,-0.0787984,-0.17734574,-0.017430132,0.02109837,-0.1302928,-0.02308837,-0.06288691,0.1497676,-0.052605327,1.0,1.0,0.22329885,-1.0,-1.0,-1.0,1.0,-1.0,-1.0,-1.0,1.0,1.0,-1.0,-0.08041405,1.0,-1.0,-1.0,1.0,1.0,-1.0,-1.0,1.0,1.0,1.0
2025-07-21 13:11:34.212,3.4200000000000026,3420,171,-0.1682488,0.0069602355,0.18404365,0.034047574,0.001718728,-0.019040927,1.5,0.0,0.0,-0.023239026,0.12408901,0.002010445,0.07196434,-0.15444861,-0.1486745,-0.0020655221,0.07015152,0.04453365,-0.083330005,-0.06977204,0.12620205,0.08070317,-0.08883979,-0.06365946,0.05207397,-0.05671778,-0.20449412,0.000410717,-0.007345459,-0.19316252,-0.09834886,0.034720715,0.07080522,-0.017407399,-1.0,-0.08041405,1.0,-1.0,-1.0,1.0,1.0,-1.0,-1.0,1.0,1.0,1.0,1.0,1.0,1.0,-1.0,-1.0,1.0,1.0,1.0,0.1217959,-0.81722933,-1.0,1.0
2025-07-21 13:11:34.232,3.4400000000000026,3440,172,-0.060177535,0.03560108,-0.12235154,0.06366943,-0.03274039,-0.039270088,1.5,0.0,0.0,-0.03181942,0.1300864,0.036391653,0.08995589,-0.15190747,-0.1932921,0.042421736,0.06705089,0.020018855,-0.06304024,-0.08021132,0.15684763,0.0787318,0.010621942,0.18858159,0.06504729,-0.06297278,-0.12308289,0.11839967,0.02860639,0.09383659,0.013241844,-0.102247484,0.038949776,0.0026090334,1.0,1.0,1.0,-1.0,-1.0,1.0,1.0,1.0,0.1217959,-0.81722933,-1.0,1.0,0.22843248,-0.2519288,-1.0,-1.0,1.0,1.0,0.9863903,-1.0,-1.0,1.0,1.0,-0.5236282
2025-07-21 13:11:34.254,3.4600000000000026,3460,173,-0.022327393,-0.17320076,0.13950977,0.03665908,0.0050822855,-0.00021440258,1.5,0.0,0.0,-0.039055742,0.13102189,0.07987897,0.044723634,-0.15714577,-0.18377277,0.06063017,0.092582665,-0.00030042828,-0.06872053,-0.06021709,0.19437948,0.052117422,-0.02504576,0.02361357,-0.16443652,-0.08029813,0.16526006,0.06179728,-0.03179139,-0.20211047,-0.04929575,0.07693389,0.09766627,-0.060040507,0.22843248,-0.2519288,-1.0,-1.0,1.0,1.0,0.9863903,-1.0,-1.0,1.0,1.0,-0.5236282,1.0,-0.46942544,-0.7405341,-1.0,-1.0,1.0,-1.0,1.0,1.0,1.0,-1.0,0.676305
2025-07-21 13:11:34.276,3.4800000000000026,3480,174,0.26234564,-0.031728037,-0.058548827,-0.015186662,0.03617505,0.007161691,1.5,0.0,0.0,-0.04732513,0.1266794,0.0657722,0.006814646,-0.15774906,-0.16598134,0.067868575,0.063575074,-0.0396915,-0.045079283,-0.030225275,0.1927532,0.07022209,0.016466225,-0.092058234,-0.108639926,0.053393364,-0.09732472,0.0022015884,-0.055868756,0.07365965,0.055417176,0.117961116,-0.14328036,-0.04659365,1.0,-0.46942544,-0.7405341,-1.0,-1.0,1.0,-1.0,1.0,1.0,1.0,-1.0,0.676305,1.0,1.0,-1.0,-1.0,1.0,-1.0,1.0,1.0,1.0,-1.0,1.0,-1.0
