openverse-orca/OrcaGym/log/simulation_log_20250609_150441.csv
timestamp,imu_angle_roll,imu_angle_pitch,imu_angle_yaw,imu_angular_velocity_roll,imu_angular_velocity_pitch,imu_angular_velocity_yaw,imu_acc_x,imu_acc_y,imu_acc_z,fl_joint1_pos,fl_joint1_vel,fl_joint1_torque,fl_joint2_pos,fl_joint2_vel,fl_joint2_torque,fl_joint3_pos,fl_joint3_vel,fl_joint3_torque,fr_joint1_pos,fr_joint1_vel,fr_joint1_torque,fr_joint2_pos,fr_joint2_vel,fr_joint2_torque,fr_joint3_pos,fr_joint3_vel,fr_joint3_torque,hl_joint1_pos,hl_joint1_vel,hl_joint1_torque,hl_joint2_pos,hl_joint2_vel,hl_joint2_torque,hl_joint3_pos,hl_joint3_vel,hl_joint3_torque,hr_joint1_pos,hr_joint1_vel,hr_joint1_torque,hr_joint2_pos,hr_joint2_vel,hr_joint2_torque,hr_joint3_pos,hr_joint3_vel,hr_joint3_torque,fl_force_x,fl_force_y,fl_force_z,fr_force_x,fr_force_y,fr_force_z,hl_force_x,hl_force_y,hl_force_z,hr_force_x,hr_force_y,hr_force_z,fl_hip_action,fl_thigh_action,fl_calf_action,fr_hip_action,fr_thigh_action,fr_calf_action,hl_hip_action,hl_thigh_action,hl_calf_action,hr_hip_action,hr_thigh_action,hr_calf_action
2025-06-09 15:04:41.588,-0.03926586,-0.04616868,0.021848617,0.011336058,-0.03868678,0.0427381,0.5597244,1.2822567,0.0,0.0,0.00475353,0.004569446,-0.0038281453,0.0023699382,0.008037926,-0.0030146865,0.009025127,0.009603469,-0.009769728,-0.008589179,-0.0010620124,0.0010020529,0.0073991874,-0.07161971,0.0009142002,0.022673193,-0.0019179563,-0.049258966,-0.044928875,0.054032482,0.049475227,0.014171623,0.0103465505,-0.05193259,0.0,0.0,0.0,0.0,0.0,0.0,0.0,0.0,0.0,0.0,0.0,0.0,-2.0,0.07933243,-2.0,2.0,1.7437261,-2.0,2.0,-1.6637256,-2.0,-2.0,-2.0,-2.0
2025-06-09 15:04:41.593,0.11829962,0.07312803,-0.06447247,0.0030291055,-0.031418033,-0.039210632,0.0,0.0,0.0,0.0,-0.009032507,0.0065817013,-0.056654215,0.020208769,0.06457183,-0.05354293,0.020394662,-0.063082725,-0.047134895,-0.01157537,-0.065004945,-0.040889435,-0.12449209,-0.059745815,-0.16931155,0.102808595,0.26551706,-0.09135273,0.0979272,-0.18568018,-0.07719775,-0.101720594,-0.25004062,-0.09387262,-2.0,0.07933243,-2.0,2.0,1.7437261,-2.0,2.0,-1.6637256,-2.0,-2.0,-2.0,-2.0,-2.0,2.0,-2.0,2.0,2.0,-2.0,2.0,0.097748205,-2.0,-2.0,0.8471621,-2.0
2025-06-09 15:04:41.617,-0.20824708,-0.15771273,-0.06631582,0.03902705,0.005177933,0.030500587,0.0,0.0,0.0,0.00027637542,-0.050051384,0.08125385,-0.1057109,0.03422402,0.14737977,-0.09603102,0.032727014,-0.0741563,-0.085949495,-0.03460859,-0.06549741,-0.10303473,-0.04083004,0.19097154,-0.061839707,0.04509195,0.1422759,-0.1289729,0.057433926,0.026845513,-0.0067407154,0.033177692,0.05516136,-0.06890937,-2.0,2.0,-2.0,2.0,2.0,-2.0,2.0,0.097748205,-2.0,-2.0,0.8471621,-2.0,-2.0,2.0,-2.0,2.0,2.0,-2.0,2.0,-0.4494167,-2.0,-2.0,0.1263171,-2.0
2025-06-09 15:04:41.634,-0.19366461,-0.11133915,-0.0026458986,0.059414584,0.03730334,-0.025997091,0.0,0.0,0.0,0.0006689626,-0.054934375,0.09030793,-0.08410121,0.061124764,0.18577102,-0.09461122,0.045332342,-0.063168205,-0.089586005,-0.03281122,-0.04427378,-0.10682006,-0.099171706,-0.005775923,0.043000236,0.05266231,0.045684587,0.12715484,0.070359685,0.04337191,0.0019325452,0.0014688877,0.12961555,-0.04258923,-2.0,2.0,-2.0,2.0,2.0,-2.0,2.0,-0.4494167,-2.0,-2.0,0.1263171,-2.0,-2.0,1.0036938,-2.0,2.0,2.0,-2.0,2.0,-0.73357517,-2.0,-2.0,0.5740861,-2.0
2025-06-09 15:04:41.654,-0.040269554,-0.09184682,-0.10099684,0.023667363,-0.019542495,0.0068702,0.0,0.0,0.0,0.0012908496,-0.07566808,0.103140324,-0.07524026,0.053572316,0.21503738,-0.06446489,0.03393464,-0.057545494,-0.086596735,-0.028248364,-0.02173972,-0.09836322,0.007735478,-0.0025437674,0.021790355,0.025136381,0.04346052,-0.0028752533,0.050166704,-0.0055491435,-0.02479688,0.038358007,0.052884597,-0.028175624,-2.0,1.0036938,-2.0,2.0,2.0,-2.0,2.0,-0.73357517,-2.0,-2.0,0.5740861,-2.0,-2.0,2.0,-2.0,2.0,2.0,-2.0,2.0,-0.038338173,-2.0,-2.0,0.58813083,-2.0
2025-06-09 15:04:41.674,-0.058878187,-0.045304954,-0.04644543,0.0153375,-0.0027697592,-0.02034304,0.0,0.0,0.0,0.0027841302,-0.074129045,0.117607065,-0.06265811,0.047856066,0.23507467,-0.06619111,0.05146216,-0.030262088,-0.0769852,-0.025985211,0.012994439,-0.10666253,-0.005429613,0.023197245,0.047454394,0.028635975,0.027700385,0.07652116,0.041101087,0.116412096,-0.040025406,0.042125717,0.04975444,-0.03737599,-2.0,2.0,-2.0,2.0,2.0,-2.0,2.0,-0.038338173,-2.0,-2.0,0.58813083,-2.0,-2.0,1.7711666,-2.0,2.0,2.0,-2.0,2.0,-0.5394742,-2.0,-2.0,0.5876112,-2.0
2025-06-09 15:04:41.694,-0.02012514,0.049031593,-0.06724683,0.074429534,-0.042135485,-0.041600123,0.0,0.0,0.0,0.004385632,-0.08514296,0.15146229,-0.056048203,0.063388534,0.2694577,-0.06073327,0.055714343,-0.01929633,-0.09629299,-0.021472536,0.028359262,-0.12650642,-0.054633312,0.022427008,-0.032772593,0.06091365,0.080658555,0.045751963,-0.041281432,-0.03040613,-0.02099556,0.044729743,0.012785417,0.019959973,-2.0,1.7711666,-2.0,2.0,2.0,-2.0,2.0,-0.5394742,-2.0,-2.0,0.5876112,-2.0,-2.0,1.7245948,-2.0,2.0,2.0,-2.0,2.0,-0.44367614,-2.0,-2.0,0.8145004,-2.0
2025-06-09 15:04:41.717,-0.010962972,0.0019224173,-0.018651074,0.046822537,0.017378582,-0.0070394957,0.0,0.0,0.0,0.005826956,-0.072623424,0.1657179,-0.07256624,0.04868579,0.30430898,-0.075127244,0.04892113,-0.019173525,-0.1044368,-0.026752848,0.06260965,-0.11590676,-0.027656352,0.043872252,-0.10957351,-0.02079618,0.11725341,-0.10461001,-0.005354883,0.0031412444,-0.075402886,0.036238678,0.0049788407,-0.084194705,-2.0,1.7245948,-2.0,2.0,2.0,-2.0,2.0,-0.44367614,-2.0,-2.0,0.8145004,-2.0,-2.0,1.7084153,-2.0,2.0,2.0,-2.0,2.0,-0.43158618,-2.0,-2.0,1.2656913,-2.0
2025-06-09 15:04:41.734,0.020304924,-0.0074725277,-0.05926449,0.06140738,-0.028792782,0.015643854,0.0,0.0,0.0,0.0072194245,-0.0950271,0.1983015,-0.083520316,0.056183938,0.33269843,-0.083793506,0.05707799,-0.0075331856,-0.09065089,-0.024964275,0.09088495,-0.12404672,-0.038029224,0.018783884,0.018347902,0.028536035,0.09622687,-0.016560702,-0.04114773,-0.033946786,0.034677014,-0.052910674,0.0024789197,-0.060532454,-2.0,1.7084153,-2.0,2.0,2.0,-2.0,2.0,-0.43158618,-2.0,-2.0,1.2656913,-2.0,-2.0,1.7536998,-2.0,2.0,2.0,-2.0,2.0,-0.48545554,-2.0,-2.0,1.1394876,-2.0
2025-06-09 15:04:41.754,0.032309603,0.003181826,-0.023260292,0.08668108,-0.033813853,-0.02163405,0.0,0.0,0.0,0.008668884,-0.09977732,0.22738072,-0.090458594,0.037991468,0.35847983,-0.10262137,0.055149183,-0.009221125,-0.09713968,-0.0035802047,0.11536998,-0.14304498,-0.07736389,0.09088607,-0.046936188,0.040914413,0.081145875,-0.044901934,0.025681445,0.04197363,-0.0028167162,-0.06785354,0.0020394542,0.043407064,-2.0,1.7536998,-2.0,2.0,2.0,-2.0,2.0,-0.48545554,-2.0,-2.0,1.1394876,-2.0,-2.0,1.4888967,-2.0,2.0,2.0,-2.0,2.0,-0.5949885,-2.0,-2.0,1.316468,-2.0
2025-06-09 15:04:41.774,0.040790875,0.02110765,-0.05671186,0.07450012,-0.027605996,-0.046326786,0.0,0.0,0.0,0.010017702,-0.09438386,0.24044196,-0.104917675,0.03208872,0.38620612,-0.10355299,0.053088356,-0.0057700747,-0.08667078,-0.0073108,0.123108394,-0.1254501,0.0005054557,-0.016124586,0.0014856259,0.041632928,0.08767517,0.029299585,-0.0055154366,-0.03958426,0.02882317,0.01942577,0.07598682,0.026771417,-2.0,1.4888967,-2.0,2.0,2.0,-2.0,2.0,-0.5949885,-2.0,-2.0,1.316468,-2.0,-2.0,1.5918627,-2.0,2.0,2.0,-2.0,2.0,-0.5097278,-2.0,-2.0,1.4375547,-2.0
2025-06-09 15:04:41.794,-0.0066719432,-0.016608,-0.071050026,0.02022179,-0.005119052,-0.03185354,0.0,0.0,0.0,0.011326674,-0.10819192,0.26244387,-0.095508456,0.03673161,0.41131768,-0.11599416,0.07336234,-0.009338417,-0.077108584,-0.014502851,0.16007991,-0.11996156,0.022504548,0.08361231,0.056574773,0.017944727,0.04866835,-0.035593625,-0.052225403,0.08173183,-0.033783823,0.014833052,-0.00073501264,0.062534444,-2.0,1.5918627,-2.0,2.0,2.0,-2.0,2.0,-0.5097278,-2.0,-2.0,1.4375547,-2.0,-2.0,2.0,-2.0,2.0,2.0,-2.0,2.0,-0.3096567,-2.0,-2.0,1.1551023,-2.0
2025-06-09 15:04:41.817,0.038877726,-0.011536296,-0.04112604,-0.004269959,0.021936685,-0.00273781,0.0,0.0,0.0,0.012668529,-0.09279686,0.26869875,-0.10778526,0.03198037,0.4302151,-0.10642792,0.06057705,0.0085946135,-0.064825684,0.0036552423,0.17341468,-0.11088462,0.020641182,0.025716478,0.012428149,0.06983818,0.088658035,0.06491061,0.06849942,-0.0005856778,0.03255967,-0.05874765,0.032476887,0.0018232145,-2.0,2.0,-2.0,2.0,2.0,-2.0,2.0,-0.3096567,-2.0,-2.0,1.1551023,-2.0,-2.0,1.5376879,-2.0,2.0,2.0,-2.0,2.0,-0.59812593,-2.0,-2.0,1.5014778,-2.0
2025-06-09 15:04:41.835,0.0014368905,0.013479473,-0.026390614,0.056310933,-0.05206046,0.034688048,0.0,0.0,0.0,0.013486655,-0.09551244,0.28283292,-0.10034199,0.03757033,0.4363566,-0.11746976,0.06868045,0.007131463,-0.05828826,-0.0066285618,0.1861253,-0.09661972,-0.0830442,0.091155,0.079243004,0.056543183,0.08593875,0.04123734,-0.042148523,0.027195984,0.11300448,-0.024586573,-0.0043302025,0.01527381,-2.0,1.5376879,-2.0,2.0,2.0,-2.0,2.0,-0.59812593,-2.0,-2.0,1.5014778,-2.0,-2.0,1.5239625,-2.0,2.0,2.0,-2.0,2.0,-0.6135877,-2.0,-2.0,1.647356,-2.0
2025-06-09 15:04:41.855,0.056368735,0.019599002,-0.048090305,0.025757082,-0.0018168406,-0.049611237,0.0,0.0,0.0,0.0141985165,-0.10944859,0.30723113,-0.10784949,0.037970636,0.4506323,-0.10430516,0.068524905,0.0011344707,-0.037787892,-0.0049100053,0.19103052,-0.08716489,-0.06669821,-0.021616403,-0.05595867,0.020265264,0.024490032,-0.0299008,-0.06551304,-0.0626983,0.04209546,-0.03521951,0.054238968,0.030902058,-2.0,1.5239625,-2.0,2.0,2.0,-2.0,2.0,-0.6135877,-2.0,-2.0,1.647356,-2.0,-2.0,1.6785119,-2.0,2.0,2.0,-2.0,2.0,-0.52031684,-2.0,-2.0,1.7794328,-2.0
2025-06-09 15:04:41.875,0.056781407,-0.02774365,-0.09743523,0.07471827,-0.023743944,0.0012619814,0.0,0.0,0.0,0.015194796,-0.10967696,0.3029533,-0.09455482,0.035192456,0.48011038,-0.11496072,0.08459831,0.0062796636,-0.018737793,-0.004936305,0.21504675,-0.08260615,-0.0037836425,0.014329929,-0.04558812,-0.062145043,0.08853179,0.038469788,0.06557042,0.08173128,0.06557136,-0.043308157,0.037746247,-0.012397877,-2.0,1.6785119,-2.0,2.0,2.0,-2.0,2.0,-0.52031684,-2.0,-2.0,1.7794328,-2.0,-2.0,2.0,-2.0,2.0,2.0,-2.0,2.0,-0.35470828,-2.0,-2.0,1.4864488,-2.0
2025-06-09 15:04:41.895,0.044537548,-0.0049048713,0.016542519,0.05739712,-0.014025436,0.03288316,0.0,0.0,0.0,0.016354378,-0.12429517,0.32858202,-0.102630734,0.03336247,0.49243614,-0.10270743,0.08146897,0.013074329,-0.007094476,0.005410771,0.2277279,-0.08695182,-0.0010969759,0.101707056,-0.005257729,0.074344665,-0.010987007,0.03168473,0.011004727,0.089988135,0.057053246,0.072634704,-0.019686827,0.083836295,-2.0,2.0,-2.0,2.0,2.0,-2.0,2.0,-0.35470828,-2.0,-2.0,1.4864488,-2.0,-2.0,1.5257392,-2.0,2.0,2.0,-2.0,2.0,-0.5884102,-2.0,-2.0,2.0,-2.0
2025-06-09 15:04:41.917,0.015579705,-0.021154199,-0.06274774,0.07271738,0.022506848,0.007999066,0.0,0.0,0.0,0.017110767,-0.123806596,0.32771775,-0.099879734,0.045472104,0.49910527,-0.10716558,0.08114007,0.027144687,-0.00965886,0.011795635,0.23104918,-0.0662499,0.027510328,-0.03580878,-0.027115023,0.068211734,0.044526633,0.06651352,-0.070216894,0.031687614,0.051276226,-0.0033748825,0.03213696,-0.024472034,-2.0,1.5257392,-2.0,2.0,2.0,-2.0,2.0,-0.5884102,-2.0,-2.0,2.0,-2.0,-2.0,1.8878505,-2.0,2.0,2.0,-2.0,2.0,-0.3939338,-2.0,-2.0,1.9257487,-2.0
2025-06-09 15:04:41.935,-0.043251008,-0.00968028,-0.027717067,-0.005043625,-0.031936206,0.033727344,0.0,0.0,0.0,0.018011192,-0.13573042,0.35507798,-0.10005095,0.037371825,0.49247578,-0.1168506,0.084959865,0.0443516,-0.00042928627,0.0057289074,0.2494822,-0.070230246,0.013229575,-0.00062652194,-0.042759433,-0.06496349,0.01587655,-0.03354912,0.007335732,0.048261944,0.031965815,-0.06039506,-0.025248362,-0.019515647,-2.0,1.8878505,-2.0,2.0,2.0,-2.0,2.0,-0.3939338,-2.0,-2.0,1.9257487,-2.0,-2.0,2.0,-2.0,2.0,2.0,-2.0,2.0,-0.4152679,-2.0,-2.0,1.9385186,-2.0
2025-06-09 15:04:41.955,0.01863869,-0.003590848,-0.0038992432,-0.015339016,-0.030392986,-0.005167107,0.0,0.0,0.0,0.018981991,-0.12784879,0.36236966,-0.10120176,0.053888597,0.5045568,-0.108889624,0.095323004,0.041446503,0.012492908,0.013369909,0.27158108,-0.07383468,-0.063494295,-0.04226647,-0.0069222036,0.028907567,-0.052138668,0.063256264,-0.06712035,0.084549025,0.048741058,0.060007967,0.089893125,0.030565353,-2.0,2.0,-2.0,2.0,2.0,-2.0,2.0,-0.4152679,-2.0,-2.0,1.9385186,-2.0,-2.0,1.5462341,-2.0,2.0,2.0,-2.0,2.0,-0.54359573,-2.0,-2.0,2.0,-2.0
2025-06-09 15:04:41.975,-0.02193424,0.010756125,-0.06244557,-0.013877887,0.015165193,-0.037481107,0.0,0.0,0.0,0.019745838,-0.13502023,0.36268106,-0.10513424,0.055906657,0.5060675,-0.11423574,0.083827056,0.040485278,0.017839413,0.012631369,0.26784265,-0.07124067,-0.06975755,0.07111021,0.04985982,0.07287099,0.012686789,0.051604558,-0.048764497,0.061735626,-0.006887055,0.054480452,-0.017849993,0.07042164,-2.0,1.5462341,-2.0,2.0,2.0,-2.0,2.0,-0.54359573,-2.0,-2.0,2.0,-2.0,-2.0,2.0,-2.0,2.0,2.0,-2.0,2.0,-0.3157166,-2.0,-2.0,1.6709422,-2.0
2025-06-09 15:04:41.995,-0.016604142,0.018871179,-0.038780414,0.0033952838,-0.054710563,-0.03477886,0.0,0.0,0.0,0.02064005,-0.1333723,0.37017232,-0.10581892,0.050067037,0.5148309,-0.114968985,0.08033019,0.045016732,0.025480792,0.002450855,0.27775198,-0.066121705,0.036434703,-0.02517105,-0.013278759,0.062597096,0.04204084,-0.07111753,0.060725383,0.07873951,0.031209553,-0.04463372,0.004874326,0.048652854,-2.0,2.0,-2.0,2.0,2.0,-2.0,2.0,-0.3157166,-2.0,-2.0,1.6709422,-2.0,-2.0,2.0,-2.0,2.0,2.0,-2.0,2.0,-0.3357239,-2.0,-2.0,1.9819208,-2.0
2025-06-09 15:04:42.018,0.009691966,0.047573667,0.023291083,0.0665188,-0.00725511,0.016412979,0.0,0.0,0.0,0.021200843,-0.14361718,0.38645306,-0.10171148,0.0625826,0.5134314,-0.100368805,0.091858014,0.04934919,0.04166092,0.0027246522,0.28755444,-0.05869882,-0.06914489,-0.03277018,-0.01868608,-0.03501776,0.040434524,-0.04367762,-0.072097726,0.08013066,-0.04117849,-0.072895385,-0.009235148,0.057651903,-2.0,2.0,-2.0,2.0,2.0,-2.0,2.0,-0.3357239,-2.0,-2.0,1.9819208,-2.0,-2.0,1.6248882,-2.0,2.0,2.0,-2.0,2.0,-0.43311623,-2.0,-2.0,2.0,-2.0
2025-06-09 15:04:42.035,-0.004627486,-0.015313867,-0.026902657,0.008831768,0.0099688545,-0.017176965,0.0,0.0,0.0,0.021456953,-0.14630222,0.3870696,-0.095326245,0.060191203,0.49975905,-0.10319797,0.09746193,0.052820668,0.042786486,0.0015297281,0.28520313,-0.05007445,0.033794146,0.04779595,-0.06473557,0.04622417,-0.009769092,-0.015214221,-0.03747799,-0.015447541,0.04777894,0.011292884,0.065979026,0.07208036,-2.0,1.6248882,-2.0,2.0,2.0,-2.0,2.0,-0.43311623,-2.0,-2.0,2.0,-2.0,-2.0,1.9338775,-2.0,2.0,2.0,-2.0,2.0,-0.4506522,-2.0,-2.0,2.0,-2.0
2025-06-09 15:04:42.055,-0.0056539895,0.026234923,-0.044185944,0.04292246,-0.04691073,0.03634989,0.0,0.0,0.0,0.021855483,-0.13594702,0.3851739,-0.10657159,0.06057362,0.50306976,-0.10831463,0.09572907,0.06911969,0.036803298,0.0036812008,0.30692124,-0.06408586,-0.039876346,-0.014440746,-0.04119602,-0.014976646,-0.06038154,-0.038554236,-0.07399148,-0.02792761,-0.009575483,-0.029516852,0.05068526,0.04863591,-2.0,1.9338775,-2.0,2.0,2.0,-2.0,2.0,-0.4506522,-2.0,-2.0,2.0,-2.0,-2.0,2.0,-2.0,2.0,2.0,-2.0,2.0,-0.2167054,-2.0,-2.0,1.9200243,-2.0
2025-06-09 15:04:42.075,-0.05706759,0.006642307,0.008693863,-0.023594676,-0.025085622,-0.03462368,0.0,0.0,0.0,0.02233552,-0.15588868,0.39982516,-0.1069478,0.0640592,0.49752295,-0.09918339,0.088236116,0.060876638,0.04662395,-0.000600801,0.29549575,-0.065447606,0.06752772,0.07592075,0.054228354,-0.033401158,-0.0067419033,0.037342235,0.0060170544,-0.058403507,-0.03813143,-0.039874718,0.086864114,-0.059526637,-2.0,2.0,-2.0,2.0,2.0,-2.0,2.0,-0.2167054,-2.0,-2.0,1.9200243,-2.0,-2.0,1.5674951,-2.0,2.0,2.0,-2.0,2.0,-0.59971607,-2.0,-2.0,2.0,-2.0
2025-06-09 15:04:42.095,-0.015503981,-0.0013182356,-0.025872923,0.03235119,-0.011722096,0.016487584,0.0,0.0,0.0,0.022560148,-0.1482859,0.39960653,-0.112970114,0.05590922,0.51292694,-0.11456769,0.09574262,0.07174547,0.04983392,0.012342629,0.31258404,-0.059046067,-0.033923034,0.035948634,-0.005015396,-0.021805672,-0.0373516,0.0057115895,0.046389893,-0.03731206,0.05703286,0.015062267,0.0039571906,-0.027325824,-2.0,1.5674951,-2.0,2.0,2.0,-2.0,2.0,-0.59971607,-2.0,-2.0,2.0,-2.0,-2.0,2.0,-2.0,2.0,2.0,-2.0,2.0,-0.41535243,-2.0,-2.0,2.0,-2.0
2025-06-09 15:04:42.117,0.012465454,-0.016506512,-0.06642346,0.065883264,0.040542625,-0.013270649,0.0,0.0,0.0,0.022977235,-0.15139765,0.39454237,-0.110786736,0.07245021,0.505766,-0.10239173,0.08059532,0.05529831,0.045765523,0.0050673666,0.30095315,-0.054554537,0.054653984,0.027484782,-0.07561499,-0.04734177,0.020595709,-0.04186636,-0.027281843,-0.010615212,-0.06017427,-0.05268742,0.054459516,-0.025878845,-2.0,2.0,-2.0,2.0,2.0,-2.0,2.0,-0.41535243,-2.0,-2.0,2.0,-2.0,-2.0,2.0,-2.0,2.0,2.0,-2.0,2.0,-0.11652012,-2.0,-2.0,1.8149784,-2.0
2025-06-09 15:04:42.136,-0.04828328,0.00076502055,-0.002045863,0.06007268,0.029753545,0.020095047,0.0,0.0,0.0,0.023444328,-0.15930372,0.40208453,-0.11301658,0.062750906,0.49993908,-0.10297026,0.09839144,0.06728161,0.048293475,0.014646055,0.3024768,-0.051543407,0.03248013,0.0011866704,0.05406366,-0.05940976,0.017959818,0.06704735,-0.022022786,-0.052845966,0.044421192,-0.029876418,-0.01028593,-0.035974797,-2.0,2.0,-2.0,2.0,2.0,-2.0,2.0,-0.11652012,-2.0,-2.0,1.8149784,-2.0,-2.0,1.8412097,-2.0,2.0,2.0,-2.0,2.0,-0.5228283,-2.0,-2.0,2.0,-2.0
2025-06-09 15:04:42.156,0.018144038,0.004378644,-0.034717042,-0.007510805,0.00989747,-0.034145866,0.0,0.0,0.0,0.023459503,-0.14231524,0.40159205,-0.11482259,0.06285289,0.49168238,-0.11026325,0.080642715,0.06905789,0.04752321,0.0021661595,0.3180969,-0.048734907,0.031954046,-0.009454012,0.026077017,0.07605476,0.013184097,-0.021541577,-0.023730712,-0.011323129,-0.033960056,0.065641604,-0.060768764,-0.054718174,-2.0,1.8412097,-2.0,2.0,2.0,-2.0,2.0,-0.5228283,-2.0,-2.0,2.0,-2.0,-2.0,2.0,-2.0,2.0,2.0,-2.0,2.0,-0.131386,-2.0,-2.0,2.0,-2.0
2025-06-09 15:04:42.176,-0.04528744,0.02926,-0.010015626,-0.018299785,0.025638675,0.033038493,0.0,0.0,0.0,0.023460794,-0.1486777,0.39279273,-0.11312538,0.06445796,0.49968022,-0.10132453,0.080874205,0.078141294,0.04323419,0.0020222957,0.3139786,-0.06287509,-0.03647079,0.060899504,0.0087254895,-0.046711624,0.023139661,0.022390902,-0.025513275,0.005528555,-0.008293672,-0.0015432421,0.012015851,0.024353046,-2.0,2.0,-2.0,2.0,2.0,-2.0,2.0,-0.131386,-2.0,-2.0,2.0,-2.0,-2.0,1.9469427,-2.0,2.0,2.0,-2.0,2.0,-0.3953627,-2.0,-2.0,1.9751035,-2.0
2025-06-09 15:04:42.197,-0.04250826,-0.016181512,-0.00475201,-0.0024358414,-0.033418752,0.015862409,0.0,0.0,0.0,0.023383928,-0.15387562,0.40165752,-0.12174291,0.07975636,0.48211578,-0.09802541,0.080545306,0.06776456,0.027662832,-0.0031866033,0.31997687,-0.058689635,0.07304875,-0.027571486,0.068405606,-0.014596535,0.057805866,-0.04329256,-0.075896345,0.06644491,0.020191215,0.05902581,0.05928079,-0.054591,-2.0,1.9469427,-2.0,2.0,2.0,-2.0,2.0,-0.3953627,-2.0,-2.0,1.9751035,-2.0,-2.0,1.8663452,-2.0,2.0,2.0,-2.0,2.0,-0.2861797,-2.0,-2.0,2.0,-2.0
2025-06-09 15:04:42.217,-0.041422695,-0.059657212,0.012803299,0.017034234,-0.02395751,-0.030641234,0.0,0.0,0.0,0.023276407,-0.14700171,0.39719144,-0.10739055,0.06467308,0.48305285,-0.11218927,0.09089584,0.0801534,0.039692458,0.0060134213,0.31565005,-0.06752613,-0.0069664465,0.054891676,-0.041657366,-0.0077528246,-0.027650485,-0.014527807,-0.027695883,0.034337226,-0.059500646,-0.041119203,-0.07054188,-0.013906724,-2.0,1.8663452,-2.0,2.0,2.0,-2.0,2.0,-0.2861797,-2.0,-2.0,2.0,-2.0,-2.0,1.9779989,-2.0,2.0,2.0,-2.0,2.0,-0.3455017,-2.0,-2.0,2.0,-2.0
2025-06-09 15:04:42.236,0.038573828,-0.02152988,-0.04680433,0.076566,0.01807283,-0.039348412,0.0,0.0,0.0,0.023242973,-0.14751032,0.39273503,-0.11646647,0.066268295,0.4821766,-0.10805708,0.09236399,0.06747181,0.022396775,0.0003718113,0.31966117,-0.07315739,0.04503542,-0.058662772,-0.0055781226,0.0030571602,0.011957823,-0.07013297,0.057615414,-0.049230956,-0.062305417,-0.053432524,-0.023583384,0.033679698,-2.0,1.9779989,-2.0,2.0,2.0,-2.0,2.0,-0.3455017,-2.0,-2.0,2.0,-2.0,-2.0,2.0,-2.0,2.0,2.0,-2.0,2.0,-0.066644624,-2.0,-2.0,2.0,-2.0
2025-06-09 15:04:42.256,-0.06470446,-0.05841246,-0.03418818,0.042594425,-0.042290613,-0.0202544,0.0,0.0,0.0,0.02323776,-0.14457965,0.39565378,-0.10813316,0.08161139,0.4822817,-0.106815204,0.07447765,0.07294592,0.01841516,0.010563977,0.30985278,-0.063940376,-0.04521623,-0.06083948,0.04775211,0.06440386,-0.007787535,0.048371647,0.034749273,0.081161566,-0.067549385,-0.009799035,0.046710864,-0.039937895,-2.0,2.0,-2.0,2.0,2.0,-2.0,2.0,-0.066644624,-2.0,-2.0,2.0,-2.0,-2.0,2.0,-2.0,2.0,2.0,-2.0,2.0,-0.25478867,-2.0,-2.0,1.8862134,-2.0
2025-06-09 15:04:42.276,0.0011738833,0.02813393,0.03416166,0.0372852,0.023815056,-0.007340624,0.0,0.0,0.0,0.023059454,-0.15787238,0.39232102,-0.11298217,0.08019692,0.49101406,-0.109222546,0.08689206,0.07539443,0.012881206,0.005361031,0.3165113,-0.077120766,-0.0075164363,0.019149669,-0.008796246,0.07521174,0.006734853,-0.015948819,0.035633583,0.021073015,-0.07143903,0.028865304,0.039465323,0.02073482,-2.0,2.0,-2.0,2.0,2.0,-2.0,2.0,-0.25478867,-2.0,-2.0,1.8862134,-2.0,-2.0,1.5977482,-2.0,2.0,2.0,-2.0,2.0,-0.47239706,-2.0,-2.0,2.0,-2.0
2025-06-09 15:04:42.299,0.053246245,-0.0016612522,-0.034741104,0.01405732,-0.052234326,0.027388629,0.0,0.0,0.0,0.022734767,-0.1602183,0.3959701,-0.114455,0.07197193,0.47814476,-0.10667358,0.08723552,0.07911493,0.021801187,0.008805821,0.30696598,-0.063739896,-0.0034397503,0.026808837,0.0735677,-0.048292886,-0.03665283,-0.07433095,0.063649215,0.019336557,0.068496406,0.017787445,0.060921207,0.04327001,-2.0,1.5977482,-2.0,2.0,2.0,-2.0,2.0,-0.47239706,-2.0,-2.0,2.0,-2.0,-2.0,2.0,-2.0,2.0,2.0,-2.0,2.0,-0.27434072,-2.0,-2.0,1.8611709,-2.0
2025-06-09 15:04:42.317,0.007936564,0.026080068,-0.021458073,0.0032483807,-0.018695444,-0.03989874,0.0,0.0,0.0,0.022752048,-0.15766856,0.38537347,-0.10227305,0.07010935,0.46514487,-0.10152958,0.08489673,0.07045446,0.023643855,0.009777818,0.31416136,-0.07422083,0.038351275,-0.011786463,0.016074587,0.05775013,0.006318661,0.041064832,-0.06769268,0.0327586,0.03288624,0.02848312,0.0450297,-0.0129502425,-2.0,2.0,-2.0,2.0,2.0,-2.0,2.0,-0.27434072,-2.0,-2.0,1.8611709,-2.0,-2.0,1.8263078,-2.0,2.0,2.0,-2.0,2.0,-0.39180413,-2.0,-2.0,2.0,-2.0
2025-06-09 15:04:42.336,-0.023969607,-0.02453635,0.011979882,0.04877224,0.03187158,-0.037922513,0.0,0.0,0.0,0.022816895,-0.15319952,0.38052624,-0.11390248,0.066779405,0.46864572,-0.09822668,0.07467396,0.058250852,0.013488877,-0.003181312,0.29484248,-0.083090864,-0.076276146,0.009937029,0.023301566,0.031155273,-0.04829808,0.045273937,0.06287014,-0.062452074,-0.017406806,-0.03149499,-0.05533298,0.06600654,-2.0,1.8263078,-2.0,2.0,2.0,-2.0,2.0,-0.39180413,-2.0,-2.0,2.0,-2.0,-2.0,1.6891006,-2.0,2.0,2.0,-2.0,2.0,-0.4773477,-2.0,-2.0,2.0,-2.0
2025-06-09 15:04:42.356,0.04785866,-0.01801396,-0.06939909,0.0750108,-0.01323926,0.015914332,0.0,0.0,0.0,0.022948502,-0.14525041,0.3851877,-0.10856871,0.06524447,0.474127,-0.10747144,0.0918708,0.06139289,0.013438284,0.010348106,0.30719975,-0.0863068,0.00024376191,0.01703311,0.048117347,0.045311164,0.06279616,-0.05227407,0.054684483,0.04515461,0.044073455,-0.009506706,0.020180192,-0.07933362,-2.0,1.6891006,-2.0,2.0,2.0,-2.0,2.0,-0.4773477,-2.0,-2.0,2.0,-2.0,-2.0,2.0,-2.0,2.0,2.0,-2.0,2.0,-0.19096811,-2.0,-2.0,1.8594344,-2.0
2025-06-09 15:04:42.376,-0.049994588,0.03699612,0.0390872,0.0053067245,-0.003822949,-0.017642355,0.0,0.0,0.0,0.02334595,-0.1529195,0.3852766,-0.11407712,0.06877102,0.4651071,-0.11113522,0.07762681,0.05873123,0.013112572,0.0029271643,0.29179013,-0.08233419,-0.05213408,-0.063206874,-0.018049309,0.046875883,-0.03964772,0.050756082,0.05698183,-0.061968036,-0.046290312,0.076981045,-0.071657695,0.030257113,-2.0,2.0,-2.0,2.0,2.0,-2.0,2.0,-0.19096811,-2.0,-2.0,1.8594344,-2.0,-2.0,1.6854169,-2.0,2.0,2.0,-2.0,2.0,-0.5070643,-2.0,-2.0,2.0,-2.0
2025-06-09 15:04:42.401,0.031149939,-0.040704217,-0.0068594078,0.07610954,0.00185971,-0.00011430643,0.0,0.0,0.0,0.023549542,-0.1475215,0.3805076,-0.11427548,0.0688949,0.46982646,-0.10346274,0.08403306,0.05983418,0.01842574,0.007487405,0.29497257,-0.08699837,-0.05660729,0.061054513,-0.0029619623,-0.016282339,0.04660005,-0.04918142,0.0071837166,-0.08092819,0.010866344,0.019265186,-0.02181352,-0.012654853,-2.0,1.6854169,-2.0,2.0,2.0,-2.0,2.0,-0.5070643,-2.0,-2.0,2.0,-2.0,-2.0,1.8548287,-2.0,2.0,2.0,-2.0,2.0,-0.4176478,-2.0,-2.0,2.0,-2.0
2025-06-09 15:04:42.417,-0.015806023,0.025875345,0.026011838,0.040283903,0.015268393,0.020867176,0.0,0.0,0.0,0.023815993,-0.15275514,0.36195716,-0.10782352,0.06530944,0.46663442,-0.095702186,0.082162626,0.05416135,0.01108235,-0.0058222166,0.29439998,-0.07765675,-0.01724276,0.022248091,0.017415209,-0.0044602645,-0.050109085,-0.010174169,-0.029952109,-0.078141466,-0.03957259,0.03509973,-0.06511589,-0.019624937,-2.0,1.8548287,-2.0,2.0,2.0,-2.0,2.0,-0.4176478,-2.0,-2.0,2.0,-2.0,-2.0,1.771357,-2.0,2.0,2.0,-2.0,2.0,-0.41802588,-2.0,-2.0,2.0,-2.0
2025-06-09 15:04:42.437,-0.031910606,-0.048777413,-0.030389583,0.0076760966,0.028091095,-0.0069560045,0.0,0.0,0.0,0.024180057,-0.14716409,0.37262267,-0.096077174,0.064650655,0.46133476,-0.091408096,0.08948608,0.047232762,0.0066249445,0.002917565,0.29387242,-0.079268016,0.030482821,-0.016176192,0.059937224,-0.053753152,-0.034041476,0.006232473,-0.06502529,-0.03035358,-0.07592538,0.017996248,0.030088563,0.03698936,-2.0,1.771357,-2.0,2.0,2.0,-2.0,2.0,-0.41802588,-2.0,-2.0,2.0,-2.0,-2.0,2.0,-2.0,2.0,2.0,-2.0,2.0,-0.22248985,-2.0,-2.0,1.8051013,-2.0
2025-06-09 15:04:42.457,-0.031544097,-0.04924418,0.025165206,0.08514721,0.010588482,0.023089718,0.0,0.0,0.0,0.024543112,-0.15728432,0.36524805,-0.102750376,0.059036717,0.45661658,-0.093141705,0.079141326,0.051589657,0.00792073,0.011233603,0.2936627,-0.094639465,-0.06912078,-0.03536286,0.034040313,-0.04443437,0.01866462,0.044416696,0.03891406,-0.020297933,-0.0048888656,0.027172713,0.02244762,0.020025754,-2.0,2.0,-2.0,2.0,2.0,-2.0,2.0,-0.22248985,-2.0,-2.0,1.8051013,-2.0,-2.0,1.556824,-2.0,2.0,2.0,-2.0,2.0,-0.55757684,-2.0,-2.0,2.0,-2.0
2025-06-09 15:04:42.477,0.02074236,0.034676492,-0.039894193,0.034203395,0.022576367,0.043063655,0.0,0.0,0.0,0.024550667,-0.1559523,0.3494697,-0.10945031,0.06433696,0.4564124,-0.10995685,0.09554365,0.052369148,0.012375144,0.0037377332,0.29957214,-0.09073345,-0.069887556,0.04191583,0.02588317,0.0013303211,-0.053270012,0.015115,-0.02312017,0.004201879,-0.0028436508,0.0087415455,0.036489684,-0.0031397375,-2.0,1.556824,-2.0,2.0,2.0,-2.0,2.0,-0.55757684,-2.0,-2.0,2.0,-2.0,-2.0,2.0,-2.0,2.0,2.0,-2.0,2.0,-0.33525643,-2.0,-2.0,1.7732692,-2.0
2025-06-09 15:04:42.500,-0.014650897,-0.03933819,-0.032638498,0.08454115,-0.055553656,0.0039044893,0.0,0.0,0.0,0.02466571,-0.14770092,0.35676718,-0.0949583,0.07590914,0.45620054,-0.10538592,0.097392865,0.04006713,0.009234695,-0.0030225653,0.2955448,-0.10248982,0.07226558,-0.054147467,0.046531685,0.051799506,0.0558827,0.0022709598,-0.013548964,-0.02162676,0.066475645,0.0430992,-0.06753727,0.06541293,-2.0,2.0,-2.0,2.0,2.0,-2.0,2.0,-0.33525643,-2.0,-2.0,1.7732692,-2.0,-2.0,2.0,-2.0,2.0,2.0,-2.0,2.0,-0.22639145,-2.0,-2.0,2.0,-2.0
2025-06-09 15:04:42.517,-0.034855664,0.018974388,0.0037283767,0.072629906,-0.050216846,0.0026973654,0.0,0.0,0.0,0.024637815,-0.14705852,0.3634501,-0.1025566,0.07087688,0.4502175,-0.103136264,0.079665646,0.051712696,0.008523122,0.009426274,0.28523076,-0.09672461,-0.019073859,-0.045697935,0.02794811,-0.007858937,-0.020564632,-0.0058063944,0.042932637,0.07669048,-0.018057378,0.043047212,0.02020344,-0.012335111,-2.0,2.0,-2.0,2.0,2.0,-2.0,2.0,-0.22639145,-2.0,-2.0,2.0,-2.0,-2.0,1.8614244,-2.0,2.0,2.0,-2.0,2.0,-0.35011366,-2.0,-2.0,2.0,-2.0
2025-06-09 15:04:42.537,0.03159244,0.008256369,0.018475842,0.060256638,-0.057100695,0.040846583,0.0,0.0,0.0,0.024350988,-0.15662757,0.34762612,-0.10849695,0.06495013,0.45219892,-0.0985512,0.09452565,0.051281337,-0.0020091578,-0.0035937065,0.2905142,-0.1002135,-0.017238209,0.008291791,-0.010839857,0.07123022,0.040966783,-0.040907424,-0.06502009,0.054974068,-0.04779946,0.060978055,0.034048185,-0.02626582,-2.0,1.8614244,-2.0,2.0,2.0,-2.0,2.0,-0.35011366,-2.0,-2.0,2.0,-2.0,-2.0,1.6603605,-2.0,2.0,2.0,-2.0,2.0,-0.41681072,-2.0,-2.0,2.0,-2.0
2025-06-09 15:04:42.557,0.037356436,-0.0406395,-0.024847422,0.06431094,-0.0064978143,0.022237241,0.0,0.0,0.0,0.02407899,-0.16037062,0.36260295,-0.10118078,0.065569125,0.4557268,-0.1035481,0.08372502,0.061594497,-0.006445416,0.012015317,0.30132294,-0.11111948,0.0053888164,-0.063380174,0.059035096,-0.06824691,0.033100158,-0.032710806,0.05552172,0.052032236,0.06289277,0.065363474,0.06145061,-0.0718324,-2.0,1.6603605,-2.0,2.0,2.0,-2.0,2.0,-0.41681072,-2.0,-2.0,2.0,-2.0,-2.0,1.9928226,-2.0,2.0,2.0,-2.0,2.0,-0.36133656,-2.0,-2.0,2.0,-2.0
2025-06-09 15:04:42.578,-0.036835752,-0.029194476,-0.018790172,0.031582516,-0.023660753,-0.019620119,0.0,0.0,0.0,0.024040032,-0.15768328,0.34488842,-0.091128334,0.06255778,0.4573787,-0.1025612,0.0778658,0.056179095,-0.010841511,0.0006733112,0.3007914,-0.1103903,0.0075377696,-0.06314817,0.010997756,0.048889555,0.03366984,-0.04666064,-0.06723388,-0.013809204,0.052769955,-0.009152401,-0.010511453,0.009182868,-2.0,1.9928226,-2.0,2.0,2.0,-2.0,2.0,-0.36133656,-2.0,-2.0,2.0,-2.0,-2.0,1.8535151,-2.0,2.0,2.0,-2.0,2.0,-0.35519263,-2.0,-2.0,2.0,-2.0
2025-06-09 15:04:42.600,-0.014328354,0.037194088,-0.0056676744,0.06970099,-0.023235003,0.012574149,0.0,0.0,0.0,0.0240524,-0.14462146,0.35884318,-0.09454793,0.06888822,0.44390607,-0.096364304,0.09090928,0.048906546,-0.002861354,0.0016910583,0.30319542,-0.112200275,-0.0237786,-0.043900803,-0.022443179,0.053869195,-0.060796503,-0.0040160506,0.014057259,-0.054872457,0.027059903,0.06101601,0.020269582,-0.06671489,-2.0,1.8535151,-2.0,2.0,2.0,-2.0,2.0,-0.35519263,-2.0,-2.0,2.0,-2.0,-2.0,1.8402188,-2.0,2.0,2.0,-2.0,2.0,-0.42737016,-2.0,-2.0,2.0,-2.0
2025-06-09 15:04:42.617,0.043593187,0.00445636,-0.047781672,0.080433294,-0.031063752,-0.037701614,0.0,0.0,0.0,0.024060374,-0.15855753,0.3580558,-0.09611284,0.061501868,0.44287235,-0.09403776,0.088088304,0.04364338,-0.009761488,-0.0010196806,0.3063579,-0.10117897,-0.015651384,-0.0077738063,-0.0034086148,-0.029583609,-0.06548488,-0.017421838,0.063440934,-0.04419458,-0.063424066,-0.0034388492,-0.06893953,0.001984343,-2.0,1.8402188,-2.0,2.0,2.0,-2.0,2.0,-0.42737016,-2.0,-2.0,2.0,-2.0,-2.0,2.0,-2.0,2.0,2.0,-2.0,2.0,-0.11663659,-2.0,-2.0,1.844967,-2.0
2025-06-09 15:04:42.637,0.015669243,0.04826209,0.047570113,0.03160824,-0.007428741,0.035455298,0.0,0.0,0.0,0.024143,-0.16169322,0.3508391,-0.10470796,0.066642575,0.44698387,-0.097338274,0.09584139,0.053418618,0.0047807135,0.006821211,0.30635262,-0.101406984,0.0100988895,0.0033989877,0.04227151,-0.0053043948,0.011284729,0.020023681,0.03838117,0.043676924,-0.027519602,0.029372592,0.0053622145,0.06965578,-2.0,2.0,-2.0,2.0,2.0,-2.0,2.0,-0.11663659,-2.0,-2.0,1.844967,-2.0,-2.0,1.5544624,-2.0,2.0,2.0,-2.0,2.0,-0.53046846,-2.0,-2.0,2.0,-2.0
2025-06-09 15:04:42.657,-0.012060207,0.014903066,-0.055623744,0.057168726,-0.02285073,-0.009748653,0.0,0.0,0.0,0.023946559,-0.14738095,0.36009493,-0.09366979,0.07289444,0.4446647,-0.11298195,0.08528161,0.045642465,0.0007213976,0.013402463,0.30470997,-0.10406327,-0.0066343383,0.022193946,0.013572648,-0.07162191,0.0673581,-0.04584908,-0.054515958,0.015480387,-0.06106254,0.05763071,0.021201761,0.02781708,-2.0,1.5544624,-2.0,2.0,2.0,-2.0,2.0,-0.53046846,-2.0,-2.0,2.0,-2.0,-2.0,2.0,-2.0,2.0,2.0,-2.0,2.0,-0.16934206,-2.0,-2.0,1.7561853,-2.0
2025-06-09 15:04:42.677,0.037617587,0.032414366,0.023064496,0.051358532,-0.027337713,0.04408719,0.0,0.0,0.0,0.02394814,-0.15938656,0.3605997,-0.101870626,0.064570166,0.4552154,-0.10694925,0.08122652,0.06271074,-0.0093238875,0.0076750177,0.29232612,-0.10258736,0.06407637,-0.052217685,-0.033320136,0.049006913,-0.042589515,-0.026190601,0.008187675,-0.06085471,0.058025703,-0.032020357,-0.025331495,-0.006008442,-2.0,2.0,-2.0,2.0,2.0,-2.0,2.0,-0.16934206,-2.0,-2.0,1.7561853,-2.0,-2.0,1.8189309,-2.0,2.0,2.0,-2.0,2.0,-0.50537664,-2.0,-2.0,2.0,-2.0
2025-06-09 15:04:42.700,0.0049701133,-0.00430898,0.02384932,0.071055055,-0.03149218,0.027470505,0.0,0.0,0.0,0.02380154,-0.15176348,0.35238704,-0.10732339,0.06496265,0.44528112,-0.10829259,0.08568623,0.046879254,-0.008153316,0.0100537455,0.29695824,-0.10021988,0.025333788,-0.04443075,0.048362147,0.040674545,0.06563491,-0.011527163,0.050166108,0.028061284,0.06475943,-0.036990944,-0.042867117,-0.04724796,-2.0,1.8189309,-2.0,2.0,2.0,-2.0,2.0,-0.50537664,-2.0,-2.0,2.0,-2.0,-2.0,1.6238935,-2.0,2.0,2.0,-2.0,2.0,-0.48470613,-2.0,-2.0,2.0,-2.0
2025-06-09 15:04:42.717,-0.03285527,0.028022323,-0.0562471,-0.0057109795,0.038095456,0.013368499,0.0,0.0,0.0,0.023705883,-0.15309666,0.3647241,-0.096631676,0.07206514,0.45546854,-0.09604649,0.07895099,0.058245786,0.0049200314,0.008232039,0.2888971,-0.097129755,-0.0526839,-0.058106326,0.056613307,-0.024803825,-0.04928788,-0.047476176,0.007964766,-0.057374414,0.032645497,0.032868735,0.02275976,0.0061560287,-2.0,1.6238935,-2.0,2.0,2.0,-2.0,2.0,-0.48470613,-2.0,-2.0,2.0,-2.0,-2.0,2.0,-2.0,2.0,2.0,-2.0,2.0,-0.22010387,-2.0,-2.0,1.6874682,-2.0
2025-06-09 15:04:42.738,-0.01133173,0.034351453,0.04382027,0.018306445,-0.047360945,0.04539302,0.0,0.0,0.0,0.02394476,-0.15147413,0.35245416,-0.09636986,0.063542224,0.46150547,-0.114058234,0.091119975,0.0423415,0.010514494,0.008781607,0.28513682,-0.083412394,0.01794456,-0.066300705,-0.05591778,-0.05940062,0.024290074,0.061020534,0.06848315,0.01986612,-0.008441494,-0.02023552,-0.032601934,-0.053903002,-2.0,2.0,-2.0,2.0,2.0,-2.0,2.0,-0.22010387,-2.0,-2.0,1.6874682,-2.0,-2.0,1.5607176,-2.0,2.0,2.0,-2.0,2.0,-0.62085944,-2.0,-2.0,2.0,-2.0
2025-06-09 15:04:42.758,0.022401474,-0.00044680398,-0.05045557,0.02224899,-0.037899967,0.038366843,0.0,0.0,0.0,0.023913067,-0.14916593,0.34797204,-0.10252933,0.07466578,0.45833802,-0.104612954,0.08518282,0.054556727,0.012498338,-0.003861362,0.28666067,-0.096461184,-0.035672348,-0.07515311,0.011682364,0.016660875,-0.063110165,0.062526725,0.02929819,-0.07971066,-0.056158673,-0.047655307,0.018423388,0.020757345,-2.0,1.5607176,-2.0,2.0,2.0,-2.0,2.0,-0.62085944,-2.0,-2.0,2.0,-2.0,-2.0,2.0,-2.0,2.0,2.0,-2.0,2.0,-0.30854288,-2.0,-2.0,1.6961964,-2.0
2025-06-09 15:04:42.778,-0.024180407,-0.031654216,-0.014058535,0.027523953,0.02995893,0.03496609,0.0,0.0,0.0,0.024074223,-0.14855878,0.34839863,-0.10369561,0.06757915,0.45056397,-0.10625879,0.07792536,0.052324995,0.0029982566,0.008099519,0.28913364,-0.09786613,-0.055497557,-0.05622844,-0.03078256,-0.014974308,-0.01675847,-0.03392753,0.03933923,-0.074995354,0.063531354,-0.061440617,0.03352697,0.027617134,-2.0,2.0,-2.0,2.0,2.0,-2.0,2.0,-0.30854288,-2.0,-2.0,1.6961964,-2.0,-2.0,1.8594648,-2.0,2.0,2.0,-2.0,2.0,-0.48162523,-2.0,-2.0,1.9928538,-2.0
2025-06-09 15:04:42.800,0.011431347,-0.044934053,0.03153999,0.020366669,0.03897423,-0.0440698,0.0,0.0,0.0,0.024102014,-0.1589859,0.3503745,-0.104750566,0.07490085,0.45623317,-0.10518088,0.08248403,0.038583774,0.00658995,0.013235934,0.2833463,-0.092046864,0.056555547,-0.058923807,-0.05405467,0.05040876,0.015212296,-0.017750794,0.0168879,-0.040938713,-0.053416867,-0.037132747,0.011968092,-0.046399843,-2.0,1.8594648,-2.0,2.0,2.0,-2.0,2.0,-0.48162523,-2.0,-2.0,1.9928538,-2.0,-2.0,1.5205985,-2.0,2.0,2.0,-2.0,2.0,-0.48994824,-2.0,-2.0,2.0,-2.0
2025-06-09 15:04:42.818,-0.013114674,-0.0013116713,-0.01810584,0.05588713,-0.05039113,-0.015713308,0.0,0.0,0.0,0.024092242,-0.14433983,0.3622332,-0.11297406,0.0702745,0.453271,-0.10179137,0.0889345,0.037149273,0.0147684645,-0.0039478648,0.29858997,-0.09322737,0.017688483,0.022619117,0.045722514,0.011557069,-0.04449974,0.014447015,-0.00591655,0.034275934,0.06899453,0.00905688,0.020009194,-0.05945913,-2.0,1.5205985,-2.0,2.0,2.0,-2.0,2.0,-0.48994824,-2.0,-2.0,2.0,-2.0,-2.0,1.9143678,-2.0,2.0,2.0,-2.0,2.0,-0.40934667,-2.0,-2.0,2.0,-2.0
2025-06-09 15:04:42.838,0.009283643,0.01147138,-0.042615227,0.0012354503,-0.005477357,-0.0041060545,0.0,0.0,0.0,0.024392698,-0.1495702,0.3563228,-0.09787642,0.07755208,0.44625118,-0.09614875,0.081217036,0.046906747,0.018699745,0.015898252,0.2997199,-0.091658175,-0.0371985,-0.04831411,0.011521838,0.070630886,0.020929638,-0.05197486,-0.015136284,0.07388896,-0.025435667,0.0106534865,0.034057513,-0.06496941,-2.0,1.9143678,-2.0,2.0,2.0,-2.0,2.0,-0.40934667,-2.0,-2.0,2.0,-2.0,-2.0,1.9894365,-2.0,2.0,2.0,-2.0,2.0,-0.21052308,-2.0,-2.0,1.8591535,-2.0
2025-06-09 15:04:42.858,-0.05181693,0.035632264,0.032534454,0.030041698,-0.017340558,-0.033453327,0.0,0.0,0.0,0.02473646,-0.15273055,0.35281476,-0.106139116,0.075648434,0.45452055,-0.106160104,0.08397594,0.052031454,-0.0008559087,-0.0019833294,0.29479617,-0.095593,0.056193598,-0.019175801,6.565254e-05,-0.06796554,-0.06883146,0.029347196,-0.04937338,0.009064671,-0.033353496,0.059596743,-0.022493178,0.066733845,-2.0,1.9894365,-2.0,2.0,2.0,-2.0,2.0,-0.21052308,-2.0,-2.0,1.8591535,-2.0,-2.0,1.7964798,-2.0,2.0,2.0,-2.0,2.0,-0.4179972,-2.0,-2.0,2.0,-2.0
2025-06-09 15:04:42.878,-0.034091897,-0.015583489,-0.033594128,0.063050106,-0.033675555,-0.018592369,0.0,0.0,0.0,0.02471605,-0.16181806,0.36549017,-0.10991284,0.06930034,0.4603322,-0.09588781,0.09124832,0.04948854,0.0033950906,0.008870849,0.29006782,-0.08630216,-0.033599284,0.07794124,0.05122452,-0.012127722,0.009899079,-0.07383846,0.065049045,-0.025532877,0.06320959,-0.042514045,-0.050122913,0.023608169,-2.0,1.7964798,-2.0,2.0,2.0,-2.0,2.0,-0.4179972,-2.0,-2.0,2.0,-2.0,-2.0,2.0,-2.0,2.0,2.0,-2.0,2.0,-0.33356085,-2.0,-2.0,1.8854095,-2.0
2025-06-09 15:04:42.900,0.03304652,-0.040510315,0.058048625,0.0042267567,-0.051436633,0.019089153,0.0,0.0,0.0,0.02462083,-0.14735927,0.373424,-0.10678552,0.064057656,0.45859462,-0.10608639,0.09645459,0.043804258,0.001468506,0.011195485,0.30615333,-0.09823325,0.042530302,-0.064118125,-0.035103355,-0.04790578,-0.057048693,-0.012548279,0.016423186,0.016200047,-0.06834824,0.012940464,0.014909583,0.041131984,-2.0,2.0,-2.0,2.0,2.0,-2.0,2.0,-0.33356085,-2.0,-2.0,1.8854095,-2.0,-2.0,1.5489464,-2.0,2.0,2.0,-2.0,2.0,-0.46974376,-2.0,-2.0,2.0,-2.0
2025-06-09 15:04:42.918,0.058310267,-0.024924366,0.035966083,0.04642519,-0.010039139,0.048498258,0.0,0.0,0.0,0.024416469,-0.1587835,0.36598253,-0.10316433,0.06521337,0.4696077,-0.09969558,0.093839675,0.054152187,0.0042302986,-0.0023939253,0.3005192,-0.092096865,-0.058960564,-0.050530817,0.03734995,-0.06520098,-0.041342553,-0.015291418,-0.042005025,-0.070774786,0.026059413,0.02092786,0.05011921,0.060942296,-2.0,1.5489464,-2.0,2.0,2.0,-2.0,2.0,-0.46974376,-2.0,-2.0,2.0,-2.0,-2.0,1.6404341,-2.0,2.0,2.0,-2.0,2.0,-0.57750016,-2.0,-2.0,2.0,-2.0
2025-06-09 15:04:42.938,0.018106798,0.011789433,-0.0064167446,0.037668113,0.038752664,-0.016125536,0.0,0.0,0.0,0.024405096,-0.15042815,0.3693849,-0.09401052,0.060292628,0.4548832,-0.09394448,0.090369105,0.054752305,0.015187145,0.009095277,0.2888042,-0.08239038,-0.05162973,-0.020691184,0.034302726,0.060436353,-0.07461672,0.06535193,-0.04263348,0.0526591,-0.020786045,0.06494029,-0.050600883,-0.0027344907,-2.0,1.6404341,-2.0,2.0,2.0,-2.0,2.0,-0.57750016,-2.0,-2.0,2.0,-2.0,-2.0,1.8747234,-2.0,2.0,2.0,-2.0,2.0,-0.33922318,-2.0,-2.0,2.0,-2.0
2025-06-09 15:04:42.958,0.028072564,-0.0036288726,-0.057691425,0.044493493,-0.020175265,-0.020985005,0.0,0.0,0.0,0.024735833,-0.15930629,0.36859143,-0.110600136,0.07187095,0.4583804,-0.0994605,0.0918093,0.050688963,0.0078873085,0.015144179,0.29351956,-0.09134979,-0.033888858,0.013647949,0.02382995,-0.036146063,-0.004719542,-0.018205766,-0.046907645,0.040198322,0.03299626,-0.070173785,-0.061602883,-0.056840304,-2.0,1.8747234,-2.0,2.0,2.0,-2.0,2.0,-0.33922318,-2.0,-2.0,2.0,-2.0,-2.0,2.0,-2.0,2.0,2.0,-2.0,2.0,-0.17696954,-2.0,-2.0,1.8754199,-2.0
2025-06-09 15:04:42.982,0.012760703,-0.053807884,0.020469205,0.03145061,0.0027054055,0.022576718,0.0,0.0,0.0,0.025035713,-0.16291676,0.36850843,-0.102035366,0.06071995,0.45843536,-0.10052503,0.09163503,0.047166247,0.01178489,0.0007392799,0.29189888,-0.09620469,0.05768438,-0.03412813,-0.0057104193,-0.008058685,-0.008251005,-0.068046264,-0.03383077,0.04094059,0.0055094245,-0.064266615,0.008107562,-0.039639633,-2.0,2.0,-2.0,2.0,2.0,-2.0,2.0,-0.17696954,-2.0,-2.0,1.8754199,-2.0,-2.0,1.7820876,-2.0,2.0,2.0,-2.0,2.0,-0.41743538,-2.0,-2.0,2.0,-2.0
2025-06-09 15:04:43.001,0.023049103,-0.042929612,0.0053862073,0.083463155,-0.030762613,-0.026107486,0.0,0.0,0.0,0.024927113,-0.15149347,0.37222776,-0.098151326,0.07243146,0.45970544,-0.09318712,0.09319677,0.047060385,0.005131812,0.016226942,0.29225925,-0.08278406,-0.019074297,-0.039317157,0.04927645,-0.021331867,-0.020531889,-0.021376124,0.05958478,0.066872835,0.0014607864,-0.012636932,-0.0129091935,0.0026330159,-2.0,1.7820876,-2.0,2.0,2.0,-2.0,2.0,-0.41743538,-2.0,-2.0,2.0,-2.0,-2.0,1.8036087,-2.0,2.0,2.0,-2.0,2.0,-0.38659063,-2.0,-2.0,2.0,-2.0
2025-06-09 15:04:43.019,0.040002204,0.013581432,-0.0013593351,-0.006947049,-0.0019594394,0.018325156,0.0,0.0,0.0,0.024744727,-0.1617497,0.36684814,-0.09871975,0.06688901,0.45501122,-0.10656166,0.087887764,0.05766338,0.011226739,0.016167844,0.30927765,-0.08915506,-0.055092026,0.054848686,-0.0127578555,0.046194967,0.059912417,4.8885857e-05,-0.02215696,-0.07148564,-0.012324328,0.01308871,-0.059684493,0.026118677,-2.0,1.8036087,-2.0,2.0,2.0,-2.0,2.0,-0.38659063,-2.0,-2.0,2.0,-2.0,-2.0,1.756061,-2.0,2.0,2.0,-2.0,2.0,-0.44976756,-2.0,-2.0,2.0,-2.0
2025-06-09 15:04:43.039,0.025631212,-0.04144163,0.043984566,0.051442448,0.005518952,-0.014478938,0.0,0.0,0.0,0.024660073,-0.14527638,0.35390112,-0.11229723,0.061090775,0.46912602,-0.11035089,0.08875992,0.04943353,0.00097071065,0.0001479709,0.29403183,-0.090598024,-0.074861415,-0.024077836,0.012805752,0.054358948,-0.014920368,0.01198972,-0.0020854652,0.016475694,0.023244092,0.022467896,0.0022213405,0.0028219456,-2.0,1.756061,-2.0,2.0,2.0,-2.0,2.0,-0.44976756,-2.0,-2.0,2.0,-2.0,-2.0,1.5158641,-2.0,2.0,2.0,-2.0,2.0,-0.5556482,-2.0,-2.0,2.0,-2.0
2025-06-09 15:04:43.059,0.02953162,-0.014945979,-0.028282942,0.03730388,0.0070553273,-0.047033075,0.0,0.0,0.0,0.02469401,-0.15467349,0.3607986,-0.10717533,0.07074719,0.4677738,-0.11233222,0.088382825,0.045705203,0.01692221,0.003689238,0.29640856,-0.08111161,-0.05320671,-0.023184532,0.035100017,-0.029030323,0.05986775,-0.01699448,0.05622267,0.045397043,0.06368589,-0.006369765,0.046645753,-0.01037971,-2.0,1.5158641,-2.0,2.0,2.0,-2.0,2.0,-0.5556482,-2.0,-2.0,2.0,-2.0,-2.0,1.839089,-2.0,2.0,2.0,-2.0,2.0,-0.4420134,-2.0,-2.0,2.0,-2.0
2025-06-09 15:04:43.079,0.008459801,-0.0007160819,-0.055603635,0.049078863,-0.0052202586,0.019376397,0.0,0.0,0.0,0.025009286,-0.15317008,0.3606123,-0.1088531,0.066815846,0.4623901,-0.1078232,0.09224157,0.050146256,0.020146156,0.012368065,0.30362704,-0.096359156,-0.04658097,0.0018780326,0.041541718,0.040629357,0.0385304,0.038751196,0.0706727,-0.028805478,-0.0062873256,0.045947935,-0.04233863,-0.05962996,-2.0,1.839089,-2.0,2.0,2.0,-2.0,2.0,-0.4420134,-2.0,-2.0,2.0,-2.0,-2.0,2.0,-2.0,2.0,2.0,-2.0,2.0,-0.25734803,-2.0,-2.0,1.8853947,-2.0
2025-06-09 15:04:43.100,-0.057483893,-0.031575043,-0.029436864,0.0005966312,0.014032449,0.043079842,0.0,0.0,0.0,0.025367225,-0.15376072,0.36422935,-0.09404704,0.071590796,0.46672463,-0.11209032,0.08700442,0.052825905,0.020284634,0.013728272,0.30203372,-0.08193463,-0.0659746,0.04793779,0.04886319,-0.037557144,0.014565834,-0.04116887,-0.031658076,-0.04123852,-0.04304689,0.0651176,0.029969865,-0.06452287,-2.0,2.0,-2.0,2.0,2.0,-2.0,2.0,-0.25734803,-2.0,-2.0,1.8853947,-2.0,-2.0,2.0,-2.0,2.0,2.0,-2.0,2.0,-0.26479962,-2.0,-2.0,1.8538888,-2.0
2025-06-09 15:04:43.119,-0.02387493,-0.019878017,0.025040155,-0.007730962,-0.019524502,-0.035305306,0.0,0.0,0.0,0.025354499,-0.1450269,0.36531514,-0.109551705,0.061799012,0.46504372,-0.0926205,0.087263055,0.049801636,0.017076803,0.016661452,0.3078452,-0.08798699,0.003205949,-0.00215182,0.066655114,0.00025141987,0.046630386,-0.042935353,0.026269285,-0.005366059,0.020317141,-0.058546573,0.05066287,-0.053979702,-2.0,2.0,-2.0,2.0,2.0,-2.0,2.0,-0.26479962,-2.0,-2.0,1.8538888,-2.0,-2.0,1.4790763,-2.0,2.0,2.0,-2.0,2.0,-0.5744775,-2.0,-2.0,2.0,-2.0
2025-06-09 15:04:43.139,-0.011867846,0.006346537,0.017381731,0.036279887,-0.03529287,0.028185803,0.0,0.0,0.0,0.024941687,-0.16079535,0.3613643,-0.10765872,0.059876293,0.46461108,-0.10341911,0.08120129,0.05463743,0.009520612,-0.00060726196,0.29486305,-0.09841534,0.059065394,0.025145909,0.008198934,-0.036489394,-0.04012754,0.03185271,-0.011851493,-0.0061228746,0.04401365,0.017678276,-0.0022799727,-0.009387021,-2.0,1.4790763,-2.0,2.0,2.0,-2.0,2.0,-0.5744775,-2.0,-2.0,2.0,-2.0,-2.0,1.8094039,-2.0,2.0,2.0,-2.0,2.0,-0.50449336,-2.0,-2.0,2.0,-2.0
2025-06-09 15:04:43.159,0.052549392,-0.040365692,-0.046714585,-0.005126855,0.008045067,0.0495782,0.0,0.0,0.0,0.024800368,-0.16381305,0.35374728,-0.099746406,0.07143327,0.4674001,-0.10694307,0.08103632,0.03638007,0.01176641,-0.0014045223,0.3004111,-0.097373955,0.017863344,-0.015909392,0.04720949,-0.032954823,0.055869527,-0.035821605,0.05007346,-0.038770102,-0.05881084,-0.022003302,-0.07240151,-0.01235321,-2.0,1.8094039,-2.0,2.0,2.0,-2.0,2.0,-0.50449336,-2.0,-2.0,2.0,-2.0,-2.0,2.0,-2.0,2.0,2.0,-2.0,2.0,-0.13498999,-2.0,-2.0,1.7696998,-2.0
2025-06-09 15:04:43.182,-0.015369964,0.005173273,-0.021125088,0.07546322,-0.0029451381,-0.0020860257,0.0,0.0,0.0,0.024934232,-0.15848504,0.3527345,-0.10741778,0.07748212,0.44980398,-0.10978475,0.0785598,0.040179525,0.0042663002,0.0063110664,0.289507,-0.091143176,0.0056359745,0.018276237,-0.0076563703,0.010113213,0.041531507,-0.057990722,0.026596498,-0.007475609,-0.02848966,0.034901716,-0.06411379,-0.0119257765,-2.0,2.0,-2.0,2.0,2.0,-2.0,2.0,-0.13498999,-2.0,-2.0,1.7696998,-2.0,-2.0,2.0,-2.0,2.0,2.0,-2.0,2.0,-0.23138459,-2.0,-2.0,1.9797889,-2.0
2025-06-09 15:04:43.200,-0.048791386,0.0084394775,0.05879069,0.06768411,-0.039424833,-0.019599535,0.0,0.0,0.0,0.024698118,-0.14900945,0.37169516,-0.097155005,0.06746387,0.46128574,-0.09429707,0.082359016,0.049017236,0.012486753,0.0027168225,0.29657164,-0.09535378,-0.0013773488,0.008383266,0.02319928,-0.03648208,0.0083389245,-0.023872277,-0.02787978,0.08882884,0.04883883,0.039003678,0.062989034,-0.034474667,-2.0,2.0,-2.0,2.0,2.0,-2.0,2.0,-0.23138459,-2.0,-2.0,1.9797889,-2.0,-2.0,1.4493357,-2.0,2.0,2.0,-2.0,2.0,-0.59404796,-2.0,-2.0,2.0,-2.0
2025-06-09 15:04:43.219,0.052029885,0.029971398,-0.027167117,0.0645741,0.029654145,-0.03147951,0.0,0.0,0.0,0.024196714,-0.1528201,0.35624188,-0.11031377,0.07321104,0.46392402,-0.10416455,0.08096617,0.052420177,0.015497482,0.00042131677,0.30785102,-0.098205514,0.008432224,0.06651531,0.007532171,-0.059950452,0.0046147374,0.041783355,-0.068672985,0.0041894494,0.013896189,0.068609126,0.0037608033,-0.057960827,-2.0,1.4493357,-2.0,2.0,2.0,-2.0,2.0,-0.59404796,-2.0,-2.0,2.0,-2.0,-2.0,1.9724172,-2.0,2.0,2.0,-2.0,2.0,-0.35199395,-2.0,-2.0,2.0,-2.0
2025-06-09 15:04:43.239,-0.036578707,-0.019894602,0.028048797,-0.011667914,-0.049538393,-0.006225822,0.0,0.0,0.0,0.02413175,-0.14416912,0.36427376,-0.095508054,0.072554216,0.45667124,-0.11166548,0.08384556,0.04884006,0.0007345172,0.0019650008,0.29708752,-0.08451154,-0.045646526,0.009785972,0.069165334,-0.0010766464,-0.052517917,0.06351661,-0.012431225,0.031431366,0.012363423,0.07217387,-0.05497229,-0.026903333,-2.0,1.9724172,-2.0,2.0,2.0,-2.0,2.0,-0.35199395,-2.0,-2.0,2.0,-2.0,-2.0,1.6498446,-2.0,2.0,2.0,-2.0,2.0,-0.44409963,-2.0,-2.0,2.0,-2.0
2025-06-09 15:04:43.260,0.023740115,-0.027268125,-0.0027592909,0.022171998,0.009446064,0.023863431,0.0,0.0,0.0,0.024248667,-0.14834377,0.36950877,-0.1044233,0.064308,0.46040508,-0.11115493,0.09056001,0.043486226,-0.0022147517,0.0009817599,0.29020932,-0.097917736,0.016236058,0.019471778,-0.057208993,-0.022738295,-0.04547584,-0.016686024,0.06299915,0.07015909,-0.03152103,0.048924863,-0.07390723,-0.050087914,-2.0,1.6498446,-2.0,2.0,2.0,-2.0,2.0,-0.44409963,-2.0,-2.0,2.0,-2.0,-2.0,2.0,-2.0,2.0,2.0,-2.0,2.0,-0.2788771,-2.0,-2.0,2.0,-2.0
2025-06-09 15:04:43.282,-0.020798732,-0.021175824,-0.024099337,0.06358294,-0.05434073,0.041389003,0.0,0.0,0.0,0.0244755,-0.14800043,0.36981356,-0.09512929,0.06731017,0.46952477,-0.10480085,0.07934944,0.049980473,0.00545076,0.00679815,0.30090022,-0.102138534,0.07398359,-0.032492857,0.024590813,0.040224634,-0.025660781,-0.011770204,0.0057108765,-0.001089412,-0.0019561902,0.026894337,0.039992437,-0.07325065,-2.0,2.0,-2.0,2.0,2.0,-2.0,2.0,-0.2788771,-2.0,-2.0,2.0,-2.0,-2.0,1.9937127,-2.0,2.0,2.0,-2.0,2.0,-0.27277496,-2.0,-2.0,1.9687287,-2.0
2025-06-09 15:04:43.300,-0.032316886,-0.04306037,-0.026547534,0.017576057,-0.049027108,-0.008239602,0.0,0.0,0.0,0.02460505,-0.14334522,0.35993588,-0.097978465,0.08019979,0.4557292,-0.09851262,0.087964356,0.050838348,-0.00071917684,0.012634003,0.30787072,-0.08642796,-0.05994911,0.07491374,-0.033200845,0.00424974,0.006349031,0.038762983,0.019304069,0.026959132,-0.002179113,-0.06548902,0.05167014,0.058227487,-2.0,1.9937127,-2.0,2.0,2.0,-2.0,2.0,-0.27277496,-2.0,-2.0,1.9687287,-2.0,-2.0,1.730078,-2.0,2.0,2.0,-2.0,2.0,-0.44991592,-2.0,-2.0,1.6993946,-2.0
2025-06-09 15:04:43.320,0.029576594,0.049118627,0.054485656,0.04231384,0.018576318,-0.014406708,0.0,0.0,0.0,0.024496702,-0.15165818,0.36918038,-0.10284196,0.07745611,0.46158364,-0.09723866,0.076350175,0.061064303,0.0032549012,0.012556743,0.29095137,-0.09644928,-0.057787877,0.054849423,0.05319702,-0.06491887,-0.06849789,-0.010189186,-0.016581794,-0.070967495,0.023319153,0.006689192,-0.014951803,0.058393084,-2.0,1.730078,-2.0,2.0,2.0,-2.0,2.0,-0.44991592,-2.0,-2.0,1.6993946,-2.0,-2.0,1.5431343,-2.0,2.0,2.0,-2.0,2.0,-0.637754,-2.0,-2.0,2.0,-2.0
2025-06-09 15:04:43.340,0.05852638,0.027036376,-0.025023026,0.014037622,-0.042536434,0.020790117,0.0,0.0,0.0,0.024276786,-0.14386876,0.35633856,-0.108539514,0.072842844,0.45260257,-0.0968225,0.07478091,0.05082335,0.001863058,0.010301927,0.29067996,-0.08236097,-0.05551312,0.013678057,-0.026922313,0.068743564,-0.040816218,0.028607873,0.06390995,-0.09112321,0.049251996,0.05247906,-0.03577492,-0.03537893,-2.0,1.5431343,-2.0,2.0,2.0,-2.0,2.0,-0.637754,-2.0,-2.0,2.0,-2.0,-2.0,1.9384298,-2.0,2.0,2.0,-2.0,2.0,-0.40270343,-2.0,-2.0,2.0,-2.0
2025-06-09 15:04:43.360,-0.030584939,0.02661748,-0.02971964,0.056680195,-0.0585768,-0.0018550723,0.0,0.0,0.0,0.02442779,-0.15994936,0.359863,-0.10941518,0.06715004,0.45463026,-0.100699894,0.094593115,0.03608414,0.015781138,0.014097076,0.30381688,-0.081285834,0.06857526,0.06162961,-0.057661097,0.053426266,0.055464618,0.029247418,-0.019182287,-0.04469756,0.04398098,0.012441798,-0.060523834,-0.04363658,-2.0,1.9384298,-2.0,2.0,2.0,-2.0,2.0,-0.40270343,-2.0,-2.0,2.0,-2.0,-2.0,1.8669431,-2.0,2.0,2.0,-2.0,2.0,-0.3947462,-2.0,-2.0,2.0,-2.0
2025-06-09 15:04:43.383,-0.017696746,0.017526254,0.013170727,0.07463315,-0.05267198,-0.042882096,0.0,0.0,0.0,0.024699774,-0.15672134,0.36627656,-0.11240645,0.06659395,0.46279216,-0.11301725,0.077008255,0.045223907,0.0042612557,0.014250578,0.28901652,-0.097369365,-0.06172035,-0.024349427,0.065559596,0.028534813,0.027835855,0.06270348,0.015275351,0.0037454139,-0.010421325,0.037147682,-0.06081107,-0.04223073,-2.0,1.8669431,-2.0,2.0,2.0,-2.0,2.0,-0.3947462,-2.0,-2.0,2.0,-2.0,-2.0,1.6294788,-2.0,2.0,2.0,-2.0,2.0,-0.4837595,-2.0,-2.0,2.0,-2.0
2025-06-09 15:04:43.400,-0.01801409,0.026948176,0.0047531645,0.030212166,-0.02494967,-0.009130073,0.0,0.0,0.0,0.02488636,-0.15502723,0.36714005,-0.1056816,0.071029626,0.46609926,-0.0977299,0.09188042,0.052909292,0.003381113,0.01206809,0.29063493,-0.09004213,-0.07347048,0.022623798,-0.050399028,0.047880165,-0.068394355,-0.008617065,-0.02481646,-0.073302954,0.06817238,-0.051502656,0.004139642,0.061437298,-2.0,1.6294788,-2.0,2.0,2.0,-2.0,2.0,-0.4837595,-2.0,-2.0,2.0,-2.0,-2.0,1.712259,-2.0,2.0,2.0,-2.0,2.0,-0.5853098,-2.0,-2.0,2.0,-2.0
2025-06-09 15:04:43.421,0.0057911454,-0.038111012,-0.071425214,0.0069593154,0.017240718,0.023405425,0.0,0.0,0.0,0.025166582,-0.15631907,0.36398697,-0.1106527,0.074612394,0.46527,-0.10735441,0.09305475,0.0448662,0.002524438,0.01873962,0.29522642,-0.08652587,-0.031182086,-0.04908559,-0.028941948,0.04070247,-0.0063070515,0.0712227,-0.036471162,0.009880753,0.07754122,0.016881786,0.023968976,-0.05376763,-2.0,1.712259,-2.0,2.0,2.0,-2.0,2.0,-0.5853098,-2.0,-2.0,2.0,-2.0,-2.0,2.0,-2.0,2.0,2.0,-2.0,2.0,-0.30829343,-2.0,-2.0,1.8077849,-2.0
2025-06-09 15:04:43.440,-0.05802234,-0.022866165,0.008484429,-0.0009779951,0.028337723,0.01772539,0.0,0.0,0.0,0.025587557,-0.15292412,0.3648598,-0.112341255,0.07244997,0.46722633,-0.09275637,0.09885773,0.041114077,0.018432649,0.015094894,0.30356398,-0.08175743,0.0424241,0.07306014,-0.017202495,-0.006735193,0.044924356,-0.057802632,0.021437667,-0.06454282,0.013307022,-0.0006954625,0.069731556,-0.052584153,-2.0,2.0,-2.0,2.0,2.0,-2.0,2.0,-0.30829343,-2.0,-2.0,1.8077849,-2.0,-2.0,1.6041832,-2.0,2.0,2.0,-2.0,2.0,-0.55764073,-2.0,-2.0,2.0,-2.0
2025-06-09 15:04:43.488,0.02423482,-0.0018008581,0.041753106,0.07018496,-0.023941766,-0.040226802,0.0,0.0,0.0,0.025661731,-0.15466474,0.3583166,-0.11225106,0.06608072,0.46155342,-0.10139151,0.079850994,0.039625842,0.0032805563,0.015872363,0.29197684,-0.08361402,-0.021675643,0.059175953,0.013175479,-0.038833372,0.034724995,-0.008683449,-0.03499825,-0.023963735,-0.018123565,0.023679288,-0.029308887,-0.07338486,-2.0,1.6041832,-2.0,2.0,2.0,-2.0,2.0,-0.55764073,-2.0,-2.0,2.0,-2.0,-2.0,1.5501065,-2.0,2.0,2.0,-2.0,2.0,-0.5484098,-2.0,-2.0,2.0,-2.0
2025-06-09 15:04:43.508,0.062059883,0.00013826227,0.0030742963,0.080888994,-0.031036703,0.02917749,0.0,0.0,0.0,0.025726758,-0.160717,0.34854624,-0.10795196,0.063076146,0.4599794,-0.0960412,0.0939541,0.044776052,0.010956401,0.012641866,0.30105257,-0.09932957,-0.07050034,0.06032373,-0.0052424213,0.05139746,0.00958397,-0.074114904,-0.040792033,-0.031950425,0.004031987,-0.0364653,-0.071421795,0.01334146,-2.0,1.5501065,-2.0,2.0,2.0,-2.0,2.0,-0.5484098,-2.0,-2.0,2.0,-2.0,-2.0,1.8473823,-2.0,2.0,2.0,-2.0,2.0,-0.41463277,-2.0,-2.0,2.0,-2.0
2025-06-09 15:04:43.525,-0.053786058,0.021733403,0.026300577,0.06274018,-0.037772615,0.042147197,0.0,0.0,0.0,0.02602617,-0.16382965,0.35368675,-0.096969076,0.06954394,0.44907495,-0.10227642,0.09805454,0.034286834,0.019422574,0.015763687,0.29575816,-0.08948308,-0.060097422,0.013056512,-0.023395007,-0.034098167,-0.020479009,-0.06836998,-0.04217088,-0.0031908737,-0.07028459,-0.030102989,0.0137265455,-0.040830273,-2.0,1.8473823,-2.0,2.0,2.0,-2.0,2.0,-0.41463277,-2.0,-2.0,2.0,-2.0,-2.0,1.6589285,-2.0,2.0,2.0,-2.0,2.0,-0.47013637,-2.0,-2.0,2.0,-2.0
2025-06-09 15:04:43.545,-0.0013455596,-0.010781792,-0.035931192,0.07235728,-0.015296616,-0.049901266,0.0,0.0,0.0,0.026256371,-0.16619867,0.35738176,-0.091980085,0.057168823,0.46259907,-0.10057509,0.09457832,0.034430593,0.022417102,0.004985442,0.30465874,-0.08874125,-0.013428714,0.04561389,0.020253021,-0.07047835,0.05908211,-0.0070236865,0.005834884,0.051880326,-0.060917392,0.02114666,-0.036721453,-0.0022341998,-2.0,1.6589285,-2.0,2.0,2.0,-2.0,2.0,-0.47013637,-2.0,-2.0,2.0,-2.0,-2.0,2.0,-2.0,2.0,2.0,-2.0,2.0,-0.28976938,-2.0,-2.0,2.0,-2.0
2025-06-09 15:04:43.567,0.00603201,-0.040909026,0.00705485,0.039343365,-0.048333917,0.04462114,0.0,0.0,0.0,0.02641907,-0.1651316,0.34585404,-0.10903319,0.063801825,0.448518,-0.09833054,0.08709727,0.037939012,0.015770888,0.02019686,0.29490224,-0.099540316,-0.04054335,-0.0315486,0.060356148,0.061354,0.001599562,-0.0476039,-0.021483405,0.014407608,-0.045587532,0.018470205,-0.04126991,-0.033033777,-2.0,2.0,-2.0,2.0,2.0,-2.0,2.0,-0.28976938,-2.0,-2.0,2.0,-2.0,-2.0,1.7787782,-2.0,2.0,2.0,-2.0,2.0,-0.3034068,-2.0,-2.0,2.0,-2.0
2025-06-09 15:04:43.586,-0.05291598,-0.049409933,0.04044187,0.016869005,-0.038648944,-0.014462024,0.0,0.0,0.0,0.026320383,-0.15392967,0.35055712,-0.101902544,0.07590186,0.4690795,-0.10042318,0.09274197,0.038701426,0.015555006,0.007547405,0.29790327,-0.09271421,-0.051829696,0.06598189,0.06477192,0.038847044,0.06868558,0.028651895,0.06237443,-0.02907578,0.014653011,-0.03272366,-0.0010584348,-0.0020027254,-2.0,1.7787782,-2.0,2.0,2.0,-2.0,2.0,-0.3034068,-2.0,-2.0,2.0,-2.0,-2.0,1.3758273,-2.0,2.0,2.0,-2.0,2.0,-0.6695772,-2.0,-2.0,2.0,-2.0
2025-06-09 15:04:43.605,0.014901384,-0.0032429534,-0.011726892,0.05240037,-0.056082103,0.03897135,0.0,0.0,0.0,0.026019605,-0.1570782,0.35279423,-0.09636083,0.062341798,0.44820487,-0.105632186,0.08462214,0.048326615,0.010522623,0.018241657,0.29326507,-0.090265505,-0.033787973,-0.0074244025,-0.033699162,-0.07037087,0.066378035,-0.036288608,-0.0640861,-0.03716283,-0.03754211,0.020357361,-0.030703701,0.0015855149,-2.0,1.3758273,-2.0,2.0,2.0,-2.0,2.0,-0.6695772,-2.0,-2.0,2.0,-2.0,-2.0,1.9813889,-2.0,2.0,2.0,-2.0,2.0,-0.36858281,-2.0,-2.0,2.0,-2.0
2025-06-09 15:04:43.626,0.013594919,-0.026403055,0.04229233,-0.011591944,-0.044200927,-0.0028457793,0.0,0.0,0.0,0.02607062,-0.1659156,0.35916406,-0.10659533,0.07197139,0.46373713,-0.10681804,0.09351873,0.03720494,0.009261068,0.011980261,0.2994822,-0.09644128,-0.042047717,0.031151375,0.014619668,0.05548287,0.03448932,0.010318619,0.061043136,0.029014498,0.07052648,0.05419704,0.04829769,0.00060462696,-2.0,1.9813889,-2.0,2.0,2.0,-2.0,2.0,-0.36858281,-2.0,-2.0,2.0,-2.0,-2.0,1.343425,-2.0,2.0,2.0,-2.0,2.0,-0.63197166,-2.0,-2.0,2.0,-2.0
2025-06-09 15:04:43.645,0.06276751,-0.042386647,-0.0002833194,0.012775843,-0.05625839,-0.0055431766,0.0,0.0,0.0,0.026131341,-0.15043552,0.34176755,-0.09575931,0.074042015,0.44631144,-0.103350796,0.09407352,0.030942561,0.0072043245,0.014012319,0.2965188,-0.10046415,-0.015707687,-0.0691809,0.06524498,-0.05966513,0.03665191,0.06872429,-0.010239705,0.053157263,-0.027700154,-0.040753935,-0.015486228,-0.057141952,-2.0,1.343425,-2.0,2.0,2.0,-2.0,2.0,-0.63197166,-2.0,-2.0,2.0,-2.0,-2.0,1.719815,-2.0,2.0,2.0,-2.0,2.0,-0.4536263,-2.0,-2.0,2.0,-2.0
2025-06-09 15:04:43.667,-0.043826666,-0.02322097,-0.059079755,0.07421412,-0.030926444,-0.034671903,0.0,0.0,0.0,0.02639451,-0.15678969,0.33428362,-0.09551566,0.054437414,0.4575646,-0.10778251,0.09766966,0.03089564,0.012507438,0.01823543,0.28812465,-0.10274393,0.031140745,0.0139892185,0.053662855,-0.07260121,-0.021745797,0.066620894,-0.03645853,-0.038253576,0.017059958,0.015869366,-0.053621788,-0.025597261,-2.0,1.719815,-2.0,2.0,2.0,-2.0,2.0,-0.4536263,-2.0,-2.0,2.0,-2.0,-2.0,2.0,-2.0,2.0,2.0,-2.0,2.0,-0.28687057,-2.0,-2.0,1.9602178,-2.0
2025-06-09 15:04:43.686,-0.009685185,-0.037997413,0.03740869,0.087889224,-0.04084579,0.009070492,0.0,0.0,0.0,0.02673233,-0.14843056,0.3477679,-0.09103462,0.05681891,0.4494157,-0.09421237,0.09023147,0.03662332,0.017122988,0.02328328,0.29544196,-0.10709204,-0.055448852,0.031111091,-0.07109017,-0.05385641,0.023270763,-0.017481912,0.02147622,-0.045699295,-0.027347624,-0.017404389,-0.044297565,0.006954523,-2.0,2.0,-2.0,2.0,2.0,-2.0,2.0,-0.28687057,-2.0,-2.0,1.9602178,-2.0,-2.0,1.5860939,-2.0,2.0,2.0,-2.0,2.0,-0.54967606,-2.0,-2.0,2.0,-2.0
2025-06-09 15:04:43.706,0.04657602,0.009355735,-0.034758937,0.02714538,0.018238386,0.014819144,0.0,0.0,0.0,0.026694508,-0.15190656,0.35481834,-0.103641696,0.06410401,0.4545556,-0.09518254,0.09014863,0.043990787,0.012776163,0.010447291,0.29844087,-0.10594061,-0.015227675,0.015079171,-0.012454265,-0.009728656,0.03597743,-0.02181034,-0.034987148,0.04782987,-0.049441468,0.011876609,0.0023590599,-0.03659321,-2.0,1.5860939,-2.0,2.0,2.0,-2.0,2.0,-0.54967606,-2.0,-2.0,2.0,-2.0,-2.0,1.9981217,-2.0,2.0,2.0,-2.0,2.0,-0.27914843,-2.0,-2.0,1.908129,-2.0
2025-06-09 15:04:43.726,0.0048607173,-0.049276035,-0.02122373,0.033898864,0.036125354,0.029541645,0.0,0.0,0.0,0.02663218,-0.1495711,0.35148308,-0.09615634,0.05949641,0.4525637,-0.10601093,0.09135493,0.044504702,-0.0039839256,0.009927015,0.307581,-0.09932183,-0.044331588,0.07404383,-0.0020472957,0.034232236,-0.063867785,0.05541564,-0.0063662264,0.01732309,0.0087986635,0.06613798,-0.031123834,-0.052088186,-2.0,1.9981217,-2.0,2.0,2.0,-2.0,2.0,-0.27914843,-2.0,-2.0,1.908129,-2.0,-2.0,1.9237283,-2.0,2.0,2.0,-2.0,2.0,-0.3134025,-2.0,-2.0,1.8796629,-2.0
2025-06-09 15:04:43.746,-0.055238526,0.031807497,-0.007207792,-0.0047368696,0.002295047,0.019191185,0.0,0.0,0.0,0.026348416,-0.14664571,0.34086362,-0.09302053,0.05834408,0.45268524,-0.10449321,0.092514746,0.03816554,-0.0065611643,0.01223918,0.29022,-0.10695864,0.005073566,-0.045081247,0.016215755,0.048132576,0.024785707,-4.8439768e-05,-0.030379692,0.021202665,0.026698997,-0.04046561,0.0051269336,0.0095991,-2.0,1.9237283,-2.0,2.0,2.0,-2.0,2.0,-0.3134025,-2.0,-2.0,1.8796629,-2.0,-2.0,1.7268093,-2.0,2.0,2.0,-2.0,2.0,-0.47399458,-2.0,-2.0,2.0,-2.0
2025-06-09 15:04:43.769,-0.040060032,0.045607943,0.050900184,0.034969624,0.022976909,0.030200357,0.0,0.0,0.0,0.025767544,-0.15525305,0.35278043,-0.09646041,0.06309629,0.4570852,-0.10811535,0.08085681,0.049425066,-0.0046571796,0.008569616,0.29754555,-0.10565287,-0.047731906,-0.066413224,0.055663764,0.07305778,0.020598596,-0.050822437,0.016009793,-0.0648071,0.016127221,0.030576354,-0.028398046,0.035652075,-2.0,1.7268093,-2.0,2.0,2.0,-2.0,2.0,-0.47399458,-2.0,-2.0,2.0,-2.0,-2.0,1.5694098,-2.0,2.0,2.0,-2.0,2.0,-0.5553629,-2.0,-2.0,2.0,-2.0
2025-06-09 15:04:43.786,-0.015747732,0.052642517,-0.0144160865,0.020374803,0.0038547418,-0.024554918,0.0,0.0,0.0,0.025316842,-0.15679665,0.3456061,-0.09588773,0.07242307,0.45900083,-0.099283,0.08753994,0.037202097,0.008827213,0.016286308,0.29691035,-0.10125371,-0.04697362,-0.056944493,0.032213986,0.015738143,-0.033985674,-0.051728714,0.018103857,-0.059910618,0.07556517,0.05886599,-0.06921312,0.056272924,-2.0,1.5694098,-2.0,2.0,2.0,-2.0,2.0,-0.5553629,-2.0,-2.0,2.0,-2.0,-2.0,2.0,-2.0,2.0,2.0,-2.0,2.0,-0.38137785,-2.0,-2.0,2.0,-2.0
2025-06-09 15:04:43.807,-0.029691905,0.04856453,0.0005006925,0.07667443,-0.01693155,0.042482756,0.0,0.0,0.0,0.02525217,-0.16107397,0.35529095,-0.09510009,0.074340284,0.46264848,-0.10956052,0.09030293,0.04011955,0.0033141382,0.010418818,0.30054876,-0.096716695,0.06869016,-0.018702563,0.025052587,-0.036622897,0.05354421,-0.057693012,-0.037004057,0.035151195,0.0628299,-0.017498981,0.051094025,0.06300289,-2.0,2.0,-2.0,2.0,2.0,-2.0,2.0,-0.38137785,-2.0,-2.0,2.0,-2.0,-2.0,1.7629648,-2.0,2.0,2.0,-2.0,2.0,-0.40696278,-2.0,-2.0,2.0,-2.0
2025-06-09 15:04:43.827,0.01705949,-0.015479639,0.025335575,0.008682756,-0.058583748,0.036314376,0.0,0.0,0.0,0.0252301,-0.15300557,0.35820487,-0.09447423,0.07641437,0.45848522,-0.09885473,0.08621376,0.041497234,0.009607765,0.008830339,0.29305106,-0.092194855,0.013444598,-0.03149532,-0.03570398,0.06646153,0.011603744,0.020803444,0.043535113,-0.06709714,0.021224704,0.01799529,-0.019686796,-0.05535514,-2.0,1.7629648,-2.0,2.0,2.0,-2.0,2.0,-0.40696278,-2.0,-2.0,2.0,-2.0,-2.0,1.6358898,-2.0,2.0,2.0,-2.0,2.0,-0.5557628,-2.0,-2.0,2.0,-2.0
2025-06-09 15:04:43.852,0.009931155,0.055211864,0.02701136,-0.007215447,0.016768157,-0.019763734,0.0,0.0,0.0,0.02520583,-0.16432747,0.3608018,-0.092418805,0.06751073,0.4513265,-0.10602309,0.091852285,0.038454756,-0.0008453266,0.0098004155,0.29493645,-0.09259921,-0.027449565,-0.016118662,0.068732634,0.020483077,-0.06161363,0.07138925,-0.044895444,0.060941074,-0.012971495,0.066166535,0.06838675,0.05657212,-2.0,1.6358898,-2.0,2.0,2.0,-2.0,2.0,-0.5557628,-2.0,-2.0,2.0,-2.0,-2.0,1.4933124,-2.0,2.0,2.0,-2.0,2.0,-0.54507154,-2.0,-2.0,2.0,-2.0
2025-06-09 15:04:43.868,0.04812019,-0.028549168,0.006175978,0.073897325,0.014391277,0.03278678,0.0,0.0,0.0,0.02539021,-0.15276688,0.35360482,-0.09921897,0.057020474,0.45935425,-0.09872198,0.09636332,0.042595666,0.014956986,0.012443388,0.29696283,-0.09891271,0.0482016,0.010556339,0.05149911,-0.012392186,-0.0012677639,-0.051328402,0.020525277,-0.025595626,-0.006809978,-0.003866094,0.039452117,0.022741895,-2.0,1.4933124,-2.0,2.0,2.0,-2.0,2.0,-0.54507154,-2.0,-2.0,2.0,-2.0,-2.0,1.818037,-2.0,2.0,2.0,-2.0,2.0,-0.43535152,-2.0,-2.0,2.0,-2.0
2025-06-09 15:04:43.888,-0.040276174,0.049609445,-0.00015139945,0.010607948,-0.038959887,0.0051394757,0.0,0.0,0.0,0.025836248,-0.1595885,0.3535366,-0.1065439,0.06913903,0.45405468,-0.109695755,0.08566215,0.03070746,0.013030222,0.008779076,0.2998566,-0.104807496,-0.028641386,0.06815865,0.059187822,-0.048611935,-0.039629053,-0.061572168,0.038754266,-0.0069057136,-0.024442678,0.022258958,0.06375888,0.034873936,-2.0,1.818037,-2.0,2.0,2.0,-2.0,2.0,-0.43535152,-2.0,-2.0,2.0,-2.0,-2.0,1.7468615,-2.0,2.0,2.0,-2.0,2.0,-0.42594567,-2.0,-2.0,1.8306867,-2.0
2025-06-09 15:04:43.908,-0.007053797,0.04615125,-0.03538086,0.02952023,0.005472985,-0.040084124,0.0,0.0,0.0,0.026242897,-0.1546259,0.35101724,-0.11019945,0.06562954,0.46221325,-0.098782666,0.09631854,0.027238546,0.010306521,0.0068876543,0.28671363,-0.08902364,-0.02149413,-0.061016027,0.053664055,-0.002252554,0.02022253,0.017073018,0.008585259,0.053414606,-0.016458191,0.0021948863,0.052750003,0.029443588,-2.0,1.7468615,-2.0,2.0,2.0,-2.0,2.0,-0.42594567,-2.0,-2.0,1.8306867,-2.0,-2.0,1.8056691,-2.0,2.0,2.0,-2.0,2.0,-0.40024087,-2.0,-2.0,1.8971623,-2.0
2025-06-09 15:04:43.928,-0.003595901,-0.02187252,-0.017296808,0.077251546,-0.0190858,0.046724185,0.0,0.0,0.0,0.026387928,-0.16430281,0.35115638,-0.10722434,0.07073149,0.46086678,-0.099303655,0.080615796,0.030886665,0.0021274146,0.010293138,0.287315,-0.08474628,0.054598615,0.043155313,-0.009337999,-0.009861507,-0.057691973,0.038799778,-0.042195905,-0.050511774,0.06180846,-0.010594823,-0.02087687,0.002641988,-2.0,1.8056691,-2.0,2.0,2.0,-2.0,2.0,-0.40024087,-2.0,-2.0,1.8971623,-2.0,-2.0,1.9167361,-2.0,2.0,2.0,-2.0,2.0,-0.4099799,-2.0,-2.0,1.9872762,-2.0
2025-06-09 15:04:43.952,0.0008071604,-0.04137703,-0.015090326,0.08192982,-0.04307741,-0.018680783,0.0,0.0,0.0,0.02630278,-0.1653048,0.34694383,-0.10894446,0.07093093,0.4551984,-0.10147518,0.08094483,0.04624285,0.0003009027,0.020766402,0.29763642,-0.09759123,0.054688126,0.018411936,0.04422124,0.04039161,0.06751904,0.055675477,-0.022123588,0.021942735,-0.057874933,0.030391285,-0.050083067,0.04732563,-2.0,1.9167361,-2.0,2.0,2.0,-2.0,2.0,-0.4099799,-2.0,-2.0,1.9872762,-2.0,-2.0,1.7921975,-2.0,2.0,2.0,-2.0,2.0,-0.3038685,-2.0,-2.0,2.0,-2.0
2025-06-09 15:04:43.968,0.0058759646,-0.017627284,0.017185196,-0.010976205,0.012835362,0.012497283,0.0,0.0,0.0,0.026077226,-0.16212134,0.36040717,-0.0919293,0.06787818,0.44956124,-0.09813766,0.08566398,0.047452085,0.008583202,0.015299644,0.30901492,-0.08704621,0.011337918,0.040943462,-0.045838855,0.07043735,0.042540602,0.017370105,0.019710364,0.008163497,-0.07115475,-0.01533831,0.04456722,0.05087495,-2.0,1.7921975,-2.0,2.0,2.0,-2.0,2.0,-0.3038685,-2.0,-2.0,2.0,-2.0,-2.0,1.5744085,-2.0,2.0,2.0,-2.0,2.0,-0.51451707,-2.0,-2.0,2.0,-2.0
2025-06-09 15:04:43.988,-0.0007423738,0.046514597,0.043483812,0.018289061,-0.016487056,-0.027903121,0.0,0.0,0.0,0.025779191,-0.15162574,0.36278763,-0.09990328,0.06579766,0.4568639,-0.09801024,0.082626134,0.03610134,-0.0039669094,0.018934807,0.2975192,-0.10122735,-0.029683433,0.04699152,-0.049726438,0.009964423,-0.050212514,-0.051810212,0.019579249,0.03221607,-0.05914144,0.014040245,-0.01282805,0.0061208056,-2.0,1.5744085,-2.0,2.0,2.0,-2.0,2.0,-0.51451707,-2.0,-2.0,2.0,-2.0,-2.0,1.6409613,-2.0,2.0,2.0,-2.0,2.0,-0.5182207,-2.0,-2.0,2.0,-2.0
2025-06-09 15:04:44.008,-0.027839381,-0.0022975288,-0.0204665,0.053168546,0.020706624,-0.0119298715,0.0,0.0,0.0,0.025682075,-0.14900246,0.34814462,-0.10696476,0.07157258,0.45566007,-0.11077279,0.09277482,0.039807834,0.00030022947,0.008249742,0.2958963,-0.10347699,0.05960243,-0.011063304,-0.037366487,0.014795291,0.04676124,-0.026967952,0.063752875,0.01567732,-0.017799824,0.020208506,0.01665308,0.03733275,-2.0,1.6409613,-2.0,2.0,2.0,-2.0,2.0,-0.5182207,-2.0,-2.0,2.0,-2.0,-2.0,1.9242353,-2.0,2.0,2.0,-2.0,2.0,-0.3563119,-2.0,-2.0,1.9684495,-2.0
2025-06-09 15:04:44.028,-0.033453736,-0.0073727034,0.013778372,0.02949337,-0.04959048,0.025694866,0.0,0.0,0.0,0.025821796,-0.15528226,0.35128123,-0.091471836,0.07411266,0.4564051,-0.10687343,0.09027285,0.03165891,0.004087709,0.008157302,0.29272512,-0.08897827,-0.004652927,-0.022725984,0.022812169,0.023619497,-0.021335268,0.00018921205,0.0076828753,0.032107998,-0.021180917,-0.0024522527,0.026247425,-0.0022203967,-2.0,1.9242353,-2.0,2.0,2.0,-2.0,2.0,-0.3563119,-2.0,-2.0,1.9684495,-2.0,-2.0,1.6456393,-2.0,2.0,2.0,-2.0,2.0,-0.4548293,-2.0,-2.0,2.0,-2.0
2025-06-09 15:04:44.051,-0.026376642,0.04830448,-0.048482515,0.008146249,-0.060607255,-0.0039139385,0.0,0.0,0.0,0.025855863,-0.15206765,0.3489451,-0.09234724,0.071702346,0.4504258,-0.09355243,0.08632807,0.032090716,-0.00048368768,0.019934392,0.30014032,-0.10305227,0.050264597,0.02839384,0.004603079,-0.07451519,0.012833136,0.060836986,-0.047993384,0.042976398,0.03860377,0.018216446,-0.019909978,-0.022464417,-2.0,1.6456393,-2.0,2.0,2.0,-2.0,2.0,-0.4548293,-2.0,-2.0,2.0,-2.0,-2.0,2.0,-2.0,2.0,2.0,-2.0,2.0,-0.33899638,-2.0,-2.0,1.8176545,-2.0
2025-06-09 15:04:44.069,0.011881495,-0.03548647,0.018653378,0.05932629,-0.04302261,-0.021388588,0.0,0.0,0.0,0.025889616,-0.15190566,0.35071912,-0.10859615,0.06971951,0.4594583,-0.10259877,0.090671115,0.04854352,0.007667365,0.015553138,0.2987909,-0.09468608,0.002211207,-0.0023797748,0.021344189,0.017130718,-0.06894514,-0.007296826,0.07190848,0.020528179,0.053471055,-0.06972238,0.03976289,-0.0416337,-2.0,2.0,-2.0,2.0,2.0,-2.0,2.0,-0.33899638,-2.0,-2.0,1.8176545,-2.0,-2.0,1.595224,-2.0,2.0,2.0,-2.0,2.0,-0.55499965,-2.0,-2.0,2.0,-2.0
2025-06-09 15:04:44.089,-0.032351132,0.052269213,0.011163852,0.038885415,-0.0028614898,0.012225622,0.0,0.0,0.0,0.025681587,-0.15553379,0.35687134,-0.103309065,0.07584299,0.46605965,-0.10153587,0.08625368,0.042531576,-0.0011582643,0.011188132,0.30589345,-0.08744704,0.0007045239,-0.047275536,0.07145288,-0.033921644,-0.07016297,0.046322476,-0.05494558,0.06633061,-0.050099228,-0.06378017,-0.051927093,-0.028081616,-2.0,1.595224,-2.0,2.0,2.0,-2.0,2.0,-0.55499965,-2.0,-2.0,2.0,-2.0,-2.0,1.7848878,-2.0,2.0,2.0,-2.0,2.0,-0.39248136,-2.0,-2.0,2.0,-2.0
2025-06-09 15:04:44.108,-0.0533161,0.013361587,-0.0051724464,0.050312243,0.034683816,-0.04063477,0.0,0.0,0.0,0.025577048,-0.15390366,0.36012366,-0.1039696,0.060305204,0.4616595,-0.09695218,0.07869416,0.03306811,0.010113949,0.0125084985,0.2964441,-0.095647156,0.051286787,0.035078615,-0.016766805,-0.049310118,-0.002064576,0.052279245,-0.00642057,-0.046070106,-0.011202552,-0.05141667,-0.031755127,-0.0055215876,-2.0,1.7848878,-2.0,2.0,2.0,-2.0,2.0,-0.39248136,-2.0,-2.0,2.0,-2.0,-2.0,1.7453233,-2.0,2.0,2.0,-2.0,2.0,-0.48909923,-2.0,-2.0,2.0,-2.0
2025-06-09 15:04:44.128,0.0064042923,-0.022113858,0.009949292,0.040160697,-0.031137856,-0.04432695,0.0,0.0,0.0,0.025593646,-0.15282121,0.35694215,-0.10370139,0.07144708,0.45543766,-0.108689725,0.079739995,0.038785893,0.011600374,0.015598977,0.30667427,-0.08870648,-0.017358202,-0.001264898,-0.03742403,-0.059893377,0.037272044,-0.023318063,-0.008505474,0.051893298,0.053274803,-0.03363842,-0.031513218,-0.0284585,-2.0,1.7453233,-2.0,2.0,2.0,-2.0,2.0,-0.48909923,-2.0,-2.0,2.0,-2.0,-2.0,1.737859,-2.0,2.0,2.0,-2.0,2.0,-0.4721056,-2.0,-2.0,2.0,-2.0
2025-06-09 15:04:44.151,-0.020984072,0.044399925,0.004810633,0.016208176,-0.052689627,-0.045722086,0.0,0.0,0.0,0.025670344,-0.15908255,0.34596947,-0.11056025,0.059150502,0.4608222,-0.1066904,0.08303383,0.04174712,0.01811793,0.016472138,0.3072139,-0.10286972,0.052431352,0.046236895,-0.02093306,-0.0008740608,-0.04167876,0.02149837,0.020545216,-0.0047352784,0.018444372,-0.060314067,0.032479547,-0.015361448,-2.0,1.737859,-2.0,2.0,2.0,-2.0,2.0,-0.4721056,-2.0,-2.0,2.0,-2.0,-2.0,1.659476,-2.0,2.0,2.0,-2.0,2.0,-0.56179065,-2.0,-2.0,2.0,-2.0
2025-06-09 15:04:44.169,0.0031628683,-0.018571086,0.02522984,0.047037017,0.030242613,0.023163293,0.0,0.0,0.0,0.02581083,-0.1471292,0.34539685,-0.09389158,0.0597933,0.4513046,-0.10030974,0.0896595,0.03912537,0.0013692518,0.013695711,0.30079427,-0.09717323,-0.05412327,-0.051789317,0.067044504,0.0077792355,0.06740375,0.07225604,0.058434438,0.030510023,0.05750324,-0.057578314,0.03829068,0.03866866,-2.0,1.659476,-2.0,2.0,2.0,-2.0,2.0,-0.56179065,-2.0,-2.0,2.0,-2.0,-2.0,1.3947948,-2.0,2.0,2.0,-2.0,2.0,-0.6097842,-2.0,-2.0,2.0,-2.0
2025-06-09 15:04:44.189,0.052628323,0.054073453,0.004692864,0.045290172,-0.053946417,0.032086298,0.0,0.0,0.0,0.026064819,-0.15169345,0.33995998,-0.09115104,0.0721192,0.46145228,-0.09809788,0.082612045,0.0247807,0.012275443,0.014804343,0.30269498,-0.08479565,0.020764286,0.06094186,-0.041692056,-0.064050004,-0.07329695,0.03797717,-0.0703061,0.035587497,0.025961904,-0.049169123,-0.028328514,-0.00022146264,-2.0,1.3947948,-2.0,2.0,2.0,-2.0,2.0,-0.6097842,-2.0,-2.0,2.0,-2.0,-2.0,1.8562759,-2.0,2.0,2.0,-2.0,2.0,-0.46683702,-2.0,-2.0,2.0,-2.0
2025-06-09 15:04:44.210,0.020686962,0.030870186,-0.008935384,0.02749832,-0.027496807,0.033007644,0.0,0.0,0.0,0.026566664,-0.16853116,0.34679756,-0.10882437,0.06787535,0.4583663,-0.10750234,0.086493015,0.028491931,0.0115162665,0.020586742,0.29409912,-0.09912797,0.012977152,0.043384463,-0.076387405,-0.050890643,-0.022404885,-0.007285798,0.018648664,0.046691474,-0.071542576,0.0653179,-0.071691915,-0.011601477,-2.0,1.8562759,-2.0,2.0,2.0,-2.0,2.0,-0.46683702,-2.0,-2.0,2.0,-2.0,-2.0,1.9998837,-2.0,2.0,2.0,-2.0,2.0,-0.26846942,-2.0,-2.0,2.0,-2.0
2025-06-09 15:04:44.234,0.007728189,0.014584881,0.008864644,0.08487509,-0.035236705,0.046212446,0.0,0.0,0.0,0.026980156,-0.16351475,0.35181972,-0.09619048,0.056753922,0.45621237,-0.094882816,0.084342346,0.025307443,0.008807532,0.018084176,0.29251498,-0.09791129,-0.014625131,-0.02790788,0.020549385,0.06817041,0.06826241,0.005056779,-0.043096833,0.03485564,0.03538458,-0.011931337,0.08046932,0.017925786,-2.0,1.9998837,-2.0,2.0,2.0,-2.0,2.0,-0.26846942,-2.0,-2.0,2.0,-2.0,-2.0,1.4792444,-2.0,2.0,2.0,-2.0,2.0,-0.53543746,-2.0,-2.0,2.0,-2.0
2025-06-09 15:04:44.252,0.03867957,-0.05018085,-0.0055292896,0.058413465,0.009965869,0.04519914,0.0,0.0,0.0,0.026955742,-0.16213098,0.3423881,-0.10505444,0.063729055,0.45457846,-0.10293542,0.09943472,0.033866704,6.8879424e-05,0.008784614,0.30171144,-0.10282399,-0.02311558,0.030534588,-0.00642111,0.073216245,-0.02674364,0.05124513,-0.04308459,-0.032567102,0.063654035,-0.015978405,-0.05741911,-0.0701781,-2.0,1.4792444,-2.0,2.0,2.0,-2.0,2.0,-0.53543746,-2.0,-2.0,2.0,-2.0,-2.0,1.8016106,-2.0,2.0,2.0,-2.0,2.0,-0.47002015,-2.0,-2.0,2.0,-2.0
2025-06-09 15:04:44.273,-0.03792037,0.036216855,-0.0037085149,-0.006211765,0.036112495,0.024161154,0.0,0.0,0.0,0.026923139,-0.16219313,0.35629693,-0.10942978,0.06623617,0.45072734,-0.10275643,0.08240252,0.03147337,0.008633638,0.020174617,0.30556196,-0.09845436,-0.056613132,0.0387466,-0.07077184,0.014391849,0.0056491625,-0.06897513,0.0016990539,0.0040019923,-0.03560762,0.0687354,0.02355904,-0.013391708,-2.0,1.8016106,-2.0,2.0,2.0,-2.0,2.0,-0.47002015,-2.0,-2.0,2.0,-2.0,-2.0,1.7966655,-2.0,2.0,2.0,-2.0,2.0,-0.3977733,-2.0,-2.0,2.0,-2.0
2025-06-09 15:04:44.292,0.028452959,-0.009905948,0.029454056,0.08736148,0.021225892,-0.043832097,0.0,0.0,0.0,0.026909212,-0.1490606,0.35196352,-0.10032377,0.06598689,0.45655322,-0.110709876,0.08756205,0.03598956,0.013454704,0.014915507,0.30521655,-0.107944064,0.06497553,-0.047605604,0.043602046,-0.03980964,0.036233373,-0.0020083892,0.032389622,0.039900962,0.05814947,0.037851315,-0.065439545,0.06377983,-2.0,1.7966655,-2.0,2.0,2.0,-2.0,2.0,-0.3977733,-2.0,-2.0,2.0,-2.0,-2.0,1.7697988,-2.0,2.0,2.0,-2.0,2.0,-0.42919776,-2.0,-2.0,2.0,-2.0
2025-06-09 15:04:44.312,-0.012303103,0.02558115,0.05292125,0.010403369,-0.0055153654,-0.038622297,0.0,0.0,0.0,0.026772646,-0.16265127,0.3516826,-0.09378447,0.07373337,0.45747238,-0.09347504,0.09775719,0.044279918,0.012843801,0.0083912285,0.2937789,-0.108494215,-0.06452478,0.05506954,-0.018901652,0.062035993,0.012203438,0.045321602,-0.051648963,-0.029269254,-0.030450188,-0.04253899,-0.019755008,0.03041613,-2.0,1.7697988,-2.0,2.0,2.0,-2.0,2.0,-0.42919776,-2.0,-2.0,2.0,-2.0,-2.0,1.3130422,-2.0,2.0,2.0,-2.0,2.0,-0.6583192,-2.0,-2.0,2.0,-2.0
2025-06-09 15:04:44.335,0.07056836,0.035265792,-0.0100719975,0.07228884,-0.016109636,-0.044984356,0.0,0.0,0.0,0.026574058,-0.15927759,0.3374892,-0.099547744,0.057888113,0.44805914,-0.1026094,0.08848033,0.030645983,0.013094773,0.01253791,0.30186126,-0.10777634,-0.041689713,-0.0305206,0.029961247,-0.061286453,-0.01843747,-0.07192215,0.058725502,0.01918516,-0.01641284,-0.018837936,0.055370037,0.051300585,-2.0,1.3130422,-2.0,2.0,2.0,-2.0,2.0,-0.6583192,-2.0,-2.0,2.0,-2.0,-2.0,1.8749013,-2.0,2.0,2.0,-2.0,2.0,-0.42203286,-2.0,-2.0,2.0,-2.0
2025-06-09 15:04:44.353,-0.021860804,-0.020393746,-0.02751677,0.032605167,-0.031690534,-0.0020122912,0.0,0.0,0.0,0.026713163,-0.15472926,0.3356271,-0.09847606,0.06719748,0.4623097,-0.099392,0.09800388,0.038998988,0.009046825,0.02252774,0.30142453,-0.09157082,-0.02822285,0.039951064,0.056783672,0.043002836,-0.06470168,0.06382317,0.046139937,-0.051782794,0.039471764,-0.025292935,0.044488862,0.02063442,-2.0,1.8749013,-2.0,2.0,2.0,-2.0,2.0,-0.42203286,-2.0,-2.0,2.0,-2.0,-2.0,1.6987445,-2.0,2.0,2.0,-2.0,2.0,-0.506867,-2.0,-2.0,1.8759676,-2.0
2025-06-09 15:04:44.373,0.048839547,-0.04203899,-0.0138543155,0.009542707,-0.011981879,0.03134446,0.0,0.0,0.0,0.026866084,-0.16188774,0.33525634,-0.101604216,0.0649992,0.44753528,-0.09367209,0.09894653,0.032859813,0.0050995825,0.019794669,0.29940507,-0.09992667,0.025191655,-0.04400569,0.029387325,-0.008210163,-0.051882092,0.07086893,0.03678503,0.0041131987,-0.003423652,-0.065258406,0.0017953198,0.018296454,-2.0,1.6987445,-2.0,2.0,2.0,-2.0,2.0,-0.506867,-2.0,-2.0,1.8759676,-2.0,-2.0,1.7477548,-2.0,2.0,2.0,-2.0,2.0,-0.455972,-2.0,-2.0,2.0,-2.0
2025-06-09 15:04:44.393,-0.042239543,0.004308923,0.0118659455,0.04124612,-0.047193866,-0.04650282,0.0,0.0,0.0,0.026853839,-0.15148312,0.34636524,-0.10407734,0.0546812,0.4457481,-0.10225939,0.094605684,0.036465798,0.016179588,0.015435639,0.30088934,-0.10726781,0.006774179,-0.0013323023,-0.062162846,-0.023752531,0.04606508,0.04910661,0.005614988,-0.0075360155,-0.020506904,0.027130025,0.04116705,0.065968275,-2.0,1.7477548,-2.0,2.0,2.0,-2.0,2.0,-0.455972,-2.0,-2.0,2.0,-2.0,-2.0,1.5769584,-2.0,2.0,2.0,-2.0,2.0,-0.5641774,-2.0,-2.0,2.0,-2.0
2025-06-09 15:04:44.418,-0.013699746,0.005572936,0.016686069,0.013784893,0.008604383,-0.014824255,0.0,0.0,0.0,0.026787145,-0.16528685,0.3337892,-0.10083099,0.06912208,0.44965363,-0.10156957,0.08282626,0.030904252,0.012038067,0.006167625,0.29410532,-0.09841193,-0.038770072,-0.009926685,0.036095586,-0.013170121,0.03815646,0.045384523,-0.052893505,-0.05536941,0.056004643,0.07131026,0.04614338,-0.009566696,-2.0,1.5769584,-2.0,2.0,2.0,-2.0,2.0,-0.5641774,-2.0,-2.0,2.0,-2.0,-2.0,1.5246657,-2.0,2.0,2.0,-2.0,2.0,-0.6041005,-2.0,-2.0,2.0,-2.0
2025-06-09 15:04:44.436,0.042416863,-0.02978662,-0.054802757,0.06800998,0.03485635,0.022644632,0.0,0.0,0.0,0.026839426,-0.16566624,0.34216088,-0.10055972,0.059787508,0.45947587,-0.09560881,0.08580609,0.015572749,0.020678984,0.009407825,0.2969322,-0.09497299,0.047527526,0.060013723,0.063978516,-0.01870655,0.06902195,-0.06915773,-0.01388798,0.049589004,-0.0060145664,0.008170058,0.01640791,-0.022495266,-2.0,1.5246657,-2.0,2.0,2.0,-2.0,2.0,-0.6041005,-2.0,-2.0,2.0,-2.0,-2.0,2.0,-2.0,2.0,2.0,-2.0,2.0,-0.2106861,-2.0,-2.0,1.8173002,-2.0
2025-06-09 15:04:44.456,-0.02222902,-0.04090221,-0.016345143,0.033717517,0.006883085,-0.005496744,0.0,0.0,0.0,0.027088128,-0.15315054,0.34932536,-0.10056063,0.06771612,0.45596838,-0.11046017,0.08650609,0.035453513,0.008429599,0.018138204,0.29586634,-0.10822455,0.061739653,0.08022181,0.02398637,0.064221695,0.015462075,0.03772729,0.030229233,0.042202365,-0.042386204,0.039541967,-0.037147403,-0.024882317,-2.0,2.0,-2.0,2.0,2.0,-2.0,2.0,-0.2106861,-2.0,-2.0,1.8173002,-2.0,-2.0,1.9102209,-2.0,2.0,2.0,-2.0,2.0,-0.32042214,-2.0,-2.0,1.9069029,-2.0
2025-06-09 15:04:44.476,-0.06286074,-0.024528895,-0.0031821702,0.023620581,-0.038797405,-0.023280488,0.0,0.0,0.0,0.026920233,-0.15302807,0.33971795,-0.10490859,0.072203435,0.45248875,-0.093538426,0.09574769,0.02690169,0.005149863,0.011678424,0.3008848,-0.093100764,0.04241469,0.01962279,0.009152136,-0.0048872083,-0.05424063,-0.0013085426,0.013841043,-0.03676081,0.058569696,-0.037194546,0.054531973,0.016485943,-2.0,1.9102209,-2.0,2.0,2.0,-2.0,2.0,-0.32042214,-2.0,-2.0,1.9069029,-2.0,-2.0,1.6779244,-2.0,2.0,2.0,-2.0,2.0,-0.5436889,-2.0,-2.0,2.0,-2.0
2025-06-09 15:04:44.500,0.040554132,-0.029233491,0.015746465,0.0059447004,-0.012890831,-0.04149019,0.0,0.0,0.0,0.026356395,-0.14702757,0.35545003,-0.10551877,0.06602193,0.45696396,-0.10829023,0.09731897,0.033494804,0.008036832,0.005568976,0.30306283,-0.09092274,0.027366098,-0.007878041,-0.036941305,-0.0056518964,0.027021864,-0.06224264,0.06262057,-0.0020176752,-0.018989839,0.024356315,-0.005391294,0.018119713,-2.0,1.6779244,-2.0,2.0,2.0,-2.0,2.0,-0.5436889,-2.0,-2.0,2.0,-2.0,-2.0,1.7344105,-2.0,2.0,2.0,-2.0,2.0,-0.4281204,-2.0,-2.0,2.0,-2.0
2025-06-09 15:04:44.516,-0.02963271,-0.01881147,-0.012758589,0.064487725,0.014573048,-0.02866654,0.0,0.0,0.0,0.025945263,-0.16179259,0.35241994,-0.09222494,0.06192207,0.44553035,-0.10215185,0.09087266,0.031792954,-0.0011345757,0.019649286,0.2925904,-0.095905185,-0.054703917,0.015440797,0.05319643,-0.025123907,-0.05994126,0.05156308,-0.06979833,0.05934953,-0.027306098,-0.046356924,0.0618067,-0.0013018466,-2.0,1.7344105,-2.0,2.0,2.0,-2.0,2.0,-0.4281204,-2.0,-2.0,2.0,-2.0,-2.0,1.6453767,-2.0,2.0,2.0,-2.0,2.0,-0.4568964,-2.0,-2.0,1.9369745,-2.0
2025-06-09 15:04:44.536,-0.018350486,-0.0037446339,-0.022389458,0.041997526,-0.053667314,0.008554973,0.0,0.0,0.0,0.02573795,-0.15578507,0.35006896,-0.10241622,0.07570969,0.45325905,-0.09642142,0.08899867,0.034308515,0.007996525,0.0023919474,0.29983872,-0.09540059,-0.0035041985,0.0059409207,0.01717702,-0.009911578,-0.065230094,-0.031121133,0.07084861,-0.045793526,0.015299529,-0.036403514,0.060439445,-0.026193537,-2.0,1.6453767,-2.0,2.0,2.0,-2.0,2.0,-0.4568964,-2.0,-2.0,1.9369745,-2.0,-2.0,1.8905984,-2.0,2.0,2.0,-2.0,2.0,-0.44217977,-2.0,-2.0,1.8930488,-2.0
2025-06-09 15:04:44.557,-0.042173933,0.05188844,-0.037434362,0.00056848914,0.037708014,0.042768754,0.0,0.0,0.0,0.025664048,-0.16383606,0.34632713,-0.10093173,0.06493171,0.45435697,-0.10788329,0.08212136,0.025865387,0.012569378,0.0035442037,0.28818783,-0.10778509,-0.0722823,0.056671653,0.052736662,-0.012809639,0.050332442,-0.007373615,-0.061670423,-0.06536687,0.061549187,-0.035953805,-0.074246146,-0.009372285,-2.0,1.8905984,-2.0,2.0,2.0,-2.0,2.0,-0.44217977,-2.0,-2.0,1.8930488,-2.0,-2.0,1.8999803,-2.0,2.0,2.0,-2.0,2.0,-0.37093803,-2.0,-2.0,1.8057735,-2.0
2025-06-09 15:04:44.577,0.020792473,0.025193084,0.00246655,0.020923832,0.024413243,-0.002610565,0.0,0.0,0.0,0.025556287,-0.15686147,0.34081382,-0.10836833,0.07656293,0.45060694,-0.09532773,0.08768948,0.027338406,0.008628946,0.0015653763,0.2919615,-0.08959387,-0.04297595,0.0058808327,-0.07328324,-0.010122059,-0.03453336,0.04738077,0.048403416,0.0049782996,-0.016347887,-0.04472673,-0.030764565,-0.03910159,-2.0,1.8999803,-2.0,2.0,2.0,-2.0,2.0,-0.37093803,-2.0,-2.0,1.8057735,-2.0,-2.0,1.6702442,-2.0,2.0,2.0,-2.0,2.0,-0.5047026,-2.0,-2.0,2.0,-2.0
2025-06-09 15:04:44.600,0.03400706,-0.010155524,0.043887254,0.06218446,-0.01656713,0.04850701,0.0,0.0,0.0,0.025259478,-0.15906386,0.3426054,-0.10166129,0.06749307,0.46003836,-0.10895782,0.0859297,0.03218125,-0.002338768,0.0061343377,0.3011284,-0.090388216,0.054617565,-0.050631445,0.034602866,-0.069084994,-0.06354655,0.0059843115,0.031576984,-0.072945766,-0.05330796,0.022298701,-0.044458665,0.04759685,-2.0,1.6702442,-2.0,2.0,2.0,-2.0,2.0,-0.5047026,-2.0,-2.0,2.0,-2.0,-2.0,1.7212603,-2.0,2.0,2.0,-2.0,2.0,-0.460117,-2.0,-2.0,2.0,-2.0
2025-06-09 15:04:44.618,-0.03526513,0.0037817513,-0.0508133,0.015087304,0.037170712,-0.042620216,0.0,0.0,0.0,0.025118615,-0.15370396,0.34748042,-0.09719648,0.061055645,0.4545621,-0.10818329,0.08684676,0.030376744,0.0026621062,0.016844047,0.28841606,-0.09387263,0.053381957,-0.006470466,-0.03859183,-0.0035577063,0.06113112,-0.06996712,-0.05030275,-0.047683712,-0.033941988,-0.032280233,-0.031714763,-0.037321,-2.0,1.7212603,-2.0,2.0,2.0,-2.0,2.0,-0.460117,-2.0,-2.0,2.0,-2.0,-2.0,2.0,-2.0,2.0,2.0,-2.0,2.0,-0.2599356,-2.0,-2.0,1.9924651,-2.0
2025-06-09 15:04:44.637,0.0075102355,0.030021375,0.0192752,0.013205298,0.0012073915,-0.04027487,0.0,0.0,0.0,0.025204422,-0.14684504,0.34626594,-0.09528765,0.060685914,0.44712976,-0.105626084,0.08939398,0.040104818,0.0077022654,0.01212733,0.30145615,-0.102322884,-0.012405011,-0.054057058,-0.015492106,0.024663879,0.067698896,-0.0040195705,-0.07162804,0.050327316,-0.040126882,-0.047440395,-0.002924601,-0.026208185,-2.0,2.0,-2.0,2.0,2.0,-2.0,2.0,-0.2599356,-2.0,-2.0,1.9924651,-2.0,-2.0,1.5517168,-2.0,2.0,2.0,-2.0,2.0,-0.45557365,-2.0,-2.0,2.0,-2.0
2025-06-09 15:04:44.657,0.042004284,-0.026546981,-0.04319638,0.03114767,-0.02928233,-0.015586527,0.0,0.0,0.0,0.025164098,-0.1507148,0.35714516,-0.10214429,0.07214534,0.4524638,-0.103073746,0.07746875,0.03811186,0.008573595,0.0015730613,0.29838356,-0.10578259,-0.0100765005,0.02628953,0.0075261863,-0.0026369768,0.071432814,-0.0647486,-0.039489023,0.002720651,0.009903492,0.009398131,-0.06641809,-0.019989213,-2.0,1.5517168,-2.0,2.0,2.0,-2.0,2.0,-0.45557365,-2.0,-2.0,2.0,-2.0,-2.0,2.0,-2.0,2.0,2.0,-2.0,2.0,-0.22004284,-2.0,-2.0,1.9608213,-2.0
2025-06-09 15:04:44.677,-0.06401643,-0.042295333,-0.00037834176,0.022112047,-0.05011157,0.010070815,0.0,0.0,0.0,0.02522982,-0.14660051,0.36404988,-0.097041324,0.059436187,0.45656034,-0.091902114,0.081323124,0.03732585,0.0069900346,0.016706174,0.29484087,-0.103599794,-0.020127129,-0.048388463,0.025363343,0.038356468,-0.06045948,0.058440156,-0.05062677,0.011226171,0.06426326,-0.050087668,0.014885165,-0.037229672,-2.0,2.0,-2.0,2.0,2.0,-2.0,2.0,-0.22004284,-2.0,-2.0,1.9608213,-2.0,-2.0,1.6552085,-2.0,2.0,2.0,-2.0,2.0,-0.5208244,-2.0,-2.0,2.0,-2.0
2025-06-09 15:04:44.700,0.02183986,0.01541209,0.016960392,0.08465469,-0.056852873,-0.02972509,0.0,0.0,0.0,0.025165955,-0.14583778,0.3519345,-0.09498094,0.067943685,0.46379998,-0.09852925,0.08492284,0.054396074,0.0016352078,0.00834974,0.29054046,-0.09502319,0.06645078,-0.04248719,0.0034212426,0.060019806,0.059265662,-0.054925274,-0.012957596,-0.03343475,-0.03956833,-0.06156043,-0.0019351541,0.03889266,-2.0,1.6552085,-2.0,2.0,2.0,-2.0,2.0,-0.5208244,-2.0,-2.0,2.0,-2.0,-2.0,1.6978633,-2.0,2.0,2.0,-2.0,2.0,-0.45540866,-2.0,-2.0,2.0,-2.0
2025-06-09 15:04:44.717,-0.008075496,0.014920121,0.0033047737,0.0559836,0.018674389,0.011900892,0.0,0.0,0.0,0.025183462,-0.15783376,0.35351613,-0.100665644,0.0731411,0.45744264,-0.09964312,0.07504794,0.044095285,0.0045983354,0.012408767,0.29167202,-0.091998644,0.049709402,-0.050572176,0.061989687,0.06358959,-0.015329105,0.06253906,0.041095275,0.055025995,-0.04768462,-0.02651806,-0.065986164,0.032516606,-2.0,1.6978633,-2.0,2.0,2.0,-2.0,2.0,-0.45540866,-2.0,-2.0,2.0,-2.0,-2.0,1.8263341,-2.0,2.0,2.0,-2.0,2.0,-0.35353282,-2.0,-2.0,2.0,-2.0
2025-06-09 15:04:44.737,-0.03709775,0.022594688,-0.03559497,0.03726144,-0.006845703,-0.036784016,0.0,0.0,0.0,0.025380356,-0.16275746,0.3588385,-0.10203806,0.06347618,0.4634255,-0.105012715,0.07626041,0.04359395,-0.0015905971,0.01876789,0.30861276,-0.09674913,0.06535612,0.074879564,0.062350463,0.020419057,-0.002097884,0.021066098,-0.060890194,-0.004559879,0.037501093,0.008763355,0.028923878,-0.065612584,-2.0,1.8263341,-2.0,2.0,2.0,-2.0,2.0,-0.35353282,-2.0,-2.0,2.0,-2.0,-2.0,1.8630553,-2.0,2.0,2.0,-2.0,2.0,-0.38928506,-2.0,-2.0,1.9871322,-2.0
2025-06-09 15:04:44.757,0.014076696,0.038283248,0.048259027,0.036506742,0.03469756,0.033203542,0.0,0.0,0.0,0.025534559,-0.1621624,0.36116692,-0.09885999,0.06943484,0.45079842,-0.090722114,0.07879777,0.053717352,-0.003909517,0.013850316,0.29303512,-0.09168461,-0.019546676,-0.028931772,0.011114928,0.07314417,0.03558127,-0.07254999,0.031330727,0.0024288234,-0.06671691,-0.016327808,-0.06474364,0.013026701,-2.0,1.8630553,-2.0,2.0,2.0,-2.0,2.0,-0.38928506,-2.0,-2.0,1.9871322,-2.0,-2.0,1.6181445,-2.0,2.0,2.0,-2.0,2.0,-0.4313012,-2.0,-2.0,2.0,-2.0
2025-06-09 15:04:44.778,-0.035947982,0.028674323,0.014908199,0.040557053,-0.037089497,-0.023014281,0.0,0.0,0.0,0.02557622,-0.15634304,0.35247976,-0.10002012,0.07161841,0.470495,-0.093123935,0.09039835,0.05320759,0.001371074,0.018189909,0.30147964,-0.09011639,-0.03341733,-0.07255144,0.05807305,0.049221646,0.006744439,0.029910019,-0.0711194,-0.0025388598,0.028656607,-0.02910915,0.034232393,0.070434645,-2.0,1.6181445,-2.0,2.0,2.0,-2.0,2.0,-0.4313012,-2.0,-2.0,2.0,-2.0,-2.0,1.5901315,-2.0,2.0,2.0,-2.0,2.0,-0.57642305,-2.0,-2.0,2.0,-2.0
2025-06-09 15:04:44.801,-0.012759971,0.025880372,-0.0063312636,0.084070615,-0.015854316,0.012869715,0.0,0.0,0.0,0.025675198,-0.15372328,0.35767904,-0.095713854,0.06633285,0.45735672,-0.101614274,0.08182283,0.045894362,0.010277765,0.0025073553,0.2986135,-0.09939113,0.04602183,0.023652202,0.07294004,-0.051332153,0.026629185,-0.07234813,0.06742863,0.020205284,0.046661906,0.027376981,0.03103683,0.05938118,-2.0,1.5901315,-2.0,2.0,2.0,-2.0,2.0,-0.57642305,-2.0,-2.0,2.0,-2.0,-2.0,1.9454806,-2.0,2.0,2.0,-2.0,2.0,-0.37749252,-2.0,-2.0,1.9687879,-2.0
2025-06-09 15:04:44.817,-0.051043145,0.012567388,0.020664988,0.04974284,-0.0018610161,0.036507975,0.0,0.0,0.0,0.025976425,-0.14696163,0.35075685,-0.09380578,0.06771118,0.4707058,-0.09229415,0.0803311,0.04091754,0.017253742,0.011944484,0.30754653,-0.08700958,-0.0070806327,-0.03197708,0.05652955,0.02367938,-0.035706215,-0.005428673,-0.049732924,0.065188184,0.017321704,-0.042540822,-0.0039205803,0.011190638,-2.0,1.9454806,-2.0,2.0,2.0,-2.0,2.0,-0.37749252,-2.0,-2.0,1.9687879,-2.0,-2.0,1.6762965,-2.0,2.0,2.0,-2.0,2.0,-0.42415574,-2.0,-2.0,2.0,-2.0
2025-06-09 15:04:44.838,0.01007832,-0.0260254,0.040390603,0.0379956,0.006093291,-0.033642806,0.0,0.0,0.0,0.026140364,-0.15638049,0.34598303,-0.09904875,0.074354224,0.4576197,-0.100578286,0.08040142,0.039205406,0.0048660235,0.01222158,0.2946989,-0.10108404,-0.048088018,-0.066800304,0.0055479035,-0.008138661,-0.05004172,0.06380599,0.030926526,0.06403274,0.04689551,-0.05938112,-0.04592219,-0.020835517,-2.0,1.6762965,-2.0,2.0,2.0,-2.0,2.0,-0.42415574,-2.0,-2.0,2.0,-2.0,-2.0,1.5781888,-2.0,2.0,2.0,-2.0,2.0,-0.5764783,-2.0,-2.0,2.0,-2.0
2025-06-09 15:04:44.858,-0.022520117,0.026686216,-0.04305672,-0.009211144,-0.022619506,-0.0074179056,0.0,0.0,0.0,0.026206596,-0.16413423,0.35231304,-0.105913356,0.060833216,0.45260012,-0.0915002,0.09107848,0.044365425,0.012336411,0.0049301027,0.29160696,-0.083406635,0.030487055,-0.060188413,-0.0574418,-0.02410038,-0.022639494,-0.014509935,0.017221086,-0.022934122,-0.018919379,-0.016740015,-0.011357409,0.07060798,-2.0,1.5781888,-2.0,2.0,2.0,-2.0,2.0,-0.5764783,-2.0,-2.0,2.0,-2.0,-2.0,2.0,-2.0,2.0,2.0,-2.0,2.0,-0.29700616,-2.0,-2.0,1.874968,-2.0
2025-06-09 15:04:44.878,0.012918816,-0.026171304,-0.025300242,0.011126755,-0.0243599,0.015159095,0.0,0.0,0.0,0.026418336,-0.14893645,0.3631999,-0.094389185,0.06846525,0.46274364,-0.10180657,0.091141984,0.046128612,0.012595366,0.021871837,0.30823874,-0.09620823,0.016118422,0.004857052,-0.044053786,-0.032703202,-0.02056378,-0.048321143,-0.03803688,0.054433804,-0.03696766,0.05359011,-0.040672038,-0.0101620145,-2.0,2.0,-2.0,2.0,2.0,-2.0,2.0,-0.29700616,-2.0,-2.0,1.874968,-2.0,-2.0,2.0,-2.0,2.0,2.0,-2.0,2.0,-0.13476963,-2.0,-2.0,1.9669749,-2.0
2025-06-09 15:04:44.900,0.0004092263,0.02323442,0.047498453,0.03946725,-0.010914632,-0.016014962,0.0,0.0,0.0,0.026346564,-0.1644922,0.3630969,-0.09294688,0.069238104,0.47033584,-0.09798046,0.08498857,0.044384733,0.013447146,0.010870196,0.30181837,-0.09536525,0.0065057594,-0.032860573,-0.04810461,-0.025772672,0.049853973,-0.037743352,-0.06982728,-0.05080708,-0.008405788,0.0052702557,0.028432367,0.057470504,-2.0,2.0,-2.0,2.0,2.0,-2.0,2.0,-0.13476963,-2.0,-2.0,1.9669749,-2.0,-2.0,1.4986302,-2.0,2.0,2.0,-2.0,2.0,-0.5879533,-2.0,-2.0,2.0,-2.0
2025-06-09 15:04:44.918,0.021521032,-0.04574322,0.017566847,0.040160313,0.0313548,0.038410943,0.0,0.0,0.0,0.025830198,-0.1638095,0.36014915,-0.105041176,0.06039357,0.47023252,-0.092323154,0.08001369,0.04438546,-0.00082416646,0.007327508,0.29805908,-0.086566485,0.022806529,-0.020266436,-0.0015057558,-0.04231176,-0.03102808,0.05216365,-0.002165548,-0.059345033,0.046645086,-0.05395185,0.032130286,0.025163421,-2.0,1.4986302,-2.0,2.0,2.0,-2.0,2.0,-0.5879533,-2.0,-2.0,2.0,-2.0,-2.0,1.6181302,-2.0,2.0,2.0,-2.0,2.0,-0.587666,-2.0,-2.0,2.0,-2.0
2025-06-09 15:04:44.938,0.036754545,0.014248401,0.013332064,-0.004752656,-0.0074560633,-0.037473597,0.0,0.0,0.0,0.025554877,-0.15578043,0.35542256,-0.10010323,0.06601012,0.45368373,-0.104568504,0.079273075,0.049540956,0.010854834,0.008972108,0.2998739,-0.099688254,0.049781974,0.033712097,-0.060805347,0.03805377,-0.071608365,-0.06540099,0.018939229,0.05131657,0.0656742,0.048783056,0.0149152465,0.02724303,-2.0,1.6181302,-2.0,2.0,2.0,-2.0,2.0,-0.587666,-2.0,-2.0,2.0,-2.0,-2.0,1.8748951,-2.0,2.0,2.0,-2.0,2.0,-0.4126697,-2.0,-2.0,2.0,-2.0
2025-06-09 15:04:44.958,0.013311064,0.0070200623,-0.015497746,0.06053694,-0.014809197,0.02955661,0.0,0.0,0.0,0.025688332,-0.15567419,0.3524839,-0.1060136,0.06976379,0.45738313,-0.09332202,0.09238062,0.036534928,0.017107373,0.012193228,0.2915852,-0.082690366,-0.033581376,0.011649869,-0.059161052,0.052072175,0.04295471,-0.07260574,-0.06893966,0.028079722,0.03212434,0.074885644,-0.05642156,0.0069770105,-2.0,1.8748951,-2.0,2.0,2.0,-2.0,2.0,-0.4126697,-2.0,-2.0,2.0,-2.0,-2.0,1.9859346,-2.0,2.0,2.0,-2.0,2.0,-0.2820846,-2.0,-2.0,2.0,-2.0
2025-06-09 15:04:44.978,-0.040159825,-0.03356699,0.029077718,0.032440793,-0.048201848,0.00077251496,0.0,0.0,0.0,0.025840878,-0.15249702,0.34998828,-0.10723635,0.06900173,0.46545556,-0.09981782,0.094176985,0.04202847,0.01880316,0.018188138,0.30711773,-0.09414838,-0.058190487,-0.045825135,-0.060464516,-0.05211259,0.032823093,0.055371195,0.008381623,0.04739987,0.06535704,-0.06785085,-0.047330454,-0.07015879,-2.0,1.9859346,-2.0,2.0,2.0,-2.0,2.0,-0.2820846,-2.0,-2.0,2.0,-2.0,-2.0,1.5404347,-2.0,2.0,2.0,-2.0,2.0,-0.59538275,-2.0,-2.0,2.0,-2.0
2025-06-09 15:04:45.000,0.050080746,0.034289088,-0.0077883964,0.06165131,-0.047039807,0.0358145,0.0,0.0,0.0,0.025750533,-0.15015925,0.34826976,-0.10948852,0.077058926,0.45275664,-0.10209036,0.075983755,0.040284645,0.012170233,0.0033939432,0.30818427,-0.09335159,0.033235714,-0.004329172,0.0082013775,-0.063459635,0.015640594,0.063978925,0.046592414,-0.054214735,-0.03530568,-0.03670499,-0.047924675,-0.023467312,-2.0,1.5404347,-2.0,2.0,2.0,-2.0,2.0,-0.59538275,-2.0,-2.0,2.0,-2.0,-2.0,1.8607807,-2.0,2.0,2.0,-2.0,2.0,-0.41081128,-2.0,-2.0,2.0,-2.0
2025-06-09 15:04:45.018,0.00067494897,0.019628242,-0.013474738,-0.00220643,0.012302332,-0.04609973,0.0,0.0,0.0,0.025823878,-0.14868566,0.35623625,-0.105932936,0.07450341,0.45690435,-0.102900386,0.077915415,0.042637352,0.008607512,0.021579735,0.30447966,-0.09874674,0.03812978,-0.022252813,0.05106673,0.024609847,0.06665566,-0.0280361,0.057765007,0.05133335,0.054633815,0.03173216,-0.03651614,0.008820441,-2.0,1.8607807,-2.0,2.0,2.0,-2.0,2.0,-0.41081128,-2.0,-2.0,2.0,-2.0,-2.0,1.8680309,-2.0,2.0,2.0,-2.0,2.0,-0.35455218,-2.0,-2.0,2.0,-2.0
2025-06-09 15:04:45.038,0.014142426,0.0444244,-0.045199115,0.07990594,0.03287942,0.028760051,0.0,0.0,0.0,0.025954274,-0.16532902,0.35797763,-0.10103404,0.0733495,0.46323174,-0.09504808,0.09316551,0.030735763,0.012195662,0.0026580184,0.2939186,-0.09434448,-0.050828703,-0.018445792,-0.06122019,-0.03997716,-0.061714277,-0.010786568,0.018318601,-0.037423793,0.05235496,0.022431623,-0.05920644,-0.041164413,-2.0,1.8680309,-2.0,2.0,2.0,-2.0,2.0,-0.35455218,-2.0,-2.0,2.0,-2.0,-2.0,2.0,-2.0,2.0,2.0,-2.0,2.0,-0.24576522,-2.0,-2.0,1.901843,-2.0
2025-06-09 15:04:45.058,-0.023156935,0.03143541,-0.021072628,0.023140872,0.0023808246,0.022808066,0.0,0.0,0.0,0.025940191,-0.16158994,0.3520615,-0.10711567,0.06400486,0.46944386,-0.10111888,0.08488627,0.034652993,0.0069912886,0.004576667,0.29825035,-0.0856237,-0.015726937,0.060780082,0.030712709,0.06489992,0.06519106,0.050802268,0.0545482,0.051681742,-0.010273881,-0.041394718,-0.030120527,0.039433915,-2.0,2.0,-2.0,2.0,2.0,-2.0,2.0,-0.24576522,-2.0,-2.0,1.901843,-2.0,-2.0,1.7305164,-2.0,2.0,2.0,-2.0,2.0,-0.42069462,-2.0,-2.0,1.8045818,-2.0
2025-06-09 15:04:45.078,-0.0316095,-0.013822892,0.046245236,0.012026016,-0.01897697,0.013254067,0.0,0.0,0.0,0.025622237,-0.15998524,0.35316712,-0.09817167,0.06322911,0.46858892,-0.09589862,0.088985376,0.045214646,-0.0049662557,0.0051029045,0.29391518,-0.08397381,0.017191002,-0.06769632,0.00055291207,0.059911776,-0.007537674,-0.0472056,0.055278357,-0.03916093,-0.04341889,0.05592175,-0.015621561,0.06282701,-2.0,1.7305164,-2.0,2.0,2.0,-2.0,2.0,-0.42069462,-2.0,-2.0,1.8045818,-2.0,-2.0,1.6295618,-2.0,2.0,2.0,-2.0,2.0,-0.5166251,-2.0,-2.0,2.0,-2.0
2025-06-09 15:04:45.100,0.022178233,-0.0094775,-0.0456417,0.031039089,-0.055471193,0.013991104,0.0,0.0,0.0,0.025195269,-0.14776888,0.34922418,-0.0919951,0.06861919,0.46154094,-0.09915763,0.080392994,0.036811467,-0.0009707699,0.019934384,0.30235347,-0.10081237,0.031480055,0.01660707,-0.014839216,-0.003464115,-0.06286131,-0.07423306,0.05995937,0.022792397,0.024985498,0.018517032,0.051295623,0.01996006,-2.0,1.6295618,-2.0,2.0,2.0,-2.0,2.0,-0.5166251,-2.0,-2.0,2.0,-2.0,-2.0,2.0,-2.0,2.0,2.0,-2.0,2.0,-0.24821754,-2.0,-2.0,1.7482666,-2.0
2025-06-09 15:04:45.118,0.029145062,0.044048615,0.04594007,0.08124182,0.018919803,-0.044359744,0.0,0.0,0.0,0.02505473,-0.15680988,0.3524421,-0.11163287,0.078837,0.46528322,-0.10268353,0.077918224,0.05026945,0.00853899,0.015324728,0.2948726,-0.095470086,0.007675108,0.06919974,-0.049180992,-0.0020786603,-0.043751832,-0.0736162,-0.05937494,0.055953152,0.05705696,-0.029431392,-0.0268836,0.07714684,-2.0,2.0,-2.0,2.0,2.0,-2.0,2.0,-0.24821754,-2.0,-2.0,1.7482666,-2.0,-2.0,1.6717424,-2.0,2.0,2.0,-2.0,2.0,-0.5186778,-2.0,-2.0,2.0,-2.0
2025-06-09 15:04:45.139,-0.035305213,0.04699967,-0.031717584,0.056192826,0.015743652,0.0069591766,0.0,0.0,0.0,0.02475813,-0.1495059,0.35441738,-0.094971456,0.069651105,0.4650659,-0.111307435,0.07527974,0.044587757,0.013128483,0.0028112524,0.2947611,-0.08206812,-0.0038514517,0.055299636,0.024422264,0.056434345,0.019350776,0.034349013,0.05227436,-0.027341124,0.0038835283,-0.0656167,0.035320804,-0.05842093,-2.0,1.6717424,-2.0,2.0,2.0,-2.0,2.0,-0.5186778,-2.0,-2.0,2.0,-2.0,-2.0,1.7835445,-2.0,2.0,2.0,-2.0,2.0,-0.46435687,-2.0,-2.0,1.8397564,-2.0
2025-06-09 15:04:45.159,-0.002301631,-0.007528774,-0.045479022,0.020180676,0.016149672,-0.004427207,0.0,0.0,0.0,0.024606485,-0.15427397,0.35088935,-0.11070371,0.07011781,0.4506749,-0.099881455,0.08968112,0.04455207,0.006120279,0.013645135,0.29581246,-0.090623885,-0.069970086,0.07135305,-0.0665026,-0.010091481,0.0362887,-0.064656354,0.010344538,-0.023029441,-0.021284536,-0.0637556,-0.046608835,0.058839533,-2.0,1.7835445,-2.0,2.0,2.0,-2.0,2.0,-0.46435687,-2.0,-2.0,1.8397564,-2.0,-2.0,2.0,-2.0,2.0,2.0,-2.0,2.0,-0.28994676,-2.0,-2.0,1.7898928,-2.0
2025-06-09 15:04:45.179,-0.0009832858,0.045084685,0.012721651,0.017740218,-0.04057823,-0.014651334,0.0,0.0,0.0,0.024621816,-0.14954104,0.3662727,-0.113425605,0.07432357,0.4627102,-0.10399415,0.07153558,0.049842153,0.016439842,0.0027645244,0.29699185,-0.08541085,0.031034142,-0.03085687,-0.024557998,0.07175731,-0.026973106,-0.037778344,-0.05974715,0.0068722046,-0.058952753,-0.0715287,-0.029654227,0.02665297,-2.0,2.0,-2.0,2.0,2.0,-2.0,2.0,-0.28994676,-2.0,-2.0,1.7898928,-2.0,-2.0,1.8066564,-2.0,2.0,2.0,-2.0,2.0,-0.35012558,-2.0,-2.0,2.0,-2.0
2025-06-09 15:04:45.200,-0.036252495,0.022488503,-0.013782949,0.039806142,-0.037594717,-0.03913131,0.0,0.0,0.0,0.024430161,-0.1424295,0.35246864,-0.09627378,0.06871534,0.45771843,-0.10048949,0.07002312,0.04871384,0.010780567,0.01364208,0.29801798,-0.09454173,0.044412263,-0.050962836,0.042059593,-0.06250883,0.041918393,0.017251173,0.053597484,0.042877104,0.011546398,-0.01761369,-0.014765403,0.06837074,-2.0,1.8066564,-2.0,2.0,2.0,-2.0,2.0,-0.35012558,-2.0,-2.0,2.0,-2.0,-2.0,1.9347935,-2.0,2.0,2.0,-2.0,2.0,-0.38438722,-2.0,-2.0,2.0,-2.0
2025-06-09 15:04:45.219,0.007067848,0.004301838,0.044579502,-0.006204073,-0.046346813,-0.035118688,0.0,0.0,0.0,0.024255212,-0.16010307,0.36899155,-0.11226064,0.08124117,0.46271572,-0.100834884,0.07880418,0.056491338,-0.0044023334,0.005395436,0.29216912,-0.09547067,-0.012563002,-0.033059776,0.044145238,-0.052696425,0.012409624,0.038188443,0.0075932737,-0.053731646,0.060780343,-0.067920245,0.040280916,0.010022791,-2.0,1.9347935,-2.0,2.0,2.0,-2.0,2.0,-0.38438722,-2.0,-2.0,2.0,-2.0,-2.0,1.3180032,-2.0,2.0,2.0,-2.0,2.0,-0.6831282,-2.0,-2.0,2.0,-2.0
