openverse-orca/OrcaGym/log/simulation_log_20250718_164149.csv
timestamp,sim_time,physics_step,control_step,imu_angle_roll,imu_angle_pitch,imu_angle_yaw,imu_angular_velocity_roll,imu_angular_velocity_pitch,imu_angular_velocity_yaw,imu_acc_x,imu_acc_y,imu_acc_z,fl_joint1_pos,fl_joint1_vel,fl_joint1_torque,fl_joint2_pos,fl_joint2_vel,fl_joint2_torque,fl_joint3_pos,fl_joint3_vel,fl_joint3_torque,fr_joint1_pos,fr_joint1_vel,fr_joint1_torque,fr_joint2_pos,fr_joint2_vel,fr_joint2_torque,fr_joint3_pos,fr_joint3_vel,fr_joint3_torque,hl_joint1_pos,hl_joint1_vel,hl_joint1_torque,hl_joint2_pos,hl_joint2_vel,hl_joint2_torque,hl_joint3_pos,hl_joint3_vel,hl_joint3_torque,hr_joint1_pos,hr_joint1_vel,hr_joint1_torque,hr_joint2_pos,hr_joint2_vel,hr_joint2_torque,hr_joint3_pos,hr_joint3_vel,hr_joint3_torque,fl_force_x,fl_force_y,fl_force_z,fr_force_x,fr_force_y,fr_force_z,hl_force_x,hl_force_y,hl_force_z,hr_force_x,hr_force_y,hr_force_z,fl_hip_action,fl_thigh_action,fl_calf_action,fr_hip_action,fr_thigh_action,fr_calf_action,hl_hip_action,hl_thigh_action,hl_calf_action,hr_hip_action,hr_thigh_action,hr_calf_action
2025-07-18 16:41:49.685,0.0,0,0,-0.043554224,-0.0064543816,-0.0074680075,-0.005588642,0.031135436,0.03063764,2.50701,0.1678612,0.0,0.0,0.0016794812,0.007418882,-0.002232293,0.0036332086,0.0057100644,0.0028031203,-0.009259575,0.00957219,0.007472451,0.008056731,-0.0010491692,0.006467447,-0.025536906,0.05834656,0.050149906,0.03242226,-0.03477233,-0.058703892,0.011058779,-0.062231105,-0.010741153,-0.022310311,0.04991123,-0.019487549,0.0,0.0,0.0,0.0,0.0,0.0,0.0,0.0,0.0,0.0,0.0,0.0,2.0,2.0,-2.0,-2.0,2.0,2.0,-2.0,2.0,2.0,-1.5473527,-2.0,2.0
2025-07-18 16:41:49.695,0.02,20,1,-0.28112257,-0.020411842,-0.12999886,-0.024715813,0.042250052,0.027793214,0.0,0.0,0.0,0.0,0.028746754,0.05712161,-0.043477155,-0.040243395,0.013610292,0.047016386,-0.047972787,0.043400783,0.047769077,-0.03691268,-0.04176741,0.045725383,0.20296788,0.20260757,-0.1506566,-0.16929118,0.017936429,0.039697144,-0.048543528,0.107646585,0.05993613,-0.04601499,-0.052163057,0.10932434,2.0,2.0,-2.0,-2.0,2.0,2.0,-2.0,2.0,2.0,-1.5473527,-2.0,2.0,-2.0,-2.0,-2.0,-2.0,-2.0,-2.0,2.0,-2.0,2.0,-2.0,2.0,2.0
2025-07-18 16:41:49.715,0.04,40,2,-0.10062989,-0.30647948,0.21385956,-0.002964206,-0.01300411,-0.023828119,0.0,0.0,0.0,0.0006320544,0.009964931,0.07672833,-0.09536938,-0.0988885,0.02077214,-0.011109492,-0.055127088,0.048912004,0.08320641,-0.09336349,-0.03486682,0.09620687,-0.21664777,-0.08091822,-0.067356095,-0.11653975,-0.008610106,-0.11914954,0.059782967,-0.04045122,0.1393808,-0.15756181,0.018665459,0.037485566,-2.0,-2.0,-2.0,-2.0,-2.0,-2.0,2.0,-2.0,2.0,-2.0,2.0,2.0,2.0,-2.0,-2.0,-2.0,-2.0,-2.0,2.0,2.0,2.0,-2.0,2.0,0.61444384
2025-07-18 16:41:49.735,0.06,60,3,0.1972086,-0.03825358,0.16201574,0.00590488,-0.015308446,0.022803225,0.0,0.0,0.0,-0.00080918364,0.04970335,-0.0037662927,-0.13356857,-0.1298624,-0.049099755,-0.064829744,0.009255875,0.0571627,0.12304706,-0.12640713,0.020949738,0.09969753,0.07432107,-0.323397,-0.023933567,-0.1580548,-0.2998007,-0.16194037,0.1596933,0.17638503,0.024892552,-0.106963895,0.26293528,0.039002333,2.0,-2.0,-2.0,-2.0,-2.0,-2.0,2.0,2.0,2.0,-2.0,2.0,0.61444384,2.0,-2.0,-1.5093988,-2.0,-2.0,-2.0,2.0,-2.0,2.0,0.20037712,2.0,-2.0
2025-07-18 16:41:49.755,0.08,80,4,0.2626717,-0.1582467,0.2303668,-0.000660852,0.005497083,-0.014144471,0.0,0.0,0.0,-0.004626402,0.08874622,-0.1576822,-0.14150083,-0.17920251,-0.18366222,-0.1056741,0.075733036,0.056662876,0.16371821,-0.11464365,0.1596888,0.017523533,0.048284713,-0.39076686,0.023628792,-0.13682702,-0.2557279,-0.039990272,0.09779975,-0.098146215,0.13319603,0.0435557,0.37565455,-0.20737253,2.0,-2.0,-1.5093988,-2.0,-2.0,-2.0,2.0,-2.0,2.0,0.20037712,2.0,-2.0,2.0,2.0,-2.0,-2.0,-2.0,2.0,2.0,2.0,2.0,1.5317038,2.0,-2.0
2025-07-18 16:41:49.775,0.1,100,5,0.37551072,0.030476885,0.14593579,-0.03898457,0.0014758625,-0.022493199,0.0,0.0,0.0,-0.009130571,0.13355942,-0.20141253,-0.18940023,-0.20199448,-0.30669996,-0.05415796,0.11451131,0.080552354,0.18550551,-0.05169567,0.28643888,-0.037284814,0.15974534,0.08514598,0.0017998534,-0.06453603,-0.30096745,0.2331117,0.11546084,0.17424393,0.049658936,0.19108295,0.3004645,-0.20741655,2.0,2.0,-2.0,-2.0,-2.0,2.0,2.0,2.0,2.0,1.5317038,2.0,-2.0,2.0,2.0,-2.0,1.4549605,2.0,2.0,2.0,-2.0,2.0,2.0,2.0,-2.0
2025-07-18 16:41:49.795,0.12000000000000001,120,6,0.520097,0.19739118,0.21072377,0.0074386145,-0.034497462,0.028420547,0.0,0.0,0.0,-0.0132774925,0.1652133,-0.13269849,-0.20637557,-0.15796973,-0.32626906,0.0094557805,0.15390764,0.09300498,0.19801724,0.017532129,0.38742682,-0.07518937,0.1466554,0.29924306,0.010064812,0.13074416,-0.020591205,0.14215697,0.09255608,-0.070303954,0.092751905,0.14422028,0.2325353,-0.15702204,2.0,2.0,-2.0,1.4549605,2.0,2.0,2.0,-2.0,2.0,2.0,2.0,-2.0,2.0,-2.0,-2.0,2.0,2.0,2.0,-2.0,-2.0,2.0,-1.1388179,2.0,-2.0
2025-07-18 16:41:49.815,0.14,140,7,0.17027184,0.083893135,0.18744227,0.013973764,-0.090407684,-0.035395663,0.0,0.0,0.0,-0.01692544,0.19040182,-0.086101696,-0.22579844,-0.13899095,-0.3211532,0.053260878,0.19548133,0.068367794,0.23256889,0.0060298624,0.45388973,-0.11515643,0.13301903,-0.030758744,-0.013556292,0.037797667,0.053668838,0.008412123,0.06757919,-0.09351624,0.054744553,-0.11786572,0.12091885,-0.06805139,2.0,-2.0,-2.0,2.0,2.0,2.0,-2.0,-2.0,2.0,-1.1388179,2.0,-2.0,2.0,-2.0,0.19330588,2.0,2.0,-2.0,-2.0,-2.0,2.0,-2.0,-2.0,-2.0
2025-07-18 16:41:49.835,0.16,160,8,-0.010466337,-0.107193656,0.039469052,0.011925266,-0.09117271,0.009993341,0.0,0.0,0.0,-0.0207428,0.21861368,-0.14929162,-0.1935724,-0.10874441,-0.28555104,-0.017007874,0.21666566,0.062258665,0.23839346,-0.04763461,0.44975206,-0.15294968,0.05513863,-0.22445142,0.1412979,0.024933668,0.06175,-0.22578003,0.046915922,-0.06074834,0.047798295,-0.18022944,-0.122978434,-0.017558645,2.0,-2.0,0.19330588,2.0,2.0,-2.0,-2.0,-2.0,2.0,-2.0,-2.0,-2.0,2.0,-2.0,2.0,2.0,2.0,-2.0,-2.0,-2.0,2.0,-2.0,-2.0,2.0
2025-07-18 16:41:49.856,0.18,180,9,-0.1623024,-0.087597415,-0.104543485,0.022647418,-0.08725514,0.019040845,0.0,0.0,0.0,-0.022003843,0.24238104,-0.23477821,-0.11815318,-0.09835673,-0.2624017,-0.08344796,0.20044883,0.052716617,0.2686374,-0.114495,0.34647846,-0.092451416,0.018879212,-0.24871509,0.1634348,-0.03397995,0.05814626,-0.14251824,-0.10926238,-0.082843974,0.08090905,-0.07076786,-0.29037458,0.2560952,2.0,-2.0,2.0,2.0,2.0,-2.0,-2.0,-2.0,2.0,-2.0,-2.0,2.0,2.0,-2.0,2.0,2.0,2.0,-2.0,-2.0,-2.0,-2.0,-2.0,-2.0,2.0
2025-07-18 16:41:49.876,0.19999999999999998,200,10,-0.24433255,-0.21259509,-0.010925446,-0.036842767,-0.081004016,-0.048173647,0.0,0.0,0.0,-0.021135759,0.26361206,-0.34235248,-0.05766169,-0.08106138,-0.24689537,-0.13488384,0.17673196,0.044953518,0.18545622,-0.14104433,0.1910132,-0.017696898,0.06459183,-0.2672868,0.22685364,0.00080872385,0.108268246,-0.0993901,-0.09450595,0.06693226,-0.25262406,-0.021133294,-0.41196445,0.1934452,2.0,-2.0,2.0,2.0,2.0,-2.0,-2.0,-2.0,-2.0,-2.0,-2.0,2.0,2.0,2.0,2.0,2.0,2.0,-2.0,-2.0,-2.0,-2.0,-2.0,0.8100732,2.0
2025-07-18 16:41:49.896,0.21999999999999997,220,11,-0.39972872,0.11339083,0.022263432,0.029087437,-0.015681315,-0.029652704,0.0,0.0,0.0,-0.020695487,0.2762097,-0.36391672,0.0111133475,-0.046469837,-0.21474461,-0.17016055,0.13312404,0.046591297,0.109935485,-0.18435192,0.09181477,0.04705344,0.051460594,0.009331973,0.17494497,0.073893294,0.1377188,-0.043370295,-0.12253648,-0.00066617946,-0.23021387,-0.027237209,-0.014743895,0.19634947,2.0,2.0,2.0,2.0,2.0,-2.0,-2.0,-2.0,-2.0,-2.0,0.8100732,2.0,2.0,1.6204087,2.0,-2.0,2.0,-2.0,2.0,2.0,-2.0,-2.0,-2.0,2.0
2025-07-18 16:41:49.916,0.23999999999999996,240,12,-0.33749092,0.30244982,-0.08804789,-0.038537357,-0.009973472,0.038619854,0.0,0.0,0.0,-0.020678466,0.27826405,-0.31761253,0.053545307,-0.07867786,-0.14535657,-0.2021561,0.16263768,0.10653869,0.02434928,-0.21231773,0.042633496,0.08826624,-0.017877646,0.22585753,0.060512103,-0.17990196,0.27175865,0.00506005,0.098077916,0.24437024,-0.20549785,-0.051582124,-0.14621316,0.090424664,2.0,1.6204087,2.0,-2.0,2.0,-2.0,2.0,2.0,-2.0,-2.0,-2.0,2.0,-2.0,2.0,2.0,-2.0,-2.0,-2.0,2.0,2.0,-2.0,2.0,2.0,2.0
2025-07-18 16:41:49.936,0.25999999999999995,260,13,-0.19580574,0.46134645,0.056173496,-0.00075066026,0.07815704,-0.035493407,0.0,0.0,0.0,-0.020589745,0.25439885,-0.21402904,0.10096135,-0.11294546,-0.11706549,-0.21580726,0.19597197,0.2268711,-0.037135024,-0.22341634,0.04496261,0.118346974,-0.018070363,0.23321015,0.053151876,-0.045524787,-0.022100942,-0.046092357,0.025335573,0.29315218,-0.06934645,-0.06365723,0.12326932,0.05701814,-2.0,2.0,2.0,-2.0,-2.0,-2.0,2.0,2.0,-2.0,2.0,2.0,2.0,-2.0,2.0,-2.0,-2.0,-2.0,-2.0,2.0,-2.0,2.0,2.0,-2.0,2.0
2025-07-18 16:41:49.956,0.27999999999999997,280,14,0.17341836,0.063895024,0.09190231,0.04873542,0.002265421,-0.007452129,0.0,0.0,0.0,-0.02078688,0.22797605,-0.10694523,0.03230747,-0.15757254,-0.2022682,-0.24221016,0.22428945,0.24393049,0.020311939,-0.19467284,0.055409007,0.15706633,-0.048305694,0.27242392,-0.2322444,-0.029204383,-0.23475435,-0.07907193,0.113209076,-0.049048036,0.16817953,0.100548275,0.04895508,0.1500202,-2.0,2.0,-2.0,-2.0,-2.0,-2.0,2.0,-2.0,2.0,2.0,-2.0,2.0,-2.0,2.0,-2.0,-2.0,-2.0,2.0,2.0,-2.0,2.0,2.0,-2.0,-2.0
2025-07-18 16:41:49.976,0.3,300,15,0.19933496,-0.06008969,0.07060989,0.0700748,0.023393095,-0.045105662,0.0,0.0,0.0,-0.021873336,0.194573,-0.023298852,-0.036917128,-0.19855565,-0.3182692,-0.15929815,0.23807193,0.15160614,0.0643883,-0.15163825,0.07060239,0.08221596,-0.010780396,0.17359632,-0.10333665,-0.124160826,-0.21704216,0.25275403,0.010009865,-0.26809648,0.15897691,0.10278133,-0.006048628,-0.23387955,-2.0,2.0,-2.0,-2.0,-2.0,2.0,2.0,-2.0,2.0,2.0,-2.0,-2.0,0.34055248,2.0,-2.0,-2.0,-2.0,2.0,2.0,2.0,2.0,2.0,2.0,-2.0
2025-07-18 16:41:49.996,0.32,320,16,0.2750659,0.22744137,0.061886996,-0.0047803996,-0.012002427,-0.043672062,0.0,0.0,0.0,-0.022844007,0.1709435,0.09130088,-0.09739885,-0.2104729,-0.40418208,-0.07869005,0.25980264,0.1085127,0.10478055,-0.09276789,0.10323139,0.01787509,-0.094944306,0.3366131,-0.10637235,-0.059945438,-0.24212205,0.16589266,0.058737423,-0.019177811,0.09103664,0.16727433,0.19348575,-0.18628505,0.34055248,2.0,-2.0,-2.0,-2.0,2.0,2.0,2.0,2.0,2.0,2.0,-2.0,2.0,-2.0,-2.0,-2.0,2.0,2.0,2.0,2.0,2.0,2.0,2.0,-2.0
2025-07-18 16:41:50.016,0.34,340,17,0.19889687,0.17082217,0.09455885,0.03582359,0.048341338,-0.0054608244,0.0,0.0,0.0,-0.02365187,0.19793126,0.12695439,-0.13438004,-0.23504764,-0.4138016,-0.003256168,0.2809383,0.15048848,0.13935156,-0.022433158,0.22392142,-0.045778282,0.0052677067,-0.07598329,-0.15353398,-0.014615518,0.044810917,0.086403996,0.06483457,0.20399028,0.08351039,0.1845083,0.34988663,-0.20569356,2.0,-2.0,-2.0,-2.0,2.0,2.0,2.0,2.0,2.0,2.0,2.0,-2.0,2.0,-2.0,-2.0,2.0,2.0,2.0,-2.0,-2.0,2.0,-0.4822918,2.0,-2.0
2025-07-18 16:41:50.036,0.36000000000000004,360,18,-0.28716335,-0.25335637,0.084499635,0.060472965,0.03356168,-0.018518975,0.0,0.0,0.0,-0.02435474,0.21010476,0.062566765,-0.15940574,-0.21259904,-0.34077978,0.05174596,0.28748405,0.16083354,0.1685953,-0.012491666,0.31995308,-0.08550698,0.099702306,-0.2529985,-0.13633297,0.16415513,0.28668916,0.13179298,-0.106972784,-0.0118753975,0.09751148,-0.10243782,0.25906873,-0.12570728,2.0,-2.0,-2.0,2.0,2.0,2.0,-2.0,-2.0,2.0,-0.4822918,2.0,-2.0,2.0,-2.0,-2.0,2.0,2.0,1.2917633,-2.0,-2.0,2.0,-2.0,-0.37209377,-2.0
2025-07-18 16:41:50.058,0.38000000000000006,380,19,-0.0836073,-0.31788173,0.046031743,0.010736329,0.03406599,0.011060274,0.0,0.0,0.0,-0.025300547,0.23191038,-0.068691365,-0.17835417,-0.1613472,-0.24503759,0.05844941,0.22806537,0.12601134,0.18660676,-0.070146374,0.34706655,-0.12143981,0.09963258,-0.4373755,-0.009700852,0.08416629,0.17560834,0.03490834,-0.14419818,-0.06038724,0.027605908,-0.16583385,-0.063465685,-0.10374359,2.0,-2.0,-2.0,2.0,2.0,1.2917633,-2.0,-2.0,2.0,-2.0,-0.37209377,-2.0,2.0,-2.0,2.0,2.0,2.0,-2.0,-2.0,-2.0,2.0,-2.0,-2.0,2.0
2025-07-18 16:41:50.076,0.4000000000000001,400,20,0.11293024,-0.2641185,0.016392415,-0.009942449,-0.04930569,0.028170945,0.0,0.0,0.0,-0.025954342,0.25068918,-0.21513565,-0.10489065,-0.13553025,-0.19888544,-0.011368008,0.19257157,0.0950209,0.22089516,-0.12273773,0.24359572,-0.07478878,0.11489775,-0.26501134,0.23249605,0.08594984,0.16718096,-0.12725839,-0.11126557,-0.022129063,0.023279946,-0.042140767,-0.26048666,0.11655495,2.0,-2.0,2.0,2.0,2.0,-2.0,-2.0,-2.0,2.0,-2.0,-2.0,2.0,2.0,-2.0,2.0,2.0,2.0,-2.0,-2.0,-2.0,-2.0,-2.0,-2.0,2.0
2025-07-18 16:41:50.096,0.4200000000000001,420,21,0.19019893,-0.20115404,-0.04704006,-0.05433517,0.018303579,0.02573531,0.0,0.0,0.0,-0.025755906,0.27273276,-0.3297795,-0.0420579,-0.110646054,-0.1789504,-0.0734104,0.14995538,0.095598154,0.1445709,-0.15943041,0.09188787,0.0010693561,-0.008752686,-0.23162018,0.17734882,0.07079944,0.046426397,-0.09506044,-0.14878567,-0.07986284,-0.14224873,-0.03014498,-0.4207774,0.10154008,2.0,-2.0,2.0,2.0,2.0,-2.0,-2.0,-2.0,-2.0,-2.0,-2.0,2.0,2.0,2.0,2.0,0.64852345,2.0,-2.0,-2.0,2.0,-2.0,-2.0,2.0,2.0
2025-07-18 16:41:50.117,0.4400000000000001,440,22,-0.010095695,0.20687452,-0.15999885,-0.043101262,0.012546408,-0.044155933,0.0,0.0,0.0,-0.025401386,0.280826,-0.343963,0.024809923,-0.09601787,-0.12336037,-0.1335842,0.110423215,0.15804246,0.058483783,-0.18569267,0.01523445,0.05081631,0.090289205,0.075976975,0.089529596,0.119648725,0.086226776,-0.13289316,-0.17412697,0.2098984,-0.23380955,-0.06083696,-0.049011044,0.1476694,2.0,2.0,2.0,0.64852345,2.0,-2.0,-2.0,2.0,-2.0,-2.0,2.0,2.0,-2.0,2.0,2.0,-2.0,2.0,-2.0,2.0,2.0,-2.0,2.0,2.0,2.0
2025-07-18 16:41:50.136,0.46000000000000013,460,23,-0.1116457,0.46479297,0.18291815,0.0062629776,0.046530243,-0.0013821512,0.0,0.0,0.0,-0.02376249,0.27356067,-0.29505232,0.05520617,-0.10866527,-0.029905718,-0.17091615,0.13518204,0.26644373,-0.00757443,-0.20108561,0.052793667,0.09434205,-0.05782519,0.121929295,0.08964332,-0.15839376,0.37936017,-0.02447964,0.077329576,0.32917836,-0.11242559,-0.07439972,0.08992703,0.089519925,-2.0,2.0,2.0,-2.0,2.0,-2.0,2.0,2.0,-2.0,2.0,2.0,2.0,-2.0,2.0,2.0,-2.0,-2.0,-2.0,2.0,-2.0,-2.0,2.0,-2.0,2.0
2025-07-18 16:41:50.157,0.48000000000000015,480,24,-0.03279482,0.16556653,0.022382857,0.076441266,-0.008314802,-0.033139654,0.0,0.0,0.0,-0.024153508,0.279348,-0.26293215,0.09766347,-0.14683564,0.0062301727,-0.18834656,0.17345731,0.3107195,-0.05718715,-0.18195824,0.09459466,0.13460192,-0.036675762,0.050347418,0.009904625,-0.031109173,-0.03419937,-0.03549217,0.09395638,-0.1106115,-0.08458771,-0.00065881916,0.0049933777,0.13629945,-2.0,2.0,2.0,-2.0,-2.0,-2.0,2.0,-2.0,-2.0,2.0,-2.0,2.0,-2.0,2.0,-2.0,-2.0,-2.0,-2.0,2.0,-2.0,2.0,2.0,-2.0,2.0
2025-07-18 16:41:50.177,0.5000000000000001,500,25,0.23027243,-0.20726784,0.068532564,0.00073348195,-0.018089406,0.026540753,0.0,0.0,0.0,-0.025895748,0.24445666,-0.17340648,0.02898491,-0.19545369,-0.0735596,-0.19912335,0.19833979,0.2118914,0.007766359,-0.15665434,0.096334115,0.15965316,-0.005588583,0.18555503,-0.19287196,-0.10149988,-0.2679861,-0.07985685,0.049531173,-0.29418984,0.1406486,0.14444657,0.033353273,0.116751336,-2.0,2.0,-2.0,-2.0,-2.0,-2.0,2.0,-2.0,2.0,2.0,-2.0,2.0,-2.0,2.0,-2.0,-2.0,-2.0,2.0,2.0,2.0,2.0,2.0,-2.0,-2.0
2025-07-18 16:41:50.197,0.5200000000000001,520,26,0.1256235,-0.06564434,-0.041127164,0.08487015,0.03750126,0.03194456,0.0,0.0,0.0,-0.027240254,0.2395714,-0.10216937,-0.032312393,-0.21907637,-0.2016313,-0.13180463,0.22381164,0.17773098,0.046177037,-0.12353851,0.091538474,0.10896776,-0.05337633,0.28543922,-0.086274005,-0.012319284,-0.31221294,0.19524202,0.040125262,0.10924409,0.1365668,0.06747006,0.026772767,-0.112070784,-2.0,2.0,-2.0,-2.0,-2.0,2.0,2.0,2.0,2.0,2.0,-2.0,-2.0,-2.0,2.0,-2.0,-2.0,-2.0,2.0,2.0,-2.0,2.0,2.0,2.0,-2.0
2025-07-18 16:41:50.220,0.5400000000000001,540,27,-0.21283562,-0.15226422,0.25794902,0.08512674,-0.01929571,-0.015992982,0.0,0.0,0.0,-0.028021231,0.19960651,-0.005157198,-0.09432573,-0.2309841,-0.31833726,-0.051340126,0.24060713,0.14693035,0.09121247,-0.07947239,0.14969604,0.032850794,-0.08743941,0.19904508,-0.09111768,-0.051291917,-0.2622019,0.20630309,0.11617705,-0.18491536,0.12525037,0.12212697,0.27479345,-0.19942117,-2.0,2.0,-2.0,-2.0,-2.0,2.0,2.0,-2.0,2.0,2.0,2.0,-2.0,2.0,2.0,-2.0,-2.0,-1.9126185,2.0,2.0,2.0,2.0,2.0,2.0,-2.0
2025-07-18 16:41:50.237,0.5600000000000002,560,28,0.006997552,0.0953246,0.13544802,0.011477596,-0.026844017,-0.0056268196,0.0,0.0,0.0,-0.030575642,0.21459183,0.09973291,-0.13689731,-0.24888293,-0.39183104,0.013619625,0.26426402,0.15760772,0.14292887,0.0028582695,0.26086274,-0.038061988,0.10730141,0.28337902,-0.12126868,-0.09391205,-0.15693754,0.07248849,0.032104246,0.21072245,0.056985594,0.22130233,0.25557977,-0.066319965,2.0,2.0,-2.0,-2.0,-1.9126185,2.0,2.0,2.0,2.0,2.0,2.0,-2.0,2.0,-2.0,-2.0,2.0,2.0,2.0,-2.0,-2.0,2.0,2.0,2.0,-2.0
2025-07-18 16:41:50.257,0.5800000000000002,580,29,-0.4389608,-0.25714684,0.13595773,0.05875526,0.0024285193,-0.0047923527,0.0,0.0,0.0,-0.033904947,0.23247457,0.13189344,-0.16525652,-0.22519845,-0.40667337,0.062602945,0.24623439,0.16283478,0.16870897,0.060256332,0.36539757,-0.07863599,-0.012657462,0.004380019,-0.10086644,0.23724404,0.11391503,0.073190816,-0.11742227,-0.0836646,0.13096505,0.13894139,0.271844,-0.07081883,2.0,-2.0,-2.0,2.0,2.0,2.0,-2.0,-2.0,2.0,2.0,2.0,-2.0,2.0,-2.0,-2.0,2.0,2.0,2.0,-2.0,-2.0,2.0,-2.0,2.0,-2.0
2025-07-18 16:41:50.277,0.6000000000000002,600,30,-0.36902338,-0.10675315,0.098792784,-0.05738928,0.04443652,0.0012079297,0.0,0.0,0.0,-0.0369042,0.26385793,0.060040176,-0.19153586,-0.19857503,-0.37057152,0.09000987,0.19335322,0.14989796,0.20229863,0.019914316,0.4429972,-0.12045272,-0.0074574384,-0.334294,-0.061898902,0.03053462,0.013072226,0.13401335,-0.051791377,0.008076745,0.09613088,-0.22449702,0.12704346,-0.14138803,2.0,-2.0,-2.0,2.0,2.0,2.0,-2.0,-2.0,2.0,-2.0,2.0,-2.0,2.0,-2.0,0.042781018,2.0,2.0,-2.0,-2.0,-2.0,2.0,-2.0,-2.0,-2.0
2025-07-18 16:41:50.297,0.6200000000000002,620,31,-0.025981352,-0.21944441,0.04929624,-0.037697796,0.020679997,-0.024279615,0.0,0.0,0.0,-0.039615624,0.27370825,-0.077688135,-0.16318472,-0.21761572,-0.32743472,0.022730997,0.17029147,0.14142874,0.2141806,-0.038094293,0.45482668,-0.15854003,0.027377281,-0.44447592,0.12172302,0.034336675,0.106966406,-0.21904334,-0.10563308,0.03187416,0.0057607084,-0.11319644,-0.12083499,-0.12926793,2.0,-2.0,0.042781018,2.0,2.0,-2.0,-2.0,-2.0,2.0,-2.0,-2.0,-2.0,2.0,-2.0,2.0,2.0,2.0,-2.0,-2.0,-2.0,2.0,-2.0,-2.0,2.0
2025-07-18 16:41:50.318,0.6400000000000002,640,32,0.118543446,-0.16771014,0.061097223,-0.045084726,-0.0044890945,0.0074585993,0.0,0.0,0.0,-0.04116405,0.29258618,-0.2093635,-0.0886023,-0.20299338,-0.27686068,-0.056891203,0.12105909,0.13880171,0.24765344,-0.08680073,0.32850817,-0.08210805,0.0067481822,-0.31166697,0.22498678,0.0046450435,0.07336659,-0.17088439,-0.004998464,0.023895247,0.072250746,-0.17534184,-0.35136703,0.21171209,2.0,-2.0,2.0,2.0,2.0,-2.0,-2.0,-2.0,2.0,-2.0,-2.0,2.0,2.0,-2.0,2.0,2.0,2.0,-2.0,-2.0,-2.0,-2.0,-2.0,-2.0,2.0
2025-07-18 16:41:50.337,0.6600000000000003,660,33,0.27786934,-0.19726454,-0.029216832,-0.025036326,0.0021051974,-0.04924244,0.0,0.0,0.0,-0.041617747,0.28950062,-0.32178837,-0.016404921,-0.20339887,-0.2323361,-0.11217131,0.101500474,0.13306694,0.16658533,-0.12345537,0.17861263,-0.02288352,-0.036871966,-0.27193365,0.08497803,0.09325576,0.064169586,-0.06690589,-0.1273297,0.0327844,-0.25107208,-0.15004168,-0.43729877,0.22264215,2.0,-2.0,2.0,2.0,2.0,-2.0,-2.0,-2.0,-2.0,-2.0,-2.0,2.0,2.0,2.0,2.0,2.0,2.0,-2.0,-2.0,-2.0,-2.0,-2.0,2.0,2.0
2025-07-18 16:41:50.357,0.6800000000000003,680,34,-0.038645353,-0.0015517056,-0.04735298,-0.02743891,-0.06845912,0.019889249,0.0,0.0,0.0,-0.041636355,0.298372,-0.3541892,0.029562762,-0.17159294,-0.20075814,-0.16492516,0.076308906,0.16167225,0.08559267,-0.16524532,0.08602569,0.045912884,-0.013977631,-0.036883004,0.13112399,0.031569667,0.15814118,-0.14073314,-0.1494276,0.033691965,-0.19300383,-0.012242024,-0.059103113,0.13276985,2.0,2.0,2.0,2.0,2.0,-2.0,-2.0,-2.0,-2.0,-2.0,2.0,2.0,2.0,2.0,2.0,-2.0,2.0,-2.0,2.0,2.0,-2.0,-2.0,-0.8653185,2.0
2025-07-18 16:41:50.377,0.7000000000000003,700,35,-0.016020488,0.18672809,-0.22692673,-0.04445705,-0.083305046,0.048611056,0.0,0.0,0.0,-0.04102815,0.32814804,-0.35032365,0.076637566,-0.20257877,-0.11033324,-0.19236332,0.08269693,0.23051853,0.021953413,-0.20285389,0.092014395,0.08263941,-0.035147976,0.035892308,0.10966158,-0.107683145,0.1728005,-0.09059056,0.047723353,0.22382894,-0.12122816,-0.12261111,-0.02769772,0.060786773,2.0,2.0,2.0,-2.0,2.0,-2.0,2.0,2.0,-2.0,-2.0,-0.8653185,2.0,-2.0,2.0,2.0,-2.0,-2.0,-2.0,2.0,2.0,-2.0,2.0,2.0,2.0
2025-07-18 16:41:50.398,0.7200000000000003,720,36,-0.06756481,0.38063467,-0.10132785,0.018960215,-0.010734815,0.04232485,0.0,0.0,0.0,-0.0386537,0.32429534,-0.2880572,0.10982609,-0.22319216,-0.07655849,-0.21721044,0.14013542,0.33801013,-0.03531491,-0.19882677,0.12811436,0.12631069,-0.03886463,0.14090744,0.026164675,-0.04803583,-0.043335654,-0.01071568,0.16320668,0.19378194,-0.20368525,0.054411337,0.24573092,0.035113625,-2.0,2.0,2.0,-2.0,-2.0,-2.0,2.0,2.0,-2.0,2.0,2.0,2.0,-2.0,2.0,-2.0,-2.0,-2.0,-2.0,2.0,-2.0,1.182143,2.0,-2.0,2.0
2025-07-18 16:41:50.423,0.7400000000000003,740,37,0.08797099,0.06225938,-0.054224957,-0.00090891746,-0.009922624,0.035315346,0.0,0.0,0.0,-0.035834894,0.297758,-0.18041743,0.043141123,-0.2393963,-0.15217908,-0.2169625,0.16375859,0.3362746,-0.003701502,-0.18270417,0.14327861,0.15449072,-0.09892502,0.21674572,-0.12719314,-0.11084482,-0.3166906,-0.072355464,0.04350322,-0.16294703,0.16720732,0.06483554,-0.008093007,0.041248154,-2.0,2.0,-2.0,-2.0,-2.0,-2.0,2.0,-2.0,1.182143,2.0,-2.0,2.0,-2.0,2.0,-2.0,-2.0,-2.0,2.0,2.0,-2.0,2.0,2.0,-2.0,-2.0
2025-07-18 16:41:50.438,0.7600000000000003,760,38,0.15290642,-0.17820519,0.05348714,-0.00029254914,0.031446382,0.020139933,0.0,0.0,0.0,-0.035058998,0.28344804,-0.07893456,-0.033836775,-0.25975767,-0.2698071,-0.14564903,0.2051472,0.24081978,0.045569465,-0.1483846,0.15936899,0.106802315,-0.07819355,0.2456352,-0.0971185,-0.11102384,-0.32273242,0.20249204,0.0821018,-0.37624913,0.07928342,0.0637712,0.033618342,-0.17264584,-2.0,2.0,-2.0,-2.0,-2.0,2.0,2.0,-2.0,2.0,2.0,-2.0,-2.0,-0.25598213,2.0,-2.0,-2.0,-1.2743403,2.0,2.0,2.0,2.0,2.0,2.0,-2.0
2025-07-18 16:41:50.458,0.7800000000000004,780,39,-0.14384633,0.16333726,0.10913107,0.012105025,-0.05213339,0.04323298,0.0,0.0,0.0,-0.03501002,0.24648374,0.02745431,-0.08684085,-0.27311316,-0.32946688,-0.07709814,0.22812551,0.18559794,0.091840394,-0.09709823,0.23510873,0.02200329,-0.090880394,0.302987,-0.14507796,0.03231559,-0.023178583,0.194885,0.10825688,0.04172892,0.15728037,0.11959816,0.3194202,-0.12755787,-0.25598213,2.0,-2.0,-2.0,-1.2743403,2.0,2.0,2.0,2.0,2.0,2.0,-2.0,2.0,-2.0,-2.0,1.9112233,-2.0,2.0,-0.026397847,-2.0,2.0,2.0,2.0,-2.0
2025-07-18 16:41:50.478,0.8000000000000004,800,40,-0.04274801,-0.17332032,0.11017221,-0.014213063,-0.0032479065,0.02261034,0.0,0.0,0.0,-0.03643247,0.25443918,0.08251564,-0.12423901,-0.2248075,-0.41357833,0.0024401844,0.19599214,0.15110485,0.1265428,-0.018767916,0.33783677,-0.034814328,0.09205718,0.110462956,-0.01472316,0.21612649,-0.16990796,0.06673325,-0.013306481,-0.13179027,0.054031458,0.10995508,0.25220808,-0.09691712,2.0,-2.0,-2.0,1.9112233,-2.0,2.0,-0.026397847,-2.0,2.0,2.0,2.0,-2.0,2.0,-2.0,-2.0,0.32668558,2.0,2.0,-2.0,-2.0,2.0,-1.0216056,2.0,-2.0
2025-07-18 16:41:50.498,0.8200000000000004,820,41,-0.12413016,-0.1691197,0.07453259,-0.014332872,-0.0074375053,0.039598152,0.0,0.0,0.0,-0.03874497,0.2810451,0.036175594,-0.14358589,-0.20467949,-0.42678803,0.038284425,0.16016331,0.13059571,0.17974098,-0.020845452,0.43728095,-0.0826099,-0.03492937,-0.16528209,-0.019799503,-0.0023711158,-0.023231829,0.038354866,-0.077972606,-0.004249846,0.1548717,-0.048653636,0.23533525,-0.16846474,2.0,-2.0,-2.0,0.32668558,2.0,2.0,-2.0,-2.0,2.0,-1.0216056,2.0,-2.0,2.0,-2.0,-2.0,2.0,2.0,2.0,-2.0,-2.0,2.0,-2.0,2.0,-2.0
2025-07-18 16:41:50.518,0.8400000000000004,840,42,-0.0141191855,0.026591027,0.1384222,-0.00061044906,0.015016796,0.032225445,0.0,0.0,0.0,-0.040625006,0.2893805,-0.08482167,-0.17669061,-0.21184126,-0.43145296,0.071105994,0.14184181,0.10323373,0.19656694,-0.0792552,0.5065723,-0.116392285,-0.0073482925,-0.3143001,-0.00454656,-0.07524589,0.069034226,0.061546884,0.029560337,-0.04446641,0.019325547,-0.15196039,0.13827363,-0.1212538,2.0,-2.0,-2.0,2.0,2.0,2.0,-2.0,-2.0,2.0,-2.0,2.0,-2.0,2.0,-2.0,2.0,2.0,2.0,-2.0,-2.0,-2.0,2.0,-2.0,-2.0,2.0
2025-07-18 16:41:50.538,0.8600000000000004,860,43,0.104786,-0.13469106,0.04083186,-0.015763413,-0.019358966,0.009033437,0.0,0.0,0.0,-0.042718377,0.2956084,-0.21160883,-0.10292037,-0.19128507,-0.38977712,0.0051878225,0.1202599,0.1055182,0.22716326,-0.1271746,0.476691,-0.0629347,0.068,-0.3522133,0.2609813,0.072829925,0.13654368,-0.16316637,-0.13467844,-0.02547277,0.08572893,-0.059245456,-0.1866621,0.21635896,2.0,-2.0,2.0,2.0,2.0,-2.0,-2.0,-2.0,2.0,-2.0,-2.0,2.0,2.0,-2.0,2.0,2.0,2.0,-2.0,-2.0,-2.0,2.0,-2.0,-2.0,2.0
2025-07-18 16:41:50.558,0.8800000000000004,880,44,0.21798974,-0.23026904,-0.070956424,0.00042305546,-0.04734484,-0.035075348,0.0,0.0,0.0,-0.043697953,0.31469557,-0.3278561,-0.04581125,-0.1840133,-0.34945214,-0.065294534,0.09019467,0.086392455,0.24850658,-0.1585051,0.37490624,0.0042563076,-0.0015631339,-0.20992102,0.100344956,0.012725956,0.048980635,-0.22182024,-0.11474441,-0.01913869,0.0691541,-0.15570407,-0.4206599,0.18312815,2.0,-2.0,2.0,2.0,2.0,-2.0,-2.0,-2.0,2.0,-2.0,-2.0,2.0,2.0,-2.0,2.0,2.0,2.0,-2.0,-2.0,-2.0,-2.0,-2.0,-2.0,2.0
2025-07-18 16:41:50.581,0.9000000000000005,900,45,0.012138118,-0.33737594,0.04272313,-0.05665124,-0.081837885,0.03900913,0.0,0.0,0.0,-0.04310926,0.32432532,-0.4111855,0.014240591,-0.15892959,-0.30816314,-0.115943186,0.044951823,0.09189377,0.17659956,-0.19421147,0.2189219,0.06334228,-0.044138964,-0.18230815,0.15710963,0.025831537,0.12914558,-0.084663324,-0.1403227,-0.01734699,-0.2026382,-0.025541931,-0.38945535,0.13796937,2.0,-2.0,2.0,2.0,2.0,-2.0,-2.0,-2.0,-2.0,-2.0,-2.0,2.0,2.0,2.0,2.0,2.0,2.0,-2.0,-2.0,2.0,-2.0,-2.0,1.4869983,2.0
2025-07-18 16:41:50.599,0.9200000000000005,920,46,0.023034703,0.37220168,-0.14342844,0.025388572,-0.043155223,0.039752144,0.0,0.0,0.0,-0.042729422,0.32239252,-0.42891178,0.06378308,-0.123312674,-0.26160398,-0.1629963,-0.008287276,0.14471,0.078974605,-0.20889221,0.13480598,0.108794555,-0.012584485,0.12971812,0.049543425,0.111375034,0.1061469,-0.028909488,-0.1462127,0.3455842,-0.25353223,-0.10240733,-0.0066910572,0.076628946,2.0,2.0,2.0,2.0,2.0,-2.0,-2.0,2.0,-2.0,-2.0,1.4869983,2.0,-2.0,2.0,2.0,-2.0,2.0,-2.0,2.0,2.0,-2.0,2.0,-2.0,2.0
2025-07-18 16:41:50.619,0.9400000000000005,940,47,-0.3410341,0.40401042,0.08062981,-0.0404722,-0.08157816,-0.009161123,0.0,0.0,0.0,-0.04183957,0.30329448,-0.37624142,0.09544301,-0.14410421,-0.17371927,-0.18185967,0.013628174,0.27507016,0.02371244,-0.19025871,0.092981696,0.13782537,-0.073204584,0.14304043,0.05002163,-0.1335024,0.34276325,0.00043242867,0.07950585,0.24814016,-0.13803817,0.12985851,-0.23250216,0.09958068,-2.0,2.0,2.0,-2.0,2.0,-2.0,2.0,2.0,-2.0,2.0,-2.0,2.0,-2.0,2.0,2.0,-2.0,-2.0,-2.0,2.0,-2.0,-2.0,2.0,-2.0,2.0
2025-07-18 16:41:50.639,0.9600000000000005,960,48,-0.16705036,0.16958778,-0.018246125,-0.026223836,-0.013809015,-0.0119618485,0.0,0.0,0.0,-0.042002708,0.26382878,-0.30930912,0.12598929,-0.17811322,-0.12112883,-0.20011707,0.07300888,0.2966157,-0.045226134,-0.124909446,0.028428711,0.16841185,-0.051835705,0.20532373,0.038049195,-0.0055466476,-0.12246723,-0.114069864,0.11421642,-0.15391296,-0.13939229,0.09145414,-0.15331052,0.08951034,-2.0,2.0,2.0,-2.0,-2.0,-2.0,2.0,-2.0,-2.0,2.0,-2.0,2.0,-2.0,2.0,-2.0,-2.0,-2.0,2.0,2.0,-2.0,2.0,2.0,-2.0,2.0
2025-07-18 16:41:50.659,0.9800000000000005,980,49,0.15204975,-0.084629804,0.04403934,-0.054106306,0.01180573,-0.0402045,0.0,0.0,0.0,-0.042701434,0.24037226,-0.21222831,0.060556766,-0.19843519,-0.22134726,-0.12274407,0.11484471,0.19628882,0.015915103,-0.11711114,-0.0035226142,0.20068257,-0.07890349,0.28054085,-0.24588709,-0.08538667,-0.24827462,0.26664126,0.06830739,-0.32576647,0.11086698,0.09466437,-0.079582244,0.095036395,-2.0,2.0,-2.0,-2.0,-2.0,2.0,2.0,-2.0,2.0,2.0,-2.0,2.0,-2.0,2.0,-2.0,-2.0,-2.0,2.0,2.0,2.0,2.0,2.0,2.0,-2.0
2025-07-18 16:41:50.679,1.0000000000000004,1000,50,-0.042048637,0.14683096,0.12575945,-0.019319039,0.008327701,0.04316657,0.0,0.0,0.0,-0.04350308,0.20750073,-0.11704319,-0.013585635,-0.23591551,-0.32240722,-0.05368735,0.14954576,0.15134808,0.061644215,-0.07163329,0.05789155,0.1174276,-0.1374727,0.19085734,-0.14976548,-0.034566764,-0.24910055,0.16906263,0.07777549,0.086069636,0.060980543,0.055554837,0.31137297,-0.14898944,-2.0,2.0,-2.0,-2.0,-2.0,2.0,2.0,2.0,2.0,2.0,2.0,-2.0,2.0,2.0,-2.0,-2.0,-0.16824563,2.0,2.0,-2.0,2.0,2.0,2.0,-2.0
2025-07-18 16:41:50.699,1.0200000000000005,1020,51,0.11747049,0.2355441,0.26520923,0.014854636,-0.03873502,-0.025796277,0.0,0.0,0.0,-0.04487988,0.21389313,-0.0029205047,-0.06865118,-0.23765191,-0.35859257,0.008118218,0.18370955,0.11273097,0.11003485,-0.008216459,0.18564351,0.053503755,0.09111791,0.298142,-0.07128644,-0.048110392,0.14361408,0.18162666,0.12965484,-0.15143241,0.064561516,0.20948562,0.29917398,-0.14814843,2.0,2.0,-2.0,-2.0,-0.16824563,2.0,2.0,-2.0,2.0,2.0,2.0,-2.0,2.0,-2.0,-2.0,2.0,-2.0,2.0,-2.0,2.0,2.0,-2.0,2.0,-2.0
2025-07-18 16:41:50.719,1.0400000000000005,1040,52,-0.35553262,-0.0040226784,-0.14234328,-0.028630612,0.0032427139,-0.048167296,0.0,0.0,0.0,-0.048321433,0.23504291,0.03910965,-0.09949239,-0.22498605,-0.38650107,0.061422434,0.16963947,0.110301696,0.13245462,-0.022448706,0.31405652,-0.021701254,0.0674341,0.014346109,-0.062066197,0.20075387,-0.18880102,0.06101979,-0.16975172,0.075914666,0.13054907,-0.09093109,0.2784168,-0.20567638,2.0,-2.0,-2.0,2.0,-2.0,2.0,-2.0,2.0,2.0,-2.0,2.0,-2.0,2.0,-2.0,-2.0,-1.1125689,2.0,2.0,1.8101414,-2.0,2.0,-2.0,2.0,-2.0
2025-07-18 16:41:50.739,1.0600000000000005,1060,53,-0.08935699,0.046334803,0.21429728,0.001272503,-0.016481478,-0.01697436,0.0,0.0,0.0,-0.049066078,0.25306326,-0.018636614,-0.1426125,-0.21099494,-0.3881759,0.093397275,0.18864067,0.11193903,0.1728048,-0.08408627,0.40044135,-0.068095155,0.117091715,-0.32955334,-0.0856563,-0.00175118,0.09068971,0.06935643,0.123156086,0.0077726967,0.1301974,-0.11516791,0.18168654,-0.18261434,2.0,-2.0,-2.0,-1.1125689,2.0,2.0,1.8101414,-2.0,2.0,-2.0,2.0,-2.0,2.0,-2.0,2.0,2.0,2.0,0.7475367,-2.0,-2.0,2.0,-2.0,-2.0,-2.0
2025-07-18 16:41:50.759,1.0800000000000005,1080,54,0.0766666,-0.10228464,0.15522882,-0.0038665684,0.06540327,-0.044346623,0.0,0.0,0.0,-0.05119743,0.27464435,-0.15920575,-0.07649804,-0.22257537,-0.36630094,0.08822257,0.19815832,0.102248006,0.18926339,-0.11352844,0.39781538,-0.107266076,0.092434265,-0.36679548,0.2384609,-0.041474875,0.15471876,-0.07411528,0.020237885,-0.0910522,0.04993841,-0.09799705,-0.14370276,-0.07605959,2.0,-2.0,2.0,2.0,2.0,0.7475367,-2.0,-2.0,2.0,-2.0,-2.0,-2.0,2.0,-2.0,2.0,2.0,2.0,-2.0,-2.0,-2.0,2.0,-2.0,-2.0,2.0
2025-07-18 16:41:50.779,1.1000000000000005,1100,55,0.19089179,-0.25702256,0.11908816,-0.014197629,0.0051618875,-0.018274423,0.0,0.0,0.0,-0.054762073,0.27969232,-0.26529613,-0.018717006,-0.21493614,-0.29996124,0.020857207,0.18209161,0.0725317,0.22192286,-0.15618739,0.29552823,-0.05741086,0.040045947,-0.32212785,0.14587092,0.088324875,0.105434075,-0.2353167,0.00816316,-0.062589884,0.09732856,-0.13276945,-0.3516132,0.108544715,2.0,-2.0,2.0,2.0,2.0,-2.0,-2.0,-2.0,2.0,-2.0,-2.0,2.0,2.0,-2.0,2.0,2.0,2.0,-2.0,-2.0,-0.36662948,-2.0,-2.0,-2.0,2.0
2025-07-18 16:41:50.800,1.1200000000000006,1120,56,0.23420332,-0.2556457,0.050212827,-0.008925461,-0.021264985,-0.011118173,0.0,0.0,0.0,-0.057182763,0.29405582,-0.36736804,0.04230787,-0.20150287,-0.25653595,-0.04501944,0.1623921,0.07665184,0.15063243,-0.18786919,0.133402,0.012375241,-0.039593056,-0.23262057,0.106235065,0.008731201,0.027344733,-0.2121654,-0.10345775,0.050490085,-0.1900086,-0.10397855,-0.47782853,0.15527116,2.0,-2.0,2.0,2.0,2.0,-2.0,-2.0,-0.36662948,-2.0,-2.0,-2.0,2.0,2.0,2.0,2.0,2.0,2.0,-2.0,-2.0,2.0,-2.0,-2.0,2.0,2.0
2025-07-18 16:41:50.819,1.1400000000000006,1140,57,0.014648738,0.28393605,-0.06263394,0.028518336,0.013939359,-0.045441974,0.0,0.0,0.0,-0.05895197,0.31151336,-0.39529014,0.09119322,-0.17758165,-0.21343508,-0.098630205,0.13529706,0.148369,0.071253225,-0.21532772,0.06898448,0.0697128,-0.029010218,0.049581397,0.050114058,0.028948091,0.22457835,-0.06611303,-0.16461363,0.35703006,-0.14094517,-0.09264619,-0.013398688,0.12709019,2.0,2.0,2.0,2.0,2.0,-2.0,-2.0,2.0,-2.0,-2.0,2.0,2.0,-2.0,2.0,2.0,-2.0,2.0,-2.0,2.0,2.0,-2.0,2.0,-2.0,2.0
2025-07-18 16:41:50.840,1.1600000000000006,1160,58,0.03246263,0.28157136,-0.023922777,-0.035721432,-0.0002689574,0.023424547,0.0,0.0,0.0,-0.058701638,0.30567396,-0.35754412,0.10698923,-0.19423886,-0.11486551,-0.14323801,0.15699387,0.27577507,0.008128338,-0.217043,0.07590034,0.10317063,-0.017620219,0.17367367,0.01847996,-0.01229338,0.22422783,-0.036909238,0.03738106,0.28242186,-0.12354066,0.026506787,0.097074024,0.06967347,-2.0,2.0,2.0,-2.0,2.0,-2.0,2.0,2.0,-2.0,2.0,-2.0,2.0,-2.0,2.0,2.0,-2.0,-2.0,-2.0,2.0,-2.0,-2.0,2.0,-2.0,2.0
2025-07-18 16:41:50.859,1.1800000000000006,1180,59,0.095439136,0.0011608984,-0.11272059,0.02537791,-0.025315642,-0.046706714,0.0,0.0,0.0,-0.057569645,0.30843905,-0.32715434,0.14202738,-0.20852678,-0.09883402,-0.1746167,0.18804842,0.29107037,-0.052473385,-0.2218021,0.07907817,0.14725685,0.061673734,0.12018119,0.10482811,-0.05481386,-0.06025215,-0.030751271,0.07634019,-0.035276584,-0.14548849,-0.012630492,-0.050945587,0.11363875,-2.0,2.0,2.0,-2.0,-2.0,-2.0,2.0,-2.0,-2.0,2.0,-2.0,2.0,-2.0,2.0,-2.0,-2.0,-2.0,1.8430628,2.0,-2.0,2.0,2.0,-2.0,2.0
2025-07-18 16:41:50.880,1.2000000000000006,1200,60,0.2051112,-0.14001144,-0.07100171,0.02551283,0.022659421,-0.014030855,0.0,0.0,0.0,-0.05616238,0.30839226,-0.25851968,0.059129413,-0.23073463,-0.18486865,-0.10070581,0.21396595,0.19708773,0.0057495427,-0.20778227,0.05124304,0.17410696,0.024901675,0.24689904,-0.20505445,-0.057787787,-0.30612272,0.1679685,-0.008868443,-0.32529822,0.22096412,0.1275468,-0.10350071,0.021581871,-2.0,2.0,-2.0,-2.0,-2.0,1.8430628,2.0,-2.0,2.0,2.0,-2.0,2.0,-2.0,2.0,-2.0,-2.0,-2.0,2.0,2.0,2.0,2.0,2.0,2.0,-2.0
2025-07-18 16:41:50.900,1.2200000000000006,1220,61,-0.09025967,0.08179452,0.05368839,0.034288637,0.016105616,-0.009318239,0.0,0.0,0.0,-0.05505473,0.2853732,-0.16486974,0.0009848132,-0.26442865,-0.28874093,-0.026365545,0.23345229,0.15095827,0.05080857,-0.15830922,0.09941597,0.113290444,-0.04489478,0.30827212,-0.17046857,-0.071919255,-0.29122394,0.2182935,0.04706177,0.074240156,0.1321345,0.056400973,0.2970516,-0.28593457,-2.0,2.0,-2.0,-2.0,-2.0,2.0,2.0,2.0,2.0,2.0,2.0,-2.0,2.0,2.0,-2.0,-2.0,-1.2985533,2.0,2.0,-2.0,2.0,2.0,2.0,-2.0
2025-07-18 16:41:50.920,1.2400000000000007,1240,62,0.03532281,-0.09347691,0.18747881,0.043219693,-0.027145544,0.04768836,0.0,0.0,0.0,-0.05464835,0.3079289,-0.06712843,-0.0672709,-0.27938893,-0.34368277,0.02197968,0.2538104,0.14523579,0.108876854,-0.090888195,0.22729851,0.03832024,0.04055781,0.18871026,-0.11805327,-0.0142352,-0.047791407,0.16552396,0.009870519,-0.0066943737,0.045456935,0.24211234,0.36559418,-0.09540981,2.0,2.0,-2.0,-2.0,-1.2985533,2.0,2.0,-2.0,2.0,2.0,2.0,-2.0,2.0,-2.0,-2.0,2.0,-2.0,2.0,-2.0,-2.0,2.0,2.0,2.0,-2.0
2025-07-18 16:41:50.943,1.2600000000000007,1260,63,-0.028272219,-0.33949733,0.07663024,0.04936995,0.0053742956,0.020555865,0.0,0.0,0.0,-0.057085127,0.31819114,-0.04021758,-0.10167952,-0.26223364,-0.41936514,0.06747302,0.24846266,0.11421411,0.14281021,-0.013004186,0.3339416,-0.022672439,-0.008419369,-0.083464645,-0.04370938,0.05239669,-0.161931,0.17111652,-0.085887484,-0.16013236,0.106062956,0.14647104,0.29988062,-0.15849033,2.0,-2.0,-2.0,2.0,-2.0,2.0,-2.0,-2.0,2.0,2.0,2.0,-2.0,2.0,-2.0,-2.0,-0.37973472,2.0,2.0,-2.0,2.0,2.0,-0.37276015,2.0,-2.0
2025-07-18 16:41:50.960,1.2800000000000007,1280,64,-0.031429205,0.049074303,-0.094063945,0.019371789,-0.019996932,-0.011705638,0.0,0.0,0.0,-0.06012297,0.30625072,-0.08666724,-0.15104182,-0.25977677,-0.44619396,0.10800975,0.21386418,0.12892027,0.15835121,-0.01109277,0.41559178,-0.06813906,0.062830344,-0.22079462,-0.12205232,0.09223924,-0.039377518,0.058372665,-0.07344456,0.038827065,-0.003930467,0.019346405,0.17034361,-0.1102443,2.0,-2.0,-2.0,-0.37973472,2.0,2.0,-2.0,2.0,2.0,-0.37276015,2.0,-2.0,2.0,-2.0,-2.0,2.0,2.0,2.0,-2.0,-2.0,2.0,-2.0,2.0,-2.0
2025-07-18 16:41:50.980,1.3000000000000007,1300,65,-0.0083379615,0.080770575,-0.07283161,0.0125169065,-0.017713238,-0.046894718,0.0,0.0,0.0,-0.05938063,0.3136382,-0.20212828,-0.16788714,-0.24806446,-0.4399073,0.13297933,0.18618947,0.1400617,0.19576967,-0.06748293,0.5007751,-0.12120272,-0.032332845,-0.24059437,0.0066084117,0.093580395,0.012809794,0.015782746,-0.061764196,0.07425326,0.007084904,-0.19398789,0.18731372,-0.087181926,2.0,-2.0,-2.0,2.0,2.0,2.0,-2.0,-2.0,2.0,-2.0,2.0,-2.0,2.0,-2.0,2.0,2.0,2.0,-2.0,-0.35411754,-2.0,2.0,-2.0,-2.0,2.0
2025-07-18 16:41:51.000,1.3200000000000007,1320,66,0.13139302,-0.0611737,-0.18854211,-0.0010000479,-0.08252335,-0.04772086,0.0,0.0,0.0,-0.05763616,0.32955706,-0.31589714,-0.093998045,-0.21100803,-0.39854982,0.058638055,0.15957709,0.14726773,0.20892681,-0.11378512,0.48375636,-0.051522773,0.008695193,-0.31544828,0.14294194,0.14974745,0.05871777,-0.25624293,0.0042567803,0.052130464,0.076165795,-0.17196012,-0.17867616,0.17008147,2.0,-2.0,2.0,2.0,2.0,-2.0,-0.35411754,-2.0,2.0,-2.0,-2.0,2.0,2.0,-2.0,2.0,2.0,2.0,-2.0,-2.0,-2.0,1.9162209,-2.0,-2.0,2.0
2025-07-18 16:41:51.020,1.3400000000000007,1340,67,0.2681944,-0.1453961,-0.16440311,-0.027804445,-0.014705517,0.045558095,0.0,0.0,0.0,-0.05505927,0.33735138,-0.41071516,-0.02227656,-0.17046279,-0.35109913,-0.024689253,0.14185646,0.14056791,0.23919639,-0.14283466,0.37626624,0.0023320192,-0.009100022,-0.22884676,0.20325084,0.08359706,0.051540256,-0.2165294,-0.051878434,-0.07489024,0.115331404,-0.08977264,-0.3100514,0.14266329,2.0,-2.0,2.0,2.0,2.0,-2.0,-2.0,-2.0,1.9162209,-2.0,-2.0,2.0,2.0,-2.0,2.0,2.0,2.0,-2.0,-2.0,-2.0,-2.0,-2.0,-2.0,2.0
2025-07-18 16:41:51.040,1.3600000000000008,1360,68,0.3355362,-0.22627749,-0.25883812,-0.03325365,-0.06628627,-0.029422188,0.0,0.0,0.0,-0.051442478,0.32780793,-0.48621494,0.020041522,-0.12447183,-0.3163383,-0.0871542,0.090397775,0.13086423,0.15606946,-0.17604002,0.1995583,0.059944745,-0.010842874,-0.21517661,0.18361877,0.101802304,0.1436935,-0.18392856,-0.08391897,-0.019216206,-0.174356,-0.1443378,-0.47469357,0.13382989,2.0,-2.0,2.0,2.0,2.0,-2.0,-2.0,-2.0,-2.0,-2.0,-2.0,2.0,2.0,2.0,2.0,-2.0,2.0,-2.0,-2.0,-2.0,-2.0,-2.0,2.0,2.0
2025-07-18 16:41:51.062,1.3800000000000008,1380,69,-0.21951124,-0.18154825,-0.08370042,0.02321205,-0.09698451,-0.018462505,0.0,0.0,0.0,-0.047228433,0.33499014,-0.51540446,0.066009104,-0.15685937,-0.25245145,-0.13765907,0.023831058,0.12429363,0.08627918,-0.20400792,0.114004545,0.10833119,0.07745053,0.07814524,0.07378335,-0.13660203,0.2514263,-0.1169255,-0.085077465,-0.086286776,-0.2039539,-0.019047393,0.017965186,0.16204064,2.0,2.0,2.0,-2.0,2.0,-2.0,-2.0,-2.0,-2.0,-2.0,2.0,2.0,2.0,2.0,2.0,-2.0,2.0,-2.0,2.0,2.0,-2.0,-1.3858925,-1.9620249,2.0
2025-07-18 16:41:51.095,1.4000000000000008,1400,70,-0.032489568,0.35601407,-0.22560792,-0.037501764,-0.03320495,-0.008713427,0.0,0.0,0.0,-0.04394705,0.33445245,-0.4822866,0.100567006,-0.19285111,-0.16175497,-0.16553941,0.037979007,0.1534112,0.025167711,-0.21952824,0.06537799,0.13362081,0.05807885,0.13510387,0.05477529,-0.14725153,0.33622715,-0.07814836,0.110937744,0.16029376,-0.19982582,-0.003611934,-0.16241658,0.05582537,2.0,2.0,2.0,-2.0,2.0,-2.0,2.0,2.0,-2.0,-1.3858925,-1.9620249,2.0,-2.0,2.0,2.0,-2.0,-2.0,-2.0,2.0,2.0,-2.0,2.0,2.0,2.0
2025-07-18 16:41:51.126,1.4200000000000008,1420,71,-0.5019279,0.5126086,-0.14749208,-0.039689653,-0.06376354,0.01706333,0.0,0.0,0.0,-0.041329257,0.31263226,-0.41007358,0.13415739,-0.21418454,-0.11587946,-0.1897136,0.096926354,0.26194823,-0.041510254,-0.16608778,0.06771128,0.15922077,-0.0756446,0.2126233,0.00056631136,-0.066426635,0.030964723,-0.07519421,0.109878756,0.20590155,-0.0661175,0.19020547,0.11910531,0.07961575,-2.0,2.0,2.0,-2.0,-2.0,-2.0,2.0,2.0,-2.0,2.0,2.0,2.0,-2.0,2.0,-2.0,-2.0,-2.0,-2.0,2.0,-2.0,-1.1800964,2.0,-2.0,2.0
2025-07-18 16:41:51.152,1.4400000000000008,1440,72,-0.027265858,0.1488212,0.026462274,-0.021393865,0.018568255,-0.044436388,0.0,0.0,0.0,-0.038517144,0.27383927,-0.29391536,0.05798109,-0.22851598,-0.17994097,-0.20170334,0.13676544,0.29015088,-0.062322132,-0.15714209,0.11634936,0.19446494,-0.12080154,0.27613956,-0.22394966,-0.032483988,-0.25931454,0.010717599,0.087475345,-0.062447157,-0.036192343,-0.03208524,0.06480532,-0.0037870754,-2.0,2.0,-2.0,-2.0,-2.0,-2.0,2.0,-2.0,-1.1800964,2.0,-2.0,2.0,-2.0,2.0,-2.0,-2.0,-2.0,2.0,2.0,-2.0,2.0,2.0,-2.0,2.0
2025-07-18 16:41:51.177,1.4600000000000009,1460,73,0.058979347,-0.08351094,0.07023384,0.0065695182,0.004036719,-0.00090654613,0.0,0.0,0.0,-0.037695043,0.2587033,-0.19122785,-0.0011552823,-0.2658808,-0.292373,-0.12442059,0.16233164,0.1956582,-0.015591643,-0.13649756,0.11409194,0.22642282,-0.06123668,0.24846773,-0.21095343,-0.07920831,-0.19881095,0.1587429,0.0734932,-0.39450535,0.16978152,-0.03536839,0.015159397,0.10047319,-2.0,2.0,-2.0,-2.0,-2.0,2.0,2.0,-2.0,2.0,2.0,-2.0,2.0,-2.0,2.0,-2.0,-2.0,-2.0,2.0,2.0,2.0,2.0,2.0,2.0,-2.0
2025-07-18 16:41:51.198,1.4800000000000009,1480,74,-0.12255162,0.18289815,0.118345425,-0.006910706,-0.017683044,-0.044588752,0.0,0.0,0.0,-0.03844932,0.23339546,-0.09153323,-0.06874367,-0.27874762,-0.3982284,-0.06528458,0.21011287,0.14078946,0.04175488,-0.096784756,0.21581972,0.1370595,-0.13163398,0.31623924,-0.14148736,0.018010333,-0.24242784,0.23156586,0.13657314,0.094727986,0.18638347,0.1754573,0.2675292,-0.23297256,-2.0,2.0,-2.0,-2.0,-2.0,2.0,2.0,2.0,2.0,2.0,2.0,-2.0,2.0,2.0,-2.0,-2.0,2.0,2.0,2.0,-2.0,2.0,2.0,2.0,-2.0
2025-07-18 16:41:51.229,1.5000000000000009,1500,75,-0.047517125,-0.060453262,0.2743625,-0.024772348,-0.028085506,-0.01135541,0.0,0.0,0.0,-0.040489137,0.2525342,0.030746609,-0.11557726,-0.29366988,-0.4030399,0.0027483061,0.22899856,0.13806908,0.09376694,-0.02719138,0.3268811,0.05696137,0.043627672,0.23781447,-0.05061115,-0.0770573,0.11726994,0.09627756,0.09799705,-0.0222573,0.13718924,0.18024607,0.19664957,-0.24405096,2.0,2.0,-2.0,-2.0,2.0,2.0,2.0,-2.0,2.0,2.0,2.0,-2.0,2.0,-2.0,-2.0,2.0,-2.0,2.0,-2.0,-2.0,2.0,-2.0,2.0,-2.0
2025-07-18 16:41:51.249,1.520000000000001,1520,76,-0.27017653,-0.33382896,0.10059726,0.018978069,-0.0091797495,-0.025387658,0.0,0.0,0.0,-0.0447711,0.27301523,0.050574318,-0.15898561,-0.2887319,-0.42468005,0.0488399,0.20489934,0.09026305,0.14488962,-0.054106425,0.40879047,-0.0033715696,0.05973234,0.0068450356,-0.021736106,-0.021821117,-0.086014695,0.15130831,-0.09810698,-0.13015214,0.13075969,-0.07741527,0.23603657,-0.11008124,2.0,-2.0,-2.0,2.0,-2.0,2.0,-2.0,-2.0,2.0,-2.0,2.0,-2.0,2.0,-2.0,-2.0,-0.37101045,2.0,2.0,-2.0,-0.5309626,2.0,-2.0,2.0,-2.0
2025-07-18 16:41:51.269,1.540000000000001,1540,77,-0.054441042,-0.17119071,0.12751521,-0.045506187,0.024330685,0.03229744,0.0,0.0,0.0,-0.04804628,0.2719956,-0.0113239335,-0.18345514,-0.29278722,-0.44413945,0.07815371,0.18902797,0.07447637,0.17002122,-0.09747761,0.49026284,-0.059909374,0.08896716,-0.19976167,-0.013222028,-0.0467788,0.010459096,0.054194637,-0.1147963,-0.1360889,0.14230415,-0.09117643,0.17290795,-0.07117814,2.0,-2.0,-2.0,-0.37101045,2.0,2.0,-2.0,-0.5309626,2.0,-2.0,2.0,-2.0,2.0,-2.0,-2.0,2.0,2.0,2.0,-2.0,-2.0,2.0,-2.0,-2.0,-2.0
2025-07-18 16:41:51.294,1.560000000000001,1560,78,0.26983964,-0.10658058,0.18137777,-0.03438912,-0.04363656,0.019191854,0.0,0.0,0.0,-0.05034805,0.28294462,-0.15329176,-0.203823,-0.29368085,-0.42864567,0.10270452,0.16162862,0.037819523,0.20660254,-0.13735683,0.4873343,-0.09698996,0.02150508,-0.381034,-0.048624534,-0.055242166,0.010393118,-0.00794714,-0.07519378,-0.072578266,0.005186567,-0.15987368,-0.1299439,-0.02912289,2.0,-2.0,-2.0,2.0,2.0,2.0,-2.0,-2.0,2.0,-2.0,-2.0,-2.0,2.0,-2.0,2.0,2.0,2.0,-2.0,-2.0,-2.0,2.0,-2.0,-2.0,2.0
2025-07-18 16:41:51.314,1.580000000000001,1580,79,0.22434445,-0.2066002,0.10036121,-0.03469515,-0.09318151,-0.003362587,0.0,0.0,0.0,-0.053805552,0.2942374,-0.27396286,-0.12825572,-0.28245902,-0.3794456,0.028578974,0.15582962,0.023386303,0.21386524,-0.18525617,0.38209128,-0.04524661,0.042774327,-0.29150814,0.18182768,-0.012890924,0.15727328,-0.13421395,-0.00598855,-0.06032876,0.052465234,-0.14310847,-0.3779915,0.19034988,2.0,-2.0,2.0,2.0,2.0,-2.0,-2.0,-2.0,2.0,-2.0,-2.0,2.0,2.0,-2.0,2.0,2.0,2.0,-2.0,-2.0,0.8152796,-0.20247312,-2.0,-2.0,2.0
2025-07-18 16:41:51.339,1.600000000000001,1600,80,0.2738349,-0.03632388,0.000321648,-0.023212606,-0.0998162,-0.038142946,0.0,0.0,0.0,-0.05628353,0.30619845,-0.37666568,-0.048206545,-0.2484747,-0.336722,-0.034019627,0.12528202,0.061110508,0.1804035,-0.19658732,0.21893393,0.031778507,0.046055514,-0.1905238,0.18276785,0.14999463,0.185206,-0.17265855,-0.049749732,0.07871434,-0.17265622,-0.13870037,-0.40106037,0.11902666,2.0,-2.0,2.0,2.0,2.0,-2.0,-2.0,0.8152796,-0.20247312,-2.0,-2.0,2.0,2.0,0.9860522,2.0,2.0,2.0,-2.0,-2.0,0.58493745,-2.0,-2.0,1.0902083,2.0
2025-07-18 16:41:51.354,1.620000000000001,1620,81,-0.015954131,0.13949417,-0.002190964,0.034232814,-0.08142617,0.0017987319,0.0,0.0,0.0,-0.056644958,0.31227905,-0.3880947,0.001185287,-0.20184246,-0.27068725,-0.09289232,0.09036851,0.12048969,0.0966683,-0.2278398,0.12892945,0.080121204,0.06770753,0.018473618,0.11190247,0.04772597,0.21478237,-0.15077806,-0.047272027,0.11029254,-0.22845908,-0.11304105,-0.02099968,0.11370699,2.0,0.9860522,2.0,2.0,2.0,-2.0,-2.0,0.58493745,-2.0,-2.0,1.0902083,2.0,1.3340752,2.0,2.0,-0.8430251,2.0,-2.0,0.14559993,2.0,-2.0,-2.0,-2.0,2.0
2025-07-18 16:41:51.377,1.640000000000001,1640,82,-0.19746259,0.41464698,-0.10773007,0.033022128,-0.0084449835,-0.019451242,0.0,0.0,0.0,-0.056093436,0.3106008,-0.3543815,0.05177015,-0.20180039,-0.19310333,-0.13819279,0.07737235,0.19895893,0.02622946,-0.26079237,0.08771977,0.11856566,0.0050087874,0.086758345,0.14158507,-0.039512094,0.29223427,-0.11135784,-0.09026406,0.35172302,-0.15598843,-0.048531618,-0.19571498,0.100507684,1.3340752,2.0,2.0,-0.8430251,2.0,-2.0,0.14559993,2.0,-2.0,-2.0,-2.0,2.0,-2.0,2.0,2.0,-2.0,-2.0,-2.0,2.0,2.0,-2.0,2.0,-1.2683585,2.0
2025-07-18 16:41:51.394,1.660000000000001,1660,83,0.04253245,0.29564583,-0.17928842,0.047088217,0.030383829,-0.023984298,0.0,0.0,0.0,-0.0546558,0.2991528,-0.27918583,0.08615332,-0.20778003,-0.14287207,-0.15680401,0.113838784,0.30758682,-0.031187186,-0.23363686,0.016011253,0.1594905,0.039842654,0.16958931,0.028453598,8.802393e-05,-0.022135237,-0.010505961,0.17053494,0.28211632,-0.13480073,0.04650047,-0.12058143,0.09409382,-2.0,2.0,2.0,-2.0,-2.0,-2.0,2.0,2.0,-2.0,2.0,-1.2683585,2.0,-2.0,2.0,2.0,-2.0,-2.0,-2.0,2.0,-2.0,-2.0,2.0,-2.0,2.0
2025-07-18 16:41:51.415,1.680000000000001,1680,84,0.02159322,0.045788623,-0.25820085,-0.011260293,0.01750724,-0.0351131,0.0,0.0,0.0,-0.052021176,0.30084616,-0.22289078,0.120433,-0.24348184,-0.22703809,-0.18195696,0.14617878,0.32393387,-0.07502601,-0.23765515,-0.02017609,0.17683756,0.080152154,0.1631447,0.07792285,0.017146347,-0.22803229,-0.018630588,0.112944916,-0.062161498,-0.116578445,0.021959865,-0.13793278,0.06270575,-2.0,2.0,2.0,-2.0,-2.0,-2.0,2.0,-2.0,-2.0,2.0,-2.0,2.0,-2.0,2.0,-2.0,-2.0,-2.0,2.0,2.0,-2.0,2.0,2.0,-2.0,2.0
2025-07-18 16:41:51.435,1.700000000000001,1700,85,0.24571551,-0.11918002,-0.12585914,0.001279564,0.027735295,0.0027624012,0.0,0.0,0.0,-0.047798637,0.2857823,-0.1373165,0.05256273,-0.2516836,-0.32791045,-0.12028039,0.19383442,0.23406333,-0.021248491,-0.23091322,-0.06736246,0.21613662,-0.06187705,0.23511551,-0.16482769,-0.049857326,-0.28349912,0.19195071,0.012675126,-0.26265746,0.17457885,0.10274124,-0.077978455,0.03902559,-2.0,2.0,-2.0,-2.0,-2.0,2.0,2.0,-2.0,2.0,2.0,-2.0,2.0,-2.0,2.0,-2.0,-2.0,-2.0,2.0,2.0,2.0,2.0,2.0,2.0,-2.0
2025-07-18 16:41:51.455,1.720000000000001,1720,86,0.00746691,0.21875381,-0.07876347,0.04298143,0.026824817,0.014450783,0.0,0.0,0.0,-0.04405581,0.27208936,-0.027532645,-0.02983468,-0.27679592,-0.4277366,-0.050546084,0.21919584,0.18811966,0.026565397,-0.19276132,-0.03210668,0.13646135,-0.06684494,0.2333224,-0.10467171,-0.06935975,-0.1435086,0.12316831,0.033266913,0.05375488,0.059847213,0.0668441,0.23777783,-0.22141472,-2.0,2.0,-2.0,-2.0,-2.0,2.0,2.0,2.0,2.0,2.0,2.0,-2.0,2.0,1.6250283,-2.0,-2.0,1.920489,2.0,2.0,-2.0,2.0,2.0,2.0,-2.0
2025-07-18 16:41:51.475,1.740000000000001,1740,87,0.16116117,0.037954662,0.17415588,0.059503816,-0.018343585,-0.030930527,0.0,0.0,0.0,-0.041099347,0.27725223,0.09502458,-0.08129052,-0.28420305,-0.42154217,0.0105795935,0.2447036,0.1556518,0.09235722,-0.1381374,0.084721915,0.04942491,0.04003569,0.22134557,-0.115107365,-0.03862261,0.17865105,0.16293104,0.02650859,-0.07655452,0.15511319,0.20392805,0.34511027,-0.20937437,2.0,1.6250283,-2.0,-2.0,1.920489,2.0,2.0,-2.0,2.0,2.0,2.0,-2.0,2.0,-2.0,-2.0,2.0,-2.0,2.0,-2.0,-2.0,2.0,-2.0,2.0,-2.0
2025-07-18 16:41:51.500,1.7600000000000011,1760,88,-0.3434003,-0.42203838,0.025483504,0.05322513,-0.042934805,0.047228068,0.0,0.0,0.0,-0.04130785,0.2796946,0.12393859,-0.12356687,-0.26478067,-0.44436148,0.07004541,0.23063338,0.11951686,0.12543687,-0.15348376,0.20440082,-0.016517237,-0.016647102,-0.11682751,-0.04502583,0.100206055,-0.16913377,0.14306435,-0.17550664,-0.13767381,0.034876924,-0.12645218,0.24322408,-0.097876355,2.0,-2.0,-2.0,2.0,-2.0,2.0,-2.0,-2.0,2.0,-2.0,2.0,-2.0,2.0,-2.0,-2.0,-2.0,2.0,2.0,1.88916,-2.0,2.0,-2.0,2.0,-2.0
2025-07-18 16:41:51.515,1.7800000000000011,1780,89,-0.16718747,-0.35731572,0.33780247,0.033629484,-0.014321275,-0.010696548,0.0,0.0,0.0,-0.042957027,0.30009434,0.043905348,-0.14602011,-0.26791725,-0.47808567,0.10811876,0.22851588,0.060117938,0.15595898,-0.19558123,0.33174604,-0.07243,0.07150888,-0.28055373,-0.07019555,-0.113551274,-0.029498734,0.0003593894,0.12550898,-0.23707539,0.073806405,-0.018228149,0.29415107,-0.13711236,2.0,-2.0,-2.0,-2.0,2.0,2.0,1.88916,-2.0,2.0,-2.0,2.0,-2.0,2.0,-2.0,-2.0,2.0,2.0,2.0,-2.0,2.0,2.0,-2.0,-0.46715185,-2.0
2025-07-18 16:41:51.535,1.8000000000000012,1800,90,0.18838069,0.048288543,0.08487464,-0.051543523,-0.059557956,-0.005507474,0.0,0.0,0.0,-0.047205433,0.31193855,-0.095619015,-0.18048704,-0.28816012,-0.45443925,0.13145803,0.23844808,0.04933811,0.18282215,-0.21795371,0.35660133,-0.11050515,-0.052512053,-0.39140376,-0.020006033,0.08402464,0.0031296653,0.032414824,0.05293036,0.07780554,0.06249235,-0.018752769,-0.055125155,-0.028753426,2.0,-2.0,-2.0,2.0,2.0,2.0,-2.0,2.0,2.0,-2.0,-0.46715185,-2.0,2.0,-2.0,2.0,2.0,2.0,-2.0,-2.0,-2.0,2.0,-2.0,-2.0,2.0
2025-07-18 16:41:51.561,1.8200000000000012,1820,91,0.10574521,-0.16744985,0.038664326,-0.03630557,-0.038518395,-0.0023619912,0.0,0.0,0.0,-0.050904367,0.3055254,-0.23523937,-0.111447796,-0.260457,-0.39787465,0.05258187,0.22900271,0.058359645,0.2153208,-0.23522577,0.26946574,-0.050752845,0.016571017,-0.28875226,0.18802895,0.006357917,0.19580977,-0.1975113,-0.051064577,-0.00021309569,0.04460467,-0.017743649,-0.26030165,0.11247235,2.0,-2.0,2.0,2.0,2.0,-2.0,-2.0,-2.0,2.0,-2.0,-2.0,2.0,2.0,-2.0,2.0,2.0,2.0,-2.0,-2.0,-2.0,1.2773316,-2.0,-2.0,2.0
2025-07-18 16:41:51.575,1.8400000000000012,1840,92,0.05517401,-0.18446708,-0.033191834,0.001198039,-0.032733433,-0.038376343,0.0,0.0,0.0,-0.051259488,0.3225058,-0.34384316,-0.0392236,-0.24185061,-0.35097015,-0.023431262,0.22400805,0.053318214,0.20864885,-0.26095793,0.11372558,0.01745479,0.09337166,-0.14769189,0.18325819,0.0049818107,0.17268695,-0.13197696,-0.0054139215,-0.010105653,0.048453297,0.009011719,-0.5001786,0.1987779,2.0,-2.0,2.0,2.0,2.0,-2.0,-2.0,-2.0,1.2773316,-2.0,-2.0,2.0,2.0,-2.0,2.0,2.0,2.0,-2.0,-2.0,0.9485682,-2.0,-2.0,2.0,2.0
2025-07-18 16:41:51.596,1.8600000000000012,1860,93,-0.056929097,0.18393552,0.1254172,-0.040217817,-0.05569461,0.039978355,0.0,0.0,0.0,-0.05071926,0.3372918,-0.4243825,0.02756703,-0.23510212,-0.30509263,-0.0878612,0.16285537,0.11063561,0.12596825,-0.27236742,0.037248943,0.064384624,0.013818479,-0.219567,0.06774716,0.068382084,0.14459988,-0.15377899,-0.2662508,0.09199019,-0.18420789,-0.027387869,0.044079334,0.0442816,2.0,-2.0,2.0,2.0,2.0,-2.0,-2.0,0.9485682,-2.0,-2.0,2.0,2.0,2.0,2.0,2.0,2.0,2.0,-2.0,-2.0,2.0,-2.0,-2.0,-1.4505045,2.0
2025-07-18 16:41:51.616,1.8800000000000012,1880,94,-0.06517913,0.43894467,-0.16787682,-0.038740486,-0.082223065,-0.01425617,0.0,0.0,0.0,-0.051444527,0.33166257,-0.42943558,0.0649758,-0.18412206,-0.23227121,-0.1312716,0.099505134,0.21106537,0.05697613,-0.2835347,-0.02029236,0.11635017,0.016087757,0.05561458,0.17401077,0.122599915,0.20933047,-0.14004153,-0.25392306,0.37676907,-0.1954119,-0.018262317,-0.16032085,0.12431995,2.0,2.0,2.0,2.0,2.0,-2.0,-2.0,2.0,-2.0,-2.0,-1.4505045,2.0,-2.0,2.0,2.0,-2.0,2.0,-2.0,2.0,2.0,-2.0,2.0,2.0,2.0
2025-07-18 16:41:51.636,1.9000000000000012,1900,95,-0.058796313,0.63749,0.11430157,-0.036312718,-0.02622756,0.041827105,0.0,0.0,0.0,-0.050215777,0.32007962,-0.37875804,0.10693066,-0.19037606,-0.12108507,-0.16056068,0.10161698,0.33216688,-0.016692651,-0.28483397,-0.009857583,0.13663866,-0.044982977,0.20395906,0.13355806,-0.07621897,0.30093876,-0.14552736,0.07650675,0.30033427,-0.18174414,0.03796819,0.14620757,0.009848804,-2.0,2.0,2.0,-2.0,2.0,-2.0,2.0,2.0,-2.0,2.0,2.0,2.0,-2.0,2.0,2.0,-2.0,-2.0,-2.0,2.0,-2.0,-2.0,2.0,-2.0,2.0
2025-07-18 16:41:51.656,1.9200000000000013,1920,96,0.13674387,0.26905966,-0.044195265,0.024732089,0.012290003,0.013325002,0.0,0.0,0.0,-0.050341625,0.31476977,-0.30981353,0.13710858,-0.22570065,-0.059585746,-0.18097527,0.14745697,0.35258862,-0.052030988,-0.2820106,0.015660813,0.16619973,0.021534452,0.14350177,0.11541273,-0.07294984,-0.01325836,-0.07710342,0.0616336,-0.07687261,-0.15073337,0.03339307,-0.011078905,0.1470348,-2.0,2.0,2.0,-2.0,-2.0,-2.0,2.0,-2.0,-2.0,2.0,-2.0,2.0,-2.0,2.0,1.0575844,-2.0,-2.0,-2.0,2.0,-2.0,-1.8584363,2.0,-2.0,2.0
2025-07-18 16:41:51.676,1.9400000000000013,1940,97,0.055211704,-0.072475545,-0.02463937,0.088734336,0.036957737,-0.044611707,0.0,0.0,0.0,-0.050888203,0.3223385,-0.2637138,0.1285761,-0.23429462,-0.13726503,-0.19777884,0.1729329,0.309651,-0.09075017,-0.2663047,0.014776828,0.19182038,0.061676856,0.08470507,-0.013723846,-0.06725039,-0.31131274,0.0062476676,0.11241447,-0.14366367,-0.047239177,0.08166408,0.0058928384,0.009125786,-2.0,2.0,1.0575844,-2.0,-2.0,-2.0,2.0,-2.0,-1.8584363,2.0,-2.0,2.0,-2.0,2.0,-2.0,-2.0,-2.0,2.0,2.0,-2.0,2.0,2.0,-2.0,2.0
2025-07-18 16:41:51.696,1.9600000000000013,1960,98,0.13115981,-0.42617822,0.11139189,0.06256087,0.0065567065,0.029256009,0.0,0.0,0.0,-0.051024567,0.30603608,-0.2080657,0.052280743,-0.2549636,-0.25493014,-0.14139634,0.20905653,0.2138498,-0.033221904,-0.24457364,0.0054240767,0.21357827,-0.022553233,0.20073111,-0.26207703,-0.06313645,-0.27617955,0.22708341,-0.005801857,-0.31405595,0.19734545,0.018369662,-0.044390373,0.0694313,-2.0,2.0,-2.0,-2.0,-2.0,2.0,2.0,-2.0,2.0,2.0,-2.0,2.0,-2.0,2.0,-2.0,-2.0,-2.0,2.0,2.0,2.0,2.0,2.0,2.0,-2.0
2025-07-18 16:41:51.717,1.9800000000000013,1980,99,-0.07970232,-0.05587901,0.14793336,0.015391161,0.013666533,-0.01101346,0.0,0.0,0.0,-0.05176896,0.28370798,-0.119987324,-0.022114582,-0.27487448,-0.35994163,-0.059459377,0.22724448,0.18085898,0.028290223,-0.19224872,0.054674868,0.1450625,-0.037503634,0.19717528,-0.12992777,-0.10143613,-0.25089002,0.2414759,-0.018350055,0.075450964,0.12915657,0.1674364,0.1938505,-0.15593052,-2.0,2.0,-2.0,-2.0,-2.0,2.0,2.0,2.0,2.0,2.0,2.0,-2.0,2.0,2.0,-2.0,-2.0,-0.7631605,2.0,2.0,-2.0,2.0,2.0,2.0,-2.0
2025-07-18 16:41:51.736,2.0000000000000013,2000,100,0.1176391,0.014896185,0.31379,0.0826352,0.03237991,0.031107511,0.0,0.0,0.0,-0.05386469,0.2790447,-0.02295359,-0.08252751,-0.28415877,-0.38020247,0.01701074,0.24721587,0.16128616,0.06791687,-0.13667548,0.17171164,0.050946787,0.028199734,0.28906852,-0.107015364,-0.022849541,-0.00789537,0.07337767,0.064705804,-0.100992806,0.14141493,0.21581993,0.39834222,-0.24378729,2.0,2.0,-2.0,-2.0,-0.7631605,2.0,2.0,-2.0,2.0,2.0,2.0,-2.0,2.0,-2.0,-2.0,2.0,-2.0,2.0,-2.0,2.0,2.0,1.5689574,2.0,-2.0
2025-07-18 16:41:51.756,2.0200000000000014,2020,101,-0.24489851,-0.17854798,0.052194104,0.01527707,-0.014057676,-0.009009761,0.0,0.0,0.0,-0.058241952,0.2914345,0.0112372665,-0.11647867,-0.2476486,-0.4221187,0.06937218,0.24038395,0.1621986,0.10320589,-0.071515806,0.27912357,0.00013977611,0.030425075,-0.086398154,-0.014028675,0.14178076,-0.19067606,0.07979714,-0.07814477,0.10510739,2.485925e-05,0.18660194,0.198754,-0.15997033,2.0,-2.0,-2.0,2.0,-2.0,2.0,-2.0,2.0,2.0,1.5689574,2.0,-2.0,2.0,-2.0,-2.0,2.0,2.0,2.0,-2.0,-2.0,2.0,2.0,2.0,-2.0
2025-07-18 16:41:51.776,2.0400000000000014,2040,102,-0.149997,-0.15334381,-0.009989458,-0.030373357,-0.0336093,-0.022283556,0.0,0.0,0.0,-0.061041165,0.31578863,-0.03440861,-0.14354928,-0.1979172,-0.44617176,0.08849906,0.20576239,0.15524009,0.14668703,0.010037217,0.38311478,-0.06305087,-0.04339763,-0.18165544,-0.070642516,0.03876065,0.039740276,0.031939443,-0.040738117,0.013948331,0.045587197,0.1299334,0.19122389,-0.19399482,2.0,-2.0,-2.0,2.0,2.0,2.0,-2.0,-2.0,2.0,2.0,2.0,-2.0,2.0,-2.0,-2.0,2.0,2.0,2.0,-2.0,-2.0,2.0,-2.0,2.0,-2.0
2025-07-18 16:41:51.796,2.0600000000000014,2060,103,-0.15978868,0.029429458,0.0032504278,-0.008956678,-0.050710395,0.013956968,0.0,0.0,0.0,-0.061085787,0.30558422,-0.16057575,-0.17677054,-0.21504603,-0.4407693,0.12584005,0.16955027,0.16358675,0.1833927,-0.0072242552,0.45676258,-0.10501418,0.08236374,-0.33860114,-0.061244026,-0.05795392,-0.026621701,0.089488104,0.003089581,0.06460844,0.053241815,-0.18434261,0.17905731,-0.072303966,2.0,-2.0,-2.0,2.0,2.0,2.0,-2.0,-2.0,2.0,-2.0,2.0,-2.0,2.0,-2.0,2.0,2.0,2.0,-2.0,-1.7482558,-2.0,2.0,-2.0,-2.0,2.0
2025-07-18 16:41:51.819,2.0800000000000014,2080,104,0.027485462,-0.09430669,-0.18983185,-0.014955214,-0.029085137,-0.04334383,0.0,0.0,0.0,-0.060438182,0.3146982,-0.2925696,-0.10701741,-0.1823909,-0.39502162,0.036313836,0.13799138,0.14843687,0.2102022,-0.077018134,0.45816448,-0.035702776,0.052108448,-0.2606736,0.25712892,0.039629832,0.05269569,-0.1468779,-0.05198547,-0.083578795,0.048098724,-0.16055125,-0.16578592,0.23292413,2.0,-2.0,2.0,2.0,2.0,-2.0,-1.7482558,-2.0,2.0,-2.0,-2.0,2.0,2.0,-2.0,2.0,2.0,2.0,-2.0,-2.0,-2.0,2.0,-2.0,-2.0,2.0
2025-07-18 16:41:51.837,2.1000000000000014,2100,105,0.2184901,-0.18380022,-0.15706612,0.021036837,-0.06965619,-0.036056634,0.0,0.0,0.0,-0.058352932,0.3217703,-0.37730575,-0.030815128,-0.16746038,-0.36288223,-0.028212924,0.1026788,0.12838438,0.24000233,-0.118548095,0.33993736,0.015771855,0.048257448,-0.29332334,0.10619746,-0.011539596,0.12142509,-0.0933619,-0.17227158,-0.0094121285,0.10115478,-0.15759774,-0.35477456,0.09095642,2.0,-2.0,2.0,2.0,2.0,-2.0,-2.0,-2.0,2.0,-2.0,-2.0,2.0,2.0,-2.0,2.0,2.0,2.0,-2.0,-2.0,-2.0,-2.0,-2.0,-2.0,2.0
2025-07-18 16:41:51.857,2.1200000000000014,2120,106,0.30027232,-0.23111686,-0.21450162,-0.002979903,-0.07882423,-0.017932162,0.0,0.0,0.0,-0.054821584,0.33623865,-0.47341454,0.02770934,-0.1459454,-0.32603395,-0.089251906,0.04099341,0.1475329,0.1592021,-0.15766956,0.19071858,0.07628275,-0.03715291,-0.24158534,0.121419266,0.15151396,0.009481105,-0.21008407,-0.13454443,-0.026123546,-0.19483821,-0.029185995,-0.40667567,0.15895753,2.0,-2.0,2.0,2.0,2.0,-2.0,-2.0,-2.0,-2.0,-2.0,-2.0,2.0,2.0,2.0,2.0,-1.6858922,2.0,-2.0,-2.0,-2.0,-2.0,-2.0,2.0,2.0
2025-07-18 16:41:51.880,2.1400000000000015,2140,107,-0.24976777,-0.15767883,-0.15673341,-0.04957695,-0.04509411,0.0032607382,0.0,0.0,0.0,-0.05055037,0.32549563,-0.48609248,0.0737325,-0.16259643,-0.29034096,-0.13557023,-0.011828958,0.1677478,0.09072449,-0.18609866,0.10520914,0.10419054,0.041193224,-0.04685255,0.09156045,-0.06048934,0.19800633,-0.08407664,-0.20471406,0.046542358,-0.24914987,-0.11151606,0.00053098646,0.108967476,2.0,2.0,2.0,-1.6858922,2.0,-2.0,-2.0,-2.0,-2.0,-2.0,2.0,2.0,2.0,2.0,2.0,-2.0,2.0,-2.0,2.0,2.0,-2.0,-0.723302,0.5406018,2.0
2025-07-18 16:41:51.897,2.1600000000000015,2160,108,-0.1536027,0.3756464,-0.11592043,-0.05701949,-0.054691315,0.04414632,0.0,0.0,0.0,-0.047228485,0.3280372,-0.44691476,0.09761416,-0.181829,-0.18220104,-0.16225716,0.016838087,0.23574825,0.014980728,-0.18858458,0.12737405,0.14271384,0.08098439,0.20054422,0.09284474,-0.034631863,0.3516998,-0.1028576,0.10285166,0.2746249,-0.08980616,-0.008384806,0.064995505,0.049930107,2.0,2.0,2.0,-2.0,2.0,-2.0,2.0,2.0,-2.0,-0.723302,0.5406018,2.0,-2.0,2.0,2.0,-2.0,-2.0,-2.0,2.0,2.0,-2.0,2.0,-2.0,2.0
2025-07-18 16:41:51.917,2.1800000000000015,2180,109,-0.16534959,0.35121375,-0.12502576,0.02700559,-0.025495261,-0.033986576,0.0,0.0,0.0,-0.045594275,0.32668045,-0.39300945,0.13106647,-0.22594038,-0.14504282,-0.20129913,0.07235249,0.33438364,-0.04325542,-0.13674214,0.10993505,0.18317632,-0.061073173,0.09542141,0.050605923,-0.03419566,-0.039138477,-0.03389774,0.13185501,0.18341458,-0.11832487,0.034628637,-0.07561943,0.10785766,-2.0,2.0,2.0,-2.0,-2.0,-2.0,2.0,2.0,-2.0,2.0,-2.0,2.0,-2.0,2.0,2.0,-2.0,-2.0,-2.0,2.0,-2.0,-2.0,2.0,-2.0,2.0
2025-07-18 16:41:51.941,2.2000000000000015,2200,110,-0.101123124,0.05998231,-0.15735963,-0.03378044,-0.061528493,-0.02460807,0.0,0.0,0.0,-0.04275602,0.31833965,-0.3366506,0.16035375,-0.23127076,-0.22664465,-0.22136247,0.113278076,0.34323138,-0.09184735,-0.12933932,0.08760788,0.2019769,-0.023532659,0.09220323,0.0378593,-0.07954782,-0.24106547,-0.054934923,0.056411088,-0.06221527,-0.089604996,0.037290026,-0.046624698,0.043943986,-2.0,2.0,2.0,-2.0,-2.0,-2.0,2.0,-2.0,-2.0,2.0,-2.0,2.0,-2.0,2.0,-2.0,-2.0,-2.0,2.0,2.0,-2.0,2.0,2.0,-2.0,2.0
2025-07-18 16:41:51.957,2.2200000000000015,2220,111,0.10082402,-0.20764174,-0.078240864,-0.05390897,0.008998276,-0.003886591,0.0,0.0,0.0,-0.039499547,0.31476533,-0.26017112,0.073386535,-0.26035,-0.33105922,-0.14167777,0.15424003,0.25145495,-0.036829416,-0.13943231,0.069909506,0.2287722,-0.08055631,0.244761,-0.1570655,-0.098977365,-0.3224736,0.14686581,0.059555408,-0.3070971,0.16298777,0.060622867,-0.041197628,0.081134014,-2.0,2.0,-2.0,-2.0,-2.0,2.0,2.0,-2.0,2.0,2.0,-2.0,2.0,-2.0,2.0,-2.0,-2.0,-2.0,2.0,2.0,2.0,2.0,2.0,2.0,-2.0
2025-07-18 16:41:51.977,2.2400000000000015,2240,112,-0.13629502,0.08497676,0.0065962384,-0.045334596,-0.075449914,-0.049881123,0.0,0.0,0.0,-0.03775063,0.2855329,-0.16549571,-0.001322884,-0.2741984,-0.4273781,-0.058762837,0.183855,0.19021489,0.034984168,-0.09312998,0.1443629,0.15491812,-0.016419819,0.2976934,-0.117714226,0.01117816,-0.15678425,0.14586003,0.07775365,-0.036797896,0.068553686,0.153879,0.34352902,-0.21620674,-2.0,2.0,-2.0,-2.0,-2.0,2.0,2.0,2.0,2.0,2.0,2.0,-2.0,2.0,2.0,-2.0,-2.0,2.0,2.0,2.0,-2.0,2.0,2.0,2.0,-2.0
2025-07-18 16:41:52.002,2.2600000000000016,2260,113,0.09935922,0.09622752,0.17135122,-0.0025553536,-0.016740791,0.008895039,0.0,0.0,0.0,-0.03743829,0.2945204,-0.03475967,-0.05460265,-0.2775988,-0.43997627,0.0066551226,0.21689795,0.14864643,0.07154872,-0.03502436,0.2585621,0.06466349,0.0052506323,0.29597065,-0.18959059,-0.09393768,0.06359823,0.19880919,0.019818228,-0.1975605,0.14111884,0.20147605,0.27527142,-0.18459435,2.0,2.0,-2.0,-2.0,2.0,2.0,2.0,-2.0,2.0,2.0,2.0,-2.0,2.0,-2.0,-2.0,2.0,-2.0,2.0,-2.0,2.0,2.0,1.4522403,2.0,-2.0
2025-07-18 16:41:52.018,2.2800000000000016,2280,114,0.06603318,0.1271652,-0.07275932,-0.035097487,0.012765341,-0.027410239,0.0,0.0,0.0,-0.03950787,0.30009001,0.026319647,-0.09372501,-0.2496697,-0.43689063,0.06330375,0.19523579,0.14947385,0.1048501,0.023549179,0.36640006,-0.0015567377,0.06839221,0.03386652,-0.055382863,0.07561368,-0.04785181,0.17008667,-0.10027556,0.1070628,0.12824471,0.039302807,0.19888783,-0.20932883,2.0,-2.0,-2.0,2.0,-2.0,2.0,-2.0,2.0,2.0,1.4522403,2.0,-2.0,2.0,-2.0,-2.0,2.0,2.0,2.0,-1.6960279,-2.0,2.0,1.0810994,2.0,-2.0
2025-07-18 16:41:52.037,2.3000000000000016,2300,115,-0.032340687,0.07536828,-0.061844498,0.021466235,-0.038643237,0.044978905,0.0,0.0,0.0,-0.039968185,0.30923414,-0.028159264,-0.12584448,-0.22236742,-0.4415198,0.080568194,0.17309074,0.16606496,0.15657942,0.03672507,0.44282043,-0.060210638,0.062332477,-0.29789957,-0.09863249,-0.02101296,0.02510524,0.055093966,-0.056042213,0.09627112,0.051611543,0.058597162,0.18886192,-0.122004546,2.0,-2.0,-2.0,2.0,2.0,2.0,-1.6960279,-2.0,2.0,1.0810994,2.0,-2.0,2.0,-2.0,-2.0,2.0,2.0,1.5962335,-2.0,-2.0,2.0,-2.0,1.3142096,-2.0
2025-07-18 16:41:52.057,2.3200000000000016,2320,116,0.010404805,0.046699744,-0.12263462,0.045601316,0.028787663,0.012446502,0.0,0.0,0.0,-0.03813208,0.31974673,-0.1528899,-0.15850775,-0.22310215,-0.42573798,0.101710156,0.15810151,0.18590376,0.1747059,0.0064203995,0.47755295,-0.09663601,0.069709174,-0.28460178,-0.036686882,0.0022672028,0.06722023,0.08205575,-0.06293267,-0.01855248,0.098156095,-0.21047236,0.09476327,-0.108556986,2.0,-2.0,-2.0,2.0,2.0,1.5962335,-2.0,-2.0,2.0,-2.0,1.3142096,-2.0,2.0,-2.0,2.0,2.0,2.0,-2.0,2.0,-2.0,2.0,-2.0,-2.0,2.0
2025-07-18 16:41:52.077,2.3400000000000016,2340,117,0.44429052,0.04849381,-0.03876105,0.04587066,0.03108507,-0.015508615,0.0,0.0,0.0,-0.03640764,0.32393536,-0.26695067,-0.09711443,-0.18269211,-0.37566248,0.027830057,0.19482306,0.17324635,0.21772213,-0.064436875,0.42452317,-0.038104158,0.048759356,-0.2638573,0.2513907,0.20972113,0.19542791,-0.17342778,0.16396855,0.036188986,0.009133226,-0.08411175,-0.2684729,0.23189826,2.0,-2.0,2.0,2.0,2.0,-2.0,2.0,-2.0,2.0,-2.0,-2.0,2.0,2.0,-2.0,2.0,2.0,2.0,-2.0,-2.0,-2.0,-1.5479605,-2.0,-2.0,2.0
2025-07-18 16:41:52.101,2.3600000000000017,2360,118,0.16644323,-0.1455126,-0.0033985553,0.06050526,-0.058880575,-0.04032375,0.0,0.0,0.0,-0.035798937,0.33562684,-0.3714765,-0.027703518,-0.120317146,-0.3252186,-0.04741769,0.20557931,0.1845131,0.14227755,-0.10935804,0.28974488,0.019640664,0.038769472,-0.27092287,0.12701537,0.04065225,0.13336615,-0.10975927,0.0060650655,-0.006287952,-0.2453016,-0.17324096,-0.43177417,0.17034982,2.0,-2.0,2.0,2.0,2.0,-2.0,-2.0,-2.0,-1.5479605,-2.0,-2.0,2.0,2.0,2.0,2.0,2.0,2.0,-2.0,-2.0,-2.0,-2.0,-2.0,-2.0,2.0
2025-07-18 16:41:52.118,2.3800000000000017,2380,119,-0.08120857,-0.0658539,-0.103441246,0.018409232,-0.0072205816,0.03260006,0.0,0.0,0.0,-0.035936523,0.3341911,-0.4135785,0.020728087,-0.108163096,-0.2815757,-0.09881311,0.17271622,0.2102698,0.06963161,-0.153361,0.10296437,0.06839998,-0.057798788,0.054872848,0.18883985,0.034959823,0.14948238,-0.11688713,-0.18410936,-0.01703718,-0.10877807,-0.16787058,-0.38990775,0.050362516,2.0,2.0,2.0,2.0,2.0,-2.0,-2.0,-2.0,-2.0,-2.0,-2.0,2.0,2.0,2.0,2.0,-2.0,2.0,-2.0,1.1110677,2.0,-2.0,-2.0,2.0,2.0
2025-07-18 16:41:52.138,2.4000000000000017,2400,120,-0.32749435,0.37646526,-0.050825395,0.08766369,-0.046849612,0.0056969645,0.0,0.0,0.0,-0.035231266,0.3430549,-0.3860193,0.05762257,-0.13120106,-0.20599149,-0.1327337,0.16063432,0.27100533,0.004290947,-0.18072838,0.045259017,0.108957805,0.061512202,0.1567401,0.1523975,-0.03237125,0.20190097,-0.049627334,-0.0068664853,0.25936547,-0.2185627,-0.13975866,0.044263598,0.123139784,2.0,2.0,2.0,-2.0,2.0,-2.0,1.1110677,2.0,-2.0,-2.0,2.0,2.0,-2.0,2.0,2.0,-2.0,-2.0,-2.0,2.0,2.0,-2.0,2.0,-2.0,2.0
2025-07-18 16:41:52.160,2.4200000000000017,2420,121,-0.007884722,0.26711446,-0.21320781,0.035389043,-0.03407016,-0.04835318,0.0,0.0,0.0,-0.033594616,0.34654135,-0.32539657,0.09423007,-0.15143408,-0.16421175,-0.17541161,0.20014453,0.36537808,-0.039239466,-0.1930057,0.03868702,0.14962551,0.03208117,0.12448632,0.019998608,-0.043762315,-0.0807936,-0.050549567,0.04124798,0.16066234,-0.11627091,-0.0022642605,0.04293027,0.13400228,-2.0,2.0,2.0,-2.0,-2.0,-2.0,2.0,2.0,-2.0,2.0,-2.0,2.0,-2.0,2.0,-2.0,-2.0,-2.0,0.15369387,2.0,-2.0,2.0,2.0,-2.0,2.0
2025-07-18 16:41:52.178,2.4400000000000017,2440,122,0.18392956,-0.094061784,-0.13203882,0.09026495,-0.024681903,0.022371119,0.0,0.0,0.0,-0.030889163,0.33264157,-0.2429317,0.027076455,-0.19000195,-0.25251946,-0.14032672,0.21783844,0.36174566,0.012011252,-0.17983596,0.017609634,0.18176545,-0.09495717,0.16695176,-0.16870694,-0.12532093,-0.32555938,0.017340563,0.10244291,-0.10023349,0.16600934,0.019074032,-0.117380016,0.07103839,-2.0,2.0,-2.0,-2.0,-2.0,0.15369387,2.0,-2.0,2.0,2.0,-2.0,2.0,-2.0,2.0,-2.0,-2.0,-2.0,2.0,2.0,-2.0,2.0,2.0,2.0,-2.0
2025-07-18 16:41:52.198,2.4600000000000017,2460,123,-0.15117034,-0.012825262,0.062274043,0.1073791,-0.05370724,-0.03614367,0.0,0.0,0.0,-0.028155964,0.3027769,-0.13583848,-0.034952283,-0.21644121,-0.3458089,-0.053775977,0.24569601,0.27514818,0.056716178,-0.1412935,0.07501522,0.09883405,-0.12180915,0.25410125,-0.17984508,-0.08380949,-0.24238865,0.119517624,-0.021061357,-0.25720406,0.056180347,0.08171992,0.30185086,-0.21278228,-2.0,2.0,-2.0,-2.0,-2.0,2.0,2.0,-2.0,2.0,2.0,2.0,-2.0,2.0,2.0,-2.0,-2.0,1.1027237,2.0,2.0,2.0,2.0,2.0,2.0,-2.0
2025-07-18 16:41:52.219,2.4800000000000018,2480,124,0.10141802,0.30266654,0.07233627,0.057446167,-0.038605165,0.01723851,0.0,0.0,0.0,-0.027848467,0.30694216,-0.028786626,-0.09055939,-0.23366538,-0.37500003,0.0074760662,0.27310288,0.24071431,0.09939504,-0.0879555,0.2045538,0.037719015,0.03710189,0.34252682,-0.14514649,-0.07969664,0.15429592,0.12499534,0.09456141,0.07959877,0.08325632,0.18691212,0.34527016,-0.10286366,2.0,2.0,-2.0,-2.0,1.1027237,2.0,2.0,2.0,2.0,2.0,2.0,-2.0,2.0,-2.0,-2.0,2.0,-2.0,2.0,-2.0,-2.0,2.0,0.31485793,2.0,-2.0
2025-07-18 16:41:52.238,2.5000000000000018,2500,125,-0.29482433,-0.3064706,-0.010340508,0.08164777,0.009406711,-0.047534697,0.0,0.0,0.0,-0.029403808,0.30967563,0.017729023,-0.11533019,-0.21431945,-0.4004604,0.046170194,0.24715023,0.23525867,0.13190795,-0.06869955,0.31267783,-0.034342334,0.013189499,-0.10287518,-0.15591703,0.1631381,-0.23543654,0.10138416,-0.103688814,-0.069039315,0.14445366,0.057202846,0.3103327,-0.09568156,2.0,-2.0,-2.0,2.0,-2.0,2.0,-2.0,-2.0,2.0,0.31485793,2.0,-2.0,2.0,-2.0,-2.0,-2.0,2.0,2.0,0.9954661,-2.0,2.0,1.5554023,2.0,-2.0
2025-07-18 16:41:52.258,2.520000000000002,2520,126,-0.30037358,-0.37754455,0.25843945,0.032833118,0.0059003583,-0.004924301,0.0,0.0,0.0,-0.030297646,0.31332242,-0.046644777,-0.16298895,-0.22661471,-0.42815024,0.098060094,0.22603016,0.18227492,0.17415261,-0.010681678,0.41091543,-0.07762387,0.06825962,-0.32790035,-0.07590966,-0.11525721,-0.030983703,0.060823012,0.028036749,-0.19137937,0.06391758,0.07033601,0.20349337,-0.082613945,2.0,-2.0,-2.0,-2.0,2.0,2.0,0.9954661,-2.0,2.0,1.5554023,2.0,-2.0,2.0,-1.2023042,-2.0,2.0,2.0,2.0,-2.0,2.0,2.0,-2.0,2.0,-2.0
2025-07-18 16:41:52.278,2.540000000000002,2540,127,-0.16028328,0.23315257,0.09090382,0.05869922,0.022516478,0.02579817,0.0,0.0,0.0,-0.03443118,0.32389733,-0.12697689,-0.17604758,-0.25737986,-0.40194297,0.12335619,0.20913205,0.20217502,0.19023249,-0.0429615,0.480966,-0.11310345,0.08564717,-0.21740718,-0.06870686,0.0072277575,0.13078451,-0.003909563,-0.07768545,0.11559461,0.1097626,-0.09789431,0.16599524,-0.12239712,2.0,-1.2023042,-2.0,2.0,2.0,2.0,-2.0,2.0,2.0,-2.0,2.0,-2.0,2.0,-2.0,2.0,2.0,2.0,-2.0,-2.0,-2.0,2.0,-2.0,-2.0,-1.5808043
2025-07-18 16:41:52.298,2.560000000000002,2560,128,0.0139524,-0.048308447,-0.021812096,0.040413115,0.051918328,0.0058085765,0.0,0.0,0.0,-0.03731461,0.31932917,-0.2538389,-0.10103461,-0.24047369,-0.33132815,0.036088746,0.19249569,0.25040781,0.22345617,-0.08366789,0.4841078,-0.14543068,-0.020685423,-0.24106118,0.25338924,0.06574346,0.17649856,-0.27004993,-0.14441253,0.10723836,0.1253313,-0.11625805,-0.20939942,-0.02883967,2.0,-2.0,2.0,2.0,2.0,-2.0,-2.0,-2.0,2.0,-2.0,-2.0,-1.5808043,2.0,-2.0,2.0,2.0,2.0,-2.0,-2.0,-2.0,2.0,-2.0,-2.0,2.0
2025-07-18 16:41:52.319,2.580000000000002,2580,129,0.2051429,-0.10103688,-0.1074138,-0.003579626,-0.0006330443,0.024219455,0.0,0.0,0.0,-0.036865655,0.33875108,-0.3457662,-0.03936366,-0.22522634,-0.27475747,-0.02762174,0.15078153,0.25539115,0.22862123,-0.13264054,0.35942474,-0.0800643,-0.028954722,-0.20369563,0.15276057,-0.032422543,0.06210144,-0.17743738,-0.14954002,0.023699757,0.08853,-0.058117453,-0.34520328,0.16814415,2.0,-2.0,2.0,2.0,2.0,-2.0,-2.0,-2.0,2.0,-2.0,-2.0,2.0,2.0,-2.0,2.0,2.0,2.0,-2.0,-2.0,-2.0,-2.0,-2.0,-2.0,2.0
2025-07-18 16:41:52.342,2.600000000000002,2600,130,0.1811562,-0.32074872,-0.13027482,0.0072037852,-0.049656205,0.044900402,0.0,0.0,0.0,-0.035331767,0.33497262,-0.4360658,0.014592376,-0.22334498,-0.24168825,-0.08064531,0.11524585,0.2731995,0.16123593,-0.17646797,0.18832152,-0.0029278954,0.012059216,-0.21840124,0.16429575,-0.022001682,0.070507236,-0.13176617,-0.19388981,0.05782744,-0.15886927,-0.04137437,-0.4738303,0.20847061,2.0,-2.0,2.0,2.0,2.0,-2.0,-2.0,-2.0,-2.0,-2.0,-2.0,2.0,2.0,2.0,2.0,1.6613115,2.0,-2.0,-2.0,-2.0,-2.0,-2.0,2.0,2.0
2025-07-18 16:41:52.359,2.620000000000002,2620,131,-0.12918101,-0.07673707,-0.1256087,0.01615413,0.006077677,0.020498965,0.0,0.0,0.0,-0.03338316,0.336382,-0.4642499,0.07323422,-0.20580018,-0.1954558,-0.13560216,0.04874876,0.3058187,0.094636634,-0.20652275,0.1201933,0.040532377,-0.008867758,0.09092176,0.15493096,0.057941634,0.0947734,-0.05371547,-0.14633207,0.061994452,-0.24002637,-0.028276676,-0.0310047,0.04946161,2.0,2.0,2.0,1.6613115,2.0,-2.0,-2.0,-2.0,-2.0,-2.0,2.0,2.0,-0.7031529,2.0,2.0,-2.0,2.0,-2.0,2.0,2.0,-2.0,2.0,-1.3699973,2.0
2025-07-18 16:41:52.379,2.640000000000002,2640,132,-0.014271691,0.25334504,-0.01656402,0.0443331,-0.034576524,0.0066444166,0.0,0.0,0.0,-0.031386938,0.33868814,-0.423893,0.089415446,-0.21503243,-0.11992539,-0.17028187,0.06901035,0.3677511,0.029635483,-0.20732054,0.11636077,0.10634292,-0.030038783,0.15218332,0.056884546,-0.009691101,0.2527294,-0.031066552,0.14514518,0.15462373,-0.20231156,0.062731825,-0.019991742,0.12278006,-0.7031529,2.0,2.0,-2.0,2.0,-2.0,2.0,2.0,-2.0,2.0,-1.3699973,2.0,-2.0,2.0,2.0,-2.0,-2.0,-2.0,2.0,-2.0,-2.0,2.0,-2.0,2.0
2025-07-18 16:41:52.399,2.660000000000002,2660,133,0.050975695,0.019683328,-0.07071109,-0.035809442,-0.048774596,-0.023546372,0.0,0.0,0.0,-0.030080551,0.3335657,-0.39057797,0.11290412,-0.24752726,-0.097944096,-0.20234537,0.110326424,0.39086357,-0.03383496,-0.18965825,0.1165848,0.12888639,-0.028807348,0.0014809208,0.08988961,-0.0018040219,-0.056008562,-0.022705263,0.09032711,-0.06799992,-0.20007387,-0.01780257,-0.07567718,0.12462341,-2.0,2.0,2.0,-2.0,-2.0,-2.0,2.0,-2.0,-2.0,2.0,-2.0,2.0,-2.0,2.0,-0.12731633,-2.0,-2.0,-2.0,2.0,-2.0,-2.0,2.0,-2.0,2.0
2025-07-18 16:41:52.419,2.680000000000002,2680,134,0.062807076,-0.17420372,-0.010765342,0.0092369905,-0.06699034,0.042623077,0.0,0.0,0.0,-0.02867342,0.32362697,-0.35290328,0.10056278,-0.2520179,-0.17108482,-0.22171152,0.15799123,0.28381002,-0.07305525,-0.1857493,0.07449111,0.17429446,-0.07532122,0.10519967,-0.08972028,-0.03907376,-0.27935675,-0.106136896,0.041275498,-0.26455757,-0.14028347,0.10236321,-0.04142534,0.039360665,-2.0,2.0,-0.12731633,-2.0,-2.0,-2.0,2.0,-2.0,-2.0,2.0,-2.0,2.0,-2.0,2.0,-2.0,-2.0,-2.0,2.0,2.0,-2.0,2.0,2.0,-2.0,2.0
2025-07-18 16:41:52.439,2.700000000000002,2700,135,0.16206884,-0.29847777,-0.006184096,-0.031012407,-0.033803493,-0.004658676,0.0,0.0,0.0,-0.02741659,0.32288513,-0.2705031,0.017111259,-0.27524698,-0.28934667,-0.14606066,0.18580057,0.1304701,-0.019319624,-0.14755224,0.034014754,0.19170523,-0.108005725,0.19172591,-0.14458796,-0.09697396,-0.22839114,0.20925982,0.061583523,-0.51752764,0.19990012,0.03754459,-0.13717945,0.06971476,-2.0,2.0,-2.0,-2.0,-2.0,2.0,2.0,-2.0,2.0,2.0,-2.0,2.0,-2.0,2.0,-2.0,-2.0,-2.0,2.0,2.0,2.0,2.0,2.0,2.0,-2.0
2025-07-18 16:41:52.459,2.720000000000002,2720,136,-0.19580542,0.08078687,0.07329421,0.04016644,-0.09364454,0.03600046,0.0,0.0,0.0,-0.027299674,0.28992897,-0.16710694,-0.05095338,-0.2866342,-0.39428994,-0.06516681,0.203544,0.038857076,0.038576413,-0.10100742,0.073238924,0.13250443,-0.14886266,0.32435423,-0.12001354,-0.0810509,-0.1761382,0.21803986,0.014726802,0.0041810465,0.07756151,0.07902097,0.27397126,-0.2687784,-2.0,2.0,-2.0,-2.0,-2.0,2.0,2.0,2.0,2.0,2.0,2.0,-2.0,2.0,2.0,-2.0,-2.0,-2.0,2.0,2.0,2.0,2.0,2.0,2.0,-2.0
2025-07-18 16:41:52.479,2.740000000000002,2740,137,0.06729344,0.24474683,0.03651121,0.023678169,0.004999158,0.02349827,0.0,0.0,0.0,-0.028010052,0.29724044,-0.06602443,-0.10044427,-0.3004722,-0.47443166,0.0036142839,0.23111384,0.08422881,0.072823875,-0.03984011,0.19585252,0.04538609,-0.011240051,0.23503461,-0.07458171,-0.03143675,-0.24401657,0.19331133,0.009302164,0.2611942,0.0957601,0.21491462,0.2588759,-0.14825758,2.0,2.0,-2.0,-2.0,-2.0,2.0,2.0,2.0,2.0,2.0,2.0,-2.0,2.0,-0.30478984,-2.0,2.0,2.0,2.0,2.0,-2.0,2.0,2.0,2.0,-2.0
2025-07-18 16:41:52.500,2.760000000000002,2760,138,0.04336605,0.074101664,0.23478062,-0.00057822786,-0.07976949,0.02194619,0.0,0.0,0.0,-0.029215224,0.30096838,0.0019421645,-0.13218065,-0.2459077,-0.48140866,0.049986854,0.26380128,0.112165436,0.124811016,0.025099805,0.3126926,-0.024044499,0.01991607,-0.06752337,-0.03274002,0.26640832,0.076767296,0.11192339,0.014604337,-0.01507864,0.1395535,0.112687476,0.26398498,-0.14772636,2.0,-0.30478984,-2.0,2.0,2.0,2.0,2.0,-2.0,2.0,2.0,2.0,-2.0,2.0,-2.0,-2.0,2.0,2.0,2.0,-2.0,-2.0,2.0,-2.0,2.0,-2.0
2025-07-18 16:41:52.520,2.780000000000002,2780,139,-0.16588955,0.0747086,0.20956872,0.060555875,-0.041323267,-0.045405712,0.0,0.0,0.0,-0.032207835,0.30994123,-0.052238856,-0.15637372,-0.2089381,-0.42710125,0.095744066,0.26568803,0.099987134,0.16213283,-0.005088392,0.40666017,-0.070336014,-0.03211228,-0.26418358,-0.01134695,0.078300506,0.13990873,0.013441919,-0.040619202,-0.05023621,0.013337372,-0.14191793,0.25537372,-0.13740145,2.0,-2.0,-2.0,2.0,2.0,2.0,-2.0,-2.0,2.0,-2.0,2.0,-2.0,2.0,-2.0,2.0,2.0,2.0,-2.0,-2.0,-2.0,2.0,-2.0,-2.0,-0.18491168
2025-07-18 16:41:52.540,2.800000000000002,2800,140,-0.0020158514,-0.18044831,0.14547944,0.0580229,0.015398161,0.006787794,0.0,0.0,0.0,-0.036011513,0.31285027,-0.19580096,-0.09952541,-0.19863555,-0.3660231,0.017471118,0.24054262,0.08662711,0.19759795,-0.057947185,0.40855727,-0.052181076,0.03703193,-0.30982682,0.11931446,-0.027418422,0.1993667,-0.20323905,-0.1298902,0.0058490005,0.13284601,-0.1838327,-0.10235718,0.06160378,2.0,-2.0,2.0,2.0,2.0,-2.0,-2.0,-2.0,2.0,-2.0,-2.0,-0.18491168,2.0,-2.0,2.0,2.0,2.0,-2.0,-2.0,-2.0,2.0,-2.0,-2.0,2.0
2025-07-18 16:41:52.560,2.820000000000002,2820,141,-0.06079847,-0.23952074,0.088288754,0.0018821328,-0.07468956,0.024972413,0.0,0.0,0.0,-0.038783025,0.32607397,-0.28985608,-0.031444043,-0.19612247,-0.3152266,-0.039531652,0.21785465,0.08031088,0.22409944,-0.10719228,0.30154198,0.005027963,0.07908814,-0.17469433,0.10562316,0.013242094,0.17377177,-0.10977241,-0.063467346,-0.010231779,0.04361867,-0.038106985,-0.31356162,0.2073445,2.0,-2.0,2.0,2.0,2.0,-2.0,-2.0,-2.0,2.0,-2.0,-2.0,2.0,2.0,-2.0,2.0,2.0,2.0,-2.0,-2.0,-0.15778889,-2.0,-2.0,-2.0,2.0
2025-07-18 16:41:52.580,2.840000000000002,2840,142,-0.14070787,-0.31424496,0.11824201,-0.057642363,-0.045913823,0.017129375,0.0,0.0,0.0,-0.040823825,0.32845354,-0.3771792,0.02057328,-0.19906972,-0.267055,-0.10156774,0.17622851,0.063109614,0.14247261,-0.15200019,0.14786012,0.053715594,0.04062156,-0.19532299,0.09444703,-0.018743016,0.16234252,-0.13349932,-0.13492085,-0.060444474,-0.21988627,-0.0697236,-0.44152766,0.06072547,2.0,-2.0,2.0,2.0,2.0,-2.0,-2.0,-0.15778889,-2.0,-2.0,-2.0,2.0,2.0,2.0,2.0,2.0,2.0,-2.0,-2.0,2.0,-2.0,-2.0,2.0,2.0
2025-07-18 16:41:52.600,2.860000000000002,2860,143,-0.16158508,0.27874422,0.0007546781,-0.06835636,-0.05601655,0.0029125381,0.0,0.0,0.0,-0.043537088,0.34071076,-0.40315476,0.08302352,-0.1706767,-0.20368195,-0.14699447,0.13405111,0.14438546,0.071428195,-0.18244499,0.06195043,0.105445944,0.028923092,0.14524573,0.06436305,0.13030155,0.14774376,-0.119961634,-0.10961291,0.24918316,-0.25100493,-0.067645326,-0.073423736,0.111917235,2.0,2.0,2.0,2.0,2.0,-2.0,-2.0,2.0,-2.0,-2.0,2.0,2.0,-2.0,2.0,2.0,-2.0,2.0,-2.0,2.0,2.0,-2.0,2.0,1.0344169,2.0
2025-07-18 16:41:52.620,2.880000000000002,2880,144,-0.21231827,0.51049936,0.21446459,-0.041991234,0.018553289,-0.0062359027,0.0,0.0,0.0,-0.044699993,0.31598583,-0.35636353,0.11737955,-0.18154745,-0.101704784,-0.18475656,0.14762765,0.24599251,-0.0006489229,-0.18078513,0.10998851,0.1289383,-0.12768173,0.0972442,0.025317771,-0.0531514,0.27780014,-0.0072485083,0.13872996,0.2175777,-0.099097975,0.006333766,0.18681009,0.022144321,-2.0,2.0,2.0,-2.0,2.0,-2.0,2.0,2.0,-2.0,2.0,1.0344169,2.0,-2.0,2.0,2.0,-2.0,-2.0,-2.0,2.0,-2.0,-2.0,2.0,-2.0,2.0
2025-07-18 16:41:52.640,2.900000000000002,2900,145,0.06295576,0.10682528,0.1313383,-0.051473655,-0.0202207,-0.006777085,0.0,0.0,0.0,-0.04742638,0.28844184,-0.29389462,0.13928275,-0.20904727,-0.05382995,-0.19701202,0.17553668,0.29278052,-0.061019875,-0.17148533,0.15964706,0.15671451,-0.09045108,0.10676372,0.07712763,-0.053711295,-0.035653852,-0.092236534,0.13259432,-0.07217847,-0.05834241,-0.0010082975,0.02461002,0.05058477,-2.0,2.0,2.0,-2.0,-2.0,-2.0,2.0,-2.0,-2.0,2.0,-2.0,2.0,-2.0,2.0,1.288478,-2.0,-2.0,-0.3982225,2.0,-2.0,2.0,2.0,-2.0,2.0
2025-07-18 16:41:52.660,2.920000000000002,2920,146,0.066305384,-0.063884094,0.107281454,0.013443202,-0.0044885096,-0.035083696,0.0,0.0,0.0,-0.051047068,0.2800599,-0.24180731,0.13813391,-0.22608028,-0.12713815,-0.17769018,0.21146663,0.17875709,0.008627131,-0.14719255,0.17393649,0.19709739,-0.038972184,0.16298687,-0.010332864,-0.09772516,-0.26416638,0.05153986,-0.012504136,-0.36639664,0.11348628,0.12562159,-0.011804384,0.006811014,-2.0,2.0,1.288478,-2.0,-2.0,-0.3982225,2.0,-2.0,2.0,2.0,-2.0,2.0,-1.6749218,2.0,-2.0,-2.0,-2.0,2.0,2.0,2.0,2.0,2.0,-2.0,-2.0
2025-07-18 16:41:52.680,2.940000000000002,2940,147,0.17836508,-0.10396438,0.046749562,0.02152738,-0.0011593677,-0.03669592,0.0,0.0,0.0,-0.054135375,0.25118762,-0.15456162,0.053409327,-0.2435606,-0.24347804,-0.08853026,0.23701598,0.12959,0.05151222,-0.088294044,0.19197597,0.12242948,-0.0606278,0.18025663,-0.2216629,-0.009115697,-0.301999,0.23419762,0.008051061,0.081339054,0.10837269,0.10575507,0.099648945,-0.15181652,-1.6749218,2.0,-2.0,-2.0,-2.0,2.0,2.0,2.0,2.0,2.0,-2.0,-2.0,1.7777021,2.0,-2.0,-2.0,-2.0,2.0,2.0,-2.0,2.0,2.0,2.0,-2.0
2025-07-18 16:41:52.701,2.960000000000002,2960,148,-0.022155287,-0.03245573,0.095556125,-0.025790993,-0.04072896,-0.03163664,0.0,0.0,0.0,-0.05623926,0.27719328,-0.060623333,-0.0134240715,-0.27082425,-0.35963914,-0.035910502,0.2466221,0.09542838,0.10461127,-0.016431076,0.2711832,0.05644022,0.02919461,0.28032553,-0.17740494,0.028876143,-0.26433256,0.18395391,-0.008110344,-0.21064733,0.13168529,0.18334574,0.25142443,-0.19401294,1.7777021,2.0,-2.0,-2.0,-2.0,2.0,2.0,-2.0,2.0,2.0,2.0,-2.0,2.0,-2.0,-2.0,-1.9722887,2.0,2.0,2.0,2.0,2.0,2.0,2.0,-2.0
2025-07-18 16:41:52.721,2.980000000000002,2980,149,-0.123295285,0.095553435,0.15414602,-0.036082707,0.027285742,-0.03658252,0.0,0.0,0.0,-0.058421407,0.2809407,-0.008387184,-0.0681896,-0.28433645,-0.36776122,0.035090644,0.2727342,0.07886207,0.13150816,0.047785882,0.35878122,-0.01689604,0.05174871,-0.021808494,-0.13011825,-0.10246043,0.14456002,0.16697979,0.070646375,0.044936225,0.0866019,0.19521458,0.28041932,-0.18380229,2.0,-2.0,-2.0,-1.9722887,2.0,2.0,2.0,2.0,2.0,2.0,2.0,-2.0,2.0,-2.0,-2.0,2.0,-2.0,2.0,-2.0,-2.0,2.0,-2.0,2.0,-2.0
2025-07-18 16:41:52.741,3.000000000000002,3000,150,-0.40877026,-0.2416322,0.04397684,-0.042619172,-0.03488775,0.03466877,0.0,0.0,0.0,-0.06168654,0.2857177,-0.080489814,-0.09528503,-0.264222,-0.3958093,0.08228225,0.24620408,0.06937098,0.16948372,0.01515933,0.45449194,-0.062928945,0.046630163,-0.340995,-0.02840375,0.08421829,-0.09605904,0.09366363,-0.06996455,-0.044398345,0.11019464,-0.18532841,0.14573579,-0.15833627,2.0,-2.0,-2.0,2.0,-2.0,2.0,-2.0,-2.0,2.0,-2.0,2.0,-2.0,2.0,-2.0,-2.0,-2.0,2.0,2.0,2.0,-2.0,2.0,-2.0,2.0,-2.0
2025-07-18 16:41:52.761,3.0200000000000022,3020,151,-0.15001887,-0.07868374,0.28150007,-0.08962312,-0.022030894,-0.025442978,0.0,0.0,0.0,-0.06376691,0.30533165,-0.20725198,-0.1328185,-0.28447762,-0.41239208,0.10803308,0.2702147,0.029396392,0.18843965,-0.052891962,0.5263952,-0.11310089,0.068147205,-0.367507,-0.10003095,-0.043213878,0.01622313,0.0018701471,0.07849979,-0.06863047,0.024267288,-0.15636548,0.12094679,-0.12296666,2.0,-2.0,-2.0,-2.0,2.0,2.0,2.0,-2.0,2.0,-2.0,2.0,-2.0,2.0,-2.0,2.0,2.0,2.0,-2.0,-2.0,2.0,2.0,-2.0,-2.0,2.0
2025-07-18 16:41:52.781,3.0400000000000023,3040,152,0.00016537098,0.09572964,-0.039751884,-0.059412353,0.039191417,0.036234565,0.0,0.0,0.0,-0.06786477,0.30534202,-0.3276814,-0.07185813,-0.27256882,-0.34706104,0.03722721,0.2743094,0.03607375,0.20760399,-0.09413924,0.51079375,-0.047412325,-0.032018792,-0.3098417,0.11568944,-0.021477357,0.08762183,-0.18068963,0.08173314,0.0787988,0.035330676,-0.0808242,-0.20605208,0.11478806,2.0,-2.0,2.0,2.0,2.0,-2.0,-2.0,2.0,2.0,-2.0,-2.0,2.0,2.0,-2.0,2.0,2.0,2.0,-2.0,-2.0,-2.0,1.5290966,-2.0,-2.0,2.0
2025-07-18 16:41:52.804,3.0600000000000023,3060,153,0.1092016,0.010031214,0.005006057,-0.017896542,-0.005540665,0.044029377,0.0,0.0,0.0,-0.07068296,0.32312548,-0.42090082,-0.0055451733,-0.2758762,-0.28727165,-0.040969,0.2876549,0.060703393,0.22512652,-0.13950105,0.40754196,0.011324543,-0.0077788685,-0.16801736,0.18472569,-0.02845593,0.17244698,-0.1569327,-0.06808853,0.06664916,0.08010412,-0.054347917,-0.40731224,0.17597564,2.0,-2.0,2.0,2.0,2.0,-2.0,-2.0,-2.0,1.5290966,-2.0,-2.0,2.0,2.0,-2.0,2.0,2.0,2.0,-2.0,-2.0,-2.0,-2.0,-2.0,-2.0,2.0
2025-07-18 16:41:52.821,3.0800000000000023,3080,154,0.24348085,-0.19609948,0.01673775,-0.058024473,0.0328212,-0.0057651666,0.0,0.0,0.0,-0.07078325,0.31235126,-0.48776233,0.038246043,-0.25104916,-0.23430407,-0.09181714,0.27445635,0.08433516,0.13732712,-0.17198713,0.2599264,0.073007174,0.03867411,-0.19339901,0.10534199,0.024241025,0.09166946,-0.15508395,-0.08838653,0.10617193,-0.19061658,-0.06661419,-0.2623151,0.17588572,2.0,-2.0,2.0,2.0,2.0,-2.0,-2.0,-2.0,-2.0,-2.0,-2.0,2.0,2.0,2.0,2.0,2.0,2.0,-2.0,-2.0,-2.0,-2.0,-2.0,-2.0,2.0
2025-07-18 16:41:52.841,3.1000000000000023,3100,155,0.27433437,-0.30084375,-0.12301198,-0.008877264,-0.025351582,0.007514535,0.0,0.0,0.0,-0.07069733,0.32787707,-0.49754298,0.09608566,-0.23400415,-0.20602001,-0.14963049,0.24081774,0.092405654,0.07738667,-0.2020446,0.15838641,0.12267039,-0.009439236,0.07261837,0.12062427,0.056212317,0.04824227,-0.11891324,-0.12807675,0.053138737,-0.18583612,-0.07031312,-0.20858319,0.15712263,2.0,2.0,2.0,2.0,2.0,-2.0,-2.0,-2.0,-2.0,-2.0,-2.0,2.0,2.0,2.0,2.0,-2.0,2.0,-2.0,-0.7814652,2.0,-2.0,-2.0,-0.34576675,2.0
2025-07-18 16:41:52.861,3.1200000000000023,3120,156,-0.01721871,0.008483638,-0.30879077,-0.055021126,-0.023133952,0.03138101,0.0,0.0,0.0,-0.06861497,0.33070087,-0.48265097,0.12239612,-0.25710022,-0.15834911,-0.18177171,0.18109323,0.14265503,0.0023855127,-0.23633088,0.11265451,0.15984614,0.08979668,0.10757159,0.10472434,-0.09611963,0.20900287,-0.010791336,-0.0820955,0.2768433,-0.20463014,-0.026427181,-0.12233674,0.09871265,2.0,2.0,2.0,-2.0,2.0,-2.0,-0.7814652,2.0,-2.0,-2.0,-0.34576675,2.0,-2.0,2.0,2.0,-2.0,0.89911336,-2.0,2.0,2.0,-2.0,2.0,2.0,2.0
2025-07-18 16:41:52.881,3.1400000000000023,3140,157,-0.09967238,0.48705766,-0.0089754965,-0.050707478,-0.042609386,0.04036844,0.0,0.0,0.0,-0.064308375,0.33654574,-0.428437,0.15058805,-0.2553414,-0.06270925,-0.20703387,0.19405887,0.2551918,-0.053150065,-0.23326978,0.1444375,0.17734401,-0.010129369,0.07200625,0.07821345,-0.017353427,0.2932804,-0.103762336,0.0053173876,0.2303463,-0.1684867,-0.036088675,0.21903719,0.021202724,-2.0,2.0,2.0,-2.0,0.89911336,-2.0,2.0,2.0,-2.0,2.0,2.0,2.0,-2.0,2.0,2.0,-2.0,-2.0,-2.0,2.0,-2.0,-2.0,2.0,-2.0,2.0
2025-07-18 16:41:52.901,3.1600000000000024,3160,158,0.030251399,0.14380246,0.00027583123,-0.03216224,0.024522241,-0.022358654,0.0,0.0,0.0,-0.061760675,0.34579092,-0.36225116,0.15630329,-0.28811273,-0.062023886,-0.23010531,0.22619551,0.29364598,-0.09398356,-0.22330935,0.18092112,0.1920914,0.064613685,0.04035673,0.11524433,-0.0010563044,-0.05243666,0.018731564,0.077651866,-0.05388828,-0.06863303,-0.027935639,0.037132945,0.009423274,-2.0,2.0,2.0,-2.0,-2.0,-2.0,2.0,-2.0,-2.0,2.0,-2.0,2.0,-2.0,2.0,-2.0,-2.0,-2.0,1.2689077,2.0,-2.0,2.0,2.0,-2.0,2.0
2025-07-18 16:41:52.921,3.1800000000000024,3180,159,0.18663661,-0.062089283,0.044425327,0.04541833,0.0029205305,-0.0022333416,0.0,0.0,0.0,-0.061095875,0.31552953,-0.2898661,0.08065079,-0.29742685,-0.16337949,-0.15411694,0.23355746,0.18372108,-0.033105318,-0.20960411,0.18925829,0.233839,0.020899134,0.23126638,-0.1531545,0.03755204,-0.3360898,0.12376694,0.087055154,-0.29396674,0.15963238,0.07254614,-0.05985913,0.06303739,-2.0,2.0,-2.0,-2.0,-2.0,1.2689077,2.0,-2.0,2.0,2.0,-2.0,2.0,-2.0,2.0,-2.0,-2.0,-2.0,2.0,2.0,2.0,2.0,2.0,2.0,-2.0
2025-07-18 16:41:52.941,3.2000000000000024,3200,160,-0.17591757,0.16170244,0.096595384,-0.00071330206,-0.030099882,0.04030587,0.0,0.0,0.0,-0.06143022,0.29529592,-0.20679279,0.005902138,-0.29209918,-0.26946372,-0.087116696,0.2591912,0.14099331,0.02309853,-0.15215592,0.27367264,0.14256424,-0.09755533,0.23871447,-0.24297932,-0.05915542,-0.2892846,0.14760356,0.09818323,-0.005347506,0.17009287,0.07925582,0.27436537,-0.21985231,-2.0,2.0,-2.0,-2.0,-2.0,2.0,2.0,2.0,2.0,2.0,2.0,-2.0,2.0,2.0,-2.0,-2.0,-0.22885115,2.0,2.0,2.0,2.0,2.0,2.0,-2.0
2025-07-18 16:41:52.961,3.2200000000000024,3220,161,0.017910013,0.19491424,-0.0070431116,0.017782826,-0.012243419,-0.0403355,0.0,0.0,0.0,-0.06273007,0.2984867,-0.093049176,-0.058723923,-0.303631,-0.3147474,-0.015590311,0.2857028,0.1871852,0.06322342,-0.083801635,0.36575365,0.060560714,0.01127291,0.28085357,-0.20276631,-0.029501235,0.11073248,0.13319789,-0.0058645452,0.22345656,0.14305253,0.15268597,0.28664094,-0.1732491,2.0,2.0,-2.0,-2.0,-0.22885115,2.0,2.0,2.0,2.0,2.0,2.0,-2.0,2.0,-2.0,-2.0,2.0,-2.0,2.0,-2.0,-2.0,2.0,2.0,2.0,-2.0
2025-07-18 16:41:52.981,3.2400000000000024,3240,162,0.027575407,-0.26248178,-0.020514064,0.03745925,-0.024451341,0.015462668,0.0,0.0,0.0,-0.06382846,0.32151282,-0.042922284,-0.09845482,-0.2876027,-0.34645584,0.034843076,0.26419222,0.19571991,0.11152666,-0.009288066,0.44638798,0.0060885297,0.083714746,0.0018293847,-0.13777989,0.045265626,-0.07261601,0.07808761,-0.008196562,-0.02468925,0.084285386,0.21910112,0.12768887,-0.21949139,2.0,-2.0,-2.0,2.0,-2.0,2.0,-2.0,-2.0,2.0,2.0,2.0,-2.0,2.0,-2.0,-2.0,0.15373935,2.0,2.0,-2.0,-2.0,2.0,-2.0,2.0,-2.0
2025-07-18 16:41:53.002,3.2600000000000025,3260,163,-0.04013132,-0.0953677,0.052707884,-0.03405287,0.0251928,-0.0013614848,0.0,0.0,0.0,-0.0643529,0.32840016,-0.09925139,-0.13445246,-0.27932245,-0.362402,0.076323576,0.24586283,0.18147212,0.15206683,-0.029191047,0.51754594,-0.055982746,0.012875462,-0.22993544,-0.029211147,-0.022642916,0.051307116,0.117874816,-0.041484788,-0.07164392,0.077236675,-0.19441913,0.21365905,-0.12850927,2.0,-2.0,-2.0,0.15373935,2.0,2.0,-2.0,-2.0,2.0,-2.0,2.0,-2.0,2.0,-2.0,-0.47341165,2.0,2.0,1.5963405,-2.0,-2.0,2.0,-2.0,-2.0,-2.0
2025-07-18 16:41:53.022,3.2800000000000025,3280,164,0.2397298,-0.11541119,0.043006204,-0.012944627,-0.054659523,-0.04192293,0.0,0.0,0.0,-0.064081885,0.32875758,-0.22285073,-0.11826373,-0.2758158,-0.33407775,0.095119864,0.20580469,0.16319883,0.18295634,-0.08871349,0.5184463,-0.09994487,-0.055581227,-0.31717256,-0.0020394216,0.08400163,0.067360006,0.0289692,-0.019876244,-0.07077263,0.13476379,-0.056132015,-0.13352351,-0.068395495,2.0,-2.0,-0.47341165,2.0,2.0,1.5963405,-2.0,-2.0,2.0,-2.0,-2.0,-2.0,2.0,-2.0,2.0,2.0,2.0,-2.0,-2.0,-2.0,2.0,-2.0,-2.0,2.0
2025-07-18 16:41:53.042,3.3000000000000025,3300,165,0.30104607,-0.27131087,-0.07457935,0.0252216,0.0021349264,0.013953656,0.0,0.0,0.0,-0.06439801,0.3311496,-0.3292561,-0.043121595,-0.25011066,-0.29745156,0.0235256,0.17491452,0.13201219,0.20525736,-0.12870854,0.3947969,-0.03063802,-0.014002577,-0.22144425,0.15546483,0.08061658,0.13477132,-0.17677996,-0.12381715,-0.13045023,0.054908775,-0.09785992,-0.3639457,0.19322231,2.0,-2.0,2.0,2.0,2.0,-2.0,-2.0,-2.0,2.0,-2.0,-2.0,2.0,2.0,-2.0,2.0,2.0,2.0,-2.0,-2.0,-2.0,-2.0,-2.0,-2.0,2.0
2025-07-18 16:41:53.062,3.3200000000000025,3320,166,0.08338211,-0.38702694,0.026831666,-0.035215497,-0.028513066,0.0425342,0.0,0.0,0.0,-0.06402629,0.3366243,-0.41496786,0.014984781,-0.22418372,-0.2645469,-0.054172266,0.14314282,0.12259014,0.143434,-0.17472975,0.22475001,0.023161039,0.057546802,-0.193689,0.08454126,0.00778572,0.11311862,-0.09749761,-0.105597444,0.031906385,-0.1628688,-0.058951877,-0.4576076,0.21215609,2.0,-2.0,2.0,2.0,2.0,-2.0,-2.0,-2.0,-2.0,-2.0,-2.0,2.0,2.0,2.0,2.0,2.0,2.0,-2.0,-2.0,0.5629262,-2.0,-2.0,2.0,2.0
2025-07-18 16:41:53.085,3.3400000000000025,3340,167,-0.0013952105,0.13407503,-0.114820704,-0.042307563,-0.067905195,0.04438894,0.0,0.0,0.0,-0.063472345,0.3362774,-0.44904605,0.06348646,-0.19264404,-0.19923005,-0.094579555,0.08200843,0.13584034,0.058570486,-0.20256665,0.14549297,0.062746696,0.060959592,-0.025016354,0.09731572,0.16295363,0.13882829,-0.111584194,-0.25496727,0.07703276,-0.11667332,-0.04061275,-0.10259717,0.11550509,2.0,2.0,2.0,2.0,2.0,-2.0,-2.0,0.5629262,-2.0,-2.0,2.0,2.0,-2.0,2.0,2.0,-2.0,2.0,-2.0,2.0,2.0,-2.0,-0.49432954,0.64337903,2.0
2025-07-18 16:41:53.102,3.3600000000000025,3360,168,-0.38559154,0.48105118,0.07495902,-0.017512696,-0.067908525,0.041922245,0.0,0.0,0.0,-0.06238385,0.30891794,-0.39814404,0.099613406,-0.20758377,-0.082897305,-0.14822951,0.08748145,0.21894012,0.008542641,-0.18738651,0.16679211,0.10484149,-0.09187196,0.22784548,0.1283375,-0.089063086,0.40213412,-0.0997954,0.13543907,0.27346513,-0.10573851,0.07246944,0.07436622,0.08146668,-2.0,2.0,2.0,-2.0,2.0,-2.0,2.0,2.0,-2.0,-0.49432954,0.64337903,2.0,-2.0,2.0,2.0,-2.0,-2.0,-2.0,2.0,2.0,-2.0,2.0,-2.0,2.0
2025-07-18 16:41:53.122,3.3800000000000026,3380,169,-0.19678608,0.40103212,0.0017782963,-0.0008231659,0.048212066,0.024466956,0.0,0.0,0.0,-0.062616095,0.26682466,-0.32154816,0.13195686,-0.23912887,-0.027795395,-0.17580684,0.13381669,0.3185689,-0.04988264,-0.14348914,0.16450134,0.15180165,-0.055286806,0.17585456,0.07947759,-0.062782146,0.047161683,-0.023205912,0.14590581,0.25115737,-0.13544703,0.09562394,0.054359518,0.11846647,-2.0,2.0,2.0,-2.0,-2.0,-2.0,2.0,2.0,-2.0,2.0,-2.0,2.0,-2.0,2.0,2.0,-2.0,-2.0,-2.0,2.0,-2.0,-2.0,2.0,-2.0,2.0
2025-07-18 16:41:53.142,3.4000000000000026,3400,170,-0.08675598,0.107955016,-0.014286766,0.0013671919,-0.0043378505,0.01033221,0.0,0.0,0.0,-0.062486768,0.25577608,-0.2616716,0.13565022,-0.25666323,-0.08683015,-0.18873653,0.17496821,0.3479616,-0.09970353,-0.13998254,0.15001386,0.18264581,-0.020053208,0.10938653,0.10911184,-0.071394876,-0.31440654,0.007941034,0.08006911,-0.18054762,-0.028805742,0.06724979,-0.076153226,0.012070927,-2.0,2.0,2.0,-2.0,-2.0,-2.0,2.0,-2.0,-2.0,2.0,-2.0,2.0,-2.0,2.0,-2.0,-2.0,-2.0,2.0,2.0,-2.0,2.0,2.0,-2.0,2.0
2025-07-18 16:41:53.162,3.4200000000000026,3420,171,0.08242352,-0.15624958,0.1091967,0.00941111,0.04162501,0.04559488,0.0,0.0,0.0,-0.06204807,0.23740728,-0.18335272,0.065023944,-0.26607177,-0.2170166,-0.11937823,0.20207748,0.23430333,-0.03542424,-0.12058149,0.15132454,0.21562132,-0.111623615,0.1381825,-0.19826934,-0.040502436,-0.25927675,0.13394016,0.039125323,-0.37802258,0.13412112,0.027089287,-0.017446317,0.06042102,-2.0,2.0,-2.0,-2.0,-2.0,2.0,2.0,-2.0,2.0,2.0,-2.0,2.0,-2.0,2.0,-2.0,-2.0,-2.0,2.0,2.0,2.0,2.0,2.0,2.0,-2.0
2025-07-18 16:41:53.182,3.4400000000000026,3440,172,-0.09767876,0.09946355,0.15527356,-0.0138188405,0.053762548,-0.041925777,0.0,0.0,0.0,-0.06290573,0.20472056,-0.08225334,0.0046050134,-0.2865101,-0.32157192,-0.05245439,0.22379826,0.1905586,0.023629129,-0.08885217,0.22220959,0.12373324,-0.03816146,0.19650471,-0.20428054,-0.0608005,-0.18321747,0.108387746,0.016405677,0.016987061,0.20537567,0.11757945,0.35163176,-0.28690028,-2.0,2.0,-2.0,-2.0,-2.0,2.0,2.0,2.0,2.0,2.0,2.0,-2.0,2.0,2.0,-2.0,-2.0,-2.0,2.0,2.0,2.0,2.0,2.0,2.0,-2.0
2025-07-18 16:41:53.202,3.4600000000000026,3460,173,0.15965527,0.1862014,0.08924309,0.017249394,-0.019072117,0.049369,0.0,0.0,0.0,-0.06497277,0.21802288,0.030111076,-0.05312897,-0.2865422,-0.41951153,0.019036105,0.24783595,0.24698316,0.06656947,-0.017424928,0.32612768,0.06247851,0.1480235,0.35929084,-0.098100886,0.016932106,-0.17150332,0.079756245,0.00967779,0.23598313,0.12690921,0.212286,0.29449522,-0.13824767,2.0,2.0,-2.0,-2.0,-2.0,2.0,2.0,2.0,2.0,2.0,2.0,-2.0,2.0,-2.0,-2.0,2.0,2.0,2.0,-2.0,-2.0,2.0,2.0,2.0,-2.0
2025-07-18 16:41:53.222,3.4800000000000026,3480,174,0.20006105,0.026806032,0.11584348,0.059555482,0.034715634,0.04746534,0.0,0.0,0.0,-0.06663631,0.23150046,0.06507011,-0.10171809,-0.24771185,-0.42615888,0.0730039,0.19079255,0.27821806,0.115410894,0.05476593,0.42837933,-0.016821753,0.046607736,-0.10104101,-0.06091491,0.27055708,0.13177454,0.14813513,-0.28906673,-0.117324986,0.091880575,0.16794458,0.25467566,-0.18275997,2.0,-2.0,-2.0,2.0,2.0,2.0,-2.0,-2.0,2.0,2.0,2.0,-2.0,2.0,-2.0,-2.0,2.0,2.0,2.0,-2.0,-2.0,2.0,-2.0,2.0,-2.0
2025-07-18 16:41:53.242,3.5000000000000027,3500,175,-0.021368917,0.0032861573,0.15750803,-0.005985411,0.06786016,-0.03279643,0.0,0.0,0.0,-0.06891629,0.26637563,0.00041321,-0.12981355,-0.1809245,-0.38844505,0.09905115,0.13608079,0.24773395,0.15866482,0.009450605,0.49537706,-0.06936284,0.01540828,-0.25885752,-0.028024552,0.0354314,0.114752464,0.089737535,-0.027705137,-0.054361712,0.08367015,-0.23584124,0.18170635,-0.110664725,2.0,-2.0,-2.0,2.0,2.0,2.0,-2.0,-2.0,2.0,-2.0,2.0,-2.0,2.0,-2.0,0.9262837,2.0,2.0,-2.0,-2.0,-2.0,2.0,-2.0,-2.0,-1.2852049
2025-07-18 16:41:53.262,3.5200000000000027,3520,176,0.05734768,-0.27376023,-0.00025393718,-0.028495539,0.0020343706,-0.039601393,0.0,0.0,0.0,-0.071677506,0.27690428,-0.13026713,-0.09341177,-0.17564048,-0.32896218,0.027815485,0.109341264,0.24601108,0.17616846,-0.042915653,0.47289133,-0.07932731,-0.0031817278,-0.3046978,0.074730285,0.072358645,0.14056537,-0.24478939,-0.019286728,-0.061445847,0.0041738395,-0.09493492,-0.17146568,-0.028422542,2.0,-2.0,0.9262837,2.0,2.0,-2.0,-2.0,-2.0,2.0,-2.0,-2.0,-1.2852049,2.0,-2.0,2.0,2.0,2.0,-2.0,-2.0,-2.0,2.0,-2.0,-2.0,2.0
2025-07-18 16:41:53.283,3.5400000000000027,3540,177,0.008031787,-0.22171675,-0.06974079,-0.02603301,-0.0074056825,0.043307826,0.0,0.0,0.0,-0.072639726,0.2924956,-0.2501412,-0.03337548,-0.1554596,-0.2734849,-0.04867476,0.06695237,0.24081752,0.21967651,-0.103169486,0.36603755,-0.028072221,0.025220482,-0.20725398,0.22841403,-0.065095015,0.14374943,-0.16493876,-0.021732638,-0.028679132,0.007556385,-0.12128671,-0.42666668,0.13694234,2.0,-2.0,2.0,2.0,2.0,-2.0,-2.0,-2.0,2.0,-2.0,-2.0,2.0,2.0,-2.0,2.0,2.0,2.0,-2.0,-2.0,-2.0,-2.0,-2.0,-2.0,2.0
2025-07-18 16:41:53.302,3.5600000000000027,3560,178,-0.05075043,-0.32022882,-0.044802364,0.01004933,0.012453668,0.00018685054,0.0,0.0,0.0,-0.07215327,0.30650103,-0.34118992,0.036836166,-0.15694273,-0.2483447,-0.10765718,0.027086416,0.25564927,0.13617806,-0.14795832,0.19443054,0.042903088,-0.018363556,-0.1690606,0.18952218,0.0025935806,0.012587745,-0.07907741,-0.09866677,0.084485166,-0.20157547,-0.15430187,-0.46511573,0.16636778,2.0,-2.0,2.0,2.0,2.0,-2.0,-2.0,-2.0,-2.0,-2.0,-2.0,2.0,2.0,2.0,2.0,2.0,2.0,-2.0,-2.0,-2.0,-2.0,-2.0,2.0,2.0
2025-07-18 16:41:53.323,3.5800000000000027,3580,179,-0.07821549,-0.06820667,-0.062075257,0.013639423,-0.04882981,0.04014898,0.0,0.0,0.0,-0.0717654,0.30446675,-0.36973923,0.06855697,-0.16703194,-0.21662733,-0.15817608,-0.019218715,0.2475988,0.06688466,-0.16497199,0.12699623,0.087845825,0.050637722,-0.0021557917,0.15332185,0.122156836,0.036841642,-0.1407883,-0.18384726,0.09156399,-0.15207541,-0.14992301,-0.037523232,0.13149706,2.0,2.0,2.0,2.0,2.0,-2.0,-2.0,-2.0,-2.0,-2.0,2.0,2.0,2.0,2.0,2.0,-2.0,2.0,-2.0,2.0,2.0,-2.0,1.2472018,-2.0,2.0
2025-07-18 16:41:53.343,3.6000000000000028,3600,180,0.27364895,0.18805484,0.011738377,0.020316273,-0.07484969,-0.04757703,0.0,0.0,0.0,-0.0709118,0.32578287,-0.3529277,0.1087573,-0.16913453,-0.14722756,-0.19239223,0.0026057183,0.3206899,-0.0003757917,-0.16363256,0.11316399,0.12971947,0.051482476,0.15254885,0.078960344,-0.05101047,0.17873035,-0.10815671,0.08901556,0.23455286,-0.0901654,0.13662712,-0.017513748,0.11454464,2.0,2.0,2.0,-2.0,2.0,-2.0,2.0,2.0,-2.0,1.2472018,-2.0,2.0,-2.0,2.0,2.0,-2.0,-2.0,-2.0,2.0,-2.0,-2.0,2.0,-2.0,2.0
2025-07-18 16:41:53.363,3.6200000000000028,3620,181,0.10828993,-0.059423123,0.0064590275,-0.016405154,-0.021294218,-0.01445927,0.0,0.0,0.0,-0.07036055,0.33768684,-0.3090447,0.13809925,-0.20943807,-0.12423299,-0.20174848,0.07245212,0.3351461,-0.051048707,-0.12762487,0.099113666,0.15523387,0.027117684,0.1345952,-0.007053695,-0.07358381,-0.14134367,-0.098952204,0.12391296,-0.0437177,-0.1524129,0.10787188,-0.08709418,0.11003102,-2.0,2.0,2.0,-2.0,-2.0,-2.0,2.0,-2.0,-2.0,2.0,-2.0,2.0,-2.0,2.0,1.1234413,-2.0,-2.0,2.0,2.0,-2.0,2.0,2.0,-2.0,2.0
