openverse-orca/OrcaGym/log/simulation_log_20250605_103350.csv
timestamp,imu_angle_roll,imu_angle_pitch,imu_angle_yaw,imu_angular_velocity_roll,imu_angular_velocity_pitch,imu_angular_velocity_yaw,imu_acc_x,imu_acc_y,imu_acc_z,fl_joint1_pos,fl_joint1_vel,fl_joint1_torque,fl_joint2_pos,fl_joint2_vel,fl_joint2_torque,fl_joint3_pos,fl_joint3_vel,fl_joint3_torque,fr_joint1_pos,fr_joint1_vel,fr_joint1_torque,fr_joint2_pos,fr_joint2_vel,fr_joint2_torque,fr_joint3_pos,fr_joint3_vel,fr_joint3_torque,hl_joint1_pos,hl_joint1_vel,hl_joint1_torque,hl_joint2_pos,hl_joint2_vel,hl_joint2_torque,hl_joint3_pos,hl_joint3_vel,hl_joint3_torque,hr_joint1_pos,hr_joint1_vel,hr_joint1_torque,hr_joint2_pos,hr_joint2_vel,hr_joint2_torque,hr_joint3_pos,hr_joint3_vel,hr_joint3_torque,fl_force_x,fl_force_y,fl_force_z,fr_force_x,fr_force_y,fr_force_z,hl_force_x,hl_force_y,hl_force_z,hr_force_x,hr_force_y,hr_force_z,fl_hip_action,fl_thigh_action,fl_calf_action,fr_hip_action,fr_thigh_action,fr_calf_action,hl_hip_action,hl_thigh_action,hl_calf_action,hr_hip_action,hr_thigh_action,hr_calf_action
2025-06-05 10:33:50.257,-0.024921663,0.045653738,-0.022007208,0.013454771,-0.040494677,0.03196813,-2.9273462,0.0,0.0,0.0,0.004461113,-0.006916882,-0.00073471456,0.00024835608,-0.0024100929,-0.0012142871,0.004529294,-0.0028007936,-0.008281555,0.00072115735,0.004453481,0.0011807996,-0.038407814,-0.03462431,-0.016912026,0.0669726,0.02176428,0.055716123,0.02395855,-0.058073606,-0.04467554,-0.064426064,0.06396487,0.071153395,0.0,0.0,0.0,0.0,0.0,0.0,0.0,0.0,0.0,0.0,0.0,0.0,2.0,2.0,-2.0,-2.0,2.0,-2.0,2.0,-2.0,-2.0,2.0,-2.0,-2.0
2025-06-05 10:33:50.261,-0.08137495,-0.22271548,0.0014804327,0.01569375,-0.03562904,0.03269027,0.0,0.0,0.0,0.0,0.02484834,0.13173698,-0.08897167,-0.02073093,0.12636492,-0.08101869,0.028501129,-0.12242036,-0.0807601,0.03803299,-0.12381017,-0.0695231,0.051224235,0.32035807,-0.27231833,-0.07278872,0.345992,-0.26390094,0.048749354,-0.43978333,-0.15386222,0.09510501,-0.3224347,-0.14950177,2.0,2.0,-2.0,-2.0,2.0,-2.0,2.0,-2.0,-2.0,2.0,-2.0,-2.0,2.0,2.0,-2.0,-2.0,2.0,-2.0,2.0,-2.0,-2.0,2.0,-2.0,-2.0
2025-06-05 10:33:50.282,-0.07521575,-0.20820884,-0.11240571,0.0150793595,0.026089571,0.02561575,0.0,0.0,0.0,0.0002866643,0.03532721,0.24131177,-0.14532964,-0.025933448,0.20881613,-0.14566661,0.058893237,-0.2627043,-0.11474156,0.062686235,-0.25684515,-0.14462925,0.02235666,0.2105046,-0.06659637,0.030328523,0.1790673,-0.1543218,0.026717808,-0.21211061,-0.061064683,0.03606101,-0.28046218,-0.21194287,2.0,2.0,-2.0,-2.0,2.0,-2.0,2.0,-2.0,-2.0,2.0,-2.0,-2.0,2.0,2.0,-2.0,-2.0,2.0,-2.0,2.0,-2.0,-2.0,2.0,-2.0,-2.0
2025-06-05 10:33:50.303,-0.14662686,-0.26842198,-0.09781212,0.028241094,-0.0068263873,-0.03938872,0.0,0.0,0.0,0.0014364207,0.05749451,0.30010402,-0.18232355,-0.044505592,0.26488313,-0.18409963,0.08480055,-0.35175565,-0.1655274,0.08409932,-0.3914599,-0.2178836,0.05089742,0.19224279,-0.07611047,0.048262972,0.113983996,-0.05295669,0.093218714,-0.27342927,-0.19250695,0.023658646,-0.2167412,-0.18776314,2.0,2.0,-2.0,-2.0,2.0,-2.0,2.0,-2.0,-2.0,2.0,-2.0,-2.0,2.0,2.0,-2.0,-2.0,2.0,-2.0,2.0,-2.0,-2.0,2.0,-2.0,-2.0
2025-06-05 10:33:50.323,-0.37260404,-0.09930372,-0.153289,0.06070213,-0.019600194,-0.020821748,0.0,0.0,0.0,0.0039155195,0.054446552,0.39059877,-0.23373629,-0.050759908,0.32147345,-0.21030998,0.10139559,-0.46261895,-0.22386289,0.091436476,-0.4837446,-0.2717934,-0.027527343,0.25317594,-0.124986514,0.019512422,0.13950914,-0.06317079,0.07089529,-0.30191123,-0.20843701,-0.015465847,-0.15637453,-0.1624673,2.0,2.0,-2.0,-2.0,2.0,-2.0,2.0,-2.0,-2.0,2.0,-2.0,-2.0,2.0,2.0,-2.0,-2.0,2.0,-2.0,2.0,-2.0,-2.0,2.0,-2.0,-2.0
2025-06-05 10:33:50.342,-0.42737982,0.020561663,-0.15806873,0.0699552,-0.0941168,0.014264828,0.0,0.0,0.0,0.006827801,0.07146841,0.48360562,-0.29555103,-0.059798643,0.4121527,-0.26658618,0.12912409,-0.54232556,-0.2754072,0.11381223,-0.5579839,-0.32254693,0.10247624,0.2712826,-0.15835123,-0.026346734,0.19875304,-0.12880576,0.08927503,-0.14348164,-0.09144691,0.10399545,-0.23128152,-0.08744584,2.0,2.0,-2.0,-2.0,2.0,-2.0,2.0,-2.0,-2.0,2.0,-2.0,-2.0,2.0,2.0,-2.0,-2.0,2.0,-2.0,2.0,-2.0,-2.0,2.0,-2.0,-2.0
2025-06-05 10:33:50.363,-0.40175194,0.05120613,-0.14243007,0.111154094,-0.10066663,-0.04671947,0.0,0.0,0.0,0.010392401,0.091890655,0.56641084,-0.3246769,-0.08489009,0.5059039,-0.30316013,0.1458203,-0.63085276,-0.32055727,0.122506745,-0.6370491,-0.35177004,0.009695366,0.20687889,-0.08009321,-0.088,0.21266109,-0.16471282,0.049250092,-0.16045891,-0.11338063,0.07828448,-0.2295536,-0.044294316,2.0,2.0,-2.0,-2.0,2.0,-2.0,2.0,-2.0,-2.0,2.0,-2.0,-2.0,2.0,2.0,-2.0,-2.0,2.0,-2.0,2.0,-2.0,-2.0,2.0,-2.0,-2.0
2025-06-05 10:33:50.383,-0.38275713,0.06995828,-0.14897989,0.10952504,-0.12008699,0.037603356,0.0,0.0,0.0,0.013922596,0.1178091,0.6356456,-0.354478,-0.10234727,0.5794469,-0.35729602,0.14363985,-0.68797857,-0.36245304,0.1379179,-0.6983043,-0.394266,0.07695181,0.22186323,-0.0931878,-0.032820508,0.24768913,-0.01405233,0.09238552,-0.07315602,-0.12592381,-0.0024338725,-0.13750407,-0.029670201,2.0,2.0,-2.0,-2.0,2.0,-2.0,2.0,-2.0,-2.0,2.0,-2.0,-2.0,2.0,2.0,-2.0,-2.0,2.0,-2.0,2.0,-2.0,-2.0,2.0,-2.0,-2.0
2025-06-05 10:33:50.406,-0.34845412,0.06747838,-0.09530009,0.04697549,-0.16165464,-0.0076057944,0.0,0.0,0.0,0.017348979,0.12599531,0.6839453,-0.3873583,-0.12798126,0.6632277,-0.37154055,0.15372238,-0.7274342,-0.37874174,0.15617852,-0.7395708,-0.41293412,0.0944465,0.18080227,-0.10471528,0.023534102,0.17103733,-0.11480653,0.042309802,-0.0832242,-0.017081067,0.028426835,-0.16425864,-0.113713786,2.0,2.0,-2.0,-2.0,2.0,-2.0,2.0,-2.0,-2.0,2.0,-2.0,-2.0,2.0,2.0,-2.0,-2.0,2.0,-2.0,2.0,-2.0,-2.0,2.0,-2.0,-2.0
2025-06-05 10:33:50.423,0.105248384,0.1479032,-0.15725997,0.039501958,-0.15719458,0.007947562,0.0,0.0,0.0,0.020785766,0.14968503,0.74204373,-0.41568038,-0.13505083,0.71333975,-0.41104078,0.16555354,-0.7922178,-0.36417678,0.16332825,-0.77080494,-0.44117555,0.013207698,0.09629633,-0.035817653,-0.08484751,0.12931444,-0.055557135,-0.029595096,-0.12691717,0.055273566,0.047116216,-0.059375744,-0.07133217,2.0,2.0,-2.0,-2.0,2.0,-2.0,2.0,-2.0,-2.0,2.0,-2.0,-2.0,2.0,2.0,-2.0,-2.0,2.0,-2.0,2.0,-2.0,-2.0,2.0,-2.0,-2.0
2025-06-05 10:33:50.443,0.22606206,-0.07148129,-0.16283733,0.12000643,-0.12821111,0.004849676,0.0,0.0,0.0,0.024773844,0.16367245,0.7891626,-0.40312248,-0.15114951,0.76176614,-0.4225316,0.18296276,-0.8208704,-0.3679552,0.17836948,-0.8060467,-0.44459137,0.032622885,0.071566865,0.093763776,-0.063586526,0.12736827,-0.016668081,0.067524925,-0.09547939,-0.039048184,0.059615657,-0.053773064,-0.051018327,2.0,2.0,-2.0,-2.0,2.0,-2.0,2.0,-2.0,-2.0,2.0,-2.0,-2.0,2.0,2.0,-2.0,-2.0,2.0,-2.0,2.0,-2.0,-2.0,2.0,-2.0,-2.0
2025-06-05 10:33:50.463,-0.010558828,-0.34483987,-0.13831705,0.13343118,-0.17257491,-0.0022041143,0.0,0.0,0.0,0.028107272,0.16956764,0.8102081,-0.39057833,-0.15229695,0.78147405,-0.42036265,0.19945656,-0.8605427,-0.380948,0.17747712,-0.8395006,-0.47057652,-0.06404226,0.01485276,0.07513293,-0.07273418,0.039824896,0.048231024,0.016813548,0.005376207,-0.09268213,0.010473691,-0.14088072,-0.09812805,2.0,2.0,-2.0,-2.0,2.0,-2.0,2.0,-2.0,-2.0,2.0,-2.0,-2.0,2.0,2.0,-2.0,-2.0,2.0,-2.0,2.0,-2.0,-2.0,2.0,-2.0,-2.0
2025-06-05 10:33:50.483,0.1586308,-0.3308618,-0.15775676,0.14341962,-0.08054361,-0.029834142,0.0,0.0,0.0,0.030649642,0.17667633,0.85366863,-0.39293727,-0.16174817,0.8197814,-0.40714318,0.19268706,-0.898186,-0.3857364,0.18092726,-0.8650151,-0.483608,-0.009570149,0.05025829,-0.055792827,0.028771006,0.1378207,0.011032243,0.009578835,-0.09155885,0.04961039,-0.037996195,0.023468288,0.0113608325,2.0,2.0,-2.0,-2.0,2.0,-2.0,2.0,-2.0,-2.0,2.0,-2.0,-2.0,2.0,2.0,-2.0,-2.0,2.0,-2.0,2.0,-2.0,-2.0,2.0,-2.0,-2.0
2025-06-05 10:33:50.505,-0.0062735225,-0.3080932,0.010631825,0.19648391,-0.14592072,-0.008301381,0.0,0.0,0.0,0.032410618,0.18161738,0.8760299,-0.4086033,-0.16194215,0.84433424,-0.37995303,0.20896822,-0.95105153,-0.3569992,0.17556305,-0.8711173,-0.48321527,-0.032145824,0.012526803,-0.0031205341,-0.02156545,0.052900694,0.0920121,0.03342756,-0.15275927,-0.03960896,0.021809341,-0.06743551,-0.050656762,2.0,2.0,-2.0,-2.0,2.0,-2.0,2.0,-2.0,-2.0,2.0,-2.0,-2.0,2.0,2.0,-2.0,-2.0,2.0,-2.0,2.0,-2.0,-2.0,2.0,-2.0,-2.0
2025-06-05 10:33:50.523,-0.14853865,-0.21030165,0.062005773,0.195402,-0.11693116,0.031746965,0.0,0.0,0.0,0.033460665,0.18327616,0.89441365,-0.43882275,-0.16162787,0.8654243,-0.39912722,0.18815368,-0.98797745,-0.37183762,0.17983347,-0.88450694,-0.5016216,-0.039795615,0.0043178713,-0.09885722,0.007451329,-0.03481735,-0.08142389,-0.05591907,-0.124929585,0.05595563,0.05247036,0.028976435,0.049773462,2.0,2.0,-2.0,-2.0,2.0,-2.0,2.0,-2.0,-2.0,2.0,-2.0,-2.0,2.0,2.0,-2.0,-2.0,2.0,-2.0,2.0,-2.0,-2.0,2.0,-2.0,-2.0
2025-06-05 10:33:50.543,-0.02069741,-0.21166874,0.014495028,0.22118868,-0.15396029,0.026472753,0.0,0.0,0.0,0.03312526,0.19394499,0.9017799,-0.44830453,-0.17441149,0.8732833,-0.4286482,0.1940188,-1.011841,-0.37486383,0.17636484,-0.89817196,-0.4938703,0.0031114582,0.03383342,-0.051051844,-0.033200163,-0.0041552926,-0.03815811,0.0074081384,-0.046149243,0.04279957,0.0087809805,-0.07423603,0.06315225,2.0,2.0,-2.0,-2.0,2.0,-2.0,2.0,-2.0,-2.0,2.0,-2.0,-2.0,2.0,2.0,-2.0,-2.0,2.0,-2.0,2.0,-2.0,-2.0,2.0,-2.0,-2.0
2025-06-05 10:33:50.564,-0.1367447,-0.03513063,0.05479258,0.19411995,-0.10315395,-0.019635359,0.0,0.0,0.0,0.033049375,0.19032717,0.9179643,-0.4565683,-0.1778117,0.8938149,-0.43427423,0.1890804,-1.018901,-0.3859499,0.1921821,-0.9191237,-0.49133572,0.069820926,0.09265849,-0.08510972,-0.009506583,-0.017457042,0.028541226,0.049113087,0.09095752,-0.11986792,0.017751683,-0.010547464,0.050812613,2.0,2.0,-2.0,-2.0,2.0,-2.0,2.0,-2.0,-2.0,2.0,-2.0,-2.0,2.0,2.0,-2.0,-2.0,2.0,-2.0,2.0,-2.0,-2.0,2.0,-2.0,-2.0
2025-06-05 10:33:50.584,-0.037380427,-0.04381547,-0.043083176,0.18592767,-0.107763395,0.010028543,0.0,0.0,0.0,0.033141717,0.20184897,0.9122693,-0.4760354,-0.17979574,0.9043208,-0.45962554,0.1906146,-1.032588,-0.40422514,0.1948383,-0.9193541,-0.5036273,-0.03356287,0.07881654,-0.028724166,0.01195169,0.0058427486,0.029591184,4.159121e-05,0.02970927,-0.038849987,0.016952982,-0.08268596,0.012058175,2.0,2.0,-2.0,-2.0,2.0,-2.0,2.0,-2.0,-2.0,2.0,-2.0,-2.0,2.0,2.0,-2.0,-2.0,2.0,-2.0,2.0,-2.0,-2.0,2.0,-2.0,-2.0
2025-06-05 10:33:50.606,-0.015125948,0.010173684,0.012274999,0.1599252,-0.13654372,0.007008757,0.0,0.0,0.0,0.033287648,0.20997459,0.92634577,-0.4847879,-0.19267446,0.91318417,-0.4707975,0.18437596,-1.032131,-0.4218993,0.19062753,-0.926697,-0.50923514,0.025690412,0.08605855,0.046438113,0.04759453,0.02554755,0.029177113,-0.061119296,-0.031349856,0.048489925,-0.059780758,0.05304858,0.035974078,2.0,2.0,-2.0,-2.0,2.0,-2.0,2.0,-2.0,-2.0,2.0,-2.0,-2.0,2.0,2.0,-2.0,-2.0,2.0,-2.0,2.0,-2.0,-2.0,2.0,-2.0,-2.0
2025-06-05 10:33:50.623,-0.02348998,0.033419147,0.04083132,0.15196882,-0.13980117,-0.019000823,0.0,0.0,0.0,0.033491284,0.21035436,0.92395306,-0.4858054,-0.19364586,0.93544847,-0.48630792,0.17845614,-1.0346003,-0.42537352,0.20423998,-0.9326577,-0.49924693,0.023980679,-0.019198017,0.025101652,-0.030147644,0.066511445,0.027304221,0.0060307165,-0.077286944,-0.021069413,-0.05804183,0.032233197,0.014421325,2.0,2.0,-2.0,-2.0,2.0,-2.0,2.0,-2.0,-2.0,2.0,-2.0,-2.0,2.0,2.0,-2.0,-2.0,2.0,-2.0,2.0,-2.0,-2.0,2.0,-2.0,-2.0
2025-06-05 10:33:50.644,-0.068704925,0.049176246,-0.034885198,0.1525599,-0.17627427,0.031163773,0.0,0.0,0.0,0.033716958,0.21960331,0.92417455,-0.5011072,-0.20120592,0.93007404,-0.49008536,0.18528448,-1.0406402,-0.42983094,0.19429988,-0.94121104,-0.5061925,0.059806097,0.0656318,-0.024460647,0.0070340987,0.07544997,-0.080944575,-0.05464964,0.03488248,0.039579686,-0.018395271,-0.052511703,-0.002987654,2.0,2.0,-2.0,-2.0,2.0,-2.0,2.0,-2.0,-2.0,2.0,-2.0,-2.0,2.0,2.0,-2.0,-2.0,2.0,-2.0,2.0,-2.0,-2.0,2.0,-2.0,-2.0
2025-06-05 10:33:50.664,-0.043698423,0.01356399,0.003782345,0.23717397,-0.13427588,-0.039085902,0.0,0.0,0.0,0.033896744,0.22177951,0.94129205,-0.51190424,-0.21253929,0.941641,-0.4930038,0.16761139,-1.0531272,-0.44758686,0.19024065,-0.939498,-0.5169063,-0.03167032,0.040337957,0.0146221975,-0.05766011,0.0072710216,0.013285418,-0.069138415,-0.03670185,-0.018706076,0.019802863,-0.06764007,0.024779566,2.0,2.0,-2.0,-2.0,2.0,-2.0,2.0,-2.0,-2.0,2.0,-2.0,-2.0,2.0,2.0,-2.0,-2.0,2.0,-2.0,2.0,-2.0,-2.0,2.0,-2.0,-2.0
2025-06-05 10:33:50.684,-0.028920557,0.06007831,0.029102275,0.19797432,-0.16680424,-0.043264374,0.0,0.0,0.0,0.034035522,0.20968041,0.93900865,-0.50263983,-0.22026071,0.9356317,-0.50595874,0.18396087,-1.0592934,-0.43873328,0.2003142,-0.9494597,-0.5080414,-0.06947445,0.031108396,-0.030978372,0.059384957,0.04135732,0.008235804,-0.00059848966,-0.041623536,0.026444841,-0.013748141,-0.035733033,-0.00097065204,2.0,2.0,-2.0,-2.0,2.0,-2.0,2.0,-2.0,-2.0,2.0,-2.0,-2.0,2.0,2.0,-2.0,-2.0,2.0,-2.0,2.0,-2.0,-2.0,2.0,-2.0,-2.0
2025-06-05 10:33:50.706,-0.036663096,0.06981036,-0.004730137,0.19541167,-0.13579507,0.048904322,0.0,0.0,0.0,0.03416624,0.21400243,0.9466729,-0.5145758,-0.21518283,0.93820536,-0.5128758,0.1730686,-1.0715113,-0.459755,0.18997037,-0.9403848,-0.5097102,0.009642928,-0.0027227874,-0.028076809,-0.041360065,0.0022020163,0.046539936,0.055072125,-0.033665143,-0.015902476,0.058389418,0.004386753,0.0135403685,2.0,2.0,-2.0,-2.0,2.0,-2.0,2.0,-2.0,-2.0,2.0,-2.0,-2.0,2.0,2.0,-2.0,-2.0,2.0,-2.0,2.0,-2.0,-2.0,2.0,-2.0,-2.0
2025-06-05 10:33:50.724,-0.094824255,0.122209884,0.011351631,0.18035418,-0.188137,0.042487454,0.0,0.0,0.0,0.03426882,0.22480826,0.9428851,-0.5200312,-0.21890946,0.9302278,-0.5042279,0.16879332,-1.0712575,-0.45471227,0.1990797,-0.94188595,-0.5202424,0.05943712,0.070500635,-0.036711954,-0.05553625,-0.042246822,0.05692291,-0.073979415,-0.009956716,-0.063282065,-0.06223603,0.07023136,-0.0107423505,2.0,2.0,-2.0,-2.0,2.0,-2.0,2.0,-2.0,-2.0,2.0,-2.0,-2.0,2.0,2.0,-2.0,-2.0,2.0,-2.0,2.0,-2.0,-2.0,2.0,-2.0,-2.0
2025-06-05 10:33:50.744,0.01400333,-0.01713165,-0.027476326,0.12899801,-0.18662572,-0.0008614712,0.0,0.0,0.0,0.03429565,0.22259785,0.94686455,-0.52277756,-0.20985647,0.92021227,-0.5123689,0.18050636,-1.086422,-0.4610895,0.20236202,-0.94662964,-0.51535493,0.02862934,0.03695072,-0.07757459,0.06787292,-0.057990473,-0.0631709,-0.03434519,0.034188624,-0.028693652,0.009445898,-0.014035226,-0.040513124,2.0,2.0,-2.0,-2.0,2.0,-2.0,2.0,-2.0,-2.0,2.0,-2.0,-2.0,2.0,2.0,-2.0,-2.0,2.0,-2.0,2.0,-2.0,-2.0,2.0,-2.0,-2.0
2025-06-05 10:33:50.764,-0.018179383,-0.09380026,-0.028995303,0.16163094,-0.13232063,0.03336256,0.0,0.0,0.0,0.034218196,0.22795977,0.9393805,-0.533746,-0.21757342,0.9134368,-0.52784276,0.1854823,-1.0782597,-0.4797561,0.1952677,-0.94489753,-0.5149555,0.011800261,-0.05399068,-0.070652455,0.049803544,-0.06361473,0.006260336,0.015197879,-0.022027405,0.04535278,0.013540027,-0.07282194,-0.016620422,2.0,2.0,-2.0,-2.0,2.0,-2.0,2.0,-2.0,-2.0,2.0,-2.0,-2.0,2.0,2.0,-2.0,-2.0,2.0,-2.0,2.0,-2.0,-2.0,2.0,-2.0,-2.0
2025-06-05 10:33:50.785,-0.015137396,-0.008290193,0.044522364,0.22046126,-0.17860259,-0.027385185,0.0,0.0,0.0,0.03410249,0.23622286,0.93260956,-0.5245904,-0.20089047,0.9213567,-0.5273583,0.18938832,-1.0765612,-0.48711407,0.19243972,-0.940743,-0.52875024,-0.05297644,-0.0043280674,-0.015627813,0.076342784,-0.077076815,-0.053407434,-0.06616732,-0.023753444,0.034659587,-0.069419675,0.036069877,0.019154623,2.0,2.0,-2.0,-2.0,2.0,-2.0,2.0,-2.0,-2.0,2.0,-2.0,-2.0,2.0,2.0,-2.0,-2.0,2.0,-2.0,2.0,-2.0,-2.0,2.0,-2.0,-2.0
2025-06-05 10:33:50.807,0.022975748,-0.010671743,-0.007093396,0.1576607,-0.21548645,-0.022818228,0.0,0.0,0.0,0.0340392,0.24126334,0.9246658,-0.52467805,-0.20964722,0.9085997,-0.5241769,0.1901799,-1.0822703,-0.48532242,0.20817876,-0.9586047,-0.519707,0.050587777,-0.042993248,0.047691554,-0.066551626,-0.07495764,0.0654673,0.012478761,-0.01565797,-0.061477486,0.005137522,-0.019326156,-0.0405481,2.0,2.0,-2.0,-2.0,2.0,-2.0,2.0,-2.0,-2.0,2.0,-2.0,-2.0,2.0,2.0,-2.0,-2.0,2.0,-2.0,2.0,-2.0,-2.0,2.0,-2.0,-2.0
2025-06-05 10:33:50.824,-0.012071189,0.03589987,0.00079971866,0.14533086,-0.130853,0.047207728,0.0,0.0,0.0,0.034066062,0.23601127,0.9319288,-0.52368367,-0.2080573,0.9025275,-0.5308616,0.17705971,-1.07689,-0.48836648,0.19162591,-0.95698714,-0.5254594,0.056219064,0.051754486,0.06381509,-0.07599527,-0.07629602,0.0094607035,-0.042882428,0.02914516,0.023990342,-0.0007981526,-0.056836925,-0.060112033,2.0,2.0,-2.0,-2.0,2.0,-2.0,2.0,-2.0,-2.0,2.0,-2.0,-2.0,2.0,2.0,-2.0,-2.0,2.0,-2.0,2.0,-2.0,-2.0,2.0,-2.0,-2.0
2025-06-05 10:33:50.844,0.032126363,0.025202809,-0.01934033,0.17053805,-0.16300547,-0.03315624,0.0,0.0,0.0,0.034163028,0.23881824,0.93122447,-0.5213974,-0.21921918,0.9126752,-0.5267797,0.1840124,-1.0883778,-0.48810467,0.20264111,-0.9562622,-0.5262174,0.034796763,-0.024693003,-0.035439253,-0.040472336,-0.0484189,0.04916668,-0.057469036,0.019649826,0.05149513,-0.070067994,-0.030502439,0.052963957,2.0,2.0,-2.0,-2.0,2.0,-2.0,2.0,-2.0,-2.0,2.0,-2.0,-2.0,2.0,2.0,-2.0,-2.0,2.0,-2.0,2.0,-2.0,-2.0,2.0,-2.0,-2.0
2025-06-05 10:33:50.865,-0.0026056457,0.0101631945,-0.00068873225,0.2077086,-0.20874877,0.037828386,0.0,0.0,0.0,0.03428473,0.23457706,0.9382634,-0.5233853,-0.21902081,0.90227383,-0.52900434,0.19455215,-1.0865356,-0.500562,0.20660874,-0.9467335,-0.52880454,-0.07267811,-0.051479723,0.0124051375,0.044098847,-0.04636463,0.07185137,0.009794547,-0.033938523,0.06677628,0.04310379,0.043038633,-0.015650624,2.0,2.0,-2.0,-2.0,2.0,-2.0,2.0,-2.0,-2.0,2.0,-2.0,-2.0,2.0,2.0,-2.0,-2.0,2.0,-2.0,2.0,-2.0,-2.0,2.0,-2.0,-2.0
2025-06-05 10:33:50.885,-0.056562982,0.026187902,0.009679247,0.23104797,-0.21401955,-0.015774861,0.0,0.0,0.0,0.03440824,0.23945908,0.93375146,-0.54224735,-0.20347103,0.9174159,-0.52819103,0.17655653,-1.0764961,-0.50952756,0.19426669,-0.95824486,-0.51516813,-0.03488952,0.03689379,0.027662428,0.015675304,0.0010546839,-0.02612952,-0.06688101,0.028126363,0.010840875,0.00036364308,-0.0078011733,-0.016405614,2.0,2.0,-2.0,-2.0,2.0,-2.0,2.0,-2.0,-2.0,2.0,-2.0,-2.0,2.0,2.0,-2.0,-2.0,2.0,-2.0,2.0,-2.0,-2.0,2.0,-2.0,-2.0
2025-06-05 10:33:50.907,0.0023142423,0.017542847,0.033142116,0.18746966,-0.1936095,-0.033892523,0.0,0.0,0.0,0.03452559,0.23159456,0.9377661,-0.5386085,-0.2177873,0.907434,-0.51629895,0.1849966,-1.0788993,-0.50201404,0.2038037,-0.9627196,-0.5135891,-0.03774535,0.050975874,0.051941823,-0.019589318,-0.034453858,0.060577504,0.047186956,0.02730215,0.008141848,0.049601596,-0.005076563,0.06470712,2.0,2.0,-2.0,-2.0,2.0,-2.0,2.0,-2.0,-2.0,2.0,-2.0,-2.0,2.0,2.0,-2.0,-2.0,2.0,-2.0,2.0,-2.0,-2.0,2.0,-2.0,-2.0
2025-06-05 10:33:50.925,0.013339292,-0.035773702,-0.04982612,0.18526936,-0.20513685,-0.02882092,0.0,0.0,0.0,0.03463203,0.2321672,0.93415827,-0.54298437,-0.2069643,0.9194384,-0.52147436,0.17998542,-1.0855613,-0.5063557,0.20818046,-0.96305776,-0.5164578,0.015349418,0.0145293195,-0.010743825,-0.039915062,-0.0358393,0.036753505,-0.051494468,0.025995675,-0.060390893,-0.0034096802,0.010133598,-0.045914937,2.0,2.0,-2.0,-2.0,2.0,-2.0,2.0,-2.0,-2.0,2.0,-2.0,-2.0,2.0,2.0,-2.0,-2.0,2.0,-2.0,2.0,-2.0,-2.0,2.0,-2.0,-2.0
2025-06-05 10:33:50.945,0.025142955,-0.0018450193,0.043938927,0.17784476,-0.19558461,-0.029390499,0.0,0.0,0.0,0.034727197,0.22338602,0.9327167,-0.5256423,-0.22019592,0.9121746,-0.52135515,0.1893412,-1.072118,-0.49932393,0.2125013,-0.9649296,-0.52327657,0.028075,-0.036592226,-0.02378221,0.03845244,0.006884739,0.006246648,0.03642611,-0.037400275,-0.06651763,0.070458874,-0.020795463,0.040728312,2.0,2.0,-2.0,-2.0,2.0,-2.0,2.0,-2.0,-2.0,2.0,-2.0,-2.0,2.0,2.0,-2.0,-2.0,2.0,-2.0,2.0,-2.0,-2.0,2.0,-2.0,-2.0
2025-06-05 10:33:50.964,0.041076876,0.043389305,-0.042560697,0.23917924,-0.21957825,-0.04431274,0.0,0.0,0.0,0.03481234,0.22420506,0.93388295,-0.5358438,-0.21107836,0.9039697,-0.53255713,0.18212654,-1.0842165,-0.5156295,0.20239949,-0.96294564,-0.5190716,-0.06882374,0.06616164,0.030944385,-0.004732025,-0.010239714,0.053043153,-0.041173246,-0.023563193,0.042325422,0.013622959,-0.053931933,0.014581023,2.0,2.0,-2.0,-2.0,2.0,-2.0,2.0,-2.0,-2.0,2.0,-2.0,-2.0,2.0,2.0,-2.0,-2.0,2.0,-2.0,2.0,-2.0,-2.0,2.0,-2.0,-2.0
2025-06-05 10:33:50.985,0.035113815,0.04264238,-0.049875796,0.23878445,-0.21661349,0.005201438,0.0,0.0,0.0,0.03488871,0.22860849,0.935288,-0.54195833,-0.20432079,0.90917426,-0.5208778,0.1861178,-1.0849171,-0.5034146,0.20046903,-0.96984565,-0.526472,-0.016523113,-0.00084215234,0.047596984,-0.018442092,-0.009479144,0.0028190261,0.031032301,0.030633844,-0.027464643,-0.056249395,-0.05139903,0.05384406,2.0,2.0,-2.0,-2.0,2.0,-2.0,2.0,-2.0,-2.0,2.0,-2.0,-2.0,2.0,2.0,-2.0,-2.0,2.0,-2.0,2.0,-2.0,-2.0,2.0,-2.0,-2.0
2025-06-05 10:33:51.007,0.023523865,-0.04605642,0.004378934,0.14566766,-0.21502091,0.027789172,0.0,0.0,0.0,0.03495713,0.22177881,0.934616,-0.531043,-0.20255405,0.92238104,-0.5214405,0.18172656,-1.084659,-0.5157976,0.21242175,-0.95981205,-0.5298684,-0.05793097,0.061705567,0.036581073,0.05195926,0.03491294,-0.033945095,-0.05787055,-0.073422626,-0.041401643,0.075311035,0.016519736,-0.062431894,2.0,2.0,-2.0,-2.0,2.0,-2.0,2.0,-2.0,-2.0,2.0,-2.0,-2.0,2.0,2.0,-2.0,-2.0,2.0,-2.0,2.0,-2.0,-2.0,2.0,-2.0,-2.0
2025-06-05 10:33:51.025,0.029701948,0.034878362,0.010070577,0.164242,-0.15085335,-0.047989044,0.0,0.0,0.0,0.035018135,0.23815084,0.934923,-0.54453915,-0.21108027,0.9096765,-0.5302135,0.19095372,-1.0744263,-0.51505685,0.19678898,-0.9516279,-0.52950567,-0.026256295,-0.03004031,0.028040336,-0.033570796,0.07249136,0.06878165,0.045867756,-0.009847004,-0.01775741,0.0059388923,0.022805583,0.049102098,2.0,2.0,-2.0,-2.0,2.0,-2.0,2.0,-2.0,-2.0,2.0,-2.0,-2.0,2.0,2.0,-2.0,-2.0,2.0,-2.0,2.0,-2.0,-2.0,2.0,-2.0,-2.0
2025-06-05 10:33:51.046,-0.016905162,0.040440314,-0.017372323,0.23052749,-0.23032588,-0.028167345,0.0,0.0,0.0,0.035072222,0.22458519,0.9393013,-0.5362303,-0.21417047,0.9162824,-0.5374173,0.17595458,-1.0861194,-0.5014816,0.20972845,-0.95471585,-0.51521534,-0.063827075,0.0074805105,-0.06968893,0.05057825,-0.050676316,-0.025778266,0.0016502852,0.07051562,0.03690612,0.061057482,-0.04323128,0.07414252,2.0,2.0,-2.0,-2.0,2.0,-2.0,2.0,-2.0,-2.0,2.0,-2.0,-2.0,2.0,2.0,-2.0,-2.0,2.0,-2.0,2.0,-2.0,-2.0,2.0,-2.0,-2.0
2025-06-05 10:33:51.066,-0.0045704166,-0.0278079,-0.009664871,0.17346886,-0.15866715,-0.04219742,0.0,0.0,0.0,0.035119995,0.22288868,0.9322692,-0.5274842,-0.21120538,0.91442674,-0.53356564,0.17595443,-1.0789934,-0.51808,0.20933422,-0.95916754,-0.5132278,-0.004814693,0.04379889,-0.03052815,0.038469285,-0.029878935,0.041199666,0.035301305,-0.049063932,-0.02899679,0.025550107,0.06466978,0.009149029,2.0,2.0,-2.0,-2.0,2.0,-2.0,2.0,-2.0,-2.0,2.0,-2.0,-2.0,2.0,2.0,-2.0,-2.0,2.0,-2.0,2.0,-2.0,-2.0,2.0,-2.0,-2.0
2025-06-05 10:33:51.086,0.021774016,-0.033364285,0.036819953,0.16906527,-0.21799241,0.0005928752,0.0,0.0,0.0,0.03516214,0.2328713,0.92906547,-0.5439991,-0.21562652,0.9064899,-0.52712923,0.18094675,-1.0761746,-0.5163163,0.20636767,-0.9637259,-0.5309943,-0.060239784,-0.041347746,0.012986454,0.0060590953,-0.019587977,-0.011250016,0.072480425,-0.0023007966,-0.014512014,0.04613598,0.004661148,0.07424336,2.0,2.0,-2.0,-2.0,2.0,-2.0,2.0,-2.0,-2.0,2.0,-2.0,-2.0,2.0,2.0,-2.0,-2.0,2.0,-2.0,2.0,-2.0,-2.0,2.0,-2.0,-2.0
2025-06-05 10:33:51.107,0.010087103,-0.039105166,-0.050800204,0.17303874,-0.15938938,-0.019772556,0.0,0.0,0.0,0.03519926,0.22756661,0.93086725,-0.5344178,-0.21114683,0.9076936,-0.5242076,0.19121008,-1.0733973,-0.52104276,0.2096187,-0.9550433,-0.5142348,-0.018046642,0.033840347,-0.05173375,0.053515073,0.042708714,-0.07286079,0.039568987,0.005215637,-0.0010575944,0.06149,0.050962113,0.02358845,2.0,2.0,-2.0,-2.0,2.0,-2.0,2.0,-2.0,-2.0,2.0,-2.0,-2.0,2.0,2.0,-2.0,-2.0,2.0,-2.0,2.0,-2.0,-2.0,2.0,-2.0,-2.0
2025-06-05 10:33:51.126,-0.04221364,0.030805077,0.003915677,0.2256019,-0.19844064,0.039118554,0.0,0.0,0.0,0.035230797,0.23235068,0.9211328,-0.52584404,-0.21631154,0.90731573,-0.52811486,0.18415721,-1.0720278,-0.5077857,0.21385448,-0.95313454,-0.52501225,0.036720768,0.022190504,-0.012503665,0.054609433,-0.0055913627,-0.04970431,0.060226455,-0.07464255,-0.0688969,0.038154535,0.00046816876,-0.06765951,2.0,2.0,-2.0,-2.0,2.0,-2.0,2.0,-2.0,-2.0,2.0,-2.0,-2.0,2.0,2.0,-2.0,-2.0,2.0,-2.0,2.0,-2.0,-2.0,2.0,-2.0,-2.0
2025-06-05 10:33:51.146,0.015005016,-0.047275938,0.034234818,0.17879233,-0.19745325,0.008498127,0.0,0.0,0.0,0.03525682,0.23228385,0.9255813,-0.5322853,-0.20644982,0.9192164,-0.5208015,0.17923926,-1.0866191,-0.51804364,0.21290341,-0.9567153,-0.53171605,0.04660418,-0.027898204,-0.06854129,-0.059169527,0.06438612,-0.03913544,0.029526688,-0.067454755,-0.022610608,-0.0068517104,0.041214418,0.04514446,2.0,2.0,-2.0,-2.0,2.0,-2.0,2.0,-2.0,-2.0,2.0,-2.0,-2.0,2.0,2.0,-2.0,-2.0,2.0,-2.0,2.0,-2.0,-2.0,2.0,-2.0,-2.0
2025-06-05 10:33:51.166,0.02736414,-0.015108183,-0.02738968,0.15617013,-0.19075115,-0.040588595,0.0,0.0,0.0,0.03527816,0.2263958,0.9382121,-0.5441268,-0.20773129,0.91888446,-0.5267668,0.1770491,-1.0743424,-0.51116943,0.1970321,-0.96569836,-0.5244358,-0.045069337,0.027684333,-0.06739093,0.0328449,-0.032044377,0.021589806,0.04737607,0.041485038,-0.047087226,-0.018477574,-0.022780072,-0.017030811,2.0,2.0,-2.0,-2.0,2.0,-2.0,2.0,-2.0,-2.0,2.0,-2.0,-2.0,2.0,2.0,-2.0,-2.0,2.0,-2.0,2.0,-2.0,-2.0,2.0,-2.0,-2.0
2025-06-05 10:33:51.189,-0.024441568,-0.042547736,0.02035408,0.16343796,-0.22047412,0.043650106,0.0,0.0,0.0,0.035295587,0.22753039,0.9351718,-0.54186183,-0.20751798,0.9214528,-0.5290307,0.17969593,-1.0823222,-0.52289057,0.1999232,-0.9570603,-0.53081614,0.02015307,-0.05678997,-0.02131938,-0.068826556,-0.07392896,-0.039488018,-0.020500286,0.07291116,0.06940197,-0.06266284,-0.03403784,-0.07110441,2.0,2.0,-2.0,-2.0,2.0,-2.0,2.0,-2.0,-2.0,2.0,-2.0,-2.0,2.0,2.0,-2.0,-2.0,2.0,-2.0,2.0,-2.0,-2.0,2.0,-2.0,-2.0
2025-06-05 10:33:51.207,-0.041839685,0.046470936,-0.038937435,0.18185626,-0.15032248,-0.02363333,0.0,0.0,0.0,0.035309732,0.23561826,0.93887067,-0.53964585,-0.21886496,0.91318756,-0.52235264,0.19445668,-1.0874239,-0.5232339,0.21366085,-0.962781,-0.53019994,-0.0041973335,-0.01371652,0.008430335,0.064354844,0.05109338,-0.050245423,0.0051271636,-0.012578361,-0.006504398,-0.060092494,0.035675783,0.06537987,2.0,2.0,-2.0,-2.0,2.0,-2.0,2.0,-2.0,-2.0,2.0,-2.0,-2.0,2.0,2.0,-2.0,-2.0,2.0,-2.0,2.0,-2.0,-2.0,2.0,-2.0,-2.0
2025-06-05 10:33:51.227,0.037631698,0.0432445,-0.02384349,0.15710294,-0.15077335,-0.002325606,0.0,0.0,0.0,0.035321128,0.23904793,0.9203403,-0.53611755,-0.20434168,0.9058538,-0.5316947,0.18368173,-1.0743337,-0.52485585,0.19904336,-0.9543348,-0.52976364,0.07287997,0.032093316,-0.038583796,-0.07270332,-0.037673246,0.053675342,0.01725825,-0.07056031,-0.028401988,0.038723823,0.060373068,0.002896816,2.0,2.0,-2.0,-2.0,2.0,-2.0,2.0,-2.0,-2.0,2.0,-2.0,-2.0,2.0,2.0,-2.0,-2.0,2.0,-2.0,2.0,-2.0,-2.0,2.0,-2.0,-2.0
2025-06-05 10:33:51.248,0.029707175,0.0058374787,0.045914207,0.23782882,-0.1676875,-0.022171048,0.0,0.0,0.0,0.035330214,0.22180378,0.92867714,-0.5406155,-0.20348638,0.90675145,-0.52776426,0.1887336,-1.0901637,-0.51116437,0.2007326,-0.96115017,-0.52043897,0.06922706,0.0069036973,-0.006721681,0.07269111,-0.04966983,0.02296122,0.0017780905,-0.014074588,-0.073979676,0.039780155,-0.07127719,-0.037460975,2.0,2.0,-2.0,-2.0,2.0,-2.0,2.0,-2.0,-2.0,2.0,-2.0,-2.0,2.0,2.0,-2.0,-2.0,2.0,-2.0,2.0,-2.0,-2.0,2.0,-2.0,-2.0
2025-06-05 10:33:51.267,-0.04132931,-0.035498183,-0.040709995,0.23170839,-0.15838097,-0.02743615,0.0,0.0,0.0,0.035337377,0.22335695,0.92303634,-0.53082925,-0.20491214,0.9092605,-0.5235701,0.18133506,-1.0791376,-0.5073175,0.19983977,-0.96187586,-0.5213089,0.009660816,0.03195581,-0.055461098,0.048102476,0.018926235,0.0064019808,0.06259881,0.056627367,-0.015191226,0.054353874,-0.009740605,0.069094345,2.0,2.0,-2.0,-2.0,2.0,-2.0,2.0,-2.0,-2.0,2.0,-2.0,-2.0,2.0,2.0,-2.0,-2.0,2.0,-2.0,2.0,-2.0,-2.0,2.0,-2.0,-2.0
2025-06-05 10:33:51.289,-0.0032397076,-0.04184829,-0.034258872,0.14321415,-0.23467405,0.007408365,0.0,0.0,0.0,0.035343602,0.23744614,0.92705804,-0.5263785,-0.21914138,0.92348415,-0.5224964,0.1846612,-1.0884987,-0.5173261,0.20391409,-0.9685538,-0.52546304,0.012590843,-0.024697075,0.055240553,0.05938775,0.06848447,-0.010398746,0.062416837,-0.0076296027,-0.012164846,0.033400726,-0.05070546,0.009023717,2.0,2.0,-2.0,-2.0,2.0,-2.0,2.0,-2.0,-2.0,2.0,-2.0,-2.0,2.0,2.0,-2.0,-2.0,2.0,-2.0,2.0,-2.0,-2.0,2.0,-2.0,-2.0
2025-06-05 10:33:51.307,0.019480793,0.020908913,-0.018103624,0.19337401,-0.19048318,-0.023296813,0.0,0.0,0.0,0.035348818,0.22916208,0.92052907,-0.5318659,-0.20263657,0.91607255,-0.5348838,0.18814021,-1.0832539,-0.52081174,0.20760284,-0.9695749,-0.5184176,0.062189348,0.028546961,-0.039656144,0.074709795,-0.05957775,-0.070984095,0.072368294,-0.044457164,-0.072403915,-0.06864012,0.048023384,0.06985618,2.0,2.0,-2.0,-2.0,2.0,-2.0,2.0,-2.0,-2.0,2.0,-2.0,-2.0,2.0,2.0,-2.0,-2.0,2.0,-2.0,2.0,-2.0,-2.0,2.0,-2.0,-2.0
2025-06-05 10:33:51.327,-0.021522623,0.003785568,0.0005858718,0.16193931,-0.16483094,0.045986198,0.0,0.0,0.0,0.035353173,0.2310799,0.9252802,-0.5321304,-0.20800774,0.9197728,-0.536882,0.19129896,-1.082004,-0.50688535,0.21327974,-0.9585358,-0.53098696,-0.02248473,-0.029884052,-0.05274222,0.03583653,0.051663216,-0.075055085,0.030889278,0.035051256,0.019554412,0.01713042,-0.018324472,0.0026774688,2.0,2.0,-2.0,-2.0,2.0,-2.0,2.0,-2.0,-2.0,2.0,-2.0,-2.0,2.0,2.0,-2.0,-2.0,2.0,-2.0,2.0,-2.0,-2.0,2.0,-2.0,-2.0
2025-06-05 10:33:51.347,-0.044103034,0.035740603,0.029824357,0.21818124,-0.18459897,-0.0016612887,0.0,0.0,0.0,0.03535684,0.22400686,0.9222902,-0.5434705,-0.20487781,0.91878796,-0.5264745,0.1857252,-1.086068,-0.5160995,0.20671181,-0.9662073,-0.52156746,0.02143544,-0.04622214,0.013504163,-0.061165627,0.04483541,-0.049574163,0.017915819,-0.06586879,0.03327946,-0.012881399,-0.048699696,-0.057421226,2.0,2.0,-2.0,-2.0,2.0,-2.0,2.0,-2.0,-2.0,2.0,-2.0,-2.0,2.0,2.0,-2.0,-2.0,2.0,-2.0,2.0,-2.0,-2.0,2.0,-2.0,-2.0
2025-06-05 10:33:51.367,-0.0007187728,-0.009337325,-0.045205537,0.14818506,-0.1821075,-0.004234421,0.0,0.0,0.0,0.035359964,0.22798316,0.9330329,-0.5408108,-0.20675455,0.9099839,-0.53052944,0.19351238,-1.083381,-0.5176654,0.21209691,-0.9597748,-0.52803445,-0.03743953,0.054459434,0.047939952,-0.029542916,-0.031257223,-0.023876121,-0.062228747,-0.023214001,-0.013779704,0.012240528,0.013290736,-0.041284654,2.0,2.0,-2.0,-2.0,2.0,-2.0,2.0,-2.0,-2.0,2.0,-2.0,-2.0,2.0,2.0,-2.0,-2.0,2.0,-2.0,2.0,-2.0,-2.0,2.0,-2.0,-2.0
2025-06-05 10:33:51.390,-0.021943178,0.018882465,-0.029631535,0.2341287,-0.1897224,0.03072918,0.0,0.0,0.0,0.03536264,0.22198494,0.9257848,-0.54005647,-0.21053667,0.90645915,-0.5365822,0.18711042,-1.0812198,-0.51481575,0.20829001,-0.96201944,-0.52340937,0.044475626,0.00070099195,0.064343795,-0.06843576,0.063040845,-0.03872163,-0.053887147,0.01646276,0.026827496,-0.013751388,0.039719947,-0.026611326,2.0,2.0,-2.0,-2.0,2.0,-2.0,2.0,-2.0,-2.0,2.0,-2.0,-2.0,2.0,2.0,-2.0,-2.0,2.0,-2.0,2.0,-2.0,-2.0,2.0,-2.0,-2.0
2025-06-05 10:33:51.408,0.02090255,-0.020674203,-0.008037598,0.1436471,-0.18156983,-0.02557885,0.0,0.0,0.0,0.035364933,0.2233325,0.9364828,-0.53989816,-0.21318778,0.92418003,-0.52488226,0.18524157,-1.0768142,-0.5200055,0.21142118,-0.9714568,-0.52848667,-0.050143566,-0.02839774,0.060669918,0.044359066,-0.067790195,0.039310846,0.0597529,0.060566105,-0.028736934,-0.04678871,-0.016369851,0.0008283691,2.0,2.0,-2.0,-2.0,2.0,-2.0,2.0,-2.0,-2.0,2.0,-2.0,-2.0,2.0,2.0,-2.0,-2.0,2.0,-2.0,2.0,-2.0,-2.0,2.0,-2.0,-2.0
2025-06-05 10:33:51.430,-0.035279203,-0.028337475,0.0047938717,0.15697375,-0.20529474,-0.0022705975,0.0,0.0,0.0,0.035366904,0.22889382,0.93072003,-0.5384329,-0.21667132,0.9153155,-0.52700806,0.18329097,-1.0885224,-0.51960886,0.20004328,-0.9738344,-0.5308932,-0.020367155,0.040053282,0.040104665,0.054457393,-0.0032875752,-0.052986648,0.0036404969,0.0014976038,0.015248327,0.0292677,-0.033942506,0.054651752,2.0,2.0,-2.0,-2.0,2.0,-2.0,2.0,-2.0,-2.0,2.0,-2.0,-2.0,2.0,2.0,-2.0,-2.0,2.0,-2.0,2.0,-2.0,-2.0,2.0,-2.0,-2.0
2025-06-05 10:33:51.450,-0.030251855,-0.049655564,-0.029998427,0.23164128,-0.22367816,-0.02607557,0.0,0.0,0.0,0.03536859,0.23501092,0.92558974,-0.5283247,-0.20565517,0.91629744,-0.5297608,0.17896439,-1.0754373,-0.5257425,0.20116773,-0.9592999,-0.5202414,-0.04343786,0.03267997,0.0659783,-0.008240253,-0.0695924,0.0076744566,-0.011804543,-0.050986487,-0.017869515,0.06688117,0.045760676,0.070818,2.0,2.0,-2.0,-2.0,2.0,-2.0,2.0,-2.0,-2.0,2.0,-2.0,-2.0,2.0,2.0,-2.0,-2.0,2.0,-2.0,2.0,-2.0,-2.0,2.0,-2.0,-2.0
2025-06-05 10:33:51.473,0.04558964,0.03251597,-0.016649527,0.196956,-0.19936918,-0.028809844,0.0,0.0,0.0,0.035370044,0.23803337,0.93629795,-0.5346611,-0.21135719,0.9228278,-0.5275412,0.1796695,-1.0912493,-0.5155823,0.2034415,-0.96147716,-0.5325433,-0.028236818,0.06989997,0.038575143,0.0452521,-0.062705465,0.035562072,-0.063987605,-0.030624362,-0.056214485,-0.05778147,-0.05471105,-0.07170903,2.0,2.0,-2.0,-2.0,2.0,-2.0,2.0,-2.0,-2.0,2.0,-2.0,-2.0,2.0,2.0,-2.0,-2.0,2.0,-2.0,2.0,-2.0,-2.0,2.0,-2.0,-2.0
2025-06-05 10:33:51.490,0.022239847,0.038448688,-0.04991262,0.20531468,-0.14860925,-0.008558661,0.0,0.0,0.0,0.03537126,0.22284068,0.91975963,-0.53753537,-0.2108815,0.9222765,-0.53955585,0.18114713,-1.089127,-0.51683563,0.2063227,-0.96524745,-0.52383137,0.06412692,-0.009025285,0.044960584,-0.06601136,-0.0428354,0.06807021,-0.005209532,-0.036435854,0.026341362,0.052365433,0.06501983,-0.012548617,2.0,2.0,-2.0,-2.0,2.0,-2.0,2.0,-2.0,-2.0,2.0,-2.0,-2.0,2.0,2.0,-2.0,-2.0,2.0,-2.0,2.0,-2.0,-2.0,2.0,-2.0,-2.0
2025-06-05 10:33:51.511,-0.011187657,0.0010803076,-0.02145327,0.18667571,-0.18068385,-0.040992703,0.0,0.0,0.0,0.035372216,0.22563991,0.91994107,-0.540451,-0.20631927,0.9183831,-0.5269778,0.18616098,-1.086318,-0.5081627,0.20149425,-0.96861833,-0.5226257,-0.071722865,0.068739586,0.010403321,0.047266867,0.005407289,-0.016079418,0.049338426,-0.00871816,-0.022913713,-0.027549207,-0.030658014,-0.022016125,2.0,2.0,-2.0,-2.0,2.0,-2.0,2.0,-2.0,-2.0,2.0,-2.0,-2.0,2.0,2.0,-2.0,-2.0,2.0,-2.0,2.0,-2.0,-2.0,2.0,-2.0,-2.0
2025-06-05 10:33:51.532,0.0053303614,-0.01850619,0.008511511,0.23537493,-0.23300701,0.029325007,0.0,0.0,0.0,0.03537306,0.22913487,0.9359752,-0.54334503,-0.22140664,0.9067565,-0.5277608,0.18840975,-1.0733283,-0.5135981,0.19666296,-0.95606345,-0.5262125,0.002658812,-0.055906847,0.020717092,0.07364097,0.020693298,0.04571819,-0.03581286,-0.042570844,0.052656498,0.042217623,-0.0106219845,0.06793596,2.0,2.0,-2.0,-2.0,2.0,-2.0,2.0,-2.0,-2.0,2.0,-2.0,-2.0,2.0,2.0,-2.0,-2.0,2.0,-2.0,2.0,-2.0,-2.0,2.0,-2.0,-2.0
2025-06-05 10:33:51.551,-0.024090355,0.0404625,0.0023584373,0.15239981,-0.18864086,-0.045635104,0.0,0.0,0.0,0.035373803,0.22714666,0.9236077,-0.5387397,-0.21819973,0.91818607,-0.53378373,0.18405879,-1.08701,-0.5182223,0.21450257,-0.9543159,-0.5190133,-0.018972073,0.019729149,-0.018462183,-0.029817,-0.054340087,0.06661348,0.053528775,-0.021565808,-0.04452092,-0.047839552,0.020718103,0.03311992,2.0,2.0,-2.0,-2.0,2.0,-2.0,2.0,-2.0,-2.0,2.0,-2.0,-2.0,2.0,2.0,-2.0,-2.0,2.0,-2.0,2.0,-2.0,-2.0,2.0,-2.0,-2.0
2025-06-05 10:33:51.573,0.041012626,0.036864582,-0.02334906,0.17252766,-0.19550374,0.008214762,0.0,0.0,0.0,0.035374433,0.23283668,0.9253951,-0.52662617,-0.21083397,0.91036624,-0.530152,0.18451099,-1.0896189,-0.516122,0.20609927,-0.96961236,-0.5272364,0.010104427,0.048788276,0.015269894,0.0100040175,0.0009670783,-0.0043530893,-0.0028300066,-0.052677866,0.041526012,0.064321086,0.013681385,0.0026294598,2.0,2.0,-2.0,-2.0,2.0,-2.0,2.0,-2.0,-2.0,2.0,-2.0,-2.0,2.0,2.0,-2.0,-2.0,2.0,-2.0,2.0,-2.0,-2.0,2.0,-2.0,-2.0
2025-06-05 10:33:51.591,0.021623615,-0.0027786794,0.04081858,0.21194647,-0.22665574,0.029451873,0.0,0.0,0.0,0.035374954,0.23611808,0.9361856,-0.5374517,-0.21726924,0.91366214,-0.5412641,0.17562388,-1.0839342,-0.51600987,0.20805857,-0.9634932,-0.52696466,0.021074563,0.06415345,-0.048605215,-0.042075843,-0.06000963,0.052028272,-0.0056804316,0.0032486345,0.06590853,-0.015341755,0.026406802,-0.03382298,2.0,2.0,-2.0,-2.0,2.0,-2.0,2.0,-2.0,-2.0,2.0,-2.0,-2.0,2.0,2.0,-2.0,-2.0,2.0,-2.0,2.0,-2.0,-2.0,2.0,-2.0,-2.0
2025-06-05 10:33:51.612,0.044400673,-0.042918023,0.045450408,0.14611399,-0.1463666,0.008754047,0.0,0.0,0.0,0.035375405,0.23905352,0.9335055,-0.54121536,-0.21125488,0.92028505,-0.5317015,0.18435313,-1.0883043,-0.51274836,0.20520246,-0.9645141,-0.5273588,0.040189043,-0.068231136,0.057418916,0.004459936,-0.064634666,-0.018436158,0.061860282,-0.0717382,0.04124559,-0.06481174,0.03868112,-0.0036058093,2.0,2.0,-2.0,-2.0,2.0,-2.0,2.0,-2.0,-2.0,2.0,-2.0,-2.0,2.0,2.0,-2.0,-2.0,2.0,-2.0,2.0,-2.0,-2.0,2.0,-2.0,-2.0
2025-06-05 10:33:51.631,0.012031252,0.008697165,0.02210951,0.14563821,-0.2249964,0.0427674,0.0,0.0,0.0,0.035375804,0.23219472,0.9309392,-0.5299671,-0.2086283,0.9201121,-0.54119813,0.17769864,-1.0845275,-0.5175411,0.20258674,-0.9638215,-0.5268438,0.02135761,-0.017539494,0.072211266,0.033569176,0.066987775,-0.024364794,-0.001802915,0.030597601,-0.011927361,-0.06299116,0.009531135,-0.022850636,2.0,2.0,-2.0,-2.0,2.0,-2.0,2.0,-2.0,-2.0,2.0,-2.0,-2.0,2.0,2.0,-2.0,-2.0,2.0,-2.0,2.0,-2.0,-2.0,2.0,-2.0,-2.0
2025-06-05 10:33:51.652,-0.013547157,-0.0032127553,0.016671488,0.21775824,-0.1489284,-0.030131709,0.0,0.0,0.0,0.035376143,0.22589257,0.92930096,-0.53114444,-0.20819548,0.9163323,-0.53119904,0.18431106,-1.0905741,-0.50981677,0.20700034,-0.95682216,-0.5261288,-0.064907454,0.0033280093,-0.0019887818,0.059792686,0.0260566,0.034826584,0.010010662,-0.06336128,0.051028434,-0.062346548,0.05920601,0.058871876,2.0,2.0,-2.0,-2.0,2.0,-2.0,2.0,-2.0,-2.0,2.0,-2.0,-2.0,2.0,2.0,-2.0,-2.0,2.0,-2.0,2.0,-2.0,-2.0,2.0,-2.0,-2.0
2025-06-05 10:33:51.674,0.010020193,0.034304384,-0.0018352199,0.14755073,-0.22007108,0.019991094,0.0,0.0,0.0,0.035376433,0.22503695,0.9221458,-0.53866565,-0.20456754,0.9060963,-0.5334764,0.18379591,-1.0865667,-0.5261144,0.1979046,-0.9674338,-0.5297539,0.050744213,-0.028102748,0.07446284,0.016733179,0.020673022,0.059035394,-0.01585875,0.037254263,0.05862474,-0.022244042,-0.010650576,-0.0723026,2.0,2.0,-2.0,-2.0,2.0,-2.0,2.0,-2.0,-2.0,2.0,-2.0,-2.0,2.0,2.0,-2.0,-2.0,2.0,-2.0,2.0,-2.0,-2.0,2.0,-2.0,-2.0
2025-06-05 10:33:51.692,-0.046335936,0.020206576,-0.0027985745,0.1684053,-0.17333479,0.017504342,0.0,0.0,0.0,0.035376687,0.23806234,0.9329031,-0.5370119,-0.20849077,0.91625214,-0.54139507,0.17999858,-1.0797918,-0.5260928,0.20506689,-0.9671267,-0.52150315,-0.012774983,-0.030934853,-0.019337399,-0.016539434,0.00052386255,-0.0018685438,-0.04728284,-0.0248871,0.03915813,-0.003957245,0.041891195,-0.03211491,2.0,2.0,-2.0,-2.0,2.0,-2.0,2.0,-2.0,-2.0,2.0,-2.0,-2.0,2.0,2.0,-2.0,-2.0,2.0,-2.0,2.0,-2.0,-2.0,2.0,-2.0,-2.0
2025-06-05 10:33:51.712,-0.0289367,0.033230186,0.026171884,0.23481724,-0.20910178,-0.0038442053,0.0,0.0,0.0,0.035376903,0.22710544,0.9346125,-0.5295266,-0.22085537,0.90680665,-0.5406279,0.19381,-1.0749276,-0.5080141,0.21478544,-0.9685287,-0.52038443,-0.034078315,0.0068620495,0.05421749,-0.06740109,0.017209094,-0.014237726,-0.0065224753,0.023168935,-0.070106365,0.06277906,0.07081964,0.020689985,2.0,2.0,-2.0,-2.0,2.0,-2.0,2.0,-2.0,-2.0,2.0,-2.0,-2.0,2.0,2.0,-2.0,-2.0,2.0,-2.0,2.0,-2.0,-2.0,2.0,-2.0,-2.0
2025-06-05 10:33:51.733,0.02501404,-0.036315136,-0.026912836,0.1471692,-0.17360587,-0.027361695,0.0,0.0,0.0,0.03537709,0.22796567,0.93452984,-0.5383575,-0.20629258,0.90553254,-0.53722304,0.1865355,-1.0888873,-0.52587634,0.21298628,-0.9728385,-0.5233256,-0.051208667,0.052409295,-0.033162218,-0.030972855,-0.043683957,-0.008069608,0.024049541,0.05726447,-0.0068658595,0.02080439,0.05296506,0.018406833,2.0,2.0,-2.0,-2.0,2.0,-2.0,2.0,-2.0,-2.0,2.0,-2.0,-2.0,2.0,2.0,-2.0,-2.0,2.0,-2.0,2.0,-2.0,-2.0,2.0,-2.0,-2.0
2025-06-05 10:33:51.753,0.04157376,-0.046807773,-0.04097963,0.22418684,-0.2278218,0.036690395,0.0,0.0,0.0,0.035377253,0.22579013,0.9370399,-0.54221284,-0.20802195,0.92308205,-0.5325099,0.19534215,-1.0820466,-0.5174486,0.20938976,-0.9737647,-0.5129549,-0.0049858405,0.04403138,-0.06054496,0.019218938,0.008802989,0.06463,-0.01657201,-0.072727405,0.027657378,0.000121612386,-0.027811326,0.026744453,2.0,2.0,-2.0,-2.0,2.0,-2.0,2.0,-2.0,-2.0,2.0,-2.0,-2.0,2.0,2.0,-2.0,-2.0,2.0,-2.0,2.0,-2.0,-2.0,2.0,-2.0,-2.0
2025-06-05 10:33:51.773,-0.0045599095,0.002122265,-0.04449577,0.18574415,-0.2140779,-0.0018274509,0.0,0.0,0.0,0.03537739,0.23456945,0.9277323,-0.54081905,-0.2202054,0.9144263,-0.52416563,0.1785207,-1.0875186,-0.5124612,0.20240696,-0.95510346,-0.5173695,0.012122959,0.0058323927,0.06925742,0.06803553,0.06446122,-0.05887034,-0.07083088,-0.069768436,0.061690193,0.029900333,0.03772331,-0.0024453187,2.0,2.0,-2.0,-2.0,2.0,-2.0,2.0,-2.0,-2.0,2.0,-2.0,-2.0,2.0,2.0,-2.0,-2.0,2.0,-2.0,2.0,-2.0,-2.0,2.0,-2.0,-2.0
2025-06-05 10:33:51.792,0.013308107,0.021895893,-0.049707964,0.19802016,-0.23153883,0.013923301,0.0,0.0,0.0,0.03537751,0.2384387,0.9212923,-0.53999746,-0.20963715,0.90894425,-0.5346702,0.18921791,-1.081745,-0.5247,0.20324767,-0.97144186,-0.527475,-0.029462013,0.010502826,0.06935094,0.060327783,-0.0088810865,-0.060189996,-0.014379157,-0.0026233234,-0.041201085,-0.056849338,-0.06894043,-0.010128969,2.0,2.0,-2.0,-2.0,2.0,-2.0,2.0,-2.0,-2.0,2.0,-2.0,-2.0,2.0,2.0,-2.0,-2.0,2.0,-2.0,2.0,-2.0,-2.0,2.0,-2.0,-2.0
2025-06-05 10:33:51.813,-0.030236654,-0.044048578,0.042176776,0.21764036,-0.21460435,0.0052123833,0.0,0.0,0.0,0.035377614,0.22094584,0.9253913,-0.5324884,-0.2175653,0.91468126,-0.52395946,0.18293181,-1.0844783,-0.5228966,0.2122223,-0.9628588,-0.52230054,-0.055343177,-0.06104094,0.042660605,-0.054536723,-0.021623882,-0.009788234,-0.011762144,0.046747718,0.03853042,0.0014982068,-0.066260524,0.049668755,2.0,2.0,-2.0,-2.0,2.0,-2.0,2.0,-2.0,-2.0,2.0,-2.0,-2.0,2.0,2.0,-2.0,-2.0,2.0,-2.0,2.0,-2.0,-2.0,2.0,-2.0,-2.0
2025-06-05 10:33:51.832,0.0017478738,0.01807542,0.0006558945,0.18102036,-0.19057065,0.026821537,0.0,0.0,0.0,0.035377737,0.23834087,0.9306872,-0.53761244,-0.20436202,0.9147264,-0.52452475,0.1953367,-1.0740229,-0.52214897,0.19652082,-0.9741282,-0.5165911,0.07041591,0.00493168,-0.004406762,-0.014679479,0.005574477,0.06570929,-0.06819127,0.04685959,0.064902715,0.040592924,-0.058106158,-0.050780557,2.0,2.0,-2.0,-2.0,2.0,-2.0,2.0,-2.0,-2.0,2.0,-2.0,-2.0,2.0,2.0,-2.0,-2.0,2.0,-2.0,2.0,-2.0,-2.0,2.0,-2.0,-2.0
2025-06-05 10:33:51.852,-0.04612236,0.020264452,0.045215517,0.1609085,-0.2257242,-0.043918326,0.0,0.0,0.0,0.035377897,0.22313441,0.9215907,-0.5372052,-0.2058464,0.90561557,-0.5392687,0.18827608,-1.0914012,-0.5198732,0.21265733,-0.9655043,-0.5167045,0.06452198,0.034392178,-0.015070758,-0.039156225,-0.014433193,-0.0039027843,0.003443533,-0.05149361,-0.038527325,0.018472584,0.029733839,0.06485938,2.0,2.0,-2.0,-2.0,2.0,-2.0,2.0,-2.0,-2.0,2.0,-2.0,-2.0,2.0,2.0,-2.0,-2.0,2.0,-2.0,2.0,-2.0,-2.0,2.0,-2.0,-2.0
2025-06-05 10:33:51.874,-0.01318952,0.03654511,0.044073593,0.22200057,-0.22182299,-0.029468115,0.0,0.0,0.0,0.035378054,0.22116049,0.9215965,-0.52895033,-0.21568362,0.924007,-0.53661686,0.17665556,-1.0776292,-0.51511973,0.20292099,-0.9615592,-0.5144048,-0.0015110315,0.0053910664,-0.02867724,-0.023971766,-0.0575615,0.002793885,0.06991601,-0.06742588,0.01378353,-0.03807186,-0.024546418,-0.008689822,2.0,2.0,-2.0,-2.0,2.0,-2.0,2.0,-2.0,-2.0,2.0,-2.0,-2.0,2.0,2.0,-2.0,-2.0,2.0,-2.0,2.0,-2.0,-2.0,2.0,-2.0,-2.0
2025-06-05 10:33:51.892,-0.024230875,-0.03771477,-0.0017551867,0.21185791,-0.17771414,-0.024475526,0.0,0.0,0.0,0.035378143,0.22434348,0.92208415,-0.5319533,-0.21850806,0.92280906,-0.5415186,0.18564077,-1.0896943,-0.52481836,0.21235362,-0.95508504,-0.5240634,0.04263871,-0.038740832,-0.03973027,-0.012816821,-0.020981947,-0.042644423,-0.047184154,-0.004393645,0.060892068,-0.06245054,-0.010565395,0.0039177593,2.0,2.0,-2.0,-2.0,2.0,-2.0,2.0,-2.0,-2.0,2.0,-2.0,-2.0,2.0,2.0,-2.0,-2.0,2.0,-2.0,2.0,-2.0,-2.0,2.0,-2.0,-2.0
2025-06-05 10:33:51.913,-0.013425054,0.025126869,0.024535483,0.17747965,-0.14342836,0.006112794,0.0,0.0,0.0,0.03537819,0.22483893,0.9344903,-0.53539354,-0.21967784,0.91420114,-0.5328482,0.18095288,-1.0854124,-0.52093273,0.19664073,-0.9738211,-0.5316488,-0.018158019,0.010448459,0.0002933682,-0.0031868566,0.021091467,0.025038917,-0.0067834123,-0.036288165,0.009728721,-0.02507623,-0.03068115,-0.0655097,2.0,2.0,-2.0,-2.0,2.0,-2.0,2.0,-2.0,-2.0,2.0,-2.0,-2.0,2.0,2.0,-2.0,-2.0,2.0,-2.0,2.0,-2.0,-2.0,2.0,-2.0,-2.0
2025-06-05 10:33:51.935,0.038004518,0.0064761117,0.027698083,0.14338301,-0.19182298,-0.029748168,0.0,0.0,0.0,0.03537823,0.22682968,0.9362383,-0.5442078,-0.2051818,0.90662956,-0.5332405,0.19067305,-1.0861354,-0.5089909,0.20173548,-0.95881975,-0.5147581,0.074924566,-0.017852418,0.028616762,0.0108606145,-0.029333947,0.061227314,-0.04150084,-0.046169087,0.045539822,0.022575773,-0.012106087,0.03642821,2.0,2.0,-2.0,-2.0,2.0,-2.0,2.0,-2.0,-2.0,2.0,-2.0,-2.0,2.0,2.0,-2.0,-2.0,2.0,-2.0,2.0,-2.0,-2.0,2.0,-2.0,-2.0
2025-06-05 10:33:51.956,0.022923436,-0.011336828,0.0048490814,0.21021745,-0.16880764,0.013628631,0.0,0.0,0.0,0.03537826,0.22758777,0.9393941,-0.5379654,-0.2191915,0.9149935,-0.533821,0.19228882,-1.0773429,-0.5186331,0.21041185,-0.9665,-0.5314866,0.054193903,0.070980735,-0.008936552,-0.06489722,-0.004191818,-0.05416294,-0.07232485,0.0125730345,-0.00035028686,-0.073902786,0.0037772702,-0.03444095,2.0,2.0,-2.0,-2.0,2.0,-2.0,2.0,-2.0,-2.0,2.0,-2.0,-2.0,2.0,2.0,-2.0,-2.0,2.0,-2.0,2.0,-2.0,-2.0,2.0,-2.0,-2.0
2025-06-05 10:33:51.974,0.041075088,0.026160376,0.04430176,0.19859564,-0.23190033,-0.015389187,0.0,0.0,0.0,0.03537829,0.23017643,0.9357905,-0.54027075,-0.21673626,0.9130842,-0.5329077,0.19352812,-1.0780377,-0.52379215,0.20109144,-0.95750254,-0.52097636,0.058651567,-0.024503045,0.0020778654,-0.06356129,0.06768738,-0.012557273,0.058059573,0.01892358,-0.0443564,-0.0346756,0.03955188,0.0492253,2.0,2.0,-2.0,-2.0,2.0,-2.0,2.0,-2.0,-2.0,2.0,-2.0,-2.0,2.0,2.0,-2.0,-2.0,2.0,-2.0,2.0,-2.0,-2.0,2.0,-2.0,-2.0
2025-06-05 10:33:51.993,-0.016742898,0.015397032,0.018240334,0.23138185,-0.19247963,0.014336461,0.0,0.0,0.0,0.035378315,0.22318631,0.9252242,-0.5279023,-0.2092617,0.9214193,-0.5348193,0.178589,-1.0766506,-0.51891094,0.21137738,-0.96770346,-0.5261559,-0.02724906,-0.035858642,0.06556794,0.0032184715,-0.03668699,-0.029353568,0.012753133,0.052522913,0.045103483,0.058058675,-0.06624809,0.020847352,2.0,2.0,-2.0,-2.0,2.0,-2.0,2.0,-2.0,-2.0,2.0,-2.0,-2.0,2.0,2.0,-2.0,-2.0,2.0,-2.0,2.0,-2.0,-2.0,2.0,-2.0,-2.0
2025-06-05 10:33:52.013,0.009067879,-0.032328334,0.018597748,0.16331922,-0.19918445,0.00018385726,0.0,0.0,0.0,0.035378337,0.22296591,0.9223736,-0.53558713,-0.21270975,0.91737807,-0.53495353,0.18981664,-1.0748901,-0.52569723,0.21526498,-0.96589464,-0.5164832,0.037155762,0.07150416,-0.027548341,-0.027127793,0.021143528,0.033206087,0.016310286,-0.033501834,0.053905338,-0.037106644,-0.0570177,-0.060817443,2.0,2.0,-2.0,-2.0,2.0,-2.0,2.0,-2.0,-2.0,2.0,-2.0,-2.0,2.0,2.0,-2.0,-2.0,2.0,-2.0,2.0,-2.0,-2.0,2.0,-2.0,-2.0
2025-06-05 10:33:52.033,-0.02808922,0.00095438486,-0.018291526,0.21175891,-0.15746714,0.019159444,0.0,0.0,0.0,0.03537835,0.22140805,0.9365216,-0.5288193,-0.22104871,0.91897625,-0.54152167,0.19472432,-1.0724448,-0.5228826,0.2094289,-0.9737339,-0.52817553,0.044940624,0.07240566,-0.010226597,-0.045752794,-0.03764877,-0.00021417812,0.03619921,0.0581703,0.051464066,-0.018806681,-0.016856994,0.055364773,2.0,2.0,-2.0,-2.0,2.0,-2.0,2.0,-2.0,-2.0,2.0,-2.0,-2.0,2.0,2.0,-2.0,-2.0,2.0,-2.0,2.0,-2.0,-2.0,2.0,-2.0,-2.0
2025-06-05 10:33:52.055,0.042422518,0.030388216,0.035890184,0.16020805,-0.17757294,0.0057766894,0.0,0.0,0.0,0.03537837,0.23120882,0.92821264,-0.5420101,-0.21566556,0.92233276,-0.5370957,0.19223316,-1.0889095,-0.5182973,0.19896477,-0.9599643,-0.52717,-0.020621661,-0.046493705,-0.019694984,-0.023493411,-0.06633642,0.06113512,0.029436432,-0.006324006,0.06897201,0.02783965,0.03694182,0.013967051,2.0,2.0,-2.0,-2.0,2.0,-2.0,2.0,-2.0,-2.0,2.0,-2.0,-2.0,2.0,2.0,-2.0,-2.0,2.0,-2.0,2.0,-2.0,-2.0,2.0,-2.0,-2.0
2025-06-05 10:33:52.073,0.002069124,0.044895977,0.027845692,0.19787027,-0.21876463,0.010953361,0.0,0.0,0.0,0.03537838,0.23440748,0.93226004,-0.54216796,-0.22027294,0.9093987,-0.53665715,0.18649137,-1.0829002,-0.5101874,0.21548617,-0.96172696,-0.5251919,-0.010134202,0.016732965,-0.024027757,0.03378177,-0.041383978,-0.06940464,0.025382375,0.020377686,0.024756977,0.042133417,-0.00063713646,0.06460933,2.0,2.0,-2.0,-2.0,2.0,-2.0,2.0,-2.0,-2.0,2.0,-2.0,-2.0,2.0,2.0,-2.0,-2.0,2.0,-2.0,2.0,-2.0,-2.0,2.0,-2.0,-2.0
2025-06-05 10:33:52.093,-0.017864015,0.0407396,-0.0077041974,0.21027166,-0.22478901,-0.042036515,0.0,0.0,0.0,0.0353784,0.2352187,0.93837714,-0.54351753,-0.20302409,0.92164856,-0.53033316,0.1785698,-1.0874113,-0.5190213,0.21174009,-0.9676212,-0.52303153,0.026693454,0.06162191,0.042784214,0.06841762,0.04734175,0.054870475,0.029602176,0.0570265,0.04785344,0.056927375,-0.042775776,-0.028268393,2.0,2.0,-2.0,-2.0,2.0,-2.0,2.0,-2.0,-2.0,2.0,-2.0,-2.0,2.0,2.0,-2.0,-2.0,2.0,-2.0,2.0,-2.0,-2.0,2.0,-2.0,-2.0
2025-06-05 10:33:52.114,-0.0273477,0.015840968,0.012184485,0.22125918,-0.1958579,-0.031296436,0.0,0.0,0.0,0.03537842,0.23120004,0.92924625,-0.54445124,-0.20353088,0.9225922,-0.538712,0.18259232,-1.0883387,-0.51327884,0.20612648,-0.9627125,-0.51407063,-0.016366815,-0.024548406,0.04910286,0.02990801,-0.054789584,-0.06224964,0.050266296,0.031445224,0.061769363,-0.026965845,0.012916917,-0.04755403,2.0,2.0,-2.0,-2.0,2.0,-2.0,2.0,-2.0,-2.0,2.0,-2.0,-2.0,2.0,2.0,-2.0,-2.0,2.0,-2.0,2.0,-2.0,-2.0,2.0,-2.0,-2.0
2025-06-05 10:33:52.134,-0.040006332,0.0498202,-0.025393015,0.17478088,-0.20057026,0.038101275,0.0,0.0,0.0,0.03537843,0.22214654,0.91967785,-0.53548265,-0.21159756,0.91032875,-0.5344144,0.18927659,-1.0766234,-0.52438885,0.20704137,-0.95996994,-0.5287763,-0.042842727,0.05284869,-0.020264084,-0.0056943377,-0.07382407,-0.0414779,-0.0730349,-0.057027847,0.010579127,0.041858464,-0.025709815,-0.070436105,2.0,2.0,-2.0,-2.0,2.0,-2.0,2.0,-2.0,-2.0,2.0,-2.0,-2.0,2.0,2.0,-2.0,-2.0,2.0,-2.0,2.0,-2.0,-2.0,2.0,-2.0,-2.0
2025-06-05 10:33:52.157,0.034147173,-0.002226935,-0.020924881,0.2046108,-0.18759103,0.041623093,0.0,0.0,0.0,0.035378434,0.22647205,0.938751,-0.53622717,-0.20741381,0.9242585,-0.5376844,0.17832245,-1.0905595,-0.5192275,0.20092343,-0.9601234,-0.51848936,0.040696826,0.029824678,-0.067304224,-0.013942329,-0.047971684,-0.056843407,0.06317467,0.03515239,-0.014666583,0.028014246,-0.017363422,-0.051960874,2.0,2.0,-2.0,-2.0,2.0,-2.0,2.0,-2.0,-2.0,2.0,-2.0,-2.0,2.0,2.0,-2.0,-2.0,2.0,-2.0,2.0,-2.0,-2.0,2.0,-2.0,-2.0
2025-06-05 10:33:52.174,-0.026728572,0.028524606,-0.048299555,0.23248169,-0.15026374,-0.027135083,0.0,0.0,0.0,0.03537844,0.22826171,0.9291734,-0.5268133,-0.20820247,0.91030145,-0.529335,0.1922559,-1.0764307,-0.5111077,0.20119435,-0.972787,-0.51644087,-0.017106634,-0.037964996,-0.028213575,-0.054291673,0.03072105,0.068967566,-0.053070486,0.0737372,0.06279597,0.06950641,-0.018330146,-0.006304718,2.0,2.0,-2.0,-2.0,2.0,-2.0,2.0,-2.0,-2.0,2.0,-2.0,-2.0,2.0,2.0,-2.0,-2.0,2.0,-2.0,2.0,-2.0,-2.0,2.0,-2.0,-2.0
2025-06-05 10:33:52.194,0.046872467,0.045461252,-0.042884048,0.20467031,-0.15465507,0.013021913,0.0,0.0,0.0,0.03537845,0.22340252,0.920519,-0.54369503,-0.21174574,0.91880465,-0.52811164,0.19412991,-1.0887344,-0.51249325,0.20538245,-0.95441586,-0.5168988,0.05373293,-0.042387128,-0.050704177,0.043912552,0.010298731,-0.056937885,0.06987852,0.049852695,0.02839046,-0.004198668,0.025681144,0.053370588,2.0,2.0,-2.0,-2.0,2.0,-2.0,2.0,-2.0,-2.0,2.0,-2.0,-2.0,2.0,2.0,-2.0,-2.0,2.0,-2.0,2.0,-2.0,-2.0,2.0,-2.0,-2.0
2025-06-05 10:33:52.214,0.014693236,0.0019310451,0.047885127,0.16412716,-0.15059274,0.04056087,0.0,0.0,0.0,0.035378452,0.2314925,0.9285664,-0.54586154,-0.2039097,0.91056687,-0.5408166,0.184113,-1.0784726,-0.508356,0.20781726,-0.9739714,-0.51870334,0.073829696,0.071888946,-0.025329988,-0.01166614,-0.051856034,0.040589858,0.023083134,0.02165666,-0.06737091,0.0385168,-0.03320048,-0.06832599,2.0,2.0,-2.0,-2.0,2.0,-2.0,2.0,-2.0,-2.0,2.0,-2.0,-2.0,2.0,2.0,-2.0,-2.0,2.0,-2.0,2.0,-2.0,-2.0,2.0,-2.0,-2.0
2025-06-05 10:33:52.234,-0.03778423,0.043783896,0.045642857,0.22563347,-0.21233557,-0.035459146,0.0,0.0,0.0,0.03537846,0.23322168,0.92709166,-0.539874,-0.2127693,0.9203422,-0.53015673,0.17998925,-1.0840259,-0.51729715,0.2082528,-0.96415496,-0.52752554,-0.0032434387,-0.055817463,0.026879156,0.034539513,0.037579853,0.007620301,0.005999821,0.033226162,-0.037070826,0.040709306,0.00394326,0.02339739,2.0,2.0,-2.0,-2.0,2.0,-2.0,2.0,-2.0,-2.0,2.0,-2.0,-2.0,2.0,2.0,-2.0,-2.0,2.0,-2.0,2.0,-2.0,-2.0,2.0,-2.0,-2.0
2025-06-05 10:33:52.258,0.034033135,-0.042272404,0.012101499,0.14279997,-0.201001,0.044286076,0.0,0.0,0.0,0.035378464,0.23497182,0.9210052,-0.5286852,-0.20178074,0.9174485,-0.5246201,0.18350135,-1.0725461,-0.5107603,0.20859313,-0.9677107,-0.52252203,0.023652017,-0.047897015,0.0032481034,-0.0009235106,-0.043083683,0.009207862,0.03317123,0.067074455,-0.049653582,-0.04622144,0.03896178,0.04662489,2.0,2.0,-2.0,-2.0,2.0,-2.0,2.0,-2.0,-2.0,2.0,-2.0,-2.0,2.0,2.0,-2.0,-2.0,2.0,-2.0,2.0,-2.0,-2.0,2.0,-2.0,-2.0
2025-06-05 10:33:52.276,-0.039308798,0.007912927,0.035315327,0.20786184,-0.21538624,0.047639087,0.0,0.0,0.0,0.035378467,0.22931288,0.9241459,-0.53964627,-0.2067788,0.9084129,-0.5261293,0.19041672,-1.081547,-0.5159822,0.19691494,-0.95471805,-0.51783115,0.0708626,-0.007934994,-0.027879445,-0.07104253,-0.023908235,0.05912977,-0.031966574,0.029957008,-0.0016781442,-0.030538887,-0.067573614,0.016779462,2.0,2.0,-2.0,-2.0,2.0,-2.0,2.0,-2.0,-2.0,2.0,-2.0,-2.0,2.0,2.0,-2.0,-2.0,2.0,-2.0,2.0,-2.0,-2.0,2.0,-2.0,-2.0
2025-06-05 10:33:52.296,0.040843908,-0.018434862,-0.0038003146,0.21623583,-0.20532061,0.0141691705,0.0,0.0,0.0,0.035378467,0.23611745,0.92993385,-0.53300637,-0.2176612,0.9123705,-0.5411438,0.1907036,-1.0879402,-0.5088398,0.20590569,-0.9586948,-0.52841693,0.037820883,-0.041433804,-0.016588142,0.05218621,0.04234094,0.008836138,-0.064193845,-0.07332679,0.052586954,-0.06311564,0.057266936,-0.024382968,2.0,2.0,-2.0,-2.0,2.0,-2.0,2.0,-2.0,-2.0,2.0,-2.0,-2.0,2.0,2.0,-2.0,-2.0,2.0,-2.0,2.0,-2.0,-2.0,2.0,-2.0,-2.0
2025-06-05 10:33:52.315,-0.041735813,0.02754738,0.03730482,0.22264032,-0.16095237,-0.045326795,0.0,0.0,0.0,0.03537847,0.22960879,0.9352504,-0.5317041,-0.2197087,0.9056478,-0.5354493,0.17797582,-1.0747975,-0.5191116,0.21570228,-0.9726278,-0.5166302,-0.034368154,0.0055879196,0.049930774,-0.053736165,-0.037719335,-0.05627681,0.021407112,0.028570075,0.065635055,0.065083995,-0.0654479,0.0030869858,2.0,2.0,-2.0,-2.0,2.0,-2.0,2.0,-2.0,-2.0,2.0,-2.0,-2.0,2.0,2.0,-2.0,-2.0,2.0,-2.0,2.0,-2.0,-2.0,2.0,-2.0,-2.0
2025-06-05 10:33:52.336,-0.040203318,0.0164693,-0.026431246,0.18852378,-0.19660439,0.027734179,0.0,0.0,0.0,0.03537847,0.22552036,0.93449503,-0.5321619,-0.2078107,0.90838253,-0.52399707,0.19054101,-1.0849091,-0.52478343,0.20774767,-0.97233826,-0.52630043,0.021981642,0.061139353,-0.024840845,0.07128236,0.0576655,-0.019991321,-0.006318404,-0.067152925,0.046426207,-0.020280853,0.039360825,0.050605092,2.0,2.0,-2.0,-2.0,2.0,-2.0,2.0,-2.0,-2.0,2.0,-2.0,-2.0,2.0,2.0,-2.0,-2.0,2.0,-2.0,2.0,-2.0,-2.0,2.0,-2.0,-2.0
2025-06-05 10:33:52.357,-0.03369487,-0.01743409,0.0005486729,0.17314176,-0.18947662,0.032406755,0.0,0.0,0.0,0.035378475,0.23652567,0.9248231,-0.5373453,-0.20800579,0.922897,-0.54106903,0.19409405,-1.0836524,-0.5113766,0.2146596,-0.9725519,-0.5274127,-0.06961445,0.02721613,0.026518086,-0.048718713,0.04472575,-0.047948923,-0.07089678,-0.041650955,-0.008988227,-0.068561494,0.06908619,0.046003375,2.0,2.0,-2.0,-2.0,2.0,-2.0,2.0,-2.0,-2.0,2.0,-2.0,-2.0,2.0,2.0,-2.0,-2.0,2.0,-2.0,2.0,-2.0,-2.0,2.0,-2.0,-2.0
2025-06-05 10:33:52.376,-0.04375489,0.03520073,-0.013218609,0.2123097,-0.14763716,-0.02389963,0.0,0.0,0.0,0.035378475,0.21945922,0.9263821,-0.5453492,-0.21914348,0.91210306,-0.537893,0.18730469,-1.088374,-0.5119091,0.19959481,-0.9556708,-0.5209957,0.07041832,0.0021374314,-0.002967642,0.023888133,0.004472981,0.008465676,0.036992,-0.019042673,-0.07396362,0.0018018287,-0.0015176048,0.067797564,2.0,2.0,-2.0,-2.0,2.0,-2.0,2.0,-2.0,-2.0,2.0,-2.0,-2.0,2.0,2.0,-2.0,-2.0,2.0,-2.0,2.0,-2.0,-2.0,2.0,-2.0,-2.0
2025-06-05 10:33:52.396,-0.0062497035,-0.024228746,0.044831038,0.14898619,-0.21335569,0.021188132,0.0,0.0,0.0,0.03537848,0.22829606,0.91955686,-0.5382157,-0.20177862,0.9126333,-0.52571994,0.18544766,-1.090149,-0.51524055,0.19785134,-0.9732367,-0.52174777,0.038836192,-0.021382969,-0.027379807,0.046514843,-0.035459917,0.05234603,-0.01921961,-0.06727,-0.02785671,0.038489096,0.025464034,0.013461805,2.0,2.0,-2.0,-2.0,2.0,-2.0,2.0,-2.0,-2.0,2.0,-2.0,-2.0,2.0,2.0,-2.0,-2.0,2.0,-2.0,2.0,-2.0,-2.0,2.0,-2.0,-2.0
2025-06-05 10:33:52.416,0.032456607,0.048386384,0.02276929,0.17304717,-0.19058041,0.017050145,0.0,0.0,0.0,0.03537848,0.23748825,0.93035537,-0.52959275,-0.20547886,0.92131275,-0.54146653,0.1908418,-1.0781972,-0.51057523,0.20309353,-0.9699539,-0.52578443,-0.0689662,-0.008365971,0.07184206,-0.030286608,0.0033532905,-0.062275015,0.018328248,0.051066924,0.060535766,-0.0026377037,-0.015584907,0.022597278,2.0,2.0,-2.0,-2.0,2.0,-2.0,2.0,-2.0,-2.0,2.0,-2.0,-2.0,2.0,2.0,-2.0,-2.0,2.0,-2.0,2.0,-2.0,-2.0,2.0,-2.0,-2.0
2025-06-05 10:33:52.439,0.008126276,0.019780114,-0.024910552,0.14845759,-0.16994725,-0.024573557,0.0,0.0,0.0,0.035378482,0.2358374,0.9377728,-0.5415487,-0.20940223,0.91733766,-0.5277472,0.19490255,-1.0771866,-0.52055275,0.21039061,-0.9561527,-0.53018266,-0.054528147,0.052882057,-0.07471525,-0.029339056,-0.024304919,0.06855962,-0.008650493,-0.069698915,0.04617197,0.013646351,0.04949233,0.065149985,2.0,2.0,-2.0,-2.0,2.0,-2.0,2.0,-2.0,-2.0,2.0,-2.0,-2.0,2.0,2.0,-2.0,-2.0,2.0,-2.0,2.0,-2.0,-2.0,2.0,-2.0,-2.0
2025-06-05 10:33:52.456,-0.03808153,-0.017149946,0.020756017,0.21284798,-0.21840866,0.030562282,0.0,0.0,0.0,0.035378482,0.23384911,0.92026484,-0.52996325,-0.20703362,0.911527,-0.53708,0.18347529,-1.0760002,-0.5084202,0.20079431,-0.9571809,-0.5228033,0.008684879,-0.058401022,0.06999548,0.020088863,0.04237173,-0.06542588,-0.030609451,-0.04667808,-0.040089786,0.05697234,-0.014338581,0.029515745,2.0,2.0,-2.0,-2.0,2.0,-2.0,2.0,-2.0,-2.0,2.0,-2.0,-2.0,2.0,2.0,-2.0,-2.0,2.0,-2.0,2.0,-2.0,-2.0,2.0,-2.0,-2.0
2025-06-05 10:33:52.476,0.008561817,-0.04959401,0.04170654,0.1630319,-0.19560586,-0.042011924,0.0,0.0,0.0,0.035378486,0.22115213,0.9196413,-0.53996766,-0.21933717,0.92272264,-0.52979547,0.17875275,-1.0827565,-0.50751925,0.21460527,-0.9657623,-0.5220224,0.04962292,-0.009255516,0.0063133086,-0.007717811,-0.04715632,0.007356705,0.031359244,0.03708248,-0.04181543,-0.01835335,-0.0037446273,-0.0106381485,2.0,2.0,-2.0,-2.0,2.0,-2.0,2.0,-2.0,-2.0,2.0,-2.0,-2.0,2.0,2.0,-2.0,-2.0,2.0,-2.0,2.0,-2.0,-2.0,2.0,-2.0,-2.0
2025-06-05 10:33:52.498,-0.020330692,-0.004635252,-0.034145214,0.20199126,-0.21007498,-0.030848239,0.0,0.0,0.0,0.035378486,0.23641312,0.93215334,-0.5358981,-0.20638181,0.90955603,-0.5273672,0.18358283,-1.0746888,-0.5107448,0.2153227,-0.9636468,-0.5185684,-0.046888385,0.03030243,0.056033064,0.022700464,-0.040137324,-0.06195931,0.064430974,0.07332268,-0.053564213,-0.009127266,0.009449388,0.055558972,2.0,2.0,-2.0,-2.0,2.0,-2.0,2.0,-2.0,-2.0,2.0,-2.0,-2.0,2.0,2.0,-2.0,-2.0,2.0,-2.0,2.0,-2.0,-2.0,2.0,-2.0,-2.0
2025-06-05 10:33:52.516,-0.041305374,-0.044945635,-0.019468922,0.1897503,-0.16938755,0.0052642655,0.0,0.0,0.0,0.035378486,0.22178733,0.93021727,-0.5445956,-0.21511479,0.9166061,-0.53985995,0.19249551,-1.0877005,-0.52015275,0.19898465,-0.9701352,-0.515791,-0.04306552,-0.07359293,0.025536073,-0.05518409,0.0065049822,-0.07119144,-0.044993848,0.010864392,0.05794945,-0.05951813,-0.061098147,0.013482567,2.0,2.0,-2.0,-2.0,2.0,-2.0,2.0,-2.0,-2.0,2.0,-2.0,-2.0,2.0,2.0,-2.0,-2.0,2.0,-2.0,2.0,-2.0,-2.0,2.0,-2.0,-2.0
2025-06-05 10:33:52.540,0.019785687,0.035269853,0.0430554,0.15899037,-0.18551776,-0.013768148,0.0,0.0,0.0,0.03537849,0.22535993,0.93742716,-0.52829903,-0.20677745,0.91382855,-0.54172885,0.18779291,-1.0791379,-0.5141335,0.20008202,-0.9596903,-0.52801037,0.05716276,-0.063367195,-0.02600957,-0.014730175,-0.026871415,0.010413535,-0.06996439,0.020574803,0.045850344,-0.03986407,0.010330976,0.04658233,2.0,2.0,-2.0,-2.0,2.0,-2.0,2.0,-2.0,-2.0,2.0,-2.0,-2.0,2.0,2.0,-2.0,-2.0,2.0,-2.0,2.0,-2.0,-2.0,2.0,-2.0,-2.0
2025-06-05 10:33:52.557,-0.022888219,-0.016329091,0.045732625,0.19573842,-0.19408861,-0.04513451,0.0,0.0,0.0,0.03537849,0.23557204,0.92375016,-0.5280038,-0.21831426,0.90500855,-0.54176974,0.19074637,-1.0890441,-0.5187177,0.20327695,-0.95550454,-0.5166021,-0.016563337,0.0008597808,-0.01299583,0.05666242,0.0033363297,0.013271362,0.06327792,-0.041608907,-0.031445894,0.04064384,0.037731256,-0.042599525,2.0,2.0,-2.0,-2.0,2.0,-2.0,2.0,-2.0,-2.0,2.0,-2.0,-2.0,2.0,2.0,-2.0,-2.0,2.0,-2.0,2.0,-2.0,-2.0,2.0,-2.0,-2.0
2025-06-05 10:33:52.577,-0.032757323,0.016124295,0.017177101,0.1614965,-0.21587855,0.003000117,0.0,0.0,0.0,0.03537849,0.23588385,0.9222276,-0.5265093,-0.21217322,0.91959715,-0.5241269,0.17906201,-1.0767696,-0.5225059,0.21563354,-0.96754676,-0.5278893,-0.00028935255,-0.06765382,0.017475305,0.05927443,-0.0066316384,-0.07023751,-0.0012383554,-0.025660975,0.074401766,0.04405954,0.07011072,-0.02548204,2.0,2.0,-2.0,-2.0,2.0,-2.0,2.0,-2.0,-2.0,2.0,-2.0,-2.0,2.0,2.0,-2.0,-2.0,2.0,-2.0,2.0,-2.0,-2.0,2.0,-2.0,-2.0
2025-06-05 10:33:52.596,-0.030552322,-0.035316,-0.021975273,0.23806863,-0.17231473,-0.029344719,0.0,0.0,0.0,0.035378493,0.22359766,0.93516135,-0.5378184,-0.2059709,0.91950923,-0.5290443,0.18096754,-1.0745803,-0.5071686,0.2010227,-0.9588365,-0.52230877,0.008466258,0.07307321,0.00518955,0.03950912,-0.05291723,0.029802158,0.068732895,-0.018842272,0.018773343,0.0016822298,-0.031510077,0.04443509,2.0,2.0,-2.0,-2.0,2.0,-2.0,2.0,-2.0,-2.0,2.0,-2.0,-2.0,2.0,2.0,-2.0,-2.0,2.0,-2.0,2.0,-2.0,-2.0,2.0,-2.0,-2.0
2025-06-05 10:33:52.617,-0.026153946,0.033396978,0.03766378,0.18622527,-0.15362757,0.04285854,0.0,0.0,0.0,0.035378493,0.22382681,0.92691284,-0.5404552,-0.20787731,0.9091303,-0.5334306,0.17612329,-1.082154,-0.50813884,0.20747395,-0.9557143,-0.5318431,0.021675559,0.0257872,0.06371665,-0.027324706,-0.001980907,-0.0596698,0.054523505,0.058580577,-0.030841446,0.04600394,0.06874048,0.013397726,2.0,2.0,-2.0,-2.0,2.0,-2.0,2.0,-2.0,-2.0,2.0,-2.0,-2.0,2.0,2.0,-2.0,-2.0,2.0,-2.0,2.0,-2.0,-2.0,2.0,-2.0,-2.0
2025-06-05 10:33:52.640,-0.024150206,0.0182407,0.015212572,0.14795896,-0.15436566,0.025705816,0.0,0.0,0.0,0.035378493,0.23783156,0.9360836,-0.5445394,-0.20749141,0.9143727,-0.53537416,0.1756253,-1.08908,-0.52141905,0.20639783,-0.96263623,-0.52696055,0.008222102,-0.021209044,0.06074167,-0.048939057,0.0068561933,-0.062049598,0.009109068,0.0725231,-0.02072752,0.01987052,-0.04142649,0.04350443,2.0,2.0,-2.0,-2.0,2.0,-2.0,2.0,-2.0,-2.0,2.0,-2.0,-2.0,2.0,2.0,-2.0,-2.0,2.0,-2.0,2.0,-2.0,-2.0,2.0,-2.0,-2.0
2025-06-05 10:33:52.657,0.039675783,-0.04202971,0.016828312,0.23129486,-0.23480645,0.035670787,0.0,0.0,0.0,0.035378497,0.22047302,0.9337792,-0.54025334,-0.21005306,0.9138728,-0.53369516,0.18340601,-1.0915569,-0.52412766,0.20558423,-0.96095216,-0.5156359,-0.07299802,0.016084712,0.040252652,-0.0415767,-0.0335672,-1.7159142e-05,-0.07024356,0.07123494,0.0478497,0.043211453,0.026779594,0.02323407,2.0,2.0,-2.0,-2.0,2.0,-2.0,2.0,-2.0,-2.0,2.0,-2.0,-2.0,2.0,2.0,-2.0,-2.0,2.0,-2.0,2.0,-2.0,-2.0,2.0,-2.0,-2.0
2025-06-05 10:33:52.677,-0.018533241,-0.042463332,0.0030452807,0.18692544,-0.18749402,0.041116714,0.0,0.0,0.0,0.035378497,0.21948375,0.93124366,-0.53999865,-0.20373668,0.9047419,-0.53476846,0.18648107,-1.0788229,-0.51693624,0.21616845,-0.97349817,-0.52420735,0.010111281,-0.0647255,0.023321766,-0.027977914,-0.0730597,-0.06763251,0.043744747,0.07438798,0.05457157,0.031247465,-0.035659086,0.01574603,2.0,2.0,-2.0,-2.0,2.0,-2.0,2.0,-2.0,-2.0,2.0,-2.0,-2.0,2.0,2.0,-2.0,-2.0,2.0,-2.0,2.0,-2.0,-2.0,2.0,-2.0,-2.0
2025-06-05 10:33:52.697,0.006961289,0.009150235,0.04572316,0.14759529,-0.17968443,-0.0010237327,0.0,0.0,0.0,0.035378497,0.22826795,0.92924833,-0.53103036,-0.2149322,0.9129111,-0.5353842,0.18839642,-1.0904567,-0.51459527,0.20371038,-0.9719603,-0.5314384,0.033130307,0.054512657,0.07408682,0.06923768,-0.040421072,0.055532735,-0.06302651,-0.066583395,0.03387054,-0.0682393,-0.07206721,-0.056569166,2.0,2.0,-2.0,-2.0,2.0,-2.0,2.0,-2.0,-2.0,2.0,-2.0,-2.0,2.0,2.0,-2.0,-2.0,2.0,-2.0,2.0,-2.0,-2.0,2.0,-2.0,-2.0
2025-06-05 10:33:52.717,-0.011329892,0.01738139,-0.046662286,0.20229821,-0.17967945,-0.049235985,0.0,0.0,0.0,0.0353785,0.22808403,0.93279874,-0.53589463,-0.21621415,0.9205259,-0.53531885,0.1759899,-1.0844059,-0.5122709,0.2156777,-0.96411026,-0.5166955,0.06320835,-0.031632617,-0.011606057,0.042978935,-0.07406273,0.0744058,-0.012566823,-0.05464622,-0.0006241772,-0.047697477,-0.051290892,-0.05810735,2.0,2.0,-2.0,-2.0,2.0,-2.0,2.0,-2.0,-2.0,2.0,-2.0,-2.0,2.0,2.0,-2.0,-2.0,2.0,-2.0,2.0,-2.0,-2.0,2.0,-2.0,-2.0
2025-06-05 10:33:52.740,-0.030246302,0.0036851002,-0.023205783,0.22202137,-0.1813142,0.028605977,0.0,0.0,0.0,0.0353785,0.22581312,0.9288547,-0.5434869,-0.20772055,0.91976637,-0.5391295,0.17968298,-1.0911506,-0.52161074,0.21576302,-0.96880955,-0.52148074,-0.06542097,-0.047013614,-0.011285628,-0.009732868,-0.049100235,0.021416984,-0.042592265,-0.02712092,0.043499056,0.07201219,0.009084498,0.006651777,2.0,2.0,-2.0,-2.0,2.0,-2.0,2.0,-2.0,-2.0,2.0,-2.0,-2.0,2.0,2.0,-2.0,-2.0,2.0,-2.0,2.0,-2.0,-2.0,2.0,-2.0,-2.0
2025-06-05 10:33:52.757,0.007040356,-0.01206751,-0.012908842,0.15675187,-0.22254892,-0.04467135,0.0,0.0,0.0,0.0353785,0.22307172,0.9293187,-0.54531175,-0.20456238,0.92144775,-0.53970414,0.18615252,-1.0836546,-0.5204537,0.20250712,-0.9574762,-0.51332307,-0.06660058,0.020996628,-0.01002335,-0.06319957,0.03178944,0.04367467,-0.01722184,-0.0662804,-0.073391534,-0.05092211,-0.052802585,0.005058412,2.0,2.0,-2.0,-2.0,2.0,-2.0,2.0,-2.0,-2.0,2.0,-2.0,-2.0,2.0,2.0,-2.0,-2.0,2.0,-2.0,2.0,-2.0,-2.0,2.0,-2.0,-2.0
2025-06-05 10:33:52.778,-0.024580447,0.015893258,-0.0106867,0.18257697,-0.19307016,-0.011615989,0.0,0.0,0.0,0.035378505,0.22749415,0.92998445,-0.53176224,-0.22086516,0.9070654,-0.53252715,0.17823975,-1.0820175,-0.5250943,0.198509,-0.9611422,-0.51690274,-0.017066,0.072899275,-0.06572246,-0.008405235,0.05312267,0.06695278,0.010131851,0.07049742,-0.015982088,0.046135325,0.060036194,0.05878128,2.0,2.0,-2.0,-2.0,2.0,-2.0,2.0,-2.0,-2.0,2.0,-2.0,-2.0,2.0,2.0,-2.0,-2.0,2.0,-2.0,2.0,-2.0,-2.0,2.0,-2.0,-2.0
2025-06-05 10:33:52.797,-0.015776929,0.008012154,0.008529703,0.18526089,-0.19073729,-0.040301953,0.0,0.0,0.0,0.035378505,0.22778606,0.93035823,-0.5451367,-0.20181985,0.9218041,-0.53046495,0.1832379,-1.0780343,-0.5063265,0.21605918,-0.9630921,-0.5294124,-0.062118303,0.066151895,-0.007084949,0.04073544,0.05921243,0.0014287594,-0.011261919,-0.015255598,0.028604124,-0.025789376,-0.047689214,0.05500401,2.0,2.0,-2.0,-2.0,2.0,-2.0,2.0,-2.0,-2.0,2.0,-2.0,-2.0,2.0,2.0,-2.0,-2.0,2.0,-2.0,2.0,-2.0,-2.0,2.0,-2.0,-2.0
2025-06-05 10:33:52.818,-0.021472242,-0.006771545,-0.022966485,0.23323183,-0.18199848,-0.03017865,0.0,0.0,0.0,0.035378505,0.22575042,0.93736994,-0.54017025,-0.219323,0.90871805,-0.5345238,0.18475823,-1.0833169,-0.5073796,0.20053898,-0.96569556,-0.5255037,0.030442644,0.037198436,-0.0066172583,-0.056102876,-0.05492643,0.033369124,0.01357272,0.058590256,0.04322046,-0.009524854,-0.017990796,0.0436391,2.0,2.0,-2.0,-2.0,2.0,-2.0,2.0,-2.0,-2.0,2.0,-2.0,-2.0,2.0,2.0,-2.0,-2.0,2.0,-2.0,2.0,-2.0,-2.0,2.0,-2.0,-2.0
2025-06-05 10:33:52.840,0.0438567,-0.012936486,0.043899152,0.18244539,-0.17919908,0.031037541,0.0,0.0,0.0,0.03537851,0.2328879,0.9350667,-0.5343467,-0.20203575,0.92329496,-0.53454137,0.18855888,-1.0755849,-0.5238838,0.20450866,-0.9636595,-0.5302671,-0.033468455,-0.015620556,-0.0677517,0.056899205,0.06842553,0.05378149,0.014407113,-0.05392448,-0.052025437,0.07213174,0.049359117,-0.06035797,2.0,2.0,-2.0,-2.0,2.0,-2.0,2.0,-2.0,-2.0,2.0,-2.0,-2.0,2.0,2.0,-2.0,-2.0,2.0,-2.0,2.0,-2.0,-2.0,2.0,-2.0,-2.0
2025-06-05 10:33:52.857,0.046749633,0.0059997244,0.033975586,0.21728244,-0.19972467,-0.0032234176,0.0,0.0,0.0,0.03537851,0.23340157,0.93296283,-0.5421527,-0.2121167,0.91659164,-0.52918476,0.17599577,-1.0893909,-0.5190768,0.2108476,-0.957097,-0.5249975,0.07279132,-0.049576808,0.01930889,0.030252963,0.068801925,-0.057862602,0.05395329,0.017979773,-0.016945876,-0.03265691,0.00034401505,-0.04822968,2.0,2.0,-2.0,-2.0,2.0,-2.0,2.0,-2.0,-2.0,2.0,-2.0,-2.0,2.0,2.0,-2.0,-2.0,2.0,-2.0,2.0,-2.0,-2.0,2.0,-2.0,-2.0
2025-06-05 10:33:52.878,-0.027037902,0.0080909645,-0.04222568,0.17315225,-0.21201476,0.04924665,0.0,0.0,0.0,0.03537851,0.22808842,0.9329909,-0.5421555,-0.21635097,0.91928464,-0.5255532,0.1762465,-1.0896032,-0.5104108,0.20999789,-0.971883,-0.517671,0.058336448,-0.024796559,-0.013975597,-0.0016354078,-0.045103353,-0.032181717,-0.0049434295,0.06674257,-0.04119629,0.03734862,-0.067268014,-0.045070685,2.0,2.0,-2.0,-2.0,2.0,-2.0,2.0,-2.0,-2.0,2.0,-2.0,-2.0,2.0,2.0,-2.0,-2.0,2.0,-2.0,2.0,-2.0,-2.0,2.0,-2.0,-2.0
2025-06-05 10:33:52.898,0.034479007,0.015145763,-0.009271722,0.17223723,-0.1856219,0.024935309,0.0,0.0,0.0,0.03537851,0.21923229,0.9373811,-0.53102654,-0.21276829,0.9164713,-0.5377016,0.18162769,-1.0906109,-0.5092878,0.20061836,-0.9583687,-0.515041,-0.031182267,-0.028321775,-0.032740176,-0.01570145,-0.051641267,-0.004234098,-0.020891692,0.07360792,-0.033412553,-0.056092817,-0.05275189,-0.007951657,2.0,2.0,-2.0,-2.0,2.0,-2.0,2.0,-2.0,-2.0,2.0,-2.0,-2.0,2.0,2.0,-2.0,-2.0,2.0,-2.0,2.0,-2.0,-2.0,2.0,-2.0,-2.0
2025-06-05 10:33:52.918,-0.040670414,-0.04094867,-0.04335499,0.1605734,-0.19240282,-0.039820746,0.0,0.0,0.0,0.035378512,0.22486235,0.93911016,-0.5288958,-0.2106483,0.9124607,-0.5367833,0.18892771,-1.0790448,-0.5258214,0.20436172,-0.95711553,-0.5282437,-0.065408126,0.00697175,-0.027852576,-0.0005521635,-0.027048958,-0.04802737,0.014164846,0.06385537,-0.034344144,-0.06648663,0.029446976,-0.067346565,2.0,2.0,-2.0,-2.0,2.0,-2.0,2.0,-2.0,-2.0,2.0,-2.0,-2.0,2.0,2.0,-2.0,-2.0,2.0,-2.0,2.0,-2.0,-2.0,2.0,-2.0,-2.0
2025-06-05 10:33:52.940,-0.04429334,0.027568305,0.0050649643,0.2000683,-0.20631707,-0.046813734,0.0,0.0,0.0,0.035378512,0.22590816,0.9244581,-0.54146355,-0.20918503,0.90737516,-0.5349622,0.18211389,-1.0764419,-0.5250759,0.19756728,-0.96846414,-0.530467,0.013391681,-0.049644046,0.042828176,-0.0636821,-0.008843479,-0.05314596,-0.017872192,0.048337836,0.04775721,-0.010626012,-0.036129516,-0.044192106,2.0,2.0,-2.0,-2.0,2.0,-2.0,2.0,-2.0,-2.0,2.0,-2.0,-2.0,2.0,2.0,-2.0,-2.0,2.0,-2.0,2.0,-2.0,-2.0,2.0,-2.0,-2.0
2025-06-05 10:33:52.959,0.034401458,0.038220927,-0.049436584,0.23730786,-0.21293995,0.033039916,0.0,0.0,0.0,0.035378512,0.23389319,0.93161446,-0.53997964,-0.21656206,0.91280645,-0.527768,0.18477586,-1.0763695,-0.52232075,0.21102187,-0.96947,-0.51424265,0.012587565,-0.028918602,0.05944887,0.03586237,0.035395212,0.011391838,-0.016720258,0.06569767,0.033665255,-0.0389725,-0.06482018,0.033242874,2.0,2.0,-2.0,-2.0,2.0,-2.0,2.0,-2.0,-2.0,2.0,-2.0,-2.0,2.0,2.0,-2.0,-2.0,2.0,-2.0,2.0,-2.0,-2.0,2.0,-2.0,-2.0
2025-06-05 10:33:52.979,-0.042979598,0.031075742,0.013570453,0.14593485,-0.14764479,0.046725057,0.0,0.0,0.0,0.035378516,0.22260857,0.93168175,-0.5352314,-0.22060084,0.91276497,-0.53550434,0.18751529,-1.0823288,-0.51072013,0.20631908,-0.967356,-0.5253356,-0.0044648466,-0.036634218,0.007848544,0.008675102,0.040523,-0.049842786,-0.023704149,0.012960172,0.026291497,-0.045614038,0.058996696,-0.0009352045,2.0,2.0,-2.0,-2.0,2.0,-2.0,2.0,-2.0,-2.0,2.0,-2.0,-2.0,2.0,2.0,-2.0,-2.0,2.0,-2.0,2.0,-2.0,-2.0,2.0,-2.0,-2.0
2025-06-05 10:33:52.998,0.019811524,0.014780045,0.02171819,0.18794945,-0.18674524,0.026709061,0.0,0.0,0.0,0.035378516,0.22515157,0.92995757,-0.54184896,-0.21739145,0.9069907,-0.5307106,0.1952598,-1.0887421,-0.5202741,0.20879732,-0.9691075,-0.5176591,-0.06778249,-0.050850883,-0.046099827,0.04827821,-0.020688934,0.04303138,-0.00994181,-0.0690312,-0.04921765,0.041217417,0.04659569,0.043385513,2.0,2.0,-2.0,-2.0,2.0,-2.0,2.0,-2.0,-2.0,2.0,-2.0,-2.0,2.0,2.0,-2.0,-2.0,2.0,-2.0,2.0,-2.0,-2.0,2.0,-2.0,-2.0
2025-06-05 10:33:53.018,0.0022233927,0.034915354,-0.04854076,0.16686335,-0.2012203,0.022838986,0.0,0.0,0.0,0.035378516,0.22938691,0.91952646,-0.52812016,-0.2213303,0.90975106,-0.5344009,0.17650735,-1.0747281,-0.5096122,0.21167427,-0.9702221,-0.5265688,0.04481015,0.054530405,0.07107403,0.018214257,-0.0026634666,-0.044114754,0.045053206,-0.042199355,-0.07349624,0.046767727,-0.0032140599,0.04218967,2.0,2.0,-2.0,-2.0,2.0,-2.0,2.0,-2.0,-2.0,2.0,-2.0,-2.0,2.0,2.0,-2.0,-2.0,2.0,-2.0,2.0,-2.0,-2.0,2.0,-2.0,-2.0
2025-06-05 10:33:53.040,-0.014334956,0.03218831,-0.02503665,0.17850314,-0.17033623,-0.03179974,0.0,0.0,0.0,0.035378516,0.23643744,0.920437,-0.53177214,-0.20494285,0.9065083,-0.5337745,0.18233311,-1.0767335,-0.52233416,0.20939992,-0.95882714,-0.5162239,0.008675625,0.00046198373,-0.06687347,0.07252568,0.06961094,-0.058741845,0.019755758,-0.0732629,-0.028148677,-0.02849228,0.019710436,-0.06734763,2.0,2.0,-2.0,-2.0,2.0,-2.0,2.0,-2.0,-2.0,2.0,-2.0,-2.0,2.0,2.0,-2.0,-2.0,2.0,-2.0,2.0,-2.0,-2.0,2.0,-2.0,-2.0
2025-06-05 10:33:53.059,-0.029947914,-0.017776245,0.018880567,0.22466964,-0.19221774,-0.013609967,0.0,0.0,0.0,0.03537852,0.22874403,0.933612,-0.5282291,-0.20941472,0.91696554,-0.5303405,0.18330953,-1.0888458,-0.5118971,0.20567812,-0.9646941,-0.527106,-0.07196171,0.05486583,0.04258755,-0.0032811975,-0.021237526,-0.037436783,-0.07295562,0.01769195,-0.005792528,-0.034116764,0.00891543,0.0058031525,2.0,2.0,-2.0,-2.0,2.0,-2.0,2.0,-2.0,-2.0,2.0,-2.0,-2.0,2.0,2.0,-2.0,-2.0,2.0,-2.0,2.0,-2.0,-2.0,2.0,-2.0,-2.0
2025-06-05 10:33:53.079,-0.005741129,0.04695233,0.007211874,0.2267286,-0.20788875,-0.014235299,0.0,0.0,0.0,0.03537852,0.22747408,0.93675107,-0.53099144,-0.22097763,0.9147092,-0.53750396,0.17793803,-1.0749077,-0.5186108,0.19994208,-0.9680548,-0.53226155,-0.017340705,0.066180095,0.02175131,-0.02325474,-0.06924751,0.03201515,0.07151595,-0.04138619,-0.02389079,-0.036253795,0.013776154,0.03476953,2.0,2.0,-2.0,-2.0,2.0,-2.0,2.0,-2.0,-2.0,2.0,-2.0,-2.0,2.0,2.0,-2.0,-2.0,2.0,-2.0,2.0,-2.0,-2.0,2.0,-2.0,-2.0
2025-06-05 10:33:53.098,0.00022852863,-0.042564105,0.009912833,0.19814956,-0.19897729,0.039806288,0.0,0.0,0.0,0.03537852,0.23618406,0.9245801,-0.53768766,-0.20840181,0.9198355,-0.540171,0.17624782,-1.0860233,-0.5095939,0.20295198,-0.95783967,-0.5226821,0.03676792,0.041705243,-0.048993703,-0.0016348776,0.014715818,0.03476917,0.014506764,0.07152249,-0.03940012,0.07332575,-0.02117311,-0.0692109,2.0,2.0,-2.0,-2.0,2.0,-2.0,2.0,-2.0,-2.0,2.0,-2.0,-2.0,2.0,2.0,-2.0,-2.0,2.0,-2.0,2.0,-2.0,-2.0,2.0,-2.0,-2.0
2025-06-05 10:33:53.119,-0.03385343,0.045681745,-0.025689768,0.19020526,-0.18015197,-0.030598512,0.0,0.0,0.0,0.035378523,0.22035822,0.9385515,-0.5379878,-0.20188563,0.9192292,-0.53229266,0.1764204,-1.0786093,-0.52257293,0.21309814,-0.95850366,-0.52062505,-0.029594244,0.055602573,-0.037753154,0.04991075,-0.015682116,0.0032002379,0.053170305,0.07466586,0.004056585,0.04402707,0.067984626,-0.014613865,2.0,2.0,-2.0,-2.0,2.0,-2.0,2.0,-2.0,-2.0,2.0,-2.0,-2.0,2.0,2.0,-2.0,-2.0,2.0,-2.0,2.0,-2.0,-2.0,2.0,-2.0,-2.0
2025-06-05 10:33:53.140,-0.0026070147,-0.012453765,0.040040728,0.17008938,-0.16686064,0.04212888,0.0,0.0,0.0,0.035378523,0.2260031,0.9381077,-0.53384525,-0.21174873,0.90931505,-0.5290321,0.18994214,-1.0906178,-0.5143081,0.20330355,-0.96275204,-0.5221147,-0.051049773,-0.05420587,0.02726127,-0.014871655,-0.056397717,-0.0023686439,-0.015823958,0.042618707,-0.0071046827,-0.05081065,-0.054234844,0.05619571,2.0,2.0,-2.0,-2.0,2.0,-2.0,2.0,-2.0,-2.0,2.0,-2.0,-2.0,2.0,2.0,-2.0,-2.0,2.0,-2.0,2.0,-2.0,-2.0,2.0,-2.0,-2.0
2025-06-05 10:33:53.159,-0.040723022,0.037687942,-0.01928191,0.22534804,-0.16633034,-0.0067616217,0.0,0.0,0.0,0.035378523,0.238741,0.93141896,-0.5272943,-0.22077866,0.9110459,-0.535447,0.18775019,-1.0804728,-0.5156481,0.20100719,-0.957808,-0.52465665,0.0051927194,-0.0107813645,-0.02270068,0.0024089909,0.045925938,0.0036239307,-0.05987764,0.06735299,0.020203881,0.06303906,0.07199095,-0.061436128,2.0,2.0,-2.0,-2.0,2.0,-2.0,2.0,-2.0,-2.0,2.0,-2.0,-2.0,2.0,2.0,-2.0,-2.0,2.0,-2.0,2.0,-2.0,-2.0,2.0,-2.0,-2.0
2025-06-05 10:33:53.179,-0.017747428,0.04986453,0.022564681,0.14319292,-0.1547546,-0.03998775,0.0,0.0,0.0,0.035378527,0.23471037,0.9310735,-0.5401487,-0.2138859,0.9177506,-0.5237724,0.18206587,-1.0794452,-0.515745,0.2059639,-0.97151333,-0.51923656,0.0081187375,-0.0067641684,-0.069678925,0.0020025892,-0.068709895,0.019885808,-0.05777287,0.011479519,-0.045462016,0.013990181,-0.013991109,0.053442344,2.0,2.0,-2.0,-2.0,2.0,-2.0,2.0,-2.0,-2.0,2.0,-2.0,-2.0,2.0,2.0,-2.0,-2.0,2.0,-2.0,2.0,-2.0,-2.0,2.0,-2.0,-2.0
2025-06-05 10:33:53.199,-0.03828166,-0.0017597966,-0.003747317,0.16067915,-0.21819578,0.033449803,0.0,0.0,0.0,0.035378527,0.22915345,0.9256911,-0.52757764,-0.20803638,0.9227662,-0.5353873,0.18655771,-1.0736192,-0.5166579,0.21459204,-0.9701746,-0.5308585,0.019900577,0.04816739,0.020112852,0.05704996,0.00925934,0.046728622,-0.06577522,0.031533353,0.01594841,-0.002585096,0.041230462,-0.062377077,2.0,2.0,-2.0,-2.0,2.0,-2.0,2.0,-2.0,-2.0,2.0,-2.0,-2.0,2.0,2.0,-2.0,-2.0,2.0,-2.0,2.0,-2.0,-2.0,2.0,-2.0,-2.0
2025-06-05 10:33:53.220,0.0069861435,0.04749907,0.032067128,0.2258981,-0.16660018,-0.010395399,0.0,0.0,0.0,0.035378527,0.23649026,0.91968364,-0.5441182,-0.20908052,0.9176291,-0.5262678,0.1850933,-1.0888582,-0.524201,0.20144066,-0.9576804,-0.5252178,-0.06290301,0.06489289,-0.07160616,-0.034826,0.027982274,0.04363714,0.014309072,0.05500567,0.017106488,0.021835882,-0.050151523,0.036391955,2.0,2.0,-2.0,-2.0,2.0,-2.0,2.0,-2.0,-2.0,2.0,-2.0,-2.0,2.0,2.0,-2.0,-2.0,2.0,-2.0,2.0,-2.0,-2.0,2.0,-2.0,-2.0
2025-06-05 10:33:53.240,0.017603492,-0.0252153,0.011793888,0.1789409,-0.21480834,-0.0075520123,0.0,0.0,0.0,0.035378527,0.22555666,0.93912846,-0.5385785,-0.21818538,0.90810144,-0.52877384,0.18571466,-1.0764385,-0.51637954,0.20585738,-0.9603653,-0.51608187,-0.051615734,0.009784226,0.010276306,-0.012803252,-0.005866788,-0.07306265,-0.03778871,-0.039882023,0.043271627,-0.021230554,0.010718703,-0.009157684,2.0,2.0,-2.0,-2.0,2.0,-2.0,2.0,-2.0,-2.0,2.0,-2.0,-2.0,2.0,2.0,-2.0,-2.0,2.0,-2.0,2.0,-2.0,-2.0,2.0,-2.0,-2.0
2025-06-05 10:33:53.260,0.0146563975,0.028003443,0.02326899,0.19796476,-0.21521555,0.022309745,0.0,0.0,0.0,0.03537853,0.22691377,0.9335477,-0.5306208,-0.21388522,0.9245248,-0.5273094,0.17806433,-1.071736,-0.5136769,0.2097707,-0.95502025,-0.5216713,0.002725057,-0.027022032,0.01477019,0.006800017,-0.03701121,0.00029366516,0.011767697,0.041415,-0.05555911,-0.05914412,0.011935404,0.011965282,2.0,2.0,-2.0,-2.0,2.0,-2.0,2.0,-2.0,-2.0,2.0,-2.0,-2.0,2.0,2.0,-2.0,-2.0,2.0,-2.0,2.0,-2.0,-2.0,2.0,-2.0,-2.0
2025-06-05 10:33:53.280,0.049114726,-0.013461585,-0.019467548,0.15169068,-0.23500961,0.010810362,0.0,0.0,0.0,0.03537853,0.22370987,0.9262215,-0.5397731,-0.20710135,0.9167769,-0.5244906,0.195,-1.0782799,-0.510755,0.21527107,-0.9653434,-0.52335453,-0.07105216,-0.038532197,0.046571996,-0.02717761,0.05991503,-0.011490354,-0.066885926,-0.02545197,0.0066565787,-0.014524633,0.072772674,-0.048626833,2.0,2.0,-2.0,-2.0,2.0,-2.0,2.0,-2.0,-2.0,2.0,-2.0,-2.0,2.0,2.0,-2.0,-2.0,2.0,-2.0,2.0,-2.0,-2.0,2.0,-2.0,-2.0
2025-06-05 10:33:53.300,0.037402533,-0.02720435,0.03294655,0.15411456,-0.13655998,0.036715254,0.0,0.0,0.0,0.03537853,0.23450677,0.9210329,-0.53168714,-0.20221873,0.91363955,-0.5351179,0.17664221,-1.0860357,-0.52304053,0.20557043,-0.96786106,-0.5174079,-0.015191739,-0.011389238,0.037353367,-0.07379457,0.04699613,0.061403446,0.04379612,-0.009298775,0.037666794,0.011759349,-0.01504362,-0.016569292,2.0,2.0,-2.0,-2.0,2.0,-2.0,2.0,-2.0,-2.0,2.0,-2.0,-2.0,2.0,2.0,-2.0,-2.0,2.0,-2.0,2.0,-2.0,-2.0,2.0,-2.0,-2.0
2025-06-05 10:33:53.322,0.02286769,-0.0016185268,0.020888217,0.21308003,-0.176642,-0.025170546,0.0,0.0,0.0,0.035378534,0.23181684,0.93925774,-0.5405694,-0.21064542,0.9117276,-0.530373,0.18415742,-1.0841658,-0.5200864,0.20700862,-0.96296036,-0.5281642,0.06061354,0.04282383,0.02188731,0.07042863,-0.0658688,0.008169294,-0.0110815605,0.040483203,0.05672851,-0.011025286,-0.061621223,0.025634667,2.0,2.0,-2.0,-2.0,2.0,-2.0,2.0,-2.0,-2.0,2.0,-2.0,-2.0,2.0,2.0,-2.0,-2.0,2.0,-2.0,2.0,-2.0,-2.0,2.0,-2.0,-2.0
2025-06-05 10:33:53.340,0.034083985,-0.0037118655,-0.009876402,0.20308721,-0.19656704,0.0037416902,0.0,0.0,0.0,0.035378534,0.2264613,0.9276495,-0.53649247,-0.21991691,0.9108035,-0.526346,0.18714426,-1.0735804,-0.50853074,0.20960894,-0.95431155,-0.52371675,-0.026051426,0.010971742,0.012286248,0.012600926,0.06275315,-0.025133684,0.07236063,0.024347454,-0.020154322,0.034239307,-0.017546872,-0.018360315,2.0,2.0,-2.0,-2.0,2.0,-2.0,2.0,-2.0,-2.0,2.0,-2.0,-2.0,2.0,2.0,-2.0,-2.0,2.0,-2.0,2.0,-2.0,-2.0,2.0,-2.0,-2.0
2025-06-05 10:33:53.360,0.04444033,0.032133628,-0.033233177,0.15054162,-0.23269108,-0.00017487971,0.0,0.0,0.0,0.035378534,0.21943106,0.9393745,-0.5350176,-0.21896034,0.9228969,-0.5366134,0.18134761,-1.0742655,-0.51556224,0.20976014,-0.9739884,-0.5170937,0.03372545,0.00662716,-0.046796933,-0.017858857,-0.005738388,0.046117082,-0.041022923,-0.024968948,-0.026164038,0.070196524,-0.024880406,-0.03246169,2.0,2.0,-2.0,-2.0,2.0,-2.0,2.0,-2.0,-2.0,2.0,-2.0,-2.0,2.0,2.0,-2.0,-2.0,2.0,-2.0,2.0,-2.0,-2.0,2.0,-2.0,-2.0
2025-06-05 10:33:53.380,0.029653985,-0.017221965,-0.01104647,0.16850092,-0.1917295,-0.031234048,0.0,0.0,0.0,0.035378534,0.23006868,0.92858946,-0.5447262,-0.20886225,0.9178813,-0.53736144,0.17581645,-1.087026,-0.5228507,0.20929237,-0.9627673,-0.5314779,-0.016864546,0.008007729,0.019497385,-0.05043024,-0.033001214,0.05191238,0.016126083,-0.05330381,-0.059289537,-0.024007063,0.027307946,-0.03266102,2.0,2.0,-2.0,-2.0,2.0,-2.0,2.0,-2.0,-2.0,2.0,-2.0,-2.0,2.0,2.0,-2.0,-2.0,2.0,-2.0,2.0,-2.0,-2.0,2.0,-2.0,-2.0
2025-06-05 10:33:53.400,0.025755892,0.031154003,0.038378373,0.1551821,-0.16796978,0.039701276,0.0,0.0,0.0,0.035378538,0.23335893,0.936401,-0.5385173,-0.21934487,0.9104426,-0.5392282,0.1901422,-1.088017,-0.50914794,0.21225256,-0.9598639,-0.52288604,-0.068396665,0.05411247,0.035998125,-0.011952854,-0.05026566,-0.01398236,0.06496304,0.05938098,-0.04861897,-0.06905551,0.03139088,0.028952707,2.0,2.0,-2.0,-2.0,2.0,-2.0,2.0,-2.0,-2.0,2.0,-2.0,-2.0,2.0,2.0,-2.0,-2.0,2.0,-2.0,2.0,-2.0,-2.0,2.0,-2.0,-2.0
2025-06-05 10:33:53.422,0.04092566,0.008337282,-0.047643963,0.16743532,-0.17583771,0.021495093,0.0,0.0,0.0,0.035378538,0.23667279,0.9379941,-0.537342,-0.20818721,0.90910566,-0.5220209,0.17895164,-1.085705,-0.50886106,0.20959958,-0.97339654,-0.5257011,-0.05911059,0.045189705,0.016813735,0.03481726,-0.015580595,0.07422335,0.054685134,0.02252147,0.0484821,-0.06868543,0.05230051,-0.036600776,2.0,2.0,-2.0,-2.0,2.0,-2.0,2.0,-2.0,-2.0,2.0,-2.0,-2.0,2.0,2.0,-2.0,-2.0,2.0,-2.0,2.0,-2.0,-2.0,2.0,-2.0,-2.0
2025-06-05 10:33:53.441,-0.036122657,0.01082487,0.022926565,0.1791846,-0.15807669,-0.0066819773,0.0,0.0,0.0,0.035378538,0.23061942,0.9352614,-0.53977007,-0.20349398,0.9192672,-0.5290425,0.19100426,-1.0793477,-0.51997757,0.20684823,-0.9664275,-0.52664346,0.047065508,-0.0028104784,-0.04237553,0.017640335,0.0008302427,0.004254893,0.03727205,0.046856053,-0.002583137,-0.04436017,0.010111624,-0.017450241,2.0,2.0,-2.0,-2.0,2.0,-2.0,2.0,-2.0,-2.0,2.0,-2.0,-2.0,2.0,2.0,-2.0,-2.0,2.0,-2.0,2.0,-2.0,-2.0,2.0,-2.0,-2.0
2025-06-05 10:33:53.460,0.024097033,0.009927708,0.025753643,0.15058945,-0.22040051,0.033347722,0.0,0.0,0.0,0.03537854,0.22674906,0.92302436,-0.53038335,-0.21956697,0.92090464,-0.53195536,0.18098198,-1.0844036,-0.5237007,0.20776108,-0.9670183,-0.5197339,0.038657892,0.067781895,-0.073532864,0.0665644,0.020585,-0.026994936,-0.033413272,0.008673838,0.0495047,0.015253163,-0.016482944,-0.040046148,2.0,2.0,-2.0,-2.0,2.0,-2.0,2.0,-2.0,-2.0,2.0,-2.0,-2.0,2.0,2.0,-2.0,-2.0,2.0,-2.0,2.0,-2.0,-2.0,2.0,-2.0,-2.0
2025-06-05 10:33:53.480,-0.016242534,0.022202773,-0.031190312,0.20951682,-0.17090988,0.03500615,0.0,0.0,0.0,0.03537854,0.22504444,0.9222959,-0.53655857,-0.21190181,0.90563834,-0.5386285,0.17625433,-1.0881785,-0.51368576,0.21270812,-0.97109723,-0.52369905,-0.03474645,0.03140531,-0.0009488331,0.030389983,0.04850244,-0.06936109,-0.05959339,0.009227408,0.02799742,-0.06839684,0.038534846,-0.01040585,2.0,2.0,-2.0,-2.0,2.0,-2.0,2.0,-2.0,-2.0,2.0,-2.0,-2.0,2.0,2.0,-2.0,-2.0,2.0,-2.0,2.0,-2.0,-2.0,2.0,-2.0,-2.0
2025-06-05 10:33:53.500,0.00043501498,-0.01469217,-0.040410712,0.1929463,-0.21380836,-0.03953378,0.0,0.0,0.0,0.03537854,0.2196689,0.93907857,-0.5407392,-0.21658137,0.91791356,-0.5369592,0.19431196,-1.0873362,-0.50932246,0.21392411,-0.9589702,-0.5298805,0.07318995,-0.014437409,0.005632155,0.06678155,-0.04044791,-0.012779229,-0.052919056,0.036512736,-0.004535404,0.032314967,0.0011364822,-0.03636268,2.0,2.0,-2.0,-2.0,2.0,-2.0,2.0,-2.0,-2.0,2.0,-2.0,-2.0,2.0,2.0,-2.0,-2.0,2.0,-2.0,2.0,-2.0,-2.0,2.0,-2.0,-2.0
2025-06-05 10:33:53.525,0.018783687,0.014098963,0.04912397,0.16876306,-0.16132893,0.027865062,0.0,0.0,0.0,0.035378546,0.23740439,0.928481,-0.54192466,-0.22123349,0.92434484,-0.5379179,0.18163782,-1.0753182,-0.5103927,0.21271415,-0.9714242,-0.5200275,-0.0558198,-0.008367623,-0.009658705,-0.069237,-0.036375187,0.017521359,-0.0020654732,-0.02672568,-0.0022035537,-0.003752776,-0.012222385,-0.049304415,2.0,2.0,-2.0,-2.0,2.0,-2.0,2.0,-2.0,-2.0,2.0,-2.0,-2.0,2.0,2.0,-2.0,-2.0,2.0,-2.0,2.0,-2.0,-2.0,2.0,-2.0,-2.0
2025-06-05 10:33:53.542,0.04733821,0.015832081,0.031623714,0.16774619,-0.16751474,-0.023162683,0.0,0.0,0.0,0.035378546,0.23686211,0.93047035,-0.54277295,-0.22130723,0.9053249,-0.5272783,0.18121883,-1.078466,-0.5238694,0.21318264,-0.96560675,-0.5261208,0.070721716,0.032768957,-0.0622009,-0.033674613,-0.006194835,0.012225715,0.021507073,-0.047106855,-0.042646803,-0.007158587,-0.037238073,-0.00088778726,2.0,2.0,-2.0,-2.0,2.0,-2.0,2.0,-2.0,-2.0,2.0,-2.0,-2.0,2.0,2.0,-2.0,-2.0,2.0,-2.0,2.0,-2.0,-2.0,2.0,-2.0,-2.0
2025-06-05 10:33:53.562,0.03594327,-0.008806764,-0.012029066,0.19886003,-0.16560537,-0.028605314,0.0,0.0,0.0,0.035378546,0.23760514,0.93237996,-0.53277177,-0.22086714,0.91803163,-0.5298829,0.1901262,-1.0855888,-0.5191661,0.20972002,-0.9642808,-0.5196558,0.020574622,0.055965442,-0.047264017,-0.03782432,0.06909463,0.004627392,-0.037590273,-0.0418634,0.069190115,0.010095849,0.053573754,0.04561854,2.0,2.0,-2.0,-2.0,2.0,-2.0,2.0,-2.0,-2.0,2.0,-2.0,-2.0,2.0,2.0,-2.0,-2.0,2.0,-2.0,2.0,-2.0,-2.0,2.0,-2.0,-2.0
2025-06-05 10:33:53.582,0.025594784,0.018730659,0.016187442,0.16422804,-0.16202901,0.040722523,0.0,0.0,0.0,0.035378546,0.22876997,0.92529625,-0.5440501,-0.22107413,0.91363627,-0.541586,0.18002887,-1.0846422,-0.5152758,0.211799,-0.97112834,-0.5139399,-0.0012353393,0.063917115,-0.021980079,0.022201767,0.023129925,0.05722939,-0.06985862,-0.045860976,0.0055012167,-0.01327674,0.009074485,-0.027347347,2.0,2.0,-2.0,-2.0,2.0,-2.0,2.0,-2.0,-2.0,2.0,-2.0,-2.0,2.0,2.0,-2.0,-2.0,2.0,-2.0,2.0,-2.0,-2.0,2.0,-2.0,-2.0
2025-06-05 10:33:53.602,-0.01950939,-0.048832007,0.0013572786,0.21780552,-0.15689413,0.0047387914,0.0,0.0,0.0,0.03537855,0.23902045,0.9261525,-0.52649015,-0.2067083,0.9056103,-0.53116053,0.19005616,-1.0771003,-0.5187456,0.21471293,-0.9691925,-0.5238124,-0.03441449,-0.022029828,0.04793073,-0.020232128,0.02776589,0.03888241,0.03532402,0.03175545,-0.06634618,0.02208574,0.027617227,-0.05567498,2.0,2.0,-2.0,-2.0,2.0,-2.0,2.0,-2.0,-2.0,2.0,-2.0,-2.0,2.0,2.0,-2.0,-2.0,2.0,-2.0,2.0,-2.0,-2.0,2.0,-2.0,-2.0
2025-06-05 10:33:53.624,-0.0058967723,0.024918765,-0.046841327,0.16721338,-0.23129147,-0.008034446,0.0,0.0,0.0,0.03537855,0.22924918,0.92299664,-0.5450522,-0.20305096,0.9100631,-0.53805923,0.17922936,-1.0776979,-0.524002,0.21585663,-0.95657146,-0.525688,-0.047601596,0.0049545197,-0.030438676,-0.0051270574,0.07120623,-0.03283075,-0.014707169,0.031330183,0.008152075,-0.028464088,0.010028716,-0.044058714,2.0,2.0,-2.0,-2.0,2.0,-2.0,2.0,-2.0,-2.0,2.0,-2.0,-2.0,2.0,2.0,-2.0,-2.0,2.0,-2.0,2.0,-2.0,-2.0,2.0,-2.0,-2.0
2025-06-05 10:33:53.642,0.020633468,0.02516767,0.020903433,0.22686712,-0.13713694,0.0070553436,0.0,0.0,0.0,0.03537855,0.22535713,0.9307497,-0.5347459,-0.21889545,0.90941435,-0.54085505,0.17597722,-1.087778,-0.5090574,0.20086178,-0.9709964,-0.5268059,-0.019385055,-0.05224948,0.07316649,-0.008592356,0.04464954,-0.03320594,0.053376783,-0.03155618,-0.021794533,0.021851383,-0.061971903,0.048651826,2.0,2.0,-2.0,-2.0,2.0,-2.0,2.0,-2.0,-2.0,2.0,-2.0,-2.0,2.0,2.0,-2.0,-2.0,2.0,-2.0,2.0,-2.0,-2.0,2.0,-2.0,-2.0
2025-06-05 10:33:53.663,-0.03103115,-0.0068144687,0.048038304,0.1844433,-0.2200472,-0.0041177813,0.0,0.0,0.0,0.035378553,0.23864831,0.9283491,-0.53932583,-0.22154337,0.9125323,-0.5370261,0.1855615,-1.082396,-0.5119793,0.2098134,-0.9652167,-0.51991886,0.035555143,0.057696436,0.024098631,0.030149918,0.033098876,-0.06473081,0.01498651,0.073696814,-0.04906531,0.046037666,-0.025895763,0.0044517596,2.0,2.0,-2.0,-2.0,2.0,-2.0,2.0,-2.0,-2.0,2.0,-2.0,-2.0,2.0,2.0,-2.0,-2.0,2.0,-2.0,2.0,-2.0,-2.0,2.0,-2.0,-2.0
2025-06-05 10:33:53.684,-0.019739898,-0.046551015,0.017251538,0.14973132,-0.22606511,0.036676608,0.0,0.0,0.0,0.035378553,0.22977112,0.92957276,-0.53532314,-0.20716673,0.9072189,-0.5262298,0.19436659,-1.0900408,-0.51511604,0.2143428,-0.9576828,-0.5161925,0.007846646,0.014760527,-0.020404434,-0.059417266,-0.07229133,-0.067379355,0.020318208,0.06525174,0.07459713,0.0053800284,-0.028999152,-0.024181025,2.0,2.0,-2.0,-2.0,2.0,-2.0,2.0,-2.0,-2.0,2.0,-2.0,-2.0,2.0,2.0,-2.0,-2.0,2.0,-2.0,2.0,-2.0,-2.0,2.0,-2.0,-2.0
2025-06-05 10:33:53.702,0.04838217,-0.044331565,-0.030680485,0.15702483,-0.20510192,-0.021528719,0.0,0.0,0.0,0.035378553,0.23383042,0.92973113,-0.5306147,-0.21808466,0.9224787,-0.53743553,0.1782326,-1.084527,-0.52133524,0.21344452,-0.9729601,-0.5244719,-0.043378305,0.070153035,-0.012508228,0.0007658505,0.004530429,0.0703973,-0.03210881,-0.04070683,-0.008078907,0.02508447,0.015462223,-0.0072493916,2.0,2.0,-2.0,-2.0,2.0,-2.0,2.0,-2.0,-2.0,2.0,-2.0,-2.0,2.0,2.0,-2.0,-2.0,2.0,-2.0,2.0,-2.0,-2.0,2.0,-2.0,-2.0
2025-06-05 10:33:53.723,-0.027622666,0.0162381,0.016590739,0.16999957,-0.14147402,0.009277121,0.0,0.0,0.0,0.035378557,0.23867434,0.9300192,-0.5399809,-0.21560699,0.91830206,-0.53635377,0.1892291,-1.0810809,-0.5206305,0.20651142,-0.97177553,-0.52264327,-0.050022494,-0.024576666,0.051662743,0.05704288,-0.012948307,-0.055227224,0.052332193,-0.024781318,-0.028909456,-0.040255263,0.043598395,-0.05495837,2.0,2.0,-2.0,-2.0,2.0,-2.0,2.0,-2.0,-2.0,2.0,-2.0,-2.0,2.0,2.0,-2.0,-2.0,2.0,-2.0,2.0,-2.0,-2.0,2.0,-2.0,-2.0
2025-06-05 10:33:53.743,-0.045246378,-0.035215594,-0.017865751,0.18935253,-0.15183675,-0.019528713,0.0,0.0,0.0,0.035378557,0.23771186,0.9328532,-0.5270555,-0.21747606,0.9176512,-0.5303761,0.18368,-1.0778854,-0.52136964,0.20253016,-0.9706122,-0.5282383,0.0435367,0.046871424,0.01920443,-0.04555521,-0.025245674,-0.030217491,-0.03121542,0.027873952,-0.058784496,-0.029342845,-0.002249817,-0.056428574,2.0,2.0,-2.0,-2.0,2.0,-2.0,2.0,-2.0,-2.0,2.0,-2.0,-2.0,2.0,2.0,-2.0,-2.0,2.0,-2.0,2.0,-2.0,-2.0,2.0,-2.0,-2.0
2025-06-05 10:33:53.763,-0.041638877,0.021143064,-0.01037024,0.23555192,-0.13713282,0.011936011,0.0,0.0,0.0,0.035378557,0.23060569,0.93390363,-0.5455718,-0.21725163,0.9138854,-0.5254729,0.17705537,-1.0724816,-0.5072686,0.19822644,-0.965718,-0.51624703,0.050646354,-0.06904577,-0.010741015,0.048086964,-0.033362575,-0.014181904,0.056650616,-0.061717995,-0.044995625,-0.012919758,-0.018281559,-0.015938515,2.0,2.0,-2.0,-2.0,2.0,-2.0,2.0,-2.0,-2.0,2.0,-2.0,-2.0,2.0,2.0,-2.0,-2.0,2.0,-2.0,2.0,-2.0,-2.0,2.0,-2.0,-2.0
2025-06-05 10:33:53.783,-0.013851912,-0.03955008,0.024276169,0.166436,-0.13711518,-0.04863613,0.0,0.0,0.0,0.035378557,0.22354227,0.9356945,-0.54478365,-0.21343304,0.91913635,-0.5404305,0.18246649,-1.0740247,-0.52618575,0.20470215,-0.9706823,-0.5178022,0.0069286176,0.021064939,-0.056969803,0.04467751,-0.04539866,0.03067704,0.019922407,-0.051587958,-0.054428678,-0.071522065,-0.04705463,-0.059335273,2.0,2.0,-2.0,-2.0,2.0,-2.0,2.0,-2.0,-2.0,2.0,-2.0,-2.0,2.0,2.0,-2.0,-2.0,2.0,-2.0,2.0,-2.0,-2.0,2.0,-2.0,-2.0
2025-06-05 10:33:53.805,0.01988749,-0.00017084574,0.028094053,0.20462017,-0.16922008,0.010755622,0.0,0.0,0.0,0.03537856,0.2372776,0.9354534,-0.5406434,-0.21118571,0.9072017,-0.53618217,0.18852116,-1.0749912,-0.52426034,0.21479167,-0.97190475,-0.5287619,0.03331733,0.07478938,-0.02944596,-0.025325557,-0.070023686,-0.051992904,0.049164016,0.024267854,-0.040720344,-0.055860672,-0.017065318,0.008585758,2.0,2.0,-2.0,-2.0,2.0,-2.0,2.0,-2.0,-2.0,2.0,-2.0,-2.0,2.0,2.0,-2.0,-2.0,2.0,-2.0,2.0,-2.0,-2.0,2.0,-2.0,-2.0
2025-06-05 10:33:53.823,-0.032983903,0.03140498,0.046158727,0.20644327,-0.22545652,0.01842321,0.0,0.0,0.0,0.03537856,0.2376561,0.9273262,-0.52783877,-0.21186253,0.92169285,-0.5351336,0.18290442,-1.0802282,-0.5194746,0.21486469,-0.96814615,-0.5262628,0.067469455,0.027803872,-0.018550823,-0.05959776,0.02519084,-0.050956957,0.020526411,-0.035733007,0.05363778,-0.07372393,0.072674945,0.051850006,2.0,2.0,-2.0,-2.0,2.0,-2.0,2.0,-2.0,-2.0,2.0,-2.0,-2.0,2.0,2.0,-2.0,-2.0,2.0,-2.0,2.0,-2.0,-2.0,2.0,-2.0,-2.0
2025-06-05 10:33:53.843,0.029228313,0.04287097,-0.038816962,0.15498722,-0.19887748,-0.035911974,0.0,0.0,0.0,0.03537856,0.22937147,0.9359031,-0.5343951,-0.22012277,0.9230228,-0.53803974,0.18090934,-1.0754036,-0.51477623,0.20656425,-0.96708983,-0.51710755,0.018994262,-0.056214828,-0.062923834,-0.041036762,0.04951277,0.020474337,0.03156913,0.04853318,-0.060693678,0.060363237,0.012692303,-0.0121789975,2.0,2.0,-2.0,-2.0,2.0,-2.0,2.0,-2.0,-2.0,2.0,-2.0,-2.0,2.0,2.0,-2.0,-2.0,2.0,-2.0,2.0,-2.0,-2.0,2.0,-2.0,-2.0
2025-06-05 10:33:53.863,-0.04335658,0.048527796,-0.0005216023,0.17735645,-0.2209027,0.03122886,0.0,0.0,0.0,0.035378564,0.22984293,0.93718517,-0.5327632,-0.20901118,0.90724045,-0.5361858,0.17810223,-1.0778469,-0.5238338,0.1985618,-0.97132003,-0.51502687,0.05761743,-0.019312188,0.07341569,0.019285204,-0.009889782,-0.024892049,0.013642674,0.048254773,-0.038448267,0.05643584,-0.006552895,-0.03331694,2.0,2.0,-2.0,-2.0,2.0,-2.0,2.0,-2.0,-2.0,2.0,-2.0,-2.0,2.0,2.0,-2.0,-2.0,2.0,-2.0,2.0,-2.0,-2.0,2.0,-2.0,-2.0
2025-06-05 10:33:53.883,0.02045766,-0.045083907,0.047117587,0.17217603,-0.20323724,-0.04073275,0.0,0.0,0.0,0.035378564,0.23014006,0.9228487,-0.5306276,-0.21521626,0.91512257,-0.5355684,0.17911386,-1.0892484,-0.5251294,0.19901735,-0.9570797,-0.51902986,-0.009006871,0.00866514,-0.01668367,-0.04018125,-0.04209484,0.028262878,-0.032148477,0.043987952,-0.03400305,0.06489827,-0.042064123,0.05566866,2.0,2.0,-2.0,-2.0,2.0,-2.0,2.0,-2.0,-2.0,2.0,-2.0,-2.0,2.0,2.0,-2.0,-2.0,2.0,-2.0,2.0,-2.0,-2.0,2.0,-2.0,-2.0
2025-06-05 10:33:53.905,0.010530329,0.04676062,-0.049954213,0.19695127,-0.21057501,0.00083306286,0.0,0.0,0.0,0.035378564,0.23406555,0.9252397,-0.5292482,-0.21347013,0.91942096,-0.536281,0.17678067,-1.0801967,-0.5201053,0.20169532,-0.95584387,-0.5145407,-0.023496887,-0.0026356333,0.0041597188,-0.0148726795,-0.025415564,-0.061544146,0.054358415,-0.03942728,0.0017695226,-0.035190646,-0.07315839,-0.07303126,2.0,2.0,-2.0,-2.0,2.0,-2.0,2.0,-2.0,-2.0,2.0,-2.0,-2.0,2.0,2.0,-2.0,-2.0,2.0,-2.0,2.0,-2.0,-2.0,2.0,-2.0,-2.0
2025-06-05 10:33:53.923,0.045860335,0.0345146,-0.030800885,0.1829055,-0.14617331,-0.0063882493,0.0,0.0,0.0,0.035378564,0.23756692,0.9385094,-0.5426496,-0.22045992,0.92105687,-0.53223014,0.19023624,-1.088394,-0.50673324,0.20512347,-0.96362925,-0.5162742,-0.073109664,-0.074429214,0.028925087,0.013551666,0.03363309,0.023239225,0.0060666846,-0.040691413,0.041498665,0.007953463,-0.03649673,0.015711531,2.0,2.0,-2.0,-2.0,2.0,-2.0,2.0,-2.0,-2.0,2.0,-2.0,-2.0,2.0,2.0,-2.0,-2.0,2.0,-2.0,2.0,-2.0,-2.0,2.0,-2.0,-2.0
2025-06-05 10:33:53.945,-0.024959655,-0.029705402,-0.019696139,0.14475614,-0.22243981,-0.043880153,0.0,0.0,0.0,0.035378568,0.23586397,0.9238117,-0.53214467,-0.21976055,0.9179406,-0.5298065,0.180731,-1.0765817,-0.51201576,0.2073848,-0.96026385,-0.517444,-0.038717255,0.06346271,-0.03746349,-0.011972151,-0.054828078,-0.0026940084,-0.0028456626,0.043696415,-0.05159772,0.00016515974,-0.023123903,-0.009379166,2.0,2.0,-2.0,-2.0,2.0,-2.0,2.0,-2.0,-2.0,2.0,-2.0,-2.0,2.0,2.0,-2.0,-2.0,2.0,-2.0,2.0,-2.0,-2.0,2.0,-2.0,-2.0
2025-06-05 10:33:53.966,-0.04903823,-0.03219283,-0.043620486,0.17839868,-0.21016948,-0.048376616,0.0,0.0,0.0,0.035378568,0.23146541,0.9252473,-0.5398523,-0.20945086,0.9086575,-0.5311426,0.17976986,-1.0903354,-0.51945156,0.1963628,-0.97290367,-0.529111,-0.057425015,-0.021052066,0.05360185,0.021704836,0.006277283,0.07120039,0.010008171,-0.034642052,0.0317846,-2.1476084e-05,0.04149086,0.008129545,2.0,2.0,-2.0,-2.0,2.0,-2.0,2.0,-2.0,-2.0,2.0,-2.0,-2.0,2.0,2.0,-2.0,-2.0,2.0,-2.0,2.0,-2.0,-2.0,2.0,-2.0,-2.0
2025-06-05 10:33:53.985,0.021799786,-0.032961406,0.0017612457,0.21481659,-0.20129287,0.04069969,0.0,0.0,0.0,0.035378568,0.21917556,0.9272857,-0.52651966,-0.21620399,0.91169775,-0.54142565,0.18198656,-1.085152,-0.52478606,0.20294854,-0.9713118,-0.51314193,0.070390426,-0.038700275,-0.031310037,0.033986397,-0.021905787,0.06929081,0.026402032,-0.057781715,0.063297614,0.047296967,0.073584326,0.0028415963,2.0,2.0,-2.0,-2.0,2.0,-2.0,2.0,-2.0,-2.0,2.0,-2.0,-2.0,2.0,2.0,-2.0,-2.0,2.0,-2.0,2.0,-2.0,-2.0,2.0,-2.0,-2.0
2025-06-05 10:33:54.007,-0.04977849,0.009622766,-0.0105548175,0.16130914,-0.13980222,-0.003295245,0.0,0.0,0.0,0.03537857,0.23458181,0.9282346,-0.54218143,-0.2188183,0.91305053,-0.53857327,0.17789973,-1.0804335,-0.52340484,0.19644326,-0.9686541,-0.5282458,0.06329041,-0.028473316,-0.052073684,0.03378905,-0.0031158759,0.033527177,0.02961797,-0.063548006,-0.0016498803,-0.06166637,0.029776057,-0.017743086,2.0,2.0,-2.0,-2.0,2.0,-2.0,2.0,-2.0,-2.0,2.0,-2.0,-2.0,2.0,2.0,-2.0,-2.0,2.0,-2.0,2.0,-2.0,-2.0,2.0,-2.0,-2.0
2025-06-05 10:33:54.026,0.035697237,-0.049047627,-0.039390277,0.16436161,-0.22525838,0.024562249,0.0,0.0,0.0,0.03537857,0.22447261,0.9222731,-0.5331705,-0.21928489,0.90952545,-0.5376748,0.18841012,-1.0764531,-0.50724596,0.20161723,-0.97395736,-0.51279944,-0.073849365,-0.029707996,0.0077274316,0.06935477,0.020728726,-0.05768856,0.01918979,0.0010413463,0.069104664,-0.054895654,0.0013661986,-0.0098387385,2.0,2.0,-2.0,-2.0,2.0,-2.0,2.0,-2.0,-2.0,2.0,-2.0,-2.0,2.0,2.0,-2.0,-2.0,2.0,-2.0,2.0,-2.0,-2.0,2.0,-2.0,-2.0
2025-06-05 10:33:54.045,0.007827591,-0.028479954,-0.019430539,0.20762812,-0.2153628,-0.015494125,0.0,0.0,0.0,0.03537857,0.22507969,0.9276844,-0.53744966,-0.20997073,0.91541785,-0.5374919,0.18638667,-1.0866495,-0.518403,0.19890821,-0.96140414,-0.53023845,0.0049916436,0.030589215,-0.0081370985,0.047748562,-0.029790279,-0.023445731,-0.004851533,-0.014917577,-0.043524645,-0.036871094,0.054762013,-0.022577278,2.0,2.0,-2.0,-2.0,2.0,-2.0,2.0,-2.0,-2.0,2.0,-2.0,-2.0,2.0,2.0,-2.0,-2.0,2.0,-2.0,2.0,-2.0,-2.0,2.0,-2.0,-2.0
2025-06-05 10:33:54.065,-0.029768044,-0.009141396,-0.031563535,0.19409955,-0.18316333,-0.04368525,0.0,0.0,0.0,0.035378575,0.23046838,0.92675626,-0.53345823,-0.21615034,0.9148508,-0.52244866,0.18564503,-1.0831863,-0.51779383,0.20043063,-0.9705532,-0.5201393,0.062238786,-0.031898744,0.018323986,0.041344114,0.018018525,0.043201502,0.030394899,0.046606965,0.028570825,0.00550861,0.019152362,-0.016590087,2.0,2.0,-2.0,-2.0,2.0,-2.0,2.0,-2.0,-2.0,2.0,-2.0,-2.0,2.0,2.0,-2.0,-2.0,2.0,-2.0,2.0,-2.0,-2.0,2.0,-2.0,-2.0
2025-06-05 10:33:54.086,-0.027203275,0.027122157,0.004627944,0.22928067,-0.19903088,-0.0039747898,0.0,0.0,0.0,0.035378575,0.235319,0.93312174,-0.5263533,-0.21597046,0.9147883,-0.5405239,0.19346601,-1.0848328,-0.50815874,0.1974604,-0.9590554,-0.51423734,0.011408446,0.0038814167,-0.04244697,0.0020650132,-0.06040915,0.056427214,-0.028207751,0.013015361,-0.068587564,-0.0013644611,-0.050530184,0.008487175,2.0,2.0,-2.0,-2.0,2.0,-2.0,2.0,-2.0,-2.0,2.0,-2.0,-2.0,2.0,2.0,-2.0,-2.0,2.0,-2.0,2.0,-2.0,-2.0,2.0,-2.0,-2.0
2025-06-05 10:33:54.107,0.011706159,0.040828846,0.012822527,0.16832332,-0.16548266,-0.004848544,0.0,0.0,0.0,0.035378575,0.23715422,0.93267566,-0.5308183,-0.21301627,0.9211357,-0.5218099,0.18677399,-1.0848235,-0.50880206,0.20418364,-0.9562499,-0.51882297,-0.038936287,-0.057578653,0.06516382,-0.05151191,-0.016138325,0.011851674,-0.00037724143,0.0049628075,0.059979178,0.0389505,0.05026575,-0.017557811,2.0,2.0,-2.0,-2.0,2.0,-2.0,2.0,-2.0,-2.0,2.0,-2.0,-2.0,2.0,2.0,-2.0,-2.0,2.0,-2.0,2.0,-2.0,-2.0,2.0,-2.0,-2.0
2025-06-05 10:33:54.126,0.0017238243,0.043714482,-0.01722282,0.23417617,-0.19611502,-0.0075808447,0.0,0.0,0.0,0.035378575,0.23820913,0.93020034,-0.5304179,-0.21711482,0.91633207,-0.53550017,0.18322769,-1.0719682,-0.51193756,0.20835598,-0.95647997,-0.523102,0.066484205,0.04396927,0.030168984,0.05951307,-0.064943284,-0.073530644,-0.040978007,-0.01625109,-0.018985415,-0.054451276,-0.05211518,-0.01796387,2.0,2.0,-2.0,-2.0,2.0,-2.0,2.0,-2.0,-2.0,2.0,-2.0,-2.0,2.0,2.0,-2.0,-2.0,2.0,-2.0,2.0,-2.0,-2.0,2.0,-2.0,-2.0
