openverse-orca/OrcaGym/log/simulation_log_20250605_141331.csv
timestamp,imu_angle_roll,imu_angle_pitch,imu_angle_yaw,imu_angular_velocity_roll,imu_angular_velocity_pitch,imu_angular_velocity_yaw,imu_acc_x,imu_acc_y,imu_acc_z,fl_joint1_pos,fl_joint1_vel,fl_joint1_torque,fl_joint2_pos,fl_joint2_vel,fl_joint2_torque,fl_joint3_pos,fl_joint3_vel,fl_joint3_torque,fr_joint1_pos,fr_joint1_vel,fr_joint1_torque,fr_joint2_pos,fr_joint2_vel,fr_joint2_torque,fr_joint3_pos,fr_joint3_vel,fr_joint3_torque,hl_joint1_pos,hl_joint1_vel,hl_joint1_torque,hl_joint2_pos,hl_joint2_vel,hl_joint2_torque,hl_joint3_pos,hl_joint3_vel,hl_joint3_torque,hr_joint1_pos,hr_joint1_vel,hr_joint1_torque,hr_joint2_pos,hr_joint2_vel,hr_joint2_torque,hr_joint3_pos,hr_joint3_vel,hr_joint3_torque,fl_force_x,fl_force_y,fl_force_z,fr_force_x,fr_force_y,fr_force_z,hl_force_x,hl_force_y,hl_force_z,hr_force_x,hr_force_y,hr_force_z,fl_hip_action,fl_thigh_action,fl_calf_action,fr_hip_action,fr_thigh_action,fr_calf_action,hl_hip_action,hl_thigh_action,hl_calf_action,hr_hip_action,hr_thigh_action,hr_calf_action
2025-06-05 14:13:32.041,0.045053482,0.015110841,0.04154249,-0.043951098,-0.037436694,0.0071740565,1.589315,-0.1707668,0.0,0.0,-0.0019104106,0.009770383,-0.00885859,-0.0033652796,0.009222533,-0.00011344057,-0.0015236991,-0.0067412932,0.0010433437,-0.009987312,-0.0015603559,-5.02228e-07,0.03163093,0.030813644,0.015034581,0.01170791,0.02076031,-0.058942612,-0.06236791,0.0018765058,-0.0640892,0.004945803,0.014822326,0.053971227,0.0,0.0,0.0,0.0,0.0,0.0,0.0,0.0,0.0,0.0,0.0,0.0,-2.0,-0.86117834,2.0,2.0,2.0,2.0,-2.0,2.0,1.1121916,2.0,2.0,-2.0
2025-06-05 14:13:32.045,0.18325792,0.115769506,-0.015165155,-0.015481576,0.037198666,-0.04801442,0.0,0.0,0.0,0.0,-0.019110128,-0.025990166,0.03792098,0.008147572,0.06523274,0.033245977,-0.010102815,0.055713706,0.025999554,0.022058265,0.065687045,-0.036497544,-0.045567922,-0.014329878,0.17512815,0.11173073,0.2169061,0.034756973,-0.021535423,0.19524999,0.11431696,-0.018820804,0.21635659,-0.15517676,-2.0,-0.86117834,2.0,2.0,2.0,2.0,-2.0,2.0,1.1121916,2.0,2.0,-2.0,-2.0,-2.0,-2.0,2.0,2.0,-2.0,-2.0,2.0,-2.0,2.0,-2.0,-2.0
2025-06-05 14:13:32.068,-0.0013963925,-0.008611697,0.044686355,0.020241719,-0.010445016,-0.030351043,0.0,0.0,0.0,0.00037410163,-0.035446055,-0.09066381,0.009197646,0.03885154,0.13376392,0.0031003356,-0.038403805,0.13277489,-0.015811427,0.025336768,0.00929545,-0.0773184,-0.039202582,-0.11100502,-0.07370484,-0.036896296,0.24318013,-0.1350059,-0.11133148,0.20027897,-0.07189361,0.042767078,-0.2790112,-0.10435239,-2.0,-2.0,-2.0,2.0,2.0,-2.0,-2.0,2.0,-2.0,2.0,-2.0,-2.0,-2.0,2.0,-2.0,2.0,2.0,-2.0,-2.0,-2.0,-2.0,2.0,-2.0,-2.0
2025-06-05 14:13:32.086,-0.13006757,-0.066115454,-0.008310521,-0.009486013,0.01273371,-0.008362596,0.0,0.0,0.0,0.00029964343,-0.044761762,-0.036044665,-0.056390353,0.04373188,0.18593848,-0.032719754,-0.052229278,0.07393618,-0.045750864,0.03428405,-0.062770374,-0.07375721,0.029897824,0.0729604,-0.036102016,0.086441666,0.11815707,-0.018765701,-0.024183407,-0.1280544,-0.033893056,0.030828843,-0.096147336,0.05977033,-2.0,2.0,-2.0,2.0,2.0,-2.0,-2.0,-2.0,-2.0,2.0,-2.0,-2.0,-2.0,2.0,-2.0,2.0,2.0,-2.0,-2.0,-2.0,-2.0,2.0,-2.0,-2.0
2025-06-05 14:13:32.106,-0.055071034,-0.066119276,0.0144782225,0.024146775,-0.035263892,-0.021757219,0.0,0.0,0.0,0.00048398288,-0.046244446,-0.0071161,-0.06758625,0.044416167,0.20123231,-0.04443392,-0.043596227,0.01718777,-0.023484858,0.042992793,-0.11294276,-0.05335511,-0.028496914,0.089761525,-0.020830126,0.08605861,-0.011165567,-0.07059377,-0.059415806,-0.1562519,0.13061255,0.027833961,-0.115931354,-0.013189205,-2.0,2.0,-2.0,2.0,2.0,-2.0,-2.0,-2.0,-2.0,2.0,-2.0,-2.0,-2.0,2.0,-2.0,2.0,2.0,-2.0,-2.0,-2.0,-2.0,2.0,-2.0,-2.0
2025-06-05 14:13:32.127,-0.1448149,-0.1355936,-0.020530775,0.0047997977,0.03796074,0.041324787,0.0,0.0,0.0,0.00090098334,-0.049504925,0.006946025,-0.08914586,0.047473148,0.21494466,-0.056664854,-0.056343026,-0.01038196,-0.013529254,0.051856745,-0.14667593,-0.039480675,-0.0725379,0.1076314,-0.12761536,0.016075697,0.02808482,-0.032326277,0.045749757,-0.15771098,0.10122106,0.011480942,-0.070785336,-0.046887953,-2.0,2.0,-2.0,2.0,2.0,-2.0,-2.0,-2.0,-2.0,2.0,-2.0,-2.0,-2.0,2.0,-2.0,2.0,2.0,-2.0,-2.0,-2.0,-2.0,2.0,-2.0,-2.0
2025-06-05 14:13:32.147,-0.2139389,-0.016644973,-0.006112464,0.06074542,0.0212925,-0.008074214,0.0,0.0,0.0,0.0012432482,-0.050907794,0.03814435,-0.116807714,0.062716685,0.22391605,-0.09534693,-0.071649164,-0.08573859,-0.023547402,0.061072603,-0.18152985,-0.032202013,-0.08294491,0.072366625,-0.08075088,-0.008530326,0.10107343,-0.10500583,-0.07270329,-0.23712392,-0.15673536,-0.013473185,-0.093358256,-0.05151273,-2.0,2.0,-2.0,2.0,2.0,-2.0,-2.0,-2.0,-2.0,2.0,-2.0,-2.0,-2.0,2.0,-2.0,2.0,2.0,-2.0,-2.0,-2.0,-2.0,2.0,-2.0,-2.0
2025-06-05 14:13:32.170,-0.1471669,-0.08254818,0.04304329,0.06616443,-0.02480983,-0.01834719,0.0,0.0,0.0,0.0010992876,-0.06639827,0.07947338,-0.13738701,0.07253415,0.2669502,-0.11151196,-0.07714613,-0.14103056,-0.07019979,0.06770431,-0.22259696,-0.069499075,-0.09033877,0.12128165,-0.14034012,0.06562903,0.16685365,-0.03086813,0.049707558,-0.117867015,-0.058455773,0.001560029,-0.13751084,-0.092971906,-2.0,2.0,-2.0,2.0,2.0,-2.0,-2.0,-2.0,-2.0,2.0,-2.0,-2.0,-2.0,2.0,-2.0,2.0,2.0,-2.0,-2.0,-2.0,-2.0,2.0,-2.0,-2.0
2025-06-05 14:13:32.186,-0.12768106,-0.12131682,0.07949937,0.057865575,0.0053136414,-0.008751561,0.0,0.0,0.0,-0.00010109991,-0.07664232,0.15001756,-0.16290362,0.07008243,0.3062706,-0.14245473,-0.08570749,-0.20067988,-0.10118664,0.073775694,-0.25888333,-0.090913124,0.029263776,0.1681122,-0.020130547,-0.03383546,0.14171676,-0.07890062,-0.031171128,-0.17300768,-0.02722214,-0.055866633,-0.024847468,-0.05259879,-2.0,2.0,-2.0,2.0,2.0,-2.0,-2.0,-2.0,-2.0,2.0,-2.0,-2.0,-2.0,2.0,-2.0,2.0,2.0,-2.0,-2.0,-2.0,-2.0,2.0,-2.0,-2.0
2025-06-05 14:13:32.206,-0.03115877,-0.0286524,0.10079079,0.09209051,0.011470598,-0.04145299,0.0,0.0,0.0,-0.0018025985,-0.08725945,0.19600044,-0.17843507,0.07717159,0.34457025,-0.17102212,-0.083624594,-0.2393488,-0.11729666,0.08887764,-0.27604583,-0.090853505,-0.035084195,0.17945702,-0.043585032,-0.032945536,0.14661969,-0.08797849,-0.060104072,-0.12604277,-0.0614991,-0.058399245,0.0060595763,0.008553628,-2.0,2.0,-2.0,2.0,2.0,-2.0,-2.0,-2.0,-2.0,2.0,-2.0,-2.0,-2.0,2.0,-2.0,2.0,2.0,-2.0,2.0,-2.0,-2.0,2.0,-2.0,-2.0
2025-06-05 14:13:32.227,0.08886672,-0.040604703,-0.037339132,0.09199477,-0.01791763,-0.026758047,0.0,0.0,0.0,-0.0031299163,-0.09267771,0.2568134,-0.18555813,0.086606465,0.36740452,-0.16792728,-0.080222666,-0.27741024,-0.12484299,0.09568256,-0.30766773,-0.07423196,-0.0476881,0.15422326,-0.069201946,0.028691275,0.10030336,0.0006856434,0.030216645,-0.093864106,-0.01040312,-0.03477178,-0.057371743,-0.047823224,-2.0,2.0,-2.0,2.0,2.0,-2.0,2.0,-2.0,-2.0,2.0,-2.0,-2.0,2.0,2.0,-2.0,-2.0,2.0,-2.0,2.0,-2.0,-2.0,2.0,-2.0,-2.0
2025-06-05 14:13:32.247,0.04244054,-0.08190747,-0.030030342,0.09081426,0.037166726,-0.03315946,0.0,0.0,0.0,-0.0036965022,-0.077821225,0.26415098,-0.1875476,0.09802397,0.3686374,-0.17624082,-0.050650403,-0.29191086,-0.12474489,0.101978466,-0.32039523,-0.05517722,-0.032219898,0.050718334,0.02350009,0.035115343,0.033077434,0.051111326,0.07980697,-0.10435989,-0.017505491,-0.03572575,-0.09501179,0.042553063,2.0,2.0,-2.0,-2.0,2.0,-2.0,2.0,-2.0,-2.0,2.0,-2.0,-2.0,2.0,2.0,-2.0,-2.0,2.0,-2.0,2.0,-2.0,-2.0,2.0,-2.0,-2.0
2025-06-05 14:13:32.270,-0.051733755,-0.04669697,-0.100219704,0.08136782,0.04136965,-0.027468868,0.0,0.0,0.0,-0.0031024923,-0.07319528,0.27557018,-0.18704942,0.08776024,0.3808473,-0.16733488,-0.044872247,-0.3151617,-0.12356783,0.107610255,-0.32818508,-0.061017867,-0.014741855,-0.021189842,-0.00247331,-0.0007720187,0.0033414792,0.028729409,-0.032801077,-0.042818338,0.085285775,0.007988961,-0.045933127,-0.024427962,2.0,2.0,-2.0,-2.0,2.0,-2.0,2.0,-2.0,-2.0,2.0,-2.0,-2.0,2.0,2.0,-2.0,-2.0,2.0,-2.0,2.0,-2.0,-2.0,2.0,-2.0,-2.0
2025-06-05 14:13:32.287,-0.123350576,-0.085326515,-0.06764619,0.12351599,0.030861022,0.039902635,0.0,0.0,0.0,-0.0020346525,-0.08110111,0.29089037,-0.20122659,0.08479195,0.39046714,-0.17392206,-0.034935698,-0.33487606,-0.118296266,0.11177776,-0.32450184,-0.06938478,0.062146492,-0.034926478,-0.060803488,-0.016662115,-0.050553657,0.05049593,0.052177876,-0.027122306,0.0031611193,0.069714084,0.030757753,0.026031395,2.0,2.0,-2.0,-2.0,2.0,-2.0,2.0,-2.0,-2.0,2.0,-2.0,-2.0,2.0,2.0,-2.0,-2.0,2.0,-2.0,2.0,-2.0,-2.0,2.0,-2.0,-2.0
2025-06-05 14:13:32.307,-0.11722297,-0.011713238,-0.07121262,0.067787945,0.013492208,-0.0064720334,0.0,0.0,0.0,-0.00089507905,-0.054819245,0.29913712,-0.21387507,0.0747274,0.3893152,-0.17735182,-0.023292413,-0.34377652,-0.116900355,0.11807694,-0.35546398,-0.084336236,0.08999122,0.06253115,0.007472544,-0.04110817,0.06685584,0.005094421,0.06792987,0.025594724,-0.055315096,0.016673988,-0.09212044,-0.10312449,2.0,2.0,-2.0,-2.0,2.0,-2.0,2.0,-2.0,-2.0,2.0,-2.0,-2.0,2.0,2.0,-2.0,-2.0,2.0,-2.0,2.0,-2.0,-2.0,2.0,-2.0,-2.0
2025-06-05 14:13:32.327,-0.07068908,-0.021591552,-0.065203495,0.05030785,0.07090441,-0.046885215,0.0,0.0,0.0,0.0006057468,-0.05332465,0.32614794,-0.20157026,0.073288426,0.4063652,-0.1916066,-0.0056320024,-0.36769575,-0.10245257,0.14060922,-0.3585378,-0.09471682,0.11668019,0.01760529,-0.020517124,-0.06338858,0.07859406,-0.03627828,-0.04912185,-0.012851575,-0.058418658,0.05624929,0.043786384,0.015681928,2.0,2.0,-2.0,-2.0,2.0,-2.0,2.0,-2.0,-2.0,2.0,-2.0,-2.0,2.0,2.0,-2.0,-2.0,2.0,-2.0,2.0,-2.0,-2.0,2.0,-2.0,-2.0
2025-06-05 14:13:32.347,-0.0755223,0.009285314,-0.0762732,0.090519965,0.015867671,0.049608935,0.0,0.0,0.0,0.0023043253,-0.028742315,0.33211547,-0.2193088,0.05579575,0.40750587,-0.19137,-0.014450947,-0.36383843,-0.11600815,0.13046688,-0.35922784,-0.09117456,-0.023889102,0.03378362,0.06484131,-0.031886406,-0.031551518,-0.004481443,0.0020916213,0.041431516,0.0053585125,0.024084495,0.039339818,0.05989662,2.0,2.0,-2.0,-2.0,2.0,-2.0,2.0,-2.0,-2.0,2.0,-2.0,-2.0,2.0,2.0,-2.0,-2.0,2.0,-2.0,2.0,-2.0,-2.0,2.0,-2.0,-2.0
2025-06-05 14:13:32.370,0.0026703489,-0.0018033091,-0.04321122,0.10210532,0.07468083,0.03822997,0.0,0.0,0.0,0.003966156,-0.023593407,0.3450749,-0.22180869,0.05432011,0.4152189,-0.18010232,0.00044267275,-0.38643137,-0.11391228,0.13742144,-0.38156894,-0.09838895,0.014886535,0.08150226,-0.023788506,0.02403973,0.0728125,0.063241005,0.004386413,0.014713613,-0.046961606,0.08216381,-0.057113875,-0.010105414,2.0,2.0,-2.0,-2.0,2.0,-2.0,2.0,-2.0,-2.0,2.0,-2.0,-2.0,2.0,2.0,-2.0,-2.0,2.0,-2.0,2.0,-2.0,-2.0,2.0,-2.0,-2.0
2025-06-05 14:13:32.388,0.021141203,-0.020346755,-0.09861957,0.13467579,0.05311295,0.008275599,0.0,0.0,0.0,0.0053134793,-0.019054836,0.35323447,-0.20734137,0.04961054,0.42583203,-0.18868427,-0.001869056,-0.39953443,-0.10724347,0.15509251,-0.37579265,-0.11532203,0.0079586,-0.022238862,0.0023992397,-0.06047948,0.056549497,0.06690646,-0.016046979,-0.025010565,-0.00043300612,0.011457841,-0.049356822,-0.047506645,2.0,2.0,-2.0,-2.0,2.0,-2.0,2.0,-2.0,-2.0,2.0,-2.0,-2.0,2.0,2.0,-2.0,-2.0,2.0,-2.0,2.0,-2.0,-2.0,2.0,-2.0,-2.0
2025-06-05 14:13:32.408,-0.055913333,-0.041007336,-0.010239572,0.12077012,0.024086773,-0.046237726,0.0,0.0,0.0,0.0066851936,-0.01256234,0.38178676,-0.21217084,0.033030402,0.41423613,-0.19056684,0.008600669,-0.39765576,-0.10373136,0.15912494,-0.3816996,-0.10789001,0.00571545,0.05376555,-0.059579022,-0.08657685,-0.03138781,-0.017293477,0.08059403,-0.0877767,0.008384024,-0.010536625,-0.049715456,0.047066893,2.0,2.0,-2.0,-2.0,2.0,-2.0,2.0,-2.0,-2.0,2.0,-2.0,-2.0,2.0,2.0,-2.0,-2.0,2.0,-2.0,2.0,-2.0,-2.0,2.0,-2.0,-2.0
2025-06-05 14:13:32.429,-0.027165137,-0.027556453,-0.0127324145,0.1424797,0.04293434,-0.047716662,0.0,0.0,0.0,0.007877574,-0.005124509,0.38543537,-0.21026862,0.026385358,0.4135504,-0.18335149,0.017705778,-0.40625682,-0.11046201,0.15341927,-0.38770586,-0.115124635,0.010466982,-0.0040558698,-0.07089223,-0.08889764,-0.02467791,-0.019020729,-0.033511218,0.037742827,-0.03963399,0.05881664,-0.02996894,0.013456542,2.0,2.0,-2.0,-2.0,2.0,-2.0,2.0,-2.0,-2.0,2.0,-2.0,-2.0,2.0,2.0,-2.0,-2.0,2.0,-2.0,2.0,-2.0,-2.0,2.0,-2.0,-2.0
2025-06-05 14:13:32.448,0.0016330302,-0.062098734,-0.030918987,0.088308714,0.047018513,0.0079996325,0.0,0.0,0.0,0.009099132,-0.013740929,0.38065168,-0.21328814,0.02659804,0.41888258,-0.17986819,0.019739999,-0.413256,-0.12148368,0.1459939,-0.4069025,-0.13855256,-0.057728596,0.018421559,0.039927453,-0.062682375,-0.020966174,0.08021472,0.07823668,0.031380147,0.009765276,0.009066976,-0.02173964,-0.07545479,2.0,2.0,-2.0,-2.0,2.0,-2.0,2.0,-2.0,-2.0,2.0,-2.0,-2.0,2.0,2.0,-2.0,-2.0,2.0,-2.0,2.0,-2.0,-2.0,2.0,-2.0,-2.0
2025-06-05 14:13:32.470,0.026560383,-0.037761647,-0.07085965,0.10299221,0.028076187,-0.01610747,0.0,0.0,0.0,0.010081967,-0.013827148,0.40349478,-0.21890964,0.012181041,0.42711306,-0.17234264,0.013295387,-0.4196028,-0.109637395,0.1499011,-0.40215027,-0.1386178,0.06935122,-0.021672787,0.05423406,0.011878097,-0.0015774738,-0.037626293,0.022110134,-0.00719674,0.02708949,0.014413646,-0.080704786,0.023824217,2.0,2.0,-2.0,-2.0,2.0,-2.0,2.0,-2.0,-2.0,2.0,-2.0,-2.0,2.0,2.0,-2.0,-2.0,2.0,-2.0,2.0,-2.0,-2.0,2.0,-2.0,-2.0
2025-06-05 14:13:32.487,-0.055241246,0.02530362,-0.02533244,0.076708876,0.02284315,-0.009383758,0.0,0.0,0.0,0.010831524,0.009593787,0.4050287,-0.22240542,0.009597686,0.4382138,-0.17698334,0.019455617,-0.43940556,-0.12156417,0.14673844,-0.41637436,-0.14510909,0.033503328,-0.043792747,0.047819342,-0.057569686,-0.06173246,0.06151385,-0.0034072474,-0.032360427,0.021703687,-0.0012551885,0.018297132,-0.058692202,2.0,2.0,-2.0,-2.0,2.0,-2.0,2.0,-2.0,-2.0,2.0,-2.0,-2.0,2.0,2.0,-2.0,-2.0,2.0,-2.0,2.0,-2.0,-2.0,2.0,-2.0,-2.0
2025-06-05 14:13:32.507,0.00977977,-0.053082608,-0.03747574,0.06722016,0.03622257,0.012948096,0.0,0.0,0.0,0.011601787,-0.0021320768,0.40028566,-0.21297944,0.018298674,0.43584096,-0.16133788,0.02177166,-0.4337577,-0.121972285,0.14856999,-0.41189286,-0.14232086,0.04191429,-0.048723053,0.03281312,0.05656194,0.040654335,-0.03929668,0.05845111,-0.031171445,0.022788676,-0.03075773,-0.07602116,-0.000971779,2.0,2.0,-2.0,-2.0,2.0,-2.0,2.0,-2.0,-2.0,2.0,-2.0,-2.0,2.0,2.0,-2.0,-2.0,2.0,-2.0,2.0,-2.0,-2.0,2.0,-2.0,-2.0
2025-06-05 14:13:32.527,-0.017823873,-0.019813765,0.035397746,0.105922975,0.030168688,0.032968197,0.0,0.0,0.0,0.012133179,0.004924308,0.4150202,-0.20925924,0.00617045,0.42735666,-0.1714045,0.019532578,-0.45010254,-0.12117189,0.16105719,-0.41256407,-0.14668453,0.04020582,-0.04730609,0.007033577,0.04946058,0.06650332,0.060425933,-0.05975487,0.030549167,-0.0018720437,0.009011287,0.013483434,0.045985375,2.0,2.0,-2.0,-2.0,2.0,-2.0,2.0,-2.0,-2.0,2.0,-2.0,-2.0,2.0,2.0,-2.0,-2.0,2.0,-2.0,2.0,-2.0,-2.0,2.0,-2.0,-2.0
2025-06-05 14:13:32.547,0.009781545,-0.010699871,0.017220229,0.115551524,0.067866445,-0.017110894,0.0,0.0,0.0,0.012423517,0.00447202,0.4217085,-0.2187575,-0.004664981,0.42506605,-0.16995797,0.033675198,-0.44116357,-0.12872835,0.16364898,-0.42155483,-0.15110302,-0.022439763,-0.049645044,-0.06647076,0.03397292,-0.013998183,0.058968034,0.014531664,0.04382873,-0.0026247657,0.014279358,-0.032369826,0.023077253,2.0,2.0,-2.0,-2.0,2.0,-2.0,2.0,-2.0,-2.0,2.0,-2.0,-2.0,2.0,2.0,-2.0,-2.0,2.0,-2.0,2.0,-2.0,-2.0,2.0,-2.0,-2.0
2025-06-05 14:13:32.570,-0.04904384,-0.040134247,-0.033722896,0.12463033,0.054046642,0.021184895,0.0,0.0,0.0,0.012613058,0.006302432,0.41594315,-0.22417101,0.001176004,0.4410165,-0.16233067,0.026177857,-0.45887572,-0.13243163,0.16690703,-0.4285561,-0.14939713,-0.0035197735,0.053274944,-0.036926605,-0.021651201,0.078862436,0.05001829,-0.019010892,0.02008082,-0.06888298,-0.04166581,0.03986948,-0.037993383,2.0,2.0,-2.0,-2.0,2.0,-2.0,2.0,-2.0,-2.0,2.0,-2.0,-2.0,2.0,2.0,-2.0,-2.0,2.0,-2.0,2.0,-2.0,-2.0,2.0,-2.0,-2.0
2025-06-05 14:13:32.588,-0.032761656,-0.013715467,-0.024914239,0.07843066,0.001080499,0.016940348,0.0,0.0,0.0,0.0127642015,0.018666483,0.41514245,-0.21742804,0.007029599,0.43417266,-0.16169542,0.022516344,-0.45991635,-0.12196161,0.17261079,-0.43002588,-0.1520419,0.055818204,0.06361586,0.053433277,-0.02871485,0.07622898,0.010045398,-0.07176165,0.030360725,-0.064632565,0.04689499,0.0059323693,-0.04893644,2.0,2.0,-2.0,-2.0,2.0,-2.0,2.0,-2.0,-2.0,2.0,-2.0,-2.0,2.0,2.0,-2.0,-2.0,2.0,-2.0,2.0,-2.0,-2.0,2.0,-2.0,-2.0
2025-06-05 14:13:32.608,0.0022037977,0.008714732,-0.000679179,0.13388842,0.029954417,-0.03674827,0.0,0.0,0.0,0.012865172,0.01742913,0.41856194,-0.20700586,-0.004024131,0.4507174,-0.16312659,0.021679321,-0.44568786,-0.118576385,0.16715609,-0.4304651,-0.15619522,-0.047454182,-0.049515795,-0.033772085,0.060272727,-0.040956166,0.016460964,-0.017713184,-0.043680586,-0.022413954,-0.04456687,-0.07921073,-0.0063837427,2.0,2.0,-2.0,-2.0,2.0,-2.0,2.0,-2.0,-2.0,2.0,-2.0,-2.0,2.0,2.0,-2.0,-2.0,2.0,-2.0,2.0,-2.0,-2.0,2.0,-2.0,-2.0
2025-06-05 14:13:32.628,-0.025428286,0.026233599,-0.028974123,0.047858983,-0.013791222,0.022019213,0.0,0.0,0.0,0.012899024,0.009827284,0.4360942,-0.20949318,-0.009191665,0.45063928,-0.16030075,0.034757446,-0.44817418,-0.119779095,0.16211511,-0.44291496,-0.15169683,-0.01915692,-0.06821374,-0.057576455,0.019555012,0.07991373,0.04470818,-0.02801529,-0.036265306,-0.0598459,0.06573999,-0.05574697,0.020863777,2.0,2.0,-2.0,-2.0,2.0,-2.0,2.0,-2.0,-2.0,2.0,-2.0,-2.0,2.0,2.0,-2.0,-2.0,2.0,-2.0,2.0,-2.0,-2.0,2.0,-2.0,-2.0
2025-06-05 14:13:32.647,-0.0043495973,0.015139661,0.022674078,0.13161199,0.050493967,0.03961602,0.0,0.0,0.0,0.012860457,0.0062669534,0.43578622,-0.20626338,0.0023310578,0.44241932,-0.16398294,0.022504775,-0.45284903,-0.13255733,0.16912569,-0.44477233,-0.15427585,-0.058495656,0.06381018,-0.049652684,0.028130153,-0.05344652,0.054037493,0.06210774,0.06770251,-0.027558351,-0.071100436,-0.016615117,-0.05924878,2.0,2.0,-2.0,-2.0,2.0,-2.0,2.0,-2.0,-2.0,2.0,-2.0,-2.0,2.0,2.0,-2.0,-2.0,2.0,-2.0,2.0,-2.0,-2.0,2.0,-2.0,-2.0
2025-06-05 14:13:32.670,0.019342737,-0.009471585,-0.021567712,0.060922496,0.06485333,-0.00453248,0.0,0.0,0.0,0.012762821,0.012611297,0.4334301,-0.21163696,-0.015021551,0.45202816,-0.14620003,0.02062282,-0.46379685,-0.124555014,0.15700871,-0.44333154,-0.16450518,0.042094443,-0.047826983,-0.01196961,-0.004033258,0.051502366,-0.061481617,-0.011314984,-0.038943168,0.023756523,0.066218354,0.05451731,0.00633393,2.0,2.0,-2.0,-2.0,2.0,-2.0,2.0,-2.0,-2.0,2.0,-2.0,-2.0,2.0,2.0,-2.0,-2.0,2.0,-2.0,2.0,-2.0,-2.0,2.0,-2.0,-2.0
2025-06-05 14:13:32.688,-0.03445909,0.011906837,0.018741466,0.10284148,0.049815264,-0.01962146,0.0,0.0,0.0,0.012644189,0.006662825,0.43718785,-0.21011962,0.0023620499,0.44651794,-0.15105307,0.035110716,-0.46529606,-0.122660756,0.1659433,-0.44269052,-0.15747142,-0.060937215,0.038571663,0.04805387,0.022022845,0.0344697,0.05269903,-0.07320303,0.017980793,0.010420723,-0.024578426,0.028217277,0.029571027,2.0,2.0,-2.0,-2.0,2.0,-2.0,2.0,-2.0,-2.0,2.0,-2.0,-2.0,2.0,2.0,-2.0,-2.0,2.0,-2.0,2.0,-2.0,-2.0,2.0,-2.0,-2.0
2025-06-05 14:13:32.708,-0.011913661,0.0293159,-0.04291274,0.048052985,0.06652579,0.024326377,0.0,0.0,0.0,0.012532194,0.020470504,0.44411084,-0.21049683,-0.0042002844,0.44670674,-0.14648682,0.03420854,-0.4698073,-0.13366328,0.17420898,-0.45493352,-0.16732854,-0.068691455,0.064441144,0.016012818,-0.0067323507,0.07016534,-0.065260455,-0.024229694,-0.0125652375,-0.02927336,-0.04007361,0.012340457,0.046467606,2.0,2.0,-2.0,-2.0,2.0,-2.0,2.0,-2.0,-2.0,2.0,-2.0,-2.0,2.0,2.0,-2.0,-2.0,2.0,-2.0,2.0,-2.0,-2.0,2.0,-2.0,-2.0
2025-06-05 14:13:32.728,0.044107128,0.00041249962,0.034039047,0.067793556,0.011622645,-0.044702176,0.0,0.0,0.0,0.012436412,0.008617058,0.4454834,-0.21249263,0.0017697271,0.46137583,-0.15351129,0.021820957,-0.45992646,-0.13282937,0.16578199,-0.45786756,-0.172226,0.017672803,0.011735385,0.021414138,-0.010301453,0.0403656,-0.0017451851,-0.027513148,-0.009144783,0.048332434,0.035741538,0.0037625164,0.014291071,2.0,2.0,-2.0,-2.0,2.0,-2.0,2.0,-2.0,-2.0,2.0,-2.0,-2.0,2.0,2.0,-2.0,-2.0,2.0,-2.0,2.0,-2.0,-2.0,2.0,-2.0,-2.0
2025-06-05 14:13:32.751,0.015397835,0.036203742,0.052233987,0.0903493,0.05643139,0.005357509,0.0,0.0,0.0,0.012355175,0.008449966,0.43219152,-0.20715499,0.00022407871,0.45785606,-0.14143287,0.030903172,-0.46823525,-0.14295915,0.16105326,-0.4446416,-0.16561913,-0.06809312,-0.03161014,-0.064824715,-0.04213097,-0.0012663885,-0.061547015,-0.009906818,-0.019006928,0.054775402,-0.055213694,0.060542163,-0.041298397,2.0,2.0,-2.0,-2.0,2.0,-2.0,2.0,-2.0,-2.0,2.0,-2.0,-2.0,2.0,2.0,-2.0,-2.0,2.0,-2.0,2.0,-2.0,-2.0,2.0,-2.0,-2.0
2025-06-05 14:13:32.770,0.016454047,-0.0024981063,-0.014923254,0.07143473,0.06877547,0.0051115183,0.0,0.0,0.0,0.012283585,0.012383755,0.442461,-0.20676969,0.002489195,0.46087426,-0.14328681,0.03491656,-0.4661392,-0.1313435,0.16482732,-0.4496963,-0.17077498,0.058027565,-0.044843245,-0.021603376,0.039640427,-0.0274413,-0.05802419,-0.0034864806,0.041621752,-0.055082686,-0.010797229,0.021965522,0.04612018,2.0,2.0,-2.0,-2.0,2.0,-2.0,2.0,-2.0,-2.0,2.0,-2.0,-2.0,2.0,2.0,-2.0,-2.0,2.0,-2.0,2.0,-2.0,-2.0,2.0,-2.0,-2.0
2025-06-05 14:13:32.789,-0.027373193,-0.04116276,0.027323218,0.114689104,0.044259023,-0.03599711,0.0,0.0,0.0,0.012218667,0.0050075,0.4465382,-0.20553222,0.0004985121,0.45953742,-0.14000116,0.03860932,-0.47597128,-0.13906011,0.15981308,-0.44455102,-0.16158958,0.026063591,0.050525997,0.011865983,-0.048993737,-0.04387942,-0.06763849,0.025026472,0.010592634,0.04781694,0.028827047,-0.033399172,0.06001388,2.0,2.0,-2.0,-2.0,2.0,-2.0,2.0,-2.0,-2.0,2.0,-2.0,-2.0,2.0,2.0,-2.0,-2.0,2.0,-2.0,2.0,-2.0,-2.0,2.0,-2.0,-2.0
2025-06-05 14:13:32.809,0.05442021,-0.044174418,0.030846149,0.086839974,0.06205285,-0.041685484,0.0,0.0,0.0,0.0121594705,0.007070354,0.43702447,-0.21470919,-0.0095979925,0.4504718,-0.15595275,0.037915476,-0.46345946,-0.124482766,0.16269888,-0.46453008,-0.18244964,-0.028940897,0.039402045,-0.04535303,-0.02745161,0.05219166,-0.04012188,-0.0033968873,-0.07513533,-0.063057266,0.048359904,-0.058491576,-0.048429605,2.0,2.0,-2.0,-2.0,2.0,-2.0,2.0,-2.0,-2.0,2.0,-2.0,-2.0,2.0,2.0,-2.0,-2.0,2.0,-2.0,2.0,-2.0,-2.0,2.0,-2.0,-2.0
2025-06-05 14:13:32.829,0.016556881,-0.024303254,-0.011947046,0.13875943,0.040052876,-0.034108218,0.0,0.0,0.0,0.012105851,0.011342248,0.43136436,-0.21060765,-0.012082193,0.4601624,-0.15601249,0.03269695,-0.47269383,-0.13519992,0.17766042,-0.44682878,-0.18264996,-0.033198737,-0.001013817,0.028075807,0.051635012,-0.012218644,0.0716881,-0.054692242,-0.015242613,0.022950375,0.008630785,-0.05051555,-0.060791142,2.0,2.0,-2.0,-2.0,2.0,-2.0,2.0,-2.0,-2.0,2.0,-2.0,-2.0,2.0,2.0,-2.0,-2.0,2.0,-2.0,2.0,-2.0,-2.0,2.0,-2.0,-2.0
2025-06-05 14:13:32.852,0.0080034705,-0.01487022,-0.027081162,0.113203324,0.026075754,0.015908722,0.0,0.0,0.0,0.012057858,0.022959128,0.44302714,-0.20257989,-0.014024535,0.45064473,-0.14896345,0.03887952,-0.4757916,-0.14037728,0.16131467,-0.44844928,-0.17665751,-0.04083201,0.03907822,0.030630283,0.02364438,-0.015835652,-0.013790626,0.033662654,0.062470168,-0.021106323,-0.0694259,-0.007592121,0.014834393,2.0,2.0,-2.0,-2.0,2.0,-2.0,2.0,-2.0,-2.0,2.0,-2.0,-2.0,2.0,2.0,-2.0,-2.0,2.0,-2.0,2.0,-2.0,-2.0,2.0,-2.0,-2.0
2025-06-05 14:13:32.872,0.03910802,-0.007642803,-0.03583288,0.05615974,0.07334426,-0.007196247,0.0,0.0,0.0,0.012015726,0.00495485,0.4425741,-0.20522988,-0.0018008801,0.4503592,-0.13778095,0.030733755,-0.48001045,-0.12871006,0.17166954,-0.4573318,-0.17118734,-0.03961896,0.001402214,0.006104839,-0.050019998,0.02355508,0.0422112,0.041839734,-0.018839527,0.042253897,0.01732875,-0.026424607,0.058830302,2.0,2.0,-2.0,-2.0,2.0,-2.0,2.0,-2.0,-2.0,2.0,-2.0,-2.0,2.0,2.0,-2.0,-2.0,2.0,-2.0,2.0,-2.0,-2.0,2.0,-2.0,-2.0
2025-06-05 14:13:32.890,-0.04662305,0.031079084,0.016815089,0.0825713,0.061544493,-0.0112531455,0.0,0.0,0.0,0.011977909,0.009698969,0.44597974,-0.2141027,-0.0104444185,0.45346984,-0.14879328,0.039617486,-0.47998214,-0.13771753,0.16451995,-0.45686087,-0.17689112,0.019990202,0.029001404,-0.020309243,-0.05298111,0.06417288,0.012827694,-0.0619644,-0.07256084,-0.023924258,0.013074209,0.05984443,0.07302725,2.0,2.0,-2.0,-2.0,2.0,-2.0,2.0,-2.0,-2.0,2.0,-2.0,-2.0,2.0,2.0,-2.0,-2.0,2.0,-2.0,2.0,-2.0,-2.0,2.0,-2.0,-2.0
2025-06-05 14:13:32.909,0.023587426,-0.024743663,-0.025074482,0.057382315,-0.015890162,-0.012423415,0.0,0.0,0.0,0.011943403,0.015738841,0.438943,-0.20760943,0.0040458175,0.46260554,-0.1525702,0.039156716,-0.47802803,-0.13205463,0.16040228,-0.46032116,-0.17432563,0.014052313,-0.0555086,-0.032147035,0.05126431,0.042827334,-0.059811447,0.004688059,-0.033761628,0.056653243,0.015510757,0.038402323,0.028181199,2.0,2.0,-2.0,-2.0,2.0,-2.0,2.0,-2.0,-2.0,2.0,-2.0,-2.0,2.0,2.0,-2.0,-2.0,2.0,-2.0,2.0,-2.0,-2.0,2.0,-2.0,-2.0
2025-06-05 14:13:32.929,0.0033781643,-0.014799287,0.03775661,0.112511165,-0.017056897,-0.016475976,0.0,0.0,0.0,0.01191158,0.006741715,0.44894314,-0.20354772,0.0036316249,0.46468505,-0.15400618,0.026788663,-0.46830636,-0.12550285,0.1618288,-0.4677214,-0.17681411,0.06909707,-0.01532813,-0.021492729,0.068222046,0.066191636,0.060603,-0.0059302044,-0.015398875,0.060530413,-0.06751851,-0.02544593,-0.022079034,2.0,2.0,-2.0,-2.0,2.0,-2.0,2.0,-2.0,-2.0,2.0,-2.0,-2.0,2.0,2.0,-2.0,-2.0,2.0,-2.0,2.0,-2.0,-2.0,2.0,-2.0,-2.0
2025-06-05 14:13:32.953,0.031754494,-0.038260724,-0.008760939,0.09534511,0.01609134,-0.029895786,0.0,0.0,0.0,0.011882032,0.0071797953,0.44904476,-0.20770893,-0.004069699,0.46044523,-0.14757918,0.030392805,-0.477116,-0.12961985,0.17086093,-0.46978912,-0.18023866,-0.051480427,0.009185505,-0.024420006,-0.011869403,-0.05499523,0.010480123,-0.07302504,-0.0746849,0.0456092,0.06822732,-0.022177652,0.07329835,2.0,2.0,-2.0,-2.0,2.0,-2.0,2.0,-2.0,-2.0,2.0,-2.0,-2.0,2.0,2.0,-2.0,-2.0,2.0,-2.0,2.0,-2.0,-2.0,2.0,-2.0,-2.0
2025-06-05 14:13:32.970,-0.027879661,-0.025831562,-0.023138216,0.11221413,0.016702363,0.041503645,0.0,0.0,0.0,0.011854682,0.004794176,0.4530985,-0.21029036,-0.013424612,0.4628798,-0.13973236,0.026555125,-0.46764845,-0.12983088,0.17877173,-0.46142176,-0.17027561,0.02571523,-0.005825061,0.012481545,-0.042885948,-0.06272962,-0.029501334,0.045741715,-0.04147488,0.07291836,0.037188478,-0.04310494,0.064745195,2.0,2.0,-2.0,-2.0,2.0,-2.0,2.0,-2.0,-2.0,2.0,-2.0,-2.0,2.0,2.0,-2.0,-2.0,2.0,-2.0,2.0,-2.0,-2.0,2.0,-2.0,-2.0
2025-06-05 14:13:32.990,0.01693251,0.03689492,0.011029476,0.060048185,0.06371267,0.008526142,0.0,0.0,0.0,0.011829721,0.009346492,0.45146847,-0.21191731,-0.011423289,0.45636973,-0.14061937,0.0262462,-0.48224154,-0.1374842,0.16844162,-0.45387313,-0.17137496,0.06434543,-0.054837767,0.031207893,-0.04415579,-0.03413298,-0.054603666,-0.028968016,-0.012823373,0.018376442,0.048431862,-0.018559547,-0.036432367,2.0,2.0,-2.0,-2.0,2.0,-2.0,2.0,-2.0,-2.0,2.0,-2.0,-2.0,2.0,2.0,-2.0,-2.0,2.0,-2.0,2.0,-2.0,-2.0,2.0,-2.0,-2.0
2025-06-05 14:13:33.010,0.050698675,-0.010278453,-0.04705198,0.12888607,0.08170461,0.03451931,0.0,0.0,0.0,0.011807679,0.011942966,0.4573761,-0.213826,-0.012675822,0.47331607,-0.14885531,0.032877166,-0.47007895,-0.14052077,0.17844242,-0.47310764,-0.18330286,-0.0015901496,-0.019034162,0.027083362,-0.06251802,-0.0032216492,-0.035135046,-0.020244658,-0.03443141,-0.01490434,-0.036941566,-0.054857306,-0.00053924933,2.0,2.0,-2.0,-2.0,2.0,-2.0,2.0,-2.0,-2.0,2.0,-2.0,-2.0,2.0,2.0,-2.0,-2.0,2.0,-2.0,2.0,-2.0,-2.0,2.0,-2.0,-2.0
2025-06-05 14:13:33.030,0.0009294244,0.009576637,-0.029860906,0.10332794,-0.007086841,-0.024809632,0.0,0.0,0.0,0.011788896,0.009346955,0.45639795,-0.21188515,0.0016806375,0.46244824,-0.14003615,0.031817235,-0.48333544,-0.1327336,0.1750185,-0.45841944,-0.1771521,-0.0147984,0.026934043,-0.026720451,0.070868105,-0.060852487,-0.04005396,0.04613944,-0.021160882,0.020079691,0.055146333,0.019868512,0.06238525,2.0,2.0,-2.0,-2.0,2.0,-2.0,2.0,-2.0,-2.0,2.0,-2.0,-2.0,2.0,2.0,-2.0,-2.0,2.0,-2.0,2.0,-2.0,-2.0,2.0,-2.0,-2.0
2025-06-05 14:13:33.054,-0.019342296,-0.023645902,-0.010783891,0.06784719,0.073107705,0.03114794,0.0,0.0,0.0,0.01177319,0.0037410185,0.44213903,-0.20793994,-0.006192982,0.46594918,-0.14901912,0.02130183,-0.48238546,-0.13544816,0.17168273,-0.46305326,-0.18982385,0.03154232,0.02358181,0.06345058,-0.029573414,-0.040835544,0.04327685,0.052499462,0.037413355,0.073638916,-0.039713904,-0.074379824,-0.053491645,2.0,2.0,-2.0,-2.0,2.0,-2.0,2.0,-2.0,-2.0,2.0,-2.0,-2.0,2.0,2.0,-2.0,-2.0,2.0,-2.0,2.0,-2.0,-2.0,2.0,-2.0,-2.0
2025-06-05 14:13:33.070,0.029676085,0.032661837,0.008226308,0.10652903,0.019713255,0.030900698,0.0,0.0,0.0,0.011760135,0.008577885,0.4548988,-0.21431036,-0.013385858,0.45997706,-0.14585726,0.029033057,-0.47168022,-0.12632975,0.16398002,-0.4617188,-0.18924704,-0.034917437,-0.026450675,0.0021789025,0.00880848,0.0006795386,-0.0147456415,0.045388464,-0.004777393,-0.06025363,-0.028034855,0.00747846,-0.071421,2.0,2.0,-2.0,-2.0,2.0,-2.0,2.0,-2.0,-2.0,2.0,-2.0,-2.0,2.0,2.0,-2.0,-2.0,2.0,-2.0,2.0,-2.0,-2.0,2.0,-2.0,-2.0
2025-06-05 14:13:33.090,-0.010794874,-0.039347332,-0.014426632,0.11891248,0.013546985,0.001611187,0.0,0.0,0.0,0.0117493095,0.019213032,0.45621106,-0.19732955,-0.0022751216,0.4690375,-0.1415741,0.02945238,-0.46435565,-0.13896956,0.16796145,-0.46618965,-0.17560098,0.06860585,0.060068052,-0.041743316,0.012007044,-0.042737126,-0.056381296,0.010276485,0.04959364,0.008182488,0.010121445,-0.002178878,0.047148887,2.0,2.0,-2.0,-2.0,2.0,-2.0,2.0,-2.0,-2.0,2.0,-2.0,-2.0,2.0,2.0,-2.0,-2.0,2.0,-2.0,2.0,-2.0,-2.0,2.0,-2.0,-2.0
2025-06-05 14:13:33.110,-0.0023674415,-0.002804303,0.019828895,0.11648049,0.06394093,0.03490052,0.0,0.0,0.0,0.011740353,0.017990166,0.44289464,-0.21514194,-0.00038494274,0.46071988,-0.14116985,0.034296468,-0.46940142,-0.14385265,0.16429955,-0.46942824,-0.17314239,0.026325073,0.010100079,-0.06405274,0.060693417,0.011759503,-0.06009776,-0.05977769,0.020596437,0.052501354,-0.041889302,-0.06639273,-0.0059438283,2.0,2.0,-2.0,-2.0,2.0,-2.0,2.0,-2.0,-2.0,2.0,-2.0,-2.0,2.0,2.0,-2.0,-2.0,2.0,-2.0,2.0,-2.0,-2.0,2.0,-2.0,-2.0
2025-06-05 14:13:33.130,0.0054501607,0.044641666,0.0037772388,0.10349924,0.060628626,-0.027742097,0.0,0.0,0.0,0.011732947,0.00453077,0.44471937,-0.20761594,0.00236308,0.47385785,-0.1508761,0.021199852,-0.46638274,-0.13527575,0.16098306,-0.46050557,-0.18096122,0.022547057,0.075077794,-0.031175662,0.07446382,-0.010356058,0.00082998467,0.0642066,0.05929631,-0.021973358,-0.032703053,-0.024705902,0.047722284,2.0,2.0,-2.0,-2.0,2.0,-2.0,2.0,-2.0,-2.0,2.0,-2.0,-2.0,2.0,2.0,-2.0,-2.0,2.0,-2.0,2.0,-2.0,-2.0,2.0,-2.0,-2.0
2025-06-05 14:13:33.153,-0.025731742,0.026220525,0.028333394,0.0916261,0.0068702945,0.0030281541,0.0,0.0,0.0,0.0117268,0.0058338125,0.45947316,-0.21491413,-0.012782154,0.45911375,-0.13284823,0.02957931,-0.47406107,-0.12733537,0.17354879,-0.47509035,-0.17946456,-0.06293147,0.061882406,-0.025168478,0.02504542,-0.061338805,0.020808578,0.053148277,0.047042336,0.009103182,-0.0141811725,0.037611127,-0.028732106,2.0,2.0,-2.0,-2.0,2.0,-2.0,2.0,-2.0,-2.0,2.0,-2.0,-2.0,2.0,2.0,-2.0,-2.0,2.0,-2.0,2.0,-2.0,-2.0,2.0,-2.0,-2.0
2025-06-05 14:13:33.170,-0.004622617,-0.023617432,0.024795229,0.057726715,0.05080144,0.026401604,0.0,0.0,0.0,0.011721657,0.009019144,0.4445646,-0.2078096,-0.013866669,0.47322774,-0.14672638,0.023340259,-0.47950238,-0.12885278,0.16923349,-0.4578068,-0.17267187,0.011483756,0.045814566,0.0071468004,0.052690923,-0.045137893,0.009963535,0.034981962,0.02886406,0.07456619,0.06440194,0.034694865,0.004684728,2.0,2.0,-2.0,-2.0,2.0,-2.0,2.0,-2.0,-2.0,2.0,-2.0,-2.0,2.0,2.0,-2.0,-2.0,2.0,-2.0,2.0,-2.0,-2.0,2.0,-2.0,-2.0
2025-06-05 14:13:33.191,-0.03727473,-0.019727994,-0.0018406647,0.06279415,0.023863517,-0.047465004,0.0,0.0,0.0,0.011717301,0.020206656,0.4552918,-0.20485526,-0.004165028,0.47175482,-0.13290818,0.029741203,-0.48206377,-0.13036294,0.17254886,-0.47253528,-0.18332167,0.0077220774,0.0017053537,-0.06906789,-0.046358284,0.056530103,-0.061806638,0.0137896845,0.052839227,0.050776444,0.064607486,0.012427713,-0.027016127,2.0,2.0,-2.0,-2.0,2.0,-2.0,2.0,-2.0,-2.0,2.0,-2.0,-2.0,2.0,2.0,-2.0,-2.0,2.0,-2.0,2.0,-2.0,-2.0,2.0,-2.0,-2.0
2025-06-05 14:13:33.210,-0.012027835,0.029710298,0.038729638,0.060076848,0.032468557,-0.038448427,0.0,0.0,0.0,0.011713561,0.0022495373,0.45249715,-0.20828842,-0.016043035,0.46896794,-0.14615253,0.028955163,-0.46847436,-0.13652968,0.17658812,-0.4697597,-0.17765678,0.00088645646,-0.0034691459,-0.05216517,0.054724082,-0.034248743,-0.046779893,0.06274974,0.034159277,-0.06631092,0.042772997,0.070271775,0.049527798,2.0,2.0,-2.0,-2.0,2.0,-2.0,2.0,-2.0,-2.0,2.0,-2.0,-2.0,2.0,2.0,-2.0,-2.0,2.0,-2.0,2.0,-2.0,-2.0,2.0,-2.0,-2.0
2025-06-05 14:13:33.230,0.0047723604,0.0025420757,-0.0027676087,0.06918132,0.03230159,0.03154606,0.0,0.0,0.0,0.011710305,0.0037460502,0.45763713,-0.21243665,-0.009813876,0.474363,-0.14528947,0.023857709,-0.47489497,-0.13694164,0.17010008,-0.4654716,-0.17698851,-0.01594852,0.05165677,0.0037310952,-0.06925245,0.037828423,-0.014801499,-0.0026536665,0.0051454785,0.034801923,-0.0017387753,-0.009087282,0.0620222,2.0,2.0,-2.0,-2.0,2.0,-2.0,2.0,-2.0,-2.0,2.0,-2.0,-2.0,2.0,2.0,-2.0,-2.0,2.0,-2.0,2.0,-2.0,-2.0,2.0,-2.0,-2.0
2025-06-05 14:13:33.253,-0.037287325,0.04889276,-0.0024515588,0.12164356,-0.0069214366,0.017776756,0.0,0.0,0.0,0.011707431,0.012472647,0.45625463,-0.20071882,-0.010063566,0.47042587,-0.13163595,0.0340404,-0.4670506,-0.12985805,0.16113244,-0.47350207,-0.17206146,0.07148905,0.059608478,-0.025865978,-0.055606525,-0.06685419,-0.043722954,-0.016751818,0.06729398,0.0037633409,0.07163578,-0.0373641,-0.074931376,2.0,2.0,-2.0,-2.0,2.0,-2.0,2.0,-2.0,-2.0,2.0,-2.0,-2.0,2.0,2.0,-2.0,-2.0,2.0,-2.0,2.0,-2.0,-2.0,2.0,-2.0,-2.0
2025-06-05 14:13:33.271,0.0042028846,0.0050106887,-0.021996403,0.070412286,0.0695905,-0.042832218,0.0,0.0,0.0,0.011704867,0.0024624972,0.4602487,-0.21322505,0.0019240793,0.47081137,-0.14185646,0.030526793,-0.474263,-0.13406296,0.17348816,-0.47536078,-0.17441165,-0.020850897,0.016103692,0.029216403,0.0043940144,-0.032402195,0.015012983,-0.06804615,0.04033204,-0.074737206,0.07335315,0.033301845,0.041815963,2.0,2.0,-2.0,-2.0,2.0,-2.0,2.0,-2.0,-2.0,2.0,-2.0,-2.0,2.0,2.0,-2.0,-2.0,2.0,-2.0,2.0,-2.0,-2.0,2.0,-2.0,-2.0
2025-06-05 14:13:33.290,-0.03802293,0.015279012,0.042286985,0.06810777,0.024226042,0.048308738,0.0,0.0,0.0,0.011702555,0.01602322,0.4534108,-0.20273028,-0.010208103,0.46321017,-0.14565006,0.019208806,-0.48480886,-0.1377849,0.17143685,-0.46596247,-0.18697737,-0.046694722,0.055673525,-0.015335035,-0.015885124,-0.014223977,-0.008570625,-0.0692566,-0.019923177,0.062406145,0.05808745,-0.05590929,0.05855354,2.0,2.0,-2.0,-2.0,2.0,-2.0,2.0,-2.0,-2.0,2.0,-2.0,-2.0,2.0,2.0,-2.0,-2.0,2.0,-2.0,2.0,-2.0,-2.0,2.0,-2.0,-2.0
2025-06-05 14:13:33.312,0.014420193,0.03835988,0.027290704,0.057844643,0.028448723,0.033139177,0.0,0.0,0.0,0.011700455,0.015574423,0.44834307,-0.21432811,-0.0078041465,0.4636036,-0.14467734,0.03406137,-0.47154468,-0.13221224,0.17108327,-0.4582247,-0.18154259,0.05819636,-0.059345588,0.07456061,-0.028254936,0.07368179,-0.020665009,0.06274706,0.030625505,-0.013364832,-0.07267647,-0.03282909,0.0096333055,2.0,2.0,-2.0,-2.0,2.0,-2.0,2.0,-2.0,-2.0,2.0,-2.0,-2.0,2.0,2.0,-2.0,-2.0,2.0,-2.0,2.0,-2.0,-2.0,2.0,-2.0,-2.0
2025-06-05 14:13:33.331,0.02212272,0.04706117,0.026997302,0.07054622,0.045565426,0.026608678,0.0,0.0,0.0,0.011698536,0.017099481,0.4508212,-0.19814466,0.0024344437,0.47656116,-0.13550693,0.025603658,-0.46651775,-0.12983695,0.17451283,-0.46578836,-0.18820381,0.005463549,-0.019364389,0.0015890249,-0.03994906,0.061729185,-0.0030701142,-0.06681792,0.06930897,-0.07416038,0.07381767,0.010349381,-0.0024146752,2.0,2.0,-2.0,-2.0,2.0,-2.0,2.0,-2.0,-2.0,2.0,-2.0,-2.0,2.0,2.0,-2.0,-2.0,2.0,-2.0,2.0,-2.0,-2.0,2.0,-2.0,-2.0
2025-06-05 14:13:33.352,0.012139524,0.031180881,0.0066735726,0.13172728,0.0012525902,0.01677876,0.0,0.0,0.0,0.0116967745,0.0067137517,0.45213732,-0.20147885,-6.154574e-05,0.45758137,-0.14331979,0.02529571,-0.46747527,-0.14048451,0.16251543,-0.46968195,-0.18140903,-0.074333675,0.0049509043,0.033582218,0.012886698,0.054614503,-0.051229686,0.043059576,0.03961657,0.003880804,-0.00610312,-0.06944288,-0.05492014,2.0,2.0,-2.0,-2.0,2.0,-2.0,2.0,-2.0,-2.0,2.0,-2.0,-2.0,2.0,2.0,-2.0,-2.0,2.0,-2.0,2.0,-2.0,-2.0,2.0,-2.0,-2.0
2025-06-05 14:13:33.370,0.041623116,0.020919891,0.044248074,0.13536948,0.05153017,0.021684755,0.0,0.0,0.0,0.011695156,0.006609416,0.45270133,-0.2035486,-0.0031088474,0.4771111,-0.13214709,0.022333106,-0.4782246,-0.14456804,0.17438568,-0.45865488,-0.18886253,0.017928956,0.026918892,-0.036532175,0.03526646,-0.054388557,-0.060072016,1.9422025e-05,-0.060769245,-0.06525467,-0.0038942932,-0.05616156,-0.07104217,2.0,2.0,-2.0,-2.0,2.0,-2.0,2.0,-2.0,-2.0,2.0,-2.0,-2.0,2.0,2.0,-2.0,-2.0,2.0,-2.0,2.0,-2.0,-2.0,2.0,-2.0,-2.0
2025-06-05 14:13:33.391,0.022412026,0.040756553,-0.0496011,0.13129216,0.012395179,0.038469,0.0,0.0,0.0,0.011693669,0.019008618,0.4588738,-0.21513261,0.002255901,0.4747398,-0.13281769,0.02171217,-0.47038108,-0.13073698,0.16220914,-0.46113113,-0.1919161,0.043462306,0.015329653,-0.0050339904,0.047358386,0.032284237,0.042856365,0.011853845,-0.03441738,-0.035908636,0.04238276,-0.058196127,-0.06186145,2.0,2.0,-2.0,-2.0,2.0,-2.0,2.0,-2.0,-2.0,2.0,-2.0,-2.0,2.0,2.0,-2.0,-2.0,2.0,-2.0,2.0,-2.0,-2.0,2.0,-2.0,-2.0
2025-06-05 14:13:33.412,-0.049748927,-0.038879376,-0.008953878,0.14134392,0.03191998,0.046354026,0.0,0.0,0.0,0.011692304,0.01722172,0.4575204,-0.20694174,-0.006293036,0.46681908,-0.13882037,0.021036707,-0.47068876,-0.12673771,0.16716786,-0.4660956,-0.17334187,-0.021149848,-0.007663295,0.06604766,-0.061360575,0.039750062,0.03372541,-0.038122844,-0.018071461,0.0658242,-0.04068781,0.029271988,-0.05819362,2.0,2.0,-2.0,-2.0,2.0,-2.0,2.0,-2.0,-2.0,2.0,-2.0,-2.0,2.0,2.0,-2.0,-2.0,2.0,-2.0,2.0,-2.0,-2.0,2.0,-2.0,-2.0
2025-06-05 14:13:33.431,0.031061672,-0.043314274,0.04207624,0.046906926,0.078862265,0.030514669,0.0,0.0,0.0,0.011691055,0.017395087,0.45585555,-0.20240985,-0.009799699,0.4581256,-0.13608503,0.032637376,-0.4824808,-0.12612396,0.16366667,-0.46913564,-0.19208573,-0.0056531844,0.054303188,0.038103268,0.049816243,0.07315215,-0.059755694,-0.054386068,0.0061078826,0.07469037,0.051449485,-0.043570988,-0.026517512,2.0,2.0,-2.0,-2.0,2.0,-2.0,2.0,-2.0,-2.0,2.0,-2.0,-2.0,2.0,2.0,-2.0,-2.0,2.0,-2.0,2.0,-2.0,-2.0,2.0,-2.0,-2.0
2025-06-05 14:13:33.453,0.022164373,0.013013241,0.029987596,0.05292405,0.046968017,0.047560524,0.0,0.0,0.0,0.011689917,0.01967505,0.45611945,-0.21505748,-0.0009007947,0.4710396,-0.13845775,0.03262712,-0.48171455,-0.12610659,0.1706804,-0.46202222,-0.17807962,0.068570286,0.053242132,0.03181128,-0.050118133,-0.008692836,-0.055935785,0.0112175215,-0.021093018,0.052271597,0.06419114,-0.056966744,0.07055096,2.0,2.0,-2.0,-2.0,2.0,-2.0,2.0,-2.0,-2.0,2.0,-2.0,-2.0,2.0,2.0,-2.0,-2.0,2.0,-2.0,2.0,-2.0,-2.0,2.0,-2.0,-2.0
2025-06-05 14:13:33.471,-0.03474472,0.03767606,0.015724542,0.09283594,0.06662485,0.018127324,0.0,0.0,0.0,0.011688883,0.011666351,0.4596667,-0.21004203,-0.008467358,0.47342926,-0.13325517,0.02260572,-0.47953606,-0.14411187,0.17489849,-0.46103367,-0.1899186,-0.017239932,0.048262045,0.009438684,-0.06803937,-0.033055786,-0.055542767,-0.07157675,-0.021513544,0.046164725,-0.018320985,-0.068831876,-0.07065511,2.0,2.0,-2.0,-2.0,2.0,-2.0,2.0,-2.0,-2.0,2.0,-2.0,-2.0,2.0,2.0,-2.0,-2.0,2.0,-2.0,2.0,-2.0,-2.0,2.0,-2.0,-2.0
2025-06-05 14:13:33.491,0.045257498,-0.0076564136,-0.02951067,0.0850684,0.015361417,0.049194694,0.0,0.0,0.0,0.011687949,0.013830808,0.46153107,-0.21275876,-0.009167274,0.4732168,-0.15078162,0.026766198,-0.47037825,-0.13934508,0.16836707,-0.47377637,-0.18289346,0.07012924,0.010796906,-0.0059306757,0.025112668,0.0098143555,0.024490543,-0.012542514,-0.040063735,0.047790166,0.02460248,0.021860996,-0.038964722,2.0,2.0,-2.0,-2.0,2.0,-2.0,2.0,-2.0,-2.0,2.0,-2.0,-2.0,2.0,2.0,-2.0,-2.0,2.0,-2.0,2.0,-2.0,-2.0,2.0,-2.0,-2.0
2025-06-05 14:13:33.511,0.028946575,0.028061587,-0.009437985,0.10208833,0.05753388,-0.046385556,0.0,0.0,0.0,0.011687108,0.007012862,0.4631871,-0.21006912,-0.0107494425,0.46813715,-0.1356839,0.025810568,-0.47188988,-0.13299009,0.16928272,-0.46743318,-0.17659408,0.03553301,0.008944351,0.005193458,0.045222547,-0.04390274,0.040263128,0.03765175,-0.02366213,0.068163216,-0.055017952,0.070616744,0.038683023,2.0,2.0,-2.0,-2.0,2.0,-2.0,2.0,-2.0,-2.0,2.0,-2.0,-2.0,2.0,2.0,-2.0,-2.0,2.0,-2.0,2.0,-2.0,-2.0,2.0,-2.0,-2.0
2025-06-05 14:13:33.531,-0.022330578,-0.02770655,-0.022818757,0.140115,0.016388146,0.003408776,0.0,0.0,0.0,0.011686356,0.016840255,0.44451043,-0.20949578,-0.0125429,0.4704273,-0.14653844,0.03138608,-0.48182353,-0.14214721,0.17385869,-0.45856136,-0.17992625,0.015118719,-0.06548059,0.027047908,0.020121152,-0.0012950455,-0.026919235,-0.001579077,-0.008262754,0.004186823,0.063460946,-0.024131998,-0.029315474,2.0,2.0,-2.0,-2.0,2.0,-2.0,2.0,-2.0,-2.0,2.0,-2.0,-2.0,2.0,2.0,-2.0,-2.0,2.0,-2.0,2.0,-2.0,-2.0,2.0,-2.0,-2.0
2025-06-05 14:13:33.553,0.029551098,-0.003976686,0.029037306,0.13178775,-0.013429881,0.036656257,0.0,0.0,0.0,0.011685686,0.003475529,0.46173558,-0.20925808,0.0035311512,0.46180806,-0.13684742,0.019903986,-0.4726694,-0.12710162,0.17433888,-0.46362576,-0.17375351,-0.011871977,0.02195252,0.05648525,0.049614802,-0.05196056,-0.052587204,-0.029765606,0.0021562527,-0.045032628,0.055043954,-0.0060439366,-0.0031604974,2.0,2.0,-2.0,-2.0,2.0,-2.0,2.0,-2.0,-2.0,2.0,-2.0,-2.0,2.0,2.0,-2.0,-2.0,2.0,-2.0,2.0,-2.0,-2.0,2.0,-2.0,-2.0
2025-06-05 14:13:33.571,-0.03349664,-0.037176475,0.0067839012,0.1262229,0.036557496,-0.037812557,0.0,0.0,0.0,0.011685092,0.013230221,0.45191368,-0.20393068,-0.009926593,0.47693038,-0.14656065,0.038883965,-0.47275758,-0.13522483,0.17980257,-0.46898103,-0.18790844,-0.019262731,-0.07246856,0.002213823,-0.039150562,-0.044574674,0.020069951,0.034914862,0.04147287,-0.068455935,-0.0014556497,0.04639148,0.06269293,2.0,2.0,-2.0,-2.0,2.0,-2.0,2.0,-2.0,-2.0,2.0,-2.0,-2.0,2.0,2.0,-2.0,-2.0,2.0,-2.0,2.0,-2.0,-2.0,2.0,-2.0,-2.0
2025-06-05 14:13:33.591,0.0093080755,0.035779994,0.0054375506,0.0525785,0.04856498,0.03884242,0.0,0.0,0.0,0.011684567,0.004900207,0.45291293,-0.2051788,-0.014757491,0.46060595,-0.14158714,0.030152122,-0.47267243,-0.12523258,0.16742192,-0.46662757,-0.17322832,0.047113143,-0.058377508,0.008421456,-0.007000278,0.039048463,0.005872234,0.02766731,-0.007748345,0.056010753,0.0640383,0.060372148,0.07246995,2.0,2.0,-2.0,-2.0,2.0,-2.0,2.0,-2.0,-2.0,2.0,-2.0,-2.0,2.0,2.0,-2.0,-2.0,2.0,-2.0,2.0,-2.0,-2.0,2.0,-2.0,-2.0
2025-06-05 14:13:33.611,-0.04977857,-0.036657892,0.0123660965,0.13817859,-0.01243091,-0.021834679,0.0,0.0,0.0,0.011684107,0.017080924,0.46329516,-0.21302028,-0.0033300845,0.46774298,-0.13291627,0.026855271,-0.47646514,-0.12975371,0.17270719,-0.45913035,-0.17596395,0.019202378,0.062324207,0.050177783,0.05806857,-0.06834534,-0.006041054,0.058884718,-0.0011575097,-0.0175049,-0.0060250075,-0.0017662076,-0.0006502978,2.0,2.0,-2.0,-2.0,2.0,-2.0,2.0,-2.0,-2.0,2.0,-2.0,-2.0,2.0,2.0,-2.0,-2.0,2.0,-2.0,2.0,-2.0,-2.0,2.0,-2.0,-2.0
2025-06-05 14:13:33.633,0.044553395,-0.0028612604,0.04372182,0.1271671,-0.015398272,-0.015267312,0.0,0.0,0.0,0.011683703,0.01685245,0.45547423,-0.21243292,-0.009302735,0.46456587,-0.14057425,0.03033066,-0.47863132,-0.12521465,0.16901508,-0.46391204,-0.18007039,-0.029854361,0.057074297,0.0473154,-0.0022727405,0.070371814,-0.033097986,-0.03259263,-0.00817948,0.010419625,0.011695429,0.013955435,0.00625951,2.0,2.0,-2.0,-2.0,2.0,-2.0,2.0,-2.0,-2.0,2.0,-2.0,-2.0,2.0,2.0,-2.0,-2.0,2.0,-2.0,2.0,-2.0,-2.0,2.0,-2.0,-2.0
2025-06-05 14:13:33.653,0.033380367,-0.008744111,0.019766234,0.114346035,0.019470982,-0.027694045,0.0,0.0,0.0,0.011683351,0.0073981546,0.45362517,-0.20751938,0.0023753988,0.4757638,-0.13971017,0.03464021,-0.4719435,-0.13597359,0.16870955,-0.4650135,-0.18727624,-0.039004248,0.026022552,0.07027028,-0.05962932,0.06854364,0.00013281938,0.036308024,0.05529096,0.009816205,0.022746302,-0.059805192,-0.019429687,2.0,2.0,-2.0,-2.0,2.0,-2.0,2.0,-2.0,-2.0,2.0,-2.0,-2.0,2.0,2.0,-2.0,-2.0,2.0,-2.0,2.0,-2.0,-2.0,2.0,-2.0,-2.0
2025-06-05 14:13:33.672,-0.033397023,-0.037371468,0.01876771,0.08270873,0.06519211,-0.030416938,0.0,0.0,0.0,0.011683046,0.0041522705,0.4620801,-0.21218474,-0.0011124533,0.4735194,-0.1354732,0.024311703,-0.48416632,-0.12800917,0.16887961,-0.47477973,-0.18399045,0.067965336,-0.0031063433,-0.0008825948,-0.009107568,-0.008430259,0.07443096,0.062178567,-0.04855004,-0.012590567,0.02826657,0.011228438,0.04228197,2.0,2.0,-2.0,-2.0,2.0,-2.0,2.0,-2.0,-2.0,2.0,-2.0,-2.0,2.0,2.0,-2.0,-2.0,2.0,-2.0,2.0,-2.0,-2.0,2.0,-2.0,-2.0
2025-06-05 14:13:33.692,0.0330878,0.018923067,-0.007908808,0.1301229,0.066022664,-0.014053805,0.0,0.0,0.0,0.011682781,0.0057086805,0.45522392,-0.21305649,-0.0028914344,0.464581,-0.15074235,0.021165023,-0.46664637,-0.12788245,0.16678973,-0.45958614,-0.19229367,0.023138002,0.05568511,-0.048489437,-0.01749764,-0.007718731,0.04494543,-0.012177707,0.0208718,0.041363966,-0.011917768,0.052959967,0.004459146,2.0,2.0,-2.0,-2.0,2.0,-2.0,2.0,-2.0,-2.0,2.0,-2.0,-2.0,2.0,2.0,-2.0,-2.0,2.0,-2.0,2.0,-2.0,-2.0,2.0,-2.0,-2.0
2025-06-05 14:13:33.711,0.00855706,-0.041261688,0.030192418,0.114275694,-0.0004939342,0.007920143,0.0,0.0,0.0,0.011682552,0.015496068,0.44707587,-0.19649184,-0.0010194924,0.46966785,-0.14773828,0.023784949,-0.4676962,-0.1437225,0.1739516,-0.47305655,-0.18875588,-0.052488983,0.02847129,-0.03384648,-0.034392796,-0.042832498,0.043108188,-0.0059407013,-0.026673539,-0.03218479,-0.04755636,0.014294636,0.025323011,2.0,2.0,-2.0,-2.0,2.0,-2.0,2.0,-2.0,-2.0,2.0,-2.0,-2.0,2.0,2.0,-2.0,-2.0,2.0,-2.0,2.0,-2.0,-2.0,2.0,-2.0,-2.0
2025-06-05 14:13:33.731,0.042559404,0.025313308,0.008370464,0.09486243,0.004862683,-0.030063767,0.0,0.0,0.0,0.011682355,0.021729622,0.4472139,-0.21105042,0.0013138497,0.47080415,-0.14622371,0.022491878,-0.46975538,-0.13892727,0.18006267,-0.47197986,-0.17480162,-0.07386099,-0.05201657,-0.015757374,-0.006926471,0.073060006,0.04545885,0.06803825,-0.00902951,0.0071578063,0.07493674,0.041363038,-0.06913265,2.0,2.0,-2.0,-2.0,2.0,-2.0,2.0,-2.0,-2.0,2.0,-2.0,-2.0,2.0,2.0,-2.0,-2.0,2.0,-2.0,2.0,-2.0,-2.0,2.0,-2.0,-2.0
2025-06-05 14:13:33.751,-0.0041331258,-0.021619566,0.047909327,0.049584314,0.026523793,0.0126006715,0.0,0.0,0.0,0.011682184,0.008412538,0.45860907,-0.20000482,-0.010860849,0.46868655,-0.14747155,0.037783552,-0.47913364,-0.14449991,0.17674662,-0.47071835,-0.17648625,-0.073414765,0.034465335,0.03450345,0.01574105,-0.0510026,-0.058467403,0.07159413,0.072233684,0.07123815,0.042674392,-0.048299976,-0.03992444,2.0,2.0,-2.0,-2.0,2.0,-2.0,2.0,-2.0,-2.0,2.0,-2.0,-2.0,2.0,2.0,-2.0,-2.0,2.0,-2.0,2.0,-2.0,-2.0,2.0,-2.0,-2.0
2025-06-05 14:13:33.772,0.020540968,-0.012569402,-0.0037135913,0.08707453,0.046369232,-0.01198268,0.0,0.0,0.0,0.011682037,0.01075952,0.4480387,-0.20351623,-0.011307404,0.46418345,-0.1358025,0.03288378,-0.4681754,-0.12665929,0.1684965,-0.46738207,-0.1853443,-0.058623854,-0.0068969913,-0.013645616,-0.021495426,0.033565935,-0.00014955761,0.019182859,0.02167942,0.018606514,-0.0045512957,-0.07237762,-0.05915301,2.0,2.0,-2.0,-2.0,2.0,-2.0,2.0,-2.0,-2.0,2.0,-2.0,-2.0,2.0,2.0,-2.0,-2.0,2.0,-2.0,2.0,-2.0,-2.0,2.0,-2.0,-2.0
2025-06-05 14:13:33.792,0.0013295544,-0.03487325,-0.03667202,0.060729112,-0.001046117,0.04605722,0.0,0.0,0.0,0.011681912,0.01278247,0.45855495,-0.19956452,-0.013732726,0.46667048,-0.1381547,0.024811435,-0.4716133,-0.13477333,0.1762835,-0.45896512,-0.19197558,0.037634958,-0.04182755,-0.06516325,-0.035389952,-0.06881228,0.068080194,-0.06343858,-0.057827543,-0.016380744,0.063709185,-0.045876,-0.00050858164,2.0,2.0,-2.0,-2.0,2.0,-2.0,2.0,-2.0,-2.0,2.0,-2.0,-2.0,2.0,2.0,-2.0,-2.0,2.0,-2.0,2.0,-2.0,-2.0,2.0,-2.0,-2.0
2025-06-05 14:13:33.812,0.021236267,0.047442574,-0.019625422,0.14028196,0.06667584,-0.022066174,0.0,0.0,0.0,0.011681803,0.01575148,0.4472492,-0.21505515,-0.0044091144,0.46277174,-0.14923434,0.035356134,-0.4813834,-0.13403092,0.17069569,-0.46626374,-0.19229402,-0.004936766,0.0566293,0.032309704,-0.046826556,0.00944836,-0.013926634,0.057456568,0.03362224,-0.015815014,-0.044767976,-0.05496314,0.069308706,2.0,2.0,-2.0,-2.0,2.0,-2.0,2.0,-2.0,-2.0,2.0,-2.0,-2.0,2.0,2.0,-2.0,-2.0,2.0,-2.0,2.0,-2.0,-2.0,2.0,-2.0,-2.0
2025-06-05 14:13:33.836,-0.0019359465,0.01849132,0.03912078,0.06978882,0.0385923,0.024312336,0.0,0.0,0.0,0.011681709,0.016166763,0.45325708,-0.20976587,-0.015558173,0.47326517,-0.13857704,0.029883858,-0.46626958,-0.12808487,0.17526798,-0.46614632,-0.19060448,0.035579443,-0.02187113,0.040387817,0.014041414,-0.069483064,0.050443232,-0.05961307,0.023281328,-0.028942136,0.04354476,0.0587224,-0.03557135,2.0,2.0,-2.0,-2.0,2.0,-2.0,2.0,-2.0,-2.0,2.0,-2.0,-2.0,2.0,2.0,-2.0,-2.0,2.0,-2.0,2.0,-2.0,-2.0,2.0,-2.0,-2.0
2025-06-05 14:13:33.853,-0.0033580957,-0.012452358,0.022148645,0.121317424,0.0046839854,-0.033382986,0.0,0.0,0.0,0.011681629,0.014586574,0.44820437,-0.20895682,-0.0050247177,0.47012395,-0.14252923,0.037322108,-0.47189748,-0.13128017,0.16176626,-0.46847028,-0.1830034,0.03207996,0.07256072,0.06816904,-0.018479932,0.0026284645,0.070678465,0.041013304,0.0209483,0.0003104647,-0.05309958,0.05960515,0.009912857,2.0,2.0,-2.0,-2.0,2.0,-2.0,2.0,-2.0,-2.0,2.0,-2.0,-2.0,2.0,2.0,-2.0,-2.0,2.0,-2.0,2.0,-2.0,-2.0,2.0,-2.0,-2.0
2025-06-05 14:13:33.872,0.033835255,-0.039790932,0.0019581183,0.11646268,0.030072914,0.021995328,0.0,0.0,0.0,0.0116815595,0.005611271,0.4499571,-0.21392068,0.003279736,0.4718731,-0.14566779,0.024760919,-0.46548784,-0.12677477,0.17544568,-0.4660692,-0.19154726,0.06451563,0.0676007,-0.034705456,-0.013461075,0.01907607,0.04739889,0.072518505,-0.027652033,0.06841487,0.008309466,-0.040008053,0.004782936,2.0,2.0,-2.0,-2.0,2.0,-2.0,2.0,-2.0,-2.0,2.0,-2.0,-2.0,2.0,2.0,-2.0,-2.0,2.0,-2.0,2.0,-2.0,-2.0,2.0,-2.0,-2.0
2025-06-05 14:13:33.893,0.009485272,0.039095856,-0.030712588,0.04728258,0.07995466,0.042170692,0.0,0.0,0.0,0.0116815,0.0065186657,0.44637415,-0.19756718,-0.015020293,0.4726202,-0.14201398,0.0251006,-0.4666895,-0.1327085,0.16515169,-0.4732672,-0.18290152,0.04668099,-0.021437492,0.0391561,0.036606617,-0.024117649,0.024096152,-0.014644506,-0.049925532,0.012365919,0.032573417,-0.056223832,0.017633913,2.0,2.0,-2.0,-2.0,2.0,-2.0,2.0,-2.0,-2.0,2.0,-2.0,-2.0,2.0,2.0,-2.0,-2.0,2.0,-2.0,2.0,-2.0,-2.0,2.0,-2.0,-2.0
2025-06-05 14:13:33.913,-0.023308877,0.024125386,-0.042661697,0.111542955,0.06834641,-0.035045784,0.0,0.0,0.0,0.011681448,0.014548507,0.4610784,-0.1970065,-0.014627091,0.464005,-0.14912426,0.0336179,-0.47945634,-0.129979,0.16980615,-0.46457466,-0.18186545,0.0020489388,0.040346816,-0.025106842,-0.0351752,0.062907524,0.00021836956,-0.0212285,0.038451128,0.061063197,-0.05957668,0.05794568,0.046877783,2.0,2.0,-2.0,-2.0,2.0,-2.0,2.0,-2.0,-2.0,2.0,-2.0,-2.0,2.0,2.0,-2.0,-2.0,2.0,-2.0,2.0,-2.0,-2.0,2.0,-2.0,-2.0
2025-06-05 14:13:33.936,0.04852658,0.03304955,0.04633247,0.08250751,0.050015356,0.047820568,0.0,0.0,0.0,0.011681402,0.009919425,0.4503479,-0.21298744,-0.0053496966,0.46913114,-0.13764991,0.027458575,-0.46584785,-0.1409603,0.16564779,-0.47227314,-0.18102092,0.06596389,-0.042117193,0.037572723,-0.06074886,-0.047721792,-0.0096558025,0.026441041,-0.04293844,0.025754385,0.035415564,-0.02412673,-0.01426901,2.0,2.0,-2.0,-2.0,2.0,-2.0,2.0,-2.0,-2.0,2.0,-2.0,-2.0,2.0,2.0,-2.0,-2.0,2.0,-2.0,2.0,-2.0,-2.0,2.0,-2.0,-2.0
2025-06-05 14:13:33.953,-0.03168034,0.028574778,0.006424581,0.061405405,0.043321267,-0.03882665,0.0,0.0,0.0,0.011681363,0.010729456,0.44385934,-0.1995891,-0.002914482,0.46005407,-0.14210218,0.025939021,-0.4790622,-0.13932855,0.16370066,-0.4753812,-0.18779029,0.02413287,0.062071227,0.0749349,-0.06071658,0.016418206,9.6959295e-05,-0.014574725,-0.0284636,0.02287263,-0.06730147,0.029912714,0.05716265,2.0,2.0,-2.0,-2.0,2.0,-2.0,2.0,-2.0,-2.0,2.0,-2.0,-2.0,2.0,2.0,-2.0,-2.0,2.0,-2.0,2.0,-2.0,-2.0,2.0,-2.0,-2.0
2025-06-05 14:13:33.973,0.0025717788,0.01110986,-0.025961386,0.04851146,0.034496795,0.04808977,0.0,0.0,0.0,0.0116813285,0.015953483,0.4610798,-0.21378534,-0.0025030635,0.46560413,-0.13186,0.036209315,-0.46805322,-0.13918704,0.16240536,-0.46829495,-0.17371744,-0.02284929,-0.07405432,0.005958227,-0.06786175,-0.06508525,-0.066387996,-0.017272376,-0.047092598,0.023004392,0.0013068223,0.034126654,-0.040774304,2.0,2.0,-2.0,-2.0,2.0,-2.0,2.0,-2.0,-2.0,2.0,-2.0,-2.0,2.0,2.0,-2.0,-2.0,2.0,-2.0,2.0,-2.0,-2.0,2.0,-2.0,-2.0
2025-06-05 14:13:33.993,0.007388022,-0.030452544,0.02420303,0.063894354,0.043301806,0.021590551,0.0,0.0,0.0,0.011681299,0.013198202,0.45138618,-0.20756531,-0.0007618952,0.4732452,-0.1497641,0.026370889,-0.46770397,-0.14274532,0.17927483,-0.46238035,-0.17571539,-0.036290277,0.07036788,-0.025157165,-0.06402627,-0.062112797,0.0056424206,0.005928442,0.03899136,-0.03655971,-0.02141065,-0.0064167934,0.018975275,2.0,2.0,-2.0,-2.0,2.0,-2.0,2.0,-2.0,-2.0,2.0,-2.0,-2.0,2.0,2.0,-2.0,-2.0,2.0,-2.0,2.0,-2.0,-2.0,2.0,-2.0,-2.0
2025-06-05 14:13:34.013,-0.017921317,-0.04482846,-0.023826897,0.13498656,-0.008947367,-0.039100956,0.0,0.0,0.0,0.011681273,0.018759007,0.4465022,-0.20990255,-0.014938582,0.46849114,-0.13860588,0.022711474,-0.4780105,-0.13776773,0.16822885,-0.45850497,-0.19018449,0.045590695,-0.064999424,0.054008488,0.008854734,-0.06065788,0.04226469,-0.03218812,-0.06676747,-0.036597896,-0.04257738,-0.006992843,-0.038303632,2.0,2.0,-2.0,-2.0,2.0,-2.0,2.0,-2.0,-2.0,2.0,-2.0,-2.0,2.0,2.0,-2.0,-2.0,2.0,-2.0,2.0,-2.0,-2.0,2.0,-2.0,-2.0
2025-06-05 14:13:34.037,0.020396788,0.007200998,0.04495491,0.09202606,0.06757474,-0.0027192286,0.0,0.0,0.0,0.01168125,0.017156849,0.44895038,-0.20087066,-0.008484791,0.46904296,-0.14537919,0.019885013,-0.4850459,-0.13135615,0.17524612,-0.4716093,-0.17373249,0.015194473,0.055751905,-0.039653502,0.054508455,0.05240435,-0.039597705,-0.0413611,-0.05592617,0.023394763,0.017902095,-0.004145038,-0.021779267,2.0,2.0,-2.0,-2.0,2.0,-2.0,2.0,-2.0,-2.0,2.0,-2.0,-2.0,2.0,2.0,-2.0,-2.0,2.0,-2.0,2.0,-2.0,-2.0,2.0,-2.0,-2.0
2025-06-05 14:13:34.054,-0.007911023,-0.007159044,0.049173072,0.063053966,0.07902239,0.03908077,0.0,0.0,0.0,0.01168123,0.022034368,0.44867176,-0.19940503,-0.009736953,0.46482185,-0.13729472,0.025621917,-0.47131568,-0.1429012,0.17161913,-0.45842853,-0.18579163,-0.033272333,-0.03392559,-0.02265432,0.008202624,0.016259227,0.00011624405,-0.063599706,0.047564182,-0.04096066,-0.045198474,0.032118134,0.0073243715,2.0,2.0,-2.0,-2.0,2.0,-2.0,2.0,-2.0,-2.0,2.0,-2.0,-2.0,2.0,2.0,-2.0,-2.0,2.0,-2.0,2.0,-2.0,-2.0,2.0,-2.0,-2.0
2025-06-05 14:13:34.074,-0.013576041,-0.008936204,0.013608056,0.044679616,-0.0126908915,-0.026525298,0.0,0.0,0.0,0.011681212,0.013276549,0.4509215,-0.19869013,-0.010395743,0.47219545,-0.14260729,0.02742752,-0.4708281,-0.12866472,0.17958115,-0.46736342,-0.19030897,-0.0142273335,-0.010550084,-0.0054319375,-0.055447258,-0.07379888,-0.00474146,0.011845901,-0.0027883681,0.06691678,0.037923414,0.060262702,-0.025866196,2.0,2.0,-2.0,-2.0,2.0,-2.0,2.0,-2.0,-2.0,2.0,-2.0,-2.0,2.0,2.0,-2.0,-2.0,2.0,-2.0,2.0,-2.0,-2.0,2.0,-2.0,-2.0
2025-06-05 14:13:34.094,-0.03601127,-0.016948842,0.021908693,0.059016094,0.07992104,0.04964858,0.0,0.0,0.0,0.011681197,0.010925086,0.45689195,-0.2144574,-0.011886801,0.45933902,-0.13280883,0.024855778,-0.46666428,-0.12638432,0.1763573,-0.47108862,-0.18522005,0.018498322,0.009453162,-0.023260524,-0.036355946,0.039692488,0.06711535,0.0039220885,-0.009361673,-0.07261929,0.06920834,-0.012863036,-0.027072959,2.0,2.0,-2.0,-2.0,2.0,-2.0,2.0,-2.0,-2.0,2.0,-2.0,-2.0,2.0,2.0,-2.0,-2.0,2.0,-2.0,2.0,-2.0,-2.0,2.0,-2.0,-2.0
2025-06-05 14:13:34.113,-0.04830931,0.019745799,-0.003683022,0.096822955,-0.015651891,0.0018649886,0.0,0.0,0.0,0.011681183,0.007073359,0.4553129,-0.19929259,0.003518598,0.4586804,-0.14050335,0.02853893,-0.48358923,-0.13301615,0.18016729,-0.47179887,-0.19243275,-0.022199037,-0.044651873,-0.01733439,-0.06780169,0.0636259,0.003770416,0.06374687,0.0064040893,-0.06251364,-0.034334317,0.040489417,0.054441582,2.0,2.0,-2.0,-2.0,2.0,-2.0,2.0,-2.0,-2.0,2.0,-2.0,-2.0,2.0,2.0,-2.0,-2.0,2.0,-2.0,2.0,-2.0,-2.0,2.0,-2.0,-2.0
2025-06-05 14:13:34.136,-0.047677774,-0.0249569,-0.03334933,0.09055949,-0.006880615,0.0058982465,0.0,0.0,0.0,0.011681171,0.0033189019,0.44532967,-0.21554266,-0.0051325713,0.47257814,-0.14426523,0.02597971,-0.46575585,-0.14057238,0.16787107,-0.46045625,-0.17468816,0.06985402,0.02324065,0.0038518803,0.011007391,-0.061709046,0.035860352,0.0016792574,-0.058764774,0.04976299,-0.0117468005,-0.025036564,-0.031931136,2.0,2.0,-2.0,-2.0,2.0,-2.0,2.0,-2.0,-2.0,2.0,-2.0,-2.0,2.0,2.0,-2.0,-2.0,2.0,-2.0,2.0,-2.0,-2.0,2.0,-2.0,-2.0
2025-06-05 14:13:34.154,0.0050012497,-0.025350755,-0.025349861,0.06310284,0.03157843,-0.0011407003,0.0,0.0,0.0,0.011681161,0.005301974,0.4457398,-0.20992316,0.0021921,0.47293964,-0.13438794,0.02439583,-0.48251617,-0.13100372,0.17106304,-0.47230005,-0.18027154,-0.028888738,-0.061098207,0.017250622,0.006271853,0.06745015,0.05209652,-0.019177688,0.012961997,0.044916153,-0.0070130113,-0.012586442,-0.04112124,2.0,2.0,-2.0,-2.0,2.0,-2.0,2.0,-2.0,-2.0,2.0,-2.0,-2.0,2.0,2.0,-2.0,-2.0,2.0,-2.0,2.0,-2.0,-2.0,2.0,-2.0,-2.0
2025-06-05 14:13:34.174,-0.038710825,-0.047448855,-0.04369108,0.10387937,0.022648344,-0.043086935,0.0,0.0,0.0,0.011681152,0.009517404,0.45736626,-0.21037629,-0.0077228034,0.47458285,-0.14425807,0.025379434,-0.47014335,-0.1440266,0.16162865,-0.47142127,-0.18078342,0.03564291,-0.021397041,0.023376562,0.02809068,-0.06587642,-0.05169622,-0.021699466,-0.074066244,-0.074898,-0.008829123,0.0030908503,0.03092371,2.0,2.0,-2.0,-2.0,2.0,-2.0,2.0,-2.0,-2.0,2.0,-2.0,-2.0,2.0,2.0,-2.0,-2.0,2.0,-2.0,2.0,-2.0,-2.0,2.0,-2.0,-2.0
2025-06-05 14:13:34.194,-0.038057026,-0.0026115444,0.00647874,0.13329227,0.06721109,0.034611434,0.0,0.0,0.0,0.011681143,0.004202008,0.4627755,-0.21031985,-0.011433053,0.46794203,-0.13199358,0.034783006,-0.47607493,-0.12562722,0.17572647,-0.46431354,-0.18184675,-0.023497347,0.04751568,0.019801399,0.019693632,0.017907633,-0.040271044,-0.012422708,-0.0725937,0.005105839,-0.046838548,0.06954635,0.049362686,2.0,2.0,-2.0,-2.0,2.0,-2.0,2.0,-2.0,-2.0,2.0,-2.0,-2.0,2.0,2.0,-2.0,-2.0,2.0,-2.0,2.0,-2.0,-2.0,2.0,-2.0,-2.0
2025-06-05 14:13:34.214,0.0176686,-0.043410584,-0.026341142,0.10850639,0.00092450524,-0.028874299,0.0,0.0,0.0,0.011681137,0.0033897362,0.44616202,-0.21200214,-0.010681779,0.4766222,-0.1445735,0.031871483,-0.48363152,-0.13638891,0.16353059,-0.45647973,-0.18875614,-0.023608066,0.07061206,-0.04813927,-0.060300115,0.0039625126,-0.05979471,-0.051528003,0.055065326,0.06404727,-0.04692949,-0.008825093,-0.06804058,2.0,2.0,-2.0,-2.0,2.0,-2.0,2.0,-2.0,-2.0,2.0,-2.0,-2.0,2.0,2.0,-2.0,-2.0,2.0,-2.0,2.0,-2.0,-2.0,2.0,-2.0,-2.0
2025-06-05 14:13:34.236,0.0060288697,0.011023626,0.018344818,0.064685225,-0.014601033,-0.020110026,0.0,0.0,0.0,0.01168113,0.015417093,0.4477647,-0.20087561,-0.011838192,0.46642885,-0.14986219,0.020687586,-0.4707527,-0.1402333,0.1670724,-0.46160915,-0.17319082,0.060798556,0.061243623,0.06354692,0.016394787,0.055840474,-0.033827424,0.05699227,-0.032056097,-0.058363482,0.065908894,0.044576008,-0.059996292,2.0,2.0,-2.0,-2.0,2.0,-2.0,2.0,-2.0,-2.0,2.0,-2.0,-2.0,2.0,2.0,-2.0,-2.0,2.0,-2.0,2.0,-2.0,-2.0,2.0,-2.0,-2.0
2025-06-05 14:13:34.254,0.03572841,0.017128604,-0.047917843,0.06211408,0.018000279,0.027625516,0.0,0.0,0.0,0.011681125,0.021991892,0.446706,-0.21000208,-0.008707159,0.46149498,-0.139723,0.029014291,-0.47802287,-0.13567722,0.16702047,-0.45874798,-0.18653233,-0.004533678,-0.05100159,-0.023946203,0.055299718,0.02179623,0.02212833,0.03233625,-0.009919518,-0.0041037267,-0.0008911043,-0.046562593,0.046360113,2.0,2.0,-2.0,-2.0,2.0,-2.0,2.0,-2.0,-2.0,2.0,-2.0,-2.0,2.0,2.0,-2.0,-2.0,2.0,-2.0,2.0,-2.0,-2.0,2.0,-2.0,-2.0
2025-06-05 14:13:34.275,0.03923966,-0.00017719404,-0.021974992,0.09904676,0.039085463,-0.031992067,0.0,0.0,0.0,0.01168112,0.016146552,0.4593932,-0.19643268,-0.0009715237,0.4619656,-0.13773629,0.019807776,-0.47205928,-0.12808225,0.17392196,-0.45837346,-0.18428037,-0.008929344,-0.010915825,-0.063816234,0.074911706,-0.00043998525,-0.015304328,0.070576206,0.015473481,0.06836088,-0.0653866,-0.037193514,-0.062198114,2.0,2.0,-2.0,-2.0,2.0,-2.0,2.0,-2.0,-2.0,2.0,-2.0,-2.0,2.0,2.0,-2.0,-2.0,2.0,-2.0,2.0,-2.0,-2.0,2.0,-2.0,-2.0
2025-06-05 14:13:34.294,-0.013484098,0.004417838,0.0017918291,0.12659831,0.073415056,-0.01136913,0.0,0.0,0.0,0.011681115,0.0043384144,0.4468396,-0.215137,-0.0066623744,0.46297666,-0.13561505,0.021649156,-0.47554883,-0.1250571,0.1718149,-0.4633045,-0.1749762,0.024761908,-0.05440187,0.06506124,0.01956472,-0.0057917717,0.027821958,0.062226307,-0.019923715,-0.019697854,-0.06309676,0.051711034,0.020507548,2.0,2.0,-2.0,-2.0,2.0,-2.0,2.0,-2.0,-2.0,2.0,-2.0,-2.0,2.0,2.0,-2.0,-2.0,2.0,-2.0,2.0,-2.0,-2.0,2.0,-2.0,-2.0
2025-06-05 14:13:34.315,-0.015995262,0.03545862,-0.008902411,0.11268965,0.04690393,0.045139097,0.0,0.0,0.0,0.0116811115,0.018919488,0.4580789,-0.21460152,0.0036607129,0.46388942,-0.14419581,0.01913809,-0.4790417,-0.14106865,0.17411213,-0.46828887,-0.18096794,-0.01865908,-0.03853889,-0.00083567976,-0.061753422,0.0121895755,-0.013877528,-0.00034792366,0.0589147,0.015646279,-0.059153326,-0.013525772,-0.05923087,2.0,2.0,-2.0,-2.0,2.0,-2.0,2.0,-2.0,-2.0,2.0,-2.0,-2.0,2.0,2.0,-2.0,-2.0,2.0,-2.0,2.0,-2.0,-2.0,2.0,-2.0,-2.0
2025-06-05 14:13:34.336,0.024793396,-0.018397706,-0.046181362,0.10484859,-0.011863313,-0.034881607,0.0,0.0,0.0,0.011681108,0.0026323348,0.44661322,-0.21531624,-0.013535316,0.46556887,-0.13215728,0.020976478,-0.46702608,-0.14402385,0.16380505,-0.4652036,-0.17637667,-0.008173773,-0.014392308,0.029644774,-0.009501042,0.03910046,-0.043171898,0.022040088,-0.061029706,-0.04398034,-0.03793047,-0.01728309,-0.059688646,2.0,2.0,-2.0,-2.0,2.0,-2.0,2.0,-2.0,-2.0,2.0,-2.0,-2.0,2.0,2.0,-2.0,-2.0,2.0,-2.0,2.0,-2.0,-2.0,2.0,-2.0,-2.0
2025-06-05 14:13:34.354,-0.041211605,0.041383453,0.04764729,0.053693973,0.003676625,1.153758e-05,0.0,0.0,0.0,0.011681105,0.018932419,0.45281467,-0.20826524,-0.008314926,0.46258682,-0.1331766,0.023067422,-0.4788742,-0.14294708,0.16160952,-0.4605511,-0.18562143,-0.04730311,-0.02791547,0.06141874,-0.0150123155,0.018305203,-0.052828167,-0.04632964,0.030547246,-0.074579604,0.048132118,-0.053782877,-0.006530655,2.0,2.0,-2.0,-2.0,2.0,-2.0,2.0,-2.0,-2.0,2.0,-2.0,-2.0,2.0,2.0,-2.0,-2.0,2.0,-2.0,2.0,-2.0,-2.0,2.0,-2.0,-2.0
2025-06-05 14:13:34.374,0.033298373,-0.01650463,-0.012495753,0.14091218,0.059402563,0.0067100967,0.0,0.0,0.0,0.011681103,0.021517543,0.44714466,-0.19790253,-0.015216995,0.47271472,-0.14157328,0.037378926,-0.47840714,-0.1356601,0.17451915,-0.45819065,-0.1778645,0.020870207,0.07476785,-0.05047657,-0.023417015,-0.06441735,-0.0185132,0.050759453,0.00010500802,0.06311649,-0.006652507,-0.019840086,0.05373903,2.0,2.0,-2.0,-2.0,2.0,-2.0,2.0,-2.0,-2.0,2.0,-2.0,-2.0,2.0,2.0,-2.0,-2.0,2.0,-2.0,2.0,-2.0,-2.0,2.0,-2.0,-2.0
2025-06-05 14:13:34.394,0.014803371,-0.004122911,-0.011867234,0.1250545,0.047729764,-0.01703085,0.0,0.0,0.0,0.0116811,0.017032154,0.44955704,-0.20841546,-0.008953156,0.46146446,-0.14867678,0.02770488,-0.4666526,-0.13377826,0.16234651,-0.46185848,-0.18431552,0.026941229,-0.046922233,-0.022307375,-0.030035399,0.05227243,0.049218085,0.00042680523,-0.07423239,0.007553772,0.024381083,0.058013733,0.053655952,2.0,2.0,-2.0,-2.0,2.0,-2.0,2.0,-2.0,-2.0,2.0,-2.0,-2.0,2.0,2.0,-2.0,-2.0,2.0,-2.0,2.0,-2.0,-2.0,2.0,-2.0,-2.0
2025-06-05 14:13:34.415,0.028830817,-0.015359492,0.0058465777,0.08145821,-0.0052466094,0.029251525,0.0,0.0,0.0,0.0116810985,0.010716809,0.45392165,-0.21400915,-0.008537795,0.4626673,-0.1499464,0.034331776,-0.46552336,-0.12616675,0.17362075,-0.45921123,-0.18062128,-0.011787422,-0.019564018,0.07169154,-0.064576484,-0.00059559266,0.028528132,0.060753267,0.035068493,0.021420285,-0.062679075,0.003284889,-0.055079155,2.0,2.0,-2.0,-2.0,2.0,-2.0,2.0,-2.0,-2.0,2.0,-2.0,-2.0,2.0,2.0,-2.0,-2.0,2.0,-2.0,2.0,-2.0,-2.0,2.0,-2.0,-2.0
2025-06-05 14:13:34.436,0.011750592,-0.013855227,-0.0060778656,0.07014496,0.06904558,-0.023874838,0.0,0.0,0.0,0.011681097,0.0057947556,0.4468881,-0.2058619,-0.013387999,0.4752258,-0.13805446,0.021417648,-0.4707559,-0.12551421,0.16214386,-0.4622394,-0.18914828,0.050690494,-0.05307085,-0.0071301614,-0.04719611,0.045881864,-0.030893477,-0.04585962,-0.016210468,-0.025808671,0.003868875,0.028359316,0.0291118,2.0,2.0,-2.0,-2.0,2.0,-2.0,2.0,-2.0,-2.0,2.0,-2.0,-2.0,2.0,2.0,-2.0,-2.0,2.0,-2.0,2.0,-2.0,-2.0,2.0,-2.0,-2.0
2025-06-05 14:13:34.455,0.020398768,0.049853306,-0.020076912,0.07690222,0.026260331,-0.0046629724,0.0,0.0,0.0,0.011681096,0.020150932,0.46184698,-0.20315829,-0.002541644,0.46240473,-0.13174704,0.022249036,-0.4734324,-0.14019781,0.16418222,-0.4672978,-0.18761706,0.03754774,0.05256829,0.06563443,0.051273078,-0.06729874,0.05072138,-0.044022344,0.058754914,0.045142606,0.063395865,-0.051683407,-0.0012108152,2.0,2.0,-2.0,-2.0,2.0,-2.0,2.0,-2.0,-2.0,2.0,-2.0,-2.0,2.0,2.0,-2.0,-2.0,2.0,-2.0,2.0,-2.0,-2.0,2.0,-2.0,-2.0
2025-06-05 14:13:34.475,0.03300729,0.023486122,-0.040716637,0.094767705,-0.004448917,0.016447777,0.0,0.0,0.0,0.011681094,0.009619479,0.4520518,-0.20069756,-0.009660397,0.46102434,-0.13341092,0.02200674,-0.4652323,-0.13313255,0.17144172,-0.47145146,-0.1817675,0.034406047,-0.0555087,-0.053429846,0.02997077,-0.0153274555,-0.022523696,-0.007654692,-0.038029015,0.06449462,-0.045535795,0.024675265,0.01889092,2.0,2.0,-2.0,-2.0,2.0,-2.0,2.0,-2.0,-2.0,2.0,-2.0,-2.0,2.0,2.0,-2.0,-2.0,2.0,-2.0,2.0,-2.0,-2.0,2.0,-2.0,-2.0
2025-06-05 14:13:34.496,-0.03339785,0.03174873,0.0034895905,0.050985157,-0.009933339,0.011663173,0.0,0.0,0.0,0.011681093,0.01759262,0.45990345,-0.2115814,-0.00088423165,0.45865235,-0.13172065,0.0365575,-0.4749747,-0.13907164,0.17931443,-0.46379566,-0.19239882,-0.054146912,0.025330786,0.0059663183,0.06777254,-0.019585315,-0.04452391,0.03324423,0.007146106,0.070561185,0.013803607,-0.033765726,-0.013913663,2.0,2.0,-2.0,-2.0,2.0,-2.0,2.0,-2.0,-2.0,2.0,-2.0,-2.0,2.0,2.0,-2.0,-2.0,2.0,-2.0,2.0,-2.0,-2.0,2.0,-2.0,-2.0
2025-06-05 14:13:34.518,-0.038189106,0.04857003,-0.047418106,0.04486461,0.034736317,0.013648793,0.0,0.0,0.0,0.011681092,0.0140475985,0.4550334,-0.2015766,-0.0005856916,0.46396226,-0.13242139,0.021681618,-0.47885254,-0.13318637,0.1743351,-0.46275744,-0.17267673,0.013160042,0.057898995,-0.04260171,-0.056264363,-0.03805306,-0.048632048,-0.052375365,-0.001299018,0.067084424,0.001766574,0.030205838,0.0029284335,2.0,2.0,-2.0,-2.0,2.0,-2.0,2.0,-2.0,-2.0,2.0,-2.0,-2.0,2.0,2.0,-2.0,-2.0,2.0,-2.0,2.0,-2.0,-2.0,2.0,-2.0,-2.0
2025-06-05 14:13:34.536,-0.027661521,-0.011954138,-0.04826084,0.1007601,0.0101762405,-0.00016693685,0.0,0.0,0.0,0.011681091,0.004446693,0.46044746,-0.20462157,-0.004111487,0.46530843,-0.14062467,0.034218203,-0.47207007,-0.1285457,0.17411397,-0.46459755,-0.18846194,0.027902346,0.060728062,0.031688035,-0.016804814,0.057574924,-0.010417172,-0.025424166,0.01832701,0.07105385,-0.0653303,-0.018884882,-0.06444717,2.0,2.0,-2.0,-2.0,2.0,-2.0,2.0,-2.0,-2.0,2.0,-2.0,-2.0,2.0,2.0,-2.0,-2.0,2.0,-2.0,2.0,-2.0,-2.0,2.0,-2.0,-2.0
2025-06-05 14:13:34.556,0.019527107,0.03923796,-0.035930175,0.0845263,0.031246051,-0.010079629,0.0,0.0,0.0,0.01168109,0.0052280226,0.44931507,-0.20959097,-0.012639267,0.47005054,-0.14120787,0.02422788,-0.47396094,-0.12826733,0.17223361,-0.47606635,-0.1913692,-0.068437554,-0.049057495,-0.032705896,0.028018681,-0.039757874,-0.07182395,0.023192512,-0.015942855,0.04908513,0.037555415,0.064828224,0.069245465,2.0,2.0,-2.0,-2.0,2.0,-2.0,2.0,-2.0,-2.0,2.0,-2.0,-2.0,2.0,2.0,-2.0,-2.0,2.0,-2.0,2.0,-2.0,-2.0,2.0,-2.0,-2.0
2025-06-05 14:13:34.576,-0.049596325,0.010809372,0.033331126,0.044404443,-0.0023488556,-0.00040134275,0.0,0.0,0.0,0.011681089,0.01832903,0.44869116,-0.19683832,-0.002124578,0.47193193,-0.1494187,0.023341203,-0.47217974,-0.1411415,0.1652609,-0.45902437,-0.17649156,0.02539698,0.06473934,-0.07089241,-0.0031286657,0.022889405,-0.046558745,0.07479509,0.03320907,0.041495502,-0.018275097,-0.03980535,0.0199281,2.0,2.0,-2.0,-2.0,2.0,-2.0,2.0,-2.0,-2.0,2.0,-2.0,-2.0,2.0,2.0,-2.0,-2.0,2.0,-2.0,2.0,-2.0,-2.0,2.0,-2.0,-2.0
2025-06-05 14:13:34.595,0.036304023,-0.021181231,-0.024155889,0.12445724,0.0152033605,-0.013857079,0.0,0.0,0.0,0.011681089,0.006956155,0.4605575,-0.20999831,-0.008047782,0.46405077,-0.15066232,0.028122824,-0.47126785,-0.1321782,0.16859588,-0.46994892,-0.18746115,0.008508761,-0.05971141,-0.0700436,-0.068061605,0.056382928,-0.039489165,-0.07326006,0.00607009,0.033077464,-0.00041390638,-0.008442488,-0.010447732,2.0,2.0,-2.0,-2.0,2.0,-2.0,2.0,-2.0,-2.0,2.0,-2.0,-2.0,2.0,2.0,-2.0,-2.0,2.0,-2.0,2.0,-2.0,-2.0,2.0,-2.0,-2.0
2025-06-05 14:13:34.618,-0.017107163,0.039383803,0.027242977,0.04790371,-0.0010400873,-0.022670561,0.0,0.0,0.0,0.011681088,0.020436814,0.45542502,-0.21126403,0.0006056115,0.46118882,-0.13273142,0.024609195,-0.46737957,-0.14494593,0.16876324,-0.46843427,-0.17293218,0.036067523,0.05137665,-0.017121915,0.07074063,0.041722585,-0.04200015,0.065823734,0.05083824,-0.009666405,0.07018004,-0.006499364,-0.06956129,2.0,2.0,-2.0,-2.0,2.0,-2.0,2.0,-2.0,-2.0,2.0,-2.0,-2.0,2.0,2.0,-2.0,-2.0,2.0,-2.0,2.0,-2.0,-2.0,2.0,-2.0,-2.0
2025-06-05 14:13:34.636,-0.020280607,-0.035657763,0.027037425,0.05263247,0.054785125,-0.025053823,0.0,0.0,0.0,0.011681088,0.0027821849,0.4505584,-0.20365486,-0.009047582,0.4737899,-0.13208988,0.027175173,-0.47098163,-0.14205411,0.16118476,-0.4582126,-0.18746084,-0.010756682,-0.031991176,0.059833314,-0.051484067,0.008656929,-0.049899932,-0.04447323,-0.048837673,0.006641784,0.004645685,-0.026905729,-0.034051504,2.0,2.0,-2.0,-2.0,2.0,-2.0,2.0,-2.0,-2.0,2.0,-2.0,-2.0,2.0,2.0,-2.0,-2.0,2.0,-2.0,2.0,-2.0,-2.0,2.0,-2.0,-2.0
2025-06-05 14:13:34.656,0.036842022,0.013846683,-0.035777874,0.07860629,0.008937751,-0.0027773594,0.0,0.0,0.0,0.011681087,0.018905865,0.4566759,-0.19920155,-0.006690686,0.45812055,-0.1465502,0.03853816,-0.4700287,-0.13482217,0.17490454,-0.45729303,-0.1907324,0.055492096,-0.049172763,0.0060319058,0.046589248,-0.043039553,-0.04108506,-0.017821113,0.038514912,-0.0062317434,0.038809266,-0.033897873,0.043660466,2.0,2.0,-2.0,-2.0,2.0,-2.0,2.0,-2.0,-2.0,2.0,-2.0,-2.0,2.0,2.0,-2.0,-2.0,2.0,-2.0,2.0,-2.0,-2.0,2.0,-2.0,-2.0
2025-06-05 14:13:34.677,-0.026886133,0.003668972,-0.018402383,0.113705344,-0.0013929523,0.04866422,0.0,0.0,0.0,0.011681087,0.017505633,0.44603193,-0.2024068,0.0007056231,0.47543877,-0.14952023,0.03833903,-0.4712243,-0.13585997,0.16776271,-0.4744809,-0.19016832,-0.0056132427,0.0015964856,-0.04964182,-0.009520977,-0.05016145,0.011871661,0.020559408,0.033995267,-0.021100704,0.05716985,0.050969776,-0.0464314,2.0,2.0,-2.0,-2.0,2.0,-2.0,2.0,-2.0,-2.0,2.0,-2.0,-2.0,2.0,2.0,-2.0,-2.0,2.0,-2.0,2.0,-2.0,-2.0,2.0,-2.0,-2.0
2025-06-05 14:13:34.695,0.037657607,0.035990477,0.029550496,0.054297883,-0.0012223809,-0.04099282,0.0,0.0,0.0,0.011681087,0.0070556733,0.4611271,-0.20376389,-0.002372937,0.46295992,-0.14605059,0.031344928,-0.47915587,-0.12860504,0.16152424,-0.4572155,-0.18233973,0.018275945,0.01919196,0.051368758,0.0348308,-0.018597698,-0.054810226,-0.027088916,-0.06253315,-0.018762775,-0.065566726,0.072671644,0.061945632,2.0,2.0,-2.0,-2.0,2.0,-2.0,2.0,-2.0,-2.0,2.0,-2.0,-2.0,2.0,2.0,-2.0,-2.0,2.0,-2.0,2.0,-2.0,-2.0,2.0,-2.0,-2.0
2025-06-05 14:13:34.719,0.046810403,-0.0325261,0.040408257,0.13612665,0.046858303,0.03169042,0.0,0.0,0.0,0.011681086,0.019980546,0.45104527,-0.21074058,-0.0031800591,0.46496272,-0.14186549,0.02741096,-0.4795822,-0.12656933,0.161609,-0.45851642,-0.18844089,0.047487333,0.063407496,0.061908104,-0.013060898,-0.03628557,-0.05899686,0.00010409206,-0.039052688,-0.046043217,0.010135101,0.0731562,-0.06841344,2.0,2.0,-2.0,-2.0,2.0,-2.0,2.0,-2.0,-2.0,2.0,-2.0,-2.0,2.0,2.0,-2.0,-2.0,2.0,-2.0,2.0,-2.0,-2.0,2.0,-2.0,-2.0
2025-06-05 14:13:34.736,-0.02398915,0.036792792,-0.04390645,0.13846137,0.07513594,0.008123397,0.0,0.0,0.0,0.011681086,0.005540281,0.44655806,-0.20684674,-0.0012881424,0.46057126,-0.14524819,0.03872431,-0.46905228,-0.12720662,0.17517464,-0.46128476,-0.17586628,-0.025231903,0.044955645,-0.06825327,-0.0044968156,-0.023649529,0.032233912,0.045035526,0.03877914,0.06308626,0.018678669,-0.06995688,0.045946088,2.0,2.0,-2.0,-2.0,2.0,-2.0,2.0,-2.0,-2.0,2.0,-2.0,-2.0,2.0,2.0,-2.0,-2.0,2.0,-2.0,2.0,-2.0,-2.0,2.0,-2.0,-2.0
2025-06-05 14:13:34.756,-0.04592805,0.039284218,0.013665289,0.13603443,0.02527041,0.038738728,0.0,0.0,0.0,0.011681086,0.015860982,0.44868138,-0.21038318,-0.007016713,0.46502668,-0.14744252,0.024851618,-0.47246855,-0.12933388,0.1716054,-0.47156727,-0.18146113,0.059404865,-0.05530826,0.065493084,0.071447305,0.05479912,0.070241675,0.05292087,-0.025217861,-0.026227124,0.06688747,0.07140915,-0.066250525,2.0,2.0,-2.0,-2.0,2.0,-2.0,2.0,-2.0,-2.0,2.0,-2.0,-2.0,2.0,2.0,-2.0,-2.0,2.0,-2.0,2.0,-2.0,-2.0,2.0,-2.0,-2.0
2025-06-05 14:13:34.776,0.0018216685,-0.004638967,-0.020240203,0.09945588,-0.00402954,0.014035108,0.0,0.0,0.0,0.011681086,0.0083319945,0.45293647,-0.20693171,-0.0010010335,0.4624638,-0.14840733,0.029798392,-0.47329012,-0.13930173,0.17192675,-0.45669925,-0.18156901,0.06721979,0.07067058,-0.040231798,-0.056492303,0.007006575,0.063473925,0.06359821,-0.020005986,-0.068824634,0.016287172,-0.05934123,-0.06631296,2.0,2.0,-2.0,-2.0,2.0,-2.0,2.0,-2.0,-2.0,2.0,-2.0,-2.0,2.0,2.0,-2.0,-2.0,2.0,-2.0,2.0,-2.0,-2.0,2.0,-2.0,-2.0
2025-06-05 14:13:34.826,0.0494605,-0.01919622,0.009839349,0.0868909,0.056024868,0.014722947,0.0,0.0,0.0,0.011681085,0.006248613,0.4442559,-0.20464945,-0.0032762054,0.45853418,-0.1451926,0.030075772,-0.47111118,-0.13453847,0.17410327,-0.47481486,-0.17668612,0.05583016,0.017498355,0.04952914,0.012313405,0.013755227,0.020536322,-0.040370524,-0.02062013,-0.068490826,-0.058371942,0.011579334,-0.0042800955,2.0,2.0,-2.0,-2.0,2.0,-2.0,2.0,-2.0,-2.0,2.0,-2.0,-2.0,2.0,2.0,-2.0,-2.0,2.0,-2.0,2.0,-2.0,-2.0,2.0,-2.0,-2.0
2025-06-05 14:13:34.843,0.03215937,0.043098234,0.0421561,0.117441714,0.058753233,-0.04011052,0.0,0.0,0.0,0.011681085,0.0050680507,0.4603121,-0.20868091,0.0010685055,0.45862746,-0.14562239,0.027367765,-0.47517905,-0.13591525,0.1798915,-0.4580851,-0.17819762,0.0668937,0.013489772,0.0571609,0.02280107,0.06935673,-0.036150496,-0.047068805,0.010708198,-0.024743123,0.057697587,0.007930542,0.00012782014,2.0,2.0,-2.0,-2.0,2.0,-2.0,2.0,-2.0,-2.0,2.0,-2.0,-2.0,2.0,2.0,-2.0,-2.0,2.0,-2.0,2.0,-2.0,-2.0,2.0,-2.0,-2.0
2025-06-05 14:13:34.863,0.0453687,0.022905301,0.047652762,0.14144322,0.06768282,-0.008713521,0.0,0.0,0.0,0.011681085,0.0042735557,0.44608563,-0.20752229,-0.005712685,0.4764761,-0.1330511,0.03569465,-0.482336,-0.14096957,0.17126489,-0.4656348,-0.18953992,0.0008351366,-0.011445117,0.010627329,0.039885394,-0.022569926,0.038657214,0.055269424,-0.037567284,-0.04384637,0.006840363,-0.043282297,0.0036101018,2.0,2.0,-2.0,-2.0,2.0,-2.0,2.0,-2.0,-2.0,2.0,-2.0,-2.0,2.0,2.0,-2.0,-2.0,2.0,-2.0,2.0,-2.0,-2.0,2.0,-2.0,-2.0
2025-06-05 14:13:34.886,0.049144953,-0.044945784,0.046699803,0.06123386,0.07458641,-0.03823562,0.0,0.0,0.0,0.011681085,0.007749388,0.44373396,-0.21168119,-0.011236591,0.475958,-0.13804904,0.020610228,-0.4747337,-0.13088532,0.1763854,-0.47179833,-0.18205822,0.026880799,0.014195764,0.0091488315,-0.018936839,0.06701489,0.049459442,0.07442086,0.029421123,-0.036017574,-0.006714466,-0.027799383,0.071195185,2.0,2.0,-2.0,-2.0,2.0,-2.0,2.0,-2.0,-2.0,2.0,-2.0,-2.0,2.0,2.0,-2.0,-2.0,2.0,-2.0,2.0,-2.0,-2.0,2.0,-2.0,-2.0
2025-06-05 14:13:34.903,-0.0082873795,-0.028929502,0.0043393113,0.05020312,0.05282403,0.02808324,0.0,0.0,0.0,0.011681085,0.013175092,0.44621038,-0.21497957,-0.009151962,0.47102928,-0.1432705,0.025521023,-0.4833357,-0.14342462,0.1616363,-0.46324602,-0.17928211,0.026060687,-0.017567221,-0.012716624,-0.039492745,0.013448539,0.05566813,-0.030256134,0.052949242,-0.048460364,-0.041362654,-0.06143164,-0.014447226,2.0,2.0,-2.0,-2.0,2.0,-2.0,2.0,-2.0,-2.0,2.0,-2.0,-2.0,2.0,2.0,-2.0,-2.0,2.0,-2.0,2.0,-2.0,-2.0,2.0,-2.0,-2.0
2025-06-05 14:13:34.923,-0.047727864,-0.035461493,0.03451455,0.044544995,0.02012869,-0.044024635,0.0,0.0,0.0,0.011681085,0.003879208,0.459659,-0.19900544,-0.008571248,0.47221404,-0.14945093,0.034069184,-0.4654658,-0.14271933,0.1753015,-0.47521582,-0.1882036,-0.072689794,-0.011428187,-0.041525114,0.06753172,0.016832631,-0.04061372,0.058729,-0.01013312,0.03376923,0.02466634,-0.035155147,-0.03663283,2.0,2.0,-2.0,-2.0,2.0,-2.0,2.0,-2.0,-2.0,2.0,-2.0,-2.0,2.0,2.0,-2.0,-2.0,2.0,-2.0,2.0,-2.0,-2.0,2.0,-2.0,-2.0
2025-06-05 14:13:34.943,0.032868702,-0.010085932,-0.011948727,0.12794587,0.0104433345,-0.017982833,0.0,0.0,0.0,0.011681085,0.022043847,0.46318975,-0.20665988,-0.011256021,0.4640107,-0.1497679,0.030616378,-0.48363265,-0.14367518,0.17839003,-0.45816964,-0.17860061,0.013144162,0.029275091,-0.014407028,0.015754826,0.07087631,0.028670304,0.055334423,-0.004592891,0.033075325,-0.0064613195,0.07117883,0.0072448105,2.0,2.0,-2.0,-2.0,2.0,-2.0,2.0,-2.0,-2.0,2.0,-2.0,-2.0,2.0,2.0,-2.0,-2.0,2.0,-2.0,2.0,-2.0,-2.0,2.0,-2.0,-2.0
2025-06-05 14:13:34.963,-0.009710398,0.026274396,-0.039258547,0.12742116,0.06502138,-0.048572965,0.0,0.0,0.0,0.011681085,0.020906439,0.4541326,-0.21082774,0.0033049784,0.4682353,-0.13702148,0.026427193,-0.4699449,-0.12571028,0.17118129,-0.46069646,-0.17372024,-0.02051578,-0.025311373,0.06288898,0.04658294,-0.04093339,-0.0008476449,-0.02465792,0.04819537,0.035607863,0.01239663,-0.03407408,0.05140598,2.0,2.0,-2.0,-2.0,2.0,-2.0,2.0,-2.0,-2.0,2.0,-2.0,-2.0,2.0,2.0,-2.0,-2.0,2.0,-2.0,2.0,-2.0,-2.0,2.0,-2.0,-2.0
2025-06-05 14:13:34.986,0.045833994,-0.0456782,0.0067884694,0.08129596,0.06788976,0.0012830739,0.0,0.0,0.0,0.011681085,0.017268997,0.45031565,-0.21036549,-0.004978816,0.47201902,-0.13450946,0.024867892,-0.4706623,-0.12862384,0.17673203,-0.46982065,-0.17269038,-0.010099254,0.026970914,0.07072693,-0.031827565,-0.0067083705,-0.028436892,-0.0027909079,0.0051079937,-0.045702,0.010554573,-0.0456704,-0.039004207,2.0,2.0,-2.0,-2.0,2.0,-2.0,2.0,-2.0,-2.0,2.0,-2.0,-2.0,2.0,2.0,-2.0,-2.0,2.0,-2.0,2.0,-2.0,-2.0,2.0,-2.0,-2.0
2025-06-05 14:13:35.003,-0.009848379,0.027654484,-0.011669484,0.10593134,0.082735166,-0.043823984,0.0,0.0,0.0,0.0116810845,0.015423714,0.44355482,-0.19676475,-0.006370785,0.47371343,-0.14276028,0.037868615,-0.48412594,-0.13975586,0.171501,-0.46675116,-0.19035283,0.009226141,-0.0015855227,-0.028112233,0.045967575,0.036472544,0.037628274,0.022734866,0.017824557,0.07409729,-0.04777541,0.038661893,0.07010187,2.0,2.0,-2.0,-2.0,2.0,-2.0,2.0,-2.0,-2.0,2.0,-2.0,-2.0,2.0,2.0,-2.0,-2.0,2.0,-2.0,2.0,-2.0,-2.0,2.0,-2.0,-2.0
2025-06-05 14:13:35.023,-0.014293743,0.026728636,0.0013047529,0.13220759,-0.004464945,0.04901022,0.0,0.0,0.0,0.0116810845,0.019641435,0.4599205,-0.19644853,-0.0032380447,0.4632899,-0.13132346,0.03281173,-0.4833215,-0.13261497,0.17570978,-0.46374387,-0.17794295,0.07079809,-0.06471104,0.014038917,-0.022269528,0.02586618,-0.02032398,0.009632446,0.05970453,0.015780587,0.04525826,0.033441443,0.063471206,2.0,2.0,-2.0,-2.0,2.0,-2.0,2.0,-2.0,-2.0,2.0,-2.0,-2.0,2.0,2.0,-2.0,-2.0,2.0,-2.0,2.0,-2.0,-2.0,2.0,-2.0,-2.0
2025-06-05 14:13:35.043,-0.02431154,0.018861955,-0.041132472,0.118582726,-0.0050096465,0.01915804,0.0,0.0,0.0,0.0116810845,0.021762634,0.450819,-0.1970855,-0.011088613,0.4638973,-0.14560561,0.037304547,-0.48429585,-0.14252113,0.17689589,-0.4688732,-0.1875997,-0.01973916,0.063423865,-0.0005235024,0.07074273,-0.014773799,0.016279673,0.059550986,-0.06706044,-0.015846709,0.023245674,0.06044863,0.007644567,2.0,2.0,-2.0,-2.0,2.0,-2.0,2.0,-2.0,-2.0,2.0,-2.0,-2.0,2.0,2.0,-2.0,-2.0,2.0,-2.0,2.0,-2.0,-2.0,2.0,-2.0,-2.0
2025-06-05 14:13:35.063,0.013269507,0.029204413,0.017765503,0.08014333,0.07123791,0.028676353,0.0,0.0,0.0,0.0116810845,0.00876953,0.448009,-0.21566136,-0.010060854,0.46990228,-0.14991416,0.029225543,-0.48318517,-0.13772826,0.17396088,-0.47473073,-0.1813755,-0.044621415,-0.04284847,0.07278388,-0.006273441,0.020915221,0.059957594,-0.021316003,-0.06893911,-0.06238727,0.041841894,-0.02385316,-0.033747718,2.0,2.0,-2.0,-2.0,2.0,-2.0,2.0,-2.0,-2.0,2.0,-2.0,-2.0,2.0,2.0,-2.0,-2.0,2.0,-2.0,2.0,-2.0,-2.0,2.0,-2.0,-2.0
2025-06-05 14:13:35.086,0.0049207113,0.0033928996,-0.005315613,0.10053897,0.039558396,0.001305905,0.0,0.0,0.0,0.0116810845,0.018684736,0.45094222,-0.20121564,-0.003587727,0.4612111,-0.13389373,0.026367974,-0.47929454,-0.14356244,0.1649245,-0.45796537,-0.17478086,0.073324196,-0.016636722,-0.039190352,0.030219665,-0.020546071,-0.057915054,0.025011977,-0.007410776,-0.024317317,-0.048203647,0.04493006,0.0004180238,2.0,2.0,-2.0,-2.0,2.0,-2.0,2.0,-2.0,-2.0,2.0,-2.0,-2.0,2.0,2.0,-2.0,-2.0,2.0,-2.0,2.0,-2.0,-2.0,2.0,-2.0,-2.0
2025-06-05 14:13:35.104,-0.021349872,0.012769186,-0.01682818,0.064127564,0.034434266,0.03831051,0.0,0.0,0.0,0.0116810845,0.022212455,0.44407412,-0.21046597,-0.010477255,0.46321562,-0.14138047,0.024759045,-0.47692597,-0.1265917,0.16993111,-0.4647613,-0.17623644,0.07384432,0.05340905,-0.022581143,0.060559765,0.054976143,0.045736827,0.059500463,-0.025890836,0.06470113,-0.008782257,-0.057775006,-0.055919167,2.0,2.0,-2.0,-2.0,2.0,-2.0,2.0,-2.0,-2.0,2.0,-2.0,-2.0,2.0,2.0,-2.0,-2.0,2.0,-2.0,2.0,-2.0,-2.0,2.0,-2.0,-2.0
2025-06-05 14:13:35.124,0.022535946,0.002865117,0.02702757,0.06798883,0.06629571,-0.023398103,0.0,0.0,0.0,0.0116810845,0.019027887,0.45477948,-0.20746858,-0.002473028,0.4684931,-0.138902,0.023902083,-0.46556422,-0.13329457,0.18028969,-0.45710734,-0.18753754,-0.05025234,-0.07072428,-0.019361181,0.05908102,0.0037164644,-0.037108928,-0.05404515,-0.0022215322,0.008664248,-0.06921651,-0.034891527,-0.044773906,2.0,2.0,-2.0,-2.0,2.0,-2.0,2.0,-2.0,-2.0,2.0,-2.0,-2.0,2.0,2.0,-2.0,-2.0,2.0,-2.0,2.0,-2.0,-2.0,2.0,-2.0,-2.0
2025-06-05 14:13:35.144,0.005403799,-0.04096924,-0.017155308,0.0630296,0.034662124,0.03560579,0.0,0.0,0.0,0.0116810845,0.02096833,0.4516091,-0.2083516,0.0026313206,0.47193584,-0.14536664,0.023171665,-0.47624052,-0.13307242,0.17647575,-0.47243243,-0.19109555,0.0520304,0.060999256,0.053051624,-0.021054449,-0.065225124,0.031751588,-0.0116132675,0.06525671,-0.05573644,0.06823001,0.0070305206,0.045723412,2.0,2.0,-2.0,-2.0,2.0,-2.0,2.0,-2.0,-2.0,2.0,-2.0,-2.0,2.0,2.0,-2.0,-2.0,2.0,-2.0,2.0,-2.0,-2.0,2.0,-2.0,-2.0
2025-06-05 14:13:35.164,0.021377817,0.023337742,-0.010298047,0.09124772,0.036675423,-0.00081729796,0.0,0.0,0.0,0.0116810845,0.008154217,0.45491692,-0.21420453,0.0025018493,0.47065932,-0.13446067,0.03694769,-0.47899097,-0.13332391,0.1651028,-0.45723233,-0.1748114,0.02037761,-0.040963348,-0.031770766,0.021472573,0.031743877,0.025736092,0.016568944,0.0195651,0.012162542,-0.058077004,-0.052119482,0.006427372,2.0,2.0,-2.0,-2.0,2.0,-2.0,2.0,-2.0,-2.0,2.0,-2.0,-2.0,2.0,2.0,-2.0,-2.0,2.0,-2.0,2.0,-2.0,-2.0,2.0,-2.0,-2.0
2025-06-05 14:13:35.187,-0.022896647,0.04586887,-0.01271096,0.10197276,-0.016392574,-0.027214168,0.0,0.0,0.0,0.0116810845,0.00968238,0.44354275,-0.20930251,-0.0030217594,0.46429273,-0.13721253,0.028121693,-0.47604924,-0.13342626,0.17844294,-0.47117954,-0.19163528,0.06944431,0.056583237,0.0012658485,-0.0059563657,0.011529247,0.06682107,-0.074110016,0.054446746,0.056745704,-0.008433145,-0.028757736,0.016665842,2.0,2.0,-2.0,-2.0,2.0,-2.0,2.0,-2.0,-2.0,2.0,-2.0,-2.0,2.0,2.0,-2.0,-2.0,2.0,-2.0,2.0,-2.0,-2.0,2.0,-2.0,-2.0
2025-06-05 14:13:35.204,-0.04673473,0.042079367,0.014469042,0.13892898,0.07373106,-0.021014286,0.0,0.0,0.0,0.0116810845,0.017967176,0.4541409,-0.19665682,0.0034585248,0.46631604,-0.13772838,0.020330207,-0.4782835,-0.1336159,0.16275446,-0.46128717,-0.17328942,0.03520905,-0.0029243191,0.028681055,0.049432293,-0.055887464,-0.050996054,0.042253193,0.07470068,0.009120226,0.057107512,0.04076413,-0.031925537,2.0,2.0,-2.0,-2.0,2.0,-2.0,2.0,-2.0,-2.0,2.0,-2.0,-2.0,2.0,2.0,-2.0,-2.0,2.0,-2.0,2.0,-2.0,-2.0,2.0,-2.0,-2.0
2025-06-05 14:13:35.224,0.0115461135,0.011254444,-0.001267714,0.10032024,0.008315438,0.021003831,0.0,0.0,0.0,0.0116810845,0.008146181,0.45443085,-0.20012721,-0.004221806,0.46462643,-0.15109926,0.019579045,-0.4753971,-0.14136465,0.1689448,-0.47431177,-0.1751222,0.05445397,0.04681622,0.0040990068,-0.0033893636,-0.03118973,0.04426024,-0.019690396,-0.06480088,-0.045880314,0.02171828,0.04940702,-0.041841265,2.0,2.0,-2.0,-2.0,2.0,-2.0,2.0,-2.0,-2.0,2.0,-2.0,-2.0,2.0,2.0,-2.0,-2.0,2.0,-2.0,2.0,-2.0,-2.0,2.0,-2.0,-2.0
2025-06-05 14:13:35.244,-0.03694127,0.031066367,-0.03255893,0.090252005,0.030923817,-0.010289117,0.0,0.0,0.0,0.0116810845,0.020733647,0.45991763,-0.21170112,-0.006483302,0.47108984,-0.13649933,0.03067519,-0.47078654,-0.13867272,0.17485996,-0.45843074,-0.18681063,0.0065950216,0.033611953,0.04749185,-0.047053594,-0.019318514,-0.07078657,0.018899523,0.022328682,-0.053004812,0.027268676,0.05009597,-0.013948019,2.0,2.0,-2.0,-2.0,2.0,-2.0,2.0,-2.0,-2.0,2.0,-2.0,-2.0,2.0,2.0,-2.0,-2.0,2.0,-2.0,2.0,-2.0,-2.0,2.0,-2.0,-2.0
2025-06-05 14:13:35.265,-0.029439695,0.04070113,0.007023675,0.06401825,-0.014648647,-0.010917237,0.0,0.0,0.0,0.0116810845,0.013267971,0.44665137,-0.2111929,-0.006549403,0.46724114,-0.1474224,0.019909369,-0.472159,-0.1409104,0.18031159,-0.4645853,-0.18091069,0.006846803,-0.028509524,-0.07281209,-0.04878361,-0.027585084,0.047807407,-0.02833599,-0.0016873046,0.06436953,0.037076358,0.045954853,0.046536997,2.0,2.0,-2.0,-2.0,2.0,-2.0,2.0,-2.0,-2.0,2.0,-2.0,-2.0,2.0,2.0,-2.0,-2.0,2.0,-2.0,2.0,-2.0,-2.0,2.0,-2.0,-2.0
2025-06-05 14:13:35.286,-0.023120375,-0.02962231,0.017594032,0.057472825,0.014613564,0.045969192,0.0,0.0,0.0,0.0116810845,0.018009178,0.45530573,-0.20529781,-0.0060218195,0.46962827,-0.1363757,0.027815128,-0.47997025,-0.14299704,0.17462286,-0.46665657,-0.1793433,0.002399561,-0.020589016,-0.008176375,-0.056046143,0.039296262,0.06524627,-0.031176,-0.035377078,0.027712183,-0.06790248,-0.07301224,0.044566356,2.0,2.0,-2.0,-2.0,2.0,-2.0,2.0,-2.0,-2.0,2.0,-2.0,-2.0,2.0,2.0,-2.0,-2.0,2.0,-2.0,2.0,-2.0,-2.0,2.0,-2.0,-2.0
2025-06-05 14:13:35.304,0.0012974906,-0.012172832,-0.008495663,0.07191019,0.068465866,-0.047256403,0.0,0.0,0.0,0.0116810845,0.016954796,0.44603366,-0.19835609,-0.0017326907,0.4752392,-0.13877262,0.033640288,-0.46762687,-0.12656967,0.17044397,-0.47027728,-0.17313658,-0.060405776,-0.008373377,-0.02500188,0.01975766,-0.00458436,0.054542415,-0.024153935,-0.042643655,-0.010435797,-0.033478037,-0.049368046,-0.0072682435,2.0,2.0,-2.0,-2.0,2.0,-2.0,2.0,-2.0,-2.0,2.0,-2.0,-2.0,2.0,2.0,-2.0,-2.0,2.0,-2.0,2.0,-2.0,-2.0,2.0,-2.0,-2.0
2025-06-05 14:13:35.325,-0.048024964,0.0064873383,-0.0486328,0.12018915,0.04031416,-0.012440214,0.0,0.0,0.0,0.0116810845,0.0160304,0.45415208,-0.21384645,-0.014453081,0.46259263,-0.14158107,0.032003485,-0.46717823,-0.12957044,0.16989507,-0.46308333,-0.18804272,-0.020072106,-0.009185247,0.058229107,0.06446164,-0.03850116,0.06360344,0.024662752,-0.006312415,0.07274479,-0.032724246,0.0105698565,-0.06440966,2.0,2.0,-2.0,-2.0,2.0,-2.0,2.0,-2.0,-2.0,2.0,-2.0,-2.0,2.0,2.0,-2.0,-2.0,2.0,-2.0,2.0,-2.0,-2.0,2.0,-2.0,-2.0
2025-06-05 14:13:35.345,0.012630631,0.046635248,-0.010395187,0.11777996,0.074003324,0.01745989,0.0,0.0,0.0,0.0116810845,0.0064115785,0.45867604,-0.2094975,0.0027848345,0.47374123,-0.14321877,0.024034722,-0.47839326,-0.13628292,0.16488531,-0.46507648,-0.1825317,-0.058434814,0.06634417,-0.004959062,-0.06873351,0.041904025,-0.058725487,0.038953494,0.023303965,-0.054257713,-0.0037183217,-0.07465127,0.014875372,2.0,2.0,-2.0,-2.0,2.0,-2.0,2.0,-2.0,-2.0,2.0,-2.0,-2.0,2.0,2.0,-2.0,-2.0,2.0,-2.0,2.0,-2.0,-2.0,2.0,-2.0,-2.0
2025-06-05 14:13:35.365,0.014272318,0.04986104,0.048548322,0.10607131,0.04011009,-0.026369179,0.0,0.0,0.0,0.0116810845,0.019281026,0.4568112,-0.20591561,-0.0007512133,0.47052896,-0.13224591,0.03028065,-0.46659818,-0.1259785,0.17669085,-0.46026534,-0.19203614,-0.06560643,-0.06304665,0.07288158,0.020120673,0.045616906,0.04780904,-0.060617857,-0.024791455,0.07151649,-0.012604992,-0.009205387,-0.03692724,2.0,2.0,-2.0,-2.0,2.0,-2.0,2.0,-2.0,-2.0,2.0,-2.0,-2.0,2.0,2.0,-2.0,-2.0,2.0,-2.0,2.0,-2.0,-2.0,2.0,-2.0,-2.0
2025-06-05 14:13:35.386,-0.044608466,-0.025518788,0.028916743,0.13639553,0.018756451,0.008726956,0.0,0.0,0.0,0.0116810845,0.013722093,0.4549702,-0.20282735,-0.012645151,0.45900226,-0.13473094,0.026283393,-0.48220885,-0.13477156,0.17099178,-0.471332,-0.1901815,-0.0050080037,-0.0077122203,0.043845493,-0.018102836,0.042827938,-0.035923306,-0.062064297,-0.027042093,0.048167754,0.045798935,0.072141275,0.029379124,2.0,2.0,-2.0,-2.0,2.0,-2.0,2.0,-2.0,-2.0,2.0,-2.0,-2.0,2.0,2.0,-2.0,-2.0,2.0,-2.0,2.0,-2.0,-2.0,2.0,-2.0,-2.0
2025-06-05 14:13:35.405,-0.02551144,-0.008501552,0.030898722,0.0738844,0.077776805,0.04651477,0.0,0.0,0.0,0.0116810845,0.012199713,0.44725955,-0.21473199,-0.0149523895,0.4622251,-0.13887873,0.028738469,-0.46705055,-0.14091519,0.16771947,-0.46418816,-0.18897212,0.06346839,0.047657825,0.047210287,-0.041953187,-0.043005574,-0.066505924,0.02663654,0.0695473,0.030746855,0.054940388,-0.041245587,-0.05489667,2.0,2.0,-2.0,-2.0,2.0,-2.0,2.0,-2.0,-2.0,2.0,-2.0,-2.0,2.0,2.0,-2.0,-2.0,2.0,-2.0,2.0,-2.0,-2.0,2.0,-2.0,-2.0
2025-06-05 14:13:35.425,-0.027067546,0.03378614,0.003676073,0.09570171,-0.010862451,-0.008548709,0.0,0.0,0.0,0.0116810845,0.009607671,0.4578474,-0.19769663,-0.015114133,0.46733725,-0.13255416,0.022034489,-0.47512802,-0.1421505,0.17157774,-0.4579151,-0.19086684,-0.015308917,-0.027121387,0.05303349,0.04514564,-0.03238257,0.038195916,0.0019774423,0.043004647,0.073786944,-0.057555817,-0.032437928,0.03922637,2.0,2.0,-2.0,-2.0,2.0,-2.0,2.0,-2.0,-2.0,2.0,-2.0,-2.0,2.0,2.0,-2.0,-2.0,2.0,-2.0,2.0,-2.0,-2.0,2.0,-2.0,-2.0
2025-06-05 14:13:35.447,-0.029841803,0.049591947,0.02393004,0.10423117,0.041732166,0.025576109,0.0,0.0,0.0,0.0116810845,0.009122721,0.4620542,-0.21536638,-0.014754888,0.47098404,-0.14687377,0.028302316,-0.47302043,-0.13558057,0.17401381,-0.4704939,-0.19167659,0.063450046,-0.061867636,-0.009889486,-0.013897945,-0.0072891577,0.043708466,0.062123727,0.008056948,-0.015451463,-0.051987555,-0.04727313,-0.06241679,2.0,2.0,-2.0,-2.0,2.0,-2.0,2.0,-2.0,-2.0,2.0,-2.0,-2.0,2.0,2.0,-2.0,-2.0,2.0,-2.0,2.0,-2.0,-2.0,2.0,-2.0,-2.0
2025-06-05 14:13:35.468,0.03139139,-0.049630947,0.042083964,0.069462925,0.0729804,0.013520692,0.0,0.0,0.0,0.0116810845,0.019548738,0.4582582,-0.21369737,-0.000754003,0.4681851,-0.1417315,0.019251162,-0.46609572,-0.13370198,0.16446675,-0.46681052,-0.17262132,-0.05515694,0.03996742,-0.07103169,0.049879063,-0.0007871304,-0.010541044,-0.022469018,-0.07305314,-0.008598471,-0.03905462,-0.05574227,-0.034776468,2.0,2.0,-2.0,-2.0,2.0,-2.0,2.0,-2.0,-2.0,2.0,-2.0,-2.0,2.0,2.0,-2.0,-2.0,2.0,-2.0,2.0,-2.0,-2.0,2.0,-2.0,-2.0
2025-06-05 14:13:35.487,-0.007417471,0.0064567327,-0.007904671,0.060529646,0.006668852,-0.042051863,0.0,0.0,0.0,0.0116810845,0.01954283,0.46240178,-0.20299716,-0.010141863,0.4768468,-0.14736034,0.026901856,-0.4850511,-0.13540255,0.16839279,-0.46801844,-0.18594801,0.03896592,-0.056772448,-0.024998982,0.045321997,-0.05332981,-0.0041041966,-0.051134903,-0.05976245,-0.007174605,-0.030972907,-0.033585526,0.01524642,2.0,2.0,-2.0,-2.0,2.0,-2.0,2.0,-2.0,-2.0,2.0,-2.0,-2.0,2.0,2.0,-2.0,-2.0,2.0,-2.0,2.0,-2.0,-2.0,2.0,-2.0,-2.0
2025-06-05 14:13:35.506,0.017317852,0.020001967,0.008863633,0.05867589,-0.015731836,0.045071036,0.0,0.0,0.0,0.0116810845,0.01009253,0.4626868,-0.21399783,-0.013588475,0.4626882,-0.14602424,0.02190215,-0.48177767,-0.1432711,0.17803034,-0.4627227,-0.18426941,0.060164135,-0.046121154,0.018955134,0.017321788,0.0094452,-0.047636855,0.00398753,0.022989692,0.06388718,-0.015694078,0.052318953,-0.07365513,2.0,2.0,-2.0,-2.0,2.0,-2.0,2.0,-2.0,-2.0,2.0,-2.0,-2.0,2.0,2.0,-2.0,-2.0,2.0,-2.0,2.0,-2.0,-2.0,2.0,-2.0,-2.0
2025-06-05 14:13:35.526,0.017679261,-0.011000254,0.017079342,0.10824712,0.02303809,0.035008278,0.0,0.0,0.0,0.0116810845,0.012229208,0.45400798,-0.21450283,-0.012438927,0.47227702,-0.13554856,0.0205466,-0.48238322,-0.13027869,0.17186573,-0.4689637,-0.17267203,0.027558139,0.011590116,-0.032960363,0.049214236,-0.049527522,-0.05811429,0.0059559764,-0.022022039,0.0040959488,0.0543701,0.031874508,0.02846553,2.0,2.0,-2.0,-2.0,2.0,-2.0,2.0,-2.0,-2.0,2.0,-2.0,-2.0,2.0,2.0,-2.0,-2.0,2.0,-2.0,2.0,-2.0,-2.0,2.0,-2.0,-2.0
2025-06-05 14:13:35.546,-0.012394561,0.01030518,-0.037184272,0.12643923,0.022283986,-0.0006904129,0.0,0.0,0.0,0.0116810845,0.015294321,0.45727956,-0.19861431,-0.013163625,0.47066507,-0.14049801,0.02280128,-0.46764326,-0.13730016,0.16830735,-0.46450377,-0.17553136,-0.0357008,0.022356376,-0.028576814,0.060025744,-0.062915154,-0.0025075227,0.052871823,0.044279654,-0.014239527,-0.029447785,0.022156443,-0.041178286,2.0,2.0,-2.0,-2.0,2.0,-2.0,2.0,-2.0,-2.0,2.0,-2.0,-2.0,2.0,2.0,-2.0,-2.0,2.0,-2.0,2.0,-2.0,-2.0,2.0,-2.0,-2.0
2025-06-05 14:13:35.568,0.037388153,0.007839144,0.028788835,0.11368851,-0.0044327616,-0.03227821,0.0,0.0,0.0,0.0116810845,0.013963002,0.44556245,-0.21184193,-0.0018143632,0.4726718,-0.13578612,0.02152121,-0.47096586,-0.14475636,0.179632,-0.47055238,-0.17697589,-0.03552309,0.0068501583,0.0064304424,0.012478186,0.030787151,0.025408221,0.00013870686,0.0062375395,-0.012653021,-0.07338395,0.01690814,-0.041860685,2.0,2.0,-2.0,-2.0,2.0,-2.0,2.0,-2.0,-2.0,2.0,-2.0,-2.0,2.0,2.0,-2.0,-2.0,2.0,-2.0,2.0,-2.0,-2.0,2.0,-2.0,-2.0
2025-06-05 14:13:35.587,0.04937427,0.03904162,0.012790378,0.13375919,0.075147934,0.011258225,0.0,0.0,0.0,0.0116810845,0.012406221,0.4582433,-0.2054008,-0.00036013217,0.4686756,-0.14943296,0.032173473,-0.47224656,-0.14090244,0.16429149,-0.46201286,-0.18326955,0.060712207,-0.06120117,0.037991382,0.020824172,0.046801537,-0.0019513335,0.011853351,-0.051072087,-0.018202811,0.0117437625,0.016853994,-0.04472119,2.0,2.0,-2.0,-2.0,2.0,-2.0,2.0,-2.0,-2.0,2.0,-2.0,-2.0,2.0,2.0,-2.0,-2.0,2.0,-2.0,2.0,-2.0,-2.0,2.0,-2.0,-2.0
2025-06-05 14:13:35.606,-0.037811354,-0.00052390824,0.00077004003,0.11741113,0.04047182,-0.04493745,0.0,0.0,0.0,0.0116810845,0.0026229455,0.4505562,-0.20500441,-0.0066953623,0.46274346,-0.13649744,0.02468674,-0.47465688,-0.13721353,0.17111741,-0.47417814,-0.17592779,0.07325818,0.0069483826,0.023111695,0.031585116,-0.043947678,0.028832363,0.01619471,0.036906734,-0.010611651,-0.019105503,0.031550836,-0.065292545,2.0,2.0,-2.0,-2.0,2.0,-2.0,2.0,-2.0,-2.0,2.0,-2.0,-2.0,2.0,2.0,-2.0,-2.0,2.0,-2.0,2.0,-2.0,-2.0,2.0,-2.0,-2.0
2025-06-05 14:13:35.626,0.009348425,-0.040265277,0.0031962607,0.059954733,-0.009454288,-0.0074438257,0.0,0.0,0.0,0.0116810845,0.009095277,0.44545668,-0.19845209,-0.011739995,0.4688521,-0.14957651,0.03774583,-0.47284123,-0.13155961,0.18011412,-0.46609938,-0.1734441,0.05058859,0.05903689,-0.061324123,0.038313467,0.028371919,0.03316195,0.038983747,-0.0010375661,-0.069740206,-0.019287273,-0.057143442,0.03528878,2.0,2.0,-2.0,-2.0,2.0,-2.0,2.0,-2.0,-2.0,2.0,-2.0,-2.0,2.0,2.0,-2.0,-2.0,2.0,-2.0,2.0,-2.0,-2.0,2.0,-2.0,-2.0
2025-06-05 14:13:35.647,-0.019543294,-0.026242256,-0.0077973413,0.055488676,0.08086353,-0.046696533,0.0,0.0,0.0,0.0116810845,0.0071778526,0.45804855,-0.20665908,-0.011214591,0.46688822,-0.13665588,0.032994844,-0.47385195,-0.1400779,0.16938478,-0.46842182,-0.17725073,0.018117188,0.05931916,0.058830056,0.00025467048,-0.024047077,-0.021050546,0.06760751,0.018480236,-0.05055453,-0.053536847,0.020430999,-0.051558733,2.0,2.0,-2.0,-2.0,2.0,-2.0,2.0,-2.0,-2.0,2.0,-2.0,-2.0,2.0,2.0,-2.0,-2.0,2.0,-2.0,2.0,-2.0,-2.0,2.0,-2.0,-2.0
2025-06-05 14:13:35.670,0.03135376,0.022798834,-0.036682464,0.123746954,-0.012027562,0.03555803,0.0,0.0,0.0,0.0116810845,0.009536214,0.45551422,-0.2134087,-0.0015023055,0.46726915,-0.13922921,0.035754655,-0.47402236,-0.12925282,0.17549038,-0.46432036,-0.19155246,-0.009729543,-0.017795395,0.038507305,-0.0012602246,0.021394186,0.009222742,-0.074636884,0.04935498,-0.0680247,-0.01839118,0.0033068068,-0.07454179,2.0,2.0,-2.0,-2.0,2.0,-2.0,2.0,-2.0,-2.0,2.0,-2.0,-2.0,2.0,2.0,-2.0,-2.0,2.0,-2.0,2.0,-2.0,-2.0,2.0,-2.0,-2.0
2025-06-05 14:13:35.686,-0.015458552,0.020093367,2.5147756e-05,0.06856165,-0.00039936556,-0.02598514,0.0,0.0,0.0,0.0116810845,0.015880117,0.45644528,-0.20041978,-0.009772024,0.45854443,-0.13138138,0.020522922,-0.48284748,-0.13021275,0.17323937,-0.46860853,-0.18152517,0.061822042,0.03499382,-0.03656985,-0.0030863453,0.047143728,0.06639789,-0.035180338,0.06338369,0.055345114,0.03204109,-0.06133155,-0.02023255,2.0,2.0,-2.0,-2.0,2.0,-2.0,2.0,-2.0,-2.0,2.0,-2.0,-2.0,2.0,2.0,-2.0,-2.0,2.0,-2.0,2.0,-2.0,-2.0,2.0,-2.0,-2.0
2025-06-05 14:13:35.707,-0.027195025,0.024981322,0.016502986,0.08310986,0.07607289,0.0374533,0.0,0.0,0.0,0.0116810845,0.021675352,0.4494936,-0.21515486,-0.014715608,0.46705616,-0.14706945,0.029045615,-0.48014024,-0.1402588,0.16048267,-0.46208534,-0.17292006,0.033161465,-0.0177949,0.052117378,0.009968869,0.06776,-0.042007502,0.048276316,0.0312722,-0.048392322,-0.07197693,0.04803985,0.015163312,2.0,2.0,-2.0,-2.0,2.0,-2.0,2.0,-2.0,-2.0,2.0,-2.0,-2.0,2.0,2.0,-2.0,-2.0,2.0,-2.0,2.0,-2.0,-2.0,2.0,-2.0,-2.0
2025-06-05 14:13:35.727,-0.03436498,0.0128312465,-0.0018983012,0.06940458,0.028866997,0.036981285,0.0,0.0,0.0,0.0116810845,0.008181422,0.45102394,-0.20604077,0.002330991,0.4672333,-0.13238643,0.03551249,-0.47333166,-0.13806501,0.17067583,-0.4722303,-0.17895342,-0.016156724,-0.037093494,-0.055010054,-0.057717998,-0.06979752,-0.054960363,-0.023503033,0.07018388,0.03495567,-0.0561758,0.06589768,-0.01079074,2.0,2.0,-2.0,-2.0,2.0,-2.0,2.0,-2.0,-2.0,2.0,-2.0,-2.0,2.0,2.0,-2.0,-2.0,2.0,-2.0,2.0,-2.0,-2.0,2.0,-2.0,-2.0
2025-06-05 14:13:35.747,-0.004420626,-0.010100689,0.016023604,0.10890746,0.034236934,-0.041927245,0.0,0.0,0.0,0.0116810845,0.022057068,0.45593086,-0.20399569,-0.015113272,0.459661,-0.137842,0.036231328,-0.47190723,-0.12528685,0.16204648,-0.47594416,-0.17749031,-0.0060468414,-0.02088366,0.016740553,-0.060081728,-0.018403396,0.010783974,0.03488121,0.013802855,0.041356754,-0.053397987,0.019469518,0.06931661,2.0,2.0,-2.0,-2.0,2.0,-2.0,2.0,-2.0,-2.0,2.0,-2.0,-2.0,2.0,2.0,-2.0,-2.0,2.0,-2.0,2.0,-2.0,-2.0,2.0,-2.0,-2.0
2025-06-05 14:13:35.770,0.03852684,0.039514307,-0.028897919,0.06615517,0.039373733,-0.023392485,0.0,0.0,0.0,0.0116810845,0.013198883,0.45729524,-0.20649742,-0.0001513367,0.4631717,-0.14627019,0.031001953,-0.48056525,-0.13302997,0.17480966,-0.46399948,-0.17295209,-0.024193468,-0.018177642,-0.02036546,0.0042841733,0.020439392,-0.037618916,0.027971229,-0.054637592,-0.05517452,-0.07317982,-0.031128893,0.016559798,2.0,2.0,-2.0,-2.0,2.0,-2.0,2.0,-2.0,-2.0,2.0,-2.0,-2.0,2.0,2.0,-2.0,-2.0,2.0,-2.0,2.0,-2.0,-2.0,2.0,-2.0,-2.0
2025-06-05 14:13:35.787,0.040081047,0.027476141,-0.008274181,0.13884461,0.053989723,-0.00456713,0.0,0.0,0.0,0.0116810845,0.004360421,0.45845014,-0.20195414,-0.012572723,0.46244398,-0.13186383,0.026706988,-0.46697578,-0.13680351,0.17977928,-0.46502656,-0.18296416,0.040279273,-0.06549444,-0.029737573,0.007991631,0.028592302,-0.010719909,0.04774232,0.023249732,-0.059487112,-0.00878174,-0.06624032,-0.05924697,2.0,2.0,-2.0,-2.0,2.0,-2.0,2.0,-2.0,-2.0,2.0,-2.0,-2.0,2.0,2.0,-2.0,-2.0,2.0,-2.0,2.0,-2.0,-2.0,2.0,-2.0,-2.0
2025-06-05 14:13:35.807,-0.017738735,-0.043946937,0.0032605326,0.13965885,0.05535429,-0.00629041,0.0,0.0,0.0,0.0116810845,0.0068344316,0.46039382,-0.1968663,-0.0012735999,0.46012616,-0.14058031,0.027515762,-0.47345215,-0.14415325,0.17365505,-0.46242085,-0.18885788,0.0347957,-0.06485607,0.015514529,-0.03435597,-0.04177897,-0.07376604,0.03787264,0.020923806,-0.043866456,0.033697736,0.06409899,0.07145439,2.0,2.0,-2.0,-2.0,2.0,-2.0,2.0,-2.0,-2.0,2.0,-2.0,-2.0,2.0,2.0,-2.0,-2.0,2.0,-2.0,2.0,-2.0,-2.0,2.0,-2.0,-2.0
2025-06-05 14:13:35.827,0.03137824,-0.047962595,-0.046651848,0.06581735,0.030990459,0.04066407,0.0,0.0,0.0,0.0116810845,0.014383599,0.4593682,-0.2144173,-0.008356681,0.46327206,-0.14217252,0.020097228,-0.47241333,-0.12816398,0.17496131,-0.4620926,-0.18260337,0.05824412,0.048481725,0.006385756,-0.07394638,0.067686826,-0.035818987,0.021071494,0.006320033,-0.02720388,0.033403806,0.06460874,0.0009695067,2.0,2.0,-2.0,-2.0,2.0,-2.0,2.0,-2.0,-2.0,2.0,-2.0,-2.0,2.0,2.0,-2.0,-2.0,2.0,-2.0,2.0,-2.0,-2.0,2.0,-2.0,-2.0
2025-06-05 14:13:35.847,-0.02075696,-0.04005927,0.015604151,0.06444051,0.023474863,0.045079146,0.0,0.0,0.0,0.0116810845,0.0072897556,0.46216637,-0.19917643,-0.0030508956,0.45908204,-0.14855857,0.035623167,-0.47803015,-0.14057694,0.16642056,-0.4569071,-0.17566551,-0.07008124,-0.0021375944,-0.010081135,0.017319161,-0.074372135,-0.004886586,-0.008744221,-0.042528264,-0.047733467,-0.05380396,-0.067763634,-0.01595001,2.0,2.0,-2.0,-2.0,2.0,-2.0,2.0,-2.0,-2.0,2.0,-2.0,-2.0,2.0,2.0,-2.0,-2.0,2.0,-2.0,2.0,-2.0,-2.0,2.0,-2.0,-2.0
