openverse-orca/OrcaGym/log/simulation_log_20250606_140916.csv
timestamp,imu_angle_roll,imu_angle_pitch,imu_angle_yaw,imu_angular_velocity_roll,imu_angular_velocity_pitch,imu_angular_velocity_yaw,imu_acc_x,imu_acc_y,imu_acc_z,fl_joint1_pos,fl_joint1_vel,fl_joint1_torque,fl_joint2_pos,fl_joint2_vel,fl_joint2_torque,fl_joint3_pos,fl_joint3_vel,fl_joint3_torque,fr_joint1_pos,fr_joint1_vel,fr_joint1_torque,fr_joint2_pos,fr_joint2_vel,fr_joint2_torque,fr_joint3_pos,fr_joint3_vel,fr_joint3_torque,hl_joint1_pos,hl_joint1_vel,hl_joint1_torque,hl_joint2_pos,hl_joint2_vel,hl_joint2_torque,hl_joint3_pos,hl_joint3_vel,hl_joint3_torque,hr_joint1_pos,hr_joint1_vel,hr_joint1_torque,hr_joint2_pos,hr_joint2_vel,hr_joint2_torque,hr_joint3_pos,hr_joint3_vel,hr_joint3_torque,fl_force_x,fl_force_y,fl_force_z,fr_force_x,fr_force_y,fr_force_z,hl_force_x,hl_force_y,hl_force_z,hr_force_x,hr_force_y,hr_force_z,fl_hip_action,fl_thigh_action,fl_calf_action,fr_hip_action,fr_thigh_action,fr_calf_action,hl_hip_action,hl_thigh_action,hl_calf_action,hr_hip_action,hr_thigh_action,hr_calf_action
2025-06-06 14:09:16.790,-0.00055026636,-0.03193746,-0.025783988,0.020862179,0.024447259,0.044025756,1.1044,1.3415778,0.0,0.0,0.00090746087,-0.0077490467,0.007540781,0.007893368,0.0056118187,-0.0031004066,0.0019145223,-0.0016805803,-0.0013208945,-0.0064462386,0.004642627,0.00046393092,-0.023468826,0.018692175,0.04761223,-0.046461422,0.0036108496,-0.026340904,-0.018567026,-0.024787761,-0.019943895,0.01974327,-0.03516785,-0.068532474,0.0,0.0,0.0,0.0,0.0,0.0,0.0,0.0,0.0,0.0,0.0,0.0,-3.0,3.0,3.0,-3.0,3.0,-3.0,3.0,-3.0,-3.0,-3.0,-3.0,3.0
2025-06-06 14:09:16.794,0.058079734,0.15896387,-0.028908933,0.027737597,-0.03874543,-0.01308263,0.0,0.0,0.0,0.0,-0.02525451,0.09932407,0.058181413,-0.014506793,0.11560856,-0.08791763,0.019346602,-0.097044736,-0.06615277,-0.037177954,-0.120525844,0.09067619,-0.072874784,0.41800207,0.14928085,-0.11291057,0.3732135,-0.18870541,0.10669114,-0.29089895,-0.18384014,-0.08432514,-0.38745174,0.2699357,-3.0,3.0,3.0,-3.0,3.0,-3.0,3.0,-3.0,-3.0,-3.0,-3.0,3.0,-3.0,3.0,3.0,-3.0,3.0,-3.0,3.0,-3.0,-3.0,-3.0,-3.0,3.0
2025-06-06 14:09:16.814,0.08626665,0.25876883,-0.114188,0.05369942,0.03742256,-0.025030157,0.0,0.0,0.0,0.00019904088,-0.057961136,0.24830261,0.14697824,-0.042156372,0.1727295,-0.13343933,0.032851215,-0.23976736,-0.08976374,-0.081564076,-0.26137957,0.16926974,-0.028430851,0.3695363,0.2342993,-0.0151559785,0.12602802,0.014309515,-0.002473102,-0.3127502,0.08244467,-0.11282374,-0.36713067,0.22940628,-3.0,3.0,3.0,-3.0,3.0,-3.0,3.0,-3.0,-3.0,-3.0,-3.0,3.0,-3.0,3.0,3.0,3.0,3.0,-3.0,3.0,-3.0,-3.0,-3.0,-3.0,3.0
2025-06-06 14:09:16.836,-0.05548597,0.09171179,-0.15615307,0.008003598,-0.044921324,0.0261958,0.0,0.0,0.0,0.0017592884,-0.07552678,0.37719855,0.1964719,-0.029898997,0.197166,-0.1252683,0.050115693,-0.31544808,-0.069672264,-0.09142652,-0.38041255,0.20611943,0.011644494,0.24219677,0.17594655,0.03041006,0.10993266,0.009388108,-0.011994239,-0.2513293,-0.0047399453,-0.08837815,-0.32270506,0.15867472,-3.0,3.0,3.0,3.0,3.0,-3.0,3.0,-3.0,-3.0,-3.0,-3.0,3.0,-3.0,3.0,-3.0,3.0,3.0,-3.0,-3.0,-3.0,-3.0,-3.0,-3.0,3.0
2025-06-06 14:09:16.854,0.069497004,0.26184395,-0.08736317,0.024824824,0.005142469,-0.016541842,0.0,0.0,0.0,0.0046855286,-0.09405332,0.46784982,0.09886132,-0.02788164,0.21612982,-0.12496008,0.046399478,-0.3826019,-0.0708136,-0.111448765,-0.4555073,0.25603327,-0.027354429,0.18549383,-0.3010791,-0.002906839,0.001111218,-0.06381753,0.038122598,-0.080569945,0.007705683,-0.04066802,-0.13205007,0.12674306,-3.0,3.0,-3.0,3.0,3.0,-3.0,-3.0,-3.0,-3.0,-3.0,-3.0,3.0,-3.0,3.0,-3.0,3.0,3.0,-3.0,-3.0,-3.0,-3.0,-3.0,-3.0,-3.0
2025-06-06 14:09:16.874,0.10058586,0.2566402,-0.0002462084,0.03921505,0.022324026,0.017823063,0.0,0.0,0.0,0.0073172688,-0.1003252,0.524221,-0.046305038,-0.026519477,0.22898063,-0.14733808,0.02027971,-0.41302848,-0.055516407,-0.130342,-0.49376398,0.1148087,-0.081666715,0.17354907,-0.2694634,-0.03004342,0.07911497,-0.09795003,-0.004093964,-0.052396916,-0.01671725,-0.011679054,-0.12153588,-0.46679327,-3.0,3.0,-3.0,3.0,3.0,-3.0,-3.0,-3.0,-3.0,-3.0,-3.0,-3.0,-3.0,3.0,-3.0,3.0,3.0,-3.0,-3.0,-3.0,-3.0,-3.0,-3.0,-3.0
2025-06-06 14:09:16.894,0.14089338,0.19070362,0.04741112,0.13833623,-0.063743636,0.041842118,0.0,0.0,0.0,0.008569505,-0.10628611,0.56221104,-0.14964293,-0.019779282,0.25637102,-0.16186804,0.01858705,-0.44900966,-0.016958488,-0.13535479,-0.51821375,-0.03395487,0.020700105,0.11546572,-0.22712378,-0.0047398317,0.09758796,-0.1128975,0.016772985,0.0017222988,0.022300063,-0.009460994,-0.060482226,-0.3121435,-3.0,3.0,-3.0,3.0,3.0,-3.0,-3.0,-3.0,-3.0,-3.0,-3.0,-3.0,-3.0,3.0,-3.0,3.0,3.0,-3.0,-3.0,-3.0,-3.0,-3.0,-3.0,-3.0
2025-06-06 14:09:16.915,0.117793135,0.061513443,0.051650565,0.088731475,-0.034852713,0.011776544,0.0,0.0,0.0,0.008623841,-0.090669766,0.5743663,-0.20291823,-0.011208578,0.29036114,-0.16921681,-0.0017386607,-0.4516721,-0.0169455,-0.14490907,-0.53995097,-0.14438099,0.021584569,0.0017948303,-0.14547461,0.020197168,0.13331465,-0.026301883,-0.107511535,-0.005203677,0.06585724,0.009362012,-0.072970115,-0.20530543,-3.0,3.0,-3.0,3.0,3.0,-3.0,-3.0,-3.0,-3.0,-3.0,-3.0,-3.0,-3.0,3.0,-3.0,3.0,3.0,-3.0,-3.0,-3.0,-3.0,-3.0,-3.0,-3.0
2025-06-06 14:09:16.935,0.007831191,0.056849226,0.08549206,0.10638288,-0.06952908,-0.024929218,0.0,0.0,0.0,0.0078521855,-0.09937201,0.5738919,-0.21153265,0.0115952715,0.3104798,-0.18205248,-0.023425188,-0.46826538,0.008591562,-0.15307012,-0.5449442,-0.21372662,0.041108686,-0.022737028,0.019666508,-0.011956999,0.09811904,-0.042974103,0.0011016114,0.039951604,0.0193336,0.07128609,-0.09374593,-0.17942473,-3.0,3.0,-3.0,3.0,3.0,-3.0,-3.0,-3.0,-3.0,-3.0,-3.0,-3.0,-3.0,3.0,-3.0,3.0,3.0,-3.0,-3.0,-3.0,-3.0,-3.0,-3.0,-3.0
2025-06-06 14:09:16.955,-0.043197952,0.05124289,-0.014623665,0.11588132,-0.008282065,0.040255323,0.0,0.0,0.0,0.0068591083,-0.09292438,0.5800418,-0.17950907,0.037226487,0.3644707,-0.20244244,-0.019142594,-0.47456375,0.017099004,-0.15076725,-0.5496554,-0.25283703,0.042296186,0.074707784,0.0707596,0.009597265,0.11334021,-0.015243875,0.015575853,-0.018293982,0.088099666,-0.034690835,-0.07223993,-0.02042001,-3.0,3.0,-3.0,3.0,3.0,-3.0,-3.0,-3.0,-3.0,-3.0,-3.0,-3.0,-3.0,3.0,-3.0,3.0,3.0,-3.0,-3.0,-3.0,-3.0,-3.0,-3.0,-3.0
2025-06-06 14:09:16.976,-0.020408532,-0.067355335,-0.013760025,0.11908314,-0.034820493,0.020569634,0.0,0.0,0.0,0.0060933013,-0.078501135,0.59729886,-0.16964827,0.06505262,0.41802222,-0.24854161,-0.02543989,-0.4938335,0.019538432,-0.13324207,-0.55770683,-0.2797867,0.061236963,-0.02552307,0.062169794,0.12972146,0.174154,-0.14378506,-0.023626612,-0.016357059,-0.030500287,-0.042167313,0.01948172,-0.11726613,-3.0,3.0,-3.0,3.0,3.0,-3.0,-3.0,-3.0,-3.0,-3.0,-3.0,-3.0,-3.0,3.0,-3.0,3.0,3.0,-3.0,-3.0,-3.0,-3.0,-3.0,-3.0,-3.0
2025-06-06 14:09:16.995,-0.07360605,-0.069034025,-0.041196264,0.13820948,-0.02561611,0.028667778,0.0,0.0,0.0,0.0057223504,-0.070464805,0.6001146,-0.16745433,0.08368992,0.46516892,-0.2563859,-0.03514733,-0.4859089,0.016272003,-0.14715025,-0.57530314,-0.29254726,0.05146048,0.0147895,0.068893276,0.04596528,0.15770316,0.014588889,0.06135915,-0.05446869,0.012686428,0.0770139,-0.035772372,-0.10661805,-3.0,3.0,-3.0,3.0,3.0,-3.0,-3.0,-3.0,-3.0,-3.0,-3.0,-3.0,-3.0,3.0,-3.0,3.0,3.0,-3.0,-3.0,-3.0,-3.0,-3.0,-3.0,-3.0
2025-06-06 14:09:17.015,-0.08950912,-0.06735136,0.027543444,0.14969724,-0.020260701,-0.010246238,0.0,0.0,0.0,0.0056491145,-0.07695989,0.61133456,-0.1683071,0.08824894,0.50261706,-0.25927803,-0.0342664,-0.5120888,0.03616434,-0.14996251,-0.57510895,-0.29629117,0.06668101,-0.009679312,0.06250894,0.077609636,0.01887477,0.06365018,-0.056592777,0.041913036,0.07705774,-0.052935682,-0.031591516,0.0254692,-3.0,3.0,-3.0,3.0,3.0,-3.0,-3.0,-3.0,-3.0,-3.0,-3.0,-3.0,-3.0,3.0,-3.0,3.0,3.0,-3.0,-3.0,-3.0,-3.0,-3.0,-3.0,-3.0
2025-06-06 14:09:17.036,-0.11271028,-0.11156064,-0.031099776,0.071685076,-0.058185887,-0.006638243,0.0,0.0,0.0,0.005795449,-0.07460414,0.61184025,-0.17765595,0.10714107,0.5028649,-0.25421965,-0.05636075,-0.51367664,0.022288598,-0.13901474,-0.55990994,-0.30323994,-0.046315886,0.0022045698,-0.002846906,0.0009295716,0.06722307,0.07844683,0.029451083,-0.03966453,0.049922936,0.020651683,-0.04288245,-0.08412551,-3.0,3.0,-3.0,3.0,3.0,-3.0,-3.0,-3.0,-3.0,-3.0,-3.0,-3.0,-3.0,3.0,-3.0,3.0,3.0,-3.0,-3.0,-3.0,-3.0,-3.0,-3.0,-3.0
2025-06-06 14:09:17.056,-0.14374661,-0.06380068,-0.052024093,0.13916546,-0.0364495,0.029795377,0.0,0.0,0.0,0.0061401557,-0.08208036,0.6141289,-0.17357136,0.11534694,0.51649046,-0.23991941,-0.06097297,-0.5313459,0.022327166,-0.13743784,-0.5861955,-0.29568344,-0.058490716,0.07574745,-0.0153307095,0.0118542155,-0.020182533,0.07057869,-0.0049640243,-0.06438375,-0.08068387,-0.06760576,-0.028254261,0.05608902,-3.0,3.0,-3.0,3.0,3.0,-3.0,-3.0,-3.0,-3.0,-3.0,-3.0,-3.0,-3.0,3.0,-3.0,3.0,3.0,-3.0,-3.0,-3.0,-3.0,-3.0,-3.0,-3.0
2025-06-06 14:09:17.076,-0.08977705,-0.062916405,-0.068571396,0.11549238,-0.0030097724,-0.0322663,0.0,0.0,0.0,0.0067143817,-0.08860395,0.63117373,-0.17090254,0.12418766,0.5083661,-0.23704118,-0.07525425,-0.51301014,0.018219803,-0.14758368,-0.59719574,-0.2825576,0.048136327,0.04610491,0.06217355,-0.03890844,-0.06492179,0.108777046,-0.09071608,0.04056107,-0.0008521198,0.06900641,-0.06879014,0.054865267,-3.0,3.0,-3.0,3.0,3.0,-3.0,-3.0,-3.0,-3.0,-3.0,-3.0,-3.0,-3.0,3.0,-3.0,3.0,3.0,-3.0,-3.0,-3.0,-3.0,-3.0,-3.0,-3.0
2025-06-06 14:09:17.096,-0.010257703,-0.07887904,-0.027885595,0.116925284,0.026011912,0.018549431,0.0,0.0,0.0,0.007643007,-0.099165946,0.62083364,-0.18809165,0.12205738,0.511438,-0.20302553,-0.090751424,-0.52740306,-0.014636277,-0.14099935,-0.6013857,-0.26041704,0.00036413845,-0.027269833,0.05473556,-0.02620593,0.0037722713,0.051091254,0.040482186,0.0592949,0.021526419,0.030525062,0.027005065,0.05723316,-3.0,3.0,-3.0,3.0,3.0,-3.0,-3.0,-3.0,-3.0,-3.0,-3.0,-3.0,-3.0,3.0,-3.0,3.0,3.0,-3.0,-3.0,-3.0,-3.0,-3.0,-3.0,-3.0
2025-06-06 14:09:17.119,-0.11466072,-0.06374944,-0.021756265,0.093324535,0.01323826,0.037631743,0.0,0.0,0.0,0.00884612,-0.10922002,0.6205464,-0.19052364,0.1250464,0.5294754,-0.18576692,-0.09420304,-0.517938,-0.019702347,-0.14469919,-0.6043258,-0.26086992,-0.04752748,0.063598916,-0.05378573,0.0078820605,0.029933548,0.09164795,0.036052838,0.003761098,-0.016274594,0.026149305,0.022498941,0.041253854,-3.0,3.0,-3.0,3.0,3.0,-3.0,-3.0,-3.0,-3.0,-3.0,-3.0,-3.0,-3.0,3.0,-3.0,3.0,3.0,-3.0,-3.0,-3.0,-3.0,-3.0,-3.0,-3.0
2025-06-06 14:09:17.139,-0.035949882,-0.08113568,-0.06255995,0.029049957,0.037105117,0.0056677535,0.0,0.0,0.0,0.010181049,-0.12139451,0.61194193,-0.19892886,0.11054663,0.52223605,-0.17389084,-0.10213423,-0.5214393,-0.04777708,-0.14322671,-0.6155532,-0.25031808,-0.08280405,-0.016671728,0.0035499795,0.06069592,-0.035271417,-0.038995143,-0.05498705,-0.060456704,-0.015637487,0.00073498103,0.006925953,0.057933636,-3.0,3.0,-3.0,3.0,3.0,-3.0,-3.0,-3.0,-3.0,-3.0,-3.0,-3.0,-3.0,3.0,-3.0,3.0,3.0,-3.0,-3.0,-3.0,-3.0,-3.0,-3.0,-3.0
2025-06-06 14:09:17.159,-0.11592893,-0.06436676,-0.06840325,0.08376062,-0.01640742,-0.03376237,0.0,0.0,0.0,0.011566792,-0.13346298,0.615674,-0.19746868,0.107775636,0.5278148,-0.17781393,-0.11750877,-0.52908474,-0.09007804,-0.1266932,-0.62812,-0.24060224,-0.053789485,-0.001850798,-0.090288796,0.005725441,-0.03154532,0.061440255,-0.07999767,-0.07302531,-0.020772621,-0.020217167,-0.08195542,-0.0072775627,-3.0,3.0,-3.0,3.0,3.0,-3.0,-3.0,-3.0,-3.0,-3.0,-3.0,-3.0,-3.0,3.0,-3.0,3.0,3.0,-3.0,-3.0,-3.0,-3.0,-3.0,-3.0,-3.0
2025-06-06 14:09:17.179,-0.056564983,-0.04547397,-0.033803828,0.073658586,0.015988283,-0.016363878,0.0,0.0,0.0,0.012982185,-0.13220417,0.60715693,-0.20270658,0.10851968,0.5274138,-0.15849765,-0.11752796,-0.5206687,-0.124623306,-0.12765819,-0.63141537,-0.2423251,-0.05642661,0.02203744,0.045262568,-0.054192208,-0.06329623,0.08566551,-0.047869038,-0.07075407,-0.075882435,-0.04964119,0.038197506,-0.013397978,-3.0,3.0,-3.0,3.0,3.0,-3.0,-3.0,-3.0,-3.0,-3.0,-3.0,-3.0,-3.0,3.0,-3.0,3.0,3.0,-3.0,-3.0,-3.0,-3.0,-3.0,-3.0,-3.0
2025-06-06 14:09:17.202,-0.05651722,-0.041044507,-0.07144846,0.09790255,0.028757464,0.010536717,0.0,0.0,0.0,0.014258727,-0.13708057,0.59669524,-0.21517366,0.11152638,0.5298109,-0.16581842,-0.12038581,-0.5282851,-0.15981998,-0.12817566,-0.6362248,-0.23044619,-0.053155992,-0.01030778,-0.038333457,-0.025456341,0.005985591,-0.00038717856,0.0063302726,-0.052140977,-0.08706897,-0.009726784,-0.05210545,0.08204159,-3.0,3.0,-3.0,3.0,3.0,-3.0,-3.0,-3.0,-3.0,-3.0,-3.0,-3.0,-3.0,3.0,-3.0,3.0,3.0,-3.0,-3.0,-3.0,-3.0,-3.0,-3.0,-3.0
2025-06-06 14:09:17.219,0.0050504953,0.039956547,-0.014667575,0.033803105,0.035933603,-0.021533793,0.0,0.0,0.0,0.0153752575,-0.1422047,0.5836465,-0.2113919,0.112006895,0.5341476,-0.15823524,-0.12742083,-0.5334009,-0.19421361,-0.13299844,-0.6458754,-0.23233639,-0.018590324,0.022223774,0.04664849,-0.045178648,-0.056529336,-0.010404159,0.04593356,0.010983946,-0.08834405,0.0052965917,-0.060735613,0.08036135,-3.0,3.0,-3.0,3.0,3.0,-3.0,-3.0,-3.0,-3.0,-3.0,-3.0,-3.0,-3.0,3.0,-3.0,3.0,3.0,-3.0,-3.0,-3.0,-3.0,-3.0,-3.0,-3.0
2025-06-06 14:09:17.239,0.02085545,-0.039205227,0.015244825,0.09005398,0.061329946,0.008653097,0.0,0.0,0.0,0.016242359,-0.16034147,0.5800244,-0.21048525,0.10883569,0.5566472,-0.15340795,-0.11700153,-0.545157,-0.21560194,-0.12417258,-0.65195876,-0.22116382,0.031044677,-0.015995935,0.03731152,-0.044012517,-0.02238518,-0.044829357,-0.05073651,0.058616515,-0.057726912,-0.023070276,-0.018403266,0.07358659,-3.0,3.0,-3.0,3.0,3.0,-3.0,-3.0,-3.0,-3.0,-3.0,-3.0,-3.0,-3.0,3.0,-3.0,3.0,3.0,-3.0,-3.0,-3.0,-3.0,-3.0,-3.0,-3.0
2025-06-06 14:09:17.259,0.04736446,0.009839047,-0.030887064,0.09171505,0.042374603,-0.036480486,0.0,0.0,0.0,0.016918395,-0.16684808,0.5942827,-0.20188269,0.119062506,0.5479103,-0.15442441,-0.13479702,-0.54656994,-0.21216244,-0.13183607,-0.6511902,-0.21769258,-0.028505208,-0.05169886,0.010461867,0.047380626,0.0629219,-0.042305008,0.063202895,-0.07344898,-0.075636216,-0.057567123,-0.06781875,-0.011176565,-3.0,3.0,-3.0,3.0,3.0,-3.0,-3.0,-3.0,-3.0,-3.0,-3.0,-3.0,-3.0,3.0,-3.0,3.0,3.0,-3.0,-3.0,-3.0,-3.0,-3.0,-3.0,-3.0
2025-06-06 14:09:17.279,0.05939857,-0.015399134,-0.034792915,0.09546134,0.032381367,0.027592681,0.0,0.0,0.0,0.017415771,-0.16820987,0.58267105,-0.1907384,0.112715,0.5645022,-0.16229087,-0.12910895,-0.5495018,-0.22572497,-0.1294442,-0.6693228,-0.22104047,0.04184723,-0.0016459519,0.06678116,0.043286722,0.019360708,0.0030774474,0.0021697304,-0.04561462,-0.020467611,0.041077193,0.045066923,0.062438834,-3.0,3.0,-3.0,3.0,3.0,-3.0,-3.0,-3.0,-3.0,-3.0,-3.0,-3.0,-3.0,3.0,-3.0,3.0,3.0,-3.0,-3.0,-3.0,-3.0,-3.0,-3.0,-3.0
2025-06-06 14:09:17.302,-0.022564914,0.03862551,0.00675833,0.00699275,0.017099498,-0.014206543,0.0,0.0,0.0,0.017771613,-0.16980438,0.5813541,-0.18214047,0.12295064,0.5667717,-0.1520928,-0.12642995,-0.5529657,-0.23564377,-0.12056847,-0.67265964,-0.21613686,-0.0050306865,0.0662963,0.0791615,0.051462434,-0.025688397,0.060726065,-0.04928118,0.0056035793,-0.05735947,0.017324168,0.0604703,-0.0018347243,-3.0,3.0,-3.0,3.0,3.0,-3.0,-3.0,-3.0,-3.0,-3.0,-3.0,-3.0,-3.0,3.0,-3.0,3.0,3.0,-3.0,-3.0,-3.0,-3.0,-3.0,-3.0,-3.0
2025-06-06 14:09:17.319,0.021189453,0.02779543,0.035710845,0.045805387,-0.009973358,-0.0021664654,0.0,0.0,0.0,0.017998949,-0.17111425,0.57410926,-0.18563144,0.1363435,0.5687351,-0.17179139,-0.13409784,-0.5681048,-0.23768152,-0.11156446,-0.6589326,-0.20290595,-0.07048064,0.02193659,0.0403304,0.0771391,0.04744918,0.018680638,-0.048314173,0.032356746,0.035786442,0.042668935,-0.015773501,0.03963947,-3.0,3.0,-3.0,3.0,3.0,-3.0,-3.0,-3.0,-3.0,-3.0,-3.0,-3.0,-3.0,3.0,-3.0,3.0,3.0,-3.0,-3.0,-3.0,-3.0,-3.0,-3.0,-3.0
2025-06-06 14:09:17.340,0.05169738,-0.036365267,0.025836172,0.051199123,0.013633478,0.048859652,0.0,0.0,0.0,0.018095622,-0.16790418,0.5749387,-0.17150475,0.14089146,0.5863367,-0.17268226,-0.14104824,-0.5618779,-0.23243776,-0.11662326,-0.6610539,-0.21430579,-0.026610242,-0.0576373,-0.009822102,-0.014060707,-0.02421394,-0.00826283,0.056851946,-0.040661268,0.059723668,0.027786044,-0.060056478,0.055128187,-3.0,3.0,-3.0,3.0,3.0,-3.0,-3.0,-3.0,-3.0,-3.0,-3.0,-3.0,-3.0,3.0,-3.0,3.0,3.0,-3.0,-3.0,-3.0,-3.0,-3.0,-3.0,-3.0
2025-06-06 14:09:17.359,0.019483872,0.006218408,-0.028541941,0.054804966,-0.0049746535,-0.006016551,0.0,0.0,0.0,0.018092655,-0.16140535,0.5746261,-0.17437723,0.14377455,0.5972672,-0.1677204,-0.13883172,-0.5756208,-0.22214867,-0.122957066,-0.6653919,-0.21402365,0.020206975,-0.046769723,-0.032900386,0.01374338,0.049622223,-0.025651893,-0.0063236654,-0.055739935,4.2214735e-05,-0.0653769,0.023850253,0.031765174,-3.0,3.0,-3.0,3.0,3.0,-3.0,-3.0,-3.0,-3.0,-3.0,-3.0,-3.0,-3.0,3.0,-3.0,3.0,3.0,-3.0,-3.0,-3.0,-3.0,-3.0,-3.0,-3.0
2025-06-06 14:09:17.380,0.012266622,-0.019266894,-0.025378851,0.04560941,0.073802054,0.010505663,0.0,0.0,0.0,0.018024456,-0.16659471,0.5836563,-0.17153275,0.14408204,0.59104913,-0.18422142,-0.13598579,-0.5741862,-0.22880685,-0.10270386,-0.6653777,-0.21212228,0.0005989511,-0.060532644,0.05156296,0.061513398,0.017137812,0.050444737,-0.008150686,-0.0661659,-0.047962602,0.067040995,0.015116961,0.005035939,-3.0,3.0,-3.0,3.0,3.0,-3.0,-3.0,-3.0,-3.0,-3.0,-3.0,-3.0,-3.0,3.0,-3.0,3.0,3.0,-3.0,-3.0,-3.0,-3.0,-3.0,-3.0,-3.0
2025-06-06 14:09:17.402,-0.020101182,0.01404759,0.01666242,0.06037155,0.0026579283,0.012558527,0.0,0.0,0.0,0.017916333,-0.16223633,0.5902775,-0.15466605,0.15415509,0.59480375,-0.17768677,-0.14437704,-0.58078957,-0.2332045,-0.1017121,-0.66465074,-0.2186387,0.021533366,0.064806946,0.026729302,0.06461095,-0.02013331,0.04794376,0.027068809,0.014237962,0.06963387,-0.060663257,0.06553064,-0.074508086,-3.0,3.0,-3.0,3.0,3.0,-3.0,-3.0,-3.0,-3.0,-3.0,-3.0,-3.0,-3.0,3.0,-3.0,3.0,3.0,-3.0,-3.0,-3.0,-3.0,-3.0,-3.0,-3.0
2025-06-06 14:09:17.420,0.048559375,0.01638292,0.05370008,0.058859035,0.044000205,-0.048191264,0.0,0.0,0.0,0.017779985,-0.16224991,0.57937706,-0.1522785,0.15010278,0.5893131,-0.18958575,-0.13234206,-0.5746877,-0.23729227,-0.11725237,-0.66969424,-0.20673218,0.062238365,0.03852563,-0.03336041,-0.00542455,0.010560925,-0.00047357113,0.046083096,-0.0221526,0.059988707,0.024558969,-0.0055311667,-0.03720996,-3.0,3.0,-3.0,3.0,3.0,-3.0,-3.0,-3.0,-3.0,-3.0,-3.0,-3.0,-3.0,3.0,-3.0,3.0,3.0,-3.0,-3.0,-3.0,-3.0,-3.0,-3.0,-3.0
2025-06-06 14:09:17.440,0.025952442,0.013524984,0.021007564,0.0289376,-0.0014256211,0.0060807727,0.0,0.0,0.0,0.017625604,-0.17085996,0.59346527,-0.16371758,0.15140522,0.59426606,-0.18305023,-0.14059281,-0.56874526,-0.2291917,-0.112123124,-0.6581953,-0.21416043,-0.052235942,0.04775587,0.07045638,-0.020147119,0.06890378,-0.07521633,-0.07271917,-0.018871358,-0.03773765,-0.042661283,-0.04639032,0.004773489,-3.0,3.0,-3.0,3.0,3.0,-3.0,-3.0,-3.0,-3.0,-3.0,-3.0,-3.0,-3.0,3.0,-3.0,3.0,3.0,-3.0,-3.0,-3.0,-3.0,-3.0,-3.0,-3.0
2025-06-06 14:09:17.460,0.061375283,0.0034851956,0.0030010534,0.056869037,-0.009962391,0.03988787,0.0,0.0,0.0,0.017466007,-0.17407449,0.59831977,-0.14478636,0.14692453,0.590189,-0.17976971,-0.14290026,-0.57629853,-0.23044693,-0.10314153,-0.65551436,-0.22681129,0.029857978,0.0012211159,-0.062327106,0.033006575,0.033113256,0.061521564,0.045255437,0.010893664,0.00978333,0.066543564,0.032423552,-0.022161935,-3.0,3.0,-3.0,3.0,3.0,-3.0,-3.0,-3.0,-3.0,-3.0,-3.0,-3.0,-3.0,3.0,-3.0,3.0,3.0,-3.0,-3.0,-3.0,-3.0,-3.0,-3.0,-3.0
2025-06-06 14:09:17.480,-0.02576279,0.024858488,-0.023255091,0.064566106,-0.005112531,0.033021845,0.0,0.0,0.0,0.017312855,-0.17005254,0.5823716,-0.15885907,0.15793988,0.60127676,-0.18380424,-0.15174481,-0.587226,-0.23142676,-0.107185006,-0.6610234,-0.22163238,-0.018675972,-0.04282579,0.030007923,0.037199043,0.01208753,0.059371524,-0.07253945,0.055180017,-0.005338476,-0.0383405,0.0044477647,-0.07644645,-3.0,3.0,-3.0,3.0,3.0,-3.0,-3.0,-3.0,-3.0,-3.0,-3.0,-3.0,-3.0,3.0,-3.0,3.0,3.0,-3.0,-3.0,-3.0,-3.0,-3.0,-3.0,-3.0
2025-06-06 14:09:17.502,-0.0118863955,0.0067172367,-0.04027322,0.027356759,0.016954402,0.015895247,0.0,0.0,0.0,0.017172756,-0.1726491,0.5944132,-0.13852665,0.1550842,0.5919271,-0.19588572,-0.141354,-0.58221936,-0.23304102,-0.102981985,-0.66833705,-0.22147761,-0.06697718,-0.06756068,0.011117854,0.0037449752,0.0112671135,-0.04088003,0.047748,0.021557096,-0.056607477,-0.050295558,-0.025629189,0.048298836,-3.0,3.0,-3.0,3.0,3.0,-3.0,-3.0,-3.0,-3.0,-3.0,-3.0,-3.0,-3.0,3.0,-3.0,3.0,3.0,-3.0,-3.0,-3.0,-3.0,-3.0,-3.0,-3.0
2025-06-06 14:09:17.520,-0.009490793,0.04326012,-0.04302199,0.07119343,0.055103455,0.029974785,0.0,0.0,0.0,0.017050043,-0.17539996,0.58824193,-0.1449781,0.15751807,0.5975959,-0.18326494,-0.13694818,-0.5951248,-0.22968732,-0.0942601,-0.66621834,-0.2178981,-0.058971196,0.06222591,0.016940868,0.0045420662,-0.07512117,0.05880572,-0.03371065,-0.03494734,-0.07081766,0.013220627,-0.03319659,0.06329717,-3.0,3.0,-3.0,3.0,3.0,-3.0,-3.0,-3.0,-3.0,-3.0,-3.0,-3.0,-3.0,3.0,-3.0,3.0,3.0,-3.0,-3.0,-3.0,-3.0,-3.0,-3.0,-3.0
2025-06-06 14:09:17.540,0.05098067,-0.004164056,-0.017894449,0.02853137,0.011090844,-0.022644086,0.0,0.0,0.0,0.01694744,-0.17687853,0.5827538,-0.15014085,0.16712353,0.5943114,-0.19378746,-0.14996113,-0.5882852,-0.24254791,-0.101257,-0.66487104,-0.21848921,-0.013633009,-0.019202339,0.008705602,-0.014614997,0.0051318724,-0.05922665,-0.011708899,-0.032322943,0.030154195,-0.038939472,0.034648042,-0.052575216,-3.0,3.0,-3.0,3.0,3.0,-3.0,-3.0,-3.0,-3.0,-3.0,-3.0,-3.0,-3.0,3.0,-3.0,3.0,3.0,-3.0,-3.0,-3.0,-3.0,-3.0,-3.0,-3.0
2025-06-06 14:09:17.560,-0.026453001,0.057345882,0.014252066,0.02279073,0.05420365,-0.018889187,0.0,0.0,0.0,0.016866429,-0.174435,0.6012724,-0.14332534,0.17033708,0.59007484,-0.19964187,-0.1535348,-0.58699125,-0.23257338,-0.09317444,-0.655539,-0.23323548,-0.02085979,-0.073323466,0.044543844,0.07077124,-0.069351055,-0.057184406,0.016888447,0.02336658,0.062231906,-0.035214588,-0.028752323,-0.052076235,-3.0,3.0,-3.0,3.0,3.0,-3.0,-3.0,-3.0,-3.0,-3.0,-3.0,-3.0,-3.0,3.0,-3.0,3.0,3.0,-3.0,-3.0,-3.0,-3.0,-3.0,-3.0,-3.0
2025-06-06 14:09:17.581,0.01968862,0.050563052,0.014748191,0.07359149,0.039414424,-0.031458497,0.0,0.0,0.0,0.016807588,-0.16584457,0.60124457,-0.14069748,0.16457166,0.59553427,-0.20290479,-0.14795002,-0.5935558,-0.22518979,-0.10072933,-0.6572752,-0.22432046,0.012081705,-0.007866522,0.0072572296,0.028511925,0.04209052,0.050506666,0.031251393,-0.049779966,-0.002144155,0.0029409358,-0.03870325,0.05947718,-3.0,3.0,-3.0,3.0,3.0,-3.0,-3.0,-3.0,-3.0,-3.0,-3.0,-3.0,-3.0,3.0,-3.0,3.0,3.0,-3.0,-3.0,-3.0,-3.0,-3.0,-3.0,-3.0
2025-06-06 14:09:17.602,-0.003740178,0.057436984,-0.0068518803,0.048703436,0.053013947,-0.040989727,0.0,0.0,0.0,0.016770817,-0.18053961,0.5898611,-0.14319527,0.1703439,0.5983636,-0.1936128,-0.14164767,-0.5983187,-0.22935754,-0.08628594,-0.65236694,-0.21999803,-0.06468062,0.012053156,0.058121625,0.002287938,-0.04667525,7.110312e-05,0.040663335,0.059029892,-0.07506431,-0.07012664,-0.004591797,0.059946615,-3.0,3.0,-3.0,3.0,3.0,-3.0,-3.0,-3.0,-3.0,-3.0,-3.0,-3.0,-3.0,3.0,-3.0,3.0,3.0,-3.0,-3.0,-3.0,-3.0,-3.0,-3.0,-3.0
2025-06-06 14:09:17.620,0.030544246,-0.017014556,0.028660329,0.056459196,-0.0076057,0.021834603,0.0,0.0,0.0,0.016755471,-0.17758083,0.58924615,-0.13640834,0.1741047,0.60109216,-0.20314574,-0.1424273,-0.58945614,-0.23839903,-0.10138517,-0.65123814,-0.21874404,0.035894763,0.04830849,0.04498511,0.015580195,-0.07167909,0.052476443,-0.017812477,-0.028348789,0.015815895,0.017354185,0.07414898,-0.04153024,-3.0,3.0,-3.0,3.0,3.0,-3.0,-3.0,-3.0,-3.0,-3.0,-3.0,-3.0,-3.0,3.0,-3.0,3.0,3.0,-3.0,-3.0,-3.0,-3.0,-3.0,-3.0,-3.0
2025-06-06 14:09:17.641,-0.035648316,-0.027982198,0.023966113,0.036240473,-0.027988909,0.018057793,0.0,0.0,0.0,0.01676044,-0.17768729,0.60305536,-0.13180415,0.15570892,0.5878935,-0.18926992,-0.14764929,-0.5874826,-0.23742887,-0.08518621,-0.64809006,-0.22389935,-0.004422305,0.005896922,0.035797287,-0.014889273,-0.016330171,-0.05248361,0.021722585,-0.03666408,0.06045839,0.034265142,0.0143393455,-0.0026080662,-3.0,3.0,-3.0,3.0,3.0,-3.0,-3.0,-3.0,-3.0,-3.0,-3.0,-3.0,-3.0,3.0,-3.0,3.0,3.0,-3.0,-3.0,-3.0,-3.0,-3.0,-3.0,-3.0
2025-06-06 14:09:17.661,-0.022616923,0.04638762,-0.017880585,0.057424612,-0.034439526,-0.006517262,0.0,0.0,0.0,0.01678415,-0.1749842,0.5866576,-0.14707762,0.16325617,0.5883771,-0.19738144,-0.16037683,-0.59527576,-0.23745674,-0.092067614,-0.654393,-0.2193067,-0.057141688,0.008994841,-0.0034977633,-0.007753223,0.035919238,0.004733889,-0.0563019,0.052440003,-0.040981475,-0.06101623,-0.014930483,-0.065139435,-3.0,3.0,-3.0,3.0,3.0,-3.0,-3.0,-3.0,-3.0,-3.0,-3.0,-3.0,-3.0,3.0,-3.0,3.0,3.0,-3.0,-3.0,-3.0,-3.0,-3.0,-3.0,-3.0
2025-06-06 14:09:17.681,0.008012124,-0.0044261,-0.011080004,0.08070887,0.015685052,-0.0033019208,0.0,0.0,0.0,0.016822007,-0.18288687,0.58536416,-0.1393251,0.16487396,0.6016612,-0.19098043,-0.15781504,-0.5915546,-0.23067425,-0.09684752,-0.65312517,-0.21497512,-0.031444572,-0.06338834,-0.0018974936,0.051563997,-0.06232431,-0.061313245,-0.039861076,-0.020128855,0.0653549,0.05008273,0.0091715,0.010071566,-3.0,3.0,-3.0,3.0,3.0,-3.0,-3.0,-3.0,-3.0,-3.0,-3.0,-3.0,-3.0,3.0,-3.0,3.0,3.0,-3.0,-3.0,-3.0,-3.0,-3.0,-3.0,-3.0
2025-06-06 14:09:17.702,-0.028433397,-0.0019277366,0.028495535,0.07275032,-0.035789985,0.012920402,0.0,0.0,0.0,0.016866662,-0.17199737,0.5996187,-0.14086741,0.161056,0.60159314,-0.20102043,-0.14487831,-0.59766114,-0.23265336,-0.09229761,-0.6515359,-0.22016816,0.044415206,-0.047113847,0.07389808,0.034206927,-0.027194941,-0.030071884,0.061017368,-0.017917141,-0.015514049,0.01866125,0.060604613,0.0405439,-3.0,3.0,-3.0,3.0,3.0,-3.0,-3.0,-3.0,-3.0,-3.0,-3.0,-3.0,-3.0,3.0,-3.0,3.0,3.0,-3.0,-3.0,-3.0,-3.0,-3.0,-3.0,-3.0
2025-06-06 14:09:17.721,-0.041848097,-0.011767263,0.013918167,0.0430828,-0.025279228,0.022295527,0.0,0.0,0.0,0.016912227,-0.17867503,0.60077214,-0.13309745,0.1713415,0.5982374,-0.20394981,-0.1594809,-0.60361415,-0.24705246,-0.09290903,-0.6603988,-0.21897924,0.032335196,0.008992701,0.05872051,0.0041356315,0.014522102,-0.029913854,-0.024857981,-0.033028796,-0.041601337,0.05101882,0.055105012,-0.072444394,-3.0,3.0,-3.0,3.0,3.0,-3.0,-3.0,-3.0,-3.0,-3.0,-3.0,-3.0,-3.0,3.0,-3.0,3.0,3.0,-3.0,-3.0,-3.0,-3.0,-3.0,-3.0,-3.0
2025-06-06 14:09:17.741,-0.016896171,-0.021339078,-0.012661695,0.091534786,-0.010365372,0.011576845,0.0,0.0,0.0,0.01695606,-0.1815506,0.5999238,-0.13534442,0.16603874,0.59875,-0.19270022,-0.14479473,-0.5928251,-0.23761979,-0.081407085,-0.6652462,-0.22729447,0.003987915,-0.0023013875,-0.0498511,-0.025186578,0.06779936,-0.012223552,-0.027931899,-0.072588354,0.06912113,-0.05449781,0.007335015,-0.018427223,-3.0,3.0,-3.0,3.0,3.0,-3.0,-3.0,-3.0,-3.0,-3.0,-3.0,-3.0,-3.0,3.0,-3.0,3.0,3.0,-3.0,-3.0,-3.0,-3.0,-3.0,-3.0,-3.0
2025-06-06 14:09:17.761,-0.008647971,-0.034836337,0.042717766,0.09959102,0.009204914,-0.0005629112,0.0,0.0,0.0,0.016997136,-0.17211552,0.59923923,-0.13940252,0.17196417,0.59163606,-0.1944743,-0.15829588,-0.58830047,-0.24814743,-0.09401948,-0.6619963,-0.22614671,0.042641927,0.020194395,0.06745136,0.04444964,0.009187271,0.026963037,-0.002518383,0.055465892,-0.029417543,-0.026234552,-0.062362548,0.05621386,-3.0,3.0,-3.0,3.0,3.0,-3.0,-3.0,-3.0,-3.0,-3.0,-3.0,-3.0,-3.0,3.0,-3.0,3.0,3.0,-3.0,-3.0,-3.0,-3.0,-3.0,-3.0,-3.0
2025-06-06 14:09:17.781,0.026203727,0.007925772,0.01720255,0.07790178,-0.02073089,-0.03131562,0.0,0.0,0.0,0.01703514,-0.17835322,0.5989954,-0.13879329,0.16264506,0.59160674,-0.19730029,-0.15411752,-0.5955948,-0.24391486,-0.092346236,-0.6616048,-0.21900457,-0.00028256432,0.006561221,-0.07355357,-0.051205214,-0.0485147,-0.05183758,0.0072501986,0.030082097,0.04197328,0.053245112,-0.065874934,0.039367385,-3.0,3.0,-3.0,3.0,3.0,-3.0,-3.0,-3.0,-3.0,-3.0,-3.0,-3.0,-3.0,3.0,-3.0,3.0,3.0,-3.0,-3.0,-3.0,-3.0,-3.0,-3.0,-3.0
2025-06-06 14:09:17.802,0.027504507,0.009677153,0.011616608,0.02983295,0.04376649,0.021113774,0.0,0.0,0.0,0.017069958,-0.17405316,0.5910646,-0.13045336,0.17364655,0.6078692,-0.19929707,-0.16346715,-0.58903587,-0.24914955,-0.08529063,-0.6581731,-0.22566779,-0.0751463,-0.036817864,0.051798627,-0.05720588,0.062368464,0.033288214,0.020820353,-0.03560961,-0.041466013,-0.037449904,0.053306956,-0.011792729,-3.0,3.0,-3.0,3.0,3.0,-3.0,-3.0,-3.0,-3.0,-3.0,-3.0,-3.0,-3.0,3.0,-3.0,3.0,3.0,-3.0,-3.0,-3.0,-3.0,-3.0,-3.0,-3.0
2025-06-06 14:09:17.821,-0.002241974,0.004742116,0.035228014,0.059163526,0.0034632073,0.04694082,0.0,0.0,0.0,0.017101511,-0.16786993,0.5936081,-0.13913232,0.16924894,0.60815084,-0.18913628,-0.16167715,-0.5927211,-0.2364179,-0.08068406,-0.66274416,-0.22142911,0.051435772,-0.06452988,0.011971731,-0.05917263,-0.04313797,-0.003443102,-0.053152587,-0.03234623,-0.073170155,0.013825479,0.013226482,0.056800332,-3.0,3.0,-3.0,3.0,3.0,-3.0,-3.0,-3.0,-3.0,-3.0,-3.0,-3.0,-3.0,3.0,-3.0,3.0,3.0,-3.0,-3.0,-3.0,-3.0,-3.0,-3.0,-3.0
2025-06-06 14:09:17.841,-0.025751414,-0.050998617,0.018827597,0.0562975,-0.014836513,0.048532307,0.0,0.0,0.0,0.01713054,-0.18194225,0.5960115,-0.14662553,0.15663569,0.5895255,-0.19746575,-0.1539259,-0.5919392,-0.24854681,-0.09771501,-0.65266687,-0.21901344,0.053684473,-0.065635346,-0.038458608,-0.02101977,0.0013599901,0.0207958,0.0019708315,-0.06331184,0.040666714,0.005158354,-0.047196206,0.0036899722,-3.0,3.0,-3.0,3.0,3.0,-3.0,-3.0,-3.0,-3.0,-3.0,-3.0,-3.0,-3.0,3.0,-3.0,3.0,3.0,-3.0,-3.0,-3.0,-3.0,-3.0,-3.0,-3.0
2025-06-06 14:09:17.861,0.04089029,0.044084046,-0.03873816,0.060650606,0.024871325,-0.03707519,0.0,0.0,0.0,0.017157875,-0.18542038,0.6057765,-0.1317881,0.16568142,0.5890399,-0.19032785,-0.161733,-0.59634715,-0.24111521,-0.08097279,-0.6664458,-0.21562482,-0.011931377,0.046100453,0.06950717,-0.023635058,0.061127063,-0.030602893,0.058264796,0.037824117,-0.05747522,0.015752697,0.06623946,-0.033755444,-3.0,3.0,-3.0,3.0,3.0,-3.0,-3.0,-3.0,-3.0,-3.0,-3.0,-3.0,-3.0,3.0,-3.0,3.0,3.0,-3.0,-3.0,-3.0,-3.0,-3.0,-3.0,-3.0
2025-06-06 14:09:17.882,0.002717841,0.004375146,0.040179506,0.06180485,0.06050389,-0.03946661,0.0,0.0,0.0,0.017183606,-0.1847985,0.5929534,-0.15200743,0.16616733,0.60779345,-0.19099106,-0.16370644,-0.584673,-0.2346318,-0.09043483,-0.6513055,-0.22524062,0.008119932,0.07486166,-0.07376661,-0.026748754,-0.025365667,-0.038283903,-0.052040547,-0.024826331,0.011004212,-0.050954863,-0.021456925,0.067418076,-3.0,3.0,-3.0,3.0,3.0,-3.0,-3.0,-3.0,-3.0,-3.0,-3.0,-3.0,-3.0,3.0,-3.0,3.0,3.0,-3.0,-3.0,-3.0,-3.0,-3.0,-3.0,-3.0
2025-06-06 14:09:17.902,0.02381395,0.029495465,0.0080251265,0.028471325,-0.013879598,-0.027731916,0.0,0.0,0.0,0.017207395,-0.18488874,0.59338796,-0.1450693,0.15492608,0.5997143,-0.18824993,-0.15219253,-0.5843716,-0.24195717,-0.09011178,-0.66648465,-0.21023712,0.013525218,-0.019901896,0.06529306,0.06432529,0.056004755,-0.036056913,-0.032967385,0.042075973,0.026147315,-0.0070888232,-0.016040713,-0.017348701,-3.0,3.0,-3.0,3.0,3.0,-3.0,-3.0,-3.0,-3.0,-3.0,-3.0,-3.0,-3.0,3.0,-3.0,3.0,3.0,-3.0,-3.0,-3.0,-3.0,-3.0,-3.0,-3.0
2025-06-06 14:09:17.922,-0.0066020912,-0.0020844385,0.03659237,0.08682711,-0.01398869,-0.029108353,0.0,0.0,0.0,0.017228695,-0.17974977,0.5937395,-0.14334086,0.15966599,0.6052272,-0.20516089,-0.15215917,-0.5844911,-0.24482825,-0.08320247,-0.65275544,-0.21062548,0.067026645,0.012619335,0.033747185,-0.029476702,0.044054534,0.050631303,0.037906267,-0.018136617,0.025513332,0.06639179,-0.0150112435,-0.008759753,-3.0,3.0,-3.0,3.0,3.0,-3.0,-3.0,-3.0,-3.0,-3.0,-3.0,-3.0,-3.0,3.0,-3.0,3.0,3.0,-3.0,-3.0,-3.0,-3.0,-3.0,-3.0,-3.0
2025-06-06 14:09:17.942,-0.012969332,0.04037885,0.025690082,0.09325934,0.015642708,2.2885333e-06,0.0,0.0,0.0,0.01724692,-0.17445667,0.59953284,-0.135353,0.15465118,0.599514,-0.20144889,-0.16297442,-0.58439636,-0.24043895,-0.0998449,-0.65882605,-0.22169451,0.032050315,-0.015432132,0.065663435,0.023631457,0.055603866,-0.029841308,0.025287414,0.051788077,0.025634607,-0.07303189,0.036415193,0.011379356,-3.0,3.0,-3.0,3.0,3.0,-3.0,-3.0,-3.0,-3.0,-3.0,-3.0,-3.0,-3.0,3.0,-3.0,3.0,3.0,-3.0,-3.0,-3.0,-3.0,-3.0,-3.0,-3.0
2025-06-06 14:09:17.962,0.030299025,0.027973667,0.042248204,0.06094109,0.033766903,-0.032408826,0.0,0.0,0.0,0.017261604,-0.18154643,0.58839905,-0.14313346,0.1553198,0.590988,-0.19943067,-0.1483785,-0.5865602,-0.24942613,-0.08389659,-0.64944005,-0.21345754,0.008206544,0.04332648,-0.0046693636,0.020476952,-0.016408816,0.031345673,-0.044994693,-0.046526033,-0.017107803,0.03320423,-0.057755217,0.0010824422,-3.0,3.0,-3.0,3.0,3.0,-3.0,-3.0,-3.0,-3.0,-3.0,-3.0,-3.0,-3.0,3.0,-3.0,3.0,3.0,-3.0,-3.0,-3.0,-3.0,-3.0,-3.0,-3.0
2025-06-06 14:09:17.985,0.04561959,-0.013006031,-0.026034698,0.06311417,0.003906929,0.0055766036,0.0,0.0,0.0,0.017272474,-0.17701346,0.60296583,-0.1467538,0.16088198,0.59398454,-0.20129214,-0.1506463,-0.5832912,-0.24070972,-0.09771969,-0.6520596,-0.20988685,-0.06318664,0.001976451,-0.040863737,0.038333952,-0.04198079,0.056538254,0.025225978,0.007964192,-0.06473763,0.04550683,-0.040717613,0.034614198,-3.0,3.0,-3.0,3.0,3.0,-3.0,-3.0,-3.0,-3.0,-3.0,-3.0,-3.0,-3.0,3.0,-3.0,3.0,3.0,-3.0,-3.0,-3.0,-3.0,-3.0,-3.0,-3.0
2025-06-06 14:09:18.002,-0.044797063,0.033684026,0.0075407024,0.0696055,0.011917997,0.036623746,0.0,0.0,0.0,0.017279489,-0.16750169,0.600081,-0.14206634,0.16820699,0.60068125,-0.18852541,-0.14883454,-0.58509696,-0.252229,-0.08820816,-0.6659981,-0.21514705,0.005017619,-0.05182402,0.0093252435,-0.039047558,-0.069886744,-0.009848598,-0.026893532,0.059343703,0.060525473,0.03966872,0.044311125,0.024961328,-3.0,3.0,-3.0,3.0,3.0,-3.0,-3.0,-3.0,-3.0,-3.0,-3.0,-3.0,-3.0,3.0,-3.0,3.0,3.0,-3.0,-3.0,-3.0,-3.0,-3.0,-3.0,-3.0
2025-06-06 14:09:18.024,0.028651502,-0.035798315,0.045191813,0.08275752,0.062143557,0.029331077,0.0,0.0,0.0,0.017282832,-0.18597576,0.601821,-0.14054984,0.15936753,0.593538,-0.19285585,-0.16287692,-0.6008437,-0.24502677,-0.094015986,-0.65495896,-0.21208186,-0.05281176,-0.058148164,-0.056840308,-0.04960163,-0.067968845,0.009053991,0.023658756,-0.023181405,0.053973448,-0.0039388696,-0.041609373,0.018867312,-3.0,3.0,-3.0,3.0,3.0,-3.0,-3.0,-3.0,-3.0,-3.0,-3.0,-3.0,-3.0,3.0,-3.0,3.0,3.0,-3.0,-3.0,-3.0,-3.0,-3.0,-3.0,-3.0
2025-06-06 14:09:18.042,-0.037348766,-0.017196508,-0.014807353,0.014966551,0.056007005,-0.032980707,0.0,0.0,0.0,0.017282862,-0.17192456,0.5934063,-0.15269162,0.16872464,0.5946734,-0.19075473,-0.15594138,-0.58863616,-0.25225747,-0.09852104,-0.65924543,-0.21679321,0.00612027,-0.057754073,0.021419458,0.004549395,0.07293484,0.010113313,-0.035605058,-0.068171754,0.047656767,-0.056887034,0.05440909,0.04193115,-3.0,3.0,-3.0,3.0,3.0,-3.0,-3.0,-3.0,-3.0,-3.0,-3.0,-3.0,-3.0,3.0,-3.0,3.0,3.0,-3.0,-3.0,-3.0,-3.0,-3.0,-3.0,-3.0
2025-06-06 14:09:18.062,-0.009889883,-0.026692139,-0.013938151,0.045183133,0.0068709184,0.01948152,0.0,0.0,0.0,0.017280098,-0.17198277,0.59774685,-0.14398123,0.160322,0.60056317,-0.20278768,-0.16097884,-0.6015248,-0.23918284,-0.0898871,-0.6590482,-0.21764272,-0.013858054,-0.06465225,0.0632054,-0.010260499,0.0189628,-0.0028503854,-0.06981215,0.029261108,-0.013944179,-0.047252815,0.015368084,-0.0712811,-3.0,3.0,-3.0,3.0,3.0,-3.0,-3.0,-3.0,-3.0,-3.0,-3.0,-3.0,-3.0,3.0,-3.0,3.0,3.0,-3.0,-3.0,-3.0,-3.0,-3.0,-3.0,-3.0
2025-06-06 14:09:18.085,-0.0012057578,0.027470654,-0.038821544,0.1119272,-0.0058773705,-0.048244048,0.0,0.0,0.0,0.017275164,-0.17307095,0.60355824,-0.13871555,0.15997587,0.6021819,-0.20250684,-0.14863957,-0.5938718,-0.23671743,-0.081385866,-0.6601423,-0.21564777,0.040755883,0.06787162,-0.027856143,-0.016115252,0.0067318864,-0.07131248,0.011105202,-0.044626508,-0.051059682,-0.06736186,-0.062109575,-0.062192824,-3.0,3.0,-3.0,3.0,3.0,-3.0,-3.0,-3.0,-3.0,-3.0,-3.0,-3.0,-3.0,3.0,-3.0,3.0,3.0,-3.0,-3.0,-3.0,-3.0,-3.0,-3.0,-3.0
2025-06-06 14:09:18.102,0.026471917,-0.0023373931,0.018795893,0.057152204,0.059417654,0.028568195,0.0,0.0,0.0,0.017268674,-0.17199132,0.58975875,-0.14629948,0.15576129,0.5877551,-0.19930851,-0.14786308,-0.58905435,-0.24712317,-0.097054936,-0.66531044,-0.21769327,-0.010675627,0.056642663,0.07377786,-0.013363873,0.014529544,0.05739387,-0.003284627,0.008419441,-0.062864974,-0.052015267,0.026969837,-0.038368892,-3.0,3.0,-3.0,3.0,3.0,-3.0,-3.0,-3.0,-3.0,-3.0,-3.0,-3.0,-3.0,3.0,-3.0,3.0,3.0,-3.0,-3.0,-3.0,-3.0,-3.0,-3.0,-3.0
2025-06-06 14:09:18.123,-0.03796921,0.005409434,0.009192856,0.10606512,0.02111661,-0.014403805,0.0,0.0,0.0,0.01726124,-0.17711389,0.5985335,-0.14895381,0.15432446,0.5890664,-0.20331079,-0.15284573,-0.5851704,-0.2517693,-0.08760418,-0.66673505,-0.21888377,-0.01047489,0.07121587,-0.06370493,-0.016609978,0.042483866,-0.0011559199,-0.0700486,-0.029147228,-0.017479008,-0.058098473,0.0678295,-0.005812727,-3.0,3.0,-3.0,3.0,3.0,-3.0,-3.0,-3.0,-3.0,-3.0,-3.0,-3.0,-3.0,3.0,-3.0,3.0,3.0,-3.0,-3.0,-3.0,-3.0,-3.0,-3.0,-3.0
2025-06-06 14:09:18.143,0.02714176,-0.025342345,0.03378011,0.02824791,0.04484144,-0.03929125,0.0,0.0,0.0,0.017253434,-0.18599257,0.5892078,-0.15259294,0.1577164,0.5949997,-0.19094181,-0.15692337,-0.5943236,-0.24409288,-0.09885005,-0.655393,-0.2242493,-0.055671766,0.045116298,-0.026578492,0.06131063,0.06769276,0.028678348,0.05043131,0.014246885,-0.0018810234,0.05260755,-0.067667015,0.0054251095,-3.0,3.0,-3.0,3.0,3.0,-3.0,-3.0,-3.0,-3.0,-3.0,-3.0,-3.0,-3.0,3.0,-3.0,3.0,3.0,-3.0,-3.0,-3.0,-3.0,-3.0,-3.0,-3.0
2025-06-06 14:09:18.163,0.04326802,-0.046115696,-0.044507466,0.10285604,-0.025271075,-0.016545737,0.0,0.0,0.0,0.01724576,-0.17962408,0.597479,-0.13389172,0.16276158,0.6004448,-0.18736036,-0.15308166,-0.58662325,-0.23502143,-0.08278986,-0.66315544,-0.22098261,0.008528907,-0.045980893,-0.066322386,0.021294212,-0.069218814,-0.004182116,-0.03197617,0.07047816,0.049697366,-0.015675997,-0.06171786,0.05446643,-3.0,3.0,-3.0,3.0,3.0,-3.0,-3.0,-3.0,-3.0,-3.0,-3.0,-3.0,-3.0,3.0,-3.0,3.0,3.0,-3.0,-3.0,-3.0,-3.0,-3.0,-3.0,-3.0
2025-06-06 14:09:18.185,-0.010534249,-0.0049323193,-0.045668487,0.035603,0.018540801,0.03013072,0.0,0.0,0.0,0.017238602,-0.17022385,0.5995886,-0.14387992,0.17023607,0.5880078,-0.20435679,-0.14880745,-0.5883534,-0.24954215,-0.08174915,-0.6599286,-0.21833242,-0.008198245,0.06717718,-0.049466614,0.043145742,0.018695574,-0.01720751,0.017549122,-0.04576538,0.056473874,-0.0013108274,0.06658781,0.04760902,-3.0,3.0,-3.0,3.0,3.0,-3.0,-3.0,-3.0,-3.0,-3.0,-3.0,-3.0,-3.0,3.0,-3.0,3.0,3.0,-3.0,-3.0,-3.0,-3.0,-3.0,-3.0,-3.0
2025-06-06 14:09:18.204,-0.037389137,0.007280895,-0.0076278746,0.10677248,0.005106743,-0.032275856,0.0,0.0,0.0,0.017232269,-0.17827368,0.59400827,-0.14845747,0.16851453,0.5983702,-0.18936414,-0.15480648,-0.5937488,-0.24195519,-0.098883994,-0.6657614,-0.22695953,0.057179138,0.027285805,-0.069570914,0.028996583,0.041377656,0.026207905,-0.02304818,-0.04546295,-0.072261974,0.026937876,0.037662216,0.021520963,-3.0,3.0,-3.0,3.0,3.0,-3.0,-3.0,-3.0,-3.0,-3.0,-3.0,-3.0,-3.0,3.0,-3.0,3.0,3.0,-3.0,-3.0,-3.0,-3.0,-3.0,-3.0,-3.0
2025-06-06 14:09:18.224,0.045767657,-0.037734535,0.010854372,0.026842259,0.0016724484,0.014449414,0.0,0.0,0.0,0.017226966,-0.17604686,0.5940112,-0.13406755,0.15804113,0.6022863,-0.19344354,-0.1548086,-0.6033052,-0.23533562,-0.088778,-0.64999354,-0.20875037,-0.0067545776,-0.012492264,-0.018228484,0.049201235,0.0072736563,0.017974045,0.033186466,-0.012745432,-0.01285359,-0.014465122,0.036749583,-0.038133305,-3.0,3.0,-3.0,3.0,3.0,-3.0,-3.0,-3.0,-3.0,-3.0,-3.0,-3.0,-3.0,3.0,-3.0,3.0,3.0,-3.0,-3.0,-3.0,-3.0,-3.0,-3.0,-3.0
2025-06-06 14:09:18.244,-0.040099114,-0.015495967,0.005897967,0.09574114,-0.00731902,0.0024371294,0.0,0.0,0.0,0.017222803,-0.1665236,0.60338223,-0.14931995,0.17022263,0.59704494,-0.18926029,-0.1637638,-0.59074026,-0.2369344,-0.095203124,-0.6543341,-0.2189153,-0.024723943,0.013304991,0.009711659,-0.015937649,0.02626927,-0.05553983,-0.058077697,-0.00019173416,-0.043424617,-0.06769941,-0.06981749,-0.03339819,-3.0,3.0,-3.0,3.0,3.0,-3.0,-3.0,-3.0,-3.0,-3.0,-3.0,-3.0,-3.0,3.0,-3.0,3.0,3.0,-3.0,-3.0,-3.0,-3.0,-3.0,-3.0,-3.0
2025-06-06 14:09:18.264,-0.026811019,0.031930503,-0.00887262,0.09838196,0.023337638,0.019384608,0.0,0.0,0.0,0.01721983,-0.16725315,0.60407823,-0.13733165,0.17280751,0.5937129,-0.19009474,-0.15400563,-0.6033915,-0.24049328,-0.0812199,-0.6492322,-0.22108614,-0.036882408,-0.057982255,-0.027034748,-0.068499476,-0.011075562,-0.015577021,-0.049405772,0.026680205,-0.032893043,0.028990392,-0.023175014,0.010130572,-3.0,3.0,-3.0,3.0,3.0,-3.0,-3.0,-3.0,-3.0,-3.0,-3.0,-3.0,-3.0,3.0,-3.0,3.0,3.0,-3.0,-3.0,-3.0,-3.0,-3.0,-3.0,-3.0
2025-06-06 14:09:18.285,-0.02579075,-0.01748946,-0.0033475715,0.09374006,0.01317131,0.013756333,0.0,0.0,0.0,0.017218,-0.17901485,0.5895772,-0.13366048,0.16294533,0.6067583,-0.19705726,-0.14510873,-0.5896825,-0.23895344,-0.098868325,-0.66605866,-0.21026264,0.04143412,0.027162187,0.059156574,-0.012673816,0.06732254,0.02510822,0.055572763,0.021429617,-0.019244926,0.067743756,0.052273896,0.054074507,-3.0,3.0,-3.0,3.0,3.0,-3.0,-3.0,-3.0,-3.0,-3.0,-3.0,-3.0,-3.0,3.0,-3.0,3.0,3.0,-3.0,-3.0,-3.0,-3.0,-3.0,-3.0,-3.0
2025-06-06 14:09:18.304,0.006499536,-0.0021903857,-0.021518499,0.106299326,0.055344626,0.039531924,0.0,0.0,0.0,0.017217213,-0.18447696,0.59099275,-0.14923689,0.16455297,0.59819436,-0.2026825,-0.14834994,-0.5923134,-0.23873506,-0.088975795,-0.6509375,-0.21759208,-0.07012133,0.031234821,-0.03639503,0.041568764,-0.020729136,-0.028179318,-0.052815877,-0.01353686,0.061338224,0.0038777993,0.029213248,-0.048111323,-3.0,3.0,-3.0,3.0,3.0,-3.0,-3.0,-3.0,-3.0,-3.0,-3.0,-3.0,-3.0,3.0,-3.0,3.0,3.0,-3.0,-3.0,-3.0,-3.0,-3.0,-3.0,-3.0
2025-06-06 14:09:18.324,-0.031650886,-0.04626717,0.036840886,0.030191135,-0.0058732014,-0.047943268,0.0,0.0,0.0,0.017217321,-0.1777362,0.6043971,-0.14053117,0.17096132,0.60718614,-0.18790482,-0.15223649,-0.59845614,-0.23703232,-0.08842674,-0.6581756,-0.21122526,-0.020226689,-0.0027983144,0.028673643,-0.037991047,0.012057845,-0.02244907,0.05090247,0.05401731,-0.0026233776,0.015281649,-0.056983184,-0.036287367,-3.0,3.0,-3.0,3.0,3.0,-3.0,-3.0,-3.0,-3.0,-3.0,-3.0,-3.0,-3.0,3.0,-3.0,3.0,3.0,-3.0,-3.0,-3.0,-3.0,-3.0,-3.0,-3.0
2025-06-06 14:09:18.344,0.026938729,0.020016447,0.042353462,0.10745499,-0.0111438455,-0.011696255,0.0,0.0,0.0,0.017218161,-0.17719832,0.59781736,-0.15116479,0.15955546,0.60585374,-0.19166575,-0.16073345,-0.59958684,-0.23950781,-0.10014749,-0.66259545,-0.21111444,-0.016269725,0.044130657,0.050090812,0.027350226,0.008687045,0.02093926,-0.0048213215,0.055425327,0.07220029,-0.04504058,0.013529864,0.01381325,-3.0,3.0,-3.0,3.0,3.0,-3.0,-3.0,-3.0,-3.0,-3.0,-3.0,-3.0,-3.0,3.0,-3.0,3.0,3.0,-3.0,-3.0,-3.0,-3.0,-3.0,-3.0,-3.0
2025-06-06 14:09:18.364,0.04004588,-0.018134614,-0.04529305,0.08745666,0.05297929,-0.03815398,0.0,0.0,0.0,0.01721956,-0.1841398,0.6018857,-0.14233035,0.1594787,0.6031566,-0.18996328,-0.15862562,-0.59289,-0.24385552,-0.096599065,-0.65987396,-0.22287627,-0.06246683,0.04143302,0.05727659,-0.07340451,0.047934756,-0.061670717,-0.010511203,-0.027926315,-0.06313738,-0.043762345,0.035040826,0.036212973,-3.0,3.0,-3.0,3.0,3.0,-3.0,-3.0,-3.0,-3.0,-3.0,-3.0,-3.0,-3.0,3.0,-3.0,3.0,3.0,-3.0,-3.0,-3.0,-3.0,-3.0,-3.0,-3.0
2025-06-06 14:09:18.385,-0.040943258,-0.034185667,-0.008467426,0.030116018,0.060447413,-0.03055725,0.0,0.0,0.0,0.01722135,-0.18325269,0.5880385,-0.1466326,0.16058974,0.58838874,-0.19288176,-0.15985389,-0.5845325,-0.24972633,-0.08372382,-0.66464555,-0.21734631,-0.045556676,-0.029654158,0.07120032,0.03696663,-0.00033709005,-0.05833956,0.019556476,0.019421149,0.01904956,0.031642936,-0.060208257,-0.04960989,-3.0,3.0,-3.0,3.0,3.0,-3.0,-3.0,-3.0,-3.0,-3.0,-3.0,-3.0,-3.0,3.0,-3.0,3.0,3.0,-3.0,-3.0,-3.0,-3.0,-3.0,-3.0,-3.0
2025-06-06 14:09:18.404,-0.038894087,0.045298625,-0.0068796156,0.07521298,-0.020408535,0.047973897,0.0,0.0,0.0,0.01722336,-0.18190585,0.6000156,-0.1364355,0.17177336,0.59133226,-0.20437011,-0.15996015,-0.5940057,-0.2442573,-0.08642265,-0.6568985,-0.21423781,0.058812052,0.0037452728,-0.046301164,-0.02800206,0.07132712,0.023241576,-0.00524768,-0.028299358,-0.05713345,0.011087552,-0.06151214,-0.03651204,-3.0,3.0,-3.0,3.0,3.0,-3.0,-3.0,-3.0,-3.0,-3.0,-3.0,-3.0,-3.0,3.0,-3.0,3.0,3.0,-3.0,-3.0,-3.0,-3.0,-3.0,-3.0,-3.0
2025-06-06 14:09:18.424,-0.043832768,-0.010893918,-0.0045447815,0.015829645,-0.010209395,0.030566156,0.0,0.0,0.0,0.01722543,-0.17227511,0.5939235,-0.13959414,0.16256566,0.59878296,-0.1870171,-0.1497749,-0.58383894,-0.24713731,-0.099696904,-0.65436924,-0.22449866,-0.035241358,0.027873829,0.06929293,-0.013063271,-0.043259975,-0.06301683,-0.051398918,-0.03034667,0.06383213,0.0071486565,-0.044391252,0.02785877,-3.0,3.0,-3.0,3.0,3.0,-3.0,-3.0,-3.0,-3.0,-3.0,-3.0,-3.0,-3.0,3.0,-3.0,3.0,3.0,-3.0,-3.0,-3.0,-3.0,-3.0,-3.0,-3.0
2025-06-06 14:09:18.445,-0.029162083,0.020999206,-0.035312098,0.09943628,-0.00043680018,-0.00578988,0.0,0.0,0.0,0.017227441,-0.17614913,0.5936023,-0.13337174,0.17136453,0.5931822,-0.20349161,-0.15536825,-0.601705,-0.25147194,-0.09160857,-0.6601622,-0.22509687,0.0695127,-0.0715863,0.02435751,-0.017544543,0.07317948,-0.008675685,0.07446343,0.05139518,-0.04870785,-0.031729054,0.030257145,0.06757981,-3.0,3.0,-3.0,3.0,3.0,-3.0,-3.0,-3.0,-3.0,-3.0,-3.0,-3.0,-3.0,3.0,-3.0,3.0,3.0,-3.0,-3.0,-3.0,-3.0,-3.0,-3.0,-3.0
2025-06-06 14:09:18.465,0.011469075,-0.025997637,0.02584067,0.029342027,-0.0066435263,0.00799054,0.0,0.0,0.0,0.017229296,-0.1751316,0.6024395,-0.15038335,0.15361391,0.5904369,-0.20334885,-0.162579,-0.5964511,-0.24875005,-0.09602112,-0.6586586,-0.21663758,-0.030263023,0.010793571,-0.02189725,0.067890584,-0.009302691,-0.013220768,0.0299967,0.059430532,-0.07329631,-0.05332816,0.010855245,0.032760594,-3.0,3.0,-3.0,3.0,3.0,-3.0,-3.0,-3.0,-3.0,-3.0,-3.0,-3.0,-3.0,3.0,-3.0,3.0,3.0,-3.0,-3.0,-3.0,-3.0,-3.0,-3.0,-3.0
2025-06-06 14:09:18.485,-0.040450666,-0.013731279,-0.00025739943,0.10451519,0.008541052,0.026297575,0.0,0.0,0.0,0.017230928,-0.17253119,0.5882861,-0.13437982,0.16455323,0.59585124,-0.18760404,-0.15741703,-0.6022062,-0.24518815,-0.0978339,-0.66830564,-0.21546431,0.008033659,-0.07427513,-0.052115005,-0.07013126,0.071044095,-0.02052246,-0.049979527,-0.007838961,0.03465366,-0.05879501,-0.071038194,0.003231237,-3.0,3.0,-3.0,3.0,3.0,-3.0,-3.0,-3.0,-3.0,-3.0,-3.0,-3.0,-3.0,3.0,-3.0,3.0,3.0,-3.0,-3.0,-3.0,-3.0,-3.0,-3.0,-3.0
2025-06-06 14:09:18.505,0.035198934,-0.015951091,0.023727184,0.10442538,-0.019747145,0.011562902,0.0,0.0,0.0,0.017232286,-0.16678151,0.59968364,-0.13825648,0.16917832,0.60037154,-0.19182056,-0.14642046,-0.5971632,-0.2502097,-0.08120591,-0.65020686,-0.22081833,0.0038435408,0.057448484,0.0075363987,0.061600447,0.032037772,0.010085297,-0.015921194,0.037744816,0.07195959,-0.074661545,0.037863094,-0.072168715,-3.0,3.0,-3.0,3.0,3.0,-3.0,-3.0,-3.0,-3.0,-3.0,-3.0,-3.0,-3.0,3.0,-3.0,3.0,3.0,-3.0,-3.0,-3.0,-3.0,-3.0,-3.0,-3.0
2025-06-06 14:09:18.525,0.013161514,-0.0030252114,0.033642754,0.052192178,-0.03311119,0.0043076132,0.0,0.0,0.0,0.017233348,-0.18120788,0.5883436,-0.1521146,0.16149238,0.58979326,-0.18693961,-0.15683267,-0.6014294,-0.24699059,-0.0833324,-0.65063524,-0.21247308,-0.049483586,-0.006276708,0.05906359,-0.032698564,0.015880337,-0.0702849,0.018516282,-0.046522025,-0.0439137,0.012634158,0.0034906215,0.049897447,-3.0,3.0,-3.0,3.0,3.0,-3.0,-3.0,-3.0,-3.0,-3.0,-3.0,-3.0,-3.0,3.0,-3.0,3.0,3.0,-3.0,-3.0,-3.0,-3.0,-3.0,-3.0,-3.0
2025-06-06 14:09:18.545,-0.023507046,-0.009132099,-0.018501492,0.0413397,0.054970182,0.032039836,0.0,0.0,0.0,0.017234107,-0.17409067,0.5982957,-0.14303076,0.15603879,0.5889746,-0.20545985,-0.15455067,-0.6025016,-0.24270302,-0.08303051,-0.66622525,-0.2086173,0.010256929,-0.014949599,-0.0014437585,0.020115927,-0.046167932,0.006480341,-0.07322332,0.043305233,0.01396434,-0.0027649924,-0.025963724,0.06197911,-3.0,3.0,-3.0,3.0,3.0,-3.0,-3.0,-3.0,-3.0,-3.0,-3.0,-3.0,-3.0,3.0,-3.0,3.0,3.0,-3.0,-3.0,-3.0,-3.0,-3.0,-3.0,-3.0
2025-06-06 14:09:18.565,0.0047194357,0.022872321,0.0076782894,0.109561175,0.0073546343,0.025891732,0.0,0.0,0.0,0.017234579,-0.18131322,0.59743965,-0.1335785,0.15649745,0.60041,-0.2036656,-0.15968622,-0.5983697,-0.23379043,-0.08324406,-0.6643692,-0.21506293,0.009587738,0.04194412,-0.041379727,-0.04150744,-0.069581084,-0.0030440225,-0.017101308,0.0656446,-0.016404424,-0.055692013,-0.00091276213,-0.07377599,-3.0,3.0,-3.0,3.0,3.0,-3.0,-3.0,-3.0,-3.0,-3.0,-3.0,-3.0,-3.0,3.0,-3.0,3.0,3.0,-3.0,-3.0,-3.0,-3.0,-3.0,-3.0,-3.0
2025-06-06 14:09:18.585,-0.034955304,-0.02689681,-0.043498755,0.04739825,0.052569963,0.044326022,0.0,0.0,0.0,0.01723479,-0.17535271,0.5946842,-0.14273325,0.15689808,0.59156513,-0.19183321,-0.15137419,-0.59113103,-0.24868408,-0.086297415,-0.65406275,-0.21987905,-0.017942034,0.008664718,-0.06106711,-0.034560245,-0.003899122,0.025411135,-0.059317987,0.012845125,-0.009630363,-0.017020375,0.033442937,0.03875629,-3.0,3.0,-3.0,3.0,3.0,-3.0,-3.0,-3.0,-3.0,-3.0,-3.0,-3.0,-3.0,3.0,-3.0,3.0,3.0,-3.0,-3.0,-3.0,-3.0,-3.0,-3.0,-3.0
2025-06-06 14:09:18.605,0.020030204,-0.01650687,0.03507233,0.09861628,-0.023769518,0.037916835,0.0,0.0,0.0,0.017234769,-0.16648823,0.5966896,-0.14124694,0.15718909,0.6065469,-0.19783147,-0.15248163,-0.5865837,-0.24069437,-0.0984399,-0.66856664,-0.22424641,-0.037628643,0.06821216,0.063449286,0.0067399624,-0.035354692,-0.035409383,0.047749843,0.027490793,0.023456298,-0.058233365,-0.07344201,-0.034223516,-3.0,3.0,-3.0,3.0,3.0,-3.0,-3.0,-3.0,-3.0,-3.0,-3.0,-3.0,-3.0,3.0,-3.0,3.0,3.0,-3.0,-3.0,-3.0,-3.0,-3.0,-3.0,-3.0
2025-06-06 14:09:18.625,-0.020359784,0.018532494,0.028097123,0.01588037,0.013527791,0.028681612,0.0,0.0,0.0,0.017234564,-0.17258127,0.58761513,-0.14863989,0.16927364,0.5918661,-0.18770964,-0.1567547,-0.60251856,-0.24990939,-0.08189909,-0.6684658,-0.22372782,-0.071395986,0.05910208,-0.053504687,0.03564543,0.0017044029,-0.07365154,0.032550443,-0.0073581995,-0.07130204,-0.050108638,-0.050718255,-0.051789578,-3.0,3.0,-3.0,3.0,3.0,-3.0,-3.0,-3.0,-3.0,-3.0,-3.0,-3.0,-3.0,3.0,-3.0,3.0,3.0,-3.0,-3.0,-3.0,-3.0,-3.0,-3.0,-3.0
2025-06-06 14:09:18.645,-0.015992718,-0.04073501,-0.042270757,0.04347555,0.046372652,-0.018303627,0.0,0.0,0.0,0.017234216,-0.17462787,0.60082144,-0.14964661,0.15814088,0.60021454,-0.18832146,-0.14722855,-0.5867457,-0.23903927,-0.09071585,-0.65432864,-0.21824136,-0.06510196,-0.04366281,-0.028518653,-0.06818085,-0.04207144,-0.027219657,-0.043980338,-0.06676478,-0.036235344,-0.010737272,-0.02505618,0.04829094,-3.0,3.0,-3.0,3.0,3.0,-3.0,-3.0,-3.0,-3.0,-3.0,-3.0,-3.0,-3.0,3.0,-3.0,3.0,3.0,-3.0,-3.0,-3.0,-3.0,-3.0,-3.0,-3.0
2025-06-06 14:09:18.668,-0.023098553,0.041062124,-0.02096184,0.024699677,-0.0021300789,-0.01521208,0.0,0.0,0.0,0.017233768,-0.17365314,0.5976876,-0.13678586,0.15601742,0.59189826,-0.20282066,-0.15489762,-0.5872596,-0.23245454,-0.08241669,-0.6582186,-0.22650233,-0.008485292,0.018302271,0.06544719,-0.030765025,-0.04691262,0.049777944,-0.0049272743,-0.04912512,0.005967313,-0.0596733,-0.042167187,-0.0062918807,-3.0,3.0,-3.0,3.0,3.0,-3.0,-3.0,-3.0,-3.0,-3.0,-3.0,-3.0,-3.0,3.0,-3.0,3.0,3.0,-3.0,-3.0,-3.0,-3.0,-3.0,-3.0,-3.0
2025-06-06 14:09:18.685,-0.039542932,0.01718378,-0.008908013,0.1044965,0.014505723,0.020341488,0.0,0.0,0.0,0.017233262,-0.17335884,0.58956635,-0.14920743,0.15787174,0.6029169,-0.1994199,-0.16312046,-0.59984666,-0.23500669,-0.09667414,-0.665303,-0.22162235,-0.010776701,0.030314969,-0.05236389,0.07296482,-0.05028792,0.041361447,0.039507013,0.015222503,0.037059546,-0.014288852,-0.0006123367,-0.05789693,-3.0,3.0,-3.0,3.0,3.0,-3.0,-3.0,-3.0,-3.0,-3.0,-3.0,-3.0,-3.0,3.0,-3.0,3.0,3.0,-3.0,-3.0,-3.0,-3.0,-3.0,-3.0,-3.0
2025-06-06 14:09:18.705,0.0050698235,0.03709669,0.015768329,0.05162712,0.047180336,0.03261256,0.0,0.0,0.0,0.017232737,-0.18249427,0.595657,-0.13799034,0.15908422,0.60017884,-0.18831684,-0.15469193,-0.5840266,-0.24043487,-0.08792595,-0.6540443,-0.21693383,0.05567425,-0.028715398,0.07382929,-0.018844008,0.060406964,0.06540369,0.04958901,0.006456069,-0.051990736,0.013941231,-0.025804045,0.062102787,-3.0,3.0,-3.0,3.0,3.0,-3.0,-3.0,-3.0,-3.0,-3.0,-3.0,-3.0,-3.0,3.0,-3.0,3.0,3.0,-3.0,-3.0,-3.0,-3.0,-3.0,-3.0,-3.0
2025-06-06 14:09:18.725,-0.04910511,-0.03682434,-0.03497486,0.07001191,0.039292272,-0.019287067,0.0,0.0,0.0,0.017232224,-0.17681159,0.5949302,-0.14650385,0.1668446,0.59493095,-0.19581635,-0.15932137,-0.5984174,-0.2391917,-0.08462277,-0.66829956,-0.22552572,0.025452955,0.04090883,0.031660687,-0.026965488,-0.016142203,-0.017716862,0.072055474,0.006210202,0.008341021,0.0549699,-0.01473804,-0.04730988,-3.0,3.0,-3.0,3.0,3.0,-3.0,-3.0,-3.0,-3.0,-3.0,-3.0,-3.0,-3.0,3.0,-3.0,3.0,3.0,-3.0,-3.0,-3.0,-3.0,-3.0,-3.0,-3.0
2025-06-06 14:09:18.746,-0.02378104,0.007709708,-0.008720955,0.07083604,-0.0016190333,0.04981282,0.0,0.0,0.0,0.017231748,-0.17892107,0.5890513,-0.13993268,0.16244355,0.59240925,-0.19738871,-0.14822571,-0.5910304,-0.2393468,-0.085122526,-0.662328,-0.22560145,0.02741231,0.034667242,0.04424309,-0.06369719,0.015375415,0.06327344,0.047372915,-0.038171474,-0.021711731,-0.043659013,0.06652296,0.034699127,-3.0,3.0,-3.0,3.0,3.0,-3.0,-3.0,-3.0,-3.0,-3.0,-3.0,-3.0,-3.0,3.0,-3.0,3.0,3.0,-3.0,-3.0,-3.0,-3.0,-3.0,-3.0,-3.0
2025-06-06 14:09:18.769,0.028921712,0.024246054,-0.004970186,0.033604857,0.054772984,-0.013037895,0.0,0.0,0.0,0.017231327,-0.18049413,0.5984181,-0.14169914,0.15764053,0.6026394,-0.20287396,-0.15551953,-0.59970987,-0.23298281,-0.08763841,-0.6579237,-0.22278363,0.07440542,0.05111382,0.06443871,-0.06600513,-0.025801301,0.012746826,-0.07246498,-0.018548433,0.064926796,-0.045730237,-0.046391964,0.036010887,-3.0,3.0,-3.0,3.0,3.0,-3.0,-3.0,-3.0,-3.0,-3.0,-3.0,-3.0,-3.0,3.0,-3.0,3.0,3.0,-3.0,-3.0,-3.0,-3.0,-3.0,-3.0,-3.0
2025-06-06 14:09:18.786,-0.009527503,0.004975346,-0.026951097,0.056024384,0.009315047,0.01053107,0.0,0.0,0.0,0.017230975,-0.17088243,0.6034878,-0.14648141,0.16273773,0.6016597,-0.18776438,-0.15139306,-0.60164595,-0.24550067,-0.09945042,-0.65317786,-0.21092951,-0.044001948,0.06816144,-0.07490876,-0.023751192,0.028886512,-0.03383867,-0.05299968,-0.013216444,-0.06765797,0.06487665,0.06627227,0.0650175,-3.0,3.0,-3.0,3.0,3.0,-3.0,-3.0,-3.0,-3.0,-3.0,-3.0,-3.0,-3.0,3.0,-3.0,3.0,3.0,-3.0,-3.0,-3.0,-3.0,-3.0,-3.0,-3.0
2025-06-06 14:09:18.806,-0.019594144,-0.017013052,0.026766116,0.06363615,0.042944536,0.041765675,0.0,0.0,0.0,0.017230699,-0.16787176,0.6035112,-0.1383076,0.16842118,0.5905825,-0.19965655,-0.14937724,-0.5928464,-0.23945025,-0.09965708,-0.65174395,-0.22691661,0.06605265,-0.06166227,-0.01951322,-0.0065614968,0.038135502,-0.051367614,0.062459797,-0.057416186,0.028183619,-0.007959652,-0.002900455,0.06942801,-3.0,3.0,-3.0,3.0,3.0,-3.0,-3.0,-3.0,-3.0,-3.0,-3.0,-3.0,-3.0,3.0,-3.0,3.0,3.0,-3.0,-3.0,-3.0,-3.0,-3.0,-3.0,-3.0
2025-06-06 14:09:18.826,-0.014767651,0.0068529397,0.0012438693,0.09219551,-0.012054762,-0.03593585,0.0,0.0,0.0,0.0172305,-0.17942357,0.60039884,-0.14159568,0.17024077,0.6015622,-0.20326099,-0.14837736,-0.5867854,-0.25060174,-0.09369387,-0.6642479,-0.22734985,-0.006456958,-0.069269635,-0.064225525,-0.049113236,-0.020932212,0.07061679,0.034609858,0.020127475,0.047395106,0.028326524,-0.047464304,-0.033855494,-3.0,3.0,-3.0,3.0,3.0,-3.0,-3.0,-3.0,-3.0,-3.0,-3.0,-3.0,-3.0,3.0,-3.0,3.0,3.0,-3.0,-3.0,-3.0,-3.0,-3.0,-3.0,-3.0
2025-06-06 14:09:18.846,-0.04797218,0.016203556,0.04825807,0.06131839,0.050616942,0.03690695,0.0,0.0,0.0,0.017230377,-0.18434395,0.59013885,-0.14519697,0.1694361,0.60101056,-0.20534931,-0.15904976,-0.5860742,-0.23590825,-0.09627042,-0.66743135,-0.22826213,-0.00345622,-0.07376674,-0.073078364,0.025006808,0.030752774,-0.06886305,0.06269677,-0.030633913,-0.057675116,0.039843038,0.00031307206,-0.05423594,-3.0,3.0,-3.0,3.0,3.0,-3.0,-3.0,-3.0,-3.0,-3.0,-3.0,-3.0,-3.0,3.0,-3.0,3.0,3.0,-3.0,-3.0,-3.0,-3.0,-3.0,-3.0,-3.0
2025-06-06 14:09:18.869,-0.035252154,-0.022457069,-0.032431196,0.09026761,0.046406664,-0.009490864,0.0,0.0,0.0,0.017230319,-0.18624467,0.58738995,-0.14103135,0.15948653,0.59467775,-0.19828658,-0.1540381,-0.59544045,-0.2472766,-0.09320788,-0.64940435,-0.22104262,0.014875417,-0.06735023,-0.051616706,-0.0520141,0.03077415,-0.043493833,-0.0215719,0.038186923,0.02769029,-0.05472887,0.030142587,0.04557422,-3.0,3.0,-3.0,3.0,3.0,-3.0,-3.0,-3.0,-3.0,-3.0,-3.0,-3.0,-3.0,3.0,-3.0,3.0,3.0,-3.0,-3.0,-3.0,-3.0,-3.0,-3.0,-3.0
2025-06-06 14:09:18.886,-0.0074095256,-0.024107305,-0.016714817,0.042205222,0.032361176,-0.015295823,0.0,0.0,0.0,0.017230323,-0.1735593,0.59520364,-0.1340592,0.1595108,0.5988372,-0.19743262,-0.16274685,-0.5944891,-0.248535,-0.082856305,-0.6644685,-0.2178428,-0.019551428,-0.058578804,-0.021806037,-0.052007098,-0.012630994,0.072612874,0.008728873,-0.067945205,-0.026683697,-0.021438818,-0.05328083,0.017527765,-3.0,3.0,-3.0,3.0,3.0,-3.0,-3.0,-3.0,-3.0,-3.0,-3.0,-3.0,-3.0,3.0,-3.0,3.0,3.0,-3.0,-3.0,-3.0,-3.0,-3.0,-3.0,-3.0
2025-06-06 14:09:18.906,-0.020699799,0.0070053516,-0.018274127,0.11435773,0.039682902,-0.037836097,0.0,0.0,0.0,0.017230373,-0.1853336,0.5987922,-0.13933001,0.1603529,0.5975653,-0.19515423,-0.14911589,-0.5913895,-0.24279824,-0.09358125,-0.6598374,-0.2218282,-0.013335553,0.013472071,0.04266164,-0.0038819744,0.019805497,-0.06840173,-0.0504555,-0.03091107,0.063082546,0.025725827,0.00047819977,-0.0012606635,-3.0,3.0,-3.0,3.0,3.0,-3.0,-3.0,-3.0,-3.0,-3.0,-3.0,-3.0,-3.0,3.0,-3.0,3.0,3.0,-3.0,-3.0,-3.0,-3.0,-3.0,-3.0,-3.0
2025-06-06 14:09:18.926,0.025547408,0.008235378,0.049355973,0.08223627,0.004374698,0.010408426,0.0,0.0,0.0,0.01723046,-0.17335857,0.604188,-0.13440667,0.15527333,0.5938979,-0.19006743,-0.14613546,-0.58855957,-0.2485756,-0.09430368,-0.64898133,-0.21200128,-0.0049012797,-0.052953154,-0.062202767,0.04317611,-0.034624174,0.015706735,0.068815745,-0.045433838,0.0588759,-0.021836864,-0.056819376,0.0074440497,-3.0,3.0,-3.0,3.0,3.0,-3.0,-3.0,-3.0,-3.0,-3.0,-3.0,-3.0,-3.0,3.0,-3.0,3.0,3.0,-3.0,-3.0,-3.0,-3.0,-3.0,-3.0,-3.0
2025-06-06 14:09:18.946,0.049579285,-0.009089839,-0.04154239,0.059726607,-0.027362095,-0.026544847,0.0,0.0,0.0,0.017230576,-0.17245992,0.5874257,-0.1418524,0.16641155,0.59462696,-0.1896338,-0.1593626,-0.589665,-0.24894132,-0.08664838,-0.65303576,-0.22316271,-0.04738486,0.053097337,0.0016883055,-0.04918809,0.061823763,0.034173522,-0.044162374,0.008439013,0.06435783,-0.07081321,-0.046551477,-0.017498577,-3.0,3.0,-3.0,3.0,3.0,-3.0,-3.0,-3.0,-3.0,-3.0,-3.0,-3.0,-3.0,3.0,-3.0,3.0,3.0,-3.0,-3.0,-3.0,-3.0,-3.0,-3.0,-3.0
2025-06-06 14:09:18.969,-0.041198045,-0.0022201503,0.03389043,0.057532247,-0.020054461,-0.035353053,0.0,0.0,0.0,0.017230704,-0.16791628,0.60393375,-0.13517095,0.1640758,0.5930059,-0.18668076,-0.14529413,-0.5938444,-0.23754926,-0.08643912,-0.6513737,-0.21236774,-0.03641387,0.0660035,0.029447263,-0.0026219438,-0.04212546,0.03208853,0.016738713,0.06579003,0.033930376,0.02740465,-0.02997109,-0.028070252,-3.0,3.0,-3.0,3.0,3.0,-3.0,-3.0,-3.0,-3.0,-3.0,-3.0,-3.0,-3.0,3.0,-3.0,3.0,3.0,-3.0,-3.0,-3.0,-3.0,-3.0,-3.0,-3.0
2025-06-06 14:09:18.988,-0.005618624,0.028530378,0.04044256,0.039868664,-0.036383957,-0.013438492,0.0,0.0,0.0,0.017230839,-0.1840609,0.6044896,-0.1366615,0.17055641,0.5897724,-0.19239356,-0.1531057,-0.58369476,-0.24218914,-0.083020076,-0.66236717,-0.21315594,0.05665967,-0.053925473,-0.011810444,0.037654616,-0.07318731,-0.0040005203,0.030963901,-0.039483674,-0.070492536,0.032958154,-0.06257102,-0.04657279,-3.0,3.0,-3.0,3.0,3.0,-3.0,-3.0,-3.0,-3.0,-3.0,-3.0,-3.0,-3.0,3.0,-3.0,3.0,3.0,-3.0,-3.0,-3.0,-3.0,-3.0,-3.0,-3.0
2025-06-06 14:09:19.008,-0.024516383,0.017807815,0.017494444,0.08388513,0.05171896,0.021808628,0.0,0.0,0.0,0.017230973,-0.17654163,0.59283817,-0.13509056,0.15628548,0.60387003,-0.19850163,-0.15032451,-0.598085,-0.24206132,-0.081514575,-0.6611859,-0.2245874,-0.04978934,-0.026053127,0.03897448,-0.037366953,-0.033281725,0.071872845,-0.034347333,0.019262271,-0.052849926,0.038182516,-0.011380557,0.02599834,-3.0,3.0,-3.0,3.0,3.0,-3.0,-3.0,-3.0,-3.0,-3.0,-3.0,-3.0,-3.0,3.0,-3.0,3.0,3.0,-3.0,-3.0,-3.0,-3.0,-3.0,-3.0,-3.0
2025-06-06 14:09:19.028,-0.03566704,0.0129647665,0.03864275,0.021191724,0.05569386,-0.02852684,0.0,0.0,0.0,0.017231096,-0.17325485,0.60288846,-0.14714727,0.16972421,0.59284997,-0.20577355,-0.14963384,-0.5889316,-0.2398413,-0.08535364,-0.66360366,-0.21198606,-0.050665434,-0.06835486,0.007365313,-0.04905951,0.04999616,-0.021765193,0.019017791,-0.045533884,-0.060583662,0.0015892979,-0.0012012717,0.067102514,-3.0,3.0,-3.0,3.0,3.0,-3.0,-3.0,-3.0,-3.0,-3.0,-3.0,-3.0,-3.0,3.0,-3.0,3.0,3.0,-3.0,-3.0,-3.0,-3.0,-3.0,-3.0,-3.0
2025-06-06 14:09:19.048,0.035793856,0.010864267,0.0030065847,0.048069887,-0.013000531,-0.044073354,0.0,0.0,0.0,0.017231204,-0.17077422,0.5979381,-0.1504264,0.17229538,0.5962233,-0.18727332,-0.15180646,-0.5844967,-0.23483288,-0.08821508,-0.6627328,-0.22267671,0.06000332,-0.03456596,0.039352234,0.043268126,-0.066466846,0.0125251785,-0.07445538,0.008986058,-0.04817293,0.021737373,0.015606438,0.03912416,-3.0,3.0,-3.0,3.0,3.0,-3.0,-3.0,-3.0,-3.0,-3.0,-3.0,-3.0,-3.0,3.0,-3.0,3.0,3.0,-3.0,-3.0,-3.0,-3.0,-3.0,-3.0,-3.0
2025-06-06 14:09:19.069,-0.0111676315,0.0023835106,0.026441453,0.10835027,0.030059587,-0.023307526,0.0,0.0,0.0,0.017231297,-0.18261755,0.59060264,-0.14185873,0.1625949,0.60490227,-0.20176758,-0.15559138,-0.58508044,-0.24718237,-0.0958576,-0.66525924,-0.22424762,0.03365771,-0.052209146,0.0131163,0.046585176,-0.071298756,0.06625765,-0.051243085,0.0016186329,-0.029599262,-0.019041484,-0.026856843,0.060436223,-3.0,3.0,-3.0,3.0,3.0,-3.0,-3.0,-3.0,-3.0,-3.0,-3.0,-3.0,-3.0,3.0,-3.0,3.0,3.0,-3.0,-3.0,-3.0,-3.0,-3.0,-3.0,-3.0
2025-06-06 14:09:19.088,0.037452836,0.045967,0.008973523,0.109402165,0.04835454,-0.019693106,0.0,0.0,0.0,0.017231368,-0.17600341,0.5984738,-0.14748524,0.16540226,0.59701604,-0.18850389,-0.14551169,-0.5852289,-0.24898475,-0.08292464,-0.6499134,-0.22659342,0.060551897,0.024068935,-0.013892132,0.010127595,-0.048932888,0.073244005,0.003770766,0.03653643,0.015082201,-0.03529284,0.02632067,-0.028172655,-3.0,3.0,-3.0,3.0,3.0,-3.0,-3.0,-3.0,-3.0,-3.0,-3.0,-3.0,-3.0,3.0,-3.0,3.0,3.0,-3.0,-3.0,-3.0,-3.0,-3.0,-3.0,-3.0
2025-06-06 14:09:19.108,-0.044536944,-0.028394178,0.0069931904,0.036818158,-0.032792848,-0.016332168,0.0,0.0,0.0,0.01723142,-0.16918148,0.5933528,-0.14362742,0.16098855,0.6056024,-0.20287247,-0.1502518,-0.59247404,-0.2470352,-0.091992594,-0.6675908,-0.22358912,-0.054157503,-0.07099458,0.025064105,0.01050299,0.025573965,0.045272596,-0.010328023,0.0740443,0.013691043,-0.063361004,-0.07016626,0.019088503,-3.0,3.0,-3.0,3.0,3.0,-3.0,-3.0,-3.0,-3.0,-3.0,-3.0,-3.0,-3.0,3.0,-3.0,3.0,3.0,-3.0,-3.0,-3.0,-3.0,-3.0,-3.0,-3.0
2025-06-06 14:09:19.128,0.013680868,0.02660188,0.037439022,0.080534354,0.024116483,0.023789736,0.0,0.0,0.0,0.017231453,-0.18330386,0.60562164,-0.135241,0.15994288,0.5998492,-0.19070834,-0.15826939,-0.5898569,-0.24597408,-0.0845191,-0.65742254,-0.2168778,-0.06558233,-0.03154281,-0.048925247,0.030947607,0.044682857,-0.015618935,0.061274875,-0.04247309,0.009826703,-0.006556139,0.025612317,-0.017287863,-3.0,3.0,-3.0,3.0,3.0,-3.0,-3.0,-3.0,-3.0,-3.0,-3.0,-3.0,-3.0,3.0,-3.0,3.0,3.0,-3.0,-3.0,-3.0,-3.0,-3.0,-3.0,-3.0
2025-06-06 14:09:19.148,0.026214007,0.009050174,-0.038422484,0.07790749,0.017595354,-0.046811208,0.0,0.0,0.0,0.01723147,-0.18406935,0.588779,-0.14282353,0.15610434,0.58850855,-0.20523062,-0.16103595,-0.5955945,-0.252222,-0.09877893,-0.66682976,-0.21807653,0.0029587692,0.037992112,-0.020405551,0.017803514,-0.05458249,-0.007197807,0.039345823,0.072261035,0.0010609446,0.03985493,-0.040636975,0.049092777,-3.0,3.0,-3.0,3.0,3.0,-3.0,-3.0,-3.0,-3.0,-3.0,-3.0,-3.0,-3.0,3.0,-3.0,3.0,3.0,-3.0,-3.0,-3.0,-3.0,-3.0,-3.0,-3.0
2025-06-06 14:09:19.171,-0.015175978,-0.0004667939,0.0018981022,0.055980552,0.061092664,0.008687909,0.0,0.0,0.0,0.01723147,-0.16941164,0.58913076,-0.14510167,0.16560088,0.60271037,-0.19775558,-0.1537688,-0.59626734,-0.23709682,-0.09623473,-0.65993243,-0.22431433,-0.035054006,-0.040513724,-0.039078053,-0.033612832,0.049035553,0.022813454,-0.065994814,-0.07228319,-0.07161192,-0.023944994,-0.04100371,0.024548152,-3.0,3.0,-3.0,3.0,3.0,-3.0,-3.0,-3.0,-3.0,-3.0,-3.0,-3.0,-3.0,3.0,-3.0,3.0,3.0,-3.0,-3.0,-3.0,-3.0,-3.0,-3.0,-3.0
2025-06-06 14:09:19.191,-0.016910415,-0.019154325,-0.04778756,0.11493512,-0.0024918045,-0.024454918,0.0,0.0,0.0,0.017231459,-0.17315884,0.59334123,-0.13830054,0.15584509,0.59902537,-0.19970603,-0.16418436,-0.60152435,-0.24054712,-0.09421043,-0.66463095,-0.21770996,0.0064397715,0.05470248,-0.070595205,0.007551161,0.037242923,-0.03152802,-0.025143193,0.068857305,0.005006062,-0.037375744,-0.018573495,0.056206647,-3.0,3.0,-3.0,3.0,3.0,-3.0,-3.0,-3.0,-3.0,-3.0,-3.0,-3.0,-3.0,3.0,-3.0,3.0,3.0,-3.0,-3.0,-3.0,-3.0,-3.0,-3.0,-3.0
2025-06-06 14:09:19.211,0.02035063,-0.011851176,0.008776703,0.08487702,-0.032192953,0.043602467,0.0,0.0,0.0,0.017231436,-0.18012755,0.5941024,-0.13928333,0.1529671,0.5911257,-0.20544326,-0.15030353,-0.58447707,-0.25120085,-0.09262931,-0.66051495,-0.21114169,0.021640468,-0.050706573,-0.02540846,-0.03146063,-0.043732207,0.06289136,-0.051636424,-0.06320613,0.06583712,0.019490706,-0.048414666,0.042375665,-3.0,3.0,-3.0,3.0,3.0,-3.0,-3.0,-3.0,-3.0,-3.0,-3.0,-3.0,-3.0,3.0,-3.0,3.0,3.0,-3.0,-3.0,-3.0,-3.0,-3.0,-3.0,-3.0
2025-06-06 14:09:19.231,0.040065628,-0.012182241,-0.023089115,0.1013885,-0.018110199,-0.04713999,0.0,0.0,0.0,0.017231407,-0.17060232,0.588614,-0.14438055,0.17250808,0.59594756,-0.18940547,-0.15245758,-0.5843039,-0.2426583,-0.09684076,-0.65918404,-0.2135041,-0.010052809,-0.06418486,-0.063329384,-0.040707245,-0.06920884,-0.052288234,-0.048677914,-0.021258682,-0.02451516,-0.0022974722,-0.05363606,0.055394717,-3.0,3.0,-3.0,3.0,3.0,-3.0,-3.0,-3.0,-3.0,-3.0,-3.0,-3.0,-3.0,3.0,-3.0,3.0,3.0,-3.0,-3.0,-3.0,-3.0,-3.0,-3.0,-3.0
2025-06-06 14:09:19.252,0.03925931,-0.029344808,-0.026417952,0.08117621,-0.036694072,-0.009327252,0.0,0.0,0.0,0.017231375,-0.17725994,0.6032245,-0.15099992,0.15637644,0.6038767,-0.18585193,-0.1568468,-0.5938097,-0.24785072,-0.100561604,-0.6688693,-0.21173248,-0.066121995,-0.006193421,-0.032747593,0.009628824,-0.021096822,-0.01612017,0.059109103,-0.029007718,0.07076328,0.06802389,-0.07119558,-0.06684465,-3.0,3.0,-3.0,3.0,3.0,-3.0,-3.0,-3.0,-3.0,-3.0,-3.0,-3.0,-3.0,3.0,-3.0,3.0,3.0,-3.0,-3.0,-3.0,-3.0,-3.0,-3.0,-3.0
2025-06-06 14:09:19.272,-0.04007756,-0.01204127,-0.037924547,0.06926107,0.052945986,-0.022282489,0.0,0.0,0.0,0.01723134,-0.16702878,0.60026497,-0.13875009,0.1652747,0.5901172,-0.20457737,-0.16180994,-0.59448034,-0.24441339,-0.09751005,-0.66123515,-0.2283802,0.06431251,-0.0153886685,-0.01247706,-0.03218042,0.057079237,0.04611299,0.058078803,0.07406477,0.049935084,-0.05271952,-0.06706743,-0.02597618,-3.0,3.0,-3.0,3.0,3.0,-3.0,-3.0,-3.0,-3.0,-3.0,-3.0,-3.0,-3.0,3.0,-3.0,3.0,3.0,-3.0,-3.0,-3.0,-3.0,-3.0,-3.0,-3.0
2025-06-06 14:09:19.292,0.045641743,0.028125133,0.023850588,0.10032167,0.0080155935,-0.043596547,0.0,0.0,0.0,0.017231306,-0.1775826,0.60416126,-0.13573878,0.16028906,0.6053332,-0.18915755,-0.15581018,-0.5849725,-0.24432729,-0.080955714,-0.6588748,-0.22822818,0.05527902,-0.06837086,-0.046369117,-0.06614994,-0.037923194,-0.054498695,0.015439047,-0.068973534,-0.020927098,0.012898151,-0.02103007,-0.038687523,-3.0,3.0,-3.0,3.0,3.0,-3.0,-3.0,-3.0,-3.0,-3.0,-3.0,-3.0,-3.0,3.0,-3.0,3.0,3.0,-3.0,-3.0,-3.0,-3.0,-3.0,-3.0,-3.0
2025-06-06 14:09:19.313,-0.014957346,0.02373503,0.02575808,0.043336935,0.038376145,0.034928273,0.0,0.0,0.0,0.017231274,-0.18246107,0.59505683,-0.13945173,0.15606555,0.60118735,-0.20171702,-0.15930288,-0.58530986,-0.23473138,-0.08066835,-0.6609738,-0.22732198,-0.059111513,0.045333833,-0.07068418,-0.03174827,0.035211075,0.07104511,-0.020784166,0.030641187,-0.012167278,0.012145697,0.020679617,-0.06346986,-3.0,3.0,-3.0,3.0,3.0,-3.0,-3.0,-3.0,-3.0,-3.0,-3.0,-3.0,-3.0,3.0,-3.0,3.0,3.0,-3.0,-3.0,-3.0,-3.0,-3.0,-3.0,-3.0
2025-06-06 14:09:19.335,0.03514501,0.011636883,0.0022971996,0.082153745,0.04519023,-0.037830885,0.0,0.0,0.0,0.017231245,-0.17698254,0.59349877,-0.14173318,0.17123617,0.60393953,-0.20302452,-0.15468866,-0.58739,-0.23697363,-0.08213343,-0.6675224,-0.20886014,0.06289383,-0.01736117,-0.004650872,0.022539986,0.029671123,-0.053718407,0.05916751,-0.0041960585,0.018861067,0.063702084,0.0063464968,0.000106796644,-3.0,3.0,-3.0,3.0,3.0,-3.0,-3.0,-3.0,-3.0,-3.0,-3.0,-3.0,-3.0,3.0,-3.0,3.0,3.0,-3.0,-3.0,-3.0,-3.0,-3.0,-3.0,-3.0
2025-06-06 14:09:19.352,-0.00935155,0.011319164,-0.03396651,0.064825885,0.037385724,-0.00017636767,0.0,0.0,0.0,0.01723122,-0.16662215,0.59104276,-0.15094915,0.15434437,0.604659,-0.19778584,-0.16166367,-0.5911112,-0.24418183,-0.085878484,-0.656857,-0.22657362,0.030353561,-0.06806513,-0.03858037,-0.043144386,-0.027131366,-0.008338177,0.06341484,-0.012347655,0.055364735,0.066580065,0.02555273,0.06807107,-3.0,3.0,-3.0,3.0,3.0,-3.0,-3.0,-3.0,-3.0,-3.0,-3.0,-3.0,-3.0,3.0,-3.0,3.0,3.0,-3.0,-3.0,-3.0,-3.0,-3.0,-3.0,-3.0
2025-06-06 14:09:19.373,-0.036494825,0.029641492,-0.034394406,0.06549645,-0.0044668564,0.048587736,0.0,0.0,0.0,0.017231202,-0.1830214,0.59657675,-0.14402606,0.1528338,0.59301645,-0.18837008,-0.1558139,-0.5935179,-0.23872824,-0.09260315,-0.6549805,-0.21634012,0.02529329,-0.0052293045,-0.07158627,-0.01272272,-0.052910946,0.03412952,-0.021018745,-0.04574533,-0.04422323,-0.015036439,0.05870765,0.06133577,-3.0,3.0,-3.0,3.0,3.0,-3.0,-3.0,-3.0,-3.0,-3.0,-3.0,-3.0,-3.0,3.0,-3.0,3.0,3.0,-3.0,-3.0,-3.0,-3.0,-3.0,-3.0,-3.0
2025-06-06 14:09:19.393,0.0492543,0.037016537,0.023020973,0.06021055,0.06245871,0.008847462,0.0,0.0,0.0,0.017231189,-0.1740093,0.5975725,-0.14955457,0.15729105,0.5926945,-0.20127071,-0.1579982,-0.6017893,-0.23754507,-0.08606808,-0.66788775,-0.22507654,-0.032821674,0.05195685,-0.066127315,0.069009736,0.03364055,0.0016680061,-0.028982705,-0.025598679,0.04399526,-0.060560517,0.07341062,-0.036603656,-3.0,3.0,-3.0,3.0,3.0,-3.0,-3.0,-3.0,-3.0,-3.0,-3.0,-3.0,-3.0,3.0,-3.0,3.0,3.0,-3.0,-3.0,-3.0,-3.0,-3.0,-3.0,-3.0
2025-06-06 14:09:19.413,0.04216614,-0.011383077,-0.048525296,0.10084299,0.03814191,0.044997122,0.0,0.0,0.0,0.01723118,-0.17033105,0.58909935,-0.14515842,0.1609375,0.5899195,-0.19084738,-0.15360956,-0.58553267,-0.23813656,-0.09667839,-0.64950174,-0.21496694,-0.062945694,0.05518543,-0.04387399,-0.0054694605,-0.02563966,-0.053859904,-0.003358208,0.06321746,0.025740035,0.04384811,-0.00666358,-0.020573277,-3.0,3.0,-3.0,3.0,3.0,-3.0,-3.0,-3.0,-3.0,-3.0,-3.0,-3.0,-3.0,3.0,-3.0,3.0,3.0,-3.0,-3.0,-3.0,-3.0,-3.0,-3.0,-3.0
2025-06-06 14:09:19.435,0.0031553993,-0.01519258,-0.008925305,0.08047165,0.0016858219,-0.01706296,0.0,0.0,0.0,0.017231174,-0.17850849,0.59175605,-0.14618467,0.16825773,0.599952,-0.20462085,-0.15317555,-0.58968663,-0.23627731,-0.08477485,-0.6622861,-0.22406127,0.07290466,-0.043724056,0.011044313,-0.06603137,0.005344235,-0.0313838,-0.048625633,-0.059443332,-0.044836883,-0.04277043,0.06151454,-0.029040745,-3.0,3.0,-3.0,3.0,3.0,-3.0,-3.0,-3.0,-3.0,-3.0,-3.0,-3.0,-3.0,3.0,-3.0,3.0,3.0,-3.0,-3.0,-3.0,-3.0,-3.0,-3.0,-3.0
2025-06-06 14:09:19.456,-0.024740187,0.035798945,-0.016337452,0.056818362,0.0037309746,-0.031103646,0.0,0.0,0.0,0.017231174,-0.16796635,0.59288055,-0.13973953,0.16374409,0.59056526,-0.18712899,-0.15172586,-0.5838929,-0.23904325,-0.087090306,-0.6662317,-0.2212099,-0.00690577,0.004340683,-0.0042347615,0.06461237,0.03472034,-0.021225214,-0.07180751,-0.03641598,-0.028823217,0.024863824,0.028510371,-0.04572843,-3.0,3.0,-3.0,3.0,3.0,-3.0,-3.0,-3.0,-3.0,-3.0,-3.0,-3.0,-3.0,3.0,-3.0,3.0,3.0,-3.0,-3.0,-3.0,-3.0,-3.0,-3.0,-3.0
2025-06-06 14:09:19.477,0.005652161,-0.048492648,0.03372502,0.03698016,0.012308904,0.047797233,0.0,0.0,0.0,0.017231178,-0.16745193,0.6015399,-0.1415034,0.16790639,0.59523684,-0.19742419,-0.14621226,-0.6001979,-0.23910847,-0.084899366,-0.6635401,-0.22657347,-0.025261847,-0.0064447117,-0.05157304,-0.0011113161,0.07180162,0.07393001,0.028471036,-0.040187005,-0.049699366,0.017150635,-0.04617005,-0.007836105,-3.0,3.0,-3.0,3.0,3.0,-3.0,-3.0,-3.0,-3.0,-3.0,-3.0,-3.0,-3.0,3.0,-3.0,3.0,3.0,-3.0,-3.0,-3.0,-3.0,-3.0,-3.0,-3.0
2025-06-06 14:09:19.496,0.009837013,-0.028519507,-0.044421926,0.0989374,0.04536273,-0.021177748,0.0,0.0,0.0,0.017231181,-0.16984124,0.59561366,-0.14289053,0.1588101,0.5962762,-0.19970727,-0.14503205,-0.5871297,-0.24555978,-0.09824539,-0.66236085,-0.22826003,-0.04986485,-0.0005764199,-0.0071168877,0.06989702,-0.05825159,-0.0040704226,0.053774837,-0.006450115,0.017143803,-0.024703896,0.020640915,-0.031494685,-3.0,3.0,-3.0,3.0,3.0,-3.0,-3.0,-3.0,-3.0,-3.0,-3.0,-3.0,-3.0,3.0,-3.0,3.0,3.0,-3.0,-3.0,-3.0,-3.0,-3.0,-3.0,-3.0
2025-06-06 14:09:19.519,0.03388959,0.023188781,-0.011476222,0.020129517,0.02987555,0.041027144,0.0,0.0,0.0,0.017231189,-0.17850144,0.6003627,-0.15053073,0.16686383,0.6026535,-0.20118055,-0.1579615,-0.59174824,-0.2328441,-0.087118,-0.65209854,-0.21395962,-0.07035392,0.0046789795,0.012004789,0.060150165,0.03650309,-0.04963833,0.02000717,-0.05338861,-0.07143014,0.0718497,0.0027801518,0.06563533,-3.0,3.0,-3.0,3.0,3.0,-3.0,-3.0,-3.0,-3.0,-3.0,-3.0,-3.0,-3.0,3.0,-3.0,3.0,3.0,-3.0,-3.0,-3.0,-3.0,-3.0,-3.0,-3.0
2025-06-06 14:09:19.536,-0.0010789952,-0.04560315,0.018021656,0.10592063,0.052561045,-0.010664975,0.0,0.0,0.0,0.017231198,-0.18005762,0.59797454,-0.14163235,0.17004314,0.59505236,-0.18780917,-0.15752931,-0.59693193,-0.25140196,-0.09858183,-0.65093476,-0.21331328,-0.07344189,0.021719504,0.01570923,-0.03966771,-0.0017226217,-0.012347619,0.041628327,0.047908597,0.02526338,-0.037301105,-0.069048084,-0.047168154,-3.0,3.0,-3.0,3.0,3.0,-3.0,-3.0,-3.0,-3.0,-3.0,-3.0,-3.0,-3.0,3.0,-3.0,3.0,3.0,-3.0,-3.0,-3.0,-3.0,-3.0,-3.0,-3.0
2025-06-06 14:09:19.557,-0.0030834004,0.021904375,0.012427515,0.044685412,0.03996231,0.039915297,0.0,0.0,0.0,0.017231207,-0.17520967,0.58824325,-0.15127535,0.16058493,0.589924,-0.18777224,-0.15037367,-0.5906729,-0.24946178,-0.08656837,-0.6664988,-0.20977633,0.021031247,-0.04513785,-0.027693123,0.033044174,0.06443235,-0.024883203,0.068499856,-0.049929406,-0.012206099,0.010948514,0.015519875,-0.011873511,-3.0,3.0,-3.0,3.0,3.0,-3.0,-3.0,-3.0,-3.0,-3.0,-3.0,-3.0,-3.0,3.0,-3.0,3.0,3.0,-3.0,-3.0,-3.0,-3.0,-3.0,-3.0,-3.0
2025-06-06 14:09:19.577,0.007368654,0.018884877,0.004012918,0.07551407,-0.02373524,0.025062423,0.0,0.0,0.0,0.017231215,-0.1689529,0.60299796,-0.13380189,0.15938702,0.6041084,-0.18748952,-0.15234126,-0.59567094,-0.24758483,-0.090946555,-0.6541293,-0.20918696,0.053908426,-0.023769513,-0.0471543,-0.014889394,-0.047439534,0.07184477,0.028082728,-0.037215736,0.004300034,0.0054168776,-0.051813845,-0.020963999,-3.0,3.0,-3.0,3.0,3.0,-3.0,-3.0,-3.0,-3.0,-3.0,-3.0,-3.0,-3.0,3.0,-3.0,3.0,3.0,-3.0,-3.0,-3.0,-3.0,-3.0,-3.0,-3.0
2025-06-06 14:09:19.597,-0.014401041,-0.008276768,0.017827827,0.025382282,0.060056217,-0.030076163,0.0,0.0,0.0,0.017231224,-0.18486364,0.5928104,-0.14094634,0.16246398,0.59878874,-0.19720918,-0.1549728,-0.59519625,-0.24756914,-0.08222863,-0.6511611,-0.22410716,-0.050250333,0.029302742,-0.016127834,0.035232473,0.05289566,-0.030905897,-0.046198048,0.052719254,-0.007744087,0.031348795,-0.01385453,-0.03394707,-3.0,3.0,-3.0,3.0,3.0,-3.0,-3.0,-3.0,-3.0,-3.0,-3.0,-3.0,-3.0,3.0,-3.0,3.0,3.0,-3.0,-3.0,-3.0,-3.0,-3.0,-3.0,-3.0
2025-06-06 14:09:19.619,0.04268806,-0.021346489,0.018035948,0.0931989,0.0005366557,-0.04858967,0.0,0.0,0.0,0.017231232,-0.1824545,0.5959886,-0.1514386,0.16676582,0.59011453,-0.20570311,-0.15585595,-0.5869432,-0.24707396,-0.08999512,-0.6584415,-0.20954973,-0.044047892,-0.059719812,0.021641959,0.05998901,-0.016262427,-0.0009074806,-0.051409584,0.019254038,0.033953946,0.07081584,-0.024962991,0.07087657,-3.0,3.0,-3.0,3.0,3.0,-3.0,-3.0,-3.0,-3.0,-3.0,-3.0,-3.0,-3.0,3.0,-3.0,3.0,3.0,-3.0,-3.0,-3.0,-3.0,-3.0,-3.0,-3.0
2025-06-06 14:09:19.637,0.047275666,-0.041508313,-0.031989023,0.11316384,-9.73656e-05,0.00360038,0.0,0.0,0.0,0.017231237,-0.18155806,0.58849245,-0.14872786,0.16722576,0.6055477,-0.18647407,-0.1450501,-0.59410477,-0.24183097,-0.081592515,-0.66324806,-0.22271895,0.06830004,0.054609966,-0.01088186,0.019687606,0.024713233,0.07333179,0.07487642,-0.056501083,-0.021857249,0.07483555,0.02619576,-0.0053331726,-3.0,3.0,-3.0,3.0,3.0,-3.0,-3.0,-3.0,-3.0,-3.0,-3.0,-3.0,-3.0,3.0,-3.0,3.0,3.0,-3.0,-3.0,-3.0,-3.0,-3.0,-3.0,-3.0
2025-06-06 14:09:19.658,0.021768468,-0.03114948,-0.00079186657,0.033326615,0.05844844,0.034648653,0.0,0.0,0.0,0.017231243,-0.1828766,0.59462494,-0.13815314,0.17111664,0.6058327,-0.20535906,-0.15449698,-0.5918018,-0.23955879,-0.083308354,-0.6561569,-0.22277768,-0.020253515,0.05187757,-0.0136051355,-0.07242618,-0.02806718,-0.021765724,0.00094658363,0.05163705,-0.049994644,-0.0008381365,0.07031238,-0.034556612,-3.0,3.0,-3.0,3.0,3.0,-3.0,-3.0,-3.0,-3.0,-3.0,-3.0,-3.0,-3.0,3.0,-3.0,3.0,3.0,-3.0,-3.0,-3.0,-3.0,-3.0,-3.0,-3.0
2025-06-06 14:09:19.678,0.017135536,-0.015081701,0.020691868,0.045225862,0.04178414,-0.002689805,0.0,0.0,0.0,0.017231246,-0.17290473,0.5940174,-0.13962942,0.17140259,0.59352964,-0.20392653,-0.15216322,-0.58877105,-0.24204955,-0.08075931,-0.657197,-0.2188387,0.03341291,0.04355717,-0.06148877,0.04004581,-0.016842775,0.05320915,-0.010386846,-0.050512873,-0.067181475,0.018714927,-0.031755682,-0.058277305,-3.0,3.0,-3.0,3.0,3.0,-3.0,-3.0,-3.0,-3.0,-3.0,-3.0,-3.0,-3.0,3.0,-3.0,3.0,3.0,-3.0,-3.0,-3.0,-3.0,-3.0,-3.0,-3.0
2025-06-06 14:09:19.698,-0.0010851736,0.033009976,-0.033444885,0.030399224,-0.017367128,-0.013524144,0.0,0.0,0.0,0.017231248,-0.16940948,0.59213996,-0.1442705,0.16761315,0.5896892,-0.19595322,-0.1469374,-0.5980703,-0.23320575,-0.097785525,-0.65686285,-0.22781008,0.06864546,0.06428672,-0.06708893,-0.07093992,-0.07366048,0.06800195,0.053877193,-0.06526661,0.040177092,0.006784432,-0.06205014,0.027765304,-3.0,3.0,-3.0,3.0,3.0,-3.0,-3.0,-3.0,-3.0,-3.0,-3.0,-3.0,-3.0,3.0,-3.0,3.0,3.0,-3.0,-3.0,-3.0,-3.0,-3.0,-3.0,-3.0
2025-06-06 14:09:19.718,-8.929784e-05,-0.030309428,-0.023506816,0.10228875,-0.021460999,-0.03678442,0.0,0.0,0.0,0.01723125,-0.18519929,0.58941257,-0.13570002,0.16211201,0.59136814,-0.19183657,-0.15228909,-0.5899883,-0.24891454,-0.09144107,-0.6578121,-0.21852706,-0.030932294,-0.048668873,-0.01896314,0.018159252,0.01967938,0.019647447,0.03443372,0.03625031,0.027587932,0.047591183,-0.058376696,0.06688972,-3.0,3.0,-3.0,3.0,3.0,-3.0,-3.0,-3.0,-3.0,-3.0,-3.0,-3.0,-3.0,3.0,-3.0,3.0,3.0,-3.0,-3.0,-3.0,-3.0,-3.0,-3.0,-3.0
2025-06-06 14:09:19.740,0.0146766575,0.024313172,-0.049173627,0.049804125,-0.013549416,0.022628086,0.0,0.0,0.0,0.01723125,-0.18229204,0.6002945,-0.14124258,0.16547407,0.6066593,-0.20060055,-0.14463681,-0.5913479,-0.24436526,-0.08642678,-0.65464383,-0.22543673,0.03629465,0.007829808,-0.041025676,0.066905715,0.04175526,0.022747897,0.040897362,-0.046642385,-0.061642714,-0.03700123,0.028286615,-0.072160356,-3.0,3.0,-3.0,3.0,3.0,-3.0,-3.0,-3.0,-3.0,-3.0,-3.0,-3.0,-3.0,3.0,-3.0,3.0,3.0,-3.0,-3.0,-3.0,-3.0,-3.0,-3.0,-3.0
2025-06-06 14:09:19.760,-0.024326585,0.03723665,0.025868846,0.022568304,-0.031246208,0.010705994,0.0,0.0,0.0,0.01723125,-0.1696279,0.5882778,-0.13463064,0.15708546,0.59530133,-0.18816587,-0.14666407,-0.60164857,-0.25206438,-0.09905944,-0.65643865,-0.21304502,-0.016808258,-0.0091961175,-0.017261013,0.0727014,-0.06930411,0.007650317,0.019621685,-0.01254116,0.0153898485,0.073056705,-0.06770526,-0.014019504,-3.0,3.0,-3.0,3.0,3.0,-3.0,-3.0,-3.0,-3.0,-3.0,-3.0,-3.0,-3.0,3.0,-3.0,3.0,3.0,-3.0,-3.0,-3.0,-3.0,-3.0,-3.0,-3.0
2025-06-06 14:09:19.780,0.0011647369,0.047641724,0.03523229,0.027274042,-0.028397148,-0.036393393,0.0,0.0,0.0,0.017231248,-0.18482806,0.5939658,-0.14219324,0.17158993,0.58877265,-0.20397805,-0.1621267,-0.5966717,-0.23317856,-0.09308325,-0.6600611,-0.21537203,-0.055488527,-0.032662652,-0.035079535,0.06963505,0.058524676,0.042251803,-0.027370106,-0.06556776,0.031671736,0.06766501,0.035379905,-0.06825878,-3.0,3.0,-3.0,3.0,3.0,-3.0,-3.0,-3.0,-3.0,-3.0,-3.0,-3.0,-3.0,3.0,-3.0,3.0,3.0,-3.0,-3.0,-3.0,-3.0,-3.0,-3.0,-3.0
2025-06-06 14:09:19.802,0.0139505,-0.02719791,0.002352986,0.069059156,0.03741737,-0.00086769956,0.0,0.0,0.0,0.017231246,-0.18149795,0.59217435,-0.13904674,0.15441713,0.5911146,-0.19370927,-0.14615655,-0.6003423,-0.2410912,-0.090620846,-0.65627974,-0.22159514,-0.007767333,-0.04771123,-0.058458164,-0.0300404,-0.06972869,-0.031272687,-0.05166314,0.058454767,-0.041062936,0.024326466,0.040797923,-0.03395592,-3.0,3.0,-3.0,3.0,3.0,-3.0,-3.0,-3.0,-3.0,-3.0,-3.0,-3.0,-3.0,3.0,-3.0,3.0,3.0,-3.0,-3.0,-3.0,-3.0,-3.0,-3.0,-3.0
2025-06-06 14:09:19.822,-0.0059030657,0.040932592,0.03496753,0.09201985,-0.0107189445,0.04436758,0.0,0.0,0.0,0.017231245,-0.17793252,0.5982642,-0.13683434,0.15706359,0.5996709,-0.19114985,-0.14681701,-0.5946699,-0.24336846,-0.08120482,-0.65936434,-0.22461712,0.031092664,0.00971163,-0.039431445,0.042679854,0.068369836,-0.05887233,0.05421285,0.031534716,0.003965529,-0.052249756,0.021735556,0.06290458,-3.0,3.0,-3.0,3.0,3.0,-3.0,-3.0,-3.0,-3.0,-3.0,-3.0,-3.0,-3.0,3.0,-3.0,3.0,3.0,-3.0,-3.0,-3.0,-3.0,-3.0,-3.0,-3.0
2025-06-06 14:09:19.842,0.024357965,0.03517444,-0.019520564,0.04198165,0.020841649,-0.019605322,0.0,0.0,0.0,0.017231243,-0.17783333,0.60135174,-0.1409071,0.16159832,0.60597944,-0.2052988,-0.1616152,-0.5983716,-0.24423176,-0.086797304,-0.66217834,-0.2280409,0.037461944,-0.010624224,-0.036264576,-0.0010218469,-0.026626917,0.07418087,-0.0424218,-0.06213506,0.06709523,-0.030461043,-0.048705168,-0.053878754,-3.0,3.0,-3.0,3.0,3.0,-3.0,-3.0,-3.0,-3.0,-3.0,-3.0,-3.0,-3.0,3.0,-3.0,3.0,3.0,-3.0,-3.0,-3.0,-3.0,-3.0,-3.0,-3.0
2025-06-06 14:09:19.863,-0.018538551,-0.03591605,0.01265812,0.044680916,-0.01610098,0.04014619,0.0,0.0,0.0,0.01723124,-0.17844716,0.5952953,-0.14007069,0.16214846,0.60489595,-0.20095496,-0.15481725,-0.6032807,-0.2328894,-0.08070611,-0.65142316,-0.22164889,0.018170392,-0.0682439,0.054547492,-0.0275458,-0.06724645,-0.053912997,0.0057004443,0.0708981,-0.062471647,-0.068032466,0.060041744,-0.036783516,-3.0,3.0,-3.0,3.0,3.0,-3.0,-3.0,-3.0,-3.0,-3.0,-3.0,-3.0,-3.0,3.0,-3.0,3.0,3.0,-3.0,-3.0,-3.0,-3.0,-3.0,-3.0,-3.0
2025-06-06 14:09:19.885,0.00824734,-0.042118527,0.04981179,0.088652454,0.006056722,0.00042812777,0.0,0.0,0.0,0.017231237,-0.16948506,0.59999037,-0.1339218,0.15652215,0.58907485,-0.19676746,-0.1503339,-0.6032821,-0.24002741,-0.081496336,-0.66431564,-0.21826525,-0.061545134,-0.06294023,-0.0018055859,-0.044628102,-0.0043747555,0.0367435,0.035126306,-0.062071856,-0.019814717,0.047885686,0.046003543,-0.006667219,-3.0,3.0,-3.0,3.0,3.0,-3.0,-3.0,-3.0,-3.0,-3.0,-3.0,-3.0,-3.0,3.0,-3.0,3.0,3.0,-3.0,-3.0,-3.0,-3.0,-3.0,-3.0,-3.0
2025-06-06 14:09:19.904,-0.030543815,-0.04177891,0.022787848,0.016800247,-0.036687344,-0.044533882,0.0,0.0,0.0,0.017231235,-0.17490725,0.59898347,-0.1495504,0.16009982,0.5904514,-0.18842015,-0.15204355,-0.5872782,-0.23891674,-0.0973644,-0.65815175,-0.22263621,-0.060769834,-0.015183838,0.03837566,-0.019544065,0.0039892355,0.06326062,0.067756414,-0.010367402,0.06724441,0.019702073,0.00904779,0.0037216567,-3.0,3.0,-3.0,3.0,3.0,-3.0,-3.0,-3.0,-3.0,-3.0,-3.0,-3.0,-3.0,3.0,-3.0,3.0,3.0,-3.0,-3.0,-3.0,-3.0,-3.0,-3.0,-3.0
2025-06-06 14:09:19.925,0.001268632,-0.033291932,-0.00060146855,0.0770722,-0.003247289,-0.007869161,0.0,0.0,0.0,0.017231233,-0.17714669,0.60584825,-0.13767767,0.15701397,0.59202826,-0.19257191,-0.15910105,-0.58536786,-0.24927485,-0.08969265,-0.66610193,-0.22162004,0.03572377,-0.008261333,-0.044545565,0.021005169,0.07126631,-0.06947883,-0.06166653,0.03218781,-0.008673973,0.062304046,0.030660301,0.031197177,-3.0,3.0,-3.0,3.0,3.0,-3.0,-3.0,-3.0,-3.0,-3.0,-3.0,-3.0,-3.0,3.0,-3.0,3.0,3.0,-3.0,-3.0,-3.0,-3.0,-3.0,-3.0,-3.0
2025-06-06 14:09:19.945,-0.027949056,0.011621908,0.044188045,0.041517463,0.03444693,0.022921138,0.0,0.0,0.0,0.017231233,-0.17315619,0.60123,-0.13321681,0.16534166,0.60392773,-0.19884121,-0.1489447,-0.5947657,-0.2497113,-0.08111307,-0.66309637,-0.21390656,-0.07103523,0.0036773907,-0.02328917,0.035128027,0.05853671,-0.068817906,-0.0032041126,0.060795736,0.015499487,-0.053736072,-0.05434786,0.012534232,-3.0,3.0,-3.0,3.0,3.0,-3.0,-3.0,-3.0,-3.0,-3.0,-3.0,-3.0,-3.0,3.0,-3.0,3.0,3.0,-3.0,-3.0,-3.0,-3.0,-3.0,-3.0,-3.0
2025-06-06 14:09:19.965,-0.04877787,-0.04279493,0.02304697,0.094861105,0.032423086,0.048891686,0.0,0.0,0.0,0.017231232,-0.1720135,0.5937795,-0.13797794,0.15446751,0.59387153,-0.20389807,-0.14557344,-0.60293335,-0.24806653,-0.08124304,-0.6541623,-0.22820401,-0.011982837,-0.013102065,0.008304054,-0.055053435,0.032875635,-0.0069682575,-0.040055677,-0.06772186,-0.044123568,-0.03997712,0.032452174,0.023536233,-3.0,3.0,-3.0,3.0,3.0,-3.0,-3.0,-3.0,-3.0,-3.0,-3.0,-3.0,-3.0,3.0,-3.0,3.0,3.0,-3.0,-3.0,-3.0,-3.0,-3.0,-3.0,-3.0
2025-06-06 14:09:19.985,-0.042242028,-0.031299222,-0.0017580551,0.0406649,0.016456572,0.029148923,0.0,0.0,0.0,0.017231232,-0.16951995,0.6050519,-0.14242132,0.1541317,0.5989353,-0.18786474,-0.14655687,-0.5916811,-0.2497596,-0.098049395,-0.65113544,-0.21007188,-0.053544935,0.05971667,-0.059230544,-0.019446686,0.03162346,-0.06199717,-0.03852886,-0.07290919,-0.0014882967,-0.027238967,0.052632928,-0.024554541,-3.0,3.0,-3.0,3.0,3.0,-3.0,-3.0,-3.0,-3.0,-3.0,-3.0,-3.0,-3.0,3.0,-3.0,3.0,3.0,-3.0,-3.0,-3.0,-3.0,-3.0,-3.0,-3.0
2025-06-06 14:09:20.007,0.025111876,0.036499877,0.04295693,0.09570893,-0.023242028,-0.0010097302,0.0,0.0,0.0,0.017231232,-0.17946593,0.5960096,-0.1328056,0.17066921,0.5931748,-0.19263275,-0.16127817,-0.5956543,-0.2472705,-0.08109084,-0.6561633,-0.2121617,-0.018346304,-0.016135452,0.037287526,0.034905918,-0.03532927,-0.032291114,-0.068939015,-0.042283643,-0.070149496,-0.05442064,0.046312924,-0.025013156,-3.0,3.0,-3.0,3.0,3.0,-3.0,-3.0,-3.0,-3.0,-3.0,-3.0,-3.0,-3.0,3.0,-3.0,3.0,3.0,-3.0,-3.0,-3.0,-3.0,-3.0,-3.0,-3.0
2025-06-06 14:09:20.025,-0.009553459,0.047863033,0.022878854,0.053519346,-0.0050152345,0.04834409,0.0,0.0,0.0,0.01723123,-0.17644112,0.6043998,-0.15215227,0.17048289,0.5921135,-0.20521829,-0.14690939,-0.59034646,-0.24154048,-0.09427706,-0.6657838,-0.22542587,0.042072315,-0.040620625,-0.060522318,-0.022973228,-0.032907832,-0.042551793,-0.004696357,-0.0016431349,0.05462101,-0.027132344,0.06894695,-0.02492832,-3.0,3.0,-3.0,3.0,3.0,-3.0,-3.0,-3.0,-3.0,-3.0,-3.0,-3.0,-3.0,3.0,-3.0,3.0,3.0,-3.0,-3.0,-3.0,-3.0,-3.0,-3.0,-3.0
2025-06-06 14:09:20.045,-0.03177436,0.036231317,0.039469607,0.10593948,0.05258983,-0.027133293,0.0,0.0,0.0,0.017231232,-0.17213573,0.59903383,-0.14220032,0.16058457,0.5896942,-0.19534706,-0.15099609,-0.5960283,-0.23351784,-0.09374896,-0.6610866,-0.21504992,0.024155507,-0.048928067,0.046704695,-0.008215921,-0.0013959038,-0.014516416,0.03544745,-0.0709915,0.072467126,-0.05088582,0.031149814,-0.041299433,-3.0,3.0,-3.0,3.0,3.0,-3.0,-3.0,-3.0,-3.0,-3.0,-3.0,-3.0,-3.0,3.0,-3.0,3.0,3.0,-3.0,-3.0,-3.0,-3.0,-3.0,-3.0,-3.0
2025-06-06 14:09:20.068,-0.008440924,-0.028329039,0.032044675,0.034378707,-0.008844364,0.034076527,0.0,0.0,0.0,0.017231232,-0.17212117,0.59294343,-0.148162,0.1723803,0.60422593,-0.19063327,-0.1561589,-0.58738256,-0.24901214,-0.08545829,-0.6543522,-0.22456275,0.029367395,0.035142638,-0.035642948,-0.01287624,0.0020167613,-0.0427255,0.048522156,-0.06605278,-0.06444985,-0.044620153,-0.025249189,0.034453172,-3.0,3.0,-3.0,3.0,3.0,-3.0,-3.0,-3.0,-3.0,-3.0,-3.0,-3.0,-3.0,3.0,-3.0,3.0,3.0,-3.0,-3.0,-3.0,-3.0,-3.0,-3.0,-3.0
2025-06-06 14:09:20.085,0.00037341408,0.007747909,-0.046600856,0.01761488,0.023319121,0.027907426,0.0,0.0,0.0,0.017231232,-0.1810014,0.603423,-0.1449407,0.15655616,0.59568715,-0.19573218,-0.16335323,-0.6031219,-0.23937143,-0.09078163,-0.6658845,-0.21721074,-0.025528641,0.042714093,0.0292642,-0.0057847626,-0.054592483,-0.045624003,-0.072238706,0.066297024,-0.020996956,-0.060325496,-0.061708882,-0.028378373,-3.0,3.0,-3.0,3.0,3.0,-3.0,-3.0,-3.0,-3.0,-3.0,-3.0,-3.0,-3.0,3.0,-3.0,3.0,3.0,-3.0,-3.0,-3.0,-3.0,-3.0,-3.0,-3.0
2025-06-06 14:09:20.106,-0.01912554,0.045106947,-0.037553515,0.047880217,-0.0011441931,0.036100477,0.0,0.0,0.0,0.017231232,-0.17624545,0.5882521,-0.13725288,0.16450474,0.60065556,-0.1919849,-0.15451322,-0.6032826,-0.23875275,-0.08465162,-0.6532333,-0.22143655,-0.0011919921,0.014935303,0.03556738,0.06027953,-0.05721392,0.0706648,-0.0147054875,-0.058157798,0.02028872,-0.032891367,0.01586829,-0.053785693,-3.0,3.0,-3.0,3.0,3.0,-3.0,-3.0,-3.0,-3.0,-3.0,-3.0,-3.0,-3.0,3.0,-3.0,3.0,3.0,-3.0,-3.0,-3.0,-3.0,-3.0,-3.0,-3.0
2025-06-06 14:09:20.126,-0.028027123,0.044693172,-0.042273853,0.05135811,0.058173247,-0.021714894,0.0,0.0,0.0,0.017231233,-0.17657745,0.59469044,-0.13277039,0.15582582,0.59528136,-0.19924824,-0.1543169,-0.5953662,-0.25050685,-0.0956447,-0.65457016,-0.22282593,-0.029955672,-0.01201759,-0.0160015,0.00031566422,0.033905208,0.010147595,-0.028365666,-0.048300087,-0.0008240508,-0.0088766515,0.023909176,0.052074697,-3.0,3.0,-3.0,3.0,3.0,-3.0,-3.0,-3.0,-3.0,-3.0,-3.0,-3.0,-3.0,3.0,-3.0,3.0,3.0,-3.0,-3.0,-3.0,-3.0,-3.0,-3.0,-3.0
2025-06-06 14:09:20.146,-0.04285642,0.027244467,0.046608303,0.04606619,-0.010484001,0.047159743,0.0,0.0,0.0,0.017231233,-0.16768557,0.60269403,-0.13700724,0.17236228,0.59141874,-0.20156418,-0.1627155,-0.59012514,-0.24012886,-0.08749943,-0.66556376,-0.2204038,-0.009633144,0.06466257,0.039189,0.025635876,-0.0062971264,0.062350273,0.06716991,-0.039866418,-0.022882503,-0.06625427,0.0018947982,0.024115028,-3.0,3.0,-3.0,3.0,3.0,-3.0,-3.0,-3.0,-3.0,-3.0,-3.0,-3.0,-3.0,3.0,-3.0,3.0,3.0,-3.0,-3.0,-3.0,-3.0,-3.0,-3.0,-3.0
2025-06-06 14:09:20.168,-0.0012452923,-0.039557535,-0.039140284,0.031059787,-0.020759588,0.0023649237,0.0,0.0,0.0,0.017231233,-0.16864857,0.5870916,-0.14431548,0.15565737,0.5882721,-0.19829977,-0.16157974,-0.58651036,-0.24714853,-0.08520796,-0.6620324,-0.21057582,0.06557995,-0.006756658,0.064330585,0.02414176,0.05333071,0.02053994,-0.061866473,0.04753375,-0.07055388,-0.042836566,0.05449887,0.060069457,-3.0,3.0,-3.0,3.0,3.0,-3.0,-3.0,-3.0,-3.0,-3.0,-3.0,-3.0,-3.0,3.0,-3.0,3.0,3.0,-3.0,-3.0,-3.0,-3.0,-3.0,-3.0,-3.0
2025-06-06 14:09:20.190,0.027553966,0.0149436,-0.012736653,0.042922158,-0.012487682,0.03824468,0.0,0.0,0.0,0.017231235,-0.1840329,0.60279256,-0.14765441,0.16664141,0.5911916,-0.18643269,-0.1610921,-0.59229666,-0.23709992,-0.09989839,-0.6669294,-0.21678358,-0.03371818,-0.056988187,-0.067482784,0.06666186,-0.022566237,-0.037674565,-0.06253049,0.02112761,0.00845802,0.0011253315,0.0373803,-0.011451202,-3.0,3.0,-3.0,3.0,3.0,-3.0,-3.0,-3.0,-3.0,-3.0,-3.0,-3.0,-3.0,3.0,-3.0,3.0,3.0,-3.0,-3.0,-3.0,-3.0,-3.0,-3.0,-3.0
2025-06-06 14:09:20.208,0.021134714,0.040605363,0.019890405,0.036630783,0.030837106,0.042171422,0.0,0.0,0.0,0.017231235,-0.16686022,0.6011964,-0.13515556,0.16201971,0.60289806,-0.19310346,-0.1449602,-0.6010982,-0.23661093,-0.097087085,-0.6600804,-0.22586752,-0.020501358,-0.062027056,-0.025098048,0.053460434,0.010000131,0.013221981,0.07176734,0.05333705,0.06510859,0.066840544,-0.03151006,-0.0112375505,-3.0,3.0,-3.0,3.0,3.0,-3.0,-3.0,-3.0,-3.0,-3.0,-3.0,-3.0,-3.0,3.0,-3.0,3.0,3.0,-3.0,-3.0,-3.0,-3.0,-3.0,-3.0,-3.0
2025-06-06 14:09:20.228,-0.020485176,-0.036267027,-0.034272674,0.09244306,0.021502232,0.021600023,0.0,0.0,0.0,0.017231235,-0.16721617,0.5877163,-0.14309038,0.15817036,0.60360694,-0.19001065,-0.14942181,-0.5980867,-0.24527991,-0.08843293,-0.6539833,-0.21999906,0.034347378,-0.022674305,-0.0053116092,-0.036912587,-0.026977617,0.020898165,-0.02997913,0.06591038,0.061201807,0.02924057,-0.023678176,0.036496796,-3.0,3.0,-3.0,3.0,3.0,-3.0,-3.0,-3.0,-3.0,-3.0,-3.0,-3.0,-3.0,3.0,-3.0,3.0,3.0,-3.0,-3.0,-3.0,-3.0,-3.0,-3.0,-3.0
2025-06-06 14:09:20.248,-0.024613831,0.0011639488,0.032799974,0.06333551,-0.01727678,-0.046827745,0.0,0.0,0.0,0.017231235,-0.1689281,0.5963111,-0.13939752,0.15679723,0.60063463,-0.19293387,-0.14705193,-0.5879373,-0.23305517,-0.08486321,-0.6625095,-0.22619937,-0.008874602,-0.014536058,-0.06547836,0.01264988,-0.021981515,-0.033241335,0.059653044,-0.027912738,0.016139682,0.010813202,0.028523427,0.047928274,-3.0,3.0,-3.0,3.0,3.0,-3.0,-3.0,-3.0,-3.0,-3.0,-3.0,-3.0,-3.0,3.0,-3.0,3.0,3.0,-3.0,-3.0,-3.0,-3.0,-3.0,-3.0,-3.0
2025-06-06 14:09:20.268,0.024166144,0.033180673,0.036005173,0.10163752,0.039533198,-0.016524905,0.0,0.0,0.0,0.017231235,-0.16684508,0.6030345,-0.14796409,0.16809614,0.60199153,-0.20240705,-0.14902583,-0.5976373,-0.24499324,-0.0903506,-0.6577107,-0.22225688,0.020179102,-0.016400835,-0.031960998,-0.021202486,-0.031661738,-0.0018186086,-0.03642787,0.0071325907,0.041022364,0.056934215,0.0238609,0.030683052,-3.0,3.0,-3.0,3.0,3.0,-3.0,-3.0,-3.0,-3.0,-3.0,-3.0,-3.0,-3.0,3.0,-3.0,3.0,3.0,-3.0,-3.0,-3.0,-3.0,-3.0,-3.0,-3.0
2025-06-06 14:09:20.289,-0.040806733,0.0447971,-0.021027967,0.073037334,0.0010948718,-0.038611088,0.0,0.0,0.0,0.017231235,-0.17146042,0.59638053,-0.1452023,0.17156664,0.59356195,-0.2021723,-0.1620633,-0.6030598,-0.2338706,-0.09897752,-0.66824853,-0.21910115,-0.039739583,0.027308922,-0.024916297,-0.008348102,0.05839221,0.021860244,-0.003554725,-0.021206683,0.051750995,-0.026087314,-0.008815379,-0.061798364,-3.0,3.0,-3.0,3.0,3.0,-3.0,-3.0,-3.0,-3.0,-3.0,-3.0,-3.0,-3.0,3.0,-3.0,3.0,3.0,-3.0,-3.0,-3.0,-3.0,-3.0,-3.0,-3.0
2025-06-06 14:09:20.309,0.019970952,0.006039598,-0.044269335,0.025718704,0.003737298,0.0029246218,0.0,0.0,0.0,0.017231235,-0.18067703,0.59260905,-0.13655354,0.1703226,0.60139847,-0.19482617,-0.1574661,-0.5919761,-0.24828553,-0.08727456,-0.6666129,-0.21805187,0.004529831,-0.0672296,0.0031051727,-0.036763072,0.043309543,-0.03679189,-0.06979263,0.030962277,-0.043676484,0.06786241,0.012073868,-0.007781564,-3.0,3.0,-3.0,3.0,3.0,-3.0,-3.0,-3.0,-3.0,-3.0,-3.0,-3.0,-3.0,3.0,-3.0,3.0,3.0,-3.0,-3.0,-3.0,-3.0,-3.0,-3.0,-3.0
2025-06-06 14:09:20.330,0.03718052,-0.037509266,-0.006308262,0.10381235,0.05499562,-0.015388789,0.0,0.0,0.0,0.017231235,-0.17312814,0.5977306,-0.1523633,0.16245621,0.6046289,-0.2047796,-0.15602648,-0.59372544,-0.2341614,-0.089607894,-0.65368575,-0.21791713,0.074943766,0.056919552,0.032863192,0.043017182,-0.07317927,-0.011213148,-0.05772479,-0.009181663,-0.054160047,-0.07049483,0.011002924,-0.035386488,-3.0,3.0,-3.0,3.0,3.0,-3.0,-3.0,-3.0,-3.0,-3.0,-3.0,-3.0,-3.0,3.0,-3.0,3.0,3.0,-3.0,-3.0,-3.0,-3.0,-3.0,-3.0,-3.0
2025-06-06 14:09:20.352,0.015108934,-0.04171749,-0.0098027,0.039099623,-0.008204732,-0.00418775,0.0,0.0,0.0,0.017231235,-0.18435681,0.6055354,-0.14249691,0.16346005,0.6065023,-0.19387646,-0.1645833,-0.5898218,-0.24073623,-0.08130555,-0.66704035,-0.2219581,-0.048908748,0.010008223,-0.00074551924,0.036354315,0.003990599,-0.02439348,0.0044232933,-0.039785843,0.07375607,0.051134776,-0.0034535984,-0.051471587,-3.0,3.0,-3.0,3.0,3.0,-3.0,-3.0,-3.0,-3.0,-3.0,-3.0,-3.0,-3.0,3.0,-3.0,3.0,3.0,-3.0,-3.0,-3.0,-3.0,-3.0,-3.0,-3.0
2025-06-06 14:09:20.370,0.04073189,0.0125964,0.025250446,0.03830117,-0.013640838,0.045921512,0.0,0.0,0.0,0.017231235,-0.16887474,0.5980085,-0.15136853,0.1681281,0.60547805,-0.19784881,-0.16187033,-0.5944366,-0.24926256,-0.08974884,-0.66671205,-0.22757569,0.051523883,0.0694892,0.032636594,-0.006060125,-0.0496275,-0.0031120547,0.05860002,-0.033433307,-0.0048815343,-0.0605476,0.019319618,-0.04467286,-3.0,3.0,-3.0,3.0,3.0,-3.0,-3.0,-3.0,-3.0,-3.0,-3.0,-3.0,-3.0,3.0,-3.0,3.0,3.0,-3.0,-3.0,-3.0,-3.0,-3.0,-3.0,-3.0
2025-06-06 14:09:20.390,-0.024136927,-0.01678801,-0.040428367,0.0808713,-0.010273639,-0.043356277,0.0,0.0,0.0,0.017231235,-0.16801946,0.60671276,-0.1513758,0.1725619,0.60546243,-0.1890481,-0.1493671,-0.6007122,-0.24485518,-0.08524597,-0.6548231,-0.22276446,-0.071180254,-0.051912423,-0.06430568,0.0137292165,-0.03550365,-0.026312308,0.020913813,0.032451596,0.04157891,0.07017955,-0.032462247,0.040220175,-3.0,3.0,-3.0,3.0,3.0,-3.0,-3.0,-3.0,-3.0,-3.0,-3.0,-3.0,-3.0,3.0,-3.0,3.0,3.0,-3.0,-3.0,-3.0,-3.0,-3.0,-3.0,-3.0
2025-06-06 14:09:20.410,-0.00786164,0.030648477,-0.041107707,0.106718734,-0.0054207747,-0.027534077,0.0,0.0,0.0,0.017231235,-0.1851212,0.5980901,-0.15110561,0.16265407,0.5961152,-0.18652847,-0.14523226,-0.59893024,-0.24373804,-0.0966346,-0.6644009,-0.21904327,0.0010210841,-0.045170512,-0.011126757,-0.06509898,0.014905162,0.07166236,-0.026076566,-0.071839415,-0.026893929,0.009147395,-0.0076712775,0.046078328,-3.0,3.0,-3.0,3.0,3.0,-3.0,-3.0,-3.0,-3.0,-3.0,-3.0,-3.0,-3.0,3.0,-3.0,3.0,3.0,-3.0,-3.0,-3.0,-3.0,-3.0,-3.0,-3.0
2025-06-06 14:09:20.430,-0.04071828,0.01485768,-0.017224532,0.084819384,0.002655816,-0.042996805,0.0,0.0,0.0,0.017231235,-0.17488334,0.6056348,-0.15224704,0.16451485,0.60479665,-0.20022485,-0.14618534,-0.5988654,-0.23700419,-0.08559237,-0.6581897,-0.2171619,-0.03160166,0.060634743,0.0688108,-0.07490673,-0.034985557,0.023825115,0.055172175,0.06113625,0.05140738,0.012732739,0.0050747315,-0.03253778,-3.0,3.0,-3.0,3.0,3.0,-3.0,-3.0,-3.0,-3.0,-3.0,-3.0,-3.0,-3.0,3.0,-3.0,3.0,3.0,-3.0,-3.0,-3.0,-3.0,-3.0,-3.0,-3.0
2025-06-06 14:09:20.452,0.026171096,-0.012191506,0.015347215,0.08186866,0.034111716,0.023066431,0.0,0.0,0.0,0.017231235,-0.16821113,0.5915504,-0.13860908,0.15687487,0.6024276,-0.19034368,-0.1599739,-0.60177886,-0.24015486,-0.085348606,-0.6689552,-0.22818069,0.07275244,-0.023913905,0.013232393,0.012336525,-0.0040521654,0.030451192,0.048913956,-0.04048036,-0.05190253,0.024207687,0.06933605,0.039959878,-3.0,3.0,-3.0,3.0,3.0,-3.0,-3.0,-3.0,-3.0,-3.0,-3.0,-3.0,-3.0,3.0,-3.0,3.0,3.0,-3.0,-3.0,-3.0,-3.0,-3.0,-3.0,-3.0
2025-06-06 14:09:20.470,0.017057704,-0.0062894695,0.0017963416,0.1017127,-0.029125568,-0.00731019,0.0,0.0,0.0,0.017231235,-0.18172356,0.5994358,-0.13756959,0.15367413,0.60171944,-0.19112684,-0.15619637,-0.58691293,-0.24491887,-0.09302758,-0.6591236,-0.21421266,0.04948582,-0.010952298,-0.062674366,0.034124218,0.024670627,0.03966678,-0.018637765,0.019459682,-0.046747517,0.052620713,-0.060179006,0.06635342,-3.0,3.0,-3.0,3.0,3.0,-3.0,-3.0,-3.0,-3.0,-3.0,-3.0,-3.0,-3.0,3.0,-3.0,3.0,3.0,-3.0,-3.0,-3.0,-3.0,-3.0,-3.0,-3.0
2025-06-06 14:09:20.490,0.042328242,0.030087398,0.0046551903,0.049140487,0.014004905,0.010188408,0.0,0.0,0.0,0.017231235,-0.18454646,0.60395753,-0.14444402,0.16914304,0.60308367,-0.19418915,-0.16065969,-0.59074056,-0.24159695,-0.095616244,-0.65310735,-0.2228273,0.018526953,0.032355595,-0.026895693,0.00018707711,-0.061094016,-0.03631535,-0.04004117,0.0024896346,0.04131922,0.07126498,-0.0049932813,0.057619985,-3.0,3.0,-3.0,3.0,3.0,-3.0,-3.0,-3.0,-3.0,-3.0,-3.0,-3.0,-3.0,3.0,-3.0,3.0,3.0,-3.0,-3.0,-3.0,-3.0,-3.0,-3.0,-3.0
2025-06-06 14:09:20.511,0.047474157,0.045041732,0.040256314,0.060620513,0.008866321,-0.03563466,0.0,0.0,0.0,0.017231235,-0.16751844,0.5894066,-0.13852769,0.16785696,0.60611665,-0.1883285,-0.15843593,-0.58478725,-0.246634,-0.09176243,-0.6586134,-0.22080037,0.06507683,0.031163938,-0.073960654,-0.06096853,-0.06564438,-0.0033426816,-0.036865465,0.038573775,-0.042831052,0.00898759,-0.06629843,0.016231831,-3.0,3.0,-3.0,3.0,3.0,-3.0,-3.0,-3.0,-3.0,-3.0,-3.0,-3.0,-3.0,3.0,-3.0,3.0,3.0,-3.0,-3.0,-3.0,-3.0,-3.0,-3.0,-3.0
2025-06-06 14:09:20.530,0.047004912,-0.016761208,0.04321325,0.09462407,0.057755385,-0.0025681062,0.0,0.0,0.0,0.017231235,-0.18453339,0.60266215,-0.13568127,0.16075096,0.59499896,-0.19455944,-0.15107888,-0.60226077,-0.25066867,-0.08235578,-0.66341466,-0.21161482,0.06428186,-0.058260515,0.01219953,0.05137845,0.01756297,0.019243894,-0.028629858,-0.054280378,0.01370292,-0.009621641,-0.053072423,0.015858771,-3.0,3.0,-3.0,3.0,3.0,-3.0,-3.0,-3.0,-3.0,-3.0,-3.0,-3.0,-3.0,3.0,-3.0,3.0,3.0,-3.0,-3.0,-3.0,-3.0,-3.0,-3.0,-3.0
2025-06-06 14:09:20.552,0.04915565,-0.04503183,-0.005766528,0.022945754,-0.018382546,-0.0031150656,0.0,0.0,0.0,0.017231235,-0.18432102,0.59767497,-0.14359446,0.1721501,0.6053245,-0.19679292,-0.15493765,-0.59325224,-0.2480871,-0.080732815,-0.6572736,-0.22848797,0.038253933,0.043846585,-0.045352183,0.07121568,-0.020717783,0.054441616,-0.034430094,0.028369958,0.02693751,0.011386641,-0.0645871,0.054934185,-3.0,3.0,-3.0,3.0,3.0,-3.0,-3.0,-3.0,-3.0,-3.0,-3.0,-3.0,-3.0,3.0,-3.0,3.0,3.0,-3.0,-3.0,-3.0,-3.0,-3.0,-3.0,-3.0
2025-06-06 14:09:20.570,-0.029811624,-0.035530303,0.030047411,0.028506424,-0.030151416,-0.017634526,0.0,0.0,0.0,0.017231235,-0.17817028,0.58811235,-0.13359228,0.16382812,0.5924672,-0.20216163,-0.15503868,-0.60264224,-0.251321,-0.09248132,-0.66826653,-0.22278583,-0.020888984,-0.00037980074,0.042819154,0.037405755,0.065610595,-0.06181951,0.016973868,0.005500427,-0.03758485,-0.022130344,0.051236548,0.071303114,-3.0,3.0,-3.0,3.0,3.0,-3.0,-3.0,-3.0,-3.0,-3.0,-3.0,-3.0,-3.0,3.0,-3.0,3.0,3.0,-3.0,-3.0,-3.0,-3.0,-3.0,-3.0,-3.0
2025-06-06 14:09:20.591,0.013687097,0.011463165,-0.040728364,0.09479983,0.03755921,-0.017646058,0.0,0.0,0.0,0.017231235,-0.17011945,0.5971822,-0.14676999,0.16609281,0.58871204,-0.19416556,-0.16088793,-0.5918513,-0.2465021,-0.09031699,-0.66097397,-0.21561497,0.025207594,-0.062001392,-0.04512935,-0.0071871625,-0.044889826,0.059386503,-0.0060079745,-0.023778033,-0.032719936,-0.044130314,-0.05354244,0.060950853,-3.0,3.0,-3.0,3.0,3.0,-3.0,-3.0,-3.0,-3.0,-3.0,-3.0,-3.0,-3.0,3.0,-3.0,3.0,3.0,-3.0,-3.0,-3.0,-3.0,-3.0,-3.0,-3.0
