openverse-orca/OrcaGym/log/simulation_log_20250604_102230.csv
timestamp,imu_angle_roll,imu_angle_pitch,imu_angle_yaw,imu_angular_velocity_roll,imu_angular_velocity_pitch,imu_angular_velocity_yaw,imu_acc_x,imu_acc_y,imu_acc_z,fl_joint1_pos,fl_joint1_vel,fl_joint1_torque,fl_joint2_pos,fl_joint2_vel,fl_joint2_torque,fl_joint3_pos,fl_joint3_vel,fl_joint3_torque,fr_joint1_pos,fr_joint1_vel,fr_joint1_torque,fr_joint2_pos,fr_joint2_vel,fr_joint2_torque,fr_joint3_pos,fr_joint3_vel,fr_joint3_torque,hl_joint1_pos,hl_joint1_vel,hl_joint1_torque,hl_joint2_pos,hl_joint2_vel,hl_joint2_torque,hl_joint3_pos,hl_joint3_vel,hl_joint3_torque,hr_joint1_pos,hr_joint1_vel,hr_joint1_torque,hr_joint2_pos,hr_joint2_vel,hr_joint2_torque,hr_joint3_pos,hr_joint3_vel,hr_joint3_torque,fl_force_x,fl_force_y,fl_force_z,fr_force_x,fr_force_y,fr_force_z,hl_force_x,hl_force_y,hl_force_z,hr_force_x,hr_force_y,hr_force_z,fl_hip_action,fl_thigh_action,fl_calf_action,fr_hip_action,fr_thigh_action,fr_calf_action,hl_hip_action,hl_thigh_action,hl_calf_action,hr_hip_action,hr_thigh_action,hr_calf_action
2025-06-04 10:22:30.727,0.039911937,-0.028454995,-0.038287178,-0.01617675,0.0107937725,0.0043343683,0.8486022,0.0,0.0,0.0,0.0013624699,-0.0016187535,-0.00037293625,-0.0012110799,-0.0058614826,-0.007873433,0.0005993888,0.0037425375,0.00014383992,0.007957514,-0.0013417425,-0.008532168,0.053969588,0.04617925,-0.007283404,-0.03576883,-0.047231898,-0.030592637,0.050818652,-0.045167375,-0.026648542,-0.019858215,-0.018626777,0.037098285,0.0,0.0,0.0,0.0,0.0,0.0,0.0,0.0,0.0,0.0,0.0,0.0,1.0,1.0,1.0,-1.0,-1.0,-1.0,-1.0,-1.0,-1.0,1.0,-1.0,-1.0
2025-06-04 10:22:30.731,0.12644723,-0.13550767,0.027909115,0.0028531554,0.022644302,-0.024931714,0.0,0.0,0.0,0.0,0.022204027,0.059351217,0.030767204,-0.014192971,-0.05725334,-0.03473512,-0.0050666034,-0.0677706,-0.031741835,0.016170029,-0.0712787,-0.03822857,0.0899501,0.21816051,0.14224273,-0.08487839,-0.2298936,-0.15780774,-0.025751894,-0.12951416,-0.10104523,0.069232315,-0.26362994,-0.1542649,1.0,1.0,1.0,-1.0,-1.0,-1.0,-1.0,-1.0,-1.0,1.0,-1.0,-1.0,-1.0,-1.0,1.0,-1.0,1.0,-1.0,1.0,-1.0,-1.0,1.0,-1.0,1.0
2025-06-04 10:22:30.752,-0.10493976,-0.11046492,-0.11440097,-0.028660782,-0.010149186,-0.038701594,0.0,0.0,0.0,-0.0008155074,0.010957129,0.0026285443,0.07986507,-0.032259002,-0.020714909,-0.08420546,-0.0026297555,-0.13087165,-0.07327712,0.035908382,-0.1433244,0.008035795,-0.071877405,-0.20149703,0.07384011,-0.014762999,0.061063513,-0.024578478,0.023254788,-0.13661122,-0.064725965,-0.036585126,-0.22357996,0.1437404,-1.0,-1.0,1.0,-1.0,1.0,-1.0,1.0,-1.0,-1.0,1.0,-1.0,1.0,-1.0,1.0,1.0,-1.0,-1.0,-1.0,1.0,-1.0,-1.0,1.0,1.0,1.0
2025-06-04 10:22:30.772,0.038816825,-0.07249031,-0.04078304,0.009421622,-0.0030338813,-0.031513423,0.0,0.0,0.0,0.00018880109,-0.015864536,0.051465843,0.11447583,-0.042780645,-0.04506454,-0.06561612,-0.004549821,-0.17740002,-0.058597814,0.042580787,-0.0643978,0.045806978,-0.10821199,0.11997949,0.04770442,-0.00807224,-0.1434283,0.031917304,0.057225965,-0.131717,0.11366143,0.051299352,0.3057618,0.03451054,-1.0,1.0,1.0,-1.0,-1.0,-1.0,1.0,-1.0,-1.0,1.0,1.0,1.0,-1.0,1.0,1.0,-1.0,1.0,-1.0,1.0,-1.0,-1.0,1.0,1.0,1.0
2025-06-04 10:22:30.793,-0.07599981,-0.088837065,-0.08772524,-0.04227619,-0.05728997,0.032295126,0.0,0.0,0.0,0.0008322726,-0.016407058,0.13035601,0.12580189,-0.040359743,-0.05606931,-0.044950243,0.0054054786,-0.23265201,-0.039295,0.05333571,0.02440613,0.077093124,-0.06572161,0.19178532,0.05321874,-0.0898873,0.022335226,0.072966896,0.06711242,-0.069605425,0.14034191,-0.039501112,0.20730639,0.07310698,-1.0,1.0,1.0,-1.0,1.0,-1.0,1.0,-1.0,-1.0,1.0,1.0,1.0,-1.0,1.0,1.0,-1.0,-1.0,-1.0,1.0,-1.0,-1.0,1.0,1.0,1.0
2025-06-04 10:22:30.813,0.030052673,-0.1163625,-0.042878173,0.021636877,-0.011134097,0.0060994695,0.0,0.0,0.0,0.002030287,-0.02873111,0.18268588,0.15899469,-0.038462818,-0.082844876,-0.041985057,-0.0007861989,-0.25758013,-0.013730414,0.053422917,0.1054618,0.11814844,-0.045751717,0.15960537,0.065149665,0.00046003345,-0.100445926,-0.028885,-0.041443683,-0.031249853,0.07798633,0.042429138,0.2019159,0.09745688,-1.0,1.0,1.0,-1.0,-1.0,-1.0,1.0,-1.0,-1.0,1.0,1.0,1.0,-1.0,1.0,1.0,-1.0,1.0,-1.0,1.0,-1.0,-1.0,1.0,1.0,1.0
2025-06-04 10:22:30.836,-0.09514322,-0.09146234,-0.06984816,-0.036755502,-0.005358826,0.026357297,0.0,0.0,0.0,0.0028414568,-0.040042963,0.23477331,0.16151676,-0.049280416,-0.086321615,-0.05667591,0.017186243,-0.2806826,0.009716369,0.055805292,0.18041962,0.1427705,-0.06316627,0.1557396,0.086608306,-0.08730837,0.07550707,-0.021576831,-0.03284439,0.0073877578,0.050574984,-0.038771193,0.22702096,0.029503064,-1.0,1.0,1.0,-1.0,1.0,-1.0,1.0,-1.0,-1.0,1.0,1.0,1.0,-1.0,1.0,1.0,-1.0,-1.0,-1.0,1.0,-1.0,-1.0,1.0,1.0,1.0
2025-06-04 10:22:30.852,0.013920144,-0.13173902,-0.05562591,-0.048116367,-0.07717481,-0.022371525,0.0,0.0,0.0,0.004507134,-0.05480223,0.28492585,0.17672792,-0.05740325,-0.11898767,-0.056385558,0.025350804,-0.29898375,0.009189034,0.05491186,0.2377101,0.15284199,0.0028008278,0.07768318,0.09018066,-0.079505235,-0.12525122,-0.03058256,0.025400408,-0.08663535,0.016425978,-0.032797467,0.12943316,0.00092478684,-1.0,1.0,1.0,-1.0,-1.0,-1.0,1.0,-1.0,-1.0,1.0,1.0,1.0,-1.0,1.0,1.0,-1.0,-1.0,-1.0,1.0,-1.0,-1.0,1.0,1.0,1.0
2025-06-04 10:22:30.872,0.16195378,0.035660837,-0.04515888,-0.07423916,-0.05091761,0.0011521679,0.0,0.0,0.0,0.0063450155,-0.0546051,0.32253242,0.19235143,-0.05114046,-0.18301779,-0.074721925,0.04309242,-0.3200148,0.007121605,0.06344168,0.26859438,0.17416501,-0.062094398,0.070774175,-0.01857333,-0.013060692,-0.085765615,-0.049438946,0.05542805,0.024296867,-0.07095095,0.032700554,0.14084302,-0.007683578,-1.0,1.0,1.0,-1.0,-1.0,-1.0,1.0,-1.0,-1.0,1.0,1.0,1.0,-1.0,1.0,1.0,-1.0,-1.0,-1.0,1.0,-1.0,-1.0,1.0,1.0,1.0
2025-06-04 10:22:30.892,0.06807146,0.047524463,-0.012689877,-0.040557962,-0.049844135,-0.0338629,0.0,0.0,0.0,0.007367568,-0.060518105,0.3459476,0.20676555,-0.055601705,-0.21731885,-0.08880202,0.04608791,-0.3334862,-0.0035748074,0.07628899,0.30129802,0.1838092,0.04477977,0.026045488,-0.026392037,0.059291765,-0.03026338,0.019016737,0.036556754,-0.057097122,0.0016808897,0.032483432,0.012024757,-0.015017318,-1.0,1.0,1.0,-1.0,-1.0,-1.0,1.0,-1.0,-1.0,1.0,1.0,1.0,-1.0,1.0,-1.0,-1.0,-1.0,-1.0,1.0,-1.0,-1.0,1.0,1.0,1.0
2025-06-04 10:22:30.912,0.14143184,0.027018813,-0.01491635,-0.037552983,-0.079709284,-0.037338722,0.0,0.0,0.0,0.007890601,-0.067523666,0.3827502,0.1353245,-0.058282457,-0.24416243,-0.10304654,0.05155608,-0.36507988,-0.003018965,0.079962604,0.34160054,0.21019985,-0.08277707,-0.006075947,-0.15396361,0.027113201,-0.13636413,-0.059596166,-0.02193894,-0.116096966,-0.014107095,0.019297782,0.032640316,-0.044409253,-1.0,1.0,-1.0,-1.0,-1.0,-1.0,1.0,-1.0,-1.0,1.0,1.0,1.0,1.0,-1.0,-1.0,-1.0,-1.0,1.0,-1.0,-1.0,-1.0,1.0,-1.0,-1.0
2025-06-04 10:22:30.936,0.077604055,0.12371011,0.12468611,-0.040574778,-0.0365365,-0.009938911,0.0,0.0,0.0,0.007668309,-0.042816505,0.2620263,0.07925747,-0.06654449,-0.30563447,-0.044571046,0.060671363,-0.38214442,-0.007243332,0.07192216,0.23708367,0.12985879,0.005835186,-0.2622768,-0.2248808,0.03333592,-0.16814397,0.2062671,0.019849284,-0.08525125,-0.009479921,-0.032673042,-0.24819772,-0.22784118,1.0,-1.0,-1.0,-1.0,-1.0,1.0,-1.0,-1.0,-1.0,1.0,-1.0,-1.0,1.0,-1.0,-1.0,1.0,-1.0,1.0,-1.0,-1.0,1.0,-1.0,-1.0,-1.0
2025-06-04 10:22:30.953,0.017168231,0.23442361,0.14350587,0.012262483,-0.061349034,0.034483895,0.0,0.0,0.0,0.0058102487,-0.021111356,0.13111773,0.016806906,-0.030927308,-0.32943404,0.0019751647,0.023946783,-0.41554672,0.014146569,0.05171498,0.119498014,0.06269943,0.06658855,-0.30824274,-0.15574296,0.015517953,-0.052150197,0.13805865,-0.086059876,-0.028354334,0.15936911,-0.08264336,-0.239056,-0.15053527,1.0,-1.0,-1.0,1.0,-1.0,1.0,-1.0,-1.0,1.0,-1.0,-1.0,-1.0,1.0,-1.0,-1.0,1.0,1.0,1.0,-1.0,-1.0,1.0,-1.0,-1.0,-1.0
2025-06-04 10:22:30.973,-0.15533464,0.074919455,0.11783705,0.01358204,-0.065887704,0.017015073,0.0,0.0,0.0,0.002556787,-0.01827375,0.049507104,0.0036356174,-0.004547849,-0.23413873,0.04833775,0.01377934,-0.4177994,0.060010437,0.022839332,0.038680892,0.063139744,-0.058648262,-0.17894337,0.08970503,0.11793154,0.26822916,0.0423632,-0.027782893,-0.06049055,0.13416398,-0.079003,-0.14996606,-0.045483522,1.0,-1.0,-1.0,1.0,1.0,1.0,-1.0,-1.0,1.0,-1.0,-1.0,-1.0,1.0,-1.0,-1.0,1.0,1.0,1.0,-1.0,-1.0,1.0,-1.0,-1.0,-1.0
2025-06-04 10:22:30.993,-0.17446806,-0.13133465,-0.0016441979,-0.037138164,-0.053131618,-0.039016183,0.0,0.0,0.0,-0.00017379297,-0.0064240117,-0.012400135,0.023726594,0.009240583,-0.1891027,0.07680247,-0.009653618,-0.43387565,0.08957722,0.006248536,-0.024204241,0.06712863,-0.08903528,-0.10352117,0.102367885,0.07663512,0.17597286,0.07897255,-0.03362975,-0.048845798,0.142487,0.0085434755,-0.17457038,0.12956844,1.0,-1.0,-1.0,1.0,1.0,1.0,-1.0,-1.0,1.0,-1.0,-1.0,-1.0,1.0,1.0,-1.0,1.0,1.0,1.0,-1.0,-1.0,1.0,-1.0,-1.0,-1.0
2025-06-04 10:22:31.013,0.1915601,-0.03972434,0.09624636,-0.028582213,-0.052633695,-0.01018606,0.0,0.0,0.0,-0.0003013787,-0.023513943,-0.035780556,0.033601522,0.0239532,-0.07289535,0.117014185,-0.012683262,-0.43359068,0.11711333,0.012396583,-0.07126727,0.09234383,0.055231646,0.02469538,-0.06607453,0.039871614,0.21435145,0.0005280254,0.0533417,0.060348935,0.06483767,-0.014876181,-0.14902732,0.06355651,1.0,1.0,-1.0,1.0,1.0,1.0,-1.0,-1.0,1.0,-1.0,-1.0,-1.0,1.0,-1.0,-1.0,1.0,1.0,1.0,-1.0,-1.0,1.0,-1.0,-1.0,-1.0
2025-06-04 10:22:31.036,0.010685513,-0.15333708,0.053836077,-0.005532032,-0.017982677,-0.022367274,0.0,0.0,0.0,-0.0012387291,-0.019774523,-0.06364384,0.0131221935,0.041221447,0.016187558,0.12789656,-0.025341194,-0.4345206,0.1579161,0.012266514,-0.12572162,0.098303415,-0.034791205,-0.14974184,-0.094202295,0.02689496,0.28120494,0.11585593,0.01792053,-0.08799622,0.090104476,-0.0017719658,-0.11818386,0.05222307,1.0,-1.0,-1.0,1.0,1.0,1.0,-1.0,-1.0,1.0,-1.0,-1.0,-1.0,1.0,-1.0,-1.0,1.0,1.0,1.0,-1.0,-1.0,1.0,-1.0,-1.0,-1.0
2025-06-04 10:22:31.053,-0.15320078,-0.1461953,0.120909795,-0.008269704,-0.06611982,0.0028539621,0.0,0.0,0.0,-0.0026745084,-0.013474894,-0.123397216,-0.0052926484,0.041046645,0.10576835,0.16568379,-0.03340054,-0.45390788,0.17294158,-0.00047238127,-0.16862243,0.09509157,0.050940096,-0.10911559,-0.01580532,-0.020316275,0.25625017,0.088762,0.035847455,0.0090405075,0.016729493,0.023451164,-0.0657559,-0.065870196,1.0,-1.0,-1.0,1.0,1.0,1.0,-1.0,-1.0,1.0,-1.0,-1.0,-1.0,1.0,-1.0,-1.0,1.0,1.0,1.0,-1.0,-1.0,1.0,-1.0,-1.0,-1.0
2025-06-04 10:22:31.073,-0.1266607,-0.1302749,0.09441256,-0.04205421,-0.086578615,0.03433568,0.0,0.0,0.0,-0.0037060867,-0.005381354,-0.17187163,-0.043222696,0.043445818,0.17346181,0.18093012,-0.056007057,-0.45663348,0.18406464,-0.01033601,-0.19704887,0.088592,-0.03299154,-0.16686586,-0.09216718,0.011428287,0.10704104,0.09310966,-0.03203675,0.040768124,0.0010620293,-0.027614476,-0.05908079,-0.0016057433,1.0,-1.0,-1.0,1.0,1.0,1.0,-1.0,-1.0,1.0,-1.0,-1.0,-1.0,1.0,-1.0,-1.0,1.0,1.0,1.0,-1.0,-1.0,1.0,-1.0,-1.0,-1.0
2025-06-04 10:22:31.094,-0.16320904,-0.0984229,0.07988908,-0.10028162,-0.058181733,-0.009671621,0.0,0.0,0.0,-0.004735299,-0.0035230552,-0.21620892,-0.06948496,0.05851413,0.23043658,0.18869749,-0.05121818,-0.46537724,0.19984078,-0.03500065,-0.23795786,0.06942834,0.038615298,-0.033181246,-0.018802539,-0.0418309,0.07034948,0.07011856,0.0043761292,-0.061728377,0.10288335,-0.06871958,-0.04008489,0.0064092195,1.0,-1.0,-1.0,1.0,1.0,1.0,-1.0,-1.0,1.0,-1.0,-1.0,-1.0,1.0,-1.0,-1.0,1.0,1.0,1.0,-1.0,-1.0,1.0,-1.0,-1.0,-1.0
2025-06-04 10:22:31.114,-0.17358363,-0.09060647,0.028009638,-0.04227021,-0.06184001,-0.04145216,0.0,0.0,0.0,-0.0056199315,0.0025007254,-0.26833263,-0.077414334,0.059965923,0.27232254,0.21107271,-0.0686498,-0.4504416,0.21101224,-0.043371543,-0.27004525,0.05617348,-0.049891837,-0.054078326,-0.061887562,0.032141067,0.039943706,-0.044629153,0.03453125,-0.061838433,-0.021123784,-0.057615373,-0.14664622,-0.061302695,1.0,-1.0,-1.0,1.0,1.0,1.0,-1.0,-1.0,1.0,-1.0,-1.0,-1.0,1.0,-1.0,-1.0,1.0,1.0,1.0,-1.0,-1.0,1.0,-1.0,-1.0,-1.0
2025-06-04 10:22:31.136,-0.12603635,-0.0367057,0.028646624,-0.09456902,-0.064794675,0.045404308,0.0,0.0,0.0,-0.0063675633,0.010348319,-0.29525495,-0.08309514,0.06195717,0.31692827,0.2087695,-0.05764538,-0.4628819,0.2180941,-0.0409333,-0.30983883,0.02099365,-0.0064510033,-0.15182556,-0.08666354,-0.035437636,0.03388189,0.036191046,-0.03843073,0.015613305,0.038039397,-0.0051307627,-0.09739336,0.011810843,1.0,-1.0,-1.0,1.0,1.0,1.0,-1.0,-1.0,1.0,-1.0,-1.0,-1.0,1.0,-1.0,-1.0,1.0,1.0,1.0,-1.0,-1.0,1.0,-1.0,-1.0,-1.0
2025-06-04 10:22:31.154,-0.16799416,0.025328588,0.08886517,-0.1043551,-0.08836055,0.04168587,0.0,0.0,0.0,-0.007014477,0.018324053,-0.33330482,-0.09235061,0.069982186,0.34289232,0.21826231,-0.07945787,-0.46271583,0.22381762,-0.044216786,-0.34586805,0.010034357,0.06887822,-0.05515579,0.012474888,-0.0071521336,0.12916148,0.022329537,-0.06686108,-0.04581964,-0.03297464,0.06790996,-0.02572626,-0.073657684,1.0,-1.0,-1.0,1.0,1.0,1.0,-1.0,-1.0,1.0,-1.0,-1.0,-1.0,1.0,-1.0,-1.0,1.0,1.0,1.0,-1.0,-1.0,1.0,-1.0,-1.0,-1.0
2025-06-04 10:22:31.174,-0.14356403,0.054568984,0.030916944,-0.11403987,-0.030274443,0.04040766,0.0,0.0,0.0,-0.0076261633,0.026029268,-0.38298985,-0.10185198,0.078194715,0.36842933,0.22875138,-0.075233065,-0.47026592,0.2389069,-0.03975007,-0.3850926,-0.024423666,-0.040558934,-0.059989855,-0.051364303,0.038950946,0.07151804,-0.016721848,0.018907582,-0.056107286,0.029572528,-0.0490413,-0.010089878,-0.10172844,1.0,-1.0,-1.0,1.0,1.0,1.0,-1.0,-1.0,1.0,-1.0,-1.0,-1.0,1.0,-1.0,-1.0,1.0,1.0,1.0,-1.0,-1.0,1.0,-1.0,-1.0,-1.0
2025-06-04 10:22:31.195,-0.122217804,0.101763315,0.035641987,-0.13234752,-0.041474704,-0.028005686,0.0,0.0,0.0,-0.0082947025,0.029512804,-0.4145054,-0.111719236,0.080178656,0.39230636,0.22528853,-0.06869922,-0.45557648,0.23757552,-0.035449177,-0.39260995,-0.0529161,0.09183812,-0.13058142,-0.018877363,0.048480235,-0.011130348,0.068997756,0.046271265,0.049502824,-0.04291406,-0.0633567,-0.08076425,-0.083572224,1.0,-1.0,-1.0,1.0,1.0,1.0,-1.0,-1.0,1.0,-1.0,-1.0,-1.0,1.0,-1.0,-1.0,1.0,1.0,1.0,-1.0,-1.0,1.0,-1.0,-1.0,-1.0
2025-06-04 10:22:31.214,-0.061865523,0.08124536,0.056277994,-0.059793606,-0.01540022,-0.024018265,0.0,0.0,0.0,-0.009100551,0.028548801,-0.46804398,-0.119937584,0.083809845,0.40049127,0.23287053,-0.07502836,-0.4530966,0.23414022,-0.032936495,-0.42850834,-0.077859566,0.06749527,-0.029993318,0.03671958,0.0657672,-0.014394741,0.027354693,0.014082592,0.047394253,0.04923115,-0.048487183,-0.011340119,-0.05153452,1.0,-1.0,-1.0,1.0,1.0,1.0,-1.0,-1.0,1.0,-1.0,-1.0,-1.0,1.0,-1.0,-1.0,1.0,1.0,1.0,-1.0,-1.0,1.0,-1.0,-1.0,-1.0
2025-06-04 10:22:31.236,-0.068757094,0.13241912,0.10489699,-0.11030841,-0.028751228,0.028162513,0.0,0.0,0.0,-0.010090595,0.0380482,-0.49783683,-0.11058448,0.08648751,0.41325343,0.24001643,-0.08281049,-0.47067836,0.24789235,-0.036054883,-0.44896403,-0.104475774,0.06171129,-0.045998305,-0.06531697,0.012894126,0.021489887,0.06818232,0.012779874,-0.07253709,0.04528911,0.06391071,-0.10644984,-0.04269655,1.0,-1.0,-1.0,1.0,1.0,1.0,-1.0,-1.0,1.0,-1.0,-1.0,-1.0,1.0,-1.0,-1.0,1.0,1.0,1.0,-1.0,-1.0,1.0,-1.0,-1.0,-1.0
2025-06-04 10:22:31.254,-0.011578691,0.13390078,0.05245494,-0.052704796,-0.037570436,0.0038464856,0.0,0.0,0.0,-0.011271647,0.046361994,-0.53500235,-0.12910467,0.08737179,0.4358432,0.24392411,-0.08754429,-0.45550248,0.25698337,-0.022786094,-0.45793962,-0.12840778,-0.0072571496,-0.023137638,0.011791788,-0.02236755,-0.020791283,-0.02076291,0.02776108,0.047111996,0.060706764,0.03137817,-0.09640142,-0.013512639,1.0,-1.0,-1.0,1.0,1.0,1.0,-1.0,-1.0,1.0,-1.0,-1.0,-1.0,1.0,-1.0,-1.0,1.0,1.0,1.0,-1.0,-1.0,1.0,-1.0,-1.0,-1.0
2025-06-04 10:22:31.274,0.013440762,0.2630674,0.08473555,-0.060052175,0.037511207,0.035179496,0.0,0.0,0.0,-0.012607839,0.057130963,-0.5679537,-0.12939462,0.07883262,0.4381304,0.24647026,-0.087228425,-0.45365557,0.24756952,-0.037984785,-0.47662222,-0.16747266,-0.00094388094,-0.016501948,-0.086965844,-0.04651204,0.03097117,0.052504394,0.028792402,-0.00020117642,0.011652484,0.023723127,-0.009189691,-0.030538118,1.0,-1.0,-1.0,1.0,1.0,1.0,-1.0,-1.0,1.0,-1.0,-1.0,-1.0,1.0,-1.0,-1.0,1.0,1.0,1.0,-1.0,-1.0,1.0,-1.0,-1.0,-1.0
2025-06-04 10:22:31.294,0.1072031,0.26016983,0.095142126,-0.08348822,-0.023687314,-0.031237748,0.0,0.0,0.0,-0.013963704,0.06957152,-0.6013672,-0.14341849,0.084318966,0.4450722,0.24654348,-0.08116849,-0.464446,0.24240646,-0.030477352,-0.4846414,-0.18874374,-0.04657165,-0.12826496,0.008503266,-0.023417702,-0.03087766,-0.026062895,0.035213206,-0.0021533358,-0.001160455,0.011474736,-0.005432354,-0.042086698,1.0,-1.0,-1.0,1.0,1.0,1.0,-1.0,-1.0,1.0,-1.0,-1.0,-1.0,1.0,-1.0,-1.0,1.0,1.0,1.0,-1.0,-1.0,1.0,-1.0,-1.0,-1.0
2025-06-04 10:22:31.314,0.17110372,0.3929391,0.063067175,-0.086093426,-0.019063132,0.03649165,0.0,0.0,0.0,-0.015201824,0.08613323,-0.61772084,-0.14953281,0.08227625,0.44528472,0.25528714,-0.077609584,-0.47129512,0.24871673,-0.030888421,-0.5037696,-0.20400798,0.075155094,0.0017761223,-0.09656215,-0.03113081,-0.055675723,-0.066925175,0.037485372,0.05767824,0.016682805,0.0276478,-0.022417258,6.3323685e-05,1.0,-1.0,-1.0,1.0,1.0,1.0,-1.0,-1.0,1.0,-1.0,-1.0,-1.0,1.0,-1.0,-1.0,1.0,1.0,1.0,-1.0,1.0,1.0,-1.0,-1.0,-1.0
2025-06-04 10:22:31.335,0.2038168,0.5697394,0.105612025,0.0044618105,0.024497787,-0.03612845,0.0,0.0,0.0,-0.016189445,0.08429503,-0.6372465,-0.15633845,0.103370346,0.4640478,0.26063365,-0.0829756,-0.32720357,0.24784058,-0.056097023,-0.5137135,-0.2145471,0.013529971,-0.07877089,0.015257334,0.07047776,0.018713191,0.017836051,0.03201395,0.40135303,-0.055888403,-0.07295161,0.0070952256,0.021634456,1.0,-1.0,-1.0,1.0,1.0,1.0,-1.0,1.0,1.0,-1.0,-1.0,-1.0,1.0,-1.0,-1.0,1.0,1.0,1.0,-1.0,1.0,1.0,-1.0,-1.0,-1.0
2025-06-04 10:22:31.354,0.2813951,0.54125893,0.13637665,0.029811423,0.13097884,0.0074665723,0.0,0.0,0.0,-0.017373249,0.105223924,-0.6515712,-0.15803167,0.08936388,0.47005042,0.2552763,-0.089914605,-0.18518512,0.24519086,-0.049573045,-0.50143164,-0.228078,0.045975875,-0.028262518,-0.053741384,-0.04016457,-0.057701092,-0.068614244,0.00535969,0.26862144,0.031945568,-0.08523723,0.035065807,-0.003657924,1.0,-1.0,-1.0,1.0,1.0,1.0,-1.0,1.0,1.0,-1.0,-1.0,-1.0,1.0,-1.0,-1.0,1.0,1.0,1.0,-1.0,1.0,1.0,-1.0,-1.0,-1.0
2025-06-04 10:22:31.374,-0.01232304,0.18211882,0.009768888,-0.007723945,0.08443206,0.030649709,0.0,0.0,0.0,-0.018076466,0.10505364,-0.6684547,-0.19289647,0.0915415,0.4406783,0.30502623,-0.08726075,-0.07095,0.24605595,-0.061952055,-0.51947004,-0.24109943,-0.013193164,0.0025273403,-0.054454003,0.008114677,-0.1313145,0.116112195,0.060379166,0.28637478,-0.05888185,-0.015078664,7.805474e-05,0.018188212,1.0,-1.0,-1.0,1.0,1.0,1.0,-1.0,1.0,1.0,-1.0,-1.0,-1.0,1.0,-1.0,-1.0,1.0,1.0,-1.0,-1.0,1.0,1.0,-1.0,-1.0,-1.0
2025-06-04 10:22:31.395,-0.26044357,-0.21870498,-0.013523265,0.044198263,0.06451496,-0.040177908,0.0,0.0,0.0,-0.018407185,0.09661784,-0.68793285,-0.20545906,0.095359236,0.41063055,0.33240196,-0.08987104,0.020911036,0.25920653,-0.070234515,-0.524176,-0.24596688,-0.07075215,-0.050937984,-0.05485586,-0.028312718,-0.11368039,-0.0077106794,-0.057137486,0.27394462,0.07189494,-0.0057183458,-0.043168448,0.0017938684,1.0,-1.0,-1.0,1.0,1.0,-1.0,-1.0,1.0,1.0,-1.0,-1.0,-1.0,1.0,-1.0,1.0,-1.0,1.0,-1.0,-1.0,1.0,-1.0,1.0,-1.0,-1.0
2025-06-04 10:22:31.418,-0.23831019,-0.066087775,0.056599524,-0.012954459,0.14409688,0.04689177,0.0,0.0,0.0,-0.019629052,0.097573414,-0.714734,-0.16965312,0.07992398,0.39103806,0.32554302,-0.10407379,0.0837582,0.19686626,-0.0677723,-0.5138942,-0.25185695,-0.004267533,0.027822081,0.21252365,0.015929945,-0.04192423,-0.05408576,-0.034801565,0.14589646,-0.08771394,0.054340176,0.035297237,-0.07736187,1.0,-1.0,1.0,-1.0,1.0,-1.0,-1.0,1.0,-1.0,1.0,-1.0,-1.0,-1.0,-1.0,1.0,-1.0,-1.0,-1.0,1.0,-1.0,-1.0,1.0,-1.0,1.0
2025-06-04 10:22:31.436,0.06373297,-0.5496777,0.109561466,-0.045493077,0.047422703,-0.04362605,0.0,0.0,0.0,-0.021229722,0.06291173,-0.7071154,-0.11982121,0.08694704,0.33372095,0.28691024,-0.111097865,0.061125506,0.19451833,-0.041363392,-0.51981336,-0.1744127,-0.10119851,-0.024535183,0.050117746,0.027497126,-0.25561285,-0.051249392,-0.048837688,-0.19312425,0.03865931,0.113075145,0.026071083,0.17468813,-1.0,-1.0,1.0,-1.0,-1.0,-1.0,1.0,-1.0,-1.0,1.0,-1.0,1.0,-1.0,-1.0,1.0,-1.0,1.0,-1.0,1.0,-1.0,-1.0,1.0,-1.0,1.0
2025-06-04 10:22:31.455,0.27365065,-0.3442961,-0.051094208,-0.0043799723,0.0714705,-0.02970409,0.0,0.0,0.0,-0.024034573,0.053224478,-0.6656409,-0.07368496,0.07642405,0.3185346,0.22237183,-0.11176786,-0.004280256,0.2053294,-0.01677922,-0.50339234,-0.10970441,-0.09441074,0.026917221,0.14911501,0.03685268,-0.041695245,-0.21061863,0.07534863,-0.12950811,-0.08058132,0.07757657,0.049483206,0.1888308,-1.0,-1.0,1.0,-1.0,1.0,-1.0,1.0,-1.0,-1.0,1.0,-1.0,1.0,-1.0,-1.0,1.0,-1.0,-1.0,-1.0,1.0,-1.0,-1.0,1.0,-1.0,1.0
2025-06-04 10:22:31.475,0.264408,-0.33796352,0.019280875,-0.017295497,0.02074186,0.04033868,0.0,0.0,0.0,-0.024354259,0.017299276,-0.6229256,-0.018854246,0.072688,0.23583129,0.18209836,-0.10305885,-0.06995621,0.20023777,0.017876117,-0.5240613,-0.052416965,-0.032508332,0.056162205,0.06904966,-0.11211296,-0.31666964,-0.17954929,0.0022314899,-0.11082094,-0.043725546,0.0796562,-0.0053342585,0.18842621,-1.0,-1.0,1.0,-1.0,-1.0,-1.0,1.0,-1.0,-1.0,1.0,-1.0,1.0,-1.0,-1.0,1.0,-1.0,1.0,-1.0,1.0,-1.0,-1.0,1.0,-1.0,1.0
2025-06-04 10:22:31.495,0.21338636,-0.18937731,-0.18159245,-0.018791905,-0.005159117,-0.040088378,0.0,0.0,0.0,-0.023715165,0.004955765,-0.6118031,0.041703857,0.06173933,0.21597002,0.121394314,-0.07519293,-0.10417939,0.16842817,0.035077676,-0.5109111,0.010864957,-0.10072028,0.05603908,0.06267862,-0.085902154,0.06813706,-0.12815922,0.09779708,-0.13514112,-0.111728534,0.049183216,0.009351877,0.17385076,-1.0,-1.0,1.0,-1.0,1.0,-1.0,1.0,-1.0,-1.0,1.0,-1.0,1.0,-1.0,-1.0,1.0,-1.0,-1.0,-1.0,1.0,-1.0,-1.0,1.0,-1.0,1.0
2025-06-04 10:22:31.517,0.2618358,-0.3132709,-0.1093406,-0.032329764,-0.039275456,0.04550623,0.0,0.0,0.0,-0.020522023,-0.013968376,-0.5792149,0.08241483,0.045488767,0.15986483,0.087291,-0.056759723,-0.15648797,0.15813786,0.044302255,-0.50299317,0.04308406,-0.09387411,-0.008766269,0.035223726,0.014294761,-0.23469457,-0.028167887,0.041159287,-0.14899562,-0.056629796,0.03138814,-0.043360576,0.13036132,-1.0,-1.0,1.0,-1.0,-1.0,-1.0,1.0,-1.0,-1.0,1.0,-1.0,1.0,-1.0,1.0,1.0,-1.0,-1.0,-1.0,1.0,-1.0,-1.0,1.0,-1.0,1.0
2025-06-04 10:22:31.536,0.3754085,-0.27001598,-0.047163617,0.0261881,-0.053288084,0.047242425,0.0,0.0,0.0,-0.017513854,-0.024188258,-0.4234004,0.11023834,0.040416956,0.07117513,0.050660513,-0.039248623,-0.21264444,0.114098616,0.047775,-0.5029957,0.09249577,-0.012823679,0.48436177,0.0148411775,0.010246974,-0.16278476,-0.11594081,0.03387723,-0.1062598,-0.022302793,0.05295935,-0.0063511073,0.10283531,-1.0,1.0,1.0,-1.0,-1.0,-1.0,1.0,-1.0,-1.0,1.0,-1.0,1.0,-1.0,1.0,1.0,-1.0,1.0,-1.0,1.0,-1.0,-1.0,1.0,-1.0,1.0
2025-06-04 10:22:31.556,0.20365055,-0.16615918,-0.14337575,0.018307975,-0.09837185,0.030853886,0.0,0.0,0.0,-0.016059449,-0.033086795,-0.2709463,0.13843288,0.030050954,0.068796635,-0.0013448441,-0.015822507,-0.25927055,0.07779059,0.04880023,-0.48709372,0.106038034,0.0073753605,0.37113446,0.087813966,-0.10584665,0.07268857,-0.13260712,-0.0015606721,-0.09101209,-0.15432014,0.011822209,-0.026751865,0.08332763,-1.0,1.0,1.0,-1.0,1.0,-1.0,1.0,-1.0,-1.0,1.0,-1.0,1.0,-1.0,1.0,1.0,-1.0,-1.0,-1.0,1.0,-1.0,-1.0,1.0,-1.0,1.0
2025-06-04 10:22:31.575,0.29930526,-0.20866661,-0.13402869,0.048918046,-0.08892947,0.0316012,0.0,0.0,0.0,-0.013677868,-0.041296173,-0.14232211,0.1513093,0.0034108101,0.021444866,-0.0098048765,-0.0043702372,-0.2925173,0.05699096,0.062081356,-0.48704392,0.13739598,-0.08729679,0.30600935,0.07856812,-0.1024861,-0.15229353,-0.01447672,0.037415583,-0.17122784,-0.06652085,-0.04835589,0.0633551,0.0060385414,-1.0,1.0,1.0,-1.0,-1.0,-1.0,1.0,-1.0,-1.0,1.0,-1.0,1.0,-1.0,1.0,1.0,-1.0,-1.0,-1.0,1.0,-1.0,-1.0,1.0,-1.0,1.0
2025-06-04 10:22:31.595,0.30243838,-0.12425762,-0.009407272,0.016892428,-0.14113712,-0.027173638,0.0,0.0,0.0,-0.012159655,-0.060013127,-0.029976772,0.16335382,-0.004791061,-0.037437033,-0.038309008,0.017009057,-0.33006307,0.014745999,0.06866825,-0.48479176,0.1701814,-0.057598416,0.27947944,0.10913921,-0.06950135,-0.2315228,0.021598577,0.059462443,-0.06477732,-0.1411001,-0.030356962,0.052442737,0.049128007,-1.0,1.0,1.0,-1.0,-1.0,-1.0,1.0,-1.0,-1.0,1.0,-1.0,1.0,-1.0,1.0,1.0,-1.0,1.0,-1.0,1.0,-1.0,-1.0,1.0,-1.0,1.0
2025-06-04 10:22:31.619,0.0031007752,-0.08318531,-0.12333779,0.013382269,-0.1822464,-0.00962431,0.0,0.0,0.0,-0.011890113,-0.06596453,0.060475085,0.19240405,-0.012199793,-0.032733448,-0.05909225,0.013339065,-0.35371566,0.0045604184,0.07280291,-0.4814755,0.18762729,-0.0008059939,0.2051437,0.08739154,-0.026149966,0.019470738,-0.10835208,0.060132157,-0.10262576,-0.004893779,-0.06591206,-0.029007487,0.0341487,-1.0,1.0,1.0,-1.0,1.0,-1.0,1.0,-1.0,-1.0,1.0,-1.0,1.0,-1.0,1.0,1.0,-1.0,-1.0,-1.0,1.0,-1.0,-1.0,1.0,1.0,1.0
2025-06-04 10:22:31.635,0.07169592,-0.067883044,-0.108401924,0.084363736,-0.1290933,0.045486607,0.0,0.0,0.0,-0.010681169,-0.06853484,0.13407767,0.20838591,-0.014255973,-0.050955433,-0.07332866,0.016063884,-0.38575602,-0.038500883,0.078626886,-0.35853815,0.18254706,-0.02289537,0.17846806,-0.03147735,-0.040502734,-0.17458786,0.075087614,0.055391066,-0.05311482,-0.09105186,0.025139151,0.4145512,-0.005016762,-1.0,1.0,1.0,-1.0,-1.0,-1.0,1.0,-1.0,-1.0,1.0,1.0,1.0,-1.0,1.0,1.0,-1.0,-1.0,-1.0,1.0,-1.0,-1.0,1.0,1.0,1.0
2025-06-04 10:22:31.655,-0.0012054961,-0.041686308,-0.13335471,0.027391257,-0.19094284,-0.0066195745,0.0,0.0,0.0,-0.008569453,-0.076716706,0.20685922,0.20286547,-0.021031477,-0.1032953,-0.06997237,0.018146647,-0.41572678,-0.047115125,0.08217315,-0.22278178,0.21019228,0.04957669,0.06935506,0.05503114,-0.07224708,-0.047782935,-0.007924802,-0.051912446,-0.116049975,-0.07126336,0.08833654,0.3330163,-0.035262085,-1.0,1.0,1.0,-1.0,-1.0,-1.0,1.0,-1.0,-1.0,1.0,1.0,1.0,-1.0,1.0,1.0,-1.0,-1.0,-1.0,1.0,-1.0,-1.0,1.0,1.0,1.0
2025-06-04 10:22:31.676,0.027644597,-0.02892346,-0.053158794,0.03906257,-0.17594232,-0.047719594,0.0,0.0,0.0,-0.0064330418,-0.07560607,0.23980033,0.21828514,-0.04324589,-0.14241096,-0.06680556,0.030692704,-0.44099224,-0.08533967,0.082338855,-0.10912789,0.22206944,0.07043453,0.14276631,0.00093533273,0.04684332,-0.17263143,0.03411551,0.056366775,0.0075576277,-0.03394159,-0.00045864852,0.26830503,0.0441273,-1.0,1.0,1.0,-1.0,-1.0,-1.0,1.0,-1.0,-1.0,1.0,1.0,1.0,-1.0,1.0,1.0,-1.0,-1.0,-1.0,1.0,-1.0,-1.0,1.0,1.0,1.0
2025-06-04 10:22:31.696,0.14584824,0.026498513,-0.03534335,0.029191997,-0.12749091,0.011668001,0.0,0.0,0.0,-0.0047201654,-0.07804648,0.29115233,0.23162101,-0.03528461,-0.18561679,-0.047424745,0.015094876,-0.45560098,-0.10166623,0.098828234,-0.00039703728,0.21962057,-0.025193978,0.13870177,-0.026406273,-0.044971067,-0.11728458,0.026849853,0.02503486,-0.044399165,-0.031777497,-0.053102948,0.1948946,0.027275164,-1.0,1.0,1.0,-1.0,-1.0,-1.0,1.0,-1.0,-1.0,1.0,1.0,1.0,-1.0,1.0,1.0,-1.0,-1.0,-1.0,1.0,-1.0,-1.0,1.0,1.0,1.0
2025-06-04 10:22:31.719,0.1758534,0.034303736,0.021909144,0.08741061,-0.19822535,-0.020118471,0.0,0.0,0.0,-0.004306675,-0.07533544,0.3266774,0.22956072,-0.043996185,-0.23202187,-0.044025358,0.0279224,-0.4881575,-0.12998983,0.0922847,0.0723831,0.22462434,0.0043526962,0.12708138,0.04766556,0.03962227,-0.1254981,-0.04866276,-0.054133207,-0.011770287,-0.011918989,-0.035779405,0.2666577,0.084784396,-1.0,1.0,1.0,-1.0,-1.0,-1.0,1.0,-1.0,-1.0,1.0,1.0,1.0,-1.0,1.0,-1.0,-1.0,-1.0,-1.0,1.0,-1.0,-1.0,1.0,1.0,1.0
2025-06-04 10:22:31.736,0.18701707,0.058269188,-0.013957984,0.07382844,-0.22155945,0.021280203,0.0,0.0,0.0,-0.0049846014,-0.08784827,0.3522279,0.15357605,-0.05166133,-0.27634004,-0.042458277,0.02427505,-0.50368166,-0.15265411,0.08600915,0.14394231,0.23950307,0.042083163,0.13130532,-0.24550296,0.06156095,-0.1541488,-0.05880887,0.021385495,0.0052072476,-0.072259374,0.0021935892,0.14063752,0.02876691,-1.0,1.0,-1.0,-1.0,-1.0,-1.0,1.0,-1.0,-1.0,1.0,1.0,1.0,1.0,-1.0,-1.0,-1.0,-1.0,-1.0,-1.0,-1.0,-1.0,1.0,-1.0,-1.0
2025-06-04 10:22:31.756,0.03932652,-0.0027682274,0.1978485,0.034606855,-0.176123,-0.0029823848,0.0,0.0,0.0,-0.006329019,-0.05350054,0.25790802,0.082739316,-0.046873633,-0.3158597,-0.06821014,0.0008462658,-0.5423448,-0.16449738,0.08092398,0.0947826,0.18242997,0.06164581,-0.26358703,-0.17114699,0.019665511,-0.18557872,-0.029809998,-0.032151185,-0.028572109,-0.045130964,-0.06272155,-0.1711105,-0.044539537,1.0,-1.0,-1.0,-1.0,-1.0,-1.0,-1.0,-1.0,-1.0,1.0,-1.0,-1.0,1.0,-1.0,-1.0,1.0,-1.0,1.0,-1.0,-1.0,1.0,-1.0,-1.0,-1.0
2025-06-04 10:22:31.775,-0.33519223,0.30549845,0.23439069,0.035169885,-0.17066163,0.049565405,0.0,0.0,0.0,-0.009019962,-0.019827804,0.13009818,0.030690657,-0.036525372,-0.3679876,-0.0068038534,-0.01023744,-0.54809165,-0.11815576,0.05397776,0.021849487,0.17764768,0.102647126,-0.3313986,-0.1612881,0.10100353,0.0027565097,0.1489251,-0.11292302,0.04427149,0.2126972,-0.07169809,-0.11171409,0.041645695,1.0,-1.0,-1.0,1.0,-1.0,1.0,-1.0,-1.0,1.0,-1.0,-1.0,-1.0,1.0,-1.0,-1.0,1.0,1.0,1.0,-1.0,-1.0,1.0,-1.0,-1.0,-1.0
2025-06-04 10:22:31.795,-0.5367953,0.35432827,0.23033807,0.043674793,-0.094927065,0.03873776,0.0,0.0,0.0,-0.01286396,-0.01388456,0.019569864,-0.030193057,-0.0067087105,-0.24825785,0.02914696,-0.033802558,-0.5471774,-0.043103598,0.019091755,-0.014010088,0.18953748,0.08855387,-0.20729172,-0.09734194,0.0012629576,0.31043446,0.124960974,-0.056225866,0.005943506,0.22434886,-0.12269346,-0.04624449,-0.006652881,1.0,-1.0,-1.0,1.0,1.0,1.0,-1.0,-1.0,1.0,-1.0,-1.0,-1.0,1.0,-1.0,-1.0,1.0,1.0,1.0,-1.0,-1.0,1.0,-1.0,-1.0,-1.0
2025-06-04 10:22:31.819,-0.5165811,0.34261858,0.18319407,0.02663619,-0.041258078,-0.039400306,0.0,0.0,0.0,-0.016237319,0.016618576,-0.055480752,-0.05891182,0.014591171,-0.117594175,0.07541003,-0.034164853,-0.5255948,0.0085093565,-0.02045508,-0.052587196,0.1803806,-0.030694725,-0.18921937,0.026665611,0.052499667,0.3565293,0.08730549,-0.044105,-0.038325362,0.10881193,-0.16499871,-0.025635967,-0.0008145594,1.0,-1.0,-1.0,1.0,1.0,1.0,-1.0,-1.0,1.0,-1.0,-1.0,-1.0,1.0,-1.0,-1.0,1.0,1.0,1.0,-1.0,-1.0,1.0,-1.0,-1.0,-1.0
2025-06-04 10:22:31.836,-0.1689164,0.167258,0.15632154,-0.01397944,-0.09983442,0.047331214,0.0,0.0,0.0,-0.019663502,0.01497994,-0.12893113,-0.05382641,0.031190874,-0.011701553,0.100227006,-0.0493045,-0.52534354,0.05362128,-0.04194468,-0.08062016,0.18130854,0.0103585,-0.1316356,0.010526417,0.006815451,0.27627388,0.07618358,-0.07707796,0.08175066,0.033480227,-0.019467317,-0.047137696,-0.044317383,1.0,-1.0,-1.0,1.0,1.0,1.0,-1.0,-1.0,1.0,-1.0,-1.0,-1.0,1.0,-1.0,-1.0,1.0,1.0,1.0,-1.0,-1.0,1.0,-1.0,-1.0,-1.0
2025-06-04 10:22:31.856,-0.08429999,0.15073028,0.057938002,0.031822648,-0.09881787,0.03331446,0.0,0.0,0.0,-0.022909485,0.029543508,-0.1814205,-0.030340256,0.03493736,0.0748874,0.12040695,-0.05650393,-0.50176567,0.09127237,-0.068247184,-0.14165041,0.1813209,-0.02588138,-0.15488036,-0.024291608,-0.04276009,0.2728543,0.12618022,0.00021618619,-0.03001918,0.1144067,0.058931682,-0.13209638,0.04466076,1.0,-1.0,-1.0,1.0,1.0,1.0,-1.0,-1.0,1.0,-1.0,-1.0,-1.0,1.0,-1.0,-1.0,1.0,1.0,1.0,-1.0,-1.0,1.0,-1.0,-1.0,-1.0
2025-06-04 10:22:31.877,-0.018858053,0.052683886,-0.005033305,0.03692895,-0.028526401,-0.034248713,0.0,0.0,0.0,-0.02469485,0.022286722,-0.22582898,-0.020293066,0.037827503,0.14225209,0.15285318,-0.05444376,-0.49754304,0.109663874,-0.057456054,-0.18868783,0.16116308,0.0050663534,-0.049836278,0.04042646,-0.008284271,0.105999425,0.018154956,0.05479865,0.089734994,0.100756384,0.045705784,-0.16041203,0.0034467357,1.0,-1.0,-1.0,1.0,1.0,1.0,-1.0,-1.0,1.0,-1.0,-1.0,-1.0,1.0,-1.0,-1.0,1.0,1.0,1.0,-1.0,-1.0,1.0,-1.0,-1.0,-1.0
2025-06-04 10:22:31.897,-0.13330902,0.12098223,0.024678873,-0.008565155,-0.06552407,-0.04252633,0.0,0.0,0.0,-0.025135888,0.038392857,-0.2739297,-0.04905695,0.043099098,0.20748642,0.17082232,-0.0652549,-0.498765,0.13074146,-0.06753985,-0.23074678,0.13230951,0.028042307,-0.15165652,-0.11404528,0.016393838,0.08536937,0.07707299,0.027033202,-0.008441207,0.015912302,0.057426635,-0.17424025,-0.10785168,1.0,-1.0,-1.0,1.0,1.0,1.0,-1.0,-1.0,1.0,-1.0,-1.0,-1.0,1.0,-1.0,-1.0,1.0,1.0,1.0,-1.0,-1.0,1.0,-1.0,-1.0,-1.0
2025-06-04 10:22:31.919,-0.11154816,0.14007285,0.0342442,-0.014204639,-0.054218974,0.020901445,0.0,0.0,0.0,-0.025016395,0.030112974,-0.3293633,-0.05537081,0.05129665,0.2518218,0.1831124,-0.07233329,-0.49821323,0.16727707,-0.05263136,-0.26318863,0.088545464,-0.022166915,-0.16912952,-0.12017635,0.016367868,0.17629284,0.031047337,-0.04746249,0.04381244,0.07420828,-0.010577354,-0.07121774,-0.1267961,1.0,-1.0,-1.0,1.0,1.0,1.0,-1.0,-1.0,1.0,-1.0,-1.0,-1.0,1.0,-1.0,-1.0,1.0,1.0,1.0,-1.0,-1.0,1.0,-1.0,-1.0,-1.0
2025-06-04 10:22:31.936,-0.12543918,0.1522854,0.07700769,0.016109694,-0.052085478,-0.011421542,0.0,0.0,0.0,-0.024978096,0.040323213,-0.36898887,-0.08197361,0.058228906,0.28455856,0.2043776,-0.0786555,-0.48559335,0.17836651,-0.05242961,-0.2981215,0.04572489,0.059096966,-0.10430383,-0.034522608,0.08446433,0.15605712,-0.02577112,-0.051529072,-0.04162422,0.023039158,0.034246795,-0.05743526,-0.15368076,1.0,-1.0,-1.0,1.0,1.0,1.0,-1.0,-1.0,1.0,-1.0,-1.0,-1.0,1.0,-1.0,-1.0,1.0,1.0,1.0,-1.0,-1.0,1.0,-1.0,-1.0,-1.0
2025-06-04 10:22:31.956,-0.03645158,0.1855036,0.0036609643,0.035370376,-0.028218707,0.034891777,0.0,0.0,0.0,-0.025337879,0.0489928,-0.40584224,-0.11261749,0.080464646,0.33285326,0.2124536,-0.06721526,-0.48638126,0.18444826,-0.065521345,-0.32744685,0.01212273,0.06809092,-0.07275319,-0.120961115,0.012418925,0.10107871,0.0268187,-0.064459644,-0.009868529,0.010435967,-0.05800354,-0.09241516,-0.12407752,1.0,-1.0,-1.0,1.0,1.0,1.0,-1.0,-1.0,1.0,-1.0,-1.0,-1.0,1.0,-1.0,-1.0,1.0,1.0,1.0,-1.0,-1.0,1.0,-1.0,-1.0,-1.0
2025-06-04 10:22:31.976,-0.039572965,0.18140702,0.026395222,0.048644476,-0.014271887,-0.0043055494,0.0,0.0,0.0,-0.026169743,0.050852984,-0.43459862,-0.1261317,0.083896816,0.3480628,0.21022604,-0.08380001,-0.47511184,0.19530542,-0.05448755,-0.36116645,-0.035271224,0.07740424,-0.14280409,-0.11147774,-0.023318566,0.077659026,0.020160047,0.05445203,0.0028960858,0.049830347,-0.060802083,-0.14357166,-0.031419188,1.0,-1.0,-1.0,1.0,1.0,1.0,-1.0,-1.0,1.0,-1.0,-1.0,-1.0,1.0,-1.0,-1.0,1.0,1.0,1.0,-1.0,-1.0,1.0,-1.0,-1.0,-1.0
2025-06-04 10:22:31.996,0.019882122,0.3076558,0.12494101,-0.009556911,0.002966966,-0.0038496458,0.0,0.0,0.0,-0.02739309,0.061419647,-0.49024236,-0.1428739,0.086146206,0.37256557,0.23132321,-0.0795018,-0.47484878,0.21281274,-0.058779202,-0.3902293,-0.07068789,0.072830245,-0.07239888,-0.0589168,-0.036573816,0.062458172,0.078236766,0.04467934,-0.06522843,0.024781669,0.014780473,0.007796569,-0.14260039,1.0,-1.0,-1.0,1.0,1.0,1.0,-1.0,-1.0,1.0,-1.0,-1.0,-1.0,1.0,-1.0,-1.0,1.0,1.0,1.0,-1.0,-1.0,1.0,-1.0,-1.0,-1.0
2025-06-04 10:22:32.019,0.07864208,0.3024846,0.078329794,-0.010239615,0.10855942,0.009255107,0.0,0.0,0.0,-0.028863538,0.06782146,-0.5126744,-0.15436895,0.08127694,0.3980762,0.22805375,-0.089262486,-0.4736098,0.22702777,-0.05626494,-0.4173946,-0.093336865,0.02759616,-0.021342719,-0.06794255,0.045783438,0.0689339,0.00057665753,0.02809938,0.019605843,-0.04590443,0.036311533,0.006853247,-0.13446166,1.0,-1.0,-1.0,1.0,1.0,1.0,-1.0,-1.0,1.0,-1.0,-1.0,-1.0,1.0,-1.0,-1.0,1.0,1.0,1.0,-1.0,-1.0,1.0,-1.0,-1.0,-1.0
2025-06-04 10:22:32.036,0.09272274,0.40580022,0.101835325,-0.00077614386,0.1283971,0.009653041,0.0,0.0,0.0,-0.030426018,0.06814982,-0.54919314,-0.17501177,0.096563265,0.40314323,0.23439087,-0.0826072,-0.47710645,0.22505355,-0.06871877,-0.43030277,-0.12865597,-0.040212218,-0.023428509,0.008430217,0.010288754,0.046285883,-0.06223542,-0.052693803,-0.06343506,0.02552453,-0.002032768,-0.04620967,-0.06963906,1.0,-1.0,-1.0,1.0,1.0,1.0,-1.0,-1.0,1.0,-1.0,-1.0,-1.0,1.0,-1.0,-1.0,1.0,1.0,1.0,-1.0,-1.0,1.0,-1.0,-1.0,-1.0
2025-06-04 10:22:32.058,-0.09676405,0.3331176,-0.045797173,0.0789347,0.08190999,-0.010493852,0.0,0.0,0.0,-0.031862255,0.0789835,-0.5956806,-0.19392043,0.09320208,0.40389335,0.2856839,-0.07765837,-0.47950634,0.24539156,-0.07867053,-0.45000014,-0.16066015,0.01123586,-0.111513056,-0.028242733,0.03204621,-0.06903396,0.11988267,0.04082487,0.06750654,0.06707824,-0.017952535,0.035841692,0.002261678,1.0,-1.0,-1.0,1.0,1.0,1.0,-1.0,-1.0,1.0,-1.0,-1.0,-1.0,1.0,-1.0,-1.0,1.0,1.0,1.0,-1.0,1.0,1.0,-1.0,-1.0,-1.0
2025-06-04 10:22:32.076,-0.095292695,0.23530294,-0.11420169,0.017783476,0.16128062,0.002481361,0.0,0.0,0.0,-0.03209271,0.07595703,-0.6067371,-0.21512422,0.11963128,0.39417306,0.35429537,-0.09060258,-0.3451583,0.24198313,-0.07108758,-0.44386616,-0.17797536,-0.048370924,-0.112196736,-0.016212448,-0.009793787,-0.09392471,0.12974767,0.041716002,0.3207505,-0.015885036,-0.018123532,-0.021005707,-0.0410059,1.0,-1.0,-1.0,1.0,1.0,1.0,-1.0,1.0,1.0,-1.0,-1.0,-1.0,1.0,-1.0,-1.0,1.0,1.0,1.0,-1.0,1.0,1.0,-1.0,-1.0,-1.0
2025-06-04 10:22:32.096,-0.19078916,0.060607098,-0.07979658,0.0226975,0.1642624,0.021973867,0.0,0.0,0.0,-0.03147435,0.065319166,-0.6374766,-0.23711325,0.12561429,0.37930408,0.4207223,-0.083725594,-0.19880396,0.23531672,-0.09220188,-0.45609918,-0.2022403,-0.008670991,-0.119231045,-0.10131375,0.008204319,0.056404598,0.0569688,-0.0014544062,0.2723222,0.04363126,-0.035135996,-0.0041985246,-0.035426088,1.0,-1.0,-1.0,1.0,1.0,1.0,-1.0,1.0,1.0,-1.0,-1.0,-1.0,1.0,-1.0,-1.0,1.0,1.0,-1.0,-1.0,1.0,1.0,-1.0,-1.0,-1.0
2025-06-04 10:22:32.119,-0.2426951,-0.15781212,-0.11875295,0.029339,0.13850987,0.021021044,0.0,0.0,0.0,-0.030380663,0.04286278,-0.6564724,-0.25988504,0.12956874,0.37741202,0.37718847,-0.1028565,-0.081140295,0.25468874,-0.08220727,-0.46138942,-0.20346269,-0.06769191,-0.08330537,-0.036023777,0.05013383,-0.007086621,-0.07024127,-0.062309105,0.24576604,-0.0035442254,-0.06498256,-0.08148238,-0.07185919,1.0,-1.0,-1.0,1.0,1.0,-1.0,-1.0,1.0,1.0,-1.0,-1.0,-1.0,1.0,-1.0,1.0,-1.0,-1.0,-1.0,-1.0,1.0,-1.0,1.0,-1.0,-1.0
2025-06-04 10:22:32.137,-0.26366794,-0.38317126,0.10539988,0.005949952,0.091106944,-0.030536378,0.0,0.0,0.0,-0.029366272,0.05596373,-0.6950696,-0.21091372,0.13640481,0.3257775,0.34672475,-0.11463425,-0.01355102,0.1836543,-0.07928276,-0.47159326,-0.2206598,-0.023220625,-0.030195028,0.19006586,0.008807223,-0.23047107,-0.11265272,-0.0027821686,0.06847715,-0.16312315,0.018240424,0.040099487,-0.102193505,1.0,-1.0,1.0,-1.0,-1.0,-1.0,-1.0,1.0,-1.0,1.0,-1.0,-1.0,-1.0,-1.0,1.0,-1.0,-1.0,-1.0,1.0,-1.0,-1.0,1.0,-1.0,1.0
2025-06-04 10:22:32.158,-0.05398247,-0.3651997,0.13869956,-0.013814733,0.15644304,-0.014641209,0.0,0.0,0.0,-0.03228909,0.029045839,-0.7237239,-0.18100332,0.12802355,0.24072352,0.33104274,-0.12549964,-0.048389636,0.18676564,-0.050386537,-0.49987006,-0.15836664,-0.082123525,-0.11871619,0.14714424,-0.054728627,-0.12539569,-0.0013146804,-0.09478778,-0.120307624,0.04455841,0.04405253,-0.038846612,0.18228602,-1.0,-1.0,1.0,-1.0,-1.0,-1.0,1.0,-1.0,-1.0,1.0,-1.0,1.0,-1.0,-1.0,1.0,-1.0,1.0,-1.0,1.0,-1.0,-1.0,1.0,-1.0,1.0
2025-06-04 10:22:32.178,0.03854694,-0.23953995,-0.12860821,-0.023473237,0.04369089,-0.029181747,0.0,0.0,0.0,-0.036346987,0.013181871,-0.69169664,-0.118418016,0.13763331,0.21898378,0.28809044,-0.13344282,-0.08925696,0.19097953,-0.012975046,-0.4968838,-0.08656624,-0.09574771,0.015728451,0.12156849,-0.03752362,0.01666234,-0.11177146,-0.045576215,-0.19210537,0.0014353073,0.004026098,0.06312424,0.21770865,-1.0,-1.0,1.0,-1.0,1.0,-1.0,1.0,-1.0,-1.0,1.0,-1.0,1.0,-1.0,-1.0,1.0,-1.0,-1.0,-1.0,1.0,-1.0,-1.0,1.0,-1.0,1.0
2025-06-04 10:22:32.197,0.21202429,-0.3137407,-0.021030284,-0.081622295,0.07711396,-0.0344219,0.0,0.0,0.0,-0.036235068,0.0043809805,-0.6675818,-0.059335187,0.12781607,0.15620294,0.24039558,-0.115099356,-0.14276505,0.18397038,-0.002265469,-0.4970511,-0.036706235,-0.075427614,0.03659494,0.16801608,-0.07366281,-0.281352,-0.20188776,0.11961041,-0.05759911,0.0019519686,0.015334064,0.06290392,0.17935613,-1.0,-1.0,1.0,-1.0,-1.0,-1.0,1.0,-1.0,-1.0,1.0,-1.0,1.0,-1.0,-1.0,1.0,-1.0,1.0,-1.0,1.0,-1.0,-1.0,1.0,-1.0,1.0
2025-06-04 10:22:32.220,-0.00033489065,-0.14810985,-0.3094786,-0.038351394,0.059683103,-0.016079826,0.0,0.0,0.0,-0.03544339,-0.019256594,-0.6252398,-0.0044752,0.11763678,0.12792361,0.18403737,-0.10946096,-0.17373496,0.1617968,0.007953727,-0.4901537,0.015364085,-0.04081797,0.04930775,0.1677209,0.029901927,-0.034523427,-0.16999257,0.002189264,-0.12879066,-0.07909726,0.093283005,0.059509292,0.055471975,-1.0,-1.0,1.0,-1.0,1.0,-1.0,1.0,-1.0,-1.0,1.0,-1.0,1.0,-1.0,1.0,1.0,-1.0,-1.0,-1.0,1.0,-1.0,-1.0,1.0,-1.0,1.0
2025-06-04 10:22:32.237,0.21699877,-0.23082441,-0.18700464,-0.060689524,0.074853934,-0.03130475,0.0,0.0,0.0,-0.031850558,-0.02901206,-0.48583987,0.032385085,0.09481293,0.075695515,0.120293535,-0.08081438,-0.21079466,0.13029328,0.020129805,-0.47712332,0.06861733,-0.0061034756,0.43293053,0.16986534,-0.012316535,-0.26266852,-0.091106705,0.04737305,-0.10132905,-0.09436189,-0.011558284,0.023165159,0.026557572,-1.0,1.0,1.0,-1.0,-1.0,-1.0,1.0,-1.0,-1.0,1.0,-1.0,1.0,-1.0,1.0,1.0,-1.0,-1.0,-1.0,1.0,-1.0,-1.0,1.0,-1.0,1.0
2025-06-04 10:22:32.259,0.23314784,-0.17559372,-0.06156813,-0.026522767,0.0039034619,0.023136511,0.0,0.0,0.0,-0.027644629,-0.05108278,-0.37283233,0.057030402,0.07440178,-0.012096727,0.095094055,-0.04794085,-0.2557852,0.102261625,0.033332244,-0.46950418,0.098303944,-0.043652263,0.27213958,0.035376474,0.01930066,-0.14927925,-0.101933174,0.049621094,-0.108140446,-0.11752377,-0.004316738,-0.01844982,0.113178976,-1.0,1.0,1.0,-1.0,-1.0,-1.0,1.0,-1.0,-1.0,1.0,-1.0,1.0,-1.0,1.0,1.0,-1.0,1.0,-1.0,1.0,-1.0,-1.0,1.0,-1.0,1.0
2025-06-04 10:22:32.278,0.0012516303,-0.13782395,-0.2322149,-0.0011790025,0.023588756,-0.032288413,0.0,0.0,0.0,-0.02512585,-0.067748174,-0.21932924,0.09271463,0.05652319,0.026755938,0.039941736,-0.0227723,-0.27926436,0.06603002,0.05337561,-0.4691844,0.13602099,-0.06408254,0.3231072,0.10020939,-0.030875884,0.1823823,-0.18026741,-0.015244203,-0.11919125,-0.061716247,-0.0359535,0.072885685,0.06459342,-1.0,1.0,1.0,-1.0,1.0,-1.0,1.0,-1.0,-1.0,1.0,-1.0,1.0,-1.0,1.0,1.0,-1.0,-1.0,-1.0,1.0,-1.0,-1.0,1.0,-1.0,1.0
2025-06-04 10:22:32.301,0.06751903,-0.14783439,-0.12619586,0.019002562,0.020432003,0.01398446,0.0,0.0,0.0,-0.021797378,-0.058812067,-0.09253733,0.1084189,0.033446986,-0.023196952,0.004078776,-0.0030089368,-0.31018814,0.018293703,0.065202095,-0.46995836,0.15065247,0.0003123822,0.30053535,0.12618408,-0.06356539,-0.14634177,-0.14487119,-0.018947825,-0.10611747,-0.09287159,0.09115962,-0.052230302,0.08589715,-1.0,1.0,1.0,-1.0,-1.0,-1.0,1.0,-1.0,-1.0,1.0,-1.0,1.0,-1.0,1.0,1.0,-1.0,-1.0,-1.0,1.0,-1.0,-1.0,1.0,-1.0,1.0
2025-06-04 10:22:32.319,0.059678,-0.11477552,-0.12962575,-0.051190283,-0.046143148,-0.03657591,0.0,0.0,0.0,-0.018780516,-0.072647676,-0.0042186743,0.14004822,0.020416012,-0.09666117,-0.025096478,0.00500458,-0.35575104,-0.004593151,0.05530263,-0.4687195,0.17785095,-0.008162527,0.2836501,0.080988355,0.004602243,-0.12527248,-0.16077806,0.07237312,-0.070924886,-0.004022236,-0.03211355,0.026915615,0.013049944,-1.0,1.0,1.0,-1.0,-1.0,-1.0,1.0,-1.0,-1.0,1.0,-1.0,1.0,-1.0,1.0,1.0,-1.0,-1.0,-1.0,1.0,-1.0,-1.0,1.0,-1.0,1.0
2025-06-04 10:22:32.338,0.07262988,-0.056978453,-0.052026145,-0.024384666,-0.010723835,-0.0451348,0.0,0.0,0.0,-0.016637234,-0.08265716,0.0853938,0.16836995,-0.002300405,-0.1598243,-0.0639575,0.021646466,-0.37479645,-0.014833073,0.060076367,-0.46935928,0.19279498,0.039023913,0.25635833,0.044837803,-0.041776773,-0.09066069,-0.020849738,0.0076433434,-0.10759523,-0.08722158,0.04624813,0.012624598,0.032389287,-1.0,1.0,1.0,-1.0,-1.0,-1.0,1.0,-1.0,-1.0,1.0,-1.0,1.0,-1.0,1.0,1.0,-1.0,-1.0,-1.0,1.0,-1.0,-1.0,1.0,1.0,1.0
2025-06-04 10:22:32.358,-0.04438981,-0.0051478236,-0.11159932,-0.0031072302,-0.037861742,0.011235662,0.0,0.0,0.0,-0.015244987,-0.07733255,0.15789114,0.18459359,-0.007482008,-0.18434487,-0.07095415,0.02415793,-0.39365822,-0.049307857,0.0714098,-0.3438144,0.19560133,-0.051637176,0.21245156,0.030890003,-0.08563393,-0.14771086,0.045149896,-0.009105025,-0.13005999,-0.08035069,0.0061414363,0.38633814,0.05774491,-1.0,1.0,1.0,-1.0,-1.0,-1.0,1.0,-1.0,-1.0,1.0,1.0,1.0,-1.0,1.0,1.0,-1.0,-1.0,-1.0,1.0,-1.0,-1.0,1.0,1.0,1.0
2025-06-04 10:22:32.378,-0.035655815,-0.003605503,-0.016778084,0.019237138,-0.080806285,-0.012290979,0.0,0.0,0.0,-0.013775195,-0.07896708,0.21571065,0.19752145,-0.01762919,-0.23742422,-0.06656998,0.03910382,-0.41637203,-0.076152,0.084240876,-0.20822373,0.21010865,0.03575424,0.14211486,-0.016181126,-0.009666216,-0.0981102,-0.025329309,0.035695378,-0.1348671,0.011663966,-0.026204428,0.35850736,0.08747434,-1.0,1.0,1.0,-1.0,-1.0,-1.0,1.0,-1.0,-1.0,1.0,1.0,1.0,-1.0,1.0,1.0,-1.0,-1.0,-1.0,1.0,-1.0,-1.0,1.0,1.0,1.0
2025-06-04 10:22:32.401,-0.08172032,0.12290054,-0.01605952,0.015278015,-0.012292086,-0.02252353,0.0,0.0,0.0,-0.012746923,-0.07781637,0.2531349,0.1980762,-0.012674814,-0.26464126,-0.06806318,0.03467474,-0.449734,-0.08278276,0.07802437,-0.07078397,0.21774533,-0.03450141,0.13696364,-0.019521259,-0.019032843,-0.10386204,-0.020930978,-0.00062809815,-0.112909235,0.0057863784,0.063821256,0.34769207,-0.009937572,-1.0,1.0,1.0,-1.0,-1.0,-1.0,1.0,-1.0,-1.0,1.0,1.0,1.0,-1.0,1.0,1.0,-1.0,-1.0,-1.0,1.0,-1.0,-1.0,1.0,1.0,1.0
2025-06-04 10:22:32.419,-0.07414076,0.08481274,0.0803145,-0.016175466,-0.02405212,-0.013835089,0.0,0.0,0.0,-0.012472151,-0.08514049,0.30659112,0.21227759,-0.009405024,-0.29528967,-0.06735259,0.03817038,-0.46394533,-0.09665359,0.07247331,0.026520725,0.2224394,0.06022269,0.09450283,0.030064218,0.01866893,-0.060073864,0.025098106,-0.0677371,-0.059500564,0.015804198,-0.007973612,0.29415998,-0.039897148,-1.0,1.0,1.0,-1.0,-1.0,-1.0,1.0,-1.0,-1.0,1.0,1.0,1.0,-1.0,1.0,-1.0,-1.0,1.0,-1.0,1.0,-1.0,-1.0,1.0,1.0,1.0
2025-06-04 10:22:32.438,-0.4113894,0.1553459,-0.053910863,-0.052225642,0.011722301,0.01988617,0.0,0.0,0.0,-0.012812815,-0.09891868,0.34161103,0.1410686,-0.018081805,-0.30734366,-0.0950166,0.0364222,-0.47874045,-0.13084792,0.07068277,0.1055654,0.22355758,-0.02622479,0.019201014,-0.17136507,-0.023627026,-0.040212363,-0.06430366,-0.022363814,0.05133818,-0.033625066,-0.08478609,0.27520606,0.075365864,-1.0,1.0,-1.0,-1.0,1.0,-1.0,1.0,-1.0,-1.0,1.0,1.0,1.0,1.0,-1.0,-1.0,-1.0,-1.0,-1.0,-1.0,-1.0,-1.0,1.0,-1.0,-1.0
2025-06-04 10:22:32.459,-0.3432247,-0.012707875,-0.0055904966,-0.063379414,0.06772465,0.038263388,0.0,0.0,0.0,-0.011768,-0.070310906,0.24695264,0.07775557,-0.031684,-0.33892676,-0.118497126,0.010261586,-0.5031859,-0.15908225,0.08062606,0.035538923,0.16682568,0.015836606,-0.28037617,-0.11427439,-0.0961903,-0.08609256,0.009945938,-0.019989522,-0.03271801,-0.055695754,0.06452009,-0.23731588,-0.24284236,1.0,-1.0,-1.0,-1.0,-1.0,-1.0,-1.0,-1.0,-1.0,1.0,-1.0,-1.0,1.0,-1.0,-1.0,1.0,-1.0,1.0,-1.0,-1.0,1.0,-1.0,-1.0,-1.0
2025-06-04 10:22:32.478,0.10903037,-0.10931499,-0.0024590339,-0.081421584,-0.014497067,0.028037084,0.0,0.0,0.0,-0.01163721,-0.039349254,0.1614187,0.09953905,-0.020006072,-0.38175628,-0.062355574,0.010359181,-0.5232041,-0.08960709,0.05823793,-0.044709492,0.08698143,0.024792284,-0.26608703,-0.020045616,0.07346112,-0.14172769,0.21217161,-0.039556183,-0.026607413,0.08951789,-0.10886958,-0.21800455,-0.11063504,1.0,-1.0,-1.0,1.0,-1.0,1.0,-1.0,-1.0,1.0,-1.0,-1.0,-1.0,1.0,-1.0,-1.0,1.0,1.0,1.0,-1.0,-1.0,1.0,-1.0,-1.0,-1.0
2025-06-04 10:22:32.502,0.149289,-0.19137214,-0.053826015,-0.09940998,0.017031834,-0.0042327745,0.0,0.0,0.0,-0.012044005,-0.02084892,0.07917228,0.11928593,0.005666646,-0.2690473,-0.02666758,-0.006457854,-0.5411536,-0.05724956,0.034244556,-0.12992857,0.034525953,0.033595808,-0.13227007,0.046507087,0.0656425,0.25219005,0.08908647,-0.050565533,-0.10969624,0.10380615,0.012890814,-0.25069728,-0.07162379,1.0,-1.0,-1.0,1.0,1.0,1.0,-1.0,-1.0,1.0,-1.0,-1.0,-1.0,1.0,1.0,-1.0,1.0,-1.0,1.0,-1.0,-1.0,1.0,-1.0,-1.0,-1.0
2025-06-04 10:22:32.519,0.30363667,-0.07208866,0.055865988,-0.05603945,0.022314144,0.0035828692,0.0,0.0,0.0,-0.010719007,-0.00847935,0.0354443,0.1202868,0.01068391,-0.28272256,0.021994207,-0.02102678,-0.54071844,0.0008586006,0.046509404,-0.1830351,0.01986545,0.10664129,0.042335127,-0.0052008037,0.019856114,-0.019834066,0.097509556,-0.041402623,-0.040753305,0.16032614,-0.05142397,-0.1339734,-0.01917544,1.0,1.0,-1.0,1.0,-1.0,1.0,-1.0,-1.0,1.0,-1.0,-1.0,-1.0,1.0,-1.0,-1.0,1.0,1.0,1.0,-1.0,-1.0,1.0,-1.0,-1.0,-1.0
2025-06-04 10:22:32.539,0.038145788,-0.17909901,0.014086032,-0.044641815,-0.01788808,0.022905773,0.0,0.0,0.0,-0.011781913,8.5451684e-05,0.015012006,0.099176854,0.031449754,-0.18557708,0.058334935,-0.030871192,-0.5265754,0.04814799,0.055938687,-0.24179144,0.023505375,-0.049487352,-0.10748073,-0.04176097,0.07430405,0.30036336,0.10859872,-0.009721274,0.07742749,0.0489654,0.046103362,-0.17304014,-0.05454767,1.0,-1.0,-1.0,1.0,1.0,1.0,-1.0,-1.0,1.0,-1.0,-1.0,-1.0,1.0,1.0,-1.0,1.0,1.0,1.0,-1.0,-1.0,1.0,-1.0,-1.0,-1.0
2025-06-04 10:22:32.558,0.10690311,-0.07625382,0.19653499,-0.019468345,-0.068385765,0.04068136,0.0,0.0,0.0,-0.012580808,0.0008910834,0.0018084131,0.073330425,0.043840963,-0.067079276,0.105614886,-0.033933852,-0.51883656,0.08273627,0.04590367,-0.28177655,0.012810882,0.06110232,0.10064891,-0.033818625,0.037596617,0.26878425,0.046053093,0.015971955,0.03140377,0.1217626,-0.02059495,-0.11542808,0.03073054,1.0,1.0,-1.0,1.0,1.0,1.0,-1.0,-1.0,1.0,-1.0,-1.0,-1.0,1.0,-1.0,-1.0,1.0,1.0,1.0,-1.0,-1.0,1.0,-1.0,-1.0,-1.0
2025-06-04 10:22:32.579,0.030645616,-0.07646625,0.17369772,-0.0953697,-0.016265951,0.016343417,0.0,0.0,0.0,-0.014828348,0.012932863,-0.053649954,0.031928882,0.03823289,0.036544226,0.12949769,-0.042465683,-0.515065,0.10930337,0.02352815,-0.3153079,-0.014282712,-0.030227257,-0.16885066,-0.086408205,-0.049171757,0.18670186,-0.0030031325,-0.06709759,0.060274743,0.13313225,0.0072674616,-0.10061717,-0.03028538,1.0,-1.0,-1.0,1.0,1.0,1.0,-1.0,-1.0,1.0,-1.0,-1.0,-1.0,1.0,-1.0,-1.0,1.0,1.0,1.0,-1.0,-1.0,1.0,-1.0,-1.0,-1.0
2025-06-04 10:22:32.603,0.029659033,-0.16084757,0.091525964,-0.0145761045,-0.050123837,0.030219229,0.0,0.0,0.0,-0.01764595,0.02065969,-0.09698711,0.0007569691,0.05868893,0.10410319,0.15421918,-0.06790349,-0.5056924,0.13107353,0.010857438,-0.33507892,-0.03294249,0.079097554,-0.05549731,-0.11961581,0.08860685,0.13156056,0.042613104,0.02156969,0.0094164,-0.010155597,0.011652388,-0.06420579,0.014194965,1.0,-1.0,-1.0,1.0,1.0,1.0,-1.0,-1.0,1.0,-1.0,-1.0,-1.0,1.0,-1.0,-1.0,1.0,1.0,1.0,-1.0,-1.0,1.0,-1.0,-1.0,-1.0
2025-06-04 10:22:32.619,-0.042076427,-0.13852191,0.07338237,-0.09455729,-0.02496624,-0.04968841,0.0,0.0,0.0,-0.019833885,0.020416643,-0.15459156,-0.0059259096,0.06958557,0.18077967,0.17658027,-0.0707231,-0.49169713,0.16755344,0.007563327,-0.36503962,-0.042057227,0.026347257,-0.16667986,-0.08171217,-0.031693112,0.22052827,-0.029418403,-0.017347626,-0.061453443,0.0031026783,-0.043091975,-0.14014734,-0.108593896,1.0,-1.0,-1.0,1.0,1.0,1.0,-1.0,-1.0,1.0,-1.0,-1.0,-1.0,1.0,-1.0,-1.0,1.0,1.0,1.0,-1.0,-1.0,1.0,-1.0,-1.0,-1.0
2025-06-04 10:22:32.639,0.01366946,-0.016624577,0.014577758,-0.07304141,-0.0785683,-0.007393284,0.0,0.0,0.0,-0.02106568,0.020250633,-0.19806886,-0.029349085,0.057979338,0.23199749,0.1940441,-0.06803435,-0.49898311,0.16788445,-0.0057309247,-0.39936787,-0.06328045,-0.02688469,-0.044369932,-0.07203299,0.013355835,0.053563956,-0.017243845,-0.005674128,0.013535837,0.011251321,-0.011274102,-0.11203957,-0.055125058,1.0,-1.0,-1.0,1.0,1.0,1.0,-1.0,-1.0,1.0,-1.0,-1.0,-1.0,1.0,1.0,-1.0,1.0,1.0,1.0,-1.0,-1.0,1.0,-1.0,-1.0,-1.0
2025-06-04 10:22:32.660,0.25615752,0.13608065,0.065972984,-0.09832271,-0.09616075,-0.010539269,0.0,0.0,0.0,-0.021458294,0.022996046,-0.19352809,-0.051182434,0.07556755,0.27982485,0.20355141,-0.07148947,-0.47910625,0.18923455,-0.0029907925,-0.42056257,-0.073977515,-0.046014898,-0.0424052,-0.0677809,0.043987844,0.1462487,0.07287299,0.050564427,0.081943534,-0.0045671803,0.055518907,-0.08934898,-0.10154425,1.0,1.0,-1.0,1.0,1.0,1.0,-1.0,-1.0,1.0,-1.0,-1.0,-1.0,1.0,-1.0,-1.0,1.0,1.0,1.0,-1.0,-1.0,1.0,-1.0,-1.0,-1.0
2025-06-04 10:22:32.679,0.115943365,0.025132729,0.123437695,0.004241154,-0.023213837,0.037137218,0.0,0.0,0.0,-0.023359343,0.0334376,-0.21816328,-0.056300703,0.0816365,0.31661287,0.20923498,-0.06562349,-0.48376498,0.20478603,-0.018546386,-0.45081967,-0.09760187,-0.043691866,-0.12956005,0.024050476,0.035178676,0.016577056,0.02586696,-0.0081413835,-0.030309033,0.071250424,0.009734137,-0.021548148,-0.104678854,1.0,-1.0,-1.0,1.0,1.0,1.0,-1.0,-1.0,1.0,-1.0,-1.0,-1.0,1.0,-1.0,-1.0,1.0,1.0,1.0,-1.0,-1.0,1.0,-1.0,-1.0,-1.0
2025-06-04 10:22:32.702,0.0321794,0.08131479,0.018760636,0.014868079,-0.09207043,0.021593014,0.0,0.0,0.0,-0.02577902,0.036177307,-0.24646212,-0.07335234,0.0703082,0.34560287,0.217493,-0.07796143,-0.48711774,0.22135414,-0.016533306,-0.4591441,-0.11501734,-0.04356542,-0.058526266,0.039216377,-0.056320146,0.12158136,-0.034123715,0.014208304,0.04263762,0.045389753,-0.04579644,-0.07746944,-0.11798295,1.0,-1.0,-1.0,1.0,1.0,1.0,-1.0,-1.0,1.0,-1.0,-1.0,-1.0,1.0,-1.0,-1.0,1.0,1.0,1.0,-1.0,-1.0,1.0,-1.0,-1.0,-1.0
2025-06-04 10:22:32.720,0.035218354,0.09687759,-0.016077511,-0.01226149,-0.037179798,0.01863817,0.0,0.0,0.0,-0.027416162,0.029261757,-0.27917132,-0.07123494,0.08086397,0.3677453,0.22709256,-0.08746192,-0.47744048,0.22866069,-0.035484005,-0.47737342,-0.13187523,-0.012253367,-0.13874489,0.044268694,-0.05946514,0.07557569,0.021357102,-0.025191117,0.00080521224,-0.018228559,-0.07491209,-0.08958351,-0.061218064,1.0,-1.0,-1.0,1.0,1.0,1.0,-1.0,-1.0,1.0,-1.0,-1.0,-1.0,1.0,-1.0,-1.0,1.0,1.0,1.0,-1.0,-1.0,1.0,-1.0,-1.0,-1.0
2025-06-04 10:22:32.739,0.023407811,0.14738208,-0.022444963,-0.056551922,-0.10031309,0.01689872,0.0,0.0,0.0,-0.02817748,0.03059705,-0.31285217,-0.07942606,0.07537771,0.38592514,0.22520125,-0.08158614,-0.4716618,0.22481558,-0.0216857,-0.5106316,-0.15505229,-0.0659785,-0.13265713,0.049531657,0.06745436,0.047265295,-0.026678845,0.0005960429,0.0032737558,-0.055701718,0.06617489,-0.020358086,-0.0128609175,1.0,-1.0,-1.0,1.0,1.0,1.0,-1.0,-1.0,1.0,-1.0,-1.0,-1.0,1.0,-1.0,-1.0,1.0,1.0,1.0,-1.0,-1.0,1.0,-1.0,-1.0,-1.0
2025-06-04 10:22:32.760,0.04596987,0.1296444,-0.09646469,-0.022423757,-0.043709815,-0.02269685,0.0,0.0,0.0,-0.02816321,0.039472926,-0.34112155,-0.075014114,0.08046834,0.41253322,0.24588643,-0.085885264,-0.48378265,0.23915103,-0.033267267,-0.52574986,-0.16379921,0.07056555,-0.08385332,0.0478213,-0.03436909,0.008790465,0.02239547,0.05892624,0.04479747,0.0419307,0.030754672,-0.0055141416,-0.01735409,1.0,-1.0,-1.0,1.0,1.0,1.0,-1.0,-1.0,1.0,-1.0,-1.0,-1.0,1.0,1.0,-1.0,1.0,1.0,1.0,-1.0,-1.0,1.0,-1.0,-1.0,-1.0
2025-06-04 10:22:32.780,0.3194132,0.33820397,0.009390901,0.03464981,-0.045873262,0.019096442,0.0,0.0,0.0,-0.027603537,0.056323837,-0.35832903,-0.09029775,0.08324029,0.4139661,0.23255183,-0.0754834,-0.4676985,0.23344308,-0.029519126,-0.53567505,-0.17480202,0.07812852,0.04227969,-0.07034246,0.0066582826,0.018575586,0.002613531,0.031439528,0.03264437,-0.023487886,0.009692673,-0.0018935987,-0.07261911,1.0,1.0,-1.0,1.0,1.0,1.0,-1.0,-1.0,1.0,-1.0,-1.0,-1.0,1.0,-1.0,-1.0,1.0,1.0,1.0,-1.0,1.0,1.0,-1.0,-1.0,-1.0
2025-06-04 10:22:32.803,0.40883654,0.41168755,0.03095544,0.07583702,-0.039648652,0.010906344,0.0,0.0,0.0,-0.028364578,0.061351154,-0.35008615,-0.08436085,0.081690945,0.43445253,0.24601163,-0.07448156,-0.32958287,0.23582983,-0.027211025,-0.5270807,-0.2015191,0.07698823,-0.015042964,-0.006534913,-0.023885414,0.0677338,0.009451877,-0.042858973,0.4099219,0.062432475,0.0015075244,0.04220186,-0.025773872,1.0,-1.0,-1.0,1.0,1.0,1.0,-1.0,1.0,1.0,-1.0,-1.0,-1.0,1.0,-1.0,-1.0,1.0,1.0,1.0,-1.0,1.0,1.0,-1.0,-1.0,-1.0
2025-06-04 10:22:32.820,0.35308978,0.3843614,0.04884973,0.15093422,-0.008076023,-0.03284851,0.0,0.0,0.0,-0.030075181,0.062460568,-0.37971905,-0.097119436,0.09936486,0.43266803,0.24164718,-0.078230485,-0.18796533,0.23607284,-0.03957605,-0.5209265,-0.21076122,0.070517816,0.016223898,-0.01160687,-0.0005957705,0.08040479,-0.059402,-0.019628154,0.33847916,-0.00713728,-0.01202517,0.010024358,-0.042072956,1.0,-1.0,-1.0,1.0,1.0,1.0,-1.0,1.0,1.0,-1.0,-1.0,-1.0,1.0,-1.0,-1.0,1.0,1.0,1.0,-1.0,1.0,1.0,-1.0,-1.0,-1.0
2025-06-04 10:22:32.840,0.32667556,0.36892548,-0.047889244,0.14474124,0.033365555,-0.042613577,0.0,0.0,0.0,-0.03115218,0.07769882,-0.39979312,-0.10278954,0.10085547,0.45325178,0.24769264,-0.076239705,-0.07021125,0.25291914,-0.043136332,-0.5466075,-0.23045607,-0.05746435,-0.10624104,0.060842417,0.041036684,0.026505157,-0.05225085,0.06638498,0.3426147,0.05515084,0.048977453,0.026368303,0.023300488,1.0,-1.0,-1.0,1.0,1.0,1.0,-1.0,1.0,1.0,-1.0,-1.0,-1.0,1.0,-1.0,-1.0,1.0,1.0,1.0,-1.0,1.0,1.0,-1.0,-1.0,-1.0
2025-06-04 10:22:32.861,0.22473058,0.21553463,0.03376958,0.20722513,0.049155943,0.03402949,0.0,0.0,0.0,-0.031346396,0.073669545,-0.41571718,-0.09249774,0.08931667,0.44385195,0.2565288,-0.09628477,0.011720699,0.24232759,-0.052517734,-0.5566826,-0.2384376,0.04996077,-0.07410562,0.018429985,0.0062596137,0.01417517,-0.015290464,-0.07381134,0.1867547,-0.062334504,-0.03158829,-0.061594535,-0.101192825,1.0,-1.0,-1.0,1.0,1.0,1.0,-1.0,1.0,1.0,-1.0,-1.0,-1.0,1.0,-1.0,-1.0,1.0,1.0,1.0,-1.0,1.0,1.0,-1.0,-1.0,-1.0
2025-06-04 10:22:32.881,0.06475934,0.037871704,0.04072011,0.19538614,0.028104104,-0.009460272,0.0,0.0,0.0,-0.030758062,0.07355766,-0.42720377,-0.1197104,0.08830921,0.416892,0.29692802,-0.08456657,0.1041737,0.24363759,-0.055467047,-0.5732919,-0.24563727,-0.027680801,-0.09632982,-0.03857788,-0.026806721,-0.124263756,0.118867114,-0.06276942,0.11545685,-0.020721566,0.023678347,-0.072364286,-0.032533582,1.0,-1.0,-1.0,1.0,1.0,1.0,-1.0,1.0,1.0,-1.0,-1.0,-1.0,1.0,-1.0,-1.0,1.0,1.0,-1.0,-1.0,1.0,1.0,-1.0,-1.0,-1.0
2025-06-04 10:22:32.903,-0.21126316,-0.16793296,0.044779427,0.19752255,0.041666474,0.011504226,0.0,0.0,0.0,-0.03134541,0.053043652,-0.44077384,-0.14028025,0.079473995,0.3786577,0.29784426,-0.094038,0.17236625,0.2526047,-0.07864563,-0.5906,-0.2759383,-0.025124868,0.013630164,-0.04389283,0.009306932,-0.08721425,0.0675875,0.021593813,0.14477758,-0.004187884,0.027278958,-0.063275725,-0.11498614,1.0,-1.0,-1.0,1.0,1.0,-1.0,-1.0,1.0,1.0,-1.0,-1.0,-1.0,1.0,-1.0,1.0,-1.0,1.0,-1.0,-1.0,1.0,-1.0,1.0,-1.0,-1.0
2025-06-04 10:22:32.920,-0.35271963,-0.30685896,-0.07485039,0.13597792,0.03632311,0.047952,0.0,0.0,0.0,-0.031753663,0.063820675,-0.4770862,-0.08868076,0.050532326,0.35536492,0.27860028,-0.091352604,0.22372724,0.18295981,-0.0664047,-0.58264923,-0.28362703,-0.049192514,-0.06883144,0.13191277,0.0021966156,0.007190608,-0.060272157,-0.017423933,0.13661547,-0.2204083,0.006342137,0.04696046,0.01413769,1.0,-1.0,1.0,-1.0,1.0,-1.0,-1.0,1.0,-1.0,1.0,-1.0,-1.0,-1.0,-1.0,1.0,-1.0,-1.0,-1.0,1.0,-1.0,-1.0,1.0,-1.0,1.0
2025-06-04 10:22:32.941,-0.6244817,-0.6553769,-0.025011316,0.07851414,-0.032512084,0.022669312,0.0,0.0,0.0,-0.030959051,0.043727096,-0.48095876,-0.04041228,0.019134672,0.29941407,0.24424237,-0.076894976,0.14064789,0.10700633,-0.031883016,-0.60246164,-0.2073096,-0.027818378,0.061800137,0.17231722,0.00948443,-0.23286082,-0.14702626,0.02079202,-0.3249694,-0.23892723,-0.011716428,-0.09935325,0.10305617,-1.0,-1.0,1.0,-1.0,-1.0,-1.0,1.0,-1.0,-1.0,1.0,-1.0,1.0,-1.0,-1.0,1.0,-1.0,-1.0,-1.0,1.0,-1.0,-1.0,1.0,-1.0,1.0
2025-06-04 10:22:32.960,-0.3394116,-0.46954417,-0.056589387,0.018274022,-0.07287666,-0.033006728,0.0,0.0,0.0,-0.029478587,0.0107044745,-0.47917628,0.020310177,-0.001877773,0.18247668,0.18057078,-0.04936221,0.03887406,0.07313936,-0.020394057,-0.6211829,-0.1398266,0.0069509787,-0.05247844,0.11781159,-0.04576815,-0.24043265,-0.17537391,0.044986278,-0.28378168,-0.07223651,0.066202335,0.028855493,0.21385661,-1.0,-1.0,1.0,-1.0,-1.0,-1.0,1.0,-1.0,-1.0,1.0,-1.0,1.0,-1.0,-1.0,1.0,-1.0,-1.0,-1.0,1.0,-1.0,-1.0,1.0,-1.0,1.0
2025-06-04 10:22:32.980,-0.07073281,-0.17067908,0.022498751,0.06192787,-0.052548587,-0.002595704,0.0,0.0,0.0,-0.026980624,-0.0014510601,-0.4594967,0.054751553,0.006441357,0.11158864,0.14831865,-0.061295245,-0.05117474,0.08794415,0.0034208936,-0.6221035,-0.09904145,0.04386003,-0.04035663,0.044470526,0.01771079,-0.17389159,-0.09901764,0.0054881116,-0.19494525,0.109573774,0.04754638,0.027151901,0.12919691,-1.0,-1.0,1.0,-1.0,-1.0,-1.0,1.0,-1.0,-1.0,1.0,-1.0,1.0,-1.0,-1.0,1.0,-1.0,1.0,-1.0,1.0,-1.0,-1.0,1.0,-1.0,1.0
2025-06-04 10:22:33.003,-0.06450787,-0.04446673,-0.11688504,0.020691736,0.00041296356,-0.02405879,0.0,0.0,0.0,-0.026198091,-0.0006172694,-0.46845454,0.087658554,-0.0021841496,0.10359422,0.1358645,-0.047403943,-0.08331201,0.11071655,0.029542081,-0.59039503,-0.034932043,-0.072757155,-0.06798072,0.044572476,0.01336225,-0.04815315,-0.034259446,-0.04844601,-0.15454417,-0.021608368,0.087309904,0.05501036,0.08932049,-1.0,-1.0,1.0,-1.0,1.0,-1.0,1.0,-1.0,-1.0,1.0,-1.0,1.0,-1.0,1.0,1.0,-1.0,-1.0,-1.0,1.0,-1.0,-1.0,1.0,-1.0,1.0
2025-06-04 10:22:33.021,0.15147476,-0.1904618,-0.07555049,0.0409017,-0.08938957,0.03364211,0.0,0.0,0.0,-0.02421415,-0.031619623,-0.32488063,0.110148266,0.0051382654,0.06476379,0.10684703,-0.038746092,-0.12415283,0.10911174,0.040659793,-0.5810921,0.028139904,0.0057257777,0.413842,0.10307465,-0.06554828,-0.16454275,-0.1802234,0.11521403,-0.08890987,0.047938734,-0.035706334,0.09675727,0.10474009,-1.0,1.0,1.0,-1.0,-1.0,-1.0,1.0,-1.0,-1.0,1.0,-1.0,1.0,-1.0,1.0,1.0,-1.0,-1.0,-1.0,1.0,-1.0,-1.0,1.0,-1.0,1.0
2025-06-04 10:22:33.041,0.20239776,-0.23447242,-0.007921808,-0.003260469,-0.053401235,0.021631002,0.0,0.0,0.0,-0.022712432,-0.041484453,-0.1900952,0.1433609,-0.012472143,-0.023002962,0.05306918,-0.02453756,-0.16318692,0.10692796,0.042943332,-0.5615726,0.053223703,-0.044010002,0.34558132,0.12516302,-0.08219485,-0.1204156,-0.13779654,0.059518155,-0.04946722,0.012160717,0.022546845,0.05164994,0.03498224,-1.0,1.0,1.0,-1.0,-1.0,-1.0,1.0,-1.0,-1.0,1.0,-1.0,1.0,-1.0,1.0,1.0,-1.0,1.0,-1.0,1.0,-1.0,-1.0,1.0,-1.0,1.0
2025-06-04 10:22:33.060,0.074765794,-0.13464361,-0.18423957,-0.032368075,-0.14554535,-0.03681501,0.0,0.0,0.0,-0.022045245,-0.048479877,-0.07909963,0.16540621,-0.01606641,-0.010996798,0.016449189,0.0013597042,-0.20017308,0.10096055,0.06173641,-0.53983337,0.0873514,-0.030882195,0.25579172,0.079406045,0.045811944,0.13288622,-0.08542047,0.048505075,-0.037579693,-0.0807997,-0.04710077,0.025712417,0.044920728,-1.0,1.0,1.0,-1.0,1.0,-1.0,1.0,-1.0,-1.0,1.0,-1.0,1.0,-1.0,1.0,1.0,-1.0,-1.0,-1.0,1.0,-1.0,-1.0,1.0,-1.0,1.0
2025-06-04 10:22:33.080,0.22510159,-0.1260327,-0.057019558,0.045059334,-0.06637089,0.03984963,0.0,0.0,0.0,-0.019622307,-0.04430004,0.028486904,0.17609176,-0.027603555,-0.053556055,-0.02572064,0.017848812,-0.23130786,0.075855836,0.060042616,-0.5361234,0.12265091,-0.028787978,0.2664984,-0.01076953,-0.0012549027,-0.12006677,-0.037447438,-0.0036140499,-0.07106631,-0.05842806,-0.017635567,-0.023670653,0.02180349,-1.0,1.0,1.0,-1.0,-1.0,-1.0,1.0,-1.0,-1.0,1.0,-1.0,1.0,-1.0,1.0,1.0,-1.0,-1.0,-1.0,1.0,-1.0,-1.0,1.0,-1.0,1.0
2025-06-04 10:22:33.102,0.18627349,-0.07950065,-0.064749636,0.018154293,-0.118077226,-0.04052132,0.0,0.0,0.0,-0.017656486,-0.05048161,0.097027354,0.199713,-0.03747071,-0.107219875,-0.048884053,0.042092662,-0.26971003,0.05940888,0.06205629,-0.51677585,0.14029817,0.051386286,0.25601766,0.094880655,0.054486576,-0.08183503,-0.021994248,0.048072167,-0.15047479,-0.055414565,0.08629933,-0.015730895,0.074841075,-1.0,1.0,1.0,-1.0,-1.0,-1.0,1.0,-1.0,-1.0,1.0,-1.0,1.0,-1.0,1.0,1.0,-1.0,-1.0,-1.0,1.0,-1.0,-1.0,1.0,1.0,1.0
2025-06-04 10:22:33.121,0.13819014,-0.0632437,-0.047321405,-0.011174994,-0.13494918,-0.030368283,0.0,0.0,0.0,-0.016618503,-0.06818103,0.17529896,0.20139217,-0.036143627,-0.15606599,-0.061842658,0.039794885,-0.3007762,0.026485918,0.082223475,-0.37580675,0.16987626,-0.07378073,0.16282715,0.040614005,0.023301434,-0.06816668,-0.08228254,-0.012738593,-0.14699022,-0.032177083,0.061670564,0.46829653,0.037095565,-1.0,1.0,1.0,-1.0,-1.0,-1.0,1.0,-1.0,-1.0,1.0,1.0,1.0,-1.0,1.0,1.0,-1.0,-1.0,-1.0,1.0,-1.0,-1.0,1.0,1.0,1.0
2025-06-04 10:22:33.141,0.1526695,0.055879414,-0.009748917,0.03449377,-0.11318884,-0.036880206,0.0,0.0,0.0,-0.01559862,-0.06953033,0.23134121,0.21130121,-0.05687776,-0.21016026,-0.08529832,0.04131974,-0.33208686,0.012256609,0.07801571,-0.23959777,0.17419322,-0.04052071,0.11549898,0.08473854,0.010030949,-0.15877405,0.011586991,0.00023198614,-0.008761611,-0.062148526,-0.07012651,0.40483665,-0.03539144,-1.0,1.0,1.0,-1.0,-1.0,-1.0,1.0,-1.0,-1.0,1.0,1.0,1.0,-1.0,1.0,1.0,-1.0,-1.0,-1.0,1.0,-1.0,-1.0,1.0,1.0,1.0
2025-06-04 10:22:33.161,0.14599839,0.046362124,0.03226583,0.036790334,-0.14164543,-0.013146637,0.0,0.0,0.0,-0.015088579,-0.07224815,0.27780932,0.22206557,-0.044447333,-0.25206038,-0.078740515,0.05855985,-0.3629426,-0.0087263165,0.07830503,-0.10288103,0.19975162,-0.020814067,0.10679745,0.01734128,-0.06387624,-0.14479879,-0.033987846,0.0073617366,-0.08262604,0.029970352,-0.065709956,0.36290735,0.029517654,-1.0,1.0,1.0,-1.0,-1.0,-1.0,1.0,-1.0,-1.0,1.0,1.0,1.0,-1.0,1.0,-1.0,-1.0,1.0,-1.0,1.0,-1.0,-1.0,1.0,1.0,1.0
2025-06-04 10:22:33.184,-0.16547218,0.03233227,-0.1344481,0.08357729,-0.09851601,0.031396713,0.0,0.0,0.0,-0.015363645,-0.08515848,0.30534917,0.15485808,-0.061766703,-0.2569506,-0.11513354,0.060731072,-0.37829876,-0.020669809,0.07773047,-0.0016213007,0.20668769,-0.008442387,0.114643924,-0.13314694,-0.07267855,0.014634546,-0.0033592125,0.047570746,0.00031978305,-0.028919216,-0.08201719,0.2134351,-0.00754576,-1.0,1.0,-1.0,-1.0,1.0,-1.0,1.0,-1.0,-1.0,1.0,1.0,1.0,1.0,-1.0,-1.0,-1.0,-1.0,-1.0,-1.0,-1.0,-1.0,1.0,-1.0,-1.0
2025-06-04 10:22:33.203,-0.08620595,0.019525578,0.04777743,0.09632506,-0.09544387,-0.027483761,0.0,0.0,0.0,-0.013980833,-0.05955846,0.21316996,0.08515965,-0.07417247,-0.28894684,-0.12605909,0.038378753,-0.40510136,-0.050668407,0.07973583,-0.032561067,0.14594786,0.09479402,-0.36954674,-0.16259263,-0.06862757,-0.062045705,-0.07447428,-0.112343036,-0.03329217,-0.0906196,-0.058802586,-0.21806952,-0.1560739,1.0,-1.0,-1.0,-1.0,-1.0,-1.0,-1.0,-1.0,-1.0,1.0,-1.0,-1.0,1.0,-1.0,-1.0,1.0,-1.0,1.0,-1.0,-1.0,1.0,-1.0,-1.0,-1.0
2025-06-04 10:22:33.221,-0.341119,0.051711913,0.07858354,0.07881733,-0.08467469,-0.04924048,0.0,0.0,0.0,-0.01313773,-0.02046309,0.096157,0.030139985,-0.04284352,-0.3219549,-0.07090959,0.013803416,-0.43559137,-0.012320549,0.055422835,-0.08019532,0.11657899,0.056846797,-0.3041827,-0.105669126,0.10649849,-0.13116267,0.17150602,-0.073534384,-0.04135027,0.18734848,-0.068342395,-0.13250536,-0.11191426,1.0,-1.0,-1.0,1.0,-1.0,1.0,-1.0,-1.0,1.0,-1.0,-1.0,-1.0,1.0,-1.0,-1.0,1.0,1.0,1.0,-1.0,-1.0,1.0,-1.0,-1.0,-1.0
2025-06-04 10:22:33.242,-0.5433931,0.07907229,0.14359978,0.025612488,-0.13334301,0.004414791,0.0,0.0,0.0,-0.014011651,0.004703583,-0.0024136873,-0.031652834,-0.033696033,-0.22123596,-0.013492995,0.0046092924,-0.4434343,0.047271125,0.020661999,-0.13561715,0.112865224,-0.0050894297,-0.2978666,-0.118131876,0.00048799298,0.37087843,0.07072203,-0.06328173,-0.09125238,0.040706746,-0.07047814,-0.15825142,-0.066601574,1.0,-1.0,-1.0,1.0,1.0,1.0,-1.0,-1.0,1.0,-1.0,-1.0,-1.0,1.0,-1.0,-1.0,1.0,1.0,1.0,-1.0,-1.0,1.0,-1.0,-1.0,-1.0
2025-06-04 10:22:33.262,-0.44505152,0.15830307,0.123134635,-0.074973695,-0.034971762,0.01716188,0.0,0.0,0.0,-0.014734909,0.006937527,-0.09056899,-0.06449672,-0.0074268035,-0.10399326,0.03658495,-0.009734141,-0.44119084,0.08065335,-0.018352153,-0.16772312,0.09427768,-0.0612862,-0.24458934,0.003224475,0.0073008672,0.27154854,0.102807745,-0.09383099,-0.078762725,0.08801481,-0.063240014,-0.042856615,0.05349877,1.0,-1.0,-1.0,1.0,1.0,1.0,-1.0,-1.0,1.0,-1.0,-1.0,-1.0,1.0,-1.0,-1.0,1.0,1.0,1.0,-1.0,-1.0,1.0,-1.0,-1.0,-1.0
2025-06-04 10:22:33.284,-0.086823545,0.12011943,-0.021668863,-0.023049656,-0.016772065,-0.024713613,0.0,0.0,0.0,-0.015574456,0.012953122,-0.1422408,-0.04330764,0.01804181,-0.0011168516,0.072082,-0.034312353,-0.44473794,0.09898572,-0.03404245,-0.1929146,0.08776548,0.058916204,-0.08633282,0.020646537,0.10141815,0.20076105,0.06627141,-0.055595167,-0.011472304,0.023035074,0.03417593,-0.060126033,-0.02466244,1.0,-1.0,-1.0,1.0,1.0,1.0,-1.0,-1.0,1.0,-1.0,-1.0,-1.0,1.0,1.0,-1.0,1.0,1.0,1.0,-1.0,-1.0,1.0,-1.0,-1.0,-1.0
2025-06-04 10:22:33.303,0.1908482,0.20598496,0.14632072,-0.008285905,-0.059356395,0.01362547,0.0,0.0,0.0,-0.016220214,0.01716599,-0.19027324,-0.030268759,0.026722396,0.09591613,0.0999486,-0.037097424,-0.44882667,0.13012192,-0.01852928,-0.23557232,0.085880876,0.04671948,0.026496643,-0.021088794,0.07154461,0.1801208,0.047494646,-0.06396039,-0.029098269,0.051503014,0.076753326,-0.008250072,-0.04620238,1.0,1.0,-1.0,1.0,1.0,1.0,-1.0,-1.0,1.0,-1.0,-1.0,-1.0,1.0,-1.0,-1.0,1.0,1.0,1.0,-1.0,-1.0,1.0,-1.0,-1.0,-1.0
2025-06-04 10:22:33.322,0.05121776,0.09227502,0.050681446,-0.053444818,-0.07227548,-0.0064849434,0.0,0.0,0.0,-0.018046953,0.03195086,-0.2105932,-0.050114375,0.028206717,0.15536128,0.12182577,-0.04438063,-0.45222625,0.15351959,-0.020271054,-0.27297798,0.07831248,-0.029764537,-0.07404732,0.013850793,0.025515454,0.11665426,0.045370582,0.0089424765,-0.050517928,-0.00671217,-0.060998496,-0.08625591,-0.045101654,1.0,-1.0,-1.0,1.0,1.0,1.0,-1.0,-1.0,1.0,-1.0,-1.0,-1.0,1.0,-1.0,-1.0,1.0,1.0,1.0,-1.0,-1.0,1.0,-1.0,-1.0,-1.0
2025-06-04 10:22:33.342,-0.010003071,0.086324506,0.042799756,0.01860686,-0.00938391,0.010215718,0.0,0.0,0.0,-0.020308025,0.040613335,-0.23557034,-0.055459198,0.045076255,0.21342649,0.159185,-0.057532996,-0.4551119,0.17407428,-0.032851674,-0.2977665,0.055939913,0.056750488,-0.089814514,0.0043935804,-0.02088054,0.07217276,0.114343606,-0.08096382,-0.08375069,0.08842798,-0.058228772,-0.09439426,-0.059575662,1.0,-1.0,-1.0,1.0,1.0,1.0,-1.0,-1.0,1.0,-1.0,-1.0,-1.0,1.0,-1.0,-1.0,1.0,1.0,1.0,-1.0,-1.0,1.0,-1.0,-1.0,-1.0
2025-06-04 10:22:33.362,0.010030726,0.11757024,0.0051908176,0.031119589,-0.03583863,-0.006306448,0.0,0.0,0.0,-0.021954237,0.030206114,-0.2762204,-0.062307637,0.0544123,0.26222983,0.16604787,-0.048835102,-0.45208853,0.19807912,-0.03348142,-0.33425033,0.02296187,0.061436575,-0.06969179,0.018301226,0.050356552,0.1465182,0.067006245,-0.017694497,-0.072870694,0.06174422,-0.03858526,-0.036422864,-0.1029819,1.0,-1.0,-1.0,1.0,1.0,1.0,-1.0,-1.0,1.0,-1.0,-1.0,-1.0,1.0,-1.0,-1.0,1.0,1.0,1.0,-1.0,-1.0,1.0,-1.0,-1.0,-1.0
2025-06-04 10:22:33.385,0.03917787,0.13053289,0.049354874,-0.016467405,-0.076503895,-0.027771289,0.0,0.0,0.0,-0.023090085,0.038366556,-0.32398927,-0.06934847,0.05670836,0.3042688,0.19297719,-0.0569657,-0.4552691,0.19513418,-0.04202839,-0.35266688,0.0077230064,0.04255914,-0.13830005,-0.051937915,-0.051995628,0.1617958,-0.03662348,-0.05904138,-0.041382562,0.0072055114,0.051980287,-0.05181756,-0.11406171,1.0,-1.0,-1.0,1.0,1.0,1.0,-1.0,-1.0,1.0,-1.0,-1.0,-1.0,1.0,-1.0,-1.0,1.0,1.0,1.0,-1.0,-1.0,1.0,-1.0,-1.0,-1.0
2025-06-04 10:22:33.402,0.055563815,0.12011082,0.0582277,0.04987212,0.007199726,-0.038045883,0.0,0.0,0.0,-0.023846488,0.04900177,-0.34446368,-0.09939139,0.0705726,0.33228937,0.197006,-0.07724661,-0.45547903,0.20815754,-0.050354976,-0.3859257,-0.02713396,0.0009066435,-0.13804406,-0.046786923,0.08193516,0.023565529,0.098951645,-0.048128642,-0.02279746,0.069475695,-0.024505846,-0.073488966,-0.08944649,1.0,-1.0,-1.0,1.0,1.0,1.0,-1.0,-1.0,1.0,-1.0,-1.0,-1.0,1.0,-1.0,-1.0,1.0,1.0,1.0,-1.0,-1.0,1.0,-1.0,-1.0,-1.0
2025-06-04 10:22:33.423,0.050017986,0.16010727,-0.034757122,0.006161208,-0.047879726,-0.02506298,0.0,0.0,0.0,-0.02436605,0.045752544,-0.39849725,-0.10936841,0.066656694,0.3507005,0.2105182,-0.06784947,-0.45975184,0.2168986,-0.048145782,-0.41580635,-0.053184845,0.07053797,-0.13948406,-0.04605302,-0.019006759,0.1203275,0.07816303,-0.024630195,-0.0013445354,0.0010670953,-0.00019278414,-0.029221004,-0.13593237,1.0,-1.0,-1.0,1.0,1.0,1.0,-1.0,-1.0,1.0,-1.0,-1.0,-1.0,1.0,-1.0,-1.0,1.0,1.0,1.0,-1.0,-1.0,1.0,-1.0,-1.0,-1.0
2025-06-04 10:22:33.442,0.032454126,0.225827,0.038981114,0.025141604,0.03369285,-0.0060527427,0.0,0.0,0.0,-0.02476158,0.047191776,-0.4311445,-0.104004376,0.07682136,0.38166463,0.22664839,-0.08096255,-0.46685672,0.22168875,-0.05188264,-0.4451345,-0.09250942,-0.06368615,-0.04229975,-0.05299992,0.067535825,0.026060656,0.015218834,0.014155536,-0.07389838,-0.007896685,0.008737763,-0.12760508,-0.08922347,1.0,-1.0,-1.0,1.0,1.0,1.0,-1.0,-1.0,1.0,-1.0,-1.0,-1.0,1.0,-1.0,-1.0,1.0,1.0,1.0,-1.0,-1.0,1.0,-1.0,-1.0,-1.0
2025-06-04 10:22:33.462,0.12819184,0.27250057,0.033633754,0.067764595,0.009866177,-0.04508267,0.0,0.0,0.0,-0.02510077,0.05770725,-0.45525226,-0.12881921,0.07851534,0.39354396,0.22152959,-0.0733829,-0.4703063,0.24304335,-0.042564534,-0.4610849,-0.11904614,0.008734998,-0.092756115,0.024846662,0.0667009,0.06286938,-0.042461235,0.037770633,-0.053093523,0.054046378,-0.032740794,-0.11266243,-0.048046596,1.0,-1.0,-1.0,1.0,1.0,1.0,-1.0,-1.0,1.0,-1.0,-1.0,-1.0,1.0,-1.0,-1.0,1.0,1.0,1.0,-1.0,-1.0,1.0,-1.0,-1.0,-1.0
2025-06-04 10:22:33.486,0.104706876,0.3710933,0.014746432,0.07134048,0.017347142,0.0054829093,0.0,0.0,0.0,-0.025405623,0.052671395,-0.4924369,-0.12553415,0.08861002,0.41287792,0.23967683,-0.084730074,-0.46200916,0.24684897,-0.04316748,-0.47335172,-0.13561799,-0.053256158,-0.12602128,0.0152326645,-0.016092421,0.06037497,-0.021063112,-0.012165379,0.06466498,0.06008592,0.030123468,-0.079598814,-0.0544626,1.0,-1.0,-1.0,1.0,1.0,1.0,-1.0,-1.0,1.0,-1.0,-1.0,-1.0,1.0,-1.0,-1.0,1.0,1.0,1.0,-1.0,-1.0,1.0,-1.0,-1.0,-1.0
2025-06-04 10:22:33.503,0.14269459,0.35593444,-0.05574244,0.09452679,0.06873756,-0.008851409,0.0,0.0,0.0,-0.025642883,0.05794023,-0.5320296,-0.14485799,0.0794109,0.41842052,0.23728392,-0.08419043,-0.46966577,0.24469961,-0.03911536,-0.48554924,-0.17020983,0.03139171,-0.108901955,0.006651412,0.080338664,-0.0345039,0.09222749,0.003545919,0.043962363,-0.05509048,-0.008242993,-0.055577643,-0.012626652,1.0,-1.0,-1.0,1.0,1.0,1.0,-1.0,-1.0,1.0,-1.0,-1.0,-1.0,1.0,-1.0,-1.0,1.0,1.0,1.0,-1.0,1.0,1.0,-1.0,-1.0,-1.0
2025-06-04 10:22:33.522,0.13971554,0.26855746,-0.04440048,0.15597369,0.05466221,-0.03619764,0.0,0.0,0.0,-0.025575299,0.057784628,-0.5488652,-0.15229796,0.101250395,0.41547915,0.30138794,-0.08836478,-0.342827,0.23625134,-0.047233876,-0.5015878,-0.1936777,0.007462512,-0.06153421,-0.069040105,0.07698165,-0.0005883896,0.11018696,0.055779546,0.32132483,0.08008302,-0.009693622,-0.06726769,0.0032966947,1.0,-1.0,-1.0,1.0,1.0,1.0,-1.0,1.0,1.0,-1.0,-1.0,-1.0,1.0,-1.0,-1.0,1.0,1.0,1.0,-1.0,1.0,1.0,-1.0,-1.0,-1.0
2025-06-04 10:22:33.543,0.025939235,0.01718499,-0.06442498,0.1228114,0.101372786,0.003287433,0.0,0.0,0.0,-0.024829922,0.053897277,-0.5686599,-0.16755903,0.09790619,0.39427876,0.382266,-0.08394905,-0.18863355,0.24912782,-0.06677866,-0.4916183,-0.19975342,0.028240671,0.012801517,-0.11124519,-0.04911024,-0.06355433,0.07866271,0.05037924,0.38955128,-0.038277235,0.04729784,0.030048952,-0.07976346,1.0,-1.0,-1.0,1.0,1.0,1.0,-1.0,1.0,1.0,-1.0,-1.0,-1.0,1.0,-1.0,-1.0,1.0,1.0,-1.0,-1.0,1.0,1.0,-1.0,-1.0,-1.0
2025-06-04 10:22:33.562,-0.27793705,-0.27195138,-0.09764622,0.14091918,0.076198384,0.014954101,0.0,0.0,0.0,-0.023599962,0.041946355,-0.57956415,-0.19078656,0.11296014,0.36312625,0.38755086,-0.08720456,-0.06792856,0.25276887,-0.07783891,-0.5160684,-0.22802359,-0.041934393,-0.08171006,-0.13580215,0.07295393,0.035596654,0.029106766,-0.010691471,0.2310901,-0.032420427,-0.074027814,-0.088177055,-0.12071416,1.0,-1.0,-1.0,1.0,1.0,-1.0,-1.0,1.0,1.0,-1.0,-1.0,-1.0,1.0,-1.0,1.0,-1.0,-1.0,-1.0,-1.0,1.0,-1.0,1.0,-1.0,-1.0
2025-06-04 10:22:33.586,-0.22293507,-0.43502933,-0.116133764,0.116857804,0.1295443,0.018149527,0.0,0.0,0.0,-0.023122493,0.050150372,-0.61614156,-0.15207624,0.09110575,0.2971803,0.34733683,-0.09282205,0.011476646,0.17193879,-0.0803402,-0.5405583,-0.23075524,0.07046555,0.03142516,0.1221827,0.017979277,-0.16309972,-0.13852209,-0.044491902,0.1914545,-0.2791499,-0.041973647,-0.04992974,-0.045208167,1.0,-1.0,1.0,-1.0,-1.0,-1.0,-1.0,1.0,-1.0,1.0,-1.0,-1.0,-1.0,-1.0,1.0,-1.0,-1.0,-1.0,1.0,-1.0,-1.0,1.0,-1.0,1.0
2025-06-04 10:22:33.603,-0.11823794,-0.44841343,-0.05336051,0.06199295,0.08489682,0.041107073,0.0,0.0,0.0,-0.022867246,0.039133415,-0.631784,-0.11552051,0.06730539,0.2124592,0.29479858,-0.08929493,-0.027124884,0.13015379,-0.046902962,-0.56792825,-0.18460622,0.018192692,-0.1429937,0.069096215,-0.02763462,-0.20068374,-0.076174535,-0.011251417,-0.14704861,-0.040460747,0.01673164,-0.026397211,0.23212834,-1.0,-1.0,1.0,-1.0,-1.0,-1.0,1.0,-1.0,-1.0,1.0,-1.0,1.0,-1.0,-1.0,1.0,-1.0,-1.0,-1.0,1.0,-1.0,-1.0,1.0,-1.0,1.0
2025-06-04 10:22:33.622,-0.056123894,-0.30092067,0.045096494,-0.02555863,0.033452716,-0.030806184,0.0,0.0,0.0,-0.022376716,0.013210912,-0.61895233,-0.0587151,0.07696822,0.13790295,0.26639366,-0.090681545,-0.082828425,0.14373472,-0.018484704,-0.57749575,-0.1294806,-0.013748117,0.0525687,0.1151975,0.0059854235,-0.15734985,-0.08968677,0.066605516,-0.21627837,-0.029517818,0.06501079,-0.021554913,0.22219822,-1.0,-1.0,1.0,-1.0,-1.0,-1.0,1.0,-1.0,-1.0,1.0,-1.0,1.0,-1.0,-1.0,1.0,-1.0,1.0,-1.0,1.0,-1.0,-1.0,1.0,-1.0,1.0
2025-06-04 10:22:33.642,-0.14899284,-0.19988345,-0.16373911,-0.023292834,-0.015834078,0.016004035,0.0,0.0,0.0,-0.022451717,-5.1861093e-06,-0.5911273,-0.01115445,0.077113025,0.12816599,0.2329488,-0.08744318,-0.14208584,0.14043814,0.0001439075,-0.5455552,-0.053191356,-0.044396438,0.108227916,0.15967827,0.02853302,0.072379746,-0.061365716,-0.038911723,-0.11460187,-0.045854695,-0.029982176,0.11354722,0.13613674,-1.0,-1.0,1.0,-1.0,1.0,-1.0,1.0,-1.0,-1.0,1.0,-1.0,1.0,-1.0,-1.0,1.0,-1.0,-1.0,-1.0,1.0,-1.0,-1.0,1.0,-1.0,1.0
2025-06-04 10:22:33.662,0.12286674,-0.19592327,-0.060233552,0.005609297,-0.030093297,-0.03073489,0.0,0.0,0.0,-0.020492636,-0.009440269,-0.57101685,0.036901854,0.053996578,0.06314223,0.1866637,-0.07011322,-0.1940517,0.13593899,0.004859052,-0.54673,-0.0030790328,0.039748963,0.032514818,0.09573143,0.028090293,-0.26516324,-0.06479881,0.049591236,-0.104013205,-0.045108326,0.105156295,0.10020675,0.18460764,-1.0,-1.0,1.0,-1.0,-1.0,-1.0,1.0,-1.0,-1.0,1.0,-1.0,1.0,-1.0,1.0,1.0,-1.0,-1.0,-1.0,1.0,-1.0,-1.0,1.0,-1.0,1.0
2025-06-04 10:22:33.686,0.1851084,-0.22714454,-0.054823898,0.025080416,-0.060902085,0.021369116,0.0,0.0,0.0,-0.018558739,-0.023822797,-0.42776167,0.069989525,0.045461565,-0.008775615,0.13926806,-0.049929135,-0.23267591,0.117759764,0.022609197,-0.52849054,0.05117076,-0.009102744,0.47526142,0.0673653,0.03428371,-0.23961993,-0.16766591,0.06937726,-0.1526386,-0.071122564,0.09907629,-0.008337749,0.17797995,-1.0,1.0,1.0,-1.0,-1.0,-1.0,1.0,-1.0,-1.0,1.0,-1.0,1.0,-1.0,1.0,1.0,-1.0,-1.0,-1.0,1.0,-1.0,-1.0,1.0,-1.0,1.0
2025-06-04 10:22:33.703,0.15954968,-0.2322372,-0.05361246,-0.0031142328,-0.07329454,-0.04230247,0.0,0.0,0.0,-0.017498178,-0.04987572,-0.2584957,0.100945316,0.02792392,-0.07669751,0.08081411,-0.021671128,-0.25597906,0.08519502,0.046963643,-0.5234963,0.07436246,-0.030450644,0.40624255,0.14119051,-0.095223375,-0.22197756,-0.07400448,0.110220715,-0.109860525,-0.1331356,0.015132433,-0.051462278,0.09519147,-1.0,1.0,1.0,-1.0,-1.0,-1.0,1.0,-1.0,-1.0,1.0,-1.0,1.0,-1.0,1.0,1.0,-1.0,-1.0,-1.0,1.0,-1.0,-1.0,1.0,-1.0,1.0
2025-06-04 10:22:33.723,0.14857918,-0.10431716,-0.03043574,0.017225817,-0.07889082,-0.0059704916,0.0,0.0,0.0,-0.016779704,-0.04652283,-0.14078999,0.13432427,0.03454478,-0.14718293,0.028126577,-0.023924163,-0.3019691,0.049648866,0.04246993,-0.51442134,0.10814797,0.02135577,0.3440259,0.119251624,0.031670514,-0.104871124,-0.071694575,0.022534987,-0.1190277,-0.042409252,-0.023142813,-0.0017675626,0.03247969,-1.0,1.0,1.0,-1.0,-1.0,-1.0,1.0,-1.0,-1.0,1.0,-1.0,1.0,-1.0,1.0,1.0,-1.0,-1.0,-1.0,1.0,-1.0,-1.0,1.0,-1.0,1.0
2025-06-04 10:22:33.743,0.1314144,-0.079825625,-0.025386857,-0.031295083,-0.044179823,0.007641192,0.0,0.0,0.0,-0.016318806,-0.0532685,-0.019786565,0.153993,0.009665732,-0.18037565,-0.0019511636,-0.00057880994,-0.32733575,0.029292407,0.05886491,-0.5018252,0.1433812,-0.07966246,0.26856998,-0.016172316,-0.080817595,-0.07898663,-0.018069314,0.071681224,-0.08308949,-0.115538836,0.032034498,0.08789347,0.058069292,-1.0,1.0,1.0,-1.0,-1.0,-1.0,1.0,-1.0,-1.0,1.0,-1.0,1.0,-1.0,1.0,1.0,-1.0,-1.0,-1.0,1.0,-1.0,-1.0,1.0,-1.0,1.0
2025-06-04 10:22:33.763,0.10349251,-0.029706236,-0.02119455,0.018922469,-0.056867827,0.034587853,0.0,0.0,0.0,-0.016009072,-0.061378866,0.06432323,0.18160558,0.0028254034,-0.22290377,-0.027865121,0.014008876,-0.37684986,-0.0025477181,0.06908965,-0.48847243,0.16482282,0.027370391,0.18788782,0.09595886,-0.07150492,-0.095822245,-0.0013534015,0.03035143,-0.051620014,-0.052174885,-0.04181468,-0.037806533,0.041067664,-1.0,1.0,1.0,-1.0,-1.0,-1.0,1.0,-1.0,-1.0,1.0,-1.0,1.0,-1.0,1.0,1.0,-1.0,-1.0,-1.0,1.0,-1.0,-1.0,1.0,1.0,1.0
2025-06-04 10:22:33.786,-0.058030184,0.07823819,-0.0825864,0.02183423,-0.036270216,-0.022422457,0.0,0.0,0.0,-0.015823245,-0.067962915,0.14121394,0.19078833,0.0051166164,-0.27070263,-0.04426268,0.004332543,-0.3952489,-0.03368959,0.06549864,-0.3553079,0.1676064,-0.04249367,0.15690872,0.027064817,-0.023778556,-0.071381934,0.039832387,0.06115836,-0.114752896,-0.0640219,-0.042288333,0.31549466,0.0029321238,-1.0,1.0,1.0,-1.0,-1.0,-1.0,1.0,-1.0,-1.0,1.0,1.0,1.0,-1.0,1.0,1.0,-1.0,-1.0,-1.0,1.0,-1.0,-1.0,1.0,1.0,1.0
2025-06-04 10:22:33.804,0.027512453,0.054774355,-0.0022296282,0.051836744,-0.026297778,0.0028105674,0.0,0.0,0.0,-0.014883317,-0.06666578,0.19820575,0.20032713,0.008092478,-0.30280858,-0.047473576,0.0073076864,-0.4138004,-0.050440136,0.07661369,-0.2075184,0.18388338,-0.007790162,0.0774412,0.07064851,-0.045660835,-0.14750345,0.019497663,0.0002651882,-0.06469674,-0.119892806,-0.0051101698,0.27359477,0.04221635,-1.0,1.0,1.0,-1.0,-1.0,-1.0,1.0,-1.0,-1.0,1.0,1.0,1.0,-1.0,1.0,1.0,-1.0,-1.0,-1.0,1.0,-1.0,-1.0,1.0,1.0,1.0
2025-06-04 10:22:33.824,-0.056907784,0.05418191,-0.08077907,0.0033053348,-0.063503966,-0.03239053,0.0,0.0,0.0,-0.013843725,-0.083230495,0.25860155,0.20996831,0.0010369456,-0.33375582,-0.05803765,0.0019569998,-0.43951958,-0.07852351,0.07938916,-0.08590031,0.1937296,-0.07854336,0.06996807,0.05894672,-0.07109556,-0.1084079,0.0036307685,0.005165153,-0.0036872681,0.00722034,-0.06365802,0.3057926,-0.027469177,-1.0,1.0,1.0,-1.0,-1.0,-1.0,1.0,-1.0,-1.0,1.0,1.0,1.0,-1.0,1.0,1.0,-1.0,-1.0,-1.0,1.0,-1.0,-1.0,1.0,1.0,1.0
2025-06-04 10:22:33.844,-0.12156875,0.13005272,-0.057182867,0.035705384,-0.047462367,0.04158104,0.0,0.0,0.0,-0.013104377,-0.08230875,0.2923236,0.21669304,-0.009748607,-0.36825576,-0.074120976,0.0015877065,-0.47124198,-0.09888841,0.070737794,0.013934617,0.21212235,0.049793333,0.05878928,0.06257379,0.01646434,-0.0913653,-0.02541014,-0.0091239605,-0.006487619,-0.13444836,-0.0630541,0.28555208,-0.0060962387,-1.0,1.0,1.0,-1.0,-1.0,-1.0,1.0,-1.0,-1.0,1.0,1.0,1.0,-1.0,1.0,1.0,-1.0,-1.0,-1.0,1.0,-1.0,-1.0,1.0,1.0,1.0
2025-06-04 10:22:33.864,-0.16871454,0.07829382,0.004924464,0.012781779,-0.027888468,-0.016480401,0.0,0.0,0.0,-0.012618957,-0.0855214,0.31849238,0.22479561,-0.0042535523,-0.40679103,-0.06603749,0.0030966578,-0.49849448,-0.13095051,0.07160763,0.10055014,0.22903588,0.0060509336,0.124650285,-0.012243007,-0.04330411,-0.1614895,-0.05552284,-0.07604467,-0.027965417,0.0059752637,-0.02103757,0.14217974,0.0775612,-1.0,1.0,1.0,-1.0,-1.0,-1.0,1.0,-1.0,-1.0,1.0,1.0,1.0,-1.0,1.0,-1.0,-1.0,-1.0,-1.0,1.0,-1.0,-1.0,1.0,1.0,1.0
2025-06-04 10:22:33.886,-0.13840503,0.17766908,-0.014978276,-0.02051676,-0.04673857,-0.029232562,0.0,0.0,0.0,-0.0122184595,-0.088094614,0.363286,0.15042509,-0.019512283,-0.45603856,-0.07996838,0.011532063,-0.51220703,-0.1506676,0.0848952,0.16169322,0.23633973,-0.041186478,0.13257954,-0.20778447,-0.03306118,-0.13317522,0.014242842,-0.029863335,-0.05008968,-0.013836566,0.0308116,0.1298583,0.029270474,-1.0,1.0,-1.0,-1.0,-1.0,-1.0,1.0,-1.0,-1.0,1.0,1.0,1.0,1.0,-1.0,-1.0,-1.0,-1.0,-1.0,-1.0,-1.0,-1.0,1.0,1.0,-1.0
2025-06-04 10:22:33.904,-0.35532305,0.08853124,0.018708546,0.014177479,-0.060584534,0.03140873,0.0,0.0,0.0,-0.011788443,-0.06128715,0.25644752,0.08513949,-0.02572703,-0.47099677,-0.093076155,-0.01167624,-0.5333317,-0.17311887,0.06857427,0.21355872,0.14671221,0.15065853,-0.28482592,-0.10549864,-0.05232484,-0.10536096,-0.040626492,-0.02801027,0.015571861,0.004611504,0.073224105,0.1380332,-0.16707645,1.0,-1.0,-1.0,-1.0,-1.0,-1.0,-1.0,-1.0,-1.0,1.0,1.0,-1.0,1.0,-1.0,-1.0,1.0,-1.0,1.0,-1.0,-1.0,1.0,-1.0,-1.0,-1.0
2025-06-04 10:22:33.924,-0.0989147,-0.0991597,0.12622568,0.015715871,-0.0016875238,-0.02242154,0.0,0.0,0.0,-0.012128077,-0.0396701,0.15407623,0.07871687,-0.0067289793,-0.520187,-0.052437346,-0.025255287,-0.53577197,-0.13569358,0.05262191,0.13782836,0.11345662,0.07456441,-0.2231289,0.10249078,0.0036233042,-0.11314194,0.13379282,0.014877775,0.025024442,0.19647837,-0.038845394,-0.21009532,-0.05508278,1.0,-1.0,-1.0,1.0,-1.0,1.0,-1.0,-1.0,1.0,-1.0,-1.0,-1.0,1.0,-1.0,-1.0,1.0,-1.0,1.0,-1.0,-1.0,1.0,-1.0,-1.0,-1.0
2025-06-04 10:22:33.944,0.07318871,-0.1491403,0.06612118,-0.046336304,0.039514586,0.009494855,0.0,0.0,0.0,-0.01398722,-0.02989753,0.06750363,0.12021243,0.0056939204,-0.51446444,0.00463273,-0.0346947,-0.56494313,-0.06885001,0.05291445,0.06377428,0.10355877,0.032648474,-0.18007667,0.04721472,0.105920196,0.09866249,0.12641448,0.018056985,-0.023123592,0.1264589,0.0058108335,-0.2669003,0.012538152,1.0,-1.0,-1.0,1.0,-1.0,1.0,-1.0,-1.0,1.0,-1.0,-1.0,-1.0,1.0,-1.0,-1.0,1.0,1.0,1.0,-1.0,-1.0,1.0,-1.0,-1.0,-1.0
2025-06-04 10:22:33.964,-0.08918733,-0.22206949,-0.03985979,-0.051240012,-0.02531076,-0.018963614,0.0,0.0,0.0,-0.015089517,-0.035072107,-0.007826682,0.14440204,0.027096389,-0.38672155,0.029948793,-0.0375788,-0.56632394,-0.021614522,0.057981543,-0.021794014,0.1297415,-0.05646352,-0.15099145,0.062452246,0.03154916,0.2593894,0.07831203,-0.0789773,0.05872474,0.104191385,0.05077257,-0.21404591,0.062894695,1.0,-1.0,-1.0,1.0,1.0,1.0,-1.0,-1.0,1.0,-1.0,-1.0,-1.0,1.0,-1.0,-1.0,1.0,-1.0,1.0,-1.0,-1.0,1.0,-1.0,-1.0,-1.0
2025-06-04 10:22:33.986,-0.07001113,-0.2898898,-0.05930817,-0.04425882,-0.074067384,0.036787175,0.0,0.0,0.0,-0.015151584,-0.04126385,-0.07687778,0.11781328,0.020956317,-0.380383,0.07937888,-0.056446977,-0.5541427,0.01710616,0.05853967,-0.09345118,0.11542578,0.049467117,-0.12582287,-0.11750832,0.07565713,-0.01578339,0.09835564,0.054636516,0.047333267,0.11049003,-0.041483663,-0.21531594,0.016079098,1.0,-1.0,-1.0,1.0,-1.0,1.0,-1.0,-1.0,1.0,-1.0,-1.0,-1.0,1.0,1.0,-1.0,1.0,1.0,1.0,-1.0,-1.0,1.0,-1.0,-1.0,-1.0
2025-06-04 10:22:34.005,0.11609848,-0.065963425,0.11299941,-0.09105115,-0.096474975,0.022398712,0.0,0.0,0.0,-0.014071326,-0.031531572,-0.090773664,0.089099966,0.047605056,-0.26601434,0.09912666,-0.04662026,-0.5317322,0.057526987,0.05812554,-0.1385407,0.09298555,-0.00011226512,0.06340156,-0.15852736,0.005912661,0.35708705,0.1193902,-0.0330023,0.04748379,0.15235665,0.025871731,-0.065490566,-0.09104651,1.0,1.0,-1.0,1.0,1.0,1.0,-1.0,-1.0,1.0,-1.0,-1.0,-1.0,1.0,-1.0,-1.0,1.0,1.0,1.0,-1.0,-1.0,1.0,-1.0,-1.0,-1.0
2025-06-04 10:22:34.025,-0.09533721,-0.20604426,0.19287662,-0.019729832,-0.08240673,-0.009159656,0.0,0.0,0.0,-0.015097458,-0.012907954,-0.13527109,0.027670983,0.052064992,-0.12479013,0.13935335,-0.052729264,-0.51280385,0.09338488,0.031671483,-0.19153877,0.073830836,0.02246926,-0.17209677,-0.111313656,-0.0371216,0.23405036,0.015487245,-0.025036056,-0.031648103,0.068571486,0.026583372,-0.039646614,-0.12159499,1.0,-1.0,-1.0,1.0,1.0,1.0,-1.0,-1.0,1.0,-1.0,-1.0,-1.0,1.0,-1.0,-1.0,1.0,1.0,1.0,-1.0,-1.0,1.0,-1.0,-1.0,-1.0
2025-06-04 10:22:34.045,-0.07278422,-0.14116594,0.18784305,-0.100295626,-0.06081223,0.011794074,0.0,0.0,0.0,-0.01770038,-0.0033984908,-0.18435204,-0.0043704202,0.06218994,-0.024768522,0.16202177,-0.069476105,-0.50368404,0.12039289,0.021180881,-0.23274384,0.033323053,0.016287003,-0.0616417,-0.17708595,-0.03399809,0.2438399,0.09331536,-0.024082638,-0.028106982,0.081228,-0.10251084,-0.058689766,-0.045911677,1.0,-1.0,-1.0,1.0,1.0,1.0,-1.0,-1.0,1.0,-1.0,-1.0,-1.0,1.0,-1.0,-1.0,1.0,1.0,1.0,-1.0,-1.0,1.0,-1.0,-1.0,-1.0
2025-06-04 10:22:34.067,-0.114343174,-0.16583963,0.11186921,-0.1266771,-0.07638639,-0.023463914,0.0,0.0,0.0,-0.02043924,0.006610169,-0.23559149,-0.036910113,0.06038963,0.0729706,0.17095603,-0.069967166,-0.50773853,0.1437881,0.0087271165,-0.26780972,0.0115508,0.051060494,-0.067976795,-0.13674267,-0.031148005,0.14123614,0.07767712,-0.07624932,-0.0039976146,0.10448782,-0.07895806,-0.17940971,-0.019420113,1.0,-1.0,-1.0,1.0,1.0,1.0,-1.0,-1.0,1.0,-1.0,-1.0,-1.0,1.0,-1.0,-1.0,1.0,1.0,1.0,-1.0,-1.0,1.0,-1.0,-1.0,-1.0
2025-06-04 10:22:34.086,-0.083173,-0.03776006,0.08661379,-0.092924714,-0.07984674,-0.015175217,0.0,0.0,0.0,-0.022963926,0.013277786,-0.27191475,-0.05897218,0.07050022,0.14843455,0.19099143,-0.07736273,-0.50241,0.16523299,-0.018813115,-0.31405514,-0.022704303,-0.013346421,-0.16183713,0.002018,0.026122196,0.24355753,0.09126088,0.020172924,0.008469202,0.07014885,0.038305014,-0.08449032,-0.08559512,1.0,-1.0,-1.0,1.0,1.0,1.0,-1.0,-1.0,1.0,-1.0,-1.0,-1.0,1.0,-1.0,-1.0,1.0,1.0,1.0,-1.0,-1.0,1.0,-1.0,-1.0,-1.0
2025-06-04 10:22:34.104,-0.0680677,-0.01823732,0.047994077,-0.07006492,-0.062084407,-0.017642196,0.0,0.0,0.0,-0.025097944,0.010742664,-0.31352103,-0.08538131,0.07493257,0.20323636,0.19820379,-0.07350039,-0.49112403,0.19051224,-0.030004896,-0.34890708,-0.04029405,-0.015731022,-0.098558925,-0.018947378,0.02866866,0.18328883,0.07848331,-0.04915895,-0.03544786,0.06370221,-0.03655646,-0.13095781,-0.015064462,1.0,-1.0,-1.0,1.0,1.0,1.0,-1.0,-1.0,1.0,-1.0,-1.0,-1.0,1.0,-1.0,-1.0,1.0,1.0,1.0,-1.0,-1.0,1.0,-1.0,-1.0,-1.0
2025-06-04 10:22:34.124,-0.03211385,0.071547866,0.11489865,-0.086630814,-0.021398565,0.018830331,0.0,0.0,0.0,-0.026821367,0.020425845,-0.36039498,-0.094232865,0.082717754,0.2504301,0.20997627,-0.078534625,-0.4827057,0.20405236,-0.017233856,-0.39735013,-0.07849795,-0.004901045,-0.07155429,-0.0041961377,0.025861051,0.052527916,0.069268495,0.05626896,-0.03534727,0.04888772,-0.022006866,-0.1393128,-0.097611055,1.0,-1.0,-1.0,1.0,1.0,1.0,-1.0,-1.0,1.0,-1.0,-1.0,-1.0,1.0,-1.0,-1.0,1.0,1.0,1.0,-1.0,-1.0,1.0,-1.0,-1.0,-1.0
2025-06-04 10:22:34.144,0.032690268,0.12744388,0.07464844,-0.12537925,-0.06148468,0.04844851,0.0,0.0,0.0,-0.028224548,0.035757363,-0.39182273,-0.10396845,0.0744017,0.29600346,0.22379124,-0.07475628,-0.4763414,0.21330857,-0.021944694,-0.4181914,-0.10350411,0.042221252,-0.0963445,0.042607192,-0.055502933,0.022299415,-0.033108957,0.016449045,-0.005088157,0.07830664,-0.0040852963,-0.0043788105,-0.109146155,1.0,-1.0,-1.0,1.0,1.0,1.0,-1.0,-1.0,1.0,-1.0,-1.0,-1.0,1.0,-1.0,-1.0,1.0,1.0,1.0,-1.0,-1.0,1.0,-1.0,-1.0,-1.0
2025-06-04 10:22:34.164,-0.001609515,0.17847817,0.05067234,-0.13266835,-0.012213925,-0.011943368,0.0,0.0,0.0,-0.02943099,0.043314278,-0.428398,-0.10965266,0.07630438,0.3214673,0.22667235,-0.087531514,-0.48919156,0.2209819,-0.03322607,-0.43331036,-0.12294385,-0.007866204,-0.059071742,0.014399182,-0.0433424,0.07939506,0.038841244,0.017572392,0.068650275,0.00051140145,0.0045248233,-0.13502447,-0.13781664,1.0,-1.0,-1.0,1.0,1.0,1.0,-1.0,-1.0,1.0,-1.0,-1.0,-1.0,1.0,-1.0,-1.0,1.0,1.0,1.0,-1.0,-1.0,1.0,-1.0,-1.0,-1.0
2025-06-04 10:22:34.187,0.094824925,0.16967459,0.10432343,-0.09922359,-0.08317429,0.03420616,0.0,0.0,0.0,-0.030543124,0.042637218,-0.47197372,-0.101454645,0.082926586,0.34716403,0.24048121,-0.07264265,-0.4722442,0.23202749,-0.01874648,-0.46915892,-0.14865348,0.046470273,-0.15058981,-0.006464045,-0.03480799,0.109532855,0.028106015,0.0717921,-0.03808861,0.043079663,0.0493623,-0.12545602,0.008933666,1.0,-1.0,-1.0,1.0,1.0,1.0,-1.0,-1.0,1.0,-1.0,-1.0,-1.0,1.0,-1.0,-1.0,1.0,1.0,1.0,-1.0,-1.0,1.0,-1.0,-1.0,-1.0
2025-06-04 10:22:34.205,0.044308305,0.24988024,0.062473413,-0.041132968,0.016660616,-0.0013824868,0.0,0.0,0.0,-0.03162141,0.040082373,-0.5082124,-0.11220157,0.0806245,0.36715618,0.23359238,-0.09054307,-0.47933632,0.2240033,-0.0230881,-0.48052925,-0.16940972,0.004782885,-0.09195705,-0.022264175,0.00036886494,0.051407732,0.08269985,-0.017331135,0.01871665,0.06886873,0.070025936,0.008733404,-0.022981072,1.0,-1.0,-1.0,1.0,1.0,1.0,-1.0,-1.0,1.0,-1.0,-1.0,-1.0,1.0,-1.0,-1.0,1.0,1.0,1.0,-1.0,-1.0,1.0,-1.0,-1.0,-1.0
2025-06-04 10:22:34.225,0.14630742,0.24240014,0.021731796,-0.08240745,0.0056225867,-0.042961046,0.0,0.0,0.0,-0.032655634,0.051587135,-0.53816754,-0.110412136,0.080715194,0.40424752,0.23463778,-0.0822693,-0.48057532,0.2432344,-0.028239734,-0.5046867,-0.19750342,-0.016370079,-0.14057429,0.0352482,0.01692913,0.034994256,0.07174851,-0.023515154,0.061888568,0.026984029,-0.032491025,-0.08981813,-0.064655334,1.0,-1.0,-1.0,1.0,1.0,1.0,-1.0,-1.0,1.0,-1.0,-1.0,-1.0,1.0,-1.0,-1.0,1.0,1.0,1.0,-1.0,-1.0,1.0,-1.0,-1.0,-1.0
2025-06-04 10:22:34.245,0.18691821,0.33554566,0.057331424,-0.04564372,0.0056717326,0.026051033,0.0,0.0,0.0,-0.033526488,0.06526604,-0.57313144,-0.122428246,0.095252186,0.41285795,0.2545616,-0.08348989,-0.474649,0.24850322,-0.039597087,-0.52340615,-0.21933591,0.00593623,-0.09149765,-0.037035163,0.016470792,0.008347334,0.00685711,-0.05179014,0.027308067,-0.043682262,0.0077363006,0.03855355,0.002013002,1.0,-1.0,-1.0,1.0,1.0,1.0,-1.0,-1.0,1.0,-1.0,-1.0,-1.0,1.0,-1.0,-1.0,1.0,1.0,1.0,-1.0,-1.0,1.0,-1.0,-1.0,-1.0
2025-06-04 10:22:34.269,0.2299817,0.41080424,-0.01588967,0.0232307,0.040985126,0.025992254,0.0,0.0,0.0,-0.034134325,0.07699793,-0.5930825,-0.13576727,0.08458264,0.41704953,0.24471796,-0.07722955,-0.4751037,0.23877445,-0.02903443,-0.5272258,-0.22759889,0.012178401,-0.013366289,-0.030605882,0.06998031,-0.038105465,-0.017189058,-0.05892915,0.03653911,-0.040727153,-0.032346305,-0.050270095,-0.021298626,1.0,-1.0,-1.0,1.0,1.0,1.0,-1.0,-1.0,1.0,-1.0,-1.0,-1.0,1.0,-1.0,-1.0,1.0,1.0,1.0,-1.0,1.0,1.0,-1.0,-1.0,-1.0
2025-06-04 10:22:34.286,0.36729008,0.51891804,0.03500776,0.04181744,0.02140169,-0.00561272,0.0,0.0,0.0,-0.034381658,0.08648633,-0.6218728,-0.1380432,0.089622825,0.42648855,0.24811165,-0.09319047,-0.34621873,0.23778307,-0.04693326,-0.5190255,-0.23293297,0.098468795,0.016240146,0.0040443833,-0.052569434,0.036327187,-0.049516305,-0.010458241,0.31525248,0.013886523,-0.07899434,0.041293386,-0.080652274,1.0,-1.0,-1.0,1.0,1.0,1.0,-1.0,1.0,1.0,-1.0,-1.0,-1.0,1.0,-1.0,-1.0,1.0,1.0,1.0,-1.0,1.0,1.0,-1.0,-1.0,-1.0
2025-06-04 10:22:34.306,0.11384741,0.28278425,-0.0048758304,0.06668824,0.12901978,-0.04928536,0.0,0.0,0.0,-0.034714464,0.08567642,-0.6316782,-0.14639498,0.089653626,0.42023808,0.2885552,-0.08216464,-0.20511909,0.25678486,-0.047826342,-0.52214247,-0.25508934,-0.04553365,-0.022311501,0.022911146,0.047936074,-0.062070496,0.123407036,0.00041504178,0.29582322,-0.0337843,0.014372534,-0.07918322,-0.023211326,1.0,-1.0,-1.0,1.0,1.0,1.0,-1.0,1.0,1.0,-1.0,-1.0,-1.0,1.0,-1.0,-1.0,1.0,1.0,1.0,-1.0,1.0,1.0,-1.0,-1.0,-1.0
2025-06-04 10:22:34.325,-0.03305193,0.0909759,0.03313081,0.0887614,0.09747315,0.042864446,0.0,0.0,0.0,-0.034324527,0.077473074,-0.6482595,-0.18684156,0.08716407,0.3961315,0.34740493,-0.09056712,-0.076602,0.25722936,-0.061483197,-0.5195589,-0.26504576,0.037268903,-0.06557163,-0.0011633477,-0.042066317,-0.034747556,0.09657599,-0.0017994815,0.3375829,-0.0071556615,0.0021221165,0.006702828,-0.048761472,1.0,-1.0,-1.0,1.0,1.0,1.0,-1.0,1.0,1.0,-1.0,-1.0,-1.0,1.0,-1.0,-1.0,1.0,1.0,1.0,-1.0,1.0,1.0,-1.0,-1.0,-1.0
2025-06-04 10:22:34.345,-0.12782307,0.06250729,0.036043685,0.100763574,0.12374358,-0.041163094,0.0,0.0,0.0,-0.034544893,0.06959083,-0.6544791,-0.21935569,0.08745478,0.35431635,0.38640907,-0.099322446,0.015369137,0.2613152,-0.07860951,-0.5364942,-0.25736803,0.020887986,-0.03442988,-0.039230105,-0.036809556,-0.015224303,0.101922,0.045798793,0.22369213,0.045725532,0.030956713,-0.028031636,0.030604232,1.0,-1.0,-1.0,1.0,1.0,1.0,-1.0,1.0,1.0,-1.0,-1.0,-1.0,1.0,-1.0,-1.0,1.0,1.0,-1.0,-1.0,1.0,1.0,-1.0,-1.0,-1.0
2025-06-04 10:22:34.369,-0.36488914,-0.31500596,-0.029451104,0.033061206,0.1281066,0.0104870545,0.0,0.0,0.0,-0.03490535,0.067860655,-0.6522346,-0.24018113,0.084724605,0.34076142,0.406424,-0.090402946,0.094545536,0.2635035,-0.08401728,-0.534791,-0.26740378,-0.032246992,-0.005752147,-0.08487432,0.063732706,0.04683434,-0.093331225,0.0281761,0.24881238,-0.023574427,-0.09471085,0.07254948,-0.048936833,1.0,-1.0,-1.0,1.0,1.0,-1.0,-1.0,1.0,1.0,-1.0,-1.0,-1.0,1.0,-1.0,1.0,-1.0,1.0,-1.0,-1.0,1.0,-1.0,1.0,-1.0,-1.0
2025-06-04 10:22:34.385,-0.3096022,-0.048514247,-0.007242269,0.040036164,0.09521574,0.019008448,0.0,0.0,0.0,-0.03571008,0.060205642,-0.6833478,-0.20445423,0.08938543,0.3547294,0.32989123,-0.10501479,0.15866804,0.18508019,-0.06532635,-0.5311438,-0.2773051,-0.06705868,-0.02210825,0.0833078,-0.068352886,0.10217442,-0.1565274,0.01742487,0.111924164,-0.09252174,0.06364645,0.07333011,-0.029733777,1.0,-1.0,1.0,-1.0,1.0,-1.0,-1.0,1.0,-1.0,1.0,-1.0,-1.0,-1.0,-1.0,1.0,-1.0,-1.0,-1.0,1.0,-1.0,-1.0,1.0,-1.0,1.0
2025-06-04 10:22:34.406,-0.021053972,-0.58185405,0.07004565,-0.022666102,0.02368221,0.012268496,0.0,0.0,0.0,-0.035996806,0.04760583,-0.6814038,-0.1426327,0.079419374,0.30235523,0.29017213,-0.10176784,0.11713061,0.186693,-0.029647533,-0.5358474,-0.20497298,-0.09414396,-0.06307511,0.15705906,-0.048815083,-0.13877061,-0.025882402,-0.0012517693,-0.1355886,-0.018855687,0.1271022,0.009799871,0.18421495,-1.0,-1.0,1.0,-1.0,-1.0,-1.0,1.0,-1.0,-1.0,1.0,-1.0,1.0,-1.0,-1.0,1.0,-1.0,1.0,-1.0,1.0,-1.0,-1.0,1.0,-1.0,1.0
2025-06-04 10:22:34.426,0.087653905,-0.30316573,-0.10074176,0.007567218,0.06706214,0.04851097,0.0,0.0,0.0,-0.037263997,0.022022936,-0.66774714,-0.08592548,0.065261446,0.3007464,0.2439146,-0.097973265,0.080464125,0.20314546,-0.0072399857,-0.55159146,-0.12967677,-0.102273904,0.14096072,0.15547061,-0.031583533,0.095586814,-0.13576302,-0.040531166,-0.07269186,0.008487909,0.11256088,0.0012464058,0.14633387,-1.0,-1.0,1.0,-1.0,1.0,-1.0,1.0,-1.0,-1.0,1.0,-1.0,1.0,-1.0,-1.0,1.0,-1.0,-1.0,-1.0,1.0,-1.0,-1.0,1.0,-1.0,1.0
2025-06-04 10:22:34.446,0.26620322,-0.32678732,-0.05424474,-0.033410735,0.032249615,-0.0013209989,0.0,0.0,0.0,-0.03577531,0.0008135491,-0.63416606,-0.01659246,0.05282313,0.22873287,0.18019544,-0.0769476,0.014679234,0.21048339,0.016337935,-0.54943717,-0.063911065,0.031457078,0.13963838,0.17299461,-0.111077085,-0.207284,-0.1445008,0.12198861,-0.09305372,-0.06694932,0.0738055,0.0093426695,0.14945838,-1.0,-1.0,1.0,-1.0,-1.0,-1.0,1.0,-1.0,-1.0,1.0,-1.0,1.0,-1.0,-1.0,1.0,-1.0,-1.0,-1.0,1.0,-1.0,-1.0,1.0,-1.0,1.0
2025-06-04 10:22:34.469,0.22003622,-0.37682426,-0.04372276,-0.029315956,0.0035466058,-0.009770701,0.0,0.0,0.0,-0.034070984,-0.0091772275,-0.60402447,0.019819243,0.035229523,0.13261673,0.14064863,-0.06896193,-0.04894161,0.20674576,0.0338323,-0.5510193,-0.017040564,0.005326396,0.06064002,0.10297513,-0.04589381,-0.16909859,-0.112653315,-0.014755985,-0.13878353,0.012951558,-0.012811075,0.015680864,0.1721464,-1.0,-1.0,1.0,-1.0,-1.0,-1.0,1.0,-1.0,-1.0,1.0,-1.0,1.0,-1.0,-1.0,1.0,-1.0,1.0,-1.0,1.0,-1.0,-1.0,1.0,-1.0,1.0
2025-06-04 10:22:34.486,0.1936964,-0.3217415,-0.20693113,0.027566459,-0.08171013,0.037443433,0.0,0.0,0.0,-0.03308101,-0.027359318,-0.58020246,0.055587757,0.04578252,0.14532317,0.09363636,-0.03729638,-0.095837094,0.18535247,0.04869835,-0.52457154,0.024847485,0.02642332,0.06995008,0.035131685,-0.017794935,0.106522635,-0.19995506,0.0352344,-0.055083435,-0.04076218,0.003106451,0.04882122,0.0524153,-1.0,-1.0,1.0,-1.0,1.0,-1.0,1.0,-1.0,-1.0,1.0,-1.0,1.0,-1.0,1.0,1.0,-1.0,-1.0,-1.0,1.0,-1.0,-1.0,1.0,-1.0,1.0
2025-06-04 10:22:34.506,0.42532402,-0.25422063,-0.13037899,0.022180187,-0.110457025,-0.014819999,0.0,0.0,0.0,-0.03028444,-0.028994758,-0.43257535,0.08820454,0.0085852,0.061644364,0.03952327,-0.024486661,-0.14175002,0.16802873,0.05745195,-0.5282602,0.06640928,-0.06277861,0.38240808,0.040574882,-0.06054845,-0.28708726,-0.076122195,0.1130397,-0.06788832,-0.061100326,-0.04072181,0.061996598,0.034128137,-1.0,1.0,1.0,-1.0,-1.0,-1.0,1.0,-1.0,-1.0,1.0,-1.0,1.0,-1.0,1.0,1.0,-1.0,-1.0,-1.0,1.0,-1.0,-1.0,1.0,-1.0,1.0
2025-06-04 10:22:34.526,0.35756457,-0.31070253,-0.07866819,0.058399487,-0.13173082,-0.044462577,0.0,0.0,0.0,-0.028200913,-0.05297745,-0.27019396,0.12896146,0.0062362975,-0.006541289,0.018632753,0.013389481,-0.1816632,0.13357943,0.064308845,-0.51657045,0.10729138,-0.07065885,0.38393986,0.06878865,-0.022540495,-0.16261834,-0.104616076,0.10623159,-0.073298216,-0.11703542,0.04284736,-0.007127095,0.103514686,-1.0,1.0,1.0,-1.0,-1.0,-1.0,1.0,-1.0,-1.0,1.0,-1.0,1.0,-1.0,1.0,1.0,-1.0,-1.0,-1.0,1.0,-1.0,-1.0,1.0,-1.0,1.0
