openverse-orca/OrcaGym/log/simulation_log_20250721_131656.csv
timestamp,sim_time,physics_step,control_step,imu_angle_roll,imu_angle_pitch,imu_angle_yaw,imu_angular_velocity_roll,imu_angular_velocity_pitch,imu_angular_velocity_yaw,imu_acc_x,imu_acc_y,imu_acc_z,fl_joint1_pos,fl_joint1_vel,fl_joint1_torque,fl_joint2_pos,fl_joint2_vel,fl_joint2_torque,fl_joint3_pos,fl_joint3_vel,fl_joint3_torque,fr_joint1_pos,fr_joint1_vel,fr_joint1_torque,fr_joint2_pos,fr_joint2_vel,fr_joint2_torque,fr_joint3_pos,fr_joint3_vel,fr_joint3_torque,hl_joint1_pos,hl_joint1_vel,hl_joint1_torque,hl_joint2_pos,hl_joint2_vel,hl_joint2_torque,hl_joint3_pos,hl_joint3_vel,hl_joint3_torque,hr_joint1_pos,hr_joint1_vel,hr_joint1_torque,hr_joint2_pos,hr_joint2_vel,hr_joint2_torque,hr_joint3_pos,hr_joint3_vel,hr_joint3_torque,fl_force_x,fl_force_y,fl_force_z,fr_force_x,fr_force_y,fr_force_z,hl_force_x,hl_force_y,hl_force_z,hr_force_x,hr_force_y,hr_force_z,fl_hip_action,fl_thigh_action,fl_calf_action,fr_hip_action,fr_thigh_action,fr_calf_action,hl_hip_action,hl_thigh_action,hl_calf_action,hr_hip_action,hr_thigh_action,hr_calf_action
2025-07-21 13:16:56.985,0.0,0,0,-0.0034330108,0.039933644,0.03926745,0.0077399216,0.036121726,-0.015741477,2.1212456,0.028129997,0.0,0.0,-0.0004947629,0.00861752,0.0056790346,-0.007201163,0.0021506182,0.009904773,-0.004080766,-0.0071126726,-0.008051085,0.007018502,0.004983409,-0.0038685077,0.017246474,-0.004150108,0.03393844,0.06906656,-0.02088078,-0.050017796,0.07052774,0.061599113,0.04155201,0.010105816,-0.03741876,-0.022366164,0.0,0.0,0.0,0.0,0.0,0.0,0.0,0.0,0.0,0.0,0.0,0.0,1.0615275,2.0,-0.35783213,-1.3871355,2.0,-0.2795608,0.6193718,0.45565096,0.6944757,0.42555684,1.2943382,0.7358627
2025-07-21 13:16:56.999,0.02,20,1,0.12335557,0.34542796,0.07530927,-0.053567063,-0.031836312,-0.002150627,0.0,0.0,0.0,0.0,0.03415379,0.051692083,-0.014210952,-0.025419636,0.055103894,-0.014021069,0.015533248,0.025676312,0.017490529,0.008061094,0.053341683,0.02373239,0.032488625,0.15302311,-0.068833895,-0.15109056,0.18875678,0.025120849,0.066894695,0.1133254,0.04052121,-0.050273474,0.28673214,0.072182484,1.0615275,2.0,-0.35783213,-1.3871355,2.0,-0.2795608,0.6193718,0.45565096,0.6944757,0.42555684,1.2943382,0.7358627,-0.2831291,-1.1634332,-0.493108,0.45104,-1.8628967,-0.5392262,-0.21579893,0.5160641,-0.8798802,-0.08819413,-0.14693867,-1.0271772
2025-07-21 13:16:57.016,0.04,40,2,0.008985596,-0.053107027,-0.09602711,-0.045981374,0.051263217,-0.02827642,0.0,0.0,0.0,-0.0006701137,0.014998825,0.040094335,-0.026498033,-0.019875288,0.05038434,-0.029975882,0.020877907,0.066568784,-0.017526364,0.0031437555,0.113892876,-0.005407386,-0.018598953,-0.06814795,-0.0477754,0.0698852,-0.11544328,-0.07145944,-0.043538373,0.027810508,-0.11980552,-0.044897094,0.07876146,-0.066680774,-0.2831291,-1.1634332,-0.493108,0.45104,-1.8628967,-0.5392262,-0.21579893,0.5160641,-0.8798802,-0.08819413,-0.14693867,-1.0271772,0.3485027,-0.35353708,-0.59206176,-0.27953443,-0.36096936,0.65625095,0.61287266,0.35142756,0.4120644,-0.23917755,-0.32852653,0.7039432
2025-07-21 13:16:57.036,0.06,60,3,-0.09073407,-0.21191524,-0.07402626,0.046594534,0.026879257,0.01685656,0.0,0.0,0.0,0.00010895578,0.026079245,0.0102799,-0.027134674,-0.029086566,0.02289725,-0.008153172,0.027888069,0.065106876,-0.013164539,-0.003666006,0.0845245,0.019356163,0.013358954,-0.046161376,0.029322071,0.0078348955,-0.098164834,0.03503077,-0.02464449,-0.0006654411,0.10509584,-0.08890344,-0.0678978,0.115198344,0.3485027,-0.35353708,-0.59206176,-0.27953443,-0.36096936,0.65625095,0.61287266,0.35142756,0.4120644,-0.23917755,-0.32852653,0.7039432,-0.20631517,-0.651662,-0.22328642,-0.46216324,-0.21785961,-0.60421276,0.73668426,0.54681593,0.96321434,0.28491655,0.564591,1.138327
2025-07-21 13:16:57.056,0.08,80,4,0.023847459,-0.16276322,0.095088564,0.013428732,-0.03402442,0.039585434,0.0,0.0,0.0,0.00070015254,0.026110543,-0.028925395,-0.043025807,-0.020636503,0.0039441,-0.018770294,0.030188266,0.10309098,0.029844152,-0.0014285955,0.07044186,0.041170392,-0.09359644,-0.093090735,0.022321496,-0.06485134,0.029149013,-0.029520996,-0.004842427,-0.010768346,-0.008350099,0.08598338,0.058084447,0.10368643,-0.20631517,-0.651662,-0.22328642,-0.46216324,-0.21785961,-0.60421276,0.73668426,0.54681593,0.96321434,0.28491655,0.564591,1.138327,0.30216473,-0.34295446,0.41817757,-0.22501852,-0.6921946,-0.38973865,0.47307992,0.953353,0.043529235,-0.5309205,-0.88849306,0.6516969
2025-07-21 13:16:57.081,0.1,100,5,0.12658966,-0.06418341,-0.02655862,-0.027285853,0.007760377,0.010302099,0.0,0.0,0.0,-0.0007810751,0.02781684,-0.04466543,-0.02404953,-0.043118738,-0.02466557,-0.035489198,0.04284394,0.15588853,0.02829312,-0.008022329,0.04378599,0.051635135,-0.01330993,-0.011468919,-0.0012314518,-0.06785631,-0.16668239,-0.056958854,-0.028309746,0.12650307,-0.028564408,-0.009814531,-0.23635228,0.04779859,0.30216473,-0.34295446,0.41817757,-0.22501852,-0.6921946,-0.38973865,0.47307992,0.953353,0.043529235,-0.5309205,-0.88849306,0.6516969,0.38743803,-0.6104522,0.01855802,-0.6142262,0.2866704,-1.0708233,0.5394177,0.7059689,0.7445089,0.29150167,0.9852608,1.8541418
2025-07-21 13:16:57.099,0.12000000000000001,120,6,0.20103267,-0.021774404,0.113450184,0.029650781,-0.042370602,0.010904986,0.0,0.0,0.0,-0.0007869167,0.040136635,-0.07117855,-0.021557843,-0.053042203,-0.02431156,-0.0467977,0.056516808,0.17593522,0.028596338,-0.0022669185,0.014071319,0.07815655,-0.05488913,-0.1406876,0.077928126,-0.06833212,0.018499924,-0.124225885,0.0482026,0.007972055,0.08530408,0.05690809,0.016972233,0.08723305,0.38743803,-0.6104522,0.01855802,-0.6142262,0.2866704,-1.0708233,0.5394177,0.7059689,0.7445089,0.29150167,0.9852608,1.8541418,0.366943,0.03178155,0.7904438,-0.49209794,-0.59302425,-0.6429631,0.30609524,0.4064016,0.32014644,-0.6484657,-1.0053958,1.2779602
2025-07-21 13:16:57.116,0.14,140,7,-0.07015001,0.021288889,-0.13693863,0.040967602,-0.0056896354,0.029102057,0.0,0.0,0.0,-0.0020091264,0.051874503,-0.085303895,-0.0149364015,-0.04753244,-0.041426796,-0.06997594,0.049243405,0.17924492,0.034278132,-0.029756265,0.0036296663,0.10808496,-0.044916198,0.027354954,0.06582957,-0.052124627,-0.15382951,-0.077432476,0.06143485,0.029623965,-0.0022909916,-0.11430498,-0.09151166,0.03346666,0.366943,0.03178155,0.7904438,-0.49209794,-0.59302425,-0.6429631,0.30609524,0.4064016,0.32014644,-0.6484657,-1.0053958,1.2779602,-0.3646814,-1.0162108,0.054429002,-0.6513058,0.07838399,-0.28179795,0.71938246,0.009498455,1.0942227,0.74582464,0.42585865,1.1962954
2025-07-21 13:16:57.136,0.16,160,8,0.03613044,0.010114356,0.178749,0.061902605,-0.00047453592,-0.033172302,0.0,0.0,0.0,-0.0017671926,0.026671076,-0.083289,-0.014365965,-0.05152415,-0.040707894,-0.05680338,0.054916482,0.15965633,0.07237283,-0.0097679915,0.007437691,0.10060967,0.010642857,0.0037034247,-0.012122478,-0.066360705,0.10184623,-0.06601009,0.010082801,-0.10334039,-0.022250643,0.035239574,0.0398382,-0.009456314,-0.3646814,-1.0162108,0.054429002,-0.6513058,0.07838399,-0.28179795,0.71938246,0.009498455,1.0942227,0.74582464,0.42585865,1.1962954,0.69385815,-0.6808208,0.17947653,-0.07928046,-0.64675295,-0.3346555,0.13125354,0.6745325,0.269061,-1.1489131,0.04767148,0.22180772
2025-07-21 13:16:57.156,0.18,180,9,-0.00542082,-0.071630806,-0.07439953,0.016858881,0.01503533,-0.025633847,0.0,0.0,0.0,-0.0030610266,0.049613778,-0.120258816,0.0009968193,-0.054971438,-0.057119314,-0.06155768,0.059905294,0.16177058,0.056858663,-0.035730425,0.015438534,0.09271315,0.018187204,-0.019463615,0.024102839,0.041857366,-0.14281833,0.07146585,-0.010763934,0.080886945,-0.046101872,-0.12532653,-0.028766166,-0.04594901,0.69385815,-0.6808208,0.17947653,-0.07928046,-0.64675295,-0.3346555,0.13125354,0.6745325,0.269061,-1.1489131,0.04767148,0.22180772,-0.25168186,-0.4131719,0.038356192,-0.047555752,0.6780438,-0.42367572,0.62705594,0.24883083,0.7496601,0.23895308,-0.14467902,0.9148985
2025-07-21 13:16:57.181,0.19999999999999998,200,10,0.076556765,0.10966525,0.15717201,0.016732104,-0.012768964,-0.03525567,0.0,0.0,0.0,-0.0035266501,0.06077932,-0.14005056,-0.011754318,-0.058292538,-0.059611768,-0.07707438,0.06662922,0.14853096,0.075766385,-0.024299236,-0.00029417258,0.08934973,-0.0227057,-0.047183674,0.019347714,-0.014550154,-0.0067039873,-0.03393414,0.044739146,-0.02219594,-0.014926053,0.027653024,-0.011132207,0.07534434,-0.25168186,-0.4131719,0.038356192,-0.047555752,0.6780438,-0.42367572,0.62705594,0.24883083,0.7496601,0.23895308,-0.14467902,0.9148985,0.8504177,0.10468459,0.6550715,-0.13038638,0.49584007,-0.5124281,0.35748667,1.027309,0.23659822,-0.6535038,-0.53833073,0.5444087
2025-07-21 13:16:57.199,0.21999999999999997,220,11,0.13732068,0.12080808,-0.19977328,-0.0066461535,0.04057637,-0.018665008,0.0,0.0,0.0,-0.004868031,0.06670914,-0.12167664,-0.0067662396,-0.041554425,-0.017263915,-0.07499939,0.056487568,0.20127477,0.057397254,-0.048965625,-0.0039266916,0.10486956,0.04415018,0.051322352,0.08750023,-0.03980563,0.15029183,-0.0585389,-0.06984233,0.13186078,-0.06073613,0.022536607,-0.025795994,0.030640526,0.8504177,0.10468459,0.6550715,-0.13038638,0.49584007,-0.5124281,0.35748667,1.027309,0.23659822,-0.6535038,-0.53833073,0.5444087,-0.8913072,-1.3236821,0.77874315,-0.47078377,-0.49672556,-0.33078545,0.9131054,-0.34848243,0.3398149,0.4814454,0.7189241,0.35834935
2025-07-21 13:16:57.216,0.23999999999999996,240,12,-0.12950325,0.09162678,0.20864736,-0.014077679,0.0708432,-0.012671397,0.0,0.0,0.0,-0.003561547,0.051888008,-0.12506068,0.00704552,-0.055927206,-0.022569131,-0.06970546,0.07293193,0.1628057,0.07089618,-0.04381146,0.0029449149,0.091113575,-0.12036062,-0.11511205,0.104932815,-0.06294557,-0.04263592,0.010875703,0.07840413,-0.20927751,-0.07326431,-0.0385212,0.0488968,-0.02980083,-0.8913072,-1.3236821,0.77874315,-0.47078377,-0.49672556,-0.33078545,0.9131054,-0.34848243,0.3398149,0.4814454,0.7189241,0.35834935,0.87759554,0.53294504,0.85640824,0.06677724,0.29654068,-0.0793069,0.90377724,1.6354401,-0.14111945,-0.88477576,-0.6651973,0.5024631
2025-07-21 13:16:57.236,0.25999999999999995,260,13,0.05447449,0.13941802,-0.19004801,-0.014121838,0.05230415,0.019281503,0.0,0.0,0.0,-0.0038675852,0.07536027,-0.11403326,0.025182843,-0.043995287,-0.018031877,-0.060812887,0.094474554,0.1813614,0.038627945,-0.047173135,0.014441659,0.072551094,-0.009244892,0.14584962,0.014846479,-0.022572555,0.114597805,0.0644076,0.020209659,0.061731048,-0.02567084,-0.04099433,-0.0042369585,-0.016114147,0.87759554,0.53294504,0.85640824,0.06677724,0.29654068,-0.0793069,0.90377724,1.6354401,-0.14111945,-0.88477576,-0.6651973,0.5024631,-0.84554654,-2.0,0.03372749,-0.059053443,-0.008934876,-0.18029678,0.42673695,-0.14565244,0.6252869,0.43401146,0.49765685,0.057266004
2025-07-21 13:16:57.256,0.27999999999999997,280,14,-0.1615978,-0.039288852,0.18275426,0.038513,-0.0035261752,0.047055967,0.0,0.0,0.0,-0.0031124488,0.05627253,-0.112134084,0.020125855,-0.046397425,-0.011382434,-0.052985474,0.091273114,0.16188474,0.056848343,-0.053842075,0.04364821,0.067037426,-0.06325005,-0.020777142,-0.06779729,-0.05635523,0.07084919,0.018424572,-0.04808124,-0.033125486,0.051261257,0.07626069,0.018796809,0.032398246,-0.84554654,-2.0,0.03372749,-0.059053443,-0.008934876,-0.18029678,0.42673695,-0.14565244,0.6252869,0.43401146,0.49765685,0.057266004,0.7529015,-0.48553348,0.27760783,-0.045025952,-0.4754195,-0.74391913,0.37374985,0.6821524,0.0971786,-0.8059015,-0.2625226,0.39315003
2025-07-21 13:16:57.282,0.3,300,15,0.06683305,-0.11788858,-0.1633632,-0.023769597,0.049667485,-0.020290362,0.0,0.0,0.0,-0.0032337457,0.06364196,-0.13083902,0.021481808,-0.03330443,-0.032048967,-0.07063858,0.088896126,0.1667955,0.05778029,-0.06916146,0.025538921,0.06659363,0.04384129,-0.035423618,0.040117826,-0.034201037,-0.10786788,-0.07064951,-0.034647845,0.08887927,-0.0038074479,-0.04065617,-0.09969614,-0.0016710995,0.7529015,-0.48553348,0.27760783,-0.045025952,-0.4754195,-0.74391913,0.37374985,0.6821524,0.0971786,-0.8059015,-0.2625226,0.39315003,-0.46464044,-0.5877107,0.26835918,-0.6872463,0.1287494,-0.71327245,0.673037,0.17785028,0.66679734,0.85467815,0.6653501,1.5127431
2025-07-21 13:16:57.299,0.32,320,16,-0.050479896,0.05707294,0.20503679,0.033069056,0.0029353963,-0.049886744,0.0,0.0,0.0,-0.00198169,0.049118947,-0.16324246,0.009618969,-0.052249104,-0.023953347,-0.06946809,0.07912884,0.1602233,0.06545774,-0.043564543,0.04241599,0.07179146,-0.04069557,0.014661358,-0.042284027,-0.078893974,-0.025222348,0.0023507609,-0.044647958,-0.090797335,0.065665625,0.118610956,0.08757819,0.013083617,-0.46464044,-0.5877107,0.26835918,-0.6872463,0.1287494,-0.71327245,0.673037,0.17785028,0.66679734,0.85467815,0.6653501,1.5127431,0.46300757,-0.1797489,0.25585824,-0.30573323,0.003630856,-0.085089505,0.096508525,0.6572636,-0.057977,-0.98115665,-1.2975236,0.4459294
2025-07-21 13:16:57.317,0.34,340,17,-0.008561446,-0.0062261773,-0.08882319,0.012426042,-0.025663106,0.04853781,0.0,0.0,0.0,-0.0031646725,0.05726925,-0.15840966,0.02074756,-0.04119541,-0.028643614,-0.057233416,0.067314826,0.17744459,0.045462504,-0.061469045,0.042457465,0.07556889,0.06540569,-0.0008662112,0.03069193,0.014932065,0.071208924,-0.05762073,0.041874133,0.007218482,-0.029388154,-0.05283375,-0.13122392,0.058736827,0.46300757,-0.1797489,0.25585824,-0.30573323,0.003630856,-0.085089505,0.096508525,0.6572636,-0.057977,-0.98115665,-1.2975236,0.4459294,-0.2631927,-0.7959634,0.59232974,-0.66620004,-0.040297337,-0.924446,0.85233915,0.4124309,0.5842562,0.73689944,0.6399535,1.335304
2025-07-21 13:16:57.337,0.36000000000000004,360,18,0.009172255,-0.05406751,0.18736975,0.046174373,0.06424306,-0.040272888,0.0,0.0,0.0,-0.0034256096,0.06099871,-0.17104359,0.03266672,-0.062354982,-0.01750561,-0.068793625,0.091352254,0.17493472,0.04801722,-0.056783456,0.04786431,0.09811163,-0.0145270405,-0.05043755,0.06128352,-0.0129657285,0.07428223,-0.025955524,0.012899637,-0.05617074,0.017938845,0.016831191,0.0733936,0.07065608,-0.2631927,-0.7959634,0.59232974,-0.66620004,-0.040297337,-0.924446,0.85233915,0.4124309,0.5842562,0.73689944,0.6399535,1.335304,0.36107117,0.1420185,0.6916098,-0.4490255,-0.617833,-0.26267824,0.38445327,0.82430506,-0.056388058,-0.80894315,-1.456925,0.45061797
2025-07-21 13:16:57.357,0.38000000000000006,380,19,-0.035502743,0.03973626,-0.08714591,0.009883752,0.010566388,-0.021011926,0.0,0.0,0.0,-0.004828128,0.056112353,-0.15650702,0.036506232,-0.05585878,-0.057714954,-0.07626872,0.085645884,0.20155646,0.051098447,-0.06732429,0.061655477,0.097651295,0.09284026,0.114414714,0.030519148,-0.0054527414,-0.049403038,0.04491161,-0.018530881,0.12427987,-0.084039025,-0.08073956,-0.0024879242,-0.03293715,0.36107117,0.1420185,0.6916098,-0.4490255,-0.617833,-0.26267824,0.38445327,0.82430506,-0.056388058,-0.80894315,-1.456925,0.45061797,-0.44811326,-1.0129987,0.013931768,-0.57735217,-0.17784284,-0.1722439,0.673046,-0.26246884,0.4981928,0.3862816,-0.38983026,0.3194344
2025-07-21 13:16:57.376,0.4000000000000001,400,20,-0.12969111,-0.20339668,0.06274184,0.0418908,0.005182276,-0.046051737,0.0,0.0,0.0,-0.004795766,0.05580392,-0.18355623,0.031242242,-0.059670933,-0.059513252,-0.07250054,0.09269278,0.16149272,0.058795813,-0.054536622,0.022157336,0.08126583,-0.057436448,-0.120929435,-0.061700143,0.03767974,0.013466743,-0.027575905,0.08932674,-0.1442612,-0.013903802,0.10715484,-0.12595774,0.028050339,-0.44811326,-1.0129987,0.013931768,-0.57735217,-0.17784284,-0.1722439,0.673046,-0.26246884,0.4981928,0.3862816,-0.38983026,0.3194344,0.62566644,0.3375137,-0.05014705,-0.02002295,0.41647354,-0.62711215,0.74349064,0.91430026,1.1531134,-0.19027509,0.9334698,1.3548168
2025-07-21 13:16:57.397,0.4200000000000001,420,21,0.32511762,0.19770956,0.062596135,0.06636609,0.055029012,-0.023350084,0.0,0.0,0.0,-0.0052526547,0.0579397,-0.16981392,0.010092251,-0.06960802,-0.04713633,-0.076702036,0.08963113,0.18827,0.063385464,-0.054346025,0.0520527,0.0929816,0.067036025,0.01789757,0.018287275,-0.009858237,0.10628799,0.051310584,-0.055169377,0.028270954,0.08939169,-0.072011515,0.13488336,0.0465542,0.62566644,0.3375137,-0.05014705,-0.02002295,0.41647354,-0.62711215,0.74349064,0.91430026,1.1531134,-0.19027509,0.9334698,1.3548168,-0.38016814,0.0903731,1.0451734,-0.44068584,-1.092505,0.06838524,0.557065,0.078360654,0.6111451,-0.17231345,-0.9334384,0.13387966
2025-07-21 13:16:57.421,0.4400000000000001,440,22,-0.08367459,0.18547815,0.017422885,-0.002370086,0.027205199,0.017328242,0.0,0.0,0.0,-0.006352154,0.05302885,-0.1452228,0.026666818,-0.06950395,-0.058850344,-0.07025677,0.086992115,0.17879856,0.079557426,-0.07214654,0.07853535,0.082942106,-0.082901575,0.10190145,0.092729084,-0.0033776634,-0.24096999,-0.034641713,-0.021470066,-0.116771646,0.0023830133,0.03074719,0.073169135,-0.030490493,-0.38016814,0.0903731,1.0451734,-0.44068584,-1.092505,0.06838524,0.557065,0.078360654,0.6111451,-0.17231345,-0.9334384,0.13387966,0.3826509,-0.25764716,-0.07079614,-0.018546512,0.62724614,0.60323846,0.6788754,0.8685083,0.38267702,-0.2231834,-1.0711925,-0.2872524
2025-07-21 13:16:57.437,0.46000000000000013,460,23,0.028281711,0.02667629,-0.103711,0.043297466,0.07597003,0.010599722,0.0,0.0,0.0,-0.006594578,0.068408415,-0.14178364,0.011884548,-0.061285544,-0.07339322,-0.037527304,0.10152085,0.1864181,0.077893324,-0.058078572,0.067238905,0.06346875,-0.004498404,0.027897574,-0.052674565,-0.047899354,0.037547864,0.10688295,-0.060124815,0.08441519,-0.080014214,-0.047812138,0.012499637,-0.032598615,0.3826509,-0.25764716,-0.07079614,-0.018546512,0.62724614,0.60323846,0.6788754,0.8685083,0.38267702,-0.2231834,-1.0711925,-0.2872524,-0.66523415,-0.7414225,0.3458691,-0.25756374,0.07938842,-0.09045535,1.0588455,-0.65196675,0.5837019,0.4479245,0.24223168,-0.094847225
2025-07-21 13:16:57.463,0.48000000000000015,480,24,-0.035631176,-0.07465455,0.21771146,0.048781443,0.006971145,0.015833013,0.0,0.0,0.0,-0.005755371,0.051800575,-0.15768695,0.018056067,-0.06353356,-0.056570992,-0.027561156,0.11979678,0.17242604,0.067561254,-0.048441287,0.08081491,0.04813092,0.009117717,-0.10985355,-0.060931813,-0.014361039,0.040711127,-0.015798897,-0.031465665,-0.15095167,0.0043802615,0.041919213,0.08680474,-0.096757166,-0.66523415,-0.7414225,0.3458691,-0.25756374,0.07938842,-0.09045535,1.0588455,-0.65196675,0.5837019,0.4479245,0.24223168,-0.094847225,0.58144176,0.5791855,0.25590682,-0.019989094,0.32111633,-0.13909048,0.59815484,1.0975477,0.40904695,-0.6035559,-1.1616111,0.14579439
2025-07-21 13:16:57.483,0.5000000000000001,500,25,0.07984782,0.095980056,-0.075499855,0.0036644493,-0.006634744,-0.043737125,0.0,0.0,0.0,-0.008590484,0.06374122,-0.16365856,0.011729865,-0.05238382,-0.033323355,-0.030505808,0.119380355,0.1626204,0.06490658,-0.05356348,0.06886252,0.038152706,0.033397622,0.051055834,0.021590516,-0.013740759,0.0382985,-0.02802361,-0.015249615,0.06342448,-0.047643743,0.020992158,-0.13237174,0.029309532,0.58144176,0.5791855,0.25590682,-0.019989094,0.32111633,-0.13909048,0.59815484,1.0975477,0.40904695,-0.6035559,-1.1616111,0.14579439,-0.20004572,-0.98719746,0.63086057,-0.5915952,-0.1579709,-0.6716947,0.801291,0.3434336,0.25443313,0.43804857,0.7647249,1.1216738
2025-07-21 13:16:57.503,0.5200000000000001,520,26,-0.010336582,0.06698491,0.21556515,-0.027993916,0.036316723,-0.03670907,0.0,0.0,0.0,-0.0097841425,0.0527158,-0.16218777,0.03245478,-0.055543862,-0.02112908,-0.0449982,0.12028378,0.17856228,0.06921931,-0.048886083,0.08103192,0.061110746,-0.035396416,-0.074529715,0.03015463,-0.07856566,-0.020490136,-0.06332308,0.010923597,0.009342036,-0.017735634,-0.025895434,0.12732248,0.08612907,-0.20004572,-0.98719746,0.63086057,-0.5915952,-0.1579709,-0.6716947,0.801291,0.3434336,0.25443313,0.43804857,0.7647249,1.1216738,0.261734,0.36357656,1.0535902,-0.32974422,-0.40451562,-0.04413104,0.22859064,0.66320455,-0.4045063,-0.7380596,-2.0,0.5637472
2025-07-21 13:16:57.520,0.5400000000000001,540,27,-0.055053886,0.123332895,-0.067018315,0.013953738,0.05952425,-0.047598246,0.0,0.0,0.0,-0.011501246,0.053580146,-0.1594595,0.044820957,-0.06968768,-0.058102213,-0.048944272,0.09810092,0.19258922,0.044408012,-0.056433268,0.07906867,0.061457343,0.04689982,0.11667971,0.08012693,0.04969132,-0.10538048,0.058426265,-0.051437523,0.06911885,-0.060195416,0.02303996,-0.07879642,0.050402433,0.261734,0.36357656,1.0535902,-0.32974422,-0.40451562,-0.04413104,0.22859064,0.66320455,-0.4045063,-0.7380596,-2.0,0.5637472,0.026902009,-0.8314356,-0.0664328,-0.78759605,0.16852942,-0.3362763,0.7313892,0.115543075,0.22677773,0.22603461,-0.68317467,0.51805496
2025-07-21 13:16:57.540,0.5600000000000002,560,28,-0.039278917,-0.2575359,0.034232996,0.018370682,0.022888798,-0.027910644,0.0,0.0,0.0,-0.011852946,0.053495843,-0.16684249,0.021948114,-0.06345208,-0.04037543,-0.051118504,0.099788144,0.16064024,0.035105847,-0.053791434,0.0550138,0.0643706,-0.008191691,-0.080505,-0.09681989,-0.00624118,0.032743763,0.0661512,-0.048762254,-0.077923365,-0.013384996,0.006628759,-0.17485751,0.057530593,0.026902009,-0.8314356,-0.0664328,-0.78759605,0.16852942,-0.3362763,0.7313892,0.115543075,0.22677773,0.22603461,-0.68317467,0.51805496,0.18514757,0.026157256,0.2972563,-0.28171724,-0.0748119,-0.5160293,0.8342949,0.8894033,1.0307579,0.20085981,0.52055466,1.2158363
2025-07-21 13:16:57.565,0.5800000000000002,580,29,0.044161074,0.14430463,0.039246112,0.057291918,0.009703262,0.027090976,0.0,0.0,0.0,-0.01188517,0.05952128,-0.17680708,0.027065737,-0.05963569,-0.033318434,-0.041495346,0.117868595,0.18797965,0.059308082,-0.041843392,0.056305185,0.08523296,0.021352476,-0.021899635,0.008409067,0.07993993,-0.0437118,-0.0145348525,0.08787669,0.032354526,0.0966633,0.03772458,0.016817,-0.0039375843,0.18514757,0.026157256,0.2972563,-0.28171724,-0.0748119,-0.5160293,0.8342949,0.8894033,1.0307579,0.20085981,0.52055466,1.2158363,-0.04782043,-0.06445265,0.6463712,-0.42712173,-0.27624664,-0.15107256,0.45989716,0.24997255,0.7039842,-0.054846257,-0.6935008,0.44312936
2025-07-21 13:16:57.594,0.6000000000000002,600,30,-0.10082253,0.077062964,-0.060429893,-0.014058623,0.025519697,0.027439708,0.0,0.0,0.0,-0.01188414,0.04887725,-0.16093805,0.024956288,-0.07464945,-0.045375668,-0.054748673,0.112424016,0.1873767,0.070389725,-0.054307282,0.06191429,0.08821416,0.061674293,-0.013802056,-0.0069267466,0.06818499,0.029438611,-0.0028923508,0.00027401446,-0.036683623,-0.027449826,-0.089491755,-0.059301846,-0.0047460906,-0.04782043,-0.06445265,0.6463712,-0.42712173,-0.27624664,-0.15107256,0.45989716,0.24997255,0.7039842,-0.054846257,-0.6935008,0.44312936,-0.33712,-0.59009254,0.5070545,-0.588874,-0.21978597,-0.36060274,0.79695445,0.3650421,0.81504864,0.78567404,0.2789045,0.42111063
2025-07-21 13:16:57.616,0.6200000000000002,620,31,0.05241712,-0.0776384,0.20985663,0.0022425125,0.039132014,0.04837619,0.0,0.0,0.0,-0.011302253,0.05772025,-0.16750672,0.020886628,-0.06499587,-0.062152393,-0.053460564,0.11532989,0.18127029,0.08415221,-0.054100547,0.06847125,0.06968687,0.016474033,0.0018572828,-0.0054485546,-0.060758397,0.026219133,-0.039140806,0.06342389,-0.005954313,0.060627274,0.06535899,0.028220095,-0.013992397,-0.33712,-0.59009254,0.5070545,-0.588874,-0.21978597,-0.36060274,0.79695445,0.3650421,0.81504864,0.78567404,0.2789045,0.42111063,0.5740178,0.26168668,0.47508276,-0.30902624,-0.20152308,-0.303286,0.23129268,0.5605976,0.11349901,-0.7692778,-1.216284,0.26184598
2025-07-21 13:16:57.633,0.6400000000000002,640,32,-0.068972364,0.03190265,-0.064660266,0.01692852,0.03271367,0.044323117,0.0,0.0,0.0,-0.012742683,0.07131485,-0.15264077,0.029779475,-0.063439526,-0.066636875,-0.05326412,0.10551902,0.19175285,0.06600062,-0.054196753,0.06399252,0.068072036,0.048381887,0.11902298,0.0015904529,-0.05922556,0.021258226,-0.0032137001,-0.09453463,0.0055089747,-0.09218536,-0.04618643,-0.09196696,-0.06302641,0.5740178,0.26168668,0.47508276,-0.30902624,-0.20152308,-0.303286,0.23129268,0.5605976,0.11349901,-0.7692778,-1.216284,0.26184598,-0.09525733,-1.0687509,0.29626152,-0.56931496,-0.119021006,-0.4023149,0.6785553,0.3394782,0.39487866,0.20522487,0.16124378,0.4415477
2025-07-21 13:16:57.653,0.6600000000000003,660,33,-0.0010729166,-0.055539932,0.152545,0.032240108,-0.0071552866,0.049102467,0.0,0.0,0.0,-0.012899395,0.06476044,-0.15871875,0.029610869,-0.07804073,-0.062428933,-0.061590843,0.09313811,0.1889292,0.06344137,-0.055034485,0.05045871,0.055319093,-0.02981818,-0.124219626,-0.045645285,-0.07834746,0.0030999072,-0.050356146,-0.05304089,-0.017205987,-0.07658697,0.0045422493,0.03848917,-0.017836047,-0.09525733,-1.0687509,0.29626152,-0.56931496,-0.119021006,-0.4023149,0.6785553,0.3394782,0.39487866,0.20522487,0.16124378,0.4415477,0.44993535,0.2756933,0.6394298,-0.034467526,0.1825539,-0.5213385,0.48227817,0.94260377,0.35932493,-0.5221698,-0.7173668,0.4404816
2025-07-21 13:16:57.672,0.6800000000000003,680,34,0.05422403,0.021402718,-0.12754896,0.033965614,0.07790869,-0.03813333,0.0,0.0,0.0,-0.0141525,0.07072172,-0.15626541,0.035172116,-0.057242114,-0.053017035,-0.058286753,0.10017644,0.20513028,0.072489,-0.058572333,0.03694174,0.066361405,0.08611171,0.05436511,0.0678986,-0.005491433,0.053855315,-0.0032291403,-0.028639548,0.04605029,-0.0018061507,-0.07590589,-0.090556875,0.059472,0.44993535,0.2756933,0.6394298,-0.034467526,0.1825539,-0.5213385,0.48227817,0.94260377,0.35932493,-0.5221698,-0.7173668,0.4404816,-0.2807396,-0.85438365,0.505058,-0.71045023,-0.07609101,-0.6204255,0.7512037,0.16029164,0.31889686,0.58923197,0.55403996,0.8896993
2025-07-21 13:16:57.699,0.7000000000000003,700,35,-0.0054237186,-0.028168984,0.2209784,0.05272211,0.06448835,0.0336066,0.0,0.0,0.0,-0.013842975,0.059705038,-0.17148298,0.039728556,-0.068985514,-0.04615435,-0.066869974,0.099212006,0.19171485,0.07032288,-0.042419787,0.050724894,0.063682996,-0.06153811,-0.038046688,0.023214612,0.03634423,0.0022100715,-0.048150808,0.064005494,-0.017425584,-0.07761452,0.09155213,0.004826024,0.033825673,-0.2807396,-0.85438365,0.505058,-0.71045023,-0.07609101,-0.6204255,0.7512037,0.16029164,0.31889686,0.58923197,0.55403996,0.8896993,0.7947948,0.33483994,0.5043932,-0.2291432,-0.065716095,-0.52457225,0.508228,0.82675296,-0.12010009,-0.8566249,-1.081222,0.6682159
2025-07-21 13:16:57.715,0.7200000000000003,720,36,-0.03358264,0.024171561,-0.16668163,0.033232458,0.0138926245,-0.015706114,0.0,0.0,0.0,-0.015492209,0.06889851,-0.16242744,0.03655314,-0.076070145,-0.046734706,-0.07548844,0.09983836,0.21675682,0.05155914,-0.062005732,0.057236657,0.07069723,0.10041768,0.070443004,-0.064213865,0.03401322,0.07807063,0.01717873,-0.009410078,0.122322164,-0.06580719,0.018494258,-0.092550166,0.036924668,0.7947948,0.33483994,0.5043932,-0.2291432,-0.065716095,-0.52457225,0.508228,0.82675296,-0.12010009,-0.8566249,-1.081222,0.6682159,-0.5414668,-1.0753901,0.34369725,-0.6539921,-0.36238623,-0.519871,0.7747778,-0.14157215,0.6785069,0.66820997,0.63550097,0.8000709
2025-07-21 13:16:57.733,0.7400000000000003,740,37,-0.10154904,0.008344574,0.22388606,-0.04274757,0.07827139,-0.04691227,0.0,0.0,0.0,-0.015081777,0.067190036,-0.17474766,0.031214321,-0.07296647,-0.057432264,-0.076730534,0.09521217,0.17753051,0.050599385,-0.050321758,0.06693719,0.07471801,0.007229508,-0.06090691,0.07592014,0.038294163,-0.05490529,-0.06634506,-0.040070996,-0.06672956,0.030519657,0.011338738,0.028959783,0.02983531,-0.5414668,-1.0753901,0.34369725,-0.6539921,-0.36238623,-0.519871,0.7747778,-0.14157215,0.6785069,0.66820997,0.63550097,0.8000709,0.93369627,0.30117106,0.6221223,-0.25813654,0.23059106,-0.38711223,0.4118613,0.980541,-0.08061723,-0.73691976,-0.8811186,0.6003304
2025-07-21 13:16:57.753,0.7600000000000003,760,38,-0.015761241,-0.015887331,-0.18843241,0.01605995,0.0002310214,0.010321826,0.0,0.0,0.0,-0.016201431,0.06592333,-0.15644537,0.04052164,-0.07744893,-0.034086842,-0.063779816,0.0960506,0.19666928,0.045639988,-0.05894492,0.067394435,0.071812585,0.060258463,0.13800208,0.023787165,-0.036928654,0.07127476,-0.06491917,0.014832819,0.14425944,0.017869072,0.004229585,-0.07229729,0.057509948,0.93369627,0.30117106,0.6221223,-0.25813654,0.23059106,-0.38711223,0.4118613,0.980541,-0.08061723,-0.73691976,-0.8811186,0.6003304,-0.71224385,-1.4127511,0.25879413,-0.5971141,-0.43538955,-0.486624,0.7118906,-0.118720494,0.4649383,0.59818876,0.32750115,0.49834636
2025-07-21 13:16:57.772,0.7800000000000004,780,39,-0.13579576,-0.08562396,0.11474727,-0.030741187,0.047361985,-0.011096429,0.0,0.0,0.0,-0.015703298,0.06459797,-0.17381491,0.030456482,-0.07419627,-0.04535759,-0.066853,0.10103906,0.17224923,0.044399314,-0.051684022,0.07953897,0.08072166,0.012715307,-0.010877021,0.06312024,0.01679536,0.010935407,-0.033114962,-0.039420854,-0.07554364,-0.059038125,0.034363274,-0.032431867,0.06639646,-0.71224385,-1.4127511,0.25879413,-0.5971141,-0.43538955,-0.486624,0.7118906,-0.118720494,0.4649383,0.59818876,0.32750115,0.49834636,0.5928826,-0.13569999,0.237429,-0.11454152,-0.042754672,-0.4729091,0.45258713,0.9631996,0.2501298,-0.5377079,-0.2966102,0.46906704
2025-07-21 13:16:57.794,0.8000000000000004,800,40,0.040162466,-0.035129327,-0.15137297,0.014820239,-0.028068107,-0.0016095159,0.0,0.0,0.0,-0.016189814,0.06921002,-0.17690516,0.032110758,-0.07034603,-0.042217366,-0.08171252,0.088649325,0.18428704,0.05798461,-0.05183088,0.06381545,0.07596504,-0.029138822,0.027326813,-0.09208143,-0.017342195,0.0263529,-0.02306742,-0.011700883,0.1702882,-0.047268674,-0.09839129,-0.009061492,0.049403813,0.5928826,-0.13569999,0.237429,-0.11454152,-0.042754672,-0.4729091,0.45258713,0.9631996,0.2501298,-0.5377079,-0.2966102,0.46906704,-0.58738655,-0.70847994,0.46480566,-0.5956338,-0.10985216,-0.52255607,1.0630745,-0.30180162,0.4132317,0.7143482,0.22665496,0.87487715
2025-07-21 13:16:57.815,0.8200000000000004,820,41,-0.09133922,-0.062486026,0.23191208,0.022210136,0.06754768,-0.010854602,0.0,0.0,0.0,-0.015363701,0.059786107,-0.18627834,0.028457606,-0.07222105,-0.037344564,-0.08620276,0.10584429,0.16727449,0.05862477,-0.056420803,0.060944047,0.08275711,-0.06453851,-0.09997376,0.020150019,-0.039568856,0.033831038,0.07177161,-0.0051016863,-0.14878124,0.033931814,0.09393062,-0.011296365,0.08872741,-0.58738655,-0.70847994,0.46480566,-0.5956338,-0.10985216,-0.52255607,1.0630745,-0.30180162,0.4132317,0.7143482,0.22665496,0.87487715,0.71228456,0.68795574,0.59835744,-0.2834052,0.17359601,-0.4451158,0.8892966,1.2154701,0.19880942,-0.723756,-1.1967046,0.74602294
2025-07-21 13:16:57.833,0.8400000000000004,840,42,0.013286164,0.03587888,-0.094359614,0.00872245,0.027863564,0.012346412,0.0,0.0,0.0,-0.0168549,0.06932259,-0.1782088,0.027320733,-0.06357183,-0.030309366,-0.06986195,0.11360303,0.17696635,0.03915719,-0.06714831,0.059096437,0.079132274,0.07558654,0.055553533,-0.03209941,0.02366663,-0.033805363,-0.048403475,-0.043556623,0.16834675,-0.06016355,-0.09393483,-0.019607842,0.009797812,0.71228456,0.68795574,0.59835744,-0.2834052,0.17359601,-0.4451158,0.8892966,1.2154701,0.19880942,-0.723756,-1.1967046,0.74602294,-0.32821757,-0.9652689,0.24685176,-0.8377842,-0.16022177,-0.58405036,0.5163861,-0.11721047,0.44339493,0.4069096,-0.21982424,0.56223744
2025-07-21 13:16:57.852,0.8600000000000004,860,43,-0.13017744,-0.15984897,0.09110171,0.001966301,0.048061825,-0.023106534,0.0,0.0,0.0,-0.016836036,0.069146834,-0.19168922,0.039214216,-0.08354953,-0.023184408,-0.076822735,0.114279635,0.16169007,0.04540266,-0.0537154,0.027262863,0.088209584,0.026262686,-0.049224127,-0.023968317,0.00799934,-0.05107261,0.05185997,0.021946337,-0.11515024,0.018139664,0.010453137,-0.122655414,-0.03935486,-0.32821757,-0.9652689,0.24685176,-0.8377842,-0.16022177,-0.58405036,0.5163861,-0.11721047,0.44339493,0.4069096,-0.21982424,0.56223744,0.6617361,0.2345339,0.27137926,-0.20246145,0.05895964,-0.4440056,0.6219344,0.8999695,1.0122,-0.504638,0.14245072,0.765569
2025-07-21 13:16:57.872,0.8800000000000004,880,44,0.07140132,0.12289239,-0.046490073,0.0074115484,0.05209221,0.0026906987,0.0,0.0,0.0,-0.017261282,0.088108286,-0.16653515,0.024075337,-0.06735515,-0.024552742,-0.08173115,0.10799619,0.17543398,0.077199735,-0.062445465,0.028627876,0.09529385,0.09555872,0.05137355,0.049271226,-0.043273766,0.095756255,-0.029477865,0.042798653,0.0743387,0.06178561,-0.08542679,-0.004991526,0.043921225,0.6617361,0.2345339,0.27137926,-0.20246145,0.05895964,-0.4440056,0.6219344,0.8999695,1.0122,-0.504638,0.14245072,0.765569,-0.3049113,-0.5497792,0.974994,-0.44269174,-0.78003764,-0.390705,0.70430523,-0.058823146,0.34449214,0.15187016,-0.05750339,0.41788504
2025-07-21 13:16:57.898,0.9000000000000005,900,45,-0.078355275,-0.02889607,0.05219693,0.048934493,0.012384781,-0.005474858,0.0,0.0,0.0,-0.017895166,0.065583624,-0.1783555,0.039875545,-0.07064172,-0.043215454,-0.081924394,0.10124638,0.16484636,0.06570696,-0.04778295,0.019423515,0.07947343,-0.076741464,-0.05586255,0.09936648,0.05832499,-0.11807681,0.07626403,0.026762616,-0.03644104,-0.01704784,-0.019497415,0.04804823,-0.03245153,-0.3049113,-0.5497792,0.974994,-0.44269174,-0.78003764,-0.390705,0.70430523,-0.058823146,0.34449214,0.15187016,-0.05750339,0.41788504,0.41084144,0.57289475,0.747174,-0.15474766,0.29993495,-0.12967163,0.82970744,0.32730702,0.2844006,-0.24827242,-1.1678567,0.44227505
2025-07-21 13:16:57.916,0.9200000000000005,920,46,0.06116966,0.021154832,-0.051191773,0.03749067,-0.026374232,0.043309826,0.0,0.0,0.0,-0.018301992,0.0790369,-0.18012637,0.03498567,-0.0796751,-0.034117375,-0.076976,0.10761574,0.16295534,0.06319548,-0.06560839,0.009247205,0.07397447,-0.043281265,0.06694178,-0.06532592,0.00744895,0.13066098,0.07911763,0.014456144,-0.019149793,-0.056343425,0.048728596,-0.09703471,-0.042933732,0.41084144,0.57289475,0.747174,-0.15474766,0.29993495,-0.12967163,0.82970744,0.32730702,0.2844006,-0.24827242,-1.1678567,0.44227505,0.11545925,-0.93310404,0.40131572,-0.44888794,-0.42509636,-0.26660532,0.8527928,0.114513494,0.24046639,0.3290289,0.7575596,0.8435762
2025-07-21 13:16:57.933,0.9400000000000005,940,47,0.07966877,0.0027274461,0.059929583,0.016629038,0.04459867,-0.0493247,0.0,0.0,0.0,-0.017382996,0.08388056,-0.16918284,0.04683364,-0.073759176,-0.06435062,-0.06705442,0.11768636,0.13887547,0.057925463,-0.05212205,0.02903594,0.07388351,-0.047084633,-0.11551371,0.041582108,0.06316607,-0.045698285,0.07834467,-0.049833424,-0.08633485,-0.032578796,0.098606415,0.15675086,-0.031443063,0.11545925,-0.93310404,0.40131572,-0.44888794,-0.42509636,-0.26660532,0.8527928,0.114513494,0.24046639,0.3290289,0.7575596,0.8435762,-0.019321676,0.2661602,0.65549415,-0.087364934,0.011490593,0.28056216,0.8653767,1.1230698,0.20084926,-0.22671378,-1.0540305,0.10767842
2025-07-21 13:16:57.955,0.9600000000000005,960,48,0.025057986,0.15070307,-0.10072264,0.022095669,0.03709374,0.00777143,0.0,0.0,0.0,-0.017958147,0.0805315,-0.18316968,0.050609212,-0.06929278,-0.04735899,-0.048011687,0.12611766,0.17537393,0.050985124,-0.04323763,0.041376825,0.06406426,0.030692408,0.097954944,-0.017460197,0.08964384,0.06437202,0.07809842,0.015827222,0.19984671,-0.069240674,-0.060179844,0.045250792,-0.035988443,-0.019321676,0.2661602,0.65549415,-0.087364934,0.011490593,0.28056216,0.8653767,1.1230698,0.20084926,-0.22671378,-1.0540305,0.10767842,-0.53330535,-1.0278928,0.4076676,-0.36698455,-0.09978565,-0.43430537,0.580754,-0.93915564,0.42055705,0.32387015,-0.34159103,-0.14278606
2025-07-21 13:16:57.972,0.9800000000000005,980,49,-0.11691866,-0.14180559,0.041325957,0.044158723,0.008987073,-0.038184926,0.0,0.0,0.0,-0.017800866,0.06138044,-0.19204502,0.03725175,-0.07404668,-0.051679254,-0.062025342,0.111030355,0.15181792,0.057571996,-0.042226817,0.025003608,0.060195196,-0.0783559,-0.13382319,-0.019473642,-0.034073822,-0.07823091,-0.050500657,0.0042815385,-0.25013545,0.067891605,0.023061506,-0.025433887,-0.09063685,-0.53330535,-1.0278928,0.4076676,-0.36698455,-0.09978565,-0.43430537,0.580754,-0.93915564,0.42055705,0.32387015,-0.34159103,-0.14278606,0.5863181,0.24900699,-0.22060353,-0.038623355,0.74811304,0.12799886,0.7286071,1.4696298,1.5284793,-0.42291367,0.54031605,0.750115
2025-07-21 13:16:57.999,1.0000000000000004,1000,50,0.31391126,0.17747541,-0.024984002,-0.032724105,0.009175821,-0.048242833,0.0,0.0,0.0,-0.01801222,0.07238744,-0.18946782,0.03703581,-0.058742456,-0.021345986,-0.042602573,0.12592912,0.15570576,0.094448976,-0.04850241,0.0427284,0.060095422,-0.0028559102,0.055424146,-0.06973411,0.095905736,0.15068275,0.038998283,-0.05465595,0.11161955,0.05375871,-0.019481903,0.028620997,-0.00764556,0.5863181,0.24900699,-0.22060353,-0.038623355,0.74811304,0.12799886,0.7286071,1.4696298,1.5284793,-0.42291367,0.54031605,0.750115,-0.25383687,-0.583332,0.7303066,0.062035985,-1.0970455,0.039402127,0.8137684,-0.37434188,0.40769643,-0.47508007,0.59996027,-0.0052480027
2025-07-21 13:16:58.015,1.0200000000000005,1020,51,-0.04964406,0.10063733,0.15055086,-0.04269998,0.073855296,-0.039578326,0.0,0.0,0.0,-0.018920958,0.06174744,-0.18309177,0.045847494,-0.054591976,-0.02877987,-0.037227776,0.12693465,0.1734462,0.09217443,-0.056046817,0.08703145,0.036674872,-0.119687855,-0.035635296,-0.0003284312,0.004522024,-0.07408027,0.042401593,0.07559568,-0.093550816,0.037571304,-0.001288386,0.11785736,-0.07030955,-0.25383687,-0.583332,0.7303066,0.062035985,-1.0970455,0.039402127,0.8137684,-0.37434188,0.40769643,-0.47508007,0.59996027,-0.0052480027,0.56324035,0.7245927,0.75808394,-0.139495,-0.022160312,0.42826426,0.8394514,0.7506634,-0.27705118,0.06344125,-1.6802697,0.30629164
2025-07-21 13:16:58.034,1.0400000000000005,1040,52,0.19367053,0.0569152,-0.035953335,0.012965741,0.043712262,-0.0250665,0.0,0.0,0.0,-0.021187264,0.055096857,-0.16144933,0.049313746,-0.04834656,-0.0405942,-0.027256753,0.12028623,0.19915089,0.058308735,-0.04949919,0.07819528,0.04480681,0.086817175,0.05767112,0.08354816,-0.040617216,0.022053547,0.0087123085,0.067283764,0.12117196,-0.016310023,0.04814239,0.026389418,0.029478753,0.56324035,0.7245927,0.75808394,-0.139495,-0.022160312,0.42826426,0.8394514,0.7506634,-0.27705118,0.06344125,-1.6802697,0.30629164,-0.14782669,-0.2098248,0.79140973,-0.9077633,-0.5118146,-0.37485677,0.5634338,-0.71728283,-0.14006421,0.35379654,-1.0828443,0.42474115
2025-07-21 13:16:58.053,1.0600000000000005,1060,53,-0.14379193,-0.06769656,0.05562152,0.019330256,0.0051111113,-0.03003133,0.0,0.0,0.0,-0.022460388,0.06886809,-0.16130477,0.041533936,-0.054326158,-0.069603235,-0.035400517,0.11813692,0.17365909,0.047884718,-0.03975294,0.05451526,0.05771434,0.0075424467,-0.00595628,0.05064555,0.016274756,-0.06971795,0.033420112,0.014043181,-0.086586006,-0.07322674,0.017673878,-0.102691956,0.033693753,-0.14782669,-0.2098248,0.79140973,-0.9077633,-0.5118146,-0.37485677,0.5634338,-0.71728283,-0.14006421,0.35379654,-1.0828443,0.42474115,0.6232381,0.11405361,0.47321606,-0.45794874,0.25500688,-0.5562389,0.8110325,0.22634754,0.5793162,-0.32061854,-0.51822275,0.7476588
2025-07-21 13:16:58.073,1.0800000000000005,1080,54,-0.05072832,-0.044778313,-0.16070826,-0.038456753,0.030275518,0.0028344423,0.0,0.0,0.0,-0.022873206,0.07500415,-0.14090763,0.0312457,-0.07090471,-0.05865688,-0.030209552,0.11792026,0.14087608,0.05205746,-0.05303253,0.023410648,0.07148952,0.024449976,0.14190404,-0.035445753,-0.05594309,0.009763972,-0.06017332,0.040827464,-0.06941825,0.026479747,-0.10320158,-0.09407102,0.043348946,0.6232381,0.11405361,0.47321606,-0.45794874,0.25500688,-0.5562389,0.8110325,0.22634754,0.5793162,-0.32061854,-0.51822275,0.7476588,-0.8128974,-1.6482241,0.2027134,-0.45377722,-0.26234284,0.07263422,0.96197885,0.27013478,0.830543,0.99057543,0.82285446,0.9101143
2025-07-21 13:16:58.098,1.1000000000000005,1100,55,-0.06505911,-0.0137501545,0.16776446,-0.028155694,0.06887681,-0.019295897,0.0,0.0,0.0,-0.021052927,0.06019175,-0.14138043,0.02740849,-0.057261482,-0.05842757,-0.038317543,0.12342157,0.13652585,0.07391276,-0.04327472,0.034943655,0.077521764,-0.12926704,-0.10957506,-0.014914176,0.0038894797,0.03504197,0.017728249,-0.051688775,0.008888879,0.0512059,0.021688825,0.06313107,0.08052285,-0.8128974,-1.6482241,0.2027134,-0.45377722,-0.26234284,0.07263422,0.96197885,0.27013478,0.830543,0.99057543,0.82285446,0.9101143,0.7220083,0.10054535,0.47891673,-0.3428809,-0.3156438,-0.43313852,0.17599922,0.22021586,-0.072220184,-0.71959907,-0.3403223,0.43466958
2025-07-21 13:16:58.116,1.1200000000000006,1120,56,-0.08238107,-0.008593405,-0.10149171,0.02048089,-0.0063063675,0.005930352,0.0,0.0,0.0,-0.021285772,0.08147021,-0.14062999,0.03246487,-0.0694422,-0.065582134,-0.034468222,0.105905965,0.121359535,0.051922556,-0.05787071,0.028081734,0.07805818,0.071417436,0.09629662,0.0206056,0.009575415,-0.094873585,0.059965603,-0.09725378,0.017597234,-0.04831389,-0.07671205,-0.04753798,0.044566453,0.7220083,0.10054535,0.47891673,-0.3428809,-0.3156438,-0.43313852,0.17599922,0.22021586,-0.072220184,-0.71959907,-0.3403223,0.43466958,-0.4478612,-0.95256793,0.37419614,-0.37359673,0.27748698,0.033409476,0.6569637,0.57285744,0.63314885,0.3081587,-0.40429193,0.5689408
2025-07-21 13:16:58.134,1.1400000000000006,1140,57,0.0006782264,-0.05525994,0.09139472,-0.023586908,0.013786022,0.017253257,0.0,0.0,0.0,-0.020905456,0.072129466,-0.15646555,0.028312052,-0.06566089,-0.050370656,-0.03571722,0.10314976,0.14420274,0.061044734,-0.038384564,0.0011044573,0.07935356,-0.10503295,-0.07085185,-0.0063986536,-0.05136617,0.1344455,-0.02266132,-0.049427852,0.041043367,0.01079329,0.04482116,-0.13793787,0.06634312,-0.4478612,-0.95256793,0.37419614,-0.37359673,0.27748698,0.033409476,0.6569637,0.57285744,0.63314885,0.3081587,-0.40429193,0.5689408,0.73409075,0.02291828,0.86560374,-0.3220993,-0.1340986,-0.9880434,0.6469823,0.7269927,0.45699272,-0.20623167,0.63614815,1.1052331
2025-07-21 13:16:58.154,1.1600000000000006,1160,58,0.19879071,0.10738205,0.048494473,-0.03818551,0.07777334,-0.037200455,0.0,0.0,0.0,-0.020568429,0.0738575,-0.16482241,0.04763711,-0.07224515,-0.053581018,-0.046855427,0.106948115,0.17625462,0.060046528,-0.05547475,0.015193509,0.08426399,0.0117910635,0.04058699,-0.048821695,-0.036920957,-0.056347545,-0.118510835,0.0067191813,-0.00444674,0.025017073,-0.057079572,0.17297274,0.003467036,0.73409075,0.02291828,0.86560374,-0.3220993,-0.1340986,-0.9880434,0.6469823,0.7269927,0.45699272,-0.20623167,0.63614815,1.1052331,-0.37038076,-0.09594512,0.9955175,-0.34846398,-0.28083825,0.85822165,0.5461548,0.77862716,-0.38203156,-0.09898615,-2.0,0.22441667
2025-07-21 13:16:58.173,1.1800000000000006,1180,59,0.032489922,0.14160171,-0.04374553,0.015392459,0.0465363,0.028068777,0.0,0.0,0.0,-0.020887082,0.08038779,-0.15121894,0.047698434,-0.059905976,-0.057499804,-0.03455466,0.09815552,0.20261961,0.04322307,-0.056136485,0.050398525,0.07029785,0.015808618,0.09631799,0.024415694,0.076791555,-0.027218826,0.09544142,-0.018033082,-0.0049762214,-0.019812364,0.029050076,-0.030295487,-0.01603595,-0.37038076,-0.09594512,0.9955175,-0.34846398,-0.28083825,0.85822165,0.5461548,0.77862716,-0.38203156,-0.09898615,-2.0,0.22441667,-0.10297625,-1.0186212,0.057688437,-0.5963914,-0.24982463,-0.33579093,1.1304318,-0.5188966,0.36161557,0.259228,-0.5881938,0.33760306
2025-07-21 13:16:58.199,1.2000000000000006,1200,60,-0.117788196,-0.23860961,0.058346838,0.055423766,0.0653235,-0.010254049,0.0,0.0,0.0,-0.020877369,0.06717782,-0.16721101,0.04947544,-0.06744288,-0.07445232,-0.036310505,0.120536126,0.1582876,0.05369689,-0.05536099,0.02672628,0.07985471,0.033317313,-0.14136165,0.010386268,-0.08372349,0.012568863,-0.03204747,-0.044932503,-0.20432585,0.019785237,-0.005937714,-0.11924618,0.04014854,-0.10297625,-1.0186212,0.057688437,-0.5963914,-0.24982463,-0.33579093,1.1304318,-0.5188966,0.36161557,0.259228,-0.5881938,0.33760306,0.260518,0.36992025,0.24498697,-0.2692491,0.16230442,-0.47826648,0.89750665,1.3639812,1.4954783,-0.31734517,0.48389414,1.4297545
2025-07-21 13:16:58.217,1.2200000000000006,1220,61,0.057271607,0.12909026,0.020047767,0.019921012,0.013575807,-0.033762142,0.0,0.0,0.0,-0.021472616,0.06009112,-0.16156885,0.04214878,-0.061549474,-0.044248138,-0.04358823,0.12322369,0.16338174,0.08573056,-0.05535982,0.034575876,0.09319604,0.0017536227,0.11001328,0.043987785,-0.00189009,0.09866866,-0.038633976,-0.019189823,0.15289113,0.14409168,-0.016996263,0.13371839,-0.010589848,0.260518,0.36992025,0.24498697,-0.2692491,0.16230442,-0.47826648,0.89750665,1.3639812,1.4954783,-0.31734517,0.48389414,1.4297545,-0.3155651,-0.37115955,0.6560908,-0.39077953,-1.065491,-0.21956456,0.14953735,-0.63107646,0.51100445,-0.3580033,-0.61300975,0.08213275
2025-07-21 13:16:58.234,1.2400000000000007,1240,62,-0.13268147,-0.05893725,-0.028172784,0.030702354,0.017548636,0.019798286,0.0,0.0,0.0,-0.021826595,0.056194168,-0.17011093,0.034700587,-0.07612646,-0.07153212,-0.028605046,0.11895849,0.14133677,0.08809713,-0.06366348,0.03177611,0.07511453,0.031675033,0.006214849,0.039424453,-0.0125804925,-0.042816103,-0.022151614,-0.04941142,-0.08303125,0.0001946562,0.040673368,-0.114012025,-0.015530147,-0.3155651,-0.37115955,0.6560908,-0.39077953,-1.065491,-0.21956456,0.14953735,-0.63107646,0.51100445,-0.3580033,-0.61300975,0.08213275,0.28377008,-0.31920004,0.12566401,-0.29169962,0.18180786,-0.6511413,0.43147397,0.35415795,1.0808367,0.12126312,0.52540267,0.8840967
2025-07-21 13:16:58.253,1.2600000000000007,1260,63,-0.0023112244,0.08343962,-0.009403361,-0.022205597,-0.0012776644,0.021051878,0.0,0.0,0.0,-0.021490067,0.067409575,-0.1512286,0.039857276,-0.06813324,-0.07759914,-0.047278356,0.10414219,0.12975302,0.09691256,-0.04863393,0.052313663,0.08254913,-0.010130915,0.03734874,-0.021741677,0.015332319,0.14248106,-0.032753997,-0.010847306,0.028375976,0.03208986,0.05907183,0.06854337,-0.051671024,0.28377008,-0.31920004,0.12566401,-0.29169962,0.18180786,-0.6511413,0.43147397,0.35415795,1.0808367,0.12126312,0.52540267,0.8840967,-0.16717367,-0.45940983,0.58554566,-0.24466875,-0.77145326,0.023321748,0.5318217,-0.13625392,0.22924536,-0.17804617,-0.22644778,-0.030136697
2025-07-21 13:16:58.274,1.2800000000000007,1280,64,-0.077849425,-0.15473168,-0.052757964,0.0049682995,-0.008675137,0.038742807,0.0,0.0,0.0,-0.020967862,0.06302426,-0.16280496,0.034707148,-0.07558354,-0.094610505,-0.035486303,0.11297411,0.09976098,0.08050684,-0.058471277,0.05117619,0.06609801,0.006243021,-0.019823316,-0.008156096,0.027220134,-0.023003362,-0.04892473,-0.05558165,-0.0012160378,0.050226588,0.04937355,-0.06316824,-0.072497256,-0.16717367,-0.45940983,0.58554566,-0.24466875,-0.77145326,0.023321748,0.5318217,-0.13625392,0.22924536,-0.17804617,-0.22644778,-0.030136697,0.045517135,-0.23325801,0.11155156,-0.19412471,0.16204955,-0.52963614,0.77005446,0.41060337,0.8748827,0.2853325,0.17526497,0.6847946
2025-07-21 13:16:58.299,1.3000000000000007,1300,65,0.108061455,0.07355784,0.021792822,0.049187776,0.050356228,-0.039244052,0.0,0.0,0.0,-0.020531768,0.06211171,-0.16544941,0.022959411,-0.06943879,-0.08353536,-0.047489576,0.11753965,0.11784336,0.087548934,-0.047117867,0.052009422,0.06791759,-0.06275982,-0.032621596,-0.05982639,0.031991262,0.13803825,0.051359873,-0.017496208,-0.029796293,0.028425127,0.050159454,-0.04393611,-0.026965255,0.045517135,-0.23325801,0.11155156,-0.19412471,0.16204955,-0.52963614,0.77005446,0.41060337,0.8748827,0.2853325,0.17526497,0.6847946,0.18145749,-0.14775479,0.6048877,-0.23562221,-0.36857736,-0.19349545,0.7703722,0.60468024,0.43919548,-0.058710992,0.23564956,0.43707967
2025-07-21 13:16:58.316,1.3200000000000007,1320,66,0.104338154,0.17626023,-0.020172028,0.048524585,0.058470525,-0.03456643,0.0,0.0,0.0,-0.020053102,0.06486808,-0.1519881,0.03498989,-0.058789693,-0.0815444,-0.04055843,0.1103499,0.12959218,0.09487181,-0.052471388,0.05595665,0.06544883,-0.06376346,0.08631226,-0.00027863876,-0.017714664,-0.03341154,0.06493938,-0.015550084,0.006790582,-0.019361574,0.058388244,-0.045876868,-0.053023435,0.18145749,-0.14775479,0.6048877,-0.23562221,-0.36857736,-0.19349545,0.7703722,0.60468024,0.43919548,-0.058710992,0.23564956,0.43707967,-0.023388144,-0.4627507,0.1622327,0.046284802,0.3745972,0.20048642,1.0331851,0.6613588,0.5382464,0.014556885,-0.08946094,0.16102588
2025-07-21 13:16:58.335,1.3400000000000007,1340,67,0.02251293,-0.020982288,-0.04455876,0.0051139523,0.03907917,0.00030807877,0.0,0.0,0.0,-0.019362677,0.058150362,-0.1481497,0.018231492,-0.040770616,-0.06083336,-0.027141744,0.1203908,0.16161859,0.08652808,-0.03971181,0.049708694,0.056057226,-0.029347323,-0.008608698,-0.042057954,0.0092848465,0.068347506,0.103425674,-0.037756193,0.06413218,0.06419384,-0.021852592,-0.058273345,-0.042488948,-0.023388144,-0.4627507,0.1622327,0.046284802,0.3745972,0.20048642,1.0331851,0.6613588,0.5382464,0.014556885,-0.08946094,0.16102588,-0.09581122,-0.47662365,0.6607174,-0.315474,0.1855991,-0.4224601,0.9313703,0.065898694,0.71136296,0.45000696,0.6332088,0.61760056
2025-07-21 13:16:58.354,1.3600000000000008,1360,68,-0.03194819,0.09035841,0.11491494,-0.008772897,0.03744714,-0.021922505,0.0,0.0,0.0,-0.01902775,0.053416643,-0.16015825,0.03638864,-0.051456943,-0.04009947,-0.03352643,0.121984415,0.14847122,0.09332012,-0.037626587,0.08610866,0.06698543,-0.08094581,-0.077499926,0.016966695,-0.07325396,0.05477327,0.010616301,-0.018229678,-0.08146566,0.072517276,0.10035928,0.11011575,-0.03436393,-0.09581122,-0.47662365,0.6607174,-0.315474,0.1855991,-0.4224601,0.9313703,0.065898694,0.71136296,0.45000696,0.6332088,0.61760056,0.100476414,0.40510073,0.66776985,-0.18558557,-0.34332603,0.34992814,0.5339769,1.0869112,0.19911632,-0.29591122,-1.4069681,0.046581276
2025-07-21 13:16:58.374,1.3800000000000008,1380,69,0.09676937,-0.0012878547,-0.15980391,-0.03591296,0.04488687,0.0024227754,0.0,0.0,0.0,-0.02069638,0.053127993,-0.14667061,0.04344265,-0.053959787,-0.04176439,-0.018253857,0.12524274,0.16978854,0.0764877,-0.04827957,0.0797055,0.049150348,-0.037379347,0.09567562,0.032548614,0.07660523,-0.081942864,-0.0075482195,-0.01565415,0.086450815,-0.069573395,-0.027923295,0.014987082,0.05464616,0.100476414,0.40510073,0.66776985,-0.18558557,-0.34332603,0.34992814,0.5339769,1.0869112,0.19911632,-0.29591122,-1.4069681,0.046581276,-0.53597385,-0.95326257,0.124810405,-0.61347246,0.042593874,-0.21621305,0.6536212,-0.41078958,0.26593867,0.92953825,-0.3904085,0.28308734
2025-07-21 13:16:58.399,1.4000000000000008,1400,70,-0.114376,-0.29841214,0.09012503,0.04355262,0.06767913,0.04284588,0.0,0.0,0.0,-0.019638026,0.044241298,-0.16000356,0.0312966,-0.06061275,-0.038872987,-0.03834407,0.12860817,0.16435438,0.07520309,-0.024789346,0.06444106,0.049378622,-0.056449067,-0.0122045,-0.073628195,-0.08164021,-0.044624433,-0.07305597,-0.026370691,-0.18697031,0.04652179,0.076925725,-0.061240762,0.043444328,-0.53597385,-0.95326257,0.124810405,-0.61347246,0.042593874,-0.21621305,0.6536212,-0.41078958,0.26593867,0.92953825,-0.3904085,0.28308734,0.53288823,-0.01520187,0.028014878,-0.26642418,-0.2184584,-0.018268138,0.83157396,0.91775984,0.7619346,-0.6088099,0.084557384,0.8749599
2025-07-21 13:16:58.415,1.4200000000000008,1420,71,0.09676062,0.047571935,-0.12916619,0.049371585,0.02690075,-0.025318006,0.0,0.0,0.0,-0.019426657,0.051787186,-0.15638067,0.026106691,-0.060321096,-0.04015703,-0.026269361,0.11666297,0.15910971,0.0861577,-0.036944717,0.050414063,0.06575249,-0.00525168,-0.0017718881,-0.02364285,0.05846613,-0.002291059,0.055501916,0.07306412,0.05447842,0.08695008,0.0045824773,-0.0819891,-0.02546748,0.53288823,-0.01520187,0.028014878,-0.26642418,-0.2184584,-0.018268138,0.83157396,0.91775984,0.7619346,-0.6088099,0.084557384,0.8749599,-0.5594633,-0.5774498,0.39601833,-0.3871324,0.06309645,-0.29761618,1.0642866,-0.095700644,1.2353493,0.87773114,1.0055238,1.2591168
2025-07-21 13:16:58.434,1.4400000000000008,1440,72,0.004478954,0.013280008,0.18453778,0.013864276,-0.005982292,0.036034834,0.0,0.0,0.0,-0.018533546,0.047164436,-0.15598357,0.028104223,-0.054504476,-0.023572436,-0.028779246,0.14234559,0.14674331,0.10881001,-0.03145706,0.07422117,0.08477082,0.00702645,-0.09883419,0.071069,0.053085655,0.041053478,-0.027641969,-0.03365845,-0.09461641,0.11826209,0.053258445,0.073374294,0.025144286,-0.5594633,-0.5774498,0.39601833,-0.3871324,0.06309645,-0.29761618,1.0642866,-0.095700644,1.2353493,0.87773114,1.0055238,1.2591168,0.46842623,0.37032908,0.5978514,-0.45294812,-0.36509803,-0.06799707,0.25657117,0.8263541,0.08869686,-0.64085686,-1.1079428,0.48754564
2025-07-21 13:16:58.454,1.4600000000000009,1460,73,0.022756744,0.11096946,-0.062185425,0.01597366,0.007917122,-0.039232038,0.0,0.0,0.0,-0.02051363,0.03956108,-0.13379756,0.026641266,-0.058835622,-0.044741537,-0.02212992,0.121085286,0.17033257,0.08244069,-0.027718201,0.09545091,0.075955346,-0.030372825,0.024560373,-0.012938025,0.014840721,-0.04430939,0.029622413,-0.010140832,0.08294617,-0.09665899,-0.09704093,-0.040021952,-0.05291103,0.46842623,0.37032908,0.5978514,-0.45294812,-0.36509803,-0.06799707,0.25657117,0.8263541,0.08869686,-0.64085686,-1.1079428,0.48754564,-0.4487278,-0.7241582,0.3209159,-0.5298015,0.14322919,-0.33745116,0.7613663,0.05729554,0.24866807,0.4366011,-0.4384806,0.49866685
2025-07-21 13:16:58.481,1.4800000000000009,1480,74,-0.11442684,-0.17506552,0.053700756,0.045900557,0.07713851,0.027272781,0.0,0.0,0.0,-0.020852275,0.046818547,-0.15080157,0.03266757,-0.065752156,-0.04071704,-0.028128091,0.12609075,0.14625193,0.08059196,-0.03162228,0.07674658,0.081275456,-0.036094565,-0.042091288,0.02505967,0.03886668,0.007590729,-0.09220315,0.001908099,-0.13480814,0.03882668,0.07055421,-0.08922175,-0.029419351,-0.4487278,-0.7241582,0.3209159,-0.5298015,0.14322919,-0.33745116,0.7613663,0.05729554,0.24866807,0.4366011,-0.4384806,0.49866685,0.5135034,-0.17236382,0.36635515,-0.2519394,0.018572042,-0.33728868,0.72293836,1.2974243,0.7051125,-0.28844124,0.06500438,0.7642902
2025-07-21 13:16:58.499,1.5000000000000009,1500,75,0.0681492,0.054366525,-0.071670815,0.032322686,-0.013791668,0.026036184,0.0,0.0,0.0,-0.021285372,0.041812886,-0.14268354,0.01440355,-0.07161255,-0.034458578,-0.028160753,0.12753251,0.19193618,0.07868499,-0.03407559,0.05425776,0.08735665,0.09193474,-0.0088067185,0.011794007,0.020476975,0.08790846,-0.05744901,0.03963392,0.22624597,0.072323486,0.04133672,-0.0482921,-0.01469625,0.5135034,-0.17236382,0.36635515,-0.2519394,0.018572042,-0.33728868,0.72293836,1.2974243,0.7051125,-0.28844124,0.06500438,0.7642902,-0.32630646,-0.70544004,0.79946846,-0.5266086,-0.43661743,-0.81318086,0.5762066,-0.5601979,0.59242064,0.054037333,0.28188887,1.1003432
2025-07-21 13:16:58.516,1.520000000000001,1520,76,-0.16483745,0.031312235,0.15659283,-0.03194286,-0.017639259,-0.03746069,0.0,0.0,0.0,-0.020723218,0.050345495,-0.15472059,0.04104164,-0.06787648,-0.056249633,-0.050980322,0.11117816,0.1906759,0.091811106,-0.030194309,0.07071211,0.091447815,-0.01641235,0.0067264973,-0.004500958,-0.0625211,-2.9769924e-05,-0.101255305,-0.06540226,-0.170888,0.026815768,-0.054182947,-0.054758813,-0.037829652,-0.32630646,-0.70544004,0.79946846,-0.5266086,-0.43661743,-0.81318086,0.5762066,-0.5601979,0.59242064,0.054037333,0.28188887,1.1003432,0.6964063,-0.050069276,0.6697624,-0.050082795,0.043288834,-0.03642139,0.029867044,0.9735294,0.45498648,-0.78589004,-0.812895,0.550834
2025-07-21 13:16:58.535,1.540000000000001,1540,77,0.06722064,0.07213552,-0.1941251,0.020579075,-0.002202668,0.0019876624,0.0,0.0,0.0,-0.02129891,0.047048993,-0.1411723,0.048326805,-0.04935885,-0.03949507,-0.04025836,0.09037903,0.18956576,0.07942949,-0.053053614,0.05967191,0.0975573,0.05238907,0.10096288,-0.005624896,0.075066544,0.062155813,0.018147044,0.018696966,0.11013928,-0.046802916,-0.035114553,-0.0026498477,-0.062302295,0.6964063,-0.050069276,0.6697624,-0.050082795,0.043288834,-0.03642139,0.029867044,0.9735294,0.45498648,-0.78589004,-0.812895,0.550834,-0.7920372,-1.2455114,0.07645466,-0.28438136,-0.19567224,-0.11481488,0.95356625,-0.42825666,0.45485947,0.49823606,0.22192597,0.09223629
2025-07-21 13:16:58.554,1.560000000000001,1560,78,0.039838526,-0.008326188,0.084577546,-0.023866916,-0.007950869,0.044526093,0.0,0.0,0.0,-0.019869113,0.045612488,-0.15333496,0.03899985,-0.05181116,-0.0492075,-0.035605952,0.105238914,0.15958315,0.080343135,-0.03726427,0.05496685,0.06753922,-0.062020514,-0.09050444,-0.06256231,0.0034527315,0.03766363,-0.016766101,0.019885242,-0.102020055,0.03959065,-0.029781464,-0.028577646,-0.019648904,-0.7920372,-1.2455114,0.07645466,-0.28438136,-0.19567224,-0.11481488,0.95356625,-0.42825666,0.45485947,0.49823606,0.22192597,0.09223629,0.54827976,-0.12052244,0.24079272,0.053023793,0.3366084,-0.069396526,0.6052235,0.75587696,0.34090596,-0.15861227,0.1370162,0.3452618
2025-07-21 13:16:58.576,1.580000000000001,1580,79,0.089028075,0.07052735,-0.11108192,0.033876173,0.04820104,-0.0112436665,0.0,0.0,0.0,-0.020182999,0.04902129,-0.1560518,0.035850346,-0.05251059,-0.027549319,-0.04695985,0.09986517,0.16256581,0.07812993,-0.04005897,0.06835926,0.0616078,0.0989697,-0.005022249,5.001359e-05,0.05457089,0.1334297,-0.037636507,0.066085845,0.024688225,-0.0046405783,0.03598051,0.027429745,-0.03432359,0.54827976,-0.12052244,0.24079272,0.053023793,0.3366084,-0.069396526,0.6052235,0.75587696,0.34090596,-0.15861227,0.1370162,0.3452618,-0.5728691,-0.6237378,0.62095237,-0.30968124,-0.6027835,-0.14043492,1.051649,0.005695261,0.21710196,0.38507834,0.3088548,0.038177975
2025-07-21 13:16:58.599,1.600000000000001,1600,80,-0.1767603,-0.0025771616,0.11284925,0.0010207974,0.06691912,0.0036259284,0.0,0.0,0.0,-0.019900823,0.045788046,-0.17183827,0.039465234,-0.04350518,-0.055541366,-0.03092819,0.11437933,0.15238877,0.07516487,-0.022553315,0.080651954,0.06201865,-0.046718117,0.011522927,0.02961815,-0.017819181,-0.058992438,-0.0673522,0.056396894,-0.10835061,-0.04713663,0.07079396,-0.00024303481,-0.040099703,-0.5728691,-0.6237378,0.62095237,-0.30968124,-0.6027835,-0.14043492,1.051649,0.005695261,0.21710196,0.38507834,0.3088548,0.038177975,0.7138527,0.24976152,0.41776147,-0.03163349,0.3597108,-0.03792125,0.850224,1.2197425,-0.010194339,-0.32091498,-0.8922893,0.34826383
2025-07-21 13:16:58.618,1.620000000000001,1620,81,0.10500049,-0.0030826014,-0.11027844,0.00067304284,0.0130777825,-0.0490846,0.0,0.0,0.0,-0.021378087,0.054983556,-0.16583863,0.023673577,-0.038537562,-0.05115484,-0.027930895,0.11917477,0.18762043,0.060126655,-0.03590173,0.071568124,0.0654273,0.03590173,0.06373522,-0.0025693313,0.07514856,0.0735874,-0.03912971,0.01683847,0.08833266,-0.08038386,0.0450694,-0.0642807,0.020457923,0.7138527,0.24976152,0.41776147,-0.03163349,0.3597108,-0.03792125,0.850224,1.2197425,-0.010194339,-0.32091498,-0.8922893,0.34826383,-0.40427783,-1.0469738,0.41724417,-0.55262405,-0.16071053,-0.60162336,0.71093017,0.091780074,0.22582823,0.39303365,0.22776051,0.81827277
2025-07-21 13:16:58.636,1.640000000000001,1640,82,-0.120770834,-0.07194355,0.14155798,-0.038823545,0.056520052,-0.012122806,0.0,0.0,0.0,-0.02122417,0.04495334,-0.16744898,0.03313552,-0.052094597,-0.049017485,-0.046944976,0.11483436,0.18068911,0.047207784,-0.024952155,0.06095218,0.06510074,-0.11783661,-0.096004,0.030149225,-0.0023315966,-0.08481131,-0.02450541,0.06293815,-0.060420938,0.038636386,0.07839128,0.052447665,0.0589513,-0.40427783,-1.0469738,0.41724417,-0.55262405,-0.16071053,-0.60162336,0.71093017,0.091780074,0.22582823,0.39303365,0.22776051,0.81827277,0.657286,0.4364208,0.6720083,-0.24216785,0.42639193,-0.38053542,0.5878294,0.9030912,0.22925702,-0.49866965,-1.282034,0.79188156
2025-07-21 13:16:58.655,1.660000000000001,1660,83,-0.03358951,-0.061823677,-0.138488,-0.037997976,0.027475562,0.015242897,0.0,0.0,0.0,-0.022454252,0.056803048,-0.15289739,0.04667851,-0.05488794,-0.004300933,-0.054293673,0.11323427,0.20233831,0.045465205,-0.034555003,0.03607766,0.071629085,0.060633432,0.03181143,0.021363381,0.020285923,0.021499407,-0.007996457,-0.05530565,0.12748384,-0.06569089,-0.028597621,-0.047068577,0.007379027,0.657286,0.4364208,0.6720083,-0.24216785,0.42639193,-0.38053542,0.5878294,0.9030912,0.22925702,-0.49866965,-1.282034,0.79188156,-0.44721597,-1.0875084,0.48107848,-0.8061137,-0.30730125,-0.4751346,0.6013274,-0.007837735,0.46698463,0.76461625,0.27098286,0.646858
2025-07-21 13:16:58.676,1.680000000000001,1680,84,-0.16436905,-0.1391862,0.0927255,-0.00042027447,0.0037043302,0.024470814,0.0,0.0,0.0,-0.021896627,0.048373755,-0.1835887,0.046491396,-0.06136661,-0.012764878,-0.049220286,0.105530635,0.18604837,0.055931907,-0.03153032,0.04575119,0.06852137,0.0049454276,-0.050944515,0.032578547,-0.059269957,-0.02163096,-0.011991818,-0.07337712,-0.14813016,-0.010945922,0.08007271,-0.010981635,-0.03774328,-0.44721597,-1.0875084,0.48107848,-0.8061137,-0.30730125,-0.4751346,0.6013274,-0.007837735,0.46698463,0.76461625,0.27098286,0.646858,0.3783566,0.013779875,0.3130557,-0.23047556,-0.11140966,-0.25884247,0.4928694,0.92182887,0.730256,-0.6879842,-0.42161676,0.39422208
2025-07-21 13:16:58.698,1.700000000000001,1700,85,0.019027984,0.074162416,-0.11417598,-0.037900463,-0.0086565865,0.044941045,0.0,0.0,0.0,-0.022654025,0.052591342,-0.16887957,0.024240378,-0.07203445,-0.036604878,-0.048629798,0.11741833,0.20692004,0.07248078,-0.03163988,0.039216526,0.06092165,0.0017932561,0.12241649,-0.07209793,-0.042399492,-0.0030214319,0.041812085,-0.073630914,0.06684842,0.04755762,0.015755167,-0.022622233,-0.059452135,0.3783566,0.013779875,0.3130557,-0.23047556,-0.11140966,-0.25884247,0.4928694,0.92182887,0.730256,-0.6879842,-0.42161676,0.39422208,-0.5249139,-1.0701207,0.21121927,-0.23602559,0.09733792,0.059739888,0.8282096,-0.22068784,0.9262207,0.56846416,0.40692964,0.12817919
2025-07-21 13:16:58.716,1.720000000000001,1720,86,0.057481043,0.08120295,0.24800394,-0.021953292,0.014801389,-0.0069467756,0.0,0.0,0.0,-0.022380343,0.045461755,-0.18549351,0.02596262,-0.0687166,-0.030762246,-0.05194633,0.106082655,0.17800096,0.071389735,-0.01738675,0.04860357,0.053040292,-0.08530918,-0.11892519,-0.066506684,-0.016282443,0.060073685,0.0037285844,-0.057378203,-0.19788635,-0.036655594,0.11033549,-0.012666565,-0.08427351,-0.5249139,-1.0701207,0.21121927,-0.23602559,0.09733792,0.059739888,0.8282096,-0.22068784,0.9262207,0.56846416,0.40692964,0.12817919,1.0197239,0.6028757,0.49176458,0.082669355,0.17757149,-0.12875982,0.49906582,1.249342,0.33678046,-0.865899,-0.21642299,0.37102422
2025-07-21 13:16:58.735,1.740000000000001,1740,87,0.1544297,0.036357086,-0.17790402,0.05115592,-0.0027515425,-0.018806197,0.0,0.0,0.0,-0.024406055,0.07279336,-0.17486419,0.029282494,-0.054255925,-0.0059494893,-0.05382566,0.11389975,0.20034695,0.06329569,-0.033411585,0.040472213,0.046100058,-0.0020426547,0.07257333,-0.013550666,0.08419795,0.009769551,-0.043418806,0.017584134,0.13782695,0.013196653,-0.068533584,-0.11606524,0.03573716,1.0197239,0.6028757,0.49176458,0.082669355,0.17757149,-0.12875982,0.49906582,1.249342,0.33678046,-0.865899,-0.21642299,0.37102422,-0.38145378,-1.0187056,0.34371457,-0.5527821,-0.00207158,-0.6123956,0.8266074,-0.11959722,0.4936261,0.2093783,0.6811075,1.1503487
2025-07-21 13:16:58.755,1.7600000000000011,1760,88,-0.040399775,0.009437826,0.17319189,-0.025591237,0.0030272447,-0.0026686385,0.0,0.0,0.0,-0.023984723,0.061134614,-0.18674332,0.029116932,-0.050960824,0.0037932342,-0.059778206,0.11546269,0.18031655,0.079113916,-0.03852951,0.050855678,0.067042895,-0.120685115,-0.050678235,-0.014319586,-0.07262777,0.02725231,-0.011423503,0.021799367,-0.16926353,-0.028932799,0.0757147,0.14493936,-0.036538173,-0.38145378,-1.0187056,0.34371457,-0.5527821,-0.00207158,-0.6123956,0.8266074,-0.11959722,0.4936261,0.2093783,0.6811075,1.1503487,0.32423317,0.162848,0.6241182,-0.11600048,-0.24180438,0.049135923,0.4032722,1.1426692,-0.018396653,-0.62094367,-1.552587,0.3610484
2025-07-21 13:16:58.779,1.7800000000000011,1780,89,-0.039485738,0.06434711,-0.11972605,0.019961074,0.08051059,-0.009617997,0.0,0.0,0.0,-0.024713347,0.06190698,-0.18551089,0.04563846,-0.05727192,-0.0312386,-0.033876184,0.10905193,0.21099651,0.05887962,-0.052978724,0.06966646,0.06232918,0.08319984,0.030197902,0.07217151,0.071590014,-0.033662125,-0.033560906,0.05216256,0.07481633,-0.05607948,-0.10496433,-0.012716463,0.055257015,0.32423317,0.162848,0.6241182,-0.11600048,-0.24180438,0.049135923,0.4032722,1.1426692,-0.018396653,-0.62094367,-1.552587,0.3610484,-0.24509718,-0.6159037,0.18512708,-0.9181032,-0.022870665,-0.534119,0.56000084,-0.31757098,0.2745813,0.7198285,-0.36731288,0.7370249
2025-07-21 13:16:58.799,1.8000000000000012,1800,90,-0.080533825,-0.19984823,0.023665622,0.014200356,0.077088654,-0.007912317,0.0,0.0,0.0,-0.024138298,0.053024974,-0.18283504,0.038926795,-0.057837795,-0.027184475,-0.05774526,0.099022105,0.18850125,0.057814434,-0.055092115,0.043833762,0.07237373,-0.04994681,0.0154364435,0.018828865,-0.04912005,0.058039207,-0.0046193516,-0.003101579,-0.1433145,0.020487739,0.10041491,-0.15289997,-0.050221458,-0.24509718,-0.6159037,0.18512708,-0.9181032,-0.022870665,-0.534119,0.56000084,-0.31757098,0.2745813,0.7198285,-0.36731288,0.7370249,0.35943475,-0.40445238,0.2982531,-0.32087687,-0.6993249,-0.30285144,0.79826796,0.5487326,0.64486784,-0.018605411,0.8200472,0.98239416
2025-07-21 13:16:58.819,1.8200000000000012,1820,91,0.11118572,0.033184085,0.05758801,0.020286303,0.045366373,0.0003633348,0.0,0.0,0.0,-0.02408178,0.0630797,-0.18862194,0.018901104,-0.060005665,-0.04870104,-0.043091908,0.10642998,0.1716769,0.07151712,-0.036100682,0.05743116,0.069879614,-0.04713184,-0.036509518,0.0058198646,0.050377645,-0.07948474,0.028243862,0.042484626,0.06907618,-0.047809467,-0.004910699,0.12869023,0.042219095,0.35943475,-0.40445238,0.2982531,-0.32087687,-0.6993249,-0.30285144,0.79826796,0.5487326,0.64486784,-0.018605411,0.8200472,0.98239416,-0.09452541,0.35844663,0.81170475,-0.37685844,-0.47315747,0.12261313,0.7393562,0.073291846,0.11421978,0.009837121,-1.3597039,0.46176636
2025-07-21 13:16:58.836,1.8400000000000012,1840,92,-0.054743465,0.062004454,0.015906526,-0.024223048,0.047741193,0.045980938,0.0,0.0,0.0,-0.024136292,0.06949329,-0.18386781,0.037674725,-0.061335295,-0.076269984,-0.043802634,0.106365226,0.16393736,0.054423813,-0.038166467,0.07195855,0.08551174,0.04173418,0.046720877,0.028944435,0.02946119,-0.0847908,0.07179248,-0.007940802,-0.031812735,0.00015270508,0.059347857,-0.030064248,-0.026557237,-0.09452541,0.35844663,0.81170475,-0.37685844,-0.47315747,0.12261313,0.7393562,0.073291846,0.11421978,0.009837121,-1.3597039,0.46176636,0.37745178,-0.20082599,0.36835876,-0.72210395,0.0640002,-0.21809462,1.0376836,0.24396196,0.49225864,-0.06298447,-0.93811315,0.25702614
2025-07-21 13:16:58.855,1.8600000000000012,1860,93,0.049413253,-0.11666447,-0.091155276,0.009396417,0.06718501,0.037441365,0.0,0.0,0.0,-0.023879694,0.058950715,-0.17991175,0.019493798,-0.07690782,-0.06843959,-0.031063879,0.115822695,0.14414065,0.055822983,-0.05828867,0.054566212,0.077793874,0.062686875,-0.04006442,-0.037112813,-0.08209306,0.008129459,0.02703442,0.07683466,-0.072987385,-0.039077215,-0.03588085,-0.07540458,-0.078293376,0.37745178,-0.20082599,0.36835876,-0.72210395,0.0640002,-0.21809462,1.0376836,0.24396196,0.49225864,-0.06298447,-0.93811315,0.25702614,-0.5880787,-0.4700327,0.31400397,-0.31401107,-0.3104179,0.22444987,1.0067565,0.13563493,1.1510708,0.7630321,0.5318575,0.6148617
2025-07-21 13:16:58.881,1.8800000000000012,1880,94,-0.10648456,0.04916781,0.16270815,0.03035161,0.030857885,-0.028373728,0.0,0.0,0.0,-0.023027815,0.060964335,-0.17256166,0.013233846,-0.07213646,-0.080129206,-0.03344683,0.12981868,0.13314909,0.08740805,-0.04052154,0.074505955,0.06723574,-0.068984434,-0.029711852,0.037492298,-0.08300204,0.04543218,-0.026690206,0.0061749644,-0.056509957,0.021649543,0.09686376,0.07340624,-0.06036726,-0.5880787,-0.4700327,0.31400397,-0.31401107,-0.3104179,0.22444987,1.0067565,0.13563493,1.1510708,0.7630321,0.5318575,0.6148617,0.5157507,0.4609372,0.33547744,-0.10095405,-0.27700195,-0.0024747252,0.400088,0.508822,0.20407799,-0.591056,-0.50171477,0.13735229
2025-07-21 13:16:58.898,1.9000000000000012,1900,95,0.02123976,-0.029370217,-0.12103411,0.006527752,0.036788426,-0.012905274,0.0,0.0,0.0,-0.024716422,0.07353633,-0.16112803,0.0128990915,-0.07174474,-0.071141206,-0.020201271,0.11351939,0.14347187,0.07038648,-0.03745836,0.071341366,0.062284708,0.030639958,0.14902656,-0.00786522,-0.021418808,0.032204363,-0.035927486,0.030328035,0.05622535,-0.029301787,-0.09454142,-0.016083496,-0.006893522,0.5157507,0.4609372,0.33547744,-0.10095405,-0.27700195,-0.0024747252,0.400088,0.508822,0.20407799,-0.591056,-0.50171477,0.13735229,-0.43103322,-1.0058166,0.021098489,-0.31957513,-0.17108212,-0.17610538,0.7146773,-0.38825586,0.3096746,0.04663104,0.06145383,-0.025867365
2025-07-21 13:16:58.916,1.9200000000000013,1920,96,-0.085298195,-0.048638035,0.11897957,-0.031633608,0.036198407,-0.02960577,0.0,0.0,0.0,-0.024158688,0.06334166,-0.16016844,0.008075061,-0.08000365,-0.07608846,-0.02197477,0.11883045,0.10470356,0.064248875,-0.044853225,0.0609954,0.056018084,0.013500556,-0.05747033,0.012892865,-0.046561047,-0.056564372,-0.062037054,0.0030689843,-0.17234837,0.031951357,0.0033855254,0.03521597,0.032116894,-0.43103322,-1.0058166,0.021098489,-0.31957513,-0.17108212,-0.17610538,0.7146773,-0.38825586,0.3096746,0.04663104,0.06145383,-0.025867365,0.7063509,0.048619624,0.12116841,0.22551872,0.7010772,0.09516755,0.5778498,1.9796264,0.7065603,-0.4813701,-0.7059467,0.40667033
2025-07-21 13:16:58.937,1.9400000000000013,1940,97,0.19622697,0.072052136,-0.1596737,-0.005646092,0.004713881,-0.034577068,0.0,0.0,0.0,-0.024474727,0.07091727,-0.15799554,0.008290373,-0.0635138,-0.056341678,-0.029703867,0.12867367,0.11105177,0.06996504,-0.056458533,0.039646655,0.048528362,0.015277136,0.056074377,0.05028818,-0.023382638,0.118971355,0.03510859,-0.027797779,0.074149124,0.025868382,0.010830335,-0.13770306,-0.026417045,0.7063509,0.048619624,0.12116841,0.22551872,0.7010772,0.09516755,0.5778498,1.9796264,0.7065603,-0.4813701,-0.7059467,0.40667033,-0.1637998,-1.4142787,0.56155807,-0.06652721,0.12540145,-0.3960874,0.96748793,0.3817274,0.24292025,-0.1124807,1.2898884,0.9966775
2025-07-21 13:16:58.956,1.9600000000000013,1960,98,-0.04845954,0.12726985,0.074455455,-0.0114833405,0.024607087,0.035825543,0.0,0.0,0.0,-0.02260852,0.067233264,-0.16805476,0.021161174,-0.05975578,-0.040854424,-0.03469618,0.11982605,0.124147184,0.06535618,-0.041013204,0.052606095,0.061225057,-0.04158065,-0.06110537,-0.042378258,-0.008930366,0.08084861,-0.07543958,0.01524553,0.038768917,-0.026847953,-0.024575721,0.15049908,0.08746018,-0.1637998,-1.4142787,0.56155807,-0.06652721,0.12540145,-0.3960874,0.96748793,0.3817274,0.24292025,-0.1124807,1.2898884,0.9966775,-0.0606337,0.079918414,0.7737577,-0.37958446,-0.679511,0.01597786,0.73255056,0.5416661,-0.19756666,-0.11802822,-1.3116033,0.41768992
2025-07-21 13:16:58.981,1.9800000000000013,1980,99,-0.043649133,-0.023524927,-0.0725538,0.019237168,0.05942787,0.0032761586,0.0,0.0,0.0,-0.022621244,0.06694132,-0.16918142,0.027325682,-0.060694743,-0.07923512,-0.035219632,0.11714386,0.14373954,0.039737977,-0.04620107,0.07484842,0.069212735,-0.074601196,-0.020491164,0.032094143,-0.0026466893,-0.09211131,-0.041888855,-0.06280362,0.08499819,0.01689367,0.031961594,-0.076183505,0.074472554,-0.0606337,0.079918414,0.7737577,-0.37958446,-0.679511,0.01597786,0.73255056,0.5416661,-0.19756666,-0.11802822,-1.3116033,0.41768992,0.1408468,-0.1786558,0.18169403,-0.7735566,0.31770158,-0.8422991,0.6064609,0.080264725,0.57207626,0.47060537,0.045025837,1.1571337
2025-07-21 13:16:59.006,2.0000000000000013,2000,100,0.07787327,0.024989028,0.08560066,0.04738571,-0.0072676525,0.038724564,0.0,0.0,0.0,-0.022793101,0.0592752,-0.15315567,0.02685528,-0.0669175,-0.05695561,-0.05472193,0.12890568,0.12137014,0.04860121,-0.041369136,0.05456165,0.07658378,0.032289132,-0.00542442,-0.030182939,0.022315716,0.10797125,-0.088356175,0.028107164,-0.048215803,0.060975038,-0.009286864,-0.0018237,0.09191232,0.1408468,-0.1786558,0.18169403,-0.7735566,0.31770158,-0.8422991,0.6064609,0.080264725,0.57207626,0.47060537,0.045025837,1.1571337,0.069699466,-0.38953447,0.6878854,-0.53067464,-0.67078507,-0.29062492,0.4196316,0.9060324,0.24446481,-0.34088027,-1.0723841,0.58606184
2025-07-21 13:16:59.018,2.0200000000000014,2020,101,-0.08761738,-0.079019524,-0.11123642,0.045518596,0.064079076,-0.025084168,0.0,0.0,0.0,-0.023461929,0.055693373,-0.15425187,0.037753403,-0.07760531,-0.08119528,-0.05127444,0.11787844,0.14785291,0.050147258,-0.054698575,0.030908644,0.09560219,-0.045683287,-0.04931831,0.038369454,-0.018033111,-0.124025665,-0.07511309,0.04854181,0.085979715,-0.0073587536,0.018091701,-0.096141495,-0.027439807,0.069699466,-0.38953447,0.6878854,-0.53067464,-0.67078507,-0.29062492,0.4196316,0.9060324,0.24446481,-0.34088027,-1.0723841,0.58606184,0.09061037,-0.1665731,-0.071087144,-0.35322836,0.63336456,-0.63088906,0.5395561,-0.14066789,0.8523473,0.30138814,0.7086196,1.3144518
2025-07-21 13:16:59.039,2.0400000000000014,2040,102,-0.010436387,0.02597419,0.10218527,0.055377126,0.022847116,0.042315513,0.0,0.0,0.0,-0.022758625,0.0682871,-0.13892826,0.00910387,-0.06468335,-0.05853159,-0.059263777,0.10809713,0.14287357,0.059869673,-0.04017587,0.059806097,0.09171983,0.0403992,0.05030394,0.03429511,0.04975254,0.13916965,0.02323377,-0.0120071005,-0.033885267,0.0068767206,0.09991616,0.057945985,0.004035055,0.09061037,-0.1665731,-0.071087144,-0.35322836,0.63336456,-0.63088906,0.5395561,-0.14066789,0.8523473,0.30138814,0.7086196,1.3144518,0.19126344,-0.50108975,0.5741236,-0.49694714,-0.6825067,-0.35022426,0.17461029,0.58048296,0.15245381,-0.56337553,-0.81217545,0.30279806
2025-07-21 13:16:59.060,2.0600000000000014,2060,103,-0.18355614,-0.08743919,-0.044454105,0.03874527,0.06849383,-0.03722865,0.0,0.0,0.0,-0.023638304,0.060851373,-0.15092638,0.029847458,-0.075455554,-0.0630142,-0.061314583,0.08945646,0.15583162,0.05138856,-0.05116691,0.061589025,0.08829272,-0.01178538,-0.015256588,-0.046436172,-0.07489862,-0.15753078,-0.05467254,-0.07224061,0.07177627,-0.082323864,0.032460168,0.005392945,-0.06908284,0.19126344,-0.50108975,0.5741236,-0.49694714,-0.6825067,-0.35022426,0.17461029,0.58048296,0.15245381,-0.56337553,-0.81217545,0.30279806,0.15072054,-0.14871806,0.21103403,-0.30572164,0.6358026,-0.26965052,0.7163669,0.11482308,0.26990142,0.0781554,-0.40341803,0.8128522
2025-07-21 13:16:59.082,2.0800000000000014,2080,104,-0.008770812,-0.08287979,-0.025987726,0.020450404,0.015029238,-0.032338943,0.0,0.0,0.0,-0.023400735,0.06814739,-0.14587766,0.019026544,-0.06343838,-0.050362557,-0.06181626,0.09033369,0.14175119,0.06336397,-0.05936226,0.033196554,0.096725754,0.019759424,-0.051802512,-0.05356562,-0.0019909188,-0.008467015,-0.05075021,-0.023729848,-0.049638856,-0.0072632134,-0.009685035,-0.05259166,0.02188975,0.15072054,-0.14871806,0.21103403,-0.30572164,0.6358026,-0.26965052,0.7163669,0.11482308,0.26990142,0.0781554,-0.40341803,0.8128522,0.057317708,-0.19196874,0.5907444,-0.43437424,0.28203723,-0.27102548,0.99080384,0.83605516,0.42492834,0.475819,-0.14266711,0.7542309
2025-07-21 13:16:59.100,2.1000000000000014,2100,105,0.036185816,-0.029574651,-0.038655017,0.031509515,-0.013767623,0.01877907,0.0,0.0,0.0,-0.022229413,0.06576314,-0.14117947,0.017006382,-0.07575957,-0.024604585,-0.056587946,0.11662278,0.1609777,0.05308562,-0.047401085,0.024995133,0.10602935,0.046973333,-0.022743119,0.04263555,0.03214552,0.045531496,0.056961715,0.073816925,0.11373713,-0.028700113,-0.03070001,0.031993583,0.029805947,0.057317708,-0.19196874,0.5907444,-0.43437424,0.28203723,-0.27102548,0.99080384,0.83605516,0.42492834,0.475819,-0.14266711,0.7542309,-0.49321252,-0.47016224,0.74488795,-0.35325268,-0.24174567,-0.2870236,0.6691,-0.09149117,0.282525,0.21636647,-0.3100935,0.30425632
2025-07-21 13:16:59.120,2.1200000000000014,2120,106,-0.14981644,-0.10896624,-0.04091122,-0.00036447836,-0.024457803,-0.006270351,0.0,0.0,0.0,-0.021612402,0.06142907,-0.153482,0.024019834,-0.08132071,-0.046652414,-0.056705285,0.11886407,0.1315434,0.05030075,-0.03865814,0.003647733,0.09669916,0.0021853237,-0.09977716,-0.056450985,-0.07684832,-0.06225781,0.04392169,0.05652157,-0.16045627,-0.035917737,0.04746976,-0.08605507,0.023270417,-0.49321252,-0.47016224,0.74488795,-0.35325268,-0.24174567,-0.2870236,0.6691,-0.09149117,0.282525,0.21636647,-0.3100935,0.30425632,0.15813425,-0.07545906,0.14020225,-0.12164857,0.33099192,0.37518847,0.7451187,0.8261312,1.2476139,0.294574,0.5975858,0.5534561
2025-07-21 13:16:59.138,2.1400000000000015,2140,107,0.18131958,0.19131662,0.061286286,-0.033518173,0.06855549,-0.007811201,0.0,0.0,0.0,-0.02166802,0.0568273,-0.14069287,0.016220482,-0.0698774,-0.032525208,-0.05038798,0.10959006,0.15188564,0.07737185,-0.035846915,0.04059283,0.0887998,-0.037843704,0.0011990275,-0.078401975,0.034952857,0.10019349,0.05439568,0.05805836,0.118073165,-0.01240413,0.027259596,0.09852193,-0.05350546,0.15813425,-0.07545906,0.14020225,-0.12164857,0.33099192,0.37518847,0.7451187,0.8261312,1.2476139,0.294574,0.5975858,0.5534561,-0.2962762,-0.101486206,0.8421342,-0.12795351,-1.1317334,0.17322457,0.6502045,-0.7412808,0.49930766,-0.28174716,-0.09412667,-0.50089264
2025-07-21 13:16:59.164,2.1600000000000015,2160,108,-0.043410864,0.020972287,-0.06324638,-0.032859802,0.035690404,-0.03812348,0.0,0.0,0.0,-0.022462834,0.06357028,-0.11901774,0.02744226,-0.065014176,-0.05711214,-0.03241471,0.10733822,0.12781009,0.07786407,-0.04447648,0.0436009,0.05739741,-0.035142172,0.025336022,0.0723998,-0.055990696,-0.13668856,0.010608353,-0.04080294,-0.19918235,-0.055616885,-0.0328592,-0.04725387,-0.07589058,-0.2962762,-0.101486206,0.8421342,-0.12795351,-1.1317334,0.17322457,0.6502045,-0.7412808,0.49930766,-0.28174716,-0.09412667,-0.50089264,0.19257845,-0.5061902,-0.3084453,0.23025577,0.31636,0.50923824,0.79628116,0.8596114,0.74335146,-0.0985246,0.48937592,-0.011792086
2025-07-21 13:16:59.182,2.1800000000000015,2180,109,0.163303,0.20672356,0.039981022,0.032742217,0.06136665,0.021494752,0.0,0.0,0.0,-0.022994941,0.057280425,-0.13221686,0.012339447,-0.04808591,-0.05942247,-0.025509497,0.11446922,0.12609698,0.07985671,-0.031087218,0.06634381,0.0431491,-0.015440123,-0.02969608,-0.011431264,0.063346766,0.051727876,-0.04045979,0.047714416,0.1549951,-0.04890192,0.056119647,0.107359216,0.0036240106,0.19257845,-0.5061902,-0.3084453,0.23025577,0.31636,0.50923824,0.79628116,0.8596114,0.74335146,-0.0985246,0.48937592,-0.011792086,0.011442039,0.25290343,0.6560205,-0.21774627,-0.46069032,-0.041534066,0.57137597,-0.9562314,0.49724165,-0.16197124,-0.44203937,-0.29440337
2025-07-21 13:16:59.200,2.2000000000000015,2200,110,-0.12773003,-0.11803956,-0.066995755,0.026773412,0.048571065,-0.01343353,0.0,0.0,0.0,-0.023187738,0.044349488,-0.12761392,0.020975683,-0.047738027,-0.05888098,-0.015551473,0.12174492,0.12469979,0.08722982,-0.039799213,0.081993125,0.032529887,0.024674926,0.07939744,0.07275282,0.054443076,-0.0419782,-0.034102324,0.06114632,-0.018247595,-0.05635058,0.059461754,-0.056127116,-0.017063614,0.011442039,0.25290343,0.6560205,-0.21774627,-0.46069032,-0.041534066,0.57137597,-0.9562314,0.49724165,-0.16197124,-0.44203937,-0.29440337,0.15468006,-0.5551716,-0.093613215,-0.47756398,-0.18655445,-0.09585899,0.64163697,-0.57131034,0.3909326,0.19194238,0.25992298,0.36845666
2025-07-21 13:16:59.219,2.2200000000000015,2220,111,-0.122715816,-0.1786916,0.20289898,0.010610685,-0.00096086285,-0.029492185,0.0,0.0,0.0,-0.02255907,0.04807092,-0.14423308,0.020686021,-0.05626427,-0.0755473,-0.027310763,0.11260112,0.08774147,0.08543233,-0.031054303,0.06755816,0.029584752,-0.025430286,-0.08836173,-0.049570087,-0.013642001,-0.06096084,0.046257045,-0.04401076,-0.15611503,-0.07336475,0.076533176,0.04855645,0.081681095,0.15468006,-0.5551716,-0.093613215,-0.47756398,-0.18655445,-0.09585899,0.64163697,-0.57131034,0.3909326,0.19194238,0.25992298,0.36845666,0.5930656,0.42824447,0.3122004,0.07994201,0.49560308,-0.22686607,0.6591578,2.0,0.33156618,-0.52780306,-1.2947919,0.82954335
2025-07-21 13:16:59.239,2.2400000000000015,2240,112,0.13805236,-0.0046675927,-0.081002355,-0.047474734,0.07460149,0.04525597,0.0,0.0,0.0,-0.024629146,0.054434728,-0.120958604,0.024014255,-0.04613753,-0.05341664,-0.019432534,0.11928105,0.10014886,0.08340629,-0.04599182,0.052634712,0.044068873,0.052918345,0.04918782,0.010622402,-0.030419562,0.05506989,0.0412135,-0.062322374,0.16890061,0.028677681,-0.09338107,-0.09388744,-0.012666834,0.5930656,0.42824447,0.3122004,0.07994201,0.49560308,-0.22686607,0.6591578,2.0,0.33156618,-0.52780306,-1.2947919,0.82954335,-0.07730469,-1.119272,0.5796826,-0.69246495,-0.19749102,-0.6269339,0.47637075,0.5053535,-0.09492854,0.29692873,0.16637999,0.99027836
2025-07-21 13:16:59.265,2.2600000000000016,2260,113,0.009078364,-0.03319331,0.118198425,0.04243288,0.035229757,0.035477545,1.5,0.0,0.0,-0.024546003,0.051432956,-0.12314098,0.024215052,-0.070281975,-0.051708438,-0.03679743,0.10670133,0.12989214,0.068308115,-0.040040083,0.0547078,0.064027414,-0.016672403,-0.014701582,0.06718528,0.02590522,-0.017106965,-0.016420484,-0.012784593,0.049045533,-0.0032679348,0.055244118,0.06961228,-0.014727619,-0.07730469,-1.119272,0.5796826,-0.69246495,-0.19749102,-0.6269339,0.47637075,0.5053535,-0.09492854,0.29692873,0.16637999,0.99027836,0.5027017,2.0,1.3938265,-1.591539,-0.44494092,-0.75226176,0.48911297,0.5771945,-1.1309322,1.6584493,-1.782539,1.9911288
2025-07-21 13:16:59.282,2.2800000000000016,2280,114,0.13273358,-0.13397476,0.021321112,-0.018329965,0.05876473,0.015216523,1.5,0.0,0.0,-0.024853481,0.08156518,-0.1322342,0.036732063,-0.08942063,-0.07021351,-0.050744772,0.110886745,0.1459945,0.012169033,-0.011539766,0.019779416,0.1026576,0.06411224,-0.05493076,0.025305156,-0.105373286,-0.105287835,-0.019373901,-0.028393865,0.11041442,-0.040728513,0.10696334,-0.05741306,0.082513295,0.5027017,2.0,1.3938265,-1.591539,-0.44494092,-0.75226176,0.48911297,0.5771945,-1.1309322,1.6584493,-1.782539,1.9911288,-0.624032,2.0,1.5887705,-2.0,-1.0142868,-0.8988,1.0288548,-1.9665883,-0.6428287,0.20255986,-0.23969658,2.0
2025-07-21 13:16:59.300,2.3000000000000016,2300,115,-0.08784592,0.13832708,0.029254042,0.0010917385,0.011777624,0.040522143,1.5,0.0,0.0,-0.025036259,0.0661339,-0.13712515,0.07066046,-0.13364881,-0.12786616,-0.06269268,0.10895825,0.109889336,-0.00798076,0.002018657,0.0043101623,0.14611937,-0.109868735,0.032421075,0.034601826,-0.10022071,-0.12631513,-0.014875915,-0.013089478,-0.19157866,-0.038549323,-0.07171965,-0.05273012,0.009947016,-0.624032,2.0,1.5887705,-2.0,-1.0142868,-0.8988,1.0288548,-1.9665883,-0.6428287,0.20255986,-0.23969658,2.0,-0.21026693,2.0,0.13753903,-1.1638949,-1.3310547,-0.008466125,1.4934276,-0.81361514,-0.22526914,1.0029941,0.13939182,2.0
2025-07-21 13:16:59.319,2.3200000000000016,2320,116,0.2378058,0.020927994,0.012358256,0.046842262,-0.0011863278,0.012183626,1.5,0.0,0.0,-0.024621245,0.049456615,-0.11081434,0.04950808,-0.15301014,-0.20415755,-0.062134292,0.14492142,0.016546685,-0.004721524,0.015582679,0.02005859,0.16082823,0.027448948,0.05018411,-0.06949493,-0.09122451,-0.2346375,-0.029867921,0.12644573,-0.23285341,-0.008684083,-0.016885903,0.013921602,0.011613335,-0.21026693,2.0,0.13753903,-1.1638949,-1.3310547,-0.008466125,1.4934276,-0.81361514,-0.22526914,1.0029941,0.13939182,2.0,0.38981554,2.0,-1.681523,-0.7491292,-0.65139747,1.6479931,0.62272125,-0.43085012,1.3072917,0.56013274,1.6083354,2.0
2025-07-21 13:16:59.339,2.3400000000000016,2340,117,0.08296369,0.12270338,0.08276067,0.04467539,0.014884722,-0.038235802,1.5,0.0,0.0,-0.025157936,0.049620952,-0.010569289,-0.008138573,-0.14679657,-0.23086283,-0.009876078,0.13758661,-0.003495365,0.034138277,0.013396594,0.053326387,0.1712688,0.054824334,0.28050113,-0.18710218,0.07071317,-0.100168146,0.10493666,0.069818266,-0.087329715,0.055755887,0.06096984,0.17472716,0.0116591295,0.38981554,2.0,-1.681523,-0.7491292,-0.65139747,1.6479931,0.62272125,-0.43085012,1.3072917,0.56013274,1.6083354,2.0,0.75859714,0.3154621,-2.0,0.17196326,-0.03561782,2.0,-0.7577339,-0.39295182,2.0,0.021498501,2.0,-0.5868127
2025-07-21 13:16:59.364,2.3600000000000017,2360,118,-0.40067065,0.16829617,0.13510591,0.0050921743,0.004516124,0.022271091,1.5,0.0,0.0,-0.026300179,0.06832172,0.037840232,-0.051636297,-0.11390475,-0.19129077,0.050317943,0.12919846,-0.037321646,0.068467945,0.009075898,0.16050345,0.13305719,0.09590491,-0.014459956,-0.17091072,0.012492424,0.0632289,0.1177974,-0.07647388,-0.0059609967,0.06980953,0.015821837,0.24934317,-0.16013099,0.75859714,0.3154621,-2.0,0.17196326,-0.03561782,2.0,-0.7577339,-0.39295182,2.0,0.021498501,2.0,-0.5868127,2.0,0.6741886,-2.0,-0.25505653,0.9725779,2.0,-1.6987816,-0.056437574,2.0,-0.16088966,-0.4257403,-0.94498694
2025-07-21 13:16:59.382,2.3800000000000017,2380,119,-0.46827778,0.094312325,0.06375323,-0.009539222,0.015551334,-0.005149927,1.5,0.0,0.0,-0.028987061,0.11044748,0.07979811,-0.110516995,-0.12194356,-0.13068575,0.086824186,0.082120866,-0.030154264,0.10622054,0.001955261,0.21999988,0.095145814,0.04706124,0.067090474,-0.120268956,-0.06342105,0.15400788,0.043255597,-0.1525813,0.0042024776,0.0572042,0.025829764,0.019223142,-0.1413436,2.0,0.6741886,-2.0,-0.25505653,0.9725779,2.0,-1.6987816,-0.056437574,2.0,-0.16088966,-0.4257403,-0.94498694,1.526119,-1.84951,-2.0,0.746906,-0.35898787,1.1757184,-0.6792578,-0.063701205,2.0,-1.2497282,-0.7957737,-2.0
2025-07-21 13:16:59.400,2.4000000000000017,2400,120,-0.059982873,-0.21656218,-0.15629725,-0.038015615,-0.0038027507,-0.04012226,1.5,0.0,0.0,-0.030052766,0.13699144,0.04515426,-0.13248026,-0.101068564,-0.10731036,0.10781865,0.050038055,-0.035588816,0.14812902,-0.037641607,0.16461442,0.027429087,0.13721439,-0.12408699,-0.0886848,0.05859614,0.04923548,0.004598669,-0.057052422,0.012912722,0.02628773,-0.14722314,-0.2973372,-0.22611818,1.526119,-1.84951,-2.0,0.746906,-0.35898787,1.1757184,-0.6792578,-0.063701205,2.0,-1.2497282,-0.7957737,-2.0,1.130856,-2.0,-0.32668433,-0.90779734,2.0,0.9038732,0.59907025,-1.0149217,2.0,-1.0116259,-0.17706354,-2.0
2025-07-21 13:16:59.420,2.4200000000000017,2420,121,-0.09921007,-0.08005017,0.16589212,-0.008734056,0.018193554,0.023366703,1.5,0.0,0.0,-0.02797685,0.1526845,-0.05435028,-0.116137974,-0.11082889,-0.0869094,0.087809145,0.06667997,-0.06746604,0.16158469,-0.05340321,0.104899384,-0.044647772,-0.056099024,-0.29553404,0.053756136,-0.022268882,0.11220335,-0.02901607,-0.0045994823,-0.0059380215,0.07466162,-0.10595174,-0.020363135,-0.067648366,1.130856,-2.0,-0.32668433,-0.90779734,2.0,0.9038732,0.59907025,-1.0149217,2.0,-1.0116259,-0.17706354,-2.0,1.8330474,-0.07420549,0.06698825,0.23710628,0.99017453,0.4748065,-0.7470715,1.5834293,2.0,-1.4102501,-0.7038152,-0.5100899
2025-07-21 13:16:59.440,2.4400000000000017,2440,122,0.08350689,0.12093917,-0.06769834,-0.0654088,0.017841393,0.03266681,1.5,0.0,0.0,-0.027850443,0.17922147,-0.110362664,-0.1042502,-0.09877185,-0.0518616,0.08158163,0.053076543,-0.04175019,0.17850845,-0.09193641,0.045566145,-0.036440436,0.0775864,0.08907814,0.02391507,0.016971815,0.18593197,0.02212154,0.010292684,0.09400606,0.06556169,-0.022064725,-0.15124859,-0.089490004,1.8330474,-0.07420549,0.06698825,0.23710628,0.99017453,0.4748065,-0.7470715,1.5834293,2.0,-1.4102501,-0.7038152,-0.5100899,0.49702072,-1.8163865,-0.83264446,0.32222995,0.56672114,0.22182032,-0.35248318,0.57275134,2.0,-1.0811976,-0.6306902,-0.5653916
2025-07-21 13:16:59.465,2.4600000000000017,2460,123,0.08897802,0.087757125,-0.2173126,-0.038704064,0.0048516705,-0.023866534,1.5,0.0,0.0,-0.027736923,0.17061868,-0.14114714,-0.10443206,-0.094716854,0.011610856,0.062211607,0.04024942,0.001220653,0.19484636,-0.09849796,-0.0060644886,-0.04412946,-0.111522496,-0.22425382,0.052059196,0.07538028,0.08285061,-0.029449688,-0.033126093,0.16629457,0.011431139,-0.012927271,-0.07283418,-0.069601886,0.49702072,-1.8163865,-0.83264446,0.32222995,0.56672114,0.22182032,-0.35248318,0.57275134,2.0,-1.0811976,-0.6306902,-0.5653916,0.18073712,-0.9617053,1.4004216,-1.0407664,2.0,-0.12317538,1.2852322,-1.3919315,2.0,-0.06399502,0.31705716,0.13041565
2025-07-21 13:16:59.482,2.4800000000000018,2480,124,0.018934777,0.03442906,0.078595005,-0.005403887,0.0471937,0.013106021,1.5,0.0,0.0,-0.025276983,0.14827396,-0.18544085,-0.06288595,-0.1044481,0.088872515,0.059300054,0.0692499,0.022570549,0.22692496,-0.09823337,-0.010543162,-0.052039333,-0.021089789,-0.15912814,0.072263956,-0.07541378,0.16009867,-0.060862776,0.09612284,-0.068006426,0.07137529,0.03647012,0.06741471,-0.010934196,0.18073712,-0.9617053,1.4004216,-1.0407664,2.0,-0.12317538,1.2852322,-1.3919315,2.0,-0.06399502,0.31705716,0.13041565,0.6872458,0.2875929,2.0,-1.2415383,-0.39966583,-0.9441943,0.5837589,2.0,1.8630896,-0.45773214,-0.6862891,0.7656608
2025-07-21 13:16:59.500,2.5000000000000018,2500,125,0.04807433,-0.35600364,-0.18174592,0.025622714,0.015857669,0.02023246,1.5,0.0,0.0,-0.02555081,0.1415614,-0.17279622,0.0077093546,-0.11530371,0.11379939,0.009897319,0.0808899,0.062018692,0.23593242,-0.08898878,-0.021387048,-0.017420996,-0.017613564,0.1908139,0.18408568,-0.0091559645,-0.016022015,-0.14840132,0.056675352,0.1154625,-0.020010559,-0.05545671,-0.15045172,0.0735869,0.6872458,0.2875929,2.0,-1.2415383,-0.39966583,-0.9441943,0.5837589,2.0,1.8630896,-0.45773214,-0.6862891,0.7656608,-0.85314566,-0.8743709,0.9987686,-1.4446802,-1.3403583,-1.5245352,1.7278113,1.4515533,0.6875108,1.6451054,1.2977092,2.0
2025-07-21 13:16:59.520,2.520000000000002,2520,126,0.033789273,-0.31000707,0.069754675,0.013195699,-0.0012364971,0.008824845,1.5,0.0,0.0,-0.023782102,0.116153054,-0.15808637,0.03318728,-0.13459092,0.10682678,-0.031147383,0.120230064,0.14298421,0.21259642,-0.06445629,-0.032974064,0.037108768,0.035689104,-0.0661435,0.09636082,-0.022937749,-0.15706825,-0.17066593,0.011213618,0.14973308,-0.00048940437,0.053070262,0.06535913,0.13674316,-0.85314566,-0.8743709,0.9987686,-1.4446802,-1.3403583,-1.5245352,1.7278113,1.4515533,0.6875108,1.6451054,1.2977092,2.0,0.00021793321,1.735862,2.0,-2.0,-1.0082196,-1.4228367,1.1561897,-0.4427765,-0.9977271,1.2824621,-0.4920139,2.0
2025-07-21 13:16:59.540,2.540000000000002,2540,127,-0.17776504,-0.2232588,-0.033112537,-0.021007612,-0.061543882,0.025897471,1.5,0.0,0.0,-0.022706965,0.12238612,-0.16970386,0.056926247,-0.18372926,0.032786887,-0.06639866,0.12119483,0.17227015,0.14035852,-0.027026167,-0.030190745,0.0754131,-0.06737599,0.03302587,0.11350109,-0.0421879,-0.1773327,-0.08671001,-0.02910231,-0.06604311,-0.071744755,0.111488916,-0.028630905,0.13530946,0.00021793321,1.735862,2.0,-2.0,-1.0082196,-1.4228367,1.1561897,-0.4427765,-0.9977271,1.2824621,-0.4920139,2.0,-1.2926565,1.5834367,1.9081199,-1.7181457,-2.0,-1.0326895,2.0,-1.6249341,-1.4262928,1.2388381,-0.4903464,2.0
2025-07-21 13:16:59.565,2.560000000000002,2560,128,-0.24217057,0.00066448323,-0.053562835,0.049015198,-0.0472683,-0.008603543,1.5,0.0,0.0,-0.023315454,0.11368992,-0.16438173,0.086159304,-0.18904234,-0.09350473,-0.078243144,0.16625933,0.09825955,0.09181952,0.0035490775,-0.05441091,0.12009421,-0.0046351305,-0.0626023,0.1070024,-0.09227276,-0.4251729,-0.06377492,0.09280369,-0.28197974,-0.12400634,0.010423801,-0.109081544,0.04766362,-1.2926565,1.5834367,1.9081199,-1.7181457,-2.0,-1.0326895,2.0,-1.6249341,-1.4262928,1.2388381,-0.4903464,2.0,-0.5156223,2.0,0.40903777,-1.3165638,-0.5410975,0.019246936,1.9231089,-0.5958301,0.033463053,0.4956811,0.9026501,2.0
2025-07-21 13:16:59.582,2.580000000000002,2580,129,-0.19482021,0.24962157,0.034074645,0.04174149,-0.024529142,0.033360496,1.5,0.0,0.0,-0.023097316,0.088733606,-0.12907207,0.07365212,-0.19669451,-0.15738474,-0.055340957,0.19924851,0.032176357,0.073312834,0.0017893469,-0.014890701,0.14219601,-0.11874887,0.14078926,-0.077864476,0.06022263,-0.031133238,0.08021724,0.10565158,-0.109305605,-0.04615926,0.07196054,0.10334022,-0.015421174,-0.5156223,2.0,0.40903777,-1.3165638,-0.5410975,0.019246936,1.9231089,-0.5958301,0.033463053,0.4956811,0.9026501,2.0,-0.20444478,1.8139987,-0.9436767,-0.48447922,-1.1473037,0.9102508,0.30490905,-1.3419904,1.2442812,1.1174239,0.9376599,1.3389404
2025-07-21 13:16:59.600,2.600000000000002,2600,130,-0.047326386,0.163999,0.12882513,0.022157466,-0.001541601,0.029890548,1.5,0.0,0.0,-0.023419619,0.0653778,-0.04103723,0.04479997,-0.17889789,-0.19702087,-0.029492794,0.17885809,-0.05754893,0.09586225,0.036522266,0.05412437,0.14637554,0.035942003,0.32644397,-0.15342678,0.039125472,-0.1472227,0.14067806,0.015364203,-0.2931622,-0.02442882,0.03380665,0.105361484,0.054762702,-0.20444478,1.8139987,-0.9436767,-0.48447922,-1.1473037,0.9102508,0.30490905,-1.3419904,1.2442812,1.1174239,0.9376599,1.3389404,1.2361743,0.5930577,-2.0,0.3592274,-0.23009677,2.0,-0.62873834,0.570014,2.0,-0.585539,2.0,0.20140085
2025-07-21 13:16:59.620,2.620000000000002,2620,131,0.3312448,0.30460683,-0.015242513,-0.07195544,-0.008309597,-0.013457928,1.5,0.0,0.0,-0.024846463,0.09731701,0.03823169,-0.020694705,-0.15082267,-0.20603137,0.029448714,0.13933682,-0.0726216,0.12246606,0.011261184,0.14975937,0.12520967,0.02596683,0.17131332,-0.16574775,0.082591526,0.048268467,0.09451928,-0.11099405,0.14267056,0.01603954,-0.0228547,0.4003439,-0.062142048,1.2361743,0.5930577,-2.0,0.3592274,-0.23009677,2.0,-0.62873834,0.570014,2.0,-0.585539,2.0,0.20140085,1.2795607,0.19770822,-2.0,0.22910427,0.16010167,2.0,-0.077431135,-2.0,2.0,0.61412644,-0.087212816,-0.5136477
2025-07-21 13:16:59.641,2.640000000000002,2640,132,0.08638381,0.068215385,0.10244705,-0.00223391,0.010897962,-0.039699513,1.5,0.0,0.0,-0.025608487,0.11023201,0.032743163,-0.078798994,-0.122359395,-0.16523969,0.06842043,0.12554759,-0.07503064,0.17046608,0.019795088,0.21341832,0.094269775,0.07105602,0.07703358,-0.04637091,0.0883158,0.046467323,0.11238531,0.004680375,-0.06628714,0.008577661,0.009715586,0.0124841705,-0.11124233,1.2795607,0.19770822,-2.0,0.22910427,0.16010167,2.0,-0.077431135,-2.0,2.0,0.61412644,-0.087212816,-0.5136477,2.0,-0.23645703,-2.0,0.5510915,1.753308,2.0,-1.3096442,0.57782584,2.0,-1.0346805,0.12551229,-1.472206
2025-07-21 13:16:59.665,2.660000000000002,2660,133,0.1748451,0.110094644,-0.12199314,-0.02017647,0.006851152,-0.025999561,1.5,0.0,0.0,-0.027122011,0.1512022,0.025890343,-0.1085203,-0.10374609,-0.13747875,0.09445441,0.111723214,-0.03750173,0.17817749,-0.0018025486,0.20337921,0.04340837,0.10319925,-0.115412846,-0.03293867,0.064473286,0.099086,0.08617418,-0.029030409,0.0895132,0.007168755,-0.11688093,-0.04496215,-0.042595264,2.0,-0.23645703,-2.0,0.5510915,1.753308,2.0,-1.3096442,0.57782584,2.0,-1.0346805,0.12551229,-1.472206,1.6843166,-1.2348518,-1.040451,-0.07924325,1.6049621,0.9023001,0.054890938,-2.0,2.0,-0.93005884,-0.6379158,-1.5866395
2025-07-21 13:16:59.682,2.680000000000002,2680,134,-0.019476783,-0.051925253,0.0062880307,0.026498845,0.06208126,0.022299508,1.5,0.0,0.0,-0.027133284,0.17735723,-0.061123073,-0.12739092,-0.09244715,-0.082932636,0.09949839,0.10381098,-0.015943732,0.20542172,-0.029763315,0.17492467,0.005016985,0.09182891,-0.21951284,-0.01359371,0.059098966,0.060421593,0.022198642,0.051677838,0.07020969,0.04692187,-0.10973689,-0.15408109,-0.122206636,1.6843166,-1.2348518,-1.040451,-0.07924325,1.6049621,0.9023001,0.054890938,-2.0,2.0,-0.93005884,-0.6379158,-1.5866395,1.4641516,-0.3186741,-0.4595343,0.59493935,2.0,0.65026534,-0.9465552,-1.1366006,2.0,-1.6038089,-0.2276022,-1.3351153
2025-07-21 13:16:59.701,2.700000000000002,2700,135,-0.12628998,-0.011627432,0.058248583,-0.06476278,0.03792608,0.005014102,1.5,0.0,0.0,-0.02642007,0.19088903,-0.08552069,-0.117333755,-0.09371102,-0.008519536,0.08209144,0.097092055,-0.022979442,0.23148173,-0.06611919,0.12347164,-0.03973781,-0.017747326,-0.09543472,-0.017789245,0.0057157697,0.15649858,0.028405664,-0.0051669437,-0.041058164,0.07505035,-0.034267083,-0.105864026,-0.11445727,1.4641516,-0.3186741,-0.4595343,0.59493935,2.0,0.65026534,-0.9465552,-1.1366006,2.0,-1.6038089,-0.2276022,-1.3351153,1.0894578,-1.6434339,-1.196046,0.79036915,1.008514,0.10063654,-1.1694211,1.3793031,2.0,-2.0,-0.42244372,-1.2522122
2025-07-21 13:16:59.721,2.720000000000002,2720,136,0.011008397,-0.0017698868,-0.10890452,-0.030460754,0.02411194,-0.019485192,1.5,0.0,0.0,-0.027010288,0.18122378,-0.12988785,-0.1266017,-0.080297016,0.06077773,0.069381066,0.049326684,0.036178317,0.22512326,-0.12039462,0.063250646,-0.07328159,0.060204104,-0.20625375,0.033270754,0.09868825,0.18606946,0.012586482,-0.12915468,0.15015693,-0.0032268597,-0.17291561,-0.14886859,-0.12237072,1.0894578,-1.6434339,-1.196046,0.79036915,1.008514,0.10063654,-1.1694211,1.3793031,2.0,-2.0,-0.42244372,-1.2522122,0.12856297,-0.8833506,0.97445667,-0.52842796,0.15480448,-0.4258333,0.64687705,-0.9683004,1.7673128,-0.91769075,-0.51572305,-0.5419712
2025-07-21 13:16:59.741,2.740000000000002,2740,137,-0.093533054,-0.23645273,0.00035171962,-0.02571309,-0.00091325305,0.031624112,1.5,0.0,0.0,-0.025833122,0.1696358,-0.1837037,-0.07876627,-0.08825771,0.08693473,0.052296117,0.05454054,0.056729775,0.24176939,-0.12531233,0.017525043,-0.075537965,-0.06974583,-0.07222948,0.15280801,-0.058719028,-0.0067151706,-0.10228584,0.0118860025,-0.062459245,0.056953117,-0.047775697,-0.061835773,-0.014446158,0.12856297,-0.8833506,0.97445667,-0.52842796,0.15480448,-0.4258333,0.64687705,-0.9683004,1.7673128,-0.91769075,-0.51572305,-0.5419712,0.20989095,-0.006928686,2.0,-1.2475722,1.4370062,-1.5903897,0.37618947,2.0,2.0,0.5053351,-1.4758705,0.95723504
2025-07-21 13:16:59.765,2.760000000000002,2760,138,0.05791995,-0.18648405,-0.141342,-0.00085876335,0.010766802,0.03369072,1.5,0.0,0.0,-0.024420515,0.13871548,-0.17115995,-0.02445611,-0.092673905,0.15565251,-0.006482634,0.067037664,0.095596544,0.2518673,-0.09826637,-0.070034415,-0.03817598,-0.09376499,0.026288025,0.17826417,-0.022679606,0.1578265,-0.11611893,0.06723383,0.26897335,-0.018922785,0.15300044,-0.29633954,0.1366872,0.20989095,-0.006928686,2.0,-1.2475722,1.4370062,-1.5903897,0.37618947,2.0,2.0,0.5053351,-1.4758705,0.95723504,-0.18053581,-0.07809842,1.8652436,-1.4465574,-1.7387987,-2.0,2.0,1.1288908,0.4120417,1.637156,2.0,2.0
2025-07-21 13:16:59.782,2.780000000000002,2780,139,0.023530973,-0.042624503,0.10348125,0.024799254,0.007213002,0.038708784,1.5,0.0,0.0,-0.022732886,0.12819378,-0.14940864,0.021923142,-0.12213329,0.18809015,-0.06239306,0.10573975,0.17753564,0.22570896,-0.06011321,-0.10245759,0.01933812,-0.0841007,0.011496342,0.06518178,-0.11525694,0.0156021435,-0.09576746,0.17053995,0.22039795,-0.13744056,0.04933448,0.056949843,0.04068903,-0.18053581,-0.07809842,1.8652436,-1.4465574,-1.7387987,-2.0,2.0,1.1288908,0.4120417,1.637156,2.0,2.0,0.2611685,1.117793,1.9306766,-1.6324797,-1.8801999,-1.4179353,1.6549138,-1.03958,-0.9283473,0.11670351,-0.2102964,2.0
2025-07-21 13:16:59.801,2.800000000000002,2800,140,-0.060163256,-0.006703319,-0.040484793,-0.0208493,-0.023743745,-0.023574853,1.5,0.0,0.0,-0.02328755,0.13419613,-0.13247621,0.05788556,-0.14258707,0.12244386,-0.093169674,0.13336393,0.17216876,0.17232092,-0.05024495,-0.103723794,0.07349875,-0.03799965,0.13353638,0.069205455,-0.049560603,-0.25300512,0.005834363,0.08190408,-0.101358764,-0.2077881,-0.039863076,0.050925158,0.04855623,0.2611685,1.117793,1.9306766,-1.6324797,-1.8801999,-1.4179353,1.6549138,-1.03958,-0.9283473,0.11670351,-0.2102964,2.0,-1.2069778,1.0162303,0.99695164,-1.4761949,-2.0,-0.68691635,2.0,-1.4439455,-1.6012344,0.79592067,-0.6406988,2.0
2025-07-21 13:16:59.821,2.820000000000002,2820,141,-0.21691577,-0.14086701,-0.094555914,-0.008350824,-0.07497719,0.020579536,1.5,0.0,0.0,-0.023235649,0.123687364,-0.09488077,0.055112094,-0.1659039,-0.020026278,-0.07998142,0.16725075,0.07548932,0.0881394,-0.04140647,-0.100037,0.10542711,0.023142107,0.13572703,-0.059034,-0.0539807,-0.37786093,-0.0582642,0.017210547,-0.34413648,-0.16222024,0.017004121,0.042111333,0.03349887,-1.2069778,1.0162303,0.99695164,-1.4761949,-2.0,-0.68691635,2.0,-1.4439455,-1.6012344,0.79592067,-0.6406988,2.0,-1.3971457,1.1959794,-0.929236,-0.85417485,-1.6069384,0.55205023,2.0,-0.78939533,0.8662383,0.6613923,1.1097307,2.0
2025-07-21 13:16:59.843,2.840000000000002,2840,142,0.11792496,0.056563463,-0.021940678,0.059247628,-0.0055984478,0.031225191,1.5,0.0,0.0,-0.021675156,0.09790873,-0.022626685,0.021315847,-0.17526574,-0.11321669,-0.06561223,0.20543624,-0.005967238,0.09965375,-0.031529788,-0.05397174,0.13197084,-0.08702849,0.29641983,-0.16399992,-0.0010606018,-0.14355132,0.076721825,-0.0034751513,-0.1732197,-0.047268223,0.03377615,0.16016768,0.10657914,-1.3971457,1.1959794,-0.929236,-0.85417485,-1.6069384,0.55205023,2.0,-0.78939533,0.8662383,0.6613923,1.1097307,2.0,0.07979967,-0.8279134,-2.0,0.016042808,-0.5479634,1.2037598,-0.0787373,-1.3122429,1.8041993,-0.13997564,2.0,1.4723092
