openverse-orca/OrcaGym/log/simulation_log_20250721_141456.csv
timestamp,sim_time,physics_step,control_step,imu_angle_roll,imu_angle_pitch,imu_angle_yaw,imu_angular_velocity_roll,imu_angular_velocity_pitch,imu_angular_velocity_yaw,imu_acc_x,imu_acc_y,imu_acc_z,fl_joint1_pos,fl_joint1_vel,fl_joint1_torque,fl_joint2_pos,fl_joint2_vel,fl_joint2_torque,fl_joint3_pos,fl_joint3_vel,fl_joint3_torque,fr_joint1_pos,fr_joint1_vel,fr_joint1_torque,fr_joint2_pos,fr_joint2_vel,fr_joint2_torque,fr_joint3_pos,fr_joint3_vel,fr_joint3_torque,hl_joint1_pos,hl_joint1_vel,hl_joint1_torque,hl_joint2_pos,hl_joint2_vel,hl_joint2_torque,hl_joint3_pos,hl_joint3_vel,hl_joint3_torque,hr_joint1_pos,hr_joint1_vel,hr_joint1_torque,hr_joint2_pos,hr_joint2_vel,hr_joint2_torque,hr_joint3_pos,hr_joint3_vel,hr_joint3_torque,fl_force_x,fl_force_y,fl_force_z,fr_force_x,fr_force_y,fr_force_z,hl_force_x,hl_force_y,hl_force_z,hr_force_x,hr_force_y,hr_force_z,fl_hip_action,fl_thigh_action,fl_calf_action,fr_hip_action,fr_thigh_action,fr_calf_action,hl_hip_action,hl_thigh_action,hl_calf_action,hr_hip_action,hr_thigh_action,hr_calf_action
2025-07-21 14:14:56.866,0.0,0,0,-0.030501345,0.03693613,0.0109346295,-0.021424212,-0.0060484186,-0.010061094,1.9648752,-0.46905312,0.0,0.0,0.009950531,-0.007845474,-0.0066542705,-0.008882643,-0.0051806225,-0.0040826225,-0.0048957258,0.007061497,-0.00940535,-0.0008840083,0.0016581583,-0.008186176,-0.052111775,0.049557332,-0.044936053,0.04016821,-0.053283695,0.029761354,0.051577248,-0.014970922,0.037521083,0.022105042,-0.006179207,-0.0041069053,0.0,0.0,0.0,0.0,0.0,0.0,0.0,0.0,0.0,0.0,0.0,0.0,0.33080006,1.3010942,-0.76977354,-0.3813105,2.0,-0.36727262,-0.8378651,0.14318381,1.5789416,0.8127706,0.444153,0.800097
2025-07-21 14:14:56.882,0.02,20,1,0.12866311,0.059251726,0.047641393,0.034727547,0.029149298,-0.026998669,0.0,0.0,0.0,0.0,0.017115533,0.044798158,-0.029465076,-0.004604473,0.04396912,-0.011002056,-0.025949623,0.0055853846,0.035228536,0.027969642,0.022655452,0.010879978,-0.021659968,0.1974214,-0.06334882,-0.10266111,0.20463039,-0.055916622,-0.08926012,0.047424063,0.12138059,0.03658305,0.002319413,0.06637404,0.33080006,1.3010942,-0.76977354,-0.3813105,2.0,-0.36727262,-0.8378651,0.14318381,1.5789416,0.8127706,0.444153,0.800097,-0.3510679,-0.6559133,0.30312312,0.6186806,-0.58761597,-0.013285663,0.28744227,-0.101372965,-0.16232269,0.15529819,-0.23246181,-0.24983497
2025-07-21 14:14:56.899,0.04,40,2,-0.105973125,-0.103055,-0.06317932,0.0017477507,-0.014732762,-0.027768306,0.0,0.0,0.0,-0.00026444372,0.0048169806,0.060368955,-0.009554298,-0.0043414054,0.0542356,-0.01814383,-0.006019765,0.006112267,0.027775224,0.03219091,0.021384655,0.015493878,0.07208826,-0.066600256,0.08263728,-0.045735363,0.03755264,-0.06771176,-0.021575082,-0.0673635,-0.08363648,-0.020390738,0.002903715,-0.05169717,-0.3510679,-0.6559133,0.30312312,0.6186806,-0.58761597,-0.013285663,0.28744227,-0.101372965,-0.16232269,0.15529819,-0.23246181,-0.24983497,-0.11599144,-0.19325352,-0.0042870156,-0.21814194,-0.3142994,0.14288475,0.27027306,0.21623762,-0.13365795,0.051527634,0.39167446,-0.00038896874
2025-07-21 14:14:56.917,0.06,60,3,-0.088985786,0.0029053148,0.02195513,-0.027155835,0.003021925,0.02945769,0.0,0.0,0.0,-0.00036934964,-0.0051454324,0.04177051,-0.016129108,0.00038749084,0.03355708,-0.014940154,-0.0063213524,0.01792295,0.013074824,0.017630827,0.039153267,0.017151222,0.00217873,0.016227936,0.03908206,0.045934994,-0.07991787,0.030316379,-0.04915803,0.105467126,0.037665635,-0.035411812,0.07257637,-0.034859605,-0.11599144,-0.19325352,-0.0042870156,-0.21814194,-0.3142994,0.14288475,0.27027306,0.21623762,-0.13365795,0.051527634,0.39167446,-0.00038896874,-0.23286031,-0.2615235,0.23746587,-0.11234537,-0.0123256445,-0.03706186,0.005812332,-0.014325067,-0.1475907,0.1527782,-0.20291388,0.10193677
2025-07-21 14:14:56.937,0.08,80,4,-0.0513025,0.019454302,0.06895776,0.0481423,-0.019512324,-0.022373606,0.0,0.0,0.0,-0.0005121017,0.0054237745,0.0074395332,-0.004099876,-0.0050004944,0.038530506,-0.019341065,0.0051505007,0.008345176,0.018189257,0.013841343,0.0227148,0.0041528204,0.03223688,-0.018616611,0.028519057,0.0316368,-0.031389266,0.015299729,-0.062939756,0.008216662,-0.016112763,-0.00020766379,-0.054496776,0.039098617,-0.23286031,-0.2615235,0.23746587,-0.11234537,-0.0123256445,-0.03706186,0.005812332,-0.014325067,-0.1475907,0.1527782,-0.20291388,0.10193677,-0.06903227,0.14547433,0.39142725,0.034739446,-0.1468569,-0.21885473,0.07581312,0.40727758,-0.114880115,-0.061971843,-0.15133864,0.3479137
2025-07-21 14:14:56.957,0.1,100,5,0.17776825,0.017208831,-0.09905732,0.040879413,0.026703985,-0.0142555,0.0,0.0,0.0,-0.0006986125,-0.008813904,0.021451838,0.0063361055,-0.0024774396,0.016146848,-0.019532047,-0.005674167,0.032188002,-0.00025061987,0.011084854,0.018108847,0.022233572,-0.0398458,-0.022603212,0.051028837,-0.014388586,0.031275135,-0.051871385,-0.049029935,0.057800576,0.0056008357,-0.06252265,-0.09116543,0.08404404,-0.06903227,0.14547433,0.39142725,0.034739446,-0.1468569,-0.21885473,0.07581312,0.40727758,-0.114880115,-0.061971843,-0.15133864,0.3479137,-0.3745594,-0.2930575,0.14811945,-0.14004718,-0.022220775,-0.00924683,0.37706965,-0.15858726,-0.13902561,0.26934183,0.5912396,0.23529242
2025-07-21 14:14:56.982,0.12000000000000001,120,6,0.062049504,0.029962797,0.17447774,-0.057804026,-0.03894422,-0.0056554237,0.0,0.0,0.0,6.539175e-05,-0.0020369438,-0.007587356,0.005489715,-0.011859701,0.012871256,-0.0077686585,0.00851553,0.032535788,-0.0018396624,0.019315924,0.026476566,0.010417305,-0.06848768,0.021736002,0.053105332,-0.05846899,0.00013833464,-0.06368203,0.014952842,-0.065263614,-0.047086436,0.034581043,0.13274999,0.001212611,-0.3745594,-0.2930575,0.14811945,-0.14004718,-0.022220775,-0.00924683,0.37706965,-0.15858726,-0.13902561,0.26934183,0.5912396,0.23529242,0.05190085,-0.013897853,0.3292587,0.15603405,-0.17063032,0.028177846,-0.039517432,0.41346115,-0.11563729,-0.016076073,-0.6454555,0.16743167
2025-07-21 14:14:56.999,0.14,140,7,0.020756,-0.08223692,-0.17137209,-0.022720031,0.0022576775,0.006915927,0.0,0.0,0.0,-0.001150053,0.0043910183,-0.0109085515,0.012460282,-0.015267417,-0.0009817848,-0.013401045,0.018788591,0.034009688,-0.010994545,0.011918607,0.029313367,0.021610968,-0.004349983,0.033800405,-0.007112715,-0.04988134,-0.041673094,0.00047208034,-0.04622633,0.021676585,-0.00043644488,-0.00703788,-0.086750835,-0.0481736,0.05190085,-0.013897853,0.3292587,0.15603405,-0.17063032,0.028177846,-0.039517432,0.41346115,-0.11563729,-0.016076073,-0.6454555,0.16743167,-0.46598193,-0.37772015,0.06427838,-0.1555502,0.19972725,0.25197664,0.46200076,-0.29027486,-0.08170156,0.52167916,0.8493837,0.25172073
2025-07-21 14:14:57.018,0.16,160,8,-0.006580911,-0.0050643682,0.19259153,-0.033166625,-0.0058641396,0.048424765,0.0,0.0,0.0,-0.00021458801,-0.0035144398,-0.016251156,0.0070853606,-0.018616162,0.013714515,-0.018642774,0.025656821,0.029698541,-0.002916217,0.032558996,0.061830826,0.012983518,-0.043451726,-0.081736796,0.058724623,0.012863079,-0.019668382,-0.038881242,-0.021671705,-0.010444528,-0.011120531,0.041909926,0.066288084,0.026376387,-0.46598193,-0.37772015,0.06427838,-0.1555502,0.19972725,0.25197664,0.46200076,-0.29027486,-0.08170156,0.52167916,0.8493837,0.25172073,0.10541284,0.35182983,0.44445196,0.21907164,-0.13292542,-0.06773397,-0.045596376,0.24966215,0.11441605,-0.06742962,-0.42089084,0.15483002
2025-07-21 14:14:57.038,0.18,180,9,-0.04388024,-0.09250681,-0.10543627,-0.055292744,0.028017337,0.033630997,0.0,0.0,0.0,-0.0019092805,0.0020083888,-0.021482294,0.0012582458,-0.02333427,-0.0037834134,-0.00574571,0.015219282,0.0414481,-0.016254093,0.010927602,0.05757785,0.01692157,0.04564175,0.04695328,0.059433624,0.06386818,-0.041479006,0.05134464,-0.08760135,0.04232814,-0.031841207,-0.08077707,-0.09293529,0.013906499,0.10541284,0.35182983,0.44445196,0.21907164,-0.13292542,-0.06773397,-0.045596376,0.24966215,0.11441605,-0.06742962,-0.42089084,0.15483002,-0.30274636,-0.14821526,0.17801756,-0.11086239,0.11936802,0.023952965,0.45709774,-0.1471585,-0.12469499,0.24031661,0.40939397,0.29584667
2025-07-21 14:14:57.065,0.19999999999999998,200,10,0.10150052,0.09163799,0.010381539,-0.05310555,0.019356491,-0.0137235215,0.0,0.0,0.0,-0.0014981485,-0.0077780783,-0.023698546,0.0077698114,-0.021792136,0.0028202315,-0.007793191,0.020152273,0.021791052,-0.015926106,0.024348374,0.0751515,0.014456135,-0.045861233,-0.028634679,-0.05632928,-0.03178534,-0.0012300529,0.007660795,0.08940786,0.027062602,-0.04468194,-0.004906291,0.0043268907,0.07222143,-0.30274636,-0.14821526,0.17801756,-0.11086239,0.11936802,0.023952965,0.45709774,-0.1471585,-0.12469499,0.24031661,0.40939397,0.29584667,-0.2781695,-0.13452183,0.04379199,-0.06997785,0.10680191,0.059428554,0.24397314,-0.1542433,0.11072106,0.272366,0.09425059,0.16176625
2025-07-21 14:14:57.082,0.21999999999999997,220,11,-0.029008163,-0.0020331794,0.021052497,-0.0275868,0.0061198147,0.009090781,0.0,0.0,0.0,-0.0011416925,0.0010771378,-0.011230736,0.0061340267,-0.029125681,0.017315384,-0.009820355,0.03717837,0.0035292264,-0.0041370415,0.023378402,0.084433354,0.016357634,0.019899234,-0.039248567,0.050208867,-0.04577386,-0.026378114,-0.06481069,0.008747878,-0.056218527,-0.054039683,-0.0282933,-0.077229634,-0.0048173442,-0.2781695,-0.13452183,0.04379199,-0.06997785,0.10680191,0.059428554,0.24397314,-0.1542433,0.11072106,0.272366,0.09425059,0.16176625,-0.26335424,0.15272468,0.074851096,0.054223727,0.168554,-0.027366463,0.23259535,0.06306772,0.23685984,0.12804206,0.20580207,0.25979483
2025-07-21 14:14:57.099,0.23999999999999996,240,12,0.08989591,0.007981462,-0.01706391,-0.05475004,-0.030800235,0.0095251445,0.0,0.0,0.0,-0.0013704791,-0.014885404,-0.01888847,0.005485144,-0.015962817,0.014622606,-0.017692026,0.030951621,0.013165049,-0.011701141,0.014693431,0.0843611,0.019314945,-0.047292866,0.0043919575,-0.05013123,-0.015701381,0.04314019,-0.03762701,-0.050433833,-0.0437897,0.009878324,0.032493405,-0.0068089864,0.07248891,-0.26335424,0.15272468,0.074851096,0.054223727,0.168554,-0.027366463,0.23259535,0.06306772,0.23685984,0.12804206,0.20580207,0.25979483,-0.15659131,-0.091537535,-0.15676226,0.016353216,-0.078616425,0.07456592,0.2998588,-0.12926634,0.22316979,0.22185718,0.19002184,0.11180788
2025-07-21 14:14:57.118,0.25999999999999995,260,13,-0.05311615,0.030532658,0.06716026,-0.056812115,-0.023154669,0.013975983,0.0,0.0,0.0,-0.0014996703,-0.004244623,-0.022619026,-0.006876425,-0.021065434,0.017021613,-0.0025795242,0.0237597,0.0027086376,-0.005867958,0.02855698,0.08011424,0.016922139,-0.06405514,-0.02124776,-0.07186883,0.018344207,-0.075040005,0.011303913,0.06415485,-0.07300455,-0.00072809105,0.08265156,0.0195161,-0.04231364,-0.15659131,-0.091537535,-0.15676226,0.016353216,-0.078616425,0.07456592,0.2998588,-0.12926634,0.22316979,0.22185718,0.19002184,0.11180788,-0.13993913,0.2319713,-0.1545436,-0.028765056,0.10569085,0.08358011,0.15854563,0.16110845,0.40239102,0.069691315,0.01976085,0.29567084
2025-07-21 14:14:57.138,0.27999999999999997,280,14,-2.1751912e-05,-0.027018921,-0.07208013,0.01161622,0.045377072,0.008686763,0.0,0.0,0.0,-0.0022416413,-0.009695003,-0.004160012,-0.019838069,-0.014664413,0.007349043,-0.0072067347,0.03699653,0.015284445,0.0017726658,0.033494126,0.067560814,0.017931776,-0.024187528,0.065869674,-0.006807698,-0.048377793,-0.049642272,0.0018173266,0.051207423,-0.042916495,-0.016812714,-0.020154871,0.05432405,-0.030477861,-0.13993913,0.2319713,-0.1545436,-0.028765056,0.10569085,0.08358011,0.15854563,0.16110845,0.40239102,0.069691315,0.01976085,0.29567084,-0.19329688,-0.28505647,-0.24458815,0.07040016,0.15331286,0.25468245,0.25984904,-0.2271988,0.23089719,0.38564456,0.15737805,0.19704135
2025-07-21 14:14:57.165,0.3,300,15,-0.055844318,-0.032905784,0.12389372,-0.04124819,0.020734752,-0.03778383,0.0,0.0,0.0,-0.0014345878,-0.0080928365,-0.016240176,-0.014857474,-0.026690012,0.027796587,-0.0141988,0.028649855,-0.0035580145,0.014093635,0.036539033,0.06161583,0.02621631,-0.018179562,-0.016862554,-0.020247377,-0.045561116,0.05696493,-0.010152565,-0.013766181,-0.09726508,0.0070308726,0.08265928,-0.02535498,-0.051630706,-0.19329688,-0.28505647,-0.24458815,0.07040016,0.15331286,0.25468245,0.25984904,-0.2271988,0.23089719,0.38564456,0.15737805,0.19704135,-0.03874451,0.38150623,0.00144599,0.12824987,-0.20948969,-0.12028064,0.10393329,0.32282418,0.37490273,-0.0328231,-0.0041681193,0.21300995
2025-07-21 14:14:57.182,0.32,320,16,0.014040564,0.015632486,-0.1294306,0.007431501,-0.01216332,0.02151744,0.0,0.0,0.0,-0.002421505,-0.0010075327,0.0011920036,-0.019511297,-0.016211517,0.01528985,-0.019091,0.039344136,0.018995196,0.0130146295,0.023130408,0.062805705,0.032983597,-0.031695593,0.101580605,0.058118097,0.07568075,0.009567271,0.0612671,-0.04662416,0.117146395,0.055786423,0.044345006,-0.07215944,-0.048945352,-0.03874451,0.38150623,0.00144599,0.12824987,-0.20948969,-0.12028064,0.10393329,0.32282418,0.37490273,-0.0328231,-0.0041681193,0.21300995,-0.23819065,-0.3678448,-0.00082928315,-0.008419726,-0.121815294,0.20610443,0.4801695,-0.54600817,0.015809283,0.30107662,0.6518099,0.078962564
2025-07-21 14:14:57.199,0.34,340,17,-0.044073075,0.02593058,0.006055383,0.029284175,0.011942374,0.0043072035,0.0,0.0,0.0,-0.00092513766,-0.0058535635,0.003798597,-0.011580129,-0.0069406107,-0.0019596717,-0.0057879975,0.046688367,0.0035013582,0.010090199,0.02888568,0.09658814,0.028502742,0.028108517,-0.04425845,-0.018728606,0.0066727623,-0.035825133,0.047346853,-0.03637727,-0.13781345,-0.026026223,0.042659763,0.16073523,-0.00023368215,-0.23819065,-0.3678448,-0.00082928315,-0.008419726,-0.121815294,0.20610443,0.4801695,-0.54600817,0.015809283,0.30107662,0.6518099,0.078962564,-0.0071831495,-0.08675018,-0.32719162,-0.13130052,0.11366968,0.37554854,0.08023471,0.06732513,0.41021204,0.2640671,0.04734784,0.15293208
2025-07-21 14:14:57.219,0.36000000000000004,360,18,0.05819427,0.07718877,0.06753729,-0.028330682,0.04041754,0.00033414236,0.0,0.0,0.0,-0.0010043783,-0.009689767,-0.0075052804,-0.024316702,-0.02257387,-0.0017478734,0.0021615115,0.03327288,-0.003978796,0.013392871,0.028683791,0.07846133,0.031589787,-0.06858856,0.0051208036,-0.030216906,-0.07731341,-0.043170348,-0.004152723,0.0061121373,0.05302892,0.02158021,0.067822024,-0.03487425,-0.015334472,-0.0071831495,-0.08675018,-0.32719162,-0.13130052,0.11366968,0.37554854,0.08023471,0.06732513,0.41021204,0.2640671,0.04734784,0.15293208,-0.2068849,0.17979902,0.08021447,0.12872103,0.08199544,0.037598535,0.11403069,-0.028718784,0.20176293,0.12966251,-0.10098699,0.17622168
2025-07-21 14:14:57.239,0.38000000000000006,380,19,-0.044390902,0.060311794,-0.008153913,-0.03999016,0.0039062984,-0.009496679,0.0,0.0,0.0,-0.0014103993,-0.010857033,0.0063030906,-0.017592097,-0.024934558,0.016066382,-0.002092706,0.040671293,-0.015444283,0.012937143,0.037041385,0.075795054,0.026254699,-0.06329997,0.0564982,-0.0018066899,0.03787836,-0.007985582,0.040786766,0.06696428,-0.031936117,-0.0069944896,-0.051116824,-0.034245342,0.071147,-0.2068849,0.17979902,0.08021447,0.12872103,0.08199544,0.037598535,0.11403069,-0.028718784,0.20176293,0.12966251,-0.10098699,0.17622168,-0.14334616,-0.108999744,-0.10282493,-0.011723835,-0.011348613,0.05091675,0.33017877,-0.015131906,0.059217274,0.18649583,0.19025902,0.18787657
2025-07-21 14:14:57.264,0.4000000000000001,400,20,0.010618444,0.047234666,0.01414845,0.038488925,0.05295775,0.029235104,0.0,0.0,0.0,-0.00095241424,-0.01447914,-0.010627095,-0.023551088,-0.008415179,0.012262994,0.0035472394,0.038830943,-0.004536541,0.006926393,0.03648253,0.06569473,0.026659075,0.0061375042,-0.06695643,-0.028127164,0.058645267,0.008305391,-0.019566003,0.010830726,-0.010722379,0.023558352,-0.0070696287,0.073989615,-0.022333123,-0.14334616,-0.108999744,-0.10282493,-0.011723835,-0.011348613,0.05091675,0.33017877,-0.015131906,0.059217274,0.18649583,0.19025902,0.18787657,-0.19678822,0.006980112,-0.083212376,0.032798674,0.003317561,0.10051653,0.18585923,-0.07532863,0.23459615,0.14031662,0.034329433,0.14959934
2025-07-21 14:14:57.281,0.4200000000000001,420,21,-0.023289409,0.058859825,-0.00052295544,-0.028616194,-0.033006363,-0.005979828,0.0,0.0,0.0,-0.0009020313,-0.011703811,-0.006226057,-0.03203341,-0.007944019,0.004827205,-0.0025535617,0.0418162,-0.012417776,0.019653197,0.029116757,0.06711544,0.025911842,-0.015088708,-0.03865911,-0.050938968,0.06323831,0.024403594,-0.061895456,0.05117746,-0.018188199,0.062164105,-0.05147266,-0.04529724,0.058438353,-0.19678822,0.006980112,-0.083212376,0.032798674,0.003317561,0.10051653,0.18585923,-0.07532863,0.23459615,0.14031662,0.034329433,0.14959934,-0.16788644,0.13312583,-0.052437533,0.01845124,-0.13392806,0.08049236,0.22029677,-0.060377434,0.21688639,0.09897875,0.26724997,0.19292805
2025-07-21 14:14:57.299,0.4400000000000001,440,22,0.044619627,0.02314831,0.02901621,0.027933612,-0.038574357,-0.035576165,0.0,0.0,0.0,-0.00074920757,-0.013117492,-0.0052145645,-0.036418177,-0.004512706,0.004566075,0.0015369755,0.029606882,-0.017333968,0.01671785,0.033276822,0.074931294,0.01709967,0.018906295,0.072101004,-0.042721745,-0.04233237,-0.054546446,0.03218712,-0.004359087,-0.030158019,0.04121255,-0.04044866,0.063669026,-0.07860128,-0.16788644,0.13312583,-0.052437533,0.01845124,-0.13392806,0.08049236,0.22029677,-0.060377434,0.21688639,0.09897875,0.26724997,0.19292805,-0.108659685,-0.0642656,-0.05482233,0.017565545,0.03942413,0.029065043,0.26579556,0.06363104,0.019031145,0.16982436,-0.19804266,0.19219072
2025-07-21 14:14:57.319,0.46000000000000013,460,23,-0.018471686,0.047268104,-0.0077722697,0.018513927,-0.041322824,-0.048459794,0.0,0.0,0.0,-0.00039829395,-0.017239539,0.00091505644,-0.02292193,-0.018319437,-0.010836638,-0.00029926107,0.036694925,-0.010168041,0.0049847644,0.02657756,0.06259702,0.01626652,-0.02232608,-0.060123008,0.025413742,0.010134957,-0.074192785,-0.06962745,-0.0261249,0.017735444,-0.056887884,0.017298482,-0.06641236,-0.017450625,-0.108659685,-0.0642656,-0.05482233,0.017565545,0.03942413,0.029065043,0.26579556,0.06363104,0.019031145,0.16982436,-0.19804266,0.19219072,-0.3115027,0.097958416,0.14512938,0.010215279,0.23613743,-0.021030873,0.16094396,0.08129949,0.07858218,0.073915474,0.21820372,0.3485464
2025-07-21 14:14:57.339,0.48000000000000015,480,24,0.08601966,0.03505731,-0.012665141,0.026256219,-0.033274014,0.047094338,0.0,0.0,0.0,0.00034071892,-0.014996648,0.0011996948,-0.02046591,-0.02348821,0.007115429,-0.018616807,0.039874554,2.750545e-05,0.007977851,0.02517074,0.0597081,0.028796634,-0.06803193,0.064591974,0.013242146,-0.015705636,0.016078632,-0.03593488,-0.07639871,-0.00646208,0.023204204,-0.02779665,-0.016204316,-0.035449978,-0.3115027,0.097958416,0.14512938,0.010215279,0.23613743,-0.021030873,0.16094396,0.08129949,0.07858218,0.073915474,0.21820372,0.3485464,-0.20748308,-0.25597125,-0.027173344,0.029088866,0.08166717,0.020669866,0.3567333,-0.092897296,-0.08630939,0.20297739,0.12541397,0.09592503
2025-07-21 14:14:57.365,0.5000000000000001,500,25,-0.0042302585,-0.0014939673,0.049755387,0.036686156,0.009333116,0.043172617,0.0,0.0,0.0,0.00034342575,-0.006982269,-0.0010800901,-0.013964973,-0.007789056,0.0057512843,-0.012269596,0.040413816,0.002691136,0.005327736,0.026361011,0.061275806,0.022766836,0.012208299,-0.08608864,0.07057418,-0.03690198,0.026620632,-0.006580304,-0.032556053,-0.08548575,-0.062017933,0.0021223058,-0.046794698,0.020960893,-0.20748308,-0.25597125,-0.027173344,0.029088866,0.08166717,0.020669866,0.3567333,-0.092897296,-0.08630939,0.20297739,0.12541397,0.09592503,-0.19808584,0.22903895,0.045615155,0.07138933,0.03226926,-0.059417386,0.12005542,0.13203147,0.26033187,0.021166012,0.17810827,0.27940688
2025-07-21 14:14:57.382,0.5200000000000001,520,26,0.07047515,0.044354737,-0.07487075,-0.017349882,0.021347687,-0.04814267,0.0,0.0,0.0,-0.00045757255,-0.021850474,0.0058981786,-0.025226984,-0.017873313,0.019669443,-0.0073161926,0.033380684,0.001162427,0.0052044885,0.025377262,0.06027172,0.029276878,-0.066055365,0.036969893,0.00091879076,0.0727035,-0.014376491,-0.061973173,0.04214583,0.024280526,0.0121571,-0.02932909,-0.02182411,-0.012489713,-0.19808584,0.22903895,0.045615155,0.07138933,0.03226926,-0.059417386,0.12005542,0.13203147,0.26033187,0.021166012,0.17810827,0.27940688,-0.23067269,-0.2508051,-0.06473847,-0.045701463,-0.0035973378,0.15764692,0.3426834,-0.25965148,0.077879205,0.266418,0.41829035,0.1363544
2025-07-21 14:14:57.399,0.5400000000000001,540,27,-0.07251995,-0.0030205578,0.024398062,-0.01427384,-0.021713741,0.026618704,0.0,0.0,0.0,0.0001461015,-0.026188988,-0.014806355,-0.016626492,-0.024341999,0.022383867,-0.011819775,0.03753405,-0.0018045055,0.0047377553,0.02712543,0.08307425,0.013243354,-0.08208919,-0.0018792319,0.041781154,-0.022561919,-0.0054006185,-0.024336869,0.061995383,-0.103822835,-0.030691031,0.06910707,-0.024711814,-0.07577465,-0.23067269,-0.2508051,-0.06473847,-0.045701463,-0.0035973378,0.15764692,0.3426834,-0.25965148,0.077879205,0.266418,0.41829035,0.1363544,-0.13002992,0.061271533,-0.19787277,-0.116040155,0.10307239,0.15280487,0.14680114,-0.0075193793,0.35161573,0.23952504,0.3475151,0.16817875
2025-07-21 14:14:57.419,0.5600000000000002,560,28,0.08143892,-0.014751657,0.019948378,0.009329699,-0.05456925,0.022221852,0.0,0.0,0.0,-0.00056875363,-0.01167492,-0.007250159,-0.02523879,-0.014269626,0.018471884,-0.0069237244,0.035182618,-0.01714377,0.008658613,0.029548878,0.0981927,0.02444472,-0.010795356,0.0490459,-0.027098242,-0.01370086,0.007209304,0.02429114,-0.006358038,0.07015734,0.07342567,-0.040711146,0.013731108,0.049024478,-0.13002992,0.061271533,-0.19787277,-0.116040155,0.10307239,0.15280487,0.14680114,-0.0075193793,0.35161573,0.23952504,0.3475151,0.16817875,-0.13703346,-0.056525044,-0.017028134,0.10676661,-0.16288012,0.081230864,0.22923407,-0.2315047,0.039526995,0.25840896,-0.0877956,0.08660799
2025-07-21 14:14:57.440,0.5800000000000002,580,29,-0.110241756,-0.047741886,-0.044649333,-0.006483359,0.015173738,-0.040517166,0.0,0.0,0.0,-0.0011686925,-0.012985814,-0.016426926,-0.01856316,-0.010184637,0.0038518845,-0.012047425,0.032387923,-0.02574877,0.01979772,0.03933912,0.084625594,0.026337191,0.017293772,-0.0613127,-0.06387711,-0.03496174,-0.02022875,-0.01739972,-0.06543027,-0.047411855,-0.021098636,0.05902588,-0.08802502,-0.031226927,-0.13703346,-0.056525044,-0.017028134,0.10676661,-0.16288012,0.081230864,0.22923407,-0.2315047,0.039526995,0.25840896,-0.0877956,0.08660799,-0.2468754,0.098902434,-0.19496083,-0.074901715,0.14770271,0.20780897,0.21189466,-0.08299398,0.3624642,0.063307986,0.60075986,0.29200643
2025-07-21 14:14:57.465,0.6000000000000002,600,30,0.023436984,0.045381688,0.015353905,-0.015962124,0.022151737,-0.023521915,0.0,0.0,0.0,-0.00079955155,-0.0094378535,-0.0015618302,-0.033219755,-0.011798197,0.016210064,0.0010786324,0.04835708,-0.0190829,0.025368348,0.019506972,0.096425004,0.0227154,0.03163359,0.050112158,0.041105837,-0.07040908,-0.020885684,-0.045614395,-0.046418596,-0.0067338515,-0.03132383,0.057847932,0.13598676,0.048664182,-0.2468754,0.098902434,-0.19496083,-0.074901715,0.14770271,0.20780897,0.21189466,-0.08299398,0.3624642,0.063307986,0.60075986,0.29200643,-0.09749339,-0.09656886,-0.07980302,0.12533297,-0.14752464,0.21191077,0.10146594,-0.05630149,0.11406593,0.19998573,-0.24728084,0.023014855
2025-07-21 14:14:57.482,0.6200000000000002,620,31,-0.10461317,-0.03716577,-0.06899787,0.020161152,-0.053001832,-0.011305052,0.0,0.0,0.0,-0.0010295912,-0.014951513,-0.00620899,-0.021590596,-0.0143692875,0.0007601663,-0.0074373935,0.03381033,-0.018900365,0.012701758,0.023452424,0.08953543,0.02230883,0.036161516,-0.032433297,0.030553358,-0.023383632,0.017354855,0.0445303,0.028591659,0.016882783,0.0069298167,-0.054668132,-0.031207453,0.034694012,-0.09749339,-0.09656886,-0.07980302,0.12533297,-0.14752464,0.21191077,0.10146594,-0.05630149,0.11406593,0.19998573,-0.24728084,0.023014855,-0.191306,0.0018298011,-0.09796621,0.048267122,0.023692645,0.29761547,0.25656277,-0.33079463,0.11834645,0.147206,0.41216764,0.118015215
2025-07-21 14:14:57.502,0.6400000000000002,640,32,-0.0191803,0.03783687,0.08719868,0.029955084,-0.0032953937,0.030682152,0.0,0.0,0.0,-0.00048634474,-0.024185702,-0.010566454,-0.034909103,-0.016035862,0.008251303,-0.0013106978,0.04641401,-0.035423677,0.015102388,0.02979514,0.09489366,0.015233777,-0.06018081,0.05968681,-0.01785065,0.023668537,-0.0083597945,0.080224425,0.06527526,-0.10411633,0.011057421,0.06714982,0.06582262,0.01697411,-0.191306,0.0018298011,-0.09796621,0.048267122,0.023692645,0.29761547,0.25656277,-0.33079463,0.11834645,0.147206,0.41216764,0.118015215,0.018240795,0.0852638,-0.18846165,0.02530184,-0.06713469,0.08166735,0.14216906,0.2087897,0.23496932,0.17486723,-0.13801745,0.22322115
2025-07-21 14:14:57.522,0.6600000000000003,660,33,-0.023525039,-0.08747667,-0.15896697,-0.026887547,-0.05199472,-0.047557477,0.0,0.0,0.0,-0.0004978234,-0.0033101887,0.008360429,-0.03384487,-0.0016957789,-0.0038043074,-0.0030755138,0.040214393,-0.02596164,0.008261556,0.032495666,0.086874016,0.023876734,-0.023067413,-0.025695523,-0.033947784,0.070001155,0.054503024,0.01477833,0.0046544326,0.0016664036,0.0817842,0.008668649,-0.013646392,-0.024743062,0.018240795,0.0852638,-0.18846165,0.02530184,-0.06713469,0.08166735,0.14216906,0.2087897,0.23496932,0.17486723,-0.13801745,0.22322115,-0.15202063,-0.113171354,-0.29196745,-0.0755475,-0.053352572,0.4737302,0.3261192,-0.5593633,0.30067307,0.37418228,0.7636851,0.124045625
2025-07-21 14:14:57.547,0.6800000000000003,680,34,-0.020717675,-0.010426031,0.10416905,-0.001978991,-0.031880643,-0.013854116,0.0,0.0,0.0,0.00081684283,-0.01571642,-0.008762056,-0.03547212,-0.016538547,-0.011247476,0.01616698,0.048124053,-0.046139732,0.022747666,0.022793485,0.11368907,0.023835601,0.034570266,-0.07839049,-0.033748247,-0.022024343,-0.07870566,0.05666624,0.08423578,-0.1364105,0.016564617,-0.04734968,0.13780184,-0.057165384,-0.15202063,-0.113171354,-0.29196745,-0.0755475,-0.053352572,0.4737302,0.3261192,-0.5593633,0.30067307,0.37418228,0.7636851,0.124045625,0.1039975,0.37302703,-0.25083348,0.042843472,0.024648905,0.3568756,-0.09592421,0.24947974,0.59362555,0.11372115,-0.13443592,0.1969457
2025-07-21 14:14:57.565,0.7000000000000003,700,35,0.08209991,0.044722456,-0.09232571,0.02636856,-0.015234114,-0.014876506,0.0,0.0,0.0,0.0005289552,-0.00748444,0.016710192,-0.0340068,-0.0036956451,0.005418745,0.0027180896,0.03626684,-0.0313466,0.030620849,0.03218797,0.09375016,0.015720323,0.0010227504,0.08216719,0.06258521,0.011752659,0.0031361184,0.02763005,0.04970343,0.0445496,0.030295195,-0.04473429,-0.046371393,-0.0054400703,0.1039975,0.37302703,-0.25083348,0.042843472,0.024648905,0.3568756,-0.09592421,0.24947974,0.59362555,0.11372115,-0.13443592,0.1969457,-0.07693412,-0.092885435,-0.06507969,0.12683345,-0.037060887,0.28761604,0.38442907,-0.48713207,0.14040199,0.18407084,0.34319058,0.019224871
2025-07-21 14:14:57.585,0.7200000000000003,720,36,-0.039899725,-0.043796003,0.04939737,0.030300114,-0.053619307,-0.010561082,0.0,0.0,0.0,0.0012939573,-0.016309632,0.010309426,-0.040083487,-0.02055426,0.0014640943,0.005166466,0.03912479,-0.038231175,0.016723583,0.02436994,0.09311166,0.006526894,0.020870293,-0.083776236,0.022618422,0.062881775,0.015536697,-0.01887524,-0.009040506,-0.0037740842,0.017858291,0.051340315,-0.05373434,0.005462047,-0.07693412,-0.092885435,-0.06507969,0.12683345,-0.037060887,0.28761604,0.38442907,-0.48713207,0.14040199,0.18407084,0.34319058,0.019224871,-0.07304834,0.19367157,0.06853543,0.08721094,-0.18822193,0.033190344,0.06786302,0.20746513,0.2373691,-0.00995323,0.09420459,0.21514672
2025-07-21 14:14:57.605,0.7400000000000003,740,37,-0.027413107,-0.0041279835,-0.101878166,-0.048543144,-0.028014105,-0.04288321,0.0,0.0,0.0,0.0013567691,-0.012068,0.015136576,-0.04178462,-0.0049454058,-0.017475331,0.012423149,0.033926193,-0.035385497,0.025795583,0.021450056,0.091367416,0.027027572,0.027176714,0.034887247,0.041992396,0.0031271835,-0.025128527,-0.003153745,-0.023580577,0.038112972,0.045458894,-0.013800852,0.019563593,0.03332631,-0.07304834,0.19367157,0.06853543,0.08721094,-0.18822193,0.033190344,0.06786302,0.20746513,0.2373691,-0.00995323,0.09420459,0.21514672,-0.12834159,-0.11501469,-0.07073213,-0.10238935,0.017601877,0.2787942,0.29585513,-0.3362339,0.08861426,0.23251466,0.32788953,0.15756582
2025-07-21 14:14:57.631,0.7600000000000003,760,38,-0.028817024,0.04756023,0.09971803,-0.005361152,0.016508605,0.027277054,0.0,0.0,0.0,0.0024319065,-0.018721808,0.02029165,-0.027763313,-0.010016925,-0.011064936,0.016721139,0.046491563,-0.03706824,0.030783156,0.03318917,0.1001333,0.010656931,-0.03014408,0.04887369,-0.057318427,-0.03618749,0.05050933,0.035803948,0.0025417106,-0.027118793,0.035533298,0.028759122,0.06762391,0.043808647,-0.12834159,-0.11501469,-0.07073213,-0.10238935,0.017601877,0.2787942,0.29585513,-0.3362339,0.08861426,0.23251466,0.32788953,0.15756582,-0.04468897,0.025266757,-0.04376286,0.06441006,-0.26745164,0.0037573539,0.14871792,0.21724221,0.07223939,0.18262982,-0.32284257,0.17285149
2025-07-21 14:14:57.648,0.7800000000000004,780,39,-0.036286987,-0.08602842,-0.024313806,-0.044808023,0.043740667,-0.021730674,0.0,0.0,0.0,0.0015592457,0.0030119908,0.0038259637,-0.028502202,-0.004780408,-0.031732637,0.01013717,0.047537528,-0.030290233,0.022249807,0.025605794,0.07228111,0.01622726,-0.051598698,0.018806556,0.04334422,0.036667623,0.023125477,0.015239024,-0.029248012,0.051161252,-0.0020068474,-0.02720904,-0.029658794,-0.06375612,-0.04468897,0.025266757,-0.04376286,0.06441006,-0.26745164,0.0037573539,0.14871792,0.21724221,0.07223939,0.18262982,-0.32284257,0.17285149,-0.20682304,-0.02776377,0.030628417,-0.098079905,0.100176275,-0.05706274,0.3191754,-0.040773243,-0.024814822,0.17848164,0.19123986,0.22493619
2025-07-21 14:14:57.665,0.8000000000000004,800,40,0.079631746,-0.0031254392,0.051836334,-0.02053795,-0.015826441,0.04066986,0.0,0.0,0.0,0.001328388,-0.0043407474,-0.002401785,-0.037720226,-0.00886357,-0.01798604,0.0046509826,0.04982336,-0.009274054,0.019472474,0.029140135,0.0739993,0.0129360445,0.038256817,0.049817353,0.003727035,0.028348465,-0.019030077,0.039174564,0.03885169,0.018059263,-0.0252345,0.0146594485,-0.008431062,-0.06148902,-0.20682304,-0.02776377,0.030628417,-0.098079905,0.100176275,-0.05706274,0.3191754,-0.040773243,-0.024814822,0.17848164,0.19123986,0.22493619,-0.18119273,-0.050858006,0.08014858,-0.006973479,0.11824909,-0.07609318,0.28629148,0.035708994,-0.05782166,0.15322621,-0.13318242,0.21207921
2025-07-21 14:14:57.685,0.8200000000000004,820,41,-0.00031176832,-0.030966897,0.006094608,0.027722457,0.047541127,-0.02992798,0.0,0.0,0.0,0.001195185,-0.007749752,0.0079757925,-0.018488737,-0.00672321,-0.008086854,-0.010308248,0.042077165,-0.023863137,0.009298157,0.028761774,0.060766406,0.017891696,0.062448177,0.06287895,0.029490275,0.011045726,-0.039834984,0.008994678,-0.048486225,0.03166804,-0.036279507,-0.0051829317,-0.009636878,0.048434727,-0.18119273,-0.050858006,0.08014858,-0.006973479,0.11824909,-0.07609318,0.28629148,0.035708994,-0.05782166,0.15322621,-0.13318242,0.21207921,-0.26383966,-0.18952389,0.12580228,0.020630237,0.14347972,-0.10691731,0.35247356,0.09412108,-0.1196928,0.19257653,-0.099046975,0.31199768
2025-07-21 14:14:57.705,0.8400000000000004,840,42,-0.021535508,-0.06469933,0.035469577,0.02325127,-0.025767557,-0.013040668,0.0,0.0,0.0,0.0015204252,-0.005857701,-0.005664407,-0.022067508,-0.003455697,-0.0014976392,-0.012671586,0.034148797,-0.0106985485,-0.00244945,0.019328812,0.036238845,0.024814302,0.055996023,-0.0688608,-0.049707454,0.02254835,-0.04675477,0.050151695,0.0020859346,0.06845465,-0.056856923,-0.0424574,0.016455935,0.08264514,-0.26383966,-0.18952389,0.12580228,0.020630237,0.14347972,-0.10691731,0.35247356,0.09412108,-0.1196928,0.19257653,-0.099046975,0.31199768,-0.24063465,0.03398925,0.1781351,0.01833671,0.13691075,-0.092610806,0.24759045,0.008275434,-0.039310917,0.11612816,-0.090081036,0.35181305
2025-07-21 14:14:57.731,0.8600000000000004,860,43,0.07224247,-0.05356443,-0.0154509405,-0.02600784,-0.031425044,0.020575706,0.0,0.0,0.0,0.0016971832,-0.008475181,-0.0072449385,-0.021542622,-0.0036391916,0.015228543,-0.016435761,0.044372063,-0.009414184,-0.004550478,0.03543536,0.03754056,0.03205265,0.05164724,0.0070886584,0.053872697,-0.059162885,0.040475436,-0.051714532,-0.011805078,0.066132374,-0.06589648,-0.03226889,-0.0027650306,0.084539816,-0.24063465,0.03398925,0.1781351,0.01833671,0.13691075,-0.092610806,0.24759045,0.008275434,-0.039310917,0.11612816,-0.090081036,0.35181305,-0.28748828,-0.20993432,0.12594096,0.047604647,-0.10880009,-0.024488602,0.32352838,-0.16189368,-0.11947805,0.27430934,0.036246393,0.13305226
2025-07-21 14:14:57.749,0.8800000000000004,880,44,-0.04256832,0.010542264,0.082520954,0.035339285,-0.038880177,-0.022796493,0.0,0.0,0.0,0.0019678858,-0.010774397,-0.009564701,-0.013221343,-0.008725536,-0.0047428617,-0.015557209,0.03908013,-0.011194546,-0.010088475,0.02123535,0.022348309,0.038231187,0.021264534,-0.10399336,0.057832055,-0.06766892,0.013085725,0.040474907,-0.007342645,-0.025425587,-0.021265227,0.058412425,0.014300646,-0.04609604,-0.28748828,-0.20993432,0.12594096,0.047604647,-0.10880009,-0.024488602,0.32352838,-0.16189368,-0.11947805,0.27430934,0.036246393,0.13305226,-0.18326369,0.2641617,0.16334982,0.01022191,0.028483123,-0.12924874,0.13984716,0.107579395,0.1662292,0.03334494,-0.07376626,0.31158555
2025-07-21 14:14:57.765,0.9000000000000005,900,45,0.06963251,-0.030128239,-0.12718527,-0.010631002,-0.01424895,0.038511213,0.0,0.0,0.0,0.0013664239,-0.0052351556,-0.008594501,-0.018543245,-0.009400815,0.0048086406,-0.016618326,0.042493932,0.002011468,-0.0036649539,0.029478114,0.032442573,0.038122125,-0.013926325,0.0891525,0.03957191,-0.0057528964,-0.040154446,0.0026095577,0.04136407,-0.03335123,0.002666929,-0.039158653,-0.043273162,0.026807584,-0.18326369,0.2641617,0.16334982,0.01022191,0.028483123,-0.12924874,0.13984716,0.107579395,0.1662292,0.03334494,-0.07376626,0.31158555,-0.37182462,-0.46327817,-0.12780674,-0.019803036,0.10620999,0.30335552,0.3472822,-0.36744177,0.06828856,0.49400726,0.7192751,0.24635871
2025-07-21 14:14:57.786,0.9200000000000005,920,46,-0.047197934,0.00975342,0.2193837,-0.020784043,-0.028122691,-0.02605371,0.0,0.0,0.0,0.0022231594,-0.021256113,-0.021652887,-0.024302827,-0.0080076195,0.004983663,-0.009102128,0.03897364,-0.010771521,-0.0046730023,0.02837351,0.049397517,0.03401735,0.055113796,-0.12994011,-0.034428503,-0.013555477,0.034080114,0.056367915,0.017455576,0.0054474054,-0.017504713,0.029136306,0.16758004,0.06438839,-0.37182462,-0.46327817,-0.12780674,-0.019803036,0.10620999,0.30335552,0.3472822,-0.36744177,0.06828856,0.49400726,0.7192751,0.24635871,0.060982525,0.37625846,0.25702417,0.22729845,-0.31960762,0.10635537,-0.1955254,0.25769925,0.23236273,-0.0698493,-0.46114948,0.13229427
2025-07-21 14:14:57.805,0.9400000000000005,940,47,-0.0092715,-0.05099348,-0.10495338,-0.042962573,0.031601306,-0.00865812,0.0,0.0,0.0,0.00026118648,-0.010374751,-0.0094261905,-0.015515729,-0.0031572566,-0.0018320516,-0.008804843,0.041999027,-0.015078557,0.008145721,0.023502246,0.067557104,0.028482601,0.020833746,0.096528,-0.017968621,-0.014153238,-0.047325715,0.052507594,-0.06550437,0.11670506,-0.015495968,0.05084695,0.027373893,0.0035037494,0.060982525,0.37625846,0.25702417,0.22729845,-0.31960762,0.10635537,-0.1955254,0.25769925,0.23236273,-0.0698493,-0.46114948,0.13229427,-0.12516917,-0.2407166,-0.02193321,-0.06256011,-0.055591434,0.19992894,0.44908467,-0.4070438,-0.08327122,0.20938191,0.15388961,0.02584963
2025-07-21 14:14:57.832,0.9600000000000005,960,48,0.08020223,0.010580704,-0.029954175,-0.015987748,0.038009517,0.027832352,0.0,0.0,0.0,0.0010193747,-0.010536953,-0.013756103,-0.012968897,-0.0041445056,-0.01722798,0.00046463977,0.04237325,-0.03471263,0.006544039,0.025947655,0.056044083,0.031856716,0.06662168,0.035166457,-0.036050815,0.015974155,0.027430695,-0.06565345,0.0055202763,-0.0767007,-0.036851034,-0.018986205,-0.049418945,0.041480307,-0.12516917,-0.2407166,-0.02193321,-0.06256011,-0.055591434,0.19992894,0.44908467,-0.4070438,-0.08327122,0.20938191,0.15388961,0.02584963,-0.23395322,-0.098249,-0.20358084,-0.07157011,0.06092594,0.13446231,0.2851152,-0.0024028718,0.24643268,0.21609455,0.42259285,0.17227982
2025-07-21 14:14:57.849,0.9800000000000005,980,49,0.05176531,-0.006207375,0.01811895,-0.027968597,0.012361272,0.01926256,0.0,0.0,0.0,0.0017092506,-0.003734765,-0.015893012,-0.02536618,-0.018606417,-0.0113386465,0.0012631543,0.039334405,-0.02853163,0.015600286,0.0298113,0.08055201,0.018797677,-0.06190066,0.020703834,-0.053750187,0.059725083,-0.03815962,-0.06140039,0.05827642,-0.013082821,-0.030287953,-0.06911239,0.1103475,-0.07904612,-0.23395322,-0.098249,-0.20358084,-0.07157011,0.06092594,0.13446231,0.2851152,-0.0024028718,0.24643268,0.21609455,0.42259285,0.17227982,-0.06374118,-0.011043059,-0.15305017,-0.003685791,0.07701789,0.11267844,0.1762113,-0.03327489,0.13368352,0.27773225,-0.111242205,0.07305713
2025-07-21 14:14:57.866,1.0000000000000004,1000,50,-0.019957457,-0.076384336,-0.077522084,0.012429676,-0.041788515,-0.030644597,0.0,0.0,0.0,0.0012619187,-0.015215731,-0.0129024675,-0.03128396,-0.013371694,-0.013084907,-0.011615681,0.04057016,-0.03054904,0.0148625,0.03221513,0.066282794,0.01436263,0.07339444,0.0614218,0.008440106,0.010097642,0.002136813,-0.06677785,0.06304033,0.017400863,-0.028633263,-0.045571454,-0.10012763,-0.046977695,-0.06374118,-0.011043059,-0.15305017,-0.003685791,0.07701789,0.11267844,0.1762113,-0.03327489,0.13368352,0.27773225,-0.111242205,0.07305713,-0.27869305,-0.13147327,-0.059715297,-0.014380563,0.13363266,0.17526074,0.39854485,-0.28369838,0.042241395,0.31186232,0.5618751,0.14865746
2025-07-21 14:14:57.886,1.0200000000000005,1020,51,-0.05471875,0.009558399,0.07232158,-0.044700637,0.019327631,-0.046759438,0.0,0.0,0.0,0.0018859353,-0.0069593396,-0.012632068,-0.018621806,-0.018055128,-0.0025041127,-0.009649643,0.042919338,-0.024883728,0.00130528,0.033295374,0.09837719,0.010367796,-0.026352013,0.017280018,0.028331287,-0.011385946,-0.044959027,0.051909357,0.018364344,0.030681638,-0.07272162,-0.02527256,0.1249944,-0.04202753,-0.27869305,-0.13147327,-0.059715297,-0.014380563,0.13363266,0.17526074,0.39854485,-0.28369838,0.042241395,0.31186232,0.5618751,0.14865746,-0.05321586,-0.0021494422,0.05693652,0.01632544,0.06238758,0.08344555,0.15333462,0.020769075,0.0037083775,0.21509476,-0.3796853,0.08444023
2025-07-21 14:14:57.906,1.0400000000000005,1040,52,0.02297865,-0.011863543,-0.079541795,0.016906617,-0.04047674,0.010013756,0.0,0.0,0.0,0.0009739761,-0.015397455,-0.030153837,-0.028818658,-0.019886225,0.015061162,0.002362153,0.049272183,-0.025016397,0.007807202,0.029771695,0.07653685,0.018279368,-0.044498235,-0.04261365,0.028378043,0.07328425,-0.017828489,0.02333984,-0.02554181,0.08275654,-0.022501737,-0.076291986,-0.04846898,0.07444628,-0.05321586,-0.0021494422,0.05693652,0.01632544,0.06238758,0.08344555,0.15333462,0.020769075,0.0037083775,0.21509476,-0.3796853,0.08444023,-0.32891518,-0.042763203,0.031922307,-0.0016741641,0.11530733,0.24636067,0.30149564,-0.35298723,0.026116177,0.15643516,0.5717157,0.14260252
2025-07-21 14:14:57.932,1.0600000000000005,1060,53,-0.022739833,-0.017065061,0.103894256,-0.00821844,-0.010765335,-0.0230798,0.0,0.0,0.0,0.0010590338,-0.020164486,-0.0208605,-0.031949032,-0.019535024,0.016568668,0.0066966284,0.05772094,-0.037348133,0.0045971833,0.03390527,0.08527893,0.010618972,0.055253487,0.0058898767,-0.005696502,-0.0058293305,-0.007630015,-0.00352073,-0.008777984,-0.024405126,0.007670883,-0.03332627,0.06386625,0.057831295,-0.32891518,-0.042763203,0.031922307,-0.0016741641,0.11530733,0.24636067,0.30149564,-0.35298723,0.026116177,0.15643516,0.5717157,0.14260252,-0.020969406,0.11499537,0.0861212,0.13653804,-0.18177684,0.04202703,0.07098296,0.22410943,0.10726299,0.09281875,-0.2616577,0.16897999
2025-07-21 14:14:57.949,1.0800000000000005,1080,54,-0.062457293,-0.01024781,-0.14787216,0.038793094,0.044343416,-0.01902397,0.0,0.0,0.0,1.9258177e-06,-0.0096617425,-0.02049714,-0.020994654,-0.020393468,-0.0055170837,-0.0101898555,0.0492083,-0.02435112,-0.00069565617,0.032414883,0.081926614,0.017817423,0.06726682,-0.015294784,0.01632919,-0.043032497,0.04340294,0.0054264176,-0.023434846,0.123624824,-0.061536383,0.008487315,-0.12197578,0.07027276,-0.020969406,0.11499537,0.0861212,0.13653804,-0.18177684,0.04202703,0.07098296,0.22410943,0.10726299,0.09281875,-0.2616577,0.16897999,-0.3336692,-0.18542711,0.09343377,0.0025485866,-0.07330072,0.38941377,0.37636334,-0.63526016,0.018425032,0.23999454,0.7657099,0.096093774
2025-07-21 14:14:57.966,1.1000000000000005,1100,55,0.025896363,0.08262086,0.008611563,0.03488458,-0.029019874,0.03715503,0.0,0.0,0.0,0.0006066355,-0.022306312,-0.01556173,-0.019679291,-0.015211622,-0.0051723146,0.0012985583,0.043784536,-0.05844833,0.003766472,0.022423752,0.09871867,0.02285817,-0.0304986,0.05190723,-0.013670994,0.026444055,0.062053792,0.07748707,-0.032448374,-0.10906369,0.064890176,0.013732251,0.13181695,-0.019910095,-0.3336692,-0.18542711,0.09343377,0.0025485866,-0.07330072,0.38941377,0.37636334,-0.63526016,0.018425032,0.23999454,0.7657099,0.096093774,0.024223864,-0.13996065,-0.35675237,-0.07706553,-0.102542035,0.31352156,0.214739,-0.006970033,0.27197763,0.28392854,0.06619623,0.05503982
2025-07-21 14:14:57.987,1.1200000000000006,1120,56,-0.04680742,-0.012328577,-0.06635085,-0.04364235,0.0129501745,0.012197895,0.0,0.0,0.0,0.00040736527,-0.009527255,-0.031837985,-0.02467458,-0.009252599,-0.013462307,0.018407006,0.05727272,-0.054623388,0.007510136,0.027049182,0.087648645,0.011654022,0.017300064,-0.08044734,0.013458553,0.03081417,-0.049378842,-0.044667456,0.047751542,0.060124904,-0.042081047,-0.01083815,-0.075460225,0.05645414,0.024223864,-0.13996065,-0.35675237,-0.07706553,-0.102542035,0.31352156,0.214739,-0.006970033,0.27197763,0.28392854,0.06619623,0.05503982,-0.28628618,0.19679973,-0.1418783,0.055623796,0.25656945,0.449561,0.10361141,-0.43330342,0.42447817,0.053585894,0.6294159,0.1693417
2025-07-21 14:14:58.006,1.1400000000000006,1140,57,0.040690064,0.040568326,0.13453536,0.038721852,-0.008496361,-0.021688184,0.0,0.0,0.0,0.0007841084,-0.009732543,-0.0060983594,-0.025843807,-0.02567859,-0.001360192,0.012257227,0.04921884,-0.05843825,0.004172258,0.02085544,0.11581673,0.009775672,0.019251857,0.08318356,0.007407542,-0.060484156,-0.03467528,-0.026749255,0.036136385,0.017464284,-0.027062831,-0.021099705,0.13602227,0.028336681,-0.28628618,0.19679973,-0.1418783,0.055623796,0.25656945,0.449561,0.10361141,-0.43330342,0.42447817,0.053585894,0.6294159,0.1693417,-0.04617904,0.017697414,0.06908925,0.34126896,-0.35845906,0.1629204,0.011771843,0.2875958,0.090369605,0.20653357,-0.57241285,0.14418536
2025-07-21 14:14:58.032,1.1600000000000006,1160,58,-0.076245815,-0.013253694,-0.1023069,-0.015822636,0.038230147,0.048288453,0.0,0.0,0.0,-0.0003687746,-0.0033244633,-0.004526804,-0.016072402,-0.0144100245,-0.0010653336,0.012970123,0.04117844,-0.040645633,-0.00010604129,0.023166373,0.08337374,0.020760136,0.075725034,0.062463928,0.07122128,0.07158158,0.0115744835,-0.024809556,-0.031443622,0.07544971,-0.07826339,-0.010388764,-0.029767357,0.042692844,-0.04617904,0.017697414,0.06908925,0.34126896,-0.35845906,0.1629204,0.011771843,0.2875958,0.090369605,0.20653357,-0.57241285,0.14418536,-0.18092147,-0.26077834,-0.00035737827,0.027797665,-0.07464958,0.21160336,0.39079472,-0.27920032,-0.0917647,0.12306999,0.34160492,0.02500097
2025-07-21 14:14:58.049,1.1800000000000006,1180,59,0.02702867,-0.02412412,0.0955433,0.042803265,-0.008002557,-0.011914907,0.0,0.0,0.0,-8.986669e-05,-0.013256544,-0.027554179,-0.020552615,-0.009901167,-0.015065458,0.018759936,0.051370934,-0.05423811,-0.006266103,0.020792376,0.09448529,0.008660455,-0.023025848,-0.102572806,0.051464073,0.063688725,0.03295037,-0.031740807,-0.044521797,-0.08779492,-0.057586525,-0.06303059,0.08256819,0.020588135,-0.18092147,-0.26077834,-0.00035737827,0.027797665,-0.07464958,0.21160336,0.39079472,-0.27920032,-0.0917647,0.12306999,0.34160492,0.02500097,-0.008267775,0.36735043,0.089582995,0.14063491,-0.1502566,-0.03910425,-0.12361315,0.4646229,0.27582777,-0.026084006,-0.14220005,0.28328615
2025-07-21 14:14:58.066,1.2000000000000006,1200,60,0.03564232,0.022987463,-0.10332867,0.023026366,-0.010870216,-0.022566846,0.0,0.0,0.0,-0.00044250127,-0.013665293,0.004589195,-0.018790655,-0.011000262,-0.01230725,0.0030406173,0.030464021,-0.02616014,0.00017457997,0.01648002,0.081359975,0.019197037,0.047408074,0.03474113,-0.06537039,0.033077087,0.018458994,-0.04438812,0.023652239,0.15115653,-0.01026054,-0.010178507,-0.10826344,0.004069606,-0.008267775,0.36735043,0.089582995,0.14063491,-0.1502566,-0.03910425,-0.12361315,0.4646229,0.27582777,-0.026084006,-0.14220005,0.28328615,-0.1466508,-0.14596124,0.1828881,-0.020332608,-0.17518258,0.08190191,0.36814806,-0.43922353,-0.10697262,0.22477539,0.41652462,0.09786606
2025-07-21 14:14:58.087,1.2200000000000006,1220,61,-0.01450187,-0.0018217339,-0.021128196,-0.01928196,0.036344487,-0.027971353,0.0,0.0,0.0,0.0006454718,-0.011703179,-0.0076585226,-0.012871104,0.0044692806,-0.0198679,0.010478085,0.02951068,-0.018010184,-0.0046203546,0.022634787,0.09030427,0.0033497051,0.006566462,-0.082654804,0.017544957,-0.03530301,0.051026493,0.02039723,-0.012402275,-0.07433454,-0.08154053,0.058852933,-0.035560142,-0.008424801,-0.1466508,-0.14596124,0.1828881,-0.020332608,-0.17518258,0.08190191,0.36814806,-0.43922353,-0.10697262,0.22477539,0.41652462,0.09786606,-0.18977389,0.108049445,-0.10548477,-0.1790074,0.092545524,0.12853263,0.22488207,-0.022393182,0.35455185,0.16718288,0.43926236,0.19405906
2025-07-21 14:14:58.107,1.2400000000000007,1240,62,0.06452655,0.05783647,0.04874158,-0.05005869,0.019692888,-0.039405372,0.0,0.0,0.0,0.0008779551,-0.0072062835,0.0075044814,-0.0096627455,-0.008811332,-0.018255444,0.0018338242,0.04603492,-0.03381401,0.0053956932,0.022182286,0.092327274,0.0056412756,0.021034444,0.037490934,0.035514005,0.042439856,0.019160263,-0.07770732,0.002831613,-0.02021833,0.017437475,-0.057369478,0.09560341,0.06662874,-0.18977389,0.108049445,-0.10548477,-0.1790074,0.092545524,0.12853263,0.22488207,-0.022393182,0.35455185,0.16718288,0.43926236,0.19405906,-0.08322242,0.025130657,0.040839147,0.15940288,-0.15822169,0.029196206,0.16082734,0.1470548,0.10203138,0.15959798,-0.3307791,0.1356038
2025-07-21 14:14:58.132,1.2600000000000007,1260,63,-0.097627476,-0.063065596,-0.07905389,0.016534304,-0.011203079,-0.022414878,0.0,0.0,0.0,0.0004437005,-0.00023601309,0.0050499095,-0.022588164,0.0043404866,-0.011936546,-0.0039528655,0.038250413,-0.016805505,-0.0002089345,0.020828757,0.1013505,0.010883315,-0.053871386,0.0025206914,-0.062138706,0.053273465,-0.059006948,-0.0825599,0.011702332,0.06579533,0.035789266,-0.007190125,-0.015019199,-0.0053128707,-0.08322242,0.025130657,0.040839147,0.15940288,-0.15822169,0.029196206,0.16082734,0.1470548,0.10203138,0.15959798,-0.3307791,0.1356038,-0.21267745,-0.081787184,-0.069217384,-0.068220496,0.13074361,0.14147525,0.35728604,-0.24358661,0.02170325,0.22016259,0.30069733,0.23156637
2025-07-21 14:14:58.149,1.2800000000000007,1280,64,0.07075832,0.011396539,-0.033250943,-0.0033129246,0.03591982,0.023729509,0.0,0.0,0.0,0.0017566235,-0.012938057,0.0006741849,-0.015767483,-0.015766338,-0.015089792,-0.0038001572,0.03461553,-0.022989944,-0.0019347805,0.02991199,0.09382654,0.02341613,-0.007821786,-0.0034569595,-0.028402,-0.02171014,0.011517167,0.04840246,-0.008167983,0.027810257,0.03660012,-0.0045688516,0.038380895,0.024092427,-0.21267745,-0.081787184,-0.069217384,-0.068220496,0.13074361,0.14147525,0.35728604,-0.24358661,0.02170325,0.22016259,0.30069733,0.23156637,-0.23998535,-0.19624169,-0.16123933,-0.013678793,0.08257708,0.20474075,0.28869537,-0.25556338,0.18793683,0.32560962,0.17743815,0.12999517
2025-07-21 14:14:58.167,1.3000000000000007,1300,65,-0.026056355,-0.014679865,0.09541143,0.02439997,0.012620621,0.041404698,0.0,0.0,0.0,0.002237196,-0.014888012,-0.015449678,-0.021615949,-0.013240276,-0.0076705376,-0.009325608,0.04402958,-0.0505231,0.008040807,0.030235194,0.10575028,0.0152798295,-0.08109018,-0.014214135,-0.057242386,-0.077206686,-0.050993662,0.05571625,0.077426635,0.007741287,-0.038836177,0.08564314,0.07050669,0.06940211,-0.23998535,-0.19624169,-0.16123933,-0.013678793,0.08257708,0.20474075,0.28869537,-0.25556338,0.18793683,0.32560962,0.17743815,0.12999517,-0.05196634,0.17179415,-0.13198654,0.0756609,0.0021183714,0.09736319,0.17950088,0.048999682,0.2352258,0.20609905,-0.24735954,0.2065547
2025-07-21 14:14:58.187,1.3200000000000007,1320,66,-0.060217883,-0.030139433,-0.13369125,0.03259757,-0.04420392,-0.03003874,0.0,0.0,0.0,0.0012879241,-0.007106945,0.0018424768,-0.016320726,-0.008027844,-0.00907711,-0.0010168703,0.046363883,-0.03127962,0.016986104,0.02172454,0.07449034,0.02832126,-0.015185242,0.070536666,-0.01944283,0.031644065,-0.052599095,0.059670098,-0.010185079,0.0674638,0.04058105,-0.037570257,-0.05922447,0.041949194,-0.05196634,0.17179415,-0.13198654,0.0756609,0.0021183714,0.09736319,0.17950088,0.048999682,0.2352258,0.20609905,-0.24735954,0.2065547,-0.33171403,-0.26851192,-0.107844174,-0.017601583,0.14839396,0.35674328,0.42243418,-0.45507878,0.06307666,0.36095637,0.68031186,0.2320168
2025-07-21 14:14:58.207,1.3400000000000007,1340,67,-0.011662583,-0.008845833,0.07352277,-0.02962915,-0.009665484,0.024845157,0.0,0.0,0.0,0.0020946788,-0.009461905,-0.020240774,-0.03335092,-0.002514504,0.006771609,-0.0076116263,0.0561934,-0.04941897,0.011917018,0.037856,0.09503036,0.022995405,-0.07379804,-0.05950155,-0.013301085,-0.061127655,0.039540008,-0.0105140805,0.028051332,-0.12896559,-0.0060923025,0.012136421,0.016755763,0.010075935,-0.33171403,-0.26851192,-0.107844174,-0.017601583,0.14839396,0.35674328,0.42243418,-0.45507878,0.06307666,0.36095637,0.68031186,0.2320168,-0.018213838,0.3279789,-0.24667044,-0.04185467,-0.044712625,0.18302986,-0.01911959,0.08310558,0.48000115,0.19260328,0.2532301,0.13911898
2025-07-21 14:14:58.232,1.3600000000000008,1360,68,0.051702287,0.09531134,-0.06486838,-0.017298888,0.0067000645,-0.0058391937,0.0,0.0,0.0,0.0008837596,-0.021427251,-0.004837194,-0.030174013,-0.009159191,0.00690016,0.009535986,0.036574997,-0.038126897,0.016656939,0.031804774,0.115380436,0.024017673,0.02840965,0.021336773,0.028294109,-0.026694737,0.06120059,-0.012676166,0.00330484,0.057020508,-0.056836072,0.06384068,-0.017074618,0.019971268,-0.018213838,0.3279789,-0.24667044,-0.04185467,-0.044712625,0.18302986,-0.01911959,0.08310558,0.48000115,0.19260328,0.2532301,0.13911898,-0.06929466,0.014899699,-0.038917523,0.13097353,-0.29118192,0.2981122,0.282173,-0.49968988,0.21473356,0.28110674,0.20319602,-0.05042878
2025-07-21 14:14:58.249,1.3800000000000008,1380,69,-0.12657772,0.036850814,0.026208304,0.0016408145,-0.04336508,0.049886957,0.0,0.0,0.0,0.00092221296,-0.011996434,0.012037304,-0.02141371,-0.0024325782,-0.016106352,0.011066678,0.038748473,-0.05795172,0.02502729,0.04024024,0.101035245,0.023743093,-0.06247539,-0.0705625,-0.0076875878,-0.020854432,-0.06555835,0.03807063,-0.064644426,-0.049867276,-0.060826354,-0.046824683,-0.051612195,0.031978443,-0.06929466,0.014899699,-0.038917523,0.13097353,-0.29118192,0.2981122,0.282173,-0.49968988,0.21473356,0.28110674,0.20319602,-0.05042878,-0.10540542,0.267308,-0.09387632,0.04047705,0.10792965,0.18068098,0.07858841,0.16512237,0.41016555,-0.027542219,0.18978857,0.30630776
2025-07-21 14:14:58.267,1.4000000000000008,1400,70,0.11057461,0.07820981,-0.053732626,-0.050889242,0.020595007,-0.01691801,0.0,0.0,0.0,0.0011531925,-0.013498831,0.027479783,-0.033590578,-0.01931158,-0.0020899372,5.3401705e-05,0.043065656,-0.04419774,0.01947037,0.023323873,0.10757861,0.014792245,0.06759438,0.04617893,0.027418574,-0.042191744,0.015546834,-0.031861816,-0.08021229,0.028831685,-0.054383308,0.034637384,-0.04071746,-0.015822593,-0.10540542,0.267308,-0.09387632,0.04047705,0.10792965,0.18068098,0.07858841,0.16512237,0.41016555,-0.027542219,0.18978857,0.30630776,-0.18399261,-0.12255226,0.025867004,0.07672493,-0.05048594,0.114609614,0.301752,-0.16918525,0.05371953,0.15851447,0.111606374,0.07810813
2025-07-21 14:14:58.288,1.4200000000000008,1420,71,-0.033809237,0.06792596,-0.004312327,0.03417124,-0.0040325676,0.042155348,0.0,0.0,0.0,0.0021050882,-0.025178332,0.02215512,-0.028288446,-0.017189056,-0.009305351,-0.00198522,0.038871665,-0.040847678,0.021036917,0.03084744,0.0832524,0.030886924,-0.05940975,-0.04925231,0.026791185,-0.023384847,-0.07107576,0.01963072,0.03781099,-0.07994044,-0.0023604487,0.024429291,0.042096853,0.042789515,-0.18399261,-0.12255226,0.025867004,0.07672493,-0.05048594,0.114609614,0.301752,-0.16918525,0.05371953,0.15851447,0.111606374,0.07810813,-0.13220313,0.025207927,-0.26732966,-0.08534518,0.19940801,0.23543258,0.15171099,0.03933634,0.31152666,0.20217328,0.17821658,0.2782818
2025-07-21 14:14:58.308,1.4400000000000008,1440,72,0.06465493,0.06360173,0.006190452,0.029015753,-0.030955546,0.0432553,0.0,0.0,0.0,0.0024958872,-0.014325757,0.019420698,-0.021963842,-0.020481626,-0.006049373,0.0060918317,0.049224336,-0.03452081,0.018041717,0.031372428,0.09928502,0.030887298,-0.059278123,0.05803774,-0.036035914,-0.043542523,-0.044018675,0.015746068,0.05706152,-0.0057169674,-0.0010443327,0.04058157,0.04207728,-0.056852307,-0.13220313,0.025207927,-0.26732966,-0.08534518,0.19940801,0.23543258,0.15171099,0.03933634,0.31152666,0.20217328,0.17821658,0.2782818,-0.1406965,-0.0521708,-0.185064,0.086883426,0.10068646,0.1672709,0.26767278,-0.18368222,0.11740424,0.3071049,-0.028138574,0.12245898
2025-07-21 14:14:58.332,1.4600000000000009,1460,73,-0.047776252,-0.05204367,0.06926976,0.042820547,0.01046228,-0.011462448,0.0,0.0,0.0,0.0026145522,-0.022091374,0.014930472,-0.026222903,-0.009320982,0.012663548,0.007199866,0.046264965,-0.040556524,0.024017094,0.034029957,0.0831212,0.026607651,-0.031064738,-0.021450508,-0.04527834,-0.052477557,0.07703224,0.044448353,0.02049977,0.043226283,0.002206648,0.0027418504,-0.050801028,-0.043447923,-0.1406965,-0.0521708,-0.185064,0.086883426,0.10068646,0.1672709,0.26767278,-0.18368222,0.11740424,0.3071049,-0.028138574,0.12245898,-0.15174404,0.097404815,0.024876047,0.10846147,-0.2628603,-0.06841582,0.21522868,0.028887898,0.050566856,0.16523936,-0.10348402,0.17397796
2025-07-21 14:14:58.349,1.4800000000000009,1480,74,0.026737733,0.015613708,-0.13003914,0.01914755,0.014737123,-0.03606653,0.0,0.0,0.0,0.0023161361,-0.018303445,0.00478956,-0.022761533,0.0018362191,-0.00845733,-0.008620944,0.041299332,-0.033142112,0.022844616,0.039016597,0.06115009,0.033381704,0.02877386,0.015042479,-0.007903948,-0.016316758,-0.036552407,-0.05372807,-0.027898172,-0.013005399,-0.032200254,0.030425288,-0.027926818,0.015716828,-0.15174404,0.097404815,0.024876047,0.10846147,-0.2628603,-0.06841582,0.21522868,0.028887898,0.050566856,0.16523936,-0.10348402,0.17397796,-0.34832013,-0.33859646,-0.24140589,-0.10612865,0.12809591,0.4050803,0.2876282,-0.26087588,0.15781352,0.35468966,0.7005317,0.23656893
2025-07-21 14:14:58.367,1.5000000000000009,1500,75,0.026631536,0.00052849675,0.10971922,-0.023516381,-0.017226202,-0.0173462,0.0,0.0,0.0,0.0035222992,-0.006806209,-0.009329904,-0.02999195,-0.009492599,-0.003055393,0.012966068,0.052352645,-0.04441715,0.020737726,0.040047754,0.092313804,0.025595188,-0.014478329,-0.10702794,0.0061478624,-0.0005103307,-0.023240462,0.028844347,0.04957231,-0.024815619,-0.038442925,0.028382398,0.01991566,0.0088774115,-0.34832013,-0.33859646,-0.24140589,-0.10612865,0.12809591,0.4050803,0.2876282,-0.26087588,0.15781352,0.35468966,0.7005317,0.23656893,-0.07016647,0.3778156,0.047592804,0.13263753,-0.0062592775,0.1797486,-0.09198869,0.08914983,0.34559697,0.026649334,0.013174895,0.12511413
2025-07-21 14:14:58.388,1.520000000000001,1520,76,0.047167927,-0.029718805,-0.18758844,-0.031770542,-0.028437559,-0.038069654,0.0,0.0,0.0,0.0025222362,-0.022515181,0.01156818,-0.039068937,-0.008743933,-0.008673867,-0.002045038,0.03149541,-0.04490963,0.024724882,0.02428944,0.099681154,0.014972324,-0.05806404,0.031318538,-0.05707201,-0.024604097,0.0022988336,0.06542868,-0.055035986,0.09596153,0.02298157,-0.058823075,-0.0067513282,-0.008121675,-0.07016647,0.3778156,0.047592804,0.13263753,-0.0062592775,0.1797486,-0.09198869,0.08914983,0.34559697,0.026649334,0.013174895,0.12511413,-0.06984511,-0.12447289,-0.23629878,-0.06326066,-0.07970146,0.550612,0.36035642,-0.7858625,0.29284185,0.3018872,0.6708161,0.055243786
2025-07-21 14:14:58.410,1.540000000000001,1540,77,-0.1391738,-0.050110094,0.058916755,-0.010548551,-0.011402416,-0.048829082,0.0,0.0,0.0,0.0036415947,-0.0076326556,0.0073304153,-0.041133817,-0.002736072,-0.0047873002,0.002473263,0.036799278,-0.050605323,0.02169524,0.030314222,0.12319539,0.015389935,-0.04985539,-0.008871291,-0.060070984,0.035320766,-0.0052159103,-0.024786253,0.07334837,-0.048683025,0.07417184,0.042117324,0.05751091,-0.0133282,-0.06984511,-0.12447289,-0.23629878,-0.06326066,-0.07970146,0.550612,0.36035642,-0.7858625,0.29284185,0.3018872,0.6708161,0.055243786,0.13951916,0.16470146,-0.32167596,-0.028736744,-0.11627359,0.3055309,0.052800447,0.127263,0.530319,0.12858419,-0.047107782,0.19496945
2025-07-21 14:14:58.428,1.560000000000001,1560,78,0.007198656,-0.028071765,-0.021264635,-0.04273187,0.031170722,0.02679123,0.0,0.0,0.0,0.0031692793,-0.00944459,0.010085767,-0.041109253,-0.0067195133,-0.008579606,0.019883873,0.04004922,-0.03861179,0.031674124,0.029598264,0.096247494,0.024281055,-0.026153797,-0.028438693,-0.06408818,0.01241639,0.013026092,-0.029819328,0.05521053,0.0029620903,-0.054157525,0.046945374,-0.11511635,0.022081982,0.13951916,0.16470146,-0.32167596,-0.028736744,-0.11627359,0.3055309,0.052800447,0.127263,0.530319,0.12858419,-0.047107782,0.19496945,-0.10834251,0.2001618,-0.06433579,0.07094948,0.03078875,0.21492212,0.20328997,-0.2012296,0.30129552,0.07207407,0.3536501,0.15197176
2025-07-21 14:14:58.448,1.580000000000001,1580,79,-0.0031031277,-0.009148527,0.031216487,-0.032309033,0.014014256,-0.025709698,0.0,0.0,0.0,0.0029810006,-0.0073525766,0.027788553,-0.039560914,-0.009794631,-0.011092488,0.021464078,0.04939317,-0.0388664,0.030828277,0.022375396,0.11101587,0.020036826,-0.046644434,0.07211378,-0.057922147,0.0581227,0.0074242745,-0.056998473,-0.023758437,-0.0016394277,-0.0049615526,-0.012997276,-0.052230142,0.067942284,-0.10834251,0.2001618,-0.06433579,0.07094948,0.03078875,0.21492212,0.20328997,-0.2012296,0.30129552,0.07207407,0.3536501,0.15197176,-0.06263968,-0.0042798985,0.004554171,-0.0050627477,-0.17088775,-0.00096474215,0.21627876,0.17935681,0.031875174,0.05888714,-0.05050737,0.20959587
2025-07-21 14:14:58.468,1.600000000000001,1600,80,0.07009004,0.0748945,0.036688242,0.04930332,-0.031096732,0.040313326,0.0,0.0,0.0,0.0022368075,-0.017988488,0.016276143,-0.032176558,-0.018729955,-0.025651537,0.018135779,0.039185572,-0.014162119,0.017462665,0.031491812,0.08906442,0.03330648,-0.052974444,0.062250044,-0.014523182,0.008629099,0.056063946,-0.0718119,0.059106924,0.081817396,-0.014586414,-0.03222946,-0.001525799,0.052492604,-0.06263968,-0.0042798985,0.004554171,-0.0050627477,-0.17088775,-0.00096474215,0.21627876,0.17935681,0.031875174,0.05888714,-0.05050737,0.20959587,-0.16436593,-0.19977097,0.110853255,0.051111456,-0.27304363,-0.06699495,0.17702064,0.011997625,-0.23825853,0.1670674,-0.2713291,0.11780992
2025-07-21 14:14:58.488,1.620000000000001,1620,81,-0.1377877,-0.020925697,-0.019156978,-0.014546395,0.010694914,-0.0031998232,0.0,0.0,0.0,0.001999723,-0.019753015,0.005926135,-0.02912523,-0.011336124,-0.033134565,-0.00085905637,0.048458327,-0.019025642,0.0144302705,0.023933386,0.055799767,0.033784665,-0.06610213,-0.0649032,0.078554794,-0.015907995,-0.007397036,-0.05770847,0.012832139,0.011691681,-0.07954276,-0.02639211,-0.06282658,-0.0060293176,-0.16436593,-0.19977097,0.110853255,0.051111456,-0.27304363,-0.06699495,0.17702064,0.011997625,-0.23825853,0.1670674,-0.2713291,0.11780992,-0.29990652,0.09454134,0.10223444,-0.09371656,0.15784289,0.005504109,0.119650766,-0.02859889,0.0039615035,0.09753834,0.3633305,0.3040037
2025-07-21 14:14:58.513,1.640000000000001,1640,82,0.1026672,0.03276716,0.035459653,0.037900884,-0.025064137,0.034346703,0.0,0.0,0.0,0.0026059207,-0.0064436123,0.01930682,-0.03378728,-0.010213187,-0.010552656,3.8205226e-06,0.044699337,-0.007929176,0.013214179,0.021505633,0.06287336,0.018451406,-0.027749062,-0.030614978,-0.01382708,-0.05362733,0.06465494,0.051083412,-0.022296928,-0.049804565,0.048928637,0.01290223,0.056504395,-0.07089162,-0.29990652,0.09454134,0.10223444,-0.09371656,0.15784289,0.005504109,0.119650766,-0.02859889,0.0039615035,0.09753834,0.3633305,0.3040037,-0.12479253,-0.047081053,-0.0330376,0.01616193,-0.030794844,0.03780296,0.22101966,-0.04696305,0.010009844,0.20452924,-0.052473422,0.1033711
2025-07-21 14:14:58.533,1.660000000000001,1660,83,0.015860297,0.0072363666,0.02583156,-0.021855734,-0.028497947,-0.043961395,0.0,0.0,0.0,0.0025541156,-0.014558538,-0.003542105,-0.017954856,-0.006958236,-0.024455957,-0.00355281,0.04675921,-0.007977608,0.009894264,0.019291293,0.05574071,0.015624182,-0.012668984,-0.021828566,-0.0068648504,-0.07099202,0.06827585,0.0143114915,0.027811673,0.03791899,0.044921424,0.038941022,0.023332937,-0.057851005,-0.12479253,-0.047081053,-0.0330376,0.01616193,-0.030794844,0.03780296,0.22101966,-0.04696305,0.010009844,0.20452924,-0.052473422,0.1033711,-0.19522303,0.028813599,-0.0026067607,-0.039962444,-0.032023404,-0.04766203,0.2580926,-0.103328034,0.024892785,0.25200042,-0.017464068,0.14096588
2025-07-21 14:14:58.550,1.680000000000001,1680,84,-0.0032518872,-0.048266947,-0.009049161,-0.034041442,0.01733392,0.029089969,0.0,0.0,0.0,0.0026312624,-0.020254992,-0.0025290702,-0.018796861,-0.02073074,-0.023801226,-0.007328136,0.029711358,-0.010281237,0.0029852707,0.01786794,0.0535259,0.030279536,-0.02879904,0.06975887,-0.066231586,0.03601608,0.02636212,-0.029167145,-0.021695867,-0.0052799666,-0.046391793,-0.03513322,-0.066754505,-0.015337525,-0.19522303,0.028813599,-0.0026067607,-0.039962444,-0.032023404,-0.04766203,0.2580926,-0.103328034,0.024892785,0.25200042,-0.017464068,0.14096588,-0.2215973,-0.15924351,-0.108087674,-0.09934245,0.08841999,-0.02805445,0.38811237,-0.023329094,0.033447728,0.19197972,0.28174767,0.19102727
2025-07-21 14:14:58.569,1.700000000000001,1700,85,0.033531588,0.05325478,0.09881065,0.03014666,0.037836224,0.0034552475,0.0,0.0,0.0,0.0024507795,-0.005676306,0.0039186333,-0.017841527,-0.012722431,-0.013257495,-0.005029747,0.043458473,-0.026694156,0.009317125,0.025007775,0.05355501,0.028064586,0.035703078,-0.0375787,-0.07139193,-0.058418993,-0.02874191,-0.005934332,0.06308525,-0.05079414,-0.02333091,-0.00957848,0.09888269,-0.052487187,-0.2215973,-0.15924351,-0.108087674,-0.09934245,0.08841999,-0.02805445,0.38811237,-0.023329094,0.033447728,0.19197972,0.28174767,0.19102727,-0.115366995,0.13400403,0.037452172,0.104460225,0.0182029,-0.012436703,0.1619065,0.19004421,0.14982232,0.124188006,-0.3530448,0.24753086
2025-07-21 14:14:58.589,1.720000000000001,1720,86,0.032788362,-0.018170843,-0.15307891,-0.00030979776,-0.00027609864,0.0120752575,0.0,0.0,0.0,0.0012624705,-0.0033015253,0.0021857442,-0.033396013,-0.021740079,-0.013626785,-0.009865074,0.044371974,-0.011037703,-8.2419545e-05,0.019458992,0.04709873,0.033766344,0.012723026,0.0050879647,-0.06173576,0.0855832,-0.009190061,-0.0013101888,-0.05368969,0.048277877,0.018605253,-0.05543991,-0.121717244,-0.004615546,-0.115366995,0.13400403,0.037452172,0.104460225,0.0182029,-0.012436703,0.1619065,0.19004421,0.14982232,0.124188006,-0.3530448,0.24753086,-0.39004794,-0.27504095,-0.12205838,-0.09161599,0.1301287,0.3067596,0.4487796,-0.3426683,0.11150555,0.31204128,0.96588314,0.21933019
2025-07-21 14:14:58.616,1.740000000000001,1740,87,0.050758854,0.046222165,0.17136253,-0.059045285,-0.00096539565,-0.008180317,0.0,0.0,0.0,0.002269758,-0.020463003,-0.019200673,-0.034912873,-0.015140706,-0.001804955,-0.01366033,0.055122044,-0.020094706,0.00032380334,0.029351344,0.07401484,0.021898527,-0.0057210852,-0.05246114,0.062344328,0.024372088,-0.01499782,-0.057231873,0.04382622,-0.0896302,0.01712272,0.081385955,0.07994674,-0.084848456,-0.39004794,-0.27504095,-0.12205838,-0.09161599,0.1301287,0.3067596,0.4487796,-0.3426683,0.11150555,0.31204128,0.96588314,0.21933019,0.08106716,0.42196712,0.10020675,0.19641738,-0.08451391,0.08708298,-0.17472066,0.37006456,0.34537494,-0.043839917,-0.19886148,0.074336514
2025-07-21 14:14:58.634,1.7600000000000011,1760,88,-0.029892972,-0.03483815,-0.21725649,0.037375774,0.043808762,0.04701062,0.0,0.0,0.0,0.0010117898,-0.011621891,0.0037852805,-0.031516433,-0.024232915,0.0026142995,-0.01507864,0.047091518,0.0017981102,0.009212215,0.019949984,0.067497686,0.020632518,0.026963921,0.040110286,0.01018417,0.0034704746,-0.07335263,-0.0075637754,-0.064034425,0.008077957,0.059515633,0.049127102,-0.004978624,-0.03450815,0.08106716,0.42196712,0.10020675,0.19641738,-0.08451391,0.08708298,-0.17472066,0.37006456,0.34537494,-0.043839917,-0.19886148,0.074336514,-0.25592798,-0.40293303,-0.31720126,-0.05570287,0.14015408,0.72968864,0.3306668,-0.6168099,0.2773744,0.43727386,0.8527556,0.14186227
2025-07-21 14:14:58.649,1.7800000000000011,1780,89,-0.03349904,0.01818683,0.16480203,-0.009275981,-0.031345688,-0.022562332,0.0,0.0,0.0,0.0022387016,-0.021128831,-0.010583649,-0.02099373,-0.016482828,0.008824226,-0.0018975468,0.043093827,-0.004807038,0.013415933,0.041457828,0.09334986,0.010660418,-0.029518347,-0.11522731,0.01042522,-0.031952295,0.0672513,-0.0037963528,0.07302242,-0.16396423,0.050305724,0.03693934,0.12580621,0.011069942,-0.25592798,-0.40293303,-0.31720126,-0.05570287,0.14015408,0.72968864,0.3306668,-0.6168099,0.2773744,0.43727386,0.8527556,0.14186227,0.14425993,0.46319675,-0.17662473,0.21647312,-0.37214077,0.27883133,-0.24479578,0.3197307,0.6141313,0.04524207,-0.11314632,0.025879305
2025-07-21 14:14:58.669,1.8000000000000012,1800,90,0.033080097,0.020078825,-0.16643217,0.0103320265,-0.04929464,0.017989686,0.0,0.0,0.0,0.0017044308,-0.00044641228,0.021145321,-0.028419629,-0.019977404,-0.0039602183,0.021132322,0.041006383,-0.025581678,0.013735903,0.029448563,0.09461973,0.01595904,0.026466874,0.08661109,0.0005339889,-0.023248304,-0.016947279,0.078252375,-0.040194567,0.12199888,-0.030482724,0.006578609,-0.09987789,0.005157789,0.14425993,0.46319675,-0.17662473,0.21647312,-0.37214077,0.27883133,-0.24479578,0.3197307,0.6141313,0.04524207,-0.11314632,0.025879305,-0.01802826,-0.18156233,-0.09930025,0.018613856,-0.097036906,0.5164217,0.41994599,-0.6976373,0.18984403,0.16958246,0.7116366,-0.043438267
2025-07-21 14:14:58.689,1.8200000000000012,1820,91,0.028679533,0.03759596,0.0882076,0.0003841129,-0.03122627,0.016896755,0.0,0.0,0.0,0.0026277513,-0.0095084235,0.0074171475,-0.034825627,-0.017574558,-0.019445632,0.02260974,0.045854226,-0.0344986,0.019552968,0.034391753,0.10846416,0.004862421,0.011792811,-0.0043924046,-0.02035882,-0.0421084,0.04095702,-0.009500088,-0.0055483156,-0.08600618,0.06335647,-0.03817966,0.09385468,0.0068656243,-0.01802826,-0.18156233,-0.09930025,0.018613856,-0.097036906,0.5164217,0.41994599,-0.6976373,0.18984403,0.16958246,0.7116366,-0.043438267,0.09607419,0.12389387,-0.15035564,0.0797801,-0.25305104,0.1916138,0.01354818,0.27258193,0.34178418,0.17698011,-0.19154212,0.13018924
2025-07-21 14:14:58.715,1.8400000000000012,1840,92,0.084137134,0.08869501,-0.113144614,0.014677546,0.0003952737,-0.042439826,0.0,0.0,0.0,0.002600813,-0.0030909877,0.014207051,-0.02365532,-0.0033250493,-0.030191984,0.02853288,0.044085663,-0.018061776,0.024225224,0.02186421,0.09634734,0.015805082,0.044926208,0.049008347,-0.03371245,-0.057608034,-0.00074844266,0.025370555,0.0108014615,0.018352624,0.053200684,-0.049400527,-0.13046135,-0.008774164,0.09607419,0.12389387,-0.15035564,0.0797801,-0.25305104,0.1916138,0.01354818,0.27258193,0.34178418,0.17698011,-0.19154212,0.13018924,-0.19000258,-0.1413754,-0.08222386,-0.027498174,0.14079864,0.33289155,0.3202012,-0.31628007,0.16383536,0.22549964,0.64206135,0.16471483
2025-07-21 14:14:58.733,1.8600000000000012,1860,93,0.05266992,0.011596952,0.1415588,0.032215904,-0.031862568,-0.018767511,0.0,0.0,0.0,0.00367641,0.00020446663,0.0010498781,-0.03418706,-0.008165511,-0.029058998,0.025107667,0.036568098,-0.035350475,0.023030994,0.024379151,0.0977643,0.0144128315,-0.040068462,-0.08543318,-0.046766683,0.0556275,-0.033090882,-0.03306447,-0.018908354,0.008164806,0.07367486,-0.019505873,0.0018661089,0.02391355,-0.19000258,-0.1413754,-0.08222386,-0.027498174,0.14079864,0.33289155,0.3202012,-0.31628007,0.16383536,0.22549964,0.64206135,0.16471483,-0.038472474,0.332717,0.2768715,0.30194682,-0.16006696,-0.035597783,-0.1345714,0.46331376,0.26542288,-0.030499406,-0.29860616,0.30740878
2025-07-21 14:14:58.751,1.8800000000000012,1880,94,-0.023871407,0.022009835,-0.13813831,0.004011578,0.017556706,-0.028165702,0.0,0.0,0.0,0.0026299465,0.0093229255,0.023635462,-0.01810664,-0.003248727,-0.025534196,0.022111606,0.022185462,0.0017816838,0.015052384,0.02479965,0.10550254,0.020266976,0.010620538,0.07864008,-0.022589885,0.08850979,-0.003759039,-0.025859974,0.0060166363,0.035932098,-0.0037040706,0.04553922,-0.029877225,0.018349543,-0.038472474,0.332717,0.2768715,0.30194682,-0.16006696,-0.035597783,-0.1345714,0.46331376,0.26542288,-0.030499406,-0.29860616,0.30740878,-0.116375476,-0.31943223,-0.019945685,-0.060787994,-0.061957344,0.24354354,0.49313572,-0.34156394,-0.08102195,0.18759602,0.40558752,0.07477668
2025-07-21 14:14:58.770,1.9000000000000012,1900,95,0.052034926,0.11163711,0.047211077,-0.02161398,-0.024545552,-0.02788099,0.0,0.0,0.0,0.003994671,-0.009787579,0.018355,-0.027511489,-0.0044511287,-0.024771169,0.017322281,0.041113004,-0.0054458445,0.026371935,0.021805167,0.116836205,0.005518544,-0.017661663,-0.026382167,-0.02824515,0.06342347,-0.072603434,0.060042784,-0.011845277,-0.022749562,0.019275801,0.05841996,0.06345462,0.019827923,-0.116375476,-0.31943223,-0.019945685,-0.060787994,-0.061957344,0.24354354,0.49313572,-0.34156394,-0.08102195,0.18759602,0.40558752,0.07477668,-0.10623121,0.009906089,0.03361873,-0.03806225,0.14602391,0.1418444,0.14217871,0.16604282,0.14201005,0.12293361,-0.113184065,0.22672623
2025-07-21 14:14:58.789,1.9200000000000013,1920,96,-0.08562244,-0.03636994,-0.11406358,-0.05346865,-0.044101126,-0.022803128,0.0,0.0,0.0,0.0046830876,-0.00968053,0.0125140725,-0.012561225,-0.0061194696,-0.01486311,0.0046256515,0.025072841,-0.011531111,0.013873598,0.021590197,0.10685808,0.022893608,0.057786938,-0.013888348,0.008680633,0.060026065,0.062313106,-0.011733264,0.044911075,-0.01707683,0.0533162,-0.028609887,-0.096404165,0.04190865,-0.10623121,0.009906089,0.03361873,-0.03806225,0.14602391,0.1418444,0.14217871,0.16604282,0.14201005,0.12293361,-0.113184065,0.22672623,-0.22936733,-0.09738681,-0.0040926673,-0.059439708,-0.088595256,0.26122725,0.3782371,-0.4216647,0.14066932,0.35975653,0.71262956,0.14810103
2025-07-21 14:14:58.816,1.9400000000000013,1940,97,-0.030259533,0.0021257661,0.03648088,0.024299774,0.011881018,0.03554285,0.0,0.0,0.0,0.0056047793,-0.007945526,-8.035454e-05,-0.012720895,-0.013827612,-0.020358836,0.011271766,0.031464376,-0.0387751,0.019253712,0.03427761,0.13418289,0.013967052,0.014513635,-0.0253731,0.013571139,-0.028873786,-0.047965173,0.08041587,0.05580525,-0.13682514,-0.007945141,0.014228224,0.08387668,-0.03160497,-0.22936733,-0.09738681,-0.0040926673,-0.059439708,-0.088595256,0.26122725,0.3782371,-0.4216647,0.14066932,0.35975653,0.71262956,0.14810103,0.0027450474,0.112509415,-0.25368878,-0.08365469,0.16017608,0.26850793,0.10131556,0.08844292,0.44204926,0.2605422,0.03369746,0.23500238
2025-07-21 14:14:58.832,1.9600000000000013,1960,98,0.009379786,-0.07161128,0.0035919277,-0.056932002,-0.024225965,-0.015659684,0.0,0.0,0.0,0.0054894723,0.0077945828,0.015690818,-0.029178755,-0.011869799,0.0041978005,0.013972089,0.027667528,-0.018181516,0.016854303,0.02565661,0.13117315,0.016530886,-0.06613977,-0.04907852,-0.021914694,0.05337749,0.050966125,-0.013520195,-0.024692917,0.010535156,0.012949984,-0.04860967,-0.09879484,0.01991758,0.0027450474,0.112509415,-0.25368878,-0.08365469,0.16017608,0.26850793,0.10131556,0.08844292,0.44204926,0.2605422,0.03369746,0.23500238,-0.16216955,0.22713923,0.037445847,0.08156888,-0.11962141,0.028080927,0.19869772,-0.09341855,0.20652598,0.107168086,0.22001322,0.14865126
2025-07-21 14:14:58.850,1.9800000000000013,1980,99,0.015924793,-0.06929225,-0.02296268,-0.039248485,-0.007201016,-0.019674787,0.0,0.0,0.0,0.0054931687,0.007800934,0.025775697,-0.018089805,-0.017873878,-0.012856048,0.013754987,0.028451566,-0.024654686,0.03587875,0.026328675,0.120636374,0.011706012,0.047340993,0.050922483,-0.0089371735,-0.014494809,0.025570469,0.0076957373,0.056980263,0.023438916,0.03914728,-0.020080378,0.05256521,-0.047699124,-0.16216955,0.22713923,0.037445847,0.08156888,-0.11962141,0.028080927,0.19869772,-0.09341855,0.20652598,0.107168086,0.22001322,0.14865126,-0.08068045,-0.12930319,-0.1017191,0.010679778,-0.18811123,0.07250354,0.3382975,-0.16218184,0.06047694,0.26981968,-0.12550828,0.079497606
2025-07-21 14:14:58.870,2.0000000000000013,2000,100,-0.05089432,-0.09621705,0.017768325,0.02931427,-0.03782513,0.021266999,0.0,0.0,0.0,0.005770674,-0.007647226,0.022189273,-0.03437496,-0.013908213,-0.013657187,0.0012701101,0.038352482,-0.036662187,0.021403698,0.038487975,0.10318165,0.01662686,-0.042906057,-0.01831047,-0.01293718,0.07384881,-0.010694448,-0.0032962488,-0.019357901,-0.092937626,-0.02778322,0.03187103,-0.092094876,-0.054874882,-0.08068045,-0.12930319,-0.1017191,0.010679778,-0.18811123,0.07250354,0.3382975,-0.16218184,0.06047694,0.26981968,-0.12550828,0.079497606,-0.1168291,0.12482135,-0.09053153,-0.08768703,0.08319108,0.007124368,0.1954974,0.2294959,0.27322787,0.051803593,0.39833018,0.34741092
2025-07-21 14:14:58.892,2.0200000000000014,2020,101,0.06948596,0.04001102,-0.02861172,0.006698834,-0.004207926,0.0022018664,0.0,0.0,0.0,0.006145328,-0.012297363,0.026533429,-0.035761353,-0.0161088,-0.015978951,0.0009734018,0.028888531,-0.024729708,0.026769038,0.031349916,0.108874835,0.023612037,-0.029397195,-0.047869835,-0.0487421,-0.075007394,0.029121261,0.04814754,-0.058823407,0.08856753,-0.045817215,-0.04660621,-0.030998573,-0.03670192,-0.1168291,0.12482135,-0.09053153,-0.08768703,0.08319108,0.007124368,0.1954974,0.2294959,0.27322787,0.051803593,0.39833018,0.34741092,-0.19135636,-0.009552369,0.044397693,0.023389872,-0.022114351,0.09480624,0.21936256,-0.2723866,0.044832624,0.24863674,0.10064791,0.09409813
2025-07-21 14:14:58.915,2.0400000000000014,2040,102,-0.065897815,-0.013632383,0.033422966,-0.045684453,-0.015633471,-0.028841127,0.0,0.0,0.0,0.006315002,-0.009591809,0.019745685,-0.032483965,-0.007760497,-0.017026484,-0.004268734,0.032198213,-0.028475065,0.016603755,0.037834514,0.095572405,0.02480697,0.010045347,-0.061807454,0.06352515,-0.0117182415,0.0631286,-0.031851888,-0.0007561459,0.03901469,0.0076201498,-0.00086960825,-0.087743856,-0.013598214,-0.19135636,-0.009552369,0.044397693,0.023389872,-0.022114351,0.09480624,0.21936256,-0.2723866,0.044832624,0.24863674,0.10064791,0.09409813,-0.18265614,0.18949588,0.15098894,-0.00969458,-0.14985791,-0.072357744,0.17368847,0.049705066,0.09024729,0.07197958,0.13308331,0.1938197
2025-07-21 14:14:58.934,2.0600000000000014,2060,103,-0.0012320566,-0.030732777,-0.08725683,-0.030165441,-0.05666508,-0.048832715,0.0,0.0,0.0,0.0055159535,-0.0070360005,0.02900107,-0.03135264,-0.009218524,-0.018159643,-0.00059686217,0.040834952,-0.014262276,0.013457244,0.02634704,0.092606224,0.023430789,0.073209025,0.011550344,-0.06042884,0.07186051,-0.07223023,0.011155163,0.048334822,0.023503529,-0.0053284327,0.044997025,0.010248633,-0.05202661,-0.18265614,0.18949588,0.15098894,-0.00969458,-0.14985791,-0.072357744,0.17368847,0.049705066,0.09024729,0.07197958,0.13308331,0.1938197,-0.25965327,-0.21822658,-0.11109641,-0.13321282,0.11762829,0.22423856,0.30110213,-0.20845084,0.064607024,0.36511993,0.33551875,0.2468677
2025-07-21 14:14:58.951,2.0800000000000014,2080,104,0.0048184167,0.0037965786,0.085311815,-0.030821126,-0.047637887,-0.04297764,0.0,0.0,0.0,0.0059562856,-0.011519265,0.014120495,-0.02031331,-0.025904136,-0.017960828,-0.0048312554,0.032341417,-0.020330507,0.008920023,0.02972823,0.10344794,0.026668383,0.04338343,-0.09872844,0.038061768,0.042547747,0.019895053,0.011183383,0.038537335,-0.08100517,-0.06452885,0.021771023,0.07469635,0.024003908,-0.25965327,-0.21822658,-0.11109641,-0.13321282,0.11762829,0.22423856,0.30110213,-0.20845084,0.064607024,0.36511993,0.33551875,0.2468677,-0.07747929,0.27626017,0.010744069,0.102079764,-0.04627226,0.09493704,0.026103303,0.16170986,0.26368693,0.03527806,-0.108094156,0.19599393
2025-07-21 14:14:58.970,2.1000000000000014,2100,105,0.010153258,0.010059507,-0.1050773,-0.037307322,-0.04852847,0.0077810106,0.0,0.0,0.0,0.004406581,-0.016936446,0.022573864,-0.025250236,-0.009093768,-0.011861473,-5.2750653e-05,0.03160559,-0.02153591,0.008591168,0.022138638,0.078285195,0.024597052,0.06475651,0.08045014,0.027228009,0.045142803,0.024240034,0.05872381,-0.08676585,0.0027461026,0.06329642,0.017347854,-0.04167438,-0.057148222,-0.07747929,0.27626017,0.010744069,0.102079764,-0.04627226,0.09493704,0.026103303,0.16170986,0.26368693,0.03527806,-0.108094156,0.19599393,-0.15909907,-0.25818276,-0.12923391,-0.03320137,-0.008414164,0.24542777,0.42755046,-0.25904053,0.0768237,0.23822504,0.50864923,0.07967052
2025-07-21 14:14:58.995,2.1200000000000014,2120,106,0.06922582,-0.037174307,0.0654253,0.039455313,0.03247005,-0.04639318,0.0,0.0,0.0,0.005223485,-0.0017837096,0.0086837085,-0.018984264,-0.022637181,-0.014104705,-0.0052427542,0.046020128,-0.019842498,0.011620125,0.037829887,0.1055988,0.012209884,0.06555582,-0.0063293753,0.036048945,-0.06351442,-0.013597649,0.04045084,-2.2185146e-05,-0.06381539,-0.019407922,-0.06642056,-0.0061729737,0.017885102,-0.15909907,-0.25818276,-0.12923391,-0.03320137,-0.008414164,0.24542777,0.42755046,-0.25904053,0.0768237,0.23822504,0.50864923,0.07967052,-0.099903494,0.09947302,0.06817098,0.08170235,0.075733624,0.048701297,0.12300834,0.14747979,0.19991949,0.17769583,-0.057876226,0.24507147
2025-07-21 14:14:59.017,2.1400000000000015,2140,107,-0.005073833,-0.055244952,-0.08692069,-0.05094703,-0.03587622,-0.025228746,0.0,0.0,0.0,0.0048843944,-0.012704813,0.015335225,-0.012774005,-0.018431697,-0.009333895,-0.006000672,0.034970425,-0.012754779,0.0004816132,0.03209832,0.09953643,0.030508667,0.068940416,-0.042342752,0.047212653,0.08293249,-0.00020403315,-0.08257947,-0.048746828,0.00048668674,0.021127563,-0.0666302,-0.082223296,0.004511246,-0.099903494,0.09947302,0.06817098,0.08170235,0.075733624,0.048701297,0.12300834,0.14747979,0.19991949,0.17769583,-0.057876226,0.24507147,-0.28126556,-0.054414526,-0.0075792857,-0.035269815,0.12722364,0.13423508,0.32359588,-0.17712869,0.1566002,0.2147169,0.55161226,0.20902525
2025-07-21 14:14:59.034,2.1600000000000015,2160,108,0.044183772,-0.0125768,0.054504473,-0.04617847,0.028563023,-0.031778958,0.0,0.0,0.0,0.005844783,-0.020627521,0.008540091,-0.010155511,-0.010406236,0.003933338,-0.01578358,0.0369379,-0.01619905,0.020720923,0.024642764,0.11542544,0.032135483,-0.0021861126,-0.035748266,-0.049469117,0.043982424,-0.0528442,-0.03711083,0.048157472,0.03799594,0.04583229,-0.06748154,-0.0050434195,0.06734669,-0.28126556,-0.054414526,-0.0075792857,-0.035269815,0.12722364,0.13423508,0.32359588,-0.17712869,0.1566002,0.2147169,0.55161226,0.20902525,-0.12187818,0.111455806,0.09976697,0.043195676,0.04679378,0.043604646,0.17209248,0.008761182,0.16010962,0.1393035,-0.10079193,0.22078627
2025-07-21 14:14:59.053,2.1800000000000015,2180,109,-0.013062422,-0.0858123,-0.061799657,-0.046691682,0.0030593397,0.0051142317,0.0,0.0,0.0,0.0053292746,-0.0015999749,0.019788453,-0.014449237,-0.020560537,0.0050947964,-0.001243041,0.04673043,-0.018676672,0.007541594,0.027033422,0.11247243,0.023610126,0.04112034,-0.03059662,0.053313017,0.024025822,0.030701395,0.02602483,0.005077219,0.028203567,-0.027284376,-0.022799904,0.011203522,-0.012045872,-0.12187818,0.111455806,0.09976697,0.043195676,0.04679378,0.043604646,0.17209248,0.008761182,0.16010962,0.1393035,-0.10079193,0.22078627,-0.20431343,-0.12617987,-0.0484361,0.021025296,-0.059400473,0.14358978,0.33102643,-0.26275766,0.12734132,0.29631507,0.18490446,0.08848648
2025-07-21 14:14:59.072,2.2000000000000015,2200,110,-0.083064765,-0.08748485,0.006461075,0.0028017876,-0.026746094,-0.04832365,0.0,0.0,0.0,0.005901309,-0.011946538,0.0027385843,-0.009951605,-0.008430151,-0.0024325787,-0.0025837738,0.040582553,-0.03996954,0.0061309296,0.02897608,0.10610586,0.019404043,0.0077897003,-0.0026725351,-0.0027560915,-0.06548478,0.060226016,0.004284462,0.057343192,-0.093280904,-0.048712175,0.05755371,-0.008292187,-0.005065387,-0.20431343,-0.12617987,-0.0484361,0.021025296,-0.059400473,0.14358978,0.33102643,-0.26275766,0.12734132,0.29631507,0.18490446,0.08848648,-0.07853833,0.06679894,-0.2861297,-0.07512438,-0.05824676,0.15227225,0.24159953,-0.02582185,0.31578028,0.25247857,0.19948864,0.1909469
2025-07-21 14:14:59.097,2.2200000000000015,2220,111,-0.050924532,-0.07463984,-0.033712137,-0.03907174,0.009022627,0.01012206,0.0,0.0,0.0,0.005948454,-0.004401323,0.004136375,-0.026757073,-0.015696809,-0.011842019,-0.012376987,0.055013936,-0.026808703,0.017868258,0.03226814,0.107747495,0.017010119,0.0451335,-0.0036492422,0.05690811,-0.013676956,0.06547177,-0.06423126,-0.06418033,-0.027213776,0.067466035,-0.044432484,-0.025341848,-0.052149996,-0.07853833,0.06679894,-0.2861297,-0.07512438,-0.05824676,0.15227225,0.24159953,-0.02582185,0.31578028,0.25247857,0.19948864,0.1909469,-0.16674423,0.030394262,-0.15543427,0.028299104,-0.046379518,0.16092418,0.2248638,-0.19153298,0.33193773,0.25663242,0.29008785,0.09639009
2025-07-21 14:14:59.115,2.2400000000000015,2240,112,-0.065536655,0.014718078,-0.019194657,0.009272975,0.003925404,0.026252486,0.0,0.0,0.0,0.0061217477,-0.015166824,0.0170661,-0.03815231,-0.014200364,0.0004500066,0.0037258745,0.052627146,-0.03228951,0.02148039,0.033909462,0.1066377,0.019499375,-0.06941622,0.056404795,-0.06435211,0.0086668935,-0.019607665,-0.069023035,0.015226891,-0.039686006,0.0426048,-0.048209835,-0.05628272,0.065397136,-0.16674423,0.030394262,-0.15543427,0.028299104,-0.046379518,0.16092418,0.2248638,-0.19153298,0.33193773,0.25663242,0.29008785,0.09639009,-0.08572362,-0.06053552,-0.2612733,-0.058125604,0.023243412,0.2611723,0.24467632,-0.11928409,0.26451045,0.19738348,0.33280092,0.1779365
2025-07-21 14:14:59.134,2.2600000000000016,2260,113,0.046535563,-0.052106038,0.010728148,0.010335621,-0.027843932,0.043750186,0.0,0.0,0.0,0.005674662,-0.0056972746,0.0075731594,-0.023414373,-0.020316314,-0.0060127745,-0.004838033,0.040851437,-0.042948037,0.020005988,0.038226116,0.11367444,0.02799607,0.006988329,-0.078333534,0.024085218,0.050127633,0.072174914,0.014586471,0.030531712,0.0313796,0.033296973,0.029521672,0.06426551,-0.019397052,-0.08572362,-0.06053552,-0.2612733,-0.058125604,0.023243412,0.2611723,0.24467632,-0.11928409,0.26451045,0.19738348,0.33280092,0.1779365,-0.09665191,0.06482981,-0.11769073,0.10667999,-0.20761009,0.20332131,0.15942007,-0.23908101,0.24585108,0.25784126,0.038345996,0.0202155
2025-07-21 14:14:59.151,2.2800000000000016,2280,114,-0.086753555,-0.0029152553,-0.04901095,0.018846024,0.023125427,-0.020965831,0.0,0.0,0.0,0.0048625576,-0.021127276,0.015324192,-0.02730084,-0.00882561,-0.012937925,-0.0034267385,0.04750488,-0.037191924,0.03435065,0.030342564,0.09648895,0.009377766,0.029179564,0.03265527,0.036697492,0.083273694,-0.024729412,0.0426553,-0.0005922726,-0.03604897,0.030144216,-0.039499793,-0.075971976,-0.013514284,-0.09665191,0.06482981,-0.11769073,0.10667999,-0.20761009,0.20332131,0.15942007,-0.23908101,0.24585108,0.25784126,0.038345996,0.0202155,-0.17323303,-0.050194815,-0.17089997,-0.06560852,0.14959292,0.22212923,0.29313597,-0.0803904,0.2621925,0.13532905,0.48962918,0.23087436
2025-07-21 14:14:59.170,2.3000000000000016,2300,115,0.11326162,-0.010139953,0.03851785,-0.017897066,-0.043185838,0.022314457,0.0,0.0,0.0,0.005434623,-0.0151096685,0.0008955005,-0.037391484,-0.0245856,-0.0014866932,0.010582136,0.04932043,-0.04276525,0.024948318,0.029151527,0.12100944,0.02072897,0.06289224,-0.02063062,-0.05288576,-0.04414941,0.082776845,-0.04295023,-0.06546237,0.025321878,-0.020555582,-0.046517216,-0.025909998,0.03572693,-0.17323303,-0.050194815,-0.17089997,-0.06560852,0.14959292,0.22212923,0.29313597,-0.0803904,0.2621925,0.13532905,0.48962918,0.23087436,-0.12164652,0.08677329,0.04837123,0.1402837,-0.37480664,0.06585254,0.119970486,-0.0033329278,0.021447953,0.16884252,-0.053857084,0.03802507
2025-07-21 14:14:59.190,2.3200000000000016,2320,116,0.038898397,-0.041262735,-0.10936329,0.015268054,0.02841067,-0.04479851,0.0,0.0,0.0,0.005228646,-0.00951784,-0.0034250938,-0.04312231,-0.009218697,-0.022013305,0.0080310805,0.05171929,-0.028685506,0.012835088,0.035911888,0.102818996,0.012646112,0.01812289,0.03174977,0.035482418,0.058607567,-0.12557395,0.047035065,0.058655787,0.077977575,0.034530964,-0.08455345,-0.10199557,-0.046677344,-0.12164652,0.08677329,0.04837123,0.1402837,-0.37480664,0.06585254,0.119970486,-0.0033329278,0.021447953,0.16884252,-0.053857084,0.03802507,-0.3812588,-0.16777036,-0.03801774,-0.15750597,0.34000957,0.3010882,0.32027552,-0.31837416,0.1155836,0.28413337,0.7175632,0.32045212
2025-07-21 14:14:59.215,2.3400000000000016,2340,117,0.048517123,0.00058375904,0.13733664,-0.033707228,-0.014341727,-0.024554098,0.0,0.0,0.0,0.006212297,-0.011505715,-0.006596001,-0.030422855,-0.028818995,-0.0017462153,0.0013880753,0.039825287,-0.04460973,0.0173004,0.03658749,0.12685943,0.02141,-0.080973916,-0.007936754,0.018581808,-0.055281024,0.09284554,0.040156078,0.042816862,0.006737116,0.06779616,0.0025391742,0.14874811,0.06943376,-0.3812588,-0.16777036,-0.03801774,-0.15750597,0.34000957,0.3010882,0.32027552,-0.31837416,0.1155836,0.28413337,0.7175632,0.32045212,0.07404734,0.060551815,-0.036925737,0.117139414,-0.39565617,0.1694168,-0.031255454,0.09764232,0.09829332,0.20273279,-0.37996182,-0.0037649386
2025-07-21 14:14:59.232,2.3600000000000017,2360,118,-0.009985038,-0.06663116,-0.14041549,0.007873669,-0.012241844,0.034387484,0.0,0.0,0.0,0.004943966,-0.010538362,0.00041125412,-0.031707246,-0.013397419,-0.022678822,0.0003776427,0.052740883,-0.030166946,0.01679602,0.028834093,0.10562557,0.015130519,0.04936271,-0.011914475,-0.060751565,0.05504295,-0.10644867,-0.024311572,-0.07868602,0.02193368,0.0039807656,-0.061887026,-0.060083676,0.028244868,0.07404734,0.060551815,-0.036925737,0.117139414,-0.39565617,0.1694168,-0.031255454,0.09764232,0.09829332,0.20273279,-0.37996182,-0.0037649386,-0.22209531,-0.13908261,-0.26297823,-0.07937993,0.30449647,0.46906662,0.24485317,-0.3378446,0.22970195,0.16036242,0.7233987,0.23804016
2025-07-21 14:14:59.252,2.3800000000000017,2380,119,0.01516395,0.03132672,0.15078837,-0.045432113,0.00060978223,0.000640574,0.0,0.0,0.0,0.0050963536,-0.018953703,-0.012846681,-0.026577203,-0.011530936,-0.014956618,0.014959054,0.0513156,-0.046335027,0.02832886,0.0339096,0.114796914,0.012734856,-0.075910576,0.0371889,-0.0008544635,-0.077332616,0.13128048,0.05214505,0.08568414,-0.000518533,0.046203867,0.062424943,0.16461028,-0.06428766,-0.22209531,-0.13908261,-0.26297823,-0.07937993,0.30449647,0.46906662,0.24485317,-0.3378446,0.22970195,0.16036242,0.7233987,0.23804016,0.04356885,0.14701349,-0.13732456,0.13669631,-0.4878828,0.13666226,-0.02519226,0.047804877,0.16900814,0.2942015,-0.40665302,-0.102851644
2025-07-21 14:14:59.271,2.4000000000000017,2400,120,0.011545097,-0.08151255,-0.04504036,-0.017864732,0.0075491928,0.0013831347,0.0,0.0,0.0,0.00393174,-0.012774776,-0.0053013465,-0.036527727,-0.013703784,-0.01150932,0.009968673,0.0421531,-0.032614518,0.025315609,0.042813335,0.086401425,0.008160962,-0.063834645,0.061108507,-0.0096278,0.08914073,-0.0876568,-0.032715004,-0.03910431,0.0029268921,0.019380195,0.06445857,-0.11814088,-0.0388001,0.04356885,0.14701349,-0.13732456,0.13669631,-0.4878828,0.13666226,-0.02519226,0.047804877,0.16900814,0.2942015,-0.40665302,-0.102851644,-0.0859642,-0.11115366,-0.18635722,-0.15564448,0.23822622,0.19899979,0.27761894,-0.03532598,0.20581976,0.008192697,0.6660345,0.2620157
2025-07-21 14:14:59.292,2.4200000000000017,2420,121,0.056961782,-0.02184454,0.13118492,-0.008641088,0.031548556,-0.0150635205,0.0,0.0,0.0,0.0038968266,-0.01421316,-0.0043774755,-0.026005179,-0.008745491,0.0005620818,0.0062951134,0.048527267,-0.024937026,0.014746992,0.02135764,0.09499042,0.016887086,0.021697536,0.011959773,0.04879151,0.000875519,0.05011281,0.025306512,-0.011968651,-0.040207297,-0.04545751,-0.0059086503,0.11133636,-0.08209869,-0.0859642,-0.11115366,-0.18635722,-0.15564448,0.23822622,0.19899979,0.27761894,-0.03532598,0.20581976,0.008192697,0.6660345,0.2620157,0.013122931,0.13513738,0.1188212,0.19304392,-0.22590451,0.058189947,-0.107384756,0.32109535,0.10308465,0.07384493,-0.37705597,0.08890642
2025-07-21 14:14:59.315,2.4400000000000017,2440,122,-0.05855419,-0.060618076,-0.11256523,-0.014284287,0.026327083,-0.008083948,0.0,0.0,0.0,0.0033792728,-0.018470572,-0.006579105,-0.026151706,-0.001385263,-0.018493902,0.0010539276,0.046969365,-0.004359334,0.00472076,0.026816761,0.091267936,0.0046611438,0.08882298,-0.023223467,0.025146844,0.06863571,-0.08303758,-0.06264084,0.028859163,0.07228248,-0.013636942,-0.0355723,-0.051188096,-0.005708214,0.013122931,0.13513738,0.1188212,0.19304392,-0.22590451,0.058189947,-0.107384756,0.32109535,0.10308465,0.07384493,-0.37705597,0.08890642,-0.30017084,-0.02345583,0.06757971,-0.044179153,0.2127826,0.24267718,0.3388855,-0.3273841,0.02078747,0.23879144,0.4738376,0.2349851
2025-07-21 14:14:59.332,2.4600000000000017,2460,123,-0.046374284,0.017098822,0.049169563,0.041221403,-0.029932551,-0.015808383,0.0,0.0,0.0,0.0047830692,-0.0072316807,0.0007928328,-0.027285002,-0.023002714,-0.00087517593,0.013730652,0.037108332,-0.011970145,0.015202093,0.027047688,0.097158626,0.013403591,0.056723475,0.030624036,-0.005695919,-0.012297068,-0.020876247,-0.008195301,-0.048878767,0.010977883,0.03298427,0.04339956,-0.022728952,-0.0006304006,-0.30017084,-0.02345583,0.06757971,-0.044179153,0.2127826,0.24267718,0.3388855,-0.3273841,0.02078747,0.23879144,0.4738376,0.2349851,-0.15920168,-0.063395366,0.11105643,0.049369853,-0.025289323,-0.0015271716,0.23745719,0.060229614,-0.032542855,0.14791588,-0.116544455,0.16584906
2025-07-21 14:14:59.353,2.4800000000000018,2480,124,-0.039000437,-0.026426328,-0.019101232,-0.02409821,-0.033985578,-0.032413702,0.0,0.0,0.0,0.0045455177,-0.008217803,-0.004833893,-0.019651676,-0.012110116,0.0077779293,0.009096892,0.03385836,-0.009472055,0.0025275322,0.019320384,0.08760196,0.019199576,0.024188302,-0.07290105,0.0061066067,0.038463466,0.028781028,0.05663023,-0.06406153,-0.020577472,-0.04182207,3.5651876e-05,-0.060969274,-0.021274041,-0.15920168,-0.063395366,0.11105643,0.049369853,-0.025289323,-0.0015271716,0.23745719,0.060229614,-0.032542855,0.14791588,-0.116544455,0.16584906,-0.24819341,0.10547922,0.018881913,-0.072964296,0.06214408,0.004419457,0.25876045,-0.013618328,0.12400685,0.06687118,0.40758184,0.23590489
2025-07-21 14:14:59.373,2.5000000000000018,2500,125,0.0665755,0.05259925,0.04477442,0.03505458,-0.005986237,-0.04123201,0.0,0.0,0.0,0.0044281837,-0.022120142,-0.0037994846,-0.029731141,-0.02043953,0.011191369,0.010624563,0.038393293,-0.005349233,0.0138278315,0.02120101,0.07899081,0.023773054,0.032116033,0.08241851,0.020964595,0.054386742,0.05817169,-0.012174942,0.07057953,0.04641295,-0.0285775,-0.056976393,0.060866322,-0.026939683,-0.24819341,0.10547922,0.018881913,-0.072964296,0.06214408,0.004419457,0.25876045,-0.013618328,0.12400685,0.06687118,0.40758184,0.23590489,-0.1376645,-0.20293131,0.084626526,0.07265809,-0.31819677,-0.026913676,0.2316772,-0.009231135,-0.19098434,0.2093712,-0.31139323,0.048636127
2025-07-21 14:14:59.399,2.520000000000002,2520,126,-0.17268348,-0.014892894,-0.03440624,0.0129708005,0.046520274,-0.02432734,0.0,0.0,0.0,0.003911302,-0.005634708,-0.004072636,-0.014984801,-0.020038776,-0.0030708858,-0.0045584333,0.041364398,0.00023636558,-0.0008228513,0.029447217,0.065015495,0.025075812,-0.0012520514,0.03376529,-0.004728401,0.05286364,-0.07763375,0.06430132,-0.07086044,0.017346032,-0.013125019,-0.033024568,-0.13945583,0.018754147,-0.1376645,-0.20293131,0.084626526,0.07265809,-0.31819677,-0.026913676,0.2316772,-0.009231135,-0.19098434,0.2093712,-0.31139323,0.048636127,-0.29776847,-0.125996,0.05832926,-0.12322506,0.13762376,0.07017718,0.225254,-0.006717354,0.05780179,0.086847484,0.609956,0.39897954
2025-07-21 14:14:59.415,2.540000000000002,2540,127,0.06655149,0.061633844,0.017226737,0.048870698,0.017830225,-0.029361438,0.0,0.0,0.0,0.004450091,-0.0116632525,-0.0054877703,-0.023385111,-0.009461725,-0.0028963683,-0.0024772799,0.041607782,-0.013815407,0.0018976877,0.03309036,0.08450442,0.0096331565,-0.036147617,-0.057630282,-0.018942777,-0.067177005,-0.011853289,0.050305936,-0.060928013,-0.028556908,0.010255118,-0.053822257,0.04692369,-0.033670586,-0.29776847,-0.125996,0.05832926,-0.12322506,0.13762376,0.07017718,0.225254,-0.006717354,0.05780179,0.086847484,0.609956,0.39897954,-0.15138166,-0.013823325,0.020557735,-0.03896487,0.17011733,0.101748735,0.13239694,-0.058640704,0.09812029,0.16249847,0.03433234,0.14205767
2025-07-21 14:14:59.433,2.560000000000002,2560,128,-0.018292474,0.01969042,-0.014218533,-0.018065961,0.03594544,-0.0018449634,0.0,0.0,0.0,0.0042588017,-0.018773342,-0.007627859,-0.02031854,-0.026070831,0.008158678,-0.0102910865,0.04420446,-0.005532343,-0.005577121,0.028428616,0.10082525,0.029140746,-0.068042085,-0.07214659,0.024790617,0.042149283,0.022965955,-0.07373743,0.02607135,-0.022799538,-0.03042629,0.015811661,0.0318576,-0.03774662,-0.15138166,-0.013823325,0.020557735,-0.03896487,0.17011733,0.101748735,0.13239694,-0.058640704,0.09812029,0.16249847,0.03433234,0.14205767,-0.17864144,0.048809692,-0.15209232,-0.0404532,0.046645485,0.13522449,0.20758489,-0.16034429,0.2756791,0.220943,0.22843087,0.068247765
2025-07-21 14:14:59.453,2.580000000000002,2580,129,0.04638894,0.03432493,-0.0044915644,-0.027685368,-0.044927493,0.0063674063,0.0,0.0,0.0,0.0043378617,-0.022685494,-0.0044521596,-0.017546494,-0.0202493,0.0098825805,-0.0032490364,0.0376804,-0.010541679,6.369121e-06,0.030315503,0.09206294,0.021983845,-0.020142194,-0.060823847,-0.077823155,0.0380514,0.006714649,-0.032664534,-0.018675486,-0.013148847,-0.037569564,0.03828172,0.045775287,-0.06928152,-0.17864144,0.048809692,-0.15209232,-0.0404532,0.046645485,0.13522449,0.20758489,-0.16034429,0.2756791,0.220943,0.22843087,0.068247765,-0.15808606,0.08592403,-0.24648435,-0.00985508,-0.057082716,0.20713931,0.18347411,-0.17317437,0.3352689,0.22982478,0.16706638,0.060129974
2025-07-21 14:14:59.477,2.600000000000002,2600,130,-0.037338153,-0.04367715,0.045185212,0.004172578,-0.032410804,-0.004750518,0.0,0.0,0.0,0.004259489,-0.01653413,-0.000616918,-0.034124848,-0.010462401,0.00035728788,-0.0047337804,0.038213834,-0.025257375,0.01902685,0.026262887,0.09391477,0.018060697,0.019576771,-0.03816939,-0.058696195,0.041261416,0.021175243,-0.059234947,0.055201884,-0.06301367,0.0149772195,-0.07110538,-0.0684688,-0.031427328,-0.15808606,0.08592403,-0.24648435,-0.00985508,-0.057082716,0.20713931,0.18347411,-0.17317437,0.3352689,0.22982478,0.16706638,0.060129974,-0.10712552,0.3048181,-0.079174995,0.12400426,-0.13642116,0.004293192,0.17730117,0.09061423,0.33499104,0.052763287,0.14766291,0.22391126
2025-07-21 14:14:59.498,2.620000000000002,2620,131,0.061426736,0.017301677,-0.15090376,-0.01572262,0.026129192,0.009100758,0.0,0.0,0.0,0.0041606035,-0.010024618,0.019765612,-0.026583655,-0.0029774902,-0.0024421134,-0.009174747,0.029255575,-0.021367127,0.01652855,0.025409423,0.09513279,0.010041785,-0.03133328,0.0012906379,0.032135084,-0.04043762,-0.034379095,0.011721646,-0.039144322,-0.00020810601,0.030135628,-0.051878516,0.0015345198,-0.062169842,-0.10712552,0.3048181,-0.079174995,0.12400426,-0.13642116,0.004293192,0.17730117,0.09061423,0.33499104,0.052763287,0.14766291,0.22391126,-0.21002038,-0.23239115,-0.26488796,-0.058234815,0.11058633,0.4513408,0.2591279,-0.3946876,0.34458226,0.3894263,0.5979089,0.20650329
2025-07-21 14:14:59.515,2.640000000000002,2640,132,-0.01198515,-0.022856249,0.11286731,0.041783415,-0.03845444,0.019515961,0.0,0.0,0.0,0.0058040335,-0.011296654,2.0062505e-05,-0.04482209,-0.01778157,0.001153766,0.00699097,0.028740492,-0.02800698,0.018797105,0.03671904,0.11973922,0.011956837,0.042599842,-0.10250628,-0.022964178,0.05576983,0.05819509,-0.011787347,-0.0046821274,-0.10258107,0.08354968,0.001928094,0.13018543,-0.007130535,-0.21002038,-0.23239115,-0.26488796,-0.058234815,0.11058633,0.4513408,0.2591279,-0.3946876,0.34458226,0.3894263,0.5979089,0.20650329,0.06031637,0.31992683,-0.11049567,0.16522507,-0.34649992,0.15884456,-0.08777719,0.22278337,0.41592497,0.09448818,-0.15047103,0.09484513
2025-07-21 14:14:59.535,2.660000000000002,2660,133,0.011784468,-0.045746908,-0.070424944,0.012399097,0.038769778,-0.013986054,0.0,0.0,0.0,0.004664717,-0.0117732035,0.0142377475,-0.038116638,-0.0129429065,-0.008558679,0.014144911,0.03339127,-0.024922216,0.03351206,0.033044335,0.09008424,0.028715568,0.029162604,8.300377e-05,0.0004183708,0.075178795,-0.1270402,0.008327055,-0.050223347,0.0929647,0.022040114,0.039393812,-0.09036437,0.07194798,0.06031637,0.31992683,-0.11049567,0.16522507,-0.34649992,0.15884456,-0.08777719,0.22278337,0.41592497,0.09448818,-0.15047103,0.09484513,-0.23210439,-0.049676143,0.034461815,-0.009917054,0.24210708,0.30818108,0.22450212,-0.2455142,0.17800514,0.046279028,0.4886931,0.24059232
2025-07-21 14:14:59.554,2.680000000000002,2680,134,0.07170636,-0.0080494415,0.11041563,-0.031049604,-0.0012895593,0.023398615,0.0,0.0,0.0,0.005192286,-0.009647222,0.024834003,-0.028673196,-0.010663674,0.0018314221,0.011764596,0.03765589,-0.028149826,0.038077526,0.0198347,0.11376142,0.015054641,-0.0357823,0.01664696,0.06570608,-0.06344661,-0.02251182,-0.02578698,-0.053881627,-0.030571835,-0.07213072,0.043828264,0.11563504,0.044009015,-0.23210439,-0.049676143,0.034461815,-0.009917054,0.24210708,0.30818108,0.22450212,-0.2455142,0.17800514,0.046279028,0.4886931,0.24059232,-0.024101958,0.023171617,0.1387273,0.21250902,-0.17904963,0.13798751,0.004100211,0.34614676,0.017310206,0.15140495,-0.4761375,0.13788916
2025-07-21 14:14:59.577,2.700000000000002,2700,135,-0.08048881,-0.033847734,-0.14981364,0.026225198,0.03523192,0.04258633,0.0,0.0,0.0,0.004504479,-0.0053826156,0.016563954,-0.03668157,-0.012186149,-0.0010121937,0.0011860554,0.036202215,-0.009861114,0.022416577,0.03097508,0.09440925,0.024088934,-0.009908034,-0.050115917,0.012769319,-0.020122513,-0.067961134,0.0036278989,0.019007899,0.13575432,-0.08982175,-0.045493737,-0.0906235,-0.034623943,-0.024101958,0.023171617,0.1387273,0.21250902,-0.17904963,0.13798751,0.004100211,0.34614676,0.017310206,0.15140495,-0.4761375,0.13788916,-0.3505353,-0.121937215,0.08746901,-0.019261133,0.20207925,0.40125388,0.35248885,-0.6152233,0.0026051402,0.27224156,0.72968245,0.119147554
2025-07-21 14:14:59.600,2.720000000000002,2720,136,-0.06868241,0.06834011,0.130196,0.041296136,-0.037722897,-0.04101075,0.0,0.0,0.0,0.005471972,-0.014513831,0.008891006,-0.021116335,-0.020213874,-0.0073899548,0.017994441,0.02674938,-0.015372864,0.017382266,0.020395422,0.11095995,0.011575086,-0.08591559,0.04144471,0.049624532,-0.06059259,0.0450277,0.0028240771,-0.011355044,0.0071051796,0.025119036,0.08468153,0.1659764,-0.071073905,-0.3505353,-0.121937215,0.08746901,-0.019261133,0.20207925,0.40125388,0.35248885,-0.6152233,0.0026051402,0.27224156,0.72968245,0.119147554,-0.027414486,-0.08371479,0.019449752,0.12752627,-0.3294357,0.16360839,0.027318507,0.17615308,-0.061584294,0.2302729,-0.5569006,-0.0070530437
