openverse-orca/OrcaGym/log/simulation_log_20250721_131050.csv
timestamp,sim_time,physics_step,control_step,imu_angle_roll,imu_angle_pitch,imu_angle_yaw,imu_angular_velocity_roll,imu_angular_velocity_pitch,imu_angular_velocity_yaw,imu_acc_x,imu_acc_y,imu_acc_z,fl_joint1_pos,fl_joint1_vel,fl_joint1_torque,fl_joint2_pos,fl_joint2_vel,fl_joint2_torque,fl_joint3_pos,fl_joint3_vel,fl_joint3_torque,fr_joint1_pos,fr_joint1_vel,fr_joint1_torque,fr_joint2_pos,fr_joint2_vel,fr_joint2_torque,fr_joint3_pos,fr_joint3_vel,fr_joint3_torque,hl_joint1_pos,hl_joint1_vel,hl_joint1_torque,hl_joint2_pos,hl_joint2_vel,hl_joint2_torque,hl_joint3_pos,hl_joint3_vel,hl_joint3_torque,hr_joint1_pos,hr_joint1_vel,hr_joint1_torque,hr_joint2_pos,hr_joint2_vel,hr_joint2_torque,hr_joint3_pos,hr_joint3_vel,hr_joint3_torque,fl_force_x,fl_force_y,fl_force_z,fr_force_x,fr_force_y,fr_force_z,hl_force_x,hl_force_y,hl_force_z,hr_force_x,hr_force_y,hr_force_z,fl_hip_action,fl_thigh_action,fl_calf_action,fr_hip_action,fr_thigh_action,fr_calf_action,hl_hip_action,hl_thigh_action,hl_calf_action,hr_hip_action,hr_thigh_action,hr_calf_action
2025-07-21 13:10:50.876,0.0,0,0,0.018480279,-0.037575293,-0.0095238,-0.011441512,-0.040787637,-0.020724578,0.53281677,-0.1044584,0.0,0.0,-0.004725437,0.007935064,-0.009176988,0.0066465014,-0.0006535933,0.00858771,-0.004159824,0.00813692,-0.0072915745,-0.0012753828,-0.009233997,0.009078175,-0.023337834,0.049607795,0.059702788,-0.023528907,0.014308939,0.061431974,-0.015361397,0.06397202,0.064098336,0.050050013,0.051091187,-0.04011605,0.0,0.0,0.0,0.0,0.0,0.0,0.0,0.0,0.0,0.0,0.0,0.0,1.0,-1.0,-1.0,-1.0,-1.0,-1.0,1.0,1.0,-1.0,-1.0,1.0,1.0
2025-07-21 13:10:50.893,0.02,20,1,-0.09624204,0.054788496,-0.018351026,0.010074023,0.038088903,-0.009696398,0.0,0.0,0.0,0.0,0.03281638,-0.024750182,-0.021354174,-0.023819253,-0.023588693,-0.026978279,0.028256932,0.04485984,-0.03560366,-0.023233524,0.03852347,0.021010512,0.008767416,-0.13187505,-0.09680225,-0.08854563,-0.12259986,-0.13602556,0.02894252,0.24164358,-0.09574078,-0.0661748,0.23959444,0.02915835,1.0,-1.0,-1.0,-1.0,-1.0,-1.0,1.0,1.0,-1.0,-1.0,1.0,1.0,1.0,-1.0,1.0,-1.0,-1.0,-0.86673594,-1.0,-1.0,-1.0,-1.0,1.0,1.0
2025-07-21 13:10:50.909,0.04,40,2,-0.01591655,-0.2131776,0.03001265,-0.026282461,0.050974417,0.044699382,0.0,0.0,0.0,-4.3210624e-05,0.055878937,-0.08088656,-0.0022919045,-0.06105055,-0.071190074,-0.04674808,0.0008428252,0.047560893,-0.04634018,-0.047940485,0.114411056,0.046403147,0.041130006,-0.2029912,0.06308561,-0.115718044,-0.1914649,-0.023060024,-0.14033829,-0.07523982,0.021518739,-0.05861944,0.091325566,0.00092545606,1.0,-1.0,1.0,-1.0,-1.0,-0.86673594,-1.0,-1.0,-1.0,-1.0,1.0,1.0,1.0,-1.0,-1.0,-1.0,-1.0,1.0,1.0,1.0,-1.0,-1.0,1.0,1.0
2025-07-21 13:10:50.928,0.06,60,3,-0.09572618,0.02944257,0.015154665,-0.026859056,-0.029944874,-0.01307203,0.0,0.0,0.0,0.00013132714,0.064888224,-0.14260189,-0.031731904,-0.068211176,-0.13353205,-0.010426286,0.022430968,0.0635055,-0.07024855,-0.061863452,0.17022696,0.07409471,-0.009564541,-0.08736517,-0.13056101,0.010041773,-0.13019738,0.092956945,0.12537976,0.21889554,-0.046656623,-0.08094786,0.09065922,0.10046321,1.0,-1.0,-1.0,-1.0,-1.0,1.0,1.0,1.0,-1.0,-1.0,1.0,1.0,1.0,1.0,0.064178124,-1.0,-1.0,-1.0,-1.0,-1.0,1.0,-1.0,1.0,1.0
2025-07-21 13:10:50.948,0.08,80,4,-0.012150564,-0.08995384,-0.022017017,0.04712851,-0.008261918,0.008391297,0.0,0.0,0.0,-0.0003827757,0.09195882,-0.1444393,-0.014534089,-0.09745908,-0.17899168,-0.031479467,0.00086260826,0.061110787,-0.023826512,-0.0787979,0.21886182,0.079822525,0.057293996,0.18084493,0.08431014,-0.013047076,-0.07033282,-0.016520105,-0.08217926,-0.12591888,0.14362243,-0.10220111,0.055617586,0.03481903,1.0,1.0,0.064178124,-1.0,-1.0,-1.0,-1.0,-1.0,1.0,-1.0,1.0,1.0,-0.9539343,-1.0,-1.0,-1.0,-1.0,1.0,1.0,1.0,-1.0,1.0,-1.0,1.0
2025-07-21 13:10:50.968,0.1,100,5,-0.04126792,-0.030202009,0.073859416,0.01786246,0.0051434995,-0.008508915,0.0,0.0,0.0,0.00040384228,0.06890407,-0.13772088,-0.04424645,-0.11263682,-0.22952622,-0.022569595,0.012335852,0.06320004,-0.04915416,-0.04564042,0.19424197,0.088482924,0.009823876,0.0005884362,-0.0011008929,-0.086705476,-0.15658769,0.011447548,0.06762603,0.15523575,-0.0061226445,0.019295726,-0.12829664,0.071882136,-0.9539343,-1.0,-1.0,-1.0,-1.0,1.0,1.0,1.0,-1.0,1.0,-1.0,1.0,1.0,1.0,1.0,-1.0,-1.0,-0.26383638,-1.0,-1.0,1.0,-1.0,1.0,1.0
2025-07-21 13:10:50.993,0.12000000000000001,120,6,-0.06490293,-0.33568972,-0.014041016,0.026692782,0.035691556,-5.6891702e-05,0.0,0.0,0.0,-0.0011213638,0.079440355,-0.1357652,-0.03744906,-0.12549827,-0.24868505,-0.016489752,0.0005684263,0.042028394,-0.04327821,-0.065284215,0.1986278,0.09861,0.010441416,-0.009601113,-0.011991316,-0.066003926,-0.03859095,0.055385727,-0.06985032,-0.13409203,0.11398818,-0.08341885,0.036876597,-0.029790757,1.0,1.0,1.0,-1.0,-1.0,-0.26383638,-1.0,-1.0,1.0,-1.0,1.0,1.0,1.0,-0.9749187,-1.0,-1.0,-1.0,1.0,1.0,1.0,-1.0,1.0,-1.0,1.0
2025-07-21 13:10:51.009,0.14,140,7,0.17140704,0.2520494,0.01652462,0.014645551,0.022126602,-0.027053023,0.0,0.0,0.0,-0.0010564158,0.09778324,-0.16923968,-0.056596603,-0.12924796,-0.29227027,-0.0060505522,0.019186614,0.060273275,-0.055519212,-0.05456301,0.19360629,0.11565797,0.04742253,-0.05257892,-0.02703648,-0.07018744,-0.0067845425,-0.007338463,0.016933037,0.1716096,-0.07551473,0.112857014,-0.11874136,-0.0017149422,1.0,-0.9749187,-1.0,-1.0,-1.0,1.0,1.0,1.0,-1.0,1.0,-1.0,1.0,1.0,1.0,1.0,-1.0,-1.0,-1.0,-1.0,-1.0,-0.5731691,-1.0,1.0,1.0
2025-07-21 13:10:51.028,0.16,160,8,0.023780651,-0.25081226,-0.057411302,0.043231964,0.08338865,0.029901074,0.0,0.0,0.0,-0.0021807405,0.107229196,-0.18312214,-0.023616266,-0.13251285,-0.29732835,-0.030854642,0.017299518,0.0737735,-0.064678065,-0.07307244,0.22344345,0.11144508,-0.023501797,-0.040342513,0.048105408,-0.024423556,-0.11693971,-0.07954521,-0.11096891,0.021170568,0.035985418,-0.07977283,0.09768206,0.037644908,1.0,1.0,1.0,-1.0,-1.0,-1.0,-1.0,-1.0,-0.5731691,-1.0,1.0,1.0,1.0,-1.0,-1.0,-1.0,-1.0,1.0,1.0,1.0,-1.0,1.0,-1.0,1.0
2025-07-21 13:10:51.048,0.18,180,9,0.24966426,0.35429952,0.04587411,0.03874544,-0.0036006796,0.042038053,0.0,0.0,0.0,-0.0017666683,0.12528737,-0.2149141,-0.054198116,-0.13650356,-0.33361983,-0.008200884,0.02317122,0.096202224,-0.08554102,-0.037958015,0.21451992,0.11854394,0.065885164,-0.13401322,0.00082490465,-0.012338138,-0.04844755,0.101784095,0.12626165,0.22688134,-0.022674857,0.04584814,-0.021101836,-0.04459913,1.0,-1.0,-1.0,-1.0,-1.0,1.0,1.0,1.0,-1.0,1.0,-1.0,1.0,1.0,1.0,1.0,-1.0,-1.0,-1.0,-1.0,-1.0,-1.0,-1.0,1.0,1.0
2025-07-21 13:10:51.068,0.19999999999999998,200,10,-0.14750302,-0.030108023,-0.05638381,0.03048206,0.007230435,0.045151558,0.0,0.0,0.0,-0.0027143916,0.12803173,-0.22941615,-0.020501807,-0.14008926,-0.3386713,-0.032174323,0.009541097,0.10453594,-0.09867653,-0.061695464,0.23016994,0.13123623,0.009776931,0.06877155,0.009435743,-0.06633516,-0.036337554,-0.022768602,-0.04121369,-0.14991817,-0.053379335,0.0075888294,0.105896175,0.011373506,1.0,1.0,1.0,-1.0,-1.0,-1.0,-1.0,-1.0,-1.0,-1.0,1.0,1.0,-1.0,-1.0,-1.0,-1.0,-1.0,1.0,1.0,1.0,-1.0,1.0,-1.0,1.0
2025-07-21 13:10:51.092,0.21999999999999997,220,11,0.035878964,0.07531004,0.045652512,0.04548798,0.064392254,-0.045320824,0.0,0.0,0.0,-0.0023046716,0.1141525,-0.24437055,-0.056136593,-0.15387313,-0.3508635,-0.010535038,0.020126108,0.0972121,-0.11266937,-0.045116533,0.23197977,0.14182939,-0.03541582,-0.14157946,0.011266775,0.02654064,-0.010400223,0.06600966,0.10450255,0.06745727,0.031265486,0.05400666,-0.050436128,-0.01025037,-1.0,-1.0,-1.0,-1.0,-1.0,1.0,1.0,1.0,-1.0,1.0,-1.0,1.0,1.0,1.0,-1.0,-1.0,-1.0,1.0,-1.0,-1.0,1.0,-1.0,1.0,1.0
2025-07-21 13:10:51.110,0.23999999999999996,240,12,-0.035483975,-0.1775043,0.08613038,0.045851853,0.032971777,0.019261135,0.0,0.0,0.0,-0.0031558035,0.11252898,-0.23463264,-0.0621166,-0.17042877,-0.37509328,0.008358154,0.0074294046,0.08067266,-0.07851328,-0.06293882,0.25921682,0.13112119,0.092390075,0.21583562,0.023671295,-0.018536026,0.0052282,0.10149353,-0.11129146,-0.15307452,0.13944498,-0.12920837,0.049240027,0.028664026,1.0,1.0,-1.0,-1.0,-1.0,1.0,-1.0,-1.0,1.0,-1.0,1.0,1.0,-1.0,1.0,-0.7884387,-1.0,-1.0,1.0,1.0,1.0,1.0,1.0,-1.0,1.0
2025-07-21 13:10:51.129,0.25999999999999995,260,13,-0.012257193,0.104112975,0.08230091,0.023271147,0.02152376,-0.024947299,0.0,0.0,0.0,-0.003929606,0.07504353,-0.13465247,-0.07709548,-0.16614115,-0.3826159,0.029371938,0.04180409,0.093977086,-0.04809866,-0.038679976,0.2514037,0.13984919,-0.12138451,0.26835757,-0.066386014,0.042890385,-0.021238444,0.056702428,-0.0025963332,0.06814247,0.054863,0.031249367,-0.049487803,-0.0042041205,-1.0,1.0,-0.7884387,-1.0,-1.0,1.0,1.0,1.0,1.0,1.0,-1.0,1.0,1.0,-1.0,-1.0,-1.0,-1.0,1.0,1.0,-1.0,1.0,-1.0,-1.0,1.0
2025-07-21 13:10:51.149,0.27999999999999997,280,14,0.22535706,-0.032261446,0.07847578,0.020135053,0.06532224,0.031448077,0.0,0.0,0.0,-0.0051454306,0.09527939,-0.13880078,-0.10359152,-0.16493326,-0.40552914,0.053297743,0.054097906,0.08018289,-0.015668247,-0.05260794,0.21348555,0.14940628,0.045049876,-0.13107504,0.00912202,0.0567503,-0.05801091,0.046563108,0.07823924,-0.044920508,0.052310284,-0.1288282,-0.16515201,0.01725057,1.0,-1.0,-1.0,-1.0,-1.0,1.0,1.0,-1.0,1.0,-1.0,-1.0,1.0,1.0,1.0,-1.0,-1.0,1.0,1.0,1.0,1.0,1.0,-1.0,1.0,0.9254281
2025-07-21 13:10:51.171,0.3,300,15,-0.28139162,0.15577002,0.10162261,-0.04936229,0.049045853,0.03551434,0.0,0.0,0.0,-0.006104547,0.1064707,-0.11109985,-0.112744935,-0.16665766,-0.37354344,0.055458046,0.08823418,0.107342444,0.02754167,-0.072855845,0.21591727,0.15259376,0.043982096,0.15663299,0.03522591,-0.03549483,0.039962213,0.038324144,0.12162078,0.08316296,0.06936486,-0.066754796,0.028512897,0.05433919,1.0,1.0,-1.0,-1.0,1.0,1.0,1.0,1.0,1.0,-1.0,1.0,0.9254281,1.0,-1.0,-1.0,-1.0,-1.0,1.0,-1.0,-1.0,1.0,-1.0,-1.0,-1.0
2025-07-21 13:10:51.192,0.32,320,16,0.07432887,-0.21614279,0.01176419,0.016545856,0.051735315,-0.027888125,0.0,0.0,0.0,-0.008624854,0.108647615,-0.12170505,-0.11733339,-0.17287612,-0.37619752,0.07343174,0.077761956,0.11443913,0.047073405,-0.079460666,0.199987,0.09950559,0.007691569,-0.08514896,-0.08224337,-0.0041359817,-0.07156595,0.013006818,-0.109542295,-0.030637495,-0.010355954,-0.012871107,-0.23944461,-0.10069389,1.0,-1.0,-1.0,-1.0,-1.0,1.0,-1.0,-1.0,1.0,-1.0,-1.0,-1.0,1.0,-1.0,1.0,-1.0,1.0,1.0,1.0,1.0,1.0,-1.0,1.0,-1.0
2025-07-21 13:10:51.209,0.34,340,17,-0.33606884,0.007899708,0.09388933,-0.004266415,0.020694999,-0.010214659,0.0,0.0,0.0,-0.010102053,0.12547901,-0.16611323,-0.065352455,-0.19242017,-0.35716912,0.075385384,0.095097944,0.14532816,0.050148234,-0.10472319,0.20462696,0.041981988,-0.03904004,-0.15095852,0.12013453,-0.038087364,0.10109972,0.038412903,0.09266451,0.091876715,0.07636212,0.028289663,0.16900449,-0.15304087,1.0,-1.0,1.0,-1.0,1.0,1.0,1.0,1.0,1.0,-1.0,1.0,-1.0,1.0,1.0,-1.0,-1.0,-1.0,1.0,1.0,-1.0,1.0,-1.0,-1.0,-1.0
2025-07-21 13:10:51.229,0.36000000000000004,360,18,0.17856427,0.0663179,0.094575986,-0.019475155,0.046842743,0.022091629,0.0,0.0,0.0,-0.011026308,0.13406527,-0.15276994,-0.08341127,-0.1799894,-0.37293345,0.097776726,0.106744334,0.14330699,0.059943702,-0.10334028,0.2075949,0.024582606,-0.051256225,0.2008195,-0.07044628,-0.06671944,0.008591084,0.026397025,0.05659654,-0.027785093,-0.017773109,-0.013749996,-0.15877825,-0.055697422,1.0,1.0,-1.0,-1.0,-1.0,1.0,1.0,-1.0,1.0,-1.0,-1.0,-1.0,1.0,-1.0,-1.0,-1.0,-1.0,1.0,1.0,1.0,1.0,-1.0,1.0,1.0
2025-07-21 13:10:51.249,0.38000000000000006,380,19,0.026267232,0.12554999,0.12775545,-0.044965748,-0.010171185,-0.049554616,0.0,0.0,0.0,-0.011857313,0.1482316,-0.17531906,-0.089532524,-0.19092627,-0.3730763,0.09772894,0.12120492,0.15265085,0.08802741,-0.13189678,0.21408498,0.0275269,0.05601953,-0.1790648,0.03753416,0.0031871162,-0.015420316,0.027444549,0.041072663,0.09726389,0.091951385,0.031494275,0.103230886,0.058369037,1.0,-1.0,-1.0,-1.0,-1.0,1.0,1.0,1.0,1.0,-1.0,1.0,1.0,1.0,1.0,1.0,-1.0,-1.0,1.0,-1.0,-1.0,1.0,-1.0,-1.0,1.0
2025-07-21 13:10:51.275,0.4000000000000001,400,20,0.019622834,-0.18357293,-0.13628457,0.014964942,0.046805177,-0.042337116,0.0,0.0,0.0,-0.013500965,0.14338073,-0.16425376,-0.061377432,-0.20199485,-0.3728852,0.09681647,0.10182109,0.17465146,0.08783818,-0.1291206,0.19064575,0.063400544,0.08155749,0.010082165,0.06867826,0.021506846,-0.061874196,0.065580025,-0.13933888,0.00420631,0.0989473,-0.09262174,-0.14890073,0.11972562,1.0,1.0,1.0,-1.0,-1.0,1.0,-1.0,-1.0,1.0,-1.0,-1.0,1.0,-1.0,-1.0,-1.0,-1.0,-1.0,1.0,1.0,1.0,-1.0,-1.0,1.0,1.0
2025-07-21 13:10:51.294,0.4200000000000001,420,21,-0.23481023,-0.04933549,0.055451058,-0.0029965104,0.07710777,0.030412523,0.0,0.0,0.0,-0.013578838,0.12359659,-0.18268287,-0.079544835,-0.21054274,-0.3862039,0.11446804,0.110218756,0.20663987,0.05369539,-0.14524978,0.17267936,0.07515911,-0.06877327,-0.10638076,-0.09740737,0.0070734895,-0.067071706,0.06527188,-0.031094356,0.16901281,-0.079702444,0.014499082,0.08016385,-0.007984642,-1.0,-1.0,-1.0,-1.0,-1.0,1.0,1.0,1.0,-1.0,-1.0,1.0,1.0,1.0,1.0,-1.0,-1.0,-1.0,1.0,-1.0,-1.0,1.0,-1.0,-1.0,1.0
2025-07-21 13:10:51.310,0.4400000000000001,440,22,0.124764375,-0.02646663,-0.08142903,-0.0020001049,0.0415904,0.04651077,0.0,0.0,0.0,-0.013853468,0.12421644,-0.17375647,-0.09354504,-0.19318311,-0.39591777,0.114409275,0.072303884,0.19994114,0.06737088,-0.14164735,0.16732505,0.08693027,-0.004488281,0.082415536,0.036166318,-0.074874945,0.01027378,-0.013706267,-0.0743046,-0.080177546,-0.01003786,-0.080161005,-0.11600366,-0.022795774,1.0,1.0,-1.0,-1.0,-1.0,1.0,-1.0,-1.0,1.0,-1.0,-1.0,1.0,-1.0,-1.0,-1.0,-1.0,-1.0,1.0,1.0,1.0,1.0,-1.0,1.0,1.0
2025-07-21 13:10:51.330,0.46000000000000013,460,23,-0.14895922,-0.019808168,0.07863402,0.026157359,0.00046696272,0.008871159,0.0,0.0,0.0,-0.01316567,0.09961606,-0.1489695,-0.11214424,-0.21197079,-0.39203852,0.12196956,0.081688,0.21265453,0.088016555,-0.1514396,0.19536215,0.09449554,-0.061298683,-0.06598467,-0.085183196,0.013467207,-0.038814656,0.086456396,0.07961972,0.11383177,-0.022859033,-0.07418286,0.093581125,0.07044958,-1.0,-1.0,-1.0,-1.0,-1.0,1.0,1.0,1.0,1.0,-1.0,1.0,1.0,1.0,1.0,-1.0,-1.0,-1.0,1.0,-1.0,-1.0,1.0,-1.0,-1.0,1.0
2025-07-21 13:10:51.350,0.48000000000000015,480,24,0.19952442,-0.07011641,-0.04811654,0.024729375,0.05368444,-0.0196156,0.0,0.0,0.0,-0.013995827,0.11822264,-0.11108761,-0.11556947,-0.20410784,-0.4159365,0.1176863,0.0848792,0.21485549,0.09489426,-0.15669976,0.18220016,0.09785362,0.05851221,0.13109912,-0.059717044,-0.03908901,-0.03682994,0.0018610882,-0.06134526,-0.0794575,-0.009254494,-0.054672156,-0.103773214,0.0953474,1.0,1.0,-1.0,-1.0,-1.0,1.0,-1.0,-1.0,1.0,-1.0,-1.0,1.0,-1.0,-1.0,-1.0,-1.0,-1.0,1.0,1.0,1.0,1.0,-1.0,1.0,1.0
2025-07-21 13:10:51.375,0.5000000000000001,500,25,-0.10716604,0.026446966,0.18050215,0.009972427,0.019844996,-0.013770697,0.0,0.0,0.0,-0.013768371,0.09068796,-0.09293825,-0.12964922,-0.20763724,-0.41560882,0.1239195,0.086149715,0.24003454,0.097256675,-0.17580436,0.21078086,0.11304435,-0.007675693,-0.006884239,-0.0919631,0.0491282,0.019568074,-0.019870112,0.10212998,0.13577686,0.004311683,0.0070068296,0.08280915,0.064488605,-1.0,-1.0,-1.0,-1.0,-1.0,1.0,1.0,1.0,1.0,-1.0,1.0,1.0,1.0,0.73680556,1.0,-1.0,-1.0,1.0,-1.0,-1.0,1.0,-1.0,-1.0,1.0
2025-07-21 13:10:51.393,0.5200000000000001,520,26,-0.06414264,0.026014464,-0.13581528,-0.034255438,-0.009879241,0.018434726,0.0,0.0,0.0,-0.014748248,0.09672492,-0.087586455,-0.093780175,-0.21424748,-0.42216772,0.1287478,0.056604642,0.23844215,0.10693492,-0.18156865,0.19557472,0.11730092,0.08535702,-0.041734826,0.08561583,0.049209394,0.023249645,0.04638694,-0.018613424,-0.006661855,0.020324344,-0.024380231,-0.02027918,-0.028761316,1.0,0.73680556,1.0,-1.0,-1.0,1.0,-1.0,-1.0,1.0,-1.0,-1.0,1.0,-1.0,-1.0,-1.0,-1.0,-1.0,1.0,1.0,-1.0,1.0,-1.0,1.0,-1.0
2025-07-21 13:10:51.410,0.5400000000000001,540,27,0.058037523,0.0021649343,0.079896085,0.039783485,-0.002397196,-0.029960666,0.0,0.0,0.0,-0.0137705235,0.059569206,-0.13369456,-0.110810645,-0.20631528,-0.41254708,0.11977253,0.06152522,0.19407798,0.11950852,-0.18003996,0.22772756,0.07093181,-0.12778892,-0.2159875,0.050684404,-0.052810013,-0.013446625,-0.052749135,0.12761286,-0.1710422,0.06958198,0.030842911,0.122864254,-0.1273142,-1.0,-1.0,-1.0,-1.0,-1.0,1.0,1.0,-1.0,1.0,-1.0,1.0,-1.0,1.0,1.0,-1.0,-1.0,-1.0,1.0,1.0,1.0,1.0,1.0,-1.0,1.0
2025-07-21 13:10:51.430,0.5600000000000002,560,28,0.09331489,0.26257667,-0.053413086,0.007902607,0.05582507,0.042265035,0.0,0.0,0.0,-0.014207401,0.07308276,-0.14814621,-0.12525591,-0.19115552,-0.4288569,0.12512964,0.09188014,0.20420772,0.13354257,-0.11853943,0.19642185,0.086423986,0.057190217,0.09301402,-0.0757381,0.07406688,0.00912676,0.07678344,0.109931394,0.08504444,0.025910646,0.06555994,-0.1776026,0.115274936,1.0,1.0,-1.0,-1.0,-1.0,1.0,1.0,1.0,1.0,1.0,-1.0,1.0,1.0,-1.0,-1.0,-1.0,-1.0,-1.0,-1.0,-1.0,1.0,-1.0,1.0,-1.0
2025-07-21 13:10:51.450,0.5800000000000002,580,29,0.12732917,-0.21254803,-0.1276159,0.04885118,0.05674204,0.014959256,0.0,0.0,0.0,-0.014086757,0.08480596,-0.1571439,-0.1294255,-0.20224166,-0.42982596,0.08696681,0.060696125,0.20016399,0.14220022,-0.122310504,0.21418853,0.045302127,0.04445398,-0.08619886,-0.044606805,0.0056769354,0.020201173,-0.16111152,-0.09555161,-0.013064047,-0.0077920076,0.037300628,0.13158625,-0.15817724,1.0,-1.0,-1.0,-1.0,-1.0,-1.0,-1.0,-1.0,1.0,-1.0,1.0,-1.0,1.0,-1.0,-1.0,-1.0,-1.0,1.0,1.0,-1.0,1.0,-1.0,1.0,1.0
2025-07-21 13:10:51.476,0.6000000000000002,600,30,0.08530433,0.075204246,0.22416338,-0.0060204123,-0.008240826,0.0026630904,0.0,0.0,0.0,-0.011968628,0.11134755,-0.20068692,-0.13141696,-0.20732713,-0.43201125,0.064435154,0.089780934,0.17046663,0.13623218,-0.13047673,0.24553719,0.07110262,0.038320567,-0.15461695,0.056212444,-0.06270777,-0.058916073,0.02529542,0.08264922,-0.1303519,0.05336344,-0.0380288,0.09879081,0.0028379722,1.0,-1.0,-1.0,-1.0,-1.0,1.0,1.0,-1.0,1.0,-1.0,1.0,1.0,1.0,1.0,-0.38972557,-1.0,-1.0,1.0,1.0,1.0,1.0,-1.0,-1.0,1.0
2025-07-21 13:10:51.493,0.6200000000000002,620,31,0.0060830424,0.196013,0.047514845,-0.032760907,0.035340607,0.02751862,0.0,0.0,0.0,-0.013518241,0.12307988,-0.19597028,-0.120653726,-0.20555517,-0.42422318,0.081514664,0.10061724,0.19000818,0.13391337,-0.14600481,0.22826265,0.084682494,0.09104476,0.22304183,-0.030389564,-0.0067251287,-0.05300703,0.08864708,0.06582187,0.13129762,0.031374287,-0.064470775,-0.19379084,0.06904026,1.0,1.0,-0.38972557,-1.0,-1.0,1.0,1.0,1.0,1.0,-1.0,-1.0,1.0,1.0,-1.0,-1.0,-1.0,-1.0,1.0,-1.0,-1.0,1.0,-1.0,1.0,-1.0
2025-07-21 13:10:51.511,0.6400000000000002,640,32,0.04390936,-0.10829075,0.03413396,0.0028738002,0.038987093,0.038056903,0.0,0.0,0.0,-0.015382018,0.114499174,-0.1918192,-0.12167316,-0.21564744,-0.4302085,0.08835829,0.10110606,0.20640248,0.13695645,-0.15263908,0.23367766,0.05097708,-0.004327436,-0.041252647,0.045735527,-0.05628913,-0.030264653,0.027291032,-0.093243636,-0.02667222,0.038078435,0.018656865,0.1498297,-0.07850337,1.0,-1.0,-1.0,-1.0,-1.0,1.0,-1.0,-1.0,1.0,-1.0,1.0,-1.0,1.0,1.0,1.0,-1.0,-1.0,1.0,1.0,1.0,1.0,-1.0,-1.0,-1.0
2025-07-21 13:10:51.530,0.6600000000000003,660,33,-0.11731735,0.069314346,-0.14402528,0.00918263,0.039584644,-0.03448822,0.0,0.0,0.0,-0.01643682,0.1339951,-0.20091182,-0.090475544,-0.20347522,-0.4381264,0.09507386,0.11261828,0.2389735,0.14650126,-0.15424153,0.2077096,0.0022400115,0.0071611404,-0.008558789,0.036080997,0.061309386,0.04469598,-0.03182234,0.005003824,0.051726248,0.0021084414,-0.08499013,-0.041924562,0.006244848,1.0,1.0,1.0,-1.0,-1.0,1.0,1.0,1.0,1.0,-1.0,-1.0,-1.0,1.0,-1.0,-1.0,-1.0,-1.0,1.0,1.0,-1.0,1.0,-1.0,-1.0,0.03844873
2025-07-21 13:10:51.551,0.6800000000000003,680,34,0.1965779,0.073286064,0.025914332,-0.003901631,0.006870659,0.0029057993,0.0,0.0,0.0,-0.015480698,0.13633646,-0.21966258,-0.09847768,-0.21331862,-0.44371688,0.100800455,0.124735326,0.23782402,0.14395761,-0.16280043,0.15750213,0.003275361,-0.017091036,-0.10159789,-0.05847847,-0.06665935,-0.041892726,-0.053770192,0.030381871,-0.08127017,-0.059444614,0.050802175,-0.15751709,-0.017494142,1.0,-1.0,-1.0,-1.0,-1.0,1.0,1.0,-1.0,1.0,-1.0,-1.0,0.03844873,1.0,-1.0,-1.0,-1.0,1.0,1.0,1.0,1.0,1.0,-1.0,1.0,-1.0
2025-07-21 13:10:51.576,0.7000000000000003,700,35,-0.087203294,0.10340612,0.13265654,0.051514216,0.031947102,0.038911447,0.0,0.0,0.0,-0.0148752015,0.15494503,-0.24638142,-0.10202159,-0.20355923,-0.42239693,0.09881025,0.13536653,0.24337699,0.15066233,-0.15088783,0.17928852,-0.03040681,-0.015560171,-0.093940444,-0.017708318,0.05911535,0.023962814,0.019782903,-0.014476208,0.032143634,0.0052061956,-0.062417824,0.10218263,-0.08712583,1.0,-1.0,-1.0,-1.0,1.0,1.0,1.0,1.0,1.0,-1.0,1.0,-1.0,1.0,1.0,1.0,-1.0,-1.0,1.0,1.0,-1.0,1.0,-1.0,-1.0,-1.0
2025-07-21 13:10:51.593,0.7200000000000003,720,36,-0.09124831,-0.00926386,-0.08789579,0.029356688,0.032687187,-0.025418073,0.0,0.0,0.0,-0.016815199,0.15257001,-0.26977926,-0.0846255,-0.19516607,-0.42400563,0.100821786,0.13538934,0.25453147,0.14665645,-0.16435528,0.1801574,-0.04714035,0.053662904,0.03327291,0.14542793,0.06621995,-0.05442314,-0.05139954,0.019762639,-0.06478609,-0.030670581,0.0095395055,-0.075648956,0.006524189,1.0,1.0,1.0,-1.0,-1.0,1.0,1.0,-1.0,1.0,-1.0,-1.0,-1.0,1.0,-1.0,-1.0,-1.0,-1.0,1.0,1.0,1.0,1.0,-1.0,1.0,1.0
2025-07-21 13:10:51.611,0.7400000000000003,740,37,-0.10683799,0.10710753,-0.09393283,0.010160732,0.017290385,0.012104054,0.0,0.0,0.0,-0.016486287,0.15797551,-0.30064103,-0.09246236,-0.20079191,-0.41695562,0.11525255,0.14489768,0.27531195,0.15521221,-0.17685205,0.18826324,-0.029575251,0.07914787,-0.1016183,0.0043757465,0.0046315603,0.0704795,0.049656488,0.006822801,0.12716077,-0.019972729,-0.0022627953,0.14760363,0.08199649,1.0,-1.0,-1.0,-1.0,-1.0,1.0,1.0,1.0,1.0,-1.0,1.0,1.0,1.0,1.0,1.0,-1.0,-1.0,1.0,-1.0,-1.0,1.0,-1.0,1.0,1.0
2025-07-21 13:10:51.631,0.7600000000000003,760,38,-0.110067815,-0.21479277,-0.19092028,0.0353779,0.044301406,-0.04310856,0.0,0.0,0.0,-0.015255402,0.15921538,-0.2673253,-0.070009395,-0.2085354,-0.4235384,0.10850594,0.12183792,0.28971362,0.15727253,-0.16498211,0.2307629,0.00697196,-0.006622932,0.12905133,0.06307323,-0.09513704,-0.030368946,-0.034282632,-0.03579423,0.04010437,0.08212184,-0.052768227,0.15843502,0.13187525,1.0,1.0,1.0,-1.0,-1.0,1.0,-1.0,-1.0,1.0,-1.0,1.0,1.0,0.7873763,-1.0,-1.0,-1.0,-1.0,1.0,1.0,-1.0,-0.9852351,-1.0,-1.0,1.0
2025-07-21 13:10:51.651,0.7800000000000004,780,39,0.1996291,-0.08700136,0.03427545,0.011854952,0.017544981,0.03798303,0.0,0.0,0.0,-0.013056557,0.15990695,-0.27416247,-0.08647929,-0.20387428,-0.4380685,0.112068236,0.12697649,0.27251047,0.10577885,-0.17422694,0.22139001,0.034194123,0.026559832,-0.048099913,-0.0513597,0.035820123,-0.0135876695,0.025015898,0.07511147,-0.09340533,-0.15635581,-0.0049450817,-0.1452595,0.09525655,0.7873763,-1.0,-1.0,-1.0,-1.0,1.0,1.0,-1.0,-0.9852351,-1.0,-1.0,1.0,1.0,1.0,-1.0,-1.0,-1.0,1.0,1.0,1.0,1.0,-1.0,1.0,1.0
2025-07-21 13:10:51.676,0.8000000000000004,800,40,-0.11325687,0.14604373,-0.05403172,0.044150807,0.040501807,-0.01910995,0.0,0.0,0.0,-0.012068332,0.16363147,-0.24165496,-0.099040665,-0.19713983,-0.43328318,0.11919546,0.140475,0.2875067,0.112391725,-0.17389742,0.2318812,0.047190607,-0.0058561796,0.23728307,-0.080193095,0.021913309,-0.029538073,0.08617238,0.027244696,0.11449935,0.0512144,0.017290557,0.106015265,0.08981324,1.0,1.0,-1.0,-1.0,-1.0,1.0,1.0,1.0,1.0,-1.0,1.0,1.0,1.0,-1.0,-1.0,-1.0,-1.0,1.0,1.0,-1.0,1.0,-1.0,-1.0,1.0
2025-07-21 13:10:51.692,0.8200000000000004,820,41,0.1534398,-0.00047670564,0.091532245,0.0016204953,-0.019960187,-0.044877876,0.0,0.0,0.0,-0.012035783,0.16704185,-0.22052647,-0.10101486,-0.20782243,-0.4438778,0.11554846,0.14734812,0.27332118,0.11235569,-0.17646895,0.2151011,0.065109186,0.03060298,-0.08042926,-0.010115853,0.030124165,-0.014883034,-0.031720225,-0.0084422,-0.12519649,-0.040358715,0.05142646,-0.16776508,0.120412275,1.0,-1.0,-1.0,-1.0,-1.0,1.0,1.0,-1.0,1.0,-1.0,-1.0,1.0,1.0,-1.0,-0.35862195,-1.0,1.0,1.0,1.0,1.0,1.0,-1.0,1.0,-1.0
2025-07-21 13:10:51.711,0.8400000000000004,840,42,-0.21264979,0.0144631695,0.16066243,0.023298651,-0.0035005885,-0.03959541,0.0,0.0,0.0,-0.012691064,0.16414134,-0.25452173,-0.0970955,-0.20886658,-0.409603,0.11062634,0.16762407,0.2760502,0.11651857,-0.16290458,0.23539959,0.031766295,0.060405053,-0.1450027,0.06781142,0.06128773,0.11812686,0.0069004167,0.0843652,0.013353345,-0.054296434,-0.017809879,0.13305397,-0.048390456,1.0,-1.0,-0.35862195,-1.0,1.0,1.0,1.0,1.0,1.0,-1.0,1.0,-1.0,1.0,1.0,1.0,-1.0,-1.0,1.0,-1.0,-1.0,1.0,-1.0,-1.0,0.616244
2025-07-21 13:10:51.731,0.8600000000000004,860,43,0.08457733,-0.15420425,-0.10317575,0.0019668478,-0.011033525,-0.04613787,0.0,0.0,0.0,-0.014775393,0.17366661,-0.2638544,-0.07313162,-0.2089327,-0.41293666,0.11594123,0.14942437,0.28442085,0.12650342,-0.17507344,0.23282717,0.056131758,0.07127762,-0.040499672,0.04839645,0.015148694,0.0035356346,-0.012878748,-0.027731732,-0.09480929,-0.019518068,-0.08974241,-0.088212654,0.055433404,1.0,1.0,1.0,-1.0,-1.0,1.0,-1.0,-1.0,1.0,-1.0,-1.0,0.616244,-1.0,-1.0,-1.0,-1.0,-1.0,1.0,1.0,1.0,-1.0,-1.0,1.0,1.0
2025-07-21 13:10:51.751,0.8800000000000004,880,44,-0.14824289,-0.08833469,0.07805613,0.045797832,-0.010241382,0.0065080365,0.0,0.0,0.0,-0.013969206,0.14292674,-0.26240835,-0.089936726,-0.21678026,-0.4243977,0.12570491,0.14048591,0.28808638,0.08319838,-0.18828925,0.2416713,0.066991545,-0.06464931,-0.0060318746,0.022706961,0.009157452,-0.06838263,-0.013599587,-0.039082304,0.065349914,-0.08593556,0.07457231,0.11749574,0.07462931,-1.0,-1.0,-1.0,-1.0,-1.0,1.0,1.0,1.0,-1.0,-1.0,1.0,1.0,1.0,1.0,-0.22645651,-1.0,-1.0,1.0,1.0,-1.0,-1.0,-1.0,-1.0,1.0
2025-07-21 13:10:51.775,0.9000000000000005,900,45,0.077686325,0.030727705,-0.00785166,0.08314856,-0.021630494,0.039956823,0.0,0.0,0.0,-0.014501472,0.13726284,-0.26116183,-0.074831896,-0.19849451,-0.41879687,0.12395326,0.15485737,0.2718528,0.039724726,-0.18214896,0.23433948,0.08379054,0.03053117,0.06106293,0.04534883,-0.006027285,0.0037695544,-0.03596201,0.027916044,-0.028837306,-0.09586817,-0.014184612,0.0016581807,0.044977564,1.0,1.0,-0.22645651,-1.0,-1.0,1.0,1.0,-1.0,-1.0,-1.0,-1.0,1.0,-1.0,-1.0,1.0,-1.0,-1.0,1.0,1.0,1.0,-1.0,-1.0,-1.0,1.0
2025-07-21 13:10:51.792,0.9200000000000005,920,46,-0.017234188,-0.10610977,-0.057986856,0.020907672,0.0076177367,0.040844034,0.0,0.0,0.0,-0.01465479,0.12820512,-0.2612867,-0.04648876,-0.20215473,-0.41565862,0.12355532,0.15050818,0.293201,0.004009399,-0.18144488,0.20503142,0.10006151,-0.09731598,-0.072347954,0.121932894,0.038057808,0.0008600949,-0.06749042,0.030431,0.03901513,-0.02354905,-0.002906931,-0.09580136,0.029571949,-1.0,-1.0,1.0,-1.0,-1.0,1.0,1.0,1.0,-1.0,-1.0,-1.0,1.0,1.0,1.0,-1.0,-1.0,-1.0,1.0,-1.0,-1.0,-1.0,-1.0,1.0,1.0
2025-07-21 13:10:51.811,0.9400000000000005,940,47,-0.0007765556,0.11074223,0.064527184,0.009705089,0.005126896,-0.025367692,0.0,0.0,0.0,-0.013585629,0.14288366,-0.23087992,-0.07016091,-0.20530076,-0.4181533,0.1208448,0.11146609,0.26145786,-0.010560593,-0.18199478,0.2310447,0.107482456,-0.053581383,0.16392258,0.016559744,0.032727137,0.07241005,0.010305739,-0.1856192,-0.18330403,-0.11275551,0.035601556,0.1518794,0.05815054,1.0,1.0,-1.0,-1.0,-1.0,1.0,-1.0,-1.0,-1.0,-1.0,1.0,1.0,-1.0,-1.0,1.0,-1.0,-1.0,1.0,1.0,1.0,-1.0,1.0,-1.0,1.0
2025-07-21 13:10:51.831,0.9600000000000005,960,48,0.1706629,0.20963089,0.12667081,0.08234953,-0.016674422,0.049596883,0.0,0.0,0.0,-0.013734082,0.1382103,-0.23554298,-0.026961463,-0.20723556,-0.42492402,0.13467926,0.12124697,0.24032822,-0.044460624,-0.1579343,0.22029969,0.11415037,0.03597464,-0.14465532,0.061458904,0.042952143,-0.0155254295,0.010586678,-0.035535086,0.12507463,-0.12992705,0.035522394,0.027629022,0.038516305,-1.0,-1.0,1.0,-1.0,-1.0,1.0,1.0,1.0,-1.0,1.0,-1.0,1.0,1.0,1.0,1.0,-1.0,-1.0,-1.0,0.009662703,-1.0,-1.0,-1.0,-1.0,1.0
2025-07-21 13:10:51.851,0.9800000000000005,980,49,0.14643452,-0.12844361,-0.12342657,-0.008902613,0.025177572,0.010806226,0.0,0.0,0.0,-0.015806153,0.13231927,-0.24803433,-0.012500787,-0.19927575,-0.4242962,0.09575062,0.099514954,0.22196667,-0.060130797,-0.16489053,0.18192177,0.11726102,0.053109065,0.051092785,0.0846765,-0.0071045253,-0.035587437,-0.14679413,-0.11594783,-0.17897367,-0.02691015,-0.040012766,-0.12894636,0.038339842,1.0,1.0,1.0,-1.0,-1.0,-1.0,0.009662703,-1.0,-1.0,-1.0,-1.0,1.0,-1.0,-1.0,-1.0,-1.0,-1.0,1.0,1.0,1.0,-1.0,0.6676149,1.0,1.0
2025-07-21 13:10:51.875,1.0000000000000004,1000,50,-0.003013248,0.07128335,0.16584872,0.03270557,-0.054817237,-0.006669678,0.0,0.0,0.0,-0.0154945105,0.12376407,-0.27131462,-0.04829643,-0.18943164,-0.42673305,0.086580604,0.1083119,0.24129798,-0.09007899,-0.12905805,0.18844919,0.11856427,-0.030911408,-0.045831062,-0.0924546,0.05798098,-0.02417924,0.09613726,0.0013123575,0.05093122,-0.011085566,0.1636529,0.1600986,-0.003548181,-1.0,-1.0,-1.0,-1.0,-1.0,1.0,1.0,1.0,-1.0,0.6676149,1.0,1.0,1.0,1.0,1.0,-1.0,-1.0,1.0,1.0,-1.0,-1.0,-1.0,-1.0,1.0
2025-07-21 13:10:51.892,1.0200000000000005,1020,51,-0.068504505,0.0901409,-0.078223966,0.061172865,-0.065546736,-0.039866846,0.0,0.0,0.0,-0.017000392,0.12136248,-0.27258176,-0.028500399,-0.19674657,-0.42296576,0.10995327,0.12539116,0.20787378,-0.09910018,-0.12846868,0.18808682,0.13477221,0.023511851,-0.038416013,0.04563185,0.059558943,-0.021798886,0.039343692,0.09064369,-0.22378507,0.016099574,-0.06955783,-0.04724399,0.07994788,1.0,1.0,1.0,-1.0,-1.0,1.0,1.0,-1.0,-1.0,-1.0,-1.0,1.0,-0.21524346,1.0,-1.0,-1.0,-1.0,1.0,1.0,1.0,1.0,1.0,-1.0,1.0
2025-07-21 13:10:51.912,1.0400000000000005,1040,52,-0.03457741,0.120223254,-0.10180821,-0.017389841,-0.066730395,-0.011290255,0.0,0.0,0.0,-0.017884038,0.12440261,-0.24344626,-0.043638054,-0.18117368,-0.4317839,0.11452055,0.13431583,0.1964463,-0.05488433,-0.13420674,0.16521248,0.1368441,-0.10396081,0.057462573,-0.044055123,0.07330282,0.0032496925,0.06192819,-0.025000138,-0.018305218,0.091773964,0.02926823,-0.11025729,0.04588534,-0.21524346,1.0,-1.0,-1.0,-1.0,1.0,1.0,1.0,1.0,1.0,-1.0,1.0,1.0,1.0,-1.0,-1.0,-1.0,1.0,-1.0,-1.0,1.0,-1.0,1.0,1.0
2025-07-21 13:10:51.932,1.0600000000000005,1060,53,-0.030577676,-0.32307687,-0.097345546,0.05899628,-0.012797554,0.002385752,0.0,0.0,0.0,-0.016832583,0.119424984,-0.19212356,-0.07765073,-0.1989729,-0.43473253,0.11342243,0.09770337,0.20261794,-0.028394474,-0.13652733,0.19382322,0.13235329,0.02229895,0.13605879,-0.112205766,0.016523998,-0.008439352,-0.017148655,-0.13400057,-0.06426881,0.05540121,-0.053209145,0.09516533,-0.05160829,1.0,1.0,-1.0,-1.0,-1.0,1.0,-1.0,-1.0,1.0,-1.0,1.0,1.0,-1.0,-1.0,-1.0,-1.0,-1.0,1.0,1.0,1.0,1.0,1.0,1.0,1.0
2025-07-21 13:10:51.954,1.0800000000000005,1080,54,-0.08472563,-0.19042996,0.029391034,0.0074121635,0.03698139,0.044332553,0.0,0.0,0.0,-0.014871225,0.106298536,-0.17885177,-0.08825351,-0.19625477,-0.43255454,0.11878382,0.121132486,0.2178411,0.0079889605,-0.09598593,0.22901842,0.12835656,-0.107445866,-0.023294521,0.0072319973,-0.06638617,-0.02662792,0.0021421507,0.104119875,0.034296293,0.035695545,0.13742,0.12919207,0.05255834,-1.0,-1.0,-1.0,-1.0,-1.0,1.0,1.0,1.0,1.0,1.0,1.0,1.0,1.0,1.0,-1.0,-1.0,-1.0,1.0,-1.0,-1.0,1.0,-1.0,1.0,1.0
2025-07-21 13:10:51.976,1.1000000000000005,1100,55,-0.10234239,-0.10341055,-0.050577298,-0.0039879316,0.046410628,-0.028856687,0.0,0.0,0.0,-0.0146260755,0.118609026,-0.13661028,-0.10480511,-0.20856322,-0.42104515,0.13245244,0.0794519,0.19661526,0.024761561,-0.108141184,0.2696152,0.13457955,-0.011564508,0.25718036,-0.018112442,-0.052741475,-0.053953115,0.059809197,-0.078399196,-0.17343558,0.038958043,-0.004349362,0.057378113,-0.017923782,1.0,1.0,-1.0,-1.0,-1.0,1.0,-1.0,-1.0,1.0,-1.0,1.0,1.0,-1.0,-1.0,-1.0,-1.0,-1.0,1.0,1.0,1.0,1.0,1.0,-1.0,1.0
2025-07-21 13:10:51.993,1.1200000000000006,1120,56,0.10544574,0.069106296,0.069581725,0.007981957,0.05626308,-0.030886311,0.0,0.0,0.0,-0.013912106,0.0878543,-0.13353243,-0.10446902,-0.19146778,-0.42551473,0.118015185,0.0954731,0.20228255,0.05742468,-0.08397064,0.24370836,0.13922021,-0.018311586,-0.0474143,0.045897365,0.075900875,-0.020692172,-0.048486724,-0.01051415,0.13345762,0.007418386,0.06777832,-0.089500666,-0.00515219,-1.0,-1.0,-1.0,-1.0,-1.0,1.0,1.0,1.0,1.0,1.0,-1.0,1.0,1.0,1.0,-1.0,-1.0,-1.0,1.0,-1.0,-1.0,1.0,-1.0,1.0,1.0
2025-07-21 13:10:52.012,1.1400000000000006,1140,57,0.04153933,-0.2779299,-0.04906499,0.013190321,0.053016376,-0.0051905033,0.0,0.0,0.0,-0.014018151,0.09645005,-0.10825385,-0.12419073,-0.19884045,-0.43700665,0.13508974,0.07262564,0.21979737,0.06284623,-0.081822574,0.26483113,0.1388003,-0.0032322104,0.16986986,-0.026022954,0.049206577,-0.065524295,-0.020114126,-0.0952112,0.027947733,0.017442632,-0.08705195,0.11133102,0.036145266,1.0,1.0,-1.0,-1.0,-1.0,1.0,-1.0,-1.0,1.0,-1.0,1.0,1.0,-1.0,-1.0,-1.0,-1.0,-1.0,1.0,1.0,-1.0,1.0,-1.0,-1.0,1.0
2025-07-21 13:10:52.032,1.1600000000000006,1160,58,0.12791541,-0.06615034,0.13658875,0.02835584,0.07389392,0.046247885,0.0,0.0,0.0,-0.013731579,0.06255115,-0.11798012,-0.13254637,-0.21257536,-0.4274673,0.1158302,0.09465421,0.17279477,0.090687945,-0.095176265,0.24366665,0.14525524,-0.13016902,-0.057813555,-0.0431288,-0.011362557,0.060279418,-0.04954639,0.01059897,-0.18800582,0.11023824,-0.10385798,-0.1523383,0.038341645,-1.0,-1.0,-1.0,-1.0,-1.0,1.0,1.0,-1.0,1.0,-1.0,-1.0,1.0,1.0,1.0,-1.0,-1.0,0.16293393,1.0,1.0,1.0,1.0,-1.0,1.0,1.0
2025-07-21 13:10:52.054,1.1800000000000006,1180,59,-0.27821526,0.05959654,0.09692031,0.05781085,-0.018977284,0.01724628,0.0,0.0,0.0,-0.015232923,0.06988047,-0.115763664,-0.13256574,-0.20468573,-0.419074,0.13037977,0.11209097,0.18488099,0.080763936,-0.121009365,0.25022173,0.14997883,0.025409546,0.21812095,0.0063565145,0.06189201,0.10944633,-0.059165504,0.036653843,0.10575606,0.061886303,-0.027715893,0.10345892,-0.072459035,1.0,1.0,-1.0,-1.0,0.16293393,1.0,1.0,1.0,1.0,-1.0,1.0,1.0,1.0,-1.0,-1.0,-1.0,-1.0,1.0,1.0,-1.0,1.0,-1.0,-1.0,-1.0
2025-07-21 13:10:52.076,1.2000000000000006,1200,60,0.22631884,0.051392384,0.07447278,-0.014453777,0.033777975,0.038227953,0.0,0.0,0.0,-0.017398866,0.10507508,-0.11908028,-0.1349898,-0.21247156,-0.3997911,0.116859525,0.12989679,0.18050362,0.09724032,-0.12451444,0.24120037,0.10177164,0.09101015,-0.08264738,-0.07081612,0.02330435,0.005944101,0.018796444,-0.0031567717,-0.10716644,0.04047907,-0.02405625,-0.12074387,-0.15749608,1.0,-1.0,-1.0,-1.0,-1.0,1.0,1.0,-1.0,1.0,-1.0,-1.0,-1.0,1.0,-1.0,1.0,-1.0,-1.0,1.0,1.0,1.0,1.0,-1.0,-1.0,-0.94163686
2025-07-21 13:10:52.092,1.2200000000000006,1220,61,0.101299785,0.10833402,0.0036966521,-0.033614956,0.024159925,-0.04996265,0.0,0.0,0.0,-0.019036602,0.11011503,-0.16117015,-0.10264238,-0.19252904,-0.40805683,0.12982045,0.1386872,0.20154884,0.11168589,-0.13801394,0.16200474,0.06778723,0.106271446,-0.094504006,0.15509439,0.0110709295,-0.07346442,-0.04610095,0.03621712,0.15166447,0.011238518,-0.018893387,-0.1214213,-0.1265986,1.0,-1.0,1.0,-1.0,-1.0,1.0,1.0,1.0,1.0,-1.0,-1.0,-0.94163686,1.0,-1.0,-1.0,-1.0,-1.0,1.0,-1.0,-1.0,1.0,-1.0,1.0,-1.0
2025-07-21 13:10:52.112,1.2400000000000007,1240,62,0.06826912,-0.07179053,0.13155107,-0.011560989,0.026251517,-0.016889468,0.0,0.0,0.0,-0.020522896,0.121441126,-0.21563129,-0.10741986,-0.21088621,-0.4192417,0.12912714,0.0910245,0.18409297,0.1178279,-0.13348308,0.1534636,0.025843818,0.08003726,-0.11728191,0.006013495,-0.057889912,-0.065417,-0.051658228,-0.0721906,0.0016709185,-0.034182556,0.020484341,0.036908034,-0.028016888,1.0,-1.0,-1.0,-1.0,-1.0,1.0,-1.0,-1.0,1.0,-1.0,1.0,-1.0,1.0,-1.0,1.0,-1.0,-1.0,1.0,1.0,1.0,1.0,-1.0,1.0,1.0
2025-07-21 13:10:52.132,1.2600000000000007,1260,63,-0.24377094,0.09417818,0.07186205,-0.010469658,0.013928977,0.021776453,0.0,0.0,0.0,-0.022708483,0.12298873,-0.24075931,-0.062856436,-0.20146894,-0.4183723,0.12089401,0.10135102,0.1993233,0.11826015,-0.15241887,0.21366705,0.042173326,0.05114939,-0.013846316,0.17406578,-0.030405292,-0.068338655,0.08305627,0.087347895,0.07778762,0.04919574,0.03023068,0.11238796,0.10500019,1.0,-1.0,1.0,-1.0,-1.0,1.0,1.0,1.0,1.0,-1.0,1.0,1.0,1.0,1.0,-1.0,-1.0,-1.0,1.0,-1.0,-1.0,1.0,-1.0,-1.0,-1.0
2025-07-21 13:10:52.152,1.2800000000000007,1280,64,-0.025015123,-0.23334214,-0.12073387,0.024230955,-0.005752235,-0.034270614,0.0,0.0,0.0,-0.023878584,0.14494866,-0.23241873,-0.08037302,-0.2156307,-0.42285368,0.12685296,0.098208606,0.21053602,0.1240225,-0.15727484,0.19375369,0.006740573,-0.010787897,0.06944252,-0.027588945,0.03738922,-0.034765646,-0.031060139,-0.060012683,-0.09918835,-0.028507542,-0.09927533,-0.08927687,0.006475956,1.0,1.0,-1.0,-1.0,-1.0,1.0,-1.0,-1.0,1.0,-1.0,-1.0,-1.0,1.0,-1.0,1.0,-1.0,-1.0,1.0,1.0,1.0,1.0,1.0,1.0,1.0
2025-07-21 13:10:52.173,1.3000000000000007,1300,65,0.00145899,0.20639768,0.11026979,0.009483689,-0.033465102,0.036496855,0.0,0.0,0.0,-0.02258712,0.1473479,-0.22633207,-0.05761659,-0.2016789,-0.42157376,0.1369494,0.100056045,0.23764943,0.12257132,-0.118873484,0.19105111,0.024051584,-0.04829388,-0.08447304,0.020286461,0.06313947,-0.069168955,0.0055388776,0.04288661,0.14976187,-0.041448243,0.16296896,0.12640235,0.052456796,1.0,-1.0,1.0,-1.0,-1.0,1.0,1.0,1.0,1.0,1.0,1.0,1.0,1.0,1.0,-1.0,-1.0,-1.0,1.0,-1.0,-1.0,-1.0,-1.0,1.0,-1.0
2025-07-21 13:10:52.199,1.3200000000000007,1320,66,-0.08780175,-0.1473856,0.02466962,0.045764267,0.019307371,-0.004860766,0.0,0.0,0.0,-0.022793112,0.1477366,-0.21663785,-0.06668434,-0.21083312,-0.421607,0.1292168,0.07976641,0.26061365,0.0906788,-0.12294816,0.22856934,-0.011538716,-0.004620229,0.11009725,-0.047739014,0.018993143,-0.028205061,0.015546832,-0.056673855,0.011896648,-0.07875304,-0.047552403,0.02256172,-0.01892371,1.0,1.0,-1.0,-1.0,-1.0,1.0,-1.0,-1.0,-1.0,-1.0,1.0,-1.0,1.0,-1.0,1.0,-1.0,-1.0,-1.0,1.0,1.0,0.9376942,1.0,-1.0,1.0
2025-07-21 13:10:52.215,1.3400000000000007,1340,67,0.14926971,0.048090685,0.025615705,-0.02725861,0.014031183,0.04348939,0.0,0.0,0.0,-0.023777707,0.16193862,-0.22276501,-0.056488242,-0.19758603,-0.4227064,0.078951254,0.09047608,0.26806793,0.09814685,-0.08755315,0.21159093,0.021523748,0.039767087,-0.016466996,0.093639165,0.085211776,-0.0031852287,-0.0759723,0.04993106,0.0646874,-0.023970468,0.060195934,-0.11786585,0.09168441,1.0,-1.0,1.0,-1.0,-1.0,-1.0,1.0,1.0,0.9376942,1.0,-1.0,1.0,1.0,-1.0,-1.0,-1.0,1.0,1.0,-1.0,-1.0,0.57910836,-1.0,1.0,1.0
2025-07-21 13:10:52.233,1.3600000000000008,1360,68,-0.032544952,0.110351704,0.18278444,-0.02908008,0.05645238,-0.022430276,0.0,0.0,0.0,-0.023402957,0.15616982,-0.24203737,-0.054339565,-0.19841439,-0.41539118,0.08250448,0.053254977,0.25818846,0.08725568,-0.0963358,0.22808832,0.041520253,-0.044416405,-0.091936536,-0.030786697,-0.046950072,0.097918816,-0.0398977,-0.15373756,-0.1541114,0.052028485,-0.041817497,0.12337476,-0.026886685,1.0,-1.0,-1.0,-1.0,1.0,1.0,-1.0,-1.0,0.57910836,-1.0,1.0,1.0,1.0,1.0,1.0,-1.0,-1.0,0.7025249,1.0,1.0,-1.0,-1.0,-1.0,1.0
2025-07-21 13:10:52.258,1.3800000000000008,1380,69,0.055577043,0.23824294,-0.06497578,0.018818695,-0.013025927,-0.041985467,0.0,0.0,0.0,-0.0257286,0.16505319,-0.23277016,-0.03496789,-0.18642595,-0.41130936,0.09138925,0.06682457,0.25848812,0.057768058,-0.103376985,0.21380141,0.04945298,0.008714226,0.12966576,0.09318426,0.02502741,0.04889504,-0.019777674,0.09895488,0.0820789,-0.054780096,0.036702916,-0.09425542,0.05462575,1.0,1.0,1.0,-1.0,-1.0,0.7025249,1.0,1.0,-1.0,-1.0,-1.0,1.0,1.0,-1.0,-1.0,-1.0,-1.0,1.0,-1.0,-1.0,-1.0,-1.0,1.0,1.0
2025-07-21 13:10:52.276,1.4000000000000008,1400,70,0.057598263,-0.21258523,0.0639327,-0.021691188,0.0035326616,-0.009147685,0.0,0.0,0.0,-0.026860261,0.16048421,-0.22106941,-0.05213105,-0.2072487,-0.43154812,0.091997996,0.06769789,0.26597905,0.020247743,-0.12348775,0.22422418,0.07912039,0.030789575,-0.075926766,-0.013079968,-0.09515178,-0.06699311,-0.050585236,-0.0484646,-0.014646027,-0.08052142,-0.052908536,0.04053972,0.034756027,1.0,-1.0,-1.0,-1.0,-1.0,1.0,-1.0,-1.0,-1.0,-1.0,1.0,1.0,1.0,1.0,1.0,-1.0,-1.0,1.0,1.0,1.0,-1.0,-1.0,-1.0,1.0
2025-07-21 13:10:52.294,1.4200000000000008,1420,71,-0.08032141,0.06850372,-0.07073701,0.024305178,0.050332807,-0.017136797,0.0,0.0,0.0,-0.027476741,0.18069933,-0.22721267,-0.028025348,-0.19954798,-0.43151835,0.095815144,0.0795956,0.29596263,-0.010056702,-0.13087139,0.2121597,0.08421024,0.085927434,0.07409637,0.1126022,0.015361551,-0.009700384,0.049933538,0.031792466,0.073763154,-0.05066346,-0.03359085,-0.13065994,0.097019084,1.0,1.0,1.0,-1.0,-1.0,1.0,1.0,1.0,-1.0,-1.0,-1.0,1.0,1.0,-1.0,1.0,-1.0,-1.0,1.0,1.0,-1.0,-1.0,-1.0,1.0,1.0
2025-07-21 13:10:52.313,1.4400000000000008,1440,72,-0.15570666,-0.07978728,0.021449279,0.046065845,0.059609964,-0.02287317,0.0,0.0,0.0,-0.02689479,0.17170538,-0.2524585,0.005251752,-0.1993384,-0.421626,0.09935785,0.08641485,0.25641885,-0.04100912,-0.13966611,0.23868747,0.08652584,0.0153228855,-0.11537457,0.1312895,-0.07285847,0.05586353,0.057378206,-0.029032392,-0.22524571,-0.12322773,-0.05721711,0.12277736,-0.0352048,1.0,-1.0,1.0,-1.0,-1.0,1.0,1.0,-1.0,-1.0,-1.0,1.0,1.0,1.0,1.0,-1.0,-1.0,-1.0,1.0,1.0,1.0,-0.15338457,1.0,-1.0,1.0
2025-07-21 13:10:52.334,1.4600000000000009,1460,73,0.17165652,0.2760439,-0.007386058,-0.0021603974,0.03637813,0.024509972,0.0,0.0,0.0,-0.026790967,0.17856531,-0.22488034,-0.036605228,-0.18588138,-0.42367977,0.12018182,0.11627314,0.23327321,-0.048184022,-0.12590875,0.24472561,0.10432772,-0.048031226,0.17811354,-0.09878109,0.008586076,-0.04897983,0.042727467,0.020545105,0.056814406,0.040900912,0.1255349,-0.0003041532,0.019525694,1.0,1.0,-1.0,-1.0,-1.0,1.0,1.0,1.0,-0.15338457,1.0,-1.0,1.0,1.0,-1.0,-1.0,-1.0,-1.0,1.0,1.0,-1.0,1.0,-1.0,1.0,1.0
2025-07-21 13:10:52.358,1.4800000000000009,1480,74,0.14471908,-0.08072212,0.18719384,0.048386354,-0.02658355,0.0043002,0.0,0.0,0.0,-0.02700541,0.19078118,-0.2096962,-0.056984287,-0.18827765,-0.4237352,0.11198422,0.1283083,0.21330905,-0.010034286,-0.13394423,0.2659896,0.11024459,0.046942342,-0.15056232,-0.06994538,-0.070061974,-0.003354576,-0.048993062,0.024801442,-0.116361186,0.053478114,-0.020597547,0.13388483,0.045913797,1.0,-1.0,-1.0,-1.0,-1.0,1.0,1.0,-1.0,1.0,-1.0,1.0,1.0,1.0,1.0,-1.0,-1.0,-1.0,1.0,1.0,1.0,1.0,-1.0,-1.0,1.0
2025-07-21 13:10:52.377,1.5000000000000009,1500,75,0.10294777,0.011533256,0.056220245,-0.018048536,0.026550919,-0.048998445,0.0,0.0,0.0,-0.029116398,0.17373191,-0.18165997,-0.066013396,-0.19646794,-0.43966404,0.12592715,0.13484786,0.21438105,0.007035717,-0.13990667,0.2408746,0.12242317,0.003096691,0.11085887,-0.12203538,0.035351437,-0.06628734,0.007337272,0.067115456,0.14647147,0.10208094,-0.012528818,-0.17593475,0.048013687,1.0,1.0,-1.0,-1.0,-1.0,1.0,1.0,1.0,1.0,-1.0,-1.0,1.0,1.0,-1.0,-1.0,-1.0,-1.0,1.0,-1.0,-1.0,1.0,-1.0,1.0,-1.0
2025-07-21 13:10:52.393,1.520000000000001,1520,76,-0.024539268,-0.25240692,0.09439463,-0.018995216,0.025536336,-0.03162672,0.0,0.0,0.0,-0.03100839,0.17619283,-0.19168948,-0.08848177,-0.194252,-0.42696857,0.115742885,0.11287731,0.21268816,0.032710973,-0.13377248,0.24856927,0.0784488,-0.070118785,-0.038935993,0.046392296,0.01336501,-0.062488716,-0.0691944,0.008679978,-0.050256517,0.035643347,0.05197343,0.07016331,-0.07617055,1.0,-1.0,-1.0,-1.0,-1.0,1.0,-1.0,-1.0,1.0,-1.0,1.0,-1.0,1.0,1.0,1.0,-1.0,-1.0,1.0,1.0,1.0,1.0,-1.0,-1.0,-1.0
2025-07-21 13:10:52.414,1.540000000000001,1540,77,-0.18676847,-0.092861265,-0.12087093,0.027120719,-0.004909923,-0.011664701,0.0,0.0,0.0,-0.032186754,0.1697854,-0.17904514,-0.048010536,-0.19754301,-0.4350037,0.11223157,0.12437123,0.22708023,0.053334154,-0.15459137,0.22853665,0.043913063,0.051573608,0.06709838,0.1415993,-0.008727317,-0.005841681,0.03350986,-0.008414955,0.0586181,-0.0040431,-0.09458925,-0.0674763,-0.026156774,1.0,1.0,1.0,-1.0,-1.0,1.0,1.0,1.0,1.0,-1.0,-1.0,-1.0,1.0,-1.0,-1.0,-1.0,-1.0,1.0,1.0,-1.0,1.0,-1.0,-1.0,0.5241758
2025-07-21 13:10:52.438,1.560000000000001,1560,78,0.12046045,-0.054285854,0.031379975,-0.0017866242,0.043275155,-0.03125019,0.0,0.0,0.0,-0.0315864,0.18422218,-0.18069695,-0.06810577,-0.19624127,-0.44451675,0.117387146,0.12753412,0.19150609,0.06911134,-0.15159528,0.15898794,0.040647812,0.04597117,-0.124111,-0.074403025,-0.012220507,-0.021723786,-0.02923374,-0.025846343,-0.14097965,0.015927248,0.008591645,-0.14073946,0.053257924,1.0,-1.0,-1.0,-1.0,-1.0,1.0,1.0,-1.0,1.0,-1.0,-1.0,0.5241758,1.0,-1.0,-1.0,-1.0,1.0,1.0,1.0,1.0,1.0,-1.0,1.0,1.0
2025-07-21 13:10:52.460,1.580000000000001,1580,79,-0.21150692,0.09682528,0.09884127,0.034976944,-0.018579695,0.016003175,0.0,0.0,0.0,-0.030720146,0.1904271,-0.22749569,-0.08164142,-0.19952704,-0.42429814,0.12532218,0.14031078,0.19174744,0.0789104,-0.15492262,0.15698642,0.06413813,0.032099955,-0.12103684,-0.009026949,0.06827438,0.0819453,0.02638006,0.059364572,0.04819488,-0.048217602,0.029500922,0.14911667,0.09823257,1.0,-1.0,-1.0,-1.0,1.0,1.0,1.0,1.0,1.0,-1.0,1.0,1.0,1.0,1.0,1.0,-1.0,-1.0,1.0,-1.0,-1.0,1.0,-1.0,1.0,-1.0
2025-07-21 13:10:52.476,1.600000000000001,1600,80,0.04516891,-0.16418143,-0.030655254,-0.010877355,0.06076798,-0.03254776,0.0,0.0,0.0,-0.03211708,0.1851246,-0.2115183,-0.03984336,-0.20585349,-0.41507724,0.12550335,0.13299556,0.20754117,0.096964136,-0.16717145,0.20001042,0.015145684,0.046657413,0.1315202,0.056044802,0.0468837,-0.014786642,0.017253807,-0.049859557,-0.039808188,0.03288049,-0.0057019377,0.029385552,-0.12232861,1.0,1.0,1.0,-1.0,-1.0,1.0,-1.0,-1.0,1.0,-1.0,1.0,-1.0,1.0,-1.0,-1.0,-1.0,-1.0,1.0,1.0,1.0,1.0,-1.0,1.0,-1.0
2025-07-21 13:10:52.495,1.620000000000001,1620,81,0.04925089,0.11299385,-0.035793327,-0.034274746,0.008626143,-0.021983221,0.0,0.0,0.0,-0.032100677,0.18555671,-0.20884192,-0.07067559,-0.20328547,-0.4120405,0.12842903,0.13528374,0.23027445,0.09725605,-0.16049945,0.23663484,-0.0026698476,0.002025925,-0.11548122,0.030526072,0.08225859,-0.0045487466,0.069470204,-0.03895921,0.0993473,-0.016695444,-0.005027494,0.12638013,-0.096302,1.0,-1.0,-1.0,-1.0,-1.0,1.0,1.0,1.0,1.0,-1.0,1.0,-1.0,1.0,1.0,1.0,-1.0,-1.0,1.0,1.0,-1.0,1.0,-1.0,-1.0,0.94493645
2025-07-21 13:10:52.514,1.640000000000001,1640,82,-0.09106552,-0.032090887,-0.024573753,0.024963772,-0.031286813,-0.048380002,0.0,0.0,0.0,-0.03137541,0.18074706,-0.22205849,-0.03337203,-0.2044079,-0.42365187,0.12778649,0.14287357,0.22797251,0.12067307,-0.17641164,0.20652883,0.020998556,0.031935435,-0.045118112,0.11264746,0.051425435,0.07008258,0.0785453,0.056854043,-0.041178353,0.079784214,-0.028886195,-0.16446044,0.049702544,1.0,1.0,1.0,-1.0,-1.0,1.0,1.0,-1.0,1.0,-1.0,-1.0,0.94493645,1.0,-1.0,-1.0,-1.0,-1.0,1.0,1.0,1.0,1.0,-1.0,1.0,-1.0
2025-07-21 13:10:52.534,1.660000000000001,1660,83,-0.14538689,0.05505826,0.059453372,0.018459814,-0.008937515,-0.029073393,0.0,0.0,0.0,-0.030850193,0.18808393,-0.24021375,-0.04842018,-0.19744843,-0.41822898,0.13337779,0.15511888,0.24015173,0.107148975,-0.16462223,0.22075069,-0.019681511,-0.05259701,-0.14581876,-0.08470556,0.061542943,-0.045183234,-0.055854257,-0.03152075,0.031319078,-0.03194024,-0.007724135,0.029385153,-0.015264183,1.0,-1.0,-1.0,-1.0,-1.0,1.0,1.0,1.0,1.0,-1.0,1.0,-1.0,1.0,1.0,1.0,-1.0,-1.0,1.0,1.0,-1.0,1.0,-1.0,-1.0,1.0
2025-07-21 13:10:52.559,1.680000000000001,1680,84,0.05295586,-0.0059301886,-0.05722937,0.038129617,0.022125445,0.02081949,0.0,0.0,0.0,-0.030717552,0.18476205,-0.23673083,-0.024778236,-0.20297344,-0.43007863,0.12604214,0.15638696,0.23112248,0.13242918,-0.16279675,0.19551145,0.0033681607,-0.002735427,0.0030173506,0.12162419,-0.063365094,-0.079653375,0.065816216,0.07567447,-0.0072580213,0.082730964,-0.07665356,-0.023683367,0.03553696,1.0,1.0,1.0,-1.0,-1.0,1.0,1.0,-1.0,1.0,-1.0,-1.0,1.0,1.0,0.6572608,-1.0,-1.0,-1.0,1.0,1.0,-1.0,1.0,-1.0,-1.0,-1.0
2025-07-21 13:10:52.576,1.700000000000001,1700,85,0.16225812,0.016677054,0.022389617,0.05183328,0.003405426,0.01484628,0.0,0.0,0.0,-0.030038077,0.19948676,-0.20988134,-0.053163428,-0.20344095,-0.41952553,0.12333295,0.15695052,0.20800985,0.14180179,-0.17991118,0.15692286,-0.017901126,0.070571065,0.046761557,-0.08513939,-0.056243617,0.004819818,-0.06714736,-0.030886285,-0.119598985,0.06707414,-0.057835028,-0.081646346,-0.0737943,1.0,0.6572608,-1.0,-1.0,-1.0,1.0,1.0,-1.0,1.0,-1.0,-1.0,-1.0,1.0,-1.0,1.0,-1.0,-1.0,1.0,1.0,1.0,1.0,-1.0,1.0,1.0
2025-07-21 13:10:52.595,1.720000000000001,1720,86,-0.035740636,0.07315908,0.053846013,-0.019158594,-0.042919323,0.011702634,0.0,0.0,0.0,-0.02959568,0.19384715,-0.2028123,-0.030550413,-0.20016661,-0.43603557,0.12497818,0.17124407,0.22694285,0.13760164,-0.18548001,0.15870196,0.01071243,-0.059547376,-0.01680002,0.03324159,0.049159,0.080577455,0.08847253,0.065803595,0.05992373,0.032942776,-0.06879566,0.14275213,0.012543456,1.0,-1.0,1.0,-1.0,-1.0,1.0,1.0,1.0,1.0,-1.0,1.0,1.0,1.0,-1.0,-1.0,-1.0,-1.0,1.0,-1.0,-1.0,1.0,-1.0,-1.0,-1.0
2025-07-21 13:10:52.614,1.740000000000001,1740,87,0.116377376,-0.19742844,-0.011376866,-0.010600708,0.00080760976,0.0036019196,0.0,0.0,0.0,-0.030054137,0.19767432,-0.24725243,-0.050845344,-0.20156918,-0.4382576,0.12682536,0.1472259,0.21650362,0.14966993,-0.1820152,0.12338355,-0.026483947,-0.01461322,-0.042822532,-0.10302066,0.02333807,-0.013679962,-0.05335004,-0.15461701,-0.061720546,0.08245465,-0.07027669,-0.13751945,-0.003790912,1.0,-1.0,-1.0,-1.0,-1.0,1.0,-1.0,-1.0,1.0,-1.0,-1.0,-1.0,1.0,-1.0,1.0,-1.0,1.0,1.0,1.0,1.0,1.0,-1.0,1.0,1.0
2025-07-21 13:10:52.634,1.7600000000000011,1760,88,-0.26620427,0.13211906,0.12172736,0.06829017,0.00015684284,-0.022784865,0.0,0.0,0.0,-0.030540084,0.190857,-0.27927408,-0.021992788,-0.21104328,-0.39748868,0.12309311,0.15674601,0.25074697,0.13470905,-0.18871844,0.12735546,-0.0012861253,0.002932794,-0.09682516,0.047244612,-0.049707904,0.18207592,0.016214795,0.05016027,0.14460304,0.058076266,-0.03285883,0.18575504,0.056979418,1.0,-1.0,1.0,-1.0,1.0,1.0,1.0,1.0,1.0,-1.0,1.0,1.0,1.0,-1.0,1.0,-1.0,-1.0,1.0,-1.0,-1.0,1.0,-1.0,-1.0,0.2146174
2025-07-21 13:10:52.659,1.7800000000000011,1780,89,0.12949097,-0.12494302,-0.12738366,0.020836366,0.017611891,0.020235488,0.0,0.0,0.0,-0.03147506,0.18085635,-0.30281833,0.010825436,-0.21065438,-0.41188523,0.12527965,0.114773415,0.2490591,0.15277386,-0.18928078,0.13754995,0.020268198,0.055548877,-0.057498034,0.096901774,-0.0051215934,-0.032575723,-0.023034817,-0.13132454,-0.13515073,-0.023417994,0.03458523,-0.042000763,0.028820373,1.0,-1.0,1.0,-1.0,-1.0,1.0,-1.0,-1.0,1.0,-1.0,-1.0,0.2146174,1.0,1.0,-1.0,-1.0,-0.72548544,1.0,1.0,1.0,1.0,-1.0,1.0,-1.0
2025-07-21 13:10:52.676,1.8000000000000012,1800,90,-0.1615328,0.118967034,0.01458375,0.05767305,-0.01713682,-0.049609154,0.0,0.0,0.0,-0.031407215,0.17488271,-0.24764459,-0.019506006,-0.20838347,-0.40347445,0.1365934,0.11962145,0.26432458,0.1416728,-0.18154079,0.1587824,-0.025668364,-0.06244521,0.17854862,-0.12641475,-0.029245714,0.007204787,-0.027668385,0.05707251,0.035963375,-0.037470985,-0.06576502,0.062299445,-0.08646108,1.0,1.0,-1.0,-1.0,-0.72548544,1.0,1.0,1.0,1.0,-1.0,1.0,-1.0,1.0,-1.0,-1.0,-1.0,-1.0,1.0,1.0,-1.0,1.0,-1.0,1.0,1.0
2025-07-21 13:10:52.694,1.8200000000000012,1820,91,0.16230324,0.071471654,0.07239678,0.036779437,0.0031814591,0.030515037,0.0,0.0,0.0,-0.030375792,0.18321794,-0.23919341,-0.03380025,-0.20194682,-0.40676093,0.12367647,0.12944484,0.26825246,0.15164597,-0.17113285,0.20788053,0.018812837,-0.03578705,-0.061936162,-0.11277575,-0.055652257,-0.08027902,0.035493374,0.08752931,-0.046770964,0.07875359,-0.06291609,0.1675714,0.13594896,1.0,-1.0,-1.0,-1.0,-1.0,1.0,1.0,-1.0,1.0,-1.0,1.0,1.0,1.0,1.0,-1.0,-1.0,-1.0,1.0,1.0,-1.0,1.0,-1.0,-1.0,1.0
2025-07-21 13:10:52.714,1.8400000000000012,1840,92,0.1036546,-0.03130924,0.11725056,-0.011265985,-0.020871352,0.007959838,0.0,0.0,0.0,-0.031653155,0.18524082,-0.24432379,-0.07379551,-0.21260504,-0.4133055,0.117797896,0.14999905,0.23692304,0.15908025,-0.17270608,0.19908188,0.042662766,0.024461802,0.020077342,-0.005652914,-0.04139497,-0.05985343,-0.0168828,0.081702664,-0.0782386,0.042833786,0.023374869,-0.13585821,0.09395296,1.0,1.0,-1.0,-1.0,-1.0,1.0,1.0,-1.0,1.0,-1.0,-1.0,1.0,1.0,-1.0,-1.0,-1.0,-1.0,1.0,1.0,1.0,1.0,-1.0,1.0,1.0
2025-07-21 13:10:52.734,1.8600000000000012,1860,93,-0.110337414,0.09302192,0.08874886,0.036238685,-0.053055968,0.017085781,0.0,0.0,0.0,-0.033667184,0.18462613,-0.26970774,-0.08406612,-0.20909841,-0.41632825,0.1374952,0.14585753,0.2587768,0.15958342,-0.18092532,0.18327668,0.06283763,-0.04575992,-0.028160945,-0.09933216,0.023418127,-0.035885,0.019094259,-0.03429675,0.081735924,0.014538692,0.0054570674,0.16922589,0.02416518,1.0,-1.0,-1.0,-1.0,-1.0,1.0,1.0,1.0,1.0,-1.0,1.0,1.0,1.0,1.0,1.0,-1.0,-1.0,1.0,-1.0,-1.0,1.0,-1.0,-1.0,1.0
2025-07-21 13:10:52.759,1.8800000000000012,1880,94,-0.055081666,-0.18398242,-0.17383948,0.040422093,0.033570983,0.033459745,0.0,0.0,0.0,-0.03559288,0.19428195,-0.26517534,-0.05641087,-0.21073434,-0.41333655,0.124023534,0.1294973,0.2531409,0.15776688,-0.17254482,0.18201613,0.085929774,-0.05615882,0.027896777,0.039228145,0.03422292,-0.07315285,-0.024593713,-0.123228125,-0.040965397,-0.022691026,-0.083542004,-0.072761655,0.025589662,1.0,1.0,1.0,-1.0,-1.0,1.0,-1.0,-1.0,1.0,-1.0,-1.0,1.0,-1.0,-1.0,-1.0,-1.0,-1.0,1.0,1.0,1.0,-1.0,-1.0,1.0,1.0
2025-07-21 13:10:52.777,1.9000000000000012,1900,95,-0.21353322,-0.01877227,0.07824877,0.039073467,-0.03645241,0.018981142,0.0,0.0,0.0,-0.034733355,0.15189967,-0.27918524,-0.06496879,-0.22768208,-0.41922417,0.13095975,0.127206,0.2810102,0.09423829,-0.1848548,0.19030896,0.09043635,-0.10065223,-0.04451199,0.026481269,0.05921413,0.03101032,0.06488045,0.08047931,0.037242897,-0.19260575,0.020279076,0.03581112,0.0141756665,-1.0,-1.0,-1.0,-1.0,-1.0,1.0,1.0,1.0,-1.0,-1.0,1.0,1.0,1.0,1.0,1.0,-1.0,-1.0,1.0,-1.0,-1.0,-1.0,-1.0,1.0,1.0
2025-07-21 13:10:52.795,1.9200000000000013,1920,96,-0.14734578,-0.11264272,-0.05526753,0.03323231,-0.010515177,-0.034436435,0.0,0.0,0.0,-0.034865923,0.15564515,-0.27223095,-0.057189718,-0.21827465,-0.4243274,0.12705965,0.10556448,0.2971684,0.053623714,-0.19383126,0.21993163,0.086370096,0.049091104,0.10303377,0.04961511,-0.020221509,0.06420983,0.040632058,-0.030317122,0.048289184,-0.051885594,-0.042457502,0.10713059,0.009898003,1.0,1.0,1.0,-1.0,-1.0,1.0,-1.0,-1.0,-1.0,-1.0,1.0,1.0,-1.0,-1.0,1.0,-1.0,-1.0,0.7898629,1.0,-1.0,-1.0,-1.0,-1.0,1.0
2025-07-21 13:10:52.815,1.9400000000000013,1940,97,0.06637927,-0.259043,0.038522564,0.056157045,-0.007813192,0.04176535,0.0,0.0,0.0,-0.034064885,0.1317713,-0.28462455,-0.024867382,-0.21494047,-0.42594534,0.12825078,0.110813424,0.2603316,0.03635982,-0.18327774,0.22564586,0.11168085,-0.062081642,-0.09700061,0.010311406,-0.027407411,0.04520016,-0.032851074,0.056134634,-0.082970984,-0.0417371,-0.0685313,-0.11890618,0.047558527,-1.0,-1.0,1.0,-1.0,-1.0,0.7898629,1.0,-1.0,-1.0,-1.0,-1.0,1.0,1.0,1.0,-1.0,-1.0,-1.0,1.0,1.0,1.0,1.0,-1.0,1.0,1.0
2025-07-21 13:10:52.836,1.9600000000000013,1960,98,-0.07320962,0.19138812,-0.03418316,0.07213038,0.02104953,-0.014696799,0.0,0.0,0.0,-0.034128133,0.150054,-0.25838253,-0.03573784,-0.21636909,-0.41478744,0.124701016,0.121730685,0.25972992,0.05180744,-0.18789634,0.23960914,0.101238154,0.070511974,0.2551234,-0.08098055,0.029996121,0.024779348,0.0028948574,-0.03011383,0.1066122,0.07246776,-0.032361615,0.11286239,0.046442147,1.0,1.0,-1.0,-1.0,-1.0,1.0,1.0,1.0,1.0,-1.0,1.0,1.0,1.0,-1.0,0.53916323,-1.0,-1.0,1.0,1.0,-1.0,1.0,-1.0,-1.0,1.0
2025-07-21 13:10:52.862,1.9800000000000013,1980,99,0.15887494,-0.030214505,0.08013415,0.021645725,0.057864018,-0.039755087,0.0,0.0,0.0,-0.03423127,0.15857013,-0.237542,-0.032722447,-0.2050549,-0.429811,0.13255869,0.13889742,0.25136903,0.07267424,-0.17759316,0.2426769,0.12513998,-0.03176582,-0.03096135,0.104528666,0.06532634,0.0039305137,-0.053484738,0.023759287,-0.10240027,0.10460385,0.06651262,-0.07679012,0.0005366765,1.0,-1.0,0.53916323,-1.0,-1.0,1.0,1.0,-1.0,1.0,-1.0,-1.0,1.0,1.0,1.0,-1.0,-1.0,-1.0,1.0,1.0,1.0,1.0,-1.0,1.0,-1.0
2025-07-21 13:10:52.878,2.0000000000000013,2000,100,-0.09877024,-0.041359264,0.02179827,0.024351297,-0.024896776,0.0007747202,0.0,0.0,0.0,-0.03460734,0.14802739,-0.21752477,-0.05838242,-0.21466024,-0.42249054,0.13301231,0.15016557,0.24949609,0.076995224,-0.17401087,0.25940073,0.06875814,-0.026360217,0.053594705,-0.06223389,-0.0021946917,0.021393297,-0.022049116,0.030168982,0.03368264,0.02622957,-0.009350614,0.057205174,-0.17864953,1.0,1.0,-1.0,-1.0,-1.0,1.0,1.0,1.0,1.0,-1.0,1.0,-1.0,1.0,-1.0,-1.0,-1.0,-1.0,1.0,0.25710875,-1.0,1.0,-1.0,-1.0,-1.0
2025-07-21 13:10:52.897,2.0200000000000014,2020,101,0.12076055,-0.16936393,-0.0015313249,0.022077268,0.050762646,-0.029005257,0.0,0.0,0.0,-0.035096187,0.1585544,-0.22159779,-0.060107004,-0.20340416,-0.4389474,0.1240031,0.12568937,0.25390518,0.094102114,-0.18937877,0.21998265,0.044145018,-0.04307269,-0.13953455,-0.09849296,0.0025102585,-0.02911257,-0.0057237307,-0.06374905,-0.12448899,0.05083604,0.053415194,-0.19946747,-0.079751186,1.0,-1.0,-1.0,-1.0,-1.0,1.0,0.25710875,-1.0,1.0,-1.0,-1.0,-1.0,1.0,-1.0,1.0,-1.0,1.0,1.0,1.0,1.0,1.0,-1.0,1.0,-1.0
2025-07-21 13:10:52.916,2.0400000000000014,2040,102,-0.21558297,0.10151021,0.11156281,-0.0070457673,0.054798566,-0.043329455,0.0,0.0,0.0,-0.03509554,0.16591099,-0.2688307,-0.025000462,-0.20450011,-0.42192444,0.13424425,0.15113156,0.262638,0.10100923,-0.17524593,0.23514804,-0.007960269,0.07491989,-0.032434832,0.089732684,-0.0069564725,0.043271378,0.0014515247,0.043744873,0.04950208,0.014850359,-0.027214399,0.16719802,-0.075434394,1.0,-1.0,1.0,-1.0,1.0,1.0,1.0,1.0,1.0,-1.0,1.0,-1.0,1.0,1.0,-1.0,-1.0,-1.0,1.0,1.0,-1.0,1.0,-1.0,-1.0,-1.0
2025-07-21 13:10:52.941,2.0600000000000014,2060,103,0.2203336,0.06384473,0.10033894,0.02425099,0.06631065,-0.007165778,0.0,0.0,0.0,-0.036511716,0.15878662,-0.24565855,-0.055645216,-0.2052354,-0.41100717,0.11715192,0.15696113,0.26171824,0.10961718,-0.1818176,0.2344794,-0.014008145,-0.060980953,0.11389179,-0.08667944,-0.02678529,0.0050674407,-0.040160988,-0.00496419,-0.011599544,0.099802844,0.020619767,-0.027334455,-0.11950616,1.0,1.0,-1.0,-1.0,-1.0,1.0,1.0,-1.0,1.0,-1.0,-1.0,-1.0,1.0,-1.0,-1.0,-1.0,-1.0,1.0,1.0,1.0,1.0,-1.0,-1.0,0.3407072
2025-07-21 13:10:52.959,2.0800000000000014,2080,104,0.18627633,0.13086805,0.079859145,0.037248846,0.02836728,-0.014972327,0.0,0.0,0.0,-0.037870526,0.17174149,-0.21198878,-0.06534241,-0.21026586,-0.4195383,0.1246567,0.16157272,0.27198875,0.121204264,-0.18331844,0.17873271,-0.010520009,0.0692254,-0.09852939,-0.10824928,-0.00913083,-0.011372427,-0.06170519,0.013675888,0.119123966,0.025447775,-0.04986377,-0.14198703,0.035769973,1.0,-1.0,-1.0,-1.0,-1.0,1.0,1.0,1.0,1.0,-1.0,-1.0,0.3407072,1.0,-1.0,1.0,1.0,1.0,1.0,-1.0,-1.0,1.0,-1.0,1.0,-1.0
2025-07-21 13:10:52.976,2.1000000000000014,2100,105,-0.052487362,0.059700184,0.12072226,0.022747356,-0.011060229,-0.0338248,0.0,0.0,0.0,-0.039719295,0.17943773,-0.24892084,-0.04189618,-0.1977101,-0.40524274,0.12475295,0.13349083,0.26333985,0.118790805,-0.1712623,0.19065167,-0.038839247,0.072640136,-0.08450133,0.15333056,0.050797734,0.05924358,0.023459196,0.004004117,-0.074499786,0.077610485,0.062044192,0.05590174,-0.098860264,1.0,-1.0,1.0,1.0,1.0,1.0,-1.0,-1.0,1.0,-1.0,1.0,-1.0,1.0,-1.0,-1.0,1.0,-1.0,1.0,1.0,-1.0,1.0,-1.0,-1.0,-1.0
2025-07-21 13:10:52.997,2.1200000000000014,2120,106,0.24520427,0.18949944,0.007732858,0.06945186,0.0069186296,0.012433378,0.0,0.0,0.0,-0.041788477,0.18476371,-0.2721087,-0.06958948,-0.16913979,-0.4019099,0.119828224,0.12856284,0.23823638,0.13002288,-0.1777596,0.16209999,-0.059259385,0.04444889,-0.13589829,0.008291608,0.037925024,-0.049788546,0.056319837,0.022636035,-0.098153025,0.05246771,-0.022711748,-0.17467147,0.021414299,1.0,-1.0,-1.0,1.0,-1.0,1.0,1.0,-1.0,1.0,-1.0,-1.0,-1.0,1.0,-1.0,1.0,-1.0,1.0,1.0,1.0,1.0,1.0,-1.0,-1.0,1.0
2025-07-21 13:10:53.016,2.1400000000000015,2140,107,-0.141757,0.14988658,-0.04312363,-0.009515178,0.010446407,-0.035271823,0.0,0.0,0.0,-0.043074608,0.17209095,-0.3062374,-0.04036447,-0.16167605,-0.39173153,0.12219729,0.1376821,0.24761154,0.12641588,-0.17042759,0.07857397,-0.017196128,0.007688297,-0.114560746,0.15469019,0.011799579,0.017394237,0.009835243,0.09352104,0.10386271,-0.026404494,0.027316943,-0.28168613,0.023460634,1.0,-1.0,1.0,-1.0,1.0,1.0,1.0,1.0,1.0,-1.0,-1.0,1.0,1.0,-1.0,-1.0,1.0,1.0,1.0,-1.0,-1.0,1.0,-1.0,1.0,-1.0
2025-07-21 13:10:53.041,2.1600000000000015,2160,108,-0.18196805,0.0758649,-0.019784294,0.024294265,0.014845018,-0.018210104,0.0,0.0,0.0,-0.043187886,0.17301603,-0.32105598,-0.0476263,-0.15788691,-0.34433395,0.11670745,0.14658584,0.25642142,0.14446588,-0.17313166,0.06555476,-0.04517793,0.04707876,-0.037305325,-0.0046656365,0.028831752,0.14479294,-0.03601884,0.016815808,0.022103796,0.030856473,0.02508616,0.092022315,-0.09498838,1.0,-1.0,-1.0,1.0,1.0,1.0,-1.0,-1.0,1.0,-1.0,1.0,-1.0,1.0,-1.0,1.0,1.0,-1.0,-0.29726553,1.0,-1.0,1.0,-1.0,1.0,-1.0
2025-07-21 13:10:53.059,2.1800000000000015,2180,109,0.12473801,0.07099253,-0.046721775,0.034612745,-0.03354033,-0.029735882,0.0,0.0,0.0,-0.04342425,0.17375371,-0.33955514,-0.011687759,-0.12168321,-0.34625515,0.08005719,0.16151161,0.2451931,0.1355455,-0.18254526,0.10942642,-0.07454776,-0.02134258,0.018516343,0.073424995,0.13927811,-0.03509394,-0.10794038,0.09841435,-0.1035631,-0.028371856,-0.019657696,0.21982518,0.008140847,1.0,-1.0,1.0,1.0,-1.0,-0.29726553,1.0,-1.0,1.0,-1.0,1.0,-1.0,1.0,-1.0,-1.0,-1.0,-1.0,-0.11019935,1.0,1.0,1.0,-1.0,-1.0,1.0
2025-07-21 13:10:53.078,2.2000000000000015,2200,110,0.117954314,-0.038389638,-0.097177304,0.016766267,-0.06933174,0.0001510365,0.0,0.0,0.0,-0.043573778,0.18388647,-0.3495983,-0.04071471,-0.11272068,-0.3568311,0.0760365,0.17294322,0.2765284,0.13870956,-0.17197426,0.092937276,-0.036991045,-0.056372736,-0.05160906,0.002956737,-0.020941654,-0.013856493,-0.09253343,-0.044369664,0.13245946,0.040366765,0.06070183,-0.18547347,0.13239147,1.0,-1.0,-1.0,-1.0,-1.0,-0.11019935,1.0,1.0,1.0,-1.0,-1.0,1.0,1.0,-1.0,1.0,1.0,1.0,0.09735106,-1.0,-1.0,1.0,-1.0,1.0,1.0
2025-07-21 13:10:53.097,2.2200000000000015,2220,111,-0.013530612,-0.08190328,-0.111264475,0.0007742387,0.002262721,-0.040611062,0.0,0.0,0.0,-0.042939883,0.17568631,-0.3765297,-0.012550983,-0.10991057,-0.35385692,0.05510593,0.16198067,0.27004528,0.15042318,-0.18315595,0.114427716,0.0037738213,-0.042514622,-0.09069265,0.033175375,0.073911406,0.109188266,-0.086478405,-0.10988257,0.01901676,0.06980983,0.029545458,0.06605305,0.11817234,1.0,-1.0,1.0,1.0,1.0,0.09735106,-1.0,-1.0,1.0,-1.0,1.0,1.0,1.0,-1.0,1.0,1.0,1.0,-1.0,1.0,-1.0,1.0,-1.0,1.0,1.0
2025-07-21 13:10:53.116,2.2400000000000015,2240,112,-0.09039114,0.079798646,-0.0015073743,0.05128262,0.0013388006,-0.03832914,0.0,0.0,0.0,-0.0414986,0.18184666,-0.3822606,0.01989607,-0.084474795,-0.31515205,0.0020348097,0.16046648,0.25980553,0.15246966,-0.16712849,0.15547454,0.026061302,0.052040376,-0.0060771788,0.109835096,0.068931654,0.14164062,-0.030565446,-0.03910079,-0.0037483696,0.021428168,0.054525156,0.08145895,-0.0014124056,1.0,-1.0,1.0,1.0,1.0,-1.0,1.0,-1.0,1.0,-1.0,1.0,1.0,1.0,-1.0,-1.0,-1.0,-1.0,-1.0,1.0,-1.0,1.0,-1.0,1.0,1.0
2025-07-21 13:10:53.142,2.2600000000000016,2260,113,0.10894622,-0.21204613,0.026793456,0.010996118,-0.026253896,0.033810295,0.0,0.0,0.0,-0.04090457,0.18341383,-0.3861981,-0.022881288,-0.105188265,-0.31596684,-0.02901691,0.17190693,0.22639236,0.15112574,-0.17445302,0.20878856,0.06001903,0.0071719713,-0.00018939789,-0.12263215,0.025910746,-0.01865538,-0.13768879,0.050121658,-0.12086108,-0.05548849,-0.028209697,0.029398054,0.098113455,1.0,-1.0,-1.0,-1.0,-1.0,-1.0,1.0,-1.0,1.0,-1.0,1.0,1.0,1.0,1.0,0.9612504,-1.0,-1.0,1.0,1.0,1.0,1.0,-1.0,1.0,1.0
2025-07-21 13:10:53.159,2.2800000000000016,2280,114,-0.3374946,-0.09156088,-0.058666054,0.08805646,-0.047437437,-0.019482343,0.0,0.0,0.0,-0.04216397,0.16994014,-0.39498198,-0.0013503662,-0.114881046,-0.3302375,-0.0103381295,0.16637485,0.25437936,0.15470195,-0.18106097,0.24292889,0.066903375,0.06431869,0.009947945,0.11615963,-0.07267396,-0.037650127,-0.0001083035,0.045940783,0.038428023,0.04038889,-0.038917106,0.11297935,0.011308711,1.0,1.0,0.9612504,-1.0,-1.0,1.0,1.0,1.0,1.0,-1.0,1.0,1.0,1.0,1.0,1.0,-1.0,-1.0,1.0,1.0,-1.0,-1.0,-1.0,-1.0,1.0
2025-07-21 13:10:53.177,2.3000000000000016,2300,115,-0.07138991,-0.20407227,-0.09574784,0.02580764,0.028128885,-0.049939618,0.0,0.0,0.0,-0.041628998,0.18475857,-0.35337624,0.021924322,-0.11478806,-0.35578257,0.028064992,0.1714985,0.27907485,0.11817971,-0.18128662,0.23117529,0.08754312,0.0001553771,0.080949225,0.03231675,-0.05105238,-0.09175028,0.065403715,-0.061022226,-0.0034256733,-0.12951158,-0.009310315,-0.04453536,0.062517695,1.0,1.0,1.0,-1.0,-1.0,1.0,1.0,-1.0,-1.0,-1.0,-1.0,1.0,-1.0,-1.0,-1.0,-1.0,-1.0,1.0,1.0,1.0,-1.0,-1.0,-1.0,1.0
2025-07-21 13:10:53.197,2.3200000000000016,2320,116,0.053253524,-0.035314936,-0.06653598,0.041728187,0.03843529,-0.046393372,0.0,0.0,0.0,-0.039925296,0.13101569,-0.35550252,-0.015600143,-0.1247919,-0.3558633,0.03680994,0.17917268,0.29980105,0.061405808,-0.18763666,0.2145473,0.110103086,-0.19115584,-0.09514683,-0.076752074,0.019272922,-0.12076711,0.108764,0.056944504,0.038848586,-0.058421127,0.050822876,-0.1138685,0.0648299,-1.0,-1.0,-1.0,-1.0,-1.0,1.0,1.0,1.0,-1.0,-1.0,-1.0,1.0,1.0,1.0,-1.0,-1.0,-1.0,1.0,-1.0,-1.0,1.0,-1.0,1.0,1.0
2025-07-21 13:10:53.216,2.3400000000000016,2340,117,0.062308192,-0.105717495,0.039833177,0.0016478616,0.02574255,0.04829254,0.0,0.0,0.0,-0.03891414,0.13539039,-0.32883826,-0.046989832,-0.14261936,-0.38227832,0.056047782,0.13954303,0.2693483,0.08665435,-0.17798893,0.23209736,0.1057896,0.01565834,0.13496731,-0.034890227,-0.103000484,-0.018240968,0.09823468,-0.09784662,-0.09922348,0.10521213,-0.07270194,0.117493026,0.049810253,1.0,1.0,-1.0,-1.0,-1.0,1.0,-1.0,-1.0,1.0,-1.0,1.0,1.0,-1.0,1.0,1.0,-1.0,-1.0,1.0,1.0,1.0,-1.0,1.0,-1.0,1.0
2025-07-21 13:10:53.242,2.3600000000000017,2360,118,-0.12909192,0.090652846,0.024747893,0.0016732652,0.07018386,0.0056834514,0.0,0.0,0.0,-0.03845126,0.11876825,-0.29793626,-0.01987131,-0.15127984,-0.39425585,0.05934244,0.14971186,0.28707993,0.048954222,-0.1831561,0.23979369,0.123213604,0.015362697,-0.0052136914,0.118548505,-0.027657855,0.016327756,0.09697456,0.061407357,0.12428707,-0.16724074,0.08459056,0.0021998459,-0.0039702947,-1.0,1.0,1.0,-1.0,-1.0,1.0,1.0,1.0,-1.0,1.0,-1.0,1.0,1.0,1.0,1.0,-1.0,-1.0,-1.0,0.78103834,-1.0,-1.0,-1.0,-1.0,1.0
2025-07-21 13:10:53.260,2.3800000000000017,2380,119,0.122103915,-0.10768664,-0.07414474,0.075844206,0.0011926856,-0.021592839,0.0,0.0,0.0,-0.03850325,0.1275979,-0.25654638,-0.008527649,-0.15440284,-0.38882834,0.03294293,0.13923652,0.28708905,0.01855753,-0.1770027,0.20653294,0.12892592,-0.016748177,0.06033858,0.0010426603,-0.0059157736,-0.07651777,-0.044419184,-0.07012001,-0.12771694,-0.0036505468,0.02088155,-0.04968886,0.041329756,1.0,1.0,1.0,-1.0,-1.0,-1.0,0.78103834,-1.0,-1.0,-1.0,-1.0,1.0,-1.0,-1.0,-1.0,-1.0,-1.0,1.0,1.0,1.0,-1.0,-1.0,1.0,1.0
2025-07-21 13:10:53.277,2.4000000000000017,2400,120,-0.17665127,-0.08091429,0.12089398,0.01955314,0.027674846,9.598169e-05,0.0,0.0,0.0,-0.037012387,0.102749944,-0.2745738,-0.029372275,-0.14789769,-0.40309796,0.03980366,0.14845812,0.28639275,-0.02643363,-0.191414,0.24137898,0.118861616,-0.16279165,-0.039399836,-0.093956456,-0.026529543,-0.048122656,0.04846828,0.0039486303,0.04035189,-0.029273871,-0.04739188,0.018451404,0.0012343506,-1.0,-1.0,-1.0,-1.0,-1.0,1.0,1.0,1.0,-1.0,-1.0,1.0,1.0,1.0,1.0,-1.0,-1.0,-1.0,1.0,0.17039974,-1.0,1.0,-1.0,-1.0,1.0
2025-07-21 13:10:53.296,2.4200000000000017,2420,121,0.17914443,-0.047553886,0.061300304,0.0035639661,0.085159324,-0.028232932,0.0,0.0,0.0,-0.038019493,0.108127624,-0.24095763,-0.059514947,-0.14660533,-0.40303,0.06592128,0.122423336,0.2526964,0.0022879906,-0.1837617,0.22514482,0.1332179,0.09755153,0.19760816,-0.013990124,-0.039426427,-0.05537738,-0.046484474,-0.008669005,-0.12738012,0.08209259,0.066345766,-0.03938367,-0.0017951822,1.0,1.0,-1.0,-1.0,-1.0,1.0,0.17039974,-1.0,1.0,-1.0,-1.0,1.0,-1.0,0.35433158,-1.0,-1.0,-1.0,1.0,1.0,1.0,1.0,-1.0,-1.0,1.0
2025-07-21 13:10:53.317,2.4400000000000017,2440,122,-0.060925994,0.02185527,-0.00025742876,0.082091294,0.04568162,-0.011742111,0.0,0.0,0.0,-0.039105374,0.07695679,-0.17282517,-0.067180246,-0.151006,-0.40689972,0.05990064,0.13514517,0.24522687,0.035917513,-0.18339418,0.19077794,0.14007978,-0.0707902,0.18785359,-0.009516474,0.036246132,0.030827332,0.01664807,0.026261313,0.016272485,-0.017135013,-0.104165725,-0.1087701,-0.002054759,-1.0,0.35433158,-1.0,-1.0,-1.0,1.0,1.0,1.0,1.0,-1.0,-1.0,1.0,1.0,-1.0,-1.0,-1.0,-1.0,1.0,0.16171177,-1.0,1.0,-1.0,1.0,1.0
2025-07-21 13:10:53.342,2.4600000000000017,2460,123,0.13802822,-0.078405716,0.11213648,0.034492854,0.0017597784,0.04408644,0.0,0.0,0.0,-0.039269134,0.096621305,-0.18580197,-0.09836541,-0.16441512,-0.42440817,0.08653502,0.12573266,0.24389127,0.051742926,-0.18089005,0.20919047,0.13998923,0.11185584,-0.17204823,-0.095545374,0.03584105,0.0027624276,-0.00018964216,0.011226089,-0.085502736,0.046136547,-0.041095067,0.04722375,0.028544381,1.0,-1.0,-1.0,-1.0,-1.0,1.0,0.16171177,-1.0,1.0,-1.0,1.0,1.0,1.0,1.0,1.0,-1.0,-1.0,1.0,1.0,1.0,1.0,-1.0,-0.6349062,1.0
2025-07-21 13:10:53.360,2.4800000000000018,2480,124,-0.01157347,0.06837476,-0.09241601,0.02357532,-0.0080331955,0.0023398222,0.0,0.0,0.0,-0.040064786,0.10081892,-0.17547461,-0.05836354,-0.17086026,-0.41917145,0.09933839,0.13796955,0.25338525,0.07055312,-0.18616617,0.217384,0.15175071,0.0888109,-0.0038178845,0.05963854,0.036491986,0.0048259487,-0.034854956,-0.016467435,0.11229635,0.060393073,-0.08125062,0.034657937,0.03710949,1.0,1.0,1.0,-1.0,-1.0,1.0,1.0,1.0,1.0,-1.0,-0.6349062,1.0,1.0,-1.0,-1.0,-1.0,-1.0,1.0,1.0,-1.0,-1.0,-1.0,-1.0,1.0
2025-07-21 13:10:53.377,2.5000000000000018,2500,125,0.16764703,-0.01118014,0.0022754993,0.0010808606,-0.0196997,0.009567359,0.0,0.0,0.0,-0.039969403,0.128702,-0.20569667,-0.08387333,-0.17409763,-0.43210396,0.098697595,0.1310766,0.22509578,0.030909667,-0.19236657,0.19785786,0.15668589,0.0837747,-0.045334764,-0.00047788143,0.020736197,-0.018682627,0.009831453,0.0009654142,-0.18521477,-0.11592396,-0.002193552,-0.12338778,-0.05349433,1.0,-1.0,-1.0,-1.0,-1.0,1.0,1.0,-1.0,-1.0,-1.0,-1.0,1.0,1.0,1.0,-1.0,-1.0,-1.0,1.0,1.0,1.0,1.0,-1.0,1.0,1.0
2025-07-21 13:10:53.397,2.520000000000002,2520,126,-0.07869423,0.13795371,0.028333696,0.024785107,0.019182948,-0.049499717,0.0,0.0,0.0,-0.03957266,0.13594611,-0.1816746,-0.09347878,-0.17500983,-0.4276295,0.11274962,0.13932641,0.21548781,0.037876327,-0.17832844,0.21384655,0.15667236,-0.05394236,0.15357237,-0.025471259,0.049699716,-0.0022510008,-0.034265634,0.069484785,0.07178566,0.061893877,0.055323202,0.082661696,0.041980352,1.0,1.0,-1.0,-1.0,-1.0,1.0,1.0,1.0,1.0,-1.0,1.0,1.0,1.0,-1.0,-1.0,-1.0,-1.0,1.0,-0.18867628,-1.0,1.0,-1.0,-1.0,-1.0
2025-07-21 13:10:53.417,2.540000000000002,2540,127,0.15259829,-0.20929742,-0.034325868,0.02029551,0.047127087,-0.015965985,0.0,0.0,0.0,-0.039677832,0.1355108,-0.15907574,-0.099970825,-0.19072415,-0.443411,0.10792296,0.12358224,0.22234765,0.06733508,-0.1901282,0.19907352,0.10689571,0.01850603,-0.102958225,-0.059340704,0.0046377177,0.02613627,-0.050079383,-0.051481254,-0.05909685,0.010872974,0.050711185,-0.2433196,-0.10832656,1.0,-1.0,-1.0,-1.0,-1.0,1.0,-0.18867628,-1.0,1.0,-1.0,-1.0,-1.0,1.0,-1.0,1.0,-1.0,1.0,1.0,1.0,1.0,1.0,-1.0,1.0,-1.0
2025-07-21 13:10:53.444,2.560000000000002,2560,128,-0.242733,-0.011468663,0.10874715,0.026948368,0.06595626,-0.030051159,0.0,0.0,0.0,-0.03922191,0.13439357,-0.19846404,-0.07056768,-0.19464783,-0.40995073,0.102989025,0.14985816,0.22902149,0.07927399,-0.18828806,0.18519764,0.053519957,0.03321078,-0.06216094,0.06973754,0.015692046,0.08348428,-0.039713398,0.0053083645,0.04940181,-0.03584559,0.031791847,0.1647903,-0.0728689,1.0,-1.0,1.0,-1.0,1.0,1.0,1.0,1.0,1.0,-1.0,1.0,-1.0,1.0,1.0,-1.0,-1.0,-1.0,1.0,1.0,-1.0,1.0,-1.0,-1.0,-1.0
2025-07-21 13:10:53.459,2.580000000000002,2580,129,0.16160314,0.05040995,0.07605052,0.06430114,0.012765777,-0.04883237,0.0,0.0,0.0,-0.04032594,0.14382559,-0.17977652,-0.07095369,-0.1812257,-0.4128474,0.11093686,0.13812196,0.23821223,0.08887609,-0.17680776,0.1961852,0.015549031,-0.024982797,0.12274797,-0.0735735,-0.00058319326,0.015547026,-0.02599651,0.05207325,-0.013825689,0.082966365,-0.0037258402,-0.09187224,-0.04810645,1.0,1.0,-1.0,-1.0,-1.0,1.0,1.0,-1.0,1.0,-1.0,-1.0,-1.0,1.0,-1.0,-1.0,-1.0,-1.0,1.0,1.0,1.0,1.0,-1.0,1.0,-1.0
2025-07-21 13:10:53.477,2.600000000000002,2600,130,-0.083965085,0.095946066,0.13437349,0.059295088,0.025898157,-0.026640413,0.0,0.0,0.0,-0.041743584,0.15005536,-0.15929484,-0.102599934,-0.1990737,-0.41055715,0.11870308,0.14792348,0.24605341,0.093045816,-0.18742695,0.21091641,-0.01525752,-0.028920444,-0.046508197,-0.023588644,0.05114589,-0.042449795,0.0036681108,0.029567854,0.1386566,0.10284609,0.029526267,0.1206296,-0.12236255,1.0,-1.0,-1.0,-1.0,-1.0,1.0,1.0,1.0,1.0,-1.0,1.0,-1.0,1.0,-1.0,-1.0,-1.0,-1.0,1.0,-1.0,-1.0,1.0,-1.0,-1.0,-1.0
2025-07-21 13:10:53.498,2.620000000000002,2620,131,0.06859505,-0.13850467,-0.016258948,0.006704708,-0.032554097,-0.044303644,0.0,0.0,0.0,-0.043766044,0.1575524,-0.21366815,-0.11417886,-0.20678812,-0.41493362,0.11807065,0.13403665,0.2414126,0.11346357,-0.17281936,0.17653798,-0.04250758,-0.022162506,-0.16803016,-0.031561874,0.03963787,-0.07120025,-0.077550225,-0.058839228,-0.075357065,-0.04238298,0.07397719,-0.15333718,-0.046375565,1.0,-1.0,-1.0,-1.0,-1.0,1.0,-1.0,-1.0,1.0,-1.0,-1.0,-1.0,1.0,-1.0,1.0,-1.0,1.0,1.0,1.0,1.0,1.0,-1.0,1.0,-1.0
2025-07-21 13:10:53.518,2.640000000000002,2640,132,-0.21512187,0.12572093,0.08088557,0.05525319,-0.0063046655,0.010313834,0.0,0.0,0.0,-0.04509178,0.15880232,-0.23915304,-0.07013806,-0.20752873,-0.41507524,0.11280296,0.1378025,0.27230698,0.11539739,-0.1743532,0.18601376,-0.06055041,-0.04474233,-0.023574067,0.1505007,0.0036271403,0.010224857,-0.019666247,-0.014805,0.007470119,-0.026676038,-0.0091851875,0.12898177,-0.05677261,1.0,-1.0,1.0,-1.0,1.0,1.0,1.0,1.0,1.0,-1.0,1.0,-1.0,1.0,1.0,-1.0,-1.0,-1.0,1.0,1.0,-1.0,1.0,-1.0,-1.0,-1.0
2025-07-21 13:10:53.543,2.660000000000002,2660,133,0.1356846,0.024510158,-0.017977934,-0.014901706,0.02768059,0.025319284,0.0,0.0,0.0,-0.046458982,0.15853707,-0.22646886,-0.087704785,-0.20321362,-0.40177232,0.121990696,0.15323935,0.25560397,0.11456107,-0.17609714,0.19543786,-0.08146549,0.003861083,0.12746263,-0.055589758,-0.06314931,-0.09008537,-0.007111229,-0.026859675,-0.11788072,0.02225584,0.040568665,-0.0856768,-0.049907748,1.0,1.0,-1.0,-1.0,-1.0,1.0,1.0,-1.0,1.0,-1.0,-1.0,-1.0,1.0,-1.0,-1.0,-1.0,-1.0,1.0,1.0,1.0,1.0,0.892013,1.0,1.0
2025-07-21 13:10:53.559,2.680000000000002,2680,134,0.19423023,0.2547558,0.19648997,0.0783635,0.033957195,0.00030045037,0.0,0.0,0.0,-0.047131203,0.16488177,-0.24181455,-0.08957019,-0.18763243,-0.41977328,0.114870496,0.1515038,0.27947012,0.12857208,-0.15975556,0.20229061,-0.06201845,-0.010069608,-0.05212532,0.029377647,-0.012188165,0.03479279,0.024780093,0.07318498,0.012793533,0.061795764,0.1467048,0.058724176,0.012621483,1.0,-1.0,-1.0,-1.0,-1.0,1.0,1.0,1.0,1.0,0.892013,1.0,1.0,1.0,1.0,1.0,1.0,-1.0,-0.68413544,-1.0,-1.0,1.0,-1.0,1.0,1.0
2025-07-21 13:10:53.579,2.700000000000002,2700,135,-0.120737195,-0.06179722,-0.19512019,0.01736533,-0.023713822,0.03854131,0.0,0.0,0.0,-0.049284253,0.1656652,-0.26050386,-0.081041686,-0.16672334,-0.42144698,0.083984904,0.14962779,0.2852114,0.13650618,-0.14640649,0.23974398,-0.020224504,0.0062317546,0.082061134,0.06342297,0.120482504,-0.06566726,-0.14453685,-0.07322898,0.014750996,-0.019395819,-0.02357408,0.035535242,0.0964426,1.0,1.0,1.0,1.0,-1.0,-0.68413544,-1.0,-1.0,1.0,-1.0,1.0,1.0,1.0,-1.0,-1.0,-1.0,1.0,1.0,1.0,1.0,-1.0,-1.0,-1.0,1.0
2025-07-21 13:10:53.599,2.720000000000002,2720,136,-0.057354875,0.08693285,-0.01612354,0.08086855,0.044636797,-0.008481754,0.0,0.0,0.0,-0.04850893,0.17936864,-0.27693757,-0.085515544,-0.1601041,-0.40276158,0.08499787,0.15885827,0.31987336,0.092514955,-0.16459931,0.20864242,0.009339673,-0.019505547,-0.09900828,-0.10660612,0.050460633,0.019368432,0.07328395,0.07694359,0.08600014,-0.12742142,0.016872471,-0.14728303,0.007704537,1.0,-1.0,-1.0,-1.0,1.0,1.0,1.0,1.0,-1.0,-1.0,-1.0,1.0,1.0,1.0,1.0,-1.0,1.0,0.6552744,-1.0,-1.0,1.0,-1.0,1.0,-1.0
2025-07-21 13:10:53.618,2.740000000000002,2740,137,-0.2045464,-0.15353973,-0.016882287,0.0068448987,-0.025439104,-0.037728507,0.0,0.0,0.0,-0.046900585,0.1584623,-0.25598884,-0.05625557,-0.18173239,-0.36089423,0.080721736,0.1201205,0.30029023,0.08897683,-0.16021651,0.23457879,-0.02111676,0.05064164,0.2412057,0.07418977,-0.020444652,0.15516734,-0.053529836,-0.03682627,0.032043606,0.06117809,0.0063365744,0.04728555,-0.0585624,1.0,1.0,1.0,-1.0,1.0,0.6552744,-1.0,-1.0,1.0,-1.0,1.0,-1.0,1.0,-1.0,-1.0,-1.0,-1.0,1.0,1.0,-1.0,1.0,-1.0,1.0,-1.0
2025-07-21 13:10:53.642,2.760000000000002,2760,138,0.114385776,-0.021398494,0.09752323,0.035405807,0.041254163,-0.022977443,0.0,0.0,0.0,-0.046215713,0.16835931,-0.25532377,-0.06219087,-0.18084402,-0.35231814,0.08196242,0.12555116,0.27477717,0.10804641,-0.15733455,0.27067703,-0.03516986,0.07003601,-0.14574361,-0.075628445,-0.04871705,-0.022982076,0.010731228,-0.0035896853,-0.12119313,-0.030587167,0.07706067,0.12515014,-0.09228276,1.0,-1.0,-1.0,-1.0,-1.0,1.0,1.0,-1.0,1.0,-1.0,1.0,-1.0,1.0,1.0,1.0,-1.0,-1.0,1.0,1.0,1.0,1.0,-1.0,-1.0,1.0
2025-07-21 13:10:53.659,2.780000000000002,2780,139,0.009526673,0.012359955,-0.036053754,0.07644511,-0.033252418,0.037315827,0.0,0.0,0.0,-0.048003647,0.17073949,-0.22787367,-0.036430776,-0.17757219,-0.36080056,0.106537245,0.13002717,0.28858626,0.115256466,-0.1610243,0.23564643,-0.0039682663,-0.001875632,0.03839872,0.10211266,0.006681394,-0.045768853,0.039396357,0.08733487,0.13055158,-0.018999653,0.007926685,-0.23823339,0.04844809,1.0,1.0,1.0,-1.0,-1.0,1.0,1.0,1.0,1.0,-1.0,-1.0,1.0,1.0,-1.0,-1.0,-1.0,1.0,1.0,-1.0,-1.0,1.0,-1.0,1.0,-1.0
2025-07-21 13:10:53.680,2.800000000000002,2800,140,-0.09433998,-0.18181685,0.10704953,-0.004542943,0.019582303,-0.026888382,0.0,0.0,0.0,-0.048496615,0.16784789,-0.2455029,-0.050666835,-0.18838456,-0.36268225,0.102521196,0.13770787,0.29252127,0.1281521,-0.1627349,0.23258473,-0.042639226,-0.023331083,-0.15454759,-0.002713399,-0.038309544,0.022609549,0.05173384,-0.109047495,-0.079930656,0.07099716,-0.05519012,0.11038533,-0.008051565,1.0,-1.0,-1.0,-1.0,1.0,1.0,-1.0,-1.0,1.0,-1.0,1.0,-1.0,1.0,1.0,1.0,1.0,-1.0,1.0,1.0,-1.0,1.0,-1.0,-1.0,-1.0
2025-07-21 13:10:53.698,2.820000000000002,2820,141,0.10263295,0.14495818,-0.095134586,0.06611707,0.01598657,0.0068541085,0.0,0.0,0.0,-0.049293716,0.18981731,-0.2473208,-0.018832492,-0.1864807,-0.36069688,0.09818699,0.14023995,0.26908,0.13462439,-0.16972868,0.21728489,-0.051156934,0.046448052,0.008283341,0.024383435,0.065144144,-0.025074894,0.05024638,-0.04826942,-0.10151276,0.07350209,-0.06472665,-0.16312192,-0.10328479,1.0,1.0,1.0,1.0,-1.0,1.0,1.0,-1.0,1.0,-1.0,-1.0,-1.0,1.0,-1.0,-1.0,-1.0,-1.0,1.0,1.0,1.0,1.0,-1.0,-1.0,1.0
2025-07-21 13:10:53.718,2.840000000000002,2840,142,0.13407591,0.032589182,-0.029831517,0.050594214,0.022083204,-0.010196214,0.0,0.0,0.0,-0.048994444,0.18900897,-0.2601321,-0.053062554,-0.18135203,-0.38971397,0.10411747,0.14930747,0.2813686,0.13024671,-0.18351781,0.12105743,-0.025469625,-0.0064679952,-0.12733564,-0.116809145,0.048340797,0.023658272,0.0013179708,0.040800188,0.031208394,0.052074388,-0.06352363,-0.20568094,0.056124356,1.0,-1.0,-1.0,-1.0,-1.0,1.0,1.0,1.0,1.0,-1.0,-1.0,1.0,1.0,-1.0,1.0,1.0,1.0,1.0,-1.0,-1.0,1.0,-1.0,1.0,-1.0
2025-07-21 13:10:53.742,2.860000000000002,2860,143,-0.08836973,-0.055272568,-0.016476754,0.00014660945,0.00033311956,-0.04896128,0.0,0.0,0.0,-0.04802598,0.17919679,-0.291492,-0.020158624,-0.18109423,-0.3710203,0.09922383,0.124480516,0.28705874,0.13285571,-0.18062736,0.13465427,-0.042328466,0.069423184,0.0014574989,0.050002187,-0.025560362,0.12721358,-0.056333803,-0.07007083,0.066691145,-0.034567136,-0.02710512,0.019526722,0.0051200483,1.0,-1.0,1.0,1.0,1.0,1.0,-1.0,-1.0,1.0,-1.0,1.0,-1.0,1.0,-1.0,1.0,1.0,-1.0,1.0,1.0,-1.0,1.0,-1.0,1.0,-1.0
2025-07-21 13:10:53.761,2.880000000000002,2880,144,0.11840233,0.16289277,-0.00017993996,0.03282982,-0.016809933,-0.025564857,0.0,0.0,0.0,-0.04657461,0.1861722,-0.31986362,-0.005713743,-0.15155093,-0.37962994,0.10947434,0.13346258,0.27480984,0.1520063,-0.17840025,0.17332791,-0.06510619,0.06761694,0.016786493,0.0666811,0.025011754,0.012394476,0.061266046,0.08373798,0.012495839,0.052043896,0.07106911,0.17761853,-0.06761026,1.0,-1.0,1.0,1.0,-1.0,1.0,1.0,-1.0,1.0,-1.0,1.0,-1.0,1.0,-1.0,-1.0,-1.0,-1.0,1.0,1.0,-1.0,1.0,-1.0,-1.0,-1.0
2025-07-21 13:10:53.779,2.900000000000002,2900,145,0.18435825,0.01529882,0.14234762,0.034503326,0.027357621,0.049308732,0.0,0.0,0.0,-0.046091784,0.184712,-0.32920733,-0.012147129,-0.14129496,-0.38768178,0.11080208,0.14297912,0.23422445,0.16208977,-0.18250318,0.16327442,-0.069263436,0.03355128,-0.08437036,-0.08373128,0.01670081,-0.029822184,-0.062279247,-0.038450815,-0.1283364,-0.029847402,0.0622234,-0.17824331,0.021963928,1.0,-1.0,-1.0,-1.0,-1.0,1.0,1.0,-1.0,1.0,-1.0,-1.0,-1.0,1.0,-1.0,1.0,-1.0,1.0,-0.95684624,1.0,1.0,1.0,-1.0,1.0,1.0
2025-07-21 13:10:53.798,2.920000000000002,2920,146,-0.14724757,0.10456042,0.1561402,-0.017452197,-0.054945067,-0.016421406,0.0,0.0,0.0,-0.047772083,0.18582004,-0.3467048,0.008953385,-0.15250207,-0.3595293,0.07047938,0.14849427,0.251463,0.1452646,-0.18244068,0.1684618,-0.050313722,-0.050042138,-0.09843519,0.024937296,0.04034924,0.2166184,-0.05024911,-0.05886186,0.12913968,0.061037146,-0.051207047,0.058286864,0.10158241,1.0,-1.0,1.0,-1.0,1.0,-0.95684624,1.0,1.0,1.0,-1.0,1.0,1.0,1.0,-1.0,1.0,1.0,-1.0,-1.0,-1.0,-1.0,1.0,-1.0,1.0,1.0
2025-07-21 13:10:53.821,2.940000000000002,2940,147,0.015669545,-0.16702603,-0.07634703,0.0468239,-0.007507443,-0.036805358,0.0,0.0,0.0,-0.050737705,0.18960729,-0.36097687,0.018562742,-0.15120803,-0.34501326,0.016326932,0.13181591,0.24599373,0.16380303,-0.18163846,0.20357113,-0.014452213,0.014176078,-0.08029435,-0.0038957174,0.041981254,0.02656166,-0.13468716,-0.043969978,0.013479539,-0.0608333,-0.024463287,0.066521555,0.07646693,1.0,-1.0,1.0,1.0,-1.0,-1.0,-1.0,-1.0,1.0,-1.0,1.0,1.0,1.0,-1.0,-1.0,-1.0,1.0,-1.0,1.0,1.0,1.0,-1.0,1.0,1.0
2025-07-21 13:10:53.843,2.960000000000002,2960,148,-0.10838047,-0.06648867,-0.04731461,0.028945386,-0.021709383,0.022091161,0.0,0.0,0.0,-0.0515249,0.18192694,-0.3762289,0.0067388155,-0.14828373,-0.3243853,-0.008485048,0.1492821,0.27286538,0.14642671,-0.16753364,0.24985255,0.022581378,-0.068421036,0.022178559,-0.0046236133,0.020806635,0.08578868,-0.112867616,0.038085192,0.07870362,-0.050713684,-0.013840486,0.040618103,0.0884401,1.0,-1.0,-1.0,-1.0,1.0,-1.0,1.0,1.0,1.0,-1.0,1.0,1.0,1.0,-1.0,1.0,1.0,1.0,-1.0,-1.0,-1.0,1.0,-1.0,1.0,1.0
2025-07-21 13:10:53.859,2.980000000000002,2980,149,-0.0738586,-0.1489886,-0.03319344,0.031385154,0.0069395117,0.027691642,0.0,0.0,0.0,-0.050884627,0.18209244,-0.37674066,0.017125022,-0.14953221,-0.2709934,-0.03945525,0.12902914,0.27022365,0.14149229,-0.17631875,0.27440223,0.050522067,-0.05256297,0.025549022,-0.0030700604,0.07033909,0.1690522,-0.023203429,-0.07373463,0.014612728,0.050294597,-0.029203197,0.10023213,0.09597085,1.0,-1.0,1.0,1.0,1.0,-1.0,-1.0,-1.0,1.0,-1.0,1.0,1.0,1.0,-1.0,-0.23365675,-1.0,-1.0,-1.0,1.0,-0.07864502,-1.0,-1.0,-1.0,1.0
2025-07-21 13:10:53.879,3.000000000000002,3000,150,0.09054195,-0.12918672,-0.089388885,-0.014762122,0.04861453,0.03429848,0.0,0.0,0.0,-0.05008466,0.18023805,-0.40115198,0.005697777,-0.15376256,-0.2887734,-0.07074435,0.1440848,0.25295073,0.10101454,-0.16702117,0.24713178,0.0557054,-0.013619038,-0.008370272,-0.06467044,-0.0430048,-0.13305989,0.00808605,-0.0232651,-0.1447326,-0.082921885,-0.041974664,-0.17709278,0.113008134,1.0,-1.0,-0.23365675,-1.0,-1.0,-1.0,1.0,-0.07864502,-1.0,-1.0,-1.0,1.0,1.0,1.0,-1.0,-1.0,-1.0,1.0,1.0,1.0,1.0,-1.0,1.0,1.0
2025-07-21 13:10:53.899,3.0200000000000022,3020,151,-0.19014378,0.08104617,-0.062189814,0.048583042,0.05566183,-0.022745956,0.0,0.0,0.0,-0.048838787,0.184175,-0.33227453,-0.009354656,-0.14807285,-0.29726133,-0.04769251,0.1525551,0.24428862,0.11206574,-0.1764243,0.23719798,0.07218452,-0.043684065,0.26596785,-0.08088522,-0.01951318,-0.020945864,0.12330099,0.09508409,0.052361943,-0.051080916,-0.019021038,0.00781572,0.021860324,1.0,1.0,-1.0,-1.0,-1.0,1.0,1.0,1.0,1.0,-1.0,1.0,1.0,1.0,-1.0,-1.0,-1.0,-1.0,1.0,1.0,-1.0,1.0,-1.0,-1.0,1.0
2025-07-21 13:10:53.921,3.0400000000000023,3040,152,0.2437379,-0.037843924,0.033311952,-0.022051005,0.060919713,0.0048749303,0.0,0.0,0.0,-0.047740456,0.18287618,-0.32280207,-0.039939895,-0.16229041,-0.3314845,-0.018367909,0.15500142,0.23979715,0.11636402,-0.16786292,0.22342099,0.095689975,-0.04237223,-0.017166344,-0.107097276,-0.022337368,-0.09230799,0.10059799,-0.03319276,-0.13797949,-0.0015514224,-0.056453582,-0.13869765,0.08380967,1.0,-1.0,-1.0,-1.0,-1.0,1.0,1.0,-1.0,1.0,-1.0,-1.0,1.0,1.0,1.0,-1.0,-1.0,1.0,1.0,1.0,1.0,1.0,-1.0,1.0,1.0
2025-07-21 13:10:53.943,3.0600000000000023,3060,153,-0.21732901,0.071930416,0.07231446,0.03063364,-0.018774806,0.016460506,1.5,0.0,0.0,-0.048501328,0.18293251,-0.29106343,-0.05798621,-0.15336846,-0.32796487,0.013268297,0.17016555,0.252973,0.11024492,-0.18031918,0.22930898,0.09322735,0.061679155,0.17514928,-0.07100353,-0.0777088,-0.007798968,0.07825004,0.02510574,0.1062304,0.012530198,-0.06389022,0.03203371,-0.05050333,1.0,1.0,-1.0,-1.0,1.0,1.0,1.0,1.0,1.0,-1.0,1.0,1.0,1.0,1.0,1.0,-1.0,1.0,-1.0,-1.0,-1.0,-1.0,-1.0,-1.0,-1.0
2025-07-21 13:10:53.959,3.0800000000000023,3080,154,-0.13972601,-0.17756951,-0.09490486,-0.016344024,-0.004139634,0.018694645,1.5,0.0,0.0,-0.050394893,0.17119315,-0.24180889,-0.041290406,-0.1760485,-0.2930597,-0.018073492,0.13287127,0.29549935,0.071680225,-0.1885653,0.256928,0.06619741,0.022054045,0.1417786,0.13269278,-0.06845913,0.15413934,-0.027577074,-0.15623662,-0.018057104,-0.15921032,0.04428309,-0.06148282,-0.10986782,1.0,1.0,1.0,-1.0,1.0,-1.0,-1.0,-1.0,-1.0,-1.0,-1.0,-1.0,1.0,1.0,1.0,-1.0,-1.0,-1.0,1.0,1.0,-1.0,1.0,-1.0,1.0
2025-07-21 13:10:53.980,3.1000000000000023,3100,155,0.083009705,0.1810332,-0.22260576,-0.0168042,0.07015787,-0.0001644064,1.5,0.0,0.0,-0.049347125,0.1817465,-0.2151469,-0.027697025,-0.16750665,-0.2883254,-0.049491815,0.1310816,0.30423012,0.03330361,-0.17604393,0.2192178,0.07794848,0.07314141,0.05192728,0.042646103,-0.030153347,-0.1270209,-0.08487294,0.07315742,0.049896296,-0.093147546,0.027602427,-0.091255866,0.002091811,1.0,1.0,1.0,-1.0,-1.0,-1.0,1.0,1.0,-1.0,1.0,-1.0,1.0,-1.0,1.0,1.0,-1.0,-1.0,1.0,1.0,-1.0,-1.0,-1.0,1.0,1.0
2025-07-21 13:10:53.999,3.1200000000000023,3120,156,-0.3993112,-0.25525522,-0.025165036,0.07710741,0.07613608,0.032428395,1.5,0.0,0.0,-0.046010945,0.16318794,-0.17998551,-0.0037674352,-0.16301443,-0.32466874,-0.025559634,0.13886513,0.2741562,0.0068340483,-0.1836201,0.23968822,0.08472402,-0.12334356,0.05642364,0.031855494,0.03740705,-0.042602018,0.014995913,0.012284364,-0.20290858,-0.104093924,-0.012453706,0.0718186,0.026008165,-1.0,1.0,1.0,-1.0,-1.0,1.0,1.0,-1.0,-1.0,-1.0,1.0,1.0,1.0,1.0,1.0,-1.0,-1.0,1.0,1.0,-1.0,-1.0,1.0,-1.0,1.0
2025-07-21 13:10:54.026,3.1400000000000023,3140,157,0.11810039,-0.0367651,-0.016280953,0.05570537,0.08010929,0.037033446,1.5,0.0,0.0,-0.043799132,0.1738449,-0.14326423,0.014938629,-0.15904115,-0.33908355,0.013543518,0.15945193,0.18175025,-0.014619454,-0.17004123,0.23989928,0.09258913,-0.04136932,0.06273268,0.020016126,-0.032092173,-0.052386343,0.015187071,-0.029807713,-0.11710246,-0.07318682,0.039229367,0.022774305,0.04168187,1.0,1.0,1.0,-1.0,-1.0,1.0,1.0,-1.0,-1.0,1.0,-1.0,1.0,-1.0,1.0,1.0,-1.0,-1.0,1.0,1.0,-1.0,-1.0,1.0,-1.0,1.0
2025-07-21 13:10:54.043,3.1600000000000024,3160,158,0.1194704,-0.16081552,-0.07215049,-0.027672453,0.076853976,-0.015119395,1.5,0.0,0.0,-0.043123074,0.16377999,-0.11489492,0.02454294,-0.16597156,-0.34955716,0.02628071,0.16228272,0.10440019,-0.046738703,-0.12529486,0.22065294,0.11078737,-0.022663265,0.013447176,-0.03939121,0.020119289,-0.0033314805,0.052140806,0.034967143,-0.25412688,-0.08184226,0.12953585,-0.08170933,-0.02443649,-1.0,1.0,1.0,-1.0,-1.0,1.0,1.0,-1.0,-1.0,1.0,-1.0,1.0,1.0,1.0,1.0,-1.0,-1.0,1.0,1.0,1.0,-0.8918203,1.0,1.0,1.0
2025-07-21 13:10:54.059,3.1800000000000024,3180,159,-0.0053588636,0.22227791,-0.04539649,0.053339947,0.090358794,-0.046531096,1.5,0.0,0.0,-0.042725258,0.16610701,-0.061990798,0.038508657,-0.16823305,-0.3590132,0.0600093,0.16107269,0.0722878,-0.059141528,-0.088540375,0.24471372,0.10986672,0.007410435,0.2272131,0.10303006,0.07049357,-0.08568123,0.033573426,-0.023605399,0.119314164,-0.059122607,0.14270271,0.13593203,0.08207449,1.0,1.0,1.0,-1.0,-1.0,1.0,1.0,1.0,-0.8918203,1.0,1.0,1.0,1.0,1.0,1.0,-1.0,-1.0,1.0,1.0,-1.0,-1.0,-1.0,-1.0,1.0
2025-07-21 13:10:54.080,3.2000000000000024,3200,160,0.10266018,-0.04714954,-0.25203362,0.018783072,0.019609949,0.047949407,1.5,0.0,0.0,-0.041733705,0.1678271,0.0117471125,0.058411594,-0.17339118,-0.3828312,0.07924478,0.15793772,0.04961993,-0.07347941,-0.08255666,0.23828405,0.11847941,0.01367745,0.22783144,-0.014476093,-0.022153124,-0.015867956,0.014304018,-0.0637057,-0.21767849,-0.107350886,-0.023189388,-0.03880846,0.07649008,1.0,1.0,1.0,-1.0,-1.0,1.0,1.0,-1.0,-1.0,-1.0,-1.0,1.0,-1.0,-1.0,-1.0,-1.0,-1.0,1.0,1.0,1.0,1.0,1.0,1.0,1.0
2025-07-21 13:10:54.100,3.2200000000000024,3220,161,0.027260812,-0.014612201,0.04345226,0.0059533906,0.07037961,-0.036668234,1.5,0.0,0.0,-0.038617443,0.15696155,0.042820923,0.02689252,-0.1822579,-0.37918466,0.079515524,0.171455,0.03412494,-0.030747285,-0.07627363,0.26321322,0.1318717,-0.029232807,-0.0072489823,-0.034974534,-0.0065182033,0.06017725,-0.018958617,0.055182464,0.13420081,0.11909529,0.05147629,0.11526744,-0.011133865,-1.0,-1.0,-1.0,-1.0,-1.0,1.0,1.0,1.0,1.0,1.0,1.0,1.0,1.0,1.0,-1.0,-1.0,1.0,1.0,-1.0,-1.0,1.0,-1.0,1.0,-1.0
2025-07-21 13:10:54.127,3.2400000000000024,3240,162,-0.04575253,-0.06985747,0.13743913,0.05495262,-0.00276444,-0.018628247,1.5,0.0,0.0,-0.037116896,0.14683945,0.09807454,-0.011414536,-0.18485479,-0.38350424,0.09181588,0.11282091,0.017656678,-0.0009703777,-0.08036032,0.2975628,0.08053795,0.04769909,0.182553,0.003307568,-0.018076876,0.09833496,0.06458736,-0.15131201,-0.11118147,0.093667395,-0.043098185,0.04555511,-0.17365916,1.0,1.0,-1.0,-1.0,1.0,1.0,-1.0,-1.0,1.0,-1.0,1.0,-1.0,1.0,1.0,1.0,-1.0,-1.0,1.0,1.0,1.0,1.0,1.0,-1.0,-1.0
2025-07-21 13:10:54.143,3.2600000000000025,3260,163,0.12223807,0.17535765,-0.029050598,0.029757593,-0.003944954,0.021854172,1.5,0.0,0.0,-0.037673872,0.15712425,0.15902506,0.014473063,-0.1762822,-0.38022348,0.09991112,0.12059776,0.02987609,0.025007846,-0.04806936,0.26443252,0.05025777,-0.041544523,0.12857533,0.06528296,0.063227914,-0.025169345,-0.03156847,-0.013411386,0.030807089,-0.015513707,0.029166756,-0.12010057,-0.03957199,1.0,1.0,1.0,-1.0,-1.0,1.0,1.0,1.0,1.0,1.0,-1.0,-1.0,1.0,-1.0,-1.0,-1.0,1.0,1.0,1.0,1.0,1.0,-1.0,1.0,-1.0
2025-07-21 13:10:54.160,3.2800000000000025,3280,164,-0.23630828,-0.03866346,0.033476826,0.059312567,0.0632056,-0.03350935,1.5,0.0,0.0,-0.0383518,0.14473529,0.1479885,-0.014796461,-0.17775702,-0.3497334,0.10302041,0.14124976,0.08817583,0.026416728,-0.0633383,0.2657,0.0015504853,-0.065227635,-0.04673767,-0.09650254,-0.08315651,0.14239639,0.0528878,-0.017150557,0.10191844,0.10419764,-0.0016187043,0.024405163,-0.113372765,1.0,-1.0,-1.0,-1.0,1.0,1.0,1.0,1.0,1.0,-1.0,1.0,-1.0,1.0,-1.0,-1.0,1.0,-1.0,1.0,-1.0,-1.0,1.0,-1.0,-1.0,-1.0
2025-07-21 13:10:54.185,3.3000000000000025,3300,165,0.3045577,0.005035714,-0.21051049,0.0623637,0.012538156,-0.0020217986,1.5,0.0,0.0,-0.038378622,0.15321323,0.055973206,-0.034698762,-0.17947933,-0.35517302,0.101939395,0.13882464,0.08532343,0.04424675,-0.087675884,0.24983895,-0.0114356335,-0.04280974,-0.19475873,-0.09157045,-0.033182546,-0.108820006,-0.009996648,-0.068927325,-0.030384738,0.06976309,-0.044892065,-0.09718719,-0.09141195,1.0,-1.0,-1.0,1.0,-1.0,1.0,-1.0,-1.0,1.0,-1.0,-1.0,-1.0,1.0,-1.0,1.0,-1.0,1.0,1.0,1.0,1.0,1.0,-1.0,-1.0,-1.0
2025-07-21 13:10:54.200,3.3200000000000025,3320,166,0.082187235,-0.057675052,-0.15249561,-0.018296503,0.032600317,0.03023026,1.5,0.0,0.0,-0.03627001,0.17190075,-0.00975311,0.006015082,-0.17458545,-0.35159427,0.09500063,0.1349584,0.1303693,0.062951036,-0.10343647,0.19205594,-0.0366371,-0.038957447,-0.15912154,0.1010736,0.04446415,0.04518216,-0.033031657,-0.013258359,0.12321512,0.093615726,0.028011609,-0.12246572,0.0015722094,1.0,-1.0,1.0,-1.0,1.0,1.0,1.0,1.0,1.0,-1.0,-1.0,-1.0,1.0,-1.0,-1.0,-1.0,1.0,1.0,1.0,-1.0,1.0,-1.0,-1.0,-1.0
2025-07-21 13:10:54.225,3.3400000000000025,3340,167,0.22235729,-0.028486667,0.07358971,0.036713783,0.049968,-0.042360973,1.5,0.0,0.0,-0.03290954,0.17739096,-0.069950126,-0.02363357,-0.18517639,-0.36090446,0.09745217,0.14050028,0.115505785,0.08864982,-0.11797695,0.12446251,-0.05461105,0.08164794,-0.16705988,-0.13615292,-0.028406236,-0.040624842,-0.07550904,0.08601928,-0.07807266,-0.02642345,0.025600314,-0.21869013,0.026532097,1.0,-1.0,-1.0,-1.0,1.0,1.0,1.0,-1.0,1.0,-1.0,-1.0,-1.0,1.0,-1.0,1.0,1.0,1.0,1.0,1.0,1.0,1.0,-1.0,1.0,-1.0
2025-07-21 13:10:54.242,3.3600000000000025,3360,168,-0.31643793,0.36539364,0.10902329,-0.025354369,-0.043802302,0.008288053,1.5,0.0,0.0,-0.03304121,0.17707098,-0.12449099,-0.010496247,-0.17184092,-0.31983477,0.10370147,0.14624792,0.1589458,0.09182369,-0.12174032,0.11953453,-0.068837516,0.028464032,-0.16907531,0.0896678,0.043045342,0.18203527,0.0598439,0.056742765,0.08877984,0.0026817555,0.0041790553,0.19596884,0.00425111,1.0,-1.0,1.0,1.0,1.0,1.0,1.0,1.0,1.0,-1.0,1.0,-1.0,1.0,1.0,1.0,-1.0,0.95544374,1.0,-1.0,-1.0,1.0,-1.0,-1.0,-1.0
2025-07-21 13:10:54.261,3.3800000000000026,3380,169,-0.19453976,-0.25731775,0.07997978,0.060195766,0.06732477,-0.015164436,1.5,0.0,0.0,-0.035133123,0.18680249,-0.12677471,0.014646465,-0.1683464,-0.25209108,0.10377788,0.14861391,0.1829234,0.103948176,-0.13990292,0.10128831,-0.078480765,-0.0047025913,0.13293177,0.12321509,-0.02491649,0.19521561,0.0627745,-0.116916806,0.01946995,-0.0012379717,0.0081288535,-0.16409342,0.0061128293,1.0,1.0,1.0,-1.0,0.95544374,1.0,-1.0,-1.0,1.0,-1.0,-1.0,-1.0,1.0,-1.0,-1.0,-1.0,-1.0,1.0,1.0,1.0,1.0,-1.0,-1.0,1.0
2025-07-21 13:10:54.280,3.4000000000000026,3400,170,0.236803,0.08400466,-0.08670281,0.064179204,0.011287604,0.016942393,1.5,0.0,0.0,-0.037585106,0.18208145,-0.14978476,-0.0075526563,-0.17246321,-0.26724774,0.12098906,0.14032446,0.20850691,0.12406466,-0.1431879,0.033071537,-0.048467293,0.061507855,-0.19240527,-0.07101992,0.039777428,-0.04719901,0.042633794,0.024549788,0.114251554,0.093378216,-0.053273633,-0.18815283,0.15442553,1.0,-1.0,-1.0,-1.0,-1.0,1.0,1.0,1.0,1.0,-1.0,-1.0,1.0,1.0,1.0,1.0,-1.0,1.0,-1.0,-1.0,-1.0,1.0,-1.0,1.0,-1.0
2025-07-21 13:10:54.300,3.4200000000000026,3420,171,0.08941049,0.0006870219,-0.027122177,0.013636369,-0.014460104,-0.018599922,1.5,0.0,0.0,-0.036978923,0.16831967,-0.14838699,0.02325131,-0.1853333,-0.24172266,0.054126758,0.106862314,0.1897172,0.12560879,-0.14178988,0.034728426,-0.071618564,-0.021448415,0.12013539,0.04258911,0.053369164,0.18151511,-0.0804761,-0.19092849,-0.08645071,0.045690876,-0.07894342,0.11785904,-0.044607926,1.0,1.0,1.0,-1.0,1.0,-1.0,-1.0,-1.0,1.0,-1.0,1.0,-1.0,1.0,-1.0,1.0,-1.0,-1.0,-0.9812856,1.0,1.0,-1.0,1.0,-1.0,1.0
2025-07-21 13:10:54.330,3.4400000000000026,3440,172,0.24832426,0.2500585,-0.052293953,0.03965748,-0.04878123,0.008859396,1.5,0.0,0.0,-0.03579782,0.18186672,-0.12461935,0.033189666,-0.18073997,-0.24700014,0.026324404,0.11385312,0.19673249,0.07386897,-0.103492685,0.018149186,-0.028228391,-0.006631474,0.034867477,0.03514417,0.038526535,-0.012990436,-0.13049312,-0.022926208,0.15921834,-0.14039347,0.10564114,-0.03293402,0.13602298,1.0,-1.0,1.0,-1.0,-1.0,-0.9812856,1.0,1.0,-1.0,1.0,-1.0,1.0,1.0,1.0,1.0,-1.0,-1.0,1.0,-1.0,-1.0,-1.0,-1.0,1.0,1.0
2025-07-21 13:10:54.349,3.4600000000000026,3460,173,-0.059990156,-0.034653403,-0.04135592,-0.034640837,-0.005090044,-0.013723522,1.5,0.0,0.0,-0.035565358,0.19488302,-0.10928269,0.046405453,-0.17315052,-0.27462727,0.055893485,0.07336163,0.18468784,0.028827418,-0.12261821,0.04028255,-0.0014915757,0.059614483,0.08520637,0.047189858,-0.027887242,-0.041516367,0.12537041,-0.07448667,-0.13297023,-0.1523336,-0.10513583,0.13572703,0.041319195,1.0,1.0,1.0,-1.0,-1.0,1.0,-1.0,-1.0,-1.0,-1.0,1.0,1.0,-1.0,1.0,1.0,-1.0,-1.0,-1.0,1.0,-1.0,-1.0,1.0,-1.0,1.0
2025-07-21 13:10:54.366,3.4800000000000026,3480,174,0.23710392,-0.10607075,0.13088807,-0.009703306,-0.017606627,0.037632562,1.5,0.0,0.0,-0.03477072,0.1847981,-0.09091684,0.048434027,-0.17848057,-0.30431542,0.018790944,0.07258028,0.1369797,0.0021691907,-0.108189166,0.026875108,0.016228165,0.032390486,0.076608725,-0.029427208,-0.052661326,-0.048763543,-0.13764325,0.030094398,-0.07551657,-0.13866149,0.0037181599,-0.11837189,0.04752723,-1.0,1.0,1.0,-1.0,-1.0,-1.0,1.0,-1.0,-1.0,1.0,-1.0,1.0,1.0,1.0,1.0,-1.0,-1.0,1.0,1.0,-1.0,-1.0,-1.0,1.0,1.0
2025-07-21 13:10:54.398,3.5000000000000027,3500,175,-0.071916856,-0.04105413,0.062899075,0.022474349,0.019352753,0.011472051,1.5,0.0,0.0,-0.035590813,0.20081213,-0.05339965,0.073279,-0.17886135,-0.32575473,0.02730044,0.09846486,0.06576117,-0.026998527,-0.1202736,0.05517782,0.029020887,0.05982872,0.15896262,-0.048702452,-0.07995446,-0.0044627413,0.02346943,0.061373416,-0.19597389,-0.036340065,0.018866513,0.18014738,0.050252482,1.0,1.0,1.0,-1.0,-1.0,1.0,1.0,-1.0,-1.0,-1.0,1.0,1.0,-1.0,1.0,1.0,-1.0,-1.0,1.0,1.0,-0.6103146,-1.0,1.0,-1.0,1.0
2025-07-21 13:10:54.416,3.5200000000000027,3520,176,0.083552666,0.06330907,-0.007945618,0.016085599,0.011246181,-0.02609005,1.5,0.0,0.0,-0.037123907,0.19870187,-0.01101587,0.07017114,-0.17751178,-0.34034148,0.052603245,0.10534796,0.010515978,-0.0331678,-0.11990848,0.05672862,0.052980617,-0.019885859,0.110704966,0.06994463,-0.04721425,-0.09192103,0.06899001,0.06702805,-0.14989036,-0.026072066,-0.03166688,-0.07980261,0.09177647,-1.0,1.0,1.0,-1.0,-1.0,1.0,1.0,-0.6103146,-1.0,1.0,-1.0,1.0,1.0,1.0,1.0,-1.0,-1.0,1.0,1.0,-1.0,-1.0,-1.0,1.0,1.0
2025-07-21 13:10:54.434,3.5400000000000027,3540,177,-0.13074714,-0.06505969,-0.10879937,-0.011525404,0.011238405,0.023508778,1.5,0.0,0.0,-0.036663387,0.1884943,0.05561679,0.07397526,-0.19090974,-0.34106258,0.08218648,0.11761301,-0.047862247,-0.06874924,-0.12623598,0.09116171,0.07432564,0.005946103,0.13837837,0.05840098,-0.04318356,0.024559446,-0.018058412,0.06896158,-0.110332586,-0.01937902,-0.012168631,0.1646769,0.088490136,1.0,1.0,1.0,-1.0,-1.0,1.0,1.0,-1.0,-1.0,-1.0,1.0,1.0,-1.0,-1.0,1.0,-1.0,-1.0,1.0,1.0,1.0,0.35453904,1.0,-1.0,1.0
2025-07-21 13:10:54.459,3.5600000000000027,3560,178,0.043453384,-0.05260089,-0.030099502,-0.046715565,0.027604317,-0.047864504,1.5,0.0,0.0,-0.035459395,0.17721267,0.07876728,0.080825835,-0.18797994,-0.36086717,0.08866466,0.11774303,-0.08866117,-0.05175015,-0.092883945,0.09940672,0.08908552,0.037271492,-0.02608342,-0.010842615,0.047669712,-0.0073086675,0.08898322,0.003361414,0.07800717,0.035630252,0.08752805,-0.018454803,0.06909913,-1.0,-1.0,1.0,-1.0,-1.0,1.0,1.0,1.0,0.35453904,1.0,-1.0,1.0,1.0,1.0,-1.0,-1.0,1.0,1.0,1.0,-1.0,1.0,-1.0,1.0,1.0
2025-07-21 13:10:54.477,3.5800000000000027,3580,179,-0.02634774,-0.016403714,0.1318908,0.023254862,0.013313539,0.035524577,1.5,0.0,0.0,-0.034042135,0.17718036,0.11725202,0.050066624,-0.19022283,-0.34869877,0.08848213,0.12979761,-0.1048654,-0.021048618,-0.102563865,0.14664158,0.09796289,-0.014386915,0.18666434,-0.09314049,0.01995339,0.06904369,0.07614069,0.025094675,-0.1361599,0.057359375,-0.018993005,0.08350132,-0.025874482,1.0,1.0,-1.0,-1.0,1.0,1.0,1.0,-1.0,1.0,-1.0,1.0,1.0,1.0,-1.0,1.0,-1.0,-1.0,1.0,1.0,1.0,1.0,0.74071735,-1.0,-1.0
2025-07-21 13:10:54.497,3.6000000000000028,3600,180,0.039013356,-0.014656879,-0.021044824,0.034660857,0.024165759,0.03907074,1.5,0.0,0.0,-0.034258414,0.18004487,0.1161863,0.062065113,-0.1859283,-0.3535371,0.093510754,0.13991658,-0.10682248,0.0045683295,-0.0760644,0.13030995,0.06443298,0.004225557,0.022721685,0.1095151,0.0695224,-0.0017749693,0.022835916,0.08634014,0.09559594,-0.024844602,0.10687719,-0.1798625,-0.14143151,1.0,-1.0,1.0,-1.0,-1.0,1.0,1.0,1.0,1.0,0.74071735,-1.0,-1.0,1.0,-1.0,-1.0,-1.0,1.0,1.0,-1.0,1.0,1.0,-1.0,1.0,-1.0
2025-07-21 13:10:54.514,3.6200000000000028,3620,181,-0.29433796,-0.21363045,-0.030452128,-0.029465385,0.070062466,-0.011087017,1.5,0.0,0.0,-0.03502176,0.18159226,0.0858684,0.029363785,-0.20512848,-0.3261907,0.10045714,0.12086769,-0.0729358,0.012427766,-0.09096826,0.14280283,0.02251499,-0.059206076,-0.13726078,-0.037140306,0.0048926063,0.123025455,0.0053884485,-0.1362041,0.13605699,0.032401346,-0.006216676,0.102920316,-0.09174128,1.0,-1.0,-1.0,-1.0,1.0,1.0,-1.0,1.0,1.0,-1.0,1.0,-1.0,1.0,-0.16697064,1.0,-1.0,-1.0,1.0,1.0,-1.0,1.0,-1.0,-1.0,-1.0
