openverse-orca/OrcaGym/log/simulation_log_20250721_131747.csv
timestamp,sim_time,physics_step,control_step,imu_angle_roll,imu_angle_pitch,imu_angle_yaw,imu_angular_velocity_roll,imu_angular_velocity_pitch,imu_angular_velocity_yaw,imu_acc_x,imu_acc_y,imu_acc_z,fl_joint1_pos,fl_joint1_vel,fl_joint1_torque,fl_joint2_pos,fl_joint2_vel,fl_joint2_torque,fl_joint3_pos,fl_joint3_vel,fl_joint3_torque,fr_joint1_pos,fr_joint1_vel,fr_joint1_torque,fr_joint2_pos,fr_joint2_vel,fr_joint2_torque,fr_joint3_pos,fr_joint3_vel,fr_joint3_torque,hl_joint1_pos,hl_joint1_vel,hl_joint1_torque,hl_joint2_pos,hl_joint2_vel,hl_joint2_torque,hl_joint3_pos,hl_joint3_vel,hl_joint3_torque,hr_joint1_pos,hr_joint1_vel,hr_joint1_torque,hr_joint2_pos,hr_joint2_vel,hr_joint2_torque,hr_joint3_pos,hr_joint3_vel,hr_joint3_torque,fl_force_x,fl_force_y,fl_force_z,fr_force_x,fr_force_y,fr_force_z,hl_force_x,hl_force_y,hl_force_z,hr_force_x,hr_force_y,hr_force_z,fl_hip_action,fl_thigh_action,fl_calf_action,fr_hip_action,fr_thigh_action,fr_calf_action,hl_hip_action,hl_thigh_action,hl_calf_action,hr_hip_action,hr_thigh_action,hr_calf_action
2025-07-21 13:17:47.768,0.0,0,0,-0.03861884,-0.039211027,0.04648191,0.01771882,-0.026440911,0.012647311,2.2988453,-0.025552524,0.0,0.0,0.005436417,-0.009842327,-0.0036974836,-0.0027182256,-0.005292254,-0.009257646,-0.0037135775,0.0076708077,0.008754309,0.0067556053,0.0012054947,0.0048041283,-0.011843845,-0.061505582,0.029659802,0.05974151,0.027235026,-0.039773896,-0.07108904,-0.05880392,-0.015825862,-0.046082433,-0.011056714,-0.0073020067,0.0,0.0,0.0,0.0,0.0,0.0,0.0,0.0,0.0,0.0,0.0,0.0,1.0878354,2.0,-0.44042066,-0.50158834,2.0,-0.25559855,-1.0226969,0.8059031,0.8098739,-0.10016969,0.2163192,0.98811126
2025-07-21 13:17:47.784,0.02,20,1,-0.10140683,0.21952255,-0.0894928,0.010244094,-0.0073408755,0.022545274,0.0,0.0,0.0,0.0,0.016938765,0.052381318,-0.024720376,-0.0033467482,0.042844806,-0.015650634,-0.015831368,0.041367877,0.015393431,-0.006555305,0.018390372,0.034179013,0.113635704,0.22820692,-0.08982685,-0.043275986,0.16240871,-0.09583694,-0.11594801,0.12260203,0.03957551,0.021292418,-0.026853932,0.061468516,1.0878354,2.0,-0.44042066,-0.50158834,2.0,-0.25559855,-1.0226969,0.8059031,0.8098739,-0.10016969,0.2163192,0.98811126,-0.68700314,-0.7223135,-0.27600864,0.44408962,-1.1685089,-0.4676209,0.100967415,-0.008890079,-0.8000404,-0.12724817,0.51843894,-0.12154348
2025-07-21 13:17:47.801,0.04,40,2,0.02505788,-0.055455543,0.07719521,0.052455794,-0.036894407,-0.006607814,0.0,0.0,0.0,0.0007111572,0.011510124,0.064259954,-0.028733583,-0.0018636511,0.071181744,-0.027513297,-0.017859224,0.073541135,-0.007942098,0.0040045762,0.050142653,0.0077765025,-0.08115489,-0.0046059717,-0.03686279,-0.04963614,0.0057917386,-0.05081182,0.07378505,-0.008717519,-0.03809054,-0.043470036,0.015104842,-0.0075143464,-0.68700314,-0.7223135,-0.27600864,0.44408962,-1.1685089,-0.4676209,0.100967415,-0.008890079,-0.8000404,-0.12724817,0.51843894,-0.12154348,0.1467928,-0.6167877,0.31073752,-0.25353524,-0.6022044,-0.9115995,0.68295115,0.27923173,-0.58936924,-0.12821966,-0.45007968,0.1530903
2025-07-21 13:17:47.821,0.06,60,3,0.12703791,-0.15291767,-0.050563753,-0.0018675529,-0.019213604,-0.022978716,0.0,0.0,0.0,0.00041731348,0.004626613,0.018825326,-0.015755465,-0.0009827003,0.04895695,-0.04559447,0.007833339,0.08164045,-0.027259108,-0.0033848109,0.025602441,0.015420525,0.091735914,-0.067546405,0.02242453,-0.017736929,-0.18114838,-0.012250941,0.013724641,0.017430674,-0.027495293,-0.06843746,-0.0577136,0.055737536,0.1467928,-0.6167877,0.31073752,-0.25353524,-0.6022044,-0.9115995,0.68295115,0.27923173,-0.58936924,-0.12821966,-0.45007968,0.1530903,-0.32410982,-0.09933558,-0.101380244,-0.19013317,0.337119,-0.08436449,0.73223716,0.5912926,0.03151449,0.12044203,-0.35597813,0.7334783
2025-07-21 13:17:47.841,0.08,80,4,0.05020809,-0.025847558,0.0046556178,0.023642482,0.014415715,-0.025655013,0.0,0.0,0.0,0.00065416575,0.019506807,0.01640864,-0.017658558,-0.0085324375,0.035903767,-0.047048412,0.020490177,0.09805257,-0.023777243,0.0017372295,-0.010339664,0.03075642,-0.08317599,-0.044767167,-0.08029068,0.0011345971,-0.032181006,-0.040285353,0.025898907,0.093350776,-0.042038035,0.04072598,-0.06070007,-0.017793462,-0.32410982,-0.09933558,-0.101380244,-0.19013317,0.337119,-0.08436449,0.73223716,0.5912926,0.03151449,0.12044203,-0.35597813,0.7334783,0.07296499,-0.2844118,0.0100719035,-0.6233078,0.25834894,-0.72192544,0.6040193,0.45020163,-0.21710315,0.08671869,0.32328624,0.44153866
2025-07-21 13:17:47.867,0.1,100,5,0.0031279714,0.030415846,0.10305635,-0.00045669073,0.035583332,0.028359715,0.0,0.0,0.0,0.00021385841,0.006051706,-0.011879928,-0.020579224,-0.036443308,0.04444246,-0.051510427,0.033765316,0.115778916,-0.017250147,-0.0083533535,0.008742381,0.042340342,0.07659588,-0.024577493,-0.046421763,-0.0073911846,-0.0055418075,-0.066139266,0.055025846,0.07032401,0.034569513,-0.059221,0.103827424,0.03229287,0.07296499,-0.2844118,0.0100719035,-0.6233078,0.25834894,-0.72192544,0.6040193,0.45020163,-0.21710315,0.08671869,0.32328624,0.44153866,-0.115597,-0.07172683,0.2866796,-0.44791922,-0.16008249,-0.47220594,0.37955478,0.66934055,-0.3553979,-0.1398887,-1.3936291,0.13445091
2025-07-21 13:17:47.883,0.12000000000000001,120,6,-0.023200918,-0.09625921,-0.05075436,0.041254383,-0.017617548,-0.042704143,0.0,0.0,0.0,-0.0010672512,0.012215123,-0.0203361,-0.018799655,-0.04427509,0.020672796,-0.055030312,0.044519097,0.15334995,-0.028266678,-0.017706687,0.0023366148,0.031133614,0.022555156,0.00963833,0.039935254,-0.025946803,-0.08712921,0.04900017,-0.0010943755,0.1288471,0.04515683,-0.05235555,-0.09423336,-0.051137507,-0.115597,-0.07172683,0.2866796,-0.44791922,-0.16008249,-0.47220594,0.37955478,0.66934055,-0.3553979,-0.1398887,-1.3936291,0.13445091,-0.17235795,-0.20459977,-0.094727054,-0.7427366,0.38936114,-0.36657494,0.5176184,0.086722106,0.12087343,0.10638585,-0.15129428,0.27175817
2025-07-21 13:17:47.901,0.14,140,7,0.024840368,-0.009409164,0.068980575,-0.0113609,-0.01981988,0.013084646,0.0,0.0,0.0,-0.0004471,0.0005715804,-0.02537285,-0.019176222,-0.05367996,0.038986485,-0.07652471,0.04080756,0.12859151,-0.007330265,-0.0047098054,-0.002737196,0.043373298,-0.068778135,-0.054654803,0.06630623,-0.003217861,-0.019571725,0.03044481,-0.049039748,-0.1107511,-0.026952092,-0.034260444,0.006257138,-0.053083155,-0.17235795,-0.20459977,-0.094727054,-0.7427366,0.38936114,-0.36657494,0.5176184,0.086722106,0.12087343,0.10638585,-0.15129428,0.27175817,0.025445437,-0.016624328,0.024167161,-0.25516966,0.13531871,-0.32938826,0.48930678,0.7816479,0.13510862,-0.21298374,-0.32844278,0.07923263
2025-07-21 13:17:47.922,0.16,160,8,0.003377842,0.109621264,-0.11370378,-0.008894244,0.015606381,0.0141270915,0.0,0.0,0.0,-0.0008480782,0.011667083,-0.03122375,-0.022982301,-0.05130562,0.050412774,-0.06579019,0.06146211,0.16158244,-0.011432488,-0.012064551,-0.02343835,0.03780801,-0.0033545292,0.022663362,0.062489796,0.024769872,-0.03598123,0.051003587,-0.023980673,0.040105674,-0.048358954,-0.09052547,-0.06618444,-0.037847705,0.025445437,-0.016624328,0.024167161,-0.25516966,0.13531871,-0.32938826,0.48930678,0.7816479,0.13510862,-0.21298374,-0.32844278,0.07923263,-0.40370733,-0.6284353,0.06256282,-0.55935794,0.49475583,-0.44694954,0.6832029,0.42080003,0.24779955,0.28616822,0.25934935,0.10466999
2025-07-21 13:17:47.942,0.18,180,9,-0.13038665,0.0591148,0.20971502,-0.028445924,0.050183192,0.01067737,0.0,0.0,0.0,-0.00022006572,0.007673405,-0.0471841,-0.025149038,-0.05695069,0.07459281,-0.073395416,0.05323381,0.1690787,0.0031441783,-0.023157585,-0.006017398,0.026485674,0.0040271035,-0.08067681,0.03225937,-0.07330381,0.020960834,0.038530786,0.06177676,-0.057775207,-0.037098765,-0.06337334,0.00039412867,-0.022639543,-0.40370733,-0.6284353,0.06256282,-0.55935794,0.49475583,-0.44694954,0.6832029,0.42080003,0.24779955,0.28616822,0.25934935,0.10466999,0.5020622,0.48748207,0.34702748,-0.09731951,-0.3494537,-0.63043565,0.18444434,0.92025757,0.041841023,-0.6313854,-0.78611374,0.06820321
2025-07-21 13:17:47.966,0.19999999999999998,200,10,0.12582602,0.13690007,-0.13308167,0.034529522,0.02762671,-0.044985283,0.0,0.0,0.0,-0.001891606,0.025748057,-0.027999202,-0.010447709,-0.060722906,0.053255845,-0.06901052,0.049141116,0.18934023,0.0082181515,-0.02983264,-0.019210985,0.017655905,0.11438065,0.10460789,-0.03704358,-0.029880043,-0.116812274,-0.06155318,-0.010575841,0.026793385,-0.037104934,-0.052904688,-0.1324167,-0.00934186,0.5020622,0.48748207,0.34702748,-0.09731951,-0.3494537,-0.63043565,0.18444434,0.92025757,0.041841023,-0.6313854,-0.78611374,0.06820321,-0.34281906,-0.80861783,-0.29587397,-0.4516901,0.42107645,-0.22043525,0.8431338,0.28451872,0.047865503,0.17782944,-0.025892673,0.14071974
2025-07-21 13:17:47.983,0.21999999999999997,220,11,0.032106932,-0.04458467,0.14141329,-0.022751763,0.02216859,-0.048046134,0.0,0.0,0.0,-0.0013241186,0.02077799,-0.036828965,-0.013487992,-0.059182417,0.07716631,-0.06432517,0.06806753,0.19642977,0.009734319,-0.02145502,-0.015354106,0.011746761,-0.019619234,-0.10955128,-0.0618691,0.02023689,0.00018165272,-0.027373023,0.06651746,0.010020729,0.009054645,0.076519676,0.014379602,-0.03367983,-0.34281906,-0.80861783,-0.29587397,-0.4516901,0.42107645,-0.22043525,0.8431338,0.28451872,0.047865503,0.17782944,-0.025892673,0.14071974,0.26863348,0.24906886,0.23916222,-0.33970037,-0.2684624,-0.66119903,0.5190349,0.5089689,0.12782702,-0.36151946,-0.31474677,0.1404204
2025-07-21 13:17:48.002,0.23999999999999996,240,12,0.043892637,0.019920891,-0.11697909,0.020338388,0.033803277,-0.003779759,0.0,0.0,0.0,-0.0017928487,0.025540035,-0.028663544,-0.022992596,-0.051599782,0.060737345,-0.080091536,0.06412658,0.20126404,-0.0034748197,-0.03346562,-0.045437098,0.016867334,-0.012882285,0.047256906,-0.031875186,0.07323488,-0.14784,-0.046510726,0.021891532,-0.05243704,0.044127345,0.019348368,0.007328519,0.028328853,0.26863348,0.24906886,0.23916222,-0.33970037,-0.2684624,-0.66119903,0.5190349,0.5089689,0.12782702,-0.36151946,-0.31474677,0.1404204,-0.4225075,-0.9766524,-0.22199194,-0.647295,0.17534336,-0.21667533,0.96984595,0.36750236,0.057300083,0.44494158,-0.18416579,0.24980429
2025-07-21 13:17:48.022,0.25999999999999995,260,13,0.10300458,-0.03714497,0.08732193,0.03341716,-0.0035854185,-0.031019233,0.0,0.0,0.0,-0.0011132242,0.01605794,-0.036800295,-0.021742301,-0.06616476,0.061851986,-0.05869126,0.09477207,0.18934871,0.00706324,-0.025738457,-0.037760332,0.015786879,-0.08714465,-0.09202022,0.035064626,-0.01695828,0.0747782,0.027144214,0.008005228,-0.08442543,0.014995741,0.07256137,-0.075859375,0.06488886,-0.4225075,-0.9766524,-0.22199194,-0.647295,0.17534336,-0.21667533,0.96984595,0.36750236,0.057300083,0.44494158,-0.18416579,0.24980429,0.13272214,-0.15640229,-0.05833586,-0.36948404,-0.29218957,-0.5764252,0.51312107,0.66189367,0.30948362,-0.25112268,0.40251717,0.26883733
2025-07-21 13:17:48.042,0.27999999999999997,280,14,0.005978072,0.1289392,0.104882345,0.018173788,0.03406276,-0.03330486,0.0,0.0,0.0,-0.0018042347,0.022525575,-0.0443594,-0.030895652,-0.059793275,0.033070017,-0.069816254,0.08510326,0.19143912,0.006351131,-0.03264614,-0.018483793,0.018255595,0.0466517,0.04233273,0.0674237,0.060527086,-0.114491574,0.037638884,-0.056067325,0.059759784,0.06661447,-0.0155176595,0.023084218,0.057641957,0.13272214,-0.15640229,-0.05833586,-0.36948404,-0.29218957,-0.5764252,0.51312107,0.66189367,0.30948362,-0.25112268,0.40251717,0.26883733,0.12264804,0.0394564,0.20022762,-0.23132408,0.13043676,-0.47926843,0.3823363,0.2611046,0.011229642,-0.22515059,-1.0061669,0.14494285
2025-07-21 13:17:48.067,0.3,300,15,-0.008395227,0.14770406,-0.12448328,-0.0034524803,0.027190039,-0.029798863,0.0,0.0,0.0,-0.0035521085,0.035646852,-0.04314857,-0.035808884,-0.055778928,0.02368079,-0.065330945,0.07932737,0.18463589,0.018085202,-0.041636247,-0.015110625,0.0069054915,0.071048215,0.06465553,-0.014542301,-0.014270145,0.051668584,0.022534003,-0.046548493,-0.079014555,-0.058304686,-0.03879511,-0.06767973,0.021058887,0.12264804,0.0394564,0.20022762,-0.23132408,0.13043676,-0.47926843,0.3823363,0.2611046,0.011229642,-0.22515059,-1.0061669,0.14494285,-0.70085716,-0.9391637,-0.122380346,-0.44137254,0.26644424,-0.17478506,0.81855667,0.28038368,0.032905035,0.35389113,-0.10219878,0.13683459
2025-07-21 13:17:48.084,0.32,320,16,-0.007617948,-0.06516495,0.11344976,0.019761803,0.033976752,0.0330196,0.0,0.0,0.0,-0.00329671,0.026944216,-0.051937584,-0.040568136,-0.070727006,0.0356261,-0.060328256,0.09659425,0.18256608,0.0116865765,-0.044196576,-0.013496527,0.0031070705,0.023949964,-0.0126546025,0.03393465,-0.052863616,0.06830576,-0.017965177,0.0043538697,-0.07792051,0.028783634,-0.013195958,-0.0049851025,-0.032021087,-0.70085716,-0.9391637,-0.122380346,-0.44137254,0.26644424,-0.17478506,0.81855667,0.28038368,0.032905035,0.35389113,-0.10219878,0.13683459,0.20671457,-0.061850782,-0.110636994,-0.30531514,-0.1603807,-0.61974883,0.36167184,0.53915054,0.15047574,-0.54456484,-0.1700643,-0.06832427
2025-07-21 13:17:48.102,0.34,340,17,-0.04459305,-0.035384487,-0.08184535,0.05476383,-0.025660872,0.01116912,0.0,0.0,0.0,-0.0044095726,0.02910021,-0.060745448,-0.04790202,-0.054026727,0.019640133,-0.060152747,0.08189116,0.18065755,0.009103925,-0.04131043,-0.025259756,-0.0020676525,0.074743584,0.0040104683,0.029668422,0.07123663,-0.045705184,-0.06298844,-0.08636848,-0.044397283,0.06246824,-0.05908397,-0.046388622,0.057141587,0.20671457,-0.061850782,-0.110636994,-0.30531514,-0.1603807,-0.61974883,0.36167184,0.53915054,0.15047574,-0.54456484,-0.1700643,-0.06832427,-0.32948047,-0.37005898,0.18169895,-0.641435,0.40491888,-0.63769495,0.5990154,0.50864065,0.2959197,0.29729605,-0.22786218,0.34009477
2025-07-21 13:17:48.122,0.36000000000000004,360,18,-0.01303666,-0.035999306,0.10147529,0.041701403,0.03520491,0.03335979,0.0,0.0,0.0,-0.004597464,0.015427799,-0.07632981,-0.02691221,-0.058847755,0.052420154,-0.0688416,0.08593083,0.19689031,0.01124062,-0.0526338,-0.038210683,-0.0034263276,-0.03303907,-0.03518888,0.035276987,-0.0753371,0.11462047,0.06061289,0.0586669,0.07915138,0.032263454,0.022433283,-0.08583448,-0.00017192317,-0.32948047,-0.37005898,0.18169895,-0.641435,0.40491888,-0.63769495,0.5990154,0.50864065,0.2959197,0.29729605,-0.22786218,0.34009477,0.31648225,0.0617666,0.196665,-0.531829,-0.30984196,-0.80451316,0.19372088,0.15578866,0.20998421,-0.19951345,-0.2313317,0.01866782
2025-07-21 13:17:48.145,0.38000000000000006,380,19,-0.047415335,0.016478997,-0.050308455,0.07807588,0.0064120768,-0.004917228,0.0,0.0,0.0,-0.0056337574,0.016686121,-0.0684409,-0.035129648,-0.070260085,0.0147674475,-0.07457757,0.07756281,0.17031163,0.016400462,-0.043062992,-0.03692315,3.5637673e-05,0.05633509,0.07117169,0.005615013,0.06205924,-0.080287114,0.007823825,0.04304919,0.0029776401,0.05234394,-0.048859727,-0.069680676,0.047216393,0.31648225,0.0617666,0.196665,-0.531829,-0.30984196,-0.80451316,0.19372088,0.15578866,0.20998421,-0.19951345,-0.2313317,0.01866782,-0.19772567,-0.4908955,0.0018810593,-0.5825869,0.2628478,-0.4490543,0.6991992,0.42616645,0.052158214,0.20292512,-0.39772666,0.13511184
2025-07-21 13:17:48.166,0.4000000000000001,400,20,0.037395373,-0.14268477,0.06512885,-0.0016675441,0.0065754205,0.016997853,0.0,0.0,0.0,-0.0059324764,0.023156947,-0.06872383,-0.02706424,-0.069055095,0.03415214,-0.08875762,0.08350932,0.17628439,0.007884564,-0.04039837,-0.061871976,0.0015687756,-0.05944209,-0.044718962,0.046970613,0.058267307,-0.01893786,-0.04550362,0.0122462455,0.035396498,-0.016463239,0.047233183,0.005318862,-0.0052007036,-0.19772567,-0.4908955,0.0018810593,-0.5825869,0.2628478,-0.4490543,0.6991992,0.42616645,0.052158214,0.20292512,-0.39772666,0.13511184,0.19410759,0.04966456,-0.036466368,-0.5399616,0.2971038,-0.7203446,0.40754816,0.50624067,0.22891077,-0.1910032,-0.2355456,0.059171084
2025-07-21 13:17:48.183,0.4200000000000001,420,21,-0.09346102,0.030657217,-0.07052128,-0.018381242,-0.046945233,-0.024909772,0.0,0.0,0.0,-0.006396541,0.02115635,-0.07130944,-0.040937867,-0.07095055,0.042729422,-0.09214115,0.09186793,0.18443708,0.016110787,-0.04718537,-0.07424746,0.007525448,-0.028279733,0.09015813,0.051895328,-0.07071826,0.008907258,-0.019876402,-0.012025183,-0.015117261,0.043960012,-0.07457048,-0.064693935,0.007305357,0.19410759,0.04966456,-0.036466368,-0.5399616,0.2971038,-0.7203446,0.40754816,0.50624067,0.22891077,-0.1910032,-0.2355456,0.059171084,-0.33599433,-0.6834056,0.030023154,-0.45024958,0.34203574,-0.49808663,0.6214971,0.54966366,0.117758565,0.13625383,0.041178316,0.05810875
2025-07-21 13:17:48.203,0.4400000000000001,440,22,-0.12774937,0.008974335,0.22686295,-0.018136973,0.051244456,0.038171973,0.0,0.0,0.0,-0.0066484613,0.031582832,-0.09003498,-0.028171778,-0.08430101,0.055417437,-0.080324315,0.08156274,0.18601961,0.022564355,-0.043978088,-0.058786727,-0.014065482,-0.0032540502,0.0010467295,-0.05237858,-0.052871235,0.016913572,-0.015065722,0.04919376,0.06355864,0.053221814,0.0014727359,0.041289646,-0.032271713,-0.33599433,-0.6834056,0.030023154,-0.45024958,0.34203574,-0.49808663,0.6214971,0.54966366,0.117758565,0.13625383,0.041178316,0.05810875,0.55999863,0.36887214,0.35170603,-0.22248235,-0.006420497,-0.9126484,0.029284872,0.49494457,-0.020955712,-0.54477084,-1.0986549,0.03700525
2025-07-21 13:17:48.223,0.46000000000000013,460,23,0.0075018085,-0.036281645,-0.037386913,0.011360447,-0.03562929,0.026606359,0.0,0.0,0.0,-0.008367071,0.03220504,-0.07883965,-0.025498854,-0.06437957,0.04597716,-0.09815445,0.063715704,0.18084416,0.0095357895,-0.06025578,-0.0749893,-0.00034268133,0.09071754,-0.0062648943,0.011793359,0.08222417,0.00076238875,-0.00820324,-0.09224822,-0.0011605185,0.0015369463,-0.028592322,-0.041101094,-0.039296694,0.55999863,0.36887214,0.35170603,-0.22248235,-0.006420497,-0.9126484,0.029284872,0.49494457,-0.020955712,-0.54477084,-1.0986549,0.03700525,-0.18041605,-0.19729185,0.04952297,-0.6791229,0.17766514,-0.606945,0.5182591,0.47908217,0.017107569,0.05968184,-0.49592152,0.16449767
2025-07-21 13:17:48.248,0.48000000000000015,480,24,0.03752402,0.0140410215,0.03164538,0.0013093997,-0.039551456,0.04380129,0.0,0.0,0.0,-0.008799981,0.04110909,-0.08774143,-0.03164972,-0.06963767,0.061037008,-0.09774549,0.06979741,0.20122711,0.0042301286,-0.062964514,-0.09564441,-0.0049106483,0.04028911,-0.076215275,-0.08498105,0.029803533,0.04164741,-0.06661206,-0.005979849,0.07092722,0.053235162,-0.02273478,-0.101512864,-0.06267266,-0.18041605,-0.19729185,0.04952297,-0.6791229,0.17766514,-0.606945,0.5182591,0.47908217,0.017107569,0.05968184,-0.49592152,0.16449767,0.33205494,0.13521647,0.17319639,-0.7306933,0.010027748,-0.81984943,0.3878863,0.19012906,0.31432673,0.0847522,0.14967003,0.17802328
2025-07-21 13:17:48.266,0.5000000000000001,500,25,0.033065043,0.15668155,0.057956688,0.029337876,0.032902647,0.021353703,0.0,0.0,0.0,-0.009127801,0.048856143,-0.08172186,-0.032207135,-0.08110738,0.045735683,-0.10110617,0.06582821,0.18362518,0.018887728,-0.056807123,-0.0898087,-0.005059021,-0.055559106,0.11407218,-0.02889125,0.029852254,-0.08441489,-0.033120893,-0.07019193,-0.07788038,0.08873771,0.077051274,0.014580575,0.041364122,0.33205494,0.13521647,0.17319639,-0.7306933,0.010027748,-0.81984943,0.3878863,0.19012906,0.31432673,0.0847522,0.14967003,0.17802328,0.065321065,-0.38919747,-0.26551324,-0.27963954,0.05647357,-0.3834386,0.60312635,0.63566226,-0.21164972,-0.42088684,-0.53588545,-0.07336646
2025-07-21 13:17:48.283,0.5200000000000001,520,26,0.014338965,-0.050962098,-0.010541738,0.054870233,0.045144714,0.04111169,0.0,0.0,0.0,-0.0095291715,0.05033004,-0.07067396,-0.02885896,-0.07162272,0.03731665,-0.10221414,0.07444497,0.18471657,0.015328229,-0.06697145,-0.08129675,-0.0032402931,0.029955942,-0.022076678,0.055218633,0.050619416,-0.055133507,0.057911888,0.017418275,0.03239164,0.003823267,-0.043250736,-0.0762404,-0.04048061,0.065321065,-0.38919747,-0.26551324,-0.27963954,0.05647357,-0.3834386,0.60312635,0.63566226,-0.21164972,-0.42088684,-0.53588545,-0.07336646,0.13351187,-0.00069149956,0.046247415,-0.6857646,0.35154203,-0.74454004,0.49178538,0.3768336,0.26366895,0.09043186,0.0017816145,0.26864037
2025-07-21 13:17:48.303,0.5400000000000001,540,27,0.0296961,0.02492822,0.03501295,0.018380707,-0.02213347,-0.011261961,0.0,0.0,0.0,-0.009222959,0.044559598,-0.06835072,-0.034285635,-0.078608595,0.05594255,-0.08968149,0.08210534,0.1790078,0.0074039404,-0.055254374,-0.082301386,-0.013831816,-0.059029546,-0.045366485,-0.07946276,-0.0757959,0.019491736,-0.0027677475,-0.03033834,0.0023637472,0.0532397,0.028083993,0.078016594,-0.08155716,0.13351187,-0.00069149956,0.046247415,-0.6857646,0.35154203,-0.74454004,0.49178538,0.3768336,0.26366895,0.09043186,0.0017816145,0.26864037,-0.15078059,-0.123298064,0.035880663,-0.40649056,0.010964554,-0.5192295,0.50777066,0.46465054,0.08585443,-0.12631948,-0.3876787,-0.16155833
2025-07-21 13:17:48.323,0.5600000000000002,560,28,-0.0779125,-0.029430607,-0.057814233,0.069961004,0.00053009996,0.014802936,0.0,0.0,0.0,-0.00925865,0.055696037,-0.0795609,-0.04186069,-0.08009049,0.047495786,-0.097100444,0.07208897,0.1908379,0.018312294,-0.06563229,-0.08884918,-0.013046875,-0.058251023,0.04828885,0.06881232,-0.025915254,0.022473473,-0.017403537,0.024326563,0.00064709206,0.058022037,-0.079985626,-0.06351267,0.01875327,-0.15078059,-0.123298064,0.035880663,-0.40649056,0.010964554,-0.5192295,0.50777066,0.46465054,0.08585443,-0.12631948,-0.3876787,-0.16155833,0.024612373,-0.45425683,0.05076756,-0.6505461,0.213208,-0.6863171,0.53229547,0.4077515,0.24108323,0.11829025,0.19890869,0.003405843
2025-07-21 13:17:48.349,0.5800000000000002,580,29,0.015782254,-0.057459105,0.13065618,0.05527251,0.010315506,-0.04839121,0.0,0.0,0.0,-0.008588969,0.05161132,-0.08835607,-0.033562552,-0.08575079,0.051017098,-0.09073301,0.07591405,0.18764265,0.011137833,-0.05250541,-0.07160235,-0.024080295,-0.07667614,-0.097037315,-0.048372045,0.02260253,-0.011863375,-0.05305387,-0.039777968,0.052461367,0.06855865,0.044605315,0.07998308,-0.0077840146,0.024612373,-0.45425683,0.05076756,-0.6505461,0.213208,-0.6863171,0.53229547,0.4077515,0.24108323,0.11829025,0.19890869,0.003405843,0.26373228,0.42021042,0.28295246,-0.38131675,-0.017809737,-0.6897048,0.28469822,0.50015926,0.31583494,-0.2287122,-0.7969191,-0.04614311
2025-07-21 13:17:48.373,0.6000000000000002,600,30,0.09195107,-0.042355325,-0.098769434,0.0064237667,0.012170183,0.0006562984,0.0,0.0,0.0,-0.0096653905,0.045249745,-0.08798875,-0.037167642,-0.07215452,0.047072187,-0.10568137,0.077935435,0.18649244,0.028721824,-0.06263419,-0.07151547,-0.027666755,0.048502844,-0.033267856,0.004188243,0.050055005,-0.011821199,0.027610853,0.056900408,-0.023257727,-0.020680021,-0.01328415,-0.019217586,-0.05954508,0.26373228,0.42021042,0.28295246,-0.38131675,-0.017809737,-0.6897048,0.28469822,0.50015926,0.31583494,-0.2287122,-0.7969191,-0.04614311,-0.30080783,-0.3571679,0.08891335,-0.68844235,0.39587125,-0.41657144,0.80533683,0.41255137,0.14446294,0.37297848,0.03488022,0.13820976
2025-07-21 13:17:48.398,0.6200000000000002,620,31,0.011857904,0.010290767,0.16310488,0.019914933,-0.003537771,-0.04216587,0.0,0.0,0.0,-0.009293063,0.05475218,-0.08919456,-0.026619576,-0.084520385,0.07251621,-0.08748619,0.08002233,0.17847985,0.013998694,-0.051358312,-0.06459846,-0.023736468,-0.010136447,0.043570444,0.07948898,-0.008865755,0.015723903,-0.027338952,0.051357474,-0.0248832,0.06381959,0.0032901901,0.02495487,-0.08135748,-0.30080783,-0.3571679,0.08891335,-0.68844235,0.39587125,-0.41657144,0.80533683,0.41255137,0.14446294,0.37297848,0.03488022,0.13820976,0.50304854,0.10090937,-0.1685662,-0.23051739,-0.28128865,-0.70994717,0.26819512,0.48646358,-0.07248581,-0.7611561,-0.6194911,-0.20820111
2025-07-21 13:17:48.417,0.6400000000000002,640,32,0.04677891,-0.068141945,-0.08785476,-0.002024509,0.05184742,0.010978851,0.0,0.0,0.0,-0.01016487,0.06123751,-0.076943584,-0.02467128,-0.08314801,0.037409335,-0.09057594,0.084070615,0.18131414,0.017667456,-0.060152747,-0.087487124,-0.024187403,-0.038826834,0.04958242,-0.09581948,0.05164809,-0.0042627184,-0.051235385,0.051649872,0.015524303,0.015833274,-0.09018728,-0.088364996,0.041169316,0.50304854,0.10090937,-0.1685662,-0.23051739,-0.28128865,-0.70994717,0.26819512,0.48646358,-0.07248581,-0.7611561,-0.6194911,-0.20820111,-0.18181768,-0.48811185,0.15148066,-0.7054815,0.22881612,-0.6867636,0.6697625,0.38870043,0.037564002,0.33908653,0.08062965,0.35031897
2025-07-21 13:17:48.433,0.6600000000000003,660,33,-0.01751146,-0.025303679,0.17724371,0.008380594,-0.014577093,-0.045711983,0.0,0.0,0.0,-0.00973061,0.06275477,-0.08182196,-0.021549847,-0.07784473,0.055254657,-0.0952141,0.074674346,0.17421749,0.012505484,-0.06715622,-0.08377324,-0.032265365,0.018610986,-0.07827275,0.0032533295,-0.07639556,-0.019639766,-0.053680655,0.06884253,0.028477192,-0.05975737,-0.04779768,0.04251815,-0.04429666,-0.18181768,-0.48811185,0.15148066,-0.7054815,0.22881612,-0.6867636,0.6697625,0.38870043,0.037564002,0.33908653,0.08062965,0.35031897,0.44792578,0.55335337,0.27871573,-0.27800766,0.030758899,-0.6342565,0.22562566,0.5316703,0.10922338,-0.45119798,-0.8109698,0.02340934
2025-07-21 13:17:48.453,0.6800000000000003,680,34,0.08906332,0.06784106,-0.074855596,-0.0008695141,-0.026639177,0.0018997061,0.0,0.0,0.0,-0.010981246,0.061336905,-0.07099321,-0.024366986,-0.07261713,0.033035856,-0.095358275,0.07745761,0.186865,0.013761101,-0.060899667,-0.099134624,-0.02339622,0.09740216,0.0429887,0.030042088,-0.032824207,-0.019724945,-0.0107819885,-0.09553844,0.09132976,-0.052132443,0.0048697195,-0.09862667,-0.004640983,0.44792578,0.55335337,0.27871573,-0.27800766,0.030758899,-0.6342565,0.22562566,0.5316703,0.10922338,-0.45119798,-0.8109698,0.02340934,-0.097696505,-0.25665474,0.103238314,-0.72382724,0.30725992,-0.638619,0.52055913,0.27496734,0.0013715252,0.20161706,-0.062698096,0.12295914
2025-07-21 13:17:48.473,0.7000000000000003,700,35,-0.0019908238,0.02084992,0.14879012,0.065401964,0.0061913286,0.021969028,0.0,0.0,0.0,-0.011672687,0.05259951,-0.06328979,-0.022407155,-0.077283844,0.049494736,-0.09572458,0.069188096,0.1842027,0.0078264205,-0.059681755,-0.093601204,-0.02151809,0.023518683,0.0126013905,0.040307917,-0.031140475,-0.016706988,0.06873398,0.049222898,-0.0037179661,0.029854437,0.014309412,0.052098855,0.042868808,-0.097696505,-0.25665474,0.103238314,-0.72382724,0.30725992,-0.638619,0.52055913,0.27496734,0.0013715252,0.20161706,-0.062698096,0.12295914,0.39008746,0.14313652,0.06848942,-0.25147367,0.03231516,-0.6010609,0.2971154,0.5222293,-0.07356616,-0.48968148,-1.0699135,-0.12877095
2025-07-21 13:17:48.501,0.7200000000000003,720,36,0.061477564,0.0059920964,-0.101454936,0.037678495,-0.00020597035,-0.006477918,0.0,0.0,0.0,-0.013220586,0.059973095,-0.06420739,-0.020188704,-0.0689049,0.051196277,-0.10271139,0.080999,0.18161744,0.018771436,-0.07606669,-0.108906336,-0.018978786,-0.026283594,0.055056848,-0.017965714,0.0094381245,-0.07866183,-0.05814039,-0.021410407,0.037429098,-0.06867148,-0.037528865,-0.08600972,0.029156147,0.39008746,0.14313652,0.06848942,-0.25147367,0.03231516,-0.6010609,0.2971154,0.5222293,-0.07356616,-0.48968148,-1.0699135,-0.12877095,-0.12418745,-0.4102822,0.0116857365,-0.72746,0.4965764,-0.620351,0.72320205,0.4151971,0.039728455,0.25761437,0.03282863,0.25912392
2025-07-21 13:17:48.516,0.7400000000000003,740,37,-0.08114427,-0.012679368,0.123223536,0.024099763,-0.03618892,0.026901988,0.0,0.0,0.0,-0.012891717,0.05788238,-0.06002541,-0.017257053,-0.08936933,0.06511673,-0.09145031,0.08157473,0.19119279,8.354848e-05,-0.05380575,-0.11053406,-0.031675514,0.055583764,0.0227628,-0.0057326066,0.052947633,0.114221305,0.03920041,0.011464672,0.054957364,0.027108911,0.021626722,0.047251627,-0.022939181,-0.12418745,-0.4102822,0.0116857365,-0.72746,0.4965764,-0.620351,0.72320205,0.4151971,0.039728455,0.25761437,0.03282863,0.25912392,0.28006837,-0.19834699,-0.1469433,-0.42897835,-0.53698295,-0.78061336,0.15777597,0.1923311,-0.10414914,-0.5888397,-0.75776696,-0.33999747
2025-07-21 13:17:48.534,0.7600000000000003,760,38,0.1420059,-0.04977067,-0.07401472,-0.014172499,-0.0103628645,0.042802516,0.0,0.0,0.0,-0.014002134,0.05136074,-0.06481582,-0.02592074,-0.08995736,0.05053435,-0.09497657,0.064907566,0.16614166,0.007580891,-0.068630986,-0.11505171,-0.016797664,-0.005077905,-0.03928344,0.02396706,0.035203822,-0.07268063,-0.070422485,0.04434547,-0.06635841,-0.013183963,0.034122102,-0.12132481,0.043549955,0.28006837,-0.19834699,-0.1469433,-0.42897835,-0.53698295,-0.78061336,0.15777597,0.1923311,-0.10414914,-0.5888397,-0.75776696,-0.33999747,-0.24983376,-0.2644602,0.011670779,-0.37367842,0.30436936,-0.5955914,0.62892056,0.4338445,0.15770054,0.43660426,0.42964506,0.44018364
2025-07-21 13:17:48.553,0.7800000000000004,780,39,0.011583012,0.10726094,0.23618007,0.042784173,-0.03895569,0.026737059,0.0,0.0,0.0,-0.014758915,0.067011826,-0.08158357,-0.029655654,-0.082844235,0.05159531,-0.10265147,0.0697061,0.17496309,0.017215604,-0.06115403,-0.12268971,-0.02415712,-0.06873738,0.042771082,-0.054442815,-0.045923214,0.06343636,0.0064744567,-0.051154587,0.022117425,0.06265872,-0.003962363,0.042634297,-0.0043362197,-0.24983376,-0.2644602,0.011670779,-0.37367842,0.30436936,-0.5955914,0.62892056,0.4338445,0.15770054,0.43660426,0.42964506,0.44018364,0.6749939,0.07245082,-0.016951095,-0.058605347,-0.31149516,-0.8367103,0.0074998206,0.6397538,-0.25648233,-0.8013004,-0.84509957,-0.056866106
2025-07-21 13:17:48.573,0.8000000000000004,800,40,0.0010995391,0.072692275,-0.04610599,0.0069013196,-0.018807257,-0.008046048,0.0,0.0,0.0,-0.016540362,0.06973721,-0.07041297,-0.037610006,-0.07074639,0.02916363,-0.11235299,0.06414873,0.17827886,-0.003422735,-0.08410119,-0.14070328,-0.019224811,0.09909113,-0.0005066267,-0.039365686,0.07249025,-0.022299822,-0.04550368,0.001981372,0.01001355,-0.04735519,0.01656633,-0.089942284,0.039730363,0.6749939,0.07245082,-0.016951095,-0.058605347,-0.31149516,-0.8367103,0.0074998206,0.6397538,-0.25648233,-0.8013004,-0.84509957,-0.056866106,-0.11680586,-0.14226663,0.0887558,-0.64870465,0.20614363,-0.7665311,0.5769784,0.55837727,0.06798678,0.25709885,-0.08523327,0.35437796
2025-07-21 13:17:48.598,0.8200000000000004,820,41,0.01978405,0.12200362,0.19997357,0.026074601,0.0380281,0.021484766,0.0,0.0,0.0,-0.01716443,0.059000835,-0.06475798,-0.0327336,-0.06791829,0.027925057,-0.10980436,0.073770106,0.18407471,0.008958441,-0.071264714,-0.14138728,-0.010158321,0.056660447,0.011139746,0.07293085,0.017443627,-0.041508876,-0.032776818,-0.051728405,0.009823349,-0.06536468,-0.03466939,-0.004667611,0.0026770893,-0.11680586,-0.14226663,0.0887558,-0.64870465,0.20614363,-0.7665311,0.5769784,0.55837727,0.06798678,0.25709885,-0.08523327,0.35437796,0.65339535,0.41086668,0.015708137,-0.15207887,0.32758632,-0.53781694,0.059913404,0.62830424,0.10036046,-0.6250918,-0.865526,0.028918657
2025-07-21 13:17:48.616,0.8400000000000004,840,42,-0.020563023,-0.05987365,-0.095413335,0.07768279,-0.0060068676,-0.02311421,0.0,0.0,0.0,-0.018945951,0.08192127,-0.041941617,-0.02338232,-0.061387163,0.039342567,-0.103079125,0.06279745,0.20292558,0.0048010545,-0.090906985,-0.14647807,-0.004865669,0.010288657,0.108234935,0.02617144,0.07347064,0.07759438,0.015017077,-0.05617606,0.013238635,-0.0071364613,-0.06189193,-0.13777669,0.079736024,0.65339535,0.41086668,0.015708137,-0.15207887,0.32758632,-0.53781694,0.059913404,0.62830424,0.10036046,-0.6250918,-0.865526,0.028918657,0.04310981,-0.7063798,0.22424084,-0.8325397,-0.052678976,-0.86865896,0.4572496,0.34951547,-0.28165522,0.0684111,0.21217969,0.26781425
2025-07-21 13:17:48.633,0.8600000000000004,860,43,-0.068152584,-0.023270965,0.1392426,0.034275297,0.009987676,-0.003409484,0.0,0.0,0.0,-0.019058172,0.082191184,-0.03675564,-0.018522492,-0.07748256,0.041548,-0.11421828,0.07233837,0.19126788,-0.012625417,-0.08205161,-0.14549103,-0.022457795,-0.060674332,-0.10491098,-0.021345701,-0.084513575,-0.0040265303,-0.0020343564,0.03450464,-0.020572525,-0.04817235,0.08000243,0.13287164,0.044922072,0.04310981,-0.7063798,0.22424084,-0.8325397,-0.052678976,-0.86865896,0.4572496,0.34951547,-0.28165522,0.0684111,0.21217969,0.26781425,0.26886672,0.2034274,0.231288,-0.14533833,0.098842174,-0.43467367,0.32435974,0.62367934,-0.013874389,-0.26766926,-1.0264522,0.02116299
2025-07-21 13:17:48.654,0.8800000000000004,880,44,0.078248724,-0.052358657,-0.12271576,0.064595684,-0.00015255118,-0.041418944,0.0,0.0,0.0,-0.019888753,0.07737664,-0.033224363,-0.017911121,-0.061125148,0.037819825,-0.1114098,0.052553497,0.20092764,0.0006767251,-0.073044546,-0.14230718,-0.015250767,0.053138122,0.09224201,-0.06640653,0.08496849,0.006986392,-0.0064203325,0.020755341,0.022408342,8.616363e-05,0.058706917,-0.08714208,0.053468037,0.26886672,0.2034274,0.231288,-0.14533833,0.098842174,-0.43467367,0.32435974,0.62367934,-0.013874389,-0.26766926,-1.0264522,0.02116299,-0.13410163,-0.92385393,-0.18530972,-0.75213116,0.19988383,-0.4740762,0.77351534,0.23313233,-0.159174,0.08597213,0.19108611,0.21118739
2025-07-21 13:17:48.673,0.9000000000000005,900,45,-0.110105075,-0.12143571,0.17772426,0.041277554,0.026947843,-0.049596984,0.0,0.0,0.0,-0.020146305,0.07623492,-0.034588598,-0.029143933,-0.0751754,0.044486754,-0.095614664,0.063820764,0.18712896,-0.014823641,-0.07608805,-0.13895309,-0.012194831,-0.05780746,-0.08879527,-0.022538263,-0.08615524,0.08200555,0.07716356,-0.014433612,-0.11798847,-0.031485904,0.057168677,0.13528861,0.0017559703,-0.13410163,-0.92385393,-0.18530972,-0.75213116,0.19988383,-0.4740762,0.77351534,0.23313233,-0.159174,0.08597213,0.19108611,0.21118739,0.16248077,-0.0019049309,0.20889033,-0.18988964,-0.22679426,-0.60116154,0.42261428,0.78801095,0.06594395,-0.53096306,-0.9926195,-0.011578914
2025-07-21 13:17:48.699,0.9200000000000005,920,46,0.038754832,0.027502934,-0.13503471,0.010193053,-0.01030246,0.002979214,0.0,0.0,0.0,-0.021623073,0.072915025,-0.028828574,-0.025303224,-0.07468823,0.024729336,-0.092952535,0.06257273,0.21124105,-0.0038569483,-0.07039969,-0.13150406,-0.010425319,0.047270883,-0.016684616,0.051278498,-0.008747352,-0.079342335,0.031626355,0.06306268,0.029260175,-0.05331081,-0.028814817,-0.10196211,-0.060645234,0.16248077,-0.0019049309,0.20889033,-0.18988964,-0.22679426,-0.60116154,0.42261428,0.78801095,0.06594395,-0.53096306,-0.9926195,-0.011578914,-0.11707383,-0.36013564,-0.10325208,-0.555057,0.6403532,-0.4590885,0.6953628,0.3601704,0.38942876,0.30871612,0.45885158,0.13800421
2025-07-21 13:17:48.716,0.9400000000000005,940,47,0.01369917,0.12273425,0.21319486,0.00783321,-0.015850425,-0.023323216,0.0,0.0,0.0,-0.02176956,0.068594344,-0.05496991,-0.021306835,-0.07384249,0.049581356,-0.1048585,0.07266964,0.20173326,0.009235112,-0.06560159,-0.11081512,-0.014718002,0.00263669,0.008952926,0.04552817,-0.018241907,0.10567395,-0.015090161,-0.04287531,-0.028483734,0.07047477,0.035748493,0.114141,-0.041578107,-0.11707383,-0.36013564,-0.10325208,-0.555057,0.6403532,-0.4590885,0.6953628,0.3601704,0.38942876,0.30871612,0.45885158,0.13800421,0.37225285,0.07551217,0.03034972,-0.0015176861,-0.47059867,-0.76283306,-0.0253044,0.8900662,-0.04210925,-0.6471236,-0.94445235,-0.2853114
2025-07-21 13:17:48.734,0.9600000000000005,960,48,0.015516249,0.054762863,-0.012082548,-0.02045387,0.027018284,-0.0015787977,0.0,0.0,0.0,-0.023739606,0.06864131,-0.046594586,-0.022519503,-0.056319714,0.023028456,-0.10145979,0.0621585,0.22539464,-0.0028007776,-0.07949975,-0.102859624,-0.018994153,0.08583002,0.07793101,0.028954923,0.090710856,-0.15322912,-0.00987289,-0.11283462,0.06572237,-0.00017593577,-0.007706022,-0.06154207,0.01070023,0.37225285,0.07551217,0.03034972,-0.0015176861,-0.47059867,-0.76283306,-0.0253044,0.8900662,-0.04210925,-0.6471236,-0.94445235,-0.2853114,0.0516975,-0.04855522,0.0842756,-0.52988464,0.40978563,-0.7206795,0.37957293,0.43465108,0.004339032,0.019883573,-0.4275965,0.2817749
2025-07-21 13:17:48.754,0.9800000000000005,980,49,0.0084441565,-0.0064221453,0.07551019,0.03274865,-0.029144704,0.032178737,0.0,0.0,0.0,-0.02467832,0.070172444,-0.034409896,-0.030139428,-0.071290985,0.03251638,-0.10800377,0.056938738,0.21452613,-0.004828543,-0.08184066,-0.119587824,-0.00309562,0.06688695,0.07594379,-0.004829973,-0.052947003,0.138779,0.058004346,0.004008584,-0.084149025,-0.053592626,-0.0042710844,0.017557073,0.009116978,0.0516975,-0.04855522,0.0842756,-0.52988464,0.40978563,-0.7206795,0.37957293,0.43465108,0.004339032,0.019883573,-0.4275965,0.2817749,-0.06419917,-0.46851528,-0.18170342,-0.34874725,-0.23537742,-0.77457076,0.48703855,0.6716633,-0.41722757,-0.46130925,-0.8112767,-0.2028991
2025-07-21 13:17:48.775,1.0000000000000004,1000,50,0.013548884,-0.18410644,-0.026617818,0.0689958,0.023805212,0.045949988,0.0,0.0,0.0,-0.025033,0.061536,-0.04990053,-0.031866055,-0.06683085,0.019817812,-0.115821354,0.06187438,0.2264695,-0.014547583,-0.09096095,-0.14876652,-0.01764201,-0.08384135,-0.0044781705,0.010655283,-0.066168934,0.0073401104,-0.06429923,-0.02450104,0.035847355,0.036405347,-0.02373633,-0.15214819,-0.025629599,-0.06419917,-0.46851528,-0.18170342,-0.34874725,-0.23537742,-0.77457076,0.48703855,0.6716633,-0.41722757,-0.46130925,-0.8112767,-0.2028991,0.3146208,-0.17940962,0.08915721,-0.63911843,0.052370135,-0.8726488,0.37607887,0.1801154,0.35147226,0.13644356,0.4112881,0.19606607
2025-07-21 13:17:48.799,1.0200000000000005,1020,51,-0.029288856,0.056148604,0.0656565,0.034019064,-0.03685388,0.038821653,0.0,0.0,0.0,-0.02537983,0.06530944,-0.05269204,-0.03835184,-0.08005442,0.014522301,-0.119366504,0.07328761,0.21466991,-0.0013406464,-0.07717631,-0.13583697,-0.019699384,-0.0059293546,0.03192075,0.06783682,-0.058100644,-0.048724167,0.0107811345,0.0722769,-0.12255582,-0.045057915,-0.000991786,0.0882511,0.044516686,0.3146208,-0.17940962,0.08915721,-0.63911843,0.052370135,-0.8726488,0.37607887,0.1801154,0.35147226,0.13644356,0.4112881,0.19606607,0.19157681,-0.19922493,-0.14026217,-0.0014182953,0.2577125,-0.315189,0.4699053,0.7270371,-0.25179628,-0.42617884,-0.72783905,-0.071493
2025-07-21 13:17:48.816,1.0400000000000005,1040,52,0.022909714,0.07999148,0.0095876865,-0.008501241,0.042410526,-0.007843029,0.0,0.0,0.0,-0.026405727,0.077208,-0.071711086,-0.028810076,-0.06452407,0.028445581,-0.101671614,0.0631888,0.22192737,0.0036439502,-0.0752509,-0.14975731,-0.0128306905,0.051287606,0.043691378,0.031873774,0.041000888,0.06819239,0.067976505,0.049043536,0.050928142,-0.0826882,0.013762697,-0.10383615,-0.021055799,0.19157681,-0.19922493,-0.14026217,-0.0014182953,0.2577125,-0.315189,0.4699053,0.7270371,-0.25179628,-0.42617884,-0.72783905,-0.071493,0.30658352,-0.124916255,-0.047766965,-0.66761523,-0.0073745884,-0.9005192,0.4043416,0.37218037,-0.029337503,-0.0848407,-0.056895405,0.16261512
2025-07-21 13:17:48.836,1.0600000000000005,1060,53,0.072741814,0.14578326,0.08730668,0.06726127,0.014675646,0.038077123,0.0,0.0,0.0,-0.026807813,0.071125105,-0.06873179,-0.031014865,-0.07054477,0.023089863,-0.101302005,0.065135814,0.20618777,0.0008911183,-0.08040777,-0.12769146,-0.027571881,0.02947701,-0.045915894,-0.043153435,-0.046707496,0.030857613,-0.0057656444,0.066015854,-0.0016631676,0.020160835,-0.010731012,-0.026764218,-0.052512854,0.30658352,-0.124916255,-0.047766965,-0.66761523,-0.0073745884,-0.9005192,0.4043416,0.37218037,-0.029337503,-0.0848407,-0.056895405,0.16261512,0.26174048,0.1660816,0.18117721,-0.31770548,0.015226807,-0.6209633,0.35094953,0.5215765,0.3030641,-0.06637833,-0.58818495,0.11611104
2025-07-21 13:17:48.857,1.0800000000000005,1080,54,-0.029565776,0.057005696,-0.10972255,0.08942355,0.01093567,0.045600623,0.0,0.0,0.0,-0.02762488,0.075703666,-0.04729538,-0.044360213,-0.06750119,0.030287499,-0.09944736,0.057756964,0.21020201,-0.009932081,-0.07484718,-0.13344453,-0.009533494,-0.00049324345,0.054368455,-0.053710174,0.0058235596,-0.048754036,-0.018608289,-0.050589874,0.018892847,0.085404396,0.008357261,0.008287966,0.010966377,0.26174048,0.1660816,0.18117721,-0.31770548,0.015226807,-0.6209633,0.35094953,0.5215765,0.3030641,-0.06637833,-0.58818495,0.11611104,-0.21108982,-0.63149756,-0.18654658,-0.6081233,0.32501313,-0.51849014,0.69731617,0.2670232,0.09937026,0.05837263,-0.03318122,-0.056645926
2025-07-21 13:17:48.876,1.1000000000000005,1100,55,-0.1341943,-0.14953972,0.1727687,0.009505096,-0.028377669,-0.041031368,0.0,0.0,0.0,-0.026285434,0.067737386,-0.059560034,-0.03653169,-0.0644939,0.05056232,-0.094800405,0.06618499,0.18918076,0.0018858276,-0.0721597,-0.13126636,-0.01871495,0.0011024956,-0.011488814,-0.06940811,0.008935002,0.047652293,-0.045521956,0.060045585,-0.03338899,-0.030348564,0.013368196,-0.015252831,-0.061306916,-0.21108982,-0.63149756,-0.18654658,-0.6081233,0.32501313,-0.51849014,0.69731617,0.2670232,0.09937026,0.05837263,-0.03318122,-0.056645926,0.6171261,0.07024902,0.15246442,-0.2559404,-0.016829256,-0.969418,0.17816123,0.47980523,0.07347084,-0.5640999,-0.594065,0.083325565
2025-07-21 13:17:48.897,1.1200000000000006,1120,56,-0.038025398,-0.058969937,-0.11662348,0.0026654247,0.03281451,-0.00576342,0.0,0.0,0.0,-0.027433349,0.08297507,-0.06559823,-0.027233306,-0.06821536,0.026506245,-0.10877299,0.058809713,0.19363205,0.014350564,-0.07286605,-0.13538751,-0.012948403,0.031182755,0.08129287,0.068946496,-0.012742651,0.036733463,-0.063804045,-0.046776343,0.038746435,-0.052541822,-0.029639056,0.0073324214,-0.06167634,0.6171261,0.07024902,0.15246442,-0.2559404,-0.016829256,-0.969418,0.17816123,0.47980523,0.07347084,-0.5640999,-0.594065,0.083325565,-0.35519603,-0.5834761,-0.033798512,-0.5723672,0.081193626,-0.56653553,0.5481025,0.36043695,-0.068393715,0.057365254,-0.20053235,-0.12783635
2025-07-21 13:17:48.917,1.1400000000000006,1140,57,-0.017867744,-0.17655097,0.1903654,0.020881215,-0.020504666,-0.035059907,0.0,0.0,0.0,-0.027442992,0.07394866,-0.06213589,-0.038757473,-0.064365804,0.03371978,-0.11680959,0.06271609,0.19291976,-0.007750925,-0.07445143,-0.13388567,-0.032553293,-0.08148366,-0.035403956,-0.036284335,-0.024246085,-0.022060743,0.0033034603,-0.031243507,-0.04935067,0.0060385666,0.05001668,0.065798126,0.02534171,-0.35519603,-0.5834761,-0.033798512,-0.5723672,0.081193626,-0.56653553,0.5481025,0.36043695,-0.068393715,0.057365254,-0.20053235,-0.12783635,0.6497483,0.3636678,0.3162353,-0.1381076,0.4186668,-0.8637076,0.2888116,0.6677113,-0.077196844,-0.49223644,-0.91618407,0.21833587
2025-07-21 13:17:48.943,1.1600000000000006,1160,58,0.049501408,0.005849159,-0.04491229,-0.0052704317,0.046412602,-0.008076166,0.0,0.0,0.0,-0.028729841,0.07237595,-0.06013233,-0.026494185,-0.063296884,0.059471,-0.11993811,0.073655054,0.20505366,-0.0003289825,-0.083648875,-0.16373332,-0.016998861,0.034053784,0.074009664,-0.050116383,-0.01994467,0.097652465,-0.07883875,-0.071354695,0.010588784,0.03128172,0.009168095,-0.07956281,-0.006263392,0.6497483,0.3636678,0.3162353,-0.1381076,0.4186668,-0.8637076,0.2888116,0.6677113,-0.077196844,-0.49223644,-0.91618407,0.21833587,0.018767184,-0.558431,-0.06550115,-0.709522,-0.047011245,-0.7357945,0.524276,0.50250715,-0.19962022,-0.08680025,-0.111863315,0.06385374
2025-07-21 13:17:48.962,1.1800000000000006,1180,59,-0.07117022,-0.07963656,0.1927566,0.05442521,0.02020451,0.004424759,0.0,0.0,0.0,-0.029119201,0.08278011,-0.07070087,-0.0279987,-0.085233964,0.048589364,-0.11456424,0.075085685,0.20086068,-0.014511388,-0.07705819,-0.1537078,-0.025847316,-0.059776228,-0.041005697,-0.0048160776,-0.07087764,-0.045245465,0.020089172,0.02825914,-0.035021793,0.053249553,0.049748637,0.09184993,0.052443743,0.018767184,-0.558431,-0.06550115,-0.709522,-0.047011245,-0.7357945,0.524276,0.50250715,-0.19962022,-0.08680025,-0.111863315,0.06385374,0.4826724,0.34590954,0.36875346,-0.059967626,0.3140945,-0.65277046,0.28280064,0.587633,0.098845534,-0.4092567,-1.3119565,0.24957293
2025-07-21 13:17:48.982,1.2000000000000006,1200,60,0.050855435,0.08885825,-0.07022117,0.023710655,-0.05107142,0.046218228,0.0,0.0,0.0,-0.030284947,0.0836409,-0.0744229,-0.02355943,-0.05573467,0.05477926,-0.1137271,0.056543823,0.21899928,-0.007061742,-0.08368068,-0.1713443,-0.0021124,0.007798944,0.08131502,0.043660298,0.08433905,-0.016309548,0.011031331,0.01451458,0.08762326,0.029303895,-0.03486497,-0.13614471,0.02286437,0.4826724,0.34590954,0.36875346,-0.059967626,0.3140945,-0.65277046,0.28280064,0.587633,0.098845534,-0.4092567,-1.3119565,0.24957293,0.32636312,-0.4134584,-0.056134645,-0.8776436,0.19578004,-0.81098914,0.39515504,0.20358367,-0.075262554,0.07045078,0.17831078,0.29902726
2025-07-21 13:17:49.001,1.2200000000000006,1220,61,0.019650396,0.06321697,0.18601699,0.059928972,-0.040583618,-0.0077921273,0.0,0.0,0.0,-0.030630091,0.086121365,-0.06698994,-0.014421894,-0.073674515,0.061451346,-0.11158398,0.065502174,0.201018,-0.011217632,-0.078698136,-0.15094794,-0.0015791776,0.030770825,-0.083831325,-0.018657045,-0.059393372,-0.058460556,0.0639802,-0.026150847,-0.016824532,-0.01649209,0.06539766,0.040459394,-0.055031013,0.32636312,-0.4134584,-0.056134645,-0.8776436,0.19578004,-0.81098914,0.39515504,0.20358367,-0.075262554,0.07045078,0.17831078,0.29902726,0.41174042,0.5706293,0.23648168,-0.097453296,0.09316406,-0.36434633,0.13348429,0.41522354,0.33580688,-0.4415332,-1.0646478,0.11581612
2025-07-21 13:17:49.019,1.2400000000000007,1240,62,0.10564608,0.02976068,-0.1152972,0.054961696,-0.04631217,0.03354446,0.0,0.0,0.0,-0.03176746,0.08534567,-0.062748566,-0.012579664,-0.073645934,0.05466455,-0.10723585,0.06388755,0.18627048,0.012303467,-0.07621211,-0.14493817,0.00021479366,0.04466461,0.047011342,0.06703894,-0.013346117,0.052665908,-0.0031884986,-0.04051499,-0.034002047,-0.045264862,-0.008203295,-0.07356757,-0.027137384,0.41174042,0.5706293,0.23648168,-0.097453296,0.09316406,-0.36434633,0.13348429,0.41522354,0.33580688,-0.4415332,-1.0646478,0.11581612,-0.09490376,-0.647425,0.06726213,-0.6423451,0.144589,-0.46067983,0.5380588,0.24980003,-0.042279072,0.106969506,0.21363875,0.11615285
2025-07-21 13:17:49.037,1.2600000000000007,1260,63,-0.07050179,-0.0066602677,0.14889324,0.0022985144,-0.025404135,0.049222976,0.0,0.0,0.0,-0.031526726,0.07459122,-0.063993864,-0.019344546,-0.07993772,0.0667312,-0.110504165,0.07087655,0.18234278,0.0057656798,-0.08001241,-0.14350015,-0.016006837,0.012347804,-0.080296874,-0.025676915,0.02279611,0.028318113,-0.045982838,-0.033397187,-0.052860368,-0.01999596,0.014061438,0.08655821,0.046590894,-0.09490376,-0.647425,0.06726213,-0.6423451,0.144589,-0.46067983,0.5380588,0.24980003,-0.042279072,0.106969506,0.21363875,0.11615285,0.46168938,0.29370522,0.30325094,-0.2549157,-0.011840958,-0.7532355,0.24407545,0.7233814,0.054719232,-0.4604897,-0.9320407,0.05790842
2025-07-21 13:17:49.057,1.2800000000000007,1280,64,0.011436602,0.030239617,-0.17313142,0.051354155,0.0292577,0.03706285,0.0,0.0,0.0,-0.032445434,0.09093491,-0.048787218,-0.014012369,-0.06476506,0.05601592,-0.11014064,0.066247955,0.18765433,0.003658663,-0.07209302,-0.13960466,-0.013283428,-0.03835969,0.01675531,-0.0022748702,0.003655585,-0.08822679,0.04226961,-0.048423115,0.0992205,0.040347215,-0.03043979,0.017192489,-0.04930915,0.46168938,0.29370522,0.30325094,-0.2549157,-0.011840958,-0.7532355,0.24407545,0.7233814,0.054719232,-0.4604897,-0.9320407,0.05790842,-0.31620067,-0.5690438,-0.10191108,-0.6916844,0.45213428,-0.3498041,0.6748396,0.2170685,0.2159467,0.25607574,-0.03019282,0.014337454
2025-07-21 13:17:49.084,1.3000000000000007,1300,65,-0.037478082,-0.03584134,0.21786545,-0.004422156,-0.022301327,-0.023362268,0.0,0.0,0.0,-0.03150568,0.065395236,-0.052631844,-0.023942426,-0.084324434,0.06593501,-0.09743695,0.06458473,0.17205577,0.0030280852,-0.061962005,-0.12171073,-0.022637201,-0.034501996,0.012716435,0.03050069,-0.07727169,-0.013055846,0.059967853,0.004242918,-0.015680732,0.03990788,0.0024216014,-0.009258277,-0.018803287,-0.31620067,-0.5690438,-0.10191108,-0.6916844,0.45213428,-0.3498041,0.6748396,0.2170685,0.2159467,0.25607574,-0.03019282,0.014337454,0.8242626,0.28887022,0.1686164,-0.00261465,-0.030238736,-0.8608065,0.13695395,0.63981557,0.0006767437,-0.748138,-0.6340894,0.109904766
2025-07-21 13:17:49.103,1.3200000000000007,1320,66,0.043659724,0.010904427,-0.15233015,0.0728193,-0.005709794,0.0019884822,0.0,0.0,0.0,-0.03243112,0.09126915,-0.04648677,-0.024228642,-0.06186464,0.056528833,-0.108144104,0.067464575,0.19231601,0.011493996,-0.08462539,-0.1443589,-0.0024487348,-0.014358817,0.07185903,-0.002108329,0.09303482,0.0062429816,0.034120664,-0.08605109,0.08228422,-0.04655505,0.016147602,-0.11597675,0.03508986,0.8242626,0.28887022,0.1686164,-0.00261465,-0.030238736,-0.8608065,0.13695395,0.63981557,0.0006767437,-0.748138,-0.6340894,0.109904766,-0.07193171,-0.56918734,0.084307835,-0.73643297,0.08972427,-0.74577236,0.5271585,0.23570889,-0.10205058,0.083498105,0.19762781,0.105302125
2025-07-21 13:17:49.123,1.3400000000000007,1340,67,-0.10282396,-0.06816553,0.1933909,0.026062824,0.0104090385,0.03553675,0.0,0.0,0.0,-0.032201733,0.0904492,-0.047531396,-0.01671864,-0.07814499,0.05763569,-0.10766454,0.05686669,0.17202134,0.009600235,-0.072288334,-0.12715606,-0.024287242,-0.089249,-0.04663746,-0.044318397,-0.036532387,-0.0365994,-0.035016883,0.06224655,-0.07770701,0.003905634,0.019910416,0.024015373,0.029012026,-0.07193171,-0.56918734,0.084307835,-0.73643297,0.08972427,-0.74577236,0.5271585,0.23570889,-0.10205058,0.083498105,0.19762781,0.105302125,0.74970746,0.2692837,0.29803148,0.046504226,0.20865841,-0.6441203,0.30588523,0.78283596,-0.14986911,-0.49378842,-0.8626887,0.26697785
2025-07-21 13:17:49.149,1.3600000000000008,1360,68,0.057935957,0.06359503,-0.09143435,-0.015614475,-0.0016761192,0.002098367,0.0,0.0,0.0,-0.03392594,0.09240123,-0.0329453,-0.015784757,-0.059592064,0.04772444,-0.107131645,0.064561844,0.19294637,-0.0019370195,-0.07731357,-0.12385283,-0.008105253,-0.02139776,0.034244783,-0.051398043,0.086059615,0.020804785,0.031700127,-0.010635392,0.12125944,-0.031764362,0.042070396,-0.06451088,0.096219935,0.74970746,0.2692837,0.29803148,0.046504226,0.20865841,-0.6441203,0.30588523,0.78283596,-0.14986911,-0.49378842,-0.8626887,0.26697785,-0.10217654,-0.44584095,-0.046660382,-0.7296987,0.11767286,-0.802177,0.6147809,0.44684348,-0.32268137,0.0817452,-0.14947638,0.16855597
2025-07-21 13:17:49.166,1.3800000000000008,1380,69,-0.04809648,-0.07592076,0.21082291,0.009677861,0.044454895,0.040814467,0.0,0.0,0.0,-0.034491308,0.07873862,-0.037279233,-0.0058511053,-0.07394598,0.05351978,-0.11399919,0.076154515,0.20114388,-0.01937826,-0.07484263,-0.11646266,-0.01880467,-0.044938456,0.019598126,-0.051217966,-0.08575827,0.02761353,0.009188701,-0.032238565,-0.00046759687,0.044680018,0.042402785,-0.016625265,0.013079522,-0.10217654,-0.44584095,-0.046660382,-0.7296987,0.11767286,-0.802177,0.6147809,0.44684348,-0.32268137,0.0817452,-0.14947638,0.16855597,0.66367817,0.1462588,0.22947009,-0.123387754,-0.033606727,-0.7562613,0.25727078,0.46809718,-0.13509661,-0.57568383,-1.0197206,0.18173161
2025-07-21 13:17:49.183,1.4000000000000008,1400,70,0.068170235,-0.011242134,-0.06873086,0.0387341,-0.010856885,0.025950816,0.0,0.0,0.0,-0.036173392,0.1011659,-0.028276479,-0.0226669,-0.05589046,0.047473386,-0.10953101,0.06295596,0.20499319,-0.013962464,-0.08360299,-0.137991,-0.0016962414,0.02082698,0.0052068885,-0.02999592,0.087657586,0.01636987,0.06791657,-0.04913606,0.06108018,0.018570285,0.038915537,-0.07999314,0.07663497,0.66367817,0.1462588,0.22947009,-0.123387754,-0.033606727,-0.7562613,0.25727078,0.46809718,-0.13509661,-0.57568383,-1.0197206,0.18173161,0.0018438157,-0.30469558,-0.023011785,-0.80736935,-0.026923124,-0.81273067,0.631846,0.365563,-0.04157216,0.09949003,-0.17045006,0.18174273
2025-07-21 13:17:49.204,1.4200000000000008,1420,71,0.019606322,0.01757751,0.13206403,0.0009165197,-0.0198986,-0.049092464,0.0,0.0,0.0,-0.03664108,0.09459442,-0.04535969,-0.013939824,-0.07182306,0.03228548,-0.10695519,0.06337609,0.18513454,-0.015382623,-0.074219294,-0.13501775,-0.001819756,-0.015612748,-0.030483417,-0.027230049,-0.02853776,-0.09503353,-0.009240532,0.06822509,-0.082559355,0.011858977,-0.013733342,0.093024015,-0.047676835,0.0018438157,-0.30469558,-0.023011785,-0.80736935,-0.026923124,-0.81273067,0.631846,0.365563,-0.04157216,0.09949003,-0.17045006,0.18174273,0.42330247,0.24111,0.1392164,0.05615375,0.49806473,-0.28374034,0.51433575,0.67972517,-0.08679355,-0.49025178,-0.8840413,0.1341621
2025-07-21 13:17:49.224,1.4400000000000008,1440,72,0.10785463,0.13265719,-0.08086886,0.013902595,-0.012793173,-0.04447265,0.0,0.0,0.0,-0.037879307,0.09849367,-0.029233482,-0.015433485,-0.057124127,0.06668925,-0.11501007,0.074820444,0.21005015,-0.00507494,-0.07882218,-0.16510488,0.008047019,-0.04657617,0.045917418,-0.058742277,0.038005177,0.059937876,0.026976872,-0.046773296,-0.0076330565,-0.014531535,0.024132205,0.0040955073,0.070441455,0.42330247,0.24111,0.1392164,0.05615375,0.49806473,-0.28374034,0.51433575,0.67972517,-0.08679355,-0.49025178,-0.8840413,0.1341621,-0.24881315,-0.7262967,-0.14364542,-0.60359675,0.13051653,-0.8001043,0.77249056,0.52977073,-0.30082655,-0.080546334,-0.022772668,0.08679557
2025-07-21 13:17:49.250,1.4600000000000009,1460,73,-0.13469376,0.04063469,0.20910951,0.021098025,-0.04805247,0.027451605,0.0,0.0,0.0,-0.03844733,0.08051694,-0.024161724,-0.02869859,-0.0682807,0.06328197,-0.11622541,0.071705855,0.20690702,-0.02006503,-0.07487943,-0.14841145,-0.0120189395,0.046976972,-0.059105985,0.070984356,0.036108043,-0.004165578,-0.07682602,-0.018326662,0.029186325,0.024239581,-0.053804282,0.06062596,-0.0005615362,-0.24881315,-0.7262967,-0.14364542,-0.60359675,0.13051653,-0.8001043,0.77249056,0.52977073,-0.30082655,-0.080546334,-0.022772668,0.08679557,0.6483964,0.30507648,0.6537645,-0.093208864,0.13339062,-1.0240077,-0.04702022,0.42587712,0.054170534,-0.42933202,-1.3331386,0.29502407
2025-07-21 13:17:49.266,1.4800000000000009,1480,74,0.05414154,0.07452663,-0.07407723,0.071567476,0.012955921,0.00021709345,0.0,0.0,0.0,-0.040404286,0.08460958,-0.02087564,-0.004475632,-0.061571192,0.058937393,-0.11186564,0.06698705,0.19738126,-0.0039411886,-0.0891436,-0.15244982,-0.007590309,-0.036363583,0.016091954,0.029552296,0.094430774,-0.034036007,0.035885643,-0.0960174,0.058829475,-0.013070441,-0.048400402,0.008904226,0.02381976,0.6483964,0.30507648,0.6537645,-0.093208864,0.13339062,-1.0240077,-0.04702022,0.42587712,0.054170534,-0.42933202,-1.3331386,0.29502407,-0.045526825,-0.2909329,-0.22185753,-0.633479,0.10947612,-0.72957426,0.57567894,0.4031888,-0.24025163,-0.078317046,-0.49380836,-0.08701068
2025-07-21 13:17:49.284,1.5000000000000009,1500,75,0.06353598,-0.06995466,0.13916498,0.031858157,-0.0068819616,0.04557383,0.0,0.0,0.0,-0.041135952,0.080462225,-0.030817194,-0.025115576,-0.07049687,0.051141996,-0.11061055,0.07483872,0.199154,-0.02498852,-0.08014498,-0.1650945,-0.0007122364,-0.027874786,-0.03670621,0.04009573,0.03245522,-0.050526354,-0.0009388277,-0.0419012,-0.045832343,0.043024257,0.055369567,0.03220906,0.053864058,-0.045526825,-0.2909329,-0.22185753,-0.633479,0.10947612,-0.72957426,0.57567894,0.4031888,-0.24025163,-0.078317046,-0.49380836,-0.08701068,0.5026708,0.19587243,0.30652165,-0.21747297,0.31671467,-0.753628,0.3820751,0.5168777,0.10565492,-0.4289904,-0.9511427,0.226177
2025-07-21 13:17:49.304,1.520000000000001,1520,76,0.048331305,-0.026847618,-0.15282853,0.0370492,0.012289498,0.043301336,0.0,0.0,0.0,-0.04180787,0.09165934,-0.02674903,-0.009040182,-0.06635248,0.07074218,-0.12357636,0.076615416,0.19744852,-0.0054400447,-0.08876346,-0.19386894,-0.0067207795,-0.028647402,0.027065713,0.051503427,-0.038792513,0.10363611,0.02623496,-0.03138309,0.010103512,0.08885346,0.01677784,-0.048294846,-0.040402696,0.5026708,0.19587243,0.30652165,-0.21747297,0.31671467,-0.753628,0.3820751,0.5168777,0.10565492,-0.4289904,-0.9511427,0.226177,-0.18941914,-1.0075027,-0.017365273,-0.61627334,-0.056484494,-0.43940532,0.5723484,0.28185388,0.052554987,0.06755806,0.4837555,0.19458729
2025-07-21 13:17:49.324,1.540000000000001,1540,77,-0.07274463,-0.09048296,0.080369905,-0.016338691,0.004551725,0.022256473,0.0,0.0,0.0,-0.040742572,0.07613848,-0.03178501,-0.022538783,-0.07109629,0.057360455,-0.113925904,0.06287527,0.17792466,-0.0056888885,-0.08518697,-0.18121679,0.0067758514,-0.06297312,-0.042238858,-0.037752423,-0.026360061,-0.07324668,-0.030223532,0.079469964,-0.10723564,0.034337487,-0.046650007,0.0018786351,-0.06438396,-0.18941914,-1.0075027,-0.017365273,-0.61627334,-0.056484494,-0.43940532,0.5723484,0.28185388,0.052554987,0.06755806,0.4837555,0.19458729,0.54620904,-0.08545917,-0.0722706,0.05187084,0.0015175454,-0.6801254,0.46023026,0.57944643,0.06174808,-0.66704065,0.040389627,0.14517504
2025-07-21 13:17:49.349,1.560000000000001,1560,78,0.022810845,0.14482787,-0.024711234,-0.0035814506,0.0051410547,-0.03925535,0.0,0.0,0.0,-0.040550333,0.09009519,-0.034578163,-0.014789039,-0.064479806,0.052789185,-0.10464032,0.07487735,0.19581623,-0.003464783,-0.08722816,-0.15719768,-0.0027813914,-0.0036126918,-0.06801644,0.02999589,0.05064291,0.043902602,0.024580743,-0.0487329,-0.04192226,0.048855588,0.043381922,0.06661254,-0.00057864137,0.54620904,-0.08545917,-0.0722706,0.05187084,0.0015175454,-0.6801254,0.46023026,0.57944643,0.06174808,-0.66704065,0.040389627,0.14517504,-0.13402018,-0.1365527,0.13874927,-0.28486887,-0.06281294,-0.7219463,0.5158527,0.60094845,0.12539107,-0.10640979,-0.4156398,0.0661279
2025-07-21 13:17:49.366,1.580000000000001,1580,79,0.00697149,0.027950373,0.04858009,-0.0019981703,-0.039658334,-0.0027353475,0.0,0.0,0.0,-0.04107244,0.089182064,-0.03759908,-0.025438547,-0.049473323,0.046058062,-0.10671833,0.06544066,0.20773223,-0.008642643,-0.09075672,-0.14133862,-0.0014775607,0.060846847,0.04851693,0.008951998,0.016118968,-0.0800956,0.025508484,-0.03106901,0.03558376,0.0059478595,0.0006125104,0.030908808,0.055516418,-0.13402018,-0.1365527,0.13874927,-0.28486887,-0.06281294,-0.7219463,0.5158527,0.60094845,0.12539107,-0.10640979,-0.4156398,0.0661279,0.29729074,-0.051797982,0.08413778,-0.26757324,0.39256945,-0.8164821,0.41166973,0.46793982,-0.22019377,-0.30162334,-0.6764946,0.029422287
2025-07-21 13:17:49.384,1.600000000000001,1600,80,0.013681456,-0.0027353573,-0.12467129,-0.018868716,0.03632288,-0.04399392,0.0,0.0,0.0,-0.04117054,0.09715785,-0.040155023,-0.02338441,-0.06343947,0.056286495,-0.11031084,0.072820604,0.21284135,0.0029753477,-0.09418802,-0.16061671,0.005172619,-0.042063463,-0.00406204,-0.06565962,-0.0034906766,-0.020883488,-0.033102628,0.039602906,-0.019836694,-0.038030602,0.03493849,-0.059468128,-0.040736068,0.29729074,-0.051797982,0.08413778,-0.26757324,0.39256945,-0.8164821,0.41166973,0.46793982,-0.22019377,-0.30162334,-0.6764946,0.029422287,-0.213734,-0.46934187,-0.04953148,-0.5433875,0.4540209,-0.6176862,0.92847204,0.6186532,-0.009213932,0.2583382,0.42131093,0.15348905
2025-07-21 13:17:49.404,1.620000000000001,1620,81,-0.05747911,0.035619292,0.17621689,0.010386124,-0.041021965,-0.045429386,0.0,0.0,0.0,-0.040014386,0.07598316,-0.043863356,-0.021321584,-0.064412974,0.081329904,-0.11719077,0.09053739,0.20839173,-0.011852156,-0.080730185,-0.15972632,-0.009183346,-0.0042935205,0.0127672525,-0.051370848,0.031569697,0.0458289,0.06436501,0.07932607,0.066858985,-0.009695005,0.08511944,0.0022830083,-0.059583135,-0.213734,-0.46934187,-0.04953148,-0.5433875,0.4540209,-0.6176862,0.92847204,0.6186532,-0.009213932,0.2583382,0.42131093,0.15348905,0.74988824,-0.06580734,-0.11358087,-0.07662812,-0.3448918,-0.9855022,0.11171595,0.3688785,-0.29021236,-0.8273244,-0.6649779,-0.123289645
2025-07-21 13:17:49.424,1.640000000000001,1640,82,0.035779674,0.055209756,-0.076928824,-0.0010255263,0.035941493,0.029352006,0.0,0.0,0.0,-0.040913828,0.08735557,-0.060335536,-0.029301003,-0.062374298,0.062076576,-0.10868031,0.0748721,0.19804664,-0.018983804,-0.08913103,-0.17739302,-0.0123243155,0.054787345,-0.068231836,-0.0684499,-0.044001963,-0.076130964,0.024517795,-0.0135687925,-0.07801116,0.0023835097,-0.019900171,-0.067782946,0.0036638738,0.74988824,-0.06580734,-0.11358087,-0.07662812,-0.3448918,-0.9855022,0.11171595,0.3688785,-0.29021236,-0.8273244,-0.6649779,-0.123289645,-0.19824582,-0.054320987,-0.0055016316,-0.42862034,0.3573387,-0.6413587,0.64842474,0.4970263,0.18738937,0.32834044,0.06163606,0.4452867
2025-07-21 13:17:49.449,1.660000000000001,1660,83,-0.040309444,0.12814273,0.15501204,0.06273355,-0.013489917,0.035695337,0.0,0.0,0.0,-0.04124969,0.090071075,-0.044905677,-0.032047763,-0.05147854,0.047691613,-0.11582495,0.08709208,0.20946167,-0.0076455306,-0.10609356,-0.17083421,-0.018805932,-0.014258821,-0.029582601,0.020511132,-0.023923501,0.08653694,-0.062356908,0.027459309,-0.024924459,-0.015154861,0.06377245,0.09865255,-0.037046045,-0.19824582,-0.054320987,-0.0055016316,-0.42862034,0.3573387,-0.6413587,0.64842474,0.4970263,0.18738937,0.32834044,0.06163606,0.4452867,0.43044072,0.10499981,-0.037543874,-0.22645837,-0.1290273,-0.7914762,0.08847869,0.66366947,-0.112288184,-0.5335908,-0.8221063,-0.24838549
2025-07-21 13:17:49.466,1.680000000000001,1680,84,0.023655724,-0.0007180665,-0.12884381,0.060886487,0.035921194,0.006719527,0.0,0.0,0.0,-0.04277081,0.08909639,-0.04292048,-0.027974287,-0.042591356,0.04107414,-0.12365934,0.066410184,0.21270292,-0.0028742892,-0.102963604,-0.17531781,-0.020609932,-0.0061784396,-0.013748715,-0.039303407,-0.05473799,0.02344092,0.043055285,-0.03794469,0.033779155,-0.0006206409,-0.021227712,0.004968889,0.01296574,0.43044072,0.10499981,-0.037543874,-0.22645837,-0.1290273,-0.7914762,0.08847869,0.66366947,-0.112288184,-0.5335908,-0.8221063,-0.24838549,-0.23283139,-0.32147563,0.035916768,-0.6185174,0.19068104,-0.72663,0.69879025,0.29426143,0.05030655,0.24956435,0.07646003,-0.019062456
2025-07-21 13:17:49.486,1.700000000000001,1700,85,-0.06338332,-0.044368286,0.20990855,0.062978424,-0.0300227,0.03544503,0.0,0.0,0.0,-0.043015786,0.08199731,-0.05100453,-0.02416356,-0.057452716,0.04735207,-0.11723832,0.07848344,0.21300423,-0.0018890067,-0.08613834,-0.16414644,-0.032768697,-0.1031595,-0.07196823,-0.014719776,-0.026517821,0.025343174,-0.036527634,0.025341187,-0.051160976,-0.039871003,0.0555945,0.09902817,-0.0049912636,-0.23283139,-0.32147563,0.035916768,-0.6185174,0.19068104,-0.72663,0.69879025,0.29426143,0.05030655,0.24956435,0.07646003,-0.019062456,0.73834145,0.32730356,0.16669299,0.00013826508,0.36723027,-0.7990873,0.13106394,0.7147069,-0.107941024,-0.41201317,-1.0770653,-0.02233791
2025-07-21 13:17:49.506,1.720000000000001,1720,86,0.064967684,0.03710247,-0.01630324,-0.016156087,-0.010829037,-0.048067313,0.0,0.0,0.0,-0.045489,0.08170641,-0.038917754,-0.023628686,-0.04193922,0.068186775,-0.12601687,0.06719432,0.22576384,-0.007012965,-0.09613699,-0.18290958,-0.011374213,-0.03175192,0.07826782,0.034224395,0.05717067,0.008468586,-0.022932546,0.048416656,-0.015599244,-0.05099434,-0.0753676,-0.11396391,0.07649755,0.73834145,0.32730356,0.16669299,0.00013826508,0.36723027,-0.7990873,0.13106394,0.7147069,-0.107941024,-0.41201317,-1.0770653,-0.02233791,0.21680593,-0.2469084,-0.07957527,-0.5121275,0.039751064,-1.0357969,0.450808,0.90224767,-0.4329323,-0.011391602,-0.039539665,0.28907198
2025-07-21 13:17:49.532,1.740000000000001,1740,87,0.05604261,0.04156156,0.119529605,0.0133614885,-0.033306357,0.04547026,0.0,0.0,0.0,-0.046649054,0.0805028,-0.031548906,-0.03081574,-0.050276674,0.06071094,-0.12084001,0.072947666,0.24093623,-0.01246373,-0.09349833,-0.16762789,-0.024532346,0.0673231,0.001828079,0.0761153,0.035120428,-0.05291752,-0.04343832,-0.018812358,0.09631554,-0.031224294,-0.031266622,0.09705845,0.0037182802,0.21680593,-0.2469084,-0.07957527,-0.5121275,0.039751064,-1.0357969,0.450808,0.90224767,-0.4329323,-0.011391602,-0.039539665,0.28907198,0.25795534,0.038229767,0.15662931,-0.3190113,0.23042502,-0.69621617,0.07527707,0.46918643,-0.1678935,-0.35507822,-1.4408566,0.10469359
2025-07-21 13:17:49.549,1.7600000000000011,1760,88,-0.01087055,0.008133371,-0.061313517,0.026375344,0.051985648,-0.031751234,0.0,0.0,0.0,-0.04814729,0.08433016,-0.03581921,-0.02776985,-0.056094352,0.070865445,-0.115370266,0.058353156,0.23829934,-0.018100405,-0.08586695,-0.17846054,-0.0064623975,0.07371595,0.021847915,-0.053009763,-0.027604286,-0.046710026,-0.011650604,-0.028894585,0.0067514484,0.05757597,-0.046455685,0.0019230577,-0.03997805,0.25795534,0.038229767,0.15662931,-0.3190113,0.23042502,-0.69621617,0.07527707,0.46918643,-0.1678935,-0.35507822,-1.4408566,0.10469359,-0.04096272,-0.22155255,-0.17349178,-0.7253021,0.2588006,-0.7096239,0.71901107,0.25160316,-0.0050161555,-0.03029365,-0.30086088,-0.11653423
2025-07-21 13:17:49.566,1.7800000000000011,1780,89,-0.050917074,-0.077113606,0.093364544,0.077927575,-0.01582317,0.04561005,0.0,0.0,0.0,-0.049217876,0.08189641,-0.04371812,-0.033462092,-0.06353904,0.062656984,-0.12824781,0.06475268,0.21135768,-0.011917403,-0.08417046,-0.18523729,-0.029724328,0.03559606,-0.0005207079,0.04064341,-0.03998138,0.014876606,-0.011856541,-0.028154878,-0.023227725,-0.030931702,-0.033020835,0.03888094,-0.002130416,-0.04096272,-0.22155255,-0.17349178,-0.7253021,0.2588006,-0.7096239,0.71901107,0.25160316,-0.0050161555,-0.03029365,-0.30086088,-0.11653423,0.511941,0.0029133894,0.13173777,-0.2906684,0.1619011,-0.8576843,0.34392282,0.2603092,0.07971571,-0.37135357,-0.76724,-0.10663107
2025-07-21 13:17:49.586,1.8000000000000012,1800,90,-0.021092797,-0.05656202,-0.07023891,0.0045665484,0.013737742,0.015007204,0.0,0.0,0.0,-0.050583143,0.093535595,-0.031936668,-0.03480786,-0.054896817,0.07467981,-0.11910259,0.07647174,0.19510075,-0.021435052,-0.07967197,-0.19896883,-0.012362425,-0.008167053,0.011705106,-0.009353437,-0.020744868,0.028642042,0.053946912,-0.048517577,0.013956583,0.030348802,-0.004757844,-0.08697148,-0.050893992,0.511941,0.0029133894,0.13173777,-0.2906684,0.1619011,-0.8576843,0.34392282,0.2603092,0.07971571,-0.37135357,-0.76724,-0.10663107,0.13686922,-0.35967422,-0.106091365,-0.55691475,-0.016922425,-0.6858932,0.54982156,0.33943847,0.1635634,0.018945798,0.3580162,0.004680518
2025-07-21 13:17:49.606,1.8200000000000012,1820,91,-0.037326112,0.009763979,0.10290315,-0.01878194,0.032776184,-0.014052874,0.0,0.0,0.0,-0.050213065,0.090437576,-0.040529504,-0.028022384,-0.060869332,0.050413266,-0.11111933,0.07555885,0.1972384,-0.014821026,-0.074252635,-0.18470109,-0.035725724,-0.0019774346,-0.040063284,0.014437588,-0.022156283,0.026410446,0.0036122436,0.07826663,-0.09358793,0.036946785,0.018522555,0.109673865,-0.053043243,0.13686922,-0.35967422,-0.106091365,-0.55691475,-0.016922425,-0.6858932,0.54982156,0.33943847,0.1635634,0.018945798,0.3580162,0.004680518,0.35192662,0.017483953,-0.05061466,0.024334226,-0.048788946,-0.58697385,0.4357714,0.83256626,0.05659216,-0.44377744,-0.7179236,0.0054190196
2025-07-21 13:17:49.632,1.8400000000000012,1840,92,0.027677353,-0.03425022,-0.13997406,0.07215305,-0.029170316,-0.015736416,0.0,0.0,0.0,-0.05099112,0.08649993,-0.045497976,-0.04239791,-0.061001066,0.05484431,-0.11249767,0.06707261,0.21298264,-0.013265728,-0.086285755,-0.18326779,-0.018534275,0.012625729,0.08241573,0.035320878,0.046183065,-0.09582635,0.060788445,0.04608494,0.07984753,0.065455064,-0.02359906,-0.030596366,0.040233247,0.35192662,0.017483953,-0.05061466,0.024334226,-0.048788946,-0.58697385,0.4357714,0.83256626,0.05659216,-0.44377744,-0.7179236,0.0054190196,0.021181604,-0.50101733,-0.22720353,-0.6812661,0.33428982,-0.6718231,0.6071102,0.18717512,0.1584278,-0.012919687,0.1788666,0.05234361
2025-07-21 13:17:49.650,1.8600000000000012,1860,93,-0.03819504,0.07236864,0.15031429,0.047216382,0.008073975,0.034122996,0.0,0.0,0.0,-0.050181378,0.08113134,-0.050388843,-0.04700263,-0.07574101,0.06485806,-0.123853326,0.08065477,0.19555491,-0.005612553,-0.08577656,-0.17606473,-0.02016538,-0.038815863,-0.10254678,-0.056833956,-0.053501364,0.044632535,0.028079389,0.06951697,-0.028586019,0.050139893,-0.03722285,0.027886484,-0.05880742,0.021181604,-0.50101733,-0.22720353,-0.6812661,0.33428982,-0.6718231,0.6071102,0.18717512,0.1584278,-0.012919687,0.1788666,0.05234361,0.59391516,0.29075506,0.33287063,-0.07015445,-0.16985902,-0.8448897,0.21196732,0.49534664,0.37814456,-0.32789236,-0.6545272,0.055923466
2025-07-21 13:17:49.666,1.8800000000000012,1880,94,0.08860752,-0.0011869328,-0.12492415,0.07242635,-0.04255164,-0.04438634,0.0,0.0,0.0,-0.051320184,0.08651812,-0.06559999,-0.033269536,-0.058940217,0.036356628,-0.12726542,0.07740345,0.19148108,0.0071385484,-0.07726083,-0.16501024,-0.025409583,-0.05143608,0.022277093,-0.019115338,-0.04007736,-0.11935538,-0.05965059,-0.013174156,0.017397879,0.049544487,0.041213308,-0.03336458,-0.015154025,0.59391516,0.29075506,0.33287063,-0.07015445,-0.16985902,-0.8448897,0.21196732,0.49534664,0.37814456,-0.32789236,-0.6545272,0.055923466,-0.0035847519,-0.22130068,-0.18874031,-0.4393025,0.4714339,-0.5398467,0.7469731,0.44734624,0.16136917,0.14527136,0.2920121,0.04920656
2025-07-21 13:17:49.686,1.9000000000000012,1900,95,0.024474824,-0.0020884394,0.16282368,0.062049583,0.035832547,-0.034347933,0.0,0.0,0.0,-0.05108267,0.08578722,-0.055315096,-0.039045427,-0.06088022,0.055689532,-0.10930947,0.080102414,0.1858625,0.012029798,-0.07180686,-0.15755115,-0.020047095,-0.093502015,-0.05818507,-0.016293703,0.03849013,0.0050787907,0.005942252,0.0227694,0.04972601,-0.037263148,-0.036164105,0.14627337,-0.070232525,-0.0035847519,-0.22130068,-0.18874031,-0.4393025,0.4714339,-0.5398467,0.7469731,0.44734624,0.16136917,0.14527136,0.2920121,0.04920656,0.49641502,0.25439966,0.19440602,-0.18108404,0.18719487,-0.8383771,0.25459567,0.8682505,-0.16332105,-0.37950993,-1.0714656,-0.19353664
2025-07-21 13:17:49.706,1.9200000000000013,1920,96,0.00070095086,0.04759337,-0.09390399,0.014709901,0.021356994,-0.029815897,0.0,0.0,0.0,-0.05239023,0.08795714,-0.04987426,-0.023930889,-0.055343788,0.05715354,-0.12485147,0.082661174,0.21319509,-0.006112707,-0.07564554,-0.15307435,-0.025553355,-0.0153018925,-0.00370584,0.069165386,0.07947985,0.0019635,0.017447257,-0.0074778106,0.08018454,0.04653257,0.0048960717,-0.060677707,-0.022584936,0.49641502,0.25439966,0.19440602,-0.18108404,0.18719487,-0.8383771,0.25459567,0.8682505,-0.16332105,-0.37950993,-1.0714656,-0.19353664,0.11643507,-0.2073955,-0.103234634,-0.69229317,0.12759753,-0.7775924,0.56556624,0.40757337,0.05633857,0.09369769,0.094851136,0.013112638
2025-07-21 13:17:49.732,1.9400000000000013,1940,97,-0.003470429,0.036243256,0.09139225,0.06379492,0.006538975,-0.02406198,0.0,0.0,0.0,-0.052164312,0.0889259,-0.044044975,-0.031841204,-0.06794736,0.07127525,-0.107491955,0.08031884,0.21453673,-0.00094231404,-0.066259965,-0.1386716,-0.04128755,-0.007618421,-0.014388681,-0.070533164,-0.082442746,-0.068999864,0.0671811,-0.0011910388,-0.028534174,0.046120875,0.036969136,0.05330196,0.028922677,0.11643507,-0.2073955,-0.103234634,-0.69229317,0.12759753,-0.7775924,0.56556624,0.40757337,0.05633857,0.09369769,0.094851136,0.013112638,0.4035853,0.043868545,0.048555408,-0.09048024,0.15139322,-0.5536217,0.4892922,0.5535645,-0.047315925,-0.42292655,-0.76404315,-0.03372028
2025-07-21 13:17:49.749,1.9600000000000013,1960,98,-0.0009294131,-0.050783314,-0.112338014,0.037247133,0.024684928,-0.0055894894,0.0,0.0,0.0,-0.052659173,0.08687426,-0.029154912,-0.029296208,-0.064351626,0.061216373,-0.114064634,0.07815112,0.21233638,0.005466933,-0.07414085,-0.13361095,-0.029324515,-0.046825636,0.08149678,-0.02886286,0.016923435,-0.048927795,-0.059904814,-0.029773837,-0.02222485,0.030959224,-0.08070043,0.005197693,0.05965244,0.4035853,0.043868545,0.048555408,-0.09048024,0.15139322,-0.5536217,0.4892922,0.5535645,-0.047315925,-0.42292655,-0.76404315,-0.03372028,-0.108261,-0.58329284,-0.1854459,-0.64230716,0.21608756,-0.75114995,0.8308291,0.5426781,-0.20773646,-0.054858908,-0.19046503,0.050596897
2025-07-21 13:17:49.767,1.9800000000000013,1980,99,-0.023439359,-0.09525064,0.120209776,0.06496224,-0.011970907,0.04167936,0.0,0.0,0.0,-0.05236519,0.07773211,-0.042880137,-0.035998825,-0.06925114,0.074838236,-0.11176484,0.09231607,0.22871533,0.0031578098,-0.066656284,-0.13910814,-0.03676935,-0.066974215,-0.057703342,0.025105478,-0.052045792,0.08022965,0.029866317,0.024820339,-0.051263027,-0.024251632,-0.013387357,-0.020662531,-0.012442347,-0.108261,-0.58329284,-0.1854459,-0.64230716,0.21608756,-0.75114995,0.8308291,0.5426781,-0.20773646,-0.054858908,-0.19046503,0.050596897,0.56834435,0.01057506,0.20378955,-0.23965937,-0.24597298,-0.93608505,0.3419577,0.3892204,0.13383758,-0.41857138,-0.6263574,0.10431832
2025-07-21 13:17:49.787,2.0000000000000013,2000,100,0.0495182,0.05113024,-0.12450141,-0.0047277333,-1.4459583e-05,-0.016477495,0.0,0.0,0.0,-0.053353682,0.094479166,-0.05520441,-0.040656596,-0.072661355,0.048478786,-0.11940144,0.089877635,0.20414878,0.0003287479,-0.084447436,-0.14599757,-0.015793493,-0.04645255,0.01304293,0.03456232,0.050737806,-0.008106013,-0.052199494,0.05792339,-0.060316637,-0.008303052,-0.017208716,-0.014311238,-0.057242643,0.56834435,0.01057506,0.20378955,-0.23965937,-0.24597298,-0.93608505,0.3419577,0.3892204,0.13383758,-0.41857138,-0.6263574,0.10431832,-0.24620914,-0.51236504,-0.17036253,-0.39650163,0.15490907,-0.59069526,0.8039098,0.5716082,0.09861984,0.13798743,0.13570818,-0.045210715
2025-07-21 13:17:49.807,2.0200000000000014,2020,101,-0.037466425,0.048838485,0.15676898,0.027055027,-0.025133347,0.02426753,0.0,0.0,0.0,-0.05283948,0.07807248,-0.07061422,-0.04178688,-0.06739746,0.058419675,-0.11274496,0.0992339,0.20891352,-0.0008993041,-0.07142866,-0.12988773,-0.0338261,-0.03408272,-0.0939435,0.057127308,-0.05005268,-0.059992407,-0.055055633,0.03287796,0.03729518,-0.049483344,-0.024935491,0.05820663,0.052702866,-0.24620914,-0.51236504,-0.17036253,-0.39650163,0.15490907,-0.59069526,0.8039098,0.5716082,0.09861984,0.13798743,0.13570818,-0.045210715,0.6678853,0.46391538,0.69986993,-0.13136065,0.42357183,-0.910824,0.086417235,0.6890016,-0.02074083,-0.3258564,-0.87019646,0.26214358
2025-07-21 13:17:49.832,2.0400000000000014,2040,102,0.0030895132,0.012050631,-0.16165888,0.015092881,-0.01738136,0.003750983,0.0,0.0,0.0,-0.053533264,0.096112296,-0.07259553,-0.025252333,-0.063706234,0.07069586,-0.11905663,0.0857786,0.23687541,0.0046420936,-0.06777622,-0.13937296,-0.017277207,0.08532169,-0.022868512,-0.019891296,0.040579885,0.084561266,-0.011464277,-0.064153776,0.06579817,-0.03572059,0.011458584,-0.0035766917,0.10120979,0.6678853,0.46391538,0.69986993,-0.13136065,0.42357183,-0.910824,0.086417235,0.6890016,-0.02074083,-0.3258564,-0.87019646,0.26214358,-0.31901017,-0.41523945,0.18149106,-0.8716706,0.11314966,-0.67013526,0.6202342,0.22666359,-0.21400884,0.27156878,-0.32354274,0.026836697
2025-07-21 13:17:49.850,2.0600000000000014,2060,103,0.03832863,-0.09988925,0.110809,-0.022603495,0.017597454,-0.040066645,0.0,0.0,0.0,-0.053042006,0.08133364,-0.069688976,-0.020488393,-0.07757508,0.06820504,-0.11843791,0.08527933,0.21617374,-0.007387608,-0.06382834,-0.13065791,-0.018477026,-0.06711947,-0.032353517,-0.061840616,-0.018439291,-0.08427858,0.049921285,-0.035520844,-0.084696226,-0.060799602,-0.04521121,0.038691744,-0.009347926,-0.31901017,-0.41523945,0.18149106,-0.8716706,0.11314966,-0.67013526,0.6202342,0.22666359,-0.21400884,0.27156878,-0.32354274,0.026836697,0.6504361,0.3780686,-0.004493024,-0.058956053,0.545134,-0.40875918,0.54626,0.4574574,-0.032194458,-0.5856042,-0.56741923,-0.04454091
2025-07-21 13:17:49.868,2.0800000000000014,2080,104,-0.023310818,0.03357701,-0.08422832,0.009551699,0.031326175,-0.042762876,0.0,0.0,0.0,-0.05330537,0.08763061,-0.05608281,-0.020128643,-0.05534895,0.089085154,-0.11199544,0.07364478,0.21229291,-0.0016468419,-0.0772787,-0.14358571,-0.028781712,0.069532156,0.051894926,0.01888013,-0.011761908,0.0109157665,0.08837389,0.06565597,-0.02271459,-0.015569998,-0.06217689,-0.07647452,0.07252225,0.6504361,0.3780686,-0.004493024,-0.058956053,0.545134,-0.40875918,0.54626,0.4574574,-0.032194458,-0.5856042,-0.56741923,-0.04454091,0.0044175144,-0.42330047,-0.04373079,-0.5951781,0.11753948,-0.66229784,0.617025,0.52165526,-0.11218501,0.027837262,-0.013984052,0.33345884
2025-07-21 13:17:49.887,2.1000000000000014,2100,105,-0.06719764,-0.024628825,0.13497669,0.05928747,-0.008636729,-0.0095200995,0.0,0.0,0.0,-0.05311402,0.09774387,-0.057341978,-0.0146540245,-0.059618767,0.093445,-0.113318674,0.0779608,0.21174745,-0.005742961,-0.08419916,-0.14056525,-0.027443888,-0.011270962,-0.08102597,0.02299724,0.010306123,-0.068927534,0.011928202,-0.03367323,-0.015698044,0.008654159,-0.05898332,-0.010495002,-0.01040724,0.0044175144,-0.42330047,-0.04373079,-0.5951781,0.11753948,-0.66229784,0.617025,0.52165526,-0.11218501,0.027837262,-0.013984052,0.33345884,0.6745615,0.46032295,0.3279407,-0.21772851,0.1093232,-0.8115686,0.22098479,0.45370215,0.16554981,-0.46992314,-0.80611646,0.2621165
2025-07-21 13:17:49.907,2.1200000000000014,2120,106,0.02881044,-0.032262858,-0.11586482,-0.020958286,0.04817797,-0.0009956427,0.0,0.0,0.0,-0.053636525,0.097589806,-0.057174325,-0.015176901,-0.06459592,0.09036212,-0.105848655,0.07207578,0.21327585,-0.008961856,-0.08596209,-0.14990251,-0.01629558,-0.031672668,0.07977986,0.042023297,0.01778164,0.032023076,0.05175866,-0.026839392,0.0050564804,0.07047229,0.04291439,-0.092546575,0.08359597,0.6745615,0.46032295,0.3279407,-0.21772851,0.1093232,-0.8115686,0.22098479,0.45370215,0.16554981,-0.46992314,-0.80611646,0.2621165,-0.021205688,-0.76075864,-0.13893612,-0.6722775,-0.16848996,-0.60909563,0.57215106,0.4374614,-0.19463569,-0.05332116,0.12318948,0.13266599
2025-07-21 13:17:49.932,2.1400000000000015,2140,107,-0.026793784,0.033562236,0.10483585,0.034175932,-0.013404249,-0.04032144,0.0,0.0,0.0,-0.053308435,0.08853126,-0.059587132,-0.01196963,-0.06986221,0.059830066,-0.11548971,0.07892023,0.20923518,0.0012740444,-0.074668154,-0.13401918,-0.0030805785,-0.062257975,-0.12959076,0.016148241,-0.006909515,-0.13583519,-0.04129943,0.051487956,0.020937148,-0.053642303,0.026554061,0.113309674,-0.061333902,-0.021205688,-0.76075864,-0.13893612,-0.6722775,-0.16848996,-0.60909563,0.57215106,0.4374614,-0.19463569,-0.05332116,0.12318948,0.13266599,0.44157046,0.4272488,0.5642652,-0.070587605,0.5551879,-0.5724253,0.4200287,0.39135024,0.0026844218,-0.25272727,-0.8248366,0.14341632
2025-07-21 13:17:49.949,2.1600000000000015,2160,108,0.001308156,0.091814585,-0.08577388,0.060059007,0.05094836,-0.0430861,0.0,0.0,0.0,-0.053676248,0.09833256,-0.0625267,-0.009337093,-0.050419297,0.07700572,-0.107231535,0.0767429,0.18728921,-0.011253059,-0.08330619,-0.13577414,-0.0011877089,0.021899091,0.09170091,0.01664464,0.008152461,0.025878862,-0.063177116,0.0145890545,-0.053822227,-0.034793288,0.05960173,0.036243375,0.07912137,0.44157046,0.4272488,0.5642652,-0.070587605,0.5551879,-0.5724253,0.4200287,0.39135024,0.0026844218,-0.25272727,-0.8248366,0.14341632,-0.26902828,-0.6530987,-0.27692237,-0.6496371,0.0602003,-0.58471125,0.7377634,0.49665308,-0.3423746,-0.0921741,-0.5461688,-0.13050997
2025-07-21 13:17:49.967,2.1800000000000015,2180,109,0.025669612,-0.09756737,0.039342307,0.013081997,0.011591439,0.018380564,0.0,0.0,0.0,-0.053482227,0.0774504,-0.06220814,-0.027612126,-0.07245119,0.077816255,-0.10344708,0.08959081,0.20293741,-0.0082542375,-0.07024775,-0.15014721,-0.007788818,0.04164857,-0.07352647,0.05194546,-0.035747427,-0.044340637,0.0046531213,-0.019977653,0.0076662493,0.0059999754,-0.010199918,-0.0897789,0.014579265,-0.26902828,-0.6530987,-0.27692237,-0.6496371,0.0602003,-0.58471125,0.7377634,0.49665308,-0.3423746,-0.0921741,-0.5461688,-0.13050997,0.4362532,0.14247668,0.22487251,-0.44913533,0.19349349,-0.80009335,0.40907985,0.26269072,0.33577317,-0.11816287,-0.061858207,0.23988748
2025-07-21 13:17:49.987,2.2000000000000015,2200,110,0.02265747,0.110596284,0.021556519,0.07602298,-0.023818059,-0.040449966,0.0,0.0,0.0,-0.052722372,0.0853115,-0.07513306,-0.012726773,-0.06224858,0.084164076,-0.10647068,0.07582683,0.18020797,-0.0015771721,-0.088318005,-0.14004003,-0.013503008,0.017609423,0.09592585,-0.029929677,0.010913521,0.04090907,0.045806516,0.001846529,0.019939324,0.08944378,-0.029429523,0.095131986,0.031879164,0.4362532,0.14247668,0.22487251,-0.44913533,0.19349349,-0.80009335,0.40907985,0.26269072,0.33577317,-0.11816287,-0.061858207,0.23988748,-0.044950895,-0.3709101,-0.16889308,-0.3078753,-0.33477974,-0.66829056,0.39865723,0.45746225,-0.2611778,-0.38031012,-0.9858986,-0.27787519
2025-07-21 13:17:50.007,2.2200000000000015,2220,111,-0.06810165,-0.21062656,-0.06955313,0.048580963,0.0048761535,0.043499883,0.0,0.0,0.0,-0.053320322,0.08118056,-0.0686403,-0.027022606,-0.06636231,0.046383094,-0.10753323,0.07395537,0.18585381,-0.007106324,-0.072254,-0.15599519,-0.011708437,-0.03826294,-0.047161724,-0.061424114,-0.02402375,-0.095171705,-0.02341549,-0.06055771,0.04504414,0.024714828,-0.034327343,-0.08647813,-0.0015988328,-0.044950895,-0.3709101,-0.16889308,-0.3078753,-0.33477974,-0.66829056,0.39865723,0.45746225,-0.2611778,-0.38031012,-0.9858986,-0.27787519,0.16736749,0.06813216,0.1763093,-0.68187207,0.3887601,-0.8396193,0.41906437,0.1421946,0.2708117,0.17239337,0.35810938,0.24274336
2025-07-21 13:17:50.033,2.2400000000000015,2240,112,-0.06315366,0.013255909,0.064557046,0.014915042,-0.04079692,-0.016932284,0.0,0.0,0.0,-0.053158693,0.06519491,-0.07381356,-0.016764916,-0.067844614,0.05310348,-0.10726155,0.07858605,0.16714561,-0.0036716526,-0.077025004,-0.13910662,-0.009752819,-0.07209928,0.0036439735,-0.066903256,-0.00016204255,-0.010729036,0.025552856,-0.031670213,-0.006608257,0.0055876644,0.067098,0.043383572,-0.046868734,0.16736749,0.06813216,0.1763093,-0.68187207,0.3887601,-0.8396193,0.41906437,0.1421946,0.2708117,0.17239337,0.35810938,0.24274336,0.32773137,0.056064207,-0.14739832,-0.22676918,0.12988603,-0.53999054,0.3251955,0.52548903,-0.24255756,-0.4003759,-0.42604038,-0.29894096
2025-07-21 13:17:50.052,2.2600000000000016,2260,113,-0.0353938,-0.0073389,-0.064150915,0.048159726,-0.015089077,-0.0213372,0.0,0.0,0.0,-0.053879,0.07372318,-0.06491852,-0.026884751,-0.06930106,0.05882677,-0.10764603,0.084784396,0.1830998,-0.010280979,-0.07249946,-0.14756091,-0.016794344,0.07548851,0.03298968,-0.010025928,-0.044221573,-0.020310057,-0.044212047,-0.040204193,-0.045885526,-0.0009756276,-0.079547,-0.02256629,-0.052968763,0.32773137,0.056064207,-0.14739832,-0.22676918,0.12988603,-0.53999054,0.3251955,0.52548903,-0.24255756,-0.4003759,-0.42604038,-0.29894096,-0.023401225,-0.2474418,0.015201788,-0.50070363,0.35586235,-0.69490975,0.6845578,0.48076952,0.023810439,0.013131008,-0.15022019,0.018474195
2025-07-21 13:17:50.071,2.2800000000000016,2280,114,-0.023533273,-0.009668165,0.10851115,0.037798647,0.016478896,-0.016044708,0.0,0.0,0.0,-0.05309584,0.06495731,-0.059049122,-0.02491954,-0.07310819,0.062400993,-0.10288124,0.08167101,0.18174358,0.0028535672,-0.067148425,-0.14499775,-0.036350224,0.0586685,-0.051637538,-0.052619036,-0.0082288245,0.02586207,-0.05022591,0.030546006,0.051068176,-0.02784064,-0.040400453,0.017545417,-0.084658794,-0.023401225,-0.2474418,0.015201788,-0.50070363,0.35586235,-0.69490975,0.6845578,0.48076952,0.023810439,0.013131008,-0.15022019,0.018474195,0.5997236,0.32802403,0.16465862,-0.34636402,0.08317363,-0.8682634,0.26987037,0.479399,0.08752019,-0.34486836,-0.6708457,-0.0056021176
2025-07-21 13:17:50.091,2.3000000000000016,2300,115,0.050814077,0.037477963,-0.13843872,0.034655236,0.023388008,0.02397021,0.0,0.0,0.0,-0.05400642,0.07089253,-0.04391608,-0.022630323,-0.058383085,0.07223837,-0.11595365,0.06678505,0.191665,-0.0037939402,-0.06592072,-0.14284484,-0.032350678,0.090319894,0.11940788,0.06677027,-0.019470956,-0.054639544,0.032143865,0.026985627,0.028543863,0.08329168,0.047040593,-0.011529302,0.007883677,0.5997236,0.32802403,0.16465862,-0.34636402,0.08317363,-0.8682634,0.26987037,0.479399,0.08752019,-0.34486836,-0.6708457,-0.0056021176,-0.24747372,-0.9531155,-0.37340224,-0.5159918,-0.049933065,-0.4387012,0.72624004,0.30319276,-0.23932952,-0.06751429,-0.16633087,-0.0081512295
2025-07-21 13:17:50.118,2.3200000000000016,2320,116,-0.041750416,-0.07047491,0.13725615,-0.014721794,-0.023781497,0.01023903,0.0,0.0,0.0,-0.0533945,0.07394602,-0.051490486,-0.02803379,-0.07339876,0.053099435,-0.11389762,0.08929692,0.17293242,-0.010639467,-0.083895795,-0.14790581,-0.038142707,-0.025482172,0.006830151,-0.030368282,0.023406323,0.01707685,-0.0245923,-0.02593699,0.029246101,-0.06897409,0.018097285,0.07290091,-0.08947138,-0.24747372,-0.9531155,-0.37340224,-0.5159918,-0.049933065,-0.4387012,0.72624004,0.30319276,-0.23932952,-0.06751429,-0.16633087,-0.0081512295,0.4489121,-0.034978624,0.25604337,-0.22849777,0.15234607,-0.9478089,0.34858975,0.43896332,-0.1625843,-0.43752277,-0.7491753,0.033075873
2025-07-21 13:17:50.134,2.3400000000000016,2340,117,-0.00887395,-0.023316791,-0.079329684,-0.016442839,0.018838232,-0.024164364,0.0,0.0,0.0,-0.054034516,0.07996287,-0.052391388,-0.043325648,-0.072772756,0.040336985,-0.11915177,0.07716922,0.1740044,-0.007700711,-0.075068295,-0.15580484,-0.021702519,-0.031095458,-0.040513445,-0.0003955471,-0.04201695,-0.059226744,-0.009078934,0.04100069,0.06454314,0.03080439,-0.059273843,0.01301335,0.04759549,0.4489121,-0.034978624,0.25604337,-0.22849777,0.15234607,-0.9478089,0.34858975,0.43896332,-0.1625843,-0.43752277,-0.7491753,0.033075873,-0.022983158,-0.04484832,0.11221567,-0.54614747,0.4791871,-0.7093781,0.6828501,0.63575983,-0.030378796,0.21744028,-0.285919,0.20306593
2025-07-21 13:17:50.153,2.3600000000000017,2360,118,-0.005278417,0.12553914,0.12147482,0.0484731,-0.007105301,-0.0009512738,0.0,0.0,0.0,-0.053744584,0.07553884,-0.036225997,-0.027451985,-0.07824724,0.06682861,-0.11454171,0.09118184,0.1961643,-0.012469324,-0.079074286,-0.16131216,-0.019344084,-0.04625411,0.054648872,0.048277494,0.05438374,0.05211469,-0.037377883,-0.06002901,-0.019489856,-0.036382373,-0.027712155,0.033047557,0.050356958,-0.022983158,-0.04484832,0.11221567,-0.54614747,0.4791871,-0.7093781,0.6828501,0.63575983,-0.030378796,0.21744028,-0.285919,0.20306593,0.43696195,-0.088475525,-0.24015532,-0.20255348,-0.05501381,-0.79364145,0.23246908,0.8119585,-0.37430888,-0.62000716,-0.76821965,-0.18619007
2025-07-21 13:17:50.173,2.3800000000000017,2380,119,0.041847646,-0.09005144,-0.02470387,0.010662923,0.0043285335,-0.031074466,0.0,0.0,0.0,-0.05400108,0.07956408,-0.04941681,-0.032623503,-0.055376723,0.06290659,-0.11987849,0.07946892,0.2097864,-0.015566187,-0.08068038,-0.17160974,-0.024996052,-0.008904945,-0.018041443,0.008217244,-0.029256942,0.009294281,0.005347839,0.032290712,0.089376375,0.04464544,0.04454839,-0.008689761,0.068607256,0.43696195,-0.088475525,-0.24015532,-0.20255348,-0.05501381,-0.79364145,0.23246908,0.8119585,-0.37430888,-0.62000716,-0.76821965,-0.18619007,0.03397233,-0.09246445,0.108757764,-0.6121151,-0.055724088,-0.9385032,0.4509289,0.39379337,0.044458173,0.18123843,-0.30118787,0.268238
2025-07-21 13:17:50.199,2.4000000000000017,2400,120,0.013323199,0.08574344,0.059520494,0.024682198,0.04611683,0.011205301,0.0,0.0,0.0,-0.05366443,0.07469042,-0.049364235,-0.038232666,-0.06313141,0.043089077,-0.12406215,0.080627546,0.21879543,-0.006820858,-0.06957226,-0.18306766,-0.035071313,-0.033519708,-0.03960596,0.07025302,-0.074953154,-0.027919976,0.05723487,0.02961219,-0.075261034,0.016406456,0.0068650283,-0.021382773,-0.059506964,0.03397233,-0.09246445,0.108757764,-0.6121151,-0.055724088,-0.9385032,0.4509289,0.39379337,0.044458173,0.18123843,-0.30118787,0.268238,0.50148386,0.1736187,-0.20820625,-0.09366229,0.18169336,-0.47067565,0.40089384,0.47437507,0.2226024,-0.45431536,-0.17497021,-0.0075387917
2025-07-21 13:17:50.216,2.4200000000000017,2420,121,-0.005651917,0.042186,0.046079177,0.03848079,0.059408154,0.02077727,0.0,0.0,0.0,-0.054327995,0.08645712,-0.035635516,-0.033624962,-0.05931097,0.05523769,-0.11030958,0.07153812,0.21145254,-0.011801353,-0.06854888,-0.15861759,-0.03832703,0.02851942,0.02607212,0.03868608,0.08698296,-0.0055359444,-0.00259052,-0.050437544,-0.00037882428,8.441863e-05,0.06455285,0.006514292,-0.047810983,0.50148386,0.1736187,-0.20820625,-0.09366229,0.18169336,-0.47067565,0.40089384,0.47437507,0.2226024,-0.45431536,-0.17497021,-0.0075387917,0.32626456,0.0038093366,-0.08103114,-0.41146144,0.030944694,-0.88434535,0.40374246,0.6340389,0.042365573,-0.25742295,-0.47788373,0.026721362
2025-07-21 13:17:50.233,2.4400000000000017,2440,122,0.072066486,-0.01294113,-0.04788898,0.06624713,0.04621151,0.021205463,0.0,0.0,0.0,-0.055384558,0.09126573,-0.02947195,-0.045355953,-0.060499385,0.04597835,-0.12698492,0.063649096,0.22421053,-0.0058433595,-0.08740309,-0.16693653,-0.016008195,0.080570266,-0.04925222,0.043008603,0.0009125832,0.004332512,0.041429233,0.033050004,-0.0043729483,0.007965062,0.05203147,-0.023820696,-0.020522494,0.32626456,0.0038093366,-0.08103114,-0.41146144,0.030944694,-0.88434535,0.40374246,0.6340389,0.042365573,-0.25742295,-0.47788373,0.026721362,0.10704107,-0.122170806,-0.06666647,-0.47866973,0.09137161,-0.7225446,0.62580526,0.46093783,0.20286968,0.062724784,-0.0726752,0.020554278
2025-07-21 13:17:50.253,2.4600000000000017,2460,123,0.05077195,-0.04526896,0.13544537,0.019426003,0.025352528,0.020448558,0.0,0.0,0.0,-0.0548159,0.07483885,-0.03203676,-0.040070135,-0.05577824,0.04199979,-0.11483671,0.07524963,0.20999144,-0.008201774,-0.077926494,-0.15306282,-0.021938445,0.004068274,-0.053751744,0.06849741,0.045598358,0.043254964,0.053070597,0.027928412,0.057176795,0.059838064,0.06533404,0.028617024,-0.013237764,0.10704107,-0.122170806,-0.06666647,-0.47866973,0.09137161,-0.7225446,0.62580526,0.46093783,0.20286968,0.062724784,-0.0726752,0.020554278,0.5380727,0.34756637,0.0718091,-0.19301295,-0.06358835,-0.8782266,0.15141045,0.5566174,0.32316324,-0.3306495,-0.96041644,0.09440601
2025-07-21 13:17:50.273,2.4800000000000018,2480,124,0.07665679,-0.05251008,-0.113519184,-0.004834497,0.024406182,0.0065797972,0.0,0.0,0.0,-0.05607887,0.09178625,-0.008231776,-0.047662374,-0.059449777,0.032271516,-0.110126,0.06154517,0.2220468,0.004555627,-0.0646441,-0.16931963,-0.016026542,0.08655073,0.043716628,-0.06993292,-0.035208076,-0.04515708,0.010987052,-0.010078779,0.071764275,0.040329024,-0.048022423,-0.117066145,0.032223284,0.5380727,0.34756637,0.0718091,-0.19301295,-0.06358835,-0.8782266,0.15141045,0.5566174,0.32316324,-0.3306495,-0.96041644,0.09440601,0.14961061,-0.3388816,0.044494357,-0.6269878,0.19702779,-0.81647563,0.5581893,0.50206345,-0.062012948,0.28254527,0.49479845,0.29064277
2025-07-21 13:17:50.299,2.5000000000000018,2500,125,-0.008666777,-0.051625002,0.15023951,-0.0032574139,-0.034057148,0.010961659,0.0,0.0,0.0,-0.055357598,0.09398188,-0.011131347,-0.0406483,-0.06208394,0.037840985,-0.11580249,0.06741051,0.20870417,0.011375829,-0.07191958,-0.16632588,-0.02270871,-0.0073643643,-0.0079865735,-0.042505585,0.03275897,0.04660689,-0.057386667,-0.016844971,0.022452783,0.034993403,0.05134064,0.04620835,0.07424411,0.14961061,-0.3388816,0.044494357,-0.6269878,0.19702779,-0.81647563,0.5581893,0.50206345,-0.062012948,0.28254527,0.49479845,0.29064277,0.53862476,0.0021674074,-0.10275169,-0.15315163,-0.16325355,-0.85424536,0.16179872,0.75913763,-0.3636594,-0.5919073,-1.0107249,0.14168525
2025-07-21 13:17:50.316,2.520000000000002,2520,126,0.030818982,-0.1253224,-0.1220222,0.016818482,0.0024309375,0.011686174,0.0,0.0,0.0,-0.055547137,0.0931539,-0.0021918463,-0.040806193,-0.067433625,0.029381465,-0.116846934,0.05696566,0.22879872,-0.0011723924,-0.0694986,-0.17219843,-0.005662042,0.058750417,-0.06966091,-0.07084165,-0.053178117,-0.03201398,-0.055586003,0.0377227,0.035514656,-0.087502696,-0.039651293,-0.10240794,-0.031558778,0.53862476,0.0021674074,-0.10275169,-0.15315163,-0.16325355,-0.85424536,0.16179872,0.75913763,-0.3636594,-0.5919073,-1.0107249,0.14168525,0.01241391,-0.05652785,0.03555619,-0.7148252,0.31177613,-0.7919087,0.76036584,0.29523844,-0.006550081,0.37246698,0.44695047,0.29692394
2025-07-21 13:17:50.334,2.540000000000002,2540,127,-0.04622574,0.037016034,0.2195313,0.055211347,0.015460451,0.004260797,0.0,0.0,0.0,-0.055433407,0.09625679,0.0008241863,-0.041659474,-0.076107085,0.027421068,-0.13003004,0.06907451,0.21473302,-0.004004116,-0.07108869,-0.16403776,-0.021801082,-0.034438893,0.055562396,0.08131216,-0.048461445,0.07981825,0.014590571,-0.02473427,-0.04818839,-0.028790792,-0.037323564,0.038172852,-0.032422896,0.01241391,-0.05652785,0.03555619,-0.7148252,0.31177613,-0.7919087,0.76036584,0.29523844,-0.006550081,0.37246698,0.44695047,0.29692394,0.6909255,-0.07843405,-0.28036353,0.16012847,-0.1409577,-0.6921882,0.049967684,0.8450083,-0.4580182,-0.8140006,-0.86288786,-0.11921063
2025-07-21 13:17:50.354,2.560000000000002,2560,128,0.07306649,-0.028257314,0.0042188577,0.04409442,0.00852732,0.004909726,0.0,0.0,0.0,-0.057035934,0.09497018,-0.004296249,-0.050478645,-0.043568723,0.02004987,-0.11717637,0.06787899,0.24511194,-0.023621326,-0.075507715,-0.18057972,-0.018512066,0.01934291,0.043344233,-0.043270793,0.042805977,-0.06754888,0.033347163,-0.07578697,0.12574942,-0.0014403084,-0.08174183,-0.07619006,-0.0028643343,0.6909255,-0.07843405,-0.28036353,0.16012847,-0.1409577,-0.6921882,0.049967684,0.8450083,-0.4580182,-0.8140006,-0.86288786,-0.11921063,0.1430792,-0.07311371,0.1701753,-0.7143066,0.08483006,-1.2449208,0.28019673,0.23577431,0.05732318,-0.0017879903,-0.3621639,0.33010298
2025-07-21 13:17:50.374,2.580000000000002,2580,129,-0.0020196452,0.019308027,0.084611125,0.051109985,-0.012759676,0.042273987,0.0,0.0,0.0,-0.058125366,0.09392811,-0.006211559,-0.046370555,-0.06554233,0.015267651,-0.13448367,0.055323206,0.21817067,-0.013763679,-0.082141645,-0.17884538,-0.004679287,-0.04870951,-0.041417584,0.0651974,-0.027712386,-0.06871107,-0.034933705,-0.009469341,0.006676136,0.012234414,-0.057068896,0.04780593,0.07102367,0.1430792,-0.07311371,0.1701753,-0.7143066,0.08483006,-1.2449208,0.28019673,0.23577431,0.05732318,-0.0017879903,-0.3621639,0.33010298,0.45530608,0.22861084,0.18100491,-0.17421411,0.395438,-0.5751937,0.21871549,0.5780152,-0.18427044,-0.27351457,-0.846616,0.16503638
2025-07-21 13:17:50.399,2.600000000000002,2600,130,-0.055574894,0.030262878,-0.068478756,0.028118143,-0.03040879,0.0094153145,0.0,0.0,0.0,-0.059725184,0.09818432,-0.008822966,-0.02837878,-0.05193166,0.035849374,-0.13326873,0.052499216,0.22264011,-0.004376459,-0.07984673,-0.19864993,0.0019391286,0.039960634,0.050318073,0.0666137,-0.035529587,0.12664583,0.016034994,-0.007351913,0.05843006,0.059183706,-0.030457731,-0.0017386696,0.017586231,0.45530608,0.22861084,0.18100491,-0.17421411,0.395438,-0.5751937,0.21871549,0.5780152,-0.18427044,-0.27351457,-0.846616,0.16503638,-0.008278752,-0.52259713,-0.1211703,-0.6131449,-0.2616915,-0.93370265,0.49690005,0.25835142,-0.31730598,-0.18632285,-0.2684108,-0.1800353
2025-07-21 13:17:50.416,2.620000000000002,2620,131,-0.18167982,-0.108162954,0.08457072,0.057784542,-0.038424954,0.046403147,0.0,0.0,0.0,-0.059347935,0.100538306,-0.008855508,-0.03275474,-0.06661189,0.03625641,-0.12204216,0.05931499,0.20701994,-0.015631659,-0.086884364,-0.18603267,-0.013684684,-0.028197538,-0.056415666,-0.007331951,0.021094205,-0.1273488,-0.0031019754,0.07240725,-0.01909293,-0.08983397,0.044921055,0.06715804,0.0051126806,-0.008278752,-0.52259713,-0.1211703,-0.6131449,-0.2616915,-0.93370265,0.49690005,0.25835142,-0.31730598,-0.18632285,-0.2684108,-0.1800353,0.5656431,0.0963586,0.4662306,-0.08736468,0.5759757,-0.6830463,0.46387,0.27022007,-0.3103536,-0.20566203,-0.8227216,0.09827471
2025-07-21 13:17:50.436,2.640000000000002,2640,132,-0.0018288876,0.016427409,-0.086251415,-0.00023137846,0.008303432,0.034667376,0.0,0.0,0.0,-0.059566338,0.09832689,-0.021064308,-0.024005117,-0.04833581,0.05212303,-0.12966019,0.07045712,0.19156156,-0.026113149,-0.06903892,-0.20023642,-0.017617585,0.016785206,0.04425431,0.075988814,0.06852536,0.14610453,0.0034843392,-0.06101137,-0.026728468,-0.011121717,-0.05088939,-0.05977164,-0.026151009,0.5656431,0.0963586,0.4662306,-0.08736468,0.5759757,-0.6830463,0.46387,0.27022007,-0.3103536,-0.20566203,-0.8227216,0.09827471,-0.021227086,-0.67810535,-0.24028315,-0.6266606,-0.109500274,-0.79702044,0.62848216,0.3865728,-0.18221459,-0.3234372,-0.023550956,-0.068335444
2025-07-21 13:17:50.454,2.660000000000002,2660,133,-0.14489292,-0.036478035,0.12146295,0.032681465,-0.017906498,0.023233613,0.0,0.0,0.0,-0.058930498,0.08844187,-0.022455372,-0.036599036,-0.07163686,0.057799134,-0.120240495,0.06674101,0.178404,-0.033010572,-0.081950605,-0.18943314,-0.012243674,0.038836036,-0.072783165,0.04843019,0.01263444,-0.063283406,0.04097645,0.024376849,0.035404503,-0.06684104,0.056411758,0.11668615,0.04369104,-0.021227086,-0.67810535,-0.24028315,-0.6266606,-0.109500274,-0.79702044,0.62848216,0.3865728,-0.18221459,-0.3234372,-0.023550956,-0.068335444,0.3702834,0.10663521,0.57273316,-0.13060206,0.37527966,-0.7786289,0.32048458,0.4531904,-0.032269627,-0.19286421,-1.268957,0.13008696
2025-07-21 13:17:50.475,2.680000000000002,2680,134,0.033694934,-0.00017837153,-0.17170216,-0.009029561,0.01839852,0.0037261478,0.0,0.0,0.0,-0.05866507,0.091277316,-0.041861057,-0.026476186,-0.059294257,0.059489336,-0.12304106,0.05897396,0.18581294,-0.014327256,-0.07792188,-0.18487796,-0.020346373,0.029359968,-0.009630207,0.09665179,0.058220316,0.10974909,-0.061765183,-0.06415517,-0.007481406,0.041236293,0.030100148,-0.023093168,0.08503843,0.3702834,0.10663521,0.57273316,-0.13060206,0.37527966,-0.7786289,0.32048458,0.4531904,-0.032269627,-0.19286421,-1.268957,0.13008696,-0.24783751,-0.6693448,0.0051810183,-0.7317544,0.1276578,-0.5769458,0.6485751,0.37920982,-0.0013130978,0.09119544,0.024471315,0.072237074
2025-07-21 13:17:50.500,2.700000000000002,2700,135,-0.062017478,0.009855109,0.14474618,0.043532416,-0.027378216,-0.042975344,0.0,0.0,0.0,-0.057437044,0.078518815,-0.048686698,-0.0067597744,-0.06754673,0.062160444,-0.1183474,0.07367192,0.18482909,-0.014383452,-0.07466324,-0.17307948,-0.021943282,-0.09137246,-0.021171456,-0.04791872,-0.0628373,0.00086632126,-0.0060152723,-0.033017673,0.045919314,-0.03360151,0.031804256,0.008274137,-0.031743377,-0.24783751,-0.6693448,0.0051810183,-0.7317544,0.1276578,-0.5769458,0.6485751,0.37920982,-0.0013130978,0.09119544,0.024471315,0.072237074,0.78112566,0.15899453,0.20065777,-0.06985442,0.05915725,-0.94084096,0.22030097,0.33892795,0.00016938895,-0.47362155,-0.47044906,-0.0031709634
2025-07-21 13:17:50.518,2.720000000000002,2720,136,0.015672326,-0.041578755,-0.09235788,-0.015637396,-0.017401494,-0.022046236,0.0,0.0,0.0,-0.05716071,0.10228104,-0.05227453,-0.010804883,-0.052743886,0.061115187,-0.13270268,0.05844201,0.17842147,-0.007619225,-0.08657846,-0.1749675,-0.01783683,0.087530784,0.07023482,0.042298205,0.08971391,-0.027563581,-0.014516719,-0.03719137,0.05311882,-0.05995947,0.04998164,-0.01076482,-0.027988873,0.78112566,0.15899453,0.20065777,-0.06985442,0.05915725,-0.94084096,0.22030097,0.33892795,0.00016938895,-0.47362155,-0.47044906,-0.0031709634,-0.034392945,-0.3103776,-0.1609647,-0.551877,0.10242851,-0.6599341,0.5453095,0.48149946,-0.20474896,-0.040837467,-0.27002034,0.0062284507
2025-07-21 13:17:50.539,2.740000000000002,2740,137,-0.036631268,0.031273093,0.13313377,0.05561529,-0.03461161,0.0017988491,0.0,0.0,0.0,-0.056503102,0.09225562,-0.052549984,-0.014116187,-0.070927516,0.05883238,-0.12762254,0.07919277,0.18551342,-0.025214816,-0.08797622,-0.16489944,-0.01484635,-0.070482194,0.035287358,-0.06994886,0.037685134,-0.030153828,-0.028426696,0.0102151735,0.06644003,0.027446928,-0.034885816,0.051754978,-0.0040730233,-0.034392945,-0.3103776,-0.1609647,-0.551877,0.10242851,-0.6599341,0.5453095,0.48149946,-0.20474896,-0.040837467,-0.27002034,0.0062284507,0.64292145,0.01973224,0.22440511,-0.22533438,0.32955173,-0.9933768,0.31058785,0.42817274,-0.2731327,-0.40531963,-0.92761946,0.031384353
2025-07-21 13:17:50.567,2.760000000000002,2760,138,0.029251058,-0.039287344,-0.17214967,0.06300293,-0.01618263,0.048748806,0.0,0.0,0.0,-0.057064734,0.08856416,-0.041698005,-0.020490363,-0.06187578,0.07419995,-0.13381462,0.074747466,0.18525283,-0.028964883,-0.0879602,-0.17577992,-0.015697017,0.02440314,-0.005888746,0.0176703,0.07519562,0.08266956,-0.06574168,0.060254276,-0.060353886,-0.0027325621,-0.07251013,-0.06943009,-0.031686902,0.64292145,0.01973224,0.22440511,-0.22533438,0.32955173,-0.9933768,0.31058785,0.42817274,-0.2731327,-0.40531963,-0.92761946,0.031384353,-0.16965306,-0.7577916,0.0058296807,-0.71200174,0.049642187,-0.5700995,0.7571175,0.46024552,0.008292161,0.20157982,0.43463206,0.25370523
