openverse-orca/OrcaGym/log/simulation_log_20250606_113948.csv
timestamp,imu_angle_roll,imu_angle_pitch,imu_angle_yaw,imu_angular_velocity_roll,imu_angular_velocity_pitch,imu_angular_velocity_yaw,imu_acc_x,imu_acc_y,imu_acc_z,fl_joint1_pos,fl_joint1_vel,fl_joint1_torque,fl_joint2_pos,fl_joint2_vel,fl_joint2_torque,fl_joint3_pos,fl_joint3_vel,fl_joint3_torque,fr_joint1_pos,fr_joint1_vel,fr_joint1_torque,fr_joint2_pos,fr_joint2_vel,fr_joint2_torque,fr_joint3_pos,fr_joint3_vel,fr_joint3_torque,hl_joint1_pos,hl_joint1_vel,hl_joint1_torque,hl_joint2_pos,hl_joint2_vel,hl_joint2_torque,hl_joint3_pos,hl_joint3_vel,hl_joint3_torque,hr_joint1_pos,hr_joint1_vel,hr_joint1_torque,hr_joint2_pos,hr_joint2_vel,hr_joint2_torque,hr_joint3_pos,hr_joint3_vel,hr_joint3_torque,fl_force_x,fl_force_y,fl_force_z,fr_force_x,fr_force_y,fr_force_z,hl_force_x,hl_force_y,hl_force_z,hr_force_x,hr_force_y,hr_force_z,fl_hip_action,fl_thigh_action,fl_calf_action,fr_hip_action,fr_thigh_action,fr_calf_action,hl_hip_action,hl_thigh_action,hl_calf_action,hr_hip_action,hr_thigh_action,hr_calf_action
2025-06-06 11:39:49.074,-0.015510039,0.02285467,0.010830054,0.011295032,-0.03407679,0.04745133,2.0681932,1.4161735,0.0,0.0,0.0045168023,0.0032163747,0.0074901246,-0.009996559,-0.0051668384,-0.009753256,0.0012024477,-0.008966595,0.0046586036,-0.004852291,0.002320451,-0.0052661323,-0.03651752,-0.0109760305,0.03097462,0.06950356,-0.029928248,-0.000845837,0.052681632,0.056073286,0.04905302,0.031607393,0.06289831,-0.03699293,0.0,0.0,0.0,0.0,0.0,0.0,0.0,0.0,0.0,0.0,0.0,0.0,-0.92095256,-0.27263066,-0.21078016,3.0,0.30639917,-1.29622,3.0,-1.3710465,-0.6484605,-3.0,-0.3368333,-1.4439309
2025-06-06 11:39:49.079,0.020559391,-0.018595818,-0.011258757,-0.040438443,-0.024041098,-0.02074161,0.0,0.0,0.0,0.0,-0.0038434402,-0.0046763197,-0.0051651155,0.022186443,0.019328441,-0.026664324,0.022214489,-0.055438682,-0.009140642,-0.030194905,-0.015976004,-0.041936457,0.003953514,-0.03113867,-0.046884444,0.018203974,-0.0038865376,-0.031350438,0.015060869,-0.17232019,-0.010183088,-0.06827394,-0.10778372,-0.16913193,-0.92095256,-0.27263066,-0.21078016,3.0,0.30639917,-1.29622,3.0,-1.3710465,-0.6484605,-3.0,-0.3368333,-1.4439309,2.4048367,1.4425482,-2.5520113,3.0,0.7225236,-1.1668013,3.0,-0.5683516,-1.6588203,-3.0,-0.8146352,-3.0
2025-06-06 11:39:49.100,-0.018778175,-0.10256682,0.07311844,0.016909536,0.027534086,0.038030278,0.0,0.0,0.0,0.00023013145,0.00023556995,0.04663334,-0.074048765,0.058167912,0.05107009,-0.076164216,0.0582352,-0.076312326,-0.051700726,-0.03430753,-0.032061275,-0.08048391,0.024089899,0.20896155,-0.2561379,0.14007594,0.08357655,-0.014907027,-0.017852502,-0.014548283,-0.06343545,0.0064414437,-0.049918123,-0.10542327,2.4048367,1.4425482,-2.5520113,3.0,0.7225236,-1.1668013,3.0,-0.5683516,-1.6588203,-3.0,-0.8146352,-3.0,3.0,0.18161099,-3.0,3.0,1.6028703,-2.668352,1.5103998,-1.0221996,-1.7210091,-3.0,0.20831077,-3.0
2025-06-06 11:39:49.120,-0.019047156,-0.110521294,-0.025608627,-0.010281125,-0.026928278,-0.048683308,0.0,0.0,0.0,-5.2890737e-05,0.00039504064,0.060252413,-0.08917002,0.06493719,0.07374738,-0.095206484,0.06104938,-0.0966491,-0.040592413,-0.03835045,-0.04185282,-0.07008225,0.045906547,-0.05344183,-0.015970873,-0.036727205,-0.018450635,-0.08658314,-0.036239017,-0.013371426,0.08636849,-0.06646698,-0.06853464,0.02965917,3.0,0.18161099,-3.0,3.0,1.6028703,-2.668352,1.5103998,-1.0221996,-1.7210091,-3.0,0.20831077,-3.0,3.0,0.8696044,-3.0,3.0,0.86246055,-3.0,-1.1153424,-0.7443657,-2.7553644,-3.0,0.27661073,-3.0
2025-06-06 11:39:49.139,0.0045040227,-0.086620934,0.0010732798,-0.030855061,0.0015922266,-0.027766895,0.0,0.0,0.0,6.5723376e-05,0.0013524488,0.061744854,-0.068362296,0.06790365,0.08127589,-0.09500667,0.054604623,-0.08784041,-0.059273064,-0.04691187,-0.047922406,-0.0660672,0.034145195,0.022045095,-0.01758669,0.046996307,0.09493106,-0.04544462,-0.0055154874,-0.02275531,0.012362902,0.06736544,-0.02219944,-0.05979951,3.0,0.8696044,-3.0,3.0,0.86246055,-3.0,-1.1153424,-0.7443657,-2.7553644,-3.0,0.27661073,-3.0,3.0,0.73529625,-3.0,3.0,0.606174,-3.0,-3.0,-0.8219341,-3.0,-3.0,1.048162,-3.0
2025-06-06 11:39:49.159,0.11891655,-0.1343767,0.11652661,0.010714267,-0.0030727559,0.005813639,0.0,0.0,0.0,-0.0003572101,0.0048825704,0.07030883,-0.053423047,0.082314335,0.108031176,-0.113092005,0.03677528,-0.06763881,-0.07193612,-0.047335654,-0.014879839,-0.10211725,0.06502026,-0.016629098,0.04886526,0.035821978,0.08153697,0.0022443756,-0.03962835,0.0225155,-0.052298587,-0.056393787,0.08120085,-0.106872715,3.0,0.73529625,-3.0,3.0,0.606174,-3.0,-3.0,-0.8219341,-3.0,-3.0,1.048162,-3.0,3.0,0.16904263,-3.0,3.0,0.761149,-3.0,-3.0,-0.9621409,-3.0,-3.0,1.8124698,-3.0
2025-06-06 11:39:49.179,0.12804839,-0.037111126,0.051039826,0.0083676865,-0.04248589,0.03045762,0.0,0.0,0.0,-0.0016780145,0.0034811182,0.07713493,-0.05181195,0.07171232,0.12107145,-0.14848757,0.009038805,-0.06606493,-0.13035537,-0.04839872,0.026727596,-0.13913791,-0.06780271,0.057795774,-0.092772186,0.022602465,0.12338739,-0.12754405,-0.16624562,-0.09431262,-0.24396448,0.032998014,0.06861921,-0.04456682,3.0,0.16904263,-3.0,3.0,0.761149,-3.0,-3.0,-0.9621409,-3.0,-3.0,1.8124698,-3.0,3.0,0.35305613,-3.0,3.0,0.75083,-3.0,-3.0,-0.52164066,-3.0,-3.0,0.9019032,-3.0
2025-06-06 11:39:49.200,-0.024932694,0.022741199,0.079972126,0.03287673,-0.0709225,0.025275087,0.0,0.0,0.0,-0.0026475014,0.016195824,0.08495218,-0.067521565,0.091352366,0.14700106,-0.16760212,-0.015337544,-0.081497245,-0.19559444,-0.05991954,0.045999166,-0.17588481,-0.052563056,0.017513247,-0.013714814,-0.023498327,0.048564143,-0.062334422,-0.027460577,0.020412458,-0.08671266,0.023133319,0.05249234,-0.0064956117,3.0,0.35305613,-3.0,3.0,0.75083,-3.0,-3.0,-0.52164066,-3.0,-3.0,0.9019032,-3.0,3.0,0.5753895,-3.0,3.0,0.874085,-3.0,-3.0,-0.6810365,-3.0,-3.0,1.1557328,-3.0
2025-06-06 11:39:49.220,-0.047435194,-0.0020976018,-0.00015630301,0.050943963,-0.034969583,-0.03930462,0.0,0.0,0.0,-0.0034466246,0.010923367,0.10439962,-0.09336952,0.091277346,0.16167657,-0.21340494,-0.05160696,-0.10071849,-0.24181691,-0.04757668,0.049661838,-0.20556895,0.028877717,-0.023899022,-0.07349884,0.047764268,-0.023776602,-0.12130506,-0.109325394,-0.1009281,-0.04302628,0.030548405,0.007971499,-0.0676337,3.0,0.5753895,-3.0,3.0,0.874085,-3.0,-3.0,-0.6810365,-3.0,-3.0,1.1557328,-3.0,3.0,0.854874,-3.0,3.0,0.3952155,-3.0,-3.0,-0.41551176,-3.0,-3.0,0.889769,-3.0
2025-06-06 11:39:49.240,-0.054520957,0.05700377,0.0866784,-0.028333832,-0.034091216,0.036512736,0.0,0.0,0.0,-0.0041423338,0.03422207,0.113278635,-0.11081525,0.09381459,0.16554594,-0.21859148,-0.074704625,-0.10361961,-0.26816213,-0.054171316,0.06489244,-0.23009156,0.08882223,0.06193979,-0.056796946,0.09281555,-0.0089144185,-0.110751376,0.016866757,0.04278933,-0.08112664,0.011964997,0.0787548,0.02069072,3.0,0.854874,-3.0,3.0,0.3952155,-3.0,-3.0,-0.41551176,-3.0,-3.0,0.889769,-3.0,3.0,0.60744035,-3.0,3.0,0.8047403,-3.0,-3.0,-0.47494537,-3.0,-3.0,1.3172947,-3.0
2025-06-06 11:39:49.260,0.063431025,-0.010726562,0.041529175,0.03280907,-0.052104905,0.02817032,0.0,0.0,0.0,-0.00501694,0.043999042,0.117476605,-0.122353084,0.11272644,0.170241,-0.24600926,-0.09670263,-0.09966111,-0.29643884,-0.04390791,0.07985137,-0.24445851,-0.028710844,0.0152223455,-0.029577417,0.023359898,0.02068741,-0.0187727,0.023263782,-0.024734214,-0.05155402,-0.028649848,-0.045744248,-0.021756776,3.0,0.60744035,-3.0,3.0,0.8047403,-3.0,-3.0,-0.47494537,-3.0,-3.0,1.3172947,-3.0,3.0,0.7143244,-3.0,3.0,0.6511747,-3.0,-3.0,-0.3032822,-3.0,-3.0,0.92482704,-3.0
2025-06-06 11:39:49.280,0.016997144,0.014483624,0.038721744,0.041379716,-0.03719915,0.047991537,0.0,0.0,0.0,-0.0056014834,0.051161695,0.12472934,-0.11906723,0.10666505,0.17351012,-0.2521821,-0.10171362,-0.09507324,-0.30442345,-0.034285303,0.08288335,-0.25475088,0.021626273,-0.054234,0.04855909,0.016184073,-0.06899267,0.036847055,-0.0655271,0.050315622,-0.084959425,0.08119457,0.04004589,0.011789804,3.0,0.7143244,-3.0,3.0,0.6511747,-3.0,-3.0,-0.3032822,-3.0,-3.0,0.92482704,-3.0,3.0,0.9026904,-3.0,3.0,0.47139007,-3.0,-3.0,-0.40138352,-3.0,-3.0,1.1680303,-3.0
2025-06-06 11:39:49.303,0.04640161,0.005499487,0.028400932,-0.008296673,0.00072145206,0.032698818,0.0,0.0,0.0,-0.006027296,0.04426957,0.1324349,-0.10913582,0.11168622,0.16760388,-0.27452776,-0.11468861,-0.087014705,-0.3143599,-0.035340123,0.08494204,-0.24788132,-0.0043442077,0.036289666,0.0019817203,-0.06375047,-0.07254915,0.02205304,-0.0061418684,0.05258003,0.023855126,-0.018793173,-0.041275725,-0.011167915,3.0,0.9026904,-3.0,3.0,0.47139007,-3.0,-3.0,-0.40138352,-3.0,-3.0,1.1680303,-3.0,3.0,0.93340456,-3.0,3.0,0.42593968,-3.0,-3.0,-0.2944289,-3.0,-3.0,1.084149,-3.0
2025-06-06 11:39:49.320,0.06297749,0.034751244,-0.01751854,0.03912612,-0.0077173514,-0.037734468,0.0,0.0,0.0,-0.0063240975,0.05055711,0.12069686,-0.105406,0.12371058,0.15584464,-0.28210253,-0.09872465,-0.076165,-0.310985,-0.04318584,0.09625449,-0.24747661,0.06696049,0.011932729,0.06794473,-0.008357615,-0.0524006,-0.0346446,-0.057783984,0.015271273,-0.061758246,-0.02939811,-0.010837949,-0.061646968,3.0,0.93340456,-3.0,3.0,0.42593968,-3.0,-3.0,-0.2944289,-3.0,-3.0,1.084149,-3.0,3.0,0.979498,-3.0,3.0,0.34634513,-3.0,-3.0,-0.24479434,-3.0,-3.0,0.86462176,-3.0
2025-06-06 11:39:49.340,0.0055183633,0.0030105766,0.04410502,0.01902723,-0.06812506,-0.03533093,0.0,0.0,0.0,-0.006443398,0.056265295,0.12707503,-0.10463478,0.112200245,0.13506429,-0.27724296,-0.10135617,-0.06695132,-0.31207854,-0.04091491,0.08802415,-0.23336554,0.07750459,0.071798414,0.056686737,-0.07064214,0.008224355,0.0013067743,-0.036919035,0.00524251,0.050233196,-0.04414633,-0.07872906,0.054341227,3.0,0.979498,-3.0,3.0,0.34634513,-3.0,-3.0,-0.24479434,-3.0,-3.0,0.86462176,-3.0,3.0,0.93517554,-3.0,3.0,0.4110217,-3.0,-3.0,-0.32032675,-3.0,-3.0,1.237713,-3.0
2025-06-06 11:39:49.361,0.027122429,0.03870465,0.013814427,0.034148633,-0.05225185,-0.03893516,0.0,0.0,0.0,-0.006549025,0.051423654,0.11773911,-0.0949877,0.11583022,0.13626665,-0.2720898,-0.10698952,-0.050716374,-0.3192075,-0.032551836,0.086561576,-0.23186417,-0.03698512,-0.07207911,0.063081756,0.0007544678,0.016736295,-0.03300147,-0.011336157,0.025066487,-0.056607846,-0.04242073,0.061708167,0.04583988,3.0,0.93517554,-3.0,3.0,0.4110217,-3.0,-3.0,-0.32032675,-3.0,-3.0,1.237713,-3.0,3.0,0.9047076,-3.0,3.0,0.42517555,-3.0,-3.0,-0.21931109,-3.0,-3.0,1.1113585,-3.0
2025-06-06 11:39:49.380,-0.015899858,-0.045794204,-0.045148864,0.08071198,-0.041336533,-0.023597412,0.0,0.0,0.0,-0.006329264,0.05459417,0.13717586,-0.08806714,0.12853631,0.13382412,-0.28378528,-0.099720314,-0.047885332,-0.30563954,-0.035857257,0.0823885,-0.217157,0.05282174,-0.061366912,-0.01456455,-0.030585986,0.023201408,0.07377012,-0.06942856,-0.013986635,0.0012187883,0.047009822,-0.04142141,0.042208448,3.0,0.9047076,-3.0,3.0,0.42517555,-3.0,-3.0,-0.21931109,-3.0,-3.0,1.1113585,-3.0,3.0,1.1362973,-3.0,3.0,0.18969387,-3.0,-3.0,-0.23791406,-3.0,-3.0,0.89931697,-3.0
2025-06-06 11:39:49.403,-0.053517103,0.054530136,0.01176355,0.05424645,0.006962757,0.018853432,0.0,0.0,0.0,-0.005890618,0.05388082,0.138393,-0.08120653,0.1179244,0.11483868,-0.2711491,-0.10103477,-0.04399696,-0.31144056,-0.026736952,0.093606286,-0.20973237,-0.020469462,0.042885497,0.01525801,0.06762938,-0.06036286,0.053798318,-0.054097127,0.028885325,0.07262144,0.023582606,-0.020653624,0.010129416,3.0,1.1362973,-3.0,3.0,0.18969387,-3.0,-3.0,-0.23791406,-3.0,-3.0,0.89931697,-3.0,3.0,1.0553141,-3.0,3.0,0.33510405,-3.0,-3.0,-0.30559346,-3.0,-3.0,1.2134567,-3.0
2025-06-06 11:39:49.421,-0.026632786,-0.030121392,0.047261644,-0.0017865158,0.019755237,-0.033571508,0.0,0.0,0.0,-0.0058415015,0.05008308,0.14464825,-0.0744582,0.11859606,0.106913045,-0.28356308,-0.10103874,-0.0493406,-0.29488888,-0.025968118,0.11089836,-0.22251514,-0.044537153,-0.048588157,0.06350302,0.055787217,-0.044822905,0.0686487,0.044022862,0.025757223,0.057423186,-0.060009245,0.025359157,0.055272385,3.0,1.0553141,-3.0,3.0,0.33510405,-3.0,-3.0,-0.30559346,-3.0,-3.0,1.2134567,-3.0,3.0,0.86594546,-3.0,3.0,0.39279377,-3.0,-3.0,-0.32990974,-3.0,-3.0,1.5217458,-3.0
2025-06-06 11:39:49.441,0.062354404,-0.059679225,0.022685304,-0.0002969502,-0.025777481,-0.005101242,0.0,0.0,0.0,-0.0058774897,0.045509987,0.15035024,-0.07474286,0.12528296,0.114425495,-0.2771331,-0.09300262,-0.030571923,-0.27221316,-0.03958517,0.118318245,-0.21543486,-0.020039571,0.05386589,0.08022437,-0.043546062,-0.032821808,-0.036446534,-0.027877275,0.073245265,0.0052640345,0.061675195,0.037633747,0.002280042,3.0,0.86594546,-3.0,3.0,0.39279377,-3.0,-3.0,-0.32990974,-3.0,-3.0,1.5217458,-3.0,3.0,0.9028387,-3.0,3.0,0.33496666,-3.0,-3.0,-0.2586838,-3.0,-3.0,1.2157887,-3.0
2025-06-06 11:39:49.461,0.048260473,-0.009930462,-0.051114697,0.08483718,0.007945553,0.03410563,0.0,0.0,0.0,-0.0055620074,0.036962826,0.17268285,-0.06378121,0.13282886,0.11946381,-0.26551333,-0.10867302,-0.02918612,-0.2710302,-0.0253806,0.12511277,-0.21425168,-0.07846295,0.008235503,0.022443535,-0.018097388,-4.629179e-05,0.0747514,-0.0031416367,-0.036214836,0.09298187,-0.04664318,-0.024934974,0.00992358,3.0,0.9028387,-3.0,3.0,0.33496666,-3.0,-3.0,-0.2586838,-3.0,-3.0,1.2157887,-3.0,3.0,1.1710813,-3.0,3.0,0.23202252,-3.0,-3.0,-0.2618647,-3.0,-3.0,0.89690727,-3.0
2025-06-06 11:39:49.481,-0.002327048,0.047874004,0.036581244,0.062205177,0.024712443,-0.04521337,0.0,0.0,0.0,-0.005085572,0.04966772,0.17707741,-0.081004284,0.11516164,0.10570446,-0.26916555,-0.095210634,-0.03705423,-0.26280645,-0.038435653,0.12501818,-0.20500907,0.06804781,0.09166253,0.019214414,-0.04939939,-0.02718867,0.056577887,0.056830145,0.0167242,0.031024078,0.0539355,0.011407677,-0.027767038,3.0,1.1710813,-3.0,3.0,0.23202252,-3.0,-3.0,-0.2618647,-3.0,-3.0,0.89690727,-3.0,3.0,0.98756367,-3.0,3.0,0.36525577,-3.0,-3.0,-0.3470692,-3.0,-3.0,1.4183103,-3.0
2025-06-06 11:39:49.503,0.024942068,0.0014113938,0.015927719,0.05429922,0.028162122,-0.0036572171,0.0,0.0,0.0,-0.0049588564,0.042529214,0.18027024,-0.07909129,0.1203373,0.11575223,-0.27961838,-0.104632966,-0.02245119,-0.262296,-0.037424088,0.13619724,-0.19450468,-0.08075917,0.0114297,-0.051072557,0.048116162,0.0720669,-0.048533157,-0.052065063,0.028707972,-0.02355224,0.06353468,0.0113883335,-0.036217514,3.0,0.98756367,-3.0,3.0,0.36525577,-3.0,-3.0,-0.3470692,-3.0,-3.0,1.4183103,-3.0,3.0,0.97840434,-3.0,3.0,0.28202087,-3.0,-3.0,-0.2681746,-3.0,-3.0,1.2272907,-3.0
2025-06-06 11:39:49.521,-0.028313175,-0.016906895,-0.06030333,0.0110707795,-0.05812692,0.03546154,0.0,0.0,0.0,-0.004690589,0.050511554,0.19969712,-0.085191675,0.12756738,0.09824365,-0.28243637,-0.104249075,-0.016121088,-0.26307356,-0.025447952,0.14182582,-0.1946536,0.0022000025,-0.039461054,-0.007374302,0.04950258,-0.063652866,0.013078822,0.012764843,0.022271343,0.06769489,0.0071169217,0.005687148,-0.047287066,3.0,0.97840434,-3.0,3.0,0.28202087,-3.0,-3.0,-0.2681746,-3.0,-3.0,1.2272907,-3.0,3.0,1.2259367,-3.0,3.0,0.18126744,-3.0,-3.0,-0.21031694,-3.0,-3.0,0.8668138,-3.0
2025-06-06 11:39:49.541,-0.07406486,0.037639726,0.041923225,0.055462662,0.007227802,-0.020456472,0.0,0.0,0.0,-0.004302139,0.032123774,0.20333694,-0.09498227,0.124532536,0.100795865,-0.26952383,-0.103677616,-0.018672217,-0.2499237,-0.025860798,0.15240678,-0.1878209,-0.039626773,0.07273562,0.0026545436,-0.050322253,0.04665545,0.010392386,-0.010774456,0.038137827,-0.02314706,-0.06261607,-0.061442327,-0.039170906,3.0,1.2259367,-3.0,3.0,0.18126744,-3.0,-3.0,-0.21031694,-3.0,-3.0,0.8668138,-3.0,3.0,1.0295744,-3.0,3.0,0.44421393,-3.0,-3.0,-0.31389695,-3.0,-3.0,1.3337289,-3.0
2025-06-06 11:39:49.561,0.020723099,0.052417584,-0.016291562,0.06849731,-0.03764384,0.02291805,0.0,0.0,0.0,-0.004315214,0.050138015,0.21242486,-0.0883668,0.11876098,0.11225431,-0.2854829,-0.09949222,-0.017343549,-0.24008498,-0.026251836,0.1494754,-0.16827138,0.017372152,-0.0055540777,0.032793794,-0.022485211,0.061858952,-0.0065590753,0.05328662,-0.030693991,-0.046177853,-0.0021594823,0.0056678294,0.062969625,3.0,1.0295744,-3.0,3.0,0.44421393,-3.0,-3.0,-0.31389695,-3.0,-3.0,1.3337289,-3.0,3.0,1.1143303,-3.0,3.0,0.2606728,-3.0,-3.0,-0.21919885,-3.0,-3.0,1.1499966,-3.0
2025-06-06 11:39:49.581,-0.040505186,-0.015756693,0.02951549,0.04414307,0.035251684,0.04867359,0.0,0.0,0.0,-0.004232115,0.030101119,0.23493382,-0.09612459,0.12713386,0.11431971,-0.27568495,-0.10844818,-0.010768899,-0.24488665,-0.035400175,0.16173218,-0.16874716,-0.0626319,0.024445733,0.016408421,-0.02423088,0.040500715,-0.010327019,-0.03733721,0.08099334,0.05130933,-0.040481128,0.048523612,0.019558843,3.0,1.1143303,-3.0,3.0,0.2606728,-3.0,-3.0,-0.21919885,-3.0,-3.0,1.1499966,-3.0,3.0,1.134345,-3.0,3.0,0.3240798,-3.0,-3.0,-0.33998743,-3.0,-3.0,1.3780316,-3.0
2025-06-06 11:39:49.604,-0.058940317,0.013424312,-0.020120261,0.07570137,-0.036142167,-0.032961585,0.0,0.0,0.0,-0.004127785,0.031541314,0.24142566,-0.1011857,0.11895211,0.10791709,-0.26368108,-0.11227935,-0.0013126611,-0.23204751,-0.04036597,0.1501055,-0.16290216,-0.0772551,0.0131173255,-0.023084093,0.04895909,-0.018445883,0.03946026,0.017153993,-0.0652146,-0.03730499,0.03212974,0.057509255,0.015172466,3.0,1.134345,-3.0,3.0,0.3240798,-3.0,-3.0,-0.33998743,-3.0,-3.0,1.3780316,-3.0,3.0,1.1250005,-3.0,3.0,0.319771,-3.0,-3.0,-0.19649395,-3.0,-3.0,1.1882311,-3.0
2025-06-06 11:39:49.621,-0.035497054,0.022491615,-0.019973388,0.008936192,-0.03666165,-0.042868998,0.0,0.0,0.0,-0.003919291,0.024589892,0.24289364,-0.10461671,0.11891847,0.11204838,-0.26636347,-0.107177496,-0.015059286,-0.2257001,-0.03684186,0.16109464,-0.15705396,-0.048896927,-0.02716965,-0.08214581,0.0652643,-0.027164334,-0.011891604,0.025306175,0.082119,0.03972052,0.028084,-0.03311259,0.019307707,3.0,1.1250005,-3.0,3.0,0.319771,-3.0,-3.0,-0.19649395,-3.0,-3.0,1.1882311,-3.0,3.0,1.2040151,-3.0,3.0,0.3088224,-3.0,-3.0,-0.2295993,-3.0,-3.0,1.1446947,-3.0
2025-06-06 11:39:49.641,-0.015608546,0.02056746,0.0079254145,0.07279847,-0.007907244,-0.013026494,0.0,0.0,0.0,-0.0037481168,0.042843048,0.2575441,-0.11853578,0.12098835,0.11052624,-0.25831735,-0.10454373,-0.010877012,-0.22684895,-0.0350731,0.16521932,-0.15285216,-0.025999544,0.0057201604,-0.06592042,0.051422954,0.003291836,0.00046433843,-0.017091481,0.023084234,0.05620288,0.062114123,-0.029377667,0.05909837,3.0,1.2040151,-3.0,3.0,0.3088224,-3.0,-3.0,-0.2295993,-3.0,-3.0,1.1446947,-3.0,3.0,1.1843921,-3.0,3.0,0.29334182,-3.0,-3.0,-0.2801905,-3.0,-3.0,1.3532162,-3.0
2025-06-06 11:39:49.661,-0.009754808,0.049929336,0.004051775,-0.022467805,-0.019141553,-0.038036615,0.0,0.0,0.0,-0.0037598005,0.033878226,0.27238685,-0.11700189,0.12114106,0.115152486,-0.2677767,-0.10539809,-0.00016169266,-0.22110596,-0.033801816,0.17974739,-0.15417211,0.052913483,0.049732123,-0.023896558,0.040503826,-0.0008009065,0.057554893,-0.03805356,-0.041617636,-0.06702261,0.008018717,-0.048224512,0.07767004,3.0,1.1843921,-3.0,3.0,0.29334182,-3.0,-3.0,-0.2801905,-3.0,-3.0,1.3532162,-3.0,3.0,1.1078582,-3.0,3.0,0.30782092,-3.0,-3.0,-0.20439854,-3.0,-3.0,1.3322834,-3.0
2025-06-06 11:39:49.682,0.0076865866,0.05240911,0.006449865,0.0090037,0.004450181,-0.041058794,0.0,0.0,0.0,-0.0037296154,0.04065426,0.2756322,-0.12884223,0.120251216,0.107381105,-0.2654941,-0.111847036,-0.0057511325,-0.22658804,-0.04711134,0.1734225,-0.14204586,-0.07499083,0.02758647,0.051896825,-0.046677332,0.0543321,-0.030790465,-0.044835333,-0.004248224,-0.018421395,-0.070213094,0.061991293,-0.04601787,3.0,1.1078582,-3.0,3.0,0.30782092,-3.0,-3.0,-0.20439854,-3.0,-3.0,1.3322834,-3.0,3.0,1.1361834,-3.0,3.0,0.35408312,-3.0,-3.0,-0.25381285,-3.0,-3.0,1.1978801,-3.0
2025-06-06 11:39:49.703,-0.0045970166,0.032861218,0.022839239,0.0031794426,-0.025099123,-0.006275429,0.0,0.0,0.0,-0.0036156485,0.028325075,0.27485728,-0.13059229,0.11251916,0.11573956,-0.2659546,-0.104631566,-0.0023355524,-0.22895765,-0.0320707,0.18542793,-0.13918784,-0.003080347,-0.02759898,0.036746223,0.052212868,-0.0363668,-0.030179305,-0.06384623,-0.057736486,0.043823406,-0.049649794,-0.007207747,0.03208921,3.0,1.1361834,-3.0,3.0,0.35408312,-3.0,-3.0,-0.25381285,-3.0,-3.0,1.1978801,-3.0,3.0,1.1288872,-3.0,3.0,0.2783572,-3.0,-3.0,-0.30602908,-3.0,-3.0,1.4636987,-3.0
2025-06-06 11:39:49.721,-0.016277948,0.01432002,0.02905489,0.035009336,-0.013724046,0.0056660133,0.0,0.0,0.0,-0.0035228904,0.026272736,0.2797278,-0.12332382,0.11013124,0.107708305,-0.26188737,-0.106666766,-0.0008351232,-0.22148934,-0.03481937,0.18232149,-0.14662081,0.06655418,-0.04831397,-0.037032817,-0.049188238,-0.06537047,-0.026034966,-0.013161251,0.006698711,0.04848641,0.054283377,-0.04381077,-0.06644424,3.0,1.1288872,-3.0,3.0,0.2783572,-3.0,-3.0,-0.30602908,-3.0,-3.0,1.4636987,-3.0,3.0,1.0808079,-3.0,3.0,0.21251082,-3.0,-3.0,-0.26005673,-3.0,-3.0,1.4839906,-3.0
2025-06-06 11:39:49.742,-0.025192209,0.0046158363,-0.06597732,0.031029234,-0.03445428,-0.044245765,0.0,0.0,0.0,-0.0032804261,0.019086445,0.28880268,-0.13576812,0.12397073,0.115293905,-0.25806966,-0.11637972,0.0025838031,-0.21236582,-0.03618541,0.1942639,-0.13764246,-0.0647115,-0.050406225,-0.032172397,-0.041997034,0.012213094,0.026136799,-0.02400212,-0.01707356,-0.0010717378,0.02582985,0.086273074,-0.009924691,3.0,1.0808079,-3.0,3.0,0.21251082,-3.0,-3.0,-0.26005673,-3.0,-3.0,1.4839906,-3.0,3.0,1.2366623,-3.0,3.0,0.25365806,-3.0,-3.0,-0.14078784,-3.0,-3.0,1.0149522,-3.0
2025-06-06 11:39:49.762,0.006873203,-0.011969458,0.0086665815,0.054567315,0.028659854,0.015492773,0.0,0.0,0.0,-0.0028631543,0.025161315,0.2858858,-0.13501525,0.1109342,0.10333691,-0.26343805,-0.11121869,0.00086245144,-0.22088064,-0.04568148,0.18589571,-0.13206778,-0.06862303,0.04424616,-0.034709092,0.062611006,-0.055972468,0.06693945,0.03498209,0.047393873,-0.03156926,0.0023746442,-0.042039685,0.041068427,3.0,1.2366623,-3.0,3.0,0.25365806,-3.0,-3.0,-0.14078784,-3.0,-3.0,1.0149522,-3.0,3.0,1.2387079,-3.0,3.0,0.39789683,-3.0,-3.0,-0.2669179,-3.0,-3.0,1.2854329,-3.0
2025-06-06 11:39:49.782,0.023300583,-0.017091533,-0.022557849,0.031997386,-0.017611187,0.036958363,0.0,0.0,0.0,-0.002802054,0.034555886,0.30077738,-0.13703088,0.118858196,0.1175238,-0.26247844,-0.11497689,0.011203649,-0.20045094,-0.042922217,0.19023001,-0.13375667,-0.06511423,0.001301106,-0.0071370793,0.06251255,-0.03455117,-0.056438472,-0.008083516,-0.036040902,0.03051165,0.06924715,0.03902069,0.03832725,3.0,1.2387079,-3.0,3.0,0.39789683,-3.0,-3.0,-0.2669179,-3.0,-3.0,1.2854329,-3.0,3.0,1.2620125,-3.0,3.0,0.31369781,-3.0,-3.0,-0.20451972,-3.0,-3.0,1.1942033,-3.0
2025-06-06 11:39:49.803,-0.009582423,0.014387895,0.039644666,0.023247069,0.045246024,-0.007158729,0.0,0.0,0.0,-0.002907628,0.026301133,0.3008068,-0.1300269,0.11395549,0.10570677,-0.25813836,-0.10632402,0.0048649134,-0.20929383,-0.040012594,0.18799269,-0.13076591,0.012516255,0.008594233,0.002487259,-0.057209533,-0.04580125,0.010396657,0.04727857,0.017794577,0.028747767,-0.015457423,-0.014396651,0.04288166,3.0,1.2620125,-3.0,3.0,0.31369781,-3.0,-3.0,-0.20451972,-3.0,-3.0,1.1942033,-3.0,3.0,1.1598322,-3.0,3.0,0.37098473,-3.0,-3.0,-0.31269515,-3.0,-3.0,1.5177667,-3.0
2025-06-06 11:39:49.822,-0.022414228,0.008112942,0.039456196,0.05959646,-0.019724593,0.02390831,0.0,0.0,0.0,-0.0030975481,0.018789252,0.30892876,-0.12991902,0.10997372,0.11701292,-0.25642398,-0.11036015,0.00045629925,-0.20896932,-0.04699808,0.18743204,-0.13139185,-0.0473481,-0.06426131,0.018470395,-0.03064893,0.075333744,0.058191054,0.045574315,-0.038489822,0.046678394,0.038916398,0.07770039,0.057130605,3.0,1.1598322,-3.0,3.0,0.37098473,-3.0,-3.0,-0.31269515,-3.0,-3.0,1.5177667,-3.0,3.0,0.99231607,-3.0,3.0,0.256693,-3.0,-3.0,-0.39736807,-3.0,-3.0,1.7931404,-3.0
2025-06-06 11:39:49.842,0.057089865,-0.071444884,-0.06829692,-0.025245328,0.0025891375,0.03754004,0.0,0.0,0.0,-0.0030759727,0.024645913,0.29497784,-0.1192979,0.11492729,0.123547256,-0.24613269,-0.109446235,0.0030523415,-0.19790117,-0.033107363,0.20686933,-0.14041445,0.033749554,0.0005441983,0.0044567306,-0.003928792,0.01877378,-0.005910852,-0.01968712,-0.019890785,-0.042128272,0.015228878,-0.041996926,-0.0795519,3.0,0.99231607,-3.0,3.0,0.256693,-3.0,-3.0,-0.39736807,-3.0,-3.0,1.7931404,-3.0,3.0,1.1455696,-3.0,3.0,0.17637545,-3.0,-3.0,-0.11113055,-3.0,-3.0,0.92831296,-3.0
2025-06-06 11:39:49.862,-0.025254086,0.040157016,-0.015661288,-0.0032800143,0.006739953,0.011058733,0.0,0.0,0.0,-0.0024804098,0.019339215,0.29740915,-0.11943267,0.11824498,0.11843128,-0.25625667,-0.11106427,0.015983552,-0.20848559,-0.039666582,0.19583847,-0.15069841,-0.038187098,0.06853756,-0.018873153,0.06905042,0.011572881,-0.072073944,-0.0656761,-0.042032357,0.024180766,0.058036927,0.014154775,-0.02137652,3.0,1.1455696,-3.0,3.0,0.17637545,-3.0,-3.0,-0.11113055,-3.0,-3.0,0.92831296,-3.0,3.0,1.2697368,-3.0,3.0,0.31369936,-3.0,-3.0,-0.3061767,-3.0,-3.0,1.1500387,-3.0
2025-06-06 11:39:49.883,0.023564488,0.057607934,0.058880266,0.0008501102,-0.04328694,-0.035071604,0.0,0.0,0.0,-0.0022483212,0.02547681,0.30247286,-0.12299555,0.11438562,0.104798004,-0.25639832,-0.11457971,0.008756891,-0.20669068,-0.029893264,0.19155592,-0.14414537,0.06676169,-0.04666502,-0.014024475,-0.056886084,-0.05199695,0.002820824,-0.045279153,-0.010863226,-0.06372654,-0.0025821293,0.017812528,0.031841677,3.0,1.2697368,-3.0,3.0,0.31369936,-3.0,-3.0,-0.3061767,-3.0,-3.0,1.1500387,-3.0,3.0,1.077076,-3.0,3.0,0.28608787,-3.0,-3.0,-0.35408443,-3.0,-3.0,1.6541057,-3.0
2025-06-06 11:39:49.903,0.030413168,-0.00066290464,-0.05478737,0.018801874,-0.037206586,0.028013395,0.0,0.0,0.0,-0.002424454,0.023896433,0.3047358,-0.12602049,0.12901711,0.11536914,-0.26570764,-0.11426171,0.0022509948,-0.21069781,-0.045378733,0.1953555,-0.14576878,-0.030068278,0.04886727,0.037730567,-0.051238474,-0.030452123,-0.016562205,-0.023718113,0.006522711,-0.044657674,0.004757765,0.026654344,-0.007250112,3.0,1.077076,-3.0,3.0,0.28608787,-3.0,-3.0,-0.35408443,-3.0,-3.0,1.6541057,-3.0,3.0,1.2352676,-3.0,3.0,0.24847037,-3.0,-3.0,-0.11459777,-3.0,-3.0,0.90638137,-3.0
2025-06-06 11:39:49.922,-0.019628657,-0.040058978,-0.011390023,0.050593134,-0.0020849612,-0.006877913,0.0,0.0,0.0,-0.0022844847,0.018908437,0.28725517,-0.11933621,0.12266674,0.09650195,-0.25224227,-0.10220782,0.009722496,-0.20759301,-0.03481114,0.20139143,-0.14779255,-0.0645572,0.04934161,-0.07389729,0.019323722,-0.0736692,0.023671875,0.041667167,-0.05257003,0.06171908,0.017678788,0.021985872,0.035778914,3.0,1.2352676,-3.0,3.0,0.24847037,-3.0,-3.0,-0.11459777,-3.0,-3.0,0.90638137,-3.0,3.0,1.2671134,-3.0,3.0,0.40118045,-3.0,-3.0,-0.29219338,-3.0,-3.0,1.271349,-3.0
2025-06-06 11:39:49.942,0.020465935,-0.012431504,0.058034196,-0.022884136,-0.0047282022,-0.0019886873,0.0,0.0,0.0,-0.0024651408,0.027991643,0.2910141,-0.11749073,0.12633601,0.09575327,-0.2587782,-0.11729588,-0.0059788954,-0.2130181,-0.043368924,0.18153076,-0.14114425,-0.044758428,-0.015350175,-0.048738956,-0.037011195,-0.0026832148,0.05603895,0.06879379,-0.06753024,-0.06565301,-0.02146856,-0.015718773,-0.023935135,3.0,1.2671134,-3.0,3.0,0.40118045,-3.0,-3.0,-0.29219338,-3.0,-3.0,1.271349,-3.0,3.0,1.0171767,-3.0,3.0,0.38133657,-3.0,-3.0,-0.29462424,-3.0,-3.0,1.5775251,-3.0
2025-06-06 11:39:49.962,-0.008411567,-0.036020175,0.035289448,-0.0019076628,0.008172649,-0.04728798,0.0,0.0,0.0,-0.0028190727,0.03680158,0.28208047,-0.13010381,0.12735227,0.09564941,-0.273739,-0.11628524,0.012387441,-0.20815161,-0.04701948,0.19895457,-0.14451231,0.00014319955,-0.027006298,0.028531756,-0.041149907,-0.038565934,0.019953007,-0.036849253,-0.056202196,-0.04786163,-0.06837914,0.06978159,-0.0067132125,3.0,1.0171767,-3.0,3.0,0.38133657,-3.0,-3.0,-0.29462424,-3.0,-3.0,1.5775251,-3.0,3.0,1.0497717,-3.0,3.0,0.35158432,-3.0,-3.0,-0.25935873,-3.0,-3.0,1.4032083,-3.0
2025-06-06 11:39:49.984,0.030095208,-0.022810582,-0.04915747,0.017891396,-0.026547192,0.014733161,0.0,0.0,0.0,-0.002769581,0.022566088,0.28052953,-0.11072451,0.11349269,0.11170263,-0.27228796,-0.11154799,-0.0025660885,-0.21367136,-0.03800939,0.19739082,-0.14410332,-0.0018201082,-0.06261925,0.025825912,-0.050181977,-0.0036621077,0.023341695,-0.0669884,0.033917785,-0.057017215,-0.025570363,0.051218912,-0.070286274,3.0,1.0497717,-3.0,3.0,0.35158432,-3.0,-3.0,-0.25935873,-3.0,-3.0,1.4032083,-3.0,3.0,1.2292984,-3.0,3.0,0.18441403,-3.0,-3.0,-0.19950268,-3.0,-3.0,1.0238743,-3.0
2025-06-06 11:39:50.003,-0.044538975,0.036583234,0.000743352,0.007892522,0.021096803,0.005111102,0.0,0.0,0.0,-0.0024647932,0.020760536,0.28801942,-0.1265236,0.13154444,0.09801932,-0.25691882,-0.11353862,0.009051962,-0.21872379,-0.037156142,0.19820999,-0.15799649,0.060050454,-0.013030669,-0.064658396,-0.04008712,0.052181877,-0.007844778,0.04080455,0.0009962782,-0.0038976406,-0.01180516,0.020127235,0.0139283165,3.0,1.2292984,-3.0,3.0,0.18441403,-3.0,-3.0,-0.19950268,-3.0,-3.0,1.0238743,-3.0,3.0,1.2161129,-3.0,3.0,0.32301474,-3.0,-3.0,-0.25879237,-3.0,-3.0,1.2587342,-3.0
2025-06-06 11:39:50.023,-0.008802492,0.019624708,-0.036991104,-0.0019486016,0.041956253,-0.017721273,0.0,0.0,0.0,-0.00248508,0.037423685,0.27941382,-0.1207264,0.12364213,0.09437446,-0.272388,-0.10147063,-0.0022144625,-0.21273138,-0.029692203,0.18550275,-0.14992589,0.051577054,0.042029284,-0.035777584,-0.05261228,-0.023733055,-0.0409119,-0.00083092443,0.03224688,0.026642837,-0.02354779,-0.07785102,0.03647656,3.0,1.2161129,-3.0,3.0,0.32301474,-3.0,-3.0,-0.25879237,-3.0,-3.0,1.2587342,-3.0,3.0,1.2924284,-3.0,3.0,0.28760636,-3.0,-3.0,-0.1604686,-3.0,-3.0,0.9768428,-3.0
2025-06-06 11:39:50.043,-0.026110878,0.024723958,0.069616124,-0.012131635,0.021999143,0.022604534,0.0,0.0,0.0,-0.0026846367,0.023218405,0.2746503,-0.113892816,0.12607513,0.09310599,-0.26059988,-0.09793702,0.0022932766,-0.21582185,-0.040534485,0.18967181,-0.14027394,-0.03869015,-0.018237075,-0.012325457,-0.033163514,0.013167267,-0.04168292,-0.054586187,0.029834349,-0.07280911,-0.06360264,-0.046093985,0.0016067564,3.0,1.2924284,-3.0,3.0,0.28760636,-3.0,-3.0,-0.1604686,-3.0,-3.0,0.9768428,-3.0,3.0,1.0828311,-3.0,3.0,0.41733128,-3.0,-3.0,-0.35874462,-3.0,-3.0,1.523366,-3.0
2025-06-06 11:39:50.063,0.005728674,-0.010993928,0.015660034,0.028726712,-0.03312538,-0.033746645,0.0,0.0,0.0,-0.0031538554,0.026048182,0.2814335,-0.1179861,0.12710497,0.09505795,-0.27184632,-0.10225844,0.0007727343,-0.22358394,-0.041755002,0.19215973,-0.13971968,0.070621446,0.011897831,0.059780054,-0.074662834,-0.020312645,0.058878023,0.06298029,-0.009640944,0.03161888,-0.0068125073,-0.056564532,0.047008295,3.0,1.0828311,-3.0,3.0,0.41733128,-3.0,-3.0,-0.35874462,-3.0,-3.0,1.523366,-3.0,3.0,1.0701976,-3.0,3.0,0.22215408,-3.0,-3.0,-0.23368871,-3.0,-3.0,1.4376688,-3.0
2025-06-06 11:39:50.085,-0.02743124,-0.0002125581,-0.001062534,0.0137687735,-0.047756404,-0.0013026623,0.0,0.0,0.0,-0.003301739,0.024737606,0.2802275,-0.11644748,0.11486339,0.08684798,-0.26469612,-0.11613875,-0.0042462386,-0.22391637,-0.032518517,0.18755208,-0.15517288,0.025953334,0.02139929,0.004558946,0.020455088,-0.022618284,0.055206604,-0.045186587,0.029968178,-0.0450899,0.042221136,-0.010360804,0.04191143,3.0,1.0701976,-3.0,3.0,0.22215408,-3.0,-3.0,-0.23368871,-3.0,-3.0,1.4376688,-3.0,3.0,1.1298345,-3.0,3.0,0.23753834,-3.0,-3.0,-0.21034303,-3.0,-3.0,1.3261714,-3.0
2025-06-06 11:39:50.103,0.0003895384,-0.03382891,-0.0482482,-0.018562282,-0.0319902,0.048172638,0.0,0.0,0.0,-0.003092252,0.02609304,0.26678258,-0.11038884,0.12708646,0.08253163,-0.28003865,-0.10379466,-0.004938438,-0.22940584,-0.043797806,0.19198534,-0.16387966,0.00076990126,0.0029690498,0.065376595,0.008913835,0.028804626,0.024195958,0.012386375,-0.03422833,-0.056645937,-0.04220003,0.053357232,-0.02889659,3.0,1.1298345,-3.0,3.0,0.23753834,-3.0,-3.0,-0.21034303,-3.0,-3.0,1.3261714,-3.0,3.0,1.1819775,-3.0,3.0,0.23781055,-3.0,-3.0,-0.16573131,-3.0,-3.0,1.0464422,-3.0
2025-06-06 11:39:50.123,-0.05856257,-0.044222437,0.008079543,0.03471774,0.02670294,-0.035143133,0.0,0.0,0.0,-0.002851822,0.03352698,0.26854,-0.11997672,0.12220639,0.094171435,-0.2668242,-0.10204979,0.0041256305,-0.22551753,-0.03625567,0.1935558,-0.16529006,0.019979866,-0.075348996,-0.033432063,-0.031172674,-0.02586496,-0.07338679,0.021399777,-0.043034818,0.0019769194,-0.04210766,-0.026523517,-0.029486371,3.0,1.1819775,-3.0,3.0,0.23781055,-3.0,-3.0,-0.16573131,-3.0,-3.0,1.0464422,-3.0,3.0,1.1826361,-3.0,3.0,0.3267548,-3.0,-3.0,-0.25636676,-3.0,-3.0,1.2564949,-3.0
2025-06-06 11:39:50.143,-0.04840887,-0.011806255,0.014990216,-0.0063070017,0.021260923,-0.038116436,0.0,0.0,0.0,-0.0028926479,0.027255366,0.2639651,-0.11017793,0.1191492,0.07970882,-0.2678328,-0.1069279,0.004351476,-0.21982144,-0.028387528,0.18999545,-0.1472721,-0.033603374,-0.043757107,-0.01889158,0.040939864,0.015045963,-0.048855167,-0.04542538,0.03270676,-0.031394444,-0.018153483,-0.071653016,0.00612245,3.0,1.1826361,-3.0,3.0,0.3267548,-3.0,-3.0,-0.25636676,-3.0,-3.0,1.2564949,-3.0,3.0,1.1351783,-3.0,3.0,0.28454024,-3.0,-3.0,-0.23490418,-3.0,-3.0,1.3090969,-3.0
2025-06-06 11:39:50.163,0.014142222,-0.03507005,0.013741317,0.046325713,-0.020333797,-0.04439961,0.0,0.0,0.0,-0.0030081812,0.02510025,0.2647546,-0.10390746,0.1166328,0.09163656,-0.27941096,-0.10454469,-0.012010239,-0.23441707,-0.045211025,0.17982301,-0.15053841,-0.059757955,0.03167776,-0.016514374,-0.019769596,-0.072202094,-0.03402476,0.047607414,-0.043906733,0.011677843,-0.058256306,0.004419664,-0.06823787,3.0,1.1351783,-3.0,3.0,0.28454024,-3.0,-3.0,-0.23490418,-3.0,-3.0,1.3090969,-3.0,3.0,1.0985385,-3.0,3.0,0.32654613,-3.0,-3.0,-0.23739648,-3.0,-3.0,1.3005518,-3.0
2025-06-06 11:39:50.186,0.04057166,-0.04090494,-0.047060616,0.021251235,0.012771759,0.045310006,0.0,0.0,0.0,-0.0030175715,0.025780587,0.26674846,-0.112596475,0.12893093,0.07731608,-0.27355057,-0.108154394,-0.010959279,-0.23083195,-0.04643822,0.17679405,-0.15499483,0.017515497,0.020681487,-0.027152777,-0.06555735,-0.024811398,-0.03028256,-0.074677214,0.06897972,-0.0533649,-0.017480632,0.054851387,0.0038467927,3.0,1.0985385,-3.0,3.0,0.32654613,-3.0,-3.0,-0.23739648,-3.0,-3.0,1.3005518,-3.0,3.0,1.2999531,-3.0,3.0,0.22531015,-3.0,-3.0,-0.19739442,-3.0,-3.0,0.85959375,-3.0
2025-06-06 11:39:50.203,-0.026086252,0.06621675,0.022184934,0.004059847,0.04411303,-0.028229652,0.0,0.0,0.0,-0.002915413,0.024449073,0.25863093,-0.11075452,0.12299147,0.08628201,-0.27628526,-0.1052174,0.001742101,-0.22477423,-0.045455348,0.18506241,-0.16009548,0.06271846,-0.04463275,0.022389276,-0.0057849237,0.059669938,-0.029505478,0.0487468,0.0029592176,0.033036202,-0.041861836,0.020163909,-0.035653196,3.0,1.2999531,-3.0,3.0,0.22531015,-3.0,-3.0,-0.19739442,-3.0,-3.0,0.85959375,-3.0,3.0,1.1422606,-3.0,3.0,0.29781365,-3.0,-3.0,-0.3175803,-3.0,-3.0,1.4011935,-3.0
2025-06-06 11:39:50.223,0.007856499,0.030989103,-0.016322015,0.0010385074,0.040264316,-0.02351368,0.0,0.0,0.0,-0.0031387848,0.027215712,0.25699666,-0.114885606,0.12551898,0.0863504,-0.27559626,-0.11478323,-0.01138184,-0.22627744,-0.035137948,0.18046871,-0.15514886,-0.06545388,-0.017491752,0.075002536,0.030701222,0.04880093,-0.06345652,-0.0058213687,-0.025389267,-0.044591907,-0.03749225,0.07241116,-0.016934365,3.0,1.1422606,-3.0,3.0,0.29781365,-3.0,-3.0,-0.3175803,-3.0,-3.0,1.4011935,-3.0,3.0,1.1100405,-3.0,3.0,0.27934676,-3.0,-3.0,-0.2049206,-3.0,-3.0,1.176071,-3.0
2025-06-06 11:39:50.243,0.04070255,0.039273523,0.044307288,0.03519837,0.011708747,0.0071285195,0.0,0.0,0.0,-0.0032612374,0.035188343,0.26285762,-0.11080866,0.12022087,0.06840545,-0.26828912,-0.111306205,0.002950144,-0.22781937,-0.03977001,0.17605042,-0.15880091,-0.015445099,-0.041674268,0.050597962,0.00038319212,-0.0072350875,0.056885827,-0.044052716,0.022269139,0.04089532,0.0024302406,-0.035289407,0.056951974,3.0,1.1100405,-3.0,3.0,0.27934676,-3.0,-3.0,-0.2049206,-3.0,-3.0,1.176071,-3.0,3.0,1.1274909,-3.0,3.0,0.24038118,-3.0,-3.0,-0.33133623,-3.0,-3.0,1.5136706,-3.0
2025-06-06 11:39:50.263,-0.025959298,-0.03762959,-0.04435634,0.03598509,-0.019414686,-0.0049394923,0.0,0.0,0.0,-0.0032589028,0.038008854,0.26722494,-0.11316742,0.12952939,0.06787587,-0.2832235,-0.10640638,0.0020662143,-0.22906947,-0.031726714,0.1757946,-0.16746052,0.0025487873,0.018342556,0.005464159,0.04181818,0.043383982,-0.030754838,0.04647545,0.059860628,-0.07483203,-0.007886075,-0.007383736,0.009584266,3.0,1.1274909,-3.0,3.0,0.24038118,-3.0,-3.0,-0.33133623,-3.0,-3.0,1.5136706,-3.0,3.0,1.1817533,-3.0,3.0,0.24440342,-3.0,-3.0,-0.09866558,-3.0,-3.0,0.9457397,-3.0
2025-06-06 11:39:50.286,0.017092824,0.03247043,0.02926883,0.035373457,-0.033555225,-0.038458854,0.0,0.0,0.0,-0.0029940924,0.037675485,0.2668119,-0.110090874,0.1181318,0.07683796,-0.27516863,-0.10392705,-0.012080611,-0.23910707,-0.030640893,0.16592875,-0.15823932,-0.022811927,-0.0056437613,-0.056835,-0.035222247,0.020238183,-0.009113083,0.04023806,0.042182077,0.06662935,-0.049081787,-0.048008747,-0.049703564,3.0,1.1817533,-3.0,3.0,0.24440342,-3.0,-3.0,-0.09866558,-3.0,-3.0,0.9457397,-3.0,3.0,1.1594298,-3.0,3.0,0.31201702,-3.0,-3.0,-0.3150506,-3.0,-3.0,1.3294964,-3.0
2025-06-06 11:39:50.342,0.042317502,0.02701518,0.012545186,0.07160387,0.0013105723,0.0071927714,0.0,0.0,0.0,-0.0029768762,0.0244461,0.26361826,-0.11230282,0.12227158,0.08458671,-0.28219172,-0.103123896,-0.015345209,-0.24573518,-0.03498803,0.16523321,-0.16546854,0.065312795,-0.06605552,0.062027294,0.020136904,-0.059485838,0.016504964,5.9080267e-06,0.021007482,-0.05307328,-0.031278864,0.019038668,-0.04858129,3.0,1.1594298,-3.0,3.0,0.31201702,-3.0,-3.0,-0.3150506,-3.0,-3.0,1.3294964,-3.0,3.0,1.0954143,-3.0,3.0,0.18432766,-3.0,-3.0,-0.23199785,-3.0,-3.0,1.3528048,-3.0
2025-06-06 11:39:50.360,0.033026576,-0.011118559,0.03118731,0.0004461927,-0.054314315,-0.021909263,0.0,0.0,0.0,-0.0029810576,0.034280952,0.2666338,-0.10544812,0.117895946,0.08044435,-0.26513144,-0.11675662,-0.002385728,-0.24116597,-0.043174166,0.17214614,-0.16809656,-0.05361331,0.061205465,-0.06319097,-0.040116783,-0.03847965,0.04492518,0.01883979,-0.06530474,0.009541491,-0.0027246198,0.06939649,-0.015878076,3.0,1.0954143,-3.0,3.0,0.18432766,-3.0,-3.0,-0.23199785,-3.0,-3.0,1.3528048,-3.0,3.0,1.0494674,-3.0,3.0,0.35071504,-3.0,-3.0,-0.2662945,-3.0,-3.0,1.4125451,-3.0
2025-06-06 11:39:50.381,0.0070607765,-0.036585424,0.014002605,-0.0020408146,-0.0054986794,-0.04324624,0.0,0.0,0.0,-0.0028330223,0.03295443,0.24769962,-0.10963042,0.11346974,0.081802726,-0.26697576,-0.106259525,-0.009514062,-0.24427776,-0.027415495,0.17185362,-0.17073992,0.052630424,-0.06342007,0.0018837509,0.030315204,-0.042667463,0.051030714,-0.049655244,-0.06947798,-0.028497381,0.049671065,-0.0057732137,-0.0070755393,3.0,1.0494674,-3.0,3.0,0.35071504,-3.0,-3.0,-0.2662945,-3.0,-3.0,1.4125451,-3.0,3.0,1.0252945,-3.0,3.0,0.19091392,-3.0,-3.0,-0.25197923,-3.0,-3.0,1.4497617,-3.0
2025-06-06 11:39:50.403,0.054179557,-0.01820724,-0.019898882,0.010488815,0.013968777,0.034238037,0.0,0.0,0.0,-0.0025017506,0.03441511,0.2560863,-0.101134434,0.12174363,0.069830135,-0.26929918,-0.10239573,-0.0010455674,-0.23573552,-0.027722446,0.18230264,-0.15773575,-0.012403151,-0.010857846,-0.052047778,-0.063379064,0.0074768295,-0.029653586,0.05333321,-0.037312884,-0.047466405,0.068212144,-0.015111448,0.020098448,3.0,1.0252945,-3.0,3.0,0.19091392,-3.0,-3.0,-0.25197923,-3.0,-3.0,1.4497617,-3.0,3.0,1.1417274,-3.0,3.0,0.23584849,-3.0,-3.0,-0.17819563,-3.0,-3.0,1.1163257,-3.0
2025-06-06 11:39:50.421,-0.023505492,0.041475847,-0.034390364,0.07250888,0.036868196,0.0122911995,0.0,0.0,0.0,-0.002030749,0.027233643,0.26210144,-0.098684125,0.12955485,0.07732053,-0.26826414,-0.09868851,-0.014537939,-0.25035256,-0.03555364,0.18450361,-0.1625382,0.031952407,-0.059445854,0.033757936,0.06962389,-0.065870985,0.052060436,0.026571468,-0.048489917,0.061478406,0.07180226,-0.043887705,0.023828438,3.0,1.1417274,-3.0,3.0,0.23584849,-3.0,-3.0,-0.17819563,-3.0,-3.0,1.1163257,-3.0,3.0,1.2455148,-3.0,3.0,0.13006729,-3.0,-3.0,-0.22750497,-3.0,-3.0,1.2205197,-3.0
2025-06-06 11:39:50.440,-0.024926899,-0.0018845408,0.048682306,0.04021989,-0.0048166607,0.039118458,0.0,0.0,0.0,-0.0018197548,0.029936163,0.25830498,-0.10230504,0.12791981,0.0719759,-0.25865716,-0.09623918,-0.0008051115,-0.24515238,-0.034165643,0.18096572,-0.16364297,-0.02559795,-0.05618444,0.033827033,-0.06702958,-0.07512607,-0.047692217,0.00235891,-0.048877027,0.07185545,-0.01242558,-0.06795744,-0.008665045,3.0,1.2455148,-3.0,3.0,0.13006729,-3.0,-3.0,-0.22750497,-3.0,-3.0,1.2205197,-3.0,3.0,1.0739094,-3.0,3.0,0.27839142,-3.0,-3.0,-0.2741684,-3.0,-3.0,1.5410744,-3.0
2025-06-06 11:39:50.460,0.013418623,-0.024108186,-0.054617815,0.03829231,0.0028355701,-0.040867936,0.0,0.0,0.0,-0.0019227548,0.034836166,0.2504808,-0.111239135,0.11366228,0.065898,-0.26888376,-0.114108846,-0.0155471545,-0.24460503,-0.027318832,0.18371414,-0.16599517,0.02680995,-0.036941387,-0.0016819139,-0.0572232,0.01990928,-0.018854937,-0.03214894,0.06516907,0.061034877,0.025290208,0.006739668,-0.058364302,3.0,1.0739094,-3.0,3.0,0.27839142,-3.0,-3.0,-0.2741684,-3.0,-3.0,1.5410744,-3.0,3.0,1.1825922,-3.0,3.0,0.13125885,-3.0,-3.0,-0.16107582,-3.0,-3.0,0.99891955,-3.0
2025-06-06 11:39:50.480,0.008554601,-0.009434331,0.037599605,-0.0022090927,-0.029839996,-0.027947925,0.0,0.0,0.0,-0.0018769972,0.033785902,0.26548484,-0.117161274,0.12702252,0.071181744,-0.26303124,-0.11173997,-0.016946353,-0.23581798,-0.035490733,0.17369385,-0.15833074,-0.04371847,-5.105011e-05,0.004728041,-0.023616165,0.04670033,-0.026409458,-0.037199873,0.02383095,-0.03616935,-0.051431425,-0.027365386,-0.017152486,3.0,1.1825922,-3.0,3.0,0.13125885,-3.0,-3.0,-0.16107582,-3.0,-3.0,0.99891955,-3.0,3.0,1.090313,-3.0,3.0,0.31349742,-3.0,-3.0,-0.29909933,-3.0,-3.0,1.3592987,-3.0
2025-06-06 11:39:50.504,0.023661055,-0.015666556,0.009889872,0.07342531,-0.018395258,-0.041677266,0.0,0.0,0.0,-0.0020640912,0.028124975,0.2602639,-0.10648996,0.11981014,0.07597832,-0.27869678,-0.102961324,-0.012951743,-0.23105025,-0.027269775,0.17226258,-0.169384,0.030579979,-0.034127597,-0.001599707,0.018418053,0.035443798,-0.030299064,0.047161717,-0.03538927,-0.0060925256,-0.059305966,0.052852344,-0.050168734,3.0,1.090313,-3.0,3.0,0.31349742,-3.0,-3.0,-0.29909933,-3.0,-3.0,1.3592987,-3.0,3.0,1.0465224,-3.0,3.0,0.23327136,-3.0,-3.0,-0.24260274,-3.0,-3.0,1.3642354,-3.0
2025-06-06 11:39:50.520,-0.03743344,-0.039273635,-0.013619348,0.052161496,-0.035278827,-0.041185968,0.0,0.0,0.0,-0.002241819,0.017348722,0.26406083,-0.10298962,0.12439094,0.08220636,-0.2675204,-0.10326619,-0.0010040501,-0.24828765,-0.04182398,0.17035015,-0.16086257,0.04046435,0.0002272917,0.008275651,0.030469878,-0.0066901916,0.013424721,-0.042727903,-0.0691954,0.065676525,0.047610313,-0.018174486,-0.046087824,3.0,1.0465224,-3.0,3.0,0.23327136,-3.0,-3.0,-0.24260274,-3.0,-3.0,1.3642354,-3.0,3.0,1.1120425,-3.0,3.0,0.1125577,-3.0,-3.0,-0.2369671,-3.0,-3.0,1.2954532,-3.0
2025-06-06 11:39:50.540,-0.018132249,-0.0055693015,-0.03142524,-0.01638781,0.004394255,-0.041519754,0.0,0.0,0.0,-0.0022306114,0.022270579,0.25401333,-0.10563346,0.12417809,0.06608989,-0.2637299,-0.11152049,-0.013038708,-0.23979594,-0.033534084,0.1871342,-0.16825767,0.03798324,0.06050091,-0.046995506,-0.018947711,0.0033821529,-0.037535246,0.01627086,0.06907368,-0.059230547,-0.06235411,-0.007988909,-0.037407387,3.0,1.1120425,-3.0,3.0,0.1125577,-3.0,-3.0,-0.2369671,-3.0,-3.0,1.2954532,-3.0,3.0,1.1704569,-3.0,3.0,0.28455,-3.0,-3.0,-0.17007668,-3.0,-3.0,0.96675205,-3.0
2025-06-06 11:39:50.561,0.036082268,0.065597795,0.052894965,0.012389416,-0.025094217,-0.03433967,0.0,0.0,0.0,-0.002214662,0.024467895,0.2666868,-0.112271406,0.112907186,0.063526236,-0.2768623,-0.1072403,-0.004250236,-0.23091312,-0.030046536,0.18490835,-0.15307315,-0.06644843,-0.0252894,-0.0031646816,-0.017828614,0.007665778,0.017823223,-0.06888169,-0.020603174,-0.028594064,0.07220361,0.018838963,-0.023800429,3.0,1.1704569,-3.0,3.0,0.28455,-3.0,-3.0,-0.17007668,-3.0,-3.0,0.96675205,-3.0,3.0,1.0570879,-3.0,3.0,0.2542212,-3.0,-3.0,-0.39645782,-3.0,-3.0,1.6094078,-3.0
2025-06-06 11:39:50.580,-0.011749696,-0.012110435,0.013189211,0.032541126,-0.041904733,-0.030069996,0.0,0.0,0.0,-0.0024861647,0.02026517,0.26990408,-0.11017485,0.12833026,0.06770006,-0.26634222,-0.10172848,-0.015465053,-0.22860773,-0.044726547,0.16996863,-0.15167226,0.059235465,-0.049427412,0.033194065,-0.032677785,-0.041204628,0.017115463,0.0069210674,-0.021111174,0.040469624,-0.028164573,-0.0077785207,-0.036957707,3.0,1.0570879,-3.0,3.0,0.2542212,-3.0,-3.0,-0.39645782,-3.0,-3.0,1.6094078,-3.0,3.0,1.0369127,-3.0,3.0,0.14423513,-3.0,-3.0,-0.21126226,-3.0,-3.0,1.3937715,-3.0
2025-06-06 11:39:50.604,-0.0019171208,0.031032123,-0.060487494,-0.012058329,0.010851618,0.03965824,0.0,0.0,0.0,-0.0024502806,0.022931071,0.2573232,-0.11295812,0.118413284,0.06539599,-0.27673015,-0.114027634,-0.018899625,-0.23528576,-0.04027595,0.17472927,-0.15792665,0.045808684,0.028110784,0.03759417,-0.03809167,0.033460416,-0.02819735,0.067682475,-0.054120924,-0.032866493,-0.008677728,0.07276959,0.013725001,3.0,1.0369127,-3.0,3.0,0.14423513,-3.0,-3.0,-0.21126226,-3.0,-3.0,1.3937715,-3.0,3.0,1.2091413,-3.0,3.0,0.21739155,-3.0,-3.0,-0.15888487,-3.0,-3.0,0.925641,-3.0
2025-06-06 11:39:50.621,0.033471618,0.033463415,0.030506924,0.064548925,-0.01633746,-0.030549161,0.0,0.0,0.0,-0.0021901336,0.034082495,0.25575098,-0.10282308,0.123624384,0.08209763,-0.26539126,-0.1086994,-0.00798125,-0.23059434,-0.043855757,0.18170874,-0.16009703,-0.048607476,0.011691241,-0.06758438,-0.009141995,0.05744854,0.036817282,0.0028523495,-0.013250518,0.035583306,0.05019052,-0.0426409,-0.0139085725,3.0,1.2091413,-3.0,3.0,0.21739155,-3.0,-3.0,-0.15888487,-3.0,-3.0,0.925641,-3.0,3.0,1.1187776,-3.0,3.0,0.27268946,-3.0,-3.0,-0.3427027,-3.0,-3.0,1.4464325,-3.0
2025-06-06 11:39:50.641,0.000696579,-0.037027027,0.0030634298,0.0049375915,-0.038877446,0.047723524,0.0,0.0,0.0,-0.0023293553,0.03139297,0.26787546,-0.11881026,0.1145014,0.07237359,-0.260681,-0.11062986,-0.015844565,-0.23902175,-0.04408286,0.17676027,-0.15707259,-0.06747529,-0.049706977,0.0634381,0.007849672,0.029037472,-0.047488358,0.040149752,-0.0029333974,-0.019939613,-0.023950325,-0.06351899,0.04018996,3.0,1.1187776,-3.0,3.0,0.27268946,-3.0,-3.0,-0.3427027,-3.0,-3.0,1.4464325,-3.0,3.0,1.104455,-3.0,3.0,0.24666381,-3.0,-3.0,-0.16800249,-3.0,-3.0,1.2535607,-3.0
2025-06-06 11:39:50.661,0.01012917,-0.026075428,0.035233192,0.018715024,-0.03890772,0.046992883,0.0,0.0,0.0,-0.002413908,0.024167623,0.2564258,-0.11057003,0.12916076,0.07529648,-0.2786841,-0.105486706,-0.0063531324,-0.23333316,-0.04117066,0.18954897,-0.15873338,0.0015105709,0.0378392,-0.02835076,0.03632457,-0.012115054,0.017781522,0.060274687,0.011273921,0.054416023,-0.04874949,-0.050108064,0.0008064486,3.0,1.104455,-3.0,3.0,0.24666381,-3.0,-3.0,-0.16800249,-3.0,-3.0,1.2535607,-3.0,3.0,1.0851965,-3.0,3.0,0.32702023,-3.0,-3.0,-0.26245886,-3.0,-3.0,1.4280287,-3.0
2025-06-06 11:39:50.681,-0.01883987,-0.04967796,-0.056436576,0.027581604,-0.033591647,2.377646e-05,0.0,0.0,0.0,-0.0024484156,0.023036951,0.2590413,-0.11545276,0.12691449,0.067841806,-0.2734686,-0.107159585,-0.010692842,-0.2430942,-0.032128464,0.18078166,-0.15812723,0.015352086,0.042863056,0.07453048,0.06716227,-0.020869372,-0.0015226313,-0.019309035,-0.038668282,0.0651902,0.026611121,-0.0014596629,-0.010313291,3.0,1.0851965,-3.0,3.0,0.32702023,-3.0,-3.0,-0.26245886,-3.0,-3.0,1.4280287,-3.0,3.0,1.1834358,-3.0,3.0,0.14712465,-3.0,-3.0,-0.17328557,-3.0,-3.0,1.0556428,-3.0
2025-06-06 11:39:50.704,-0.040482562,0.057219226,0.023404004,0.041479558,-0.056232426,0.038759753,0.0,0.0,0.0,-0.0023678232,0.02216029,0.25695232,-0.10238061,0.11215914,0.07902762,-0.27965847,-0.10939249,-0.0035136347,-0.23787545,-0.028685668,0.18568951,-0.16763477,-0.029936183,0.043217886,-0.052470606,-0.014538288,-0.0323125,0.022964593,0.03238699,-0.023351396,-0.056586675,-0.048445337,0.030326633,0.02433586,3.0,1.1834358,-3.0,3.0,0.14712465,-3.0,-3.0,-0.17328557,-3.0,-3.0,1.0556428,-3.0,3.0,1.1360943,-3.0,3.0,0.39070135,-3.0,-3.0,-0.2686933,-3.0,-3.0,1.3522753,-3.0
2025-06-06 11:39:50.721,0.048797898,-0.033077423,-0.0033803002,0.06528317,-0.016189445,0.028117927,0.0,0.0,0.0,-0.0024913964,0.030199695,0.26926345,-0.109104246,0.11387701,0.079785936,-0.27037254,-0.10480982,-0.0047211493,-0.22651662,-0.036191516,0.1795506,-0.15452941,-0.00423926,0.070709996,0.0075163427,-0.06888113,0.07476587,-0.03998269,-0.0007957146,-0.07125973,0.061215788,0.0043305065,0.06298948,-0.01766041,3.0,1.1360943,-3.0,3.0,0.39070135,-3.0,-3.0,-0.2686933,-3.0,-3.0,1.3522753,-3.0,3.0,1.1205053,-3.0,3.0,0.24380124,-3.0,-3.0,-0.2672172,-3.0,-3.0,1.3035606,-3.0
2025-06-06 11:39:50.741,-0.0076536466,0.0186374,-0.0064855763,-0.0002422129,0.035616547,-0.033235345,0.0,0.0,0.0,-0.0026034657,0.032786664,0.2759138,-0.10791639,0.119185105,0.07200881,-0.27761164,-0.10041032,-0.0042906166,-0.22877653,-0.035075642,0.17517133,-0.16717875,0.036327895,-0.054739673,-0.07563565,-0.059890144,0.027007291,-0.033585787,0.0051460066,0.008483808,-0.0027858,-0.022719603,-0.059223037,0.042653184,3.0,1.1205053,-3.0,3.0,0.24380124,-3.0,-3.0,-0.2672172,-3.0,-3.0,1.3035606,-3.0,3.0,1.202666,-3.0,3.0,0.22606218,-3.0,-3.0,-0.20666622,-3.0,-3.0,1.1414766,-3.0
2025-06-06 11:39:50.761,-0.026222577,0.011645351,0.0016528119,0.008514954,-0.023059586,0.014799847,0.0,0.0,0.0,-0.0025899585,0.020258732,0.26373598,-0.109184705,0.121897444,0.075132854,-0.26897764,-0.099099204,-0.0018469766,-0.22826713,-0.026980506,0.18865086,-0.1672777,0.05336275,0.012050453,0.0053337603,-0.00044049977,0.026391223,0.06772187,0.071360715,-0.070582695,-0.012015266,0.06129529,0.06431511,0.025614891,3.0,1.202666,-3.0,3.0,0.22606218,-3.0,-3.0,-0.20666622,-3.0,-3.0,1.1414766,-3.0,3.0,1.0834262,-3.0,3.0,0.26303607,-3.0,-3.0,-0.27082074,-3.0,-3.0,1.4973247,-3.0
2025-06-06 11:39:50.781,-0.0065724547,0.02574998,-0.047580875,0.04401475,0.039436642,0.023871338,0.0,0.0,0.0,-0.0027145129,0.028724784,0.27059314,-0.10907521,0.13094342,0.07934716,-0.27088493,-0.11357726,-0.005834446,-0.23787512,-0.038217906,0.17939119,-0.15516569,-0.046145625,0.052933283,-0.055939514,0.0017368516,0.075131215,-0.029277345,-0.05167837,0.02572983,-0.039240945,0.05375509,0.043472063,-0.026573125,3.0,1.0834262,-3.0,3.0,0.26303607,-3.0,-3.0,-0.27082074,-3.0,-3.0,1.4973247,-3.0,3.0,1.2198539,-3.0,3.0,0.2041241,-3.0,-3.0,-0.19006324,-3.0,-3.0,0.9207459,-3.0
2025-06-06 11:39:50.804,0.027501974,0.058530122,-0.009814506,0.07252478,-0.027281657,-0.005722285,0.0,0.0,0.0,-0.0026913905,0.024353152,0.26919478,-0.11133926,0.12752643,0.08614037,-0.26686364,-0.10747615,-0.014419865,-0.22622071,-0.03445232,0.19228677,-0.14924304,0.079297565,0.0039784424,0.05092156,0.0053322087,0.012955262,-0.007867309,-0.017886268,-0.0031351307,-0.056206435,0.0092781875,0.032235533,0.07003647,3.0,1.2198539,-3.0,3.0,0.2041241,-3.0,-3.0,-0.19006324,-3.0,-3.0,0.9207459,-3.0,3.0,1.216724,-3.0,3.0,0.21865577,-3.0,-3.0,-0.2666568,-3.0,-3.0,1.2928686,-3.0
2025-06-06 11:39:50.821,0.013662161,0.03661152,0.015188992,0.005811321,-0.026023023,-0.027362218,0.0,0.0,0.0,-0.0028952188,0.02207084,0.27183372,-0.10663226,0.12769248,0.077467114,-0.2646872,-0.11037741,-0.0032727914,-0.22350733,-0.044273518,0.18100105,-0.16189009,-0.017908795,0.07260552,-0.010810635,0.026105018,0.033136975,-0.050283756,-0.0657313,0.06767121,-0.06277221,-0.046278402,-0.050358843,0.07447945,3.0,1.216724,-3.0,3.0,0.21865577,-3.0,-3.0,-0.2666568,-3.0,-3.0,1.2928686,-3.0,3.0,1.1432486,-3.0,3.0,0.32956016,-3.0,-3.0,-0.19895059,-3.0,-3.0,1.2184377,-3.0
2025-06-06 11:39:50.841,-0.025824973,-0.003727879,0.027995832,0.05626417,0.025771158,0.03513444,0.0,0.0,0.0,-0.0031903186,0.020935524,0.27375785,-0.11879791,0.11766926,0.08388915,-0.27247816,-0.103971936,-0.012203462,-0.23599951,-0.028913768,0.18403545,-0.15852922,-0.043814864,0.07750013,0.03151424,0.00920969,0.0049858163,-0.030800119,-0.03795904,0.014257312,0.072022386,0.023982596,-0.060266882,0.03742838,3.0,1.1432486,-3.0,3.0,0.32956016,-3.0,-3.0,-0.19895059,-3.0,-3.0,1.2184377,-3.0,3.0,1.1432399,-3.0,3.0,0.2862314,-3.0,-3.0,-0.30447412,-3.0,-3.0,1.439617,-3.0
2025-06-06 11:39:50.861,0.05380951,0.00084989885,-0.052053113,-0.010167443,0.045549408,-0.018936554,0.0,0.0,0.0,-0.0034081314,0.03537717,0.26828656,-0.10755906,0.12817913,0.08326287,-0.27578494,-0.10207466,-0.014024247,-0.23415925,-0.045003593,0.18361065,-0.14609776,-0.021835487,0.014040949,-0.046679787,-0.0025158948,-0.036607947,0.056845453,-0.053000975,0.02194966,-0.033463124,0.02301035,-0.0089005,0.029659675,3.0,1.1432399,-3.0,3.0,0.2862314,-3.0,-3.0,-0.30447412,-3.0,-3.0,1.439617,-3.0,3.0,1.2449695,-3.0,3.0,0.19049627,-3.0,-3.0,-0.17007014,-3.0,-3.0,0.96003956,-3.0
2025-06-06 11:39:50.882,0.0059344755,0.0085226605,0.017494341,0.007364774,0.015517384,0.004205641,0.0,0.0,0.0,-0.0033676373,0.024770804,0.26729402,-0.10852446,0.1338135,0.07853056,-0.27266678,-0.11677632,-0.009526489,-0.23608401,-0.044019748,0.17319125,-0.15329519,-0.027936557,-0.0475242,0.045226503,-0.012978893,0.070861764,-0.019377468,0.040320955,0.04096937,-0.002697179,0.011525938,0.02669374,0.07306952,3.0,1.2449695,-3.0,3.0,0.19049627,-3.0,-3.0,-0.17007014,-3.0,-3.0,0.96003956,-3.0,3.0,1.1733656,-3.0,3.0,0.2586397,-3.0,-3.0,-0.29807907,-3.0,-3.0,1.3816534,-3.0
2025-06-06 11:39:50.903,-0.03777045,-0.028569847,0.027773619,0.0032954467,-0.022276226,-0.0010976234,0.0,0.0,0.0,-0.0035163027,0.030835833,0.2838234,-0.11020591,0.12866448,0.08307886,-0.27378947,-0.11168354,-0.0018401041,-0.232414,-0.040638674,0.18785909,-0.14360504,-0.053251117,0.058376003,-0.0608245,-0.061692704,0.039393988,-0.010303353,-0.06335925,0.00081810605,-0.016485082,-0.019067487,0.060460262,-0.036930054,3.0,1.1733656,-3.0,3.0,0.2586397,-3.0,-3.0,-0.29807907,-3.0,-3.0,1.3816534,-3.0,3.0,1.0965471,-3.0,3.0,0.28537953,-3.0,-3.0,-0.27180815,-3.0,-3.0,1.384461,-3.0
2025-06-06 11:39:50.922,0.03215299,-0.01272955,0.016848933,0.008398826,0.023092976,0.049766228,0.0,0.0,0.0,-0.0036126233,0.030344428,0.26659742,-0.10366866,0.11943702,0.07825927,-0.26290172,-0.10862716,-0.009594779,-0.23682173,-0.039389838,0.17874584,-0.14717974,0.027306003,-0.0014710153,-0.0717197,-0.016473996,0.07525708,-0.04344489,0.010288831,-0.06362203,-0.03686528,-0.07291145,0.039593257,-0.003453108,3.0,1.0965471,-3.0,3.0,0.28537953,-3.0,-3.0,-0.27180815,-3.0,-3.0,1.384461,-3.0,3.0,1.0863185,-3.0,3.0,0.2816388,-3.0,-3.0,-0.24377772,-3.0,-3.0,1.2949779,-3.0
2025-06-06 11:39:50.942,-0.017411478,0.011688031,-0.062498633,0.026750831,-0.0488476,-0.04711397,0.0,0.0,0.0,-0.003437922,0.024222082,0.26670143,-0.11217762,0.11625933,0.079473555,-0.2693811,-0.11347194,-0.0026549078,-0.23691598,-0.048410002,0.1860155,-0.14462829,0.02506927,0.015485965,0.015824277,-0.027304623,-0.0032670177,0.014814918,-0.024934273,-0.06802135,-0.007666007,-0.027147926,-0.013005598,-0.048913132,3.0,1.0863185,-3.0,3.0,0.2816388,-3.0,-3.0,-0.24377772,-3.0,-3.0,1.2949779,-3.0,3.0,1.2406782,-3.0,3.0,0.17312044,-3.0,-3.0,-0.16003096,-3.0,-3.0,0.92339355,-3.0
2025-06-06 11:39:50.962,0.027166154,0.06456261,0.015914578,0.054778658,-0.03293959,-0.044216074,0.0,0.0,0.0,-0.0031618597,0.037616264,0.28505743,-0.11639958,0.13313287,0.0723699,-0.2641309,-0.10292265,-0.0065387106,-0.23816255,-0.04444687,0.17715211,-0.15928337,0.054896343,0.037234087,0.005632352,-0.05562134,0.041727763,-0.012382574,-0.050033268,0.04144804,0.060499344,-0.002666703,-0.069192275,0.020644793,3.0,1.2406782,-3.0,3.0,0.17312044,-3.0,-3.0,-0.16003096,-3.0,-3.0,0.92339355,-3.0,3.0,1.2173519,-3.0,3.0,0.22095263,-3.0,-3.0,-0.28799775,-3.0,-3.0,1.2783171,-3.0
2025-06-06 11:39:50.983,-0.013439828,-0.040849365,-0.004114282,-0.012520791,-0.049146857,-0.026278194,0.0,0.0,0.0,-0.0032613447,0.027739812,0.27673382,-0.10937858,0.12242631,0.073556505,-0.27936882,-0.10907116,-0.0043999567,-0.22336861,-0.047646318,0.17674431,-0.1542513,-0.034212243,-0.019087851,-0.024632888,0.017231261,-0.014130634,0.0043660104,0.03166182,0.034761846,0.04965185,0.010859486,-0.017651696,0.06322784,3.0,1.2173519,-3.0,3.0,0.22095263,-3.0,-3.0,-0.28799775,-3.0,-3.0,1.2783171,-3.0,3.0,1.1789014,-3.0,3.0,0.23318696,-3.0,-3.0,-0.20579302,-3.0,-3.0,1.2955729,-3.0
2025-06-06 11:39:51.003,0.040002957,-0.05805829,0.02435743,0.04932497,-0.041261602,-0.014412184,0.0,0.0,0.0,-0.0034617768,0.030781673,0.27957514,-0.106049605,0.11628196,0.08486638,-0.26189798,-0.117619194,-0.00091400015,-0.22727707,-0.039396003,0.18518426,-0.14948964,0.022794586,-0.055178795,-0.06729809,-0.016085355,0.017617451,-0.050389647,0.055408232,-0.03718839,0.035245102,-0.05072155,-0.02109411,0.050970767,3.0,1.1789014,-3.0,3.0,0.23318696,-3.0,-3.0,-0.20579302,-3.0,-3.0,1.2955729,-3.0,3.0,1.1129668,-3.0,3.0,0.27089345,-3.0,-3.0,-0.23923126,-3.0,-3.0,1.4363283,-3.0
2025-06-06 11:39:51.023,0.049916036,0.008966732,0.015543743,0.02640856,0.037508924,-0.04225709,0.0,0.0,0.0,-0.0035728202,0.03554648,0.27408788,-0.116237134,0.1324982,0.06728348,-0.2623518,-0.11025119,-0.009310821,-0.23281883,-0.043324534,0.19512157,-0.16140305,0.04098504,-0.023202734,0.02223124,-0.0358092,0.050110888,-0.04139944,-0.008621331,-0.011786759,-0.06856546,-0.057945408,0.0653427,-0.07465834,3.0,1.1129668,-3.0,3.0,0.27089345,-3.0,-3.0,-0.23923126,-3.0,-3.0,1.4363283,-3.0,3.0,1.052303,-3.0,3.0,0.26747102,-3.0,-3.0,-0.22719818,-3.0,-3.0,1.2971193,-3.0
2025-06-06 11:39:51.043,-0.04358392,-0.024400296,0.0119564235,0.05500402,-0.017739514,-0.020942708,0.0,0.0,0.0,-0.003479952,0.030309454,0.27463704,-0.10752473,0.115936235,0.08607258,-0.2779457,-0.11097878,-0.0047990493,-0.23880577,-0.032855686,0.19256659,-0.15002841,-0.007771064,0.01735503,-0.0029537873,0.0331137,-0.025346195,-0.009172863,-0.030017063,0.035521064,-0.045746777,-0.032312024,-0.021147458,-0.017263424,3.0,1.052303,-3.0,3.0,0.26747102,-3.0,-3.0,-0.22719818,-3.0,-3.0,1.2971193,-3.0,3.0,1.1451542,-3.0,3.0,0.24365848,-3.0,-3.0,-0.2511259,-3.0,-3.0,1.2960674,-3.0
2025-06-06 11:39:51.063,0.024756975,0.010106152,0.014376405,0.06618961,0.017343262,0.008230844,0.0,0.0,0.0,-0.0032551938,0.026783662,0.2684578,-0.12068924,0.13030568,0.07900465,-0.26962164,-0.115767054,-0.009300266,-0.2245504,-0.04067044,0.194276,-0.15926768,-0.023659492,-0.07037019,0.0647844,-0.012323814,0.031969998,-0.042947393,-0.026160767,-0.0046390723,0.02952288,-0.056004707,0.06410136,0.014797168,3.0,1.1451542,-3.0,3.0,0.24365848,-3.0,-3.0,-0.2511259,-3.0,-3.0,1.2960674,-3.0,3.0,1.1308186,-3.0,3.0,0.24537659,-3.0,-3.0,-0.26454455,-3.0,-3.0,1.3955466,-3.0
2025-06-06 11:39:51.083,0.027699567,-0.0029913043,-0.03612653,-0.014996645,0.04250413,0.023823567,0.0,0.0,0.0,-0.0030221574,0.024738185,0.28298143,-0.11079881,0.13160889,0.07560846,-0.2588199,-0.10299694,-0.005677891,-0.23560861,-0.036157712,0.1935313,-0.16419345,-0.017606743,0.041586842,-0.05915504,-0.008297252,-0.06016404,-0.022872968,0.006351029,-0.027285933,0.028832203,0.010906644,-0.040897246,0.0037303446,3.0,1.1308186,-3.0,3.0,0.24537659,-3.0,-3.0,-0.26454455,-3.0,-3.0,1.3955466,-3.0,3.0,1.230766,-3.0,3.0,0.25519145,-3.0,-3.0,-0.17734393,-3.0,-3.0,1.0085161,-3.0
2025-06-06 11:39:51.103,-0.023610502,-8.403142e-06,0.020418795,0.060434204,-0.005042424,-0.046716142,0.0,0.0,0.0,-0.0027391224,0.020330526,0.27437598,-0.111277886,0.11632047,0.0707726,-0.2668688,-0.1163342,0.00077421305,-0.2348444,-0.039713807,0.19250004,-0.15797663,-0.02835813,0.06445482,0.055049956,-0.03580651,0.005939307,0.020519594,-0.05416102,-0.0736039,0.025683355,-0.05435916,-0.060329158,-0.06756718,3.0,1.230766,-3.0,3.0,0.25519145,-3.0,-3.0,-0.17734393,-3.0,-3.0,1.0085161,-3.0,3.0,1.1321461,-3.0,3.0,0.28223163,-3.0,-3.0,-0.2901903,-3.0,-3.0,1.3617777,-3.0
2025-06-06 11:39:51.123,-0.029411906,-0.03919138,0.039754614,0.02762657,0.019928832,-0.008414971,0.0,0.0,0.0,-0.0027557516,0.025527472,0.2724237,-0.108096875,0.11252126,0.08646393,-0.27255952,-0.101854354,-0.007833383,-0.2381082,-0.042894356,0.19012278,-0.14562955,-0.037112538,0.04051297,0.051254846,0.026388483,-0.06253791,-0.07480047,-0.0124334805,0.01896772,0.051874425,0.049492937,0.015784813,0.019607244,3.0,1.1321461,-3.0,3.0,0.28223163,-3.0,-3.0,-0.2901903,-3.0,-3.0,1.3617777,-3.0,3.0,1.0706424,-3.0,3.0,0.24805641,-3.0,-3.0,-0.31513432,-3.0,-3.0,1.5704867,-3.0
2025-06-06 11:39:51.143,0.03798129,-0.055776935,-0.008044002,0.020711722,-0.031995144,-0.008415853,0.0,0.0,0.0,-0.0027998069,0.026756179,0.2697876,-0.10700406,0.1298202,0.08725476,-0.26076466,-0.09931167,0.00048568263,-0.22384496,-0.039624125,0.1981443,-0.15500298,-0.05151595,-0.037512813,-0.039405838,-0.042683907,0.04362763,0.057977818,0.014563593,0.04507771,-0.054061983,-0.046116352,0.052154765,0.05674626,3.0,1.0706424,-3.0,3.0,0.24805641,-3.0,-3.0,-0.31513432,-3.0,-3.0,1.5704867,-3.0,3.0,1.0854118,-3.0,3.0,0.29549283,-3.0,-3.0,-0.19048226,-3.0,-3.0,1.279085,-3.0
2025-06-06 11:39:51.163,-0.00016816278,0.020392735,-0.060630746,-0.008730046,0.021118233,0.004504986,0.0,0.0,0.0,-0.002513876,0.035848048,0.2769343,-0.10286073,0.12547807,0.0864077,-0.27209452,-0.115810886,-0.0073424494,-0.2274391,-0.031861845,0.19893773,-0.16339272,-0.060235366,0.036615193,-0.052807953,-0.025272258,0.0108327875,-0.025407266,0.023564389,-0.021936642,0.073175065,0.005454756,0.015243912,0.06679763,3.0,1.0854118,-3.0,3.0,0.29549283,-3.0,-3.0,-0.19048226,-3.0,-3.0,1.279085,-3.0,3.0,1.3207195,-3.0,3.0,0.26560974,-3.0,-3.0,-0.19038065,-3.0,-3.0,0.91798455,-3.0
2025-06-06 11:39:51.187,-0.006154122,-0.0005611473,-0.025686255,-0.005820793,-0.05082066,-0.01955804,0.0,0.0,0.0,-0.0022217706,0.026817963,0.27749878,-0.111912034,0.12589182,0.08105507,-0.2700236,-0.1069619,-0.012619075,-0.22359324,-0.029241415,0.19501047,-0.16376579,-0.008116056,0.013438106,-0.01667989,0.03797596,0.009437487,0.06713464,-0.01443024,-0.05953539,0.048810698,-0.06871944,0.016168185,-0.04221955,3.0,1.3207195,-3.0,3.0,0.26560974,-3.0,-3.0,-0.19038065,-3.0,-3.0,0.91798455,-3.0,3.0,1.2060713,-3.0,3.0,0.2672829,-3.0,-3.0,-0.24994582,-3.0,-3.0,1.2504414,-3.0
2025-06-06 11:39:51.203,0.04398736,0.013289601,0.022241214,-0.024348108,-0.008634322,-0.0061005782,0.0,0.0,0.0,-0.0024142908,0.021771533,0.2730811,-0.10577517,0.117369846,0.07099227,-0.26430202,-0.10850747,-0.010885601,-0.2209569,-0.04476611,0.1943102,-0.15823035,0.0009422849,0.01721612,0.059967216,0.021551503,0.03636608,-0.029075818,-0.07044781,-0.06225246,0.037163697,-0.06958963,0.02972795,0.021725964,3.0,1.2060713,-3.0,3.0,0.2672829,-3.0,-3.0,-0.24994582,-3.0,-3.0,1.2504414,-3.0,3.0,1.0803266,-3.0,3.0,0.25147456,-3.0,-3.0,-0.28155106,-3.0,-3.0,1.4711748,-3.0
2025-06-06 11:39:51.223,-0.0068743364,0.013980914,-0.018222898,0.070990026,0.042378824,-0.029758072,0.0,0.0,0.0,-0.0027886918,0.029218348,0.26624584,-0.12192119,0.12734145,0.07764642,-0.27201328,-0.11751162,-0.017285896,-0.23516351,-0.032482725,0.1957991,-0.16229229,0.05001983,-0.06733955,0.07889781,0.005856358,-0.017329412,0.063968785,-0.015413289,0.040749397,-0.01959637,-0.011179317,-0.030688608,-0.029870965,3.0,1.0803266,-3.0,3.0,0.25147456,-3.0,-3.0,-0.28155106,-3.0,-3.0,1.4711748,-3.0,3.0,1.1372966,-3.0,3.0,0.15463477,-3.0,-3.0,-0.18521626,-3.0,-3.0,1.2326702,-3.0
2025-06-06 11:39:51.243,0.037621982,0.012873058,-0.02870923,0.05819816,-0.043663695,-0.043712027,0.0,0.0,0.0,-0.002893937,0.025102826,0.26796883,-0.107189745,0.1226534,0.0727757,-0.2669813,-0.09945333,-0.0076155183,-0.23494323,-0.03761566,0.1801134,-0.1552719,0.031838454,0.04638164,-0.019885028,-0.07072341,-0.041466337,0.0028202222,0.041691247,-0.05249429,-0.065545276,-0.06657607,-0.04267099,-0.030312106,3.0,1.1372966,-3.0,3.0,0.15463477,-3.0,-3.0,-0.18521626,-3.0,-3.0,1.2326702,-3.0,3.0,1.179392,-3.0,3.0,0.28585935,-3.0,-3.0,-0.15266478,-3.0,-3.0,1.0324211,-3.0
2025-06-06 11:39:51.263,-0.034986258,-0.0063896934,0.045891516,0.022569323,0.015624293,0.021720836,0.0,0.0,0.0,-0.0029663397,0.036231246,0.27885452,-0.105380096,0.114472464,0.08274523,-0.2646033,-0.09952502,-0.008054703,-0.22987573,-0.030934945,0.1935654,-0.14401919,0.053164713,0.03243796,-0.06807317,0.0040859096,0.019244483,-0.026254358,0.05792346,-0.06696435,-0.038164806,0.07273702,-0.070544794,-0.0018632661,3.0,1.179392,-3.0,3.0,0.28585935,-3.0,-3.0,-0.15266478,-3.0,-3.0,1.0324211,-3.0,3.0,1.0807078,-3.0,3.0,0.28846592,-3.0,-3.0,-0.33104172,-3.0,-3.0,1.5481026,-3.0
2025-06-06 11:39:51.286,0.015312836,-0.00039876896,-0.020981131,0.07138529,-0.05200886,0.034675866,0.0,0.0,0.0,-0.0032780794,0.039376214,0.27791822,-0.11180416,0.11426958,0.07476593,-0.27950475,-0.106250815,-0.013056221,-0.23294851,-0.03987166,0.18030836,-0.16398764,-0.02486203,-0.011292688,0.06395045,0.039047886,0.056890618,-0.0055923285,0.07090075,-0.017334525,-0.05870141,0.04753809,0.056390077,-0.018754104,3.0,1.0807078,-3.0,3.0,0.28846592,-3.0,-3.0,-0.33104172,-3.0,-3.0,1.5481026,-3.0,3.0,1.0846268,-3.0,3.0,0.1906485,-3.0,-3.0,-0.17034566,-3.0,-3.0,1.2446762,-3.0
2025-06-06 11:39:51.371,0.024732951,-0.048064243,-0.017302193,0.026152682,0.04484356,-0.016467385,0.0,0.0,0.0,-0.0032952272,0.039423026,0.28203067,-0.114734545,0.120194435,0.080439605,-0.27872398,-0.10617126,-0.006175075,-0.22866735,-0.04159881,0.17719321,-0.15150021,0.024613712,-0.012909624,-0.054739445,0.0025127234,-0.06911678,-0.005093591,0.049477782,-0.069519244,-0.051563535,-0.011411195,0.042109016,-0.05503776,3.0,1.0846268,-3.0,3.0,0.1906485,-3.0,-3.0,-0.17034566,-3.0,-3.0,1.2446762,-3.0,3.0,1.1979004,-3.0,3.0,0.2679178,-3.0,-3.0,-0.21780547,-3.0,-3.0,1.1102358,-3.0
2025-06-06 11:39:51.393,-0.05594857,0.040861804,-0.010817155,-0.018192919,0.019202197,-0.004978133,0.0,0.0,0.0,-0.003197053,0.025164593,0.2704415,-0.11189798,0.12825868,0.065662,-0.27882737,-0.11497129,-0.015857922,-0.22811909,-0.044150256,0.18613157,-0.15558562,-0.033926737,0.01048846,0.036737736,-0.049134996,-0.0033746064,0.0043637333,0.058039542,0.025203306,0.032495987,-0.008939337,-0.059531506,0.030940367,3.0,1.1979004,-3.0,3.0,0.2679178,-3.0,-3.0,-0.21780547,-3.0,-3.0,1.1102358,-3.0,3.0,1.2416869,-3.0,3.0,0.27628762,-3.0,-3.0,-0.22471383,-3.0,-3.0,1.1562448,-3.0
2025-06-06 11:39:51.411,-0.04831785,-0.012013562,0.029977536,0.043169163,0.02410617,-0.01971947,0.0,0.0,0.0,-0.0032722496,0.03732973,0.2668037,-0.11499685,0.12934688,0.06918539,-0.26245803,-0.10864954,-0.013372546,-0.23374178,-0.03486077,0.18471557,-0.1555694,0.049060713,-0.045680087,-0.0073632644,-0.011279261,-0.066221565,0.021393072,0.030790389,0.04529415,-0.037928678,-0.0051550977,0.038197428,-0.020776154,3.0,1.2416869,-3.0,3.0,0.27628762,-3.0,-3.0,-0.22471383,-3.0,-3.0,1.1562448,-3.0,3.0,1.1276464,-3.0,3.0,0.294505,-3.0,-3.0,-0.27878878,-3.0,-3.0,1.4471843,-3.0
2025-06-06 11:39:51.443,0.0024433874,0.016152218,0.029180337,0.008318883,0.015762428,0.038714003,0.0,0.0,0.0,-0.0034702208,0.026856026,0.27066618,-0.12093628,0.12954837,0.07488974,-0.2630126,-0.1141035,-0.011785503,-0.23057804,-0.043134134,0.17462832,-0.16056618,0.026432553,-0.017494615,0.051283814,0.05222012,0.057275634,-0.032435242,-0.030012239,-0.06943416,-0.026000094,0.04794667,-0.020692185,0.049206663,3.0,1.1276464,-3.0,3.0,0.294505,-3.0,-3.0,-0.27878878,-3.0,-3.0,1.4471843,-3.0,3.0,1.0385869,-3.0,3.0,0.22672915,-3.0,-3.0,-0.23188922,-3.0,-3.0,1.4671504,-3.0
2025-06-06 11:39:51.460,0.051602848,0.030074272,-0.0064081764,0.004249277,-0.010429232,-0.034134444,0.0,0.0,0.0,-0.0034490442,0.028302092,0.27292606,-0.11856461,0.11445657,0.068117365,-0.26857397,-0.1135867,-0.006515002,-0.24039255,-0.038066905,0.19385898,-0.15015863,0.07060677,-0.07013458,0.013799305,-0.06604499,-0.047522586,-0.062378522,0.033878915,-0.07010324,0.06124812,0.048036046,0.05373683,0.003913375,3.0,1.0385869,-3.0,3.0,0.22672915,-3.0,-3.0,-0.23188922,-3.0,-3.0,1.4671504,-3.0,3.0,1.1228586,-3.0,3.0,0.16451812,-3.0,-3.0,-0.21997443,-3.0,-3.0,1.3298404,-3.0
2025-06-06 11:39:51.480,-0.051231008,-0.022736326,-0.005438455,0.011983193,0.0195516,0.030006362,0.0,0.0,0.0,-0.003149669,0.036216512,0.27101567,-0.11671462,0.11759775,0.08210919,-0.27749938,-0.114857234,-0.015543985,-0.22650468,-0.040148765,0.18211684,-0.14968841,0.04471775,-0.04486883,0.0025997844,0.05399382,-0.068250574,-0.004254327,-0.06461674,-0.03959332,0.05539164,0.04083524,0.066179514,0.03284891,3.0,1.1228586,-3.0,3.0,0.16451812,-3.0,-3.0,-0.21997443,-3.0,-3.0,1.3298404,-3.0,3.0,1.1949294,-3.0,3.0,0.17022198,-3.0,-3.0,-0.2523717,-3.0,-3.0,1.3573242,-3.0
2025-06-06 11:39:51.503,-0.01691123,-0.023604654,0.0028470561,0.027851414,-0.0253038,-0.02867808,0.0,0.0,0.0,-0.0028309114,0.021775773,0.2638987,-0.11243884,0.12674272,0.077461556,-0.26705113,-0.112421036,-0.009717366,-0.23836343,-0.039328713,0.19324468,-0.15781675,-0.015487176,0.025262333,-0.014684199,0.019961791,-0.005393049,-0.00036556844,0.068559654,0.04377825,0.012511425,0.049215715,-0.052499436,0.011870839,3.0,1.1949294,-3.0,3.0,0.17022198,-3.0,-3.0,-0.2523717,-3.0,-3.0,1.3573242,-3.0,3.0,1.0930678,-3.0,3.0,0.260446,-3.0,-3.0,-0.18785043,-3.0,-3.0,1.3574547,-3.0
2025-06-06 11:39:51.520,0.005623044,-0.0316889,-0.037688296,-0.01714632,-0.031440895,-0.013380692,0.0,0.0,0.0,-0.0025791442,0.024517087,0.2661801,-0.10621117,0.124394804,0.081842534,-0.26012692,-0.104106605,-0.0044135572,-0.23938642,-0.02941305,0.18587317,-0.1543187,0.010042319,-0.025834743,-0.04587009,-0.05747512,-0.03504443,-0.04789315,0.011468899,0.0062079574,-0.06867111,0.050466537,0.038563326,0.048679773,3.0,1.0930678,-3.0,3.0,0.260446,-3.0,-3.0,-0.18785043,-3.0,-3.0,1.3574547,-3.0,3.0,1.2056876,-3.0,3.0,0.26110452,-3.0,-3.0,-0.16215636,-3.0,-3.0,1.0593563,-3.0
2025-06-06 11:39:51.540,-0.0007643052,0.034316517,0.002783747,0.00624442,0.003706251,-0.041186035,0.0,0.0,0.0,-0.0023798074,0.028998492,0.26896933,-0.1168196,0.12899509,0.07425891,-0.26344037,-0.10317861,-0.0018887942,-0.23170212,-0.034294512,0.19807997,-0.15907052,0.008205246,-0.02065535,-0.022132605,0.067579545,0.042704474,-0.015318078,0.04146018,0.013333928,-0.044992104,0.01338225,0.018595222,0.0340959,3.0,1.2056876,-3.0,3.0,0.26110452,-3.0,-3.0,-0.16215636,-3.0,-3.0,1.0593563,-3.0,3.0,1.1470824,-3.0,3.0,0.30797374,-3.0,-3.0,-0.25299945,-3.0,-3.0,1.3233805,-3.0
2025-06-06 11:39:51.561,-0.009388643,-0.04024094,0.044497985,0.065105006,0.029550621,-0.0084810145,0.0,0.0,0.0,-0.0024812147,0.0298475,0.2779624,-0.11559707,0.122385,0.07901818,-0.2683954,-0.10352531,-0.010833891,-0.23162182,-0.030700332,0.18479078,-0.16315953,0.06898068,0.041991983,-0.021118153,-0.068730414,-0.01567734,-0.03386763,0.024734812,-0.015160512,0.06567852,0.05868818,-0.015940757,0.07339082,3.0,1.1470824,-3.0,3.0,0.30797374,-3.0,-3.0,-0.25299945,-3.0,-3.0,1.3233805,-3.0,3.0,1.0820503,-3.0,3.0,0.25774562,-3.0,-3.0,-0.31906208,-3.0,-3.0,1.5889757,-3.0
2025-06-06 11:39:51.581,0.027113697,0.0045325165,-0.06163879,-0.011498117,-0.047545772,-0.008883778,0.0,0.0,0.0,-0.0026376972,0.036470406,0.27549607,-0.11054373,0.11649574,0.07489871,-0.27446207,-0.1068254,-0.0071094385,-0.23550664,-0.027929865,0.20035446,-0.16458157,-0.07031229,-0.040099673,0.013095818,-0.011433428,-0.016514037,-0.06430689,-0.035584576,-0.038813855,-0.02838306,-0.03155163,0.02287154,0.03358233,3.0,1.0820503,-3.0,3.0,0.25774562,-3.0,-3.0,-0.31906208,-3.0,-3.0,1.5889757,-3.0,3.0,1.2103876,-3.0,3.0,0.22001642,-3.0,-3.0,-0.09179999,-3.0,-3.0,0.9265717,-3.0
2025-06-06 11:39:51.603,-0.01755723,-0.020082667,0.03022528,0.067106314,-0.02179344,0.021689123,0.0,0.0,0.0,-0.0024550778,0.024400912,0.2779174,-0.10788853,0.124822274,0.08429186,-0.2751886,-0.10679024,-0.010450887,-0.23885173,-0.04067394,0.19632825,-0.15061283,0.06917589,-0.038037926,-0.0070631267,-0.03264115,-0.027205218,0.06102155,0.060487438,-0.07401277,-0.015261053,-0.053292517,-0.0015364945,0.024094863,3.0,1.2103876,-3.0,3.0,0.22001642,-3.0,-3.0,-0.09179999,-3.0,-3.0,0.9265717,-3.0,3.0,1.1469969,-3.0,3.0,0.26703787,-3.0,-3.0,-0.33030543,-3.0,-3.0,1.5216141,-3.0
2025-06-06 11:39:51.620,-0.032381,-0.052765705,0.033592414,0.00937859,-0.024892548,-0.029852943,0.0,0.0,0.0,-0.0025955003,0.026241079,0.26825324,-0.10947659,0.121946216,0.075717226,-0.27775994,-0.10192312,-0.006311653,-0.23486741,-0.038347945,0.180509,-0.16450325,-0.059880164,0.042954016,-0.06990818,0.06597987,0.07589312,-0.033457335,-0.026784977,-0.054870483,0.046477374,0.04343366,0.077509135,-0.07797697,3.0,1.1469969,-3.0,3.0,0.26703787,-3.0,-3.0,-0.33030543,-3.0,-3.0,1.5216141,-3.0,3.0,0.94117975,-3.0,3.0,0.24814147,-3.0,-3.0,-0.28115335,-3.0,-3.0,1.5815594,-3.0
2025-06-06 11:39:51.640,-0.014768687,-0.019287081,-0.015247556,0.014611082,-0.043662585,0.029220585,0.0,0.0,0.0,-0.0026847366,0.029899716,0.28306618,-0.11471593,0.12704512,0.08131239,-0.26661658,-0.10582727,-0.0033767386,-0.23537807,-0.028477456,0.18513995,-0.16899693,0.010128125,-0.059801433,0.035066746,0.0068436884,0.023464924,0.071038954,-0.05033326,-0.038684804,0.059897274,-0.033072546,0.07841626,-0.011966121,3.0,0.94117975,-3.0,3.0,0.24814147,-3.0,-3.0,-0.28115335,-3.0,-3.0,1.5815594,-3.0,3.0,1.1051275,-3.0,3.0,0.15311444,-3.0,-3.0,-0.23435709,-3.0,-3.0,1.3077528,-3.0
2025-06-06 11:39:51.661,-0.010945859,-0.006458602,0.017406475,0.009506486,-0.024212472,0.042712294,0.0,0.0,0.0,-0.0023597989,0.03611504,0.27437344,-0.0981913,0.12014532,0.07367596,-0.262179,-0.10252351,-0.012313187,-0.23727894,-0.043757975,0.20394805,-0.15534636,-0.015226947,-0.018230207,0.019714227,-0.058302905,-0.0024117518,0.047469806,0.028728979,-0.03527301,0.00014151695,-0.0009920228,0.0040684654,0.014799387,3.0,1.1051275,-3.0,3.0,0.15311444,-3.0,-3.0,-0.23435709,-3.0,-3.0,1.3077528,-3.0,3.0,1.104097,-3.0,3.0,0.21566993,-3.0,-3.0,-0.26815435,-3.0,-3.0,1.4639,-3.0
2025-06-06 11:39:51.681,0.043627393,-0.051068213,0.028074494,0.06053905,-0.05194558,-0.0032217486,0.0,0.0,0.0,-0.0020349245,0.034553155,0.27619955,-0.11052192,0.1188164,0.08002352,-0.2615591,-0.09681014,-0.008575719,-0.22530141,-0.030798802,0.19271131,-0.17000265,0.015229878,-0.015472908,-0.07231168,0.004909749,-0.016313024,0.06610891,-0.04164221,-0.053475812,0.034067243,0.05429682,0.07864422,0.003275991,3.0,1.104097,-3.0,3.0,0.21566993,-3.0,-3.0,-0.26815435,-3.0,-3.0,1.4639,-3.0,3.0,0.9998611,-3.0,3.0,0.2075615,-3.0,-3.0,-0.31704763,-3.0,-3.0,1.6609054,-3.0
2025-06-06 11:39:51.702,-0.033073254,-0.029509936,-0.050093327,0.07599039,-0.033776645,0.04228168,0.0,0.0,0.0,-0.0017510399,0.01632421,0.26551694,-0.10738056,0.115748994,0.0738168,-0.25657296,-0.11195743,-0.013052619,-0.2318428,-0.02764548,0.2008096,-0.1576964,0.045035403,-0.010369073,0.03142571,0.03715411,-0.057523936,-0.062895864,-0.051761262,0.024871781,0.018444566,-0.015181692,-0.0029833484,0.06263979,3.0,0.9998611,-3.0,3.0,0.2075615,-3.0,-3.0,-0.31704763,-3.0,-3.0,1.6609054,-3.0,3.0,1.2074918,-3.0,3.0,0.17004317,-3.0,-3.0,-0.11230521,-3.0,-3.0,1.029153,-3.0
2025-06-06 11:39:51.721,0.020722494,0.018968847,-0.009610264,-0.012649443,-0.032748125,-0.025289103,0.0,0.0,0.0,-0.0012565906,0.020950397,0.2641927,-0.10225332,0.12332634,0.08238569,-0.26481482,-0.095749676,-0.020849125,-0.23518836,-0.030037563,0.20162316,-0.1573534,0.015407209,0.063958496,-0.02451278,-0.01929153,0.019673107,0.048163142,-0.029509256,-0.041827247,0.050193254,0.04921399,0.034371708,0.04196246,3.0,1.2074918,-3.0,3.0,0.17004317,-3.0,-3.0,-0.11230521,-3.0,-3.0,1.029153,-3.0,3.0,1.144451,-3.0,3.0,0.23216975,-3.0,-3.0,-0.30460972,-3.0,-3.0,1.4263469,-3.0
2025-06-06 11:39:51.741,0.040805563,0.017587958,0.043560714,-0.006990539,-0.033755157,-0.0047844113,0.0,0.0,0.0,-0.0012015685,0.017009761,0.27023762,-0.108472586,0.11846388,0.08438837,-0.25781307,-0.099345915,-0.004566809,-0.22919257,-0.030735943,0.1968696,-0.16163696,-0.050587576,-0.03147594,-0.069196485,0.07092945,0.0055902796,-0.064665616,0.0023762574,-0.07467679,-0.07225664,0.059658308,0.058067996,-0.027028443,3.0,1.144451,-3.0,3.0,0.23216975,-3.0,-3.0,-0.30460972,-3.0,-3.0,1.4263469,-3.0,3.0,0.92473006,-3.0,3.0,0.30439317,-3.0,-3.0,-0.27658403,-3.0,-3.0,1.6239313,-3.0
2025-06-06 11:39:51.761,0.04929829,0.018361602,-0.016083514,-0.012778116,-0.026313433,0.021337327,0.0,0.0,0.0,-0.0013466685,0.033131313,0.26990643,-0.101181924,0.11880426,0.07181988,-0.2592376,-0.09638423,-0.0073401546,-0.22224082,-0.024509476,0.19063522,-0.15880975,0.03811461,-0.013348037,-0.048919354,0.021345884,-0.032297656,0.05208632,-0.012473536,0.01109148,-0.059534054,0.041714784,-0.06134167,-0.06880264,3.0,0.92473006,-3.0,3.0,0.30439317,-3.0,-3.0,-0.27658403,-3.0,-3.0,1.6239313,-3.0,3.0,1.086801,-3.0,3.0,0.1900211,-3.0,-3.0,-0.19276825,-3.0,-3.0,1.1331214,-3.0
2025-06-06 11:39:51.781,-0.04808671,0.013842304,0.037623946,0.011643209,0.034366935,0.023830367,0.0,0.0,0.0,-0.0011900543,0.016870255,0.2711689,-0.106393725,0.122397505,0.07601331,-0.25831246,-0.0929365,-0.005814129,-0.2304834,-0.031901646,0.19037575,-0.15514289,-0.01757582,0.032319758,0.0004900387,0.020737523,-0.035514113,0.012987577,0.0056769093,-0.03545915,0.025120806,-0.05811508,0.019962914,0.033532973,3.0,1.086801,-3.0,3.0,0.1900211,-3.0,-3.0,-0.19276825,-3.0,-3.0,1.1331214,-3.0,3.0,1.106985,-3.0,3.0,0.33690977,-3.0,-3.0,-0.34384838,-3.0,-3.0,1.4915298,-3.0
2025-06-06 11:39:51.803,-0.037307248,0.040263664,-0.053163942,-0.019305112,-0.04931064,-0.0018026712,0.0,0.0,0.0,-0.0012011995,0.027941344,0.26495618,-0.109028816,0.11535105,0.08614845,-0.2612417,-0.10494475,-0.015180692,-0.23148264,-0.026678521,0.20212302,-0.17219788,0.019451937,-0.06673184,-0.07198919,0.037279945,0.043629296,0.011523699,-0.01353604,-0.035487123,0.020827103,0.0085154,0.038293816,-0.025029724,3.0,1.106985,-3.0,3.0,0.33690977,-3.0,-3.0,-0.34384838,-3.0,-3.0,1.4915298,-3.0,3.0,1.1527562,-3.0,3.0,0.17901695,-3.0,-3.0,-0.16673487,-3.0,-3.0,1.1152753,-3.0
2025-06-06 11:39:51.821,-0.020737324,0.050501943,-0.026626853,-0.0057326,-0.0038494684,0.031614956,0.0,0.0,0.0,-0.0011913491,0.026838802,0.27378243,-0.102955386,0.11561151,0.07254482,-0.27564293,-0.09712002,-0.024127677,-0.22777759,-0.029446982,0.19211309,-0.15424854,-0.015136995,-0.027874192,0.05405799,-0.009811393,-0.024049822,0.023636082,0.0093419505,-0.00035732822,0.038049772,0.012305358,-0.066645995,0.0682081,3.0,1.1527562,-3.0,3.0,0.17901695,-3.0,-3.0,-0.16673487,-3.0,-3.0,1.1152753,-3.0,3.0,1.2549101,-3.0,3.0,0.18730497,-3.0,-3.0,-0.2254689,-3.0,-3.0,1.2139469,-3.0
2025-06-06 11:39:51.841,-0.0040537436,0.028961198,0.039388586,-0.016156707,-0.015930682,0.008299191,0.0,0.0,0.0,-0.001403692,0.029611096,0.27463326,-0.10791975,0.12354457,0.06907897,-0.27771124,-0.09762403,-0.021259056,-0.22928546,-0.041495983,0.19155644,-0.16932832,-0.0689776,0.037577625,-0.032981936,-0.025106877,0.029557865,-0.035249118,-0.059410136,-0.02866483,0.022152549,-0.06666674,-0.04287853,-0.00808698,3.0,1.2549101,-3.0,3.0,0.18730497,-3.0,-3.0,-0.2254689,-3.0,-3.0,1.2139469,-3.0,3.0,1.0789859,-3.0,3.0,0.32531053,-3.0,-3.0,-0.27081203,-3.0,-3.0,1.4328129,-3.0
2025-06-06 11:39:51.861,0.015764989,-0.056183986,0.024653591,-0.012909368,0.020110514,-0.028962035,0.0,0.0,0.0,-0.0018997398,0.018928498,0.26497895,-0.10492008,0.13032393,0.07832082,-0.2815473,-0.10637931,-0.007960675,-0.22406365,-0.041836493,0.19611377,-0.15335722,-0.031247541,0.031693567,-0.06732161,0.007890009,-0.028309558,-0.046186484,0.06977064,0.015666833,-0.07508747,0.060401537,0.074505255,-0.033284906,3.0,1.0789859,-3.0,3.0,0.32531053,-3.0,-3.0,-0.27081203,-3.0,-3.0,1.4328129,-3.0,3.0,1.0344204,-3.0,3.0,0.33028394,-3.0,-3.0,-0.252537,-3.0,-3.0,1.3755575,-3.0
2025-06-06 11:39:51.881,0.0044715023,0.0020076463,0.024192,0.011654356,-0.025575552,-0.025373613,0.0,0.0,0.0,-0.002230893,0.026210295,0.28079993,-0.11528635,0.11343442,0.06610024,-0.27319035,-0.09700729,-0.009834209,-0.23260334,-0.034513675,0.20077348,-0.15468195,-0.031681005,-0.011573752,-0.04575548,-0.06958175,-0.051475562,0.033286538,0.07108204,0.0104160365,0.073149145,-0.07107765,-0.037975676,0.05641895,3.0,1.0344204,-3.0,3.0,0.33028394,-3.0,-3.0,-0.252537,-3.0,-3.0,1.3755575,-3.0,3.0,1.1247765,-3.0,3.0,0.3101108,-3.0,-3.0,-0.2795462,-3.0,-3.0,1.4034079,-3.0
2025-06-06 11:39:51.902,-0.011666552,0.012033053,-0.029440826,-0.0014934761,0.027480943,-0.042332284,0.0,0.0,0.0,-0.0023058662,0.025472844,0.28089598,-0.10705618,0.1207156,0.06850047,-0.26464126,-0.099318855,-0.003345427,-0.23682933,-0.04391278,0.18835697,-0.17010257,0.0639622,0.028170265,0.031512633,0.05556052,0.06177997,-0.06785121,-0.050582003,0.04708102,-0.010255732,-0.015759058,-0.0010859491,0.056086905,3.0,1.1247765,-3.0,3.0,0.3101108,-3.0,-3.0,-0.2795462,-3.0,-3.0,1.4034079,-3.0,3.0,1.1866151,-3.0,3.0,0.18299413,-3.0,-3.0,-0.19956023,-3.0,-3.0,1.0928234,-3.0
2025-06-06 11:39:51.921,-0.005310229,0.044642683,-0.0005089058,0.028674118,-0.033653617,-0.0319272,0.0,0.0,0.0,-0.0022123482,0.03374615,0.27645096,-0.11592694,0.118807115,0.08329167,-0.28089845,-0.11140979,-0.0019475559,-0.2412026,-0.034726612,0.19820315,-0.15788876,-0.0013594091,0.052559618,-0.0031483474,-0.031883158,0.014813742,0.031229993,0.04882928,0.063603885,-0.0116333105,0.073917255,-0.043941867,-0.010451777,3.0,1.1866151,-3.0,3.0,0.18299413,-3.0,-3.0,-0.19956023,-3.0,-3.0,1.0928234,-3.0,3.0,1.1778755,-3.0,3.0,0.23918128,-3.0,-3.0,-0.24519178,-3.0,-3.0,1.2909204,-3.0
2025-06-06 11:39:51.941,0.027147874,-0.008542751,-0.011438873,0.06903313,-0.00047877332,-2.1911797e-05,0.0,0.0,0.0,-0.0023260117,0.035544902,0.28144586,-0.10827829,0.12434616,0.068055086,-0.27437136,-0.100728504,-0.012049649,-0.22728787,-0.03351301,0.1910114,-0.15640785,-0.051641688,0.026841005,0.045924406,0.06801934,0.048083916,0.020603292,0.03175157,0.066460565,0.028360827,-0.00085286587,-0.039988786,-0.038436577,3.0,1.1778755,-3.0,3.0,0.23918128,-3.0,-3.0,-0.24519178,-3.0,-3.0,1.2909204,-3.0,3.0,1.1501158,-3.0,3.0,0.19712007,-3.0,-3.0,-0.2243652,-3.0,-3.0,1.270758,-3.0
2025-06-06 11:39:51.962,0.01686545,0.050921552,-0.012337117,0.001858844,0.03374384,-0.036570605,0.0,0.0,0.0,-0.0025559955,0.024748037,0.2789989,-0.11179527,0.11309486,0.0821477,-0.2667022,-0.10536015,-0.007264436,-0.24092382,-0.04193092,0.18036586,-0.15612373,-0.020151503,0.05393764,0.010904279,-0.030456644,-0.06893334,-0.026479213,-0.0041322503,0.003652631,0.047122546,-0.06565448,0.005171336,0.0471808,3.0,1.1501158,-3.0,3.0,0.19712007,-3.0,-3.0,-0.2243652,-3.0,-3.0,1.270758,-3.0,3.0,1.2280821,-3.0,3.0,0.30889887,-3.0,-3.0,-0.22314593,-3.0,-3.0,1.1332973,-3.0
2025-06-06 11:39:51.982,-0.027777312,-0.022202475,-0.031685915,0.05649093,-0.04428216,0.03724848,0.0,0.0,0.0,-0.0027812223,0.03959876,0.26742905,-0.112125926,0.1170071,0.077255525,-0.2678585,-0.10105332,-0.0061427807,-0.23616238,-0.029074393,0.19373488,-0.1482317,0.00975823,0.06813387,-0.036451697,-0.06447331,-0.06986641,-0.033094075,-0.0052779554,-0.021487502,0.019894803,-0.053549614,-0.041129217,-0.052577097,3.0,1.2280821,-3.0,3.0,0.30889887,-3.0,-3.0,-0.22314593,-3.0,-3.0,1.1332973,-3.0,3.0,1.271458,-3.0,3.0,0.3007428,-3.0,-3.0,-0.17782356,-3.0,-3.0,1.0149703,-3.0
2025-06-06 11:39:52.003,-0.056219377,0.035058547,-0.0141465245,0.046942957,-0.045304276,-0.027268592,0.0,0.0,0.0,-0.0030825573,0.029180082,0.27490175,-0.107842214,0.12756646,0.06729276,-0.28227445,-0.11573726,-0.0002778206,-0.23659104,-0.043204963,0.17521249,-0.1619511,0.037186302,-0.05414598,-0.00826397,-0.0038518547,0.02480177,-0.062946394,-0.062423285,-0.018956318,-0.02977295,0.061402403,-0.08365774,-0.0373091,3.0,1.271458,-3.0,3.0,0.3007428,-3.0,-3.0,-0.17782356,-3.0,-3.0,1.0149703,-3.0,3.0,1.2394732,-3.0,3.0,0.17589855,-3.0,-3.0,-0.18594946,-3.0,-3.0,1.1132839,-3.0
2025-06-06 11:39:52.022,0.024371367,0.0024892592,0.036028527,-0.016435377,0.011109944,0.044523083,0.0,0.0,0.0,-0.0035757578,0.03178712,0.2840544,-0.117169455,0.13081352,0.07909672,-0.27964547,-0.11368469,-0.009096898,-0.23567553,-0.046432763,0.1869285,-0.14249146,0.00608999,-0.048092507,-0.027357846,0.033143237,-0.06719821,0.03227176,-0.064015165,-0.019709941,0.03851449,0.013246685,-0.0779452,0.043196257,3.0,1.2394732,-3.0,3.0,0.17589855,-3.0,-3.0,-0.18594946,-3.0,-3.0,1.1132839,-3.0,3.0,1.1792128,-3.0,3.0,0.20446914,-3.0,-3.0,-0.28572792,-3.0,-3.0,1.4686012,-3.0
2025-06-06 11:39:52.042,0.01337107,-0.004025732,-0.023378111,0.0321264,-0.008701188,-0.04566586,0.0,0.0,0.0,-0.0041700415,0.029222922,0.28607938,-0.11512243,0.11968343,0.078711994,-0.27834702,-0.11394281,-0.0021632665,-0.23958386,-0.03777173,0.18511106,-0.15397947,0.02476844,-0.03312114,0.0009978497,-0.0168526,-0.06957616,-0.06640877,-0.01811944,-0.0072811428,0.062224217,-0.05474618,0.0034547632,-0.019422634,3.0,1.1792128,-3.0,3.0,0.20446914,-3.0,-3.0,-0.28572792,-3.0,-3.0,1.4686012,-3.0,3.0,1.1997097,-3.0,3.0,0.19749886,-3.0,-3.0,-0.14670244,-3.0,-3.0,1.1337461,-3.0
2025-06-06 11:39:52.062,-0.0023754246,-0.02101365,0.014600854,0.015281379,0.035884317,-0.00035517136,0.0,0.0,0.0,-0.0044241752,0.037060935,0.28688344,-0.11721496,0.11738252,0.0662194,-0.2685102,-0.12208402,-0.010444293,-0.23304757,-0.039402273,0.17975654,-0.15403385,0.04681804,-0.00231125,0.07498392,0.030971134,-0.07506411,-0.034446944,0.06498409,0.071301244,-0.018822419,-0.037462123,0.025779555,-0.06858264,3.0,1.1997097,-3.0,3.0,0.19749886,-3.0,-3.0,-0.14670244,-3.0,-3.0,1.1337461,-3.0,3.0,1.1800202,-3.0,3.0,0.28999138,-3.0,-3.0,-0.24400297,-3.0,-3.0,1.2781712,-3.0
2025-06-06 11:39:52.082,0.023953367,-0.039277904,-0.021121496,0.06173889,0.01688178,-0.048480738,0.0,0.0,0.0,-0.0045804353,0.027962042,0.2789741,-0.11370435,0.12925914,0.07642248,-0.27822742,-0.11702652,0.0038757012,-0.24697942,-0.04560172,0.1864773,-0.14781131,0.045913227,-0.057863083,-0.015711423,0.031704396,-0.024398446,-0.02337099,-0.070095114,-0.027412293,-0.05369383,0.013036874,-0.04572838,0.043845974,3.0,1.1800202,-3.0,3.0,0.28999138,-3.0,-3.0,-0.24400297,-3.0,-3.0,1.2781712,-3.0,3.0,1.2230964,-3.0,3.0,0.15409958,-3.0,-3.0,-0.16084766,-3.0,-3.0,1.1301214,-3.0
2025-06-06 11:39:52.102,0.02126832,-0.011061564,-0.011878951,0.06054744,-0.006869941,0.020543633,0.0,0.0,0.0,-0.004619424,0.032046206,0.27631572,-0.1140497,0.12816554,0.07838251,-0.26396105,-0.11464876,-0.0020453557,-0.23805425,-0.044696223,0.17415553,-0.14464553,0.046587087,-0.04361972,-0.07066032,-0.063213795,0.045543734,-0.058064703,-0.04224223,0.035368875,0.009509858,0.031148283,-0.06981755,0.008204092,3.0,1.2230964,-3.0,3.0,0.15409958,-3.0,-3.0,-0.16084766,-3.0,-3.0,1.1301214,-3.0,3.0,1.2524519,-3.0,3.0,0.19477004,-3.0,-3.0,-0.18620007,-3.0,-3.0,1.1093918,-3.0
2025-06-06 11:39:52.122,-0.0247644,0.037598453,-0.03890192,0.06107304,-0.047355194,0.02009204,0.0,0.0,0.0,-0.004676579,0.027306132,0.28782663,-0.10647293,0.12768526,0.07258043,-0.26560318,-0.105298676,-0.004324043,-0.23296103,-0.033050165,0.1757878,-0.14757493,-0.02468467,0.03028742,-0.00015206456,0.060255498,-0.002471995,0.067436755,0.06587196,-0.07190592,0.023866463,-0.016401906,-0.06977858,0.012029973,3.0,1.2524519,-3.0,3.0,0.19477004,-3.0,-3.0,-0.18620007,-3.0,-3.0,1.1093918,-3.0,3.0,1.2440618,-3.0,3.0,0.2399416,-3.0,-3.0,-0.15752998,-3.0,-3.0,1.1278354,-3.0
2025-06-06 11:39:52.142,0.0013944259,-0.04226511,0.007878859,-0.0043690433,0.044095688,-0.022883939,0.0,0.0,0.0,-0.004843929,0.031624954,0.28017846,-0.11134386,0.12828964,0.073983535,-0.27776563,-0.1073154,-0.0077228243,-0.24143142,-0.03403377,0.16976248,-0.13711046,0.06593155,-0.033785142,-0.013824832,0.02198278,0.06916108,0.03248347,0.017327545,0.055530183,0.021127341,-0.044707105,-0.04456898,0.038670834,3.0,1.2440618,-3.0,3.0,0.2399416,-3.0,-3.0,-0.15752998,-3.0,-3.0,1.1278354,-3.0,3.0,1.1715717,-3.0,3.0,0.19733673,-3.0,-3.0,-0.2533975,-3.0,-3.0,1.3565494,-3.0
2025-06-06 11:39:52.162,0.010611054,-0.034247965,0.027454495,0.05428544,-0.03385475,-0.048049927,0.0,0.0,0.0,-0.0050621475,0.041335717,0.27301046,-0.123410866,0.13516617,0.07443699,-0.27064234,-0.11404568,-0.0008419279,-0.23486008,-0.046395198,0.18576942,-0.1421649,0.006663942,0.07128957,-0.014867836,0.039797146,-0.059659522,0.012763913,0.06708234,0.0087368265,0.056100167,-0.023632294,-0.012998952,0.010317508,3.0,1.1715717,-3.0,3.0,0.19733673,-3.0,-3.0,-0.2533975,-3.0,-3.0,1.3565494,-3.0,3.0,1.0936394,-3.0,3.0,0.31695485,-3.0,-3.0,-0.22557531,-3.0,-3.0,1.4149493,-3.0
2025-06-06 11:39:52.182,0.017471364,0.011826065,0.022671245,-0.005061549,-0.0077064154,-0.017986923,0.0,0.0,0.0,-0.0050569447,0.033757653,0.27348366,-0.10405484,0.13019267,0.063770145,-0.27904537,-0.10665045,0.008338505,-0.23430127,-0.032698076,0.18116064,-0.14650935,0.0001710609,0.013247852,-0.010845358,-0.034618534,0.013261263,0.030079663,0.0092448145,-0.019011825,-0.007521607,0.071685925,0.05870077,0.026542196,3.0,1.0936394,-3.0,3.0,0.31695485,-3.0,-3.0,-0.22557531,-3.0,-3.0,1.4149493,-3.0,3.0,1.0769317,-3.0,3.0,0.24262685,-3.0,-3.0,-0.2702702,-3.0,-3.0,1.4532932,-3.0
2025-06-06 11:39:52.202,-0.00799766,0.003426067,-0.013086209,0.014840379,0.0048397738,-0.047944225,0.0,0.0,0.0,-0.004704952,0.04060135,0.27760485,-0.10698864,0.1294467,0.07022826,-0.27895367,-0.119467705,0.0012886018,-0.22814329,-0.050435107,0.18420084,-0.15151486,0.0022015017,0.024191009,-0.038257025,0.04657912,0.06601472,0.012182126,-0.051795773,0.03762209,-0.06425588,-0.040646274,0.01561803,-0.049722802,3.0,1.0769317,-3.0,3.0,0.24262685,-3.0,-3.0,-0.2702702,-3.0,-3.0,1.4532932,-3.0,3.0,1.1523829,-3.0,3.0,0.21567506,-3.0,-3.0,-0.20017223,-3.0,-3.0,1.078097,-3.0
2025-06-06 11:39:52.222,-0.019778652,0.061146922,-0.01603606,-0.012671322,0.01697603,0.0124357,0.0,0.0,0.0,-0.0040653693,0.032957077,0.28365263,-0.112930916,0.11511573,0.068022214,-0.26531056,-0.11905477,-0.0019574538,-0.23719807,-0.041169282,0.18434793,-0.14700924,0.0427278,-0.021781499,-0.03952877,0.020544628,-0.02254392,-0.027981175,-0.056540947,-0.07879495,0.021401372,0.029458044,0.030817604,-0.047803067,3.0,1.1523829,-3.0,3.0,0.21567506,-3.0,-3.0,-0.20017223,-3.0,-3.0,1.078097,-3.0,3.0,1.2458515,-3.0,3.0,0.18845254,-3.0,-3.0,-0.2650162,-3.0,-3.0,1.1556362,-3.0
2025-06-06 11:39:52.242,-0.036512155,0.011519835,-0.0213344,0.041406512,0.01654719,0.045664113,0.0,0.0,0.0,-0.0035965696,0.03239773,0.28326407,-0.112169504,0.1154272,0.07174837,-0.26479816,-0.10202115,-0.008696427,-0.22937176,-0.047467172,0.18276232,-0.15383478,-0.009058468,-0.0064844913,0.049190786,0.024801783,-0.012393089,-0.0764921,-0.0040519484,-0.076101415,-0.027661793,-0.049561325,0.060858544,-0.03625887,3.0,1.2458515,-3.0,3.0,0.18845254,-3.0,-3.0,-0.2650162,-3.0,-3.0,1.1556362,-3.0,3.0,1.2165895,-3.0,3.0,0.26188886,-3.0,-3.0,-0.20623809,-3.0,-3.0,1.1429609,-3.0
2025-06-06 11:39:52.263,-0.020808857,0.048329,0.033666547,0.058588173,-0.03534454,0.040155236,0.0,0.0,0.0,-0.003403577,0.028328048,0.28802603,-0.107322335,0.13054517,0.06323754,-0.2760285,-0.108456135,-0.008969156,-0.22351699,-0.039843652,0.1834573,-0.14917788,-0.06969104,0.035459228,0.021270031,-0.071165994,-0.048093393,-0.039708517,-0.024984822,-0.05348618,0.020313572,0.008215005,0.062108826,0.027373653,3.0,1.2165895,-3.0,3.0,0.26188886,-3.0,-3.0,-0.20623809,-3.0,-3.0,1.1429609,-3.0,3.0,1.1821656,-3.0,3.0,0.30853826,-3.0,-3.0,-0.30536294,-3.0,-3.0,1.4267443,-3.0
2025-06-06 11:39:52.285,0.05712774,0.0052899388,0.0145051535,0.03333582,-0.050330378,0.0006722331,0.0,0.0,0.0,-0.0034154726,0.034098998,0.2814079,-0.11160693,0.11641592,0.08051494,-0.26263285,-0.10318406,-0.0045815255,-0.22329515,-0.048232883,0.19262196,-0.15300748,0.02512111,0.07533019,-0.05479106,-0.016328907,0.028689615,0.01856013,-0.03338137,0.036299996,-0.06513917,0.01161694,-0.061465822,0.066501096,3.0,1.1821656,-3.0,3.0,0.30853826,-3.0,-3.0,-0.30536294,-3.0,-3.0,1.4267443,-3.0,3.0,1.1118021,-3.0,3.0,0.2821322,-3.0,-3.0,-0.19816124,-3.0,-3.0,1.313813,-3.0
2025-06-06 11:39:52.303,0.019430285,-0.030146481,-0.028647562,0.03336347,0.045004338,-0.00861176,0.0,0.0,0.0,-0.003297948,0.03307587,0.27240127,-0.11453903,0.13123909,0.06597991,-0.26882657,-0.11890337,-0.017645715,-0.22160628,-0.040267933,0.18147421,-0.14692259,-0.04098045,0.012368749,0.06133004,0.028309366,-0.031149365,0.03489615,-0.05271439,0.025356561,-0.060972817,-0.04398588,0.043155488,-0.014668366,3.0,1.1118021,-3.0,3.0,0.2821322,-3.0,-3.0,-0.19816124,-3.0,-3.0,1.313813,-3.0,3.0,1.2237335,-3.0,3.0,0.24892676,-3.0,-3.0,-0.21378429,-3.0,-3.0,1.0491706,-3.0
2025-06-06 11:39:52.323,0.042128257,-0.03354442,-0.02126923,-0.016290082,0.04506861,-0.04491352,0.0,0.0,0.0,-0.003098245,0.03374575,0.28556153,-0.121155724,0.114289925,0.0771386,-0.2696039,-0.11881121,-0.007022914,-0.24004613,-0.040177587,0.19395463,-0.15524377,-0.052895576,0.009494769,0.0032569903,-0.04995694,0.034237895,0.045288537,-0.059836827,-0.003781972,0.004169542,0.027136656,-0.07372098,-0.0025811077,3.0,1.2237335,-3.0,3.0,0.24892676,-3.0,-3.0,-0.21378429,-3.0,-3.0,1.0491706,-3.0,3.0,1.2341251,-3.0,3.0,0.20492566,-3.0,-3.0,-0.2428377,-3.0,-3.0,1.15013,-3.0
2025-06-06 11:39:52.343,0.015728552,0.00977509,0.04176599,-0.018342722,-0.012493495,-0.04751007,0.0,0.0,0.0,-0.0031400581,0.0340917,0.28548294,-0.11161805,0.12167657,0.07687072,-0.2768893,-0.09936519,-0.0007961161,-0.2236523,-0.046911143,0.1876867,-0.14051566,0.025747998,0.0065591754,0.04306108,0.06956082,0.06611339,0.061002456,-0.047279213,0.013872229,0.06520089,-0.045335952,-0.008945773,0.06315195,3.0,1.2341251,-3.0,3.0,0.20492566,-3.0,-3.0,-0.2428377,-3.0,-3.0,1.15013,-3.0,3.0,1.0666126,-3.0,3.0,0.18280125,-3.0,-3.0,-0.35167292,-3.0,-3.0,1.6795936,-3.0
2025-06-06 11:39:52.363,0.045777936,-0.042589065,-0.0069575375,0.0039030006,0.009781768,-0.048792005,0.0,0.0,0.0,-0.0033807934,0.025077142,0.27168378,-0.12005858,0.13224071,0.065271914,-0.27597347,-0.10129781,-0.0001765054,-0.22992305,-0.04150561,0.19830547,-0.14907709,0.04061772,-0.047042646,0.05074338,-0.017712923,0.04282023,0.07220241,-0.03564848,0.05366754,-0.0743992,-0.02160732,0.023026126,-0.012447936,3.0,1.0666126,-3.0,3.0,0.18280125,-3.0,-3.0,-0.35167292,-3.0,-3.0,1.6795936,-3.0,3.0,1.0256907,-3.0,3.0,0.161977,-3.0,-3.0,-0.163839,-3.0,-3.0,1.3159918,-3.0
2025-06-06 11:39:52.386,0.022787988,-0.059267163,-0.016611332,0.029451018,-0.026006494,-0.01282023,0.0,0.0,0.0,-0.0032272507,0.020940704,0.2861993,-0.118887946,0.122986145,0.078091644,-0.2800457,-0.11209095,-0.0026084988,-0.22628221,-0.03695355,0.1968408,-0.15581022,0.002402807,-0.06238909,-0.06768676,-0.05394498,-0.024258304,-0.015330988,0.020016806,-0.07057879,0.010260237,-0.011878454,0.06441791,-0.03895303,3.0,1.0256907,-3.0,3.0,0.161977,-3.0,-3.0,-0.163839,-3.0,-3.0,1.3159918,-3.0,3.0,1.1763039,-3.0,3.0,0.21496004,-3.0,-3.0,-0.22644757,-3.0,-3.0,1.2223436,-3.0
2025-06-06 11:39:52.403,-0.0523101,-0.0449148,-0.025227634,0.045672484,-0.049866203,-0.012502413,0.0,0.0,0.0,-0.0029400338,0.026161393,0.28713927,-0.11199961,0.12923557,0.07420143,-0.2723962,-0.104046114,-0.0029815224,-0.23792258,-0.035995014,0.18533403,-0.16471393,0.016758732,0.058068957,-0.041416757,0.05530591,0.022383178,-0.07117733,-0.0690726,0.013510692,-0.02398322,0.01969071,-0.04760575,0.045983035,3.0,1.1763039,-3.0,3.0,0.21496004,-3.0,-3.0,-0.22644757,-3.0,-3.0,1.2223436,-3.0,3.0,1.2320061,-3.0,3.0,0.207676,-3.0,-3.0,-0.17503977,-3.0,-3.0,1.0845723,-3.0
2025-06-06 11:39:52.423,0.030555611,-0.018759407,-0.013431552,0.053993672,-0.038900074,0.020337733,0.0,0.0,0.0,-0.0028262117,0.026514184,0.28470743,-0.1049431,0.12223742,0.064138174,-0.2621143,-0.10703776,-0.0024821584,-0.23170586,-0.03560236,0.19008976,-0.14914325,0.06822818,-0.013476362,-0.0035159916,0.0659882,-0.026576946,0.051756263,-0.03899932,-0.03344864,-0.032555535,0.022552682,0.02204023,-0.012437141,3.0,1.2320061,-3.0,3.0,0.207676,-3.0,-3.0,-0.17503977,-3.0,-3.0,1.0845723,-3.0,3.0,1.1907848,-3.0,3.0,0.16534007,-3.0,-3.0,-0.23247035,-3.0,-3.0,1.3127156,-3.0
2025-06-06 11:39:52.443,-0.025316754,0.03139131,-0.0009625907,0.023761425,-0.00096575095,-0.0020629475,0.0,0.0,0.0,-0.003019719,0.022821255,0.27950382,-0.105525434,0.11409397,0.06448307,-0.26462564,-0.10978798,-0.012216004,-0.22346915,-0.037642684,0.19201379,-0.15067801,-0.0013041241,-0.0066514076,0.003457934,-0.049550936,0.019005416,0.008192265,-0.04394287,-0.020597607,-0.06912251,0.073371224,0.026158601,-0.053729128,3.0,1.1907848,-3.0,3.0,0.16534007,-3.0,-3.0,-0.23247035,-3.0,-3.0,1.3127156,-3.0,3.0,1.1141917,-3.0,3.0,0.19031602,-3.0,-3.0,-0.23222393,-3.0,-3.0,1.3527759,-3.0
2025-06-06 11:39:52.463,-0.006310618,-0.03999374,0.032472886,0.06075907,0.02487582,0.030962514,0.0,0.0,0.0,-0.003288359,0.03168119,0.2811474,-0.11040207,0.12695873,0.080176294,-0.26868868,-0.09960314,0.0006489486,-0.22974525,-0.038078863,0.18170896,-0.15553193,0.04822486,-0.042510733,0.041255705,-0.0011121349,0.022864614,-0.054220308,-0.0034587188,-0.030097816,-0.041983265,-0.033634815,-0.007504502,-0.0017985807,3.0,1.1141917,-3.0,3.0,0.19031602,-3.0,-3.0,-0.23222393,-3.0,-3.0,1.3527759,-3.0,3.0,1.0797505,-3.0,3.0,0.22977394,-3.0,-3.0,-0.24819702,-3.0,-3.0,1.4410554,-3.0
2025-06-06 11:39:52.486,-0.019491656,-0.053073272,-0.0014625915,0.06137767,-0.029826503,0.015512204,0.0,0.0,0.0,-0.0034232985,0.024442215,0.27816525,-0.11220085,0.118062064,0.06229696,-0.26985806,-0.09978295,-0.0045289653,-0.23805872,-0.032068565,0.18249203,-0.14733317,0.034093395,-0.07380132,0.012862489,0.048794027,-0.0498722,-0.043557085,-0.052443575,0.04468073,-0.02529077,0.009099993,-0.04182564,0.050943203,3.0,1.0797505,-3.0,3.0,0.22977394,-3.0,-3.0,-0.24819702,-3.0,-3.0,1.4410554,-3.0,3.0,1.1631362,-3.0,3.0,0.1544866,-3.0,-3.0,-0.18496089,-3.0,-3.0,1.2849988,-3.0
2025-06-06 11:39:52.503,0.012217073,-0.036244586,-0.04905781,0.022892186,-0.004252626,0.0070038764,0.0,0.0,0.0,-0.003328898,0.02987874,0.27046466,-0.11192033,0.12197495,0.06348854,-0.27168426,-0.11265055,-0.0022955667,-0.2243041,-0.04753861,0.19281353,-0.16203211,-0.03532602,-0.0016134911,-0.07333269,0.0407446,-0.046678454,-0.05668357,-0.020931527,-0.05213526,-0.03124003,-0.019135196,0.06062166,0.06782611,3.0,1.1631362,-3.0,3.0,0.1544866,-3.0,-3.0,-0.18496089,-3.0,-3.0,1.2849988,-3.0,3.0,1.2791109,-3.0,3.0,0.30343336,-3.0,-3.0,-0.1281776,-3.0,-3.0,0.9530286,-3.0
2025-06-06 11:39:52.523,0.0032072274,0.052535284,-0.02052671,0.023784969,-0.036485445,-0.028213687,0.0,0.0,0.0,-0.0032284476,0.028315825,0.2765154,-0.10617989,0.13336585,0.06418127,-0.2710953,-0.10645805,-0.016683433,-0.23895356,-0.03761997,0.18712202,-0.15666999,0.06824048,-0.0075529153,-0.007118483,-0.05408637,0.0610625,-0.01242109,0.05252894,0.052583363,0.025837213,0.03618439,-0.03228203,0.042145826,3.0,1.2791109,-3.0,3.0,0.30343336,-3.0,-3.0,-0.1281776,-3.0,-3.0,0.9530286,-3.0,3.0,1.2478862,-3.0,3.0,0.21121109,-3.0,-3.0,-0.21995702,-3.0,-3.0,1.1978713,-3.0
2025-06-06 11:39:52.543,0.029520623,0.026045011,0.06674343,0.057727087,0.03966198,-0.049313392,0.0,0.0,0.0,-0.0034887223,0.028124252,0.2814379,-0.116845876,0.13223465,0.064945474,-0.2725014,-0.117545515,0.00033819745,-0.22910863,-0.031862076,0.19315857,-0.14219032,-0.01842087,0.048726983,-0.0034083843,0.056250256,0.06997506,-0.04471899,0.020697754,-0.016400931,-0.0029720147,-0.04415135,0.02490999,0.03971915,3.0,1.2478862,-3.0,3.0,0.21121109,-3.0,-3.0,-0.21995702,-3.0,-3.0,1.1978713,-3.0,3.0,1.0028443,-3.0,3.0,0.34079593,-3.0,-3.0,-0.33118993,-3.0,-3.0,1.6702323,-3.0
2025-06-06 11:39:52.564,-0.018987713,0.017680956,0.014547478,0.07203655,-0.038688783,0.035973255,0.0,0.0,0.0,-0.0038885078,0.030161954,0.28245628,-0.109529056,0.12469912,0.0646251,-0.2821246,-0.11969634,-0.004617942,-0.23341279,-0.048277363,0.18961242,-0.14637543,0.03831193,0.047351673,-0.022900973,0.011738631,0.03851116,0.005904141,0.05587437,-0.0053815576,-0.0020449804,0.042772155,0.010257508,0.050627112,3.0,1.0028443,-3.0,3.0,0.34079593,-3.0,-3.0,-0.33118993,-3.0,-3.0,1.6702323,-3.0,3.0,1.0816336,-3.0,3.0,0.21435946,-3.0,-3.0,-0.20392488,-3.0,-3.0,1.3394085,-3.0
2025-06-06 11:39:52.586,0.04828263,-0.012907585,-0.03218737,-0.005335479,-0.0004931013,0.045544736,0.0,0.0,0.0,-0.0037366487,0.027474836,0.28552565,-0.10596661,0.12068454,0.06946422,-0.26778257,-0.107203685,-0.00848146,-0.24421066,-0.046506204,0.19696349,-0.15114306,0.058932908,-0.057009205,-0.06566602,0.026951049,-0.04242455,0.021689052,-0.048980158,0.050174505,-0.072147615,-0.049988803,0.011333207,0.001335461,3.0,1.0816336,-3.0,3.0,0.21435946,-3.0,-3.0,-0.20392488,-3.0,-3.0,1.3394085,-3.0,3.0,1.2531451,-3.0,3.0,0.17766064,-3.0,-3.0,-0.17882693,-3.0,-3.0,1.0207586,-3.0
2025-06-06 11:39:52.603,0.0049934383,-0.014198692,-0.021300776,0.058624055,0.032239646,0.015676329,0.0,0.0,0.0,-0.0033314945,0.036845457,0.27779582,-0.10085925,0.1262904,0.06630671,-0.278191,-0.09995951,-0.009935732,-0.23035417,-0.03763905,0.18934454,-0.15547255,0.06147238,-0.048676763,-0.02734815,-0.047106024,-0.02158018,0.06354746,0.055403885,0.054962058,0.043419216,-0.0041153766,-0.06993072,0.013275188,3.0,1.2531451,-3.0,3.0,0.17766064,-3.0,-3.0,-0.17882693,-3.0,-3.0,1.0207586,-3.0,3.0,1.2803122,-3.0,3.0,0.19069636,-3.0,-3.0,-0.20622933,-3.0,-3.0,1.18514,-3.0
