openverse-orca/OrcaGym/log/simulation_log_20250721_142415.csv
timestamp,sim_time,physics_step,control_step,imu_angle_roll,imu_angle_pitch,imu_angle_yaw,imu_angular_velocity_roll,imu_angular_velocity_pitch,imu_angular_velocity_yaw,imu_acc_x,imu_acc_y,imu_acc_z,fl_joint1_pos,fl_joint1_vel,fl_joint1_torque,fl_joint2_pos,fl_joint2_vel,fl_joint2_torque,fl_joint3_pos,fl_joint3_vel,fl_joint3_torque,fr_joint1_pos,fr_joint1_vel,fr_joint1_torque,fr_joint2_pos,fr_joint2_vel,fr_joint2_torque,fr_joint3_pos,fr_joint3_vel,fr_joint3_torque,hl_joint1_pos,hl_joint1_vel,hl_joint1_torque,hl_joint2_pos,hl_joint2_vel,hl_joint2_torque,hl_joint3_pos,hl_joint3_vel,hl_joint3_torque,hr_joint1_pos,hr_joint1_vel,hr_joint1_torque,hr_joint2_pos,hr_joint2_vel,hr_joint2_torque,hr_joint3_pos,hr_joint3_vel,hr_joint3_torque,fl_force_x,fl_force_y,fl_force_z,fr_force_x,fr_force_y,fr_force_z,hl_force_x,hl_force_y,hl_force_z,hr_force_x,hr_force_y,hr_force_z,fl_hip_action,fl_thigh_action,fl_calf_action,fr_hip_action,fr_thigh_action,fr_calf_action,hl_hip_action,hl_thigh_action,hl_calf_action,hr_hip_action,hr_thigh_action,hr_calf_action
2025-07-21 14:24:15.335,0.0,0,0,-0.024208829,0.04991417,0.049315017,-0.033191644,0.040901843,-0.033974,2.4993863,-0.09801859,0.0,0.0,-0.008115858,0.008591345,-0.005094306,0.000654373,-0.009807634,-0.007154888,-0.002703248,0.0018764313,-0.0010899437,0.004464875,-0.0016748984,0.006958372,-0.049242884,0.058615893,0.024452465,-0.02238052,-0.04383002,-0.051552027,-0.04159643,0.028755702,-0.04150282,0.0013794185,0.07475342,0.04072722,0.0,0.0,0.0,0.0,0.0,0.0,0.0,0.0,0.0,0.0,0.0,0.0,-0.65454966,1.9399083,0.00541424,2.0,1.2609873,0.53137773,2.0,-0.6483158,0.91906226,-2.0,-0.01890847,1.4924188
2025-07-21 14:24:15.351,0.02,20,1,0.0816444,-0.040340595,0.025187898,0.014497938,0.03028038,0.00062973954,0.0,0.0,0.0,0.0,-0.01636488,0.052180458,-0.0005495885,0.02142922,0.040579807,-0.0010760742,0.013400643,-0.010031663,0.030984718,-0.013501508,0.00079054525,0.024940072,-0.06268392,0.18829831,0.022011455,0.019341005,0.09491955,0.047018737,-0.0109598,-0.015157743,0.14321125,-0.08969151,0.0033158583,0.15414937,-0.65454966,1.9399083,0.00541424,2.0,1.2609873,0.53137773,2.0,-0.6483158,0.91906226,-2.0,-0.01890847,1.4924188,-1.546438,-0.44521743,-2.0,2.0,0.7839053,-0.7510198,2.0,-0.93994653,-2.0,-2.0,-0.8560709,-2.0
2025-07-21 14:24:15.367,0.04,40,2,-0.03400443,-0.0101938825,0.02374374,0.0413156,-0.0015585897,0.031141892,0.0,0.0,0.0,4.402034e-06,-0.012019047,0.09419786,-0.038052857,0.026644442,0.07918664,-0.0028627373,0.03334868,-0.047726363,-0.016819723,-0.03143888,-0.017862901,0.0060641565,-0.042325556,0.060522914,-0.1435136,-0.021358073,0.1531279,-0.10424954,0.046765044,-0.12979889,-0.1726972,-0.076760724,-0.043986086,-0.18970092,-1.546438,-0.44521743,-2.0,2.0,0.7839053,-0.7510198,2.0,-0.93994653,-2.0,-2.0,-0.8560709,-2.0,-2.0,2.0,-2.0,2.0,1.5341977,1.9024305,2.0,-0.14567885,-2.0,-2.0,-0.67350686,-2.0
2025-07-21 14:24:15.387,0.06,60,3,0.07114359,-0.15481594,0.03285088,-0.038995057,0.023278069,-0.030581376,0.0,0.0,0.0,0.00020144858,-0.011627019,0.08447688,-0.044029243,0.049967747,0.14303187,0.025051927,0.0569838,-0.07357466,-0.042027578,-0.042147055,-0.055019885,-0.0295629,-0.05573604,-0.08425043,0.10124852,0.0013794742,0.2211558,0.13658899,0.06630167,0.016403927,0.06612945,-0.057258703,-0.010578272,-0.0008502207,-2.0,2.0,-2.0,2.0,1.5341977,1.9024305,2.0,-0.14567885,-2.0,-2.0,-0.67350686,-2.0,-2.0,0.9393788,-2.0,1.2888143,0.9767549,0.2651355,2.0,0.2894141,-0.5019064,-2.0,-0.23569496,-2.0
2025-07-21 14:24:15.407,0.08,80,4,0.19024752,-0.16217275,-0.06301033,-0.001939482,0.030207125,-0.046018083,0.0,0.0,0.0,0.0004580685,-0.013378735,0.05935661,0.0029150767,0.0702278,0.19658312,0.05154807,0.058729842,-0.08487414,-0.013561191,-0.045298964,-0.059545748,0.023039542,0.055323124,0.004512693,0.22121823,0.06645451,0.07768288,0.06681845,-0.04220215,-0.004290266,0.022467272,-0.063760154,0.033285864,0.111321844,-2.0,0.9393788,-2.0,1.2888143,0.9767549,0.2651355,2.0,0.2894141,-0.5019064,-2.0,-0.23569496,-2.0,-2.0,1.3035544,-2.0,1.9937468,1.0244439,-0.15778187,2.0,0.22810012,-1.5140879,-2.0,-1.2437814,-2.0
2025-07-21 14:24:15.433,0.1,100,5,0.16775036,-0.16993816,-0.0074029216,-0.049915895,0.047767725,-0.046609078,0.0,0.0,0.0,0.0007769928,-0.025076097,0.056768764,0.06036805,0.06678309,0.20650601,0.07953655,0.07491607,-0.072852455,-0.01301722,-0.043468352,-0.06392427,0.052304916,-0.033344418,-0.07521521,0.088360064,0.08308464,-0.030690545,0.17300074,0.018382015,0.061762955,0.08507163,0.022066953,0.056198873,0.054486543,-2.0,1.3035544,-2.0,1.9937468,1.0244439,-0.15778187,2.0,0.22810012,-1.5140879,-2.0,-1.2437814,-2.0,-2.0,1.3074754,-2.0,2.0,0.92700326,-0.19543925,2.0,-0.4489643,-2.0,-2.0,-0.7259666,-2.0
2025-07-21 14:24:15.451,0.12000000000000001,120,6,0.07742316,-0.21162061,0.047753215,-0.035071496,0.0043225475,-0.008266501,0.0,0.0,0.0,0.00088138983,-0.024062976,0.06661525,0.07749084,0.0739733,0.21855983,0.13624905,0.070117764,-0.06207114,0.0069718966,-0.029370865,-0.05723907,0.081352934,-0.06375539,0.019333657,0.032838013,0.05221115,-0.019531393,0.17506066,-0.06518808,0.07277071,-0.06270722,-0.00013570442,0.019057706,0.13819556,-2.0,1.3074754,-2.0,2.0,0.92700326,-0.19543925,2.0,-0.4489643,-2.0,-2.0,-0.7259666,-2.0,-2.0,1.5514892,-2.0,2.0,1.4029438,0.27823827,2.0,-0.30344778,-2.0,-2.0,-0.5008609,-2.0
2025-07-21 14:24:15.467,0.14,140,7,0.05700293,-0.18717007,-0.032878377,-0.037783835,0.08204814,-0.03669248,0.0,0.0,0.0,0.0007066382,-0.011953581,0.07110281,0.090838134,0.06873907,0.21795547,0.16956356,0.05504418,-0.026529735,0.008928539,-0.040752888,-0.054086357,0.09730043,0.005038565,0.0990607,-0.013095419,0.023568107,0.018636115,0.011001829,-0.024092132,-0.015553295,-0.06999758,-0.020223808,0.029318621,0.008609914,-2.0,1.5514892,-2.0,2.0,1.4029438,0.27823827,2.0,-0.30344778,-2.0,-2.0,-0.5008609,-2.0,-2.0,1.0939742,-2.0,1.800138,1.2453471,-0.29815152,2.0,-0.009241279,-2.0,-2.0,-1.4617459,-2.0
2025-07-21 14:24:15.488,0.16,160,8,0.0033269222,-0.1479407,0.0400857,-0.101971485,0.011427868,0.011085248,0.0,0.0,0.0,0.0007590359,-0.015261635,0.080875315,0.09376532,0.0680405,0.2245203,0.19471373,0.06371403,-0.026142169,-0.0070738206,-0.036228184,-0.06150391,0.11390906,0.042362027,0.06503753,-0.032554537,-0.07009831,0.016568085,0.026334757,0.028938187,-0.004924606,0.035112467,0.0015402457,-0.08109653,-0.018386021,-2.0,1.0939742,-2.0,1.800138,1.2453471,-0.29815152,2.0,-0.009241279,-2.0,-2.0,-1.4617459,-2.0,-2.0,1.107652,-2.0,1.3097847,1.1614342,-0.7766928,2.0,-0.5805028,-2.0,-2.0,-0.7141119,-2.0
2025-07-21 14:24:15.507,0.18,180,9,-0.107826196,-0.069379896,0.023007743,-0.059252523,0.041491073,0.0083534345,0.0,0.0,0.0,0.0007071732,-0.02382671,0.1018787,0.08077379,0.060379,0.20862958,0.18484801,0.060743812,-0.0068756724,-0.012420217,-0.043115538,-0.06594526,0.1385514,-0.014803036,0.09722894,-0.09088861,-0.07746204,0.07930219,0.06424189,-0.08602239,0.073618345,-0.08079788,-0.080650404,-0.0035167956,0.09768547,-2.0,1.107652,-2.0,1.3097847,1.1614342,-0.7766928,2.0,-0.5805028,-2.0,-2.0,-0.7141119,-2.0,-2.0,1.4459003,-2.0,1.4457711,1.6001148,-0.22570285,2.0,-0.44022578,-2.0,-2.0,-1.0293844,-2.0
2025-07-21 14:24:15.534,0.19999999999999998,200,10,-0.1284744,-0.109140724,-0.055273335,-0.085078396,0.12391914,0.016007405,0.0,0.0,0.0,0.00074957724,-0.041893147,0.1122483,0.034028046,0.04113902,0.22616333,0.1913573,0.054850817,-0.00583195,-0.021024961,-0.05718194,-0.06811199,0.1517265,0.010643513,0.07419944,-0.12644695,0.018289436,0.056561362,0.057242222,0.041944083,-0.04672825,0.036096606,-0.07457502,-0.08235872,0.10397731,-2.0,1.4459003,-2.0,1.4457711,1.6001148,-0.22570285,2.0,-0.44022578,-2.0,-2.0,-1.0293844,-2.0,-2.0,1.2970941,-2.0,1.1212144,0.8973572,-0.743751,2.0,-0.23447895,-2.0,-2.0,-1.1170943,-2.0
2025-07-21 14:24:15.551,0.21999999999999997,220,11,-0.1587236,-0.04351815,0.027378513,-0.094638996,0.053228382,-0.022464558,0.0,0.0,0.0,0.0011454683,-0.039606936,0.13183664,0.011822755,0.039607227,0.23983331,0.18319072,0.050279293,-0.0065846434,-0.024786294,-0.06259807,-0.07338944,0.16490757,-0.040737674,0.0648198,-0.023766968,0.007948835,0.002909658,-0.016549489,-0.086878344,-0.05631333,-0.05337447,0.0084509095,-0.0923427,0.08023042,-2.0,1.2970941,-2.0,1.1212144,0.8973572,-0.743751,2.0,-0.23447895,-2.0,-2.0,-1.1170943,-2.0,-2.0,1.2453344,-2.0,1.342556,1.5788137,-0.31115934,2.0,-0.2929269,-2.0,-2.0,-0.8802146,-2.0
2025-07-21 14:24:15.568,0.23999999999999996,240,12,-0.14021236,-0.12806454,-0.054207284,-0.08423641,0.081641406,-0.0018623736,0.0,0.0,0.0,0.0014567148,-0.056288186,0.16140346,-0.020049136,0.0223814,0.24687392,0.17585254,0.044086732,-0.0066892873,-0.04540863,-0.074459285,-0.091511436,0.17299336,-0.08486981,0.07719181,-0.14762947,-0.005853624,0.071398884,-0.07175092,0.038619377,-0.02094237,-0.0002018663,-0.009742007,0.014971674,0.046529166,-2.0,1.2453344,-2.0,1.342556,1.5788137,-0.31115934,2.0,-0.2929269,-2.0,-2.0,-0.8802146,-2.0,-2.0,1.0200052,-2.0,1.2365038,1.0914025,-0.8070782,2.0,-0.07083845,-2.0,-2.0,-1.3788636,-2.0
2025-07-21 14:24:15.588,0.25999999999999995,260,13,-0.13537271,-0.05754455,0.04503801,-0.024127295,0.09218023,0.035950597,0.0,0.0,0.0,0.0017773606,-0.062644966,0.16467965,-0.048615918,0.025959203,0.24626729,0.16651054,0.032044046,0.0155723365,-0.051457077,-0.08325151,-0.086308025,0.17881422,-0.012791889,-0.031541336,-0.09772923,0.0146093825,-0.0020993936,0.032462362,-0.06691274,-0.045657218,0.01837114,-0.08920369,-0.08575296,-0.01463474,-2.0,1.0200052,-2.0,1.2365038,1.0914025,-0.8070782,2.0,-0.07083845,-2.0,-2.0,-1.3788636,-2.0,-2.0,1.2599801,-1.3941772,1.645178,1.5556062,-0.23888919,2.0,-0.3436823,-2.0,-2.0,-0.75869787,-2.0
2025-07-21 14:24:15.608,0.27999999999999997,280,14,-0.025485383,-0.020678593,0.01188932,-0.04349239,0.074427076,-0.032711677,0.0,0.0,0.0,0.0020145779,-0.06748835,0.18779878,-0.08448956,0.01515422,0.24247704,0.15277009,0.02330613,0.01790076,-0.05340266,-0.07615226,-0.103984915,0.17790759,-0.044887215,0.07185694,-0.02322586,0.04071457,0.025628708,0.018153764,-0.038681947,0.035012547,-0.039346814,-0.050175786,0.025284624,0.005084706,-2.0,1.2599801,-1.3941772,1.645178,1.5556062,-0.23888919,2.0,-0.3436823,-2.0,-2.0,-0.75869787,-2.0,-2.0,1.0184704,-2.0,1.6434776,1.3677263,-0.94267446,2.0,-0.24848205,-2.0,-2.0,-1.1505495,-2.0
2025-07-21 14:24:15.634,0.3,300,15,-0.042994186,-0.06445349,0.035132155,-0.015780637,0.08739429,0.001556877,0.0,0.0,0.0,0.0021391672,-0.06323097,0.20644107,-0.09691977,0.012648618,0.24884824,0.15909742,0.022638967,0.011835108,-0.076783344,-0.09121567,-0.098805524,0.18765491,0.0034338944,0.021877982,-0.036251016,0.044299245,0.060114145,0.023114955,-0.014370096,0.07298177,-0.0056288536,-0.025955942,-0.031466447,0.0048250193,-2.0,1.0184704,-2.0,1.6434776,1.3677263,-0.94267446,2.0,-0.24848205,-2.0,-2.0,-1.1505495,-2.0,-2.0,1.3471259,-2.0,2.0,1.3525065,-0.34284398,2.0,-0.35717905,-2.0,-2.0,-0.94792897,-2.0
2025-07-21 14:24:15.651,0.32,320,16,-0.005844905,-0.030162916,0.018162305,0.00090745394,0.11235363,-0.042814884,0.0,0.0,0.0,0.0023197634,-0.07502103,0.20602116,-0.12259752,-0.0036332312,0.2595532,0.14569543,0.036581077,0.024639271,-0.07463682,-0.08439109,-0.09680728,0.1946509,-0.06103873,0.06882609,-0.031290777,-0.0298251,0.04206574,0.06318235,0.058085833,-0.052118544,-0.059210677,-0.05677973,-0.06990358,0.011482218,-2.0,1.3471259,-2.0,2.0,1.3525065,-0.34284398,2.0,-0.35717905,-2.0,-2.0,-0.94792897,-2.0,-2.0,1.1989816,-2.0,2.0,1.4474577,-0.325891,2.0,-0.0194205,-2.0,-2.0,-1.0965505,-2.0
2025-07-21 14:24:15.668,0.34,340,17,0.02433976,-0.055120993,0.048027188,-0.004099776,0.08869467,-0.018820975,0.0,0.0,0.0,0.0024771022,-0.059189565,0.21397544,-0.13112302,0.0036667075,0.2613242,0.15872325,0.03329445,0.020762188,-0.08145743,-0.0842243,-0.10592701,0.2146638,0.040117096,-0.026471226,-0.0957126,-0.07074057,0.057651203,-0.018954793,-0.052421488,0.024670705,-0.045698978,-0.020528588,0.07535619,0.08294085,-2.0,1.1989816,-2.0,2.0,1.4474577,-0.325891,2.0,-0.0194205,-2.0,-2.0,-1.0965505,-2.0,-2.0,1.0953972,-2.0,2.0,1.5617766,-0.26499125,2.0,-0.2045238,-2.0,-2.0,-1.0170528,-2.0
2025-07-21 14:24:15.688,0.36000000000000004,360,18,-0.0016409551,-0.05057172,-0.016453054,-0.03395982,0.121636294,-0.032603323,0.0,0.0,0.0,0.0024802992,-0.0626891,0.23307692,-0.13542351,0.0043617217,0.2722462,0.14757843,0.03441491,0.036658995,-0.07879539,-0.096080706,-0.105076365,0.20477109,0.050210163,-0.045319177,-0.020271366,-0.02064228,0.047038622,0.04943937,0.049635574,0.015932158,-0.005654932,-0.07544466,-0.050103128,0.06797918,-2.0,1.0953972,-2.0,2.0,1.5617766,-0.26499125,2.0,-0.2045238,-2.0,-2.0,-1.0170528,-2.0,-2.0,1.2079045,-2.0,2.0,1.260026,-0.60673034,2.0,0.1141336,-2.0,-2.0,-1.2315093,-2.0
2025-07-21 14:24:15.708,0.38000000000000006,380,19,-0.00897931,-0.025112506,0.055596787,-0.045914076,0.104275495,-0.018613193,0.0,0.0,0.0,0.0024435904,-0.06836782,0.22715561,-0.15234242,-0.005396916,0.26465696,0.14720365,0.037106317,0.032185588,-0.08979151,-0.087098055,-0.0997013,0.20954725,-0.010817349,0.067649476,-0.060579173,-0.01209597,-0.0043745697,0.07356088,-0.015274577,-0.053836886,-0.02440963,0.033477873,0.056709144,0.01215694,-2.0,1.2079045,-2.0,2.0,1.260026,-0.60673034,2.0,0.1141336,-2.0,-2.0,-1.2315093,-2.0,-2.0,0.8486298,-2.0,2.0,1.5374846,-0.30006638,2.0,-0.4114191,-2.0,-2.0,-0.9914754,-2.0
2025-07-21 14:24:15.734,0.4000000000000001,400,20,0.0026431365,0.0029419654,0.0072887354,-0.0006028352,0.114732,-0.04650325,0.0,0.0,0.0,0.0021880425,-0.070660606,0.24000627,-0.14620842,0.014619097,0.28130767,0.162772,0.02168631,0.037600413,-0.090209514,-0.10178571,-0.098367445,0.2233829,-0.024213716,-0.06313602,0.03817252,-0.0094552785,-0.036078468,-0.046529472,-0.055989128,0.049790956,0.009864668,0.057420217,0.014646992,0.044338457,-2.0,0.8486298,-2.0,2.0,1.5374846,-0.30006638,2.0,-0.4114191,-2.0,-2.0,-0.9914754,-2.0,-2.0,1.5365353,-2.0,2.0,1.4428608,-0.36835745,2.0,0.10285187,-2.0,-2.0,-1.1954504,-2.0
2025-07-21 14:24:15.751,0.4200000000000001,420,21,0.049950726,-0.058321152,0.056774106,-0.013590801,0.2005244,-0.025217302,0.0,0.0,0.0,0.002012085,-0.06696517,0.23192833,-0.1381371,0.0155471405,0.27949625,0.15621817,0.023279013,0.051702783,-0.08429135,-0.08244976,-0.09097745,0.23278518,0.052899804,-0.0075228564,-0.03317143,0.025035502,-0.05932636,-0.01728785,-0.068101205,-0.0023659123,0.03553305,-0.0042777723,-0.07069652,0.0593091,-2.0,1.5365353,-2.0,2.0,1.4428608,-0.36835745,2.0,0.10285187,-2.0,-2.0,-1.1954504,-2.0,-2.0,0.8625391,-2.0,2.0,1.4647088,-0.49611607,2.0,-0.09335202,-2.0,-2.0,-0.99374354,-2.0
2025-07-21 14:24:15.768,0.4400000000000001,440,22,-0.00925753,-0.004864941,0.056562185,-0.08343686,0.10666207,0.018197792,0.0,0.0,0.0,0.0017588991,-0.057062782,0.23605181,-0.13812017,0.0062355096,0.27243668,0.1765609,0.02027437,0.04999679,-0.07625611,-0.08860907,-0.08733583,0.23160315,0.06749256,-0.023224398,0.02596203,-0.021924896,-0.0012774102,0.010336749,-0.024978152,-0.013359222,0.0016920825,-0.06355309,-0.025707925,0.027935406,-2.0,0.8625391,-2.0,2.0,1.4647088,-0.49611607,2.0,-0.09335202,-2.0,-2.0,-0.99374354,-2.0,-2.0,1.1184741,-2.0,2.0,1.5740306,-0.48941264,2.0,-0.17388174,-2.0,-2.0,-0.98646736,-2.0
2025-07-21 14:24:15.788,0.46000000000000013,460,23,0.025992379,0.028106406,0.0015419845,-0.029807558,0.1962298,-0.040721048,0.0,0.0,0.0,0.0013946289,-0.061630335,0.2440229,-0.13706686,0.017951423,0.27663472,0.1673173,0.025571698,0.049169708,-0.06794841,-0.09596293,-0.09503162,0.22658725,0.041762616,0.049666904,0.07337169,0.0063361693,-0.017053083,-0.063147575,-0.020934016,-0.03558728,-0.003224965,0.010093423,-0.067563266,0.069946036,-2.0,1.1184741,-2.0,2.0,1.5740306,-0.48941264,2.0,-0.17388174,-2.0,-2.0,-0.98646736,-2.0,-2.0,0.96743953,-2.0,2.0,1.3460789,-0.6488887,2.0,0.08327627,-2.0,-2.0,-1.4057828,-2.0
2025-07-21 14:24:15.808,0.48000000000000015,480,24,-0.050546292,0.024149882,0.044382397,-0.0058927448,0.10684933,-0.042488936,0.0,0.0,0.0,0.0012311978,-0.065914445,0.23474674,-0.12619188,0.0060533416,0.28707078,0.16892163,0.03758156,0.05282965,-0.071335524,-0.08413963,-0.09855468,0.24434403,-0.060860142,0.05542551,-0.042098276,-0.0001499396,-0.03255939,0.03171536,-0.019564074,-0.06224456,0.02225423,-0.047326848,0.020027302,-0.027187638,-2.0,0.96743953,-2.0,2.0,1.3460789,-0.6488887,2.0,0.08327627,-2.0,-2.0,-1.4057828,-2.0,-2.0,0.95867294,-1.677609,2.0,1.6423187,-0.4258161,2.0,-0.23528644,-2.0,-2.0,-1.085182,-2.0
2025-07-21 14:24:15.834,0.5000000000000001,500,25,-0.002293576,0.08150126,0.0010616473,-0.06287911,0.12624474,0.0035724528,0.0,0.0,0.0,0.0009446021,-0.057258476,0.23788786,-0.117746465,0.014257845,0.28595734,0.16904332,0.021970706,0.041195318,-0.06656478,-0.095668055,-0.090488255,0.23341656,-0.062215365,-0.049015082,-0.021446986,-0.017767116,0.026355058,-0.030141424,0.017431028,-0.022061676,0.053194426,0.04050935,0.04703173,0.011988306,-2.0,0.95867294,-1.677609,2.0,1.6423187,-0.4258161,2.0,-0.23528644,-2.0,-2.0,-1.085182,-2.0,-2.0,1.3130982,-2.0,2.0,1.2824861,-0.4755396,2.0,-0.22920448,-2.0,-2.0,-1.1397568,-2.0
2025-07-21 14:24:15.851,0.5200000000000001,520,26,-0.039490867,0.009807034,0.016801348,-0.052405246,0.10463561,-0.013872065,0.0,0.0,0.0,0.00059715204,-0.064164475,0.24698074,-0.11490117,0.011985513,0.28039923,0.17719336,0.03078636,0.044722002,-0.068733566,-0.103025384,-0.10055847,0.24533226,0.04852072,-0.07336184,-0.06314215,-0.049620118,-0.053454343,0.016335623,0.038614087,-0.038366195,-0.05898891,-0.016265582,0.014068383,-0.06798291,-2.0,1.3130982,-2.0,2.0,1.2824861,-0.4755396,2.0,-0.22920448,-2.0,-2.0,-1.1397568,-2.0,-2.0,1.2133398,-2.0,2.0,1.5797088,-0.37945178,2.0,0.013967577,-2.0,-2.0,-1.1887845,-2.0
2025-07-21 14:24:15.869,0.5400000000000001,540,27,0.0379097,0.07197773,-0.025179716,0.0014060987,0.16105141,0.024184225,0.0,0.0,0.0,0.00027106036,-0.067924015,0.23985429,-0.1089352,0.025856469,0.2900078,0.15778513,0.023710448,0.034805562,-0.05896733,-0.10092407,-0.098642446,0.24407679,-0.028016327,0.068146646,0.053666815,0.014823939,0.032312702,0.01147976,-0.066267885,-0.049997058,0.021404877,-0.0148775745,0.07051518,-0.05485047,-2.0,1.2133398,-2.0,2.0,1.5797088,-0.37945178,2.0,0.013967577,-2.0,-2.0,-1.1887845,-2.0,-2.0,0.9108013,-2.0,2.0,1.2704479,-0.546517,2.0,-0.022922691,-2.0,-2.0,-1.4795865,-2.0
2025-07-21 14:24:15.889,0.5600000000000002,560,28,-0.007055943,0.066533074,0.00077008,-0.06420963,0.16926153,0.017078742,0.0,0.0,0.0,-0.00018565307,-0.05717333,0.24144955,-0.11265049,0.024456087,0.28643084,0.15745132,0.02763233,0.04142324,-0.05326764,-0.10052764,-0.09848719,0.23989236,-0.012683971,0.032444008,0.041893557,-0.0559809,-0.05123739,0.04200947,0.03403966,0.034214184,-0.03000244,-0.0005201829,-0.06854861,-0.06308419,-2.0,0.9108013,-2.0,2.0,1.2704479,-0.546517,2.0,-0.022922691,-2.0,-2.0,-1.4795865,-2.0,-2.0,0.93019915,-1.4851202,2.0,1.4252933,-0.57291836,2.0,0.0528127,-2.0,-2.0,-1.365099,-2.0
2025-07-21 14:24:15.911,0.5800000000000002,580,29,-0.023900738,0.009424465,0.014226272,-0.08317255,0.14034367,-0.017604642,0.0,0.0,0.0,-0.00079351367,-0.05585742,0.24012248,-0.1031352,0.031719744,0.27834463,0.16917674,0.01946496,0.048805334,-0.057659693,-0.09055806,-0.10634687,0.23935762,-0.03360963,-0.017732222,-0.03109729,0.085955024,-0.028414164,0.021744639,0.045097593,-0.053880252,-0.04206114,0.063883424,0.0072798054,-0.042010598,-2.0,0.93019915,-1.4851202,2.0,1.4252933,-0.57291836,2.0,0.0528127,-2.0,-2.0,-1.365099,-2.0,-2.0,1.096733,-1.9917059,2.0,1.29034,-0.33783928,2.0,-0.27919906,-2.0,-2.0,-1.0610721,-2.0
2025-07-21 14:24:15.934,0.6000000000000002,600,30,-0.028762195,0.0028180443,-0.01501318,-0.04548374,0.0888136,-0.03542518,0.0,0.0,0.0,-0.0016330038,-0.06543626,0.22895773,-0.09094864,0.04062723,0.28042015,0.16603175,0.023561701,0.030755468,-0.04049284,-0.09862703,-0.115430735,0.24409384,0.07231734,-0.014163301,0.03667973,-0.0074609076,0.051418357,-0.005227233,0.01693599,0.053494357,0.032200634,0.01684895,-0.0763983,0.020663405,-2.0,1.096733,-1.9917059,2.0,1.29034,-0.33783928,2.0,-0.27919906,-2.0,-2.0,-1.0610721,-2.0,-2.0,1.382653,-2.0,2.0,1.3021481,-0.39314088,2.0,0.06984204,-2.0,-2.0,-1.3068432,-2.0
2025-07-21 14:24:15.951,0.6200000000000002,620,31,0.04577771,0.049141474,0.08343133,-0.0097819,0.16757774,-0.015276594,0.0,0.0,0.0,-0.002406348,-0.061141256,0.22821817,-0.0866023,0.038510144,0.27046704,0.1642405,0.021449378,0.0446246,-0.045545742,-0.09575443,-0.11556928,0.22513415,0.045737494,-0.042900138,0.05906341,0.060083933,-0.047338247,-0.056978513,0.052703224,0.027444268,0.05147068,0.052734893,-0.011723996,-0.07041331,-2.0,1.382653,-2.0,2.0,1.3021481,-0.39314088,2.0,0.06984204,-2.0,-2.0,-1.3068432,-2.0,-2.0,0.99953216,-2.0,2.0,1.3983395,-0.35061017,2.0,-0.270855,-2.0,-2.0,-0.9850085,-2.0
2025-07-21 14:24:15.969,0.6400000000000002,640,32,0.03566763,0.061431244,-0.021995591,-0.013957611,0.09456947,-0.046070434,0.0,0.0,0.0,-0.003185307,-0.06260405,0.23209454,-0.085096695,0.044570442,0.26631534,0.14418617,0.034099694,0.03111371,-0.052630093,-0.09145359,-0.09905073,0.22529085,0.021666039,0.02481793,-0.031353407,-0.031224081,0.038067654,-0.079922445,-0.004641662,-0.033932153,0.0041832626,-0.052398037,-0.025024606,0.04080895,-2.0,0.99953216,-2.0,2.0,1.3983395,-0.35061017,2.0,-0.270855,-2.0,-2.0,-0.9850085,-2.0,-2.0,1.2426903,-2.0,2.0,1.3800193,-0.32323876,2.0,0.122416675,-2.0,-2.0,-1.4199015,-2.0
2025-07-21 14:24:15.989,0.6600000000000003,660,33,-0.016905546,-0.0042769127,0.06839651,-0.013888141,0.12487733,-0.033556774,0.0,0.0,0.0,-0.0037691714,-0.047052573,0.21648033,-0.07450386,0.04136358,0.2749385,0.14314418,0.03372232,0.028623465,-0.047680974,-0.08669565,-0.11120029,0.22337678,-0.011053522,0.06009143,-0.04375527,0.02681758,0.024506757,-0.0476249,-0.037497047,0.012961203,-0.05315789,0.005860813,0.002435268,0.0008619788,-2.0,1.2426903,-2.0,2.0,1.3800193,-0.32323876,2.0,0.122416675,-2.0,-2.0,-1.4199015,-2.0,-2.0,0.8339688,-2.0,2.0,1.4426916,-0.4223806,2.0,-0.2746799,-2.0,-2.0,-1.0273542,-2.0
2025-07-21 14:24:16.012,0.6800000000000003,680,34,0.0117397355,0.008613083,0.026305318,0.0030908692,0.16281052,0.0035864825,0.0,0.0,0.0,-0.0042479527,-0.05322025,0.214251,-0.08009444,0.0539358,0.2746736,0.14924899,0.026544712,0.04284689,-0.055885892,-0.09324014,-0.115117274,0.2091946,0.037391074,0.026952872,0.052486423,0.026328607,-0.03502955,0.014793667,-0.019096492,-0.024760524,0.055133775,-0.031222668,0.030750519,-0.046894442,-2.0,0.8339688,-2.0,2.0,1.4426916,-0.4223806,2.0,-0.2746799,-2.0,-2.0,-1.0273542,-2.0,-2.0,1.1988356,-2.0,2.0,1.4369144,-0.38860688,2.0,-0.15451688,-2.0,-2.0,-1.2049185,-2.0
2025-07-21 14:24:16.033,0.7000000000000003,700,35,0.0137637025,-0.0011200313,-0.040670976,-0.06046509,0.11656945,0.04880573,0.0,0.0,0.0,-0.004506167,-0.064016856,0.22677702,-0.081341535,0.061024647,0.2650077,0.14475256,0.030203141,0.03665678,-0.052356284,-0.09275134,-0.112865955,0.20661575,0.057697773,0.014907472,-0.050775483,-0.04153486,0.033773735,-0.03739516,-0.039834443,-0.0181172,-0.06504429,0.03139264,-0.04877068,-0.040287003,-2.0,1.1988356,-2.0,2.0,1.4369144,-0.38860688,2.0,-0.15451688,-2.0,-2.0,-1.2049185,-2.0,-2.0,1.0992507,-1.9607326,2.0,1.1724303,-0.6039236,2.0,0.10205847,-2.0,-2.0,-1.405478,-2.0
2025-07-21 14:24:16.050,0.7200000000000003,720,36,0.032291874,0.035222366,0.04248727,-0.018018927,0.1515414,-0.02338783,0.0,0.0,0.0,-0.0044692275,-0.05344209,0.21530205,-0.08221437,0.04696077,0.2579511,0.14518577,0.020743147,0.029612115,-0.042346258,-0.09632163,-0.11243452,0.19402419,-0.049109954,-0.05733755,-0.018542523,0.045429572,-0.013054244,-0.07423207,-0.015566496,-0.029929098,-0.063533224,-0.013854735,0.05574614,0.063600555,-2.0,1.0992507,-1.9607326,2.0,1.1724303,-0.6039236,2.0,0.10205847,-2.0,-2.0,-1.405478,-2.0,-2.0,1.1183437,-2.0,2.0,1.5367677,-0.06493053,2.0,-0.23033428,-2.0,-2.0,-1.1870866,-2.0
2025-07-21 14:24:16.070,0.7400000000000003,740,37,-0.0043811547,0.008357234,-0.0055946154,-0.02737104,0.086324185,-0.022064654,0.0,0.0,0.0,-0.004637888,-0.06272554,0.20858729,-0.07520479,0.05514737,0.2676471,0.14525945,0.020922134,0.02834149,-0.055977434,-0.094600976,-0.100808285,0.20159064,0.0020725843,0.06422703,0.018999591,-0.041125067,0.03997762,-0.010452446,0.0743232,0.015222582,-0.061482847,0.0252528,0.05175312,-0.06483005,-2.0,1.1183437,-2.0,2.0,1.5367677,-0.06493053,2.0,-0.23033428,-2.0,-2.0,-1.1870866,-2.0,-2.0,1.0640913,-2.0,2.0,1.2042469,-0.6544144,2.0,0.030878518,-2.0,-2.0,-1.3577257,-2.0
2025-07-21 14:24:16.090,0.7600000000000003,760,38,-0.0015032858,0.0067003635,-0.022056546,-0.08339866,0.09075862,0.017610203,0.0,0.0,0.0,-0.004812142,-0.057472423,0.2042846,-0.06791868,0.05709635,0.25018293,0.13070814,0.025712611,0.01814647,-0.048743013,-0.076760665,-0.11225427,0.20028833,0.050146785,-0.013342718,0.012004243,0.02054646,0.034455117,-0.07606507,-0.05608702,-0.03125568,0.0650779,-0.03420538,0.036582883,-0.082678035,-2.0,1.0640913,-2.0,2.0,1.2042469,-0.6544144,2.0,0.030878518,-2.0,-2.0,-1.3577257,-2.0,-2.0,1.1594247,-1.9834116,2.0,1.3123462,-0.31638005,2.0,-0.15332931,-2.0,-2.0,-1.3085012,-2.0
2025-07-21 14:24:16.110,0.7800000000000004,780,39,-0.022665346,-0.027471246,-0.02288641,-0.060831957,0.10317871,-0.013888343,0.0,0.0,0.0,-0.004980424,-0.06263834,0.2144621,-0.07967632,0.0625605,0.24665053,0.12453909,0.034759708,0.02185681,-0.05604345,-0.081178814,-0.11933273,0.18627846,0.04515335,0.006322269,0.03609561,0.0012497997,0.037977587,-0.044795953,-0.022233628,-0.016075067,-0.025192859,0.00066586316,-0.044545818,-0.04766902,-2.0,1.1594247,-1.9834116,2.0,1.3123462,-0.31638005,2.0,-0.15332931,-2.0,-2.0,-1.3085012,-2.0,-2.0,1.1926608,-2.0,2.0,1.2019298,-0.57717544,2.0,0.028053049,-2.0,-2.0,-1.2816508,-2.0
2025-07-21 14:24:16.132,0.8000000000000004,800,40,-0.0025634351,-0.02952544,0.02133962,0.002057083,0.14131857,-0.04868753,0.0,0.0,0.0,-0.0052474383,-0.051117472,0.19791634,-0.086102046,0.058556784,0.24917224,0.13199116,0.020920273,0.024800722,-0.04888663,-0.0890124,-0.11922508,0.17835236,0.024020169,0.057602886,-0.03337713,-0.032956153,0.03744892,-0.05357287,0.03823846,-0.0116666695,-0.04777135,-0.06644438,-0.07823299,-0.070932366,-2.0,1.1926608,-2.0,2.0,1.2019298,-0.57717544,2.0,0.028053049,-2.0,-2.0,-1.2816508,-2.0,-2.0,0.8053959,-1.5671506,2.0,1.4373263,-0.55836904,2.0,-0.0185599,-2.0,-2.0,-1.2852403,-2.0
2025-07-21 14:24:16.156,0.8200000000000004,820,41,-0.014723123,0.06162469,0.04299586,0.00039697965,0.11092399,-0.049207345,0.0,0.0,0.0,-0.005606042,-0.062616944,0.19221205,-0.083128534,0.077644475,0.2403498,0.12537766,0.031353243,0.009907121,-0.05864105,-0.08836199,-0.12711935,0.17102349,0.0025925885,0.020096466,-0.055474404,0.0069066063,-0.027492372,-0.06504526,-0.03716913,-0.017678147,0.049009327,-0.047734477,0.016742863,-0.019034168,-2.0,0.8053959,-1.5671506,2.0,1.4373263,-0.55836904,2.0,-0.0185599,-2.0,-2.0,-1.2852403,-2.0,-2.0,1.0354309,-1.6695247,2.0,1.4873986,-0.65963906,2.0,-0.4481608,-2.0,-2.0,-1.0685529,-2.0
2025-07-21 14:24:16.175,0.8400000000000004,840,42,-0.007882772,0.009736052,-0.058636118,-0.038306404,0.112306505,-0.022205943,0.0,0.0,0.0,-0.0060110707,-0.0666055,0.18758829,-0.06502556,0.07404088,0.24295016,0.13347657,0.020400478,0.016269086,-0.06150197,-0.08648702,-0.11969498,0.16841501,-0.08183722,0.031605426,-0.020965084,0.068072185,0.033498712,0.018505413,0.066156,-0.0034441324,0.05694726,0.045037046,-0.01375947,-0.049121045,-2.0,1.0354309,-1.6695247,2.0,1.4873986,-0.65963906,2.0,-0.4481608,-2.0,-2.0,-1.0685529,-2.0,-2.0,1.4923109,-2.0,2.0,0.97409666,-0.6048661,2.0,-0.26486027,-2.0,-2.0,-1.3302134,-2.0
2025-07-21 14:24:16.192,0.8600000000000004,860,43,-0.04809205,0.003423839,-0.0041304184,-0.002518955,0.13732602,0.031960487,0.0,0.0,0.0,-0.0061261975,-0.06261503,0.18950452,-0.07669213,0.058447663,0.23502986,0.13149244,0.032298986,0.014771341,-0.06650659,-0.086094685,-0.13069709,0.16397095,0.029810429,-0.043031797,0.018484673,0.065207265,0.010074805,0.05439027,0.0013417898,-0.0154170105,-0.06671474,-0.0016530317,-0.020105213,0.0584536,-2.0,1.4923109,-2.0,2.0,0.97409666,-0.6048661,2.0,-0.26486027,-2.0,-2.0,-1.3302134,-2.0,-2.0,1.4763197,-2.0,2.0,1.2597451,0.0146918595,2.0,-0.16073674,-2.0,-2.0,-1.1058625,-2.0
2025-07-21 14:24:16.217,0.8800000000000004,880,44,0.06022964,0.019516159,-0.025430407,-0.013962501,0.08419283,-0.04552483,0.0,0.0,0.0,-0.0062043876,-0.06920257,0.19058862,-0.07799806,0.070910305,0.23206927,0.12302051,0.03303267,0.012018945,-0.06378957,-0.08389074,-0.12970057,0.16456418,-0.0065073175,0.05801966,-0.009857322,0.020785095,-0.065133184,0.05692533,-0.007274511,-0.053295948,0.060752764,-0.032202862,0.034837753,-0.08563602,-2.0,1.4763197,-2.0,2.0,1.2597451,0.0146918595,2.0,-0.16073674,-2.0,-2.0,-1.1058625,-2.0,-2.0,0.9482266,-2.0,2.0,1.2515898,-0.7910144,2.0,0.0005246736,-2.0,-2.0,-1.3934153,-2.0
2025-07-21 14:24:16.233,0.9000000000000005,900,45,0.054587208,-0.031333324,0.028069401,-0.03822755,0.07403151,0.0007466777,0.0,0.0,0.0,-0.006393193,-0.06626166,0.1832085,-0.06660071,0.06686261,0.23519099,0.12971525,0.029267106,-0.0005143899,-0.064720735,-0.07403314,-0.13813376,0.15285578,-0.020747473,0.031186827,-0.005209349,0.016854152,0.035302583,-0.022283485,0.058574144,0.01679199,0.043929156,-0.04968055,-0.021769991,-0.047867786,-2.0,0.9482266,-2.0,2.0,1.2515898,-0.7910144,2.0,0.0005246736,-2.0,-2.0,-1.3934153,-2.0,-2.0,1.095704,-1.9710777,2.0,1.2829211,-0.67615634,2.0,-0.4439515,-2.0,-2.0,-1.068878,-2.0
2025-07-21 14:24:16.252,0.9200000000000005,920,46,-0.002226041,0.054715388,-0.05845213,-0.07103781,0.14656156,0.0017928634,0.0,0.0,0.0,-0.006590752,-0.055024184,0.17624511,-0.064719595,0.062982604,0.23110631,0.12635201,0.032025848,-0.004795759,-0.0724877,-0.092039526,-0.13730574,0.15110616,0.058546342,0.031157613,0.013746803,-0.06623822,0.0037560028,0.00633094,-0.0026989104,0.035699476,-0.052270018,-0.01590526,-0.039407495,0.0007874837,-2.0,1.095704,-1.9710777,2.0,1.2829211,-0.67615634,2.0,-0.4439515,-2.0,-2.0,-1.068878,-2.0,-2.0,1.2732488,-2.0,2.0,1.1085434,-0.9247389,2.0,-0.062173363,-2.0,-2.0,-1.4407531,-2.0
2025-07-21 14:24:16.272,0.9400000000000005,940,47,0.0012418043,0.05392259,-0.014662433,-0.07974904,0.09756732,-0.035504397,0.0,0.0,0.0,-0.0065902583,-0.06023712,0.16947876,-0.083611615,0.07463662,0.21263973,0.12040856,0.035191044,-0.0063162004,-0.061096553,-0.08108719,-0.13164857,0.1644963,-0.043639295,0.059960775,0.05510428,-0.010629422,-0.019643134,0.032462917,-0.04614269,0.030555354,0.062171064,-0.048239317,-0.04613953,-0.02032526,-2.0,1.2732488,-2.0,2.0,1.1085434,-0.9247389,2.0,-0.062173363,-2.0,-2.0,-1.4407531,-2.0,-2.0,1.100271,-1.5590134,2.0,1.3314192,-1.071379,2.0,-0.30699995,-2.0,-2.0,-1.1943549,-2.0
2025-07-21 14:24:16.292,0.9600000000000005,960,48,0.036269996,0.08471738,-0.039271038,0.00035331913,0.11970277,0.026739996,0.0,0.0,0.0,-0.006633443,-0.06351159,0.18130097,-0.0851628,0.081633516,0.21265444,0.11704111,0.028418878,-0.008691436,-0.07807533,-0.080844976,-0.14245984,0.15953821,-0.015309938,0.0036281613,-0.021910582,-0.0689363,-0.03921439,-0.01799816,-0.016691562,-0.06854436,0.062426984,-0.008222818,-0.030186338,-0.047708716,-2.0,1.100271,-1.5590134,2.0,1.3314192,-1.071379,2.0,-0.30699995,-2.0,-2.0,-1.1943549,-2.0,-2.0,1.3724295,-2.0,2.0,1.216166,-0.91351146,2.0,-0.3236681,-2.0,-2.0,-1.1640753,-2.0
2025-07-21 14:24:16.317,0.9800000000000005,980,49,-0.046231266,0.00052007363,-0.016310591,-0.04384279,0.13358118,-0.011586582,0.0,0.0,0.0,-0.0068408963,-0.07422185,0.18114631,-0.07330516,0.07818643,0.22223085,0.11978672,0.01831859,-0.006339302,-0.06377452,-0.078776576,-0.14807196,0.14416687,-0.0075698425,0.069328494,-0.0746541,0.04105639,0.029024491,-0.022361197,0.05949569,0.04452082,0.015653051,-0.043748874,0.035023876,-0.0042560287,-2.0,1.3724295,-2.0,2.0,1.216166,-0.91351146,2.0,-0.3236681,-2.0,-2.0,-1.1640753,-2.0,-2.0,1.1457025,-2.0,2.0,1.2029434,-0.80447555,2.0,-0.34570152,-2.0,-2.0,-1.3074843,-2.0
2025-07-21 14:24:16.334,1.0000000000000004,1000,50,-0.032234874,0.023522386,0.028213764,-0.009791706,0.05758037,0.021811958,0.0,0.0,0.0,-0.007013245,-0.076910555,0.1702299,-0.079599865,0.07048079,0.20491791,0.12100388,0.023433479,-0.011263494,-0.08265248,-0.080182366,-0.14260593,0.14193888,0.008060554,0.035574786,-0.08269142,0.046784654,0.062257905,-0.04620988,-0.008595985,0.0008178643,0.027123906,-0.066907346,-0.06708545,-0.0010816138,-2.0,1.1457025,-2.0,2.0,1.2029434,-0.80447555,2.0,-0.34570152,-2.0,-2.0,-1.3074843,-2.0,-2.0,1.4090776,-2.0,2.0,1.241554,-0.34769872,2.0,-0.39077908,-2.0,-2.0,-0.9073614,-2.0
2025-07-21 14:24:16.353,1.0200000000000005,1020,51,-0.025474247,-0.010154701,-0.023970203,-0.09056111,0.052167844,-0.015357451,0.0,0.0,0.0,-0.0071185282,-0.06460477,0.16195133,-0.08358859,0.0727672,0.19894291,0.10625182,0.020987572,-0.009294973,-0.07677561,-0.09242548,-0.14730388,0.14491357,0.03463436,-0.0066761137,-0.016103325,-0.04560818,0.065308526,0.015573954,-0.05394616,0.013233605,-0.0036156212,-0.032099314,0.03824128,-0.015070627,-2.0,1.4090776,-2.0,2.0,1.241554,-0.34769872,2.0,-0.39077908,-2.0,-2.0,-0.9073614,-2.0,-2.0,1.3054477,-2.0,2.0,1.2815441,-0.5121029,2.0,-0.17638779,-2.0,-2.0,-1.3824455,-2.0
2025-07-21 14:24:16.373,1.0400000000000005,1040,52,0.04072109,-0.040029157,0.014871045,-0.06745962,0.10192207,0.03722428,0.0,0.0,0.0,-0.0070317206,-0.06428333,0.16955872,-0.0974882,0.07734942,0.19963272,0.114305966,0.019645572,-0.002101491,-0.08051655,-0.0774061,-0.14463164,0.13759467,-0.023078233,-0.02391487,0.047689725,-0.053867955,0.061291132,0.0046475506,-0.06884339,-0.03303401,-0.036449414,-0.03930051,-0.042550504,0.01614222,-2.0,1.3054477,-2.0,2.0,1.2815441,-0.5121029,2.0,-0.17638779,-2.0,-2.0,-1.3824455,-2.0,-2.0,1.2807378,-2.0,2.0,1.271938,-0.60615027,2.0,-0.26024577,-2.0,-2.0,-1.0595908,-2.0
2025-07-21 14:24:16.395,1.0600000000000005,1060,53,0.012512414,-0.012446113,-0.003151069,-0.052926585,0.12165662,-0.046644047,0.0,0.0,0.0,-0.00689714,-0.07458585,0.16995633,-0.079641975,0.07189701,0.20381719,0.10586322,0.020021465,-0.0010816321,-0.07774413,-0.071380794,-0.14550708,0.13350858,0.025437275,0.03158936,-0.0033406615,-0.07177215,0.02323944,0.038630478,-0.024521317,-0.00063152745,-0.03044487,-0.008336151,-0.018227853,-0.05847193,-2.0,1.2807378,-2.0,2.0,1.271938,-0.60615027,2.0,-0.26024577,-2.0,-2.0,-1.0595908,-2.0,-2.0,1.0946367,-2.0,2.0,1.3170286,-0.795383,2.0,-0.2571267,-2.0,-2.0,-1.2700572,-2.0
2025-07-21 14:24:16.417,1.0800000000000005,1080,54,0.003140895,0.026404103,0.012700723,-0.06299768,0.049800064,-0.00783887,0.0,0.0,0.0,-0.006775203,-0.06651041,0.17393738,-0.09635594,0.07416386,0.19917285,0.10527451,0.028023016,-0.011734367,-0.08268603,-0.07120306,-0.13838685,0.13813359,0.00063374685,0.062498637,-0.06393153,0.0103500495,0.06323965,0.047490597,0.018212209,-0.078260586,-0.0140821,0.027719852,-0.013553504,-0.02733468,-2.0,1.0946367,-2.0,2.0,1.3170286,-0.795383,2.0,-0.2571267,-2.0,-2.0,-1.2700572,-2.0,-2.0,1.2858652,-2.0,2.0,1.1442962,-0.41779616,2.0,-0.5262496,-2.0,-2.0,-0.9314066,-2.0
2025-07-21 14:24:16.433,1.1000000000000005,1100,55,0.046899453,-0.0093493285,-0.024112297,-0.02599786,0.09842716,0.04912777,0.0,0.0,0.0,-0.006586767,-0.08177347,0.1651786,-0.08150573,0.07729467,0.19827127,0.11405845,0.035038576,-0.0078116343,-0.08453758,-0.07507743,-0.13436319,0.12598231,-0.08165418,0.06986626,-0.041995805,0.036018997,-0.028803732,-0.0634051,0.02768733,0.014960337,0.007950025,0.047386277,-0.024106601,-0.03777175,-2.0,1.2858652,-2.0,2.0,1.1442962,-0.41779616,2.0,-0.5262496,-2.0,-2.0,-0.9314066,-2.0,-2.0,1.4311991,-2.0,2.0,1.1245947,-0.26547936,2.0,-0.12570548,-2.0,-2.0,-1.3794829,-2.0
2025-07-21 14:24:16.453,1.1200000000000006,1120,56,-0.02242854,-0.06701724,-0.034488864,-0.029543228,0.077131696,-0.032864824,0.0,0.0,0.0,-0.006228538,-0.08010006,0.16691259,-0.08569937,0.079113774,0.21272364,0.1229788,0.033663597,-0.0205522,-0.08869266,-0.0681524,-0.1446535,0.13294801,-0.02587093,-0.02328204,0.060696177,-0.060824454,0.02867727,0.008196665,0.027859217,-0.02976246,-0.07491523,0.046504527,-0.059336264,-0.011311523,-2.0,1.4311991,-2.0,2.0,1.1245947,-0.26547936,2.0,-0.12570548,-2.0,-2.0,-1.3794829,-2.0,-2.0,1.3321743,-2.0,2.0,1.1528523,-0.665211,2.0,-0.050065573,-2.0,-2.0,-1.2654263,-2.0
2025-07-21 14:24:16.473,1.1400000000000006,1140,57,0.010615849,0.0017973136,0.01952424,-0.027286958,0.082083,-0.013351362,0.0,0.0,0.0,-0.0059759626,-0.07309473,0.17385334,-0.08676755,0.08193688,0.20245342,0.12618002,0.033473372,-0.008007592,-0.08139211,-0.067864366,-0.14214891,0.13220678,0.008253315,0.013555332,-0.014250492,0.037283007,0.06478273,-0.009674583,0.069896184,-0.030633094,0.05688505,0.02433899,-0.026061267,-0.061630577,-2.0,1.3321743,-2.0,2.0,1.1528523,-0.665211,2.0,-0.050065573,-2.0,-2.0,-1.2654263,-2.0,-2.0,1.1920558,-2.0,2.0,1.134672,-0.36168137,2.0,-0.46935257,-2.0,-2.0,-1.0235658,-2.0
2025-07-21 14:24:16.499,1.1600000000000006,1160,58,-0.006638516,-0.023105687,0.0069463574,-0.07088475,0.11005989,-0.021674497,0.0,0.0,0.0,-0.006094205,-0.08260485,0.16461188,-0.08874344,0.074270055,0.19211322,0.13511637,0.027395926,-0.011311771,-0.08462457,-0.06974009,-0.1369645,0.12530309,-0.059925996,-0.029266026,0.067386776,0.049194627,-0.032814782,-0.047402047,0.05555634,0.05073689,-0.043979138,-0.05118993,-0.042614296,-0.06395285,-2.0,1.1920558,-2.0,2.0,1.134672,-0.36168137,2.0,-0.46935257,-2.0,-2.0,-1.0235658,-2.0,-2.0,1.450015,-2.0,2.0,1.321343,-0.48095605,2.0,-0.033258375,-2.0,-2.0,-1.1836106,-2.0
2025-07-21 14:24:16.517,1.1800000000000006,1180,59,0.020380396,-0.0143281575,-0.001054689,-0.012995106,0.07619577,0.0050607803,0.0,0.0,0.0,-0.0061628227,-0.08361193,0.169433,-0.086761415,0.07158058,0.20720248,0.13943048,0.041392326,0.0015354806,-0.08195556,-0.08100497,-0.13993442,0.12742889,-0.032190252,0.072769165,0.0332547,0.056418035,0.01316214,0.0077489284,0.066274874,-0.034190904,-0.059722666,-0.032250226,0.030666476,-0.05455737,-2.0,1.450015,-2.0,2.0,1.321343,-0.48095605,2.0,-0.033258375,-2.0,-2.0,-1.1836106,-2.0,-2.0,0.93055695,-2.0,2.0,1.1205337,-0.90662277,2.0,-0.2836899,-2.0,-2.0,-1.2842859,-2.0
2025-07-21 14:24:16.535,1.2000000000000006,1200,60,-0.035713453,0.026703287,-0.04348999,-0.0248419,0.10118091,-0.009806035,0.0,0.0,0.0,-0.0062110177,-0.08986609,0.16647643,-0.08152176,0.07911847,0.19830865,0.12883289,0.02385294,-0.012123826,-0.090985395,-0.07368932,-0.13280909,0.13724956,-0.061621502,-0.04160093,-0.06025148,-0.010148021,-0.00260309,0.05626103,-0.012427654,0.007378299,-0.039760865,-0.06846215,-0.009116645,-0.0003067849,-2.0,0.93055695,-2.0,2.0,1.1205337,-0.90662277,2.0,-0.2836899,-2.0,-2.0,-1.2842859,-2.0,-2.0,1.5179123,-2.0,2.0,1.367944,-0.43779555,2.0,-0.19450825,-2.0,-2.0,-1.2393645,-2.0
2025-07-21 14:24:16.555,1.2200000000000006,1220,61,0.05099264,0.0035084381,-0.006540465,-0.014203811,0.060265236,0.038744427,0.0,0.0,0.0,-0.0063153487,-0.08836451,0.17893358,-0.08082143,0.082543984,0.19642845,0.1337843,0.032698605,-0.010514633,-0.085286,-0.0696614,-0.13635668,0.1264984,-0.018654522,-0.035109706,0.014505859,0.007935678,0.029795693,0.009535484,-0.02042303,0.053838845,0.031485923,-0.06249963,-0.073921725,0.0608993,-2.0,1.5179123,-2.0,2.0,1.367944,-0.43779555,2.0,-0.19450825,-2.0,-2.0,-1.2393645,-2.0,-2.0,1.4223255,-2.0,2.0,1.1139284,-0.8335812,2.0,-0.25408286,-2.0,-2.0,-1.1535164,-2.0
2025-07-21 14:24:16.574,1.2400000000000007,1240,62,-0.051345855,-0.0066264467,-0.020209506,-0.07006191,0.11361506,-0.02662253,0.0,0.0,0.0,-0.006459927,-0.081057385,0.1683472,-0.08180045,0.07596337,0.20637417,0.13069616,0.025913328,0.0027873283,-0.0778345,-0.082983896,-0.14970298,0.13376756,0.019722056,-0.008862639,0.03631315,0.0604108,-0.0059446273,-0.0143447425,-0.04301009,-0.0111877555,-0.0004026538,0.041369934,-0.06489585,0.033106558,-2.0,1.4223255,-2.0,2.0,1.1139284,-0.8335812,2.0,-0.25408286,-2.0,-2.0,-1.1535164,-2.0,-2.0,1.356113,-2.0,2.0,1.2171719,-0.67726326,2.0,-0.2986681,-2.0,-2.0,-1.2725724,-2.0
2025-07-21 14:24:16.600,1.2600000000000007,1260,63,0.01030485,-0.03538642,-0.029883826,-0.047156043,0.12516342,-0.019079715,0.0,0.0,0.0,-0.006704166,-0.08212013,0.18464343,-0.101344004,0.07363353,0.19323343,0.1378738,0.030217871,-0.0004840183,-0.08068283,-0.07918647,-0.14426179,0.13059603,0.045892213,0.050046105,0.02171416,0.06307718,-0.06496834,-0.0020182533,-0.062227704,0.037040822,-0.006821228,0.0014365419,-0.05607411,0.039625444,-2.0,1.356113,-2.0,2.0,1.2171719,-0.67726326,2.0,-0.2986681,-2.0,-2.0,-1.2725724,-2.0,-2.0,1.1993192,-1.8865047,2.0,1.098946,-1.1529567,2.0,-0.14803135,-2.0,-2.0,-1.2262748,-2.0
2025-07-21 14:24:16.618,1.2800000000000007,1280,64,-0.010425333,0.038061183,0.06892472,-0.054943923,0.12386689,-0.03135862,0.0,0.0,0.0,-0.006984114,-0.08271786,0.17291154,-0.10020841,0.07661182,0.20161486,0.12650788,0.035880122,-0.014409643,-0.08557666,-0.07527361,-0.15114127,0.14054391,0.0625438,0.0049523655,0.03607994,0.034372184,-0.018886017,0.045858346,0.019025382,-0.025440594,-0.03993823,-0.026970189,0.008045417,0.042973693,-2.0,1.1993192,-1.8865047,2.0,1.098946,-1.1529567,2.0,-0.14803135,-2.0,-2.0,-1.2262748,-2.0,-2.0,1.1950918,-2.0,2.0,1.4624358,-0.42155817,2.0,-0.732602,-2.0,-2.0,-0.8639531,-2.0
2025-07-21 14:24:16.636,1.3000000000000007,1300,65,-0.03758102,0.041628093,0.021304449,-0.009324016,0.05857979,0.0017624323,0.0,0.0,0.0,-0.0073625925,-0.07881328,0.18170689,-0.09420819,0.07247631,0.20307979,0.12723936,0.033876583,0.000779206,-0.08989955,-0.08462453,-0.1447021,0.1468311,-0.08209432,0.013346406,-0.031401105,0.0035119103,-0.03439351,-0.056588486,0.0046615214,0.0021562332,0.011837311,0.06674331,0.04849603,0.037137624,-2.0,1.1950918,-2.0,2.0,1.4624358,-0.42155817,2.0,-0.732602,-2.0,-2.0,-0.8639531,-2.0,-2.0,1.6079614,-2.0,2.0,1.3123388,-0.26989713,2.0,-0.27614737,-2.0,-2.0,-1.2021669,-2.0
2025-07-21 14:24:16.656,1.3200000000000007,1320,66,0.005147569,-0.05716128,-0.0037833038,-0.08195749,0.06672365,0.04923807,0.0,0.0,0.0,-0.0073606176,-0.08186995,0.17592894,-0.1054266,0.086461395,0.2162801,0.12792593,0.0354664,-0.0014015961,-0.07422771,-0.085903116,-0.14496836,0.14667037,-0.056519832,-0.009024846,0.018362008,0.010611556,-0.020052975,-0.056809403,0.07399352,0.06318016,0.024223302,0.037215766,-0.0042067026,0.062554836,-2.0,1.6079614,-2.0,2.0,1.3123388,-0.26989713,2.0,-0.27614737,-2.0,-2.0,-1.2021669,-2.0,-2.0,1.3169595,-2.0,2.0,1.0984437,-0.83972716,2.0,-0.17430604,-2.0,-2.0,-1.2773268,-2.0
2025-07-21 14:24:16.675,1.3400000000000007,1340,67,-0.036934707,-0.023453688,0.05205148,-0.093441,0.09572075,0.005412915,0.0,0.0,0.0,-0.007070731,-0.08001291,0.17409648,-0.09997314,0.0818515,0.21219628,0.13207051,0.031874124,-0.014440281,-0.07306615,-0.07893251,-0.13470672,0.13619123,-0.038861614,0.045019865,0.01504872,-0.028982507,-0.034934845,0.011124007,-0.06500219,0.02868218,0.03816598,-0.020216167,0.021786341,-0.0069194366,-2.0,1.3169595,-2.0,2.0,1.0984437,-0.83972716,2.0,-0.17430604,-2.0,-2.0,-1.2773268,-2.0,-2.0,1.0299104,-2.0,2.0,1.5378234,-0.8183953,2.0,-0.5563723,-2.0,-2.0,-1.0365677,-2.0
2025-07-21 14:24:16.697,1.3600000000000008,1360,68,-0.044262193,-0.0105481595,-0.07234787,-0.0026195797,0.08077084,0.022836754,0.0,0.0,0.0,-0.0070052496,-0.09275978,0.18279032,-0.09480092,0.07538577,0.20723204,0.12308412,0.032266695,0.0017256952,-0.08041157,-0.07177717,-0.13889767,0.14764583,-0.06894141,0.058256526,0.05453407,-0.024146507,-0.056643557,0.002906123,0.011809951,0.055559404,0.03698341,-0.04625192,0.05243999,-0.011081373,-2.0,1.0299104,-2.0,2.0,1.5378234,-0.8183953,2.0,-0.5563723,-2.0,-2.0,-1.0365677,-2.0,-2.0,1.4313523,-2.0,2.0,1.1228781,-1.347708,2.0,-0.065574706,-2.0,-2.0,-1.4916017,-2.0
2025-07-21 14:24:16.718,1.3800000000000008,1380,69,-0.06847264,0.041290388,0.0332257,-0.05663374,0.06478987,-0.04016285,0.0,0.0,0.0,-0.006765704,-0.09769029,0.1802014,-0.101870574,0.06785337,0.21945858,0.11615405,0.03832847,-0.00047797596,-0.06632074,-0.08378727,-0.14303137,0.1413561,0.059294645,-0.023959061,-0.0067460933,0.009086221,0.007742946,0.025637073,-0.06658455,0.019714605,0.01330868,0.06438109,-0.030866956,0.06171308,-2.0,1.4313523,-2.0,2.0,1.1228781,-1.347708,2.0,-0.065574706,-2.0,-2.0,-1.4916017,-2.0,-2.0,1.3117138,-2.0,2.0,1.3773516,-0.8071037,2.0,-0.7102464,-2.0,-2.0,-0.8714392,-2.0
2025-07-21 14:24:16.738,1.4000000000000008,1400,70,-0.00806528,0.058717936,-0.01799992,-0.052192748,0.06492697,-0.046361256,0.0,0.0,0.0,-0.0067066173,-0.08786025,0.19256894,-0.10173997,0.08090209,0.21585523,0.109051704,0.034100916,-0.015424337,-0.07804983,-0.08714615,-0.14348726,0.13749795,-0.010813922,-0.014942942,0.06601383,0.0021062288,-0.05322167,-0.04884468,-0.061248895,0.04579578,0.061463986,-0.059559766,-0.019149661,0.034201615,-2.0,1.3117138,-2.0,2.0,1.3773516,-0.8071037,2.0,-0.7102464,-2.0,-2.0,-0.8714392,-2.0,-2.0,1.6189173,-2.0,2.0,1.3639207,-0.8933824,2.0,-0.25899178,-2.0,-2.0,-1.4179244,-2.0
2025-07-21 14:24:16.756,1.4200000000000008,1420,71,0.006641538,0.03310963,-0.0020241127,-0.094804,0.14882791,0.026865106,0.0,0.0,0.0,-0.006683752,-0.08270113,0.196516,-0.10036873,0.075476706,0.22103748,0.107550494,0.038382176,-0.01508291,-0.06736657,-0.07977475,-0.15334187,0.14603712,0.039384894,0.025796784,-0.018393524,0.05701603,-0.0021059639,0.007068809,-0.007872918,-0.07098063,-0.065805316,-0.0537811,0.009538564,0.07130218,-2.0,1.6189173,-2.0,2.0,1.3639207,-0.8933824,2.0,-0.25899178,-2.0,-2.0,-1.4179244,-2.0,-2.0,1.1801447,-2.0,2.0,1.063766,-1.0388405,2.0,-0.4903968,-2.0,-2.0,-0.9979962,-2.0
2025-07-21 14:24:16.775,1.4400000000000008,1440,72,-0.048326418,0.028685108,0.013013747,-0.068200804,0.14041306,-0.027449317,0.0,0.0,0.0,-0.006650549,-0.084265456,0.19297221,-0.107095495,0.078641176,0.22059444,0.09843681,0.029029451,-0.016000627,-0.071145445,-0.07969184,-0.14615178,0.15097404,0.001542275,-0.06122924,-0.026883278,0.07073317,-0.045392614,0.046338566,0.02142173,0.05126248,-0.00948998,0.07346756,0.049053308,-0.023635274,-2.0,1.1801447,-2.0,2.0,1.063766,-1.0388405,2.0,-0.4903968,-2.0,-2.0,-0.9979962,-2.0,-2.0,1.5610986,-2.0,2.0,1.4074496,0.041289657,2.0,-0.47441924,-2.0,-2.0,-1.1301479,-2.0
2025-07-21 14:24:16.797,1.4600000000000009,1460,73,0.022451773,-0.018516753,0.009919886,-0.029316744,0.1389759,-0.038804963,0.0,0.0,0.0,-0.0067307353,-0.09173232,0.18678202,-0.11167672,0.0844394,0.22869208,0.10348893,0.028031731,-0.01620863,-0.060053505,-0.07209075,-0.13444509,0.1477448,0.0018521883,-0.06750051,-0.05093584,-0.037750114,0.08422628,0.021849178,0.051267467,0.046543334,0.03114901,0.060090236,-0.056889668,-0.024693785,-2.0,1.5610986,-2.0,2.0,1.4074496,0.041289657,2.0,-0.47441924,-2.0,-2.0,-1.1301479,-2.0,-2.0,1.5260054,-2.0,2.0,1.0725241,-0.27023873,2.0,-0.09803164,-2.0,-2.0,-0.8501417,-2.0
2025-07-21 14:24:16.818,1.4800000000000009,1480,74,0.0657953,0.014848916,-0.020604718,-0.02918546,0.049823105,-0.044523608,0.0,0.0,0.0,-0.0066736173,-0.093192026,0.18785453,-0.10182274,0.083158284,0.24550012,0.11385769,0.0415066,-0.0031831944,-0.058075316,-0.07950061,-0.1402284,0.15059204,-0.044828027,0.058731243,-0.058336597,0.009105668,-0.027956838,0.04777169,-0.02264919,-0.041998524,-0.03671047,0.008897997,-0.039314955,-0.077469766,-2.0,1.5260054,-2.0,2.0,1.0725241,-0.27023873,2.0,-0.09803164,-2.0,-2.0,-0.8501417,-2.0,-2.0,0.8795495,-2.0,2.0,1.4356225,-0.6807415,2.0,-0.022188362,-2.0,-2.0,-1.4124047,-2.0
2025-07-21 14:24:16.836,1.5000000000000009,1500,75,0.0019570666,0.03048774,-0.008804209,-0.0013884217,0.14255065,-0.036429014,0.0,0.0,0.0,-0.006661378,-0.08454137,0.19507028,-0.107681066,0.08250483,0.23988152,0.119266436,0.030362785,-0.006696004,-0.067038395,-0.07901227,-0.13503207,0.14885312,0.067579105,0.030129487,0.0018078829,0.020013861,-0.062017605,-0.02106399,-0.022882868,0.021965105,0.027794622,-0.0025386622,0.0012237947,-0.053092357,-2.0,0.8795495,-2.0,2.0,1.4356225,-0.6807415,2.0,-0.022188362,-2.0,-2.0,-1.4124047,-2.0,-2.0,0.9282339,-1.0842454,2.0,1.1451861,-1.2811952,2.0,-0.25425735,-2.0,-2.0,-1.08649,-2.0
2025-07-21 14:24:16.855,1.520000000000001,1520,76,0.02634337,0.012694781,0.038636833,-0.064327404,0.07609135,0.005458024,0.0,0.0,0.0,-0.006767947,-0.094384536,0.18883638,-0.08970757,0.0901445,0.23975776,0.11523286,0.04040208,0.005690523,-0.07322918,-0.085875906,-0.12661834,0.15561934,0.05774015,0.057057254,0.03603782,0.025462277,0.02867643,-0.06563028,0.06206534,0.041212186,-0.03157688,-0.04749493,0.060078233,-0.061338335,-2.0,0.9282339,-1.0842454,2.0,1.1451861,-1.2811952,2.0,-0.25425735,-2.0,-2.0,-1.08649,-2.0,-2.0,1.1836205,-2.0,2.0,1.4778872,-0.7389531,2.0,-0.7232059,-2.0,-2.0,-1.0076054,-2.0
2025-07-21 14:24:16.875,1.540000000000001,1540,77,0.040021826,0.025893845,-0.0023951652,-0.073628694,0.12949274,0.032009948,0.0,0.0,0.0,-0.0070463023,-0.08544338,0.2045799,-0.07225504,0.07406556,0.23782554,0.115799636,0.035122953,0.001279844,-0.059400614,-0.08952468,-0.12258148,0.14170286,-0.019654091,-0.013670403,0.04457325,-0.030961916,-0.00071966805,-0.010958076,-0.022758063,0.024587812,-0.025736595,-0.06991493,-0.07650767,0.0530667,-2.0,1.1836205,-2.0,2.0,1.4778872,-0.7389531,2.0,-0.7232059,-2.0,-2.0,-1.0076054,-2.0,-2.0,1.604422,-2.0,2.0,1.255341,-0.7401244,2.0,-0.23654473,-2.0,-2.0,-1.1893027,-2.0
2025-07-21 14:24:16.900,1.560000000000001,1560,78,0.0033783796,-0.024339095,-0.005178289,-0.09338415,0.054426283,0.009103217,0.0,0.0,0.0,-0.00709582,-0.092006944,0.19790225,-0.077628106,0.090122655,0.25302884,0.1219909,0.022442777,-0.008175298,-0.0609521,-0.085322015,-0.118284,0.15582712,0.04296497,-0.06329184,0.060885634,-0.052806392,0.05682222,0.05596117,0.020206552,0.036240775,0.02490478,0.057352345,0.04360794,0.031286553,-2.0,1.604422,-2.0,2.0,1.255341,-0.7401244,2.0,-0.23654473,-2.0,-2.0,-1.1893027,-2.0,-2.0,1.4589955,-2.0,2.0,1.2139784,-0.618079,2.0,-0.44292933,-2.0,-2.0,-1.1394962,-2.0
2025-07-21 14:24:16.917,1.580000000000001,1580,79,-0.036699593,0.043113828,-0.014221814,-0.047247846,0.0967382,-0.043923195,0.0,0.0,0.0,-0.0070663765,-0.08589417,0.19541423,-0.07962302,0.08638387,0.24645801,0.12496562,0.026380697,-0.01468049,-0.059732515,-0.07055007,-0.13443553,0.15651634,0.0021561063,0.07611016,-0.015424201,0.060643908,0.050119177,-0.06194158,0.065984726,0.0204802,0.03636375,0.03719012,-0.074384645,0.07039166,-2.0,1.4589955,-2.0,2.0,1.2139784,-0.618079,2.0,-0.44292933,-2.0,-2.0,-1.1394962,-2.0,-2.0,1.4060668,-2.0,2.0,1.0662634,-0.5599757,2.0,-0.28455746,-2.0,-2.0,-1.2119209,-2.0
2025-07-21 14:24:16.936,1.600000000000001,1600,80,-0.027000563,0.008083591,0.032141056,-0.08429956,0.12545265,-0.048895366,0.0,0.0,0.0,-0.00718227,-0.09813531,0.20286985,-0.0850305,0.08549802,0.23366123,0.1256503,0.02949277,-0.012423617,-0.058260642,-0.078546174,-0.13700575,0.145637,0.01766859,-0.018601248,-0.0575395,0.05483723,-0.036127172,-0.055624247,-0.03774614,-0.06738882,-0.052260324,0.04366886,-0.08037338,0.063812755,-2.0,1.4060668,-2.0,2.0,1.0662634,-0.5599757,2.0,-0.28455746,-2.0,-2.0,-1.2119209,-2.0,-2.0,1.2412819,-2.0,2.0,1.3498955,-0.44627377,2.0,-0.2966241,-2.0,-2.0,-0.89599794,-2.0
2025-07-21 14:24:16.955,1.620000000000001,1620,81,-0.013754814,-0.003514771,-0.044485215,-0.007545836,0.058702186,0.018413777,0.0,0.0,0.0,-0.00739282,-0.084448084,0.20608638,-0.0806233,0.08528427,0.23520005,0.11021432,0.04065449,-0.008091709,-0.04730513,-0.06983998,-0.121256195,0.14661568,0.0010869433,-0.056693666,-0.041049663,-0.033382334,-0.050760984,-0.050125852,0.00024873784,-0.023685547,-0.054025695,0.06844446,-0.0040219827,0.04448674,-2.0,1.2412819,-2.0,2.0,1.3498955,-0.44627377,2.0,-0.2966241,-2.0,-2.0,-0.89599794,-2.0,-2.0,1.4619702,-2.0,2.0,1.2769707,-0.54690087,2.0,-0.0025362931,-2.0,-2.0,-1.4395524,-2.0
2025-07-21 14:24:16.975,1.640000000000001,1640,82,0.023866624,0.010650633,0.02989719,-0.016605454,0.09474029,-0.03961516,0.0,0.0,0.0,-0.0075265444,-0.094428465,0.20041226,-0.07039301,0.08358537,0.24811624,0.11598795,0.035047203,0.005205116,-0.04816262,-0.07332831,-0.13173139,0.15491007,0.073582314,0.042805534,0.01359271,-0.0480449,-0.012810623,-0.033993706,0.03306342,0.015789934,-0.007145034,0.03832491,0.025813043,-0.017718108,-2.0,1.4619702,-2.0,2.0,1.2769707,-0.54690087,2.0,-0.0025362931,-2.0,-2.0,-1.4395524,-2.0,-2.0,0.9148205,-1.9432864,2.0,1.2430651,-1.060416,2.0,-0.37729278,-2.0,-2.0,-1.0953318,-2.0
2025-07-21 14:24:17.000,1.660000000000001,1660,83,-0.017653381,-0.017700657,-0.018725347,-0.046751663,0.13407767,0.047598425,0.0,0.0,0.0,-0.007777038,-0.08575206,0.20728017,-0.08589658,0.08662294,0.23875639,0.12728938,0.029323993,-0.0067099733,-0.060514722,-0.07835535,-0.13819227,0.14551105,0.021357615,-0.057701886,0.011998607,-0.038185887,0.042048234,0.0141003495,0.031442285,0.04021698,-0.017455429,-0.04305876,0.021496994,0.07581343,-2.0,0.9148205,-1.9432864,2.0,1.2430651,-1.060416,2.0,-0.37729278,-2.0,-2.0,-1.0953318,-2.0,-2.0,1.4822646,-2.0,2.0,1.3482854,-0.46200392,2.0,-0.34559545,-2.0,-2.0,-1.2734293,-2.0
2025-07-21 14:24:17.017,1.680000000000001,1680,84,-0.027629917,0.0091352705,0.041500803,-0.09573417,0.09000374,0.011318165,0.0,0.0,0.0,-0.008050154,-0.09943038,0.20579289,-0.085142426,0.08721522,0.24268813,0.11496937,0.02223708,0.0056989538,-0.04362335,-0.08436153,-0.13941637,0.15673272,-0.06202477,-0.057952784,-0.026060002,0.0052438234,0.05772755,-0.06995385,-0.0005619754,-0.059025485,-0.042221963,-0.04894132,-0.0064594042,0.05691918,-2.0,1.4822646,-2.0,2.0,1.3482854,-0.46200392,2.0,-0.34559545,-2.0,-2.0,-1.2734293,-2.0,-2.0,1.3192282,-2.0,2.0,1.3374598,-0.62680286,2.0,-0.2692625,-2.0,-2.0,-0.86595565,-2.0
2025-07-21 14:24:17.036,1.700000000000001,1700,85,0.04819413,-0.03725064,-0.034208786,-0.09634245,0.10721399,-0.0164929,0.0,0.0,0.0,-0.008194987,-0.09742742,0.21146162,-0.070182964,0.10177967,0.25412977,0.11492837,0.04111985,-0.009387539,-0.0417172,-0.076501064,-0.13559254,0.15227036,-0.04092554,-0.061922286,-0.07291292,0.03496055,0.03148171,-0.0068633705,0.04858439,0.0012001821,-0.06129095,-0.0030324778,-0.029418088,0.0370141,-2.0,1.3192282,-2.0,2.0,1.3374598,-0.62680286,2.0,-0.2692625,-2.0,-2.0,-0.86595565,-2.0,-2.0,1.3671327,-2.0,2.0,1.2498946,-0.5726291,2.0,-0.21580207,-2.0,-2.0,-1.3440914,-2.0
2025-07-21 14:24:17.056,1.720000000000001,1720,86,-0.028813463,-0.030059608,-0.014331502,-0.06545143,0.13722937,-0.025314173,0.0,0.0,0.0,-0.008220081,-0.09627712,0.19426484,-0.08522318,0.09925095,0.2447474,0.113388784,0.041308396,0.0030684287,-0.061697636,-0.07405208,-0.12225636,0.15411681,0.05078888,0.059475265,0.00035910815,0.0285425,-0.026890418,-0.009013944,0.011994723,-0.010805104,-0.07026079,0.050059497,-0.064876854,-0.016984275,-2.0,1.3671327,-2.0,2.0,1.2498946,-0.5726291,2.0,-0.21580207,-2.0,-2.0,-1.3440914,-2.0,-2.0,1.1111653,-1.8719122,2.0,1.1126803,-0.91547143,2.0,-0.17667574,-2.0,-2.0,-1.1158164,-2.0
2025-07-21 14:24:17.089,1.740000000000001,1740,87,0.03283104,-0.019328887,0.044466607,-0.05201664,0.046936575,0.009942277,0.0,0.0,0.0,-0.008233677,-0.096818455,0.19982518,-0.082423165,0.102337375,0.24087816,0.109095745,0.02336844,0.0033689812,-0.056704305,-0.07583978,-0.13638172,0.1613084,-0.051636398,0.026941847,-0.035589516,-0.020666962,-0.005685465,0.016708,-0.07694869,-0.045571182,0.049266294,0.039050397,0.013155728,-0.035489026,-2.0,1.1111653,-1.8719122,2.0,1.1126803,-0.91547143,2.0,-0.17667574,-2.0,-2.0,-1.1158164,-2.0,-2.0,1.264532,-2.0,2.0,1.5968475,-0.45164284,2.0,-0.55454147,-2.0,-2.0,-0.9724342,-2.0
2025-07-21 14:24:17.122,1.7600000000000011,1760,88,0.030355232,0.053283144,0.013442208,-0.032390468,0.07022363,0.03141871,0.0,0.0,0.0,-0.008375432,-0.10358782,0.1998623,-0.078709856,0.092388235,0.23863232,0.11616269,0.037845086,0.0021423812,-0.058062736,-0.074979216,-0.12246279,0.14495817,0.005143803,-0.010531089,-0.05406836,-0.02809954,0.051283143,-0.064986706,-0.06977182,0.048159532,0.037728027,-0.040987723,0.009478678,0.055213366,-2.0,1.264532,-2.0,2.0,1.5968475,-0.45164284,2.0,-0.55454147,-2.0,-2.0,-0.9724342,-2.0,-2.0,1.494883,-2.0,1.9508142,1.3010322,-0.65765804,2.0,-0.3119505,-2.0,-2.0,-1.105361,-2.0
2025-07-21 14:24:17.138,1.7800000000000011,1780,89,-0.023733806,-0.02117302,-0.0029978887,-0.0032332717,0.04653613,0.015061192,0.0,0.0,0.0,-0.008230927,-0.10624652,0.19900171,-0.08057053,0.098536015,0.24516274,0.116181515,0.02107823,0.009208754,-0.05151926,-0.07548455,-0.13178761,0.15903692,0.050684933,-0.00044559082,0.023929104,-0.028919747,0.026750134,-0.048933014,-0.012989901,0.003315815,0.020080397,0.030234888,-0.03884718,-0.027762933,-2.0,1.494883,-2.0,1.9508142,1.3010322,-0.65765804,2.0,-0.3119505,-2.0,-2.0,-1.105361,-2.0,-2.0,1.3952899,-2.0,2.0,1.2938194,-0.72684115,2.0,-0.19912136,-2.0,-2.0,-1.2369546,-2.0
2025-07-21 14:24:17.154,1.8000000000000012,1800,90,0.018809235,0.03026324,-0.034335054,-0.08963352,0.062100142,0.027387107,0.0,0.0,0.0,-0.007882886,-0.09152648,0.20480412,-0.085660495,0.089487046,0.25472024,0.12780237,0.022774322,-0.0071271984,-0.04765269,-0.08738559,-0.12265875,0.15768343,-0.043502394,-0.07013989,0.009538327,0.067989536,-0.06437731,0.03066757,-0.027287917,0.041876443,-0.040995948,-0.009836798,-0.049011994,-0.06463606,-2.0,1.3952899,-2.0,2.0,1.2938194,-0.72684115,2.0,-0.19912136,-2.0,-2.0,-1.2369546,-2.0,-2.0,1.3927628,-2.0,2.0,1.257705,-1.0434256,2.0,-0.13813055,-2.0,-2.0,-1.2589653,-2.0
2025-07-21 14:24:17.174,1.8200000000000012,1820,91,-0.025430107,-0.036908392,-0.029352318,-0.044177346,0.10559612,-0.0009773094,0.0,0.0,0.0,-0.0077122143,-0.09918847,0.19974828,-0.09830663,0.09315909,0.24004085,0.12527668,0.034300007,-0.0015186189,-0.054379724,-0.08329405,-0.13150097,0.16010499,-0.006250287,0.0452312,-0.06550148,0.05991618,-0.013368329,0.0045320704,0.0002200454,0.07013963,-0.023841579,0.0724019,-0.011070808,0.062042054,-2.0,1.3927628,-2.0,2.0,1.257705,-1.0434256,2.0,-0.13813055,-2.0,-2.0,-1.2589653,-2.0,-2.0,1.2088255,-2.0,2.0,1.189707,-0.9440045,2.0,-0.34316644,-2.0,-2.0,-1.2453866,-2.0
2025-07-21 14:24:17.199,1.8400000000000012,1840,92,-0.07126197,-0.030340243,0.0018868945,-0.07674046,0.06407547,0.010668337,0.0,0.0,0.0,-0.007817112,-0.08996961,0.20292446,-0.08387871,0.095165305,0.23963338,0.10835225,0.02487358,0.006454837,-0.05102428,-0.08889146,-0.14172702,0.15436509,0.02591347,-0.02841948,-0.05362527,0.021334205,-0.008901257,0.061994355,-0.048644952,0.03010246,0.03726125,-0.0054155653,-0.009289585,0.07797186,-2.0,1.2088255,-2.0,2.0,1.189707,-0.9440045,2.0,-0.34316644,-2.0,-2.0,-1.2453866,-2.0,-2.0,1.4121475,-2.0,2.0,1.3917518,-0.69418675,2.0,-0.40159684,-2.0,-2.0,-1.0757141,-2.0
2025-07-21 14:24:17.218,1.8600000000000012,1860,93,0.03025558,-0.0023267246,0.003798057,-0.07265898,0.0543677,-0.008388203,0.0,0.0,0.0,-0.008053652,-0.09902334,0.21570091,-0.09562831,0.10010869,0.24242203,0.10154747,0.021031592,0.0031087566,-0.06355165,-0.08908652,-0.14235017,0.14915036,-0.07289871,0.042642914,-0.047157038,-0.031627722,-0.040562924,-0.033730395,0.0103929425,0.020279467,-0.03217513,0.06566783,-0.0757065,0.043869946,-2.0,1.4121475,-2.0,2.0,1.3917518,-0.69418675,2.0,-0.40159684,-2.0,-2.0,-1.0757141,-2.0,-2.0,1.2536285,-2.0,2.0,1.292822,-1.1234286,2.0,-0.24339074,-2.0,-2.0,-1.271412,-2.0
2025-07-21 14:24:17.236,1.8800000000000012,1880,94,0.014149774,0.047409944,-0.038530033,-0.06768155,0.101966776,0.02880334,0.0,0.0,0.0,-0.008183457,-0.09226202,0.20606227,-0.1033902,0.09240627,0.25054193,0.116159245,0.029991988,-0.008005267,-0.05253809,-0.08259261,-0.13500154,0.1580931,0.059888545,0.04383238,-0.069831535,-0.046863806,-0.011409138,-0.07940502,-0.072924666,0.05227972,0.01828607,-0.06640908,-0.059789144,0.013638641,-2.0,1.2536285,-2.0,2.0,1.292822,-1.1234286,2.0,-0.24339074,-2.0,-2.0,-1.271412,-2.0,-2.0,1.0640129,-1.2580482,2.0,1.2882398,-1.4276288,2.0,-0.12549943,-2.0,-2.0,-1.2024274,-2.0
2025-07-21 14:24:17.256,1.9000000000000012,1900,95,-0.013129394,0.06943188,0.0042352616,-0.094337836,0.1320983,-0.020719869,0.0,0.0,0.0,-0.00829455,-0.10425812,0.20831329,-0.100827865,0.09507867,0.24058682,0.103264764,0.017085718,-0.0087768845,-0.059605736,-0.08859687,-0.13915947,0.15715306,-0.028944742,0.050389428,-0.054587167,0.009095092,-0.018523261,-0.05984244,0.010413674,0.002184798,0.009477076,0.010825767,0.044207808,-0.06662259,-2.0,1.0640129,-1.2580482,2.0,1.2882398,-1.4276288,2.0,-0.12549943,-2.0,-2.0,-1.2024274,-2.0,-2.0,0.9437841,-1.5408218,2.0,1.3670205,-1.2483816,2.0,-0.6465984,-2.0,-2.0,-1.0071576,-2.0
2025-07-21 14:24:17.277,1.9200000000000013,1920,96,0.030059664,0.099644594,0.012565676,-0.061822765,0.12812382,-0.040265724,0.0,0.0,0.0,-0.00866814,-0.10506966,0.19849505,-0.09905116,0.08671083,0.24361089,0.10406307,0.023170196,-0.0074396715,-0.052488692,-0.081970416,-0.13135354,0.14234628,-0.050067067,-0.07932384,0.074078105,-0.058236968,0.06555987,-0.061614946,0.058224816,-0.022900652,0.058240574,-0.03681607,-0.031432457,-0.020128138,-2.0,0.9437841,-1.5408218,2.0,1.3670205,-1.2483816,2.0,-0.6465984,-2.0,-2.0,-1.0071576,-2.0,-2.0,1.7003156,-2.0,2.0,1.3970361,-0.6420693,2.0,-0.5545365,-2.0,-2.0,-0.98511314,-2.0
2025-07-21 14:24:17.300,1.9400000000000013,1940,97,-0.029546082,0.025108011,-0.05264007,-0.058554824,0.09213785,0.012022339,0.0,0.0,0.0,-0.008943929,-0.10803313,0.20722085,-0.089148395,0.079397954,0.24818899,0.10002428,0.012168922,-0.0011894549,-0.05142358,-0.08075489,-0.13806348,0.14726226,0.06495022,0.030214444,0.061997484,-0.020991178,-0.024065357,0.0026666052,-0.06901749,0.04533842,0.010862938,-0.055406913,0.04237122,0.019598808,-2.0,1.7003156,-2.0,2.0,1.3970361,-0.6420693,2.0,-0.5545365,-2.0,-2.0,-0.98511314,-2.0,-2.0,1.3206831,-2.0,1.924263,1.2081697,-1.2271736,2.0,-0.13289404,-2.0,-2.0,-1.5703146,-2.0
2025-07-21 14:24:17.317,1.9600000000000013,1960,98,0.008093422,0.04307032,-0.017518103,0.0056676697,0.13526651,0.043282684,0.0,0.0,0.0,-0.008916716,-0.09119032,0.20183963,-0.08289981,0.095925435,0.24064757,0.09408114,0.013782998,-0.0055639027,-0.041486356,-0.094651096,-0.14238313,0.15522456,-0.041082747,0.05366286,-0.033945575,0.0066679525,-0.034728706,-0.015228407,-0.043420658,0.048721902,0.076869026,-0.021847293,-0.034950763,-0.057217903,-2.0,1.3206831,-2.0,1.924263,1.2081697,-1.2271736,2.0,-0.13289404,-2.0,-2.0,-1.5703146,-2.0,-2.0,1.1298289,-0.9050253,2.0,1.1688713,-1.3405526,2.0,-0.27478036,-2.0,-2.0,-1.0040063,-2.0
2025-07-21 14:24:17.336,1.9800000000000013,1980,99,0.006256311,0.017478148,-0.007931826,-0.02097212,0.06416835,0.02793088,0.0,0.0,0.0,-0.009071124,-0.10720032,0.20494841,-0.082200736,0.086510494,0.24639797,0.08717808,0.0154389115,-0.013960127,-0.054086264,-0.09456834,-0.13581684,0.15147978,0.003967218,0.01617969,0.082437806,0.04710151,0.039924946,-0.047290884,0.0019529349,0.031130936,-0.021511827,0.0621942,0.05859648,0.0017899662,-2.0,1.1298289,-0.9050253,2.0,1.1688713,-1.3405526,2.0,-0.27478036,-2.0,-2.0,-1.0040063,-2.0,-2.0,1.3984379,-2.0,2.0,1.2801175,-0.6169792,2.0,-0.7207341,-2.0,-2.0,-1.1863126,-2.0
2025-07-21 14:24:17.357,2.0000000000000013,2000,100,-0.025898041,0.06441204,-0.013712639,0.0013743853,0.033742733,0.03712982,0.0,0.0,0.0,-0.009593494,-0.088283814,0.18858579,-0.07732464,0.09669191,0.24842694,0.09018783,0.024804762,-0.0181548,-0.03902691,-0.08975124,-0.1490237,0.13543229,-0.003650106,0.037350677,0.05071392,0.061130065,-0.069464915,0.0058550052,-0.059270673,0.041115645,-0.03422658,-0.040069554,-0.020827327,0.032657392,-2.0,1.3984379,-2.0,2.0,1.2801175,-0.6169792,2.0,-0.7207341,-2.0,-2.0,-1.1863126,-2.0,-2.0,1.6172489,-2.0,1.9554553,1.1991976,-0.8855009,2.0,-0.14028913,-2.0,-2.0,-1.2124454,-2.0
2025-07-21 14:24:17.384,2.0200000000000014,2020,101,-0.012330394,-0.024028992,0.06282993,-0.050726157,0.061956562,-0.04770144,0.0,0.0,0.0,-0.009963048,-0.09460809,0.18948632,-0.0763999,0.10943567,0.2369617,0.078219935,0.022811951,-0.004871497,-0.04547901,-0.082958795,-0.15013866,0.149528,0.06308103,-0.0061112875,-0.026196113,-0.06144866,0.04431481,0.06666457,0.06774237,0.07045175,-0.0632851,-0.011955365,0.0044385665,-0.0052769575,-2.0,1.6172489,-2.0,1.9554553,1.1991976,-0.8855009,2.0,-0.14028913,-2.0,-2.0,-1.2124454,-2.0,-2.0,1.0884928,-2.0,2.0,1.4434407,-0.76147836,2.0,-0.5619069,-2.0,-2.0,-0.99286515,-2.0
2025-07-21 14:24:17.401,2.0400000000000014,2040,102,0.049874492,0.01051562,-0.04755608,-0.067065924,0.0970178,-0.031321425,0.0,0.0,0.0,-0.010288336,-0.102700524,0.19802582,-0.07754232,0.1012744,0.24617812,0.078164466,0.031231651,-0.024163662,-0.03766637,-0.0843702,-0.14197257,0.13147351,0.021033932,0.059329145,0.074732564,0.04696943,0.020016758,0.061353326,-0.027092412,-0.024458256,0.033166394,0.05448822,-0.0061879265,0.042936563,-2.0,1.0884928,-2.0,2.0,1.4434407,-0.76147836,2.0,-0.5619069,-2.0,-2.0,-0.99286515,-2.0,-2.0,1.4948432,-2.0,2.0,1.0110321,-0.8055875,2.0,-0.39160943,-2.0,-2.0,-1.2752436,-2.0
2025-07-21 14:24:17.418,2.0600000000000014,2060,103,-0.03646207,0.010488677,0.03505613,-0.018876566,0.081909925,0.030886644,0.0,0.0,0.0,-0.010375232,-0.0921871,0.20253862,-0.07213463,0.10540576,0.24172609,0.08563973,0.017390471,-0.015274378,-0.035919208,-0.07673582,-0.1361503,0.13505876,0.056298032,-0.012925109,-0.04186527,-0.033746127,-0.0022153312,0.06241094,0.010615881,0.065027595,-0.02534881,0.04039673,0.030542579,0.028361697,-2.0,1.4948432,-2.0,2.0,1.0110321,-0.8055875,2.0,-0.39160943,-2.0,-2.0,-1.2752436,-2.0,-2.0,1.3587013,-2.0,2.0,1.380703,-0.36119494,2.0,-0.41519943,-2.0,-2.0,-0.97116816,-2.0
2025-07-21 14:24:17.437,2.0800000000000014,2080,104,0.056918822,-0.040680096,0.009138783,-0.09287698,0.07623208,-0.03595894,0.0,0.0,0.0,-0.010288274,-0.094386846,0.18470237,-0.07400468,0.10432604,0.23868379,0.09547242,0.035581682,-0.026432492,-0.038009938,-0.08226975,-0.14649482,0.13266031,0.026207075,-0.074774384,-0.056295328,-0.06071933,-0.023779424,-0.013505702,0.06542871,-0.027203523,0.011386818,0.07081641,-0.021536205,0.013052309,-2.0,1.3587013,-2.0,2.0,1.380703,-0.36119494,2.0,-0.41519943,-2.0,-2.0,-0.97116816,-2.0,-2.0,1.4154031,-2.0,1.9769855,1.224369,-0.71570903,2.0,-0.31224638,-2.0,-2.0,-1.0124719,-2.0
2025-07-21 14:24:17.457,2.1000000000000014,2100,105,0.06548438,-0.00877862,-0.026188869,-0.09213604,0.06753415,-0.011338224,0.0,0.0,0.0,-0.010120354,-0.09531772,0.19875112,-0.073837,0.10837242,0.23987643,0.08846436,0.040701803,-0.010586247,-0.04517142,-0.082915306,-0.1320516,0.13161573,0.05098097,-0.0038482915,0.030142408,-0.06282028,-0.05826146,-0.025517303,0.008656899,-0.06559303,0.027264966,-0.041952122,0.054894157,0.0031258555,-2.0,1.4154031,-2.0,1.9769855,1.224369,-0.71570903,2.0,-0.31224638,-2.0,-2.0,-1.0124719,-2.0,-2.0,1.1600305,-2.0,2.0,1.3569669,-1.141115,2.0,-0.24739268,-2.0,-2.0,-1.3611835,-2.0
2025-07-21 14:24:17.483,2.1200000000000014,2120,106,-0.04304451,0.037553854,0.027161868,-0.05682692,0.067820564,0.03076,0.0,0.0,0.0,-0.009794687,-0.10239466,0.20040038,-0.08064439,0.10897139,0.25081882,0.088265516,0.03695783,-0.016463034,-0.039868936,-0.0845829,-0.1385932,0.12370161,-0.07040331,0.04714417,-0.02751203,-0.027869938,0.06462734,0.055016324,-0.008460625,-0.0059931907,-0.051313333,-0.012562749,-0.057319216,0.033070896,-2.0,1.1600305,-2.0,2.0,1.3569669,-1.141115,2.0,-0.24739268,-2.0,-2.0,-1.3611835,-2.0,-2.0,1.2067996,-2.0,2.0,1.2965169,-1.0109651,2.0,-0.5910283,-2.0,-2.0,-0.9069675,-2.0
2025-07-21 14:24:17.500,2.1400000000000015,2140,107,0.027528137,0.062200062,-0.0413223,-0.031699304,0.10777767,-0.010830407,0.0,0.0,0.0,-0.009556363,-0.09720524,0.19815505,-0.07989295,0.11260234,0.23496826,0.093384415,0.034595434,-0.014597599,-0.052,-0.07323533,-0.14310122,0.1246228,-0.07340842,0.056153227,-0.07110491,0.049765084,0.021858416,0.05622878,-0.014686427,0.013769362,-0.0132931415,0.031320103,-0.04643167,-0.024050811,-2.0,1.2067996,-2.0,2.0,1.2965169,-1.0109651,2.0,-0.5910283,-2.0,-2.0,-0.9069675,-2.0,-2.0,1.4836489,-2.0,2.0,1.1957552,-0.53856266,2.0,-0.3882929,-2.0,-2.0,-1.3645301,-2.0
2025-07-21 14:24:17.517,2.1600000000000015,2160,108,0.010177412,-0.028276522,0.018747639,-0.09170668,0.07788786,-0.032212682,0.0,0.0,0.0,-0.00920523,-0.09543994,0.19565439,-0.082461596,0.09866311,0.24700758,0.089154474,0.024321858,-0.01958026,-0.053723086,-0.07953241,-0.12871866,0.13320515,0.0032528676,-0.028266035,-0.06904549,-0.033384647,0.050133444,-0.044591345,0.038942818,-0.008050351,0.030966224,-0.006550907,-0.04532167,0.009054308,-2.0,1.4836489,-2.0,2.0,1.1957552,-0.53856266,2.0,-0.3882929,-2.0,-2.0,-1.3645301,-2.0,-2.0,1.3710049,-2.0,2.0,1.1908982,-0.69909286,2.0,-0.31278002,-2.0,-2.0,-0.8290943,-2.0
2025-07-21 14:24:17.538,2.1800000000000015,2180,109,0.015597001,0.0011803183,-0.00053674506,-0.06590547,0.060578268,0.04356396,0.0,0.0,0.0,-0.0088619655,-0.09697067,0.19512199,-0.073569775,0.110716686,0.24757022,0.08395512,0.04288307,-0.029632065,-0.041768085,-0.072209135,-0.1447846,0.12782225,0.056094144,0.019609055,-0.06819839,-0.06492588,0.06644761,-0.027419718,-0.06606635,-0.018253257,-0.036415245,0.033200253,0.022445804,-0.02510736,-2.0,1.3710049,-2.0,2.0,1.1908982,-0.69909286,2.0,-0.31278002,-2.0,-2.0,-0.8290943,-2.0,-2.0,1.1890211,-2.0,2.0,1.3731341,-0.4362919,2.0,-0.4146741,-2.0,-2.0,-1.2538849,-2.0
2025-07-21 14:24:17.557,2.2000000000000015,2200,110,-0.022641806,0.00999356,-0.04516882,-0.011372678,0.051746856,-0.03082739,0.0,0.0,0.0,-0.008625798,-0.10479397,0.17954473,-0.07241153,0.10605851,0.23478982,0.09597548,0.041240655,-0.020236885,-0.058597967,-0.064464204,-0.12444617,0.13022864,0.054924224,-0.019602487,-0.06376734,0.03395689,0.035142906,0.06989917,-0.014730862,-0.06540896,0.01218009,0.020618552,0.0684707,-0.044906404,-2.0,1.1890211,-2.0,2.0,1.3731341,-0.4362919,2.0,-0.4146741,-2.0,-2.0,-1.2538849,-2.0,-2.0,1.5754548,-2.0,2.0,1.0294608,-0.44616798,2.0,-0.29684457,-2.0,-2.0,-0.9878369,-2.0
2025-07-21 14:24:17.584,2.2200000000000015,2220,111,0.03741923,-0.01629491,-0.02976013,-0.009872066,0.102589905,-0.03660918,0.0,0.0,0.0,-0.008305439,-0.09518007,0.19700892,-0.08104562,0.103698924,0.23060459,0.10702854,0.037726842,-0.014378112,-0.051462308,-0.071501575,-0.12732962,0.12459099,-0.02315471,0.014179439,-0.021515295,-0.07116034,-0.030627048,0.07942497,0.0465725,0.077475764,-0.008417305,-0.043830983,0.041715365,0.021682048,-2.0,1.5754548,-2.0,2.0,1.0294608,-0.44616798,2.0,-0.29684457,-2.0,-2.0,-0.9878369,-2.0,-2.0,1.1298063,-2.0,2.0,1.4070189,-0.80170214,2.0,-0.091505826,-2.0,-2.0,-1.4806617,-2.0
2025-07-21 14:24:17.602,2.2400000000000015,2240,112,0.029116211,-0.049432933,-0.031231327,-0.06688874,0.13114582,-0.0055891946,0.0,0.0,0.0,-0.008073894,-0.09351032,0.19594362,-0.07814933,0.1091876,0.2403522,0.09710003,0.03526687,-0.006289938,-0.04601983,-0.062960684,-0.12563367,0.12762639,-0.059749383,-0.043857284,0.0433293,0.052224252,-0.026302543,0.00097104406,0.0105439,-0.042594492,-0.033603158,0.0006032836,-0.05649151,-0.039820574,-2.0,1.1298063,-2.0,2.0,1.4070189,-0.80170214,2.0,-0.091505826,-2.0,-2.0,-1.4806617,-2.0,-2.0,1.3058722,-1.3537166,2.0,1.0492585,-1.2028525,2.0,-0.2192199,-2.0,-2.0,-0.9706464,-2.0
2025-07-21 14:24:17.624,2.2600000000000016,2260,113,0.06868738,-0.038003273,0.05796275,-0.05830583,0.08993516,-0.043183673,0.0,0.0,0.0,-0.00809122,-0.10479164,0.18186007,-0.0742319,0.09121382,0.22960712,0.11653518,0.037950445,-0.022556722,-0.06458242,-0.06555258,-0.13778993,0.12539315,0.009215224,-0.065484285,-0.012927509,-0.076782376,-0.009582845,0.03224828,0.056219365,0.028291687,0.04722829,0.04916455,-0.02662544,0.0028038353,-2.0,1.3058722,-1.3537166,2.0,1.0492585,-1.2028525,2.0,-0.2192199,-2.0,-2.0,-0.9706464,-2.0,-2.0,1.3872474,-2.0,2.0,1.5478519,-0.6642736,2.0,-0.8753874,-2.0,-2.0,-0.79229647,-2.0
2025-07-21 14:24:17.655,2.2800000000000016,2280,114,0.06415643,-0.012576875,0.009964997,-0.080309734,0.036786787,0.047253817,0.0,0.0,0.0,-0.008417699,-0.10263838,0.18281758,-0.070306964,0.104026265,0.231441,0.11814389,0.026156187,-0.012292287,-0.06117239,-0.068190314,-0.12788591,0.12221957,0.0055387863,-0.0019899495,0.0035616509,-0.03573109,0.02357567,0.07275876,0.024891874,-0.07455242,0.06427901,0.04825347,0.045007534,-0.054847557,-2.0,1.3872474,-2.0,2.0,1.5478519,-0.6642736,2.0,-0.8753874,-2.0,-2.0,-0.79229647,-2.0,-2.0,1.6632162,-2.0,1.80485,1.1266365,-0.3217701,2.0,-0.514045,-2.0,-2.0,-1.0264837,-2.0
2025-07-21 14:24:17.691,2.3000000000000016,2300,115,0.024928074,-0.007789398,-0.042024437,-0.038274445,0.06121406,0.006513584,0.0,0.0,0.0,-0.008451644,-0.10976541,0.19180332,-0.07593009,0.094349146,0.23627745,0.12292547,0.026719866,-0.012389555,-0.06686242,-0.06553631,-0.13183236,0.11928772,-0.043178525,-0.022683285,-0.027717948,-0.043107405,0.005939686,0.08063929,0.07010877,0.0055708145,0.0694343,0.021852082,-0.051109966,-0.04597267,-2.0,1.6632162,-2.0,1.80485,1.1266365,-0.3217701,2.0,-0.514045,-2.0,-2.0,-1.0264837,-2.0,-2.0,1.494796,-2.0,1.8402914,1.0506852,-0.69509554,2.0,-0.13979477,-2.0,-2.0,-1.1982456,-2.0
2025-07-21 14:24:17.724,2.3200000000000016,2320,116,-0.038221654,-0.0009993532,0.020390421,-0.011067808,0.10408419,0.03155215,0.0,0.0,0.0,-0.008121732,-0.11475718,0.19530909,-0.077011116,0.09620406,0.23895139,0.12343902,0.028133256,-0.0120766675,-0.05923379,-0.08143397,-0.1317322,0.12844816,0.05315907,0.07733733,0.052997615,-0.011497673,-0.022354761,0.067753404,0.01744697,-0.017599689,0.03851594,0.07032737,0.04464671,-0.026477825,-2.0,1.494796,-2.0,1.8402914,1.0506852,-0.69509554,2.0,-0.13979477,-2.0,-2.0,-1.1982456,-2.0,-2.0,0.96799135,-2.0,2.0,1.2315205,-0.7019616,2.0,-0.5160272,-2.0,-2.0,-1.1526659,-2.0
2025-07-21 14:24:17.773,2.3400000000000016,2340,117,-0.003390658,-0.02864336,-0.030460963,-0.0342377,0.065061964,-0.03070675,0.0,0.0,0.0,-0.008020986,-0.099071994,0.19829294,-0.08670214,0.10025841,0.23683254,0.12084563,0.031493865,-0.015608864,-0.060893044,-0.06869929,-0.14368415,0.13110651,-0.001138997,-0.015774623,-0.030238668,-0.056288067,-0.049155373,-0.0442369,0.002431616,-0.021580223,-0.004622094,-0.030519573,0.02785791,-0.0037461307,-2.0,0.96799135,-2.0,2.0,1.2315205,-0.7019616,2.0,-0.5160272,-2.0,-2.0,-1.1526659,-2.0,-2.0,1.4260862,-2.0,2.0,1.3952236,-0.9290694,2.0,-0.1088188,-2.0,-2.0,-1.2405784,-2.0
2025-07-21 14:24:17.806,2.3600000000000017,2360,118,0.005273936,-0.04777467,0.0008359507,-0.10424753,0.12196324,0.004366835,0.0,0.0,0.0,-0.007938699,-0.110003166,0.19642465,-0.08826221,0.09137239,0.23753516,0.12092521,0.029548075,-0.02541612,-0.066824935,-0.07854538,-0.14715633,0.13175786,0.02758619,0.06771653,-0.059144076,-0.031996455,0.037671614,-0.06641751,-0.04523228,-0.040532593,-0.03637588,0.06053703,-0.039915387,0.033882625,-2.0,1.4260862,-2.0,2.0,1.3952236,-0.9290694,2.0,-0.1088188,-2.0,-2.0,-1.2405784,-2.0,-2.0,0.9134379,-1.8732537,2.0,1.1242336,-1.304709,2.0,-0.5553674,-2.0,-2.0,-1.079957,-2.0
2025-07-21 14:24:17.839,2.3800000000000017,2380,119,-0.079656474,0.072411954,0.025979295,-0.016232232,0.12942293,-0.023942102,0.0,0.0,0.0,-0.007914136,-0.10301368,0.18058605,-0.093951106,0.08704563,0.24070989,0.12165194,0.02385405,-0.015506175,-0.056199532,-0.077341445,-0.1432673,0.13253514,-0.07008822,-0.062351663,0.023072716,0.039290797,0.064389534,0.042952262,-0.02094455,-0.072850384,-0.016050344,0.068730466,0.0015282773,0.0756247,-2.0,0.9134379,-1.8732537,2.0,1.1242336,-1.304709,2.0,-0.5553674,-2.0,-2.0,-1.079957,-2.0,-2.0,1.7757539,-2.0,2.0,1.3983222,0.09459755,2.0,-0.60091907,-2.0,-2.0,-0.78422636,-2.0
2025-07-21 14:24:17.874,2.4000000000000017,2400,120,0.05871107,-0.050079163,-0.029448733,-0.03382612,0.08583578,-0.037488777,0.0,0.0,0.0,-0.007928909,-0.116973944,0.18629394,-0.07834306,0.102711864,0.23454536,0.11882772,0.03712967,-0.010899306,-0.054955132,-0.069133826,-0.1416169,0.14240316,0.06773375,-0.055761512,0.013240925,-0.04647815,-0.013101987,-0.035991658,0.059511643,0.00018795815,-0.03666818,0.023668284,0.053957783,0.06448681,-2.0,1.7757539,-2.0,2.0,1.3983222,0.09459755,2.0,-0.60091907,-2.0,-2.0,-0.78422636,-2.0,-2.0,1.4925412,-2.0,1.7088792,1.149807,-0.5610663,2.0,0.041120652,-2.0,-2.0,-1.3649771,-2.0
2025-07-21 14:24:17.907,2.4200000000000017,2420,121,0.03557799,-0.08517851,0.02750255,-0.0217067,0.08926437,-0.0023170554,0.0,0.0,0.0,-0.00769451,-0.1143327,0.19031815,-0.08257424,0.099903055,0.24322087,0.1297486,0.043394145,-0.023760924,-0.061758485,-0.084584825,-0.13033104,0.12929526,0.0768749,-0.050735444,-0.020855295,-0.03212124,-0.021154039,0.08423643,0.0144174555,0.0008572286,-0.07010641,0.038680617,0.0014143514,0.009192623,-2.0,1.4925412,-2.0,1.7088792,1.149807,-0.5610663,2.0,0.041120652,-2.0,-2.0,-1.3649771,-2.0,-2.0,1.0360152,-2.0,1.8461962,1.2301383,-0.7909425,2.0,-0.45091662,-2.0,-2.0,-0.9086762,-2.0
2025-07-21 14:24:17.921,2.4400000000000017,2440,122,0.027877657,-0.005771526,-0.029838962,-0.10228393,0.050832674,-0.026977079,1.5,0.0,0.0,-0.0076422817,-0.10558975,0.19292638,-0.08670253,0.08879001,0.2288535,0.1304817,0.041672412,-0.01315409,-0.07012642,-0.08112985,-0.14043239,0.13641514,0.06394136,0.04918588,-0.06843055,-0.05622507,-0.0016456848,0.022296732,0.039663654,-0.04147158,-0.076651126,-0.035712138,-0.04634954,0.032917283,-2.0,1.0360152,-2.0,1.8461962,1.2301383,-0.7909425,2.0,-0.45091662,-2.0,-2.0,-0.9086762,-2.0,-2.0,-0.25537962,-0.88957006,2.0,0.052361682,0.81431633,2.0,-1.0989738,-2.0,-2.0,-1.7312826,-2.0
2025-07-21 14:24:17.942,2.4600000000000017,2460,123,-0.0662066,0.035064265,-0.029596642,-0.044837788,0.08396758,0.04366453,1.5,0.0,0.0,-0.007633228,-0.11872614,0.16791241,-0.07298135,0.09584716,0.21103263,0.13280313,0.03573499,-0.02556337,-0.05786307,-0.07999543,-0.14772585,0.13770111,-0.058461457,-0.036439456,0.07621077,-0.025005344,-0.12445546,0.045992866,-0.013557239,-0.02555988,-0.0040266146,-0.055233054,-0.01578581,-0.016570892,-2.0,-0.25537962,-0.88957006,2.0,0.052361682,0.81431633,2.0,-1.0989738,-2.0,-2.0,-1.7312826,-2.0,-2.0,0.4426537,-1.2795306,2.0,1.2512525,2.0,2.0,-0.5724566,-2.0,-2.0,-1.7896663,-2.0
2025-07-21 14:24:17.966,2.4800000000000018,2480,124,-0.022884006,-0.07256784,-0.059462126,-0.056031805,0.07495109,0.04471379,1.5,0.0,0.0,-0.007206758,-0.11519857,0.14670646,-0.07175324,0.098677166,0.20081443,0.16107526,0.031580206,-0.053397078,-0.043223858,-0.07681735,-0.17688404,0.15468961,0.06691022,0.018960085,0.03420172,0.058670077,0.03123807,0.0049839476,0.07324678,-0.10559229,0.0663378,-0.057562094,-0.06265574,0.09199266,-2.0,0.4426537,-1.2795306,2.0,1.2512525,2.0,2.0,-0.5724566,-2.0,-2.0,-1.7896663,-2.0,-2.0,-0.062585935,-2.0,2.0,0.52071196,2.0,2.0,-0.572526,0.061044425,-2.0,-1.7171098,-2.0
2025-07-21 14:24:17.984,2.5000000000000018,2500,125,-0.018225873,-0.084280916,-0.094922565,-0.035162844,0.06310641,0.012262759,1.5,0.0,0.0,-0.0066693425,-0.12028298,0.12584588,-0.05574818,0.08654305,0.19162044,0.1981547,0.0386834,-0.06567357,-0.026939146,-0.070981786,-0.1861115,0.17281404,-0.07698945,-0.07372171,0.06365654,-0.05060199,-0.094214484,0.07688067,0.08054823,-0.07389482,0.036212113,0.05275091,-0.110473834,0.030178871,-2.0,-0.062585935,-2.0,2.0,0.52071196,2.0,2.0,-0.572526,0.061044425,-2.0,-1.7171098,-2.0,-2.0,0.3234337,-2.0,2.0,1.0437025,2.0,2.0,0.31551874,2.0,-2.0,-2.0,-2.0
2025-07-21 14:24:18.004,2.520000000000002,2520,126,0.036803994,-0.088413104,-0.06420826,-0.07842876,0.12889884,-0.046949115,1.5,0.0,0.0,-0.0058020377,-0.110259034,0.104704864,-0.031138696,0.08154169,0.19312921,0.22328939,0.050812628,-0.08158652,0.027779378,-0.07358917,-0.21252066,0.2039983,-0.032959193,-0.015843403,0.123790115,0.041176748,-0.013170494,0.15785117,0.07582243,0.0383021,0.18686897,0.007258205,-0.013380175,0.0034300878,-2.0,0.3234337,-2.0,2.0,1.0437025,2.0,2.0,0.31551874,2.0,-2.0,-2.0,-2.0,-2.0,-0.37283832,-2.0,2.0,1.7862346,2.0,2.0,0.49299014,2.0,-2.0,-2.0,-2.0
2025-07-21 14:24:18.022,2.540000000000002,2540,127,0.027130248,0.031463694,-0.070545726,-0.028505841,0.10887998,0.031297628,1.5,0.0,0.0,-0.004673397,-0.11862298,0.06935646,-0.0054246425,0.093907245,0.18125561,0.25713325,0.06129984,-0.054261863,0.08803806,-0.06313279,-0.22671863,0.22690807,-0.060782917,-0.0568067,0.035966765,0.0067466088,0.034276646,0.028772578,-0.030610513,0.08753163,0.14576593,-0.0009289548,-0.07989081,0.0042239386,-2.0,-0.37283832,-2.0,2.0,1.7862346,2.0,2.0,0.49299014,2.0,-2.0,-2.0,-2.0,-2.0,-0.25027907,-2.0,2.0,2.0,2.0,2.0,0.412849,2.0,-2.0,-2.0,-2.0
2025-07-21 14:24:18.042,2.560000000000002,2560,128,0.07771369,0.042198114,-0.123178594,-0.08193349,0.0836054,0.01664708,1.5,0.0,0.0,-0.0028946449,-0.1373902,0.029991899,0.02097956,0.07530719,0.20710354,0.2855294,0.0726907,-0.005534471,0.14083904,-0.07273709,-0.24302745,0.24699649,-0.01204215,-0.090384446,0.055901203,0.025318714,0.040851843,0.011931105,0.050209224,0.12152776,0.16057058,-0.054087304,-0.02170422,0.041190766,-2.0,-0.25027907,-2.0,2.0,2.0,2.0,2.0,0.412849,2.0,-2.0,-2.0,-2.0,-2.0,-0.037940197,-1.8411815,2.0,1.9361519,2.0,2.0,0.42681217,2.0,-2.0,-2.0,-2.0
2025-07-21 14:24:18.080,2.580000000000002,2580,129,0.07377257,0.10687346,-0.21511188,-0.056643225,0.06011005,-0.0032042211,1.5,0.0,0.0,-8.199468e-05,-0.16495939,0.009640928,0.047442894,0.08826184,0.24678347,0.29766735,0.097673446,0.02927268,0.1643303,-0.06673156,-0.27055535,0.25739172,-0.06438758,-0.07631418,-0.02381722,0.048705187,0.04854097,0.103795595,-0.005939606,0.04570155,0.058373168,-0.020655492,-0.08708741,0.12409552,-2.0,-0.037940197,-1.8411815,2.0,1.9361519,2.0,2.0,0.42681217,2.0,-2.0,-2.0,-2.0,-2.0,0.15966876,-0.4073307,2.0,1.7996879,1.1294944,2.0,0.57585645,1.7284508,-2.0,-2.0,-2.0
2025-07-21 14:24:18.124,2.600000000000002,2600,130,0.093416356,0.04072559,-0.12483532,-0.032410946,0.08038993,-0.047222443,1.5,0.0,0.0,0.0035439956,-0.19596696,-0.042843957,0.058985487,0.082780614,0.2604403,0.30385745,0.11673059,0.068952434,0.19480671,-0.066728,-0.28780368,0.283035,0.013531317,-0.015194486,0.05396668,-0.008498932,-0.0073613324,-0.01627198,0.058326002,0.0077612344,0.06519325,0.024626436,-0.0056899493,0.04437522,-2.0,0.15966876,-0.4073307,2.0,1.7996879,1.1294944,2.0,0.57585645,1.7284508,-2.0,-2.0,-2.0,-2.0,-1.1251935,1.088582,2.0,1.8342533,-0.7917188,2.0,0.3096561,-2.0,-2.0,-2.0,-2.0
2025-07-21 14:24:18.163,2.620000000000002,2620,131,0.18990667,0.07972462,-0.052003097,-0.07860178,0.11497216,-0.029255522,1.5,0.0,0.0,0.007187491,-0.19752349,-0.069590196,0.09928575,0.073849715,0.29203165,0.32042858,0.11313291,0.08042153,0.20946923,-0.061052658,-0.29819128,0.28383982,-0.015278786,-0.039975125,0.09506073,0.046542544,0.045020156,-0.0067619425,0.061141588,-0.054619778,0.060649205,-0.059724785,-0.017670674,0.0011609974,-2.0,-1.1251935,1.088582,2.0,1.8342533,-0.7917188,2.0,0.3096561,-2.0,-2.0,-2.0,-2.0,-2.0,-1.5538427,2.0,-2.0,0.98175395,-2.0,2.0,-1.6676517,-2.0,-2.0,-2.0,-2.0
2025-07-21 14:24:18.192,2.640000000000002,2640,132,0.03334453,0.26957327,-0.055467606,-0.062411457,0.027902458,0.028898772,1.5,0.0,0.0,0.009067405,-0.20124653,-0.14085391,0.14797994,0.051527143,0.2840797,0.33464646,0.10430656,0.057422493,0.21928081,-0.08601566,-0.29931846,0.2830779,0.016187936,-0.19374485,0.11660858,-0.0068098954,-0.046040047,0.030921519,-0.0022880717,-0.06992036,0.05266986,-0.085189976,-0.013265073,-0.0026528118,-2.0,-1.5538427,2.0,-2.0,0.98175395,-2.0,2.0,-1.6676517,-2.0,-2.0,-2.0,-2.0,-2.0,0.42923138,2.0,-2.0,1.5828345,-2.0,2.0,-1.5968796,-2.0,-2.0,-1.7960632,-2.0
2025-07-21 14:24:18.223,2.660000000000002,2660,133,0.07579991,0.29259336,-0.048773,-0.105011314,-0.01774909,0.015699865,1.5,0.0,0.0,0.010245499,-0.20633502,-0.15764472,0.17803437,0.03784098,0.2667032,0.3149753,0.07729099,0.009927954,0.23883025,-0.08234834,-0.29615065,0.24826817,-0.07026097,-0.10044915,0.04709979,-0.07489448,0.029651053,-0.07516112,-0.03092071,-0.13796635,0.015384364,-0.05915237,0.051173117,-0.11182662,-2.0,0.42923138,2.0,-2.0,1.5828345,-2.0,2.0,-1.5968796,-2.0,-2.0,-1.7960632,-2.0,-2.0,0.34671143,2.0,-2.0,1.0857768,-2.0,2.0,-1.82081,-2.0,-2.0,-1.5227729,-2.0
2025-07-21 14:24:18.242,2.680000000000002,2680,134,0.040015463,0.29555452,-0.049398188,-0.06798643,0.049084213,0.03881952,1.5,0.0,0.0,0.0112508675,-0.2065075,-0.17979623,0.1819145,0.019721963,0.25256947,0.3150763,0.079168074,-0.011364636,0.26271823,-0.09964033,-0.29744318,0.23417497,-0.06409732,-0.083317764,0.0667786,-0.03528586,0.03580529,-0.045731332,-0.07162162,-0.068670854,0.06717696,0.0031525833,-0.035129372,-0.019055318,-2.0,0.34671143,2.0,-2.0,1.0857768,-2.0,2.0,-1.82081,-2.0,-2.0,-1.5227729,-2.0,-2.0,0.5533046,2.0,-2.0,1.2620418,-2.0,2.0,-1.7260134,-2.0,-2.0,-1.4326577,-2.0
2025-07-21 14:24:18.273,2.700000000000002,2700,135,0.0039087795,0.24689965,-0.028311094,-0.11143495,-0.06638284,-0.048224695,1.5,0.0,0.0,0.011674535,-0.21786276,-0.19559312,0.18852787,0.017251259,0.25407287,0.28776768,0.070182376,-0.035730973,0.24657339,-0.10653776,-0.29112166,0.2075673,-0.07928205,0.008344457,-0.023111366,-0.036647137,0.0475384,-0.05773908,-0.007266912,-0.08912038,-0.017017534,-0.024652865,0.008603849,-0.15092741,-2.0,0.5533046,2.0,-2.0,1.2620418,-2.0,2.0,-1.7260134,-2.0,-2.0,-1.4326577,-2.0,-2.0,0.24767013,2.0,-2.0,0.9936423,-2.0,2.0,-1.8414255,-2.0,-2.0,-1.4712065,-2.0
2025-07-21 14:24:18.299,2.720000000000002,2720,136,-0.068368725,0.2914093,0.019188918,-0.024103543,0.011621613,0.019895649,1.5,0.0,0.0,0.011673335,-0.22024123,-0.18927999,0.19736947,0.012314754,0.2334278,0.24106187,0.050064143,-0.05747381,0.258433,-0.104930565,-0.277139,0.15200362,0.034050036,0.0070637846,0.042752445,-0.003547055,-0.0701471,-0.10870907,0.017552838,-0.02146024,0.047306776,-0.055034257,-0.04170655,-0.15295367,-2.0,0.24767013,2.0,-2.0,0.9936423,-2.0,2.0,-1.8414255,-2.0,-2.0,-1.4712065,-2.0,-2.0,0.2584402,2.0,-2.0,0.98981774,-2.0,2.0,-1.7024995,-2.0,-2.0,-1.386985,-2.0
2025-07-21 14:24:18.317,2.740000000000002,2740,137,-0.012446955,0.22815843,0.026248168,-0.072076656,-0.0825719,0.023744937,1.5,0.0,0.0,0.011368746,-0.21330538,-0.17646815,0.20402065,0.008779874,0.23284289,0.21693763,0.052804943,-0.063303694,0.23769121,-0.10735496,-0.26927876,0.13117446,-0.01874669,-0.038368493,0.024673408,-0.009887861,-0.076943845,-0.16905744,-0.019120818,-0.09051189,0.055528793,-0.07890036,-0.05694811,-0.059969127,-2.0,0.2584402,2.0,-2.0,0.98981774,-2.0,2.0,-1.7024995,-2.0,-2.0,-1.386985,-2.0,-2.0,0.30239928,2.0,-2.0,1.1069145,-2.0,2.0,-1.7182157,-2.0,-2.0,-1.3085765,-2.0
2025-07-21 14:24:18.334,2.760000000000002,2760,138,-0.056197066,0.26950115,0.069019124,-0.05265454,-0.095095284,0.023750024,1.5,0.0,0.0,0.010820922,-0.19129243,-0.16154377,0.19049394,0.0083009,0.22421885,0.16096267,0.04683358,-0.10022994,0.23845856,-0.11746367,-0.2573685,0.089631535,0.090624414,0.057031944,-0.0013660236,0.0173312,0.00480621,-0.088393636,0.039834525,-0.01766742,0.009792394,0.008741171,-0.046274025,-0.06561952,-2.0,0.30239928,2.0,-2.0,1.1069145,-2.0,2.0,-1.7182157,-2.0,-2.0,-1.3085765,-2.0,-2.0,0.21997787,2.0,-2.0,0.86644465,-2.0,2.0,-1.9337281,-2.0,-2.0,-1.3226129,-1.7032094
2025-07-21 14:24:18.354,2.780000000000002,2780,139,-0.060887888,0.24662574,0.0346676,-0.08278118,-0.12502931,0.040414467,1.5,0.0,0.0,0.010134968,-0.17656867,-0.15598789,0.21340781,0.011938455,0.21151343,0.112452894,0.056003205,-0.12437401,0.232186,-0.108579405,-0.25808772,0.038967833,-0.019312719,-0.0022972408,0.06854614,-0.025152763,-0.08320611,-0.059519522,0.0554865,-0.07120518,-0.04482763,-0.016661558,0.05842232,-0.11541153,-2.0,0.21997787,2.0,-2.0,0.86644465,-2.0,2.0,-1.9337281,-2.0,-2.0,-1.3226129,-1.7032094,-2.0,0.2587436,2.0,-2.0,0.58198065,-2.0,2.0,-1.5969697,-2.0,-2.0,-1.390087,0.2247231
2025-07-21 14:24:18.374,2.800000000000002,2800,140,-0.12641735,0.17502603,0.08207733,0.022688877,-0.083327144,-0.019905027,1.5,0.0,0.0,0.009423602,-0.1643431,-0.12119065,0.21441117,0.016947115,0.19381516,0.0880221,0.048530027,-0.14812826,0.23731238,-0.12111733,-0.2531723,0.015623205,0.09894565,0.028584605,0.023765277,0.08480216,0.00853919,-0.04769578,-0.0567998,-0.03881695,0.019522673,0.037041027,-0.012580844,-0.08628059,-2.0,0.2587436,2.0,-2.0,0.58198065,-2.0,2.0,-1.5969697,-2.0,-2.0,-1.390087,0.2247231,-2.0,0.17214899,2.0,-2.0,-0.03932403,-2.0,2.0,-1.6464636,-2.0,-2.0,-1.0489365,2.0
2025-07-21 14:24:18.399,2.820000000000002,2820,141,-0.034818113,0.10725088,0.084491126,-0.045191687,-0.15943994,0.009785626,1.5,0.0,0.0,0.008523455,-0.15412438,-0.095773906,0.21390317,0.039579146,0.18638645,0.049468733,0.058829524,-0.16484222,0.23889083,-0.11886884,-0.26704356,0.045847684,0.063356236,0.08130771,-0.022485295,0.08541558,0.017553292,-0.062299572,-0.00065757456,-0.09606304,-0.008091782,0.05680704,0.056120533,0.06554864,-2.0,0.17214899,2.0,-2.0,-0.03932403,-2.0,2.0,-1.6464636,-2.0,-2.0,-1.0489365,2.0,-2.0,1.1429874,2.0,-2.0,-0.28147376,-2.0,2.0,-1.5942053,-2.0,-2.0,-0.5136665,2.0
2025-07-21 14:24:18.416,2.840000000000002,2840,142,-0.019675964,0.093010515,0.08268866,-0.0038532787,-0.14823565,0.04001385,1.5,0.0,0.0,0.0072566853,-0.14219937,-0.050168168,0.2254787,0.036927514,0.15559362,0.031621378,0.05384579,-0.19003245,0.2329302,-0.11312829,-0.24895233,0.11141889,-0.0129938815,0.15405267,0.053986203,0.08566254,-0.03442691,-0.028346512,-0.021815855,-0.009108897,-0.06295724,0.023609914,0.15589298,0.10352938,-2.0,1.1429874,2.0,-2.0,-0.28147376,-2.0,2.0,-1.5942053,-2.0,-2.0,-0.5136665,2.0,-2.0,1.6680752,2.0,-2.0,-0.28333524,-1.8281871,2.0,-1.2481724,-2.0,-1.9992765,-0.17704843,2.0
2025-07-21 14:24:18.434,2.860000000000002,2860,143,0.05265487,-0.03219797,0.19871879,0.038295656,-0.08596221,-0.035007466,1.5,0.0,0.0,0.0054120985,-0.13764796,0.014612895,0.23731974,0.062056597,0.14043966,0.027687166,0.052412387,-0.21063805,0.24552722,-0.12249206,-0.20036921,0.1427949,-0.042795822,0.26912686,0.10563566,0.10789714,-0.12512577,0.04310046,-0.020413358,0.02130436,-0.052140784,0.034746952,0.08202099,0.15081725,-2.0,1.6680752,2.0,-2.0,-0.28333524,-1.8281871,2.0,-1.2481724,-2.0,-1.9992765,-0.17704843,2.0,-2.0,1.6400939,2.0,-2.0,0.113401696,-0.7360717,2.0,-1.7992097,-2.0,-1.5510374,0.08776899,2.0
2025-07-21 14:24:18.454,2.880000000000002,2880,144,0.037421983,0.02899044,0.17451438,-0.031115443,-0.14922613,0.04805874,1.5,0.0,0.0,0.0028629876,-0.13647245,0.09504208,0.25589728,0.07368494,0.12005398,0.02149977,0.05347278,-0.22682664,0.24808949,-0.12731522,-0.1362878,0.17155473,-0.00834189,0.27167088,-0.016492903,0.03195883,-0.07052554,0.07801719,-0.056538068,-0.011103852,0.06911802,0.0052865157,0.17340025,0.05469916,-2.0,1.6400939,2.0,-2.0,0.113401696,-0.7360717,2.0,-1.7992097,-2.0,-1.5510374,0.08776899,2.0,-2.0,2.0,2.0,-2.0,0.1638823,0.028948724,2.0,-1.9202257,-2.0,-1.3418168,0.24320503,2.0
2025-07-21 14:24:18.474,2.900000000000002,2900,145,0.13136314,0.0044456245,0.112187505,-0.017297503,-0.17111582,0.04536455,1.5,0.0,0.0,0.00019547019,-0.13319509,0.17025691,0.25411144,0.08872363,0.09099683,0.040395364,0.06571795,-0.25577328,0.2501124,-0.10587382,-0.0715285,0.2027116,-0.06460543,0.14583501,0.11926682,0.0199976,-0.015677802,0.04017828,-0.045468133,-0.0060330364,-0.04459784,0.026118128,0.21287636,-0.010571049,-2.0,2.0,2.0,-2.0,0.1638823,0.028948724,2.0,-1.9202257,-2.0,-1.3418168,0.24320503,2.0,-2.0,1.9364842,0.07145744,-2.0,-0.08549954,1.1808684,2.0,-1.6472365,-2.0,-1.5907867,0.04685168,2.0
2025-07-21 14:24:18.500,2.920000000000002,2920,146,0.112568945,-0.17035085,0.05387203,-0.048220597,-0.17254624,-0.01714949,1.5,0.0,0.0,-0.0020291794,-0.122488245,0.21948484,0.2892997,0.099296644,0.039797302,0.07473959,0.06932312,-0.25508955,0.24172853,-0.11604914,-0.023713047,0.2197158,-0.047043357,0.06985156,0.12954977,0.09322895,-0.07671817,0.07971887,-0.049848553,-0.08381926,0.032330826,0.031679504,0.11009511,0.10357676,-2.0,1.9364842,0.07145744,-2.0,-0.08549954,1.1808684,2.0,-1.6472365,-2.0,-1.5907867,0.04685168,2.0,-2.0,1.0995709,-2.0,1.2584951,-0.3764288,2.0,2.0,-1.5349034,-1.8474987,-2.0,-0.45122647,-0.14055437
2025-07-21 14:24:18.517,2.940000000000002,2940,147,-0.016048647,-0.33669016,0.0056751957,-0.053024676,-0.07051437,0.027163215,1.5,0.0,0.0,-0.0038899933,-0.10140384,0.22721504,0.29097995,0.106572,0.006990364,0.11374136,0.09070721,-0.26682222,0.24587677,-0.103610896,-0.008050057,0.17628744,0.096646205,-0.00025908186,0.042982206,-0.017869623,-0.072780795,0.12289476,-0.00792191,-0.045986872,-0.071392275,-0.041601114,0.010874913,-0.111063346,-2.0,1.0995709,-2.0,1.2584951,-0.3764288,2.0,2.0,-1.5349034,-1.8474987,-2.0,-0.45122647,-0.14055437,-2.0,0.19766001,-2.0,2.0,-1.0823346,2.0,2.0,-0.543422,2.0,-2.0,-0.9412074,-2.0
2025-07-21 14:24:18.535,2.960000000000002,2960,148,0.01273656,-0.33414376,0.03310372,-0.052187297,-0.110860765,0.0380163,1.5,0.0,0.0,-0.0054217847,-0.08390384,0.1956252,0.30586815,0.11438784,-0.04648201,0.164803,0.10303539,-0.28065974,0.24046943,-0.09149566,-0.023175575,0.14122967,-0.017123723,-0.060112417,0.007448546,0.060239587,-0.111519665,0.08235874,0.016266504,-0.042503346,0.009433966,-0.035762183,-0.039390225,-0.049732417,-2.0,0.19766001,-2.0,2.0,-1.0823346,2.0,2.0,-0.543422,2.0,-2.0,-0.9412074,-2.0,-1.8110013,-0.5974137,-2.0,2.0,1.6960776,2.0,2.0,0.43172097,2.0,-2.0,-1.6565185,-2.0
2025-07-21 14:24:18.554,2.980000000000002,2980,149,0.037338417,-0.16248782,-0.080931455,-0.05645932,-0.033482596,0.003365027,1.5,0.0,0.0,-0.0064044134,-0.086922534,0.17063767,0.313993,0.1227586,-0.072251365,0.21150985,0.109865464,-0.2977745,0.23989634,-0.08894188,-0.05849461,0.15780126,-3.2369295e-05,-0.07207418,0.021564543,-0.024152925,-0.06309538,0.05825232,0.030027105,0.030051349,-0.0013754629,0.0242743,-0.12682413,0.04645863,-1.8110013,-0.5974137,-2.0,2.0,1.6960776,2.0,2.0,0.43172097,2.0,-2.0,-1.6565185,-2.0,0.2689588,0.20690183,-2.0,2.0,1.7672021,2.0,2.0,-0.7050349,2.0,-2.0,-2.0,-2.0
2025-07-21 14:24:18.574,3.000000000000002,3000,150,0.029226094,-0.14841808,-0.10637594,-0.047529604,-0.019933848,0.04396208,1.5,0.0,0.0,-0.005944159,-0.08806526,0.15738513,0.3301372,0.12984225,-0.061743267,0.23317577,0.10913818,-0.29571924,0.23556228,-0.08546683,-0.0978587,0.1777823,-0.066178195,-0.06655125,-0.024107456,0.08586017,-0.019683149,-0.011432048,-0.055559218,0.061991066,0.058646534,0.08956231,-0.07873765,0.1093249,0.2689588,0.20690183,-2.0,2.0,1.7672021,2.0,2.0,-0.7050349,2.0,-2.0,-2.0,-2.0,2.0,0.08687444,-2.0,2.0,1.1759492,2.0,2.0,-0.82007957,2.0,-2.0,-2.0,-2.0
2025-07-21 14:24:18.600,3.0200000000000022,3020,151,-0.107465,-0.21332562,-0.10882803,-0.04223818,-0.005366627,0.0016818313,1.5,0.0,0.0,-0.004361834,-0.087157264,0.12992078,0.30811432,0.14296831,-0.03723997,0.24686347,0.110923186,-0.2844665,0.23235086,-0.0641548,-0.11116449,0.2062366,-0.0035572231,-0.100834645,-0.0040356987,0.06906739,-0.039909687,0.06952371,-0.040129196,0.024970133,0.069295235,0.095823295,-0.09028558,0.05326654,2.0,0.08687444,-2.0,2.0,1.1759492,2.0,2.0,-0.82007957,2.0,-2.0,-2.0,-2.0,2.0,-0.34878516,-2.0,2.0,1.8347476,2.0,2.0,-0.89178646,2.0,-2.0,-2.0,-2.0
2025-07-21 14:24:18.617,3.0400000000000023,3040,152,-0.1954561,-0.16248202,-0.1459551,-0.027072946,-0.007695663,0.03132331,1.5,0.0,0.0,-0.0025336486,-0.08958727,0.11145175,0.2792485,0.14231731,-0.017223472,0.25211656,0.11281387,-0.29070735,0.23737945,-0.06027005,-0.14652324,0.20941934,0.002466557,-0.06299637,-0.11145289,0.0635663,0.037650272,0.0005827698,0.028706808,-0.026487952,0.00715775,0.010468282,-0.02926686,0.036589384,2.0,-0.34878516,-2.0,2.0,1.8347476,2.0,2.0,-0.89178646,2.0,-2.0,-2.0,-2.0,2.0,-0.27551952,-2.0,2.0,1.8239069,2.0,2.0,-0.88876253,2.0,-2.0,-2.0,-2.0
2025-07-21 14:24:18.634,3.0600000000000023,3060,153,-0.16093224,-0.16954157,-0.16354099,-0.089859605,-0.0030101666,0.011816254,1.5,0.0,0.0,-0.00043760473,-0.090365395,0.105209954,0.26677158,0.1506537,0.06528,0.24499768,0.1353254,-0.2846383,0.22702502,-0.044365853,-0.18115199,0.2451301,0.053801533,-0.009046823,-0.11444137,0.031731416,0.25345048,0.07190627,-0.029026333,-0.071047485,-0.02943997,0.1114668,-0.043952543,0.100247934,2.0,-0.27551952,-2.0,2.0,1.8239069,2.0,2.0,-0.88876253,2.0,-2.0,-2.0,-2.0,2.0,-0.3672435,-2.0,2.0,1.2757223,2.0,2.0,-0.4757017,2.0,-2.0,-2.0,-2.0
2025-07-21 14:24:18.655,3.0800000000000023,3080,154,-0.17797232,-0.26885298,-0.12291522,-0.021991462,0.033533163,0.046528716,1.5,0.0,0.0,0.00175257,-0.076098934,0.07431481,0.22858822,0.1363953,0.11825758,0.25828478,0.12642056,-0.29168177,0.22881728,-0.01854672,-0.21402597,0.2567739,0.017716328,-0.008236155,-0.037341226,0.038749322,0.08555872,0.077074565,0.0014868862,0.058902204,0.050395567,0.099588335,-0.00084965944,0.073521584,2.0,-0.3672435,-2.0,2.0,1.2757223,2.0,2.0,-0.4757017,2.0,-2.0,-2.0,-2.0,2.0,-0.4623263,-2.0,2.0,1.8489217,2.0,2.0,-0.26427913,2.0,-2.0,-2.0,-2.0
2025-07-21 14:24:18.675,3.1000000000000023,3100,155,-0.14930278,-0.2629058,-0.06805022,-0.0036797607,0.03174912,-0.016604302,1.5,0.0,0.0,0.0036054803,-0.07332045,0.06279297,0.20640233,0.12076569,0.18628487,0.25132555,0.12931226,-0.26818153,0.23021032,-0.016481047,-0.24378872,0.26724067,0.042878028,-0.10444486,-0.061231434,-0.03578877,0.0996019,-0.05480076,-0.039917435,0.0228717,-0.0049556075,0.057948794,-0.050994817,0.08958264,2.0,-0.4623263,-2.0,2.0,1.8489217,2.0,2.0,-0.26427913,2.0,-2.0,-2.0,-2.0,1.485349,-0.4926873,-2.0,2.0,1.8422937,2.0,2.0,-0.17099875,2.0,-2.0,-2.0,-2.0
2025-07-21 14:24:18.700,3.1200000000000023,3120,156,-0.12665284,-0.24298921,-0.043972164,-0.068104126,0.08509995,-0.0012499023,1.5,0.0,0.0,0.005147254,-0.08159957,0.047184646,0.18653877,0.10595585,0.23804618,0.2546418,0.11704094,-0.23669551,0.23517072,-0.0025569145,-0.26777008,0.27878192,-0.054399427,-0.0944042,-0.093914665,-0.031278994,0.20899063,-0.03966073,-0.023843331,0.05345722,0.037909094,-0.01325548,-0.03659349,0.09147963,1.485349,-0.4926873,-2.0,2.0,1.8422937,2.0,2.0,-0.17099875,2.0,-2.0,-2.0,-2.0,-0.15989026,-0.43469366,-2.0,2.0,1.903501,2.0,2.0,0.11490071,2.0,-2.0,-1.8434108,-2.0
2025-07-21 14:24:18.717,3.1400000000000023,3140,157,0.001846735,-0.15538765,-0.03950521,-0.048728693,0.041306946,-0.039764978,1.5,0.0,0.0,0.006592791,-0.066229425,0.035304397,0.18518172,0.094040446,0.30452728,0.26626226,0.117157124,-0.19439033,0.23134321,0.008591541,-0.2852522,0.27752426,0.03757991,-0.10231381,-0.081178375,0.03083028,0.07764011,-0.023309441,-0.06531054,0.08258145,0.07287676,-0.020488879,-0.101670794,0.028155953,-0.15989026,-0.43469366,-2.0,2.0,1.903501,2.0,2.0,0.11490071,2.0,-2.0,-1.8434108,-2.0,-2.0,-0.3851646,-2.0,2.0,1.7208182,2.0,2.0,0.3490166,2.0,-2.0,-1.5495914,-2.0
2025-07-21 14:24:18.737,3.1600000000000024,3160,158,0.02044307,-0.054368284,-0.1084237,-0.030287072,0.044657666,-0.03912723,1.5,0.0,0.0,0.00820228,-0.087099485,0.0045818775,0.16649634,0.09205048,0.32532296,0.2711305,0.10286453,-0.13846621,0.23990357,0.014511072,-0.2915048,0.27474472,-0.07827534,0.0014711735,-0.035510514,-0.017860945,0.061158787,-0.025017561,0.048117507,0.083819866,-0.063633405,-0.00061379076,-0.036977086,0.032241873,-2.0,-0.3851646,-2.0,2.0,1.7208182,2.0,2.0,0.3490166,2.0,-2.0,-1.5495914,-2.0,-2.0,-0.23303257,-2.0,2.0,1.6895,2.0,2.0,0.54899395,2.0,-2.0,-2.0,-2.0
2025-07-21 14:24:18.755,3.1800000000000024,3180,159,-0.00055472425,-0.06067848,-0.15743393,-0.006158177,0.06455735,-0.007102146,1.5,0.0,0.0,0.01041124,-0.09926745,-0.002501672,0.1703983,0.0757264,0.35659927,0.27658895,0.10154259,-0.07208624,0.24617514,0.014491309,-0.30925325,0.27656177,-0.024511084,0.018961292,-0.023918739,-0.040412437,0.030529574,-0.038390066,0.05697559,0.06918679,0.07798879,-0.05570865,-0.0414265,-0.07807848,-2.0,-0.23303257,-2.0,2.0,1.6895,2.0,2.0,0.54899395,2.0,-2.0,-2.0,-2.0,-2.0,-0.4687156,-1.1120489,2.0,1.8970165,1.1399264,2.0,0.45973748,1.7344918,-2.0,-2.0,-2.0
2025-07-21 14:24:18.775,3.2000000000000024,3200,160,0.079371855,0.011558543,-0.12304817,-0.044592492,0.041230727,-0.033595715,1.5,0.0,0.0,0.0130698,-0.13060735,-0.017895676,0.16042423,0.073593184,0.35985628,0.2775727,0.10403764,-0.041273676,0.24004364,0.019211343,-0.3248752,0.28628236,-0.015736338,-0.11216516,-0.04270368,-0.055086147,0.046994247,-0.045015715,-0.03111394,0.083801195,0.01547502,0.06015298,0.023081018,-0.080191754,-2.0,-0.4687156,-1.1120489,2.0,1.8970165,1.1399264,2.0,0.45973748,1.7344918,-2.0,-2.0,-2.0,-2.0,-1.0105506,-0.2624343,2.0,1.7329172,0.17981595,2.0,0.10303426,-0.84027404,-2.0,-2.0,-2.0
2025-07-21 14:24:18.800,3.2200000000000024,3220,161,0.17530082,0.034487203,-0.022293424,-0.041097194,0.06267734,0.0027106414,1.5,0.0,0.0,0.015611522,-0.13623503,-0.053913817,0.16576302,0.06927993,0.36749765,0.30305156,0.08847837,-0.040234096,0.21601792,0.009475382,-0.32463232,0.27491736,-0.03607436,-0.07916774,0.07167873,-0.05335206,0.060487587,0.059777156,-0.012302205,-0.04495138,0.009369619,-0.057677854,0.050085615,-0.021750985,-2.0,-1.0105506,-0.2624343,2.0,1.7329172,0.17981595,2.0,0.10303426,-0.84027404,-2.0,-2.0,-2.0,-2.0,-1.2578402,2.0,-1.9294527,1.4675467,-2.0,2.0,-1.599554,-2.0,-2.0,-2.0,-2.0
