openverse-orca/OrcaGym/log/simulation_log_20250604_115238.csv
timestamp,imu_angle_roll,imu_angle_pitch,imu_angle_yaw,imu_angular_velocity_roll,imu_angular_velocity_pitch,imu_angular_velocity_yaw,imu_acc_x,imu_acc_y,imu_acc_z,fl_joint1_pos,fl_joint1_vel,fl_joint1_torque,fl_joint2_pos,fl_joint2_vel,fl_joint2_torque,fl_joint3_pos,fl_joint3_vel,fl_joint3_torque,fr_joint1_pos,fr_joint1_vel,fr_joint1_torque,fr_joint2_pos,fr_joint2_vel,fr_joint2_torque,fr_joint3_pos,fr_joint3_vel,fr_joint3_torque,hl_joint1_pos,hl_joint1_vel,hl_joint1_torque,hl_joint2_pos,hl_joint2_vel,hl_joint2_torque,hl_joint3_pos,hl_joint3_vel,hl_joint3_torque,hr_joint1_pos,hr_joint1_vel,hr_joint1_torque,hr_joint2_pos,hr_joint2_vel,hr_joint2_torque,hr_joint3_pos,hr_joint3_vel,hr_joint3_torque,fl_force_x,fl_force_y,fl_force_z,fr_force_x,fr_force_y,fr_force_z,hl_force_x,hl_force_y,hl_force_z,hr_force_x,hr_force_y,hr_force_z,fl_hip_action,fl_thigh_action,fl_calf_action,fr_hip_action,fr_thigh_action,fr_calf_action,hl_hip_action,hl_thigh_action,hl_calf_action,hr_hip_action,hr_thigh_action,hr_calf_action
2025-06-04 11:52:38.895,0.004714541,0.0033495761,-0.020749737,0.019090153,-0.0041754325,-0.029367844,2.650521,1.4344288,0.0,0.0,0.0076972498,-0.004829333,-0.0074058548,-0.0018305671,-0.0056272396,-0.0061094766,0.00585434,0.00478405,-0.004645074,-0.0074967192,0.0068991254,0.00436065,-0.06883639,-0.0092915315,0.035682842,0.06621332,-0.020782249,0.06809801,-0.06726168,0.06476011,-0.023896217,-0.04960693,-0.044934303,0.030733213,0.0,0.0,0.0,0.0,0.0,0.0,0.0,0.0,0.0,0.0,0.0,0.0,-1.0,1.0,-1.0,1.0,-1.0,-1.0,-1.0,-1.0,-1.0,1.0,-1.0,-1.0
2025-06-04 11:52:38.901,-0.15039936,-0.06841351,0.02633379,0.008735667,0.009216982,0.048438963,0.0,0.0,0.0,0.0,-0.014174441,0.068620995,-0.042431496,0.010355183,-0.07207727,-0.03241091,-0.014904374,-0.056098547,-0.0455659,0.021516649,-0.061536744,-0.03133656,-0.019236924,0.16596979,-0.06278947,0.087429285,-0.14155917,-0.17046945,0.007620158,-0.1700569,-0.04010496,0.06515357,-0.13874775,-0.07281797,-1.0,1.0,-1.0,1.0,-1.0,-1.0,-1.0,-1.0,-1.0,1.0,-1.0,-1.0,-1.0,-1.0,-1.0,1.0,1.0,-1.0,-1.0,-1.0,-1.0,1.0,-1.0,-1.0
2025-06-04 11:52:38.919,-0.08055009,0.09901218,-0.09067766,-0.0060328357,0.034590352,0.022617962,0.0,0.0,0.0,-0.0006730972,-0.020591995,0.01547986,-0.074030474,0.03678354,-0.011172745,-0.07986953,-0.030539893,-0.13893689,-0.07731399,0.031107876,-0.12892783,-0.068722405,-0.040208615,-0.18498921,-0.08626919,-0.036284577,0.1322223,-0.08452821,-0.06211961,-0.22671391,-0.030276522,0.062159557,-0.10839947,-0.030016102,-1.0,-1.0,-1.0,1.0,1.0,-1.0,-1.0,-1.0,-1.0,1.0,-1.0,-1.0,1.0,1.0,-1.0,1.0,1.0,-1.0,-1.0,-1.0,-1.0,1.0,-1.0,-1.0
2025-06-04 11:52:38.939,-0.106391676,-0.11243388,0.09256459,-0.005803153,-0.02460979,-0.037618563,0.0,0.0,0.0,-2.484972e-05,-0.027614981,-0.018402668,-0.09875574,0.051908534,0.05311811,-0.107797146,-0.042073347,-0.17288274,-0.09472501,0.05140456,-0.17450318,-0.060203776,0.06512055,0.041979108,-0.10001223,0.0860681,0.054815527,-0.015020415,0.058709413,-0.011345771,-0.04279408,-0.010969531,-0.07694755,-0.03701972,1.0,1.0,-1.0,1.0,1.0,-1.0,-1.0,-1.0,-1.0,1.0,-1.0,-1.0,1.0,-1.0,-1.0,1.0,1.0,-1.0,-1.0,-1.0,-1.0,1.0,-1.0,-1.0
2025-06-04 11:52:38.959,-0.197239,0.0059869946,-0.018436104,0.07022174,-0.006524402,-0.034967683,0.0,0.0,0.0,-0.00042506016,-0.012561458,-0.05729278,-0.09209426,0.06508415,0.065559566,-0.10512039,-0.048136383,-0.21209772,-0.076508515,0.04035709,-0.21108311,-0.05730938,0.05444757,-0.18726298,0.096269935,0.05645061,0.115510985,0.04094322,-0.00037899707,-0.08311982,-0.03820623,-0.021477357,-0.03814088,0.092366286,1.0,-1.0,-1.0,1.0,1.0,-1.0,-1.0,-1.0,-1.0,1.0,-1.0,-1.0,1.0,-1.0,-1.0,1.0,1.0,-1.0,-1.0,-1.0,-1.0,1.0,-1.0,-1.0
2025-06-04 11:52:38.979,-0.14014778,0.18454362,-0.12941065,0.102072574,-0.0254946,0.041481297,0.0,0.0,0.0,2.4937845e-05,0.0006937571,-0.10476146,-0.08410628,0.06528725,0.08584711,-0.13714781,-0.033869106,-0.25319254,-0.0616001,0.056248184,-0.24126767,-0.049606554,0.102180526,-0.18362738,-0.11161084,-0.03353826,0.05609517,-0.08765867,0.045231454,-0.01528134,0.005894479,-0.035237525,-0.055415075,0.009209866,1.0,-1.0,-1.0,1.0,1.0,-1.0,-1.0,-1.0,-1.0,1.0,-1.0,-1.0,-1.0,1.0,-1.0,1.0,-1.0,-1.0,-1.0,-1.0,-1.0,1.0,-1.0,-1.0
2025-06-04 11:52:39.003,-0.14801136,0.17827128,0.061843418,0.027009618,0.015712354,-0.023562865,0.0,0.0,0.0,0.0016987029,-0.017775023,-0.04245659,-0.13208938,0.07676492,0.024713622,-0.13978934,-0.043637928,-0.27587837,-0.080543,0.0668297,-0.25641474,-0.06139482,-0.08497056,0.1611661,-0.14091867,-0.0072149844,-0.16646956,0.021116061,-0.01768585,-0.032107502,-0.025293857,-0.060127106,-0.080515936,-0.04072264,-1.0,1.0,-1.0,1.0,-1.0,-1.0,-1.0,-1.0,-1.0,1.0,-1.0,-1.0,-1.0,-1.0,-1.0,1.0,1.0,-1.0,-1.0,-1.0,-1.0,1.0,-1.0,-1.0
2025-06-04 11:52:39.019,-0.08210982,0.14316876,-0.018693563,0.121995695,0.044959567,-0.031872626,0.0,0.0,0.0,0.0018446418,-0.023809042,-0.06364984,-0.13906418,0.08421239,0.07819684,-0.16804925,-0.048408736,-0.3001995,-0.060429595,0.060997244,-0.28753042,-0.076756336,-0.040668722,-0.11138011,-0.048765108,0.032847524,0.108288325,-0.0071058962,-0.04248619,-0.04758451,-0.028217625,0.053297047,-0.12971875,-0.06472633,-1.0,-1.0,-1.0,1.0,1.0,-1.0,-1.0,-1.0,-1.0,1.0,-1.0,-1.0,1.0,-1.0,-1.0,1.0,1.0,-1.0,-1.0,-1.0,-1.0,1.0,-1.0,-1.0
2025-06-04 11:52:39.040,0.027768265,-0.018231822,0.004290581,0.060899273,-0.020415725,0.042907342,0.0,0.0,0.0,0.0029008645,-0.0024932537,-0.13522583,-0.15021332,0.09023739,0.14724329,-0.17509767,-0.0605019,-0.33037347,-0.07224267,0.07419111,-0.33167493,-0.113990195,0.09264522,-0.11030653,-0.04684467,-0.00788332,0.17293102,-0.09695212,0.038910553,-0.0021266094,0.019907482,0.057514213,-0.13366449,-0.079062015,1.0,-1.0,-1.0,1.0,1.0,-1.0,-1.0,-1.0,-1.0,1.0,-1.0,-1.0,1.0,-1.0,-1.0,1.0,1.0,-1.0,-1.0,-1.0,-1.0,1.0,-1.0,-1.0
2025-06-04 11:52:39.059,-0.040911943,-0.11335232,-0.005395669,0.10167069,0.015306988,-0.005116161,0.0,0.0,0.0,0.0037680182,0.0008381084,-0.17216152,-0.14728166,0.08779581,0.2035979,-0.20292532,-0.052806392,-0.34625638,-0.07171338,0.073589206,-0.3436736,-0.12871698,-0.026556887,-0.062408023,-0.03736299,0.06934357,0.20505664,-0.08414538,-0.012443708,-0.08024623,-0.030365936,0.07080759,-0.04665438,-0.072101474,1.0,-1.0,-1.0,1.0,1.0,-1.0,-1.0,-1.0,-1.0,1.0,-1.0,-1.0,1.0,-1.0,-1.0,1.0,1.0,-1.0,-1.0,-1.0,-1.0,1.0,-1.0,-1.0
2025-06-04 11:52:39.079,0.06698372,0.011102355,-0.0059755524,0.105451934,0.034831326,0.04862256,0.0,0.0,0.0,0.004147988,0.011766724,-0.22704484,-0.1473467,0.08670431,0.22163555,-0.20245911,-0.06295313,-0.3595706,-0.0864306,0.09410319,-0.37455523,-0.13655305,-0.060628567,-0.09209184,-0.04317669,0.07459165,-0.023694523,-0.039262943,-0.007649113,-0.02886358,0.054671787,-0.02729358,0.013549775,0.013134463,1.0,-1.0,-1.0,1.0,1.0,-1.0,-1.0,-1.0,-1.0,1.0,-1.0,-1.0,1.0,-1.0,-1.0,1.0,1.0,-1.0,-1.0,-1.0,-1.0,1.0,-1.0,-1.0
2025-06-04 11:52:39.102,0.0017670585,0.041803714,-0.04127221,0.06134283,0.02704868,-0.009168842,0.0,0.0,0.0,0.0047114897,0.008765622,-0.25096264,-0.15246688,0.086013444,0.22735834,-0.18240704,-0.06303338,-0.386509,-0.096007966,0.09115015,-0.37913668,-0.13460146,0.029263312,-0.14640583,-0.016852295,0.018162115,-0.0023101475,0.08777039,-0.05612723,-0.10380249,0.05083602,-0.029805599,-0.0714981,0.037975922,1.0,-1.0,-1.0,1.0,1.0,-1.0,-1.0,-1.0,-1.0,1.0,-1.0,-1.0,1.0,-1.0,-1.0,1.0,1.0,-1.0,-1.0,-1.0,-1.0,1.0,-1.0,-1.0
2025-06-04 11:52:39.120,-0.0245837,0.052697577,-0.08280319,0.12025258,0.0055386913,0.014587921,0.0,0.0,0.0,0.0055922614,0.024352092,-0.29588044,-0.16330677,0.093363844,0.22798796,-0.18576053,-0.065548286,-0.40528092,-0.104923554,0.09648298,-0.40513575,-0.15913692,-0.021563694,-0.053173073,-0.028158179,0.07727955,-0.039854947,-0.012425253,0.044670217,0.0043865656,0.042122606,0.01569448,-0.010278485,-0.11460457,1.0,-1.0,-1.0,1.0,1.0,-1.0,-1.0,-1.0,-1.0,1.0,-1.0,-1.0,-1.0,1.0,-1.0,1.0,1.0,-1.0,-1.0,-1.0,-1.0,1.0,-1.0,-1.0
2025-06-04 11:52:39.139,0.06655156,0.037364624,-0.059597317,0.084909104,0.035584413,-0.022886159,0.0,0.0,0.0,0.006499436,0.02292074,-0.27376297,-0.18344949,0.09224412,0.24685718,-0.19079058,-0.057057858,-0.40523332,-0.101303436,0.086863585,-0.4112722,-0.17195001,-0.053885553,0.047362678,-0.027177576,0.02670076,0.11484035,-0.079339005,-0.010504186,0.037126865,-0.04662361,-0.029250713,-0.09607992,-0.0071589914,-1.0,1.0,-1.0,1.0,1.0,-1.0,-1.0,-1.0,-1.0,1.0,-1.0,-1.0,-1.0,-1.0,-1.0,1.0,1.0,-1.0,-1.0,-1.0,-1.0,1.0,-1.0,-1.0
2025-06-04 11:52:39.160,0.030189782,0.033511862,-0.11383732,0.06510985,-0.05007968,0.0075287633,0.0,0.0,0.0,0.0071859164,-0.00033280192,-0.30217227,-0.18387517,0.10236315,0.27932745,-0.20201926,-0.060069203,-0.4124373,-0.12147836,0.07929495,-0.4111091,-0.19522817,-0.046219483,-0.045237847,0.04505023,-0.018216182,0.1058246,-0.052693345,-0.072149724,-0.106475495,-0.01702371,0.019778721,-0.025410062,-0.09330625,-1.0,-1.0,-1.0,1.0,1.0,-1.0,-1.0,-1.0,-1.0,1.0,-1.0,-1.0,1.0,1.0,-1.0,1.0,1.0,-1.0,-1.0,-1.0,-1.0,1.0,-1.0,-1.0
2025-06-04 11:52:39.179,0.09407166,-0.30183604,-0.018266324,0.10526133,-0.024975443,0.0060744127,0.0,0.0,0.0,0.008297962,0.017059207,-0.29292455,-0.21552026,0.11376635,0.28631878,-0.19098939,-0.058844563,-0.411997,-0.15133582,0.099316485,-0.4233664,-0.20605798,0.026486957,0.062401444,-0.062448435,-0.02372994,0.0027327,0.018495722,-0.023680653,-0.024205796,0.014396415,0.013115506,-0.03806176,-0.008846602,1.0,1.0,-1.0,1.0,1.0,-1.0,-1.0,-1.0,-1.0,1.0,-1.0,-1.0,-1.0,-1.0,-1.0,1.0,1.0,-1.0,-1.0,-1.0,-1.0,1.0,-1.0,-1.0
2025-06-04 11:52:39.202,-0.042626936,0.031391,-0.088900104,0.1114216,-0.042274132,-0.021884311,0.0,0.0,0.0,0.008800871,-0.008430315,-0.29951045,-0.22819202,0.11821776,0.31069136,-0.19589996,-0.07132749,-0.43052062,-0.16514972,0.095555894,-0.4264245,-0.22180218,-0.07917147,-0.10507286,-0.047665894,0.053685952,-0.045035806,0.06389907,0.016346049,-0.04872044,-0.0978456,-0.026926525,-0.013403802,-0.09841095,-1.0,-1.0,-1.0,1.0,1.0,-1.0,-1.0,-1.0,-1.0,1.0,-1.0,-1.0,1.0,1.0,-1.0,1.0,1.0,-1.0,-1.0,-1.0,-1.0,1.0,-1.0,-1.0
2025-06-04 11:52:39.220,-0.02615569,-0.22451705,0.037060734,0.0700949,0.029090565,-0.044665486,0.0,0.0,0.0,0.009445867,0.003458683,-0.26981157,-0.2429859,0.11850764,0.30680352,-0.18602648,-0.0728445,-0.43913352,-0.1989038,0.09329663,-0.4443821,-0.23050041,0.007375266,0.15310884,0.0034656108,0.026529692,0.024642516,-0.051385697,0.024823155,0.018162176,-0.06831747,0.05556612,-0.044999443,-0.0480445,1.0,1.0,-1.0,1.0,1.0,-1.0,-1.0,-1.0,-1.0,1.0,-1.0,-1.0,1.0,-1.0,-1.0,1.0,1.0,-1.0,-1.0,-1.0,-1.0,1.0,-1.0,-1.0
2025-06-04 11:52:39.240,-0.20761055,-0.037364505,-0.07658843,0.031171277,0.0624321,-0.017639613,0.0,0.0,0.0,0.0095411595,-0.001824862,-0.28829136,-0.22486444,0.11847289,0.32852125,-0.18432023,-0.08742077,-0.44004643,-0.20258166,0.09525059,-0.45578814,-0.22789198,0.00724161,-0.12530935,-0.033956185,0.0369431,-0.015359628,-0.06423449,0.027401391,-0.0017480905,-0.03924524,0.014091709,-0.056953914,0.0759134,1.0,-1.0,-1.0,1.0,1.0,-1.0,-1.0,-1.0,-1.0,1.0,-1.0,-1.0,-1.0,1.0,-1.0,1.0,1.0,-1.0,-1.0,-1.0,-1.0,1.0,-1.0,-1.0
2025-06-04 11:52:39.261,-0.05087691,-0.008604629,-0.017672723,0.09449291,0.061613645,-0.049059,0.0,0.0,0.0,0.010088221,0.0029193936,-0.28614077,-0.22516562,0.11987121,0.3383542,-0.18606536,-0.079266846,-0.439262,-0.2155857,0.08503517,-0.456931,-0.22208941,0.01565371,0.057152405,0.05197029,0.057045743,0.09659962,-0.06462096,0.010022824,-0.019763192,-0.04132146,-0.06383858,-0.08081714,0.07609744,-1.0,1.0,-1.0,1.0,1.0,-1.0,-1.0,-1.0,-1.0,1.0,-1.0,-1.0,1.0,-1.0,-1.0,1.0,1.0,-1.0,-1.0,-1.0,-1.0,1.0,-1.0,-1.0
2025-06-04 11:52:39.281,-0.101531565,-0.05395405,-0.08213423,0.11752127,0.028926052,0.0048294747,0.0,0.0,0.0,0.010878832,0.0074860305,-0.2873383,-0.22658391,0.118017085,0.37201908,-0.1955034,-0.07948793,-0.44485074,-0.21605156,0.10009438,-0.4628182,-0.20695277,-0.00951772,-0.12583317,0.10303983,-0.089293964,0.054173753,-0.0051680943,0.006907622,-0.06299471,-0.08015604,0.036837433,-0.03228758,0.11342204,1.0,-1.0,-1.0,1.0,1.0,-1.0,-1.0,-1.0,-1.0,1.0,-1.0,-1.0,1.0,-1.0,-1.0,1.0,1.0,-1.0,-1.0,-1.0,-1.0,1.0,-1.0,-1.0
2025-06-04 11:52:39.302,-0.02269372,0.10947561,-0.11004977,0.113639005,0.046219844,-0.0478149,0.0,0.0,0.0,0.011899009,0.03210917,-0.3123208,-0.2286413,0.11590443,0.3899196,-0.190621,-0.09161366,-0.4616726,-0.21849982,0.10459964,-0.456498,-0.18396482,-0.0039009382,-0.07865425,-0.092046775,-0.0414509,0.08916227,0.015883585,0.008228679,-0.018457247,0.03710334,0.0043810424,-0.06311203,0.07145053,1.0,-1.0,-1.0,1.0,1.0,-1.0,-1.0,-1.0,-1.0,1.0,-1.0,-1.0,-1.0,1.0,-1.0,1.0,1.0,-1.0,-1.0,-1.0,-1.0,1.0,-1.0,-1.0
2025-06-04 11:52:39.321,0.12402518,-0.0026534072,0.043642387,0.07421719,0.012147146,0.0022674634,0.0,0.0,0.0,0.013235181,0.024536045,-0.27058017,-0.23791744,0.11163132,0.39306056,-0.1827045,-0.076268435,-0.4553056,-0.217353,0.0997241,-0.45733678,-0.1607832,0.009778576,0.062418845,-0.10243763,-0.04518949,-0.02383439,0.07445546,-0.008905619,-0.04594347,-0.030347303,-0.028053986,-0.0123646725,-0.014781731,-1.0,1.0,-1.0,1.0,1.0,-1.0,-1.0,-1.0,-1.0,1.0,-1.0,-1.0,1.0,-1.0,-1.0,1.0,1.0,-1.0,-1.0,-1.0,-1.0,1.0,-1.0,-1.0
2025-06-04 11:52:39.341,-0.020291384,0.018667793,0.010360051,0.11258923,0.010138337,0.01581851,0.0,0.0,0.0,0.013606115,0.012886344,-0.29581898,-0.2143393,0.10524029,0.4205861,-0.18385288,-0.087916024,-0.4447969,-0.23272334,0.099081926,-0.4534111,-0.15911202,0.07533878,-0.10186068,0.0702123,0.060037274,0.005447712,0.015179116,0.0052072224,0.01895836,-0.071088634,0.06781841,-0.03740609,0.0039810766,1.0,-1.0,-1.0,1.0,1.0,-1.0,-1.0,-1.0,-1.0,1.0,-1.0,-1.0,1.0,-1.0,-1.0,1.0,1.0,-1.0,-1.0,-1.0,-1.0,1.0,-1.0,-1.0
2025-06-04 11:52:39.361,-0.0695416,0.0037469333,-0.042634085,0.12316388,0.07011117,0.034989662,0.0,0.0,0.0,0.013745984,0.016991751,-0.3185606,-0.2024507,0.09699156,0.41877916,-0.1928134,-0.08650858,-0.4618075,-0.23031382,0.11545156,-0.4722011,-0.1436777,0.05082707,-0.048731994,0.044676144,0.045024347,0.048786037,-0.03850749,0.06757745,-0.04615927,0.029049862,0.022562714,-0.06221989,-0.005950512,1.0,-1.0,-1.0,1.0,1.0,-1.0,-1.0,-1.0,-1.0,1.0,-1.0,-1.0,1.0,-1.0,-1.0,1.0,1.0,-1.0,-1.0,-1.0,-1.0,1.0,-1.0,-1.0
2025-06-04 11:52:39.381,-0.0003168154,0.069539696,0.025438312,0.04452761,0.0424052,0.018136742,0.0,0.0,0.0,0.014392017,0.019965824,-0.32223302,-0.19536398,0.10517398,0.42877227,-0.1977212,-0.089232884,-0.46065837,-0.21791206,0.10363119,-0.47963032,-0.14873154,0.06737163,-0.0028969701,-0.0334425,0.043878745,0.054495953,0.039463554,-0.02575727,-0.05713997,-0.055031907,-0.0323545,0.04975294,-0.04453082,1.0,-1.0,-1.0,1.0,1.0,-1.0,-1.0,-1.0,-1.0,1.0,-1.0,-1.0,1.0,-1.0,-1.0,1.0,1.0,-1.0,-1.0,-1.0,-1.0,1.0,-1.0,-1.0
2025-06-04 11:52:39.404,-0.013550961,0.06313389,0.043914206,0.07789812,0.007541972,0.01600131,0.0,0.0,0.0,0.014884413,0.027101887,-0.33947876,-0.1812089,0.10646416,0.42728204,-0.19290677,-0.086044766,-0.47889283,-0.21462464,0.12403413,-0.46702302,-0.13852422,-0.04982771,-0.0935153,-0.048604824,0.07275892,-0.008227445,0.06476213,0.053762656,-0.011066258,0.05447892,0.035072062,0.0367069,0.07391143,1.0,-1.0,-1.0,1.0,1.0,-1.0,-1.0,-1.0,-1.0,1.0,-1.0,-1.0,1.0,-1.0,-1.0,1.0,1.0,-1.0,-1.0,-1.0,-1.0,1.0,-1.0,-1.0
2025-06-04 11:52:39.421,0.05238814,0.07891028,0.018989703,0.058918152,0.06255438,0.015306013,0.0,0.0,0.0,0.015001118,0.021688879,-0.35989493,-0.18063673,0.09799711,0.44247666,-0.18968475,-0.07854361,-0.48770615,-0.20949781,0.112151295,-0.47187692,-0.14796637,-0.018094635,-0.09963531,-0.04907005,-0.009633101,-0.073211044,-0.020504525,-0.040982135,0.006074747,0.062944256,0.00011673133,0.0076041874,0.03452383,1.0,-1.0,-1.0,1.0,1.0,-1.0,-1.0,-1.0,-1.0,1.0,-1.0,-1.0,1.0,-1.0,-1.0,1.0,1.0,-1.0,-1.0,-1.0,-1.0,1.0,-1.0,-1.0
2025-06-04 11:52:39.441,0.035731938,0.06736748,0.056121375,0.049067482,-0.009966766,0.040366884,0.0,0.0,0.0,0.01480908,0.02809037,-0.36708742,-0.17663135,0.10614252,0.42295298,-0.17300256,-0.090529114,-0.48307025,-0.21184419,0.11134781,-0.4735036,-0.13903952,-0.0020884967,-0.05343498,-0.017602311,0.016863177,0.00086595473,0.055112626,-0.05323975,0.019429704,0.0049929675,-0.04584249,0.007516164,0.04877895,1.0,-1.0,-1.0,1.0,1.0,-1.0,-1.0,-1.0,-1.0,1.0,-1.0,-1.0,1.0,-1.0,-1.0,1.0,1.0,-1.0,-1.0,-1.0,-1.0,1.0,-1.0,-1.0
2025-06-04 11:52:39.461,0.006035184,0.011680905,-0.0062068864,0.100140974,0.020651478,-0.0161926,0.0,0.0,0.0,0.014386587,0.024451844,-0.38852325,-0.1569946,0.10418934,0.4377879,-0.18127576,-0.08279779,-0.5022778,-0.20334537,0.12113518,-0.46876714,-0.14336717,-0.02876025,-0.058260117,0.006664097,-0.043911837,-0.078002565,0.013414961,0.07005108,-0.036935285,-0.04335646,-0.0035188182,0.006004884,-0.083366305,1.0,-1.0,-1.0,1.0,1.0,-1.0,-1.0,-1.0,-1.0,1.0,-1.0,-1.0,1.0,-1.0,-1.0,1.0,1.0,-1.0,-1.0,-1.0,-1.0,1.0,-1.0,-1.0
2025-06-04 11:52:39.481,0.01642784,0.09319627,0.050177854,0.11061453,0.029768549,-0.029801307,0.0,0.0,0.0,0.0138448225,0.03622485,-0.3878558,-0.15169,0.10728391,0.42861724,-0.17332196,-0.094778694,-0.51154566,-0.2024689,0.10979859,-0.46798334,-0.1690722,0.029180989,-0.06654632,0.043655954,0.052572563,-0.014697161,0.04383572,-0.053646598,0.021125235,0.04100922,-0.046907846,-0.072692394,-0.0789302,1.0,-1.0,-1.0,1.0,1.0,-1.0,-1.0,-1.0,-1.0,1.0,-1.0,-1.0,1.0,-1.0,-1.0,1.0,1.0,-1.0,-1.0,-1.0,-1.0,1.0,-1.0,-1.0
2025-06-04 11:52:39.502,0.00919269,0.02160294,0.06173713,0.11226595,0.038818344,-0.009998421,0.0,0.0,0.0,0.013276788,0.042938117,-0.40436512,-0.15397699,0.12422205,0.43241873,-0.16666767,-0.09102501,-0.510857,-0.20429917,0.10882413,-0.47188112,-0.17122895,0.061513282,-0.03235924,0.060758047,0.030193578,-0.079352126,0.06524357,-0.015127025,-0.04035188,-0.030496573,0.065509334,-0.0008028915,0.0121697765,1.0,-1.0,-1.0,1.0,1.0,-1.0,-1.0,-1.0,-1.0,1.0,-1.0,-1.0,1.0,-1.0,-1.0,1.0,1.0,-1.0,-1.0,-1.0,-1.0,1.0,-1.0,-1.0
2025-06-04 11:52:39.521,0.022537442,0.037389904,0.04121245,0.028884092,0.009093604,-0.040775307,0.0,0.0,0.0,0.012735356,0.034809843,-0.42868772,-0.15960705,0.13352838,0.41618162,-0.18109229,-0.09522854,-0.50930965,-0.21254377,0.113152355,-0.48466495,-0.1752489,-0.022970704,0.030952854,-0.0027092712,0.055637382,0.067413226,-0.020828908,-0.025880134,-0.043238647,0.037877474,-0.024131535,-0.05000323,-0.03234264,1.0,-1.0,-1.0,1.0,1.0,-1.0,-1.0,-1.0,-1.0,1.0,-1.0,-1.0,1.0,-1.0,-1.0,1.0,1.0,-1.0,-1.0,-1.0,-1.0,1.0,-1.0,-1.0
2025-06-04 11:52:39.542,0.0004968129,0.09414784,0.02061324,0.08481753,0.02465336,-0.017191337,0.0,0.0,0.0,0.012227174,0.048088886,-0.42817602,-0.14910139,0.12233974,0.41789275,-0.16179557,-0.08443007,-0.529295,-0.21295269,0.120444134,-0.48751557,-0.19121167,-0.028903326,0.011506593,0.043234766,0.07908352,-0.071772315,0.04040588,0.0023125447,-0.049230587,0.046092015,0.012267386,0.053221963,-0.098187566,1.0,-1.0,-1.0,1.0,1.0,-1.0,-1.0,-1.0,-1.0,1.0,-1.0,-1.0,1.0,-1.0,-1.0,1.0,1.0,-1.0,-1.0,-1.0,-1.0,1.0,-1.0,-1.0
2025-06-04 11:52:39.561,0.06762931,0.059159085,0.006262491,0.08114667,0.022743862,0.0155701665,0.0,0.0,0.0,0.011756932,0.04879338,-0.43391398,-0.14587955,0.12515642,0.4131928,-0.16413526,-0.08650523,-0.5408155,-0.21586882,0.10654935,-0.4849156,-0.20858632,0.06290047,-0.07285169,-0.061778676,0.021551218,0.04734267,0.027565785,0.07057024,-0.036865015,-0.03428908,-0.06535744,0.03519498,-0.026883205,1.0,-1.0,-1.0,1.0,1.0,-1.0,-1.0,-1.0,-1.0,1.0,-1.0,-1.0,1.0,-1.0,-1.0,1.0,1.0,-1.0,-1.0,-1.0,-1.0,1.0,-1.0,-1.0
2025-06-04 11:52:39.584,0.06673888,0.00345409,0.0036635345,0.1133233,-0.023445902,0.040938444,0.0,0.0,0.0,0.011331899,0.042474058,-0.45559937,-0.1498773,0.13917927,0.41759753,-0.1676618,-0.08879289,-0.53404427,-0.22664966,0.12408046,-0.485718,-0.20427933,0.024665058,-0.044822726,-0.020537175,-0.031102106,-0.044193525,-0.05483722,-0.07664644,-0.016997248,-0.0029819265,0.029829115,0.04764496,0.045794204,1.0,-1.0,-1.0,1.0,1.0,-1.0,-1.0,-1.0,-1.0,1.0,-1.0,-1.0,1.0,-1.0,-1.0,1.0,1.0,-1.0,-1.0,-1.0,-1.0,1.0,-1.0,-1.0
2025-06-04 11:52:39.603,0.061751336,0.009323078,0.0117447395,0.0944481,-0.03674517,-0.030299397,0.0,0.0,0.0,0.010958702,0.05564568,-0.4585457,-0.13824886,0.1361481,0.42274973,-0.1651896,-0.092898,-0.55093557,-0.22366743,0.1144165,-0.48391297,-0.21272562,-0.0019814821,-0.0023284531,0.027947193,-0.058064472,-0.0042012325,-0.01111732,-0.05215058,-0.02681864,0.06574784,0.028417809,0.06665944,-0.019821113,1.0,-1.0,-1.0,1.0,1.0,-1.0,-1.0,-1.0,-1.0,1.0,-1.0,-1.0,1.0,-1.0,-1.0,1.0,1.0,-1.0,-1.0,-1.0,-1.0,1.0,-1.0,-1.0
2025-06-04 11:52:39.622,0.0014363062,0.023560759,0.01500773,0.0738505,0.02610031,0.0022107786,0.0,0.0,0.0,0.0106413765,0.040489543,-0.47763637,-0.14518993,0.14742264,0.41785368,-0.15476395,-0.09342047,-0.5491727,-0.22141431,0.11597207,-0.486457,-0.22038934,-0.013295036,-0.014827659,-0.008778368,-0.016878081,0.04585066,0.004006309,-0.0380986,-0.059336554,-0.08055914,-0.07329713,0.030480888,0.008953756,1.0,-1.0,-1.0,1.0,1.0,-1.0,-1.0,-1.0,-1.0,1.0,-1.0,-1.0,1.0,-1.0,-1.0,1.0,1.0,-1.0,-1.0,-1.0,-1.0,1.0,-1.0,-1.0
2025-06-04 11:52:39.642,0.03869565,2.5152729e-05,-0.0014913689,0.042802185,-0.033689365,-0.0062129274,0.0,0.0,0.0,0.010380271,0.054249816,-0.4693015,-0.13465782,0.13676243,0.42006728,-0.16206397,-0.09132489,-0.54492307,-0.22414318,0.11700909,-0.4861047,-0.24419926,-0.06979689,0.037482284,0.043135494,0.037173443,0.020569963,0.05603763,-0.035625488,-0.03488992,0.027386313,-0.0614143,-0.030818172,0.011303602,1.0,-1.0,-1.0,1.0,1.0,-1.0,-1.0,-1.0,-1.0,1.0,-1.0,-1.0,1.0,-1.0,-1.0,1.0,1.0,-1.0,-1.0,-1.0,-1.0,1.0,-1.0,-1.0
2025-06-04 11:52:39.662,0.060590357,0.0282256,-0.030477827,0.06231619,0.02066425,-0.038986024,0.0,0.0,0.0,0.010172534,0.05911684,-0.49278656,-0.14565483,0.15789646,0.40684366,-0.16271983,-0.08347884,-0.55826634,-0.23198727,0.109858744,-0.4917975,-0.23241551,-0.013796647,-0.0066438536,0.034989256,0.05891155,0.027468562,0.040381946,-0.027721664,0.004934031,-0.013967184,0.036316447,0.069993906,0.055752475,1.0,-1.0,-1.0,1.0,1.0,-1.0,-1.0,-1.0,-1.0,1.0,-1.0,-1.0,1.0,-1.0,-1.0,1.0,1.0,-1.0,-1.0,-1.0,-1.0,1.0,-1.0,-1.0
2025-06-04 11:52:39.686,0.028856993,0.038989354,-0.036854144,0.053793214,-0.058808252,0.03661048,0.0,0.0,0.0,0.010013457,0.051525526,-0.49283886,-0.13483258,0.15962371,0.40594333,-0.157175,-0.08167975,-0.559244,-0.24462573,0.109053135,-0.49404997,-0.24755608,-0.024349611,0.005857159,-0.054107998,-0.023089755,-0.028414158,-0.020939188,-0.012094518,-0.024320483,0.042428184,0.0328385,-0.055958405,-0.015962949,1.0,-1.0,-1.0,1.0,1.0,-1.0,-1.0,-1.0,-1.0,1.0,-1.0,-1.0,1.0,-1.0,-1.0,1.0,1.0,-1.0,-1.0,-1.0,-1.0,1.0,-1.0,-1.0
2025-06-04 11:52:39.703,-0.029261237,0.033994205,-0.031499445,0.031559203,-0.06927645,-0.022246504,0.0,0.0,0.0,0.009897617,0.046839423,-0.49056932,-0.1338006,0.15756655,0.4134886,-0.15994011,-0.08541296,-0.55092615,-0.24614216,0.11794963,-0.48834547,-0.2417466,-0.07270993,0.058897782,0.028723273,0.042857647,-0.032712404,-0.026676334,-0.027833872,0.042929836,-0.045387127,0.063139,0.023695525,-0.04036415,1.0,-1.0,-1.0,1.0,1.0,-1.0,-1.0,-1.0,-1.0,1.0,-1.0,-1.0,1.0,-1.0,-1.0,1.0,1.0,-1.0,-1.0,-1.0,-1.0,1.0,-1.0,-1.0
2025-06-04 11:52:39.722,0.052028205,-0.042249106,0.04480182,0.045531165,-0.07029524,-0.04495166,0.0,0.0,0.0,0.0098194685,0.04979628,-0.49482006,-0.1428573,0.15903865,0.42146397,-0.15855095,-0.091084935,-0.55542964,-0.23570973,0.106174216,-0.49410835,-0.25624618,-0.045050543,-0.03853852,0.07048911,0.03323781,0.05285301,0.03247655,0.049304985,-0.012593198,0.0025540947,0.032956623,-0.06414085,-0.066875234,1.0,-1.0,-1.0,1.0,1.0,-1.0,-1.0,-1.0,-1.0,1.0,-1.0,-1.0,1.0,-1.0,-1.0,1.0,1.0,-1.0,-1.0,-1.0,-1.0,1.0,-1.0,-1.0
2025-06-04 11:52:39.742,0.0094318,-0.004902172,0.011542227,0.105060056,0.021681383,-0.04370182,0.0,0.0,0.0,0.009773557,0.049123894,-0.5069697,-0.13437171,0.14461853,0.41207144,-0.14793546,-0.09836524,-0.5672183,-0.24619316,0.11804078,-0.5009845,-0.26012906,0.023593128,-0.030859718,-0.05644621,0.06810577,-0.059248354,-0.065228425,-0.07588799,-0.00634527,-0.07371687,-0.024627315,0.05605066,-0.012728829,1.0,-1.0,-1.0,1.0,1.0,-1.0,-1.0,-1.0,-1.0,1.0,-1.0,-1.0,1.0,-1.0,-1.0,1.0,1.0,-1.0,-1.0,-1.0,-1.0,1.0,-1.0,-1.0
2025-06-04 11:52:39.763,-0.02814776,-0.03860274,0.018426621,0.070163175,-0.012918255,0.044885937,0.0,0.0,0.0,0.009754589,0.052822933,-0.51306915,-0.13272697,0.14858495,0.41757983,-0.14459097,-0.09647736,-0.5622521,-0.24115722,0.11805363,-0.49447024,-0.2532746,-0.049479306,-0.025878374,0.05129793,0.035953827,0.041836467,0.02159598,0.053648617,0.013324194,-0.043620918,-0.046080552,-0.04095724,0.018997062,1.0,-1.0,-1.0,1.0,1.0,-1.0,-1.0,-1.0,-1.0,1.0,-1.0,-1.0,1.0,-1.0,-1.0,1.0,1.0,-1.0,-1.0,-1.0,-1.0,1.0,-1.0,-1.0
2025-06-04 11:52:39.785,-0.039529413,-0.01283658,-0.04431967,0.09368332,-0.017884294,0.03680905,0.0,0.0,0.0,0.009757503,0.06298037,-0.5163067,-0.13003096,0.14560829,0.42232612,-0.15018402,-0.094159596,-0.5715434,-0.23832291,0.114371546,-0.49963343,-0.2578093,0.07389238,-0.066945955,-0.019587684,-0.02981476,0.016367353,0.04490972,0.05855326,-0.04189668,-0.06840815,0.023412207,-0.005517729,-0.03990541,1.0,-1.0,-1.0,1.0,1.0,-1.0,-1.0,-1.0,-1.0,1.0,-1.0,-1.0,1.0,-1.0,-1.0,1.0,1.0,-1.0,-1.0,-1.0,-1.0,1.0,-1.0,-1.0
2025-06-04 11:52:39.803,-0.009376906,0.036963984,0.037813954,0.091087736,0.026398273,0.03151135,0.0,0.0,0.0,0.0097775925,0.048280798,-0.5017029,-0.1428857,0.16384596,0.43524942,-0.1583458,-0.10265763,-0.57289994,-0.24976695,0.11513867,-0.5042131,-0.25363234,-0.01920443,-0.03182432,-0.032822426,-0.06828249,-0.06491364,0.037877686,0.030357247,-0.067466944,0.0006726188,-0.07129222,-0.0050006374,-0.07190352,1.0,-1.0,-1.0,1.0,1.0,-1.0,-1.0,-1.0,-1.0,1.0,-1.0,-1.0,1.0,-1.0,-1.0,1.0,1.0,-1.0,-1.0,-1.0,-1.0,1.0,-1.0,-1.0
2025-06-04 11:52:39.823,0.017849643,0.039595935,0.043455523,0.10425114,-0.020132935,-0.02038966,0.0,0.0,0.0,0.009810614,0.06086869,-0.5166321,-0.13608234,0.1577198,0.43642762,-0.15108067,-0.10274691,-0.5616167,-0.24796523,0.112619616,-0.50740623,-0.2624166,-0.042946823,0.009876341,-0.03711816,0.0481411,0.019229447,-0.016938064,0.061106168,0.05460604,0.010979536,-0.049093608,-0.034676798,-0.049120497,1.0,-1.0,-1.0,1.0,1.0,-1.0,-1.0,-1.0,-1.0,1.0,-1.0,-1.0,1.0,-1.0,-1.0,1.0,1.0,-1.0,-1.0,-1.0,-1.0,1.0,-1.0,-1.0
2025-06-04 11:52:39.843,0.05431127,0.03315337,-0.0051235813,0.07264507,-0.039574586,0.02548892,0.0,0.0,0.0,0.009852869,0.05990526,-0.5062774,-0.14415017,0.14926675,0.43395647,-0.15121463,-0.08660831,-0.56249154,-0.25877953,0.10798862,-0.49565965,-0.26535323,0.025353948,0.009049666,0.06461622,-0.021291101,-0.025060244,-0.042806007,0.018008707,-0.0005712699,0.060051594,0.046679605,0.029155713,0.0039641852,1.0,-1.0,-1.0,1.0,1.0,-1.0,-1.0,-1.0,-1.0,1.0,-1.0,-1.0,1.0,-1.0,-1.0,1.0,1.0,-1.0,-1.0,-1.0,-1.0,1.0,-1.0,-1.0
2025-06-04 11:52:39.863,0.0089104185,-0.033623077,0.005472794,0.05729021,-0.04311242,-0.036296736,0.0,0.0,0.0,0.009902328,0.049548354,-0.51013434,-0.14025767,0.16226356,0.43017477,-0.13616532,-0.08940474,-0.5674121,-0.25569418,0.115521476,-0.5095586,-0.25169212,0.00079179,-0.05581253,0.06222377,0.068269975,0.031846076,-0.05016179,0.014291241,-0.061938945,-0.024298627,-0.056947548,-0.044243637,-0.064099275,1.0,-1.0,-1.0,1.0,1.0,-1.0,-1.0,-1.0,-1.0,1.0,-1.0,-1.0,1.0,-1.0,-1.0,1.0,1.0,-1.0,-1.0,-1.0,-1.0,1.0,-1.0,-1.0
2025-06-04 11:52:39.884,0.003106707,-0.007914121,0.022971075,0.087248884,-0.016439026,-0.03630714,0.0,0.0,0.0,0.009959376,0.051373936,-0.5242116,-0.1320371,0.15847862,0.44220287,-0.13863827,-0.0846974,-0.577129,-0.24935764,0.114630684,-0.51141137,-0.25779513,0.0025676542,0.054648988,0.03417306,0.048828334,0.001954838,0.00561337,-0.006071213,0.004735842,0.061448608,-0.05935181,-0.061158843,-0.025377184,1.0,-1.0,-1.0,1.0,1.0,-1.0,-1.0,-1.0,-1.0,1.0,-1.0,-1.0,1.0,-1.0,-1.0,1.0,1.0,-1.0,-1.0,-1.0,-1.0,1.0,-1.0,-1.0
2025-06-04 11:52:39.904,0.008631825,0.042594388,-0.043939125,0.06602548,-0.029355781,0.043971483,0.0,0.0,0.0,0.01002238,0.048844784,-0.523635,-0.1445332,0.15751918,0.44406977,-0.1449973,-0.10195303,-0.5625206,-0.25527796,0.114456244,-0.5182,-0.2645774,0.052029997,0.06425654,0.009086889,0.0195127,0.028914724,-0.028681966,0.07202855,-0.0066699306,-0.077777445,0.04817794,-0.012801112,-0.049725056,1.0,-1.0,-1.0,1.0,1.0,-1.0,-1.0,-1.0,-1.0,1.0,-1.0,-1.0,1.0,-1.0,-1.0,1.0,1.0,-1.0,-1.0,-1.0,-1.0,1.0,-1.0,-1.0
2025-06-04 11:52:39.926,-0.016339658,0.027441958,-0.011288921,0.07428696,-0.011691141,-0.04457489,0.0,0.0,0.0,0.010088035,0.04513302,-0.507651,-0.15086211,0.15223593,0.444057,-0.14865036,-0.09379646,-0.56443816,-0.25499284,0.12083712,-0.5154114,-0.264089,0.053772435,0.011941179,0.04295227,0.06349943,0.028520958,-0.01638817,0.027918234,-0.023493333,-0.019453624,0.0077519333,-0.0042100055,0.02816137,1.0,-1.0,-1.0,1.0,1.0,-1.0,-1.0,-1.0,-1.0,1.0,-1.0,-1.0,1.0,-1.0,-1.0,1.0,1.0,-1.0,-1.0,-1.0,-1.0,1.0,-1.0,-1.0
2025-06-04 11:52:39.943,-0.025678094,-0.009573241,0.028431438,0.0090831565,-0.036924858,0.030188305,0.0,0.0,0.0,0.010152878,0.04696482,-0.52511716,-0.14632343,0.15520617,0.4500908,-0.152654,-0.10022306,-0.57303005,-0.24754643,0.12018353,-0.5117631,-0.2660021,-0.057348453,-0.009036281,-0.06740331,0.028271912,0.07754249,-0.05575224,-0.031772133,-0.03579408,-0.033218402,-0.05646179,-0.04178168,0.046835694,1.0,-1.0,-1.0,1.0,1.0,-1.0,-1.0,-1.0,-1.0,1.0,-1.0,-1.0,1.0,-1.0,-1.0,1.0,1.0,-1.0,-1.0,-1.0,-1.0,1.0,-1.0,-1.0
2025-06-04 11:52:39.964,-0.011874075,-0.03925019,-0.020604849,0.020274665,-0.010270911,-0.009367966,0.0,0.0,0.0,0.010214225,0.043727104,-0.5123475,-0.14554845,0.14569406,0.4390832,-0.13319616,-0.08726049,-0.5706005,-0.26572803,0.123554036,-0.51797056,-0.25072613,0.04203547,0.0053557446,0.043451343,-0.0081047015,-0.036226436,0.07106112,0.05449482,-0.054103818,-0.07489434,0.06813224,-0.0114966985,-0.051503893,1.0,-1.0,-1.0,1.0,1.0,-1.0,-1.0,-1.0,-1.0,1.0,-1.0,-1.0,1.0,-1.0,-1.0,1.0,1.0,-1.0,-1.0,-1.0,-1.0,1.0,-1.0,-1.0
2025-06-04 11:52:39.985,0.016933117,-0.0163597,-0.0030299362,0.021963133,-0.029207848,-0.007223687,0.0,0.0,0.0,0.010270471,0.045937046,-0.5191715,-0.14756373,0.15622684,0.44897413,-0.13451089,-0.09027645,-0.56693465,-0.25743577,0.12479666,-0.5124954,-0.26616475,0.06832834,0.027119359,0.0037640736,-0.029938288,0.047577288,-0.026872644,0.0015431507,-0.04711482,0.007244933,0.031953245,-0.01622691,-0.03598109,1.0,-1.0,-1.0,1.0,1.0,-1.0,-1.0,-1.0,-1.0,1.0,-1.0,-1.0,1.0,-1.0,-1.0,1.0,1.0,-1.0,-1.0,-1.0,-1.0,1.0,-1.0,-1.0
2025-06-04 11:52:40.004,0.01716399,0.008094153,-0.045905948,0.09045229,-0.055181626,0.037339866,0.0,0.0,0.0,0.010320964,0.06115452,-0.5259598,-0.15068737,0.15079246,0.44720808,-0.14643532,-0.10314351,-0.57690746,-0.2627739,0.12041027,-0.52098405,-0.2604286,0.064549066,-0.019393483,0.027509337,0.030352525,0.07589403,-0.06618087,-0.017052203,0.055412676,0.07126938,-0.015243843,-0.0643468,0.046121255,1.0,-1.0,-1.0,1.0,1.0,-1.0,-1.0,-1.0,-1.0,1.0,-1.0,-1.0,1.0,-1.0,-1.0,1.0,1.0,-1.0,-1.0,-1.0,-1.0,1.0,-1.0,-1.0
2025-06-04 11:52:40.024,-0.031648226,-0.036313206,-0.003189145,0.04278228,0.02992829,-0.039028365,0.0,0.0,0.0,0.0103657115,0.059227496,-0.51531065,-0.13782607,0.15026625,0.4578667,-0.14569554,-0.096780516,-0.5667501,-0.25570256,0.124121554,-0.51575106,-0.2573032,0.031129451,0.008975954,0.044730376,0.059443787,-0.016682183,0.011523241,0.026469925,0.040574774,-0.000115703995,-0.06679077,-0.021266237,0.0007040464,1.0,-1.0,-1.0,1.0,1.0,-1.0,-1.0,-1.0,-1.0,1.0,-1.0,-1.0,1.0,-1.0,-1.0,1.0,1.0,-1.0,-1.0,-1.0,-1.0,1.0,-1.0,-1.0
2025-06-04 11:52:40.044,-0.005498333,-0.05019163,0.046642806,0.081587404,-0.0071674446,-0.0067715407,0.0,0.0,0.0,0.010405064,0.049428068,-0.5304032,-0.14638552,0.15468916,0.45895267,-0.13831933,-0.08878503,-0.5693266,-0.25851032,0.115070924,-0.5155412,-0.2501716,-5.4679662e-05,-0.042976603,0.055838905,0.074683115,0.02030524,-0.062104404,0.06616899,0.026665738,0.050810862,0.02365593,0.03997357,0.073145695,1.0,-1.0,-1.0,1.0,1.0,-1.0,-1.0,-1.0,-1.0,1.0,-1.0,-1.0,1.0,-1.0,-1.0,1.0,1.0,-1.0,-1.0,-1.0,-1.0,1.0,-1.0,-1.0
2025-06-04 11:52:40.064,0.047651935,-0.011760519,0.033573054,0.019466944,-0.028670346,-0.029084213,0.0,0.0,0.0,0.010439502,0.05931246,-0.51568884,-0.1416635,0.15503803,0.45233607,-0.1488771,-0.10257462,-0.5789723,-0.25175652,0.11359387,-0.51405865,-0.26223335,-0.04638523,0.044521313,-0.043864165,-0.06810696,0.027994774,0.021990996,-0.0027826095,-0.029982883,-0.06331366,0.042331763,0.028391166,-0.018613525,1.0,-1.0,-1.0,1.0,1.0,-1.0,-1.0,-1.0,-1.0,1.0,-1.0,-1.0,1.0,-1.0,-1.0,1.0,1.0,-1.0,-1.0,-1.0,-1.0,1.0,-1.0,-1.0
2025-06-04 11:52:40.085,-0.024760732,-0.022524549,-0.0013221924,0.04388222,-0.026011707,0.0037493878,0.0,0.0,0.0,0.01046952,0.048548583,-0.5296088,-0.1481063,0.15964898,0.44878635,-0.13271035,-0.09623643,-0.56176203,-0.26733103,0.1095902,-0.5146227,-0.25182092,0.01024098,0.071455464,-0.0023144668,-0.07346092,0.035534225,-0.021660855,-0.020153375,0.07349351,-0.06890155,0.051068246,-0.019311333,-0.071766324,1.0,-1.0,-1.0,1.0,1.0,-1.0,-1.0,-1.0,-1.0,1.0,-1.0,-1.0,1.0,-1.0,-1.0,1.0,1.0,-1.0,-1.0,-1.0,-1.0,1.0,-1.0,-1.0
2025-06-04 11:52:40.104,-0.022722045,-0.025601745,0.003142796,0.062040303,-0.024757419,0.034004375,0.0,0.0,0.0,0.010495588,0.047563966,-0.5302814,-0.14498486,0.15106985,0.4538822,-0.14744894,-0.10212048,-0.56210935,-0.25056592,0.112683326,-0.51714116,-0.2532377,-0.044125002,-0.06776734,-0.06751533,-0.04053965,-0.07258683,0.043684453,0.04372532,0.012920472,-0.0042202286,0.0415312,0.059315454,0.017715413,1.0,-1.0,-1.0,1.0,1.0,-1.0,-1.0,-1.0,-1.0,1.0,-1.0,-1.0,1.0,-1.0,-1.0,1.0,1.0,-1.0,-1.0,-1.0,-1.0,1.0,-1.0,-1.0
2025-06-04 11:52:40.124,0.030391278,0.029965416,-0.01954298,0.032852303,-0.016662592,0.043570206,0.0,0.0,0.0,0.010518143,0.042824484,-0.51536304,-0.13727586,0.156694,0.4440967,-0.13896684,-0.084612794,-0.56852806,-0.25337815,0.11634755,-0.504279,-0.24963664,0.017361268,-0.06616953,-0.03144615,-0.0044130106,-0.04412125,-0.05310899,-0.03637831,0.01113009,-0.056916002,-0.05994685,-0.051560335,0.045976713,1.0,-1.0,-1.0,1.0,1.0,-1.0,-1.0,-1.0,-1.0,1.0,-1.0,-1.0,1.0,-1.0,-1.0,1.0,1.0,-1.0,-1.0,-1.0,-1.0,1.0,-1.0,-1.0
2025-06-04 11:52:40.144,-0.0029492965,0.020660661,-0.049608804,0.066670746,-0.037620924,-0.04419816,0.0,0.0,0.0,0.010537588,0.058716774,-0.525058,-0.13145642,0.15391149,0.45037958,-0.13643149,-0.09849262,-0.5771727,-0.25397298,0.12029643,-0.51813924,-0.2623201,-0.03597995,0.013217772,-0.06431089,0.06103077,-0.0606443,0.07143649,-0.064085715,0.053179003,0.041926824,0.056999106,0.06747557,0.027404726,1.0,-1.0,-1.0,1.0,1.0,-1.0,-1.0,-1.0,-1.0,1.0,-1.0,-1.0,1.0,-1.0,-1.0,1.0,1.0,-1.0,-1.0,-1.0,-1.0,1.0,-1.0,-1.0
2025-06-04 11:52:40.165,0.033008676,0.0008478226,0.020953335,0.07367492,-0.029240455,0.04212808,0.0,0.0,0.0,0.0105543,0.06059435,-0.5187637,-0.14763041,0.15516183,0.44609752,-0.13382436,-0.10010586,-0.5671201,-0.26714355,0.115654215,-0.5134013,-0.25221184,-0.0015700562,0.07153804,0.009615738,0.021295348,0.019516066,0.070286945,0.028035881,0.054715514,0.05950575,0.024035381,-0.031778283,-0.028683227,1.0,-1.0,-1.0,1.0,1.0,-1.0,-1.0,-1.0,-1.0,1.0,-1.0,-1.0,1.0,-1.0,-1.0,1.0,1.0,-1.0,-1.0,-1.0,-1.0,1.0,-1.0,-1.0
2025-06-04 11:52:40.185,0.040492103,-0.036805052,0.021752987,0.09344468,-0.010241684,-0.008715455,0.0,0.0,0.0,0.010568618,0.04904878,-0.5259827,-0.13351531,0.14558344,0.45237112,-0.14876732,-0.086496316,-0.57534033,-0.26846057,0.11804609,-0.51154166,-0.2564101,-0.060869444,-0.07093126,-0.004706377,0.057931002,0.03282599,-0.031106228,0.008510996,-0.04237219,-0.01907471,-0.052111186,-0.04416911,-0.051960584,1.0,-1.0,-1.0,1.0,1.0,-1.0,-1.0,-1.0,-1.0,1.0,-1.0,-1.0,1.0,-1.0,-1.0,1.0,1.0,-1.0,-1.0,-1.0,-1.0,1.0,-1.0,-1.0
2025-06-04 11:52:40.205,0.032034907,0.022626415,0.039364327,0.08693137,0.015121228,-0.005894241,0.0,0.0,0.0,0.010580851,0.058653954,-0.52206,-0.13953194,0.1600194,0.4525466,-0.14039667,-0.08893728,-0.57524073,-0.25909507,0.12126219,-0.52100664,-0.26412547,-0.038261153,0.005750591,-0.07280647,0.07420641,0.06601372,-0.04000933,-0.074839614,-0.029745786,-0.02112577,0.06752174,0.059401363,-0.072499126,1.0,-1.0,-1.0,1.0,1.0,-1.0,-1.0,-1.0,-1.0,1.0,-1.0,-1.0,1.0,-1.0,-1.0,1.0,1.0,-1.0,-1.0,-1.0,-1.0,1.0,-1.0,-1.0
2025-06-04 11:52:40.225,0.04640714,-0.012464357,-0.045558427,0.06693145,-0.0023708004,-0.0028710102,0.0,0.0,0.0,0.010591267,0.041482057,-0.51760894,-0.14587094,0.16014726,0.44541445,-0.1366956,-0.09868601,-0.57630825,-0.25557223,0.12254513,-0.515321,-0.24874017,0.04752202,-0.021773385,-0.062753804,-0.055493046,-0.020163707,-0.020575752,0.041525032,0.0066691325,-0.057675034,0.03771189,0.02593471,-0.073293835,1.0,-1.0,-1.0,1.0,1.0,-1.0,-1.0,-1.0,-1.0,1.0,-1.0,-1.0,1.0,-1.0,-1.0,1.0,1.0,-1.0,-1.0,-1.0,-1.0,1.0,-1.0,-1.0
2025-06-04 11:52:40.245,0.0042466205,0.0077627082,0.043317374,0.037737276,-0.053498913,0.035921182,0.0,0.0,0.0,0.010600103,0.044156283,-0.5247719,-0.13521406,0.15576068,0.4554951,-0.14259252,-0.09544159,-0.56264687,-0.26234445,0.12472358,-0.50950485,-0.26130286,-0.060243618,-0.06631978,0.020378137,-0.025715476,0.03459308,-0.007182803,-0.07231556,-0.07179163,0.0397926,0.015541423,0.0057784608,-0.013404083,1.0,-1.0,-1.0,1.0,1.0,-1.0,-1.0,-1.0,-1.0,1.0,-1.0,-1.0,1.0,-1.0,-1.0,1.0,1.0,-1.0,-1.0,-1.0,-1.0,1.0,1.0,-1.0
2025-06-04 11:52:40.267,0.3639931,0.16640416,-0.20189635,0.00032921074,-0.08023186,0.00076626346,0.0,0.0,0.0,0.010607568,0.047809083,-0.5268718,-0.14274791,0.13404986,0.4670633,-0.13377786,-0.08233768,-0.54317474,-0.27201387,0.118581794,-0.43155017,-0.28570518,0.025741823,0.072668925,0.07892666,-0.07398503,0.06782179,0.063560344,-0.045562256,0.03629374,-0.0052622757,-0.031607643,0.30795684,0.0059061693,1.0,-1.0,-1.0,1.0,1.0,-1.0,-1.0,-1.0,-1.0,1.0,1.0,-1.0,1.0,-1.0,-1.0,1.0,-1.0,-1.0,-1.0,-1.0,-1.0,1.0,-1.0,-1.0
2025-06-04 11:52:40.286,-0.23345266,0.17986809,0.023081128,0.04851042,-0.064945206,0.020531388,0.0,0.0,0.0,0.013697926,0.044542488,-0.52442276,-0.13961105,0.16021016,0.39969134,-0.11186566,-0.10317262,-0.54128677,-0.2696137,0.12092817,-0.43253088,-0.27341324,-0.057293598,-0.08110694,-0.09073196,0.021857273,-0.36070883,-0.07007185,-0.081402116,0.015556649,-0.07587202,0.029430993,-0.10465586,0.008273431,1.0,-1.0,-1.0,1.0,-1.0,-1.0,-1.0,-1.0,-1.0,1.0,-1.0,-1.0,1.0,-1.0,-1.0,1.0,1.0,-1.0,-1.0,-1.0,-1.0,1.0,-1.0,-1.0
2025-06-04 11:52:40.305,-0.029861132,0.032051906,0.008818008,0.024023151,-0.028727192,-0.0009959759,0.0,0.0,0.0,0.015159886,0.031472337,-0.5303089,-0.15217388,0.14713526,0.38263315,-0.1209693,-0.09336669,-0.5527902,-0.27378753,0.12910903,-0.44080254,-0.2811442,-0.011356658,-0.03239873,0.035750058,0.003060159,0.010787237,0.007875698,0.00023853351,-0.035142653,0.031749077,0.04392118,-0.021561919,0.030498246,1.0,-1.0,-1.0,1.0,1.0,-1.0,-1.0,-1.0,-1.0,1.0,-1.0,-1.0,1.0,-1.0,-1.0,1.0,1.0,-1.0,-1.0,-1.0,-1.0,1.0,-1.0,-1.0
2025-06-04 11:52:40.326,0.0804748,0.003114985,-0.0018933642,0.035017055,-0.06524528,0.03984078,0.0,0.0,0.0,0.015772035,0.046709407,-0.53386474,-0.14934543,0.1589839,0.4026303,-0.13762555,-0.08524444,-0.5503606,-0.259813,0.12348992,-0.44145358,-0.27226686,0.08076546,-0.014181063,-0.07039046,0.069366656,0.03166287,-0.08196809,0.0098272255,0.030205404,0.06799248,-0.021953622,-0.010608665,0.06607914,1.0,-1.0,-1.0,1.0,1.0,-1.0,-1.0,-1.0,-1.0,1.0,-1.0,-1.0,1.0,-1.0,-1.0,1.0,1.0,-1.0,-1.0,-1.0,-1.0,1.0,-1.0,-1.0
2025-06-04 11:52:40.346,0.029259527,0.047711346,-0.01889406,0.008688242,-0.021181833,0.003772976,0.0,0.0,0.0,0.0157479,0.052935816,-0.5386723,-0.16239636,0.16345942,0.39829108,-0.14255923,-0.09958918,-0.56451565,-0.2621664,0.12776901,-0.45765352,-0.28047472,-0.0017043969,-0.04330833,-0.06712475,-0.04663678,0.07449134,-0.016567321,0.046436615,-0.081122994,-0.057163768,-0.060527984,-0.079512835,-0.026040725,1.0,-1.0,-1.0,1.0,1.0,-1.0,-1.0,-1.0,-1.0,1.0,-1.0,-1.0,1.0,-1.0,-1.0,1.0,1.0,-1.0,-1.0,-1.0,-1.0,1.0,-1.0,-1.0
2025-06-04 11:52:40.368,0.03215464,-0.042056687,-0.035729885,0.05456363,-0.008928497,-0.004316302,0.0,0.0,0.0,0.015666028,0.04153573,-0.54539603,-0.14734004,0.15032719,0.39942923,-0.14909807,-0.09275779,-0.55672306,-0.27145,0.11061194,-0.45091406,-0.28033727,-0.013359638,0.0434072,-0.048838608,-0.022696737,-0.03583806,-0.05913424,0.015730841,-0.03437018,-0.035894416,0.056915797,0.06747784,-0.03429002,1.0,-1.0,-1.0,1.0,1.0,-1.0,-1.0,-1.0,-1.0,1.0,-1.0,-1.0,1.0,-1.0,-1.0,1.0,1.0,-1.0,-1.0,-1.0,-1.0,1.0,-1.0,-1.0
2025-06-04 11:52:40.386,0.0006065126,0.030462017,-0.009954307,0.0887288,-0.069053374,-0.013281788,0.0,0.0,0.0,0.015571332,0.0546884,-0.55204934,-0.15984288,0.15418862,0.41151112,-0.150165,-0.09001645,-0.5670544,-0.26886442,0.113249555,-0.4646742,-0.26320088,0.054565277,0.014153938,0.014954972,-0.05197482,0.07925467,-0.05602714,0.016729606,0.03321979,-0.019878335,0.053146813,0.065224804,0.04716618,1.0,-1.0,-1.0,1.0,1.0,-1.0,-1.0,-1.0,-1.0,1.0,-1.0,-1.0,1.0,-1.0,-1.0,1.0,1.0,-1.0,-1.0,-1.0,-1.0,1.0,-1.0,-1.0
2025-06-04 11:52:40.407,-0.024466842,-0.03301522,-0.02020697,0.046108663,-0.10067842,0.04898129,0.0,0.0,0.0,0.015382133,0.04546017,-0.5408603,-0.14535862,0.16487612,0.41317433,-0.1366147,-0.09574265,-0.5687002,-0.25596216,0.09983168,-0.4643674,-0.26556456,-0.06889981,-0.02462672,-0.004942566,-0.060138945,0.07810184,-0.059738513,-0.043431252,-0.032386895,0.0079826685,-0.05003682,-0.011113373,0.04383506,1.0,-1.0,-1.0,1.0,1.0,-1.0,-1.0,-1.0,-1.0,1.0,-1.0,-1.0,1.0,-1.0,-1.0,1.0,1.0,-1.0,-1.0,-1.0,-1.0,1.0,-1.0,-1.0
2025-06-04 11:52:40.427,0.038522296,0.0008763809,0.027793912,0.07695504,-0.08915629,0.021439206,0.0,0.0,0.0,0.015113288,0.0507083,-0.55295855,-0.16593747,0.16991286,0.40628454,-0.14464673,-0.08170377,-0.5659939,-0.25419304,0.10592332,-0.47058526,-0.2768277,-0.008888961,0.06107182,0.029032102,0.011943608,-0.03885898,-0.05643884,-0.07393494,-0.027825302,-0.022994773,0.04825045,0.06563894,0.015739487,1.0,-1.0,-1.0,1.0,1.0,-1.0,-1.0,-1.0,-1.0,1.0,-1.0,-1.0,1.0,-1.0,-1.0,1.0,1.0,-1.0,-1.0,-1.0,-1.0,1.0,-1.0,-1.0
2025-06-04 11:52:40.447,0.011979536,-0.035597354,-0.013722258,0.074019,-0.032434087,-0.0068595964,0.0,0.0,0.0,0.014866311,0.0517459,-0.5488549,-0.15737134,0.17405331,0.40700275,-0.13999899,-0.09602309,-0.57613385,-0.26117355,0.1153064,-0.4601076,-0.2726171,-0.06561523,-0.035940774,-0.004707418,0.07222955,-0.05584265,0.059206374,-0.036309265,0.046585355,0.063614674,0.03396817,-0.043896597,-0.049856223,1.0,-1.0,-1.0,1.0,1.0,-1.0,-1.0,-1.0,-1.0,1.0,-1.0,-1.0,1.0,-1.0,-1.0,1.0,1.0,-1.0,-1.0,-1.0,-1.0,1.0,-1.0,-1.0
2025-06-04 11:52:40.468,0.013194259,0.010712623,-0.0007720905,0.0643403,-0.09925599,0.024792278,0.0,0.0,0.0,0.014691864,0.053902686,-0.5566371,-0.15196073,0.18019181,0.40938646,-0.14508186,-0.099256694,-0.58691263,-0.26516938,0.10200842,-0.47315115,-0.27377844,-0.005618816,-0.0714559,0.005819131,-0.046555288,-0.0026465552,-0.07427726,0.016863028,0.058543906,-0.013790687,0.06310943,0.030150454,0.005822395,1.0,-1.0,-1.0,1.0,1.0,-1.0,-1.0,-1.0,-1.0,1.0,-1.0,-1.0,1.0,-1.0,-1.0,1.0,1.0,-1.0,-1.0,-1.0,-1.0,1.0,-1.0,-1.0
2025-06-04 11:52:40.487,-0.0080579,0.028178398,-0.037978493,0.05200233,-0.031605117,0.041731305,0.0,0.0,0.0,0.014596523,0.05439933,-0.5589946,-0.15088129,0.16743281,0.41404843,-0.1400108,-0.09635525,-0.58474123,-0.27067423,0.11163539,-0.47474805,-0.26022258,0.057472277,0.016869606,-0.06666674,0.07426186,0.016878087,0.023353476,-0.03392571,0.073042676,-0.025887772,-0.01870797,-0.07991746,-0.0020571554,1.0,-1.0,-1.0,1.0,1.0,-1.0,-1.0,-1.0,-1.0,1.0,-1.0,-1.0,1.0,-1.0,-1.0,1.0,1.0,-1.0,-1.0,-1.0,-1.0,1.0,-1.0,-1.0
2025-06-04 11:52:40.508,-0.015778983,-0.02917317,-0.01765876,0.021834865,-0.0013324879,-0.029712817,0.0,0.0,0.0,0.01456844,0.054404993,-0.54585314,-0.15549208,0.17626932,0.41949052,-0.14561203,-0.086696506,-0.5690762,-0.25639045,0.099385925,-0.47067982,-0.2725598,-0.07136029,-0.07146293,-0.06623449,0.0052767275,-0.0299184,0.048249923,0.015191221,-0.05216775,0.022052929,0.016093008,0.06371432,0.023328273,1.0,-1.0,-1.0,1.0,1.0,-1.0,-1.0,-1.0,-1.0,1.0,-1.0,-1.0,1.0,-1.0,-1.0,1.0,1.0,-1.0,-1.0,-1.0,-1.0,1.0,-1.0,-1.0
2025-06-04 11:52:40.527,-0.034091208,0.02252159,0.038305555,0.012403335,-0.07236744,0.0021607734,0.0,0.0,0.0,0.014594677,0.046345003,-0.55182874,-0.15902454,0.18067221,0.4275794,-0.14021105,-0.09581068,-0.5677005,-0.269819,0.102547094,-0.4839561,-0.26118693,0.012325938,0.03303684,0.031012258,0.05176264,-0.014758599,0.031076847,-0.0008773618,0.03006108,0.010926591,-0.041042484,-0.02687792,0.07691555,1.0,-1.0,-1.0,1.0,1.0,-1.0,-1.0,-1.0,-1.0,1.0,-1.0,-1.0,1.0,-1.0,-1.0,1.0,1.0,-1.0,-1.0,-1.0,-1.0,1.0,-1.0,-1.0
2025-06-04 11:52:40.547,-0.038687147,-0.022810915,0.004343323,0.087437704,-0.089562826,0.042262133,0.0,0.0,0.0,0.01465888,0.04430653,-0.5452089,-0.15065274,0.1695188,0.42243,-0.14278543,-0.1038827,-0.5694383,-0.2648149,0.10174693,-0.48611572,-0.25494242,-0.07230679,-0.058055326,-0.0036702375,-0.025068013,0.045505114,-0.027188076,-0.035005968,-0.019191226,0.059421606,0.07437138,0.03903542,0.0012806391,1.0,-1.0,-1.0,1.0,1.0,-1.0,-1.0,-1.0,-1.0,1.0,-1.0,-1.0,1.0,-1.0,-1.0,1.0,1.0,-1.0,-1.0,-1.0,-1.0,1.0,-1.0,-1.0
2025-06-04 11:52:40.568,0.020435965,0.025671728,0.01739021,0.066738494,-0.021076918,-0.0019555965,0.0,0.0,0.0,0.014744298,0.054362375,-0.5510951,-0.15692571,0.17148612,0.42975175,-0.13637571,-0.099207655,-0.5740678,-0.27252477,0.09692269,-0.4740653,-0.2582199,0.041536264,-0.015331618,0.010015881,-0.016134702,-0.04860423,-0.030297248,0.01072508,0.0035298292,-0.0144005045,-0.050969187,0.01544832,0.07032718,1.0,-1.0,-1.0,1.0,1.0,-1.0,-1.0,-1.0,-1.0,1.0,-1.0,-1.0,1.0,-1.0,-1.0,1.0,1.0,-1.0,-1.0,-1.0,-1.0,1.0,-1.0,-1.0
2025-06-04 11:52:40.587,-0.03218346,-0.007027985,-0.040339444,0.033957515,0.002120719,-0.012018221,0.0,0.0,0.0,0.01483739,0.04630118,-0.5538978,-0.16675399,0.17046587,0.42771345,-0.13897343,-0.09931511,-0.5766369,-0.2676975,0.10188669,-0.48000568,-0.25370422,0.048963726,0.07466228,-0.039701313,0.03431231,0.011983402,-0.06596979,0.026409559,-0.034120556,0.042668145,-0.060823824,-0.06913345,0.046554323,1.0,-1.0,-1.0,1.0,1.0,-1.0,-1.0,-1.0,-1.0,1.0,-1.0,-1.0,1.0,-1.0,-1.0,1.0,1.0,-1.0,-1.0,-1.0,-1.0,1.0,-1.0,-1.0
2025-06-04 11:52:40.608,0.009624048,0.029168159,-0.008173063,0.0695829,-0.044109624,0.032425694,0.0,0.0,0.0,0.014929021,0.057318646,-0.55628663,-0.15733936,0.16619302,0.43607253,-0.15208171,-0.10277994,-0.58001894,-0.2717379,0.11494691,-0.47421414,-0.25079072,0.033934478,-0.06910224,-0.0070449603,-0.060735866,-0.018725293,-0.06683884,-0.00102782,-0.06259716,0.013424728,0.035129018,0.03429497,-0.044407047,1.0,-1.0,-1.0,1.0,1.0,-1.0,-1.0,-1.0,-1.0,1.0,-1.0,-1.0,1.0,-1.0,-1.0,1.0,1.0,-1.0,-1.0,-1.0,-1.0,1.0,-1.0,-1.0
2025-06-04 11:52:40.627,-0.029306302,0.008420245,-0.03506226,0.054168683,-0.02508736,-0.04431957,0.0,0.0,0.0,0.015013918,0.04235174,-0.5528267,-0.16614328,0.16269274,0.4432124,-0.13826627,-0.098005764,-0.56778306,-0.25916088,0.101217456,-0.48660767,-0.25057584,-0.023559086,0.00251434,0.020929625,-0.02069847,0.0017344475,0.047252633,0.037719708,-0.0010861931,-0.020983232,0.059983626,0.046362836,0.07834099,1.0,-1.0,-1.0,1.0,1.0,-1.0,-1.0,-1.0,-1.0,1.0,-1.0,-1.0,1.0,-1.0,-1.0,1.0,1.0,-1.0,-1.0,-1.0,-1.0,1.0,-1.0,-1.0
2025-06-04 11:52:40.648,-0.04923308,-0.004898558,0.022511994,0.015314106,-0.017565832,0.00827638,0.0,0.0,0.0,0.015089566,0.055410676,-0.553787,-0.16439648,0.16962293,0.42860648,-0.14707048,-0.097520724,-0.5754591,-0.25681537,0.099444896,-0.48183742,-0.24309959,-0.052726388,-0.049286347,0.008043931,0.0010431346,-0.059872083,-0.0002833345,-0.04976424,-0.022326997,0.06665385,0.06912384,0.06754702,-0.05590399,1.0,-1.0,-1.0,1.0,1.0,-1.0,-1.0,-1.0,-1.0,1.0,-1.0,-1.0,1.0,-1.0,-1.0,1.0,1.0,-1.0,-1.0,-1.0,-1.0,1.0,-1.0,-1.0
2025-06-04 11:52:40.669,0.014615668,0.041182514,-0.026111808,0.07307019,-0.037701037,0.00030330077,0.0,0.0,0.0,0.015155186,0.055953685,-0.5552996,-0.1690293,0.17581005,0.43142346,-0.14814052,-0.08984586,-0.56471294,-0.25742102,0.10494283,-0.48747134,-0.2461701,0.049882505,0.0071893246,0.025340065,-0.023333035,0.004627258,-0.03620238,-0.029965876,-0.03711213,0.028351936,0.061557833,-0.029015088,0.03720942,1.0,-1.0,-1.0,1.0,1.0,-1.0,-1.0,-1.0,-1.0,1.0,-1.0,-1.0,1.0,-1.0,-1.0,1.0,1.0,-1.0,-1.0,-1.0,-1.0,1.0,-1.0,-1.0
2025-06-04 11:52:40.688,-0.02077767,-0.04722573,-0.028685508,0.04731711,-0.07620794,0.034712933,0.0,0.0,0.0,0.015210992,0.060530037,-0.54853123,-0.16029641,0.16281691,0.436758,-0.13673156,-0.08962205,-0.56964487,-0.25995553,0.100603536,-0.4954517,-0.2372265,0.048507392,-0.00065984466,-0.02893119,-0.06280629,0.0485793,0.034812532,-0.051057428,0.0068935403,0.0283112,0.015493454,-0.075110964,-0.04483134,1.0,-1.0,-1.0,1.0,1.0,-1.0,-1.0,-1.0,-1.0,1.0,-1.0,-1.0,1.0,-1.0,-1.0,1.0,1.0,-1.0,-1.0,-1.0,-1.0,1.0,-1.0,-1.0
2025-06-04 11:52:40.708,-0.0077491137,0.007457188,-0.009044717,0.042496398,-0.03076084,-0.0366473,0.0,0.0,0.0,0.015257707,0.04996631,-0.54899836,-0.16250996,0.17476055,0.43293464,-0.13610086,-0.08784417,-0.56691295,-0.26487342,0.102751486,-0.48680437,-0.25570816,0.04363176,0.038865887,-0.01958802,0.05834064,0.019013423,0.038108736,-0.07217546,0.06820632,-0.07261819,-0.037596278,-0.07005535,-0.037827715,1.0,-1.0,-1.0,1.0,1.0,-1.0,-1.0,-1.0,-1.0,1.0,-1.0,-1.0,1.0,-1.0,-1.0,1.0,1.0,-1.0,-1.0,-1.0,-1.0,1.0,-1.0,-1.0
2025-06-04 11:52:40.728,0.044679012,0.04270481,0.0109436335,0.08864666,-0.07606347,-0.025489686,0.0,0.0,0.0,0.015296284,0.049169723,-0.5525239,-0.15868764,0.17908393,0.43928435,-0.13528644,-0.09835964,-0.5708158,-0.27181715,0.10132955,-0.47972354,-0.2394077,0.031036746,-0.010326091,0.07445354,0.016373817,0.039651994,0.06818967,0.059275024,-0.06968092,-0.05690936,0.039328825,0.015060916,-0.0610321,1.0,-1.0,-1.0,1.0,1.0,-1.0,-1.0,-1.0,-1.0,1.0,-1.0,-1.0,1.0,-1.0,-1.0,1.0,1.0,-1.0,-1.0,-1.0,-1.0,1.0,-1.0,-1.0
2025-06-04 11:52:40.750,0.029896773,0.03191834,0.03053821,0.052529365,-0.012983783,0.0013560969,0.0,0.0,0.0,0.015327747,0.05241221,-0.55771285,-0.15651216,0.16498627,0.443595,-0.14413708,-0.09416542,-0.5797863,-0.27187845,0.10957373,-0.47883877,-0.23481132,0.033957567,0.07163789,-0.028634354,0.02044431,-0.057742633,0.06437856,-0.070876434,0.03534852,-0.06986919,0.0069187186,0.064704835,0.021351114,1.0,-1.0,-1.0,1.0,1.0,-1.0,-1.0,-1.0,-1.0,1.0,-1.0,-1.0,1.0,-1.0,-1.0,1.0,1.0,-1.0,-1.0,-1.0,-1.0,1.0,-1.0,-1.0
2025-06-04 11:52:40.769,-0.00739076,0.018795462,0.0028332102,0.04201854,-0.05516561,-0.014137014,0.0,0.0,0.0,0.015353108,0.052966915,-0.5417549,-0.16733284,0.16649693,0.44514677,-0.14419135,-0.10320893,-0.5826109,-0.2700432,0.113385014,-0.48665577,-0.23589957,-0.05609295,0.008589807,0.02460022,0.0037111999,0.047418956,-0.06120231,0.026945096,0.0012491666,0.07084415,0.023976808,0.0038606403,0.012099305,1.0,-1.0,-1.0,1.0,1.0,-1.0,-1.0,-1.0,-1.0,1.0,-1.0,-1.0,1.0,-1.0,-1.0,1.0,1.0,-1.0,-1.0,-1.0,-1.0,1.0,-1.0,-1.0
2025-06-04 11:52:40.788,-0.021958102,-0.0034642015,-0.028941195,0.0019799292,-0.03418035,-0.012846125,0.0,0.0,0.0,0.015373318,0.04733905,-0.54837126,-0.1685801,0.17555608,0.4475901,-0.14546788,-0.10308229,-0.56434256,-0.26582006,0.10201559,-0.49505615,-0.24139611,0.04836701,-0.065172106,-0.0367064,0.028321462,-0.010928359,-0.0050640563,0.054261602,-0.050501693,0.033393405,0.049772292,-0.028058985,0.043614272,1.0,-1.0,-1.0,1.0,1.0,-1.0,-1.0,-1.0,-1.0,1.0,-1.0,-1.0,1.0,-1.0,-1.0,1.0,1.0,-1.0,-1.0,-1.0,-1.0,1.0,-1.0,-1.0
2025-06-04 11:52:40.808,0.027251692,-0.013064618,-0.031949796,0.08901508,-0.08489187,-0.028239183,0.0,0.0,0.0,0.01538924,0.050437164,-0.5473503,-0.16467246,0.16594647,0.44963515,-0.14961879,-0.08507368,-0.58262897,-0.27231205,0.112368084,-0.4787902,-0.2360628,0.033583857,-0.005717831,-0.0026299688,0.004174271,0.030775962,-0.034874123,0.013892088,0.06762448,-0.047638122,0.047053996,-0.05035919,-0.009739384,1.0,-1.0,-1.0,1.0,1.0,-1.0,-1.0,-1.0,-1.0,1.0,-1.0,-1.0,1.0,-1.0,-1.0,1.0,1.0,-1.0,-1.0,-1.0,-1.0,1.0,-1.0,-1.0
2025-06-04 11:52:40.828,0.037210226,-0.0027382853,-0.034263182,0.04864202,-0.061238375,-0.04911463,0.0,0.0,0.0,0.015401638,0.056256868,-0.54443294,-0.16450527,0.166982,0.43457374,-0.13570707,-0.1020312,-0.57529134,-0.25705647,0.11361425,-0.49168354,-0.2428223,0.052894726,0.025700595,-0.02523389,0.06995618,-0.036986623,0.048736878,-0.0587378,-0.06905315,-0.030453783,0.048703518,-0.058182616,0.039128315,1.0,-1.0,-1.0,1.0,1.0,-1.0,-1.0,-1.0,-1.0,1.0,-1.0,-1.0,1.0,-1.0,-1.0,1.0,1.0,-1.0,-1.0,-1.0,-1.0,1.0,-1.0,-1.0
2025-06-04 11:52:40.850,0.017229801,-0.040840086,0.013372544,0.013992199,-0.04121354,-0.033271287,0.0,0.0,0.0,0.015411172,0.043849584,-0.5398801,-0.1643773,0.17702535,0.44833332,-0.15247588,-0.0883574,-0.5722802,-0.259333,0.103925504,-0.48950538,-0.24512023,-0.018407624,-0.05646535,0.0063742334,-0.01900373,0.006244806,-0.06354292,0.06498949,-0.047832098,0.015106252,0.04303858,-0.07214362,-0.037750226,1.0,-1.0,-1.0,1.0,1.0,-1.0,-1.0,-1.0,-1.0,1.0,-1.0,-1.0,1.0,-1.0,-1.0,1.0,1.0,-1.0,-1.0,-1.0,-1.0,1.0,-1.0,-1.0
2025-06-04 11:52:40.924,-0.010151838,-0.0049912576,0.028888326,0.036385987,-0.0070916605,0.035328075,0.0,0.0,0.0,0.015418406,0.050613835,-0.54973054,-0.16816947,0.16985035,0.44109288,-0.14029452,-0.090397544,-0.5764367,-0.25962022,0.103656985,-0.4823293,-0.24029525,0.05490695,0.02350161,0.04986696,-0.040007718,0.058359887,0.056446735,-0.019823853,0.0059199855,0.05260545,-0.043936808,-0.06388312,-0.018318973,1.0,-1.0,-1.0,1.0,1.0,-1.0,-1.0,-1.0,-1.0,1.0,-1.0,-1.0,1.0,-1.0,-1.0,1.0,1.0,-1.0,-1.0,-1.0,-1.0,1.0,-1.0,-1.0
2025-06-04 11:52:40.944,0.025280738,0.025613457,0.04229247,0.07423998,0.011819919,-0.04786292,0.0,0.0,0.0,0.015423815,0.05124995,-0.54822475,-0.16874689,0.16719314,0.45025957,-0.15387566,-0.1009676,-0.5721761,-0.2594794,0.10910877,-0.49350902,-0.2382314,-0.008811738,-0.06879159,-0.030875491,0.00025083777,-0.0064197425,0.04359134,0.017734483,-0.013431898,0.0127001675,0.06977238,-0.009155592,-0.03211267,1.0,-1.0,-1.0,1.0,1.0,-1.0,-1.0,-1.0,-1.0,1.0,-1.0,-1.0,1.0,-1.0,-1.0,1.0,1.0,-1.0,-1.0,-1.0,-1.0,1.0,-1.0,-1.0
2025-06-04 11:52:40.961,0.04307171,-0.03386713,-0.033857033,0.07161592,-0.058054134,-0.0077885306,0.0,0.0,0.0,0.015427793,0.054067448,-0.5566012,-0.15778948,0.16662426,0.4500386,-0.14615448,-0.09994421,-0.5730972,-0.2645625,0.10137827,-0.49295223,-0.24939485,-0.0021741374,0.009103867,-0.04031426,-0.011067039,0.054371975,-0.060868964,-0.054687746,0.057941772,-0.052979536,0.032627407,0.02525826,-0.03633141,1.0,-1.0,-1.0,1.0,1.0,-1.0,-1.0,-1.0,-1.0,1.0,-1.0,-1.0,1.0,-1.0,-1.0,1.0,1.0,-1.0,-1.0,-1.0,-1.0,1.0,-1.0,-1.0
2025-06-04 11:52:40.984,0.015647382,-0.03010224,-0.036593977,0.08446866,0.0035518825,0.046881612,0.0,0.0,0.0,0.015430669,0.042461988,-0.5411865,-0.16398095,0.16070306,0.44204348,-0.1367476,-0.08604995,-0.57128644,-0.25814378,0.11646448,-0.48716938,-0.24390028,0.065260604,0.06058271,0.06567074,-0.035431884,0.052384418,-0.048646487,0.0524188,0.06919709,-0.06680878,-0.05095781,0.074604556,0.041805763,1.0,-1.0,-1.0,1.0,1.0,-1.0,-1.0,-1.0,-1.0,1.0,-1.0,-1.0,1.0,-1.0,-1.0,1.0,1.0,-1.0,-1.0,-1.0,-1.0,1.0,-1.0,-1.0
2025-06-04 11:52:41.001,-0.023388546,-0.0017975891,0.0479402,0.07240182,-0.028819202,0.023500128,0.0,0.0,0.0,0.015432711,0.046281725,-0.55585325,-0.16310592,0.17794484,0.45394793,-0.13725626,-0.093674496,-0.5788642,-0.26701984,0.10857775,-0.4931859,-0.25260627,0.009179106,0.065174684,-0.008013289,-0.067931876,0.00262735,0.039239544,0.07123836,-0.025023803,-0.0467922,0.001897413,0.07390661,0.074301794,1.0,-1.0,-1.0,1.0,1.0,-1.0,-1.0,-1.0,-1.0,1.0,-1.0,-1.0,1.0,-1.0,-1.0,1.0,1.0,-1.0,-1.0,-1.0,-1.0,1.0,-1.0,-1.0
2025-06-04 11:52:41.021,-0.0375483,0.007359512,0.03530537,0.03375479,-0.03222035,-0.017483568,0.0,0.0,0.0,0.015434138,0.048464704,-0.5516173,-0.15589564,0.15960228,0.44321975,-0.1425165,-0.100839324,-0.57933396,-0.25772792,0.10815299,-0.48905256,-0.23521638,0.016721256,-0.06730415,-0.070420064,0.057697773,0.063339904,0.013952576,0.014575324,-0.05157987,0.064394034,-0.025691109,0.06847298,0.07260727,1.0,-1.0,-1.0,1.0,1.0,-1.0,-1.0,-1.0,-1.0,1.0,-1.0,-1.0,1.0,-1.0,-1.0,1.0,1.0,-1.0,-1.0,-1.0,-1.0,1.0,-1.0,-1.0
2025-06-04 11:52:41.042,0.008425808,0.03821616,-0.0002912022,0.08188186,-0.04166971,-0.040352657,0.0,0.0,0.0,0.015435122,0.051579878,-0.54873866,-0.15592474,0.1749022,0.4413415,-0.14028296,-0.086574934,-0.5752656,-0.2631653,0.10820626,-0.49403343,-0.24495551,0.04266989,0.05067312,0.065613315,0.03257155,-0.025443802,0.0255088,0.008093322,0.06723617,-0.036868565,0.045893196,-0.0573577,-0.044960987,1.0,-1.0,-1.0,1.0,1.0,-1.0,-1.0,-1.0,-1.0,1.0,-1.0,-1.0,1.0,-1.0,-1.0,1.0,1.0,-1.0,-1.0,-1.0,-1.0,1.0,-1.0,-1.0
2025-06-04 11:52:41.062,-0.022159657,-0.028920043,0.036389634,0.042941716,-0.0074621476,0.041864105,0.0,0.0,0.0,0.015435804,0.049201984,-0.55769944,-0.16550563,0.16450495,0.4561209,-0.14247452,-0.09962739,-0.58195776,-0.27314296,0.11087383,-0.48230886,-0.2439084,-0.019403879,0.06588084,-0.04423214,-0.0026982932,-0.0056746607,-0.008070874,-0.0025818474,0.038954772,-0.004232068,0.07480976,-0.06903255,0.04136878,1.0,-1.0,-1.0,1.0,1.0,-1.0,-1.0,-1.0,-1.0,1.0,-1.0,-1.0,1.0,-1.0,-1.0,1.0,1.0,-1.0,-1.0,-1.0,-1.0,1.0,-1.0,-1.0
2025-06-04 11:52:41.085,-0.035077535,-0.023757715,-0.0071121,0.036922395,-0.05233627,-0.0011863213,0.0,0.0,0.0,0.01543629,0.041883618,-0.55314535,-0.16146734,0.17648593,0.4538156,-0.13598537,-0.09117842,-0.5670358,-0.25997815,0.099203594,-0.48981532,-0.24931644,0.043235384,-0.026745962,0.0017025498,0.007560056,0.06401253,-0.024138458,0.041471235,0.040870845,0.008241475,-0.00860646,-0.064497076,-0.0029222139,1.0,-1.0,-1.0,1.0,1.0,-1.0,-1.0,-1.0,-1.0,1.0,-1.0,-1.0,1.0,-1.0,-1.0,1.0,1.0,-1.0,-1.0,-1.0,-1.0,1.0,-1.0,-1.0
2025-06-04 11:52:41.102,-0.022283591,-0.03540954,0.033840034,0.046726912,-0.005686248,-0.044444367,0.0,0.0,0.0,0.015436662,0.056600016,-0.55255747,-0.16401282,0.169768,0.43666023,-0.14299802,-0.08460128,-0.57647955,-0.2698738,0.104101494,-0.48592147,-0.23869024,-0.036209416,-0.013743522,-0.07370668,-0.0047411704,-0.019806057,0.01833721,0.026235493,-0.061144177,-0.062418155,-0.028026018,0.036619376,0.031013275,1.0,-1.0,-1.0,1.0,1.0,-1.0,-1.0,-1.0,-1.0,1.0,-1.0,-1.0,1.0,-1.0,-1.0,1.0,1.0,-1.0,-1.0,-1.0,-1.0,1.0,-1.0,-1.0
2025-06-04 11:52:41.122,-0.010284475,-0.02056452,0.02729114,0.0821502,-0.012356877,-0.0055961837,0.0,0.0,0.0,0.015436981,0.059769087,-0.5513197,-0.15564188,0.16095138,0.45648906,-0.1542623,-0.09932494,-0.5756873,-0.27013844,0.10013332,-0.49738717,-0.24990882,-0.012737555,0.002195203,0.0003084149,0.049411077,-0.053407468,-0.07449858,0.044630717,-0.007034064,0.07350627,-0.07035119,0.026093196,0.0695261,1.0,-1.0,-1.0,1.0,1.0,-1.0,-1.0,-1.0,-1.0,1.0,-1.0,-1.0,1.0,-1.0,-1.0,1.0,1.0,-1.0,-1.0,-1.0,-1.0,1.0,-1.0,-1.0
2025-06-04 11:52:41.142,-0.024552826,0.012393063,-0.008162552,0.014743825,-0.030949134,0.040012263,0.0,0.0,0.0,0.015437287,0.054528322,-0.5505188,-0.1620091,0.16093312,0.44495282,-0.15312582,-0.102213174,-0.58126354,-0.2743616,0.11465996,-0.49073175,-0.24463974,-0.05370128,-0.038382985,0.05621854,0.06468657,-0.05612069,0.054073073,-0.009613867,-0.0045620655,-0.03157799,0.017819455,-0.002928949,-0.04060229,1.0,-1.0,-1.0,1.0,1.0,-1.0,-1.0,-1.0,-1.0,1.0,-1.0,-1.0,1.0,-1.0,-1.0,1.0,1.0,-1.0,-1.0,-1.0,-1.0,1.0,-1.0,-1.0
2025-06-04 11:52:41.162,0.04845789,-0.0017396247,0.049169794,0.05717141,-0.06531818,0.032833274,0.0,0.0,0.0,0.01543761,0.040952995,-0.54464614,-0.16328442,0.1647753,0.45141655,-0.14874037,-0.09402113,-0.5646047,-0.26332006,0.112881534,-0.48533553,-0.24729392,-0.020514414,-0.07063821,-0.005974102,0.047681887,-0.0030671428,-0.030926231,0.036219485,0.00020784888,0.07008235,0.025463868,0.030664766,-0.067188375,1.0,-1.0,-1.0,1.0,1.0,-1.0,-1.0,-1.0,-1.0,1.0,-1.0,-1.0,1.0,-1.0,-1.0,1.0,1.0,-1.0,-1.0,-1.0,-1.0,1.0,1.0,-1.0
2025-06-04 11:52:41.186,0.36478955,0.12605159,-0.229315,0.062083885,-0.017160164,0.033669308,0.0,0.0,0.0,0.015437967,0.040730067,-0.5389674,-0.15488532,0.1566325,0.46293932,-0.12774234,-0.09858987,-0.54699284,-0.27535057,0.09824791,-0.41752827,-0.25479418,0.05451747,-0.06412553,0.07702077,-0.0034539525,0.08375088,0.0059982906,-0.039960407,0.050716806,-0.01295717,0.029969385,0.29052907,-0.08534447,1.0,-1.0,-1.0,1.0,1.0,-1.0,-1.0,-1.0,-1.0,1.0,1.0,-1.0,1.0,-1.0,-1.0,1.0,-1.0,-1.0,-1.0,-1.0,-1.0,1.0,-1.0,-1.0
2025-06-04 11:52:41.203,-0.2611207,0.18416826,-0.042302404,0.07675422,-0.02359461,-0.0028622567,0.0,0.0,0.0,0.01860667,0.04281705,-0.54565823,-0.1523764,0.16630627,0.40421867,-0.111909755,-0.09639811,-0.55189455,-0.2767112,0.11345905,-0.418505,-0.25467968,-0.07490624,0.005248218,0.0028756333,0.034051485,-0.23454946,0.07097007,0.0096019795,-0.030806711,-0.007984539,-0.049366597,-0.020931777,0.060876016,1.0,-1.0,-1.0,1.0,-1.0,-1.0,-1.0,-1.0,-1.0,1.0,-1.0,-1.0,1.0,-1.0,-1.0,1.0,1.0,-1.0,-1.0,-1.0,-1.0,1.0,-1.0,-1.0
2025-06-04 11:52:41.222,0.029409707,-0.030554973,0.022346787,0.034818847,-0.08071921,-0.0044414103,0.0,0.0,0.0,0.020000443,0.04660073,-0.5570423,-0.17222877,0.15557338,0.3843457,-0.13402718,-0.0889887,-0.54598176,-0.27714935,0.10946371,-0.4273656,-0.25797236,-0.017588232,-0.0031254236,0.010160743,-0.08355417,0.09224845,-0.05487944,-0.052708037,0.04773119,0.0058080843,-0.02304596,0.010894441,-0.06384838,1.0,-1.0,-1.0,1.0,1.0,-1.0,-1.0,-1.0,-1.0,1.0,-1.0,-1.0,1.0,-1.0,-1.0,1.0,1.0,-1.0,-1.0,-1.0,-1.0,1.0,-1.0,-1.0
2025-06-04 11:52:41.243,0.11329381,-0.008174569,0.0577127,0.0207297,-0.034832496,0.048400957,0.0,0.0,0.0,0.020478137,0.04438655,-0.55800456,-0.17317101,0.1615935,0.38441703,-0.1518407,-0.098750316,-0.5520417,-0.25724286,0.11401005,-0.42104244,-0.25894666,0.044406295,-0.0808595,-0.03630581,0.03765736,0.011065577,0.05395445,0.07972201,-0.0594013,0.016768044,-0.076585814,-0.047546137,0.01727512,1.0,-1.0,-1.0,1.0,1.0,-1.0,-1.0,-1.0,-1.0,1.0,-1.0,-1.0,1.0,-1.0,-1.0,1.0,1.0,-1.0,-1.0,-1.0,-1.0,1.0,1.0,-1.0
2025-06-04 11:52:41.264,0.34373662,0.17611152,-0.187771,-0.028941354,-0.10495938,0.04463928,0.0,0.0,0.0,0.020391393,0.03464812,-0.5588413,-0.16519515,0.15040241,0.40661415,-0.13741046,-0.09458983,-0.55479836,-0.27468944,0.116901115,-0.35274318,-0.27103218,-0.0071942727,0.04199951,0.012044528,0.009948767,0.067336075,0.08667343,-0.0110471165,-0.028838865,0.025404051,0.008539449,0.15988374,-0.12107936,1.0,-1.0,-1.0,1.0,1.0,-1.0,-1.0,-1.0,-1.0,1.0,1.0,-1.0,1.0,-1.0,-1.0,1.0,-1.0,-1.0,-1.0,-1.0,-1.0,1.0,-1.0,-1.0
2025-06-04 11:52:41.285,-0.06317507,0.07413758,0.055801455,-0.027132738,-0.13043725,-0.016328136,0.0,0.0,0.0,0.02251262,0.048199244,-0.56196696,-0.15434033,0.16771486,0.34385064,-0.11106684,-0.09801772,-0.5532083,-0.27268898,0.10943112,-0.36661148,-0.27135295,-0.06447994,-0.024540924,0.038982093,-0.047179393,-0.2883651,0.07100417,-0.0009623032,-0.028505424,0.05415177,0.016324619,-0.04857816,-0.040028553,1.0,-1.0,-1.0,1.0,-1.0,-1.0,-1.0,-1.0,-1.0,1.0,-1.0,-1.0,1.0,-1.0,-1.0,1.0,1.0,-1.0,-1.0,-1.0,-1.0,1.0,-1.0,-1.0
2025-06-04 11:52:41.303,0.055727396,0.08342183,-0.055285577,-0.012515183,-0.1163598,0.042803407,0.0,0.0,0.0,0.022984851,0.04939736,-0.5825248,-0.16618367,0.16623059,0.3123857,-0.1348796,-0.08548171,-0.5630586,-0.2800686,0.10602343,-0.38373533,-0.26791885,-0.03827761,0.025360491,0.01772532,-0.05612838,-0.014271699,-0.07358342,-0.012668892,0.050186865,0.01233457,-0.03955554,-0.09920027,-0.015071884,1.0,-1.0,-1.0,1.0,1.0,-1.0,-1.0,-1.0,-1.0,1.0,-1.0,-1.0,1.0,-1.0,-1.0,1.0,1.0,-1.0,-1.0,-1.0,-1.0,1.0,-1.0,-1.0
2025-06-04 11:52:41.322,0.084364615,0.082315445,-0.06970262,0.001945667,-0.06418059,0.008623255,0.0,0.0,0.0,0.023061512,0.036545273,-0.57487535,-0.16451658,0.17165533,0.31720838,-0.14646783,-0.09135423,-0.5562532,-0.27774268,0.11590858,-0.38557178,-0.27283093,0.06283695,0.006702125,-0.058158863,-0.057887733,0.09261656,-0.09340848,-0.04506694,-0.02823912,-0.052556496,-0.03360113,0.03288111,0.025667649,1.0,-1.0,-1.0,1.0,1.0,-1.0,-1.0,-1.0,-1.0,1.0,-1.0,-1.0,1.0,-1.0,-1.0,1.0,1.0,-1.0,-1.0,-1.0,-1.0,1.0,-1.0,-1.0
2025-06-04 11:52:41.342,0.008481099,0.09300332,-0.0075511993,-0.02648411,-0.0859329,0.04527059,0.0,0.0,0.0,0.023665272,0.050485075,-0.592027,-0.16803293,0.18040796,0.32931587,-0.14393325,-0.08007646,-0.5587432,-0.2774975,0.10570844,-0.40810186,-0.2776296,-0.010644734,-0.078328334,0.037337396,-0.07112668,0.05371381,0.03974737,0.07795861,0.05043593,0.0032091239,0.013453385,0.028227456,-0.054187,1.0,-1.0,-1.0,1.0,1.0,-1.0,-1.0,-1.0,-1.0,1.0,-1.0,-1.0,1.0,-1.0,-1.0,1.0,1.0,-1.0,-1.0,-1.0,-1.0,1.0,-1.0,-1.0
2025-06-04 11:52:41.363,0.073720954,0.028978115,0.006183092,0.018603643,-0.14758438,0.004756778,0.0,0.0,0.0,0.024367705,0.058842335,-0.59483653,-0.17824219,0.17661509,0.33410677,-0.15924916,-0.08935108,-0.56050926,-0.27897823,0.10461251,-0.41408375,-0.2731249,-0.060237702,0.05496601,0.055519853,0.046223827,0.022889923,-0.016680675,-0.061424565,-0.07546097,0.03174128,-0.014408213,0.028087279,0.01201408,1.0,-1.0,-1.0,1.0,1.0,-1.0,-1.0,-1.0,-1.0,1.0,-1.0,-1.0,1.0,-1.0,-1.0,1.0,1.0,-1.0,-1.0,-1.0,-1.0,1.0,-1.0,-1.0
2025-06-04 11:52:41.385,0.05222822,0.002650263,-0.005751142,0.028821388,-0.118035115,-0.016050657,0.0,0.0,0.0,0.025039634,0.055605095,-0.593071,-0.16814843,0.17191646,0.34764773,-0.15418294,-0.075498715,-0.56729066,-0.2773187,0.10700591,-0.42232168,-0.28101915,-0.0570829,0.0032810685,0.048482463,0.047049955,0.050683632,0.009510825,0.0023475285,0.05026448,-0.057803277,0.057275496,-0.05523963,-0.06521941,1.0,-1.0,-1.0,1.0,1.0,-1.0,-1.0,-1.0,-1.0,1.0,-1.0,-1.0,1.0,-1.0,-1.0,1.0,1.0,-1.0,-1.0,-1.0,-1.0,1.0,-1.0,-1.0
2025-06-04 11:52:41.403,0.03151307,0.0076236953,-0.0061828466,-0.012129271,-0.07894042,-0.013706167,0.0,0.0,0.0,0.02564176,0.05403745,-0.59733844,-0.16980068,0.17810883,0.35419333,-0.1539323,-0.07571818,-0.57766557,-0.29010266,0.09996193,-0.43092194,-0.27082944,0.03433938,0.059166934,-0.008865819,-0.059030022,0.051765777,-0.025292644,-0.04857518,0.0012452588,-0.028622108,-0.04816222,-0.041737694,0.023092512,1.0,-1.0,-1.0,1.0,1.0,-1.0,-1.0,-1.0,-1.0,1.0,-1.0,-1.0,1.0,-1.0,-1.0,1.0,1.0,-1.0,-1.0,-1.0,-1.0,1.0,-1.0,-1.0
2025-06-04 11:52:41.423,0.025222724,0.035622198,0.01364292,0.047740616,-0.16680591,0.007956683,0.0,0.0,0.0,0.026175855,0.06359628,-0.59257185,-0.15584144,0.1752133,0.37121624,-0.17273441,-0.07163157,-0.5700451,-0.28049594,0.10152696,-0.43704847,-0.2600011,-0.024461417,-0.036653735,-0.04856597,-0.0012027796,0.026274182,-0.006232727,0.009319018,0.061802793,-0.050891932,-0.041056443,-0.016545461,-0.02717462,1.0,-1.0,-1.0,1.0,1.0,-1.0,-1.0,-1.0,-1.0,1.0,-1.0,-1.0,1.0,-1.0,-1.0,1.0,1.0,-1.0,-1.0,-1.0,-1.0,1.0,-1.0,-1.0
2025-06-04 11:52:41.443,-0.0118830865,-0.030361362,0.015605926,0.04871497,-0.1505009,0.029003723,0.0,0.0,0.0,0.026649721,0.052102108,-0.60960734,-0.1649472,0.17643397,0.3843652,-0.16766347,-0.069178425,-0.578051,-0.27343184,0.09352476,-0.4420568,-0.2650947,0.024295567,-0.016927756,-0.04323675,-0.0571052,0.06967477,0.03777632,-0.0112769855,0.024385672,0.018319719,0.0118971765,-0.053935986,-0.029532695,1.0,-1.0,-1.0,1.0,1.0,-1.0,-1.0,-1.0,-1.0,1.0,-1.0,-1.0,1.0,-1.0,-1.0,1.0,1.0,-1.0,-1.0,-1.0,-1.0,1.0,-1.0,-1.0
2025-06-04 11:52:41.463,-0.032473404,-0.040213667,0.006512388,0.05818913,-0.09009856,-0.02421514,0.0,0.0,0.0,0.027066521,0.05762101,-0.61369616,-0.15873958,0.17650941,0.38779896,-0.17727442,-0.07701962,-0.5738995,-0.29167128,0.08417113,-0.4399984,-0.27337867,0.009317295,0.026740046,-0.020547083,0.03070356,-0.04261977,0.01632608,-0.023513908,-0.03371406,0.04427017,-0.050015066,-0.061537087,0.057089753,1.0,-1.0,-1.0,1.0,1.0,-1.0,-1.0,-1.0,-1.0,1.0,-1.0,-1.0,1.0,-1.0,-1.0,1.0,1.0,-1.0,-1.0,-1.0,-1.0,1.0,-1.0,-1.0
2025-06-04 11:52:41.485,-0.014176633,-0.014920271,-0.0022807943,-0.0037647858,-0.15509447,-0.025427843,0.0,0.0,0.0,0.027425459,0.060230296,-0.60139257,-0.16373533,0.16532797,0.38831624,-0.17156193,-0.08302308,-0.5674729,-0.2792968,0.083133176,-0.446903,-0.2639287,-0.039012928,0.032633007,0.0069733537,0.009167543,0.066529125,-0.076564625,-0.049057707,-0.050736472,-0.06468528,-0.01808203,0.038554132,0.063502975,1.0,-1.0,-1.0,1.0,1.0,-1.0,-1.0,-1.0,-1.0,1.0,-1.0,-1.0,1.0,-1.0,-1.0,1.0,1.0,-1.0,-1.0,-1.0,-1.0,1.0,-1.0,-1.0
2025-06-04 11:52:41.504,0.034590986,0.013125054,-0.007152717,0.03010237,-0.10411641,0.033548433,0.0,0.0,0.0,0.02772026,0.0654278,-0.6039687,-0.15111259,0.17328836,0.39030516,-0.17865853,-0.08255513,-0.5808189,-0.2817706,0.10125274,-0.4514563,-0.27063584,0.016686343,0.02159675,0.053603265,0.045210134,-0.008915059,0.073256224,0.05564567,0.018731516,0.009254768,0.051414754,-7.6682525e-05,0.051329747,1.0,-1.0,-1.0,1.0,1.0,-1.0,-1.0,-1.0,-1.0,1.0,-1.0,-1.0,1.0,-1.0,-1.0,1.0,1.0,-1.0,-1.0,-1.0,-1.0,1.0,-1.0,-1.0
2025-06-04 11:52:41.524,-0.021693522,-0.00991943,0.029772185,-0.03285732,-0.113612056,-0.046827205,0.0,0.0,0.0,0.027923433,0.063705124,-0.6047665,-0.15187117,0.17635758,0.39395273,-0.16298807,-0.07247563,-0.58730716,-0.2858829,0.08632328,-0.4598765,-0.26952884,0.07047408,-0.027583376,0.005569356,0.022559771,0.048312813,0.043615762,0.060084805,0.03829968,0.02747295,0.0031732155,0.006020546,-0.032170262,1.0,-1.0,-1.0,1.0,1.0,-1.0,-1.0,-1.0,-1.0,1.0,-1.0,-1.0,1.0,-1.0,-1.0,1.0,1.0,-1.0,-1.0,-1.0,-1.0,1.0,-1.0,-1.0
2025-06-04 11:52:41.544,-0.054161377,-0.07460689,0.0012935118,-0.01632798,-0.12256698,0.04600264,0.0,0.0,0.0,0.028006753,0.074924886,-0.60126376,-0.15617768,0.1779508,0.3963957,-0.17105637,-0.07732729,-0.57846177,-0.27574646,0.084306315,-0.46149188,-0.26823616,0.061919104,0.011791045,-0.054933,0.01682078,0.0026586424,-0.019840658,0.0076363217,0.017788311,-0.017280348,0.011538575,0.045886423,0.026743518,1.0,-1.0,-1.0,1.0,1.0,-1.0,-1.0,-1.0,-1.0,1.0,-1.0,-1.0,1.0,-1.0,-1.0,1.0,1.0,-1.0,-1.0,-1.0,-1.0,1.0,-1.0,-1.0
2025-06-04 11:52:41.565,-0.043755565,0.006110089,0.04589164,0.016677244,-0.15934768,0.049712583,0.0,0.0,0.0,0.027974647,0.06873635,-0.61342835,-0.16694404,0.18238583,0.40959036,-0.17351599,-0.08198498,-0.57184976,-0.28109273,0.09084676,-0.45410168,-0.26965705,-0.029799808,-0.019933777,-0.060756207,0.05759004,-0.0022557743,0.01936919,-0.06487175,-0.048063036,-0.04771702,0.032953545,-0.0317257,0.06359785,1.0,-1.0,-1.0,1.0,1.0,-1.0,-1.0,-1.0,-1.0,1.0,-1.0,-1.0,1.0,-1.0,-1.0,1.0,1.0,-1.0,-1.0,-1.0,-1.0,1.0,-1.0,-1.0
2025-06-04 11:52:41.586,0.0069404086,-0.0088766115,-0.030856403,-0.0068882336,-0.117068216,0.004506766,0.0,0.0,0.0,0.027869035,0.06449824,-0.60692096,-0.16631125,0.1753972,0.40808544,-0.16799322,-0.06906215,-0.5777496,-0.2788595,0.099660106,-0.46573576,-0.26780564,0.016005754,0.07422697,-0.02597644,-0.0680488,-0.0036639816,0.025255842,0.01828946,0.042986576,0.014645517,-0.02462286,0.018823793,0.049397063,1.0,-1.0,-1.0,1.0,1.0,-1.0,-1.0,-1.0,-1.0,1.0,-1.0,-1.0,1.0,-1.0,-1.0,1.0,1.0,-1.0,-1.0,-1.0,-1.0,1.0,-1.0,-1.0
2025-06-04 11:52:41.605,0.00060014107,-0.031355083,-0.019746136,-0.018888442,-0.14219354,-0.006208137,0.0,0.0,0.0,0.027725909,0.0765796,-0.61181235,-0.17146993,0.18683214,0.41695404,-0.15894267,-0.07175606,-0.57347786,-0.2753738,0.09213707,-0.4637664,-0.26766407,-0.052812938,0.043857504,-0.026843907,-0.06563591,-0.011152102,0.06341353,-0.015361475,0.02785284,0.073949456,0.060072914,-0.05346438,0.066462964,1.0,-1.0,-1.0,1.0,1.0,-1.0,-1.0,-1.0,-1.0,1.0,-1.0,-1.0,1.0,-1.0,-1.0,1.0,1.0,-1.0,-1.0,-1.0,-1.0,1.0,-1.0,-1.0
2025-06-04 11:52:41.625,-0.06575376,-0.08308136,-0.03168657,0.033009723,-0.075137414,-0.03979566,0.0,0.0,0.0,0.027569622,0.060345024,-0.6012066,-0.15870003,0.1801548,0.41035208,-0.15929069,-0.07145771,-0.58442605,-0.2750317,0.09312484,-0.46965644,-0.26768228,0.0013192109,-0.045305595,-0.0046850373,0.023988053,-0.050562825,-0.06326559,-0.052240465,-0.06584519,-0.02971038,-0.00091199187,0.06368614,-0.03344425,1.0,-1.0,-1.0,1.0,1.0,-1.0,-1.0,-1.0,-1.0,1.0,-1.0,-1.0,1.0,-1.0,-1.0,1.0,1.0,-1.0,-1.0,-1.0,-1.0,1.0,-1.0,-1.0
2025-06-04 11:52:41.646,-0.03654453,-0.0321238,-0.0008810139,0.040407255,-0.107563145,0.0073373127,0.0,0.0,0.0,0.027414016,0.058993034,-0.6048847,-0.1632973,0.17780325,0.4166323,-0.16563259,-0.0765027,-0.5802315,-0.26936865,0.09522457,-0.47236836,-0.26961303,-0.00042319263,0.0352549,0.055425394,0.040584356,0.031458866,-0.013183751,0.0518432,-0.052216545,0.028528927,-0.032658916,0.06353129,-0.019700471,1.0,-1.0,-1.0,1.0,1.0,-1.0,-1.0,-1.0,-1.0,1.0,-1.0,-1.0,1.0,-1.0,-1.0,1.0,1.0,-1.0,-1.0,-1.0,-1.0,1.0,-1.0,-1.0
2025-06-04 11:52:41.664,0.006227115,-0.09052945,0.042525914,0.023787035,-0.12658994,-0.019468302,0.0,0.0,0.0,0.027265774,0.07614518,-0.60981315,-0.15924682,0.18253873,0.40870693,-0.15396813,-0.0729721,-0.58898723,-0.2847264,0.08167435,-0.4602011,-0.26716197,0.06761881,-0.0025871326,-0.0082402555,0.013569932,0.022531666,0.032352757,-0.056529906,-0.06733245,-0.021607023,0.074198835,-0.074336275,0.0505534,1.0,-1.0,-1.0,1.0,1.0,-1.0,-1.0,-1.0,-1.0,1.0,-1.0,-1.0,1.0,-1.0,-1.0,1.0,1.0,-1.0,-1.0,-1.0,-1.0,1.0,-1.0,-1.0
2025-06-04 11:52:41.685,-0.03240439,-0.0769312,-0.014861653,0.023687216,-0.07821476,0.024331981,0.0,0.0,0.0,0.027127542,0.06913251,-0.6018435,-0.17162395,0.17882605,0.40859103,-0.15366003,-0.07849007,-0.58416736,-0.26954553,0.0948361,-0.47601566,-0.2570111,0.02214673,0.04423524,-0.06720052,-0.029344484,0.034826115,-0.018953541,0.023213666,0.06967771,-0.036677375,0.06963186,-0.010885235,-0.04732716,1.0,-1.0,-1.0,1.0,1.0,-1.0,-1.0,-1.0,-1.0,1.0,-1.0,-1.0,1.0,-1.0,-1.0,1.0,1.0,-1.0,-1.0,-1.0,-1.0,1.0,-1.0,-1.0
2025-06-04 11:52:41.704,0.0069564953,-0.0526037,0.041508082,0.006783029,-0.05428889,0.000726971,0.0,0.0,0.0,0.027000025,0.06602944,-0.60171646,-0.17921793,0.18553609,0.4099384,-0.1602306,-0.086835094,-0.5942566,-0.2654787,0.08483968,-0.45758268,-0.25813425,-0.04477986,0.025717478,-0.05427421,0.016299706,-0.0444284,0.008823905,-0.06228503,0.03790385,-0.06253215,0.0319042,0.024217866,0.061626915,1.0,-1.0,-1.0,1.0,1.0,-1.0,-1.0,-1.0,-1.0,1.0,-1.0,-1.0,1.0,-1.0,-1.0,1.0,1.0,-1.0,-1.0,-1.0,-1.0,1.0,-1.0,-1.0
2025-06-04 11:52:41.724,-0.06190048,-0.07053137,-0.03241153,8.322385e-05,-0.10372723,-0.04025591,0.0,0.0,0.0,0.026883215,0.05932652,-0.58924735,-0.1751491,0.17832045,0.42675367,-0.1622523,-0.092307754,-0.5800558,-0.27248827,0.07989678,-0.4680986,-0.27295032,0.023577083,-0.036613543,0.035019033,-0.050899483,0.050772227,-0.017069452,-0.031246452,0.0069986233,0.07812474,-0.04604835,0.018949421,-0.031815834,1.0,-1.0,-1.0,1.0,1.0,-1.0,-1.0,-1.0,-1.0,1.0,-1.0,-1.0,1.0,-1.0,-1.0,1.0,1.0,-1.0,-1.0,-1.0,-1.0,1.0,-1.0,-1.0
2025-06-04 11:52:41.744,-0.07520125,-0.10046634,0.026408993,0.054837883,-0.079487056,-0.027195776,0.0,0.0,0.0,0.026776958,0.061082732,-0.58192325,-0.1721996,0.19402745,0.4126222,-0.14665636,-0.08715485,-0.586211,-0.26811484,0.09820287,-0.4585675,-0.2711128,0.062193345,0.050954603,0.03683392,-0.06063217,0.028258365,0.07799455,-0.052616343,-0.057697862,-0.052955218,-0.008982147,-0.053594314,-0.07444692,1.0,-1.0,-1.0,1.0,1.0,-1.0,-1.0,-1.0,-1.0,1.0,-1.0,-1.0,1.0,-1.0,-1.0,1.0,1.0,-1.0,-1.0,-1.0,-1.0,1.0,-1.0,-1.0
2025-06-04 11:52:41.764,0.0087702,-0.02882421,-0.011719527,0.0732365,-0.07227591,-0.007868326,0.0,0.0,0.0,0.026681118,0.05949239,-0.5757223,-0.16690022,0.18068957,0.4167109,-0.15579328,-0.09242056,-0.5867568,-0.26260528,0.09852231,-0.47387415,-0.25886145,-0.06515743,0.045563765,-0.030853821,-0.049136832,-0.048751533,0.058237616,-0.020005135,0.001995729,-0.06128075,0.06852257,-0.05793591,0.05453925,1.0,-1.0,-1.0,1.0,1.0,-1.0,-1.0,-1.0,-1.0,1.0,-1.0,-1.0,1.0,-1.0,-1.0,1.0,1.0,-1.0,-1.0,-1.0,-1.0,1.0,-1.0,-1.0
2025-06-04 11:52:41.785,-0.0396214,-0.040075995,0.0060378197,0.035236668,-0.030264413,0.046092246,0.0,0.0,0.0,0.026682727,0.06573327,-0.57991725,-0.17120185,0.17940785,0.42874187,-0.1474153,-0.091961026,-0.5840716,-0.25903928,0.082969174,-0.4754501,-0.24792443,-0.07499624,-0.038226955,-0.01894744,-0.0729408,-0.04941815,0.052527077,0.07042141,-0.055709656,-0.028797233,0.02880403,0.049839426,0.030588813,1.0,-1.0,-1.0,1.0,1.0,-1.0,-1.0,-1.0,-1.0,1.0,-1.0,-1.0,1.0,-1.0,-1.0,1.0,1.0,-1.0,-1.0,-1.0,-1.0,1.0,-1.0,-1.0
2025-06-04 11:52:41.804,-0.030402012,0.0068715,-0.0067097275,0.06911935,-0.009314262,0.024615683,0.0,0.0,0.0,0.026931008,0.055045646,-0.56781363,-0.1750606,0.17973165,0.43449596,-0.13868861,-0.097275324,-0.57376295,-0.26830992,0.08272427,-0.4796897,-0.25820687,-0.07695118,0.07039073,-0.055831283,-0.05177522,0.014696717,0.061834745,0.064778715,0.0140317865,0.037328746,0.007992464,0.05932058,0.067147665,1.0,-1.0,-1.0,1.0,1.0,-1.0,-1.0,-1.0,-1.0,1.0,-1.0,-1.0,1.0,-1.0,-1.0,1.0,1.0,-1.0,-1.0,-1.0,-1.0,1.0,-1.0,-1.0
2025-06-04 11:52:41.825,0.0017138617,-0.022565316,0.024432333,0.029984944,-0.0589731,-0.029575614,0.0,0.0,0.0,0.027267547,0.04702844,-0.5661713,-0.18347308,0.17691405,0.42670155,-0.14858362,-0.09074358,-0.5734051,-0.2582968,0.088489294,-0.46656284,-0.23821776,0.010951091,0.073952176,0.036299203,-0.030548412,0.032575462,0.055743672,0.059495132,-0.055908564,0.049098544,-0.02740323,0.02485377,0.024069231,1.0,-1.0,-1.0,1.0,1.0,-1.0,-1.0,-1.0,-1.0,1.0,-1.0,-1.0,1.0,-1.0,-1.0,1.0,1.0,-1.0,-1.0,-1.0,-1.0,1.0,-1.0,-1.0
2025-06-04 11:52:41.845,-0.0061338088,0.005536912,-0.039620932,-0.009177495,-0.079280905,-0.04422338,0.0,0.0,0.0,0.027567478,0.046232328,-0.5583186,-0.18607846,0.187402,0.42964047,-0.15075931,-0.08615869,-0.58169115,-0.2648053,0.08996695,-0.47508156,-0.24662052,-0.03526229,0.0021094366,-0.048095305,-0.043648537,-0.05082297,0.051474806,-0.05994442,-0.032400705,0.07127359,-0.014098003,-0.05635879,-0.022283198,1.0,-1.0,-1.0,1.0,1.0,-1.0,-1.0,-1.0,-1.0,1.0,-1.0,-1.0,1.0,-1.0,-1.0,1.0,1.0,-1.0,-1.0,-1.0,-1.0,1.0,-1.0,-1.0
2025-06-04 11:52:41.866,0.026356015,-0.036010843,-0.028400628,0.06125115,-0.09820423,0.012982995,0.0,0.0,0.0,0.027797416,0.050059915,-0.5654826,-0.1829172,0.18144935,0.44748858,-0.14028566,-0.08092341,-0.572348,-0.25476933,0.086668976,-0.4812508,-0.24720633,-0.030548684,0.07969104,0.031817432,-0.04308031,0.0628142,0.02155644,-0.0036794525,-0.065095246,-0.019419657,0.010002543,-0.06565428,-0.04226364,1.0,-1.0,-1.0,1.0,1.0,-1.0,-1.0,-1.0,-1.0,1.0,-1.0,-1.0,1.0,-1.0,-1.0,1.0,1.0,-1.0,-1.0,-1.0,-1.0,1.0,-1.0,-1.0
2025-06-04 11:52:41.885,0.025126716,-0.0016289738,0.040115625,0.052384127,-0.05594385,-0.0445064,0.0,0.0,0.0,0.02796511,0.058821317,-0.5645983,-0.17693153,0.1827705,0.4493767,-0.1394534,-0.09641581,-0.56751144,-0.25583044,0.0947481,-0.47305757,-0.24344498,0.03668422,0.06476449,-0.016364368,0.0118548805,0.07058667,0.028909378,-0.07190676,0.0073227887,0.024783922,-0.055102095,0.04053219,0.037839085,1.0,-1.0,-1.0,1.0,1.0,-1.0,-1.0,-1.0,-1.0,1.0,-1.0,-1.0,1.0,-1.0,-1.0,1.0,1.0,-1.0,-1.0,-1.0,-1.0,1.0,-1.0,-1.0
2025-06-04 11:52:41.905,0.024469981,0.029975219,-0.04045782,0.078694716,-0.023078952,0.0105858445,0.0,0.0,0.0,0.028085092,0.055763513,-0.5704319,-0.17710917,0.17511767,0.44630778,-0.13666974,-0.08165289,-0.5616752,-0.2513985,0.097834446,-0.4718281,-0.23466852,0.021914998,-0.014695129,-0.03051068,-0.07091566,0.026520122,0.0020225921,0.0711913,0.02695653,0.062367376,0.052462902,-0.057173308,0.045793448,1.0,-1.0,-1.0,1.0,1.0,-1.0,-1.0,-1.0,-1.0,1.0,-1.0,-1.0,1.0,-1.0,-1.0,1.0,1.0,-1.0,-1.0,-1.0,-1.0,1.0,-1.0,-1.0
2025-06-04 11:52:41.925,0.034139182,0.03972086,0.0016938322,0.07590004,-0.06706418,-0.038411908,0.0,0.0,0.0,0.02817126,0.046570152,-0.56029433,-0.16649441,0.18418305,0.4503445,-0.14764203,-0.094024636,-0.5750087,-0.25034526,0.087750986,-0.47427407,-0.22923344,0.03902252,-0.05596519,0.062528834,-0.025975384,0.0019040715,0.056109205,-0.03573314,0.0328242,-0.04014545,-0.0067090886,0.05377124,0.0730186,1.0,-1.0,-1.0,1.0,1.0,-1.0,-1.0,-1.0,-1.0,1.0,-1.0,-1.0,1.0,-1.0,-1.0,1.0,1.0,-1.0,-1.0,-1.0,-1.0,1.0,-1.0,-1.0
2025-06-04 11:52:41.945,-0.031454552,-0.029907633,-0.03291694,0.07050712,-0.034759033,-0.033367474,0.0,0.0,0.0,0.028232735,0.04337048,-0.55523765,-0.17977518,0.16901952,0.45081696,-0.14714853,-0.08134762,-0.56601214,-0.25346458,0.08436877,-0.4718944,-0.23810624,-0.014150809,0.069971554,-0.018620469,0.005974064,0.01874123,-0.04600939,-0.06039041,-0.011374191,0.045906823,0.035398416,-0.069007486,-0.055342432,1.0,-1.0,-1.0,1.0,1.0,-1.0,-1.0,-1.0,-1.0,1.0,-1.0,-1.0,1.0,-1.0,-1.0,1.0,1.0,-1.0,-1.0,-1.0,-1.0,1.0,-1.0,-1.0
2025-06-04 11:52:41.967,-0.04809822,0.015047757,0.0064284373,0.0118105775,-0.083742775,0.029109247,0.0,0.0,0.0,0.028275311,0.061256576,-0.5652652,-0.1713475,0.18140644,0.4532527,-0.14785898,-0.08059138,-0.56550735,-0.25631446,0.0848161,-0.47475907,-0.24335097,-0.020478345,-0.052946154,0.048851795,0.0055052084,-0.03236545,-0.04931028,0.016873527,-0.009008519,-0.029488284,-0.038671624,-0.02156009,0.045495223,1.0,-1.0,-1.0,1.0,1.0,-1.0,-1.0,-1.0,-1.0,1.0,-1.0,-1.0,1.0,-1.0,-1.0,1.0,1.0,-1.0,-1.0,-1.0,-1.0,1.0,-1.0,-1.0
2025-06-04 11:52:42.053,0.048283294,-0.043330222,-0.043406278,0.033447966,-0.0015911653,-0.036383882,0.0,0.0,0.0,0.028302867,0.050496902,-0.56822836,-0.17827581,0.18330477,0.44369698,-0.14377178,-0.09262699,-0.5702255,-0.2560198,0.091483235,-0.4825661,-0.24458468,-0.0028281843,0.037446912,-0.03704624,-0.041505087,0.059672277,-0.037810884,0.055119656,0.05943509,0.035186343,-0.035238605,0.029501012,-0.0060159424,1.0,-1.0,-1.0,1.0,1.0,-1.0,-1.0,-1.0,-1.0,1.0,-1.0,-1.0,1.0,-1.0,-1.0,1.0,1.0,-1.0,-1.0,-1.0,-1.0,1.0,-1.0,-1.0
2025-06-04 11:52:42.073,0.009759416,0.016468382,-0.038287543,0.057410404,-0.02474351,0.04172683,0.0,0.0,0.0,0.028318066,0.059700485,-0.564385,-0.17619666,0.17390375,0.45115086,-0.1469568,-0.08391873,-0.57417923,-0.2577689,0.09551966,-0.47030377,-0.23877062,-0.0029180974,-0.019966098,0.051203333,0.012721744,0.026504101,-0.069469154,0.015032548,-0.061832644,-0.049663678,0.007841116,0.049067277,-0.0106248725,1.0,-1.0,-1.0,1.0,1.0,-1.0,-1.0,-1.0,-1.0,1.0,-1.0,-1.0,1.0,-1.0,-1.0,1.0,1.0,-1.0,-1.0,-1.0,-1.0,1.0,-1.0,-1.0
2025-06-04 11:52:42.096,0.049323857,0.04760137,0.035965636,0.043802503,-0.035198107,-0.010328694,0.0,0.0,0.0,0.028322995,0.05107363,-0.5670685,-0.17067085,0.17022428,0.43722412,-0.15205477,-0.0845638,-0.5681775,-0.2627181,0.096152075,-0.47879595,-0.22814937,-0.028045367,-0.041490328,-0.06911238,0.069633305,-0.0608624,0.05504413,0.0462938,-0.07332262,-0.06282245,0.056690652,-0.063277185,-0.059639957,1.0,-1.0,-1.0,1.0,1.0,-1.0,-1.0,-1.0,-1.0,1.0,-1.0,-1.0,1.0,-1.0,-1.0,1.0,1.0,-1.0,-1.0,-1.0,-1.0,1.0,-1.0,-1.0
2025-06-04 11:52:42.114,-0.012946761,-0.018779986,-0.013612113,0.013104393,-0.07084789,-0.047476,0.0,0.0,0.0,0.028319554,0.045107264,-0.5565678,-0.18401594,0.16998592,0.4524701,-0.13987778,-0.07763125,-0.57744753,-0.2580753,0.100073785,-0.4787441,-0.23890133,-0.059621602,0.024263151,0.03128738,-0.038868494,-0.034862656,0.016344938,-0.062544145,0.03131087,0.06896893,0.03729119,0.0739576,-0.07296141,1.0,-1.0,-1.0,1.0,1.0,-1.0,-1.0,-1.0,-1.0,1.0,-1.0,-1.0,1.0,-1.0,-1.0,1.0,1.0,-1.0,-1.0,-1.0,-1.0,1.0,-1.0,-1.0
2025-06-04 11:52:42.135,-0.02020666,-0.015420321,0.01315527,0.008742365,-0.015262362,0.029570803,0.0,0.0,0.0,0.028309809,0.05879786,-0.5606864,-0.17575744,0.17074277,0.45237982,-0.13831544,-0.09394743,-0.5730032,-0.25122565,0.08904316,-0.47383276,-0.2308787,0.030884558,-0.056973718,-0.055238985,-0.047137138,-0.008037147,0.054796707,-0.033932183,0.058039185,-0.018060576,-0.04598032,-0.06563312,0.029677873,1.0,-1.0,-1.0,1.0,1.0,-1.0,-1.0,-1.0,-1.0,1.0,-1.0,-1.0,1.0,-1.0,-1.0,1.0,1.0,-1.0,-1.0,-1.0,-1.0,1.0,-1.0,-1.0
2025-06-04 11:52:42.154,-0.029899156,-0.0052146646,-0.032880597,0.08361092,-0.016164668,-0.023282077,0.0,0.0,0.0,0.028295586,0.042447798,-0.5570109,-0.17581798,0.16901919,0.45459425,-0.13867986,-0.082784794,-0.5626793,-0.2505615,0.093082845,-0.48778716,-0.23343116,0.06946832,-0.040895104,-0.040542718,0.00040878868,0.008787689,0.03802549,-0.055303186,-0.0058496264,0.072130516,-0.027242877,-0.055304855,0.017871251,1.0,-1.0,-1.0,1.0,1.0,-1.0,-1.0,-1.0,-1.0,1.0,-1.0,-1.0,1.0,-1.0,-1.0,1.0,1.0,-1.0,-1.0,-1.0,-1.0,1.0,-1.0,-1.0
2025-06-04 11:52:42.174,-0.024055108,0.02053374,0.02889028,0.026076619,-0.04985557,0.005888303,0.0,0.0,0.0,0.02827829,0.05868606,-0.5647706,-0.16798784,0.18100742,0.43606427,-0.14892319,-0.08094652,-0.58062005,-0.25006863,0.08755125,-0.48775244,-0.22766621,-0.03788479,0.016782762,-0.051397882,-0.013816079,0.01642035,0.071135335,0.022129178,0.031265657,0.07108773,0.004455936,0.038921304,0.013185766,1.0,-1.0,-1.0,1.0,1.0,-1.0,-1.0,-1.0,-1.0,1.0,-1.0,-1.0,1.0,-1.0,-1.0,1.0,1.0,-1.0,-1.0,-1.0,-1.0,1.0,-1.0,-1.0
2025-06-04 11:52:42.195,-0.0284428,-0.013435073,-0.0323717,0.07096579,-0.056074608,0.023670794,0.0,0.0,0.0,0.028259141,0.054625373,-0.55839384,-0.17187962,0.16942838,0.44440418,-0.13321814,-0.08241357,-0.57089645,-0.26207963,0.08382881,-0.47344166,-0.23691829,-0.010751657,0.07326846,-0.042027157,-0.02433207,-0.0025765735,-0.008888434,0.054127015,-0.009230272,-0.018367697,-0.042561475,0.053162765,-0.0048540905,1.0,-1.0,-1.0,1.0,1.0,-1.0,-1.0,-1.0,-1.0,1.0,-1.0,-1.0,1.0,-1.0,-1.0,1.0,1.0,-1.0,-1.0,-1.0,-1.0,1.0,-1.0,-1.0
2025-06-04 11:52:42.216,0.0453598,-0.021671547,-0.016968345,0.0757165,-0.039053164,0.036032572,0.0,0.0,0.0,0.02823926,0.051518347,-0.56663543,-0.17298125,0.16959797,0.44057578,-0.13857162,-0.07703486,-0.56260383,-0.2642186,0.0853821,-0.4744197,-0.23616445,-0.07313587,-0.067476794,-0.06872425,-0.07044376,0.045342032,0.04523401,-0.022396855,-0.021474807,0.015213377,-0.07207783,0.07448564,-0.059595842,1.0,-1.0,-1.0,1.0,1.0,-1.0,-1.0,-1.0,-1.0,1.0,-1.0,-1.0,1.0,-1.0,-1.0,1.0,1.0,-1.0,-1.0,-1.0,-1.0,1.0,-1.0,-1.0
2025-06-04 11:52:42.235,0.0020422307,0.029746292,-0.018121365,0.072124444,-0.034341257,-0.04260552,0.0,0.0,0.0,0.028219612,0.04428285,-0.5700099,-0.17701344,0.18462579,0.4360115,-0.1379528,-0.09500538,-0.5717707,-0.25273103,0.09068163,-0.4787821,-0.23667356,0.00073348486,-0.02093024,0.064266175,-0.037762668,-0.04354768,-0.0728882,-0.02642039,-0.024775183,-0.07030106,-0.005040259,-0.029593673,-0.07042981,1.0,-1.0,-1.0,1.0,1.0,-1.0,-1.0,-1.0,-1.0,1.0,-1.0,-1.0,1.0,-1.0,-1.0,1.0,1.0,-1.0,-1.0,-1.0,-1.0,1.0,-1.0,-1.0
2025-06-04 11:52:42.254,0.01773179,-0.040694673,-0.0140293725,0.023777738,-0.010337305,-0.0009573744,0.0,0.0,0.0,0.02820095,0.042545307,-0.5657174,-0.17337096,0.17067729,0.43923497,-0.14611945,-0.09450506,-0.56354165,-0.25732645,0.09367848,-0.4869433,-0.230327,-0.02900651,-0.033573043,0.06843231,0.057441894,-0.027123725,-0.0037710245,0.06290478,-0.07496981,-0.03572838,0.050192468,0.038677342,-0.0013985758,1.0,-1.0,-1.0,1.0,1.0,-1.0,-1.0,-1.0,-1.0,1.0,-1.0,-1.0,1.0,-1.0,-1.0,1.0,1.0,-1.0,-1.0,-1.0,-1.0,1.0,-1.0,-1.0
2025-06-04 11:52:42.274,-0.033051606,-0.04415068,-0.02401255,0.054251466,-0.06985969,0.0022245878,0.0,0.0,0.0,0.028183797,0.04447935,-0.5644418,-0.1750469,0.16976793,0.44830692,-0.13577786,-0.0951473,-0.57310796,-0.25177503,0.094949044,-0.48738456,-0.24450925,0.05918007,0.009306073,0.06774904,-0.07213549,0.035804026,-0.02581536,0.0005193719,-0.07072286,0.014294473,0.048996028,-0.019479495,-0.026157094,1.0,-1.0,-1.0,1.0,1.0,-1.0,-1.0,-1.0,-1.0,1.0,-1.0,-1.0,1.0,-1.0,-1.0,1.0,1.0,-1.0,-1.0,-1.0,-1.0,1.0,-1.0,-1.0
2025-06-04 11:52:42.294,0.04908919,-0.03826272,0.036549307,0.046959978,-0.006701972,0.03713172,0.0,0.0,0.0,0.02816847,0.062463112,-0.5587891,-0.17714038,0.1783391,0.43459004,-0.13557728,-0.09137068,-0.58071876,-0.25897953,0.09228957,-0.48234397,-0.24399467,0.026598463,0.06523648,0.008674991,0.041368987,-0.031082246,-0.063517764,-0.035528246,0.009783388,0.057338696,0.047175765,0.016980968,0.061573375,1.0,-1.0,-1.0,1.0,1.0,-1.0,-1.0,-1.0,-1.0,1.0,-1.0,-1.0,1.0,-1.0,-1.0,1.0,1.0,-1.0,-1.0,-1.0,-1.0,1.0,-1.0,-1.0
2025-06-04 11:52:42.315,-0.01429489,0.00014754849,0.033757363,0.04771067,-0.055109773,0.03150887,0.0,0.0,0.0,0.028155109,0.062134106,-0.56798065,-0.17089398,0.182868,0.4485113,-0.13354145,-0.09380828,-0.58148867,-0.25048342,0.084155716,-0.48206684,-0.24407452,0.04893217,0.06451169,-0.03056797,-0.06451466,-0.016947143,-0.011791334,0.0738118,-0.025026679,-0.04608452,0.042718094,0.073369004,0.034525912,1.0,-1.0,-1.0,1.0,1.0,-1.0,-1.0,-1.0,-1.0,1.0,-1.0,-1.0,1.0,-1.0,-1.0,1.0,1.0,-1.0,-1.0,-1.0,-1.0,1.0,-1.0,-1.0
2025-06-04 11:52:42.335,0.012366627,-0.023791961,0.019082364,-0.0030809564,-0.055851117,0.032453626,0.0,0.0,0.0,0.028143737,0.05316068,-0.5677247,-0.18029791,0.1683435,0.44461754,-0.15245165,-0.08642932,-0.5716884,-0.250317,0.10116754,-0.48173475,-0.23340718,0.009433121,0.022417413,-0.036949635,-0.042202525,-0.048646234,-0.032257877,0.066124395,-0.05131437,-0.032001413,0.02983217,0.07119297,0.046694994,1.0,-1.0,-1.0,1.0,1.0,-1.0,-1.0,-1.0,-1.0,1.0,-1.0,-1.0,1.0,-1.0,-1.0,1.0,1.0,-1.0,-1.0,-1.0,-1.0,1.0,-1.0,-1.0
2025-06-04 11:52:42.355,-0.012521801,-0.009905012,-0.007914982,0.045854192,-0.05857728,-0.011704088,0.0,0.0,0.0,0.028134275,0.047009576,-0.5548422,-0.17232393,0.17329569,0.43463165,-0.13536246,-0.07824229,-0.56925744,-0.26483205,0.085495,-0.48483336,-0.24691948,-0.06343979,0.06960836,-0.056149103,-0.010270537,-0.06377562,0.014823994,0.002093658,0.030249337,0.013341806,-0.02136674,-0.0566682,-0.04824441,1.0,-1.0,-1.0,1.0,1.0,-1.0,-1.0,-1.0,-1.0,1.0,-1.0,-1.0,1.0,-1.0,-1.0,1.0,1.0,-1.0,-1.0,-1.0,-1.0,1.0,-1.0,-1.0
2025-06-04 11:52:42.376,0.04036807,-0.022936111,0.024658235,0.019177614,-0.028671965,0.00676936,0.0,0.0,0.0,0.028126588,0.04594661,-0.56661904,-0.16985735,0.18254592,0.45069578,-0.14026111,-0.0898656,-0.5788715,-0.25924432,0.09686847,-0.4805336,-0.2440135,0.03380192,0.050459877,0.044039413,-0.07366492,0.0025091255,-0.02154733,0.044148605,-0.050846327,0.00048160317,0.022099216,-0.024813898,0.040692266,1.0,-1.0,-1.0,1.0,1.0,-1.0,-1.0,-1.0,-1.0,1.0,-1.0,-1.0,1.0,-1.0,-1.0,1.0,1.0,-1.0,-1.0,-1.0,-1.0,1.0,-1.0,-1.0
2025-06-04 11:52:42.396,0.03390891,-0.030584076,0.041306607,-0.004757323,-0.08965818,-0.03281136,0.0,0.0,0.0,0.028120503,0.060270533,-0.55984133,-0.1759147,0.16712102,0.44704843,-0.13774858,-0.09190991,-0.5803461,-0.25409856,0.09226605,-0.4755789,-0.24306764,-0.044622682,0.0057143588,-0.046453625,0.07052057,0.028471803,0.06729275,0.05600111,0.067614295,-0.02535326,0.070413195,0.0007987945,0.0033770325,1.0,-1.0,-1.0,1.0,1.0,-1.0,-1.0,-1.0,-1.0,1.0,-1.0,-1.0,1.0,-1.0,-1.0,1.0,1.0,-1.0,-1.0,-1.0,-1.0,1.0,-1.0,-1.0
2025-06-04 11:52:42.417,0.018249834,0.008386352,-0.043556,-0.010366171,-0.026358793,-0.022415984,0.0,0.0,0.0,0.028115826,0.045747876,-0.5740458,-0.18436654,0.16789053,0.43869764,-0.13706857,-0.09355786,-0.5733551,-0.26071072,0.08434513,-0.48231578,-0.23693308,0.048291575,0.068823956,0.0116112195,-0.07373219,-0.018721815,0.07165087,-0.07001392,-0.007966176,-0.009402057,0.033720057,0.04052773,-0.047253814,1.0,-1.0,-1.0,1.0,1.0,-1.0,-1.0,-1.0,-1.0,1.0,-1.0,-1.0,1.0,-1.0,-1.0,1.0,1.0,-1.0,-1.0,-1.0,-1.0,1.0,-1.0,-1.0
2025-06-04 11:52:42.436,-0.0014378873,0.021612493,0.010932226,0.06186108,-0.06587789,-0.03488892,0.0,0.0,0.0,0.02811236,0.04328204,-0.56390935,-0.17526665,0.18046038,0.45260823,-0.13509083,-0.09370268,-0.58273447,-0.2501984,0.10013084,-0.48562667,-0.23664317,0.001948561,-0.0327321,0.07061661,-0.026978936,0.014733755,-0.03687041,-0.05585582,0.0023670557,0.015446059,-0.031310286,0.05031475,0.059654646,1.0,-1.0,-1.0,1.0,1.0,-1.0,-1.0,-1.0,-1.0,1.0,-1.0,-1.0,1.0,-1.0,-1.0,1.0,1.0,-1.0,-1.0,-1.0,-1.0,1.0,-1.0,-1.0
2025-06-04 11:52:42.455,-0.023312462,0.0037843364,-0.028952584,0.06067936,-0.05260274,0.0018038001,0.0,0.0,0.0,0.028109908,0.05542097,-0.5655663,-0.17177984,0.17025384,0.43732744,-0.13785627,-0.092454284,-0.5819082,-0.2491211,0.09784658,-0.48491374,-0.24255924,-0.0046585724,0.0017679917,0.040446147,0.024258139,0.048190482,-0.04773762,0.053642176,0.04390338,0.07411357,0.033465818,-0.058673777,-0.007309783,1.0,-1.0,-1.0,1.0,1.0,-1.0,-1.0,-1.0,-1.0,1.0,-1.0,-1.0,1.0,-1.0,-1.0,1.0,1.0,-1.0,-1.0,-1.0,-1.0,1.0,-1.0,-1.0
2025-06-04 11:52:42.476,0.035821494,0.01623281,-0.016615553,0.08499579,-0.051618494,-0.043840542,0.0,0.0,0.0,0.028108291,0.057103813,-0.5630181,-0.18205848,0.1743866,0.44576132,-0.15077578,-0.09070833,-0.5813828,-0.2555302,0.09400164,-0.48459578,-0.23051074,0.057650913,0.022537874,-0.05125357,-0.0016616469,-0.004617195,0.03288554,0.060193844,0.049686696,-0.061314866,-0.049730837,0.021715686,-0.057357598,1.0,-1.0,-1.0,1.0,1.0,-1.0,-1.0,-1.0,-1.0,1.0,-1.0,-1.0,1.0,-1.0,-1.0,1.0,1.0,-1.0,-1.0,-1.0,-1.0,1.0,-1.0,-1.0
2025-06-04 11:52:42.496,0.035381272,-0.0059144828,-0.0017744396,0.013866367,-0.090120606,-0.042162076,0.0,0.0,0.0,0.028107343,0.049558345,-0.55869454,-0.17237219,0.17886996,0.44462475,-0.13558173,-0.09473259,-0.56643856,-0.2537498,0.08651579,-0.4731651,-0.23494671,-0.034377474,-0.018339202,0.013706992,0.004313634,-0.04024587,-0.07479053,-0.06604656,0.058765754,0.014580162,0.023226945,0.04109119,0.031860806,1.0,-1.0,-1.0,1.0,1.0,-1.0,-1.0,-1.0,-1.0,1.0,-1.0,-1.0,1.0,-1.0,-1.0,1.0,1.0,-1.0,-1.0,-1.0,-1.0,1.0,-1.0,-1.0
2025-06-04 11:52:42.518,0.0064873723,-0.024518175,-0.005052438,0.0063569546,-0.045826156,-0.015311577,0.0,0.0,0.0,0.028106915,0.04709201,-0.5726882,-0.17673412,0.16847415,0.443575,-0.13291836,-0.0939257,-0.5693993,-0.25581965,0.0854069,-0.4795495,-0.24771671,-0.032998666,-0.07397784,-0.05690384,-0.0007490111,0.050680872,0.016809361,0.06702175,0.06756792,-0.042693764,0.053029697,0.033616774,0.045437034,1.0,-1.0,-1.0,1.0,1.0,-1.0,-1.0,-1.0,-1.0,1.0,-1.0,-1.0,1.0,-1.0,-1.0,1.0,1.0,-1.0,-1.0,-1.0,-1.0,1.0,-1.0,-1.0
2025-06-04 11:52:42.536,0.0432556,-0.014816636,-0.040125832,0.062136598,-0.030904645,0.039627988,0.0,0.0,0.0,0.028106878,0.055406436,-0.5571721,-0.17278658,0.18363981,0.44556955,-0.14206642,-0.089603975,-0.5715309,-0.25064275,0.09182831,-0.47307363,-0.23972972,0.009708962,-0.024446128,-0.05187443,0.01617272,0.06251353,0.019498724,-0.06613273,-0.005584452,0.05651473,-0.015959002,-0.024966162,0.07296298,1.0,-1.0,-1.0,1.0,1.0,-1.0,-1.0,-1.0,-1.0,1.0,-1.0,-1.0,1.0,-1.0,-1.0,1.0,1.0,-1.0,-1.0,-1.0,-1.0,1.0,-1.0,-1.0
2025-06-04 11:52:42.556,-0.03506139,0.014603943,-0.007912111,0.076395504,-0.08690454,0.026476027,0.0,0.0,0.0,0.028107123,0.054706734,-0.5678545,-0.16689631,0.18033239,0.4345078,-0.14475769,-0.088601395,-0.57142854,-0.26281846,0.088146575,-0.4865096,-0.23165457,-0.026928043,0.05633006,-0.029069437,0.007589426,0.07045102,0.020117711,-0.0193661,-0.044951312,0.045323696,-0.02836054,-0.05689165,-0.041566815,1.0,-1.0,-1.0,1.0,1.0,-1.0,-1.0,-1.0,-1.0,1.0,-1.0,-1.0,1.0,-1.0,-1.0,1.0,1.0,-1.0,-1.0,-1.0,-1.0,1.0,-1.0,-1.0
2025-06-04 11:52:42.576,0.039244443,0.043825258,-0.014737919,0.071342744,-0.0473326,-0.013822547,0.0,0.0,0.0,0.028107561,0.044158597,-0.57364845,-0.17065328,0.1806725,0.43352488,-0.13736348,-0.09000274,-0.57999676,-0.2621135,0.085193194,-0.4776613,-0.24298877,-0.037466586,0.028527377,-0.0028734007,-0.062324375,0.0145325465,-0.013237385,0.05881354,0.07045679,0.0017439557,-0.03992731,-0.059940238,0.060002703,1.0,-1.0,-1.0,1.0,1.0,-1.0,-1.0,-1.0,-1.0,1.0,-1.0,-1.0,1.0,-1.0,-1.0,1.0,1.0,-1.0,-1.0,-1.0,-1.0,1.0,-1.0,-1.0
2025-06-04 11:52:42.596,0.027739365,-0.0402179,0.016852789,0.019454563,-0.08841795,0.033905912,0.0,0.0,0.0,0.028108116,0.04461713,-0.56767875,-0.18092115,0.17681047,0.44825378,-0.15121856,-0.09563751,-0.575478,-0.25391972,0.10072999,-0.46953294,-0.23434389,0.068936646,-0.02115626,-0.012614932,0.03041629,-0.026498623,-0.054413803,0.052399106,0.023545673,0.06284867,-0.04308111,0.05756206,-0.059381135,1.0,-1.0,-1.0,1.0,1.0,-1.0,-1.0,-1.0,-1.0,1.0,-1.0,-1.0,1.0,-1.0,-1.0,1.0,1.0,-1.0,-1.0,-1.0,-1.0,1.0,-1.0,-1.0
2025-06-04 11:52:42.619,0.0424531,0.040944107,0.025483897,0.0046252054,-0.03278583,-0.014836752,0.0,0.0,0.0,0.028108733,0.047466088,-0.5714856,-0.1668487,0.1805861,0.45051625,-0.13357331,-0.09445451,-0.57619035,-0.2609716,0.08659332,-0.48112836,-0.23087186,-0.021774014,0.074142225,0.058264524,-0.009918589,-0.04890739,-0.012889166,0.061502576,0.068010345,0.064910404,-0.03051275,0.06551746,-0.032205593,1.0,-1.0,-1.0,1.0,1.0,-1.0,-1.0,-1.0,-1.0,1.0,-1.0,-1.0,1.0,-1.0,-1.0,1.0,1.0,-1.0,-1.0,-1.0,-1.0,1.0,-1.0,-1.0
2025-06-04 11:52:42.636,-0.048456308,-0.0012632483,0.0002583127,0.00933079,-0.02493007,0.030113844,0.0,0.0,0.0,0.028109364,0.06203545,-0.5654562,-0.16928811,0.17275389,0.43401814,-0.1418852,-0.09257727,-0.5794814,-0.25124624,0.10118341,-0.48106748,-0.23141836,-0.005033139,-0.0072484226,0.038040295,-0.011232484,-0.06698459,0.0110748205,-0.0049301973,0.024236232,0.03055008,-0.057924215,-0.04963912,0.054981835,1.0,-1.0,-1.0,1.0,1.0,-1.0,-1.0,-1.0,-1.0,1.0,-1.0,-1.0,1.0,-1.0,-1.0,1.0,1.0,-1.0,-1.0,-1.0,-1.0,1.0,-1.0,-1.0
2025-06-04 11:52:42.657,-0.038399614,-0.0124760335,-0.030564502,0.008932374,-0.02456741,-0.008939723,0.0,0.0,0.0,0.02810998,0.055812042,-0.5585904,-0.16687746,0.17651987,0.4464746,-0.14043836,-0.09363162,-0.5636825,-0.26778138,0.09461532,-0.47835287,-0.24474154,-0.009019065,0.011972229,0.030716958,-0.04432467,-0.0064234133,0.0113800755,-0.061259028,-0.021032998,-0.030369693,-0.07118864,0.023771284,0.05732078,1.0,-1.0,-1.0,1.0,1.0,-1.0,-1.0,-1.0,-1.0,1.0,-1.0,-1.0,1.0,-1.0,-1.0,1.0,1.0,-1.0,-1.0,-1.0,-1.0,1.0,-1.0,-1.0
2025-06-04 11:52:42.677,0.016390644,-0.006362357,0.01476844,0.006787668,-0.021248749,-0.024967823,0.0,0.0,0.0,0.028110558,0.05362269,-0.56689733,-0.17309813,0.17886847,0.43513045,-0.14698578,-0.0849453,-0.5817608,-0.26518387,0.10148313,-0.47204512,-0.24824679,-0.056993358,0.037556775,-0.04204233,-0.04759058,-0.03691684,-0.04359544,-0.07403686,0.010200867,-0.06632724,-0.018263297,-0.04901092,0.07262485,1.0,-1.0,-1.0,1.0,1.0,-1.0,-1.0,-1.0,-1.0,1.0,-1.0,-1.0,1.0,-1.0,-1.0,1.0,1.0,-1.0,-1.0,-1.0,-1.0,1.0,-1.0,-1.0
2025-06-04 11:52:42.696,0.016253946,-0.016921414,0.005974818,0.08038784,-0.055082686,-0.0057890736,0.0,0.0,0.0,0.028111083,0.045114968,-0.5606152,-0.17240703,0.18566388,0.4362927,-0.14092807,-0.092133686,-0.56560683,-0.2670663,0.086683385,-0.47182244,-0.23577462,-0.034576222,-0.007818225,0.052408304,-0.037200395,-0.010744987,0.032110985,0.06052647,0.018526759,-0.069363624,0.06669177,-0.054814335,0.06132846,1.0,-1.0,-1.0,1.0,1.0,-1.0,-1.0,-1.0,-1.0,1.0,-1.0,-1.0,1.0,-1.0,-1.0,1.0,1.0,-1.0,-1.0,-1.0,-1.0,1.0,-1.0,-1.0
2025-06-04 11:52:42.718,-0.014254023,-0.04390403,0.047015037,0.04750479,-0.06877824,0.0010422758,0.0,0.0,0.0,0.028111547,0.04552994,-0.5557596,-0.17816092,0.1764873,0.4496044,-0.13696998,-0.087557755,-0.5634569,-0.26549917,0.09651806,-0.48217496,-0.24177468,0.06709345,0.069864646,0.04255474,0.05538131,0.004005207,-0.0644745,-0.024598313,0.030651765,0.03862133,-0.019429624,0.057759024,-0.035139218,1.0,-1.0,-1.0,1.0,1.0,-1.0,-1.0,-1.0,-1.0,1.0,-1.0,-1.0,1.0,-1.0,-1.0,1.0,1.0,-1.0,-1.0,-1.0,-1.0,1.0,-1.0,-1.0
2025-06-04 11:52:42.738,0.030057313,-0.034118153,0.02540456,0.049034324,-0.014406569,0.0022862249,0.0,0.0,0.0,0.028111946,0.06174688,-0.570742,-0.17948283,0.18031414,0.4516837,-0.14828566,-0.09409734,-0.5699073,-0.25794134,0.08551304,-0.47759914,-0.2346329,-0.018057559,-0.05995692,-0.044312585,0.027946366,-0.05203788,-0.061804134,-0.06927344,0.064527445,0.03293568,-0.04683502,0.017986715,0.055235967,1.0,-1.0,-1.0,1.0,1.0,-1.0,-1.0,-1.0,-1.0,1.0,-1.0,-1.0,1.0,-1.0,-1.0,1.0,1.0,-1.0,-1.0,-1.0,-1.0,1.0,-1.0,-1.0
2025-06-04 11:52:42.757,-0.042486824,0.010957101,-0.0065339445,0.037661374,-0.09820372,0.041731592,0.0,0.0,0.0,0.028112281,0.04519196,-0.5659015,-0.17234065,0.18608443,0.4449286,-0.14046809,-0.08410238,-0.57360923,-0.25504184,0.095703214,-0.4777393,-0.23197094,-0.05502791,-0.022664608,0.06853036,-0.05741927,-0.002835335,0.07023522,0.029519182,0.028704446,-0.06857875,0.03171077,-0.06683712,-0.033552535,1.0,-1.0,-1.0,1.0,1.0,-1.0,-1.0,-1.0,-1.0,1.0,-1.0,-1.0,1.0,-1.0,-1.0,1.0,1.0,-1.0,-1.0,-1.0,-1.0,1.0,-1.0,-1.0
2025-06-04 11:52:42.778,-0.021999087,0.046779957,0.0065962123,-8.19704e-05,-0.060103342,-0.030400122,0.0,0.0,0.0,0.028112557,0.044395987,-0.55617607,-0.165818,0.1668567,0.4441735,-0.13374601,-0.082552455,-0.5653256,-0.25250724,0.08941379,-0.4746655,-0.24413037,0.027651079,-0.047725927,0.05761417,0.0073203943,-0.06678299,0.06613723,0.039687112,-0.04844693,0.034699854,0.022620931,-0.022053877,-0.058436237,1.0,-1.0,-1.0,1.0,1.0,-1.0,-1.0,-1.0,-1.0,1.0,-1.0,-1.0,1.0,-1.0,-1.0,1.0,1.0,-1.0,-1.0,-1.0,-1.0,1.0,-1.0,-1.0
2025-06-04 11:52:42.797,-0.026723044,-0.021157311,0.022251075,0.05227357,-0.08856354,0.03914922,0.0,0.0,0.0,0.028112775,0.061410688,-0.57116765,-0.17342058,0.184249,0.44035944,-0.15251325,-0.09499895,-0.5708802,-0.25974178,0.097255625,-0.4804514,-0.23368874,0.006868809,0.03710178,0.031007739,-0.0067890445,-0.06404742,-0.014540344,-0.05014843,-0.06711487,-0.04293209,-0.03780215,-0.03180091,-0.033545278,1.0,-1.0,-1.0,1.0,1.0,-1.0,-1.0,-1.0,-1.0,1.0,-1.0,-1.0,1.0,-1.0,-1.0,1.0,1.0,-1.0,-1.0,-1.0,-1.0,1.0,-1.0,-1.0
