openverse-orca/OrcaGym/log/simulation_log_20250609_092130.csv
timestamp,imu_angle_roll,imu_angle_pitch,imu_angle_yaw,imu_angular_velocity_roll,imu_angular_velocity_pitch,imu_angular_velocity_yaw,imu_acc_x,imu_acc_y,imu_acc_z,fl_joint1_pos,fl_joint1_vel,fl_joint1_torque,fl_joint2_pos,fl_joint2_vel,fl_joint2_torque,fl_joint3_pos,fl_joint3_vel,fl_joint3_torque,fr_joint1_pos,fr_joint1_vel,fr_joint1_torque,fr_joint2_pos,fr_joint2_vel,fr_joint2_torque,fr_joint3_pos,fr_joint3_vel,fr_joint3_torque,hl_joint1_pos,hl_joint1_vel,hl_joint1_torque,hl_joint2_pos,hl_joint2_vel,hl_joint2_torque,hl_joint3_pos,hl_joint3_vel,hl_joint3_torque,hr_joint1_pos,hr_joint1_vel,hr_joint1_torque,hr_joint2_pos,hr_joint2_vel,hr_joint2_torque,hr_joint3_pos,hr_joint3_vel,hr_joint3_torque,fl_force_x,fl_force_y,fl_force_z,fr_force_x,fr_force_y,fr_force_z,hl_force_x,hl_force_y,hl_force_z,hr_force_x,hr_force_y,hr_force_z,fl_hip_action,fl_thigh_action,fl_calf_action,fr_hip_action,fr_thigh_action,fr_calf_action,hl_hip_action,hl_thigh_action,hl_calf_action,hr_hip_action,hr_thigh_action,hr_calf_action
2025-06-09 09:21:30.982,0.018009521,0.04987376,0.044022143,0.040577915,0.049872633,-0.028850436,0.22793485,-0.97719574,0.0,0.0,-0.0014932024,-0.00032348483,0.0023162018,0.0024005324,0.0025119113,-0.006255284,0.00067088037,-0.007844945,0.00836415,-0.0022149615,0.0057158787,0.008683653,-0.001184489,-0.061352722,0.00550529,0.030019565,-0.04979573,0.060271483,-0.004795117,-0.053822387,0.01710269,0.048298214,0.042251542,0.05259631,0.0,0.0,0.0,0.0,0.0,0.0,0.0,0.0,0.0,0.0,0.0,0.0,1.2564014,0.07114365,-1.230213,-0.4282756,0.74043596,-0.3561241,-0.053376533,-0.76610273,-1.238488,-0.47273174,-0.3527989,0.33929348
2025-06-09 09:21:30.989,-0.022327732,-0.02734745,0.005230011,0.025252812,-0.030770166,-0.009519939,0.0,0.0,0.0,0.0,0.004806518,0.00502599,-0.040255982,-0.0018259274,0.027551103,-0.013068537,-0.006802934,-0.029958853,-0.031508807,-0.009546227,-0.010242539,0.0024990784,0.06403726,-0.014144429,-0.13492905,-0.014501324,0.080083124,0.0036298945,0.029624011,-0.15828995,-0.0624607,-0.051493697,-0.119125955,-0.02533966,1.2564014,0.07114365,-1.230213,-0.4282756,0.74043596,-0.3561241,-0.053376533,-0.76610273,-1.238488,-0.47273174,-0.3527989,0.33929348,1.7881972,0.21755023,-0.9153143,0.51635236,0.8932687,-0.83560723,-0.8335938,-0.92079574,-0.531181,0.2703627,-0.84711057,-0.4892835
2025-06-09 09:21:31.009,-0.038595304,-0.08959464,0.02502103,-0.012632297,0.015137107,-0.014332236,0.0,0.0,0.0,0.00023470342,0.022098595,0.0063401414,-0.05386712,0.0016348797,0.07612177,-0.030448847,-0.006574252,-0.0760185,-0.04744368,-0.009283959,-0.054834936,-0.0045345603,0.050310936,-0.069721386,0.016564704,-0.025951171,0.042554136,-0.12740956,-0.034863766,-0.09613442,-0.0555928,0.021709075,-0.06317027,-0.0056497836,1.7881972,0.21755023,-0.9153143,0.51635236,0.8932687,-0.83560723,-0.8335938,-0.92079574,-0.531181,0.2703627,-0.84711057,-0.4892835,2.0,-0.17610347,-2.0,1.5600133,1.0679511,0.3389951,-2.0,-0.3648014,2.0,0.10866557,-0.22478294,-2.0
2025-06-09 09:21:31.032,-0.027993225,-0.07925615,-0.07436349,-0.007348849,0.052201733,0.005891772,0.0,0.0,0.0,0.00034842256,0.040384382,-0.009646527,-0.04392429,0.017305594,0.0944974,-0.019215297,-0.005881478,-0.106776826,0.016232014,0.013338962,-0.07358888,-0.026876092,0.031082552,-0.010860686,0.1050634,0.010823758,-0.04389953,0.122766726,-0.032009058,-0.04561369,0.09977926,0.053159207,-0.010070165,-0.015889958,2.0,-0.17610347,-2.0,1.5600133,1.0679511,0.3389951,-2.0,-0.3648014,2.0,0.10866557,-0.22478294,-2.0,2.0,0.35047275,-2.0,2.0,0.94077903,2.0,-2.0,-0.39676923,2.0,-2.0,-1.9245412,-2.0
2025-06-09 09:21:31.049,-0.07443417,-0.042219438,-0.009740836,0.02150635,-0.02218305,-0.02471988,0.0,0.0,0.0,0.00052297686,0.029194396,-0.03848103,-0.0022285243,0.031483736,0.08959757,0.0434611,-0.03972403,-0.10496412,0.075152434,0.012800339,-0.11281473,0.003500046,-0.059782613,-0.08110369,0.1263559,0.10942208,0.049901303,0.17179744,-0.11198896,0.07586753,0.15618545,0.02670934,-0.08185819,0.123536795,2.0,0.35047275,-2.0,2.0,0.94077903,2.0,-2.0,-0.39676923,2.0,-2.0,-1.9245412,-2.0,2.0,-0.47014385,-2.0,2.0,1.414261,1.4251853,-2.0,-0.56003445,2.0,-2.0,-1.7090421,-2.0
2025-06-09 09:21:31.069,-0.11402231,0.021042386,0.014993547,0.0789949,0.028854677,-0.023005007,0.0,0.0,0.0,0.000842906,0.036556643,-0.05138837,0.017659009,0.049812615,0.14210066,0.086193606,-0.047673427,-0.095927596,0.114276715,0.016124956,-0.16086707,0.06011329,0.048507996,-0.12384861,0.13536112,0.007994791,0.06460045,0.04381444,-0.059355624,-0.030016866,0.16280565,0.038502045,-0.17423715,0.20945098,2.0,-0.47014385,-2.0,2.0,1.414261,1.4251853,-2.0,-0.56003445,2.0,-2.0,-1.7090421,-2.0,2.0,-0.6744864,-2.0,2.0,2.0,0.16883822,-2.0,-0.20986071,2.0,-2.0,-1.3282125,-2.0
2025-06-09 09:21:31.090,-0.07710442,0.069204025,-0.038960323,0.02325033,0.012629936,-0.017935142,0.0,0.0,0.0,0.0013783086,0.029956449,-0.086327195,0.042842288,0.04089645,0.20782083,0.08160112,-0.052899107,-0.08661853,0.14856663,0.016130915,-0.19010653,0.11605327,-0.07052981,-0.029363913,0.12564489,-0.04044327,0.17220116,-0.06706144,-0.04183019,0.022596955,-0.007623954,0.06408697,-0.04796086,0.152816,2.0,-0.6744864,-2.0,2.0,2.0,0.16883822,-2.0,-0.20986071,2.0,-2.0,-1.3282125,-2.0,2.0,-0.24420612,-2.0,2.0,2.0,-0.75579077,-2.0,-0.38860503,2.0,-2.0,-1.5995686,-2.0
2025-06-09 09:21:31.109,-0.139003,0.043425232,-0.0918736,0.04438135,0.0024112773,0.036430303,0.0,0.0,0.0,0.0027359473,0.01569114,-0.0998306,0.05412265,0.062126912,0.2856254,0.024519743,-0.063222766,-0.07751469,0.17520551,0.0009819164,-0.20211253,0.13924165,-0.040870853,-0.06492599,0.07653928,0.06385314,0.10903792,-0.11100156,0.054373175,-0.033561468,0.07705837,-0.01695979,-0.079735346,0.02177361,2.0,-0.24420612,-2.0,2.0,2.0,-0.75579077,-2.0,-0.38860503,2.0,-2.0,-1.5995686,-2.0,2.0,0.23193322,-2.0,2.0,1.8577393,-0.873461,-2.0,-0.73206484,2.0,-2.0,-1.983929,-2.0
2025-06-09 09:21:31.132,-0.19037569,-0.016841596,-0.012618244,0.097065315,-0.05365235,0.027222903,0.0,0.0,0.0,0.004518871,-0.0027211322,-0.12278494,0.06246843,0.050513737,0.31915087,-0.010623251,-0.062448177,-0.07298537,0.18296537,0.01013762,-0.2341733,0.1673155,0.010161449,0.008462042,-0.07459325,-0.049865287,0.086803414,-0.1433175,-0.03567854,-0.003434431,-0.005428453,-0.0705712,-0.06317569,0.101775534,2.0,0.23193322,-2.0,2.0,1.8577393,-0.873461,-2.0,-0.73206484,2.0,-2.0,-1.983929,-2.0,2.0,-0.10927095,-2.0,2.0,2.0,-0.5283946,-2.0,-0.89444774,2.0,-2.0,-1.4359456,-2.0
2025-06-09 09:21:31.149,-0.034986243,0.049220316,-0.031279854,0.028159816,-0.07236949,0.033685975,0.0,0.0,0.0,0.0059492155,-0.00053371367,-0.11841347,0.05547514,0.048754495,0.34884503,-0.038191464,-0.059512448,-0.09797418,0.19832706,0.001184013,-0.23713534,0.17579322,-0.040281285,0.03539902,-0.05014088,0.010421148,0.05292307,-0.06331799,0.0023031123,-0.03299739,0.0042515127,-8.5032116e-05,0.002105271,0.051473014,2.0,-0.10927095,-2.0,2.0,2.0,-0.5283946,-2.0,-0.89444774,2.0,-2.0,-1.4359456,-2.0,2.0,-0.25574797,-2.0,2.0,2.0,-0.09493531,-2.0,-0.709963,2.0,-2.0,-1.4539037,-2.0
2025-06-09 09:21:31.170,-0.016503131,0.051031042,-0.03618664,0.0875386,-0.04624136,-0.0349496,0.0,0.0,0.0,0.007369617,0.00027770095,-0.13221166,0.04724574,0.052556504,0.3530141,-0.02635866,-0.06002046,-0.1051139,0.19592409,-0.0008134132,-0.24993604,0.17597678,-0.070227444,-0.00741717,0.034096938,0.03187796,0.044656415,0.013835001,0.048503604,0.040238257,0.049960457,-0.018637948,-0.04953479,-0.08045948,2.0,-0.25574797,-2.0,2.0,2.0,-0.09493531,-2.0,-0.709963,2.0,-2.0,-1.4539037,-2.0,2.0,-0.26227373,-2.0,2.0,2.0,-0.43538588,-2.0,-0.5299425,2.0,-2.0,-1.6023526,-2.0
2025-06-09 09:21:31.190,-0.06562818,0.008230237,-0.0026980012,0.10266087,-0.07054124,0.004990501,0.0,0.0,0.0,0.008770432,-0.0119647095,-0.12672207,0.048463453,0.05388794,0.3641233,-0.04065092,-0.05453154,-0.105686694,0.20866725,0.008740121,-0.24752629,0.15195936,-0.021552736,-0.061467547,0.02724996,-0.06721159,0.027875049,-0.020341685,0.02221044,0.04824702,-0.022932004,0.040407367,0.002530976,0.02138956,2.0,-0.26227373,-2.0,2.0,2.0,-0.43538588,-2.0,-0.5299425,2.0,-2.0,-1.6023526,-2.0,2.0,-0.38617405,-2.0,2.0,2.0,-0.91854167,-2.0,-0.63698775,2.0,-2.0,-1.3210828,-2.0
2025-06-09 09:21:31.210,0.044599716,0.05075174,-0.03677299,0.0791016,0.006040316,0.0026979926,0.0,0.0,0.0,0.009748965,-0.016384298,-0.1400303,0.021996163,0.05649598,0.37401342,-0.058292493,-0.055175338,-0.10195918,0.20126395,0.015799187,-0.22944675,0.15511069,0.05591534,0.047812875,0.020062286,-0.07017343,-0.043205064,-0.07388048,-0.05783084,0.058983263,-0.05778467,-0.05318252,-0.044160333,-0.024413478,2.0,-0.38617405,-2.0,2.0,2.0,-0.91854167,-2.0,-0.63698775,2.0,-2.0,-1.3210828,-2.0,2.0,-0.17569982,-2.0,2.0,2.0,-1.0787913,-2.0,-0.5467642,2.0,-2.0,-1.5796205,-2.0
2025-06-09 09:21:31.231,0.04086011,-0.00026881075,-0.04218745,0.06420083,-0.025138421,0.046143666,0.0,0.0,0.0,0.010581264,-0.014331836,-0.13358617,0.015850585,0.06593455,0.3882387,-0.07800072,-0.057054747,-0.10237503,0.2039723,0.0045430535,-0.2360534,0.14198929,-0.03123825,0.025858289,-0.0061721723,-0.027712433,-0.03109441,0.00997915,0.036594182,-0.027428553,0.06413519,-0.022446156,-0.0036204997,-0.06321179,2.0,-0.17569982,-2.0,2.0,2.0,-1.0787913,-2.0,-0.5467642,2.0,-2.0,-1.5796205,-2.0,1.6871651,-0.16483243,-2.0,2.0,2.0,-0.9327312,-2.0,-0.7527674,2.0,-2.0,-1.4824396,-2.0
2025-06-09 09:21:31.250,0.023424264,0.05133238,0.018135704,0.02161241,-0.056257077,0.037635814,0.0,0.0,0.0,0.011036217,-0.010430861,-0.14911994,0.022407439,0.06363542,0.37563962,-0.09580106,-0.056217276,-0.11530794,0.20082043,0.013633686,-0.22788186,0.124661714,0.02093413,-0.015974253,-0.07947173,0.07102713,-0.057567477,0.005556188,0.05978531,-0.035454437,0.060513683,-0.043407347,-0.033909712,-0.08367854,1.6871651,-0.16483243,-2.0,2.0,2.0,-0.9327312,-2.0,-0.7527674,2.0,-2.0,-1.4824396,-2.0,0.9756827,-0.3512882,-2.0,2.0,2.0,-0.80451685,-2.0,-0.727485,2.0,-2.0,-0.9917825,-2.0
2025-06-09 09:21:31.270,0.08406434,0.047162082,-0.06715748,0.09059468,-0.011635774,-0.038697954,0.0,0.0,0.0,0.011143117,-0.020189665,-0.14232947,0.0069799605,0.056425672,0.3886278,-0.082827106,-0.051548924,-0.11605191,0.20673285,0.0043898076,-0.22893761,0.10680172,-0.0025441602,0.053030707,-0.0641401,0.006273064,-0.071018256,0.049219556,-0.015191334,-0.0046899575,0.036469564,0.045458335,0.038644757,-0.03157983,0.9756827,-0.3512882,-2.0,2.0,2.0,-0.80451685,-2.0,-0.727485,2.0,-2.0,-0.9917825,-2.0,0.4237357,-0.13632701,-2.0,2.0,1.7814586,-1.1150522,-2.0,-0.30362433,2.0,-2.0,-1.8769939,-2.0
2025-06-09 09:21:31.290,-0.03461842,0.053680774,0.0511082,0.061794225,-0.0638695,0.03492228,0.0,0.0,0.0,0.011477156,-0.024824344,-0.14944075,-0.0034264962,0.06486554,0.37656462,-0.10309397,-0.052798618,-0.112618096,0.20602083,0.0071179643,-0.22792988,0.0968178,-0.05337342,0.002480718,0.04410434,-0.056913115,-0.042144626,-0.077279225,-0.047371507,0.05300328,-0.0513649,-0.045543183,-0.05820583,-0.099285565,0.4237357,-0.13632701,-2.0,2.0,1.7814586,-1.1150522,-2.0,-0.30362433,2.0,-2.0,-1.8769939,-2.0,-1.285115,-0.29215464,-2.0,2.0,2.0,-2.0,-2.0,-0.39320096,2.0,-2.0,-1.1609725,-2.0
2025-06-09 09:21:31.310,-0.009854474,0.13863623,0.033002406,0.06296749,-0.0942129,0.013217058,0.0,0.0,0.0,0.011260014,-0.022305015,-0.14406659,-0.013457994,0.056374323,0.37044704,-0.12147189,-0.057736933,-0.08107308,0.2027354,-0.0024410633,-0.22155449,0.07465356,-0.030422272,0.022301862,0.03539154,-0.031089863,-0.0052002077,-0.01612096,0.042639785,0.035154853,0.07364159,0.0031036239,0.02538699,-0.09124086,-1.285115,-0.29215464,-2.0,2.0,2.0,-2.0,-2.0,-0.39320096,2.0,-2.0,-1.1609725,-2.0,-2.0,-0.20839925,-2.0,2.0,2.0,-2.0,-2.0,-0.10670675,2.0,-2.0,-1.6360936,-2.0
2025-06-09 09:21:31.331,-0.09993106,0.14550926,-0.040771272,0.07700001,-0.1043902,0.019801185,0.0,0.0,0.0,0.011240578,-0.036060564,-0.15325353,-0.011389622,0.04886149,0.37427983,-0.15821558,-0.07199174,-0.07754158,0.21365,-0.007582383,-0.21449663,0.05801879,0.0144542735,-0.07146716,-0.0003341326,-0.065454714,-0.013231364,-0.107994355,0.06255877,-0.0037824071,0.05529696,-0.10386812,0.017236607,0.03567086,-2.0,-0.20839925,-2.0,2.0,2.0,-2.0,-2.0,-0.10670675,2.0,-2.0,-1.6360936,-2.0,-2.0,0.11004331,-2.0,2.0,2.0,-2.0,-2.0,-0.011541199,2.0,-2.0,-2.0,-2.0
2025-06-09 09:21:31.350,-0.07901393,0.04134748,0.03846243,0.01931006,-0.06215818,0.00041555922,0.0,0.0,0.0,0.011442876,-0.046730876,-0.15635493,-0.013799885,0.04262329,0.3819178,-0.16367832,-0.05951478,-0.038078677,0.20184243,-0.022517709,-0.23622662,0.05261384,-0.079753846,0.057054657,0.0032452266,-0.060435254,-0.031181136,0.009061385,-0.0038750216,0.06514522,0.06981229,-0.08529842,-0.096909925,-0.061832815,-2.0,0.11004331,-2.0,2.0,2.0,-2.0,-2.0,-0.011541199,2.0,-2.0,-2.0,-2.0,-2.0,-0.051605962,-2.0,2.0,2.0,-2.0,-2.0,-0.14050649,1.6705574,-2.0,-1.9039114,-2.0
2025-06-09 09:21:31.370,-0.10863538,0.035766736,0.040516492,0.07650179,-0.071440004,-0.03180063,0.0,0.0,0.0,0.011174961,-0.07449253,-0.1644216,-0.03315826,0.0470588,0.37222558,-0.19127677,-0.06683008,-0.03316868,0.20364918,-0.037172858,-0.26404506,0.061255254,-0.0017983405,-0.08598991,-0.038788203,-0.009055353,0.034526497,-0.040912844,-0.048195276,0.084059075,0.032389835,-0.094665825,-0.017501082,0.057806853,-2.0,-0.051605962,-2.0,2.0,2.0,-2.0,-2.0,-0.14050649,1.6705574,-2.0,-1.9039114,-2.0,-2.0,-0.13781448,-2.0,2.0,2.0,-2.0,-2.0,-0.09913351,1.9593743,-2.0,-1.7875628,-2.0
2025-06-09 09:21:31.390,-0.0720848,0.07674692,-0.03120549,0.04773766,-0.060186166,0.028135361,0.0,0.0,0.0,0.010759857,-0.07209535,-0.18359712,-0.047030676,0.0607169,0.37295958,-0.19564997,-0.053308837,-0.029257255,0.18749611,-0.047076315,-0.27158612,0.05952701,-0.0106427185,0.0010097916,-0.019783802,0.07808458,-0.06435896,-0.07658336,-0.013955842,-0.008945736,0.022220299,-0.067465484,-0.029048922,-0.02920074,-2.0,-0.13781448,-2.0,2.0,2.0,-2.0,-2.0,-0.09913351,1.9593743,-2.0,-1.7875628,-2.0,-2.0,0.19293036,-2.0,2.0,2.0,-2.0,-2.0,-0.04962903,1.6993548,-2.0,-2.0,-2.0
2025-06-09 09:21:31.411,-0.06178022,0.015882285,-0.0068574017,0.07290637,-0.0953703,-0.048402216,0.0,0.0,0.0,0.010628217,-0.08162518,-0.1941454,-0.048089907,0.05757445,0.38503775,-0.20072207,-0.052255232,-0.008123122,0.19136247,-0.061397526,-0.28152034,0.059230782,0.010599674,-0.024911527,0.04273868,-0.018193848,0.023746606,-0.03976723,0.0043661394,0.02105663,0.01658154,0.012936525,-0.09133065,0.056492906,-2.0,0.19293036,-2.0,2.0,2.0,-2.0,-2.0,-0.04962903,1.6993548,-2.0,-2.0,-2.0,-2.0,0.070739545,-2.0,2.0,2.0,-2.0,-2.0,-0.12180522,1.5770092,-2.0,-2.0,-2.0
2025-06-09 09:21:31.431,-0.0038974634,-0.052075896,-0.023545008,0.047566067,-0.14243406,0.00088983035,0.0,0.0,0.0,0.010547115,-0.0947729,-0.191065,-0.062779,0.07006075,0.39031354,-0.19977975,-0.05629843,-0.012970419,0.18924324,-0.066954456,-0.28884417,0.06057698,0.032847356,-0.05375095,-0.026712844,0.054194372,0.04320732,-0.011990405,-0.02527179,0.045051686,-0.038397975,0.05329556,-0.05158094,-0.06568412,-2.0,0.070739545,-2.0,2.0,2.0,-2.0,-2.0,-0.12180522,1.5770092,-2.0,-2.0,-2.0,-2.0,0.057834692,-2.0,2.0,1.980954,-2.0,-2.0,-0.10334408,1.4418428,-2.0,-2.0,-2.0
2025-06-09 09:21:31.451,0.10341336,-0.09428505,-0.011079391,0.08584547,-0.07404258,0.022607805,0.0,0.0,0.0,0.010439784,-0.08767221,-0.2002358,-0.057165314,0.06406304,0.38484204,-0.20430003,-0.061582264,-0.018567901,0.17160282,-0.069924556,-0.3107702,0.06059117,0.034460723,-0.035178836,-0.05259043,-0.053767532,-0.063242294,-0.010678901,-0.06540086,-0.016083024,0.044427752,0.010687719,-0.051307485,0.0145017905,-2.0,0.057834692,-2.0,2.0,1.980954,-2.0,-2.0,-0.10334408,1.4418428,-2.0,-2.0,-2.0,-2.0,-0.13968743,-2.0,2.0,1.9711303,-2.0,-2.0,-0.05557066,1.2823254,-2.0,-2.0,-2.0
2025-06-09 09:21:31.471,0.13260981,-0.028127382,0.03579025,0.07991242,-0.041948695,-0.03375102,0.0,0.0,0.0,0.010238042,-0.080795415,-0.1890954,-0.059265163,0.07556159,0.37808517,-0.21137007,-0.061765507,-0.006462272,0.17480068,-0.065517485,-0.31028065,0.04155903,0.05009906,0.03966678,-0.04918296,-0.022568587,0.011321892,0.086870894,-0.057180222,0.035800964,-0.011602578,-0.03920945,0.057368707,-0.054044873,-2.0,-0.13968743,-2.0,2.0,1.9711303,-2.0,-2.0,-0.05557066,1.2823254,-2.0,-2.0,-2.0,-2.0,-0.3360806,-2.0,2.0,2.0,-2.0,-2.0,-0.07145849,1.1218481,-2.0,-1.8214281,-2.0
2025-06-09 09:21:31.491,0.13673463,0.0049871732,-0.046807323,0.018482728,-0.028046148,-0.040971838,0.0,0.0,0.0,0.010008293,-0.08906584,-0.19588691,-0.061839692,0.06916236,0.3694647,-0.18920146,-0.07342977,-0.014493519,0.15904927,-0.06863876,-0.31422684,0.039247494,-0.011398542,-0.06711721,-0.006150925,-0.004771243,-0.09329226,0.04014462,-0.047170438,-0.05580984,-0.03802727,-0.047753982,-0.0006173764,-0.076170556,-2.0,-0.3360806,-2.0,2.0,2.0,-2.0,-2.0,-0.07145849,1.1218481,-2.0,-1.8214281,-2.0,-2.0,-0.04868149,-2.0,2.0,1.8251618,-2.0,-2.0,0.010404188,0.7039435,-2.0,-2.0,-2.0
2025-06-09 09:21:31.511,0.07242651,-0.08772368,-0.016570123,0.037217718,-0.0711818,-0.036652673,0.0,0.0,0.0,0.01001732,-0.091559425,-0.20888881,-0.07243839,0.062186748,0.36083493,-0.16509809,-0.06355853,0.0013783594,0.13524319,-0.07505064,-0.31460077,0.028892608,-0.0303173,0.041831024,-0.066735245,0.054466113,0.021181965,0.1039523,-0.03239528,-0.01713083,-0.09445481,0.03989754,-0.020987133,-0.040891163,-2.0,-0.04868149,-2.0,2.0,1.8251618,-2.0,-2.0,0.010404188,0.7039435,-2.0,-2.0,-2.0,-2.0,-0.29175574,-2.0,2.0,1.7668377,-2.0,-2.0,-0.07950203,0.082209125,-2.0,-2.0,-2.0
2025-06-09 09:21:31.531,0.043566506,-0.029166248,0.02828706,0.02004634,-0.10056339,0.027645484,0.0,0.0,0.0,0.009849886,-0.08332368,-0.20292911,-0.088620394,0.07376023,0.35091826,-0.15334587,-0.06191985,0.00015872896,0.11245941,-0.07808569,-0.32794982,0.02496667,0.04719107,0.008947075,-0.07599419,0.05032231,-0.08726392,0.09676442,-0.07691163,0.08427202,-0.115734726,-0.06749174,-0.070037246,-0.023957929,-2.0,-0.29175574,-2.0,2.0,1.7668377,-2.0,-2.0,-0.07950203,0.082209125,-2.0,-2.0,-2.0,-2.0,-0.40231612,-1.8733379,2.0,1.8676536,-2.0,-1.5776736,-0.15864883,-0.9943241,-2.0,-2.0,-2.0
2025-06-09 09:21:31.551,0.13184051,-0.110704355,0.079456255,-0.020233752,-0.04731515,-0.0032239335,0.0,0.0,0.0,0.009363168,-0.099200904,-0.20823999,-0.08681616,0.0819505,0.33668438,-0.15229985,-0.07678758,-0.0011562499,0.093399666,-0.06920693,-0.32031018,0.018160518,-0.06265906,-0.016284227,-0.043975342,-0.0138564315,-0.040845904,0.0517606,-0.028737979,-0.0037699086,-0.0660141,-0.022293646,-0.030066257,0.0320806,-2.0,-0.40231612,-1.8733379,2.0,1.8676536,-2.0,-1.5776736,-0.15864883,-0.9943241,-2.0,-2.0,-2.0,-2.0,-0.381696,-1.3101526,2.0,2.0,-2.0,-0.48863003,-0.6011357,-2.0,-2.0,-1.7651671,-2.0
2025-06-09 09:21:31.571,0.1511472,-0.101250276,-0.00080539193,-0.015474216,-0.018359605,0.02436797,0.0,0.0,0.0,0.0086785965,-0.091968395,-0.20275024,-0.10712206,0.09037337,0.31835407,-0.12758505,-0.06490385,0.014276783,0.07495848,-0.07060907,-0.32490504,0.008684201,-0.031035503,0.032910373,-0.038807176,0.048781283,-0.03137805,-0.02385929,0.0185141,0.06534222,-0.0065299915,0.042280495,0.088459216,-0.08034901,-2.0,-0.381696,-1.3101526,2.0,2.0,-2.0,-0.48863003,-0.6011357,-2.0,-2.0,-1.7651671,-2.0,-2.0,0.1280659,-0.05187664,2.0,2.0,-2.0,0.95498294,-1.0944314,-2.0,-2.0,-2.0,-2.0
2025-06-09 09:21:31.591,0.13210596,-0.07377767,0.04019562,0.022409922,-0.07256446,0.004782985,0.0,0.0,0.0,0.008282262,-0.075945005,-0.19277759,-0.092852645,0.090410344,0.3147491,-0.13111116,-0.07005296,0.024892075,0.06283947,-0.06477305,-0.30855873,-0.0103793675,0.04449491,-0.059587263,-0.04359496,0.065316856,-0.04692958,-0.047439728,-0.019192629,-0.034404438,-0.07508508,0.009430924,-0.026765177,0.016214488,-2.0,0.1280659,-0.05187664,2.0,2.0,-2.0,0.95498294,-1.0944314,-2.0,-2.0,-2.0,-2.0,-2.0,0.7551045,0.036192007,2.0,2.0,-2.0,2.0,-1.3006492,-2.0,-2.0,-2.0,-2.0
2025-06-09 09:21:31.611,0.11027773,-0.10764437,-0.03296682,-0.017319076,-0.061250187,-0.02793381,0.0,0.0,0.0,0.008212821,-0.083772875,-0.15238169,-0.07874305,0.086743556,0.30112958,-0.11268987,-0.051526245,-0.011597579,0.032645192,-0.06014421,-0.3132352,-0.030183952,0.0568928,0.14450265,-0.004359765,0.059704468,-0.004837661,0.032541666,0.07891604,-0.021433698,-0.0025467977,-0.031436607,-0.03826158,-0.05671918,-2.0,0.7551045,0.036192007,2.0,2.0,-2.0,2.0,-1.3006492,-2.0,-2.0,-2.0,-2.0,-2.0,1.0964626,0.045118578,2.0,2.0,-2.0,2.0,-0.9884694,-2.0,-2.0,-2.0,-2.0
2025-06-09 09:21:31.632,0.097938895,-0.08584575,-0.02428687,0.052563734,0.0017271383,0.0045560934,0.0,0.0,0.0,0.008448606,-0.08136123,-0.0702267,-0.059186555,0.10630907,0.29602525,-0.10274497,-0.04567664,-0.016192049,0.024388693,-0.054381438,-0.3251766,-0.027857566,0.050340295,0.22587845,0.079142824,-0.013606692,0.045789506,0.0582849,0.082378566,-0.018076843,0.040738847,-0.010273372,-0.06999521,-0.019003354,-2.0,1.0964626,0.045118578,2.0,2.0,-2.0,2.0,-0.9884694,-2.0,-2.0,-2.0,-2.0,-2.0,0.9124467,-0.03511902,2.0,2.0,-2.0,2.0,-0.7752369,-2.0,-2.0,-2.0,-2.0
2025-06-09 09:21:31.651,0.029536063,0.024095323,-0.07457477,0.019491335,0.047347028,-0.008825004,0.0,0.0,0.0,0.008997967,-0.0895689,0.016915228,-0.045905344,0.10638782,0.2865724,-0.08996473,-0.039156973,-0.03838856,0.018796984,-0.03358676,-0.31266347,-0.051214535,-0.02138433,0.1338675,-0.004999829,-0.071610756,0.029489776,0.05626799,0.04413302,-0.08312802,-0.07060129,0.06469446,-0.032360338,-0.069786765,-2.0,0.9124467,-0.03511902,2.0,2.0,-2.0,2.0,-0.7752369,-2.0,-2.0,-2.0,-2.0,-2.0,0.9900002,-0.19272557,2.0,1.9997619,-2.0,2.0,-0.55422586,-2.0,-2.0,-2.0,-2.0
2025-06-09 09:21:31.671,0.069340326,0.07980783,-0.08202303,0.029409533,-0.0071239737,0.0024168396,0.0,0.0,0.0,0.0097263325,-0.0710205,0.08913756,-0.022735253,0.093388185,0.26532036,-0.07729954,-0.030276863,-0.044108387,0.011023452,-0.03429987,-0.31723678,-0.07010633,-0.06188507,0.09762364,-0.035214957,0.06174549,0.0151846325,0.09332687,0.038229745,-0.067120984,-0.061148673,-0.008210959,0.032122925,0.00040764041,-2.0,0.9900002,-0.19272557,2.0,1.9997619,-2.0,2.0,-0.55422586,-2.0,-2.0,-2.0,-2.0,-2.0,0.835503,-0.42825386,2.0,1.9144776,-2.0,2.0,-0.30271807,-2.0,-2.0,-2.0,-2.0
2025-06-09 09:21:31.691,0.16611661,0.009665116,-0.031412266,0.042923823,-0.012882765,-0.04781999,0.0,0.0,0.0,0.010491509,-0.06696386,0.10452011,-0.028235365,0.11168625,0.2711033,-0.06673016,-0.029962678,-0.030524386,-0.0038150568,-0.034921907,-0.3243697,-0.08019569,0.043789227,0.019473068,-0.04331466,0.052046742,0.008321556,-0.0052100816,-0.04659108,0.07668001,-0.08917371,-0.06887902,0.06426338,-0.014400613,-2.0,0.835503,-0.42825386,2.0,1.9144776,-2.0,2.0,-0.30271807,-2.0,-2.0,-2.0,-2.0,-2.0,0.49397185,-0.39847285,2.0,1.9133884,-2.0,2.0,-0.39522156,-2.0,-2.0,-2.0,-2.0
2025-06-09 09:21:31.715,0.07191391,-0.031833664,0.01757704,0.015201327,0.02875855,0.0027392195,0.0,0.0,0.0,0.010772842,-0.06713854,0.090422004,-0.017407166,0.10862885,0.2636856,-0.058098357,-0.023707336,-0.027048998,-0.0016434357,-0.05339185,-0.3396594,-0.106153846,0.065557726,-0.033064287,-0.033691674,0.083848536,0.037857775,-0.0060521085,0.07021581,0.052098874,-0.021032285,-0.06556789,-0.074430354,-0.12644127,-2.0,0.49397185,-0.39847285,2.0,1.9133884,-2.0,2.0,-0.39522156,-2.0,-2.0,-2.0,-2.0,-2.0,0.57881474,-0.49330562,2.0,2.0,-2.0,2.0,-0.6581314,-2.0,-2.0,-2.0,-2.0
2025-06-09 09:21:31.732,0.08585155,0.013436956,0.006749704,0.024106873,-0.014241267,-0.01663185,0.0,0.0,0.0,0.011044555,-0.06327079,0.082998335,-0.016810035,0.10639639,0.26077777,-0.057278898,-0.009684525,-0.044776957,-0.0026369984,-0.05194971,-0.3500491,-0.1254763,-0.053535227,-0.037672717,0.05894301,-0.009242318,0.037416592,0.0051466785,-0.0547425,-0.0672844,0.070934206,0.0036085474,-0.040662594,-0.011979154,-2.0,0.57881474,-0.49330562,2.0,2.0,-2.0,2.0,-0.6581314,-2.0,-2.0,-2.0,-2.0,-2.0,0.7499905,-0.6712255,2.0,1.9967331,-2.0,2.0,-0.74131066,-2.0,-2.0,-2.0,-2.0
2025-06-09 09:21:31.751,-0.015617628,-0.0033704338,-0.07436415,-0.05409231,0.014461283,0.041163,0.0,0.0,0.0,0.011705032,-0.062838405,0.076142356,0.0045216517,0.110018365,0.25856018,-0.04265075,-0.0054265913,-0.04774976,-0.007931132,-0.044185363,-0.3573826,-0.14355066,-0.040087596,-0.0026115398,0.065265894,0.033584177,0.029864464,0.056622166,0.0051513086,0.02209787,-0.052133307,0.0555465,-0.049639188,-0.003525589,-2.0,0.7499905,-0.6712255,2.0,1.9967331,-2.0,2.0,-0.74131066,-2.0,-2.0,-2.0,-2.0,-2.0,0.9945312,-0.19017994,2.0,1.7542595,-2.0,2.0,-0.43867058,-2.0,-2.0,-2.0,-2.0
2025-06-09 09:21:31.821,0.059337247,0.01386446,-0.041349884,-0.050619658,0.009356492,0.028702673,0.0,0.0,0.0,0.012707409,-0.060594145,0.076257795,-0.0053037945,0.112621166,0.25874588,-0.052002173,-0.0032180194,-0.050842777,0.00052070135,-0.06023154,-0.35684168,-0.15927547,0.034596246,-0.037815645,0.0044319555,0.03683851,0.0076505174,0.025168719,0.05831575,-0.05315844,0.0014490739,0.028073449,0.04424772,-0.011561044,-2.0,0.9945312,-0.19017994,2.0,1.7542595,-2.0,2.0,-0.43867058,-2.0,-2.0,-2.0,-2.0,-2.0,0.6504454,-0.46245897,2.0,1.8787887,-2.0,2.0,-0.4117316,-2.0,-2.0,-2.0,-2.0
2025-06-09 09:21:31.839,-0.0006440267,0.025365312,0.008192884,-0.006212138,-0.012154738,0.014462246,0.0,0.0,0.0,0.013436604,-0.06793283,0.093954064,0.008291611,0.117111094,0.2588132,-0.03938743,0.00961454,-0.04571238,0.005106809,-0.06280237,-0.36000323,-0.16849823,0.01318398,-0.02444413,-0.05849312,-0.063747495,0.055722576,-0.0018970829,-0.035131194,0.05545114,0.04681724,-0.0651887,-0.033263825,-0.08301302,-2.0,0.6504454,-0.46245897,2.0,1.8787887,-2.0,2.0,-0.4117316,-2.0,-2.0,-2.0,-2.0,-2.0,0.5836956,-0.4703425,2.0,1.9889674,-2.0,2.0,-0.66474366,-2.0,-2.0,-2.0,-2.0
2025-06-09 09:21:31.859,-0.058462404,-0.00014040919,-0.059727833,0.00066987536,-0.003250631,-0.0014072211,0.0,0.0,0.0,0.01405686,-0.06500687,0.07548823,-0.005198388,0.11856669,0.25941938,-0.05157088,0.0057947547,-0.04785467,-0.005437997,-0.072341844,-0.36851403,-0.18005994,-0.025146408,0.06790518,0.06526037,0.06462444,0.042077817,-0.029704032,0.06753666,0.057906345,-0.05875478,0.03726135,0.05440833,-0.0629864,-2.0,0.5836956,-0.4703425,2.0,1.9889674,-2.0,2.0,-0.66474366,-2.0,-2.0,-2.0,-2.0,-2.0,0.9131051,-0.19127062,2.0,1.7578613,-2.0,2.0,-0.47328073,-2.0,-2.0,-2.0,-2.0
2025-06-09 09:21:31.882,0.00802519,0.017610133,-0.05480777,-0.048210446,-0.010359115,0.009528727,0.0,0.0,0.0,0.01492673,-0.059094187,0.08814939,-0.0018555807,0.12239036,0.26183143,-0.040281087,0.023569342,-0.04705897,0.0040682647,-0.06295305,-0.3599479,-0.18211019,-0.06651187,-0.0034804286,0.003234712,-0.06028451,0.028948635,0.0071557374,-0.03878387,-0.0078014066,0.040629685,-0.06104861,0.024218533,-0.06293286,-2.0,0.9131051,-0.19127062,2.0,1.7578613,-2.0,2.0,-0.47328073,-2.0,-2.0,-2.0,-2.0,-2.0,0.73862225,-0.27370787,2.0,1.7596424,-2.0,2.0,-0.33383456,-2.0,-2.0,-2.0,-2.0
2025-06-09 09:21:31.899,0.04958795,-0.0255885,0.02386693,-0.050020486,-0.0094212955,0.038399283,0.0,0.0,0.0,0.015545689,-0.06311774,0.096088074,0.020071993,0.117885,0.27505895,-0.05117827,0.02980805,-0.053489394,-3.262565e-05,-0.064836584,-0.37297916,-0.17113954,0.03170549,0.08467824,-0.06393125,0.070158064,-0.029647416,0.025322929,-0.03276654,-0.036126148,0.0033072322,0.015907815,-0.013185674,-0.0023154698,-2.0,0.73862225,-0.27370787,2.0,1.7596424,-2.0,2.0,-0.33383456,-2.0,-2.0,-2.0,-2.0,-2.0,0.44978648,-0.2740026,2.0,2.0,-2.0,2.0,-0.6949522,-2.0,-2.0,-2.0,-2.0
2025-06-09 09:21:31.920,-0.012166157,-0.0036158594,-0.013859603,-0.059139837,0.0213392,-0.029735956,0.0,0.0,0.0,0.015805643,-0.069467075,0.09412224,0.011755157,0.11997344,0.2816513,-0.03788446,0.020808285,-0.050815023,0.014578533,-0.075043455,-0.36265513,-0.1853066,0.022705372,-0.028620277,-0.05914948,-0.030191416,0.04319236,-0.037096523,0.060702235,-0.07452559,0.033183817,0.05739113,0.07336099,-0.0071201683,-2.0,0.44978648,-0.2740026,2.0,2.0,-2.0,2.0,-0.6949522,-2.0,-2.0,-2.0,-2.0,-2.0,0.8553702,-0.6368789,2.0,1.9381887,-2.0,2.0,-0.8215199,-2.0,-2.0,-2.0,-2.0
2025-06-09 09:21:31.940,-0.084105335,0.03210681,-0.047274753,-0.040127818,0.00300442,0.008622116,0.0,0.0,0.0,0.016219107,-0.069352105,0.09817743,0.003933108,0.128403,0.28327367,-0.04832571,0.030243091,-0.05319542,0.024206674,-0.061674558,-0.36319005,-0.1773669,0.04927504,-0.019102681,-0.018685598,-0.040564645,0.022550423,-0.0076729027,0.015725601,0.048469618,0.01260121,0.040938962,-0.049242638,0.013843631,-2.0,0.8553702,-0.6368789,2.0,1.9381887,-2.0,2.0,-0.8215199,-2.0,-2.0,-2.0,-2.0,-2.0,0.96008396,-0.16652629,2.0,1.8472126,-2.0,2.0,-0.57897973,-2.0,-2.0,-2.0,-2.0
2025-06-09 09:21:31.959,-0.04856892,0.05067834,-0.039912056,0.0141079025,-0.021194212,-0.031604838,0.0,0.0,0.0,0.016813884,-0.05818369,0.09736548,0.0116734,0.13004784,0.27787945,-0.05500511,0.03392767,-0.06305367,0.022732519,-0.07278653,-0.3751747,-0.15831491,-0.05122637,0.08294706,-0.036289494,-0.033329327,0.08704197,-0.010423847,-0.037163585,-0.0036322258,0.017939938,0.0044774595,-0.03082951,-0.022325749,-2.0,0.96008396,-0.16652629,2.0,1.8472126,-2.0,2.0,-0.57897973,-2.0,-2.0,-2.0,-2.0,-2.0,0.8248629,-0.27391368,2.0,1.8168567,-2.0,2.0,-0.39620623,-2.0,-2.0,-2.0,-2.0
2025-06-09 09:21:31.982,0.008780373,-0.006099569,0.05090811,-0.026109057,0.029561691,0.0462996,0.0,0.0,0.0,0.017112404,-0.056140564,0.1121472,0.008018232,0.12271488,0.29822817,-0.048392996,0.023633268,-0.045430083,0.041443087,-0.06222885,-0.36581513,-0.16927925,-0.045820173,-0.03716161,-0.050516874,-0.03386102,-0.038322587,-0.06943858,-0.0013682301,0.018175622,0.0074424976,0.07054904,0.0112217385,0.026129004,-2.0,0.8248629,-0.27391368,2.0,1.8168567,-2.0,2.0,-0.39620623,-2.0,-2.0,-2.0,-2.0,-2.0,0.49753752,-0.38591784,2.0,2.0,-2.0,2.0,-0.83752483,-2.0,-2.0,-2.0,-2.0
2025-06-09 09:21:31.999,-0.07128221,-0.029532926,-0.057729997,-0.056630626,0.04092561,0.00022941275,0.0,0.0,0.0,0.016992899,-0.06938793,0.124390595,0.01974304,0.13043441,0.29355273,-0.052300368,0.019141307,-0.043318328,0.035491988,-0.06603546,-0.36695826,-0.16273117,-0.017909022,-0.036822148,0.061906822,-0.01125457,0.015404575,0.019981535,0.043015283,0.014511842,-0.0024113602,0.07049244,-0.034507744,0.079871625,-2.0,0.49753752,-0.38591784,2.0,2.0,-2.0,2.0,-0.83752483,-2.0,-2.0,-2.0,-2.0,-2.0,1.0960134,-0.028481565,2.0,1.6929516,-2.0,2.0,-0.59683484,-2.0,-2.0,-2.0,-2.0
2025-06-09 09:21:32.019,-0.012338555,0.029286006,0.05718362,0.018510237,-0.038404826,0.024093954,0.0,0.0,0.0,0.017106017,-0.06741121,0.12819362,0.010433707,0.12098512,0.31075233,-0.049860995,0.024466157,-0.038020298,0.043337792,-0.058941342,-0.3638498,-0.1447386,0.015633183,0.0031444659,-0.066770665,0.0014265763,0.07544451,0.034633517,0.0151213715,0.06326507,0.055870578,-0.00044892877,-0.047098745,-0.054588143,-2.0,1.0960134,-0.028481565,2.0,1.6929516,-2.0,2.0,-0.59683484,-2.0,-2.0,-2.0,-2.0,-2.0,0.5441246,-0.5844397,2.0,2.0,-2.0,2.0,-0.75741583,-2.0,-2.0,-2.0,-2.0
2025-06-09 09:21:32.039,-0.07328272,-0.0076955142,-0.01525685,0.002335322,-0.0075192167,-0.023170637,0.0,0.0,0.0,0.017033372,-0.0653762,0.121423714,0.027370136,0.113158464,0.31961378,-0.05778881,0.019365445,-0.04383504,0.04890374,-0.06813058,-0.3728122,-0.14060673,0.065970056,-0.025397236,0.0076611224,-0.018726517,-0.0016099421,0.013035065,0.0022134345,0.049127948,0.0018097368,0.027901651,-0.049284916,-0.012707992,-2.0,0.5441246,-0.5844397,2.0,2.0,-2.0,2.0,-0.75741583,-2.0,-2.0,-2.0,-2.0,-2.0,0.8770339,-0.046693735,2.0,1.9501623,-2.0,2.0,-0.78017527,-2.0,-2.0,-2.0,-2.0
2025-06-09 09:21:32.059,-0.0006751066,0.048301652,0.026149416,0.0098343,-0.012453,0.045731433,0.0,0.0,0.0,0.01712152,-0.074710965,0.14023091,0.018534902,0.12696992,0.31797785,-0.05551897,0.029116316,-0.036718532,0.045629058,-0.05837524,-0.37471887,-0.1276491,0.021286206,-0.033659026,-0.04278418,0.058176216,0.03996595,0.039244417,-0.02768263,-0.033795096,-0.0029099134,-0.054867107,-0.072019964,-0.028471742,-2.0,0.8770339,-0.046693735,2.0,1.9501623,-2.0,2.0,-0.78017527,-2.0,-2.0,-2.0,-2.0,-2.0,0.8030997,-0.55812985,2.0,2.0,-2.0,2.0,-0.7245831,-2.0,-2.0,-2.0,-2.0
2025-06-09 09:21:32.083,0.028208852,-0.008907245,-0.003959916,0.005453382,-0.040673785,-0.03024316,0.0,0.0,0.0,0.017336905,-0.06750818,0.13575688,0.013214798,0.111126974,0.318621,-0.057084877,0.03261284,-0.044924412,0.053901996,-0.06311533,-0.3801328,-0.14267184,0.05901904,-0.05216127,-0.060171854,-0.069248095,0.02782829,-0.022567993,0.056818213,0.05271298,0.07782067,0.018276246,0.014589168,-0.039629135,-2.0,0.8030997,-0.55812985,2.0,2.0,-2.0,2.0,-0.7245831,-2.0,-2.0,-2.0,-2.0,-2.0,0.76132923,-0.5039814,2.0,2.0,-2.0,2.0,-0.80170923,-2.0,-2.0,-2.0,-2.0
2025-06-09 09:21:32.099,-0.029028697,0.041163117,-0.06152946,-0.024290573,0.02117322,-0.047588173,0.0,0.0,0.0,0.017608078,-0.07910791,0.14518839,0.015410582,0.12024005,0.31840461,-0.06825028,0.021391265,-0.045195747,0.06381951,-0.06434106,-0.37763107,-0.13636777,-0.02608079,-0.06508462,0.011343122,-0.074596964,0.06553677,0.030442474,0.049020153,-0.06222341,0.055737004,0.05242775,0.048585113,0.06715774,-2.0,0.76132923,-0.5039814,2.0,2.0,-2.0,2.0,-0.80170923,-2.0,-2.0,-2.0,-2.0,-2.0,1.0337985,-0.5422907,2.0,1.7562127,-2.0,2.0,-0.5647649,-2.0,-2.0,-2.0,-2.0
2025-06-09 09:21:32.120,0.015518043,-0.060267672,0.010628558,-0.023649402,-0.0324212,-0.04303663,0.0,0.0,0.0,0.018003732,-0.08080286,0.13363616,0.010243816,0.12912415,0.32351926,-0.06677967,0.027400797,-0.04082345,0.05142469,-0.054505073,-0.36833844,-0.12563436,0.06565522,0.0018878644,-0.049283583,0.025269153,-0.008349831,-0.024027715,-0.05638291,-0.061470415,0.06872339,0.07413969,0.044397265,-0.05695971,-2.0,1.0337985,-0.5422907,2.0,1.7562127,-2.0,2.0,-0.5647649,-2.0,-2.0,-2.0,-2.0,-2.0,0.5826842,-0.5771521,2.0,2.0,-2.0,2.0,-0.6793722,-2.0,-2.0,-2.0,-2.0
2025-06-09 09:21:32.140,-0.006430906,0.023773884,-0.031049907,-0.024002463,-0.008374733,0.014971886,0.0,0.0,0.0,0.018119812,-0.067340665,0.13859133,0.004667424,0.11619474,0.3332993,-0.057756197,0.024513245,-0.03680008,0.05974836,-0.055641856,-0.3749674,-0.12734157,-0.024326218,0.05531964,-0.06574332,-0.036817443,-0.06733673,0.042848106,-0.020497164,0.043597743,-0.02127499,-0.019205905,-0.011078524,0.06012026,-2.0,0.5826842,-0.5771521,2.0,2.0,-2.0,2.0,-0.6793722,-2.0,-2.0,-2.0,-2.0,-2.0,0.8062505,0.17607364,2.0,1.9197274,-2.0,2.0,-0.6887564,-2.0,-2.0,-2.0,-2.0
2025-06-09 09:21:32.160,0.060930725,-0.022909844,-0.020282876,-0.022766938,0.013635991,0.04561321,0.0,0.0,0.0,0.018231926,-0.07993275,0.14823122,0.0040721693,0.12657194,0.33670747,-0.058621854,0.038422775,-0.040641833,0.06531728,-0.051203787,-0.36500692,-0.12708354,0.014511274,0.011052472,-0.014697204,-0.008655578,0.040249858,0.07226316,-0.0148131,0.072648436,-0.037210375,-0.02045188,-0.043997057,0.06542406,-2.0,0.8062505,0.17607364,2.0,1.9197274,-2.0,2.0,-0.6887564,-2.0,-2.0,-2.0,-2.0,-2.0,0.81628674,-0.062665395,2.0,1.8850607,-2.0,2.0,-0.6862902,-2.0,-2.0,-2.0,-2.0
2025-06-09 09:21:32.183,0.02219365,0.04535225,0.025186254,-0.025256712,0.025607683,-0.026806928,0.0,0.0,0.0,0.018235853,-0.0810592,0.13732919,0.026315995,0.11531648,0.32001325,-0.062489342,0.02332377,-0.04549031,0.0601885,-0.058241036,-0.37001866,-0.12998982,0.028215924,0.059550293,-0.04601308,-0.04695837,-0.006862374,-0.04622728,0.025691975,0.00041673428,0.0726092,-0.042691484,-0.00012488132,0.015706515,-2.0,0.81628674,-0.062665395,2.0,1.8850607,-2.0,2.0,-0.6862902,-2.0,-2.0,-2.0,-2.0,-2.0,0.7307866,-0.3991661,2.0,2.0,-2.0,2.0,-0.7928207,-2.0,-2.0,-2.0,-2.0
2025-06-09 09:21:32.199,-0.032119513,-0.03704121,0.033992913,-0.028326346,-0.0036146312,0.03645611,0.0,0.0,0.0,0.018042864,-0.0814692,0.13724068,0.030040342,0.12281431,0.32044247,-0.05901368,0.021491542,-0.04461132,0.058529384,-0.067594245,-0.36240274,-0.12905425,0.04967948,-0.07755302,0.041303743,-0.039026085,-0.06719361,-0.06978927,0.0012904697,-0.054555718,-0.050918173,0.015406906,-0.06434154,0.0012032838,-2.0,0.7307866,-0.3991661,2.0,2.0,-2.0,2.0,-0.7928207,-2.0,-2.0,-2.0,-2.0,-2.0,0.8413345,-0.33139682,2.0,2.0,-2.0,2.0,-0.88920224,-2.0,-2.0,-2.0,-2.0
2025-06-09 09:21:32.220,-0.017558403,-0.04772651,-0.006297401,-0.02766304,-0.002418443,0.01069751,0.0,0.0,0.0,0.017967945,-0.080050305,0.13011955,0.026066065,0.12134832,0.3250427,-0.061585017,0.036390185,-0.044732284,0.06692741,-0.06108268,-0.3726096,-0.12692188,-0.039700612,-0.018425437,-0.03481331,0.06644952,0.06985223,0.025438664,-0.01974571,-0.04896493,0.04802205,-0.046388965,-0.07445173,0.0065615717,-2.0,0.8413345,-0.33139682,2.0,2.0,-2.0,2.0,-0.88920224,-2.0,-2.0,-2.0,-2.0,-2.0,0.925106,-0.54703283,2.0,2.0,-2.0,2.0,-0.7014621,-2.0,-2.0,-2.0,-2.0
2025-06-09 09:21:32.240,-0.025227737,0.004466624,0.016946774,0.004752301,-0.043354712,-0.0019632776,0.0,0.0,0.0,0.018080985,-0.08274634,0.14759244,0.024689477,0.12465935,0.3261333,-0.05729131,0.019816082,-0.05649087,0.05885348,-0.06104715,-0.3734487,-0.13920017,0.044485684,0.04212285,-0.030750813,-0.026497522,0.06793192,0.0019229485,-0.063854836,0.03491853,0.06669416,-0.020599416,0.037693746,0.055691496,-2.0,0.925106,-0.54703283,2.0,2.0,-2.0,2.0,-0.7014621,-2.0,-2.0,-2.0,-2.0,-2.0,0.68584293,-0.59486026,2.0,2.0,-2.0,2.0,-0.7944299,-2.0,-2.0,-2.0,-2.0
2025-06-09 09:21:32.260,-0.02646574,0.012507002,-0.046708748,0.0017802833,0.03665617,-0.025674665,0.0,0.0,0.0,0.018190669,-0.06604379,0.1345472,0.011370277,0.124020234,0.3265904,-0.059510563,0.028256316,-0.057358574,0.06910968,-0.053336903,-0.3659685,-0.1373045,-0.06800588,0.01459021,-0.028166905,0.029115997,0.012619763,-0.005854768,0.072802626,0.061248187,-0.0029965914,0.010883656,-0.0018239642,0.06416301,-2.0,0.68584293,-0.59486026,2.0,2.0,-2.0,2.0,-0.7944299,-2.0,-2.0,-2.0,-2.0,-2.0,0.922096,-0.1389305,2.0,1.8566478,-2.0,2.0,-0.61524445,-2.0,-2.0,-2.0,-2.0
2025-06-09 09:21:32.282,0.008595168,0.03236198,-0.039149005,0.044628806,-0.042905662,-0.045975696,0.0,0.0,0.0,0.018398521,-0.07039032,0.14564534,0.012692982,0.11728502,0.32102215,-0.055607922,0.038167074,-0.050392706,0.061717913,-0.057624836,-0.36851636,-0.1284268,0.0299316,-0.055298787,0.012343304,-0.06306986,0.04525456,-0.013814859,0.05334256,-0.03331969,-0.07024603,-0.059365645,0.04816971,-0.054938816,-2.0,0.922096,-0.1389305,2.0,1.8566478,-2.0,2.0,-0.61524445,-2.0,-2.0,-2.0,-2.0,-2.0,0.8288273,-0.44340038,2.0,1.8587185,-2.0,2.0,-0.51741254,-2.0,-2.0,-2.0,-2.0
2025-06-09 09:21:32.300,0.030892879,-0.0018310102,0.043324005,0.010438603,0.029508455,0.009688777,0.0,0.0,0.0,0.018366499,-0.081353605,0.1461156,0.02182748,0.112004995,0.31134796,-0.05453823,0.029562455,-0.05344763,0.056535546,-0.058459718,-0.37085652,-0.13016139,-0.033804797,0.050264943,-0.0723685,0.058275238,-0.03400213,-0.020336736,0.0055247233,0.017223714,-0.06677117,0.025599767,0.028248264,0.016574418,-2.0,0.8288273,-0.44340038,2.0,1.8587185,-2.0,2.0,-0.51741254,-2.0,-2.0,-2.0,-2.0,-2.0,0.5377998,-0.47344494,2.0,2.0,-2.0,2.0,-0.816647,-2.0,-2.0,-2.0,-2.0
2025-06-09 09:21:32.320,-0.043312296,0.008803789,-0.0019613476,0.009648297,-0.0063694,0.041972328,0.0,0.0,0.0,0.018048791,-0.079817094,0.13883652,0.014307876,0.11943251,0.31473827,-0.05958232,0.023449268,-0.04630028,0.050533872,-0.06110417,-0.37076113,-0.14814685,-0.076639555,0.045112353,0.018855603,0.013318563,0.022039087,-0.050269995,0.010929124,-0.039829742,0.024292264,0.056316,0.06740948,-0.065594085,-2.0,0.5377998,-0.47344494,2.0,2.0,-2.0,2.0,-0.816647,-2.0,-2.0,-2.0,-2.0,-2.0,0.85864705,-0.5472594,2.0,1.9964542,-2.0,2.0,-0.8232517,-2.0,-2.0,-2.0,-2.0
2025-06-09 09:21:32.340,-0.024073966,-0.0037838693,-0.051963463,0.00954675,0.00875281,0.005928737,0.0,0.0,0.0,0.017966703,-0.07182296,0.1398227,0.00059499906,0.11331724,0.3217271,-0.06930634,0.023342738,-0.052496202,0.05238128,-0.06614205,-0.3791176,-0.13259153,-0.014189825,0.059876654,0.043814886,0.01845517,-0.022772726,0.013705238,0.04949116,0.014224071,0.05539005,0.043993082,0.046731547,0.06570638,-2.0,0.85864705,-0.5472594,2.0,1.9964542,-2.0,2.0,-0.8232517,-2.0,-2.0,-2.0,-2.0,-2.0,0.9341118,-0.17760897,2.0,1.8452635,-2.0,2.0,-0.598881,-2.0,-2.0,-2.0,-2.0
2025-06-09 09:21:32.360,-0.018068455,0.011370344,-0.021915624,0.039591216,0.0293099,-0.034615286,0.0,0.0,0.0,0.01811489,-0.07221635,0.13228133,0.019228902,0.12350673,0.31186178,-0.069909945,0.026563223,-0.042125758,0.05702778,-0.062147863,-0.371981,-0.14185213,-0.03979141,0.007984884,-0.061301336,0.0023050355,-0.040355287,0.05774489,0.04203291,-0.0110148145,0.05382238,-0.010958566,-0.038630355,-0.045409437,-2.0,0.9341118,-0.17760897,2.0,1.8452635,-2.0,2.0,-0.598881,-2.0,-2.0,-2.0,-2.0,-2.0,0.7487102,-0.16304103,2.0,1.9940572,-2.0,2.0,-0.5094107,-2.0,-2.0,-2.0,-2.0
2025-06-09 09:21:32.383,0.07132753,0.030260276,-0.028815677,-0.029157337,0.039820004,-0.046955902,0.0,0.0,0.0,0.018026857,-0.06970467,0.13630813,0.015699564,0.12629405,0.31824723,-0.061712507,0.032161444,-0.043977886,0.05084815,-0.06355182,-0.37367398,-0.15425582,0.02956516,0.0019288696,-0.025603648,0.00789925,-0.011665146,0.00617115,0.06907319,0.011468992,0.06493745,-0.029596861,0.060434833,-0.07262714,-2.0,0.7487102,-0.16304103,2.0,1.9940572,-2.0,2.0,-0.5094107,-2.0,-2.0,-2.0,-2.0,-2.0,0.71225995,-0.3452747,2.0,1.9730114,-2.0,2.0,-0.5752081,-2.0,-2.0,-2.0,-2.0
2025-06-09 09:21:32.400,0.0080311205,-0.021739196,0.04950529,0.041021504,0.03874108,-0.0040936265,0.0,0.0,0.0,0.017719056,-0.06660347,0.13342343,0.012327298,0.11918579,0.30094716,-0.06431605,0.02074579,-0.039658375,0.046587784,-0.06438368,-0.3746313,-0.14530563,-0.020906841,0.0035157874,-0.05597228,0.020854758,0.037318505,0.027454734,0.05312434,-0.01218582,-0.03388137,-0.0029079851,-0.03372537,0.05586319,-2.0,0.71225995,-0.3452747,2.0,1.9730114,-2.0,2.0,-0.5752081,-2.0,-2.0,-2.0,-2.0,-2.0,0.6175456,-0.52340317,2.0,2.0,-2.0,2.0,-0.81628066,-2.0,-2.0,-2.0,-2.0
2025-06-09 09:21:32.421,-0.011554778,0.03019092,-0.03753111,-0.034950357,-0.021682294,0.028098349,0.0,0.0,0.0,0.017432133,-0.06722634,0.13839401,0.016850516,0.122279294,0.30555737,-0.06442231,0.023747222,-0.053218465,0.052642215,-0.06899857,-0.36940953,-0.15044339,0.042002205,0.010253352,0.026081214,0.05076815,-0.054749575,-0.07513025,-0.07214798,-0.06665961,0.024252536,0.05980366,-0.021816107,-0.03494201,-2.0,0.6175456,-0.52340317,2.0,2.0,-2.0,2.0,-0.81628066,-2.0,-2.0,-2.0,-2.0,-2.0,0.9759223,-0.08794991,2.0,1.9170146,-2.0,2.0,-0.6373012,-2.0,-2.0,-2.0,-2.0
2025-06-09 09:21:32.440,-0.023023138,0.052414294,0.025588658,0.021524245,0.049018543,0.043597043,0.0,0.0,0.0,0.017469604,-0.06997151,0.13275114,0.023454893,0.12369706,0.29563105,-0.046346888,0.033787947,-0.03813537,0.053084925,-0.070817746,-0.36332417,-0.15551738,0.05237472,0.07811521,-0.03624439,-0.0068893763,-0.06570537,-0.031500585,-0.012424247,-0.05681106,-0.010013396,0.034430813,0.024524774,-0.05209151,-2.0,0.9759223,-0.08794991,2.0,1.9170146,-2.0,2.0,-0.6373012,-2.0,-2.0,-2.0,-2.0,-2.0,0.6838469,-0.27093405,2.0,2.0,-2.0,2.0,-0.7413028,-2.0,-2.0,-2.0,-2.0
2025-06-09 09:21:32.460,-0.03826619,-0.028477512,-0.04474555,-0.05216736,0.046812057,-0.017992107,0.0,0.0,0.0,0.017442454,-0.0786642,0.14012529,0.024767201,0.1248869,0.31177872,-0.058291975,0.018613625,-0.041326515,0.04472428,-0.05966879,-0.3642766,-0.14960115,-0.049380712,0.03654621,0.06670094,0.054930937,-0.06599365,0.028924739,-0.038296077,0.041775465,0.03689409,0.05868237,-0.041395973,-0.04169556,-2.0,0.6838469,-0.27093405,2.0,2.0,-2.0,2.0,-0.7413028,-2.0,-2.0,-2.0,-2.0,-2.0,0.9688393,0.10104463,2.0,1.8580437,-2.0,2.0,-0.54347634,-2.0,-2.0,-2.0,-2.0
2025-06-09 09:21:32.482,0.0266898,-0.025632326,-0.02072962,-0.048994996,-0.032016777,0.035465848,0.0,0.0,0.0,0.017437698,-0.07217014,0.13028765,0.01344271,0.12976998,0.31242904,-0.051791612,0.030406717,-0.037208747,0.04868338,-0.055882107,-0.3675149,-0.14765045,-0.046620045,-0.01766288,0.07373676,0.029122772,-0.05248854,0.05613113,0.014659003,-0.00095178,0.06093333,-0.03671857,0.05273195,-0.0149664255,-2.0,0.9688393,0.10104463,2.0,1.8580437,-2.0,2.0,-0.54347634,-2.0,-2.0,-2.0,-2.0,-2.0,0.7239279,-0.24097064,2.0,1.8978766,-2.0,2.0,-0.5351864,-2.0,-2.0,-2.0,-2.0
2025-06-09 09:21:32.501,0.037423268,0.013722271,0.005830444,0.005650178,-0.0010217286,-0.044782955,0.0,0.0,0.0,0.017194765,-0.07608455,0.13716574,0.033084102,0.1168936,0.3023592,-0.041128997,0.030479703,-0.043164816,0.035770006,-0.06875328,-0.3708996,-0.1579925,0.011165381,-0.010439557,0.0075038,0.054926515,-0.063969016,0.022201736,0.06709358,-0.032216784,0.045400124,0.04063532,-0.036858317,-0.021737568,-2.0,0.7239279,-0.24097064,2.0,1.8978766,-2.0,2.0,-0.5351864,-2.0,-2.0,-2.0,-2.0,-2.0,0.6678059,-0.26446238,2.0,2.0,-2.0,2.0,-0.6753445,-2.0,-2.0,-2.0,-2.0
2025-06-09 09:21:32.521,-0.051517982,-0.01501062,-0.008769715,-0.050610986,-0.020039786,-0.009436033,0.0,0.0,0.0,0.016818006,-0.06663597,0.13524029,0.03128606,0.12625259,0.30990243,-0.04480757,0.018456293,-0.042678773,0.048437458,-0.07114539,-0.372189,-0.14352085,-0.044992495,0.019518144,-0.0076960362,-0.05777478,-0.040251017,0.001570705,0.073052876,0.041459717,0.013554957,-0.044259865,0.0563149,0.05033509,-2.0,0.6678059,-0.26446238,2.0,2.0,-2.0,2.0,-0.6753445,-2.0,-2.0,-2.0,-2.0,-2.0,0.84758824,-0.2047866,2.0,1.8644689,-2.0,2.0,-0.6988126,-2.0,-2.0,-2.0,-2.0
2025-06-09 09:21:32.541,-0.029441278,-0.028671,0.013876668,-0.031885363,-0.027232176,-0.008623173,0.0,0.0,0.0,0.016642569,-0.066816874,0.14675379,0.020550674,0.11551285,0.30390152,-0.043882076,0.021932079,-0.043008007,0.052665647,-0.064833544,-0.3770819,-0.1403558,0.029711198,-0.07074721,-0.04565232,0.057633113,-0.004141097,-0.03365924,-0.035397697,0.016965412,-0.06445819,-0.05597224,0.030270206,-0.062958725,-2.0,0.84758824,-0.2047866,2.0,1.8644689,-2.0,2.0,-0.6988126,-2.0,-2.0,-2.0,-2.0,-2.0,0.78748786,-0.49694556,2.0,1.9707435,-2.0,2.0,-0.66734195,-2.0,-2.0,-2.0,-2.0
2025-06-09 09:21:32.561,0.031032046,-0.029245058,-0.04279287,-0.0055783545,0.03613394,0.018788839,0.0,0.0,0.0,0.016564704,-0.082460895,0.13007571,0.035673857,0.12346675,0.30229905,-0.053638574,0.024308335,-0.048718564,0.05529223,-0.058724172,-0.36480647,-0.14125471,0.04761209,0.00010508855,0.06401646,-0.06177339,-0.004130986,-0.041204512,-0.057048928,0.019578323,0.07066592,0.07499564,0.01704077,-0.046269674,-2.0,0.78748786,-0.49694556,2.0,1.9707435,-2.0,2.0,-0.66734195,-2.0,-2.0,-2.0,-2.0,-2.0,0.8399064,-0.19653377,2.0,1.8634583,-2.0,2.0,-0.6612225,-2.0,-2.0,-2.0,-2.0
2025-06-09 09:21:32.582,-0.0063647167,0.015495944,0.025213769,-0.057828162,0.04652667,-0.029625002,0.0,0.0,0.0,0.01659891,-0.07796109,0.13122477,0.02560503,0.12682582,0.308172,-0.062272094,0.020082459,-0.03692609,0.058181066,-0.07363501,-0.37872764,-0.14110097,-0.044101994,0.0024471954,-0.018491928,-0.034812037,-0.016692441,0.07018477,0.051687513,0.03535014,-0.0017549198,0.02987407,0.0553215,-0.06850948,-2.0,0.8399064,-0.19653377,2.0,1.8634583,-2.0,2.0,-0.6612225,-2.0,-2.0,-2.0,-2.0,-2.0,0.7514095,-0.43523633,2.0,1.987596,-2.0,2.0,-0.7488784,-2.0,-2.0,-2.0,-2.0
2025-06-09 09:21:32.601,0.024414487,0.026108462,0.028199991,-0.040717915,-0.027123846,-0.047850646,0.0,0.0,0.0,0.016628645,-0.074005686,0.14591546,0.015661165,0.12019115,0.31317016,-0.050669994,0.034569163,-0.05160326,0.060737025,-0.06858196,-0.37215194,-0.1433884,0.03427582,0.04418562,0.006226653,0.048670214,-0.0003898596,0.001350787,0.021772627,0.056773223,-0.006796824,-0.014084198,-0.048192974,-0.05722463,-2.0,0.7514095,-0.43523633,2.0,1.987596,-2.0,2.0,-0.7488784,-2.0,-2.0,-2.0,-2.0,-2.0,0.75593704,-0.2933455,2.0,2.0,-2.0,2.0,-0.78311545,-2.0,-2.0,-2.0,-2.0
2025-06-09 09:21:32.621,0.0055496423,-0.016647313,0.020428462,-0.010665003,0.019467153,0.036442656,0.0,0.0,0.0,0.016775647,-0.07466898,0.13824558,0.013781314,0.122886136,0.30777413,-0.06441289,0.03578935,-0.05323203,0.050663203,-0.06589658,-0.37072504,-0.14764392,-0.040117666,-0.047253437,0.06603428,0.039796103,-0.017503638,0.008479694,-0.015846826,0.015581117,-0.039449282,-0.05911189,0.043882146,-0.0032033883,-2.0,0.75593704,-0.2933455,2.0,2.0,-2.0,2.0,-0.78311545,-2.0,-2.0,-2.0,-2.0,-2.0,0.8055498,-0.5291933,2.0,1.9457558,-2.0,2.0,-0.81524515,-2.0,-2.0,-2.0,-2.0
2025-06-09 09:21:32.641,-0.051495824,0.02507259,-0.022051215,-0.0065060193,-0.021845417,0.019503837,0.0,0.0,0.0,0.017071927,-0.07385518,0.12900747,0.027731761,0.116958216,0.31394336,-0.06278353,0.02774153,-0.053354625,0.04696532,-0.053923436,-0.36836725,-0.14895675,-0.030613115,0.049274154,-0.07008548,-0.07773594,-0.04777094,0.046703324,0.015832199,-0.013934388,-0.04178008,0.017530505,-0.020044304,0.037093233,-2.0,0.8055498,-0.5291933,2.0,1.9457558,-2.0,2.0,-0.81524515,-2.0,-2.0,-2.0,-2.0,-2.0,0.8939832,-0.11146159,2.0,1.9318107,-2.0,2.0,-0.72331494,-2.0,-2.0,-2.0,-2.0
2025-06-09 09:21:32.662,-0.005428708,0.0291651,-0.022982793,0.03494458,-0.01331109,0.010987709,0.0,0.0,0.0,0.017452832,-0.0717379,0.13458644,0.011046248,0.12085832,0.3006523,-0.06894961,0.029812982,-0.05479823,0.0625059,-0.054412972,-0.36974108,-0.14216763,0.033998046,0.017040322,0.044146158,-0.06230359,-0.012534203,0.034378715,-0.02217314,0.075490065,0.020136721,0.06031136,0.066119246,-0.07464928,-2.0,0.8939832,-0.11146159,2.0,1.9318107,-2.0,2.0,-0.72331494,-2.0,-2.0,-2.0,-2.0,-2.0,0.8420233,-0.18354729,2.0,1.890628,-2.0,2.0,-0.7099575,-2.0,-2.0,-2.0,-2.0
2025-06-09 09:21:32.682,-0.041203458,0.039319694,0.009923985,-0.014351479,-0.025689432,-0.02368619,0.0,0.0,0.0,0.017670827,-0.07725809,0.1380132,0.024311056,0.1154303,0.3016758,-0.060861785,0.021273585,-0.06067983,0.051981654,-0.0544268,-0.37371624,-0.14301361,-0.056295678,0.05711206,-0.019478261,0.053678196,0.03187988,0.033353876,0.012814281,0.0050180554,0.0016497197,0.015671944,0.035702046,0.034131497,-2.0,0.8420233,-0.18354729,2.0,1.890628,-2.0,2.0,-0.7099575,-2.0,-2.0,-2.0,-2.0,-2.0,0.78637236,-0.5208845,2.0,1.9698964,-2.0,2.0,-0.70104426,-2.0,-2.0,-2.0,-2.0
2025-06-09 09:21:32.701,0.018900193,-0.052652802,-0.049826957,0.007993516,0.00719691,0.0011985397,0.0,0.0,0.0,0.017677769,-0.066835985,0.13650264,0.018932058,0.12385264,0.30192682,-0.06329374,0.020965325,-0.061915964,0.045472078,-0.0624113,-0.3688547,-0.14863247,-0.005923561,0.017375348,-0.05096267,-0.0048696194,0.04156444,-0.06723721,0.06199882,-0.03898311,-0.035241235,0.048658013,-0.055338446,-0.039229207,-2.0,0.78637236,-0.5208845,2.0,1.9698964,-2.0,2.0,-0.70104426,-2.0,-2.0,-2.0,-2.0,-2.0,0.909189,-0.27376896,2.0,1.8672241,-2.0,2.0,-0.5038121,-2.0,-2.0,-2.0,-2.0
2025-06-09 09:21:32.722,0.012717774,-0.03979952,-0.030721216,-0.034112472,0.01053185,-0.049134567,0.0,0.0,0.0,0.017672498,-0.06568366,0.14505903,0.013185062,0.1260673,0.30820477,-0.053989433,0.03559925,-0.044744063,0.055944655,-0.06406674,-0.37513483,-0.14908692,0.012589919,-0.043852627,0.015573054,-0.069115,0.030276336,-0.02633384,0.048001245,-0.062054075,-0.03861103,0.006471915,0.073308855,-0.064079754,-2.0,0.909189,-0.27376896,2.0,1.8672241,-2.0,2.0,-0.5038121,-2.0,-2.0,-2.0,-2.0,-2.0,0.75773937,-0.46802697,2.0,1.8402253,-2.0,2.0,-0.5074521,-2.0,-2.0,-2.0,-2.0
2025-06-09 09:21:32.742,0.009929023,0.03094796,-0.02956705,-0.03331409,-0.001848156,0.029908648,0.0,0.0,0.0,0.017463844,-0.06727431,0.14641428,0.027176639,0.1252786,0.31881088,-0.060275864,0.03399391,-0.039594863,0.04040335,-0.0518948,-0.35964045,-0.15822546,-0.058347978,0.062472727,0.005413596,0.015511041,0.014830143,0.07146695,0.06619031,0.008664848,-0.0056101754,0.032041244,0.046493925,0.05024615,-2.0,0.75773937,-0.46802697,2.0,1.8402253,-2.0,2.0,-0.5074521,-2.0,-2.0,-2.0,-2.0,-2.0,0.67300016,-0.2234022,2.0,1.8742456,-2.0,2.0,-0.5482121,-2.0,-2.0,-2.0,-2.0
2025-06-09 09:21:32.766,0.049459014,0.018701164,0.010752976,0.024915826,0.052609142,0.01546457,0.0,0.0,0.0,0.017117279,-0.0735713,0.13842918,0.014243367,0.1181118,0.30569485,-0.05079007,0.02211235,-0.046790883,0.05013484,-0.06288839,-0.36922792,-0.15104803,-0.059406407,0.009269283,0.06340171,-0.04794538,-0.011778618,0.037095763,0.016791021,-0.012011857,-0.015670784,-0.07505822,-0.05874964,-0.012048483,-2.0,0.67300016,-0.2234022,2.0,1.8742456,-2.0,2.0,-0.5482121,-2.0,-2.0,-2.0,-2.0,-2.0,0.6724573,-0.15961343,2.0,1.9591147,-2.0,2.0,-0.67060506,-2.0,-2.0,-2.0,-2.0
2025-06-09 09:21:32.782,0.00042882178,0.021482382,0.0053642183,-0.036655333,0.04161811,-0.04658165,0.0,0.0,0.0,0.016794894,-0.073833376,0.13689029,0.028894514,0.13513711,0.3144742,-0.06448361,0.02686029,-0.040665448,0.053883266,-0.055876944,-0.35964176,-0.1441775,-0.06189236,0.047213577,0.0651612,0.06265951,0.020329848,-0.061489712,-0.0238948,0.030850852,0.042905677,-0.045283433,0.026540462,0.06272842,-2.0,0.6724573,-0.15961343,2.0,1.9591147,-2.0,2.0,-0.67060506,-2.0,-2.0,-2.0,-2.0,-2.0,0.80560255,-0.35741335,2.0,1.9018278,-2.0,2.0,-0.6567125,-2.0,-2.0,-2.0,-2.0
2025-06-09 09:21:32.802,-0.0030350126,-0.01194444,-0.03871355,-0.044058118,-0.026805365,0.016139118,0.0,0.0,0.0,0.01663216,-0.06456068,0.14001633,0.012795426,0.1240087,0.30071855,-0.06142086,0.029543411,-0.045940235,0.050139833,-0.06757225,-0.37864155,-0.15098672,-0.02543171,-0.06028558,0.041491624,-0.0583149,0.06948735,0.011788819,-0.017730488,0.055097573,-0.00436931,-0.060854618,-0.06552518,0.07013389,-2.0,0.80560255,-0.35741335,2.0,1.9018278,-2.0,2.0,-0.6567125,-2.0,-2.0,-2.0,-2.0,-2.0,0.9019429,-0.16900578,2.0,1.6990728,-2.0,2.0,-0.47417763,-2.0,-2.0,-2.0,-2.0
2025-06-09 09:21:32.822,0.04219233,0.020595718,-0.018384852,-0.031815853,-0.012314973,0.0100652315,0.0,0.0,0.0,0.016594522,-0.07105508,0.13421948,0.021858232,0.1343408,0.3063465,-0.05005469,0.016992033,-0.04982782,0.049680162,-0.07386152,-0.380133,-0.15509322,-0.011742719,-0.055513293,0.033018887,-0.049114797,-0.06795163,0.0153736435,-0.05327544,-0.033954963,-0.073093705,0.0511061,0.0033628296,0.04890136,-2.0,0.9019429,-0.16900578,2.0,1.6990728,-2.0,2.0,-0.47417763,-2.0,-2.0,-2.0,-2.0,-2.0,0.71248144,-0.0044772252,2.0,1.7756208,-2.0,2.0,-0.5053298,-2.0,-2.0,-2.0,-2.0
2025-06-09 09:21:32.842,0.032027498,0.01998162,0.009685035,-0.044082686,-0.01853713,-0.023687856,0.0,0.0,0.0,0.016342444,-0.069717765,0.14225265,0.025121428,0.12272118,0.2981257,-0.051448256,0.015415193,-0.03362002,0.044334464,-0.065752745,-0.37315023,-0.13868181,-0.022388795,-0.039733548,-0.041813742,-0.034007803,0.017354064,-0.026792794,0.041900266,0.07019353,0.0657837,0.03828961,-0.00439035,-0.059955705,-2.0,0.71248144,-0.0044772252,2.0,1.7756208,-2.0,2.0,-0.5053298,-2.0,-2.0,-2.0,-2.0,-2.0,0.70713603,-0.3629976,2.0,1.926103,-2.0,2.0,-0.64415675,-2.0,-2.0,-2.0,-2.0
2025-06-09 09:21:32.864,0.03162039,0.04346478,-0.037752166,-0.015198481,0.057284787,-0.03901432,0.0,0.0,0.0,0.015930736,-0.08004305,0.13871342,0.031775452,0.13520718,0.2960227,-0.043851227,0.028528327,-0.036170643,0.038252328,-0.06027009,-0.3609584,-0.14901245,0.04073365,0.04918896,0.005573557,0.01584752,0.05998274,-0.013532727,-0.0061588553,0.054670498,0.0096828835,0.07062864,0.029700791,0.027741214,-2.0,0.70713603,-0.3629976,2.0,1.926103,-2.0,2.0,-0.64415675,-2.0,-2.0,-2.0,-2.0,-2.0,0.8333141,-0.27287292,2.0,1.8333915,-2.0,2.0,-0.5618376,-2.0,-2.0,-2.0,-2.0
2025-06-09 09:21:32.882,-0.018186506,-0.0055933055,-0.025059411,-0.05710773,0.0583499,0.0040383735,0.0,0.0,0.0,0.01573807,-0.07548045,0.14281112,0.038024798,0.12558822,0.2975176,-0.052208904,0.02803094,-0.047210194,0.04364507,-0.06934352,-0.36580676,-0.14697003,0.021897437,-0.062224675,-0.004006827,-0.06090913,-0.042880345,-0.07216821,0.0349419,-0.074766405,-0.06816008,0.069467284,0.044511866,-0.05583605,-2.0,0.8333141,-0.27287292,2.0,1.8333915,-2.0,2.0,-0.5618376,-2.0,-2.0,-2.0,-2.0,-2.0,0.8366426,-0.3991133,2.0,1.8583345,-2.0,2.0,-0.58860904,-2.0,-2.0,-2.0,-2.0
2025-06-09 09:21:32.902,-0.014567254,-0.019981384,0.04681154,0.022539804,0.04598642,-0.0030803399,0.0,0.0,0.0,0.015664537,-0.06255199,0.13555387,0.03019107,0.12794285,0.30896372,-0.049127374,0.032637518,-0.03682557,0.0559541,-0.07601533,-0.37569815,-0.15228684,0.05269932,-0.03518652,0.013894741,-0.006012051,0.0078107994,-0.018313533,0.05555161,-0.0053483653,-0.05567978,0.05445671,-0.056498777,0.01430099,-2.0,0.8366426,-0.3991133,2.0,1.8583345,-2.0,2.0,-0.58860904,-2.0,-2.0,-2.0,-2.0,-2.0,0.63223207,-0.3282627,2.0,2.0,-2.0,2.0,-0.80790144,-2.0,-2.0,-2.0,-2.0
2025-06-09 09:21:32.922,0.021132145,0.04531075,-0.02965316,0.02275359,0.036588017,0.019338235,0.0,0.0,0.0,0.015650699,-0.07754733,0.15089987,0.025637673,0.13600935,0.30785632,-0.056358717,0.023902547,-0.03905838,0.052095667,-0.070729725,-0.3768077,-0.14369354,0.06943087,-0.04241885,0.016607113,-0.046064306,-0.060802106,-0.045587495,0.053955734,-0.0700501,0.06321852,0.035247263,0.056574523,-0.053352494,-2.0,0.63223207,-0.3282627,2.0,2.0,-2.0,2.0,-0.80790144,-2.0,-2.0,-2.0,-2.0,-2.0,0.9328705,-0.35881814,2.0,1.9517933,-2.0,2.0,-0.7195193,-2.0,-2.0,-2.0,-2.0
2025-06-09 09:21:32.942,0.013722299,0.039466362,-0.0022046086,-0.012585599,0.0040282356,0.01651923,0.0,0.0,0.0,0.015964096,-0.063466296,0.14707749,0.027389174,0.12760857,0.3009816,-0.047745064,0.023603033,-0.047301088,0.04903532,-0.06299244,-0.3829892,-0.14627151,0.043129813,0.033539392,0.05674414,0.06311774,0.04404253,-0.009487206,-0.06708546,-0.03356588,0.0063311984,0.029131638,-0.04629287,0.004688693,-2.0,0.9328705,-0.35881814,2.0,1.9517933,-2.0,2.0,-0.7195193,-2.0,-2.0,-2.0,-2.0,-2.0,0.81081635,-0.33991757,2.0,1.9611892,-2.0,2.0,-0.5710508,-2.0,-2.0,-2.0,-2.0
2025-06-09 09:21:32.966,0.0007723703,-0.023288423,-0.0037581003,0.041318525,-0.021451373,0.0042615007,0.0,0.0,0.0,0.016391186,-0.07621434,0.15129885,0.020894097,0.13415682,0.30695376,-0.050780755,0.031124948,-0.0442431,0.05265927,-0.06527697,-0.37065405,-0.15342084,0.013149393,0.07166657,0.055253573,0.042309243,-0.021170465,0.034148682,-0.05587443,-0.031248134,-0.0494246,-0.0035494983,-0.042592756,-0.037531476,-2.0,0.81081635,-0.33991757,2.0,1.9611892,-2.0,2.0,-0.5710508,-2.0,-2.0,-2.0,-2.0,-2.0,0.69649607,-0.057946436,2.0,1.9902266,-2.0,2.0,-0.5876995,-2.0,-2.0,-2.0,-2.0
2025-06-09 09:21:32.982,0.026738461,0.0114775095,-0.056722183,0.016347367,-0.0037310766,-0.01110998,0.0,0.0,0.0,0.016704464,-0.073480256,0.14242284,0.014950018,0.1318698,0.31266943,-0.054149054,0.027062837,-0.054219488,0.044301864,-0.062488668,-0.37504587,-0.1569613,0.051233295,0.064077474,-0.046365105,-0.005774329,0.024911499,0.024570763,0.00046433118,-0.004393211,0.0057579936,0.03674783,0.04984509,0.034997497,-2.0,0.69649607,-0.057946436,2.0,1.9902266,-2.0,2.0,-0.5876995,-2.0,-2.0,-2.0,-2.0,-2.0,0.8277274,-0.14101994,2.0,1.8404888,-2.0,2.0,-0.5623447,-2.0,-2.0,-2.0,-2.0
2025-06-09 09:21:33.002,0.0075111655,-0.0043132175,0.03886733,0.037893243,0.0108521925,0.022593305,0.0,0.0,0.0,0.016894707,-0.06858167,0.14353059,0.021107692,0.11960021,0.31266734,-0.059352264,0.020298908,-0.051865112,0.04903037,-0.05741714,-0.3771658,-0.14598447,-0.020909404,0.054475036,-0.007876896,-0.018249732,0.0465052,-0.012323665,-0.02379389,-0.044999473,-0.023302613,-0.0042649247,0.012718113,-0.06193898,-2.0,0.8277274,-0.14101994,2.0,1.8404888,-2.0,2.0,-0.5623447,-2.0,-2.0,-2.0,-2.0,-2.0,0.61265904,-0.5405043,2.0,2.0,-2.0,2.0,-0.7724857,-2.0,-2.0,-2.0,-2.0
2025-06-09 09:21:33.022,-0.061017685,-0.021580176,-0.051703468,-0.0056398073,-0.018419204,0.042508308,0.0,0.0,0.0,0.016874455,-0.08083479,0.1310977,0.026779052,0.12057445,0.2984969,-0.048023388,0.035677366,-0.044500932,0.05419666,-0.058609117,-0.36621025,-0.14557563,-0.061768517,0.054497294,0.054943435,0.011211885,-0.006821636,0.010390504,0.009588888,-0.05844068,-0.024563175,-0.04544134,-0.055345908,0.011871645,-2.0,0.61265904,-0.5405043,2.0,2.0,-2.0,2.0,-0.7724857,-2.0,-2.0,-2.0,-2.0,-2.0,0.9673651,-0.03695547,2.0,1.8534857,-2.0,2.0,-0.56243867,-2.0,-2.0,-2.0,-2.0
2025-06-09 09:21:33.042,0.040633883,0.020449137,-0.021375798,0.026268324,-0.020552495,-0.031074347,0.0,0.0,0.0,0.01702492,-0.08089202,0.14338192,0.024146356,0.12191903,0.30810454,-0.053379234,0.026744531,-0.05316538,0.058339387,-0.053596612,-0.3770172,-0.15781437,-0.049090873,-0.05194144,-0.061901756,-0.012243946,0.06651959,-0.07140877,0.002447017,-0.07096628,-0.030490942,-0.02533158,-0.011195307,-0.050772067,-2.0,0.9673651,-0.03695547,2.0,1.8534857,-2.0,2.0,-0.56243867,-2.0,-2.0,-2.0,-2.0,-2.0,0.76938987,-0.62320083,2.0,1.9250933,-2.0,2.0,-0.49704266,-2.0,-2.0,-2.0,-2.0
2025-06-09 09:21:33.065,-0.040508345,-0.048324753,0.012168421,-0.0045591826,0.02920513,0.04946947,0.0,0.0,0.0,0.01700977,-0.065046184,0.15182614,0.015562562,0.12100565,0.30251107,-0.060013976,0.03619124,-0.036598496,0.054642614,-0.059276816,-0.36001647,-0.14348227,0.070505396,-0.04877307,-0.08023879,0.07466621,0.006806672,-0.05306457,0.013880296,0.07766701,-0.006820122,-0.06829172,-0.05462124,-0.037381932,-2.0,0.76938987,-0.62320083,2.0,1.9250933,-2.0,2.0,-0.49704266,-2.0,-2.0,-2.0,-2.0,-2.0,0.59619135,-0.32664755,2.0,2.0,-2.0,2.0,-0.6533542,-2.0,-2.0,-2.0,-2.0
2025-06-09 09:21:33.083,0.024406815,0.047864452,0.019463032,-0.0023926347,0.01942417,0.0020740663,0.0,0.0,0.0,0.01686843,-0.076482356,0.14752212,0.021850616,0.13068752,0.29702765,-0.056090612,0.02264766,-0.054662447,0.050388668,-0.065552965,-0.36030167,-0.15758586,0.00024536258,0.00042756734,-0.07604652,-0.0021903713,0.013347882,-0.0114899445,-0.06359938,0.062479485,0.007372682,-0.021999175,-0.027479917,-0.068042494,-2.0,0.59619135,-0.32664755,2.0,2.0,-2.0,2.0,-0.6533542,-2.0,-2.0,-2.0,-2.0,-2.0,0.74194795,-0.37326014,2.0,2.0,-2.0,2.0,-0.7747557,-2.0,-2.0,-2.0,-2.0
2025-06-09 09:21:33.103,-0.00076609646,0.028461603,-0.03960186,0.03892152,-0.037892796,0.029988103,0.0,0.0,0.0,0.016897414,-0.079351194,0.14826158,0.011370653,0.13177684,0.3103556,-0.062798895,0.020417273,-0.048689097,0.041788857,-0.05409192,-0.37287155,-0.14934869,-0.06025111,-0.0059031122,-0.03485612,-0.026592538,0.07496433,-0.03284088,-0.042438664,0.051493164,-0.049689837,-0.001368923,-0.026698895,0.02901803,-2.0,0.74194795,-0.37326014,2.0,2.0,-2.0,2.0,-0.7747557,-2.0,-2.0,-2.0,-2.0,-2.0,0.9373732,-0.3236634,2.0,1.7787906,-2.0,2.0,-0.5586867,-2.0,-2.0,-2.0,-2.0
2025-06-09 09:21:33.123,0.010502862,-0.04638894,0.035005357,-0.0314601,0.022737375,0.031537473,0.0,0.0,0.0,0.01712276,-0.08394397,0.14778227,0.017153813,0.124714166,0.31267497,-0.051889848,0.034597773,-0.04064863,0.05030508,-0.057827864,-0.3783285,-0.148086,-0.07155459,0.034228053,-0.03328368,-0.07139004,-0.009253609,0.038689047,0.007084838,0.043929275,0.046047032,0.015976686,-0.048079316,-0.07215844,-2.0,0.9373732,-0.3236634,2.0,1.7787906,-2.0,2.0,-0.5586867,-2.0,-2.0,-2.0,-2.0,-2.0,0.57917607,-0.34060198,2.0,2.0,-2.0,2.0,-0.7541186,-2.0,-2.0,-2.0,-2.0
2025-06-09 09:21:33.143,0.035787735,-0.024474902,-0.044494007,0.023238381,-0.03576111,0.044099987,0.0,0.0,0.0,0.017143715,-0.07290822,0.1348628,0.009309343,0.11585661,0.29739273,-0.050062336,0.035257813,-0.05241362,0.0529646,-0.057005946,-0.37695876,-0.15040256,0.056977708,-0.06029568,0.06773518,0.012840423,0.068518646,-0.012176104,-0.051612496,0.040477324,-0.066537075,-0.01675356,0.06842049,0.040099625,-2.0,0.57917607,-0.34060198,2.0,2.0,-2.0,2.0,-0.7541186,-2.0,-2.0,-2.0,-2.0,-2.0,0.90095896,-0.329066,2.0,1.7318676,-2.0,2.0,-0.709421,-2.0,-2.0,-2.0,-2.0
2025-06-09 09:21:33.165,-0.050371286,-0.0067359647,0.043234684,0.016457062,-0.0003543491,-0.04258349,0.0,0.0,0.0,0.017225929,-0.0858261,0.14869326,0.017988926,0.12845881,0.30809796,-0.054546516,0.02998819,-0.052395713,0.048580576,-0.052994788,-0.37484857,-0.14687815,0.020888971,-0.006733978,0.038281705,0.03356625,-0.045199238,0.03968564,0.0037517897,0.054654386,0.019684128,-0.019152984,-0.07733754,0.002667974,-2.0,0.90095896,-0.329066,2.0,1.7318676,-2.0,2.0,-0.709421,-2.0,-2.0,-2.0,-2.0,-2.0,0.6623967,-0.24326065,2.0,2.0,-2.0,2.0,-0.76184154,-2.0,-2.0,-2.0,-2.0
2025-06-09 09:21:33.183,0.004197359,0.014176892,-0.051075596,-0.05261697,-0.017602954,-0.012453385,0.0,0.0,0.0,0.017248463,-0.07742469,0.13236259,0.019061401,0.123919666,0.30222836,-0.053941917,0.031391084,-0.05898395,0.054355256,-0.06893691,-0.37280104,-0.14862064,0.067621544,-0.0214255,0.009277774,-0.07368516,-0.047696337,-0.039551925,-0.048692003,-0.061344616,-0.019554263,0.038585808,0.027107736,-0.048590604,-2.0,0.6623967,-0.24326065,2.0,2.0,-2.0,2.0,-0.76184154,-2.0,-2.0,-2.0,-2.0,-2.0,1.002935,-0.12651056,2.0,1.8292867,-2.0,2.0,-0.6565836,-2.0,-2.0,-2.0,-2.0
2025-06-09 09:21:33.203,0.042148475,0.005957986,0.0042190766,-0.05065339,-0.035461284,0.045193378,0.0,0.0,0.0,0.017301071,-0.087294705,0.13326763,0.015023661,0.12162388,0.30850688,-0.054645337,0.030132033,-0.05142984,0.062309634,-0.051262934,-0.3701041,-0.14692304,0.029353699,-0.021177774,0.029360035,0.0066245366,-0.020347185,0.07459083,0.04596926,0.050758988,0.056042172,0.017140618,-0.04580677,-0.03330919,-2.0,1.002935,-0.12651056,2.0,1.8292867,-2.0,2.0,-0.6565836,-2.0,-2.0,-2.0,-2.0,-2.0,0.70902735,-0.26455826,2.0,2.0,-2.0,2.0,-0.70692176,-2.0,-2.0,-2.0,-2.0
2025-06-09 09:21:33.223,-0.044597052,-0.02647808,0.016654493,-0.04667802,-0.0044833864,-0.026731718,0.0,0.0,0.0,0.01718763,-0.078486,0.13446052,0.013648579,0.11971907,0.29499406,-0.061861526,0.030031033,-0.047023997,0.04895013,-0.06189746,-0.36803064,-0.14287601,-0.06070576,-0.04088986,0.074583575,0.06322789,-0.056172833,0.031899747,0.027810212,0.070163585,0.043756984,0.017302152,-0.03327525,0.024844702,-2.0,0.70902735,-0.26455826,2.0,2.0,-2.0,2.0,-0.70692176,-2.0,-2.0,-2.0,-2.0,-2.0,0.8212901,-0.26951158,2.0,1.9582888,-2.0,2.0,-0.7635002,-2.0,-2.0,-2.0,-2.0
2025-06-09 09:21:33.243,-0.006905906,-0.0029312072,0.026021361,-0.040729493,-0.00617421,0.026992764,0.0,0.0,0.0,0.017080955,-0.08731069,0.1512352,0.023347452,0.12126364,0.29565287,-0.04580878,0.0360497,-0.058337282,0.046287555,-0.052223492,-0.37885326,-0.1526152,0.008819759,0.035719506,0.0110271005,-0.027955238,0.0395777,0.02693188,0.013977999,0.040912703,-0.033513665,-0.032615326,-0.01113633,-0.009184177,-2.0,0.8212901,-0.26951158,2.0,1.9582888,-2.0,2.0,-0.7635002,-2.0,-2.0,-2.0,-2.0,-2.0,0.7741336,-0.5087332,2.0,1.9957387,-2.0,2.0,-0.8192549,-2.0,-2.0,-2.0,-2.0
2025-06-09 09:21:33.265,-0.054947123,0.024249716,-0.008443987,0.016668394,0.018707912,0.02733404,0.0,0.0,0.0,0.017086355,-0.068108775,0.14746803,0.017340982,0.124564424,0.3040862,-0.055597182,0.036591798,-0.052029036,0.060598847,-0.06751981,-0.36957222,-0.14964974,0.051873405,0.057432443,-0.07711582,-0.009542008,-0.002705465,-0.06420641,0.010790885,-0.032788396,-0.045608122,-0.03114654,-0.046651892,-0.050628465,-2.0,0.7741336,-0.5087332,2.0,1.9957387,-2.0,2.0,-0.8192549,-2.0,-2.0,-2.0,-2.0,-2.0,0.8730514,-0.22454315,2.0,2.0,-2.0,2.0,-0.68160146,-2.0,-2.0,-2.0,-2.0
2025-06-09 09:21:33.284,0.033598147,0.012456898,-0.035578173,0.0004484409,-0.019934762,-0.010341161,0.0,0.0,0.0,0.017263122,-0.073865734,0.14403762,0.024050761,0.12717958,0.30335307,-0.05044136,0.028653549,-0.06323316,0.04945965,-0.05962198,-0.37741745,-0.15676804,-0.0066995653,-0.00088992,-0.029982299,0.03004398,0.02218438,-0.015523153,0.030773785,0.043111455,-0.022631811,-0.06345427,0.017124146,0.06860266,-2.0,0.8730514,-0.22454315,2.0,2.0,-2.0,2.0,-0.68160146,-2.0,-2.0,-2.0,-2.0,-2.0,0.8508145,-0.34901848,2.0,1.8291336,-2.0,2.0,-0.52736723,-2.0,-2.0,-2.0,-2.0
2025-06-09 09:21:33.303,0.01790554,0.02246896,0.0030439275,0.030251153,-0.013206897,0.003636859,0.0,0.0,0.0,0.017404556,-0.07469157,0.14360338,0.02197493,0.12805262,0.30729562,-0.049416818,0.020979393,-0.054293036,0.053739116,-0.05622864,-0.37710586,-0.14670537,0.018408911,0.020950764,-0.05744343,0.048605494,-0.014360791,0.023618376,-0.05831114,0.070581496,-0.075796895,0.013073287,0.010947054,-0.045988746,-2.0,0.8508145,-0.34901848,2.0,1.8291336,-2.0,2.0,-0.52736723,-2.0,-2.0,-2.0,-2.0,-2.0,0.61205757,-0.17996353,2.0,1.979709,-2.0,2.0,-0.62104684,-2.0,-2.0,-2.0,-2.0
2025-06-09 09:21:33.324,0.0040608854,0.0069833137,0.02236562,-0.0038881404,0.04098956,0.0462474,0.0,0.0,0.0,0.017289257,-0.070360735,0.15119189,0.014706276,0.12690826,0.31149268,-0.060978238,0.022552464,-0.043318156,0.052141536,-0.05950883,-0.3685148,-0.14428075,-0.005222232,0.052538827,-0.060083143,-0.032507833,-0.05655311,-0.030090168,0.063214816,0.007714436,0.057866264,0.061524387,0.017131735,-0.04475334,-2.0,0.61205757,-0.17996353,2.0,1.979709,-2.0,2.0,-0.62104684,-2.0,-2.0,-2.0,-2.0,-2.0,0.6948814,-0.2731675,2.0,2.0,-2.0,2.0,-0.8594175,-2.0,-2.0,-2.0,-2.0
2025-06-09 09:21:33.344,0.024454826,0.027572973,-0.032995593,0.019688351,-0.015528542,-0.042282164,0.0,0.0,0.0,0.017137246,-0.07000788,0.1382571,0.029059926,0.1203091,0.3136942,-0.05380388,0.029241491,-0.06045981,0.046693906,-0.06696649,-0.37433654,-0.15900491,-0.045221943,-0.054248326,0.0715952,0.03424385,0.050568577,-0.0509429,-0.03700256,0.022507336,-0.031329263,-0.04647861,0.035199016,0.01472983,-2.0,0.6948814,-0.2731675,2.0,2.0,-2.0,2.0,-0.8594175,-2.0,-2.0,-2.0,-2.0,-2.0,0.99423695,-0.46060574,2.0,1.756005,-2.0,2.0,-0.61548525,-2.0,-2.0,-2.0,-2.0
2025-06-09 09:21:33.365,0.046886142,0.034139767,-0.04052858,0.03517415,-0.01303996,0.034816902,0.0,0.0,0.0,0.017211514,-0.079614215,0.13803571,0.02988531,0.1309938,0.31141233,-0.053653445,0.037691128,-0.05001153,0.052504916,-0.05919166,-0.3785363,-0.15528585,-0.042999048,0.024410864,0.006059842,0.038657464,-0.0532188,-0.028192086,0.044335704,-0.044534147,-0.05392135,0.030293738,0.058862705,0.07399072,-2.0,0.99423695,-0.46060574,2.0,1.756005,-2.0,2.0,-0.61548525,-2.0,-2.0,-2.0,-2.0,-2.0,0.7295082,-0.22348681,2.0,1.8409888,-2.0,2.0,-0.48085937,-2.0,-2.0,-2.0,-2.0
2025-06-09 09:21:33.384,0.029282304,0.04627286,0.009917368,-0.056911368,0.014895727,0.036344413,0.0,0.0,0.0,0.017157914,-0.073536895,0.14352901,0.03158855,0.122163266,0.30130026,-0.06422332,0.03615129,-0.050202694,0.057314664,-0.06357531,-0.37378857,-0.14695723,-0.026863743,-0.05760751,0.024132187,0.0025737472,0.03821135,0.031824913,-0.009732969,0.03624407,-0.04195452,0.0046550417,-0.040205378,-0.025203733,-2.0,0.7295082,-0.22348681,2.0,1.8409888,-2.0,2.0,-0.48085937,-2.0,-2.0,-2.0,-2.0,-2.0,0.7006182,-0.36198598,2.0,1.9024987,-2.0,2.0,-0.6639644,-2.0,-2.0,-2.0,-2.0
2025-06-09 09:21:33.404,-0.0045901593,-0.03249449,0.012123888,-0.05457137,0.020627482,0.035071958,0.0,0.0,0.0,0.016868146,-0.071634285,0.14749917,0.020669654,0.13585888,0.30255875,-0.053278014,0.03716413,-0.04583349,0.05541623,-0.052469563,-0.37328953,-0.14681698,0.04962594,0.07304509,0.07076574,-0.06503885,-0.07208659,-0.039924927,-0.06885376,-0.04590574,0.06938262,0.06794751,-0.004877301,0.062352795,-2.0,0.7006182,-0.36198598,2.0,1.9024987,-2.0,2.0,-0.6639644,-2.0,-2.0,-2.0,-2.0,-2.0,0.73346215,-0.02431991,2.0,1.9632759,-2.0,2.0,-0.8287006,-2.0,-2.0,-2.0,-2.0
2025-06-09 09:21:33.424,0.028778287,-0.020424733,0.013550432,-0.02019183,-0.012670096,0.013161973,0.0,0.0,0.0,0.016652627,-0.069886304,0.15217926,0.018874096,0.1213135,0.29497725,-0.061165627,0.017052654,-0.045447674,0.045273885,-0.06016017,-0.3716112,-0.14974323,0.053985897,0.06562925,0.0009370464,0.0040003066,-0.034717098,0.06348392,0.052407354,-0.004048259,-0.03442591,-0.043121133,-0.0460293,0.012151232,-2.0,0.73346215,-0.02431991,2.0,1.9632759,-2.0,2.0,-0.8287006,-2.0,-2.0,-2.0,-2.0,-2.0,0.8717478,-0.11526471,2.0,1.9928766,-2.0,2.0,-0.727898,-2.0,-2.0,-2.0,-2.0
2025-06-09 09:21:33.444,0.013574319,-0.019028509,-0.016810277,-0.025798405,-0.039619405,-0.04151152,0.0,0.0,0.0,0.016641095,-0.086326264,0.15227588,0.016229514,0.1353388,0.30545595,-0.059134092,0.032336097,-0.060973242,0.054695845,-0.06407175,-0.37747028,-0.15154763,0.06598231,-0.072330356,-0.0032609762,0.07414596,0.01950775,0.07547184,-0.03270604,0.06014827,-0.03120316,-0.05510526,0.06579997,0.024853764,-2.0,0.8717478,-0.11526471,2.0,1.9928766,-2.0,2.0,-0.727898,-2.0,-2.0,-2.0,-2.0,-2.0,0.8556036,-0.5171511,2.0,1.8574322,-2.0,2.0,-0.6436852,-2.0,-2.0,-2.0,-2.0
2025-06-09 09:21:33.465,-0.040798493,0.027441517,-0.0299581,-0.04703161,0.027161563,-0.0071708695,0.0,0.0,0.0,0.016686836,-0.083599165,0.14021662,0.02008349,0.12762335,0.2940549,-0.04929694,0.036143865,-0.045179702,0.05449406,-0.06681839,-0.36207443,-0.15799378,-0.037208207,-0.057568002,-0.07190585,-0.046943825,0.07411596,0.058643665,-0.072591305,0.04003894,-0.042914037,0.018704142,-0.06674132,0.025640445,-2.0,0.8556036,-0.5171511,2.0,1.8574322,-2.0,2.0,-0.6436852,-2.0,-2.0,-2.0,-2.0,-2.0,0.8495851,-0.30756032,2.0,1.8088772,-2.0,2.0,-0.5320095,-2.0,-2.0,-2.0,-2.0
2025-06-09 09:21:33.484,0.024562486,-0.013021353,0.0047933846,-0.022253638,-0.02529879,-0.019187696,0.0,0.0,0.0,0.016706418,-0.08043049,0.14577031,0.020398803,0.1273752,0.30471268,-0.063733004,0.030580666,-0.050472844,0.058653805,-0.059150208,-0.36302945,-0.15483193,0.058923025,-0.0224646,0.015508433,0.057217732,0.04070386,-0.0726067,-0.053854197,0.018701848,-0.00773978,0.024478745,-0.03557962,-0.0048046974,-2.0,0.8495851,-0.30756032,2.0,1.8088772,-2.0,2.0,-0.5320095,-2.0,-2.0,-2.0,-2.0,-2.0,0.6720152,-0.35811782,2.0,1.9521719,-2.0,2.0,-0.6196673,-2.0,-2.0,-2.0,-2.0
2025-06-09 09:21:33.504,-0.023168156,-0.039807208,0.0020820515,0.03054032,-0.0066779777,0.042072907,0.0,0.0,0.0,0.016572868,-0.077595755,0.136935,0.030802803,0.1308491,0.30880418,-0.060054477,0.024597814,-0.049460296,0.042814523,-0.05485477,-0.3776072,-0.16164103,0.031545553,-0.018911347,-0.014113147,-0.012834471,0.063398905,-0.024377432,-0.036992,0.00053762033,0.010742127,-0.075184174,0.056679238,0.011078374,-2.0,0.6720152,-0.35811782,2.0,1.9521719,-2.0,2.0,-0.6196673,-2.0,-2.0,-2.0,-2.0,-2.0,0.71053463,-0.5814635,2.0,1.930662,-2.0,2.0,-0.7626278,-2.0,-2.0,-2.0,-2.0
2025-06-09 09:21:33.524,-0.005393014,0.015771627,-0.058522604,0.0067087156,0.05573235,0.0017379203,0.0,0.0,0.0,0.016490668,-0.07346615,0.13554597,0.021481475,0.13635845,0.29893818,-0.052520342,0.022772197,-0.05283992,0.04397664,-0.066985935,-0.36371338,-0.14797257,-0.025061188,-0.05566093,-0.02255352,-0.0057810824,-0.013487967,-0.0066290004,0.025825484,-0.07997967,-0.06141705,-0.039667483,-0.043726087,0.038143065,-2.0,0.71053463,-0.5814635,2.0,1.930662,-2.0,2.0,-0.7626278,-2.0,-2.0,-2.0,-2.0,-2.0,0.9876475,-0.22567198,2.0,1.7915971,-2.0,2.0,-0.45755288,-2.0,-2.0,-2.0,-2.0
2025-06-09 09:21:33.544,-0.0067662313,-0.01896344,-0.007474614,-0.046572585,0.054658197,0.0017228296,0.0,0.0,0.0,0.016667318,-0.07224144,0.14836872,0.02334549,0.13485125,0.30293036,-0.059243884,0.036872163,-0.049349252,0.051959753,-0.052433204,-0.3678019,-0.14983629,-0.019764652,-0.05140174,-0.023752643,0.03437221,0.04726298,0.021905709,-0.07095417,0.060161535,0.063358314,0.027251797,-0.052278426,0.065747775,-2.0,0.9876475,-0.22567198,2.0,1.7915971,-2.0,2.0,-0.45755288,-2.0,-2.0,-2.0,-2.0,-2.0,0.6184822,-0.3404725,2.0,1.8822144,-2.0,2.0,-0.52324224,-2.0,-2.0,-2.0,-2.0
2025-06-09 09:21:33.566,-0.03864797,0.019229466,-0.022590067,-0.048387375,0.05000628,-0.023735218,0.0,0.0,0.0,0.016617073,-0.07822865,0.14774165,0.019040123,0.12059093,0.3080653,-0.05209354,0.022959843,-0.046218347,0.04820819,-0.05457955,-0.37944478,-0.1579478,-0.002290151,-0.06576457,-0.018164638,-0.009277685,-0.0753769,-0.01704419,-0.039626505,-0.012051877,0.041508723,-0.03707469,-0.055789072,-0.065234266,-2.0,0.6184822,-0.3404725,2.0,1.8822144,-2.0,2.0,-0.52324224,-2.0,-2.0,-2.0,-2.0,-2.0,0.7661932,-0.10077711,2.0,1.9557887,-2.0,2.0,-0.576546,-2.0,-2.0,-2.0,-2.0
2025-06-09 09:21:33.650,-0.0062257187,-0.028110642,0.015859755,0.0040042903,0.009928298,0.0049960637,0.0,0.0,0.0,0.016467055,-0.07878561,0.15773673,0.016102862,0.12104353,0.29701534,-0.055740472,0.021352619,-0.046303205,0.049614254,-0.06401587,-0.36441195,-0.14700484,-0.022185,0.018029476,0.023938358,0.030188538,0.028496038,-0.0035297242,-0.045035303,-0.06425335,-0.01015852,-0.017727576,0.027698534,-0.07052119,-2.0,0.7661932,-0.10077711,2.0,1.9557887,-2.0,2.0,-0.576546,-2.0,-2.0,-2.0,-2.0,-2.0,0.71631056,-0.58006316,2.0,2.0,-2.0,2.0,-0.67799,-2.0,-2.0,-2.0,-2.0
2025-06-09 09:21:33.670,0.016734082,0.008410142,-0.005390469,0.02693181,0.05086188,0.005907976,0.0,0.0,0.0,0.016352152,-0.07641746,0.15155956,0.025086904,0.13229667,0.30976808,-0.064628646,0.02918682,-0.048680272,0.04918925,-0.0692694,-0.37350407,-0.1564739,-0.012311254,0.03572165,-0.03063718,0.057124317,-0.015506629,-0.035768446,0.010424742,-0.033691887,-0.0055488725,-0.010921404,-0.046743695,0.005721725,-2.0,0.71631056,-0.58006316,2.0,2.0,-2.0,2.0,-0.67799,-2.0,-2.0,-2.0,-2.0,-2.0,0.7682859,-0.29957572,2.0,2.0,-2.0,2.0,-0.6308735,-2.0,-2.0,-2.0,-2.0
2025-06-09 09:21:33.772,0.02467079,0.023042925,0.007743674,0.013895847,0.05485792,0.036761865,0.0,0.0,0.0,0.016453324,-0.07639081,0.15228036,0.024655998,0.12512566,0.2976845,-0.057847828,0.017673407,-0.04823651,0.040933304,-0.05920391,-0.37219843,-0.15081567,0.039196126,-0.038604777,-0.0016892839,0.014506185,0.0115530295,-0.040583193,-0.05722294,0.010060893,0.000625081,0.029445546,-0.05808037,0.017049527,-2.0,0.7682859,-0.29957572,2.0,2.0,-2.0,2.0,-0.6308735,-2.0,-2.0,-2.0,-2.0,-2.0,0.75438464,-0.3837424,2.0,1.9751316,-2.0,2.0,-0.6929348,-2.0,-2.0,-2.0,-2.0
2025-06-09 09:21:33.793,-0.009450476,0.04110614,-0.053044792,0.0008070106,-0.00023463284,0.021577043,0.0,0.0,0.0,0.016672568,-0.07000394,0.15170565,0.02368139,0.12666112,0.30707908,-0.045952715,0.03350888,-0.050669014,0.047702298,-0.0579113,-0.36952347,-0.15310344,-0.06052129,0.062115774,-0.0762669,0.038070746,0.00093240524,-0.05895176,-0.041608784,0.053452015,-0.011156326,0.06575205,0.025725836,0.004221179,-2.0,0.75438464,-0.3837424,2.0,1.9751316,-2.0,2.0,-0.6929348,-2.0,-2.0,-2.0,-2.0,-2.0,0.887014,-0.15162304,2.0,1.8330867,-2.0,2.0,-0.52593285,-2.0,-2.0,-2.0,-2.0
2025-06-09 09:21:33.815,-0.026622698,-0.013088008,-0.024146317,-0.01269737,-0.020003658,0.041747615,0.0,0.0,0.0,0.016937228,-0.08203236,0.1507101,0.010635589,0.13433945,0.30619165,-0.045248497,0.022016073,-0.043429226,0.057095647,-0.057282504,-0.3772667,-0.1530311,0.05874251,0.007523837,0.010215337,-0.017453602,0.02721263,-0.054643236,-0.029390745,0.018642839,0.014348864,-0.0041740322,0.062444292,-0.026864354,-2.0,0.887014,-0.15162304,2.0,1.8330867,-2.0,2.0,-0.52593285,-2.0,-2.0,-2.0,-2.0,-2.0,0.705876,-0.30876285,2.0,1.8854553,-2.0,2.0,-0.55585355,-2.0,-2.0,-2.0,-2.0
2025-06-09 09:21:33.833,-0.005252023,0.05172132,0.019138938,-0.057620827,-0.003806348,-0.0044473014,0.0,0.0,0.0,0.016959338,-0.081793875,0.15606023,0.028645357,0.123729035,0.30255547,-0.047522984,0.023612987,-0.05317453,0.047024652,-0.055694617,-0.36389947,-0.14112061,0.039042216,0.026424622,-0.06509603,0.04639169,0.05877866,0.025464213,-0.05821579,-0.0011400576,0.052547686,-0.059340935,0.07276545,0.023042629,-2.0,0.705876,-0.30876285,2.0,1.8854553,-2.0,2.0,-0.55585355,-2.0,-2.0,-2.0,-2.0,-2.0,0.645204,-0.72355354,2.0,2.0,-2.0,2.0,-0.7437742,-2.0,-2.0,-2.0,-2.0
2025-06-09 09:21:33.853,-0.07102041,-0.03008299,-0.058732115,0.018642502,0.05034643,0.038865894,0.0,0.0,0.0,0.016833559,-0.06977531,0.141362,0.019505812,0.11676712,0.29880527,-0.059777923,0.027381338,-0.04702424,0.05116603,-0.06947117,-0.36316004,-0.15138994,0.057774942,-0.06378534,-0.06907899,0.030874563,-0.04309127,0.01858818,0.061419643,-0.07413782,0.045719802,-0.052950725,-0.07976844,-0.06518536,-2.0,0.645204,-0.72355354,2.0,2.0,-2.0,2.0,-0.7437742,-2.0,-2.0,-2.0,-2.0,-2.0,0.9280973,-0.17590511,2.0,1.9923979,-2.0,2.0,-0.54021305,-2.0,-2.0,-2.0,-2.0
2025-06-09 09:21:33.873,0.012116196,0.01977652,0.040218886,0.021533532,0.026670028,-0.030998098,0.0,0.0,0.0,0.016979849,-0.06804587,0.14549845,0.019992,0.12710789,0.30267298,-0.05284674,0.02833822,-0.04931715,0.03888083,-0.060690273,-0.36208093,-0.15448761,-0.053588215,-0.039795443,-0.02506458,-0.017789386,-0.06036132,-0.0038590953,0.021457572,0.045144323,0.051178604,-0.053792797,-0.06635409,0.07205604,-2.0,0.9280973,-0.17590511,2.0,1.9923979,-2.0,2.0,-0.54021305,-2.0,-2.0,-2.0,-2.0,-2.0,0.6113248,-0.36659053,2.0,2.0,-2.0,2.0,-0.70989496,-2.0,-2.0,-2.0,-2.0
2025-06-09 09:21:33.893,0.015559537,0.04609296,-0.03792325,-0.04106314,0.005683578,-0.0036566504,0.0,0.0,0.0,0.017066047,-0.068817414,0.14939965,0.015641185,0.12437616,0.30616403,-0.049975026,0.028405886,-0.04631892,0.041284766,-0.0652157,-0.36530742,-0.14390379,-0.022019604,-0.045617122,0.05675524,-0.008003309,-0.04394696,-0.056980178,0.0532104,-0.023608817,0.045905456,-0.027540006,-0.044995785,-0.04943284,-2.0,0.6113248,-0.36659053,2.0,2.0,-2.0,2.0,-0.70989496,-2.0,-2.0,-2.0,-2.0,-2.0,0.94025487,-0.20330346,2.0,1.887804,-2.0,2.0,-0.5524827,-2.0,-2.0,-2.0,-2.0
2025-06-09 09:21:33.915,0.04399081,-0.007932996,-0.023343494,-0.005358432,0.033098757,0.0068767765,0.0,0.0,0.0,0.017199768,-0.07674169,0.15035789,0.024597228,0.11666933,0.30126375,-0.049269892,0.024609806,-0.0457707,0.053810272,-0.06023811,-0.36952814,-0.14024423,-0.049026944,0.036019042,-0.04664744,0.022966051,-0.03584817,0.0166083,0.0585679,0.058360003,-0.014010276,0.006327323,0.040166855,0.07188071,-2.0,0.94025487,-0.20330346,2.0,1.887804,-2.0,2.0,-0.5524827,-2.0,-2.0,-2.0,-2.0,-2.0,0.7000255,-0.22044775,2.0,1.8740097,-2.0,2.0,-0.537577,-2.0,-2.0,-2.0,-2.0
2025-06-09 09:21:33.933,-0.012972933,-0.014702408,0.012788729,-0.0007885675,0.009917274,-0.03422689,0.0,0.0,0.0,0.017174538,-0.08622675,0.15474454,0.0123504205,0.118196465,0.29842854,-0.054666992,0.028022967,-0.05279773,0.054876365,-0.06765647,-0.35958812,-0.15681706,8.617966e-05,-0.043132488,-0.054087985,0.03576622,-0.06533825,-0.03509395,0.05787832,0.035164103,-0.014910793,0.041997235,-0.06302798,-0.061733026,-2.0,0.7000255,-0.22044775,2.0,1.8740097,-2.0,2.0,-0.537577,-2.0,-2.0,-2.0,-2.0,-2.0,0.689534,-0.22518256,2.0,2.0,-2.0,2.0,-0.7077267,-2.0,-2.0,-2.0,-2.0
2025-06-09 09:21:33.953,-0.0005344179,0.016537348,0.032741286,0.008133627,-0.03441328,-0.031068828,0.0,0.0,0.0,0.016973916,-0.07102803,0.15009761,0.016132694,0.12379541,0.30277938,-0.05335935,0.026046857,-0.045353916,0.04135574,-0.06187802,-0.37034005,-0.146414,0.019306146,-0.04717074,0.06480505,0.058670755,-0.046165276,-0.0516406,-0.03431278,0.0076802713,-0.06395189,-0.068544656,0.012448926,-0.018663015,-2.0,0.689534,-0.22518256,2.0,2.0,-2.0,2.0,-0.7077267,-2.0,-2.0,-2.0,-2.0,-2.0,0.7798725,-0.42263702,2.0,1.995639,-2.0,2.0,-0.75710946,-2.0,-2.0,-2.0,-2.0
2025-06-09 09:21:33.973,0.014016042,0.028765019,-0.03580219,0.017947707,0.036420595,0.037035555,0.0,0.0,0.0,0.016886022,-0.07346944,0.13940243,0.01575528,0.13104317,0.30846363,-0.05153326,0.031638313,-0.05365441,0.04380162,-0.06833816,-0.37563878,-0.14006332,0.0037252617,-0.0018844068,-0.06217833,-0.020936528,-0.009278483,0.018826451,-0.025545388,0.038972717,0.05878704,-0.012011627,0.053193543,-0.021565448,-2.0,0.7798725,-0.42263702,2.0,1.995639,-2.0,2.0,-0.75710946,-2.0,-2.0,-2.0,-2.0,-2.0,0.85010487,-0.36059028,2.0,1.9010069,-2.0,2.0,-0.6673905,-2.0,-2.0,-2.0,-2.0
2025-06-09 09:21:33.993,0.01799236,0.022090713,-0.033741046,-0.053696882,-0.0063536204,0.019915206,0.0,0.0,0.0,0.01699157,-0.08305055,0.14707455,0.02082914,0.12120639,0.31037945,-0.052608624,0.024881007,-0.0505036,0.043647658,-0.06687191,-0.3667514,-0.15082766,-0.04324638,0.0084628025,-0.0071699466,-0.054867655,-0.0626444,-0.07290186,-0.058278263,-0.035227943,-0.046571523,-0.021616906,0.033078376,0.07155043,-2.0,0.85010487,-0.36059028,2.0,1.9010069,-2.0,2.0,-0.6673905,-2.0,-2.0,-2.0,-2.0,-2.0,0.8654126,-0.20605221,2.0,1.7877762,-2.0,2.0,-0.5568133,-2.0,-2.0,-2.0,-2.0
2025-06-09 09:21:34.015,-0.021178083,-0.022264216,0.021497699,0.013203552,-0.043547872,0.03215483,0.0,0.0,0.0,0.017084362,-0.082232326,0.1432279,0.030603336,0.11781199,0.29619902,-0.05748971,0.030218538,-0.04069931,0.057280514,-0.055282507,-0.36894563,-0.15568975,0.05849423,-0.026251854,0.055438235,0.049369384,0.07313287,0.051852785,0.0207237,0.0026377828,0.008923081,0.05453176,0.039268836,0.0059373183,-2.0,0.8654126,-0.20605221,2.0,1.7877762,-2.0,2.0,-0.5568133,-2.0,-2.0,-2.0,-2.0,-2.0,0.62970144,-0.592799,2.0,1.9931318,-2.0,2.0,-0.76076716,-2.0,-2.0,-2.0,-2.0
2025-06-09 09:21:34.033,-0.06243168,0.0012421466,-0.04171038,-0.01569295,0.028430076,0.012259349,0.0,0.0,0.0,0.016933512,-0.06798786,0.15281996,0.014006016,0.116681464,0.29596186,-0.05007297,0.018657807,-0.04641099,0.059796587,-0.06965222,-0.37711483,-0.14377595,-0.013495481,-0.0067441096,-0.022477726,-0.031623848,-0.057206105,-0.04364193,0.051377166,0.041262668,0.0756161,-0.06990854,-0.00036880892,0.06815781,-2.0,0.62970144,-0.592799,2.0,1.9931318,-2.0,2.0,-0.76076716,-2.0,-2.0,-2.0,-2.0,-2.0,0.9209022,-0.06311072,2.0,1.8332567,-2.0,2.0,-0.5826102,-2.0,-2.0,-2.0,-2.0
2025-06-09 09:21:34.053,0.029429428,-0.012336604,-0.0104581835,0.0064736665,0.030418463,-0.013047206,0.0,0.0,0.0,0.016952803,-0.07072824,0.14148347,0.012911207,0.12710491,0.31260863,-0.052296948,0.032973,-0.05598294,0.055535022,-0.061670415,-0.36247662,-0.15934366,0.01154281,-0.0055770506,-0.07081673,-0.046782233,0.035633184,-0.06421485,0.051865507,0.05802227,-0.06888292,-0.009231217,0.00040035538,-0.05310673,-2.0,0.9209022,-0.06311072,2.0,1.8332567,-2.0,2.0,-0.5826102,-2.0,-2.0,-2.0,-2.0,-2.0,0.72612566,-0.30920753,2.0,1.9200029,-2.0,2.0,-0.61043173,-2.0,-2.0,-2.0,-2.0
2025-06-09 09:21:34.073,-0.033593792,-0.005733905,0.003535608,-0.05244658,-0.022543345,-0.046847213,0.0,0.0,0.0,0.016871553,-0.06905917,0.1528809,0.01719634,0.12556808,0.30410552,-0.06618574,0.037829205,-0.04051769,0.060626738,-0.067670256,-0.3785919,-0.15616423,-0.03427411,0.0395974,-0.030551663,-0.021481171,-0.008783134,-0.055096332,-0.034865823,0.0027049817,0.05087934,-0.009284574,0.018125406,0.025518244,-2.0,0.72612566,-0.30920753,2.0,1.9200029,-2.0,2.0,-0.61043173,-2.0,-2.0,-2.0,-2.0,-2.0,0.76813805,-0.2737281,2.0,1.9099231,-2.0,2.0,-0.65662163,-2.0,-2.0,-2.0,-2.0
2025-06-09 09:21:34.093,0.042916734,-0.029079203,-0.028984416,0.029812286,0.007364175,-0.047425,0.0,0.0,0.0,0.01671387,-0.06879538,0.14858796,0.027018787,0.12980916,0.31126523,-0.06026999,0.035761643,-0.04742131,0.04630787,-0.052496437,-0.37151322,-0.15079503,-0.025277859,0.050235923,0.04180919,-0.007628154,0.059345823,0.03603547,0.065442204,0.03433071,0.02091376,-0.071522325,-0.03669562,-0.022429435,-2.0,0.76813805,-0.2737281,2.0,1.9099231,-2.0,2.0,-0.65662163,-2.0,-2.0,-2.0,-2.0,-2.0,0.80011624,-0.22434634,2.0,1.8700262,-2.0,2.0,-0.5180365,-2.0,-2.0,-2.0,-2.0
2025-06-09 09:21:34.115,0.015339557,-0.0018750369,-0.029309642,0.01388788,0.014471837,0.048772503,0.0,0.0,0.0,0.016617354,-0.08001121,0.13956854,0.018102821,0.13566922,0.30058527,-0.052463714,0.031046094,-0.05318203,0.044836015,-0.06622728,-0.37328985,-0.1509135,-0.009124242,-0.042457473,0.06093464,-0.053260803,-0.04294906,0.07377515,-0.036617972,-0.012089614,0.06786896,0.036185555,0.0048676752,-0.014887547,-2.0,0.80011624,-0.22434634,2.0,1.8700262,-2.0,2.0,-0.5180365,-2.0,-2.0,-2.0,-2.0,-2.0,0.71771044,-0.16298926,2.0,1.8648137,-2.0,2.0,-0.61521626,-2.0,-2.0,-2.0,-2.0
2025-06-09 09:21:34.133,0.016902152,-0.009374759,0.0118938405,0.03144054,0.00086755684,0.010914071,0.0,0.0,0.0,0.01644165,-0.08066243,0.14550775,0.030429069,0.13374613,0.30719456,-0.05530716,0.03469708,-0.04249143,0.047646925,-0.062233817,-0.37048167,-0.15970422,-0.0043308684,-0.0019913702,-0.013833949,0.0014248365,-0.0471586,-0.07038112,0.008056771,-0.06484641,0.027475791,0.07186038,0.04176352,-0.072263636,-2.0,0.71771044,-0.16298926,2.0,1.8648137,-2.0,2.0,-0.61521626,-2.0,-2.0,-2.0,-2.0,-2.0,0.7110287,-0.44511008,2.0,2.0,-2.0,2.0,-0.77769905,-2.0,-2.0,-2.0,-2.0
2025-06-09 09:21:34.154,-0.037265256,-0.0050645624,0.027421601,0.029479858,-0.0079619605,-0.040578935,0.0,0.0,0.0,0.016250867,-0.06606153,0.14837472,0.03450243,0.12252391,0.2933882,-0.046959206,0.03211738,-0.050468005,0.05854189,-0.062744126,-0.37006727,-0.14913647,0.0049799047,0.060632244,0.044313088,0.006377685,-0.046242062,-0.048494417,0.0136061935,-0.041964665,0.05840688,0.050096035,0.04389202,-0.07101077,-2.0,0.7110287,-0.44511008,2.0,2.0,-2.0,2.0,-0.77769905,-2.0,-2.0,-2.0,-2.0,-2.0,0.77642775,-0.42872554,2.0,2.0,-2.0,2.0,-0.84790075,-2.0,-2.0,-2.0,-2.0
2025-06-09 09:21:34.174,-0.049477246,-0.0038805674,-0.068516165,-0.012363576,-0.010407773,0.025728406,0.0,0.0,0.0,0.016326964,-0.0758534,0.137704,0.015775615,0.12170655,0.29514745,-0.059200846,0.031220831,-0.04645551,0.053474538,-0.07193918,-0.36885917,-0.14759304,0.024736973,0.04138766,0.039138127,-0.06571971,-0.025485892,-0.073527664,-0.06049906,0.03503881,0.043293312,0.05096982,0.03106145,-0.01963921,-2.0,0.77642775,-0.42872554,2.0,2.0,-2.0,2.0,-0.84790075,-2.0,-2.0,-2.0,-2.0,-2.0,1.0571033,-0.012035899,2.0,1.7412957,-2.0,2.0,-0.56368464,-2.0,-2.0,-2.0,-2.0
2025-06-09 09:21:34.194,0.06620133,-0.035183895,0.008441918,-0.05531462,-0.018811759,-0.030581342,0.0,0.0,0.0,0.01668482,-0.06983858,0.13982183,0.02074933,0.117482655,0.30515143,-0.0656995,0.023235729,-0.04761261,0.051018722,-0.055381853,-0.37278795,-0.14258225,-0.01358041,0.06915229,0.037801754,-9.694963e-05,0.04072672,0.067986,0.016712815,-0.036011133,0.044380303,-0.011376807,-0.06747799,-0.07260381,-2.0,1.0571033,-0.012035899,2.0,1.7412957,-2.0,2.0,-0.56368464,-2.0,-2.0,-2.0,-2.0,-2.0,0.668039,-0.30897474,2.0,1.9977907,-2.0,2.0,-0.52234334,-2.0,-2.0,-2.0,-2.0
2025-06-09 09:21:34.215,-0.008324043,-0.02761637,-0.03801677,-0.022257172,0.018570436,-0.04905967,0.0,0.0,0.0,0.016704256,-0.07336647,0.14125344,0.0338065,0.13718885,0.30813664,-0.051361974,0.030827506,-0.043975525,0.041878823,-0.05761233,-0.37783632,-0.15695345,-0.026479524,-0.030157695,0.008367531,-0.02538906,-0.02815625,0.03800778,-0.047590796,-0.059858814,-0.01872383,-0.07569903,0.051507384,-0.05399119,-2.0,0.668039,-0.30897474,2.0,1.9977907,-2.0,2.0,-0.52234334,-2.0,-2.0,-2.0,-2.0,-2.0,0.8047101,-0.29499257,2.0,1.8423622,-2.0,2.0,-0.5181465,-2.0,-2.0,-2.0,-2.0
2025-06-09 09:21:34.234,0.019421255,0.02215268,0.0424833,-0.028572882,0.03597702,-0.020623043,0.0,0.0,0.0,0.016563945,-0.081451915,0.14964159,0.030914469,0.121137984,0.29916152,-0.048220113,0.023809284,-0.044658355,0.043440707,-0.058970157,-0.37709847,-0.15785497,-0.06920635,0.044148047,-0.004302211,0.035603326,-0.01102278,0.036620528,-0.0049289144,0.006888697,-0.08011411,-0.004557622,0.029550606,-0.04717772,-2.0,0.8047101,-0.29499257,2.0,1.8423622,-2.0,2.0,-0.5181465,-2.0,-2.0,-2.0,-2.0,-2.0,0.5946204,-0.48979494,2.0,2.0,-2.0,2.0,-0.7109414,-2.0,-2.0,-2.0,-2.0
2025-06-09 09:21:34.254,-0.062211543,-0.050484285,0.0046156812,0.025967102,-0.03400212,-0.018835852,0.0,0.0,0.0,0.016372435,-0.078873396,0.15145844,0.026441028,0.12073047,0.29779807,-0.049830254,0.029290495,-0.042034287,0.053885967,-0.061778706,-0.36702022,-0.1582701,-0.055133164,-0.031633254,-0.07651924,-0.059061512,-0.06868274,-0.00076240173,0.003351591,-0.055611145,0.076372266,0.03997854,-0.03268599,-0.034561373,-2.0,0.5946204,-0.48979494,2.0,2.0,-2.0,2.0,-0.7109414,-2.0,-2.0,-2.0,-2.0,-2.0,0.8003008,-0.3270861,2.0,2.0,-2.0,2.0,-0.81538206,-2.0,-2.0,-2.0,-2.0
2025-06-09 09:21:34.275,0.024596771,-0.04915122,-0.05815458,-0.049061902,0.04048041,0.02995067,0.0,0.0,0.0,0.016414348,-0.08343906,0.1586163,0.018917767,0.12491558,0.30658442,-0.063547686,0.032041617,-0.048743304,0.054542605,-0.06181257,-0.374749,-0.16171002,-0.044062376,-0.035411675,0.05147002,-0.07709111,-0.007608317,0.030163787,-0.008704572,0.036555696,0.02272238,-0.070415266,0.046408694,0.005445028,-2.0,0.8003008,-0.3270861,2.0,2.0,-2.0,2.0,-0.81538206,-2.0,-2.0,-2.0,-2.0,-2.0,1.0055526,-0.26900718,2.0,1.6958882,-2.0,2.0,-0.557604,-2.0,-2.0,-2.0,-2.0
2025-06-09 09:21:34.294,0.00484067,-9.63828e-05,0.01593947,0.03101801,-0.038242154,-0.027514126,0.0,0.0,0.0,0.01670235,-0.079754464,0.15248388,0.01544049,0.13460629,0.30077097,-0.05709533,0.027182825,-0.050389275,0.054270748,-0.057189565,-0.36849144,-0.144305,0.027539734,0.01622349,-0.011619384,0.059948333,0.051283613,0.028093908,-0.05807037,0.05599099,0.0012409416,-0.026587104,-0.04565255,-0.022112587,-2.0,1.0055526,-0.26900718,2.0,1.6958882,-2.0,2.0,-0.557604,-2.0,-2.0,-2.0,-2.0,-2.0,0.5846642,-0.33811617,2.0,1.9833528,-2.0,2.0,-0.5433767,-2.0,-2.0,-2.0,-2.0
2025-06-09 09:21:34.315,0.008683368,-0.027320169,0.042574488,0.0014829636,-0.01662913,-0.04426987,0.0,0.0,0.0,0.016705403,-0.06941887,0.14481491,0.021103106,0.1277086,0.30106536,-0.053001463,0.036846876,-0.05530653,0.044361897,-0.05606445,-0.36833683,-0.15973632,0.008337391,-0.0576279,0.04960047,0.060729988,0.06244235,-0.026283829,-0.05735782,-0.03359757,-0.0607236,-0.052794367,-0.009020803,-0.0023022266,-2.0,0.5846642,-0.33811617,2.0,1.9833528,-2.0,2.0,-0.5433767,-2.0,-2.0,-2.0,-2.0,-2.0,0.6653224,-0.6667964,2.0,2.0,-2.0,2.0,-0.8132355,-2.0,-2.0,-2.0,-2.0
2025-06-09 09:21:34.334,-0.04606353,-0.014250465,-0.028199065,0.0271416,0.049020957,-0.042018875,0.0,0.0,0.0,0.016626067,-0.070023656,0.1435558,0.01843328,0.13603562,0.30353838,-0.06495228,0.024164304,-0.05191528,0.053176828,-0.053299893,-0.36368632,-0.14625965,0.06490573,-0.0014555426,0.008724058,-0.0079826955,0.028500274,0.048307583,0.021412985,-0.03281658,0.06605759,-0.06352086,0.057094645,-0.028318267,-2.0,0.6653224,-0.6667964,2.0,2.0,-2.0,2.0,-0.8132355,-2.0,-2.0,-2.0,-2.0,-2.0,0.8746881,-0.4812044,2.0,1.9435334,-2.0,2.0,-0.6748397,-2.0,-2.0,-2.0,-2.0
2025-06-09 09:21:34.354,-0.020487003,-0.019415034,0.03415562,0.012347011,-0.025957746,-0.031943537,0.0,0.0,0.0,0.016869526,-0.07692411,0.15095599,0.007614586,0.12633073,0.306206,-0.049121577,0.028781239,-0.053142894,0.052797228,-0.0508199,-0.37784895,-0.15549935,0.019406915,0.072414994,0.013687333,-0.02837046,-0.037972413,0.030172907,-0.042597245,-0.06210376,0.050856996,-0.003642334,0.028977787,-0.039693534,-2.0,0.8746881,-0.4812044,2.0,1.9435334,-2.0,2.0,-0.6748397,-2.0,-2.0,-2.0,-2.0,-2.0,0.6290037,-0.44096348,2.0,2.0,-2.0,2.0,-0.81601864,-2.0,-2.0,-2.0,-2.0
2025-06-09 09:21:34.374,-0.016892277,0.03949611,-0.0052759135,9.603044e-05,0.038873244,-0.01802278,0.0,0.0,0.0,0.017163737,-0.070795566,0.1480775,0.006897411,0.12564212,0.2914886,-0.052908987,0.026180593,-0.05781558,0.058288507,-0.06460255,-0.36514258,-0.14859271,-0.064897545,-0.071369894,0.0041461857,0.068195105,-0.018484974,0.06859244,0.06650489,0.064406216,-0.03560701,-0.004116988,-0.03634629,0.011066452,-2.0,0.6290037,-0.44096348,2.0,2.0,-2.0,2.0,-0.81601864,-2.0,-2.0,-2.0,-2.0,-2.0,0.90991503,-0.301448,2.0,1.9141263,-2.0,2.0,-0.69200724,-2.0,-2.0,-2.0,-2.0
2025-06-09 09:21:34.397,0.051157415,0.0061221425,-0.014746681,-0.047329415,-0.017198768,-0.03204333,0.0,0.0,0.0,0.01753535,-0.09009808,0.15492713,0.014391541,0.12799712,0.29712686,-0.065964945,0.031488605,-0.05947135,0.0432203,-0.05813616,-0.3660523,-0.152148,-0.05036977,-0.061679002,0.008170982,-0.03272099,0.02968048,0.05433629,0.06722531,0.018816696,0.029027913,-0.050457396,0.010606684,-0.004110879,-2.0,0.90991503,-0.301448,2.0,1.9141263,-2.0,2.0,-0.69200724,-2.0,-2.0,-2.0,-2.0,-2.0,0.829391,-0.65411663,2.0,1.8559605,-2.0,2.0,-0.5883573,-2.0,-2.0,-2.0,-2.0
2025-06-09 09:21:34.415,-0.009738339,-0.01673549,-0.040503718,-0.047189005,0.028463425,-0.03287653,0.0,0.0,0.0,0.01775957,-0.072079,0.16081013,0.0032020528,0.12234643,0.3098884,-0.049677122,0.023182256,-0.056513753,0.049738098,-0.050313633,-0.3689378,-0.16419984,0.04550601,0.06792478,-0.060363203,-0.0024518212,-0.07002475,-0.012801509,0.029691696,-0.057338588,-0.04290885,-0.0045013013,0.054309808,0.036207825,-2.0,0.829391,-0.65411663,2.0,1.8559605,-2.0,2.0,-0.5883573,-2.0,-2.0,-2.0,-2.0,-2.0,0.72355664,-0.10752838,2.0,1.9189438,-2.0,2.0,-0.5030324,-2.0,-2.0,-2.0,-2.0
2025-06-09 09:21:34.434,0.02558818,-0.03322482,0.057253502,-0.014686747,-0.0038760116,0.013753264,0.0,0.0,0.0,0.017758748,-0.07538235,0.16015327,0.017041404,0.12016486,0.30541435,-0.054073617,0.037358955,-0.0626508,0.04983924,-0.05635322,-0.37323266,-0.15461217,0.015255771,-0.032196783,-0.00038366765,-0.031418744,-0.015925305,0.06916786,0.046119336,0.081234746,-0.07315225,-0.03678126,-0.004559711,-0.04977644,-2.0,0.72355664,-0.10752838,2.0,1.9189438,-2.0,2.0,-0.5030324,-2.0,-2.0,-2.0,-2.0,-2.0,0.57165897,-0.4220252,2.0,2.0,-2.0,2.0,-0.91269594,-2.0,-2.0,-2.0,-2.0
2025-06-09 09:21:34.455,-0.025416855,-0.010033144,0.028448265,0.0076610893,0.004429408,-0.03462689,0.0,0.0,0.0,0.01752675,-0.087395065,0.14866935,0.009068828,0.121436656,0.29145557,-0.06297923,0.024302248,-0.06325244,0.05755952,-0.061551504,-0.37781578,-0.15447661,-0.07581689,-0.08013261,0.02092359,-0.045987464,0.0425507,-0.039215915,-0.0176198,-0.06283237,0.062134437,0.020193744,-0.025452785,0.05313382,-2.0,0.57165897,-0.4220252,2.0,2.0,-2.0,2.0,-0.91269594,-2.0,-2.0,-2.0,-2.0,-2.0,0.9070942,-0.7714744,2.0,1.9499658,-2.0,2.0,-0.9039332,-2.0,-2.0,-2.0,-2.0
2025-06-09 09:21:34.475,-0.019305252,-0.016285174,-0.025010368,0.026364487,0.042665124,-0.049420036,0.0,0.0,0.0,0.017536806,-0.089907356,0.14277506,0.0114825135,0.11738328,0.28992048,-0.0634351,0.036137614,-0.05506156,0.055935096,-0.061287247,-0.37232056,-0.1631553,-0.0069060177,-0.030085465,0.01654389,-0.0035995627,0.03479674,-0.02141256,0.036398727,0.011226121,-0.05910081,-0.0067031845,-0.0535809,0.016801197,-2.0,0.9070942,-0.7714744,2.0,1.9499658,-2.0,2.0,-0.9039332,-2.0,-2.0,-2.0,-2.0,-2.0,0.94893575,-0.4233192,2.0,1.8579682,-2.0,2.0,-0.59686315,-2.0,-2.0,-2.0,-2.0
2025-06-09 09:21:34.498,-0.019181622,-0.0032664058,0.0057061855,0.023478433,-0.026051562,0.023925478,0.0,0.0,0.0,0.017817084,-0.07595515,0.15875548,0.0012514706,0.1320414,0.3089029,-0.06846796,0.035437576,-0.055275735,0.055600546,-0.053051237,-0.3663873,-0.15573081,0.010264083,0.05449091,0.063450545,-0.018254835,-0.005070105,0.066222675,-0.011561997,0.021929312,-0.040882375,-0.028574247,0.0034880654,0.020479392,-2.0,0.94893575,-0.4233192,2.0,1.8579682,-2.0,2.0,-0.59686315,-2.0,-2.0,-2.0,-2.0,-2.0,0.64272654,-0.18660548,2.0,1.9399493,-2.0,2.0,-0.6350415,-2.0,-2.0,-2.0,-2.0
2025-06-09 09:21:34.515,0.014633488,-0.03044792,0.02640765,-0.0026255257,0.016264468,-0.014403571,0.0,0.0,0.0,0.017873313,-0.08147472,0.15194625,0.016797615,0.12353462,0.30721554,-0.063363194,0.026232,-0.05358866,0.049539447,-0.060826477,-0.37611777,-0.16023628,-0.0318191,0.069908366,0.07985218,-0.039586406,-0.0630366,0.0047642137,-0.058460638,0.040265106,0.039832916,-0.055898268,-0.0058584716,-0.07537005,-2.0,0.64272654,-0.18660548,2.0,1.9399493,-2.0,2.0,-0.6350415,-2.0,-2.0,-2.0,-2.0,-2.0,0.6954789,-0.10790915,2.0,1.9928468,-2.0,2.0,-0.78901374,-2.0,-2.0,-2.0,-2.0
2025-06-09 09:21:34.535,0.031219317,0.008980919,-0.0452959,0.00544727,0.040220883,0.045065466,0.0,0.0,0.0,0.01775017,-0.091308385,0.15882231,0.017132284,0.11285605,0.29899082,-0.05155761,0.02251944,-0.064177416,0.059610553,-0.05691339,-0.36402467,-0.1579352,-0.023659887,-0.020181598,0.046572812,-0.03542615,-0.021373546,0.03126647,0.010758079,0.041084968,-0.05435929,-0.044935554,0.04408757,-0.037800025,-2.0,0.6954789,-0.10790915,2.0,1.9928468,-2.0,2.0,-0.78901374,-2.0,-2.0,-2.0,-2.0,-2.0,0.9510168,-0.23020503,2.0,1.799044,-2.0,2.0,-0.6469891,-2.0,-2.0,-2.0,-2.0
2025-06-09 09:21:34.555,0.028563319,0.00019074128,0.02070116,0.004018229,0.019901581,0.03457959,0.0,0.0,0.0,0.017669864,-0.082787335,0.15798959,0.011022244,0.13220368,0.3016059,-0.049849465,0.026636582,-0.063046105,0.056189355,-0.061305985,-0.37093446,-0.15031675,-0.03006478,-0.058236435,-0.011593166,-0.06627157,-0.057334226,0.064907365,-0.01704183,-0.035816077,0.06228485,0.025399575,-0.016299905,-0.05964412,-2.0,0.9510168,-0.23020503,2.0,1.799044,-2.0,2.0,-0.6469891,-2.0,-2.0,-2.0,-2.0,-2.0,0.6749386,-0.44560286,2.0,2.0,-2.0,2.0,-0.747601,-2.0,-2.0,-2.0,-2.0
2025-06-09 09:21:34.575,0.0041197594,0.017251002,0.013336921,0.0051671225,-0.041199837,-0.036443483,0.0,0.0,0.0,0.017418412,-0.07123812,0.1431669,0.024577113,0.1258137,0.29532546,-0.046671774,0.025643421,-0.049126346,0.04862942,-0.06792818,-0.38065654,-0.1579354,0.017802875,-0.016681816,-0.03282343,0.017737638,0.052166086,-0.049706805,0.05813461,-0.030680532,0.001977963,-0.074756265,-0.032989904,-0.021781495,-2.0,0.6749386,-0.44560286,2.0,2.0,-2.0,2.0,-0.747601,-2.0,-2.0,-2.0,-2.0,-2.0,0.8215577,-0.5801244,2.0,2.0,-2.0,2.0,-0.68436605,-2.0,-2.0,-2.0,-2.0
2025-06-09 09:21:34.595,-0.03590132,0.018252764,-0.04852278,0.02008214,0.017946918,0.020816684,0.0,0.0,0.0,0.017257446,-0.08292139,0.15248512,0.02806138,0.13112918,0.29686856,-0.048847664,0.03610353,-0.060551703,0.056550905,-0.0688537,-0.3798852,-0.15086368,-0.03301576,0.009734585,-0.056194358,0.024518244,0.06619935,-0.068046644,-0.0067533273,0.071676396,0.038021103,-0.038902204,0.002816132,0.047058772,-2.0,0.8215577,-0.5801244,2.0,2.0,-2.0,2.0,-0.68436605,-2.0,-2.0,-2.0,-2.0,-2.0,0.86135954,-0.41179013,2.0,1.8068943,-2.0,2.0,-0.49607322,-2.0,-2.0,-2.0,-2.0
