openverse-orca/OrcaGym/log/simulation_log_20250604_143531.csv
timestamp,imu_angle_roll,imu_angle_pitch,imu_angle_yaw,imu_angular_velocity_roll,imu_angular_velocity_pitch,imu_angular_velocity_yaw,imu_acc_x,imu_acc_y,imu_acc_z,fl_joint1_pos,fl_joint1_vel,fl_joint1_torque,fl_joint2_pos,fl_joint2_vel,fl_joint2_torque,fl_joint3_pos,fl_joint3_vel,fl_joint3_torque,fr_joint1_pos,fr_joint1_vel,fr_joint1_torque,fr_joint2_pos,fr_joint2_vel,fr_joint2_torque,fr_joint3_pos,fr_joint3_vel,fr_joint3_torque,hl_joint1_pos,hl_joint1_vel,hl_joint1_torque,hl_joint2_pos,hl_joint2_vel,hl_joint2_torque,hl_joint3_pos,hl_joint3_vel,hl_joint3_torque,hr_joint1_pos,hr_joint1_vel,hr_joint1_torque,hr_joint2_pos,hr_joint2_vel,hr_joint2_torque,hr_joint3_pos,hr_joint3_vel,hr_joint3_torque,fl_force_x,fl_force_y,fl_force_z,fr_force_x,fr_force_y,fr_force_z,hl_force_x,hl_force_y,hl_force_z,hr_force_x,hr_force_y,hr_force_z,fl_hip_action,fl_thigh_action,fl_calf_action,fr_hip_action,fr_thigh_action,fr_calf_action,hl_hip_action,hl_thigh_action,hl_calf_action,hr_hip_action,hr_thigh_action,hr_calf_action
2025-06-04 14:35:31.366,0.011963218,-0.023445847,-0.015549045,-0.046811856,0.018110123,-0.03040166,0.66156197,0.5888015,0.0,0.0,-0.008755707,0.0052802656,-0.0003699208,0.0076974686,-0.009712576,-0.0020776873,0.0018955546,0.005703727,0.00220307,-0.0009797837,-0.0083771525,0.009822969,-0.01174151,-0.046804447,-0.07185477,-0.04751337,0.06359761,0.047143478,-0.032908957,0.00037091936,0.03399022,-0.030019725,0.047627944,0.054794688,0.0,0.0,0.0,0.0,0.0,0.0,0.0,0.0,0.0,0.0,0.0,0.0,-1.0,1.0,-1.0,1.0,-1.0,-1.0,-1.0,-1.0,-1.0,1.0,-1.0,-1.0
2025-06-04 14:35:31.370,-0.19298926,-0.0683727,0.0041205697,0.015461088,-0.011932876,-0.009065524,0.0,0.0,0.0,0.0,-0.013913337,0.06672665,-0.04263157,0.011475679,-0.06814612,-0.032882918,-0.019967126,-0.06487969,-0.0301687,0.006522333,-0.059979208,-0.030081825,0.000108790315,0.24621211,-0.16290018,-0.0075936285,-0.2453205,-0.06600046,-0.085808575,-0.17077367,-0.06377753,-0.02692092,-0.16138124,-0.07780498,-1.0,1.0,-1.0,1.0,-1.0,-1.0,-1.0,-1.0,-1.0,1.0,-1.0,-1.0,-1.0,1.0,-1.0,-1.0,1.0,-1.0,-1.0,-1.0,-1.0,1.0,-1.0,1.0
2025-06-04 14:35:31.390,-0.09026494,0.0066848663,0.013303978,0.04193993,0.002090082,-0.04126911,0.0,0.0,0.0,-0.0006756736,-0.02677717,0.14301649,-0.08370696,0.005844012,-0.0150302285,-0.08049104,-0.03928715,-0.14386632,-0.0674705,0.022314496,-0.14300041,0.008611025,-0.009358119,0.106120616,-0.10762493,0.0074478276,0.25661895,-0.109423,-0.07252834,-0.19607386,-0.0958953,0.09712917,-0.24174707,0.08566608,-1.0,1.0,-1.0,-1.0,1.0,-1.0,-1.0,-1.0,-1.0,1.0,-1.0,1.0,-1.0,-1.0,-1.0,-1.0,1.0,-1.0,-1.0,-1.0,-1.0,1.0,-1.0,1.0
2025-06-04 14:35:31.414,-0.25242653,0.013432702,-0.121796615,0.02207556,-0.04123084,0.043252543,0.0,0.0,0.0,-0.0005910359,-0.051348906,0.09544627,-0.07199381,-0.008388692,0.02555385,-0.08963004,-0.044836763,-0.20343421,-0.064144485,0.041191306,-0.20439526,0.045460276,-0.04260916,-0.09580837,0.05953539,-0.034865685,0.06954958,0.021620609,0.034018625,-0.111424625,0.05213874,0.017732196,-0.10273231,0.13649039,-1.0,-1.0,-1.0,-1.0,1.0,-1.0,-1.0,-1.0,-1.0,1.0,-1.0,1.0,-1.0,1.0,-1.0,-1.0,-1.0,-1.0,-1.0,-1.0,-1.0,1.0,-1.0,1.0
2025-06-04 14:35:31.433,-0.277817,-0.20343246,0.06390769,0.021106886,0.032929588,0.016324453,0.0,0.0,0.0,0.0013167927,-0.06518516,0.109180525,-0.07298005,-0.0064751124,-0.013556227,-0.08469701,-0.03152144,-0.24033552,-0.051549543,0.039711416,-0.24780193,0.07725075,-0.0006735447,0.1576612,-0.0031591847,0.03542092,-0.17816383,0.033354983,0.057542495,-0.16772273,0.08237452,0.021186462,-0.06148624,0.074464105,-1.0,1.0,-1.0,-1.0,-1.0,-1.0,-1.0,-1.0,-1.0,1.0,-1.0,1.0,-1.0,-1.0,-1.0,-1.0,1.0,-1.0,-1.0,-1.0,-1.0,1.0,-1.0,1.0
2025-06-04 14:35:31.452,-0.21575142,0.08834531,0.017318841,0.120152704,0.008592937,-0.0095617445,0.0,0.0,0.0,0.00096251996,-0.065501295,0.04625797,-0.11206098,-0.023652676,-0.021581996,-0.07742108,-0.06004178,-0.2928,-0.027465757,0.05326081,-0.29212332,0.11427633,-0.045146246,-0.1746087,-0.096839026,-0.031522915,-0.032909114,-0.05468194,-0.068829484,-0.012625727,0.022624783,0.0148380045,-0.0875027,0.10202486,-1.0,-1.0,-1.0,-1.0,1.0,-1.0,-1.0,-1.0,-1.0,1.0,-1.0,1.0,-1.0,1.0,-1.0,-1.0,1.0,-1.0,-1.0,-1.0,-1.0,1.0,-1.0,1.0
2025-06-04 14:35:31.472,-0.053515423,-0.045976304,-0.054271296,0.097148806,-0.009190757,0.014564582,0.0,0.0,0.0,0.0003406999,-0.066056445,0.05375932,-0.14547554,-0.029940475,-0.013093613,-0.0923156,-0.06355615,-0.29531878,-0.02054873,0.049713,-0.31078488,0.1306293,0.017118713,0.13379405,-0.04346095,-0.02476637,0.019651705,0.00273058,0.037401676,-0.062793516,-0.015730716,-0.026736613,-0.05596422,0.011714891,-1.0,1.0,-1.0,-1.0,1.0,-1.0,-1.0,-1.0,-1.0,1.0,-1.0,1.0,-1.0,1.0,-1.0,-1.0,-1.0,-1.0,-1.0,-1.0,-1.0,1.0,-1.0,1.0
2025-06-04 14:35:31.493,-0.2030373,-0.10356496,0.09879296,0.07219499,-0.041067265,-0.008375095,0.0,0.0,0.0,0.00028011916,-0.08452679,0.13052706,-0.15449926,-0.04802673,-0.050383046,-0.09671021,-0.077230394,-0.30283725,-0.03430536,0.059854403,-0.34381014,0.16572921,-0.0147467395,0.21401973,-0.067814164,-0.0855418,-0.21028301,0.024807196,-0.07345795,-0.084893495,-0.03517461,0.024411825,-0.056168262,0.030972956,-1.0,1.0,-1.0,-1.0,-1.0,-1.0,-1.0,-1.0,-1.0,1.0,-1.0,1.0,-1.0,-1.0,-1.0,-1.0,1.0,-1.0,-1.0,-1.0,-1.0,1.0,-1.0,1.0
2025-06-04 14:35:31.516,-0.14571816,0.037028447,-0.017932534,0.13288423,0.035855595,0.032586582,0.0,0.0,0.0,-0.00019080049,-0.07074195,0.057250317,-0.16935949,-0.047440156,0.0003537989,-0.13509387,-0.087627396,-0.32997462,-0.036006544,0.07083448,-0.36025986,0.17228289,0.0028308188,-0.25121385,0.0056420597,0.0027307272,0.078770146,-0.06933507,-0.08897542,-0.08351024,0.02699737,-0.057222255,-0.0897756,0.08708097,-1.0,-1.0,-1.0,-1.0,1.0,-1.0,-1.0,-1.0,-1.0,1.0,-1.0,1.0,-1.0,1.0,-1.0,-1.0,1.0,-1.0,-1.0,-1.0,-1.0,1.0,-1.0,1.0
2025-06-04 14:35:31.533,-0.071205094,0.014798211,-0.044003326,0.15170936,0.032180175,-0.02599493,0.0,0.0,0.0,0.0007363033,-0.07553836,0.09631503,-0.20047592,-0.07135261,0.0390218,-0.14610168,-0.08994424,-0.34308016,-0.030163957,0.06513398,-0.38314342,0.19670272,-0.046491735,0.14011519,-0.09226935,-0.043581013,0.13217005,-0.058034375,0.0020206987,-0.08981805,-0.04588416,0.048435017,-0.09210871,0.003478659,-1.0,1.0,-1.0,-1.0,1.0,-1.0,-1.0,-1.0,-1.0,1.0,-1.0,1.0,-1.0,1.0,-1.0,-1.0,-1.0,-1.0,-1.0,-1.0,-1.0,1.0,-1.0,1.0
2025-06-04 14:35:31.553,-0.1956488,-0.11489227,0.028754147,0.10805532,0.026705176,0.019790426,0.0,0.0,0.0,0.002436765,-0.07375365,0.16869164,-0.20172316,-0.06945004,-0.0073149186,-0.122409694,-0.090435214,-0.35910097,-0.04852422,0.06893971,-0.4082763,0.20990266,0.0498224,0.10634476,0.040906988,0.0017854038,-0.04921428,0.080303095,-0.030283192,-0.12103694,0.020598926,-0.04976838,-0.08504625,0.0518918,-1.0,1.0,-1.0,-1.0,-1.0,-1.0,-1.0,-1.0,-1.0,1.0,-1.0,1.0,-1.0,1.0,-1.0,-1.0,1.0,-1.0,-1.0,-1.0,-1.0,1.0,-1.0,1.0
2025-06-04 14:35:31.572,-0.054836728,-0.094585,-0.03332556,0.09952981,-0.03460207,0.027954664,0.0,0.0,0.0,0.0033128823,-0.07410523,0.22817941,-0.21224396,-0.07494961,0.008601558,-0.12956205,-0.105575494,-0.36320966,-0.04204515,0.068827555,-0.41403732,0.20446454,-0.049675997,0.19985303,-0.04191978,-0.032696772,0.029953638,-0.07428636,0.058100346,-0.00536508,0.0647658,0.071962476,-0.031337675,0.015576405,-1.0,1.0,-1.0,-1.0,1.0,-1.0,-1.0,-1.0,-1.0,1.0,-1.0,1.0,-1.0,1.0,-1.0,-1.0,-1.0,-1.0,-1.0,-1.0,-1.0,1.0,-1.0,1.0
2025-06-04 14:35:31.592,-0.15330401,-0.17888755,0.065265805,0.13840674,-0.012545754,0.045590233,0.0,0.0,0.0,0.0042149723,-0.07757092,0.26102218,-0.23289755,-0.07814366,-0.018863851,-0.11923303,-0.11310087,-0.3747412,-0.026612164,0.08612839,-0.43440777,0.21293177,-0.03882606,0.11136172,-0.010140426,0.061600618,-0.14029475,0.0745677,-0.020775734,-0.037301846,-0.046572853,-0.03153207,-0.061192412,-0.030940238,-1.0,1.0,-1.0,-1.0,-1.0,-1.0,-1.0,-1.0,-1.0,1.0,-1.0,1.0,-1.0,1.0,-1.0,-1.0,1.0,-1.0,-1.0,-1.0,-1.0,1.0,-1.0,1.0
2025-06-04 14:35:31.616,-0.033465777,-0.06521853,-0.057929497,0.15949915,0.026268005,0.02301371,0.0,0.0,0.0,0.004345232,-0.083164126,0.3094751,-0.22900966,-0.0863551,-0.011829668,-0.13087107,-0.11394747,-0.4018649,-0.030993983,0.07312129,-0.43373162,0.21891442,0.059576135,0.09032914,-0.012755636,-0.06842444,0.11801971,-0.024073068,0.049557324,0.011828711,-0.059075233,0.025309937,-0.06373386,0.08843183,-1.0,1.0,-1.0,-1.0,1.0,-1.0,-1.0,-1.0,-1.0,1.0,-1.0,1.0,-1.0,1.0,-1.0,-1.0,-1.0,-1.0,-1.0,-1.0,-1.0,1.0,-1.0,1.0
2025-06-04 14:35:31.633,-0.13608488,-0.22041403,0.0965464,0.2096478,0.053558104,-0.011484063,0.0,0.0,0.0,0.0045350743,-0.07223576,0.3452716,-0.235585,-0.08663589,-0.036691535,-0.11295361,-0.10752492,-0.40839952,-0.04062097,0.07952891,-0.4436741,0.22854905,0.030505586,0.10442768,-0.033586115,-0.05013252,-0.16424061,0.020840459,-0.082040735,-0.07567095,-0.066112004,0.065494984,-0.014074679,-0.019658463,-1.0,1.0,-1.0,-1.0,-1.0,-1.0,-1.0,-1.0,-1.0,1.0,-1.0,1.0,-1.0,-1.0,-1.0,-1.0,1.0,-1.0,-1.0,-1.0,-1.0,1.0,-1.0,1.0
2025-06-04 14:35:31.652,-0.019969909,-0.15673986,0.021288585,0.22364657,0.09816861,0.017893855,0.0,0.0,0.0,0.004267475,-0.08369147,0.24665819,-0.24615909,-0.08502677,-0.015832007,-0.12851833,-0.121535905,-0.42541164,-0.04615177,0.0789145,-0.44300726,0.24598503,-0.042438418,-0.2888617,0.009853385,-0.035542186,0.014768352,-0.015110977,-0.037867863,-0.08056699,0.05556322,-0.013337379,-0.06301531,-0.022388643,-1.0,-1.0,-1.0,-1.0,1.0,-1.0,-1.0,-1.0,-1.0,1.0,-1.0,1.0,-1.0,1.0,-1.0,-1.0,1.0,-1.0,-1.0,-1.0,-1.0,1.0,-1.0,-1.0
2025-06-04 14:35:31.672,0.038535185,-0.07397582,-0.10500623,0.21265118,0.10755995,-0.016227392,0.0,0.0,0.0,0.004853194,-0.07538204,0.23357177,-0.2580167,-0.08923382,-0.004197333,-0.1408647,-0.13319314,-0.42252284,-0.052483898,0.08356717,-0.4408304,0.1665441,-0.0747504,0.1383178,-0.01403837,-0.05113307,0.10963848,0.05176179,0.046993855,0.042845424,0.0032608476,-0.07068644,0.07908912,-0.13318169,-1.0,1.0,-1.0,-1.0,1.0,-1.0,-1.0,-1.0,-1.0,1.0,-1.0,-1.0,-1.0,1.0,-1.0,-1.0,-1.0,-1.0,-1.0,-1.0,-1.0,1.0,-1.0,-1.0
2025-06-04 14:35:31.693,-0.07001516,-0.008724847,-0.06773213,0.17308147,0.0637029,-0.018188888,0.0,0.0,0.0,0.0058046426,-0.07590872,0.2754973,-0.26354504,-0.10592192,-0.02427903,-0.12266846,-0.13422261,-0.41694102,-0.059117246,0.084331565,-0.45317033,0.14063558,0.0029702478,0.038899936,0.058491994,-0.0737162,-0.039796248,0.07491269,0.057525326,0.064010605,-0.05111794,-0.035913207,-0.030128296,-0.07143254,-1.0,1.0,-1.0,-1.0,-1.0,-1.0,-1.0,-1.0,-1.0,1.0,-1.0,-1.0,-1.0,1.0,-1.0,-1.0,-1.0,-1.0,-1.0,-1.0,-1.0,1.0,-1.0,-1.0
2025-06-04 14:35:31.717,-0.0033455489,0.050487608,-0.08211678,0.20228125,0.011231848,0.04100973,0.0,0.0,0.0,0.006932366,-0.08511119,0.31942365,-0.2509853,-0.11151439,-0.06378218,-0.104124725,-0.13943876,-0.42796713,-0.06386411,0.08058826,-0.4478676,0.123267636,0.020837793,0.12991259,-0.069991484,-0.050957557,-0.1707838,-0.007714795,-0.045257643,-0.03375731,-0.085528575,0.046396844,0.0052230023,-0.03071787,-1.0,1.0,-1.0,-1.0,-1.0,-1.0,-1.0,-1.0,-1.0,1.0,-1.0,-1.0,-1.0,1.0,-1.0,-1.0,-1.0,-1.0,-1.0,-1.0,-1.0,1.0,-1.0,1.0
2025-06-04 14:35:31.733,0.02948102,0.041575383,-0.05559815,0.22869834,0.04651136,0.033819698,0.0,0.0,0.0,0.008598874,-0.08525315,0.3492403,-0.26862666,-0.1107248,-0.1245197,-0.12451349,-0.12732582,-0.42966622,-0.08984968,0.08794179,-0.4599228,0.13308436,0.0031406418,0.06907115,-0.03669586,-0.044359352,-0.19304433,-0.04270825,0.01675347,-0.027557729,-0.037897043,0.07240334,-0.038818814,0.044006508,-1.0,1.0,-1.0,-1.0,-1.0,-1.0,-1.0,-1.0,-1.0,1.0,-1.0,1.0,-1.0,1.0,1.0,-1.0,-1.0,-1.0,-1.0,-1.0,-1.0,1.0,-1.0,1.0
2025-06-04 14:35:31.753,0.059138674,0.023115989,-0.09185052,0.18104608,0.012601238,-0.015212119,0.0,0.0,0.0,0.010587529,-0.089976355,0.36823806,-0.17641102,-0.10224849,-0.15489286,-0.11317246,-0.13597728,-0.43212497,-0.09222721,0.08920089,-0.48217702,0.16100317,0.00087898964,0.042154435,0.2677735,-0.070089236,-0.15644687,0.081561275,0.026401605,0.03651511,0.011841786,0.068727344,-0.0940641,0.1116673,-1.0,1.0,1.0,-1.0,-1.0,-1.0,-1.0,-1.0,-1.0,1.0,-1.0,1.0,-1.0,1.0,1.0,-1.0,-1.0,-1.0,-1.0,-1.0,-1.0,1.0,-1.0,1.0
2025-06-04 14:35:31.772,0.09188857,-0.059944585,-0.030453712,0.2082946,0.06593806,0.029248135,0.0,0.0,0.0,0.012040964,-0.08519114,0.38596365,-0.10063441,-0.10903683,-0.19828174,-0.09417269,-0.13810174,-0.45441288,-0.09817358,0.089474514,-0.50301623,0.1756337,0.06415671,0.09418553,0.18763071,0.023307731,-0.07679206,0.050388888,0.039158963,-0.0021941916,0.03156818,0.007015572,-0.04166879,-0.013280097,-1.0,1.0,1.0,-1.0,-1.0,-1.0,-1.0,-1.0,-1.0,1.0,-1.0,1.0,-1.0,1.0,1.0,-1.0,-1.0,-1.0,-1.0,-1.0,-1.0,1.0,-1.0,1.0
2025-06-04 14:35:31.793,0.03677138,-0.09838846,-0.02102523,0.18813647,0.019342132,-0.018844813,0.0,0.0,0.0,0.0128941685,-0.0749351,0.40634024,-0.044445977,-0.11220398,-0.21982723,-0.07714163,-0.12613796,-0.45816815,-0.11576732,0.092866495,-0.50373715,0.18766508,-0.04061466,0.07296275,0.15680514,-0.01214144,-0.117921144,0.10889082,-0.003401919,-0.037147168,0.044889368,0.06534908,0.010665352,0.06653972,-1.0,1.0,1.0,-1.0,-1.0,-1.0,-1.0,-1.0,-1.0,1.0,-1.0,1.0,-1.0,1.0,1.0,-1.0,1.0,-1.0,-1.0,-1.0,-1.0,1.0,-1.0,1.0
2025-06-04 14:35:31.817,0.07010336,0.18913767,-0.08105204,0.22796899,0.010937875,-0.047518853,0.0,0.0,0.0,0.012811447,-0.087706245,0.41909114,0.0023857623,-0.12521294,-0.23650037,-0.09122902,-0.1400093,-0.46445748,-0.12441465,0.086676374,-0.4906686,0.19886327,0.06935591,0.07991725,0.049542565,-0.0049277884,0.0054880637,-0.094361864,-0.0323768,0.06784325,-0.06180505,0.043167904,0.08516524,0.0050784866,-1.0,1.0,1.0,-1.0,1.0,-1.0,-1.0,-1.0,-1.0,1.0,-1.0,1.0,-1.0,1.0,1.0,-1.0,-1.0,-1.0,-1.0,-1.0,-1.0,1.0,-1.0,1.0
2025-06-04 14:35:31.833,-0.03051673,0.056024164,-0.06575113,0.17324781,0.0644646,-0.013503608,0.0,0.0,0.0,0.013416629,-0.09280997,0.42619613,0.0528839,-0.13814315,-0.24911015,-0.09587626,-0.14391585,-0.46508762,-0.14085698,0.0983983,-0.49351963,0.203454,-0.06638176,-0.040313527,0.16417289,-0.06563845,-0.11831443,0.018696759,-0.020364529,0.016875645,-0.07918987,0.023641443,0.042171407,-0.029687984,-1.0,1.0,1.0,-1.0,-1.0,-1.0,-1.0,-1.0,-1.0,1.0,-1.0,1.0,-1.0,1.0,1.0,-1.0,-1.0,-1.0,-1.0,-1.0,-1.0,1.0,-1.0,1.0
2025-06-04 14:35:31.854,0.026646791,-0.06750997,0.059263937,0.19431432,0.062670805,0.018596996,0.0,0.0,0.0,0.014232987,-0.083977975,0.43476892,0.08078297,-0.14230953,-0.279496,-0.079681315,-0.14766175,-0.47358948,-0.15040518,0.10372337,-0.4911969,0.22575952,0.028685806,0.00064123666,0.11670696,0.07774614,-0.049758326,-0.024075082,0.005285855,-0.010943953,-0.038737904,0.072378166,-0.038512103,-0.020257914,-1.0,1.0,1.0,-1.0,-1.0,-1.0,-1.0,-1.0,-1.0,1.0,-1.0,1.0,-1.0,1.0,-1.0,-1.0,1.0,-1.0,-1.0,-1.0,-1.0,1.0,-1.0,1.0
2025-06-04 14:35:31.873,0.096170224,0.16469271,-0.009039151,0.13688256,0.07541918,0.020514883,0.0,0.0,0.0,0.013937566,-0.086866915,0.45644993,0.047413137,-0.1306324,-0.27649313,-0.09457826,-0.13950491,-0.49607536,-0.14618644,0.08450726,-0.4844601,0.22699234,-0.041628618,-0.036297765,-0.16010565,-0.043282915,-0.029974476,-0.0040331595,-0.0014768654,-0.075380445,-0.031211944,-0.037356075,0.042238988,-0.049316186,-1.0,1.0,-1.0,-1.0,1.0,-1.0,-1.0,-1.0,-1.0,1.0,-1.0,1.0,-1.0,1.0,-1.0,-1.0,-1.0,-1.0,-1.0,-1.0,-1.0,1.0,-1.0,1.0
2025-06-04 14:35:31.893,0.041406836,0.0040498306,-0.03802287,0.188435,0.054271974,0.035950363,0.0,0.0,0.0,0.013890874,-0.08549111,0.46230426,-0.0135161085,-0.13187978,-0.2800804,-0.09395709,-0.14716397,-0.48915485,-0.16411991,0.09067391,-0.48032656,0.23335221,-0.0010669582,-0.020101896,-0.052546877,0.014768874,-0.08841219,0.06984096,0.01480137,0.022376047,0.021748047,0.024778493,0.017321339,0.07339997,-1.0,1.0,-1.0,-1.0,-1.0,-1.0,-1.0,-1.0,-1.0,1.0,-1.0,1.0,-1.0,1.0,-1.0,-1.0,-1.0,-1.0,-1.0,-1.0,-1.0,1.0,-1.0,1.0
2025-06-04 14:35:31.916,0.00088912784,-0.050795864,0.079531565,0.16175914,0.025658201,0.01373373,0.0,0.0,0.0,0.013958998,-0.09213128,0.469624,-0.06251846,-0.13345978,-0.3126112,-0.10272418,-0.14308995,-0.4922994,-0.15559052,0.10261065,-0.48464045,0.2446754,0.013634214,-0.032393914,-0.04209136,0.042627472,-0.10794422,0.07912209,0.0121333925,0.006125875,-0.009947398,-0.04485768,-0.016801171,0.020697856,-1.0,1.0,-1.0,-1.0,-1.0,-1.0,-1.0,-1.0,-1.0,1.0,-1.0,1.0,-1.0,1.0,-1.0,-1.0,1.0,-1.0,-1.0,-1.0,-1.0,1.0,-1.0,1.0
2025-06-04 14:35:31.933,0.12032493,0.18623888,-0.008818428,0.18663378,0.06806592,0.0040597916,0.0,0.0,0.0,0.013082115,-0.087283574,0.47294512,-0.10111029,-0.12157846,-0.30646923,-0.10593673,-0.14895938,-0.50123173,-0.15962592,0.07882024,-0.47754478,0.23488627,0.04251091,-0.062410407,-0.070281975,-0.027723381,-0.014915001,0.011314997,-0.03582019,-0.06690248,-0.04626393,-0.08506621,0.05259095,-0.05756473,-1.0,1.0,-1.0,-1.0,1.0,-1.0,-1.0,-1.0,-1.0,1.0,-1.0,1.0,-1.0,1.0,-1.0,-1.0,-1.0,-1.0,-1.0,-1.0,-1.0,1.0,-1.0,1.0
2025-06-04 14:35:31.953,0.054510552,0.03711258,-0.026545508,0.18835102,0.0058400165,0.0033951015,0.0,0.0,0.0,0.012596596,-0.092430964,0.45986855,-0.12410352,-0.13652073,-0.3119956,-0.10855869,-0.15411265,-0.4967414,-0.17730865,0.08352302,-0.4850894,0.24221526,-0.033618197,0.07763574,-0.037788007,-0.017524196,-0.10817796,-0.030898144,-0.021384766,-0.011585045,-0.030241895,-0.0016241085,-0.05518876,-0.04376178,-1.0,1.0,-1.0,-1.0,-1.0,-1.0,-1.0,-1.0,-1.0,1.0,-1.0,1.0,-1.0,1.0,-1.0,-1.0,-1.0,-1.0,-1.0,-1.0,-1.0,1.0,-1.0,1.0
2025-06-04 14:35:31.973,0.07435882,0.026277142,0.06619971,0.12620577,0.0005324185,-0.02309094,0.0,0.0,0.0,0.012462592,-0.07875347,0.46231356,-0.15906635,-0.13431694,-0.3357793,-0.10252126,-0.15030247,-0.499541,-0.16916206,0.10027689,-0.4860024,0.2551682,0.0077580847,-0.022338683,-0.112026915,0.008097799,-0.11341036,0.054738835,-0.07141524,-0.01970418,0.026283044,0.03977352,0.06985246,-0.050719243,-1.0,1.0,-1.0,-1.0,-1.0,-1.0,-1.0,-1.0,-1.0,1.0,-1.0,1.0,-1.0,1.0,-1.0,-1.0,1.0,-1.0,-1.0,-1.0,-1.0,1.0,-1.0,1.0
2025-06-04 14:35:31.994,0.12638913,0.28066435,0.004377991,0.100465246,0.007958577,-0.03454998,0.0,0.0,0.0,0.011538248,-0.09128756,0.46314135,-0.17949916,-0.12862118,-0.3213051,-0.11635184,-0.15316677,-0.50548035,-0.16700917,0.086058676,-0.4659506,0.2558957,-0.05863827,-0.04887983,-0.06341137,-0.07560176,0.07365528,-0.020830687,-0.070171334,0.067318246,0.0054388167,0.028649194,-0.0018576314,0.040927093,-1.0,1.0,-1.0,-1.0,1.0,-1.0,-1.0,-1.0,-1.0,1.0,-1.0,1.0,-1.0,1.0,-1.0,-1.0,-1.0,-1.0,-1.0,-1.0,-1.0,1.0,-1.0,1.0
2025-06-04 14:35:32.016,0.07354718,0.18979514,-0.024493985,0.13613664,-0.021895805,-0.04766486,0.0,0.0,0.0,0.01105443,-0.07676852,0.46901494,-0.1837766,-0.12414132,-0.33474874,-0.12298197,-0.14827941,-0.5081481,-0.17178544,0.09697845,-0.46998683,0.2506877,-0.03001604,0.023968171,0.0009327466,-0.06414392,-0.09536015,0.036681592,0.051229235,-0.07198159,-0.061301067,0.034730677,-0.045776635,0.06888124,-1.0,1.0,-1.0,-1.0,-1.0,-1.0,-1.0,-1.0,-1.0,1.0,-1.0,1.0,-1.0,1.0,-1.0,-1.0,-1.0,-1.0,-1.0,-1.0,-1.0,1.0,-1.0,1.0
2025-06-04 14:35:32.034,0.11581267,0.05408485,0.09240996,0.06894565,-0.014204502,0.029244995,0.0,0.0,0.0,0.0109592555,-0.08438556,0.482641,-0.20437504,-0.11641748,-0.35392386,-0.10890375,-0.14441586,-0.50721306,-0.17183207,0.092281245,-0.47461036,0.2500417,0.038887486,0.03800617,0.008948054,0.037279394,-0.017163765,0.020622844,-0.036640417,0.009196307,0.046375517,0.04632267,0.06961741,-0.06189185,-1.0,1.0,-1.0,-1.0,-1.0,-1.0,-1.0,-1.0,-1.0,1.0,-1.0,1.0,-1.0,1.0,-1.0,-1.0,1.0,-1.0,-1.0,-1.0,-1.0,1.0,-1.0,1.0
2025-06-04 14:35:32.055,0.17830747,0.41533008,-0.010603251,0.10079138,-0.07287787,-0.013942697,0.0,0.0,0.0,0.010130922,-0.09561668,0.48191857,-0.22270842,-0.13104396,-0.34105617,-0.1274395,-0.14998049,-0.5026424,-0.18028963,0.08816463,-0.46165437,0.25139686,0.011469783,-0.026138462,-0.057679996,0.05016399,0.023830106,-0.050816942,-0.028325781,-0.034649834,-0.05834426,-0.0044652866,0.080887474,-0.037899457,-1.0,1.0,-1.0,-1.0,1.0,-1.0,-1.0,-1.0,-1.0,1.0,-1.0,1.0,-1.0,1.0,-1.0,-1.0,-1.0,-1.0,-1.0,-1.0,-1.0,1.0,-1.0,1.0
2025-06-04 14:35:32.073,0.09666993,0.10726524,-0.029589467,0.095132895,-0.028054558,-0.01498775,0.0,0.0,0.0,0.009810696,-0.089042634,0.47637326,-0.21205616,-0.111340925,-0.34773928,-0.14278583,-0.15626082,-0.50844437,-0.18193236,0.08280418,-0.4822723,0.25637835,-0.005708083,-0.06808102,-0.0096445335,0.0017379348,-0.026330288,-0.015773237,0.09103779,0.010134282,-0.013540259,0.05999118,-0.071371265,0.07144132,-1.0,1.0,-1.0,-1.0,-1.0,-1.0,-1.0,-1.0,-1.0,1.0,-1.0,1.0,-1.0,1.0,-1.0,-1.0,-1.0,-1.0,-1.0,-1.0,-1.0,1.0,-1.0,1.0
2025-06-04 14:35:32.094,-0.021547226,-0.021452045,0.046384636,0.099455304,-0.04725126,0.043445725,0.0,0.0,0.0,0.009860474,-0.07152177,0.4580243,-0.17733295,-0.11207033,-0.3629203,-0.13383155,-0.15012239,-0.50685173,-0.18081266,0.09543806,-0.47331724,0.26398966,-0.0402285,0.0254155,0.09523804,-0.0031372455,-0.054678414,-0.06337592,0.029421365,-0.027776703,0.03594082,0.057836078,0.014902686,-0.005505483,-1.0,1.0,-1.0,-1.0,-1.0,-1.0,-1.0,-1.0,-1.0,1.0,-1.0,1.0,-1.0,1.0,-1.0,-1.0,1.0,-1.0,-1.0,-1.0,-1.0,1.0,-1.0,1.0
2025-06-04 14:35:32.116,-0.0067165773,0.18476093,0.0047682025,0.08563025,-0.08867233,0.005933059,0.0,0.0,0.0,0.009482441,-0.073493205,0.45681944,-0.16305414,-0.113663584,-0.34470603,-0.16141868,-0.13478649,-0.5090007,-0.1668427,0.0874267,-0.47333914,0.26410797,-0.036528364,-0.005029647,-0.01260189,-0.06882344,0.14894608,-0.032414015,0.03249193,-0.014697759,-0.028915288,-0.006926539,0.021869067,0.011957951,-1.0,1.0,-1.0,-1.0,1.0,-1.0,-1.0,-1.0,-1.0,1.0,-1.0,1.0,-1.0,1.0,-1.0,-1.0,-1.0,-1.0,-1.0,-1.0,-1.0,1.0,-1.0,1.0
2025-06-04 14:35:32.134,0.028402675,0.064637505,-0.08849928,0.05643577,-0.045236968,0.018632783,0.0,0.0,0.0,0.009936463,-0.077517115,0.46267623,-0.17463116,-0.12051829,-0.34332582,-0.1805331,-0.12267986,-0.51096016,-0.18316051,0.0930556,-0.47734305,0.26442915,-0.043966074,-0.06593015,0.057293728,0.0031504636,-0.014406723,-0.109318264,0.018398242,-0.007348018,-0.026614267,-0.03614327,0.034303974,0.058440506,-1.0,1.0,-1.0,-1.0,-1.0,-1.0,-1.0,-1.0,-1.0,1.0,-1.0,1.0,-1.0,1.0,-1.0,-1.0,-1.0,-1.0,-1.0,-1.0,-1.0,1.0,-1.0,1.0
2025-06-04 14:35:32.154,-0.009520615,-0.06766854,0.005602684,0.07446209,-0.09580112,0.020658253,0.0,0.0,0.0,0.010822328,-0.07846775,0.47050688,-0.17102626,-0.111770295,-0.37357056,-0.19786869,-0.12036192,-0.5160411,-0.17448851,0.091536425,-0.47833446,0.25950462,0.030633507,-0.073416896,-0.013212296,-0.072584346,-0.025880262,0.033480413,0.013152707,-0.03197759,0.03289844,-0.06971751,0.06678011,-0.064954445,-1.0,1.0,-1.0,-1.0,-1.0,-1.0,-1.0,-1.0,-1.0,1.0,-1.0,1.0,-1.0,1.0,-1.0,-1.0,1.0,-1.0,-1.0,-1.0,-1.0,1.0,-1.0,1.0
2025-06-04 14:35:32.175,0.06251075,0.09127036,-0.029847275,0.08888853,-0.090229236,-0.0057051023,0.0,0.0,0.0,0.011648716,-0.0788232,0.47436506,-0.16311176,-0.098421864,-0.29963738,-0.22244978,-0.12152968,-0.508789,-0.18555574,0.096760444,-0.4665336,0.26408917,-0.0034570023,-0.041099347,0.006591392,-0.06291146,0.16202597,0.017276034,0.049497157,-0.001981876,0.0331046,0.023684286,-0.052222133,0.010199883,-1.0,1.0,-1.0,-1.0,1.0,-1.0,-1.0,-1.0,-1.0,1.0,-1.0,1.0,-1.0,1.0,-1.0,-1.0,-1.0,-1.0,-1.0,-1.0,-1.0,1.0,-1.0,1.0
2025-06-04 14:35:32.197,-0.03883006,-0.053609625,-0.035280943,0.05483688,-0.04233286,-0.0024479432,0.0,0.0,0.0,0.013059274,-0.07429139,0.46350348,-0.16034384,-0.11058968,-0.2906089,-0.21039549,-0.10533484,-0.5046653,-0.17764764,0.09865666,-0.46747276,0.25936034,-0.048110966,0.048105434,0.0380128,-0.0069526504,-0.057600293,-0.02491921,-0.011557466,-0.005064304,0.030301241,1.3934518e-05,0.054356907,-0.045493226,-1.0,1.0,-1.0,-1.0,-1.0,-1.0,-1.0,-1.0,-1.0,1.0,-1.0,1.0,-1.0,1.0,-1.0,-1.0,-1.0,-1.0,-1.0,-1.0,-1.0,1.0,-1.0,1.0
2025-06-04 14:35:32.216,-0.06928709,-0.11822352,0.05090639,0.035592996,-0.01627027,-0.020330388,0.0,0.0,0.0,0.013866904,-0.08343205,0.4735893,-0.14881074,-0.09639824,-0.3262363,-0.18889499,-0.103254296,-0.52384794,-0.16934283,0.09208742,-0.4707984,0.2563251,-0.060844302,0.038919773,0.003195234,0.031595085,-0.08774405,0.009788265,-0.050788708,-0.05320346,-0.010461939,-0.0487987,0.009322838,0.04948178,-1.0,1.0,-1.0,-1.0,-1.0,-1.0,-1.0,-1.0,-1.0,1.0,-1.0,1.0,-1.0,1.0,-1.0,-1.0,1.0,-1.0,-1.0,-1.0,-1.0,1.0,-1.0,1.0
2025-06-04 14:35:32.235,0.034814205,0.13126,-0.035614856,0.04653348,-0.042209163,-0.034527607,0.0,0.0,0.0,0.013452535,-0.08443296,0.4752015,-0.15244156,-0.11863444,-0.31670848,-0.19384123,-0.10844397,-0.51479197,-0.16516833,0.07753383,-0.46604073,0.26121154,0.015247167,0.07434869,0.033443954,-0.01783576,-0.029996445,0.020596877,0.034531645,0.04824123,-0.06488054,-0.011240658,-0.016372398,-0.007419797,-1.0,1.0,-1.0,-1.0,1.0,-1.0,-1.0,-1.0,-1.0,1.0,-1.0,1.0,-1.0,1.0,-1.0,-1.0,-1.0,-1.0,-1.0,-1.0,-1.0,1.0,-1.0,1.0
2025-06-04 14:35:32.254,0.0026270943,-0.029116625,0.020072246,0.065065324,-0.06933558,0.03254945,0.0,0.0,0.0,0.01340065,-0.08510866,0.47856322,-0.17955777,-0.10331836,-0.315968,-0.19939746,-0.106162176,-0.51376176,-0.1704749,0.08792656,-0.47067565,0.25802192,0.027628276,0.045509584,-0.0244254,-0.06336907,-0.10471773,0.004439912,-0.06413675,0.04999559,0.010171492,0.057532072,0.011830644,0.055130124,-1.0,1.0,-1.0,-1.0,-1.0,-1.0,-1.0,-1.0,-1.0,1.0,-1.0,1.0,-1.0,1.0,-1.0,-1.0,-1.0,-1.0,-1.0,-1.0,-1.0,1.0,-1.0,1.0
2025-06-04 14:35:32.275,-0.058074027,-0.058995023,0.030813301,0.13093087,-0.06936122,0.035575822,0.0,0.0,0.0,0.013572766,-0.08055422,0.48960608,-0.17034644,-0.10118931,-0.34564033,-0.18327686,-0.107321054,-0.5111351,-0.16031991,0.084986016,-0.47112536,0.26077986,-0.034362853,-0.034740865,-0.06468724,-0.0509807,-0.039685365,-0.030727394,-0.0064279377,-0.03764583,0.04425239,-0.059516393,0.05634173,-0.06605601,-1.0,1.0,-1.0,-1.0,-1.0,-1.0,-1.0,-1.0,-1.0,1.0,-1.0,1.0,-1.0,1.0,-1.0,-1.0,1.0,-1.0,-1.0,-1.0,-1.0,1.0,-1.0,1.0
2025-06-04 14:35:32.296,0.022341412,0.07778546,-0.008398189,0.036677066,-0.11667164,0.024021495,0.0,0.0,0.0,0.013273342,-0.083213426,0.4789933,-0.1770699,-0.09742224,-0.28723103,-0.21476969,-0.120989844,-0.52077484,-0.16042098,0.07767491,-0.46117023,0.2519967,-0.018323155,-0.031843632,0.022385364,-0.031053605,0.02078714,-0.042576157,-0.0762236,0.051744338,0.051037554,-0.01267195,0.027940104,-0.04697506,-1.0,1.0,-1.0,-1.0,1.0,-1.0,-1.0,-1.0,-1.0,1.0,-1.0,1.0,-1.0,1.0,-1.0,-1.0,-1.0,-1.0,-1.0,-1.0,-1.0,1.0,-1.0,1.0
2025-06-04 14:35:32.314,-0.035884313,-0.06780853,0.015914908,0.050726652,-0.034232073,-0.036254417,0.0,0.0,0.0,0.013711754,-0.0924087,0.48181748,-0.17614946,-0.09944206,-0.3054417,-0.1978001,-0.105241835,-0.5178061,-0.16050398,0.08467436,-0.46979865,0.25223246,-0.023056146,-0.04621192,-0.046157174,0.034840252,-0.11063651,0.08156384,0.027964089,-0.03406023,0.032791704,0.05493642,-0.060750093,-0.066009104,-1.0,1.0,-1.0,-1.0,-1.0,-1.0,-1.0,-1.0,-1.0,1.0,-1.0,1.0,-1.0,1.0,-1.0,-1.0,1.0,-1.0,-1.0,-1.0,-1.0,1.0,-1.0,1.0
2025-06-04 14:35:32.334,0.00438174,0.08203845,-0.05006813,0.04756165,-0.026589815,-0.006455759,0.0,0.0,0.0,0.014031835,-0.08972052,0.49647146,-0.17690271,-0.11274803,-0.29527956,-0.20920773,-0.11047071,-0.5142992,-0.1671875,0.09377511,-0.46656623,0.26870328,-0.061867677,0.08293148,-0.038255878,0.053449683,-0.0018312179,0.048501868,-0.018166825,-0.010631099,0.062099293,0.027616799,-0.016962228,-0.022994634,-1.0,1.0,-1.0,-1.0,1.0,-1.0,-1.0,-1.0,-1.0,1.0,-1.0,1.0,-1.0,1.0,-1.0,-1.0,-1.0,-1.0,-1.0,-1.0,-1.0,1.0,-1.0,1.0
2025-06-04 14:35:32.354,-0.05651473,-0.02798266,0.039817125,0.060470346,-0.03769234,-0.04544257,0.0,0.0,0.0,0.014571464,-0.09107544,0.4978115,-0.19288181,-0.114532694,-0.3131532,-0.20289344,-0.11148795,-0.5094705,-0.16011453,0.09779427,-0.4690361,0.26981932,-0.03993245,-0.000756686,0.013043923,0.019777076,-0.061128132,0.07290814,-0.018961065,0.03806352,0.054174263,0.013436299,-0.07215355,-0.0012537221,-1.0,1.0,-1.0,-1.0,-1.0,-1.0,-1.0,-1.0,-1.0,1.0,-1.0,1.0,-1.0,1.0,-1.0,-1.0,1.0,-1.0,-1.0,-1.0,-1.0,1.0,-1.0,1.0
2025-06-04 14:35:32.375,0.08157877,0.15332706,-0.019904708,0.055387307,-0.10954034,-0.0067148497,0.0,0.0,0.0,0.014956178,-0.10669728,0.5074337,-0.18636362,-0.10992259,-0.30499557,-0.20002566,-0.10511409,-0.50042385,-0.15918851,0.08950009,-0.46027753,0.2660104,-0.08677379,-0.028160935,-0.05786867,0.0320163,0.08531841,-0.072129086,-0.02642572,-0.019997038,-0.024437524,-0.012495214,0.012867409,0.06872055,-1.0,1.0,-1.0,-1.0,1.0,-1.0,-1.0,-1.0,-1.0,1.0,-1.0,1.0,-1.0,1.0,-1.0,-1.0,-1.0,-1.0,-1.0,-1.0,-1.0,1.0,-1.0,1.0
2025-06-04 14:35:32.398,0.049871113,0.02421699,-0.05684014,0.08764935,-0.03692517,-0.040444512,0.0,0.0,0.0,0.01570417,-0.09649646,0.49902412,-0.20474936,-0.1182263,-0.31696603,-0.21919684,-0.1031034,-0.5077455,-0.1580418,0.08536978,-0.4792472,0.25134677,-0.042150863,0.073941365,-0.0028426906,0.03441648,-0.086711876,0.041362032,-0.058029912,0.0025953357,-0.05380178,0.0589889,0.0074555106,0.03259841,-1.0,1.0,-1.0,-1.0,-1.0,-1.0,-1.0,-1.0,-1.0,1.0,-1.0,1.0,-1.0,1.0,-1.0,-1.0,-1.0,-1.0,-1.0,-1.0,-1.0,1.0,-1.0,1.0
2025-06-04 14:35:32.416,0.0135225775,-0.09976411,-0.06899847,0.055029728,-0.08605888,-0.0011976506,0.0,0.0,0.0,0.016442299,-0.10013212,0.5077605,-0.2050037,-0.110443614,-0.33978716,-0.22020519,-0.100414366,-0.50691724,-0.15568948,0.10009862,-0.47123897,0.26243973,0.061126705,0.06944939,0.040144887,-0.02558805,0.0074508986,-0.0350469,0.088656135,-0.003514789,-0.062070917,0.03943131,-0.056107108,-0.03860919,-1.0,1.0,-1.0,-1.0,-1.0,-1.0,-1.0,-1.0,-1.0,1.0,-1.0,1.0,-1.0,1.0,-1.0,-1.0,-1.0,-1.0,-1.0,-1.0,-1.0,1.0,-1.0,1.0
2025-06-04 14:35:32.434,0.062082443,-0.15122232,0.007454337,0.0811925,-0.05248725,-0.04625089,0.0,0.0,0.0,0.01695306,-0.09566506,0.5140662,-0.18379904,-0.11825655,-0.367379,-0.22698285,-0.10070734,-0.49299115,-0.1617175,0.08841694,-0.47384295,0.2521595,-0.033369046,0.018299507,-0.038563333,-0.010615084,0.017212426,0.04246887,0.08684437,-0.036730353,0.06660634,0.0089334715,0.053371232,0.0351595,-1.0,1.0,-1.0,-1.0,-1.0,-1.0,-1.0,-1.0,-1.0,1.0,-1.0,1.0,-1.0,1.0,-1.0,-1.0,1.0,-1.0,-1.0,-1.0,-1.0,1.0,-1.0,1.0
2025-06-04 14:35:32.454,0.0374874,0.12830131,-0.11775504,0.10895589,-0.06655969,0.03985344,0.0,0.0,0.0,0.017495751,-0.08928015,0.50637233,-0.1696658,-0.12175949,-0.3569578,-0.23755659,-0.0884849,-0.5044317,-0.15734579,0.083719835,-0.47450432,0.26020026,0.026507843,-0.05050267,0.065836444,0.027502282,0.03647926,-0.07431412,-0.0053609298,-0.050058633,0.01550008,0.027185962,-0.057013847,0.013505636,-1.0,1.0,-1.0,-1.0,1.0,-1.0,-1.0,-1.0,-1.0,1.0,-1.0,1.0,-1.0,1.0,-1.0,-1.0,-1.0,-1.0,-1.0,-1.0,-1.0,1.0,-1.0,1.0
2025-06-04 14:35:32.474,-0.018715154,-0.09088368,-0.04696855,0.06864477,-0.051271323,-0.0024228538,0.0,0.0,0.0,0.018778782,-0.09567999,0.51484174,-0.16599722,-0.119463176,-0.37121078,-0.24002321,-0.09459733,-0.50408196,-0.1603899,0.098266155,-0.47452298,0.2703756,-0.057544697,0.058557715,-0.032592382,-0.009407663,-0.03171421,0.07776646,0.044018738,0.06359725,0.035428166,0.013012018,-0.04050904,-0.02804219,-1.0,1.0,-1.0,-1.0,-1.0,-1.0,-1.0,-1.0,-1.0,1.0,-1.0,1.0,-1.0,1.0,-1.0,-1.0,-1.0,-1.0,-1.0,-1.0,-1.0,1.0,-1.0,1.0
2025-06-04 14:35:32.498,-0.014538274,-0.13363998,0.0006660123,0.0303417,-0.06406073,0.04810157,0.0,0.0,0.0,0.019921575,-0.095945425,0.5087405,-0.16232485,-0.12272375,-0.37755927,-0.22167757,-0.07949736,-0.49327564,-0.1549879,0.09671923,-0.48137686,0.25821397,-0.04747234,0.033543024,-0.05498316,-0.0021102864,-0.10213018,0.00679074,0.04851186,0.05173222,-0.041956138,-0.03480219,0.012012925,-0.055884607,-1.0,1.0,-1.0,-1.0,-1.0,-1.0,-1.0,-1.0,-1.0,1.0,-1.0,1.0,-1.0,1.0,-1.0,-1.0,-1.0,-1.0,-1.0,-1.0,-1.0,1.0,-1.0,1.0
2025-06-04 14:35:32.515,-0.03833099,-0.18501936,0.064677075,0.04003283,-0.061671752,0.046666224,0.0,0.0,0.0,0.020227766,-0.09527565,0.50617415,-0.17325152,-0.11141001,-0.40494898,-0.2169143,-0.08782096,-0.5000299,-0.15208021,0.09351262,-0.47488776,0.25531307,0.0052179517,0.057013836,0.029146854,0.0013142078,-0.065421514,-0.033436242,0.06614304,0.040825654,0.011761349,-0.062538445,0.06572839,-0.053282727,-1.0,1.0,-1.0,-1.0,-1.0,-1.0,-1.0,-1.0,-1.0,1.0,-1.0,1.0,-1.0,1.0,-1.0,-1.0,1.0,-1.0,-1.0,-1.0,-1.0,1.0,-1.0,1.0
2025-06-04 14:35:32.536,0.016521394,0.085890844,0.028657323,0.11265012,-0.029667405,-0.04294258,0.0,0.0,0.0,0.01965324,-0.09236652,0.50760764,-0.17552252,-0.124136366,-0.39378646,-0.22210827,-0.0928287,-0.5077505,-0.15449402,0.080804944,-0.4774105,0.2704018,0.026251283,-0.06523579,-0.08136258,0.03279308,0.030487888,0.025767684,-0.07218622,-0.061440576,0.06297958,0.053199604,-0.0018470626,-0.038360693,-1.0,1.0,-1.0,-1.0,1.0,-1.0,-1.0,-1.0,-1.0,1.0,-1.0,1.0,-1.0,1.0,-1.0,-1.0,-1.0,-1.0,-1.0,-1.0,-1.0,1.0,-1.0,1.0
2025-06-04 14:35:32.555,-0.0071811094,-0.041448705,-0.037895,0.023215229,-0.060838968,0.038482085,0.0,0.0,0.0,0.019454801,-0.103974655,0.5091117,-0.17755896,-0.113830164,-0.40459844,-0.22364812,-0.092727385,-0.49809733,-0.147935,0.08935777,-0.46731463,0.25328907,-0.035985306,-0.0009017428,-0.0037612268,0.07382779,0.027972111,-0.046844997,-0.03978389,-0.02088123,0.032693606,0.08015896,0.065597184,-0.06030404,-1.0,1.0,-1.0,-1.0,-1.0,-1.0,-1.0,-1.0,-1.0,1.0,-1.0,1.0,-1.0,1.0,-1.0,-1.0,-1.0,-1.0,-1.0,-1.0,-1.0,1.0,-1.0,1.0
2025-06-04 14:35:32.575,-0.017661441,-0.10983565,-0.009415471,0.08240794,-0.008551235,-0.048632987,0.0,0.0,0.0,0.019620813,-0.10272994,0.51189077,-0.18626595,-0.108746424,-0.41929942,-0.22270277,-0.09345308,-0.50767624,-0.16077149,0.09039454,-0.47660735,0.26149613,0.072654605,0.051868,-0.030557781,-0.05993054,-0.06822993,-0.009138204,-0.006486522,0.059360523,0.028376572,-0.0132573,-0.07027511,0.010225851,-1.0,1.0,-1.0,-1.0,-1.0,-1.0,-1.0,-1.0,-1.0,1.0,-1.0,1.0,-1.0,1.0,-1.0,-1.0,-1.0,-1.0,-1.0,-1.0,-1.0,1.0,-1.0,1.0
2025-06-04 14:35:32.599,-0.021687765,-0.1046943,0.07919013,0.10527343,-0.076329656,-0.025757616,0.0,0.0,0.0,0.0193975,-0.09702445,0.49659503,-0.1888612,-0.12010331,-0.42959252,-0.20374538,-0.09101488,-0.5111844,-0.16309744,0.09323101,-0.46830836,0.26051906,0.01223764,0.039593536,0.07513502,0.06816281,-0.105200306,0.092936195,-0.03891971,-0.03864731,0.004163077,-0.05711517,-0.02916022,0.05236491,-1.0,1.0,-1.0,-1.0,-1.0,-1.0,-1.0,-1.0,-1.0,1.0,-1.0,1.0,-1.0,1.0,-1.0,-1.0,1.0,-1.0,-1.0,-1.0,-1.0,1.0,-1.0,1.0
2025-06-04 14:35:32.615,-0.0074403393,0.068321064,-0.026183052,0.11444755,-0.066023506,0.02813044,0.0,0.0,0.0,0.018671837,-0.095642895,0.4981192,-0.17669316,-0.10900293,-0.43166152,-0.21147333,-0.0966371,-0.50125396,-0.15668756,0.08586408,-0.47512817,0.25172472,0.023931744,-0.05273116,0.00017153098,-0.069973335,0.11202152,-0.07550452,0.038384743,0.023881149,0.038051035,-0.060474254,0.08140579,0.040937807,-1.0,1.0,-1.0,-1.0,1.0,-1.0,-1.0,-1.0,-1.0,1.0,-1.0,1.0,-1.0,1.0,-1.0,-1.0,-1.0,-1.0,-1.0,-1.0,-1.0,1.0,-1.0,1.0
2025-06-04 14:35:32.635,0.030033732,-0.03448323,-0.03357076,0.07036414,-0.07450608,-0.037874773,0.0,0.0,0.0,0.018506026,-0.09039285,0.5101487,-0.18093544,-0.12286598,-0.4219737,-0.22355835,-0.10192009,-0.50516605,-0.16151428,0.08022371,-0.4738791,0.264829,0.06437106,-0.05242775,0.03952723,0.008773576,-0.05403981,-0.074077286,0.06904247,-0.024359206,0.02710149,0.01637881,0.022365069,0.05436207,-1.0,1.0,-1.0,-1.0,-1.0,-1.0,-1.0,-1.0,-1.0,1.0,-1.0,1.0,-1.0,1.0,-1.0,-1.0,-1.0,-1.0,-1.0,-1.0,-1.0,1.0,-1.0,1.0
2025-06-04 14:35:32.655,-0.04158378,-0.09915399,0.009337135,0.075626664,0.00864541,0.038519163,0.0,0.0,0.0,0.018817827,-0.09668583,0.5079072,-0.18477888,-0.12238223,-0.42904592,-0.21764936,-0.0952424,-0.50160736,-0.16532046,0.08497539,-0.4655598,0.25739878,0.011439844,-0.010243338,0.03745375,-0.05367314,-0.08616199,0.06620971,-0.070464484,-0.071849205,-0.010536442,-0.036092695,-0.029934527,0.052471295,-1.0,1.0,-1.0,-1.0,-1.0,-1.0,-1.0,-1.0,-1.0,1.0,-1.0,1.0,-1.0,1.0,-1.0,-1.0,-1.0,-1.0,-1.0,-1.0,-1.0,1.0,-1.0,1.0
2025-06-04 14:35:32.675,0.007875013,-0.109716326,0.004373572,0.09666638,-0.027544903,0.037611227,0.0,0.0,0.0,0.018749047,-0.08589946,0.49290487,-0.19292195,-0.11657667,-0.46220878,-0.21177484,-0.10616472,-0.5041604,-0.16818091,0.09834234,-0.47493607,0.2675484,-0.02798663,0.008161811,-0.05435943,0.021117585,0.02380448,-0.04356425,0.004408854,0.015186327,0.03761229,0.051158812,0.07141081,0.06822108,-1.0,1.0,-1.0,-1.0,-1.0,-1.0,-1.0,-1.0,-1.0,1.0,-1.0,1.0,-1.0,1.0,-1.0,-1.0,-1.0,-1.0,-1.0,-1.0,-1.0,1.0,-1.0,1.0
2025-06-04 14:35:32.698,-0.07245761,-0.19054876,0.00927934,0.06450811,-0.028785523,-0.010246966,0.0,0.0,0.0,0.018162506,-0.07363228,0.49450228,-0.17750974,-0.1191684,-0.47758782,-0.19399455,-0.11153305,-0.51308924,-0.16679941,0.08615085,-0.47585198,0.2612609,0.007080897,-0.07624066,0.02664583,-0.0044360477,-0.0878561,0.06327418,-0.041104734,-0.066278934,0.018899683,-0.04297238,-0.06761737,-0.04647139,-1.0,1.0,-1.0,-1.0,-1.0,-1.0,-1.0,-1.0,-1.0,1.0,-1.0,1.0,-1.0,1.0,-1.0,-1.0,-1.0,-1.0,-1.0,-1.0,-1.0,1.0,-1.0,1.0
2025-06-04 14:35:32.715,-0.06095784,-0.14666902,0.11893927,0.042552818,-0.018539105,0.011799812,0.0,0.0,0.0,0.017176501,-0.07153615,0.48773572,-0.17990512,-0.11300918,-0.4978017,-0.18408188,-0.11353512,-0.50968134,-0.16978155,0.0942601,-0.4742989,0.2661971,0.011206297,0.037967145,0.019000031,0.06990299,-0.09050228,0.046475872,-0.042006735,-0.04753433,-0.017117985,-0.049703013,-0.048218768,0.018321915,-1.0,1.0,-1.0,-1.0,-1.0,-1.0,-1.0,-1.0,-1.0,1.0,-1.0,1.0,-1.0,1.0,-1.0,-1.0,1.0,-1.0,-1.0,-1.0,-1.0,1.0,-1.0,1.0
2025-06-04 14:35:32.735,0.07027573,0.0695193,-0.035309695,0.12180786,-0.03158609,-0.021001715,0.0,0.0,0.0,0.015960544,-0.083904915,0.48725533,-0.18384181,-0.113099776,-0.4820032,-0.2006831,-0.124494426,-0.52308416,-0.18578993,0.08350766,-0.4619123,0.2613367,0.04898884,-0.06621185,0.01333475,-0.052187786,0.03561396,-0.11019221,-0.08616786,-0.04000917,-0.068563625,-0.08415473,0.08361853,0.070257895,-1.0,1.0,-1.0,-1.0,1.0,-1.0,-1.0,-1.0,-1.0,1.0,-1.0,1.0,-1.0,1.0,-1.0,-1.0,-1.0,-1.0,-1.0,-1.0,-1.0,1.0,-1.0,1.0
2025-06-04 14:35:32.755,0.047302917,-0.03631133,-0.06737329,0.059840105,0.024744786,-0.014060683,0.0,0.0,0.0,0.015573015,-0.09380108,0.49498218,-0.19213866,-0.1199365,-0.48256162,-0.1989879,-0.12709707,-0.5051173,-0.19752076,0.09205303,-0.4689863,0.26300502,0.022847539,0.071204655,-0.083215445,0.03863717,0.02646934,-0.063339636,-0.023921054,-0.044737794,-0.062239237,0.036565702,0.011361088,0.010430914,-1.0,1.0,-1.0,-1.0,-1.0,-1.0,-1.0,-1.0,-1.0,1.0,-1.0,1.0,-1.0,1.0,1.0,-1.0,-1.0,-1.0,-1.0,-1.0,-1.0,1.0,-1.0,1.0
2025-06-04 14:35:32.775,0.06610375,0.010297903,0.04428417,0.10671707,0.009988878,-0.011419769,0.0,0.0,0.0,0.015956195,-0.083711706,0.4924068,-0.123573,-0.11802276,-0.4935587,-0.1952898,-0.12689243,-0.5141346,-0.19869483,0.08435444,-0.46319613,0.26414913,0.027617274,-0.035163216,0.15890138,0.035737745,-0.034713067,-0.050174367,-0.056676,0.027932683,-0.03149549,-0.02254572,0.071627244,-0.06424788,-1.0,1.0,1.0,-1.0,-1.0,-1.0,-1.0,-1.0,-1.0,1.0,-1.0,1.0,-1.0,1.0,-1.0,-1.0,1.0,-1.0,-1.0,-1.0,-1.0,1.0,-1.0,1.0
2025-06-04 14:35:32.799,0.07179519,0.3021944,-0.09167169,0.11754069,0.01826487,-0.03530896,0.0,0.0,0.0,0.015967226,-0.09445557,0.4949613,-0.13305184,-0.121255964,-0.48642653,-0.21616259,-0.12899399,-0.50084686,-0.207952,0.07292153,-0.46027663,0.2612226,-0.016991919,-0.056826916,-0.055229507,-0.041280363,0.093858294,-0.05453936,-0.005253199,0.042287346,0.016626535,-0.009999335,0.038240854,-0.0738123,-1.0,1.0,-1.0,-1.0,1.0,-1.0,-1.0,-1.0,-1.0,1.0,-1.0,1.0,-1.0,1.0,-1.0,-1.0,-1.0,-1.0,-1.0,-1.0,-1.0,1.0,-1.0,1.0
2025-06-04 14:35:32.815,0.10051904,0.13204752,-0.07129589,0.057205655,0.019669857,0.015687216,0.0,0.0,0.0,0.016454106,-0.09768646,0.49062696,-0.15213285,-0.13035871,-0.48037747,-0.21818815,-0.12898533,-0.4996632,-0.20829578,0.08537957,-0.46035656,0.26443088,-0.060827374,0.0413592,-0.03274343,0.030323414,-0.0053680246,0.044741746,0.06197798,0.035555925,0.05497396,-0.0553861,-0.04588274,0.03398772,-1.0,1.0,-1.0,-1.0,-1.0,-1.0,-1.0,-1.0,-1.0,1.0,-1.0,1.0,-1.0,1.0,-1.0,-1.0,-1.0,-1.0,-1.0,-1.0,-1.0,1.0,-1.0,1.0
2025-06-04 14:35:32.836,0.05116344,-0.031493302,-0.039672744,0.0441984,-0.061729662,-0.0022780695,0.0,0.0,0.0,0.017532215,-0.08379477,0.4767195,-0.15856603,-0.12495653,-0.47898704,-0.19803362,-0.12407247,-0.5124,-0.2105809,0.081701405,-0.4740933,0.2561565,0.04977811,-0.07025953,-0.023476643,0.017803146,-0.087975115,0.068877466,0.05578955,0.000829771,0.03128979,-0.00922235,-0.00890105,-0.07035704,-1.0,1.0,-1.0,-1.0,-1.0,-1.0,-1.0,-1.0,-1.0,1.0,-1.0,1.0,-1.0,1.0,-1.0,-1.0,-1.0,-1.0,-1.0,-1.0,-1.0,1.0,-1.0,1.0
2025-06-04 14:35:32.855,-0.003895781,-0.054045074,-0.008215964,0.07096452,-0.016057234,0.005550522,0.0,0.0,0.0,0.017997619,-0.0793372,0.47539884,-0.15238805,-0.109305196,-0.48696145,-0.2053341,-0.1108445,-0.5105033,-0.20224069,0.09944576,-0.48113427,0.25480568,0.083511375,-0.06918538,-0.013723899,-0.057870317,0.030799787,-0.004035392,0.046106134,-0.018903926,0.07266022,-0.05709228,0.05775334,-0.020524142,-1.0,1.0,-1.0,-1.0,-1.0,-1.0,-1.0,-1.0,-1.0,1.0,-1.0,1.0,-1.0,1.0,-1.0,-1.0,-1.0,-1.0,-1.0,-1.0,-1.0,1.0,-1.0,1.0
2025-06-04 14:35:32.876,-0.07392896,-0.06963677,0.07680507,0.06275233,-0.022467373,0.0079455655,0.0,0.0,0.0,0.017808758,-0.08124527,0.4866735,-0.13890934,-0.117212124,-0.51535547,-0.20701624,-0.12174171,-0.51703334,-0.20753501,0.09848893,-0.4751022,0.25802585,0.004628927,-0.050649744,-0.05774105,0.018164031,-0.09238015,0.040769912,0.07586848,0.026413934,0.051313035,0.04146117,-0.014712995,0.03858994,-1.0,1.0,-1.0,-1.0,-1.0,-1.0,-1.0,-1.0,-1.0,1.0,-1.0,1.0,-1.0,1.0,-1.0,-1.0,1.0,-1.0,-1.0,-1.0,-1.0,1.0,-1.0,1.0
2025-06-04 14:35:32.899,0.00896108,0.11476151,-0.06471953,0.051328547,-0.05066648,-0.04350208,0.0,0.0,0.0,0.017188279,-0.09021057,0.49075574,-0.153949,-0.11115616,-0.48674163,-0.20339224,-0.13038819,-0.5104056,-0.19518901,0.08689976,-0.46723273,0.25576225,-0.021094061,-0.0051903296,-0.03542542,0.00781352,0.0051740916,-0.12178401,-0.016595423,0.07812239,-0.0043600756,-0.013206575,0.04829734,-0.072704434,-1.0,1.0,-1.0,-1.0,1.0,-1.0,-1.0,-1.0,-1.0,1.0,-1.0,1.0,-1.0,1.0,-1.0,-1.0,-1.0,-1.0,-1.0,-1.0,-1.0,1.0,-1.0,1.0
2025-06-04 14:35:32.917,-0.022924185,0.004796174,0.0067294207,0.074032836,0.014091673,0.047269918,0.0,0.0,0.0,0.017184943,-0.095365316,0.4802678,-0.16267127,-0.110422716,-0.48059243,-0.22661838,-0.1199083,-0.50601065,-0.20978662,0.09527135,-0.46766126,0.25259882,0.04831161,0.04076317,-0.083437756,-0.014771528,-0.043160174,0.00014216924,0.07728426,0.061718352,-0.032080177,0.07328465,0.051992804,-0.015260734,-1.0,1.0,-1.0,-1.0,-1.0,-1.0,-1.0,-1.0,-1.0,1.0,-1.0,1.0,-1.0,1.0,-1.0,-1.0,-1.0,-1.0,-1.0,-1.0,-1.0,1.0,-1.0,1.0
2025-06-04 14:35:32.937,-0.023466408,-0.036481522,-0.032584462,0.056397725,0.03528305,-0.0070258523,0.0,0.0,0.0,0.017772978,-0.083630726,0.48557255,-0.14997317,-0.10481119,-0.48781016,-0.22828026,-0.1174186,-0.50681645,-0.20717068,0.09426181,-0.46646723,0.25804973,0.012120969,-0.0142011205,-0.025813093,0.0042525837,0.058865793,0.069995224,0.04699192,-0.056207445,0.043364905,0.016342912,0.031165117,0.05073155,-1.0,1.0,-1.0,-1.0,-1.0,-1.0,-1.0,-1.0,-1.0,1.0,-1.0,1.0,-1.0,1.0,-1.0,-1.0,-1.0,-1.0,-1.0,-1.0,-1.0,1.0,-1.0,1.0
2025-06-04 14:35:32.957,-0.012756567,-0.08905652,0.0017174067,0.029853236,-0.024588706,-0.022394864,0.0,0.0,0.0,0.01810775,-0.08163896,0.4778428,-0.15291558,-0.10182663,-0.49971855,-0.21733946,-0.11972884,-0.51659,-0.21023625,0.099820115,-0.46590978,0.26007098,0.040931165,-0.008432712,0.05228661,-0.027561339,0.035957225,0.04331547,-0.036638398,-0.07820138,0.06555528,-0.026070325,-0.060930636,0.06899515,-1.0,1.0,-1.0,-1.0,-1.0,-1.0,-1.0,-1.0,-1.0,1.0,-1.0,1.0,-1.0,1.0,-1.0,-1.0,-1.0,-1.0,-1.0,-1.0,-1.0,1.0,-1.0,1.0
2025-06-04 14:35:32.977,-0.017471887,-0.13411431,0.03022259,0.10835234,-0.039390564,-0.0022577872,0.0,0.0,0.0,0.01795048,-0.075978145,0.49089846,-0.16519402,-0.102620475,-0.5184418,-0.20275001,-0.11543294,-0.5326072,-0.19581902,0.094358474,-0.471294,0.2682235,-0.03879753,-0.066113204,0.00688038,0.020997776,-0.0822463,-0.028963938,0.036709778,0.0629493,0.031654634,-0.014512686,0.033502873,0.0674506,-1.0,1.0,-1.0,-1.0,-1.0,-1.0,-1.0,-1.0,-1.0,1.0,-1.0,1.0,-1.0,1.0,-1.0,-1.0,-1.0,-1.0,-1.0,-1.0,-1.0,1.0,-1.0,1.0
2025-06-04 14:35:32.998,0.009785812,-0.09779663,0.018267194,0.11646743,0.06197451,-0.010408667,0.0,0.0,0.0,0.017377615,-0.07808145,0.4764378,-0.17026336,-0.09900118,-0.5229469,-0.2043176,-0.124466136,-0.53559166,-0.1952946,0.09578332,-0.47341794,0.25923815,0.051457036,-0.03125269,-0.024610154,0.06574852,-0.054902866,-0.0150351655,0.00338671,-0.0040068817,-0.018042233,0.058684167,-0.03067465,-0.050227255,-1.0,1.0,-1.0,-1.0,-1.0,-1.0,-1.0,-1.0,-1.0,1.0,-1.0,1.0,-1.0,1.0,-1.0,-1.0,-1.0,-1.0,-1.0,-1.0,-1.0,1.0,-1.0,1.0
2025-06-04 14:35:33.016,-0.050432093,-0.11600627,0.008559159,0.10172442,0.044284668,0.032822065,0.0,0.0,0.0,0.016543102,-0.073095664,0.47538298,-0.17391616,-0.11319093,-0.5370891,-0.19970994,-0.11778447,-0.5408665,-0.19761771,0.08113759,-0.48168826,0.26053932,-0.00893613,0.026817065,-0.0648094,-0.021984154,0.011538942,0.036450326,-0.023699582,0.048168886,-0.076419786,-0.067645624,-0.06664276,-0.016736625,-1.0,1.0,-1.0,-1.0,-1.0,-1.0,-1.0,-1.0,-1.0,1.0,-1.0,1.0,-1.0,1.0,-1.0,-1.0,-1.0,-1.0,-1.0,-1.0,-1.0,1.0,-1.0,1.0
2025-06-04 14:35:33.036,0.016737245,-0.20057338,0.0820935,0.0723808,0.012899049,0.013230609,0.0,0.0,0.0,0.015605814,-0.07888347,0.47565407,-0.16371544,-0.114074625,-0.55922836,-0.18713617,-0.12512086,-0.53611934,-0.20914114,0.09037094,-0.473385,0.26030192,-0.0074557317,0.06815799,0.05612885,-0.0023991286,0.008700342,-0.053505376,-0.021696743,-0.07882249,0.06621146,-0.06045131,-0.045636185,0.04288658,-1.0,1.0,-1.0,-1.0,-1.0,-1.0,-1.0,-1.0,-1.0,1.0,-1.0,1.0,-1.0,1.0,-1.0,-1.0,1.0,-1.0,-1.0,-1.0,-1.0,1.0,-1.0,1.0
2025-06-04 14:35:33.058,-0.003043959,0.16015552,-0.07323995,0.13591357,0.012078609,-0.02339658,0.0,0.0,0.0,0.014654484,-0.07388607,0.48949432,-0.17523164,-0.12157586,-0.5409033,-0.20051533,-0.1269265,-0.52216417,-0.20360641,0.0737991,-0.4771097,0.2601439,-0.0114428075,0.054053735,0.04717185,-0.00054534024,0.08586101,-0.11237116,-0.073129654,-0.047941428,-0.0029617448,-0.013009543,-0.022527773,-0.035130445,-1.0,1.0,-1.0,-1.0,1.0,-1.0,-1.0,-1.0,-1.0,1.0,-1.0,1.0,-1.0,1.0,-1.0,-1.0,-1.0,-1.0,-1.0,-1.0,-1.0,1.0,-1.0,1.0
2025-06-04 14:35:33.077,0.061516494,0.038087904,-0.04699398,0.062109042,0.037546985,-0.0481249,0.0,0.0,0.0,0.014478634,-0.084745236,0.49551234,-0.18522751,-0.1173719,-0.543499,-0.21431461,-0.13602267,-0.5309777,-0.20891134,0.09602772,-0.46557924,0.26245102,0.040371343,-0.062565476,0.05367159,-0.019485354,0.0035209407,0.017054582,-0.012316705,0.06660471,-0.069990166,-0.039674036,0.036648292,0.019682663,-1.0,1.0,-1.0,-1.0,-1.0,-1.0,-1.0,-1.0,-1.0,1.0,-1.0,1.0,-1.0,1.0,-1.0,-1.0,-1.0,-1.0,-1.0,-1.0,-1.0,1.0,-1.0,1.0
2025-06-04 14:35:33.100,0.034375582,-0.057980534,0.0033394985,0.12696335,0.059823494,0.03070512,0.0,0.0,0.0,0.015006441,-0.08786645,0.47738442,-0.1884435,-0.11450777,-0.5385439,-0.21208657,-0.12871513,-0.5302554,-0.22372869,0.09650353,-0.4682305,0.26234916,-0.041476347,0.01290298,0.018284827,0.06482764,-0.06461026,-0.058570966,-0.01214195,0.06270415,-0.055933464,-0.035305202,-0.0066226507,-0.057792734,-1.0,1.0,-1.0,-1.0,-1.0,-1.0,-1.0,-1.0,-1.0,1.0,-1.0,1.0,-1.0,1.0,-1.0,-1.0,-1.0,-1.0,-1.0,-1.0,-1.0,1.0,-1.0,1.0
2025-06-04 14:35:33.117,-0.054752536,-0.03977923,-0.02820284,0.05598177,0.029140463,0.0018579543,0.0,0.0,0.0,0.0153490435,-0.08657901,0.4846602,-0.18084452,-0.11992524,-0.55185384,-0.2012615,-0.12392139,-0.53440034,-0.23186874,0.08023979,-0.4807477,0.2568357,-0.013300104,-0.020863108,0.078819126,0.015516103,-0.01888571,0.041296422,-0.07294227,-0.033360913,0.052928254,0.017063312,0.06683433,-0.03587906,-1.0,1.0,-1.0,-1.0,-1.0,-1.0,-1.0,-1.0,-1.0,1.0,-1.0,1.0,-1.0,1.0,-1.0,-1.0,-1.0,-1.0,-1.0,-1.0,-1.0,1.0,-1.0,1.0
2025-06-04 14:35:33.137,0.00084525795,-0.055814896,0.0472555,0.14441366,0.046248343,0.02997094,0.0,0.0,0.0,0.015242144,-0.07402744,0.4858029,-0.19335899,-0.11025104,-0.554819,-0.20015669,-0.12742606,-0.5277671,-0.21460763,0.080632515,-0.47582203,0.25422794,0.057882104,0.005301173,0.03087163,0.054906886,0.036798697,-0.04126624,0.0003421288,-0.0002873821,-0.0019162054,0.024985261,-0.055146333,-0.042394284,-1.0,1.0,-1.0,-1.0,-1.0,-1.0,-1.0,-1.0,-1.0,1.0,-1.0,1.0,-1.0,1.0,-1.0,-1.0,1.0,-1.0,-1.0,-1.0,-1.0,1.0,-1.0,1.0
2025-06-04 14:35:33.156,0.05688669,0.20660941,0.007445639,0.07154275,0.019128686,-0.047136985,0.0,0.0,0.0,0.014754916,-0.0983859,0.49237135,-0.18625773,-0.11957065,-0.5392323,-0.19867526,-0.13352132,-0.5246454,-0.22992338,0.09251243,-0.46497095,0.26478723,0.010290999,-0.0077399067,0.058591638,-0.035717215,0.00909785,-0.01510509,0.02745919,-0.031292036,-0.035846274,-0.07403341,0.03303292,-0.07393918,-1.0,1.0,-1.0,-1.0,1.0,-1.0,-1.0,-1.0,-1.0,1.0,-1.0,1.0,-1.0,1.0,-1.0,-1.0,-1.0,-1.0,-1.0,-1.0,-1.0,1.0,-1.0,1.0
2025-06-04 14:35:33.177,-0.004268879,0.03338009,-0.037151065,0.10124612,0.07892341,-0.02890126,0.0,0.0,0.0,0.01475173,-0.10168537,0.48732194,-0.18218489,-0.114249006,-0.5389836,-0.21001858,-0.12660491,-0.51793194,-0.22550352,0.084478445,-0.47147027,0.26924166,0.06352512,0.058658976,-0.0034772616,-0.05704491,0.086618654,-0.020038906,0.02970783,0.06342622,-0.0072116097,-0.015720164,0.036446758,0.07253887,-1.0,1.0,-1.0,-1.0,-1.0,-1.0,-1.0,-1.0,-1.0,1.0,-1.0,1.0,-1.0,1.0,-1.0,-1.0,-1.0,-1.0,-1.0,-1.0,-1.0,1.0,-1.0,1.0
2025-06-04 14:35:33.199,0.008374889,-0.009083238,0.005711396,0.12750816,0.0638481,-0.01619001,0.0,0.0,0.0,0.015331484,-0.08497131,0.48037437,-0.18679354,-0.115793094,-0.5404211,-0.2060772,-0.13185102,-0.5281315,-0.23228204,0.09537383,-0.4751221,0.25232297,-0.038521405,-0.0004246204,0.0040589212,-0.06786134,0.057877067,0.061381314,0.03275752,-0.042791754,-0.021592304,-0.044614725,-0.025283765,0.023521498,-1.0,1.0,-1.0,-1.0,-1.0,-1.0,-1.0,-1.0,-1.0,1.0,-1.0,1.0,-1.0,1.0,-1.0,-1.0,-1.0,-1.0,-1.0,-1.0,-1.0,1.0,-1.0,1.0
2025-06-04 14:35:33.217,0.031773224,0.0041185585,0.06623413,0.10888124,0.07650983,0.0018470712,0.0,0.0,0.0,0.015646404,-0.09932299,0.4863832,-0.18743058,-0.11894306,-0.5351949,-0.21684685,-0.12790173,-0.51950425,-0.22299498,0.08336962,-0.46601093,0.2569467,0.009914887,-0.030171238,-0.010397009,0.00920846,-0.05229391,-0.054146517,0.074901566,-0.08273848,0.042183604,0.0066020186,-0.027695203,0.06961136,-1.0,1.0,-1.0,-1.0,-1.0,-1.0,-1.0,-1.0,-1.0,1.0,-1.0,1.0,-1.0,1.0,-1.0,-1.0,1.0,-1.0,-1.0,-1.0,-1.0,1.0,-1.0,1.0
2025-06-04 14:35:33.238,0.07454969,0.18050826,-0.023526913,0.11373877,0.022284439,-0.036748152,0.0,0.0,0.0,0.015476993,-0.09189136,0.48074752,-0.19793084,-0.118245095,-0.52292234,-0.22105534,-0.13563773,-0.52496815,-0.22365928,0.08036515,-0.45945242,0.26388755,0.052998684,0.031216519,-0.015554015,0.029303733,0.104229406,-0.07465256,-0.0036025755,0.03226015,-0.014068516,0.05349165,0.038125854,-0.054910805,-1.0,1.0,-1.0,-1.0,1.0,-1.0,-1.0,-1.0,-1.0,1.0,-1.0,1.0,-1.0,1.0,-1.0,-1.0,-1.0,-1.0,-1.0,-1.0,-1.0,1.0,-1.0,1.0
2025-06-04 14:35:33.257,0.029426962,0.006520414,0.0023575742,0.08792425,0.060807575,0.029013995,0.0,0.0,0.0,0.015647266,-0.093630314,0.4860528,-0.19280481,-0.1113196,-0.52170485,-0.22383983,-0.13257225,-0.5116997,-0.22484761,0.0773334,-0.47769856,0.26961356,-0.008359913,-0.017817903,0.028468814,0.014637873,-0.04521135,-0.049792916,-0.040568758,-0.04831488,0.059695635,0.007353949,0.028843377,-0.058580674,-1.0,1.0,-1.0,-1.0,-1.0,-1.0,-1.0,-1.0,-1.0,1.0,-1.0,1.0,-1.0,1.0,-1.0,-1.0,-1.0,-1.0,-1.0,-1.0,-1.0,1.0,-1.0,1.0
2025-06-04 14:35:33.277,-0.051296778,0.0050170613,-0.015464517,0.110810846,0.048962805,-0.008782802,0.0,0.0,0.0,0.016254794,-0.0974847,0.493745,-0.19195502,-0.10815614,-0.5116314,-0.22863068,-0.11595797,-0.51329887,-0.22366534,0.08317596,-0.4645885,0.2525074,0.055248957,0.067663066,0.0016009776,0.011062973,0.014755046,-0.030870922,0.06361706,0.016231492,0.0691402,-0.054563675,-0.016631005,0.070750035,-1.0,1.0,-1.0,-1.0,-1.0,-1.0,-1.0,-1.0,-1.0,1.0,-1.0,1.0,-1.0,1.0,-1.0,-1.0,-1.0,-1.0,-1.0,-1.0,-1.0,1.0,-1.0,1.0
2025-06-04 14:35:33.299,0.008487192,-0.038743358,0.043641236,0.060713924,-0.014287444,-0.0064643845,0.0,0.0,0.0,0.016535416,-0.08784016,0.49020094,-0.18296951,-0.10567321,-0.52566475,-0.20730746,-0.11750131,-0.52683043,-0.2210487,0.08101487,-0.46691006,0.25947705,-0.018320434,-0.040427353,-0.0034955244,-0.008008189,-0.06523708,-0.046148844,0.047121625,-0.003779377,-0.06195194,-0.052227538,0.034587618,0.047957346,-1.0,1.0,-1.0,-1.0,-1.0,-1.0,-1.0,-1.0,-1.0,1.0,-1.0,1.0,-1.0,1.0,-1.0,-1.0,1.0,-1.0,-1.0,-1.0,-1.0,1.0,-1.0,1.0
2025-06-04 14:35:33.317,0.07539195,0.22508606,-0.04462379,0.11360486,-0.009067314,0.030577095,0.0,0.0,0.0,0.016288897,-0.109427474,0.48799402,-0.18399803,-0.1084163,-0.50362164,-0.22675933,-0.12209769,-0.5217432,-0.21617572,0.08933834,-0.46052915,0.25702268,0.008754665,0.045460172,0.06522655,0.029211834,0.12999566,-0.05422223,-0.068769164,-0.05139066,0.03886915,-0.045823336,-0.022561427,-0.0247384,-1.0,1.0,-1.0,-1.0,1.0,-1.0,-1.0,-1.0,-1.0,1.0,-1.0,1.0,-1.0,1.0,-1.0,-1.0,-1.0,-1.0,-1.0,-1.0,-1.0,1.0,-1.0,1.0
2025-06-04 14:35:33.337,0.046664923,0.01974329,0.0008710203,0.05608084,0.009901594,0.011894927,0.0,0.0,0.0,0.016402919,-0.10853171,0.49246788,-0.18899953,-0.10947804,-0.48599514,-0.2400385,-0.120828584,-0.52012634,-0.2176414,0.08262514,-0.47450662,0.26431924,-0.056759205,0.081294924,0.06540017,-0.04689586,-0.016266061,-0.0027040069,0.04232465,-0.045946635,-0.0025724883,0.040682733,-0.036187574,0.03876527,-1.0,1.0,-1.0,-1.0,-1.0,-1.0,-1.0,-1.0,-1.0,1.0,-1.0,1.0,-1.0,1.0,-1.0,-1.0,-1.0,-1.0,-1.0,-1.0,-1.0,1.0,-1.0,1.0
2025-06-04 14:35:33.357,0.02976683,-0.02083769,0.008630098,0.040157974,0.023088835,-0.019104393,0.0,0.0,0.0,0.016945269,-0.100943744,0.50902057,-0.18630265,-0.1051474,-0.50194126,-0.23149745,-0.11583919,-0.5297704,-0.21462712,0.084585205,-0.47484812,0.2528172,-0.0489591,0.03968247,-0.052265998,0.058626037,-0.0045444896,-0.03888434,-0.03562911,-0.081229344,-0.011897944,0.0035123455,0.055485792,0.07095254,-1.0,1.0,-1.0,-1.0,-1.0,-1.0,-1.0,-1.0,-1.0,1.0,-1.0,1.0,-1.0,1.0,-1.0,-1.0,-1.0,-1.0,-1.0,-1.0,-1.0,1.0,-1.0,1.0
2025-06-04 14:35:33.380,0.024343757,-0.0482807,0.04306298,0.12266172,0.030314786,-0.018621787,0.0,0.0,0.0,0.017210897,-0.09255669,0.4959398,-0.189544,-0.099221766,-0.49595338,-0.21918786,-0.118621275,-0.52505744,-0.21757714,0.089011274,-0.4817014,0.26723376,-0.031612575,0.024691954,0.04543168,0.045400575,0.036317028,0.008342442,-0.021717833,-0.0394663,-0.050262794,-0.0096033905,-0.06400722,-0.058453154,-1.0,1.0,-1.0,-1.0,-1.0,-1.0,-1.0,-1.0,-1.0,1.0,-1.0,1.0,-1.0,1.0,-1.0,-1.0,1.0,-1.0,-1.0,-1.0,-1.0,1.0,-1.0,1.0
2025-06-04 14:35:33.398,0.039056737,0.22447519,-0.01591065,0.083010346,0.03234568,-0.04819463,0.0,0.0,0.0,0.016955275,-0.111210525,0.49622726,-0.18025942,-0.1048424,-0.49165395,-0.23599957,-0.11232806,-0.5183775,-0.21471646,0.092982166,-0.467182,0.26056176,0.028813735,0.056881048,-0.0386248,-0.028197024,0.0041710264,-0.004494525,0.0404902,0.044437114,-0.021045793,0.043087218,-0.04009779,0.07000187,-1.0,1.0,-1.0,-1.0,1.0,-1.0,-1.0,-1.0,-1.0,1.0,-1.0,1.0,-1.0,1.0,-1.0,-1.0,-1.0,-1.0,-1.0,-1.0,-1.0,1.0,-1.0,1.0
2025-06-04 14:35:33.417,-0.025104092,0.053146247,-0.02643913,0.062032416,0.01740498,-0.038262434,0.0,0.0,0.0,0.01706721,-0.11196526,0.50110143,-0.18584664,-0.10071735,-0.47788697,-0.22719902,-0.11404749,-0.5209279,-0.20211042,0.08628282,-0.46913347,0.27075404,0.017879667,0.011538516,-0.051510427,-0.052962124,-0.029623078,-0.013186367,0.047831938,-0.068010405,0.06714877,0.021337785,0.046021592,0.0069557563,-1.0,1.0,-1.0,-1.0,-1.0,-1.0,-1.0,-1.0,-1.0,1.0,-1.0,1.0,-1.0,1.0,-1.0,-1.0,-1.0,-1.0,-1.0,-1.0,-1.0,1.0,-1.0,1.0
2025-06-04 14:35:33.437,-0.037358183,-0.061431415,0.044075944,0.07262738,0.01843527,-0.022088254,0.0,0.0,0.0,0.01758746,-0.097247526,0.5079097,-0.1866433,-0.10126616,-0.47527045,-0.23189792,-0.12210665,-0.5110188,-0.20303138,0.08238293,-0.47348005,0.25413102,-0.032639194,0.0445016,-0.070201375,-0.045205086,-0.027084379,-0.054535422,0.0799981,0.028237686,0.06949602,0.058355637,-0.042971056,0.05660112,-1.0,1.0,-1.0,-1.0,-1.0,-1.0,-1.0,-1.0,-1.0,1.0,-1.0,1.0,-1.0,1.0,-1.0,-1.0,-1.0,-1.0,-1.0,-1.0,-1.0,1.0,-1.0,1.0
2025-06-04 14:35:33.457,-0.037641235,-0.038734518,0.024326563,0.026556829,-0.022252427,-0.020988679,0.0,0.0,0.0,0.017827794,-0.10483178,0.4972831,-0.17765927,-0.099070035,-0.49731714,-0.22629783,-0.11677998,-0.5139862,-0.20522049,0.082265355,-0.475883,0.25551236,0.024795001,-0.06648726,0.06718249,0.011934378,-0.08276375,-0.031609733,-0.032238442,-0.07643672,-0.011303895,0.06942146,0.009716551,-0.00848212,-1.0,1.0,-1.0,-1.0,-1.0,-1.0,-1.0,-1.0,-1.0,1.0,-1.0,1.0,-1.0,1.0,-1.0,-1.0,-1.0,-1.0,-1.0,-1.0,-1.0,1.0,-1.0,1.0
2025-06-04 14:35:33.482,-0.003800834,-0.05762772,0.0091427835,0.078127526,0.012748737,-0.043334767,0.0,0.0,0.0,0.01754225,-0.09233767,0.49602857,-0.17977346,-0.094779536,-0.49588707,-0.2073869,-0.11707517,-0.53770465,-0.19774404,0.09150728,-0.47708148,0.2592645,-0.04840949,0.060956173,-0.067252204,0.04798849,-0.0073341746,0.09239564,0.005122591,0.010258069,0.07509624,0.022725498,-0.022599308,-0.035831094,-1.0,1.0,-1.0,-1.0,-1.0,-1.0,-1.0,-1.0,-1.0,1.0,-1.0,1.0,-1.0,1.0,-1.0,-1.0,-1.0,-1.0,-1.0,-1.0,-1.0,1.0,-1.0,1.0
2025-06-04 14:35:33.498,0.007505738,-0.1580386,0.037996233,0.11840345,0.018520277,0.022343243,0.0,0.0,0.0,0.016853217,-0.08585282,0.5081078,-0.17471665,-0.088671446,-0.51957965,-0.20581484,-0.12424592,-0.5356466,-0.20304511,0.09281822,-0.4705514,0.2528018,-0.0034917283,-0.033663068,-0.03542678,0.022511577,-0.014453767,-0.032803364,-0.08317537,0.024350366,-0.042077243,0.0011955682,0.04058922,-0.046510343,-1.0,1.0,-1.0,-1.0,-1.0,-1.0,-1.0,-1.0,-1.0,1.0,-1.0,1.0,-1.0,1.0,-1.0,-1.0,-1.0,-1.0,-1.0,-1.0,-1.0,1.0,-1.0,1.0
2025-06-04 14:35:33.518,0.02880999,-0.12571464,0.056364678,0.058801077,-0.03073641,-0.046806067,0.0,0.0,0.0,0.015955048,-0.07840576,0.4942787,-0.17543928,-0.10535287,-0.52846944,-0.19294031,-0.12546732,-0.5273247,-0.19540347,0.096574515,-0.46766567,0.25265476,-0.020438017,0.015805587,-0.018142937,0.012793094,-0.053282782,0.07704826,-0.061683983,-0.05348139,-0.051688943,-0.06512482,-0.033657942,0.05983891,-1.0,1.0,-1.0,-1.0,-1.0,-1.0,-1.0,-1.0,-1.0,1.0,-1.0,1.0,-1.0,1.0,-1.0,-1.0,1.0,-1.0,-1.0,-1.0,-1.0,1.0,-1.0,1.0
2025-06-04 14:35:33.538,0.0030520353,0.09173664,-0.038123183,0.094959676,0.030199513,-0.045454204,0.0,0.0,0.0,0.014983301,-0.08764249,0.49106434,-0.17056866,-0.100751214,-0.5203184,-0.21853887,-0.11982316,-0.53716445,-0.20242096,0.09038215,-0.46154955,0.2652116,-0.024117434,-0.0015187945,-0.05040918,-0.093975216,0.06417427,-0.077847324,0.04375357,0.0667655,-0.05136111,0.0033301166,0.037567545,0.0137484465,-1.0,1.0,-1.0,-1.0,1.0,-1.0,-1.0,-1.0,-1.0,1.0,-1.0,1.0,-1.0,1.0,-1.0,-1.0,-1.0,-1.0,-1.0,-1.0,-1.0,1.0,-1.0,1.0
2025-06-04 14:35:33.558,0.051278014,-0.037780672,-0.0034779056,0.09471864,-0.0063299495,0.042608686,0.0,0.0,0.0,0.014836269,-0.095770404,0.5074604,-0.18103853,-0.11226093,-0.5203973,-0.21415164,-0.12936385,-0.52124363,-0.20745157,0.089331634,-0.46583942,0.2667305,0.06902802,-0.011530506,0.024662819,0.051418364,-0.068504706,0.009256596,-0.06387772,0.00012468771,0.037589207,0.055595554,-0.007223438,-0.011587341,-1.0,1.0,-1.0,-1.0,-1.0,-1.0,-1.0,-1.0,-1.0,1.0,-1.0,1.0,-1.0,1.0,-1.0,-1.0,-1.0,-1.0,-1.0,-1.0,-1.0,1.0,-1.0,1.0
2025-06-04 14:35:33.582,0.01700338,-0.04566613,-0.017532581,0.121236816,-0.031070344,-0.02198581,0.0,0.0,0.0,0.015405488,-0.100826934,0.5045443,-0.17576127,-0.10098561,-0.5240729,-0.21932946,-0.11881628,-0.51663667,-0.21534728,0.08865482,-0.4720523,0.26312616,-0.039288767,-0.03890801,0.040913053,-0.009590342,-0.02689267,0.05168566,0.034102768,0.006063753,0.039730918,-0.054731313,0.062250543,-0.05794736,-1.0,1.0,-1.0,-1.0,-1.0,-1.0,-1.0,-1.0,-1.0,1.0,-1.0,1.0,-1.0,1.0,-1.0,-1.0,-1.0,-1.0,-1.0,-1.0,-1.0,1.0,-1.0,1.0
2025-06-04 14:35:33.599,-0.020602977,-0.080424674,0.035495717,0.11391536,0.072424464,0.043512587,0.0,0.0,0.0,0.015728638,-0.09224885,0.5027961,-0.17591885,-0.10331286,-0.52744895,-0.20398918,-0.12680168,-0.527656,-0.20375489,0.09494162,-0.47044927,0.26964682,-0.004701569,0.04717671,0.06976344,-0.04211012,-0.021449294,0.007531302,-0.06455517,-0.08409645,-0.005737584,-0.021231608,0.05812725,-0.016234808,-1.0,1.0,-1.0,-1.0,-1.0,-1.0,-1.0,-1.0,-1.0,1.0,-1.0,1.0,-1.0,1.0,-1.0,-1.0,1.0,-1.0,-1.0,-1.0,-1.0,1.0,-1.0,1.0
2025-06-04 14:35:33.618,-0.0050316933,0.2217636,-0.052806906,0.05808025,0.02368609,0.017399872,0.0,0.0,0.0,0.015560063,-0.103315696,0.4909598,-0.18658112,-0.102428734,-0.51903516,-0.22606102,-0.12191203,-0.5340079,-0.22185914,0.08296841,-0.4704584,0.26854527,0.018914474,0.030015822,0.044678472,0.047148798,0.09496847,0.025516482,0.016400237,-0.022761825,0.008569171,-0.022143234,-0.027148237,-0.028540475,-1.0,1.0,-1.0,-1.0,1.0,-1.0,-1.0,-1.0,-1.0,1.0,-1.0,1.0,-1.0,1.0,-1.0,-1.0,-1.0,-1.0,-1.0,-1.0,-1.0,1.0,-1.0,1.0
2025-06-04 14:35:33.638,0.01874353,-0.0061135734,-0.032824192,0.10099301,0.03189155,0.010637644,0.0,0.0,0.0,0.015744932,-0.10908525,0.49462348,-0.18548389,-0.105042495,-0.49827445,-0.23240247,-0.12016108,-0.52204347,-0.21921416,0.087364495,-0.47445127,0.25159177,0.0064066118,0.0700141,0.016994037,-0.019921375,0.03364124,0.05604737,0.06930017,0.013470993,0.05959939,0.02958297,-0.021381646,-0.026209947,-1.0,1.0,-1.0,-1.0,-1.0,-1.0,-1.0,-1.0,-1.0,1.0,-1.0,1.0,-1.0,1.0,-1.0,-1.0,-1.0,-1.0,-1.0,-1.0,-1.0,1.0,-1.0,1.0
2025-06-04 14:35:33.658,0.03126693,0.007681093,-0.04488464,0.099987224,-0.019726224,0.004421568,0.0,0.0,0.0,0.016353916,-0.098766804,0.50729203,-0.19242978,-0.09601181,-0.50244397,-0.21501192,-0.11817734,-0.5206695,-0.21776912,0.08085258,-0.48063353,0.2565014,-0.043809846,0.051542845,-0.058092114,0.037590176,0.03008509,-0.004642219,-0.03167223,0.048467178,0.015799291,-0.05177566,0.00931586,0.00790435,-1.0,1.0,-1.0,-1.0,-1.0,-1.0,-1.0,-1.0,-1.0,1.0,-1.0,1.0,-1.0,1.0,-1.0,-1.0,-1.0,-1.0,-1.0,-1.0,-1.0,1.0,-1.0,1.0
2025-06-04 14:35:33.682,-0.0069130585,-0.0625286,0.071939155,0.08039573,0.046667226,-0.04765299,0.0,0.0,0.0,0.01657576,-0.09139676,0.50112325,-0.17606819,-0.10519303,-0.5211605,-0.22322176,-0.12353009,-0.52989244,-0.20995434,0.08685288,-0.4772111,0.26166898,0.0777904,-0.022314582,0.069645725,0.040330093,-0.10141167,-0.045625225,-0.022000961,-0.06289471,0.08168739,-0.04378122,-0.059166566,0.03252319,-1.0,1.0,-1.0,-1.0,-1.0,-1.0,-1.0,-1.0,-1.0,1.0,-1.0,1.0,-1.0,1.0,-1.0,-1.0,1.0,-1.0,-1.0,-1.0,-1.0,1.0,-1.0,1.0
2025-06-04 14:35:33.699,0.07109918,0.18153971,0.0061023007,0.06891049,0.016976163,0.04386897,0.0,0.0,0.0,0.016270146,-0.09401256,0.49010336,-0.17962721,-0.110952504,-0.50990427,-0.22219698,-0.11868987,-0.53241843,-0.21914269,0.090120606,-0.4705676,0.260333,-0.017542839,0.057352502,-0.013946521,0.030778054,0.1084555,0.01840062,0.046842474,0.061414883,-0.038843397,0.017011255,0.050986852,-0.03451552,-1.0,1.0,-1.0,-1.0,1.0,-1.0,-1.0,-1.0,-1.0,1.0,-1.0,1.0,-1.0,1.0,-1.0,-1.0,-1.0,-1.0,-1.0,-1.0,-1.0,1.0,-1.0,1.0
2025-06-04 14:35:33.719,0.025470372,0.0377741,-0.0249325,0.075688556,-0.027181799,-0.028813086,0.0,0.0,0.0,0.01634695,-0.11163684,0.49181437,-0.18775812,-0.10086351,-0.49548873,-0.23596212,-0.12772352,-0.52020913,-0.22496496,0.08103864,-0.47242984,0.25346196,0.023569463,-0.054424115,-0.059422787,0.007820886,-0.012958079,-0.055679627,0.0009908467,0.038596883,0.014726434,0.03512385,-0.031715635,0.03034023,-1.0,1.0,-1.0,-1.0,-1.0,-1.0,-1.0,-1.0,-1.0,1.0,-1.0,1.0,-1.0,1.0,-1.0,-1.0,-1.0,-1.0,-1.0,-1.0,-1.0,1.0,-1.0,1.0
2025-06-04 14:35:33.738,-0.0065450873,-0.071794875,-0.017337628,0.05697602,0.04251092,0.047987457,0.0,0.0,0.0,0.016864702,-0.113452226,0.5008727,-0.18069226,-0.09643571,-0.5092316,-0.22002622,-0.12437324,-0.52456903,-0.21838894,0.08988003,-0.4623864,0.26105112,-0.040550653,-0.03481414,0.052561946,0.025013814,-0.007791944,0.049580574,-0.038750924,-0.008081499,-0.037832897,0.07763626,0.040649265,-0.0028547933,-1.0,1.0,-1.0,-1.0,-1.0,-1.0,-1.0,-1.0,-1.0,1.0,-1.0,1.0,-1.0,1.0,-1.0,-1.0,-1.0,-1.0,-1.0,-1.0,-1.0,1.0,-1.0,1.0
2025-06-04 14:35:33.759,-0.040711585,-0.038538978,0.011301447,0.12181986,0.05089624,-0.028832069,0.0,0.0,0.0,0.017056663,-0.10259103,0.49873507,-0.17936015,-0.10323329,-0.5135433,-0.22672008,-0.12170933,-0.5185209,-0.20452894,0.09029584,-0.4744854,0.2714213,-0.0234136,0.0034156546,0.029108178,-0.045429103,-0.07743758,-0.055072412,0.020493109,-0.008072229,0.06887363,0.03787423,0.013265835,0.045225594,-1.0,1.0,-1.0,-1.0,-1.0,-1.0,-1.0,-1.0,-1.0,1.0,-1.0,1.0,-1.0,1.0,-1.0,-1.0,-1.0,-1.0,-1.0,-1.0,-1.0,1.0,-1.0,1.0
2025-06-04 14:35:33.782,0.0121798795,-0.061416358,0.053308383,0.10128482,0.021609955,0.025978273,0.0,0.0,0.0,0.01673103,-0.100622386,0.49000677,-0.17455073,-0.092907265,-0.5126043,-0.22102417,-0.111566976,-0.5344758,-0.20439707,0.09324808,-0.4809491,0.25370562,-0.042855337,-0.06925518,0.039212346,-0.015074281,-0.0047807987,-0.0045268917,0.030131642,-0.028565586,0.022183854,0.009145968,-0.06174991,-0.0030336708,-1.0,1.0,-1.0,-1.0,-1.0,-1.0,-1.0,-1.0,-1.0,1.0,-1.0,1.0,-1.0,1.0,-1.0,-1.0,1.0,-1.0,-1.0,-1.0,-1.0,1.0,-1.0,1.0
2025-06-04 14:35:33.799,-0.017669955,0.12244302,0.012633093,0.08610226,0.042369064,0.033289485,0.0,0.0,0.0,0.016040735,-0.09495067,0.4927241,-0.17102948,-0.093496576,-0.5046177,-0.22205378,-0.12615156,-0.53002524,-0.21570492,0.07806594,-0.4770726,0.25439477,0.02616577,-0.021220759,-0.03373778,-0.0034982066,0.015270671,-0.035982527,-0.058486473,-0.015138076,-0.07814752,0.034435418,-0.0042883586,-4.7679016e-05,-1.0,1.0,-1.0,-1.0,1.0,-1.0,-1.0,-1.0,-1.0,1.0,-1.0,1.0,-1.0,1.0,-1.0,-1.0,-1.0,-1.0,-1.0,-1.0,-1.0,1.0,-1.0,1.0
2025-06-04 14:35:33.819,-0.012573951,0.021054598,0.0011865273,0.03870383,0.032787926,0.010186456,0.0,0.0,0.0,0.015948769,-0.09191836,0.50356007,-0.17316513,-0.0974383,-0.4889758,-0.23733674,-0.11442095,-0.5266093,-0.20197253,0.08917105,-0.46622336,0.27109987,0.003523016,-0.003066886,0.040371493,0.051965013,-0.04500138,0.057992186,0.024797749,-0.04626428,0.016795162,-0.058703218,0.0161752,0.027706468,-1.0,1.0,-1.0,-1.0,-1.0,-1.0,-1.0,-1.0,-1.0,1.0,-1.0,1.0,-1.0,1.0,-1.0,-1.0,-1.0,-1.0,-1.0,-1.0,-1.0,1.0,-1.0,1.0
2025-06-04 14:35:33.839,0.0072863665,-0.053316873,-0.024900751,0.04542353,-0.00379091,0.0024844713,0.0,0.0,0.0,0.016441094,-0.106506966,0.5087867,-0.171292,-0.09233207,-0.49135214,-0.2340328,-0.11428159,-0.5220432,-0.2153922,0.09586474,-0.46575478,0.2521443,-0.007819322,-0.06581755,-0.016757507,-0.058189075,0.056322914,0.06982622,-0.056097202,-0.069685474,-0.0031391846,0.016560022,0.015070071,0.014932198,-1.0,1.0,-1.0,-1.0,-1.0,-1.0,-1.0,-1.0,-1.0,1.0,-1.0,1.0,-1.0,1.0,-1.0,-1.0,-1.0,-1.0,-1.0,-1.0,-1.0,1.0,-1.0,1.0
2025-06-04 14:35:33.859,0.02118701,-0.02956793,0.060187794,0.07665678,-0.018432008,-0.009218833,0.0,0.0,0.0,0.01663855,-0.099462666,0.49807715,-0.18775411,-0.09776348,-0.50233966,-0.21243803,-0.11006506,-0.52621925,-0.20118856,0.09516364,-0.4770327,0.26060697,0.04621909,0.037878092,0.02419437,0.003898593,0.044969674,0.0023016986,-0.023066193,-0.038340673,0.057380635,0.011022961,-0.075989686,-0.054482963,-1.0,1.0,-1.0,-1.0,-1.0,-1.0,-1.0,-1.0,-1.0,1.0,-1.0,1.0,-1.0,1.0,-1.0,-1.0,1.0,-1.0,-1.0,-1.0,-1.0,1.0,-1.0,1.0
2025-06-04 14:35:33.882,0.049384587,0.15516621,-0.06863673,0.06311738,-0.044526853,-0.0059541906,0.0,0.0,0.0,0.016345274,-0.09826649,0.50795674,-0.17848247,-0.0988292,-0.48760787,-0.2216801,-0.12809107,-0.5268278,-0.21816543,0.093022615,-0.4676484,0.26279837,-0.04666486,0.06254245,-0.036529537,-0.080715224,0.084595,-0.02048628,0.03648297,-0.027969187,-0.011079859,-0.06369832,0.058732662,-0.06819986,-1.0,1.0,-1.0,-1.0,1.0,-1.0,-1.0,-1.0,-1.0,1.0,-1.0,1.0,-1.0,1.0,-1.0,-1.0,-1.0,-1.0,-1.0,-1.0,-1.0,1.0,-1.0,1.0
2025-06-04 14:35:33.900,-0.0066890237,0.026983494,-0.049044296,0.0922679,0.044275995,-0.028153598,0.0,0.0,0.0,0.016452199,-0.109855324,0.49835935,-0.1879851,-0.11044298,-0.49721834,-0.24312979,-0.116336495,-0.5261761,-0.22083409,0.08454033,-0.46777117,0.2546304,0.013433033,0.056457784,-0.053978987,-0.03087743,0.009898059,-0.047032926,-0.03431656,0.0103405705,-0.0176148,0.041603193,-0.048608534,0.062383045,-1.0,1.0,-1.0,-1.0,-1.0,-1.0,-1.0,-1.0,-1.0,1.0,-1.0,1.0,-1.0,1.0,-1.0,-1.0,-1.0,-1.0,-1.0,-1.0,-1.0,1.0,-1.0,1.0
2025-06-04 14:35:33.921,-0.055910185,-0.068119414,-0.00637112,0.07324976,0.028986907,-0.02854877,0.0,0.0,0.0,0.016986102,-0.1042587,0.5055948,-0.17534743,-0.09659006,-0.5023769,-0.23374443,-0.11726928,-0.5236939,-0.20984602,0.08560012,-0.47587153,0.2692922,0.06887337,-0.010504161,0.021435214,-0.02655599,-0.0035260406,0.008447795,0.004265194,0.042831674,-0.030613678,0.06045153,0.057389416,-0.0095819235,-1.0,1.0,-1.0,-1.0,-1.0,-1.0,-1.0,-1.0,-1.0,1.0,-1.0,1.0,-1.0,1.0,-1.0,-1.0,-1.0,-1.0,-1.0,-1.0,-1.0,1.0,-1.0,1.0
2025-06-04 14:35:33.940,-0.03254877,-0.106950596,0.07032498,0.057009388,0.047490593,-0.015909016,0.0,0.0,0.0,0.017181635,-0.10658303,0.5097824,-0.17902377,-0.100831695,-0.50294566,-0.22150043,-0.12074474,-0.52598137,-0.2143498,0.094866306,-0.46751034,0.2570966,-0.047104992,-0.0039535607,-0.056544997,0.06935156,-0.060088094,0.062165,0.039494835,-0.035678566,-0.064401425,0.019792244,-0.070988685,-0.04491939,-1.0,1.0,-1.0,-1.0,-1.0,-1.0,-1.0,-1.0,-1.0,1.0,-1.0,1.0,-1.0,1.0,-1.0,-1.0,1.0,-1.0,-1.0,-1.0,-1.0,1.0,-1.0,1.0
2025-06-04 14:35:33.959,0.054718915,0.20700367,-0.06717369,0.036487218,0.008105636,0.011371667,0.0,0.0,0.0,0.016848868,-0.10312743,0.4978177,-0.18016209,-0.10613963,-0.49812317,-0.23154233,-0.11975944,-0.5299927,-0.20046483,0.090507045,-0.4665187,0.262628,0.029028876,-0.01316958,-0.012779015,-0.055817086,-0.007783276,-0.053059667,0.042485382,-0.014447333,0.009810897,-0.054381225,-0.02804044,-0.03816722,-1.0,1.0,-1.0,-1.0,1.0,-1.0,-1.0,-1.0,-1.0,1.0,-1.0,1.0,-1.0,1.0,-1.0,-1.0,-1.0,-1.0,-1.0,-1.0,-1.0,1.0,-1.0,1.0
2025-06-04 14:35:33.982,0.041712176,0.012375975,-0.043216918,0.09239631,0.037769485,0.04134132,0.0,0.0,0.0,0.016911807,-0.101112574,0.5108094,-0.18448205,-0.09714573,-0.4863997,-0.24379072,-0.11628585,-0.50991654,-0.20603704,0.09732948,-0.4736326,0.25990373,-0.05869029,0.07045352,0.01460918,-0.014227388,0.055254284,0.015170874,0.029531715,0.032302964,0.059554335,0.07280352,-0.05114819,-0.06745654,-1.0,1.0,-1.0,-1.0,-1.0,-1.0,-1.0,-1.0,-1.0,1.0,-1.0,1.0,-1.0,1.0,-1.0,-1.0,-1.0,-1.0,-1.0,-1.0,-1.0,1.0,-1.0,1.0
2025-06-04 14:35:34.000,-0.045013804,-0.062299576,-0.009010327,0.11604645,0.033208847,0.017223457,0.0,0.0,0.0,0.01739887,-0.11278488,0.5150272,-0.1721001,-0.10803852,-0.48108646,-0.22328027,-0.11717844,-0.5218603,-0.21545202,0.08288544,-0.47513908,0.253506,0.06608389,-0.036196366,0.012073789,0.05506974,-0.05302413,-0.026743224,-0.05166014,0.052664246,0.046232987,0.041006293,-0.00092771737,0.065238595,-1.0,1.0,-1.0,-1.0,-1.0,-1.0,-1.0,-1.0,-1.0,1.0,-1.0,1.0,-1.0,1.0,-1.0,-1.0,-1.0,-1.0,-1.0,-1.0,-1.0,1.0,-1.0,1.0
2025-06-04 14:35:34.019,-0.013734599,-0.03607132,0.03201875,0.09438493,-0.024454057,-0.026597522,0.0,0.0,0.0,0.017574027,-0.107867315,0.5128251,-0.17515197,-0.090910845,-0.5031007,-0.23375203,-0.12122386,-0.5256669,-0.19922109,0.087976635,-0.46570647,0.2584445,0.072352536,0.011817274,0.06326266,0.015137102,-0.091694966,-0.0026693784,-0.049053572,-0.0059551843,0.039760727,-0.013724517,-0.062186368,0.031217674,-1.0,1.0,-1.0,-1.0,-1.0,-1.0,-1.0,-1.0,-1.0,1.0,-1.0,1.0,-1.0,1.0,-1.0,-1.0,-1.0,-1.0,-1.0,-1.0,-1.0,1.0,-1.0,1.0
2025-06-04 14:35:34.039,-0.053304255,-0.14140521,0.040492818,0.12874565,-0.035566565,0.047239292,0.0,0.0,0.0,0.017226918,-0.097978644,0.5108715,-0.17876081,-0.09694333,-0.50380456,-0.20823283,-0.11084002,-0.531173,-0.20656158,0.0919984,-0.46276692,0.2634615,-0.059656166,-0.041391365,0.07535558,-0.0679272,-0.039284267,-0.013561201,-0.0046628905,0.058494277,0.05806129,0.047832068,-0.026274223,0.045438427,-1.0,1.0,-1.0,-1.0,-1.0,-1.0,-1.0,-1.0,-1.0,1.0,-1.0,1.0,-1.0,1.0,-1.0,-1.0,1.0,-1.0,-1.0,-1.0,-1.0,1.0,-1.0,1.0
2025-06-04 14:35:34.059,-0.0067347176,0.10154683,0.015497681,0.11449492,0.015678594,-0.016409593,0.0,0.0,0.0,0.016509272,-0.09842546,0.49453965,-0.1708909,-0.10811905,-0.5029137,-0.23319867,-0.11843366,-0.525998,-0.19488512,0.07791404,-0.4598059,0.25988573,0.046416957,0.040994603,0.06153786,-0.08330803,0.056765366,0.01229724,-0.08768695,-0.03332411,0.053573642,0.051719982,-0.01025007,0.03557698,-1.0,1.0,-1.0,-1.0,1.0,-1.0,-1.0,-1.0,-1.0,1.0,-1.0,1.0,-1.0,1.0,-1.0,-1.0,-1.0,-1.0,-1.0,-1.0,-1.0,1.0,-1.0,1.0
2025-06-04 14:35:34.082,-0.02112493,-0.002306726,0.010348214,0.103427246,0.0011964791,-0.016089583,0.0,0.0,0.0,0.016406361,-0.100154944,0.5072911,-0.17278409,-0.107970946,-0.49054247,-0.23641863,-0.12535396,-0.51163393,-0.19667368,0.08485291,-0.47604492,0.2525065,0.0063858186,0.028464267,-0.05677521,0.005833961,0.0126262205,-0.06792214,-0.058724385,0.010919116,-0.006260092,-0.046635646,0.023897903,-0.043529093,-1.0,1.0,-1.0,-1.0,-1.0,-1.0,-1.0,-1.0,-1.0,1.0,-1.0,1.0,-1.0,1.0,-1.0,-1.0,-1.0,-1.0,-1.0,-1.0,-1.0,1.0,-1.0,1.0
2025-06-04 14:35:34.100,-0.027661737,-0.07940903,0.028480632,0.06380946,0.021672545,0.04237289,0.0,0.0,0.0,0.016881015,-0.09243691,0.5015581,-0.1867863,-0.10471689,-0.4860001,-0.2355749,-0.1103981,-0.5314011,-0.20992264,0.0917354,-0.46759427,0.2622357,0.042172268,0.046486836,0.049496826,0.06288521,-0.023534456,0.0621492,0.0550263,0.01273801,-0.039936364,-0.049744442,0.05544365,-0.051730316,-1.0,1.0,-1.0,-1.0,-1.0,-1.0,-1.0,-1.0,-1.0,1.0,-1.0,1.0,-1.0,1.0,-1.0,-1.0,1.0,-1.0,-1.0,-1.0,-1.0,1.0,-1.0,1.0
2025-06-04 14:35:34.120,0.06466741,0.17651603,-0.08697777,0.12013664,0.017313842,0.00665093,0.0,0.0,0.0,0.017053055,-0.10680968,0.5156888,-0.17014776,-0.10651536,-0.47584197,-0.23826754,-0.12811595,-0.51214665,-0.2127503,0.08255097,-0.46986845,0.26742023,-0.050424,0.04056772,0.019509623,-0.03429095,0.12428039,-0.11097081,-0.032146037,-0.05350593,0.05758836,-0.029581808,-0.04393404,0.033973392,-1.0,1.0,-1.0,-1.0,1.0,-1.0,-1.0,-1.0,-1.0,1.0,-1.0,1.0,-1.0,1.0,-1.0,-1.0,-1.0,-1.0,-1.0,-1.0,-1.0,1.0,-1.0,1.0
2025-06-04 14:35:34.140,0.015935214,-0.033087887,-0.052218102,0.074309476,0.0072323596,0.020442342,0.0,0.0,0.0,0.01749814,-0.11258153,0.51067585,-0.18973112,-0.10118638,-0.4827543,-0.23278263,-0.12199875,-0.52133375,-0.21349066,0.078612074,-0.4642319,0.25507873,0.058820892,-0.013036845,0.025707716,-0.06419353,0.05783999,0.021177022,0.017970785,0.025473204,0.06519301,-0.012916827,-0.0054866765,0.005978756,-1.0,1.0,-1.0,-1.0,-1.0,-1.0,-1.0,-1.0,-1.0,1.0,-1.0,1.0,-1.0,1.0,-1.0,-1.0,-1.0,-1.0,-1.0,-1.0,-1.0,1.0,-1.0,1.0
2025-06-04 14:35:34.160,-0.029264215,-0.048736718,-0.023998579,0.09216394,-0.061207402,-0.046641108,0.0,0.0,0.0,0.018165344,-0.10209732,0.51839787,-0.17926604,-0.1100739,-0.48067617,-0.24580969,-0.11621049,-0.5174933,-0.20778185,0.09844896,-0.48148832,0.26591322,-0.062009655,0.048884645,0.036991034,0.050427366,0.00812806,0.03417605,0.00012411454,-0.013788755,0.00050161243,-0.052471936,-0.03429544,0.052583944,-1.0,1.0,-1.0,-1.0,-1.0,-1.0,-1.0,-1.0,-1.0,1.0,-1.0,1.0,-1.0,1.0,-1.0,-1.0,-1.0,-1.0,-1.0,-1.0,-1.0,1.0,-1.0,1.0
2025-06-04 14:35:34.182,0.035236135,-0.07810582,-0.009409103,0.09760251,0.008521242,0.03667999,0.0,0.0,0.0,0.018414913,-0.096047446,0.51625633,-0.1835948,-0.104080945,-0.49815914,-0.22268304,-0.11375531,-0.5181803,-0.20808743,0.0950684,-0.47517076,0.2553595,0.009113658,0.021650689,0.0045849592,0.026638094,0.033658516,0.047259185,0.02521073,-0.04542774,-0.05389522,-0.0047228322,-0.043640777,-0.035269678,-1.0,1.0,-1.0,-1.0,-1.0,-1.0,-1.0,-1.0,-1.0,1.0,-1.0,1.0,-1.0,1.0,-1.0,-1.0,-1.0,-1.0,-1.0,-1.0,-1.0,1.0,-1.0,1.0
2025-06-04 14:35:34.200,0.01621625,-0.05961376,0.052784253,0.043806758,0.03223313,-0.033326298,0.0,0.0,0.0,0.018068196,-0.10249114,0.49906987,-0.18117547,-0.10644865,-0.4930751,-0.21762785,-0.11898194,-0.52829766,-0.20106919,0.09260816,-0.46866292,0.2537205,0.044288613,-0.011622797,0.0061005866,0.049976993,-0.012782985,-0.043633647,0.04966186,0.012786229,-0.0013854314,-0.039416585,-0.05833739,-0.051766176,-1.0,1.0,-1.0,-1.0,-1.0,-1.0,-1.0,-1.0,-1.0,1.0,-1.0,1.0,-1.0,1.0,-1.0,-1.0,1.0,-1.0,-1.0,-1.0,-1.0,1.0,-1.0,1.0
2025-06-04 14:35:34.221,-0.0030038932,0.1023843,-0.033924405,0.055125922,-0.0011463001,-0.04077679,0.0,0.0,0.0,0.017300274,-0.11077746,0.5067374,-0.18003322,-0.09212553,-0.48621067,-0.23755345,-0.122024596,-0.5312154,-0.19215856,0.090501875,-0.47322497,0.26549667,0.013225481,0.03273983,0.06317871,0.03202798,-0.005170783,-0.11599575,-0.0688271,0.013017666,0.06441264,0.050533127,0.04852369,0.066059455,-1.0,1.0,-1.0,-1.0,1.0,-1.0,-1.0,-1.0,-1.0,1.0,-1.0,1.0,-1.0,1.0,-1.0,-1.0,-1.0,-1.0,-1.0,-1.0,-1.0,1.0,-1.0,1.0
2025-06-04 14:35:34.241,-0.047493566,-0.071508884,-0.011898992,0.061641898,-0.05740296,-0.034327503,0.0,0.0,0.0,0.01714561,-0.09934033,0.5144026,-0.1830701,-0.10130005,-0.47553393,-0.2398134,-0.12044321,-0.5231067,-0.20276535,0.09510588,-0.46428758,0.25871778,-0.010371884,0.051072504,0.04426135,0.047658328,0.004123116,-0.02525937,-0.015879083,0.0413877,-0.025465555,0.04029761,-0.028493986,-0.05542375,-1.0,1.0,-1.0,-1.0,-1.0,-1.0,-1.0,-1.0,-1.0,1.0,-1.0,1.0,-1.0,1.0,-1.0,-1.0,-1.0,-1.0,-1.0,-1.0,-1.0,1.0,-1.0,1.0
2025-06-04 14:35:34.263,0.013889505,-0.027212776,-0.029951146,0.113665834,-0.030879145,0.02670885,0.0,0.0,0.0,0.017565114,-0.092782706,0.51198816,-0.18061073,-0.09771259,-0.4814962,-0.22684394,-0.118622504,-0.52900696,-0.19740021,0.09728865,-0.4646236,0.26405573,-0.006200944,0.053883955,-0.052965254,-0.056390677,-0.07934772,0.008778852,0.057643224,-0.03437534,0.07015118,-0.051969588,0.06828136,-0.051928867,-1.0,1.0,-1.0,-1.0,-1.0,-1.0,-1.0,-1.0,-1.0,1.0,-1.0,1.0,-1.0,1.0,-1.0,-1.0,-1.0,-1.0,-1.0,-1.0,-1.0,1.0,-1.0,1.0
2025-06-04 14:35:34.282,0.020748325,-0.057936113,-0.009057043,0.09686896,0.046894103,0.015869163,0.0,0.0,0.0,0.017700557,-0.10320091,0.50993335,-0.18501323,-0.08917306,-0.49311286,-0.21652785,-0.1182132,-0.52103025,-0.20087807,0.0832683,-0.47767863,0.26638493,0.014362654,0.0007424091,-0.029612668,-0.023889959,-0.04023965,0.04498887,0.06842298,-0.010667819,-0.011122704,0.06633123,-0.022943256,-0.07499314,-1.0,1.0,-1.0,-1.0,-1.0,-1.0,-1.0,-1.0,-1.0,1.0,-1.0,1.0,-1.0,1.0,-1.0,-1.0,-1.0,-1.0,-1.0,-1.0,-1.0,1.0,-1.0,1.0
2025-06-04 14:35:34.301,-0.035132978,-0.11758986,0.025780095,0.06277978,0.052289706,-0.0058600595,0.0,0.0,0.0,0.017351484,-0.10094043,0.49643588,-0.165806,-0.09803585,-0.50688744,-0.22133254,-0.108941235,-0.53190744,-0.207619,0.09655223,-0.47127306,0.26126492,-0.038627464,-0.05997384,-0.06733321,-0.04331997,-0.0016700281,-0.025909526,-0.05186605,-0.019320156,-0.0072613866,0.04790544,0.045140896,-0.060924336,-1.0,1.0,-1.0,-1.0,-1.0,-1.0,-1.0,-1.0,-1.0,1.0,-1.0,1.0,-1.0,1.0,-1.0,-1.0,-1.0,-1.0,-1.0,-1.0,-1.0,1.0,-1.0,1.0
2025-06-04 14:35:34.321,0.020012949,-0.15725322,0.07895165,0.043556962,0.003910181,0.035491508,0.0,0.0,0.0,0.016658178,-0.09221885,0.49521637,-0.16785623,-0.09831237,-0.52276003,-0.19970156,-0.12401457,-0.5320771,-0.20579359,0.08900406,-0.48171726,0.26341316,0.00648653,0.049834937,0.065852195,0.042835407,0.03362755,-0.0041812602,-0.0029488904,-0.028897665,-0.0057702805,0.017867949,-0.03772339,0.07064617,-1.0,1.0,-1.0,-1.0,-1.0,-1.0,-1.0,-1.0,-1.0,1.0,-1.0,1.0,-1.0,1.0,-1.0,-1.0,1.0,-1.0,-1.0,-1.0,-1.0,1.0,-1.0,1.0
2025-06-04 14:35:34.340,-0.0006173659,0.13051979,-0.0065208566,0.064917356,-0.010652635,0.0030418937,0.0,0.0,0.0,0.015787646,-0.08929875,0.4978695,-0.17421661,-0.10348459,-0.5196906,-0.22189678,-0.13095142,-0.5222081,-0.20482083,0.08603831,-0.46502388,0.26419947,0.054012507,0.020331666,0.04633809,-0.0042254855,0.041404832,-0.050179742,-0.0010743818,0.025147527,0.0041283313,-0.020119132,0.03342965,0.06440044,-1.0,1.0,-1.0,-1.0,1.0,-1.0,-1.0,-1.0,-1.0,1.0,-1.0,1.0,-1.0,1.0,-1.0,-1.0,-1.0,-1.0,-1.0,-1.0,-1.0,1.0,-1.0,1.0
2025-06-04 14:35:34.363,0.04360284,-0.013853578,-0.06797149,0.060717776,-0.020066656,-0.040414643,0.0,0.0,0.0,0.015643734,-0.10626835,0.4978884,-0.1807172,-0.098672554,-0.50865465,-0.22321373,-0.12157448,-0.516789,-0.20172325,0.07851541,-0.46597785,0.26142168,0.03208361,0.022823833,0.04811637,-0.031426366,-0.05177122,-0.005750079,0.012511864,-0.016796775,0.020448927,-0.013151001,-0.0751373,0.055229902,-1.0,1.0,-1.0,-1.0,-1.0,-1.0,-1.0,-1.0,-1.0,1.0,-1.0,1.0,-1.0,1.0,-1.0,-1.0,-1.0,-1.0,-1.0,-1.0,-1.0,1.0,-1.0,1.0
2025-06-04 14:35:34.383,-0.051569473,-0.09306895,0.004396798,0.05135943,0.0062999586,0.039885033,0.0,0.0,0.0,0.016173422,-0.100232616,0.5002907,-0.18076965,-0.09271731,-0.5236216,-0.21221115,-0.1335108,-0.5332347,-0.21826054,0.09591121,-0.47868118,0.2660576,-0.070677936,-0.07252904,0.024896078,0.017040005,-0.050660554,-0.045451477,0.038853407,-0.04158951,-0.043301407,-0.03770782,-0.017293712,-0.004374304,-1.0,1.0,-1.0,-1.0,-1.0,-1.0,-1.0,-1.0,-1.0,1.0,-1.0,1.0,-1.0,1.0,-1.0,-1.0,-1.0,-1.0,-1.0,-1.0,-1.0,1.0,-1.0,1.0
2025-06-04 14:35:34.402,-0.023062337,-0.092750095,0.038980205,0.056140687,0.02029703,0.046945956,0.0,0.0,0.0,0.016445765,-0.09736018,0.5011332,-0.18407497,-0.099160075,-0.5374504,-0.22119315,-0.11852642,-0.5175163,-0.21319772,0.08724848,-0.46239877,0.25803778,0.031983655,0.051930252,0.048134636,-0.011594463,0.031592656,-0.033372995,-0.02210921,0.04565168,0.02885426,-0.04988352,0.009440053,0.05809438,-1.0,1.0,-1.0,-1.0,-1.0,-1.0,-1.0,-1.0,-1.0,1.0,-1.0,1.0,-1.0,1.0,-1.0,-1.0,-1.0,-1.0,-1.0,-1.0,-1.0,1.0,-1.0,1.0
2025-06-04 14:35:34.421,-0.06556051,-0.1417836,0.044624835,0.115159675,0.02808737,0.002015421,0.0,0.0,0.0,0.016231174,-0.08333565,0.4980141,-0.1844193,-0.10274289,-0.53322774,-0.1998866,-0.12745157,-0.5341622,-0.20762092,0.09579397,-0.47529113,0.2516359,0.070081435,-0.007162116,-0.039544184,0.03755241,-0.102149524,0.07993202,0.030986242,-0.06564892,-0.007836717,0.015091041,-0.058366798,0.011231507,-1.0,1.0,-1.0,-1.0,-1.0,-1.0,-1.0,-1.0,-1.0,1.0,-1.0,1.0,-1.0,1.0,-1.0,-1.0,1.0,-1.0,-1.0,-1.0,-1.0,1.0,-1.0,1.0
2025-06-04 14:35:34.441,-0.012476739,0.12548271,-0.057727166,0.10677202,-0.023108141,-0.03344854,0.0,0.0,0.0,0.015657697,-0.105099656,0.4847709,-0.19004485,-0.113182954,-0.52612376,-0.21245633,-0.12825334,-0.5215435,-0.20592408,0.08036917,-0.4715096,0.2538385,0.015011538,-0.05233624,0.053018175,0.052099988,0.10164517,-0.073886685,0.029162427,-0.04582407,-0.016215792,0.040830996,-0.016786654,0.046185087,-1.0,1.0,-1.0,-1.0,1.0,-1.0,-1.0,-1.0,-1.0,1.0,-1.0,1.0,-1.0,1.0,-1.0,-1.0,-1.0,-1.0,-1.0,-1.0,-1.0,1.0,-1.0,1.0
2025-06-04 14:35:34.465,0.008385985,-0.032793183,-0.0012106326,0.050398853,0.01870181,0.029287452,0.0,0.0,0.0,0.015632851,-0.09605146,0.504612,-0.1770251,-0.09812439,-0.52096033,-0.2221088,-0.12348031,-0.5317534,-0.2273869,0.093715906,-0.47460273,0.26586038,-0.037663244,0.01528637,-0.011977703,0.013883444,-0.029642679,-0.061055154,-0.04163407,-0.0113333855,-0.01246676,-0.029867964,-0.004099519,0.074362025,-1.0,1.0,-1.0,-1.0,-1.0,-1.0,-1.0,-1.0,-1.0,1.0,-1.0,1.0,-1.0,1.0,-1.0,-1.0,-1.0,-1.0,-1.0,-1.0,-1.0,1.0,-1.0,1.0
2025-06-04 14:35:34.482,-0.057386886,0.01223744,-0.03562542,0.13314612,0.032384597,0.0023159285,0.0,0.0,0.0,0.016185652,-0.10748502,0.4865713,-0.19133784,-0.10767725,-0.5191994,-0.22627626,-0.118592836,-0.51603675,-0.22845516,0.091258734,-0.4700247,0.2576001,0.063819826,0.06453476,0.023642797,-0.046509646,0.00865464,-0.0561823,-0.045386262,-0.07635454,0.003377397,-0.060691938,-0.05200789,0.032827396,-1.0,1.0,-1.0,-1.0,-1.0,-1.0,-1.0,-1.0,-1.0,1.0,-1.0,1.0,-1.0,1.0,-1.0,-1.0,-1.0,-1.0,-1.0,-1.0,-1.0,1.0,-1.0,1.0
2025-06-04 14:35:34.501,0.036633942,-0.06137829,0.066827044,0.12984341,0.04905227,-0.035611235,0.0,0.0,0.0,0.016446538,-0.10400377,0.49238488,-0.17570439,-0.108045384,-0.53755724,-0.22309116,-0.12918317,-0.52008045,-0.21518613,0.08679152,-0.46864328,0.26315817,0.03528151,-0.032844957,-0.058412645,-0.04452412,-0.025342098,-0.050280765,-0.020210564,0.064329274,0.041915588,-0.040911682,0.026842143,0.0057019526,-1.0,1.0,-1.0,-1.0,-1.0,-1.0,-1.0,-1.0,-1.0,1.0,-1.0,1.0,-1.0,1.0,-1.0,-1.0,1.0,-1.0,-1.0,-1.0,-1.0,1.0,-1.0,1.0
2025-06-04 14:35:34.521,0.03778303,0.21578334,0.004585676,0.05091065,0.041371763,0.03694026,0.0,0.0,0.0,0.016214151,-0.110093504,0.4896769,-0.19073018,-0.10133289,-0.5057367,-0.21607408,-0.13465515,-0.5315939,-0.21635087,0.083930396,-0.46028784,0.25107712,0.019611284,-0.00014024322,-0.0075880643,0.05552352,0.09153934,-0.0668046,-0.066233374,0.03267092,0.044457998,-0.052095667,0.051909167,0.048027877,-1.0,1.0,-1.0,-1.0,1.0,-1.0,-1.0,-1.0,-1.0,1.0,-1.0,1.0,-1.0,1.0,-1.0,-1.0,-1.0,-1.0,-1.0,-1.0,-1.0,1.0,-1.0,1.0
2025-06-04 14:35:34.541,-0.019904485,0.03181175,-0.013150497,0.06629543,-0.03487926,0.00096861646,0.0,0.0,0.0,0.016345281,-0.113133125,0.49374834,-0.1776427,-0.1031521,-0.5051983,-0.22693986,-0.12996173,-0.5226612,-0.22668569,0.083202526,-0.47906977,0.25871164,0.015424433,-0.042776123,-0.023102213,0.07157302,0.05194293,0.020718293,0.02775712,-0.059095368,-0.017951718,0.04530868,0.011576813,0.024676217,-1.0,1.0,-1.0,-1.0,-1.0,-1.0,-1.0,-1.0,-1.0,1.0,-1.0,1.0,-1.0,1.0,-1.0,-1.0,-1.0,-1.0,-1.0,-1.0,-1.0,1.0,-1.0,1.0
2025-06-04 14:35:34.565,0.0011280709,-0.047457512,0.020757562,0.11496672,-0.003716316,-0.012518819,0.0,0.0,0.0,0.016907439,-0.10737501,0.5078971,-0.18084079,-0.09611688,-0.5125692,-0.2296862,-0.11255683,-0.5309163,-0.21426694,0.07972306,-0.47382024,0.2518574,0.06228536,0.067727216,0.0010697552,0.026484648,0.032463882,-0.012073912,-0.05766483,-0.053701635,0.019443044,0.063095726,0.017618075,0.03080511,-1.0,1.0,-1.0,-1.0,-1.0,-1.0,-1.0,-1.0,-1.0,1.0,-1.0,1.0,-1.0,1.0,-1.0,-1.0,-1.0,-1.0,-1.0,-1.0,-1.0,1.0,-1.0,1.0
2025-06-04 14:35:34.582,0.011343594,-0.07636266,-0.0121040605,0.034366854,0.052774273,-0.025402281,0.0,0.0,0.0,0.01711602,-0.10903719,0.49034217,-0.18781869,-0.109430514,-0.5174864,-0.2268601,-0.12873855,-0.5204443,-0.22272174,0.09163542,-0.48053557,0.26866052,-0.061354857,0.0337668,0.0257189,0.075027786,-0.05125017,-0.04962995,-0.0381782,-0.0065897433,0.056900498,0.026121244,0.06897504,-0.060609326,-1.0,1.0,-1.0,-1.0,-1.0,-1.0,-1.0,-1.0,-1.0,1.0,-1.0,1.0,-1.0,1.0,-1.0,-1.0,-1.0,-1.0,-1.0,-1.0,-1.0,1.0,-1.0,1.0
2025-06-04 14:35:34.601,-0.010019914,-0.101833045,0.06375359,0.12766881,-0.007391227,-0.009991888,0.0,0.0,0.0,0.016803268,-0.10543061,0.48755467,-0.17893551,-0.10649281,-0.518673,-0.21932803,-0.12341607,-0.5249863,-0.20738956,0.090258,-0.4799952,0.26220417,0.012406884,0.01428705,-0.0012510269,0.067083426,-0.067662746,-0.009297967,0.04693174,-0.027731432,0.05046322,-0.047245756,-0.04777459,-0.060563285,-1.0,1.0,-1.0,-1.0,-1.0,-1.0,-1.0,-1.0,-1.0,1.0,-1.0,1.0,-1.0,1.0,-1.0,-1.0,1.0,-1.0,-1.0,-1.0,-1.0,1.0,-1.0,1.0
2025-06-04 14:35:34.622,0.07713462,0.13177167,-0.041167554,0.10899701,0.02198693,-0.032632276,0.0,0.0,0.0,0.016131239,-0.09161147,0.49288613,-0.17226204,-0.104719274,-0.50503945,-0.22737741,-0.1225771,-0.5273309,-0.22195427,0.08442952,-0.46451426,0.2514412,0.00791848,0.0032095625,0.07009485,0.029661119,0.1392658,-0.0960181,0.006418561,0.07800645,-0.029324684,0.02770547,-0.025657231,-0.02882344,-1.0,1.0,-1.0,-1.0,1.0,-1.0,-1.0,-1.0,-1.0,1.0,-1.0,1.0,-1.0,1.0,-1.0,-1.0,-1.0,-1.0,-1.0,-1.0,-1.0,1.0,-1.0,1.0
2025-06-04 14:35:34.642,0.05257608,-0.0080860825,-0.03946483,0.08461759,0.015131144,0.023259347,0.0,0.0,0.0,0.016047684,-0.09634044,0.4934472,-0.1810464,-0.09503357,-0.5011706,-0.2244062,-0.11676585,-0.5280583,-0.21404532,0.07848755,-0.4660145,0.25796655,-0.047318082,0.01831328,0.06465843,-0.012018817,0.059940066,0.041488264,-0.063334726,-0.013903718,0.014897258,0.04290727,0.013541951,0.038460024,-1.0,1.0,-1.0,-1.0,-1.0,-1.0,-1.0,-1.0,-1.0,1.0,-1.0,1.0,-1.0,1.0,-1.0,-1.0,-1.0,-1.0,-1.0,-1.0,-1.0,1.0,-1.0,1.0
2025-06-04 14:35:34.665,0.015678858,-0.056520466,-0.017142868,0.088162206,-0.024946436,0.03301632,0.0,0.0,0.0,0.016552698,-0.102192275,0.50354207,-0.1841034,-0.10793165,-0.51516646,-0.22635502,-0.12988238,-0.5175294,-0.22079314,0.09392321,-0.4660597,0.2547087,-0.011246276,-0.034299612,0.00619827,0.008164148,0.053852264,0.08096501,0.07565119,0.057231676,-0.0124302935,-0.024922887,-0.05733328,0.00036608143,-1.0,1.0,-1.0,-1.0,-1.0,-1.0,-1.0,-1.0,-1.0,1.0,-1.0,1.0,-1.0,1.0,-1.0,-1.0,-1.0,-1.0,-1.0,-1.0,-1.0,1.0,-1.0,1.0
2025-06-04 14:35:34.682,-0.014089321,-0.05383861,0.038802993,0.061583664,-0.018634615,-0.020550128,0.0,0.0,0.0,0.01676577,-0.091083735,0.5077239,-0.17228463,-0.09356935,-0.5247343,-0.22373436,-0.1208313,-0.5337557,-0.21353513,0.082152605,-0.47682458,0.27143818,-0.008337391,0.03652824,-0.013189871,0.07662296,0.036952123,-0.004708845,0.005663346,-0.041458204,-0.037834153,0.004968484,-0.00569099,-0.005405281,-1.0,1.0,-1.0,-1.0,-1.0,-1.0,-1.0,-1.0,-1.0,1.0,-1.0,1.0,-1.0,1.0,-1.0,-1.0,1.0,-1.0,-1.0,-1.0,-1.0,1.0,-1.0,1.0
2025-06-04 14:35:34.702,0.044664674,0.17230009,0.015830006,0.123582214,0.010778912,-0.0023899223,0.0,0.0,0.0,0.016489329,-0.108509295,0.49537137,-0.1855208,-0.099154286,-0.49628982,-0.22130205,-0.122368015,-0.5205301,-0.20510879,0.07778492,-0.4667582,0.26484576,-0.08324915,-0.06555579,-0.06703851,-0.03813288,0.04398131,-0.07711901,-0.06792349,0.035873145,-0.06660898,-0.056186292,0.043072816,-0.051058076,-1.0,1.0,-1.0,-1.0,1.0,-1.0,-1.0,-1.0,-1.0,1.0,-1.0,1.0,-1.0,1.0,-1.0,-1.0,-1.0,-1.0,-1.0,-1.0,-1.0,1.0,-1.0,1.0
2025-06-04 14:35:34.723,-0.030046895,-0.016131058,0.013559458,0.046750426,0.0058389218,0.04997558,0.0,0.0,0.0,0.01660446,-0.10870241,0.5121967,-0.17738497,-0.100644514,-0.49609044,-0.22355412,-0.11890084,-0.5126054,-0.21334316,0.09015671,-0.4795171,0.25593433,0.034196716,0.061745826,-0.023597017,0.059537396,-0.016410246,-0.070216544,0.030842163,0.079996094,-0.01979,-0.058523227,0.054251686,0.035797097,-1.0,1.0,-1.0,-1.0,-1.0,-1.0,-1.0,-1.0,-1.0,1.0,-1.0,1.0,-1.0,1.0,-1.0,-1.0,-1.0,-1.0,-1.0,-1.0,-1.0,1.0,-1.0,1.0
2025-06-04 14:35:34.742,-0.028021956,0.018319096,0.014339634,0.12587407,-0.049758386,0.034171652,0.0,0.0,0.0,0.01714591,-0.11211866,0.4993901,-0.18746123,-0.1081832,-0.50116616,-0.2292256,-0.12504004,-0.527626,-0.20458804,0.090683706,-0.48050433,0.25255385,0.06861469,0.03018524,0.047318194,0.04700583,-0.026610084,-0.04251789,0.05645144,0.043803215,-0.026287815,-0.058112208,0.024021333,-0.07042482,-1.0,1.0,-1.0,-1.0,-1.0,-1.0,-1.0,-1.0,-1.0,1.0,-1.0,1.0,-1.0,1.0,-1.0,-1.0,-1.0,-1.0,-1.0,-1.0,-1.0,1.0,-1.0,1.0
2025-06-04 14:35:34.765,-0.020112855,-0.0571164,-0.01835494,0.122332804,0.00783982,0.009530848,0.0,0.0,0.0,0.017355902,-0.09777632,0.51316816,-0.18034247,-0.10572832,-0.50245935,-0.22521324,-0.114011474,-0.51826715,-0.20249437,0.09832838,-0.46282166,0.2711469,-0.022454897,-0.05597989,0.03232865,0.037838005,0.032737847,-0.02100615,-0.03238801,0.03773661,-0.009059817,0.05980563,0.072085224,0.0073503666,-1.0,1.0,-1.0,-1.0,-1.0,-1.0,-1.0,-1.0,-1.0,1.0,-1.0,1.0,-1.0,1.0,-1.0,-1.0,-1.0,-1.0,-1.0,-1.0,-1.0,1.0,-1.0,1.0
2025-06-04 14:35:34.782,-0.055626772,-0.100038,0.038873,0.03891974,-0.020686727,-0.0436511,0.0,0.0,0.0,0.017038357,-0.087450236,0.5015514,-0.17442814,-0.085994095,-0.52191913,-0.21000877,-0.12210762,-0.5193523,-0.20759183,0.09138507,-0.47193545,0.26897985,0.004735164,0.059275694,-0.027708398,0.025375014,-0.06108367,-0.00880434,0.06631265,-0.025037583,0.057126738,0.05178597,-0.046847794,0.023394475,-1.0,1.0,-1.0,-1.0,-1.0,-1.0,-1.0,-1.0,-1.0,1.0,-1.0,1.0,-1.0,1.0,-1.0,-1.0,-1.0,-1.0,-1.0,-1.0,-1.0,1.0,-1.0,1.0
2025-06-04 14:35:34.802,-0.02284763,-0.14887793,0.08166752,0.10215045,0.021859929,0.046344187,0.0,0.0,0.0,0.016352452,-0.10153039,0.4893416,-0.1834262,-0.08613006,-0.5267019,-0.20255698,-0.12984587,-0.5260013,-0.20608371,0.08233354,-0.47888693,0.26340047,0.026765529,-0.06435684,0.054240987,-0.011066297,-0.09288826,-0.02892834,-0.06932496,0.047962554,0.055807985,0.045454785,0.05505456,0.042231325,-1.0,1.0,-1.0,-1.0,-1.0,-1.0,-1.0,-1.0,-1.0,1.0,-1.0,1.0,-1.0,1.0,-1.0,-1.0,1.0,-1.0,-1.0,-1.0,-1.0,1.0,-1.0,1.0
2025-06-04 14:35:34.822,0.02432668,0.13718574,-0.05924645,0.03781961,0.020028293,-0.01718709,0.0,0.0,0.0,0.015485462,-0.09432732,0.49969673,-0.16895218,-0.09895487,-0.52131546,-0.21324976,-0.1229434,-0.5247012,-0.20321725,0.0745733,-0.4645353,0.2691348,-0.025935411,0.0401863,0.053277493,-0.051764205,0.07654303,-0.10119978,0.01542034,-0.049915474,0.05259179,-0.08030785,-0.009695694,0.059298605,-1.0,1.0,-1.0,-1.0,1.0,-1.0,-1.0,-1.0,-1.0,1.0,-1.0,1.0,-1.0,1.0,-1.0,-1.0,-1.0,-1.0,-1.0,-1.0,-1.0,1.0,-1.0,1.0
2025-06-04 14:35:34.842,0.04209923,-0.051976133,-0.058164388,0.044566218,-0.021693237,-0.022076411,0.0,0.0,0.0,0.015342741,-0.10291532,0.501356,-0.17756942,-0.09125991,-0.50790006,-0.2332308,-0.13176057,-0.5273059,-0.2191357,0.09077626,-0.4654268,0.26553738,-0.017375628,0.039876685,0.028445758,0.024817348,0.05460169,0.04187852,-0.06252819,0.049612887,-0.058662556,0.06637953,-0.022490397,0.021067172,-1.0,1.0,-1.0,-1.0,-1.0,-1.0,-1.0,-1.0,-1.0,1.0,-1.0,1.0,-1.0,1.0,-1.0,-1.0,-1.0,-1.0,-1.0,-1.0,-1.0,1.0,-1.0,1.0
2025-06-04 14:35:34.865,0.01278704,-0.03287566,-0.013145151,0.053459425,-0.012048515,0.0033815848,0.0,0.0,0.0,0.01587306,-0.104863174,0.501657,-0.18582833,-0.09630292,-0.5135826,-0.21852018,-0.13261446,-0.5247329,-0.2053335,0.09317632,-0.47909904,0.2547872,0.014317792,-0.0012942642,-0.03444704,0.04769453,0.009730578,-0.06229249,-0.06728771,0.053207777,-0.036095798,-0.01685333,0.06353216,-0.07419474,-1.0,1.0,-1.0,-1.0,-1.0,-1.0,-1.0,-1.0,-1.0,1.0,-1.0,1.0,-1.0,1.0,-1.0,-1.0,-1.0,-1.0,-1.0,-1.0,-1.0,1.0,-1.0,1.0
2025-06-04 14:35:34.883,-0.052800935,-0.06278361,0.022114588,0.04823361,0.039449595,-0.020336352,0.0,0.0,0.0,0.016144384,-0.10261369,0.49619806,-0.17468067,-0.091609746,-0.5296355,-0.21554738,-0.12039714,-0.5288405,-0.21510914,0.09572655,-0.48085654,0.27098635,0.04204174,0.004506503,-0.027285464,0.07670462,-0.052872088,0.07461337,0.052686106,0.05125021,0.065457255,0.028934395,-0.011225317,0.066497006,-1.0,1.0,-1.0,-1.0,-1.0,-1.0,-1.0,-1.0,-1.0,1.0,-1.0,1.0,-1.0,1.0,-1.0,-1.0,-1.0,-1.0,-1.0,-1.0,-1.0,1.0,-1.0,1.0
2025-06-04 14:35:34.903,0.010229499,-0.052571964,0.03534761,0.08155045,0.07387668,-0.007902023,0.0,0.0,0.0,0.01592875,-0.092793055,0.48588264,-0.17117104,-0.09127773,-0.5403453,-0.21460123,-0.12162531,-0.53068787,-0.21426134,0.084302016,-0.46267512,0.26096824,0.06066388,0.04596316,-0.050732415,0.06776403,-0.038308024,-0.0504273,-0.016423184,-0.069772854,0.05861736,-0.024693295,0.04385471,0.029225465,-1.0,1.0,-1.0,-1.0,-1.0,-1.0,-1.0,-1.0,-1.0,1.0,-1.0,1.0,-1.0,1.0,-1.0,-1.0,-1.0,-1.0,-1.0,-1.0,-1.0,1.0,-1.0,1.0
2025-06-04 14:35:34.923,-0.05121962,-0.09643617,0.03910812,0.13930118,0.054525703,0.030566633,0.0,0.0,0.0,0.015355673,-0.08205471,0.48563212,-0.1834778,-0.08764424,-0.55604434,-0.20772669,-0.12623033,-0.5390352,-0.20820735,0.098273076,-0.4693026,0.2635939,0.018448165,-0.06445333,-0.06523536,3.5770452e-05,-0.03129357,-0.04697755,0.017759461,-0.020017095,0.0058222753,-0.0033678834,-0.025895337,-0.009794908,-1.0,1.0,-1.0,-1.0,-1.0,-1.0,-1.0,-1.0,-1.0,1.0,-1.0,1.0,-1.0,1.0,-1.0,-1.0,1.0,-1.0,-1.0,-1.0,-1.0,1.0,-1.0,1.0
2025-06-04 14:35:34.943,-0.0046009785,0.17470072,-0.046825677,0.12330495,0.032672077,-0.023470271,0.0,0.0,0.0,0.014590953,-0.10077024,0.4901661,-0.18221627,-0.09138557,-0.5327817,-0.20928904,-0.13976671,-0.5390977,-0.21228662,0.07581775,-0.46436808,0.2535441,-0.09128478,-0.017351191,0.0028864194,-0.042187423,0.053353265,-0.09424459,0.016313089,-0.010784513,0.053910416,-0.067827895,-0.012337298,-0.047944505,-1.0,1.0,-1.0,-1.0,1.0,-1.0,-1.0,-1.0,-1.0,1.0,-1.0,1.0,-1.0,1.0,-1.0,-1.0,-1.0,-1.0,-1.0,-1.0,-1.0,1.0,-1.0,1.0
2025-06-04 14:35:34.965,-0.028555352,0.02922231,-0.07597795,0.074424066,0.023283284,0.01489941,0.0,0.0,0.0,0.01450966,-0.08812936,0.49704018,-0.17668003,-0.09621851,-0.5248603,-0.2150205,-0.14004584,-0.5193344,-0.22309688,0.09438418,-0.47428808,0.25215638,-0.012239585,0.030232837,0.015423696,0.03450476,0.065114826,-0.048302747,0.034343373,-0.06321058,0.0573139,-0.04552723,0.02290631,0.034908585,-1.0,1.0,-1.0,-1.0,-1.0,-1.0,-1.0,-1.0,-1.0,1.0,-1.0,1.0,-1.0,1.0,-1.0,-1.0,-1.0,-1.0,-1.0,-1.0,-1.0,1.0,-1.0,1.0
2025-06-04 14:35:34.983,-0.03676174,0.016400844,-0.020600323,0.03922348,0.06542385,-0.02918402,0.0,0.0,0.0,0.0150857,-0.09900776,0.49041516,-0.19115259,-0.10589163,-0.5343388,-0.20726702,-0.13793066,-0.5230624,-0.21210095,0.08130241,-0.46167022,0.27015775,-0.026798308,-0.011992575,-0.045075163,-0.026082013,-0.08453146,0.022092314,0.060953565,-0.0019257346,-0.07221256,0.021279436,-0.043958887,0.027672136,-1.0,1.0,-1.0,-1.0,-1.0,-1.0,-1.0,-1.0,-1.0,1.0,-1.0,1.0,-1.0,1.0,-1.0,-1.0,-1.0,-1.0,-1.0,-1.0,-1.0,1.0,-1.0,1.0
2025-06-04 14:35:35.003,-0.017286735,-0.008018078,0.017542662,0.09043252,-0.007769891,-0.021346299,0.0,0.0,0.0,0.015411315,-0.09378995,0.49421746,-0.17758536,-0.08940895,-0.533189,-0.20414275,-0.11881592,-0.5356693,-0.22795177,0.08391663,-0.47222447,0.25956836,0.070284806,0.02105544,-0.056678765,0.039201085,0.0041270736,0.032684427,-0.03531445,-0.01979833,-0.05426824,-0.053363953,0.04419517,-0.07153898,-1.0,1.0,-1.0,-1.0,-1.0,-1.0,-1.0,-1.0,-1.0,1.0,-1.0,1.0,-1.0,1.0,-1.0,-1.0,-1.0,-1.0,-1.0,-1.0,-1.0,1.0,-1.0,1.0
2025-06-04 14:35:35.023,-0.03200548,-0.0689419,0.0470262,0.12019447,0.08044499,-0.039061457,0.0,0.0,0.0,0.015250155,-0.08657368,0.49781626,-0.19350518,-0.094214395,-0.55254406,-0.20585787,-0.12504023,-0.5365532,-0.22671688,0.09470282,-0.47523844,0.25791296,-0.0030126336,-0.022313341,0.036738586,0.06371141,-0.086737126,-0.014001026,-0.001354631,-0.020218795,-0.00092264375,0.05926539,0.011132692,-0.019263351,-1.0,1.0,-1.0,-1.0,-1.0,-1.0,-1.0,-1.0,-1.0,1.0,-1.0,1.0,-1.0,1.0,-1.0,-1.0,1.0,-1.0,-1.0,-1.0,-1.0,1.0,-1.0,1.0
2025-06-04 14:35:35.043,0.06614906,0.14723547,-0.0034053712,0.06311036,0.06656637,-0.043034617,0.0,0.0,0.0,0.014727254,-0.10577235,0.49764803,-0.18224718,-0.101193294,-0.5273289,-0.21674716,-0.12548108,-0.53401667,-0.2165951,0.0746001,-0.47201863,0.25062314,-0.059659954,0.040159278,-0.03340137,-0.07307082,0.0059333593,-0.12155078,-0.074172206,-0.017119449,0.035576973,0.009252889,0.0058345892,-0.02678144,-1.0,1.0,-1.0,-1.0,1.0,-1.0,-1.0,-1.0,-1.0,1.0,-1.0,1.0,-1.0,1.0,-1.0,-1.0,-1.0,-1.0,-1.0,-1.0,-1.0,1.0,-1.0,1.0
2025-06-04 14:35:35.065,0.051176883,0.0490347,-0.03637539,0.08869592,0.064191066,0.024272691,0.0,0.0,0.0,0.014733103,-0.103991374,0.49141708,-0.19061643,-0.10413644,-0.52939934,-0.22897334,-0.13043998,-0.5217957,-0.22192846,0.08221875,-0.4763766,0.2650267,-0.070207074,0.06265394,0.03769239,0.005654084,-0.016244477,0.010236637,0.03610746,-0.024727263,0.02563167,0.051780604,-0.05245017,-0.026220463,-1.0,1.0,-1.0,-1.0,-1.0,-1.0,-1.0,-1.0,-1.0,1.0,-1.0,1.0,-1.0,1.0,-1.0,-1.0,-1.0,-1.0,-1.0,-1.0,-1.0,1.0,-1.0,1.0
2025-06-04 14:35:35.084,-0.046484474,0.0021227947,0.005783427,0.06488709,0.041423783,0.048038214,0.0,0.0,0.0,0.01530937,-0.109700195,0.49039763,-0.1810178,-0.09780171,-0.53329706,-0.22433549,-0.13207135,-0.5142964,-0.23223287,0.08286196,-0.46584186,0.26022348,0.017840719,0.06290746,0.04100929,-0.061294165,-0.08531651,-0.013740939,0.051370297,0.030045643,-0.027976863,0.032509103,0.007057556,-0.059945907,-1.0,1.0,-1.0,-1.0,-1.0,-1.0,-1.0,-1.0,-1.0,1.0,-1.0,1.0,-1.0,1.0,-1.0,-1.0,-1.0,-1.0,-1.0,-1.0,-1.0,1.0,-1.0,1.0
2025-06-04 14:35:35.103,0.009354863,-0.021158868,0.058083534,0.04574316,0.04682479,0.013888111,0.0,0.0,0.0,0.015594117,-0.10705885,0.48605204,-0.17945711,-0.102735505,-0.52656513,-0.20815016,-0.1233151,-0.53744394,-0.22467867,0.08593241,-0.47658116,0.2654333,-0.060477123,-0.030896088,0.077961005,-0.04111993,0.020123687,0.06622027,0.020418908,-0.072257996,-0.06099813,0.070004724,0.015041359,-0.06089685,-1.0,1.0,-1.0,-1.0,-1.0,-1.0,-1.0,-1.0,-1.0,1.0,-1.0,1.0,-1.0,1.0,-1.0,-1.0,1.0,-1.0,-1.0,-1.0,-1.0,1.0,-1.0,1.0
2025-06-04 14:35:35.123,-0.0097840065,0.22591612,-0.031024335,0.061218116,0.00830403,-0.013570202,0.0,0.0,0.0,0.0153852925,-0.09705429,0.50038344,-0.17862377,-0.10607129,-0.52634376,-0.21923238,-0.1375285,-0.53374904,-0.22971465,0.07993607,-0.4589056,0.25925183,-0.06794012,-0.019170735,0.038620945,0.008472395,0.08868688,-0.043786354,0.041597977,-0.04401311,-0.032770284,0.0049884585,-0.03506921,-0.021968508,-1.0,1.0,-1.0,-1.0,1.0,-1.0,-1.0,-1.0,-1.0,1.0,-1.0,1.0,-1.0,1.0,-1.0,-1.0,-1.0,-1.0,-1.0,-1.0,-1.0,1.0,-1.0,1.0
2025-06-04 14:35:35.144,0.008657895,0.042424176,0.0077890432,0.088894345,-0.034315977,-0.03012763,0.0,0.0,0.0,0.015533899,-0.111136176,0.49489024,-0.18889453,-0.10316225,-0.5000442,-0.22787055,-0.1333035,-0.5262226,-0.22148894,0.09637698,-0.4605201,0.26417089,0.0405482,0.07802555,0.018507771,-0.0310499,0.015311852,0.03529013,0.023597796,0.049998075,0.06809561,-0.0644278,0.053190608,-0.010507161,-1.0,1.0,-1.0,-1.0,-1.0,-1.0,-1.0,-1.0,-1.0,1.0,-1.0,1.0,-1.0,1.0,-1.0,-1.0,-1.0,-1.0,-1.0,-1.0,-1.0,1.0,-1.0,1.0
