openverse-orca/OrcaGym/log/simulation_log_20250721_141117.csv
timestamp,sim_time,physics_step,control_step,imu_angle_roll,imu_angle_pitch,imu_angle_yaw,imu_angular_velocity_roll,imu_angular_velocity_pitch,imu_angular_velocity_yaw,imu_acc_x,imu_acc_y,imu_acc_z,fl_joint1_pos,fl_joint1_vel,fl_joint1_torque,fl_joint2_pos,fl_joint2_vel,fl_joint2_torque,fl_joint3_pos,fl_joint3_vel,fl_joint3_torque,fr_joint1_pos,fr_joint1_vel,fr_joint1_torque,fr_joint2_pos,fr_joint2_vel,fr_joint2_torque,fr_joint3_pos,fr_joint3_vel,fr_joint3_torque,hl_joint1_pos,hl_joint1_vel,hl_joint1_torque,hl_joint2_pos,hl_joint2_vel,hl_joint2_torque,hl_joint3_pos,hl_joint3_vel,hl_joint3_torque,hr_joint1_pos,hr_joint1_vel,hr_joint1_torque,hr_joint2_pos,hr_joint2_vel,hr_joint2_torque,hr_joint3_pos,hr_joint3_vel,hr_joint3_torque,fl_force_x,fl_force_y,fl_force_z,fr_force_x,fr_force_y,fr_force_z,hl_force_x,hl_force_y,hl_force_z,hr_force_x,hr_force_y,hr_force_z,fl_hip_action,fl_thigh_action,fl_calf_action,fr_hip_action,fr_thigh_action,fr_calf_action,hl_hip_action,hl_thigh_action,hl_calf_action,hr_hip_action,hr_thigh_action,hr_calf_action
2025-07-21 14:11:18.063,0.0,0,0,0.045924623,0.0025160403,-0.02931733,0.006293732,0.015198264,0.00023418682,0.0,0.0,0.0,0.0,0.0015795938,-0.006883478,-0.008411739,0.0057191285,-0.009733805,0.0030369835,0.007761202,0.0012078922,0.008660926,0.0057505677,0.0028693825,-0.009062696,0.016195675,0.044224955,-0.0619372,-0.05749971,-0.022350118,0.06005966,-0.021914061,-0.015680218,-0.07177015,0.0061693816,-0.0060821557,0.030321939,0.0,0.0,0.0,0.0,0.0,0.0,0.0,0.0,0.0,0.0,0.0,0.0,-0.14753376,-1.292424,-0.24055967,0.047411807,-0.16695191,-0.072081834,1.0118431,0.78567445,0.03762903,-0.30669656,0.20372443,0.15078008
2025-07-21 14:11:18.076,0.02,20,1,0.015071193,0.102155864,-0.005630042,-0.037820384,-0.014882143,-0.024194334,0.0,0.0,0.0,0.0,0.0011377902,-0.013168863,0.0018762782,-0.00013153073,-0.0038539586,0.007167313,0.02277017,0.039712902,0.0038241113,-0.012979236,0.022428703,-0.005368989,-0.06690556,-0.08493813,-0.024678467,0.019258419,-0.085476406,0.051323935,0.11616225,0.12642203,0.031022582,-0.051378865,0.058188904,0.012006822,-0.14753376,-1.292424,-0.24055967,0.047411807,-0.16695191,-0.072081834,1.0118431,0.78567445,0.03762903,-0.30669656,0.20372443,0.15078008,0.1213921,-0.67704725,0.26276135,-0.4312461,0.34939557,-0.23255935,0.94925135,-0.056065954,0.12988749,0.45885396,-0.4382012,0.6554481
2025-07-21 14:11:18.094,0.04,40,2,0.08655386,-0.11652308,0.07057359,0.020424495,-0.019389613,0.019527942,0.0,0.0,0.0,0.0,0.001718699,-0.051068336,-0.0029042826,-0.017081762,0.0027677137,-0.0052038645,0.04536995,0.03808434,-0.0015376692,0.007498906,-0.007435832,0.028675066,0.010274092,-0.044882115,0.03335659,-0.042849388,0.04768366,0.03298665,0.093266405,-0.09700064,-0.03784715,-0.022595728,-0.029530874,0.07323974,0.1213921,-0.67704725,0.26276135,-0.4312461,0.34939557,-0.23255935,0.94925135,-0.056065954,0.12988749,0.45885396,-0.4382012,0.6554481,0.15896933,-0.7960186,0.7118869,-0.26673216,-0.47634104,-0.12281564,0.90127015,1.3238378,0.2042441,-0.19521749,-0.18572734,0.7081606
2025-07-21 14:11:18.114,0.06,60,3,0.08331368,0.02517591,-0.010742913,-0.027734142,-0.04272569,0.016921429,0.0,0.0,0.0,0.0,0.008870027,-0.096299164,0.0071483166,-0.019526768,0.0075891446,-0.009150077,0.05815257,0.0918753,0.01656831,0.004673789,-0.024742637,0.037977498,0.038148046,-0.11855391,0.097418614,-0.01597959,-0.0086435005,-0.016415656,0.016949456,0.12614119,0.006502735,-0.059870347,-0.017240638,0.014205241,0.15896933,-0.7960186,0.7118869,-0.26673216,-0.47634104,-0.12281564,0.90127015,1.3238378,0.2042441,-0.19521749,-0.18572734,0.7081606,-0.2100801,-0.3522071,0.48039445,-0.48455352,-0.37295458,-0.7160392,0.66627586,0.37606114,0.7040451,0.17904697,0.104566514,0.932022
2025-07-21 14:11:18.134,0.08,80,4,0.026620995,0.09551358,-0.009723268,-0.024440626,-0.021034004,-0.006634335,0.0,0.0,0.0,0.0,0.0072864527,-0.121726125,0.010435356,-0.01898552,-0.0263005,-0.038599778,0.07303427,0.113216996,0.022962417,0.008958773,-0.022540342,0.046966255,0.014757163,-0.033243623,-0.0575872,0.0057604425,-0.011985123,-0.05407864,-0.031555712,-0.0065024304,0.108713984,0.06514095,-0.016273215,0.07726277,-0.2100801,-0.3522071,0.48039445,-0.48455352,-0.37295458,-0.7160392,0.66627586,0.37606114,0.7040451,0.17904697,0.104566514,0.932022,-0.026355784,-0.696555,0.38368478,-0.3697674,-0.0895398,-0.16520146,0.46471524,0.44090435,0.95413595,0.18963602,0.120823205,0.44699705
2025-07-21 14:11:18.159,0.1,100,5,0.06631359,0.11920057,0.07919625,-0.035003375,0.0372948,-0.029417893,0.0,0.0,0.0,0.0,-0.0068166167,-0.14682923,0.034861926,-0.039345413,-0.040215667,-0.03505683,0.06728137,0.11369096,0.049787156,0.0030613178,-0.005718115,0.034991194,-0.034209292,-0.13062112,0.038481366,-0.08398832,0.0009088545,-0.05624349,0.060517084,0.049726922,0.040929597,0.066884905,0.050358966,-0.01604357,-0.026355784,-0.696555,0.38368478,-0.3697674,-0.0895398,-0.16520146,0.46471524,0.44090435,0.95413595,0.18963602,0.120823205,0.44699705,0.17134555,0.29492483,0.8507945,-0.3267373,-0.10886439,-0.1063295,0.6052662,0.6362097,0.5832155,0.11870575,-0.16250312,0.20539194
2025-07-21 14:11:18.176,0.12000000000000001,120,6,0.095545754,0.09666556,-0.19221309,0.06570804,0.030004479,-0.012588767,0.0,0.0,0.0,0.0,0.017351009,-0.14227849,0.034495704,-0.04487166,-0.03431031,-0.027173111,0.0806059,0.14362529,0.05866649,-0.002072522,-0.005964429,0.04581587,0.003454389,0.044908576,-0.044115115,-0.055257335,0.0078099556,0.066440985,-0.006283881,0.060598716,0.07380101,-0.0038811886,0.055420976,0.04600922,0.17134555,0.29492483,0.8507945,-0.3267373,-0.10886439,-0.1063295,0.6052662,0.6362097,0.5832155,0.11870575,-0.16250312,0.20539194,-1.267288,-1.369958,0.5271029,-0.25335595,-0.12936948,0.55072474,0.83187467,-0.80656177,0.91928595,1.1151417,0.7792783,0.38186198
2025-07-21 14:11:18.194,0.14,140,7,-0.12040145,-0.012869724,0.25525206,0.049036596,0.058796607,-0.013965715,0.0,0.0,0.0,0.0,-0.0045126243,-0.15948138,0.045575775,-0.034537394,-0.046393532,-0.010877858,0.091599025,0.11202815,0.074360035,0.0161987,0.023956625,0.035351302,-0.12108273,-0.13377275,0.03800231,-0.046699576,-0.0071762223,0.06405938,0.079465136,-0.1716232,-0.012772875,0.11028302,0.071657084,0.045401,-1.267288,-1.369958,0.5271029,-0.25335595,-0.12936948,0.55072474,0.83187467,-0.80656177,0.91928595,1.1151417,0.7792783,0.38186198,0.7486327,0.37031806,0.49288002,-0.1963095,0.26364484,0.32855973,0.731382,1.1434933,0.16372266,-0.9275845,-0.67253864,0.48771107
2025-07-21 14:11:18.214,0.16,160,8,0.10592391,0.11676936,-0.100740194,-0.030928059,0.07412094,0.019314755,0.0,0.0,0.0,0.0,0.024838956,-0.15033549,0.032190796,-0.035591573,-0.015157841,0.00054891536,0.102564156,0.13367003,0.06853942,0.0028427155,0.033576183,0.0467707,0.10447223,0.0666542,-0.04407633,0.020479023,0.02252648,0.09489755,0.06602312,0.060196895,-0.09965685,-0.085036635,-0.085590445,0.009984468,0.7486327,0.37031806,0.49288002,-0.1963095,0.26364484,0.32855973,0.731382,1.1434933,0.16372266,-0.9275845,-0.67253864,0.48771107,-0.60186136,-1.1203964,0.38468495,-0.4802837,-0.17348203,-0.24621052,0.8141397,0.13432199,0.5643627,0.7876862,0.45158443,0.6647917
2025-07-21 14:11:18.234,0.18,180,9,0.028741466,-0.052278243,0.2519043,0.011432877,0.077492855,-0.034340598,0.0,0.0,0.0,0.0,0.007954151,-0.17264085,0.045437776,-0.04804662,-0.030385187,-0.01359894,0.101364605,0.12264732,0.053735852,0.0072410465,0.046947908,0.052309636,-0.11300564,-0.032600176,-0.043067962,-0.026567476,0.047441535,-0.010412327,0.078864954,-0.0023838605,0.042325873,0.010757874,0.12415806,-0.055623688,-0.60186136,-1.1203964,0.38468495,-0.4802837,-0.17348203,-0.24621052,0.8141397,0.13432199,0.5643627,0.7876862,0.45158443,0.6647917,0.55040973,0.3187667,0.49889377,-0.39338246,-0.43075103,-0.214324,0.48736322,0.5568925,-0.26125953,-0.6215357,-1.4411573,0.17288905
2025-07-21 14:11:18.259,0.19999999999999998,200,10,0.0543178,-0.087656215,-0.09096568,0.06396841,0.034894977,0.048139796,0.0,0.0,0.0,0.0,0.0286923,-0.16372755,0.040002525,-0.05610516,-0.05441779,-0.011568542,0.10197039,0.14975601,0.03852187,-0.011826318,0.039522957,0.05033971,0.05261406,0.10789513,-0.025375364,-0.068777494,-0.08514975,-0.026326016,-0.028112711,-0.0002289885,0.014574581,-0.0011850018,-0.029421147,-0.055555694,0.55040973,0.3187667,0.49889377,-0.39338246,-0.43075103,-0.214324,0.48736322,0.5568925,-0.26125953,-0.6215357,-1.4411573,0.17288905,-0.50272506,-1.0493486,0.03579011,-0.61727947,-0.44946045,0.03257799,0.79302794,-0.059861563,0.5768905,0.33997855,-0.19158633,0.61054265
2025-07-21 14:11:18.276,0.21999999999999997,220,11,-0.06120259,-0.116022855,0.1829211,0.024318686,0.052827097,0.016485425,0.0,0.0,0.0,0.0,0.019219792,-0.1810661,0.037740137,-0.063824035,-0.083755724,-0.017644845,0.098894075,0.11181473,0.050960355,-0.011865481,0.022566346,0.055161078,0.015607543,-0.1627097,0.055354763,-0.028778862,0.015226199,0.0693697,-0.004466776,-0.0737023,0.04529368,0.041432153,-0.05725717,0.046738062,-0.50272506,-1.0493486,0.03579011,-0.61727947,-0.44946045,0.03257799,0.79302794,-0.059861563,0.5768905,0.33997855,-0.19158633,0.61054265,0.65149754,0.6501976,0.46991935,-0.4151229,0.25373358,-0.90687454,0.64193064,1.2345197,1.1377273,-0.5732466,-0.052448858,1.1418201
2025-07-21 14:11:18.294,0.23999999999999996,240,12,0.0639089,0.10316032,-0.045227095,0.06293154,-0.011807134,-0.044328894,0.0,0.0,0.0,0.0,0.029699586,-0.18739252,0.021464065,-0.06790187,-0.050944395,-0.035941064,0.106491424,0.15352467,0.07703837,-0.025463752,0.019430194,0.06474322,0.04922408,0.1114285,-0.042480487,0.026154123,0.07806351,-0.070887715,-0.021060448,0.20755228,0.06647617,-0.04611518,0.017316904,0.09526884,0.65149754,0.6501976,0.46991935,-0.4151229,0.25373358,-0.90687454,0.64193064,1.2345197,1.1377273,-0.5732466,-0.052448858,1.1418201,-0.2488534,-0.8695149,0.55251414,-0.5534059,-0.49070388,-0.61655104,0.31911772,-0.8304153,0.44035342,-0.18786292,-0.36521345,0.48027104
2025-07-21 14:11:18.314,0.25999999999999995,260,13,-0.1338487,-0.22977246,0.06910557,0.04449353,-0.013148445,-0.020830998,0.0,0.0,0.0,0.0,0.022170777,-0.18743403,0.026267987,-0.059957683,-0.08085679,-0.042454876,0.102745384,0.14530295,0.068861656,-0.022846218,-0.0093810875,0.06074975,-0.080025606,-0.029708965,0.0561826,0.024258425,-0.08600277,0.03654398,-0.08343822,-0.16227514,0.062252104,-0.031445574,-0.059120473,-0.0033032843,-0.2488534,-0.8695149,0.55251414,-0.5534059,-0.49070388,-0.61655104,0.31911772,-0.8304153,0.44035342,-0.18786292,-0.36521345,0.48027104,0.4503743,0.07536465,0.15307574,-0.26735932,0.5235871,-0.5006045,0.4567054,0.74104595,1.4431963,-0.41085145,-0.1487555,0.959873
2025-07-21 14:11:18.334,0.27999999999999997,280,14,-0.03067256,0.05108067,-0.11795376,0.0049143406,-0.0059053157,-0.01913138,0.0,0.0,0.0,0.0,0.03672658,-0.18126188,0.018033065,-0.054336302,-0.052431636,-0.053613033,0.086388536,0.15368028,0.10276742,-0.04527773,-0.02845859,0.07362275,0.08521605,0.083414786,-0.009365292,0.010406011,0.07224669,-0.042997852,-0.054395333,0.09379077,0.07070412,0.033757783,-0.058321267,-0.029688964,0.4503743,0.07536465,0.15307574,-0.26735932,0.5235871,-0.5006045,0.4567054,0.74104595,1.4431963,-0.41085145,-0.1487555,0.959873,-0.31428975,-1.0251708,0.5885192,-0.30673525,0.021730663,-0.2369811,0.7557877,-0.46147886,1.0445445,0.35789928,1.2432734,0.75092447
2025-07-21 14:11:18.359,0.3,300,15,-0.07231858,0.032828182,0.123104304,0.009038921,0.060785793,0.04428517,0.0,0.0,0.0,0.0,0.025868984,-0.18369392,0.035034962,-0.06617484,-0.020840187,-0.039538223,0.10830714,0.12741616,0.10223882,-0.036802344,0.01657722,0.063255936,0.018311607,-0.068511836,0.012899933,0.0010783941,-0.035510734,0.07546429,0.0011558938,-0.21087013,0.07052585,0.008966347,0.058651086,0.027654031,-0.31428975,-1.0251708,0.5885192,-0.30673525,0.021730663,-0.2369811,0.7557877,-0.46147886,1.0445445,0.35789928,1.2432734,0.75092447,0.34873313,-0.08886284,0.035748787,-0.02716001,-0.10198083,0.58239853,0.2888528,1.6479017,0.943806,-0.47928706,-0.18883385,0.06550599
2025-07-21 14:11:18.376,0.32,320,16,0.06260533,0.14961392,-0.122406915,0.046396058,0.04104383,0.046334967,0.0,0.0,0.0,0.0,0.035876904,-0.16404247,0.019220635,-0.059699506,-0.03817004,-0.04012996,0.0889725,0.11627309,0.12172475,-0.04391049,0.02782537,0.067861855,0.04233431,0.063945785,-0.082617104,0.013540885,-0.066171765,0.08275257,-0.08953478,0.047804467,0.051292572,-0.06250384,-0.064040296,-0.086431205,0.34873313,-0.08886284,0.035748787,-0.02716001,-0.10198083,0.58239853,0.2888528,1.6479017,0.943806,-0.47928706,-0.18883385,0.06550599,-0.33830428,-0.82874095,-0.0043029245,0.05301065,0.23802294,0.27386358,1.0932137,0.23604399,0.9853305,0.33174193,1.1535141,0.32287064
2025-07-21 14:11:18.395,0.34,340,17,0.069516994,0.12102384,0.2109538,0.04381484,0.026601907,-0.008672108,0.0,0.0,0.0,0.0,0.015898492,-0.18945773,0.009535386,-0.041830212,-0.007324455,-0.02114506,0.1172739,0.13089651,0.12285051,-0.027475057,0.0637069,0.063086465,-0.09718981,-0.036335677,-0.014196944,0.078471154,0.008859971,-0.009857976,0.08384576,0.04885814,-0.04682478,0.040651996,0.10141088,-0.08830095,-0.33830428,-0.82874095,-0.0043029245,0.05301065,0.23802294,0.27386358,1.0932137,0.23604399,0.9853305,0.33174193,1.1535141,0.32287064,0.44025996,0.5095421,0.6016387,-0.12178395,-0.5114299,0.13913676,0.34688008,-0.13138875,0.24708244,-0.6145019,-0.6780345,0.25955528
2025-07-21 14:11:18.415,0.36000000000000004,360,18,-0.08201128,-0.1451921,-0.07163528,0.027874645,0.035094295,-0.025193332,0.0,0.0,0.0,0.0,0.0251531,-0.19524959,0.015653979,-0.04480934,-0.021023441,-0.023622071,0.11766766,0.111126885,0.11305618,-0.042650953,0.070111476,0.043699,0.07616056,0.00048386186,0.019499151,0.018255807,-0.0927633,-0.0022237445,0.01554743,-0.08079166,0.03534428,-0.019330364,-0.057756808,0.03217519,0.44025996,0.5095421,0.6016387,-0.12178395,-0.5114299,0.13913676,0.34688008,-0.13138875,0.24708244,-0.6145019,-0.6780345,0.25955528,-0.13366915,-0.18990439,0.1377674,-0.5526924,-0.03757914,-0.2765562,0.7453248,0.5416337,0.79735416,0.5194899,-0.08882742,0.91105473
2025-07-21 14:11:18.435,0.38000000000000006,380,19,0.1118592,-0.0062560537,0.049410205,-0.0013209903,0.022608738,-0.012020919,0.0,0.0,0.0,0.0,0.028704999,-0.1782833,0.007788881,-0.05312031,-0.016488139,-0.026680497,0.10887275,0.12939537,0.111123316,-0.03454349,0.046661943,0.0657975,0.04057538,0.042629078,0.056715336,0.046908557,0.026579795,-0.070674516,0.031777337,0.08874231,-0.029254194,-0.032513384,-0.0053513516,0.031759627,-0.13366915,-0.18990439,0.1377674,-0.5526924,-0.03757914,-0.2765562,0.7453248,0.5416337,0.79735416,0.5194899,-0.08882742,0.91105473,-0.10052441,-0.63067627,0.56789476,-0.5795044,-0.54883265,-0.70599985,0.36891073,0.16384628,0.1537787,0.04912749,-0.34082028,0.38456988
2025-07-21 14:11:18.459,0.4000000000000001,400,20,-0.059245575,-0.14987914,0.033809647,0.054516125,0.044416845,0.04956582,0.0,0.0,0.0,0.0,0.028951535,-0.18474622,0.030171322,-0.06169143,-0.05541986,-0.031916842,0.11140546,0.11769452,0.09378379,-0.028686756,0.024054743,0.07446251,-0.034308836,-0.08046438,-0.03311843,-0.041809853,-0.098895244,0.013351176,0.030535229,-0.068830594,-0.016071405,-0.051781867,-0.08974821,-0.04936328,-0.10052441,-0.63067627,0.56789476,-0.5795044,-0.54883265,-0.70599985,0.36891073,0.16384628,0.1537787,0.04912749,-0.34082028,0.38456988,0.3502384,0.089758515,0.23627587,-0.27140024,0.45014152,-0.44198877,0.55204743,0.88204163,1.0334891,-0.1495674,-0.14224553,0.9167682
2025-07-21 14:11:18.476,0.4200000000000001,420,21,-0.024549568,0.04908433,-0.06326556,0.021992842,0.050493624,-0.03715372,0.0,0.0,0.0,0.0,0.02944018,-0.16532727,0.0145534575,-0.06677437,-0.04339861,-0.03889735,0.110490404,0.14694211,0.11671784,-0.028838307,0.011815911,0.07937676,0.08476104,0.059565462,-0.070864774,0.0767558,0.088524275,0.04479111,-0.033540804,0.07028692,-0.011328296,0.05711224,-0.03526658,0.044026308,0.3502384,0.089758515,0.23627587,-0.27140024,0.45014152,-0.44198877,0.55204743,0.88204163,1.0334891,-0.1495674,-0.14224553,0.9167682,-0.4744206,-1.0668958,0.5575303,-0.36689708,-0.3462551,-0.35768652,0.7209417,-0.012345187,0.5312218,0.35914406,0.7103072,0.56499946
2025-07-21 14:11:18.495,0.4400000000000001,440,22,-0.06446267,0.025363691,0.11565459,-0.026399245,0.04398889,-0.0016586871,0.0,0.0,0.0,0.0,0.03014853,-0.18115965,0.025690237,-0.061003506,-0.04649471,-0.051270913,0.09741658,0.1477186,0.10936945,-0.028643573,0.03636083,0.07363545,-0.11093486,-0.10647972,-0.0021962256,0.035235345,-0.063047096,-0.06335436,-0.005514203,-0.13412651,-0.068299964,0.0146641545,0.11573874,-0.006829974,-0.4744206,-1.0668958,0.5575303,-0.36689708,-0.3462551,-0.35768652,0.7209417,-0.012345187,0.5312218,0.35914406,0.7103072,0.56499946,0.37729937,0.29506832,0.29505816,-0.038385354,0.31052244,0.20702064,0.65069604,1.4668341,0.10583194,-0.28983048,-0.7359363,0.10969026
2025-07-21 14:11:18.515,0.46000000000000013,460,23,-0.008209887,0.12340453,-0.13928734,0.05269975,0.041905124,-0.01609092,0.0,0.0,0.0,0.0,0.024360137,-0.16895038,0.024008453,-0.048790533,-0.026920632,-0.024102816,0.10130058,0.1674649,0.09312435,-0.030075274,0.051875032,0.06823291,-0.002367916,0.086191714,0.0058615566,-0.025216965,0.07108456,0.03114532,-0.019682415,0.12206844,-0.031731386,-0.005006725,-0.044248644,-0.083382905,0.37729937,0.29506832,0.29505816,-0.038385354,0.31052244,0.20702064,0.65069604,1.4668341,0.10583194,-0.28983048,-0.7359363,0.10969026,-0.7363991,-1.3501014,0.37612736,-0.19735263,-0.029153666,-0.32028946,0.84102505,-0.1597681,0.4181102,0.29503062,0.7014734,0.48930576
2025-07-21 14:11:18.535,0.48000000000000015,480,24,-0.07086317,-0.032319203,0.14975771,-0.01663068,0.026376804,0.03437273,0.0,0.0,0.0,0.0,0.02934075,-0.16256087,0.024910416,-0.05063735,-0.009875646,-0.031145321,0.11834653,0.17771055,0.09280355,-0.020370968,0.09221023,0.04833885,-0.045063023,-0.1293294,-0.021945244,0.044806905,0.07624057,-0.07691509,0.004228778,-0.11416246,-0.054069772,0.03491508,0.09836401,0.04671912,-0.7363991,-1.3501014,0.37612736,-0.19735263,-0.029153666,-0.32028946,0.84102505,-0.1597681,0.4181102,0.29503062,0.7014734,0.48930576,0.3356917,0.16310436,0.4164895,-0.19522755,-0.28719032,-0.17753965,0.53749335,1.1067433,0.03912308,-0.33405793,-0.88130456,0.33433193
2025-07-21 14:11:18.559,0.5000000000000001,500,25,0.0505286,0.07293764,-0.18879382,0.05718536,0.07162649,-0.01616812,0.0,0.0,0.0,0.0,0.035585586,-0.17292644,0.01724354,-0.043855414,-0.018346943,-0.033489406,0.10039954,0.18028514,0.06981183,-0.024318155,0.0872271,0.053450994,0.054760195,0.029317286,0.019952472,0.03742338,-0.048257887,-0.026003323,-0.0018377943,0.1414088,-0.04213888,-0.011541885,-0.041446213,-0.053407025,0.3356917,0.16310436,0.4164895,-0.19522755,-0.28719032,-0.17753965,0.53749335,1.1067433,0.03912308,-0.33405793,-0.88130456,0.33433193,-0.81282747,-0.79533845,0.42738184,-0.665586,-0.09499409,-0.39019227,0.71855855,-0.38098308,0.62490624,0.8833182,0.5818557,0.79337406
2025-07-21 14:11:18.576,0.5200000000000001,520,26,-0.02500143,0.011345754,0.21671738,0.013787437,0.008196765,-0.037133314,0.0,0.0,0.0,0.0,0.020482264,-0.17861053,0.024391564,-0.06029826,-0.029319573,-0.0325587,0.10013719,0.17951335,0.08061437,-0.008115785,0.111529544,0.0679936,-0.111091614,-0.030562812,-0.06486757,-0.08213228,-0.038012926,0.035912856,0.0034320997,-0.13239232,-0.044840842,0.07025308,0.07676343,0.01630999,-0.81282747,-0.79533845,0.42738184,-0.665586,-0.09499409,-0.39019227,0.71855855,-0.38098308,0.62490624,0.8833182,0.5818557,0.79337406,0.44291055,0.29779333,0.053476207,-0.113519214,0.08721334,0.05499786,0.331042,0.6841293,0.13860878,-0.73981124,-1.3735335,0.29241383
2025-07-21 14:11:18.595,0.5400000000000001,540,27,0.13306808,0.13003777,-0.050569754,-0.025776716,0.02373146,-0.026042867,0.0,0.0,0.0,0.0,0.040725224,-0.16652471,0.010163331,-0.062048856,-0.025737317,-0.037492223,0.108861074,0.17252883,0.0613556,-0.03182644,0.10442993,0.051610608,-0.022116289,0.06767955,-0.056873642,-0.02717951,0.013263349,0.050491728,-0.069573246,0.097160466,-0.0040438357,-0.019308897,0.027461236,-0.0657374,0.44291055,0.29779333,0.053476207,-0.113519214,0.08721334,0.05499786,0.331042,0.6841293,0.13860878,-0.73981124,-1.3735335,0.29241383,-0.6126626,-0.70292515,0.60525656,-0.49896988,-0.18754919,-0.20738173,0.94942844,-0.242623,0.18157607,0.5908648,-0.3166462,0.023311622
2025-07-21 14:11:18.615,0.5600000000000002,560,28,-0.04479451,-0.21471144,0.085718274,0.010055573,0.053137563,0.028581284,0.0,0.0,0.0,0.0,0.028642997,-0.16744521,0.015853083,-0.06815497,-0.040335283,-0.039645635,0.117119424,0.1328804,0.06110195,-0.019237872,0.081436805,0.05392012,-0.031297524,-0.119001225,0.05641593,-0.020058874,-0.032842457,0.028899139,-0.030590782,-0.13713562,0.051711414,-0.021919414,-0.09328785,0.023145435,-0.6126626,-0.70292515,0.60525656,-0.49896988,-0.18754919,-0.20738173,0.94942844,-0.242623,0.18157607,0.5908648,-0.3166462,0.023311622,0.3185015,0.36572826,0.24929644,-0.25336698,0.29200476,-0.3231932,0.7437269,1.403803,1.0666764,-0.19892174,-0.10454856,0.889905
2025-07-21 14:11:18.638,0.5800000000000002,580,29,0.08627654,0.061202694,-0.09685107,-0.03265923,0.007088869,0.016754761,0.0,0.0,0.0,0.0,0.02804944,-0.16068067,0.012022976,-0.054925267,-0.021975186,-0.049864177,0.11955084,0.16009863,0.07392961,-0.028558156,0.05251576,0.066023715,-0.02673035,0.107945494,0.026347738,-0.04273381,0.016672095,-0.071142934,-0.0318763,0.09845283,-0.0045906245,0.02726846,-0.04256327,0.012485624,0.3185015,0.36572826,0.24929644,-0.25336698,0.29200476,-0.3231932,0.7437269,1.403803,1.0666764,-0.19892174,-0.10454856,0.889905,-0.63194513,-1.1887676,0.49861667,-0.25920945,-0.00762756,-0.15510571,0.8118847,0.021129884,0.5530672,0.5290132,0.42762285,0.4521556
2025-07-21 14:11:18.660,0.6000000000000002,600,30,-0.04953879,-0.0020008553,0.13631895,-0.016650233,0.05415245,0.024379127,0.0,0.0,0.0,0.0,0.020295268,-0.15621038,0.024696741,-0.050343897,-0.013659527,-0.036893893,0.119491495,0.15372542,0.087218404,-0.01625052,0.07363052,0.055329256,0.0057403063,-0.117375575,0.038165417,-0.0049742674,-0.0377679,0.026926666,0.05669706,-0.11611733,0.016343853,0.017052822,0.05115256,0.051987767,-0.63194513,-1.1887676,0.49861667,-0.25920945,-0.00762756,-0.15510571,0.8118847,0.021129884,0.5530672,0.5290132,0.42762285,0.4521556,0.4134838,0.32968777,0.41314808,-0.16239506,0.16589208,0.03889379,0.5910492,1.2877178,0.23022097,-0.43768877,-0.87453765,0.22805852
2025-07-21 14:11:18.677,0.6200000000000002,620,31,0.110352024,0.08191453,-0.15150176,0.049090847,0.04206313,0.011211941,0.0,0.0,0.0,0.0,0.02246928,-0.16313028,0.01880447,-0.045446735,0.008366926,-0.02583003,0.121486135,0.19658019,0.07281528,-0.024761599,0.070910126,0.053718694,0.07946517,0.04910268,-0.007741962,-0.059226386,0.04075463,-0.016632857,-0.025466826,0.24145082,-0.01412741,0.017011011,-0.045008905,0.062366605,0.4134838,0.32968777,0.41314808,-0.16239506,0.16589208,0.03889379,0.5910492,1.2877178,0.23022097,-0.43768877,-0.87453765,0.22805852,-0.88992435,-0.96404415,0.89174694,-0.8243405,-0.41718525,-0.6671455,0.67743665,-0.56725967,0.3394932,0.62985486,0.5102396,0.8566185
2025-07-21 14:11:18.696,0.6400000000000002,640,32,-0.05188563,-0.059237804,0.20178126,-0.03267211,0.026829628,0.0058487053,0.0,0.0,0.0,0.0,0.0101376595,-0.17233741,0.038710095,-0.059160385,-0.01683145,-0.04040383,0.10942042,0.1888956,0.06414728,-0.017309994,0.08303014,0.06541598,-0.004958764,-0.14681411,0.014545375,0.036917694,-0.06124737,-0.09783565,0.025815055,-0.20817222,0.00817256,0.057717115,0.09641645,0.04123782,-0.88992435,-0.96404415,0.89174694,-0.8243405,-0.41718525,-0.6671455,0.67743665,-0.56725967,0.3394932,0.62985486,0.5102396,0.8566185,0.52809864,0.6238886,0.45337912,-0.406824,0.3217038,-0.13982895,0.5720126,1.3389832,0.25736627,-0.65494883,-1.8201896,0.79088736
2025-07-21 14:11:18.716,0.6600000000000003,660,33,0.10295629,0.056727026,-0.14225534,0.03147499,0.014310023,0.042348415,0.0,0.0,0.0,0.0,0.027939776,-0.16303091,0.03654714,-0.07266072,-0.017834123,-0.048091896,0.11150989,0.20206012,0.0664608,-0.038103025,0.07520488,0.06474453,0.055828534,0.10343693,-0.08084559,-0.033929516,0.12947808,-0.038396236,-0.04848783,0.16344965,-0.016549146,-0.0039149784,0.016948838,-0.011841079,0.52809864,0.6238886,0.45337912,-0.406824,0.3217038,-0.13982895,0.5720126,1.3389832,0.25736627,-0.65494883,-1.8201896,0.79088736,-0.65774417,-1.2457973,0.25697878,-0.46238068,-0.75676554,-0.33778793,0.777496,-0.4233369,0.2735591,0.518576,0.4672555,0.4388495
2025-07-21 14:11:18.742,0.6800000000000003,680,34,-0.0630596,-0.07453006,0.11973567,-0.016665863,0.0028593685,0.034143284,0.0,0.0,0.0,0.0,0.009655524,-0.17707077,0.02436659,-0.07490331,-0.04020517,-0.039310176,0.11089252,0.17299992,0.06575337,-0.01630756,0.10613501,0.058170427,-0.030064933,-0.039270468,0.03989066,-0.0033731756,-0.07512135,-0.06970991,0.00066071353,-0.13078569,-0.047162578,-0.020698048,0.08952027,0.03435015,-0.65774417,-1.2457973,0.25697878,-0.46238068,-0.75676554,-0.33778793,0.777496,-0.4233369,0.2735591,0.518576,0.4672555,0.4388495,0.23718916,-0.026396576,0.05780127,-0.055414774,0.060089298,0.07665169,0.4739047,0.76345056,0.32421458,-0.3152687,-1.1262302,0.20237657
2025-07-21 14:11:18.760,0.7000000000000003,700,35,-0.02395885,-0.05216713,-0.10560561,0.026744597,0.08143071,-0.020017905,0.0,0.0,0.0,0.0,0.020319635,-0.17561129,0.030799553,-0.060338166,-0.043821886,-0.035704922,0.10470212,0.16632764,0.054467957,-0.033344217,0.09324281,0.06355417,0.07306858,0.027591571,-0.07418288,0.055948928,0.05583273,0.04606772,-0.0748999,0.069076575,0.01855231,-0.0765565,-0.003749192,0.03391257,0.23718916,-0.026396576,0.05780127,-0.055414774,0.060089298,0.07665169,0.4739047,0.76345056,0.32421458,-0.3152687,-1.1262302,0.20237657,-0.63920206,-0.71115726,0.29605773,-0.62010366,-0.55406314,-0.32273453,0.6866123,-0.47554567,0.58886874,0.7740866,0.50159055,0.49693754
2025-07-21 14:11:18.776,0.7200000000000003,720,36,-0.051027868,-0.12651858,0.14734167,0.008073174,0.07548311,0.04477241,0.0,0.0,0.0,0.0,0.019444052,-0.18609498,0.02804923,-0.06520849,-0.053216983,-0.044993162,0.1154348,0.13246311,0.07623584,-0.018422663,0.106268376,0.06086325,-0.08445322,-0.096257836,-0.012578874,0.005180564,-0.043091822,-0.044421468,-0.009289966,-0.21923174,0.005786373,0.011586004,0.111545,0.066121496,-0.63920206,-0.71115726,0.29605773,-0.62010366,-0.55406314,-0.32273453,0.6866123,-0.47554567,0.58886874,0.7740866,0.50159055,0.49693754,0.46997243,0.25574595,-0.06456462,-0.40542355,0.1114339,0.37628973,0.49504095,1.7243338,0.7062062,-0.3088675,-1.387369,0.5463681
2025-07-21 14:11:18.796,0.7400000000000003,740,37,0.048573732,0.035683114,-0.15572284,0.059101883,0.020245267,-0.035034183,0.0,0.0,0.0,0.0,0.025769329,-0.18339902,0.0025359194,-0.07844957,-0.046404555,-0.025830748,0.114787176,0.13225497,0.05996237,-0.028426498,0.10044814,0.056571826,0.037517954,0.04121218,0.026500266,-0.037643958,0.03611008,0.06742473,0.03907219,0.019456709,0.0141808465,0.023551444,-0.025742237,-0.0051257485,0.46997243,0.25574595,-0.06456462,-0.40542355,0.1114339,0.37628973,0.49504095,1.7243338,0.7062062,-0.3088675,-1.387369,0.5463681,-0.91369194,-0.92510235,0.22228825,-0.10521009,-0.33257714,0.2864681,1.1760185,-0.10697397,0.76206666,0.736007,1.216124,0.54833347
2025-07-21 14:11:18.816,0.7600000000000003,760,38,-0.01643886,-0.04336357,0.13026237,0.006217541,0.064168416,0.01156315,0.0,0.0,0.0,0.0,0.013373509,-0.18278256,0.007977007,-0.060388897,-0.07343438,-0.0042469087,0.12590325,0.11515341,0.075900994,0.0014020815,0.11886051,0.05943131,-0.07082982,-0.06560188,-0.03108007,-0.060762145,0.005394496,0.05332643,0.019402936,-0.023702383,0.031583894,0.08196554,0.110251226,0.056693815,-0.91369194,-0.92510235,0.22228825,-0.10521009,-0.33257714,0.2864681,1.1760185,-0.10697397,0.76206666,0.736007,1.216124,0.54833347,-0.01808701,0.5084337,0.16696045,-0.14902858,-0.17174897,0.20334268,0.12083159,-0.35003033,0.43539932,0.07613808,-1.0180302,0.2176736
2025-07-21 14:11:18.842,0.7800000000000004,780,39,-0.053424895,-0.0903968,0.05646226,-0.012420998,0.072988555,-0.027351385,0.0,0.0,0.0,0.0,0.016343663,-0.18306229,0.00049749773,-0.07102793,-0.06314655,-0.010137587,0.098409034,0.07145111,0.075941585,0.0032776142,0.12586106,0.05379068,-0.0061812513,0.06317554,-0.025526827,0.012132673,-0.05209146,-0.014468548,-0.0297984,-0.16050923,-0.0111378925,-0.056007795,-0.0029479815,0.031995352,-0.01808701,0.5084337,0.16696045,-0.14902858,-0.17174897,0.20334268,0.12083159,-0.35003033,0.43539932,0.07613808,-1.0180302,0.2176736,0.28850287,0.13320416,-0.49230108,-0.29632577,-0.35017285,0.38987893,0.85472804,1.1389261,0.7267967,-0.17485446,-0.4721289,0.56522983
2025-07-21 14:11:18.859,0.8000000000000004,800,40,0.07284308,-0.05362636,-0.17079404,0.06654139,-0.0033320438,-0.032104716,0.0,0.0,0.0,0.0,0.029580738,-0.14028513,-0.01669018,-0.060924858,-0.07306046,-0.00091656344,0.10697993,0.095331,0.0863548,-0.015824778,0.10014306,0.06321004,0.05487031,0.15136269,-0.026933545,0.07154001,-0.06537906,-0.033197906,-0.017065762,0.07601438,0.01749692,0.034235377,-0.15667006,0.08658833,0.28850287,0.13320416,-0.49230108,-0.29632577,-0.35017285,0.38987893,0.85472804,1.1389261,0.7267967,-0.17485446,-0.4721289,0.56522983,-0.37862083,-1.2493997,-0.16728821,-0.20745674,0.17581509,-0.07873124,1.062788,-0.13329533,1.1237239,0.49172187,1.4894459,1.0376669
2025-07-21 14:11:18.879,0.8200000000000004,820,41,0.062118735,-0.046354536,0.123672694,0.00087980676,-0.005973671,0.014778538,0.0,0.0,0.0,0.0,0.024019782,-0.1464266,-0.0238091,-0.054288343,-0.06246985,-0.0026749466,0.1253483,0.07547246,0.08630051,-0.00874625,0.09205352,0.07241231,-0.029121082,-0.101674676,0.039953798,0.0823858,0.07205414,0.0039375103,0.04386032,-0.0049421755,0.06162185,-0.04886136,0.051873792,0.079951875,-0.37862083,-1.2493997,-0.16728821,-0.20745674,0.17581509,-0.07873124,1.062788,-0.13329533,1.1237239,0.49172187,1.4894459,1.0376669,0.12213974,0.22985345,0.42057872,-0.29263204,-0.50947446,-0.018310696,0.32109737,0.14481717,0.3164869,-0.35076195,-0.65636545,0.6073037
2025-07-21 14:11:18.898,0.8400000000000004,840,42,-0.016876902,0.016493717,-0.15573646,0.01740852,-0.034288388,0.03994464,0.0,0.0,0.0,0.0,0.008256262,-0.15993221,-0.020263903,-0.057400275,-0.08446545,-0.003739259,0.107234955,0.07546354,0.08386936,-0.011967025,0.09712014,0.07172296,0.04091487,-0.017244494,0.05144221,0.051984303,-0.0953131,-0.07033637,0.026422258,0.039036512,0.024577478,-0.09144274,-0.15677837,-0.03610276,0.12213974,0.22985345,0.42057872,-0.29263204,-0.50947446,-0.018310696,0.32109737,0.14481717,0.3164869,-0.35076195,-0.65636545,0.6073037,-0.44709522,-0.58330095,0.21762058,-0.5241311,0.4007749,-0.3961525,0.87241644,0.072887935,1.2433035,0.9501081,0.97418445,0.9927224
2025-07-21 14:11:18.918,0.8600000000000004,860,43,0.11565106,0.03119364,0.21159361,0.019232033,0.033326663,-0.04007965,0.0,0.0,0.0,0.0,0.01114863,-0.17236426,-0.011174604,-0.06632256,-0.058825452,-0.019015318,0.12052296,0.06473499,0.10629653,-0.006031769,0.10277192,0.074481964,-0.065171905,-0.004090514,0.052401423,-0.06858431,0.10256318,0.00034516645,0.013009207,0.03387439,-0.014054195,0.056527704,0.07246532,0.003758913,-0.44709522,-0.58330095,0.21762058,-0.5241311,0.4007749,-0.3961525,0.87241644,0.072887935,1.2433035,0.9501081,0.97418445,0.9927224,0.26404572,0.13440967,0.22751443,-0.3241828,-0.7848923,-0.03670782,0.12390906,0.3083913,0.09256705,-0.6545128,-0.8438111,0.35711804
2025-07-21 14:11:18.942,0.8800000000000004,880,44,-0.024506995,-0.036730766,-0.17879912,0.05990992,0.019495854,0.04076955,0.0,0.0,0.0,0.0,0.0073971883,-0.15259919,-0.010163814,-0.05091548,-0.066533044,-0.0014623835,0.108428866,0.07842145,0.0901733,-0.023195056,0.09814923,0.078092635,0.043587197,0.06518448,-0.026147315,-0.026319398,-0.17927085,-0.061020847,-0.11453268,0.057904568,-0.09538124,-0.0583385,-0.08365102,0.01268892,0.26404572,0.13440967,0.22751443,-0.3241828,-0.7848923,-0.03670782,0.12390906,0.3083913,0.09256705,-0.6545128,-0.8438111,0.35711804,-0.44540766,-0.69904923,-0.3386596,-0.2929699,0.25452462,-0.04650235,0.72829443,0.028408445,1.0165728,0.51392305,0.6009601,0.62110424
2025-07-21 14:11:18.959,0.9000000000000005,900,45,-0.016465656,0.010567283,0.13166544,0.06187521,0.04653212,-0.0050068568,0.0,0.0,0.0,0.0,0.0060288915,-0.15354402,-0.009347677,-0.054131094,-0.062944725,-0.0071899095,0.098050214,0.059461076,0.089397706,0.008416608,0.1272082,0.07991844,0.0040658438,-0.069961734,0.0012956642,0.019596132,-0.00954815,-0.028719978,0.05829303,0.029522723,0.04237876,0.04868214,0.0599526,0.015153733,-0.44540766,-0.69904923,-0.3386596,-0.2929699,0.25452462,-0.04650235,0.72829443,0.028408445,1.0165728,0.51392305,0.6009601,0.62110424,0.30369106,0.25908753,0.046596847,-0.11599935,-0.11468037,-0.1436322,0.29375008,0.557414,0.51793057,-0.40781283,-0.65378106,0.28636885
2025-07-21 14:11:18.978,0.9200000000000005,920,46,0.03752307,-0.016068868,-0.19886738,-0.0251589,-0.028428122,-0.045840785,0.0,0.0,0.0,0.0,0.023285922,-0.14995481,-0.012892403,-0.062724955,-0.07093803,-0.02851138,0.08823379,0.095834315,0.09184039,-0.0067139533,0.12286761,0.07537568,0.0462204,0.13644353,0.041296825,-0.009697922,0.067651466,-0.049272086,0.011709794,0.0524641,-0.04433927,-0.08731561,-0.08053359,0.053677592,0.30369106,0.25908753,0.046596847,-0.11599935,-0.11468037,-0.1436322,0.29375008,0.557414,0.51793057,-0.40781283,-0.65378106,0.28636885,-0.54849553,-1.0786939,-0.051181264,-0.0652202,-0.19262458,0.12334597,1.0888978,-0.660317,0.70570636,0.3999502,0.9536141,0.12847301
2025-07-21 14:11:18.998,0.9400000000000005,940,47,-0.034256946,-0.0018617457,0.04934715,0.063747816,-0.011628763,0.04547288,0.0,0.0,0.0,0.0,-0.002477313,-0.16302006,-0.015387445,-0.05970514,-0.06498325,-0.008388142,0.10033728,0.06642185,0.10623244,0.006064938,0.1570641,0.06032818,0.012743287,-0.105567634,0.011118411,-0.010342094,-0.06849204,0.06957004,0.041322716,-0.15724207,-0.019661516,-0.0062942593,0.13761352,-0.045096308,-0.54849553,-1.0786939,-0.051181264,-0.0652202,-0.19262458,0.12334597,1.0888978,-0.660317,0.70570636,0.3999502,0.9536141,0.12847301,0.0636072,0.041982766,-0.5608733,0.028093198,0.52416366,1.1169438,0.16948989,0.60037965,1.3627046,0.052616388,-0.55442464,-0.13856524
2025-07-21 14:11:19.020,0.9600000000000005,960,48,-0.005617258,0.24884424,-0.084990084,0.03257777,0.041384194,0.02794881,0.0,0.0,0.0,0.0,0.0036000249,-0.13098276,-0.026907137,-0.063128434,-0.060225893,0.004289813,0.10764754,0.0858536,0.096809015,-0.0016143695,0.14360219,0.04609406,0.0690891,0.15019298,-0.0333207,-0.05394138,0.108157665,0.06592459,0.03542846,0.07301787,0.004109565,0.053646456,-0.11847629,-0.08514293,0.0636072,0.041982766,-0.5608733,0.028093198,0.52416366,1.1169438,0.16948989,0.60037965,1.3627046,0.052616388,-0.55442464,-0.13856524,-0.15996455,-1.51669,-0.46249816,0.2233393,-0.3055293,0.23326224,0.8498243,-1.1983078,1.0628239,-0.77089375,0.96859795,-1.2268624
2025-07-21 14:11:19.042,0.9800000000000005,980,49,-0.052600287,0.03546961,0.12383668,-0.008602968,0.06393647,0.03426967,0.0,0.0,0.0,0.0,0.010813011,-0.14322388,-0.039314345,-0.061548572,-0.06856424,0.015161452,0.120689444,0.08993462,0.12059268,-0.007423185,0.14908133,0.002879388,0.035887614,-0.081486285,0.030051416,0.07803018,-0.052945107,0.07083306,0.08469251,-0.014999636,-0.0076202587,-0.040820505,0.148764,-0.054090574,-0.15996455,-1.51669,-0.46249816,0.2233393,-0.3055293,0.23326224,0.8498243,-1.1983078,1.0628239,-0.77089375,0.96859795,-1.2268624,0.5125461,0.5049846,-0.122431435,0.25354066,0.11766415,0.79019105,-0.007885182,-0.07213148,0.9452866,-0.5052502,-0.6669827,-0.15309286
2025-07-21 14:11:19.059,1.0000000000000004,1000,50,-0.075932555,0.023431359,-0.050047297,0.046834864,0.008480619,-0.043365672,0.0,0.0,0.0,0.0,0.021537999,-0.13333394,-0.030756997,-0.04281976,-0.059205823,0.020052517,0.11814757,0.0742305,0.12853034,-0.031998,0.14031169,0.009415324,0.059600092,0.06399048,0.00022758618,0.05025948,0.093068615,0.055532943,-0.010403509,-0.055920336,-0.025970042,-0.07195969,-0.18051162,-0.07841477,0.5125461,0.5049846,-0.122431435,0.25354066,0.11766415,0.79019105,-0.007885182,-0.07213148,0.9452866,-0.5052502,-0.6669827,-0.15309286,0.19781606,-0.80194885,-0.4037931,-0.0031239446,-0.42745602,-0.1849365,0.62366796,-0.60037506,0.7330541,-0.69800496,1.1839297,-0.20945752
2025-07-21 14:11:19.079,1.0200000000000005,1020,51,0.020044673,-0.1660195,0.12073629,0.009264539,-0.019999791,0.028363539,0.0,0.0,0.0,0.0,0.010895358,-0.15249401,-0.041176748,-0.044711825,-0.07398137,0.0009896779,0.119454265,0.036306903,0.12298039,-0.049140763,0.118154086,-0.0010986726,0.08414045,-0.1432862,-0.062119674,0.057256088,0.017081575,0.042556256,0.044916388,-0.12273965,-0.03503329,-0.09986942,0.04749092,-0.033035304,0.19781606,-0.80194885,-0.4037931,-0.0031239446,-0.42745602,-0.1849365,0.62366796,-0.60037506,0.7330541,-0.69800496,1.1839297,-0.20945752,0.17220716,0.51663554,-0.39162394,0.26629642,0.049173564,0.13684702,0.22960389,0.8659051,1.062984,-0.2790339,-0.7412569,0.28041887
2025-07-21 14:11:19.099,1.0400000000000005,1040,52,-0.015532402,0.008474902,-0.14770418,-0.02194743,-0.00047301914,-0.02609181,0.0,0.0,0.0,0.0,0.028818395,-0.11505432,-0.0426398,-0.04235931,-0.064327165,-0.0017737052,0.12009563,0.03438445,0.12864996,-0.051403187,0.10599546,-0.00094475696,-0.064985126,0.19323902,-0.04485257,0.010892471,0.00071211014,0.008290442,0.006208554,0.053535722,0.025841892,8.090827e-05,-0.14941314,0.06753025,0.17220716,0.51663554,-0.39162394,0.26629642,0.049173564,0.13684702,0.22960389,0.8659051,1.062984,-0.2790339,-0.7412569,0.28041887,1.8451363e-05,-1.1944265,-0.39365652,0.08322201,0.36912018,0.19502735,0.8794444,-0.7629922,0.7074914,-0.26065218,0.97395855,0.15657717
2025-07-21 14:11:19.121,1.0600000000000005,1060,53,-0.08110109,0.07380816,0.18947823,-0.039549932,-0.01603022,-0.008539094,0.0,0.0,0.0,0.0,0.014959242,-0.09706455,-0.048009325,-0.040775545,-0.035274107,0.006639326,0.11123743,0.02940721,0.11440232,-0.037373096,0.120019354,0.0056168633,-0.045941226,-0.020430876,0.027102416,-0.07625,0.15024619,0.0068332963,0.00418073,-0.09186279,0.03950204,-0.04250466,0.07246433,0.029810095,1.8451363e-05,-1.1944265,-0.39365652,0.08322201,0.36912018,0.19502735,0.8794444,-0.7629922,0.7074914,-0.26065218,0.97395855,0.15657717,0.19837938,-0.34730583,-0.097870626,0.2082995,-0.99422586,0.056747735,-0.00091208704,0.79961437,0.52655816,-0.71535045,-1.1873963,-0.21022964
2025-07-21 14:11:19.143,1.0800000000000005,1080,54,0.0241068,-0.009681611,-0.059294995,0.026132395,0.058418974,-0.034750607,0.0,0.0,0.0,0.0,0.02504837,-0.11308137,-0.05389709,-0.03235428,-0.039584965,0.004093636,0.10088699,0.06257859,0.11105833,-0.06239858,0.096107736,-0.005019478,0.032829154,0.024693439,-0.028439468,-0.032278515,-0.02831866,0.041629795,-0.09033247,0.13509297,0.014818622,-0.08556327,-0.08971741,0.0118719665,0.19837938,-0.34730583,-0.097870626,0.2082995,-0.99422586,0.056747735,-0.00091208704,0.79961437,0.52655816,-0.71535045,-1.1873963,-0.21022964,-0.07868801,-0.44062927,-0.21255982,-0.28477153,0.011140177,-0.5651772,0.50103474,-0.6338417,0.6352809,-0.33014563,0.13983084,0.8059094
2025-07-21 14:11:19.159,1.1000000000000005,1100,55,-0.07429515,0.0050668116,0.14445545,-0.013137396,0.03294384,-0.037530046,0.0,0.0,0.0,0.0,0.022979908,-0.12360844,-0.05161837,-0.036524802,-0.033520382,-0.010482028,0.10016503,0.06567971,0.11525278,-0.045558866,0.0905779,0.016510665,0.047651682,-0.034054372,0.025050525,0.0101136,0.04940625,-0.09817056,0.03975897,-0.00457006,0.057714425,-0.058833353,-0.013860759,0.10226436,-0.07868801,-0.44062927,-0.21255982,-0.28477153,0.011140177,-0.5651772,0.50103474,-0.6338417,0.6352809,-0.33014563,0.13983084,0.8059094,0.31709245,-0.32543683,0.46827808,-0.19168857,-0.17042701,-0.5350432,-0.123382084,0.96181864,0.6713137,-0.3204584,-0.8539717,0.44896442
2025-07-21 14:11:19.179,1.1200000000000006,1120,56,-0.008449648,-0.044206675,-0.14551565,-0.025989344,0.061607655,0.041666135,0.0,0.0,0.0,0.0,0.018167932,-0.12044779,-0.045260973,-0.03346998,-0.04164116,-0.03719351,0.090758875,0.08033385,0.108360365,-0.06556604,0.054550253,0.024781689,0.10492557,-0.07318608,-0.03645751,0.04879309,0.050334044,0.002025198,-0.032419465,0.099917434,0.061073408,-0.013992346,-0.07955269,0.08790336,0.31709245,-0.32543683,0.46827808,-0.19168857,-0.17042701,-0.5350432,-0.123382084,0.96181864,0.6713137,-0.3204584,-0.8539717,0.44896442,-0.54825467,-0.68545246,0.82385707,-0.71354234,-0.12002129,-0.4056456,0.9352819,0.20588732,0.5190089,0.6971265,0.79717517,0.94727814
2025-07-21 14:11:19.199,1.1400000000000006,1140,57,-0.0579195,0.06000721,0.20888725,-0.003394314,-0.0016323818,0.04181223,0.0,0.0,0.0,0.0,0.011596863,-0.1503703,-0.0077890917,-0.054274287,-0.051820222,-0.03586588,0.09425629,0.08194528,0.09267904,-0.049424123,0.08042578,0.035703763,-0.059415597,-0.10738613,0.019615833,-0.06883031,-0.04566854,0.014946725,-0.0314175,-0.05306806,0.063665256,0.06636617,0.13679266,0.038235746,-0.54825467,-0.68545246,0.82385707,-0.71354234,-0.12002129,-0.4056456,0.9352819,0.20588732,0.5190089,0.6971265,0.79717517,0.94727814,0.35101998,0.49152738,0.6116169,-0.12994938,0.31897005,0.20068187,0.28271562,1.3732861,-0.2432386,-0.692674,-1.8338335,0.3161459
2025-07-21 14:11:19.225,1.1600000000000006,1160,58,0.023583293,0.17158577,-0.107287414,-0.0762807,0.055866446,0.00015914052,0.0,0.0,0.0,0.0,0.02297088,-0.12699863,0.0014984194,-0.050150745,-0.023364658,-0.04295503,0.081072696,0.13760476,0.06997253,-0.04587134,0.10136753,0.05295465,0.026900785,0.10988254,-0.028408471,0.036049835,0.13474795,-0.04828156,0.018158337,0.24383828,-0.07053442,-0.035665497,-0.0409826,0.030882942,0.35101998,0.49152738,0.6116169,-0.12994938,0.31897005,0.20068187,0.28271562,1.3732861,-0.2432386,-0.692674,-1.8338335,0.3161459,-0.5683697,-1.3159797,0.3665702,-0.35053602,-0.5251957,-0.61037314,0.3804734,-0.41715515,-0.19821528,0.46525002,-0.07325466,-0.057352014
2025-07-21 14:11:19.242,1.1800000000000006,1180,59,-0.12910745,-0.14172544,0.06980639,-0.021654258,0.03616358,0.005830792,0.0,0.0,0.0,0.0,0.0237859,-0.15086947,0.0053193667,-0.04821335,-0.03454985,-0.036546506,0.09116016,0.15699694,0.061918706,-0.043276567,0.07630458,0.030857101,-0.032051355,-0.09126093,0.0012709011,-0.010608946,-0.033404384,-0.0902406,-0.046570037,-0.16533561,0.022783719,0.04272866,-0.063879006,0.03064909,-0.5683697,-1.3159797,0.3665702,-0.35053602,-0.5251957,-0.61037314,0.3804734,-0.41715515,-0.19821528,0.46525002,-0.07325466,-0.057352014,0.4786083,-0.14620513,-0.09708016,-0.19407858,0.28273994,-0.40546158,0.5834237,1.4746376,0.6322581,-0.2721985,0.13673209,0.9787975
2025-07-21 14:11:19.259,1.2000000000000006,1200,60,0.12938604,0.07118245,0.008493799,-0.02916758,0.042151954,0.0015648775,0.0,0.0,0.0,0.0,0.028264461,-0.13390265,0.008241156,-0.048373926,-0.03562285,-0.04409003,0.08091242,0.15757841,0.06174612,-0.046962325,0.065132655,0.046068445,0.10030774,0.08502361,-0.05450423,-0.056049604,0.10859096,0.036858823,0.058757704,0.22164677,-0.046857342,0.028384345,-0.03446737,0.08509214,0.4786083,-0.14620513,-0.09708016,-0.19407858,0.28273994,-0.40546158,0.5834237,1.4746376,0.6322581,-0.2721985,0.13673209,0.9787975,-0.40919635,-1.2188978,0.8228626,-0.5350119,-0.7224929,-0.67190164,0.58826494,-0.13366833,-0.3087885,0.016468138,-0.3394802,0.7970857
2025-07-21 14:11:19.280,1.2200000000000006,1220,61,-0.06288102,-0.20417063,0.06384859,-0.050736733,0.010510891,-0.019411132,0.0,0.0,0.0,0.0,0.031224212,-0.17476206,0.018279647,-0.064242385,-0.032084774,-0.06311093,0.095017426,0.1537589,0.05366406,-0.035971083,0.05839679,0.05519335,-0.012629973,-0.06802688,-0.021203449,0.024301874,-0.14441471,-0.076572776,-0.06675823,-0.12606287,-0.10086854,0.004700546,-0.13058382,-0.01513805,-0.40919635,-1.2188978,0.8228626,-0.5350119,-0.7224929,-0.67190164,0.58826494,-0.13366833,-0.3087885,0.016468138,-0.3394802,0.7970857,0.5489002,0.3001157,-0.116121896,-0.00802671,0.40997452,-0.49936628,0.6903821,1.2472203,0.6599962,-0.42742455,-0.05020563,1.0453212
2025-07-21 14:11:19.299,1.2400000000000007,1240,62,0.09245902,0.057731766,-0.06311407,-0.013920655,0.061534844,0.038345706,0.0,0.0,0.0,0.0,0.045560323,-0.15609388,0.0057872217,-0.037927832,-0.017312603,-0.06972446,0.08831141,0.17428836,0.046982307,-0.047373798,0.028264817,0.080658905,-0.034968916,0.03576884,-0.0758845,-0.015842056,0.1642751,0.059092145,0.039563213,0.23513372,0.023737768,-0.04013113,0.0073580705,0.017556926,0.5489002,0.3001157,-0.116121896,-0.00802671,0.40997452,-0.49936628,0.6903821,1.2472203,0.6599962,-0.42742455,-0.05020563,1.0453212,-0.52275527,-0.91958725,1.1209645,-0.5324447,-0.7947819,-0.6129823,0.70969874,-0.7117843,0.030580036,0.06967127,0.2906419,0.6466745
2025-07-21 14:11:19.325,1.2600000000000007,1260,63,-0.083000146,-0.08452115,0.18098436,-0.033095106,-0.016010515,-0.03944428,0.0,0.0,0.0,0.0,0.019539895,-0.18193641,0.028996354,-0.051038895,-0.03790838,-0.06111134,0.099196635,0.16574001,0.054262042,-0.04588768,0.038598306,0.072052374,-0.11316926,-0.10964165,0.059311032,0.04235123,-0.19751315,-0.0076537714,0.06560772,-0.07579653,-0.00077639864,-0.010570244,0.04650322,-0.05900428,-0.52275527,-0.91958725,1.1209645,-0.5324447,-0.7947819,-0.6129823,0.70969874,-0.7117843,0.030580036,0.06967127,0.2906419,0.6466745,0.65641385,1.0142893,0.8407953,0.013196358,0.9178874,-0.33491963,0.58630246,0.60102576,-0.014294095,-0.5286972,-1.6837951,0.9266654
2025-07-21 14:11:19.343,1.2800000000000007,1280,64,0.0784019,0.0007494323,-0.09084719,0.0021083206,0.0126642445,0.032120895,0.0,0.0,0.0,0.0,0.0382253,-0.18217465,0.029410006,-0.04708618,-0.035796966,-0.06900175,0.10313255,0.16728076,0.03896452,-0.047379784,0.03583802,0.0792361,0.047792166,0.039091803,-0.04441891,0.037340015,-0.006219613,0.003043355,-0.017680608,0.057635624,-0.040405788,-0.05742279,-0.006490046,-0.02740091,0.65641385,1.0142893,0.8407953,0.013196358,0.9178874,-0.33491963,0.58630246,0.60102576,-0.014294095,-0.5286972,-1.6837951,0.9266654,-0.39958715,-1.0104145,0.50562006,-1.0207438,-0.23781715,-0.33095622,0.6332355,0.1850161,0.27883095,0.88774407,-0.5234173,0.669796
2025-07-21 14:11:19.360,1.3000000000000007,1300,65,-0.014933091,-0.25131863,0.021863818,-0.04828725,-0.025983654,-0.039447516,0.0,0.0,0.0,0.0,0.044221587,-0.1956033,0.046443537,-0.057656035,-0.056165405,-0.06444636,0.09071459,0.15510024,0.04976009,-0.030777639,-0.0026650596,0.09203615,0.04338513,-0.16713804,-0.03482984,-0.045437764,-0.03234791,-0.010483136,0.04632984,-0.028579911,-0.013218808,0.098947905,-0.107495345,0.049738534,-0.39958715,-1.0104145,0.50562006,-1.0207438,-0.23781715,-0.33095622,0.6332355,0.1850161,0.27883095,0.88774407,-0.5234173,0.669796,0.12809972,0.5058516,0.30624798,-0.32080895,0.018306086,-0.4975986,0.7921806,0.3102979,1.2534606,0.08011961,0.93956745,1.3744808
2025-07-21 14:11:19.380,1.3200000000000007,1320,66,0.037336748,0.09887515,0.0560652,-0.032838415,0.013019632,-0.008877584,0.0,0.0,0.0,0.0,0.053207774,-0.18780707,0.034026396,-0.06646849,-0.037153646,-0.06601554,0.0999067,0.15469353,0.07605427,-0.034484934,0.006541122,0.11044353,-0.03594518,0.015283619,-0.085001536,0.005209791,0.056454774,0.017955914,-0.038471095,0.046475008,-0.008379504,0.042345192,0.041779283,0.06745437,0.12809972,0.5058516,0.30624798,-0.32080895,0.018306086,-0.4975986,0.7921806,0.3102979,1.2534606,0.08011961,0.93956745,1.3744808,-0.18285632,-0.01964936,0.7776749,-0.4874137,-0.6732768,-0.049556494,0.35935432,-0.27118352,0.34873655,0.07693961,-0.4311063,0.51803124
2025-07-21 14:11:19.400,1.3400000000000007,1340,67,-0.039795134,0.011765914,-0.07944687,-0.046304267,0.021159545,-0.0055399006,0.0,0.0,0.0,0.0,0.054418847,-0.16285183,0.030169949,-0.07064892,-0.05905169,-0.05402322,0.099937774,0.108506106,0.07316342,-0.0341209,0.025044672,0.09572961,0.008210629,0.10303556,0.023323996,0.04716485,-0.1290657,-0.0017567921,-0.0075051207,-0.05196049,0.013656859,0.053353958,-0.075823,-0.055936422,-0.18285632,-0.01964936,0.7776749,-0.4874137,-0.6732768,-0.049556494,0.35935432,-0.27118352,0.34873655,0.07693961,-0.4311063,0.51803124,-0.3339023,-1.0585642,-0.21760419,-0.10088541,0.10337306,0.33168095,0.7276947,0.31773606,1.1617851,0.47899765,0.30334243,0.24751073
2025-07-21 14:11:19.425,1.3600000000000008,1360,68,0.12125396,0.06818257,0.17985131,0.048451316,0.06682525,-0.0474087,0.0,0.0,0.0,0.0,0.033609398,-0.18235086,0.017628456,-0.06640189,-0.07347028,-0.044255268,0.09721165,0.11114375,0.075153664,-0.019422883,0.03765004,0.079854034,-0.043924842,-0.036673892,-0.06264777,-0.017361047,0.05277911,-0.030046854,0.07211713,-0.026637902,0.035771154,-0.012222489,0.01012056,0.012518069,-0.3339023,-1.0585642,-0.21760419,-0.10088541,0.10337306,0.33168095,0.7276947,0.31773606,1.1617851,0.47899765,0.30334243,0.24751073,0.7786832,0.31843776,0.2750459,-0.049655877,-0.21713483,-0.17886023,0.49409813,0.6062699,0.59952164,-0.65716946,0.01112948,0.19837952
2025-07-21 14:11:19.442,1.3800000000000008,1380,69,0.1334239,0.11468347,-0.1407673,-0.0061380053,0.052039515,-0.024487413,0.0,0.0,0.0,0.0,0.058667857,-0.16873053,0.028000401,-0.0476583,-0.06583399,-0.035069995,0.1003085,0.14165127,0.08161643,-0.028537147,0.042748373,0.07255543,0.07895713,0.05740979,0.033470556,-0.020651272,0.03476587,-0.002995679,0.043518446,0.09855364,0.04010251,0.01847929,0.047460526,-0.08044333,0.7786832,0.31843776,0.2750459,-0.049655877,-0.21713483,-0.17886023,0.49409813,0.6062699,0.59952164,-0.65716946,0.01112948,0.19837952,-0.70844156,-0.66404295,0.34753764,-0.31942776,-0.16802599,0.1067667,0.95535994,-0.642664,0.778564,0.45228836,0.45131695,0.043582506
2025-07-21 14:11:19.460,1.4000000000000008,1400,70,-0.09941146,-0.03134909,0.22988708,-0.00458656,0.055574294,0.039876197,0.0,0.0,0.0,0.0,0.04499059,-0.18618673,0.018548314,-0.067737736,-0.067455836,-0.027929466,0.111399315,0.11185115,0.08747077,-0.014443236,0.06772322,0.05556105,-0.120610334,-0.05091732,-0.06723544,-0.033943523,0.049830113,-0.042434648,0.028418712,-0.13864186,0.07441456,0.092307955,0.05532799,-0.05657482,-0.70844156,-0.66404295,0.34753764,-0.31942776,-0.16802599,0.1067667,0.95535994,-0.642664,0.778564,0.45228836,0.45131695,0.043582506,0.76675373,0.56587106,0.15482922,-0.08607105,0.10467503,0.10776293,0.5760774,1.2638724,0.35593554,-0.52101576,-0.7921629,0.31609398
2025-07-21 14:11:19.480,1.4200000000000008,1420,71,0.16403763,0.13705364,-0.10583417,0.053548057,0.060427964,0.019616941,0.0,0.0,0.0,0.0,0.065438144,-0.17179705,0.021870043,-0.052292116,-0.056217246,-0.024332516,0.10389138,0.14223643,0.0842954,-0.023967544,0.063388385,0.06093551,0.050139863,0.07964297,-0.06738919,0.08691998,0.058079362,-0.031020453,-0.01595974,0.16427219,-0.06689216,-0.098122,0.016670983,0.050949894,0.76675373,0.56587106,0.15482922,-0.08607105,0.10467503,0.10776293,0.5760774,1.2638724,0.35593554,-0.52101576,-0.7921629,0.31609398,-0.5211912,-0.8362895,0.3706093,-0.39019248,-0.2772203,-0.336743,0.65949667,-0.6019671,0.34689143,0.059519693,-0.018586565,0.20900634
2025-07-21 14:11:19.500,1.4400000000000008,1440,72,-0.07171059,-0.10148099,0.1201987,0.05555596,-0.0005424036,0.02482453,0.0,0.0,0.0,0.0,0.047392353,-0.180783,0.010755967,-0.05173061,-0.06482678,-0.04272679,0.09494138,0.12864877,0.079955965,-0.042891342,0.05451176,0.043610405,-0.0037957449,-0.02518447,0.050498605,0.004304735,-0.030179922,-0.04638646,0.032834746,-0.1630842,0.046695016,-0.039905317,-0.028510826,0.014698432,-0.5211912,-0.8362895,0.3706093,-0.39019248,-0.2772203,-0.336743,0.65949667,-0.6019671,0.34689143,0.059519693,-0.018586565,0.20900634,0.6081071,0.10848135,0.15139326,0.049123414,0.47668922,-0.3874296,0.5273748,1.35858,0.8428115,-0.4604876,-0.5758721,0.5658386
2025-07-21 14:11:19.525,1.4600000000000009,1460,73,0.096138865,-0.008202855,-0.08301495,-0.014598909,0.028910264,-0.0010029527,0.0,0.0,0.0,0.0,0.06528478,-0.17211993,0.00500984,-0.04115309,-0.033290435,-0.042275112,0.10546093,0.13953762,0.0891843,-0.04588121,0.027347831,0.065607525,0.11097158,0.10856804,0.030866383,-0.039721977,0.097867064,0.006343767,0.053912695,0.14999339,0.047966868,0.037040506,-0.09930265,0.08465109,0.6081071,0.10848135,0.15139326,0.049123414,0.47668922,-0.3874296,0.5273748,1.35858,0.8428115,-0.4604876,-0.5758721,0.5658386,-0.29714644,-1.2049047,0.8394831,-0.5755177,-0.37638026,-0.72968817,0.6719707,0.08025948,0.11311116,0.28558087,0.66033924,1.0639238
2025-07-21 14:11:19.543,1.4800000000000009,1480,74,-0.04686443,-0.0037559455,0.11808862,0.048591826,0.029339274,-0.016376399,0.0,0.0,0.0,0.0,0.057777513,-0.17626841,0.027859284,-0.06493505,-0.038918946,-0.046611022,0.09527567,0.13365099,0.07275809,-0.027127933,0.036856618,0.07240075,-0.05420658,-0.03575634,0.01097986,-0.08771142,-0.015523234,-0.073845305,0.040529735,0.028110633,-0.076348566,-0.031599384,0.09181509,0.051283468,-0.29714644,-1.2049047,0.8394831,-0.5755177,-0.37638026,-0.72968817,0.6719707,0.08025948,0.11311116,0.28558087,0.66033924,1.0639238,0.15780126,0.14549464,0.7602986,-0.2104583,-0.2704355,-0.33292788,0.51407355,0.50619453,-0.047577,-0.52232593,-1.2513564,0.657104
2025-07-21 14:11:19.560,1.5000000000000009,1500,75,-0.025668,0.03223154,-0.080275595,0.015921671,0.052517414,-0.028609367,0.0,0.0,0.0,0.0,0.050500423,-0.1665178,0.041918512,-0.06178725,-0.06443323,-0.06255257,0.102486216,0.12834479,0.064044096,-0.042193335,0.048521493,0.08066859,0.015276989,0.037135735,0.068312325,-0.0016984728,-0.027758213,-0.059985872,0.010937973,-0.03514693,0.019909713,-0.08071545,-0.007684251,-0.02589198,0.15780126,0.14549464,0.7602986,-0.2104583,-0.2704355,-0.33292788,0.51407355,0.50619453,-0.047577,-0.52232593,-1.2513564,0.657104,-0.22558455,-0.71079975,0.2646155,-0.67998505,-0.16733508,-0.14010072,0.9689702,0.49586752,0.42496988,0.68611586,-0.16128613,0.7333585
2025-07-21 14:11:19.580,1.520000000000001,1520,76,0.06641572,-0.096396126,0.1260542,0.035765953,0.06547339,-0.0002752679,0.0,0.0,0.0,0.0,0.054968618,-0.18167761,0.03566846,-0.066632666,-0.07037634,-0.04941994,0.11915605,0.15512317,0.061726928,-0.042977132,0.030757412,0.08144197,-0.023462722,-0.011550227,0.039121237,0.0093992,0.04141879,0.024126755,0.053940713,0.04887272,-0.030483281,0.026193727,-0.046230946,-0.004542318,-0.22558455,-0.71079975,0.2646155,-0.67998505,-0.16733508,-0.14010072,0.9689702,0.49586752,0.42496988,0.68611586,-0.16128613,0.7333585,0.5208333,0.08800304,0.29550937,-0.26556614,-0.24761827,-0.65742993,0.549707,0.33151042,0.41171852,-0.43127352,-0.14669459,0.45041072
2025-07-21 14:11:19.601,1.540000000000001,1540,77,-0.00055861624,-0.023454215,-0.124863684,-0.009041743,0.05589742,0.029866247,0.0,0.0,0.0,0.0,0.048927158,-0.16622902,0.022742288,-0.06690681,-0.062945046,-0.062780745,0.115222275,0.15234993,0.06725496,-0.05224462,0.008930426,0.07663161,0.071590334,0.08660516,0.024099221,-0.05414739,-0.066283904,-0.08727164,-0.03319962,0.042162128,-0.017883033,-0.0853273,0.0007991956,-0.05015866,0.5208333,0.08800304,0.29550937,-0.26556614,-0.24761827,-0.65742993,0.549707,0.33151042,0.41171852,-0.43127352,-0.14669459,0.45041072,-0.62910056,-1.0184658,0.1967753,-0.49785617,-0.10715059,-0.060647964,0.6632312,0.008907415,0.7762799,0.76667154,0.28201526,0.35373074
2025-07-21 14:11:19.626,1.560000000000001,1560,78,0.05294565,0.061256554,0.21598646,0.04759913,0.05126057,-0.025093606,0.0,0.0,0.0,0.0,0.03579893,-0.18557654,0.02787557,-0.06329594,-0.06425391,-0.062269002,0.118101746,0.116055824,0.061840367,-0.044713,0.027054042,0.06871464,-0.011773974,-0.09864963,0.05114058,-0.07481686,-0.04740038,0.060646303,0.001276166,0.0038913672,0.0030858715,0.024736717,0.08022588,-0.06727658,-0.62910056,-1.0184658,0.1967753,-0.49785617,-0.10715059,-0.060647964,0.6632312,0.008907415,0.7762799,0.76667154,0.28201526,0.35373074,0.74860007,0.5463754,0.40290332,-0.16250649,0.28031498,-0.1210773,0.3283549,0.39637423,0.45836717,-0.8460717,-0.5604104,0.011670776
2025-07-21 14:11:19.643,1.580000000000001,1580,79,0.03218216,0.044187088,-0.078763604,0.034725744,0.058394082,0.039671887,0.0,0.0,0.0,0.0,0.049735922,-0.18296728,0.028502373,-0.06666304,-0.036954645,-0.046284247,0.10897864,0.118385606,0.069851324,-0.05062097,0.011414311,0.06458845,0.046719775,0.008677871,0.04479566,0.072294034,0.070939034,0.02933908,-0.075968795,0.07849082,0.026568048,0.0006267451,-0.051453825,-0.04776285,0.74860007,0.5463754,0.40290332,-0.16250649,0.28031498,-0.1210773,0.3283549,0.39637423,0.45836717,-0.8460717,-0.5604104,0.011670776,-0.27887225,-0.6338179,0.5736515,-0.5181348,-0.31326458,-0.40182364,0.6330341,-0.2933417,0.67110986,0.2762759,0.77819747,0.37074673
2025-07-21 14:11:19.661,1.600000000000001,1600,80,-0.09249726,-0.072069444,0.1811934,0.055264205,0.027776018,-0.037981227,0.0,0.0,0.0,0.0,0.051153712,-0.19658564,0.0276317,-0.063015625,-0.055605162,-0.05186477,0.102940954,0.10068091,0.06972003,-0.035228286,0.032273572,0.04951605,-0.09364733,-0.034346815,0.03709137,0.040063154,-0.036577832,0.001004546,-0.0074738264,-0.15572904,0.07050686,-0.020801574,0.119022995,-0.035180278,-0.27887225,-0.6338179,0.5736515,-0.5181348,-0.31326458,-0.40182364,0.6330341,-0.2933417,0.67110986,0.2762759,0.77819747,0.37074673,0.44815156,0.5595242,0.31224975,-0.073855765,0.20930634,0.17976344,0.48886168,1.6122406,0.3134093,-0.45905522,-1.5177968,0.34337077
2025-07-21 14:11:19.681,1.620000000000001,1620,81,0.06436207,0.07703529,-0.025524465,-0.005565339,0.042494986,0.049778257,0.0,0.0,0.0,0.0,0.047575463,-0.17948537,0.018258072,-0.054487403,-0.0449276,-0.04213679,0.11090778,0.13873509,0.07619999,-0.05301105,0.04253172,0.05285611,-0.03217594,0.084201664,-0.08118702,0.0053335153,0.04810036,-0.025670856,-0.04014272,0.23010123,0.012444722,-0.014660174,-0.076560885,0.03311005,0.44815156,0.5595242,0.31224975,-0.073855765,0.20930634,0.17976344,0.48886168,1.6122406,0.3134093,-0.45905522,-1.5177968,0.34337077,0.03872939,-1.075276,0.43241492,-0.7215835,-0.3153116,-0.8037943,0.40337044,0.01600004,-0.013110317,0.04049541,0.31189072,0.89789987
2025-07-21 14:11:19.701,1.640000000000001,1640,82,-0.07945242,0.0155455815,0.16390665,0.008022399,0.0043567414,0.019183105,0.0,0.0,0.0,0.0,0.040450044,-0.17763878,0.038108442,-0.08052076,-0.055521253,-0.053643916,0.097033896,0.14068855,0.05155714,-0.049665745,0.04980891,0.05891119,0.0042582406,-0.08657091,-0.010201621,0.014498367,-0.10277727,-0.03167721,-0.0031381336,-0.092760846,-0.09856121,0.043492526,-0.030613152,0.06537332,0.03872939,-1.075276,0.43241492,-0.7215835,-0.3153116,-0.8037943,0.40337044,0.01600004,-0.013110317,0.04049541,0.31189072,0.89789987,0.46519172,0.33069134,0.5667279,0.069359474,0.68181443,-0.46648705,0.52604896,1.4642231,0.15211567,-0.57043624,-1.0304022,0.8546011
2025-07-21 14:11:19.726,1.660000000000001,1660,83,-0.024945626,0.116567954,-0.10181637,-0.0054715206,0.04782825,-0.049688034,0.0,0.0,0.0,0.0,0.05956592,-0.1736922,0.035272148,-0.058975607,-0.015285663,-0.06552902,0.09836529,0.16530554,0.043724537,-0.058554206,0.046281576,0.06611489,0.014835737,0.11207366,0.07407476,0.052454576,0.17164987,-0.061637983,-0.08109806,0.18014088,-0.0017058305,-0.10799071,-0.044686247,-0.004830088,0.46519172,0.33069134,0.5667279,0.069359474,0.68181443,-0.46648705,0.52604896,1.4642231,0.15211567,-0.57043624,-1.0304022,0.8546011,-0.49691647,-1.4299905,0.45908985,-0.48937485,-0.4487802,-0.64659446,0.47789133,-0.26964125,-0.0069079176,0.070292205,0.068755224,0.16242695
2025-07-21 14:11:19.743,1.680000000000001,1680,84,-0.19071996,-0.11794362,0.045336135,-0.039137118,0.023370827,0.0060496386,0.0,0.0,0.0,0.0,0.043542173,-0.17502134,0.040292855,-0.058698878,-0.015111881,-0.06883655,0.096923105,0.1676024,0.052282184,-0.059410818,0.034847133,0.06319641,0.010061154,-0.14575996,0.064062856,0.04085305,-0.06760062,-0.07188403,-0.029382538,-0.15907355,-0.027379036,-0.023816602,-0.06256204,-0.009839059,-0.49691647,-1.4299905,0.45908985,-0.48937485,-0.4487802,-0.64659446,0.47789133,-0.26964125,-0.0069079176,0.070292205,0.068755224,0.16242695,0.2948223,0.11949587,0.14843258,-0.17058747,0.49034947,-0.56319547,0.52739185,1.4201361,0.8861986,-0.092130184,0.27651408,1.1136299
2025-07-21 14:11:19.761,1.700000000000001,1700,85,0.06824797,0.13657543,-0.04185592,-0.0056812153,0.018856503,0.014689498,0.0,0.0,0.0,0.0,0.042137265,-0.16395313,0.029054653,-0.05411382,-0.012378826,-0.080461875,0.09628378,0.19567354,0.06344728,-0.049113445,0.05806935,0.0746208,0.014004589,0.11358639,-0.07681864,-0.05839005,0.17242779,0.007272305,0.039634988,0.23652339,-0.020955887,-0.013489478,0.016383326,-0.00906979,0.2948223,0.11949587,0.14843258,-0.17058747,0.49034947,-0.56319547,0.52739185,1.4201361,0.8861986,-0.092130184,0.27651408,1.1136299,-0.46321338,-1.2974333,0.6376622,-0.20154239,-0.69452363,-0.4735406,0.56803894,-0.7261836,-0.31843045,-0.22711608,0.09326695,0.408002
2025-07-21 14:11:19.781,1.720000000000001,1720,86,-0.033510007,-0.1327404,0.048417363,-0.045711838,-0.013686491,0.044402458,0.0,0.0,0.0,0.0,0.031507973,-0.1682514,0.040776696,-0.05542174,-0.021442534,-0.077752255,0.082092606,0.19080524,0.03684147,-0.05849681,0.053028006,0.079268195,0.0037865527,-0.10375813,-0.035375338,-0.038709555,-0.1452608,-0.054447345,0.04676208,-0.21011472,-0.05173968,0.06922769,-0.027532797,-0.061963197,-0.46321338,-1.2974333,0.6376622,-0.20154239,-0.69452363,-0.4735406,0.56803894,-0.7261836,-0.31843045,-0.22711608,0.09326695,0.408002,0.2596275,0.015252408,-0.09945565,0.11254714,0.35164392,-0.008415192,0.7968468,1.1332355,0.87006754,-0.1357165,-0.25766018,0.88006145
2025-07-21 14:11:19.801,1.740000000000001,1740,87,0.17621009,0.08249849,-0.052543156,0.024717245,-0.026815716,-0.04183385,0.0,0.0,0.0,0.0,0.038528975,-0.15279138,0.026462628,-0.04211475,-0.030973937,-0.07007719,0.087092064,0.19365321,0.06327881,-0.054079596,0.041108713,0.077272534,0.0028360537,0.053751707,-0.09789275,0.04578893,0.049273565,0.061873056,0.033806186,0.15867265,0.0653665,-0.04221057,-0.1159768,0.0026427307,0.2596275,0.015252408,-0.09945565,0.11254714,0.35164392,-0.008415192,0.7968468,1.1332355,0.87006754,-0.1357165,-0.25766018,0.88006145,-0.07201506,-0.98158824,0.679757,-0.316941,0.103325315,-0.43827963,1.0033118,-0.34196982,0.5297121,0.24518552,1.0922081,1.3339331
2025-07-21 14:11:19.826,1.7600000000000011,1760,88,0.061517555,0.03769805,0.12043412,0.04733447,0.038036153,0.03562555,0.0,0.0,0.0,0.0,0.042153116,-0.16162996,0.023717124,-0.058383133,-0.01276778,-0.07849202,0.111076504,0.18242066,0.06536661,-0.030316636,0.062110808,0.10064869,2.2267584e-05,-0.10007863,-0.011641553,0.05235615,0.020444605,-0.02821601,0.002587261,-0.19432147,0.08294692,-0.020672586,0.061361033,-0.007513983,-0.07201506,-0.98158824,0.679757,-0.316941,0.103325315,-0.43827963,1.0033118,-0.34196982,0.5297121,0.24518552,1.0922081,1.3339331,0.25546545,0.084243536,0.41361007,-0.12051735,-0.37301064,0.27420226,0.45174706,1.3683348,0.5224854,-0.51186544,-0.7712867,0.26587933
2025-07-21 14:11:19.842,1.7800000000000011,1780,89,-0.013789704,0.04433449,-0.09550006,0.005243101,0.08412552,-0.006275176,0.0,0.0,0.0,0.0,0.038156405,-0.16065253,0.02972538,-0.039485864,-0.04980432,-0.05792944,0.10190187,0.18596585,0.05943787,-0.054066245,0.07186865,0.08942883,0.066987276,0.09106894,-0.017479902,0.0748998,-0.07510978,0.038473282,-0.048809584,0.077197075,0.015576084,-0.10189764,-0.050567724,-0.010510216,0.25546545,0.084243536,0.41361007,-0.12051735,-0.37301064,0.27420226,0.45174706,1.3683348,0.5224854,-0.51186544,-0.7712867,0.26587933,-0.24329825,-0.83518815,-0.004670834,-0.541168,0.09055329,-0.29761457,0.63684326,0.072197504,0.58918434,0.47887447,0.080929816,0.5101548
2025-07-21 14:11:19.861,1.8000000000000012,1800,90,0.05015853,-0.11260615,0.12748697,-0.02386966,0.0044143414,0.010314496,0.0,0.0,0.0,0.0,0.044090077,-0.15055315,0.02239087,-0.04709115,-0.029236268,-0.040819664,0.10385845,0.17536536,0.06363372,-0.044647634,0.060136378,0.07757876,-0.030664999,-0.105037205,-0.028765295,-0.07382473,0.023294516,-0.061877836,0.07308904,-0.004977185,0.0028950428,0.023259329,-0.02672948,-0.06749376,-0.24329825,-0.83518815,-0.004670834,-0.541168,0.09055329,-0.29761457,0.63684326,0.072197504,0.58918434,0.47887447,0.080929816,0.5101548,0.37060165,0.06879026,0.50680727,-0.26083165,-0.041353524,-0.6016032,0.43854082,0.5629522,0.367056,-0.16292354,-0.22085248,0.6601269
2025-07-21 14:11:19.881,1.8200000000000012,1820,91,0.04747762,-0.046994038,-0.17851952,0.012944301,0.012322288,-0.037840255,0.0,0.0,0.0,0.0,0.041828234,-0.1559901,0.011634517,-0.042193856,-0.02685916,-0.04772013,0.09684541,0.17588748,0.07493423,-0.045515064,0.03723442,0.07588304,0.0090910755,0.09760659,0.024413973,-0.003658395,-0.06750473,-0.00011602496,-0.08348712,-0.03213536,0.05765965,0.03269923,-0.03811165,-0.046605173,0.37060165,0.06879026,0.50680727,-0.26083165,-0.041353524,-0.6016032,0.43854082,0.5629522,0.367056,-0.16292354,-0.22085248,0.6601269,-1.0008936,-1.4078234,0.12198811,-0.3431119,-0.33634472,0.11189973,0.9971323,-0.026582919,0.9880572,1.0834824,0.68727237,0.61909646
2025-07-21 14:11:19.901,1.8400000000000012,1840,92,-0.059598178,-0.042161923,0.20539902,-0.028548136,0.07053741,-0.004825508,0.0,0.0,0.0,0.0,0.047506932,-0.1855266,0.02587824,-0.04997362,-0.0365652,-0.049625993,0.12028741,0.15098538,0.08702028,-0.032612685,0.0718247,0.0830178,0.0200104,-0.12012412,-0.060067758,0.05209942,-0.00936669,-0.028747162,0.0066187535,-0.14970294,0.036534347,0.088263154,0.030615104,0.043345075,-1.0008936,-1.4078234,0.12198811,-0.3431119,-0.33634472,0.11189973,0.9971323,-0.026582919,0.9880572,1.0834824,0.68727237,0.61909646,0.7327598,0.034108635,0.06619971,-0.22706406,0.092242904,-0.27100715,0.31240922,1.1013134,0.095433675,-0.81370056,-0.40596482,0.42263836
2025-07-21 14:11:19.926,1.8600000000000012,1860,93,0.087630674,0.048845123,-0.09061014,0.062184233,0.017855834,-0.04089948,0.0,0.0,0.0,0.0,0.05323444,-0.18694653,0.0012982591,-0.059010163,-0.044805218,-0.053154368,0.09878864,0.17847078,0.073410004,-0.04034703,0.06667032,0.08011246,-0.021911075,0.08836882,-0.012860312,0.027816797,-0.025136344,-0.0042727375,-0.0626448,0.17555721,0.037855826,-0.05134043,0.040762804,0.047442075,0.7327598,0.034108635,0.06619971,-0.22706406,0.092242904,-0.27100715,0.31240922,1.1013134,0.095433675,-0.81370056,-0.40596482,0.42263836,-0.6835599,-0.837463,0.3536996,-0.5831319,0.043837145,-0.5851198,0.68996066,-0.45089722,0.45417878,0.39199355,-0.33092555,0.58398604
2025-07-21 14:11:19.943,1.8800000000000012,1880,94,-0.17935814,-0.22297671,0.112317055,0.05715063,-0.024410518,-0.005384482,0.0,0.0,0.0,0.0,0.039623775,-0.18960367,0.01789995,-0.06901149,-0.028912855,-0.048491403,0.104894124,0.15967838,0.06911559,-0.03549327,0.051670335,0.091833875,-0.0958995,-0.08830124,0.018831924,-0.06484764,-0.03739408,-0.03645032,0.05258798,-0.18112938,-0.0012022544,0.08694308,-0.13933414,0.07577102,-0.6835599,-0.837463,0.3536996,-0.5831319,0.043837145,-0.5851198,0.68996066,-0.45089722,0.45417878,0.39199355,-0.33092555,0.58398604,0.64947313,0.6883794,0.13459328,-0.039360337,0.5381947,-0.5385511,0.5782232,1.0190914,1.2278686,-0.516448,0.27189612,1.2706475
2025-07-21 14:11:19.962,1.9000000000000012,1900,95,0.106207564,0.18570912,-0.0800342,-0.02379073,0.04917489,0.0021259876,0.0,0.0,0.0,0.0,0.059022397,-0.17978242,-0.00087335805,-0.054929614,0.013876173,-0.06374488,0.09543513,0.15836802,0.088102646,-0.053851552,0.045170154,0.090807535,-0.017648473,0.05173176,-0.019501718,0.09661318,0.08974424,0.022253387,0.039481748,0.10418413,0.08436148,0.045709204,-0.009604934,-0.01609713,0.64947313,0.6883794,0.13459328,-0.039360337,0.5381947,-0.5385511,0.5782232,1.0190914,1.2278686,-0.516448,0.27189612,1.2706475,-0.53189194,-0.7270444,0.96431094,-0.40359277,-0.6171059,-0.21075642,0.710135,-0.32490695,0.21245506,0.16007262,0.34942904,0.59423864
2025-07-21 14:11:19.982,1.9200000000000013,1920,96,-0.03964318,0.037008535,0.15646173,-0.01904269,0.030142736,-0.038346563,0.0,0.0,0.0,0.0,0.051684722,-0.18152888,0.034410994,-0.05426815,-0.0024536022,-0.05761967,0.10305436,0.1434456,0.07282719,-0.042790953,0.061165266,0.08995818,0.015338036,-0.0505855,0.083875105,0.0632031,-0.16918175,0.010451148,0.003909909,-0.09056395,-0.052986115,0.019775227,0.030511852,0.047153167,-0.53189194,-0.7270444,0.96431094,-0.40359277,-0.6171059,-0.21075642,0.710135,-0.32490695,0.21245506,0.16007262,0.34942904,0.59423864,0.525476,0.590843,0.675974,0.05434773,0.57408947,-0.09651348,0.7452388,1.2107328,-0.2712179,-0.51380247,-1.5160477,0.39148322
2025-07-21 14:11:20.004,1.9400000000000013,1940,97,0.10297377,0.07901552,-0.1288849,0.02294867,0.04592266,0.015733013,0.0,0.0,0.0,0.0,0.049347397,-0.17128852,0.02241908,-0.04325733,-0.006352386,-0.05125676,0.118149064,0.16101922,0.059203178,-0.051097855,0.06085187,0.07891867,0.041872457,0.053704362,-0.0001439443,-0.045606606,0.028056158,-0.006146403,0.0047538667,0.12696761,-0.0085530365,-0.021702347,-0.041004624,-0.059663005,0.525476,0.590843,0.675974,0.05434773,0.57408947,-0.09651348,0.7452388,1.2107328,-0.2712179,-0.51380247,-1.5160477,0.39148322,-0.5247695,-1.1078715,0.5148478,-0.7728957,-0.3349312,-0.47650087,0.6718847,-0.087081514,0.34689894,0.8049271,0.20217168,0.6786389
2025-07-21 14:11:20.026,1.9600000000000013,1960,98,-0.010666661,-0.079850234,0.13969325,-0.026353026,0.07677302,-0.036169972,0.0,0.0,0.0,0.0,0.046769094,-0.16551246,0.04533197,-0.0653844,-0.0120935505,-0.0503882,0.118139476,0.1565407,0.059052583,-0.05055134,0.056754332,0.09175634,0.018400714,-0.14492981,0.06832043,0.03615032,-0.012938263,-0.0032217572,0.05089641,-0.09562714,0.008359529,0.08113259,-0.029947884,-0.07406383,-0.5247695,-1.1078715,0.5148478,-0.7728957,-0.3349312,-0.47650087,0.6718847,-0.087081514,0.34689894,0.8049271,0.20217168,0.6786389,0.5393532,0.37744236,0.50864613,-0.19021058,-0.046073563,-0.4930814,0.6530853,1.0618958,0.44596004,-0.5636138,-0.36356595,0.70779383
2025-07-21 14:11:20.043,1.9800000000000013,1980,99,0.012859116,0.011042711,-0.18177128,-0.009154623,0.08120119,-0.04256627,0.0,0.0,0.0,0.0,0.05351925,-0.176253,0.036730397,-0.0567419,-0.006828453,-0.05753855,0.11610624,0.15933971,0.061028916,-0.057231072,0.05561577,0.083477065,0.060233425,0.08432431,0.023914387,0.0719244,-0.059047587,-0.054172117,0.0037820735,0.08953251,0.054493852,-0.008975778,-0.105504625,-0.015855765,0.5393532,0.37744236,0.50864613,-0.19021058,-0.046073563,-0.4930814,0.6530853,1.0618958,0.44596004,-0.5636138,-0.36356595,0.70779383,-0.64449054,-1.1169845,0.44785306,-0.7472309,-0.10963834,-0.45857096,0.81480294,0.22047713,0.8046029,1.1033677,0.8036316,1.0228115
2025-07-21 14:11:20.063,2.0000000000000013,2000,100,-0.015967816,-0.07258394,0.24750005,-0.0054752603,-0.00045527163,0.005549456,0.0,0.0,0.0,0.0,0.044192374,-0.16928089,0.029726792,-0.0733702,-0.020413345,-0.05958092,0.12105064,0.15757486,0.07317384,-0.044780564,0.0607075,0.09755889,-0.094673745,-0.065635934,-0.02878482,-0.0025026551,-0.050550394,0.041595884,0.089041196,-0.00045633322,0.093737066,0.06581391,0.13220064,-0.040467687,-0.64449054,-1.1169845,0.44785306,-0.7472309,-0.10963834,-0.45857096,0.81480294,0.22047713,0.8046029,1.1033677,0.8036316,1.0228115,0.35082507,0.28389043,0.44785267,-0.22342208,-0.064040504,0.013796687,0.23004666,0.25316304,-0.12369216,-0.80506796,-1.8560679,0.34977385
2025-07-21 14:11:20.083,2.0200000000000014,2020,101,-0.04730851,0.026544975,-0.12129039,-0.005283163,-0.018325096,0.046544444,0.0,0.0,0.0,0.0,0.038977575,-0.17331007,0.036354393,-0.069055475,-0.021474,-0.054436892,0.104012564,0.15811533,0.059512556,-0.04098457,0.07708618,0.07854064,-0.0477107,0.07637313,0.023495931,0.07284996,-0.016924802,0.011509939,0.03735875,0.0056033777,0.014784642,-0.09997192,0.017118992,-0.06704882,0.35082507,0.28389043,0.44785267,-0.22342208,-0.064040504,0.013796687,0.23004666,0.25316304,-0.12369216,-0.80506796,-1.8560679,0.34977385,-0.6392907,-1.142226,0.21714261,-0.7071127,-0.41664213,-0.1608727,0.9801988,-0.042710565,0.66362536,1.0163742,-0.19106133,0.4512283
2025-07-21 14:11:20.109,2.0400000000000014,2040,102,-0.12017398,-0.19906211,0.101654515,-0.041320384,0.033140965,0.032844156,0.0,0.0,0.0,0.0,0.030055365,-0.1919435,0.029840283,-0.065397255,-0.04774463,-0.055963624,0.114178635,0.13146217,0.06816902,-0.026613193,0.042363178,0.07531759,-0.11334796,-0.08748325,-0.0013060739,0.0051988685,-0.128039,-0.006408463,0.021194855,-0.05763342,-0.0489745,0.032062154,0.015489712,-0.003855782,-0.6392907,-1.142226,0.21714261,-0.7071127,-0.41664213,-0.1608727,0.9801988,-0.042710565,0.66362536,1.0163742,-0.19106133,0.4512283,0.4347402,0.18392867,-0.18045451,-0.17995508,0.37984872,-0.096185565,0.48195916,0.48125127,0.7796459,-0.45394456,-0.23599218,0.44512624
2025-07-21 14:11:20.126,2.0600000000000014,2060,103,0.071626276,0.0615726,-0.021191737,0.011388739,-0.027531099,0.0018229389,0.0,0.0,0.0,0.0,0.05030911,-0.19139963,0.021624532,-0.072520725,-0.037575174,-0.049741693,0.10980094,0.13415068,0.06603071,-0.04404805,0.032657005,0.0795801,0.053466924,0.10437781,-0.107181795,0.01286147,0.09711107,0.034687355,-0.079853304,-0.0005502947,-0.0191079,-0.020633118,0.012130225,-0.02555358,0.4347402,0.18392867,-0.18045451,-0.17995508,0.37984872,-0.096185565,0.48195916,0.48125127,0.7796459,-0.45394456,-0.23599218,0.44512624,-0.33813703,-0.7710694,0.52618563,-0.19121514,-0.46052888,-0.027707994,0.8259557,-0.1489369,0.57393336,0.040297896,0.24217036,-0.06975108
2025-07-21 14:11:20.143,2.0800000000000014,2080,104,0.064861566,0.031748787,0.13462834,0.055814013,0.024082808,-0.022211682,0.0,0.0,0.0,0.0,0.030973071,-0.19439621,0.015570563,-0.05790387,-0.057652235,-0.037973046,0.11051747,0.11317466,0.06762174,-0.026739385,0.03764585,0.06267934,-0.051359955,-0.08814927,-0.016568936,0.032447543,-0.0332831,-0.009018217,-0.06081036,-0.04805261,0.049549405,0.050435327,0.014737911,-0.0058914027,-0.33813703,-0.7710694,0.52618563,-0.19121514,-0.46052888,-0.027707994,0.8259557,-0.1489369,0.57393336,0.040297896,0.24217036,-0.06975108,0.46116355,0.46120566,0.31848875,0.03307108,0.41244048,-0.2711792,0.59906584,0.87749344,0.6463929,-0.25213978,-0.50597256,0.3738557
2025-07-21 14:11:20.163,2.1000000000000014,2100,105,0.11378102,0.10518372,-0.15490486,0.00868339,0.029743902,0.0364343,0.0,0.0,0.0,0.0,0.03775397,-0.18168296,0.012446145,-0.06254988,-0.022668982,-0.04869619,0.10948978,0.13462223,0.08735186,-0.035196055,0.025919147,0.06301492,-0.012888074,0.035296112,-0.0061934856,-0.019636536,0.024346787,0.04068828,-0.08015858,0.14601155,0.0010065321,-0.06202424,-0.0059855976,-0.0680354,0.46116355,0.46120566,0.31848875,0.03307108,0.41244048,-0.2711792,0.59906584,0.87749344,0.6463929,-0.25213978,-0.50597256,0.3738557,-0.78914505,-0.93542576,0.75396097,-0.42490578,0.05360902,-0.1117059,1.0233153,-0.22337079,0.57529956,0.6553992,0.91038877,0.4817888
2025-07-21 14:11:20.183,2.1200000000000014,2120,106,-0.036670815,0.09123333,0.14628613,-0.0040942766,0.03370769,0.014958203,0.0,0.0,0.0,0.0,0.043142393,-0.1900078,0.03631313,-0.048171766,-0.009049271,-0.041989215,0.12000101,0.10728468,0.08813445,-0.026517475,0.055809442,0.04665555,-0.071941435,-0.044188544,-0.034256134,0.036026824,0.08349818,0.03175099,0.052401952,-0.110088885,-0.003089043,0.113147266,0.09061914,0.04413876,-0.78914505,-0.93542576,0.75396097,-0.42490578,0.05360902,-0.1117059,1.0233153,-0.22337079,0.57529956,0.6553992,0.91038877,0.4817888,0.2352926,0.23282766,0.2699719,-0.16847478,-0.41596064,0.36541617,0.5581277,1.1221567,0.0023361668,-0.3589989,-0.77681535,0.14589328
2025-07-21 14:11:20.209,2.1400000000000015,2140,107,0.14744177,0.10130523,-0.11810378,0.056818727,-0.0135653,-0.012063906,0.0,0.0,0.0,0.0,0.042223517,-0.18238871,0.019015985,-0.04677585,-0.03523933,-0.026799154,0.114601016,0.13519233,0.07569996,-0.029298674,0.058860548,0.05820997,0.07368539,0.055535764,-0.050602514,0.036845002,-0.016040906,0.10317918,0.019264467,0.1035321,-0.08700641,-0.005163627,-0.0554609,-0.028412957,0.2352926,0.23282766,0.2699719,-0.16847478,-0.41596064,0.36541617,0.5581277,1.1221567,0.0023361668,-0.3589989,-0.77681535,0.14589328,-0.6261314,-0.79664373,0.23491912,-0.33539364,-0.09668425,-0.30092102,0.99936146,-0.14263642,0.57124865,0.49945474,0.5080743,0.76034635
2025-07-21 14:11:20.227,2.1600000000000015,2160,108,0.0499766,-0.019077512,0.14712797,-0.03510049,0.0083541395,-0.021480074,0.0,0.0,0.0,0.0,0.02760139,-0.18618768,0.028034858,-0.048164576,-0.03561079,-0.019048281,0.12434409,0.1285919,0.06838053,-0.02823785,0.07948781,0.04894208,-0.08038279,-0.12044287,0.014746444,0.017322477,-0.06568852,0.009857528,0.04941319,-0.076466516,0.060738813,0.107208624,0.030455876,-0.05467822,-0.6261314,-0.79664373,0.23491912,-0.33539364,-0.09668425,-0.30092102,0.99936146,-0.14263642,0.57124865,0.49945474,0.5080743,0.76034635,0.31232923,0.32657295,0.26055294,-0.06903317,0.5051083,-0.092838764,0.44655424,1.0097,0.29660136,-0.2365991,-0.84443563,0.4984367
2025-07-21 14:11:20.244,2.1800000000000015,2180,109,0.07287787,0.050310254,-0.13882782,-0.03480065,0.032913968,0.025897004,0.0,0.0,0.0,0.0,0.037260536,-0.18354566,0.012402877,-0.03860204,-0.0029780262,-0.021494942,0.11527859,0.14146425,0.06874088,-0.03485034,0.064581625,0.06898017,0.0025936428,-0.00517444,-0.009351561,-0.014525806,0.15708776,0.035582114,-0.07082863,0.11166048,-0.069788486,-0.01681553,0.01627251,-0.021316145,0.31232923,0.32657295,0.26055294,-0.06903317,0.5051083,-0.092838764,0.44655424,1.0097,0.29660136,-0.2365991,-0.84443563,0.4984367,-0.986327,-0.7758994,1.0135975,-0.49379277,-0.8236098,-0.319655,0.9956089,-0.31970993,0.22362629,0.7204797,0.5321334,0.20244193
2025-07-21 14:11:20.265,2.2000000000000015,2200,110,-0.17135224,-0.035019167,0.12801543,0.0015722481,0.03399203,-0.010621985,0.0,0.0,0.0,0.0,0.0194178,-0.19844025,0.03524728,-0.05788787,-0.015985645,-0.01985298,0.13250221,0.1264747,0.06416996,-0.013453771,0.09216131,0.044923175,-0.06943052,-0.08269448,0.0655457,-0.04515175,-0.07379622,-0.019802628,-0.035071913,-0.17137349,0.03200152,-0.019794805,0.010767015,-0.08379754,-0.986327,-0.7758994,1.0135975,-0.49379277,-0.8236098,-0.319655,0.9956089,-0.31970993,0.22362629,0.7204797,0.5321334,0.20244193,0.2976642,0.51206696,0.34492213,-0.16815071,0.25799832,-0.04994273,0.559428,1.3971137,0.5718079,-0.356354,-1.058052,0.50774527
2025-07-21 14:11:20.285,2.2200000000000015,2220,111,0.03806428,0.07002167,-0.13387072,0.020376612,0.019417478,0.035152268,0.0,0.0,0.0,0.0,0.019713178,-0.18359968,0.02453946,-0.054024,-0.02475232,-0.035082396,0.11744139,0.1506587,0.072666906,-0.025643567,0.093539916,0.05650365,0.042741437,0.035136066,-0.061319478,-0.016160207,0.050964072,0.030211683,0.0061484287,0.19592462,0.0112160565,0.039099555,0.025022967,0.040543232,0.2976642,0.51206696,0.34492213,-0.16815071,0.25799832,-0.04994273,0.559428,1.3971137,0.5718079,-0.356354,-1.058052,0.50774527,-0.87386465,-0.81203294,0.62370133,-0.5826671,-0.3639896,-0.35970902,0.8452131,-0.45802408,0.4162458,0.80799955,0.33804736,0.4598325
2025-07-21 14:11:20.309,2.2400000000000015,2240,112,-0.037474334,-0.076998636,0.16393146,0.030167459,-0.0043145823,-0.03133569,0.0,0.0,0.0,0.0,0.0011211289,-0.19386074,0.0365417,-0.051494725,-0.042934723,-0.03921814,0.1284517,0.1410093,0.06080769,-0.020252258,0.10178154,0.051120963,0.015238521,-0.13516548,-0.02524567,-0.042590097,-0.06957756,-0.08542629,0.009708179,-0.07950703,0.07668683,0.02019572,0.00039764593,-0.005913922,-0.87386465,-0.81203294,0.62370133,-0.5826671,-0.3639896,-0.35970902,0.8452131,-0.45802408,0.4162458,0.80799955,0.33804736,0.4598325,0.48186842,0.5368305,0.18235163,-0.23181592,0.61172247,-0.43040732,0.4260602,0.7440982,0.58801526,-0.5127479,-0.8778525,0.6275972
2025-07-21 14:11:20.326,2.2600000000000016,2260,113,0.025874445,-0.027194938,-0.15237333,0.04079174,0.06149325,0.032131582,0.0,0.0,0.0,0.0,0.012153458,-0.18204765,0.025248174,-0.05759879,-0.01326798,-0.032375913,0.11830621,0.14137329,0.078022614,-0.028562967,0.07529522,0.062530525,0.058146916,0.034971226,-0.052473128,-0.050835256,0.08145639,-0.057943378,0.023121312,0.112772174,0.050421152,-0.1018881,-0.12795144,-0.033910193,0.48186842,0.5368305,0.18235163,-0.23181592,0.61172247,-0.43040732,0.4260602,0.7440982,0.58801526,-0.5127479,-0.8778525,0.6275972,-0.5487725,-1.0484483,0.8086267,-0.8213262,-0.401988,-0.5660309,0.876621,-0.14128456,0.28032386,0.8629626,1.3368809,1.2950298
2025-07-21 14:11:20.345,2.2800000000000016,2280,114,0.008943664,-0.0053115343,0.15052569,0.040332332,0.00024656137,0.018411443,0.0,0.0,0.0,0.0,0.016037295,-0.17659156,0.044498026,-0.0656935,-0.008096485,-0.04121675,0.12426529,0.12721479,0.066684514,-0.014606143,0.08976032,0.06708438,0.016337784,-0.09981147,-0.006282596,-0.036471788,-0.067679904,0.028371468,-0.032242335,-0.11450824,0.02990985,-0.011960264,0.12857063,0.030738292,-0.5487725,-1.0484483,0.8086267,-0.8213262,-0.401988,-0.5660309,0.876621,-0.14128456,0.28032386,0.8629626,1.3368809,1.2950298,0.20247927,0.110966384,0.6284549,-0.41959876,-0.065162025,0.2586631,0.2749452,1.0425313,0.26678666,-0.60922766,-1.8045828,0.562789
2025-07-21 14:11:20.365,2.3000000000000016,2300,115,0.0059837042,-0.008876159,-0.15657441,0.026121395,0.027434936,0.011934246,0.0,0.0,0.0,0.0,0.021423465,-0.17999545,0.049654722,-0.07734458,-0.02429266,-0.034340054,0.11426079,0.15085341,0.06877178,-0.016578067,0.110681266,0.08462739,0.024746435,0.048744842,-0.063419685,0.071916394,0.028096585,0.0649939,-0.106651895,0.19319035,0.0521896,-0.09702799,0.049555346,0.045812525,0.20247927,0.110966384,0.6284549,-0.41959876,-0.065162025,0.2586631,0.2749452,1.0425313,0.26678666,-0.60922766,-1.8045828,0.562789,-1.0680598,-0.87273383,0.331893,-0.62005615,-0.6963107,-0.24289739,0.71651286,-0.7396092,0.66454065,1.1396523,0.1512314,0.45381546
2025-07-21 14:11:20.385,2.3200000000000016,2320,116,-0.037742674,-0.12780102,0.15313035,0.04804268,0.033908572,-0.027285399,0.0,0.0,0.0,0.0,0.0008817903,-0.1906328,0.045455012,-0.07287672,-0.05237197,-0.037762523,0.100174986,0.13194352,0.06636155,-0.01412977,0.09592079,0.07098509,-0.09745149,-0.14482258,-0.032322913,-0.054191772,-0.06453117,-0.025678905,-0.061914746,-0.16593559,-2.7224492e-05,0.029871816,0.021256834,0.011862807,-1.0680598,-0.87273383,0.331893,-0.62005615,-0.6963107,-0.24289739,0.71651286,-0.7396092,0.66454065,1.1396523,0.1512314,0.45381546,0.5574672,0.22839016,-0.12476579,-0.299254,0.5197109,-0.058703125,0.5212363,1.0547827,0.95644623,-0.64852715,-0.4528819,0.7300035
2025-07-21 14:11:20.409,2.3400000000000016,2340,117,0.035998933,-0.008962299,-0.20886791,0.0563774,0.055009816,-0.040311772,0.0,0.0,0.0,0.0,0.015144806,-0.18176897,0.020825084,-0.07594968,-0.061079655,-0.036086686,0.11281473,0.13330476,0.08201428,-0.024615264,0.06891378,0.08849156,-0.0036972126,0.13198745,0.028550465,0.0042106276,0.13842094,-0.047452454,-0.013442624,0.1404823,-0.012896599,0.025137281,-0.07936461,0.062859684,0.5574672,0.22839016,-0.12476579,-0.299254,0.5197109,-0.058703125,0.5212363,1.0547827,0.95644623,-0.64852715,-0.4528819,0.7300035,-0.7869004,-1.342177,0.38551936,-0.24406432,-0.25746498,-0.2745359,1.1583755,-0.525472,0.6778484,0.45248485,1.366052,0.7739498
2025-07-21 14:11:20.426,2.3600000000000017,2360,118,-0.07022218,0.011230852,0.11609303,-0.0002470169,0.021919083,-0.043020803,0.0,0.0,0.0,0.0,0.0131978765,-0.19068407,0.031859897,-0.06848034,-0.057207312,-0.04103832,0.11308836,0.10599661,0.08478233,-0.020248542,0.07743862,0.075585894,-0.05295733,-0.14083935,0.023537625,0.0047242255,0.041494474,0.05372093,-0.015618167,-0.20060137,0.0036249761,0.047005102,0.12956953,0.034319274,-0.7869004,-1.342177,0.38551936,-0.24406432,-0.25746498,-0.2745359,1.1583755,-0.525472,0.6778484,0.45248485,1.366052,0.7739498,0.15486586,0.07551581,0.12012162,-0.107756935,0.14707123,0.5383644,0.3612895,1.4551162,0.7039986,-0.078085095,-0.59704095,0.4425254
2025-07-21 14:11:20.445,2.3800000000000017,2380,119,0.13691267,0.15033914,-0.12656699,0.039851926,0.0035648749,0.024221307,0.0,0.0,0.0,0.0,0.012620608,-0.17571732,0.019827101,-0.0737837,-0.050073266,-0.020338845,0.11763148,0.11512146,0.082113095,-0.023107102,0.08785859,0.08225975,0.09565202,0.02804541,-0.08955098,0.042596653,-0.0112312045,0.08041153,-0.071393125,0.08200339,-0.041164104,-0.04601598,0.013687357,0.05973318,0.15486586,0.07551581,0.12012162,-0.107756935,0.14707123,0.5383644,0.3612895,1.4551162,0.7039986,-0.078085095,-0.59704095,0.4425254,-1.0024043,-0.67078763,0.45610127,-0.22047962,-0.2381125,0.26734424,1.1521913,-0.08863666,0.6651502,0.96666044,0.46207765,0.17737237
2025-07-21 14:11:20.465,2.4000000000000017,2400,120,-0.083630554,0.012903076,0.22106591,-0.022202771,0.04235272,0.037845057,0.0,0.0,0.0,0.0,-0.000115794865,-0.18572102,0.022055693,-0.06570139,-0.04347943,-0.008145085,0.12887709,0.09934293,0.089157864,0.00053053733,0.105391465,0.06575731,0.017097386,-0.120614916,0.059895508,-0.020404678,0.038358115,0.057809886,0.113032356,-0.12501058,0.045325488,-0.009529821,0.031535,-0.020404693,-1.0024043,-0.67078763,0.45610127,-0.22047962,-0.2381125,0.26734424,1.1521913,-0.08863666,0.6651502,0.96666044,0.46207765,0.17737237,0.594496,0.79922104,0.42610046,-0.22545399,-0.09762608,0.13765389,0.5508986,1.223729,-0.021191575,-0.634857,-1.1135808,0.27524436
2025-07-21 14:11:20.487,2.4200000000000017,2420,121,0.1091593,0.051277705,-0.091619335,0.052975405,0.07343755,0.0012988125,0.0,0.0,0.0,0.0,0.006815532,-0.18391028,0.013428893,-0.053174313,-0.046608385,-0.010791703,0.11770245,0.14142862,0.06411212,-0.0070962138,0.097380444,0.07000063,0.034531675,0.06404624,0.021072224,0.068534136,0.07227969,8.0819394e-05,-0.008481904,0.22309977,0.022563454,-0.07886749,-0.06382529,0.06411568,0.594496,0.79922104,0.42610046,-0.22545399,-0.09762608,0.13765389,0.5508986,1.223729,-0.021191575,-0.634857,-1.1135808,0.27524436,-0.49202853,-0.70218253,0.61160016,-0.7634703,-0.4334734,-0.7097289,0.31333047,-0.78195125,0.36157718,0.12589106,0.08466925,0.5667296
2025-07-21 14:11:20.509,2.4400000000000017,2440,122,-0.14946553,-0.028358312,0.082750276,-0.006937227,0.0711752,0.026859727,0.0,0.0,0.0,0.0,0.015834855,-0.17320904,0.03876784,-0.07017589,-0.076870576,-0.021465246,0.10936681,0.13543078,0.062750444,-0.015275795,0.09015435,0.061732214,-0.069525756,-0.113582626,0.047184866,-0.014279998,-0.051495697,-0.033613555,-0.08996825,-0.18405189,-0.06736448,-0.039858505,0.0388829,0.0032969161,-0.49202853,-0.70218253,0.61160016,-0.7634703,-0.4334734,-0.7097289,0.31333047,-0.78195125,0.36157718,0.12589106,0.08466925,0.5667296,0.28985855,0.20114094,0.25431135,-0.45607844,0.30498934,0.02994883,0.41073564,1.5012033,0.9166634,-0.058852434,-0.8078942,0.5725944
2025-07-21 14:11:20.526,2.4600000000000017,2460,123,0.080837764,-0.0027993028,-0.12393036,0.011822866,0.032469023,-0.024794327,0.0,0.0,0.0,0.0,0.02496157,-0.17866386,0.023965767,-0.07819701,-0.055880036,-0.026099192,0.0961027,0.13855623,0.072107896,-0.014348897,0.07121095,0.07684328,0.056087,0.0252925,-0.04146387,-0.011458596,0.013243485,-0.036026098,0.038824037,0.15367061,0.024635281,-0.039939284,-0.047784127,-0.04658727,0.28985855,0.20114094,0.25431135,-0.45607844,0.30498934,0.02994883,0.41073564,1.5012033,0.9166634,-0.058852434,-0.8078942,0.5725944,-0.70590806,-0.85133284,0.5979587,-0.36296356,-0.046133704,-0.09839553,0.93360883,-0.15632915,0.5367229,0.6465837,1.0555006,0.75563717
2025-07-21 14:11:20.546,2.4800000000000018,2480,124,-0.065751664,0.016678408,0.15741901,-0.042071167,-0.023793666,0.011163595,0.0,0.0,0.0,0.0,0.01015484,-0.17284779,0.040671088,-0.06882025,-0.034502357,-0.016715707,0.11167737,0.13106473,0.08027668,-0.008067498,0.08331356,0.061633904,-0.11602023,-0.08572548,-0.027237069,0.048791252,-0.037055463,0.02851394,0.0112096425,-0.09434817,-0.018218132,0.111609526,0.11405159,-0.029985571,-0.70590806,-0.85133284,0.5979587,-0.36296356,-0.046133704,-0.09839553,0.93360883,-0.15632915,0.5367229,0.6465837,1.0555006,0.75563717,0.21929552,0.29881933,0.31402144,-0.0554552,0.20279251,0.36505994,0.43410867,1.0383004,0.024548613,-0.33327973,-1.2390854,0.26075608
2025-07-21 14:11:20.565,2.5000000000000018,2500,125,0.118427,0.14499316,-0.057973787,-0.008017768,0.076058894,0.03385982,0.0,0.0,0.0,0.0,0.018398033,-0.16197354,0.023485815,-0.07415345,-0.021137731,-0.015342045,0.10949796,0.16245815,0.067233354,-0.01233208,0.100639574,0.07212812,-0.022845251,0.042067315,0.030213974,0.045262095,0.114255905,0.08294356,0.0036237899,0.12200988,-0.045803923,0.013577852,-0.06051183,-0.04868247,0.21929552,0.29881933,0.31402144,-0.0554552,0.20279251,0.36505994,0.43410867,1.0383004,0.024548613,-0.33327973,-1.2390854,0.26075608,-0.43273506,-0.7710532,0.8160576,-0.507869,-0.561907,-0.39847064,0.805855,-0.3975967,0.107150726,0.47614044,0.25541708,0.29382968
2025-07-21 14:11:20.588,2.520000000000002,2520,126,0.011150808,-0.010427723,0.14248726,0.03704934,-0.007918396,0.0056841346,0.0,0.0,0.0,0.0,0.013506031,-0.17953874,0.033020943,-0.06572919,-0.053998396,-0.024037356,0.09899573,0.1383058,0.05263791,0.002986988,0.099738054,0.049135678,-0.07537291,-0.0040364573,0.092028804,0.015039914,-0.07463777,0.049679413,0.08564091,-0.16088685,-0.086757414,-0.034961164,0.057443663,-0.037959646,-0.43273506,-0.7710532,0.8160576,-0.507869,-0.561907,-0.39847064,0.805855,-0.3975967,0.107150726,0.47614044,0.25541708,0.29382968,0.47091228,0.3109553,0.29371455,0.08084775,0.3758682,0.35555777,0.6785528,1.1942245,-0.00564868,-0.6257142,-1.6637903,0.027115948
2025-07-21 14:11:20.609,2.540000000000002,2540,127,-0.025739644,0.08965541,-0.12935916,0.0014427907,0.06982955,0.018677035,0.0,0.0,0.0,0.0,0.013621208,-0.16089642,0.040530376,-0.063348904,-0.032404438,-0.007309782,0.10062496,0.13845527,0.041577257,-0.02059056,0.0858601,0.04938445,0.03869583,0.124735616,-0.039458618,0.06804083,0.13047417,0.1035318,0.035803564,0.1259312,-0.011258623,-0.089266956,0.0041060806,0.011709194,0.47091228,0.3109553,0.29371455,0.08084775,0.3758682,0.35555777,0.6785528,1.1942245,-0.00564868,-0.6257142,-1.6637903,0.027115948,-0.7592066,-1.4039234,0.1151884,-0.23188357,-0.55430174,-0.28159088,0.46621495,-0.8947604,0.4463726,0.53584325,0.13566546,-0.10553769
2025-07-21 14:11:20.626,2.560000000000002,2560,128,-0.13755913,-0.20379399,0.036761433,0.036838584,0.06614766,0.041584294,0.0,0.0,0.0,0.0,0.011660875,-0.16978563,0.027369644,-0.065815926,-0.036814462,-0.0107682645,0.1096064,0.110730365,0.056511045,-0.006986402,0.06259209,0.025658118,-0.01613957,-0.1641798,-3.331076e-05,0.013742852,-0.09302674,-0.018156195,-0.050014563,-0.21446015,0.03543165,0.079141565,0.05901986,-0.099042445,-0.7592066,-1.4039234,0.1151884,-0.23188357,-0.55430174,-0.28159088,0.46621495,-0.8947604,0.4463726,0.53584325,0.13566546,-0.10553769,0.20682016,-0.355882,-0.511418,-0.23919806,0.3807321,0.15790507,0.4071492,1.6805019,1.7472705,-0.543799,0.24752055,0.7294038
2025-07-21 14:11:20.646,2.580000000000002,2580,129,-0.03711598,0.05013226,-0.059756085,-0.02096503,0.0031650825,-0.02331294,0.0,0.0,0.0,0.0,0.008846155,-0.17280601,-9.368448e-06,-0.060586434,-0.029995864,-0.004469257,0.094074436,0.092147656,0.07733547,-0.017566245,0.08320024,0.03787726,0.07157778,-0.042723075,-0.11627999,-0.025442498,0.07032441,0.06301748,-0.079683274,0.009104526,0.053977527,-0.084731705,0.08376778,-0.025634374,0.20682016,-0.355882,-0.511418,-0.23919806,0.3807321,0.15790507,0.4071492,1.6805019,1.7472705,-0.543799,0.24752055,0.7294038,-0.55722916,-0.2976988,0.32668254,-0.0042100158,-0.8889278,0.6907356,1.0115263,-0.08014851,1.3652362,-0.009165704,0.2810813,-0.76996005
2025-07-21 14:11:20.666,2.600000000000002,2600,130,-0.009425669,-0.007675946,0.025814837,0.042345896,0.043722864,-0.0068569193,0.0,0.0,0.0,0.0,0.008437609,-0.161892,0.005114421,-0.05862407,-0.01438839,0.012525707,0.11046932,0.08423887,0.110418536,-0.024770178,0.08086824,0.01625976,-0.0022089416,-0.00013864182,-0.054587185,-0.030619795,-0.039955206,-0.00491597,-0.013171126,-0.07864055,0.0434711,0.06013615,0.05126492,-0.070295855,-0.55722916,-0.2976988,0.32668254,-0.0042100158,-0.8889278,0.6907356,1.0115263,-0.08014851,1.3652362,-0.009165704,0.2810813,-0.76996005,0.16268821,-0.11821854,-0.6397095,0.008066246,-0.41218913,0.34773508,0.4289172,-0.1712997,1.5935472,-0.12229216,0.31350768,-0.18252671
2025-07-21 14:11:20.692,2.620000000000002,2620,131,0.01285581,-0.050591823,-0.048670553,0.0502462,-0.020037169,0.005628365,0.0,0.0,0.0,0.0,0.007877089,-0.15224762,-0.0214007,-0.060306046,-0.048672605,0.012226406,0.111182705,0.061575845,0.13267289,-0.026164137,0.09760608,0.004267125,0.043714367,-0.0290199,-0.045205127,-0.0063402825,-0.121945,-0.019939635,0.023664223,-0.008195197,0.077023886,0.059747875,0.08737897,-0.0073530776,0.16268821,-0.11821854,-0.6397095,0.008066246,-0.41218913,0.34773508,0.4289172,-0.1712997,1.5935472,-0.12229216,0.31350768,-0.18252671,-0.20844181,-0.08670068,-0.7801375,0.15893729,0.14880934,0.7628342,0.6135432,-0.8379465,1.6562673,0.1641114,0.19684382,-0.28076875
2025-07-21 14:11:20.709,2.640000000000002,2640,132,0.029347299,-0.024011012,0.15305622,0.020188874,-0.0075440737,-0.04525929,0.0,0.0,0.0,0.0,0.00529839,-0.1249027,-0.039321102,-0.050801445,-0.038407948,0.031162333,0.11888022,0.012859068,0.14247614,-0.011306862,0.08046669,-0.009051412,-0.003543319,0.06635452,-0.10845281,-0.0078029316,0.017038943,0.089666,-0.047808535,-0.12050409,0.11254511,0.05767498,0.007773778,-0.07906226,-0.20844181,-0.08670068,-0.7801375,0.15893729,0.14880934,0.7628342,0.6135432,-0.8379465,1.6562673,0.1641114,0.19684382,-0.28076875,0.61056465,-0.17295238,-1.1243979,0.19106226,-0.41743588,0.28479028,0.08934856,0.14303067,1.875869,-0.8740951,0.54364294,-0.4818207
2025-07-21 14:11:20.726,2.660000000000002,2660,133,0.054255612,0.016820773,-0.066288136,-0.02172491,0.04689501,-0.0219936,0.0,0.0,0.0,0.0,0.013071544,-0.11588947,-0.063211665,-0.04876262,-0.051011242,0.0181669,0.099535145,0.020430196,0.16583298,-0.03927294,0.107903056,-0.024283594,-0.0058712666,0.024061061,-0.0058963234,-0.033226777,-0.062528655,-0.0015859647,-0.052909415,0.0644546,0.04222626,-0.10529732,-0.011906278,-0.005598239,0.61056465,-0.17295238,-1.1243979,0.19106226,-0.41743588,0.28479028,0.08934856,0.14303067,1.875869,-0.8740951,0.54364294,-0.4818207,0.11858742,-0.34929696,-0.6762723,0.28314865,-0.1409763,0.5815114,0.72279096,-1.3628757,1.3228265,-0.5685611,0.26938856,-0.44647288
2025-07-21 14:11:20.746,2.680000000000002,2680,134,0.027519861,-0.15061177,0.030232769,-0.02388064,0.005325771,-0.01926859,0.0,0.0,0.0,0.0,0.01560238,-0.13198546,-0.057951048,-0.024348874,-0.057964277,0.021238647,0.11383349,-0.002557539,0.17984481,-0.04690194,0.118007384,-0.027624233,0.07146292,-0.0063960776,-0.07962007,0.002477665,-0.08453446,0.041700352,0.090977564,-0.0070136823,0.024600122,-0.0030758101,0.047214486,-0.032269627,0.11858742,-0.34929696,-0.6762723,0.28314865,-0.1409763,0.5815114,0.72279096,-1.3628757,1.3228265,-0.5685611,0.26938856,-0.44647288,0.36446798,0.21683097,-1.0359329,0.3365058,0.23930505,0.57875764,0.29962188,-0.75582683,1.3346984,-0.23498125,-0.29978704,0.05717594
2025-07-21 14:11:20.766,2.700000000000002,2700,135,-0.06641233,-0.056973934,0.13662495,0.03128209,-0.036196303,-0.048235115,0.0,0.0,0.0,0.0,0.034166057,-0.097023584,-0.09272432,-0.020090057,-0.045681622,0.040489487,0.11966477,-0.029221507,0.18435954,-0.042715773,0.06835007,-0.014597943,0.04802339,0.041565992,-0.09336126,-0.06099724,0.09476776,-0.046369717,0.067434914,-0.0270908,0.04996105,0.01604619,-0.12197063,-0.041347846,0.36446798,0.21683097,-1.0359329,0.3365058,0.23930505,0.57875764,0.29962188,-0.75582683,1.3346984,-0.23498125,-0.29978704,0.05717594,0.37645093,-0.37981325,-0.47236404,0.3280078,-1.2517536,-0.3949776,-0.15406117,0.31901762,1.4561317,-0.91575336,0.75977474,-0.0026855096
2025-07-21 14:11:20.792,2.720000000000002,2720,136,-0.050245367,-0.020821266,-0.073424965,0.060276605,0.04491518,-0.04194056,0.0,0.0,0.0,0.0,0.02521469,-0.10212922,-0.08677808,-0.019174896,-0.05787666,0.025646266,0.09518313,-0.020476706,0.1914707,-0.06652984,0.08717421,-0.025629142,0.015983416,-0.03331589,0.030112842,0.06849562,0.014211194,-0.098243855,-0.03602816,0.033649437,-0.0055738916,-0.06290655,0.050131056,0.019074809,0.37645093,-0.37981325,-0.47236404,0.3280078,-1.2517536,-0.3949776,-0.15406117,0.31901762,1.4561317,-0.91575336,0.75977474,-0.0026855096,0.06355645,0.0029684268,-0.19608098,0.011939356,-0.5896222,-0.0018254519,0.84185165,-0.63037604,0.7310135,-0.58142376,-0.359346,0.50799596
2025-07-21 14:11:20.809,2.740000000000002,2740,137,-0.09975299,-0.062427815,-0.10898173,-0.020423524,-0.04385744,-0.019870559,0.0,0.0,0.0,0.0,0.023722105,-0.08034411,-0.08261745,-0.0127689075,-0.08161526,0.006296729,0.113969184,-0.033690993,0.17011729,-0.062088124,0.072284415,-0.00041239389,0.03375312,-0.020904511,-0.040754974,-0.074447,-0.09912872,-0.054714628,-0.03444236,-0.03617743,0.023130191,-0.08674271,-0.058046397,0.030973352,0.06355645,0.0029684268,-0.19608098,0.011939356,-0.5896222,-0.0018254519,0.84185165,-0.63037604,0.7310135,-0.58142376,-0.359346,0.50799596,-0.20449446,-0.21366742,-0.919124,0.11071644,0.55085206,0.36744276,0.6173975,-0.43081787,1.4204662,-0.07633594,0.56845325,0.2683708
2025-07-21 14:11:20.827,2.760000000000002,2760,138,-0.08551598,0.048406467,0.11833621,-0.021376,-0.010346837,-0.011126669,0.0,0.0,0.0,0.0,0.018657677,-0.08051922,-0.09740884,-0.021669285,-0.08007095,0.012682697,0.10662934,-0.04035094,0.17383577,-0.06679728,0.091455795,0.0006888346,0.015241787,0.030169167,-0.064401895,-0.0070497487,0.017145457,-0.03815664,-0.036493894,-0.11848385,0.011892192,0.06569027,0.008171686,-0.03526867,-0.20449446,-0.21366742,-0.919124,0.11071644,0.55085206,0.36744276,0.6173975,-0.43081787,1.4204662,-0.07633594,0.56845325,0.2683708,0.39897144,-0.23253208,-0.85599196,0.44043577,-0.10729732,0.19744763,0.124091715,0.5249061,1.3178263,-0.40296113,0.10106726,0.15641612
2025-07-21 14:11:20.847,2.780000000000002,2780,139,0.03986495,0.12772332,-0.09234389,0.035682455,0.0037461666,-0.047347944,0.0,0.0,0.0,0.0,0.023202008,-0.08409002,-0.09865619,-0.012296156,-0.07161647,0.01713304,0.112785794,-0.020712774,0.17087243,-0.06269279,0.084953435,0.008135769,0.040019475,0.0030285344,0.005012478,0.070399694,0.057262167,-0.037080698,0.05657628,0.03618036,0.0083375815,-0.052895833,-0.079707526,-0.066369906,0.39897144,-0.23253208,-0.85599196,0.44043577,-0.10729732,0.19744763,0.124091715,0.5249061,1.3178263,-0.40296113,0.10106726,0.15641612,0.27398145,-0.5517462,-0.23510924,0.019646415,-0.41252786,0.118290246,0.9511095,-1.1582581,0.9873465,-0.7536364,0.50996983,-0.07156872
2025-07-21 14:11:20.867,2.800000000000002,2800,140,0.0073446943,-0.12174895,0.034659576,-0.014749784,0.010618662,0.007699429,0.0,0.0,0.0,0.0,0.0347407,-0.1074496,-0.091129296,-0.016841339,-0.079573095,0.013991513,0.121846035,-0.025878578,0.1695879,-0.071523465,0.0992405,0.001686084,-0.0021440715,0.0069211433,-0.014395445,-0.03711394,0.033276,0.015710345,0.09146501,0.02070509,-0.04561173,-0.030323345,0.116620325,0.048613105,0.27398145,-0.5517462,-0.23510924,0.019646415,-0.41252786,0.118290246,0.9511095,-1.1582581,0.9873465,-0.7536364,0.50996983,-0.07156872,0.16720952,0.14377925,-0.47302184,0.3371795,-0.43846583,0.29169402,0.31585687,-0.4779146,0.66169196,-0.045664698,-0.96009356,0.28994814
2025-07-21 14:11:20.893,2.820000000000002,2820,141,-0.055282623,-0.0017200635,-0.052631166,0.037609383,0.016831268,0.03274996,0.0,0.0,0.0,0.0,0.033786666,-0.11367454,-0.10062055,-0.0028112994,-0.085960284,-0.00075109577,0.11877032,-0.036026116,0.16794935,-0.06919361,0.07177185,0.0121272085,-0.043777686,0.09443605,-0.07002462,0.071954556,-0.08249825,-0.05500476,-0.0065039406,-0.0005315735,0.03315174,0.05346634,-0.21803941,0.06881571,0.16720952,0.14377925,-0.47302184,0.3371795,-0.43846583,0.29169402,0.31585687,-0.4779146,0.66169196,-0.045664698,-0.96009356,0.28994814,0.31809762,-0.37539932,-0.5865698,-0.15297793,0.38150963,-0.09260774,0.44146836,0.31525135,1.0294871,-0.5344056,1.1403799,0.907547
