openverse-orca/OrcaGym/log/simulation_log_20250605_141210.csv
timestamp,imu_angle_roll,imu_angle_pitch,imu_angle_yaw,imu_angular_velocity_roll,imu_angular_velocity_pitch,imu_angular_velocity_yaw,imu_acc_x,imu_acc_y,imu_acc_z,fl_joint1_pos,fl_joint1_vel,fl_joint1_torque,fl_joint2_pos,fl_joint2_vel,fl_joint2_torque,fl_joint3_pos,fl_joint3_vel,fl_joint3_torque,fr_joint1_pos,fr_joint1_vel,fr_joint1_torque,fr_joint2_pos,fr_joint2_vel,fr_joint2_torque,fr_joint3_pos,fr_joint3_vel,fr_joint3_torque,hl_joint1_pos,hl_joint1_vel,hl_joint1_torque,hl_joint2_pos,hl_joint2_vel,hl_joint2_torque,hl_joint3_pos,hl_joint3_vel,hl_joint3_torque,hr_joint1_pos,hr_joint1_vel,hr_joint1_torque,hr_joint2_pos,hr_joint2_vel,hr_joint2_torque,hr_joint3_pos,hr_joint3_vel,hr_joint3_torque,fl_force_x,fl_force_y,fl_force_z,fr_force_x,fr_force_y,fr_force_z,hl_force_x,hl_force_y,hl_force_z,hr_force_x,hr_force_y,hr_force_z,fl_hip_action,fl_thigh_action,fl_calf_action,fr_hip_action,fr_thigh_action,fr_calf_action,hl_hip_action,hl_thigh_action,hl_calf_action,hr_hip_action,hr_thigh_action,hr_calf_action
2025-06-05 14:12:11.088,0.03327121,-0.031529363,0.037682176,0.03507499,0.043593165,0.037458368,-0.9128141,1.4314374,0.0,0.0,0.006085713,-0.006336135,0.0019444351,0.0054972237,0.0002515781,0.0033774609,-0.0076662246,-0.0021167682,0.0074473093,0.00804829,-0.000120473,-0.008771828,0.021509223,-0.049082756,0.036605533,0.0064265444,0.013728229,-0.039352395,-0.0012452697,0.051541105,-0.06143779,-0.03878577,-0.06387461,0.061159905,0.0,0.0,0.0,0.0,0.0,0.0,0.0,0.0,0.0,0.0,0.0,0.0,2.0,2.0,-2.0,-2.0,2.0,-2.0,2.0,-2.0,-2.0,2.0,-2.0,-2.0
2025-06-05 14:12:11.093,-0.034683745,-0.09559065,-0.012422004,0.008847967,-0.008042407,-0.03889362,0.0,0.0,0.0,0.0,0.015146256,0.069552295,-0.041756913,-0.012274302,0.06466785,-0.04387285,0.022267511,-0.062993795,-0.044559397,0.006615549,-0.05382736,-0.02719171,0.11332221,0.18699555,-0.09921853,0.015711574,0.112532645,-0.1389447,0.046053726,-0.12440664,-0.16571198,0.092094705,-0.2532021,-0.17194358,2.0,2.0,-2.0,-2.0,2.0,-2.0,2.0,-2.0,-2.0,2.0,-2.0,-2.0,2.0,2.0,-2.0,-2.0,2.0,-2.0,2.0,-2.0,-2.0,2.0,-2.0,-2.0
2025-06-05 14:12:11.113,-0.046594862,-0.09454283,-0.010631857,0.05255017,-0.026914377,0.038657084,0.0,0.0,0.0,0.00015600362,0.02032066,0.13802683,-0.07582607,-0.029243367,0.11229047,-0.082815245,0.023085883,-0.13360815,-0.0741042,0.026690418,-0.13945432,-0.084547415,0.06508071,0.12753373,-0.027381783,-0.05441142,0.050378412,-0.02001715,0.033655025,-0.14773333,-0.030087892,-0.0101294005,-0.09185965,-0.115632005,2.0,2.0,-2.0,-2.0,2.0,-2.0,2.0,-2.0,-2.0,2.0,-2.0,-2.0,2.0,2.0,-2.0,-2.0,2.0,-2.0,2.0,-2.0,-2.0,2.0,-2.0,-2.0
2025-06-05 14:12:11.135,-0.038841773,-0.13848518,-0.02224619,-0.024874875,-0.0033575534,0.031031404,0.0,0.0,0.0,0.00043730417,0.022275956,0.15516935,-0.10109466,-0.02636159,0.13719225,-0.08081695,0.028789008,-0.1798591,-0.07693471,0.03937947,-0.17666335,-0.083227076,-0.013234937,-0.002664504,-0.00017159837,0.05051752,0.06646883,0.004373532,0.07374819,-0.01806359,-0.007866398,0.050290935,-0.123370126,0.007461561,2.0,2.0,-2.0,-2.0,2.0,-2.0,2.0,-2.0,-2.0,2.0,-2.0,-2.0,2.0,2.0,-2.0,-2.0,2.0,-2.0,2.0,-2.0,-2.0,2.0,-2.0,-2.0
2025-06-05 14:12:11.153,-0.08794395,-0.06922574,-0.0857348,-0.009602785,-0.029419992,-0.0066305334,0.0,0.0,0.0,0.0011817975,0.04003146,0.15525694,-0.11030159,-0.02574084,0.14830565,-0.09265624,0.037353773,-0.19764893,-0.060983554,0.046057157,-0.2099372,-0.076750785,0.00643625,-0.03923492,-0.028315231,0.003764206,-0.0014169418,-0.07637299,0.0805467,-0.12621254,-0.001249166,0.046088967,-0.045994803,-0.01998837,2.0,2.0,-2.0,-2.0,2.0,-2.0,2.0,-2.0,-2.0,2.0,-2.0,-2.0,2.0,2.0,-2.0,-2.0,2.0,-2.0,2.0,-2.0,-2.0,2.0,-2.0,-2.0
2025-06-05 14:12:11.175,-0.0011918455,-0.11403448,-0.10662876,0.014271367,-0.06035529,0.002685564,0.0,0.0,0.0,0.002306513,0.040702123,0.18079072,-0.13397269,-0.01654141,0.18518406,-0.10809823,0.055641443,-0.23327023,-0.05152007,0.07109123,-0.23998846,-0.09900282,0.018436221,-0.013160213,-0.05688886,-0.022335086,0.06984208,0.027289381,-0.021073619,-0.024602309,0.0644431,0.041245226,-0.054421473,-0.0026148579,2.0,2.0,-2.0,-2.0,2.0,-2.0,2.0,-2.0,-2.0,2.0,-2.0,-2.0,2.0,2.0,-2.0,-2.0,2.0,-2.0,2.0,-2.0,-2.0,2.0,-2.0,-2.0
2025-06-05 14:12:11.195,-0.038947627,-0.18407291,-0.16401519,0.047317937,-0.039526973,-0.047299534,0.0,0.0,0.0,0.0038538973,0.025290566,0.21788172,-0.1525361,-0.009428648,0.20068976,-0.13574669,0.06239164,-0.25957704,-0.055282414,0.06472468,-0.2913192,-0.13393883,0.049303666,0.022556916,-0.015426548,0.0241375,0.130454,-0.10075463,0.0030118313,-0.019195508,-0.14138311,-0.03256352,-0.039149653,-0.057295922,2.0,2.0,-2.0,-2.0,2.0,-2.0,2.0,-2.0,-2.0,2.0,-2.0,-2.0,2.0,2.0,-2.0,-2.0,2.0,-2.0,2.0,-2.0,-2.0,2.0,-2.0,-2.0
2025-06-05 14:12:11.218,-0.102712445,-0.120914966,-0.10380218,0.0776199,-0.008208283,-0.024753872,0.0,0.0,0.0,0.006030588,0.039043676,0.24947624,-0.1682116,-0.018502867,0.2428529,-0.13722533,0.075380206,-0.27717966,-0.07641912,0.080509044,-0.31165585,-0.15743665,0.0010141577,0.1488429,-0.088135086,0.037018698,0.0952931,-0.061018832,-0.042455003,-0.013026735,-0.069356084,-0.027287312,-0.090701714,-0.116961226,2.0,2.0,-2.0,-2.0,2.0,-2.0,2.0,-2.0,-2.0,2.0,-2.0,-2.0,2.0,2.0,-2.0,-2.0,2.0,-2.0,2.0,-2.0,-2.0,2.0,-2.0,-2.0
2025-06-05 14:12:11.235,-0.11561612,-0.114645064,-0.14390957,0.048746385,-0.031344928,0.01368998,0.0,0.0,0.0,0.008855613,0.05113523,0.29772422,-0.18138066,-0.039697215,0.27022025,-0.15589543,0.07674598,-0.30906302,-0.08572828,0.07363631,-0.33782303,-0.16601947,0.064214855,0.09551245,-0.01082218,-0.014788595,0.07749311,0.024428727,0.07668897,-0.030145414,0.012938571,-0.021631833,-0.05288702,-0.048588827,2.0,2.0,-2.0,-2.0,2.0,-2.0,2.0,-2.0,-2.0,2.0,-2.0,-2.0,2.0,2.0,-2.0,-2.0,2.0,-2.0,2.0,-2.0,-2.0,2.0,-2.0,-2.0
2025-06-05 14:12:11.256,-0.026633738,-0.0047235936,-0.10924593,0.042780355,-0.101286344,-0.013779289,0.0,0.0,0.0,0.0124611715,0.056078758,0.33340952,-0.194583,-0.04378698,0.27824762,-0.1523478,0.07539968,-0.3112002,-0.056792084,0.07746741,-0.3669157,-0.18332249,-0.059373897,0.12347848,0.00053170114,-0.08920595,0.12562582,-0.057650715,0.04075224,-0.080926895,0.08125553,0.0673482,-0.0045458544,-0.038064606,2.0,2.0,-2.0,-2.0,2.0,-2.0,2.0,-2.0,-2.0,2.0,-2.0,-2.0,2.0,2.0,-2.0,-2.0,2.0,-2.0,2.0,-2.0,-2.0,2.0,-2.0,-2.0
2025-06-05 14:12:11.276,0.07820417,-0.04537564,-0.102782235,0.017266804,-0.040703513,0.008678616,0.0,0.0,0.0,0.01599618,0.05544685,0.3508454,-0.19892228,-0.05692009,0.30393758,-0.15383612,0.079215236,-0.32862207,-0.046518512,0.08493469,-0.3695521,-0.18792194,0.05612046,0.03842589,0.05362477,0.007840292,0.11200724,0.040913384,0.011338101,0.0050794585,0.08261454,0.008879621,-0.008217859,-0.031213831,2.0,2.0,-2.0,-2.0,2.0,-2.0,2.0,-2.0,-2.0,2.0,-2.0,-2.0,2.0,2.0,-2.0,-2.0,2.0,-2.0,2.0,-2.0,-2.0,2.0,-2.0,-2.0
2025-06-05 14:12:11.296,0.0032641308,-0.10240467,-0.10790945,0.027746025,-0.035285782,0.030506715,0.0,0.0,0.0,0.018431487,0.052627392,0.35434493,-0.20938887,-0.047678057,0.33287498,-0.15695435,0.08518555,-0.3383168,-0.038246952,0.09346925,-0.385524,-0.17766872,0.024560055,-0.012778144,-0.055255093,0.022859428,0.08147898,0.026669024,0.015705962,-0.08255962,0.017355438,-2.2501117e-05,-0.09464888,-0.038462885,2.0,2.0,-2.0,-2.0,2.0,-2.0,2.0,-2.0,-2.0,2.0,-2.0,-2.0,2.0,2.0,-2.0,-2.0,2.0,-2.0,2.0,-2.0,-2.0,2.0,-2.0,-2.0
2025-06-05 14:12:11.318,-0.051015824,-0.0018031949,-0.033137284,0.11179061,-0.008115964,0.041491035,0.0,0.0,0.0,0.020230044,0.049208753,0.37436053,-0.21330056,-0.057770893,0.34294656,-0.16144134,0.099281475,-0.33633637,-0.036798317,0.107865825,-0.39926645,-0.17733632,0.051202446,-0.011466276,-0.044195663,0.00041810243,0.05829603,-0.043374516,0.046400245,-0.068397254,-0.035028715,0.0020782761,-0.0005698634,0.028842285,2.0,2.0,-2.0,-2.0,2.0,-2.0,2.0,-2.0,-2.0,2.0,-2.0,-2.0,2.0,2.0,-2.0,-2.0,2.0,-2.0,2.0,-2.0,-2.0,2.0,-2.0,-2.0
2025-06-05 14:12:11.336,-0.0076435707,-0.021204505,-0.021249037,0.08450323,-0.045418743,-0.042386588,0.0,0.0,0.0,0.021679718,0.0580223,0.38522026,-0.22963892,-0.066511504,0.35354823,-0.1495159,0.07985571,-0.3430046,-0.026400162,0.10326889,-0.41204762,-0.17832392,0.06263675,0.0064632366,0.05796152,0.013233314,-0.023167651,-0.029981684,0.050272137,0.010040894,-0.051220894,-0.04118453,-0.030753732,0.002398727,2.0,2.0,-2.0,-2.0,2.0,-2.0,2.0,-2.0,-2.0,2.0,-2.0,-2.0,2.0,2.0,-2.0,-2.0,2.0,-2.0,2.0,-2.0,-2.0,2.0,-2.0,-2.0
2025-06-05 14:12:11.357,0.020666942,-0.02766808,-0.10844042,0.04716678,-0.102724776,0.0008968353,0.0,0.0,0.0,0.02300435,0.06410069,0.40135276,-0.22266188,-0.07049412,0.3650106,-0.16406082,0.07914675,-0.34975734,-0.029689888,0.11077789,-0.40655637,-0.17220037,0.06098033,0.047737468,0.052590363,-0.03317421,0.07072341,-0.013176195,0.0023293537,0.035221975,0.073481925,-0.005024925,-0.08845407,-0.04089639,2.0,2.0,-2.0,-2.0,2.0,-2.0,2.0,-2.0,-2.0,2.0,-2.0,-2.0,2.0,2.0,-2.0,-2.0,2.0,-2.0,2.0,-2.0,-2.0,2.0,-2.0,-2.0
2025-06-05 14:12:11.376,0.029681262,-0.04048182,-0.047053516,0.036603644,-0.07740107,-0.035896674,0.0,0.0,0.0,0.024268566,0.06765761,0.42357698,-0.2237025,-0.07300266,0.37924314,-0.16536193,0.09477873,-0.3703222,-0.035529535,0.11893441,-0.42543015,-0.16100165,0.07198448,0.02300539,0.017598191,-0.06262454,0.081763856,0.010466957,-0.06823437,-0.053595506,0.004576828,-0.043310136,-0.07830133,-0.02539382,2.0,2.0,-2.0,-2.0,2.0,-2.0,2.0,-2.0,-2.0,2.0,-2.0,-2.0,2.0,2.0,-2.0,-2.0,2.0,-2.0,2.0,-2.0,-2.0,2.0,-2.0,-2.0
2025-06-05 14:12:11.397,0.022873001,-0.013603007,-0.05064575,0.046700004,-0.0887901,0.03786589,0.0,0.0,0.0,0.025304222,0.06612848,0.4279719,-0.23819615,-0.07409226,0.37471718,-0.16222449,0.083281115,-0.36752844,-0.031278186,0.11597577,-0.42631567,-0.16338395,-0.035065915,0.0020952562,0.01799128,-0.028053248,-0.055126633,0.019208958,0.020956974,-0.032758195,0.007873016,-0.05005376,0.008649318,0.07793107,2.0,2.0,-2.0,-2.0,2.0,-2.0,2.0,-2.0,-2.0,2.0,-2.0,-2.0,2.0,2.0,-2.0,-2.0,2.0,-2.0,2.0,-2.0,-2.0,2.0,-2.0,-2.0
2025-06-05 14:12:11.418,0.045923214,-0.04258971,-0.03266029,0.09362525,-0.033313215,-0.017720371,0.0,0.0,0.0,0.026208457,0.0700317,0.43489936,-0.23714383,-0.08124334,0.3992556,-0.15658659,0.082360215,-0.3817752,-0.029468419,0.12881622,-0.41737464,-0.17129068,-0.06273483,-0.025500024,-0.02639282,-0.046072476,0.053562064,0.035668053,-0.007938344,0.046449147,-0.04113596,0.0003042826,-0.027721602,0.03490746,2.0,2.0,-2.0,-2.0,2.0,-2.0,2.0,-2.0,-2.0,2.0,-2.0,-2.0,2.0,2.0,-2.0,-2.0,2.0,-2.0,2.0,-2.0,-2.0,2.0,-2.0,-2.0
2025-06-05 14:12:11.436,0.041898534,-0.032813177,-0.025938943,0.101475,-0.042234346,0.0374188,0.0,0.0,0.0,0.026944784,0.06751539,0.4378807,-0.23369329,-0.09002833,0.39501306,-0.16544363,0.08352521,-0.38352665,-0.044290725,0.1304992,-0.4213029,-0.16822393,0.002352319,-0.04790845,0.012960384,-0.00865456,-0.016780669,0.02368757,-0.05117943,-0.08514209,-0.02674545,0.0635625,-0.02353114,-0.044293344,2.0,2.0,-2.0,-2.0,2.0,-2.0,2.0,-2.0,-2.0,2.0,-2.0,-2.0,2.0,2.0,-2.0,-2.0,2.0,-2.0,2.0,-2.0,-2.0,2.0,-2.0,-2.0
2025-06-05 14:12:11.456,0.028793069,0.007214905,0.0016784838,0.07614608,-0.04932235,0.046158224,0.0,0.0,0.0,0.027548024,0.06474704,0.43514532,-0.23397094,-0.07707972,0.39397362,-0.14639854,0.0833919,-0.38187626,-0.039352696,0.12857406,-0.42480418,-0.16787684,-0.009514467,0.005215737,-0.03252754,0.068025544,0.04843059,0.032748867,0.021137454,-0.08706101,-0.024689302,0.029242748,-0.03816402,0.023771316,2.0,2.0,-2.0,-2.0,2.0,-2.0,2.0,-2.0,-2.0,2.0,-2.0,-2.0,2.0,2.0,-2.0,-2.0,2.0,-2.0,2.0,-2.0,-2.0,2.0,-2.0,-2.0
2025-06-05 14:12:11.476,-0.013960456,-0.01205994,-0.0028676365,0.06804249,-0.08413911,-0.00017170259,0.0,0.0,0.0,0.028083147,0.0690817,0.43530914,-0.2313758,-0.07351439,0.41134116,-0.15442823,0.08610755,-0.39384294,-0.046605047,0.12328921,-0.4402509,-0.1716915,-0.05459101,0.013684177,0.043834373,-0.043235756,-0.028865116,-0.041012503,-0.015068732,0.024891485,-0.0063689463,-0.062288843,0.056453265,-0.024366241,2.0,2.0,-2.0,-2.0,2.0,-2.0,2.0,-2.0,-2.0,2.0,-2.0,-2.0,2.0,2.0,-2.0,-2.0,2.0,-2.0,2.0,-2.0,-2.0,2.0,-2.0,-2.0
2025-06-05 14:12:11.496,0.03981523,0.031677328,-0.0318859,0.061257724,-0.06496798,0.02571357,0.0,0.0,0.0,0.028573655,0.078229815,0.43262038,-0.23510829,-0.08076411,0.40507331,-0.15897202,0.07586869,-0.39466983,-0.04795698,0.13345307,-0.43852943,-0.16418041,0.00043975914,-0.026902875,-0.02249288,0.070630535,0.021320283,0.018906526,-0.011022648,-0.0038781485,0.00024401126,-0.04761551,-0.064808466,-0.05980458,2.0,2.0,-2.0,-2.0,2.0,-2.0,2.0,-2.0,-2.0,2.0,-2.0,-2.0,2.0,2.0,-2.0,-2.0,2.0,-2.0,2.0,-2.0,-2.0,2.0,-2.0,-2.0
2025-06-05 14:12:11.516,0.03285807,0.008226744,0.010745917,0.115895644,-0.07814335,0.029063784,0.0,0.0,0.0,0.029027876,0.07094082,0.44280154,-0.24235292,-0.07506966,0.41605812,-0.16039473,0.07059523,-0.392817,-0.055001825,0.13167982,-0.43584365,-0.16773559,0.037867762,0.059726365,0.06377592,-0.06308228,0.0014295725,0.003468382,0.015479799,0.034390993,-0.06452324,-0.008243496,-0.05024669,-0.030482685,2.0,2.0,-2.0,-2.0,2.0,-2.0,2.0,-2.0,-2.0,2.0,-2.0,-2.0,2.0,2.0,-2.0,-2.0,2.0,-2.0,2.0,-2.0,-2.0,2.0,-2.0,-2.0
2025-06-05 14:12:11.536,0.0030821622,-0.04503796,0.015544124,0.051405556,-0.07500698,0.027720898,0.0,0.0,0.0,0.029452153,0.0713846,0.43798676,-0.22888936,-0.07424676,0.410827,-0.16195041,0.083958514,-0.39999914,-0.056314025,0.13061689,-0.43038324,-0.16641572,0.0086053815,-0.036041554,0.036139727,-0.068117894,-0.037303176,0.03433149,0.04206484,-0.03802883,-0.07050094,-0.04877815,-0.032444943,-0.027490523,2.0,2.0,-2.0,-2.0,2.0,-2.0,2.0,-2.0,-2.0,2.0,-2.0,-2.0,2.0,2.0,-2.0,-2.0,2.0,-2.0,2.0,-2.0,-2.0,2.0,-2.0,-2.0
2025-06-05 14:12:11.556,0.01590611,-0.045489177,0.0007279109,0.048662234,-0.08601338,-0.03692144,0.0,0.0,0.0,0.029853547,0.063381575,0.43346682,-0.23642355,-0.08740459,0.424961,-0.14447919,0.0775597,-0.40954673,-0.07584457,0.12082023,-0.43339023,-0.17744021,-0.014169915,0.05334773,0.0677647,-1.0104166e-05,0.051771063,0.0027160374,-0.02950243,0.048160963,-0.033666216,0.013947182,0.04117197,0.0031080688,2.0,2.0,-2.0,-2.0,2.0,-2.0,2.0,-2.0,-2.0,2.0,-2.0,-2.0,2.0,2.0,-2.0,-2.0,2.0,-2.0,2.0,-2.0,-2.0,2.0,-2.0,-2.0
2025-06-05 14:12:11.577,-0.04019918,0.03999412,-0.019270241,0.058342516,-0.102306314,-0.030683145,0.0,0.0,0.0,0.03023839,0.063335836,0.44420746,-0.22639905,-0.07335805,0.41965201,-0.1507213,0.08032177,-0.4116701,-0.07058169,0.12613499,-0.4438044,-0.16568696,0.041989125,0.07360966,-0.067755915,0.017748108,-0.05658326,0.059425846,-0.048659932,-0.06406479,0.049330626,-0.049985617,-0.07070051,0.028956126,2.0,2.0,-2.0,-2.0,2.0,-2.0,2.0,-2.0,-2.0,2.0,-2.0,-2.0,2.0,2.0,-2.0,-2.0,2.0,-2.0,2.0,-2.0,-2.0,2.0,-2.0,-2.0
2025-06-05 14:12:11.597,0.047155805,0.03841333,-0.028774353,0.08184382,-0.07458316,-0.023071542,0.0,0.0,0.0,0.030611146,0.07756593,0.42802957,-0.23267716,-0.08800769,0.4229667,-0.1501757,0.067074835,-0.426085,-0.08482205,0.12022747,-0.44902244,-0.17836826,-0.010184812,-0.049282867,0.013118454,-0.028598003,-0.061311755,-0.038039166,-0.063087724,0.009050131,0.053627368,0.04226759,-0.06391314,-0.037178073,2.0,2.0,-2.0,-2.0,2.0,-2.0,2.0,-2.0,-2.0,2.0,-2.0,-2.0,2.0,2.0,-2.0,-2.0,2.0,-2.0,2.0,-2.0,-2.0,2.0,-2.0,-2.0
2025-06-05 14:12:11.618,-0.012125711,-0.0074414588,-0.051592782,0.061581504,-0.011377446,-0.049054228,0.0,0.0,0.0,0.030974364,0.06574245,0.44491813,-0.22287534,-0.08671512,0.420383,-0.14730246,0.076720305,-0.4147604,-0.08222074,0.12727584,-0.44604662,-0.18304041,-0.003978392,-0.020382546,-0.07054265,-0.012205013,0.039934803,-0.031246673,-0.04899143,0.059437934,-0.083625406,-0.06201504,-0.038874205,-0.05641109,2.0,2.0,-2.0,-2.0,2.0,-2.0,2.0,-2.0,-2.0,2.0,-2.0,-2.0,2.0,2.0,-2.0,-2.0,2.0,-2.0,2.0,-2.0,-2.0,2.0,-2.0,-2.0
2025-06-05 14:12:11.637,0.038542338,0.034611125,-0.02949647,0.070405714,-0.057805587,-0.017208772,0.0,0.0,0.0,0.031328853,0.08256083,0.42951605,-0.23157667,-0.077600725,0.42104477,-0.14788872,0.06991172,-0.42234254,-0.07815299,0.14002258,-0.4597783,-0.1804661,-0.010152012,-0.0699271,-0.054536507,-0.036402483,-0.014672976,-0.07240238,-0.05516884,0.031668194,-0.05053212,-0.018612683,0.0340334,-0.056624193,2.0,2.0,-2.0,-2.0,2.0,-2.0,2.0,-2.0,-2.0,2.0,-2.0,-2.0,2.0,2.0,-2.0,-2.0,2.0,-2.0,2.0,-2.0,-2.0,2.0,-2.0,-2.0
2025-06-05 14:12:11.658,-0.009618184,-0.009116523,-0.031242844,0.07046105,-0.09046635,-0.04536063,0.0,0.0,0.0,0.031674728,0.06477106,0.4460116,-0.23351152,-0.07131514,0.4275568,-0.15316238,0.07794221,-0.43476954,-0.0808656,0.12106282,-0.45930684,-0.17591168,-0.05208763,-0.017230323,0.029410437,0.0016180259,-0.0682784,-0.010136727,0.034784775,0.033970524,0.045344535,0.052416377,-0.02624946,0.05435353,2.0,2.0,-2.0,-2.0,2.0,-2.0,2.0,-2.0,-2.0,2.0,-2.0,-2.0,2.0,2.0,-2.0,-2.0,2.0,-2.0,2.0,-2.0,-2.0,2.0,-2.0,-2.0
2025-06-05 14:12:11.677,-0.009811408,-0.02073516,0.022766218,0.10678319,-0.03413192,-0.032709558,0.0,0.0,0.0,0.032011576,0.07923209,0.43949726,-0.23159677,-0.0873824,0.43214303,-0.14823057,0.077650905,-0.43875602,-0.09583719,0.1234676,-0.4495262,-0.17298037,0.075443365,0.055160526,0.05103209,-0.029899212,-0.056295905,0.0101541355,-0.0108755315,-0.024740411,0.03596895,0.046070457,-0.06015448,0.0706175,2.0,2.0,-2.0,-2.0,2.0,-2.0,2.0,-2.0,-2.0,2.0,-2.0,-2.0,2.0,2.0,-2.0,-2.0,2.0,-2.0,2.0,-2.0,-2.0,2.0,-2.0,-2.0
2025-06-05 14:12:11.697,-0.028369898,0.039717525,0.016343925,0.07354778,-0.026122525,-0.01175249,0.0,0.0,0.0,0.03233808,0.068565905,0.4347457,-0.21578333,-0.07390717,0.43242228,-0.15041335,0.078872666,-0.43149447,-0.09882259,0.13706611,-0.45268166,-0.17052771,-0.07294753,0.05976991,-0.0016596402,-0.042812783,-0.06561741,0.012162304,-0.04031699,-0.026702818,-0.08044767,1.0924245e-05,-0.06714992,0.020041008,2.0,2.0,-2.0,-2.0,2.0,-2.0,2.0,-2.0,-2.0,2.0,-2.0,-2.0,2.0,2.0,-2.0,-2.0,2.0,-2.0,2.0,-2.0,-2.0,2.0,-2.0,-2.0
2025-06-05 14:12:11.718,-0.012014034,-0.0029867229,-0.05151275,0.1156626,-0.07010795,-0.037860576,0.0,0.0,0.0,0.03265252,0.074433535,0.44878614,-0.22245026,-0.08812595,0.42896238,-0.1500966,0.067461744,-0.42828876,-0.10267921,0.13810377,-0.46383733,-0.17247882,0.022612639,0.023373151,0.04651827,0.042660613,-0.051616684,-0.05932189,-0.013969577,-0.011836084,-0.023214424,-0.07222883,0.03444301,0.032794736,2.0,2.0,-2.0,-2.0,2.0,-2.0,2.0,-2.0,-2.0,2.0,-2.0,-2.0,2.0,2.0,-2.0,-2.0,2.0,-2.0,2.0,-2.0,-2.0,2.0,-2.0,-2.0
2025-06-05 14:12:11.738,0.0072309594,-0.040274404,0.0104374215,0.089022286,-0.07032429,0.023244856,0.0,0.0,0.0,0.032953262,0.06677068,0.4476561,-0.22113352,-0.085588336,0.44372714,-0.15617898,0.07661668,-0.42907515,-0.110247746,0.12747706,-0.4543255,-0.18462612,0.0027761776,-0.0068416246,-0.051079392,0.046857715,0.054255057,0.026475772,0.02809133,0.03416475,-0.057963964,0.05750621,-0.0066243615,0.034869112,2.0,2.0,-2.0,-2.0,2.0,-2.0,2.0,-2.0,-2.0,2.0,-2.0,-2.0,2.0,2.0,-2.0,-2.0,2.0,-2.0,2.0,-2.0,-2.0,2.0,-2.0,-2.0
2025-06-05 14:12:11.758,-0.03267,-0.040433858,0.014397536,0.09242023,-0.07059699,-0.016916435,0.0,0.0,0.0,0.03323901,0.075149976,0.4510325,-0.23050943,-0.084663436,0.44227618,-0.14084573,0.06505806,-0.44365063,-0.09555991,0.12942249,-0.46779376,-0.1706747,0.009144691,-0.00044968646,-0.046186585,0.038856775,-0.054307055,0.002877888,-0.05638539,-0.050359804,0.03892185,-0.020100111,-0.04192667,-0.048136868,2.0,2.0,-2.0,-2.0,2.0,-2.0,2.0,-2.0,-2.0,2.0,-2.0,-2.0,2.0,2.0,-2.0,-2.0,2.0,-2.0,2.0,-2.0,-2.0,2.0,-2.0,-2.0
2025-06-05 14:12:11.778,0.0042275195,0.04379816,-0.05057575,0.12168829,-0.026720056,0.013570929,0.0,0.0,0.0,0.03350892,0.08042359,0.45039552,-0.2283124,-0.07885045,0.42811462,-0.14722691,0.062034246,-0.4514823,-0.09997626,0.1355167,-0.4684553,-0.1727636,-0.009772279,-0.0605919,-0.007553409,0.07229193,-0.033821393,0.0402123,-0.012104445,0.06125099,0.008708524,-0.029641999,-0.0061994703,-0.06727625,2.0,2.0,-2.0,-2.0,2.0,-2.0,2.0,-2.0,-2.0,2.0,-2.0,-2.0,2.0,2.0,-2.0,-2.0,2.0,-2.0,2.0,-2.0,-2.0,2.0,-2.0,-2.0
2025-06-05 14:12:11.802,0.038075987,0.049331065,0.0010195221,0.13135067,-0.07167256,0.028785283,0.0,0.0,0.0,0.03376259,0.07224742,0.44059384,-0.2250033,-0.081756994,0.44078115,-0.15244497,0.07613977,-0.44355145,-0.10491448,0.1269906,-0.46816912,-0.18810935,0.054936517,-0.05699235,-0.0110304365,-0.05294197,0.04884313,0.04995397,-0.0044497284,-0.07915984,-0.06485731,0.0748182,-0.044654883,0.0074051237,2.0,2.0,-2.0,-2.0,2.0,-2.0,2.0,-2.0,-2.0,2.0,-2.0,-2.0,2.0,2.0,-2.0,-2.0,2.0,-2.0,2.0,-2.0,-2.0,2.0,-2.0,-2.0
2025-06-05 14:12:11.818,-0.0063393433,-0.004809847,-0.04113531,0.10637267,-0.010477508,0.038840067,0.0,0.0,0.0,0.034000035,0.073834956,0.4487024,-0.21419589,-0.07802028,0.4394465,-0.15288371,0.06175426,-0.453251,-0.110260986,0.1295483,-0.46120718,-0.18405959,-0.0515752,-0.0117351925,-0.021639872,-0.07147531,-0.010924716,0.06674109,-0.014162583,0.03282834,0.059863634,0.049872868,-0.006927093,-0.036926612,2.0,2.0,-2.0,-2.0,2.0,-2.0,2.0,-2.0,-2.0,2.0,-2.0,-2.0,2.0,2.0,-2.0,-2.0,2.0,-2.0,2.0,-2.0,-2.0,2.0,-2.0,-2.0
2025-06-05 14:12:11.839,-0.014983074,0.004024386,-0.0038481436,0.039213385,-0.061372515,-0.029148841,0.0,0.0,0.0,0.034221634,0.08574504,0.4395515,-0.22873142,-0.073378414,0.44899943,-0.14195652,0.06889904,-0.44448474,-0.117193505,0.12869623,-0.46749917,-0.18826891,0.06325631,0.028281137,0.014152373,-0.024069102,0.071233906,0.07535574,-0.04653248,-0.010535348,-0.051552,0.07079558,-0.05479185,0.022387879,2.0,2.0,-2.0,-2.0,2.0,-2.0,2.0,-2.0,-2.0,2.0,-2.0,-2.0,2.0,2.0,-2.0,-2.0,2.0,-2.0,2.0,-2.0,-2.0,2.0,-2.0,-2.0
2025-06-05 14:12:11.858,-0.039193537,-0.03455217,0.02520979,0.05676605,-0.0624547,-0.015880631,0.0,0.0,0.0,0.03442704,0.06929176,0.4603064,-0.22428589,-0.075997524,0.4453998,-0.14100488,0.07435445,-0.4424399,-0.109041505,0.14108855,-0.46313575,-0.1841907,0.07096756,-0.050442338,-0.03201345,-0.06517944,0.055618115,-0.063174576,-0.045561276,-0.06875184,0.012542761,0.01434332,-0.057581797,0.066624664,2.0,2.0,-2.0,-2.0,2.0,-2.0,2.0,-2.0,-2.0,2.0,-2.0,-2.0,2.0,2.0,-2.0,-2.0,2.0,-2.0,2.0,-2.0,-2.0,2.0,-2.0,-2.0
2025-06-05 14:12:11.878,0.033580255,0.013502506,0.0053079934,0.09796534,-0.05996423,0.020330431,0.0,0.0,0.0,0.03460948,0.078108735,0.4436102,-0.21056995,-0.07269024,0.44998002,-0.1547654,0.0702267,-0.4530591,-0.12375473,0.14154245,-0.4704958,-0.19019465,0.018058667,0.06499327,-0.00948433,-0.03534759,-0.024100836,0.05756617,-0.049995244,-0.07118072,0.008085363,-0.0008768003,-0.012229634,-0.05676502,2.0,2.0,-2.0,-2.0,2.0,-2.0,2.0,-2.0,-2.0,2.0,-2.0,-2.0,2.0,2.0,-2.0,-2.0,2.0,-2.0,2.0,-2.0,-2.0,2.0,-2.0,-2.0
2025-06-05 14:12:11.901,-0.046646804,0.036728423,0.022973694,0.09178741,-0.023380399,-0.035030305,0.0,0.0,0.0,0.034764476,0.08147604,0.44700366,-0.2158615,-0.075979866,0.45072865,-0.15035827,0.07078727,-0.45790032,-0.1161683,0.12780945,-0.4681502,-0.18783285,-0.025401885,0.029042872,-0.049812995,-0.026131107,0.053193714,-0.026604984,0.058504853,-0.06792673,0.06218758,0.047819115,0.056586806,0.021074805,2.0,2.0,-2.0,-2.0,2.0,-2.0,2.0,-2.0,-2.0,2.0,-2.0,-2.0,2.0,2.0,-2.0,-2.0,2.0,-2.0,2.0,-2.0,-2.0,2.0,-2.0,-2.0
2025-06-05 14:12:11.919,0.010075742,0.01179072,-0.021172909,0.08450587,-0.019818868,-0.03226187,0.0,0.0,0.0,0.034893308,0.07262254,0.44702768,-0.21917437,-0.072478585,0.43976754,-0.14252865,0.0669807,-0.46013218,-0.115410864,0.14578009,-0.47405067,-0.18925704,-0.042691644,0.03652128,0.05031211,-0.010965352,0.003770084,-0.05637236,0.06464132,-0.0010660398,0.041718196,0.072760545,-0.035590835,0.06338333,2.0,2.0,-2.0,-2.0,2.0,-2.0,2.0,-2.0,-2.0,2.0,-2.0,-2.0,2.0,2.0,-2.0,-2.0,2.0,-2.0,2.0,-2.0,-2.0,2.0,-2.0,-2.0
2025-06-05 14:12:11.939,0.044110328,-0.033202,-0.048428133,0.07404616,-0.020428726,-0.01036953,0.0,0.0,0.0,0.03499998,0.083768174,0.44927475,-0.21217218,-0.07245638,0.45088834,-0.14765875,0.074762575,-0.4626779,-0.11839383,0.14014418,-0.4716401,-0.17894778,-0.060211807,0.07484887,0.02919947,0.004715136,-0.07075223,-0.072305426,0.03793617,0.013651364,-0.07072765,-0.052315317,-0.05863449,-0.0014910311,2.0,2.0,-2.0,-2.0,2.0,-2.0,2.0,-2.0,-2.0,2.0,-2.0,-2.0,2.0,2.0,-2.0,-2.0,2.0,-2.0,2.0,-2.0,-2.0,2.0,-2.0,-2.0
2025-06-05 14:12:11.961,-0.025641797,0.037452064,-0.008415861,0.077746555,-0.02015918,0.029730529,0.0,0.0,0.0,0.035090376,0.08156259,0.45806867,-0.21047394,-0.072571404,0.43980533,-0.14640553,0.06967565,-0.4598116,-0.11846011,0.12729889,-0.45896628,-0.18044601,0.009073269,0.049029108,0.041299306,-0.051535565,0.025991008,-0.031625915,0.035050534,0.043746967,-0.0043596835,-0.038159225,-0.037306596,0.057637557,2.0,2.0,-2.0,-2.0,2.0,-2.0,2.0,-2.0,-2.0,2.0,-2.0,-2.0,2.0,2.0,-2.0,-2.0,2.0,-2.0,2.0,-2.0,-2.0,2.0,-2.0,-2.0
2025-06-05 14:12:11.979,-0.028021725,-0.007940111,-0.01710901,0.040560804,-0.083525494,-2.182212e-05,0.0,0.0,0.0,0.035172645,0.088287875,0.4596949,-0.2133415,-0.0893795,0.4555359,-0.13659294,0.0685083,-0.450873,-0.10953052,0.12902977,-0.46885893,-0.18811923,-0.02253765,0.07239756,-0.034546603,0.043632198,0.073107675,0.028130954,-0.039919343,-0.0068333833,0.058845337,0.06298801,-0.055484504,0.058123153,2.0,2.0,-2.0,-2.0,2.0,-2.0,2.0,-2.0,-2.0,2.0,-2.0,-2.0,2.0,2.0,-2.0,-2.0,2.0,-2.0,2.0,-2.0,-2.0,2.0,-2.0,-2.0
2025-06-05 14:12:12.001,-0.00450424,-0.005713492,0.029328443,0.09092812,-0.08797131,-0.038774304,0.0,0.0,0.0,0.035250258,0.07593323,0.4554237,-0.2147798,-0.08118528,0.44837925,-0.14947876,0.0702689,-0.46873412,-0.12397053,0.13506918,-0.47346592,-0.19194734,0.065331645,0.0076132445,0.01672519,0.07164213,0.07598508,0.06683411,-0.007888973,0.044523906,0.026850795,0.020636838,-0.01087561,0.06518965,2.0,2.0,-2.0,-2.0,2.0,-2.0,2.0,-2.0,-2.0,2.0,-2.0,-2.0,2.0,2.0,-2.0,-2.0,2.0,-2.0,2.0,-2.0,-2.0,2.0,-2.0,-2.0
2025-06-05 14:12:12.019,-0.005387398,0.0064375475,0.0039289417,0.12721866,-0.035182934,0.034117863,0.0,0.0,0.0,0.035322182,0.0776447,0.46098712,-0.21674281,-0.07954401,0.44475332,-0.13833225,0.06086555,-0.45595667,-0.108459175,0.13795371,-0.47300142,-0.18259948,-0.034586716,0.041484524,-0.0013775232,0.031396035,0.07538688,-0.07096636,-0.028820975,0.003712829,-0.07497927,0.042529624,0.05498898,0.035694506,2.0,2.0,-2.0,-2.0,2.0,-2.0,2.0,-2.0,-2.0,2.0,-2.0,-2.0,2.0,2.0,-2.0,-2.0,2.0,-2.0,2.0,-2.0,-2.0,2.0,-2.0,-2.0
2025-06-05 14:12:12.039,-0.008531305,-0.0039163465,-0.025474694,0.11030714,-0.102730274,0.022778885,0.0,0.0,0.0,0.03538751,0.08320018,0.44689274,-0.21052048,-0.083377026,0.44176906,-0.15081109,0.07651077,-0.46471182,-0.11023093,0.13961132,-0.45829827,-0.17861304,-0.026349356,-0.022143409,-0.051665764,0.040383674,-0.06518244,0.044666972,0.056320474,0.0076336213,0.015360672,-0.048795354,0.04014878,0.018561099,2.0,2.0,-2.0,-2.0,2.0,-2.0,2.0,-2.0,-2.0,2.0,-2.0,-2.0,2.0,2.0,-2.0,-2.0,2.0,-2.0,2.0,-2.0,-2.0,2.0,-2.0,-2.0
2025-06-05 14:12:12.060,-0.039905813,-0.0072739287,0.0012616733,0.039431322,-0.05800292,0.04763391,0.0,0.0,0.0,0.035445955,0.090099916,0.4595757,-0.21073045,-0.08222613,0.45252928,-0.15398346,0.06864105,-0.4548182,-0.12670495,0.13826913,-0.47576874,-0.18466565,-0.07110861,0.00689617,-0.050796513,0.05754673,-0.054223616,-0.016026469,-0.07116385,0.0588722,-0.005164162,0.055395592,0.008780725,0.026899694,2.0,2.0,-2.0,-2.0,2.0,-2.0,2.0,-2.0,-2.0,2.0,-2.0,-2.0,2.0,2.0,-2.0,-2.0,2.0,-2.0,2.0,-2.0,-2.0,2.0,-2.0,-2.0
2025-06-05 14:12:12.079,0.0063599506,0.046470527,-0.037316702,0.07542226,-0.032993827,-0.042913955,0.0,0.0,0.0,0.035497513,0.07320519,0.4657338,-0.20361577,-0.0854717,0.460283,-0.15167841,0.071179874,-0.4550845,-0.11739972,0.13885342,-0.4629758,-0.18047206,0.0030636487,-0.0011912562,0.004914272,0.071624786,-0.045639127,0.015890539,0.0033748879,0.0154165,0.053423073,0.07161541,0.0029045956,-0.06518538,2.0,2.0,-2.0,-2.0,2.0,-2.0,2.0,-2.0,-2.0,2.0,-2.0,-2.0,2.0,2.0,-2.0,-2.0,2.0,-2.0,2.0,-2.0,-2.0,2.0,-2.0,-2.0
2025-06-05 14:12:12.101,-0.024481881,-0.026176028,-0.033470705,0.05913895,-0.04271026,0.0357461,0.0,0.0,0.0,0.035542328,0.085298054,0.45944542,-0.22053967,-0.08837438,0.46106935,-0.1350691,0.06023147,-0.46941277,-0.12646578,0.13240176,-0.4614749,-0.18821411,-0.06610756,-0.009829351,0.06381296,0.018309077,0.07011615,-0.004873083,0.065953866,0.03493178,-0.058342587,0.050924707,0.0092783645,0.023378532,2.0,2.0,-2.0,-2.0,2.0,-2.0,2.0,-2.0,-2.0,2.0,-2.0,-2.0,2.0,2.0,-2.0,-2.0,2.0,-2.0,2.0,-2.0,-2.0,2.0,-2.0,-2.0
2025-06-05 14:12:12.120,-0.029157175,0.046021126,0.043090135,0.062051497,-0.067185044,0.0150779495,0.0,0.0,0.0,0.035580717,0.07483246,0.46086848,-0.20511584,-0.09009608,0.4602899,-0.13873278,0.06029471,-0.46772683,-0.11582096,0.1289632,-0.4730224,-0.19289273,-0.009906608,-0.02719685,0.04858021,-0.012661416,0.0044231247,0.0555426,-0.045488033,-0.018711844,0.04871836,-0.06106333,0.043212913,0.047180846,2.0,2.0,-2.0,-2.0,2.0,-2.0,2.0,-2.0,-2.0,2.0,-2.0,-2.0,2.0,2.0,-2.0,-2.0,2.0,-2.0,2.0,-2.0,-2.0,2.0,-2.0,-2.0
2025-06-05 14:12:12.139,0.038655713,0.014077206,0.022560824,0.040315405,-0.105570026,-0.03068637,0.0,0.0,0.0,0.035613187,0.08003104,0.45668525,-0.20169091,-0.087311745,0.46095756,-0.13493402,0.07280311,-0.4559727,-0.11174383,0.14706278,-0.4688044,-0.19426571,0.053063463,-0.0200671,0.030227667,-0.045178887,0.037386674,0.046990175,0.06370018,-0.018567722,0.049137216,0.05351505,0.029312307,-0.053176932,2.0,2.0,-2.0,-2.0,2.0,-2.0,2.0,-2.0,-2.0,2.0,-2.0,-2.0,2.0,2.0,-2.0,-2.0,2.0,-2.0,2.0,-2.0,-2.0,2.0,-2.0,-2.0
2025-06-05 14:12:12.160,0.044150893,-0.048982408,-0.025992192,0.09629281,-0.09893768,-0.019659456,0.0,0.0,0.0,0.035640348,0.084958375,0.46063086,-0.20408934,-0.07382462,0.4452621,-0.13431165,0.06670095,-0.46945503,-0.114608854,0.12768093,-0.47386384,-0.19484243,0.07088564,0.03171316,0.062354118,-0.025739422,0.0073637315,-0.068419084,-0.022008194,0.015628938,0.027574673,-0.05475286,-0.040996872,-0.07191047,2.0,2.0,-2.0,-2.0,2.0,-2.0,2.0,-2.0,-2.0,2.0,-2.0,-2.0,2.0,2.0,-2.0,-2.0,2.0,-2.0,2.0,-2.0,-2.0,2.0,-2.0,-2.0
2025-06-05 14:12:12.180,-0.032818276,0.007846991,0.04436462,0.036037635,-0.06704049,-0.048656013,0.0,0.0,0.0,0.035662875,0.071423806,0.4543774,-0.21474753,-0.0835579,0.45037663,-0.13434802,0.05857737,-0.4618771,-0.115859926,0.13538484,-0.47616142,-0.19464052,0.06898175,0.031641543,-0.07449885,-0.025990698,0.02871284,0.031194922,-0.047375444,0.01880877,0.016919602,0.060620185,0.030284034,0.067465924,2.0,2.0,-2.0,-2.0,2.0,-2.0,2.0,-2.0,-2.0,2.0,-2.0,-2.0,2.0,2.0,-2.0,-2.0,2.0,-2.0,2.0,-2.0,-2.0,2.0,-2.0,-2.0
2025-06-05 14:12:12.201,-0.020768814,-0.010153747,0.017647399,0.050856315,-0.10261971,-0.037559334,0.0,0.0,0.0,0.035681415,0.07324515,0.46375197,-0.2036984,-0.08165947,0.44446132,-0.13760124,0.05757173,-0.4564197,-0.12964064,0.13794382,-0.46609017,-0.18077943,-0.034282856,-0.06476634,0.043063708,-0.07208167,-0.063524365,0.044539098,-0.020673512,-0.06819895,0.05557431,-0.021979544,0.019002937,-0.018084008,2.0,2.0,-2.0,-2.0,2.0,-2.0,2.0,-2.0,-2.0,2.0,-2.0,-2.0,2.0,2.0,-2.0,-2.0,2.0,-2.0,2.0,-2.0,-2.0,2.0,-2.0,-2.0
2025-06-05 14:12:12.221,-0.014949594,-0.0025591487,0.019019585,0.121231645,-0.06438266,0.018304367,0.0,0.0,0.0,0.035696585,0.071335286,0.45401657,-0.2147997,-0.08455556,0.45657572,-0.1512951,0.06534269,-0.4624758,-0.1115837,0.12829626,-0.46021354,-0.18420537,-0.0003132722,0.05640302,-0.04538774,0.031851534,0.06943488,-0.043526456,-0.001641183,-0.011261394,0.0630076,-0.02561256,-0.06371149,-0.024901772,2.0,2.0,-2.0,-2.0,2.0,-2.0,2.0,-2.0,-2.0,2.0,-2.0,-2.0,2.0,2.0,-2.0,-2.0,2.0,-2.0,2.0,-2.0,-2.0,2.0,-2.0,-2.0
2025-06-05 14:12:12.241,0.032990325,-0.034808796,-0.034926094,0.13267288,-0.077003635,-0.031496283,0.0,0.0,0.0,0.035708934,0.08188964,0.46720228,-0.21629561,-0.08684795,0.44442275,-0.13733557,0.05824437,-0.45636523,-0.115024626,0.13283102,-0.4741678,-0.18728976,0.02690914,0.07406457,-0.0046713725,-0.04761762,-0.054448906,-0.039870318,-0.01815918,-0.07369684,-0.0030322417,0.054297302,-0.070428535,0.027467651,2.0,2.0,-2.0,-2.0,2.0,-2.0,2.0,-2.0,-2.0,2.0,-2.0,-2.0,2.0,2.0,-2.0,-2.0,2.0,-2.0,2.0,-2.0,-2.0,2.0,-2.0,-2.0
2025-06-05 14:12:12.260,-0.008798323,-0.023924325,0.018094055,0.047816675,-0.08730473,-0.01208467,0.0,0.0,0.0,0.03571896,0.08481258,0.4685955,-0.20262931,-0.07237372,0.4498799,-0.1382671,0.057127297,-0.46594828,-0.12797128,0.14186104,-0.4737493,-0.18043716,-0.020870196,-0.06128425,-0.010149718,-0.013140969,0.06263229,0.07254647,0.05167476,-0.016207574,0.05574993,0.06926442,0.0008704134,0.05491787,2.0,2.0,-2.0,-2.0,2.0,-2.0,2.0,-2.0,-2.0,2.0,-2.0,-2.0,2.0,2.0,-2.0,-2.0,2.0,-2.0,2.0,-2.0,-2.0,2.0,-2.0,-2.0
2025-06-05 14:12:12.280,0.010457991,0.03171017,-0.0080537945,0.038955968,-0.008686086,-0.0062239766,0.0,0.0,0.0,0.035727087,0.075469,0.46500453,-0.204319,-0.08036939,0.44904226,-0.14879955,0.074140236,-0.4701617,-0.12734903,0.13311139,-0.4635094,-0.18259244,-0.022528581,-0.031101605,0.024181752,0.048446804,0.057746455,-0.03444862,0.015453227,-0.0043696235,0.04796372,-0.009548467,0.033588782,0.031729266,2.0,2.0,-2.0,-2.0,2.0,-2.0,2.0,-2.0,-2.0,2.0,-2.0,-2.0,2.0,2.0,-2.0,-2.0,2.0,-2.0,2.0,-2.0,-2.0,2.0,-2.0,-2.0
2025-06-05 14:12:12.300,0.027829172,0.025469987,-0.049264032,0.08316643,-0.01699809,-0.026810043,0.0,0.0,0.0,0.035733696,0.08443495,0.46241653,-0.20460665,-0.08822008,0.45693633,-0.14338136,0.060728792,-0.4707379,-0.1205383,0.13347201,-0.46792272,-0.17705674,0.0046286755,-0.061420914,0.06120377,-0.016431116,-0.0033022484,-0.043442655,0.03563421,-0.07171328,0.005865162,-0.02224536,0.05508468,0.035410248,2.0,2.0,-2.0,-2.0,2.0,-2.0,2.0,-2.0,-2.0,2.0,-2.0,-2.0,2.0,2.0,-2.0,-2.0,2.0,-2.0,2.0,-2.0,-2.0,2.0,-2.0,-2.0
2025-06-05 14:12:12.320,0.0013274106,0.04916589,-0.049002927,0.11127138,-0.03758574,0.034947395,0.0,0.0,0.0,0.03573919,0.081077345,0.4547796,-0.21258408,-0.088379875,0.4606201,-0.13451518,0.06391364,-0.46768838,-0.12619153,0.13065861,-0.47347227,-0.18386963,-0.0021410713,0.0082829185,-0.034540996,-0.07124365,0.057352938,-0.028411832,0.056683056,0.015168507,0.062452428,-0.02275104,-0.06048535,-0.02827322,2.0,2.0,-2.0,-2.0,2.0,-2.0,2.0,-2.0,-2.0,2.0,-2.0,-2.0,2.0,2.0,-2.0,-2.0,2.0,-2.0,2.0,-2.0,-2.0,2.0,-2.0,-2.0
2025-06-05 14:12:12.341,-0.014647472,0.0052291974,-0.033038415,0.060208615,-0.05664535,0.022883985,0.0,0.0,0.0,0.03574412,0.07687432,0.462883,-0.21364246,-0.078238085,0.45618284,-0.1494656,0.07508266,-0.4744005,-0.114321396,0.145792,-0.47570184,-0.18500909,-0.05494546,-0.030332793,0.055937916,-0.0105575295,-0.07368902,-0.062172845,0.013064132,-0.042342946,-0.043916825,0.041149586,-0.061475284,0.021780023,2.0,2.0,-2.0,-2.0,2.0,-2.0,2.0,-2.0,-2.0,2.0,-2.0,-2.0,2.0,2.0,-2.0,-2.0,2.0,-2.0,2.0,-2.0,-2.0,2.0,-2.0,-2.0
2025-06-05 14:12:12.360,0.022613607,0.008172526,0.021353487,0.12354824,-0.0778046,-0.041086633,0.0,0.0,0.0,0.03574876,0.08946133,0.46268535,-0.20932463,-0.089368835,0.4455995,-0.14410447,0.0718109,-0.47190985,-0.1207273,0.12818022,-0.47544008,-0.17627038,-0.02776258,0.0712516,-0.059112146,-0.05319037,0.0146670155,0.01387341,-0.01675563,-0.027900469,-0.03913349,-0.072961815,-0.0315485,-0.05620667,2.0,2.0,-2.0,-2.0,2.0,-2.0,2.0,-2.0,-2.0,2.0,-2.0,-2.0,2.0,2.0,-2.0,-2.0,2.0,-2.0,2.0,-2.0,-2.0,2.0,-2.0,-2.0
2025-06-05 14:12:12.419,-0.023292426,-0.039757136,0.04303314,0.06921136,-0.08741681,-0.012484403,0.0,0.0,0.0,0.03575316,0.07418935,0.45047808,-0.20962173,-0.090038545,0.45905232,-0.13799115,0.074436516,-0.4718783,-0.11362402,0.13002197,-0.47764948,-0.17743719,-0.021934131,-0.03429103,-0.067789786,0.056909155,0.010494454,0.046529062,0.004359379,0.018731242,-0.066196114,-0.0288635,0.03438013,0.0028379187,2.0,2.0,-2.0,-2.0,2.0,-2.0,2.0,-2.0,-2.0,2.0,-2.0,-2.0,2.0,2.0,-2.0,-2.0,2.0,-2.0,2.0,-2.0,-2.0,2.0,-2.0,-2.0
2025-06-05 14:12:12.439,0.02060277,0.049772523,-0.047958773,0.12474808,-0.021200594,-0.02107797,0.0,0.0,0.0,0.03575728,0.08057174,0.46667048,-0.21955892,-0.07914794,0.4439141,-0.13799064,0.071377255,-0.47146174,-0.115040496,0.14502658,-0.4745626,-0.18565966,-0.04493812,0.048369803,-0.067413256,-0.046201453,-0.017343974,0.02859151,-0.050747093,-0.06158615,-0.05618615,-0.066276416,0.059420664,-0.0140601685,2.0,2.0,-2.0,-2.0,2.0,-2.0,2.0,-2.0,-2.0,2.0,-2.0,-2.0,2.0,2.0,-2.0,-2.0,2.0,-2.0,2.0,-2.0,-2.0,2.0,-2.0,-2.0
2025-06-05 14:12:12.459,-0.039397415,0.042993426,-0.0091763865,0.1138127,-0.1027231,-0.016358817,0.0,0.0,0.0,0.035761066,0.07955217,0.45680887,-0.22005077,-0.08240972,0.45496625,-0.14168794,0.063629866,-0.47501656,-0.123146795,0.13787298,-0.4762183,-0.17654264,-0.022580305,0.07299838,-0.010345984,-0.054342464,0.023145186,0.06584366,-0.03469275,0.06765897,-0.047411777,0.06429102,-0.07457283,-0.07178666,2.0,2.0,-2.0,-2.0,2.0,-2.0,2.0,-2.0,-2.0,2.0,-2.0,-2.0,2.0,2.0,-2.0,-2.0,2.0,-2.0,2.0,-2.0,-2.0,2.0,-2.0,-2.0
2025-06-05 14:12:12.480,-0.022150187,0.004728772,-0.036140226,0.043330178,-0.08178306,-0.03657979,0.0,0.0,0.0,0.035764497,0.08121834,0.46549135,-0.21365972,-0.071312316,0.46220332,-0.1349484,0.06356976,-0.46917388,-0.12333943,0.13501263,-0.47113332,-0.19439225,0.0037876945,-0.033587947,-0.04932503,0.062824644,0.020033041,0.040506016,-0.01529401,0.06924339,0.035591878,-0.007778098,-0.045539625,0.017015392,2.0,2.0,-2.0,-2.0,2.0,-2.0,2.0,-2.0,-2.0,2.0,-2.0,-2.0,2.0,2.0,-2.0,-2.0,2.0,-2.0,2.0,-2.0,-2.0,2.0,-2.0,-2.0
2025-06-05 14:12:12.502,-0.04278885,0.045283146,0.017727206,0.07072595,-0.033051293,-0.03171853,0.0,0.0,0.0,0.035767563,0.086022116,0.4596028,-0.20235994,-0.09013097,0.46151376,-0.13465568,0.05955275,-0.4692295,-0.12916994,0.14686494,-0.46984294,-0.17710952,0.03236567,-0.06365204,0.014538853,0.007886406,-0.058065128,-0.020574246,0.07126821,0.07223063,0.020822888,0.028922236,-0.064879335,0.0044399737,2.0,2.0,-2.0,-2.0,2.0,-2.0,2.0,-2.0,-2.0,2.0,-2.0,-2.0,2.0,2.0,-2.0,-2.0,2.0,-2.0,2.0,-2.0,-2.0,2.0,-2.0,-2.0
2025-06-05 14:12:12.520,0.024970885,0.019592108,0.0024589705,0.102841996,-0.04678102,-0.006035186,0.0,0.0,0.0,0.03577026,0.07073695,0.4628899,-0.2185562,-0.080943316,0.45716703,-0.15173568,0.057523698,-0.47012258,-0.12470913,0.14584109,-0.46166036,-0.18564072,-0.057589103,-0.06584726,0.021921633,-0.056875784,-0.02248958,0.022341955,0.06579463,-0.03434006,-0.057376888,0.0433516,0.03260277,-0.054739207,2.0,2.0,-2.0,-2.0,2.0,-2.0,2.0,-2.0,-2.0,2.0,-2.0,-2.0,2.0,2.0,-2.0,-2.0,2.0,-2.0,2.0,-2.0,-2.0,2.0,-2.0,-2.0
2025-06-05 14:12:12.540,-0.03657673,-0.04484111,-0.037032377,0.072465576,-0.101179615,0.044961393,0.0,0.0,0.0,0.035772607,0.086553566,0.4655126,-0.2031639,-0.08234293,0.4496611,-0.14324757,0.066874325,-0.4673638,-0.11734105,0.1474174,-0.4689402,-0.18315503,-0.019275688,-0.0012407401,-0.06763031,-0.05294173,0.0030681565,-0.0065196003,-0.03996529,-0.051096775,-0.052538116,0.07014542,0.02636457,-0.049719676,2.0,2.0,-2.0,-2.0,2.0,-2.0,2.0,-2.0,-2.0,2.0,-2.0,-2.0,2.0,2.0,-2.0,-2.0,2.0,-2.0,2.0,-2.0,-2.0,2.0,-2.0,-2.0
2025-06-05 14:12:12.560,0.04322588,-0.017474001,0.0128840795,0.11581634,-0.09761855,0.03562669,0.0,0.0,0.0,0.03577462,0.08400176,0.46366897,-0.21872815,-0.07113469,0.45557186,-0.14290339,0.06953779,-0.46013635,-0.11546264,0.13397014,-0.47539788,-0.1767993,-0.03680325,-0.021211118,-0.05157922,-0.06589694,-0.06464167,0.027340638,-0.013487276,-0.050582577,0.0031775467,-0.012563271,-0.017359653,0.031274743,2.0,2.0,-2.0,-2.0,2.0,-2.0,2.0,-2.0,-2.0,2.0,-2.0,-2.0,2.0,2.0,-2.0,-2.0,2.0,-2.0,2.0,-2.0,-2.0,2.0,-2.0,-2.0
2025-06-05 14:12:12.584,0.04421535,-0.020855632,0.0048433198,0.13377164,-0.037263453,-0.031833306,0.0,0.0,0.0,0.03577632,0.086894445,0.4552547,-0.2168123,-0.07402608,0.4545336,-0.14146169,0.05826347,-0.45759493,-0.122687414,0.14671518,-0.46671554,-0.17694603,-0.046548497,0.04342418,0.06298701,-0.057025414,-0.020113997,-0.05130643,0.017958183,-0.01638915,-0.050086554,0.003124215,-0.029711397,0.0180926,2.0,2.0,-2.0,-2.0,2.0,-2.0,2.0,-2.0,-2.0,2.0,-2.0,-2.0,2.0,2.0,-2.0,-2.0,2.0,-2.0,2.0,-2.0,-2.0,2.0,-2.0,-2.0
2025-06-05 14:12:12.602,-0.040967077,-0.028538236,0.040130965,0.11446709,-0.05353575,0.020387812,0.0,0.0,0.0,0.035777744,0.08460353,0.45424545,-0.20581847,-0.07462592,0.46224493,-0.14884545,0.0626735,-0.47356653,-0.12757926,0.13649534,-0.47314727,-0.1751132,0.05307886,0.025665367,0.041989744,0.038665324,-0.022554327,-0.026985915,-0.07485256,0.004243888,0.071843855,-0.060146958,-0.031387813,0.05818477,2.0,2.0,-2.0,-2.0,2.0,-2.0,2.0,-2.0,-2.0,2.0,-2.0,-2.0,2.0,2.0,-2.0,-2.0,2.0,-2.0,2.0,-2.0,-2.0,2.0,-2.0,-2.0
2025-06-05 14:12:12.621,-0.012908894,0.027931526,0.031878937,0.10976185,-0.04722822,0.023363553,0.0,0.0,0.0,0.035778925,0.073395416,0.44985223,-0.20497674,-0.08415937,0.45540923,-0.13854872,0.06460869,-0.47019818,-0.12248907,0.13685568,-0.46518326,-0.18321404,-0.02627927,0.045050807,-0.028190084,0.063364215,0.070133746,-0.036904745,0.027301358,0.045021653,-0.058510788,0.05011212,-0.011962966,-0.0013408635,2.0,2.0,-2.0,-2.0,2.0,-2.0,2.0,-2.0,-2.0,2.0,-2.0,-2.0,2.0,2.0,-2.0,-2.0,2.0,-2.0,2.0,-2.0,-2.0,2.0,-2.0,-2.0
2025-06-05 14:12:12.643,-0.015586143,0.04151907,-0.009682211,0.0717123,-0.0073220674,0.0067726607,0.0,0.0,0.0,0.035779893,0.08017812,0.46232775,-0.20264357,-0.087192126,0.44644406,-0.13594534,0.07340867,-0.46103138,-0.112616345,0.1376432,-0.4583224,-0.19085331,0.06424359,-0.00020272484,-0.0018375779,-0.071166195,-0.025828317,-0.057075657,-0.032627314,0.0035529535,0.07414978,0.066429466,-0.012861209,-0.06694365,2.0,2.0,-2.0,-2.0,2.0,-2.0,2.0,-2.0,-2.0,2.0,-2.0,-2.0,2.0,2.0,-2.0,-2.0,2.0,-2.0,2.0,-2.0,-2.0,2.0,-2.0,-2.0
2025-06-05 14:12:12.660,0.0189339,-0.00044422003,0.04058387,0.040426545,-0.07332211,0.048903942,0.0,0.0,0.0,0.03578068,0.082723655,0.46023452,-0.21847153,-0.07600521,0.4614755,-0.13414724,0.061194602,-0.47188455,-0.120223165,0.14332981,-0.4775616,-0.19111276,-0.0071200244,0.007312769,-0.056800365,0.041194312,0.050543427,-0.04025436,0.009229976,-0.011903569,0.03873442,0.0019114857,0.008184794,-0.030881997,2.0,2.0,-2.0,-2.0,2.0,-2.0,2.0,-2.0,-2.0,2.0,-2.0,-2.0,2.0,2.0,-2.0,-2.0,2.0,-2.0,2.0,-2.0,-2.0,2.0,-2.0,-2.0
2025-06-05 14:12:12.684,0.009937925,-0.0034616336,-0.02615038,0.07877177,-0.04026679,0.038318116,0.0,0.0,0.0,0.035781316,0.08102004,0.462663,-0.20503844,-0.08953675,0.4603988,-0.15010066,0.060243066,-0.47103438,-0.121829,0.13955955,-0.46582395,-0.17994298,0.011847496,-0.07062151,-0.06353696,0.04624458,-0.027530018,-0.059409272,0.0012467017,0.0028561114,0.0026654578,0.05906449,-0.009825749,-0.025670957,2.0,2.0,-2.0,-2.0,2.0,-2.0,2.0,-2.0,-2.0,2.0,-2.0,-2.0,2.0,2.0,-2.0,-2.0,2.0,-2.0,2.0,-2.0,-2.0,2.0,-2.0,-2.0
2025-06-05 14:12:12.702,0.018838542,-0.046139125,-0.016150936,0.035564315,-0.024624698,0.0073045483,0.0,0.0,0.0,0.035781834,0.076255575,0.46033424,-0.21366629,-0.08581244,0.44749284,-0.14675376,0.06633762,-0.47462,-0.12151578,0.12946369,-0.46758914,-0.18210916,-0.07111677,-0.06870059,-0.023099288,0.028679626,0.06049245,0.043133073,-0.003920296,-0.0037203534,-0.03805114,0.05495895,0.074221104,-0.019591182,2.0,2.0,-2.0,-2.0,2.0,-2.0,2.0,-2.0,-2.0,2.0,-2.0,-2.0,2.0,2.0,-2.0,-2.0,2.0,-2.0,2.0,-2.0,-2.0,2.0,-2.0,-2.0
2025-06-05 14:12:12.721,0.012853004,0.003532056,-0.045064446,0.093511775,-0.039691072,-0.031988826,0.0,0.0,0.0,0.03578225,0.07803064,0.4606061,-0.21038365,-0.07370759,0.45241898,-0.14089131,0.05772387,-0.4659609,-0.13219982,0.13139562,-0.45864737,-0.1938198,-0.04964287,-0.023392495,-0.0051384075,-0.06932911,0.06984171,-0.040511347,0.02939067,0.0655791,0.07125562,-0.04141595,-0.058740832,0.06415635,2.0,2.0,-2.0,-2.0,2.0,-2.0,2.0,-2.0,-2.0,2.0,-2.0,-2.0,2.0,2.0,-2.0,-2.0,2.0,-2.0,2.0,-2.0,-2.0,2.0,-2.0,-2.0
2025-06-05 14:12:12.741,-0.004531232,-0.04172865,0.016347457,0.07015328,-0.011605501,0.0093498,0.0,0.0,0.0,0.035782594,0.072318435,0.44889638,-0.20112742,-0.083771825,0.46161652,-0.13631088,0.063237734,-0.46542358,-0.12641108,0.14011392,-0.4667407,-0.18057835,0.04356868,0.04773411,-0.07486402,0.024452338,-0.059852082,0.028043214,-0.03455977,0.015842123,-0.028944023,0.019482173,0.057491183,0.062342778,2.0,2.0,-2.0,-2.0,2.0,-2.0,2.0,-2.0,-2.0,2.0,-2.0,-2.0,2.0,2.0,-2.0,-2.0,2.0,-2.0,2.0,-2.0,-2.0,2.0,-2.0,-2.0
2025-06-05 14:12:12.761,-0.023969017,-0.033951633,0.034529362,0.13233626,-0.009703424,-0.035341524,0.0,0.0,0.0,0.035782877,0.08089051,0.45567685,-0.20576589,-0.08347472,0.4563311,-0.1495588,0.05790401,-0.46610093,-0.12024158,0.14137752,-0.46229893,-0.19082865,0.010860161,0.008104436,-0.045035265,-0.039293308,0.049323417,0.029642437,-0.061199382,-0.015527175,0.06300683,-0.014671127,0.016307374,-0.04844037,2.0,2.0,-2.0,-2.0,2.0,-2.0,2.0,-2.0,-2.0,2.0,-2.0,-2.0,2.0,2.0,-2.0,-2.0,2.0,-2.0,2.0,-2.0,-2.0,2.0,-2.0,-2.0
2025-06-05 14:12:12.784,0.033333655,-0.015917934,0.037643667,0.105805986,-0.07995076,0.043301508,0.0,0.0,0.0,0.035783112,0.087115854,0.44949168,-0.21585557,-0.083686374,0.45639518,-0.14808993,0.070817836,-0.4671688,-0.113539636,0.13728803,-0.47441003,-0.19246775,0.061477978,0.059621,0.055346526,0.047983535,-0.06593418,0.06744252,-0.06677863,-0.04495408,-0.07480611,0.06484193,-0.039429862,0.07005485,2.0,2.0,-2.0,-2.0,2.0,-2.0,2.0,-2.0,-2.0,2.0,-2.0,-2.0,2.0,2.0,-2.0,-2.0,2.0,-2.0,2.0,-2.0,-2.0,2.0,-2.0,-2.0
2025-06-05 14:12:12.801,0.013932629,0.02123246,0.012473241,0.07205555,-0.054551415,-0.0039977995,0.0,0.0,0.0,0.035783317,0.089829914,0.46583372,-0.21314184,-0.07149539,0.45205772,-0.14242767,0.06493132,-0.4668668,-0.1201474,0.12963367,-0.45977387,-0.19196124,-0.034322597,-0.024178863,0.006634866,0.045286316,0.02596726,-0.021252418,-0.068496816,0.02706053,-0.07280789,-0.03801255,-0.06021123,0.07453076,2.0,2.0,-2.0,-2.0,2.0,-2.0,2.0,-2.0,-2.0,2.0,-2.0,-2.0,2.0,2.0,-2.0,-2.0,2.0,-2.0,2.0,-2.0,-2.0,2.0,-2.0,-2.0
2025-06-05 14:12:12.821,-0.027420692,0.029578995,-0.028871918,0.12898411,-0.026038788,-0.01266248,0.0,0.0,0.0,0.035783496,0.087809555,0.44932312,-0.21968797,-0.088440135,0.45257705,-0.15241902,0.057795614,-0.47353598,-0.11896628,0.12816934,-0.46744603,-0.17981488,0.04412985,0.017185425,-0.07081443,0.043401,0.053825237,0.03977588,-0.072901785,-0.00091940234,-0.01301646,0.007919494,0.07082647,0.04889894,2.0,2.0,-2.0,-2.0,2.0,-2.0,2.0,-2.0,-2.0,2.0,-2.0,-2.0,2.0,2.0,-2.0,-2.0,2.0,-2.0,2.0,-2.0,-2.0,2.0,-2.0,-2.0
2025-06-05 14:12:12.842,-0.0071279015,-0.04457839,0.030885091,0.0767139,-0.0080391355,-0.04118154,0.0,0.0,0.0,0.035783656,0.08477647,0.46766573,-0.21893698,-0.07840644,0.4623673,-0.14880188,0.07534673,-0.4721342,-0.12358318,0.14002153,-0.4643845,-0.18327649,-0.062035114,-0.039351683,-0.016951522,0.07159631,0.02762348,-0.003096005,-0.061840612,0.034538567,-0.05961727,-0.023322573,0.07125941,-0.050867207,2.0,2.0,-2.0,-2.0,2.0,-2.0,2.0,-2.0,-2.0,2.0,-2.0,-2.0,2.0,2.0,-2.0,-2.0,2.0,-2.0,2.0,-2.0,-2.0,2.0,-2.0,-2.0
2025-06-05 14:12:12.861,-0.019681862,0.04143681,0.008091586,0.11021348,-0.046601012,-0.019890603,0.0,0.0,0.0,0.0357838,0.07078357,0.45715532,-0.21663746,-0.07835908,0.44369152,-0.13980134,0.058664612,-0.46207827,-0.1266239,0.12985362,-0.4664489,-0.1852301,0.052731212,-0.013218083,-0.032519296,-0.057904642,-0.059743434,-0.015273581,0.021906769,0.073532596,0.025323352,0.048099548,0.023747103,0.060766574,2.0,2.0,-2.0,-2.0,2.0,-2.0,2.0,-2.0,-2.0,2.0,-2.0,-2.0,2.0,2.0,-2.0,-2.0,2.0,-2.0,2.0,-2.0,-2.0,2.0,-2.0,-2.0
2025-06-05 14:12:12.885,0.009295089,0.0134770945,0.043841794,0.119813494,-0.041064385,-0.001955567,0.0,0.0,0.0,0.035783935,0.07403072,0.4500939,-0.20117083,-0.090303816,0.45775217,-0.15277296,0.057669,-0.46946144,-0.115299016,0.12839675,-0.47730902,-0.19215247,0.06504584,0.045238182,0.066354044,-0.05530236,-0.053268626,0.06312483,0.031564508,0.044010665,0.031450722,0.028752923,0.019980267,0.062969565,2.0,2.0,-2.0,-2.0,2.0,-2.0,2.0,-2.0,-2.0,2.0,-2.0,-2.0,2.0,2.0,-2.0,-2.0,2.0,-2.0,2.0,-2.0,-2.0,2.0,-2.0,-2.0
2025-06-05 14:12:12.902,0.02424801,0.034759983,-0.028087102,0.047961473,-0.03182047,-0.032681342,0.0,0.0,0.0,0.03578406,0.07988601,0.45693824,-0.20535249,-0.089882515,0.46264786,-0.13503721,0.06636794,-0.4674785,-0.13057503,0.13151081,-0.47325242,-0.18574616,-0.018247906,-0.06840624,0.021902675,-0.059492346,-0.006774787,0.014497159,-0.035087496,-0.072436556,-0.06345104,-0.063344814,0.060801547,0.07380261,2.0,2.0,-2.0,-2.0,2.0,-2.0,2.0,-2.0,-2.0,2.0,-2.0,-2.0,2.0,2.0,-2.0,-2.0,2.0,-2.0,2.0,-2.0,-2.0,2.0,-2.0,-2.0
2025-06-05 14:12:12.922,-0.03817718,0.04574365,0.049133018,0.06871837,-0.036854874,0.045078184,0.0,0.0,0.0,0.035784174,0.0782407,0.46179432,-0.20465073,-0.090422526,0.4453297,-0.15344019,0.05857608,-0.4607463,-0.116144896,0.13065846,-0.4628528,-0.17600988,0.018283155,-0.027341105,-0.046315428,0.05080572,0.06092708,-0.04312659,-0.06189944,0.028710073,-0.0041885483,0.005643199,-0.0016948882,0.011728858,2.0,2.0,-2.0,-2.0,2.0,-2.0,2.0,-2.0,-2.0,2.0,-2.0,-2.0,2.0,2.0,-2.0,-2.0,2.0,-2.0,2.0,-2.0,-2.0,2.0,-2.0,-2.0
2025-06-05 14:12:12.941,-0.034182772,0.026460733,-0.042472955,0.043700118,-0.027004665,-0.0014700816,0.0,0.0,0.0,0.035784286,0.07831713,0.4509243,-0.21753038,-0.08791771,0.44626424,-0.13993467,0.06589526,-0.46192223,-0.12001487,0.14085932,-0.47514987,-0.1777938,-0.052274052,-0.05584687,0.067291096,-0.017548088,0.046301663,0.031167908,0.0011010881,-0.07333794,-0.02258746,0.023928905,-0.06851748,0.026442174,2.0,2.0,-2.0,-2.0,2.0,-2.0,2.0,-2.0,-2.0,2.0,-2.0,-2.0,2.0,2.0,-2.0,-2.0,2.0,-2.0,2.0,-2.0,-2.0,2.0,-2.0,-2.0
2025-06-05 14:12:12.961,0.038127754,-0.031071438,-0.031477932,0.04003494,-0.030412093,-0.03623609,0.0,0.0,0.0,0.035784386,0.07719758,0.46540374,-0.21638346,-0.08911019,0.4598728,-0.14579208,0.058772653,-0.47416902,-0.13202474,0.13160554,-0.46291357,-0.17974938,-0.0300984,-0.018636093,-0.030982817,-0.041849993,-0.011614546,-0.036477383,-0.0064596436,-0.0048963535,-0.01600232,0.060532313,-0.07055991,-0.06750641,2.0,2.0,-2.0,-2.0,2.0,-2.0,2.0,-2.0,-2.0,2.0,-2.0,-2.0,2.0,2.0,-2.0,-2.0,2.0,-2.0,2.0,-2.0,-2.0,2.0,-2.0,-2.0
2025-06-05 14:12:12.985,0.036286913,-0.023931019,-0.025060996,0.08507073,-0.0871911,-0.035087302,0.0,0.0,0.0,0.035784483,0.07421845,0.45701718,-0.20651425,-0.08493483,0.45596936,-0.15016092,0.06656795,-0.4666621,-0.13208912,0.14536816,-0.47730923,-0.17930995,0.008164067,0.030634739,-0.037947915,0.05545497,-0.0071743233,0.013455332,-0.018307757,0.0086629335,0.04338137,0.026923148,-0.07038351,0.0042119944,2.0,2.0,-2.0,-2.0,2.0,-2.0,2.0,-2.0,-2.0,2.0,-2.0,-2.0,2.0,2.0,-2.0,-2.0,2.0,-2.0,2.0,-2.0,-2.0,2.0,-2.0,-2.0
2025-06-05 14:12:13.002,0.041980196,-0.01614112,-0.04326942,0.12437193,-0.0879214,-0.04594739,0.0,0.0,0.0,0.035784572,0.07763185,0.46551818,-0.21396872,-0.08010776,0.44338357,-0.14185005,0.064109646,-0.4748523,-0.12471692,0.14591685,-0.4629398,-0.1883911,-0.020676665,-0.049847815,0.0077177146,0.03733724,0.01598182,0.024842672,0.02114144,0.062896974,0.06264755,0.062008668,0.07469627,-0.04333973,2.0,2.0,-2.0,-2.0,2.0,-2.0,2.0,-2.0,-2.0,2.0,-2.0,-2.0,2.0,2.0,-2.0,-2.0,2.0,-2.0,2.0,-2.0,-2.0,2.0,-2.0,-2.0
2025-06-05 14:12:13.022,0.037979852,-0.012540664,0.01047726,0.05092589,-0.027051466,-0.03794575,0.0,0.0,0.0,0.035784654,0.072454214,0.46263632,-0.22057298,-0.081883274,0.446812,-0.13378012,0.0597468,-0.45856518,-0.12887962,0.14283223,-0.4642633,-0.18638316,-0.06473364,0.044539817,0.03665207,0.009368194,0.04218659,0.01954419,0.057094608,-0.031062657,-0.032996263,-0.053743284,-0.026148802,-0.03085601,2.0,2.0,-2.0,-2.0,2.0,-2.0,2.0,-2.0,-2.0,2.0,-2.0,-2.0,2.0,2.0,-2.0,-2.0,2.0,-2.0,2.0,-2.0,-2.0,2.0,-2.0,-2.0
2025-06-05 14:12:13.042,0.025179315,0.028328821,0.040740237,0.052185863,-0.047231127,-0.027634555,0.0,0.0,0.0,0.03578473,0.08894419,0.46814546,-0.21453501,-0.081898674,0.45153496,-0.14394198,0.07397983,-0.47166556,-0.1265977,0.1300269,-0.46237403,-0.18414602,0.07251699,-0.061004963,0.022024235,-0.04956012,-0.050693426,-0.069249526,0.07499303,0.056150805,-0.06450493,0.04085918,-0.022551678,0.055763025,2.0,2.0,-2.0,-2.0,2.0,-2.0,2.0,-2.0,-2.0,2.0,-2.0,-2.0,2.0,2.0,-2.0,-2.0,2.0,-2.0,2.0,-2.0,-2.0,2.0,-2.0,-2.0
2025-06-05 14:12:13.064,0.016225832,-0.02346702,-0.024827251,0.03939018,-0.03560951,0.0040062657,0.0,0.0,0.0,0.0357848,0.077443324,0.45964235,-0.20370936,-0.07938782,0.44468978,-0.15338895,0.0691104,-0.4730168,-0.12851055,0.13596363,-0.4758496,-0.17538849,-0.033532564,0.0006319174,0.050773732,0.06824294,0.030132072,0.058955643,0.040804654,0.06932051,-0.051177494,0.022259964,0.062743,0.03608202,2.0,2.0,-2.0,-2.0,2.0,-2.0,2.0,-2.0,-2.0,2.0,-2.0,-2.0,2.0,2.0,-2.0,-2.0,2.0,-2.0,2.0,-2.0,-2.0,2.0,-2.0,-2.0
2025-06-05 14:12:13.085,0.022253236,-0.028225085,0.03747012,0.1266483,-0.06853237,0.026847467,0.0,0.0,0.0,0.035784863,0.08101159,0.4540955,-0.21395113,-0.07815833,0.4467315,-0.15285103,0.07331671,-0.4655613,-0.114943475,0.13780138,-0.46582922,-0.17977318,-0.035485428,0.017415065,-0.07167923,-0.014466823,-0.048997514,0.06604564,0.048368722,0.032773048,0.041629206,-0.025041359,0.07122529,-0.058461733,2.0,2.0,-2.0,-2.0,2.0,-2.0,2.0,-2.0,-2.0,2.0,-2.0,-2.0,2.0,2.0,-2.0,-2.0,2.0,-2.0,2.0,-2.0,-2.0,2.0,-2.0,-2.0
2025-06-05 14:12:13.102,0.019523498,0.008310975,-0.027704222,0.09217567,-0.034526348,-0.046788648,0.0,0.0,0.0,0.03578492,0.081399925,0.46742108,-0.21967149,-0.090514235,0.449056,-0.14813109,0.06424609,-0.46994618,-0.12091607,0.1367425,-0.47408992,-0.17505981,-0.041563593,-0.039904665,0.061917126,-0.061437868,-0.021236824,0.0003631408,-0.012336443,0.07179,-0.0497795,0.00784564,0.055287402,-0.017533116,2.0,2.0,-2.0,-2.0,2.0,-2.0,2.0,-2.0,-2.0,2.0,-2.0,-2.0,2.0,2.0,-2.0,-2.0,2.0,-2.0,2.0,-2.0,-2.0,2.0,-2.0,-2.0
2025-06-05 14:12:13.123,-0.0050005508,-0.0047075967,0.01069276,0.10507895,-0.019347396,-0.015029503,0.0,0.0,0.0,0.03578497,0.08950038,0.4516533,-0.2172256,-0.08843137,0.44493675,-0.14267054,0.06809801,-0.45600247,-0.11927216,0.1387709,-0.46156847,-0.1887012,0.029083706,-0.023222566,-0.01740214,0.055676885,-0.040339954,0.06267488,0.020023363,0.0087124575,-0.055334203,0.034696292,0.01584311,0.0012444374,2.0,2.0,-2.0,-2.0,2.0,-2.0,2.0,-2.0,-2.0,2.0,-2.0,-2.0,2.0,2.0,-2.0,-2.0,2.0,-2.0,2.0,-2.0,-2.0,2.0,-2.0,-2.0
2025-06-05 14:12:13.143,-0.012573656,0.0028463816,-0.004109371,0.052278917,-0.0421849,-0.04832347,0.0,0.0,0.0,0.035785016,0.07059174,0.46692476,-0.20903191,-0.090717964,0.45017895,-0.13484943,0.07130019,-0.4687175,-0.12801713,0.14409693,-0.467322,-0.19306883,-0.07054915,0.04950692,-0.046109553,-0.06826015,0.068839684,-0.010839817,0.0042436915,0.06962854,0.045238174,0.015606833,-0.05471353,0.0102316905,2.0,2.0,-2.0,-2.0,2.0,-2.0,2.0,-2.0,-2.0,2.0,-2.0,-2.0,2.0,2.0,-2.0,-2.0,2.0,-2.0,2.0,-2.0,-2.0,2.0,-2.0,-2.0
2025-06-05 14:12:13.162,-0.025532868,0.020284373,0.02043493,0.13236788,-0.100970246,0.017079735,0.0,0.0,0.0,0.035785057,0.071867175,0.44963178,-0.20652469,-0.085585766,0.45442626,-0.14852288,0.06672426,-0.47006387,-0.113060884,0.14778344,-0.45923293,-0.18831491,0.041991245,-0.059987597,0.04745423,-0.017821364,0.05036738,-0.05144684,0.0025204846,-0.07109568,0.017278764,-0.008322177,0.062043607,-0.058229342,2.0,2.0,-2.0,-2.0,2.0,-2.0,2.0,-2.0,-2.0,2.0,-2.0,-2.0,2.0,2.0,-2.0,-2.0,2.0,-2.0,2.0,-2.0,-2.0,2.0,-2.0,-2.0
2025-06-05 14:12:13.184,0.013861685,0.011254659,-0.017530484,0.10054707,-0.10119408,0.021713732,0.0,0.0,0.0,0.035785094,0.07861128,0.46141645,-0.21616824,-0.07134791,0.46063828,-0.13565056,0.06739449,-0.47214454,-0.117932916,0.14035688,-0.46864069,-0.18290557,-0.036413472,0.06710449,-0.037460305,0.043573633,-0.049582757,-0.05754994,0.02774177,0.011628298,-0.020565633,-0.043794256,0.062910125,0.068526566,2.0,2.0,-2.0,-2.0,2.0,-2.0,2.0,-2.0,-2.0,2.0,-2.0,-2.0,2.0,2.0,-2.0,-2.0,2.0,-2.0,2.0,-2.0,-2.0,2.0,-2.0,-2.0
2025-06-05 14:12:13.202,0.0036583561,0.0061684744,-0.012228564,0.1206539,-0.05122395,-0.036709607,0.0,0.0,0.0,0.035785124,0.08135914,0.45175368,-0.2172792,-0.074121885,0.4624644,-0.13963607,0.06978286,-0.46665606,-0.12939125,0.13242993,-0.47168612,-0.19266662,-0.048456308,0.024163987,0.04263546,0.020462066,-0.024738679,-0.017763738,-0.0025442515,0.025621377,0.006992519,0.072395675,0.05739494,0.049613196,2.0,2.0,-2.0,-2.0,2.0,-2.0,2.0,-2.0,-2.0,2.0,-2.0,-2.0,2.0,2.0,-2.0,-2.0,2.0,-2.0,2.0,-2.0,-2.0,2.0,-2.0,-2.0
2025-06-05 14:12:13.223,0.04666417,-0.0028460857,-0.007984198,0.11450978,-0.057018287,-0.030619401,0.0,0.0,0.0,0.035785154,0.09050335,0.4587742,-0.20390722,-0.0842997,0.45749518,-0.13402149,0.07425601,-0.4712869,-0.115646996,0.14173529,-0.47490925,-0.18169022,0.030229505,0.015900793,0.021964176,0.03748064,-0.0457883,-0.051817145,-0.072536975,-0.03092552,0.01695356,-0.06580115,-0.047695015,0.040432792,2.0,2.0,-2.0,-2.0,2.0,-2.0,2.0,-2.0,-2.0,2.0,-2.0,-2.0,2.0,2.0,-2.0,-2.0,2.0,-2.0,2.0,-2.0,-2.0,2.0,-2.0,-2.0
2025-06-05 14:12:13.242,0.032940123,-0.0014772123,0.021857591,0.10512815,-0.020575829,-0.0048261588,0.0,0.0,0.0,0.035785176,0.07789074,0.46016738,-0.20272753,-0.08969302,0.46006787,-0.15128024,0.07559887,-0.4675818,-0.12587595,0.14567195,-0.47442463,-0.1877908,-0.0008745694,-0.043599263,0.002165305,0.011176243,0.051465504,0.020977253,-0.06993585,0.043901403,0.025932452,0.07493867,0.0031134887,-0.06752315,2.0,2.0,-2.0,-2.0,2.0,-2.0,2.0,-2.0,-2.0,2.0,-2.0,-2.0,2.0,2.0,-2.0,-2.0,2.0,-2.0,2.0,-2.0,-2.0,2.0,-2.0,-2.0
2025-06-05 14:12:13.262,-0.007453227,-0.048269153,0.0044835648,0.038303073,-0.075340606,-0.012016218,0.0,0.0,0.0,0.0357852,0.07284649,0.45627826,-0.20754492,-0.078885056,0.45092562,-0.13983986,0.07188073,-0.45761505,-0.11556679,0.14333916,-0.46760535,-0.18275349,-0.064723454,-0.06809263,0.017930873,-0.028460275,-0.05468328,0.016194195,0.008244926,0.047018304,-0.07400252,0.051751018,-0.03732367,-0.026706528,2.0,2.0,-2.0,-2.0,2.0,-2.0,2.0,-2.0,-2.0,2.0,-2.0,-2.0,2.0,2.0,-2.0,-2.0,2.0,-2.0,2.0,-2.0,-2.0,2.0,-2.0,-2.0
2025-06-05 14:12:13.285,0.020389562,0.008301897,0.039749745,0.05279034,-0.10233185,0.008177497,0.0,0.0,0.0,0.035785217,0.07710069,0.45986095,-0.21636866,-0.072152965,0.44677055,-0.14579396,0.07578885,-0.46263775,-0.13065502,0.13206907,-0.4742034,-0.17730778,0.023245685,-0.013987453,0.032405633,-0.02371517,-0.042832714,0.063089915,-0.06121753,0.023149831,0.050447542,-0.063602984,-0.029041834,0.055130735,2.0,2.0,-2.0,-2.0,2.0,-2.0,2.0,-2.0,-2.0,2.0,-2.0,-2.0,2.0,2.0,-2.0,-2.0,2.0,-2.0,2.0,-2.0,-2.0,2.0,-2.0,-2.0
2025-06-05 14:12:13.302,-0.03335896,0.048566636,-0.022523636,0.10133069,-0.03224768,-0.014102497,0.0,0.0,0.0,0.03578523,0.08839574,0.45126432,-0.21011545,-0.07081541,0.45812562,-0.13783067,0.06137744,-0.47270885,-0.122706756,0.13198233,-0.4647511,-0.18978564,0.019624284,0.05870965,0.0007549311,0.01200161,0.05653121,-0.037603073,-0.027623372,0.014610137,0.05440994,-0.07153879,-0.051822077,-0.0402561,2.0,2.0,-2.0,-2.0,2.0,-2.0,2.0,-2.0,-2.0,2.0,-2.0,-2.0,2.0,2.0,-2.0,-2.0,2.0,-2.0,2.0,-2.0,-2.0,2.0,-2.0,-2.0
2025-06-05 14:12:13.322,0.0043282444,-0.0033509587,-0.026013609,0.11150336,-0.040879432,0.04884833,0.0,0.0,0.0,0.035785247,0.076163985,0.45095563,-0.20305796,-0.07935929,0.45178887,-0.13381247,0.056935273,-0.46946058,-0.11816908,0.12997118,-0.46510896,-0.18086573,-0.03820934,0.0050624367,0.03219718,-0.0315405,-0.06482937,0.03267421,-0.020229066,-0.01020527,0.013264058,0.016513139,-0.027483126,0.0670074,2.0,2.0,-2.0,-2.0,2.0,-2.0,2.0,-2.0,-2.0,2.0,-2.0,-2.0,2.0,2.0,-2.0,-2.0,2.0,-2.0,2.0,-2.0,-2.0,2.0,-2.0,-2.0
2025-06-05 14:12:13.343,-0.030604947,0.0010037271,-0.046619814,0.0777645,-0.10433856,0.017185232,0.0,0.0,0.0,0.035785258,0.08932482,0.46283308,-0.21472186,-0.075396545,0.46228132,-0.15042332,0.06380203,-0.4697905,-0.1318197,0.13183491,-0.47164723,-0.19098993,0.049520772,-0.020611614,0.036874324,0.03476302,0.015688904,0.012266542,0.034938812,0.053984925,-0.00092038175,-0.03501626,0.055419702,0.04390849,2.0,2.0,-2.0,-2.0,2.0,-2.0,2.0,-2.0,-2.0,2.0,-2.0,-2.0,2.0,2.0,-2.0,-2.0,2.0,-2.0,2.0,-2.0,-2.0,2.0,-2.0,-2.0
2025-06-05 14:12:13.364,-0.016711332,0.00023903282,0.04778492,0.058652874,-0.02703111,0.02911822,0.0,0.0,0.0,0.03578527,0.07278205,0.4564389,-0.21611233,-0.089520015,0.45291507,-0.14674914,0.060503777,-0.4586561,-0.117949784,0.13920596,-0.471746,-0.19174336,0.021317407,0.020806303,0.04502854,-0.048450563,-0.038472004,0.021282801,-0.06931597,-0.045128547,0.044109974,0.0038317146,-0.06938679,0.043151367,2.0,2.0,-2.0,-2.0,2.0,-2.0,2.0,-2.0,-2.0,2.0,-2.0,-2.0,2.0,2.0,-2.0,-2.0,2.0,-2.0,2.0,-2.0,-2.0,2.0,-2.0,-2.0
2025-06-05 14:12:13.385,-0.039327275,-0.028785205,0.0031070174,0.08071429,-0.06027292,-0.03761013,0.0,0.0,0.0,0.03578528,0.072438225,0.45865202,-0.20530328,-0.08137976,0.44337502,-0.1504771,0.06819996,-0.46018276,-0.11403169,0.1362791,-0.46434516,-0.1866621,0.029417953,0.06185619,0.050556242,0.055378918,-0.051876936,0.0103911925,-0.028395278,-0.032735627,0.0011813572,0.011577651,-0.019453816,-0.0567463,2.0,2.0,-2.0,-2.0,2.0,-2.0,2.0,-2.0,-2.0,2.0,-2.0,-2.0,2.0,2.0,-2.0,-2.0,2.0,-2.0,2.0,-2.0,-2.0,2.0,-2.0,-2.0
2025-06-05 14:12:13.403,0.047114626,0.0048121116,0.046719346,0.07545098,-0.09202101,-0.014760825,0.0,0.0,0.0,0.035785288,0.080233365,0.45095107,-0.2065512,-0.071961924,0.44343874,-0.13977574,0.06816252,-0.46332994,-0.123326145,0.13998894,-0.4778519,-0.18354891,-0.035948828,0.023781978,0.031383354,0.026349949,0.06373639,0.045508523,-0.041640643,-0.03868372,0.017138543,0.07108027,0.057864156,0.057151057,2.0,2.0,-2.0,-2.0,2.0,-2.0,2.0,-2.0,-2.0,2.0,-2.0,-2.0,2.0,2.0,-2.0,-2.0,2.0,-2.0,2.0,-2.0,-2.0,2.0,-2.0,-2.0
2025-06-05 14:12:13.423,-0.037278768,0.012974366,-0.01599925,0.046967972,-0.1024305,-0.049311925,0.0,0.0,0.0,0.035785295,0.075977765,0.45452973,-0.20535344,-0.07672633,0.4523405,-0.15289913,0.056821555,-0.46148202,-0.13184339,0.14130981,-0.47154385,-0.17796722,-0.028233064,-0.03088236,0.057017975,-0.0055110822,-0.06411758,0.06823826,-0.005288843,-0.013461609,0.05624458,-0.0030501087,-0.020389311,-0.06639992,2.0,2.0,-2.0,-2.0,2.0,-2.0,2.0,-2.0,-2.0,2.0,-2.0,-2.0,2.0,2.0,-2.0,-2.0,2.0,-2.0,2.0,-2.0,-2.0,2.0,-2.0,-2.0
2025-06-05 14:12:13.443,0.008402656,-0.04053912,0.04495977,0.11649806,-0.10642107,-0.0010388424,0.0,0.0,0.0,0.035785303,0.07963125,0.46262038,-0.20997381,-0.087774016,0.44796884,-0.14298044,0.0746588,-0.45925206,-0.11550903,0.1372208,-0.47649118,-0.17638507,-0.068876944,-0.048460536,0.06124518,0.018117532,-0.07177126,0.029527202,-0.057290785,-0.049920775,-0.023945846,-0.036321204,-0.062366623,-0.042962067,2.0,2.0,-2.0,-2.0,2.0,-2.0,2.0,-2.0,-2.0,2.0,-2.0,-2.0,2.0,2.0,-2.0,-2.0,2.0,-2.0,2.0,-2.0,-2.0,2.0,-2.0,-2.0
2025-06-05 14:12:13.463,0.035315786,-0.036325652,-0.049782053,0.12642618,-0.07605102,-0.03097209,0.0,0.0,0.0,0.035785306,0.07524121,0.45239252,-0.21971326,-0.08225804,0.45102957,-0.14978422,0.0734463,-0.47284526,-0.11424791,0.14059526,-0.46245185,-0.17815815,-0.015342943,-0.044450246,0.043862052,0.06055059,-0.06561264,-0.049920086,-0.0204561,-0.024165519,0.030389084,0.062286567,-0.06916852,0.039415818,2.0,2.0,-2.0,-2.0,2.0,-2.0,2.0,-2.0,-2.0,2.0,-2.0,-2.0,2.0,2.0,-2.0,-2.0,2.0,-2.0,2.0,-2.0,-2.0,2.0,-2.0,-2.0
2025-06-05 14:12:13.485,-0.028680714,-0.03949251,-0.010060803,0.122122526,-0.072434686,-0.012434918,0.0,0.0,0.0,0.035785314,0.08685605,0.45288053,-0.21680833,-0.087518446,0.4568535,-0.14428365,0.06944543,-0.47281516,-0.11650958,0.13980672,-0.46276665,-0.19283,-0.027207596,0.054667853,-0.02748716,-0.060637914,-0.022975735,-0.026898876,-0.03488734,-0.027987827,0.046351213,0.05470302,0.007920012,0.052942548,2.0,2.0,-2.0,-2.0,2.0,-2.0,2.0,-2.0,-2.0,2.0,-2.0,-2.0,2.0,2.0,-2.0,-2.0,2.0,-2.0,2.0,-2.0,-2.0,2.0,-2.0,-2.0
2025-06-05 14:12:13.503,-0.02622756,0.00019085531,-0.010395144,0.09567498,-0.03334682,0.038898572,0.0,0.0,0.0,0.035785317,0.07971491,0.46282482,-0.20580167,-0.08474906,0.4559522,-0.13646407,0.073941685,-0.4642904,-0.12318013,0.12932475,-0.47680643,-0.18584226,-0.038376167,0.020083843,0.03983928,0.0553611,-0.0309278,-0.06384146,-0.046529725,-0.06984466,0.05418221,-0.02721245,0.042335216,0.028007627,2.0,2.0,-2.0,-2.0,2.0,-2.0,2.0,-2.0,-2.0,2.0,-2.0,-2.0,2.0,2.0,-2.0,-2.0,2.0,-2.0,2.0,-2.0,-2.0,2.0,-2.0,-2.0
2025-06-05 14:12:13.523,0.044545025,0.0446841,-0.042052876,0.110992976,-0.0887747,0.0067813895,0.0,0.0,0.0,0.03578532,0.08847342,0.4664688,-0.20752585,-0.07154678,0.4593112,-0.14266856,0.056721028,-0.4581661,-0.12762055,0.14148584,-0.46168154,-0.19234858,0.026672876,-0.007309282,0.0473312,0.042759735,-0.039698,-0.050142825,-0.03534098,-0.03279563,0.03331693,0.048255898,0.06592316,-0.05884105,2.0,2.0,-2.0,-2.0,2.0,-2.0,2.0,-2.0,-2.0,2.0,-2.0,-2.0,2.0,2.0,-2.0,-2.0,2.0,-2.0,2.0,-2.0,-2.0,2.0,-2.0,-2.0
2025-06-05 14:12:13.544,0.023241898,-0.014650515,0.00836435,0.06957439,-0.08215741,0.020012215,0.0,0.0,0.0,0.035785325,0.07248643,0.45810428,-0.21738425,-0.08479754,0.46086782,-0.15105565,0.0570615,-0.46695814,-0.122912355,0.13175204,-0.4585599,-0.17664094,0.010266235,-0.061000768,0.06997485,0.0308476,-0.05246549,0.012396005,-0.052135307,-0.058962345,0.029682996,-0.04658167,-0.026005855,0.0719163,2.0,2.0,-2.0,-2.0,2.0,-2.0,2.0,-2.0,-2.0,2.0,-2.0,-2.0,2.0,2.0,-2.0,-2.0,2.0,-2.0,2.0,-2.0,-2.0,2.0,-2.0,-2.0
2025-06-05 14:12:13.566,0.04811349,0.032673456,-0.010410896,0.047954597,-0.0214092,0.0030047577,0.0,0.0,0.0,0.035785325,0.08364145,0.45462978,-0.21311375,-0.08054257,0.4447633,-0.14336835,0.06397574,-0.4678675,-0.11935806,0.13168299,-0.47179586,-0.18325362,-0.04882804,0.030619118,-0.05108687,-0.068302765,0.04703308,0.042090368,-0.027335702,0.05994536,-0.022551358,-0.041077334,-0.048470177,0.056712758,2.0,2.0,-2.0,-2.0,2.0,-2.0,2.0,-2.0,-2.0,2.0,-2.0,-2.0,2.0,2.0,-2.0,-2.0,2.0,-2.0,2.0,-2.0,-2.0,2.0,-2.0,-2.0
2025-06-05 14:12:13.585,-0.041972842,0.013019495,0.021365864,0.12883376,-0.019304652,-0.03981415,0.0,0.0,0.0,0.03578533,0.08641392,0.45393184,-0.21234368,-0.083445065,0.4615305,-0.14057708,0.07373007,-0.46876872,-0.12955819,0.1340192,-0.46773008,-0.18657747,-0.0019044462,0.03700866,-0.011061258,0.057856254,-0.031160481,0.049900837,0.072861336,0.015167646,0.023327833,-0.06588066,0.011317118,0.054678455,2.0,2.0,-2.0,-2.0,2.0,-2.0,2.0,-2.0,-2.0,2.0,-2.0,-2.0,2.0,2.0,-2.0,-2.0,2.0,-2.0,2.0,-2.0,-2.0,2.0,-2.0,-2.0
2025-06-05 14:12:13.604,-0.025159707,-0.045492094,-0.01178509,0.10550191,-0.031529006,0.033695012,0.0,0.0,0.0,0.035785332,0.07739262,0.45695645,-0.21999845,-0.08265483,0.4473658,-0.1386173,0.05700648,-0.46952012,-0.12747224,0.1403483,-0.4670089,-0.19444676,-0.02743147,0.003410225,0.02147193,0.018665427,-0.06076344,-0.061015867,-0.016269758,-0.026243618,0.01886266,-0.04978982,0.01922034,0.04908131,2.0,2.0,-2.0,-2.0,2.0,-2.0,2.0,-2.0,-2.0,2.0,-2.0,-2.0,2.0,2.0,-2.0,-2.0,2.0,-2.0,2.0,-2.0,-2.0,2.0,-2.0,-2.0
2025-06-05 14:12:13.625,0.012857601,0.016471684,-0.038934756,0.07104466,-0.012744533,0.017595349,0.0,0.0,0.0,0.035785332,0.082925975,0.45081782,-0.20456994,-0.08086452,0.44826427,-0.14902586,0.075670905,-0.474742,-0.121671446,0.14084545,-0.4618471,-0.18865299,-0.06650526,0.073974736,-0.04653544,-0.051433068,-0.017152352,-0.05672449,-0.046408083,-0.01770671,-0.035973787,0.04666003,0.0068347426,0.03498404,2.0,2.0,-2.0,-2.0,2.0,-2.0,2.0,-2.0,-2.0,2.0,-2.0,-2.0,2.0,2.0,-2.0,-2.0,2.0,-2.0,2.0,-2.0,-2.0,2.0,-2.0,-2.0
2025-06-05 14:12:13.644,0.011826188,0.007640358,0.013435161,0.093674175,-0.06130428,-0.011156677,0.0,0.0,0.0,0.035785336,0.07119296,0.4635714,-0.21199596,-0.08259601,0.45786425,-0.1519083,0.0666185,-0.47125998,-0.11482466,0.13749824,-0.461345,-0.17532848,-0.06169242,0.026902672,-0.050187156,-0.04142042,-0.030764386,0.073417194,-0.044320773,-0.051704403,0.025655586,0.0135677885,0.0035605852,0.07186097,2.0,2.0,-2.0,-2.0,2.0,-2.0,2.0,-2.0,-2.0,2.0,-2.0,-2.0,2.0,2.0,-2.0,-2.0,2.0,-2.0,2.0,-2.0,-2.0,2.0,-2.0,-2.0
2025-06-05 14:12:13.668,-0.033039574,-0.012640534,-0.04187337,0.05878668,-0.08706317,0.018203285,0.0,0.0,0.0,0.035785336,0.08277794,0.46085337,-0.20951162,-0.07231803,0.45098865,-0.1380897,0.058882654,-0.46471944,-0.12988752,0.13529629,-0.47578746,-0.17513783,-0.05467997,-0.0073620463,0.013635958,0.040987127,0.0072944504,-0.042358693,-0.00040864488,0.0012341598,0.05531691,0.047912307,0.026274128,0.07385507,2.0,2.0,-2.0,-2.0,2.0,-2.0,2.0,-2.0,-2.0,2.0,-2.0,-2.0,2.0,2.0,-2.0,-2.0,2.0,-2.0,2.0,-2.0,-2.0,2.0,-2.0,-2.0
2025-06-05 14:12:13.685,-0.008686067,-0.024546633,0.039713856,0.10624087,-0.04787462,0.027652264,0.0,0.0,0.0,0.03578534,0.07267782,0.46698788,-0.2148594,-0.07841936,0.44727248,-0.13636531,0.07266938,-0.4600879,-0.11424064,0.1344896,-0.46315703,-0.18226878,-0.016932556,-0.007430129,-0.04382299,0.053125355,-0.054287326,0.055775415,-0.0734853,0.027965363,-0.016785149,-0.07320534,0.01645288,-0.04665667,2.0,2.0,-2.0,-2.0,2.0,-2.0,2.0,-2.0,-2.0,2.0,-2.0,-2.0,2.0,2.0,-2.0,-2.0,2.0,-2.0,2.0,-2.0,-2.0,2.0,-2.0,-2.0
2025-06-05 14:12:13.704,-0.0025635855,0.028993942,-0.00626629,0.11489317,-0.105631515,-0.0030223075,0.0,0.0,0.0,0.03578534,0.07950051,0.4584402,-0.21876465,-0.08443516,0.45683354,-0.1364562,0.07455976,-0.46414885,-0.12193784,0.13105713,-0.4704174,-0.18460187,0.06602721,-0.0628266,0.04239729,0.014931962,-0.011086506,-0.04973757,0.061296515,0.059378568,-0.053771105,-0.0119195515,-0.050591372,0.031184178,2.0,2.0,-2.0,-2.0,2.0,-2.0,2.0,-2.0,-2.0,2.0,-2.0,-2.0,2.0,2.0,-2.0,-2.0,2.0,-2.0,2.0,-2.0,-2.0,2.0,-2.0,-2.0
2025-06-05 14:12:13.725,0.04812641,0.047884844,-0.013832154,0.040096585,-0.031839795,0.020805167,0.0,0.0,0.0,0.03578534,0.08628444,0.45725566,-0.21821119,-0.08018138,0.44950637,-0.13867879,0.06312388,-0.45607898,-0.11600944,0.1351454,-0.47588786,-0.18608817,0.06821326,-0.041744214,-0.028728208,-0.06368548,-0.056623694,0.056158084,0.060378347,-0.0248066,0.034600392,-0.03374557,-0.00023145769,0.074708514,2.0,2.0,-2.0,-2.0,2.0,-2.0,2.0,-2.0,-2.0,2.0,-2.0,-2.0,2.0,2.0,-2.0,-2.0,2.0,-2.0,2.0,-2.0,-2.0,2.0,-2.0,-2.0
2025-06-05 14:12:13.745,0.031304304,-0.045565415,-0.009291073,0.09773651,-0.101396754,-0.04492939,0.0,0.0,0.0,0.035785343,0.08510174,0.45434055,-0.20493765,-0.076265655,0.4563347,-0.14468367,0.05823864,-0.46051767,-0.12662205,0.1345766,-0.47536945,-0.19231023,0.06457082,0.0395728,-0.059392072,0.052267015,-0.043562096,-0.05356775,-0.041510098,0.05827022,0.009905756,0.057106588,0.008547967,0.030001875,2.0,2.0,-2.0,-2.0,2.0,-2.0,2.0,-2.0,-2.0,2.0,-2.0,-2.0,2.0,2.0,-2.0,-2.0,2.0,-2.0,2.0,-2.0,-2.0,2.0,-2.0,-2.0
2025-06-05 14:12:13.768,-0.04807113,0.023055915,0.0147408955,0.13268597,-0.064826965,0.020397427,0.0,0.0,0.0,0.035785343,0.08565192,0.4529585,-0.21443592,-0.08567304,0.44799176,-0.14099772,0.0716442,-0.45762944,-0.1150825,0.12850027,-0.46909732,-0.18066438,-0.02526654,0.06413733,0.027673356,0.03272599,0.071571775,-0.0087843,0.06698163,-0.053190466,-0.0043085036,0.0657147,-0.0058197323,-0.062172715,2.0,2.0,-2.0,-2.0,2.0,-2.0,2.0,-2.0,-2.0,2.0,-2.0,-2.0,2.0,2.0,-2.0,-2.0,2.0,-2.0,2.0,-2.0,-2.0,2.0,-2.0,-2.0
2025-06-05 14:12:13.785,-0.0022444224,0.028957993,-0.026066346,0.083263226,-0.08637689,0.044925667,0.0,0.0,0.0,0.035785343,0.08591338,0.4567166,-0.20461412,-0.079215586,0.44632995,-0.13954401,0.07267579,-0.46885315,-0.11304254,0.14665781,-0.46529743,-0.1861414,0.05232063,-0.03487435,0.033496194,-0.018415177,0.03492123,0.03790312,0.03687239,-0.034142315,0.0006302731,-0.06259787,0.05738134,0.023027444,2.0,2.0,-2.0,-2.0,2.0,-2.0,2.0,-2.0,-2.0,2.0,-2.0,-2.0,2.0,2.0,-2.0,-2.0,2.0,-2.0,2.0,-2.0,-2.0,2.0,-2.0,-2.0
2025-06-05 14:12:13.805,-0.014397222,-0.011255347,-0.0029306097,0.074724905,-0.0793255,0.0061054644,0.0,0.0,0.0,0.035785343,0.086058594,0.46576533,-0.21217546,-0.07813823,0.45076114,-0.13783912,0.07106754,-0.4756424,-0.122055426,0.14593233,-0.46580845,-0.19124006,0.07076426,-0.052679375,0.00025906062,0.011379125,-0.027247906,0.04425025,0.041636176,-0.01856448,0.06574105,0.005687932,-0.028190805,-0.02175886,2.0,2.0,-2.0,-2.0,2.0,-2.0,2.0,-2.0,-2.0,2.0,-2.0,-2.0,2.0,2.0,-2.0,-2.0,2.0,-2.0,2.0,-2.0,-2.0,2.0,-2.0,-2.0
2025-06-05 14:12:13.825,-0.0283514,0.04121122,0.039241713,0.12722535,-0.03891716,0.005870127,0.0,0.0,0.0,0.035785343,0.085021324,0.45839718,-0.2174466,-0.08700703,0.45438153,-0.14461263,0.060283594,-0.4639181,-0.122757494,0.14530596,-0.47045434,-0.19182318,0.013768925,0.05475447,-0.004631739,0.042922027,0.051606786,0.0028775309,0.0121919755,-0.01805472,-0.06783552,0.06620929,-0.07451247,0.02969587,2.0,2.0,-2.0,-2.0,2.0,-2.0,2.0,-2.0,-2.0,2.0,-2.0,-2.0,2.0,2.0,-2.0,-2.0,2.0,-2.0,2.0,-2.0,-2.0,2.0,-2.0,-2.0
2025-06-05 14:12:13.846,-0.026679622,0.042122904,-0.030462708,0.0698442,-0.021637494,0.009107712,0.0,0.0,0.0,0.035785343,0.08600243,0.45217142,-0.21019079,-0.07657581,0.44726053,-0.14820568,0.06348042,-0.47152227,-0.11652266,0.13828316,-0.47087547,-0.17581636,-0.035680562,0.0053678444,-0.06621969,-0.04293963,0.0055210674,-0.02738183,0.07493514,-0.04054463,0.019543685,0.009389393,0.02549486,-0.022942122,2.0,2.0,-2.0,-2.0,2.0,-2.0,2.0,-2.0,-2.0,2.0,-2.0,-2.0,2.0,2.0,-2.0,-2.0,2.0,-2.0,2.0,-2.0,-2.0,2.0,-2.0,-2.0
2025-06-05 14:12:13.868,-0.048758324,0.030187521,-0.043480292,0.04723132,-0.013041979,-0.03977031,0.0,0.0,0.0,0.035785347,0.08002436,0.45182407,-0.21291475,-0.07389416,0.4564498,-0.13771445,0.06383425,-0.4703663,-0.12775,0.13439475,-0.47731346,-0.19067752,-0.03252076,0.029326357,0.0007184582,-0.028422415,0.07011868,0.045287397,0.069652215,-0.060976543,-0.07279696,0.020454643,-0.008541398,0.011205812,2.0,2.0,-2.0,-2.0,2.0,-2.0,2.0,-2.0,-2.0,2.0,-2.0,-2.0,2.0,2.0,-2.0,-2.0,2.0,-2.0,2.0,-2.0,-2.0,2.0,-2.0,-2.0
2025-06-05 14:12:13.885,-0.04343126,0.024798423,0.015414227,0.055650577,-0.09658519,-0.023923818,0.0,0.0,0.0,0.035785347,0.07848115,0.4614471,-0.20713699,-0.07771907,0.45066336,-0.14712226,0.06819743,-0.46653444,-0.13063957,0.14288256,-0.47729713,-0.18735775,0.05280897,-0.073686115,0.0353281,0.07209031,0.0075110095,-0.015693042,0.051517665,0.07131611,-0.06406448,0.058132175,-0.00289602,0.03217675,2.0,2.0,-2.0,-2.0,2.0,-2.0,2.0,-2.0,-2.0,2.0,-2.0,-2.0,2.0,2.0,-2.0,-2.0,2.0,-2.0,2.0,-2.0,-2.0,2.0,-2.0,-2.0
2025-06-05 14:12:13.906,0.031724613,0.002426079,-0.032064278,0.11141743,-0.07727594,0.01666879,0.0,0.0,0.0,0.035785347,0.07723962,0.45524955,-0.22036219,-0.07649754,0.46044496,-0.13546056,0.07568493,-0.47138888,-0.11866821,0.13592842,-0.46208474,-0.19199415,-0.0016015776,0.06937774,-0.0041730376,-0.008448666,0.0111763915,0.026262064,0.010734313,0.054148257,-0.052274164,0.039553124,-0.01084568,-0.022473108,2.0,2.0,-2.0,-2.0,2.0,-2.0,2.0,-2.0,-2.0,2.0,-2.0,-2.0,2.0,2.0,-2.0,-2.0,2.0,-2.0,2.0,-2.0,-2.0,2.0,-2.0,-2.0
2025-06-05 14:12:13.926,0.008488413,0.015549118,-0.01119436,0.09725629,-0.019969242,0.035133854,0.0,0.0,0.0,0.035785347,0.071589686,0.45861307,-0.2130328,-0.08215987,0.45909625,-0.14692289,0.06159879,-0.47166136,-0.118395984,0.13349372,-0.46474573,-0.18177317,0.007022641,0.03195045,-0.026654769,-0.0021058167,-0.013889533,0.057362396,0.036126163,0.06100708,-0.053183615,0.048550062,0.036553305,0.04024835,2.0,2.0,-2.0,-2.0,2.0,-2.0,2.0,-2.0,-2.0,2.0,-2.0,-2.0,2.0,2.0,-2.0,-2.0,2.0,-2.0,2.0,-2.0,-2.0,2.0,-2.0,-2.0
2025-06-05 14:12:13.946,0.01568645,0.045811757,0.035286997,0.10026276,-0.05414534,-0.031570535,0.0,0.0,0.0,0.035785347,0.08476085,0.46041942,-0.20117807,-0.071021125,0.4499006,-0.15373665,0.068123,-0.4682669,-0.121503346,0.13466173,-0.46387377,-0.18652217,0.0015122745,0.06987356,-0.074906915,-0.06622678,0.021766089,-0.053149477,-0.03207131,-0.006565812,0.01569421,0.053251565,-0.010398145,-0.07201803,2.0,2.0,-2.0,-2.0,2.0,-2.0,2.0,-2.0,-2.0,2.0,-2.0,-2.0,2.0,2.0,-2.0,-2.0,2.0,-2.0,2.0,-2.0,-2.0,2.0,-2.0,-2.0
2025-06-05 14:12:13.968,0.026676213,-0.04999934,-0.01225228,0.09186373,-0.046889912,0.049805593,0.0,0.0,0.0,0.035785347,0.07893422,0.46479443,-0.21109223,-0.072523996,0.450437,-0.14447355,0.070613064,-0.46430942,-0.12628777,0.13531975,-0.46012503,-0.18745747,0.04944413,0.067376174,0.07357481,0.06410508,-0.07276166,0.058195263,0.0075893174,0.062093593,-0.073926695,-0.039885756,-0.06996319,-0.0126979,2.0,2.0,-2.0,-2.0,2.0,-2.0,2.0,-2.0,-2.0,2.0,-2.0,-2.0,2.0,2.0,-2.0,-2.0,2.0,-2.0,2.0,-2.0,-2.0,2.0,-2.0,-2.0
2025-06-05 14:12:13.985,-0.03186046,-0.037076697,0.000643573,0.062287077,-0.035811126,-0.03579854,0.0,0.0,0.0,0.035785347,0.075591035,0.453129,-0.2082213,-0.07925539,0.44547936,-0.14515431,0.05711809,-0.47088635,-0.12309731,0.13997436,-0.47509688,-0.18489432,0.04858769,-0.0050843107,-0.0048455037,-0.04036873,0.034157112,0.0046924115,0.056489058,-0.00806559,0.062306836,-0.05003621,0.015034273,-0.010650321,2.0,2.0,-2.0,-2.0,2.0,-2.0,2.0,-2.0,-2.0,2.0,-2.0,-2.0,2.0,2.0,-2.0,-2.0,2.0,-2.0,2.0,-2.0,-2.0,2.0,-2.0,-2.0
2025-06-05 14:12:14.005,-0.030781161,-0.030491583,0.02167205,0.12188955,-0.013769179,-0.0056321174,0.0,0.0,0.0,0.035785347,0.08024417,0.4514274,-0.21405125,-0.07588391,0.45868394,-0.14493065,0.06670847,-0.4625723,-0.11766026,0.14727384,-0.46834525,-0.17723975,0.006554848,0.07470651,-0.0437665,0.03419209,-0.032027453,0.05102331,0.0607704,0.010242606,0.012924354,0.03475767,0.02493149,0.0130587965,2.0,2.0,-2.0,-2.0,2.0,-2.0,2.0,-2.0,-2.0,2.0,-2.0,-2.0,2.0,2.0,-2.0,-2.0,2.0,-2.0,2.0,-2.0,-2.0,2.0,-2.0,-2.0
2025-06-05 14:12:14.026,0.005002278,0.031704735,0.0049812235,0.06938046,-0.0086230505,-0.020043204,0.0,0.0,0.0,0.035785347,0.089466594,0.45400658,-0.21588497,-0.0899007,0.46113265,-0.13807149,0.05696347,-0.47567996,-0.1313114,0.14698152,-0.463692,-0.17577139,-0.035900574,0.0022429656,-0.008490822,0.030211542,0.04079962,-0.021236015,-0.04979978,0.063369244,-0.009150884,0.027402094,0.02056233,0.006348321,2.0,2.0,-2.0,-2.0,2.0,-2.0,2.0,-2.0,-2.0,2.0,-2.0,-2.0,2.0,2.0,-2.0,-2.0,2.0,-2.0,2.0,-2.0,-2.0,2.0,-2.0,-2.0
2025-06-05 14:12:14.046,-0.013250894,-0.018525817,0.03649948,0.08813761,-0.007848176,0.047783934,0.0,0.0,0.0,0.035785347,0.089504085,0.45210493,-0.2173659,-0.08608084,0.46291807,-0.14395212,0.06538368,-0.47106442,-0.1210355,0.13684921,-0.47790217,-0.1838053,-0.029154366,0.0036592626,-0.072549224,-0.033913627,0.062438823,0.010395365,0.010155763,-0.0015595326,-0.02706218,-0.038234193,0.053823754,-0.06699262,2.0,2.0,-2.0,-2.0,2.0,-2.0,2.0,-2.0,-2.0,2.0,-2.0,-2.0,2.0,2.0,-2.0,-2.0,2.0,-2.0,2.0,-2.0,-2.0,2.0,-2.0,-2.0
2025-06-05 14:12:14.068,0.013677595,-0.037901364,0.00045803943,0.0580184,-0.008148095,0.00090247166,0.0,0.0,0.0,0.035785347,0.07982754,0.46439224,-0.20677382,-0.07306956,0.4556043,-0.14325105,0.057628185,-0.45996988,-0.11410838,0.13862625,-0.46904558,-0.18361306,0.031264484,0.0060085417,-0.013601272,-0.06491676,-0.008012021,0.042925082,0.060283784,0.03821641,-0.018678183,-0.029520335,-0.040868454,-0.04508388,2.0,2.0,-2.0,-2.0,2.0,-2.0,2.0,-2.0,-2.0,2.0,-2.0,-2.0,2.0,2.0,-2.0,-2.0,2.0,-2.0,2.0,-2.0,-2.0,2.0,-2.0,-2.0
2025-06-05 14:12:14.086,0.044764455,-0.008044223,0.014586292,0.10123203,-0.084160544,-0.005548648,0.0,0.0,0.0,0.035785347,0.08077202,0.46131194,-0.21995278,-0.07218816,0.45549628,-0.15163442,0.059946742,-0.4662632,-0.12666456,0.13227454,-0.46064925,-0.18923332,0.031657197,-0.0050607887,0.0010629927,-0.024399005,0.00022192839,0.02491853,0.037056945,-0.046696674,-0.057216108,-0.03423373,0.008268108,0.02996186,2.0,2.0,-2.0,-2.0,2.0,-2.0,2.0,-2.0,-2.0,2.0,-2.0,-2.0,2.0,2.0,-2.0,-2.0,2.0,-2.0,2.0,-2.0,-2.0,2.0,-2.0,-2.0
2025-06-05 14:12:14.106,-0.030745827,0.040082682,-0.033358317,0.08957335,-0.022657342,0.00970411,0.0,0.0,0.0,0.035785347,0.078519605,0.4544654,-0.21178687,-0.0890695,0.45447844,-0.15265863,0.06761787,-0.4686087,-0.117033176,0.13284926,-0.47000596,-0.17691842,0.048164595,0.061301116,-0.012855648,0.045573343,0.030018747,0.054753054,-0.05328357,0.053250812,-0.018859573,-0.07366115,-0.054438233,-0.039581165,2.0,2.0,-2.0,-2.0,2.0,-2.0,2.0,-2.0,-2.0,2.0,-2.0,-2.0,2.0,2.0,-2.0,-2.0,2.0,-2.0,2.0,-2.0,-2.0,2.0,-2.0,-2.0
2025-06-05 14:12:14.127,0.018092655,-0.015634893,0.01657458,0.06608959,-0.0927042,-0.048104767,0.0,0.0,0.0,0.035785347,0.0829194,0.46000502,-0.20721981,-0.08214845,0.4618754,-0.13493921,0.058781605,-0.47425166,-0.12197095,0.13662623,-0.47156805,-0.18648596,0.06307713,0.056291234,-0.07225678,-0.038602162,-0.038857173,0.037846114,-0.048718665,0.054554705,0.0029322777,-0.06517842,-0.07019216,0.04094267,2.0,2.0,-2.0,-2.0,2.0,-2.0,2.0,-2.0,-2.0,2.0,-2.0,-2.0,2.0,2.0,-2.0,-2.0,2.0,-2.0,2.0,-2.0,-2.0,2.0,-2.0,-2.0
2025-06-05 14:12:14.146,-0.0027852003,-0.012807459,0.049055807,0.07867328,-0.09267706,-0.0074019697,0.0,0.0,0.0,0.035785347,0.07939101,0.4513269,-0.20725194,-0.07931525,0.44808954,-0.1505134,0.059882436,-0.46292555,-0.12857738,0.13043594,-0.4669822,-0.19345754,0.07331194,-0.023320857,0.025077837,-0.0029420035,0.025629463,-0.017052572,0.020517234,0.06092269,-0.057000443,-0.0041589895,-0.061578523,0.06581612,2.0,2.0,-2.0,-2.0,2.0,-2.0,2.0,-2.0,-2.0,2.0,-2.0,-2.0,2.0,2.0,-2.0,-2.0,2.0,-2.0,2.0,-2.0,-2.0,2.0,-2.0,-2.0
2025-06-05 14:12:14.168,-0.028989665,0.025981696,0.010008181,0.04063823,-0.02116217,-0.014120855,0.0,0.0,0.0,0.035785347,0.08885233,0.46035215,-0.22030124,-0.08521884,0.45079497,-0.14825775,0.06903678,-0.4581645,-0.11923534,0.14582838,-0.46160844,-0.17650335,-0.011872734,0.04532645,-0.059817698,-0.019648578,0.008962332,-0.048647042,-0.06478294,0.036647145,-0.038486533,-0.0557652,-0.027821235,-0.01920531,2.0,2.0,-2.0,-2.0,2.0,-2.0,2.0,-2.0,-2.0,2.0,-2.0,-2.0,2.0,2.0,-2.0,-2.0,2.0,-2.0,2.0,-2.0,-2.0,2.0,-2.0,-2.0
2025-06-05 14:12:14.186,0.013447955,0.019212086,0.048571367,0.13158454,-0.057642374,-0.03143196,0.0,0.0,0.0,0.035785347,0.08016462,0.4496861,-0.21711662,-0.085294366,0.45851693,-0.15238908,0.07318853,-0.46311665,-0.122496955,0.1415577,-0.46705595,-0.18510246,-0.06761274,-0.046938065,0.01980887,-0.02323773,-0.06994317,0.04271864,-0.057736393,-0.00984384,0.060669698,-0.058031064,-0.063020386,0.0071833027,2.0,2.0,-2.0,-2.0,2.0,-2.0,2.0,-2.0,-2.0,2.0,-2.0,-2.0,2.0,2.0,-2.0,-2.0,2.0,-2.0,2.0,-2.0,-2.0,2.0,-2.0,-2.0
2025-06-05 14:12:14.207,-0.03636663,0.025965666,-0.010822269,0.09430636,-0.06795609,-0.018516805,0.0,0.0,0.0,0.035785347,0.08525195,0.46647894,-0.21896449,-0.081013046,0.44530308,-0.14485328,0.07535018,-0.45742583,-0.11294953,0.1401185,-0.46708602,-0.19405065,-0.058717847,-0.049626395,0.06856329,0.047450867,-0.07258365,0.072742626,-0.018796077,0.008069521,0.017310353,0.003799175,0.015267175,0.05651046,2.0,2.0,-2.0,-2.0,2.0,-2.0,2.0,-2.0,-2.0,2.0,-2.0,-2.0,2.0,2.0,-2.0,-2.0,2.0,-2.0,2.0,-2.0,-2.0,2.0,-2.0,-2.0
2025-06-05 14:12:14.226,-0.0019805836,0.017208518,-0.024621919,0.05925721,-0.04476136,-0.020065373,0.0,0.0,0.0,0.035785347,0.084096365,0.46632066,-0.21758093,-0.08503313,0.44856253,-0.1371675,0.073246785,-0.45917207,-0.12044354,0.14527106,-0.47615647,-0.1841338,0.055588264,-0.05072107,-0.051835436,0.054631826,0.038895763,-0.042453956,0.07211716,-0.0517993,-0.057082966,0.04997424,0.055104293,0.036026645,2.0,2.0,-2.0,-2.0,2.0,-2.0,2.0,-2.0,-2.0,2.0,-2.0,-2.0,2.0,2.0,-2.0,-2.0,2.0,-2.0,2.0,-2.0,-2.0,2.0,-2.0,-2.0
2025-06-05 14:12:14.247,-0.033192616,0.034063723,-0.024402134,0.1291392,-0.03650802,0.043650705,0.0,0.0,0.0,0.035785347,0.08498641,0.45889103,-0.2150266,-0.07528113,0.4508862,-0.1431086,0.061855756,-0.45714837,-0.121585295,0.139617,-0.4709835,-0.18950419,-0.069807604,0.019456653,0.056102097,0.031411543,0.05750672,-0.01803309,-0.0092948135,-0.020361582,0.029729284,-0.03679928,-0.0381307,0.008231593,2.0,2.0,-2.0,-2.0,2.0,-2.0,2.0,-2.0,-2.0,2.0,-2.0,-2.0,2.0,2.0,-2.0,-2.0,2.0,-2.0,2.0,-2.0,-2.0,2.0,-2.0,-2.0
2025-06-05 14:12:14.268,0.0324667,0.046760168,-0.048877038,0.044888835,-0.059127793,0.042646036,0.0,0.0,0.0,0.035785347,0.08721093,0.46365708,-0.2046717,-0.07640727,0.46101624,-0.14541046,0.05673555,-0.47101253,-0.12428646,0.1422886,-0.47426856,-0.18262625,0.015930431,-0.058091115,0.035882533,0.048371032,-0.05041277,-0.03710216,-0.06746018,-0.027564274,0.045048326,0.024887934,0.033903036,0.065403685,2.0,2.0,-2.0,-2.0,2.0,-2.0,2.0,-2.0,-2.0,2.0,-2.0,-2.0,2.0,2.0,-2.0,-2.0,2.0,-2.0,2.0,-2.0,-2.0,2.0,-2.0,-2.0
2025-06-05 14:12:14.287,-0.013226162,-0.020123504,-0.016257755,0.1104545,-0.07089794,0.031696606,0.0,0.0,0.0,0.035785347,0.08801169,0.45075208,-0.22011602,-0.07891671,0.461086,-0.14858724,0.06571971,-0.45687714,-0.11929782,0.14063919,-0.47648415,-0.19147323,0.0074692285,-0.069147274,0.010137536,-0.049518127,-0.047589637,0.06794564,-0.04807437,0.024549978,0.045911826,-0.04963083,-0.028980924,0.056000143,2.0,2.0,-2.0,-2.0,2.0,-2.0,2.0,-2.0,-2.0,2.0,-2.0,-2.0,2.0,2.0,-2.0,-2.0,2.0,-2.0,2.0,-2.0,-2.0,2.0,-2.0,-2.0
2025-06-05 14:12:14.307,0.021658832,0.046133973,0.006563851,0.13067852,-0.07516055,0.004489214,0.0,0.0,0.0,0.035785347,0.07606112,0.45760998,-0.20197052,-0.07278782,0.45830742,-0.14029035,0.059611954,-0.4743787,-0.12974197,0.1411708,-0.47671077,-0.19025981,0.054922562,-0.041276243,-0.04420949,-0.009440082,-0.048151508,-0.013133383,-0.05070775,0.0669132,-0.0009900745,-0.029105974,0.048958443,0.04317834,2.0,2.0,-2.0,-2.0,2.0,-2.0,2.0,-2.0,-2.0,2.0,-2.0,-2.0,2.0,2.0,-2.0,-2.0,2.0,-2.0,2.0,-2.0,-2.0,2.0,-2.0,-2.0
2025-06-05 14:12:14.384,0.03655318,0.03419447,-0.009788079,0.122438885,-0.062103286,0.01573086,0.0,0.0,0.0,0.035785347,0.08099548,0.46044537,-0.2018591,-0.07168192,0.45705163,-0.1379725,0.07338037,-0.4702863,-0.11725548,0.14778161,-0.46996653,-0.17942873,-0.022112027,0.014781241,-0.019834472,0.059328035,0.009953384,0.0558949,-0.0641501,0.011016252,-0.070954844,-0.04420499,0.03991115,-0.04989329,2.0,2.0,-2.0,-2.0,2.0,-2.0,2.0,-2.0,-2.0,2.0,-2.0,-2.0,2.0,2.0,-2.0,-2.0,2.0,-2.0,2.0,-2.0,-2.0,2.0,-2.0,-2.0
2025-06-05 14:12:14.403,0.046490148,-0.049654443,0.0041576824,0.11104882,-0.033917017,0.04055002,0.0,0.0,0.0,0.03578535,0.08611857,0.46629125,-0.21466038,-0.085836895,0.44614068,-0.14708214,0.060798272,-0.47264907,-0.1288106,0.14166358,-0.46826792,-0.1938572,-0.0059610642,-0.044491354,-0.03315054,0.01924395,0.0605824,0.05157437,-0.00038711086,-0.038520843,0.034875207,-0.003998294,-0.046973854,-0.0063075284,2.0,2.0,-2.0,-2.0,2.0,-2.0,2.0,-2.0,-2.0,2.0,-2.0,-2.0,2.0,2.0,-2.0,-2.0,2.0,-2.0,2.0,-2.0,-2.0,2.0,-2.0,-2.0
2025-06-05 14:12:14.425,0.013037461,0.036286943,-0.043106522,0.08860876,-0.09921931,-0.020656,0.0,0.0,0.0,0.03578535,0.083408274,0.45851016,-0.20737772,-0.07486383,0.4440859,-0.13945216,0.070061706,-0.46059874,-0.1204536,0.13518369,-0.47777146,-0.1856225,-0.00081912644,-0.04016807,0.00058969733,0.05841211,-0.043635268,-0.057344712,-0.052826665,-0.02179519,-0.011361845,0.07177808,0.02822367,-0.06975147,2.0,2.0,-2.0,-2.0,2.0,-2.0,2.0,-2.0,-2.0,2.0,-2.0,-2.0,2.0,2.0,-2.0,-2.0,2.0,-2.0,2.0,-2.0,-2.0,2.0,-2.0,-2.0
2025-06-05 14:12:14.443,0.03248177,-0.041573443,-0.023805207,0.09834264,-0.07597645,0.009524403,0.0,0.0,0.0,0.03578535,0.07483651,0.46227103,-0.21161185,-0.07260436,0.45571336,-0.13541268,0.06288949,-0.4722201,-0.126382,0.12883602,-0.47796047,-0.17948368,-0.0251553,-0.033572957,-0.018168585,0.03140856,0.022678379,0.008315838,0.043428283,-0.031456117,0.005895334,0.021315528,0.07315078,-0.06901669,2.0,2.0,-2.0,-2.0,2.0,-2.0,2.0,-2.0,-2.0,2.0,-2.0,-2.0,2.0,2.0,-2.0,-2.0,2.0,-2.0,2.0,-2.0,-2.0,2.0,-2.0,-2.0
2025-06-05 14:12:14.464,-0.042200558,0.018702297,0.032249458,0.05322396,-0.097177245,-0.026443925,0.0,0.0,0.0,0.03578535,0.090356216,0.45625675,-0.21208568,-0.073442854,0.44425496,-0.14074375,0.074409015,-0.4638744,-0.13211052,0.12950297,-0.46090114,-0.19428994,0.00499735,0.032081876,0.041722514,-0.036581434,0.06446672,-0.021373646,-0.051476512,-0.062168505,-0.023556996,-0.04711909,-0.07485067,-0.06568105,2.0,2.0,-2.0,-2.0,2.0,-2.0,2.0,-2.0,-2.0,2.0,-2.0,-2.0,2.0,2.0,-2.0,-2.0,2.0,-2.0,2.0,-2.0,-2.0,2.0,-2.0,-2.0
2025-06-05 14:12:14.484,-0.0027092765,0.009403992,0.027485585,0.06141472,-0.037463605,-0.015419505,0.0,0.0,0.0,0.03578535,0.075788245,0.4562768,-0.20366567,-0.07264529,0.44932792,-0.13897493,0.066638686,-0.4576495,-0.13229251,0.14105226,-0.47427905,-0.19053699,-0.021113645,-0.068661414,0.025663314,0.07365586,0.069923654,0.059836425,-0.039352134,-0.073205404,-0.027749319,-0.050393835,0.024564119,-0.00571741,2.0,2.0,-2.0,-2.0,2.0,-2.0,2.0,-2.0,-2.0,2.0,-2.0,-2.0,2.0,2.0,-2.0,-2.0,2.0,-2.0,2.0,-2.0,-2.0,2.0,-2.0,-2.0
2025-06-05 14:12:14.503,-0.025399344,-0.042692695,0.034665193,0.06297109,-0.09877529,-0.048994422,0.0,0.0,0.0,0.03578535,0.08298624,0.4486752,-0.20558217,-0.080740534,0.45503768,-0.1466237,0.057924014,-0.456489,-0.11515962,0.13984986,-0.46725816,-0.17762,0.06686309,-0.007974446,0.022711843,0.042974934,-0.04644929,0.018534742,0.042130742,0.057699103,0.059002105,0.03192521,-0.027704928,-0.022446744,2.0,2.0,-2.0,-2.0,2.0,-2.0,2.0,-2.0,-2.0,2.0,-2.0,-2.0,2.0,2.0,-2.0,-2.0,2.0,-2.0,2.0,-2.0,-2.0,2.0,-2.0,-2.0
2025-06-05 14:12:14.523,-0.049227424,0.026016762,-0.024778403,0.133352,-0.071807,0.0024381056,0.0,0.0,0.0,0.03578535,0.08357085,0.45512572,-0.20302491,-0.07639308,0.45601976,-0.14336036,0.07074673,-0.4726581,-0.11818598,0.14006966,-0.45820108,-0.19442631,-0.053387206,-0.0055747186,0.025624989,0.04908639,0.0001352014,-0.063150644,0.055935834,0.04255071,0.0074296696,-0.06583112,-0.024230601,-0.06014462,2.0,2.0,-2.0,-2.0,2.0,-2.0,2.0,-2.0,-2.0,2.0,-2.0,-2.0,2.0,2.0,-2.0,-2.0,2.0,-2.0,2.0,-2.0,-2.0,2.0,-2.0,-2.0
2025-06-05 14:12:14.544,0.044594064,-0.049544267,0.015660573,0.1077791,-0.062138453,0.028292038,0.0,0.0,0.0,0.03578535,0.07906211,0.45184523,-0.21953042,-0.087719224,0.45385826,-0.13819173,0.05763253,-0.47555774,-0.123987205,0.14628045,-0.46959165,-0.18941462,0.04833422,-0.0049889055,-0.0497586,-0.030894518,-0.02091397,0.037867825,-0.0019996888,0.026317509,0.03989282,0.059879784,-0.052271586,0.06786799,2.0,2.0,-2.0,-2.0,2.0,-2.0,2.0,-2.0,-2.0,2.0,-2.0,-2.0,2.0,2.0,-2.0,-2.0,2.0,-2.0,2.0,-2.0,-2.0,2.0,-2.0,-2.0
2025-06-05 14:12:14.566,-0.008542243,0.030838152,-0.026441904,0.08232701,-0.09690324,-0.02153155,0.0,0.0,0.0,0.03578535,0.08851137,0.45892245,-0.21147363,-0.0805859,0.4433717,-0.13394998,0.07504306,-0.46407717,-0.113506466,0.14550866,-0.46752906,-0.17526232,0.013575215,-0.0032284549,0.05189579,0.0116307745,-0.037121728,0.050627403,-0.07288673,0.0049154744,-0.06535334,0.058649875,-0.016717458,0.061436597,2.0,2.0,-2.0,-2.0,2.0,-2.0,2.0,-2.0,-2.0,2.0,-2.0,-2.0,2.0,2.0,-2.0,-2.0,2.0,-2.0,2.0,-2.0,-2.0,2.0,-2.0,-2.0
2025-06-05 14:12:14.584,-0.008596221,-0.031357113,-0.026916852,0.12972309,-0.07379754,-0.023524273,0.0,0.0,0.0,0.03578535,0.079633035,0.45510063,-0.20715241,-0.08163063,0.46097898,-0.14605238,0.05955834,-0.45791438,-0.12824653,0.138595,-0.47410613,-0.18588783,0.065665506,-0.009760821,0.06896491,0.018013414,-0.06975797,0.0054760794,-0.03391723,0.028508473,-0.048639785,0.04156896,-0.01924209,-0.007116558,2.0,2.0,-2.0,-2.0,2.0,-2.0,2.0,-2.0,-2.0,2.0,-2.0,-2.0,2.0,2.0,-2.0,-2.0,2.0,-2.0,2.0,-2.0,-2.0,2.0,-2.0,-2.0
2025-06-05 14:12:14.606,0.0013252057,0.04816982,-0.001226294,0.040504616,-0.10526446,-0.011492788,0.0,0.0,0.0,0.03578535,0.07462761,0.45033056,-0.20448923,-0.07964242,0.46166658,-0.1526594,0.074611485,-0.45616615,-0.12270206,0.12875953,-0.470245,-0.1860568,0.059491068,0.040118393,0.015481462,0.021596983,0.07037433,-0.046248022,0.0027845092,-0.006331608,-0.029338371,-0.06828467,0.023536844,0.06397448,2.0,2.0,-2.0,-2.0,2.0,-2.0,2.0,-2.0,-2.0,2.0,-2.0,-2.0,2.0,2.0,-2.0,-2.0,2.0,-2.0,2.0,-2.0,-2.0,2.0,-2.0,-2.0
2025-06-05 14:12:14.624,0.0023308073,0.00091788766,-0.043457948,0.064947575,-0.071686745,0.003604769,0.0,0.0,0.0,0.03578535,0.0756221,0.4496523,-0.21308745,-0.08487668,0.4497985,-0.13991866,0.0683362,-0.4688013,-0.12923823,0.1329608,-0.47374335,-0.18544622,-0.00023798656,0.05177237,-0.00075818994,-0.058606155,0.008559931,0.030188762,-0.029995888,0.018853277,0.004655543,0.014408548,0.03771396,0.07322143,2.0,2.0,-2.0,-2.0,2.0,-2.0,2.0,-2.0,-2.0,2.0,-2.0,-2.0,2.0,2.0,-2.0,-2.0,2.0,-2.0,2.0,-2.0,-2.0,2.0,-2.0,-2.0
2025-06-05 14:12:14.646,0.042584267,0.0026907446,-0.0038551278,0.052143637,-0.043782923,-0.02298417,0.0,0.0,0.0,0.03578535,0.09010684,0.46034333,-0.21321759,-0.08954329,0.45800295,-0.13599661,0.064907886,-0.45777437,-0.11597782,0.1340442,-0.468382,-0.17656769,0.0019704883,-0.022688478,-0.046985004,-0.01936993,-0.031342987,0.0020330227,0.0055534276,0.023520622,0.04328924,0.0015674821,-0.0218615,0.05196166,2.0,2.0,-2.0,-2.0,2.0,-2.0,2.0,-2.0,-2.0,2.0,-2.0,-2.0,2.0,2.0,-2.0,-2.0,2.0,-2.0,2.0,-2.0,-2.0,2.0,-2.0,-2.0
2025-06-05 14:12:14.667,-0.010939205,0.03736755,0.035342023,0.08202286,-0.041609593,0.016090335,0.0,0.0,0.0,0.03578535,0.08524155,0.45265287,-0.21763211,-0.07483554,0.44432336,-0.15147698,0.0670999,-0.46100247,-0.11297972,0.13566236,-0.4685044,-0.1912995,-0.07180611,-0.049644962,-0.025599156,0.032382574,0.0510934,0.058446478,-0.03260817,0.017449066,-0.0014498656,0.04649971,-0.044898164,0.026233526,2.0,2.0,-2.0,-2.0,2.0,-2.0,2.0,-2.0,-2.0,2.0,-2.0,-2.0,2.0,2.0,-2.0,-2.0,2.0,-2.0,2.0,-2.0,-2.0,2.0,-2.0,-2.0
2025-06-05 14:12:14.684,0.042366434,-0.023272093,0.00061680144,0.09092371,-0.093200676,-0.043531876,0.0,0.0,0.0,0.03578535,0.07168107,0.45093945,-0.2036432,-0.07231731,0.44358623,-0.1448418,0.063889064,-0.46605054,-0.12689881,0.13080323,-0.46950302,-0.18093126,-0.02408813,-0.025164774,-0.020918932,-0.07131134,-0.06291799,0.03751878,0.06693071,0.07220797,0.014297471,-0.0008222237,-0.034170024,0.06166394,2.0,2.0,-2.0,-2.0,2.0,-2.0,2.0,-2.0,-2.0,2.0,-2.0,-2.0,2.0,2.0,-2.0,-2.0,2.0,-2.0,2.0,-2.0,-2.0,2.0,-2.0,-2.0
2025-06-05 14:12:14.705,0.012106607,0.009385535,0.033220667,0.13219133,-0.05379313,0.011828464,0.0,0.0,0.0,0.03578535,0.08153318,0.46262726,-0.21366629,-0.08688826,0.45815253,-0.14852852,0.0740372,-0.46705395,-0.12083617,0.13268904,-0.46933505,-0.19053245,-0.06302483,-0.02894477,-0.039387744,-0.003245606,-0.032489084,0.041653786,0.0021968554,-0.033494588,0.06403516,-0.0001245256,-0.06772282,-0.02047048,2.0,2.0,-2.0,-2.0,2.0,-2.0,2.0,-2.0,-2.0,2.0,-2.0,-2.0,2.0,2.0,-2.0,-2.0,2.0,-2.0,2.0,-2.0,-2.0,2.0,-2.0,-2.0
2025-06-05 14:12:14.725,-0.008506694,0.04489228,0.03323232,0.0932253,-0.050029606,0.008031059,0.0,0.0,0.0,0.03578535,0.07374686,0.46566495,-0.20837481,-0.08537159,0.45374343,-0.1414961,0.059342507,-0.46341935,-0.11955771,0.12857631,-0.46746,-0.17683814,0.039688148,-0.07263462,-0.0028473057,0.04656577,0.05818043,-0.010285887,0.047649384,-0.013966018,0.04568437,0.035338618,-0.04965089,0.006804727,2.0,2.0,-2.0,-2.0,2.0,-2.0,2.0,-2.0,-2.0,2.0,-2.0,-2.0,2.0,2.0,-2.0,-2.0,2.0,-2.0,2.0,-2.0,-2.0,2.0,-2.0,-2.0
2025-06-05 14:12:14.745,-0.019023728,-0.026683828,0.048743304,0.06463942,-0.050043974,-0.043323427,0.0,0.0,0.0,0.03578535,0.081057824,0.4571359,-0.21272993,-0.07091554,0.44755653,-0.1388674,0.07601923,-0.46982756,-0.13024639,0.14334942,-0.46679837,-0.19381735,0.00818312,-0.032087285,0.05917583,-0.026582023,-0.029159626,0.006829929,0.016463442,0.0139856925,0.042044137,-0.024755513,-0.0012093537,-0.0677595,2.0,2.0,-2.0,-2.0,2.0,-2.0,2.0,-2.0,-2.0,2.0,-2.0,-2.0,2.0,2.0,-2.0,-2.0,2.0,-2.0,2.0,-2.0,-2.0,2.0,-2.0,-2.0
2025-06-05 14:12:14.768,0.019570792,-0.009912347,-0.021347703,0.056492798,-0.08505134,-0.002628916,0.0,0.0,0.0,0.03578535,0.088799216,0.4673154,-0.2062323,-0.08672672,0.44498384,-0.1389227,0.0630752,-0.4717163,-0.12306056,0.1410428,-0.46422955,-0.17925681,0.055607203,0.02994855,0.0011426004,-0.051763736,0.041745517,0.048165366,0.0032854497,-0.056032125,0.051376466,-0.060813136,-0.05065267,0.031253207,2.0,2.0,-2.0,-2.0,2.0,-2.0,2.0,-2.0,-2.0,2.0,-2.0,-2.0,2.0,2.0,-2.0,-2.0,2.0,-2.0,2.0,-2.0,-2.0,2.0,-2.0,-2.0
2025-06-05 14:12:14.785,0.00937093,-0.0021504657,-0.028758682,0.10870721,-0.031337876,0.04682516,0.0,0.0,0.0,0.03578535,0.07809505,0.46238223,-0.20136468,-0.08311383,0.45853326,-0.14338444,0.0646453,-0.47274444,-0.11699926,0.1418411,-0.46495244,-0.1752252,0.0038298941,0.065351285,0.07340704,-0.045311842,-0.01304467,-0.023103382,0.04253946,0.012903259,0.038142465,0.056620162,-0.037505202,-0.027126363,2.0,2.0,-2.0,-2.0,2.0,-2.0,2.0,-2.0,-2.0,2.0,-2.0,-2.0,2.0,2.0,-2.0,-2.0,2.0,-2.0,2.0,-2.0,-2.0,2.0,-2.0,-2.0
2025-06-05 14:12:14.805,0.030152299,-0.027955785,-0.042295612,0.12415077,-0.05344675,-0.04102941,0.0,0.0,0.0,0.03578535,0.08981227,0.46039888,-0.21885844,-0.07212154,0.4450328,-0.13535987,0.06271562,-0.4734723,-0.12812425,0.14451587,-0.46039414,-0.18470152,-0.007846128,-0.038607817,-0.025336813,0.03899905,-0.051403508,-0.07036684,-0.02415419,0.016174488,-0.00661738,-0.024674764,0.010146623,-0.0012583988,2.0,2.0,-2.0,-2.0,2.0,-2.0,2.0,-2.0,-2.0,2.0,-2.0,-2.0,2.0,2.0,-2.0,-2.0,2.0,-2.0,2.0,-2.0,-2.0,2.0,-2.0,-2.0
2025-06-05 14:12:14.825,0.013941543,-0.042201158,0.0049744486,0.08377654,-0.08150402,-0.017478058,0.0,0.0,0.0,0.03578535,0.079586625,0.4577326,-0.22021648,-0.08194001,0.45321417,-0.14416876,0.07157665,-0.46664658,-0.12917504,0.13600492,-0.4599342,-0.18893774,-0.028706959,0.04518906,0.03605858,-0.043997243,-0.008235247,0.012015298,-0.049177468,-0.0352429,0.026977327,-0.059508372,0.033311155,-0.019991081,2.0,2.0,-2.0,-2.0,2.0,-2.0,2.0,-2.0,-2.0,2.0,-2.0,-2.0,2.0,2.0,-2.0,-2.0,2.0,-2.0,2.0,-2.0,-2.0,2.0,-2.0,-2.0
2025-06-05 14:12:14.845,0.035900265,0.01429196,-0.026868269,0.05032607,-0.06466817,-0.045895148,0.0,0.0,0.0,0.03578535,0.08525938,0.4650918,-0.22031805,-0.07099575,0.45052838,-0.13847837,0.056512397,-0.46417016,-0.12262978,0.1435416,-0.45944372,-0.19180553,-0.020023163,0.06324495,0.06578369,0.05582228,0.053157773,0.021445552,-0.0066069467,-0.009328895,-0.05906296,0.035539325,-0.0067809573,0.035116214,2.0,2.0,-2.0,-2.0,2.0,-2.0,2.0,-2.0,-2.0,2.0,-2.0,-2.0,2.0,2.0,-2.0,-2.0,2.0,-2.0,2.0,-2.0,-2.0,2.0,-2.0,-2.0
2025-06-05 14:12:14.868,-0.023383996,0.04371727,0.021925675,0.07724499,-0.023328891,-0.034407746,0.0,0.0,0.0,0.03578535,0.08870283,0.46063492,-0.20521313,-0.085940324,0.4610193,-0.14196265,0.070039414,-0.47174987,-0.12519109,0.1333126,-0.4718668,-0.18758245,-0.010490461,0.04862955,0.03251083,0.0035719743,0.04543083,0.032096114,0.0130186565,-0.064140655,-0.015224483,0.051773157,-0.07112839,0.02343989,2.0,2.0,-2.0,-2.0,2.0,-2.0,2.0,-2.0,-2.0,2.0,-2.0,-2.0,2.0,2.0,-2.0,-2.0,2.0,-2.0,2.0,-2.0,-2.0,2.0,-2.0,-2.0
2025-06-05 14:12:14.885,-0.019900175,-0.042485442,-0.0013224849,0.075260736,-0.04580481,0.02054421,0.0,0.0,0.0,0.03578535,0.07712421,0.46494937,-0.20523612,-0.08902362,0.45459244,-0.14013079,0.064451054,-0.46464738,-0.13110256,0.14044575,-0.46527988,-0.18399587,-0.006108788,0.07420952,0.0531037,-0.004232657,-0.015642637,0.052457575,-0.061387062,0.057639513,0.057358924,-0.025610253,0.048963226,-0.016496973,2.0,2.0,-2.0,-2.0,2.0,-2.0,2.0,-2.0,-2.0,2.0,-2.0,-2.0,2.0,2.0,-2.0,-2.0,2.0,-2.0,2.0,-2.0,-2.0,2.0,-2.0,-2.0
2025-06-05 14:12:14.906,0.002899569,-0.03716349,-0.045640767,0.1343238,-0.106202446,-0.008241316,0.0,0.0,0.0,0.03578535,0.082835615,0.45646113,-0.2014737,-0.090142876,0.45076802,-0.13476719,0.07579465,-0.46963796,-0.11554391,0.13123028,-0.47555804,-0.17809343,-0.06684252,-0.046891,-0.039858073,-0.061295487,-0.035293974,0.015034381,0.06504511,-0.0095058065,-0.009429956,0.05803354,-0.06533412,-0.0015911019,2.0,2.0,-2.0,-2.0,2.0,-2.0,2.0,-2.0,-2.0,2.0,-2.0,-2.0,2.0,2.0,-2.0,-2.0,2.0,-2.0,2.0,-2.0,-2.0,2.0,-2.0,-2.0
2025-06-05 14:12:14.926,-0.04380645,-0.026915379,0.04236732,0.13070238,-0.033369035,-0.0077756406,0.0,0.0,0.0,0.03578535,0.07337737,0.46662718,-0.21352306,-0.086979926,0.4584332,-0.13399856,0.0683042,-0.47278664,-0.117181756,0.13671225,-0.47728702,-0.1759331,0.06174324,0.015561065,-0.07022295,0.015973072,0.012955264,-0.044768307,-0.023214199,-0.05625117,-0.042977486,0.011929382,0.05489486,0.07184219,2.0,2.0,-2.0,-2.0,2.0,-2.0,2.0,-2.0,-2.0,2.0,-2.0,-2.0,2.0,2.0,-2.0,-2.0,2.0,-2.0,2.0,-2.0,-2.0,2.0,-2.0,-2.0
2025-06-05 14:12:14.946,0.009503421,0.03583658,-0.01668555,0.11697073,-0.014636638,-0.012295483,0.0,0.0,0.0,0.03578535,0.075171046,0.4495573,-0.21481341,-0.07433403,0.460527,-0.14752501,0.07479028,-0.45597172,-0.11733984,0.13863693,-0.4599302,-0.1936671,-0.057642404,0.05630435,-0.04621616,-0.026199995,0.07364911,-0.036029886,-0.055195853,0.031043407,-0.00657746,0.06344955,-0.067890845,0.062052645,2.0,2.0,-2.0,-2.0,2.0,-2.0,2.0,-2.0,-2.0,2.0,-2.0,-2.0,2.0,2.0,-2.0,-2.0,2.0,-2.0,2.0,-2.0,-2.0,2.0,-2.0,-2.0
2025-06-05 14:12:14.967,0.0034399582,-0.041726362,0.011948677,0.08124619,-0.080847085,-0.024933401,0.0,0.0,0.0,0.03578535,0.07972737,0.46607974,-0.20310682,-0.08199949,0.4544389,-0.15361747,0.059906602,-0.45615098,-0.120008916,0.13389798,-0.46592602,-0.17914571,0.039567493,-0.072186016,0.05067753,-0.03434345,0.00472772,-0.02024539,-0.06392049,-0.0488038,-0.0588002,0.04458659,-0.039769538,0.016673453,2.0,2.0,-2.0,-2.0,2.0,-2.0,2.0,-2.0,-2.0,2.0,-2.0,-2.0,2.0,2.0,-2.0,-2.0,2.0,-2.0,2.0,-2.0,-2.0,2.0,-2.0,-2.0
2025-06-05 14:12:14.986,0.0069241347,0.030262262,0.022533244,0.13062131,-0.06595178,-0.010012553,0.0,0.0,0.0,0.03578535,0.079826735,0.4587983,-0.20383517,-0.081235014,0.4482282,-0.14751264,0.057487242,-0.46198916,-0.12580602,0.14289464,-0.4755557,-0.1886472,-0.043191794,-0.0065973145,0.048278715,0.0038094905,0.0736042,-0.07101818,-0.005560896,-0.028010478,2.0318865e-05,-0.049690206,0.0008298216,0.04866544,2.0,2.0,-2.0,-2.0,2.0,-2.0,2.0,-2.0,-2.0,2.0,-2.0,-2.0,2.0,2.0,-2.0,-2.0,2.0,-2.0,2.0,-2.0,-2.0,2.0,-2.0,-2.0
