openverse-orca/OrcaGym/log/simulation_log_20250721_142722.csv
timestamp,sim_time,physics_step,control_step,imu_angle_roll,imu_angle_pitch,imu_angle_yaw,imu_angular_velocity_roll,imu_angular_velocity_pitch,imu_angular_velocity_yaw,imu_acc_x,imu_acc_y,imu_acc_z,fl_joint1_pos,fl_joint1_vel,fl_joint1_torque,fl_joint2_pos,fl_joint2_vel,fl_joint2_torque,fl_joint3_pos,fl_joint3_vel,fl_joint3_torque,fr_joint1_pos,fr_joint1_vel,fr_joint1_torque,fr_joint2_pos,fr_joint2_vel,fr_joint2_torque,fr_joint3_pos,fr_joint3_vel,fr_joint3_torque,hl_joint1_pos,hl_joint1_vel,hl_joint1_torque,hl_joint2_pos,hl_joint2_vel,hl_joint2_torque,hl_joint3_pos,hl_joint3_vel,hl_joint3_torque,hr_joint1_pos,hr_joint1_vel,hr_joint1_torque,hr_joint2_pos,hr_joint2_vel,hr_joint2_torque,hr_joint3_pos,hr_joint3_vel,hr_joint3_torque,fl_force_x,fl_force_y,fl_force_z,fr_force_x,fr_force_y,fr_force_z,hl_force_x,hl_force_y,hl_force_z,hr_force_x,hr_force_y,hr_force_z,fl_hip_action,fl_thigh_action,fl_calf_action,fr_hip_action,fr_thigh_action,fr_calf_action,hl_hip_action,hl_thigh_action,hl_calf_action,hr_hip_action,hr_thigh_action,hr_calf_action
2025-07-21 14:27:22.494,0.0,0,0,0.033767752,-0.020924702,-0.026636098,-0.020775793,-0.00400177,-0.005775408,2.2967348,-1.1091549,0.0,0.0,-0.0005554991,0.0021159826,-0.005200396,-0.0050718235,-0.0061490303,0.001831241,0.0048901346,-0.0017215152,-0.0057154526,-0.00220257,0.0076505016,0.0071926704,-0.05334211,0.037008718,0.045674305,-0.050424743,0.0014915034,0.053074885,0.06378445,-0.040895864,0.048513543,-0.0628777,0.016517673,-0.053679384,0.0,0.0,0.0,0.0,0.0,0.0,0.0,0.0,0.0,0.0,0.0,0.0,-1.4355665,1.0276015,0.23977812,-0.09161986,0.48596752,0.008101881,2.0,-0.67284775,-0.76012295,-2.0,-0.5491078,-1.7457929
2025-07-21 14:27:22.504,0.02,20,1,-0.078514054,-0.020284763,0.029409673,0.0030372927,-0.036806908,0.009018119,0.0,0.0,0.0,0.0,-0.014697403,0.031492837,0.009774977,0.004918162,0.019762423,-0.006657752,0.013851448,-0.017484728,-0.008108548,-0.0068335836,-0.009409637,-0.033934146,-0.056229122,0.16950281,-0.024372641,0.02853457,0.04461851,-0.006060867,-0.004701279,-0.11430452,0.019576868,-0.012399346,-0.061790798,-0.110170655,-1.4355665,1.0276015,0.23977812,-0.09161986,0.48596752,0.008101881,2.0,-0.67284775,-0.76012295,-2.0,-0.5491078,-1.7457929,0.33899638,1.327747,-1.6706054,0.015883677,0.10560653,0.34665465,2.0,-0.649799,-2.0,-2.0,-0.1604039,-2.0
2025-07-21 14:27:22.524,0.04,40,2,0.0020871053,0.058587596,-0.004504868,-0.011838037,-0.026784139,0.028265623,0.0,0.0,0.0,-3.4170367e-05,-0.016192082,0.08103558,-0.036736898,-0.005861404,0.019370914,0.003246973,0.04227574,-0.048237864,-0.05626696,-0.025774783,-0.033581212,-0.07104408,-0.05938297,0.10394081,-0.18593204,0.0032502646,-0.008736186,0.09028723,0.065123305,-0.053486064,-0.10448986,-0.008580035,-0.049265448,0.048554953,0.33899638,1.327747,-1.6706054,0.015883677,0.10560653,0.34665465,2.0,-0.649799,-2.0,-2.0,-0.1604039,-2.0,1.5707892,1.4422584,-1.5957977,0.9604103,0.4861855,-0.033280045,2.0,-0.7272762,-2.0,-2.0,-0.41459456,-2.0
2025-07-21 14:27:22.544,0.06,60,3,0.10487139,0.20336366,0.051024705,-0.03940468,-0.03311772,0.017140616,0.0,0.0,0.0,-7.828312e-05,-0.01921472,0.12368854,-0.031917542,0.009248146,0.04491306,0.004838353,0.046038955,-0.0635094,-0.059021514,-0.024502294,-0.051295646,-0.045422554,0.0015639688,0.04403725,0.08126945,0.09250006,0.015166949,-0.0064089266,0.10479129,-0.06634034,0.12267498,0.06489896,-0.023748362,0.105172805,1.5707892,1.4422584,-1.5957977,0.9604103,0.4861855,-0.033280045,2.0,-0.7272762,-2.0,-2.0,-0.41459456,-2.0,2.0,1.2376083,-2.0,0.77538353,0.7971232,-0.19956723,2.0,-0.7145886,-2.0,-2.0,-0.15250441,-2.0
2025-07-21 14:27:22.571,0.08,80,4,0.09331331,0.22344269,0.02287206,-0.008210699,0.02452639,-0.04905228,0.0,0.0,0.0,-8.5961445e-05,-0.008625209,0.107300274,0.013898852,0.024822654,0.047838055,0.043072946,0.060776677,-0.05846913,-0.030567741,-0.017351385,-0.051779024,-0.010001658,0.07929464,0.028745858,0.169091,0.079471946,0.0018132738,0.05583753,-0.008056023,0.06327805,0.057568893,-0.0131254345,-0.010062267,0.027785737,2.0,1.2376083,-2.0,0.77538353,0.7971232,-0.19956723,2.0,-0.7145886,-2.0,-2.0,-0.15250441,-2.0,2.0,1.2037413,-2.0,-0.0043890104,0.794113,-0.25463828,2.0,-0.58429253,-2.0,-2.0,-0.2765111,-2.0
2025-07-21 14:27:22.588,0.1,100,5,0.01723873,0.15452592,-0.06529496,0.058738664,-0.012930205,-0.047467533,0.0,0.0,0.0,3.1523312e-05,-0.0029257599,0.09875015,0.041664347,0.020614054,0.03632555,0.08849121,0.0648947,-0.05749138,-0.019747507,-0.013320169,-0.048935775,0.004789929,-0.0021829153,-0.011493131,0.09386585,0.06631919,-0.07708498,0.14929897,0.04819499,0.004989764,0.08780575,0.062013544,0.07217828,0.10414484,2.0,1.2037413,-2.0,-0.0043890104,0.794113,-0.25463828,2.0,-0.58429253,-2.0,-2.0,-0.2765111,-2.0,2.0,1.5766237,-1.9324929,-0.66812783,0.9754981,-0.74771297,2.0,-0.55958986,-2.0,-2.0,-0.42000794,-2.0
2025-07-21 14:27:22.604,0.12000000000000001,120,6,-0.01575807,0.13221636,0.009958507,0.027595043,0.07070945,0.019749422,0.0,0.0,0.0,0.00034950266,0.0073330556,0.10604644,0.07362262,0.034266237,0.044417664,0.10567402,0.06822192,-0.03496679,-0.015276497,0.00029500655,-0.0472843,0.015707556,0.0017532816,-0.051389165,0.10450206,0.07125513,-0.032977104,0.10696358,0.013852616,-0.024760433,-0.0012689305,-0.014549522,-0.046570912,0.10030471,2.0,1.5766237,-1.9324929,-0.66812783,0.9754981,-0.74771297,2.0,-0.55958986,-2.0,-2.0,-0.42000794,-2.0,2.0,1.4669659,-1.9590158,-2.0,1.1383699,-1.0035089,2.0,-0.51609606,-2.0,-1.9111661,-0.11408679,-2.0
2025-07-21 14:27:22.624,0.14,140,7,0.004953523,-0.022641353,-0.061589487,0.060603343,0.019568544,0.04345799,0.0,0.0,0.0,0.0005846738,-0.004234583,0.11693354,0.0805098,0.017817141,0.05267431,0.13103347,0.07841896,-0.023699388,-0.009623115,-0.0024054684,-0.040117737,0.038117945,-0.07507812,0.09998912,0.0060025025,0.011324649,-0.02845256,-0.057689313,-0.07829867,0.06445466,0.011291373,-0.053575523,-0.031059835,0.04874042,2.0,1.4669659,-1.9590158,-2.0,1.1383699,-1.0035089,2.0,-0.51609606,-2.0,-1.9111661,-0.11408679,-2.0,2.0,1.7626629,-1.5585185,-2.0,0.90513563,-1.1531035,2.0,-0.2118177,-1.9664737,-1.3908113,-0.40943518,-2.0
2025-07-21 14:27:22.645,0.16,160,8,-0.032403477,-0.04298758,0.031080738,0.0391918,0.014133539,0.0060898787,0.0,0.0,0.0,0.0008492235,-0.0025041837,0.12358272,0.06779661,0.022711853,0.0556467,0.12065716,0.06966892,-0.02296407,-0.0033275196,-0.00023555596,-0.02878771,0.037067987,-0.0059703137,-0.006927227,-0.024959587,-0.08601631,0.026566714,0.06336696,-0.040358458,-0.0042808587,-0.026481397,0.02817638,-0.017347319,0.07037184,2.0,1.7626629,-1.5585185,-2.0,0.90513563,-1.1531035,2.0,-0.2118177,-1.9664737,-1.3908113,-0.40943518,-2.0,2.0,1.4320347,-1.6550182,-2.0,1.1708862,-1.2221661,2.0,-0.514619,-2.0,-0.48013347,-0.04075694,-2.0
2025-07-21 14:27:22.670,0.18,180,9,0.07687758,-0.066076085,-0.004543563,0.07708734,0.052645877,-0.04457382,0.0,0.0,0.0,0.00096907374,-0.012531188,0.15698124,0.06336729,0.005178633,0.07244006,0.11660701,0.05355993,-0.011594274,-0.01213263,-0.009777981,-0.01788561,0.030570641,-0.007596963,0.09645758,-0.080952555,-0.0409899,0.0012508573,-0.07437333,0.05437756,-0.017246515,-0.029759767,0.037220392,0.09337845,0.054612882,2.0,1.4320347,-1.6550182,-2.0,1.1708862,-1.2221661,2.0,-0.514619,-2.0,-0.48013347,-0.04075694,-2.0,2.0,1.5389633,-1.3249922,-2.0,0.859262,-1.1123843,2.0,-0.14827606,-2.0,0.21271253,-0.08431186,-2.0
2025-07-21 14:27:22.687,0.19999999999999998,200,10,0.10507285,0.018165313,-0.02684724,0.068236835,0.008196795,0.023963295,0.0,0.0,0.0,0.0011575739,-0.017564634,0.16280499,0.03378486,0.009441477,0.09671452,0.10093672,0.052924678,0.01057045,-0.029298617,-0.020841468,-0.00847151,0.030516364,0.021776322,0.09920081,-0.0009990426,0.019579252,0.036325864,-0.07575668,-0.015752593,0.09648934,-0.02481322,0.006155297,0.06902864,0.03472923,2.0,1.5389633,-1.3249922,-2.0,0.859262,-1.1123843,2.0,-0.14827606,-2.0,0.21271253,-0.08431186,-2.0,2.0,1.4364485,-0.9680193,-2.0,0.50716454,-1.6186061,2.0,0.07202703,-2.0,0.67833894,-0.13886097,-2.0
2025-07-21 14:27:22.705,0.21999999999999997,220,11,0.042622488,-0.02595924,-0.008781583,0.048855223,-0.011169715,-0.04093473,0.0,0.0,0.0,0.001604575,-0.0012265977,0.1784238,0.019529251,0.016612062,0.10975928,0.10003817,0.07152032,0.011039145,-0.036979478,-0.0039917156,0.007902543,0.02653985,-0.017607829,0.011215521,-0.07551019,0.060991883,-0.006200956,0.023254484,-0.013249904,0.0129761435,0.029732026,0.018952452,0.029881226,0.02490181,2.0,1.4364485,-0.9680193,-2.0,0.50716454,-1.6186061,2.0,0.07202703,-2.0,0.67833894,-0.13886097,-2.0,2.0,1.3808466,-1.0497129,-2.0,0.7591061,-1.4272182,2.0,-0.081248224,-2.0,1.2835655,-0.021683536,-2.0
2025-07-21 14:27:22.725,0.23999999999999996,240,12,0.058670633,0.017534457,0.0393577,0.028299408,0.018287998,-0.03292313,0.0,0.0,0.0,0.0018378582,-0.007914551,0.2062838,0.001124587,0.0079686055,0.122414015,0.09424008,0.075841546,0.027762216,-0.036818493,-0.015674856,0.017197378,0.031744346,-0.026625365,-0.027095998,-0.035705555,0.066406265,0.031083968,-0.07442174,0.003641257,0.046358112,-0.020532548,0.054676697,0.08182502,-0.028157564,2.0,1.3808466,-1.0497129,-2.0,0.7591061,-1.4272182,2.0,-0.081248224,-2.0,1.2835655,-0.021683536,-2.0,2.0,1.2577894,-0.9418013,-2.0,0.70426035,-0.9700165,2.0,-0.16047744,-2.0,1.9040592,0.020145684,-2.0
2025-07-21 14:27:22.745,0.25999999999999995,260,13,0.08057058,-0.004309405,-0.0760583,0.0356353,0.02889569,0.047142625,0.0,0.0,0.0,0.0019585055,-0.009769776,0.22216238,-0.0051004514,0.009367863,0.13132435,0.07444153,0.081106454,0.0321351,-0.034165118,0.0020047773,0.030191679,0.029240493,0.03212017,0.08810223,0.007834403,0.06916367,0.041099068,0.062905036,0.009555731,0.07976269,0.0019041789,0.0767599,0.011595532,0.06553484,2.0,1.2577894,-0.9418013,-2.0,0.70426035,-0.9700165,2.0,-0.16047744,-2.0,1.9040592,0.020145684,-2.0,2.0,1.6260114,-0.6463751,-2.0,0.36587387,-1.8889732,2.0,0.35274547,-2.0,1.8386602,-0.15243497,-2.0
2025-07-21 14:27:22.771,0.27999999999999997,280,14,0.017055783,-0.030012209,0.009214814,0.03838566,-0.015296863,-0.02433026,0.0,0.0,0.0,0.0023638313,-0.007701634,0.23493452,-0.0057613365,0.018890746,0.15308379,0.074199766,0.07764874,0.05061036,-0.02167588,-0.004032494,0.032719925,0.036416084,0.07716817,0.046295818,0.0006427766,0.01288402,0.0627313,-0.05485147,0.06067272,0.07997408,0.03181996,0.07379284,0.069821075,-0.025067791,2.0,1.6260114,-0.6463751,-2.0,0.36587387,-1.8889732,2.0,0.35274547,-2.0,1.8386602,-0.15243497,-2.0,2.0,1.2274929,-0.66063434,-2.0,0.6421334,-1.5618523,2.0,0.03022978,-2.0,2.0,-0.053832978,-1.7179856
2025-07-21 14:27:22.787,0.3,300,15,0.007611234,0.008794785,-0.03382174,0.090812564,-0.03759613,-0.031542636,0.0,0.0,0.0,0.0025229363,-0.0009938698,0.24021491,-0.017707676,0.025378382,0.16744182,0.08069227,0.08260244,0.053174958,-0.014705432,0.015793318,0.05734237,0.038083233,-0.0062512183,-0.023432242,0.050341096,-0.04100355,-0.026541362,-0.065251894,0.07700734,0.02510445,0.04189483,0.07155398,-0.02199028,0.08441494,2.0,1.2274929,-0.66063434,-2.0,0.6421334,-1.5618523,2.0,0.03022978,-2.0,2.0,-0.053832978,-1.7179856,2.0,1.5612826,-0.55124503,-2.0,0.645059,-1.6539736,2.0,0.24678494,-2.0,2.0,-0.096984155,-1.9781219
2025-07-21 14:27:22.805,0.32,320,16,-0.046656054,-0.050318904,0.05166052,0.07715346,-0.01745917,-0.011723625,0.0,0.0,0.0,0.002324827,0.0056811944,0.24716732,-0.0044624237,0.029342923,0.17497602,0.07949788,0.087458685,0.06564994,-0.013450295,0.011979436,0.045508992,0.041154005,-0.053924736,-0.017460901,-0.023710119,0.007684741,0.08137917,-0.0730523,-0.047180273,0.039442047,-0.027388614,-0.040953472,-0.054815177,-0.03773268,2.0,1.5612826,-0.55124503,-2.0,0.645059,-1.6539736,2.0,0.24678494,-2.0,2.0,-0.096984155,-1.9781219,2.0,1.1945122,-0.7406196,-2.0,0.72729903,-1.2077335,2.0,-0.034089465,-2.0,2.0,-0.06056206,-1.9046993
2025-07-21 14:27:22.825,0.34,340,17,-0.03787782,-0.060590804,-0.033881452,0.06676625,0.03590576,0.04827443,0.0,0.0,0.0,0.0019536244,0.0032142885,0.25871047,-0.0064125825,0.024887456,0.17028408,0.06230677,0.085677914,0.063496076,-0.008407602,0.008507411,0.062209547,0.04307899,0.066161685,0.014628825,0.050445903,0.047253028,-0.01895116,-0.02608793,0.078370504,-0.03625097,-0.04215995,-0.014573042,-0.014282678,-0.040205605,2.0,1.1945122,-0.7406196,-2.0,0.72729903,-1.2077335,2.0,-0.034089465,-2.0,2.0,-0.06056206,-1.9046993,2.0,1.562216,-0.6670936,-2.0,0.6092714,-1.6032444,2.0,0.28383216,-2.0,1.9656489,-0.13168064,-2.0
2025-07-21 14:27:22.845,0.36000000000000004,360,18,-0.024551913,-0.019374197,0.064689994,0.079962716,0.002377814,-0.012286624,0.0,0.0,0.0,0.0015843217,0.019873155,0.2742477,0.010172075,0.037282042,0.1784283,0.07089185,0.094921775,0.06523964,0.012903198,0.010709814,0.059061747,0.04349676,0.06922418,-0.033299983,-0.026306912,0.024799135,-0.012642051,-0.07319617,0.025607955,0.07853907,0.02899844,0.06832181,0.052910127,-0.021146994,2.0,1.562216,-0.6670936,-2.0,0.6092714,-1.6032444,2.0,0.28383216,-2.0,1.9656489,-0.13168064,-2.0,2.0,1.2179122,-0.93932325,-2.0,0.8149235,-1.1864651,2.0,-0.14992857,-2.0,2.0,-0.0018384457,-2.0
2025-07-21 14:27:22.870,0.38000000000000006,380,19,-0.033249095,-0.0534089,0.042658813,0.068776734,-0.0048515443,0.014341264,0.0,0.0,0.0,0.0011424724,0.023663322,0.26416805,0.016740246,0.048464105,0.20376457,0.06559588,0.09577095,0.07440296,0.009118223,0.009291443,0.078339905,0.05078132,-0.001476961,0.052709226,0.0026452383,0.0031927517,0.048430882,0.038611215,-0.041783843,-0.003911364,-0.01757506,0.015192967,0.025779217,0.018171621,2.0,1.2179122,-0.93932325,-2.0,0.8149235,-1.1864651,2.0,-0.14992857,-2.0,2.0,-0.0018384457,-2.0,2.0,1.4581184,-1.0128272,-2.0,0.75845015,-1.0229232,2.0,-0.019712359,-2.0,2.0,-0.020814426,-2.0
2025-07-21 14:27:22.887,0.4000000000000001,400,20,-0.0021212937,-0.024543805,-0.010423118,0.05464436,0.025313929,0.04598176,0.0,0.0,0.0,0.0008063085,0.01862689,0.2835369,0.011951197,0.03557924,0.21178958,0.08039864,0.0808203,0.06503533,0.037708208,0.018022312,0.076556705,0.055105135,-0.068788126,0.007376227,0.010736739,-0.023477554,0.057880744,-0.04949383,0.013633188,-0.06309061,0.083689086,-0.054035723,-0.05980512,-0.05215497,2.0,1.4581184,-1.0128272,-2.0,0.75845015,-1.0229232,2.0,-0.019712359,-2.0,2.0,-0.020814426,-2.0,2.0,1.6066194,-0.8795186,-2.0,0.59706986,-1.5238984,2.0,0.24064554,-2.0,1.8836551,-0.061602652,-2.0
2025-07-21 14:27:22.905,0.4200000000000001,420,21,-0.047606308,-0.05939295,0.013819342,0.019345472,-0.0014945895,0.049559314,0.0,0.0,0.0,0.0008050552,0.01689816,0.28204948,0.022075089,0.051194314,0.21019644,0.07972312,0.0902133,0.07333769,0.04075863,0.019289467,0.08051082,0.06229529,0.08261938,0.048882935,0.037044108,0.029082146,0.0036519254,-0.041670807,0.07862102,-0.035640005,-0.0007624472,-0.04764317,0.07208067,0.05814183,2.0,1.6066194,-0.8795186,-2.0,0.59706986,-1.5238984,2.0,0.24064554,-2.0,1.8836551,-0.061602652,-2.0,2.0,1.4117794,-0.9209713,-2.0,0.68269485,-1.438669,2.0,0.112608895,-2.0,1.8287058,-0.058386087,-2.0
2025-07-21 14:27:22.925,0.4400000000000001,440,22,-0.061369974,-0.0753731,-0.009387815,0.05068967,-0.033494834,-0.0434738,0.0,0.0,0.0,0.0006895724,0.02490338,0.279728,0.03980126,0.05256868,0.22046523,0.06831993,0.09058894,0.07622129,0.049276892,0.021271415,0.09038766,0.054502744,-0.025376476,0.066434205,0.08601978,0.04853043,0.01071665,-0.02636659,-0.05714069,-0.014186386,-0.047403887,-0.056123268,-0.01203783,-0.0132225435,2.0,1.4117794,-0.9209713,-2.0,0.68269485,-1.438669,2.0,0.112608895,-2.0,1.8287058,-0.058386087,-2.0,2.0,1.5610478,-0.8154187,-2.0,0.60279167,-1.4763463,2.0,0.2407554,-2.0,1.8836099,-0.10121831,-2.0
2025-07-21 14:27:22.945,0.46000000000000013,460,23,-0.084616326,-0.04281549,0.006555121,0.024074918,0.008607956,0.015040515,0.0,0.0,0.0,0.00036146224,0.039398536,0.29334772,0.041968025,0.05973546,0.23538658,0.067906216,0.09206588,0.071476,0.07320614,0.019912295,0.09183983,0.069917634,0.028177947,-0.035491757,0.05923075,-0.013438477,-0.003250847,0.0368987,0.061214354,-0.03930911,0.08120204,0.00050512573,-0.05959935,0.044953346,2.0,1.5610478,-0.8154187,-2.0,0.60279167,-1.4763463,2.0,0.2407554,-2.0,1.8836099,-0.10121831,-2.0,2.0,1.5930809,-1.1822416,-2.0,0.8088249,-1.5259928,2.0,0.18076621,-2.0,1.7832526,-0.046199247,-2.0
2025-07-21 14:27:22.972,0.48000000000000015,480,24,-0.06326165,-0.06130188,0.081176385,0.062172502,-0.019893954,0.02003907,0.0,0.0,0.0,-0.0001660277,0.03412848,0.31057847,0.031088268,0.063967995,0.232314,0.056447595,0.09650469,0.072241396,0.06375642,0.010280109,0.10902539,0.061610106,-0.027511803,0.09053159,0.048218038,-0.02883651,0.09418915,-0.08916989,-0.016892407,-0.019855404,0.038899884,-0.050307002,0.049891002,-0.051773928,2.0,1.5930809,-1.1822416,-2.0,0.8088249,-1.5259928,2.0,0.18076621,-2.0,1.7832526,-0.046199247,-2.0,2.0,1.3549142,-1.0460935,-2.0,0.7323104,-0.9632516,2.0,-0.055441834,-2.0,1.9388227,0.014896512,-2.0
2025-07-21 14:27:22.987,0.5000000000000001,500,25,-0.033873,-0.015772564,-0.0017128806,-0.010641284,0.048405197,0.044632677,0.0,0.0,0.0,-0.00084003544,0.045042075,0.30119768,0.034306087,0.054902058,0.2465156,0.0520228,0.096358314,0.08160513,0.08726071,0.027555427,0.09449581,0.065095454,0.011524635,0.07694827,-0.06252796,-0.041596856,0.0062004286,-0.06922535,0.045608535,0.066973165,0.004640979,0.034295306,0.052650236,0.027737752,2.0,1.3549142,-1.0460935,-2.0,0.7323104,-0.9632516,2.0,-0.055441834,-2.0,1.9388227,0.014896512,-2.0,2.0,1.6083152,-0.73044544,-2.0,0.5319666,-1.4010501,2.0,0.15597181,-2.0,1.8742042,-0.06105274,-2.0
2025-07-21 14:27:23.006,0.5200000000000001,520,26,-0.051183257,-0.00012740158,0.064976424,0.060244896,-0.03694829,0.03751366,0.0,0.0,0.0,-0.0013039971,0.047677223,0.30660972,0.03613656,0.056482676,0.24560012,0.05077967,0.08466481,0.07430884,0.09803623,0.012132486,0.101501524,0.07698488,-0.049900953,0.073334366,-0.049715728,0.03635397,-0.0026367952,-0.043710373,0.0025503351,-0.05043175,0.021176469,-0.048624855,-0.017647272,0.014947757,2.0,1.6083152,-0.73044544,-2.0,0.5319666,-1.4010501,2.0,0.15597181,-2.0,1.8742042,-0.06105274,-2.0,2.0,1.4068449,-1.1056191,-2.0,0.8637303,-1.2261958,2.0,-0.052178647,-2.0,1.9401304,-0.008419201,-2.0
2025-07-21 14:27:23.026,0.5400000000000001,540,27,-0.07233495,-0.04190456,0.0032506895,-0.012413821,0.0025027602,-0.010186529,0.0,0.0,0.0,-0.0017087978,0.043626543,0.31352815,0.041138344,0.058677617,0.25659627,0.037921857,0.10286429,0.0896703,0.100917645,0.01580383,0.09949778,0.074664816,0.02804673,0.06560855,-0.024118854,-0.05425296,-0.05246983,0.010724983,-0.020073835,0.05392797,0.0748502,-0.011776906,0.021230098,0.048740197,2.0,1.4068449,-1.1056191,-2.0,0.8637303,-1.2261958,2.0,-0.052178647,-2.0,1.9401304,-0.008419201,-2.0,2.0,1.7101393,-1.0249152,-2.0,0.6760531,-1.3834727,2.0,0.21370931,-2.0,1.8383689,-0.03830111,-2.0
2025-07-21 14:27:23.046,0.5600000000000002,560,28,-0.049625017,-0.062966965,-0.012149582,0.012284168,0.01415544,-0.047175426,0.0,0.0,0.0,-0.0020207986,0.04063091,0.3304253,0.046110272,0.07271554,0.25314113,0.045427788,0.090821855,0.07908907,0.10628808,0.009673317,0.10689678,0.0712162,0.031025302,0.07115435,0.0042594327,0.004959858,0.0861646,0.0021803416,-0.047577888,0.06743986,0.014965502,0.04549903,0.049239215,-0.035204593,2.0,1.7101393,-1.0249152,-2.0,0.6760531,-1.3834727,2.0,0.21370931,-2.0,1.8383689,-0.03830111,-2.0,2.0,1.5684794,-0.951029,-2.0,0.5746079,-1.6328843,2.0,0.25359967,-2.0,1.6614546,-0.05318448,-2.0
2025-07-21 14:27:23.071,0.5800000000000002,580,29,-0.030061167,0.013186881,-0.012418304,0.0077584987,0.004461007,0.025800835,0.0,0.0,0.0,-0.0022810372,0.04704105,0.3255606,0.043562025,0.0732415,0.2758663,0.04086059,0.0984131,0.08393193,0.11360853,0.016380426,0.10652087,0.08491625,-0.039061215,-0.007687171,-0.065345645,-0.042368464,0.05780226,0.045836817,-0.038147934,-0.027149808,0.008054337,-0.056876484,-0.06595902,-0.011958427,2.0,1.5684794,-0.951029,-2.0,0.5746079,-1.6328843,2.0,0.25359967,-2.0,1.6614546,-0.05318448,-2.0,2.0,1.6882854,-1.0745422,-2.0,0.7651582,-1.5912476,2.0,0.28277352,-2.0,1.6072752,-0.06373551,-2.0
2025-07-21 14:27:23.088,0.6000000000000002,600,30,-0.054380406,-0.011860999,-0.010139927,0.05611524,0.00030387536,0.04346298,0.0,0.0,0.0,-0.0027857479,0.044857875,0.3386534,0.04274773,0.07262956,0.26761597,0.031000882,0.08331724,0.08739173,0.10404241,0.015764797,0.11007865,0.076798856,-0.033590365,0.0076609524,0.024234504,-0.0043963124,0.050758287,-0.028494842,-0.07460573,-0.04620183,-0.04038614,-0.023683777,0.051339705,0.06165502,2.0,1.6882854,-1.0745422,-2.0,0.7651582,-1.5912476,2.0,0.28277352,-2.0,1.6072752,-0.06373551,-2.0,2.0,1.6587912,-1.0555722,-2.0,0.6876112,-1.6478374,2.0,0.33768085,-2.0,1.529092,-0.082238704,-2.0
2025-07-21 14:27:23.106,0.6200000000000002,620,31,-0.035428144,-0.041160386,0.07365274,0.026866913,-0.017962933,0.010356041,0.0,0.0,0.0,-0.0035022805,0.058731157,0.33506554,0.041581277,0.05983034,0.27158937,0.025606405,0.09105911,0.09121528,0.110299684,0.016014365,0.1171703,0.0754958,0.019602323,0.051164813,-0.03587096,-0.060552053,0.020294676,-0.004209258,-0.08112747,0.066168495,-0.064694166,-0.022732267,-0.008231853,-0.0062638745,2.0,1.6587912,-1.0555722,-2.0,0.6876112,-1.6478374,2.0,0.33768085,-2.0,1.529092,-0.082238704,-2.0,2.0,1.4506598,-1.1059433,-2.0,0.82202697,-1.199491,2.0,-0.026661929,-2.0,1.7554642,-0.011496291,-2.0
2025-07-21 14:27:23.126,0.6400000000000002,640,32,-0.047448657,-0.033292368,0.0109863095,0.055089995,-0.011965472,0.007033245,0.0,0.0,0.0,-0.004394643,0.053343594,0.33990553,0.05211165,0.077802144,0.27913383,0.004292327,0.08221709,0.10496725,0.10984623,0.02057384,0.10921225,0.07129175,-0.04610714,-0.0411863,-0.043438338,0.06345518,-0.07009939,0.024834171,-0.066263326,-0.004142378,0.056915272,0.027728308,-0.025757786,-0.0461641,2.0,1.4506598,-1.1059433,-2.0,0.82202697,-1.199491,2.0,-0.026661929,-2.0,1.7554642,-0.011496291,-2.0,2.0,1.8279026,-1.2827288,-2.0,0.8437481,-1.4182123,2.0,0.18275309,-2.0,1.7062378,0.032240897,-2.0
2025-07-21 14:27:23.146,0.6600000000000003,660,33,0.031000368,-0.033837825,-0.026984654,-0.024764992,0.0182144,-0.020546144,0.0,0.0,0.0,-0.005111643,0.06172991,0.33953503,0.04482899,0.0686191,0.29185107,0.014827089,0.07921464,0.10671448,0.10736947,0.013181836,0.111667104,0.07543384,0.062868245,-0.012220263,-0.055409346,0.0094430335,-0.028356554,-0.041607037,-0.052156415,-0.02844355,-0.018519912,-0.0063544693,0.029508978,0.039222583,2.0,1.8279026,-1.2827288,-2.0,0.8437481,-1.4182123,2.0,0.18275309,-2.0,1.7062378,0.032240897,-2.0,2.0,1.7890033,-1.1291307,-2.0,0.64274585,-1.7390492,2.0,0.37927887,-2.0,1.4618496,-0.010799497,-2.0
2025-07-21 14:27:23.171,0.6800000000000003,680,34,-0.012380915,-0.035753064,0.050915483,0.05265405,-0.047424756,-0.023949997,0.0,0.0,0.0,-0.005528251,0.06011176,0.36020553,0.03428121,0.07660058,0.28800434,0.010239304,0.08741807,0.1097575,0.110090494,0.008555556,0.12398965,0.072718166,0.066626206,0.014905458,0.03684676,-0.049610958,0.07001424,-0.022279218,-0.047797468,0.04759091,0.04734099,-0.06441765,-0.06687995,0.073695086,2.0,1.7890033,-1.1291307,-2.0,0.64274585,-1.7390492,2.0,0.37927887,-2.0,1.4618496,-0.010799497,-2.0,2.0,1.6124347,-1.2608633,-2.0,0.78975123,-1.486908,2.0,0.14691655,-2.0,1.4791746,-0.030872077,-2.0
2025-07-21 14:27:23.188,0.7000000000000003,700,35,-0.011854459,-0.054889902,0.030195883,0.013386991,-0.0445817,0.01614515,0.0,0.0,0.0,-0.006022274,0.052477837,0.35453206,0.037095357,0.066031665,0.2970226,0.001957437,0.09431531,0.11521661,0.121079475,0.0063910903,0.12172651,0.08438943,-0.043568846,0.0661396,0.06100986,-0.050845,-0.053211354,-0.049093217,0.07094269,0.065059066,0.07063507,-0.04584366,-0.042015098,0.052062593,2.0,1.6124347,-1.2608633,-2.0,0.78975123,-1.486908,2.0,0.14691655,-2.0,1.4791746,-0.030872077,-2.0,2.0,1.7983035,-1.1803936,-2.0,0.70446724,-1.5576451,2.0,0.2517729,-2.0,1.4627461,-0.0058788955,-2.0
2025-07-21 14:27:23.208,0.7200000000000003,720,36,0.04618624,-0.049291193,0.007241561,-0.016631704,-0.031378023,-0.004254966,0.0,0.0,0.0,-0.006539613,0.06595748,0.35648468,0.02742055,0.069038875,0.28535372,0.0045037996,0.08283767,0.108887315,0.11374001,0.0069785845,0.11583587,0.082959525,0.045289855,0.007486463,-0.03180591,-0.015372665,-0.06248118,-0.032913357,-0.06301244,-0.018142195,-0.06456168,-0.037042543,-0.048351813,0.061940543,2.0,1.7983035,-1.1803936,-2.0,0.70446724,-1.5576451,2.0,0.2517729,-2.0,1.4627461,-0.0058788955,-2.0,2.0,1.7545509,-1.1756716,-2.0,0.7389412,-1.7099643,2.0,0.3070873,-2.0,1.3804653,-0.0188407,-2.0
2025-07-21 14:27:23.228,0.7400000000000003,740,37,0.0098544145,-0.0703145,0.02332666,-0.03888839,0.029054033,0.049316455,0.0,0.0,0.0,-0.006993963,0.053943314,0.37164992,0.029099816,0.07761254,0.28386098,-0.0015308203,0.07888414,0.112084515,0.11000313,-0.0058753034,0.13288018,0.07960521,0.064606935,0.053722326,0.03638936,-0.019339433,0.07140105,-0.06810692,-0.0023137478,0.029565232,-0.027729668,0.006467716,0.03625033,0.06775579,2.0,1.7545509,-1.1756716,-2.0,0.7389412,-1.7099643,2.0,0.3070873,-2.0,1.3804653,-0.0188407,-2.0,2.0,1.6294988,-1.1881742,-2.0,0.6855663,-1.5881181,2.0,0.26359102,-2.0,1.2961113,-0.056065932,-2.0
2025-07-21 14:27:23.254,0.7600000000000003,760,38,-0.045379985,-0.051406223,0.030737236,0.021384273,-0.017095292,-0.022731418,0.0,0.0,0.0,-0.007479214,0.06685317,0.37348607,0.017745366,0.07212314,0.30285892,-0.00685259,0.08857277,0.12561847,0.11843482,-0.0066297217,0.13013652,0.0910675,0.0062701986,-0.06610448,-0.00846512,0.019287113,-0.058481,0.009933215,-0.06366127,-0.05809818,0.04685287,-0.06734687,-0.002240634,0.04646548,2.0,1.6294988,-1.1881742,-2.0,0.6855663,-1.5881181,2.0,0.26359102,-2.0,1.2961113,-0.056065932,-2.0,2.0,1.7894813,-1.469511,-2.0,0.9839063,-1.4369951,2.0,0.14625877,-2.0,1.319118,0.012677878,-2.0
2025-07-21 14:27:23.271,0.7800000000000004,780,39,0.032552246,0.012290205,-0.015601658,-0.036699638,0.03351441,-0.02644168,0.0,0.0,0.0,-0.00797587,0.06733351,0.37911013,0.024810625,0.05875334,0.28734,-0.016815685,0.08120385,0.11259763,0.11901602,0.008541094,0.12834764,0.086643845,0.06403344,0.038516697,-0.07196999,-0.025106784,0.01567149,-0.029407253,-0.028355112,0.064394295,0.01964896,-0.0003307851,-0.060599547,0.046281055,2.0,1.7894813,-1.469511,-2.0,0.9839063,-1.4369951,2.0,0.14625877,-2.0,1.319118,0.012677878,-2.0,2.0,1.8606923,-1.2319161,-2.0,0.6314941,-1.6722814,2.0,0.38249904,-2.0,1.1662905,-0.02062627,-2.0
2025-07-21 14:27:23.288,0.8000000000000004,800,40,0.014538517,0.025351217,0.035312477,-0.019434791,-0.011113801,0.009534379,0.0,0.0,0.0,-0.00826566,0.062475473,0.3903152,0.013059098,0.068640195,0.3057347,-0.005230395,0.08589741,0.12421547,0.10721825,-0.0072731576,0.11667725,0.089822255,-0.062977225,-0.035527714,-0.036980167,0.045110416,-0.025632862,0.03646034,-0.01727725,0.08154915,-0.06816525,-0.02417057,-0.05022387,-0.07158189,2.0,1.8606923,-1.2319161,-2.0,0.6314941,-1.6722814,2.0,0.38249904,-2.0,1.1662905,-0.02062627,-2.0,2.0,1.6774346,-1.2997937,-2.0,0.83201855,-1.5861474,2.0,0.13710533,-2.0,1.2454666,0.025388524,-2.0
2025-07-21 14:27:23.308,0.8200000000000004,820,41,-0.03592982,0.009169163,-0.0037690245,-0.037547663,0.030739717,0.041137043,0.0,0.0,0.0,-0.00852885,0.063180804,0.38590774,0.01715425,0.06581223,0.3069311,-0.016216505,0.07345076,0.1314998,0.10901178,0.0024048511,0.12618902,0.085032165,0.05843791,0.032387987,-0.07183976,0.05883251,0.004210735,-0.0002594708,0.003729378,0.049797732,-0.045848824,0.03771564,0.025958596,0.009607315,2.0,1.6774346,-1.2997937,-2.0,0.83201855,-1.5861474,2.0,0.13710533,-2.0,1.2454666,0.025388524,-2.0,2.0,1.7963344,-1.313516,-2.0,0.7607979,-1.5255442,2.0,0.28905728,-2.0,1.1355321,-0.033521414,-2.0
2025-07-21 14:27:23.328,0.8400000000000004,840,42,0.02484955,0.022865197,-0.037403956,0.03724211,0.018578503,-0.023447499,0.0,0.0,0.0,-0.008735347,0.06949161,0.390808,0.012699989,0.065827996,0.29165956,-0.014674419,0.08201694,0.12860636,0.11152797,-0.00028552482,0.117814906,0.08680092,0.028097352,0.03374188,0.007364916,-0.024146132,0.052649297,-0.055103846,0.03606891,0.009879776,-0.041119672,-0.017089186,0.03343168,-0.017748201,2.0,1.7963344,-1.313516,-2.0,0.7607979,-1.5255442,2.0,0.28905728,-2.0,1.1355321,-0.033521414,-2.0,2.0,1.8165901,-1.0973912,-2.0,0.63497704,-1.9818156,2.0,0.50228566,-2.0,0.925042,-0.09466061,-2.0
2025-07-21 14:27:23.354,0.8600000000000004,860,43,-0.050033845,0.005475022,0.04195546,0.03858527,0.032291975,0.0023909784,0.0,0.0,0.0,-0.008831958,0.05968492,0.38697764,-0.0014612377,0.06698101,0.3088189,-0.016597524,0.077727966,0.13179019,0.10864123,-0.0012440882,0.12100167,0.08865117,0.04442231,-0.046656948,-0.0017986153,0.046951875,-0.029050821,-0.030701963,-0.08216475,0.029792914,-0.061155755,-0.0013118194,0.025064701,0.054296274,2.0,1.8165901,-1.0973912,-2.0,0.63497704,-1.9818156,2.0,0.50228566,-2.0,0.925042,-0.09466061,-2.0,2.0,1.5516638,-1.3469205,-2.0,0.9769314,-1.4459995,2.0,0.08114137,-2.0,1.1703615,-0.071295224,-2.0
2025-07-21 14:27:23.371,0.8800000000000004,880,44,0.034201343,0.024290448,0.030154841,-0.013341742,-0.0041131885,0.039674107,0.0,0.0,0.0,-0.0091697695,0.061903834,0.40080673,-0.004435611,0.05470113,0.29900157,-0.011940185,0.073834516,0.13394463,0.11501799,-0.01487837,0.12030281,0.089472786,-0.06044031,0.008975976,-0.07023299,0.024912747,-0.036900606,0.05686101,0.012836627,-0.07204645,0.005835944,-0.027789567,0.061759494,0.062831715,2.0,1.5516638,-1.3469205,-2.0,0.9769314,-1.4459995,2.0,0.08114137,-2.0,1.1703615,-0.071295224,-2.0,2.0,1.8559916,-1.5711031,-2.0,0.99415135,-1.4067345,2.0,0.1625907,-2.0,1.1921859,0.051411808,-2.0
2025-07-21 14:27:23.389,0.9000000000000005,900,45,0.06262536,0.0075292964,-0.046316482,0.037109364,-0.046810858,-0.03432117,0.0,0.0,0.0,-0.009435372,0.05425933,0.40200403,0.0054774783,0.07077216,0.3065622,-0.023499865,0.0749386,0.12631145,0.1244704,-0.0028807148,0.113668814,0.09027191,-0.050512698,0.06589799,0.059514757,0.063462384,0.026815815,0.009267882,-0.06973905,-0.038151342,-0.057744406,-0.022163827,-0.058423683,0.071809076,2.0,1.8559916,-1.5711031,-2.0,0.99415135,-1.4067345,2.0,0.1625907,-2.0,1.1921859,0.051411808,-2.0,2.0,2.0,-1.2896615,-2.0,0.56380004,-2.0,2.0,0.57902026,-2.0,0.89888626,-0.057548597,-2.0
2025-07-21 14:27:23.409,0.9200000000000005,920,46,-0.008419788,0.013825215,0.005928555,-0.010562931,-0.048632886,-0.0437666,0.0,0.0,0.0,-0.009300256,0.06482,0.39420712,-0.0047368184,0.06433865,0.308337,-0.02487434,0.05954356,0.1408646,0.11386694,-0.010802591,0.12347588,0.10081762,0.009178907,0.05601355,-0.042455874,0.071271546,0.016226472,0.0673516,0.019563483,0.02118311,0.036271796,0.04021245,0.020661276,-0.014432011,2.0,2.0,-1.2896615,-2.0,0.56380004,-2.0,2.0,0.57902026,-2.0,0.89888626,-0.057548597,-2.0,2.0,1.6544726,-1.4041345,-2.0,0.9329961,-1.7069504,2.0,0.18462293,-2.0,0.8204771,-0.07075946,-2.0
2025-07-21 14:27:23.429,0.9400000000000005,940,47,-0.035543572,-0.05577916,0.027811572,-0.0075718206,0.0024833183,0.005540124,0.0,0.0,0.0,-0.009346224,0.058423966,0.39572302,-0.0067341733,0.05357014,0.29854023,-0.023173414,0.074120775,0.14525513,0.10463951,-0.00854775,0.121403486,0.08875671,0.00091097073,0.020951238,-0.040774092,0.0134055065,-0.04154182,0.009798344,-0.011346214,-0.07293122,-0.0048269685,0.04575689,-0.017654246,0.07322002,2.0,1.6544726,-1.4041345,-2.0,0.9329961,-1.7069504,2.0,0.18462293,-2.0,0.8204771,-0.07075946,-2.0,2.0,1.8559835,-1.6130089,-2.0,1.0202829,-1.3638339,2.0,0.16952913,-2.0,0.91117275,-0.0049215257,-2.0
2025-07-21 14:27:23.454,0.9600000000000005,960,48,-0.025045423,0.034400977,0.02486591,-0.022100436,-0.011373224,0.046830487,0.0,0.0,0.0,-0.0095442105,0.062364846,0.40398628,-0.00039554914,0.049767375,0.30057245,-0.028830295,0.07406792,0.13683747,0.110589534,-0.015828297,0.121616356,0.09686779,-0.03549405,0.0064790463,0.02570355,-0.060247984,-0.035339035,0.06895486,0.052089326,0.05872927,-0.040951326,-0.05980116,-0.027370088,0.031925946,2.0,1.8559835,-1.6130089,-2.0,1.0202829,-1.3638339,2.0,0.16952913,-2.0,0.91117275,-0.0049215257,-2.0,2.0,1.9070934,-1.4720904,-2.0,0.77127284,-1.6511059,2.0,0.28193793,-2.0,0.8059376,0.011307642,-2.0
2025-07-21 14:27:23.471,0.9800000000000005,980,49,0.044699606,-0.020567035,-0.041085247,-0.005184863,-0.05374635,0.0058408966,0.0,0.0,0.0,-0.009476362,0.05238453,0.41105703,-0.020424737,0.06834157,0.3045406,-0.011369832,0.060328428,0.13116455,0.11878099,-0.015348635,0.12874562,0.10157942,-0.034265243,0.0055375705,-0.008614692,-0.019442707,-0.012353276,-0.0013396463,0.023060298,-0.052465275,-0.06929516,-0.019791463,0.06352344,-0.057992175,2.0,1.9070934,-1.4720904,-2.0,0.77127284,-1.6511059,2.0,0.28193793,-2.0,0.8059376,0.011307642,-2.0,2.0,1.9164656,-1.328586,-2.0,0.7668223,-1.9617927,2.0,0.46987447,-2.0,0.54937106,-0.084062785,-2.0
2025-07-21 14:27:23.489,1.0000000000000004,1000,50,0.029525038,-0.026511779,0.057725593,0.03927395,-0.0159273,-0.015923226,0.0,0.0,0.0,-0.00930555,0.049400523,0.4021846,-0.024959339,0.06350392,0.30194074,-0.016765703,0.06618583,0.13749929,0.113063954,-0.004729719,0.11995369,0.10843462,0.05396611,-0.047405515,-0.040276423,0.011612195,-0.051136993,0.065284155,-0.032052957,0.0720517,-0.078627095,0.009430917,-0.050230842,-0.06557556,2.0,1.9164656,-1.328586,-2.0,0.7668223,-1.9617927,2.0,0.46987447,-2.0,0.54937106,-0.084062785,-2.0,2.0,1.6352582,-1.5498677,-2.0,1.0969757,-1.4166706,2.0,-0.002892729,-2.0,0.85580945,-0.010498859,-2.0
2025-07-21 14:27:23.509,1.0200000000000005,1020,51,-0.021444594,-0.0018179534,-0.020270247,0.047632128,-0.036416955,0.0046745418,0.0,0.0,0.0,-0.009380676,0.055869415,0.40345627,-0.011024869,0.06252335,0.31159124,-0.021482527,0.065740325,0.14457169,0.10185268,-0.021885857,0.13311327,0.10899647,-0.067834176,0.003354735,0.036877472,-0.020642621,0.003913716,-0.03772491,-0.007653854,0.04261083,0.017218478,0.04681108,-0.012037204,-0.04041225,2.0,1.6352582,-1.5498677,-2.0,1.0969757,-1.4166706,2.0,-0.002892729,-2.0,0.85580945,-0.010498859,-2.0,2.0,2.0,-1.4450216,-2.0,0.75024366,-1.7099516,2.0,0.43761638,-2.0,0.7291759,-0.07820675,-2.0
2025-07-21 14:27:23.529,1.0400000000000005,1040,52,0.051329587,-0.0022220279,0.0045031626,0.0024637706,-0.060436405,-0.00044415725,0.0,0.0,0.0,-0.009318871,0.046961,0.41945747,-0.018200843,0.047701165,0.31920436,-0.027242608,0.06791258,0.14849873,0.10073965,-0.008693794,0.11614599,0.107887566,0.004000502,0.030462293,0.022472562,0.00477734,-0.05272307,0.008838837,-0.004101345,-0.06266216,0.009065366,0.028043114,-0.054197133,-0.043190926,2.0,2.0,-1.4450216,-2.0,0.75024366,-1.7099516,2.0,0.43761638,-2.0,0.7291759,-0.07820675,-2.0,2.0,1.8243222,-1.5514057,-2.0,0.9220186,-1.8099464,2.0,0.2671652,-2.0,0.59205586,-0.012595072,-2.0
2025-07-21 14:27:23.554,1.0600000000000005,1060,53,-0.009377061,-0.010513541,0.037760627,-0.0061158095,-0.071077794,0.016697867,0.0,0.0,0.0,-0.00919355,0.051875822,0.40874204,-0.034188516,0.050434504,0.30323318,-0.028362371,0.058567822,0.13816065,0.106216714,-0.023545442,0.12612733,0.09900744,-0.020442171,0.056654938,-0.06616317,-0.03297108,-0.034449443,-0.03800864,-0.0031631857,0.016947633,-0.057494942,-0.049439903,0.03773992,0.00029074485,2.0,1.8243222,-1.5514057,-2.0,0.9220186,-1.8099464,2.0,0.2671652,-2.0,0.59205586,-0.012595072,-2.0,2.0,1.7801392,-1.4130458,-2.0,0.9207199,-1.4175518,2.0,0.15940513,-2.0,0.7212852,-0.04988095,-2.0
2025-07-21 14:27:23.571,1.0800000000000005,1080,54,0.053023726,0.031648558,0.016011853,0.023904737,-0.062141098,-0.0031123736,0.0,0.0,0.0,-0.009204669,0.045137256,0.4061462,-0.027563695,0.061908387,0.31842145,-0.020546857,0.0654709,0.15065822,0.11818863,-0.008007307,0.12011358,0.10547925,0.020812323,-0.04291069,-0.05044333,-0.048031274,0.013840681,0.03893388,0.031910885,-0.067281365,0.001922648,-0.035828874,-0.038896106,0.030423097,2.0,1.7801392,-1.4130458,-2.0,0.9207199,-1.4175518,2.0,0.15940513,-2.0,0.7212852,-0.04988095,-2.0,2.0,1.900111,-1.6578094,-2.0,1.0225011,-1.5916638,2.0,0.19963993,-2.0,0.66808164,0.013683349,-2.0
2025-07-21 14:27:23.591,1.1000000000000005,1100,55,-0.000905502,-0.049273476,0.013034676,-0.031323273,-0.0406387,0.02810508,0.0,0.0,0.0,-0.00909644,0.05748876,0.41231185,-0.026573872,0.04981177,0.32355794,-0.03145083,0.053206995,0.14881395,0.10469395,-0.019441247,0.122593686,0.120735146,-0.011067296,0.07513142,0.021851327,-0.017095279,0.050408848,0.035335917,0.0734627,-0.010887305,-0.060822297,-0.04311442,0.04818328,0.057219498,2.0,1.900111,-1.6578094,-2.0,1.0225011,-1.5916638,2.0,0.19963993,-2.0,0.66808164,0.013683349,-2.0,2.0,1.9050786,-1.5501024,-2.0,0.81400317,-1.6374495,2.0,0.30240813,-2.0,0.489565,-0.04049252,-2.0
2025-07-21 14:27:23.611,1.1200000000000006,1120,56,-0.011267708,-0.004187913,-0.044740357,-0.025954863,-0.06431327,0.02644671,0.0,0.0,0.0,-0.00882861,0.048157167,0.4157269,-0.03465205,0.041910466,0.32173705,-0.021228414,0.064956926,0.14949967,0.12047429,-0.022287399,0.1282766,0.110143214,-0.044191934,0.015384004,-0.052685678,-0.004934137,-0.024401175,-0.061457455,-0.037479665,0.05916787,-0.048760027,-0.053680193,0.06399236,-0.05383367,2.0,1.9050786,-1.5501024,-2.0,0.81400317,-1.6374495,2.0,0.30240813,-2.0,0.489565,-0.04049252,-2.0,2.0,1.9324751,-1.2403096,-2.0,0.7269614,-1.9693143,2.0,0.4570962,-2.0,0.32670403,-0.13426124,-2.0
2025-07-21 14:27:23.637,1.1400000000000006,1140,57,0.009580709,-0.036904275,0.010923292,0.047818113,-0.013773033,0.036901027,0.0,0.0,0.0,-0.008591538,0.052011795,0.4171528,-0.044784274,0.055050388,0.32364666,-0.021366926,0.05400285,0.15552944,0.11850592,-0.026415842,0.13055152,0.11089666,-0.033979718,-0.04414583,0.06421323,0.020144973,0.03481209,0.013744668,-0.012475046,-0.032884132,-0.021880478,-0.07016281,-0.074733436,0.026583143,2.0,1.9324751,-1.2403096,-2.0,0.7269614,-1.9693143,2.0,0.4570962,-2.0,0.32670403,-0.13426124,-2.0,2.0,1.7759689,-1.5531284,-2.0,1.0052961,-1.8523968,2.0,0.32500038,-2.0,0.37581393,-0.113340154,-2.0
2025-07-21 14:27:23.654,1.1600000000000006,1160,58,0.043287296,-0.05688772,-0.030282788,0.029961234,-0.07261386,-0.04251938,0.0,0.0,0.0,-0.008711408,0.04028508,0.4111094,-0.03498791,0.05739911,0.30846253,-0.030342693,0.050888296,0.14970371,0.1091334,-0.011305823,0.12808913,0.120814994,0.023084749,-0.061403263,-0.011655568,-0.004899912,-0.031706233,-0.03943876,-0.05031377,-0.06461103,-0.07176907,0.005981069,-0.0020097645,-0.067571364,2.0,1.7759689,-1.5531284,-2.0,1.0052961,-1.8523968,2.0,0.32500038,-2.0,0.37581393,-0.113340154,-2.0,2.0,1.9907222,-1.524962,-2.0,0.9807885,-1.7474453,2.0,0.38482335,-2.0,0.37047815,-0.11732185,-2.0
2025-07-21 14:27:23.671,1.1800000000000006,1180,59,0.012329694,0.038656164,0.04144524,0.04666168,-0.035141557,0.027941778,0.0,0.0,0.0,-0.009065283,0.042730052,0.43039504,-0.043425433,0.04954775,0.3203293,-0.019110084,0.05842684,0.16121083,0.1106003,-0.016610209,0.13020879,0.11385042,0.06889254,-0.027300132,-0.032837156,0.0154770855,0.052415185,0.050632864,-0.032139808,-0.06697144,0.0371651,-0.04707057,0.0168218,-0.033459645,2.0,1.9907222,-1.524962,-2.0,0.9807885,-1.7474453,2.0,0.38482335,-2.0,0.37047815,-0.11732185,-2.0,2.0,1.754079,-1.827821,-2.0,1.1808234,-1.4395423,2.0,0.03550301,-2.0,0.41155106,-0.009935781,-2.0
2025-07-21 14:27:23.693,1.2000000000000006,1200,60,-0.031831957,-0.06582082,-0.048857775,-0.039069217,-0.01421604,0.020472288,0.0,0.0,0.0,-0.009486393,0.046846665,0.4299373,-0.040724214,0.049001146,0.3239713,-0.018399267,0.058559187,0.15434524,0.100660995,-0.02411599,0.13018683,0.10878435,0.029172195,0.060331006,0.00048789458,-0.06429898,0.042575132,-0.06692985,-0.02706822,0.06500557,0.06673569,0.05804343,0.061079312,-0.014331139,2.0,1.754079,-1.827821,-2.0,1.1808234,-1.4395423,2.0,0.03550301,-2.0,0.41155106,-0.009935781,-2.0,2.0,2.0,-1.5244743,-2.0,0.7073531,-1.8434674,2.0,0.4789221,-2.0,0.11802769,-0.14266522,-2.0
2025-07-21 14:27:23.713,1.2200000000000006,1220,61,0.02620053,0.013439321,0.01003278,0.008616148,-0.07334696,-0.020925445,0.0,0.0,0.0,-0.009634522,0.044872273,0.43306142,-0.051022086,0.04258324,0.32089743,-0.018706303,0.06069215,0.156226,0.117377006,-0.025154287,0.121001326,0.12544352,0.054691292,0.033201247,0.06372473,-0.04177026,0.0039808513,0.06813855,0.07056379,-0.057806548,0.0035293244,0.0005998588,0.06504283,0.040008254,2.0,2.0,-1.5244743,-2.0,0.7073531,-1.8434674,2.0,0.4789221,-2.0,0.11802769,-0.14266522,-2.0,2.0,1.7944064,-1.7002434,-2.0,1.0857279,-1.7527761,2.0,0.12079306,-2.0,0.032832846,-0.066426694,-2.0
2025-07-21 14:27:23.737,1.2400000000000007,1240,62,-0.00652475,-0.071187176,-0.0030932194,0.023760024,-0.008815787,0.008514216,0.0,0.0,0.0,-0.009770752,0.042255346,0.41827393,-0.040013455,0.047186196,0.31768304,-0.021270737,0.05337376,0.1545079,0.10892552,-0.02409858,0.12214769,0.11219635,0.042225137,-0.04698218,-0.05771759,-0.0044180825,0.008304577,-0.06379337,-0.042819954,-0.0069610584,0.032594103,-0.0376876,0.03184414,-0.06429354,2.0,1.7944064,-1.7002434,-2.0,1.0857279,-1.7527761,2.0,0.12079306,-2.0,0.032832846,-0.066426694,-2.0,2.0,2.0,-1.7172877,-2.0,1.0626594,-1.5559075,2.0,0.21205552,-2.0,0.058367282,-0.07628298,-2.0
2025-07-21 14:27:23.757,1.2600000000000007,1260,63,-0.03528127,0.02432495,-0.021652069,-0.011595992,-0.03338904,0.013929426,0.0,0.0,0.0,-0.009962551,0.043174796,0.43128937,-0.059148677,0.04915901,0.33013994,-0.029183041,0.044168983,0.14390308,0.10216416,-0.020660223,0.12067252,0.13201179,0.02935811,-0.030298999,0.030085059,-0.053647477,0.045332696,-0.039911866,-0.061885566,-0.014971511,-0.029973267,-0.0031149911,0.039139878,-0.017221894,2.0,2.0,-1.7172877,-2.0,1.0626594,-1.5559075,2.0,0.21205552,-2.0,0.058367282,-0.07628298,-2.0,2.0,1.97316,-1.6877942,-2.0,0.91289115,-1.7723434,2.0,0.31086376,-2.0,-0.113091126,-0.11123593,-2.0
2025-07-21 14:27:23.777,1.2800000000000007,1280,64,0.053113915,-0.045534477,0.038719103,0.002540972,-0.08283693,0.048605066,0.0,0.0,0.0,-0.009986301,0.04280091,0.42230773,-0.059681885,0.05687082,0.3270497,-0.028612547,0.042585865,0.14793392,0.1183885,-0.027167888,0.12365857,0.11515926,0.0518607,0.06675589,-0.0032638907,0.009193547,-0.060202915,-0.027318347,0.013142314,0.06284583,-0.034541037,0.06339724,-0.0035325498,0.017032465,2.0,1.97316,-1.6877942,-2.0,0.91289115,-1.7723434,2.0,0.31086376,-2.0,-0.113091126,-0.11123593,-2.0,2.0,1.8703434,-1.6831167,-2.0,1.0399845,-1.6235652,2.0,0.05024324,-2.0,0.018730612,-0.018827587,-2.0
2025-07-21 14:27:23.803,1.3000000000000007,1300,65,-0.047522027,-0.020265093,-0.007039977,-0.0027425697,-0.0651901,-0.039394435,0.0,0.0,0.0,-0.010063015,0.03935751,0.42269975,-0.055052344,0.05171089,0.32786277,-0.031651173,0.05195679,0.15875475,0.10950282,-0.024303619,0.12249748,0.13122898,0.015780386,0.010666489,-0.0696061,0.051824827,-0.052476313,0.05197816,0.02873992,-0.04008931,-0.05096804,-0.008586011,0.07202733,0.03746815,2.0,1.8703434,-1.6831167,-2.0,1.0399845,-1.6235652,2.0,0.05024324,-2.0,0.018730612,-0.018827587,-2.0,2.0,2.0,-1.8265623,-2.0,1.1268502,-1.4962792,2.0,0.12847789,-2.0,-0.03974536,-0.036135145,-2.0
2025-07-21 14:27:23.821,1.3200000000000007,1320,66,0.055253617,-0.013185615,-0.00632883,0.022632869,-0.039843958,0.010112977,0.0,0.0,0.0,-0.010044846,0.042216953,0.44078362,-0.061052818,0.043253932,0.31518456,-0.029058658,0.055366907,0.16192211,0.110018104,-0.023569692,0.12951022,0.119382046,0.04614222,0.0032130356,-0.04627023,-0.027350117,-0.0467788,0.061065555,-0.021108255,0.014476832,0.052999556,-0.057063233,-0.040431987,0.0055906046,2.0,2.0,-1.8265623,-2.0,1.1268502,-1.4962792,2.0,0.12847789,-2.0,-0.03974536,-0.036135145,-2.0,2.0,2.0,-1.839568,-2.0,1.0370518,-1.7780374,2.0,0.21901618,-2.0,-0.17709088,-0.027222224,-2.0
2025-07-21 14:27:23.840,1.3400000000000007,1340,67,-0.02829455,-0.045696236,-0.053832635,-0.037891947,-0.03703048,-0.038642503,0.0,0.0,0.0,-0.009798157,0.040410046,0.4386873,-0.06311641,0.041692227,0.31809226,-0.035312705,0.059998993,0.14566818,0.11014826,-0.024768718,0.12250163,0.122171685,0.030742874,0.023267513,-0.008217978,0.06719513,-0.021406004,-0.057824533,-0.038018093,-0.051530678,0.04928835,-0.030988216,-0.047813423,-0.023569392,2.0,2.0,-1.839568,-2.0,1.0370518,-1.7780374,2.0,0.21901618,-2.0,-0.17709088,-0.027222224,-2.0,2.0,2.0,-1.7359946,-2.0,0.93253225,-1.8190726,2.0,0.36231866,-2.0,-0.4186966,-0.15756316,-2.0
2025-07-21 14:27:23.861,1.3600000000000008,1360,68,-0.0029247194,-0.011996707,0.039293293,0.008183692,-0.06784606,-0.045168065,0.0,0.0,0.0,-0.009504036,0.0408882,0.44319993,-0.05624847,0.03597131,0.32269663,-0.038174376,0.046749447,0.163129,0.12180582,-0.036136836,0.1349428,0.13612984,0.049264837,-0.006824545,-0.0014596366,-0.03981691,-0.017637102,-0.06980298,-0.07476324,-0.0494765,-0.0074395514,0.05667576,-0.060069464,-0.0026965018,2.0,2.0,-1.7359946,-2.0,0.93253225,-1.8190726,2.0,0.36231866,-2.0,-0.4186966,-0.15756316,-2.0,2.0,1.892487,-1.8363372,-2.0,1.2071527,-1.4453082,2.0,-0.03095444,-2.0,-0.2981704,-0.060094118,-2.0
2025-07-21 14:27:23.882,1.3800000000000008,1380,69,-6.735726e-05,-0.022876816,-0.051821116,0.012960512,-0.06747756,0.043558408,0.0,0.0,0.0,-0.009437008,0.038366135,0.4357451,-0.05645703,0.039265268,0.33294994,-0.038915414,0.059029665,0.1577927,0.1097549,-0.020704338,0.1364019,0.13914911,-0.071027055,0.01831102,-0.05351989,-0.02584785,0.042151645,0.049682017,-0.04727097,-0.009342289,-0.027667148,0.014716313,-0.02265286,-0.056396246,2.0,1.892487,-1.8363372,-2.0,1.2071527,-1.4453082,2.0,-0.03095444,-2.0,-0.2981704,-0.060094118,-2.0,2.0,2.0,-1.8257012,-2.0,0.99881095,-1.7913817,2.0,0.33861527,-2.0,-0.5178855,-0.12872949,-2.0
2025-07-21 14:27:23.904,1.4000000000000008,1400,70,-0.019557942,0.012199648,-0.034704197,-0.035193462,-0.069602065,-0.010487015,0.0,0.0,0.0,-0.009331506,0.04391285,0.43603212,-0.06436484,0.04105862,0.33720952,-0.052253723,0.059113637,0.1607325,0.11913569,-0.026530448,0.13260451,0.12286236,-0.04492657,-0.017202813,-0.080471165,0.058544926,-0.058464263,0.053389113,-0.04764795,0.050872605,-0.0020613302,-0.009568211,-0.009882243,-0.050152708,2.0,2.0,-1.8257012,-2.0,0.99881095,-1.7913817,2.0,0.33861527,-2.0,-0.5178855,-0.12872949,-2.0,2.0,2.0,-1.7483988,-2.0,1.0943024,-1.7431959,2.0,0.16082683,-2.0,-0.5088561,-0.12348552,-2.0
2025-07-21 14:27:23.921,1.4200000000000008,1420,71,0.016907314,0.011472219,0.041563112,0.03855817,-0.03314142,0.011286009,0.0,0.0,0.0,-0.00922614,0.026957281,0.43604934,-0.063518204,0.0490874,0.3291851,-0.040776603,0.05064062,0.15104865,0.11713133,-0.025823109,0.12509395,0.13068478,-0.040310733,-0.06854348,0.014899139,-0.0728401,-0.070450515,-0.0041228086,-0.0674231,0.031380612,-0.03321907,-0.060340133,-0.063338205,0.01572242,2.0,2.0,-1.7483988,-2.0,1.0943024,-1.7431959,2.0,0.16082683,-2.0,-0.5088561,-0.12348552,-2.0,2.0,1.9881902,-1.8687502,-2.0,1.2188531,-1.5533768,2.0,0.0105907135,-2.0,-0.21571872,-0.03287767,-2.0
2025-07-21 14:27:23.941,1.4400000000000008,1440,72,0.020898566,-0.061455894,-0.027677197,0.030893208,-0.068966426,-0.018721078,0.0,0.0,0.0,-0.009285577,0.03354548,0.44911432,-0.0771832,0.042615306,0.33185035,-0.046714224,0.041835085,0.16071877,0.11760077,-0.021709016,0.1311757,0.12866957,0.034530483,0.05114389,-0.008244727,0.04836619,0.0055641667,0.0633389,-0.027062036,0.059560347,0.044908836,-0.030430181,-0.019478666,-0.06633154,2.0,1.9881902,-1.8687502,-2.0,1.2188531,-1.5533768,2.0,0.0105907135,-2.0,-0.21571872,-0.03287767,-2.0,2.0,2.0,-1.8954331,-2.0,1.0146031,-1.7964275,2.0,0.28524935,-2.0,-0.40304598,-0.073923066,-2.0
2025-07-21 14:27:23.961,1.4600000000000009,1460,73,0.018841187,-0.0030424325,-0.04199844,0.028706808,-0.04421075,0.03670929,0.0,0.0,0.0,-0.00920328,0.036741972,0.45267555,-0.07501404,0.041232765,0.3334341,-0.041432038,0.04348691,0.15279855,0.1133562,-0.03456366,0.12111081,0.1284587,0.060119666,0.07055202,-0.039505232,0.0018655036,-0.009831438,0.048719943,0.010097266,0.04822816,0.07115686,-0.00991413,0.07110798,0.070029244,2.0,2.0,-1.8954331,-2.0,1.0146031,-1.7964275,2.0,0.28524935,-2.0,-0.40304598,-0.073923066,-2.0,2.0,2.0,-1.7650241,-2.0,0.9757056,-1.9414891,2.0,0.29881796,-2.0,-0.583999,-0.14787264,-2.0
2025-07-21 14:27:23.986,1.4800000000000009,1480,74,0.021557648,-0.03864643,0.009604798,-0.034924474,-0.027108599,0.009062301,0.0,0.0,0.0,-0.009081942,0.026313866,0.4461904,-0.07606934,0.039584603,0.33191502,-0.042691957,0.054841157,0.15458739,0.12086685,-0.029647054,0.12037658,0.13227972,-0.035856854,0.035120934,-0.00025045252,-0.019136382,0.06558048,0.029460223,0.040600013,-0.055179715,0.04177716,0.022109766,-0.013959034,0.0124268895,2.0,2.0,-1.7650241,-2.0,0.9757056,-1.9414891,2.0,0.29881796,-2.0,-0.583999,-0.14787264,-2.0,2.0,1.9717493,-1.914955,-2.0,1.2107762,-1.561198,2.0,0.034383964,-2.0,-0.5215429,-0.08177364,-2.0
2025-07-21 14:27:24.004,1.5000000000000009,1500,75,0.03378775,-0.058013156,-0.0071679694,-0.050577056,-0.042268142,-0.029654661,0.0,0.0,0.0,-0.009196953,0.026872875,0.46060872,-0.076367356,0.039462935,0.34795314,-0.03951929,0.04747775,0.1677185,0.12597945,-0.040959124,0.13009973,0.14806925,0.011453696,-0.020002807,0.066510275,-0.032699917,0.016705751,0.037626475,0.052318227,0.037405867,-0.02818938,-0.035973825,-0.05483752,0.01971005,2.0,1.9717493,-1.914955,-2.0,1.2107762,-1.561198,2.0,0.034383964,-2.0,-0.5215429,-0.08177364,-2.0,2.0,2.0,-1.9815825,-2.0,1.070482,-1.7289878,2.0,0.20368414,-2.0,-0.64780813,-0.07318878,-2.0
2025-07-21 14:27:24.021,1.520000000000001,1520,76,0.03712208,-0.06115676,0.03534389,-0.054347213,-0.08193104,0.021816142,0.0,0.0,0.0,-0.009299985,0.04384355,0.45664918,-0.08789564,0.045654163,0.33643997,-0.060239054,0.04155562,0.165633,0.118187085,-0.03701786,0.12249075,0.14367227,0.031431526,-0.036626372,0.057418354,0.05486133,-0.016197741,0.050145656,-0.032628927,0.016543671,0.049168274,0.010722576,-0.0052869064,0.077259704,2.0,2.0,-1.9815825,-2.0,1.070482,-1.7289878,2.0,0.20368414,-2.0,-0.64780813,-0.07318878,-2.0,2.0,2.0,-2.0,-2.0,1.2439923,-1.5503483,2.0,-0.05645876,-2.0,-0.67287916,0.010586932,-2.0
2025-07-21 14:27:24.041,1.540000000000001,1540,77,0.053012084,0.023979368,-0.058657046,-0.057266526,-0.035592157,0.034944266,0.0,0.0,0.0,-0.009306946,0.04004252,0.4570298,-0.08853879,0.033510942,0.34913072,-0.06041907,0.04667953,0.1606534,0.12638819,-0.042873446,0.1358783,0.13833098,-0.018753333,-0.016208185,0.02206361,-0.06500547,-0.009792712,0.06394669,-0.07470937,-0.07372171,0.028915918,-0.018324088,0.016208114,0.034674335,2.0,2.0,-2.0,-2.0,1.2439923,-1.5503483,2.0,-0.05645876,-2.0,-0.67287916,0.010586932,-2.0,2.0,2.0,-2.0,-2.0,1.0917684,-1.863127,2.0,0.31583157,-2.0,-1.0108832,-0.15591627,-2.0
2025-07-21 14:27:24.062,1.560000000000001,1560,78,-0.029110614,0.0007698001,0.019787103,-0.028913358,-0.0488341,0.02485484,0.0,0.0,0.0,-0.009136367,0.030633705,0.45790258,-0.08554975,0.040147353,0.35398906,-0.052401267,0.047348168,0.1547344,0.12996908,-0.030792309,0.12909113,0.13722089,0.032660212,0.010256881,-0.018736722,-0.04174179,0.03134221,0.038078446,0.0069163903,-0.0712867,0.07163172,-0.027397938,0.07231672,0.059622165,2.0,2.0,-2.0,-2.0,1.0917684,-1.863127,2.0,0.31583157,-2.0,-1.0108832,-0.15591627,-2.0,2.0,2.0,-2.0,-2.0,1.3618902,-1.3861339,2.0,-0.13916816,-2.0,-0.9365202,-0.08720903,-2.0
2025-07-21 14:27:24.087,1.580000000000001,1580,79,-0.03355674,-0.033785332,-0.04581141,-0.0014609699,-0.09305143,0.013898177,0.0,0.0,0.0,-0.008991608,0.037309136,0.46429315,-0.10177273,0.028412558,0.34950203,-0.051668976,0.03388709,0.16015081,0.12750782,-0.026689813,0.13450873,0.1390713,0.02001835,0.024780558,0.026046176,0.012047899,-0.018740118,0.013615313,-0.013870831,-0.01741277,0.029245147,0.003947619,-0.036359303,-0.026479462,2.0,2.0,-2.0,-2.0,1.3618902,-1.3861339,2.0,-0.13916816,-2.0,-0.9365202,-0.08720903,-2.0,2.0,2.0,-2.0,-2.0,1.1570605,-1.7134608,2.0,0.21723215,-2.0,-1.219295,-0.15941383,-2.0
2025-07-21 14:27:24.104,1.600000000000001,1600,80,-0.029512884,-0.05074752,0.030924497,-0.029513871,-0.08642099,-0.045472324,0.0,0.0,0.0,-0.008797767,0.026833141,0.46136647,-0.09832835,0.031657733,0.34337276,-0.060660016,0.041263755,0.15265292,0.12789242,-0.031393275,0.14112519,0.14839838,0.063249715,-0.035340376,0.06578438,0.014338571,-0.027650097,-0.012201782,0.021337297,-0.014441478,0.034122396,0.05080592,0.040790386,0.05173666,2.0,2.0,-2.0,-2.0,1.1570605,-1.7134608,2.0,0.21723215,-2.0,-1.219295,-0.15941383,-2.0,2.0,2.0,-2.0,-2.0,1.3940787,-1.3084222,2.0,-0.24400076,-2.0,-1.0890061,-0.041208304,-2.0
2025-07-21 14:27:24.121,1.620000000000001,1620,81,-0.025222952,-0.030868182,-0.005276733,-0.004647815,-0.0667779,-0.018818945,0.0,0.0,0.0,-0.008581988,0.02453653,0.4514737,-0.09551564,0.025994178,0.3520869,-0.04558547,0.03911507,0.15341085,0.13988937,-0.04120064,0.13831177,0.1457311,-0.014806837,-0.048947595,0.05072565,0.011164081,-0.061328363,-0.059330612,-0.06465924,-0.020665495,-0.042863164,0.019263929,0.06595373,0.08064319,2.0,2.0,-2.0,-2.0,1.3940787,-1.3084222,2.0,-0.24400076,-2.0,-1.0890061,-0.041208304,-2.0,2.0,2.0,-2.0,-2.0,1.2695563,-1.4655282,2.0,-0.021047,-2.0,-1.0314493,-0.060566366,-2.0
2025-07-21 14:27:24.141,1.640000000000001,1640,82,0.06095533,-0.018238818,-0.06167565,-0.032817226,-0.09695639,0.023870772,0.0,0.0,0.0,-0.008242628,0.025324052,0.46938488,-0.105087705,0.03284028,0.346875,-0.047472514,0.045050755,0.15861242,0.13555077,-0.038658455,0.12692453,0.14471096,-0.0027457639,0.051425092,-0.0063026184,-0.022286301,0.07852398,0.05384621,-0.025090791,0.014487775,0.0026613788,0.03054156,-0.0039595454,0.061562464,2.0,2.0,-2.0,-2.0,1.2695563,-1.4655282,2.0,-0.021047,-2.0,-1.0314493,-0.060566366,-2.0,2.0,2.0,-2.0,-2.0,1.0624056,-1.8249693,2.0,0.24903809,-2.0,-1.2921374,-0.20110086,-2.0
2025-07-21 14:27:24.162,1.660000000000001,1660,83,0.011295187,0.031936124,-0.0063155596,-0.020255132,-0.07595964,0.0024942462,0.0,0.0,0.0,-0.007684472,0.015126515,0.45998245,-0.09604645,0.029156683,0.35610527,-0.04352966,0.052477807,0.1601353,0.14497042,-0.0409757,0.12545487,0.15135486,-0.042114653,0.05909794,0.0008508711,-0.072067335,-0.010943452,-0.014851374,0.060462087,0.05699462,-0.05053882,-0.051490963,0.06844981,0.053676814,2.0,2.0,-2.0,-2.0,1.0624056,-1.8249693,2.0,0.24903809,-2.0,-1.2921374,-0.20110086,-2.0,2.0,2.0,-1.7811463,-2.0,1.1982299,-1.5860939,2.0,-0.031541485,-2.0,-1.1038921,-0.19760607,-2.0
2025-07-21 14:27:24.187,1.680000000000001,1680,84,0.030765459,-0.02825267,0.04713631,0.0028928122,-0.10905374,0.038790666,0.0,0.0,0.0,-0.0073839547,0.011027331,0.4555673,-0.10184534,0.022221312,0.3508536,-0.053752273,0.037182122,0.14810725,0.12999511,-0.042769104,0.13236499,0.1549191,0.051607266,-0.059522945,-0.054935362,0.0010493576,-0.040311906,0.032496404,-0.07483807,-0.073430926,-0.03652239,-0.009517434,-0.06802636,-0.03608284,2.0,2.0,-1.7811463,-2.0,1.1982299,-1.5860939,2.0,-0.031541485,-2.0,-1.1038921,-0.19760607,-2.0,2.0,2.0,-2.0,-2.0,1.5214239,-1.3492886,2.0,-0.24320228,-2.0,-0.9640069,0.023077376,-2.0
2025-07-21 14:27:24.204,1.700000000000001,1700,85,0.05031799,-0.05154837,0.00015025846,-0.03977321,-0.09590026,0.029989563,0.0,0.0,0.0,-0.007346511,0.015127249,0.4531423,-0.10954131,0.03081986,0.36064664,-0.0479986,0.036858257,0.15763499,0.15091522,-0.030754577,0.13352844,0.16594933,-0.0062794876,0.025466535,-0.04208817,-0.005101868,0.01184515,0.044928886,0.012113337,0.037659407,0.021228394,-0.053498767,0.07443167,0.005096836,2.0,2.0,-2.0,-2.0,1.5214239,-1.3492886,2.0,-0.24320228,-2.0,-0.9640069,0.023077376,-2.0,2.0,2.0,-2.0,-2.0,1.2959052,-1.4369622,2.0,-0.023221899,-2.0,-0.9678207,-0.049194455,-2.0
2025-07-21 14:27:24.222,1.720000000000001,1720,86,0.006420303,0.053452246,-0.023130082,0.006091434,-0.021129308,0.030373838,0.0,0.0,0.0,-0.0070576975,0.0077895527,0.46145794,-0.100788966,0.027594574,0.35811767,-0.046344124,0.054116607,0.16057418,0.14243522,-0.03679864,0.1402607,0.16484395,-0.032616656,-0.011198486,0.019653402,-0.055957932,0.013545834,0.005301521,-0.043210395,-0.07226048,0.022832204,-0.0010289155,0.007180115,0.0043629124,2.0,2.0,-2.0,-2.0,1.2959052,-1.4369622,2.0,-0.023221899,-2.0,-0.9678207,-0.049194455,-2.0,2.0,2.0,-2.0,-2.0,1.2388113,-1.5320508,2.0,0.042535793,-2.0,-1.08248,-0.0963366,-2.0
2025-07-21 14:27:24.242,1.740000000000001,1740,87,0.041209217,0.044313077,-0.049657676,-0.03469938,-0.06620678,-0.035979412,0.0,0.0,0.0,-0.006528305,0.019940302,0.4618477,-0.104027376,0.013970654,0.36409825,-0.04948987,0.04829506,0.16487968,0.14524104,-0.039539106,0.14364487,0.17442879,-0.061018646,-0.05272179,-0.01441628,0.07185514,-0.016244687,0.047233038,-0.0004484073,-0.020105962,-0.046267223,-0.06358865,0.031577595,0.018940665,2.0,2.0,-2.0,-2.0,1.2388113,-1.5320508,2.0,0.042535793,-2.0,-1.08248,-0.0963366,-2.0,2.0,2.0,-2.0,-2.0,1.2403833,-1.6337869,2.0,0.060495462,-2.0,-1.2063466,-0.13001437,-2.0
2025-07-21 14:27:24.262,1.7600000000000011,1760,88,-0.019326495,0.032520436,0.026343895,-0.03100502,-0.10832239,0.00053049275,0.0,0.0,0.0,-0.0060700504,0.013198652,0.47058427,-0.09225667,0.028938495,0.36346635,-0.04561845,0.041271523,0.16411273,0.14993347,-0.04197395,0.13951978,0.15761621,-0.07435757,0.022770377,0.062135413,-0.02387922,-0.06142143,0.04755359,-0.06473956,0.07272345,0.068182796,0.026882173,0.014934843,0.07796706,2.0,2.0,-2.0,-2.0,1.2403833,-1.6337869,2.0,0.060495462,-2.0,-1.2063466,-0.13001437,-2.0,2.0,2.0,-2.0,-2.0,1.3357357,-1.4519728,2.0,-0.14687182,-2.0,-1.0350485,-0.059054732,-2.0
2025-07-21 14:27:24.287,1.7800000000000011,1780,89,-0.011643206,0.019185828,-0.023540545,-0.05476767,-0.014790017,0.019227598,0.0,0.0,0.0,-0.0057879593,0.0123440055,0.46851295,-0.098016925,0.009035496,0.36773065,-0.05100155,0.051831376,0.15656082,0.14766063,-0.03456948,0.13152729,0.16054493,-0.03289829,-0.010473052,0.05983306,-0.04339048,0.011405799,-0.06285937,0.034392014,0.037726946,-0.045855027,-0.032825377,0.024115365,0.015966652,2.0,2.0,-2.0,-2.0,1.3357357,-1.4519728,2.0,-0.14687182,-2.0,-1.0350485,-0.059054732,-2.0,2.0,2.0,-2.0,-2.0,1.1384416,-1.5698481,2.0,0.111445025,-2.0,-1.095976,-0.13760316,-2.0
2025-07-21 14:27:24.305,1.8000000000000012,1800,90,0.013384286,-0.0111615565,-0.027410235,-0.039571203,-0.07392948,0.0355029,0.0,0.0,0.0,-0.0055199303,0.009051296,0.47461134,-0.11162434,0.011690125,0.35382894,-0.047028482,0.057573967,0.14657453,0.1502149,-0.04086867,0.1425143,0.1652071,0.05033312,-0.058859035,0.027953463,0.04392056,-0.057416555,-0.024715941,0.011462562,0.0147139765,-0.06112353,-0.0076181013,0.016781682,0.0022596135,2.0,2.0,-2.0,-2.0,1.1384416,-1.5698481,2.0,0.111445025,-2.0,-1.095976,-0.13760316,-2.0,2.0,2.0,-2.0,-2.0,1.2070104,-1.5869908,2.0,-0.0047964193,-2.0,-1.240593,-0.105561,-2.0
2025-07-21 14:27:24.322,1.8200000000000012,1820,91,-0.02073476,-0.050224688,-0.023214322,-0.052294083,-0.01724701,0.036628988,0.0,0.0,0.0,-0.0053487886,0.008589677,0.46128723,-0.1040317,0.021598287,0.36562586,-0.031430267,0.056831058,0.14665887,0.14143892,-0.032125473,0.1402968,0.17970368,-0.020792408,0.06306804,0.051731203,-0.033256218,-0.0037453633,0.038471173,0.062060855,0.020235224,-0.06787961,-0.013304756,-0.07040391,-0.046467043,2.0,2.0,-2.0,-2.0,1.2070104,-1.5869908,2.0,-0.0047964193,-2.0,-1.240593,-0.105561,-2.0,2.0,2.0,-2.0,-2.0,1.1644467,-1.5256639,2.0,0.030452859,-2.0,-1.3252311,-0.13959917,-2.0
2025-07-21 14:27:24.342,1.8400000000000012,1840,92,-0.041722115,-0.0350033,-0.029254934,-0.02825267,-0.08524401,-0.026667923,0.0,0.0,0.0,-0.0053531975,0.022833597,0.4664105,-0.11038725,0.020830529,0.35220248,-0.04425815,0.03753177,0.15712073,0.14200255,-0.02457324,0.13644144,0.17551312,0.051923823,-0.037670374,0.052614115,0.022978244,-0.008979062,-0.045646384,-0.049655862,-0.0060631367,0.045181636,0.00013288045,0.028456964,-0.027442705,2.0,2.0,-2.0,-2.0,1.1644467,-1.5256639,2.0,0.030452859,-2.0,-1.3252311,-0.13959917,-2.0,2.0,2.0,-2.0,-2.0,1.2566999,-1.5071685,2.0,-0.046909545,-2.0,-1.5202496,-0.15255757,-2.0
2025-07-21 14:27:24.362,1.8600000000000012,1860,93,0.021203095,0.02695644,0.047009584,0.039625283,-0.09296931,-0.040288128,0.0,0.0,0.0,-0.005476448,0.006049547,0.4661413,-0.11011706,0.016093643,0.35624486,-0.04949905,0.04815101,0.16593441,0.14097261,-0.041183878,0.13342083,0.1716333,0.0098249,0.066357724,-0.015303881,-0.027349941,0.040588167,0.0034179694,0.019528985,-0.014616951,-0.019808903,-0.009772649,0.009361867,-0.0020287326,2.0,2.0,-2.0,-2.0,1.2566999,-1.5071685,2.0,-0.046909545,-2.0,-1.5202496,-0.15255757,-2.0,2.0,2.0,-2.0,-2.0,1.4511646,-1.2254788,2.0,-0.3335888,-2.0,-1.247668,-0.036040634,-2.0
2025-07-21 14:27:24.388,1.8800000000000012,1880,94,0.002352829,0.02446465,-0.033313703,-0.051206466,-0.052230503,-0.018691111,0.0,0.0,0.0,-0.005677167,0.0042073326,0.45901832,-0.114869855,0.022675825,0.36516312,-0.04099234,0.054216202,0.15129161,0.14327379,-0.042747065,0.1462232,0.17163712,0.03049975,0.05746115,-0.05675044,0.047807876,0.019743484,0.041958865,9.403158e-05,-0.058701884,0.026852073,-0.058029067,0.04391408,0.017098801,2.0,2.0,-2.0,-2.0,1.4511646,-1.2254788,2.0,-0.3335888,-2.0,-1.247668,-0.036040634,-2.0,2.0,2.0,-2.0,-2.0,1.3273447,-1.4143845,2.0,-0.041948725,-2.0,-1.3479218,-0.08341293,-2.0
2025-07-21 14:27:24.404,1.9000000000000012,1900,95,0.022803446,0.051818747,0.01258955,0.0065736,-0.057908736,0.018072119,0.0,0.0,0.0,-0.005634268,0.002686791,0.46303833,-0.1176049,0.016446752,0.36741593,-0.040339798,0.04881193,0.16096222,0.16020744,-0.03545876,0.13020237,0.16987376,-0.05078392,-0.048045665,-0.008471241,0.04765282,0.07205672,-0.0005682815,0.04089905,-0.00239388,0.03059575,-0.02095082,-0.046728596,-0.016633267,2.0,2.0,-2.0,-2.0,1.3273447,-1.4143845,2.0,-0.041948725,-2.0,-1.3479218,-0.08341293,-2.0,2.0,2.0,-2.0,-2.0,1.3793026,-1.3359544,2.0,-0.19742048,-2.0,-1.2404888,-0.035454288,-2.0
2025-07-21 14:27:24.422,1.9200000000000013,1920,96,-0.019703584,0.010225898,-0.05892125,0.035241544,-0.059698135,0.031321466,0.0,0.0,0.0,-0.0053940043,0.002209844,0.46335244,-0.11248152,0.006369916,0.36319363,-0.035465714,0.03944956,0.15521364,0.14899547,-0.035878025,0.13157308,0.17076123,0.038938057,-0.037204415,0.006600371,0.036873914,0.027234782,-0.06528279,0.024354381,0.0019392571,-0.042063903,0.009018451,0.035350673,0.038235545,2.0,2.0,-2.0,-2.0,1.3793026,-1.3359544,2.0,-0.19742048,-2.0,-1.2404888,-0.035454288,-2.0,2.0,2.0,-2.0,-2.0,1.161322,-1.589467,2.0,0.12796839,-2.0,-1.4407283,-0.18129343,-2.0
2025-07-21 14:27:24.443,1.9400000000000013,1940,97,-0.026454665,-0.013357404,0.0043237554,-0.015384155,-0.10315632,0.027668456,0.0,0.0,0.0,-0.0050621317,0.0035670323,0.46618924,-0.10991723,0.01421272,0.3573703,-0.041340116,0.04661556,0.15884432,0.14747064,-0.025748521,0.14334123,0.18124503,-0.009666147,0.01490573,0.034796163,-0.028904185,-0.033895086,0.03263777,0.06391467,0.05148275,0.021004684,0.051154785,-0.065614045,0.01725237,2.0,2.0,-2.0,-2.0,1.161322,-1.589467,2.0,0.12796839,-2.0,-1.4407283,-0.18129343,-2.0,2.0,2.0,-2.0,-2.0,1.3142357,-1.4163857,2.0,-0.1734143,-2.0,-1.4255154,-0.09888807,-2.0
2025-07-21 14:27:24.462,1.9600000000000013,1960,98,-0.0041058166,0.008885191,-0.047586594,-0.04493406,-0.023374872,0.042626876,0.0,0.0,0.0,-0.004874203,0.015307096,0.46657136,-0.109661676,0.013184221,0.35650995,-0.042771593,0.049193,0.15274061,0.14932454,-0.042711847,0.14605007,0.17757176,0.03003696,0.008343894,0.049514003,-0.029172499,-0.017001238,0.004983085,0.031348586,0.017855827,-0.024511812,0.020339912,0.062373403,-0.023689786,2.0,2.0,-2.0,-2.0,1.3142357,-1.4163857,2.0,-0.1734143,-2.0,-1.4255154,-0.09888807,-2.0,2.0,2.0,-2.0,-2.0,1.224382,-1.5904166,2.0,0.05065055,-2.0,-1.6253921,-0.17889266,-2.0
2025-07-21 14:27:24.495,1.9800000000000013,1980,99,-0.028003443,0.019909048,0.017139435,0.022952715,-0.03559652,-0.03370387,0.0,0.0,0.0,-0.0048211142,0.017101683,0.46442625,-0.11385487,0.020787999,0.3614826,-0.036048256,0.04555049,0.15572727,0.1430881,-0.035405207,0.13345648,0.18872711,-0.017412964,-0.037509125,-0.05991753,0.034047976,0.039232593,0.022130312,0.015339597,0.03915795,0.05796245,0.030918397,0.027790893,0.015973836,2.0,2.0,-2.0,-2.0,1.224382,-1.5904166,2.0,0.05065055,-2.0,-1.6253921,-0.17889266,-2.0,2.0,2.0,-2.0,-2.0,1.4594501,-1.2549983,2.0,-0.3317217,-2.0,-1.4059361,-0.062370613,-2.0
2025-07-21 14:27:24.525,2.0000000000000013,2000,100,-0.037420824,-0.00081338576,0.032128558,0.02846924,-0.09101022,0.048854187,0.0,0.0,0.0,-0.00487825,-0.0009713077,0.46466202,-0.112739384,0.020850603,0.36727,-0.030564323,0.03876157,0.15463671,0.14119692,-0.031663164,0.13810866,0.17515038,0.049836922,-0.065268084,0.0072729904,0.004645355,-0.036318537,-0.019874219,0.028937267,-0.027338997,0.06779905,0.050636444,-0.06780744,-0.03331126,2.0,2.0,-2.0,-2.0,1.4594501,-1.2549983,2.0,-0.3317217,-2.0,-1.4059361,-0.062370613,-2.0,2.0,2.0,-2.0,-2.0,1.4692131,-1.27772,2.0,-0.22484754,-2.0,-1.340224,0.037836254,-2.0
2025-07-21 14:27:24.555,2.0200000000000014,2020,101,-0.050572995,0.013618183,0.018729938,0.036544215,-0.041577913,-0.03544867,0.0,0.0,0.0,-0.0048531624,0.007969489,0.4589388,-0.114506625,0.0058073583,0.35108575,-0.026630443,0.045701392,0.15306112,0.1481152,-0.03303423,0.13877992,0.17853758,-0.040869314,-0.011443228,-0.06776851,-0.043703653,-0.004177704,0.04276806,0.02365774,0.0055205254,0.055191457,0.038197443,-0.049666468,-0.029361121,2.0,2.0,-2.0,-2.0,1.4692131,-1.27772,2.0,-0.22484754,-2.0,-1.340224,0.037836254,-2.0,2.0,2.0,-2.0,-2.0,1.4143552,-1.1884449,2.0,-0.2263302,-2.0,-1.1863537,-0.008193009,-2.0
2025-07-21 14:27:24.575,2.0400000000000014,2040,102,-0.039942835,0.050661873,-0.07982826,-0.047954887,-0.07771444,-0.03709166,0.0,0.0,0.0,-0.004508171,0.012897085,0.45785472,-0.11443947,0.0066505442,0.3609801,-0.037043046,0.043885704,0.15711492,0.15738122,-0.027165504,0.13743404,0.18039581,-0.06276571,-0.005279461,-0.01378592,-0.024484215,0.072025105,0.006148047,-0.002021214,-0.039945576,-0.04776786,-0.05843977,-0.02321499,-0.054701786,2.0,2.0,-2.0,-2.0,1.4143552,-1.1884449,2.0,-0.2263302,-2.0,-1.1863537,-0.008193009,-2.0,2.0,2.0,-2.0,-2.0,1.1340387,-1.5825583,2.0,0.19452208,-2.0,-1.51607,-0.24423088,-2.0
2025-07-21 14:27:24.605,2.0600000000000014,2060,103,-0.022751516,-0.00237875,0.036969565,0.022906365,-0.057435405,-0.0049518347,0.0,0.0,0.0,-0.003953571,0.007772525,0.46117526,-0.11308211,0.0104615195,0.3515306,-0.03864425,0.04982198,0.15936461,0.15096761,-0.031164277,0.14373863,0.18023947,0.04249292,0.005127568,0.034597177,0.023172257,-0.036697265,-0.042768907,0.014390487,0.0031940767,0.01714542,0.010751341,-0.06463573,-0.06566091,2.0,2.0,-2.0,-2.0,1.1340387,-1.5825583,2.0,0.19452208,-2.0,-1.51607,-0.24423088,-2.0,2.0,2.0,-2.0,-2.0,1.408927,-1.268996,2.0,-0.3303297,-2.0,-1.3477448,-0.058729142,-2.0
2025-07-21 14:27:24.641,2.0800000000000014,2080,104,0.032014962,0.033203613,-0.053870145,-0.032759607,-0.08089285,-0.030254269,0.0,0.0,0.0,-0.0036789235,-0.0011603999,0.46299815,-0.11646041,0.016488956,0.35852215,-0.026852705,0.056410644,0.15784594,0.15617043,-0.041124918,0.13506798,0.17204775,0.04263374,-0.07504706,-0.028876979,0.05759405,-0.034935,0.029369252,0.0101206815,-0.057879575,-0.042630345,-0.005290961,0.05532525,0.04516699,2.0,2.0,-2.0,-2.0,1.408927,-1.268996,2.0,-0.3303297,-2.0,-1.3477448,-0.058729142,-2.0,2.0,2.0,-2.0,-2.0,1.3487178,-1.5469275,2.0,-0.0067677684,-2.0,-1.4930516,-0.099170804,-2.0
2025-07-21 14:27:24.674,2.1000000000000014,2100,105,-0.001135559,0.02940716,-0.04194312,-0.02619335,-0.053164575,-0.020194076,0.0,0.0,0.0,-0.0035450996,0.0016371447,0.46099484,-0.114261195,0.011675384,0.36855668,-0.02891984,0.051033184,0.15146574,0.15883538,-0.023612214,0.14260615,0.1792879,0.04325289,-0.034708776,-0.017642094,-0.019873798,0.018250534,-0.014925476,-0.028677173,0.046177894,-0.0086293565,-0.068631046,0.06278815,0.019502793,2.0,2.0,-2.0,-2.0,1.3487178,-1.5469275,2.0,-0.0067677684,-2.0,-1.4930516,-0.099170804,-2.0,2.0,2.0,-2.0,-2.0,1.2909292,-1.4357734,2.0,-0.0537511,-2.0,-1.439225,-0.18873039,-2.0
2025-07-21 14:27:24.705,2.1200000000000014,2120,106,0.017846359,-0.029165577,0.033650715,0.012672816,-0.093302816,0.013614521,0.0,0.0,0.0,-0.003398628,0.0027732907,0.4593968,-0.11581294,0.015904862,0.36504155,-0.036981177,0.050749056,0.15455486,0.15015061,-0.034398954,0.14519472,0.18092439,0.04223867,0.01737963,-0.016732015,-0.047400936,-0.019026639,0.042276956,-0.061324883,0.05259658,-0.042451225,0.03772557,0.026298441,0.014038386,2.0,2.0,-2.0,-2.0,1.2909292,-1.4357734,2.0,-0.0537511,-2.0,-1.439225,-0.18873039,-2.0,2.0,2.0,-2.0,-2.0,1.4292248,-1.2994392,2.0,-0.30060858,-2.0,-1.1921488,-0.017681465,-2.0
2025-07-21 14:27:24.724,2.1400000000000015,2140,107,-0.03988708,-0.034947645,-0.039817907,0.007437932,-0.02087896,0.010463744,0.0,0.0,0.0,-0.0034488954,0.010556169,0.47072732,-0.10953569,0.0074620685,0.36189455,-0.030821778,0.044848297,0.15764552,0.15495414,-0.025781348,0.14395627,0.1843892,-0.010658583,0.014686951,0.064262204,-0.015720153,-0.0244218,0.025132356,0.06723348,0.0057280366,-0.040010333,0.07298652,-0.045224674,0.010106394,2.0,2.0,-2.0,-2.0,1.4292248,-1.2994392,2.0,-0.30060858,-2.0,-1.1921488,-0.017681465,-2.0,2.0,2.0,-2.0,-2.0,1.1878723,-1.5499684,2.0,0.11108945,-2.0,-1.3870215,-0.120687455,-2.0
2025-07-21 14:27:24.744,2.1600000000000015,2160,108,-0.041210994,-0.0114306295,0.05281093,0.009370637,-0.080992855,0.04940279,0.0,0.0,0.0,-0.003416698,0.008920177,0.46652701,-0.11187759,-0.0022496537,0.34999174,-0.039610405,0.05741816,0.15206248,0.14732523,-0.031359356,0.14310338,0.18045774,-0.0678955,-0.024028046,-0.042760357,-0.072176464,-0.019736473,-0.0052526253,-0.02789206,0.04865722,0.0076757125,-0.07448803,-0.046248533,-0.07694869,2.0,2.0,-2.0,-2.0,1.1878723,-1.5499684,2.0,0.11108945,-2.0,-1.3870215,-0.120687455,-2.0,2.0,2.0,-2.0,-2.0,1.4117169,-1.2019734,2.0,-0.3286284,-2.0,-1.1473277,-0.0453811,-2.0
2025-07-21 14:27:24.767,2.1800000000000015,2180,109,-0.041875113,-0.007990217,-0.0528887,-0.040501762,-0.053453453,0.012129368,0.0,0.0,0.0,-0.0034401938,0.0026631025,0.4700082,-0.112275906,0.0067641377,0.36188564,-0.025523419,0.05681801,0.15633807,0.14480205,-0.03465361,0.14367707,0.17416517,-0.016712803,-0.07121498,0.016354965,0.062482294,-0.0029649502,0.0613468,-0.023337645,-0.047233827,0.06910303,0.010175677,-0.0054103173,-0.022294415,2.0,2.0,-2.0,-2.0,1.4117169,-1.2019734,2.0,-0.3286284,-2.0,-1.1473277,-0.0453811,-2.0,2.0,2.0,-2.0,-2.0,1.298529,-1.5450891,2.0,0.044867348,-2.0,-1.4397025,-0.07613115,-2.0
2025-07-21 14:27:24.788,2.2000000000000015,2200,110,0.02769674,0.04990963,-0.022785528,-0.003429321,-0.10819526,-0.04955756,0.0,0.0,0.0,-0.003435755,0.00557166,0.46712232,-0.10155125,0.00082103134,0.35041854,-0.034249507,0.054532018,0.15737937,0.14638205,-0.038532116,0.14541,0.16611457,-0.035398573,-0.06732142,-0.0021564977,0.035027985,-0.035283193,0.019293506,0.040593237,0.052506458,-0.003597784,0.029414024,-0.007785792,-0.038691983,2.0,2.0,-2.0,-2.0,1.298529,-1.5450891,2.0,0.044867348,-2.0,-1.4397025,-0.07613115,-2.0,2.0,2.0,-2.0,-2.0,1.3380582,-1.4354651,2.0,-0.1364678,-2.0,-1.3877072,-0.10291247,-2.0
2025-07-21 14:27:24.805,2.2200000000000015,2220,111,0.014490461,0.048422158,0.048119545,-0.015975697,-0.073434174,-0.03036853,0.0,0.0,0.0,-0.0033907013,0.0028834601,0.45915622,-0.10819079,0.0050530573,0.3596552,-0.02873288,0.04958879,0.1520983,0.13910533,-0.036557514,0.14902836,0.1682494,-0.0052703833,-0.032256607,0.06421532,0.023004064,0.0123262275,-0.05549308,-0.0468035,-0.051425923,0.019969279,0.02452822,-0.016823206,-0.046229437,2.0,2.0,-2.0,-2.0,1.3380582,-1.4354651,2.0,-0.1364678,-2.0,-1.3877072,-0.10291247,-2.0,2.0,2.0,-2.0,-2.0,1.4739939,-1.1539346,2.0,-0.34239092,-2.0,-1.1154485,0.049008697,-2.0
2025-07-21 14:27:24.824,2.2400000000000015,2240,112,0.029176947,0.030352041,0.012389159,0.00070058665,-0.03674582,-0.04895924,0.0,0.0,0.0,-0.0034399622,-0.001688976,0.46649745,-0.10199012,0.01084041,0.3629779,-0.028726079,0.048852544,0.14200786,0.13628992,-0.03999577,0.14017445,0.16328895,0.04453182,0.044189334,0.05039584,-0.06604272,-0.034323458,0.038836144,-0.03618894,0.056418326,0.06711552,-0.023937436,0.033916645,0.056731395,2.0,2.0,-2.0,-2.0,1.4739939,-1.1539346,2.0,-0.34239092,-2.0,-1.1154485,0.049008697,-2.0,2.0,2.0,-2.0,-2.0,1.2653923,-1.3866432,2.0,-0.11229485,-2.0,-1.023351,0.010097586,-2.0
2025-07-21 14:27:24.844,2.2600000000000016,2260,113,0.023374092,0.016454672,-0.025868688,-0.0008892619,-0.06838662,0.02284182,0.0,0.0,0.0,-0.0032614837,0.009925782,0.45850986,-0.115676604,0.012708878,0.3608104,-0.027437856,0.04708963,0.14185445,0.1400145,-0.019966204,0.1421149,0.17073138,0.03970302,-0.060398355,0.02889412,0.063583955,0.07350685,0.056149565,-0.043782763,0.04472985,0.037313092,0.0069839,0.049804505,0.048242565,2.0,2.0,-2.0,-2.0,1.2653923,-1.3866432,2.0,-0.11229485,-2.0,-1.023351,0.010097586,-2.0,2.0,2.0,-2.0,-2.0,1.224119,-1.4746269,2.0,-0.05916621,-2.0,-1.1473812,-0.026833043,-2.0
2025-07-21 14:27:24.871,2.2800000000000016,2280,114,0.012211654,-0.037716817,-0.024490643,0.028491432,-0.06979661,0.02885098,0.0,0.0,0.0,-0.0029122008,-0.00026197592,0.46709856,-0.10348059,-0.0012295583,0.36614802,-0.024854872,0.055066466,0.13933925,0.13268971,-0.018443618,0.15098464,0.16164185,-0.034671582,-0.04477493,0.064029194,-0.059690062,-0.028425384,0.0536304,0.06592113,-0.04342485,-0.031942286,-0.018583609,0.0059941965,0.013801602,2.0,2.0,-2.0,-2.0,1.224119,-1.4746269,2.0,-0.05916621,-2.0,-1.1473812,-0.026833043,-2.0,2.0,2.0,-2.0,-2.0,1.259117,-1.5205262,2.0,-0.028764162,-2.0,-1.2439046,-0.061805308,-2.0
2025-07-21 14:27:24.888,2.3000000000000016,2300,115,0.010618748,-0.04068228,-0.0357966,-0.047565214,-0.092406034,-0.030873429,0.0,0.0,0.0,-0.0026560728,-0.005309012,0.4528638,-0.117369995,0.011003152,0.35593626,-0.024482496,0.04993314,0.14887992,0.14418794,-0.023389794,0.15335043,0.17433897,0.01670076,0.0711831,0.05644445,-0.034654673,-0.036390975,-0.047231246,-0.0310327,-0.017440913,0.032206167,-0.039802227,-0.014201081,0.02744803,2.0,2.0,-2.0,-2.0,1.259117,-1.5205262,2.0,-0.028764162,-2.0,-1.2439046,-0.061805308,-2.0,2.0,2.0,-2.0,-2.0,1.1878283,-1.4906354,2.0,0.016355526,-2.0,-1.316761,-0.16150987,-2.0
2025-07-21 14:27:24.905,2.3200000000000016,2320,116,0.017280892,-0.0049056793,0.04959925,-0.004151298,-0.08889496,0.0052132355,0.0,0.0,0.0,-0.0025650363,-0.0024857256,0.4538303,-0.11537052,0.01654779,0.35936028,-0.021357307,0.0546103,0.15085492,0.13744982,-0.027955055,0.15397532,0.17300981,-0.048512023,0.033767194,-0.058193248,-0.0073945774,-0.061453775,0.024755761,0.05933409,0.07524073,0.054160204,0.058095187,-0.061844442,-0.060777966,2.0,2.0,-2.0,-2.0,1.1878283,-1.4906354,2.0,0.016355526,-2.0,-1.316761,-0.16150987,-2.0,2.0,2.0,-2.0,-2.0,1.4399949,-1.2329781,2.0,-0.38968107,-2.0,-1.0211254,0.05844535,-2.0
2025-07-21 14:27:24.925,2.3400000000000016,2340,117,-0.044117916,-0.02915915,-0.058733143,0.016138505,-0.061936483,0.020645833,0.0,0.0,0.0,-0.0027174284,0.012257734,0.44809604,-0.10542052,0.0057667843,0.35722288,-0.036031302,0.048400346,0.1492728,0.1472044,-0.031893864,0.13996845,0.17735185,-0.059381355,0.022466706,-0.06063362,0.03281022,-0.026164815,0.035488244,0.055154324,0.038924653,0.061240148,0.0075604087,-0.007648095,0.032746762,2.0,2.0,-2.0,-2.0,1.4399949,-1.2329781,2.0,-0.38968107,-2.0,-1.0211254,0.05844535,-2.0,2.0,2.0,-2.0,-2.0,1.1671723,-1.5986526,2.0,0.15111086,-2.0,-1.2683272,-0.13151687,-2.0
2025-07-21 14:27:24.945,2.3600000000000017,2360,118,-0.019113837,-0.03681848,0.046880707,0.0074240463,-0.046225972,-0.014439643,0.0,0.0,0.0,-0.0027425438,-0.003364448,0.44570833,-0.101714335,0.014694631,0.34784505,-0.028950421,0.060639825,0.15215042,0.13704582,-0.027284125,0.15159023,0.16404197,0.059596643,0.04842905,0.051893562,-0.066898674,0.005717343,0.04243915,-0.013048064,-0.0065227537,0.017947208,0.05919161,-0.02375332,0.045503356,2.0,2.0,-2.0,-2.0,1.1671723,-1.5986526,2.0,0.15111086,-2.0,-1.2683272,-0.13151687,-2.0,2.0,2.0,-2.0,-2.0,1.3921034,-1.1848546,2.0,-0.33307275,-2.0,-1.0074537,-0.0006247163,-2.0
2025-07-21 14:27:24.971,2.3800000000000017,2380,119,0.017071659,0.020317769,-0.04902667,0.0069452054,-0.07157913,-0.031766526,0.0,0.0,0.0,-0.0027964555,-0.0026371449,0.45126653,-0.1179998,0.014875653,0.35925567,-0.024852088,0.058769174,0.1366925,0.14736822,-0.02074997,0.14501575,0.16085984,-0.02336438,0.044631142,-0.022197282,0.03212761,0.05350761,-0.066842586,0.046773665,-0.04256018,0.026061224,0.075438574,0.039304007,-0.07135326,2.0,2.0,-2.0,-2.0,1.3921034,-1.1848546,2.0,-0.33307275,-2.0,-1.0074537,-0.0006247163,-2.0,2.0,2.0,-2.0,-2.0,1.1960515,-1.4249208,2.0,0.0084272735,-2.0,-1.1467257,-0.06254761,-2.0
2025-07-21 14:27:24.988,2.4000000000000017,2400,120,-0.0082815,-0.019502088,-0.027581992,0.0013448135,-0.06429756,-0.04364171,0.0,0.0,0.0,-0.0028471886,0.010947281,0.46235082,-0.11493575,0.010942991,0.34743047,-0.028814713,0.05060601,0.15390392,0.14761236,-0.021350969,0.14709695,0.17200953,0.008624633,-0.06858984,-0.06819821,-0.007891083,0.063906506,-0.046033036,0.005429613,0.025256693,0.028194906,0.020923633,-0.045473285,-0.037700094,2.0,2.0,-2.0,-2.0,1.1960515,-1.4249208,2.0,0.0084272735,-2.0,-1.1467257,-0.06254761,-2.0,2.0,2.0,-2.0,-2.0,1.237841,-1.4109044,2.0,-0.07341014,-2.0,-1.2525995,-0.09662029,-2.0
2025-07-21 14:27:25.005,2.4200000000000017,2420,121,-0.018451685,-0.0035808485,-0.019865034,-0.02524737,-0.03213993,0.021121277,0.0,0.0,0.0,-0.0028352723,0.009086336,0.44541684,-0.10440003,0.008085841,0.3498585,-0.029154273,0.06288474,0.15080073,0.14100882,-0.019015806,0.14993119,0.16205598,-0.03267441,-0.06739925,-0.0058923094,-0.046822004,0.04294897,0.034469254,-0.066502705,0.0040482036,-0.015897201,-0.05960373,0.05300915,-0.0344481,2.0,2.0,-2.0,-2.0,1.237841,-1.4109044,2.0,-0.07341014,-2.0,-1.2525995,-0.09662029,-2.0,2.0,2.0,-2.0,-2.0,1.3147647,-1.4042895,2.0,-0.12157275,-2.0,-1.2246623,-0.08949405,-2.0
2025-07-21 14:27:25.026,2.4400000000000017,2440,122,0.013393232,-0.03522959,0.028101498,0.035542067,-0.07164335,-0.03905443,0.0,0.0,0.0,-0.0029536316,0.008246976,0.44819292,-0.102484345,0.008412622,0.3590079,-0.027081748,0.060953267,0.14013422,0.13015191,-0.017775174,0.13335907,0.16813277,-0.06322154,-0.0070221717,0.05396339,-0.05309739,-0.0043021226,0.013755716,-0.01594531,-0.024874486,-0.0038031626,-0.029997362,0.018661162,0.01021229,2.0,2.0,-2.0,-2.0,1.3147647,-1.4042895,2.0,-0.12157275,-2.0,-1.2246623,-0.08949405,-2.0,2.0,2.0,-2.0,-2.0,1.3913453,-1.3077862,2.0,-0.2318627,-2.0,-0.9643709,0.011087447,-2.0
2025-07-21 14:27:25.045,2.4600000000000017,2460,123,0.012955791,0.0024732084,0.023577025,-0.0038455923,-0.09530588,0.04909848,0.0,0.0,0.0,-0.0030999496,0.003489612,0.4593991,-0.10479309,0.017465908,0.35406318,-0.021422401,0.0629026,0.14175712,0.14397104,-0.020920333,0.13068621,0.17239845,0.009237486,0.04827008,0.07487105,-0.00908756,-0.008055679,0.044622865,-0.043075465,-0.03494421,0.011861747,0.0115334205,0.041218784,-0.050583277,2.0,2.0,-2.0,-2.0,1.3913453,-1.3077862,2.0,-0.2318627,-2.0,-0.9643709,0.011087447,-2.0,2.0,2.0,-2.0,-2.0,1.3239459,-1.3198047,2.0,-0.15338106,-2.0,-0.96180725,0.03677948,-2.0
2025-07-21 14:27:25.074,2.4800000000000018,2480,124,0.0032482722,0.0024277389,-0.061832577,0.0035158624,-0.10382509,0.0020061661,0.0,0.0,0.0,-0.0030929495,0.0038175501,0.4458031,-0.10527894,0.0027116593,0.3474385,-0.033289865,0.058237746,0.14133058,0.13810956,-0.030249665,0.13877028,0.16503833,-0.07310775,0.02782687,-0.023871921,-0.04353779,0.040652663,0.017471604,-0.06911396,0.0022386764,-0.055073198,-0.017085725,0.009514829,-0.025523005,2.0,2.0,-2.0,-2.0,1.3239459,-1.3198047,2.0,-0.15338106,-2.0,-0.96180725,0.03677948,-2.0,2.0,2.0,-1.9527415,-2.0,1.076569,-1.5925406,2.0,0.1595934,-2.0,-1.1433665,-0.17507462,-2.0
2025-07-21 14:27:25.094,2.5000000000000018,2500,125,-0.0014567674,0.056014456,0.012869433,-0.014558639,-0.06424538,0.046440404,0.0,0.0,0.0,-0.0028976032,0.0011772942,0.46128085,-0.09612856,0.012089315,0.3566718,-0.030011063,0.058333185,0.14921245,0.13367513,-0.021212807,0.14128026,0.16330652,0.044033483,-0.071302004,0.022621877,0.032522522,-0.03811147,0.030232267,0.016067507,0.06910381,0.013225416,-0.064150915,-0.057922784,-0.028007582,2.0,2.0,-1.9527415,-2.0,1.076569,-1.5925406,2.0,0.1595934,-2.0,-1.1433665,-0.17507462,-2.0,2.0,2.0,-2.0,-2.0,1.3075635,-1.4487156,2.0,-0.19295388,-2.0,-1.105731,-0.027046748,-2.0
2025-07-21 14:27:25.120,2.520000000000002,2520,126,-0.022116818,-0.01663017,0.042941075,-0.004197144,-0.09385566,-0.03518632,0.0,0.0,0.0,-0.0029243545,-0.0025014651,0.4603575,-0.098476425,0.009383221,0.35652354,-0.028324181,0.057500582,0.14662623,0.14553614,-0.027037079,0.13994676,0.16828623,-0.009467046,0.045720737,-0.05326025,0.024731051,0.05761025,0.0066118333,-0.027015539,-0.05385616,-0.028647834,-0.0058261286,-0.057471108,0.038396806,2.0,2.0,-2.0,-2.0,1.3075635,-1.4487156,2.0,-0.19295388,-2.0,-1.105731,-0.027046748,-2.0,2.0,2.0,-2.0,-2.0,1.3984578,-1.110519,2.0,-0.27406996,-2.0,-0.89362174,0.046408214,-2.0
2025-07-21 14:27:25.144,2.540000000000002,2540,127,-0.01394837,0.022760933,-0.036291763,0.02197229,-0.082472734,0.028001001,0.0,0.0,0.0,-0.0030897837,0.004164466,0.46006918,-0.09931288,0.015130668,0.35078624,-0.016527636,0.054702543,0.1505199,0.14010307,-0.02129679,0.1311942,0.16088454,-0.02304247,0.06890788,0.05882668,-0.00867575,-0.053756908,-0.034991965,-0.054878533,-0.014814166,0.044250086,-0.016024008,-0.064469054,0.034191437,2.0,2.0,-2.0,-2.0,1.3984578,-1.110519,2.0,-0.27406996,-2.0,-0.89362174,0.046408214,-2.0,2.0,2.0,-2.0,-2.0,1.0582305,-1.6183631,2.0,0.15885775,-2.0,-1.120096,-0.120192066,-2.0
2025-07-21 14:27:25.175,2.560000000000002,2560,128,-0.013694521,0.01175322,0.05799993,0.04178549,-0.06293114,0.03340333,0.0,0.0,0.0,-0.0029895015,0.0054533053,0.44912902,-0.10821112,0.013282909,0.36033523,-0.020477045,0.05839181,0.14047447,0.1418924,-0.028305858,0.13780493,0.16291513,0.07116558,-0.057952423,-0.070063,0.03358003,0.009027193,0.0015427044,-0.014895844,-0.039575543,-0.043344773,-0.0147090275,-0.06673003,-0.026370857,2.0,2.0,-2.0,-2.0,1.0582305,-1.6183631,2.0,0.15885775,-2.0,-1.120096,-0.120192066,-2.0,2.0,1.9832962,-2.0,-2.0,1.4515915,-1.1504718,2.0,-0.3927724,-2.0,-0.886934,0.06473107,-2.0
2025-07-21 14:27:25.196,2.580000000000002,2580,129,-0.024847997,0.0074049262,0.011713869,0.03576829,-0.05464307,-0.03476462,0.0,0.0,0.0,-0.0029814083,0.008498882,0.46064597,-0.11427387,0.007850822,0.353455,-0.016747626,0.059873946,0.14906853,0.13798602,-0.032386247,0.1333329,0.17088038,0.069894254,-0.05284297,-0.022161921,0.044382975,0.004845613,0.026422832,-0.03991859,0.007378882,0.066005275,-0.02776336,-0.013309099,0.009671005,2.0,1.9832962,-2.0,-2.0,1.4515915,-1.1504718,2.0,-0.3927724,-2.0,-0.886934,0.06473107,-2.0,2.0,2.0,-2.0,-2.0,1.332295,-1.2936006,2.0,-0.11963415,-2.0,-0.90297866,0.06471885,-2.0
2025-07-21 14:27:25.221,2.600000000000002,2600,130,0.04922569,-0.022556337,-0.04669533,-0.024047108,-0.020454494,-0.03729858,0.0,0.0,0.0,-0.0028922851,-0.00090059004,0.44280007,-0.10223862,-0.00032089566,0.34586045,-0.015266189,0.062036827,0.14528345,0.13267952,-0.032868665,0.13805816,0.16653538,0.06347162,0.00010323144,-0.02302113,0.030467119,-0.026919723,-0.065146,0.0670325,-0.015627453,0.039831676,-0.047794934,0.0236437,-0.042555965,2.0,2.0,-2.0,-2.0,1.332295,-1.2936006,2.0,-0.11963415,-2.0,-0.90297866,0.06471885,-2.0,2.0,2.0,-2.0,-2.0,1.139094,-1.4995271,2.0,0.042217534,-2.0,-1.1006432,-0.0826624,-2.0
2025-07-21 14:27:25.236,2.620000000000002,2620,131,0.03609879,0.025836952,0.026825676,0.016904749,-0.08534569,-0.027127549,0.0,0.0,0.0,-0.002524998,-0.0020908404,0.45978016,-0.11160158,0.018495033,0.34707585,-0.014843167,0.04791727,0.13534404,0.14517967,-0.025522532,0.15273009,0.15790258,0.021166783,0.0107186,0.04238264,-0.013331856,-0.050137885,-0.0022339576,0.07397077,0.07303646,0.023676934,0.053911176,0.019975131,0.020292861,2.0,2.0,-2.0,-2.0,1.139094,-1.4995271,2.0,0.042217534,-2.0,-1.1006432,-0.0826624,-2.0,2.0,2.0,-2.0,-2.0,1.2995517,-1.3543499,2.0,-0.2652532,-2.0,-0.9319503,0.033894084,-2.0
2025-07-21 14:27:25.256,2.640000000000002,2640,132,0.012424314,-0.037875988,0.036992542,0.015313132,-0.09331884,0.0031566808,0.0,0.0,0.0,-0.002312098,-0.0060968134,0.45893392,-0.10194688,0.0032345334,0.34873348,-0.025797587,0.062159974,0.15272216,0.14044447,-0.017878594,0.13744617,0.16012616,0.0029301422,0.046831254,0.009515116,-0.039045405,-0.021364192,-0.04524755,-0.014357023,-0.072689235,-0.015486321,-0.058066394,-0.07008983,-0.004599952,2.0,2.0,-2.0,-2.0,1.2995517,-1.3543499,2.0,-0.2652532,-2.0,-0.9319503,0.033894084,-2.0,2.0,2.0,-2.0,-2.0,1.3157188,-1.2610918,2.0,-0.15136133,-2.0,-0.84287846,0.036766715,-2.0
2025-07-21 14:27:25.283,2.660000000000002,2660,133,0.053985465,0.026358731,-0.017399756,0.026862191,-0.09245801,-0.03335639,0.0,0.0,0.0,-0.002155869,0.0060152793,0.44669735,-0.10906524,0.0044361344,0.3621163,-0.023789296,0.052582163,0.14949599,0.14453816,-0.025535412,0.14605391,0.16454217,0.01602574,-0.008978426,-0.031445958,-0.033737052,-0.010981801,-0.04560184,-0.011879742,-0.0029573245,0.046119303,0.011780391,0.019185431,0.06950251,2.0,2.0,-2.0,-2.0,1.3157188,-1.2610918,2.0,-0.15136133,-2.0,-0.84287846,0.036766715,-2.0,2.0,2.0,-2.0,-2.0,1.2049059,-1.4535574,2.0,-0.03254922,-2.0,-0.89836836,-0.022947833,-2.0
2025-07-21 14:27:25.301,2.680000000000002,2680,134,0.035011884,-0.0027005293,-0.012844727,-0.038795516,-0.10246366,-0.026257858,0.0,0.0,0.0,-0.0018850365,0.0024609666,0.45518038,-0.101034686,0.0018094575,0.35747337,-0.018373838,0.053454828,0.13880017,0.13053575,-0.014686647,0.1367345,0.17004222,-0.073788114,-0.011624349,-0.021135388,0.016490987,-0.024826573,-0.0006024663,0.0556651,0.022924466,-0.05569506,-0.015906118,-0.0688129,0.02039257,2.0,2.0,-2.0,-2.0,1.2049059,-1.4535574,2.0,-0.03254922,-2.0,-0.89836836,-0.022947833,-2.0,2.0,2.0,-1.9992986,-2.0,1.174014,-1.4595349,2.0,-0.04394186,-2.0,-0.89893204,-0.03032361,-2.0
2025-07-21 14:27:25.321,2.700000000000002,2700,135,0.012189359,-0.011143278,0.016262846,-0.035029672,-0.02892274,0.009544621,0.0,0.0,0.0,-0.0016858422,0.0075385324,0.45481938,-0.11417712,0.004370403,0.36077085,-0.012865377,0.0597888,0.15012631,0.1369167,-0.015717192,0.15145698,0.16996367,0.04232535,0.03686946,0.03769308,0.047494568,0.011233431,-0.048745837,0.057513222,-0.06962467,-0.003605826,0.060171593,-0.03695886,-0.06016539,2.0,2.0,-1.9992986,-2.0,1.174014,-1.4595349,2.0,-0.04394186,-2.0,-0.89893204,-0.03032361,-2.0,2.0,2.0,-2.0,-2.0,1.2767451,-1.2532462,2.0,-0.1914277,-2.0,-0.9373297,0.049230963,-2.0
2025-07-21 14:27:25.347,2.720000000000002,2720,136,-0.0025335678,0.040175278,-0.031424858,-0.040404078,-0.022061935,0.042116936,0.0,0.0,0.0,-0.0016571465,0.0024538136,0.4509315,-0.09670034,0.0135840755,0.3515137,-0.026228232,0.069852985,0.14949225,0.14323229,-0.012138264,0.1539328,0.1704183,0.046388667,0.045718793,0.03758161,0.05561954,0.07024197,0.0029579464,0.04162101,0.007246452,0.059381247,-0.022145271,0.011100616,-0.005933638,2.0,2.0,-2.0,-2.0,1.2767451,-1.2532462,2.0,-0.1914277,-2.0,-0.9373297,0.049230963,-2.0,2.0,2.0,-2.0,-2.0,1.1314472,-1.4156847,2.0,-0.010549832,-2.0,-1.1793039,-0.052497298,-2.0
2025-07-21 14:27:25.367,2.740000000000002,2740,137,-0.023975825,-0.006535555,0.030761246,0.021161482,-0.036914628,0.04278334,0.0,0.0,0.0,-0.0016261054,0.010942885,0.45220572,-0.115535595,0.008583192,0.35418615,-0.012012806,0.055840075,0.1393844,0.1304417,-0.010134189,0.14870082,0.15302646,0.0284927,-0.055551272,0.012694573,0.05204186,0.0226547,-0.049631927,0.03297285,-0.038434163,0.027042262,0.06138975,-0.060155604,-0.07271982,2.0,2.0,-2.0,-2.0,1.1314472,-1.4156847,2.0,-0.010549832,-2.0,-1.1793039,-0.052497298,-2.0,2.0,2.0,-2.0,-2.0,1.3507701,-1.2092469,2.0,-0.31418857,-2.0,-1.096555,0.069365695,-2.0
2025-07-21 14:27:25.381,2.760000000000002,2760,138,-0.038277548,-0.013016915,-0.048195075,-0.03064942,-0.049327865,0.031424325,0.0,0.0,0.0,-0.0016703873,0.0037461284,0.44963712,-0.115354165,0.0012246948,0.3611532,-0.024661364,0.06288234,0.14751141,0.1280501,-0.022384724,0.13960361,0.15472943,0.05343598,-0.06270462,0.028727403,0.01426732,-0.016322007,0.052922547,0.033392467,-0.037544124,0.0066030673,0.06605112,0.061249226,0.05165805,2.0,2.0,-2.0,-2.0,1.3507701,-1.2092469,2.0,-0.31418857,-2.0,-1.096555,0.069365695,-2.0,2.0,2.0,-2.0,-2.0,1.2339755,-1.4764409,2.0,0.005910497,-2.0,-1.3380647,-0.044751227,-2.0
2025-07-21 14:27:25.404,2.780000000000002,2780,139,0.015180312,0.002905694,0.041297358,-0.04574637,-0.017481877,-0.010012523,0.0,0.0,0.0,-0.0016666455,0.008482037,0.4573427,-0.11248626,0.009616249,0.35884604,-0.026602862,0.054105256,0.13841976,0.14098476,-0.026996247,0.15391494,0.1603478,0.046665084,-0.007976114,0.010581172,-0.034071926,-0.046233144,-0.032076698,0.019932445,0.00089519296,-0.024072535,0.0055797696,-0.051332228,0.056757517,2.0,2.0,-2.0,-2.0,1.2339755,-1.4764409,2.0,0.005910497,-2.0,-1.3380647,-0.044751227,-2.0,2.0,2.0,-2.0,-2.0,1.356045,-1.2012362,2.0,-0.30375418,-2.0,-1.0755689,0.019500569,-2.0
2025-07-21 14:27:25.421,2.800000000000002,2800,140,0.0065888637,0.009259179,0.005335898,0.014548303,-0.024822867,0.0009259925,0.0,0.0,0.0,-0.0016728936,0.0012605276,0.44312662,-0.112285666,0.014153826,0.34435403,-0.018020866,0.048710704,0.13169542,0.13032262,-0.018093796,0.14895514,0.1536787,-0.04077707,-0.020444416,-0.028979931,-0.060409002,0.053849213,-0.028777353,0.020265883,-0.052082848,-0.047988668,-0.058271643,-0.059158552,0.056045234,2.0,2.0,-2.0,-2.0,1.356045,-1.2012362,2.0,-0.30375418,-2.0,-1.0755689,0.019500569,-2.0,2.0,2.0,-2.0,-2.0,1.2454938,-1.3025346,2.0,-0.087800294,-2.0,-0.9559483,-0.01709646,-2.0
2025-07-21 14:27:25.442,2.820000000000002,2820,141,-0.035487898,0.04181837,-0.011102009,-0.038047723,-0.053144388,0.03298691,0.0,0.0,0.0,-0.0016707992,-0.0068034763,0.44844055,-0.09650459,0.00846095,0.3424154,-0.018340297,0.061366297,0.14716688,0.13564895,-0.030787347,0.14417852,0.15267026,-0.04105792,0.0004003347,-0.028586706,0.012166062,0.050764207,-0.024575306,-0.039185748,-0.055787306,-0.07451956,0.014650456,0.06022797,0.03351635,2.0,2.0,-2.0,-2.0,1.2454938,-1.3025346,2.0,-0.087800294,-2.0,-0.9559483,-0.01709646,-2.0,2.0,2.0,-2.0,-2.0,1.2058438,-1.3064611,2.0,-0.105312034,-2.0,-0.9655493,-0.053142488,-2.0
2025-07-21 14:27:25.461,2.840000000000002,2840,142,0.018201627,0.047670454,0.027297147,0.00250076,-0.09107453,-0.043453977,0.0,0.0,0.0,-0.0016075436,0.0032439446,0.44143537,-0.10171475,0.009849949,0.34962803,-0.025562076,0.064864874,0.14864226,0.13294508,-0.019920923,0.14297494,0.15967211,0.04168241,0.05366132,0.06870184,0.030415218,0.041635916,-0.008463353,0.07270186,-0.037413847,-0.045847256,-0.009627577,-0.029796597,-0.043900408,2.0,2.0,-2.0,-2.0,1.2058438,-1.3064611,2.0,-0.105312034,-2.0,-0.9655493,-0.053142488,-2.0,2.0,2.0,-2.0,-2.0,1.275756,-1.254919,2.0,-0.22205955,-2.0,-0.91166145,0.0432534,-2.0
2025-07-21 14:27:25.494,2.860000000000002,2860,143,-0.032590054,0.0146808885,-0.034149844,-0.04189286,-0.05693681,-0.02953453,0.0,0.0,0.0,-0.0016185078,0.00053810404,0.440507,-0.100699596,0.014887803,0.35908186,-0.02368733,0.052146595,0.14101428,0.13300984,-0.025695985,0.1394138,0.16724159,0.013654077,0.0063197636,0.03114139,-0.058719076,0.04607966,-0.004138855,0.043935042,0.024921788,0.017859211,-0.002833922,-0.06949287,-0.071919255,2.0,2.0,-2.0,-2.0,1.275756,-1.254919,2.0,-0.22205955,-2.0,-0.91166145,0.0432534,-2.0,2.0,2.0,-2.0,-2.0,1.092977,-1.4673729,2.0,0.064228445,-2.0,-1.1533889,-0.08629015,-2.0
2025-07-21 14:27:25.507,2.880000000000002,2880,144,-0.0032050137,-0.026826346,0.0143610425,-0.038102627,-0.031898357,-0.008486814,0.0,0.0,0.0,-0.0015729691,-0.0023761382,0.45632416,-0.11234898,0.013899559,0.34072557,-0.013492747,0.06804469,0.1416442,0.14103995,-0.025281893,0.1525251,0.17419063,0.052334525,0.06850202,0.014486525,-0.06672032,-0.008889982,-0.0018728777,-0.042157616,0.013362546,0.014854658,-0.05866838,0.001391946,-0.059323758,2.0,2.0,-2.0,-2.0,1.092977,-1.4673729,2.0,0.064228445,-2.0,-1.1533889,-0.08629015,-2.0,2.0,2.0,-2.0,-2.0,1.2486426,-1.310149,2.0,-0.22698243,-2.0,-1.1118864,-0.046979308,-2.0
2025-07-21 14:27:25.530,2.900000000000002,2900,145,-0.004432298,-0.028133607,-0.02716694,0.053515654,-0.017761169,0.012815823,0.0,0.0,0.0,-0.0016468797,0.009332199,0.4386921,-0.10132456,0.0035852948,0.34125412,-0.019859945,0.0674466,0.148421,0.13080949,-0.012727232,0.13374062,0.162753,0.021116864,-0.0013817621,0.060582876,-0.023398925,0.00058300875,-0.020074544,0.049953785,0.026382858,0.03523798,-0.035655376,0.034800205,0.022893481,2.0,2.0,-2.0,-2.0,1.2486426,-1.310149,2.0,-0.22698243,-2.0,-1.1118864,-0.046979308,-2.0,2.0,2.0,-2.0,-2.0,1.1926965,-1.546327,2.0,-0.0032305606,-2.0,-1.1838818,-0.07859136,-2.0
2025-07-21 14:27:25.556,2.920000000000002,2920,146,-0.044730563,-0.01658297,-0.023989439,0.047383886,-0.05883149,-0.01605033,0.0,0.0,0.0,-0.0018223189,-0.0054128882,0.4458958,-0.10720141,0.01465709,0.35015675,-0.022461623,0.054966327,0.14565614,0.13072257,-0.032332413,0.13149664,0.16280037,-0.009883145,-0.00040821708,0.008541699,-0.011247274,0.040406708,-0.07100011,0.036504135,-0.06828537,-0.07453206,-0.041501235,-0.050140306,-0.012609658,2.0,2.0,-2.0,-2.0,1.1926965,-1.546327,2.0,-0.0032305606,-2.0,-1.1838818,-0.07859136,-2.0,2.0,2.0,-1.930127,-2.0,1.1924592,-1.4288578,2.0,0.004340049,-2.0,-1.2048422,-0.15073833,-2.0
2025-07-21 14:27:25.574,2.940000000000002,2940,147,-0.049280226,0.005264024,0.043005712,0.018637842,-0.033382945,-0.013971671,0.0,0.0,0.0,-0.0020563984,0.004497717,0.45804816,-0.10785669,-0.001570073,0.34954405,-0.017898606,0.054183833,0.1419328,0.13480555,-0.025145935,0.13739389,0.15817282,0.0073308945,-0.006002041,0.010263557,0.025288727,-0.050059076,-0.022291126,0.044759795,0.07098626,0.06695161,-0.03609899,0.0050993813,-0.05568745,2.0,2.0,-1.930127,-2.0,1.1924592,-1.4288578,2.0,0.004340049,-2.0,-1.2048422,-0.15073833,-2.0,2.0,2.0,-2.0,-2.0,1.3821553,-1.2533394,2.0,-0.33426312,-2.0,-0.9740105,0.026652768,-2.0
2025-07-21 14:27:25.593,2.960000000000002,2960,148,-0.037132006,-0.005565572,-0.039080895,-0.027765248,-0.046579897,0.02202416,0.0,0.0,0.0,-0.0024804918,-0.00027583155,0.458767,-0.102028936,0.016741188,0.35546377,-0.021180253,0.05058733,0.1520438,0.12992209,-0.022505451,0.12899044,0.16676936,-0.018130776,-0.03489188,0.03916301,-0.04417518,0.0647795,-0.01697721,0.057844486,-0.0541999,0.048897702,0.031814717,-0.023291402,0.07354443,2.0,2.0,-2.0,-2.0,1.3821553,-1.2533394,2.0,-0.33426312,-2.0,-0.9740105,0.026652768,-2.0,2.0,2.0,-2.0,-2.0,1.1668384,-1.524162,2.0,0.11693044,-2.0,-1.2359511,-0.09908952,-2.0
2025-07-21 14:27:25.614,2.980000000000002,2980,149,-0.04268278,0.028773462,0.030839942,-0.019943913,-0.071599945,-0.020835359,0.0,0.0,0.0,-0.0027460286,0.0099031795,0.45711207,-0.10638518,0.0010145333,0.3376733,-0.022653878,0.04371849,0.13418731,0.13812472,-0.033632196,0.13784167,0.16572851,0.07370074,-0.058960598,0.06664038,0.074613445,-0.053870294,-0.074427605,0.020830076,-0.03368506,-0.02447248,-0.04563964,-0.061845675,-0.07105347,2.0,2.0,-2.0,-2.0,1.1668384,-1.524162,2.0,0.11693044,-2.0,-1.2359511,-0.09908952,-2.0,2.0,2.0,-2.0,-2.0,1.3300954,-1.2380826,2.0,-0.26561928,-2.0,-1.1846923,-0.016846582,-2.0
2025-07-21 14:27:25.638,3.000000000000002,3000,150,-0.045799747,-0.013919389,0.018674156,0.038570944,-0.063663155,0.044019047,0.0,0.0,0.0,-0.002967793,0.0011647474,0.45488575,-0.10567539,0.0045012226,0.34865487,-0.017036114,0.042301152,0.15118082,0.12378163,-0.037704393,0.14410222,0.16615908,0.010535819,0.009633687,0.009970741,0.058029618,0.034534812,0.014928587,-0.03977742,-0.06676448,-0.041298777,0.065120816,-0.018761978,0.02020478,2.0,2.0,-2.0,-2.0,1.3300954,-1.2380826,2.0,-0.26561928,-2.0,-1.1846923,-0.016846582,-2.0,2.0,2.0,-2.0,-2.0,1.3221158,-1.2613589,2.0,-0.18205191,-2.0,-1.1589415,0.024744987,-2.0
2025-07-21 14:27:25.655,3.0200000000000022,3020,151,-0.027700374,0.013845198,-0.045375343,-0.018927893,-0.09348368,-0.042614598,0.0,0.0,0.0,-0.0031533076,-0.0013660555,0.4557693,-0.10364966,0.0020038113,0.34422922,-0.03019133,0.058407594,0.13820383,0.13352646,-0.023925502,0.13641736,0.16502629,0.022664348,0.04030095,-0.025000725,0.043531705,0.026650243,0.010921304,0.07177482,0.00772746,-0.041767552,-0.018833946,0.015458182,0.008583302,2.0,2.0,-2.0,-2.0,1.3221158,-1.2613589,2.0,-0.18205191,-2.0,-1.1589415,0.024744987,-2.0,2.0,2.0,-2.0,-2.0,1.1595948,-1.4107332,2.0,-0.012787435,-2.0,-1.3218358,-0.11672242,-2.0
2025-07-21 14:27:25.675,3.0400000000000023,3040,152,-0.018552525,-0.014605547,0.042000473,-0.012763074,-0.037026715,-0.03941117,0.0,0.0,0.0,-0.0031032977,0.0079977475,0.44548982,-0.099920854,0.014883951,0.3376706,-0.016385514,0.061272733,0.13667157,0.14227834,-0.0345397,0.14707531,0.17661941,0.064098,0.065828994,-0.03553474,0.02436577,0.056480344,-0.05205032,0.040404044,0.053885262,-0.06225705,-0.02879915,0.06402076,-0.0217276,2.0,2.0,-2.0,-2.0,1.1595948,-1.4107332,2.0,-0.012787435,-2.0,-1.3218358,-0.11672242,-2.0,2.0,1.9059614,-2.0,-2.0,1.302066,-1.1021402,2.0,-0.38355872,-2.0,-1.0542809,-0.0076190084,-2.0
2025-07-21 14:27:25.694,3.0600000000000023,3060,153,-0.0023218787,0.031152487,-0.031160207,0.05005413,-0.04263743,0.012229249,0.0,0.0,0.0,-0.0030919653,-0.002552166,0.4518452,-0.10292152,0.00061862415,0.35141242,-0.012778834,0.061262347,0.14223778,0.12649646,-0.025801253,0.13962749,0.16182981,0.016210927,-0.05947617,0.039071757,0.010159681,0.03291903,-0.017177515,-0.0076323105,0.024147179,-0.05178684,0.06661901,0.05714087,0.013045753,2.0,1.9059614,-2.0,-2.0,1.302066,-1.1021402,2.0,-0.38355872,-2.0,-1.0542809,-0.0076190084,-2.0,2.0,2.0,-2.0,-2.0,1.1772214,-1.4433396,2.0,-0.03999271,-2.0,-1.1333297,-0.011374056,-2.0
2025-07-21 14:27:25.730,3.0800000000000023,3080,154,-0.039682582,-0.013009754,-0.01248067,-0.039184272,-0.06910403,-0.004367996,0.0,0.0,0.0,-0.0029599913,0.007284374,0.45796397,-0.10189744,-0.0008120898,0.3410422,-0.024764014,0.048422173,0.1340739,0.14239642,-0.018812675,0.12801297,0.1638106,-0.019136963,-0.032150753,-0.004992577,-0.016757816,0.020375008,-0.041121446,0.058753256,-0.047508508,0.03640124,-0.050057013,-0.04816045,-0.050760318,2.0,2.0,-2.0,-2.0,1.1772214,-1.4433396,2.0,-0.03999271,-2.0,-1.1333297,-0.011374056,-2.0,2.0,2.0,-2.0,-2.0,1.2410787,-1.3728831,2.0,-0.09264198,-2.0,-1.2966549,-0.081713736,-2.0
2025-07-21 14:27:25.762,3.1000000000000023,3100,155,0.04431685,-0.013909421,-0.030901633,0.052605823,-0.06702196,0.021545697,0.0,0.0,0.0,-0.0027268105,-0.0041381004,0.44471684,-0.11067465,0.014152938,0.35575494,-0.011675248,0.046454027,0.14679065,0.12589207,-0.023873864,0.13185723,0.16931769,0.06371935,-0.038575195,0.063651994,0.036635175,-0.066777065,-0.0632654,0.058208413,-0.05855609,-0.030089691,-0.06383326,-0.02268764,-0.012005077,2.0,2.0,-2.0,-2.0,1.2410787,-1.3728831,2.0,-0.09264198,-2.0,-1.2966549,-0.081713736,-2.0,2.0,2.0,-2.0,-2.0,1.2347325,-1.5843892,2.0,-0.014773656,-2.0,-1.4102939,-0.099947825,-2.0
2025-07-21 14:27:25.803,3.1200000000000023,3120,156,-0.004097548,0.020668728,0.030911926,0.0048092296,-0.11014121,-0.0058801705,0.0,0.0,0.0,-0.0026197552,-0.003621662,0.45618716,-0.099903286,0.01138862,0.34723702,-0.022298044,0.047651794,0.1381918,0.13616897,-0.027458299,0.1269394,0.17407101,-0.06749267,-0.035635293,-0.071532466,0.057259277,-0.003063245,-0.034914356,-0.032867413,0.009305095,-0.027037343,0.0041339346,0.06035313,0.05646605,2.0,2.0,-2.0,-2.0,1.2347325,-1.5843892,2.0,-0.014773656,-2.0,-1.4102939,-0.099947825,-2.0,2.0,2.0,-2.0,-2.0,1.4277285,-1.1935749,2.0,-0.3474952,-2.0,-1.0732672,-0.014166169,-2.0
2025-07-21 14:27:25.821,3.1400000000000023,3140,157,0.04654201,0.036760446,0.011469406,0.04389121,-0.108947046,0.0064419513,0.0,0.0,0.0,-0.0026816595,-0.006867171,0.44337124,-0.10926477,0.013358645,0.35187367,-0.011079372,0.044688843,0.14363468,0.13822599,-0.019344974,0.13496912,0.17182565,0.054344855,-0.037714202,-0.0042318343,-0.021303628,-0.035039365,0.0111721065,0.06420955,-0.01588938,0.025762124,0.061556112,0.012408888,-0.015661748,2.0,2.0,-2.0,-2.0,1.4277285,-1.1935749,2.0,-0.3474952,-2.0,-1.0732672,-0.014166169,-2.0,2.0,2.0,-2.0,-2.0,1.3869045,-1.3545103,2.0,-0.17689607,-2.0,-1.0391884,0.0662809,-2.0
2025-07-21 14:27:25.838,3.1600000000000024,3160,158,-0.038597606,-0.03200708,0.0116765,0.028340338,-0.055228904,-0.042048763,0.0,0.0,0.0,-0.002653162,-0.0017010574,0.45557618,-0.11425113,0.0016194015,0.33879694,-0.015594328,0.061833464,0.14622466,0.12589647,-0.021492593,0.1350574,0.17207754,-0.052902978,-0.05352678,-0.07386162,-0.058437485,0.034717493,-0.04049967,-0.057780676,0.029624429,-0.07526096,-0.03222491,0.013905843,-0.02609388,2.0,2.0,-2.0,-2.0,1.3869045,-1.3545103,2.0,-0.17689607,-2.0,-1.0391884,0.0662809,-2.0,2.0,2.0,-2.0,-2.0,1.2759029,-1.163538,2.0,-0.16038014,-2.0,-0.8143888,-0.037497982,-2.0
