openverse-orca/OrcaGym/log/simulation_log_20250605_103827.csv
timestamp,imu_angle_roll,imu_angle_pitch,imu_angle_yaw,imu_angular_velocity_roll,imu_angular_velocity_pitch,imu_angular_velocity_yaw,imu_acc_x,imu_acc_y,imu_acc_z,fl_joint1_pos,fl_joint1_vel,fl_joint1_torque,fl_joint2_pos,fl_joint2_vel,fl_joint2_torque,fl_joint3_pos,fl_joint3_vel,fl_joint3_torque,fr_joint1_pos,fr_joint1_vel,fr_joint1_torque,fr_joint2_pos,fr_joint2_vel,fr_joint2_torque,fr_joint3_pos,fr_joint3_vel,fr_joint3_torque,hl_joint1_pos,hl_joint1_vel,hl_joint1_torque,hl_joint2_pos,hl_joint2_vel,hl_joint2_torque,hl_joint3_pos,hl_joint3_vel,hl_joint3_torque,hr_joint1_pos,hr_joint1_vel,hr_joint1_torque,hr_joint2_pos,hr_joint2_vel,hr_joint2_torque,hr_joint3_pos,hr_joint3_vel,hr_joint3_torque,fl_force_x,fl_force_y,fl_force_z,fr_force_x,fr_force_y,fr_force_z,hl_force_x,hl_force_y,hl_force_z,hr_force_x,hr_force_y,hr_force_z,fl_hip_action,fl_thigh_action,fl_calf_action,fr_hip_action,fr_thigh_action,fr_calf_action,hl_hip_action,hl_thigh_action,hl_calf_action,hr_hip_action,hr_thigh_action,hr_calf_action
2025-06-05 10:38:27.164,0.0015431622,0.010437604,0.03680353,-0.022205226,0.0019040661,-0.047276862,1.3128598,0.0,0.0,0.0,0.0021335667,-0.004003785,0.0038367906,0.007950338,-0.008030954,0.009377777,0.009340585,-0.0066312733,-0.006861211,-0.0027886846,0.004321351,-0.0033932384,-0.030905485,-0.04820807,-0.04752995,-0.03668231,-0.0603207,-0.05200371,0.03330017,-0.050087396,-0.034997463,-0.010707869,0.07292707,0.056566644,0.0,0.0,0.0,0.0,0.0,0.0,0.0,0.0,0.0,0.0,0.0,0.0,-2.0,-1.0625156,-2.0,2.0,2.0,2.0,-2.0,-1.6476173,-2.0,2.0,2.0,-2.0
2025-06-05 10:38:27.169,-0.002023111,-0.13165689,-0.09199202,0.026088307,0.013994052,-0.049500685,0.0,0.0,0.0,0.0,-0.005894751,-0.038845018,-0.033698156,0.019270435,0.0635591,0.036635216,-0.018057266,-0.05133404,-0.04477674,0.009236493,0.060837597,-0.03802519,-0.00031242074,-0.114730954,-0.03250713,0.096732385,0.11831548,0.04238003,-0.022050718,-0.20511745,-0.10291639,-0.030930404,0.17042449,-0.04879929,-2.0,-1.0625156,-2.0,2.0,2.0,2.0,-2.0,-1.6476173,-2.0,2.0,2.0,-2.0,-2.0,-2.0,-2.0,2.0,2.0,2.0,-2.0,-2.0,2.0,2.0,-2.0,-2.0
2025-06-05 10:38:27.189,0.19355956,-0.046156872,0.0050644325,-0.0107787205,0.005761748,-0.027979437,0.0,0.0,0.0,0.0013444967,-0.034490466,-0.10756529,-0.07866759,0.018945513,0.12980302,0.08150108,-0.030270504,-0.12312937,0.0113749225,0.019525016,0.0058756475,-0.07938478,-0.08396307,-0.17104372,-0.16374566,-0.02690622,0.1677408,0.068600275,-0.07888324,-0.12422811,0.15266766,-0.032791544,-0.19954409,-0.11072734,-2.0,-2.0,-2.0,2.0,2.0,2.0,-2.0,-2.0,2.0,2.0,-2.0,-2.0,2.0,-2.0,-2.0,2.0,2.0,0.22477832,-2.0,-2.0,2.0,2.0,-2.0,-2.0
2025-06-05 10:38:27.212,0.11781729,0.09722038,-0.033685092,-0.028004037,0.028527267,-0.037772562,0.0,0.0,0.0,0.0021764308,-0.031714577,-0.1619113,-0.07569098,0.04450752,0.18944706,0.0632156,-0.039289184,-0.19560434,0.05452214,0.04806048,-0.060100853,-0.06109722,0.05598231,-0.10861883,0.011222233,0.04908506,0.090482935,0.023920346,-0.06913516,-0.12460935,0.058546778,0.049341276,-0.10573618,0.071381755,2.0,-2.0,-2.0,2.0,2.0,0.22477832,-2.0,-2.0,2.0,2.0,-2.0,-2.0,2.0,-2.0,-2.0,2.0,2.0,-2.0,-2.0,0.75798666,2.0,2.0,-2.0,-2.0
2025-06-05 10:38:27.230,0.08285186,0.094226226,-0.03885365,0.0010053193,-0.024077596,-0.031061113,0.0,0.0,0.0,0.0026890344,-0.018986968,-0.20062958,-0.072354294,0.051550753,0.23966451,0.019194003,-0.050566804,-0.15883465,0.08519004,0.06393895,-0.10374393,-0.013111473,-0.013659356,-0.1400781,-0.019516086,-0.013437669,0.11012319,-0.19128476,-0.09453272,0.20465697,0.060000215,0.086892314,-0.07473141,0.17118473,2.0,-2.0,-2.0,2.0,2.0,-2.0,-2.0,0.75798666,2.0,2.0,-2.0,-2.0,2.0,2.0,-2.0,2.0,2.0,-2.0,-2.0,-2.0,-2.0,2.0,-2.0,-2.0
2025-06-05 10:38:27.250,-0.010249994,0.21015003,-0.014070286,-0.022878127,-0.039376706,-0.0054429434,0.0,0.0,0.0,0.0037697349,-0.0113494815,-0.21024,-0.064032614,0.05243359,0.28211892,-0.023911018,-0.04236657,-0.17616808,0.03691981,0.08304937,-0.14880587,0.022530243,0.051914215,0.046479728,-0.09163807,0.05720025,0.13967961,-0.051320802,0.07047327,-0.1269408,-0.09141706,0.07471475,-0.08912433,0.13966566,2.0,2.0,-2.0,2.0,2.0,-2.0,-2.0,-2.0,-2.0,2.0,-2.0,-2.0,2.0,2.0,-2.0,2.0,2.0,-2.0,-2.0,-2.0,-2.0,2.0,-2.0,-2.0
2025-06-05 10:38:27.270,-0.12817606,0.213247,0.09112509,-0.018363958,0.03419002,0.038172293,0.0,0.0,0.0,0.004873497,0.013359779,-0.19727592,-0.09568436,0.068248376,0.31192017,-0.058632515,-0.055031274,-0.19420485,0.014128009,0.09551721,-0.17756478,0.038037337,-0.03952579,0.04922423,-0.11151732,0.09038743,0.106952116,-0.12643094,-0.004056153,-0.11086075,-0.11066167,0.06222338,-0.12039256,0.08102329,2.0,2.0,-2.0,2.0,2.0,-2.0,-2.0,-2.0,-2.0,2.0,-2.0,-2.0,2.0,-1.4047987,-2.0,2.0,2.0,-2.0,-2.0,-2.0,-2.0,2.0,-2.0,-2.0
2025-06-05 10:38:27.290,0.12545681,0.055297557,0.090095505,-0.019033207,-0.04101888,0.024928983,0.0,0.0,0.0,0.004026177,0.016717184,-0.20973185,-0.109777585,0.07181131,0.32642922,-0.08838169,-0.06154154,-0.2505204,-0.03669267,0.114184566,-0.20690528,0.018591572,0.05437263,0.034101583,0.03600337,0.036430236,0.043497242,-0.08549651,-0.0022436741,-0.14131722,-0.17699155,0.012604347,-0.038254306,-0.14447714,2.0,-1.4047987,-2.0,2.0,2.0,-2.0,-2.0,-2.0,-2.0,2.0,-2.0,-2.0,2.0,-2.0,-2.0,-2.0,2.0,-2.0,2.0,-2.0,-2.0,2.0,-2.0,-2.0
2025-06-05 10:38:27.312,0.19852775,-0.032313123,-0.077203915,-0.025454339,-0.006768292,0.025640722,0.0,0.0,0.0,0.0027513541,0.023464106,-0.23999532,-0.118443765,0.0730434,0.3417084,-0.112851016,-0.041561548,-0.30238536,-0.064043075,0.1079064,-0.24396724,-0.011943442,0.08757683,-0.124253295,-0.035242785,-0.09553646,0.06547564,-0.09322925,-0.033223096,-0.0451364,-0.13460627,-0.039709046,-0.045481604,-0.026015507,2.0,-2.0,-2.0,-2.0,2.0,-2.0,2.0,-2.0,-2.0,2.0,-2.0,-2.0,2.0,2.0,-2.0,-2.0,2.0,-2.0,2.0,-2.0,-2.0,2.0,-2.0,-2.0
2025-06-05 10:38:27.330,-0.057910357,0.17301603,0.018658943,-0.089646555,-0.025799118,0.045142815,0.0,0.0,0.0,0.0030169322,0.034278173,-0.20018743,-0.16489924,0.040036548,0.34978962,-0.14265777,-0.03699595,-0.32349205,-0.08146195,0.114179656,-0.26529893,-0.028447744,0.07215723,0.08541893,-0.04385941,-0.06603261,0.08059255,-0.023078294,0.024790697,-0.022393199,0.0053883702,-0.046643786,-0.12529105,0.017175075,2.0,2.0,-2.0,-2.0,2.0,-2.0,2.0,-2.0,-2.0,2.0,-2.0,-2.0,2.0,2.0,-2.0,-2.0,2.0,-2.0,2.0,-2.0,-2.0,2.0,-2.0,-2.0
2025-06-05 10:38:27.350,-0.06828224,0.101856634,0.02126232,-0.036767006,-0.058786158,0.03894499,0.0,0.0,0.0,0.0033187428,0.026938466,-0.16681138,-0.17898422,0.043224137,0.35908842,-0.14565787,-0.016159698,-0.32603905,-0.097211875,0.1241065,-0.27908525,-0.024739321,0.06420158,0.058965538,-0.12418015,0.047239404,-0.035195157,-0.04722871,-0.020266345,0.03934405,0.026845733,-0.013681818,-0.057943195,-0.012830876,2.0,2.0,-2.0,-2.0,2.0,-2.0,2.0,-2.0,-2.0,2.0,-2.0,-2.0,2.0,2.0,-2.0,-2.0,2.0,-2.0,2.0,-2.0,-2.0,2.0,-2.0,-2.0
2025-06-05 10:38:27.371,-0.13080941,0.078263596,0.026445957,-0.054306213,-0.014697705,-0.0041632582,0.0,0.0,0.0,0.0034539334,0.03292193,-0.12949738,-0.21199699,0.042993437,0.37911192,-0.1530171,0.010969433,-0.35812855,-0.12062905,0.12008206,-0.3082086,-0.07031817,0.009541464,0.10386699,-0.064128876,-0.005181591,0.103028,-0.07355546,0.10235971,-0.092938334,-0.13560958,-0.06477354,-0.08208745,-0.021283863,2.0,2.0,-2.0,-2.0,2.0,-2.0,2.0,-2.0,-2.0,2.0,-2.0,-2.0,2.0,2.0,-2.0,-2.0,2.0,-2.0,2.0,-2.0,-2.0,2.0,-2.0,-2.0
2025-06-05 10:38:27.390,-0.11549063,0.07938688,-0.019665789,-0.055608865,-0.038851038,0.020353353,0.0,0.0,0.0,0.0035276774,0.023528693,-0.09757866,-0.22006129,0.048305474,0.39769477,-0.16257499,0.035872743,-0.36940405,-0.1605459,0.11121835,-0.32493693,-0.102175325,-0.008763367,0.038181208,0.026490461,0.06827169,0.04545368,0.05653572,0.040397305,0.0010984596,0.009212925,0.031974547,-0.039947204,-0.13725077,2.0,2.0,-2.0,-2.0,2.0,-2.0,2.0,-2.0,-2.0,2.0,-2.0,-2.0,2.0,2.0,-2.0,-2.0,2.0,-2.0,2.0,-2.0,-2.0,2.0,-2.0,-2.0
2025-06-05 10:38:27.412,-0.038784627,0.10577478,-0.026775135,-0.12724243,-0.06751438,-0.010320904,0.0,0.0,0.0,0.003454021,0.024368966,-0.056115083,-0.23060632,0.035521645,0.4122402,-0.1527106,0.04408313,-0.37833172,-0.16620344,0.10655922,-0.35739088,-0.13336179,-0.015202667,0.12713161,-0.085173905,-0.043618992,0.09188568,-0.033102408,-0.021180287,-0.004997905,-0.11682966,0.0080052465,5.104295e-05,-0.060660966,2.0,2.0,-2.0,-2.0,2.0,-2.0,2.0,-2.0,-2.0,2.0,-2.0,-2.0,2.0,2.0,-2.0,-2.0,2.0,-2.0,2.0,-2.0,-2.0,2.0,-2.0,-2.0
2025-06-05 10:38:27.431,-0.078829855,0.19573276,0.05248768,-0.103097774,-0.10012204,0.009885475,0.0,0.0,0.0,0.0031629198,0.017007735,-0.03609103,-0.2549288,0.037902873,0.43160114,-0.17266335,0.064531125,-0.41207123,-0.18483028,0.101794824,-0.37811273,-0.15586816,0.0074392078,0.02453052,0.050150026,-0.021133138,0.08289868,0.04916043,0.074986234,-0.03422948,-0.09223074,-0.023630196,-0.097742505,-0.046795186,2.0,2.0,-2.0,-2.0,2.0,-2.0,2.0,-2.0,-2.0,2.0,-2.0,-2.0,2.0,2.0,-2.0,-2.0,2.0,-2.0,2.0,-2.0,-2.0,2.0,-2.0,-2.0
2025-06-05 10:38:27.450,0.0006224309,0.20753182,0.058404997,-0.1263912,-0.09375656,-0.026644323,0.0,0.0,0.0,0.0025760138,0.017029459,0.0001910639,-0.26073787,0.048890747,0.43667766,-0.15529503,0.07506813,-0.40961322,-0.20906727,0.1080454,-0.3960726,-0.16996367,0.05082664,0.049635995,-0.032201916,-0.022413356,0.0093819285,0.07115766,0.038825564,-0.0035828473,-0.10533958,-0.067793794,-0.08631041,-0.032915924,2.0,2.0,-2.0,-2.0,2.0,-2.0,2.0,-2.0,-2.0,2.0,-2.0,-2.0,2.0,2.0,-2.0,-2.0,2.0,-2.0,2.0,-2.0,-2.0,2.0,-2.0,-2.0
2025-06-05 10:38:27.470,-0.0493653,0.16428074,0.07153874,-0.12981655,-0.045794845,0.014291559,0.0,0.0,0.0,0.0016599237,0.0037834547,0.04115992,-0.254816,0.035914388,0.46325013,-0.15876478,0.071138985,-0.4150699,-0.2205863,0.10128213,-0.40188172,-0.15544772,0.045374233,0.09852286,0.025591714,-0.012653882,0.0559434,-0.06434621,-0.039641023,-0.0034500645,-0.088795014,-0.06748007,-0.022627091,0.013878624,2.0,2.0,-2.0,-2.0,2.0,-2.0,2.0,-2.0,-2.0,2.0,-2.0,-2.0,2.0,2.0,-2.0,-2.0,2.0,-2.0,2.0,-2.0,-2.0,2.0,-2.0,-2.0
2025-06-05 10:38:27.493,-0.08227573,0.08069223,0.040716447,-0.06575895,-0.053053677,-0.016055938,0.0,0.0,0.0,0.00056894886,0.00977911,0.08161675,-0.25956443,0.025230471,0.4785878,-0.15823066,0.0772447,-0.4305516,-0.22600654,0.09828553,-0.42543712,-0.13168323,-0.053110648,0.042682856,-0.060518574,-0.04898838,0.056433234,0.0030856372,0.01408446,0.0050556525,0.021739291,-0.060340043,-0.03180645,0.0009009954,2.0,2.0,-2.0,-2.0,2.0,-2.0,2.0,-2.0,-2.0,2.0,-2.0,-2.0,2.0,2.0,-2.0,-2.0,2.0,-2.0,2.0,-2.0,-2.0,2.0,-2.0,-2.0
2025-06-05 10:38:27.511,-0.036264796,0.120489515,0.02523536,-0.0826547,-0.088670075,-0.013659442,0.0,0.0,0.0,-0.0006223622,-0.00501659,0.110277854,-0.2663615,0.018406594,0.4956562,-0.15156817,0.10051714,-0.43167567,-0.23858972,0.072966725,-0.41663057,-0.11888239,0.030655988,0.035188925,0.028677976,-0.07429871,0.047083203,-0.053570442,-0.056760274,-0.017034413,0.03428803,0.05434234,0.060104053,0.079776525,2.0,2.0,-2.0,-2.0,2.0,-2.0,2.0,-2.0,-2.0,2.0,-2.0,-2.0,2.0,2.0,-2.0,-2.0,2.0,-2.0,2.0,-2.0,-2.0,2.0,-2.0,-2.0
2025-06-05 10:38:27.531,0.0016776855,0.079710476,0.09488472,-0.09570963,-0.0824438,0.039343406,0.0,0.0,0.0,-0.001876603,0.009182896,0.1424258,-0.2691123,0.02949768,0.52813023,-0.15106112,0.08730247,-0.43734992,-0.2350908,0.06872132,-0.42186102,-0.09708546,-0.039916955,0.11632948,0.049599778,-0.04514409,0.057370573,-0.016489945,-0.011033293,-0.0042796987,-0.041999888,-0.08263722,0.056319203,0.10506143,2.0,2.0,-2.0,-2.0,2.0,-2.0,2.0,-2.0,-2.0,2.0,-2.0,-2.0,2.0,2.0,-2.0,-2.0,2.0,-2.0,2.0,-2.0,-2.0,2.0,-2.0,-2.0
2025-06-05 10:38:27.550,-0.02878005,0.07718782,0.08219906,-0.09021251,-0.09920214,-0.036005247,0.0,0.0,0.0,-0.003116619,0.011108121,0.1790525,-0.26368287,0.01195133,0.53478926,-0.14478229,0.109588034,-0.44587275,-0.23820525,0.07226988,-0.42599735,-0.07641906,-0.026631579,0.045524124,0.07286082,0.017146138,0.08409258,-0.02752382,0.018906705,0.051801555,-0.068972655,-0.08050818,0.035697676,-0.041030273,2.0,2.0,-2.0,-2.0,2.0,-2.0,2.0,-2.0,-2.0,2.0,-2.0,-2.0,2.0,2.0,-2.0,-2.0,2.0,-2.0,2.0,-2.0,-2.0,2.0,-2.0,-2.0
2025-06-05 10:38:27.571,0.015878318,0.019301994,0.09426939,-0.1530562,-0.11883221,0.013707452,0.0,0.0,0.0,-0.004289742,0.0050213123,0.19851014,-0.26694492,0.0030046955,0.5462432,-0.14598005,0.09980654,-0.45455787,-0.25466022,0.058277387,-0.4393774,-0.06903444,0.02425678,0.055251554,0.046984937,0.02186947,0.033772446,0.026332993,0.01250262,0.037916835,-0.015119717,-0.0812137,-0.036286622,0.05474599,2.0,2.0,-2.0,-2.0,2.0,-2.0,2.0,-2.0,-2.0,2.0,-2.0,-2.0,2.0,2.0,-2.0,-2.0,2.0,-2.0,2.0,-2.0,-2.0,2.0,-2.0,-2.0
2025-06-05 10:38:27.593,-0.024639525,0.041678928,0.037934683,-0.07282799,-0.15108247,-0.03447508,0.0,0.0,0.0,-0.0053641144,0.0033552933,0.23961908,-0.27055633,0.008513853,0.5661581,-0.15330315,0.1001429,-0.46028006,-0.25102004,0.059120756,-0.44088003,-0.072946355,0.03752728,0.12753786,-0.054304965,-0.0389321,0.029182684,0.01884963,0.04659421,-0.026964674,-0.009520492,-0.00036001165,0.04578548,0.025327722,2.0,2.0,-2.0,-2.0,2.0,-2.0,2.0,-2.0,-2.0,2.0,-2.0,-2.0,2.0,2.0,-2.0,-2.0,2.0,-2.0,2.0,-2.0,-2.0,2.0,-2.0,-2.0
2025-06-05 10:38:27.611,-0.013192886,0.011932529,-0.002458256,-0.05770227,-0.07551158,0.045204237,0.0,0.0,0.0,-0.0062982016,-0.002004962,0.2457864,-0.25025606,0.0065774512,0.5702463,-0.1596486,0.11616975,-0.4496284,-0.24716602,0.04845574,-0.44788802,-0.058529127,0.056557477,0.041265994,-0.0137417745,-0.05617337,0.017037945,-0.056115806,0.047121238,-0.009805893,-0.029252604,-0.0047846385,0.055722523,0.07268073,2.0,2.0,-2.0,-2.0,2.0,-2.0,2.0,-2.0,-2.0,2.0,-2.0,-2.0,2.0,2.0,-2.0,-2.0,2.0,-2.0,2.0,-2.0,-2.0,2.0,-2.0,-2.0
2025-06-05 10:38:27.631,0.0049417946,-0.06581019,0.021764092,-0.13557458,-0.12929405,-0.03274548,0.0,0.0,0.0,-0.007135748,-0.00667765,0.2672508,-0.25694647,0.0009972436,0.58254737,-0.15479913,0.12139585,-0.45591447,-0.25325182,0.058638934,-0.43948686,-0.06335962,-0.046791825,0.05028125,-0.009683655,-0.01778968,-0.036113247,0.06446814,-0.024538826,-0.02116038,0.017028272,0.05775094,-0.081213936,0.011910219,2.0,2.0,-2.0,-2.0,2.0,-2.0,2.0,-2.0,-2.0,2.0,-2.0,-2.0,2.0,2.0,-2.0,-2.0,2.0,-2.0,2.0,-2.0,-2.0,2.0,-2.0,-2.0
2025-06-05 10:38:27.651,0.01607372,-0.07693481,0.016714828,-0.05520355,-0.08312053,0.043640547,0.0,0.0,0.0,-0.007951572,0.0054619913,0.28108966,-0.24239184,0.005136922,0.57433933,-0.14360854,0.12038683,-0.45477426,-0.25411117,0.05902268,-0.46019188,-0.055745624,-0.039966628,0.005282568,-0.0048152977,-0.04738669,-0.005858371,-0.050075337,0.06522856,-0.06984011,0.06230138,-0.05039794,0.031557433,-0.056739002,2.0,2.0,-2.0,-2.0,2.0,-2.0,2.0,-2.0,-2.0,2.0,-2.0,-2.0,2.0,2.0,-2.0,-2.0,2.0,-2.0,2.0,-2.0,-2.0,2.0,-2.0,-2.0
2025-06-05 10:38:27.671,0.08161831,-0.05579366,0.021708267,-0.09190302,-0.122115985,0.041609015,0.0,0.0,0.0,-0.008735624,0.009466758,0.2821919,-0.2443841,-0.0049361987,0.5762899,-0.14756136,0.120664835,-0.45377293,-0.2546776,0.050389905,-0.46714193,-0.041303568,0.0659724,-0.03830818,0.07674429,-0.0586797,0.043526996,0.026617102,0.06946071,-0.023182012,0.018494837,0.05305595,0.033323534,0.0117037585,2.0,2.0,-2.0,-2.0,2.0,-2.0,2.0,-2.0,-2.0,2.0,-2.0,-2.0,2.0,2.0,-2.0,-2.0,2.0,-2.0,2.0,-2.0,-2.0,2.0,-2.0,-2.0
2025-06-05 10:38:27.694,0.021188881,-0.040179282,0.0406168,-0.11419072,-0.072340086,-0.04366626,0.0,0.0,0.0,-0.009482061,0.00568717,0.30794284,-0.2332864,-0.0067474996,0.58828574,-0.15939082,0.115087815,-0.46593043,-0.25799018,0.048334103,-0.46884927,-0.054541364,-0.023082621,-0.037420224,-0.042099386,0.015339606,-0.032756615,0.018505394,-0.0441871,-0.021754697,0.020111209,0.033054844,0.055025507,-0.057496022,2.0,2.0,-2.0,-2.0,2.0,-2.0,2.0,-2.0,-2.0,2.0,-2.0,-2.0,2.0,2.0,-2.0,-2.0,2.0,-2.0,2.0,-2.0,-2.0,2.0,-2.0,-2.0
2025-06-05 10:38:27.711,0.06450201,-0.067730285,-0.009312384,-0.08648758,-0.05173395,-0.0007353906,0.0,0.0,0.0,-0.01019646,0.010234529,0.31795806,-0.23058787,-0.0038451264,0.5903934,-0.15957865,0.12173898,-0.46597153,-0.2677141,0.06742818,-0.46386993,-0.044822473,0.035976928,0.038182184,-0.03879439,0.066891745,-0.008876484,0.014538601,-0.06052163,0.04701877,0.0007768702,0.014537003,0.03798096,0.05110664,2.0,2.0,-2.0,-2.0,2.0,-2.0,2.0,-2.0,-2.0,2.0,-2.0,-2.0,2.0,2.0,-2.0,-2.0,2.0,-2.0,2.0,-2.0,-2.0,2.0,-2.0,-2.0
2025-06-05 10:38:27.732,0.016832536,-0.043432727,0.032575425,-0.13085148,-0.080205716,-0.007877055,0.0,0.0,0.0,-0.010883083,0.00231695,0.31906143,-0.21530986,-0.010099875,0.5766627,-0.15689842,0.12022712,-0.45411792,-0.25594586,0.06838744,-0.47951683,-0.058968112,-0.0030909725,0.046587493,0.08266585,-0.05263847,-0.02235423,0.020995855,-0.07112329,-0.07599651,-0.026503319,-0.025814358,0.026950963,-0.07676143,2.0,2.0,-2.0,-2.0,2.0,-2.0,2.0,-2.0,-2.0,2.0,-2.0,-2.0,2.0,2.0,-2.0,-2.0,2.0,-2.0,2.0,-2.0,-2.0,2.0,-2.0,-2.0
2025-06-05 10:38:27.752,0.046704702,-0.08688617,0.03790716,-0.13811944,-0.025075067,0.014752311,0.0,0.0,0.0,-0.011532114,0.0026025057,0.32165128,-0.21984436,-0.011355122,0.57924885,-0.16224644,0.12290484,-0.4602587,-0.2576015,0.05904537,-0.47326535,-0.06437573,-0.04266284,0.041546337,0.054779124,-0.03931051,0.04406903,0.03926065,-0.068690486,-0.08002932,0.073513694,0.05628748,0.0014875967,-0.07262754,2.0,2.0,-2.0,-2.0,2.0,-2.0,2.0,-2.0,-2.0,2.0,-2.0,-2.0,2.0,2.0,-2.0,-2.0,2.0,-2.0,2.0,-2.0,-2.0,2.0,-2.0,-2.0
2025-06-05 10:38:27.772,0.0031713191,-0.06849862,0.024529753,-0.1105713,-0.093331374,-0.035668448,0.0,0.0,0.0,-0.012145676,0.012485188,0.32919917,-0.22009015,-0.016147649,0.5864192,-0.17460084,0.116267666,-0.4631027,-0.25508574,0.072797805,-0.47003,-0.051503308,0.0057598855,-0.037857667,0.05774404,-0.019569645,0.034862623,0.010434657,-0.027620943,0.027399113,0.069281295,0.06969451,-0.040745694,-0.04611729,2.0,2.0,-2.0,-2.0,2.0,-2.0,2.0,-2.0,-2.0,2.0,-2.0,-2.0,2.0,2.0,-2.0,-2.0,2.0,-2.0,2.0,-2.0,-2.0,2.0,-2.0,-2.0
2025-06-05 10:38:27.794,0.0047093574,-0.057340685,0.0026231674,-0.11326522,-0.09834214,-0.03519064,0.0,0.0,0.0,-0.012872695,0.012269842,0.34210753,-0.20037892,-0.021020846,0.5790502,-0.16836308,0.116551585,-0.46995702,-0.2414938,0.077620305,-0.4791645,-0.05808981,-0.00022351163,0.016749354,0.07556277,0.05522147,0.058487743,-0.07369438,-0.01214445,-0.019168273,-0.023828749,0.0811434,0.0057690344,0.044101443,2.0,2.0,-2.0,-2.0,2.0,-2.0,2.0,-2.0,-2.0,2.0,-2.0,-2.0,2.0,2.0,-2.0,-2.0,2.0,-2.0,2.0,-2.0,-2.0,2.0,-2.0,-2.0
2025-06-05 10:38:27.812,0.0384984,-0.015471776,0.046799313,-0.056939676,-0.03289042,0.021506676,0.0,0.0,0.0,-0.013761897,0.01985007,0.35013777,-0.2052249,-0.01516923,0.5855952,-0.17005254,0.12507264,-0.47695377,-0.24423513,0.075468965,-0.48493874,-0.06825731,-0.0467957,0.040803377,-0.036094274,0.023652747,-0.016106663,-0.003400335,0.05480232,-0.027852196,0.035130005,0.05438729,-0.072355196,-0.09016763,2.0,2.0,-2.0,-2.0,2.0,-2.0,2.0,-2.0,-2.0,2.0,-2.0,-2.0,2.0,2.0,-2.0,-2.0,2.0,-2.0,2.0,-2.0,-2.0,2.0,-2.0,-2.0
2025-06-05 10:38:27.832,-0.023916274,-0.024212938,0.041335505,-0.050971422,-0.012860074,-0.032768972,0.0,0.0,0.0,-0.014718578,0.018429367,0.34912574,-0.19111353,-0.0120847225,0.5765073,-0.16472322,0.11620028,-0.48028198,-0.23014708,0.079112895,-0.4714272,-0.08813186,-0.026139725,0.076565444,-0.03722632,-0.015741726,0.012597404,-0.028321221,0.055555895,-0.017865123,0.05041466,-0.011008417,0.06480519,-0.046578526,2.0,2.0,-2.0,-2.0,2.0,-2.0,2.0,-2.0,-2.0,2.0,-2.0,-2.0,2.0,2.0,-2.0,-2.0,2.0,-2.0,2.0,-2.0,-2.0,2.0,-2.0,-2.0
2025-06-05 10:38:27.852,-0.030699836,-0.071431085,0.059922624,-0.13036926,-0.04200005,0.0011355603,0.0,0.0,0.0,-0.01564203,0.02786891,0.3563093,-0.18477471,-0.0099863,0.5765747,-0.17854452,0.11667753,-0.47717923,-0.22727089,0.08284952,-0.48000714,-0.084956504,0.049496524,0.039981365,0.031454667,0.045719143,0.004997532,0.0700264,0.052916598,-0.04448442,0.0075473147,-0.015235764,0.018833889,0.05222689,2.0,2.0,-2.0,-2.0,2.0,-2.0,2.0,-2.0,-2.0,2.0,-2.0,-2.0,2.0,2.0,-2.0,-2.0,2.0,-2.0,2.0,-2.0,-2.0,2.0,-2.0,-2.0
2025-06-05 10:38:27.872,-0.038583376,-0.01916744,0.056200065,-0.10427704,-0.04164947,-0.043678112,0.0,0.0,0.0,-0.016455265,0.02914528,0.36702105,-0.18716961,-0.006254165,0.56465423,-0.16452806,0.10844888,-0.4897177,-0.22134362,0.08478527,-0.48079726,-0.0928901,0.02253923,0.06875531,0.01955526,-0.030397143,0.0008401959,0.022447472,0.014122911,0.06061432,0.0074077114,-0.03283506,-0.06361298,-0.008174901,2.0,2.0,-2.0,-2.0,2.0,-2.0,2.0,-2.0,-2.0,2.0,-2.0,-2.0,2.0,2.0,-2.0,-2.0,2.0,-2.0,2.0,-2.0,-2.0,2.0,-2.0,-2.0
2025-06-05 10:38:27.894,0.016158715,0.025442492,0.0376354,-0.10960861,-0.008119983,0.028458806,0.0,0.0,0.0,-0.01712705,0.016476132,0.3701859,-0.19335125,-0.0077411095,0.5650502,-0.16409554,0.12436242,-0.48596895,-0.2131186,0.078452215,-0.4846767,-0.11179053,0.06053837,-0.020855537,0.05998208,-0.0019298691,0.059171382,0.04512629,0.053860046,-0.06479066,0.08050988,-0.040110804,0.0028582353,-0.06512492,2.0,2.0,-2.0,-2.0,2.0,-2.0,2.0,-2.0,-2.0,2.0,-2.0,-2.0,2.0,2.0,-2.0,-2.0,2.0,-2.0,2.0,-2.0,-2.0,2.0,-2.0,-2.0
2025-06-05 10:38:27.913,-0.020972902,-0.06845249,-0.01141942,-0.08066351,-0.016824294,0.007416742,0.0,0.0,0.0,-0.017671349,0.016120808,0.37300512,-0.17796856,-0.011534428,0.55551183,-0.17965072,0.12019044,-0.49537256,-0.22424361,0.0758712,-0.48308763,-0.10933361,0.067297764,-0.014781547,-0.06729723,0.06934827,0.054296162,0.058662962,0.05451272,0.039072696,0.044434916,-0.05122107,0.055860534,-0.08391889,2.0,2.0,-2.0,-2.0,2.0,-2.0,2.0,-2.0,-2.0,2.0,-2.0,-2.0,2.0,2.0,-2.0,-2.0,2.0,-2.0,2.0,-2.0,-2.0,2.0,-2.0,-2.0
2025-06-05 10:38:27.933,0.052338123,-0.018601336,0.017935783,-0.08927946,-0.021249168,-0.030714666,0.0,0.0,0.0,-0.018109977,0.019763649,0.3683104,-0.17522451,-0.020532923,0.569003,-0.18030685,0.11194194,-0.49277917,-0.22362964,0.08052636,-0.47734377,-0.12002467,0.022695282,0.06937768,0.05718703,0.043057192,-0.0032399383,-0.06905149,0.005353356,-0.03139016,0.0485933,0.061714917,0.047604714,0.037534162,2.0,2.0,-2.0,-2.0,2.0,-2.0,2.0,-2.0,-2.0,2.0,-2.0,-2.0,2.0,2.0,-2.0,-2.0,2.0,-2.0,2.0,-2.0,-2.0,2.0,-2.0,-2.0
2025-06-05 10:38:27.953,-0.026358932,-0.058816943,-0.0037882978,-0.08120441,-0.056565486,-0.03187493,0.0,0.0,0.0,-0.018435998,0.030069359,0.37865514,-0.17515522,-0.0046929447,0.5572488,-0.16519776,0.12195806,-0.48356876,-0.21406606,0.088241614,-0.47391436,-0.12376656,-0.018428013,0.06371379,0.054063622,0.008068748,0.043551844,-0.06488943,0.0268915,-0.06772191,0.027843656,-0.009950285,0.004542321,0.0097384285,2.0,2.0,-2.0,-2.0,2.0,-2.0,2.0,-2.0,-2.0,2.0,-2.0,-2.0,2.0,2.0,-2.0,-2.0,2.0,-2.0,2.0,-2.0,-2.0,2.0,-2.0,-2.0
2025-06-05 10:38:27.973,-0.0091563165,-0.037511688,0.056936882,-0.04313354,-0.011205483,0.042566914,0.0,0.0,0.0,-0.018677581,0.013862762,0.38961357,-0.17516822,-0.02010613,0.5473531,-0.16648138,0.11540005,-0.49985772,-0.2173724,0.09716958,-0.48636818,-0.13768275,0.032836385,0.051697247,0.04482701,0.0021271505,0.038413953,0.003870855,-0.041009806,-0.06451425,0.03944782,-0.058579598,0.007514317,-0.0050696377,2.0,2.0,-2.0,-2.0,2.0,-2.0,2.0,-2.0,-2.0,2.0,-2.0,-2.0,2.0,2.0,-2.0,-2.0,2.0,-2.0,2.0,-2.0,-2.0,2.0,-2.0,-2.0
2025-06-05 10:38:27.995,0.032672305,0.0030236442,-0.040370245,-0.1287453,-0.072861634,0.018643284,0.0,0.0,0.0,-0.018869802,0.023005333,0.38167304,-0.18844469,-0.01584319,0.5541064,-0.16235511,0.104810305,-0.49983695,-0.21175958,0.08622894,-0.4825542,-0.13187186,-0.05245038,0.060802218,-0.044567373,0.03476384,-0.011988132,-0.022334376,0.06862998,-0.044545166,0.00012718292,0.070578605,-0.004182977,-0.060422346,2.0,2.0,-2.0,-2.0,2.0,-2.0,2.0,-2.0,-2.0,2.0,-2.0,-2.0,2.0,2.0,-2.0,-2.0,2.0,-2.0,2.0,-2.0,-2.0,2.0,-2.0,-2.0
2025-06-05 10:38:28.013,0.038986437,-0.049075034,0.050253868,-0.05727434,-0.02785646,-0.021238307,0.0,0.0,0.0,-0.019029975,0.031145925,0.40258968,-0.17670386,-0.0046257745,0.55087996,-0.15758508,0.11370593,-0.48616117,-0.21675542,0.09564808,-0.48348668,-0.14195627,-0.0074896873,-0.039351825,0.026625916,0.037327714,0.042757444,-0.04107728,-0.0024808308,0.02732948,0.05372264,-0.018466074,-0.060075298,0.023400543,2.0,2.0,-2.0,-2.0,2.0,-2.0,2.0,-2.0,-2.0,2.0,-2.0,-2.0,2.0,2.0,-2.0,-2.0,2.0,-2.0,2.0,-2.0,-2.0,2.0,-2.0,-2.0
2025-06-05 10:38:28.033,0.011139287,-0.0391629,0.02452877,-0.08476826,-0.027748445,-0.021073066,0.0,0.0,0.0,-0.019165859,0.014000637,0.40830225,-0.1735118,-0.01703666,0.5606932,-0.1519917,0.11794551,-0.49314213,-0.19993305,0.09939225,-0.48725137,-0.14759287,-0.05003873,0.022266218,-0.04278741,0.07353131,0.020839727,0.050721385,0.0033090096,-0.006657545,0.04622093,0.0041925567,-0.012140132,-0.047681943,2.0,2.0,-2.0,-2.0,2.0,-2.0,2.0,-2.0,-2.0,2.0,-2.0,-2.0,2.0,2.0,-2.0,-2.0,2.0,-2.0,2.0,-2.0,-2.0,2.0,-2.0,-2.0
2025-06-05 10:38:28.055,-0.026042156,0.028075825,-0.029836467,-0.045902617,-0.08041588,0.041257255,0.0,0.0,0.0,-0.019282438,0.01934256,0.40088722,-0.18571258,-0.008526464,0.54349107,-0.16645496,0.11413879,-0.50597143,-0.2169799,0.08398607,-0.49811387,-0.15083314,0.019760586,0.03134685,-0.06861879,-0.07344614,-0.06708492,0.070914246,0.028176032,0.053177588,0.021994373,0.012532698,-0.029544126,0.014085886,2.0,2.0,-2.0,-2.0,2.0,-2.0,2.0,-2.0,-2.0,2.0,-2.0,-2.0,2.0,2.0,-2.0,-2.0,2.0,-2.0,2.0,-2.0,-2.0,2.0,-2.0,-2.0
2025-06-05 10:38:28.073,-0.043112632,-0.01896976,0.045912556,-0.07518269,-0.016117768,0.03328044,0.0,0.0,0.0,-0.019384127,0.025500778,0.39576167,-0.18386392,-0.017340729,0.5581508,-0.16493912,0.109082885,-0.50792193,-0.19845973,0.09893599,-0.48964992,-0.15306956,-0.034627635,0.035794847,0.006091893,0.019788802,0.027849281,0.073668726,-0.031064922,-0.020717027,-0.02402642,-0.01848637,0.061258618,-0.00059100427,2.0,2.0,-2.0,-2.0,2.0,-2.0,2.0,-2.0,-2.0,2.0,-2.0,-2.0,2.0,2.0,-2.0,-2.0,2.0,-2.0,2.0,-2.0,-2.0,2.0,-2.0,-2.0
2025-06-05 10:38:28.094,-0.010917261,0.038468584,0.0075608026,-0.06073398,-0.04539934,-0.011243346,0.0,0.0,0.0,-0.01947468,0.011625019,0.4091523,-0.18658403,-0.014362261,0.55585086,-0.15071823,0.11953673,-0.4973831,-0.19836044,0.08903618,-0.5021182,-0.1490692,0.07126298,-0.018571077,0.0013152516,0.005759377,-0.029107498,-0.06545121,0.03517915,0.014981276,-0.017110078,-0.061193686,0.05631937,-0.013952548,2.0,2.0,-2.0,-2.0,2.0,-2.0,2.0,-2.0,-2.0,2.0,-2.0,-2.0,2.0,2.0,-2.0,-2.0,2.0,-2.0,2.0,-2.0,-2.0,2.0,-2.0,-2.0
2025-06-05 10:38:28.114,-0.0050842618,-0.0047297818,-0.015262444,-0.12285579,-0.0020321065,0.02700254,0.0,0.0,0.0,-0.019555883,0.01824547,0.41838282,-0.1816139,-0.017180003,0.5390425,-0.15403429,0.11025595,-0.49793896,-0.21093427,0.10190194,-0.5057111,-0.1524912,-0.0109940665,-0.047868922,-0.04709359,-0.038781606,-0.014587505,-0.016852932,-0.044794608,-0.042321276,-0.04429727,-0.015880482,-0.023253815,0.04459009,2.0,2.0,-2.0,-2.0,2.0,-2.0,2.0,-2.0,-2.0,2.0,-2.0,-2.0,2.0,2.0,-2.0,-2.0,2.0,-2.0,2.0,-2.0,-2.0,2.0,-2.0,-2.0
2025-06-05 10:38:28.133,0.018137032,-0.009762574,0.04309323,-0.039316066,-0.014878137,0.012035588,0.0,0.0,0.0,-0.019629229,0.023532592,0.41741922,-0.18303448,-0.013223884,0.54320276,-0.14168838,0.11574533,-0.5034415,-0.20318757,0.09717672,-0.49575612,-0.16944522,-0.0060352194,-0.06471514,0.000635393,0.044698045,0.042346407,-0.02934947,-0.03668162,-0.047299277,-0.03881797,0.052012645,-0.06967416,-0.07903244,2.0,2.0,-2.0,-2.0,2.0,-2.0,2.0,-2.0,-2.0,2.0,-2.0,-2.0,2.0,2.0,-2.0,-2.0,2.0,-2.0,2.0,-2.0,-2.0,2.0,-2.0,-2.0
2025-06-05 10:38:28.154,-0.034471717,-0.043984223,-0.027245333,-0.077068985,-0.071746126,-0.03755271,0.0,0.0,0.0,-0.01969749,0.019502975,0.41235548,-0.1846105,-0.00089078874,0.5417424,-0.14950815,0.102414444,-0.50785625,-0.20507912,0.09971792,-0.49728832,-0.1691538,0.007146955,0.005295704,-0.014308478,0.046331998,0.047228236,-0.04294823,0.0007368876,-0.009936185,-0.02510573,-0.014829299,-0.009398804,0.014973817,2.0,2.0,-2.0,-2.0,2.0,-2.0,2.0,-2.0,-2.0,2.0,-2.0,-2.0,2.0,2.0,-2.0,-2.0,2.0,-2.0,2.0,-2.0,-2.0,2.0,-2.0,-2.0
2025-06-05 10:38:28.173,-0.028196493,0.0148562435,0.02241409,-0.104198605,-0.012111894,-0.040046338,0.0,0.0,0.0,-0.01976293,0.020438261,0.4164731,-0.1826301,-0.0010400051,0.54384255,-0.1447009,0.1132453,-0.50756985,-0.20215902,0.10369892,-0.4959679,-0.1596826,0.04209147,0.048136164,0.0063624247,0.06547803,0.041994665,-0.057090785,-0.031255756,-0.016505301,0.00066741835,-0.043208994,-0.04187079,0.0500904,2.0,2.0,-2.0,-2.0,2.0,-2.0,2.0,-2.0,-2.0,2.0,-2.0,-2.0,2.0,2.0,-2.0,-2.0,2.0,-2.0,2.0,-2.0,-2.0,2.0,-2.0,-2.0
2025-06-05 10:38:28.195,-0.02950612,-0.005221198,-0.0019135554,-0.049967308,-0.01575621,-0.043337315,0.0,0.0,0.0,-0.01982589,0.010499803,0.42175397,-0.17689353,-0.0075528966,0.53679556,-0.15073855,0.10560896,-0.51121557,-0.2081864,0.09099035,-0.49108484,-0.1764225,0.065151066,0.055247944,-0.054141585,0.04133506,-0.041742854,-0.037392896,0.022980908,0.025746783,0.04914291,-0.034165937,0.033796757,-0.06739436,2.0,2.0,-2.0,-2.0,2.0,-2.0,2.0,-2.0,-2.0,2.0,-2.0,-2.0,2.0,2.0,-2.0,-2.0,2.0,-2.0,2.0,-2.0,-2.0,2.0,-2.0,-2.0
2025-06-05 10:38:28.214,-0.012226561,0.016718373,0.021559147,-0.12935507,-0.017367981,0.013771621,0.0,0.0,0.0,-0.019885788,0.017194927,0.41765043,-0.18098578,0.0007809889,0.5470672,-0.13615304,0.11304159,-0.49796286,-0.19897749,0.1002446,-0.5061191,-0.17758438,-0.071744785,0.01697737,0.039152455,-0.021524634,0.052111447,0.061090305,-0.0116682565,0.012166698,-0.014432261,-0.036043342,0.05585211,-0.073728666,2.0,2.0,-2.0,-2.0,2.0,-2.0,2.0,-2.0,-2.0,2.0,-2.0,-2.0,2.0,2.0,-2.0,-2.0,2.0,-2.0,2.0,-2.0,-2.0,2.0,-2.0,-2.0
2025-06-05 10:38:28.233,-0.018476535,-0.048358034,0.0116686355,-0.11162663,0.00097340933,-0.014131626,0.0,0.0,0.0,-0.019941922,0.021596812,0.41813365,-0.1901616,0.0017594522,0.5466298,-0.1525748,0.09950339,-0.50293374,-0.20968413,0.09835655,-0.49984446,-0.18054998,-0.06701956,-0.02670964,0.05994546,0.029253645,-0.0110388305,-0.04698056,-0.040582817,-0.0063699023,-0.049144134,-0.0026422865,-0.042341825,0.0028286981,2.0,2.0,-2.0,-2.0,2.0,-2.0,2.0,-2.0,-2.0,2.0,-2.0,-2.0,2.0,2.0,-2.0,-2.0,2.0,-2.0,2.0,-2.0,-2.0,2.0,-2.0,-2.0
2025-06-05 10:38:28.255,-0.008943432,0.0044469237,0.021291308,-0.102405936,-0.077208966,0.036570806,0.0,0.0,0.0,-0.019993745,0.011088072,0.4352411,-0.19091906,-0.0075653307,0.53418154,-0.14125296,0.107746944,-0.49743703,-0.20912515,0.09644929,-0.4926023,-0.16292168,-0.025784852,-0.059031278,-0.0005002267,-0.07370175,0.05077642,0.02841188,0.049550533,0.008370781,-0.048631966,-0.01005605,-0.0119814025,0.0016866745,2.0,2.0,-2.0,-2.0,2.0,-2.0,2.0,-2.0,-2.0,2.0,-2.0,-2.0,2.0,2.0,-2.0,-2.0,2.0,-2.0,2.0,-2.0,-2.0,2.0,-2.0,-2.0
2025-06-05 10:38:28.275,0.047797043,0.005752902,0.028888498,-0.089863524,-0.08580862,0.027639292,0.0,0.0,0.0,-0.020040879,0.010925129,0.4303012,-0.1892419,-0.013885215,0.5499378,-0.13406187,0.10670917,-0.5125854,-0.20623994,0.09735716,-0.5087927,-0.17679901,-0.049810156,0.031232161,0.02060635,0.047736473,0.002883423,0.021970095,0.06508601,-0.038756564,-0.06729059,0.01967262,-0.01411181,0.043923765,2.0,2.0,-2.0,-2.0,2.0,-2.0,2.0,-2.0,-2.0,2.0,-2.0,-2.0,2.0,2.0,-2.0,-2.0,2.0,-2.0,2.0,-2.0,-2.0,2.0,-2.0,-2.0
2025-06-05 10:38:28.295,0.008844284,-0.041869435,-0.0055481093,-0.05525518,-0.061156247,-0.021110063,0.0,0.0,0.0,-0.020083115,0.009346693,0.4341897,-0.18858467,-0.009046585,0.548705,-0.13896547,0.108973145,-0.503782,-0.20707966,0.08700693,-0.50618625,-0.17059793,-0.061988574,0.028008036,-0.007221614,0.06320846,0.021951577,0.049362514,0.0678558,-0.008052166,0.041507807,-0.0024496783,0.063632496,0.01049606,2.0,2.0,-2.0,-2.0,2.0,-2.0,2.0,-2.0,-2.0,2.0,-2.0,-2.0,2.0,2.0,-2.0,-2.0,2.0,-2.0,2.0,-2.0,-2.0,2.0,-2.0,-2.0
2025-06-05 10:38:28.315,-0.03359316,-0.02179903,0.05153502,-0.09594094,-0.048800148,0.027776545,0.0,0.0,0.0,-0.020120407,0.018971585,0.42659977,-0.19025487,-0.01576234,0.54574263,-0.13790433,0.11595244,-0.5071586,-0.19896618,0.098744154,-0.5110278,-0.17284107,-0.047310963,-0.06360143,0.033960234,-0.04343965,-0.018031197,-0.0645209,-0.0047953143,0.043690976,0.0051725297,0.07419762,0.056086987,0.048782367,2.0,2.0,-2.0,-2.0,2.0,-2.0,2.0,-2.0,-2.0,2.0,-2.0,-2.0,2.0,2.0,-2.0,-2.0,2.0,-2.0,2.0,-2.0,-2.0,2.0,-2.0,-2.0
2025-06-05 10:38:28.334,-0.03409624,0.04207803,-0.0010516754,-0.059566196,-0.09014617,0.030810514,0.0,0.0,0.0,-0.020152869,0.004319346,0.43596074,-0.17717347,-0.013555031,0.5342476,-0.13508277,0.098928206,-0.50163835,-0.20819195,0.099853694,-0.5071182,-0.1846641,-0.0073162816,0.05433563,-0.052038252,0.04865458,0.021411117,-0.04981234,0.07233292,-0.06228994,-0.014189657,0.039491743,-0.05690165,-0.018479912,2.0,2.0,-2.0,-2.0,2.0,-2.0,2.0,-2.0,-2.0,2.0,-2.0,-2.0,2.0,2.0,-2.0,-2.0,2.0,-2.0,2.0,-2.0,-2.0,2.0,-2.0,-2.0
2025-06-05 10:38:28.354,-0.042181548,-0.04473027,0.0056537804,-0.12603714,-0.009130969,-0.03951386,0.0,0.0,0.0,-0.02018075,0.015974972,0.43724972,-0.19005658,-0.014917564,0.5333473,-0.13890809,0.102286845,-0.49773252,-0.20354103,0.094081245,-0.49619964,-0.17869037,0.05327579,-0.06045523,0.067182384,0.03316061,-0.05123439,0.059976913,0.009306016,0.050363477,-0.04118469,0.032987703,-0.005893171,-0.0033870656,2.0,2.0,-2.0,-2.0,2.0,-2.0,2.0,-2.0,-2.0,2.0,-2.0,-2.0,2.0,2.0,-2.0,-2.0,2.0,-2.0,2.0,-2.0,-2.0,2.0,-2.0,-2.0
2025-06-05 10:38:28.376,0.009736577,0.009904535,-0.0282663,-0.07177442,-0.048913192,0.04132269,0.0,0.0,0.0,-0.020204399,0.015898483,0.4378317,-0.18462993,-0.015196377,0.53514117,-0.1427836,0.099205606,-0.5112454,-0.18848136,0.1050964,-0.5109678,-0.16718362,-0.020409333,-0.0025996356,-0.04683774,0.06876993,0.042615235,-0.009338772,-0.017683571,-0.012594451,-0.025775708,-0.044941973,-0.053968906,0.01004277,2.0,2.0,-2.0,-2.0,2.0,-2.0,2.0,-2.0,-2.0,2.0,-2.0,-2.0,2.0,2.0,-2.0,-2.0,2.0,-2.0,2.0,-2.0,-2.0,2.0,-2.0,-2.0
2025-06-05 10:38:28.394,0.03166406,0.037626658,0.01432777,-0.11199867,-0.015706202,-0.0031568327,0.0,0.0,0.0,-0.020224227,0.018959982,0.42878225,-0.19233295,2.6510783e-05,0.5345541,-0.15011443,0.11082484,-0.5097333,-0.20327255,0.10323393,-0.50618726,-0.18355064,0.011931756,-0.006618401,-0.010222381,-0.07107198,-0.056684624,-0.008057538,-0.05034231,0.0060411626,0.056901567,0.07326071,-0.009232108,-0.0039772787,2.0,2.0,-2.0,-2.0,2.0,-2.0,2.0,-2.0,-2.0,2.0,-2.0,-2.0,2.0,2.0,-2.0,-2.0,2.0,-2.0,2.0,-2.0,-2.0,2.0,-2.0,-2.0
2025-06-05 10:38:28.415,-0.012318355,-0.022337005,0.022379464,-0.047026806,-0.009525304,-0.03003222,0.0,0.0,0.0,-0.020240672,0.015875917,0.4385148,-0.18468176,0.00068009156,0.53289723,-0.14975892,0.10141321,-0.5109068,-0.19883394,0.101199865,-0.49860278,-0.18529591,0.03643409,0.0193194,-0.07209055,0.074839815,-0.025869772,0.049812153,0.05656413,-0.05088055,0.06294121,-0.044031646,0.01688272,0.02536601,2.0,2.0,-2.0,-2.0,2.0,-2.0,2.0,-2.0,-2.0,2.0,-2.0,-2.0,2.0,2.0,-2.0,-2.0,2.0,-2.0,2.0,-2.0,-2.0,2.0,-2.0,-2.0
2025-06-05 10:38:28.434,0.01780914,0.031065632,-0.035117656,-0.1337317,-0.06100538,-0.042792313,0.0,0.0,0.0,-0.020254182,0.0059448197,0.4269697,-0.19024937,-0.0029031276,0.5433985,-0.14153863,0.108125135,-0.4962704,-0.19520982,0.09483016,-0.5020391,-0.18587206,-0.022035636,0.027097216,0.048243098,0.06152658,-0.07275119,-0.04568521,-0.009144854,0.015625287,0.020241873,0.05212627,0.0006913078,0.030779125,2.0,2.0,-2.0,-2.0,2.0,-2.0,2.0,-2.0,-2.0,2.0,-2.0,-2.0,2.0,2.0,-2.0,-2.0,2.0,-2.0,2.0,-2.0,-2.0,2.0,-2.0,-2.0
2025-06-05 10:38:28.455,-0.022981795,0.03669764,0.03582402,-0.07488787,-0.08337268,0.0323593,0.0,0.0,0.0,-0.020265184,0.017390782,0.4265265,-0.18106139,0.0022766045,0.5497275,-0.14999902,0.09955676,-0.5099093,-0.19993234,0.10720262,-0.50919586,-0.16998121,-0.0069838897,0.014380555,-0.07374433,0.058864858,-0.035993494,0.04042464,-0.06129533,0.072762735,0.034771048,-0.015465334,0.034592118,-0.037185203,2.0,2.0,-2.0,-2.0,2.0,-2.0,2.0,-2.0,-2.0,2.0,-2.0,-2.0,2.0,2.0,-2.0,-2.0,2.0,-2.0,2.0,-2.0,-2.0,2.0,-2.0,-2.0
2025-06-05 10:38:28.478,0.018261,0.008705605,-0.020674523,-0.100521736,-0.05066214,0.018359816,0.0,0.0,0.0,-0.020274082,0.023170656,0.43475175,-0.17962924,0.0013489131,0.54348284,-0.13699676,0.10038208,-0.500638,-0.20161289,0.09369366,-0.507662,-0.17691624,-0.062230553,-0.059740614,0.06182878,-0.00082637236,-0.047730334,0.019857476,-0.025752787,-0.072584555,-0.07145124,-0.023199333,-0.008784976,-0.009512907,2.0,2.0,-2.0,-2.0,2.0,-2.0,2.0,-2.0,-2.0,2.0,-2.0,-2.0,2.0,2.0,-2.0,-2.0,2.0,-2.0,2.0,-2.0,-2.0,2.0,-2.0,-2.0
2025-06-05 10:38:28.495,0.04525477,-0.019353984,0.008046673,-0.12456174,-0.0435513,-0.023974927,0.0,0.0,0.0,-0.020281244,0.009227933,0.43963856,-0.18339382,-0.0075186267,0.5400419,-0.13755064,0.10190368,-0.49814132,-0.20232165,0.09279407,-0.5028888,-0.18831864,-0.05817548,0.027540732,-0.051946145,-0.00897262,-0.04889941,-0.019875327,0.02535066,0.064692006,-0.05737399,0.03820868,0.0661345,-0.03819757,2.0,2.0,-2.0,-2.0,2.0,-2.0,2.0,-2.0,-2.0,2.0,-2.0,-2.0,2.0,2.0,-2.0,-2.0,2.0,-2.0,2.0,-2.0,-2.0,2.0,-2.0,-2.0
2025-06-05 10:38:28.515,-0.01707344,0.028340366,0.026742138,-0.087712504,-0.06500818,-0.014004587,0.0,0.0,0.0,-0.020286994,0.018934121,0.43034318,-0.1917899,-0.005824746,0.53905267,-0.14243564,0.103412315,-0.5041643,-0.20043279,0.095006675,-0.5040519,-0.17933734,0.038097404,0.019287443,-0.017778764,-0.005243224,0.0055678235,-0.07408796,-0.049566116,-0.0413192,0.07312215,-0.030610103,0.039983634,-0.040249575,2.0,2.0,-2.0,-2.0,2.0,-2.0,2.0,-2.0,-2.0,2.0,-2.0,-2.0,2.0,2.0,-2.0,-2.0,2.0,-2.0,2.0,-2.0,-2.0,2.0,-2.0,-2.0
2025-06-05 10:38:28.535,-0.0034528254,0.042839438,-0.044454187,-0.11263813,-0.03963901,-0.049422245,0.0,0.0,0.0,-0.020291615,0.0043020393,0.43073598,-0.18724036,-0.010523728,0.5406069,-0.13700299,0.11177352,-0.5136904,-0.19940135,0.093461215,-0.50009596,-0.18270344,0.002920618,-0.022485558,0.061709147,0.016975513,-0.02679395,0.056780834,0.03585305,0.035209786,-0.012170254,0.031219931,-0.006747197,0.004122081,2.0,2.0,-2.0,-2.0,2.0,-2.0,2.0,-2.0,-2.0,2.0,-2.0,-2.0,2.0,2.0,-2.0,-2.0,2.0,-2.0,2.0,-2.0,-2.0,2.0,-2.0,-2.0
2025-06-05 10:38:28.555,0.042252306,-0.043739088,-0.025649099,-0.07846273,-0.02573939,-0.044932432,0.0,0.0,0.0,-0.020295352,0.011771124,0.4357471,-0.19121529,-0.0014536474,0.54784375,-0.1342033,0.11324538,-0.5092725,-0.1989659,0.09835911,-0.5110061,-0.17611615,0.04892299,0.074430466,-0.066971354,0.07311058,0.056567937,-0.06575496,0.02244682,-0.05533887,-0.055117495,-0.059643112,-0.051731627,0.04851388,2.0,2.0,-2.0,-2.0,2.0,-2.0,2.0,-2.0,-2.0,2.0,-2.0,-2.0,2.0,2.0,-2.0,-2.0,2.0,-2.0,2.0,-2.0,-2.0,2.0,-2.0,-2.0
2025-06-05 10:38:28.578,0.024012929,0.015679337,0.014812285,-0.082914695,-0.0676978,-0.029829256,0.0,0.0,0.0,-0.020298403,0.009312997,0.44166282,-0.1759019,-0.013664935,0.5510744,-0.13913926,0.11282373,-0.5093981,-0.19614029,0.10166848,-0.49967304,-0.18481186,0.020833671,0.055909265,0.022453548,0.017275121,-0.03358065,0.00795087,0.012529559,0.05302521,0.013100226,0.07195059,-0.058244105,0.01053794,2.0,2.0,-2.0,-2.0,2.0,-2.0,2.0,-2.0,-2.0,2.0,-2.0,-2.0,2.0,2.0,-2.0,-2.0,2.0,-2.0,2.0,-2.0,-2.0,2.0,-2.0,-2.0
2025-06-05 10:38:28.595,-0.014820903,0.04972227,0.011153085,-0.10782312,0.0037722697,0.048111834,0.0,0.0,0.0,-0.020300934,0.018071825,0.44199914,-0.18392725,-0.015275898,0.53562254,-0.13264805,0.114009544,-0.51210034,-0.1867943,0.102395296,-0.51189923,-0.18213406,-0.056470405,-0.061549146,-0.021155633,0.007382791,0.039685383,-0.030458264,-0.03242197,-0.045552805,-0.0715842,-0.04965968,0.0735603,0.008362031,2.0,2.0,-2.0,-2.0,2.0,-2.0,2.0,-2.0,-2.0,2.0,-2.0,-2.0,2.0,2.0,-2.0,-2.0,2.0,-2.0,2.0,-2.0,-2.0,2.0,-2.0,-2.0
2025-06-05 10:38:28.616,0.028457224,0.048145726,0.032706477,-0.03665738,-0.022733407,0.003469484,0.0,0.0,0.0,-0.020303078,0.02079572,0.4264334,-0.19318654,-0.008921232,0.5421313,-0.14107636,0.11373822,-0.49642223,-0.19005243,0.09391753,-0.5140286,-0.1788487,-0.062006887,-0.019924153,0.016801951,0.06075012,-0.05145603,-0.005983204,0.016266426,0.043349672,0.03261383,-0.06076128,0.009895136,-0.012437667,2.0,2.0,-2.0,-2.0,2.0,-2.0,2.0,-2.0,-2.0,2.0,-2.0,-2.0,2.0,2.0,-2.0,-2.0,2.0,-2.0,2.0,-2.0,-2.0,2.0,-2.0,-2.0
2025-06-05 10:38:28.635,0.021174552,-0.008867163,0.0069956263,-0.09722892,-0.07378118,0.013847362,0.0,0.0,0.0,-0.020304935,0.00469549,0.43635997,-0.19252522,-0.006421805,0.5469569,-0.14368303,0.098688476,-0.51151776,-0.20569487,0.102451704,-0.49901667,-0.17839666,-0.06013401,0.07217181,0.018601254,-0.023616651,-0.05065724,0.022432564,0.027266288,0.0037743668,0.05233074,-0.0702565,-0.029390292,-0.038754158,2.0,2.0,-2.0,-2.0,2.0,-2.0,2.0,-2.0,-2.0,2.0,-2.0,-2.0,2.0,2.0,-2.0,-2.0,2.0,-2.0,2.0,-2.0,-2.0,2.0,-2.0,-2.0
2025-06-05 10:38:28.655,0.0155620575,0.025376806,0.038652673,-0.0766248,-3.7224494e-05,0.042924423,0.0,0.0,0.0,-0.020306583,0.00997779,0.42806578,-0.17859638,-0.0026796437,0.5516709,-0.13786812,0.102496535,-0.49527127,-0.19836771,0.095808506,-0.5040468,-0.17713739,0.06424311,-0.008701048,0.04057065,-0.055461638,-0.023485439,-0.012225971,0.0133168865,0.051888026,-0.059820913,-0.019929288,0.064792514,0.021539742,2.0,2.0,-2.0,-2.0,2.0,-2.0,2.0,-2.0,-2.0,2.0,-2.0,-2.0,2.0,2.0,-2.0,-2.0,2.0,-2.0,2.0,-2.0,-2.0,2.0,-2.0,-2.0
2025-06-05 10:38:28.678,-0.007157799,-0.016033746,0.008935677,-0.070650004,-0.062384225,0.0022149498,0.0,0.0,0.0,-0.020308081,0.007475256,0.43624455,-0.18387859,-0.016352614,0.54747295,-0.14049207,0.10759422,-0.5019072,-0.20561107,0.0896737,-0.5141216,-0.18678312,0.04073828,-0.04794818,0.0009172776,-0.01647973,0.04902981,0.06287221,0.045874216,0.002550527,-0.013427409,-0.06024009,-0.026222546,-0.009064951,2.0,2.0,-2.0,-2.0,2.0,-2.0,2.0,-2.0,-2.0,2.0,-2.0,-2.0,2.0,2.0,-2.0,-2.0,2.0,-2.0,2.0,-2.0,-2.0,2.0,-2.0,-2.0
2025-06-05 10:38:28.696,-0.028171627,0.009245038,0.028386163,-0.04679908,0.0064048055,-0.016622445,0.0,0.0,0.0,-0.020309467,0.015749533,0.43198812,-0.18172693,-0.0129115945,0.55007166,-0.13645688,0.10721557,-0.4966188,-0.19523877,0.09021446,-0.5023107,-0.17909947,-0.05276931,-0.015563185,-0.00959593,-0.008101328,-0.00812096,0.013386391,0.02123993,0.004024411,0.027774356,-0.04186662,0.07328062,0.03154519,2.0,2.0,-2.0,-2.0,2.0,-2.0,2.0,-2.0,-2.0,2.0,-2.0,-2.0,2.0,2.0,-2.0,-2.0,2.0,-2.0,2.0,-2.0,-2.0,2.0,-2.0,-2.0
2025-06-05 10:38:28.716,-0.033736646,0.007337455,-0.0434641,-0.0498481,-0.084735304,0.021104299,0.0,0.0,0.0,-0.020310767,0.0066596973,0.433177,-0.19066519,-0.0004881636,0.5362244,-0.14597015,0.097074054,-0.50665694,-0.18943834,0.098087184,-0.49801004,-0.17066658,-0.02436869,0.011304539,0.058946274,-0.018398179,0.024305617,-0.051633965,0.06253148,0.052967753,0.067997925,0.042968657,0.025355559,-0.042173695,2.0,2.0,-2.0,-2.0,2.0,-2.0,2.0,-2.0,-2.0,2.0,-2.0,-2.0,2.0,2.0,-2.0,-2.0,2.0,-2.0,2.0,-2.0,-2.0,2.0,-2.0,-2.0
2025-06-05 10:38:28.736,0.030257361,-0.010351323,-0.028117256,-0.092327654,-0.0064750104,-0.010592847,0.0,0.0,0.0,-0.020312,0.009513394,0.4337897,-0.17571369,-0.009663302,0.5483348,-0.1385753,0.09549112,-0.51306516,-0.20593104,0.08799804,-0.5026201,-0.18262078,0.007078657,-0.008642836,-0.01391705,0.020143159,0.06864879,0.04831112,-0.07380171,-0.03973763,0.023104563,0.009181718,-0.07253707,-0.069499396,2.0,2.0,-2.0,-2.0,2.0,-2.0,2.0,-2.0,-2.0,2.0,-2.0,-2.0,2.0,2.0,-2.0,-2.0,2.0,-2.0,2.0,-2.0,-2.0,2.0,-2.0,-2.0
2025-06-05 10:38:28.755,0.00012455737,0.016408412,0.039188165,-0.059049085,0.00024181472,-0.032317054,0.0,0.0,0.0,-0.020313174,0.022640117,0.43449226,-0.17902824,-0.00046810563,0.5516937,-0.12993851,0.1140016,-0.51107264,-0.20192616,0.10181001,-0.5107639,-0.1888092,0.06621627,0.05139863,0.029313136,-0.01995471,-0.06886616,0.07490948,0.021262048,-0.060289305,-0.06400435,-0.00060229877,0.035005685,-0.06556289,2.0,2.0,-2.0,-2.0,2.0,-2.0,2.0,-2.0,-2.0,2.0,-2.0,-2.0,2.0,2.0,-2.0,-2.0,2.0,-2.0,2.0,-2.0,-2.0,2.0,-2.0,-2.0
2025-06-05 10:38:28.778,-0.032135744,0.013256472,0.03783671,-0.09190709,-0.08886142,-0.04945121,0.0,0.0,0.0,-0.020314291,0.019630922,0.4423651,-0.18628141,-0.01635135,0.53558666,-0.13607405,0.0977547,-0.5059061,-0.1934016,0.09910639,-0.49851874,-0.18841514,-0.060294315,0.056998566,-0.0005146271,-0.010718931,-0.038342852,0.03831464,0.005702694,0.02265662,-0.07129358,-0.0065699355,0.055754926,0.018028881,2.0,2.0,-2.0,-2.0,2.0,-2.0,2.0,-2.0,-2.0,2.0,-2.0,-2.0,2.0,2.0,-2.0,-2.0,2.0,-2.0,2.0,-2.0,-2.0,2.0,-2.0,-2.0
2025-06-05 10:38:28.796,0.01129054,-0.036952633,0.01591996,-0.13164629,-0.089017555,-0.009247777,0.0,0.0,0.0,-0.020315355,0.01921507,0.42414525,-0.18799098,-0.005298444,0.5465042,-0.14675042,0.11431625,-0.50654185,-0.2047301,0.09355226,-0.51185375,-0.17887956,-0.06593977,-0.05502539,-0.02589022,-0.027559193,0.028791767,0.019464875,0.017642226,-0.0056747333,-0.03979568,0.066791736,-0.07048821,-0.029758377,2.0,2.0,-2.0,-2.0,2.0,-2.0,2.0,-2.0,-2.0,2.0,-2.0,-2.0,2.0,2.0,-2.0,-2.0,2.0,-2.0,2.0,-2.0,-2.0,2.0,-2.0,-2.0
2025-06-05 10:38:28.816,0.014577007,-0.03309555,0.00431545,-0.06654836,-0.0061245607,0.012355825,0.0,0.0,0.0,-0.020316362,0.011434098,0.44143113,-0.19020966,-0.0042313393,0.53939784,-0.148795,0.10055721,-0.49845758,-0.1961845,0.10154367,-0.5145983,-0.17025945,0.056665923,-0.032652088,0.005451418,-0.034677275,-0.048213545,0.07031037,-0.044047903,0.008527487,0.009724445,-0.012422753,0.038023703,-0.039285913,2.0,2.0,-2.0,-2.0,2.0,-2.0,2.0,-2.0,-2.0,2.0,-2.0,-2.0,2.0,2.0,-2.0,-2.0,2.0,-2.0,2.0,-2.0,-2.0,2.0,-2.0,-2.0
2025-06-05 10:38:28.837,-0.045848403,-0.0019825103,-0.031427823,-0.1116965,-0.059821613,0.007535676,0.0,0.0,0.0,-0.020317309,0.01465548,0.42834982,-0.18333934,-0.0054602707,0.5368158,-0.1354419,0.09638969,-0.50870335,-0.1917163,0.09992622,-0.4993869,-0.18490608,0.068068124,-0.02095033,-0.07040345,-0.019938147,0.021703048,0.006006026,0.06063672,0.023468591,-0.043090347,0.06855565,0.058870915,0.05745434,2.0,2.0,-2.0,-2.0,2.0,-2.0,2.0,-2.0,-2.0,2.0,-2.0,-2.0,2.0,2.0,-2.0,-2.0,2.0,-2.0,2.0,-2.0,-2.0,2.0,-2.0,-2.0
2025-06-05 10:38:28.856,-0.041408382,-0.037742335,0.01928951,-0.1004462,-0.075303465,-0.011541166,0.0,0.0,0.0,-0.020318195,0.010252925,0.42961583,-0.19272535,-0.005164126,0.5390741,-0.12997386,0.108466834,-0.5027335,-0.20273139,0.10153755,-0.5097228,-0.17351808,0.06282201,-0.023814283,-0.03937041,0.004719209,0.059170395,-0.017696213,0.07431283,0.030951593,-0.060520712,0.03361477,0.010781406,-0.02714201,2.0,2.0,-2.0,-2.0,2.0,-2.0,2.0,-2.0,-2.0,2.0,-2.0,-2.0,2.0,2.0,-2.0,-2.0,2.0,-2.0,2.0,-2.0,-2.0,2.0,-2.0,-2.0
2025-06-05 10:38:28.878,0.038086493,0.011496845,-0.0054265657,-0.082657695,-0.0749653,0.0478865,0.0,0.0,0.0,-0.020319015,0.008759701,0.43864882,-0.17546634,-0.011079524,0.54982525,-0.13879295,0.10042021,-0.5127271,-0.19173379,0.08917952,-0.49837348,-0.18079059,-0.03282171,-0.031310603,-0.056213804,-0.016939513,0.037638698,0.0081779435,0.011888444,-0.02819175,0.0018759917,0.024552565,0.033579573,0.06816396,2.0,2.0,-2.0,-2.0,2.0,-2.0,2.0,-2.0,-2.0,2.0,-2.0,-2.0,2.0,2.0,-2.0,-2.0,2.0,-2.0,2.0,-2.0,-2.0,2.0,-2.0,-2.0
2025-06-05 10:38:28.896,0.0016453192,-0.03517992,-0.03600493,-0.056160804,-0.0047834883,0.016896904,0.0,0.0,0.0,-0.02031977,0.0074341563,0.43108818,-0.1762835,0.0004658543,0.5470169,-0.14504963,0.09929976,-0.49992266,-0.18714711,0.095053315,-0.5082034,-0.1809251,-0.034057617,-0.05921681,0.052575067,-0.032258373,0.020246794,0.07486961,-0.069078095,0.036832772,-0.033656444,0.029198531,-0.043033823,0.043243863,2.0,2.0,-2.0,-2.0,2.0,-2.0,2.0,-2.0,-2.0,2.0,-2.0,-2.0,2.0,2.0,-2.0,-2.0,2.0,-2.0,2.0,-2.0,-2.0,2.0,-2.0,-2.0
2025-06-05 10:38:28.917,0.004051955,-0.011188891,-0.008529317,-0.08327353,-0.06304033,-0.0012120177,0.0,0.0,0.0,-0.020320458,0.0042649526,0.43876383,-0.19081895,-0.0034292706,0.53870165,-0.13443016,0.10324963,-0.5145423,-0.19198106,0.08781555,-0.4978243,-0.17649724,-0.05973581,0.028382098,0.013342642,0.032053996,-0.07121866,0.03409609,0.026517037,0.011022767,0.007014109,0.032858446,0.06774217,-0.010557941,2.0,2.0,-2.0,-2.0,2.0,-2.0,2.0,-2.0,-2.0,2.0,-2.0,-2.0,2.0,2.0,-2.0,-2.0,2.0,-2.0,2.0,-2.0,-2.0,2.0,-2.0,-2.0
2025-06-05 10:38:28.937,-0.006787362,-0.0027422644,0.028778445,-0.038161077,-0.02146699,0.020438561,0.0,0.0,0.0,-0.02032108,0.008500577,0.42993915,-0.17651086,-0.008549739,0.54711604,-0.14126304,0.10225118,-0.50538254,-0.20606117,0.09335093,-0.5049411,-0.18728103,0.066258684,-0.046539437,0.0051752334,-0.04184446,0.022040203,0.020271312,0.013362404,0.02719738,0.06853166,0.038298577,0.06485283,-0.059520863,2.0,2.0,-2.0,-2.0,2.0,-2.0,2.0,-2.0,-2.0,2.0,-2.0,-2.0,2.0,2.0,-2.0,-2.0,2.0,-2.0,2.0,-2.0,-2.0,2.0,-2.0,-2.0
2025-06-05 10:38:28.957,-0.010261809,0.036487114,0.038021248,-0.10295979,0.0008087183,0.0480225,0.0,0.0,0.0,-0.020321637,0.021740148,0.42303434,-0.1879205,-0.007756484,0.54675585,-0.1409123,0.11266928,-0.49595296,-0.20417388,0.10117037,-0.5051668,-0.17103064,-0.010230302,0.027453605,-0.007074794,-0.062071852,-0.059285417,-0.061158016,-0.050173465,-0.06965598,-0.06717531,0.042279035,0.037033375,0.028321281,2.0,2.0,-2.0,-2.0,2.0,-2.0,2.0,-2.0,-2.0,2.0,-2.0,-2.0,2.0,2.0,-2.0,-2.0,2.0,-2.0,2.0,-2.0,-2.0,2.0,-2.0,-2.0
2025-06-05 10:38:28.978,0.030293686,-0.026776286,-0.0007937295,-0.043075502,-0.003171429,-0.0497979,0.0,0.0,0.0,-0.020322131,0.021248393,0.43595776,-0.18089283,-0.014339232,0.5444172,-0.14403115,0.09599843,-0.5128235,-0.19201732,0.10586262,-0.49972543,-0.17029853,-0.029132381,0.022221742,-0.022296852,-0.060895905,0.046137832,-0.072444364,0.020126576,-0.027324567,-0.0391952,-0.051417053,0.01816004,-0.012595988,2.0,2.0,-2.0,-2.0,2.0,-2.0,2.0,-2.0,-2.0,2.0,-2.0,-2.0,2.0,2.0,-2.0,-2.0,2.0,-2.0,2.0,-2.0,-2.0,2.0,-2.0,-2.0
2025-06-05 10:38:28.996,0.026622884,-0.04104056,0.01541107,-0.0420814,-0.011287486,-0.041592926,0.0,0.0,0.0,-0.020322567,0.006259164,0.42873803,-0.18528579,-0.009408776,0.54626864,-0.14365199,0.104439266,-0.49988905,-0.19059257,0.09788468,-0.5144749,-0.18858445,0.0357566,0.051736455,0.058940936,-0.061920896,0.057305004,-0.02858095,0.054287925,0.029822556,-0.028701637,0.0056725,-0.032355405,0.04046698,2.0,2.0,-2.0,-2.0,2.0,-2.0,2.0,-2.0,-2.0,2.0,-2.0,-2.0,2.0,2.0,-2.0,-2.0,2.0,-2.0,2.0,-2.0,-2.0,2.0,-2.0,-2.0
2025-06-05 10:38:29.017,-0.026782285,0.02806272,0.007673955,-0.12358089,-0.019359337,-0.014943851,0.0,0.0,0.0,-0.020322945,0.0067663556,0.43349236,-0.1913595,-0.013152263,0.5398998,-0.14119563,0.1106625,-0.51332325,-0.19827783,0.09782168,-0.51013726,-0.17905802,0.025307447,0.021450274,0.010642805,-0.036554832,-0.028806726,0.026018597,-0.037255693,0.052197665,0.020434773,0.009431859,-0.05360222,-0.010951602,2.0,2.0,-2.0,-2.0,2.0,-2.0,2.0,-2.0,-2.0,2.0,-2.0,-2.0,2.0,2.0,-2.0,-2.0,2.0,-2.0,2.0,-2.0,-2.0,2.0,-2.0,-2.0
2025-06-05 10:38:29.037,0.0077943117,-0.026553363,-0.034567546,-0.10029916,0.0023693466,-0.024152352,0.0,0.0,0.0,-0.020323273,0.022608377,0.43274775,-0.18894248,0.00016140373,0.5347764,-0.14790672,0.095574364,-0.5110389,-0.19352755,0.09701369,-0.5069284,-0.18926531,-0.01598476,-0.06301289,0.005781766,0.0012249956,0.024694556,-0.030222617,0.020833932,0.031633515,-0.03659303,-0.0024173784,0.023374228,0.07017423,2.0,2.0,-2.0,-2.0,2.0,-2.0,2.0,-2.0,-2.0,2.0,-2.0,-2.0,2.0,2.0,-2.0,-2.0,2.0,-2.0,2.0,-2.0,-2.0,2.0,-2.0,-2.0
2025-06-05 10:38:29.056,-0.013835295,0.00033167988,0.017385613,-0.11142997,-0.09199576,0.027413435,0.0,0.0,0.0,-0.020323554,0.021373304,0.42760423,-0.17789096,-0.002265608,0.5415412,-0.14167598,0.104294606,-0.50974804,-0.19451307,0.10766799,-0.51000243,-0.18198419,-0.0480864,0.036119506,0.052309386,-0.061477166,0.0394643,-0.04480416,-0.0014615463,0.027524153,0.04181548,-0.025465423,-0.0045098397,-0.05976349,2.0,2.0,-2.0,-2.0,2.0,-2.0,2.0,-2.0,-2.0,2.0,-2.0,-2.0,2.0,2.0,-2.0,-2.0,2.0,-2.0,2.0,-2.0,-2.0,2.0,-2.0,-2.0
2025-06-05 10:38:29.078,-0.004796321,-0.007609714,-0.0016028787,-0.100221545,-0.065338746,-0.031402633,0.0,0.0,0.0,-0.020323792,0.020825863,0.4236546,-0.18730263,-0.013795626,0.55252314,-0.13410778,0.106335595,-0.51072776,-0.19527367,0.10712454,-0.49938193,-0.18991889,-0.01917182,-0.0009204861,-0.07221645,-0.011997196,-0.045886125,0.008679304,-0.01758173,0.026272465,0.020284634,0.027442079,0.062287707,-0.04533237,2.0,2.0,-2.0,-2.0,2.0,-2.0,2.0,-2.0,-2.0,2.0,-2.0,-2.0,2.0,2.0,-2.0,-2.0,2.0,-2.0,2.0,-2.0,-2.0,2.0,-2.0,-2.0
2025-06-05 10:38:29.097,0.014537535,-0.04234247,-0.025478007,-0.107690975,-0.022634588,-0.027514001,0.0,0.0,0.0,-0.020323994,0.012305497,0.42949077,-0.19042471,-0.013181101,0.5376407,-0.148399,0.110074006,-0.5113342,-0.19162063,0.09752088,-0.50291604,-0.18770225,-0.06893829,-0.007336063,-0.038725585,0.03778052,-0.06613606,0.0649052,-0.049778376,-0.05342991,0.058216356,-0.050169718,-0.02751976,-0.0006773897,2.0,2.0,-2.0,-2.0,2.0,-2.0,2.0,-2.0,-2.0,2.0,-2.0,-2.0,2.0,2.0,-2.0,-2.0,2.0,-2.0,2.0,-2.0,-2.0,2.0,-2.0,-2.0
2025-06-05 10:38:29.117,0.036132738,-0.036478482,-0.0027049945,-0.068956055,-0.06921271,0.048861157,0.0,0.0,0.0,-0.020324161,0.018672364,0.43936965,-0.18149988,-0.014570279,0.5342846,-0.14683507,0.102350794,-0.51355535,-0.1910591,0.09311383,-0.50608206,-0.17135751,0.010979852,-0.05308432,0.026644843,-0.039693043,0.030447973,0.0125549445,0.03455364,0.05150793,-0.06355312,-0.008048942,-0.007936033,-0.004518646,2.0,2.0,-2.0,-2.0,2.0,-2.0,2.0,-2.0,-2.0,2.0,-2.0,-2.0,2.0,2.0,-2.0,-2.0,2.0,-2.0,2.0,-2.0,-2.0,2.0,-2.0,-2.0
2025-06-05 10:38:29.137,-0.020785691,-0.006762926,0.032117106,-0.07963652,-0.0026608012,0.016280487,0.0,0.0,0.0,-0.020324301,0.017990636,0.43841615,-0.18265027,-0.008919505,0.5502908,-0.13619795,0.10371542,-0.50131446,-0.19690059,0.09626281,-0.50540143,-0.18242852,0.059251167,-0.0041420073,0.008432736,0.010572785,-0.037028313,0.015134447,0.0075069084,0.05763839,-0.011904077,0.0697825,0.041095484,-0.03128981,2.0,2.0,-2.0,-2.0,2.0,-2.0,2.0,-2.0,-2.0,2.0,-2.0,-2.0,2.0,2.0,-2.0,-2.0,2.0,-2.0,2.0,-2.0,-2.0,2.0,-2.0,-2.0
2025-06-05 10:38:29.157,-0.032119628,0.012321875,0.04303245,-0.12680452,-0.067062266,-0.026850892,0.0,0.0,0.0,-0.020324415,0.0034249916,0.42686903,-0.17899911,-0.010914105,0.5503615,-0.14939092,0.09841777,-0.49723485,-0.18653806,0.09698991,-0.5044203,-0.17542997,-0.049972966,-0.028899653,0.07101151,-0.024034405,0.047575016,-0.0064221905,-0.07294898,0.053135663,-0.029949745,-0.069189265,-0.029373294,0.061037175,2.0,2.0,-2.0,-2.0,2.0,-2.0,2.0,-2.0,-2.0,2.0,-2.0,-2.0,2.0,2.0,-2.0,-2.0,2.0,-2.0,2.0,-2.0,-2.0,2.0,-2.0,-2.0
2025-06-05 10:38:29.178,0.018181503,-0.047411498,-0.018224802,-0.11435908,-0.03807386,0.035439044,0.0,0.0,0.0,-0.020324508,0.016693186,0.43112543,-0.179369,-0.0066387076,0.5495866,-0.13935985,0.109586656,-0.5041347,-0.19921549,0.105107196,-0.5024646,-0.18328045,0.052485675,-0.03943475,0.027521549,-0.06277612,0.06145277,-0.06611365,-0.026095841,-0.029833283,0.061737068,0.035709064,0.07255498,-0.017919693,2.0,2.0,-2.0,-2.0,2.0,-2.0,2.0,-2.0,-2.0,2.0,-2.0,-2.0,2.0,2.0,-2.0,-2.0,2.0,-2.0,2.0,-2.0,-2.0,2.0,-2.0,-2.0
2025-06-05 10:38:29.198,0.0071068546,0.02803457,-0.035457525,-0.04641423,-0.06231078,-0.033643242,0.0,0.0,0.0,-0.020324582,0.017477779,0.43153667,-0.17778619,0.0011143998,0.5387742,-0.13883144,0.11333982,-0.5134419,-0.20194836,0.09402988,-0.49624044,-0.18428744,-0.048928015,0.030130021,0.00011812268,-0.05414754,0.02748589,0.01804818,0.0715827,-0.0367541,0.03840489,-0.0030768265,0.0505737,0.011319609,2.0,2.0,-2.0,-2.0,2.0,-2.0,2.0,-2.0,-2.0,2.0,-2.0,-2.0,2.0,2.0,-2.0,-2.0,2.0,-2.0,2.0,-2.0,-2.0,2.0,-2.0,-2.0
2025-06-05 10:38:29.217,0.000491335,-0.04824192,0.040488914,-0.10084629,-0.060531735,0.009851792,0.0,0.0,0.0,-0.020324642,0.009636687,0.4347464,-0.18393424,-0.0147031415,0.5333629,-0.13682091,0.107168436,-0.50330627,-0.20579377,0.101225205,-0.510626,-0.18295021,0.049735304,0.04818039,0.021270802,-0.04473553,0.027759,0.074273914,0.02459169,-0.011111784,0.036897454,0.07412135,-0.057435356,0.07118908,2.0,2.0,-2.0,-2.0,2.0,-2.0,2.0,-2.0,-2.0,2.0,-2.0,-2.0,2.0,2.0,-2.0,-2.0,2.0,-2.0,2.0,-2.0,-2.0,2.0,-2.0,-2.0
2025-06-05 10:38:29.237,0.01577224,-0.03967706,0.014123148,-0.0723259,0.0068035917,0.039700586,0.0,0.0,0.0,-0.02032469,0.010606309,0.4298159,-0.19347017,-0.0022168676,0.55202246,-0.14580521,0.11075735,-0.5032073,-0.19521502,0.10213964,-0.5141645,-0.18257263,0.046818286,-0.06655608,-0.017918065,-0.017722303,0.03851411,-0.009384931,-0.022949114,-0.060699504,-0.005992654,-0.06710158,-0.0040053325,0.042757157,2.0,2.0,-2.0,-2.0,2.0,-2.0,2.0,-2.0,-2.0,2.0,-2.0,-2.0,2.0,2.0,-2.0,-2.0,2.0,-2.0,2.0,-2.0,-2.0,2.0,-2.0,-2.0
2025-06-05 10:38:29.260,0.00093024806,-0.039903756,0.008099369,-0.109150015,-0.041561205,0.040533613,0.0,0.0,0.0,-0.020324728,0.022484628,0.42515147,-0.18939894,-0.009333226,0.53710747,-0.13285565,0.09987746,-0.4975866,-0.20566736,0.106629975,-0.501506,-0.18465798,-0.008317146,0.0030047179,-0.06941926,-0.014252994,-0.006892222,0.02068819,-0.036851518,-0.02721352,-0.04194418,-0.022731299,0.032775342,0.037128568,2.0,2.0,-2.0,-2.0,2.0,-2.0,2.0,-2.0,-2.0,2.0,-2.0,-2.0,2.0,2.0,-2.0,-2.0,2.0,-2.0,2.0,-2.0,-2.0,2.0,-2.0,-2.0
2025-06-05 10:38:29.278,0.0012030543,-0.0008771298,-0.023253387,-0.10841995,-1.1913165e-06,-0.042289022,0.0,0.0,0.0,-0.02032476,0.021566663,0.4378571,-0.19325535,-0.012739868,0.5491173,-0.13791892,0.110032715,-0.5082957,-0.19001865,0.09916396,-0.5159381,-0.17269033,0.037116807,-0.065355375,-0.041275162,0.044303764,0.02070039,-0.05094973,-0.012669446,-0.026895363,0.036896463,0.07227372,0.00409551,0.03457299,2.0,2.0,-2.0,-2.0,2.0,-2.0,2.0,-2.0,-2.0,2.0,-2.0,-2.0,2.0,2.0,-2.0,-2.0,2.0,-2.0,2.0,-2.0,-2.0,2.0,-2.0,-2.0
2025-06-05 10:38:29.297,0.03633969,0.0096075805,-0.005122252,-0.06741206,-0.00032541095,0.0077685057,0.0,0.0,0.0,-0.020324783,0.018030506,0.43714696,-0.18402109,-0.0019632624,0.5506754,-0.14041212,0.10292979,-0.49661022,-0.19011559,0.10306286,-0.50217754,-0.19011514,-0.07178058,0.06899152,-0.001017612,0.027921079,0.03328022,-0.062858805,0.05612299,-0.022052541,-0.053867605,-0.02990593,0.016863689,0.03235355,2.0,2.0,-2.0,-2.0,2.0,-2.0,2.0,-2.0,-2.0,2.0,-2.0,-2.0,2.0,2.0,-2.0,-2.0,2.0,-2.0,2.0,-2.0,-2.0,2.0,-2.0,-2.0
2025-06-05 10:38:29.318,-0.046286725,0.046659466,-0.02407272,-0.09327221,-0.068476915,0.028269144,0.0,0.0,0.0,-0.020324802,0.0152418995,0.4335391,-0.19104885,-0.011485059,0.53600806,-0.14104815,0.11476913,-0.5139746,-0.1978432,0.08976921,-0.50186896,-0.17724729,-0.018506888,0.06065339,0.02355805,0.035331536,-0.007813623,-0.014516139,0.04635329,-0.04358804,0.027963266,0.03722286,-0.017209133,0.026416544,2.0,2.0,-2.0,-2.0,2.0,-2.0,2.0,-2.0,-2.0,2.0,-2.0,-2.0,2.0,2.0,-2.0,-2.0,2.0,-2.0,2.0,-2.0,-2.0,2.0,-2.0,-2.0
2025-06-05 10:38:29.337,-0.039177306,0.04521032,0.034340385,-0.05713435,-0.08521287,-0.012304484,0.0,0.0,0.0,-0.020324817,0.021267535,0.4227215,-0.18459617,-0.016994147,0.5447415,-0.1465187,0.1078213,-0.5077475,-0.19884081,0.09967845,-0.50553334,-0.1890611,-0.015019029,-0.04064567,-0.050941,-0.05566386,-0.026077265,-0.05390599,-0.04437354,0.068071276,-0.030131903,0.017981453,-0.047400035,0.04724382,2.0,2.0,-2.0,-2.0,2.0,-2.0,2.0,-2.0,-2.0,2.0,-2.0,-2.0,2.0,2.0,-2.0,-2.0,2.0,-2.0,2.0,-2.0,-2.0,2.0,-2.0,-2.0
2025-06-05 10:38:29.360,0.044803914,0.033566497,0.017082598,-0.110444695,-0.0035690942,0.025348386,0.0,0.0,0.0,-0.02032483,0.003716725,0.42435655,-0.1775793,-0.0076351324,0.5444294,-0.14131024,0.11404328,-0.5016587,-0.19051968,0.096639045,-0.5009196,-0.18056308,-0.05375239,-0.043359604,0.0080848895,0.003954862,0.06932328,0.071013376,0.040063325,-0.00027412624,0.049990233,0.01748387,0.06091298,-0.029979112,2.0,2.0,-2.0,-2.0,2.0,-2.0,2.0,-2.0,-2.0,2.0,-2.0,-2.0,2.0,2.0,-2.0,-2.0,2.0,-2.0,2.0,-2.0,-2.0,2.0,-2.0,-2.0
2025-06-05 10:38:29.378,-0.027010513,0.03674746,0.02488922,-0.11873457,-0.06010452,9.148835e-05,0.0,0.0,0.0,-0.020324841,0.022792576,0.4279,-0.18546134,-0.005853402,0.5454705,-0.14011952,0.09830867,-0.5101771,-0.18715093,0.099119276,-0.51153654,-0.18027796,-0.012248732,-0.00799547,-0.031141963,-0.015589987,0.0043843975,-0.07275572,0.037495892,0.025308196,-0.009326564,0.03305353,-0.043043904,-0.04598474,2.0,2.0,-2.0,-2.0,2.0,-2.0,2.0,-2.0,-2.0,2.0,-2.0,-2.0,2.0,2.0,-2.0,-2.0,2.0,-2.0,2.0,-2.0,-2.0,2.0,-2.0,-2.0
2025-06-05 10:38:29.398,0.034769844,0.027294016,-0.019089809,-0.07628906,-0.027583012,0.03429758,0.0,0.0,0.0,-0.020324852,0.0035138333,0.42530847,-0.18535683,-0.00781386,0.533377,-0.14286768,0.11032638,-0.505398,-0.19920617,0.10738933,-0.50058806,-0.17789301,0.009330282,0.009858772,0.038476907,0.07495462,-0.05296285,-0.0200718,-0.021814452,0.064036846,0.014411113,-0.009515706,0.018873494,-0.05556051,2.0,2.0,-2.0,-2.0,2.0,-2.0,2.0,-2.0,-2.0,2.0,-2.0,-2.0,2.0,2.0,-2.0,-2.0,2.0,-2.0,2.0,-2.0,-2.0,2.0,-2.0,-2.0
2025-06-05 10:38:29.418,0.027267851,-0.03333061,0.028771449,-0.08418688,-0.06965612,0.04212889,0.0,0.0,0.0,-0.02032486,0.0073822225,0.4391559,-0.1890754,-0.0084169265,0.53836906,-0.14120835,0.1091163,-0.5126354,-0.19860666,0.10739525,-0.5159698,-0.17450123,-0.0024286804,-0.067325726,0.059714362,0.0067196866,0.06811983,-0.048851226,0.043331817,-0.034666684,0.045738935,-0.050661508,0.04502723,-0.011675951,2.0,2.0,-2.0,-2.0,2.0,-2.0,2.0,-2.0,-2.0,2.0,-2.0,-2.0,2.0,2.0,-2.0,-2.0,2.0,-2.0,2.0,-2.0,-2.0,2.0,-2.0,-2.0
2025-06-05 10:38:29.438,0.045518927,-0.027809594,-0.040347114,-0.11675682,-0.07192131,-0.026125858,0.0,0.0,0.0,-0.020324867,0.010595289,0.43501115,-0.1778486,-0.017087992,0.54059607,-0.14418466,0.10459619,-0.5115498,-0.19616556,0.09581334,-0.51027256,-0.19015452,-0.061584774,0.0009821524,0.040500734,-0.03387738,0.015319122,-0.050690982,0.006436493,0.029943248,0.027161986,0.039158717,0.07322634,0.010017399,2.0,2.0,-2.0,-2.0,2.0,-2.0,2.0,-2.0,-2.0,2.0,-2.0,-2.0,2.0,2.0,-2.0,-2.0,2.0,-2.0,2.0,-2.0,-2.0,2.0,-2.0,-2.0
2025-06-05 10:38:29.462,-0.00042448856,0.014107889,-0.015722677,-0.095822714,0.0035591333,0.032991275,0.0,0.0,0.0,-0.020324875,0.007593127,0.4353984,-0.1920459,0.0004708715,0.5518822,-0.14314069,0.1114651,-0.50177,-0.19646975,0.089730434,-0.5150118,-0.17635891,-0.012359019,-0.029063432,-0.053762667,-0.024770858,0.061553873,0.019234406,-0.060758717,-0.010469191,-0.06123865,0.045181386,0.021445002,0.018097352,2.0,2.0,-2.0,-2.0,2.0,-2.0,2.0,-2.0,-2.0,2.0,-2.0,-2.0,2.0,2.0,-2.0,-2.0,2.0,-2.0,2.0,-2.0,-2.0,2.0,-2.0,-2.0
2025-06-05 10:38:29.479,0.029988762,0.026283719,0.011425848,-0.06860267,-0.002930102,-0.0002790742,0.0,0.0,0.0,-0.020324882,0.010085706,0.43226594,-0.18727964,-0.015894728,0.551794,-0.14565815,0.10191254,-0.5096425,-0.19937372,0.09821628,-0.51463485,-0.17689446,-0.019748617,0.03497556,-0.009386536,-0.06735264,-0.000727569,0.0015642536,0.06848228,-0.062991366,-0.066624485,0.016644727,-0.031838026,-0.004252203,2.0,2.0,-2.0,-2.0,2.0,-2.0,2.0,-2.0,-2.0,2.0,-2.0,-2.0,2.0,2.0,-2.0,-2.0,2.0,-2.0,2.0,-2.0,-2.0,2.0,-2.0,-2.0
2025-06-05 10:38:29.499,-0.042063378,0.020573027,0.025290068,-0.09272126,-0.064561024,-0.046983663,0.0,0.0,0.0,-0.020324888,0.021979049,0.442454,-0.17526339,0.0020814575,0.5342381,-0.14488651,0.1078052,-0.5089936,-0.20023958,0.09449608,-0.50338596,-0.18803516,-0.046410367,0.00937715,0.07147374,-0.047378924,-0.011430816,-0.058461424,0.018888963,0.04330672,0.008231813,0.021783208,0.015124928,0.051673155,2.0,2.0,-2.0,-2.0,2.0,-2.0,2.0,-2.0,-2.0,2.0,-2.0,-2.0,2.0,2.0,-2.0,-2.0,2.0,-2.0,2.0,-2.0,-2.0,2.0,-2.0,-2.0
2025-06-05 10:38:29.519,0.03298479,-0.00036272043,-0.041614875,-0.08914705,-0.05850333,0.017543439,0.0,0.0,0.0,-0.020324893,0.0217299,0.42414734,-0.19290553,-0.00024450902,0.5348676,-0.12964328,0.10201149,-0.50936806,-0.19743596,0.09604466,-0.51425415,-0.17372142,0.020683095,0.05237766,-0.04336126,0.055864744,0.038112964,0.05544405,0.069281325,0.03748677,0.03465519,-0.045972247,0.027254274,0.05457904,2.0,2.0,-2.0,-2.0,2.0,-2.0,2.0,-2.0,-2.0,2.0,-2.0,-2.0,2.0,2.0,-2.0,-2.0,2.0,-2.0,2.0,-2.0,-2.0,2.0,-2.0,-2.0
2025-06-05 10:38:29.539,0.009976193,0.0032677595,0.032500695,-0.13382803,-0.07944329,0.043500535,0.0,0.0,0.0,-0.020324899,0.003891995,0.43432212,-0.17896095,-0.012175987,0.54989916,-0.1467909,0.10428836,-0.50657487,-0.19968946,0.10294203,-0.50420755,-0.18420517,0.015340463,-0.022042824,0.03327754,-0.011363966,0.059110854,0.030037992,0.02724912,0.05836232,0.07083903,-0.05805717,-0.030374648,-0.033024736,2.0,2.0,-2.0,-2.0,2.0,-2.0,2.0,-2.0,-2.0,2.0,-2.0,-2.0,2.0,2.0,-2.0,-2.0,2.0,-2.0,2.0,-2.0,-2.0,2.0,-2.0,-2.0
2025-06-05 10:38:29.562,-0.037797898,0.003611622,0.031331852,-0.03940089,-0.06934607,-0.035434134,0.0,0.0,0.0,-0.020324904,0.021600459,0.42400226,-0.1775294,-0.01696207,0.5462056,-0.1354982,0.107030764,-0.50201654,-0.19770147,0.0933112,-0.50307566,-0.17438751,0.068694144,-0.014421148,0.06576788,-0.01787956,0.020535996,-0.028674813,0.066232555,0.05763198,0.036032166,0.07155376,-0.0057357913,-0.0016203609,2.0,2.0,-2.0,-2.0,2.0,-2.0,2.0,-2.0,-2.0,2.0,-2.0,-2.0,2.0,2.0,-2.0,-2.0,2.0,-2.0,2.0,-2.0,-2.0,2.0,-2.0,-2.0
2025-06-05 10:38:29.579,-0.017530601,0.026445193,-0.008894244,-0.041321877,0.0068661566,0.016890142,0.0,0.0,0.0,-0.02032491,0.003234683,0.44102296,-0.18610555,-0.013123313,0.5395279,-0.1409654,0.11315394,-0.50641865,-0.2031264,0.08852421,-0.50822335,-0.18981302,0.05645353,0.0068952767,-0.038017657,0.030684521,-0.041005835,0.07035589,0.022956047,0.048622843,-0.045371078,-0.07209369,-0.03477041,-0.052732337,2.0,2.0,-2.0,-2.0,2.0,-2.0,2.0,-2.0,-2.0,2.0,-2.0,-2.0,2.0,2.0,-2.0,-2.0,2.0,-2.0,2.0,-2.0,-2.0,2.0,-2.0,-2.0
2025-06-05 10:38:29.599,-0.00075635914,-0.026751697,-0.030475784,-0.12049422,-0.09043737,0.033032298,0.0,0.0,0.0,-0.020324916,0.021552367,0.4306443,-0.17556092,0.0009083986,0.55243933,-0.1363913,0.112513766,-0.49923944,-0.19523223,0.10050907,-0.49793482,-0.17718227,0.03716562,0.0071533783,-0.0043040724,-0.0141200805,0.021198288,0.009572349,0.05810588,-0.00023064541,-0.01140239,-0.015402043,0.03304271,-0.014827132,2.0,2.0,-2.0,-2.0,2.0,-2.0,2.0,-2.0,-2.0,2.0,-2.0,-2.0,2.0,2.0,-2.0,-2.0,2.0,-2.0,2.0,-2.0,-2.0,2.0,-2.0,-2.0
2025-06-05 10:38:29.620,0.02005036,0.021122525,-0.03543735,-0.09825123,-0.056978732,0.022942182,0.0,0.0,0.0,-0.02032492,0.01775293,0.42607686,-0.18120329,-0.008213259,0.5435391,-0.14377838,0.1098767,-0.5091079,-0.20469438,0.09919662,-0.49876413,-0.18225291,-0.034046102,-0.022540895,-0.06126651,-0.03643623,0.043360587,0.03675384,-0.055639613,-0.049340904,0.05484828,0.008841077,0.042472515,-0.021965288,2.0,2.0,-2.0,-2.0,2.0,-2.0,2.0,-2.0,-2.0,2.0,-2.0,-2.0,2.0,2.0,-2.0,-2.0,2.0,-2.0,2.0,-2.0,-2.0,2.0,-2.0,-2.0
2025-06-05 10:38:29.639,0.033711355,-0.03451437,-0.017851204,-0.082094006,-0.04923286,0.017950542,0.0,0.0,0.0,-0.020324923,0.008552588,0.4348435,-0.1820428,-0.0038918,0.53434837,-0.14752194,0.107057825,-0.49609447,-0.20132673,0.096283406,-0.50931334,-0.17874694,-0.07324285,-0.057643406,0.060957566,0.02309491,0.02772659,-0.03879529,0.003921625,0.06778518,-0.032877326,0.05058188,-0.06768626,0.0119588785,2.0,2.0,-2.0,-2.0,2.0,-2.0,2.0,-2.0,-2.0,2.0,-2.0,-2.0,2.0,2.0,-2.0,-2.0,2.0,-2.0,2.0,-2.0,-2.0,2.0,-2.0,-2.0
2025-06-05 10:38:29.662,0.025567936,0.030410072,-0.04982478,-0.12582068,-0.0757178,0.039554935,0.0,0.0,0.0,-0.020324927,0.008231839,0.42787534,-0.19355229,-0.007715096,0.5415806,-0.1392595,0.10701384,-0.49539503,-0.20449425,0.10626503,-0.51076716,-0.18016525,0.05797043,0.019078152,0.061663873,-0.01378674,0.008571695,-0.019326368,-0.023556553,0.025955934,-0.06560411,-0.07465423,-0.030016176,0.016011832,2.0,2.0,-2.0,-2.0,2.0,-2.0,2.0,-2.0,-2.0,2.0,-2.0,-2.0,2.0,2.0,-2.0,-2.0,2.0,-2.0,2.0,-2.0,-2.0,2.0,-2.0,-2.0
2025-06-05 10:38:29.679,-0.0037250777,0.04756227,-0.038068574,-0.08447198,0.0069771567,-0.008200388,0.0,0.0,0.0,-0.02032493,0.015428516,0.43409154,-0.19483492,-0.0011413925,0.54348105,-0.13204847,0.108137466,-0.5012681,-0.19614434,0.10128608,-0.50429136,-0.1719768,-0.020412818,0.00023885508,-0.0031299167,-0.06257471,0.04369702,0.021289121,0.0012584238,0.057548758,-0.027738882,0.00060555857,0.0108393775,0.058949213,2.0,2.0,-2.0,-2.0,2.0,-2.0,2.0,-2.0,-2.0,2.0,-2.0,-2.0,2.0,2.0,-2.0,-2.0,2.0,-2.0,2.0,-2.0,-2.0,2.0,-2.0,-2.0
2025-06-05 10:38:29.700,0.008505631,-0.039782945,0.023139045,-0.052329056,-0.0013820434,0.02615619,0.0,0.0,0.0,-0.020324934,0.007841056,0.42719716,-0.19424123,0.00027808477,0.54936033,-0.1453403,0.11184675,-0.500328,-0.18911836,0.10603429,-0.5155853,-0.18582453,-0.020615721,-0.05351089,0.0063736127,-0.00018112377,0.022284726,0.05620378,0.073380336,0.0115683405,-0.030160565,-0.046443876,-0.017606437,-0.008231656,2.0,2.0,-2.0,-2.0,2.0,-2.0,2.0,-2.0,-2.0,2.0,-2.0,-2.0,2.0,2.0,-2.0,-2.0,2.0,-2.0,2.0,-2.0,-2.0,2.0,-2.0,-2.0
2025-06-05 10:38:29.720,-0.024796953,-0.011142165,-0.007251109,-0.10685403,-0.072670296,-0.03662972,0.0,0.0,0.0,-0.020324936,0.022173949,0.42373598,-0.18841608,-0.0035678004,0.5495538,-0.13720116,0.11031287,-0.50921124,-0.19429499,0.090015516,-0.49888885,-0.18811218,0.066405885,0.049773186,-0.06273773,0.0076510315,-0.073083445,0.049123168,0.024315901,-0.070273206,-0.020445881,0.01845527,-0.06729003,-0.044799108,2.0,2.0,-2.0,-2.0,2.0,-2.0,2.0,-2.0,-2.0,2.0,-2.0,-2.0,2.0,2.0,-2.0,-2.0,2.0,-2.0,2.0,-2.0,-2.0,2.0,-2.0,-2.0
2025-06-05 10:38:29.740,-0.026003972,-0.022544928,-0.04474102,-0.06945997,-0.06202942,-0.03728787,0.0,0.0,0.0,-0.02032494,0.018339988,0.44219518,-0.18424147,0.0011953487,0.54394317,-0.14593689,0.10492061,-0.50953615,-0.19503827,0.105188645,-0.5111059,-0.170786,-0.06673733,-0.038657803,0.057250805,-0.035785437,0.0035441457,0.054261673,0.046590026,0.04422906,0.016522326,-0.047737177,-0.067380436,-0.0691295,2.0,2.0,-2.0,-2.0,2.0,-2.0,2.0,-2.0,-2.0,2.0,-2.0,-2.0,2.0,2.0,-2.0,-2.0,2.0,-2.0,2.0,-2.0,-2.0,2.0,-2.0,-2.0
2025-06-05 10:38:29.762,-0.045604553,0.0029922654,-0.008572117,-0.11444169,-0.051051367,0.03320693,0.0,0.0,0.0,-0.020324942,0.0042504906,0.42607316,-0.19288759,-0.0063935826,0.5469388,-0.14635612,0.09561677,-0.5031771,-0.20285244,0.10641089,-0.5078754,-0.1750956,0.00609023,-0.047005843,-0.06112372,0.010612842,0.059373382,0.074868724,-0.00816901,-0.0464631,0.014339322,0.062220056,0.058649193,-0.04719857,2.0,2.0,-2.0,-2.0,2.0,-2.0,2.0,-2.0,-2.0,2.0,-2.0,-2.0,2.0,2.0,-2.0,-2.0,2.0,-2.0,2.0,-2.0,-2.0,2.0,-2.0,-2.0
2025-06-05 10:38:29.780,-0.049581558,0.03673967,-0.0103692245,-0.08098907,-0.08368069,-0.03308892,0.0,0.0,0.0,-0.020324944,0.02259954,0.42287335,-0.17989293,0.0018992345,0.5504779,-0.12965369,0.10367788,-0.5046819,-0.1925817,0.09164325,-0.49838698,-0.17225099,-0.06599317,-0.025090253,0.07243711,0.025811696,-0.06787811,0.042104777,0.07156426,-0.015547117,-0.02727687,0.057528332,0.052623644,0.0286095,2.0,2.0,-2.0,-2.0,2.0,-2.0,2.0,-2.0,-2.0,2.0,-2.0,-2.0,2.0,2.0,-2.0,-2.0,2.0,-2.0,2.0,-2.0,-2.0,2.0,-2.0,-2.0
2025-06-05 10:38:29.799,0.020554025,-0.03291591,-0.044760082,-0.12633027,-0.036996607,0.0014715417,0.0,0.0,0.0,-0.020324945,0.0067857727,0.43187067,-0.18315281,-0.006431857,0.54396063,-0.1310758,0.11006058,-0.49896428,-0.20020118,0.10570904,-0.50488114,-0.17978348,-0.043060105,0.008784185,-0.052303404,0.016318746,-0.021953944,0.05490789,-0.028936174,0.070146054,-0.008015554,0.06929753,-0.07471422,-0.04203866,2.0,2.0,-2.0,-2.0,2.0,-2.0,2.0,-2.0,-2.0,2.0,-2.0,-2.0,2.0,2.0,-2.0,-2.0,2.0,-2.0,2.0,-2.0,-2.0,2.0,-2.0,-2.0
2025-06-05 10:38:29.820,0.013848789,-0.01779535,0.047279496,-0.06718905,-0.022165751,-0.030737735,0.0,0.0,0.0,-0.020324947,0.0046418197,0.4296746,-0.18297255,-0.0038213464,0.54305565,-0.13210726,0.10976942,-0.49890456,-0.20308283,0.10042825,-0.49730885,-0.18093897,0.009192342,-0.05773249,-0.030568201,0.05635169,0.06959872,-0.003772802,0.017639574,0.05878345,0.0020441804,-0.06109923,0.062947564,-0.028314754,2.0,2.0,-2.0,-2.0,2.0,-2.0,2.0,-2.0,-2.0,2.0,-2.0,-2.0,2.0,2.0,-2.0,-2.0,2.0,-2.0,2.0,-2.0,-2.0,2.0,-2.0,-2.0
2025-06-05 10:38:29.840,-0.03538173,-0.008643883,0.015249593,-0.0961197,-0.015986372,-0.008398996,0.0,0.0,0.0,-0.020324947,0.012262623,0.42773333,-0.17908111,-0.011032554,0.5465455,-0.13985763,0.09842914,-0.50445116,-0.19763076,0.10156127,-0.4969508,-0.18473986,-0.04182246,-0.010784035,0.03482075,0.06801743,-0.024479097,0.05166351,0.030068206,-0.025404539,0.025698759,0.050696727,-0.064340495,0.008896895,2.0,2.0,-2.0,-2.0,2.0,-2.0,2.0,-2.0,-2.0,2.0,-2.0,-2.0,2.0,2.0,-2.0,-2.0,2.0,-2.0,2.0,-2.0,-2.0,2.0,-2.0,-2.0
2025-06-05 10:38:29.861,-0.016344732,-0.041461125,0.0010588692,-0.0540268,-0.06775243,-0.047212128,0.0,0.0,0.0,-0.02032495,0.019541727,0.43838716,-0.18820919,0.0014474834,0.53953177,-0.13273887,0.10413851,-0.4954846,-0.19986801,0.09956101,-0.51024187,-0.18735336,-0.023790197,0.057539094,0.02148485,0.04094683,-0.06263091,-0.026786609,-0.021718103,0.020053096,-0.056866594,0.06466486,0.064826824,-0.05811884,2.0,2.0,-2.0,-2.0,2.0,-2.0,2.0,-2.0,-2.0,2.0,-2.0,-2.0,2.0,2.0,-2.0,-2.0,2.0,-2.0,2.0,-2.0,-2.0,2.0,-2.0,-2.0
2025-06-05 10:38:29.880,-0.029168826,0.018930806,0.01771595,-0.08903237,-0.09168826,0.011479398,0.0,0.0,0.0,-0.02032495,0.020026548,0.44010505,-0.177863,-0.0026363141,0.5325562,-0.1368066,0.10891499,-0.5147106,-0.20112962,0.10749871,-0.50938797,-0.1874753,-0.0018277992,0.061012816,0.07398956,0.016178127,0.064152844,0.016376184,-0.049813394,-0.047462456,0.050880205,-0.0016665936,-0.06843015,-0.008005,2.0,2.0,-2.0,-2.0,2.0,-2.0,2.0,-2.0,-2.0,2.0,-2.0,-2.0,2.0,2.0,-2.0,-2.0,2.0,-2.0,2.0,-2.0,-2.0,2.0,-2.0,-2.0
2025-06-05 10:38:29.900,0.037324455,0.025637733,0.037360597,-0.06251591,-0.042778727,0.044819325,0.0,0.0,0.0,-0.020324951,0.014527794,0.42613217,-0.18476507,-0.010534122,0.5428493,-0.13854825,0.09813254,-0.49877846,-0.19595547,0.09267452,-0.49890268,-0.17547375,0.021029988,-0.07305132,0.0461684,0.053173907,-0.050561268,-0.012004806,-0.025696287,0.05036774,-0.005334477,-0.047051694,0.026515536,-0.0040418394,2.0,2.0,-2.0,-2.0,2.0,-2.0,2.0,-2.0,-2.0,2.0,-2.0,-2.0,2.0,2.0,-2.0,-2.0,2.0,-2.0,2.0,-2.0,-2.0,2.0,-2.0,-2.0
2025-06-05 10:38:29.921,0.031060938,0.013244397,-0.048818912,-0.089629665,-0.005061555,-0.042326305,0.0,0.0,0.0,-0.020324951,0.017240793,0.42995006,-0.18315198,-0.006433893,0.5416063,-0.14585708,0.10229768,-0.508314,-0.19421323,0.099122666,-0.5010903,-0.1874889,-0.07002506,-0.067194365,0.0035911682,-0.044552237,0.028923728,0.06535931,-0.0480346,-0.040933874,0.0020574715,-0.059091236,0.023580812,-0.06728571,2.0,2.0,-2.0,-2.0,2.0,-2.0,2.0,-2.0,-2.0,2.0,-2.0,-2.0,2.0,2.0,-2.0,-2.0,2.0,-2.0,2.0,-2.0,-2.0,2.0,-2.0,-2.0
2025-06-05 10:38:29.940,0.035475522,-0.006428773,0.040479697,-0.087145284,-0.055534042,-0.015160765,0.0,0.0,0.0,-0.020324951,0.012425522,0.4337972,-0.19103354,-0.0047745393,0.54062986,-0.1304899,0.10278249,-0.51090884,-0.19806486,0.09631087,-0.5020406,-0.18939097,0.040750094,-0.03559235,0.07258135,0.027832689,-0.04970614,0.016955804,0.026961982,0.0012947301,-0.07486624,-0.01600104,0.0063321,0.0677151,2.0,2.0,-2.0,-2.0,2.0,-2.0,2.0,-2.0,-2.0,2.0,-2.0,-2.0,2.0,2.0,-2.0,-2.0,2.0,-2.0,2.0,-2.0,-2.0,2.0,-2.0,-2.0
2025-06-05 10:38:29.962,0.039733786,-0.024823643,-0.012373763,-0.06611266,-0.02679114,-0.028790677,0.0,0.0,0.0,-0.020324951,0.020899715,0.427843,-0.18583041,0.00038617302,0.5394208,-0.13109174,0.10206243,-0.5054902,-0.20151155,0.095353164,-0.50824916,-0.1842977,0.021510202,-0.04023855,0.068229906,-0.036840994,-0.013948782,-0.0064948383,-0.0209533,0.072353594,-0.04732979,-0.007935524,-0.018725362,-0.053605136,2.0,2.0,-2.0,-2.0,2.0,-2.0,2.0,-2.0,-2.0,2.0,-2.0,-2.0,2.0,2.0,-2.0,-2.0,2.0,-2.0,2.0,-2.0,-2.0,2.0,-2.0,-2.0
2025-06-05 10:38:29.981,0.004497532,0.023702305,-0.022023408,-0.04409725,0.0066894996,-0.010896061,0.0,0.0,0.0,-0.020324953,0.020444145,0.43511882,-0.18985258,0.001414279,0.5481928,-0.14203984,0.101074755,-0.5041182,-0.20165062,0.09083023,-0.5133347,-0.1842765,-0.026811574,-0.045495443,0.01137421,0.007264742,-0.07471666,0.014039891,-0.005596942,0.0026136085,0.008305501,-0.05436445,-0.008690995,-0.0180546,2.0,2.0,-2.0,-2.0,2.0,-2.0,2.0,-2.0,-2.0,2.0,-2.0,-2.0,2.0,2.0,-2.0,-2.0,2.0,-2.0,2.0,-2.0,-2.0,2.0,-2.0,-2.0
2025-06-05 10:38:30.000,0.033375643,-0.023292607,-0.038375847,-0.05524141,-0.013657996,0.018884085,0.0,0.0,0.0,-0.020324953,0.020570796,0.43069652,-0.18448521,0.001134273,0.55091584,-0.1375168,0.10024414,-0.5024936,-0.19599102,0.105222516,-0.49735054,-0.17468241,0.0066644195,-0.06022272,0.058470428,-0.053428065,0.007463875,-0.055626817,-0.028529964,-0.013041243,0.06944858,-0.06178888,0.064738244,-0.047490332,2.0,2.0,-2.0,-2.0,2.0,-2.0,2.0,-2.0,-2.0,2.0,-2.0,-2.0,2.0,2.0,-2.0,-2.0,2.0,-2.0,2.0,-2.0,-2.0,2.0,-2.0,-2.0
2025-06-05 10:38:30.021,0.008701518,-0.00502185,0.04174699,-0.03947318,-0.0505355,-0.04638638,0.0,0.0,0.0,-0.020324953,0.007208565,0.4418317,-0.19191128,-0.00043865544,0.53596354,-0.14164948,0.10157501,-0.5030306,-0.20268995,0.09471233,-0.5038672,-0.18628475,0.023553558,-0.0031503655,-0.037782878,0.044194378,0.058995668,-0.048896216,-0.029327746,0.061612833,0.001095671,-0.05717975,0.060817536,-0.04011498,2.0,2.0,-2.0,-2.0,2.0,-2.0,2.0,-2.0,-2.0,2.0,-2.0,-2.0,2.0,2.0,-2.0,-2.0,2.0,-2.0,2.0,-2.0,-2.0,2.0,-2.0,-2.0
2025-06-05 10:38:30.040,-0.006720239,0.0066769123,-0.022186494,-0.03907425,0.004394554,0.020761449,0.0,0.0,0.0,-0.020324953,0.00306136,0.4324163,-0.18196929,-0.011569289,0.544527,-0.13266157,0.09721988,-0.5081677,-0.18768573,0.097719975,-0.50511754,-0.17383826,0.044452544,0.003307889,-0.017903373,0.037166454,-0.010888481,-0.05383946,-0.030609818,0.008478755,0.01432978,-0.0073527265,-0.008515756,0.050198045,2.0,2.0,-2.0,-2.0,2.0,-2.0,2.0,-2.0,-2.0,2.0,-2.0,-2.0,2.0,2.0,-2.0,-2.0,2.0,-2.0,2.0,-2.0,-2.0,2.0,-2.0,-2.0
2025-06-05 10:38:30.061,-0.028650517,-0.017826213,-0.0012221013,-0.08063627,-0.06119042,-0.024434479,0.0,0.0,0.0,-0.020324953,0.006656383,0.42945123,-0.18593986,-0.00084933714,0.53322953,-0.14423776,0.09537562,-0.50659317,-0.18676777,0.09022954,-0.50244427,-0.17377809,-0.054655425,0.0578095,-0.039568566,-0.03445971,0.040187567,-0.03993299,0.06739629,-0.0047987057,0.014805928,-0.024505885,-0.032553993,0.07078212,2.0,2.0,-2.0,-2.0,2.0,-2.0,2.0,-2.0,-2.0,2.0,-2.0,-2.0,2.0,2.0,-2.0,-2.0,2.0,-2.0,2.0,-2.0,-2.0,2.0,-2.0,-2.0
2025-06-05 10:38:30.081,-0.022454018,-0.038139455,0.004768788,-0.12932582,-0.08492494,-0.0063122823,0.0,0.0,0.0,-0.020324953,0.020873291,0.43637058,-0.18582661,-0.013572528,0.5380305,-0.13006903,0.10046377,-0.51291245,-0.18698274,0.106552064,-0.50437623,-0.17978896,0.007836407,0.011696411,0.06251305,-0.066544846,0.0028895692,-0.065524794,0.057643842,0.015693106,-0.0061543263,0.053725876,0.02657285,-0.026110552,2.0,2.0,-2.0,-2.0,2.0,-2.0,2.0,-2.0,-2.0,2.0,-2.0,-2.0,2.0,2.0,-2.0,-2.0,2.0,-2.0,2.0,-2.0,-2.0,2.0,-2.0,-2.0
2025-06-05 10:38:30.103,-0.04972689,0.038596455,-0.038207415,-0.055857558,0.00032550064,0.048858866,0.0,0.0,0.0,-0.020324953,0.018520333,0.43513706,-0.18386015,-0.0018523129,0.54797494,-0.14375933,0.099662915,-0.5080264,-0.20049411,0.09108925,-0.5049422,-0.18278782,0.06691827,-0.05874264,0.05047923,-0.026091285,0.006412395,0.028097091,-0.023837337,0.030163186,-0.0021354726,0.03956991,-0.021672342,-0.048483573,2.0,2.0,-2.0,-2.0,2.0,-2.0,2.0,-2.0,-2.0,2.0,-2.0,-2.0,2.0,2.0,-2.0,-2.0,2.0,-2.0,2.0,-2.0,-2.0,2.0,-2.0,-2.0
2025-06-05 10:38:30.121,-0.011121673,0.033747826,0.0055163973,-0.057132233,-0.04413557,-0.03900824,0.0,0.0,0.0,-0.020324953,0.021904042,0.43686604,-0.19453552,-0.013113336,0.5490623,-0.13888101,0.11105426,-0.5090442,-0.18856823,0.10627448,-0.5012825,-0.17257611,0.010590539,-0.039713036,0.06298571,0.030576011,0.04070615,0.035975073,0.056717813,0.03670116,-0.013338564,-0.065445475,-0.04118767,-0.022834176,2.0,2.0,-2.0,-2.0,2.0,-2.0,2.0,-2.0,-2.0,2.0,-2.0,-2.0,2.0,2.0,-2.0,-2.0,2.0,-2.0,2.0,-2.0,-2.0,2.0,-2.0,-2.0
2025-06-05 10:38:30.143,0.02983889,-0.03963197,-0.027904753,-0.10119822,-0.089787096,-0.016742846,0.0,0.0,0.0,-0.020324953,0.016790306,0.43696132,-0.18947598,-0.008352768,0.5417935,-0.1372686,0.10671046,-0.50872225,-0.19911027,0.098282374,-0.50203556,-0.18086325,-0.03411012,-0.03185456,-0.014359992,-0.054573685,-0.013951295,0.059738267,-0.067000575,0.05874208,0.02886099,0.06253954,-0.0015365967,0.061421584,2.0,2.0,-2.0,-2.0,2.0,-2.0,2.0,-2.0,-2.0,2.0,-2.0,-2.0,2.0,2.0,-2.0,-2.0,2.0,-2.0,2.0,-2.0,-2.0,2.0,-2.0,-2.0
2025-06-05 10:38:30.161,-0.010394597,0.03771287,0.040325277,-0.06362743,-0.028012777,0.033170264,0.0,0.0,0.0,-0.020324953,0.01086321,0.43265682,-0.18354523,-0.010579983,0.54412115,-0.14366919,0.10878951,-0.49941832,-0.1984475,0.09049369,-0.5147506,-0.17584041,-0.036122028,0.04828467,0.004334056,-0.074704014,0.048786566,0.02385677,0.06981327,-0.053292975,-0.0069165207,0.0326731,-0.05122418,0.002807934,2.0,2.0,-2.0,-2.0,2.0,-2.0,2.0,-2.0,-2.0,2.0,-2.0,-2.0,2.0,2.0,-2.0,-2.0,2.0,-2.0,2.0,-2.0,-2.0,2.0,-2.0,-2.0
2025-06-05 10:38:30.181,0.036916353,-0.011310797,-0.026666755,-0.13199963,-0.015889931,-0.014887192,0.0,0.0,0.0,-0.020324953,0.007496915,0.44018131,-0.19028464,-0.0008238135,0.539887,-0.13693018,0.107989945,-0.5028252,-0.19736303,0.0971506,-0.50401515,-0.18928415,0.063227706,-0.005257346,0.0014248397,-0.057904553,0.049347784,0.024234626,-0.03815459,-0.023504449,0.022060497,0.061975107,-0.0037240929,0.011790047,2.0,2.0,-2.0,-2.0,2.0,-2.0,2.0,-2.0,-2.0,2.0,-2.0,-2.0,2.0,2.0,-2.0,-2.0,2.0,-2.0,2.0,-2.0,-2.0,2.0,-2.0,-2.0
2025-06-05 10:38:30.201,0.0004977844,0.035319004,0.0073240325,-0.1331594,-0.05151019,-0.022062326,0.0,0.0,0.0,-0.020324953,0.017773021,0.42685962,-0.1820878,0.0006954951,0.5452168,-0.14744826,0.11423344,-0.50826454,-0.1927792,0.09359964,-0.51146835,-0.18234392,0.024803681,0.04320252,0.005800079,-0.06811786,-0.010718138,0.0439769,0.012087393,0.050463423,0.011268628,0.04980462,-0.028326223,0.016146343,2.0,2.0,-2.0,-2.0,2.0,-2.0,2.0,-2.0,-2.0,2.0,-2.0,-2.0,2.0,2.0,-2.0,-2.0,2.0,-2.0,2.0,-2.0,-2.0,2.0,-2.0,-2.0
2025-06-05 10:38:30.221,-0.0138773555,-0.00499407,-0.0003651369,-0.115702726,-0.03661131,-0.04514179,0.0,0.0,0.0,-0.020324953,0.015595414,0.4403625,-0.18206161,-0.0077795205,0.5375993,-0.14275311,0.10009419,-0.49745744,-0.1955121,0.09783253,-0.50364846,-0.18739583,-0.062629975,0.015158913,-0.030137187,0.022494497,0.06359844,0.014695628,0.061386984,0.022853278,0.022837738,0.0069483984,0.06207239,0.03343907,2.0,2.0,-2.0,-2.0,2.0,-2.0,2.0,-2.0,-2.0,2.0,-2.0,-2.0,2.0,2.0,-2.0,-2.0,2.0,-2.0,2.0,-2.0,-2.0,2.0,-2.0,-2.0
2025-06-05 10:38:30.244,-0.03265929,-0.00942906,-0.038526077,-0.07193238,-0.019507062,-0.043401644,0.0,0.0,0.0,-0.020324953,0.019693444,0.4265196,-0.183588,-0.009028644,0.54158264,-0.13811356,0.09611419,-0.5024114,-0.1948833,0.10389627,-0.516019,-0.19000088,0.03740841,0.06849142,-0.010407309,0.003482749,0.04947853,0.014472047,0.0046052635,-0.016448172,0.0037966038,-0.0537917,-0.07304075,-0.06265847,2.0,2.0,-2.0,-2.0,2.0,-2.0,2.0,-2.0,-2.0,2.0,-2.0,-2.0,2.0,2.0,-2.0,-2.0,2.0,-2.0,2.0,-2.0,-2.0,2.0,-2.0,-2.0
2025-06-05 10:38:30.261,-0.017675538,-0.024769383,-0.04639437,-0.08476171,-0.068130545,0.037344906,0.0,0.0,0.0,-0.020324953,0.01928309,0.43179992,-0.18764558,-0.008340611,0.5377416,-0.13687459,0.09802879,-0.5037474,-0.19854847,0.09157617,-0.50902617,-0.17304316,0.027610147,-0.068793885,-0.051799588,-0.067665555,-0.0232205,0.03290768,0.066114396,0.0693725,0.07057731,0.033218328,-0.063707754,-0.046528507,2.0,2.0,-2.0,-2.0,2.0,-2.0,2.0,-2.0,-2.0,2.0,-2.0,-2.0,2.0,2.0,-2.0,-2.0,2.0,-2.0,2.0,-2.0,-2.0,2.0,-2.0,-2.0
2025-06-05 10:38:30.282,-0.03314966,0.033647433,0.033602037,-0.1249548,-0.08212616,-0.0072210436,0.0,0.0,0.0,-0.020324953,0.022493398,0.4289443,-0.19456495,-0.0022143496,0.53472805,-0.13738875,0.09918544,-0.49755052,-0.19978079,0.10418429,-0.50989854,-0.183321,-0.0589114,0.044042155,0.0208707,0.07064047,0.04675177,-0.03911384,0.060796946,0.020805003,0.0034469964,-0.041946955,-0.068239406,0.066913135,2.0,2.0,-2.0,-2.0,2.0,-2.0,2.0,-2.0,-2.0,2.0,-2.0,-2.0,2.0,2.0,-2.0,-2.0,2.0,-2.0,2.0,-2.0,-2.0,2.0,-2.0,-2.0
2025-06-05 10:38:30.302,0.03100849,-0.024115497,0.008428619,-0.05043383,-0.06299836,-0.039358456,0.0,0.0,0.0,-0.020324953,0.02200606,0.43428585,-0.19193141,0.0017120813,0.5329011,-0.13164103,0.0969369,-0.50799924,-0.19884992,0.1045617,-0.49988595,-0.17943545,0.063481234,0.06861472,0.018624842,0.07046317,0.050564695,0.037667967,-0.031513,-0.04411629,0.034507923,0.008774496,-0.06273892,0.010319721,2.0,2.0,-2.0,-2.0,2.0,-2.0,2.0,-2.0,-2.0,2.0,-2.0,-2.0,2.0,2.0,-2.0,-2.0,2.0,-2.0,2.0,-2.0,-2.0,2.0,-2.0,-2.0
2025-06-05 10:38:30.322,-0.0010440903,0.013381136,-0.015783202,-0.08468394,-0.084794775,-0.026857402,0.0,0.0,0.0,-0.020324953,0.010704995,0.44151962,-0.19395253,0.0018497071,0.5380789,-0.14863975,0.10891581,-0.49627036,-0.20377004,0.10668423,-0.50081605,-0.1827896,0.0030067768,0.07261525,0.0003559597,-0.035604205,-0.06046374,-0.0694501,0.055671863,-0.011607662,0.0026235892,-0.04954444,-0.03811317,0.017787423,2.0,2.0,-2.0,-2.0,2.0,-2.0,2.0,-2.0,-2.0,2.0,-2.0,-2.0,2.0,2.0,-2.0,-2.0,2.0,-2.0,2.0,-2.0,-2.0,2.0,-2.0,-2.0
2025-06-05 10:38:30.345,0.012991663,-0.04301055,0.04860967,-0.038048666,-0.083400585,-0.0010773346,0.0,0.0,0.0,-0.020324953,0.01784605,0.43168244,-0.1778747,0.0010035117,0.54042065,-0.13675784,0.10099763,-0.5028809,-0.18873131,0.1049796,-0.50402325,-0.18357916,0.05284551,-0.041359056,0.030854234,0.029092247,0.047125906,-0.07260877,-0.03400515,-0.054061927,0.044244405,-0.0073728077,-0.064747736,-0.035971664,2.0,2.0,-2.0,-2.0,2.0,-2.0,2.0,-2.0,-2.0,2.0,-2.0,-2.0,2.0,2.0,-2.0,-2.0,2.0,-2.0,2.0,-2.0,-2.0,2.0,-2.0,-2.0
2025-06-05 10:38:30.362,0.018978735,0.0077800527,0.037412662,-0.06029385,-0.07660046,-0.04864919,0.0,0.0,0.0,-0.020324953,0.022762572,0.44144607,-0.18224739,-0.008790036,0.54220206,-0.13226843,0.10308773,-0.4969862,-0.19300504,0.088448994,-0.5065778,-0.18761213,-0.066248834,-0.06569423,-0.070522554,0.0053838566,-0.04791147,-0.021518538,0.03388856,-0.001237097,0.05958686,0.021970797,0.013910767,-0.010698847,2.0,2.0,-2.0,-2.0,2.0,-2.0,2.0,-2.0,-2.0,2.0,-2.0,-2.0,2.0,2.0,-2.0,-2.0,2.0,-2.0,2.0,-2.0,-2.0,2.0,-2.0,-2.0
2025-06-05 10:38:30.382,-0.034423955,-0.043032233,0.015362508,-0.1192863,-0.064286746,-0.03245926,0.0,0.0,0.0,-0.020324953,0.014950303,0.42998186,-0.18079264,-0.0053833965,0.53911364,-0.13650204,0.10564665,-0.5022324,-0.1910266,0.08842236,-0.4985178,-0.19023557,-0.032959096,0.06038595,-0.06390883,-0.0337677,-0.06743223,0.042484775,-0.06587999,0.0029339122,-0.03109511,-0.010946309,0.062155522,0.028394723,2.0,2.0,-2.0,-2.0,2.0,-2.0,2.0,-2.0,-2.0,2.0,-2.0,-2.0,2.0,2.0,-2.0,-2.0,2.0,-2.0,2.0,-2.0,-2.0,2.0,-2.0,-2.0
2025-06-05 10:38:30.402,0.013851427,-0.037161905,0.013508047,-0.106956005,-0.032438163,0.0014509456,0.0,0.0,0.0,-0.020324953,0.020974454,0.42492744,-0.19216643,-0.0029377826,0.54347306,-0.14339821,0.110877894,-0.50481904,-0.20275523,0.088773824,-0.51445043,-0.17106344,0.0015813011,-0.048537284,-0.036161475,0.046736907,0.068552926,0.026350632,0.016799092,-0.06397553,-0.007954157,-0.06484153,0.030522196,-0.02816056,2.0,2.0,-2.0,-2.0,2.0,-2.0,2.0,-2.0,-2.0,2.0,-2.0,-2.0,2.0,2.0,-2.0,-2.0,2.0,-2.0,2.0,-2.0,-2.0,2.0,-2.0,-2.0
2025-06-05 10:38:30.422,-0.0064318767,0.03125743,-0.023768852,-0.12096278,-0.013464251,-0.004159521,0.0,0.0,0.0,-0.020324953,0.018604862,0.43545598,-0.18282789,-0.0019545464,0.5386148,-0.13996,0.10443057,-0.5020448,-0.19897893,0.09239054,-0.49647266,-0.17167448,0.052123845,0.062153567,-0.06774792,-0.020770634,0.046188943,-0.030165672,0.02370544,-0.025042405,0.011873999,0.05936539,-0.06598074,-0.032844055,2.0,2.0,-2.0,-2.0,2.0,-2.0,2.0,-2.0,-2.0,2.0,-2.0,-2.0,2.0,2.0,-2.0,-2.0,2.0,-2.0,2.0,-2.0,-2.0,2.0,-2.0,-2.0
2025-06-05 10:38:30.445,-0.012231766,0.01623482,-0.024434078,-0.053521015,0.0008438972,-0.02869401,0.0,0.0,0.0,-0.020324953,0.020800568,0.43972263,-0.185297,0.0021143928,0.5421281,-0.14186996,0.103311196,-0.49797025,-0.18819118,0.09318482,-0.4990376,-0.17732167,-0.046344314,-0.02548985,-0.011511757,0.016138073,-0.056046143,-0.064137325,0.029839525,-0.07283955,0.02985081,-0.0028860092,-0.005910302,-0.07238656,2.0,2.0,-2.0,-2.0,2.0,-2.0,2.0,-2.0,-2.0,2.0,-2.0,-2.0,2.0,2.0,-2.0,-2.0,2.0,-2.0,2.0,-2.0,-2.0,2.0,-2.0,-2.0
2025-06-05 10:38:30.463,0.042594347,0.009945594,-0.041102413,-0.037182402,-0.03863349,0.037713256,0.0,0.0,0.0,-0.020324953,0.018052105,0.4265902,-0.18065964,-0.008676615,0.55030024,-0.14378706,0.103806555,-0.505544,-0.1930965,0.10315446,-0.49943087,-0.18621542,0.0319831,0.06569434,-0.063320525,-0.029095886,0.04572183,0.019127132,-0.016379055,0.033012267,-0.002700398,-0.02033061,0.060013447,-0.0005350707,2.0,2.0,-2.0,-2.0,2.0,-2.0,2.0,-2.0,-2.0,2.0,-2.0,-2.0,2.0,2.0,-2.0,-2.0,2.0,-2.0,2.0,-2.0,-2.0,2.0,-2.0,-2.0
2025-06-05 10:38:30.482,-0.016645255,-0.017560754,0.0032857743,-0.120778166,-0.059028823,-0.01896522,0.0,0.0,0.0,-0.020324953,0.010557019,0.4272801,-0.1800669,-0.0021445288,0.5480634,-0.13101992,0.097496614,-0.49887338,-0.20500039,0.10481422,-0.51275426,-0.17849936,0.011476979,-0.01692905,-0.022315135,0.054428924,0.046096094,-0.007429151,-0.028565047,0.01997671,-0.0018005135,-0.06720583,-0.016004113,-0.0030919963,2.0,2.0,-2.0,-2.0,2.0,-2.0,2.0,-2.0,-2.0,2.0,-2.0,-2.0,2.0,2.0,-2.0,-2.0,2.0,-2.0,2.0,-2.0,-2.0,2.0,-2.0,-2.0
2025-06-05 10:38:30.503,0.030838745,-0.023132173,0.049595416,-0.11352913,-0.0073120794,-0.01638127,0.0,0.0,0.0,-0.020324953,0.021323191,0.43416795,-0.1846952,-0.0046323827,0.53754056,-0.1319586,0.098742075,-0.49939564,-0.19382697,0.10622751,-0.50951433,-0.18416464,-0.021045214,0.01848885,0.067379646,0.030705774,-0.03836494,0.028398285,0.07371672,-0.003318777,0.06324132,-0.06689838,-0.000568258,0.045830414,2.0,2.0,-2.0,-2.0,2.0,-2.0,2.0,-2.0,-2.0,2.0,-2.0,-2.0,2.0,2.0,-2.0,-2.0,2.0,-2.0,2.0,-2.0,-2.0,2.0,-2.0,-2.0
2025-06-05 10:38:30.523,0.015410582,0.02675665,0.03708266,-0.08093103,-0.047222592,-0.0016435853,0.0,0.0,0.0,-0.020324953,0.013490404,0.4327425,-0.17546079,-0.006618307,0.54066926,-0.13066767,0.10297332,-0.4985253,-0.19087298,0.099955544,-0.5036033,-0.1795181,-0.031176694,0.038609393,0.05494913,0.07369934,0.02688066,0.04887102,0.0699649,0.033468127,0.027972138,0.07188882,-0.027643645,0.02401614,2.0,2.0,-2.0,-2.0,2.0,-2.0,2.0,-2.0,-2.0,2.0,-2.0,-2.0,2.0,2.0,-2.0,-2.0,2.0,-2.0,2.0,-2.0,-2.0,2.0,-2.0,-2.0
2025-06-05 10:38:30.545,-0.035738558,-0.0070392285,-0.013075369,-0.11916689,-0.0843753,0.000872444,0.0,0.0,0.0,-0.020324953,0.010539435,0.43222535,-0.1835671,-0.014249282,0.53672147,-0.13827005,0.10790143,-0.5026829,-0.1944285,0.09541608,-0.49845612,-0.17927408,0.026882017,-0.06278794,0.043805707,-0.025546525,0.012998426,0.017322483,0.07111626,-0.04034225,-0.042762935,0.057254333,-0.015191131,0.014868483,2.0,2.0,-2.0,-2.0,2.0,-2.0,2.0,-2.0,-2.0,2.0,-2.0,-2.0,2.0,2.0,-2.0,-2.0,2.0,-2.0,2.0,-2.0,-2.0,2.0,-2.0,-2.0
2025-06-05 10:38:30.563,-0.034179248,-0.0068176026,-0.034173913,-0.03544089,-0.07215395,-0.0007017765,0.0,0.0,0.0,-0.020324955,0.022579877,0.427388,-0.18758081,-0.01111951,0.53957707,-0.13204964,0.113737784,-0.5110362,-0.20138176,0.10716235,-0.5156188,-0.1704862,-0.029827468,0.061715744,-0.02220171,0.037528876,0.057579074,0.0655882,0.053074293,0.00059720734,-0.02856835,0.017714325,0.010423304,-0.0007344869,2.0,2.0,-2.0,-2.0,2.0,-2.0,2.0,-2.0,-2.0,2.0,-2.0,-2.0,2.0,2.0,-2.0,-2.0,2.0,-2.0,2.0,-2.0,-2.0,2.0,-2.0,-2.0
2025-06-05 10:38:30.583,-0.029023474,0.019617338,-0.01735755,-0.05049157,-0.06224409,0.028538508,0.0,0.0,0.0,-0.020324955,0.005529419,0.43000698,-0.18351755,-0.010468343,0.5484624,-0.13885297,0.10918624,-0.5097873,-0.20545794,0.094233915,-0.5046044,-0.18550418,0.026866658,0.07188231,0.012326719,-0.073817745,-0.025248153,0.03247923,0.012273674,0.030554395,0.001952879,0.009244583,-0.04929399,0.015080063,2.0,2.0,-2.0,-2.0,2.0,-2.0,2.0,-2.0,-2.0,2.0,-2.0,-2.0,2.0,2.0,-2.0,-2.0,2.0,-2.0,2.0,-2.0,-2.0,2.0,-2.0,-2.0
2025-06-05 10:38:30.603,0.044972222,0.008933255,0.038706586,-0.07291969,-0.08899574,0.0026323888,0.0,0.0,0.0,-0.020324955,0.009226417,0.42648482,-0.184847,-0.016094098,0.5480536,-0.13033897,0.10023325,-0.5097941,-0.19678685,0.09576913,-0.49761078,-0.18360524,0.05490787,-0.003791988,0.0128146745,-0.0096737705,-0.054196667,-0.027897742,0.06931273,0.020246772,0.06587855,-0.040893674,0.049797162,0.07396419,2.0,2.0,-2.0,-2.0,2.0,-2.0,2.0,-2.0,-2.0,2.0,-2.0,-2.0,2.0,2.0,-2.0,-2.0,2.0,-2.0,2.0,-2.0,-2.0,2.0,-2.0,-2.0
2025-06-05 10:38:30.623,0.031588983,-0.04668368,0.0007401528,-0.11469778,-0.014100854,0.016377961,0.0,0.0,0.0,-0.020324955,0.02108835,0.43979192,-0.18059197,0.0022647863,0.5492885,-0.14493558,0.09872898,-0.4968362,-0.19844241,0.094610356,-0.5007879,-0.1805424,-0.0014543831,-0.027829843,-0.03435217,-0.06895859,0.06573509,-0.03497283,0.008623868,0.07049352,-0.050665088,-0.033389974,0.059162553,0.001306771,2.0,2.0,-2.0,-2.0,2.0,-2.0,2.0,-2.0,-2.0,2.0,-2.0,-2.0,2.0,2.0,-2.0,-2.0,2.0,-2.0,2.0,-2.0,-2.0,2.0,-2.0,-2.0
2025-06-05 10:38:30.645,-0.0304565,0.011279884,0.0027407086,-0.105106264,-0.0001982479,-0.04109057,0.0,0.0,0.0,-0.020324955,0.007883237,0.43164885,-0.18774489,-0.007952843,0.5406635,-0.1357836,0.112702504,-0.5061011,-0.19338833,0.10594756,-0.5121406,-0.18217929,-0.016430723,-0.016041568,0.011429621,-0.0193328,-0.0018599589,-0.071837686,0.042094234,-0.06965727,0.04169055,-0.04802904,0.062428825,-0.029806526,2.0,2.0,-2.0,-2.0,2.0,-2.0,2.0,-2.0,-2.0,2.0,-2.0,-2.0,2.0,2.0,-2.0,-2.0,2.0,-2.0,2.0,-2.0,-2.0,2.0,-2.0,-2.0
2025-06-05 10:38:30.664,0.018250689,0.022204747,0.035842657,-0.10878922,-0.01994657,-0.00224655,0.0,0.0,0.0,-0.020324955,0.0034059533,0.42646974,-0.18527237,0.0014493747,0.53499544,-0.13890101,0.11450307,-0.5084158,-0.19412088,0.101103805,-0.5137511,-0.17855518,0.037656557,0.07208907,0.01018267,-0.01760566,-0.07342956,-0.02655604,0.013473434,-0.05128097,0.029465316,-0.0012743586,-0.055248484,-0.07122465,2.0,2.0,-2.0,-2.0,2.0,-2.0,2.0,-2.0,-2.0,2.0,-2.0,-2.0,2.0,2.0,-2.0,-2.0,2.0,-2.0,2.0,-2.0,-2.0,2.0,-2.0,-2.0
2025-06-05 10:38:30.684,0.048981458,-0.004889822,-0.016709654,-0.1051126,-0.0089094965,-0.038860034,0.0,0.0,0.0,-0.020324955,0.015702281,0.43080086,-0.18846181,-0.0048205084,0.55019873,-0.14254646,0.110861026,-0.5040943,-0.19453695,0.08810234,-0.4981048,-0.18636176,0.033287715,-0.07489981,-0.04900008,0.06933119,-0.070276104,-0.056282777,-4.091845e-05,-0.062238734,0.07061404,0.042844873,0.05330251,0.06289347,2.0,2.0,-2.0,-2.0,2.0,-2.0,2.0,-2.0,-2.0,2.0,-2.0,-2.0,2.0,2.0,-2.0,-2.0,2.0,-2.0,2.0,-2.0,-2.0,2.0,-2.0,-2.0
2025-06-05 10:38:30.704,0.0146602625,0.01874028,-0.012372794,-0.0773768,-0.08659548,-0.014650177,0.0,0.0,0.0,-0.020324955,0.018231023,0.4354641,-0.1837725,0.00083273667,0.54902625,-0.14559323,0.106024384,-0.51187056,-0.19477765,0.097658075,-0.49855712,-0.17700244,-0.043236304,0.05757761,-0.06389416,0.061551582,-0.010677105,-0.029304462,-0.060261887,0.016473446,-0.013946882,-0.02099942,0.028130995,0.007137368,2.0,2.0,-2.0,-2.0,2.0,-2.0,2.0,-2.0,-2.0,2.0,-2.0,-2.0,2.0,2.0,-2.0,-2.0,2.0,-2.0,2.0,-2.0,-2.0,2.0,-2.0,-2.0
2025-06-05 10:38:30.725,0.0313463,0.016313678,0.046512406,-0.10973599,-0.046718508,0.039858736,0.0,0.0,0.0,-0.020324955,0.005684408,0.43986282,-0.19296479,0.0014848129,0.55048704,-0.1450194,0.107603684,-0.5067497,-0.19899665,0.09404419,-0.5127019,-0.18831891,0.028190158,0.031981435,0.021855168,-0.043656748,0.061015688,-0.061505128,-0.018082567,-0.040888388,-0.06985937,-0.04942679,0.064665616,0.052775607,2.0,2.0,-2.0,-2.0,2.0,-2.0,2.0,-2.0,-2.0,2.0,-2.0,-2.0,2.0,2.0,-2.0,-2.0,2.0,-2.0,2.0,-2.0,-2.0,2.0,-2.0,-2.0
2025-06-05 10:38:30.745,-0.031512108,-0.010296773,0.034277424,-0.06367034,-0.0369974,0.040383395,0.0,0.0,0.0,-0.020324955,0.016011765,0.42387518,-0.1755326,-0.013312698,0.5395106,-0.144759,0.10062082,-0.50285953,-0.20395505,0.09443439,-0.50071543,-0.18737058,-0.045141518,-0.038737774,0.00018209904,-0.009093279,-0.056770302,0.021633875,-0.042391434,0.014866519,-0.01934469,0.0059208423,-0.051281407,-0.06298673,2.0,2.0,-2.0,-2.0,2.0,-2.0,2.0,-2.0,-2.0,2.0,-2.0,-2.0,2.0,2.0,-2.0,-2.0,2.0,-2.0,2.0,-2.0,-2.0,2.0,-2.0,-2.0
2025-06-05 10:38:30.764,0.046088524,0.02674737,-0.041714262,-0.061072085,0.007416904,-0.04302374,0.0,0.0,0.0,-0.020324955,0.017603938,0.4334715,-0.19465813,-0.016931614,0.53545034,-0.1487896,0.10923456,-0.50467205,-0.2054059,0.08853373,-0.514592,-0.18967128,-0.064074874,0.03931031,0.06004415,0.05692293,-0.010178555,-0.058656447,0.06458012,-0.029854251,-0.016712131,-0.041563068,0.023337176,0.034501094,2.0,2.0,-2.0,-2.0,2.0,-2.0,2.0,-2.0,-2.0,2.0,-2.0,-2.0,2.0,2.0,-2.0,-2.0,2.0,-2.0,2.0,-2.0,-2.0,2.0,-2.0,-2.0
2025-06-05 10:38:30.784,0.008056529,-0.021921925,0.011043251,-0.09672355,-0.007735209,0.034424663,0.0,0.0,0.0,-0.020324955,0.003882603,0.43012577,-0.18394513,0.0012140634,0.5414604,-0.13048673,0.11113224,-0.5124536,-0.19627377,0.092060335,-0.5136327,-0.18249331,-0.054010604,0.07224965,0.028773518,-0.041161772,0.06663284,-0.06767183,0.027898781,-0.06913183,-0.057980068,-0.049673907,0.002735552,0.026533935,2.0,2.0,-2.0,-2.0,2.0,-2.0,2.0,-2.0,-2.0,2.0,-2.0,-2.0,2.0,2.0,-2.0,-2.0,2.0,-2.0,2.0,-2.0,-2.0,2.0,-2.0,-2.0
2025-06-05 10:38:30.804,0.0023160044,-0.0100932,-0.008004805,-0.039834462,-0.010105392,0.049103606,0.0,0.0,0.0,-0.020324955,0.006896347,0.4362235,-0.19120885,-0.010728651,0.5463573,-0.14662094,0.09575436,-0.5017202,-0.19822726,0.10590116,-0.5099879,-0.17328803,0.07453124,0.0017533809,0.040564734,-0.0064274054,-0.05408636,-0.009487169,0.04242699,0.04993491,0.01903619,-0.016576335,-0.043894794,0.0267455,2.0,2.0,-2.0,-2.0,2.0,-2.0,2.0,-2.0,-2.0,2.0,-2.0,-2.0,2.0,2.0,-2.0,-2.0,2.0,-2.0,2.0,-2.0,-2.0,2.0,-2.0,-2.0
2025-06-05 10:38:30.827,0.017115373,0.04993234,0.029506346,-0.12829229,-0.0017406049,0.015477824,0.0,0.0,0.0,-0.020324955,0.01195828,0.4382925,-0.17667253,-0.003104809,0.5494663,-0.14100043,0.099645324,-0.49809748,-0.1954897,0.102915876,-0.5084344,-0.18932015,-0.06514478,-0.04030501,-0.07343855,-0.011965045,0.06644339,-0.023360487,-0.037530653,0.04778993,-0.045037124,0.030537779,-0.010946149,0.020562408,2.0,2.0,-2.0,-2.0,2.0,-2.0,2.0,-2.0,-2.0,2.0,-2.0,-2.0,2.0,2.0,-2.0,-2.0,2.0,-2.0,2.0,-2.0,-2.0,2.0,-2.0,-2.0
2025-06-05 10:38:30.845,-0.008866024,0.020974323,-0.0022398906,-0.06058062,-0.06829451,0.0029166033,0.0,0.0,0.0,-0.020324955,0.0045169247,0.44103318,-0.18806884,-0.008392832,0.53574663,-0.13601114,0.102287784,-0.51045185,-0.19557671,0.10537196,-0.49920046,-0.17751847,-0.071877494,0.05494591,0.014452891,-0.044467244,-0.039313257,-0.06341369,0.031859346,0.027831964,-0.020293618,0.03169129,-0.070362434,0.058803994,2.0,2.0,-2.0,-2.0,2.0,-2.0,2.0,-2.0,-2.0,2.0,-2.0,-2.0,2.0,2.0,-2.0,-2.0,2.0,-2.0,2.0,-2.0,-2.0,2.0,-2.0,-2.0
2025-06-05 10:38:30.865,-0.032690052,0.03769207,-0.043755036,-0.03758122,-0.05607053,0.011366965,0.0,0.0,0.0,-0.020324955,0.015553324,0.43300664,-0.19368416,-0.01593067,0.5457958,-0.13995768,0.105213,-0.5025839,-0.19974987,0.09778616,-0.5066992,-0.17520635,-0.051212,0.046085816,-0.03509086,-0.0630262,-0.05494889,0.038452517,0.029241176,-0.0091256555,0.06025036,-0.053874377,0.054331373,0.0385627,2.0,2.0,-2.0,-2.0,2.0,-2.0,2.0,-2.0,-2.0,2.0,-2.0,-2.0,2.0,2.0,-2.0,-2.0,2.0,-2.0,2.0,-2.0,-2.0,2.0,-2.0,-2.0
2025-06-05 10:38:30.885,-0.025335044,0.008412795,-0.040635005,-0.090488724,-0.038532,-0.022897227,0.0,0.0,0.0,-0.020324955,0.005446278,0.4237682,-0.17810187,-0.013187833,0.544712,-0.13099298,0.1115946,-0.49994037,-0.1878802,0.09856468,-0.5091325,-0.17259923,-0.03681204,-0.05664268,0.024114342,0.06562808,-0.014202944,-0.040496647,0.06460519,-0.0012603342,-0.05148525,-0.05529354,-0.072206244,-0.017326316,2.0,2.0,-2.0,-2.0,2.0,-2.0,2.0,-2.0,-2.0,2.0,-2.0,-2.0,2.0,2.0,-2.0,-2.0,2.0,-2.0,2.0,-2.0,-2.0,2.0,-2.0,-2.0
2025-06-05 10:38:30.905,-0.016982203,-0.018279726,0.0065921308,-0.09538049,-0.031973958,-0.021234183,0.0,0.0,0.0,-0.020324955,0.0187105,0.42341912,-0.1872049,-0.0048259795,0.53723264,-0.13995765,0.11050991,-0.5081468,-0.2032283,0.091205716,-0.5025307,-0.18536888,-0.01718833,-0.07405207,-0.008956171,-0.060780156,0.04792665,-0.05644987,-0.022464518,0.0552121,-0.054012977,0.0012469708,0.055088166,-0.03538259,2.0,2.0,-2.0,-2.0,2.0,-2.0,2.0,-2.0,-2.0,2.0,-2.0,-2.0,2.0,2.0,-2.0,-2.0,2.0,-2.0,2.0,-2.0,-2.0,2.0,-2.0,-2.0
2025-06-05 10:38:30.927,0.043141756,-0.027118936,-0.037444104,-0.08067046,-0.04906089,-0.039016586,0.0,0.0,0.0,-0.020324955,0.010707677,0.43909833,-0.18564676,-0.0158887,0.5417367,-0.14037573,0.09800153,-0.49646005,-0.20084833,0.10164766,-0.51456785,-0.18834971,0.05276287,0.046514194,0.036615245,-0.00043415203,0.051118735,-0.023519209,0.044600442,-0.02153569,-0.049571365,-0.032876175,-0.049991496,-0.010672429,2.0,2.0,-2.0,-2.0,2.0,-2.0,2.0,-2.0,-2.0,2.0,-2.0,-2.0,2.0,2.0,-2.0,-2.0,2.0,-2.0,2.0,-2.0,-2.0,2.0,-2.0,-2.0
2025-06-05 10:38:30.945,0.017791672,-0.04805716,-0.014361547,-0.09876796,-0.0140897315,-0.024252474,0.0,0.0,0.0,-0.020324955,0.015176075,0.4351015,-0.19511268,-0.010128539,0.54190797,-0.14646788,0.09492474,-0.50501317,-0.20443961,0.09467588,-0.5059801,-0.1860898,0.039637115,0.0010950356,0.07070515,0.0690463,0.04196513,0.026508821,-0.04589522,0.054855116,0.01765119,0.074809864,-0.040846936,-0.03552003,2.0,2.0,-2.0,-2.0,2.0,-2.0,2.0,-2.0,-2.0,2.0,-2.0,-2.0,2.0,2.0,-2.0,-2.0,2.0,-2.0,2.0,-2.0,-2.0,2.0,-2.0,-2.0
