openverse-orca/OrcaGym/log/simulation_log_20250605_103215.csv
timestamp,imu_angle_roll,imu_angle_pitch,imu_angle_yaw,imu_angular_velocity_roll,imu_angular_velocity_pitch,imu_angular_velocity_yaw,imu_acc_x,imu_acc_y,imu_acc_z,fl_joint1_pos,fl_joint1_vel,fl_joint1_torque,fl_joint2_pos,fl_joint2_vel,fl_joint2_torque,fl_joint3_pos,fl_joint3_vel,fl_joint3_torque,fr_joint1_pos,fr_joint1_vel,fr_joint1_torque,fr_joint2_pos,fr_joint2_vel,fr_joint2_torque,fr_joint3_pos,fr_joint3_vel,fr_joint3_torque,hl_joint1_pos,hl_joint1_vel,hl_joint1_torque,hl_joint2_pos,hl_joint2_vel,hl_joint2_torque,hl_joint3_pos,hl_joint3_vel,hl_joint3_torque,hr_joint1_pos,hr_joint1_vel,hr_joint1_torque,hr_joint2_pos,hr_joint2_vel,hr_joint2_torque,hr_joint3_pos,hr_joint3_vel,hr_joint3_torque,fl_force_x,fl_force_y,fl_force_z,fr_force_x,fr_force_y,fr_force_z,hl_force_x,hl_force_y,hl_force_z,hr_force_x,hr_force_y,hr_force_z,fl_hip_action,fl_thigh_action,fl_calf_action,fr_hip_action,fr_thigh_action,fr_calf_action,hl_hip_action,hl_thigh_action,hl_calf_action,hr_hip_action,hr_thigh_action,hr_calf_action
2025-06-05 10:32:15.681,-0.0005848424,0.013272984,0.006267003,-0.009592261,0.034753267,0.041598354,2.1764033,0.48880965,0.0,0.0,-0.00340119,0.007467069,-0.006989491,-0.0025985632,-0.0069883796,0.008732733,0.0073184166,-0.00086575147,0.0052605765,0.006081901,-0.0033195848,-0.0023029177,-0.011571682,-0.0008044455,-0.014570512,-0.02411243,-0.05613942,0.06552988,-0.01908635,0.048817325,0.005467579,0.07428085,0.032356557,0.0029845724,0.0,0.0,0.0,0.0,0.0,0.0,0.0,0.0,0.0,0.0,0.0,0.0,-2.0,2.0,-1.6310471,2.0,2.0,-2.0,-2.0,-2.0,-2.0,2.0,2.0,-2.0
2025-06-05 10:32:15.688,-0.1276125,-0.05306658,-0.11967436,-0.01355484,-0.01076352,0.034254607,0.0,0.0,0.0,0.0,-0.030530326,0.11939675,-0.07243655,0.02370772,0.13721734,-0.09300155,-0.023649996,-0.12704594,-0.06397624,0.03223813,0.13464493,-0.088253334,-0.11054906,0.439158,-0.11182346,0.09490569,0.32756075,-0.24224822,-0.095147125,-0.31313178,-0.27489924,0.013691409,0.310868,-0.27167732,-2.0,2.0,-1.6310471,2.0,2.0,-2.0,-2.0,-2.0,-2.0,2.0,2.0,-2.0,-2.0,2.0,-2.0,2.0,2.0,-2.0,-2.0,-2.0,-2.0,2.0,-2.0,-2.0
2025-06-05 10:32:15.705,-0.016488776,-0.3241624,0.033375535,-0.06621308,-0.012569875,-0.039537705,0.0,0.0,0.0,0.0014141867,-0.055560306,0.2333139,-0.14074826,0.06169046,0.2559695,-0.15052184,-0.049730297,-0.26336604,-0.14862402,0.061886452,0.040961172,-0.1171239,-0.09060932,0.15321907,-0.2057712,0.008635104,0.24586405,-0.09239748,-0.047461316,-0.3946013,-0.119934104,-0.00091473054,-0.35981104,-0.08296375,-2.0,2.0,-2.0,2.0,2.0,-2.0,-2.0,-2.0,-2.0,2.0,-2.0,-2.0,-2.0,2.0,-2.0,2.0,2.0,-2.0,-2.0,-2.0,-2.0,2.0,-2.0,-2.0
2025-06-05 10:32:15.726,-0.119591996,-0.4248705,0.18466422,-0.06869966,-0.012771471,0.047993105,0.0,0.0,0.0,0.0011503794,-0.071615316,0.28906474,-0.1773884,0.08603055,0.32362998,-0.20955196,-0.08425761,-0.38376507,-0.21466911,0.07861862,-0.07672856,-0.09909671,-0.04019702,0.1773684,-0.11386271,0.10029577,0.29581606,-0.14438722,0.0066714715,-0.28669873,-0.15009236,0.048145298,-0.29030627,0.06497504,-2.0,2.0,-2.0,2.0,2.0,-2.0,-2.0,-2.0,-2.0,2.0,-2.0,-2.0,-2.0,-1.8642776,-2.0,2.0,2.0,-2.0,0.79526156,-2.0,-2.0,2.0,-2.0,-2.0
2025-06-05 10:32:15.745,0.2165861,-0.75005114,-0.025106376,-0.088810645,-0.05360592,0.022864403,0.0,0.0,0.0,-0.00084598095,-0.10602016,0.18299928,-0.18827641,0.09861797,0.42227158,-0.2662028,-0.07220744,-0.48893422,-0.26698735,0.11098857,-0.18624519,-0.13784668,-0.03339687,-0.33488378,-0.0951548,0.036604837,0.2629509,-0.11442309,0.04640706,-0.26269016,-0.16723199,0.13117974,-0.2876392,-0.13375998,-2.0,-1.8642776,-2.0,2.0,2.0,-2.0,0.79526156,-2.0,-2.0,2.0,-2.0,-2.0,-2.0,2.0,-2.0,-2.0,2.0,-2.0,2.0,-2.0,-2.0,2.0,-2.0,-2.0
2025-06-05 10:32:15.766,0.16763474,-0.46327552,-0.012590578,-0.12733422,-0.11293549,0.037139818,0.0,0.0,0.0,-0.0015603574,-0.1435682,0.26649773,-0.2398066,0.07628127,0.53354293,-0.3033756,-0.028232608,-0.58537436,-0.31421325,0.12861288,-0.3034828,-0.1477451,-0.053434867,0.2363705,-0.14148776,-0.15416731,0.1763277,-0.11296242,0.0061801895,-0.1326726,0.027201477,0.004444096,-0.28740683,-0.049817476,-2.0,2.0,-2.0,-2.0,2.0,-2.0,2.0,-2.0,-2.0,2.0,-2.0,-2.0,2.0,2.0,-2.0,-2.0,2.0,-2.0,2.0,-2.0,-2.0,2.0,-2.0,-2.0
2025-06-05 10:32:15.789,0.2235518,-0.2956584,0.03706823,-0.042045318,-0.16058308,0.024897145,0.0,0.0,0.0,-0.0025728785,-0.10550636,0.37568343,-0.28653276,0.02042765,0.6057744,-0.33913726,-0.016548349,-0.6509285,-0.31369784,0.14885353,-0.38513616,-0.13344717,0.112312235,0.21848261,-0.17360426,-0.11712396,0.17765072,-0.14945939,0.06316819,-0.123992704,-0.070916586,-0.007616495,-0.11735246,0.018617751,2.0,2.0,-2.0,-2.0,2.0,-2.0,2.0,-2.0,-2.0,2.0,-2.0,-2.0,2.0,2.0,-2.0,-2.0,2.0,-2.0,2.0,-2.0,-2.0,2.0,-2.0,-2.0
2025-06-05 10:32:15.806,0.1202782,-0.21033649,0.10099109,-0.041115593,-0.22895718,0.039190385,0.0,0.0,0.0,-0.003925394,-0.04722966,0.46901378,-0.3402694,-0.017693412,0.6575766,-0.36903238,0.0057997312,-0.69331133,-0.32950708,0.17476077,-0.44517455,-0.14045915,0.17081623,0.22773273,-0.073528446,-0.03622305,0.16630365,-0.08434192,0.06653586,-0.15079431,-0.010519846,0.006748819,-0.1523561,0.043754723,2.0,2.0,-2.0,-2.0,2.0,-2.0,2.0,-2.0,-2.0,2.0,-2.0,-2.0,2.0,2.0,-2.0,-2.0,2.0,-2.0,2.0,-2.0,-2.0,2.0,-2.0,-2.0
2025-06-05 10:32:15.827,0.19357444,-0.07099462,-0.005057301,-0.03628629,-0.1907573,0.0011588002,0.0,0.0,0.0,-0.0056257434,0.0037749268,0.5594266,-0.36360636,-0.047827985,0.7165602,-0.39413023,0.045295794,-0.74384713,-0.34482336,0.19567975,-0.51523685,-0.18505056,0.11480642,0.122389786,-0.11153138,-0.120277055,0.1832018,-0.13534285,0.09601975,-0.16613775,-0.05731443,0.064272575,-0.16212425,-0.08428997,2.0,2.0,-2.0,-2.0,2.0,-2.0,2.0,-2.0,-2.0,2.0,-2.0,-2.0,2.0,2.0,-2.0,-2.0,2.0,-2.0,2.0,-2.0,-2.0,2.0,-2.0,-2.0
2025-06-05 10:32:15.847,0.07178231,-0.076583356,0.03518174,-0.07093237,-0.23039311,-0.0034586315,0.0,0.0,0.0,-0.0072344323,0.039316524,0.639669,-0.4034054,-0.07150657,0.75195014,-0.43190303,0.07192982,-0.7674533,-0.37182918,0.20313244,-0.5803941,-0.23192851,0.07581457,0.12115604,-0.051772736,-0.13773078,0.12402779,0.013444248,0.047915574,-0.08427556,-0.08752958,-0.03625519,-0.19552177,-0.079551004,2.0,2.0,-2.0,-2.0,2.0,-2.0,2.0,-2.0,-2.0,2.0,-2.0,-2.0,2.0,2.0,-2.0,-2.0,2.0,-2.0,2.0,-2.0,-2.0,2.0,-2.0,-2.0
2025-06-05 10:32:15.866,0.044134386,0.053268995,0.07270519,-0.05574434,-0.23755819,-0.016978871,0.0,0.0,0.0,-0.00884379,0.07023731,0.68703854,-0.42566124,-0.10689294,0.7969738,-0.43800205,0.07417061,-0.8090282,-0.37744334,0.21391939,-0.6478214,-0.2747724,0.021760488,0.10427059,-0.011136408,-0.021469994,0.03814021,0.007472432,0.04668859,-0.073290445,-0.06524316,0.016479667,-0.14027411,-0.11458655,2.0,2.0,-2.0,-2.0,2.0,-2.0,2.0,-2.0,-2.0,2.0,-2.0,-2.0,2.0,2.0,-2.0,-2.0,2.0,-2.0,2.0,-2.0,-2.0,2.0,-2.0,-2.0
2025-06-05 10:32:15.889,0.10964138,0.20383783,0.08396111,-0.06909816,-0.2094769,0.03277789,0.0,0.0,0.0,-0.010504506,0.10654901,0.74072164,-0.44090894,-0.12486685,0.8306092,-0.45301166,0.1041566,-0.8407616,-0.40252995,0.20393834,-0.70206326,-0.31032008,0.07235593,0.13325779,-0.084723815,0.0037686161,0.13102286,-0.09082133,0.06748804,-0.05025476,-0.08414512,0.06269917,-0.08521996,-0.059299313,2.0,2.0,-2.0,-2.0,2.0,-2.0,2.0,-2.0,-2.0,2.0,-2.0,-2.0,2.0,2.0,-2.0,-2.0,2.0,-2.0,2.0,-2.0,-2.0,2.0,-2.0,-2.0
2025-06-05 10:32:15.907,0.08213,0.23080693,0.081047244,0.00030581298,-0.17862932,-0.042930923,0.0,0.0,0.0,-0.012296813,0.12639515,0.7759012,-0.44345286,-0.12962922,0.8532163,-0.46982163,0.114681765,-0.8748763,-0.4069019,0.21098013,-0.741741,-0.3489688,0.025402576,0.16592324,-0.05204175,-0.018986322,0.051530927,-0.08521228,0.08880453,-0.090115294,-0.0062659513,0.020602863,-0.15345237,-0.13635406,2.0,2.0,-2.0,-2.0,2.0,-2.0,2.0,-2.0,-2.0,2.0,-2.0,-2.0,2.0,2.0,-2.0,-2.0,2.0,-2.0,2.0,-2.0,-2.0,2.0,-2.0,-2.0
2025-06-05 10:32:15.928,0.06878301,0.11324456,0.0462624,0.0037550807,-0.15368871,0.028783262,0.0,0.0,0.0,-0.014359741,0.14585191,0.80583185,-0.43284532,-0.14084883,0.86105716,-0.46291775,0.14749363,-0.897954,-0.414127,0.22620125,-0.79120386,-0.37843302,-0.010303606,0.051732425,0.088949434,0.05491609,0.084267445,0.02675261,0.039661735,-0.049431276,-0.063982,-0.019991582,-0.08140045,-0.00790063,2.0,2.0,-2.0,-2.0,2.0,-2.0,2.0,-2.0,-2.0,2.0,-2.0,-2.0,2.0,2.0,-2.0,-2.0,2.0,-2.0,2.0,-2.0,-2.0,2.0,-2.0,-2.0
2025-06-05 10:32:15.949,0.002964044,-0.12317578,0.03514187,-0.053236984,-0.15465362,-0.036707994,0.0,0.0,0.0,-0.016754072,0.14795303,0.80623317,-0.37898213,-0.15010662,0.8750889,-0.4398651,0.13838921,-0.92346644,-0.42657954,0.22533657,-0.82179755,-0.37769705,0.009304231,0.06062101,0.11125564,0.022882098,0.09615084,0.037273176,-0.03375214,-0.1512734,0.007760444,-0.026396347,-0.07098823,0.010738054,2.0,2.0,-2.0,-2.0,2.0,-2.0,2.0,-2.0,-2.0,2.0,-2.0,-2.0,2.0,2.0,-2.0,-2.0,2.0,-2.0,2.0,-2.0,-2.0,2.0,-2.0,-2.0
2025-06-05 10:32:15.967,-0.032577656,-0.17364198,0.08895513,0.008334365,-0.16148113,0.04631519,0.0,0.0,0.0,-0.01819176,0.15094191,0.8200295,-0.3668167,-0.15081361,0.8823101,-0.4165376,0.14368933,-0.9685831,-0.42228696,0.22833814,-0.85075676,-0.38736475,0.04062503,0.0034330937,0.0509024,-0.012172294,0.030824225,0.086950146,-0.0020253526,-0.027597873,-0.003955525,0.01992102,-0.025664106,0.031990696,2.0,2.0,-2.0,-2.0,2.0,-2.0,2.0,-2.0,-2.0,2.0,-2.0,-2.0,2.0,2.0,-2.0,-2.0,2.0,-2.0,2.0,-2.0,-2.0,2.0,-2.0,-2.0
2025-06-05 10:32:15.989,-0.082308635,-0.11578396,-0.035596475,-0.0275764,-0.23166327,0.03536027,0.0,0.0,0.0,-0.018841468,0.16502321,0.85118943,-0.3835624,-0.14238437,0.85819983,-0.4077936,0.14778616,-0.98867667,-0.42917082,0.23242982,-0.86248106,-0.41065586,0.07579618,0.06322925,-0.0057952898,0.038791396,0.044003498,0.029254088,-0.010524231,-0.06845638,-0.043794006,0.0019380904,-0.084979564,-0.018139772,2.0,2.0,-2.0,-2.0,2.0,-2.0,2.0,-2.0,-2.0,2.0,-2.0,-2.0,2.0,2.0,-2.0,-2.0,2.0,-2.0,2.0,-2.0,-2.0,2.0,-2.0,-2.0
2025-06-05 10:32:16.007,0.04654937,-0.022789046,-0.04658084,-0.023104649,-0.18229327,-0.0125168525,0.0,0.0,0.0,-0.018575298,0.16297771,0.85517186,-0.403134,-0.14545807,0.8649155,-0.43231815,0.15145823,-0.99816483,-0.44183925,0.22506379,-0.87634945,-0.43859914,-0.03791918,0.033709817,-0.021598542,0.0096981125,0.02771763,0.003256659,-0.004096764,0.019183015,-0.038084365,-0.048633102,0.020057203,-0.06291336,2.0,2.0,-2.0,-2.0,2.0,-2.0,2.0,-2.0,-2.0,2.0,-2.0,-2.0,2.0,2.0,-2.0,-2.0,2.0,-2.0,2.0,-2.0,-2.0,2.0,-2.0,-2.0
2025-06-05 10:32:16.028,0.06503223,-0.06309637,-0.021107076,0.003009636,-0.26342544,0.005664953,0.0,0.0,0.0,-0.018275829,0.16474323,0.8587705,-0.42079943,-0.13491872,0.8724148,-0.42643982,0.16765034,-1.0135703,-0.44625205,0.20752864,-0.8864527,-0.45517236,-0.05828719,0.06779497,0.019882841,0.06969244,-0.01831408,-0.030994486,-0.031546578,-0.07446319,-0.07074235,-0.012863652,-0.022437595,-0.018209953,2.0,2.0,-2.0,-2.0,2.0,-2.0,2.0,-2.0,-2.0,2.0,-2.0,-2.0,2.0,2.0,-2.0,-2.0,2.0,-2.0,2.0,-2.0,-2.0,2.0,-2.0,-2.0
2025-06-05 10:32:16.047,0.030695496,-0.09145292,0.00075706444,-0.02873386,-0.23131917,0.046035647,0.0,0.0,0.0,-0.018131843,0.1677366,0.85797876,-0.4255427,-0.13745005,0.8720648,-0.4329057,0.16385582,-1.0229795,-0.4572048,0.2209103,-0.9106676,-0.47051838,-0.060860958,0.071681194,-0.07837365,-0.07432469,0.0018007325,-0.030496905,-0.053503633,-0.06970855,0.0041773547,0.030687535,-0.010025872,-0.060079575,2.0,2.0,-2.0,-2.0,2.0,-2.0,2.0,-2.0,-2.0,2.0,-2.0,-2.0,2.0,2.0,-2.0,-2.0,2.0,-2.0,2.0,-2.0,-2.0,2.0,-2.0,-2.0
2025-06-05 10:32:16.067,0.017528698,-0.016640235,-0.052294828,0.0021476462,-0.24886855,-0.012026014,0.0,0.0,0.0,-0.017876556,0.16395964,0.8800917,-0.44487098,-0.1486391,0.880137,-0.44114864,0.18349443,-1.0236268,-0.4641258,0.21205603,-0.91390514,-0.4712029,-0.0054435353,0.006406593,-0.09746778,0.027105097,-0.010447431,-0.048139066,0.072175816,-0.08145636,-0.023801478,-0.06706514,-0.043746892,0.022262713,2.0,2.0,-2.0,-2.0,2.0,-2.0,2.0,-2.0,-2.0,2.0,-2.0,-2.0,2.0,2.0,-2.0,-2.0,2.0,-2.0,2.0,-2.0,-2.0,2.0,-2.0,-2.0
2025-06-05 10:32:16.089,0.04920341,-0.01541459,0.029164627,-0.048354577,-0.2549742,-0.007085487,0.0,0.0,0.0,-0.017481528,0.16881236,0.8895355,-0.4626157,-0.14974652,0.875184,-0.4528056,0.17276211,-1.035495,-0.4692696,0.19755177,-0.9093734,-0.4865668,-0.031020913,-0.05247529,-0.10470932,-0.021486165,0.0011245286,-0.07718903,-0.005157303,-0.06937453,-0.055884235,0.06540289,0.021598207,-0.018461067,2.0,2.0,-2.0,-2.0,2.0,-2.0,2.0,-2.0,-2.0,2.0,-2.0,-2.0,2.0,2.0,-2.0,-2.0,2.0,-2.0,2.0,-2.0,-2.0,2.0,-2.0,-2.0
2025-06-05 10:32:16.108,0.048101306,-0.045326125,0.005628048,-0.07976977,-0.27917704,0.011880424,0.0,0.0,0.0,-0.017233588,0.1632591,0.899265,-0.47047403,-0.14663954,0.89342946,-0.46017113,0.17125005,-1.0529395,-0.46452886,0.20374498,-0.920217,-0.4818362,0.069716066,-0.05944807,0.011793441,-0.027969252,0.046153277,0.033419088,0.033139545,0.041088726,0.033552345,0.021366788,-0.00857573,-0.0055547943,2.0,2.0,-2.0,-2.0,2.0,-2.0,2.0,-2.0,-2.0,2.0,-2.0,-2.0,2.0,2.0,-2.0,-2.0,2.0,-2.0,2.0,-2.0,-2.0,2.0,-2.0,-2.0
2025-06-05 10:32:16.127,-0.03819601,-0.024114937,0.04305943,-0.07921891,-0.26517692,0.0040236106,0.0,0.0,0.0,-0.017114216,0.1597555,0.8924531,-0.48664427,-0.14210697,0.8898555,-0.47748655,0.17252344,-1.0589414,-0.4723599,0.1977454,-0.9209936,-0.5033453,0.0584558,0.037862714,-0.013292064,-0.051323,0.081257485,0.051764138,0.014006382,-0.06026735,-0.021318406,0.07418036,0.020130986,0.056820724,2.0,2.0,-2.0,-2.0,2.0,-2.0,2.0,-2.0,-2.0,2.0,-2.0,-2.0,2.0,2.0,-2.0,-2.0,2.0,-2.0,2.0,-2.0,-2.0,2.0,-2.0,-2.0
2025-06-05 10:32:16.148,0.052053735,-0.069570474,0.037321616,-0.08920016,-0.28003934,-0.028680937,0.0,0.0,0.0,-0.017063262,0.17368971,0.8948855,-0.49469122,-0.15620805,0.88695043,-0.4726154,0.17658861,-1.0486209,-0.46334335,0.20535967,-0.92779535,-0.49827757,0.06278978,0.06979824,-0.040898554,0.004032603,-0.05465907,-0.061072454,0.0059367367,0.056781985,0.03380886,0.0014895778,0.030887457,0.02863808,2.0,2.0,-2.0,-2.0,2.0,-2.0,2.0,-2.0,-2.0,2.0,-2.0,-2.0,2.0,2.0,-2.0,-2.0,2.0,-2.0,2.0,-2.0,-2.0,2.0,-2.0,-2.0
2025-06-05 10:32:16.168,0.03226946,0.0154576665,0.010886084,-0.049825683,-0.23096092,0.03568718,0.0,0.0,0.0,-0.017033393,0.17319717,0.8953898,-0.48770908,-0.1491908,0.904319,-0.49351373,0.18795434,-1.0548247,-0.46571422,0.20338511,-0.9358591,-0.49465755,0.0049784337,0.063420735,-0.023482958,-0.067545496,0.07140448,0.036281,0.035401102,-0.017518023,-0.01313742,0.060679596,0.00550646,0.05402912,2.0,2.0,-2.0,-2.0,2.0,-2.0,2.0,-2.0,-2.0,2.0,-2.0,-2.0,2.0,2.0,-2.0,-2.0,2.0,-2.0,2.0,-2.0,-2.0,2.0,-2.0,-2.0
2025-06-05 10:32:16.190,0.031030508,0.024153281,0.029138122,-0.054820918,-0.28311032,0.005897197,0.0,0.0,0.0,-0.017074246,0.16121066,0.91500574,-0.4876533,-0.14761612,0.91210645,-0.48261523,0.17693305,-1.0556989,-0.48314005,0.20685992,-0.9405184,-0.5037386,0.0007495835,-0.046903282,-0.059326585,0.005871309,-0.040403865,-0.058693774,0.056908574,0.017018178,0.024220662,-0.04327566,-0.04517866,-0.034626592,2.0,2.0,-2.0,-2.0,2.0,-2.0,2.0,-2.0,-2.0,2.0,-2.0,-2.0,2.0,2.0,-2.0,-2.0,2.0,-2.0,2.0,-2.0,-2.0,2.0,-2.0,-2.0
2025-06-05 10:32:16.209,-0.0044067693,0.02844689,0.00073858944,-0.06996923,-0.25618747,-0.04557006,0.0,0.0,0.0,-0.01719866,0.17277205,0.90729445,-0.49457043,-0.14134514,0.8973357,-0.48867512,0.18318675,-1.0729151,-0.4782613,0.21092741,-0.93888396,-0.5097504,0.04402875,0.03342275,-0.077418566,0.06264031,0.062186453,-0.051781185,-0.031106036,0.021795409,-0.029246753,-0.019888403,0.01827263,-0.05704183,2.0,2.0,-2.0,-2.0,2.0,-2.0,2.0,-2.0,-2.0,2.0,-2.0,-2.0,2.0,2.0,-2.0,-2.0,2.0,-2.0,2.0,-2.0,-2.0,2.0,-2.0,-2.0
2025-06-05 10:32:16.229,-0.043445352,-0.061531864,0.021440115,-0.006170759,-0.19811894,-0.004137762,0.0,0.0,0.0,-0.01735467,0.17569126,0.9223247,-0.5139052,-0.14289567,0.8983897,-0.491991,0.19457185,-1.0624907,-0.4760985,0.19392143,-0.9376063,-0.5126871,-0.0658049,-0.0036872684,-0.06548821,0.06485123,0.0055351523,-0.07573801,0.0138896275,-0.018970808,0.055182893,-0.0077781696,0.06377795,0.05112913,2.0,2.0,-2.0,-2.0,2.0,-2.0,2.0,-2.0,-2.0,2.0,-2.0,-2.0,2.0,2.0,-2.0,-2.0,2.0,-2.0,2.0,-2.0,-2.0,2.0,-2.0,-2.0
2025-06-05 10:32:16.249,0.010409452,-0.03380467,0.03464856,-0.010481143,-0.27098784,-0.0192369,0.0,0.0,0.0,-0.017497899,0.17437142,0.9244508,-0.51621616,-0.14060698,0.91317946,-0.4956499,0.18442605,-1.0644585,-0.47781557,0.20203848,-0.9383101,-0.52071226,0.026206976,0.078606494,0.01775268,-0.043460675,0.06982074,0.06313247,-0.005944193,-0.037702303,0.055456292,0.0030126064,-0.040802885,-0.006589139,2.0,2.0,-2.0,-2.0,2.0,-2.0,2.0,-2.0,-2.0,2.0,-2.0,-2.0,2.0,2.0,-2.0,-2.0,2.0,-2.0,2.0,-2.0,-2.0,2.0,-2.0,-2.0
2025-06-05 10:32:16.272,-0.010970166,-0.0620242,-0.019446386,-0.08852538,-0.21029815,-0.04119547,0.0,0.0,0.0,-0.017630579,0.16935238,0.9243212,-0.51491755,-0.15280767,0.91540504,-0.49174643,0.18223597,-1.0698501,-0.48075968,0.20137346,-0.94204444,-0.5165707,-0.067834884,0.04307178,0.02532994,0.03820145,-0.008816204,-0.050136365,-0.010098231,-0.0055442317,-0.07868852,0.066105254,0.033034068,-0.07385625,2.0,2.0,-2.0,-2.0,2.0,-2.0,2.0,-2.0,-2.0,2.0,-2.0,-2.0,2.0,2.0,-2.0,-2.0,2.0,-2.0,2.0,-2.0,-2.0,2.0,-2.0,-2.0
2025-06-05 10:32:16.290,-0.0039544255,-0.03772779,0.029848637,-0.07856882,-0.24750786,0.015627356,0.0,0.0,0.0,-0.01775342,0.17754698,0.9173417,-0.5142666,-0.13871288,0.9121479,-0.5108867,0.1784464,-1.0719714,-0.48137212,0.20099023,-0.9540765,-0.51137334,-0.014319598,-0.059254665,0.05788695,0.031798728,0.051543683,-0.073749356,0.05354078,-0.05264762,-0.0064682746,-0.07089556,0.053836685,-0.015629303,2.0,2.0,-2.0,-2.0,2.0,-2.0,2.0,-2.0,-2.0,2.0,-2.0,-2.0,2.0,2.0,-2.0,-2.0,2.0,-2.0,2.0,-2.0,-2.0,2.0,-2.0,-2.0
2025-06-05 10:32:16.310,-0.044229645,-0.042341743,-0.043888927,-0.08106003,-0.24420337,0.01918814,0.0,0.0,0.0,-0.017865295,0.16342033,0.9121638,-0.5251801,-0.14739266,0.90993094,-0.511202,0.19712296,-1.0671822,-0.49267584,0.19491342,-0.9430935,-0.5172781,0.045727957,-0.058974866,-0.053130943,-0.005731686,0.029356875,-0.007376577,-0.021381743,0.054678015,0.0662364,-0.0728733,-0.03465848,-0.035959374,2.0,2.0,-2.0,-2.0,2.0,-2.0,2.0,-2.0,-2.0,2.0,-2.0,-2.0,2.0,2.0,-2.0,-2.0,2.0,-2.0,2.0,-2.0,-2.0,2.0,-2.0,-2.0
2025-06-05 10:32:16.330,0.041982528,-0.0154305035,0.0052762954,-0.08105843,-0.2806545,0.027644854,0.0,0.0,0.0,-0.01797155,0.17235836,0.9227164,-0.50993675,-0.15432718,0.9190843,-0.49961504,0.1820404,-1.0734595,-0.48356962,0.19537157,-0.9486374,-0.52248114,-0.046411693,-0.037783943,0.009225372,0.0019759072,0.0019585255,-0.009929303,-0.0097669335,-0.03459224,-0.060451694,-0.022409761,-0.04977704,0.039135862,2.0,2.0,-2.0,-2.0,2.0,-2.0,2.0,-2.0,-2.0,2.0,-2.0,-2.0,2.0,2.0,-2.0,-2.0,2.0,-2.0,2.0,-2.0,-2.0,2.0,-2.0,-2.0
2025-06-05 10:32:16.350,-0.033379633,-0.01893824,0.025703577,-0.03452209,-0.25499177,-0.031387255,0.0,0.0,0.0,-0.01807371,0.16485807,0.9212483,-0.5147942,-0.13841748,0.9083847,-0.49987632,0.18836465,-1.0742105,-0.5025553,0.2058494,-0.9626204,-0.5180955,-0.020961244,0.036246523,-0.047443226,-0.036988962,-0.061065674,-0.05902777,-0.006743668,0.06518552,-0.07213415,0.0061579975,-0.006856591,0.03902863,2.0,2.0,-2.0,-2.0,2.0,-2.0,2.0,-2.0,-2.0,2.0,-2.0,-2.0,2.0,2.0,-2.0,-2.0,2.0,-2.0,2.0,-2.0,-2.0,2.0,-2.0,-2.0
2025-06-05 10:32:16.372,0.00897745,0.0128353005,0.010171663,-0.08806567,-0.29851615,0.008776419,0.0,0.0,0.0,-0.018171566,0.16021849,0.9174946,-0.52790135,-0.13857557,0.90641063,-0.50441724,0.18151325,-1.0726591,-0.5078289,0.20452486,-0.9675418,-0.52312565,0.038926084,0.043577235,0.02082933,-0.0014334441,-0.0154826455,-0.03220137,-0.037084818,-0.010830779,-0.020950904,-0.04932101,-0.07554272,-0.03620997,2.0,2.0,-2.0,-2.0,2.0,-2.0,2.0,-2.0,-2.0,2.0,-2.0,-2.0,2.0,2.0,-2.0,-2.0,2.0,-2.0,2.0,-2.0,-2.0,2.0,-2.0,-2.0
2025-06-05 10:32:16.390,-0.029208964,0.035854343,0.05106513,-0.0362491,-0.2755179,-0.028454596,0.0,0.0,0.0,-0.01826458,0.16497084,0.9238535,-0.5253039,-0.14909211,0.90756494,-0.5144,0.18612425,-1.0838382,-0.5032565,0.20516005,-0.9582464,-0.52384585,-0.0450891,-0.0061179893,0.03994688,-0.026062282,-0.022379633,-0.035551652,-0.059799854,0.028709661,-0.051783834,0.057226386,-0.053104725,0.05400324,2.0,2.0,-2.0,-2.0,2.0,-2.0,2.0,-2.0,-2.0,2.0,-2.0,-2.0,2.0,2.0,-2.0,-2.0,2.0,-2.0,2.0,-2.0,-2.0,2.0,-2.0,-2.0
2025-06-05 10:32:16.410,-0.0015698661,-0.02509628,0.0122053055,-0.02756268,-0.22250499,-0.043553572,0.0,0.0,0.0,-0.018352428,0.17297867,0.919388,-0.53479,-0.15143691,0.9254197,-0.5226673,0.18641037,-1.08521,-0.507239,0.19850487,-0.9665691,-0.51651645,0.025486948,-0.0039824652,-0.063594274,-0.0010450684,-0.008895338,-0.03526557,0.07378875,0.012608521,0.00917438,0.070911534,0.002020135,-0.04544686,2.0,2.0,-2.0,-2.0,2.0,-2.0,2.0,-2.0,-2.0,2.0,-2.0,-2.0,2.0,2.0,-2.0,-2.0,2.0,-2.0,2.0,-2.0,-2.0,2.0,-2.0,-2.0
2025-06-05 10:32:16.430,0.044765778,-0.046781614,-0.009791199,-0.0012672156,-0.2198034,-0.011972226,0.0,0.0,0.0,-0.018435175,0.1707642,0.9351147,-0.53546196,-0.14018208,0.92574495,-0.5099806,0.18531215,-1.07712,-0.51068157,0.19061199,-0.95161784,-0.52521616,0.05217901,-0.02540034,0.053097036,-0.044602636,0.0095425695,-0.021529587,0.021527201,0.06412748,0.0089669805,-0.004226982,-0.036348403,0.022816632,2.0,2.0,-2.0,-2.0,2.0,-2.0,2.0,-2.0,-2.0,2.0,-2.0,-2.0,2.0,2.0,-2.0,-2.0,2.0,-2.0,2.0,-2.0,-2.0,2.0,-2.0,-2.0
2025-06-05 10:32:16.450,-0.014845886,0.03286982,-0.04395597,-0.022325182,-0.29296577,0.04294942,0.0,0.0,0.0,-0.0185134,0.17402422,0.92839944,-0.5343046,-0.15445314,0.91907316,-0.52284914,0.19927451,-1.0824361,-0.5055719,0.19766256,-0.96483177,-0.5237814,0.06721941,-0.006969396,0.036550604,-0.006694488,0.0122195985,0.040163677,0.003363852,-0.056751713,-0.07290747,0.028048286,0.04055415,-0.07640659,2.0,2.0,-2.0,-2.0,2.0,-2.0,2.0,-2.0,-2.0,2.0,-2.0,-2.0,2.0,2.0,-2.0,-2.0,2.0,-2.0,2.0,-2.0,-2.0,2.0,-2.0,-2.0
2025-06-05 10:32:16.472,0.009581026,-0.025940077,0.012197293,-0.014689278,-0.2419213,0.0023779229,0.0,0.0,0.0,-0.018587945,0.15744396,0.9247813,-0.5358122,-0.13614523,0.9139104,-0.5212961,0.18751788,-1.0831372,-0.5121023,0.19062285,-0.96264815,-0.52436274,0.047870208,-0.032657042,0.04652469,-0.026930947,-0.04244979,-0.057164162,-0.06694461,0.036778584,-0.020838851,-0.027065817,-0.039887402,-0.048625723,2.0,2.0,-2.0,-2.0,2.0,-2.0,2.0,-2.0,-2.0,2.0,-2.0,-2.0,2.0,2.0,-2.0,-2.0,2.0,-2.0,2.0,-2.0,-2.0,2.0,-2.0,-2.0
2025-06-05 10:32:16.491,0.0229548,-0.00080136873,-0.01366373,-0.0054087187,-0.29791448,0.009691229,0.0,0.0,0.0,-0.01865844,0.15880008,0.9250134,-0.53456044,-0.15411685,0.9155194,-0.51302224,0.19914003,-1.0833284,-0.50978583,0.20761473,-0.96651095,-0.53384215,0.019113347,0.010773922,0.003958499,-0.06485588,0.037954703,0.0005112086,0.07221244,-0.00547337,-0.0071960264,-0.03273966,0.061582442,0.012928669,2.0,2.0,-2.0,-2.0,2.0,-2.0,2.0,-2.0,-2.0,2.0,-2.0,-2.0,2.0,2.0,-2.0,-2.0,2.0,-2.0,2.0,-2.0,-2.0,2.0,-2.0,-2.0
2025-06-05 10:32:16.510,-0.035926066,0.035210826,-0.012025184,-0.021556951,-0.25758258,-0.003351859,0.0,0.0,0.0,-0.018724551,0.17091766,0.9377796,-0.5231043,-0.14763044,0.9183348,-0.5266031,0.1969301,-1.0745816,-0.51182956,0.1994469,-0.9642704,-0.5222471,-0.026401479,0.07083375,-0.06621282,0.052361786,0.00068871665,-0.029722067,-0.004388754,0.023279186,0.012602393,-0.07039017,-0.04040023,0.03833255,2.0,2.0,-2.0,-2.0,2.0,-2.0,2.0,-2.0,-2.0,2.0,-2.0,-2.0,2.0,2.0,-2.0,-2.0,2.0,-2.0,2.0,-2.0,-2.0,2.0,-2.0,-2.0
2025-06-05 10:32:16.531,0.033396836,-0.02877537,-0.04271241,-0.07158944,-0.2111351,0.015504524,0.0,0.0,0.0,-0.018782899,0.16617343,0.93027955,-0.52493733,-0.13801448,0.9288765,-0.5217117,0.19925418,-1.0789632,-0.5056703,0.19540276,-0.9666458,-0.5219208,0.07112003,-0.030298606,-0.07468411,-0.07453054,-0.044701956,0.032317035,0.06826529,0.020573193,0.069186084,-0.04098754,-0.0026121482,-0.06401961,2.0,2.0,-2.0,-2.0,2.0,-2.0,2.0,-2.0,-2.0,2.0,-2.0,-2.0,2.0,2.0,-2.0,-2.0,2.0,-2.0,2.0,-2.0,-2.0,2.0,-2.0,-2.0
2025-06-05 10:32:16.552,0.035687566,0.038919494,0.00065932586,-0.06963096,-0.22292328,0.021667326,0.0,0.0,0.0,-0.018832825,0.17299531,0.9386493,-0.5362617,-0.13649942,0.92851245,-0.5106507,0.20061482,-1.0897149,-0.51949763,0.2056933,-0.97249895,-0.52173644,0.0060375207,0.011581298,-0.06285472,-0.071986124,-0.011426922,-0.016290233,0.0029480173,-0.030063646,0.059681278,0.05250613,0.04431257,-0.0119700115,2.0,2.0,-2.0,-2.0,2.0,-2.0,2.0,-2.0,-2.0,2.0,-2.0,-2.0,2.0,2.0,-2.0,-2.0,2.0,-2.0,2.0,-2.0,-2.0,2.0,-2.0,-2.0
2025-06-05 10:32:16.572,-0.029796587,-0.05129337,0.02168371,-0.0119640995,-0.27629903,-0.029727444,0.0,0.0,0.0,-0.018875021,0.16813898,0.9333268,-0.532014,-0.14919984,0.92016524,-0.5294145,0.19176838,-1.0825921,-0.5233587,0.20642497,-0.9584884,-0.528513,-0.05675097,0.016097084,-0.01086609,-0.021588797,0.016362835,-0.021115176,-0.03186632,0.011802978,0.044382464,0.038641617,0.025212316,-0.059083167,2.0,2.0,-2.0,-2.0,2.0,-2.0,2.0,-2.0,-2.0,2.0,-2.0,-2.0,2.0,2.0,-2.0,-2.0,2.0,-2.0,2.0,-2.0,-2.0,2.0,-2.0,-2.0
2025-06-05 10:32:16.591,-0.021816712,0.023719203,0.039831426,-0.08373902,-0.24035773,0.019810434,0.0,0.0,0.0,-0.018909618,0.17280965,0.9296459,-0.52921736,-0.1440848,0.91899157,-0.52419525,0.1874299,-1.08496,-0.52073807,0.2007164,-0.97447896,-0.5272584,-0.04033958,0.07147322,-0.060641762,-0.03736133,-0.07069925,-0.031885017,-0.011196976,-0.053254742,0.0512706,0.041596126,0.022222176,0.034316238,2.0,2.0,-2.0,-2.0,2.0,-2.0,2.0,-2.0,-2.0,2.0,-2.0,-2.0,2.0,2.0,-2.0,-2.0,2.0,-2.0,2.0,-2.0,-2.0,2.0,-2.0,-2.0
2025-06-05 10:32:16.611,0.009046399,0.044774372,0.0004703057,-0.024578035,-0.22638923,0.019772561,0.0,0.0,0.0,-0.0189373,0.16126496,0.9372924,-0.5329593,-0.14055337,0.9152092,-0.5127314,0.18727231,-1.0799294,-0.5180928,0.2060911,-0.9767841,-0.5232229,0.01808189,0.07125091,-0.017729811,0.059298377,-0.03319998,0.06138031,0.03658089,0.058452595,0.0454241,-0.046808284,0.012550314,0.048923023,2.0,2.0,-2.0,-2.0,2.0,-2.0,2.0,-2.0,-2.0,2.0,-2.0,-2.0,2.0,2.0,-2.0,-2.0,2.0,-2.0,2.0,-2.0,-2.0,2.0,-2.0,-2.0
2025-06-05 10:32:16.631,0.0313036,-0.013871092,0.014397588,-0.034880914,-0.26464272,-0.009536005,0.0,0.0,0.0,-0.01895978,0.17055401,0.9329344,-0.5324181,-0.14953153,0.9115174,-0.5238353,0.19485697,-1.0857568,-0.51758975,0.18957977,-0.9762457,-0.5224948,0.012804597,-0.034340173,-0.066984,-0.04889911,0.037224572,0.03855194,-0.04482101,0.010716982,-0.060990747,-0.015727626,0.031709995,-0.070657685,2.0,2.0,-2.0,-2.0,2.0,-2.0,2.0,-2.0,-2.0,2.0,-2.0,-2.0,2.0,2.0,-2.0,-2.0,2.0,-2.0,2.0,-2.0,-2.0,2.0,-2.0,-2.0
2025-06-05 10:32:16.651,0.015789857,-0.019425122,-0.038088847,-0.04672847,-0.28989556,0.002508557,0.0,0.0,0.0,-0.018977921,0.16322753,0.9303012,-0.538112,-0.14049686,0.9158526,-0.5166437,0.19739228,-1.090421,-0.5109841,0.19851176,-0.95999914,-0.5349444,-0.069496185,-0.004652536,0.0049314653,-0.032314874,-0.032741,0.0004544533,-0.034507062,-0.015572869,0.03438232,0.03137468,0.03449717,-0.07130418,2.0,2.0,-2.0,-2.0,2.0,-2.0,2.0,-2.0,-2.0,2.0,-2.0,-2.0,2.0,2.0,-2.0,-2.0,2.0,-2.0,2.0,-2.0,-2.0,2.0,-2.0,-2.0
2025-06-05 10:32:16.672,0.0030528181,-0.0080756545,0.019166477,-0.020437602,-0.29613486,-0.046186928,0.0,0.0,0.0,-0.018992526,0.17171831,0.93797386,-0.53976774,-0.15212242,0.9223846,-0.5218699,0.18561889,-1.0764973,-0.5130503,0.20896053,-0.97805434,-0.527044,-0.065679714,0.032022223,0.041962937,0.05135336,0.0723544,0.042855877,0.013327387,-0.0089205755,-0.033829022,0.018823901,-0.04557096,-0.04509735,2.0,2.0,-2.0,-2.0,2.0,-2.0,2.0,-2.0,-2.0,2.0,-2.0,-2.0,2.0,2.0,-2.0,-2.0,2.0,-2.0,2.0,-2.0,-2.0,2.0,-2.0,-2.0
2025-06-05 10:32:16.693,-0.029413378,0.01982123,-0.0053787655,-0.06923084,-0.24832337,-0.018468667,0.0,0.0,0.0,-0.019004349,0.17096724,0.92937696,-0.5281733,-0.14120862,0.9305911,-0.5331438,0.18642697,-1.0794194,-0.5171776,0.20757496,-0.9622227,-0.5324725,-0.009879961,0.067434765,-0.020694243,-0.05105395,-0.029222084,-0.020042006,-0.0010386392,-0.052171294,-0.022056727,-0.026175996,0.016223654,0.012525399,2.0,2.0,-2.0,-2.0,2.0,-2.0,2.0,-2.0,-2.0,2.0,-2.0,-2.0,2.0,2.0,-2.0,-2.0,2.0,-2.0,2.0,-2.0,-2.0,2.0,-2.0,-2.0
2025-06-05 10:32:16.712,0.0095176725,-0.043126322,0.03218939,-0.037363492,-0.24930707,-0.015490205,0.0,0.0,0.0,-0.019014016,0.17005287,0.9411072,-0.53575146,-0.14645243,0.92039764,-0.52879095,0.18887757,-1.0878357,-0.50722706,0.19411406,-0.96587867,-0.52699786,0.041038077,0.020609815,0.044583153,0.059827026,0.005165995,-0.031844962,0.017246898,-0.0716852,0.06669406,0.000943174,-0.05051931,-0.003934086,2.0,2.0,-2.0,-2.0,2.0,-2.0,2.0,-2.0,-2.0,2.0,-2.0,-2.0,2.0,2.0,-2.0,-2.0,2.0,-2.0,2.0,-2.0,-2.0,2.0,-2.0,-2.0
2025-06-05 10:32:16.732,0.025622286,-0.002258374,0.050157744,-0.0018486761,-0.22801642,-0.025290538,0.0,0.0,0.0,-0.019022029,0.16157098,0.94358003,-0.5395383,-0.13648692,0.9157334,-0.52883714,0.1892066,-1.0768967,-0.5111044,0.2006323,-0.9677402,-0.52285594,-0.072477855,-0.07461338,-0.00031818825,-0.018789124,-0.06798657,0.048460588,0.058045212,0.050692882,-0.0147029,0.03869888,0.042518687,0.07073069,2.0,2.0,-2.0,-2.0,2.0,-2.0,2.0,-2.0,-2.0,2.0,-2.0,-2.0,2.0,2.0,-2.0,-2.0,2.0,-2.0,2.0,-2.0,-2.0,2.0,-2.0,-2.0
2025-06-05 10:32:16.755,0.0010063205,0.040365677,-0.023983248,-0.0075083505,-0.26718962,0.00983699,0.0,0.0,0.0,-0.019028785,0.15786788,0.93313247,-0.5316233,-0.13749056,0.9297477,-0.52130854,0.19416673,-1.0765171,-0.5196778,0.20337898,-0.9708923,-0.5352653,0.054407656,-0.038959317,-0.012333903,-0.07330495,0.050705787,0.040229313,-0.049475536,0.0049627395,0.064800695,0.0012375962,0.06745785,0.0020358944,2.0,2.0,-2.0,-2.0,2.0,-2.0,2.0,-2.0,-2.0,2.0,-2.0,-2.0,2.0,2.0,-2.0,-2.0,2.0,-2.0,2.0,-2.0,-2.0,2.0,-2.0,-2.0
2025-06-05 10:32:16.772,0.026216902,0.029683998,0.021562375,-0.008391084,-0.23737098,0.03584005,0.0,0.0,0.0,-0.01903459,0.1643313,0.9334346,-0.5283685,-0.15302755,0.9271296,-0.52639633,0.19712946,-1.0915215,-0.5147137,0.19022268,-0.97291213,-0.52531356,0.07050477,0.06231778,-0.009816634,-0.065785624,-0.05332877,-0.02124508,-0.06912748,-0.04921371,0.070985086,-0.06275949,-0.019935943,-0.002912685,2.0,2.0,-2.0,-2.0,2.0,-2.0,2.0,-2.0,-2.0,2.0,-2.0,-2.0,2.0,2.0,-2.0,-2.0,2.0,-2.0,2.0,-2.0,-2.0,2.0,-2.0,-2.0
2025-06-05 10:32:16.792,-0.021114716,0.006954008,-0.044684492,-0.05086505,-0.21473801,-0.012726993,0.0,0.0,0.0,-0.019039694,0.16550876,0.92771286,-0.52780026,-0.14163677,0.9303186,-0.5323943,0.19080594,-1.0909058,-0.5161393,0.2065359,-0.96573067,-0.5258683,0.061925698,0.06957208,0.069752745,0.07415718,-0.057441235,-0.042125326,-0.06497866,-0.059945192,-0.0014891681,0.028995499,-0.027824176,-0.03134558,2.0,2.0,-2.0,-2.0,2.0,-2.0,2.0,-2.0,-2.0,2.0,-2.0,-2.0,2.0,2.0,-2.0,-2.0,2.0,-2.0,2.0,-2.0,-2.0,2.0,-2.0,-2.0
2025-06-05 10:32:16.813,0.024994116,0.00211445,0.02723509,-0.0037744893,-0.21139316,0.04626332,0.0,0.0,0.0,-0.019044427,0.17052121,0.9247858,-0.5390746,-0.13749216,0.9278677,-0.5336687,0.1890531,-1.0854456,-0.5209798,0.19691722,-0.96491325,-0.53368586,0.07174176,0.019767875,0.05396222,-0.042294636,0.06951033,0.022704486,0.0030557225,-0.051891696,-0.011525769,-0.003271798,0.052422214,0.049420234,2.0,2.0,-2.0,-2.0,2.0,-2.0,2.0,-2.0,-2.0,2.0,-2.0,-2.0,2.0,2.0,-2.0,-2.0,2.0,-2.0,2.0,-2.0,-2.0,2.0,-2.0,-2.0
2025-06-05 10:32:16.833,0.0020469113,-0.009478519,-0.040944446,-0.017611647,-0.26254645,-0.049207497,0.0,0.0,0.0,-0.01904892,0.17457062,0.9402122,-0.53823227,-0.14727291,0.9274246,-0.51931447,0.18206823,-1.0877209,-0.51907563,0.2057792,-0.97977597,-0.532243,0.018837277,0.06359786,0.07223392,-0.020602696,0.07073713,0.041355442,-0.06906539,-0.05984677,-0.0716205,0.055561513,-0.026395818,0.05504827,2.0,2.0,-2.0,-2.0,2.0,-2.0,2.0,-2.0,-2.0,2.0,-2.0,-2.0,2.0,2.0,-2.0,-2.0,2.0,-2.0,2.0,-2.0,-2.0,2.0,-2.0,-2.0
2025-06-05 10:32:16.857,0.0109797055,0.022138534,-0.03173559,-0.09415159,-0.2971912,0.0028718908,0.0,0.0,0.0,-0.019053176,0.17004834,0.9326842,-0.5342276,-0.1503532,0.9195975,-0.5242424,0.18769747,-1.0809772,-0.51633525,0.19777122,-0.97496855,-0.53166753,0.0020654742,-0.03885419,-0.018813554,-0.011598875,-0.018580899,0.037356235,-0.07130942,0.023550907,0.07035971,0.061014973,-0.04550965,-0.02011859,2.0,2.0,-2.0,-2.0,2.0,-2.0,2.0,-2.0,-2.0,2.0,-2.0,-2.0,2.0,2.0,-2.0,-2.0,2.0,-2.0,2.0,-2.0,-2.0,2.0,-2.0,-2.0
2025-06-05 10:32:16.873,-0.03258678,0.017762113,-0.02440437,-0.05456833,-0.29723796,-0.026957434,0.0,0.0,0.0,-0.01905719,0.16910982,0.9320213,-0.53519446,-0.13624911,0.9284037,-0.51829076,0.18507451,-1.0902431,-0.50907147,0.20787448,-0.9729837,-0.5264851,-0.039724015,-0.034647826,-0.026134195,0.061792713,-0.02151869,-0.007092472,-0.019643063,-0.041551862,0.013667398,-0.07072651,0.0074904873,-0.038637936,2.0,2.0,-2.0,-2.0,2.0,-2.0,2.0,-2.0,-2.0,2.0,-2.0,-2.0,2.0,2.0,-2.0,-2.0,2.0,-2.0,2.0,-2.0,-2.0,2.0,-2.0,-2.0
2025-06-05 10:32:16.895,-0.032779872,-0.008078085,1.6912736e-05,0.0016180371,-0.28852794,-0.025602974,0.0,0.0,0.0,-0.019060962,0.17395802,0.9426159,-0.5290699,-0.15436123,0.92158073,-0.52375543,0.18712987,-1.0871633,-0.52585304,0.1959958,-0.9684897,-0.5304923,-0.05511042,-0.020455169,0.025630506,0.027529925,0.0076828557,0.023964146,0.00017742542,-0.052213933,0.064578176,-0.05035135,0.057072945,0.0062625404,2.0,2.0,-2.0,-2.0,2.0,-2.0,2.0,-2.0,-2.0,2.0,-2.0,-2.0,2.0,2.0,-2.0,-2.0,2.0,-2.0,2.0,-2.0,-2.0,2.0,-2.0,-2.0
2025-06-05 10:32:16.912,-0.027155463,0.02794554,0.047266908,-0.004780818,-0.25406235,-0.024173614,0.0,0.0,0.0,-0.019064484,0.16236609,0.9284,-0.5269929,-0.14994948,0.9150486,-0.5248414,0.19351614,-1.0928967,-0.52142394,0.20251706,-0.9763635,-0.5331069,-0.05431119,0.056472775,0.0064096963,-0.040127743,-0.020681981,-0.006791378,-0.018293757,-0.020169135,-0.03765678,-0.074568495,-0.05123655,-0.044766005,2.0,2.0,-2.0,-2.0,2.0,-2.0,2.0,-2.0,-2.0,2.0,-2.0,-2.0,2.0,2.0,-2.0,-2.0,2.0,-2.0,2.0,-2.0,-2.0,2.0,-2.0,-2.0
2025-06-05 10:32:16.932,0.043387666,-0.015432442,-0.014353346,-0.057887997,-0.2946896,-0.030567056,0.0,0.0,0.0,-0.019067753,0.15874475,0.9245771,-0.5386614,-0.14689773,0.91628206,-0.5246411,0.1821958,-1.0915177,-0.5091849,0.2035328,-0.97777677,-0.5335459,0.058544952,-0.06549128,-0.034638643,-0.042366933,-0.02011822,-0.040266823,0.062319916,-0.0485772,0.06975865,0.028848693,0.043013602,-0.06527242,2.0,2.0,-2.0,-2.0,2.0,-2.0,2.0,-2.0,-2.0,2.0,-2.0,-2.0,2.0,2.0,-2.0,-2.0,2.0,-2.0,2.0,-2.0,-2.0,2.0,-2.0,-2.0
2025-06-05 10:32:16.955,0.030434813,-0.023551038,-0.02774516,-0.05591908,-0.27332088,-0.016360529,0.0,0.0,0.0,-0.019070763,0.16948873,0.925333,-0.53795636,-0.13699226,0.9114413,-0.5348571,0.18982969,-1.0915029,-0.51883197,0.2026828,-0.9706803,-0.5271669,-0.0067467685,0.036776964,-0.06461542,-0.015801385,-0.0035637137,0.06288999,-0.06426865,0.021735383,0.03986145,0.051201906,0.07227999,-0.01653155,2.0,2.0,-2.0,-2.0,2.0,-2.0,2.0,-2.0,-2.0,2.0,-2.0,-2.0,2.0,2.0,-2.0,-2.0,2.0,-2.0,2.0,-2.0,-2.0,2.0,-2.0,-2.0
2025-06-05 10:32:16.973,0.028535282,0.040185962,0.0031853458,-0.0906011,-0.21331325,0.039911862,0.0,0.0,0.0,-0.019073596,0.1718726,0.9254495,-0.54449856,-0.15483248,0.92712003,-0.53171694,0.1984411,-1.0934727,-0.527467,0.1981891,-0.97529143,-0.53382087,0.05298889,0.05165305,0.0008237256,-0.04375887,-0.018269602,0.0042564673,-0.046129897,-0.053862996,0.032793835,0.035078865,-0.069885835,-0.045070436,2.0,2.0,-2.0,-2.0,2.0,-2.0,2.0,-2.0,-2.0,2.0,-2.0,-2.0,2.0,2.0,-2.0,-2.0,2.0,-2.0,2.0,-2.0,-2.0,2.0,-2.0,-2.0
2025-06-05 10:32:16.993,-0.015402172,0.020469487,-0.027583787,-0.013537336,-0.27472064,-0.033878136,0.0,0.0,0.0,-0.019076115,0.16232727,0.9336855,-0.53794175,-0.15301304,0.9263532,-0.52392656,0.18211679,-1.0944014,-0.5267474,0.20666918,-0.9757513,-0.5207047,0.023191158,0.028909434,-0.07469479,-0.036807623,-0.0049100914,-0.015409623,0.015012741,0.0060057924,0.0041118553,-0.029215006,-0.06995997,0.058163684,2.0,2.0,-2.0,-2.0,2.0,-2.0,2.0,-2.0,-2.0,2.0,-2.0,-2.0,2.0,2.0,-2.0,-2.0,2.0,-2.0,2.0,-2.0,-2.0,2.0,-2.0,-2.0
2025-06-05 10:32:17.013,0.04609252,-0.0061938968,0.0066800667,-0.00080588134,-0.28296533,-0.047167927,0.0,0.0,0.0,-0.019078324,0.17017311,0.93289083,-0.54350466,-0.1448898,0.92172176,-0.5221659,0.19452064,-1.082463,-0.5115721,0.20412675,-0.9711276,-0.5383453,0.04321461,0.037727654,0.054045346,0.0055990927,0.032970097,-0.038199298,0.051633257,-0.017072987,-0.0005498884,0.025829364,0.0022503226,0.021823296,2.0,2.0,-2.0,-2.0,2.0,-2.0,2.0,-2.0,-2.0,2.0,-2.0,-2.0,2.0,2.0,-2.0,-2.0,2.0,-2.0,2.0,-2.0,-2.0,2.0,-2.0,-2.0
2025-06-05 10:32:17.033,-0.026104292,-0.0279548,0.027821884,-0.010510117,-0.30124846,0.047957912,0.0,0.0,0.0,-0.019080285,0.16851139,0.92906004,-0.5441318,-0.15036568,0.9228592,-0.52380306,0.1909748,-1.0841403,-0.5225042,0.19399042,-0.9802218,-0.52562475,0.05774288,-0.0018831448,-0.010989998,0.054606397,0.04206806,-0.015968801,-0.07130843,0.00095894845,-0.015231805,0.07332736,-0.0054135206,-0.008197787,2.0,2.0,-2.0,-2.0,2.0,-2.0,2.0,-2.0,-2.0,2.0,-2.0,-2.0,2.0,2.0,-2.0,-2.0,2.0,-2.0,2.0,-2.0,-2.0,2.0,-2.0,-2.0
2025-06-05 10:32:17.056,-0.034996655,-0.0134133855,0.015584025,-0.051111918,-0.26813,0.0097964965,0.0,0.0,0.0,-0.019082114,0.168425,0.92710084,-0.52864677,-0.14582637,0.9212608,-0.51913035,0.18612806,-1.0890152,-0.5162917,0.1896376,-0.96192104,-0.53045034,-0.06994487,0.05370345,-0.0015610659,-0.048468493,-0.03301709,-0.07250502,0.027313633,-0.034359217,0.041594766,-0.071448,0.037782162,0.054719646,2.0,2.0,-2.0,-2.0,2.0,-2.0,2.0,-2.0,-2.0,2.0,-2.0,-2.0,2.0,2.0,-2.0,-2.0,2.0,-2.0,2.0,-2.0,-2.0,2.0,-2.0,-2.0
2025-06-05 10:32:17.072,-0.041672673,0.007910508,0.028497905,-0.038754754,-0.28801468,0.016123157,0.0,0.0,0.0,-0.01908367,0.16042581,0.9351341,-0.5429117,-0.14626296,0.92845213,-0.5259833,0.2004301,-1.0887831,-0.52661914,0.20415315,-0.9787326,-0.52248275,-0.008089423,0.029527633,-0.07464958,-0.044731382,0.059461657,0.009640633,0.020960817,0.054569867,-0.069741234,0.042667765,0.011870936,-0.07439762,2.0,2.0,-2.0,-2.0,2.0,-2.0,2.0,-2.0,-2.0,2.0,-2.0,-2.0,2.0,2.0,-2.0,-2.0,2.0,-2.0,2.0,-2.0,-2.0,2.0,-2.0,-2.0
2025-06-05 10:32:17.094,0.018438797,0.039445672,-0.0040821973,-0.025372738,-0.28837466,0.036991365,0.0,0.0,0.0,-0.019085025,0.16254862,0.9375366,-0.5415184,-0.14878765,0.93083775,-0.525947,0.19180402,-1.0909878,-0.5199027,0.20904945,-0.9781285,-0.5381021,-0.06739085,-0.012757669,0.046883155,0.037272174,-0.06852347,0.009142552,-0.033826493,-0.01592663,-0.011420044,0.034995936,0.06311302,0.07052916,2.0,2.0,-2.0,-2.0,2.0,-2.0,2.0,-2.0,-2.0,2.0,-2.0,-2.0,2.0,2.0,-2.0,-2.0,2.0,-2.0,2.0,-2.0,-2.0,2.0,-2.0,-2.0
2025-06-05 10:32:17.114,0.015015607,0.025099274,0.047568336,-0.0060584904,-0.2379675,-0.019185064,0.0,0.0,0.0,-0.01908622,0.1717747,0.9334556,-0.5373221,-0.15092255,0.93060714,-0.5180238,0.19825035,-1.08611,-0.5271073,0.20599452,-0.97632873,-0.52580535,0.04715387,-0.06847209,-0.016169468,-0.04761942,-0.035860885,0.058297258,-0.030563354,0.010089781,-0.020178128,-0.04265034,0.003727831,0.0048300372,2.0,2.0,-2.0,-2.0,2.0,-2.0,2.0,-2.0,-2.0,2.0,-2.0,-2.0,2.0,2.0,-2.0,-2.0,2.0,-2.0,2.0,-2.0,-2.0,2.0,-2.0,-2.0
2025-06-05 10:32:17.133,0.011694267,-0.023681022,0.026465373,-0.078009814,-0.23564984,-0.039723076,0.0,0.0,0.0,-0.019087281,0.17029448,0.9266444,-0.5264815,-0.15438108,0.91876966,-0.5249862,0.19826485,-1.0755271,-0.51182324,0.20179541,-0.9762706,-0.5365575,0.055229526,-0.062356386,-0.002745333,0.06277308,0.012030582,0.0052529816,-0.021607768,0.07019161,0.04220119,-0.038277984,-0.074816085,0.0018515633,2.0,2.0,-2.0,-2.0,2.0,-2.0,2.0,-2.0,-2.0,2.0,-2.0,-2.0,2.0,2.0,-2.0,-2.0,2.0,-2.0,2.0,-2.0,-2.0,2.0,-2.0,-2.0
2025-06-05 10:32:17.155,0.00052162976,-0.04813482,-0.04634513,-0.06698008,-0.2234569,0.047485955,0.0,0.0,0.0,-0.01908822,0.1700953,0.9444487,-0.5344691,-0.14026165,0.9138412,-0.528632,0.1825911,-1.0791446,-0.52117795,0.20353198,-0.9727275,-0.52483153,-0.071661405,0.056434087,-0.028739596,0.0074355532,0.047294658,-0.039766278,-0.06357735,0.0374117,0.041067682,0.055883873,-0.025760822,0.017920187,2.0,2.0,-2.0,-2.0,2.0,-2.0,2.0,-2.0,-2.0,2.0,-2.0,-2.0,2.0,2.0,-2.0,-2.0,2.0,-2.0,2.0,-2.0,-2.0,2.0,-2.0,-2.0
2025-06-05 10:32:17.174,-0.021816825,-0.039379124,0.03160237,-0.022861905,-0.21997957,-0.047172405,0.0,0.0,0.0,-0.01908905,0.16095026,0.94147587,-0.5379424,-0.13679247,0.9200523,-0.53083795,0.19700924,-1.0830535,-0.51809037,0.20354694,-0.96716803,-0.53634596,0.041595217,0.009108452,0.062358625,-0.022095857,0.07366947,0.026819857,0.014530273,0.058030736,-0.016276836,-0.063411176,0.05990548,-0.03900645,2.0,2.0,-2.0,-2.0,2.0,-2.0,2.0,-2.0,-2.0,2.0,-2.0,-2.0,2.0,2.0,-2.0,-2.0,2.0,-2.0,2.0,-2.0,-2.0,2.0,-2.0,-2.0
2025-06-05 10:32:17.195,-0.043268103,-0.011784236,0.005047429,-0.046601556,-0.2539636,-0.021299217,0.0,0.0,0.0,-0.019089786,0.1635087,0.9421912,-0.5427227,-0.13566004,0.91513443,-0.5307708,0.1816042,-1.0778852,-0.5271688,0.20087999,-0.9703074,-0.53053635,0.062174316,0.043767184,-0.054304495,-0.00896462,0.039144162,0.049682062,0.05738729,-0.00586955,-0.026589265,0.020003397,-0.0018151855,-0.03880531,2.0,2.0,-2.0,-2.0,2.0,-2.0,2.0,-2.0,-2.0,2.0,-2.0,-2.0,2.0,2.0,-2.0,-2.0,2.0,-2.0,2.0,-2.0,-2.0,2.0,-2.0,-2.0
2025-06-05 10:32:17.214,-0.04102102,0.016638106,-0.040624455,-0.07105074,-0.26804915,0.049095623,0.0,0.0,0.0,-0.019090436,0.15975153,0.94336313,-0.54223907,-0.14938284,0.92909515,-0.5338447,0.19713213,-1.0812163,-0.51172256,0.20697528,-0.9751157,-0.5338296,0.052166875,-0.0008203444,0.07404671,-0.07464544,0.05581667,0.0619831,0.026193378,0.04113592,0.014949573,-0.050295375,0.014570736,-0.025736786,2.0,2.0,-2.0,-2.0,2.0,-2.0,2.0,-2.0,-2.0,2.0,-2.0,-2.0,2.0,2.0,-2.0,-2.0,2.0,-2.0,2.0,-2.0,-2.0,2.0,-2.0,-2.0
2025-06-05 10:32:17.234,-0.008293507,-0.015121236,-0.049949404,-0.09623098,-0.29172242,0.022237772,0.0,0.0,0.0,-0.019091014,0.17158787,0.9347112,-0.5322171,-0.15048224,0.9124416,-0.51619303,0.18634199,-1.0798564,-0.5125386,0.19363864,-0.97968477,-0.5367111,0.03468601,0.004250701,-0.054841124,0.061876457,-0.008096507,0.024907295,0.054385047,-0.034954596,-0.04043228,0.0036971932,0.059614547,0.013717252,2.0,2.0,-2.0,-2.0,2.0,-2.0,2.0,-2.0,-2.0,2.0,-2.0,-2.0,2.0,2.0,-2.0,-2.0,2.0,-2.0,2.0,-2.0,-2.0,2.0,-2.0,-2.0
2025-06-05 10:32:17.255,-0.038914878,0.01004662,-0.031678304,0.0024121972,-0.2921121,-0.026464954,0.0,0.0,0.0,-0.019091533,0.16093309,0.9423691,-0.53933156,-0.14505464,0.9303336,-0.5336294,0.18436356,-1.0852515,-0.5180908,0.20007585,-0.9618252,-0.5336575,-0.045753952,-0.050871056,-0.029733889,-0.0015705223,-0.05954073,-0.046889488,0.05796436,-0.05450626,0.019377561,0.031529978,-0.05210454,0.058142915,2.0,2.0,-2.0,-2.0,2.0,-2.0,2.0,-2.0,-2.0,2.0,-2.0,-2.0,2.0,2.0,-2.0,-2.0,2.0,-2.0,2.0,-2.0,-2.0,2.0,-2.0,-2.0
2025-06-05 10:32:17.274,0.013394316,0.012059589,-0.047892448,-0.08355405,-0.23262706,0.04243321,0.0,0.0,0.0,-0.019091869,0.16413595,0.9422006,-0.5281003,-0.14225009,0.91729486,-0.518487,0.1966596,-1.0760543,-0.5264033,0.19198994,-0.97881514,-0.52978456,0.01690034,0.02988802,-0.059656706,0.029599737,0.019833276,-0.023548769,0.0028534906,0.06363624,-0.0014867986,-0.0090585705,-0.036681898,-0.007957175,2.0,2.0,-2.0,-2.0,2.0,-2.0,2.0,-2.0,-2.0,2.0,-2.0,-2.0,2.0,2.0,-2.0,-2.0,2.0,-2.0,2.0,-2.0,-2.0,2.0,-2.0,-2.0
2025-06-05 10:32:17.295,-0.025856858,-0.031487163,-0.0060695037,-0.021157272,-0.2120873,-0.027199345,0.0,0.0,0.0,-0.019092191,0.17255834,0.93502593,-0.54104334,-0.13674928,0.923515,-0.5323424,0.191697,-1.0875894,-0.5169276,0.18950123,-0.9691478,-0.52614087,0.03964233,-0.055960383,0.014505681,0.048727077,-0.06431693,0.0125798,-0.07428413,0.015708864,-0.026155006,0.004228075,-0.040436417,-0.014325361,2.0,2.0,-2.0,-2.0,2.0,-2.0,2.0,-2.0,-2.0,2.0,-2.0,-2.0,2.0,2.0,-2.0,-2.0,2.0,-2.0,2.0,-2.0,-2.0,2.0,-2.0,-2.0
2025-06-05 10:32:17.315,0.0032436147,-0.0269503,-0.0325832,-0.0007950861,-0.26290286,0.003945481,0.0,0.0,0.0,-0.019092487,0.17572139,0.9377024,-0.5320399,-0.15416323,0.9265453,-0.53408897,0.18793471,-1.0879512,-0.51130617,0.2004184,-0.971932,-0.5371076,-0.06708376,0.01683468,0.04288495,0.04392775,0.06169912,0.0038805224,-0.042119272,0.042818137,-0.03908791,-0.032035846,0.06622299,-0.04268972,2.0,2.0,-2.0,-2.0,2.0,-2.0,2.0,-2.0,-2.0,2.0,-2.0,-2.0,2.0,2.0,-2.0,-2.0,2.0,-2.0,2.0,-2.0,-2.0,2.0,-2.0,-2.0
2025-06-05 10:32:17.335,-0.0034483883,-0.0040125675,0.02095098,-0.09105881,-0.20930491,0.021043245,0.0,0.0,0.0,-0.019092767,0.16953701,0.94452834,-0.53916574,-0.14478599,0.9159952,-0.5272866,0.19559203,-1.088624,-0.5159915,0.19389646,-0.97968113,-0.5283742,-0.038565308,-0.034506157,-0.06284639,0.021521041,0.07003722,-0.040806834,0.063603766,-0.06231464,0.036060154,0.06469906,-0.029683907,0.021067841,2.0,2.0,-2.0,-2.0,2.0,-2.0,2.0,-2.0,-2.0,2.0,-2.0,-2.0,2.0,2.0,-2.0,-2.0,2.0,-2.0,2.0,-2.0,-2.0,2.0,-2.0,-2.0
2025-06-05 10:32:17.356,0.02689708,0.048935555,-0.011970359,-0.022943009,-0.2740593,-0.0028919308,0.0,0.0,0.0,-0.019093035,0.17211795,0.9406137,-0.5370691,-0.14945659,0.9236771,-0.5222635,0.18889579,-1.0860541,-0.52306867,0.19849232,-0.96422005,-0.53083897,0.014584897,-0.048374593,0.06930993,-0.01934091,0.024512174,0.022581732,-0.020703701,-0.037883177,0.054274328,0.05533524,-0.033630125,0.015823858,2.0,2.0,-2.0,-2.0,2.0,-2.0,2.0,-2.0,-2.0,2.0,-2.0,-2.0,2.0,2.0,-2.0,-2.0,2.0,-2.0,2.0,-2.0,-2.0,2.0,-2.0,-2.0
2025-06-05 10:32:17.375,0.047198113,0.036350913,-0.034622204,-0.017147206,-0.257926,-0.010177214,0.0,0.0,0.0,-0.019093286,0.16414574,0.9326455,-0.5322531,-0.13918853,0.91376925,-0.5210275,0.18959624,-1.0758594,-0.5119835,0.20845637,-0.9734685,-0.5271566,-0.009344179,-0.02009493,0.07219548,0.012061499,0.029047297,-0.066187486,-0.043218035,0.020014977,-0.019416796,-0.00014485918,-0.005192917,-0.039591577,2.0,2.0,-2.0,-2.0,2.0,-2.0,2.0,-2.0,-2.0,2.0,-2.0,-2.0,2.0,2.0,-2.0,-2.0,2.0,-2.0,2.0,-2.0,-2.0,2.0,-2.0,-2.0
2025-06-05 10:32:17.395,0.027317824,-0.049090475,-0.027453506,-0.020435426,-0.25607702,-0.03577515,0.0,0.0,0.0,-0.019093513,0.17012514,0.92705923,-0.54323244,-0.13648945,0.921693,-0.51758516,0.18091713,-1.0817181,-0.52392906,0.19239298,-0.9650264,-0.5360943,-0.06579379,0.0103922365,0.022388736,-0.026553104,-0.06466688,0.034415826,0.03199028,0.04099938,-0.057185587,0.024021791,0.04817925,-0.02740693,2.0,2.0,-2.0,-2.0,2.0,-2.0,2.0,-2.0,-2.0,2.0,-2.0,-2.0,2.0,2.0,-2.0,-2.0,2.0,-2.0,2.0,-2.0,-2.0,2.0,-2.0,-2.0
2025-06-05 10:32:17.415,-0.040084474,-0.007685514,-0.0069524604,-0.0584228,-0.29253915,0.016807273,0.0,0.0,0.0,-0.019093715,0.16743289,0.93990546,-0.5309339,-0.1485827,0.9147209,-0.5259812,0.19532448,-1.0770931,-0.51834106,0.19944997,-0.9739409,-0.52954,-0.020927034,-0.04112572,-0.07495277,0.013498604,-0.061752558,0.020113437,0.06018901,-0.0074678534,0.07165149,0.019240389,0.03746241,-0.047745895,2.0,2.0,-2.0,-2.0,2.0,-2.0,2.0,-2.0,-2.0,2.0,-2.0,-2.0,2.0,2.0,-2.0,-2.0,2.0,-2.0,2.0,-2.0,-2.0,2.0,-2.0,-2.0
2025-06-05 10:32:17.436,0.0031439941,0.049680024,-0.03918518,-0.08979585,-0.27553046,0.012997427,0.0,0.0,0.0,-0.019093892,0.16907904,0.942247,-0.54515314,-0.14900357,0.91491324,-0.5300944,0.19339153,-1.0810077,-0.50986785,0.20847547,-0.98109156,-0.5223833,0.029570013,-0.03771124,0.0122313425,0.008466125,0.06719864,-0.048615817,0.025786284,-0.012420452,-0.014409099,-0.038689867,-0.0048246435,0.05940311,2.0,2.0,-2.0,-2.0,2.0,-2.0,2.0,-2.0,-2.0,2.0,-2.0,-2.0,2.0,2.0,-2.0,-2.0,2.0,-2.0,2.0,-2.0,-2.0,2.0,-2.0,-2.0
2025-06-05 10:32:17.456,-0.028985817,-0.044111162,0.0072139516,-0.059707094,-0.23963772,-0.041476157,0.0,0.0,0.0,-0.019094046,0.17073993,0.9446904,-0.54260254,-0.14119788,0.9158235,-0.51638395,0.1869802,-1.0945537,-0.5221928,0.19792257,-0.9619452,-0.53272647,-0.067019165,-0.0014770832,0.06793002,0.06770415,0.0083813295,-0.040732555,0.020005675,-0.026268365,0.06472011,-0.018917967,-0.03340145,-0.057448275,2.0,2.0,-2.0,-2.0,2.0,-2.0,2.0,-2.0,-2.0,2.0,-2.0,-2.0,2.0,2.0,-2.0,-2.0,2.0,-2.0,2.0,-2.0,-2.0,2.0,-2.0,-2.0
2025-06-05 10:32:17.475,0.011730096,0.029549308,0.039326306,-0.039063554,-0.27237108,-0.030838149,0.0,0.0,0.0,-0.01909418,0.17517793,0.9429333,-0.5424635,-0.15166774,0.916508,-0.5340593,0.18690138,-1.0799346,-0.52610964,0.19781739,-0.96678203,-0.52960336,-0.02549121,0.027632149,0.0050913445,-0.034244064,-0.010491545,0.033830076,-0.011582251,0.06820955,0.040384177,0.010220944,0.068528414,0.021743575,2.0,2.0,-2.0,-2.0,2.0,-2.0,2.0,-2.0,-2.0,2.0,-2.0,-2.0,2.0,2.0,-2.0,-2.0,2.0,-2.0,2.0,-2.0,-2.0,2.0,-2.0,-2.0
2025-06-05 10:32:17.496,-0.024675993,-0.035195682,0.013183349,-0.08758588,-0.25386775,-0.04991545,0.0,0.0,0.0,-0.019094298,0.15770206,0.9442405,-0.5323397,-0.14630812,0.9282342,-0.5347997,0.19643003,-1.0806199,-0.5092216,0.19515762,-0.97094697,-0.5274687,-0.023346493,0.024594866,-0.039472878,0.017978083,0.039113577,-0.055962212,0.036855377,-0.02398382,0.00980475,0.012514436,0.069150075,0.050426707,2.0,2.0,-2.0,-2.0,2.0,-2.0,2.0,-2.0,-2.0,2.0,-2.0,-2.0,2.0,2.0,-2.0,-2.0,2.0,-2.0,2.0,-2.0,-2.0,2.0,-2.0,-2.0
2025-06-05 10:32:17.516,-0.0057405103,-0.017483162,0.030234871,-0.0039494107,-0.26627502,0.012088219,0.0,0.0,0.0,-0.019094393,0.15863883,0.94229597,-0.5419002,-0.14862189,0.91398484,-0.5214949,0.19916888,-1.0933233,-0.5151994,0.2014603,-0.9688859,-0.5312679,-0.0223582,-0.06747636,0.017488318,0.05641775,0.05920837,0.03481902,-0.05250571,-0.017176684,0.067326315,0.03885643,0.0444516,0.020965882,2.0,2.0,-2.0,-2.0,2.0,-2.0,2.0,-2.0,-2.0,2.0,-2.0,-2.0,2.0,2.0,-2.0,-2.0,2.0,-2.0,2.0,-2.0,-2.0,2.0,-2.0,-2.0
2025-06-05 10:32:17.538,0.022837583,-0.017223084,-0.026821466,-0.03796666,-0.30520952,-0.025195682,0.0,0.0,0.0,-0.019094467,0.15873255,0.9331418,-0.5282486,-0.14204165,0.9244113,-0.52383184,0.1993799,-1.0795264,-0.5117091,0.20028098,-0.9700869,-0.53229713,0.030356292,0.016814994,-0.013626888,0.030578965,-0.05403568,0.013423888,-0.025186174,-0.030633025,-0.06226017,0.066034295,0.050143402,0.061928507,2.0,2.0,-2.0,-2.0,2.0,-2.0,2.0,-2.0,-2.0,2.0,-2.0,-2.0,2.0,2.0,-2.0,-2.0,2.0,-2.0,2.0,-2.0,-2.0,2.0,-2.0,-2.0
2025-06-05 10:32:17.555,-0.03502959,0.036608692,0.04258046,-0.06746558,-0.26745248,0.0217746,0.0,0.0,0.0,-0.019094536,0.17591482,0.92962533,-0.5405369,-0.15225333,0.9286981,-0.5334549,0.19535758,-1.0842907,-0.52393544,0.1908492,-0.9733108,-0.5342743,-0.057341404,-0.024054024,0.07012333,-0.0029037113,-0.06843914,-0.021690318,0.010292491,0.05593067,0.023665622,-0.05477881,0.058584284,-0.018368753,2.0,2.0,-2.0,-2.0,2.0,-2.0,2.0,-2.0,-2.0,2.0,-2.0,-2.0,2.0,2.0,-2.0,-2.0,2.0,-2.0,2.0,-2.0,-2.0,2.0,-2.0,-2.0
2025-06-05 10:32:17.575,-0.0067358515,-0.028526895,0.016095046,-0.04227095,-0.29613003,0.0049023763,0.0,0.0,0.0,-0.019094601,0.17354552,0.92875683,-0.54045635,-0.14283238,0.91807336,-0.5299409,0.19588433,-1.0804746,-0.5110055,0.1984267,-0.9701483,-0.53643405,-0.007191564,0.0022940827,0.011740959,0.02980919,-0.048613224,0.006575355,0.052709408,0.006618234,0.06432845,-0.047048528,-0.04924452,0.049739823,2.0,2.0,-2.0,-2.0,2.0,-2.0,2.0,-2.0,-2.0,2.0,-2.0,-2.0,2.0,2.0,-2.0,-2.0,2.0,-2.0,2.0,-2.0,-2.0,2.0,-2.0,-2.0
2025-06-05 10:32:17.595,-0.041897327,0.00029929672,0.047549795,-0.044729374,-0.28986162,-0.008462318,0.0,0.0,0.0,-0.01909466,0.15995581,0.9398301,-0.5451479,-0.15148392,0.9188791,-0.52168083,0.19213584,-1.0916145,-0.5221032,0.19351606,-0.9688204,-0.53363013,0.067985,0.07468422,-0.0071697384,-0.047459062,-0.028143335,0.05094981,0.071369916,0.0039316863,0.040758524,0.050138324,-0.056277238,-0.015747521,2.0,2.0,-2.0,-2.0,2.0,-2.0,2.0,-2.0,-2.0,2.0,-2.0,-2.0,2.0,2.0,-2.0,-2.0,2.0,-2.0,2.0,-2.0,-2.0,2.0,-2.0,-2.0
2025-06-05 10:32:17.616,0.04959365,-0.0060506766,-0.017514637,-0.05622533,-0.2626554,-0.008541102,0.0,0.0,0.0,-0.019094715,0.1727821,0.93716276,-0.53291225,-0.14062046,0.9242766,-0.5249724,0.19179964,-1.0934201,-0.51240087,0.19897887,-0.96807647,-0.5393575,0.03632823,0.045497987,-0.06603017,0.069034055,-0.06400976,-0.029586973,0.014674666,0.03709657,-0.0034629055,0.024913114,-0.074198134,-0.06840986,2.0,2.0,-2.0,-2.0,2.0,-2.0,2.0,-2.0,-2.0,2.0,-2.0,-2.0,2.0,2.0,-2.0,-2.0,2.0,-2.0,2.0,-2.0,-2.0,2.0,-2.0,-2.0
2025-06-05 10:32:17.638,0.018365527,0.042798292,-0.03814838,-0.06652464,-0.24286607,-0.028180912,0.0,0.0,0.0,-0.019094754,0.17251754,0.9247919,-0.5347738,-0.13924816,0.9291899,-0.5277905,0.18317737,-1.0868131,-0.5270601,0.19962478,-0.9680084,-0.52250165,0.052221097,0.017087616,-0.060446586,0.012513622,0.031611383,-0.007327533,0.061850473,0.057364155,0.03237837,0.005028317,-0.014938106,-0.07189261,2.0,2.0,-2.0,-2.0,2.0,-2.0,2.0,-2.0,-2.0,2.0,-2.0,-2.0,2.0,2.0,-2.0,-2.0,2.0,-2.0,2.0,-2.0,-2.0,2.0,-2.0,-2.0
2025-06-05 10:32:17.656,0.0052159466,-0.043200467,0.023441948,-0.041091673,-0.26367,0.01946504,0.0,0.0,0.0,-0.019094793,0.17386141,0.9412704,-0.5460038,-0.14638191,0.918469,-0.5270535,0.18266585,-1.0831144,-0.5171186,0.19582844,-0.9776989,-0.5341896,0.063906856,0.011459492,0.061201327,-0.035875123,-0.03473325,-0.049579307,0.0011301164,0.05868369,0.041875876,-0.023885433,-0.053227875,0.015610595,2.0,2.0,-2.0,-2.0,2.0,-2.0,2.0,-2.0,-2.0,2.0,-2.0,-2.0,2.0,2.0,-2.0,-2.0,2.0,-2.0,2.0,-2.0,-2.0,2.0,-2.0,-2.0
2025-06-05 10:32:17.676,0.038791254,0.0421989,-0.017223774,-0.07099727,-0.22052732,-0.043696787,0.0,0.0,0.0,-0.019094829,0.16055872,0.9416392,-0.5366433,-0.15331379,0.9208871,-0.5183026,0.18685804,-1.0855376,-0.5238698,0.19601129,-0.9710532,-0.524538,-0.07306416,-0.032017224,0.07230886,-0.03546025,0.0713687,-0.06370988,0.026962962,-0.06254411,-0.032546356,-0.027997958,0.0386993,-0.0048504383,2.0,2.0,-2.0,-2.0,2.0,-2.0,2.0,-2.0,-2.0,2.0,-2.0,-2.0,2.0,2.0,-2.0,-2.0,2.0,-2.0,2.0,-2.0,-2.0,2.0,-2.0,-2.0
2025-06-05 10:32:17.696,0.027351566,0.0440705,0.012041894,-0.05942686,-0.27600586,-0.034843728,0.0,0.0,0.0,-0.019094862,0.15934168,0.9354359,-0.52935255,-0.14700069,0.9224766,-0.52477986,0.1963598,-1.0885321,-0.5220023,0.20213021,-0.9689869,-0.525323,-0.0013335778,-0.051327262,-0.048353918,0.023236075,-0.056952856,0.04521767,-0.0052328617,-0.01015763,0.052064184,0.02060216,0.066767044,-0.07006707,2.0,2.0,-2.0,-2.0,2.0,-2.0,2.0,-2.0,-2.0,2.0,-2.0,-2.0,2.0,2.0,-2.0,-2.0,2.0,-2.0,2.0,-2.0,-2.0,2.0,-2.0,-2.0
2025-06-05 10:32:17.719,-0.031538263,-0.008831365,0.0059113004,-0.053561736,-0.23991312,0.026987663,0.0,0.0,0.0,-0.019094892,0.16729432,0.94442517,-0.5359886,-0.1411451,0.91274625,-0.53095067,0.19411361,-1.0918021,-0.5191014,0.20708387,-0.9657006,-0.5380428,0.0691611,-0.02926452,-0.0059222514,-0.027949393,-0.050134096,0.06281474,0.03395188,0.009150083,-0.0051395316,0.04358293,0.036635526,0.07017683,2.0,2.0,-2.0,-2.0,2.0,-2.0,2.0,-2.0,-2.0,2.0,-2.0,-2.0,2.0,2.0,-2.0,-2.0,2.0,-2.0,2.0,-2.0,-2.0,2.0,-2.0,-2.0
2025-06-05 10:32:17.739,0.026954444,-0.023837743,-0.03027293,-0.037122842,-0.29368377,-0.02836495,0.0,0.0,0.0,-0.019094918,0.17355104,0.93261963,-0.5452373,-0.14129558,0.9190346,-0.5351083,0.19769037,-1.0792657,-0.52489775,0.2052884,-0.96692413,-0.5384761,0.03712337,-0.045198906,-0.03554318,0.0059889005,0.05112326,-0.0516814,0.0013648388,-0.030100556,-0.06268256,0.04415311,0.019369597,-0.03347866,2.0,2.0,-2.0,-2.0,2.0,-2.0,2.0,-2.0,-2.0,2.0,-2.0,-2.0,2.0,2.0,-2.0,-2.0,2.0,-2.0,2.0,-2.0,-2.0,2.0,-2.0,-2.0
2025-06-05 10:32:17.756,0.014589761,-0.023922944,-0.04040473,-0.09176836,-0.23251195,-0.023400879,0.0,0.0,0.0,-0.019094938,0.16526173,0.9384841,-0.54442364,-0.14960435,0.92924124,-0.5258282,0.18742806,-1.078621,-0.5234594,0.194249,-0.97062355,-0.53531206,0.054363716,0.05846866,0.049754366,-0.03636276,0.05935273,0.05543082,0.07060145,0.06848427,0.0067873485,-0.016448826,-0.067612305,-0.034719598,2.0,2.0,-2.0,-2.0,2.0,-2.0,2.0,-2.0,-2.0,2.0,-2.0,-2.0,2.0,2.0,-2.0,-2.0,2.0,-2.0,2.0,-2.0,-2.0,2.0,-2.0,-2.0
2025-06-05 10:32:17.777,0.020751812,0.047942866,-0.035086636,-5.3919443e-06,-0.28275,-0.024088545,0.0,0.0,0.0,-0.019094955,0.16889188,0.93817836,-0.5326128,-0.14992961,0.92675346,-0.52020997,0.19411686,-1.0890963,-0.5137358,0.19403848,-0.9810322,-0.53972423,0.0635276,0.021931967,-0.020509379,0.06982885,0.013145771,0.031888615,-0.028514806,0.03198989,0.013766088,-0.044225585,-0.0013026907,-0.03704635,2.0,2.0,-2.0,-2.0,2.0,-2.0,2.0,-2.0,-2.0,2.0,-2.0,-2.0,2.0,2.0,-2.0,-2.0,2.0,-2.0,2.0,-2.0,-2.0,2.0,-2.0,-2.0
2025-06-05 10:32:17.796,-0.030774511,-0.017041259,0.02548192,-0.07067309,-0.21292914,0.004449631,0.0,0.0,0.0,-0.019094968,0.15782017,0.93389565,-0.5455003,-0.13721523,0.9250213,-0.5167047,0.19181275,-1.0793402,-0.5285315,0.19214275,-0.9637206,-0.53873324,-0.0023987787,0.0047476944,0.038218856,0.04676741,-0.038546704,-0.04777329,-0.07289607,-0.016742652,-0.011026648,0.020176629,-0.04183344,-0.010656007,2.0,2.0,-2.0,-2.0,2.0,-2.0,2.0,-2.0,-2.0,2.0,-2.0,-2.0,2.0,2.0,-2.0,-2.0,2.0,-2.0,2.0,-2.0,-2.0,2.0,-2.0,-2.0
2025-06-05 10:32:17.816,0.00044669796,-0.025913883,0.04271651,-0.0749003,-0.24136785,-0.044513322,0.0,0.0,0.0,-0.019094978,0.17346716,0.9366249,-0.5399205,-0.15064722,0.9197422,-0.52092475,0.20037067,-1.0878782,-0.5198887,0.20311788,-0.97394854,-0.53818566,-0.054613218,-0.033268057,-0.031944156,-0.03874654,0.06287844,-0.011986177,-0.039961014,0.03031847,0.012081641,0.055771373,0.05927939,-0.0024575035,2.0,2.0,-2.0,-2.0,2.0,-2.0,2.0,-2.0,-2.0,2.0,-2.0,-2.0,2.0,2.0,-2.0,-2.0,2.0,-2.0,2.0,-2.0,-2.0,2.0,-2.0,-2.0
2025-06-05 10:32:17.839,-0.004609382,-0.04139654,0.027048549,-0.022293266,-0.2550825,0.008294478,0.0,0.0,0.0,-0.019094985,0.16359434,0.92683107,-0.5400212,-0.14196925,0.92679095,-0.53223306,0.19092001,-1.0924201,-0.5123487,0.19828387,-0.9725448,-0.5210858,0.053179562,0.014851047,0.01892113,-0.029757554,-0.033302646,-0.05301586,0.07211122,-0.05767694,0.060110953,-0.042243894,-0.02357229,-0.0029925078,2.0,2.0,-2.0,-2.0,2.0,-2.0,2.0,-2.0,-2.0,2.0,-2.0,-2.0,2.0,2.0,-2.0,-2.0,2.0,-2.0,2.0,-2.0,-2.0,2.0,-2.0,-2.0
2025-06-05 10:32:17.856,-0.0021354528,0.015491445,-0.0395238,-0.04451779,-0.28450018,0.0043776035,0.0,0.0,0.0,-0.01909499,0.17428657,0.9382034,-0.54475516,-0.14648975,0.9238507,-0.5195579,0.19121906,-1.0927663,-0.52262384,0.2078074,-0.9697215,-0.53902423,-0.022144811,-0.018922484,0.002859714,-0.009326038,-0.039510895,-0.00017151187,0.06261579,-0.033605397,0.07053149,-0.07194706,-0.07462481,-0.044070147,2.0,2.0,-2.0,-2.0,2.0,-2.0,2.0,-2.0,-2.0,2.0,-2.0,-2.0,2.0,2.0,-2.0,-2.0,2.0,-2.0,2.0,-2.0,-2.0,2.0,-2.0,-2.0
2025-06-05 10:32:17.877,-0.008494584,0.031427205,-0.04984259,-0.07895089,-0.25097868,0.040770587,0.0,0.0,0.0,-0.019094996,0.16374555,0.9252674,-0.52787304,-0.14382912,0.9217392,-0.5205261,0.181713,-1.0798934,-0.52646995,0.20403014,-0.974841,-0.523473,-0.014278176,0.014732975,-0.061985206,-0.06640449,0.0696431,-0.04511466,-0.023357086,-0.061236504,0.01568038,-0.06589239,0.053883202,-0.036071587,2.0,2.0,-2.0,-2.0,2.0,-2.0,2.0,-2.0,-2.0,2.0,-2.0,-2.0,2.0,2.0,-2.0,-2.0,2.0,-2.0,2.0,-2.0,-2.0,2.0,-2.0,-2.0
2025-06-05 10:32:17.897,-0.0006963352,0.043474305,-0.0029583375,-0.07720361,-0.25235218,0.046966914,0.0,0.0,0.0,-0.019095002,0.16873458,0.92533785,-0.54368705,-0.13879022,0.93022454,-0.5242382,0.18833466,-1.0771664,-0.527077,0.19557908,-0.9685085,-0.53852344,-0.04083127,0.004508987,0.073453814,-0.0036481323,-0.062329993,-0.037212327,0.07294177,0.0026006042,0.0069340253,0.06499818,0.04354538,-0.067868255,2.0,2.0,-2.0,-2.0,2.0,-2.0,2.0,-2.0,-2.0,2.0,-2.0,-2.0,2.0,2.0,-2.0,-2.0,2.0,-2.0,2.0,-2.0,-2.0,2.0,-2.0,-2.0
2025-06-05 10:32:17.917,-0.047611024,-0.0071017398,0.00014331551,-0.014546806,-0.2547998,0.032620683,0.0,0.0,0.0,-0.019095005,0.16934215,0.93510574,-0.5382983,-0.13495655,0.91594726,-0.529692,0.18740703,-1.0889215,-0.51791507,0.19325666,-0.9661131,-0.52493685,-0.031402886,0.073081724,0.019375963,0.015724652,-0.023017332,-0.017319215,-0.044467133,0.016019743,-0.018216196,0.031193864,-0.072473556,0.059602752,2.0,2.0,-2.0,-2.0,2.0,-2.0,2.0,-2.0,-2.0,2.0,-2.0,-2.0,2.0,2.0,-2.0,-2.0,2.0,-2.0,2.0,-2.0,-2.0,2.0,-2.0,-2.0
2025-06-05 10:32:17.939,-0.035689812,0.007797053,-0.021632709,-0.06469495,-0.23482162,-0.034978416,0.0,0.0,0.0,-0.019095007,0.16809155,0.9426552,-0.5426626,-0.14613305,0.9141654,-0.52850395,0.19582441,-1.082129,-0.51025313,0.19766815,-0.9640842,-0.535702,0.01764076,0.03100025,0.041031417,-0.042173646,-0.031253297,-0.042887196,0.013698574,0.0022979365,-0.01794277,-0.06770518,-0.009497387,0.008110043,2.0,2.0,-2.0,-2.0,2.0,-2.0,2.0,-2.0,-2.0,2.0,-2.0,-2.0,2.0,2.0,-2.0,-2.0,2.0,-2.0,2.0,-2.0,-2.0,2.0,-2.0,-2.0
2025-06-05 10:32:17.957,0.023415737,0.028555203,-0.024004558,-0.04522457,-0.24543023,0.023937896,0.0,0.0,0.0,-0.019095011,0.1681278,0.93049884,-0.54244447,-0.15240979,0.91470754,-0.52775425,0.19129117,-1.0862265,-0.5095648,0.20670822,-0.967423,-0.5272043,-0.0740034,0.018082865,-0.0015232636,-0.070854045,-0.07058102,0.0038974914,-0.038307242,-0.05140728,-0.04491138,0.03958539,0.035272077,0.039895035,2.0,2.0,-2.0,-2.0,2.0,-2.0,2.0,-2.0,-2.0,2.0,-2.0,-2.0,2.0,2.0,-2.0,-2.0,2.0,-2.0,2.0,-2.0,-2.0,2.0,-2.0,-2.0
2025-06-05 10:32:17.977,0.009723243,-0.019008309,-0.026669795,-0.040271457,-0.25963587,0.03042974,0.0,0.0,0.0,-0.019095013,0.16913594,0.940341,-0.52616936,-0.15360056,0.9193914,-0.53187466,0.1956145,-1.0759275,-0.51594645,0.20503871,-0.9702591,-0.53782654,-0.06338571,-0.006909403,-0.01722672,0.014862046,-0.007595987,-0.06349268,-0.017748991,0.04461376,0.039091047,-0.027220963,0.07370441,-0.0172461,2.0,2.0,-2.0,-2.0,2.0,-2.0,2.0,-2.0,-2.0,2.0,-2.0,-2.0,2.0,2.0,-2.0,-2.0,2.0,-2.0,2.0,-2.0,-2.0,2.0,-2.0,-2.0
2025-06-05 10:32:17.999,0.03022638,-0.03547887,0.046878565,-0.036766272,-0.2860558,0.043028656,0.0,0.0,0.0,-0.019095013,0.16259553,0.9407788,-0.53235674,-0.15137061,0.9225402,-0.52100253,0.1889057,-1.0879165,-0.51526785,0.1925239,-0.97739035,-0.53249836,-0.010504647,0.015459242,-0.024157945,-0.071606226,0.04503305,0.06306692,0.01875256,-0.07457143,0.053863388,-0.01346132,-0.03741902,-0.062362596,2.0,2.0,-2.0,-2.0,2.0,-2.0,2.0,-2.0,-2.0,2.0,-2.0,-2.0,2.0,2.0,-2.0,-2.0,2.0,-2.0,2.0,-2.0,-2.0,2.0,-2.0,-2.0
2025-06-05 10:32:18.017,0.013105574,-0.04035069,-0.01054348,-0.009885795,-0.23239824,-0.017992392,0.0,0.0,0.0,-0.019095013,0.16890252,0.930548,-0.53408676,-0.14898749,0.9287667,-0.52388585,0.19203478,-1.0904181,-0.5232227,0.20281594,-0.9642796,-0.5298083,0.0025668654,0.07324992,-0.017543968,-0.020169899,0.05942054,-0.014085475,-0.06593516,-0.029516323,0.009630015,-0.062171686,-0.001432163,0.03511207,2.0,2.0,-2.0,-2.0,2.0,-2.0,2.0,-2.0,-2.0,2.0,-2.0,-2.0,2.0,2.0,-2.0,-2.0,2.0,-2.0,2.0,-2.0,-2.0,2.0,-2.0,-2.0
2025-06-05 10:32:18.038,0.046154827,0.01433753,0.027542347,-0.045086835,-0.26428908,0.0052581076,0.0,0.0,0.0,-0.019095015,0.16972516,0.9382129,-0.52643055,-0.1482472,0.9216753,-0.53004557,0.19800265,-1.0898749,-0.5280147,0.19288218,-0.9630317,-0.52889055,0.053674556,-0.025395703,0.01768954,-0.01044137,0.029271483,0.043318175,-0.027471805,0.04063144,-0.0045105843,0.019907847,-0.011870233,-0.0425914,2.0,2.0,-2.0,-2.0,2.0,-2.0,2.0,-2.0,-2.0,2.0,-2.0,-2.0,2.0,2.0,-2.0,-2.0,2.0,-2.0,2.0,-2.0,-2.0,2.0,-2.0,-2.0
2025-06-05 10:32:18.056,0.044342622,-0.03518954,0.022602752,-0.067989334,-0.23973455,-0.046701007,0.0,0.0,0.0,-0.019095013,0.16387896,0.94113463,-0.5368052,-0.14694189,0.9225441,-0.5231347,0.20008865,-1.0888033,-0.51541984,0.19408141,-0.96856266,-0.53895134,-0.008216153,-0.01078324,0.062349938,-0.038050376,0.07130516,0.042841468,-0.034131806,0.019763779,0.009546826,-0.023541357,-0.033400618,-0.06174492,2.0,2.0,-2.0,-2.0,2.0,-2.0,2.0,-2.0,-2.0,2.0,-2.0,-2.0,2.0,2.0,-2.0,-2.0,2.0,-2.0,2.0,-2.0,-2.0,2.0,-2.0,-2.0
2025-06-05 10:32:18.078,0.034296747,-0.018942803,0.03967228,-0.050758436,-0.27213076,-0.010977885,0.0,0.0,0.0,-0.019095013,0.169722,0.94425523,-0.5388322,-0.1426342,0.92230207,-0.52065396,0.18734695,-1.0904448,-0.51908684,0.20196013,-0.97582406,-0.5331911,-0.022011414,0.025001239,-0.0698196,-0.068495974,-0.017339308,-0.06626891,-0.019568319,0.023337359,0.011686557,0.019141277,0.049437642,-0.04993363,2.0,2.0,-2.0,-2.0,2.0,-2.0,2.0,-2.0,-2.0,2.0,-2.0,-2.0,2.0,2.0,-2.0,-2.0,2.0,-2.0,2.0,-2.0,-2.0,2.0,-2.0,-2.0
2025-06-05 10:32:18.098,-0.041156974,0.04581109,0.013241406,-0.06578886,-0.24467377,-0.021314643,0.0,0.0,0.0,-0.019095013,0.17182966,0.94121265,-0.5311565,-0.14592716,0.9221521,-0.53454626,0.18172401,-1.0901096,-0.5174523,0.20531595,-0.97859865,-0.5289471,-0.042590532,-0.007584894,-0.01193606,0.031933326,0.06527565,-0.035311796,0.048946243,0.05292157,-0.010842874,-0.0075878557,0.06825478,-0.010188893,2.0,2.0,-2.0,-2.0,2.0,-2.0,2.0,-2.0,-2.0,2.0,-2.0,-2.0,2.0,2.0,-2.0,-2.0,2.0,-2.0,2.0,-2.0,-2.0,2.0,-2.0,-2.0
2025-06-05 10:32:18.117,0.027315682,-0.012474533,0.007779198,-0.015606492,-0.3028077,0.020090163,0.0,0.0,0.0,-0.019095011,0.16118997,0.92620224,-0.5458903,-0.13635112,0.92903703,-0.52536386,0.18750122,-1.0761139,-0.52742,0.1909735,-0.9753795,-0.5205197,-0.030404909,-0.047785513,0.041181386,-0.04684593,0.054465484,0.050120987,0.06197533,0.07285548,-0.0725477,0.06292911,0.024797283,0.047369353,2.0,2.0,-2.0,-2.0,2.0,-2.0,2.0,-2.0,-2.0,2.0,-2.0,-2.0,2.0,2.0,-2.0,-2.0,2.0,-2.0,2.0,-2.0,-2.0,2.0,-2.0,-2.0
2025-06-05 10:32:18.139,-0.0045758956,0.029011365,-0.0106574735,-0.039079588,-0.28150535,0.029794646,0.0,0.0,0.0,-0.019095011,0.1615093,0.9297782,-0.53955305,-0.14611916,0.91740215,-0.52374744,0.20003833,-1.0835966,-0.51794076,0.20684652,-0.9766913,-0.52441937,-0.031451885,-0.07485264,0.052033808,-0.05143041,-0.034002326,-0.041332565,0.04996308,-0.034711067,-0.04601981,0.037277494,-0.046610482,0.019740518,2.0,2.0,-2.0,-2.0,2.0,-2.0,2.0,-2.0,-2.0,2.0,-2.0,-2.0,2.0,2.0,-2.0,-2.0,2.0,-2.0,2.0,-2.0,-2.0,2.0,-2.0,-2.0
2025-06-05 10:32:18.157,-0.028966064,-0.036509093,0.036261093,-0.025727697,-0.28792697,-0.015379329,0.0,0.0,0.0,-0.01909501,0.1712453,0.9314218,-0.53457224,-0.14085354,0.92547834,-0.5353846,0.19263819,-1.0931937,-0.51508474,0.20856224,-0.96296066,-0.5370631,-0.037278548,-0.06984319,0.021993266,0.023971073,-0.021123601,-0.05632259,0.07094326,0.07069676,0.006050117,0.071932964,0.04869762,-0.03440302,2.0,2.0,-2.0,-2.0,2.0,-2.0,2.0,-2.0,-2.0,2.0,-2.0,-2.0,2.0,2.0,-2.0,-2.0,2.0,-2.0,2.0,-2.0,-2.0,2.0,-2.0,-2.0
2025-06-05 10:32:18.178,0.012761831,0.031997696,0.0010593549,-0.013039355,-0.27344936,-0.037982054,0.0,0.0,0.0,-0.019095007,0.16326916,0.93122715,-0.5447381,-0.14617823,0.9191506,-0.51845247,0.1847004,-1.0757921,-0.51348275,0.20518363,-0.9685289,-0.52347267,0.005504292,0.0021161428,0.03383164,0.057772856,0.041787837,0.02216578,-0.049942415,-0.023589054,0.017770829,0.033762936,0.04031861,-0.040841512,2.0,2.0,-2.0,-2.0,2.0,-2.0,2.0,-2.0,-2.0,2.0,-2.0,-2.0,2.0,2.0,-2.0,-2.0,2.0,-2.0,2.0,-2.0,-2.0,2.0,-2.0,-2.0
2025-06-05 10:32:18.198,-0.0028769127,0.007234681,-0.027382052,-0.09375351,-0.2117557,0.023095043,0.0,0.0,0.0,-0.019095005,0.15991063,0.9262014,-0.537275,-0.15087765,0.92734367,-0.5276029,0.19749115,-1.0922143,-0.50975466,0.19984132,-0.9700849,-0.53138816,0.047003113,0.058216672,-0.01405696,0.01569797,-0.06347286,0.01705492,-0.05647038,-0.057819195,0.06554903,-0.053656757,0.023082146,-0.0630551,2.0,2.0,-2.0,-2.0,2.0,-2.0,2.0,-2.0,-2.0,2.0,-2.0,-2.0,2.0,2.0,-2.0,-2.0,2.0,-2.0,2.0,-2.0,-2.0,2.0,-2.0,-2.0
2025-06-05 10:32:18.218,0.03557137,-0.04016303,-0.039494324,-0.054930534,-0.2961447,0.03243276,0.0,0.0,0.0,-0.019095004,0.16244033,0.93632257,-0.53805095,-0.14872247,0.915581,-0.52009594,0.18099312,-1.0784447,-0.5176169,0.18950582,-0.9689159,-0.53164494,0.0025728424,0.0613758,-0.051553175,0.007877102,-0.06463867,-0.046944674,0.018450411,-0.012340843,0.014824374,0.03309706,0.028372958,0.046331476,2.0,2.0,-2.0,-2.0,2.0,-2.0,2.0,-2.0,-2.0,2.0,-2.0,-2.0,2.0,2.0,-2.0,-2.0,2.0,-2.0,2.0,-2.0,-2.0,2.0,-2.0,-2.0
2025-06-05 10:32:18.239,0.015104848,-0.03826389,-0.019392485,-0.018592682,-0.21570449,-0.019862814,0.0,0.0,0.0,-0.019095004,0.16548732,0.9329537,-0.53655916,-0.14948894,0.9242366,-0.5177911,0.19941814,-1.0909361,-0.5229028,0.20082268,-0.97969794,-0.53327787,0.05213777,0.00086623715,-0.024844874,-0.06669352,0.017550778,0.051055573,-0.012664212,-0.071723476,0.013429711,-0.03119601,-0.058032226,-0.023139773,2.0,2.0,-2.0,-2.0,2.0,-2.0,2.0,-2.0,-2.0,2.0,-2.0,-2.0,2.0,2.0,-2.0,-2.0,2.0,-2.0,2.0,-2.0,-2.0,2.0,-2.0,-2.0
2025-06-05 10:32:18.258,0.0069920956,0.007766067,0.020885864,-0.0697128,-0.21265526,0.021965386,0.0,0.0,0.0,-0.019095002,0.17626148,0.931144,-0.5304981,-0.14429848,0.9111417,-0.5256035,0.19966549,-1.0879447,-0.5204829,0.20469373,-0.96294487,-0.5315974,0.0069812494,0.036568426,-0.018744897,-0.01912329,-0.027317764,0.03361238,0.038592488,-0.0013472716,-0.066706784,0.0444044,0.071617775,0.060834534,2.0,2.0,-2.0,-2.0,2.0,-2.0,2.0,-2.0,-2.0,2.0,-2.0,-2.0,2.0,2.0,-2.0,-2.0,2.0,-2.0,2.0,-2.0,-2.0,2.0,-2.0,-2.0
2025-06-05 10:32:18.281,0.02236629,0.009705024,-0.011497879,-0.0074266866,-0.22046167,-0.0035901365,0.0,0.0,0.0,-0.019095,0.16892974,0.94405764,-0.53971475,-0.13915873,0.92603505,-0.52329403,0.18085042,-1.0781833,-0.5238987,0.20182459,-0.9622944,-0.5301132,0.07137215,0.019113122,-0.06084794,0.0563505,0.041474633,-0.04520632,-0.0057647675,0.032868236,-0.071973264,-0.011295397,-0.057872493,0.009520428,2.0,2.0,-2.0,-2.0,2.0,-2.0,2.0,-2.0,-2.0,2.0,-2.0,-2.0,2.0,2.0,-2.0,-2.0,2.0,-2.0,2.0,-2.0,-2.0,2.0,-2.0,-2.0
2025-06-05 10:32:18.298,0.020324819,0.02903614,0.025237951,-0.08830293,-0.2643703,0.038823653,0.0,0.0,0.0,-0.019094998,0.16349229,0.9408401,-0.5350017,-0.13825999,0.9277685,-0.5242837,0.19898549,-1.0753312,-0.5259648,0.1909334,-0.96774244,-0.53458774,-0.060814966,0.0478858,-0.03295871,0.03926733,0.06710908,0.055046268,0.03980574,-0.017079694,0.0243907,-0.024414256,0.074949235,-0.07308005,2.0,2.0,-2.0,-2.0,2.0,-2.0,2.0,-2.0,-2.0,2.0,-2.0,-2.0,2.0,2.0,-2.0,-2.0,2.0,-2.0,2.0,-2.0,-2.0,2.0,-2.0,-2.0
2025-06-05 10:32:18.321,0.0033106084,-0.018999154,-0.023235224,-0.08863761,-0.24371505,0.013689548,0.0,0.0,0.0,-0.019094996,0.16096659,0.9373972,-0.5375689,-0.14774378,0.9286048,-0.52250373,0.19317329,-1.07715,-0.5239186,0.20287135,-0.9803389,-0.5358461,-0.02806299,0.06279793,-0.067133375,-0.006353475,-0.02253161,0.05451785,0.011035487,-0.04209351,-0.047600567,-0.037633967,-0.0055092773,-0.06268184,2.0,2.0,-2.0,-2.0,2.0,-2.0,2.0,-2.0,-2.0,2.0,-2.0,-2.0,2.0,2.0,-2.0,-2.0,2.0,-2.0,2.0,-2.0,-2.0,2.0,-2.0,-2.0
2025-06-05 10:32:18.339,-0.014150139,-0.01659611,0.044009756,-0.017586473,-0.21740274,-0.025348837,0.0,0.0,0.0,-0.019094994,0.16981913,0.937743,-0.52924275,-0.14327057,0.92007345,-0.5300306,0.18105383,-1.0845994,-0.5142189,0.18951438,-0.9618828,-0.52307594,0.029567402,0.038389437,-0.06423302,0.06960703,-0.07357713,0.03393402,-0.034316298,-0.016929952,-0.0023845236,0.067611136,-0.011673191,-0.017381132,2.0,2.0,-2.0,-2.0,2.0,-2.0,2.0,-2.0,-2.0,2.0,-2.0,-2.0,2.0,2.0,-2.0,-2.0,2.0,-2.0,2.0,-2.0,-2.0,2.0,-2.0,-2.0
2025-06-05 10:32:18.359,-0.021425014,-0.028711826,0.048680957,-0.067457,-0.24257764,-0.023602229,0.0,0.0,0.0,-0.019094992,0.16716073,0.9372656,-0.54520017,-0.13880347,0.91486645,-0.5262454,0.19477375,-1.0929906,-0.5285178,0.19464043,-0.9745226,-0.5306505,0.07229767,0.045414932,0.057278737,0.004902652,-0.028580667,-0.03845538,0.01623222,-0.025934706,0.02119907,0.052352823,0.008538915,-0.049708527,2.0,2.0,-2.0,-2.0,2.0,-2.0,2.0,-2.0,-2.0,2.0,-2.0,-2.0,2.0,2.0,-2.0,-2.0,2.0,-2.0,2.0,-2.0,-2.0,2.0,-2.0,-2.0
2025-06-05 10:32:18.379,-0.048614837,-0.020571161,0.015455001,-0.011230143,-0.25917286,0.016026886,0.0,0.0,0.0,-0.019094989,0.161797,0.9399134,-0.5447597,-0.15274216,0.9299541,-0.52669734,0.19107345,-1.0754653,-0.51658607,0.19431977,-0.96571076,-0.5380202,-0.0565371,0.044137288,0.043213222,-0.044890214,-0.068625145,-0.040622752,0.04184872,-0.014580568,-0.052989904,0.041441828,-0.0029242383,-0.02954357,2.0,2.0,-2.0,-2.0,2.0,-2.0,2.0,-2.0,-2.0,2.0,-2.0,-2.0,2.0,2.0,-2.0,-2.0,2.0,-2.0,2.0,-2.0,-2.0,2.0,-2.0,-2.0
2025-06-05 10:32:18.399,-0.04940198,0.007460112,0.0021027327,0.000857296,-0.28646776,0.004193829,0.0,0.0,0.0,-0.019094987,0.1630946,0.92526203,-0.5416587,-0.15118897,0.91766465,-0.5162284,0.18409647,-1.0826797,-0.5145983,0.18978827,-0.96162313,-0.52190304,-0.031437885,-0.048791606,-0.019804005,0.005200513,-0.034799747,-0.046821404,-0.053939383,-0.018558748,0.07414508,-0.016449787,-0.03355131,0.06565499,2.0,2.0,-2.0,-2.0,2.0,-2.0,2.0,-2.0,-2.0,2.0,-2.0,-2.0,2.0,2.0,-2.0,-2.0,2.0,-2.0,2.0,-2.0,-2.0,2.0,-2.0,-2.0
2025-06-05 10:32:18.421,-0.042625304,-0.04887063,0.047237072,-0.0935687,-0.25269544,-0.025741154,0.0,0.0,0.0,-0.019094985,0.17695014,0.9306021,-0.54110175,-0.14056799,0.91191673,-0.5222806,0.19456099,-1.0933028,-0.5159274,0.19120684,-0.9659842,-0.53791344,0.016178114,0.016991653,0.030116107,0.0057278615,-0.022425843,-0.025119519,0.014652247,-0.074172966,-0.009733868,-0.04327199,-0.037755433,0.018615456,2.0,2.0,-2.0,-2.0,2.0,-2.0,2.0,-2.0,-2.0,2.0,-2.0,-2.0,2.0,2.0,-2.0,-2.0,2.0,-2.0,2.0,-2.0,-2.0,2.0,-2.0,-2.0
2025-06-05 10:32:18.439,0.014463399,-0.018342633,-0.032942332,-0.01695489,-0.29618075,-0.014814342,0.0,0.0,0.0,-0.019094983,0.15946265,0.9349597,-0.5332892,-0.1352749,0.9177163,-0.53377324,0.19445875,-1.0799965,-0.51599056,0.1952142,-0.96868944,-0.53465354,-0.035842642,0.057744186,-0.027973669,-0.038115654,0.06501806,-0.041853964,-0.06382199,0.03837095,-0.004487324,0.056005012,-0.008361131,-0.07301211,2.0,2.0,-2.0,-2.0,2.0,-2.0,2.0,-2.0,-2.0,2.0,-2.0,-2.0,2.0,2.0,-2.0,-2.0,2.0,-2.0,2.0,-2.0,-2.0,2.0,-2.0,-2.0
2025-06-05 10:32:18.459,-0.01896567,-0.004759089,0.03347154,-0.017928148,-0.2899535,0.04648198,0.0,0.0,0.0,-0.019094981,0.16730708,0.9277724,-0.5264762,-0.1365166,0.92049545,-0.527157,0.19610205,-1.0846434,-0.524588,0.18948959,-0.97247946,-0.5380681,-0.009357702,0.022157565,-0.060893096,0.06912198,0.05680848,0.04777269,-0.021687657,0.054500863,-0.0631059,0.036365896,0.008171058,-0.06691794,2.0,2.0,-2.0,-2.0,2.0,-2.0,2.0,-2.0,-2.0,2.0,-2.0,-2.0,2.0,2.0,-2.0,-2.0,2.0,-2.0,2.0,-2.0,-2.0,2.0,-2.0,-2.0
2025-06-05 10:32:18.480,0.021058079,0.02930176,-0.04029059,-0.06877659,-0.2337716,0.013052502,0.0,0.0,0.0,-0.01909498,0.16901387,0.92518413,-0.53940296,-0.14141585,0.91626024,-0.5268114,0.1824791,-1.0792282,-0.52047575,0.20586622,-0.9756835,-0.5368572,0.047313195,0.05093498,-0.073080614,-0.025103167,0.0021182268,0.027325226,-0.033023402,-0.03777207,-0.0329485,-0.061894055,0.060497027,-0.06905208,2.0,2.0,-2.0,-2.0,2.0,-2.0,2.0,-2.0,-2.0,2.0,-2.0,-2.0,2.0,2.0,-2.0,-2.0,2.0,-2.0,2.0,-2.0,-2.0,2.0,-2.0,-2.0
2025-06-05 10:32:18.500,0.008681972,-0.0049885632,-0.016562156,-0.05887203,-0.24882011,0.040577736,0.0,0.0,0.0,-0.019094978,0.1664526,0.93773556,-0.53922135,-0.13802764,0.91601723,-0.52070105,0.19620627,-1.0787007,-0.5272169,0.20113367,-0.96492606,-0.53704137,-0.056138013,0.024933338,-0.059182458,0.03604648,-0.06969585,-0.059253525,0.039425407,-0.027773231,-0.028274164,-0.05004552,-0.07293747,-0.06837053,2.0,2.0,-2.0,-2.0,2.0,-2.0,2.0,-2.0,-2.0,2.0,-2.0,-2.0,2.0,2.0,-2.0,-2.0,2.0,-2.0,2.0,-2.0,-2.0,2.0,-2.0,-2.0
2025-06-05 10:32:18.524,0.009260998,0.0033996142,0.041068383,-0.020643005,-0.22096942,-0.01862791,0.0,0.0,0.0,-0.019094976,0.15855591,0.9433361,-0.5417485,-0.14307466,0.9207652,-0.5246903,0.18330312,-1.0753211,-0.5171256,0.201122,-0.9752624,-0.5274245,-0.025786012,0.041220415,-0.06174442,0.007333103,0.049432,0.018084083,-0.0042914576,0.011365883,0.04727485,0.026090415,0.009169909,0.014195612,2.0,2.0,-2.0,-2.0,2.0,-2.0,2.0,-2.0,-2.0,2.0,-2.0,-2.0,2.0,2.0,-2.0,-2.0,2.0,-2.0,2.0,-2.0,-2.0,2.0,-2.0,-2.0
2025-06-05 10:32:18.544,-0.022163924,0.0116316145,0.039515242,-0.0054799262,-0.24308862,-0.028187506,0.0,0.0,0.0,-0.019094974,0.1709766,0.9436669,-0.5358769,-0.14381993,0.9136206,-0.5278784,0.1833523,-1.0831275,-0.5187316,0.19859222,-0.9675682,-0.52819794,-0.04932944,0.014190688,-0.06783464,-0.034722205,-0.048374012,-0.021858022,0.03999564,0.014143934,-0.05927222,0.073436886,0.009783591,0.004045641,2.0,2.0,-2.0,-2.0,2.0,-2.0,2.0,-2.0,-2.0,2.0,-2.0,-2.0,2.0,2.0,-2.0,-2.0,2.0,-2.0,2.0,-2.0,-2.0,2.0,-2.0,-2.0
2025-06-05 10:32:18.565,-0.03181942,-0.03583243,-0.031956855,-0.093993746,-0.3041548,0.0442999,0.0,0.0,0.0,-0.01909497,0.16142602,0.9444362,-0.5340816,-0.14796984,0.91622496,-0.5324207,0.19670604,-1.0942986,-0.5095991,0.19696435,-0.9795585,-0.52137,0.03787282,-0.07187118,0.018687192,-0.0018310741,0.06283907,-0.016127845,-0.06578809,-0.05104327,0.011940539,-0.02345467,-0.020828396,-0.029329605,2.0,2.0,-2.0,-2.0,2.0,-2.0,2.0,-2.0,-2.0,2.0,-2.0,-2.0,2.0,2.0,-2.0,-2.0,2.0,-2.0,2.0,-2.0,-2.0,2.0,-2.0,-2.0
2025-06-05 10:32:18.584,0.01673349,0.008571698,-0.033339974,-0.077500075,-0.24567865,0.022170069,0.0,0.0,0.0,-0.019094968,0.16199121,0.94434285,-0.54462475,-0.14104643,0.91222143,-0.5162326,0.19943564,-1.0946633,-0.5109839,0.19288968,-0.9752276,-0.52507335,0.06382189,-0.051580124,0.034216285,0.06782343,-0.06797383,-0.049623806,-0.054625552,0.013024765,-0.05913823,0.07498155,-0.012969105,-0.06724948,2.0,2.0,-2.0,-2.0,2.0,-2.0,2.0,-2.0,-2.0,2.0,-2.0,-2.0,2.0,2.0,-2.0,-2.0,2.0,-2.0,2.0,-2.0,-2.0,2.0,-2.0,-2.0
2025-06-05 10:32:18.606,-0.045144986,0.049323637,-0.036535606,-0.004868625,-0.25924036,-0.043093964,0.0,0.0,0.0,-0.019094966,0.16397278,0.9387254,-0.5399933,-0.13731465,0.92329144,-0.5312678,0.18277699,-1.0912648,-0.52206635,0.20190348,-0.9698453,-0.52753925,-0.039144173,0.05744929,0.034100965,0.011623018,0.05901398,-0.014209334,0.014598362,-0.04373606,-0.011008637,-0.06814797,-0.015602734,0.0514018,2.0,2.0,-2.0,-2.0,2.0,-2.0,2.0,-2.0,-2.0,2.0,-2.0,-2.0,2.0,2.0,-2.0,-2.0,2.0,-2.0,2.0,-2.0,-2.0,2.0,-2.0,-2.0
2025-06-05 10:32:18.623,-0.015097283,-0.045621086,-0.0028827223,-0.09083896,-0.28171527,-0.041513722,0.0,0.0,0.0,-0.019094964,0.16461745,0.92884237,-0.5425279,-0.15121682,0.91981953,-0.53149325,0.19356234,-1.0847588,-0.5286508,0.20244116,-0.97189945,-0.5356661,-0.06379894,0.061214387,-0.032097206,0.032476082,-0.05072332,-0.0075223367,0.043407965,0.034636557,-0.041148886,0.04776894,-0.037648965,0.013013454,2.0,2.0,-2.0,-2.0,2.0,-2.0,2.0,-2.0,-2.0,2.0,-2.0,-2.0,2.0,2.0,-2.0,-2.0,2.0,-2.0,2.0,-2.0,-2.0,2.0,-2.0,-2.0
2025-06-05 10:32:18.644,-0.0059207645,0.001350727,-0.0385017,-0.053567436,-0.27114677,-0.04895507,0.0,0.0,0.0,-0.019094963,0.16842286,0.93895805,-0.5421575,-0.15333532,0.92019963,-0.53487706,0.18687238,-1.081921,-0.5272544,0.19790827,-0.970534,-0.53365886,-0.012805275,-0.015357018,0.0702602,0.055739705,0.041423786,0.058952093,-0.07273474,0.035006862,0.018157493,0.0042515267,0.06393122,-0.058439147,2.0,2.0,-2.0,-2.0,2.0,-2.0,2.0,-2.0,-2.0,2.0,-2.0,-2.0,2.0,2.0,-2.0,-2.0,2.0,-2.0,2.0,-2.0,-2.0,2.0,-2.0,-2.0
2025-06-05 10:32:18.663,-0.03925725,-0.0020589149,0.0007031398,-0.022414789,-0.2892646,-0.03054199,0.0,0.0,0.0,-0.01909496,0.15758277,0.93469787,-0.53325087,-0.15445288,0.9183053,-0.5301138,0.1867994,-1.0756911,-0.5259012,0.19238181,-0.9658717,-0.52306676,-0.030730292,-0.01038305,0.04497051,-0.042275634,-0.047728833,0.035867,-0.04811104,-0.0053102863,0.0029782518,0.037929285,-0.03135198,-0.023325289,2.0,2.0,-2.0,-2.0,2.0,-2.0,2.0,-2.0,-2.0,2.0,-2.0,-2.0,2.0,2.0,-2.0,-2.0,2.0,-2.0,2.0,-2.0,-2.0,2.0,-2.0,-2.0
2025-06-05 10:32:18.684,-0.0073476504,0.014382439,0.012917011,-0.06451618,-0.22911924,-0.0135408165,0.0,0.0,0.0,-0.019094957,0.16718186,0.9418753,-0.5299208,-0.14120527,0.92719233,-0.52287626,0.19424257,-1.079117,-0.5148491,0.19328818,-0.96431845,-0.5325028,0.008391152,0.04833595,0.0076656197,-0.061235584,0.029554514,-0.04608315,-0.059429742,-0.042901635,-0.047564525,0.02316402,-0.047726616,-0.021323374,2.0,2.0,-2.0,-2.0,2.0,-2.0,2.0,-2.0,-2.0,2.0,-2.0,-2.0,2.0,2.0,-2.0,-2.0,2.0,-2.0,2.0,-2.0,-2.0,2.0,-2.0,-2.0
2025-06-05 10:32:18.706,0.005766972,-0.021337911,0.028454311,-0.027074287,-0.29146227,-0.024112184,0.0,0.0,0.0,-0.019094955,0.17119157,0.9323704,-0.52990335,-0.13733743,0.92276835,-0.53008085,0.19565855,-1.0895926,-0.51658297,0.19116712,-0.980109,-0.5323581,0.016491948,-0.0036601783,-0.06949943,0.0042458773,0.052056693,0.055043485,0.021717986,0.042281944,-0.016603857,-0.0049749846,0.040668733,0.040143725,2.0,2.0,-2.0,-2.0,2.0,-2.0,2.0,-2.0,-2.0,2.0,-2.0,-2.0,2.0,2.0,-2.0,-2.0,2.0,-2.0,2.0,-2.0,-2.0,2.0,-2.0,-2.0
2025-06-05 10:32:18.724,-0.034792192,0.01308368,-0.030516138,-0.06594393,-0.21617019,-0.01934471,0.0,0.0,0.0,-0.019094953,0.1644978,0.93170327,-0.53059775,-0.14987189,0.9281016,-0.522683,0.19891132,-1.0929488,-0.51966214,0.19492951,-0.9782285,-0.5306519,0.018252753,0.024959275,0.049686138,-0.02424834,-0.039600473,0.064734675,0.04244336,0.008848745,0.033075698,0.02717479,0.00067454885,0.0151509335,2.0,2.0,-2.0,-2.0,2.0,-2.0,2.0,-2.0,-2.0,2.0,-2.0,-2.0,2.0,2.0,-2.0,-2.0,2.0,-2.0,2.0,-2.0,-2.0,2.0,-2.0,-2.0
2025-06-05 10:32:18.745,0.004520661,-0.0027992756,0.0096682785,-0.020192571,-0.26365376,-0.0233362,0.0,0.0,0.0,-0.019094951,0.1622295,0.9331111,-0.54562134,-0.14997616,0.919068,-0.53068405,0.19868003,-1.07934,-0.5125598,0.2070377,-0.96542025,-0.524755,-0.005364294,0.009545956,-0.044615403,0.04224555,-0.03548047,-0.050562754,-0.023566786,0.035360746,-0.024873806,0.044556152,-0.06446748,0.054508023,2.0,2.0,-2.0,-2.0,2.0,-2.0,2.0,-2.0,-2.0,2.0,-2.0,-2.0,2.0,2.0,-2.0,-2.0,2.0,-2.0,2.0,-2.0,-2.0,2.0,-2.0,-2.0
2025-06-05 10:32:18.765,0.038445167,0.014843753,-0.0368184,-0.090760246,-0.21954519,-0.019302586,0.0,0.0,0.0,-0.01909495,0.16034964,0.9322558,-0.5325593,-0.143465,0.9304003,-0.52386993,0.19680372,-1.0768561,-0.52702844,0.19790292,-0.9635269,-0.5336443,0.060633924,-0.011210404,0.03373606,-0.0006053397,0.062984824,-0.0038683559,0.01575689,0.04236362,0.07473998,-0.03975553,0.05078255,0.03542662,2.0,2.0,-2.0,-2.0,2.0,-2.0,2.0,-2.0,-2.0,2.0,-2.0,-2.0,2.0,2.0,-2.0,-2.0,2.0,-2.0,2.0,-2.0,-2.0,2.0,-2.0,-2.0
2025-06-05 10:32:18.785,0.017600479,0.0062641655,-0.00091555854,-0.06710293,-0.2541168,0.0021885796,0.0,0.0,0.0,-0.019094948,0.16471587,0.9394132,-0.52945745,-0.1534504,0.9265145,-0.522035,0.20025048,-1.0923474,-0.5265903,0.2030902,-0.9727188,-0.52339077,-0.06311186,-0.010684914,0.0019824537,0.022069223,0.014254787,0.018710975,-0.0062172934,-0.039798625,-0.028871115,0.052716773,-0.012066803,-0.06756534,2.0,2.0,-2.0,-2.0,2.0,-2.0,2.0,-2.0,-2.0,2.0,-2.0,-2.0,2.0,2.0,-2.0,-2.0,2.0,-2.0,2.0,-2.0,-2.0,2.0,-2.0,-2.0
2025-06-05 10:32:18.806,-0.043198694,0.014550028,0.02515929,-0.02974062,-0.2543075,0.048896354,0.0,0.0,0.0,-0.019094946,0.1665701,0.927695,-0.5332667,-0.14535517,0.9149176,-0.5249981,0.19396713,-1.0771803,-0.516783,0.19659095,-0.968773,-0.52973235,0.013518701,-0.05581663,0.04833321,0.012431774,-0.059855442,-0.055362053,0.025554193,-0.03258642,0.061159506,-0.053747036,-0.0348337,0.045947786,2.0,2.0,-2.0,-2.0,2.0,-2.0,2.0,-2.0,-2.0,2.0,-2.0,-2.0,2.0,2.0,-2.0,-2.0,2.0,-2.0,2.0,-2.0,-2.0,2.0,-2.0,-2.0
2025-06-05 10:32:18.825,0.017719986,-0.04693702,0.017045941,-0.000448946,-0.20769484,-0.036081806,0.0,0.0,0.0,-0.019094942,0.16467369,0.9295513,-0.5338098,-0.13598704,0.9124963,-0.5225291,0.19716282,-1.0892237,-0.52042556,0.19059111,-0.9667993,-0.5232547,0.039097786,0.04520113,0.030391917,-0.010933304,-0.071089886,-0.042262785,0.00822451,-0.03775042,-0.0010995675,-0.0032302032,0.0320768,0.073893555,2.0,2.0,-2.0,-2.0,2.0,-2.0,2.0,-2.0,-2.0,2.0,-2.0,-2.0,2.0,2.0,-2.0,-2.0,2.0,-2.0,2.0,-2.0,-2.0,2.0,-2.0,-2.0
2025-06-05 10:32:18.845,0.03516702,-0.022193493,-0.0012840668,-0.0953922,-0.29165626,-0.008612304,0.0,0.0,0.0,-0.01909494,0.1582043,0.9255338,-0.5299306,-0.13762309,0.91394573,-0.51702064,0.19327968,-1.0807413,-0.5208298,0.19168696,-0.96540684,-0.5265314,-0.018216044,-0.03704754,-0.0093139745,0.0067485063,0.053065613,0.0046332297,0.01292577,0.007517948,0.033881407,0.036203016,0.038896788,0.00025603356,2.0,2.0,-2.0,-2.0,2.0,-2.0,2.0,-2.0,-2.0,2.0,-2.0,-2.0,2.0,2.0,-2.0,-2.0,2.0,-2.0,2.0,-2.0,-2.0,2.0,-2.0,-2.0
2025-06-05 10:32:18.867,-0.03711734,-0.008599548,-0.034389865,-0.046530537,-0.25858828,0.020713963,0.0,0.0,0.0,-0.019094938,0.16719171,0.9414043,-0.5320237,-0.14792565,0.91282654,-0.51635027,0.19995447,-1.0805172,-0.5236015,0.196204,-0.9679857,-0.5244814,-0.0076420237,-0.003046766,-0.05770283,-0.030977124,-0.06734145,-0.0013883332,0.068665996,-0.034254704,-0.0007994676,-0.05496657,0.034967653,-0.06807908,2.0,2.0,-2.0,-2.0,2.0,-2.0,2.0,-2.0,-2.0,2.0,-2.0,-2.0,2.0,2.0,-2.0,-2.0,2.0,-2.0,2.0,-2.0,-2.0,2.0,-2.0,-2.0
2025-06-05 10:32:18.885,-0.009296911,-0.033631086,0.045259476,-0.046135623,-0.2585915,0.030852491,0.0,0.0,0.0,-0.019094937,0.16453333,0.94258225,-0.5386649,-0.1516285,0.92375976,-0.5193302,0.19560969,-1.0788385,-0.5277757,0.18980184,-0.9736247,-0.53921604,0.015973134,-0.015904952,0.028206263,-0.052736297,-0.022848958,-0.015807554,0.039778948,0.0049863937,0.023100855,0.07079597,-0.02940686,-0.009947012,2.0,2.0,-2.0,-2.0,2.0,-2.0,2.0,-2.0,-2.0,2.0,-2.0,-2.0,2.0,2.0,-2.0,-2.0,2.0,-2.0,2.0,-2.0,-2.0,2.0,-2.0,-2.0
2025-06-05 10:32:18.906,0.0009967926,-0.0037670676,0.013672763,-0.010710717,-0.2310687,0.034730207,0.0,0.0,0.0,-0.019094935,0.1703027,0.92749476,-0.533371,-0.14371714,0.92891127,-0.53468657,0.18134859,-1.0906419,-0.5196467,0.19236012,-0.96257704,-0.5352054,-0.07020278,0.06798889,0.019715795,-0.01591789,0.013745104,-0.044776574,0.06834489,0.065707766,-0.045214504,-0.043096073,-0.019503996,-0.069572955,2.0,2.0,-2.0,-2.0,2.0,-2.0,2.0,-2.0,-2.0,2.0,-2.0,-2.0,2.0,2.0,-2.0,-2.0,2.0,-2.0,2.0,-2.0,-2.0,2.0,-2.0,-2.0
2025-06-05 10:32:18.925,0.0050184755,0.040769696,-0.012210409,-0.06688113,-0.30469975,-0.028251585,0.0,0.0,0.0,-0.019094933,0.1682437,0.93706656,-0.5311504,-0.14449672,0.91444415,-0.5346305,0.18713792,-1.0749648,-0.5212442,0.2014601,-0.97422856,-0.52846175,-0.018514398,0.02485491,-0.008220691,0.068663396,0.029396366,-0.056753006,-0.05789992,-0.03998008,-0.06957768,-0.07446616,0.01082793,0.023284564,2.0,2.0,-2.0,-2.0,2.0,-2.0,2.0,-2.0,-2.0,2.0,-2.0,-2.0,2.0,2.0,-2.0,-2.0,2.0,-2.0,2.0,-2.0,-2.0,2.0,-2.0,-2.0
2025-06-05 10:32:18.944,-0.015591138,0.0433554,-0.021931289,-0.08074917,-0.2509238,0.038903125,0.0,0.0,0.0,-0.01909493,0.17397803,0.931457,-0.54036236,-0.15393223,0.92860097,-0.5185882,0.1983411,-1.0784436,-0.5220583,0.19472603,-0.96977276,-0.52207446,-0.071049966,0.043227475,0.009803526,-0.00046286173,0.067867756,0.0471619,-0.05823319,-0.014447763,-0.0034009954,0.07068691,-0.010185884,-0.07339567,2.0,2.0,-2.0,-2.0,2.0,-2.0,2.0,-2.0,-2.0,2.0,-2.0,-2.0,2.0,2.0,-2.0,-2.0,2.0,-2.0,2.0,-2.0,-2.0,2.0,-2.0,-2.0
2025-06-05 10:32:18.965,-0.009319553,-0.049775496,-0.020759016,-0.084686555,-0.2758072,0.029655991,0.0,0.0,0.0,-0.019094927,0.17488517,0.94260526,-0.532984,-0.14299521,0.92271507,-0.5238697,0.1993478,-1.089516,-0.51635325,0.20793785,-0.9809349,-0.5269824,0.043476593,-0.07050296,-0.04485226,0.03370487,-0.06631604,0.016738413,-0.0654054,-0.066685855,0.027274257,-0.055092894,-0.013843768,0.04866936,2.0,2.0,-2.0,-2.0,2.0,-2.0,2.0,-2.0,-2.0,2.0,-2.0,-2.0,2.0,2.0,-2.0,-2.0,2.0,-2.0,2.0,-2.0,-2.0,2.0,-2.0,-2.0
2025-06-05 10:32:18.988,0.0063207876,0.024809724,0.024504995,-0.038070735,-0.23573877,0.007380251,0.0,0.0,0.0,-0.019094925,0.16657668,0.92772645,-0.5408556,-0.14464542,0.916705,-0.51897967,0.18110222,-1.0891693,-0.5131454,0.20580293,-0.96873134,-0.5376277,-0.035581864,-0.007094111,0.021506691,0.01080971,-0.053065993,-0.05614859,-0.022036266,0.034357585,-0.056964736,-0.016744418,-0.025209293,0.06661182,2.0,2.0,-2.0,-2.0,2.0,-2.0,2.0,-2.0,-2.0,2.0,-2.0,-2.0,2.0,2.0,-2.0,-2.0,2.0,-2.0,2.0,-2.0,-2.0,2.0,-2.0,-2.0
2025-06-05 10:32:19.006,0.0025186683,-0.002157511,-0.027186302,-0.006582626,-0.27451548,0.027105313,0.0,0.0,0.0,-0.019094924,0.1614305,0.94061875,-0.53824544,-0.13773386,0.91658324,-0.53437674,0.19946633,-1.093714,-0.5262766,0.19745006,-0.9665473,-0.53022534,0.023725236,-0.04604334,-0.019358732,-0.017257173,-0.011504977,0.0079267025,-0.03375442,-0.056548554,-0.062734485,0.037712403,0.023603218,-0.06082111,2.0,2.0,-2.0,-2.0,2.0,-2.0,2.0,-2.0,-2.0,2.0,-2.0,-2.0,2.0,2.0,-2.0,-2.0,2.0,-2.0,2.0,-2.0,-2.0,2.0,-2.0,-2.0
2025-06-05 10:32:19.026,0.0035961852,0.03171235,-0.040063534,-0.049216527,-0.2817577,-0.02518545,0.0,0.0,0.0,-0.019094922,0.1576495,0.9334989,-0.5450455,-0.1367365,0.92967814,-0.53568536,0.18784136,-1.0885097,-0.5270106,0.19221745,-0.97327405,-0.531592,0.071227975,-0.019447725,0.054528307,-0.027023973,0.008163853,-0.031432636,-0.074665934,0.044007838,-0.023285504,0.06968892,-0.062103476,0.07319008,2.0,2.0,-2.0,-2.0,2.0,-2.0,2.0,-2.0,-2.0,2.0,-2.0,-2.0,2.0,2.0,-2.0,-2.0,2.0,-2.0,2.0,-2.0,-2.0,2.0,-2.0,-2.0
2025-06-05 10:32:19.045,-0.0019224591,-0.013433272,0.012705802,-0.046419878,-0.24190477,0.022065332,0.0,0.0,0.0,-0.01909492,0.17379312,0.9337347,-0.5450364,-0.14234164,0.92627525,-0.52278644,0.2000135,-1.0869088,-0.51371026,0.19899042,-0.97523785,-0.5311844,-0.04468103,0.036930874,0.055372138,0.0704098,0.00023374248,-0.0061168647,-0.06449868,0.020128174,-0.060055237,0.041967675,0.005322256,0.05018486,2.0,2.0,-2.0,-2.0,2.0,-2.0,2.0,-2.0,-2.0,2.0,-2.0,-2.0,2.0,2.0,-2.0,-2.0,2.0,-2.0,2.0,-2.0,-2.0,2.0,-2.0,-2.0
2025-06-05 10:32:19.066,0.013331784,-0.046387095,0.021096867,-0.008762344,-0.21827875,0.04910306,0.0,0.0,0.0,-0.019094916,0.16666229,0.9428357,-0.53006667,-0.13908017,0.9156311,-0.5294863,0.18462768,-1.0778869,-0.5212525,0.20365766,-0.975124,-0.5236053,0.053493652,0.051710524,0.022551736,-0.011788097,-0.063298166,-0.073524974,-0.038075443,0.060937326,-0.072144136,0.014905132,0.00740567,0.060957152,2.0,2.0,-2.0,-2.0,2.0,-2.0,2.0,-2.0,-2.0,2.0,-2.0,-2.0,2.0,2.0,-2.0,-2.0,2.0,-2.0,2.0,-2.0,-2.0,2.0,-2.0,-2.0
2025-06-05 10:32:19.088,0.036640946,0.010623448,0.0427774,-0.054960806,-0.21616632,-0.031613626,0.0,0.0,0.0,-0.019094914,0.16466287,0.93845165,-0.531187,-0.14932296,0.9302635,-0.5166365,0.19487733,-1.0829935,-0.51891077,0.19614287,-0.9746632,-0.5266365,-0.0019788707,0.04960992,0.0036593664,-0.011724642,0.03817318,-0.047154922,-0.023435116,-0.06556904,-0.04492925,0.058395624,-0.037265424,-0.016454332,2.0,2.0,-2.0,-2.0,2.0,-2.0,2.0,-2.0,-2.0,2.0,-2.0,-2.0,2.0,2.0,-2.0,-2.0,2.0,-2.0,2.0,-2.0,-2.0,2.0,-2.0,-2.0
2025-06-05 10:32:19.106,0.0022090392,0.019324219,-0.022911279,-0.02889167,-0.26572585,-0.039749447,0.0,0.0,0.0,-0.019094912,0.16660766,0.92840046,-0.5444097,-0.1395958,0.9170888,-0.52937806,0.19040607,-1.0889865,-0.5194694,0.1941349,-0.9706429,-0.5251035,0.05615142,-0.052901816,-0.0030250652,-0.03605983,0.024235575,-0.06510446,0.07268962,0.058366925,-0.072857425,-0.02597878,0.056475088,0.037148014,2.0,2.0,-2.0,-2.0,2.0,-2.0,2.0,-2.0,-2.0,2.0,-2.0,-2.0,2.0,2.0,-2.0,-2.0,2.0,-2.0,2.0,-2.0,-2.0,2.0,-2.0,-2.0
2025-06-05 10:32:19.126,0.003370778,0.03633,-0.03144972,0.0031905912,-0.2783728,0.018121488,0.0,0.0,0.0,-0.01909491,0.16996329,0.9304398,-0.5454076,-0.14252193,0.92681223,-0.5193307,0.19183508,-1.0833213,-0.5103042,0.19308788,-0.9755262,-0.521773,-0.01899614,0.05120963,-0.014758654,-0.07045008,0.015397959,0.0622847,-0.07123357,-0.022633877,0.0053851893,-0.07321672,-0.047520317,-0.018774513,2.0,2.0,-2.0,-2.0,2.0,-2.0,2.0,-2.0,-2.0,2.0,-2.0,-2.0,2.0,2.0,-2.0,-2.0,2.0,-2.0,2.0,-2.0,-2.0,2.0,-2.0,-2.0
2025-06-05 10:32:19.147,0.021623831,0.037521508,0.031311505,-0.061597694,-0.20948279,-0.0041120085,0.0,0.0,0.0,-0.019094909,0.16530004,0.92867374,-0.5268541,-0.13773362,0.9138089,-0.518989,0.19846337,-1.09127,-0.5139512,0.20083259,-0.9807003,-0.5348203,-0.027459458,0.017352786,0.019483268,0.012620109,-0.0651888,-0.06760748,0.05059911,-0.042477537,0.008173605,0.046924625,0.051992137,0.037612837,2.0,2.0,-2.0,-2.0,2.0,-2.0,2.0,-2.0,-2.0,2.0,-2.0,-2.0,2.0,2.0,-2.0,-2.0,2.0,-2.0,2.0,-2.0,-2.0,2.0,-2.0,-2.0
2025-06-05 10:32:19.166,-0.026000675,0.009700856,-0.038615085,-0.06308328,-0.30330354,0.031513296,0.0,0.0,0.0,-0.019094907,0.16156003,0.92617446,-0.52609175,-0.15015577,0.9179783,-0.5320851,0.18813547,-1.0880843,-0.5150877,0.19061548,-0.97229445,-0.53145665,-0.04527408,0.025508665,-0.024867881,-0.031089135,-0.053570624,-0.00023595977,0.031897426,0.02087478,0.03362837,0.019196434,-0.017251117,0.062938705,2.0,2.0,-2.0,-2.0,2.0,-2.0,2.0,-2.0,-2.0,2.0,-2.0,-2.0,2.0,2.0,-2.0,-2.0,2.0,-2.0,2.0,-2.0,-2.0,2.0,-2.0,-2.0
2025-06-05 10:32:19.189,0.045537762,-0.01199712,-0.049021233,-0.013574063,-0.24259739,-0.0008243629,0.0,0.0,0.0,-0.019094903,0.16505693,0.93904996,-0.5432019,-0.14346027,0.9150842,-0.5355014,0.18349187,-1.0881171,-0.5120056,0.19124646,-0.9774663,-0.53719866,-0.019408228,-0.055971056,0.06709087,0.02777439,-0.036416296,0.06306395,-0.06898209,0.01855038,0.033135056,-0.0048088813,0.065324135,-0.0318314,2.0,2.0,-2.0,-2.0,2.0,-2.0,2.0,-2.0,-2.0,2.0,-2.0,-2.0,2.0,2.0,-2.0,-2.0,2.0,-2.0,2.0,-2.0,-2.0,2.0,-2.0,-2.0
2025-06-05 10:32:19.206,0.02884539,-0.0012201489,0.023244446,-0.07614558,-0.20833565,0.021033574,0.0,0.0,0.0,-0.019094901,0.171382,0.9298158,-0.5352467,-0.15238574,0.91913193,-0.5245772,0.19110864,-1.0930672,-0.51257586,0.1913327,-0.9667123,-0.52062386,-0.055703517,0.04430052,0.043435685,-0.0012990852,-0.061434537,0.065141015,-0.016137663,-0.017041722,0.056947283,-0.033011608,0.021726834,0.011888952,2.0,2.0,-2.0,-2.0,2.0,-2.0,2.0,-2.0,-2.0,2.0,-2.0,-2.0,2.0,2.0,-2.0,-2.0,2.0,-2.0,2.0,-2.0,-2.0,2.0,-2.0,-2.0
2025-06-05 10:32:19.226,-0.039814163,0.022438368,0.008472828,-0.023957908,-0.22587709,0.043202795,0.0,0.0,0.0,-0.0190949,0.17047603,0.927873,-0.5282352,-0.14725006,0.92348,-0.5343573,0.19641861,-1.0768571,-0.51835483,0.19416095,-0.96700424,-0.5380313,0.0019420749,-0.036902074,0.014350067,-0.057152506,0.052387137,-0.03353973,-0.06600017,0.004382257,0.05134526,0.018078092,-0.025193954,-0.010045297,2.0,2.0,-2.0,-2.0,2.0,-2.0,2.0,-2.0,-2.0,2.0,-2.0,-2.0,2.0,2.0,-2.0,-2.0,2.0,-2.0,2.0,-2.0,-2.0,2.0,-2.0,-2.0
2025-06-05 10:32:19.246,-0.02866075,-0.0078058746,0.03147008,-0.045050293,-0.21405135,0.029183533,0.0,0.0,0.0,-0.019094897,0.16143017,0.9300852,-0.53531873,-0.13925442,0.9254562,-0.51776165,0.19229062,-1.0798414,-0.5230425,0.20302413,-0.9756761,-0.5309857,-0.018737853,0.05875221,-0.042147316,0.016522951,-0.063641176,0.06231973,0.0124374395,-0.0050569437,-0.021246409,0.002314939,0.008725697,-0.053212833,2.0,2.0,-2.0,-2.0,2.0,-2.0,2.0,-2.0,-2.0,2.0,-2.0,-2.0,2.0,2.0,-2.0,-2.0,2.0,-2.0,2.0,-2.0,-2.0,2.0,-2.0,-2.0
2025-06-05 10:32:19.267,-0.011493254,-0.038804058,-0.041552607,-0.07301666,-0.2919602,0.020331027,0.0,0.0,0.0,-0.019094896,0.16292274,0.93709457,-0.5396047,-0.14500079,0.93067336,-0.52158046,0.1886751,-1.0848625,-0.51155734,0.20708467,-0.9770071,-0.5339922,-0.051289584,-0.05275252,0.004016615,0.03932982,0.018051278,0.009086274,0.0715086,-0.015733814,0.048264325,0.06266745,-0.015137836,0.0019580822,2.0,2.0,-2.0,-2.0,2.0,-2.0,2.0,-2.0,-2.0,2.0,-2.0,-2.0,2.0,2.0,-2.0,-2.0,2.0,-2.0,2.0,-2.0,-2.0,2.0,-2.0,-2.0
2025-06-05 10:32:19.289,-0.024115078,-0.04628868,0.037304506,-0.09475706,-0.24565825,-0.042769212,0.0,0.0,0.0,-0.019094894,0.15925796,0.9342103,-0.52660817,-0.14975119,0.9266873,-0.51752853,0.19024582,-1.094729,-0.5267104,0.20075047,-0.9799592,-0.5219864,-0.025168091,0.01838082,-0.055068,-0.046302207,-0.041494645,0.05457143,-0.022902306,0.054739892,-0.02641227,-0.015083685,-0.0099003315,-0.027593678,2.0,2.0,-2.0,-2.0,2.0,-2.0,2.0,-2.0,-2.0,2.0,-2.0,-2.0,2.0,2.0,-2.0,-2.0,2.0,-2.0,2.0,-2.0,-2.0,2.0,-2.0,-2.0
2025-06-05 10:32:19.306,0.01635184,0.031193245,-0.02975731,-0.033502154,-0.26191396,-0.0026615134,0.0,0.0,0.0,-0.01909489,0.1660486,0.93142956,-0.5429118,-0.13962887,0.92081994,-0.52804863,0.18168381,-1.0873412,-0.52208525,0.20695487,-0.96866137,-0.535825,0.04251751,0.04872623,0.07426001,0.06923437,0.017653333,-0.015471718,-0.026846807,0.05300981,0.009460636,0.05246466,-0.017299896,0.070964545,2.0,2.0,-2.0,-2.0,2.0,-2.0,2.0,-2.0,-2.0,2.0,-2.0,-2.0,2.0,2.0,-2.0,-2.0,2.0,-2.0,2.0,-2.0,-2.0,2.0,-2.0,-2.0
2025-06-05 10:32:19.326,0.010558689,0.017378636,0.04149662,-0.090204015,-0.29142302,0.037311748,0.0,0.0,0.0,-0.019094888,0.16349095,0.9350827,-0.5336759,-0.13520755,0.91901195,-0.5180265,0.18482511,-1.0788138,-0.52114797,0.20603608,-0.97954005,-0.5292025,-0.002207093,0.03362055,0.0043204944,0.045535848,-0.04349948,-0.045492157,0.0032999173,0.017492354,-0.019435545,0.06260038,0.004767779,-0.03277137,2.0,2.0,-2.0,-2.0,2.0,-2.0,2.0,-2.0,-2.0,2.0,-2.0,-2.0,2.0,2.0,-2.0,-2.0,2.0,-2.0,2.0,-2.0,-2.0,2.0,-2.0,-2.0
2025-06-05 10:32:19.347,0.015224945,-0.021999713,-0.037837327,-0.09114078,-0.29019767,-0.045173768,0.0,0.0,0.0,-0.019094886,0.16269034,0.9441044,-0.53270566,-0.14663127,0.9276109,-0.53221184,0.18823403,-1.0770028,-0.51264685,0.2071624,-0.9641595,-0.52742577,-0.05978381,0.054968074,-0.030327847,-0.023915555,-0.021443315,-0.032504175,0.026120638,0.024401814,0.0074596824,-0.025857953,0.05140612,0.0020900706,2.0,2.0,-2.0,-2.0,2.0,-2.0,2.0,-2.0,-2.0,2.0,-2.0,-2.0,2.0,2.0,-2.0,-2.0,2.0,-2.0,2.0,-2.0,-2.0,2.0,-2.0,-2.0
2025-06-05 10:32:19.367,0.019714195,0.02138986,-0.021703564,-0.09652965,-0.21570073,-0.015511276,0.0,0.0,0.0,-0.019094884,0.17563662,0.9426022,-0.5284348,-0.13849154,0.917214,-0.5296421,0.18421613,-1.0801622,-0.5283665,0.20780714,-0.97755927,-0.53220356,0.030368809,0.06773317,0.02156155,0.035595503,-0.054221485,0.014220674,-0.06721747,0.048949197,-0.069982335,0.040851295,0.050675783,-0.03446867,2.0,2.0,-2.0,-2.0,2.0,-2.0,2.0,-2.0,-2.0,2.0,-2.0,-2.0,2.0,2.0,-2.0,-2.0,2.0,-2.0,2.0,-2.0,-2.0,2.0,-2.0,-2.0
2025-06-05 10:32:19.389,-0.011479491,-0.03291991,0.030935876,0.00019050649,-0.27254906,0.047145847,0.0,0.0,0.0,-0.019094883,0.1622484,0.92909557,-0.5387272,-0.14708346,0.9214708,-0.5246982,0.19127336,-1.081879,-0.51297647,0.19369039,-0.9712526,-0.5223318,0.02616594,-0.03805347,0.05721401,-0.013007887,0.03852209,-0.00072672,-0.021470109,0.06596355,0.037261907,-0.014363348,-0.07115621,0.007641748,2.0,2.0,-2.0,-2.0,2.0,-2.0,2.0,-2.0,-2.0,2.0,-2.0,-2.0,2.0,2.0,-2.0,-2.0,2.0,-2.0,2.0,-2.0,-2.0,2.0,-2.0,-2.0
2025-06-05 10:32:19.407,0.036444258,-0.041991074,-0.04885099,-0.08141407,-0.25450996,-0.0015842594,0.0,0.0,0.0,-0.01909488,0.17048587,0.9333999,-0.5383028,-0.15299663,0.9183523,-0.5312481,0.1973517,-1.0873498,-0.5243189,0.20267853,-0.97555494,-0.52623945,-0.0029448683,0.014857621,0.0017984663,-0.06826047,0.020566082,-0.009041142,0.0012205413,-0.009270121,0.04664809,0.03561309,0.016289389,0.025964933,2.0,2.0,-2.0,-2.0,2.0,-2.0,2.0,-2.0,-2.0,2.0,-2.0,-2.0,2.0,2.0,-2.0,-2.0,2.0,-2.0,2.0,-2.0,-2.0,2.0,-2.0,-2.0
2025-06-05 10:32:19.427,-0.027406733,0.011382307,0.022310404,-0.08400885,-0.30074084,-0.023268033,0.0,0.0,0.0,-0.019094877,0.16790476,0.93816674,-0.540552,-0.14556755,0.920838,-0.5305899,0.19087361,-1.0868827,-0.5241749,0.1920228,-0.97896636,-0.5285461,-0.004864915,-0.0077461195,-0.05771822,0.0006167035,-0.010520714,0.025887936,0.03258241,0.04298236,-0.05574884,-0.022958225,-0.032723635,-0.059276145,2.0,2.0,-2.0,-2.0,2.0,-2.0,2.0,-2.0,-2.0,2.0,-2.0,-2.0,2.0,2.0,-2.0,-2.0,2.0,-2.0,2.0,-2.0,-2.0,2.0,-2.0,-2.0
2025-06-05 10:32:19.447,0.01771918,-0.00081972795,0.015165488,-0.018705802,-0.29083365,0.037102006,0.0,0.0,0.0,-0.019094875,0.15947336,0.93817407,-0.5264375,-0.14586465,0.93079686,-0.5292112,0.188455,-1.0936422,-0.52554816,0.2056284,-0.9663283,-0.525666,0.001401434,0.038635742,0.03585208,0.0020088127,-0.008471358,-0.025483577,-0.037467446,0.058405865,0.04053225,-0.021631796,-0.02814863,-0.07048806,2.0,2.0,-2.0,-2.0,2.0,-2.0,2.0,-2.0,-2.0,2.0,-2.0,-2.0,2.0,2.0,-2.0,-2.0,2.0,-2.0,2.0,-2.0,-2.0,2.0,-2.0,-2.0
2025-06-05 10:32:19.467,-0.0021327424,-0.04201879,0.03524219,-0.072574966,-0.25027072,0.017223986,0.0,0.0,0.0,-0.019094873,0.16758801,0.9260592,-0.5423484,-0.13764161,0.9138152,-0.5264037,0.18741472,-1.0854285,-0.51598424,0.19335477,-0.96621835,-0.5266429,-0.06259801,-0.0035418405,0.02290879,0.0334429,-0.06328809,-0.04266547,-0.069222234,0.028508896,0.056010257,0.040712286,-0.019818954,0.0016055374,2.0,2.0,-2.0,-2.0,2.0,-2.0,2.0,-2.0,-2.0,2.0,-2.0,-2.0,2.0,2.0,-2.0,-2.0,2.0,-2.0,2.0,-2.0,-2.0,2.0,-2.0,-2.0
2025-06-05 10:32:19.489,0.00404024,0.013047291,-0.005736133,-0.09414354,-0.21792474,0.034566488,0.0,0.0,0.0,-0.019094871,0.16314079,0.9375097,-0.5286098,-0.14722054,0.921434,-0.5240556,0.18594275,-1.0876889,-0.5251215,0.20614757,-0.98103714,-0.53359514,-0.056962155,-0.035126768,-0.034425404,-0.0053615835,-0.009155056,0.034117095,-0.05832116,0.046245318,0.021510199,-0.017456997,-0.072700515,0.0135052195,2.0,2.0,-2.0,-2.0,2.0,-2.0,2.0,-2.0,-2.0,2.0,-2.0,-2.0,2.0,2.0,-2.0,-2.0,2.0,-2.0,2.0,-2.0,-2.0,2.0,-2.0,-2.0
2025-06-05 10:32:19.507,-0.008416003,-0.045912396,0.0012667103,-0.054352682,-0.28382936,-0.0075919917,0.0,0.0,0.0,-0.01909487,0.17373343,0.93200886,-0.538528,-0.13707052,0.9301603,-0.52212703,0.1903575,-1.0798656,-0.51769096,0.1990123,-0.98048586,-0.53814876,0.048576295,-0.06993786,-0.0016507728,0.05147564,0.07243248,0.013006615,-0.008232968,0.06920893,-0.06387569,-0.0246452,0.054549627,0.046716895,2.0,2.0,-2.0,-2.0,2.0,-2.0,2.0,-2.0,-2.0,2.0,-2.0,-2.0,2.0,2.0,-2.0,-2.0,2.0,-2.0,2.0,-2.0,-2.0,2.0,-2.0,-2.0
