openverse-orca/OrcaGym/log/simulation_log_20250721_142313.csv
timestamp,sim_time,physics_step,control_step,imu_angle_roll,imu_angle_pitch,imu_angle_yaw,imu_angular_velocity_roll,imu_angular_velocity_pitch,imu_angular_velocity_yaw,imu_acc_x,imu_acc_y,imu_acc_z,fl_joint1_pos,fl_joint1_vel,fl_joint1_torque,fl_joint2_pos,fl_joint2_vel,fl_joint2_torque,fl_joint3_pos,fl_joint3_vel,fl_joint3_torque,fr_joint1_pos,fr_joint1_vel,fr_joint1_torque,fr_joint2_pos,fr_joint2_vel,fr_joint2_torque,fr_joint3_pos,fr_joint3_vel,fr_joint3_torque,hl_joint1_pos,hl_joint1_vel,hl_joint1_torque,hl_joint2_pos,hl_joint2_vel,hl_joint2_torque,hl_joint3_pos,hl_joint3_vel,hl_joint3_torque,hr_joint1_pos,hr_joint1_vel,hr_joint1_torque,hr_joint2_pos,hr_joint2_vel,hr_joint2_torque,hr_joint3_pos,hr_joint3_vel,hr_joint3_torque,fl_force_x,fl_force_y,fl_force_z,fr_force_x,fr_force_y,fr_force_z,hl_force_x,hl_force_y,hl_force_z,hr_force_x,hr_force_y,hr_force_z,fl_hip_action,fl_thigh_action,fl_calf_action,fr_hip_action,fr_thigh_action,fr_calf_action,hl_hip_action,hl_thigh_action,hl_calf_action,hr_hip_action,hr_thigh_action,hr_calf_action
2025-07-21 14:23:13.979,0.0,0,0,-0.027477143,-0.033576954,-0.0059261406,-0.030999366,-0.026817119,-0.0009883794,0.7176355,0.72030497,0.0,0.0,0.0026357197,0.006630214,-0.0024875512,0.0020750626,-0.005806446,-0.0074588144,-0.0033233238,0.0071759485,0.0020120519,-0.0068821744,0.0060219006,0.0002464241,-0.015370305,0.03760232,-0.07311802,-0.004247462,0.033366702,-0.009537396,0.01215762,0.0049021547,-0.03440774,0.0032279256,-0.06957585,0.05818638,0.0,0.0,0.0,0.0,0.0,0.0,0.0,0.0,0.0,0.0,0.0,0.0,1.3175635,0.51013094,0.3472829,-0.25856978,0.8233159,-2.0,2.0,-0.6265107,-2.0,-1.4282842,-0.52753097,-2.0
2025-07-21 14:23:13.989,0.02,20,1,0.016589597,0.0052853613,0.0014648507,-0.006212519,0.006446599,0.0104837585,0.0,0.0,0.0,0.0,0.013013039,0.004845549,0.00509609,-0.006736859,0.029525205,-0.050777916,0.006956356,-0.015658092,-0.04652516,-0.007292655,-0.0066135703,-0.03925385,0.06378452,0.11457936,0.0753353,-0.03596513,0.10252325,-0.1711719,0.013844266,-0.03825904,-0.102031566,-0.009149004,-0.11846773,-0.06893731,1.3175635,0.51013094,0.3472829,-0.25856978,0.8233159,-2.0,2.0,-0.6265107,-2.0,-1.4282842,-0.52753097,-2.0,2.0,-0.73211443,-2.0,-2.0,1.1245627,-2.0,2.0,-0.1051379,-2.0,-1.3052016,-0.56658995,-2.0
2025-07-21 14:23:14.014,0.04,40,2,-0.1226909,0.008973831,-0.026755426,-0.028653834,-0.033879917,-0.0062254104,0.0,0.0,0.0,-1.4964957e-05,0.028272089,-0.0016680724,-0.02029767,-0.011580137,0.058178592,-0.09428578,0.026393192,-0.032590777,-0.07640266,-0.024516625,-0.028158296,-0.08162174,0.038877316,-0.07944753,-0.19046472,-0.027711255,0.002311355,-0.027288524,0.039741516,-0.09489906,0.045180228,-0.00036257048,-0.087971464,-0.005861738,2.0,-0.73211443,-2.0,-2.0,1.1245627,-2.0,2.0,-0.1051379,-2.0,-1.3052016,-0.56658995,-2.0,2.0,-0.07455264,-2.0,-2.0,0.15255037,-2.0,2.0,-0.5071884,-2.0,-0.10003322,0.17343056,-2.0
2025-07-21 14:23:14.032,0.06,60,3,-0.013252978,0.07715626,-0.0012235182,-0.007485819,0.039851904,-0.031441823,0.0,0.0,0.0,0.00018215357,0.02713148,-0.0011462788,-0.036126688,-0.008253878,0.0439145,-0.05914497,0.030011846,-0.043424025,-0.05467178,-0.02735029,-0.040721077,-0.06254238,-0.020809185,-0.017251994,0.09026527,0.050625477,-0.06989539,0.12595823,0.079524316,-0.034459647,0.04580227,-0.015364469,0.05314793,0.10244386,2.0,-0.07455264,-2.0,-2.0,0.15255037,-2.0,2.0,-0.5071884,-2.0,-0.10003322,0.17343056,-2.0,2.0,-0.32755855,-2.0,-2.0,-0.1382693,-2.0,2.0,-0.4242222,-2.0,0.14716393,0.39308426,-2.0
2025-07-21 14:23:14.049,0.08,80,4,-0.03575275,0.11359222,-0.04564213,0.021727081,0.040694255,-0.024560012,0.0,0.0,0.0,0.0008017058,0.039122812,-0.031026624,-0.016468333,-0.016151708,0.038530797,-0.01520598,0.026784893,-0.070512556,-0.034307998,-0.020112682,-0.0466858,-0.055143554,0.06027575,0.017451463,0.017372727,0.010093432,-0.048875388,0.053782023,-0.009624108,0.018340847,0.03189023,-0.038475707,0.016414132,0.0119864745,2.0,-0.32755855,-2.0,-2.0,-0.1382693,-2.0,2.0,-0.4242222,-2.0,0.14716393,0.39308426,-2.0,2.0,0.0032249857,-2.0,-2.0,0.13523492,-2.0,2.0,-0.1365935,-2.0,1.1885161,0.19293651,-2.0
2025-07-21 14:23:14.069,0.1,100,5,-0.018319845,0.09088765,-0.11430345,0.024522504,0.014003242,0.045529023,0.0,0.0,0.0,0.0021140834,0.047027547,-0.039918162,0.014705481,-0.010609884,0.02559692,0.005346187,0.041524347,-0.06603817,-0.01182297,-0.007491708,-0.04486269,-0.044052336,0.03203376,0.023992058,0.039097086,-0.0019167162,0.06827263,0.0952565,0.056810595,-0.01878777,0.004525646,0.09045566,-0.020344995,-0.067232445,2.0,0.0032249857,-2.0,-2.0,0.13523492,-2.0,2.0,-0.1365935,-2.0,1.1885161,0.19293651,-2.0,2.0,-0.019441588,-2.0,-2.0,0.38679972,-2.0,2.0,-0.014322404,-2.0,2.0,-0.40670508,-2.0
2025-07-21 14:23:14.089,0.12000000000000001,120,6,0.11564221,0.10596232,-0.097648785,0.046316013,0.04883883,0.02588299,0.0,0.0,0.0,0.003944098,0.050981633,-0.050930917,0.019905413,-0.003097752,0.0260969,0.026897134,0.0562045,-0.059308916,-0.023461413,0.019641262,-0.03725413,-0.047381744,-0.0030779447,-0.01981129,-0.036798388,0.036935546,0.01718927,-0.033100758,0.01876724,-0.0029237266,-0.06411379,0.015459368,0.008293916,0.008181759,2.0,-0.019441588,-2.0,-2.0,0.38679972,-2.0,2.0,-0.014322404,-2.0,2.0,-0.40670508,-2.0,2.0,0.24614604,-2.0,-2.0,0.95615166,-2.0,2.0,-0.51935166,-2.0,2.0,-0.66234463,-2.0
2025-07-21 14:23:14.115,0.14,140,7,0.08302557,0.019472266,-0.123547666,0.020492913,0.029487707,-0.029899923,0.0,0.0,0.0,0.005849216,0.043672625,-0.056212287,0.02532596,0.002012976,0.03868142,0.024978818,0.07993982,-0.07878162,-0.008252333,0.018642826,-0.02458072,-0.04049305,0.07607896,0.07092087,-0.09265224,0.051939942,0.027757604,0.0359676,-0.027678002,-0.067188464,0.05048827,0.081603035,-0.020839056,-0.007096011,2.0,0.24614604,-2.0,-2.0,0.95615166,-2.0,2.0,-0.51935166,-2.0,2.0,-0.66234463,-2.0,2.0,0.15320931,-1.4368665,-2.0,0.7978116,-2.0,2.0,-0.5278033,-2.0,2.0,-0.7307045,-2.0
2025-07-21 14:23:14.131,0.16,160,8,0.09457874,-0.07242641,-0.07897799,0.039234005,0.026253972,0.011155736,0.0,0.0,0.0,0.00770447,0.045095075,-0.056365225,0.015737742,0.005710942,0.037085235,0.013458932,0.07781793,-0.082137614,-0.022752108,0.03548437,-0.038798146,-0.034651406,-0.06523385,-0.055878174,-0.033164065,-0.070186324,0.028840845,-0.03786305,0.09700109,-0.03896481,0.039199322,-0.0056892317,-0.082838245,-0.046156075,2.0,0.15320931,-1.4368665,-2.0,0.7978116,-2.0,2.0,-0.5278033,-2.0,2.0,-0.7307045,-2.0,2.0,0.320871,-2.0,-2.0,1.0404173,-2.0,2.0,-0.6867046,-2.0,2.0,-0.7615725,-2.0
2025-07-21 14:23:14.150,0.18,180,9,0.10240064,-0.13292329,-0.099903315,0.04887928,-0.04462252,0.046316817,0.0,0.0,0.0,0.009426406,0.054721117,-0.060933415,-0.007849114,0.00291293,0.05321386,0.0012239261,0.09301883,-0.1070311,-0.0060775587,0.03675983,-0.04083201,-0.049331885,-0.058176544,0.022623193,-0.04264248,0.030148229,0.025166046,-0.066890314,-0.01861597,-0.023181148,0.032140158,0.07121221,-0.06108579,0.041076656,2.0,0.320871,-2.0,-2.0,1.0404173,-2.0,2.0,-0.6867046,-2.0,2.0,-0.7615725,-2.0,2.0,0.21514805,-1.5092739,-2.0,1.0307127,-2.0,2.0,-0.62989134,-2.0,2.0,-0.79050356,-2.0
2025-07-21 14:23:14.170,0.19999999999999998,200,10,0.064418435,-0.048441246,-0.06054855,0.058730047,0.037353262,0.0012690186,0.0,0.0,0.0,0.010992346,0.048488494,-0.054094523,-0.030432086,-0.00951886,0.051832423,-0.01493355,0.101377025,-0.10578173,-0.005416779,0.061091952,-0.042003635,-0.051479664,0.01065674,-0.050683845,-0.08790153,0.04304748,0.06560697,-0.07936559,-0.030860549,0.018480789,-0.019489028,-0.021871215,-0.047042523,0.007289699,2.0,0.21514805,-1.5092739,-2.0,1.0307127,-2.0,2.0,-0.62989134,-2.0,2.0,-0.79050356,-2.0,2.0,0.40068534,-2.0,-2.0,1.382462,-2.0,2.0,-0.74165004,-2.0,2.0,-0.68967664,-2.0
2025-07-21 14:23:14.190,0.21999999999999997,220,11,-0.013772285,-0.09083543,-0.040379982,-0.009103114,0.01105941,0.004705037,0.0,0.0,0.0,0.012391518,0.051621385,-0.05465071,-0.043038424,-0.0038630462,0.051242612,-0.04511292,0.10354207,-0.11665072,0.0038304948,0.05272175,-0.042549316,-0.04191705,0.045627236,0.03586788,-0.113844864,-0.053862393,0.017988378,-0.070199825,0.008311417,0.032785214,0.037725367,0.05321136,0.057513986,0.009724971,2.0,0.40068534,-2.0,-2.0,1.382462,-2.0,2.0,-0.74165004,-2.0,2.0,-0.68967664,-2.0,2.0,0.23831548,-1.9116243,-2.0,1.2523082,-2.0,2.0,-1.0303384,-2.0,2.0,-0.7235796,-2.0
2025-07-21 14:23:14.214,0.23999999999999996,240,12,0.032768704,-0.10897513,-0.11324455,0.044066466,-0.034187037,-0.03559455,0.0,0.0,0.0,0.013694844,0.04888045,-0.046786197,-0.051541086,-0.0069574425,0.05386151,-0.054698832,0.10658969,-0.14007746,-0.004097373,0.060146514,-0.045656294,-0.061278705,-0.07864119,0.05544535,-0.018791186,0.0001391913,0.0023571819,0.0272699,0.05246361,-0.06317709,-0.026602466,0.0783749,0.03183452,-0.07588985,2.0,0.23831548,-1.9116243,-2.0,1.2523082,-2.0,2.0,-1.0303384,-2.0,2.0,-0.7235796,-2.0,2.0,0.3745733,-2.0,-2.0,0.9525935,-2.0,2.0,-0.573197,-2.0,2.0,-0.6555202,-2.0
2025-07-21 14:23:14.231,0.25999999999999995,260,13,0.0714452,-0.05513023,-0.046709873,0.03818352,-0.022833519,-0.031710297,0.0,0.0,0.0,0.015073765,0.046534672,-0.044638112,-0.08157166,-0.010802379,0.059798844,-0.06523458,0.11750149,-0.1493598,0.01223614,0.071188994,-0.035587102,-0.05374903,-0.0231031,0.063622005,-0.07785921,-0.07788159,-0.052290507,-0.009965114,-0.06246592,-0.08371352,-0.032996718,0.021095281,0.04804833,-0.03221686,2.0,0.3745733,-2.0,-2.0,0.9525935,-2.0,2.0,-0.573197,-2.0,2.0,-0.6555202,-2.0,2.0,0.2860025,-2.0,-2.0,1.4215783,-2.0,2.0,-0.9200582,-2.0,2.0,-0.5430363,-2.0
2025-07-21 14:23:14.250,0.27999999999999997,280,14,0.03904167,-0.03545176,-0.103745796,-0.039763883,0.0012724478,-0.014051224,0.0,0.0,0.0,0.016295154,0.047780965,-0.035387177,-0.079794586,-0.018579908,0.06844214,-0.078704454,0.11456525,-0.15042688,0.0066236285,0.06592592,-0.0409211,-0.056469,-0.080378816,-0.030977853,-0.0017330933,0.012319544,0.063065335,-0.028562406,-0.0047724433,-0.020995805,0.059778243,-0.048542988,0.073945135,-0.075778276,2.0,0.2860025,-2.0,-2.0,1.4215783,-2.0,2.0,-0.9200582,-2.0,2.0,-0.5430363,-2.0,2.0,0.3978155,-2.0,-2.0,1.1727002,-2.0,2.0,-0.51077735,-2.0,2.0,-0.59619606,-2.0
2025-07-21 14:23:14.270,0.3,300,15,0.0011032379,0.017607199,-0.0050250646,-0.03145994,-0.057108372,0.024283504,0.0,0.0,0.0,0.01742624,0.030567627,-0.036643412,-0.100233324,-0.020569626,0.07593152,-0.08289465,0.12430499,-0.15351668,-0.00038895052,0.08127442,-0.04230327,-0.07169111,-0.014378297,0.05335385,-0.0624157,-0.030277403,-0.041964523,0.03721964,0.023236938,-0.06657607,0.054562222,0.025184508,-0.03755295,-0.06840628,2.0,0.3978155,-2.0,-2.0,1.1727002,-2.0,2.0,-0.51077735,-2.0,2.0,-0.59619606,-2.0,2.0,0.2901909,-2.0,-2.0,1.5284542,-2.0,2.0,-1.1377348,-2.0,2.0,-0.4806354,-2.0
2025-07-21 14:23:14.290,0.32,320,16,-0.024073036,-0.091277115,-0.07891495,-0.0184418,-0.04978302,0.0029245352,0.0,0.0,0.0,0.018407509,0.04420996,-0.03779694,-0.11038396,-0.01730066,0.08503616,-0.08797278,0.11444478,-0.1521623,0.0030750518,0.07657877,-0.036778957,-0.07602568,0.018617662,-0.008688381,-0.08654971,0.04062867,-0.02755323,0.042227592,0.0023466814,0.03559085,-0.022766093,0.078329824,-0.043664847,-0.060308404,2.0,0.2901909,-2.0,-2.0,1.5284542,-2.0,2.0,-1.1377348,-2.0,2.0,-0.4806354,-2.0,2.0,0.5273173,-2.0,-2.0,1.4794123,-2.0,2.0,-0.5805255,-2.0,2.0,-0.5497554,-2.0
2025-07-21 14:23:14.314,0.34,340,17,0.008327101,-0.019970242,0.006962366,-0.038193922,-0.0034824058,0.0059692976,0.0,0.0,0.0,0.019372396,0.03392419,-0.023055471,-0.10043565,-0.014921649,0.10517717,-0.09916688,0.128335,-0.14355107,0.0031546527,0.074955165,-0.015028905,-0.07157339,-0.053652544,-0.014795883,-0.015266076,-0.02794759,-0.05077076,0.04244617,0.07633944,0.03867795,0.015936272,-0.014630135,0.079160705,-0.056332897,2.0,0.5273173,-2.0,-2.0,1.4794123,-2.0,2.0,-0.5805255,-2.0,2.0,-0.5497554,-2.0,2.0,0.3024802,-2.0,-2.0,1.5699015,-2.0,2.0,-1.1726824,-2.0,2.0,-0.49637577,-2.0
2025-07-21 14:23:14.331,0.36000000000000004,360,18,-0.031783715,-0.053021323,-0.016423766,-0.02046565,-0.05325497,0.030056166,0.0,0.0,0.0,0.020287002,0.037803754,-0.024731308,-0.10277355,-0.021480028,0.10951841,-0.106871106,0.1368358,-0.13415316,0.016833058,0.09208745,-0.01624083,-0.06933943,-0.05086123,-0.010996095,0.025043877,-0.049408864,0.04727801,-0.067112826,0.07294502,0.037499156,-0.0030095319,0.07261415,-0.042606916,0.014233407,2.0,0.3024802,-2.0,-2.0,1.5699015,-2.0,2.0,-1.1726824,-2.0,2.0,-0.49637577,-2.0,2.0,0.52898484,-2.0,-2.0,1.8100802,-2.0,2.0,-0.76819706,-2.0,2.0,-0.4109129,-2.0
2025-07-21 14:23:14.351,0.38000000000000006,380,19,-0.0128804045,-0.0020121709,-0.056036733,0.033119377,-0.046127506,-0.038987238,0.0,0.0,0.0,0.021161001,0.035319973,-0.013597023,-0.10565736,-0.030701395,0.12411942,-0.10350707,0.1347007,-0.14515667,0.014266093,0.0838383,-0.009228461,-0.07815488,-0.0801028,0.03528984,-0.075318344,-0.05906201,0.01922123,0.012760522,-0.0017557507,0.06546695,-0.06479537,-0.06707334,0.04446406,0.027072985,2.0,0.52898484,-2.0,-2.0,1.8100802,-2.0,2.0,-0.76819706,-2.0,2.0,-0.4109129,-2.0,2.0,0.36166734,-2.0,-2.0,1.6107907,-2.0,2.0,-0.6262581,-2.0,2.0,-0.54004806,-2.0
2025-07-21 14:23:14.370,0.4000000000000001,400,20,-0.023285218,-0.011930788,-0.015805213,-0.042427734,-0.04366695,0.0039930386,0.0,0.0,0.0,0.022096783,0.03015913,-0.005215358,-0.10620832,-0.030046374,0.13177536,-0.09947869,0.13330698,-0.12968476,0.025247572,0.0975458,0.0047388636,-0.063756734,-0.0066320207,0.03210765,0.055346046,-0.031240605,0.04012007,0.057246055,0.06943471,-0.035995625,0.039635573,0.012763876,0.0019827932,-0.038185626,2.0,0.36166734,-2.0,-2.0,1.6107907,-2.0,2.0,-0.6262581,-2.0,2.0,-0.54004806,-2.0,2.0,0.4266538,-2.0,-2.0,1.6641185,-2.0,2.0,-0.9372791,-2.0,2.0,-0.43047386,-2.0
2025-07-21 14:23:14.392,0.4200000000000001,420,21,0.041200474,0.0016738501,-0.0464865,-0.02635246,-0.047305785,0.035461217,0.0,0.0,0.0,0.022812262,0.02034945,-0.005387209,-0.103696264,-0.024559433,0.14648288,-0.095273726,0.13306804,-0.13424245,0.033078592,0.08884243,0.008795827,-0.06042783,-0.0458928,0.010127758,0.0302206,-0.07680073,0.06685041,-0.06985607,-0.01587466,0.0681093,-0.0059974627,0.044907924,0.048214603,-0.038386285,2.0,0.4266538,-2.0,-2.0,1.6641185,-2.0,2.0,-0.9372791,-2.0,2.0,-0.43047386,-2.0,2.0,0.43142647,-2.0,-2.0,1.7814813,-2.0,2.0,-0.63739663,-2.0,2.0,-0.5126228,-2.0
2025-07-21 14:23:14.414,0.4400000000000001,440,22,0.016423102,-0.028191285,0.017245825,-0.06228263,-0.04492904,0.03155597,0.0,0.0,0.0,0.023367228,0.028730376,0.014691416,-0.111883715,-0.022319295,0.14638858,-0.101331204,0.14538558,-0.1285414,0.038014468,0.09665955,0.013256431,-0.069170795,-0.0010478242,0.04089195,0.02845626,0.03904013,-0.012159475,0.05025218,0.03128337,0.008269693,0.04533467,0.052844677,0.061313294,-0.051842466,2.0,0.43142647,-2.0,-2.0,1.7814813,-2.0,2.0,-0.63739663,-2.0,2.0,-0.5126228,-2.0,2.0,0.32333022,-2.0,-2.0,1.7552624,-2.0,2.0,-1.1572963,-2.0,2.0,-0.4803183,-2.0
2025-07-21 14:23:14.431,0.46000000000000013,460,23,0.04339164,-0.098630555,-0.021835253,-0.03634992,-0.088548884,-0.014312826,0.0,0.0,0.0,0.023771994,0.033060905,0.015088312,-0.10104472,-0.023603478,0.16487359,-0.11329788,0.12847285,-0.12971282,0.044530116,0.10136411,0.0227044,-0.06391427,0.0049438747,-0.0045562405,0.047525726,0.005706212,0.03268471,-0.07296827,-0.0045136586,-0.016661031,0.07413813,0.027762113,-0.012189894,0.059959147,2.0,0.32333022,-2.0,-2.0,1.7552624,-2.0,2.0,-1.1572963,-2.0,2.0,-0.4803183,-2.0,2.0,0.54933894,-2.0,-2.0,1.8587282,-2.0,2.0,-0.65734273,-2.0,2.0,-0.30148935,-2.0
2025-07-21 14:23:14.451,0.48000000000000015,480,24,-0.016234051,-0.060881272,-0.0066008097,0.019925574,-0.038745154,-0.0075075035,0.0,0.0,0.0,0.02414636,0.02983462,0.014318643,-0.10855181,-0.0332489,0.17910343,-0.111588314,0.13502799,-0.12815206,0.058972277,0.09442891,0.016749538,-0.063776895,0.03158275,0.014063657,-0.066348985,-0.04989726,-0.008729662,0.0224442,0.004766165,0.061723355,-0.018129306,0.037920903,0.088092886,0.033451065,2.0,0.54933894,-2.0,-2.0,1.8587282,-2.0,2.0,-0.65734273,-2.0,2.0,-0.30148935,-2.0,2.0,0.32055148,-2.0,-2.0,1.8519307,-2.0,2.0,-0.8816206,-2.0,2.0,-0.44795334,-2.0
2025-07-21 14:23:14.471,0.5000000000000001,500,25,0.061321512,-0.07988007,-0.04200529,-0.037633136,-0.032193426,-0.000531044,0.0,0.0,0.0,0.024538085,0.030429872,0.030969067,-0.1136524,-0.030690005,0.17463242,-0.09974498,0.14313303,-0.11322226,0.06764804,0.09165341,0.02169204,-0.059247512,0.050048772,0.01862556,-0.04482663,0.070057645,0.06638131,-0.003007754,0.073575124,-0.041018926,0.09546082,0.042727567,-0.020238254,-0.030800937,2.0,0.32055148,-2.0,-2.0,1.8519307,-2.0,2.0,-0.8816206,-2.0,2.0,-0.44795334,-2.0,2.0,0.492318,-2.0,-2.0,1.7836409,-2.0,2.0,-0.6310431,-2.0,2.0,-0.3757782,-2.0
2025-07-21 14:23:14.492,0.5200000000000001,520,26,0.027935635,-0.012324106,-0.0065545863,0.013464494,-0.01269125,0.012798382,0.0,0.0,0.0,0.024868093,0.017133057,0.029618487,-0.105619535,-0.042540662,0.19063474,-0.10339549,0.14440861,-0.113604665,0.073210225,0.09212156,0.04404752,-0.05253674,0.001846731,-0.044507608,0.060702004,-0.024488019,0.035959594,-0.06458811,-0.035724565,0.029879903,0.03756823,0.07781776,0.09140027,0.08257172,2.0,0.492318,-2.0,-2.0,1.7836409,-2.0,2.0,-0.6310431,-2.0,2.0,-0.3757782,-2.0,2.0,0.3172514,-2.0,-2.0,1.9113058,-2.0,2.0,-0.8052507,-2.0,2.0,-0.44831443,-2.0
2025-07-21 14:23:14.515,0.5400000000000001,540,27,-0.027400175,-0.06998687,-0.0060999813,0.022112126,-0.09408385,0.007482699,0.0,0.0,0.0,0.025065616,0.014778691,0.05048737,-0.10000628,-0.037264913,0.19640496,-0.097457215,0.13739093,-0.09623121,0.06686474,0.09162543,0.053778853,-0.02950681,-0.020164087,-0.03681111,0.015863033,-0.06736049,-0.0064894245,0.028695917,0.028189043,-0.05028149,0.048359856,-0.05436487,0.07063836,-0.010550353,2.0,0.3172514,-2.0,-2.0,1.9113058,-2.0,2.0,-0.8052507,-2.0,2.0,-0.44831443,-2.0,2.0,0.57737243,-2.0,-2.0,1.9855202,-2.0,2.0,-0.90164113,-2.0,2.0,-0.28143385,-2.0
2025-07-21 14:23:14.531,0.5600000000000002,560,28,0.02129731,0.0008686335,-0.0038782035,-0.040869858,-0.086973466,-0.023427354,0.0,0.0,0.0,0.025147632,0.029379245,0.05965382,-0.09916068,-0.0369509,0.20631693,-0.10145982,0.13188551,-0.10016194,0.092989616,0.098692,0.046154097,-0.040390383,0.010339584,0.095934965,0.01807079,-0.003745063,0.042541105,0.06792117,0.032882247,0.024537394,0.034753714,0.04075309,-0.036972366,-0.03238908,2.0,0.57737243,-2.0,-2.0,1.9855202,-2.0,2.0,-0.90164113,-2.0,2.0,-0.28143385,-2.0,2.0,0.36155978,-2.0,-2.0,1.9891529,-2.0,2.0,-0.5958822,-2.0,2.0,-0.28387555,-2.0
2025-07-21 14:23:14.551,0.5800000000000002,580,29,0.054827243,-0.013334899,-0.0089105815,-0.028330445,-0.012667866,-0.036969416,0.0,0.0,0.0,0.025287015,0.017186752,0.060777634,-0.10660361,-0.02854039,0.22347915,-0.1105499,0.14253117,-0.08136114,0.09731094,0.09890289,0.05258184,-0.03198449,0.016851896,0.061354533,0.06574383,-0.0058560306,0.10236633,0.043633495,0.05111842,0.0042353207,0.01897512,-0.042140942,-0.036819868,-0.016583748,2.0,0.36155978,-2.0,-2.0,1.9891529,-2.0,2.0,-0.5958822,-2.0,2.0,-0.28387555,-2.0,2.0,0.44476458,-2.0,-2.0,2.0,-2.0,2.0,-0.5792316,-2.0,2.0,-0.30837035,-2.0
2025-07-21 14:23:14.571,0.6000000000000002,600,30,-0.020054614,-0.044241168,-0.033605438,-0.063738056,-0.055268366,-0.03313915,0.0,0.0,0.0,0.02544959,0.026306363,0.07595456,-0.10341896,-0.044945907,0.24164385,-0.103469804,0.14203477,-0.08074498,0.096356034,0.10956633,0.07370246,-0.019964434,-0.02107362,0.060251188,-0.045819275,-0.06720486,-0.017084243,-0.07147337,0.022727367,0.028368438,0.08133836,0.06971122,0.020465123,-0.05481162,2.0,0.44476458,-2.0,-2.0,2.0,-2.0,2.0,-0.5792316,-2.0,2.0,-0.30837035,-2.0,2.0,0.24196906,-2.0,-2.0,1.8279779,-2.0,2.0,-0.61785674,-2.0,2.0,-0.41897798,-2.0
2025-07-21 14:23:14.596,0.6200000000000002,620,31,0.005353765,-0.044046655,-0.0055449256,-0.009051576,-0.09906186,0.0034056234,0.0,0.0,0.0,0.025518598,0.010211338,0.08970013,-0.09547194,-0.03644048,0.24418241,-0.10368601,0.14482334,-0.061894253,0.09875545,0.10214842,0.073941745,-0.004268976,-0.041727856,0.08275412,-0.019116981,-0.055220366,0.07421345,-0.0045401948,-0.05241543,0.090265535,0.047360092,0.029305322,0.08649184,0.091517195,2.0,0.24196906,-2.0,-2.0,1.8279779,-2.0,2.0,-0.61785674,-2.0,2.0,-0.41897798,-2.0,2.0,0.2477562,-2.0,-2.0,1.9235191,-2.0,2.0,-0.8115783,-2.0,2.0,-0.4137718,-2.0
2025-07-21 14:23:14.615,0.6400000000000002,640,32,0.01230085,-0.011275769,0.037478212,-0.009131762,-0.072826445,0.018037835,0.0,0.0,0.0,0.025447767,0.013901842,0.092757806,-0.09777004,-0.037309233,0.26797816,-0.11861753,0.13394979,-0.074495636,0.10908888,0.10591612,0.0831663,0.0025775607,-0.05155116,0.015482463,0.06119192,-0.060836375,-0.050787464,-0.004986935,0.013834506,-0.05888449,0.082227714,-0.05411845,-0.020302242,0.080333486,2.0,0.2477562,-2.0,-2.0,1.9235191,-2.0,2.0,-0.8115783,-2.0,2.0,-0.4137718,-2.0,2.0,0.5596568,-2.0,-2.0,2.0,-2.0,2.0,-0.9658042,-2.0,2.0,-0.1770913,-2.0
2025-07-21 14:23:14.632,0.6600000000000003,660,33,0.010087921,-0.031995542,-0.05845673,-0.055588085,-0.06764007,-0.0014348198,0.0,0.0,0.0,0.025345787,0.015523878,0.10390924,-0.08803074,-0.028862843,0.27160722,-0.11651529,0.149313,-0.06822216,0.13410005,0.112922914,0.081410706,0.012813655,0.024583397,-0.007049878,0.0525385,0.015782472,0.034612946,-0.052209374,0.03803168,-0.013400795,0.06558477,0.04604729,0.06501375,0.0027973393,2.0,0.5596568,-2.0,-2.0,2.0,-2.0,2.0,-0.9658042,-2.0,2.0,-0.1770913,-2.0,2.0,0.34754065,-2.0,-2.0,1.9338897,-2.0,2.0,-0.28043234,-2.0,2.0,-0.25557482,-2.0
2025-07-21 14:23:14.651,0.6800000000000003,680,34,0.02485681,-0.014341818,-0.0040865983,-0.07351484,-0.10453482,0.017164435,0.0,0.0,0.0,0.025438765,0.025786344,0.12391666,-0.09169792,-0.040258516,0.28180614,-0.114619,0.15087183,-0.049383063,0.14781608,0.09768125,0.082049936,0.009167136,-0.07110504,-0.010983499,0.054935418,-0.0126446,0.09651054,-0.0029768227,-0.00528128,0.0038062602,-0.023549097,0.04681694,-0.032044686,-0.04123985,2.0,0.34754065,-2.0,-2.0,1.9338897,-2.0,2.0,-0.28043234,-2.0,2.0,-0.25557482,-2.0,2.0,0.33722803,-2.0,-2.0,2.0,-2.0,2.0,-0.5715117,-2.0,2.0,-0.36328456,-2.0
2025-07-21 14:23:14.672,0.7000000000000003,700,35,0.038876615,-0.02530904,-0.03302288,-0.058198456,-0.06481361,0.039801173,0.0,0.0,0.0,0.025495574,0.017254494,0.13830653,-0.09575967,-0.0429738,0.29650512,-0.114107415,0.14036894,-0.039869517,0.13762163,0.10404921,0.096091025,0.0140391,-0.062441647,0.031672515,-0.015017947,0.05585867,-0.027867714,0.067080505,-0.043274596,-0.036879808,-0.03296732,0.065634355,-0.004102236,0.048028197,2.0,0.33722803,-2.0,-2.0,2.0,-2.0,2.0,-0.5715117,-2.0,2.0,-0.36328456,-2.0,2.0,0.29262975,-2.0,-2.0,2.0,-2.0,2.0,-0.5265518,-2.0,2.0,-0.36100385,-2.0
2025-07-21 14:23:14.697,0.7200000000000003,720,36,-0.011376826,-0.014866565,0.04468009,-0.0020379662,-0.074285805,0.01801519,0.0,0.0,0.0,0.02536801,0.018592991,0.13096952,-0.086547874,-0.03769809,0.31511873,-0.11331187,0.14921792,-0.027927162,0.14715944,0.09624983,0.1066023,0.039971877,-0.046413414,-0.029363433,-0.025435517,0.0138057135,0.048065837,0.010284474,0.01955492,-0.03880784,0.0036749616,0.0033561573,0.035838913,0.065382876,2.0,0.29262975,-2.0,-2.0,2.0,-2.0,2.0,-0.5265518,-2.0,2.0,-0.36100385,-2.0,2.0,0.4457933,-2.0,-2.0,2.0,-2.0,2.0,-0.9582852,-2.0,2.0,-0.19336063,-2.0
2025-07-21 14:23:14.716,0.7400000000000003,740,37,0.03186406,-0.065822475,-0.045530833,-0.0083491085,-0.098059125,0.036639407,0.0,0.0,0.0,0.02516815,0.024783138,0.15746868,-0.09549647,-0.042597234,0.31259438,-0.10810139,0.15022224,-0.027353374,0.17108534,0.103451654,0.09801903,0.04213485,0.0052102604,-0.042720314,-0.06663929,0.015489699,0.0036502008,-0.080049224,-0.06539669,-0.01583759,0.040093604,-0.043758105,0.023602216,0.09111437,2.0,0.4457933,-2.0,-2.0,2.0,-2.0,2.0,-0.9582852,-2.0,2.0,-0.19336063,-2.0,2.0,0.47100493,-2.0,-2.0,2.0,-2.0,2.0,-0.25874305,-2.0,2.0,-0.16069852,-2.0
2025-07-21 14:23:14.732,0.7600000000000003,760,38,-0.01971014,-0.01150951,0.045820482,0.013776084,-0.11267017,0.044487953,0.0,0.0,0.0,0.02514739,0.022157433,0.16624974,-0.08822208,-0.03879881,0.33514544,-0.117203884,0.13680498,-0.028666541,0.1664089,0.11318921,0.11089913,0.042076856,-0.046036966,0.056466144,0.026891485,0.05264663,0.017910179,-0.014632558,0.054790713,0.06607278,0.01696778,0.016898708,-0.02257044,-0.038280465,2.0,0.47100493,-2.0,-2.0,2.0,-2.0,2.0,-0.25874305,-2.0,2.0,-0.16069852,-2.0,2.0,0.20703985,-2.0,-2.0,2.0,-2.0,2.0,-0.72834325,-2.0,2.0,-0.1471353,-2.0
2025-07-21 14:23:14.752,0.7800000000000004,780,39,0.04396557,-0.035536323,0.014991285,-0.06857631,-0.120374314,-0.04387776,0.0,0.0,0.0,0.025168335,0.012721829,0.1664315,-0.07807974,-0.03707839,0.3306273,-0.1138744,0.13806468,-0.01819497,0.1673255,0.100650795,0.123250484,0.04920764,0.04281012,0.0921294,-0.035344698,-0.058580026,0.012500927,0.020838521,-0.07263763,0.05846848,-0.026475303,0.021652339,0.08138834,0.032398656,2.0,0.20703985,-2.0,-2.0,2.0,-2.0,2.0,-0.72834325,-2.0,2.0,-0.1471353,-2.0,2.0,0.30551293,-2.0,-2.0,2.0,-2.0,2.0,-0.66821057,-2.0,2.0,-0.23847607,-2.0
2025-07-21 14:23:14.772,0.8000000000000004,800,40,0.008304252,-0.05320283,-0.024324225,-0.07817154,-0.050794784,0.03788606,0.0,0.0,0.0,0.025256652,0.009557403,0.17398345,-0.09449199,-0.044656884,0.3401169,-0.1103428,0.13625723,-0.0077075986,0.17691973,0.1106354,0.12941751,0.06372688,0.06796695,0.09083923,0.041917827,-0.026166033,-0.03816143,0.027343921,0.02850129,-0.047751136,0.07005457,-0.026703076,0.07596864,0.0042034257,2.0,0.30551293,-2.0,-2.0,2.0,-2.0,2.0,-0.66821057,-2.0,2.0,-0.23847607,-2.0,2.0,0.28846988,-2.0,-2.0,2.0,-2.0,2.0,-0.5741866,-2.0,2.0,-0.21250936,-2.0
2025-07-21 14:23:14.798,0.8200000000000004,820,41,0.03883732,-0.05844334,0.019476695,-0.023178538,-0.08375356,0.021249665,0.0,0.0,0.0,0.025508823,0.010321615,0.18815579,-0.07850684,-0.04902379,0.3485176,-0.11373877,0.14114897,-0.01168964,0.19988985,0.10057337,0.13590296,0.065215334,0.00021333557,0.022145439,0.036966983,0.04361436,-0.031113189,0.04392177,0.061255705,0.003559063,0.060311034,-0.01991824,0.040460065,0.07368152,2.0,0.28846988,-2.0,-2.0,2.0,-2.0,2.0,-0.5741866,-2.0,2.0,-0.21250936,-2.0,2.0,0.32657114,-2.0,-2.0,2.0,-2.0,2.0,-0.7233063,-2.0,2.0,-0.17687187,-2.0
2025-07-21 14:23:14.815,0.8400000000000004,840,42,0.03689995,-0.009914086,-0.06701984,-0.035755657,-0.1328158,0.005215533,0.0,0.0,0.0,0.025773132,0.01808662,0.19625671,-0.08944127,-0.03618753,0.35331196,-0.114225,0.14810054,0.003737273,0.19579864,0.10322554,0.13971588,0.07288334,0.058262892,0.015442203,0.010413669,0.034624424,0.031157317,-0.033842023,0.001718126,0.038886447,-0.016427075,0.060869787,-0.055554174,0.028747939,2.0,0.32657114,-2.0,-2.0,2.0,-2.0,2.0,-0.7233063,-2.0,2.0,-0.17687187,-2.0,2.0,0.43830553,-2.0,-2.0,2.0,-2.0,2.0,-0.067925915,-2.0,2.0,-0.2174759,-2.0
2025-07-21 14:23:14.832,0.8600000000000004,860,43,-0.007973191,0.050887916,0.022417717,-0.052280612,-0.13541944,-0.042710193,0.0,0.0,0.0,0.026090149,0.021427795,0.1945592,-0.097521655,-0.032315865,0.37270796,-0.11276579,0.14576474,0.0063642343,0.20194203,0.11641522,0.15008864,0.07594703,-0.03755025,-0.0026440206,-0.0086630825,0.07230854,0.037827402,-0.004596062,-0.056761026,0.04403353,-0.06824058,-0.019681875,0.09363152,0.048965063,2.0,0.43830553,-2.0,-2.0,2.0,-2.0,2.0,-0.067925915,-2.0,2.0,-0.2174759,-2.0,2.0,0.0738429,-2.0,-2.0,2.0,-2.0,2.0,-0.63559145,-2.0,2.0,-0.1736047,-2.0
2025-07-21 14:23:14.852,0.8800000000000004,880,44,0.06392567,-0.02419906,-0.018927606,-0.0009398365,-0.10302415,-0.0018744195,0.0,0.0,0.0,0.026156714,0.019033572,0.20579086,-0.081583925,-0.034216817,0.376649,-0.11935568,0.15740508,0.010183037,0.20652096,0.101989724,0.14950447,0.08691806,0.029955862,0.027075179,-0.050397355,-0.021629471,-0.012879052,-0.015869904,0.065670535,-0.045858923,0.030954186,0.017313266,0.003985824,0.02442533,2.0,0.0738429,-2.0,-2.0,2.0,-2.0,2.0,-0.63559145,-2.0,2.0,-0.1736047,-2.0,2.0,0.501207,-2.0,-2.0,2.0,-2.0,2.0,-0.514596,-2.0,2.0,-0.16599959,-2.0
2025-07-21 14:23:14.872,0.9000000000000005,900,45,-0.0024857735,0.029400451,-0.016455416,-0.0050452324,-0.0755536,0.0040110126,0.0,0.0,0.0,0.026133848,0.009581251,0.20139122,-0.08441643,-0.036447097,0.37702852,-0.122392036,0.13823082,0.019283699,0.22063139,0.10435508,0.1479877,0.09124658,-0.04961702,0.00040522043,-0.04006258,-0.027233997,0.05519581,0.034959994,-0.06569361,-0.026006063,0.046737302,0.062324718,-0.018915618,0.08340434,2.0,0.501207,-2.0,-2.0,2.0,-2.0,2.0,-0.514596,-2.0,2.0,-0.16599959,-2.0,2.0,0.21984035,-2.0,-2.0,2.0,-2.0,2.0,-0.24957882,-2.0,2.0,-0.1390306,-2.0
2025-07-21 14:23:14.898,0.9200000000000005,920,46,-0.011911725,-0.017358147,-0.021864682,-0.062601514,-0.11434902,-0.0018230851,0.0,0.0,0.0,0.026173944,0.017469015,0.21003067,-0.09236742,-0.04933267,0.38693786,-0.12621948,0.13921103,0.021426106,0.22322391,0.1190199,0.15289415,0.09115697,0.03707531,-0.044824835,-0.0042333417,0.022779858,-0.0017417878,-0.057132978,0.029863965,0.06683536,-0.036009,-0.05151109,-0.014091249,0.08126788,2.0,0.21984035,-2.0,-2.0,2.0,-2.0,2.0,-0.24957882,-2.0,2.0,-0.1390306,-2.0,2.0,0.39093205,-2.0,-2.0,2.0,-2.0,2.0,-0.42528033,-2.0,2.0,-0.21572888,-2.0
2025-07-21 14:23:14.915,0.9400000000000005,940,47,0.052847616,0.0076602097,0.010153038,-0.057010524,-0.09093464,-0.014126752,0.0,0.0,0.0,0.026106495,0.014651795,0.2146378,-0.09313166,-0.041057173,0.395853,-0.11067882,0.15446427,0.03483618,0.21434559,0.10513571,0.16249785,0.111056365,-0.013358258,0.058631714,0.019985463,-0.05495529,-0.044916153,-0.042139538,-0.062584355,0.013218283,0.011757719,0.005295024,-0.0030982308,0.07491883,2.0,0.39093205,-2.0,-2.0,2.0,-2.0,2.0,-0.42528033,-2.0,2.0,-0.21572888,-2.0,2.0,0.23029442,-2.0,-2.0,2.0,-2.0,2.0,-0.49063605,-2.0,2.0,-0.1482606,-2.0
2025-07-21 14:23:14.932,0.9600000000000005,960,48,0.017427558,-0.014653767,-0.007674749,-0.06591775,-0.08888812,-0.04830614,0.0,0.0,0.0,0.025936587,0.0138124395,0.20945929,-0.084640324,-0.036049064,0.38844675,-0.12612268,0.1377527,0.022697339,0.21849428,0.10400094,0.1638323,0.11706573,0.05618247,-0.050668757,-0.058365736,0.06557561,-1.7086552e-06,-0.04187794,-0.06454496,-0.0058596893,-0.06542787,-0.043655828,-0.0014323815,0.08306348,2.0,0.23029442,-2.0,-2.0,2.0,-2.0,2.0,-0.49063605,-2.0,2.0,-0.1482606,-2.0,2.0,0.4695499,-2.0,-2.0,2.0,-2.0,2.0,-0.39162046,-2.0,2.0,-0.12934273,-2.0
2025-07-21 14:23:14.952,0.9800000000000005,980,49,0.04435715,-0.031954456,0.03996044,-0.029092325,-0.12162548,0.019715317,0.0,0.0,0.0,0.025808085,0.015164535,0.2251756,-0.0810947,-0.045100838,0.3954971,-0.12568751,0.15155834,0.043107957,0.2266998,0.11208297,0.15977217,0.1160036,0.024099745,0.029446123,0.036748208,0.048705783,-0.02482408,-0.01856832,-0.03158494,-0.060926244,0.07200088,-0.06315098,-0.02888981,0.07231519,2.0,0.4695499,-2.0,-2.0,2.0,-2.0,2.0,-0.39162046,-2.0,2.0,-0.12934273,-2.0,2.0,0.18925472,-2.0,-2.0,2.0,-2.0,2.0,-0.5247542,-2.0,2.0,0.020519178,-2.0
2025-07-21 14:23:14.972,1.0000000000000004,1000,50,0.04619796,-0.011406231,-0.03664096,-0.026519507,-0.13362539,-0.017260391,0.0,0.0,0.0,0.025706623,0.028611055,0.23390377,-0.08281417,-0.047853064,0.39819822,-0.121201485,0.14296621,0.04102605,0.2194954,0.10227119,0.16230571,0.11649157,-0.039702307,0.06069112,0.07441445,0.048669755,0.037722323,0.038296457,-0.0686795,0.05342009,0.03395439,-0.06456716,0.061637692,0.008914579,2.0,0.18925472,-2.0,-2.0,2.0,-2.0,2.0,-0.5247542,-2.0,2.0,0.020519178,-2.0,2.0,0.234257,-2.0,-2.0,2.0,-2.0,2.0,-0.14211799,-2.0,2.0,-0.15006599,-2.0
2025-07-21 14:23:14.998,1.0200000000000005,1020,51,0.054230396,0.0026846684,0.005999075,-0.07822678,-0.1536133,0.033424854,0.0,0.0,0.0,0.025773285,0.014568259,0.23539203,-0.093716994,-0.04705006,0.41682345,-0.11142249,0.15383616,0.0351156,0.23125646,0.104872204,0.17260255,0.12391007,0.048487727,0.027506767,0.005104248,-0.010829322,0.039227743,0.037652936,0.006021724,0.08638655,-0.013328741,0.011400806,-0.03788341,0.041105397,2.0,0.234257,-2.0,-2.0,2.0,-2.0,2.0,-0.14211799,-2.0,2.0,-0.15006599,-2.0,2.0,0.2849407,-2.0,-2.0,2.0,-2.0,2.0,-0.53295577,-2.0,2.0,-0.15922403,-2.0
2025-07-21 14:23:15.015,1.0400000000000005,1040,52,-0.01711275,0.018572295,-0.037849437,-0.0581399,-0.160485,-0.0038465306,0.0,0.0,0.0,0.025858331,0.020486195,0.23012146,-0.088160776,-0.035443004,0.40756452,-0.11161446,0.14434743,0.03855794,0.22435552,0.102541484,0.17764112,0.12555288,0.02892666,0.046471495,-0.06544606,0.0028461919,0.06946714,0.044080023,0.021162204,0.005168728,0.05544688,0.0266018,-0.06352924,-0.05776287,2.0,0.2849407,-2.0,-2.0,2.0,-2.0,2.0,-0.53295577,-2.0,2.0,-0.15922403,-2.0,2.0,0.3975221,-2.0,-2.0,2.0,-2.0,2.0,-0.21853556,-2.0,2.0,-0.10061483,-2.0
2025-07-21 14:23:15.033,1.0600000000000005,1060,53,0.06361663,-0.0048703235,-0.035878245,-0.0020238014,-0.1064934,0.0042688283,0.0,0.0,0.0,0.025902357,0.015768463,0.21971695,-0.09328801,-0.046792895,0.41628948,-0.113888726,0.1441386,0.040323306,0.22557981,0.11201238,0.18759435,0.11785346,0.0118233,0.05380301,0.00028235646,0.06905413,0.070756815,0.06941004,-0.069211945,-0.057756852,0.02729639,0.05573855,0.036979746,0.043754898,2.0,0.3975221,-2.0,-2.0,2.0,-2.0,2.0,-0.21853556,-2.0,2.0,-0.10061483,-2.0,2.0,0.044642583,-2.0,-2.0,2.0,-2.0,2.0,-0.16456817,-2.0,2.0,-0.073290616,-2.0
2025-07-21 14:23:15.053,1.0800000000000005,1080,54,0.013580449,0.059036978,-0.0381475,-0.022250272,-0.07657971,0.049763594,0.0,0.0,0.0,0.025906624,0.022592392,0.23305246,-0.07773598,-0.034042142,0.40953848,-0.12157083,0.14097525,0.04844447,0.22353168,0.09666928,0.17846358,0.12975524,0.029819123,-0.0036399292,-0.024190184,0.073468424,-0.020742733,-0.017395783,0.053224847,0.0043845214,0.00660372,0.056903023,-0.011057137,0.034969106,2.0,0.044642583,-2.0,-2.0,2.0,-2.0,2.0,-0.16456817,-2.0,2.0,-0.073290616,-2.0,2.0,0.30808038,-2.0,-2.0,2.0,-2.0,2.0,-0.3914727,-2.0,2.0,-0.3023412,-2.0
2025-07-21 14:23:15.073,1.1000000000000005,1100,55,-0.019937187,-0.028553085,0.051130198,-0.071055524,-0.1140814,0.027448803,0.0,0.0,0.0,0.025849238,0.03187437,0.2326604,-0.081687585,-0.04444971,0.42608827,-0.12609802,0.1366709,0.06382893,0.23209856,0.108329624,0.18046361,0.12939599,-0.07206286,0.050909556,-0.04458411,-0.0033860335,-0.05282532,0.06567714,0.057241283,0.023236273,0.055324666,-0.017105771,-0.00022809258,-0.017280962,2.0,0.30808038,-2.0,-2.0,2.0,-2.0,2.0,-0.3914727,-2.0,2.0,-0.3023412,-2.0,2.0,0.2918724,-2.0,-2.0,2.0,-2.0,2.0,-0.85325706,-2.0,2.0,-0.079719126,-2.0
2025-07-21 14:23:15.099,1.1200000000000006,1120,56,0.031979952,-0.01929404,-0.0038660238,-0.07296636,-0.12406682,0.013418775,0.0,0.0,0.0,0.025745012,0.015055841,0.22752841,-0.09815545,-0.03685567,0.41761854,-0.111018285,0.1455484,0.046194836,0.22535422,0.10109738,0.17991608,0.12726943,-0.04481575,-0.03654624,0.0052061593,0.025568955,-0.034850642,-0.006040756,-0.0011529991,-0.078184314,0.028714614,-0.040374544,0.061752945,0.021923687,2.0,0.2918724,-2.0,-2.0,2.0,-2.0,2.0,-0.85325706,-2.0,2.0,-0.079719126,-2.0,2.0,0.43043408,-2.0,-2.0,2.0,-2.0,2.0,-0.44216815,-2.0,2.0,-0.052633245,-2.0
2025-07-21 14:23:15.115,1.1400000000000006,1140,57,0.012037493,-0.015299666,0.016876062,-0.05617207,-0.16410948,0.023218412,0.0,0.0,0.0,0.025888612,0.014364974,0.21378545,-0.09199216,-0.041428592,0.4135024,-0.117553204,0.14257853,0.05015825,0.23685288,0.10247716,0.16682021,0.13106488,0.030650035,-0.026528427,-0.04138429,-0.069395445,-0.019666573,-0.019784864,0.023414752,-0.012208799,0.06654057,0.059603963,-0.06659764,0.021797676,2.0,0.43043408,-2.0,-2.0,2.0,-2.0,2.0,-0.44216815,-2.0,2.0,-0.052633245,-2.0,2.0,0.31682643,-2.0,-2.0,2.0,-2.0,2.0,-0.48943493,-2.0,2.0,-0.08568722,-2.0
2025-07-21 14:23:15.133,1.1600000000000006,1160,58,0.01634626,0.042264223,0.012140677,-0.0333674,-0.14150287,0.029305711,0.0,0.0,0.0,0.026253637,0.022310315,0.21862479,-0.089049555,-0.041983157,0.41015425,-0.11327925,0.13513105,0.049740586,0.2227373,0.10775506,0.17565168,0.12912849,-0.018960422,-0.057447545,-0.022987355,-0.051127452,-0.046380967,0.016141457,0.0021877703,-0.05277472,-0.053100158,0.02121119,0.0736058,0.051067095,2.0,0.31682643,-2.0,-2.0,2.0,-2.0,2.0,-0.48943493,-2.0,2.0,-0.08568722,-2.0,2.0,0.36136222,-2.0,-2.0,2.0,-2.0,2.0,-0.6151553,-2.0,2.0,-0.10981345,-2.0
2025-07-21 14:23:15.153,1.1800000000000006,1180,59,-0.03773493,0.0074875904,-0.012956834,-0.034566384,-0.07796944,0.014747674,0.0,0.0,0.0,0.026638558,0.019175388,0.22675337,-0.10431965,-0.052320436,0.4183914,-0.12891695,0.13827342,0.03645164,0.2308322,0.10926786,0.1699837,0.14069256,-0.02243998,0.012474788,-0.07865089,0.023984272,-0.03654588,0.028288508,0.06317948,-0.04648885,0.011675128,0.02377109,0.07286019,-0.04607472,2.0,0.36136222,-2.0,-2.0,2.0,-2.0,2.0,-0.6151553,-2.0,2.0,-0.10981345,-2.0,2.0,0.31728515,-2.0,-2.0,2.0,-2.0,2.0,-0.44258416,-2.0,2.0,-0.0884895,-2.0
2025-07-21 14:23:15.173,1.2000000000000006,1200,60,-0.013037228,0.056575134,-0.048957802,-0.015969152,-0.09658916,0.011108887,0.0,0.0,0.0,0.027087396,0.020198872,0.21006277,-0.090691656,-0.044258572,0.41477734,-0.12916774,0.13782865,0.03414253,0.22499985,0.11164194,0.17133886,0.14234322,-0.062076528,0.05334021,-0.023775116,-0.03863557,0.056260493,0.0680471,0.026999604,-0.0515088,0.06576941,0.009298218,0.04716641,-0.032822557,2.0,0.31728515,-2.0,-2.0,2.0,-2.0,2.0,-0.44258416,-2.0,2.0,-0.0884895,-2.0,2.0,0.24122451,-2.0,-2.0,2.0,-2.0,2.0,-0.21428528,-2.0,2.0,-0.118950576,-2.0
2025-07-21 14:23:15.198,1.2200000000000006,1220,61,0.030178944,0.06335308,0.020748567,-0.004408549,-0.15789263,0.032485817,0.0,0.0,0.0,0.027531138,0.018108465,0.20792626,-0.10455197,-0.062319454,0.41943485,-0.11893003,0.14849308,0.037015986,0.2262566,0.09880625,0.1698724,0.123317994,-0.051946957,-0.062007025,0.01731161,-0.006163601,0.06487712,0.00914187,0.023261411,0.044870466,-0.06690435,0.05851961,-0.002557883,0.00015889901,2.0,0.24122451,-2.0,-2.0,2.0,-2.0,2.0,-0.21428528,-2.0,2.0,-0.118950576,-2.0,2.0,0.4385442,-2.0,-2.0,2.0,-2.0,2.0,-0.6012487,-2.0,2.0,-0.11551824,-2.0
2025-07-21 14:23:15.215,1.2400000000000007,1240,62,0.030720335,0.023214571,-0.04179409,-0.0031680146,-0.09211179,-0.020264238,0.0,0.0,0.0,0.027804388,0.028845537,0.20898363,-0.107670784,-0.051833015,0.41707784,-0.10896223,0.14745566,0.047785487,0.22187768,0.113281995,0.19002756,0.13933252,-0.054161735,0.017704008,-0.034557,0.03663807,0.0631279,0.054692537,0.01240042,-0.030487707,-0.054082457,-0.003961814,-0.03123933,0.06711894,2.0,0.4385442,-2.0,-2.0,2.0,-2.0,2.0,-0.6012487,-2.0,2.0,-0.11551824,-2.0,2.0,0.34641987,-2.0,-2.0,2.0,-2.0,2.0,-0.054003123,-2.0,2.0,-0.008430574,-2.0
2025-07-21 14:23:15.233,1.2600000000000007,1260,63,-0.04269961,0.07158654,-0.046939697,-0.008440926,-0.16157635,0.028386684,0.0,0.0,0.0,0.027990635,0.022969326,0.20873909,-0.0984962,-0.05136684,0.42444542,-0.12225801,0.15225488,0.054560825,0.21255311,0.11321223,0.1801645,0.12839912,-0.03849157,-0.06052797,-0.020315424,0.020584239,-0.014739313,0.05428731,0.062026765,-0.05609446,-0.034435205,0.033501953,-0.007632914,-0.024665864,2.0,0.34641987,-2.0,-2.0,2.0,-2.0,2.0,-0.054003123,-2.0,2.0,-0.008430574,-2.0,2.0,0.23275746,-2.0,-2.0,2.0,-2.0,2.0,-0.2786208,-2.0,2.0,-0.14016926,-2.0
2025-07-21 14:23:15.253,1.2800000000000007,1280,64,-0.012012772,0.077246785,-0.0016586112,-0.023373265,-0.08311649,-0.046077136,0.0,0.0,0.0,0.028039262,0.020530578,0.2138953,-0.10890746,-0.050825913,0.4223372,-0.10536464,0.13880792,0.044699647,0.2039622,0.10815203,0.18865022,0.12667798,-0.018373586,-0.03323486,-0.02587218,-0.039977025,0.052046586,-0.029919725,0.0024181327,0.0014570777,0.046450965,0.039569262,0.025185594,-0.015895007,2.0,0.23275746,-2.0,-2.0,2.0,-2.0,2.0,-0.2786208,-2.0,2.0,-0.14016926,-2.0,2.0,0.34900397,-2.0,-2.0,2.0,-2.0,2.0,-0.47047538,-2.0,2.0,-0.1394364,-2.0
2025-07-21 14:23:15.274,1.3000000000000007,1300,65,-0.019397352,-0.000117240605,-0.01765825,-0.06409165,-0.13378592,0.008163673,0.0,0.0,0.0,0.027919592,0.023130974,0.21967673,-0.10847677,-0.058860067,0.41335222,-0.10864406,0.14908728,0.05277509,0.21643423,0.1067803,0.17744324,0.119314775,0.054164983,0.033578802,-0.067787796,0.058053292,0.009394331,0.07244552,-0.06369014,-0.0058505293,-0.07427731,-0.06397793,0.06853425,0.046040356,2.0,0.34900397,-2.0,-2.0,2.0,-2.0,2.0,-0.47047538,-2.0,2.0,-0.1394364,-2.0,2.0,0.2600563,-2.0,-2.0,2.0,-2.0,2.0,-0.39541084,-2.0,2.0,-0.06689218,-2.0
2025-07-21 14:23:15.298,1.3200000000000007,1320,66,0.011825249,-0.03258587,-0.03860471,-0.03505822,-0.11171545,-0.049970366,0.0,0.0,0.0,0.027795522,0.0151801715,0.20787907,-0.10383418,-0.061494883,0.4145171,-0.116099425,0.15345281,0.055408947,0.20496787,0.10593905,0.18910518,0.1303278,-0.010730483,-0.075067,-0.06767163,0.050702963,0.04020015,0.0283922,0.013770905,0.009442753,-0.062364534,-0.041240714,0.06830409,-0.04736405,2.0,0.2600563,-2.0,-2.0,2.0,-2.0,2.0,-0.39541084,-2.0,2.0,-0.06689218,-2.0,2.0,0.44966105,-2.0,-2.0,2.0,-2.0,2.0,-0.28439668,-2.0,2.0,-0.084748045,-2.0
2025-07-21 14:23:15.315,1.3400000000000007,1340,67,0.043874264,0.059171103,-0.024982475,0.01108196,-0.14851123,-0.0119980285,0.0,0.0,0.0,0.027747788,0.027599396,0.21692915,-0.10687313,-0.060604073,0.41958818,-0.1061448,0.15077424,0.051560972,0.196691,0.09962309,0.18300237,0.12752981,-0.005025235,0.0015334442,-0.030172735,0.007980806,-0.03340307,0.058221422,0.068507105,-0.025552407,0.0047503095,-0.06413707,0.0516435,-0.018852253,2.0,0.44966105,-2.0,-2.0,2.0,-2.0,2.0,-0.28439668,-2.0,2.0,-0.084748045,-2.0,2.0,0.23064269,-2.0,-2.0,2.0,-2.0,2.0,-0.3493797,-2.0,2.0,-0.041068498,-2.0
2025-07-21 14:23:15.334,1.3600000000000008,1360,68,-0.044649847,0.009425494,0.0019329037,-0.011141316,-0.1618806,-0.02423483,0.0,0.0,0.0,0.027672384,0.013059846,0.2001673,-0.097819425,-0.06281374,0.4057421,-0.10611479,0.14291444,0.060591266,0.20209286,0.10358605,0.17949896,0.13206221,-0.03488938,0.037445363,0.0009342071,0.0432191,0.05702137,-0.011991493,0.03781855,-0.06636724,0.05552651,0.0139314495,-0.013188356,-0.018373486,2.0,0.23064269,-2.0,-2.0,2.0,-2.0,2.0,-0.3493797,-2.0,2.0,-0.041068498,-2.0,2.0,0.2329231,-2.0,-2.0,2.0,-2.0,2.0,-0.43252078,-2.0,2.0,-0.121461615,-2.0
2025-07-21 14:23:15.354,1.3800000000000008,1380,69,-0.01689307,-0.02258469,-0.012370575,-0.057517912,-0.12872481,-0.028814908,0.0,0.0,0.0,0.027614776,0.02325723,0.20538516,-0.102251634,-0.05122325,0.40803674,-0.10376333,0.13579647,0.06077913,0.20302361,0.108177654,0.17594805,0.12873717,-0.053440094,-0.04705277,-0.023906318,-0.010933996,0.009359436,-0.052711897,-0.06713871,0.014996864,-0.062331967,0.03470255,0.05868464,-0.045478832,2.0,0.2329231,-2.0,-2.0,2.0,-2.0,2.0,-0.43252078,-2.0,2.0,-0.121461615,-2.0,2.0,0.3954015,-2.0,-2.0,2.0,-2.0,2.0,-0.41935632,-2.0,2.0,-0.16289648,-2.0
2025-07-21 14:23:15.374,1.4000000000000008,1400,70,-0.014048282,0.0041011763,0.0009832317,-0.013282844,-0.15317416,-0.039689053,0.0,0.0,0.0,0.0276579,0.02437567,0.1943672,-0.10552834,-0.048862845,0.40142378,-0.10677596,0.14932589,0.050872564,0.18925634,0.110796936,0.17854607,0.11922417,-0.021153715,0.017977424,0.02541085,-0.035776567,0.037369747,0.033291314,-0.06861971,0.011332995,-0.03574305,-0.056231473,0.037425227,-0.035882212,2.0,0.3954015,-2.0,-2.0,2.0,-2.0,2.0,-0.41935632,-2.0,2.0,-0.16289648,-2.0,2.0,0.3437503,-2.0,-2.0,2.0,-2.0,2.0,-0.41350445,-2.0,2.0,-0.03325266,-2.0
2025-07-21 14:23:15.399,1.4200000000000008,1420,71,-0.024111044,0.018515136,-0.0011245627,0.03426776,-0.15978758,-0.011433412,0.0,0.0,0.0,0.027700821,0.025611471,0.19522159,-0.10209151,-0.048176564,0.4148095,-0.09857477,0.13211384,0.039347406,0.19728854,0.11088913,0.17845875,0.119116075,-0.0005235898,0.037439443,0.010558749,0.053684093,-0.02951019,0.021228813,-0.02658414,0.049086776,0.065955505,-0.053834993,-0.023003995,-0.04800486,2.0,0.3437503,-2.0,-2.0,2.0,-2.0,2.0,-0.41350445,-2.0,2.0,-0.03325266,-2.0,2.0,0.303379,-2.0,-2.0,2.0,-2.0,2.0,-0.3553044,-2.0,2.0,-0.055180732,-2.0
2025-07-21 14:23:15.415,1.4400000000000008,1440,72,-0.019791756,0.055444375,0.0020987624,0.00020759582,-0.11867129,0.01350619,0.0,0.0,0.0,0.027769709,0.013436597,0.1998644,-0.09377324,-0.047785874,0.39898118,-0.0991319,0.1347541,0.05336843,0.19220774,0.11144965,0.18428344,0.1255158,-0.026677184,-0.046266884,-0.0039765052,-0.0034669975,-0.04314664,0.001769727,-0.013483961,-0.012164427,0.05925203,0.042938616,-0.017320408,0.007324248,2.0,0.303379,-2.0,-2.0,2.0,-2.0,2.0,-0.3553044,-2.0,2.0,-0.055180732,-2.0,2.0,0.33500922,-2.0,-2.0,2.0,-2.0,2.0,-0.48761204,-2.0,2.0,-0.145447,-2.0
2025-07-21 14:23:15.434,1.4600000000000009,1460,73,-0.038460724,-0.011198121,-0.0131255165,0.014603621,-0.09267203,-0.036472306,0.0,0.0,0.0,0.027890358,0.022471454,0.19336377,-0.09426914,-0.06197247,0.39742613,-0.11482579,0.1380092,0.03696596,0.18719824,0.11317211,0.16913836,0.11519521,0.06791073,-0.01281283,-0.057220995,-0.04534043,-0.0668012,-0.009078854,0.062481795,0.033457555,-0.015174523,-0.043991826,-0.032614022,0.005255097,2.0,0.33500922,-2.0,-2.0,2.0,-2.0,2.0,-0.48761204,-2.0,2.0,-0.145447,-2.0,2.0,0.5056858,-2.0,-2.0,2.0,-2.0,2.0,-0.41607082,-2.0,2.0,-0.079307154,-2.0
2025-07-21 14:23:15.454,1.4800000000000009,1480,74,-0.03099476,-0.015502887,-0.016255742,-0.013401528,-0.11134424,0.0064135906,0.0,0.0,0.0,0.028028153,0.025942309,0.20127292,-0.10754779,-0.047207404,0.40255323,-0.10327296,0.13625173,0.04617195,0.19267592,0.10577453,0.17926173,0.109671555,0.04414025,0.06295137,0.022095492,0.020866109,0.052662328,-0.0012169227,0.06973798,-0.04244886,0.068281375,-0.055207215,0.014309137,-0.019857539,2.0,0.5056858,-2.0,-2.0,2.0,-2.0,2.0,-0.41607082,-2.0,2.0,-0.079307154,-2.0,2.0,0.15564494,-2.0,-2.0,2.0,-2.0,2.0,-0.25035873,-2.0,2.0,-0.022798557,-2.0
2025-07-21 14:23:15.479,1.5000000000000009,1500,75,0.0096977865,0.0005049533,0.03202863,-0.018366762,-0.07808775,-0.025745109,0.0,0.0,0.0,0.028137377,0.011663145,0.1964933,-0.09578746,-0.06686504,0.39137927,-0.108961105,0.13498335,0.039678458,0.18467204,0.108699575,0.17910987,0.11300977,0.0095267035,0.03321303,-0.054687597,0.046765268,0.010775725,-0.019785322,-0.03907239,0.027893024,-0.054814253,-0.06917927,-0.063687,0.04192894,2.0,0.15564494,-2.0,-2.0,2.0,-2.0,2.0,-0.25035873,-2.0,2.0,-0.022798557,-2.0,2.0,0.370998,-2.0,-2.0,2.0,-2.0,2.0,-0.5273334,-2.0,2.0,-0.07128239,-2.0
2025-07-21 14:23:15.498,1.520000000000001,1520,76,-0.045824055,0.043467887,0.0125676375,-0.022280887,-0.07310534,0.005021533,0.0,0.0,0.0,0.02823147,0.016870733,0.1844097,-0.108248465,-0.05555704,0.40787885,-0.10915292,0.1361841,0.03691834,0.17777842,0.09832949,0.17994238,0.10749568,-0.00806726,0.059568085,0.042840946,0.0031991652,0.041918192,0.050888024,0.016211128,-0.006108458,0.025559017,-0.03336396,-0.039610364,-0.056741375,2.0,0.370998,-2.0,-2.0,2.0,-2.0,2.0,-0.5273334,-2.0,2.0,-0.07128239,-2.0,2.0,0.34970853,-2.0,-2.0,2.0,-2.0,2.0,-0.40060267,-2.0,2.0,-0.034322787,-2.0
2025-07-21 14:23:15.515,1.540000000000001,1540,77,0.037275176,0.030445969,-0.020827793,-0.04009728,-0.15309961,0.010935456,0.0,0.0,0.0,0.0283802,0.022291133,0.19120824,-0.10238952,-0.0635901,0.4046516,-0.09612568,0.14313304,0.04153803,0.18719673,0.10617393,0.16924867,0.10319041,-0.028460097,0.017996866,-0.06259938,0.00984792,0.069812484,-0.07219102,0.031275418,0.019360466,0.0073512914,-0.017193664,0.02159815,-0.043279152,2.0,0.34970853,-2.0,-2.0,2.0,-2.0,2.0,-0.40060267,-2.0,2.0,-0.034322787,-2.0,2.0,0.2868184,-2.0,-2.0,2.0,-2.0,2.0,-0.31585646,-2.0,2.0,-0.11283675,-2.0
2025-07-21 14:23:15.535,1.560000000000001,1560,78,-0.017242359,0.011380384,-0.043886546,0.021139566,-0.09716285,-0.038357418,0.0,0.0,0.0,0.028563557,0.025100835,0.19255804,-0.10773244,-0.0656228,0.402849,-0.10692023,0.14134164,0.03270237,0.18991508,0.09674985,0.17164415,0.11448412,-0.020815197,-0.047075447,0.021472413,0.06537555,-0.062835746,0.016010525,-0.06284841,-0.033100143,-0.04744984,-0.006640353,-0.06412449,-0.015786467,2.0,0.2868184,-2.0,-2.0,2.0,-2.0,2.0,-0.31585646,-2.0,2.0,-0.11283675,-2.0,2.0,0.4344265,-2.0,-2.0,2.0,-2.0,2.0,-0.15541784,-2.0,2.0,-0.13658229,-2.0
2025-07-21 14:23:15.555,1.580000000000001,1580,79,0.02653139,0.0651821,-0.034143407,0.018924953,-0.13593102,-0.036479127,0.0,0.0,0.0,0.02867439,0.020466555,0.18304335,-0.104290456,-0.05351277,0.3860939,-0.09457446,0.1460661,0.046581388,0.1879417,0.109178476,0.18223912,0.09742051,-0.036298975,0.04657527,0.042527437,0.059029162,0.050089955,-0.040962376,0.051199514,-0.008361708,0.0026711884,-0.022879642,0.058028907,0.02665916,2.0,0.4344265,-2.0,-2.0,2.0,-2.0,2.0,-0.15541784,-2.0,2.0,-0.13658229,-2.0,2.0,0.07828529,-2.0,-2.0,2.0,-2.0,2.0,-0.27843305,-2.0,2.0,-0.15186176,-2.0
2025-07-21 14:23:15.581,1.600000000000001,1600,80,0.03064723,0.014222781,-0.022577997,-0.004993952,-0.1385112,0.015657576,0.0,0.0,0.0,0.02855738,0.022184372,0.18045577,-0.102268994,-0.053454563,0.39444107,-0.10809753,0.146954,0.046317555,0.18058419,0.11445949,0.16618064,0.1042488,0.023678256,0.009605625,0.0039037596,-0.0057429164,0.057062898,-0.049588937,0.053790033,0.022333158,0.0019007787,0.03221798,-0.025758887,-0.0315104,2.0,0.07828529,-2.0,-2.0,2.0,-2.0,2.0,-0.27843305,-2.0,2.0,-0.15186176,-2.0,2.0,0.4794017,-2.0,-2.0,2.0,-2.0,2.0,-0.466943,-2.0,2.0,-0.20279306,-2.0
2025-07-21 14:23:15.598,1.620000000000001,1620,81,-0.031425443,-0.019521156,0.05489448,-0.015967237,-0.08110549,0.0063442676,0.0,0.0,0.0,0.028322035,0.02135941,0.18000071,-0.106857784,-0.0625632,0.38550958,-0.09385106,0.13165167,0.04160104,0.178799,0.10514743,0.17488079,0.10566215,0.0037035353,-0.027420992,0.04459527,0.037352614,-0.04770276,0.0345611,0.018083783,-0.06434894,0.038846303,-0.02315084,0.0027149948,-0.017264053,2.0,0.4794017,-2.0,-2.0,2.0,-2.0,2.0,-0.466943,-2.0,2.0,-0.20279306,-2.0,2.0,0.32866427,-2.0,-2.0,2.0,-2.0,2.0,-0.7748889,-2.0,2.0,-0.009824816,-2.0
2025-07-21 14:23:15.615,1.640000000000001,1640,82,-0.015002164,-0.06115178,-0.048563737,-0.04901379,-0.13940828,0.038249306,0.0,0.0,0.0,0.028069837,0.013385745,0.17363203,-0.109303676,-0.052460626,0.39527935,-0.10991565,0.14334844,0.042569082,0.18498424,0.1010561,0.16327493,0.09503414,-0.067072235,-0.01978224,0.03537235,0.0120492,-0.008830645,-0.034569282,0.01771215,-0.083009556,-0.03139192,0.068759225,-0.033903077,-0.034676105,2.0,0.32866427,-2.0,-2.0,2.0,-2.0,2.0,-0.7748889,-2.0,2.0,-0.009824816,-2.0,2.0,0.4301161,-2.0,-2.0,2.0,-2.0,2.0,-0.1414094,-2.0,2.0,-0.12758495,-2.0
2025-07-21 14:23:15.635,1.660000000000001,1660,83,0.0033011038,0.02309222,0.008358032,0.012290655,-0.14240146,-0.018819712,0.0,0.0,0.0,0.028056799,0.015593468,0.17885934,-0.10622805,-0.061545484,0.3913889,-0.09451541,0.14201865,0.041521195,0.17073621,0.10397715,0.17251588,0.10433619,-0.01079126,0.07134151,-0.02167237,0.016964,-0.018330008,-0.0072435,0.05312193,0.02285056,-0.037226126,-0.02228279,0.030591186,0.05655552,2.0,0.4301161,-2.0,-2.0,2.0,-2.0,2.0,-0.1414094,-2.0,2.0,-0.12758495,-2.0,2.0,0.07800932,-2.0,-2.0,2.0,-2.0,2.0,-0.55608636,-2.0,2.0,-0.11594102,-2.0
2025-07-21 14:23:15.655,1.680000000000001,1680,84,-0.054154262,-0.033950783,0.003946522,0.03289617,-0.08455621,-0.030848615,0.0,0.0,0.0,0.02806946,0.027961785,0.18385048,-0.111145385,-0.054718398,0.39330527,-0.10144279,0.14749289,0.039362617,0.18361932,0.109362714,0.16283223,0.109385826,0.024021586,0.020366864,-0.06628847,-0.014658715,0.027529893,0.032390114,-0.06316877,0.04994645,0.03564532,-0.049408752,0.06878014,0.006269879,2.0,0.07800932,-2.0,-2.0,2.0,-2.0,2.0,-0.55608636,-2.0,2.0,-0.11594102,-2.0,2.0,0.45606324,-2.0,-2.0,2.0,-2.0,2.0,-0.5875049,-2.0,2.0,-0.13574755,-2.0
2025-07-21 14:23:15.681,1.700000000000001,1700,85,-0.031000096,0.0033101137,0.027052062,-0.05880982,-0.13658586,-0.029569425,0.0,0.0,0.0,0.028087879,0.018010534,0.16559534,-0.10965984,-0.05402397,0.37762213,-0.097761415,0.13886535,0.038924143,0.17662804,0.108858265,0.16473937,0.09090665,0.04860337,-0.02030126,0.051508587,0.035498146,-0.036796506,0.022471625,-0.06792461,-0.050539557,-0.04902274,-0.0046283277,0.06093191,0.018167542,2.0,0.45606324,-2.0,-2.0,2.0,-2.0,2.0,-0.5875049,-2.0,2.0,-0.13574755,-2.0,2.0,0.30108234,-2.0,-2.0,2.0,-2.0,2.0,-0.626558,-2.0,2.0,-0.08183482,-2.0
2025-07-21 14:23:15.698,1.720000000000001,1720,86,0.017906364,-0.046326723,-0.032631457,0.015311012,-0.0701506,0.014053504,0.0,0.0,0.0,0.02823473,0.024491042,0.16213614,-0.09867298,-0.054515243,0.3727828,-0.106837586,0.13258052,0.03378672,0.17624131,0.10105571,0.15703443,0.10012733,0.008999684,-0.056977205,-0.025491862,0.0093449,-0.07122986,0.046497308,0.063032806,-0.0639599,0.0705533,0.060114115,0.0580035,-0.01571365,2.0,0.30108234,-2.0,-2.0,2.0,-2.0,2.0,-0.626558,-2.0,2.0,-0.08183482,-2.0,2.0,0.40144178,-2.0,-2.0,2.0,-2.0,2.0,-0.43483332,-2.0,2.0,-0.18037535,-2.0
2025-07-21 14:23:15.715,1.740000000000001,1740,87,0.014424058,-0.007078817,0.012740357,0.014835345,-0.15230723,-0.028849712,0.0,0.0,0.0,0.028479539,0.028227108,0.17155248,-0.101128675,-0.061190177,0.3725983,-0.11257474,0.14269987,0.024610708,0.17623252,0.11052377,0.15548047,0.10002541,0.04275721,-0.066922404,0.026545277,0.036798082,0.03410595,0.0731538,0.031589992,-0.07820289,0.037596393,-0.011691618,0.047146175,0.057559285,2.0,0.40144178,-2.0,-2.0,2.0,-2.0,2.0,-0.43483332,-2.0,2.0,-0.18037535,-2.0,2.0,0.34789568,-2.0,-2.0,2.0,-2.0,2.0,-0.60030055,-2.0,2.0,-0.07113822,-2.0
2025-07-21 14:23:15.735,1.7600000000000011,1760,88,-0.033387225,0.0082517825,-0.038348924,0.030925222,-0.11344324,0.037823174,0.0,0.0,0.0,0.028689103,0.017666869,0.17090291,-0.09824416,-0.0592245,0.37174147,-0.115290254,0.14820874,0.014770814,0.19070567,0.097806886,0.15861396,0.09371516,0.02211828,0.058926366,-0.035010982,0.0714339,-0.04750391,-0.013077928,-0.0019475517,-0.037739623,0.020687735,0.06990445,-0.07145326,-0.01011054,2.0,0.34789568,-2.0,-2.0,2.0,-2.0,2.0,-0.60030055,-2.0,2.0,-0.07113822,-2.0,2.0,0.35243902,-2.0,-2.0,2.0,-2.0,2.0,-0.21342994,-2.0,2.0,-0.14380173,-2.0
2025-07-21 14:23:15.755,1.7800000000000011,1780,89,-0.05514384,0.06891404,-0.040002882,-0.05726107,-0.10154783,0.01371727,0.0,0.0,0.0,0.028875101,0.013162499,0.17555171,-0.10540517,-0.054314867,0.37165734,-0.096957415,0.13980345,0.029667715,0.17077085,0.107052,0.15318407,0.09036662,-0.024269316,0.04622711,-0.028762028,0.021447284,0.075381696,-0.00016203873,0.058520533,-0.016500724,-0.04590149,-0.004398746,-0.0040832385,0.06719595,2.0,0.35243902,-2.0,-2.0,2.0,-2.0,2.0,-0.21342994,-2.0,2.0,-0.14380173,-2.0,2.0,0.15770586,-2.0,-2.0,2.0,-2.0,2.0,-0.33561578,-2.0,2.0,-0.24627878,-2.0
2025-07-21 14:23:15.781,1.8000000000000012,1800,90,-0.03727562,0.039156582,-0.017813051,-0.035917792,-0.10500142,-0.036796607,0.0,0.0,0.0,0.028932972,0.019546201,0.16799183,-0.108555816,-0.06513021,0.37988496,-0.09600267,0.15285866,0.026911559,0.17200206,0.10684576,0.16522765,0.09157086,-0.03274786,0.03556224,0.034940876,0.021441067,0.018073374,-0.030304521,0.030283546,-0.044708688,-0.07052819,-0.048613794,0.054871332,-0.049351238,2.0,0.15770586,-2.0,-2.0,2.0,-2.0,2.0,-0.33561578,-2.0,2.0,-0.24627878,-2.0,2.0,0.40712744,-2.0,-2.0,2.0,-2.0,2.0,-0.5757811,-2.0,2.0,-0.18873839,-2.0
2025-07-21 14:23:15.798,1.8200000000000012,1820,91,-0.013690926,-0.020638289,0.052374702,-0.03552752,-0.11388794,0.012435026,0.0,0.0,0.0,0.028771782,0.019769084,0.17581415,-0.102029346,-0.04791509,0.38529506,-0.09602578,0.13938926,0.01947306,0.18646815,0.101633444,0.1590426,0.08899846,-0.018135637,0.0022868498,-0.014503546,0.025038393,-0.032564774,0.03485789,0.051840484,0.017918207,-0.025832396,-0.06745726,0.028042529,-0.0357575,2.0,0.40712744,-2.0,-2.0,2.0,-2.0,2.0,-0.5757811,-2.0,2.0,-0.18873839,-2.0,2.0,0.42734972,-2.0,-2.0,2.0,-2.0,2.0,-0.83124024,-2.0,2.0,-0.048926327,-2.0
2025-07-21 14:23:15.816,1.8400000000000012,1840,92,-0.05041367,-0.018305795,0.027801527,-0.026884908,-0.13089904,0.027037121,0.0,0.0,0.0,0.028567716,0.015074735,0.15823528,-0.10775077,-0.04711412,0.3847138,-0.10459679,0.13839228,0.01839989,0.18003231,0.09858742,0.14992027,0.0973705,0.06301987,-0.032238796,-0.030834606,-0.031412866,-0.04648694,0.03616115,0.026714051,-0.048878044,0.05362751,0.017218303,0.012000012,0.07023425,2.0,0.42734972,-2.0,-2.0,2.0,-2.0,2.0,-0.83124024,-2.0,2.0,-0.048926327,-2.0,2.0,0.4004321,-2.0,-2.0,2.0,-2.0,2.0,-0.6665383,-2.0,2.0,-0.0826672,-2.0
2025-07-21 14:23:15.836,1.8600000000000012,1860,93,0.015709547,0.0059308754,0.0042416253,-0.05898423,-0.1281836,0.03715794,0.0,0.0,0.0,0.028579932,0.020781389,0.15702446,-0.098326534,-0.0545154,0.37641495,-0.11214794,0.14619477,0.025659349,0.17088996,0.107695,0.16094498,0.091150895,-0.053192183,-0.041616675,0.06967908,-0.074327104,-0.05385216,-0.064596415,-0.055728976,-0.027010249,0.012487749,0.05400146,0.040990252,-0.026523612,2.0,0.4004321,-2.0,-2.0,2.0,-2.0,2.0,-0.6665383,-2.0,2.0,-0.0826672,-2.0,2.0,0.40744245,-2.0,-2.0,2.0,-2.0,2.0,-0.5331478,-2.0,2.0,-0.14889786,-2.0
2025-07-21 14:23:15.856,1.8800000000000012,1880,94,-0.047366295,-0.014671244,0.021342989,-0.015698219,-0.10857891,-0.02800234,0.0,0.0,0.0,0.028808592,0.020301396,0.16592602,-0.1046912,-0.06315158,0.3681814,-0.11056457,0.13925016,0.006879737,0.18272708,0.11008062,0.16180617,0.09506744,0.0071292254,-0.07400511,0.020751828,-0.04524398,0.038456906,-0.044103228,-0.043426022,-0.04430763,-0.035076514,-0.057128865,0.053681597,0.06029753,2.0,0.40744245,-2.0,-2.0,2.0,-2.0,2.0,-0.5331478,-2.0,2.0,-0.14889786,-2.0,2.0,0.44907033,-2.0,-2.0,2.0,-2.0,2.0,-0.5695026,-2.0,2.0,-0.043121684,-2.0
2025-07-21 14:23:15.881,1.9000000000000012,1900,95,-0.014771334,0.02811612,-0.0063837804,-0.010865217,-0.11991224,-0.047662187,0.0,0.0,0.0,0.02902337,0.025503358,0.1668628,-0.11195809,-0.065362476,0.3662989,-0.11593783,0.13714804,0.004199259,0.19011955,0.103471786,0.15011963,0.09518042,0.003906779,0.0411144,0.06416634,-0.017221596,0.019702055,0.055684317,0.03525958,0.0053460663,-0.07206847,-0.018306421,-0.060294554,0.06674476,2.0,0.44907033,-2.0,-2.0,2.0,-2.0,2.0,-0.5695026,-2.0,2.0,-0.043121684,-2.0,2.0,0.34383935,-2.0,-2.0,2.0,-2.0,2.0,-0.25793782,-2.0,2.0,-0.079751745,-2.0
2025-07-21 14:23:15.898,1.9200000000000013,1920,96,-0.04091248,-0.012934691,-0.006189274,0.01565718,-0.13031499,-0.04084152,0.0,0.0,0.0,0.029201789,0.015348575,0.15666386,-0.111783594,-0.062353503,0.3741378,-0.10568328,0.15026963,0.019917097,0.18766491,0.11790974,0.14803055,0.091562204,-0.06611818,0.07373628,0.048410375,0.05461057,0.0381838,-0.051911507,0.07322132,-0.024206968,-0.07794147,0.006598495,-0.00070165406,0.051923096,2.0,0.34383935,-2.0,-2.0,2.0,-2.0,2.0,-0.25793782,-2.0,2.0,-0.079751745,-2.0,2.0,0.14600004,-2.0,-2.0,2.0,-2.0,2.0,-0.40344605,-2.0,2.0,-0.15053383,-2.0
2025-07-21 14:23:15.916,1.9400000000000013,1940,97,0.031783428,-0.010400784,-0.00021524505,-0.051742867,-0.1184425,-0.024156114,0.0,0.0,0.0,0.02925855,0.017209202,0.16615567,-0.10782958,-0.049533732,0.37517038,-0.11580914,0.13659675,0.024327809,0.17698029,0.11622877,0.16120583,0.090714484,-0.05884073,-0.011786949,-0.06344127,-0.0045025633,0.029359588,-0.038119547,0.04474639,-0.004580126,-0.05486779,0.03651588,-0.01333132,-0.046753887,2.0,0.14600004,-2.0,-2.0,2.0,-2.0,2.0,-0.40344605,-2.0,2.0,-0.15053383,-2.0,2.0,0.48952565,-2.0,-2.0,2.0,-2.0,2.0,-0.5632106,-2.0,2.0,-0.18067074,-2.0
2025-07-21 14:23:15.936,1.9600000000000013,1960,98,0.010055761,-0.024518713,-0.039070677,-0.041365433,-0.08103215,-0.03767927,0.0,0.0,0.0,0.029189125,0.028672924,0.17111687,-0.09987389,-0.06693166,0.374171,-0.10474052,0.15450062,0.010996089,0.17112295,0.11132997,0.15365075,0.08247213,0.011534459,0.02545996,0.037074737,-0.0033633641,0.012653746,0.030162048,0.025911672,-0.031746108,-0.00018714178,0.05082994,0.036045507,0.0042109517,2.0,0.48952565,-2.0,-2.0,2.0,-2.0,2.0,-0.5632106,-2.0,2.0,-0.18067074,-2.0,2.0,0.25900337,-2.0,-2.0,2.0,-2.0,2.0,-0.25879487,-2.0,2.0,-0.12917922,-2.0
2025-07-21 14:23:15.956,1.9800000000000013,1980,99,0.00209363,-0.033674702,0.03126634,-0.007238677,-0.15344001,0.0074297423,0.0,0.0,0.0,0.029059954,0.031258933,0.16671531,-0.10250619,-0.0627728,0.37913093,-0.107650496,0.14424448,0.0142887,0.18035169,0.11065361,0.15291862,0.092195116,-0.0059646135,-0.0393562,0.025487022,0.0067068147,0.02876296,-0.016453538,-0.0240907,-0.03735423,0.00861855,-0.036935706,-0.01959159,-0.076322414,2.0,0.25900337,-2.0,-2.0,2.0,-2.0,2.0,-0.25879487,-2.0,2.0,-0.12917922,-2.0,2.0,0.46264428,-2.0,-2.0,2.0,-2.0,2.0,-0.6631058,-2.0,2.0,-0.06047419,-2.0
2025-07-21 14:23:15.981,2.0000000000000013,2000,100,-0.03635536,0.021168523,0.042377114,-0.0628512,-0.103802055,-0.035628244,0.0,0.0,0.0,0.028820643,0.025677487,0.17332098,-0.10865696,-0.065785564,0.37961212,-0.09908237,0.14864866,0.028197719,0.18300915,0.115247265,0.1658469,0.092368945,-0.023994029,-0.05831671,0.06352662,0.038124155,0.046306565,-0.049748152,0.05008221,0.07085243,0.024109455,-0.06552913,0.07351588,0.039488185,2.0,0.46264428,-2.0,-2.0,2.0,-2.0,2.0,-0.6631058,-2.0,2.0,-0.06047419,-2.0,2.0,0.36135313,-2.0,-2.0,2.0,-2.0,2.0,-0.65442413,-2.0,2.0,-0.07968286,-2.0
2025-07-21 14:23:15.998,2.0200000000000014,2020,101,0.020960119,-0.06261983,-0.025108846,0.0042067408,-0.12008219,-0.004965681,0.0,0.0,0.0,0.0286335,0.032754917,0.1631885,-0.09935093,-0.06646135,0.37737605,-0.09851385,0.15323524,0.030756619,0.16956785,0.10589441,0.15235642,0.07982481,0.052769404,0.04291835,0.027303165,0.020470101,-0.04003161,0.06210975,0.022340894,0.028570805,0.0062067453,0.03528694,0.0569252,0.0569726,2.0,0.36135313,-2.0,-2.0,2.0,-2.0,2.0,-0.65442413,-2.0,2.0,-0.07968286,-2.0,2.0,0.2704487,-2.0,-2.0,2.0,-2.0,2.0,-0.39203867,-2.0,2.0,-0.15960434,-2.0
2025-07-21 14:23:16.017,2.0400000000000014,2040,102,0.030405082,-0.019722788,0.020107808,-0.048500378,-0.109894454,0.03310158,0.0,0.0,0.0,0.02863843,0.029211352,0.15834011,-0.10905705,-0.049259894,0.3807895,-0.103628054,0.14143687,0.025673257,0.16976714,0.09937911,0.1491363,0.084275804,-0.033259057,-0.039696015,0.01929512,0.04614232,-0.008840762,0.0052923174,-0.032053046,0.014227987,0.04915912,-0.0108154835,0.006467844,0.07112894,2.0,0.2704487,-2.0,-2.0,2.0,-2.0,2.0,-0.39203867,-2.0,2.0,-0.15960434,-2.0,2.0,0.3288513,-2.0,-2.0,2.0,-2.0,2.0,-0.6546867,-2.0,2.0,-0.19587018,-2.0
2025-07-21 14:23:16.037,2.0600000000000014,2060,103,0.023103641,-0.036303166,0.0048035695,0.031920858,-0.101527,0.04913869,0.0,0.0,0.0,0.028659234,0.020523578,0.16381708,-0.10835007,-0.053712953,0.37276128,-0.11727633,0.13987257,0.028295312,0.18716867,0.116607934,0.16410741,0.096952766,-0.02394257,0.0630916,0.0034735713,-0.06486871,-0.017214937,0.0033445514,-0.0083160065,0.020820932,-0.013821936,0.015446601,-0.07909642,0.0457975,2.0,0.3288513,-2.0,-2.0,2.0,-2.0,2.0,-0.6546867,-2.0,2.0,-0.19587018,-2.0,2.0,0.49885604,-2.0,-2.0,2.0,-2.0,2.0,-0.45375618,-2.0,2.0,-0.06531273,-2.0
2025-07-21 14:23:16.057,2.0800000000000014,2080,104,-0.0456103,-0.0335562,0.023252005,0.019450456,-0.07721905,0.029094638,0.0,0.0,0.0,0.028668255,0.033081666,0.1566298,-0.101839356,-0.048582092,0.3856738,-0.10605851,0.13709284,0.013276997,0.18500152,0.100033395,0.1627895,0.08990047,-0.05409866,-0.027428087,0.030588672,-0.05145673,0.045371063,0.026401127,0.017960506,-0.066192776,-0.045486514,0.014042699,0.061728843,-0.04054118,2.0,0.49885604,-2.0,-2.0,2.0,-2.0,2.0,-0.45375618,-2.0,2.0,-0.06531273,-2.0,2.0,0.30979815,-2.0,-2.0,2.0,-2.0,2.0,-0.5441837,-2.0,2.0,-0.015925784,-2.0
2025-07-21 14:23:16.082,2.1000000000000014,2100,105,0.032632697,-0.016548766,-0.019831978,-0.04954878,-0.12149149,-0.046044018,0.0,0.0,0.0,0.028674016,0.03049665,0.17040484,-0.091680065,-0.05880757,0.38086554,-0.11036255,0.15038349,0.024957353,0.17318925,0.11303675,0.16614938,0.0848361,-0.011402619,0.026550712,0.019084154,-0.047444396,0.0015278474,-0.0067550284,0.03774093,0.038658943,0.07133021,0.039915293,-0.013394083,0.03968163,2.0,0.30979815,-2.0,-2.0,2.0,-2.0,2.0,-0.5441837,-2.0,2.0,-0.015925784,-2.0,2.0,0.27114972,-2.0,-2.0,2.0,-2.0,2.0,-0.32597372,-2.0,2.0,-0.18095852,-2.0
2025-07-21 14:23:16.099,2.1200000000000014,2120,106,0.0020517344,0.0036588095,0.04099175,-0.049063604,-0.09970016,-0.00023205696,0.0,0.0,0.0,0.028737828,0.022896089,0.16578303,-0.10833833,-0.054863323,0.38388774,-0.11024461,0.15389234,0.0108116865,0.18587033,0.10046735,0.15106219,0.08907067,-0.052024625,-0.04803637,0.07468666,-0.048158184,-0.06043544,0.029192785,-0.022734603,0.018417826,0.0012034771,-0.042680185,0.025116595,0.060274597,2.0,0.27114972,-2.0,-2.0,2.0,-2.0,2.0,-0.32597372,-2.0,2.0,-0.18095852,-2.0,2.0,0.3751687,-2.0,-2.0,2.0,-2.0,2.0,-0.83763963,-2.0,2.0,-0.16648899,-2.0
2025-07-21 14:23:16.119,2.1400000000000015,2140,107,-3.773819e-05,-0.035757445,-0.051759224,-0.06636103,-0.09343335,0.01648684,0.0,0.0,0.0,0.028756695,0.019224627,0.16746886,-0.10007912,-0.06704267,0.37248924,-0.109239124,0.14039843,0.010482992,0.18141802,0.11234892,0.15817928,0.099437915,0.031702876,0.04787492,-0.062471922,0.061124366,-0.07720109,0.035671003,0.022201372,0.008416519,-0.00083131355,0.071338035,0.0072986246,0.06004981,2.0,0.3751687,-2.0,-2.0,2.0,-2.0,2.0,-0.83763963,-2.0,2.0,-0.16648899,-2.0,2.0,0.34081757,-2.0,-2.0,2.0,-2.0,2.0,-0.30894312,-2.0,2.0,-0.18639034,-2.0
2025-07-21 14:23:16.140,2.1600000000000015,2160,108,-0.034485515,0.02727859,0.053761568,-0.00588128,-0.09685142,-0.040806737,0.0,0.0,0.0,0.02881385,0.02259627,0.15824556,-0.091535054,-0.062751785,0.36840928,-0.114749394,0.15133904,0.009617204,0.17644437,0.10680289,0.15502939,0.08530212,0.016775701,0.00290705,-0.065137036,0.07466973,0.0026492788,0.033759844,-0.028210286,-0.020545945,-0.032352556,0.035884287,-0.04996979,-0.02908466,2.0,0.34081757,-2.0,-2.0,2.0,-2.0,2.0,-0.30894312,-2.0,2.0,-0.18639034,-2.0,2.0,0.37355167,-2.0,-2.0,2.0,-2.0,2.0,-0.77007306,-2.0,2.0,-0.07903507,-2.0
2025-07-21 14:23:16.165,2.1800000000000015,2180,109,-0.040917844,0.030251833,0.014735564,0.020021915,-0.15386644,0.028966658,0.0,0.0,0.0,0.028828543,0.022282286,0.16981746,-0.10385841,-0.054592684,0.37895203,-0.10074859,0.15231702,0.014998677,0.18011037,0.10093829,0.14733186,0.08686579,-0.024892451,0.003136366,-0.023862505,-0.07077993,-0.038484126,-0.053531434,0.056783844,0.06297355,0.01758553,0.015408119,0.023669777,0.06554849,2.0,0.37355167,-2.0,-2.0,2.0,-2.0,2.0,-0.77007306,-2.0,2.0,-0.07903507,-2.0,2.0,0.41627845,-2.0,-2.0,2.0,-2.0,2.0,-0.6184115,-2.0,2.0,-0.14845753,-2.0
2025-07-21 14:23:16.182,2.2000000000000015,2200,110,-0.03847318,-0.037370365,0.038330343,-0.067213714,-0.09047559,0.01981868,0.0,0.0,0.0,0.02887322,0.019708764,0.16886874,-0.10971821,-0.05893423,0.37489992,-0.11797331,0.15052101,0.023264669,0.18471748,0.09906191,0.15450148,0.09583201,0.011689805,0.0027983184,0.059968155,0.00826537,0.057967074,-0.06633705,0.019516151,0.068996504,0.07894241,0.049863443,-0.0035265095,0.026728379,2.0,0.41627845,-2.0,-2.0,2.0,-2.0,2.0,-0.6184115,-2.0,2.0,-0.14845753,-2.0,2.0,0.34256384,-2.0,-2.0,2.0,-2.0,2.0,-0.62823534,-2.0,2.0,-0.14171547,-2.0
2025-07-21 14:23:16.202,2.2200000000000015,2220,111,0.00017332553,-0.057456028,-0.030245287,0.0075045032,-0.12306721,-0.03549024,0.0,0.0,0.0,0.029026259,0.01670499,0.15883392,-0.10317721,-0.06309329,0.38265082,-0.10291066,0.14525236,0.011252422,0.17994244,0.10266554,0.1444917,0.10174461,-0.026584119,0.039227083,-0.017956007,-0.056575082,-0.0517338,-0.007813177,-0.038803633,-0.028850446,0.0028419732,-0.0394255,-0.058328293,0.061986867,2.0,0.34256384,-2.0,-2.0,2.0,-2.0,2.0,-0.62823534,-2.0,2.0,-0.14171547,-2.0,2.0,0.4064628,-2.0,-2.0,2.0,-2.0,2.0,-0.27673805,-2.0,2.0,-0.112218514,-2.0
2025-07-21 14:23:16.222,2.2400000000000015,2240,112,0.025269998,0.011202358,0.014163653,-0.03368129,-0.062997036,-0.029882286,0.0,0.0,0.0,0.029186342,0.016966565,0.1628126,-0.11012939,-0.058074344,0.36883032,-0.116209656,0.14992133,0.009962833,0.17708796,0.10499805,0.16041443,0.09389158,0.05673913,-0.01344028,0.0039803344,-0.004922666,0.077649586,-0.040671714,0.058410164,0.042077534,-0.01391257,0.019677805,0.069736406,0.06817049,2.0,0.4064628,-2.0,-2.0,2.0,-2.0,2.0,-0.27673805,-2.0,2.0,-0.112218514,-2.0,2.0,0.24689756,-2.0,-2.0,2.0,-2.0,2.0,-0.5912923,-2.0,2.0,-0.16101503,-2.0
2025-07-21 14:23:16.248,2.2600000000000016,2260,113,0.035529044,0.0026413256,0.01778732,0.0073776627,-0.14405222,-0.026936984,0.0,0.0,0.0,0.02920628,0.016860854,0.1691422,-0.109477624,-0.06776251,0.37343973,-0.1172164,0.13818708,0.00877432,0.19260266,0.107989214,0.14940253,0.0852791,-0.06793052,0.018633248,0.055344477,0.07188737,0.009562001,0.008134677,-0.05723474,-0.036816992,-0.0470433,0.04089408,-0.049431857,0.048269864,2.0,0.24689756,-2.0,-2.0,2.0,-2.0,2.0,-0.5912923,-2.0,2.0,-0.16101503,-2.0,2.0,0.4201494,-2.0,-2.0,2.0,-2.0,2.0,-0.461558,-2.0,2.0,-0.10182908,-2.0
2025-07-21 14:23:16.266,2.2800000000000016,2280,114,-0.040015776,-0.024901003,0.03457049,-0.017582051,-0.12096484,0.026890742,0.0,0.0,0.0,0.029150732,0.023710253,0.17517166,-0.10898237,-0.06762731,0.37264928,-0.10096093,0.14721416,0.01151989,0.18693964,0.10876348,0.16596867,0.08958166,-0.020018242,-0.016660227,-0.02448572,-0.005992892,0.004913643,0.052973624,-0.019567888,0.06548559,-0.026309049,-0.0572782,-0.058382098,-0.05420933,2.0,0.4201494,-2.0,-2.0,2.0,-2.0,2.0,-0.461558,-2.0,2.0,-0.10182908,-2.0,2.0,0.48723605,-2.0,-2.0,2.0,-2.0,2.0,-0.5917015,-2.0,2.0,-0.0008516051,-2.0
2025-07-21 14:23:16.286,2.3000000000000016,2300,115,0.045831174,0.042664863,0.021615101,-0.020387843,-0.14773583,0.026837017,0.0,0.0,0.0,0.02909336,0.015376962,0.17028017,-0.09740719,-0.055334747,0.37291008,-0.116142556,0.13931993,0.014136919,0.17695688,0.11228511,0.1650604,0.10292524,-0.00039610724,-0.06652179,-0.06899673,-0.026400328,0.073121555,0.0063188733,-0.014524523,0.0665795,0.06881467,-0.051756848,0.045214552,-0.05674838,2.0,0.48723605,-2.0,-2.0,2.0,-2.0,2.0,-0.5917015,-2.0,2.0,-0.0008516051,-2.0,2.0,0.44058463,-2.0,-2.0,2.0,-2.0,2.0,-0.5267774,-2.0,2.0,-0.037406567,-2.0
2025-07-21 14:23:16.306,2.3200000000000016,2320,116,0.009285803,-0.04184584,-0.041085456,0.0046314173,-0.15672262,-0.02218865,0.0,0.0,0.0,0.029076084,0.019642653,0.1704522,-0.10910532,-0.055234328,0.37967962,-0.11590346,0.14218113,0.012626891,0.1856584,0.10185869,0.15732332,0.08299263,-0.06930502,-0.03745069,-0.03813988,0.06640765,-0.024145218,-0.041063663,0.026505591,-0.045477614,-0.075604595,0.03660793,-0.06847023,-0.0033435654,2.0,0.44058463,-2.0,-2.0,2.0,-2.0,2.0,-0.5267774,-2.0,2.0,-0.037406567,-2.0,2.0,0.38421664,-2.0,-2.0,2.0,-2.0,2.0,-0.103786916,-2.0,2.0,-0.103509486,-2.0
2025-07-21 14:23:16.332,2.3400000000000016,2340,117,0.03549652,-0.012738522,-0.020756846,0.02860787,-0.096718445,0.048560828,0.0,0.0,0.0,0.029130232,0.025084779,0.18037516,-0.107348755,-0.06594386,0.38319886,-0.11445919,0.14216688,0.033122275,0.1790698,0.10484989,0.16164811,0.093439125,-0.042498235,0.00250775,0.053313274,0.027305057,-0.06832582,0.0199721,-0.02811705,0.042137913,-0.004428657,0.019360285,-0.0075881793,0.04286295,2.0,0.38421664,-2.0,-2.0,2.0,-2.0,2.0,-0.103786916,-2.0,2.0,-0.103509486,-2.0,2.0,0.16073509,-2.0,-2.0,2.0,-2.0,2.0,-0.36059567,-2.0,2.0,-0.19420427,-2.0
2025-07-21 14:23:16.348,2.3600000000000017,2360,118,-0.017704524,-0.025218878,0.059647825,-0.023190368,-0.08302451,0.025410213,0.0,0.0,0.0,0.029000133,0.028551342,0.16561826,-0.09256306,-0.050538406,0.3813801,-0.09844199,0.14407851,0.03342606,0.1759803,0.10520648,0.16789013,0.08640541,-0.022008441,-0.030169927,0.050216224,-0.029519904,-0.06518665,0.070714794,0.06703624,0.013298595,0.04626771,-0.036843207,0.073178485,-0.009223032,2.0,0.16073509,-2.0,-2.0,2.0,-2.0,2.0,-0.36059567,-2.0,2.0,-0.19420427,-2.0,2.0,0.40675974,-2.0,-2.0,2.0,-2.0,2.0,-1.1011496,-2.0,2.0,-0.17016047,-2.0
2025-07-21 14:23:16.366,2.3800000000000017,2380,119,0.049828984,-0.035133142,-0.00056849094,-0.013753468,-0.082186416,0.030905813,0.0,0.0,0.0,0.028701546,0.02797404,0.16455346,-0.09609932,-0.06572929,0.37982294,-0.098861724,0.14949165,0.020512722,0.18015122,0.10585459,0.1669474,0.09619804,0.041270927,-0.059729394,0.030967467,-0.022016568,-0.06788824,-0.062025413,0.039196618,-0.07058179,0.037592497,-0.044627618,-0.06361641,0.04612441,2.0,0.40675974,-2.0,-2.0,2.0,-2.0,2.0,-1.1011496,-2.0,2.0,-0.17016047,-2.0,2.0,0.72985786,-2.0,-2.0,2.0,-2.0,2.0,-0.39791346,-2.0,2.0,0.066217065,-2.0
2025-07-21 14:23:16.386,2.4000000000000017,2400,120,-0.019984268,0.041209754,-0.0073034237,0.009728978,-0.10402959,0.01943212,0.0,0.0,0.0,0.02866729,0.02236826,0.16685584,-0.108930506,-0.06709617,0.37555188,-0.107302405,0.14383306,0.015849339,0.18121237,0.10800743,0.16225429,0.09029403,-0.017836468,-0.0029513435,0.043098126,0.06593028,-0.030481678,0.068358034,-0.035823975,-0.0674534,-0.05295625,-0.062587656,-0.067651205,0.04753199,2.0,0.72985786,-2.0,-2.0,2.0,-2.0,2.0,-0.39791346,-2.0,2.0,0.066217065,-2.0,2.0,0.14827175,-2.0,-2.0,2.0,-2.0,2.0,-0.1268902,-2.0,2.0,0.08807194,-2.0
2025-07-21 14:23:16.406,2.4200000000000017,2420,121,-0.016495084,0.034411237,-0.00015599326,-0.033276286,-0.0998746,0.013645918,0.0,0.0,0.0,0.028786408,0.016520485,0.17833367,-0.106958486,-0.059123695,0.38976276,-0.111007705,0.15199406,0.039069306,0.18006395,0.11048121,0.16499996,0.085684784,0.01825398,0.057675093,-0.037152965,0.066297896,-0.031241301,-0.014042943,0.042293098,-0.027478583,0.047563586,0.06830246,-0.020890266,-0.026617903,2.0,0.14827175,-2.0,-2.0,2.0,-2.0,2.0,-0.1268902,-2.0,2.0,0.08807194,-2.0,2.0,0.10818036,-2.0,-2.0,2.0,-2.0,2.0,-0.5319151,-2.0,2.0,-0.22213934,-2.0
2025-07-21 14:23:16.431,2.4400000000000017,2440,122,-0.037720583,-0.0053898245,0.023383327,-0.04160276,-0.13018064,0.039606858,0.0,0.0,0.0,0.028835831,0.030050946,0.17765065,-0.09112484,-0.06670459,0.39258876,-0.10035478,0.13813184,0.035134684,0.18715304,0.11243758,0.16986662,0.09021427,-0.012722915,-0.0683282,-0.029690824,0.06913821,0.05423168,-0.010239124,-0.066699535,-0.06573763,-0.020398717,0.0008284516,-0.056707095,-0.026847258,2.0,0.10818036,-2.0,-2.0,2.0,-2.0,2.0,-0.5319151,-2.0,2.0,-0.22213934,-2.0,2.0,0.6614903,-2.0,-2.0,2.0,-2.0,2.0,-0.6386694,-2.0,2.0,-0.05039132,-2.0
2025-07-21 14:23:16.448,2.4600000000000017,2460,123,0.02631392,0.0010674992,0.022882909,-0.009489649,-0.11390089,0.030273702,0.0,0.0,0.0,0.028886864,0.033334117,0.17739351,-0.09361957,-0.065431155,0.39280963,-0.11342034,0.14850973,0.040196706,0.1759231,0.109636106,0.16917929,0.093312375,-0.039869767,-0.057588313,0.00061476,-0.0035462244,0.037455544,-0.050317295,-0.06480886,0.00047510685,0.047366887,-0.01152036,-0.051002875,-0.03147976,2.0,0.6614903,-2.0,-2.0,2.0,-2.0,2.0,-0.6386694,-2.0,2.0,-0.05039132,-2.0,2.0,0.38159078,-2.0,-2.0,2.0,-2.0,2.0,-0.27997717,-2.0,2.0,0.07634023,-2.0
2025-07-21 14:23:16.467,2.4800000000000018,2480,124,-0.023599137,0.06360508,0.016268449,-0.05198859,-0.093247734,0.032045834,0.0,0.0,0.0,0.028960494,0.016701324,0.16974375,-0.10427582,-0.06818101,0.38862717,-0.10152063,0.13921742,0.03862275,0.17362966,0.11222995,0.16694184,0.08797159,0.018620461,-0.036619585,-0.0076084337,0.00012285296,0.066303745,-0.044725303,0.06782646,0.029105723,-0.06401533,-0.07278582,-0.050677843,-0.070155546,2.0,0.38159078,-2.0,-2.0,2.0,-2.0,2.0,-0.27997717,-2.0,2.0,0.07634023,-2.0,2.0,0.43103966,-2.0,-2.0,2.0,-2.0,2.0,-0.4582012,-2.0,2.0,-0.031368453,-2.0
2025-07-21 14:23:16.487,2.5000000000000018,2500,125,0.026447771,-0.0072368262,-0.033853095,-0.022799168,-0.15912654,-0.0034821243,0.0,0.0,0.0,0.029026859,0.0217076,0.1708052,-0.098501004,-0.050052762,0.39890376,-0.098975055,0.14225693,0.044043627,0.17330272,0.11264698,0.17697419,0.08567455,-0.053961392,-0.014574526,-0.054505754,-0.008329818,0.015463782,-0.0037937055,-0.024370238,0.048012648,0.05754837,0.012141861,-0.01836855,0.009158668,2.0,0.43103966,-2.0,-2.0,2.0,-2.0,2.0,-0.4582012,-2.0,2.0,-0.031368453,-2.0,2.0,0.26123193,-2.0,-2.0,2.0,-2.0,2.0,-0.21996675,-2.0,2.0,-0.12948793,-2.0
2025-07-21 14:23:16.507,2.520000000000002,2520,126,0.048066944,-0.028006105,-0.015396855,-0.010715504,-0.1568679,-0.028308189,0.0,0.0,0.0,0.02907769,0.019649023,0.18493564,-0.10790309,-0.06324639,0.38828585,-0.10431937,0.14463297,0.043197136,0.18345942,0.11471461,0.17176488,0.105406314,-0.028480437,0.0036281922,0.019631952,0.03141717,-0.048876937,0.06945612,-0.043459907,0.060026478,-0.008040298,-0.051604774,-0.05608503,-0.016808279,2.0,0.26123193,-2.0,-2.0,2.0,-2.0,2.0,-0.21996675,-2.0,2.0,-0.12948793,-2.0,2.0,0.36679754,-2.0,-2.0,2.0,-2.0,2.0,-0.39022756,-2.0,2.0,-0.1360361,-2.0
2025-07-21 14:23:16.532,2.540000000000002,2540,127,-0.028280389,0.02016168,0.009828935,0.01547961,-0.10243442,0.046967927,0.0,0.0,0.0,0.029011983,0.031899765,0.18605563,-0.09773366,-0.06409662,0.39575177,-0.10611967,0.14613988,0.041176897,0.17545551,0.110606715,0.1674491,0.092267215,-0.0021282195,0.07242203,-0.01843931,-0.008208142,0.015714442,-0.068670765,-0.034247335,-0.033655472,-0.06518968,0.017242737,0.011682531,0.042636327,2.0,0.36679754,-2.0,-2.0,2.0,-2.0,2.0,-0.39022756,-2.0,2.0,-0.1360361,-2.0,2.0,0.23524381,-2.0,-2.0,2.0,-2.0,2.0,-0.45937338,-2.0,2.0,-0.07544696,-2.0
2025-07-21 14:23:16.549,2.560000000000002,2560,128,0.03017419,0.01252345,0.020777883,-0.024043052,-0.13827409,-0.044913534,0.0,0.0,0.0,0.028819071,0.026911056,0.17069884,-0.10457775,-0.054728277,0.3995018,-0.10217443,0.15289687,0.037411094,0.18484075,0.115469985,0.17812279,0.0983671,0.033704724,0.021801848,0.05938187,0.034377035,0.05084417,-0.006121267,-0.06752271,-0.05198232,-0.025719503,-0.07111087,0.06988294,0.006016893,2.0,0.23524381,-2.0,-2.0,2.0,-2.0,2.0,-0.45937338,-2.0,2.0,-0.07544696,-2.0,2.0,0.3418831,-2.0,-2.0,2.0,-2.0,2.0,-0.5590693,-2.0,2.0,-0.041551534,-2.0
2025-07-21 14:23:16.567,2.580000000000002,2580,129,-0.039059844,0.012071724,-0.031355433,-0.022742985,-0.09045478,-0.041497324,0.0,0.0,0.0,0.028673358,0.03106881,0.18718626,-0.10193582,-0.0543953,0.40323588,-0.105255954,0.13918339,0.046798114,0.17757648,0.0998472,0.16930164,0.09993505,-0.023405146,0.06094135,-0.050308935,0.045905493,-0.012822486,0.058390882,0.0059715942,-0.0585408,0.052293114,0.047535267,-0.036966477,-0.0066963327,2.0,0.3418831,-2.0,-2.0,2.0,-2.0,2.0,-0.5590693,-2.0,2.0,-0.041551534,-2.0,2.0,0.20103641,-2.0,-2.0,2.0,-2.0,2.0,-0.18893157,-2.0,2.0,-0.12893638,-2.0
2025-07-21 14:23:16.587,2.600000000000002,2600,130,-0.03120977,0.0102899475,0.019653518,0.0116101,-0.08030765,-0.04690874,0.0,0.0,0.0,0.028677637,0.026427101,0.17886251,-0.10458564,-0.054121748,0.39766812,-0.11541515,0.14741531,0.042553592,0.17924437,0.10470004,0.18020298,0.10107702,-0.05428815,-0.06375719,-0.014031304,0.03108155,-0.00080124737,0.02186465,0.052641418,0.04981228,-0.014218521,0.048634864,0.020978421,-0.045128856,2.0,0.20103641,-2.0,-2.0,2.0,-2.0,2.0,-0.18893157,-2.0,2.0,-0.12893638,-2.0,2.0,0.39874873,-2.0,-2.0,2.0,-2.0,2.0,-0.66775334,-2.0,2.0,-0.17458932,-2.0
2025-07-21 14:23:16.607,2.620000000000002,2620,131,0.012236419,-0.019866709,-0.0186763,-0.055690117,-0.07332794,0.031025425,0.0,0.0,0.0,0.028647726,0.022973487,0.17331737,-0.099998176,-0.058007613,0.3976983,-0.10551933,0.15147234,0.04752973,0.19622876,0.097773366,0.17215803,0.09782331,0.06855423,0.046916686,0.004768549,-0.06816584,0.07138973,0.049400512,0.06329563,0.039167665,-0.0036266025,0.057091903,-0.05016149,0.07637742,2.0,0.39874873,-2.0,-2.0,2.0,-2.0,2.0,-0.66775334,-2.0,2.0,-0.17458932,-2.0,2.0,0.3973784,-2.0,-2.0,2.0,-2.0,2.0,-0.34558368,-2.0,2.0,-0.109809056,-2.0
2025-07-21 14:23:16.631,2.640000000000002,2640,132,0.028123392,-0.011885654,-0.00991847,-0.044742458,-0.10292173,0.033921625,0.0,0.0,0.0,0.028598133,0.016903834,0.17395988,-0.09317825,-0.049224712,0.39110374,-0.11065535,0.13440134,0.036935262,0.17821158,0.09875376,0.16827002,0.098841324,-0.0051253806,0.028904224,-0.04445568,-0.0141295055,-0.0043588327,0.019224383,-0.054276146,0.06515429,-0.034099855,0.039200567,-0.023246612,0.071001664,2.0,0.3973784,-2.0,-2.0,2.0,-2.0,2.0,-0.34558368,-2.0,2.0,-0.109809056,-2.0,2.0,0.22292008,-2.0,-2.0,2.0,-2.0,2.0,-0.38005045,-2.0,2.0,-0.18313503,-2.0
2025-07-21 14:23:16.648,2.660000000000002,2660,133,-0.039436307,-0.002788146,-0.0014677808,0.008804457,-0.06695191,-0.025387827,0.0,0.0,0.0,0.028544653,0.015807183,0.17537823,-0.104760684,-0.056674417,0.39222592,-0.10604674,0.15034592,0.0445917,0.18121341,0.10242688,0.16122787,0.10152097,0.009625862,-0.025849415,0.074197695,0.013010691,0.012068973,0.033518832,-0.030631872,-0.06569695,0.009012983,0.064898446,0.0059848386,0.064563066,2.0,0.22292008,-2.0,-2.0,2.0,-2.0,2.0,-0.38005045,-2.0,2.0,-0.18313503,-2.0,2.0,0.33767366,-2.0,-2.0,2.0,-2.0,2.0,-0.5036798,-2.0,2.0,-0.16845009,-2.0
2025-07-21 14:23:16.667,2.680000000000002,2680,134,-0.0073197717,0.03253734,0.04209397,-0.045852877,-0.0998861,0.0037840179,0.0,0.0,0.0,0.028425597,0.031361096,0.1815442,-0.09247685,-0.051566795,0.39459208,-0.11271369,0.14920251,0.043020695,0.19080923,0.09896648,0.17493802,0.1132713,-0.027393615,-0.062866345,-0.049422063,0.00013898162,-0.010899227,-0.07053528,-0.03777295,0.020899065,-0.059479266,-0.04889454,0.07042082,0.053876236,2.0,0.33767366,-2.0,-2.0,2.0,-2.0,2.0,-0.5036798,-2.0,2.0,-0.16845009,-2.0,2.0,0.44356558,-2.0,-2.0,2.0,-2.0,2.0,-0.7574923,-2.0,2.0,-0.098863095,-2.0
2025-07-21 14:23:16.688,2.700000000000002,2700,135,-0.034570083,0.020768275,-0.0016167889,0.033925444,-0.07448983,0.016844971,0.0,0.0,0.0,0.028316056,0.030358354,0.17293122,-0.11196762,-0.06253968,0.40175575,-0.11616726,0.14168432,0.039151914,0.19908208,0.105809204,0.16878694,0.11811309,-0.010997375,-0.029758304,0.056418724,0.028725224,0.052087046,-0.005508464,0.05905754,-0.028019652,0.02183615,0.022725321,-0.07631259,0.014542479,2.0,0.44356558,-2.0,-2.0,2.0,-2.0,2.0,-0.7574923,-2.0,2.0,-0.098863095,-2.0,2.0,0.52763534,-2.0,-2.0,2.0,-2.0,2.0,-0.25133342,-2.0,2.0,0.01683585,-2.0
2025-07-21 14:23:16.709,2.720000000000002,2720,136,0.04791337,0.023303373,-0.013030324,-0.021868762,-0.14706223,-0.0009271905,0.0,0.0,0.0,0.02837213,0.025324013,0.17343955,-0.096357666,-0.053412266,0.39125267,-0.114142835,0.14576581,0.03419235,0.1960696,0.09610981,0.16023228,0.10561078,0.05104762,0.08002192,-0.007944943,0.008380508,0.022426063,0.073484726,0.07517926,0.01275702,0.045026444,-0.0121079795,0.014005163,-0.0580537,2.0,0.52763534,-2.0,-2.0,2.0,-2.0,2.0,-0.25133342,-2.0,2.0,0.01683585,-2.0,2.0,0.08088969,-2.0,-2.0,2.0,-2.0,2.0,-0.33490357,-2.0,2.0,-0.06494443,-2.0
2025-07-21 14:23:16.731,2.740000000000002,2740,137,0.0017925153,-0.03558969,-0.019205566,0.010203295,-0.078799024,-0.035525456,0.0,0.0,0.0,0.028455531,0.034545332,0.18384513,-0.09368336,-0.06090869,0.3998441,-0.11423316,0.13893442,0.039195124,0.19488855,0.09711522,0.16871317,0.10654271,0.04357027,0.012473904,0.029476995,0.044891812,0.06611234,0.07162422,-0.0018646208,-0.027806085,-0.0029436464,-0.026427466,0.011104727,-0.068865396,2.0,0.08088969,-2.0,-2.0,2.0,-2.0,2.0,-0.33490357,-2.0,2.0,-0.06494443,-2.0,2.0,0.44368172,-2.0,-2.0,2.0,-2.0,2.0,-0.34671256,-2.0,2.0,-0.116670564,-2.0
2025-07-21 14:23:16.748,2.760000000000002,2760,138,-0.004571691,-0.02370498,0.0029913583,-0.0006537824,-0.14718226,0.045504153,0.0,0.0,0.0,0.028513713,0.030000795,0.18076351,-0.09575697,-0.055250034,0.40390214,-0.10851416,0.14908624,0.04665407,0.18828517,0.097949125,0.16505879,0.10114111,0.052047417,-0.016805323,-0.0035502585,-0.01810935,-0.036561795,-0.016424002,-0.035085943,0.029605547,-0.077767774,0.0011876627,-0.041679807,0.05645258,2.0,0.44368172,-2.0,-2.0,2.0,-2.0,2.0,-0.34671256,-2.0,2.0,-0.116670564,-2.0,2.0,0.35498878,-2.0,-2.0,2.0,-2.0,2.0,-0.42332327,-2.0,2.0,-0.07610121,-2.0
2025-07-21 14:23:16.768,2.780000000000002,2780,139,-0.015322768,0.02542746,-0.031115336,-0.026371052,-0.116471365,0.010080352,0.0,0.0,0.0,0.028518895,0.019032478,0.18921326,-0.109108716,-0.063967176,0.3999265,-0.11375138,0.14809847,0.05093109,0.19031256,0.10923504,0.17130786,0.11714337,0.046223365,-0.064461105,0.06288139,-0.04364932,0.06955753,-0.030927552,-0.030212352,-0.010843897,0.033896524,0.036964376,-0.03984569,0.05037906,2.0,0.35498878,-2.0,-2.0,2.0,-2.0,2.0,-0.42332327,-2.0,2.0,-0.07610121,-2.0,2.0,0.41632083,-2.0,-2.0,2.0,-2.0,2.0,-0.20865111,-2.0,2.0,-0.11846575,-2.0
2025-07-21 14:23:16.788,2.800000000000002,2800,140,-0.0101515595,0.006172292,-0.01230536,0.03783709,-0.14682645,0.007378146,0.0,0.0,0.0,0.028476996,0.0290241,0.1840588,-0.09779132,-0.0497519,0.409248,-0.11237805,0.1486487,0.04867427,0.18744116,0.09646188,0.18356226,0.116974086,0.0720567,-0.053304333,0.062614016,0.030268593,0.053677574,-0.048769303,-0.016244564,0.07627919,0.033204313,0.007939293,-0.06367392,0.026600111,2.0,0.41632083,-2.0,-2.0,2.0,-2.0,2.0,-0.20865111,-2.0,2.0,-0.11846575,-2.0,2.0,0.38396683,-2.0,-2.0,2.0,-2.0,2.0,-0.2631024,-2.0,2.0,-0.10704692,-2.0
2025-07-21 14:23:16.810,2.820000000000002,2820,141,0.036845285,0.058045298,-0.0026771047,-0.05399436,-0.0693023,-0.005602736,0.0,0.0,0.0,0.028334046,0.022893505,0.18768537,-0.10364348,-0.051385995,0.40630162,-0.10554542,0.1391326,0.049920633,0.1790488,0.10025029,0.17672566,0.11061258,0.029983943,-0.01105643,-0.06562921,0.026413444,0.024846546,0.032618694,0.012945774,-0.04152601,-0.017223341,-0.07153995,0.0034087524,-0.059855707,2.0,0.38396683,-2.0,-2.0,2.0,-2.0,2.0,-0.2631024,-2.0,2.0,-0.10704692,-2.0,2.0,0.335395,-2.0,-2.0,2.0,-2.0,2.0,-0.4393974,-2.0,2.0,-0.05206861,-2.0
2025-07-21 14:23:16.831,2.840000000000002,2840,142,-0.044506446,0.026964532,-0.02556568,-0.0257307,-0.103663184,-0.049182445,0.0,0.0,0.0,0.028060153,0.01904528,0.19606417,-0.10389255,-0.05426377,0.41190952,-0.10820075,0.14076318,0.04608385,0.18397328,0.11018183,0.17589316,0.118122116,0.056417886,0.041822087,-0.046968598,-0.0134057505,-0.052088134,-0.07354609,-0.069329314,0.018375926,0.07200454,0.0092143845,0.014232074,-0.0044164555,2.0,0.335395,-2.0,-2.0,2.0,-2.0,2.0,-0.4393974,-2.0,2.0,-0.05206861,-2.0,2.0,0.22976334,-2.0,-2.0,2.0,-2.0,2.0,-0.2927929,-2.0,2.0,-0.14875227,-2.0
2025-07-21 14:23:16.848,2.860000000000002,2860,143,0.0076864776,-0.015103672,0.014904754,0.013113905,-0.09760363,-0.015003836,0.0,0.0,0.0,0.027855257,0.029776437,0.18062983,-0.100740835,-0.061163798,0.3960256,-0.10987594,0.13181807,0.045874942,0.18485154,0.107022,0.18201347,0.110797584,-0.018315302,0.019030716,-0.070429295,-0.036669824,0.04732967,-0.07577005,-0.0064001726,0.046553522,-0.060395356,-0.00975562,0.029829126,0.021170016,2.0,0.22976334,-2.0,-2.0,2.0,-2.0,2.0,-0.2927929,-2.0,2.0,-0.14875227,-2.0,2.0,0.3749555,-2.0,-2.0,2.0,-2.0,2.0,-0.5529357,-2.0,2.0,-0.1152762,-2.0
2025-07-21 14:23:16.868,2.880000000000002,2880,144,-0.011472534,-0.029636038,0.014546392,-0.024559347,-0.096054465,-0.012957249,0.0,0.0,0.0,0.027717844,0.022568325,0.18357286,-0.09542638,-0.049420487,0.40277663,-0.097131036,0.13894789,0.057186358,0.18192853,0.110274255,0.18117617,0.10200556,0.034845635,0.044011086,0.042233005,-0.017580926,0.025096333,-0.07638809,-0.07006629,-0.015451045,0.0028891375,-0.021341836,-0.0044565205,-0.0054597063,2.0,0.3749555,-2.0,-2.0,2.0,-2.0,2.0,-0.5529357,-2.0,2.0,-0.1152762,-2.0,2.0,0.33361456,-2.0,-2.0,2.0,-2.0,2.0,-0.38972494,-2.0,2.0,-0.03171766,-2.0
2025-07-21 14:23:16.888,2.900000000000002,2900,145,-0.010102275,-0.03272776,0.031809833,0.020549126,-0.16081272,-0.01759878,0.0,0.0,0.0,0.027662441,0.028644718,0.17848049,-0.111646935,-0.06539241,0.39920005,-0.09914183,0.14616252,0.04539075,0.18085504,0.097037196,0.1626313,0.10672827,-0.028314402,-0.025348736,-0.07002023,0.03180131,0.06568588,-0.06256226,-0.009600825,0.014370769,0.06440361,0.073241904,-0.02086854,0.02320502,2.0,0.33361456,-2.0,-2.0,2.0,-2.0,2.0,-0.38972494,-2.0,2.0,-0.03171766,-2.0,2.0,0.26905444,-2.0,-2.0,2.0,-2.0,2.0,-0.5296323,-2.0,2.0,-0.11052899,-2.0
2025-07-21 14:23:16.910,2.920000000000002,2920,146,-0.030256232,-0.058195334,-0.05263487,-0.019088535,-0.073654205,0.019017536,0.0,0.0,0.0,0.027730338,0.027758459,0.1904366,-0.1098578,-0.053782497,0.39453942,-0.10364261,0.14659473,0.049631577,0.19238013,0.103319995,0.17246766,0.10665129,0.010971785,0.00881028,0.019197896,-0.025810806,-0.042060554,0.025817309,0.054697756,0.026838424,0.011615165,-0.045215018,0.012466473,-0.0048664664,2.0,0.26905444,-2.0,-2.0,2.0,-2.0,2.0,-0.5296323,-2.0,2.0,-0.11052899,-2.0,2.0,0.4178222,-2.0,-2.0,2.0,-2.0,2.0,-0.2742394,-2.0,2.0,-0.15992719,-2.0
2025-07-21 14:23:16.931,2.940000000000002,2940,147,-0.025413577,-0.021296816,-0.050667502,0.003758057,-0.09149733,0.007178752,0.0,0.0,0.0,0.02790967,0.033815395,0.1838628,-0.09923119,-0.05596405,0.3964108,-0.098219045,0.14581291,0.034717906,0.18324329,0.10070689,0.17795838,0.11439354,-0.012142505,0.007013619,0.056934487,0.06593587,-0.07472104,0.041910075,-0.028661493,-0.031407118,-0.018108122,0.024038354,0.046656486,-0.070393726,2.0,0.4178222,-2.0,-2.0,2.0,-2.0,2.0,-0.2742394,-2.0,2.0,-0.15992719,-2.0,2.0,0.23793532,-2.0,-2.0,2.0,-2.0,2.0,-0.2504987,-2.0,2.0,-0.14172897,-2.0
2025-07-21 14:23:16.948,2.960000000000002,2960,148,0.01350643,-0.013434071,7.8182995e-05,-0.04542761,-0.14220086,0.010591804,0.0,0.0,0.0,0.028017268,0.020445166,0.18306568,-0.09910861,-0.056914996,0.40241313,-0.116359554,0.13129285,0.0366288,0.19339028,0.10744784,0.17597872,0.12437906,-0.040901586,0.04477241,-0.03726998,-0.051295307,0.06422464,-0.042706788,-0.016246738,-0.020913236,0.010956717,0.07112528,-0.04084081,-0.032363307,2.0,0.23793532,-2.0,-2.0,2.0,-2.0,2.0,-0.2504987,-2.0,2.0,-0.14172897,-2.0,2.0,0.3041868,-2.0,-2.0,2.0,-2.0,2.0,-0.45762253,-2.0,2.0,-0.14934555,-2.0
2025-07-21 14:23:16.968,2.980000000000002,2980,149,0.03756081,-0.019953292,0.009093861,-0.01289247,-0.11964235,-0.018553497,0.0,0.0,0.0,0.027971333,0.023118315,0.18872683,-0.09683902,-0.057890933,0.40274617,-0.097685225,0.13426948,0.045871213,0.19386359,0.11274757,0.1721737,0.114485644,-0.07262223,-0.052112453,-0.042109847,0.013394618,-0.0511787,0.073529534,0.07283334,-0.026932046,-0.01994297,-0.024220139,-0.0026142707,0.06906944,2.0,0.3041868,-2.0,-2.0,2.0,-2.0,2.0,-0.45762253,-2.0,2.0,-0.14934555,-2.0,2.0,0.39675534,-2.0,-2.0,2.0,-2.0,2.0,-0.5951426,-2.0,2.0,-0.09657636,-2.0
2025-07-21 14:23:16.988,3.000000000000002,3000,150,-0.04627756,-0.030872308,-0.030453788,-0.015350533,-0.08827898,-0.015111346,0.0,0.0,0.0,0.027921846,0.03206839,0.17351916,-0.10561799,-0.055403687,0.40809545,-0.115527146,0.13950686,0.03374633,0.18161322,0.10591888,0.16580261,0.11733424,-0.055449508,-0.06762317,0.04399271,0.011419111,0.0018050614,-0.001739224,-0.0456491,-0.067677274,0.065990105,-0.048567243,0.0028908092,-0.045640655,2.0,0.39675534,-2.0,-2.0,2.0,-2.0,2.0,-0.5951426,-2.0,2.0,-0.09657636,-2.0,2.0,0.439855,-2.0,-2.0,2.0,-2.0,2.0,-0.20414157,-2.0,2.0,-0.049884144,-2.0
2025-07-21 14:23:17.014,3.0200000000000022,3020,151,0.017417131,0.0561323,0.037493113,0.03196285,-0.14724563,-0.045043536,0.0,0.0,0.0,0.027995149,0.020479761,0.18040977,-0.10349062,-0.05666688,0.40702236,-0.10335611,0.15014102,0.049847156,0.19361705,0.10666974,0.17685938,0.109170355,-0.017347695,-0.06677901,0.013143923,-0.06346321,-0.05435603,-0.012767047,0.050775424,0.06212175,0.026764506,0.059609633,-0.03525039,-0.051555187,2.0,0.439855,-2.0,-2.0,2.0,-2.0,2.0,-0.20414157,-2.0,2.0,-0.049884144,-2.0,2.0,0.34848443,-2.0,-2.0,2.0,-2.0,2.0,-0.6550178,-2.0,2.0,-0.08041367,-2.0
2025-07-21 14:23:17.031,3.0400000000000023,3040,152,-0.010161318,-0.016774222,0.026483553,-0.013349546,-0.09052643,0.041607574,0.0,0.0,0.0,0.028042365,0.03513228,0.18877916,-0.108568504,-0.052552853,0.3930808,-0.1127664,0.14463691,0.051958874,0.18918648,0.1019755,0.18073642,0.12194723,0.031055965,-0.026124077,0.032256566,0.029831568,0.046432287,0.035106506,0.0077985837,-0.027407575,0.0024507644,0.03198661,0.021059737,0.07247048,2.0,0.34848443,-2.0,-2.0,2.0,-2.0,2.0,-0.6550178,-2.0,2.0,-0.08041367,-2.0,2.0,0.39753643,-2.0,-2.0,2.0,-2.0,2.0,-0.5364606,-2.0,2.0,-0.055781323,-2.0
2025-07-21 14:23:17.049,3.0600000000000023,3060,153,0.03363071,-0.052433293,-0.05966363,-0.02429805,-0.122182615,0.010923016,0.0,0.0,0.0,0.028151682,0.015319418,0.17816035,-0.10666603,-0.06367304,0.3985103,-0.11322225,0.136838,0.042881787,0.1875714,0.09995209,0.16755244,0.11687435,0.057268888,0.0281401,-0.0039517703,-0.035181824,-0.03100094,0.0027246946,0.07581714,-0.023298634,0.02106739,0.03621702,0.010519075,0.07114221,2.0,0.39753643,-2.0,-2.0,2.0,-2.0,2.0,-0.5364606,-2.0,2.0,-0.055781323,-2.0,2.0,0.25415778,-2.0,-2.0,2.0,-2.0,2.0,-0.18427598,-2.0,2.0,-0.16388483,-2.0
2025-07-21 14:23:17.068,3.0800000000000023,3080,154,0.011914468,-0.03822299,-0.04383696,-0.046594214,-0.11542868,-0.038356517,0.0,0.0,0.0,0.028414221,0.027757587,0.17597657,-0.09821009,-0.06270432,0.40643913,-0.11298241,0.1319181,0.04058217,0.18860468,0.09581394,0.17455888,0.115521565,-0.056531843,8.883237e-05,-0.047318146,0.033083614,0.04449205,-0.03584296,-0.056206368,-0.050501898,-0.05432507,-0.038146965,-0.022862237,0.036585648,2.0,0.25415778,-2.0,-2.0,2.0,-2.0,2.0,-0.18427598,-2.0,2.0,-0.16388483,-2.0,2.0,0.28112984,-2.0,-2.0,2.0,-2.0,2.0,-0.22010906,-2.0,2.0,-0.18969189,-2.0
2025-07-21 14:23:17.089,3.1000000000000023,3100,155,0.041825317,0.0013469711,0.0009291065,-0.009804841,-0.09974329,-0.037712686,0.0,0.0,0.0,0.028550657,0.022739552,0.1827931,-0.10473041,-0.0553345,0.3914799,-0.101140216,0.13998504,0.04386157,0.1874379,0.09630798,0.18066294,0.112146564,-0.05039111,0.050702676,0.035553247,-0.05527079,-0.01752561,0.0572287,-0.052834373,-0.049563844,0.0026853352,0.028950756,-0.03083108,-0.0062072524,2.0,0.28112984,-2.0,-2.0,2.0,-2.0,2.0,-0.22010906,-2.0,2.0,-0.18969189,-2.0,2.0,0.2546904,-2.0,-2.0,2.0,-2.0,2.0,-0.46116138,-2.0,2.0,-0.14276524,-2.0
2025-07-21 14:23:17.114,3.1200000000000023,3120,156,-0.020402126,0.01015358,0.05540283,-0.03338388,-0.07591372,0.008879918,0.0,0.0,0.0,0.028441202,0.017373186,0.17639495,-0.10027722,-0.054497924,0.4094187,-0.1132281,0.13198583,0.052791353,0.19048591,0.10330054,0.16869384,0.11623259,-0.054003924,-0.01935589,0.025884908,0.012272342,-0.05753038,0.045168947,-0.032840703,-0.06283643,-0.022882858,0.024341272,0.009047883,-0.0511602,2.0,0.2546904,-2.0,-2.0,2.0,-2.0,2.0,-0.46116138,-2.0,2.0,-0.14276524,-2.0,2.0,0.4084426,-2.0,-2.0,2.0,-2.0,2.0,-0.80955696,-2.0,2.0,-0.08049685,-2.0
2025-07-21 14:23:17.131,3.1400000000000023,3140,157,0.04130042,-0.073337026,-0.03306402,-0.03770164,-0.15413767,-0.02990271,0.0,0.0,0.0,0.028292986,0.024650438,0.19012353,-0.11279455,-0.049744252,0.3928465,-0.11114841,0.14654917,0.035035472,0.19165148,0.099058285,0.16055411,0.11259523,-0.054484412,-0.0042376644,0.025642782,-0.058114413,-0.019795213,-0.05797493,0.036042627,0.024307331,0.024496434,-0.072861545,-0.0020281787,0.052469097,2.0,0.4084426,-2.0,-2.0,2.0,-2.0,2.0,-0.80955696,-2.0,2.0,-0.08049685,-2.0,2.0,0.42078513,-2.0,-2.0,2.0,-2.0,2.0,-0.18870454,-2.0,2.0,-0.084885255,-2.0
2025-07-21 14:23:17.149,3.1600000000000024,3160,158,-0.04841626,0.033683684,-0.04600532,-0.040583692,-0.13942693,0.0374956,0.0,0.0,0.0,0.02838248,0.034233034,0.18321966,-0.10020435,-0.05924918,0.39709532,-0.09870615,0.14913605,0.030229442,0.19218113,0.10616655,0.16061072,0.12262653,0.046286106,-0.01801057,0.053956956,0.07591928,0.07298351,0.03138281,0.044266853,0.018392397,0.037429105,-0.07216657,0.027250681,-0.061738223,2.0,0.42078513,-2.0,-2.0,2.0,-2.0,2.0,-0.18870454,-2.0,2.0,-0.084885255,-2.0,2.0,0.27650762,-2.0,-2.0,2.0,-2.0,2.0,-0.26854354,-2.0,2.0,-0.13388483,-2.0
2025-07-21 14:23:17.169,3.1800000000000024,3180,159,-0.03492885,-0.031118184,0.027031174,-0.05450042,-0.147438,0.020295504,0.0,0.0,0.0,0.028474003,0.019042559,0.17583206,-0.09815599,-0.06645387,0.40743798,-0.097240336,0.14518242,0.039004564,0.18544056,0.10112976,0.17959179,0.105344124,-0.02520255,0.03955497,0.014962775,-0.0055848532,0.036670256,0.06269818,0.054660983,0.05553911,-0.016799081,-0.07406236,0.00781606,0.06215109,2.0,0.27650762,-2.0,-2.0,2.0,-2.0,2.0,-0.26854354,-2.0,2.0,-0.13388483,-2.0,2.0,0.2585528,-2.0,-2.0,2.0,-2.0,2.0,-0.71660095,-2.0,2.0,-0.114718944,-2.0
2025-07-21 14:23:17.189,3.2000000000000024,3200,160,0.047468964,0.01484958,-0.014627991,-0.016726518,-0.10741854,-0.017013792,0.0,0.0,0.0,0.028384097,0.029316459,0.1875945,-0.10639072,-0.061365914,0.39067093,-0.10259202,0.14046831,0.049598,0.17889814,0.09981649,0.17448309,0.11024481,-0.03417584,-0.05139486,0.05278222,-0.02219226,0.032093156,-0.052141204,-0.006195872,-0.07829539,0.04618937,-0.04569086,0.033605255,-0.0031504568,2.0,0.2585528,-2.0,-2.0,2.0,-2.0,2.0,-0.71660095,-2.0,2.0,-0.114718944,-2.0,2.0,0.5059774,-2.0,-2.0,2.0,-2.0,2.0,-0.33183846,-2.0,2.0,-0.05851457,-2.0
2025-07-21 14:23:17.214,3.2200000000000024,3220,161,0.010701823,0.019759152,-0.021025537,-0.05931121,-0.10746496,0.031611193,0.0,0.0,0.0,0.028420685,0.023716392,0.17494248,-0.11066214,-0.057134844,0.40368468,-0.098974876,0.13712043,0.034915872,0.18028261,0.097351916,0.1786418,0.12036342,-0.071633235,-0.012989167,0.010102465,-0.006894506,-5.2392075e-05,0.031001268,0.016401004,-0.052241966,-0.03294756,-0.016411332,-0.014346879,-0.029858792,2.0,0.5059774,-2.0,-2.0,2.0,-2.0,2.0,-0.33183846,-2.0,2.0,-0.05851457,-2.0,2.0,0.25482962,-2.0,-2.0,2.0,-2.0,2.0,-0.29201105,-2.0,2.0,-0.06502861,-2.0
2025-07-21 14:23:17.231,3.2400000000000024,3240,162,-0.030429637,0.061623003,0.00018948827,-0.051770877,-0.13508345,0.018174648,0.0,0.0,0.0,0.028509935,0.03012449,0.17263193,-0.0990285,-0.058048055,0.3976301,-0.111248314,0.13935332,0.045445565,0.18803687,0.097671315,0.17191897,0.11029121,-0.0399288,0.06307321,-0.034089696,0.05729198,0.0341587,0.031940624,-0.05984436,0.06300801,-0.07670083,0.073522225,-0.0041768188,0.007020399,2.0,0.25482962,-2.0,-2.0,2.0,-2.0,2.0,-0.29201105,-2.0,2.0,-0.06502861,-2.0,2.0,0.19562744,-2.0,-2.0,2.0,-2.0,2.0,-0.46075535,-2.0,2.0,-0.22098546,-2.0
2025-07-21 14:23:17.249,3.2600000000000025,3260,163,0.011994305,0.004223962,0.02350086,-0.037814677,-0.08788898,0.017425004,0.0,0.0,0.0,0.028511114,0.018792346,0.17072448,-0.10665442,-0.057559405,0.39983153,-0.09899458,0.13583103,0.042560846,0.17871813,0.1068093,0.16670898,0.11287579,0.04734465,-0.024968185,-0.028295659,-0.009080394,-0.03713388,0.017581174,-0.07136487,-0.039562974,0.06823549,-0.04180171,0.06335397,-0.014469197,2.0,0.19562744,-2.0,-2.0,2.0,-2.0,2.0,-0.46075535,-2.0,2.0,-0.22098546,-2.0,2.0,0.44631353,-2.0,-2.0,2.0,-2.0,2.0,-0.8103811,-2.0,2.0,-0.12458637,-2.0
2025-07-21 14:23:17.269,3.2800000000000025,3280,164,0.0031750354,-0.003507231,-0.01198321,-0.057982914,-0.15781353,0.0030312315,0.0,0.0,0.0,0.028493056,0.029754395,0.1719596,-0.11077671,-0.064530075,0.38889286,-0.09944414,0.14994006,0.035271,0.19370134,0.10824609,0.16933334,0.11078488,-0.030853413,0.054253764,0.025133241,-0.033590008,-0.04353645,-0.06988974,0.026242945,0.029733904,0.06219399,0.0011528478,-0.020847851,0.051919796,2.0,0.44631353,-2.0,-2.0,2.0,-2.0,2.0,-0.8103811,-2.0,2.0,-0.12458637,-2.0,2.0,0.32565933,-2.0,-2.0,2.0,-2.0,2.0,-0.38104478,-2.0,2.0,-0.1234885,-2.0
2025-07-21 14:23:17.289,3.3000000000000025,3300,165,0.013939568,-0.014927109,-0.02750045,0.024057714,-0.12991016,0.01968951,0.0,0.0,0.0,0.02861132,0.015338673,0.18489112,-0.1142947,-0.0627026,0.39940897,-0.1094264,0.13688447,0.028135192,0.18520275,0.10857833,0.16212383,0.1032121,0.009829924,0.024799656,-0.00021373131,0.037416447,0.05986519,-0.048172098,-0.058492642,-0.018829511,0.046947613,0.06491241,-0.058304027,-0.015838599,2.0,0.32565933,-2.0,-2.0,2.0,-2.0,2.0,-0.38104478,-2.0,2.0,-0.1234885,-2.0,2.0,0.32127947,-2.0,-2.0,2.0,-2.0,2.0,-0.19507651,-2.0,2.0,-0.11168186,-2.0
2025-07-21 14:23:17.314,3.3200000000000025,3320,166,-0.04839618,-0.01067525,0.041002832,-0.03113886,-0.08380874,-0.010754299,0.0,0.0,0.0,0.028775085,0.015574169,0.17806867,-0.113395296,-0.061737232,0.38643932,-0.10076232,0.14218585,0.03024308,0.18242115,0.106563285,0.16095842,0.11076885,-0.06640821,0.016978385,-0.03408787,-0.036402762,0.010747546,0.07704089,0.026848128,-0.036728587,0.04177134,-0.045577135,0.05570529,-0.013761433,2.0,0.32127947,-2.0,-2.0,2.0,-2.0,2.0,-0.19507651,-2.0,2.0,-0.11168186,-2.0,2.0,0.16343041,-2.0,-2.0,2.0,-2.0,2.0,-0.82100344,-2.0,2.0,-0.10517433,-2.0
2025-07-21 14:23:17.331,3.3400000000000025,3340,167,0.006547813,0.0066862763,0.028837485,-0.0020729837,-0.07199729,-0.009469207,0.0,0.0,0.0,0.028755318,0.0319887,0.17022109,-0.102201544,-0.0686943,0.39460713,-0.09957552,0.14171052,0.02558384,0.19904846,0.105932504,0.17026506,0.12040327,0.049491733,-0.035106678,-0.022085078,-0.028740903,0.037110064,0.015010623,0.02439094,-0.0019912692,-0.015407625,-0.0111348,0.0644984,0.037971478,2.0,0.16343041,-2.0,-2.0,2.0,-2.0,2.0,-0.82100344,-2.0,2.0,-0.10517433,-2.0,2.0,0.6251929,-2.0,-2.0,2.0,-2.0,2.0,-0.69190747,-2.0,2.0,-0.039631773,-2.0
