openverse-orca/OrcaGym/log/simulation_log_20250606_085445.csv
timestamp,imu_angle_roll,imu_angle_pitch,imu_angle_yaw,imu_angular_velocity_roll,imu_angular_velocity_pitch,imu_angular_velocity_yaw,imu_acc_x,imu_acc_y,imu_acc_z,fl_joint1_pos,fl_joint1_vel,fl_joint1_torque,fl_joint2_pos,fl_joint2_vel,fl_joint2_torque,fl_joint3_pos,fl_joint3_vel,fl_joint3_torque,fr_joint1_pos,fr_joint1_vel,fr_joint1_torque,fr_joint2_pos,fr_joint2_vel,fr_joint2_torque,fr_joint3_pos,fr_joint3_vel,fr_joint3_torque,hl_joint1_pos,hl_joint1_vel,hl_joint1_torque,hl_joint2_pos,hl_joint2_vel,hl_joint2_torque,hl_joint3_pos,hl_joint3_vel,hl_joint3_torque,hr_joint1_pos,hr_joint1_vel,hr_joint1_torque,hr_joint2_pos,hr_joint2_vel,hr_joint2_torque,hr_joint3_pos,hr_joint3_vel,hr_joint3_torque,fl_force_x,fl_force_y,fl_force_z,fr_force_x,fr_force_y,fr_force_z,hl_force_x,hl_force_y,hl_force_z,hr_force_x,hr_force_y,hr_force_z,fl_hip_action,fl_thigh_action,fl_calf_action,fr_hip_action,fr_thigh_action,fr_calf_action,hl_hip_action,hl_thigh_action,hl_calf_action,hr_hip_action,hr_thigh_action,hr_calf_action
2025-06-06 08:54:45.252,-0.017681822,0.020384386,0.049886845,-0.017702892,0.016910072,0.01748817,2.326408,-0.52932036,0.0,0.0,0.0056810565,0.0042941477,0.0061710062,0.0012964793,-0.0013304284,-0.004697492,-0.00010512379,-0.0036788844,-0.005228269,0.009589953,0.009389755,0.009101623,0.066254966,-0.019532725,-0.039415188,0.06220268,0.0636055,0.0050401995,0.03418401,0.0006315813,0.069730625,-0.018344434,0.010423316,0.016218219,0.0,0.0,0.0,0.0,0.0,0.0,0.0,0.0,0.0,0.0,0.0,0.0,3.0,1.1784621,-3.0,-3.0,-3.0,-3.0,-3.0,-0.82745504,-3.0,3.0,-1.8648622,-3.0
2025-06-06 08:54:45.257,-0.15974383,0.43742928,0.15402576,-0.041988526,0.061970975,0.022006007,0.0,0.0,0.0,0.0,0.035379753,0.077778,-0.13663264,-0.049989074,-0.16879112,-0.116837695,-0.0399715,-0.0440321,-0.12512976,0.04721494,-0.11888095,-0.11642256,0.11395283,0.23840651,-0.4196397,-0.0756817,-0.5982946,-0.40700036,-0.15948395,-0.11477893,-0.32987645,0.16211782,-0.44699135,-0.32346717,3.0,1.1784621,-3.0,-3.0,-3.0,-3.0,-3.0,-0.82745504,-3.0,3.0,-1.8648622,-3.0,3.0,-0.68447936,-3.0,-3.0,3.0,-3.0,-3.0,-2.258726,-3.0,3.0,-0.14278701,-3.0
2025-06-06 08:54:45.277,0.25017595,0.17577362,-0.23683617,0.03569379,0.051033523,0.032226667,0.0,0.0,0.0,-0.001769142,0.047686923,0.08139808,-0.20454645,-0.08188017,-0.18404597,-0.24156518,-0.08811524,-0.14455247,-0.15634483,0.07041559,-0.16134292,-0.18459158,0.03773131,0.003577772,-0.018450372,-0.10686682,0.09353258,-0.29352018,-0.057379447,-0.25548586,-0.030780504,-0.011613359,-0.07922493,-0.1400742,3.0,-0.68447936,-3.0,-3.0,3.0,-3.0,-3.0,-2.258726,-3.0,3.0,-0.14278701,-3.0,3.0,3.0,-3.0,-3.0,3.0,-3.0,-3.0,-0.49915075,-3.0,3.0,-0.7190023,-3.0
2025-06-06 08:54:45.297,0.06817946,0.041365534,-0.17001109,0.027781416,0.012679361,0.047401037,0.0,0.0,0.0,0.00046077426,0.037059966,0.10562426,-0.2550113,-0.08419295,-0.14240825,-0.33570316,-0.12795122,-0.16682649,-0.21539062,0.102648854,-0.15527338,-0.22515555,0.06306656,0.06416884,-0.18062204,-0.044055715,0.104856625,-0.25658986,-0.01661787,0.028719349,-0.2665144,0.055057507,0.10298292,-0.19664028,3.0,3.0,-3.0,-3.0,3.0,-3.0,-3.0,-0.49915075,-3.0,3.0,-0.7190023,-3.0,3.0,3.0,-3.0,-3.0,3.0,-3.0,-3.0,0.4274056,-3.0,3.0,-0.5141273,-3.0
2025-06-06 08:54:45.318,0.0894976,-0.16268699,-0.08127655,-0.02803538,0.054697406,-0.027506668,0.0,0.0,0.0,0.003911534,0.029620508,0.1954281,-0.31442857,-0.08878486,-0.055194538,-0.40856597,-0.14802493,-0.098048255,-0.34353313,0.12708811,-0.11705042,-0.30016002,-0.01754308,0.1616822,-0.22191666,0.00462463,0.28331825,-0.25471988,-0.08638977,0.17155355,-0.2665143,0.08038292,0.0077223848,-0.27117535,3.0,3.0,-3.0,-3.0,3.0,-3.0,-3.0,0.4274056,-3.0,3.0,-0.5141273,-3.0,3.0,3.0,-3.0,-3.0,3.0,-3.0,-3.0,0.3848896,-3.0,3.0,-0.047216687,-3.0
2025-06-06 08:54:45.337,0.09843623,-0.31742752,-0.069687806,0.031650033,0.039832342,-0.031454306,0.0,0.0,0.0,0.005699789,0.047671556,0.28920367,-0.378705,-0.077208854,0.05899432,-0.4898269,-0.15111423,-0.00166093,-0.39820027,0.12746042,-0.08072874,-0.3772877,-0.05674638,0.32966262,-0.21995969,-0.032659214,0.21689357,-0.21414046,-0.03627936,0.19582152,-0.18548231,0.057585414,0.16362901,-0.12204946,3.0,3.0,-3.0,-3.0,3.0,-3.0,-3.0,0.3848896,-3.0,3.0,-0.047216687,-3.0,3.0,3.0,-3.0,-3.0,3.0,-3.0,-3.0,0.37831497,-3.0,3.0,-0.16590503,-3.0
2025-06-06 08:54:45.357,0.16213925,-0.47331575,-0.019492984,0.06137272,-0.0034849006,0.04135252,0.0,0.0,0.0,0.0068439725,0.04737231,0.3952542,-0.44654837,-0.08145532,0.16584465,-0.536712,-0.15142095,0.06959189,-0.45262754,0.15455407,-0.045786127,-0.42756468,0.059925996,0.3420232,-0.09826242,-0.016739033,0.36289433,-0.13340977,-0.089473285,0.1564732,-0.04565307,0.015038267,0.06597398,-0.16795571,3.0,3.0,-3.0,-3.0,3.0,-3.0,-3.0,0.37831497,-3.0,3.0,-0.16590503,-3.0,3.0,3.0,-3.0,-3.0,3.0,-3.0,-3.0,0.14808607,-3.0,3.0,0.245738,-3.0
2025-06-06 08:54:45.377,0.21871169,-0.5813975,-0.08754307,0.0587326,-0.034017857,-0.0031548247,0.0,0.0,0.0,0.007771081,0.059378657,0.54300463,-0.4764554,-0.08915123,0.28371775,-0.5906085,-0.16879502,0.09580626,-0.47230983,0.16144684,-0.014497976,-0.46857527,0.110771716,0.3596493,-0.11088647,-0.053239442,0.25496975,-0.12444979,-0.048921302,0.11587929,-0.08331416,0.016875878,0.08160098,-0.076235525,3.0,3.0,-3.0,-3.0,3.0,-3.0,-3.0,0.14808607,-3.0,3.0,0.245738,-3.0,3.0,3.0,-3.0,-3.0,3.0,-3.0,-3.0,0.45842576,-3.0,3.0,0.24352929,-3.0
2025-06-06 08:54:45.397,0.33404493,-0.6731121,-0.09856306,0.057684325,-0.05855656,0.026147768,0.0,0.0,0.0,0.009113911,0.07417488,0.67747474,-0.49866924,-0.10444304,0.4075005,-0.59515524,-0.16441408,0.107486606,-0.48985615,0.16288573,0.03411823,-0.49223015,0.025996277,0.35579595,-0.08548827,-0.101698086,0.30390763,-0.040901456,-0.06644544,0.0017973442,-0.0931255,0.056735527,0.118036635,-0.08892312,3.0,3.0,-3.0,-3.0,3.0,-3.0,-3.0,0.45842576,-3.0,3.0,0.24352929,-3.0,3.0,3.0,-3.0,-3.0,3.0,-3.0,-3.0,0.54190564,-3.0,3.0,0.3968322,-3.0
2025-06-06 08:54:45.419,0.4250092,-0.68446404,-0.14371218,0.12910277,-0.13309798,0.00018407126,0.0,0.0,0.0,0.010957362,0.12935865,0.7875074,-0.49863762,-0.12779295,0.5240147,-0.5939621,-0.18925616,0.13527684,-0.5087679,0.18355386,0.058048178,-0.50609976,0.059924565,0.2563643,0.034881618,-0.039456625,0.30224967,-0.046933547,0.020336622,0.04494409,-0.0758491,-0.021600451,0.15972446,-0.055576757,3.0,3.0,-3.0,-3.0,3.0,-3.0,-3.0,0.54190564,-3.0,3.0,0.3968322,-3.0,3.0,3.0,-3.0,-3.0,3.0,-3.0,-3.0,0.6106601,-3.0,3.0,0.33058116,-3.0
2025-06-06 08:54:45.438,0.37685722,-0.594989,-0.18046479,0.10853968,-0.23173523,0.024415908,0.0,0.0,0.0,0.013056587,0.15093108,0.8788897,-0.5018794,-0.16253218,0.6525615,-0.5753796,-0.20049724,0.13932678,-0.51142365,0.18600819,0.09229835,-0.52402437,0.04677043,0.23395933,0.036239237,-0.099069536,0.35039243,0.009660852,0.031137696,-0.014401369,-0.00767372,0.013122111,0.05907945,0.033221815,3.0,3.0,-3.0,-3.0,3.0,-3.0,-3.0,0.6106601,-3.0,3.0,0.33058116,-3.0,3.0,3.0,-3.0,-3.0,3.0,-3.0,-3.0,0.665463,-3.0,3.0,0.31387088,-3.0
2025-06-06 08:54:45.457,0.19779976,-0.47735482,-0.14884663,0.17101923,-0.26507095,0.038963906,0.0,0.0,0.0,0.014954729,0.14523244,0.96243656,-0.481867,-0.17988387,0.7505354,-0.57255477,-0.19654183,0.16396841,-0.5282618,0.2097162,0.08515011,-0.5106656,-0.021947151,0.20275447,-0.03029992,-0.07006797,0.32125425,0.013861359,-0.011076286,0.0037745757,-0.008069553,0.06734725,0.0160321,-0.064292155,3.0,3.0,-3.0,-3.0,3.0,-3.0,-3.0,0.665463,-3.0,3.0,0.31387088,-3.0,3.0,3.0,-3.0,-3.0,3.0,-3.0,-3.0,0.5990348,-3.0,3.0,0.6309287,-3.0
2025-06-06 08:54:45.478,0.12095647,-0.31035763,-0.10946113,0.13110586,-0.2624659,-0.04812735,0.0,0.0,0.0,0.016422633,0.1665264,1.0234687,-0.4529114,-0.19064026,0.8375031,-0.55465674,-0.19262803,0.18023722,-0.52636164,0.21433413,0.10287372,-0.51890707,0.0048904424,0.112284034,0.07400016,-0.026601711,0.116544515,0.11069189,0.03641455,-0.023696836,-0.07534112,-0.021382907,0.039967075,-0.0035749902,3.0,3.0,-3.0,-3.0,3.0,-3.0,-3.0,0.5990348,-3.0,3.0,0.6309287,-3.0,3.0,3.0,-3.0,-3.0,3.0,-3.0,-3.0,0.5259743,-3.0,3.0,0.7190804,-3.0
2025-06-06 08:54:45.500,0.108017415,-0.09075566,-0.14061916,0.122931324,-0.29131567,-0.041968316,0.0,0.0,0.0,0.018130334,0.17128429,1.0633874,-0.43088686,-0.20384425,0.89836186,-0.52499694,-0.20727944,0.17414379,-0.5194805,0.22591777,0.12459829,-0.5257018,0.06878346,0.014499811,-0.008411056,-0.06451256,0.08218139,0.11997324,0.06293282,-0.04936127,-0.061648086,0.067631744,0.1337048,-0.03241283,3.0,3.0,-3.0,-3.0,3.0,-3.0,-3.0,0.5259743,-3.0,3.0,0.7190804,-3.0,3.0,3.0,-3.0,-3.0,3.0,-3.0,-3.0,0.5414214,-3.0,3.0,0.7108614,-3.0
2025-06-06 08:54:45.518,0.04110575,0.099798106,-0.12374614,0.20708893,-0.29161462,-0.03501519,0.0,0.0,0.0,0.02032763,0.18336932,1.0790114,-0.42055425,-0.20217484,0.9405633,-0.5017865,-0.21585318,0.17148939,-0.5233356,0.22581093,0.14716831,-0.5265085,0.0013430207,0.11319144,0.099326976,-0.05633648,0.024276141,-0.015278246,0.027792243,0.024582537,-0.07467482,0.014913206,0.08941665,0.07023329,3.0,3.0,-3.0,-3.0,3.0,-3.0,-3.0,0.5414214,-3.0,3.0,0.7108614,-3.0,3.0,3.0,-3.0,-3.0,3.0,-3.0,-3.0,0.53446054,-3.0,3.0,0.75151485,-3.0
2025-06-06 08:54:45.538,-8.6836815e-05,0.3166383,-0.091245286,0.21773188,-0.32159373,-0.021123778,0.0,0.0,0.0,0.022911983,0.19458815,1.1006898,-0.39852744,-0.2108129,0.96251553,-0.504609,-0.20992523,0.15709452,-0.5270754,0.23742235,0.16582131,-0.52427226,-0.046923514,0.09647725,0.023568386,-0.033172913,0.016448317,-0.019573918,0.0352805,-0.022296894,-0.07352736,0.01125481,-0.024864336,0.050587364,3.0,3.0,-3.0,-3.0,3.0,-3.0,-3.0,0.53446054,-3.0,3.0,0.75151485,-3.0,3.0,3.0,-3.0,-3.0,3.0,-3.0,-3.0,0.40647745,-3.0,3.0,0.94127744,-3.0
2025-06-06 08:54:45.558,-0.05136599,0.47757563,-0.077143684,0.16595174,-0.25752002,-0.0060799,0.0,0.0,0.0,0.02602707,0.1861692,1.1116664,-0.40383205,-0.21355541,0.9696009,-0.5038446,-0.22161762,0.13251658,-0.52465546,0.23409325,0.20003901,-0.53701204,-0.03345201,0.0001778102,0.012029035,-0.043144893,0.06393757,-0.019740334,0.0034437939,-0.10499664,0.0047309236,0.06371946,0.057761516,0.049695976,3.0,3.0,-3.0,-3.0,3.0,-3.0,-3.0,0.40647745,-3.0,3.0,0.94127744,-3.0,3.0,3.0,-3.0,-3.0,3.0,-3.0,-3.0,0.2966261,-3.0,3.0,0.95356315,-3.0
2025-06-06 08:54:45.578,-0.08695803,0.70365256,-0.13477892,0.15869692,-0.17625526,-0.002667326,0.0,0.0,0.0,0.029755916,0.19865127,1.1010053,-0.41468054,-0.1999316,0.97063285,-0.49846566,-0.21703266,0.1150908,-0.5237035,0.23350488,0.23734376,-0.5300523,0.037440337,-0.0788469,-0.024423717,0.024094686,0.05786758,-0.06834991,0.06939638,-0.08668106,-0.03980565,0.06400518,0.029468365,-0.002122249,3.0,3.0,-3.0,-3.0,3.0,-3.0,-3.0,0.2966261,-3.0,3.0,0.95356315,-3.0,3.0,3.0,-3.0,-3.0,3.0,-3.0,-3.0,0.3819394,-3.0,3.0,0.87217945,-3.0
2025-06-06 08:54:45.601,-0.08995895,0.8348287,-0.14628118,0.20402557,-0.1549648,0.016199956,0.0,0.0,0.0,0.033928167,0.19459334,1.0785993,-0.4131751,-0.19464993,0.9560459,-0.48147658,-0.21087456,0.119308196,-0.53858674,0.23315503,0.25057957,-0.54305637,-0.057789728,0.0039945343,-0.08152294,-0.054285407,-0.017618325,0.04088765,0.06563867,-0.08848941,-0.036490113,0.0054699206,0.049494173,0.035619095,3.0,3.0,-3.0,-3.0,3.0,-3.0,-3.0,0.3819394,-3.0,3.0,0.87217945,-3.0,3.0,3.0,-3.0,-3.0,3.0,-3.0,-3.0,0.42166185,-3.0,3.0,0.74050325,-3.0
2025-06-06 08:54:45.619,-0.41134435,0.46653137,-0.008817885,0.13641657,-0.10444356,0.024786884,0.0,0.0,0.0,0.0382703,0.20754118,1.0824099,-0.417878,-0.1738784,0.9423629,-0.4892925,-0.20324086,0.06409587,-0.46563902,0.2071088,0.2678085,-0.52981466,0.13600591,0.09041578,0.060967084,0.07566216,0.080708124,0.03540872,0.028720463,-0.24986847,0.34392565,-0.05713126,-0.04630682,-0.016150517,3.0,3.0,-3.0,-3.0,3.0,-3.0,-3.0,0.42166185,-3.0,3.0,0.74050325,-3.0,3.0,3.0,-3.0,-3.0,3.0,-3.0,-3.0,-0.1355176,-3.0,3.0,1.0831156,-3.0
2025-06-06 08:54:45.638,-0.4308157,0.13291773,-0.037236735,0.09429123,-0.10745708,-0.010421769,0.0,0.0,0.0,0.041666865,0.24022268,1.1050317,-0.41542628,-0.1505238,0.9589216,-0.44726723,-0.1867474,-0.017908087,-0.31692758,0.2000186,0.29057357,-0.53849924,0.124364235,0.044959478,0.080994524,0.10089496,0.06240174,0.11654215,0.027906636,-0.16095677,0.39056826,-0.07894211,0.111002505,-0.079839766,3.0,3.0,-3.0,-3.0,3.0,-3.0,-3.0,-0.1355176,-3.0,3.0,1.0831156,-3.0,3.0,3.0,-3.0,-3.0,3.0,-3.0,-3.0,-0.15693426,-3.0,3.0,1.1666658,-3.0
2025-06-06 08:54:45.658,-0.39751732,0.049364902,-0.17447695,0.066595204,-0.02817443,0.041064605,0.0,0.0,0.0,0.04342391,0.24581209,1.1369914,-0.41113713,-0.14540493,1.0104114,-0.43443,-0.16011763,-0.054726318,-0.21687502,0.20665202,0.28070113,-0.48939055,0.0907022,0.038822386,0.018942699,0.06641903,0.07023444,0.03928763,0.12955348,0.00040114988,0.16518404,0.019765465,0.036404967,0.17890947,3.0,3.0,-3.0,-3.0,3.0,-3.0,-3.0,-0.15693426,-3.0,3.0,1.1666658,-3.0,3.0,3.0,-3.0,-3.0,3.0,-3.0,-3.0,0.16576242,-3.0,3.0,0.7905869,-3.0
2025-06-06 08:54:45.678,-0.23434038,-0.019229751,-0.07000096,0.07718127,-0.07694582,-0.017037736,0.0,0.0,0.0,0.045411225,0.25230628,1.1655853,-0.45577535,-0.15728168,1.0396022,-0.4295911,-0.1347646,-0.058770083,-0.1612056,0.21977751,0.27505684,-0.4204859,-0.06601283,0.050987717,-0.14747582,-0.020296294,0.05770973,-0.0606661,0.059837915,-0.038807906,0.14432116,0.0031651037,0.03342127,0.13050337,3.0,3.0,-3.0,-3.0,3.0,-3.0,-3.0,0.16576242,-3.0,3.0,0.7905869,-3.0,3.0,3.0,-3.0,-3.0,3.0,-3.0,-3.0,-0.03284549,-3.0,3.0,1.0734563,-3.0
2025-06-06 08:54:45.702,-0.20050468,-0.0901696,-0.12061718,0.048100825,-0.09202132,0.015542047,0.0,0.0,0.0,0.04791161,0.23452844,1.1717399,-0.47855085,-0.17754604,1.053536,-0.44618466,-0.12884058,-0.034808975,-0.15373442,0.24398011,0.30176923,-0.371595,-0.0015763458,-0.04802397,-0.093077146,-0.057112966,0.119167194,0.034503527,0.03432371,0.024798727,-0.07051854,0.035015535,0.037598673,0.06461567,3.0,3.0,-3.0,-3.0,3.0,-3.0,-3.0,-0.03284549,-3.0,3.0,1.0734563,-3.0,3.0,3.0,-3.0,-3.0,3.0,-3.0,-3.0,0.1974101,-3.0,3.0,1.0506935,-3.0
2025-06-06 08:54:45.718,-0.1673764,-0.1375427,-0.037945397,-0.005158748,-0.08009301,0.005733689,0.0,0.0,0.0,0.05042939,0.22678639,1.1486423,-0.47526917,-0.19261973,1.0819973,-0.4418739,-0.13550736,-0.010443294,-0.16514477,0.22818275,0.32017276,-0.35243636,-0.04188821,-0.08076899,0.0506871,-0.08254361,0.027715893,0.03516916,-0.055783745,0.038920242,-0.09482628,0.04048488,0.060496558,0.068163626,3.0,3.0,-3.0,-3.0,3.0,-3.0,-3.0,0.1974101,-3.0,3.0,1.0506935,-3.0,3.0,3.0,-3.0,-3.0,3.0,-3.0,-3.0,0.1584363,-3.0,3.0,1.2252994,-3.0
2025-06-06 08:54:45.739,-0.087866955,-0.038056824,-0.036985297,-0.0202647,-0.015096714,-0.006745646,0.0,0.0,0.0,0.05218071,0.20700763,1.1518109,-0.46764863,-0.20965433,1.0880117,-0.43912268,-0.14365807,0.0471932,-0.20574991,0.23555884,0.3313563,-0.35044405,-0.0647185,-0.06670003,0.018779684,-0.09021394,0.01795364,-0.020954436,-0.06122628,0.047777075,-0.115688324,0.027803617,0.08061679,-0.015834507,3.0,3.0,-3.0,-3.0,3.0,-3.0,-3.0,0.1584363,-3.0,3.0,1.2252994,-3.0,3.0,3.0,-3.0,-3.0,3.0,-3.0,-3.0,0.21899605,-3.0,3.0,1.263843,-3.0
2025-06-06 08:54:45.759,-0.100577794,-0.07053837,-0.048357822,0.011316889,-0.038195062,-0.034277167,0.0,0.0,0.0,0.05352474,0.20255513,1.1354241,-0.45599642,-0.21577704,1.1034349,-0.45346928,-0.15666293,0.06782961,-0.22873056,0.23070455,0.36404315,-0.34904495,0.056757104,-0.08800203,0.06637079,-0.037904013,-0.04506879,0.04224696,-0.07514017,0.10150887,-0.07035654,0.065027535,0.09611277,0.0478761,3.0,3.0,-3.0,-3.0,3.0,-3.0,-3.0,0.21899605,-3.0,3.0,1.263843,-3.0,3.0,3.0,-3.0,-3.0,3.0,-3.0,-3.0,0.2257576,-3.0,3.0,1.2118111,-3.0
2025-06-06 08:54:45.779,-0.103121646,0.0188426,-0.015800947,0.00408613,-0.037386034,-0.014175448,0.0,0.0,0.0,0.05477713,0.1939573,1.1240991,-0.45400512,-0.23596421,1.0965104,-0.4387717,-0.17497763,0.10191106,-0.26790413,0.2225616,0.37347865,-0.34860146,0.06068829,-0.051506437,-0.026343577,-0.028829748,-0.0063225552,0.06108995,-0.08766423,0.039666418,-0.084282145,-0.03816937,-0.007340016,0.0727057,3.0,3.0,-3.0,-3.0,3.0,-3.0,-3.0,0.2257576,-3.0,3.0,1.2118111,-3.0,3.0,3.0,-3.0,-3.0,3.0,-3.0,-3.0,0.18316603,-3.0,3.0,1.2327075,-3.0
2025-06-06 08:54:45.802,-0.14236744,0.03246542,-0.028333554,-0.03397459,-0.0991538,-0.041566826,0.0,0.0,0.0,0.055855576,0.20594262,1.1047386,-0.45865497,-0.2444937,1.0933615,-0.439921,-0.17097796,0.10890138,-0.29628947,0.22572115,0.38087872,-0.3392272,-0.04421716,-0.052921418,-0.048048586,0.0036859084,-0.033823,0.031043118,-0.08634121,0.039522484,-0.03746399,0.0068350583,0.033236552,-0.044718526,3.0,3.0,-3.0,-3.0,3.0,-3.0,-3.0,0.18316603,-3.0,3.0,1.2327075,-3.0,3.0,3.0,-3.0,-3.0,3.0,-3.0,-3.0,0.22030735,-3.0,3.0,1.2280159,-3.0
2025-06-06 08:54:45.819,-0.110047944,0.008177586,-0.095693104,-0.052694976,-0.05366374,-0.00010290583,0.0,0.0,0.0,0.057025377,0.1932547,1.0924668,-0.461481,-0.24977273,1.0968267,-0.45664012,-0.18924516,0.12590756,-0.3000443,0.2288563,0.38318756,-0.33751228,0.043331075,-0.01666,0.005173221,0.023649506,-0.056864657,0.06878859,-0.057802074,-0.035877224,-0.03925729,-0.033512104,0.02575693,0.037622776,3.0,3.0,-3.0,-3.0,3.0,-3.0,-3.0,0.22030735,-3.0,3.0,1.2280159,-3.0,3.0,3.0,-3.0,-3.0,3.0,-3.0,-3.0,0.41996574,-3.0,3.0,0.99603957,-3.0
2025-06-06 08:54:45.839,-0.09151824,0.03840876,-0.059080407,0.011221129,-0.058337037,0.03479839,0.0,0.0,0.0,0.058172714,0.1940646,1.0732199,-0.45720115,-0.2542028,1.0943373,-0.44290152,-0.18323943,0.13831185,-0.33680457,0.22119218,0.3858657,-0.32578424,0.009484692,0.04168755,-0.053477786,-0.009201977,-0.07082867,-0.021496758,-0.0046885433,0.0478893,-0.07322445,0.052635793,-0.055942874,0.003200192,3.0,3.0,-3.0,-3.0,3.0,-3.0,-3.0,0.41996574,-3.0,3.0,0.99603957,-3.0,3.0,3.0,-3.0,-3.0,3.0,-3.0,-3.0,0.34749842,-3.0,3.0,1.0398736,-3.0
2025-06-06 08:54:45.859,-0.04436459,0.045429654,-0.029254334,-0.058341235,-0.06347808,-0.010022222,0.0,0.0,0.0,0.05870833,0.18623762,1.0661244,-0.46594137,-0.25928095,1.0893432,-0.44591528,-0.1801397,0.14326857,-0.3371724,0.21972033,0.38312852,-0.30410025,0.031184038,0.042784035,-0.032354154,-0.016214874,0.03591968,0.012172202,0.008460345,-0.006117096,0.013528456,-0.017169101,-0.084442854,-0.019237176,3.0,3.0,-3.0,-3.0,3.0,-3.0,-3.0,0.34749842,-3.0,3.0,1.0398736,-3.0,3.0,3.0,-3.0,-3.0,3.0,-3.0,-3.0,0.23161411,-3.0,3.0,1.102088,-3.0
2025-06-06 08:54:45.879,-0.09399682,-0.038716376,0.0071715517,-0.00030753654,-0.051775012,-0.044164807,0.0,0.0,0.0,0.058849055,0.19067556,1.0658138,-0.46809572,-0.25059378,1.0738384,-0.44589147,-0.18563223,0.1485275,-0.3520733,0.21435642,0.37515953,-0.30231538,0.055439238,-0.05275591,-0.053867713,0.00768873,-0.06696885,0.032498464,0.048424084,-0.031099424,-0.047945697,0.056715045,-0.03737777,-0.0435907,3.0,3.0,-3.0,-3.0,3.0,-3.0,-3.0,0.23161411,-3.0,3.0,1.102088,-3.0,3.0,3.0,-3.0,-3.0,3.0,-3.0,-3.0,0.24719477,-3.0,3.0,1.2010307,-3.0
2025-06-06 08:54:45.902,-0.07777872,-0.0067263744,-0.033327587,-0.08029382,-0.08940438,-0.034155983,0.0,0.0,0.0,0.059040863,0.18652703,1.0469265,-0.46407878,-0.2462457,1.0797814,-0.4403262,-0.1981555,0.14756067,-0.37665465,0.20848939,0.36476517,-0.30380878,0.04236634,-0.064841956,-0.008321744,-0.01790652,-0.05065351,0.031236518,-0.009541809,-0.036236603,0.036629982,-0.063453816,0.016785929,-0.00013267016,3.0,3.0,-3.0,-3.0,3.0,-3.0,-3.0,0.24719477,-3.0,3.0,1.2010307,-3.0,3.0,3.0,-3.0,-3.0,3.0,-3.0,-3.0,0.35465908,-3.0,3.0,1.0169134,-3.0
2025-06-06 08:54:45.919,-0.06876029,-0.030148918,-0.030390121,-0.045037474,-0.081052415,-0.008886539,0.0,0.0,0.0,0.05947894,0.18276767,1.0374875,-0.4671961,-0.24779753,1.0782758,-0.44209456,-0.18640234,0.15758868,-0.36702174,0.2251612,0.37093803,-0.29218626,-0.025050545,-0.051222853,0.06538322,-0.0716689,-0.048257016,0.009300625,0.011594495,0.052881774,0.050526123,-0.060826298,0.021285003,0.06808922,3.0,3.0,-3.0,-3.0,3.0,-3.0,-3.0,0.35465908,-3.0,3.0,1.0169134,-3.0,3.0,3.0,-3.0,-3.0,3.0,-3.0,-3.0,0.31383467,-3.0,3.0,0.9202575,-3.0
2025-06-06 08:54:45.939,0.01903351,0.049548615,0.027986938,0.01094935,-0.07124658,-0.0030380653,0.0,0.0,0.0,0.059741896,0.19233896,1.0348337,-0.45743886,-0.26220956,1.0684341,-0.44322196,-0.20724289,0.13900428,-0.38896105,0.22420105,0.36254546,-0.3066932,0.019573692,-0.005039609,0.07885204,0.04347982,0.026710596,-0.013331719,-0.06584595,-0.06920495,-0.08031311,0.07549546,0.047216978,0.0033175028,3.0,3.0,-3.0,-3.0,3.0,-3.0,-3.0,0.31383467,-3.0,3.0,0.9202575,-3.0,3.0,3.0,-3.0,-3.0,3.0,-3.0,-3.0,0.26621532,-3.0,3.0,1.1796284,-3.0
2025-06-06 08:54:45.959,0.04759488,0.013187702,-0.013859506,-0.05483519,-0.030897059,0.024617875,0.0,0.0,0.0,0.05967012,0.19259153,1.0324432,-0.4535858,-0.24364722,1.0658708,-0.43055817,-0.20502229,0.14092144,-0.38798508,0.23016262,0.34615573,-0.31051433,-0.023256809,0.027747013,-0.00083727116,-0.036745172,-0.07585433,0.04656837,0.024263674,-0.0787782,0.04411085,-0.066191114,0.029701967,-0.00567153,3.0,3.0,-3.0,-3.0,3.0,-3.0,-3.0,0.26621532,-3.0,3.0,1.1796284,-3.0,3.0,3.0,-3.0,-3.0,3.0,-3.0,-3.0,0.34581852,-3.0,3.0,1.031786,-3.0
2025-06-06 08:54:45.979,-0.006671621,0.012618994,-0.03395793,-0.06790735,-0.08518219,-0.010703633,0.0,0.0,0.0,0.059732247,0.1978909,1.0366186,-0.4475223,-0.24288514,1.0555615,-0.43825877,-0.1937069,0.15170918,-0.39198065,0.21577209,0.3504423,-0.3069087,-0.04999374,-0.075470366,0.047402956,-0.030533666,-0.07223406,0.055958744,-0.064298056,-0.07870188,0.043920767,0.025352849,-0.060925636,-0.039174076,3.0,3.0,-3.0,-3.0,3.0,-3.0,-3.0,0.34581852,-3.0,3.0,1.031786,-3.0,3.0,3.0,-3.0,-3.0,3.0,-3.0,-3.0,0.4227624,-3.0,3.0,0.96888536,-3.0
2025-06-06 08:54:46.002,0.032509997,0.03480818,0.04403982,-0.031322993,-0.024547791,-0.028819306,0.0,0.0,0.0,0.059715547,0.193511,1.0201749,-0.43567097,-0.23617017,1.0597128,-0.4429498,-0.19264948,0.13940065,-0.3779807,0.23239541,0.3470516,-0.3146449,0.08145679,-0.073083736,0.019472212,-0.058527395,-0.0047668656,0.05229886,-0.024344657,0.05598404,-0.069916084,0.033126887,0.03969948,-0.041931313,3.0,3.0,-3.0,-3.0,3.0,-3.0,-3.0,0.4227624,-3.0,3.0,0.96888536,-3.0,3.0,3.0,-3.0,-3.0,3.0,-3.0,-3.0,0.19392586,-3.0,3.0,1.1944594,-3.0
2025-06-06 08:54:46.019,0.037242915,-0.00027453952,0.044680953,0.011062482,-0.07238845,0.022271998,0.0,0.0,0.0,0.05934107,0.19503358,1.0306809,-0.45007974,-0.23614822,1.049613,-0.42911562,-0.20465739,0.13462675,-0.3799992,0.2187245,0.34745577,-0.31484532,0.030531418,0.032621928,-0.011367072,-0.013169959,-0.04589828,-0.07484723,-0.048162337,-0.027837476,0.07294255,-0.07138795,0.02135352,0.017558435,3.0,3.0,-3.0,-3.0,3.0,-3.0,-3.0,0.19392586,-3.0,3.0,1.1944594,-3.0,3.0,3.0,-3.0,-3.0,3.0,-3.0,-3.0,0.14887094,-3.0,3.0,1.1795359,-3.0
2025-06-06 08:54:46.040,0.036832474,0.022350514,-0.045856465,-0.04005393,-0.005611302,0.0034151603,0.0,0.0,0.0,0.059204288,0.19754589,1.0206721,-0.4367318,-0.24717067,1.0574309,-0.4482308,-0.2054604,0.13859901,-0.37608284,0.21607056,0.36851966,-0.34173128,-0.06294753,0.033792797,-0.012223637,0.0028504885,-0.006768452,0.0052574417,-0.025567833,0.0017210583,-0.01899074,0.01897775,0.03009773,0.004311251,3.0,3.0,-3.0,-3.0,3.0,-3.0,-3.0,0.14887094,-3.0,3.0,1.1795359,-3.0,3.0,3.0,-3.0,-3.0,3.0,-3.0,-3.0,0.3772297,-3.0,3.0,1.0065811,-3.0
2025-06-06 08:54:46.060,0.039340246,-0.032231662,0.013754619,-0.013274463,-0.05707204,-0.04086954,0.0,0.0,0.0,0.05942833,0.20403904,1.0050346,-0.44070193,-0.22870472,1.0365251,-0.43595642,-0.21066079,0.12929565,-0.37132633,0.22610524,0.36389834,-0.35398978,-0.05405841,0.018564418,0.06813838,-0.017015465,-0.07757577,0.004907354,0.0065598763,0.040900417,-0.0063805804,-0.021053627,-0.029405618,0.038510554,3.0,3.0,-3.0,-3.0,3.0,-3.0,-3.0,0.3772297,-3.0,3.0,1.0065811,-3.0,3.0,3.0,-3.0,-3.0,3.0,-3.0,-3.0,0.22855806,-3.0,3.0,1.1077092,-3.0
2025-06-06 08:54:46.080,0.10611997,0.025976734,-0.024628876,-0.030256089,-0.03069711,-0.029797714,0.0,0.0,0.0,0.059335526,0.20221846,1.0035467,-0.4229706,-0.22861709,1.0454493,-0.43391106,-0.19714372,0.12115923,-0.373804,0.2358777,0.35563675,-0.35475472,0.07145956,-0.014610222,-0.015605033,-0.03880875,-0.054035734,0.046236005,-2.4807629e-05,0.011781561,-0.06299383,0.06287118,-0.031605076,-0.060132954,3.0,3.0,-3.0,-3.0,3.0,-3.0,-3.0,0.22855806,-3.0,3.0,1.1077092,-3.0,3.0,3.0,-3.0,-3.0,3.0,-3.0,-3.0,0.31694412,-3.0,3.0,1.1257238,-3.0
2025-06-06 08:54:46.102,0.1039131,0.009925181,0.0012689221,-0.037734192,-0.0022185764,0.04999685,0.0,0.0,0.0,0.05910136,0.20174766,1.0063937,-0.4212516,-0.21687129,1.0450106,-0.44431248,-0.19693314,0.11652039,-0.3623518,0.21793537,0.37402517,-0.36451218,0.033083864,0.072337426,0.06178777,-0.030677628,-0.038863968,-0.072602436,0.031812694,-0.07307131,-0.044001713,0.023372142,-0.0308284,0.035408605,3.0,3.0,-3.0,-3.0,3.0,-3.0,-3.0,0.31694412,-3.0,3.0,1.1257238,-3.0,3.0,3.0,-3.0,-3.0,3.0,-3.0,-3.0,0.27062416,-3.0,3.0,1.1613762,-3.0
2025-06-06 08:54:46.120,0.010684705,0.04423166,0.024758315,-0.00092854456,-0.05296085,0.028212357,0.0,0.0,0.0,0.058794133,0.22105156,1.0185078,-0.42933717,-0.22846813,1.0476953,-0.43971258,-0.20844686,0.110295564,-0.3709904,0.22763506,0.37790793,-0.3767519,0.010035389,0.041669443,0.060821366,-0.027015114,-0.050318345,-0.07793752,0.04547742,-0.07676414,0.08433092,-0.017018292,-0.026706535,-0.012056764,3.0,3.0,-3.0,-3.0,3.0,-3.0,-3.0,0.27062416,-3.0,3.0,1.1613762,-3.0,3.0,3.0,-3.0,-3.0,3.0,-3.0,-3.0,0.11714888,-3.0,3.0,1.2439554,-3.0
2025-06-06 08:54:46.140,0.022554593,0.036542125,-0.03854304,-0.0202399,-0.085413694,-0.03729875,0.0,0.0,0.0,0.058474086,0.21278125,1.0096743,-0.42709422,-0.21716174,1.0457575,-0.45209932,-0.21110214,0.11197167,-0.3606688,0.23228413,0.37477064,-0.36858234,-0.066539735,-0.0038910233,-0.003295228,-0.029408151,-0.027399877,0.05410559,-0.061753135,-0.0733649,-0.052583896,0.03924182,-0.018953789,-0.08546215,3.0,3.0,-3.0,-3.0,3.0,-3.0,-3.0,0.11714888,-3.0,3.0,1.2439554,-3.0,3.0,3.0,-3.0,-3.0,3.0,-3.0,-3.0,0.36897993,-3.0,3.0,1.1432519,-3.0
2025-06-06 08:54:46.160,0.05816067,0.031553082,0.054354437,0.053525694,-0.012449182,-0.010413016,0.0,0.0,0.0,0.05845259,0.21647738,1.019245,-0.42284486,-0.22084323,1.0383743,-0.4465886,-0.20662828,0.12183693,-0.35329804,0.23005544,0.38771796,-0.39120212,-0.009600659,-0.049706724,-0.0021114938,0.08065525,-0.018714076,-0.0689703,-0.027165938,0.019377034,0.038357705,-0.02149653,-0.059457812,0.014958882,3.0,3.0,-3.0,-3.0,3.0,-3.0,-3.0,0.36897993,-3.0,3.0,1.1432519,-3.0,3.0,3.0,-3.0,-3.0,3.0,-3.0,-3.0,-0.0049042627,-3.0,3.0,1.3578775,-3.0
2025-06-06 08:54:46.180,0.046162818,0.005764956,-0.0074955323,0.023963839,-0.050735354,-0.006373614,0.0,0.0,0.0,0.058288574,0.22486122,1.0091387,-0.40877476,-0.21672274,1.0435565,-0.44774276,-0.20426996,0.10135654,-0.3410088,0.220629,0.3884159,-0.3960388,0.051995434,-0.06663403,0.04020566,0.032231096,0.062424067,-0.046480615,-0.006976126,-0.040241174,0.042534884,0.021948654,-0.021020846,-0.024001842,3.0,3.0,-3.0,-3.0,3.0,-3.0,-3.0,-0.0049042627,-3.0,3.0,1.3578775,-3.0,3.0,3.0,-3.0,-3.0,3.0,-3.0,-3.0,0.13094997,-3.0,3.0,1.2627282,-3.0
2025-06-06 08:54:46.201,-0.008787434,0.03541912,-0.056513023,-0.030284952,-0.00029900315,-0.027545845,0.0,0.0,0.0,0.058545243,0.21522263,1.0005424,-0.4164454,-0.209977,1.0504454,-0.4570566,-0.20312026,0.09746571,-0.3535734,0.22185813,0.38564444,-0.39202926,0.006779914,-0.03708125,-0.008882406,0.00040272964,-0.06551137,0.0052572237,-0.002523435,-0.010791515,-0.011103682,0.033155162,-0.040971693,-0.0050692833,3.0,3.0,-3.0,-3.0,3.0,-3.0,-3.0,0.13094997,-3.0,3.0,1.2627282,-3.0,3.0,3.0,-3.0,-3.0,3.0,-3.0,-3.0,0.32872248,-3.0,3.0,1.0958588,-3.0
2025-06-06 08:54:46.220,0.0214634,-0.046313908,0.015428228,0.05651443,-0.03539096,-0.010772941,0.0,0.0,0.0,0.059053816,0.2179477,1.015878,-0.40633327,-0.22458375,1.051559,-0.4514387,-0.2059286,0.10799629,-0.35167074,0.22900581,0.39134464,-0.39253566,0.0677302,-0.040787373,0.06648093,0.032483336,0.051216308,-0.045582265,0.046841353,-0.043178923,0.007182861,0.033320453,0.05970437,0.05434651,3.0,3.0,-3.0,-3.0,3.0,-3.0,-3.0,0.32872248,-3.0,3.0,1.0958588,-3.0,3.0,3.0,-3.0,-3.0,3.0,-3.0,-3.0,0.10256005,-3.0,3.0,1.2303109,-3.0
2025-06-06 08:54:46.240,0.024577897,0.003120357,0.021919888,0.008797662,-0.04266601,0.010934802,0.0,0.0,0.0,0.059100226,0.22027205,1.0133886,-0.41591963,-0.22328082,1.0424113,-0.46073058,-0.20439924,0.09706181,-0.33787104,0.23407966,0.38146237,-0.3945164,0.05314272,0.045190796,0.06316138,0.003834776,-0.04550669,-0.007693758,-0.049060248,0.052304246,-0.03590541,-0.07370839,0.053142384,-0.05552045,3.0,3.0,-3.0,-3.0,3.0,-3.0,-3.0,0.10256005,-3.0,3.0,1.2303109,-3.0,3.0,3.0,-3.0,-3.0,3.0,-3.0,-3.0,0.1234088,-3.0,3.0,1.3108385,-3.0
2025-06-06 08:54:46.260,-0.0123931635,0.031375676,-0.010241287,-0.03077108,-0.031171622,-0.0041753775,0.0,0.0,0.0,0.05910203,0.21320674,1.0002676,-0.40679115,-0.21169859,1.0472865,-0.46541223,-0.20490575,0.097483315,-0.32914478,0.24022035,0.39078698,-0.39085016,0.05325021,0.046976406,0.006931103,0.05962953,-0.06038085,-0.018348126,-0.06364839,-0.0016084339,-0.048315186,0.021362217,0.073532805,-0.014483988,3.0,3.0,-3.0,-3.0,3.0,-3.0,-3.0,0.1234088,-3.0,3.0,1.3108385,-3.0,3.0,3.0,-3.0,-3.0,3.0,-3.0,-3.0,0.20352316,-3.0,3.0,1.2576942,-3.0
2025-06-06 08:54:46.280,-0.049331438,-0.022489341,-0.04692232,0.05682856,-0.05380241,-0.031760048,0.0,0.0,0.0,0.05933444,0.21806501,1.0101726,-0.4056342,-0.22680597,1.0557774,-0.4591212,-0.2002301,0.10304995,-0.33311504,0.23041184,0.3984009,-0.39075884,-0.059151534,-0.04386934,-0.038669527,-0.012330785,-0.062119655,0.04798995,-0.03063093,-0.04387787,-0.017235588,0.008182915,-0.048800755,-0.025237769,3.0,3.0,-3.0,-3.0,3.0,-3.0,-3.0,0.20352316,-3.0,3.0,1.2576942,-3.0,3.0,3.0,-3.0,-3.0,3.0,-3.0,-3.0,0.29294825,-3.0,3.0,1.1422904,-3.0
2025-06-06 08:54:46.302,0.034109678,-0.026681498,-0.016029118,0.023501862,-0.011673922,-0.042514943,0.0,0.0,0.0,0.059545185,0.21109362,1.0081135,-0.40523806,-0.2238297,1.0569589,-0.4492531,-0.19750547,0.09811844,-0.34244826,0.23123713,0.3891027,-0.38697815,0.012706715,0.019553212,0.040665213,-0.0039425977,-0.05255018,-0.052936137,-0.07110046,0.06068975,0.06265084,-0.04994034,0.0586381,-0.06066713,3.0,3.0,-3.0,-3.0,3.0,-3.0,-3.0,0.29294825,-3.0,3.0,1.1422904,-3.0,3.0,3.0,-3.0,-3.0,3.0,-3.0,-3.0,0.16672897,-3.0,3.0,1.1751633,-3.0
2025-06-06 08:54:46.321,0.007833507,0.04370238,0.03792078,0.056416005,0.0020907877,-0.028182017,0.0,0.0,0.0,0.05942992,0.2112471,1.0076989,-0.40659842,-0.21049413,1.0481732,-0.4534593,-0.20040086,0.112405166,-0.3344693,0.225302,0.3989534,-0.3818507,-0.028524607,0.031454906,-0.0135756,0.060984466,0.041964162,-0.046867225,0.053551853,0.04219266,-0.031473435,-0.0454146,-0.024427114,0.007815886,3.0,3.0,-3.0,-3.0,3.0,-3.0,-3.0,0.16672897,-3.0,3.0,1.1751633,-3.0,3.0,3.0,-3.0,-3.0,3.0,-3.0,-3.0,0.025989063,-3.0,3.0,1.3192494,-3.0
2025-06-06 08:54:46.341,-0.016259048,0.049456093,0.011916719,-0.041775778,-0.089720495,-0.03459226,0.0,0.0,0.0,0.059252042,0.21727417,1.0086493,-0.41939005,-0.22959499,1.0481054,-0.44888696,-0.19798382,0.09932109,-0.32760113,0.23428364,0.3977912,-0.3887141,0.027823448,0.07247108,-0.055947997,-0.017642157,0.06417003,-0.07433661,-0.0761158,0.036375403,0.051792406,0.048162196,-0.059252344,-0.025640167,3.0,3.0,-3.0,-3.0,3.0,-3.0,-3.0,0.025989063,-3.0,3.0,1.3192494,-3.0,3.0,3.0,-3.0,-3.0,3.0,-3.0,-3.0,0.03219462,-3.0,3.0,1.3086357,-3.0
2025-06-06 08:54:46.361,-0.06340501,0.0077110385,-0.055097852,-0.000734854,-0.057514112,-0.030615205,0.0,0.0,0.0,0.059497144,0.21372758,1.0082495,-0.40974563,-0.22949311,1.04937,-0.44780883,-0.21290934,0.09347499,-0.33561158,0.23357557,0.39224815,-0.39015204,0.063897416,-0.0023082204,-0.06634559,-0.043818463,0.04253696,0.028052328,-0.019813051,0.0117065925,0.011390179,0.017817268,-0.065781444,-0.043394342,3.0,3.0,-3.0,-3.0,3.0,-3.0,-3.0,0.03219462,-3.0,3.0,1.3086357,-3.0,3.0,3.0,-3.0,-3.0,3.0,-3.0,-3.0,0.22105932,-3.0,3.0,1.1282239,-3.0
2025-06-06 08:54:46.380,-0.007436422,0.03194316,-0.035827383,-0.023755347,-0.024338456,0.040118854,0.0,0.0,0.0,0.06011482,0.20167023,1.0199418,-0.4215697,-0.22535644,1.0608778,-0.4595175,-0.19413897,0.10398304,-0.33587378,0.22791451,0.38731232,-0.37883025,0.059284527,-0.03921961,0.06381395,0.03791554,0.060087875,0.019297237,0.061293,0.006828768,-0.047339503,0.0009950557,0.05034064,-0.05927121,3.0,3.0,-3.0,-3.0,3.0,-3.0,-3.0,0.22105932,-3.0,3.0,1.1282239,-3.0,3.0,3.0,-3.0,-3.0,3.0,-3.0,-3.0,0.21410036,-3.0,3.0,1.1731896,-3.0
2025-06-06 08:54:46.441,-0.014738008,0.028229566,-0.012130009,-0.031556193,-0.048514225,-0.047393806,0.0,0.0,0.0,0.06048311,0.20124537,1.0027839,-0.41340223,-0.22608218,1.0643591,-0.45029956,-0.19589114,0.10750605,-0.33531284,0.23610383,0.38148052,-0.3882655,-0.013317446,-0.038457904,-0.0601252,-0.033898637,-0.057869267,-0.03077209,0.02658132,0.014592182,0.0262631,-0.045146238,-0.07363228,-0.05772635,3.0,3.0,-3.0,-3.0,3.0,-3.0,-3.0,0.21410036,-3.0,3.0,1.1731896,-3.0,3.0,3.0,-3.0,-3.0,3.0,-3.0,-3.0,0.15301037,-3.0,3.0,1.2283068,-3.0
2025-06-06 08:54:46.461,-0.01169597,0.014384324,0.028968183,0.008471049,-0.04046568,-0.016658513,0.0,0.0,0.0,0.06056266,0.21066502,1.0173143,-0.424823,-0.23667553,1.0579801,-0.4508379,-0.21286958,0.1043014,-0.3341982,0.24656418,0.3810771,-0.37893918,-0.040811293,0.034648426,0.042478897,0.007907784,0.0076542348,0.02502944,-0.013298689,0.025295647,0.0449279,0.010451021,-0.06412183,-0.004080636,3.0,3.0,-3.0,-3.0,3.0,-3.0,-3.0,0.15301037,-3.0,3.0,1.2283068,-3.0,3.0,3.0,-3.0,-3.0,3.0,-3.0,-3.0,0.046272762,-3.0,3.0,1.3116269,-3.0
2025-06-06 08:54:46.481,0.013436443,-0.0075541832,-0.014138079,-0.030599901,-0.076954246,-0.006333035,0.0,0.0,0.0,0.06063847,0.20554967,1.003707,-0.4190844,-0.22811134,1.0640738,-0.4562269,-0.19504555,0.106664516,-0.34556675,0.24372037,0.37701643,-0.37719578,-0.030277546,0.00969428,0.010052126,0.061987806,-0.07281394,-0.019487716,0.06252092,-0.06618442,-0.03268408,0.028190436,0.055869143,-0.040495556,3.0,3.0,-3.0,-3.0,3.0,-3.0,-3.0,0.046272762,-3.0,3.0,1.3116269,-3.0,3.0,3.0,-3.0,-3.0,3.0,-3.0,-3.0,0.2438469,-3.0,3.0,1.2622087,-3.0
2025-06-06 08:54:46.502,-0.052032776,0.00816397,-0.04168222,-0.038020704,-0.07258097,0.041699212,0.0,0.0,0.0,0.060997814,0.19716321,1.0104928,-0.41170615,-0.23102696,1.0568781,-0.44790435,-0.2143808,0.09709377,-0.33571172,0.2418764,0.38326555,-0.3692848,-0.042506512,0.03465623,-0.04315663,-0.07116225,0.03298913,-0.028046371,0.022989843,-0.053422097,0.010885852,0.070546865,0.050352022,0.03676924,3.0,3.0,-3.0,-3.0,3.0,-3.0,-3.0,0.2438469,-3.0,3.0,1.2622087,-3.0,3.0,3.0,-3.0,-3.0,3.0,-3.0,-3.0,0.25383043,-3.0,3.0,1.0819678,-3.0
2025-06-06 08:54:46.521,-0.04167046,-0.01987613,0.04998397,-0.04319343,-0.07694948,-0.0062079285,0.0,0.0,0.0,0.061312266,0.19858672,1.0147521,-0.42285433,-0.22865564,1.0635513,-0.46159843,-0.20613725,0.09874894,-0.35450223,0.23909973,0.3914026,-0.37233084,0.011285331,0.0014763437,0.03747343,0.014684251,0.052074723,0.008587491,0.04999343,0.038190953,-0.04413608,-0.0382991,0.027041053,0.07570828,3.0,3.0,-3.0,-3.0,3.0,-3.0,-3.0,0.25383043,-3.0,3.0,1.0819678,-3.0,3.0,3.0,-3.0,-3.0,3.0,-3.0,-3.0,0.03553105,-3.0,3.0,1.308068,-3.0
2025-06-06 08:54:46.541,0.004650315,0.010028874,-0.010806076,-0.013400032,0.0036989583,0.03796384,0.0,0.0,0.0,0.061225872,0.21034971,1.0202245,-0.421085,-0.23297833,1.059497,-0.45876208,-0.21024835,0.104482226,-0.34975532,0.23473737,0.3785679,-0.37994,0.040832065,-0.018429462,0.05449926,-0.023231257,0.053374596,0.039771654,0.025335673,-0.031122286,0.06213699,0.02819501,0.011925276,-0.050255295,3.0,3.0,-3.0,-3.0,3.0,-3.0,-3.0,0.03553105,-3.0,3.0,1.308068,-3.0,3.0,3.0,-3.0,-3.0,3.0,-3.0,-3.0,0.15543604,-3.0,3.0,1.2103319,-3.0
2025-06-06 08:54:46.561,0.03736011,0.024853589,-0.022167081,0.0131685445,-0.07976938,-0.031501796,0.0,0.0,0.0,0.06135285,0.20758323,1.0074724,-0.4268401,-0.23225333,1.0542356,-0.4571569,-0.19771078,0.104174554,-0.33825645,0.24300295,0.39225033,-0.3727108,-0.057038594,0.01928596,0.004136993,0.01890012,0.060006384,-0.06909045,0.057084877,-0.076660216,0.06809262,0.04687543,-0.017985443,-0.013656134,3.0,3.0,-3.0,-3.0,3.0,-3.0,-3.0,0.15543604,-3.0,3.0,1.2103319,-3.0,3.0,3.0,-3.0,-3.0,3.0,-3.0,-3.0,0.1478467,-3.0,3.0,1.1928,-3.0
2025-06-06 08:54:46.584,0.012011599,-0.02459665,0.037260786,0.018565793,-0.05909159,-0.04532689,0.0,0.0,0.0,0.06157354,0.21042529,1.0129781,-0.4193033,-0.23935509,1.0653116,-0.4477162,-0.20169003,0.10234655,-0.35613015,0.2520992,0.38732144,-0.3736252,-0.05214027,0.0612579,0.009704047,-0.019152883,-0.013219077,-0.061747562,-0.037955765,-0.06421842,-0.03819298,0.0048382804,-0.0025636912,-0.04412233,3.0,3.0,-3.0,-3.0,3.0,-3.0,-3.0,0.1478467,-3.0,3.0,1.1928,-3.0,3.0,3.0,-3.0,-3.0,3.0,-3.0,-3.0,0.14448833,-3.0,3.0,1.3565078,-3.0
2025-06-06 08:54:46.602,0.027622795,-0.025505852,-0.021313082,-0.04762143,-0.050044984,0.03941483,0.0,0.0,0.0,0.061703783,0.21202897,1.0217407,-0.42627737,-0.22468123,1.0602041,-0.4524703,-0.20536737,0.10617052,-0.34762177,0.23840305,0.39232397,-0.37419587,-0.03880328,-0.0014633406,0.06323694,0.03450624,0.022314074,0.025762776,-0.053482193,0.01128353,0.054989807,0.02659596,0.003330119,-0.015073073,3.0,3.0,-3.0,-3.0,3.0,-3.0,-3.0,0.14448833,-3.0,3.0,1.3565078,-3.0,3.0,3.0,-3.0,-3.0,3.0,-3.0,-3.0,0.20035076,-3.0,3.0,1.2034285,-3.0
2025-06-06 08:54:46.622,-0.038273178,-0.03623545,0.024248768,-0.011145749,-0.049198568,0.04497818,0.0,0.0,0.0,0.061963685,0.1962636,1.0103563,-0.42213833,-0.23836388,1.0690844,-0.45354936,-0.21016979,0.103991814,-0.3451834,0.25226653,0.38332966,-0.37777996,-0.0049313502,-0.027656153,-0.020382483,0.07170598,0.071655765,0.05207189,-0.0364342,-0.004364587,-0.0060719023,-0.04134557,0.061637577,0.044877946,3.0,3.0,-3.0,-3.0,3.0,-3.0,-3.0,0.20035076,-3.0,3.0,1.2034285,-3.0,3.0,3.0,-3.0,-3.0,3.0,-3.0,-3.0,0.071181305,-3.0,3.0,1.2843795,-3.0
2025-06-06 08:54:46.641,0.025294557,0.018374152,0.030676518,0.03542474,-0.049370896,0.035966698,0.0,0.0,0.0,0.06210704,0.20281789,1.0164487,-0.42242077,-0.23422307,1.0631818,-0.44242927,-0.20005876,0.10409668,-0.34805983,0.24456112,0.39762318,-0.37012115,-0.027972274,0.044350285,-0.039389886,-0.020783005,-0.026773693,-0.027809123,0.05227808,-0.047013275,-0.052485004,0.038227,0.03561774,0.063283846,3.0,3.0,-3.0,-3.0,3.0,-3.0,-3.0,0.071181305,-3.0,3.0,1.2843795,-3.0,3.0,3.0,-3.0,-3.0,3.0,-3.0,-3.0,0.12778711,-3.0,3.0,1.3077521,-3.0
2025-06-06 08:54:46.663,-0.0012850246,0.04644286,-0.030423583,-0.03152459,-0.039374053,-0.024451034,0.0,0.0,0.0,0.062312573,0.20173436,1.018917,-0.4277488,-0.22486916,1.069564,-0.45568585,-0.21588016,0.09353888,-0.35420895,0.2388948,0.38268194,-0.3816868,-0.048470236,-0.075498365,0.008296781,-0.026596483,0.043008063,-0.06940683,-0.033016797,-0.01524852,0.052949946,-0.01526412,-0.056202386,-0.019683475,3.0,3.0,-3.0,-3.0,3.0,-3.0,-3.0,0.12778711,-3.0,3.0,1.3077521,-3.0,3.0,3.0,-3.0,-3.0,3.0,-3.0,-3.0,0.21352911,-3.0,3.0,1.1705515,-3.0
2025-06-06 08:54:46.688,0.0031263155,0.048553832,0.020306261,-0.04322504,-0.042953722,0.049754895,0.0,0.0,0.0,0.062610805,0.1979303,1.0027002,-0.41725177,-0.23260899,1.0556312,-0.44339654,-0.21160002,0.10517424,-0.35431412,0.25680554,0.3961443,-0.3714954,0.06301584,-0.04231956,0.05441109,0.06177577,0.011589126,0.026466487,0.049428117,0.061506245,0.00085126865,-0.057234813,0.04012536,-0.014436177,3.0,3.0,-3.0,-3.0,3.0,-3.0,-3.0,0.21352911,-3.0,3.0,1.1705515,-3.0,3.0,3.0,-3.0,-3.0,3.0,-3.0,-3.0,0.041068085,-3.0,3.0,1.2889128,-3.0
2025-06-06 08:54:46.705,0.022208326,-0.032909583,-0.02234515,0.0029481424,-0.07899517,-0.0147887785,0.0,0.0,0.0,0.06264464,0.20339164,1.0156231,-0.42718443,-0.22927547,1.0596395,-0.45209643,-0.20859145,0.09650417,-0.33937517,0.25107458,0.3922358,-0.38330925,0.062387496,0.0055804,-0.061013512,-0.050808206,-0.03444077,-0.0019385165,0.017163925,-0.02159802,0.044426784,-0.070342414,0.0043214476,-0.06285983,3.0,3.0,-3.0,-3.0,3.0,-3.0,-3.0,0.041068085,-3.0,3.0,1.2889128,-3.0,3.0,3.0,-3.0,-3.0,3.0,-3.0,-3.0,0.16864586,-3.0,3.0,1.2083244,-3.0
2025-06-06 08:54:46.727,0.007928094,-0.034828212,0.036003813,-0.018115936,-0.04487171,-0.028926525,0.0,0.0,0.0,0.06274373,0.2098033,1.005403,-0.4217128,-0.23818527,1.0506312,-0.4586809,-0.21712148,0.10224728,-0.34213772,0.2535383,0.38314855,-0.38360044,0.010653992,0.028094338,-0.022983484,0.012339642,0.023071747,-0.0376265,0.01598489,-0.029385716,0.017315546,0.006782071,-0.063881546,0.07469221,3.0,3.0,-3.0,-3.0,3.0,-3.0,-3.0,0.16864586,-3.0,3.0,1.2083244,-3.0,3.0,3.0,-3.0,-3.0,3.0,-3.0,-3.0,0.051702984,-3.0,3.0,1.3058267,-3.0
2025-06-06 08:54:46.745,-0.0057588895,-0.02795176,0.00016848183,0.033433605,-0.04248573,-0.00040881193,0.0,0.0,0.0,0.06276921,0.20892693,1.0084261,-0.4103889,-0.24152315,1.060809,-0.44832906,-0.20176043,0.09411234,-0.34784913,0.2431661,0.40074855,-0.3816729,-0.019519817,-0.032593302,0.05374772,-0.06929341,0.02205565,0.054303013,0.07080099,0.032924887,0.07060442,-0.0546721,-0.06679243,0.06194916,3.0,3.0,-3.0,-3.0,3.0,-3.0,-3.0,0.051702984,-3.0,3.0,1.3058267,-3.0,3.0,3.0,-3.0,-3.0,3.0,-3.0,-3.0,0.07565022,-3.0,3.0,1.1953659,-3.0
2025-06-06 08:54:46.770,-0.0030970357,0.06083916,0.042822335,0.0015901354,-0.086773045,0.011057028,0.0,0.0,0.0,0.062877595,0.19685453,1.0169685,-0.41321334,-0.24157982,1.0512615,-0.44677112,-0.2051063,0.09444017,-0.3347266,0.2469908,0.39999387,-0.38206142,0.047343608,0.052553046,0.04600106,0.057192717,0.03516967,0.0062939087,0.0646327,-0.056572467,0.07928717,0.005874131,0.026663445,-0.0630249,3.0,3.0,-3.0,-3.0,3.0,-3.0,-3.0,0.07565022,-3.0,3.0,1.1953659,-3.0,3.0,3.0,-3.0,-3.0,3.0,-3.0,-3.0,-0.05652093,-3.0,3.0,1.3812618,-3.0
2025-06-06 08:54:46.787,-0.032638345,0.022155112,-0.05060026,0.03937388,-0.057820193,-0.04615363,0.0,0.0,0.0,0.062975526,0.19956182,0.9982937,-0.41575786,-0.23166513,1.0511146,-0.45154145,-0.21568802,0.09860628,-0.3433628,0.26052433,0.38890228,-0.37512088,-0.029419415,-0.044811036,-0.069279164,-0.029366165,0.015653081,-0.059608772,-0.06475361,0.05653944,0.0040977923,0.056090325,-0.05626634,0.02730928,3.0,3.0,-3.0,-3.0,3.0,-3.0,-3.0,-0.05652093,-3.0,3.0,1.3812618,-3.0,3.0,3.0,-3.0,-3.0,3.0,-3.0,-3.0,0.23493576,-3.0,3.0,1.1165917,-3.0
2025-06-06 08:54:46.805,-0.02466685,-0.022207487,-0.0014574369,-0.0023088413,-0.009159702,-0.03988202,0.0,0.0,0.0,0.06337067,0.20863749,1.0162461,-0.41559073,-0.23386261,1.0496073,-0.44878584,-0.20281503,0.08510921,-0.34278136,0.2538566,0.38398027,-0.37557995,0.043235425,0.009687084,0.04137965,0.028835777,-0.028593298,-0.044202276,-0.01189327,-0.042928986,0.020078804,-0.022075616,-0.031527564,0.059386022,3.0,3.0,-3.0,-3.0,3.0,-3.0,-3.0,0.23493576,-3.0,3.0,1.1165917,-3.0,3.0,3.0,-3.0,-3.0,3.0,-3.0,-3.0,0.15511656,-3.0,3.0,1.1972914,-3.0
2025-06-06 08:54:46.825,0.032461934,0.042399846,-0.0035877305,-0.04414562,-0.019308679,-0.047977455,0.0,0.0,0.0,0.06340719,0.19875889,1.0034232,-0.41956222,-0.23368108,1.0616505,-0.45069504,-0.20242848,0.09331059,-0.34753412,0.25521755,0.38726988,-0.36876923,0.0007338356,0.012884253,0.018034332,0.07558697,0.014881685,0.015899453,0.06507053,-0.04059389,-0.0021025662,-0.017646996,0.04920658,-0.054209143,3.0,3.0,-3.0,-3.0,3.0,-3.0,-3.0,0.15511656,-3.0,3.0,1.1972914,-3.0,3.0,3.0,-3.0,-3.0,3.0,-3.0,-3.0,0.1474514,-3.0,3.0,1.2628751,-3.0
2025-06-06 08:54:46.845,0.029072229,-0.026429482,0.02608468,0.011823136,-0.004330719,-0.041713364,0.0,0.0,0.0,0.06312122,0.20495269,1.0089818,-0.41693327,-0.21975595,1.0637257,-0.45980963,-0.20972002,0.08650768,-0.34954453,0.2616057,0.39850208,-0.38446757,0.05945277,-0.039647847,0.03329062,-0.0010093969,-0.054382548,0.04394446,0.06212007,-0.038132153,0.010771098,-0.059328057,-0.06044561,0.06704431,3.0,3.0,-3.0,-3.0,3.0,-3.0,-3.0,0.1474514,-3.0,3.0,1.2628751,-3.0,3.0,3.0,-3.0,-3.0,3.0,-3.0,-3.0,0.079318054,-3.0,3.0,1.3194594,-3.0
2025-06-06 08:54:46.869,0.05152743,-0.041861873,-0.012668831,-0.047553647,-0.08302935,-0.0150503805,0.0,0.0,0.0,0.062857985,0.20153813,1.0018395,-0.40971598,-0.22572947,1.0557315,-0.46342975,-0.22339366,0.09303465,-0.34386876,0.25219187,0.3861891,-0.3865396,-0.0135107385,0.06732175,0.011755035,-0.0057961177,0.024842875,0.04056358,0.02692609,0.0009272577,-0.025043605,-0.06751784,0.014551435,0.0044177775,3.0,3.0,-3.0,-3.0,3.0,-3.0,-3.0,0.079318054,-3.0,3.0,1.3194594,-3.0,3.0,3.0,-3.0,-3.0,3.0,-3.0,-3.0,0.19607878,-3.0,3.0,1.2149463,-3.0
2025-06-06 08:54:46.885,-0.020380514,-0.017182564,0.018614551,-0.004678648,-0.026912382,0.044383634,0.0,0.0,0.0,0.06281481,0.21127716,1.0187411,-0.41636005,-0.22020367,1.0687099,-0.46529287,-0.21932568,0.09020034,-0.3355306,0.25820342,0.38529593,-0.373394,0.0677071,-0.07046613,0.0006911927,-0.05280243,-0.0038819648,0.044751197,0.011103905,0.016014675,-0.035855763,-0.073540024,0.013557063,-0.07155948,3.0,3.0,-3.0,-3.0,3.0,-3.0,-3.0,0.19607878,-3.0,3.0,1.2149463,-3.0,3.0,3.0,-3.0,-3.0,3.0,-3.0,-3.0,0.109713085,-3.0,3.0,1.3019209,-3.0
2025-06-06 08:54:46.907,0.033246476,-0.021263324,-0.03967574,-0.019416759,0.001282644,0.0084580835,0.0,0.0,0.0,0.062702164,0.2044321,1.0055188,-0.41075042,-0.23412077,1.0590149,-0.45116103,-0.21283355,0.093772635,-0.3407254,0.25687116,0.3954445,-0.38526025,0.0060636895,0.049257677,0.04912574,-0.07407989,0.03862202,-0.04931955,-0.030969322,0.04162255,0.050508857,-0.03795694,-0.019387579,-0.009155594,3.0,3.0,-3.0,-3.0,3.0,-3.0,-3.0,0.109713085,-3.0,3.0,1.3019209,-3.0,3.0,3.0,-3.0,-3.0,3.0,-3.0,-3.0,0.19649696,-3.0,3.0,1.1360826,-3.0
2025-06-06 08:54:46.925,-0.031453114,-0.005797505,-0.017356053,-0.015979366,-0.06488283,0.038330197,0.0,0.0,0.0,0.06265966,0.21211526,1.0055952,-0.42212623,-0.23072195,1.0644953,-0.46102297,-0.21478666,0.08732846,-0.3417755,0.26045397,0.39023954,-0.38157427,0.066295676,-0.0004632444,-0.02309062,0.0676239,-0.060555726,0.04421511,0.020898627,0.07211323,-0.033683874,-0.008109462,0.055302408,0.07775864,3.0,3.0,-3.0,-3.0,3.0,-3.0,-3.0,0.19649696,-3.0,3.0,1.1360826,-3.0,3.0,3.0,-3.0,-3.0,3.0,-3.0,-3.0,0.15615892,-3.0,3.0,1.1755304,-3.0
2025-06-06 08:54:46.945,0.015802555,0.03777242,-0.008334069,0.020023283,-0.04195978,-0.047871355,0.0,0.0,0.0,0.06246218,0.2122303,1.0078869,-0.42062625,-0.2275186,1.0520895,-0.45142886,-0.22194086,0.08897008,-0.35211852,0.26097333,0.39291754,-0.37530115,0.032390263,0.04413492,0.031070266,-0.04230008,-0.07622066,0.0712726,0.06629198,0.04958373,0.028389854,0.057264414,-0.04292306,-0.058201574,3.0,3.0,-3.0,-3.0,3.0,-3.0,-3.0,0.15615892,-3.0,3.0,1.1755304,-3.0,3.0,3.0,-3.0,-3.0,3.0,-3.0,-3.0,0.13779593,-3.0,3.0,1.2259884,-3.0
2025-06-06 08:54:46.969,-0.03323145,0.0060920366,0.02721976,0.027948868,-0.03133665,0.036633085,0.0,0.0,0.0,0.06218295,0.2037944,1.0151176,-0.41132888,-0.22516116,1.0615948,-0.46251166,-0.21106547,0.1008992,-0.34401837,0.24699923,0.38377395,-0.36879215,-0.017039971,0.040934645,-0.008107913,0.0077141155,-0.05912657,-0.008863985,-0.05362703,-0.054662608,-0.03322557,-0.06840196,-0.042205576,-0.054372225,3.0,3.0,-3.0,-3.0,3.0,-3.0,-3.0,0.13779593,-3.0,3.0,1.2259884,-3.0,3.0,3.0,-3.0,-3.0,3.0,-3.0,-3.0,0.15490437,-3.0,3.0,1.3176696,-3.0
2025-06-06 08:54:46.985,0.04680206,0.02654702,-0.057088807,-0.051050108,-0.037984353,-0.010008483,0.0,0.0,0.0,0.0620334,0.21204191,1.0049301,-0.4205266,-0.23413703,1.068462,-0.4597686,-0.20716172,0.1043126,-0.33919016,0.25451723,0.3860432,-0.37612477,0.067264855,0.009482169,0.02437974,0.04934356,-0.027011372,0.026005676,0.045972757,-0.03895909,0.037572205,-0.06233143,0.07681112,-0.019394588,3.0,3.0,-3.0,-3.0,3.0,-3.0,-3.0,0.15490437,-3.0,3.0,1.3176696,-3.0,3.0,3.0,-3.0,-3.0,3.0,-3.0,-3.0,0.26252937,-3.0,3.0,1.1098762,-3.0
2025-06-06 08:54:47.006,-0.00042733646,-0.051898003,0.044734053,0.047040895,-0.058081985,-0.002266145,0.0,0.0,0.0,0.06210609,0.20994897,1.0049566,-0.414171,-0.2185597,1.0674403,-0.44871104,-0.21312967,0.09279388,-0.3563028,0.24659595,0.3888876,-0.37858695,0.07494752,0.06328739,-0.02148755,-0.035444584,-0.045157176,0.026643755,-0.056553144,0.0508708,-0.024989348,0.040661763,0.029275142,0.026495134,3.0,3.0,-3.0,-3.0,3.0,-3.0,-3.0,0.26252937,-3.0,3.0,1.1098762,-3.0,3.0,3.0,-3.0,-3.0,3.0,-3.0,-3.0,0.0806861,-3.0,3.0,1.3024175,-3.0
2025-06-06 08:54:47.028,0.0030026282,-0.00866985,0.0018276271,0.006330956,-0.07273394,-0.0061694174,0.0,0.0,0.0,0.061964713,0.21821758,1.0023037,-0.41391778,-0.23312968,1.0675381,-0.4645469,-0.21035446,0.10811197,-0.34512332,0.25353268,0.3851336,-0.3717234,0.036506534,-0.038451537,0.021026324,-0.04860418,-0.027131936,-0.05339939,0.008872423,-0.044561863,-0.0498244,-0.008085727,0.045753304,0.024918886,3.0,3.0,-3.0,-3.0,3.0,-3.0,-3.0,0.0806861,-3.0,3.0,1.3024175,-3.0,3.0,3.0,-3.0,-3.0,3.0,-3.0,-3.0,0.21705818,-3.0,3.0,1.2386439,-3.0
2025-06-06 08:54:47.046,0.018986609,-0.03670145,-0.00056076434,0.02178163,-0.07454486,0.009968596,0.0,0.0,0.0,0.062010963,0.21958151,1.0209504,-0.41599533,-0.22060807,1.058539,-0.4609748,-0.21562622,0.103921376,-0.34335485,0.25086054,0.40007424,-0.3780109,-0.015171262,0.049532488,-0.019816795,0.031691104,0.01124984,0.029658753,0.029458737,0.0025632423,0.017430013,-0.06932726,-0.03964918,-0.02235122,3.0,3.0,-3.0,-3.0,3.0,-3.0,-3.0,0.21705818,-3.0,3.0,1.2386439,-3.0,3.0,3.0,-3.0,-3.0,3.0,-3.0,-3.0,0.117870815,-3.0,3.0,1.2532916,-3.0
2025-06-06 08:54:47.069,-0.021049188,-0.031285543,-0.012249812,0.025596812,-0.07921835,0.044429388,0.0,0.0,0.0,0.062121175,0.2186312,1.0086906,-0.41176537,-0.22844605,1.0544703,-0.45050615,-0.22406611,0.092397906,-0.35744348,0.25738677,0.38704005,-0.3770978,0.05140664,0.07422825,0.016002525,0.048943274,-0.032985337,0.052298397,0.03404555,0.008328618,0.06488142,0.0027405382,-0.06077567,0.0051310137,3.0,3.0,-3.0,-3.0,3.0,-3.0,-3.0,0.117870815,-3.0,3.0,1.2532916,-3.0,3.0,3.0,-3.0,-3.0,3.0,-3.0,-3.0,0.12060977,-3.0,3.0,1.2072906,-3.0
2025-06-06 08:54:47.086,-0.039964873,-0.014741206,-0.044727825,-0.029068612,-0.059356086,-0.04767334,0.0,0.0,0.0,0.062278956,0.20315976,1.0094752,-0.40647143,-0.23734885,1.0678211,-0.45773664,-0.214396,0.09600179,-0.3537655,0.24953073,0.3853929,-0.38296765,-0.013898196,-0.045485113,-0.06189369,-0.07019003,-0.046982985,0.020492774,0.06076701,-0.03896981,0.033704814,0.05029155,0.04899774,0.041844137,3.0,3.0,-3.0,-3.0,3.0,-3.0,-3.0,0.12060977,-3.0,3.0,1.2072906,-3.0,3.0,3.0,-3.0,-3.0,3.0,-3.0,-3.0,0.2699914,-3.0,3.0,1.0755024,-3.0
2025-06-06 08:54:47.107,-0.0014910109,0.052662693,0.06385492,-0.040690184,-0.01208134,0.042304587,0.0,0.0,0.0,0.06244602,0.2081304,1.005276,-0.4089975,-0.226085,1.0632125,-0.45362493,-0.22110794,0.098789014,-0.34026214,0.2559456,0.3929886,-0.36684155,-0.010431722,0.050942205,0.053316336,0.07567781,-0.055391725,0.05835189,0.02477626,0.063988365,0.035401743,0.061048772,-0.04934132,0.053994928,3.0,3.0,-3.0,-3.0,3.0,-3.0,-3.0,0.2699914,-3.0,3.0,1.0755024,-3.0,3.0,3.0,-3.0,-3.0,3.0,-3.0,-3.0,-0.04483985,-3.0,3.0,1.3631444,-3.0
2025-06-06 08:54:47.128,-0.006539401,-0.010688178,0.022817802,-0.027521297,0.005573259,-0.016177403,0.0,0.0,0.0,0.06224978,0.20488353,1.0092834,-0.40742466,-0.2203631,1.0524768,-0.45148486,-0.22554857,0.10321178,-0.34159184,0.2570369,0.39020464,-0.3711261,-0.053085946,0.04949691,-0.019532891,-0.027491327,-0.010632145,-0.027781846,0.05090349,0.037362278,0.013267317,-0.04763664,-0.04568508,0.023763074,3.0,3.0,-3.0,-3.0,3.0,-3.0,-3.0,-0.04483985,-3.0,3.0,1.3631444,-3.0,3.0,3.0,-3.0,-3.0,3.0,-3.0,-3.0,0.08703614,-3.0,3.0,1.2854705,-3.0
2025-06-06 08:54:47.152,-0.010260682,0.026373528,0.007262592,-0.05022426,-0.0053081587,-0.03386915,0.0,0.0,0.0,0.062443163,0.21511069,1.0136402,-0.4244647,-0.23979136,1.0602784,-0.46113375,-0.21729998,0.10381788,-0.34737593,0.25312626,0.38659948,-0.3758451,-0.015326941,-0.022289954,-0.039675895,-0.07948272,-0.045372896,0.008449311,-0.049996115,0.045969367,-0.010043723,-0.04471322,-0.0066536088,0.046946082,3.0,3.0,-3.0,-3.0,3.0,-3.0,-3.0,0.08703614,-3.0,3.0,1.2854705,-3.0,3.0,3.0,-3.0,-3.0,3.0,-3.0,-3.0,0.17798328,-3.0,3.0,1.2111201,-3.0
2025-06-06 08:54:47.169,0.0251509,-0.023711823,0.0055334927,-0.028826961,-0.03626025,0.033917986,0.0,0.0,0.0,0.06288519,0.19986519,1.0177829,-0.41067302,-0.22762515,1.0551159,-0.46100062,-0.222423,0.10423071,-0.3453436,0.25854748,0.39156297,-0.3683025,-0.007192892,0.0149132,0.021422662,0.03083415,-0.04505165,-0.004169227,0.035238422,0.0004149595,0.052526888,-0.022759154,0.045598194,0.030453028,3.0,3.0,-3.0,-3.0,3.0,-3.0,-3.0,0.17798328,-3.0,3.0,1.2111201,-3.0,3.0,3.0,-3.0,-3.0,3.0,-3.0,-3.0,0.1191702,-3.0,3.0,1.2180309,-3.0
2025-06-06 08:54:47.189,0.02352437,-0.041563943,0.031502925,-0.0143202655,-0.07403479,0.02634788,0.0,0.0,0.0,0.06309762,0.19971995,1.0034872,-0.40807676,-0.23793598,1.0514263,-0.44786677,-0.203548,0.085594855,-0.33789015,0.26127687,0.38627052,-0.36306423,0.07363783,0.025675144,-0.0150994435,0.06722242,0.073722444,0.041801106,-0.07396386,-0.040478516,-0.027489884,-0.043560114,0.03351341,0.035105832,3.0,3.0,-3.0,-3.0,3.0,-3.0,-3.0,0.1191702,-3.0,3.0,1.2180309,-3.0,3.0,3.0,-3.0,-3.0,3.0,-3.0,-3.0,0.06106139,-3.0,3.0,1.3205106,-3.0
2025-06-06 08:54:47.209,0.041915484,-0.002751158,0.010107362,0.036712646,-0.06635022,0.024230646,0.0,0.0,0.0,0.06314126,0.20382065,1.00028,-0.42509222,-0.22657755,1.0507922,-0.46127427,-0.21712893,0.09899727,-0.33821878,0.25783294,0.38917822,-0.37633067,0.03918534,-0.04270996,-0.026542705,-0.016567085,0.05862931,-0.07000931,-0.027899174,0.0074053807,0.021015324,-0.04704341,-0.06899678,0.0075613144,3.0,3.0,-3.0,-3.0,3.0,-3.0,-3.0,0.06106139,-3.0,3.0,1.3205106,-3.0,3.0,3.0,-3.0,-3.0,3.0,-3.0,-3.0,0.068307884,-3.0,3.0,1.2821145,-3.0
2025-06-06 08:54:47.229,-0.043623704,0.04709689,-0.052981433,0.0008718634,-0.06766152,0.026424361,0.0,0.0,0.0,0.063301414,0.1953645,1.0165557,-0.40794665,-0.23741665,1.0517908,-0.46047232,-0.20399857,0.082750425,-0.33653766,0.24543549,0.39279822,-0.37275526,-0.014814717,0.052250545,0.02573946,0.032023314,-0.053413842,0.02831612,-0.06503678,0.007339967,0.070334546,0.024266887,-0.06727649,0.017425084,3.0,3.0,-3.0,-3.0,3.0,-3.0,-3.0,0.068307884,-3.0,3.0,1.2821145,-3.0,3.0,3.0,-3.0,-3.0,3.0,-3.0,-3.0,0.22608948,-3.0,3.0,1.1005626,-3.0
2025-06-06 08:54:47.252,-0.025515601,-0.038671788,0.015096177,0.0054173144,-0.08682225,0.0061627445,0.0,0.0,0.0,0.0635318,0.2076999,1.0028414,-0.41529077,-0.22322594,1.0518695,-0.45109627,-0.20645171,0.09820582,-0.35077345,0.2522986,0.38221407,-0.37698036,0.043619186,0.07152406,-0.022089353,0.0058556967,-0.044838972,0.040104534,0.06826371,-0.02564912,-0.065042,-0.012045745,0.044667676,0.016276784,3.0,3.0,-3.0,-3.0,3.0,-3.0,-3.0,0.22608948,-3.0,3.0,1.1005626,-3.0,3.0,3.0,-3.0,-3.0,3.0,-3.0,-3.0,0.16602755,-3.0,3.0,1.2356446,-3.0
2025-06-06 08:54:47.269,0.046099756,0.029378872,-0.031579792,-0.02368415,-0.056338836,0.032228366,0.0,0.0,0.0,0.06335032,0.2157356,1.014589,-0.4082188,-0.23204593,1.0555849,-0.44955134,-0.21212997,0.100603715,-0.34040755,0.25305408,0.38170436,-0.3700203,-0.04311322,-0.07137449,0.071652226,0.042528477,0.010329266,0.0010670928,-0.07519941,-0.034525122,-0.0771732,0.030097857,-0.0042499965,-0.05148263,3.0,3.0,-3.0,-3.0,3.0,-3.0,-3.0,0.16602755,-3.0,3.0,1.2356446,-3.0,3.0,3.0,-3.0,-3.0,3.0,-3.0,-3.0,0.30789566,-3.0,3.0,1.1967473,-3.0
2025-06-06 08:54:47.289,-0.041500133,-0.06449164,0.07539387,-0.00418907,-0.07699082,-0.0042401957,0.0,0.0,0.0,0.06302037,0.21272498,1.0161256,-0.4169207,-0.22374634,1.0513246,-0.44908243,-0.2175215,0.10226876,-0.3569159,0.25286075,0.39863393,-0.36928016,0.009081335,0.018341785,0.060175102,-0.062576056,-0.008418377,0.003720959,0.066654064,0.08234295,-0.062872194,0.06699484,0.029030608,-0.039491903,3.0,3.0,-3.0,-3.0,3.0,-3.0,-3.0,0.30789566,-3.0,3.0,1.1967473,-3.0,3.0,3.0,-3.0,-3.0,3.0,-3.0,-3.0,0.010418899,-3.0,3.0,1.4258189,-3.0
2025-06-06 08:54:47.310,0.017794892,0.046179265,-0.014165009,0.04135966,-0.049329836,-0.017326722,0.0,0.0,0.0,0.062546335,0.20288043,1.0189983,-0.4151693,-0.2218106,1.0572501,-0.45870778,-0.21304977,0.105331436,-0.34292075,0.24656022,0.40080842,-0.37442386,-0.07578801,0.033593975,0.0051840316,0.04580924,0.050299723,-0.004769746,0.05755406,-0.02892859,-0.06741427,-0.008704221,0.02978465,-0.024039498,3.0,3.0,-3.0,-3.0,3.0,-3.0,-3.0,0.010418899,-3.0,3.0,1.4258189,-3.0,3.0,3.0,-3.0,-3.0,3.0,-3.0,-3.0,0.20919561,-3.0,3.0,1.2593307,-3.0
2025-06-06 08:54:47.330,-0.042129554,0.013653776,-0.014062046,-0.02767103,-0.013869214,-0.035041798,0.0,0.0,0.0,0.06256966,0.20886223,1.0111625,-0.4066559,-0.2361731,1.0645595,-0.46140638,-0.20838283,0.10287429,-0.35460395,0.24520952,0.39106047,-0.3847505,0.0021757693,0.055151932,-0.05461371,-0.04289728,0.06566934,0.0194471,-0.023596542,-0.002911007,0.027497381,0.07194615,0.054946396,0.05319945,3.0,3.0,-3.0,-3.0,3.0,-3.0,-3.0,0.20919561,-3.0,3.0,1.2593307,-3.0,3.0,3.0,-3.0,-3.0,3.0,-3.0,-3.0,0.17487955,-3.0,3.0,1.1450791,-3.0
2025-06-06 08:54:47.352,-0.03757094,0.016645033,0.051789317,0.04094158,-0.039729234,0.032069664,0.0,0.0,0.0,0.06270206,0.2001348,1.0075464,-0.413163,-0.2261689,1.0666231,-0.46235394,-0.22412795,0.09451419,-0.34641445,0.25771838,0.4020375,-0.38642436,0.07217043,-0.030901428,-0.028701328,-0.008615233,0.028444689,-0.012372687,0.024996571,0.03665124,-0.0372772,-0.002786361,-0.03507094,0.043439686,3.0,3.0,-3.0,-3.0,3.0,-3.0,-3.0,0.17487955,-3.0,3.0,1.1450791,-3.0,3.0,3.0,-3.0,-3.0,3.0,-3.0,-3.0,-0.023519032,-3.0,3.0,1.3747363,-3.0
2025-06-06 08:54:47.370,0.053523403,0.031187544,-0.044319592,0.02236016,-0.0744337,-0.008515791,0.0,0.0,0.0,0.06259371,0.20080636,1.0093731,-0.4189716,-0.23325652,1.0581456,-0.45259947,-0.21458566,0.09399199,-0.34551483,0.25526276,0.38493937,-0.37168112,0.06415429,0.009815629,-0.0047625904,-0.019336717,-0.06074353,-0.06201759,0.024923066,0.015360512,0.018791199,-0.052794404,0.003228663,0.059735093,3.0,3.0,-3.0,-3.0,3.0,-3.0,-3.0,-0.023519032,-3.0,3.0,1.3747363,-3.0,3.0,3.0,-3.0,-3.0,3.0,-3.0,-3.0,0.23481607,-3.0,3.0,1.1110299,-3.0
2025-06-06 08:54:47.390,0.030495172,-0.011683508,0.025037676,-0.04173834,-0.03323605,-0.02294777,0.0,0.0,0.0,0.06283557,0.21477216,1.0006331,-0.4192799,-0.23646954,1.0651275,-0.44716913,-0.22084747,0.08658883,-0.33889842,0.26125595,0.3865436,-0.37770885,0.0481365,0.019500373,0.013750722,0.015471044,-0.06327586,0.016383424,0.009104167,0.028162573,-0.07163186,-0.027839592,-0.005899517,0.037353434,3.0,3.0,-3.0,-3.0,3.0,-3.0,-3.0,0.23481607,-3.0,3.0,1.1110299,-3.0,3.0,3.0,-3.0,-3.0,3.0,-3.0,-3.0,0.12849998,-3.0,3.0,1.3019223,-3.0
2025-06-06 08:54:47.410,0.028514767,0.041607592,-0.030615292,-0.03646654,-0.027101247,0.020257315,0.0,0.0,0.0,0.06284795,0.21577162,1.0093338,-0.4158568,-0.22825058,1.0544598,-0.45316914,-0.20850396,0.09660101,-0.34902686,0.25457698,0.39011988,-0.37924016,0.05365412,-0.009017592,-0.039678812,-0.054978408,0.0011978601,-0.0545922,-0.0008148625,-0.026111372,0.06921745,-0.06882662,-0.021804163,-0.052035198,3.0,3.0,-3.0,-3.0,3.0,-3.0,-3.0,0.12849998,-3.0,3.0,1.3019223,-3.0,3.0,3.0,-3.0,-3.0,3.0,-3.0,-3.0,0.17788935,-3.0,3.0,1.1668942,-3.0
2025-06-06 08:54:47.430,-0.040927395,0.009097455,0.0079819225,0.014780044,-0.005213472,-0.0195606,0.0,0.0,0.0,0.06281409,0.20696267,1.0008217,-0.42479038,-0.22519782,1.0684043,-0.4502623,-0.22389041,0.094948515,-0.35210496,0.24338363,0.39477885,-0.37469816,0.010920934,0.06943816,0.032549165,0.030666396,0.01684597,0.058089714,-0.07472471,-0.06345146,0.04915742,-0.0148851955,-0.07716821,-0.02289285,3.0,3.0,-3.0,-3.0,3.0,-3.0,-3.0,0.17788935,-3.0,3.0,1.1668942,-3.0,3.0,3.0,-3.0,-3.0,3.0,-3.0,-3.0,0.14027739,-3.0,3.0,1.2452316,-3.0
2025-06-06 08:54:47.452,0.027071042,0.0371857,0.007565749,0.028256092,-0.025716634,0.0008977846,0.0,0.0,0.0,0.06269667,0.21331798,1.0051708,-0.4178496,-0.23466876,1.0658758,-0.45642066,-0.20766817,0.092423126,-0.3354539,0.25547332,0.38714612,-0.37687618,-0.04394621,0.06765905,-0.0633527,-0.054158762,0.0693777,0.021339977,0.026513254,-0.03603999,-0.057152666,-0.036845,-0.04357442,0.04301864,3.0,3.0,-3.0,-3.0,3.0,-3.0,-3.0,0.14027739,-3.0,3.0,1.2452316,-3.0,3.0,3.0,-3.0,-3.0,3.0,-3.0,-3.0,0.14216089,-3.0,3.0,1.2388544,-3.0
2025-06-06 08:54:47.470,-0.03752653,0.0093616145,0.03009855,-0.023477465,-0.061448827,-0.014261519,0.0,0.0,0.0,0.06259111,0.20096868,1.0097537,-0.42348626,-0.21906695,1.0692666,-0.46072298,-0.21643142,0.10771407,-0.3512118,0.24342832,0.3896717,-0.37634382,-0.044741374,-0.015865298,-0.034200102,-0.014556486,-0.0033660103,-0.06674392,-0.058337938,0.055151217,-0.02506838,-0.051707588,0.0029147197,0.05439218,3.0,3.0,-3.0,-3.0,3.0,-3.0,-3.0,0.14216089,-3.0,3.0,1.2388544,-3.0,3.0,3.0,-3.0,-3.0,3.0,-3.0,-3.0,0.11615706,-3.0,3.0,1.2708611,-3.0
2025-06-06 08:54:47.490,-0.01195997,-0.0297165,-0.046983257,0.029830255,0.008524674,-0.03552897,0.0,0.0,0.0,0.06255976,0.20848814,1.0072421,-0.41204208,-0.2350637,1.069671,-0.4504779,-0.21028158,0.09252575,-0.34425762,0.24464248,0.39463955,-0.37001172,0.047461286,-0.03376556,-0.008000561,-0.06674037,0.04889482,0.06010898,0.05064381,-0.07126975,-0.01655207,0.060578,0.028742073,-0.051627997,3.0,3.0,-3.0,-3.0,3.0,-3.0,-3.0,0.11615706,-3.0,3.0,1.2708611,-3.0,3.0,3.0,-3.0,-3.0,3.0,-3.0,-3.0,0.28049707,-3.0,3.0,1.1328874,-3.0
2025-06-06 08:54:47.510,-0.028342422,-0.019254852,-0.02310957,0.02039341,-0.046418022,0.032385003,0.0,0.0,0.0,0.06263669,0.21256873,1.0108266,-0.40678892,-0.23078352,1.0561496,-0.4518279,-0.20988256,0.09263971,-0.34990534,0.25248584,0.39349613,-0.3697087,-0.01908819,0.023759019,-0.0003226999,-0.05752459,0.06283645,0.06346651,-0.02487052,-0.04829099,0.016110979,-0.00025379716,0.007481575,-0.06291281,3.0,3.0,-3.0,-3.0,3.0,-3.0,-3.0,0.28049707,-3.0,3.0,1.1328874,-3.0,3.0,3.0,-3.0,-3.0,3.0,-3.0,-3.0,0.20414162,-3.0,3.0,1.1508236,-3.0
2025-06-06 08:54:47.530,-0.034898117,0.017654981,0.023560798,0.028428823,-0.08672953,0.025840273,0.0,0.0,0.0,0.062444445,0.21915308,1.0208722,-0.40844497,-0.23479415,1.0553358,-0.4444293,-0.21596928,0.10506141,-0.35340384,0.2565894,0.38446623,-0.36416122,-0.013367723,0.026272895,0.01889917,-0.052367426,-0.021096973,0.026420522,0.01901829,-0.046796236,0.022829998,0.017634973,-0.025638204,0.042704027,3.0,3.0,-3.0,-3.0,3.0,-3.0,-3.0,0.20414162,-3.0,3.0,1.1508236,-3.0,3.0,3.0,-3.0,-3.0,3.0,-3.0,-3.0,0.11890937,-3.0,3.0,1.2240825,-3.0
2025-06-06 08:54:47.552,0.044455364,0.040926002,-0.035221875,-0.021290625,-0.06928902,-0.031957008,0.0,0.0,0.0,0.062093776,0.21143438,1.012363,-0.4120936,-0.23377241,1.0618428,-0.4517965,-0.22590254,0.09356511,-0.3398203,0.2457373,0.3802466,-0.378912,-0.05670492,-0.068141975,0.0739216,0.005824217,0.004354922,0.032728888,-0.017732605,-0.04494381,0.04519086,-0.027204111,-0.035908934,-0.0034277458,3.0,3.0,-3.0,-3.0,3.0,-3.0,-3.0,0.11890937,-3.0,3.0,1.2240825,-3.0,3.0,3.0,-3.0,-3.0,3.0,-3.0,-3.0,0.2393732,-3.0,3.0,1.1270087,-3.0
2025-06-06 08:54:47.570,-0.04213118,0.019201374,0.011422186,0.018370913,-0.04940619,0.036641456,0.0,0.0,0.0,0.061946828,0.21321188,1.0183213,-0.41496927,-0.23283796,1.0638608,-0.45814943,-0.21198912,0.10844637,-0.34576726,0.25314727,0.38937914,-0.36297262,0.017245857,-0.034907002,0.022818008,0.06755524,-0.04798774,-0.06757375,0.034938272,0.067999825,0.06187807,-0.06944741,-0.06148925,-0.014403032,3.0,3.0,-3.0,-3.0,3.0,-3.0,-3.0,0.2393732,-3.0,3.0,1.1270087,-3.0,3.0,3.0,-3.0,-3.0,3.0,-3.0,-3.0,0.041625984,-3.0,3.0,1.2573013,-3.0
2025-06-06 08:54:47.590,0.028853025,-0.023086745,-0.043849625,-0.009419301,0.00885028,0.004269626,0.0,0.0,0.0,0.061765578,0.20752238,1.0107524,-0.41109052,-0.23364449,1.062407,-0.45125288,-0.22390987,0.10032424,-0.34864232,0.24370125,0.37981966,-0.36142877,0.01445044,0.028460152,0.06335695,0.025679661,-0.0572894,-0.05647988,-0.04602658,0.014853647,-0.063503735,0.025208347,-0.067221925,-0.06941097,3.0,3.0,-3.0,-3.0,3.0,-3.0,-3.0,0.041625984,-3.0,3.0,1.2573013,-3.0,3.0,3.0,-3.0,-3.0,3.0,-3.0,-3.0,0.3389802,-3.0,3.0,1.1695082,-3.0
2025-06-06 08:54:47.672,-0.0037120583,-0.031291477,-0.02752657,0.004933733,-0.045705684,-0.03883456,0.0,0.0,0.0,0.06186634,0.2031419,1.0085834,-0.4260578,-0.2176556,1.0588089,-0.46192345,-0.21857405,0.09429371,-0.3562562,0.2581036,0.39350647,-0.36091354,-0.05405056,-0.01087539,-0.030465638,0.03149883,-0.07169952,-0.008196357,-0.0597564,-0.047915373,-0.051084533,0.018383918,-0.031419147,0.03746206,3.0,3.0,-3.0,-3.0,3.0,-3.0,-3.0,0.3389802,-3.0,3.0,1.1695082,-3.0,3.0,3.0,-3.0,-3.0,3.0,-3.0,-3.0,0.3054452,-3.0,3.0,1.1510766,-3.0
2025-06-06 08:54:47.692,-0.033136845,-0.0320934,0.050226547,0.0032876576,-0.009778752,0.021629978,0.0,0.0,0.0,0.061837,0.21201313,1.0226747,-0.41061932,-0.21869929,1.058248,-0.4438709,-0.22591542,0.098790474,-0.35885432,0.24474293,0.37985572,-0.3683121,-0.07069519,0.025616795,0.044818353,-0.04831426,-0.012798341,0.07240337,0.005664931,-0.05724945,-0.040496007,-0.026899312,0.008496044,-0.04595037,3.0,3.0,-3.0,-3.0,3.0,-3.0,-3.0,0.3054452,-3.0,3.0,1.1510766,-3.0,3.0,3.0,-3.0,-3.0,3.0,-3.0,-3.0,0.1467557,-3.0,3.0,1.3189139,-3.0
2025-06-06 08:54:47.712,-0.009110757,-0.009976031,0.019966204,-0.03334939,-0.04465602,-0.00094011414,0.0,0.0,0.0,0.061562415,0.2034302,1.0194046,-0.40646815,-0.21988301,1.0647699,-0.4448853,-0.2212646,0.117593594,-0.362497,0.25387523,0.39491862,-0.36362612,0.064378895,0.044511523,0.06800377,-0.043023452,0.06374632,0.004713389,0.04967577,0.029473422,0.042851757,0.026058478,0.058972545,0.033077233,3.0,3.0,-3.0,-3.0,3.0,-3.0,-3.0,0.1467557,-3.0,3.0,1.3189139,-3.0,3.0,3.0,-3.0,-3.0,3.0,-3.0,-3.0,0.08125163,-3.0,3.0,1.2385612,-3.0
2025-06-06 08:54:47.733,0.046019446,-0.0234217,0.02165951,0.03271245,0.0017304579,0.021641342,0.0,0.0,0.0,0.0615843,0.21067971,1.0198094,-0.41961968,-0.22525066,1.0630726,-0.44758326,-0.2248187,0.10235713,-0.3575805,0.24802133,0.39250994,-0.3755977,0.04762779,0.003276256,0.06829535,0.023768365,0.021060156,-0.027764946,-0.029559419,0.0422014,-0.030109042,0.061436266,0.008920061,-0.021886567,3.0,3.0,-3.0,-3.0,3.0,-3.0,-3.0,0.08125163,-3.0,3.0,1.2385612,-3.0,3.0,3.0,-3.0,-3.0,3.0,-3.0,-3.0,0.121549614,-3.0,3.0,1.3218513,-3.0
2025-06-06 08:54:47.753,0.041621655,0.00827203,-0.07097311,0.015171315,0.0011885663,0.020298408,0.0,0.0,0.0,0.061906468,0.20573483,1.009751,-0.41164917,-0.22800364,1.0626426,-0.46198803,-0.21776105,0.11068843,-0.3516021,0.25874212,0.39674288,-0.37278718,-0.03423704,0.041737832,-0.03793465,-0.043547347,0.015224478,0.07271014,-0.065823674,-0.042964637,-0.002306654,-0.034172878,0.05243728,-0.004843469,3.0,3.0,-3.0,-3.0,3.0,-3.0,-3.0,0.121549614,-3.0,3.0,1.3218513,-3.0,3.0,3.0,-3.0,-3.0,3.0,-3.0,-3.0,0.36004257,-3.0,3.0,1.0201051,-3.0
2025-06-06 08:54:47.773,0.03389311,0.042381592,-0.013482076,0.040189967,-0.056598347,-0.011160309,0.0,0.0,0.0,0.062389713,0.20281874,1.0093687,-0.41900668,-0.23696464,1.0533862,-0.45743674,-0.20814656,0.10202415,-0.3470745,0.24619731,0.388129,-0.36566374,-0.0017118761,-0.0056141233,0.021203456,0.012367168,-0.06969101,0.029065562,-0.052313406,-0.031787585,-0.016460327,-0.01766609,0.044175982,-0.013653091,3.0,3.0,-3.0,-3.0,3.0,-3.0,-3.0,0.36004257,-3.0,3.0,1.0201051,-3.0,3.0,3.0,-3.0,-3.0,3.0,-3.0,-3.0,0.23488092,-3.0,3.0,1.1366737,-3.0
2025-06-06 08:54:47.794,0.029191373,0.009052225,-0.021593655,-0.04308461,-0.005122449,-0.016280059,0.0,0.0,0.0,0.062286444,0.21136287,1.005151,-0.41195658,-0.22054529,1.0508527,-0.4440436,-0.21237938,0.11186302,-0.3564138,0.257992,0.39651906,-0.36493278,-0.046563253,-0.052973878,-0.04308842,-0.02574653,-0.010792631,0.031706546,-0.07850156,-0.06385139,0.00486664,-0.05709606,0.050541703,0.010861156,3.0,3.0,-3.0,-3.0,3.0,-3.0,-3.0,0.23488092,-3.0,3.0,1.1366737,-3.0,3.0,3.0,-3.0,-3.0,3.0,-3.0,-3.0,0.27256536,-3.0,3.0,1.1079068,-3.0
2025-06-06 08:54:47.814,-0.025419077,-0.013925529,-0.0035279153,-0.0154027445,-0.08773396,-0.02570076,0.0,0.0,0.0,0.061887782,0.2181984,1.0045316,-0.42649028,-0.2191414,1.0560259,-0.45588547,-0.22720386,0.111513466,-0.35811567,0.2401309,0.39107734,-0.3744238,0.045257397,-0.03485833,-0.011006192,0.026479395,-0.04669191,0.010726152,0.0058014123,0.028796658,-0.0026020997,0.04055535,-0.05879001,0.04654219,3.0,3.0,-3.0,-3.0,3.0,-3.0,-3.0,0.27256536,-3.0,3.0,1.1079068,-3.0,3.0,3.0,-3.0,-3.0,3.0,-3.0,-3.0,0.17959404,-3.0,3.0,1.1773763,-3.0
2025-06-06 08:54:47.834,0.028341195,0.013711642,0.04119592,-0.013988783,-0.023436613,0.04577203,0.0,0.0,0.0,0.061436195,0.20420852,1.0209963,-0.42367804,-0.22551382,1.0519062,-0.4614382,-0.23051713,0.107438944,-0.3590419,0.2550111,0.37902507,-0.37176123,-0.0083979145,-0.014118712,-0.053465344,-0.049441785,0.03453363,0.014445992,0.04813196,-0.06478524,0.054862984,-0.04986272,-0.03662652,0.06646117,3.0,3.0,-3.0,-3.0,3.0,-3.0,-3.0,0.17959404,-3.0,3.0,1.1773763,-3.0,3.0,3.0,-3.0,-3.0,3.0,-3.0,-3.0,0.04692412,-3.0,3.0,1.2601819,-3.0
2025-06-06 08:54:47.853,0.018502884,0.054157846,0.02511041,-0.045394465,-0.039053414,0.02000161,0.0,0.0,0.0,0.06117378,0.21639024,1.0216156,-0.42063314,-0.22857246,1.0489423,-0.44373766,-0.21767107,0.10084615,-0.34462428,0.24337655,0.3846891,-0.37391654,-0.030420793,-0.058999225,-0.040402822,0.032967728,-0.060911547,-0.06265674,0.011954132,-0.049857445,0.021410884,-0.06651254,-0.05481308,-0.054369323,3.0,3.0,-3.0,-3.0,3.0,-3.0,-3.0,0.04692412,-3.0,3.0,1.2601819,-3.0,3.0,3.0,-3.0,-3.0,3.0,-3.0,-3.0,0.103923805,-3.0,3.0,1.3362637,-3.0
2025-06-06 08:54:47.878,0.029431455,0.042804386,-0.05422409,-0.0014909414,-0.07412738,-0.032936227,0.0,0.0,0.0,0.061386503,0.20674008,1.0216739,-0.4269366,-0.23342255,1.0571591,-0.45871156,-0.22108208,0.103791304,-0.34392986,0.24841012,0.38579455,-0.36535484,0.062098533,0.028599072,-0.036370356,-0.0064546503,0.005291016,0.06436121,-0.014541133,0.043144792,0.038723577,-0.03361032,-0.011785474,0.0016090554,3.0,3.0,-3.0,-3.0,3.0,-3.0,-3.0,0.103923805,-3.0,3.0,1.3362637,-3.0,3.0,3.0,-3.0,-3.0,3.0,-3.0,-3.0,0.23388672,-3.0,3.0,1.0759602,-3.0
2025-06-06 08:54:47.895,-0.01850895,-0.0072310236,0.042982604,-0.037323296,-0.042485785,0.0034610247,0.0,0.0,0.0,0.061960295,0.2103551,1.0132556,-0.42518544,-0.23735908,1.0548478,-0.45719305,-0.21974175,0.09288318,-0.3527861,0.26000246,0.3906612,-0.37293285,-0.06448235,0.07263031,-0.021270901,2.6554539e-05,0.046427988,-0.030543817,-0.010849499,-0.0740186,-0.017832344,-0.041458916,0.048507612,-0.022276115,3.0,3.0,-3.0,-3.0,3.0,-3.0,-3.0,0.23388672,-3.0,3.0,1.0759602,-3.0,3.0,3.0,-3.0,-3.0,3.0,-3.0,-3.0,0.08310223,-3.0,3.0,1.3276801,-3.0
2025-06-06 08:54:47.913,-0.0347066,0.00204752,-0.011083787,-0.048034053,-0.019790089,-0.0492159,0.0,0.0,0.0,0.062196825,0.20878331,1.0046836,-0.41991603,-0.23926407,1.0495055,-0.4637283,-0.22373252,0.10598974,-0.35165843,0.25719482,0.38154426,-0.36295605,0.063722715,-0.0698798,-0.03126366,-0.05565429,-0.013539343,-0.052538097,0.019331455,0.05606536,0.07727864,0.055322092,-0.019278506,-0.038508315,3.0,3.0,-3.0,-3.0,3.0,-3.0,-3.0,0.08310223,-3.0,3.0,1.3276801,-3.0,3.0,3.0,-3.0,-3.0,3.0,-3.0,-3.0,0.11984015,-3.0,3.0,1.195229,-3.0
2025-06-06 08:54:47.935,-0.00073675445,0.05069571,-0.0077814446,-0.04575314,-0.019355724,-0.030502422,0.0,0.0,0.0,0.062485665,0.21252276,1.0045248,-0.4216094,-0.22596516,1.053685,-0.46331236,-0.21984363,0.107368134,-0.35388395,0.24991544,0.39022717,-0.3761402,0.07136881,0.0011355319,-0.05423554,-0.030361807,-0.0693927,0.035117354,0.043293156,0.008638077,0.041103676,-0.018329604,-0.022147197,-0.053317904,3.0,3.0,-3.0,-3.0,3.0,-3.0,-3.0,0.11984015,-3.0,3.0,1.195229,-3.0,3.0,3.0,-3.0,-3.0,3.0,-3.0,-3.0,0.15671444,-3.0,3.0,1.2000833,-3.0
2025-06-06 08:54:47.953,-0.0041080657,0.030700032,0.017396953,0.017530946,-0.011730395,-0.00096089387,0.0,0.0,0.0,0.06275954,0.19779086,1.0188266,-0.41387242,-0.2248645,1.0639942,-0.45524123,-0.21768916,0.09627467,-0.34791666,0.2535244,0.3861895,-0.36532363,0.057340264,0.030410366,-0.051563714,0.07204656,-0.025000526,0.0609123,-0.021370051,0.012460574,0.00094408897,-0.017284203,0.01663559,-0.07026913,3.0,3.0,-3.0,-3.0,3.0,-3.0,-3.0,0.15671444,-3.0,3.0,1.2000833,-3.0,3.0,3.0,-3.0,-3.0,3.0,-3.0,-3.0,0.09453631,-3.0,3.0,1.2901056,-3.0
2025-06-06 08:54:47.973,-0.029188886,-0.00025790476,-0.018008264,-0.037124664,-0.07339571,-0.009232612,0.0,0.0,0.0,0.062851705,0.20932579,1.0116875,-0.42156002,-0.22210346,1.059741,-0.46077895,-0.21804082,0.09225601,-0.34636825,0.26212347,0.39607316,-0.37585178,0.0059236563,-0.047279406,-0.0035423748,0.055771153,0.04801534,0.04569544,0.0396229,-0.057420757,-0.00471157,-0.017933492,0.06946948,0.041625977,3.0,3.0,-3.0,-3.0,3.0,-3.0,-3.0,0.09453631,-3.0,3.0,1.2901056,-3.0,3.0,3.0,-3.0,-3.0,3.0,-3.0,-3.0,0.17631054,-3.0,3.0,1.2053938,-3.0
2025-06-06 08:54:47.993,0.004610298,-0.009816927,-0.0036947106,-0.030605113,0.0026575187,-0.045946103,0.0,0.0,0.0,0.062986866,0.21309064,1.0051534,-0.4165962,-0.22607984,1.0646901,-0.44798648,-0.2091422,0.09185743,-0.33954826,0.25198236,0.39678386,-0.3823446,-0.00014427253,0.06117861,0.008709814,0.011099627,0.07399875,0.07481708,0.0752668,-0.049605705,0.01205837,0.0476424,0.0122980615,0.03722189,3.0,3.0,-3.0,-3.0,3.0,-3.0,-3.0,0.17631054,-3.0,3.0,1.2053938,-3.0,3.0,3.0,-3.0,-3.0,3.0,-3.0,-3.0,0.13353682,-3.0,3.0,1.220252,-3.0
2025-06-06 08:54:48.013,0.011837585,0.013224512,-0.03381552,-0.024987215,-0.036235426,-0.0007219625,0.0,0.0,0.0,0.06299986,0.21080565,1.0097986,-0.42061383,-0.23252626,1.0667104,-0.4464923,-0.2134353,0.088985674,-0.33737966,0.24992988,0.38923296,-0.37648168,-0.012835223,-0.06326969,0.075447984,-0.025193477,0.0230653,-0.038776495,0.04702065,0.05542786,-0.060410213,-0.02387493,0.020065509,0.046425052,3.0,3.0,-3.0,-3.0,3.0,-3.0,-3.0,0.13353682,-3.0,3.0,1.220252,-3.0,3.0,3.0,-3.0,-3.0,3.0,-3.0,-3.0,0.2408309,-3.0,3.0,1.132319,-3.0
2025-06-06 08:54:48.035,-0.026956603,-0.0059471256,0.027583063,0.01894591,-0.07408082,0.029592399,0.0,0.0,0.0,0.062918656,0.21147814,1.0011437,-0.40959227,-0.22584315,1.0562049,-0.45060134,-0.21889561,0.10535551,-0.3482944,0.25596002,0.38112593,-0.3638444,-0.032171488,0.07248001,0.041733388,-0.04213198,-0.005832712,0.03235733,0.04249799,0.06703728,-0.008317224,0.06947182,-0.015025835,0.024045885,3.0,3.0,-3.0,-3.0,3.0,-3.0,-3.0,0.2408309,-3.0,3.0,1.132319,-3.0,3.0,3.0,-3.0,-3.0,3.0,-3.0,-3.0,0.089868076,-3.0,3.0,1.2339444,-3.0
2025-06-06 08:54:48.054,0.020486519,-0.025319967,0.02939936,-0.024891213,-0.08761377,0.036167342,0.0,0.0,0.0,0.062600605,0.20232657,1.0106738,-0.4196482,-0.2228549,1.0640545,-0.453436,-0.2078875,0.0991147,-0.35377723,0.25157025,0.38288984,-0.37462026,0.048127823,-0.028295426,-0.056608774,0.04127061,-0.0032154021,-0.06998057,-0.07286565,-0.051912166,-0.017157935,-0.048284415,0.017185839,0.0052863285,3.0,3.0,-3.0,-3.0,3.0,-3.0,-3.0,0.089868076,-3.0,3.0,1.2339444,-3.0,3.0,3.0,-3.0,-3.0,3.0,-3.0,-3.0,0.11545897,-3.0,3.0,1.3288786,-3.0
2025-06-06 08:54:48.074,0.048584376,0.019803742,-0.005371171,0.026265943,-0.07398024,0.041661683,0.0,0.0,0.0,0.062391892,0.2026707,1.010431,-0.4148295,-0.21948718,1.0619222,-0.46333042,-0.22236025,0.10402515,-0.33672065,0.2532156,0.38578117,-0.3658225,0.032929853,-0.018361391,-0.03755767,0.001859671,0.06328071,0.054152656,-0.06762558,0.052079402,0.050799854,-0.0373032,-0.005682362,-0.024378996,3.0,3.0,-3.0,-3.0,3.0,-3.0,-3.0,0.11545897,-3.0,3.0,1.3288786,-3.0,3.0,3.0,-3.0,-3.0,3.0,-3.0,-3.0,0.093103416,-3.0,3.0,1.2074604,-3.0
2025-06-06 08:54:48.094,0.009507974,-0.0020829474,-0.034124732,-0.004690279,-0.061713647,-0.026606662,0.0,0.0,0.0,0.06248512,0.2011477,1.0132397,-0.4219225,-0.23611774,1.0499938,-0.46411216,-0.20930159,0.09156964,-0.34847736,0.25317034,0.38806677,-0.3844453,-0.01846495,-0.05592827,-0.041259635,-0.021910511,-0.041601047,0.026629472,-0.020517664,-0.003220669,-0.03751091,-0.008816618,-0.02663517,-0.018310754,3.0,3.0,-3.0,-3.0,3.0,-3.0,-3.0,0.093103416,-3.0,3.0,1.2074604,-3.0,3.0,3.0,-3.0,-3.0,3.0,-3.0,-3.0,0.25688744,-3.0,3.0,1.1748431,-3.0
2025-06-06 08:54:48.114,-0.016452605,-0.030378208,0.007825928,0.0030541185,-0.07392149,-0.043667696,0.0,0.0,0.0,0.062640905,0.19955762,1.0098248,-0.41675815,-0.22507797,1.0540498,-0.46428573,-0.21126674,0.093845256,-0.3443521,0.2442596,0.38967985,-0.374974,0.002102691,0.008590602,0.07410107,0.027690616,0.04124076,0.00069157593,-0.07154294,-0.03329703,0.05586884,-0.040199976,0.052799597,0.016360303,3.0,3.0,-3.0,-3.0,3.0,-3.0,-3.0,0.25688744,-3.0,3.0,1.1748431,-3.0,3.0,3.0,-3.0,-3.0,3.0,-3.0,-3.0,0.1260047,-3.0,3.0,1.2097249,-3.0
2025-06-06 08:54:48.135,0.045118995,0.050755486,-0.002918943,-0.015401519,-0.012542421,0.030636428,0.0,0.0,0.0,0.06253751,0.21931,1.0199455,-0.4089795,-0.2198874,1.0603517,-0.45040888,-0.2236502,0.09556031,-0.3528859,0.2551002,0.38947517,-0.36435235,-0.04866409,0.05595835,-0.025861265,0.029568952,-0.020556044,-0.059733707,-0.02197422,-0.005523446,-0.07041837,-0.023730071,-0.012400758,-0.066061996,3.0,3.0,-3.0,-3.0,3.0,-3.0,-3.0,0.1260047,-3.0,3.0,1.2097249,-3.0,3.0,3.0,-3.0,-3.0,3.0,-3.0,-3.0,0.22073078,-3.0,3.0,1.2585366,-3.0
2025-06-06 08:54:48.154,0.019819906,-0.034936354,-0.038620412,-0.03358683,-0.059391785,-0.0018501176,0.0,0.0,0.0,0.06240211,0.21653481,1.0169547,-0.41423783,-0.22391291,1.0547749,-0.46374816,-0.21971048,0.096643865,-0.35761383,0.2557162,0.39948967,-0.37901524,0.03666599,0.010420332,-0.003359631,-0.03676347,-0.0044761444,0.07571127,-0.0020846897,0.019904973,0.051110394,-0.024775442,-0.034287486,-0.04525898,3.0,3.0,-3.0,-3.0,3.0,-3.0,-3.0,0.22073078,-3.0,3.0,1.2585366,-3.0,3.0,3.0,-3.0,-3.0,3.0,-3.0,-3.0,0.21499872,-3.0,3.0,1.1437702,-3.0
2025-06-06 08:54:48.174,0.0061938656,0.03233197,0.046541344,-0.0136300055,-0.08566245,-0.03708144,0.0,0.0,0.0,0.0623058,0.22048756,1.0093178,-0.41538545,-0.23399523,1.0668681,-0.45905185,-0.21488857,0.09921301,-0.3521886,0.2500398,0.38100642,-0.37141576,0.058182828,-0.020327723,0.0028169185,-0.064274795,0.039960127,0.03751067,0.0502629,0.006370745,-0.06342203,-0.023548396,-0.058353525,-0.028295767,3.0,3.0,-3.0,-3.0,3.0,-3.0,-3.0,0.21499872,-3.0,3.0,1.1437702,-3.0,3.0,3.0,-3.0,-3.0,3.0,-3.0,-3.0,0.0687213,-3.0,3.0,1.3467338,-3.0
2025-06-06 08:54:48.194,-0.039124597,-0.032070186,0.031445783,-0.024250086,-0.07428891,-0.0005925251,0.0,0.0,0.0,0.062091514,0.2130936,1.0075884,-0.41278744,-0.22452122,1.0669837,-0.45492065,-0.20959368,0.105469316,-0.34725845,0.246047,0.38945016,-0.38008898,0.060719535,-0.050621923,-0.0074622026,-0.037951328,0.068222076,-0.06709319,0.019171275,-0.056982733,0.07440716,0.00023521067,0.042770475,0.05905815,3.0,3.0,-3.0,-3.0,3.0,-3.0,-3.0,0.0687213,-3.0,3.0,1.3467338,-3.0,3.0,3.0,-3.0,-3.0,3.0,-3.0,-3.0,0.037523277,-3.0,3.0,1.2914219,-3.0
2025-06-06 08:54:48.214,-0.04592578,0.042858206,-0.06918023,-0.002629813,-0.011168786,-0.003953014,0.0,0.0,0.0,0.062199753,0.20251721,1.0045875,-0.4164127,-0.22284733,1.0543082,-0.46262655,-0.2164823,0.09379548,-0.35535708,0.25042945,0.38807628,-0.37024528,-0.039507948,0.02280242,0.037633404,0.05711245,-0.07050781,0.0057540853,0.071930654,-0.036361407,-0.056373697,-0.06571696,0.043380085,-0.07158977,3.0,3.0,-3.0,-3.0,3.0,-3.0,-3.0,0.037523277,-3.0,3.0,1.2914219,-3.0,3.0,3.0,-3.0,-3.0,3.0,-3.0,-3.0,0.3691306,-3.0,3.0,1.0894556,-3.0
2025-06-06 08:54:48.235,-0.009340451,-0.007936955,0.03662259,0.038064126,-0.056013536,0.005894468,0.0,0.0,0.0,0.06261679,0.20503083,1.0159289,-0.4241267,-0.22685108,1.0697762,-0.45393392,-0.2186385,0.10804759,-0.35058358,0.2431647,0.38198057,-0.38127172,-0.056733847,-0.0020798808,0.07394836,0.0011980059,-0.010983193,-0.046544142,-0.0225003,0.039382383,0.05782743,-0.037761398,-0.017710036,-0.04692735,3.0,3.0,-3.0,-3.0,3.0,-3.0,-3.0,0.3691306,-3.0,3.0,1.0894556,-3.0,3.0,3.0,-3.0,-3.0,3.0,-3.0,-3.0,0.051897056,-3.0,3.0,1.2967992,-3.0
2025-06-06 08:54:48.254,0.039598886,-0.0020680658,-0.049625322,0.0129806595,-0.05729364,0.015517906,0.0,0.0,0.0,0.06251816,0.19996361,1.0209458,-0.40718043,-0.23803821,1.062114,-0.4518289,-0.21424115,0.102843694,-0.3395872,0.25396803,0.39604694,-0.3783655,0.05456664,-0.013338708,0.008610609,-0.04524434,0.029605256,-0.022684367,-0.023451427,-0.020772196,0.025672872,-0.06967238,-0.052774817,-0.06589162,3.0,3.0,-3.0,-3.0,3.0,-3.0,-3.0,0.051897056,-3.0,3.0,1.2967992,-3.0,3.0,3.0,-3.0,-3.0,3.0,-3.0,-3.0,0.22713804,-3.0,3.0,1.1555257,-3.0
2025-06-06 08:54:48.274,0.030744452,0.02230508,0.004942683,0.021903943,-0.049950387,0.0454443,0.0,0.0,0.0,0.06249119,0.21546301,1.0198673,-0.42342317,-0.23496628,1.0555415,-0.4516121,-0.22249357,0.109080546,-0.35267103,0.24366307,0.39060852,-0.36540824,0.06128008,-0.057248984,-0.016737968,0.016630905,0.07019095,0.026561886,-0.044133637,-0.06841663,0.04675746,0.03487496,-0.05966452,-0.048332803,3.0,3.0,-3.0,-3.0,3.0,-3.0,-3.0,0.22713804,-3.0,3.0,1.1555257,-3.0,3.0,3.0,-3.0,-3.0,3.0,-3.0,-3.0,0.1146493,-3.0,3.0,1.2393427,-3.0
2025-06-06 08:54:48.294,-0.008248776,-0.03381118,0.028289104,-0.033268567,-0.071486786,0.020602366,0.0,0.0,0.0,0.062409908,0.20702185,1.0137762,-0.41731012,-0.23678042,1.0522236,-0.45752063,-0.21663293,0.09206733,-0.34782624,0.2590855,0.38393596,-0.3712812,-0.050046332,-0.033522576,0.069451444,0.055825096,-0.022546379,0.03070019,-0.018102132,0.04624937,0.058571458,0.050632555,-0.0650505,0.037929744,3.0,3.0,-3.0,-3.0,3.0,-3.0,-3.0,0.1146493,-3.0,3.0,1.2393427,-3.0,3.0,3.0,-3.0,-3.0,3.0,-3.0,-3.0,0.040083416,-3.0,3.0,1.3117876,-3.0
2025-06-06 08:54:48.317,0.012517517,0.03938661,0.029950956,0.0066609923,-0.060320243,-0.041941322,0.0,0.0,0.0,0.06237454,0.20964621,1.0059892,-0.4159111,-0.2241809,1.0619559,-0.45987445,-0.21298571,0.09183716,-0.34529805,0.26143673,0.39426208,-0.37497595,0.0682316,-0.06510693,0.059790332,-0.03641698,0.040763646,-0.022624101,0.04350419,0.06162511,0.057845995,-0.032429088,0.036004506,-0.022100762,3.0,3.0,-3.0,-3.0,3.0,-3.0,-3.0,0.040083416,-3.0,3.0,1.3117876,-3.0,3.0,3.0,-3.0,-3.0,3.0,-3.0,-3.0,-0.017828457,-3.0,3.0,1.3250594,-3.0
2025-06-06 08:54:48.335,-0.028220564,0.05313858,-0.00012841231,-0.0453797,-0.0380806,0.023905998,0.0,0.0,0.0,0.062642455,0.2037302,1.0149419,-0.4211433,-0.23601355,1.0525926,-0.4509938,-0.21543613,0.08851835,-0.35294196,0.25149682,0.3985258,-0.37716994,-0.040084038,0.05501855,-0.017972613,-0.04127196,0.06379863,0.04420284,-0.024786927,0.023110896,-0.066535816,0.0015574816,-0.024653945,-0.026650883,3.0,3.0,-3.0,-3.0,3.0,-3.0,-3.0,-0.017828457,-3.0,3.0,1.3250594,-3.0,3.0,3.0,-3.0,-3.0,3.0,-3.0,-3.0,0.17001963,-3.0,3.0,1.27051,-3.0
2025-06-06 08:54:48.354,-0.04148968,0.032495383,-0.056063447,-0.031842634,-0.00456899,0.0001922536,0.0,0.0,0.0,0.06320099,0.21212691,1.0128931,-0.41771474,-0.23797913,1.0531735,-0.45748818,-0.22098409,0.092600994,-0.33770669,0.253606,0.39825472,-0.3796488,-0.058256064,-0.027574457,0.049942207,-0.0015412027,0.06439552,-0.06465001,-0.06652511,-0.045674674,0.01992709,0.034985416,-0.039576698,-0.023795491,3.0,3.0,-3.0,-3.0,3.0,-3.0,-3.0,0.17001963,-3.0,3.0,1.27051,-3.0,3.0,3.0,-3.0,-3.0,3.0,-3.0,-3.0,0.27493525,-3.0,3.0,1.121047,-3.0
2025-06-06 08:54:48.375,-0.0088173915,0.01808533,-0.005950289,-0.03178703,-0.062677816,-0.039491966,0.0,0.0,0.0,0.06361396,0.20536503,1.0070451,-0.4248574,-0.23765817,1.0667955,-0.452756,-0.22301935,0.09757048,-0.3398215,0.2628245,0.39262566,-0.3658604,0.03926999,-0.04584874,-0.021363469,0.014799173,-0.056741897,0.04635726,-0.07364077,0.03232443,0.056503538,-0.008332533,0.06354254,0.07283081,3.0,3.0,-3.0,-3.0,3.0,-3.0,-3.0,0.27493525,-3.0,3.0,1.121047,-3.0,3.0,3.0,-3.0,-3.0,3.0,-3.0,-3.0,0.14134169,-3.0,3.0,1.1458831,-3.0
2025-06-06 08:54:48.395,-0.02767468,-0.029530002,0.026918178,-0.03536633,0.0050007617,0.049560465,0.0,0.0,0.0,0.06346022,0.20643249,1.0143676,-0.41229522,-0.23493038,1.0639445,-0.45722172,-0.20918092,0.09726415,-0.33676738,0.25550872,0.40046272,-0.36509722,-0.055026777,-0.06861607,-0.06338322,0.040707354,0.061292123,0.066797115,0.049862746,-0.040479723,-0.013198984,0.047448747,-0.04682063,0.009502475,3.0,3.0,-3.0,-3.0,3.0,-3.0,-3.0,0.14134169,-3.0,3.0,1.1458831,-3.0,3.0,3.0,-3.0,-3.0,3.0,-3.0,-3.0,0.058443077,-3.0,3.0,1.3270574,-3.0
2025-06-06 08:54:48.418,0.015753819,-0.013175572,-0.012895521,-0.040187083,-0.030780932,0.023271509,0.0,0.0,0.0,0.06306305,0.21004133,1.0014852,-0.4155928,-0.22492565,1.0521286,-0.45368335,-0.20678075,0.08623682,-0.3451319,0.2561735,0.39498103,-0.37224665,0.019852562,0.004448107,-0.049019795,0.028223526,0.06769032,0.00055362785,-0.067500554,0.034366604,0.067931384,-0.010832447,0.014995591,-0.02739323,3.0,3.0,-3.0,-3.0,3.0,-3.0,-3.0,0.058443077,-3.0,3.0,1.3270574,-3.0,3.0,3.0,-3.0,-3.0,3.0,-3.0,-3.0,0.09726525,-3.0,3.0,1.2202048,-3.0
2025-06-06 08:54:48.435,0.0386773,0.029180361,-0.035213172,-0.027383473,0.0028296881,-0.032700032,0.0,0.0,0.0,0.0629777,0.21393524,1.010899,-0.4249297,-0.23739816,1.0502735,-0.46562037,-0.21451418,0.08541774,-0.33764946,0.2444217,0.38377914,-0.37779245,-0.042476315,-0.023508852,0.07269913,0.05022283,-0.04588103,0.03309919,0.03635599,0.04539269,-0.042694833,-0.006462497,-0.05568415,0.027530145,3.0,3.0,-3.0,-3.0,3.0,-3.0,-3.0,0.09726525,-3.0,3.0,1.2202048,-3.0,3.0,3.0,-3.0,-3.0,3.0,-3.0,-3.0,0.2559495,-3.0,3.0,1.1425939,-3.0
2025-06-06 08:54:48.455,-0.044864032,-0.0098183295,-0.023237772,-0.021320697,-0.08495075,-0.0062525207,0.0,0.0,0.0,0.06302998,0.20379938,1.0064903,-0.41988146,-0.23488851,1.0659328,-0.4638503,-0.21396162,0.10076589,-0.3545849,0.25410303,0.39343652,-0.3669422,0.017096797,0.011373886,0.022988163,0.0058211777,0.034690548,-0.038091533,-0.041664276,0.06378532,0.0011493809,0.053580776,-0.050669413,0.02923757,3.0,3.0,-3.0,-3.0,3.0,-3.0,-3.0,0.2559495,-3.0,3.0,1.1425939,-3.0,3.0,3.0,-3.0,-3.0,3.0,-3.0,-3.0,0.18019247,-3.0,3.0,1.1571226,-3.0
2025-06-06 08:54:48.475,0.01144054,-0.044665713,0.037909433,-0.045741048,-0.07850441,-0.03832075,0.0,0.0,0.0,0.062803246,0.218883,1.0153282,-0.419758,-0.23680902,1.0596236,-0.4567219,-0.21682318,0.10417522,-0.35507226,0.25822148,0.38382992,-0.36422324,-0.045956623,0.040572904,0.05661698,0.07272609,0.04960955,-0.016938703,-0.03690245,-0.056973133,0.030941354,0.048234656,-0.055903547,0.039118852,3.0,3.0,-3.0,-3.0,3.0,-3.0,-3.0,0.18019247,-3.0,3.0,1.1571226,-3.0,3.0,3.0,-3.0,-3.0,3.0,-3.0,-3.0,0.08623267,-3.0,3.0,1.3181312,-3.0
2025-06-06 08:54:48.495,0.027175594,0.03463723,-0.008401624,-0.012353433,-0.05546353,0.013794385,0.0,0.0,0.0,0.06244707,0.20940754,1.0102534,-0.40663514,-0.23237282,1.0625246,-0.446777,-0.22051449,0.102547884,-0.35379195,0.242678,0.3844546,-0.37308422,-0.014476282,0.023390912,-0.061505385,0.057797786,-0.060125947,-0.014304007,-0.0036824516,-0.024077523,-0.0015517034,0.02072057,-0.0032499328,-0.050763216,3.0,3.0,-3.0,-3.0,3.0,-3.0,-3.0,0.08623267,-3.0,3.0,1.3181312,-3.0,3.0,3.0,-3.0,-3.0,3.0,-3.0,-3.0,0.1993475,-3.0,3.0,1.247102,-3.0
2025-06-06 08:54:48.518,-0.011786155,0.016989637,0.034883622,-0.020915749,-0.018624563,-0.024382968,0.0,0.0,0.0,0.06241939,0.20080617,1.0170913,-0.41434923,-0.22075348,1.0683172,-0.46035644,-0.2261278,0.09081853,-0.34614196,0.25952536,0.39637777,-0.37974545,0.01573649,0.045485307,-0.047318354,-0.024761569,0.015584767,0.06780051,-0.059349347,0.028970033,0.044988908,0.024658967,-0.0058694547,-0.033791125,3.0,3.0,-3.0,-3.0,3.0,-3.0,-3.0,0.1993475,-3.0,3.0,1.247102,-3.0,3.0,3.0,-3.0,-3.0,3.0,-3.0,-3.0,0.030464657,-3.0,3.0,1.3287911,-3.0
2025-06-06 08:54:48.535,-0.028838584,0.017550694,-0.024095148,-0.016468791,-0.06919372,-0.028700363,0.0,0.0,0.0,0.06248851,0.20021106,1.0100986,-0.41260406,-0.22755335,1.0661343,-0.45551822,-0.22769545,0.0920755,-0.34276336,0.26021922,0.39208803,-0.37502632,-0.06609857,-0.035378996,0.038845215,-0.059208013,0.017143035,0.018516948,0.036746647,-0.031529736,0.010578599,0.0069671357,-0.05757794,-0.06972313,3.0,3.0,-3.0,-3.0,3.0,-3.0,-3.0,0.030464657,-3.0,3.0,1.3287911,-3.0,3.0,3.0,-3.0,-3.0,3.0,-3.0,-3.0,0.20379877,-3.0,3.0,1.2308369,-3.0
2025-06-06 08:54:48.555,-0.019184563,-0.037781432,0.038309183,0.010379321,0.007512243,-0.00092538726,0.0,0.0,0.0,0.062793024,0.209944,1.007676,-0.41581866,-0.24013837,1.0553683,-0.44830704,-0.21016562,0.08967417,-0.3550012,0.26206234,0.39891428,-0.3808426,0.050718468,0.04818869,0.005181208,0.017779607,0.058544517,-0.037263814,0.014622579,0.03498002,-0.042552512,-0.030111281,-0.041956007,0.0109322965,3.0,3.0,-3.0,-3.0,3.0,-3.0,-3.0,0.20379877,-3.0,3.0,1.2308369,-3.0,3.0,3.0,-3.0,-3.0,3.0,-3.0,-3.0,0.02738095,-3.0,3.0,1.3696139,-3.0
2025-06-06 08:54:48.575,0.042838514,-0.023906367,-0.065305874,0.030166639,-0.077841766,-0.049507275,0.0,0.0,0.0,0.06299819,0.20910795,1.0176771,-0.42198122,-0.22963645,1.0633912,-0.4464769,-0.22240743,0.09770052,-0.33733147,0.25428218,0.39813656,-0.38066337,0.069242276,-0.034225825,-0.02429146,-0.06305446,-0.055475175,-0.056955647,-0.023522418,-0.046809204,0.0061162603,-0.0017424457,0.02508097,-0.07684118,3.0,3.0,-3.0,-3.0,3.0,-3.0,-3.0,0.02738095,-3.0,3.0,1.3696139,-3.0,3.0,3.0,-3.0,-3.0,3.0,-3.0,-3.0,0.3236971,-3.0,3.0,1.1311579,-3.0
2025-06-06 08:54:48.595,0.0024662227,-0.001169804,0.011965331,-0.014475008,-0.046548266,-0.012144928,0.0,0.0,0.0,0.06334484,0.20291057,1.0013485,-0.4207428,-0.22285786,1.067651,-0.46275273,-0.21902606,0.10193428,-0.34326705,0.24725063,0.38715503,-0.37497276,0.06971529,0.015967542,-0.074335486,-0.03770025,-0.028166715,-0.036852516,0.039814994,0.002509302,-0.001988412,-0.047442824,-0.0014755571,-0.04699613,3.0,3.0,-3.0,-3.0,3.0,-3.0,-3.0,0.3236971,-3.0,3.0,1.1311579,-3.0,3.0,3.0,-3.0,-3.0,3.0,-3.0,-3.0,0.12184382,-3.0,3.0,1.2461283,-3.0
2025-06-06 08:54:48.618,0.023601227,0.023575092,0.003171934,0.029981101,-0.045111593,-0.0033022973,0.0,0.0,0.0,0.06326292,0.21454063,1.0151185,-0.41240782,-0.24002989,1.0642428,-0.45220855,-0.22015765,0.0890087,-0.3551796,0.25145558,0.3865814,-0.37530008,-0.07294631,-0.07017123,0.04036573,0.0670263,-0.0025432871,0.046140946,-0.02655192,0.048913438,-0.03555422,0.019187497,-0.018280152,0.037481174,3.0,3.0,-3.0,-3.0,3.0,-3.0,-3.0,0.12184382,-3.0,3.0,1.2461283,-3.0,3.0,3.0,-3.0,-3.0,3.0,-3.0,-3.0,0.1615262,-3.0,3.0,1.2429581,-3.0
2025-06-06 08:54:48.635,-0.041570064,-0.037889514,-0.026237318,-0.013980897,0.0056408932,0.02826644,0.0,0.0,0.0,0.063047506,0.20801161,1.0186483,-0.424929,-0.22729872,1.0604125,-0.46041176,-0.21015799,0.10147859,-0.35468405,0.26368034,0.39704525,-0.37903604,0.035381343,0.006225497,0.021450967,-0.0669809,0.0036905336,0.022396626,0.065630205,0.053738143,-0.06300424,-0.0007857595,-0.046837453,-0.06118269,3.0,3.0,-3.0,-3.0,3.0,-3.0,-3.0,0.1615262,-3.0,3.0,1.2429581,-3.0,3.0,3.0,-3.0,-3.0,3.0,-3.0,-3.0,0.21836853,-3.0,3.0,1.2199707,-3.0
2025-06-06 08:54:48.655,0.035730965,-0.007647418,0.010703171,0.03306364,-0.07353595,0.031745493,0.0,0.0,0.0,0.06290523,0.2093847,1.0036482,-0.41388434,-0.22981739,1.0645068,-0.45974225,-0.22305456,0.1099297,-0.3554715,0.2583671,0.3959435,-0.3834594,0.054848272,0.029928027,0.053380646,-0.034390952,0.060472105,0.06015128,-0.013567664,-0.023756268,0.015169472,0.06489109,-0.045440778,-0.012613352,3.0,3.0,-3.0,-3.0,3.0,-3.0,-3.0,0.21836853,-3.0,3.0,1.2199707,-3.0,3.0,3.0,-3.0,-3.0,3.0,-3.0,-3.0,0.11055613,-3.0,3.0,1.2708061,-3.0
2025-06-06 08:54:48.676,0.029381128,0.03456286,0.042605236,-0.004632948,-0.07947196,0.04478416,0.0,0.0,0.0,0.06270751,0.2007523,1.0160552,-0.42359343,-0.22570556,1.0531404,-0.4514193,-0.21623899,0.10474076,-0.3431136,0.26106364,0.39190054,-0.3714782,-0.010760988,0.043263942,0.04188254,0.06480752,0.049819615,0.00657957,0.011346186,0.043673027,-0.03178938,0.07338703,-0.07280697,-0.011883063,3.0,3.0,-3.0,-3.0,3.0,-3.0,-3.0,0.11055613,-3.0,3.0,1.2708061,-3.0,3.0,3.0,-3.0,-3.0,3.0,-3.0,-3.0,0.0145092085,-3.0,3.0,1.4043627,-3.0
2025-06-06 08:54:48.695,-0.024232317,-0.038916092,-0.012795174,-0.008086227,-0.031173818,-0.013457214,0.0,0.0,0.0,0.06265263,0.2094749,1.0109706,-0.40658116,-0.23963782,1.0565649,-0.4482151,-0.21596166,0.098098144,-0.34918535,0.2622806,0.38894427,-0.3797968,-0.035044417,-0.022920629,0.019213812,0.007832073,0.05099314,0.061757434,-0.01993434,0.011197607,0.025987575,-0.070126206,0.003947693,-0.0278228,3.0,3.0,-3.0,-3.0,3.0,-3.0,-3.0,0.0145092085,-3.0,3.0,1.4043627,-3.0,3.0,3.0,-3.0,-3.0,3.0,-3.0,-3.0,0.15227556,-3.0,3.0,1.2351079,-3.0
2025-06-06 08:54:48.718,-0.0007988478,-0.037520096,0.03155915,0.005333566,-0.059449323,-0.047312763,0.0,0.0,0.0,0.06303218,0.21220501,1.0206536,-0.4200645,-0.22869807,1.0595406,-0.45048246,-0.22107242,0.0869457,-0.3444298,0.25692308,0.3874939,-0.38595107,0.07012556,-0.057558432,-0.05337178,0.045783315,-0.044149566,-0.011169981,0.05316409,0.026928963,0.040219318,0.026069945,0.06856829,0.0033353844,3.0,3.0,-3.0,-3.0,3.0,-3.0,-3.0,0.15227556,-3.0,3.0,1.2351079,-3.0,3.0,3.0,-3.0,-3.0,3.0,-3.0,-3.0,0.016806133,-3.0,3.0,1.3337016,-3.0
2025-06-06 08:54:48.736,-0.0386784,0.042482257,-0.02180053,-0.04655329,-0.004285379,-0.042883992,0.0,0.0,0.0,0.06335395,0.21124086,1.015146,-0.4107772,-0.23208211,1.0558286,-0.45278895,-0.21139148,0.098578304,-0.33699894,0.2484729,0.39563006,-0.37614167,-0.019763427,0.0334518,0.012468846,0.04815435,-0.046371564,0.0025216595,-0.05788923,-0.023573395,-5.4956177e-05,0.063456826,-0.02504105,0.019806307,3.0,3.0,-3.0,-3.0,3.0,-3.0,-3.0,0.016806133,-3.0,3.0,1.3337016,-3.0,3.0,3.0,-3.0,-3.0,3.0,-3.0,-3.0,0.23583889,-3.0,3.0,1.2077534,-3.0
2025-06-06 08:54:48.756,0.01446795,-0.00012891552,-0.0057068,-0.051025495,-0.041982897,-0.01654937,0.0,0.0,0.0,0.06371927,0.20837215,1.0031512,-0.42152232,-0.23285426,1.0637829,-0.4578623,-0.21297699,0.092248484,-0.3340526,0.2646846,0.39359057,-0.37369967,0.022806875,0.046881378,-0.0016347643,-0.049564566,0.010767331,0.02666571,-0.037693318,-0.047927294,-0.028327996,0.050542295,0.0037222246,-0.047453362,3.0,3.0,-3.0,-3.0,3.0,-3.0,-3.0,0.23583889,-3.0,3.0,1.2077534,-3.0,3.0,3.0,-3.0,-3.0,3.0,-3.0,-3.0,0.19453669,-3.0,3.0,1.2585447,-3.0
2025-06-06 08:54:48.776,0.05080428,-0.020515807,0.026561247,0.028538853,-0.085400224,0.0391244,0.0,0.0,0.0,0.06378392,0.20496608,1.0164965,-0.42352748,-0.23411426,1.0589949,-0.4551826,-0.2141112,0.095789224,-0.33800313,0.24784815,0.4066156,-0.3755518,-0.008865114,-0.010501341,-0.02576912,0.07439312,0.008296444,0.005453605,0.06282664,0.078005314,-0.026526026,-0.06566823,0.03618891,-0.060157742,3.0,3.0,-3.0,-3.0,3.0,-3.0,-3.0,0.19453669,-3.0,3.0,1.2585447,-3.0,3.0,3.0,-3.0,-3.0,3.0,-3.0,-3.0,0.021990307,-3.0,3.0,1.360045,-3.0
2025-06-06 08:54:48.796,-0.016622245,-0.013441914,-0.021580487,-0.0030200097,0.009046617,-0.035657182,0.0,0.0,0.0,0.063594915,0.2041082,1.0082123,-0.42338228,-0.23337288,1.0552002,-0.4638201,-0.22242577,0.10309696,-0.3408532,0.2507721,0.3931502,-0.37971973,0.025223147,-0.06504529,-0.0052822614,-0.008422736,0.0438861,-0.020397414,-0.015108169,0.060499318,0.018659944,-0.06736292,0.012876568,0.00660068,3.0,3.0,-3.0,-3.0,3.0,-3.0,-3.0,0.021990307,-3.0,3.0,1.360045,-3.0,3.0,3.0,-3.0,-3.0,3.0,-3.0,-3.0,0.16054487,-3.0,3.0,1.1781728,-3.0
2025-06-06 08:54:48.818,0.005015407,0.046450175,0.020868631,-0.006846439,-0.0011474097,-0.036817737,0.0,0.0,0.0,0.063651256,0.19959146,1.0140212,-0.41375986,-0.23488809,1.0675106,-0.44723535,-0.20942351,0.08833808,-0.34114945,0.25716892,0.38931882,-0.37557992,0.008933668,-0.04365687,0.06016418,-0.009015649,0.04436721,-0.022434589,-0.005553167,-0.032509286,0.07255492,-0.044194162,0.03760469,-0.0253636,3.0,3.0,-3.0,-3.0,3.0,-3.0,-3.0,0.16054487,-3.0,3.0,1.1781728,-3.0,3.0,3.0,-3.0,-3.0,3.0,-3.0,-3.0,0.050317295,-3.0,3.0,1.2813568,-3.0
2025-06-06 08:54:48.836,0.0038770647,-0.014649443,0.015371704,0.036567666,0.008929461,-0.009642327,0.0,0.0,0.0,0.06359395,0.21455736,1.0054898,-0.41721848,-0.22617616,1.0541638,-0.44880286,-0.20625395,0.09422021,-0.33490238,0.259974,0.39337838,-0.3813384,-0.02103182,-0.00772822,-0.0680632,-0.0677963,-0.014237125,0.014977247,-0.0021528497,-0.0248903,0.025165113,0.066566385,0.013795489,-0.0021482657,3.0,3.0,-3.0,-3.0,3.0,-3.0,-3.0,0.050317295,-3.0,3.0,1.2813568,-3.0,3.0,3.0,-3.0,-3.0,3.0,-3.0,-3.0,0.1075554,-3.0,3.0,1.2767189,-3.0
2025-06-06 08:54:48.856,-0.01737737,-0.04696047,-0.010485533,0.013042227,-0.07325917,-0.024280097,0.0,0.0,0.0,0.06356916,0.1984108,1.009272,-0.40748215,-0.22962843,1.066913,-0.459416,-0.2191579,0.08847918,-0.3432823,0.26122114,0.38866255,-0.38479817,0.030327585,-0.04518116,-0.019308882,-0.069957085,-0.04377694,0.002873348,0.037484925,0.02054375,0.057764806,-0.05483976,0.03692205,0.023553202,3.0,3.0,-3.0,-3.0,3.0,-3.0,-3.0,0.1075554,-3.0,3.0,1.2767189,-3.0,3.0,3.0,-3.0,-3.0,3.0,-3.0,-3.0,0.13196611,-3.0,3.0,1.1882107,-3.0
2025-06-06 08:54:48.876,0.047624953,-0.031773284,-0.006612868,0.032348145,-0.031674255,0.042597648,0.0,0.0,0.0,0.06360711,0.20492816,1.0042683,-0.42415005,-0.23864605,1.0616617,-0.46171612,-0.21583204,0.09042449,-0.34717706,0.25680754,0.39859042,-0.37549558,0.014581743,-0.0068432945,-0.055776183,-0.043162264,-0.042061258,-0.07432517,-0.0311125,-0.010409806,0.055029463,-0.025379132,-0.07142275,-0.03358553,3.0,3.0,-3.0,-3.0,3.0,-3.0,-3.0,0.13196611,-3.0,3.0,1.1882107,-3.0,3.0,3.0,-3.0,-3.0,3.0,-3.0,-3.0,0.12858915,-3.0,3.0,1.2394404,-3.0
2025-06-06 08:54:48.896,-0.0035338707,-0.0016293476,0.006233044,-0.04239313,-0.030670442,-0.017935822,0.0,0.0,0.0,0.06350655,0.2042604,1.0153207,-0.41910613,-0.22666901,1.0534927,-0.46063036,-0.21142833,0.10123395,-0.3425136,0.2537978,0.38716385,-0.38460517,0.03362824,-0.0012671064,0.065514654,0.052167755,-0.009466605,0.017834466,0.037268363,-0.05425087,-0.06917982,-0.07199139,0.0067054895,0.06760372,3.0,3.0,-3.0,-3.0,3.0,-3.0,-3.0,0.12858915,-3.0,3.0,1.2394404,-3.0,3.0,3.0,-3.0,-3.0,3.0,-3.0,-3.0,0.19338226,-3.0,3.0,1.2488537,-3.0
2025-06-06 08:54:48.918,0.050588552,0.03196772,0.038403396,0.0019765554,-0.050245605,0.014833486,0.0,0.0,0.0,0.06335592,0.20980409,1.0032138,-0.4208758,-0.23800123,1.0546569,-0.44679493,-0.22521694,0.0951502,-0.34814435,0.263664,0.39128742,-0.38352078,-0.02133466,0.04426743,-0.023722937,0.017928604,-0.048473787,-0.0653477,-0.035133332,0.078659184,-0.059373196,0.05300691,0.066114545,-0.0015994795,3.0,3.0,-3.0,-3.0,3.0,-3.0,-3.0,0.19338226,-3.0,3.0,1.2488537,-3.0,3.0,3.0,-3.0,-3.0,3.0,-3.0,-3.0,0.081445225,-3.0,3.0,1.3557539,-3.0
2025-06-06 08:54:48.936,-0.025775399,0.019329725,0.024505312,0.028379247,-0.032621544,0.012359212,0.0,0.0,0.0,0.06316734,0.21520364,1.0134089,-0.40905172,-0.23897696,1.0532576,-0.4481813,-0.20892091,0.09777915,-0.34466758,0.25328237,0.3935228,-0.37878639,0.035379667,0.027477805,0.026596764,-0.03556387,-0.028854351,-0.05770573,-0.064038105,0.050030485,-0.032459438,0.050214015,-0.005116559,0.055971444,3.0,3.0,-3.0,-3.0,3.0,-3.0,-3.0,0.081445225,-3.0,3.0,1.3557539,-3.0,3.0,3.0,-3.0,-3.0,3.0,-3.0,-3.0,0.11577893,-3.0,3.0,1.2979486,-3.0
2025-06-06 08:54:48.956,0.027663644,0.017108979,0.025238972,-0.047088843,-0.010652595,-0.03063509,0.0,0.0,0.0,0.063208885,0.20639327,1.0115949,-0.42129067,-0.22393987,1.0527834,-0.45283753,-0.21376091,0.090098806,-0.35364372,0.25825402,0.39723825,-0.3798302,-0.06905024,0.052232955,-0.004181269,0.06944993,-0.0068176175,-0.06243169,-0.06804613,0.003329986,-0.033077154,0.033361405,-0.033709392,0.02511369,3.0,3.0,-3.0,-3.0,3.0,-3.0,-3.0,0.11577893,-3.0,3.0,1.2979486,-3.0,3.0,3.0,-3.0,-3.0,3.0,-3.0,-3.0,0.13198519,-3.0,3.0,1.3451629,-3.0
2025-06-06 08:54:48.976,-0.007162025,-0.018946888,-0.023037825,-0.01805296,-0.031333648,-0.03741373,0.0,0.0,0.0,0.0633709,0.20472305,1.0040003,-0.40876472,-0.22871347,1.0543253,-0.45249316,-0.22061466,0.09962025,-0.3386202,0.26307237,0.4047592,-0.38823515,0.027548984,0.062057648,-0.067867376,0.03133387,0.07585858,-0.04128959,-0.041892182,-0.0570805,0.0116567435,-0.03110333,-0.002665268,-0.06529553,3.0,3.0,-3.0,-3.0,3.0,-3.0,-3.0,0.13198519,-3.0,3.0,1.3451629,-3.0,3.0,3.0,-3.0,-3.0,3.0,-3.0,-3.0,0.15686512,-3.0,3.0,1.2487674,-3.0
2025-06-06 08:54:48.996,0.036519665,0.040261567,-0.026098624,-0.00089520897,-0.050458178,0.049426813,0.0,0.0,0.0,0.06356464,0.21397913,1.0013732,-0.4086962,-0.2325545,1.0642822,-0.46183524,-0.21460979,0.104324035,-0.33524498,0.24799888,0.40132847,-0.3849405,-0.06527369,-0.037522335,0.002236354,0.036396377,-0.0143136345,0.0003624786,0.05322105,0.05842482,0.010518076,0.0047842804,0.06797929,-0.053415384,3.0,3.0,-3.0,-3.0,3.0,-3.0,-3.0,0.15686512,-3.0,3.0,1.2487674,-3.0,3.0,3.0,-3.0,-3.0,3.0,-3.0,-3.0,0.16432714,-3.0,3.0,1.1990786,-3.0
2025-06-06 08:54:49.018,0.0061827675,-0.039555606,0.0017827059,0.021962631,-0.045603354,-0.022537904,0.0,0.0,0.0,0.06362097,0.2087179,1.0060196,-0.41997433,-0.22408366,1.0546584,-0.45729753,-0.20669639,0.09398954,-0.3465919,0.25544786,0.40340635,-0.37708086,-0.07017773,-0.0058709686,0.0713668,-0.027728308,-0.0513455,-0.05421897,-0.034459062,0.03569303,0.008842911,-0.05819516,-0.065689445,1.7610786e-07,3.0,3.0,-3.0,-3.0,3.0,-3.0,-3.0,0.16432714,-3.0,3.0,1.1990786,-3.0,3.0,3.0,-3.0,-3.0,3.0,-3.0,-3.0,0.16296244,-3.0,3.0,1.2379053,-3.0
