openverse-orca/OrcaGym/log/simulation_log_20250721_142806.csv
timestamp,sim_time,physics_step,control_step,imu_angle_roll,imu_angle_pitch,imu_angle_yaw,imu_angular_velocity_roll,imu_angular_velocity_pitch,imu_angular_velocity_yaw,imu_acc_x,imu_acc_y,imu_acc_z,fl_joint1_pos,fl_joint1_vel,fl_joint1_torque,fl_joint2_pos,fl_joint2_vel,fl_joint2_torque,fl_joint3_pos,fl_joint3_vel,fl_joint3_torque,fr_joint1_pos,fr_joint1_vel,fr_joint1_torque,fr_joint2_pos,fr_joint2_vel,fr_joint2_torque,fr_joint3_pos,fr_joint3_vel,fr_joint3_torque,hl_joint1_pos,hl_joint1_vel,hl_joint1_torque,hl_joint2_pos,hl_joint2_vel,hl_joint2_torque,hl_joint3_pos,hl_joint3_vel,hl_joint3_torque,hr_joint1_pos,hr_joint1_vel,hr_joint1_torque,hr_joint2_pos,hr_joint2_vel,hr_joint2_torque,hr_joint3_pos,hr_joint3_vel,hr_joint3_torque,fl_force_x,fl_force_y,fl_force_z,fr_force_x,fr_force_y,fr_force_z,hl_force_x,hl_force_y,hl_force_z,hr_force_x,hr_force_y,hr_force_z,fl_hip_action,fl_thigh_action,fl_calf_action,fr_hip_action,fr_thigh_action,fr_calf_action,hl_hip_action,hl_thigh_action,hl_calf_action,hr_hip_action,hr_thigh_action,hr_calf_action
2025-07-21 14:28:06.746,0.0,0,0,-0.039459094,-0.033111736,-0.036756642,-0.002554017,0.023709014,0.016096782,1.2349629,-0.2948246,0.0,0.0,-0.00017562916,-0.008489462,0.0059673567,0.0011846846,-0.0020469574,0.00660165,0.0005733324,0.0067525445,-0.0028124596,-0.0009893411,0.006102758,0.0064333985,0.015712108,-0.005179476,-0.0596871,-0.045325555,0.02441514,0.00802785,0.07497017,0.04448175,0.07159053,0.026113648,-0.04177523,0.002970973,0.0,0.0,0.0,0.0,0.0,0.0,0.0,0.0,0.0,0.0,0.0,0.0,2.0,0.90691894,0.9164595,-2.0,1.2648939,-2.0,2.0,-0.81919336,-2.0,-2.0,-0.46674925,-2.0
2025-07-21 14:28:06.756,0.02,20,1,-0.070395805,0.012043719,-0.012085059,-0.012894473,-0.0008696979,-0.019353196,0.0,0.0,0.0,0.0,0.010414915,0.025928976,0.023657907,-0.0028897305,0.028517758,-0.04722055,0.0073435837,-0.017097995,-0.028762154,-0.005237924,-0.0032520876,-0.048092365,-0.035217617,0.104091294,0.033690184,-0.083910964,0.20590647,-0.09121239,0.08435263,-0.12848336,-0.06580619,-0.0240212,0.021764738,-0.10107812,2.0,0.90691894,0.9164595,-2.0,1.2648939,-2.0,2.0,-0.81919336,-2.0,-2.0,-0.46674925,-2.0,2.0,-0.25094518,-2.0,-2.0,0.72657996,-2.0,2.0,-0.1860098,-2.0,-2.0,-1.1761435,-2.0
2025-07-21 14:28:06.776,0.04,40,2,-0.13024057,-0.050991338,-0.0061162133,-0.04840429,0.040690217,0.04933278,0.0,0.0,0.0,1.4765009e-05,0.02054237,0.03498389,-0.013040894,-0.032355737,0.07088211,-0.087498724,0.03154603,-0.03635946,-0.07744596,-0.033636734,-0.039970085,-0.084865406,-0.00090526964,0.010025595,-0.09112739,-0.008376727,-0.06329287,-0.029039882,-0.017225746,-0.14114068,0.089304775,-0.022950081,-0.13756977,0.053439718,2.0,-0.25094518,-2.0,-2.0,0.72657996,-2.0,2.0,-0.1860098,-2.0,-2.0,-1.1761435,-2.0,2.0,0.33817568,-2.0,-2.0,1.3409353,-2.0,2.0,0.025639065,-2.0,-2.0,-0.2807525,-2.0
2025-07-21 14:28:06.796,0.06,60,3,-0.043477368,0.09461631,-0.02493311,-0.030417923,-0.026925603,-0.012905595,0.0,0.0,0.0,1.1461819e-05,0.047446437,0.04665057,-0.028912876,-0.027415257,0.054678414,-0.055067968,0.016209604,-0.07029828,-0.05935054,-0.02921943,-0.05177554,-0.07002873,0.080047406,-0.07258833,-0.00019185283,0.016074032,-0.08539147,0.07747171,-0.060689747,-0.017809786,0.069510445,0.055803843,-0.08535085,0.030546205,2.0,0.33817568,-2.0,-2.0,1.3409353,-2.0,2.0,0.025639065,-2.0,-2.0,-0.2807525,-2.0,2.0,-0.07548731,-2.0,-2.0,1.6210468,-2.0,2.0,-0.3008497,-2.0,-2.0,-0.8207075,-2.0
2025-07-21 14:28:06.822,0.08,80,4,0.01349235,0.00422326,-0.039181117,0.021296365,0.036959574,-0.013626517,0.0,0.0,0.0,-0.0001917062,0.043607563,0.027776351,0.006770545,-0.03551366,0.048300777,-0.045574788,0.015159247,-0.07610546,-0.038244866,-0.04768486,-0.0647515,-0.050821736,0.038937476,0.005582808,0.0077825864,0.06546023,0.0005781214,0.003000061,-0.0049263635,-0.033396956,0.087242536,0.014572746,-0.04689657,0.08816899,2.0,-0.07548731,-2.0,-2.0,1.6210468,-2.0,2.0,-0.3008497,-2.0,-2.0,-0.8207075,-2.0,2.0,-0.009157976,-2.0,-2.0,1.0626165,-2.0,2.0,0.06104318,-2.0,-2.0,-0.86613804,-2.0
2025-07-21 14:28:06.840,0.1,100,5,-0.03821309,0.036830984,0.0052524256,-0.0016508148,-0.0027585542,0.011690015,0.0,0.0,0.0,-0.00033013642,0.049484126,0.024059238,0.012386676,-0.026533863,0.046742886,-0.02735655,0.022190321,-0.067054525,-0.012291838,-0.031136878,-0.06579214,-0.025641201,-0.018538848,0.027601393,0.017251302,0.027954808,0.04560689,-0.009947373,0.009220964,0.03584909,-0.04145383,0.009584614,0.06325974,0.032673657,2.0,-0.009157976,-2.0,-2.0,1.0626165,-2.0,2.0,0.06104318,-2.0,-2.0,-0.86613804,-2.0,2.0,-0.025033316,-2.0,-2.0,1.3015474,-2.0,2.0,-0.12766063,-2.0,-2.0,-0.68005294,-2.0
2025-07-21 14:28:06.858,0.12000000000000001,120,6,-0.031220097,0.030604938,-0.002225378,-0.030466042,-0.0022635025,-0.032380026,0.0,0.0,0.0,-0.00055482436,0.04712207,0.019982975,0.019574424,-0.0328976,0.056745335,-0.032592896,0.029329529,-0.0819508,-0.0030714436,-0.029961048,-0.06041392,-0.037729967,0.008472633,-0.057402384,-0.024603423,-0.066466905,-0.006282923,-0.06318623,-0.00070819946,0.010802932,-0.05739367,0.0066736266,0.017835632,0.02906443,2.0,-0.025033316,-2.0,-2.0,1.3015474,-2.0,2.0,-0.12766063,-2.0,-2.0,-0.68005294,-2.0,2.0,-0.10916134,-2.0,-2.0,1.5818064,-2.0,2.0,-0.038229607,-2.0,-2.0,-0.8238512,-2.0
2025-07-21 14:28:06.878,0.14,140,7,-0.0044859736,-0.067376256,-0.024084924,-0.000767353,0.018963426,0.032659557,0.0,0.0,0.0,-0.0008552844,0.056875058,0.031916525,0.032265544,-0.018134994,0.05764117,-0.03985725,0.019815791,-0.06483938,-0.0050858026,-0.031393923,-0.073944174,-0.03962437,0.0030638133,0.07785111,-0.027528904,-0.07001503,0.06064799,0.036654487,-0.010528761,-0.024592193,0.07321314,0.019831618,0.06809133,-0.0784184,2.0,-0.10916134,-2.0,-2.0,1.5818064,-2.0,2.0,-0.038229607,-2.0,-2.0,-0.8238512,-2.0,2.0,0.16827585,-2.0,-2.0,0.96644086,-2.0,2.0,-0.12879315,-2.0,-2.0,-0.5219342,-2.0
2025-07-21 14:28:06.898,0.16,160,8,0.02635141,-0.03517422,0.019227995,-0.034982413,-0.048694134,0.004852165,0.0,0.0,0.0,-0.0010596073,0.051061448,0.029750278,0.02263263,-0.02274586,0.071138166,-0.048410665,0.024734693,-0.074076295,-0.008224266,-0.039867252,-0.0629886,-0.02640247,-0.0073540765,0.017318372,0.019622438,0.07066492,0.019267874,-0.06886234,-0.03406224,0.038139224,0.0062373984,0.05626284,0.04501098,-0.07982351,2.0,0.16827585,-2.0,-2.0,0.96644086,-2.0,2.0,-0.12879315,-2.0,-2.0,-0.5219342,-2.0,2.0,-0.054017417,-2.0,-2.0,1.6098356,-2.0,2.0,-0.10052952,-2.0,-2.0,-0.62618643,-2.0
2025-07-21 14:28:06.923,0.18,180,9,-0.0070666666,-0.045648616,0.0002293874,-0.01450027,-0.01620581,0.0027187092,0.0,0.0,0.0,-0.0012152991,0.055448867,0.033425625,0.012271063,-0.014827052,0.07978522,-0.06338262,0.029908141,-0.0701004,-0.013498047,-0.030357242,-0.059207782,-0.040920824,-0.068248466,0.060553756,0.010404236,-0.017477294,0.072335415,0.03389254,-0.057232145,-0.05654258,-0.048284717,-0.018054934,-0.01935891,-0.06312035,2.0,-0.054017417,-2.0,-2.0,1.6098356,-2.0,2.0,-0.10052952,-2.0,-2.0,-0.62618643,-2.0,2.0,-0.12824686,-2.0,-2.0,1.4547329,-2.0,2.0,0.20792049,-2.0,-2.0,-0.6521544,-2.0
2025-07-21 14:28:06.939,0.19999999999999998,200,10,0.006214718,-0.040178042,-0.04149038,0.029233545,-0.034861952,0.0032895096,0.0,0.0,0.0,-0.001232526,0.041804172,0.046602145,-0.0034727755,-0.026640907,0.080548376,-0.07229887,0.01850329,-0.06786979,-0.019010562,-0.0437176,-0.040513463,-0.043318015,-0.06601922,0.07671579,0.0022178842,0.040127512,-0.022978231,0.0080529535,0.033761065,-0.043593317,0.0412308,-0.04792026,0.0198494,-0.0054439246,2.0,-0.12824686,-2.0,-2.0,1.4547329,-2.0,2.0,0.20792049,-2.0,-2.0,-0.6521544,-2.0,2.0,0.12877516,-2.0,-2.0,1.1207675,-2.0,2.0,0.0436481,-2.0,-2.0,-0.61654085,-2.0
2025-07-21 14:28:06.962,0.21999999999999997,220,11,-1.5386353e-05,-0.08531839,0.01674941,-0.025105821,-0.004233158,0.016779521,0.0,0.0,0.0,-0.0011995896,0.048739675,0.056951217,-0.007220387,-0.01441302,0.104828976,-0.071227096,0.027176939,-0.044380683,-0.021204734,-0.03436348,-0.054016672,-0.05114942,-0.0019900396,0.017792387,-0.02772536,-0.05084284,0.0055887005,-0.005002117,-0.03505036,0.07559723,-0.019494325,0.05401607,0.044959895,0.04599344,2.0,0.12877516,-2.0,-2.0,1.1207675,-2.0,2.0,0.0436481,-2.0,-2.0,-0.61654085,-2.0,2.0,-0.20761414,-2.0,-2.0,1.5206797,-2.0,2.0,-0.17530695,-2.0,-2.0,-0.53750306,-2.0
2025-07-21 14:28:06.990,0.23999999999999996,240,12,-0.04406038,-0.055129606,-0.029317126,-0.0513645,-0.025957705,0.014782529,0.0,0.0,0.0,-0.0012888456,0.06021831,0.06320587,-0.025792448,-0.026251275,0.10404937,-0.08373235,0.024238987,-0.056180064,-0.012361611,-0.045328796,-0.047777284,-0.0432664,-0.050496597,0.046294212,-0.03191503,-0.058269262,0.060314976,0.016707107,-0.024826314,-0.065918155,-0.040614385,0.026086826,-0.029087292,-0.0087750135,2.0,-0.20761414,-2.0,-2.0,1.5206797,-2.0,2.0,-0.17530695,-2.0,-2.0,-0.53750306,-2.0,2.0,-0.02072849,-2.0,-2.0,1.1581259,-2.0,2.0,0.24467257,-2.0,-2.0,-0.51857144,-2.0
2025-07-21 14:28:07.009,0.25999999999999995,260,13,-0.027015422,0.030330926,0.005842666,-0.0048125987,-0.049911544,0.015970644,0.0,0.0,0.0,-0.001238697,0.042853147,0.07448259,-0.025973117,-0.015386871,0.11639335,-0.0885599,0.014288583,-0.046348333,-0.016684627,-0.041968726,-0.036726147,-0.04291133,0.019007202,0.070811935,-0.07761461,0.0043872707,-0.028018665,0.016815396,0.015435825,-0.008146498,0.06323813,0.01053109,0.056891274,-0.052782405,2.0,-0.02072849,-2.0,-2.0,1.1581259,-2.0,2.0,0.24467257,-2.0,-2.0,-0.51857144,-2.0,2.0,0.21341197,-2.0,-2.0,1.230716,-2.0,2.0,-0.1155855,-2.0,-2.0,-0.35234484,-2.0
2025-07-21 14:28:07.029,0.27999999999999997,280,14,-0.018350227,-0.056375686,0.022446852,-0.011087368,-0.06578903,-0.04096072,0.0,0.0,0.0,-0.0011411018,0.04199566,0.06993624,-0.015341721,-0.025223091,0.121556126,-0.08746287,0.03222195,-0.047790512,-0.021004947,-0.027452018,-0.03379961,-0.05068789,0.00073465134,0.0067022843,-0.0052212537,0.0017361331,-0.0104497755,-0.0074079987,0.061735213,-0.058384422,0.010183684,0.0047516315,0.07827231,0.03239375,2.0,0.21341197,-2.0,-2.0,1.230716,-2.0,2.0,-0.1155855,-2.0,-2.0,-0.35234484,-2.0,2.0,-0.2857841,-2.0,-2.0,1.8701211,-2.0,2.0,0.16935042,-2.0,-2.0,-0.57752717,-2.0
2025-07-21 14:28:07.055,0.3,300,15,-0.07075732,0.030877754,-0.00053453917,-0.06523381,-0.06371352,-0.0077270116,0.0,0.0,0.0,-0.0010528796,0.05080555,0.08827899,-0.018055819,-0.02062188,0.13612625,-0.09697706,0.016134383,-0.028448097,-0.018491307,-0.034696493,-0.031092156,-0.048062507,-0.062365014,-0.031109678,0.008841323,-0.016951747,0.030576404,0.038854733,0.058151167,0.0035497616,0.0042028553,-0.0055434178,0.0386563,0.0042132977,2.0,-0.2857841,-2.0,-2.0,1.8701211,-2.0,2.0,0.16935042,-2.0,-2.0,-0.57752717,-2.0,2.0,-0.14562435,-2.0,-2.0,0.9702121,-2.0,2.0,0.08864216,-2.0,-2.0,-0.44718483,-2.0
2025-07-21 14:28:07.073,0.32,320,16,0.031645924,-0.013187753,-0.05151665,-0.062811986,0.023770865,0.004845779,0.0,0.0,0.0,-0.00081496156,0.05231784,0.08258808,-0.021892922,-0.013888978,0.14200138,-0.103786744,0.02410028,-0.030400923,0.0007358132,-0.03265758,-0.016398912,-0.046000946,0.01585202,0.076435305,0.060023136,-0.028027428,-0.009928322,-0.029290484,-0.022828083,-0.007041568,0.005727905,-0.043832425,0.045938652,-0.0056715016,2.0,-0.14562435,-2.0,-2.0,0.9702121,-2.0,2.0,0.08864216,-2.0,-2.0,-0.44718483,-2.0,2.0,0.34042624,-2.0,-2.0,0.8711475,-2.0,2.0,-0.0074323937,-2.0,-2.0,-0.36676052,-2.0
2025-07-21 14:28:07.090,0.34,340,17,-0.007201352,0.005611145,0.014483586,0.020822829,-0.026915846,0.0032532574,0.0,0.0,0.0,-0.00058571715,0.058098324,0.094625406,-0.027594913,-0.028225105,0.1395079,-0.102594696,0.01868804,-0.024123471,-0.005168742,-0.03595971,-0.024442771,-0.051524907,0.050867934,0.073098786,-0.047233816,-0.011065333,-0.041058335,-0.03728602,-0.0011969843,0.025431361,0.023157882,-0.015762756,-0.009153755,0.03620883,2.0,0.34042624,-2.0,-2.0,0.8711475,-2.0,2.0,-0.0074323937,-2.0,-2.0,-0.36676052,-2.0,2.0,0.049414165,-2.0,-2.0,1.5569279,-2.0,2.0,0.134383,-2.0,-2.0,-0.4874932,-2.0
2025-07-21 14:28:07.110,0.36000000000000004,360,18,0.02252923,0.035080824,-0.021490531,-0.03731758,-0.053430166,-0.047316026,0.0,0.0,0.0,-0.00050646404,0.05481116,0.10709558,-0.029693594,-0.022462938,0.1418603,-0.08901924,0.030217424,-0.025249925,0.009377278,-0.025238294,-0.02012051,-0.03495028,-0.044379223,0.051996037,0.011497257,0.052088194,-0.011619939,-0.0035479367,0.02100827,0.08504757,0.010861129,-0.05939168,0.02194916,0.07393044,2.0,0.049414165,-2.0,-2.0,1.5569279,-2.0,2.0,0.134383,-2.0,-2.0,-0.4874932,-2.0,2.0,-0.13759567,-2.0,-2.0,0.9807259,-2.0,2.0,0.028892972,-2.0,-2.0,-0.60299176,-2.0
2025-07-21 14:28:07.130,0.38000000000000006,380,19,-0.00021902611,-0.047583386,0.033110794,-0.05482918,-0.04936329,0.02162651,0.0,0.0,0.0,-0.00048908463,0.049728278,0.11195206,-0.026256332,-0.028097618,0.15982552,-0.10535443,0.021770641,-0.03311202,-0.00093239226,-0.02813473,-0.007980046,-0.03620051,-0.019001873,0.055756945,-0.012015885,0.043203916,-0.015666565,-0.049507465,0.068529956,-0.054430846,0.0220483,-0.005239095,-0.05446972,0.044247657,2.0,-0.13759567,-2.0,-2.0,0.9807259,-2.0,2.0,0.028892972,-2.0,-2.0,-0.60299176,-2.0,2.0,0.07302705,-2.0,-2.0,1.3593143,-2.0,2.0,0.13282055,-2.0,-2.0,-0.1822922,-2.0
2025-07-21 14:28:07.155,0.4000000000000001,400,20,-0.0065520126,-0.014721342,-0.023946835,-0.037999384,0.00018549498,0.034745883,0.0,0.0,0.0,-0.0005295062,0.049165547,0.11040558,-0.024712374,-0.028868014,0.16387703,-0.09482738,0.03337072,-0.031308338,0.0004565864,-0.029985221,-0.001857711,-0.02549551,0.020407058,-0.03693757,-0.037623636,-0.045446202,0.05997863,0.06258095,0.016252102,0.027389405,0.075391136,-0.051076166,0.024839299,-0.0642618,2.0,0.07302705,-2.0,-2.0,1.3593143,-2.0,2.0,0.13282055,-2.0,-2.0,-0.1822922,-2.0,2.0,0.09976811,-2.0,-2.0,1.0859725,-2.0,2.0,0.23633304,-2.0,-2.0,-0.43197468,-2.0
2025-07-21 14:28:07.173,0.4200000000000001,420,21,0.018697297,0.03370618,0.014515355,-0.01437831,0.0021067744,0.00017788577,0.0,0.0,0.0,-0.00051815785,0.04943481,0.11141255,-0.0132640675,-0.011677231,0.15614735,-0.092388295,0.033174515,-0.02788255,0.009099512,-0.022937147,0.0053662597,-0.019255977,-0.012143734,-0.006778754,-0.017979223,-0.07175624,-0.012910274,-0.037978686,0.039284825,0.08248849,-0.006301363,-0.06708535,0.015693763,-0.026265757,2.0,0.09976811,-2.0,-2.0,1.0859725,-2.0,2.0,0.23633304,-2.0,-2.0,-0.43197468,-2.0,2.0,0.012814829,-2.0,-2.0,1.3179524,-2.0,2.0,0.09567606,-2.0,-2.0,-0.4635128,-2.0
2025-07-21 14:28:07.194,0.4400000000000001,440,22,0.024109215,-0.016334571,-0.037754115,-0.060670294,-0.02242595,0.048539106,0.0,0.0,0.0,-0.0005344586,0.054413676,0.12472112,-0.019278044,-0.024715342,0.17488733,-0.09592982,0.020173581,-0.010470209,0.006995855,-0.024338871,0.0079735285,-0.014368705,-0.050433144,-0.048277605,0.065449595,-0.052130323,0.04085954,-0.01798024,0.054765593,0.007839426,0.055736087,0.06220263,0.047741078,0.0026174942,2.0,0.012814829,-2.0,-2.0,1.3179524,-2.0,2.0,0.09567606,-2.0,-2.0,-0.4635128,-2.0,2.0,0.04796473,-2.0,-2.0,0.716372,-2.0,2.0,-0.06346921,-2.0,-2.0,-0.27952948,-2.0
2025-07-21 14:28:07.214,0.46000000000000013,460,23,-0.005173644,-0.013233431,0.011077026,-0.00848498,-0.037489597,0.006649863,0.0,0.0,0.0,-0.0006226219,0.061303087,0.12761515,-0.008638973,-0.020481503,0.16386186,-0.09016624,0.033952475,-0.008744268,0.015881183,-0.039032955,-0.0056334194,-0.018248519,0.038534164,0.010401304,0.0353163,-0.058341883,-0.061648186,-0.005179623,-0.04046434,-0.02372794,-0.0133232465,-0.017403284,-0.038205255,-0.049433723,2.0,0.04796473,-2.0,-2.0,0.716372,-2.0,2.0,-0.06346921,-2.0,-2.0,-0.27952948,-2.0,2.0,0.40204412,-2.0,-2.0,1.3460878,-2.0,2.0,0.09955705,-2.0,-2.0,-0.2612297,-2.0
2025-07-21 14:28:07.239,0.48000000000000015,480,24,-0.0035810894,0.031319946,0.023862954,0.02369501,-0.028047534,0.021024328,0.0,0.0,0.0,-0.00065434765,0.04474776,0.12893529,-0.022152498,-0.02807194,0.16190983,-0.0886805,0.025308866,-0.017703699,0.021434214,-0.024872024,0.0043126033,-0.0046761427,0.059042655,0.06031976,-0.045661367,-0.03887129,0.0030206004,-0.02038513,-0.030626405,-0.022464683,0.012988032,0.06366907,0.066144675,0.013709433,2.0,0.40204412,-2.0,-2.0,1.3460878,-2.0,2.0,0.09955705,-2.0,-2.0,-0.2612297,-2.0,2.0,-0.1360505,-2.0,-2.0,1.3904074,-2.0,2.0,0.11004705,-2.0,-2.0,-0.4350399,-2.0
2025-07-21 14:28:07.256,0.5000000000000001,500,25,-0.012827256,-0.0058399113,0.0016434802,-0.03444281,-0.01588046,0.025186975,0.0,0.0,0.0,-0.00062663434,0.05337097,0.12291171,-0.014336691,-0.020347778,0.18600585,-0.08051868,0.026440106,-0.008027086,0.03120056,-0.033840716,0.0033175657,-0.017068353,-0.01106175,-0.030897683,-0.016726526,-0.0068546,0.0806849,-0.0104034245,-0.017680468,-0.01444613,-0.008653206,0.0034031025,-0.0141779715,0.00038598364,2.0,-0.1360505,-2.0,-2.0,1.3904074,-2.0,2.0,0.11004705,-2.0,-2.0,-0.4350399,-2.0,2.0,-0.11342951,-2.0,-2.0,0.9232393,-2.0,2.0,0.20788321,-2.0,-2.0,-0.35770193,-2.0
2025-07-21 14:28:07.274,0.5200000000000001,520,26,0.025082333,-0.007383377,0.02764588,-0.008198413,-0.015499559,-0.009541559,0.0,0.0,0.0,-0.0005026884,0.053855084,0.13255753,-0.005786741,-0.029956017,0.17005718,-0.079165176,0.023136182,-0.0035470647,0.02597649,-0.038269397,-6.7088804e-05,-0.010003487,-0.067801595,0.0032141276,0.06321939,0.032412533,0.020167317,0.021598347,-0.0662622,-0.032437943,0.07172404,0.06319968,0.045000043,0.03840024,2.0,-0.11342951,-2.0,-2.0,0.9232393,-2.0,2.0,0.20788321,-2.0,-2.0,-0.35770193,-2.0,2.0,0.3128878,-2.0,-2.0,0.9691434,-2.0,2.0,-0.29270804,-2.0,-2.0,-0.18527141,-2.0
2025-07-21 14:28:07.294,0.5400000000000001,540,27,0.0015751623,-0.011468344,-0.011751446,-0.06031999,0.0004068098,-0.02291896,0.0,0.0,0.0,-0.00038346718,0.041127678,0.12866974,-0.0134638,-0.02079195,0.17983356,-0.06864597,0.021978352,-0.007460258,0.034837358,-0.037716396,0.014399649,0.0068308506,-0.0055533736,0.050326597,0.0019606182,0.015082734,0.06141989,-0.05753049,0.06520695,-0.003126471,0.061509393,0.051782966,0.05262166,-0.058517795,2.0,0.3128878,-2.0,-2.0,0.9691434,-2.0,2.0,-0.29270804,-2.0,-2.0,-0.18527141,-2.0,2.0,0.1242655,-2.0,-2.0,1.2740355,-2.0,2.0,0.17952722,-2.0,-2.0,-0.38948593,-2.0
2025-07-21 14:28:07.314,0.5600000000000002,560,28,0.002790973,-0.026571989,-0.00069049734,-0.013322103,-0.023849327,0.012454042,0.0,0.0,0.0,-0.00015725581,0.043338805,0.13211562,-0.011213751,-0.029989269,0.1904021,-0.07411434,0.028028846,-7.856641e-05,0.035888266,-0.03562787,0.0042248922,0.0011699001,0.06142636,-0.009466105,0.010404879,-0.035347268,-0.047915794,0.057580713,-0.050145335,-0.049696732,0.061857376,-0.026308248,0.03511947,0.056012847,2.0,0.1242655,-2.0,-2.0,1.2740355,-2.0,2.0,0.17952722,-2.0,-2.0,-0.38948593,-2.0,2.0,0.08484561,-2.0,-2.0,1.021671,-2.0,2.0,-0.1297788,-2.0,-2.0,-0.33275756,-2.0
2025-07-21 14:28:07.339,0.5800000000000002,580,29,0.03676784,-0.07069153,0.028721474,0.023760073,-0.014357159,-0.011694334,0.0,0.0,0.0,0.00013609495,0.039899696,0.13404195,-0.012082569,-0.029604131,0.1865046,-0.071346566,0.02350582,0.0029515668,0.041602626,-0.04213052,0.010024954,-0.0004884572,0.05662668,-0.0674173,-0.06966203,0.047055483,0.0015931899,-0.0132984575,0.02643016,0.013660666,0.01049901,0.022590762,-0.03077502,-0.038400088,2.0,0.08484561,-2.0,-2.0,1.021671,-2.0,2.0,-0.1297788,-2.0,-2.0,-0.33275756,-2.0,2.0,0.01320749,-2.0,-2.0,1.5501107,-2.0,2.0,0.32707945,-2.0,-2.0,-0.3910421,-2.0
2025-07-21 14:28:07.356,0.6000000000000002,600,30,-0.016146934,-0.020982243,-0.0069593294,0.0020508962,-0.045639824,-0.04162774,0.0,0.0,0.0,0.0004350963,0.038290545,0.14246474,-0.015449746,-0.023607647,0.19314374,-0.074502856,0.037190568,0.0015361409,0.036207754,-0.033071443,0.0061956136,-0.00059262954,0.051132347,0.03071351,-0.058968496,-0.04242823,0.032894727,0.047639553,-0.065069884,0.031341873,0.056778777,0.045103706,-0.058241017,-0.057471402,2.0,0.01320749,-2.0,-2.0,1.5501107,-2.0,2.0,0.32707945,-2.0,-2.0,-0.3910421,-2.0,2.0,0.007380167,-2.0,-2.0,0.67999923,-2.0,2.0,-0.10258598,-2.0,-2.0,-0.2757256,-2.0
2025-07-21 14:28:07.375,0.6200000000000002,620,31,-0.02438386,-0.02095238,0.028950574,-0.018982008,-0.059346396,-0.020491416,0.0,0.0,0.0,0.00072636356,0.048696186,0.13735436,-0.0119156,-0.021548837,0.19223325,-0.08257848,0.030829411,-0.010918635,0.032989092,-0.040374167,0.017835453,0.008935635,0.049928483,-0.034325324,-0.02400536,0.009645311,-0.0754748,0.04334753,0.04687881,0.012097577,-0.009168482,0.060252886,0.05868303,0.07014754,2.0,0.007380167,-2.0,-2.0,0.67999923,-2.0,2.0,-0.10258598,-2.0,-2.0,-0.2757256,-2.0,2.0,0.3214494,-2.0,-2.0,1.5077906,-2.0,2.0,0.034179457,-2.0,-2.0,-0.22668183,-2.0
2025-07-21 14:28:07.395,0.6400000000000002,640,32,-0.018413844,0.007234594,-0.00040074025,-0.04992464,-0.011184108,0.0048378916,0.0,0.0,0.0,0.0009716846,0.051076766,0.14579783,-0.016686235,-0.026229443,0.19245815,-0.07217389,0.04042089,0.0056882654,0.04604717,-0.022607878,0.020471439,0.004703832,-0.0108465105,0.028143238,-0.044442985,-0.05942541,0.019695075,0.04553612,-0.013810649,-0.054304905,0.016091604,-0.07076642,0.06441021,0.024386961,2.0,0.3214494,-2.0,-2.0,1.5077906,-2.0,2.0,0.034179457,-2.0,-2.0,-0.22668183,-2.0,2.0,-0.13602038,-2.0,-2.0,1.1637075,-2.0,2.0,0.16428664,-2.0,-2.0,-0.4284954,-2.0
2025-07-21 14:28:07.416,0.6600000000000003,660,33,0.055375375,-0.033271056,-0.050506435,-0.0152919665,0.008740932,0.007941306,0.0,0.0,0.0,0.0012850915,0.042396177,0.15228163,-0.023425069,-0.020324307,0.19920142,-0.069347575,0.031010507,0.008891885,0.042728834,-0.03416433,0.01148342,0.0031209046,0.002765592,0.01680479,0.060500357,-0.057197124,0.042437516,0.026787512,0.019130742,0.051268805,0.06518797,-0.012541721,0.019225141,0.021373885,2.0,-0.13602038,-2.0,-2.0,1.1637075,-2.0,2.0,0.16428664,-2.0,-2.0,-0.4284954,-2.0,2.0,0.43151537,-2.0,-2.0,0.24022125,-2.0,2.0,-0.1700593,-2.0,-2.0,-0.25736478,-2.0
2025-07-21 14:28:07.439,0.6800000000000003,680,34,-0.013440956,0.005063552,0.012497519,-0.016989414,-0.061422624,0.023174256,0.0,0.0,0.0,0.0015790442,0.039029203,0.14963864,-0.030436574,-0.036518134,0.19333726,-0.07064709,0.036946602,-0.009229623,0.048214708,-0.023604514,0.015080199,0.008113716,-0.04654695,-0.025537938,-0.060623396,-0.05376556,0.0028433406,-0.05384764,-0.02459756,-0.04309312,0.03712582,-0.070983574,-0.030075599,0.054338958,2.0,0.43151537,-2.0,-2.0,0.24022125,-2.0,2.0,-0.1700593,-2.0,-2.0,-0.25736478,-2.0,2.0,0.63214415,-2.0,-2.0,1.6445774,-2.0,2.0,0.11295629,-2.0,-2.0,-0.4347389,-2.0
2025-07-21 14:28:07.456,0.7000000000000003,700,35,0.038118917,-0.038212154,-0.013945645,0.025138117,-0.021146247,-0.035153914,0.0,0.0,0.0,0.0016468824,0.048527308,0.14611764,-0.018221144,-0.037322737,0.19727866,-0.06992152,0.023167336,-0.0060676397,0.048432145,-0.031118942,0.010719149,0.025845045,-0.04578193,-0.0063563325,-0.028969316,-0.038021546,-0.037599076,-0.04972398,0.023942465,-0.0063315798,-0.07002954,0.038337722,0.07156494,-0.0432747,2.0,0.63214415,-2.0,-2.0,1.6445774,-2.0,2.0,0.11295629,-2.0,-2.0,-0.4347389,-2.0,2.0,-0.5547955,-2.0,-2.0,1.4361664,-2.0,2.0,0.30809715,-2.0,-2.0,-0.7372802,-2.0
2025-07-21 14:28:07.475,0.7200000000000003,720,36,0.04192878,0.0043642996,0.043943852,0.039511923,-0.029297056,0.04140947,0.0,0.0,0.0,0.001534255,0.036813162,0.1436494,-0.020658892,-0.033477493,0.18928233,-0.078285694,0.041098617,-0.008865795,0.049298838,-0.035833422,0.013941272,0.016343227,-0.042542916,0.0532966,-0.011477774,-0.034047022,-0.07279838,-0.024117691,0.05333426,0.06988319,0.042000614,-0.0027758058,-0.01685334,0.033644468,2.0,-0.5547955,-2.0,-2.0,1.4361664,-2.0,2.0,0.30809715,-2.0,-2.0,-0.7372802,-2.0,2.0,0.1177244,-2.0,-2.0,0.47540158,-2.0,2.0,-0.22035164,-2.0,-2.0,-0.07184329,-2.0
2025-07-21 14:28:07.495,0.7400000000000003,740,37,-0.038467232,-0.0121379355,-0.017295087,-0.004474943,-0.008598949,0.026988974,0.0,0.0,0.0,0.0013497362,0.048639033,0.14078437,-0.018633889,-0.033494033,0.18890129,-0.07747595,0.030016474,-0.0016209002,0.034784682,-0.022918092,0.0013941106,0.022180192,-0.020214343,0.06063001,0.0076620826,-0.056638837,0.059201367,-0.030432697,-0.071088485,0.058763742,-0.05946209,-0.0074358634,-0.051356018,0.013332854,2.0,0.1177244,-2.0,-2.0,0.47540158,-2.0,2.0,-0.22035164,-2.0,-2.0,-0.07184329,-2.0,2.0,0.65922064,-2.0,-2.0,1.1355292,-2.0,2.0,0.21651325,-2.0,-2.0,-0.39206213,-2.0
2025-07-21 14:28:07.516,0.7600000000000003,760,38,0.06159172,0.034369033,0.006077619,-0.042169973,0.015156871,-0.04852686,0.0,0.0,0.0,0.0012575735,0.039266907,0.15135583,-0.02386999,-0.022102024,0.20152359,-0.07070889,0.033359364,-0.008183785,0.04806463,-0.037197094,0.0042040464,0.028826622,-0.019475797,-0.058119398,-0.03357134,0.054022413,0.06747586,0.036087163,0.00562715,-0.054426845,0.045773633,0.04287213,-0.008580902,-0.039181884,2.0,0.65922064,-2.0,-2.0,1.1355292,-2.0,2.0,0.21651325,-2.0,-2.0,-0.39206213,-2.0,2.0,-0.004266834,-2.0,-2.0,1.4622815,-2.0,2.0,0.11670647,-2.0,-2.0,-0.528778,-2.0
2025-07-21 14:28:07.539,0.7800000000000004,780,39,-0.026075214,-0.016798895,0.008822947,-0.0120633645,-0.03281903,0.03406952,0.0,0.0,0.0,0.0010779658,0.050740857,0.15852869,-0.033399854,-0.020984182,0.20335071,-0.06659948,0.028199136,0.013938548,0.03009377,-0.037528094,0.01487163,0.03252817,-0.058513016,-0.014015511,0.02651979,0.0629497,-0.013867077,0.045049112,0.01945354,0.00035983414,0.018052388,0.039258856,-0.05648007,-0.04160267,2.0,-0.004266834,-2.0,-2.0,1.4622815,-2.0,2.0,0.11670647,-2.0,-2.0,-0.528778,-2.0,2.0,-0.08922403,-2.0,-2.0,0.8409916,-2.0,2.0,0.054070927,-2.0,-2.0,-0.32748684,-2.0
2025-07-21 14:28:07.555,0.8000000000000004,800,40,0.029843302,-0.050819766,-0.024466453,0.014431297,0.0129122585,0.029414803,0.0,0.0,0.0,0.0008114321,0.05157368,0.14204457,-0.03710041,-0.025571698,0.20007539,-0.070738204,0.018999,0.015704384,0.04587256,-0.04313549,0.013667373,0.02810673,-0.043183267,-0.010061783,0.06714743,0.028433086,0.061290085,0.0634261,-0.03037254,-0.058998767,-0.051192008,0.020978337,-0.06167746,0.013685988,2.0,-0.08922403,-2.0,-2.0,0.8409916,-2.0,2.0,0.054070927,-2.0,-2.0,-0.32748684,-2.0,2.0,0.5026395,-2.0,-2.0,0.8570286,-2.0,2.0,0.08736854,-2.0,-2.0,-0.33612558,-2.0
2025-07-21 14:28:07.575,0.8200000000000004,820,41,0.06684042,-0.013863922,0.039760213,-0.04140195,-0.061026618,0.011398571,0.0,0.0,0.0,0.0006472668,0.056255557,0.15458815,-0.028014507,-0.017950142,0.19793904,-0.07441068,0.0355865,-0.0023709645,0.033718392,-0.036641344,-0.0015478556,0.019865138,0.003737247,-0.023930179,0.023354493,-0.0053623472,-0.048953727,0.021660963,0.04044959,-0.023793694,-0.01259464,-0.003233082,0.026272452,0.039537657,2.0,0.5026395,-2.0,-2.0,0.8570286,-2.0,2.0,0.08736854,-2.0,-2.0,-0.33612558,-2.0,2.0,0.1305538,-2.0,-2.0,1.7392974,-2.0,2.0,0.013346262,-2.0,-2.0,-0.38786775,-2.0
2025-07-21 14:28:07.595,0.8400000000000004,840,42,0.0063412115,0.047431994,0.025423707,-0.053930487,-0.056235626,0.04813478,0.0,0.0,0.0,0.0004292602,0.055108123,0.14644934,-0.04233686,-0.029260358,0.19762103,-0.07999007,0.030766053,0.0150614595,0.028542263,-0.04432647,-0.0020262136,0.036103237,0.016404888,-0.048261497,-0.002428266,-0.029255884,-0.028915657,-0.0009275286,-0.008072872,-0.05671474,0.017044315,0.001027529,0.03158307,0.033768713,2.0,0.1305538,-2.0,-2.0,1.7392974,-2.0,2.0,0.013346262,-2.0,-2.0,-0.38786775,-2.0,2.0,-0.427804,-2.0,-2.0,1.0304718,-2.0,2.0,0.04156951,-2.0,-2.0,-0.40432522,-2.0
2025-07-21 14:28:07.615,0.8600000000000004,860,43,0.03514014,-0.059263293,-0.0331866,0.021605838,-0.013379319,-0.03195563,0.0,0.0,0.0,0.0003555619,0.05223173,0.15499356,-0.03322388,-0.036886882,0.2038213,-0.07541735,0.016569242,0.009979826,0.039095394,-0.034166947,0.0076483614,0.037210476,0.0636968,0.02697361,-0.009299634,-0.040062454,-0.002490224,0.02538949,0.06577937,-0.079261325,-0.056465115,0.062332556,-0.04053982,0.0077692065,2.0,-0.427804,-2.0,-2.0,1.0304718,-2.0,2.0,0.04156951,-2.0,-2.0,-0.40432522,-2.0,2.0,0.5570026,-2.0,-2.0,0.46633533,-2.0,2.0,-0.015046231,-2.0,-2.0,-0.13321763,-2.0
2025-07-21 14:28:07.635,0.8800000000000004,880,44,-0.0057046497,0.0017682076,0.031920135,0.032898225,-0.076394565,0.037979543,0.0,0.0,0.0,0.00056399946,0.049665697,0.14740705,-0.03829154,-0.033211492,0.18346447,-0.061833236,0.024154967,0.0011372847,0.03810203,-0.038461182,0.0010317952,0.027434161,-0.030926796,-0.051036134,0.018004112,0.034938004,0.058977157,0.057478856,0.04934883,-0.02955159,-0.025030263,-0.006727774,0.0061789574,-0.06431019,2.0,0.5570026,-2.0,-2.0,0.46633533,-2.0,2.0,-0.015046231,-2.0,-2.0,-0.13321763,-2.0,2.0,0.37336916,-2.0,-2.0,1.8668276,-2.0,2.0,0.25607002,-2.0,-2.0,-0.50278616,-2.0
2025-07-21 14:28:07.655,0.9000000000000005,900,45,0.0083632,0.071133055,-0.0076503265,-0.008235981,-0.032047473,-0.021402594,0.0,0.0,0.0,0.000739144,0.053554952,0.15261228,-0.02776446,-0.039208263,0.19667037,-0.07541962,0.017708976,0.0055602365,0.028196862,-0.037369523,0.007844078,0.030497054,0.030770706,-0.05699793,-0.044353962,0.05329657,0.047666755,-0.009689713,0.022926765,0.02326134,-0.026356626,0.052574933,0.03969301,-0.027131667,2.0,0.37336916,-2.0,-2.0,1.8668276,-2.0,2.0,0.25607002,-2.0,-2.0,-0.50278616,-2.0,2.0,-0.5199023,-2.0,-2.0,0.9421591,-2.0,2.0,0.25441623,-2.0,-2.0,-0.67248017,-2.0
2025-07-21 14:28:07.676,0.9200000000000005,920,46,-0.013265958,-0.058347125,-0.02998442,0.0066525317,-0.023643345,-0.034407385,0.0,0.0,0.0,0.00080017437,0.037544113,0.14380448,-0.03159407,-0.023117254,0.1886239,-0.063734315,0.018232837,0.012782819,0.02605576,-0.03415779,-0.00066151604,0.019362535,0.032285877,0.052346073,0.042835664,-0.03631021,0.06370624,0.004128903,-0.041117657,-0.040126387,0.062894754,0.07110331,-0.013661182,-0.03926475,2.0,-0.5199023,-2.0,-2.0,0.9421591,-2.0,2.0,0.25441623,-2.0,-2.0,-0.67248017,-2.0,2.0,0.5412288,-2.0,-2.0,0.07116504,-2.0,2.0,-0.2579588,-2.0,-2.0,0.029869147,-2.0
2025-07-21 14:28:07.701,0.9400000000000005,940,47,-0.011624855,-0.011124797,0.00014405367,-0.04131308,-0.04960886,0.030744214,0.0,0.0,0.0,0.00074958586,0.049648255,0.1318343,-0.03497004,-0.020044457,0.18518524,-0.071557276,0.031362217,0.014742426,0.030538647,-0.036812924,0.00078672066,0.01887154,-0.0067135403,0.029022744,-0.059925076,-0.040547766,-0.07108547,0.08041774,-0.02296249,0.061340615,0.05346307,-0.043126747,0.025751557,0.052498773,2.0,0.5412288,-2.0,-2.0,0.07116504,-2.0,2.0,-0.2579588,-2.0,-2.0,0.029869147,-2.0,2.0,0.78603715,-2.0,-2.0,1.410136,-2.0,2.0,0.028279074,-2.0,-2.0,-0.35902062,-2.0
2025-07-21 14:28:07.723,0.9600000000000005,960,48,0.0547197,0.027621796,-0.015820833,-0.0008524122,-0.0233189,0.044795733,0.0,0.0,0.0,0.00065217295,0.053126335,0.14265335,-0.028926251,-0.024498018,0.1922835,-0.06836659,0.029202897,0.0070256284,0.03226709,-0.04403324,0.010504771,0.027676629,-0.06256647,0.02818373,0.03604179,-0.06465592,0.0437592,-0.0011165043,-0.040891506,0.051337734,0.014521943,-0.0042040953,0.0642233,0.017035063,2.0,0.78603715,-2.0,-2.0,1.410136,-2.0,2.0,0.028279074,-2.0,-2.0,-0.35902062,-2.0,2.0,-0.246121,-2.0,-2.0,1.1399155,-2.0,2.0,0.14877498,-2.0,-2.0,-0.6660035,-2.0
2025-07-21 14:28:07.739,0.9800000000000005,980,49,-0.022803143,0.037962407,0.03296836,-0.0041539483,-0.0027937295,0.010490892,0.0,0.0,0.0,0.00057604373,0.04524901,0.14830323,-0.03285777,-0.034150396,0.18332127,-0.072461,0.023348069,0.00010017623,0.025027769,-0.02869045,0.007018657,0.03498906,-0.03545978,0.02829353,-0.06623665,0.034966536,0.06969624,-0.03152104,0.02894872,-0.024118729,-0.043655105,0.020888306,-0.084613875,-0.0077625304,2.0,-0.246121,-2.0,-2.0,1.1399155,-2.0,2.0,0.14877498,-2.0,-2.0,-0.6660035,-2.0,2.0,0.14479439,-2.0,-2.0,0.7591359,-2.0,2.0,0.10917104,-2.0,-2.0,-0.21549165,-2.0
2025-07-21 14:28:07.756,1.0000000000000004,1000,50,0.020394316,-0.029592609,-0.012642652,0.03271062,-0.019948142,0.04739628,0.0,0.0,0.0,0.0004642723,0.049580477,0.14096263,-0.036661822,-0.03698097,0.18109779,-0.05725955,0.02146071,0.0058726333,0.018905872,-0.0359085,0.0039886176,0.03175673,-0.056737,-0.07061781,-0.06370318,0.0040257317,0.0014279488,-0.0042877616,0.025372155,0.053842895,0.010920992,0.017768487,0.05730914,0.06167002,2.0,0.14479439,-2.0,-2.0,0.7591359,-2.0,2.0,0.10917104,-2.0,-2.0,-0.21549165,-2.0,2.0,0.4617799,-2.0,-2.0,1.1380469,-2.0,2.0,0.05212695,-2.0,-2.0,-0.45155475,-2.0
2025-07-21 14:28:07.776,1.0200000000000005,1020,51,0.051781118,0.033247303,-0.011487231,0.043749288,-0.07255664,0.022298256,0.0,0.0,0.0,0.0003469329,0.04278094,0.14005515,-0.037165407,-0.03187192,0.19043143,-0.05994344,0.020907752,0.013792556,0.030147994,-0.043229602,-0.0010680256,0.028305111,0.07127534,0.011983218,0.0411981,0.013868009,0.007334535,0.01594837,0.06618495,0.01711394,0.05315972,-0.066880904,-0.04678326,0.00022345736,2.0,0.4617799,-2.0,-2.0,1.1380469,-2.0,2.0,0.05212695,-2.0,-2.0,-0.45155475,-2.0,2.0,-0.066592835,-2.0,-2.0,0.98449326,-2.0,2.0,0.11942861,-2.0,-2.0,-0.46380997,-2.0
2025-07-21 14:28:07.796,1.0400000000000005,1040,52,0.050379295,0.046835825,-0.038482066,0.0392136,-0.061349787,0.038043737,0.0,0.0,0.0,0.00021242432,0.04703278,0.13481335,-0.0312935,-0.028526163,0.1944649,-0.053738944,0.019234156,0.0010266736,0.01816334,-0.032360602,-0.0027497078,0.022593742,0.016556213,-0.07470048,0.056668527,0.07389765,-0.03860461,0.0031266697,0.016852787,0.06378939,-0.017764665,0.016836064,0.059304375,0.054074068,2.0,-0.066592835,-2.0,-2.0,0.98449326,-2.0,2.0,0.11942861,-2.0,-2.0,-0.46380997,-2.0,2.0,0.33821252,-2.0,-2.0,0.6137745,-2.0,2.0,0.017321475,-2.0,-2.0,-0.33160064,-2.0
2025-07-21 14:28:07.822,1.0600000000000005,1060,53,-0.01816632,-0.02144502,0.05292298,0.008564753,0.013222025,0.000509878,0.0,0.0,0.0,7.135532e-05,0.04071434,0.13937965,-0.04310878,-0.02288555,0.17635024,-0.071576275,0.03086713,0.011452406,0.023802835,-0.037354074,-0.0014210492,0.027161483,0.03768098,0.027069489,-0.0078099207,0.07316942,0.048140038,0.06932451,0.044794567,0.026927559,-0.04491086,0.071141906,-0.06524731,-0.012928365,2.0,0.33821252,-2.0,-2.0,0.6137745,-2.0,2.0,0.017321475,-2.0,-2.0,-0.33160064,-2.0,2.0,0.24647678,-2.0,-2.0,1.7834599,-2.0,2.0,0.20658335,-2.0,-2.0,-0.43662727,-2.0
2025-07-21 14:28:07.839,1.0800000000000005,1080,54,0.038307287,-0.008529799,0.0018084045,-0.025300955,-0.0085144555,0.03258012,0.0,0.0,0.0,-9.788302e-05,0.046634365,0.13329932,-0.042135544,-0.026417008,0.1822068,-0.059580587,0.028704124,0.017843258,0.0072844108,-0.037522733,-0.004164369,0.02315694,0.049383696,0.06552244,-0.0682055,0.055760268,0.059552435,-0.075699575,0.037017304,0.050651476,0.048566226,-0.052211475,0.008605473,0.0469724,2.0,0.24647678,-2.0,-2.0,1.7834599,-2.0,2.0,0.20658335,-2.0,-2.0,-0.43662727,-2.0,2.0,-0.4666668,-2.0,-2.0,0.83772695,-2.0,2.0,0.13470528,-2.0,-2.0,-0.64614064,-2.0
2025-07-21 14:28:07.856,1.1000000000000005,1100,55,-0.02728223,-0.005912316,0.011095032,0.04171962,-0.02298855,0.043836605,0.0,0.0,0.0,-0.00018778667,0.047510695,0.14123765,-0.036693178,-0.026412169,0.18800853,-0.058993455,0.027480049,0.0041299122,0.021921763,-0.032593314,-0.004965905,0.025309445,0.066809155,-0.006089979,0.07523274,0.009312648,0.041826487,-0.060795795,-0.031663783,-0.032415703,0.022270877,-0.008319051,0.045892667,-0.049273334,2.0,-0.4666668,-2.0,-2.0,0.83772695,-2.0,2.0,0.13470528,-2.0,-2.0,-0.64614064,-2.0,2.0,0.2924321,-2.0,-2.0,0.40476733,-2.0,2.0,-0.033812664,-2.0,-2.0,-0.065046154,-2.0
2025-07-21 14:28:07.876,1.1200000000000006,1120,56,0.040013045,0.016770327,0.01609156,-0.016902259,0.005281416,-0.032845307,0.0,0.0,0.0,-0.0002153021,0.0438206,0.12931216,-0.029036675,-0.026695006,0.17829421,-0.05973283,0.024030766,0.0041819806,0.0040291985,-0.048736326,-0.012194227,0.020108031,-0.045211855,0.011956211,-0.009819257,0.017754,-0.025966717,0.041400917,-0.045671877,-0.039040666,0.058822803,0.037358616,-0.04292939,-0.06835592,2.0,0.2924321,-2.0,-2.0,0.40476733,-2.0,2.0,-0.033812664,-2.0,-2.0,-0.065046154,-2.0,2.0,0.79862565,-2.0,-2.0,1.5332048,-2.0,2.0,-0.10830023,-2.0,-2.0,-0.37704805,-2.0
2025-07-21 14:28:07.896,1.1400000000000006,1140,57,-0.02963531,0.04603324,-0.009634328,0.0425472,-0.011785884,0.04656073,0.0,0.0,0.0,-0.0002246416,0.056751233,0.11819011,-0.040054325,-0.02113594,0.16783518,-0.05257918,0.020668693,0.011547817,0.02057774,-0.042161696,-0.0036544653,0.013476916,-0.016288944,0.005056804,0.060641438,-0.045668453,0.065072805,-0.056922063,-0.007782491,-0.02261908,0.025857167,-0.07288731,-0.027209423,-0.01675211,2.0,0.79862565,-2.0,-2.0,1.5332048,-2.0,2.0,-0.10830023,-2.0,-2.0,-0.37704805,-2.0,2.0,-0.650029,-2.0,-2.0,1.5211797,-2.0,2.0,0.48526168,-2.0,-2.0,-0.9122714,-2.0
2025-07-21 14:28:07.922,1.1600000000000006,1160,58,-0.029089881,0.028026605,0.035391003,-0.042067178,-0.06603753,0.011515055,0.0,0.0,0.0,-0.000110756264,0.043764513,0.12311885,-0.041108396,-0.02816928,0.18644388,-0.071973436,0.01842432,-0.0022165033,0.017716803,-0.03661522,-0.0044299853,0.02130536,0.01677635,-0.0920066,-0.059717238,-0.07490878,-0.068702996,0.054111693,0.016244344,-0.066762835,-0.07028902,0.012459062,0.01805181,0.03748201,2.0,-0.650029,-2.0,-2.0,1.5211797,-2.0,2.0,0.48526168,-2.0,-2.0,-0.9122714,-2.0,2.0,0.20935939,-2.0,-2.0,0.7237346,-2.0,2.0,-0.2369264,-2.0,-2.0,-0.10700763,-2.0
2025-07-21 14:28:07.939,1.1800000000000006,1180,59,-0.0052574514,-0.02545637,-0.048759215,-0.021019373,-0.039732587,0.008442446,0.0,0.0,0.0,-3.6097263e-05,0.042565227,0.11934197,-0.026293447,-0.036133848,0.17131473,-0.06068714,0.02350044,0.004973423,0.012378393,-0.042237792,-0.016321685,0.01587774,-0.042620663,-0.06391122,0.051079713,-0.034748193,0.058365017,-0.060109586,-0.047776874,-0.056383755,-0.011055311,0.030814013,-0.06962727,-0.046999536,2.0,0.20935939,-2.0,-2.0,0.7237346,-2.0,2.0,-0.2369264,-2.0,-2.0,-0.10700763,-2.0,2.0,0.48000333,-2.0,-2.0,1.2709122,-2.0,2.0,0.2672796,-2.0,-2.0,-0.38239062,-2.0
2025-07-21 14:28:07.956,1.2000000000000006,1200,60,0.035724193,0.012508088,-0.031585783,-0.036035214,0.0023515173,-0.04812785,0.0,0.0,0.0,0.00013530538,0.05250484,0.1264436,-0.0329621,-0.033378113,0.1774338,-0.05783766,0.0126264375,0.00025428607,0.0094199935,-0.031327903,0.0007018012,0.0057799625,-0.010322566,-0.01905623,0.02944803,-0.015730208,-0.03301518,0.004112824,-0.018253911,0.047881022,-0.032456536,-0.043021794,-0.02127565,-0.0072997054,2.0,0.48000333,-2.0,-2.0,1.2709122,-2.0,2.0,0.2672796,-2.0,-2.0,-0.38239062,-2.0,2.0,-0.14543928,-2.0,-2.0,1.300774,-2.0,2.0,0.14703071,-2.0,-2.0,-0.645246,-2.0
2025-07-21 14:28:07.977,1.2200000000000006,1220,61,0.027372906,0.018202856,-0.047783945,-0.039820593,-0.0024075694,0.024260119,0.0,0.0,0.0,0.00033978172,0.039646868,0.11076103,-0.036292102,-0.03957219,0.17912993,-0.06820197,0.013108245,0.009349821,0.010349808,-0.038515355,-0.004926849,0.01987212,-0.019215077,0.023146844,0.022198416,0.07025745,0.00083767343,0.0022853122,0.07011522,-0.041916456,-0.0030352434,0.009397415,0.038690984,-0.017094145,2.0,-0.14543928,-2.0,-2.0,1.300774,-2.0,2.0,0.14703071,-2.0,-2.0,-0.645246,-2.0,2.0,0.18730275,-2.0,-2.0,0.52722836,-2.0,2.0,0.08601434,-2.0,-2.0,-0.3709109,-2.0
2025-07-21 14:28:07.997,1.2400000000000007,1240,62,0.02764427,-0.00866277,0.0034172093,-0.017825488,0.0005178466,-0.04950711,0.0,0.0,0.0,0.00042330622,0.0518207,0.11078897,-0.044347223,-0.027592108,0.17482817,-0.06655313,0.014184059,-0.0056033204,-0.0032484247,-0.03840976,-0.01306574,0.008292319,-0.018061731,-0.031410262,-0.07246417,-0.053845886,-0.042566363,0.055812933,-0.045017153,-0.030483967,0.001472162,0.053582918,-0.021590892,0.003913657,2.0,0.18730275,-2.0,-2.0,0.52722836,-2.0,2.0,0.08601434,-2.0,-2.0,-0.3709109,-2.0,2.0,0.5537549,-2.0,-2.0,1.4039612,-2.0,2.0,-0.09842829,-2.0,-2.0,-0.3217027,-2.0
2025-07-21 14:28:08.022,1.2600000000000007,1260,63,-0.046055853,-0.024335308,-0.046146937,-0.0006376151,0.021022929,0.029522501,0.0,0.0,0.0,0.00037546203,0.043295745,0.10500769,-0.048200175,-0.03186485,0.17085907,-0.07008959,0.021088608,-0.007060808,9.803008e-05,-0.043361224,-0.0077818073,0.021193545,-0.043985497,-0.0026749468,-0.0027171061,0.048300747,0.038120262,-0.044267986,0.026687335,-0.057987854,0.008788319,0.04633704,-0.006621334,-0.008303566,2.0,0.5537549,-2.0,-2.0,1.4039612,-2.0,2.0,-0.09842829,-2.0,-2.0,-0.3217027,-2.0,2.0,-0.30437955,-2.0,-2.0,1.4417613,-2.0,2.0,0.47196054,-2.0,-2.0,-0.7935609,-2.0
2025-07-21 14:28:08.039,1.2800000000000007,1280,64,0.0146753,-0.02107895,-0.03226314,0.04027981,-0.06074735,-0.011207455,0.0,0.0,0.0,0.00036606993,0.05704513,0.10722916,-0.035243772,-0.028460454,0.17899728,-0.05821898,0.017848408,0.0038110758,0.003005045,-0.036147743,-0.007824501,0.012274253,0.058500748,-0.07441643,-0.0012403468,0.051067866,0.022579672,0.025955033,-0.043822963,0.037154447,0.06364001,-0.011312705,0.019442163,0.07219731,2.0,-0.30437955,-2.0,-2.0,1.4417613,-2.0,2.0,0.47196054,-2.0,-2.0,-0.7935609,-2.0,2.0,0.118644275,-2.0,-2.0,0.021699833,-2.0,2.0,-0.2690328,-2.0,-2.0,-0.30195734,-2.0
2025-07-21 14:28:08.057,1.3000000000000007,1300,65,0.0073336805,-0.0038859448,-0.03659517,-0.015677223,-0.050244503,-0.03581589,0.0,0.0,0.0,0.00030521228,0.049233302,0.110719055,-0.039002,-0.038119577,0.16160801,-0.07082285,0.027518792,-0.00038683726,0.007944774,-0.029668655,-0.016878203,0.019255694,0.007923692,-0.057638615,0.06181239,-0.022140143,-0.05415795,-0.00039434814,0.0019603,-0.044260643,0.032255623,-0.037458133,-0.060691394,-0.053655248,2.0,0.118644275,-2.0,-2.0,0.021699833,-2.0,2.0,-0.2690328,-2.0,-2.0,-0.30195734,-2.0,2.0,1.0010415,-2.0,-2.0,1.4463482,-2.0,2.0,0.1912266,-2.0,-2.0,-0.27579004,-2.0
2025-07-21 14:28:08.077,1.3200000000000007,1320,66,-0.0076956316,0.025623294,-0.011859183,-0.014859766,-0.05624936,-0.017118119,0.0,0.0,0.0,0.00012229828,0.05819999,0.106371894,-0.03141249,-0.028236078,0.17159022,-0.069092594,0.015376096,0.0062495293,-0.00026522993,-0.033026822,-0.011134214,0.003219146,0.039919302,-0.045807485,0.010586673,0.03846661,-0.0071231043,0.038623016,0.021733306,0.029895041,-0.023883916,0.07471365,-0.010342323,0.006110147,2.0,1.0010415,-2.0,-2.0,1.4463482,-2.0,2.0,0.1912266,-2.0,-2.0,-0.27579004,-2.0,2.0,-0.51636356,-2.0,-2.0,1.7500753,-2.0,2.0,0.28103584,-2.0,-2.0,-0.8202117,-2.0
2025-07-21 14:28:08.097,1.3400000000000007,1340,67,-0.064773865,-0.017320724,0.01145961,0.007382708,-0.043611556,0.0035306704,0.0,0.0,0.0,-9.1064685e-05,0.04321753,0.106943615,-0.032104608,-0.020844989,0.16473672,-0.05813024,0.021312948,0.0016950455,0.0012772777,-0.04357261,-0.011813603,0.0032952626,0.0066525135,-0.07996365,-0.031109601,0.047885504,0.04702731,-0.050877184,0.05805248,-0.0018393544,-0.074106544,0.010929697,0.017345607,-0.07490248,2.0,-0.51636356,-2.0,-2.0,1.7500753,-2.0,2.0,0.28103584,-2.0,-2.0,-0.8202117,-2.0,2.0,0.10213218,-2.0,-2.0,0.7744,-2.0,2.0,0.2503325,-2.0,-2.0,-0.3730763,-2.0
2025-07-21 14:28:08.122,1.3600000000000008,1360,68,-0.03829991,0.028906759,0.0013257974,0.03984552,-0.038982626,0.03427139,0.0,0.0,0.0,-0.0002542985,0.055445857,0.10213373,-0.0379005,-0.021393493,0.17556603,-0.073350504,0.02006182,0.0030733747,-0.008601588,-0.03865127,-0.024521828,-0.0017113559,0.013106807,0.007673316,0.04083023,0.06513177,-0.029429328,-0.03793778,-0.066225186,-0.018761007,0.055058207,-0.04640334,-0.018791884,-0.052667346,2.0,0.10213218,-2.0,-2.0,0.7744,-2.0,2.0,0.2503325,-2.0,-2.0,-0.3730763,-2.0,2.0,0.27699688,-2.0,-2.0,1.0249734,-2.0,2.0,0.030715443,-2.0,-2.0,-0.35587424,-2.0
2025-07-21 14:28:08.140,1.3800000000000008,1380,69,0.043427363,0.0075905193,0.003670377,-0.011976758,-0.05189256,-0.03607925,0.0,0.0,0.0,-0.0004321775,0.059620325,0.101907216,-0.0390986,-0.03345666,0.1688805,-0.06940329,0.021330226,-0.0017785899,-0.014310444,-0.04473023,-0.0110632945,0.011282391,-0.0006792371,0.040224697,-0.046243634,0.005550194,0.0007324676,0.06273779,0.008271631,0.06702221,0.0666338,0.03872001,-0.019873489,-0.005922182,2.0,0.27699688,-2.0,-2.0,1.0249734,-2.0,2.0,0.030715443,-2.0,-2.0,-0.35587424,-2.0,2.0,0.24339183,-2.0,-2.0,1.120646,-2.0,2.0,-0.1188341,-2.0,-2.0,-0.35705423,-2.0
2025-07-21 14:28:08.160,1.4000000000000008,1400,70,-0.0065278034,-0.0026731899,-0.055786066,-0.04707884,0.021694595,-0.04798805,0.0,0.0,0.0,-0.00060210214,0.044804685,0.10013345,-0.03311855,-0.032663915,0.15998247,-0.060725193,0.012679,0.01028818,-0.009219311,-0.04755812,-0.011708654,0.009106553,0.056959927,6.8341114e-06,0.008680112,0.028616592,0.06577922,-0.0617344,-0.07116259,0.015981613,0.05226451,0.059223913,-0.07404617,-0.040502753,2.0,0.24339183,-2.0,-2.0,1.120646,-2.0,2.0,-0.1188341,-2.0,-2.0,-0.35705423,-2.0,2.0,0.15013395,-2.0,-2.0,0.8706145,-2.0,2.0,0.18704987,-2.0,-2.0,-0.49300802,-2.0
2025-07-21 14:28:08.177,1.4200000000000008,1420,71,-0.008413426,-0.035146378,0.049735278,0.017862996,-0.04985022,-0.046334017,0.0,0.0,0.0,-0.00056653237,0.04161636,0.105971225,-0.043816306,-0.021691898,0.16553986,-0.061969243,0.018152414,0.0076306965,-0.009348737,-0.037285928,-0.011915203,0.006735327,0.061685666,-0.07162823,0.0011000142,0.028565262,-0.03832911,-0.02136622,0.031320415,-0.045188334,-0.043054614,-0.03454283,-0.0127121555,-0.0353597,2.0,0.15013395,-2.0,-2.0,0.8706145,-2.0,2.0,0.18704987,-2.0,-2.0,-0.49300802,-2.0,2.0,-0.027461907,-2.0,-2.0,1.903688,-2.0,2.0,0.2757179,-2.0,-2.0,-0.47580346,-2.0
2025-07-21 14:28:08.197,1.4400000000000008,1440,72,-0.04407636,0.013978752,0.012565812,-0.027424775,0.019650236,-0.008296998,0.0,0.0,0.0,-0.0005174213,0.050013978,0.117756374,-0.03943628,-0.023465617,0.18069923,-0.054970723,0.01468003,0.011096096,-0.0015047524,-0.04700957,-0.0057297796,0.014565752,0.0672573,-0.0358829,0.04155978,-0.051328003,0.044293612,0.061789833,-0.016648615,0.04862034,-0.008455878,0.035749305,-0.05136276,0.011065059,2.0,-0.027461907,-2.0,-2.0,1.903688,-2.0,2.0,0.2757179,-2.0,-2.0,-0.47580346,-2.0,2.0,-0.50465804,-2.0,-2.0,0.8833333,-2.0,2.0,0.13531157,-2.0,-2.0,-0.5972219,-2.0
2025-07-21 14:28:08.222,1.4600000000000009,1460,73,0.0056881947,-0.026406508,-0.036673047,-0.03387432,0.009808328,0.0486013,0.0,0.0,0.0,-0.00043143675,0.042854153,0.09967921,-0.043146636,-0.019474294,0.17206353,-0.05535097,0.024383303,0.0098459525,-0.0034942336,-0.033221316,-0.01483093,0.014012641,0.02212899,-0.015305794,-0.03405521,0.05756352,-0.05624693,0.006476988,0.015182063,-0.05954324,0.013765595,-0.060669348,-0.057746533,0.037440024,2.0,-0.50465804,-2.0,-2.0,0.8833333,-2.0,2.0,0.13531157,-2.0,-2.0,-0.5972219,-2.0,2.0,0.7464718,-2.0,-2.0,0.6566904,-2.0,2.0,0.09616978,-2.0,-2.0,-0.20829085,-2.0
2025-07-21 14:28:08.239,1.4800000000000009,1480,74,0.05258143,0.011227459,0.005226465,-0.038144074,-0.061624393,0.032922097,0.0,0.0,0.0,-0.00026679708,0.041373592,0.10202804,-0.03692838,-0.020684162,0.18174659,-0.06392347,0.030310018,0.0021836266,-0.00979282,-0.042163163,-0.012537614,0.011061782,0.036729068,0.070352845,0.052774347,-0.05023985,-0.059901968,-0.06277539,0.053400256,0.022617957,0.010129838,-0.071260214,0.06544648,-0.040283732,2.0,0.7464718,-2.0,-2.0,0.6566904,-2.0,2.0,0.09616978,-2.0,-2.0,-0.20829085,-2.0,2.0,0.22986136,-2.0,-2.0,1.8762273,-2.0,2.0,0.17324519,-2.0,-2.0,-0.5049585,-2.0
2025-07-21 14:28:08.260,1.5000000000000009,1500,75,-0.03070421,0.026211018,-0.050866827,-0.04547649,-0.012481653,-0.007244051,0.0,0.0,0.0,-0.00025589947,0.048646823,0.115515016,-0.029364282,-0.035016075,0.16996425,-0.071964666,0.021711592,0.0022138616,-0.009671027,-0.037551522,-0.0031929852,0.010728553,0.07266117,-0.040665418,0.057501737,0.016993094,-0.028053435,0.017705966,-0.028098943,-0.036090035,-0.05151802,0.015266906,0.021328894,-0.024124116,2.0,0.22986136,-2.0,-2.0,1.8762273,-2.0,2.0,0.17324519,-2.0,-2.0,-0.5049585,-2.0,2.0,-0.39262924,-2.0,-2.0,0.99984473,-2.0,2.0,0.25240582,-2.0,-2.0,-0.7627415,-2.0
2025-07-21 14:28:08.278,1.520000000000001,1520,76,-0.015622748,0.014626314,0.0338167,-0.044673316,0.012980537,-0.01167489,0.0,0.0,0.0,-0.00024779316,0.043573037,0.10549075,-0.026036384,-0.03366983,0.17468882,-0.05910072,0.011313871,-0.0032537342,-0.0072422754,-0.048808716,-0.01616302,-0.0015330823,0.005078124,-0.049899068,0.021818172,-0.005468139,-0.025364539,-0.046462685,0.063879535,0.066973284,-0.010142905,-0.07344312,-0.051460408,-0.042392466,2.0,-0.39262924,-2.0,-2.0,0.99984473,-2.0,2.0,0.25240582,-2.0,-2.0,-0.7627415,-2.0,2.0,0.16721402,-2.0,-2.0,0.94869924,-2.0,2.0,0.13564345,-2.0,-2.0,-0.22977403,-2.0
2025-07-21 14:28:08.301,1.540000000000001,1540,77,0.007538697,-0.03943885,-0.030163331,0.023574602,-0.01587899,-0.049837183,0.0,0.0,0.0,-0.00028235852,0.04756102,0.097818576,-0.039940804,-0.026457159,0.17378527,-0.07456731,0.0223062,0.0035562718,-0.009535526,-0.039255004,-0.022772748,0.005689562,-0.010254682,-0.038534686,-0.049300082,0.069649994,0.05690889,-0.060481053,0.00044908994,-0.01829114,-0.0076579796,0.049377315,0.0007218906,0.04970648,2.0,0.16721402,-2.0,-2.0,0.94869924,-2.0,2.0,0.13564345,-2.0,-2.0,-0.22977403,-2.0,2.0,0.16253994,-2.0,-2.0,1.229409,-2.0,2.0,0.22515059,-2.0,-2.0,-0.51930934,-2.0
2025-07-21 14:28:08.322,1.560000000000001,1560,78,-0.018031826,0.0074969064,0.00090618647,0.014886485,-0.038541142,-0.018589426,0.0,0.0,0.0,-0.00036936507,0.046005473,0.10762288,-0.030127369,-0.01766666,0.17435929,-0.06527589,0.029633014,0.003632104,-0.0010004897,-0.033305265,-0.009444077,0.0045846202,0.014375796,0.020007633,0.039466586,0.071978755,0.039729472,0.039397795,-0.006143635,0.01222041,0.0019161485,-0.06734418,0.0045553935,0.05960111,2.0,0.16253994,-2.0,-2.0,1.229409,-2.0,2.0,0.22515059,-2.0,-2.0,-0.51930934,-2.0,2.0,-0.15279816,-2.0,-2.0,1.018991,-2.0,2.0,0.054458372,-2.0,-2.0,-0.54221314,-2.0
2025-07-21 14:28:08.341,1.580000000000001,1580,79,0.03200632,-0.026562275,0.043947898,0.04848048,0.01786471,0.018702015,0.0,0.0,0.0,-0.0004633637,0.056057826,0.11043369,-0.036392532,-0.032069314,0.18790813,-0.06877991,0.011365295,0.009292353,-0.005651489,-0.034800045,-0.01849663,0.013887086,-0.055824224,-0.037414044,0.040834654,0.045884393,0.0026443119,0.0135437,0.068506286,-0.040543716,0.076766536,0.038756073,0.06198986,-0.020654092,2.0,-0.15279816,-2.0,-2.0,1.018991,-2.0,2.0,0.054458372,-2.0,-2.0,-0.54221314,-2.0,2.0,0.08118657,-2.0,-2.0,1.0715533,-2.0,2.0,-0.06903642,-2.0,-2.0,-0.25271937,-2.0
2025-07-21 14:28:08.358,1.600000000000001,1600,80,0.030591043,-0.010480119,0.0012716618,0.011254988,-0.04615901,-0.010238335,0.0,0.0,0.0,-0.00055496034,0.055951558,0.10881244,-0.025999663,-0.017406076,0.18110782,-0.06932353,0.014629696,0.007044028,0.0025601622,-0.037086938,-0.011863029,0.011607981,0.0603782,0.02095494,-0.03551215,-0.0008756133,0.010670373,-0.054899268,-0.034660563,-0.02259027,-0.01483163,0.07215883,-0.030187596,0.00030574185,2.0,0.08118657,-2.0,-2.0,1.0715533,-2.0,2.0,-0.06903642,-2.0,-2.0,-0.25271937,-2.0,2.0,0.09244499,-2.0,-2.0,1.1687045,-2.0,2.0,0.121852376,-2.0,-2.0,-0.32631102,-2.0
2025-07-21 14:28:08.378,1.620000000000001,1620,81,0.0017776751,0.02101643,0.019428024,-0.035993766,-0.015119036,-0.0077700336,0.0,0.0,0.0,-0.00044279595,0.05265412,0.11181634,-0.033254348,-0.023594148,0.16878042,-0.0651111,0.02738338,-0.0010599359,0.0040709,-0.035865165,-0.023423417,0.009171449,0.038417656,-0.025304371,-0.06998193,-0.030031834,-0.053321883,0.0069992575,-0.03881062,-0.05966458,-0.06900957,-0.031833943,0.07857059,-0.05483176,2.0,0.09244499,-2.0,-2.0,1.1687045,-2.0,2.0,0.121852376,-2.0,-2.0,-0.32631102,-2.0,2.0,0.071586855,-2.0,-2.0,1.5455579,-2.0,2.0,0.17875004,-2.0,-2.0,-0.47105363,-2.0
2025-07-21 14:28:08.399,1.640000000000001,1640,82,0.030083794,0.057605274,-0.026429124,-0.043400057,-0.040603716,-0.020085623,0.0,0.0,0.0,-0.00016070323,0.055061806,0.10230507,-0.037357256,-0.032186072,0.18022755,-0.07031477,0.02844441,-0.008249101,-0.0022222365,-0.045205344,-0.010245247,0.0077397693,-0.07620545,0.0011466749,-0.06619198,-0.025708873,0.052582663,0.011201776,0.002132642,0.02733069,0.04121821,0.022603892,-0.06285067,0.05004813,2.0,0.071586855,-2.0,-2.0,1.5455579,-2.0,2.0,0.17875004,-2.0,-2.0,-0.47105363,-2.0,2.0,-0.03092297,-2.0,-2.0,0.7112614,-2.0,2.0,-0.03981643,-2.0,-2.0,-0.45960143,-2.0
2025-07-21 14:28:08.422,1.660000000000001,1660,83,-0.04298424,0.025957035,-0.051136944,-0.024391,-0.068565354,-0.04277186,0.0,0.0,0.0,0.00016459289,0.056340978,0.09229846,-0.033352893,-0.038944617,0.17819946,-0.06621334,0.023752762,0.0017576651,9.760956e-05,-0.04499856,-0.017456355,0.0037365379,-0.039250694,-0.07435539,-0.041084442,-0.010158635,-0.07136468,0.06858,-0.024149463,-0.04833491,0.058148142,-0.039588265,0.036342893,0.034476165,2.0,-0.03092297,-2.0,-2.0,0.7112614,-2.0,2.0,-0.03981643,-2.0,-2.0,-0.45960143,-2.0,2.0,0.52110237,-2.0,-2.0,0.9016757,-2.0,2.0,-0.066799544,-2.0,-2.0,-0.3170308,-2.0
2025-07-21 14:28:08.439,1.680000000000001,1680,84,0.009272992,-0.0107895825,-0.013550633,-0.02650462,0.0034633297,0.005080606,0.0,0.0,0.0,0.00044716048,0.045944303,0.102861784,-0.037277333,-0.025817763,0.1724137,-0.06261114,0.015245924,0.0054232436,-0.0016878722,-0.032734074,-0.01194388,0.006451145,0.0031012385,-0.03285017,0.025197133,0.027403016,0.01625287,0.0546518,0.030175304,-0.023171842,0.049397238,-0.007911839,0.033220295,-0.053443998,2.0,0.52110237,-2.0,-2.0,0.9016757,-2.0,2.0,-0.066799544,-2.0,-2.0,-0.3170308,-2.0,2.0,0.0860725,-2.0,-2.0,1.5307503,-2.0,2.0,0.18284944,-2.0,-2.0,-0.5509617,-2.0
2025-07-21 14:28:08.458,1.700000000000001,1700,85,-0.030438453,-0.035117712,0.015878953,-0.011918754,0.0037308752,-0.0019119038,0.0,0.0,0.0,0.00063492067,0.04480323,0.10005353,-0.02960221,-0.03273828,0.1870557,-0.06379306,0.029341977,-0.010643518,0.00992732,-0.028701795,-0.007795141,0.008283752,-0.046207078,0.027531695,0.031337403,-0.07387119,-0.027503802,-0.03831915,0.051812597,0.04226145,0.04227263,-0.07276747,0.03091482,0.018877218,2.0,0.0860725,-2.0,-2.0,1.5307503,-2.0,2.0,0.18284944,-2.0,-2.0,-0.5509617,-2.0,2.0,-0.38802373,-2.0,-2.0,1.095701,-2.0,2.0,0.00262893,-2.0,-2.0,-0.51321614,-2.0
2025-07-21 14:28:08.479,1.720000000000001,1720,86,0.0013929462,-0.0094414735,-0.030514868,-0.007709323,-0.033893183,0.028455468,1.5,0.0,0.0,0.0007657158,0.04894189,0.09732008,-0.037109997,-0.035715614,0.1734841,-0.06812902,0.017123433,0.0024038274,0.0031614858,-0.037895776,-0.021624712,0.0011280187,-0.0040649283,-0.060026553,0.020392936,-0.034644846,0.021036992,0.030798215,-0.043470874,-0.029032324,-0.0014296502,-0.0665644,0.023188548,-0.021024238,2.0,-0.38802373,-2.0,-2.0,1.095701,-2.0,2.0,0.00262893,-2.0,-2.0,-0.51321614,-2.0,2.0,-1.5732797,2.0,-2.0,-0.27130955,-2.0,2.0,-0.5210072,-2.0,-2.0,-0.06370535,-2.0
2025-07-21 14:28:08.500,1.740000000000001,1740,87,-0.14773089,0.037961602,0.014923808,-0.046133075,-0.016152205,-0.027305357,1.5,0.0,0.0,0.0009444604,0.052856624,0.035042316,0.028831095,-0.035122696,0.17294818,-0.05762955,0.029877609,-0.021941092,0.020202331,-0.048638094,-0.010290055,0.000109356915,0.056386273,-0.25587004,0.24060631,-0.06387937,-0.048730165,0.022900464,-0.0405345,-0.06256556,0.014691133,-0.006668287,-0.031748384,0.02883247,2.0,-1.5732797,2.0,-2.0,-0.27130955,-2.0,2.0,-0.5210072,-2.0,-2.0,-0.06370535,-2.0,-2.0,-1.3863442,2.0,-2.0,-0.7104182,-2.0,2.0,-0.6828156,-2.0,-2.0,-0.4622675,-2.0
2025-07-21 14:28:08.522,1.7600000000000011,1760,88,-0.22115853,0.02419962,0.023641339,-0.015400759,0.0007506274,-0.0013168959,1.5,0.0,0.0,0.001309753,0.05666121,-0.050273217,0.09683051,-0.057207964,0.15526988,-0.04557507,0.0062591024,-0.024068274,0.043367624,-0.058970787,-0.023625555,0.017493403,-0.09891833,-0.25810412,0.16451089,0.039252177,-0.08372502,0.096360214,-0.09976042,0.024978014,0.112875946,-0.04738745,0.035404094,0.08736452,-2.0,-1.3863442,2.0,-2.0,-0.7104182,-2.0,2.0,-0.6828156,-2.0,-2.0,-0.4622675,-2.0,-2.0,-0.893562,2.0,-2.0,0.41096768,-2.0,2.0,-0.88116825,-2.0,-2.0,-0.8920251,-2.0
2025-07-21 14:28:08.540,1.7800000000000011,1780,89,-0.2099453,0.075837724,0.009510462,-0.00643976,-0.044823654,-0.020516934,1.5,0.0,0.0,0.0015702248,0.026544457,-0.11970046,0.12833554,-0.06711484,0.14436778,-0.02157656,-0.012252789,-0.051534828,0.050278366,-0.07599231,-0.026506474,0.013090926,-0.029709099,-0.17082426,0.123343706,-0.02355531,-0.0734548,-0.025206804,-0.006094105,-0.046971127,0.04735933,0.016723678,0.035756983,-0.035334095,-2.0,-0.893562,2.0,-2.0,0.41096768,-2.0,2.0,-0.88116825,-2.0,-2.0,-0.8920251,-2.0,-2.0,-0.048825108,2.0,-2.0,-0.1842903,-2.0,2.0,-1.1046356,-2.0,-2.0,-0.66776633,2.0
2025-07-21 14:28:08.559,1.8000000000000012,1800,90,-0.04672734,-0.04774963,0.092297375,-0.03909066,-0.017207721,0.0067160414,1.5,0.0,0.0,0.0014228888,-0.004219506,-0.13118804,0.15884267,-0.062863566,0.113939665,-4.1409166e-05,-0.013962067,-0.058123197,0.071885005,-0.08621779,-0.044864956,0.06895269,-0.11754364,0.018407283,0.13112974,0.041446827,-0.018327396,-0.012827548,0.012108366,-0.023207245,0.051419012,0.021384055,-0.07113242,0.067311466,-2.0,-0.048825108,2.0,-2.0,-0.1842903,-2.0,2.0,-1.1046356,-2.0,-2.0,-0.66776633,2.0,-2.0,0.7136695,2.0,-2.0,-0.64936125,-2.0,2.0,-1.6430849,-2.0,-0.9074818,0.3589351,2.0
2025-07-21 14:28:08.579,1.8200000000000012,1820,91,0.114019305,-0.078695625,0.074477956,-0.013459996,-0.03564258,0.04455737,1.5,0.0,0.0,0.0007348124,-0.03566696,-0.08115513,0.18008256,-0.049256545,0.08630982,0.022517046,-0.013198847,-0.09382752,0.11666594,-0.07223818,-0.0526804,0.111383684,-0.08802685,0.20175269,0.0062461505,0.0223323,-0.043094624,0.018394224,-5.3613174e-05,-0.15186271,0.1542916,0.03894219,0.0997763,0.16928115,-2.0,0.7136695,2.0,-2.0,-0.64936125,-2.0,2.0,-1.6430849,-2.0,-0.9074818,0.3589351,2.0,-2.0,1.9926562,2.0,-2.0,-0.78746337,-2.0,2.0,-2.0,-2.0,-0.7366539,0.5742263,2.0
2025-07-21 14:28:08.601,1.8400000000000012,1840,92,0.051440552,-0.16645858,0.046463113,0.00849464,-0.062643394,0.039143354,1.5,0.0,0.0,-0.00032164203,-0.042343173,0.021783149,0.19669573,-0.048836466,0.056912627,0.051225193,0.004289554,-0.14783327,0.15570371,-0.060291793,-0.019301234,0.15619642,-0.062054567,0.3625726,-0.049677145,0.06308588,-0.16363478,0.0916628,-0.026292825,-0.06923342,0.082952455,0.05948674,0.04370617,0.03032245,-2.0,1.9926562,2.0,-2.0,-0.78746337,-2.0,2.0,-2.0,-2.0,-0.7366539,0.5742263,2.0,-2.0,2.0,2.0,-2.0,-0.6490086,-2.0,2.0,-2.0,-2.0,-2.0,0.7546119,2.0
2025-07-21 14:28:08.622,1.8600000000000012,1860,93,-0.010409494,-0.084904544,0.11804997,-0.071636975,-0.0038362101,-0.037471514,1.5,0.0,0.0,-0.0017566248,-0.047088575,0.13400209,0.19858527,-0.035342284,0.02153639,0.087573804,0.004700663,-0.18861692,0.2074186,-0.07900887,0.02693728,0.17351241,0.0026003087,0.36918855,0.01105248,0.00077106536,-0.11277168,0.030425856,-0.0027440444,-0.17057262,0.13296367,-0.07786314,0.06212893,0.1560347,-2.0,2.0,2.0,-2.0,-0.6490086,-2.0,2.0,-2.0,-2.0,-2.0,0.7546119,2.0,-2.0,2.0,2.0,-2.0,-0.5980371,-2.0,2.0,-2.0,-2.0,-2.0,1.1215183,2.0
2025-07-21 14:28:08.641,1.8800000000000012,1880,94,-0.057400014,0.063987695,0.020744909,-0.013037534,-0.06043168,-0.004630341,1.5,0.0,0.0,-0.003655803,-0.07040003,0.25372726,0.22474511,-0.026046522,-0.01651634,0.11405192,0.0005660762,-0.22236991,0.22618265,-0.07330403,0.017602129,0.2184786,0.028861886,0.17866205,-0.013936196,0.0739454,-0.08852809,-0.0016677867,0.009666452,-0.10021297,0.12162091,0.043164466,0.05719378,0.07707427,-2.0,2.0,2.0,-2.0,-0.5980371,-2.0,2.0,-2.0,-2.0,-2.0,1.1215183,2.0,-2.0,2.0,2.0,-2.0,-1.1973258,-2.0,2.0,-2.0,-2.0,-2.0,0.8878934,-0.43596762
2025-07-21 14:28:08.659,1.9000000000000012,1900,95,-0.13823067,0.14598046,0.06070509,-0.016624384,-0.058007352,0.015856266,1.5,0.0,0.0,-0.0048845927,-0.06636023,0.337469,0.22135554,-0.01660619,-0.041990783,0.13056815,-0.009192718,-0.25245297,0.26857466,-0.08576978,0.03869902,0.2326257,-0.044851746,0.23401082,0.04418745,0.0052175955,-0.08592049,0.013314356,-0.024940783,-0.09457984,0.0463615,-0.0030072425,0.006232837,-0.019651564,-2.0,2.0,2.0,-2.0,-1.1973258,-2.0,2.0,-2.0,-2.0,-2.0,0.8878934,-0.43596762,-2.0,2.0,-1.2949578,-2.0,-0.8078141,-2.0,2.0,-1.8263863,-2.0,-2.0,0.08411754,-2.0
2025-07-21 14:28:08.680,1.9200000000000013,1920,96,-0.20113455,0.24280447,-0.0031473578,-0.05218138,-0.015252763,0.031363465,1.5,0.0,0.0,-0.0055742003,-0.073485345,0.41044453,0.16706623,-0.045208108,-0.07122324,0.160979,-0.009537638,-0.2698979,0.28550667,-0.09189923,0.030940313,0.22715487,-0.027352924,0.056071296,-0.22349632,-0.076508075,-0.0025123244,0.0487929,-0.00021563206,0.014558711,0.02577307,0.01814916,-0.047627214,-0.03896782,-2.0,2.0,-1.2949578,-2.0,-0.8078141,-2.0,2.0,-1.8263863,-2.0,-2.0,0.08411754,-2.0,2.0,2.0,-2.0,-2.0,-1.4352789,2.0,2.0,-1.9733981,-2.0,-2.0,-0.35530418,-2.0
2025-07-21 14:28:08.709,1.9400000000000013,1940,97,0.10521642,0.2583958,0.03377401,-0.08567165,0.02125391,-0.004388938,1.5,0.0,0.0,-0.005614734,-0.056518473,0.4228919,0.10634168,-0.039565697,-0.09458393,0.19693816,-0.0060087563,-0.26780704,0.2885652,-0.09501865,0.031120844,0.22147238,0.11089816,0.050290316,0.033398353,0.054956246,-0.13637285,0.12073494,0.08680932,0.007138987,-0.05422446,-0.024520746,-0.008480272,-0.021413846,2.0,2.0,-2.0,-2.0,-1.4352789,2.0,2.0,-1.9733981,-2.0,-2.0,-0.35530418,-2.0,2.0,1.4061302,-2.0,2.0,-0.9120391,2.0,2.0,-1.3033892,-2.0,-2.0,-0.979811,-2.0
2025-07-21 14:28:08.722,1.9600000000000013,1960,98,0.31386617,0.1393686,0.042665873,-0.055195257,0.029108804,-0.03609044,1.5,0.0,0.0,-0.005642495,-0.038002804,0.41441318,0.15301111,-0.013370635,-0.14053491,0.23042116,0.025008695,-0.26296964,0.2731096,-0.06839707,0.026152601,0.21790425,0.080047764,-0.0049081002,0.05572444,0.035524704,-0.0013358338,-0.015757907,0.063864656,-0.0214714,0.006310217,0.06399158,0.0009801979,0.048032325,2.0,1.4061302,-2.0,2.0,-0.9120391,2.0,2.0,-1.3033892,-2.0,-2.0,-0.979811,-2.0,2.0,1.2488865,-2.0,2.0,-0.40118212,2.0,2.0,-1.2470232,-2.0,-2.0,-1.3353683,-2.0
2025-07-21 14:28:08.741,1.9800000000000013,1980,99,0.29744804,0.145806,0.04904971,-0.02562285,0.0006373319,0.019982979,1.5,0.0,0.0,-0.0061787777,0.01699022,0.40397853,0.19956657,0.012091408,-0.1536326,0.25567588,0.038942855,-0.26296806,0.2438686,-0.027694853,0.01546574,0.22370216,0.047082923,-0.041044805,0.11995008,0.036993552,-0.031708278,0.085724674,0.09148187,0.00019877231,-0.046663225,0.0042997976,-0.094677284,-0.03945583,2.0,1.2488865,-2.0,2.0,-0.40118212,2.0,2.0,-1.2470232,-2.0,-2.0,-1.3353683,-2.0,2.0,1.2050505,-2.0,2.0,-0.49622178,2.0,2.0,-1.2157311,-2.0,-2.0,-1.3006825,-2.0
2025-07-21 14:28:08.761,2.0000000000000013,2000,100,0.31296262,0.069175206,0.10427195,0.02621766,0.05767745,0.023971125,1.5,0.0,0.0,-0.006942926,0.02882154,0.36772287,0.21859524,0.047620617,-0.16394241,0.25629273,0.0675987,-0.25646824,0.22096843,-0.020179782,-0.005760025,0.22651522,0.09940137,0.00049105106,0.102001645,0.09902352,-0.059259534,-0.055369344,0.1086808,-0.010240688,-0.070669465,0.07056191,-0.08599629,-0.0028630083,2.0,1.2050505,-2.0,2.0,-0.49622178,2.0,2.0,-1.2157311,-2.0,-2.0,-1.3006825,-2.0,2.0,1.0437691,-2.0,2.0,-0.45095205,2.0,2.0,-1.4081513,-2.0,-2.0,-1.2700558,-2.0
2025-07-21 14:28:08.781,2.0200000000000014,2020,101,0.23886867,-0.004952754,0.015105676,0.03444079,0.05287441,0.04290334,1.5,0.0,0.0,-0.007742726,0.05734411,0.34744203,0.21043509,0.06781086,-0.19078375,0.26407292,0.06790348,-0.24270463,0.18066412,0.00215457,-0.018629888,0.20863369,0.06938003,-0.12805457,-0.029855449,0.004125527,-0.013807192,0.040265027,0.09136869,-0.023518715,-0.010469074,-0.007949941,0.0091574555,0.050695408,2.0,1.0437691,-2.0,2.0,-0.45095205,2.0,2.0,-1.4081513,-2.0,-2.0,-1.2700558,-2.0,2.0,1.2594411,-2.0,2.0,-0.35963392,2.0,2.0,-1.4901595,-2.0,-2.0,-1.5333556,-2.0
2025-07-21 14:28:08.805,2.0400000000000014,2040,102,0.2063066,7.432333e-05,-0.0032282788,0.045355346,0.059731208,-0.03147407,1.5,0.0,0.0,-0.008384046,0.072617136,0.34094796,0.20694834,0.07059477,-0.18925883,0.24110317,0.088299766,-0.24541603,0.14464426,0.0064861905,-0.036846075,0.21054469,0.05919289,-0.0536296,-0.09807007,0.08646374,-0.032847658,-0.038586535,0.018169018,-0.05295316,-0.060869213,-0.0151541475,-0.05151752,-0.010063008,2.0,1.2594411,-2.0,2.0,-0.35963392,2.0,2.0,-1.4901595,-2.0,-2.0,-1.5333556,-2.0,2.0,1.5913497,-2.0,2.0,-0.3705135,2.0,2.0,-1.7328022,-2.0,-2.0,-1.739417,-2.0
2025-07-21 14:28:08.823,2.0600000000000014,2060,103,0.13781528,-0.03660277,0.07813467,0.08452171,-0.0013392195,0.012172312,1.5,0.0,0.0,-0.0088719465,0.08690593,0.32019824,0.18881601,0.079420194,-0.18843207,0.24151245,0.07771214,-0.23999417,0.10907041,0.022969497,-0.07284868,0.19880292,0.050605435,-0.0107467845,-0.12526555,0.07972211,0.013643043,-0.082110666,0.015755659,-0.044438865,-0.02327742,0.02654625,-0.032624632,0.0486765,2.0,1.5913497,-2.0,2.0,-0.3705135,2.0,2.0,-1.7328022,-2.0,-2.0,-1.739417,-2.0,2.0,1.0289223,-2.0,2.0,-0.261384,2.0,2.0,-1.6052732,-2.0,-2.0,-1.5696687,-2.0
2025-07-21 14:28:08.842,2.0800000000000014,2080,104,0.15832525,-0.08139606,0.017249068,0.042828623,0.09187309,-0.0017961,1.5,0.0,0.0,-0.0094906585,0.074611135,0.29343525,0.1637823,0.07330476,-0.18386088,0.2307168,0.08320611,-0.24779378,0.09281189,0.007858089,-0.10289011,0.197916,0.04344778,-0.12758774,-0.03910943,0.047859512,-0.001448926,-0.013824506,0.056492012,-0.048640817,-0.027214803,0.040996116,-0.032841913,0.045884386,2.0,1.0289223,-2.0,2.0,-0.261384,2.0,2.0,-1.6052732,-2.0,-2.0,-1.5696687,-2.0,2.0,1.2157298,-2.0,2.0,-0.29069763,2.0,2.0,-1.5536698,-2.0,-2.0,-1.5619422,-2.0
2025-07-21 14:28:08.862,2.1000000000000014,2100,105,0.14482236,-0.031534553,0.062388252,0.117537536,0.03123993,0.035923675,1.5,0.0,0.0,-0.010108501,0.07535531,0.27058673,0.14174502,0.08513359,-0.15854757,0.23973615,0.09343563,-0.25459644,0.05497035,0.014216498,-0.14039728,0.1956608,0.0593072,-0.12701522,-0.024456816,-0.011533672,0.065025106,-0.03278062,-0.067576475,-0.05542836,-0.11605496,0.034417644,-0.09539639,0.034526154,2.0,1.2157298,-2.0,2.0,-0.29069763,2.0,2.0,-1.5536698,-2.0,-2.0,-1.5619422,-2.0,2.0,1.0178894,-2.0,2.0,-0.2750994,2.0,2.0,-1.5446016,1.5665238,-2.0,-1.3476095,-2.0
2025-07-21 14:28:08.883,2.1200000000000014,2120,106,0.086104885,-0.10024993,-0.0035427138,0.12073893,0.007623568,-0.019306513,1.5,0.0,0.0,-0.010580766,0.07708337,0.23929511,0.12349062,0.066951126,-0.11485376,0.24011382,0.078694075,-0.28427655,0.06779486,0.0007258854,-0.16185303,0.21201143,-0.004404804,-0.025155736,-0.04766182,0.013218768,0.139111,-0.031187445,0.033434812,-0.023099452,0.12346035,-0.026990244,-0.10289444,0.0032821447,2.0,1.0178894,-2.0,2.0,-0.2750994,2.0,2.0,-1.5446016,1.5665238,-2.0,-1.3476095,-2.0,2.0,0.07129485,-2.0,2.0,1.1556605,2.0,-2.0,-1.217964,2.0,-2.0,-2.0,-2.0
2025-07-21 14:28:08.905,2.1400000000000015,2140,107,-0.0074263727,-0.14872573,0.021485902,0.12701704,0.055301078,0.027944565,1.5,0.0,0.0,-0.010910319,0.073710516,0.21984805,0.121963106,0.067030534,-0.05139097,0.22698998,0.07265953,-0.27733114,0.098668255,-0.006226354,-0.19541307,0.20697848,-0.020064618,-0.14735715,-0.0011200364,0.047508996,0.18377782,-0.05929327,-0.10680863,-0.06096778,0.06381272,-0.004397657,-0.14044064,0.06212697,2.0,0.07129485,-2.0,2.0,1.1556605,2.0,-2.0,-1.217964,2.0,-2.0,-2.0,-2.0,2.0,-0.5386252,-2.0,2.0,2.0,2.0,-2.0,0.1936487,2.0,-2.0,-1.6469365,-2.0
2025-07-21 14:28:08.922,2.1600000000000015,2160,108,-0.006482983,-0.113028355,-0.024520194,0.09351497,0.06792694,0.011513341,1.5,0.0,0.0,-0.011191786,0.056971382,0.17632326,0.11406138,0.07968906,0.04914679,0.23360057,0.03883614,-0.24585389,0.13991742,-0.023352591,-0.23772514,0.21719755,-0.070851654,-0.14615555,-0.017612325,0.0066674957,0.38270122,0.038737033,-0.077674285,0.1681333,0.061687503,-0.039470226,-0.14338928,0.040707666,2.0,-0.5386252,-2.0,2.0,2.0,2.0,-2.0,0.1936487,2.0,-2.0,-1.6469365,-2.0,2.0,-0.6410896,-2.0,2.0,2.0,2.0,-2.0,1.0025991,2.0,-2.0,-1.0616547,-2.0
2025-07-21 14:28:08.944,2.1800000000000015,2180,109,0.015432245,-0.0027372937,-0.069394946,0.12423463,-0.0059427344,0.022670604,1.5,0.0,0.0,-0.010979851,0.03673913,0.1430672,0.12402203,0.0755386,0.18990876,0.22042428,-0.015153677,-0.13357565,0.1748012,-0.02179463,-0.272781,0.20831622,0.002974256,-0.10208623,-0.039731674,-0.015526305,0.28012526,-0.0036761116,-0.07229193,0.27138817,0.10217394,-0.017184092,-0.08266974,-0.026056604,2.0,-0.6410896,-2.0,2.0,2.0,2.0,-2.0,1.0025991,2.0,-2.0,-1.0616547,-2.0,2.0,-1.0725482,-2.0,-0.30312765,2.0,2.0,-2.0,1.2993132,2.0,-2.0,-1.5037094,-2.0
2025-07-21 14:28:08.962,2.2000000000000015,2200,110,-0.056584004,0.0020655144,-0.099295825,0.065152064,0.043476984,-0.047844183,1.5,0.0,0.0,-0.0097968355,0.019689856,0.110984564,0.11908196,0.05933208,0.2850858,0.22657745,-0.03445067,-0.013871318,0.18639867,-0.040126737,-0.29618415,0.2177478,-0.1208197,-0.07176106,-0.053127598,-0.0070212022,0.28532636,0.07798154,-0.032215074,0.35228395,0.06636779,0.029021641,-0.10553047,-0.030279452,2.0,-1.0725482,-2.0,-0.30312765,2.0,2.0,-2.0,1.2993132,2.0,-2.0,-1.5037094,-2.0,2.0,-0.85092366,-2.0,-2.0,2.0,-2.0,-0.7788225,2.0,-2.0,-2.0,-1.3142569,-2.0
2025-07-21 14:28:08.987,2.2200000000000015,2220,111,-0.013673962,-0.06546308,-0.22390762,0.09828656,0.060209353,-0.0423946,1.5,0.0,0.0,-0.0076151555,-0.013152944,0.065715574,0.12538224,0.027162233,0.34916422,0.16521335,-0.034000635,0.12507442,0.11281795,-0.038672727,-0.3227548,0.20764685,-0.07274609,-0.048281573,0.010398204,-0.04696319,0.047406446,-0.21269397,0.05369118,0.36735305,-0.33080167,0.06267362,0.006892518,-0.045046657,2.0,-0.85092366,-2.0,-2.0,2.0,-2.0,-0.7788225,2.0,-2.0,-2.0,-1.3142569,-2.0,2.0,-2.0,2.0,-2.0,0.1599205,-2.0,2.0,0.8710967,-2.0,-2.0,-0.34427127,-2.0
2025-07-21 14:28:09.005,2.2400000000000015,2240,112,-0.19274119,0.110169716,-0.23050931,0.11216527,0.0036581338,-0.003898209,1.5,0.0,0.0,-0.0045158872,-0.007939996,-0.020407846,0.15989207,-0.02227224,0.34895676,0.15794986,-0.030459365,0.17943244,0.04831446,-0.03579141,-0.34494415,0.1981785,-0.029531624,-0.26226047,0.09019972,-0.1007705,-0.060154974,0.1259926,-0.07945764,0.046644334,0.0048185466,-0.015732633,0.051834386,-0.0074741496,2.0,-2.0,2.0,-2.0,0.1599205,-2.0,2.0,0.8710967,-2.0,-2.0,-0.34427127,-2.0,-2.0,-1.9662509,2.0,-2.0,-1.7549586,-2.0,2.0,0.27296177,-2.0,-2.0,0.43885276,-2.0
2025-07-21 14:28:09.025,2.2600000000000016,2260,113,-0.35001373,0.21544242,-0.14836875,0.084823705,0.025103455,-0.048377555,1.5,0.0,0.0,-0.00060529454,-0.00397928,-0.13362075,0.17842963,-0.04739646,0.32609865,0.1930503,-0.057136122,0.158436,0.035498757,-0.043605864,-0.32812402,0.1496581,0.017890438,-0.29934028,0.055565514,-0.07018289,-0.15941039,0.045593686,-0.039828405,-0.07764687,0.06432158,-0.023365723,0.08039006,-0.06469119,-2.0,-1.9662509,2.0,-2.0,-1.7549586,-2.0,2.0,0.27296177,-2.0,-2.0,0.43885276,-2.0,-2.0,-0.85495406,2.0,-2.0,0.008714097,-2.0,2.0,0.3092002,-2.0,-2.0,-0.8457566,-2.0
2025-07-21 14:28:09.043,2.2800000000000016,2280,114,-0.27763993,0.29177612,-0.061600227,0.04276681,0.021988215,0.0084006665,1.5,0.0,0.0,0.0021951238,-0.02613153,-0.20259595,0.2063929,-0.07114239,0.28105283,0.23278458,-0.08070358,0.13603207,0.060072523,-0.061260242,-0.28770882,0.11505817,-0.059676208,-0.1263129,0.051721297,-0.01846485,-0.13143764,0.011202187,-0.10051511,-0.1234851,0.0015325475,-0.026269367,0.11105607,-0.10374163,-2.0,-0.85495406,2.0,-2.0,0.008714097,-2.0,2.0,0.3092002,-2.0,-2.0,-0.8457566,-2.0,-2.0,-1.5184256,2.0,-2.0,-0.6954534,-2.0,2.0,0.087770425,-2.0,-2.0,-0.16253808,-2.0
2025-07-21 14:28:09.063,2.3000000000000016,2300,115,-0.19517885,0.2354999,-0.026014732,-0.026424592,0.04813376,-0.016674493,1.5,0.0,0.0,0.0033884533,-0.031278845,-0.23443659,0.21242188,-0.09694116,0.26185638,0.26052383,-0.07737976,0.124779314,0.06305224,-0.06335744,-0.2649134,0.05897757,-0.054023188,-0.010781486,-0.00957725,-0.078704655,-0.043598764,-0.00993873,0.034356542,-0.056166068,-0.012849629,-0.0825707,0.072945416,-0.18206191,-2.0,-1.5184256,2.0,-2.0,-0.6954534,-2.0,2.0,0.087770425,-2.0,-2.0,-0.16253808,-2.0,-2.0,-1.1968715,2.0,-2.0,-0.24334098,-2.0,2.0,-0.1407462,-2.0,-2.0,-0.4608481,-2.0
2025-07-21 14:28:09.088,2.3200000000000016,2320,116,-0.18249783,0.14824888,0.03971487,-0.028745718,0.09376329,0.017293688,1.5,0.0,0.0,0.0033822139,-0.02709608,-0.2502138,0.22040693,-0.09071297,0.22220986,0.25801215,-0.092564896,0.100843824,0.051550478,-0.07030553,-0.2591119,-0.00531891,0.037738126,-0.09921285,0.08841264,-0.014607184,-0.10648837,-0.027248293,0.002290338,-0.03188869,0.037204646,0.024532244,0.0012360677,-0.11907518,-2.0,-1.1968715,2.0,-2.0,-0.24334098,-2.0,2.0,-0.1407462,-2.0,-2.0,-0.4608481,-2.0,-2.0,-1.5275655,2.0,-2.0,-0.497576,-2.0,2.0,-0.43718898,-2.0,-2.0,-0.44394347,-2.0
2025-07-21 14:28:09.106,2.3400000000000016,2340,117,-0.15501578,0.11297597,0.05467454,0.0053883726,0.0965134,0.040546026,1.5,0.0,0.0,0.0027103242,-0.04314097,-0.2693015,0.22328262,-0.0816441,0.18658705,0.2704642,-0.09593154,0.08971982,0.060366865,-0.08487759,-0.23373312,-0.041006256,-0.009612968,-0.041256122,0.06547279,0.04911958,-0.063463844,-0.058545046,-0.016865224,-0.015230517,0.07236506,-0.006982132,0.06828286,-0.15766315,-2.0,-1.5275655,2.0,-2.0,-0.497576,-2.0,2.0,-0.43718898,-2.0,-2.0,-0.44394347,-2.0,-2.0,-1.2812527,2.0,-2.0,-0.29609263,-2.0,2.0,-0.50851434,-2.0,-1.642814,-0.5260956,-2.0
2025-07-21 14:28:09.123,2.3600000000000017,2360,118,-0.14978364,0.050564423,0.07064544,-0.09888745,0.13308798,0.002414049,1.5,0.0,0.0,0.0016911009,-0.036397915,-0.29269153,0.2196298,-0.086198,0.14402343,0.2708812,-0.09998553,0.056797177,0.058365885,-0.082877904,-0.23803742,-0.09532611,0.06609019,-0.09839513,0.0177267,0.08846643,-0.098066725,-0.04351796,0.074106835,-0.061035223,0.077129275,-0.022782618,-0.056216273,-0.119435474,-2.0,-1.2812527,2.0,-2.0,-0.29609263,-2.0,2.0,-0.50851434,-2.0,-1.642814,-0.5260956,-2.0,-2.0,-0.9072918,2.0,-2.0,-0.3524229,-2.0,2.0,-0.90820986,-2.0,2.0,-0.56850046,2.0
2025-07-21 14:28:09.143,2.3800000000000017,2380,119,-0.035579067,-0.07522447,-0.019825466,-0.094675295,0.08797991,0.03249769,1.5,0.0,0.0,0.00053191924,-0.042335536,-0.29782912,0.2290527,-0.07384703,0.10819716,0.24667057,-0.0816706,0.00648437,0.05193622,-0.06547742,-0.23388754,-0.0631742,0.0019422636,0.044453517,0.0058537563,0.040741656,-0.05330549,-0.033110548,-0.021703387,-0.17086655,-0.04082945,0.1225,0.05823174,0.23385558,-2.0,-0.9072918,2.0,-2.0,-0.3524229,-2.0,2.0,-0.90820986,-2.0,2.0,-0.56850046,2.0,-2.0,0.6648634,2.0,-2.0,-0.7886913,-2.0,2.0,-0.4024539,-2.0,2.0,-0.08379205,2.0
2025-07-21 14:28:09.163,2.4000000000000017,2400,120,0.08299763,-0.052382477,0.06552281,-0.061989248,0.07999818,0.011270701,1.5,0.0,0.0,-0.0002550071,-0.041825645,-0.2898262,0.22969927,-0.04043452,0.0688222,0.24542114,-0.078741156,-0.024349352,0.059742752,-0.012776339,-0.21246642,0.00090624025,-0.002260009,-0.006527951,0.036441658,0.004068851,-0.17501122,-0.06244461,0.017862208,-0.10954796,-0.06556825,0.020883434,0.15279467,0.15963982,-2.0,0.6648634,2.0,-2.0,-0.7886913,-2.0,2.0,-0.4024539,-2.0,2.0,-0.08379205,2.0,-2.0,1.0190222,2.0,-2.0,-0.9001219,-2.0,2.0,-1.0768512,-2.0,2.0,-0.026838027,2.0
2025-07-21 14:28:09.188,2.4200000000000017,2420,121,0.0036044358,-0.11270649,0.14520709,-0.09154115,0.079983205,0.0016578105,1.5,0.0,0.0,-0.0014507292,-0.04793677,-0.25153005,0.23408364,-0.0037168113,0.028162397,0.21960433,-0.053614583,-0.056158982,0.07127778,0.016415017,-0.16060188,0.08403256,-0.07770015,0.12352111,0.043427493,0.1295811,-0.117295586,0.0008660746,0.0671297,-0.06796577,0.06646642,0.03340919,0.13033602,0.13316208,-2.0,1.0190222,2.0,-2.0,-0.9001219,-2.0,2.0,-1.0768512,-2.0,2.0,-0.026838027,2.0,-2.0,2.0,2.0,-2.0,-0.52650344,-2.0,2.0,-1.6907579,-2.0,2.0,0.055467702,2.0
2025-07-21 14:28:09.206,2.4400000000000017,2440,122,0.062638685,-0.24257034,0.18225825,-0.055083662,0.043351084,0.0053867255,1.5,0.0,0.0,-0.0035685985,-0.071611285,-0.16009595,0.23213635,0.012648553,-0.021838784,0.2078669,-0.053629976,-0.10145072,0.07717754,0.03864332,-0.09989436,0.13682634,-0.006237584,0.20024091,-0.01037426,0.05861179,-0.16556792,-0.028906401,0.02354214,-0.16533476,-0.03823666,0.08916283,0.11341023,0.13004653,-2.0,2.0,2.0,-2.0,-0.52650344,-2.0,2.0,-1.6907579,-2.0,2.0,0.055467702,2.0,-2.0,2.0,2.0,-2.0,-0.36586076,-2.0,2.0,-2.0,-2.0,2.0,0.58172,2.0
2025-07-21 14:28:09.223,2.4600000000000017,2460,123,-0.0061475215,-0.2817434,0.09245501,-0.069517575,0.1046065,-0.019503616,1.5,0.0,0.0,-0.0062465724,-0.087378725,-0.04849793,0.2357363,0.040176634,-0.06139513,0.17348513,-0.042227075,-0.16707711,0.08275983,0.048783734,-0.030311124,0.1653357,-0.079632185,0.3148251,-0.06533882,-0.0067439014,-0.049171954,-0.15478049,0.049827237,-0.088254295,0.06597401,0.07087569,0.1337818,0.021391245,-2.0,2.0,2.0,-2.0,-0.36586076,-2.0,2.0,-2.0,-2.0,2.0,0.58172,2.0,-2.0,2.0,2.0,-2.0,-0.94777775,-2.0,2.0,-2.0,-2.0,2.0,0.77407205,2.0
2025-07-21 14:28:09.247,2.4800000000000018,2480,124,-0.05452998,-0.2733483,0.08334719,-0.014296539,0.08281153,0.03054492,1.5,0.0,0.0,-0.0089650825,-0.08283079,0.10956691,0.23620035,0.048039407,-0.115618095,0.14157836,-0.04228287,-0.2228524,0.09935919,0.06966484,0.02735863,0.20417525,-0.060427725,0.31982946,-0.013816435,0.059728216,-0.06089342,-0.028647646,-0.034861833,-0.11750501,0.040279742,-0.060059186,0.08757203,0.023154607,-2.0,2.0,2.0,-2.0,-0.94777775,-2.0,2.0,-2.0,-2.0,2.0,0.77407205,2.0,-2.0,2.0,2.0,-2.0,-0.9525466,-2.0,2.0,-2.0,-2.0,-0.5685898,0.94987625,2.0
2025-07-21 14:28:09.280,2.5000000000000018,2500,125,-0.10461595,-0.17792982,0.083989285,-0.086362965,-0.009577817,0.042201675,1.5,0.0,0.0,-0.011542836,-0.07496696,0.22770363,0.22698677,0.07430949,-0.161332,0.102415256,-0.05308069,-0.28100625,0.1286779,0.053488415,0.080667175,0.20729896,0.059860583,0.27546108,-0.06342831,0.0029788876,-0.061769485,-0.046977956,0.007952428,-0.10370412,0.10646868,-0.057603713,0.14798145,0.01975405,-2.0,2.0,2.0,-2.0,-0.9525466,-2.0,2.0,-2.0,-2.0,-0.5685898,0.94987625,2.0,-2.0,2.0,2.0,-2.0,-0.815872,-2.0,2.0,-2.0,-2.0,-2.0,1.0730642,0.75495225
2025-07-21 14:28:09.305,2.520000000000002,2520,126,-0.19708976,-0.07633628,0.14462203,-0.011589004,0.009064288,0.038268756,1.5,0.0,0.0,-0.014171317,-0.08202,0.32091033,0.23281136,0.07920904,-0.2040835,0.08040621,-0.0549923,-0.3428553,0.13829906,0.0013804521,0.13528037,0.19755004,0.03778495,0.2367999,0.015304308,-0.046908706,-0.12398454,-0.0026770018,0.031792667,-0.07124269,0.0059540025,-0.1373339,0.17178637,-0.014900403,-2.0,2.0,2.0,-2.0,-0.815872,-2.0,2.0,-2.0,-2.0,-2.0,1.0730642,0.75495225,-2.0,2.0,-2.0,-2.0,-0.86887074,-2.0,2.0,-1.7016207,-2.0,-2.0,0.6794221,-2.0
2025-07-21 14:28:09.322,2.540000000000002,2540,127,-0.19060688,0.0392795,0.051804397,-0.08399395,-0.02530843,0.023854109,1.5,0.0,0.0,-0.01677924,-0.07353443,0.39408097,0.16268988,0.073688656,-0.24091469,0.07050543,-0.062398482,-0.3904761,0.14549069,-0.028706444,0.17814942,0.12517664,0.0008455474,0.061331034,-0.11015824,0.07974068,-0.024243848,-0.0026921716,-0.0010245858,-0.0889659,0.05097177,-0.12123935,-0.039897885,-0.07379701,-2.0,2.0,-2.0,-2.0,-0.86887074,-2.0,2.0,-1.7016207,-2.0,-2.0,0.6794221,-2.0,2.0,2.0,-2.0,2.0,-2.0,2.0,2.0,-2.0,-2.0,-2.0,-0.62786645,-2.0
2025-07-21 14:28:09.341,2.560000000000002,2560,128,0.23245546,0.043374073,0.14936662,-0.055067655,0.06049469,0.03819689,1.5,0.0,0.0,-0.019241799,-0.066824496,0.38630456,0.1740436,0.09452823,-0.29623264,0.0942326,-0.06527633,-0.4183733,0.13804568,-0.024735687,0.1400942,0.12819134,0.030667389,-0.13769782,0.04969186,0.024048798,-0.061435785,0.058709826,0.11601413,-0.07541847,-0.03952961,0.080646604,-0.11765378,0.010187615,2.0,2.0,-2.0,2.0,-2.0,2.0,2.0,-2.0,-2.0,-2.0,-0.62786645,-2.0,2.0,0.46645308,-2.0,2.0,-0.89540386,2.0,2.0,-1.4355394,-2.0,-2.0,-0.5205963,-2.0
2025-07-21 14:28:09.361,2.580000000000002,2580,129,0.35659713,0.06847068,0.10685162,-0.03267656,0.033781942,0.014247987,1.5,0.0,0.0,-0.021136113,-0.031120958,0.34758398,0.19909361,0.08632611,-0.30246475,0.13556819,-0.039209872,-0.4142677,0.10969628,0.008136882,0.09873401,0.15628287,0.13309446,-0.047106627,0.1419837,-0.0016870413,-0.01072455,0.13708545,0.07759739,0.08202147,-0.13199203,0.12593424,-0.13176858,0.009325043,2.0,0.46645308,-2.0,2.0,-0.89540386,2.0,2.0,-1.4355394,-2.0,-2.0,-0.5205963,-2.0,2.0,0.6812537,-2.0,2.0,-0.80384696,2.0,2.0,-1.1140889,-2.0,-2.0,-0.49935687,-2.0
2025-07-21 14:28:09.381,2.600000000000002,2600,130,0.27970284,0.15030706,0.08078159,-0.035398148,0.0052490076,-0.034997843,1.5,0.0,0.0,-0.02237642,0.015359874,0.30935696,0.24538629,0.08655903,-0.28269446,0.17268382,-0.011847233,-0.4024377,0.07304244,0.03081078,0.06527105,0.16189264,0.03952734,-0.0866362,0.14574991,0.022700923,0.03482979,0.0335909,0.08000397,-0.010722251,-0.16566765,0.08933809,-0.056048535,0.055255715,2.0,0.6812537,-2.0,2.0,-0.80384696,2.0,2.0,-1.1140889,-2.0,-2.0,-0.49935687,-2.0,2.0,0.7890585,-2.0,2.0,-1.0863045,2.0,2.0,-1.2548665,-2.0,-2.0,-0.614975,-2.0
2025-07-21 14:28:09.405,2.620000000000002,2620,131,0.204419,0.07993839,-0.0013930894,0.029296624,0.033632733,-0.016461827,1.5,0.0,0.0,-0.022863299,0.030611893,0.28084847,0.25637734,0.111466154,-0.30444154,0.17915131,0.009015608,-0.3752478,0.015213806,0.049970385,0.057094958,0.15434732,0.07189659,-0.01142545,0.061211135,0.07469468,-0.046954814,0.026540322,0.10519303,0.0021692875,-0.1553453,0.008427324,0.022827383,-0.0834494,2.0,0.7890585,-2.0,2.0,-1.0863045,2.0,2.0,-1.2548665,-2.0,-2.0,-0.614975,-2.0,2.0,1.2572038,-2.0,2.0,-1.5708528,2.0,2.0,-1.6414286,-2.0,-2.0,-1.0434325,-2.0
2025-07-21 14:28:09.429,2.640000000000002,2640,132,0.229502,0.029768521,-0.0050295787,-0.022573354,0.06491852,0.021082452,1.5,0.0,0.0,-0.022626318,0.036203586,0.2462019,0.2717668,0.09759631,-0.31671926,0.20802702,0.029912649,-0.3614655,-0.025682535,0.075895414,0.030050782,0.147206,-0.0011361792,-0.10185152,0.052508738,-0.04074916,-0.10553227,-0.013867634,0.030812558,0.03709845,-0.12762913,-0.028033441,-0.13695097,-0.06251189,2.0,1.2572038,-2.0,2.0,-1.5708528,2.0,2.0,-1.6414286,-2.0,-2.0,-1.0434325,-2.0,2.0,1.4437001,-2.0,2.0,-1.1332221,2.0,2.0,-1.6595312,-1.8315818,-2.0,-1.1165608,-2.0
2025-07-21 14:28:09.457,2.660000000000002,2660,133,0.17605413,-0.053056188,0.028298376,0.018016705,0.0976952,-0.01258727,1.5,0.0,0.0,-0.022290597,0.04183905,0.21943735,0.2717851,0.09269029,-0.31416923,0.20375462,0.040737793,-0.36629733,-0.07367294,0.083857216,-0.0029635855,0.1518357,-0.011230463,-0.06497018,0.034474764,-0.017056724,0.016333746,0.008220011,0.06456045,0.02936951,-0.13618,-0.012480174,-0.030708266,0.0036302558,2.0,1.4437001,-2.0,2.0,-1.1332221,2.0,2.0,-1.6595312,-1.8315818,-2.0,-1.1165608,-2.0,2.0,0.93312436,-2.0,2.0,-0.9768317,2.0,2.0,-1.7072359,1.668736,-2.0,-1.117725,-2.0
2025-07-21 14:28:09.473,2.680000000000002,2680,134,0.052403525,-0.04049969,0.062097985,0.04518402,0.056173608,0.025749246,1.5,0.0,0.0,-0.022206606,0.04987421,0.18724157,0.2514202,0.09668995,-0.33716232,0.21845338,0.043767978,-0.37799957,-0.045927774,0.08149359,-0.04284039,0.16208136,-0.04846139,-0.10342024,0.00901601,-0.0070642647,0.021269957,-0.051730867,0.01791645,-0.08903724,0.15838246,-0.0009730613,-0.029805774,0.05032149,2.0,0.93312436,-2.0,2.0,-0.9768317,2.0,2.0,-1.7072359,1.668736,-2.0,-1.117725,-2.0,2.0,-0.31710556,-2.0,2.0,0.05361788,2.0,0.48715037,-1.6319816,2.0,-2.0,-1.4419364,-2.0
2025-07-21 14:28:09.494,2.700000000000002,2700,135,-0.07820197,-0.08771896,0.030967914,0.0146565335,0.07348129,-0.010904682,1.5,0.0,0.0,-0.022265945,0.03375621,0.15279791,0.24858572,0.09462059,-0.31663316,0.20241426,0.061460152,-0.38807282,0.024408607,0.0603276,-0.06189739,0.16365719,-0.038549248,-0.09716882,-0.04656654,-0.051415455,0.09467118,-0.044269294,-0.040628795,0.025500622,0.14092582,-0.023923857,-0.087138526,-0.0017079682,2.0,-0.31710556,-2.0,2.0,0.05361788,2.0,0.48715037,-1.6319816,2.0,-2.0,-1.4419364,-2.0,2.0,-0.116219066,-2.0,2.0,0.63119876,2.0,-2.0,-1.0459158,2.0,-2.0,-1.1624838,-2.0
2025-07-21 14:28:09.513,2.720000000000002,2720,136,-0.20417689,-0.13942674,-0.051011786,-0.014253843,0.07036736,-0.019677524,1.5,0.0,0.0,-0.022255443,0.016878627,0.12085323,0.23817702,0.0796394,-0.27277258,0.19536841,0.041107826,-0.36688155,0.09851816,0.044623613,-0.1136065,0.1569174,-0.048279915,-0.12673047,-0.05496542,-0.005361614,0.14819008,0.021589356,-0.13698566,0.1223448,0.16309893,-0.00787912,-0.11472781,0.0261387,2.0,-0.116219066,-2.0,2.0,0.63119876,2.0,-2.0,-1.0459158,2.0,-2.0,-1.1624838,-2.0,2.0,-0.47603372,-2.0,2.0,1.7211734,2.0,-2.0,-0.4820602,2.0,-2.0,-1.8732954,-2.0
2025-07-21 14:28:09.545,2.740000000000002,2740,137,-0.14988002,-0.21144396,-0.07513252,0.06549529,0.052121762,-0.048066054,1.5,0.0,0.0,-0.021750188,-0.013013364,0.077578865,0.22749545,0.08623469,-0.1633375,0.19485009,-0.0061203814,-0.3138484,0.14235546,0.04328542,-0.14260098,0.16664681,-0.104376644,-0.04192697,0.02323363,-0.025091665,0.3874989,0.011211878,-0.13799372,0.22411463,0.14083774,-0.07916205,-0.12748042,0.095236585,2.0,-0.47603372,-2.0,2.0,1.7211734,2.0,-2.0,-0.4820602,2.0,-2.0,-1.8732954,-2.0,2.0,-0.7989375,-2.0,2.0,2.0,2.0,-2.0,0.39288247,2.0,-2.0,-1.6886157,-2.0
2025-07-21 14:28:09.578,2.760000000000002,2760,138,-0.045653567,-0.25734174,-0.087660685,-0.013322404,9.7045886e-05,0.027047647,1.5,0.0,0.0,-0.02074496,-0.01523489,0.04867963,0.20345111,0.093384564,-0.018466886,0.19630843,-0.023182902,-0.21202695,0.17290273,0.024007984,-0.19004212,0.17570364,-0.06517906,-0.15335743,-0.037492808,0.023718897,0.46508068,0.07059987,-0.035949998,0.3016019,0.11795682,0.02033385,-0.10076763,-0.003939351,2.0,-0.7989375,-2.0,2.0,2.0,2.0,-2.0,0.39288247,2.0,-2.0,-1.6886157,-2.0,2.0,-0.44180307,-2.0,2.0,2.0,2.0,-2.0,0.8615544,2.0,-2.0,-1.2714524,-2.0
2025-07-21 14:28:09.611,2.780000000000002,2780,139,-0.08100118,-0.17722431,-0.1462585,0.015126343,0.017928679,-0.022415424,1.5,0.0,0.0,-0.019333847,-0.03651449,-0.0010673616,0.18840338,0.09410937,0.1367915,0.20412916,-0.04740218,-0.11322642,0.18691081,0.024542654,-0.23536974,0.17825297,0.013844031,-0.15676491,-0.101710334,0.032900084,0.2825405,-0.010075523,-0.038232077,0.3100359,-0.002411975,0.0754508,-0.058057945,0.05832658,2.0,-0.44180307,-2.0,2.0,2.0,2.0,-2.0,0.8615544,2.0,-2.0,-1.2714524,-2.0,2.0,-0.7045547,-2.0,-1.9767059,2.0,2.0,-2.0,1.3958378,2.0,-2.0,-1.6875392,-2.0
2025-07-21 14:28:09.640,2.800000000000002,2800,140,-0.023519268,-0.09814461,-0.13329883,0.0012427787,-0.038615502,0.031527903,1.5,0.0,0.0,-0.017463697,-0.055860326,-0.035806287,0.16440096,0.06089176,0.25811344,0.22875962,-0.054368593,-0.00032070183,0.21188447,0.023902018,-0.27622053,0.1962335,0.011450164,-0.020792963,-0.05269288,-0.15142648,0.23259473,0.011013673,0.046862178,0.3452226,0.042173937,0.022998359,-0.15828566,0.090911314,2.0,-0.7045547,-2.0,-1.9767059,2.0,2.0,-2.0,1.3958378,2.0,-2.0,-1.6875392,-2.0,2.0,-0.8831077,-1.9773302,-2.0,2.0,-2.0,2.0,2.0,-2.0,-2.0,-1.3036953,-2.0
2025-07-21 14:28:09.658,2.820000000000002,2820,141,0.25653955,0.12926582,0.00902125,-0.004515484,0.017169876,0.02417142,1.5,0.0,0.0,-0.015598276,-0.05367791,-0.05464033,0.17154084,0.023699082,0.34056,0.14646366,-0.046804003,0.08380056,0.17348114,0.039726608,-0.3014288,0.19448298,0.014319657,-0.103280164,-0.003714975,-0.041369695,0.24603531,-0.3422559,-0.005607386,0.12365611,-0.10472086,0.08016794,0.020781377,-0.034629293,2.0,-0.8831077,-1.9773302,-2.0,2.0,-2.0,2.0,2.0,-2.0,-2.0,-1.3036953,-2.0,-2.0,-2.0,2.0,-2.0,0.7563986,-2.0,2.0,-0.20412707,-2.0,-2.0,0.06585095,-2.0
2025-07-21 14:28:09.678,2.840000000000002,2840,142,-0.07644748,0.2950857,-0.10970739,0.038756646,-0.0046712277,0.022582797,1.5,0.0,0.0,-0.014173357,-0.06034933,-0.11621124,0.1813507,-0.00678647,0.38054317,0.104822636,-0.045923185,0.0996245,0.15463272,0.03834159,-0.2856715,0.17198281,0.00020041232,-0.24333332,0.0033754907,-0.06505879,-0.051759742,0.037174176,-0.048754927,0.06269268,-0.032038674,-0.08968489,0.044560906,-0.12768434,-2.0,-2.0,2.0,-2.0,0.7563986,-2.0,2.0,-0.20412707,-2.0,-2.0,0.06585095,-2.0,-2.0,-1.6909167,2.0,-2.0,-0.8774644,-2.0,2.0,-0.4501883,-2.0,-2.0,-0.31362346,-2.0
2025-07-21 14:28:09.698,2.860000000000002,2860,143,-0.25018963,0.23748587,-0.08908761,0.0047377823,-0.021334298,0.030267451,1.5,0.0,0.0,-0.012971115,-0.053623177,-0.18363862,0.20666704,-0.035693306,0.3510295,0.13246672,-0.063527636,0.087878235,0.14716211,0.020235494,-0.25461984,0.13977313,-0.078853585,-0.12636274,-0.018491384,-0.086265065,-0.030835506,0.028947227,-0.018868517,-0.05891144,-0.08106643,-0.014175526,-0.016934654,-0.08987833,-2.0,-1.6909167,2.0,-2.0,-0.8774644,-2.0,2.0,-0.4501883,-2.0,-2.0,-0.31362346,-2.0,-2.0,-1.2666334,2.0,-2.0,0.05852382,-2.0,2.0,-0.027483217,-2.0,-2.0,-0.4561102,-2.0
2025-07-21 14:28:09.722,2.880000000000002,2880,144,-0.19799362,0.20091562,0.05165877,-0.01950054,0.022272388,0.0315406,1.5,0.0,0.0,-0.011790533,-0.06252735,-0.24391459,0.22358336,-0.050537724,0.33590868,0.17533743,-0.077985875,0.085328415,0.13867792,0.002020316,-0.23999445,0.09174551,0.058739185,-0.046903588,-0.019089572,-0.042531703,-0.0338894,0.0029566404,0.015370035,-0.050799225,-0.01195579,0.015334532,0.080645435,-0.16341515,-2.0,-1.2666334,2.0,-2.0,0.05852382,-2.0,2.0,-0.027483217,-2.0,-2.0,-0.4561102,-2.0,-2.0,-1.4493493,2.0,-2.0,0.15190594,-2.0,2.0,-0.71025366,-2.0,-2.0,-0.47410008,-2.0
2025-07-21 14:28:09.739,2.900000000000002,2900,145,-0.24606691,0.21592624,0.0063139102,-0.022939669,0.050928507,-0.03817159,1.5,0.0,0.0,-0.011646692,-0.058486473,-0.27467674,0.22925083,-0.06417524,0.3010355,0.19484736,-0.08386965,0.06621956,0.12997061,-0.012621048,-0.22034362,0.0552618,0.026189018,-0.115267925,0.00042184824,-0.038094644,-0.12000299,0.04391912,-0.03328408,-0.057122882,0.05870241,0.01623767,-0.0134201525,-0.1555826,-2.0,-1.4493493,2.0,-2.0,0.15190594,-2.0,2.0,-0.71025366,-2.0,-2.0,-0.47410008,-2.0,-2.0,-1.5448782,2.0,-2.0,0.13956465,-2.0,2.0,-0.59254116,-2.0,-2.0,-0.5943261,-2.0
2025-07-21 14:28:09.759,2.920000000000002,2920,146,-0.17893752,0.07783959,0.038165234,-0.03038188,0.045228686,-0.048169393,1.5,0.0,0.0,-0.012054652,-0.06104679,-0.2987582,0.23361358,-0.06624114,0.28916958,0.19853868,-0.111,0.041593313,0.12821259,-0.010101601,-0.22379841,0.0105194105,-0.05995435,-0.036768183,0.007951655,-0.028548306,-0.0068284115,-0.045942467,0.05179285,-0.011324076,-0.028681038,-0.04572793,-0.049022257,-0.073098764,-2.0,-1.5448782,2.0,-2.0,0.13956465,-2.0,2.0,-0.59254116,-2.0,-2.0,-0.5943261,-2.0,-2.0,-1.8605804,2.0,-2.0,0.09410803,-2.0,2.0,-0.4899245,-2.0,-2.0,-0.6001323,-2.0
2025-07-21 14:28:09.778,2.940000000000002,2940,147,-0.14590228,0.13048615,0.008916175,-0.11744176,0.05982836,0.005783992,1.5,0.0,0.0,-0.012737977,-0.062091805,-0.31560054,0.22060347,-0.07994243,0.2545787,0.20846416,-0.10268321,0.031760853,0.12751515,-0.02587657,-0.21015124,-0.026667839,-0.037293103,-0.0040512937,-0.046577696,0.052030247,-0.07043569,0.07592366,0.047032516,-0.042791475,-0.0073594213,0.014102446,0.010115291,-0.035472307,-2.0,-1.8605804,2.0,-2.0,0.09410803,-2.0,2.0,-0.4899245,-2.0,-2.0,-0.6001323,-2.0,-2.0,-1.7182637,2.0,-2.0,-0.2244593,-2.0,2.0,-0.43205702,-2.0,-2.0,-0.36198494,-2.0
2025-07-21 14:28:09.800,2.960000000000002,2960,148,-0.12883593,0.10433451,0.02498358,-0.12327189,0.07823128,0.048386835,1.5,0.0,0.0,-0.013850761,-0.06805304,-0.34928098,0.23199992,-0.05759105,0.20718227,0.2053622,-0.109991066,-0.0027184263,0.117172725,-0.037563194,-0.21498239,-0.07059321,-0.0045621856,-0.10610984,-0.042249113,0.0632934,-0.10133151,-0.06700197,-0.080592476,-0.12198593,-0.076183856,0.03617142,0.03405076,-0.15047136,-2.0,-1.7182637,2.0,-2.0,-0.2244593,-2.0,2.0,-0.43205702,-2.0,-2.0,-0.36198494,-2.0,-2.0,-1.3779421,2.0,-2.0,-0.11089848,-2.0,2.0,-0.9530748,-2.0,-2.0,-0.6082072,-1.4524257
2025-07-21 14:28:09.822,2.980000000000002,2980,149,-0.16158082,0.056322794,0.029872114,-0.10355913,0.11027632,0.0277605,1.5,0.0,0.0,-0.015422424,-0.06252139,-0.36268663,0.23609036,-0.062847696,0.18822192,0.20725414,-0.102844775,-0.013436296,0.11637393,-0.034523435,-0.22059345,-0.11128153,-0.0035007412,-0.11864758,0.048871715,-0.009315144,-0.09887813,0.005413375,-0.03559261,-0.023833616,-0.044040594,0.061062355,-0.07332708,-0.07943851,-2.0,-1.3779421,2.0,-2.0,-0.11089848,-2.0,2.0,-0.9530748,-2.0,-2.0,-0.6082072,-1.4524257,-2.0,-1.4972866,2.0,-2.0,-0.20953965,-2.0,2.0,-1.027188,-2.0,-0.42564455,-0.6933968,2.0
2025-07-21 14:28:09.839,3.000000000000002,3000,150,-0.08794761,-0.008742577,0.052157067,-0.1286002,0.02339618,-0.029546225,1.5,0.0,0.0,-0.017255597,-0.04950428,-0.3976521,0.23545346,-0.0392151,0.14716463,0.20035058,-0.106717244,-0.05621328,0.13359417,-0.033566047,-0.23297676,-0.07558451,0.084397,0.02610326,0.0063012238,0.020871706,-0.077604555,0.036749184,-0.04043127,-0.0426475,0.0020844047,-0.009350922,-0.07797922,0.16056189,-2.0,-1.4972866,2.0,-2.0,-0.20953965,-2.0,2.0,-1.027188,-2.0,-0.42564455,-0.6933968,2.0,-2.0,0.4126108,2.0,-2.0,-0.10372041,-2.0,2.0,-1.0088384,-2.0,2.0,-0.36112407,2.0
2025-07-21 14:28:09.858,3.0200000000000022,3020,151,0.094262704,-0.07621089,0.0650444,-0.088679165,0.097156495,-0.008229618,1.5,0.0,0.0,-0.018882288,-0.048309326,-0.4070798,0.23651545,-0.013502754,0.10765161,0.17863972,-0.09223943,-0.073742695,0.1148907,-0.012818783,-0.21592173,0.007924815,0.0630238,-0.019521961,0.057567064,0.08606252,-0.07815547,0.031701174,0.10098697,-0.10373543,-0.061411176,0.06361607,0.043093648,0.16273817,-2.0,0.4126108,2.0,-2.0,-0.10372041,-2.0,2.0,-1.0088384,-2.0,2.0,-0.36112407,2.0,-2.0,2.0,2.0,-2.0,-0.5973593,-2.0,2.0,-1.8933083,-2.0,2.0,-0.7447066,2.0
2025-07-21 14:28:09.879,3.0400000000000023,3040,152,0.109745495,-0.21235196,0.07491631,-0.094713844,0.028113246,0.013454946,1.5,0.0,0.0,-0.02824317,-0.036926348,-0.3807088,0.21421206,0.025443468,0.072076164,0.16486356,-0.085252754,-0.11654462,0.121223144,0.0020470086,-0.18786436,0.08955931,0.07088016,0.13757716,-0.06867653,0.07980585,-0.15225065,-0.054981593,-0.028120017,-0.129824,-0.05085931,0.010180417,0.10638441,0.1415394,-2.0,2.0,2.0,-2.0,-0.5973593,-2.0,2.0,-1.8933083,-2.0,2.0,-0.7447066,2.0,-2.0,2.0,2.0,-2.0,-0.771327,-2.0,2.0,-2.0,-2.0,2.0,-0.095899634,2.0
2025-07-21 14:28:09.899,3.0600000000000023,3060,153,0.119080886,-0.24600913,0.13359793,-0.09343591,0.07096815,-0.04236772,1.5,0.0,0.0,-0.037770696,-0.027353626,-0.33768284,0.20698993,0.049335368,0.03162059,0.14724585,-0.06967398,-0.1439536,0.11176756,0.031499736,-0.14447767,0.1452997,-0.06214785,0.20345575,-0.06679966,0.07251025,-0.03124768,-0.012724957,-0.022513637,-0.08055231,-0.026045052,-0.00034347415,0.16914372,0.036170136,-2.0,2.0,2.0,-2.0,-0.771327,-2.0,2.0,-2.0,-2.0,2.0,-0.095899634,2.0,-2.0,2.0,2.0,-2.0,-0.46754622,-2.0,2.0,-2.0,-2.0,2.0,-0.13735422,2.0
2025-07-21 14:28:09.923,3.0800000000000023,3080,154,0.1251083,-0.32556176,0.14302772,-0.08059338,0.06954643,-0.0052304575,1.5,0.0,0.0,-0.047566358,-0.049937166,-0.24015726,0.2029856,0.06693721,0.0011688978,0.12286867,-0.044692427,-0.19058026,0.11134357,0.057813432,-0.105788045,0.18339588,-0.071748465,0.36902642,0.012411051,0.054993093,-0.12027204,-0.102192186,0.06548727,-0.03994363,0.027037395,-0.003371839,0.14144455,0.07886162,-2.0,2.0,2.0,-2.0,-0.46754622,-2.0,2.0,-2.0,-2.0,2.0,-0.13735422,2.0,-2.0,2.0,2.0,-2.0,-0.17636329,-2.0,2.0,-2.0,-2.0,2.0,0.15385696,2.0
2025-07-21 14:28:09.946,3.1000000000000023,3100,155,0.0461437,-0.27965894,0.14282212,-0.029694067,0.043720484,-0.014273523,1.5,0.0,0.0,-0.057614263,-0.079133146,-0.08099814,0.21135022,0.094271146,-0.035874452,0.096196204,-0.043598033,-0.22826406,0.12082167,0.061367843,-0.061758406,0.19699895,0.028087672,0.41521877,0.043069318,0.027195033,-0.13564727,-0.0415635,0.012894412,-0.14592597,0.09294522,0.00804202,0.08428742,0.0015313824,-2.0,2.0,2.0,-2.0,-0.17636329,-2.0,2.0,-2.0,-2.0,2.0,0.15385696,2.0,-2.0,2.0,2.0,-2.0,-0.4026651,-2.0,2.0,-2.0,-2.0,2.0,0.62441105,2.0
2025-07-21 14:28:09.980,3.1200000000000023,3120,156,-0.0062961075,-0.23753797,0.02846802,-0.042724233,-0.013654574,-0.0065779136,1.5,0.0,0.0,-0.067609005,-0.08301698,0.07934218,0.20493059,0.0943524,-0.06932866,0.070123695,-0.04190434,-0.28603184,0.13101053,0.06502555,-0.01718212,0.21254818,-0.021878475,0.45345116,0.051790938,-0.018815547,-0.08631863,-0.11883334,-0.0330394,-0.1500979,0.06100237,0.046147186,0.1968987,0.09108439,-2.0,2.0,2.0,-2.0,-0.4026651,-2.0,2.0,-2.0,-2.0,2.0,0.62441105,2.0,-2.0,2.0,2.0,-2.0,-1.3022584,-2.0,2.0,-2.0,-2.0,0.9961742,0.8426328,2.0
2025-07-21 14:28:10.006,3.1400000000000023,3140,157,-0.07288459,-0.1906883,0.11771807,-0.007928386,-0.026562745,0.019565504,1.5,0.0,0.0,-0.077310376,-0.078128286,0.21978395,0.21093312,0.11725611,-0.12567313,0.05094811,-0.043548074,-0.3459785,0.14711197,0.06299446,0.045134984,0.2128787,-0.0009929789,0.23857798,0.03061418,0.022469983,-0.09079393,-0.004028372,-0.055966076,-0.145338,-0.010731887,0.009384936,0.2201273,-0.046763297,-2.0,2.0,2.0,-2.0,-1.3022584,-2.0,2.0,-2.0,-2.0,0.9961742,0.8426328,2.0,-2.0,2.0,2.0,-2.0,-1.4037458,-2.0,2.0,-2.0,-2.0,-2.0,0.99965495,-2.0
2025-07-21 14:28:10.023,3.1600000000000024,3160,158,-0.13005164,-0.029400015,0.040044118,0.0014719842,0.010018805,-0.020951238,1.5,0.0,0.0,-0.08690292,-0.07918518,0.32872802,0.22945419,0.11647428,-0.160293,0.0524057,-0.05978135,-0.37665495,0.15267548,0.039693482,0.09827506,0.14632626,0.05718195,0.22057506,-0.030494893,0.03400088,-0.1351668,-0.03418283,-0.027737759,-0.10960653,0.07495868,-0.0012612403,0.105185136,-0.18670121,-2.0,2.0,2.0,-2.0,-1.4037458,-2.0,2.0,-2.0,-2.0,-2.0,0.99965495,-2.0,-1.5488378,2.0,-2.0,-2.0,-1.8509701,0.24090165,2.0,-1.4980619,-2.0,-2.0,0.3476412,-2.0
2025-07-21 14:28:10.040,3.1800000000000024,3180,159,-0.09398739,0.33793095,0.04157462,-0.049000934,-0.050686568,-0.024179952,1.5,0.0,0.0,-0.09656722,-0.07720502,0.3917464,0.16280529,0.10239451,-0.21145146,0.07530183,-0.07651219,-0.40907162,0.16414069,0.016483676,0.11565787,0.12361373,-0.051474363,0.094670415,-0.33509594,-0.03668375,-0.038478274,0.13483043,0.014364077,-0.03384716,0.041147612,-0.058253285,-0.020715091,-0.053216312,-1.5488378,2.0,-2.0,-2.0,-1.8509701,0.24090165,2.0,-1.4980619,-2.0,-2.0,0.3476412,-2.0,2.0,2.0,-2.0,2.0,-1.7618582,2.0,2.0,-2.0,-2.0,-2.0,-0.35281208,-2.0
2025-07-21 14:28:10.061,3.2000000000000024,3200,160,0.27860722,0.24230978,0.019469714,-0.029742833,0.026976934,0.018267542,1.5,0.0,0.0,-0.10502278,-0.062853515,0.41392857,0.10791247,0.09801547,-0.24814162,0.12407274,-0.067649536,-0.39476067,0.14566323,0.023345036,0.09094048,0.15341318,-0.019042706,-0.010196067,0.08273868,0.003622633,-0.1420623,0.07299325,0.08905224,0.03469405,-0.07361205,0.033348892,0.001430766,0.09688427,2.0,2.0,-2.0,2.0,-1.7618582,2.0,2.0,-2.0,-2.0,-2.0,-0.35281208,-2.0,2.0,0.571251,-2.0,2.0,-1.1903665,2.0,2.0,-1.3941411,-2.0,-2.0,-0.76742816,-2.0
2025-07-21 14:28:10.080,3.2200000000000024,3220,161,0.39925593,0.18255061,0.033584204,0.013347608,0.07069618,-0.010159927,1.5,0.0,0.0,-0.11281423,-0.048543513,0.38705084,0.16312319,0.09144674,-0.28994653,0.15232995,-0.055063162,-0.38918835,0.105510786,0.035596542,0.0774509,0.15766287,0.035568558,-0.14045098,0.10025343,-0.01964404,-0.094733775,0.071910664,0.09333438,0.024220582,-0.10508766,0.02795144,0.0011195227,0.013335049,2.0,0.571251,-2.0,2.0,-1.1903665,2.0,2.0,-1.3941411,-2.0,-2.0,-0.76742816,-2.0,2.0,0.7841556,-2.0,2.0,-0.6362502,2.0,2.0,-1.2664114,-2.0,-2.0,-0.3886684,-2.0
2025-07-21 14:28:10.105,3.2400000000000024,3240,162,0.32097262,0.18224944,-0.029884553,0.011009715,0.093680054,0.0017122042,1.5,0.0,0.0,-0.12043115,-0.042624284,0.3505154,0.22110297,0.11732331,-0.31393644,0.1848939,-0.023475116,-0.3753885,0.06129818,0.059968006,0.04980855,0.16184992,-0.019289643,-0.13025938,0.15364781,-0.029716061,-0.06830644,0.0006680481,0.13101465,0.06123162,-0.11193632,0.12192204,0.0049843336,0.0003435494,2.0,0.7841556,-2.0,2.0,-0.6362502,2.0,2.0,-1.2664114,-2.0,-2.0,-0.3886684,-2.0,2.0,0.7225844,-2.0,2.0,-1.0114325,2.0,2.0,-1.3192708,-2.0,-2.0,-0.7468136,-2.0
2025-07-21 14:28:10.138,3.2600000000000025,3260,163,0.27594435,0.14051673,-0.09312153,0.010931107,0.12352859,-0.037770763,1.5,0.0,0.0,-0.12723699,-0.028566942,0.33065546,0.2384887,0.11892005,-0.33898535,0.2075291,0.001249432,-0.34828725,0.012737916,0.09000074,0.047295775,0.16035128,0.015008056,-0.13937521,0.024156667,0.044005185,-0.07857473,0.081534036,0.013661484,-0.035868175,-0.06995174,0.10727349,0.036008544,0.051604133,2.0,0.7225844,-2.0,2.0,-1.0114325,2.0,2.0,-1.3192708,-2.0,-2.0,-0.7468136,-2.0,2.0,0.95043945,-2.0,2.0,-0.95567846,2.0,2.0,-1.4228336,-2.0,-2.0,-0.98920566,-2.0
2025-07-21 14:28:10.156,3.2800000000000025,3280,164,0.2028084,0.038235217,-0.08949447,-0.008395372,0.09387307,-0.007489566,1.5,0.0,0.0,-0.13351996,-0.01629114,0.29608646,0.2658901,0.14292996,-0.3542544,0.21364363,0.010852433,-0.35217026,-0.028246088,0.10156229,0.029496482,0.16227622,-0.07501857,-0.11113536,0.028766064,0.0078265285,0.019363074,0.02014226,-0.0049744933,-0.030708827,-0.17009597,0.06572153,-0.091435775,0.05270126,2.0,0.95043945,-2.0,2.0,-0.95567846,2.0,2.0,-1.4228336,-2.0,-2.0,-0.98920566,-2.0,2.0,0.85245746,-2.0,2.0,-0.82855165,2.0,2.0,-1.1815557,-2.0,-2.0,-0.8770148,-2.0
