openverse-orca/OrcaGym/log/simulation_log_20250606_085538.csv
timestamp,imu_angle_roll,imu_angle_pitch,imu_angle_yaw,imu_angular_velocity_roll,imu_angular_velocity_pitch,imu_angular_velocity_yaw,imu_acc_x,imu_acc_y,imu_acc_z,fl_joint1_pos,fl_joint1_vel,fl_joint1_torque,fl_joint2_pos,fl_joint2_vel,fl_joint2_torque,fl_joint3_pos,fl_joint3_vel,fl_joint3_torque,fr_joint1_pos,fr_joint1_vel,fr_joint1_torque,fr_joint2_pos,fr_joint2_vel,fr_joint2_torque,fr_joint3_pos,fr_joint3_vel,fr_joint3_torque,hl_joint1_pos,hl_joint1_vel,hl_joint1_torque,hl_joint2_pos,hl_joint2_vel,hl_joint2_torque,hl_joint3_pos,hl_joint3_vel,hl_joint3_torque,hr_joint1_pos,hr_joint1_vel,hr_joint1_torque,hr_joint2_pos,hr_joint2_vel,hr_joint2_torque,hr_joint3_pos,hr_joint3_vel,hr_joint3_torque,fl_force_x,fl_force_y,fl_force_z,fr_force_x,fr_force_y,fr_force_z,hl_force_x,hl_force_y,hl_force_z,hr_force_x,hr_force_y,hr_force_z,fl_hip_action,fl_thigh_action,fl_calf_action,fr_hip_action,fr_thigh_action,fr_calf_action,hl_hip_action,hl_thigh_action,hl_calf_action,hr_hip_action,hr_thigh_action,hr_calf_action
2025-06-06 08:55:39.106,0.034029163,-0.025240239,0.043893624,0.01987376,-0.03429721,0.036434688,0.0,0.0,0.0,0.0,-0.004154434,0.00812505,0.0074088294,-0.009225697,5.5276763e-05,-0.00292512,0.009955495,-0.005020689,0.00229726,-0.006858425,-0.006542192,-0.004884825,-0.011417965,0.015384406,-0.020996986,0.047798216,0.064472236,0.020851174,-0.030213669,-0.050319206,0.02724419,0.04934632,0.033476777,-0.05982397,0.0,0.0,0.0,0.0,0.0,0.0,0.0,0.0,0.0,0.0,0.0,0.0,0.83449596,0.024120085,-1.04205,-1.5315591,0.39876896,-0.20572203,0.117939204,-0.28686243,-1.3932364,0.07741061,0.13680701,-2.1701708
2025-06-06 08:55:39.113,0.09323312,-0.06252502,0.016040452,-0.04211241,0.024996897,-0.028713346,0.0,0.0,0.0,0.0,0.0023301202,0.0070074764,-0.05008711,-0.02460322,0.015187241,-0.01434023,-0.00851379,-0.0048073535,-0.05723784,0.0056341747,0.004909609,-0.09331171,0.0039011757,0.049911954,-0.1777779,-0.078921765,0.037357505,-0.08535044,0.065016076,-0.11445877,-0.113705575,0.0048167044,0.10733373,-0.20782423,0.83449596,0.024120085,-1.04205,-1.5315591,0.39876896,-0.20572203,0.117939204,-0.28686243,-1.3932364,0.07741061,0.13680701,-2.1701708,3.0,0.10814025,-2.7072446,-2.3190136,0.6234009,-0.4040174,-1.3201476,-0.4394752,-2.1368897,-0.5668803,0.3540033,-3.0
2025-06-06 08:55:39.136,-0.05179122,-0.15061821,-0.10379596,0.0010768444,0.03231126,-0.034404173,0.0,0.0,0.0,0.0,0.020035114,0.011134167,-0.12861219,-0.062339433,0.07170741,-0.020174567,-0.016028587,-0.03317165,-0.12967429,0.0074039954,0.032832056,-0.14700443,-0.024624191,-0.008683384,-0.14201882,-0.03990011,0.10051523,-0.11429868,0.034535527,-0.08717651,-0.046322424,-0.017826509,0.07530538,-0.08833441,3.0,0.10814025,-2.7072446,-2.3190136,0.6234009,-0.4040174,-1.3201476,-0.4394752,-2.1368897,-0.5668803,0.3540033,-3.0,3.0,0.2832501,-3.0,-0.9546899,1.2914658,-0.18092826,-3.0,-0.39977637,-2.934191,-1.4649861,-0.040096875,-3.0
2025-06-06 08:55:39.153,-0.15141517,-0.0053537535,-0.025096463,0.021127151,-0.036438916,0.01334067,0.0,0.0,0.0,0.0,0.026448883,0.016229868,-0.11898179,-0.07790505,0.13647896,-0.035435647,-0.021628438,-0.02536205,-0.14802575,0.010040668,0.04394461,-0.16281064,-0.02729123,0.025989354,0.055863347,-0.06310365,0.13885075,-0.017841639,-0.05155846,0.066384204,-0.12878925,0.015768161,0.029711295,-0.051285874,3.0,0.2832501,-3.0,-0.9546899,1.2914658,-0.18092826,-3.0,-0.39977637,-2.934191,-1.4649861,-0.040096875,-3.0,3.0,0.24875891,-3.0,-1.526124,1.2685915,-0.22690418,-3.0,-0.1367628,-3.0,-0.106571734,0.2678408,-3.0
2025-06-06 08:55:39.174,-0.13005553,0.009896996,-0.031632375,0.067985386,0.026215775,0.036303353,0.0,0.0,0.0,0.0,0.031894144,0.011775508,-0.14100005,-0.070237584,0.17184627,-0.015405212,-0.026118077,-0.0063186097,-0.1955669,0.015693666,0.06825919,-0.19099191,0.023889203,0.0574052,0.008662604,-0.023079688,0.18739569,-0.033655904,0.047508266,0.012592232,-0.15732321,0.051769763,0.017586727,-0.08327034,3.0,0.24875891,-3.0,-1.526124,1.2685915,-0.22690418,-3.0,-0.1367628,-3.0,-0.106571734,0.2678408,-3.0,3.0,0.19326913,-3.0,-3.0,1.413126,-0.9837601,-3.0,0.035425995,-3.0,2.1994245,0.24622238,-3.0
2025-06-06 08:55:39.194,-0.15506501,0.24338426,-0.0784868,0.04752345,-0.07064919,-0.0037967765,0.0,0.0,0.0,0.0,0.046220236,0.03468062,-0.16898608,-0.098212436,0.24255745,-0.052876286,-0.015492707,0.024957433,-0.2514547,0.023486868,0.09898253,-0.21468545,-0.006664987,0.05039514,-0.10078173,-0.11456012,0.1810225,-0.1706486,-0.043636203,0.13482729,-0.15037313,-0.012823986,0.007842197,-0.01477513,3.0,0.19326913,-3.0,-3.0,1.413126,-0.9837601,-3.0,0.035425995,-3.0,2.1994245,0.24622238,-3.0,3.0,0.049981706,-2.1936338,-3.0,1.1422263,-2.012895,-3.0,0.27626348,-3.0,3.0,-0.3640452,-3.0
2025-06-06 08:55:39.214,0.02434488,0.24023275,-0.10393721,0.006393615,-0.00440753,0.010588099,0.0,0.0,0.0,0.0,0.07134526,0.037561525,-0.2247737,-0.11693182,0.28222182,-0.11947099,-0.06566308,0.054726847,-0.32721186,0.06049933,0.09988149,-0.24453734,-0.022916326,-0.051452484,-0.13160908,0.05128823,-0.022190936,-0.14041895,-0.08641366,0.022678701,-0.21886617,0.098497614,-0.07175779,-0.075548194,3.0,0.049981706,-2.1936338,-3.0,1.1422263,-2.012895,-3.0,0.27626348,-3.0,3.0,-0.3640452,-3.0,3.0,0.37991884,-1.28739,-3.0,0.9778041,-3.0,-3.0,0.49446428,-3.0,3.0,-0.15702489,-3.0
2025-06-06 08:55:39.236,0.1916558,0.11796478,-0.1008514,0.021124676,-0.021905242,-0.0055304053,0.0,0.0,0.0,0.0,0.0867253,0.045845054,-0.22432977,-0.10726608,0.29049006,-0.18253104,-0.099979535,0.07990508,-0.4037394,0.080330856,0.06754486,-0.25993758,0.121935464,0.00166399,0.05287999,-0.019040063,0.02463633,-0.176595,-0.13811342,-0.0054464,-0.16501614,0.08744125,-0.09189219,-0.11276816,3.0,0.37991884,-1.28739,-3.0,0.9778041,-3.0,-3.0,0.49446428,-3.0,3.0,-0.15702489,-3.0,3.0,0.8061108,-1.9223341,-3.0,0.68103415,-3.0,-3.0,0.5945354,-3.0,3.0,-0.12849009,-3.0
2025-06-06 08:55:39.254,0.24497202,0.12053804,-0.13931574,-0.0863981,-0.048794568,0.02756491,0.0,0.0,0.0,0.0,0.11631474,0.076957054,-0.25844657,-0.11017118,0.29230133,-0.22667155,-0.15249896,0.10682663,-0.4533192,0.08517804,0.058866065,-0.2870121,0.02550438,0.12812409,-0.035237834,-0.0032974805,-0.004717385,-0.07199917,-0.029934471,0.05187152,-0.04065753,0.067193255,0.0036283617,0.01642494,3.0,0.8061108,-1.9223341,-3.0,0.68103415,-3.0,-3.0,0.5945354,-3.0,3.0,-0.12849009,-3.0,3.0,0.47319436,-2.6798923,-3.0,0.6454792,-3.0,-3.0,0.71268594,-3.0,3.0,-0.29236197,-3.0
2025-06-06 08:55:39.274,0.3665754,0.05637525,-0.15663707,-0.09837041,-0.0026802083,-0.0001432658,0.0,0.0,0.0,0.0,0.14238742,0.119943865,-0.33142787,-0.13234913,0.29211435,-0.2948794,-0.16885015,0.14337035,-0.48920006,0.081918254,0.027968625,-0.30546716,-0.011582288,0.020083366,-0.20219117,-0.06828144,-0.081989564,-0.11157144,-0.049940407,0.12573272,-0.00050091953,0.033115048,-0.034315363,-0.09625385,3.0,0.47319436,-2.6798923,-3.0,0.6454792,-3.0,-3.0,0.71268594,-3.0,3.0,-0.29236197,-3.0,3.0,0.51015496,-2.8583424,-3.0,0.6800503,-3.0,-3.0,0.7892465,-3.0,2.5813937,-0.18319449,-3.0
2025-06-06 08:55:39.294,0.1140822,0.06525031,-0.08385421,-0.11042132,0.032473918,0.022693027,0.0,0.0,0.0,0.0,0.14318351,0.1300403,-0.3744377,-0.12093456,0.28619224,-0.3411068,-0.18988718,0.13283086,-0.49353367,0.09863794,0.019072726,-0.32190666,-0.054394644,-0.038722124,-0.13166985,-0.0652832,-0.034235936,-0.032540277,-0.05349736,0.019602373,-0.05047053,0.03042923,-0.03891896,-0.07465238,3.0,0.51015496,-2.8583424,-3.0,0.6800503,-3.0,-3.0,0.7892465,-3.0,2.5813937,-0.18319449,-3.0,3.0,0.40974426,-3.0,-3.0,0.7794256,-3.0,-3.0,0.6152029,-3.0,3.0,-0.059946354,-3.0
2025-06-06 08:55:39.318,0.094573505,0.053463377,-0.027354252,-0.0310519,0.012242733,-0.022892093,0.0,0.0,0.0,0.0,0.1504731,0.11660127,-0.40017903,-0.12261014,0.29043314,-0.3526591,-0.17423551,0.11709629,-0.5102723,0.10558159,0.022259947,-0.3525881,-0.070629604,-0.032852463,-0.039714444,-0.06504831,0.06491934,-0.031937964,0.07623288,-0.012936177,-0.05918527,0.06786339,-0.009856418,-0.11678449,3.0,0.40974426,-3.0,-3.0,0.7794256,-3.0,-3.0,0.6152029,-3.0,3.0,-0.059946354,-3.0,3.0,0.20323592,-3.0,-3.0,0.81682813,-3.0,-3.0,0.45961738,-3.0,3.0,0.008578066,-3.0
2025-06-06 08:55:39.336,0.08727112,0.03766356,-0.09410638,-0.026250444,-0.021051226,0.028075889,0.0,0.0,0.0,0.0,0.15274063,0.11113409,-0.4148473,-0.12391382,0.29056552,-0.37484232,-0.17526355,0.10588066,-0.4986643,0.12879768,0.011442269,-0.36715776,0.014493758,-0.07704305,-0.009304925,0.020565258,0.027890448,-0.0219362,0.023582414,-0.082109466,0.019790161,0.025332673,-0.06944648,-0.000788157,3.0,0.20323592,-3.0,-3.0,0.81682813,-3.0,-3.0,0.45961738,-3.0,3.0,0.008578066,-3.0,3.0,0.4985436,-3.0,-3.0,0.8117389,-3.0,-3.0,0.55326366,-3.0,3.0,-0.07897985,-3.0
2025-06-06 08:55:39.355,0.036130827,-0.050732914,-0.07494672,-0.083007656,0.038392294,-0.038982034,0.0,0.0,0.0,0.0,0.13709219,0.096968986,-0.42747942,-0.11887052,0.28099528,-0.39511785,-0.17120604,0.0951814,-0.50918466,0.12277266,0.0050850245,-0.38182265,-0.069271274,0.025480373,-0.06957954,-0.01845903,0.015618668,-0.06676368,-0.06302776,-0.026847554,0.0077857343,0.09117513,-0.058557242,-0.05229428,3.0,0.4985436,-3.0,-3.0,0.8117389,-3.0,-3.0,0.55326366,-3.0,3.0,-0.07897985,-3.0,3.0,0.33699694,-3.0,-3.0,0.795251,-3.0,-3.0,0.5626078,-3.0,3.0,-0.05291378,-3.0
2025-06-06 08:55:39.375,0.043295454,-0.047749825,0.03433555,-0.06971311,0.078541405,0.011197079,0.0,0.0,0.0,0.0,0.15292698,0.09381614,-0.44450894,-0.1285209,0.27980772,-0.40084842,-0.17854276,0.08441941,-0.5006797,0.13530536,0.007521756,-0.41085422,0.034989942,-0.040086478,-0.02079297,-0.025525583,-0.008009898,-0.019310718,0.050041907,0.0119508095,0.026136808,0.004774131,-0.058058485,-0.054359544,3.0,0.33699694,-3.0,-3.0,0.795251,-3.0,-3.0,0.5626078,-3.0,3.0,-0.05291378,-3.0,3.0,0.20266134,-3.0,-3.0,0.9921551,-3.0,-3.0,0.3354673,-3.0,3.0,0.24802947,-3.0
2025-06-06 08:55:39.395,0.069367066,-0.035270285,-0.0529711,-0.07573963,0.045984868,-0.046613924,0.0,0.0,0.0,0.0,0.14844544,0.09366569,-0.43435258,-0.11686201,0.2805406,-0.41600338,-0.16809674,0.06778501,-0.51107156,0.13939759,0.008433803,-0.42328247,0.010916202,0.007140507,0.074230775,-0.06733109,-0.07928731,0.00076673634,0.07157214,-0.03348661,0.06898137,-0.041283052,-0.0067036115,-0.05550194,3.0,0.20266134,-3.0,-3.0,0.9921551,-3.0,-3.0,0.3354673,-3.0,3.0,0.24802947,-3.0,3.0,0.51625574,-3.0,-3.0,0.82059777,-3.0,-3.0,0.4499768,-3.0,3.0,0.071602106,-3.0
2025-06-06 08:55:39.419,-0.022966588,-0.059497163,0.00477303,-0.09341892,0.065640904,0.023297524,0.0,0.0,0.0,0.0,0.15457919,0.091748744,-0.4430871,-0.12288628,0.27561238,-0.4136675,-0.16437553,0.064713344,-0.499103,0.14767508,0.030334301,-0.4411628,0.056402095,-0.06334094,-0.05439142,-0.046548177,0.052548505,-0.048744988,0.03286873,-0.081559315,-0.048143502,0.069219075,0.002942143,-0.10981001,3.0,0.51625574,-3.0,-3.0,0.82059777,-3.0,-3.0,0.4499768,-3.0,3.0,0.071602106,-3.0,3.0,0.20050344,-3.0,-3.0,0.9943392,-3.0,-3.0,0.3829821,-3.0,3.0,0.2817164,-3.0
2025-06-06 08:55:39.436,0.0137678385,-0.087000586,0.008887589,-0.055218704,0.007308642,-0.03844277,0.0,0.0,0.0,0.0,0.15036811,0.07568292,-0.4307697,-0.11993875,0.26746017,-0.41894984,-0.17236006,0.06921679,-0.49536484,0.15340492,0.030482339,-0.44725248,-0.06440243,-0.0072825635,0.034045886,-0.06484933,-0.043051932,0.025203096,0.02101312,-0.05096617,0.025092049,-0.0077705528,-0.010413034,-0.07492938,3.0,0.20050344,-3.0,-3.0,0.9943392,-3.0,-3.0,0.3829821,-3.0,3.0,0.2817164,-3.0,3.0,0.3510978,-3.0,-3.0,0.91068125,-3.0,-3.0,0.36269668,-3.0,3.0,0.20528978,-3.0
2025-06-06 08:55:39.455,0.013080596,-0.07532631,0.00026753065,-0.10513212,0.06237325,-0.011099157,0.0,0.0,0.0,0.0,0.14593002,0.070631295,-0.42761907,-0.12080177,0.26971766,-0.41964933,-0.17459013,0.062250774,-0.5069447,0.13925208,0.04054631,-0.45986935,-0.06464556,0.02934667,0.011232282,-0.020245485,-0.055311695,0.03311532,-0.012055089,0.0010423077,0.07532085,-0.031984255,-0.033418614,0.008469388,3.0,0.3510978,-3.0,-3.0,0.91068125,-3.0,-3.0,0.36269668,-3.0,3.0,0.20528978,-3.0,3.0,0.3293187,-3.0,-3.0,0.89801514,-3.0,-3.0,0.39806208,-3.0,3.0,0.18311799,-3.0
2025-06-06 08:55:39.475,-0.014409225,-0.06972722,0.02661825,-0.038610816,0.021765774,0.006089439,0.0,0.0,0.0,0.0,0.14428926,0.07071253,-0.4293354,-0.12938103,0.26517907,-0.40894765,-0.16054094,0.04896867,-0.503358,0.14608344,0.04277596,-0.48408166,-0.04758824,-0.044945996,-0.031938966,0.039772894,-0.069155,0.041191913,-0.04444859,0.04438257,0.048308723,-0.06052886,0.07867135,-0.0028464557,3.0,0.3293187,-3.0,-3.0,0.89801514,-3.0,-3.0,0.39806208,-3.0,3.0,0.18311799,-3.0,3.0,0.25140315,-3.0,-3.0,1.0073655,-3.0,-3.0,0.30031446,-3.0,3.0,0.30004123,-3.0
2025-06-06 08:55:39.495,0.02855621,-0.014889648,0.03203216,-0.08490911,-0.0008100153,-0.030752687,0.0,0.0,0.0,0.0,0.15761194,0.065723486,-0.42329374,-0.13303712,0.25460085,-0.42535385,-0.17357655,0.038287427,-0.48816702,0.15995982,0.052266072,-0.48266894,-0.0073953415,-0.05627342,0.049380593,0.03231283,-0.06318429,-0.063001685,0.034302503,-0.008785733,-0.048700817,0.043570217,0.030692913,0.04918974,3.0,0.25140315,-3.0,-3.0,1.0073655,-3.0,-3.0,0.30031446,-3.0,3.0,0.30004123,-3.0,3.0,0.32093853,-3.0,-3.0,0.99531126,-3.0,-3.0,0.43032268,-3.0,3.0,0.28022522,-3.0
2025-06-06 08:55:39.520,0.046654556,0.015944848,0.045376018,-0.033629797,0.032208666,-0.008161313,0.0,0.0,0.0,0.0,0.14678873,0.05443006,-0.42945012,-0.11886267,0.263579,-0.4108994,-0.16081911,0.03829771,-0.49729562,0.16025804,0.04072443,-0.4912111,0.05565932,0.013105391,0.044715166,-0.04170394,-0.06377888,0.0025428347,0.06795718,-0.061072983,-0.025441382,0.0512923,-0.047131505,0.047054455,3.0,0.32093853,-3.0,-3.0,0.99531126,-3.0,-3.0,0.43032268,-3.0,3.0,0.28022522,-3.0,3.0,0.26711124,-3.0,-3.0,1.014429,-3.0,-3.0,0.33019355,-3.0,3.0,0.3179378,-3.0
2025-06-06 08:55:39.535,0.045740325,-0.040400755,-0.013912401,-0.020029956,0.06319662,-0.04457334,0.0,0.0,0.0,0.0,0.14146022,0.06600597,-0.4211091,-0.11990063,0.2701955,-0.43001267,-0.1725718,0.053194255,-0.4851694,0.15999568,0.055472545,-0.50130284,0.05468244,0.019771796,0.06274107,0.028607972,-0.062782586,-0.060085863,0.021743227,-0.031630147,0.0021287482,0.006084738,0.08461391,-0.05252232,3.0,0.26711124,-3.0,-3.0,1.014429,-3.0,-3.0,0.33019355,-3.0,3.0,0.3179378,-3.0,3.0,0.39746523,-3.0,-3.0,0.9040255,-3.0,-3.0,0.3835746,-3.0,3.0,0.20923617,-3.0
2025-06-06 08:55:39.555,0.03054404,0.0034043128,0.058693547,-0.033211097,0.0060549197,0.040178698,0.0,0.0,0.0,0.0,0.14741644,0.05674235,-0.4217718,-0.12348551,0.26875943,-0.4171726,-0.15768723,0.04942244,-0.4920316,0.16331257,0.06396081,-0.49942577,0.076761775,-0.040685933,-0.06695343,-0.028643616,-0.01225428,-0.019539222,-0.0027599249,-0.014821459,-0.014424205,0.07049708,0.06206342,0.035914402,3.0,0.39746523,-3.0,-3.0,0.9040255,-3.0,-3.0,0.3835746,-3.0,3.0,0.20923617,-3.0,3.0,0.11562211,-3.0,-3.0,1.0730828,-3.0,-3.0,0.25233003,-3.0,3.0,0.38160276,-3.0
2025-06-06 08:55:39.575,0.024325324,-0.052678768,-0.026696049,0.0007155973,0.026306309,-0.023106929,0.0,0.0,0.0,0.0,0.15851897,0.051187027,-0.4111717,-0.12789017,0.2575212,-0.42220867,-0.161305,0.049739413,-0.47319475,0.1587063,0.05088221,-0.4937895,-0.044024244,0.049632773,-0.0097128255,-0.075344965,0.045088053,0.04488785,-0.016704837,0.024107965,0.065883234,0.017787924,-0.0515044,-0.027431073,3.0,0.11562211,-3.0,-3.0,1.0730828,-3.0,-3.0,0.25233003,-3.0,3.0,0.38160276,-3.0,3.0,0.3948794,-3.0,-3.0,0.82221127,-3.0,-3.0,0.2920797,-3.0,3.0,0.051355246,-3.0
2025-06-06 08:55:39.595,-0.017004013,0.050351143,0.0049259244,-0.02044806,0.09179374,-0.021345979,0.0,0.0,0.0,0.0,0.1480624,0.06163617,-0.42303583,-0.11956857,0.26407108,-0.42444795,-0.16109084,0.04035728,-0.46882373,0.15410656,0.059450574,-0.49310312,0.030947302,0.019543966,-0.0040089567,0.03621339,0.018985014,-0.037489448,0.06932576,-0.023436053,-0.03119853,0.05629483,-0.011802481,-0.02472371,3.0,0.3948794,-3.0,-3.0,0.82221127,-3.0,-3.0,0.2920797,-3.0,3.0,0.051355246,-3.0,3.0,0.27707893,-3.0,-3.0,1.010868,-3.0,-3.0,0.3407875,-3.0,3.0,0.31487116,-3.0
2025-06-06 08:55:39.616,0.042882275,0.010389619,0.037344303,-0.032360658,0.062841386,-0.0018159518,0.0,0.0,0.0,0.0,0.15637624,0.06614362,-0.421052,-0.12282514,0.25639445,-0.43040538,-0.16967325,0.04014977,-0.4681798,0.17313488,0.053773865,-0.48932323,-0.06975797,-0.041081242,-0.05862191,0.038689226,-0.024800472,0.027169537,0.03555454,0.015377565,0.017019575,0.04569021,-0.019854367,-0.011900658,3.0,0.27707893,-3.0,-3.0,1.010868,-3.0,-3.0,0.3407875,-3.0,3.0,0.31487116,-3.0,3.0,0.21452832,-3.0,-3.0,0.96343684,-3.0,-3.0,0.25845087,-3.0,3.0,0.32799262,-3.0
2025-06-06 08:55:39.637,0.007949938,0.0319504,0.0031108703,-0.059711542,0.031292085,0.04660189,0.0,0.0,0.0,0.0,0.15681832,0.064594954,-0.42152616,-0.12545714,0.2752766,-0.42710465,-0.17696308,0.047695257,-0.47338524,0.164982,0.047826596,-0.48516342,0.054696586,-0.010646713,-0.028786564,0.022113374,-0.027956057,-0.019342368,0.039067507,-0.005486161,0.041877102,0.016952215,0.018888319,0.023464816,3.0,0.21452832,-3.0,-3.0,0.96343684,-3.0,-3.0,0.25845087,-3.0,3.0,0.32799262,-3.0,3.0,0.30661786,-3.0,-3.0,0.94078,-3.0,-3.0,0.2894681,-3.0,3.0,0.21040142,-3.0
2025-06-06 08:55:39.656,-0.011972845,0.070694745,0.04438175,-0.074737795,0.0155820185,-0.020214126,0.0,0.0,0.0,0.0,0.14592564,0.06649222,-0.40962243,-0.118261755,0.26535723,-0.42731786,-0.16251011,0.044609405,-0.45895186,0.15529592,0.052824553,-0.48599267,0.0134625435,0.0037008482,-0.05756885,-0.06631308,-0.061041318,-0.03721184,-0.057655852,-0.049829643,0.059509996,-0.06137367,-0.016764821,0.08081371,3.0,0.30661786,-3.0,-3.0,0.94078,-3.0,-3.0,0.2894681,-3.0,3.0,0.21040142,-3.0,3.0,0.27421376,-3.0,-3.0,0.9534433,-3.0,-3.0,0.28242368,-3.0,3.0,0.31208178,-3.0
2025-06-06 08:55:39.676,-0.016942272,-0.012188977,-0.055703737,-0.07604075,0.028046394,0.03803249,0.0,0.0,0.0,0.0,0.14854285,0.07338802,-0.41541177,-0.11901624,0.27810052,-0.41967463,-0.17974393,0.048715036,-0.45457658,0.15580642,0.05469666,-0.47795615,0.030492058,-0.038099855,-0.05319008,-0.05707082,-0.00134414,0.037731975,0.060104,-0.016943319,0.007267048,-0.070022546,0.04276017,0.039524585,3.0,0.27421376,-3.0,-3.0,0.9534433,-3.0,-3.0,0.28242368,-3.0,3.0,0.31208178,-3.0,3.0,0.44296965,-3.0,-3.0,0.83711433,-3.0,-3.0,0.3667252,-3.0,3.0,0.1201646,-3.0
2025-06-06 08:55:39.696,-0.0068002567,0.045523543,0.040370274,-0.09771882,0.056120064,0.018783526,0.0,0.0,0.0,0.0,0.14297882,0.07292621,-0.41361934,-0.13047887,0.2745021,-0.42259708,-0.16185068,0.04458666,-0.46508923,0.17500402,0.058998425,-0.46942854,0.010938725,0.037205305,0.0458814,-0.0037152986,-0.014906804,0.023988964,-0.010431856,0.0799724,0.022881953,0.055075012,-0.06259756,-0.048296954,3.0,0.44296965,-3.0,-3.0,0.83711433,-3.0,-3.0,0.3667252,-3.0,3.0,0.1201646,-3.0,3.0,0.16257599,-3.0,-3.0,0.97679424,-3.0,-3.0,0.32715604,-3.0,3.0,0.3227525,-3.0
2025-06-06 08:55:39.720,0.026301138,0.0073097367,-0.055808213,-0.07030172,0.06412093,0.018156704,0.0,0.0,0.0,0.0,0.14550601,0.07106891,-0.41944495,-0.1325313,0.29016542,-0.41733122,-0.17080614,0.04698578,-0.4695124,0.1652885,0.057829246,-0.46022898,-0.025598813,-0.024661234,-0.061618496,0.036112808,-0.048013385,-0.04986541,-0.0643913,-0.03498478,0.029377908,0.04389035,0.024832945,0.047641076,3.0,0.16257599,-3.0,-3.0,0.97679424,-3.0,-3.0,0.32715604,-3.0,3.0,0.3227525,-3.0,3.0,0.4396863,-3.0,-3.0,0.8405613,-3.0,-3.0,0.39947128,-3.0,3.0,0.059310976,-3.0
2025-06-06 08:55:39.736,-0.043134928,0.06204847,-0.007099101,-0.05271273,0.095732406,0.014773479,0.0,0.0,0.0,0.0,0.14532325,0.08815723,-0.41345948,-0.11995205,0.27951056,-0.4295113,-0.17780161,0.054703016,-0.45184827,0.16425298,0.049324084,-0.46916783,-0.06499944,0.04647692,0.023241881,0.018655282,0.067359515,-0.026952645,0.019796414,0.035246503,0.02781513,-0.03427583,-0.055289246,0.027210165,3.0,0.4396863,-3.0,-3.0,0.8405613,-3.0,-3.0,0.39947128,-3.0,3.0,0.059310976,-3.0,3.0,0.22219488,-3.0,-3.0,0.8339238,-3.0,-3.0,0.37338638,-3.0,3.0,0.15901333,-3.0
2025-06-06 08:55:39.756,0.047142215,0.024803791,0.051844403,-0.056320295,0.014512437,0.043021522,0.0,0.0,0.0,0.0,0.1450026,0.091930404,-0.42586425,-0.11962784,0.2924489,-0.42885482,-0.16584517,0.06176617,-0.46735442,0.15763631,0.045917,-0.45417643,0.0037998366,-0.055249322,0.059920624,0.034602854,0.010809574,0.035820574,-0.06947203,-0.043591414,-0.029012157,0.0040043886,-0.014296406,-0.052586995,3.0,0.22219488,-3.0,-3.0,0.8339238,-3.0,-3.0,0.37338638,-3.0,3.0,0.15901333,-3.0,3.0,0.23316595,-3.0,-3.0,1.0140641,-3.0,-3.0,0.32144243,-3.0,3.0,0.35638615,-3.0
2025-06-06 08:55:39.777,-0.048965227,0.038908254,-0.041297298,-0.021774849,0.101704486,0.04139029,0.0,0.0,0.0,0.0,0.13539778,0.08984803,-0.4201654,-0.12253776,0.2937117,-0.42885292,-0.16982526,0.06567461,-0.46548933,0.17251599,0.05687817,-0.45222026,-0.081091836,0.040828638,0.035490017,0.056971032,0.07337296,-0.005150168,-0.016889071,0.039417055,0.023578906,0.049366686,0.03147646,-0.047014985,3.0,0.23316595,-3.0,-3.0,1.0140641,-3.0,-3.0,0.32144243,-3.0,3.0,0.35638615,-3.0,3.0,0.2748084,-3.0,-3.0,0.75618845,-3.0,-3.0,0.31173837,-3.0,3.0,0.035920028,-3.0
2025-06-06 08:55:39.796,0.024279527,0.08322795,0.026267739,-0.07439027,0.03004792,0.0050987285,0.0,0.0,0.0,0.0,0.13643983,0.08197129,-0.41573012,-0.11942351,0.2952516,-0.4225136,-0.18004745,0.05755797,-0.46500036,0.16410671,0.051525384,-0.43456712,-0.04437665,0.07163062,-0.077084035,0.031622626,-0.0078054033,0.007553283,-0.06784511,-0.033300094,0.03647092,-0.033390757,0.025134906,0.095159024,3.0,0.2748084,-3.0,-3.0,0.75618845,-3.0,-3.0,0.31173837,-3.0,3.0,0.035920028,-3.0,3.0,0.20928234,-3.0,-3.0,0.90228015,-3.0,-3.0,0.28423098,-3.0,3.0,0.26877287,-3.0
2025-06-06 08:55:39.820,-0.043651063,0.00040382656,0.01607483,-0.09419624,0.05128441,-0.035877682,0.0,0.0,0.0,0.0,0.14762859,0.09884177,-0.4170015,-0.13840023,0.29867357,-0.41464394,-0.17245406,0.05036636,-0.46070442,0.16140711,0.03838807,-0.43027398,0.029893674,0.057161532,0.00069789094,0.00030015263,0.06701636,0.022166433,0.007336368,0.003951151,0.06961865,-0.010829417,-0.030333407,0.029361662,3.0,0.20928234,-3.0,-3.0,0.90228015,-3.0,-3.0,0.28423098,-3.0,3.0,0.26877287,-3.0,3.0,0.21596918,-3.0,-3.0,0.822907,-3.0,-3.0,0.2586563,-3.0,3.0,0.15825981,-3.0
2025-06-06 08:55:39.836,0.015494133,0.015725771,-0.07082484,-0.05377594,0.040627614,-0.040140003,0.0,0.0,0.0,0.0,0.14831056,0.09072391,-0.42279774,-0.12858757,0.28810763,-0.4182523,-0.17824411,0.053065106,-0.45422068,0.16936916,0.05488004,-0.43117586,-0.03383143,0.03812233,0.03856776,0.019276254,0.03349356,-0.040361166,-0.03382869,0.043741047,0.0048132916,-0.023880888,0.04980102,-0.0155075705,3.0,0.21596918,-3.0,-3.0,0.822907,-3.0,-3.0,0.2586563,-3.0,3.0,0.15825981,-3.0,3.0,0.43531972,-2.9999964,-3.0,0.8010735,-3.0,-3.0,0.47106534,-3.0,3.0,-0.006203588,-3.0
2025-06-06 08:55:39.856,-0.0020425026,0.022337358,0.051874556,-0.079230905,0.047810785,0.02958425,0.0,0.0,0.0,0.0,0.1397774,0.09786868,-0.41298273,-0.13740908,0.29889292,-0.40956208,-0.17554724,0.06281558,-0.4584098,0.16973498,0.050593924,-0.41468284,-0.034943704,-0.050370704,-0.0040541943,0.049622245,-0.073569834,0.008876097,-0.018319922,0.08165545,-0.0044201585,-0.02724345,-0.06858257,-0.026905064,3.0,0.43531972,-2.9999964,-3.0,0.8010735,-3.0,-3.0,0.47106534,-3.0,3.0,-0.006203588,-3.0,3.0,0.15136129,-3.0,-3.0,0.9938616,-3.0,-3.0,0.37540603,-3.0,3.0,0.3697805,-3.0
2025-06-06 08:55:39.876,-0.0667326,0.00050067523,0.0024991375,-0.06103672,0.07510652,-0.049127214,0.0,0.0,0.0,0.0,0.14248164,0.103414826,-0.41795805,-0.13569298,0.2912664,-0.4072977,-0.17169009,0.061032604,-0.45189008,0.16610031,0.056315098,-0.43280897,0.004797285,-0.065238245,-0.036775205,0.035178434,0.082329944,-0.035724245,0.03497514,0.066453114,-0.009452053,-0.02612844,-0.013413515,0.056612425,3.0,0.15136129,-3.0,-3.0,0.9938616,-3.0,-3.0,0.37540603,-3.0,3.0,0.3697805,-3.0,3.0,0.27695477,-3.0,-3.0,0.8105352,-2.9475014,-3.0,0.3138975,-3.0,3.0,0.11009842,-3.0
2025-06-06 08:55:39.896,-0.03706449,0.055401675,-0.011048936,-0.07106285,0.09435165,-0.044997573,0.0,0.0,0.0,0.0,0.1379254,0.10813471,-0.41012612,-0.13193257,0.301427,-0.4105418,-0.1670449,0.06344138,-0.45855,0.1660726,0.039294068,-0.41912654,0.007857956,-0.07123099,0.02365049,0.014281179,0.05233399,-0.0048772804,0.0113963885,-0.002249137,-0.05204452,-0.0512256,-0.03431065,-0.026257608,3.0,0.27695477,-3.0,-3.0,0.8105352,-2.9475014,-3.0,0.3138975,-3.0,3.0,0.11009842,-3.0,3.0,0.3604511,-3.0,-3.0,0.90818995,-3.0,-3.0,0.3740279,-3.0,3.0,0.22719738,-3.0
2025-06-06 08:55:39.919,-0.063385054,0.008687332,-0.02125588,-0.057637773,0.085402735,0.027457474,0.0,0.0,0.0,0.0,0.1460144,0.093229614,-0.4310938,-0.1418107,0.2970961,-0.41718298,-0.16518185,0.060452413,-0.44882977,0.16340388,0.04385805,-0.42524564,-0.011426648,0.014986916,0.023083393,-0.058099832,-0.07013367,0.0327318,0.056351583,0.0013138264,-0.072075024,-0.05000351,0.06502028,0.055012997,3.0,0.3604511,-3.0,-3.0,0.90818995,-3.0,-3.0,0.3740279,-3.0,3.0,0.22719738,-3.0,3.0,0.31139743,-3.0,-3.0,0.84701014,-3.0,-3.0,0.40283787,-3.0,3.0,0.18547404,-3.0
2025-06-06 08:55:39.937,-0.060422808,-0.013439154,0.03311852,-0.110253826,0.005861751,-0.00639296,0.0,0.0,0.0,0.0,0.12708567,0.108082294,-0.42006025,-0.12994552,0.30241996,-0.41365752,-0.17463781,0.07575371,-0.45242727,0.16411506,0.04624553,-0.4133269,-0.002912588,0.038429122,0.060246933,0.06932639,0.045688517,-0.024996903,0.011367906,0.017680291,-0.07728711,-0.0001732949,0.042057745,-0.018980931,3.0,0.31139743,-3.0,-3.0,0.84701014,-3.0,-3.0,0.40283787,-3.0,3.0,0.18547404,-3.0,3.0,0.13834769,-3.0,-3.0,0.86897427,-2.9802153,-3.0,0.39071578,-3.0,3.0,0.2372945,-3.0
2025-06-06 08:55:39.957,0.014523907,-0.05276128,0.025421532,-0.046947654,0.05213501,-0.0257438,0.0,0.0,0.0,0.0,0.12695529,0.10448679,-0.42155227,-0.1375569,0.2934699,-0.39775047,-0.18283297,0.0727482,-0.4584799,0.17506327,0.061350618,-0.42099774,0.022678733,0.028803274,-0.0003311663,-0.07077066,0.045535825,0.007592878,-0.06351337,-0.024293277,0.036781553,-0.070903786,-0.045985665,0.015845878,3.0,0.13834769,-3.0,-3.0,0.86897427,-2.9802153,-3.0,0.39071578,-3.0,3.0,0.2372945,-3.0,3.0,0.2406466,-3.0,-3.0,0.87474805,-3.0,-3.0,0.30560076,-3.0,3.0,0.19853252,-3.0
2025-06-06 08:55:39.977,0.020930363,-0.038650427,-0.047921397,-0.042205643,0.013513145,-0.010533012,0.0,0.0,0.0,0.0,0.12639435,0.09575635,-0.41865864,-0.14844932,0.291428,-0.40860757,-0.16871116,0.07294994,-0.4605441,0.17150311,0.06368672,-0.41209176,0.0047703516,0.026739933,-0.004514683,-0.048031002,0.0136925,-0.06053232,-0.031706534,0.061880436,-0.050729368,-0.017330274,0.017803865,0.0019578424,3.0,0.2406466,-3.0,-3.0,0.87474805,-3.0,-3.0,0.30560076,-3.0,3.0,0.19853252,-3.0,3.0,0.36123112,-3.0,-3.0,0.8260958,-3.0,-3.0,0.47666585,-3.0,3.0,0.036961917,-3.0
2025-06-06 08:55:39.997,-0.0052265143,0.043402787,0.012900353,-0.10131198,0.053689957,0.023193482,0.0,0.0,0.0,0.0,0.12516463,0.111244,-0.42539555,-0.14268716,0.29670915,-0.41005194,-0.16801521,0.07259937,-0.4665111,0.17660354,0.04817749,-0.41353825,-0.012620562,0.0011772399,-0.035790756,0.035743438,0.011486129,-0.046848755,0.0009452557,0.042146675,0.0460972,0.010437235,-0.07746084,0.021520985,3.0,0.36123112,-3.0,-3.0,0.8260958,-3.0,-3.0,0.47666585,-3.0,3.0,0.036961917,-3.0,3.0,0.15446147,-3.0,-3.0,0.8804478,-3.0,-3.0,0.34802416,-3.0,3.0,0.21095121,-3.0
2025-06-06 08:55:40.019,0.049131576,-0.042092,0.02121963,-0.057107214,0.08516245,0.04895641,0.0,0.0,0.0,0.0,0.1328142,0.105137624,-0.41997516,-0.1460374,0.29277742,-0.40223694,-0.1832,0.06244463,-0.46123978,0.16703781,0.038865205,-0.41606295,0.030071966,-0.07604945,-0.021686504,0.06531341,0.01419577,0.059884474,0.029586658,-0.004593986,-0.04313064,-0.04816315,0.036528397,0.06101976,3.0,0.15446147,-3.0,-3.0,0.8804478,-3.0,-3.0,0.34802416,-3.0,3.0,0.21095121,-3.0,3.0,0.24881464,-3.0,-3.0,0.93892485,-3.0,-3.0,0.28969285,-3.0,3.0,0.30242062,-3.0
2025-06-06 08:55:40.037,-0.008375216,-0.048596296,0.0128831165,-0.03834059,0.075681746,-0.04943289,0.0,0.0,0.0,0.0,0.14046417,0.10183726,-0.41691095,-0.142922,0.3026463,-0.41360608,-0.17553844,0.074523225,-0.4632435,0.16478759,0.045691006,-0.4285081,0.07012075,0.06667121,-0.012088015,-0.03969358,-0.040136773,-0.048613764,-0.041371267,0.001910285,-0.0051668514,0.06558912,-0.04979571,-0.035552558,3.0,0.24881464,-3.0,-3.0,0.93892485,-3.0,-3.0,0.28969285,-3.0,3.0,0.30242062,-3.0,3.0,0.25980508,-3.0,-3.0,0.8593276,-3.0,-3.0,0.37441933,-3.0,3.0,0.14549673,-3.0
2025-06-06 08:55:40.057,-0.0060246615,0.01583351,-0.0063007004,-0.098572545,0.0036668289,-0.01146193,0.0,0.0,0.0,0.0,0.12846299,0.106052235,-0.42927366,-0.13765644,0.29017994,-0.40920892,-0.1674294,0.07096435,-0.4538947,0.16948575,0.0582072,-0.42363304,0.044683713,-0.028373204,0.042914256,-0.07017562,-0.048882578,-0.03714995,0.018396555,0.020542795,0.07400499,-0.048660878,-0.044585485,0.058457717,3.0,0.25980508,-3.0,-3.0,0.8593276,-3.0,-3.0,0.37441933,-3.0,3.0,0.14549673,-3.0,3.0,0.3183458,-3.0,-3.0,0.8861845,-2.8952267,-3.0,0.4084665,-3.0,3.0,0.14824355,-3.0
2025-06-06 08:55:40.077,-0.0010839357,0.040172998,0.009007985,-0.030068208,0.004921747,-0.012589426,0.0,0.0,0.0,0.0,0.13336672,0.08877039,-0.4147679,-0.14535013,0.2931326,-0.41099414,-0.17425384,0.06902549,-0.4553655,0.17573129,0.049984206,-0.43067187,0.055596925,0.032741647,-0.021773882,0.05335302,0.011258717,-0.0008072999,-0.047954157,0.023761041,-0.010866231,-0.025674554,0.013876276,0.023011532,3.0,0.3183458,-3.0,-3.0,0.8861845,-2.8952267,-3.0,0.4084665,-3.0,3.0,0.14824355,-3.0,3.0,0.21201372,-3.0,-3.0,0.8820847,-3.0,-3.0,0.33606538,-3.0,3.0,0.17746437,-3.0
2025-06-06 08:55:40.097,0.021972928,0.012489196,0.029759511,-0.10724404,0.046194572,0.042268816,0.0,0.0,0.0,0.0,0.1347885,0.10383895,-0.41628537,-0.14523666,0.2932453,-0.39981487,-0.1818242,0.06359675,-0.45893174,0.17580095,0.046770643,-0.42754948,-0.046181638,0.010677668,-0.027787562,0.028878806,0.040433787,-0.028761357,0.010981465,-0.06110262,0.027548203,-0.035311013,-0.030845664,-0.021156568,3.0,0.21201372,-3.0,-3.0,0.8820847,-3.0,-3.0,0.33606538,-3.0,3.0,0.17746437,-3.0,3.0,0.15312913,-3.0,-3.0,0.91413945,-3.0,-3.0,0.2821482,-3.0,3.0,0.3086931,-3.0
2025-06-06 08:55:40.119,0.015958074,-0.06497335,0.02524664,-0.05645018,0.045331094,0.008758346,0.0,0.0,0.0,0.0,0.12611052,0.10232165,-0.4147673,-0.14437081,0.29260543,-0.4089809,-0.16494557,0.059137497,-0.45281243,0.17162071,0.045647927,-0.43336043,-0.077911526,-0.019235922,0.006406322,-0.024974423,0.06658958,0.016038524,-0.05842558,-0.01304992,-0.018205104,-0.031144544,-0.0049200025,0.039129917,3.0,0.15312913,-3.0,-3.0,0.91413945,-3.0,-3.0,0.2821482,-3.0,3.0,0.3086931,-3.0,3.0,0.20748612,-3.0,-3.0,0.8911392,-2.9974196,-3.0,0.3147836,-3.0,3.0,0.22396785,-3.0
2025-06-06 08:55:40.137,-0.04104051,-0.031315666,-0.016056413,-0.031497557,0.025208449,-0.029846957,0.0,0.0,0.0,0.0,0.13073301,0.09507089,-0.42552704,-0.14158826,0.28731412,-0.40412188,-0.1715207,0.06664278,-0.45047966,0.1621795,0.06137158,-0.4268018,0.060644258,0.034004048,-0.072971426,-0.007886262,0.0101430975,0.003110704,-0.0470141,-0.014211553,-0.034290075,0.020155294,-0.018343689,0.030534476,3.0,0.20748612,-3.0,-3.0,0.8911392,-2.9974196,-3.0,0.3147836,-3.0,3.0,0.22396785,-3.0,3.0,0.30801913,-3.0,-3.0,0.85922086,-3.0,-3.0,0.37059388,-3.0,3.0,0.12051773,-3.0
2025-06-06 08:55:40.158,-0.008807793,-0.040388666,0.033303253,-0.06287649,0.070913486,0.039050005,0.0,0.0,0.0,0.0,0.12988013,0.08710304,-0.42856812,-0.14560136,0.2864576,-0.4138264,-0.16855845,0.06384553,-0.46883196,0.1706184,0.04674769,-0.43006086,0.005861755,-0.042721484,0.04369234,-0.0027770137,-0.06904715,0.022600682,0.0050598267,-0.028253691,-0.06699167,0.05897604,-0.009947492,0.0713983,3.0,0.30801913,-3.0,-3.0,0.85922086,-3.0,-3.0,0.37059388,-3.0,3.0,0.12051773,-3.0,3.0,0.2287947,-3.0,-3.0,1.0211791,-3.0,-3.0,0.3915077,-3.0,3.0,0.339462,-3.0
2025-06-06 08:55:40.178,0.015386125,-0.07873052,0.018047018,-0.089553736,0.0937501,-0.016439661,0.0,0.0,0.0,0.0,0.13165794,0.09382778,-0.41321856,-0.14150909,0.3009805,-0.41572517,-0.16742954,0.060477912,-0.46429577,0.17674811,0.050336264,-0.444714,0.016303277,-0.029117174,-0.0014871242,-0.07546525,-0.017529232,-0.0027567728,-0.03982034,0.011476968,0.06568424,-0.021462094,-0.021188922,-0.0032785875,3.0,0.2287947,-3.0,-3.0,1.0211791,-3.0,-3.0,0.3915077,-3.0,3.0,0.339462,-3.0,3.0,0.26027521,-3.0,-3.0,0.8586587,-3.0,-3.0,0.28356627,-3.0,3.0,0.22321102,-3.0
2025-06-06 08:55:40.198,0.048690747,0.009696,-0.014766125,-0.10219185,0.05589288,-0.035907507,0.0,0.0,0.0,0.0,0.12603123,0.08228966,-0.43042275,-0.14110847,0.29826972,-0.40456277,-0.1780141,0.048221853,-0.45725092,0.1775445,0.05943764,-0.4341691,0.060059648,-0.066740744,-0.013156177,0.065523244,0.03088061,0.064580105,-0.03461436,-0.02924706,0.06990347,0.03715608,-0.05705237,0.030634869,3.0,0.26027521,-3.0,-3.0,0.8586587,-3.0,-3.0,0.28356627,-3.0,3.0,0.22321102,-3.0,3.0,0.34082812,-3.0,-3.0,0.925725,-2.945496,-3.0,0.32777297,-3.0,3.0,0.19629776,-3.0
2025-06-06 08:55:40.219,-0.03632291,0.041463044,-0.02019519,-0.1141354,0.08400889,0.022260608,0.0,0.0,0.0,0.0,0.13508102,0.091986015,-0.41753986,-0.14766647,0.2948801,-0.41570085,-0.17723309,0.065767415,-0.46270844,0.17431545,0.047774885,-0.44613394,-0.061011277,0.058256462,-0.076926604,0.04834295,-0.03986004,0.06169091,-0.005273139,-0.020238493,-0.009304291,0.061195426,0.04854648,-0.077210754,3.0,0.34082812,-3.0,-3.0,0.925725,-2.945496,-3.0,0.32777297,-3.0,3.0,0.19629776,-3.0,3.0,0.2176463,-3.0,-3.0,0.838269,-3.0,-3.0,0.30564746,-3.0,3.0,0.24382225,-3.0
2025-06-06 08:55:40.238,0.043738637,-0.048975725,0.015639331,-0.113374956,0.06866501,-0.045983423,0.0,0.0,0.0,0.0,0.13481069,0.08240396,-0.41396123,-0.14757575,0.29446602,-0.4057668,-0.1775491,0.055469148,-0.47099176,0.16494086,0.06212042,-0.43630704,-0.048128538,-0.06868909,0.059033033,0.044124167,0.06368013,-0.009247016,-0.057045236,0.06942235,-0.020953398,-0.0068294895,0.028034333,0.051888812,3.0,0.2176463,-3.0,-3.0,0.838269,-3.0,-3.0,0.30564746,-3.0,3.0,0.24382225,-3.0,3.0,0.2832325,-3.0,-3.0,0.9278896,-2.9458673,-3.0,0.40650916,-3.0,3.0,0.18928832,-3.0
2025-06-06 08:55:40.258,0.002182594,-0.008360704,-0.009683129,-0.10570706,0.05866554,-0.04752747,0.0,0.0,0.0,0.0,0.13211225,0.084249124,-0.42153624,-0.12807243,0.29575023,-0.4142128,-0.17709662,0.048430134,-0.459925,0.17122334,0.051293097,-0.44761872,0.016831767,0.016577577,0.0338218,0.03246591,0.01678999,-0.012320284,-0.026770223,0.0042265486,0.00630259,0.006734038,0.021567117,-0.07135112,3.0,0.2832325,-3.0,-3.0,0.9278896,-2.9458673,-3.0,0.40650916,-3.0,3.0,0.18928832,-3.0,3.0,0.2996847,-3.0,-3.0,0.8572477,-3.0,-3.0,0.36744735,-3.0,3.0,0.18926716,-3.0
2025-06-06 08:55:40.278,-0.0038168272,-0.036426213,0.059178166,-0.11213978,0.08699926,0.008573901,0.0,0.0,0.0,0.0,0.14471316,0.09470568,-0.41680267,-0.13550502,0.2875245,-0.4142136,-0.17451794,0.05280333,-0.4645503,0.16314633,0.062183883,-0.45065618,0.070959665,0.007904405,0.034431044,-0.044606656,-0.071408935,-0.008708966,0.0510565,-0.029651413,-0.03795974,0.004945431,0.05941561,0.031203242,3.0,0.2996847,-3.0,-3.0,0.8572477,-3.0,-3.0,0.36744735,-3.0,3.0,0.18926716,-3.0,3.0,0.16997397,-3.0,-3.0,0.9962038,-2.982944,-3.0,0.32812604,-3.0,3.0,0.42191306,-3.0
2025-06-06 08:55:40.301,0.0155692,-0.050764333,-0.00925972,-0.10950736,0.040438898,-0.025852034,0.0,0.0,0.0,0.0,0.13304499,0.093045704,-0.40959522,-0.13336784,0.2908653,-0.40689075,-0.18012574,0.061204385,-0.45956427,0.16794164,0.05686046,-0.44245625,-0.0470254,0.024948638,0.05958505,-0.018988598,0.0115477815,-0.010055446,-0.046455707,0.022180898,0.057231948,0.012048686,-0.0032693355,-0.08784822,3.0,0.16997397,-3.0,-3.0,0.9962038,-2.982944,-3.0,0.32812604,-3.0,3.0,0.42191306,-3.0,3.0,0.293804,-3.0,-3.0,0.80766976,-3.0,-3.0,0.37240544,-3.0,3.0,0.091151655,-3.0
2025-06-06 08:55:40.319,-0.0031169713,0.06734446,0.029865159,-0.09863425,0.09768516,0.025383253,0.0,0.0,0.0,0.0,0.13851665,0.07703414,-0.42310238,-0.13028647,0.28793094,-0.40746516,-0.1645499,0.051606864,-0.47002128,0.17280068,0.05037125,-0.45634535,0.033541277,-0.07034466,0.05128219,-0.06928913,0.019034842,-0.046569444,0.019597948,0.029240169,-0.046430834,0.024504004,-0.044178817,0.01385717,3.0,0.293804,-3.0,-3.0,0.80766976,-3.0,-3.0,0.37240544,-3.0,3.0,0.091151655,-3.0,3.0,0.26471704,-3.0,-3.0,1.0365835,-3.0,-3.0,0.35586172,-3.0,3.0,0.31525788,-3.0
2025-06-06 08:55:40.338,0.041044205,0.026391407,-0.0116893845,-0.06292854,0.08167002,0.021455342,0.0,0.0,0.0,0.0,0.14148736,0.084856816,-0.40909237,-0.12812321,0.2871586,-0.415864,-0.1738588,0.054500416,-0.4632541,0.16891268,0.05969699,-0.44805613,-0.049379572,-0.031101082,-0.052666347,0.017922515,0.038219452,-0.017427454,0.061534483,0.0470855,-0.07080663,-0.073676184,-0.013026242,0.05259403,3.0,0.26471704,-3.0,-3.0,1.0365835,-3.0,-3.0,0.35586172,-3.0,3.0,0.31525788,-3.0,3.0,0.31611115,-3.0,-3.0,0.8048851,-3.0,-3.0,0.37325037,-3.0,3.0,0.18448174,-3.0
2025-06-06 08:55:40.358,-0.0016303263,-0.019706057,-0.02941901,-0.06386261,0.07635387,-0.026304942,0.0,0.0,0.0,0.0,0.14485474,0.07811507,-0.42086315,-0.14389054,0.29225612,-0.4124162,-0.16605112,0.049947448,-0.47202885,0.17970079,0.06476892,-0.45731878,0.05944015,-0.031063583,0.056827385,-0.014627537,-0.06593417,0.019489303,-0.024902126,0.009911059,0.072304994,0.054152373,0.0071210302,-0.019781059,3.0,0.31611115,-3.0,-3.0,0.8048851,-3.0,-3.0,0.37325037,-3.0,3.0,0.18448174,-3.0,3.0,0.38154343,-3.0,-3.0,0.9541858,-3.0,-3.0,0.3776079,-3.0,3.0,0.17877316,-3.0
2025-06-06 08:55:40.378,-0.030532414,-0.02565136,0.009244759,-0.1125418,0.023894541,-0.024973812,0.0,0.0,0.0,0.0,0.1438813,0.08829002,-0.4248713,-0.12839004,0.28858632,-0.4163622,-0.17127277,0.0638022,-0.4776057,0.16997647,0.0493508,-0.44871596,-0.03926325,-0.030313672,0.013521428,-0.02614204,-0.0060976637,-0.038973827,-0.045533765,-0.052204575,-0.008546168,0.05243027,-0.04451041,-0.0142450025,3.0,0.38154343,-3.0,-3.0,0.9541858,-3.0,-3.0,0.3776079,-3.0,3.0,0.17877316,-3.0,3.0,0.26356998,-3.0,-3.0,0.89478356,-3.0,-3.0,0.4342904,-3.0,3.0,0.21161765,-3.0
2025-06-06 08:55:40.401,0.026289491,0.008148706,0.015722724,-0.06352855,0.061934657,-0.036126662,0.0,0.0,0.0,0.0,0.13382879,0.084019035,-0.43031833,-0.13506947,0.29321334,-0.41129947,-0.16827644,0.0633776,-0.46677968,0.17022383,0.045137744,-0.45007464,0.042040523,0.024471564,0.03451687,-0.0603125,-0.0038825155,0.039545074,-0.038255606,0.0482921,0.006067049,0.056259733,0.01563062,-0.058704898,3.0,0.26356998,-3.0,-3.0,0.89478356,-3.0,-3.0,0.4342904,-3.0,3.0,0.21161765,-3.0,3.0,0.2412456,-3.0,-3.0,0.8938407,-3.0,-3.0,0.29412594,-3.0,3.0,0.18608284,-3.0
2025-06-06 08:55:40.419,-0.0074782576,-0.035404045,0.025373936,-0.051826216,0.07298516,-0.036369145,0.0,0.0,0.0,0.0,0.14145078,0.08280699,-0.41916174,-0.12767275,0.29610008,-0.42173532,-0.18278804,0.068321586,-0.46983364,0.16347481,0.05119689,-0.45554075,-0.03633164,-0.02404214,-0.008943686,0.019721862,-0.003291121,0.07078925,0.051422507,-0.05970314,-0.017059086,-0.07162607,0.031721957,0.07252664,3.0,0.2412456,-3.0,-3.0,0.8938407,-3.0,-3.0,0.29412594,-3.0,3.0,0.18608284,-3.0,3.0,0.29433954,-3.0,-3.0,0.92168754,-3.0,-3.0,0.31053317,-3.0,3.0,0.3465778,-3.0
2025-06-06 08:55:40.439,0.018853087,-0.049165946,0.016625421,-0.08060376,0.06733858,-5.68332e-05,0.0,0.0,0.0,0.0,0.1396305,0.0892291,-0.41509616,-0.14091976,0.28477332,-0.40438217,-0.1765276,0.05355174,-0.4662118,0.17034534,0.0519773,-0.45226556,-0.008136778,0.06308748,0.06260198,-0.043270312,0.013913494,-0.06906916,0.04224368,-0.017730385,0.06674572,0.061883885,-0.00035204476,-0.02905232,3.0,0.29433954,-3.0,-3.0,0.92168754,-3.0,-3.0,0.31053317,-3.0,3.0,0.3465778,-3.0,3.0,0.15077099,-3.0,-3.0,0.898826,-3.0,-3.0,0.3331626,-3.0,3.0,0.17228189,-3.0
2025-06-06 08:55:40.459,-0.027702594,-0.041257296,0.016364634,-0.10858676,0.041816253,0.039897546,0.0,0.0,0.0,0.0,0.14757872,0.08388034,-0.42343315,-0.12688433,0.293672,-0.41921583,-0.17070098,0.069783874,-0.46230134,0.17421612,0.0531534,-0.45121035,-0.0015670953,-0.00567538,-0.011479867,-0.018250013,-0.068390094,0.0022346724,0.06418007,0.009934161,0.04323434,-0.0674283,-0.06369711,-0.0043405886,3.0,0.15077099,-3.0,-3.0,0.898826,-3.0,-3.0,0.3331626,-3.0,3.0,0.17228189,-3.0,3.0,0.31493086,-3.0,-3.0,0.9489296,-3.0,-3.0,0.33637732,-3.0,3.0,0.31031978,-3.0
2025-06-06 08:55:40.478,-0.039974175,0.008114483,-0.044528592,-0.044953264,0.003899717,0.01072295,0.0,0.0,0.0,0.0,0.1319492,0.09086604,-0.4185393,-0.13177516,0.30102092,-0.4114267,-0.17264661,0.06323149,-0.45377263,0.16935506,0.059582014,-0.44721135,0.014444779,-0.012444134,0.07026744,0.036659252,0.024082117,0.06889594,-0.032415904,0.01125012,-0.06973115,0.005710106,0.07951395,0.07027459,3.0,0.31493086,-3.0,-3.0,0.9489296,-3.0,-3.0,0.33637732,-3.0,3.0,0.31031978,-3.0,3.0,0.36957562,-3.0,-3.0,0.7884714,-2.8581343,-3.0,0.43380928,-3.0,3.0,0.04870582,-3.0
2025-06-06 08:55:40.502,-0.033167683,-0.010734572,0.0037667877,-0.08384035,0.07864167,-0.032450277,0.0,0.0,0.0,0.0,0.14888382,0.0845474,-0.42087606,-0.1339683,0.29693168,-0.41666943,-0.1640058,0.058119,-0.45675492,0.16481212,0.055601526,-0.45145953,-0.02288166,0.07347533,0.022449872,-0.04339025,0.020231204,-0.055547144,-0.023161268,0.013180069,-0.038902164,-0.015226627,0.050459098,0.048269406,3.0,0.36957562,-3.0,-3.0,0.7884714,-2.8581343,-3.0,0.43380928,-3.0,3.0,0.04870582,-3.0,3.0,0.20104012,-3.0,-3.0,0.88480854,-3.0,-3.0,0.42655993,-3.0,3.0,0.18142503,-3.0
2025-06-06 08:55:40.519,0.013709406,0.029642766,0.024052871,-0.03896967,0.00024842896,-0.007841749,0.0,0.0,0.0,0.0,0.14472434,0.08841409,-0.41636872,-0.1318822,0.29232392,-0.41133448,-0.16724476,0.068747364,-0.47007447,0.16435212,0.051139366,-0.453712,-0.03710663,0.031146655,-0.070142865,-0.043472297,-0.027132485,-0.016268304,-0.076277524,0.034480546,0.025365034,-0.008669423,0.024893159,0.03756651,3.0,0.20104012,-3.0,-3.0,0.88480854,-3.0,-3.0,0.42655993,-3.0,3.0,0.18142503,-3.0,3.0,0.21258798,-3.0,-3.0,0.87119365,-3.0,-3.0,0.29553682,-3.0,3.0,0.17160356,-3.0
2025-06-06 08:55:40.539,0.019066036,-0.019743599,-0.01333313,-0.027024778,0.09395212,0.010804553,0.0,0.0,0.0,0.0,0.14751826,0.08632952,-0.41498023,-0.124049716,0.28995478,-0.40021345,-0.179044,0.069339335,-0.45831627,0.17671518,0.053969495,-0.44609025,-0.052412618,0.045413505,-0.006541694,-0.028649848,0.027813565,-0.012699229,0.0136747435,0.0626734,-0.022526534,-0.016925292,0.04870916,-0.046511505,3.0,0.21258798,-3.0,-3.0,0.87119365,-3.0,-3.0,0.29553682,-3.0,3.0,0.17160356,-3.0,3.0,0.26436463,-3.0,-3.0,0.84705406,-3.0,-3.0,0.34422228,-3.0,3.0,0.15649372,-3.0
2025-06-06 08:55:40.604,0.00815381,-0.0008464283,-0.019813752,-0.06477997,0.05079544,0.02506968,0.0,0.0,0.0,0.0,0.14139476,0.09465091,-0.4257363,-0.14014259,0.28978813,-0.41347134,-0.17001851,0.06263807,-0.46975243,0.17508422,0.041346174,-0.433697,-0.023552775,0.012144281,-0.043339126,-0.04410128,-0.04370919,-0.071348816,-0.0017031224,0.023172086,-0.01848028,0.021956151,0.056871817,-0.024587965,3.0,0.26436463,-3.0,-3.0,0.84705406,-3.0,-3.0,0.34422228,-3.0,3.0,0.15649372,-3.0,3.0,0.27703458,-3.0,-3.0,0.8943462,-3.0,-3.0,0.38250953,-3.0,3.0,0.16190231,-3.0
2025-06-06 08:55:40.624,0.04339435,0.03784259,0.012009494,-0.024874594,0.01575676,-0.032083217,0.0,0.0,0.0,0.0,0.13669905,0.0916948,-0.418952,-0.13195327,0.29486558,-0.40995204,-0.17496562,0.053061415,-0.46486828,0.17477919,0.04034136,-0.44630706,-0.04013204,-0.04528355,0.065823786,-0.06817893,-0.038960274,-0.009592775,-0.053983755,0.021813802,-0.046957128,-0.03426338,0.030785773,0.014123545,3.0,0.27703458,-3.0,-3.0,0.8943462,-3.0,-3.0,0.38250953,-3.0,3.0,0.16190231,-3.0,3.0,0.32138008,-3.0,-3.0,0.90920943,-3.0,-3.0,0.40660387,-3.0,3.0,0.19769233,-3.0
2025-06-06 08:55:40.644,-0.0069508785,-0.013050995,-0.042068794,-0.07499794,0.06505747,0.024007088,0.0,0.0,0.0,0.0,0.14529206,0.094436094,-0.42008102,-0.12697138,0.28946906,-0.40738398,-0.17059036,0.059184026,-0.4696275,0.16731133,0.0506977,-0.4331918,-0.0048531923,-0.041076437,0.04537093,0.008093566,-0.04607388,-0.020789819,-0.04030728,0.045555416,-0.0348112,-0.051054414,-0.021848772,-0.048347354,3.0,0.32138008,-3.0,-3.0,0.90920943,-3.0,-3.0,0.40660387,-3.0,3.0,0.19769233,-3.0,3.0,0.4346075,-3.0,-3.0,0.85451835,-3.0,-3.0,0.4916479,-3.0,3.0,0.11632237,-3.0
2025-06-06 08:55:40.664,-0.023436336,0.057307806,0.04634851,-0.08444196,0.07212604,-0.040665865,0.0,0.0,0.0,0.0,0.15115298,0.09223786,-0.41471043,-0.13199863,0.2923145,-0.4152655,-0.18461972,0.06402912,-0.46552896,0.16941297,0.04160835,-0.43661448,0.04771401,0.065119594,0.031654757,-0.03309638,0.033099834,0.032404456,0.025992706,-0.03756152,-0.06709331,0.06745925,0.057785425,-0.057444777,3.0,0.4346075,-3.0,-3.0,0.85451835,-3.0,-3.0,0.4916479,-3.0,3.0,0.11632237,-3.0,3.0,0.113268964,-3.0,-3.0,0.87783206,-3.0,-3.0,0.282766,-3.0,3.0,0.31800207,-3.0
2025-06-06 08:55:40.686,-0.0048634866,-0.009001074,-0.045351006,-0.063668124,0.0036633592,-0.01251988,0.0,0.0,0.0,0.0,0.1492918,0.08974712,-0.41401875,-0.12628475,0.28236732,-0.41252753,-0.18078311,0.079069726,-0.4695929,0.1753481,0.04306138,-0.43878436,-0.06504644,0.037104152,-0.05097155,0.0014653748,-0.026654135,0.013810792,-0.021956382,0.033651594,0.06676838,-0.041785263,-0.057676468,-0.027503025,3.0,0.113268964,-3.0,-3.0,0.87783206,-3.0,-3.0,0.282766,-3.0,3.0,0.31800207,-3.0,3.0,0.4295183,-3.0,-3.0,0.8082863,-3.0,-3.0,0.40652478,-3.0,3.0,0.037568394,-3.0
2025-06-06 08:55:40.704,0.05283643,-0.00426762,-0.0077313012,-0.036811177,0.06597504,0.017292362,0.0,0.0,0.0,0.0,0.14314002,0.08864624,-0.42729938,-0.13063684,0.2982807,-0.41349864,-0.17104892,0.06370559,-0.46209675,0.17519252,0.044240963,-0.4428803,-0.05548557,-0.042631008,-0.015819194,-0.00023474282,-0.07247315,0.04675168,0.006340934,-0.031432834,-0.04877822,0.04517396,-0.063302875,0.05001528,3.0,0.4295183,-3.0,-3.0,0.8082863,-3.0,-3.0,0.40652478,-3.0,3.0,0.037568394,-3.0,3.0,0.29663008,-3.0,-3.0,0.93905944,-3.0,-3.0,0.46467224,-3.0,3.0,0.24890622,-3.0
2025-06-06 08:55:40.724,-0.016368128,-0.0029870437,-0.01735478,-0.0303966,0.0663438,0.03143641,0.0,0.0,0.0,0.0,0.13126524,0.10167254,-0.4224604,-0.13940352,0.29645914,-0.41648474,-0.17388985,0.06321962,-0.4623478,0.17412588,0.05123428,-0.4302874,0.064179264,0.04663192,-0.02100943,0.036628462,-0.015781617,0.07103934,0.021360224,0.014014649,-0.04593573,0.05593035,-0.035693925,-0.056868717,3.0,0.29663008,-3.0,-3.0,0.93905944,-3.0,-3.0,0.46467224,-3.0,3.0,0.24890622,-3.0,3.0,0.26857442,-3.0,-3.0,0.82877195,-3.0,-3.0,0.33602062,-3.0,3.0,0.17991063,-3.0
2025-06-06 08:55:40.744,0.03380566,-0.009766436,0.0024094486,-0.09216284,0.07101719,0.0017230149,0.0,0.0,0.0,0.0,0.14886755,0.08825103,-0.4122743,-0.1272962,0.28842524,-0.41654655,-0.17207949,0.07792871,-0.46469188,0.15813534,0.046212856,-0.44453102,-0.055109642,0.046253316,0.050836425,-0.0075051775,-0.05566405,-0.048371673,0.055314615,-0.020559171,-0.05545775,0.059517525,-0.043352455,0.062129013,3.0,0.26857442,-3.0,-3.0,0.82877195,-3.0,-3.0,0.33602062,-3.0,3.0,0.17991063,-3.0,3.0,0.29848802,-3.0,-3.0,0.88643336,-3.0,-3.0,0.4960605,-3.0,3.0,0.17410356,-3.0
2025-06-06 08:55:40.765,-0.053604245,0.026761172,-0.01394805,-0.09682744,0.06096869,0.041517884,0.0,0.0,0.0,0.0,0.13090144,0.08968564,-0.42061305,-0.12095828,0.28956982,-0.41364443,-0.17591296,0.08256701,-0.47229233,0.1678447,0.047970507,-0.44625014,0.05358592,-0.018067015,0.04132434,-0.06705771,-0.061420426,-0.029973088,0.017089963,-0.023563394,0.012060509,0.0539746,0.0055380785,0.002546507,3.0,0.29848802,-3.0,-3.0,0.88643336,-3.0,-3.0,0.4960605,-3.0,3.0,0.17410356,-3.0,3.0,0.31252944,-3.0,-3.0,0.8854941,-3.0,-3.0,0.3849998,-3.0,3.0,0.15637577,-3.0
2025-06-06 08:55:40.787,0.024029972,0.048143648,-0.036675178,-0.10491324,0.002376478,0.042908482,0.0,0.0,0.0,0.0,0.13769366,0.0877959,-0.42890486,-0.12848501,0.2933414,-0.40319937,-0.17335843,0.0772595,-0.47537506,0.1750035,0.039729137,-0.44665664,0.013499145,-0.0072959918,-0.00040475882,0.022193331,-0.059093516,-0.07290568,-0.0049495464,0.0471507,0.037443113,-0.03638666,-0.011702124,0.046208438,3.0,0.31252944,-3.0,-3.0,0.8854941,-3.0,-3.0,0.3849998,-3.0,3.0,0.15637577,-3.0,3.0,0.35001528,-3.0,-3.0,0.851605,-3.0,-3.0,0.4642281,-3.0,3.0,0.06298214,-3.0
2025-06-06 08:55:40.805,-0.021690277,0.033578273,0.042362537,-0.026762389,0.08669572,-0.028146336,0.0,0.0,0.0,0.0,0.15108292,0.0952072,-0.43171844,-0.12279589,0.28797215,-0.4100071,-0.17949538,0.07466134,-0.47003686,0.17426768,0.039923113,-0.42817912,-0.02077876,0.07351513,-0.03310516,0.033396702,0.027123826,-0.025961628,0.052040655,0.033449076,0.038298823,0.051734105,-0.06586286,0.033064764,3.0,0.35001528,-3.0,-3.0,0.851605,-3.0,-3.0,0.4642281,-3.0,3.0,0.06298214,-3.0,3.0,0.09441192,-3.0,-3.0,0.8748717,-3.0,-3.0,0.28202352,-3.0,3.0,0.21598393,-3.0
2025-06-06 08:55:40.825,-0.0045664916,-0.0031130582,0.0046452223,-0.11661869,0.017730735,0.016595446,0.0,0.0,0.0,0.0,0.1324605,0.08801942,-0.4287216,-0.13806206,0.2887114,-0.41565585,-0.18942241,0.07306815,-0.47092122,0.16608909,0.03310206,-0.4244182,-0.002002139,0.012369878,-0.00093854184,-4.1567833e-05,-0.05954837,0.018425904,-0.0674152,0.042770226,0.018920664,0.015678996,0.039963283,0.0378613,3.0,0.09441192,-3.0,-3.0,0.8748717,-3.0,-3.0,0.28202352,-3.0,3.0,0.21598393,-3.0,3.0,0.32138306,-3.0,-3.0,0.8909936,-3.0,-3.0,0.347015,-3.0,3.0,0.14138654,-3.0
2025-06-06 08:55:40.845,0.019076208,-0.016153803,-0.00010169727,-0.06813172,0.0049508316,0.0019306642,0.0,0.0,0.0,0.0,0.13841088,0.09741845,-0.4117227,-0.12252626,0.29132253,-0.41418326,-0.1779813,0.07117936,-0.47388873,0.16593367,0.04072893,-0.4236111,0.027866334,0.059905924,-0.021350013,0.05893964,-0.049287416,0.060311135,-0.07341931,-0.0015851863,-0.055894032,0.0056922454,0.026040599,0.05640024,3.0,0.32138306,-3.0,-3.0,0.8909936,-3.0,-3.0,0.347015,-3.0,3.0,0.14138654,-3.0,3.0,0.2952051,-3.0,-3.0,0.8205662,-3.0,-3.0,0.4185972,-3.0,3.0,0.17536893,-3.0
2025-06-06 08:55:40.868,0.0065631177,-0.02514982,0.035186443,-0.07512326,0.038988557,-0.026860064,0.0,0.0,0.0,0.0,0.1455957,0.08831544,-0.41364852,-0.12191347,0.293264,-0.41019672,-0.17447764,0.06811717,-0.4727158,0.17284179,0.04496733,-0.4276685,-0.058074832,-0.053481903,-0.029343862,0.05529562,0.051213663,0.012617422,-0.035334926,-0.012104033,0.017043168,-0.012199838,-0.0510493,0.061381128,3.0,0.2952051,-3.0,-3.0,0.8205662,-3.0,-3.0,0.4185972,-3.0,3.0,0.17536893,-3.0,3.0,0.21372801,-3.0,-3.0,0.9236813,-2.9991393,-3.0,0.34322637,-3.0,3.0,0.24625403,-3.0
2025-06-06 08:55:40.887,-0.040616117,-0.013773222,-0.04453787,-0.047935132,0.04831238,-0.023657752,0.0,0.0,0.0,0.0,0.14530331,0.08464297,-0.42753112,-0.13919602,0.2894394,-0.40274724,-0.16985822,0.067679815,-0.46384913,0.17573678,0.045016766,-0.43765283,0.03833608,0.060713638,-0.030297168,-0.001858978,0.033491742,0.010781083,-0.040342167,0.025874333,-0.050432924,0.032156512,0.042278167,-0.019582298,3.0,0.21372801,-3.0,-3.0,0.9236813,-2.9991393,-3.0,0.34322637,-3.0,3.0,0.24625403,-3.0,3.0,0.34823984,-3.0,-3.0,0.7938907,-3.0,-3.0,0.3772831,-3.0,3.0,0.043301586,-3.0
2025-06-06 08:55:40.905,-0.008831952,-0.0064121583,-0.00470295,-0.080926366,0.056148615,0.015097634,0.0,0.0,0.0,0.0,0.13085574,0.10205602,-0.4298879,-0.13009197,0.2965868,-0.40531766,-0.18411793,0.061956514,-0.4706911,0.16332535,0.04395635,-0.4427568,0.039922923,0.0027070197,-0.056382317,-0.05624138,-0.03613582,-0.073681824,0.039641842,-0.06662172,-0.017329568,-0.07060625,0.06560384,0.044947293,3.0,0.34823984,-3.0,-3.0,0.7938907,-3.0,-3.0,0.3772831,-3.0,3.0,0.043301586,-3.0,3.0,0.26357827,-3.0,-3.0,0.92185026,-3.0,-3.0,0.38493246,-3.0,3.0,0.27034244,-3.0
2025-06-06 08:55:40.925,0.034871437,-0.04442575,-0.046492796,-0.10938817,0.058783248,0.017352803,0.0,0.0,0.0,0.0,0.13382396,0.08591026,-0.41793776,-0.12287917,0.2937479,-0.40579265,-0.18661332,0.05823318,-0.46081656,0.1632547,0.031650566,-0.43838224,-0.011326091,0.017056968,0.036719847,-0.015130401,-0.03470243,0.0016917206,0.031055333,-0.017329503,0.055048626,-0.03707356,0.061976157,-0.007557286,3.0,0.26357827,-3.0,-3.0,0.92185026,-3.0,-3.0,0.38493246,-3.0,3.0,0.27034244,-3.0,3.0,0.3695712,-3.0,-3.0,0.7972869,-3.0,-3.0,0.4032086,-3.0,3.0,0.084931314,-3.0
2025-06-06 08:55:40.945,0.024440702,-0.009527719,0.05867596,-0.11485267,0.056716017,0.009028929,0.0,0.0,0.0,0.0,0.1399988,0.08604568,-0.4173535,-0.13099812,0.29412144,-0.40062958,-0.17554127,0.058287736,-0.46131456,0.1675275,0.046317656,-0.4411769,-0.054576032,0.068169154,0.054795705,0.053759955,0.0263244,0.023562342,0.042733327,-0.0275339,-0.0062386384,-0.025006631,-0.06654691,-0.029324077,3.0,0.3695712,-3.0,-3.0,0.7972869,-3.0,-3.0,0.4032086,-3.0,3.0,0.084931314,-3.0,3.0,0.107726894,-3.0,-3.0,0.9623445,-3.0,-3.0,0.34281477,-3.0,3.0,0.39388603,-3.0
2025-06-06 08:55:40.969,-0.034190614,-0.016193729,-0.043360367,-0.09264959,0.013808507,-0.038775466,0.0,0.0,0.0,0.0,0.14207263,0.08943068,-0.4266876,-0.12919068,0.2953957,-0.4106458,-0.17533952,0.05784445,-0.459066,0.17099355,0.037706338,-0.4324464,-0.0006594852,-0.042323202,0.07466239,0.06502661,0.014408386,-0.0617374,-0.019317586,0.028710715,0.019459784,0.010953962,0.07299921,-0.00569905,3.0,0.107726894,-3.0,-3.0,0.9623445,-3.0,-3.0,0.34281477,-3.0,3.0,0.39388603,-3.0,3.0,0.41945353,-3.0,-3.0,0.807453,-3.0,-3.0,0.42926675,-3.0,3.0,-0.006459471,-3.0
2025-06-06 08:55:40.986,-0.045384217,-0.0054999995,0.058849063,-0.055737212,0.02927856,0.03895948,0.0,0.0,0.0,0.0,0.14185685,0.08534432,-0.41773292,-0.12667823,0.286014,-0.40948337,-0.18571958,0.06631589,-0.45677587,0.1763397,0.048602022,-0.44560966,0.0518648,0.015232218,-0.067443565,0.07782435,-0.06693208,-0.04094359,0.04328984,-0.00982026,-0.012336189,0.039796766,-0.03768706,-0.029834475,3.0,0.41945353,-3.0,-3.0,0.807453,-3.0,-3.0,0.42926675,-3.0,3.0,-0.006459471,-3.0,3.0,0.09434117,-3.0,-3.0,1.0412751,-3.0,-3.0,0.3146856,-3.0,3.0,0.4260952,-3.0
2025-06-06 08:55:41.005,-0.03537424,-0.08658834,-0.04585082,-0.10045972,0.07690786,0.01829613,0.0,0.0,0.0,0.0,0.13996276,0.09444039,-0.42155352,-0.14399858,0.29294562,-0.41254324,-0.17976825,0.07488292,-0.4603596,0.17086166,0.042774405,-0.44718978,0.054950394,0.014862087,0.0033494132,0.03680862,0.054585952,0.047972716,0.04786155,0.0024012157,0.025371475,0.0049235923,0.0677156,-0.03369912,3.0,0.09434117,-3.0,-3.0,1.0412751,-3.0,-3.0,0.3146856,-3.0,3.0,0.4260952,-3.0,3.0,0.35107857,-3.0,-3.0,0.7507711,-3.0,-3.0,0.30360606,-3.0,3.0,0.082457244,-3.0
2025-06-06 08:55:41.026,0.023705445,0.07369351,-0.03406661,-0.021616668,0.0018176642,0.03656405,0.0,0.0,0.0,0.0,0.13353018,0.097064234,-0.42573348,-0.14012022,0.28434566,-0.4074604,-0.1856841,0.06558563,-0.46553484,0.16386572,0.0417595,-0.4521577,0.05678492,0.026995035,-0.053903427,-0.02131495,0.040820677,-0.037996802,0.040767815,-0.081971504,0.056444425,0.0589668,-0.0067602247,-0.03492496,3.0,0.35107857,-3.0,-3.0,0.7507711,-3.0,-3.0,0.30360606,-3.0,3.0,0.082457244,-3.0,3.0,0.23345947,-3.0,-3.0,0.92059976,-3.0,-3.0,0.32756728,-3.0,3.0,0.12796748,-3.0
2025-06-06 08:55:41.046,-0.0008262252,0.00060289865,0.026676372,-0.08907972,0.10050825,0.029924555,0.0,0.0,0.0,0.0,0.14338669,0.080183715,-0.42693868,-0.1341015,0.2931235,-0.4085646,-0.17755574,0.049068358,-0.45533592,0.17121646,0.04641513,-0.43945625,-0.039287582,0.06837001,-0.057690885,-0.05235152,-0.055896938,0.049479935,-0.012992748,0.055549063,0.07024025,0.061631083,-0.014524521,0.013023935,3.0,0.23345947,-3.0,-3.0,0.92059976,-3.0,-3.0,0.32756728,-3.0,3.0,0.12796748,-3.0,3.0,0.16046715,-3.0,-3.0,0.88799304,-3.0,-3.0,0.22424927,-3.0,3.0,0.24661192,-3.0
2025-06-06 08:55:41.069,0.02123622,0.015893495,-0.067628264,-0.02332772,0.0521838,-0.028291428,0.0,0.0,0.0,0.0,0.13517876,0.09464129,-0.4130716,-0.1338791,0.28534508,-0.41817656,-0.18503682,0.061667837,-0.46186697,0.1765583,0.032753285,-0.434963,-0.074358344,0.05516273,0.076182134,0.055988222,0.010339338,-0.050984267,-0.036780156,0.026033545,0.02548046,0.055816222,0.014551233,-0.0025908963,3.0,0.16046715,-3.0,-3.0,0.88799304,-3.0,-3.0,0.22424927,-3.0,3.0,0.24661192,-3.0,3.0,0.4205112,-2.9555538,-3.0,0.7789143,-3.0,-3.0,0.46359193,-3.0,3.0,-0.054177877,-3.0
2025-06-06 08:55:41.086,-0.05139999,0.027239878,0.08031721,-0.06406183,0.09644674,-0.027301682,0.0,0.0,0.0,0.0,0.13330592,0.090721674,-0.42251116,-0.14270093,0.292147,-0.40241793,-0.17945679,0.0565888,-0.46243033,0.18549438,0.04610356,-0.44657743,-0.024238573,-0.025801567,-0.010329442,0.06634512,-0.01370787,-0.06581519,-0.07302097,-0.07023035,0.0027798985,-0.04023703,-0.0017542115,-0.034461997,3.0,0.4205112,-2.9555538,-3.0,0.7789143,-3.0,-3.0,0.46359193,-3.0,3.0,-0.054177877,-3.0,3.0,0.09645348,-3.0,-3.0,1.0756797,-3.0,-3.0,0.26830578,-3.0,3.0,0.5275594,-3.0
2025-06-06 08:55:41.106,-0.05644222,-0.09447797,-0.060459435,-0.11069105,0.038265217,0.013789474,0.0,0.0,0.0,0.0,0.13244134,0.08329743,-0.42722332,-0.13958998,0.2816736,-0.40690008,-0.17129542,0.04905606,-0.4541627,0.1717668,0.041734997,-0.4547794,0.045909487,0.036749586,-0.05779522,0.002418655,0.013914025,0.05762704,0.06611679,0.020636726,0.050540995,-0.057949238,-0.0432006,0.048068963,3.0,0.09645348,-3.0,-3.0,1.0756797,-3.0,-3.0,0.26830578,-3.0,3.0,0.5275594,-3.0,3.0,0.4426705,-3.0,-3.0,0.74701613,-3.0,-3.0,0.34766486,-3.0,3.0,0.037287775,-3.0
2025-06-06 08:55:41.126,0.002489749,-0.012394159,0.043847583,-0.031420507,0.08665705,0.022062836,0.0,0.0,0.0,0.0,0.14593853,0.0833972,-0.41562644,-0.13518114,0.29641452,-0.41091645,-0.17764115,0.056854624,-0.46133572,0.17792317,0.042021427,-0.45838344,0.040207636,0.021089805,0.01976127,-0.014504561,0.017975217,0.07102942,-0.021594672,-0.049488626,-0.0013523551,0.027833324,-0.0075910813,0.059376225,3.0,0.4426705,-3.0,-3.0,0.74701613,-3.0,-3.0,0.34766486,-3.0,3.0,0.037287775,-3.0,3.0,0.14095747,-3.0,-3.0,0.986905,-3.0,-3.0,0.3013201,-3.0,3.0,0.36109382,-3.0
2025-06-06 08:55:41.146,0.023635501,-0.06352263,-0.029785186,-0.08672312,0.033046197,-0.023623513,0.0,0.0,0.0,0.0,0.12594715,0.08325467,-0.4187458,-0.13152592,0.27900878,-0.41018185,-0.17021307,0.048235115,-0.4604325,0.17924424,0.04496558,-0.44350892,0.025155453,0.007283686,-0.061736666,0.04403502,0.02418548,0.04126845,-0.048719727,0.050191358,-0.060525816,-0.033053074,0.040400755,0.02664976,3.0,0.14095747,-3.0,-3.0,0.986905,-3.0,-3.0,0.3013201,-3.0,3.0,0.36109382,-3.0,3.0,0.3982996,-3.0,-3.0,0.8054282,-3.0,-3.0,0.36269322,-3.0,3.0,0.12541717,-3.0
2025-06-06 08:55:41.169,-0.043260165,-0.015890855,0.025577968,-0.07152652,0.037386723,0.028784156,0.0,0.0,0.0,0.0,0.13218997,0.08334708,-0.41979456,-0.13878472,0.29519978,-0.4045966,-0.17598478,0.05695761,-0.46934858,0.1677709,0.040869884,-0.4563217,-0.00830844,-0.003585834,0.03925093,0.052562896,0.0078959735,0.005668678,0.034164038,0.019768983,0.048805337,-0.04213399,-0.05742635,-0.064075656,3.0,0.3982996,-3.0,-3.0,0.8054282,-3.0,-3.0,0.36269322,-3.0,3.0,0.12541717,-3.0,3.0,0.18227392,-3.0,-3.0,0.99713147,-3.0,-3.0,0.32979828,-3.0,3.0,0.31308493,-3.0
2025-06-06 08:55:41.186,0.044873472,0.0052382443,-0.040953796,-0.09861618,0.06552073,-0.003786052,0.0,0.0,0.0,0.0,0.13164468,0.08188348,-0.42305645,-0.14269571,0.2873044,-0.41308615,-0.17632534,0.050992195,-0.4707873,0.1758791,0.050559297,-0.44984686,0.05094859,-0.07420285,-0.022114184,0.011588933,-0.06542894,-0.028122429,0.0402043,0.019799955,-0.06772165,0.071597874,0.06669396,-0.051564254,3.0,0.18227392,-3.0,-3.0,0.99713147,-3.0,-3.0,0.32979828,-3.0,3.0,0.31308493,-3.0,3.0,0.42274493,-3.0,-3.0,0.895626,-3.0,-3.0,0.39599672,-3.0,3.0,0.1745829,-3.0
2025-06-06 08:55:41.206,-0.06014474,-0.01644509,-0.01105979,-0.07507766,0.026695855,-0.03592436,0.0,0.0,0.0,0.0,0.13571827,0.083111726,-0.42037466,-0.14448944,0.282525,-0.41242388,-0.17854172,0.06649798,-0.46191713,0.17806101,0.05701931,-0.4572864,0.076562375,-0.03613418,-0.07016172,-0.05814817,0.034184344,0.016970934,0.036282506,-0.046046365,0.0031091622,0.010455498,0.03581561,0.049878944,3.0,0.42274493,-3.0,-3.0,0.895626,-3.0,-3.0,0.39599672,-3.0,3.0,0.1745829,-3.0,3.0,0.2554389,-3.0,-3.0,0.88418585,-2.9256945,-3.0,0.31747139,-3.0,3.0,0.21724117,-3.0
2025-06-06 08:55:41.226,0.03746987,0.03493719,-0.003469685,-0.11747415,0.09787039,0.049858563,0.0,0.0,0.0,0.0,0.1339128,0.08148501,-0.42547682,-0.14196345,0.2825912,-0.41114193,-0.17457396,0.06105507,-0.45651144,0.17187703,0.05471972,-0.45349115,0.014529148,0.025089746,-0.0059024617,-0.04464673,-0.04235527,-0.033203863,0.055705365,0.06830433,0.03037068,0.041114975,0.0054120556,-0.013626323,3.0,0.2554389,-3.0,-3.0,0.88418585,-2.9256945,-3.0,0.31747139,-3.0,3.0,0.21724117,-3.0,3.0,0.22412181,-3.0,-3.0,0.9268801,-3.0,-3.0,0.3374011,-3.0,3.0,0.19362786,-3.0
2025-06-06 08:55:41.246,0.029237147,0.029068625,-0.0059417356,-0.073500685,0.071963295,-0.014241027,0.0,0.0,0.0,0.0,0.13719419,0.08524679,-0.41718417,-0.13378347,0.2935303,-0.4043469,-0.17828135,0.062091988,-0.45390886,0.17282031,0.03887433,-0.45414022,-0.011165391,-0.0090521155,-0.033216245,0.033195194,0.040997554,-0.031228514,-0.00328628,0.033606272,0.035337426,-0.05328411,0.055344786,0.050797377,3.0,0.22412181,-3.0,-3.0,0.9268801,-3.0,-3.0,0.3374011,-3.0,3.0,0.19362786,-3.0,3.0,0.2629724,-3.0,-3.0,0.83013517,-3.0,-3.0,0.29389456,-3.0,3.0,0.1525051,-3.0
2025-06-06 08:55:41.269,0.03154265,-0.02944728,0.019607073,-0.024867497,0.06511809,0.033728316,0.0,0.0,0.0,0.0,0.13653463,0.081794165,-0.415634,-0.13917103,0.2986535,-0.40324482,-0.18469746,0.05697927,-0.46143568,0.17608099,0.053721447,-0.4387578,-0.02910946,-0.07331104,-0.067847714,0.029812684,-0.025162958,0.009752446,0.067119755,0.024217572,0.0073522017,0.012204759,0.018293003,-0.050690517,3.0,0.2629724,-3.0,-3.0,0.83013517,-3.0,-3.0,0.29389456,-3.0,3.0,0.1525051,-3.0,3.0,0.19574872,-3.0,-3.0,1.0373864,-3.0,-3.0,0.27364224,-3.0,3.0,0.34595537,-3.0
2025-06-06 08:55:41.288,-0.04313549,0.020767514,-0.026232406,-0.03677499,0.08861843,-0.03174167,0.0,0.0,0.0,0.0,0.1357434,0.095663056,-0.41433534,-0.13645737,0.29932374,-0.40389803,-0.1859664,0.051322825,-0.46330088,0.17131776,0.05230336,-0.44487655,0.02109256,0.0069999215,0.048729062,-0.03213675,0.004375183,-0.023766886,0.04629559,0.0623981,0.01169068,-0.038185064,-0.051064216,-0.034540847,3.0,0.19574872,-3.0,-3.0,1.0373864,-3.0,-3.0,0.27364224,-3.0,3.0,0.34595537,-3.0,3.0,0.38265067,-3.0,-3.0,0.80399,-3.0,-3.0,0.36567214,-3.0,3.0,0.09035796,-3.0
2025-06-06 08:55:41.310,0.03123626,0.030888872,0.009751601,-0.0996587,0.039928973,-0.002597906,0.0,0.0,0.0,0.0,0.13833237,0.09460499,-0.41179657,-0.13481595,0.28773165,-0.40072876,-0.17890349,0.050328985,-0.45911705,0.17851001,0.054977342,-0.43727666,0.03934152,0.054333586,-0.016594192,-0.031032713,0.03717952,-0.023821857,0.05551521,0.0069790836,-0.06913511,-0.06660363,-0.013870874,0.06354151,3.0,0.38265067,-3.0,-3.0,0.80399,-3.0,-3.0,0.36567214,-3.0,3.0,0.09035796,-3.0,3.0,0.22473699,-3.0,-3.0,0.8748278,-2.9820662,-3.0,0.4056489,-3.0,3.0,0.25721237,-3.0
2025-06-06 08:55:41.329,0.0019997607,0.037620693,0.023209758,-0.053911734,0.039344635,0.043477904,0.0,0.0,0.0,0.0,0.12818752,0.088763766,-0.42649958,-0.13403647,0.29859272,-0.40725335,-0.16851288,0.05868127,-0.45535022,0.16994444,0.048797257,-0.43823966,0.061407343,-0.014344873,0.021683069,-0.03820644,0.03322495,-0.055127792,0.0052779443,-0.060779504,-0.033820037,0.012971633,0.035318952,0.047601636,3.0,0.22473699,-3.0,-3.0,0.8748278,-2.9820662,-3.0,0.4056489,-3.0,3.0,0.25721237,-3.0,3.0,0.19255823,-3.0,-3.0,0.9526796,-2.9639752,-3.0,0.30212325,-3.0,3.0,0.23130131,-3.0
2025-06-06 08:55:41.352,-0.03253208,-0.02717129,0.020151349,-0.029983714,0.04161143,0.0028694582,0.0,0.0,0.0,0.0,0.13515225,0.096566446,-0.41585633,-0.14320324,0.2952835,-0.40058362,-0.17867401,0.06744332,-0.46604967,0.17561589,0.057405632,-0.45550996,-0.059292722,0.010631404,0.07015557,0.030082699,0.06666951,0.04562534,0.05595306,-0.01847106,0.026934087,-0.0005193768,-0.06899057,-0.044396084,3.0,0.19255823,-3.0,-3.0,0.9526796,-2.9639752,-3.0,0.30212325,-3.0,3.0,0.23130131,-3.0,3.0,0.19110283,-3.0,-3.0,0.9089218,-3.0,-3.0,0.29983184,-3.0,3.0,0.25383303,-3.0
2025-06-06 08:55:41.369,0.0227749,0.023154758,0.0104398895,-0.11270271,0.006455117,-0.041533925,0.0,0.0,0.0,0.0,0.1393106,0.09408212,-0.42205128,-0.14234874,0.29623356,-0.41815498,-0.18155491,0.059471164,-0.45896065,0.1788565,0.04277239,-0.447901,0.00014341358,-0.018034661,-0.06634708,0.019041179,-0.020325359,0.05365836,0.06631987,-0.051520847,0.052133784,-0.04080546,-0.049499318,-0.04359148,3.0,0.19110283,-3.0,-3.0,0.9089218,-3.0,-3.0,0.29983184,-3.0,3.0,0.25383303,-3.0,3.0,0.2985391,-3.0,-3.0,0.90355116,-3.0,-3.0,0.27811307,-3.0,3.0,0.3103899,-3.0
2025-06-06 08:55:41.389,-0.0094865095,-0.041479155,-0.06238259,-0.029025463,0.0475575,-0.048678145,0.0,0.0,0.0,0.0,0.12796286,0.0880032,-0.4233405,-0.14479004,0.2880612,-0.41612202,-0.17357428,0.054812536,-0.4624445,0.17294498,0.05479598,-0.45184544,-0.06929547,-0.051759366,-0.020514484,-0.04425412,-0.015219208,-0.0130449245,0.022888865,0.026201755,0.01875599,-0.057922874,0.0026607946,-0.024692412,3.0,0.2985391,-3.0,-3.0,0.90355116,-3.0,-3.0,0.27811307,-3.0,3.0,0.3103899,-3.0,3.0,0.44631904,-3.0,-3.0,0.86313796,-3.0,-3.0,0.42782223,-3.0,3.0,0.089711726,-3.0
2025-06-06 08:55:41.410,-0.0059572547,0.015931768,0.051224016,-0.07001802,0.011051336,0.027503422,0.0,0.0,0.0,0.0,0.12578595,0.088170744,-0.42921287,-0.14404179,0.30401865,-0.405228,-0.18081237,0.062533565,-0.4563776,0.18388513,0.050741795,-0.45435157,-0.05206662,-0.026105454,0.030185936,-0.042803627,-0.060147613,0.016818438,-0.0501729,0.015864005,0.03838156,-0.012968983,0.0354994,0.062160805,3.0,0.44631904,-3.0,-3.0,0.86313796,-3.0,-3.0,0.42782223,-3.0,3.0,0.089711726,-3.0,3.0,0.080033414,-3.0,-3.0,0.9730898,-2.9724977,-3.0,0.3291258,-3.0,3.0,0.32423913,-3.0
2025-06-06 08:55:41.430,0.00068536296,-0.020204948,-0.0069448436,-0.065832786,0.061714265,-0.036264,0.0,0.0,0.0,0.0,0.14229992,0.09856223,-0.42831957,-0.1468769,0.29684445,-0.41375056,-0.16890188,0.06995931,-0.45744732,0.18869673,0.049262702,-0.4539328,-0.06396205,0.0070389835,0.018849753,-0.07634667,-0.020211082,0.022051023,0.0366601,0.07389336,-0.01325121,-0.062103763,-0.068524376,-0.055221017,3.0,0.080033414,-3.0,-3.0,0.9730898,-2.9724977,-3.0,0.3291258,-3.0,3.0,0.32423913,-3.0,3.0,0.36523134,-3.0,-3.0,0.84418344,-3.0,-3.0,0.3695587,-3.0,3.0,0.1757125,-3.0
2025-06-06 08:55:41.452,0.036570884,-0.0036962437,0.048448868,-0.07971096,0.0911107,-0.0034742139,0.0,0.0,0.0,0.0,0.13056774,0.08469117,-0.41196844,-0.14272507,0.2952093,-0.40675023,-0.17510493,0.06472313,-0.4526915,0.17396346,0.059616983,-0.4375695,-0.004702073,-0.034884274,0.06769247,0.054405738,-0.0035492615,0.0301902,0.0017155161,0.07723922,-0.032199357,-0.029367635,-0.047675706,-0.009527261,3.0,0.36523134,-3.0,-3.0,0.84418344,-3.0,-3.0,0.3695587,-3.0,3.0,0.1757125,-3.0,3.0,0.1871287,-3.0,-3.0,0.97974396,-2.927452,-3.0,0.36802834,-3.0,3.0,0.3487431,-3.0
2025-06-06 08:55:41.469,-0.04113339,0.0031010057,-0.022180568,-0.10117968,0.0718588,0.006622756,0.0,0.0,0.0,0.0,0.13452499,0.10240171,-0.42672986,-0.1337492,0.30252424,-0.39922747,-0.17425656,0.06652367,-0.45789492,0.16892605,0.05389669,-0.44938195,0.016798936,0.033172987,0.0805311,-0.05411956,-0.04771233,-0.070511706,0.0406678,0.046362583,-0.06432139,0.017740233,0.021742389,0.01987276,3.0,0.1871287,-3.0,-3.0,0.97974396,-2.927452,-3.0,0.36802834,-3.0,3.0,0.3487431,-3.0,3.0,0.3227703,-3.0,-3.0,0.81652904,-3.0,-3.0,0.4830951,-3.0,3.0,0.061907504,-3.0
2025-06-06 08:55:41.490,0.020892847,0.026340028,-0.011587822,-0.09385385,0.068014115,0.01920243,0.0,0.0,0.0,0.0,0.12613311,0.10223622,-0.42312714,-0.12987569,0.30070946,-0.41205257,-0.16500929,0.07303424,-0.46378085,0.18165979,0.044776563,-0.44618917,0.0780429,-0.05164528,-0.03171291,0.009964075,-0.030753354,0.029593803,-0.040654577,-0.015756851,0.038058303,-0.0017370379,0.029158434,0.077230036,3.0,0.3227703,-3.0,-3.0,0.81652904,-3.0,-3.0,0.4830951,-3.0,3.0,0.061907504,-3.0,3.0,0.29573876,-3.0,-3.0,0.8824937,-3.0,-3.0,0.32794186,-3.0,3.0,0.22466308,-3.0
2025-06-06 08:55:41.510,0.03367502,0.0061274865,0.031780485,-0.033925436,0.09634224,-0.049902406,0.0,0.0,0.0,0.0,0.13962609,0.10687626,-0.4257797,-0.14342748,0.3009277,-0.39843097,-0.16885523,0.062617466,-0.45788762,0.18010034,0.049516667,-0.45262927,0.04902334,-0.03873278,-0.0152736055,-0.045859843,-0.03736225,0.03919989,-0.07178071,-0.03142812,0.03842103,0.02196678,-0.05223212,-0.058860485,3.0,0.29573876,-3.0,-3.0,0.8824937,-3.0,-3.0,0.32794186,-3.0,3.0,0.22466308,-3.0,3.0,0.2387873,-3.0,-3.0,0.95192665,-3.0,-3.0,0.28668702,-3.0,3.0,0.29995906,-3.0
2025-06-06 08:55:41.529,-0.0106261205,-0.036866542,0.013704739,-0.050084386,0.000318212,-0.04642764,0.0,0.0,0.0,0.0,0.1280262,0.09008731,-0.41215283,-0.1422853,0.2919644,-0.41200018,-0.18744753,0.06510348,-0.4654794,0.18181388,0.047562268,-0.44325915,0.030576319,0.026056688,0.057091784,0.056914892,0.012403899,0.032889485,0.029982967,0.0051538534,0.048148703,0.008930601,-0.017649718,-0.03629544,3.0,0.2387873,-3.0,-3.0,0.95192665,-3.0,-3.0,0.28668702,-3.0,3.0,0.29995906,-3.0,3.0,0.24750254,-3.0,-3.0,0.88028634,-3.0,-3.0,0.31239253,-3.0,3.0,0.2054052,-3.0
2025-06-06 08:55:41.553,0.036278803,-0.0008177067,-0.006405944,-0.11449827,0.064994015,-0.0200621,0.0,0.0,0.0,0.0,0.14000873,0.101863585,-0.4092132,-0.13959095,0.29699525,-0.40028805,-0.17288756,0.0669825,-0.45394644,0.18067135,0.055770557,-0.45003858,0.05791611,0.016120913,-0.024530869,-0.031981245,-0.07227334,0.0030902675,-0.039697737,-0.00064236694,-0.067345254,0.034949627,0.036877494,0.06056095,3.0,0.24750254,-3.0,-3.0,0.88028634,-3.0,-3.0,0.31239253,-3.0,3.0,0.2054052,-3.0,3.0,0.32584524,-3.0,-3.0,0.8475044,-3.0,-3.0,0.43080717,-3.0,3.0,0.20187795,-3.0
2025-06-06 08:55:41.569,-0.033486005,-0.0027924506,0.0541268,-0.11054389,0.09411946,0.021497639,0.0,0.0,0.0,0.0,0.13133138,0.09023545,-0.42442495,-0.13625415,0.29606977,-0.40993866,-0.1772082,0.05674847,-0.45001638,0.17894286,0.042812906,-0.43665192,-0.00033998102,0.044777285,0.040268064,0.032847084,-0.025770588,-0.05972769,-0.06099638,0.025960123,-0.0040621054,-0.06490101,0.034035176,0.058309834,3.0,0.32584524,-3.0,-3.0,0.8475044,-3.0,-3.0,0.43080717,-3.0,3.0,0.20187795,-3.0,3.0,0.1302014,-3.0,-3.0,0.92776394,-3.0,-3.0,0.32852677,-3.0,3.0,0.3069215,-3.0
2025-06-06 08:55:41.589,0.012543367,-0.06345442,0.028540364,-0.117428266,0.061627083,-0.032556646,0.0,0.0,0.0,0.0,0.13194773,0.103582285,-0.42626932,-0.12986232,0.30479044,-0.402282,-0.18426268,0.069921225,-0.46783972,0.17818274,0.048164587,-0.437308,-0.022558825,0.021574287,-0.037926216,-0.030995367,0.021032391,0.041869953,0.054712627,0.017119277,0.06623053,-0.040289607,0.013329809,-0.006874288,3.0,0.1302014,-3.0,-3.0,0.92776394,-3.0,-3.0,0.32852677,-3.0,3.0,0.3069215,-3.0,3.0,0.18657407,-3.0,-3.0,0.8535603,-3.0,-3.0,0.23819688,-3.0,3.0,0.24999678,-3.0
2025-06-06 08:55:41.609,-0.002822849,-0.048331115,-0.026627908,-0.096468344,0.09049878,0.01933662,0.0,0.0,0.0,0.0,0.14182676,0.10099678,-0.4266305,-0.13078442,0.30426028,-0.3998823,-0.1858596,0.059161954,-0.45732918,0.16814104,0.044535123,-0.44349858,0.021626987,0.045061756,-0.052805714,-0.07563651,0.014265136,-0.033718407,-0.013791314,0.05651244,-0.06511521,-0.04181281,0.042466894,-0.050376087,3.0,0.18657407,-3.0,-3.0,0.8535603,-3.0,-3.0,0.23819688,-3.0,3.0,0.24999678,-3.0,3.0,0.32403904,-2.9985735,-3.0,0.83483523,-3.0,-3.0,0.40433353,-3.0,3.0,0.12935868,-3.0
2025-06-06 08:55:41.630,-0.0034543425,0.046569318,0.040479384,-0.10724767,0.03468393,0.008487049,0.0,0.0,0.0,0.0,0.12537682,0.09426565,-0.41732466,-0.14955877,0.3003076,-0.4131578,-0.16720524,0.06661632,-0.45879617,0.18827756,0.044550553,-0.449336,-0.04237921,0.049768694,-0.047480553,0.037100438,0.0027702467,0.037238363,-0.046951503,-0.036163546,-0.034311343,-0.03303479,-0.041422024,-0.0436158,3.0,0.32403904,-2.9985735,-3.0,0.83483523,-3.0,-3.0,0.40433353,-3.0,3.0,0.12935868,-3.0,3.0,0.15991628,-3.0,-3.0,0.92812276,-3.0,-3.0,0.2851018,-3.0,3.0,0.39437926,-3.0
2025-06-06 08:55:41.653,-0.04813035,0.017059011,0.02109307,-0.04989148,0.10090009,-0.046513014,0.0,0.0,0.0,0.0,0.126813,0.09059667,-0.4161363,-0.14251415,0.29422525,-0.39957413,-0.17330538,0.055356573,-0.46490774,0.16973302,0.04733745,-0.4442497,-0.0023697296,-0.0034160113,-0.058099687,0.027147112,0.059344642,0.05964287,-0.011625722,-0.025278585,-0.026997924,-0.061778873,0.0045782947,-0.046616994,3.0,0.15991628,-3.0,-3.0,0.92812276,-3.0,-3.0,0.2851018,-3.0,3.0,0.39437926,-3.0,3.0,0.2661177,-3.0,-3.0,0.9008064,-3.0,-3.0,0.2010535,-3.0,3.0,0.29563677,-3.0
2025-06-06 08:55:41.670,-0.0024345545,-0.04855606,-0.043103576,-0.095348775,0.002855262,-0.029532555,0.0,0.0,0.0,0.0,0.12293547,0.09644086,-0.41975328,-0.13605654,0.29640076,-0.40445438,-0.18067314,0.061436974,-0.44896218,0.18574953,0.060152553,-0.4465746,-0.027102018,0.070787676,-0.00206855,0.056497965,0.020182101,0.05653037,0.01682731,-0.048440944,-0.06547036,0.044384632,0.07128982,0.06113107,3.0,0.2661177,-3.0,-3.0,0.9008064,-3.0,-3.0,0.2010535,-3.0,3.0,0.29563677,-3.0,3.0,0.3070558,-3.0,-3.0,0.78476316,-3.0,-3.0,0.45054018,-3.0,3.0,0.11714879,-3.0
2025-06-06 08:55:41.690,0.022567676,0.015463231,0.046987027,-0.07245432,0.10107103,-0.02132639,0.0,0.0,0.0,0.0,0.1361696,0.08722614,-0.4120751,-0.14842248,0.2869429,-0.40559548,-0.17177899,0.058430396,-0.4598059,0.17687975,0.06111122,-0.4419053,0.0019350133,-0.028926367,-0.06177285,-0.05521645,-0.007874519,0.051052835,-0.011946092,-0.068692446,-0.055100482,0.076799035,0.007090235,-0.04633656,3.0,0.3070558,-3.0,-3.0,0.78476316,-3.0,-3.0,0.45054018,-3.0,3.0,0.11714879,-3.0,3.0,0.16003361,-3.0,-3.0,1.0180327,-3.0,-3.0,0.25126943,-3.0,3.0,0.43081304,-3.0
2025-06-06 08:55:41.710,0.03613312,-0.060526937,-0.029323712,-0.025110522,0.096760556,0.017925669,0.0,0.0,0.0,0.0,0.124140635,0.09814368,-0.41552067,-0.15227431,0.2867267,-0.4095947,-0.1723765,0.05446003,-0.46120146,0.17657964,0.05891168,-0.44953153,-0.074465334,-0.05427588,0.0072237453,0.010046009,-0.007116878,0.047882177,0.020197265,0.04138837,0.022754427,0.039915662,-0.02135739,-0.022616811,3.0,0.16003361,-3.0,-3.0,1.0180327,-3.0,-3.0,0.25126943,-3.0,3.0,0.43081304,-3.0,3.0,0.32643324,-3.0,-3.0,0.8602079,-3.0,-3.0,0.3402786,-3.0,3.0,0.13368541,-3.0
2025-06-06 08:55:41.730,-0.007861475,0.055707786,-0.014264854,-0.08253391,0.016170386,-0.03591485,0.0,0.0,0.0,0.0,0.14064875,0.094291545,-0.41734895,-0.13900912,0.29020962,-0.39965728,-0.16938797,0.04571607,-0.46279776,0.19195715,0.055093214,-0.44151664,-0.02884471,0.0010867756,0.0297535,-0.032405186,-0.067086555,0.032328095,-0.045771997,0.037440803,-0.06626852,0.013030507,0.023840878,-0.013178068,3.0,0.32643324,-3.0,-3.0,0.8602079,-3.0,-3.0,0.3402786,-3.0,3.0,0.13368541,-3.0,3.0,0.3393949,-3.0,-3.0,0.8831898,-3.0,-3.0,0.43712896,-3.0,3.0,0.20192131,-3.0
2025-06-06 08:55:41.754,0.008634548,0.0045416653,0.041921522,-0.08229345,0.08802003,-0.032491945,0.0,0.0,0.0,0.0,0.14184807,0.09190164,-0.41514134,-0.13944495,0.29046378,-0.40234825,-0.1656758,0.06533269,-0.45610645,0.19230087,0.056057002,-0.44662452,0.0013560902,0.015862714,-0.06029939,0.028335128,-0.07590661,0.049150474,0.058931712,0.050345086,0.039768852,-0.047517072,0.0079645775,-0.05883578,3.0,0.3393949,-3.0,-3.0,0.8831898,-3.0,-3.0,0.43712896,-3.0,3.0,0.20192131,-3.0,3.0,0.15625831,-3.0,-3.0,0.9369544,-3.0,-3.0,0.23106301,-3.0,3.0,0.40080863,-3.0
2025-06-06 08:55:41.771,0.03190941,-0.07127745,0.024357276,-0.023616398,0.035441123,-0.032187656,0.0,0.0,0.0,0.0,0.14078444,0.09068107,-0.4229605,-0.15073465,0.29512838,-0.4123931,-0.16831852,0.04920355,-0.455208,0.18411572,0.06546402,-0.4608713,-0.06133536,0.055028144,-0.0028583324,0.041032095,0.021748649,0.036851477,-0.012366531,-0.055524398,0.010594804,-0.045713164,-0.052679006,0.063602015,3.0,0.15625831,-3.0,-3.0,0.9369544,-3.0,-3.0,0.23106301,-3.0,3.0,0.40080863,-3.0,3.0,0.23889136,-3.0,-3.0,0.8983989,-2.9936972,-3.0,0.33276656,-3.0,3.0,0.26023734,-3.0
2025-06-06 08:55:41.791,0.0445911,-0.011521627,0.021882065,-0.020731026,0.06923898,-0.0053421697,0.0,0.0,0.0,0.0,0.122370064,0.08501014,-0.42408827,-0.1422539,0.29670864,-0.41400743,-0.16532655,0.0630165,-0.46715692,0.17882085,0.06649169,-0.46084374,-0.0471776,-0.056354966,-0.057069615,-0.029817907,-0.060292013,0.01909616,-0.05697147,-0.054082755,-0.058330394,-0.03582171,-0.04071586,-0.007155609,3.0,0.23889136,-3.0,-3.0,0.8983989,-2.9936972,-3.0,0.33276656,-3.0,3.0,0.26023734,-3.0,3.0,0.31359878,-3.0,-3.0,1.0028028,-3.0,-3.0,0.3521121,-3.0,3.0,0.3654098,-3.0
2025-06-06 08:55:41.811,-0.056101967,-0.0040752823,0.0076282625,-0.026615527,0.031918246,0.021934973,0.0,0.0,0.0,0.0,0.12377545,0.101848975,-0.41721824,-0.13324177,0.2984626,-0.40931606,-0.17875332,0.05726093,-0.4692467,0.1887283,0.05373236,-0.45345768,0.04358389,0.053213168,-0.008981387,0.04245614,0.052449964,-0.03733022,0.00015718785,-0.06493329,-0.07466239,0.02451659,0.05161086,-0.01788244,3.0,0.31359878,-3.0,-3.0,1.0028028,-3.0,-3.0,0.3521121,-3.0,3.0,0.3654098,-3.0,3.0,0.16804495,-3.0,-3.0,0.8479891,-3.0,-3.0,0.31183308,-3.0,3.0,0.22812468,-3.0
2025-06-06 08:55:41.831,-0.02554202,0.028324772,0.030723188,-0.02607945,0.05920143,-0.025059761,0.0,0.0,0.0,0.0,0.13234697,0.094665095,-0.42660493,-0.14876644,0.30235785,-0.40760705,-0.18009248,0.04950636,-0.46026787,0.18398982,0.05691945,-0.45864064,-0.027932199,0.01967814,0.063509785,-0.03470365,0.053836647,-0.03953541,-0.05832088,0.06450351,0.054698482,0.031896815,-0.049016368,-0.015788365,3.0,0.16804495,-3.0,-3.0,0.8479891,-3.0,-3.0,0.31183308,-3.0,3.0,0.22812468,-3.0,3.0,0.18525752,-3.0,-3.0,0.93845654,-3.0,-3.0,0.28450924,-3.0,3.0,0.17777932,-3.0
2025-06-06 08:55:41.853,0.032389913,-0.03493119,-0.025527788,-0.06842126,0.018941555,0.033126455,0.0,0.0,0.0,0.0,0.12626868,0.0814225,-0.42659596,-0.1336022,0.30544248,-0.40960944,-0.16774613,0.048378732,-0.46079025,0.17486902,0.05342312,-0.4490404,-0.03805857,-0.0011961445,-0.031905062,-0.041407615,-0.038481314,0.06402071,0.016624106,0.025244445,-0.0027220924,0.012089852,-0.006314709,0.047311906,3.0,0.18525752,-3.0,-3.0,0.93845654,-3.0,-3.0,0.28450924,-3.0,3.0,0.17777932,-3.0,3.0,0.33180374,-3.0,-3.0,0.8727529,-3.0,-3.0,0.36174268,-3.0,3.0,0.1745305,-3.0
2025-06-06 08:55:41.871,-0.050045636,-0.010289752,0.056664623,-0.022392325,0.013788505,-0.026107505,0.0,0.0,0.0,0.0,0.139184,0.0878593,-0.4283312,-0.14633726,0.3035681,-0.4073337,-0.17451093,0.044811156,-0.45056373,0.18291093,0.046152737,-0.44992188,-0.018969102,0.058096718,0.018051956,-0.052406613,-0.044521283,0.03681537,-0.0011346221,0.040643528,-0.053575803,0.051764954,-0.032405604,0.079595484,3.0,0.33180374,-3.0,-3.0,0.8727529,-3.0,-3.0,0.36174268,-3.0,3.0,0.1745305,-3.0,3.0,0.11425873,-3.0,-3.0,0.9517837,-3.0,-3.0,0.3427034,-3.0,3.0,0.2861446,-3.0
2025-06-06 08:55:41.953,-0.019395612,0.015966943,-0.023256814,-0.09182464,0.018913796,-0.0037552628,0.0,0.0,0.0,0.0,0.13508348,0.08227247,-0.4105892,-0.14954154,0.3029251,-0.4121026,-0.18043178,0.05785064,-0.46605992,0.17166261,0.05268198,-0.44724604,-0.046407256,-0.028730804,0.07745479,-0.057126295,0.0047056996,0.009093772,0.017977608,-0.036926236,0.02054155,0.07038764,0.06699328,-0.01813264,3.0,0.11425873,-3.0,-3.0,0.9517837,-3.0,-3.0,0.3427034,-3.0,3.0,0.2861446,-3.0,3.0,0.32892182,-3.0,-3.0,0.8649409,-3.0,-3.0,0.3277943,-3.0,3.0,0.12722272,-3.0
2025-06-06 08:55:41.974,0.015469778,-0.007664199,0.002090103,-0.05001687,0.0528476,0.039521627,0.0,0.0,0.0,0.0,0.12641805,0.08337246,-0.42038658,-0.14177682,0.2948863,-0.41371137,-0.18487333,0.05587283,-0.44702402,0.18198262,0.040542886,-0.45154327,0.07767622,-0.06544951,-0.06592687,0.058156792,-0.052058615,0.014002999,0.014013276,0.03553486,-0.014753857,-0.07495237,-0.008365759,0.07393127,3.0,0.32892182,-3.0,-3.0,0.8649409,-3.0,-3.0,0.3277943,-3.0,3.0,0.12722272,-3.0,3.0,0.30867997,-3.0,-3.0,0.9578067,-3.0,-3.0,0.3448233,-3.0,3.0,0.2928408,-3.0
2025-06-06 08:55:41.997,-0.0038897267,0.018024081,0.016249113,-0.102332786,0.036204748,0.04247345,0.0,0.0,0.0,0.0,0.12708642,0.081326365,-0.42964676,-0.1360581,0.28852916,-0.40262142,-0.16839817,0.05524887,-0.4486623,0.18553166,0.051831122,-0.44558358,0.049764782,0.029534353,0.068096295,0.07066545,0.048952196,0.005985756,-0.0006945892,0.06081824,-0.06585874,0.014970803,0.04322019,-0.044932287,3.0,0.30867997,-3.0,-3.0,0.9578067,-3.0,-3.0,0.3448233,-3.0,3.0,0.2928408,-3.0,3.0,0.17055091,-3.0,-3.0,0.8951869,-3.0,-3.0,0.33221054,-3.0,3.0,0.23133552,-3.0
2025-06-06 08:55:42.020,-0.009761254,0.04136847,0.024585186,-0.10856221,0.09251857,-0.027393756,0.0,0.0,0.0,0.0,0.1290486,0.09385749,-0.4233637,-0.14547417,0.2855946,-0.41265714,-0.16943711,0.06539982,-0.45846906,0.18121326,0.05907714,-0.45465723,-0.020844642,-0.045698937,0.016301809,0.05955693,-0.043992236,0.04414346,-0.008833923,0.05954969,-0.0030011039,-0.019685453,-0.0534421,-0.070811205,3.0,0.17055091,-3.0,-3.0,0.8951869,-3.0,-3.0,0.33221054,-3.0,3.0,0.23133552,-3.0,3.0,0.3100149,-3.0,-3.0,0.96222776,-3.0,-3.0,0.31010923,-3.0,3.0,0.3404408,-3.0
2025-06-06 08:55:42.037,-0.031453453,-0.018746784,0.020367475,-0.05859569,0.027634894,-0.00863018,0.0,0.0,0.0,0.0,0.13898246,0.085351266,-0.41329768,-0.13694511,0.29002944,-0.41787115,-0.176236,0.05893792,-0.45523605,0.1706513,0.042577017,-0.44729376,0.04449875,0.07002986,-0.043778468,0.0015233529,-0.017907273,-0.06485457,0.042343356,0.022160504,0.03293458,-0.023095379,-0.014154791,-0.019592779,3.0,0.3100149,-3.0,-3.0,0.96222776,-3.0,-3.0,0.31010923,-3.0,3.0,0.3404408,-3.0,3.0,0.18819195,-3.0,-3.0,0.87234426,-3.0,-3.0,0.30156574,-3.0,3.0,0.20177555,-3.0
2025-06-06 08:55:42.057,-0.0056507294,-0.00953962,-0.02966848,-0.022855949,0.07373592,-0.018755432,0.0,0.0,0.0,0.0,0.12586872,0.09086013,-0.41496375,-0.14280473,0.29371625,-0.41383284,-0.17797783,0.05108822,-0.459216,0.18164393,0.062438793,-0.4442585,0.064228125,-0.021886356,0.041109256,0.026037062,-0.042134106,-0.028162401,-0.009718987,0.0089622205,-0.032357596,-0.07032391,-0.034706995,-0.03170045,3.0,0.18819195,-3.0,-3.0,0.87234426,-3.0,-3.0,0.30156574,-3.0,3.0,0.20177555,-3.0,3.0,0.46418357,-3.0,-3.0,0.92736757,-3.0,-3.0,0.40877485,-3.0,3.0,0.22154242,-3.0
2025-06-06 08:55:42.077,-0.06269154,-0.01815641,0.025149908,-0.11375562,0.056244556,0.024409682,0.0,0.0,0.0,0.0,0.12590528,0.09506081,-0.42571852,-0.14052424,0.29321986,-0.4152633,-0.17098776,0.06642622,-0.45913947,0.18021794,0.043864567,-0.4507227,0.035592835,0.013601116,-0.038974553,0.015312887,0.01207959,0.057717547,0.045675337,-0.027835848,-0.06280153,0.073437296,-0.01851471,0.008068828,3.0,0.46418357,-3.0,-3.0,0.92736757,-3.0,-3.0,0.40877485,-3.0,3.0,0.22154242,-3.0,3.0,0.118372895,-3.0,-3.0,0.8993308,-2.9951773,-3.0,0.3251121,-3.0,3.0,0.3184985,-3.0
2025-06-06 08:55:42.097,0.021268565,-0.056048535,0.031004494,-0.060846776,0.09213046,-0.044796918,0.0,0.0,0.0,0.0,0.13459586,0.08792597,-0.410439,-0.13377316,0.30131283,-0.40176028,-0.1661754,0.06271997,-0.4518622,0.17864425,0.047625683,-0.45366964,-0.03902075,-0.008045426,-0.035738867,0.034386404,0.040480834,0.04560949,-0.012539808,0.045519527,-0.06320143,0.014214742,0.065362565,-0.00037104468,3.0,0.118372895,-3.0,-3.0,0.8993308,-2.9951773,-3.0,0.3251121,-3.0,3.0,0.3184985,-3.0,3.0,0.20780185,-3.0,-3.0,0.9002385,-3.0,-3.0,0.25779745,-3.0,3.0,0.27578497,-3.0
2025-06-06 08:55:42.119,0.046323054,0.036131095,-0.008358524,-0.0273896,0.080593966,-0.038387563,0.0,0.0,0.0,0.0,0.12940215,0.089802146,-0.41367698,-0.14414261,0.28857455,-0.41248953,-0.18506454,0.068003125,-0.45146754,0.18145168,0.052280415,-0.4564615,0.054158315,0.008012434,0.050059713,0.025750807,0.02541004,-0.04887608,0.039994646,0.050453886,-0.024730729,-0.05846609,-0.041467372,-0.0154937245,3.0,0.20780185,-3.0,-3.0,0.9002385,-3.0,-3.0,0.25779745,-3.0,3.0,0.27578497,-3.0,3.0,0.35901743,-3.0,-3.0,0.88212895,-3.0,-3.0,0.38188675,-3.0,3.0,0.17292005,-3.0
2025-06-06 08:55:42.137,0.014380137,-0.028427567,0.026211463,-0.11763244,0.08946725,-0.04901693,0.0,0.0,0.0,0.0,0.13159077,0.10045958,-0.42873442,-0.13937968,0.2866485,-0.41419178,-0.18190375,0.05415761,-0.45094913,0.18921262,0.058996003,-0.45539314,-0.06498197,0.002200053,0.0016816212,-0.04067685,0.004982127,-0.030463664,0.051302575,-0.0154294865,-0.043494184,0.02895982,-0.053181954,0.014693226,3.0,0.35901743,-3.0,-3.0,0.88212895,-3.0,-3.0,0.38188675,-3.0,3.0,0.17292005,-3.0,3.0,0.19152051,-3.0,-3.0,0.9058361,-3.0,-3.0,0.41951331,-3.0,3.0,0.31360587,-3.0
2025-06-06 08:55:42.157,-0.02194206,-0.056901112,-0.0016087458,-0.057914406,0.04354239,-0.014586042,0.0,0.0,0.0,0.0,0.12840077,0.08386095,-0.42459732,-0.14116608,0.2963758,-0.41280454,-0.16873585,0.06375815,-0.4539845,0.17798588,0.05467239,-0.45819417,0.005723403,-0.02042735,-0.022824563,0.03549858,0.01481917,0.038223572,0.023174845,-0.0377452,0.03998985,0.07301466,-0.017285846,-0.02877421,3.0,0.19152051,-3.0,-3.0,0.9058361,-3.0,-3.0,0.41951331,-3.0,3.0,0.31360587,-3.0,3.0,0.24195188,-3.0,-3.0,0.91780466,-3.0,-3.0,0.28049827,-3.0,3.0,0.20842022,-3.0
2025-06-06 08:55:42.178,0.040348757,0.049646914,-0.022783512,-0.07105033,0.08526326,0.025380256,0.0,0.0,0.0,0.0,0.13671428,0.08845624,-0.42365718,-0.15008442,0.30181232,-0.40372244,-0.16728413,0.054299545,-0.4492037,0.17651035,0.06293829,-0.45371512,0.01543503,-0.05928595,-0.0097579425,0.07304648,0.045512248,-0.05132098,-0.015492967,0.036847267,0.071313016,0.034294855,-0.06731544,-0.025475727,3.0,0.24195188,-3.0,-3.0,0.91780466,-3.0,-3.0,0.28049827,-3.0,3.0,0.20842022,-3.0,3.0,0.2804825,-3.0,-3.0,0.9059972,-3.0,-3.0,0.33215207,-3.0,3.0,0.14418387,-3.0
2025-06-06 08:55:42.197,0.009456183,0.0019927747,0.008869266,-0.0950789,0.08619123,0.042378318,0.0,0.0,0.0,0.0,0.14031737,0.090391226,-0.41468644,-0.13163166,0.29963142,-0.40510595,-0.18307959,0.062330663,-0.46394658,0.1895426,0.04817853,-0.44324908,-0.046690833,-0.0058072843,0.045488063,0.059107266,0.06595874,-0.022895535,0.026331998,-0.0056216763,-0.000844893,-0.042572092,0.013889432,0.018137265,3.0,0.2804825,-3.0,-3.0,0.9059972,-3.0,-3.0,0.33215207,-3.0,3.0,0.14418387,-3.0,3.0,0.20782772,-3.0,-3.0,0.8752547,-3.0,-3.0,0.337591,-3.0,3.0,0.2647147,-3.0
2025-06-06 08:55:42.219,-0.021099724,0.0037425268,-0.009402784,-0.05220344,0.07184987,-0.020445995,0.0,0.0,0.0,0.0,0.12587944,0.10295037,-0.42057785,-0.14627817,0.29435992,-0.4158537,-0.1680374,0.061217465,-0.4562134,0.17390719,0.059836745,-0.4442861,-0.070891984,0.0563239,-0.0047491156,0.031320944,-0.0021412435,0.07175827,0.02227777,0.029780367,-0.030419197,-0.0047404827,0.0372566,0.004148077,3.0,0.20782772,-3.0,-3.0,0.8752547,-3.0,-3.0,0.337591,-3.0,3.0,0.2647147,-3.0,3.0,0.25603062,-3.0,-3.0,0.83288234,-3.0,-3.0,0.32529378,-3.0,3.0,0.20689875,-3.0
2025-06-06 08:55:42.237,-0.03657324,0.045807786,-0.028521284,-0.104596615,0.051461868,0.0090846075,0.0,0.0,0.0,0.0,0.1359615,0.0850047,-0.41276333,-0.13927168,0.2865841,-0.39948335,-0.17667943,0.06534171,-0.45217314,0.1879927,0.040926155,-0.44385138,0.031792723,-0.0629344,-0.02803201,-0.045967318,0.06295963,-0.045068335,0.058598485,0.032277923,0.03502068,-0.014951289,0.06565446,-0.015644565,3.0,0.25603062,-3.0,-3.0,0.83288234,-3.0,-3.0,0.32529378,-3.0,3.0,0.20689875,-3.0,3.0,0.28020355,-3.0,-3.0,0.8936559,-3.0,-3.0,0.2861547,-3.0,3.0,0.14721233,-3.0
2025-06-06 08:55:42.258,0.000931125,0.037167232,0.017304756,-0.09838432,0.08773734,-0.040800735,0.0,0.0,0.0,0.0,0.13650694,0.08409463,-0.42683634,-0.14487189,0.29729134,-0.39959437,-0.17851137,0.05851936,-0.45853254,0.18878135,0.03663317,-0.44325012,0.04155573,0.05646757,-0.012497092,0.019051444,0.015734954,0.06729387,0.054820355,0.029231332,-0.0027729517,0.02563418,0.05530333,-0.06258526,3.0,0.28020355,-3.0,-3.0,0.8936559,-3.0,-3.0,0.2861547,-3.0,3.0,0.14721233,-3.0,3.0,0.19131652,-3.0,-3.0,0.8923525,-3.0,-3.0,0.21542293,-3.0,3.0,0.30927566,-3.0
2025-06-06 08:55:42.278,0.043427262,-0.035090007,-0.010793555,-0.0572966,0.019395845,-0.021422392,0.0,0.0,0.0,0.0,0.12796941,0.09231275,-0.42696244,-0.13131559,0.2899733,-0.41779876,-0.18139607,0.046315778,-0.4496204,0.18369995,0.042310867,-0.43863285,-0.020189017,-0.056030575,0.045946017,-0.0071228608,0.031058488,0.024527684,0.074169025,0.062483,0.053931784,-0.037846737,-0.028596032,0.02086613,3.0,0.19131652,-3.0,-3.0,0.8923525,-3.0,-3.0,0.21542293,-3.0,3.0,0.30927566,-3.0,3.0,0.32770765,-3.0,-3.0,0.8980155,-2.9265583,-3.0,0.35585794,-3.0,3.0,0.15096873,-3.0
2025-06-06 08:55:42.298,-0.02872206,0.045353338,0.020421714,-0.062170632,0.044804372,0.02534812,0.0,0.0,0.0,0.0,0.12819262,0.08745194,-0.42619696,-0.1386794,0.28972784,-0.40153036,-0.18113922,0.058050286,-0.46248043,0.1818211,0.053709615,-0.4371005,0.06453843,-0.05637894,-0.006700211,0.048226334,0.034300935,0.028742563,-0.069363356,-0.019204201,0.01885214,0.058271468,0.052598797,0.019130629,3.0,0.32770765,-3.0,-3.0,0.8980155,-2.9265583,-3.0,0.35585794,-3.0,3.0,0.15096873,-3.0,3.0,0.16156828,-3.0,-3.0,0.96080464,-3.0,-3.0,0.2615884,-3.0,3.0,0.25105655,-3.0
2025-06-06 08:55:42.319,0.004329764,-0.049419086,-0.016790621,-0.041682232,0.050320793,-0.008976829,0.0,0.0,0.0,0.0,0.12386104,0.09506478,-0.41840112,-0.13650066,0.283352,-0.40283427,-0.1671478,0.045498665,-0.4474042,0.17376885,0.04042023,-0.44735005,-0.054385837,-0.0114953015,-0.035428155,0.03853197,-0.07035646,0.0711538,-0.05688405,-0.0692767,-0.03242601,-0.059668288,-0.048037447,0.03348144,3.0,0.16156828,-3.0,-3.0,0.96080464,-3.0,-3.0,0.2615884,-3.0,3.0,0.25105655,-3.0,3.0,0.416561,-3.0,-3.0,0.8811809,-3.0,-3.0,0.38478246,-3.0,3.0,0.24837428,-3.0
2025-06-06 08:55:42.338,-0.071798906,-0.026374158,-0.047613893,-0.07593277,0.016269147,0.032504443,0.0,0.0,0.0,0.0,0.14010085,0.08398504,-0.4253954,-0.13838662,0.2965557,-0.41126683,-0.16791911,0.060249683,-0.44954726,0.1874605,0.04510324,-0.44744176,0.031261403,-0.06457631,-0.006750068,0.028448215,-0.030951196,0.06433448,0.06564307,0.04370608,-0.0556454,-0.028524889,0.076474376,-0.009350726,3.0,0.416561,-3.0,-3.0,0.8811809,-3.0,-3.0,0.38478246,-3.0,3.0,0.24837428,-3.0,3.0,0.35549834,-3.0,-3.0,0.8750127,-2.946467,-3.0,0.40054843,-3.0,3.0,0.1782496,-3.0
2025-06-06 08:55:42.358,-0.009482422,0.041488092,0.059708305,-0.059384834,0.05080402,-0.04244426,0.0,0.0,0.0,0.0,0.1392715,0.09156722,-0.4238599,-0.13149732,0.28617415,-0.4142813,-0.16739935,0.059331764,-0.46679536,0.18001156,0.05744266,-0.44564304,0.0033227366,0.0015393577,-0.041793123,0.06632931,0.049559575,-0.06578767,-0.038969208,-0.04084476,-0.005105812,-0.01525783,-0.06875907,-0.07489117,3.0,0.35549834,-3.0,-3.0,0.8750127,-2.946467,-3.0,0.40054843,-3.0,3.0,0.1782496,-3.0,3.0,0.12696573,-3.0,-3.0,0.9899432,-3.0,-3.0,0.28944215,-3.0,3.0,0.38038647,-3.0
2025-06-06 08:55:42.378,0.04272668,0.018206943,0.011091869,-0.0830358,0.02670451,-0.011430557,0.0,0.0,0.0,0.0,0.1402328,0.09441264,-0.4118833,-0.14302437,0.29177517,-0.4060576,-0.16564569,0.066168614,-0.45274997,0.18830192,0.052731622,-0.44271767,-0.0045818486,0.033254977,-0.002452953,-0.035430677,-0.028556662,-0.06817916,-0.0038865444,-0.0029030526,-0.006914514,0.005936389,0.035213795,-0.031527586,3.0,0.12696573,-3.0,-3.0,0.9899432,-3.0,-3.0,0.28944215,-3.0,3.0,0.38038647,-3.0,3.0,0.25166842,-3.0,-3.0,0.8620392,-3.0,-3.0,0.3214156,-3.0,3.0,0.19420797,-3.0
2025-06-06 08:55:42.401,-0.02281732,0.021968389,-0.046607338,-0.07185661,0.024667334,-0.020862464,0.0,0.0,0.0,0.0,0.1312245,0.08843259,-0.42060387,-0.14555389,0.29872766,-0.4032851,-0.16627476,0.060206905,-0.4569152,0.17944083,0.058202278,-0.45920563,-0.044143073,-0.02701566,-0.040670097,0.017822571,0.037475187,-0.01842875,-0.005467584,-0.0792547,-0.0011643855,-0.044115167,-0.017988222,0.017074795,3.0,0.25166842,-3.0,-3.0,0.8620392,-3.0,-3.0,0.3214156,-3.0,3.0,0.19420797,-3.0,3.0,0.37755746,-3.0,-3.0,0.87020993,-3.0,-3.0,0.39288387,-3.0,3.0,0.16175008,-3.0
2025-06-06 08:55:42.419,-0.05136328,0.0019728597,0.027145857,-0.079888396,0.06516059,-0.0149864,0.0,0.0,0.0,0.0,0.13757667,0.09578906,-0.41793838,-0.14736949,0.29753944,-0.41342697,-0.17397073,0.05178253,-0.45581308,0.17531252,0.044634175,-0.44145015,0.061146434,-0.02869347,-0.04351625,-0.03190746,0.016407127,-0.012618191,0.036018215,-0.026485326,0.046144955,-0.06236538,0.018169282,-0.06386954,3.0,0.37755746,-3.0,-3.0,0.87020993,-3.0,-3.0,0.39288387,-3.0,3.0,0.16175008,-3.0,3.0,0.176373,-3.0,-3.0,0.9437381,-3.0,-3.0,0.22793296,-3.0,3.0,0.35567623,-3.0
2025-06-06 08:55:42.438,0.061255936,-0.020311547,-0.056310523,-0.024109028,0.09241358,0.0358722,0.0,0.0,0.0,0.0,0.13408482,0.09175064,-0.42234498,-0.13173287,0.29309693,-0.39965975,-0.17215545,0.0609837,-0.46486872,0.18611969,0.05181262,-0.44550836,-0.037781622,-0.015884038,-0.055057332,-0.03626311,0.03645519,-0.040056914,0.05809985,-0.055465154,0.030597981,0.055907212,0.04358715,0.065361485,3.0,0.176373,-3.0,-3.0,0.9437381,-3.0,-3.0,0.22793296,-3.0,3.0,0.35567623,-3.0,3.0,0.3163352,-3.0,-3.0,0.8292259,-3.0,-3.0,0.3416144,-3.0,3.0,0.057329897,-3.0
2025-06-06 08:55:42.458,0.056777563,0.07303621,-0.030513559,-0.027107595,0.0041294186,-0.029956944,0.0,0.0,0.0,0.0,0.12890397,0.08736721,-0.43041945,-0.13851893,0.2885062,-0.40643826,-0.18151186,0.058667533,-0.45095912,0.17614669,0.045100305,-0.4512498,0.036157608,-0.0031264024,-0.01764866,-0.06625027,0.012010714,-0.039473474,-0.0040250975,-0.058518317,0.01470205,-0.07061634,-0.049834445,0.019510224,3.0,0.3163352,-3.0,-3.0,0.8292259,-3.0,-3.0,0.3416144,-3.0,3.0,0.057329897,-3.0,3.0,0.36555222,-3.0,-3.0,0.9014155,-3.0,-3.0,0.39456406,-3.0,3.0,0.14963722,-3.0
2025-06-06 08:55:42.478,-0.021770006,0.013685734,0.022097757,-0.11576796,0.09907172,-0.0085172225,0.0,0.0,0.0,0.0,0.12666614,0.085022524,-0.42982176,-0.13500904,0.297586,-0.41460085,-0.17634116,0.05994093,-0.4513367,0.1893862,0.040300064,-0.43815038,-0.048351966,-0.028102616,0.057580054,0.07584328,0.0631575,-0.039692756,-0.049810566,-0.039745353,0.010919073,-0.037071735,-0.048439585,-0.011219653,3.0,0.36555222,-3.0,-3.0,0.9014155,-3.0,-3.0,0.39456406,-3.0,3.0,0.14963722,-3.0,3.0,0.21433288,-3.0,-3.0,0.9143424,-3.0,-3.0,0.35062656,-3.0,3.0,0.2915148,-3.0
2025-06-06 08:55:42.502,0.02697914,-0.026117653,0.020834796,-0.045378376,0.00090139377,0.03106992,0.0,0.0,0.0,0.0,0.14369184,0.086531304,-0.43113545,-0.13169551,0.29467243,-0.41865876,-0.18275361,0.0615116,-0.4599001,0.17454961,0.037636865,-0.44484228,-0.04457412,0.022115316,0.004459422,-0.0360186,-0.009641661,0.04480836,0.011167042,0.011971089,-0.026942804,0.012368321,0.037043657,-0.05881054,3.0,0.21433288,-3.0,-3.0,0.9143424,-3.0,-3.0,0.35062656,-3.0,3.0,0.2915148,-3.0,3.0,0.20124549,-3.0,-3.0,0.90735066,-3.0,-3.0,0.311172,-3.0,3.0,0.22392792,-3.0
2025-06-06 08:55:42.519,-0.029138772,0.034029406,-0.0023989924,-0.05104289,0.07088639,0.021529283,0.0,0.0,0.0,0.0,0.13926092,0.0962149,-0.41676152,-0.13251644,0.28940922,-0.41836935,-0.18655328,0.061697826,-0.45143482,0.18040776,0.043940745,-0.4549348,0.059846524,-0.03486485,0.026216364,0.038976308,0.037939362,-0.056019597,0.051240973,0.009832554,0.005161817,-0.00084979757,0.011140204,0.046317346,3.0,0.20124549,-3.0,-3.0,0.90735066,-3.0,-3.0,0.311172,-3.0,3.0,0.22392792,-3.0,3.0,0.2826932,-3.0,-3.0,0.884534,-3.0,-3.0,0.3268664,-3.0,3.0,0.17889214,-3.0
2025-06-06 08:55:42.539,-0.042940404,0.001532079,0.02789878,-0.083834246,0.0400599,0.023714399,0.0,0.0,0.0,0.0,0.13072003,0.09430038,-0.43027896,-0.13838628,0.29134804,-0.41802672,-0.18288556,0.064113006,-0.4655588,0.17829412,0.050576694,-0.45375738,-0.049921136,-0.07528528,-0.02318896,0.055719707,0.05527958,-0.0070712883,0.038513593,0.057365134,0.05008275,0.005385002,-0.062038638,-0.062322535,3.0,0.2826932,-3.0,-3.0,0.884534,-3.0,-3.0,0.3268664,-3.0,3.0,0.17889214,-3.0,3.0,0.15965456,-3.0,-3.0,0.9741347,-3.0,-3.0,0.28246698,-3.0,3.0,0.291942,-3.0
2025-06-06 08:55:42.559,0.047712944,-0.008429728,-0.06270045,-0.0519136,0.018812397,-0.0065646297,0.0,0.0,0.0,0.0,0.13239741,0.08585123,-0.4214661,-0.14142294,0.2991417,-0.41756484,-0.16962104,0.052924752,-0.46079066,0.17828025,0.05369645,-0.4486543,-0.07026479,-0.05761313,-0.027902143,0.06633493,0.073333524,-0.041679054,0.048129924,-0.058362417,0.053533103,0.040980548,-0.041330855,0.043156773,3.0,0.15965456,-3.0,-3.0,0.9741347,-3.0,-3.0,0.28246698,-3.0,3.0,0.291942,-3.0,3.0,0.3829177,-3.0,-3.0,0.8204953,-3.0,-3.0,0.3916616,-3.0,3.0,0.0512628,-3.0
2025-06-06 08:55:42.579,-0.017907744,0.03976978,0.0660807,-0.026039716,0.035584718,0.0133334715,0.0,0.0,0.0,0.0,0.13437063,0.0848409,-0.4195586,-0.14302556,0.29010215,-0.41333097,-0.17675926,0.05844111,-0.45592788,0.17094862,0.038994584,-0.45129767,-0.0031477662,0.022118915,0.019328821,-0.030502206,0.029798778,0.0028407322,0.02855506,0.018472385,-0.048369613,-0.06694433,-0.026272412,-0.015591091,3.0,0.3829177,-3.0,-3.0,0.8204953,-3.0,-3.0,0.3916616,-3.0,3.0,0.0512628,-3.0,3.0,0.10883557,-3.0,-3.0,1.0011022,-3.0,-3.0,0.2820052,-3.0,3.0,0.40732718,-3.0
2025-06-06 08:55:42.602,-0.003741791,-0.057280555,0.024444588,-0.10547203,0.073879406,0.030411504,0.0,0.0,0.0,0.0,0.13557914,0.09124551,-0.41129968,-0.14603251,0.30205092,-0.40374598,-0.18371907,0.05742736,-0.44883436,0.18171246,0.052274525,-0.44826478,0.043702684,-0.016825229,0.065357864,-0.04067241,0.04614816,0.00067616627,-0.0073652444,-0.050509237,-0.008984113,-0.065122776,-0.050314017,0.007698601,3.0,0.10883557,-3.0,-3.0,1.0011022,-3.0,-3.0,0.2820052,-3.0,3.0,0.40732718,-3.0,3.0,0.28700793,-3.0,-3.0,0.89126885,-2.8932815,-3.0,0.31589916,-3.0,3.0,0.26044542,-3.0
2025-06-06 08:55:42.619,-0.05793451,-0.019920094,-0.058091007,-0.11290403,0.10021129,0.032718964,0.0,0.0,0.0,0.0,0.12569204,0.09571802,-0.41967776,-0.14245676,0.29825792,-0.402488,-0.17066306,0.057038296,-0.46334627,0.1693144,0.046433058,-0.44052404,-0.05322612,0.034777034,0.0010547474,-0.05818215,0.016934391,0.033450905,-0.06601461,-0.042782217,-0.03903258,-0.029335931,0.03952747,-0.022010801,3.0,0.28700793,-3.0,-3.0,0.89126885,-2.8932815,-3.0,0.31589916,-3.0,3.0,0.26044542,-3.0,3.0,0.35762948,-3.0,-3.0,0.818527,-3.0,-3.0,0.4159514,-3.0,3.0,0.10118601,-3.0
2025-06-06 08:55:42.639,0.03563877,0.069205545,0.03561893,-0.022905147,0.0030055805,0.02631638,0.0,0.0,0.0,0.0,0.12452732,0.0888416,-0.4164358,-0.13937037,0.2982773,-0.40226182,-0.17044647,0.05686582,-0.4669545,0.17829601,0.05714275,-0.4519804,0.013038114,-0.019410243,-0.043977916,-0.045694284,-0.053689633,-0.058931723,0.06687422,-0.0087584155,0.045755897,0.05092254,-0.006672551,0.0070316475,3.0,0.35762948,-3.0,-3.0,0.818527,-3.0,-3.0,0.4159514,-3.0,3.0,0.10118601,-3.0,3.0,0.10952281,-3.0,-3.0,1.022344,-3.0,-3.0,0.27386168,-3.0,3.0,0.31906104,-3.0
2025-06-06 08:55:42.659,0.001871911,0.01270552,-0.028743828,-0.020036357,0.060687263,0.012577268,0.0,0.0,0.0,0.0,0.12577388,0.08850267,-0.41022515,-0.13582137,0.28608838,-0.4080598,-0.17306483,0.062021,-0.4550844,0.1758621,0.04153504,-0.44029364,0.05887633,0.024998195,-0.026815087,-0.056454886,-0.059854712,0.017214939,-0.07383642,-0.06359853,0.015178787,0.014642483,0.008857878,-0.066350475,3.0,0.10952281,-3.0,-3.0,1.022344,-3.0,-3.0,0.27386168,-3.0,3.0,0.31906104,-3.0,3.0,0.40582567,-3.0,-3.0,0.847801,-3.0,-3.0,0.28127816,-3.0,3.0,0.16213828,-3.0
2025-06-06 08:55:42.679,0.04544975,0.00012274845,0.03774228,-0.060224276,0.023545263,-0.00833772,0.0,0.0,0.0,0.0,0.1342279,0.09242617,-0.4270935,-0.1389583,0.29991394,-0.40143254,-0.17114004,0.055160105,-0.45858452,0.19010249,0.05905985,-0.45387748,0.048438415,0.05548922,-0.014412794,-0.04281774,-0.05708223,0.06438244,-0.025918005,0.014363367,-0.022590648,-0.045657136,0.04728788,-0.05899335,3.0,0.40582567,-3.0,-3.0,0.847801,-3.0,-3.0,0.28127816,-3.0,3.0,0.16213828,-3.0,3.0,0.1670154,-3.0,-3.0,0.9557229,-3.0,-3.0,0.3097866,-3.0,3.0,0.38278723,-3.0
2025-06-06 08:55:42.703,-0.02576218,-0.0024210967,-0.030364227,-0.088692166,0.027069114,0.036391996,0.0,0.0,0.0,0.0,0.12682864,0.08203597,-0.41569936,-0.14547187,0.2951567,-0.41306615,-0.1746096,0.048908733,-0.44723636,0.17187078,0.044005185,-0.44139278,-0.07391658,-0.03284123,0.043630444,-0.00052365806,-0.0072653354,-0.0028917633,-0.02105886,-0.0010367235,-0.045396894,0.027282555,-0.004614229,-0.07589827,3.0,0.1670154,-3.0,-3.0,0.9557229,-3.0,-3.0,0.3097866,-3.0,3.0,0.38278723,-3.0,3.0,0.3606169,-3.0,-3.0,0.88044435,-3.0,-3.0,0.40181816,-3.0,3.0,0.12895972,-3.0
