openverse-orca/OrcaGym/log/simulation_log_20250605_172339.csv
timestamp,imu_angle_roll,imu_angle_pitch,imu_angle_yaw,imu_angular_velocity_roll,imu_angular_velocity_pitch,imu_angular_velocity_yaw,imu_acc_x,imu_acc_y,imu_acc_z,fl_joint1_pos,fl_joint1_vel,fl_joint1_torque,fl_joint2_pos,fl_joint2_vel,fl_joint2_torque,fl_joint3_pos,fl_joint3_vel,fl_joint3_torque,fr_joint1_pos,fr_joint1_vel,fr_joint1_torque,fr_joint2_pos,fr_joint2_vel,fr_joint2_torque,fr_joint3_pos,fr_joint3_vel,fr_joint3_torque,hl_joint1_pos,hl_joint1_vel,hl_joint1_torque,hl_joint2_pos,hl_joint2_vel,hl_joint2_torque,hl_joint3_pos,hl_joint3_vel,hl_joint3_torque,hr_joint1_pos,hr_joint1_vel,hr_joint1_torque,hr_joint2_pos,hr_joint2_vel,hr_joint2_torque,hr_joint3_pos,hr_joint3_vel,hr_joint3_torque,fl_force_x,fl_force_y,fl_force_z,fr_force_x,fr_force_y,fr_force_z,hl_force_x,hl_force_y,hl_force_z,hr_force_x,hr_force_y,hr_force_z,fl_hip_action,fl_thigh_action,fl_calf_action,fr_hip_action,fr_thigh_action,fr_calf_action,hl_hip_action,hl_thigh_action,hl_calf_action,hr_hip_action,hr_thigh_action,hr_calf_action
2025-06-05 17:23:39.524,-0.005827423,0.042130657,-0.013307831,-0.0041351127,-0.038252555,-0.009850837,2.293764,-1.1599064,0.0,0.0,-0.007754002,0.0014096207,-0.009507897,-0.0053133736,-0.009738955,-0.0030555332,0.006979294,0.009862625,-0.008275754,-0.009951573,-0.0042035696,0.009923695,0.06754449,0.051566765,0.0625649,0.005060967,-0.04830711,-0.011281279,-0.019927263,-0.07450272,0.06679495,-0.052584995,-0.04994177,0.012391994,0.0,0.0,0.0,0.0,0.0,0.0,0.0,0.0,0.0,0.0,0.0,0.0,3.0,0.50647,-3.0,3.0,-2.666972,3.0,-3.0,0.5584409,-3.0,-3.0,-1.1278139,-3.0
2025-06-05 17:23:39.528,0.23602049,-0.009229622,0.08008033,-0.030909937,0.010250748,-0.022769665,0.0,0.0,0.0,0.0,0.032082237,0.02825141,-0.099044345,0.014967212,-0.12184293,0.101531975,-0.018828556,0.029593494,-0.0975338,-0.013713455,-0.05376589,-0.08119808,0.037550073,0.017911037,-0.3678241,0.08399694,-0.42987964,0.33556432,-0.1113714,0.1195498,-0.3878748,-0.10271316,-0.20323497,-0.21993697,3.0,0.50647,-3.0,3.0,-2.666972,3.0,-3.0,0.5584409,-3.0,-3.0,-1.1278139,-3.0,3.0,2.4507608,-3.0,3.0,3.0,1.6294569,-3.0,-1.3996304,-3.0,-3.0,-1.2960579,-3.0
2025-06-05 17:23:39.548,0.19345114,-0.039837267,0.16313681,0.001176235,0.005504156,0.045398816,0.0,0.0,0.0,-0.0014391303,0.052065372,0.04799063,-0.14396983,0.060166866,-0.0632914,0.17173094,-0.050940737,0.021469539,-0.15877186,-0.02882025,-0.085745655,-0.10639079,0.040345445,0.09299901,-0.00038783855,0.12524106,0.41895136,0.021506576,-0.113947116,-0.03433665,0.012863952,0.06506071,-0.07532528,0.06335352,3.0,2.4507608,-3.0,3.0,3.0,1.6294569,-3.0,-1.3996304,-3.0,-3.0,-1.2960579,-3.0,3.0,1.7692652,-3.0,3.0,3.0,-3.0,-3.0,-1.0294926,-2.6925623,-3.0,1.290551,-3.0
2025-06-05 17:23:39.569,0.08403819,0.19620942,-0.031685807,0.057120163,0.036618933,0.031516645,0.0,0.0,0.0,-0.003577924,0.045270566,0.046968944,-0.15040246,0.1208604,0.18955606,0.049732108,-0.08918928,-0.004526455,-0.18161747,-0.016205793,-0.07925563,-0.10489187,0.0016908947,-0.01351203,0.052971996,0.07070528,0.7065373,-0.34736237,-0.025000758,0.012110383,-0.031833474,0.06589826,0.048698492,-0.05943899,3.0,1.7692652,-3.0,3.0,3.0,-3.0,-3.0,-1.0294926,-2.6925623,-3.0,1.290551,-3.0,3.0,1.2018108,-3.0,3.0,3.0,-3.0,-3.0,-0.72125,-3.0,-0.80406135,-0.11269423,-3.0
2025-06-05 17:23:39.589,0.24151042,0.18042918,0.024422878,0.090980425,0.022556085,-0.044607818,0.0,0.0,0.0,-0.004770788,0.04855508,0.06574515,-0.1406719,0.15232213,0.43918276,-0.13425371,-0.09518223,-0.03398719,-0.25904888,-0.011342957,-0.05828347,-0.1230259,0.051324956,0.06052853,0.005946242,0.059009667,0.534713,-0.4897314,-0.10043135,-0.1766595,-0.25472504,0.025359312,0.12113504,0.016585503,3.0,1.2018108,-3.0,3.0,3.0,-3.0,-3.0,-0.72125,-3.0,-0.80406135,-0.11269423,-3.0,3.0,1.5642966,-3.0,3.0,3.0,-3.0,-3.0,-0.27993423,-3.0,3.0,-0.2706116,-3.0
2025-06-05 17:23:39.610,0.5530103,0.20509392,-0.004135955,0.059824895,0.028733883,-0.0089903185,0.0,0.0,0.0,-0.004959792,0.078344434,0.09544695,-0.15676454,0.16678321,0.6292219,-0.26119083,-0.10721348,-0.050472297,-0.33922943,0.013307073,-0.04003556,-0.1188772,0.014447947,0.11726777,-0.0891875,0.044775017,0.3720542,-0.33476833,-0.040005244,-0.057430897,-0.28202203,0.05589558,0.09434306,-0.024924433,3.0,1.5642966,-3.0,3.0,3.0,-3.0,-3.0,-0.27993423,-3.0,3.0,-0.2706116,-3.0,3.0,2.646925,-3.0,3.0,3.0,-3.0,-3.0,0.13318919,-3.0,3.0,-0.8535337,-3.0
2025-06-05 17:23:39.629,0.4924395,0.12752421,0.028014774,0.15290841,0.016328642,-0.024927659,0.0,0.0,0.0,-0.004710001,0.12417747,0.13678174,-0.18051207,0.2091178,0.71587026,-0.32722786,-0.12902786,-0.04824281,-0.42690307,0.047556974,-0.01796979,-0.11498652,0.15437369,0.16233382,-0.06274556,0.15157446,0.15134071,0.003567652,-0.04402876,0.084135644,-0.14441928,0.062487975,0.035526726,-0.024809025,3.0,2.646925,-3.0,3.0,3.0,-3.0,-3.0,0.13318919,-3.0,3.0,-0.8535337,-3.0,3.0,2.52325,-3.0,3.0,3.0,-3.0,-3.0,0.027149487,-3.0,3.0,-0.71783036,-3.0
2025-06-05 17:23:39.649,0.43388748,0.024495475,0.030969372,0.12597513,0.03229959,0.020837177,0.0,0.0,0.0,-0.004159464,0.14699328,0.16959049,-0.23766097,0.25363985,0.7579537,-0.33433706,-0.13826647,-0.04554916,-0.4585091,0.08103508,-0.020204958,-0.12338657,0.076846816,0.089397684,-0.18720254,0.12735276,0.05489307,-0.0711008,-0.020356763,-0.0009898671,-0.16652957,0.03462555,0.10264042,0.045182288,3.0,2.52325,-3.0,3.0,3.0,-3.0,-3.0,0.027149487,-3.0,3.0,-0.71783036,-3.0,3.0,2.6758232,-3.0,3.0,2.906437,-3.0,-3.0,0.21702413,-3.0,3.0,-0.7673077,-3.0
2025-06-05 17:23:39.669,0.37954685,0.03234416,0.02430021,0.21521127,0.056846313,0.006362186,0.0,0.0,0.0,-0.0036180182,0.16779731,0.22702308,-0.27013296,0.27281114,0.79631793,-0.37207934,-0.16209446,-0.022462761,-0.49165928,0.10079857,-0.005465808,-0.124488145,-0.022309057,0.15993264,-0.17259194,0.057787344,0.116520874,-0.075739615,-0.009917471,0.087572016,-0.0056858803,0.010830524,0.06428312,0.0031166554,3.0,2.6758232,-3.0,3.0,2.906437,-3.0,-3.0,0.21702413,-3.0,3.0,-0.7673077,-3.0,3.0,2.6066756,-3.0,3.0,2.8709416,-3.0,-3.0,0.03095572,-3.0,3.0,-0.79194087,-3.0
2025-06-05 17:23:39.689,0.3210027,-0.039779928,0.058360707,0.20377995,0.047666464,-0.041055057,0.0,0.0,0.0,-0.0032776159,0.18986452,0.25588843,-0.3241972,0.28455442,0.8382762,-0.4046362,-0.16757785,0.008355902,-0.50267744,0.13138674,0.007374569,-0.1344522,0.042643946,0.04989284,-0.124865465,-0.012395739,0.067998715,-0.046621233,0.039145384,0.059692815,-0.09620007,0.11796675,0.022280896,0.016224846,3.0,2.6066756,-3.0,3.0,2.8709416,-3.0,-3.0,0.03095572,-3.0,3.0,-0.79194087,-3.0,3.0,2.6353478,-3.0,3.0,3.0,-3.0,-3.0,0.12240176,-3.0,3.0,-0.59200495,-3.0
2025-06-05 17:23:39.710,0.31987023,0.006862062,0.040008612,0.26499397,-0.033671733,-0.03398646,0.0,0.0,0.0,-0.003208176,0.19344828,0.30476788,-0.37406358,0.28633732,0.86279374,-0.43707177,-0.18551601,0.026156522,-0.52601445,0.14539917,0.016350146,-0.12898566,0.0452083,0.15549181,-0.15141581,0.045877356,0.020371195,-0.0018233896,0.0110062035,0.04028446,-0.011258782,-0.022865595,-0.033006266,-0.0011128131,3.0,2.6353478,-3.0,3.0,3.0,-3.0,-3.0,0.12240176,-3.0,3.0,-0.59200495,-3.0,3.0,2.5125802,-3.0,3.0,3.0,-3.0,-3.0,0.16475753,-3.0,3.0,-0.79898304,-3.0
2025-06-05 17:23:39.729,0.21622786,-0.040516976,0.065334074,0.31693202,-0.037361085,0.042685095,0.0,0.0,0.0,-0.0032325229,0.19867873,0.35489368,-0.41634807,0.2789361,0.8957003,-0.46273112,-0.18862234,0.02727705,-0.53373647,0.14272709,0.011590528,-0.12285368,-0.03665918,0.026814338,-0.08516516,-0.011690716,0.025775557,-0.040354062,-0.021905275,-0.0324595,-0.03908507,-0.052331656,0.03872466,0.053006474,3.0,2.5125802,-3.0,3.0,3.0,-3.0,-3.0,0.16475753,-3.0,3.0,-0.79898304,-3.0,3.0,2.4020371,-3.0,3.0,3.0,-3.0,-3.0,0.15162842,-3.0,3.0,-0.73500556,-3.0
2025-06-05 17:23:39.749,0.21845746,0.03499287,-0.013646902,0.29495728,0.032386143,0.022249578,0.0,0.0,0.0,-0.003531238,0.216352,0.39666882,-0.42685103,0.25643244,0.9279094,-0.47505817,-0.18450436,0.053009953,-0.52637196,0.1576026,0.014480866,-0.1028952,-0.068275824,0.03734706,-0.09177493,0.014946868,0.030182395,-0.070343696,0.034872193,0.024993842,-0.036254402,-0.012635168,-0.055038527,-0.023474976,3.0,2.4020371,-3.0,3.0,3.0,-3.0,-3.0,0.15162842,-3.0,3.0,-0.73500556,-3.0,3.0,2.7564678,-3.0,3.0,2.8061736,-3.0,-3.0,0.34709364,-3.0,3.0,-0.9718203,-3.0
2025-06-05 17:23:39.769,0.13174346,-0.03181392,0.012427658,0.27323484,0.019649241,0.038277302,0.0,0.0,0.0,-0.004036037,0.21935576,0.41707417,-0.453567,0.25828528,0.9434052,-0.4876337,-0.19302621,0.060048237,-0.53162277,0.14417808,0.0066305217,-0.08487684,-0.050111905,0.016108682,-0.005576978,0.012899385,-0.0015559233,0.0036200436,0.041681632,0.03124911,-0.02988042,0.049174733,0.0005399105,0.09926683,3.0,2.7564678,-3.0,3.0,2.8061736,-3.0,-3.0,0.34709364,-3.0,3.0,-0.9718203,-3.0,3.0,2.5141559,-3.0,3.0,2.622681,-3.0,-3.0,0.23486637,-3.0,3.0,-0.9478249,-3.0
2025-06-05 17:23:39.789,0.14344062,-0.05513063,0.070211224,0.31664988,0.018626532,-0.0021254483,0.0,0.0,0.0,-0.004986967,0.20312214,0.45616344,-0.47270715,0.25114885,0.94834036,-0.46846038,-0.19133998,0.083362035,-0.53548443,0.14179805,0.017412739,-0.06597761,-0.0646441,0.12384461,-0.087037645,0.058397815,-0.003560565,-0.014666629,0.008046602,-0.045838103,0.06505718,-0.05884364,-0.04264071,0.12270022,3.0,2.5141559,-3.0,3.0,2.622681,-3.0,-3.0,0.23486637,-3.0,3.0,-0.9478249,-3.0,3.0,1.9143038,-3.0,3.0,2.886916,-3.0,-3.0,0.043721247,-3.0,3.0,-0.774262,-3.0
2025-06-05 17:23:39.810,0.04241211,-0.029630726,0.0071392693,0.27322268,-0.031624764,-0.01512747,0.0,0.0,0.0,-0.0063818265,0.1978689,0.47053003,-0.47232527,0.25449648,0.9631685,-0.4782874,-0.18978032,0.08455947,-0.5322006,0.124658264,-0.0069225663,-0.033139654,0.012829241,0.045294043,0.0018611354,0.04153578,-0.026869942,-0.06411424,-0.0097666,0.0037668159,0.060185604,0.007311764,0.015937217,0.13383648,3.0,1.9143038,-3.0,3.0,2.886916,-3.0,-3.0,0.043721247,-3.0,3.0,-0.774262,-3.0,3.0,2.326407,-3.0,3.0,2.8859227,-3.0,-3.0,0.34361345,-3.0,3.0,-1.1296206,-3.0
2025-06-05 17:23:39.829,0.09502406,-0.026423402,0.10863988,0.30294257,0.018718813,0.048737936,0.0,0.0,0.0,-0.0075608063,0.18940799,0.4920211,-0.46890172,0.24940382,0.96389884,-0.47049814,-0.1826381,0.07129825,-0.53685033,0.12501642,-0.00030982628,0.0061005657,0.0044525643,0.08798857,0.021345088,0.03560993,-0.03120146,-0.01610972,0.06304084,0.08575949,-0.014970611,-0.023227852,0.02944896,0.1607917,3.0,2.326407,-3.0,3.0,2.8859227,-3.0,-3.0,0.34361345,-3.0,3.0,-1.1296206,-3.0,3.0,1.781125,-3.0,3.0,3.0,-3.0,-3.0,-0.071394876,-3.0,3.0,-0.7865674,-3.0
2025-06-05 17:23:39.849,-0.018838352,-0.031175597,0.05508073,0.32343763,-0.05658691,-0.0138361575,0.0,0.0,0.0,-0.00879065,0.18523781,0.50391877,-0.45477515,0.2464246,0.98012525,-0.46798494,-0.1817137,0.07774097,-0.527094,0.10434766,-0.02034264,0.037027653,-0.006061768,-0.054587156,0.033576272,-0.0747821,0.049513996,0.08226942,-0.009582141,-0.05023817,-0.014613832,-0.07859916,-0.09428191,0.02279483,3.0,1.781125,-3.0,3.0,3.0,-3.0,-3.0,-0.071394876,-3.0,3.0,-0.7865674,-3.0,3.0,1.896196,-3.0,3.0,3.0,-3.0,-3.0,0.32364863,-3.0,3.0,-0.70249385,-3.0
2025-06-05 17:23:39.869,-0.008200345,-0.025536755,0.039760597,0.3437849,-0.07676424,0.00024494375,0.0,0.0,0.0,-0.009626189,0.18008067,0.49765724,-0.4552257,0.21995364,0.98468286,-0.45870063,-0.17890224,0.07449343,-0.52328163,0.09783608,-0.01462941,0.069190085,-0.06477959,0.030331513,0.026122658,-0.060492706,0.013630613,-0.041633133,-0.03747211,0.020874733,-0.03035265,-0.056633662,0.06867768,0.10901587,3.0,1.896196,-3.0,3.0,3.0,-3.0,-3.0,0.32364863,-3.0,3.0,-0.70249385,-3.0,3.0,2.197443,-3.0,3.0,2.9987876,-3.0,-3.0,0.16538362,-3.0,3.0,-1.1815447,-3.0
2025-06-05 17:23:39.890,0.016449384,-0.0068708,0.017152894,0.32500422,-0.05321943,-0.040911257,0.0,0.0,0.0,-0.01004245,0.17244832,0.51089096,-0.43064046,0.21807903,0.9917199,-0.44141692,-0.1631229,0.075720266,-0.5395937,0.077361785,-0.027885223,0.10151118,-0.010807915,0.07615929,-0.04245713,-0.061690226,0.04422488,0.056892745,0.016069297,0.032980595,-0.005668008,-0.08959477,0.052897397,0.06304884,3.0,2.197443,-3.0,3.0,2.9987876,-3.0,-3.0,0.16538362,-3.0,3.0,-1.1815447,-3.0,3.0,2.1070027,-3.0,3.0,2.774289,-3.0,-3.0,0.28213423,-3.0,3.0,-1.160128,-3.0
2025-06-05 17:23:39.911,0.08190225,-0.024201734,0.09320485,0.31456086,-0.003570329,-0.03489986,0.0,0.0,0.0,-0.01055763,0.17079476,0.5289887,-0.42378032,0.21663013,1.005989,-0.4375573,-0.15786275,0.08697208,-0.5436615,0.06765478,-0.02751366,0.14667186,0.02601715,0.060972877,-0.012607152,-0.06973952,0.0073202676,0.032362103,0.06635807,0.087221846,-0.0464744,-0.048627798,0.024284614,0.018288754,3.0,2.1070027,-3.0,3.0,2.774289,-3.0,-3.0,0.28213423,-3.0,3.0,-1.160128,-3.0,3.0,1.6114668,-3.0,3.0,3.0,-3.0,-3.0,0.06851725,-3.0,3.0,-0.7818474,-3.0
2025-06-05 17:23:39.930,0.012807995,-0.03762007,-0.024876582,0.30458662,-0.052642506,-0.03238904,0.0,0.0,0.0,-0.011361284,0.16506931,0.5291113,-0.41392216,0.21597531,1.0145923,-0.4362666,-0.16071047,0.07715298,-0.53994167,0.062465098,-0.04536059,0.17988387,-0.038347516,0.032740507,-0.028633358,-0.018656258,-0.027990125,-0.028798064,-0.05212523,-0.067424804,-0.059925407,0.045975562,-0.046657577,0.04746845,3.0,1.6114668,-3.0,3.0,3.0,-3.0,-3.0,0.06851725,-3.0,3.0,-0.7818474,-3.0,3.0,2.1210847,-3.0,3.0,2.6368773,-3.0,-3.0,0.5721028,-3.0,3.0,-1.3625443,-3.0
2025-06-05 17:23:39.950,0.08062766,-0.09783093,0.07945522,0.30363688,-0.03239573,-0.0057737376,0.0,0.0,0.0,-0.011694596,0.16173339,0.5268685,-0.4090402,0.22110616,1.0274258,-0.4169192,-0.16121319,0.08000991,-0.5450065,0.04461178,-0.055557303,0.19761325,-0.05136344,0.037333876,0.09110357,-0.04161638,-0.00549528,-0.050326876,0.04916721,-0.009491401,-0.075750425,-0.021808391,-0.091405295,0.15170217,3.0,2.1210847,-3.0,3.0,2.6368773,-3.0,-3.0,0.5721028,-3.0,3.0,-1.3625443,-3.0,3.0,1.6548475,-3.0,3.0,2.8853896,-3.0,-3.0,0.19217817,-3.0,3.0,-0.84993213,-3.0
2025-06-05 17:23:39.970,-0.022921214,-0.09732886,-0.01783371,0.35104778,-0.07617788,-0.017068539,0.0,0.0,0.0,-0.012290792,0.16689758,0.5292657,-0.4057048,0.20818359,1.0354671,-0.41967344,-0.15270296,0.09408346,-0.5439758,0.039024007,-0.07161432,0.22321603,0.047951993,-0.056260895,-0.04064109,0.013753187,0.0063744914,-0.020916581,-0.040372167,0.032508444,0.07006067,0.00372643,0.022170775,0.019124385,3.0,1.6548475,-3.0,3.0,2.8853896,-3.0,-3.0,0.19217817,-3.0,3.0,-0.84993213,-3.0,3.0,2.1595907,-3.0,3.0,2.7092052,-3.0,-3.0,0.34947067,-3.0,3.0,-1.3595672,-3.0
2025-06-05 17:23:39.993,-0.026193054,-0.11667943,0.061797842,0.29166153,-0.07802751,-0.04870928,0.0,0.0,0.0,-0.012566314,0.15629558,0.535121,-0.3833115,0.21154833,1.0386294,-0.4190542,-0.15702564,0.096378826,-0.5464939,0.046025977,-0.0771623,0.2528191,0.03535335,-0.0029600614,0.07769244,-0.06555318,-0.02370804,-0.06953587,-0.022235595,0.018679824,-0.04162673,-0.01943899,0.016255608,0.019311678,3.0,2.1595907,-3.0,3.0,2.7092052,-3.0,-3.0,0.34947067,-3.0,3.0,-1.3595672,-3.0,3.0,1.6665609,-3.0,3.0,2.899947,-3.0,-3.0,0.21516882,-3.0,3.0,-0.9827494,-3.0
2025-06-05 17:23:40.011,-0.06814815,-0.044282656,0.037005577,0.3586698,-0.06332526,0.015347093,0.0,0.0,0.0,-0.012813176,0.15235402,0.5222874,-0.38877815,0.21841784,1.0356362,-0.43480545,-0.1476382,0.1144003,-0.5442868,0.0462732,-0.07801243,0.27784184,-0.06846629,0.053617675,-0.030444153,-0.01880861,-0.024031766,-0.04142818,0.023651619,0.024031788,-0.014542591,0.02494164,-0.02565282,0.10552202,3.0,1.6665609,-3.0,3.0,2.899947,-3.0,-3.0,0.21516882,-3.0,3.0,-0.9827494,-3.0,3.0,1.8926257,-3.0,3.0,2.7198431,-3.0,-3.0,0.21043085,-3.0,3.0,-1.2137794,-3.0
2025-06-05 17:23:40.030,-0.00358083,-0.05440875,0.027316738,0.31951848,-0.025752498,0.029866131,0.0,0.0,0.0,-0.01269761,0.15936287,0.5219572,-0.37309173,0.20423523,1.0386206,-0.4314773,-0.15805702,0.11083778,-0.527528,0.046586823,-0.09696567,0.28958556,0.06653232,0.0024540913,-0.006614182,0.04460683,0.022530816,-0.00074432546,0.065364,-0.006338083,-0.07087119,0.021970462,-0.07266808,0.1128629,3.0,1.8926257,-3.0,3.0,2.7198431,-3.0,-3.0,0.21043085,-3.0,3.0,-1.2137794,-3.0,3.0,1.8065945,-3.0,3.0,2.645584,-3.0,-3.0,0.29325563,-3.0,3.0,-1.0794282,-3.0
2025-06-05 17:23:40.051,-0.059905626,-0.075853564,0.021817312,0.32272336,-0.04966224,0.018973775,0.0,0.0,0.0,-0.012331635,0.15393569,0.531791,-0.3672813,0.19853047,1.02771,-0.4330108,-0.14597161,0.10449408,-0.52808887,0.036634587,-0.10257747,0.29604286,-0.03180648,-0.08301667,-0.049603373,0.053366773,0.0075190905,-0.04371732,-0.02654101,-0.024838533,0.031830825,0.071521655,0.0002314306,-0.009273443,3.0,1.8065945,-3.0,3.0,2.645584,-3.0,-3.0,0.29325563,-3.0,3.0,-1.0794282,-3.0,3.0,1.8045096,-3.0,3.0,2.6609423,-3.0,-3.0,0.22252528,-3.0,3.0,-1.1328987,-3.0
2025-06-05 17:23:40.071,-0.120416656,-0.104559004,-0.037249275,0.32786056,-0.083448276,-0.0076447274,0.0,0.0,0.0,-0.011858396,0.16130391,0.520544,-0.36260608,0.21048048,1.0323602,-0.42916095,-0.16131927,0.10510859,-0.5426156,0.05161824,-0.10622021,0.3066943,-0.01163363,0.02212004,0.083241925,-0.028793044,-0.08442708,-0.019036597,-0.035429846,0.017932864,-0.036902115,-0.03924436,0.019495802,-0.039906878,3.0,1.8045096,-3.0,3.0,2.6609423,-3.0,-3.0,0.22252528,-3.0,3.0,-1.1328987,-3.0,3.0,2.1692333,-3.0,3.0,2.3868833,-3.0,-3.0,0.42444003,-3.0,3.0,-1.401247,-3.0
2025-06-05 17:23:40.093,-0.038139388,-0.08898819,0.021783497,0.28670573,-0.052863013,-0.026734559,0.0,0.0,0.0,-0.0112351235,0.1670015,0.51377445,-0.35554773,0.21046974,1.0200697,-0.4379135,-0.14613663,0.099055916,-0.5387617,0.056046404,-0.0960155,0.314384,0.06048806,-0.012224474,-0.049705952,0.042627215,-0.019390022,-0.077767015,0.031076912,0.06215068,0.030603703,-0.030960547,-0.07738937,0.023813032,3.0,2.1692333,-3.0,3.0,2.3868833,-3.0,-3.0,0.42444003,-3.0,3.0,-1.401247,-3.0,3.0,1.9276428,-3.0,3.0,2.469599,-3.0,-3.0,0.16694956,-3.0,3.0,-1.0849864,-3.0
2025-06-05 17:23:40.111,-0.1358295,-0.09498151,0.04563576,0.28303796,-0.055327624,-0.0003691213,0.0,0.0,0.0,-0.011040311,0.16032805,0.50808734,-0.35653904,0.19933015,0.99263126,-0.44085616,-0.15154678,0.10980685,-0.54132754,0.05438798,-0.10827095,0.31112546,-0.003147383,-0.028850904,0.073108226,0.036763098,0.017739426,0.058102615,-0.013453422,-0.08417581,0.011112397,0.06479465,0.029048322,0.07234896,3.0,1.9276428,-3.0,3.0,2.469599,-3.0,-3.0,0.16694956,-3.0,3.0,-1.0849864,-3.0,3.0,1.4730397,-3.0,3.0,2.6709468,-3.0,-3.0,0.25647128,-3.0,3.0,-1.0244222,-3.0
2025-06-05 17:23:40.131,-0.09172548,7.559293e-05,0.024590546,0.2806772,-0.11363673,0.04130191,0.0,0.0,0.0,-0.010849541,0.15334474,0.49883607,-0.36041966,0.19333443,0.98783684,-0.44908193,-0.1644706,0.095767796,-0.51157844,0.08034904,-0.10679986,0.30855367,0.058092438,-0.08008084,-0.026107268,-0.021451347,-0.07662452,-0.0015779879,-0.050451532,-0.019089656,0.06064461,-0.009041359,-0.021262981,-0.07894258,3.0,1.4730397,-3.0,3.0,2.6709468,-3.0,-3.0,0.25647128,-3.0,3.0,-1.0244222,-3.0,3.0,1.9223229,-3.0,3.0,2.8181324,-3.0,-3.0,0.23083554,-3.0,3.0,-1.1034647,-3.0
2025-06-05 17:23:40.151,-0.06548427,0.029194906,-0.02366167,0.2876217,-0.13420734,0.008650748,0.0,0.0,0.0,-0.010488373,0.16285037,0.5035966,-0.3422551,0.21333352,0.9794574,-0.4607894,-0.16285615,0.07793213,-0.49363407,0.08572364,-0.09957485,0.29343274,-0.0369228,0.046866126,0.0053903335,0.024271935,0.031976152,-0.09453569,-0.062971815,-0.05487023,0.06974122,0.06064183,0.021899963,-0.11086482,3.0,1.9223229,-3.0,3.0,2.8181324,-3.0,-3.0,0.23083554,-3.0,3.0,-1.1034647,-3.0,3.0,1.9198911,-3.0,3.0,2.4807768,-3.0,-3.0,0.30170912,-3.0,3.0,-1.3179619,-3.0
2025-06-05 17:23:40.171,-0.10427243,-0.043752663,0.08057941,0.24114338,-0.14753222,0.002582933,0.0,0.0,0.0,-0.010137742,0.16380417,0.51188093,-0.34512287,0.20685051,0.96795857,-0.44658324,-0.15670075,0.07172062,-0.4996338,0.082634114,-0.09618405,0.29086187,-0.015794381,-0.043253925,-0.04302464,-0.046337552,0.0076092663,0.05586173,-0.05242648,-0.080678955,0.011273812,0.0070211575,0.027905043,0.023728898,3.0,1.9198911,-3.0,3.0,2.4807768,-3.0,-3.0,0.30170912,-3.0,3.0,-1.3179619,-3.0,3.0,1.5455973,-3.0,3.0,2.74762,-3.0,-3.0,0.1496387,-3.0,3.0,-0.871185,-3.0
2025-06-05 17:23:40.194,-0.11115837,0.016298212,0.0076209577,0.24119905,-0.097228765,0.036793314,0.0,0.0,0.0,-0.010379594,0.17904449,0.5022144,-0.34778583,0.21095821,0.9656692,-0.46445197,-0.16622667,0.072621316,-0.4866755,0.089007504,-0.0717199,0.26694107,-0.009352715,0.00435575,0.08426109,-0.008661701,0.053919252,-0.05649959,-0.03431619,-0.038358763,0.060022123,-0.006183597,-0.040159453,-0.016687328,3.0,1.5455973,-3.0,3.0,2.74762,-3.0,-3.0,0.1496387,-3.0,3.0,-0.871185,-3.0,3.0,1.801836,-3.0,3.0,2.80174,-3.0,-3.0,0.31915754,-3.0,3.0,-1.1343378,-3.0
2025-06-05 17:23:40.211,-0.08235535,0.040846873,0.051733427,0.2513478,-0.050659593,0.0320973,0.0,0.0,0.0,-0.010485399,0.19116664,0.49880156,-0.33371067,0.21981649,0.9712419,-0.46511358,-0.16953698,0.075501926,-0.4818126,0.10429263,-0.073304765,0.24657346,0.028707897,-0.07171062,0.06865806,-0.04611665,-0.043689176,-0.090980865,-0.0089475075,0.06993895,-0.004614431,0.00012885864,-0.05142679,-0.09673996,3.0,1.801836,-3.0,3.0,2.80174,-3.0,-3.0,0.31915754,-3.0,3.0,-1.1343378,-3.0,3.0,1.9573127,-3.0,3.0,3.0,-3.0,-3.0,0.1385241,-3.0,3.0,-0.9583958,-3.0
2025-06-05 17:23:40.231,-0.09941534,0.066323735,-0.027809747,0.23266016,-0.12720011,0.0028966398,0.0,0.0,0.0,-0.010589664,0.18044631,0.5090237,-0.32725903,0.20856532,0.9611457,-0.48431095,-0.15306532,0.060184825,-0.4881621,0.11867546,-0.06946305,0.22589023,-0.051054236,-0.0044408976,-0.038017023,0.0792271,-0.06215363,0.019073948,-0.049293015,-0.037610017,0.07060011,0.055567138,0.054844394,-0.0054162396,3.0,1.9573127,-3.0,3.0,3.0,-3.0,-3.0,0.1385241,-3.0,3.0,-0.9583958,-3.0,3.0,2.255,-3.0,3.0,2.5890749,-3.0,-3.0,0.3252297,-3.0,3.0,-1.4631557,-3.0
2025-06-05 17:23:40.251,-0.13138372,0.044036508,0.10138355,0.2041751,-0.13767567,-0.04911326,0.0,0.0,0.0,-0.010619372,0.1923384,0.515472,-0.32887042,0.2278937,0.9420645,-0.4789024,-0.15796255,0.074989736,-0.4859788,0.11290619,-0.049399234,0.19072121,-0.047732335,0.05013848,-0.033564825,0.07556444,-0.0154366465,-0.003312009,0.027837496,-0.024862736,-0.018764773,0.04858257,0.051502332,-0.11420298,3.0,2.255,-3.0,3.0,2.5890749,-3.0,-3.0,0.3252297,-3.0,3.0,-1.4631557,-3.0,3.0,1.4710275,-3.0,3.0,2.999955,-3.0,-3.0,0.068934485,-3.0,3.0,-0.71834344,-3.0
2025-06-05 17:23:40.272,-0.18650222,0.0401791,0.042437896,0.26014403,-0.04420802,0.0017686046,0.0,0.0,0.0,-0.01135949,0.20875877,0.51854396,-0.32022288,0.2187149,0.9454054,-0.49402013,-0.16633245,0.058179613,-0.47991586,0.1332453,-0.05226917,0.18528879,-0.02314505,0.028952276,-0.013731391,0.014470453,-0.026304707,-0.09919672,-0.05266603,-0.03749615,0.044913527,0.07454442,0.03467617,0.009437929,3.0,1.4710275,-3.0,3.0,2.999955,-3.0,-3.0,0.068934485,-3.0,3.0,-0.71834344,-3.0,3.0,1.7307154,-3.0,3.0,2.9972925,-3.0,-3.0,0.29420525,-3.0,3.0,-1.0755842,-3.0
2025-06-05 17:23:40.295,-0.0914787,-0.002045798,0.0051642274,0.21239641,-0.05762495,0.038412474,0.0,0.0,0.0,-0.011803406,0.20862755,0.5020426,-0.31863073,0.21001448,0.947916,-0.510378,-0.17463174,0.058510184,-0.48295715,0.13192128,-0.045909233,0.15834261,-0.013944103,0.056929115,0.08517113,-0.06281995,-0.043340433,0.041061092,-0.031224497,-0.054088317,-0.044433102,0.047177732,0.021252902,-0.017820155,3.0,1.7307154,-3.0,3.0,2.9972925,-3.0,-3.0,0.29420525,-3.0,3.0,-1.0755842,-3.0,3.0,1.9588213,-3.0,3.0,2.811936,-3.0,-3.0,0.43155843,-3.0,3.0,-1.1991801,-3.0
2025-06-05 17:23:40.311,-0.0805493,0.025435772,0.05625312,0.1969809,-0.07211592,0.039758716,0.0,0.0,0.0,-0.012129506,0.20676878,0.51611537,-0.3109414,0.21738225,0.94476074,-0.5154672,-0.16624774,0.06014226,-0.46942762,0.13589792,-0.03463915,0.13335377,0.049964026,0.014980384,-0.014940958,-0.05974785,0.055611726,0.058663126,0.03928535,-0.018721633,0.057328515,-0.0039020882,0.05720288,0.013728795,3.0,1.9588213,-3.0,3.0,2.811936,-3.0,-3.0,0.43155843,-3.0,3.0,-1.1991801,-3.0,3.0,1.6556529,-3.0,3.0,2.9675457,-3.0,-3.0,0.12498264,-3.0,3.0,-0.9220795,-3.0
2025-06-05 17:23:40.332,-0.13870174,0.03721246,0.076428786,0.19527353,-0.104397416,-0.04781256,0.0,0.0,0.0,-0.013130399,0.22037119,0.5126499,-0.30168766,0.22391172,0.94278294,-0.50882787,-0.17370917,0.06884671,-0.4781028,0.12997104,-0.04842123,0.11584374,0.046691634,-0.036678616,0.036250792,-0.022182206,0.010206444,0.051034622,-0.040907614,0.0413919,-0.054624747,0.05098801,0.013428726,-0.060380153,3.0,1.6556529,-3.0,3.0,2.9675457,-3.0,-3.0,0.12498264,-3.0,3.0,-0.9220795,-3.0,3.0,1.7539243,-3.0,3.0,3.0,-3.0,-3.0,0.24955182,-3.0,3.0,-0.7908928,-3.0
2025-06-05 17:23:40.352,-0.070054986,0.04756738,0.046025418,0.16856304,-0.12174221,0.02008397,0.0,0.0,0.0,-0.014149025,0.24225657,0.50200313,-0.2812373,0.21767691,0.946797,-0.5231289,-0.17135686,0.05595036,-0.47112846,0.14843996,-0.030288748,0.11418987,0.03450375,0.00018792484,0.07840851,-0.07370265,-0.0022628761,-0.04821209,-0.07454502,0.07265925,0.009901514,-0.060405433,0.070425875,-0.024631264,3.0,1.7539243,-3.0,3.0,3.0,-3.0,-3.0,0.24955182,-3.0,3.0,-0.7908928,-3.0,3.0,2.0477529,-3.0,3.0,3.0,-3.0,-3.0,0.19668214,-3.0,3.0,-1.0709729,-3.0
2025-06-05 17:23:40.372,-0.07647303,-0.01562052,0.035547644,0.17290966,-0.05291238,-0.018032316,0.0,0.0,0.0,-0.015035918,0.2380839,0.49609518,-0.28661373,0.19285172,0.9345241,-0.52912074,-0.16875853,0.065084204,-0.46751714,0.15247922,-0.041567955,0.094803825,0.04883956,0.046598762,0.06783631,-0.07785765,-0.02470106,-0.019065248,-0.042379856,0.058168422,-0.018709352,-0.025382677,0.07524122,-0.029982245,3.0,2.0477529,-3.0,3.0,3.0,-3.0,-3.0,0.19668214,-3.0,3.0,-1.0709729,-3.0,3.0,2.026092,-3.0,3.0,3.0,-3.0,-3.0,0.23499064,-3.0,3.0,-1.078862,-3.0
2025-06-05 17:23:40.394,-0.004974683,0.025010685,0.121781155,0.1872579,-0.085875936,0.019126082,0.0,0.0,0.0,-0.01618737,0.2683599,0.493315,-0.27580103,0.19183643,0.95173544,-0.5336389,-0.17578346,0.06194683,-0.47482297,0.146426,-0.037331153,0.08930063,0.048647873,-0.0389595,0.032125127,-0.029149225,-0.03296211,0.054065406,-0.033486187,-0.028967971,-0.044639997,0.041329864,0.008694551,0.025044436,3.0,2.026092,-3.0,3.0,3.0,-3.0,-3.0,0.23499064,-3.0,3.0,-1.078862,-3.0,3.0,1.5734912,-3.0,3.0,3.0,-3.0,-3.0,0.113277,-3.0,3.0,-0.6317665,-3.0
2025-06-05 17:23:40.412,-0.12932155,0.0074592186,0.08633904,0.16300581,-0.10761634,0.025684059,0.0,0.0,0.0,-0.01771576,0.268265,0.49939665,-0.26293296,0.19561954,0.9568311,-0.5430582,-0.17163022,0.055301007,-0.45713076,0.16009744,-0.041686922,0.073390596,-0.017434608,0.055336226,-0.03263061,-0.04612154,0.034401193,0.023953697,0.06424915,0.043213636,-0.009235122,-0.035744436,0.055275835,-0.059039358,3.0,1.5734912,-3.0,3.0,3.0,-3.0,-3.0,0.113277,-3.0,3.0,-0.6317665,-3.0,3.0,1.7756559,-3.0,3.0,3.0,-3.0,-3.0,0.16341428,-3.0,3.0,-0.7201918,-3.0
2025-06-05 17:23:40.432,-0.11267675,0.045713525,0.07866465,0.12627505,-0.111877844,0.013151795,0.0,0.0,0.0,-0.018955821,0.28494456,0.5005284,-0.2599303,0.17990108,0.9452095,-0.5414059,-0.18350106,0.05509266,-0.46347657,0.17174307,-0.03245582,0.06009051,0.045725454,0.041486308,-0.02640296,-0.03757589,0.03745483,-0.024334252,0.019939983,-0.03521906,-0.009263306,0.040677845,-0.026915876,-0.03162583,3.0,1.7756559,-3.0,3.0,3.0,-3.0,-3.0,0.16341428,-3.0,3.0,-0.7201918,-3.0,3.0,1.612939,-3.0,3.0,3.0,-3.0,-3.0,0.25516516,-3.0,3.0,-0.71001166,-3.0
2025-06-05 17:23:40.452,-0.083239995,0.03543694,0.011516638,0.14287487,-0.058166087,0.011367593,0.0,0.0,0.0,-0.019865718,0.2782438,0.49604347,-0.24790843,0.18289444,0.9514862,-0.5437865,-0.18192604,0.046734743,-0.44889838,0.1663143,-0.024817858,0.03330896,0.04822293,0.01367179,0.008151947,-0.06916614,0.049246456,0.016823165,0.05990091,-0.012747754,-0.061632395,0.058533005,0.00046138387,-0.026846875,3.0,1.612939,-3.0,3.0,3.0,-3.0,-3.0,0.25516516,-3.0,3.0,-0.71001166,-3.0,3.0,2.037163,-3.0,3.0,3.0,-3.0,-3.0,0.39633703,-3.0,3.0,-0.96386784,-3.0
2025-06-05 17:23:40.472,-0.0046452554,0.052627966,0.103214554,0.16802207,-0.021854123,-0.026134092,0.0,0.0,0.0,-0.020679794,0.30106318,0.48484755,-0.24859078,0.18012989,0.9599124,-0.54132706,-0.18460748,0.058777645,-0.45882994,0.16250837,-0.020348119,0.02238437,0.04880804,0.037218664,0.08049564,0.071899645,-0.069921836,-0.07647023,0.05050313,0.018049102,-0.03670307,-0.013574995,0.04845226,-0.012536545,3.0,2.037163,-3.0,3.0,3.0,-3.0,-3.0,0.39633703,-3.0,3.0,-0.96386784,-3.0,3.0,1.7148188,-3.0,3.0,3.0,-3.0,-3.0,0.06176274,-3.0,3.0,-0.6924736,-3.0
2025-06-05 17:23:40.494,-0.0637286,0.042637113,0.0837214,0.14088042,-0.074129045,-0.00626571,0.0,0.0,0.0,-0.021907862,0.3119479,0.4943792,-0.24470326,0.18278682,0.9534109,-0.5424719,-0.1828331,0.055749804,-0.44394782,0.17249247,-0.022223221,0.021557318,0.074891604,-0.064999394,0.04747523,-0.039615918,0.009123768,0.028500276,-0.06408901,-0.07941448,-0.020244658,-0.06962179,-0.058110625,-0.09429839,3.0,1.7148188,-3.0,3.0,3.0,-3.0,-3.0,0.06176274,-3.0,3.0,-0.6924736,-3.0,3.0,1.6898638,-3.0,3.0,3.0,-3.0,-3.0,0.2627471,-3.0,3.0,-0.45983407,-3.0
2025-06-05 17:23:40.513,-0.11658903,0.06581393,0.069217846,0.17349076,-0.022318045,-0.039295323,0.0,0.0,0.0,-0.023075841,0.3151997,0.49023214,-0.22148989,0.16508093,0.9519348,-0.54106075,-0.17115656,0.058089286,-0.44631982,0.17817414,-0.014203595,-0.003913187,-0.02363784,-0.030020256,-0.040345058,-0.063450895,0.0039286003,-0.0036335303,0.021482373,-0.049683426,0.010213651,-0.04377146,0.08713817,-0.05216214,3.0,1.6898638,-3.0,3.0,3.0,-3.0,-3.0,0.2627471,-3.0,3.0,-0.45983407,-3.0,3.0,1.9034487,-3.0,3.0,3.0,-3.0,-3.0,0.18932323,-3.0,3.0,-0.6676926,-3.0
2025-06-05 17:23:40.533,-0.07843296,0.06883185,0.032589626,0.12465194,-0.009175156,-0.049183566,0.0,0.0,0.0,-0.023819996,0.31502107,0.4854391,-0.21608627,0.16975254,0.9509677,-0.54128104,-0.18872741,0.05751107,-0.44292596,0.16806546,-0.01407918,-0.005185112,-0.019748744,0.06322652,-0.00581425,-0.0416858,0.048317928,0.028926192,0.024082594,-0.012249259,-0.0481472,-0.011357138,0.08300536,0.007199157,3.0,1.9034487,-3.0,3.0,3.0,-3.0,-3.0,0.18932323,-3.0,3.0,-0.6676926,-3.0,3.0,2.0052135,-3.0,3.0,3.0,-3.0,-3.0,0.28153235,-3.0,3.0,-0.92965,-3.0
2025-06-05 17:23:40.553,-0.0844028,-0.009059445,0.010898561,0.14399002,-0.01056304,-0.048759088,0.0,0.0,0.0,-0.02443324,0.32810804,0.503849,-0.21136409,0.167022,0.94504035,-0.54503065,-0.18890403,0.0678343,-0.44391742,0.1699815,-0.017301016,-0.016183244,0.022264417,0.07315125,-0.05193463,0.017503653,0.06062705,0.03325313,0.04765771,0.008448263,-0.010206891,-0.039604947,-0.03030716,-0.025198936,3.0,2.0052135,-3.0,3.0,3.0,-3.0,-3.0,0.28153235,-3.0,3.0,-0.92965,-3.0,3.0,2.0486403,-3.0,3.0,2.9003685,-3.0,-3.0,0.32896703,-3.0,3.0,-0.9624401,-3.0
2025-06-05 17:23:40.573,-0.07170281,0.021788597,0.07078175,0.15727068,-0.017828358,0.02282794,0.0,0.0,0.0,-0.0253996,0.3377343,0.49059942,-0.21404621,0.16334726,0.95243454,-0.53927404,-0.17876041,0.06927868,-0.4442349,0.18041936,-0.022546683,-0.011713449,0.06441507,0.05714631,0.0058597894,-0.022698143,-0.083826974,0.003968962,-0.03942684,0.074913315,0.0012389326,-0.0068018506,-0.08380866,0.005829284,3.0,2.0486403,-3.0,3.0,2.9003685,-3.0,-3.0,0.32896703,-3.0,3.0,-0.9624401,-3.0,3.0,1.862486,-3.0,3.0,3.0,-3.0,-3.0,0.09240012,-3.0,3.0,-0.77314633,-3.0
2025-06-05 17:23:40.594,-0.0037002084,0.030091844,0.067393444,0.10474933,-0.030454526,-0.014936773,0.0,0.0,0.0,-0.026888162,0.341742,0.4962537,-0.22852698,0.16996016,0.9389281,-0.54918915,-0.19212566,0.054316532,-0.44003564,0.17155904,-0.01940245,-0.015098735,0.021241473,0.0395314,-0.0730222,-0.06790758,-0.04566255,0.062248435,0.024151778,-0.029182477,0.090529785,0.0011585251,-0.03855456,0.05318063,3.0,1.862486,-3.0,3.0,3.0,-3.0,-3.0,0.09240012,-3.0,3.0,-0.77314633,-3.0,3.0,1.8190725,-3.0,3.0,3.0,-3.0,-3.0,0.21476214,-3.0,3.0,-0.713273,-3.0
2025-06-05 17:23:40.613,-0.059729394,-0.023678022,0.10408403,0.093438186,-0.025358032,-0.028626502,0.0,0.0,0.0,-0.02831812,0.3458055,0.49753526,-0.23323618,0.17308441,0.93575037,-0.5455747,-0.2022426,0.062981516,-0.42885146,0.18375188,-0.02507494,-0.017682383,0.08473407,-0.033608142,0.0056671477,0.02083807,-0.0005808202,0.024191583,0.06014467,-0.06311924,0.052181724,-0.01101203,0.04018043,0.04827059,3.0,1.8190725,-3.0,3.0,3.0,-3.0,-3.0,0.21476214,-3.0,3.0,-0.713273,-3.0,3.0,1.6495908,-3.0,3.0,3.0,-3.0,-3.0,0.11409061,-3.0,3.0,-0.48051104,-3.0
2025-06-05 17:23:40.634,-0.06124443,-0.045664746,-0.020504033,0.080805436,-0.08251221,0.03164786,0.0,0.0,0.0,-0.029474014,0.3640091,0.504959,-0.22635637,0.16685513,0.94931173,-0.53730303,-0.19326611,0.05127315,-0.4226211,0.16858216,-0.026504098,-0.023016453,0.021115419,0.008040685,0.052277572,-0.06828865,0.08184496,0.041454844,0.023935419,-0.07898547,0.019695418,0.071341895,0.06276241,0.052010693,3.0,1.6495908,-3.0,3.0,3.0,-3.0,-3.0,0.11409061,-3.0,3.0,-0.48051104,-3.0,3.0,2.1133804,-3.0,3.0,2.8286183,-3.0,-3.0,0.4819951,-3.0,3.0,-1.0919819,-3.0
2025-06-05 17:23:40.653,-0.04529141,-0.0134429615,0.10790707,0.10888689,-0.054099225,-0.0418542,0.0,0.0,0.0,-0.030096231,0.35663542,0.5078655,-0.23044491,0.16118428,0.9423884,-0.5437115,-0.20386511,0.06674563,-0.4141652,0.17613062,-0.031563986,-0.04177832,-0.022813313,-0.045829803,-0.013310692,0.02208702,-0.09417868,-0.019863058,-0.042463522,-0.0555575,0.0030871888,0.02223923,-0.0022540311,0.021401092,3.0,2.1133804,-3.0,3.0,2.8286183,-3.0,-3.0,0.4819951,-3.0,3.0,-1.0919819,-3.0,3.0,1.79444,-3.0,3.0,3.0,-3.0,-3.0,0.03105693,-3.0,3.0,-0.6014573,-3.0
2025-06-05 17:23:40.673,-0.055594362,-0.035628807,0.01914498,0.109315194,-0.0752367,0.040645022,0.0,0.0,0.0,-0.03112492,0.3691776,0.51831645,-0.22527674,0.16374336,0.93947506,-0.542018,-0.20106034,0.05282887,-0.42211714,0.16870503,-0.023965452,-0.041314106,-0.034783546,-0.05841455,-0.066199176,0.0087556755,-0.004983057,-0.020303695,0.06308896,0.01876153,0.02507937,-0.018859709,0.06955241,0.03990922,3.0,1.79444,-3.0,3.0,3.0,-3.0,-3.0,0.03105693,-3.0,3.0,-0.6014573,-3.0,3.0,2.3072107,-3.0,3.0,2.9760554,-3.0,-3.0,0.28434855,-3.0,3.0,-0.9951833,-3.0
2025-06-05 17:23:40.693,0.028859144,0.025122754,0.066958636,0.061765905,-0.043768343,-0.0046975752,0.0,0.0,0.0,-0.031980418,0.37187347,0.51956654,-0.24189843,0.17866981,0.9374675,-0.535347,-0.20584475,0.05889402,-0.41402158,0.17376055,-0.020639816,-0.033465937,0.019155927,-0.024896452,-0.03460444,0.059482288,0.0481969,0.009192241,0.01841614,-0.005337851,-0.0053512612,0.023076221,0.057895064,-0.029436983,3.0,2.3072107,-3.0,3.0,2.9760554,-3.0,-3.0,0.28434855,-3.0,3.0,-0.9951833,-3.0,3.0,1.8817604,-3.0,3.0,3.0,-3.0,-3.0,0.119414255,-3.0,3.0,-0.75407606,-3.0
2025-06-05 17:23:40.714,-0.028111551,-0.031966954,0.075900495,0.13312434,-0.071885854,0.040391576,0.0,0.0,0.0,-0.032872364,0.3819783,0.5250539,-0.23000133,0.17794421,0.94350773,-0.5353591,-0.2042315,0.06520101,-0.40030864,0.16842328,-0.024517307,-0.033524953,0.027940437,0.024439832,-0.010038161,-0.076440744,0.011057132,-0.06149532,-0.07542904,0.063067436,-0.053606328,-0.05737883,0.054754537,-0.026459036,3.0,1.8817604,-3.0,3.0,3.0,-3.0,-3.0,0.119414255,-3.0,3.0,-0.75407606,-3.0,3.0,1.9492013,-3.0,3.0,3.0,-3.0,-3.0,0.12981431,-3.0,3.0,-0.75476235,-3.0
2025-06-05 17:23:40.734,-0.07028197,0.00059212313,0.022193803,0.067831084,-0.081850156,-0.0382851,0.0,0.0,0.0,-0.033675756,0.37411082,0.52374923,-0.2461779,0.179002,0.9434275,-0.54561645,-0.20359044,0.056530017,-0.39187607,0.1767904,-0.020612456,-0.03642678,0.011061789,0.048163645,-0.034062836,-0.027746843,-0.03796381,-0.0015728025,0.041060776,-0.06898401,0.011672509,0.056448895,-0.04154076,0.062345136,3.0,1.9492013,-3.0,3.0,3.0,-3.0,-3.0,0.12981431,-3.0,3.0,-0.75476235,-3.0,3.0,2.0317273,-3.0,3.0,2.9280071,-3.0,-3.0,0.3638767,-3.0,3.0,-0.9370677,-3.0
2025-06-05 17:23:40.754,-0.007972022,-0.002150751,0.02962418,0.13015905,-0.082028106,0.017059945,0.0,0.0,0.0,-0.034186695,0.38470325,0.5286998,-0.24564478,0.16156365,0.93556756,-0.53985727,-0.20479372,0.0666442,-0.40323702,0.16807628,-0.030550567,-0.03948727,0.072724044,0.08636227,-0.062091287,0.058009587,0.06666818,0.01512432,-0.035615433,0.08035124,-0.059255697,-0.010326271,-0.045559302,-0.013785644,3.0,2.0317273,-3.0,3.0,2.9280071,-3.0,-3.0,0.3638767,-3.0,3.0,-0.9370677,-3.0,3.0,2.0086646,-3.0,3.0,2.9017546,-3.0,-3.0,0.19246845,-3.0,3.0,-0.98112136,-3.0
2025-06-05 17:23:40.776,-0.031866115,0.020687941,0.0834306,0.05490773,-0.027472127,-0.041822057,0.0,0.0,0.0,-0.03489059,0.38203582,0.5500519,-0.24431427,0.17390673,0.9343916,-0.548122,-0.22074011,0.059244167,-0.39316675,0.16215016,-0.031856928,-0.039025594,-0.010627843,0.07965805,0.04141137,-0.025139607,0.05179217,0.07452414,0.019694675,0.06444148,-0.012744893,0.0011530968,-0.028405285,-0.044711247,3.0,2.0086646,-3.0,3.0,2.9017546,-3.0,-3.0,0.19246845,-3.0,3.0,-0.98112136,-3.0,3.0,1.6248415,-3.0,3.0,3.0,-3.0,-3.0,0.1328675,-3.0,3.0,-0.56621975,-3.0
2025-06-05 17:23:40.794,-0.042626344,0.03861849,0.014628443,0.07832415,-0.0767327,0.028702518,0.0,0.0,0.0,-0.0358008,0.38584688,0.55256903,-0.25878233,0.17150487,0.94549996,-0.54215866,-0.21159343,0.058262266,-0.39174792,0.17518431,-0.027843177,-0.037357103,0.017047685,-0.0015423872,0.013295973,0.05081956,0.061915718,0.010032079,0.06783373,0.058415573,-0.008180497,-0.016936833,-0.03657487,0.018724104,3.0,1.6248415,-3.0,3.0,3.0,-3.0,-3.0,0.1328675,-3.0,3.0,-0.56621975,-3.0,3.0,2.1046948,-3.0,3.0,3.0,-3.0,-3.0,0.2992161,-3.0,3.0,-0.90856475,-3.0
2025-06-05 17:23:40.814,-0.041761477,-0.04404159,-0.031605154,0.079231374,-0.06922877,0.028105704,0.0,0.0,0.0,-0.036186058,0.39215186,0.5449296,-0.25363147,0.1647756,0.9294434,-0.5480255,-0.21376857,0.06680415,-0.37726623,0.16937944,-0.03107742,-0.036435176,-0.036183376,-0.015201533,-0.03549436,0.071045615,0.0091271205,0.0065979958,0.023863684,-0.019279672,0.015941571,-0.029620495,0.034904517,-0.03942238,3.0,2.1046948,-3.0,3.0,3.0,-3.0,-3.0,0.2992161,-3.0,3.0,-0.90856475,-3.0,3.0,2.4162319,-3.0,3.0,2.6619008,-3.0,-3.0,0.32988566,-3.0,3.0,-1.1973741,-3.0
2025-06-05 17:23:40.835,0.05454858,-0.011827956,0.026170276,0.14926034,-0.06824221,-0.017502353,0.0,0.0,0.0,-0.03644606,0.38579515,0.553202,-0.24786265,0.17262413,0.93680984,-0.5464905,-0.21619636,0.06840224,-0.37302804,0.16998415,-0.041492365,-0.016943816,-0.03538882,0.050810046,0.03743324,-0.005171515,-0.02043429,0.04271711,-0.008969286,-0.005268614,-0.037484434,0.010702999,-0.037625607,-0.0029716846,3.0,2.4162319,-3.0,3.0,2.6619008,-3.0,-3.0,0.32988566,-3.0,3.0,-1.1973741,-3.0,3.0,1.8606298,-3.0,3.0,2.68753,-3.0,-3.0,0.18017523,-3.0,3.0,-0.90534955,-3.0
2025-06-05 17:23:40.854,-0.049074296,-0.007859212,0.002346072,0.084885485,-0.0557012,-0.00059483707,0.0,0.0,0.0,-0.037295595,0.3920227,0.57521397,-0.27140468,0.18205364,0.9044479,-0.5479647,-0.2146379,0.06091521,-0.37127072,0.17024516,-0.04580963,-0.026449924,0.038148165,-0.0024451613,-0.021220814,0.07022206,0.01935022,0.049691465,-0.013126825,0.021573959,0.03201375,-0.022072127,-0.060839053,-0.04029276,3.0,1.8606298,-3.0,3.0,2.68753,-3.0,-3.0,0.18017523,-3.0,3.0,-0.90534955,-3.0,3.0,1.9520102,-3.0,3.0,2.78985,-3.0,-3.0,0.29940027,-3.0,3.0,-0.9224321,-3.0
2025-06-05 17:23:40.877,-0.043523267,0.007841602,0.054618895,0.12741737,-0.08028591,-0.039199233,0.0,0.0,0.0,-0.038160432,0.38757098,0.56856674,-0.26577398,0.1724054,0.8905162,-0.5399514,-0.22759998,0.068322144,-0.3804035,0.16745341,-0.05067911,-0.0113622015,-0.047719784,-0.0011243518,0.05121719,0.04847105,-0.09029668,-0.05684955,0.016372995,-0.032058597,0.0020120502,0.049959697,-0.04766036,-0.056430154,3.0,1.9520102,-3.0,3.0,2.78985,-3.0,-3.0,0.29940027,-3.0,3.0,-0.9224321,-3.0,3.0,1.7751616,-3.0,3.0,3.0,-3.0,-3.0,0.21685378,-3.0,3.0,-0.789972,-3.0
2025-06-05 17:23:40.895,-0.032276005,-0.015239194,0.039943825,0.13743694,-0.03190244,-0.0009472447,0.0,0.0,0.0,-0.038758874,0.38693994,0.58065397,-0.260548,0.16115667,0.8862197,-0.53632134,-0.2249219,0.07337307,-0.37827894,0.15993056,-0.042385377,-0.0064322418,0.0021612323,0.04515035,0.063074626,-0.036013972,0.04974988,0.010624959,0.018331775,-0.0065626237,-0.020998586,0.06784864,0.0152199,-0.024231106,3.0,1.7751616,-3.0,3.0,3.0,-3.0,-3.0,0.21685378,-3.0,3.0,-0.789972,-3.0,3.0,1.6348678,-3.0,3.0,3.0,-3.0,-3.0,0.28117532,-3.0,3.0,-0.84453434,-3.0
2025-06-05 17:23:40.914,-0.03912617,0.017534893,-0.005393725,0.12010043,-0.05046863,0.017445857,0.0,0.0,0.0,-0.038860843,0.39534104,0.5791906,-0.2552872,0.16360272,0.9005262,-0.5536448,-0.21648636,0.067820676,-0.3787311,0.16157489,-0.030155407,0.00041270332,-0.016521879,0.03329784,-0.031452905,-0.03560782,0.008561264,-0.012710084,0.049065657,0.037206702,-0.03409427,-0.05110268,0.043232504,0.052699506,3.0,1.6348678,-3.0,3.0,3.0,-3.0,-3.0,0.28117532,-3.0,3.0,-0.84453434,-3.0,3.0,2.213307,-3.0,3.0,2.7099824,-3.0,-3.0,0.33850873,-3.0,3.0,-1.1788149,-3.0
2025-06-05 17:23:40.934,-0.0008268393,0.0054005827,0.035596035,0.1211122,-0.011898636,-0.043564186,0.0,0.0,0.0,-0.03854451,0.39372715,0.58144885,-0.25790992,0.16514899,0.9141989,-0.5461502,-0.22110723,0.07998737,-0.3779028,0.1634204,-0.051340558,-0.0048838058,0.027414551,0.018985152,-0.025672054,0.032712147,0.056617692,-0.0036945718,0.015550282,0.017383367,-0.030258698,0.0317826,0.004197126,-0.050473757,3.0,2.213307,-3.0,3.0,2.7099824,-3.0,-3.0,0.33850873,-3.0,3.0,-1.1788149,-3.0,3.0,1.7300501,-3.0,3.0,2.8056266,-3.0,-3.0,0.1797177,-3.0,3.0,-0.84908515,-3.0
2025-06-05 17:23:40.955,-0.02579332,-0.042166665,-0.055746526,0.10347457,-0.080179505,-0.032252282,0.0,0.0,0.0,-0.038528427,0.38516593,0.59421587,-0.25784272,0.17148457,0.9042842,-0.5440949,-0.22311136,0.080472745,-0.37330008,0.15991138,-0.04455232,0.00838531,0.015624759,-0.03247614,0.012407824,-0.022105563,0.0018523361,0.0001109831,-0.023009619,0.045468725,0.05010871,-0.056652833,-0.005909186,0.010593453,3.0,1.7300501,-3.0,3.0,2.8056266,-3.0,-3.0,0.1797177,-3.0,3.0,-0.84908515,-3.0,3.0,2.3538284,-3.0,3.0,2.5059807,-3.0,-3.0,0.4311697,-3.0,3.0,-1.3062387,-3.0
2025-06-05 17:23:40.977,0.048910744,-0.054323826,0.020266842,0.084614344,-0.08438862,-0.014059837,0.0,0.0,0.0,-0.038378384,0.3883678,0.59638435,-0.25886232,0.17125142,0.8784323,-0.53322625,-0.22842325,0.08518407,-0.36040086,0.15395838,-0.06388393,0.00959171,-0.02801528,0.046028245,-0.07957658,0.059181187,-0.10934863,0.003183343,0.032599427,0.0010322487,0.03981199,-0.03458843,-0.0542121,-0.0016491129,3.0,2.3538284,-3.0,3.0,2.5059807,-3.0,-3.0,0.4311697,-3.0,3.0,-1.3062387,-3.0,3.0,1.9350251,-3.0,3.0,2.4333766,-3.0,-3.0,0.14397113,-3.0,3.0,-0.99455744,-3.0
2025-06-05 17:23:40.994,0.059854563,0.013201022,-0.022794,0.058973145,-0.11061406,-0.019532356,0.0,0.0,0.0,-0.038590994,0.3899829,0.58442086,-0.27548096,0.1681491,0.8779846,-0.5193095,-0.23747227,0.078493334,-0.36727703,0.15557699,-0.06043997,0.010834441,-0.03573178,-0.04084748,-0.0815975,0.038648352,0.016496798,-0.013248794,-0.035025865,-0.02791802,0.002949428,0.054536555,-0.015680278,0.09068243,3.0,1.9350251,-3.0,3.0,2.4333766,-3.0,-3.0,0.14397113,-3.0,3.0,-0.99455744,-3.0,3.0,2.1807342,-3.0,3.0,2.309153,-3.0,-3.0,0.33934718,-3.0,3.0,-1.1804514,-3.0
2025-06-05 17:23:41.015,0.0011117908,-0.046284113,0.03643563,0.061871536,-0.051662758,0.047519628,0.0,0.0,0.0,-0.038883403,0.3975659,0.5880223,-0.2773478,0.1792163,0.8595702,-0.51803565,-0.23045246,0.079968885,-0.36767834,0.16331668,-0.0675712,0.029988082,-0.05892464,0.036596928,-0.051214967,0.030900257,0.013347334,0.031576406,-0.076209545,-0.076619975,-0.044022847,-0.081499875,-0.0014832937,0.06727919,3.0,2.1807342,-3.0,3.0,2.309153,-3.0,-3.0,0.33934718,-3.0,3.0,-1.1804514,-3.0,3.0,1.7317932,-3.0,3.0,2.379911,-3.0,-3.0,0.1572334,-3.0,3.0,-0.9266258,-3.0
2025-06-05 17:23:41.035,-0.047297593,0.0058610234,0.05428714,0.114685275,-0.11600445,0.02912771,0.0,0.0,0.0,-0.03934432,0.39317888,0.60326475,-0.28190714,0.1700313,0.8318713,-0.51626015,-0.2401873,0.08090617,-0.37408933,0.15058649,-0.08924348,0.035989895,-0.055201314,-0.011961537,0.024771994,-0.05685498,-0.021542676,0.046384253,-0.0672659,0.029426884,-0.054245505,0.015065518,0.04679332,-0.00049187406,3.0,1.7317932,-3.0,3.0,2.379911,-3.0,-3.0,0.1572334,-3.0,3.0,-0.9266258,-3.0,3.0,1.696587,-3.0,3.0,2.698871,-3.0,-3.0,0.17665605,-3.0,3.0,-0.8938543,-3.0
2025-06-05 17:23:41.055,-0.012110771,-0.012540232,-0.045327347,0.13933621,-0.09223925,-0.0038095082,0.0,0.0,0.0,-0.039531898,0.3812241,0.5873822,-0.28527778,0.16511618,0.8416226,-0.5000565,-0.23378369,0.07258901,-0.35744727,0.14675492,-0.09298902,0.031467453,0.036079094,-0.0045040245,0.04516999,0.056791507,0.0062278174,-0.058475465,0.068697155,-0.0006125343,-0.004216518,0.050300553,0.00073268503,0.003910737,3.0,1.696587,-3.0,3.0,2.698871,-3.0,-3.0,0.17665605,-3.0,3.0,-0.8938543,-3.0,3.0,2.163683,-3.0,3.0,2.6542587,-3.0,-3.0,0.4135,-3.0,3.0,-1.2682997,-3.0
2025-06-05 17:23:41.077,0.06958017,-0.0016376411,0.015826741,0.065129444,-0.113086596,0.027920848,0.0,0.0,0.0,-0.03914085,0.38593835,0.60199624,-0.2791435,0.1789625,0.8401357,-0.5112546,-0.23520601,0.072561346,-0.3703987,0.15084352,-0.08175669,0.03906024,-0.025462037,-0.05278912,-0.068631455,0.07536741,0.0029910498,0.033929452,-0.010102906,-0.03325707,-0.047160745,0.022619735,-0.04739378,-0.0554397,3.0,2.163683,-3.0,3.0,2.6542587,-3.0,-3.0,0.4135,-3.0,3.0,-1.2682997,-3.0,3.0,2.0061135,-3.0,3.0,2.6049857,-3.0,-3.0,0.2689039,-3.0,3.0,-1.0048661,-3.0
2025-06-05 17:23:41.096,-0.018581742,0.03649904,-0.047389828,0.07240779,-0.10756396,-0.017400507,0.0,0.0,0.0,-0.03892516,0.3729074,0.60679847,-0.2770651,0.18195581,0.8380812,-0.51895744,-0.23094362,0.07901006,-0.3809864,0.14763604,-0.084009126,0.028952511,0.049320374,-0.00977302,0.06342204,-0.07775738,-0.045999832,-0.025500398,0.05476089,0.035649076,0.008123087,0.022589011,0.07439236,0.017307866,3.0,2.0061135,-3.0,3.0,2.6049857,-3.0,-3.0,0.2689039,-3.0,3.0,-1.0048661,-3.0,3.0,2.2324631,-3.0,3.0,2.5002644,-3.0,-3.0,0.35739243,-3.0,3.0,-1.3545513,-3.0
2025-06-05 17:23:41.115,0.03367148,0.009623661,0.008051933,0.10836501,-0.07119885,-0.0038679894,0.0,0.0,0.0,-0.03878677,0.38971347,0.6028413,-0.2820217,0.17923777,0.84467494,-0.51701444,-0.23982026,0.07344217,-0.3865781,0.15722497,-0.09094162,0.03298802,-0.031693567,0.059971645,-0.07440506,-0.0527645,-0.043607205,-0.008539193,-0.05397508,0.0027272843,-0.08541519,-0.056639668,0.019699179,0.06169316,3.0,2.2324631,-3.0,3.0,2.5002644,-3.0,-3.0,0.35739243,-3.0,3.0,-1.3545513,-3.0,3.0,2.005975,-3.0,3.0,2.2152288,-3.0,-3.0,0.2654373,-3.0,3.0,-1.1116992,-3.0
2025-06-05 17:23:41.136,0.042115122,-0.016057774,0.006790853,0.09268411,-0.072803676,-0.014160384,0.0,0.0,0.0,-0.038925044,0.3850104,0.5961055,-0.2931399,0.1785648,0.8248597,-0.50467855,-0.23075485,0.07814867,-0.37867805,0.15535372,-0.09605394,0.038758934,-0.0044598253,0.05731014,-0.074684404,-0.03465111,-0.038915426,-0.04428895,0.049557574,0.032308385,-0.003331039,-0.07475985,0.045120567,-0.006949753,3.0,2.005975,-3.0,3.0,2.2152288,-3.0,-3.0,0.2654373,-3.0,3.0,-1.1116992,-3.0,3.0,1.9343151,-3.0,3.0,2.3986146,-3.0,-3.0,0.18859045,-3.0,3.0,-1.0456871,-3.0
2025-06-05 17:23:41.156,-0.035947785,-0.054494843,0.02336094,0.11585939,-0.116330326,-0.03624179,0.0,0.0,0.0,-0.039234463,0.37661296,0.59428316,-0.2956693,0.17187412,0.8137247,-0.49642435,-0.24013579,0.07294542,-0.3847988,0.1564218,-0.09694355,0.03489244,-0.06488779,-0.05238389,0.0084300395,-0.032591417,0.00048159808,0.0036679187,0.061630603,0.04097835,-0.06787278,-0.009269228,-0.0674347,-0.060363982,3.0,1.9343151,-3.0,3.0,2.3986146,-3.0,-3.0,0.18859045,-3.0,3.0,-1.0456871,-3.0,3.0,1.968484,-3.0,3.0,2.74333,-3.0,-3.0,0.2617547,-3.0,3.0,-0.86000794,-3.0
2025-06-05 17:23:41.177,-0.054850806,0.048636828,-0.05883247,0.1401426,-0.035462905,-0.040173758,0.0,0.0,0.0,-0.039327443,0.38627306,0.59721017,-0.30046842,0.16965039,0.8352029,-0.49924645,-0.23881473,0.06935722,-0.3848231,0.14122896,-0.106227525,0.039630618,0.0054583335,-0.0022317306,0.06307673,0.0030741163,-0.006586806,0.007048183,-0.0449743,-0.019010512,0.018246103,0.067426644,0.07056878,-0.063278764,3.0,1.968484,-3.0,3.0,2.74333,-3.0,-3.0,0.2617547,-3.0,3.0,-0.86000794,-3.0,3.0,2.1281648,-3.0,3.0,2.5379207,-3.0,-3.0,0.43290555,-3.0,3.0,-1.3848994,-3.0
2025-06-05 17:23:41.197,0.0034425315,0.002826051,0.034099717,0.09016678,-0.037229117,-0.034709204,0.0,0.0,0.0,-0.03888146,0.36881742,0.6072461,-0.30387557,0.1815166,0.83846456,-0.49808857,-0.23582345,0.08129945,-0.39700875,0.14210242,-0.11134931,0.03515378,-0.019562626,0.072920404,-0.012853602,0.06551125,-0.07221705,0.06792329,0.07525595,-0.058242943,-0.083124876,-0.07245159,-0.07968911,0.038243815,3.0,2.1281648,-3.0,3.0,2.5379207,-3.0,-3.0,0.43290555,-3.0,3.0,-1.3848994,-3.0,3.0,1.7395717,-3.0,3.0,2.5753949,-3.0,-3.0,0.33738154,-3.0,3.0,-0.843805,-3.0
2025-06-05 17:23:41.217,-0.042679083,0.050454468,-0.04227929,0.11810534,-0.03921256,0.03447921,0.0,0.0,0.0,-0.038641036,0.37582943,0.60341316,-0.28588215,0.16369706,0.8192458,-0.50370383,-0.23029396,0.06964287,-0.39659086,0.15222383,-0.1077986,0.024079269,-0.02185023,0.03745264,0.044980053,0.024097668,0.0038732581,-0.06540276,-0.008461856,-0.025505682,0.038970087,0.07289892,-0.055910517,-0.06077294,3.0,1.7395717,-3.0,3.0,2.5753949,-3.0,-3.0,0.33738154,-3.0,3.0,-0.843805,-3.0,3.0,1.8490797,-3.0,3.0,2.6439276,-3.0,-3.0,0.4199894,-3.0,3.0,-1.2154438,-3.0
2025-06-05 17:23:41.237,0.0055658403,0.028539816,0.036457576,0.14865409,-0.08725846,-0.006122545,0.0,0.0,0.0,-0.03831289,0.38287145,0.59299016,-0.28906068,0.17309211,0.8300689,-0.48823628,-0.24271993,0.070812695,-0.39677715,0.14058222,-0.09912577,0.02028493,-0.015710233,0.03381032,-2.4145485e-05,0.007881259,-0.0057753427,0.07469619,0.057860486,0.010407138,0.0003472472,-0.035384092,0.046900634,0.042851575,3.0,1.8490797,-3.0,3.0,2.6439276,-3.0,-3.0,0.4199894,-3.0,3.0,-1.2154438,-3.0,3.0,1.7460941,-3.0,3.0,2.7518194,-3.0,-3.0,0.21084957,-3.0,3.0,-0.97766215,-3.0
2025-06-05 17:23:41.260,-0.06516568,-0.0049851527,-0.07739216,0.126997,-0.09700962,-0.0089984825,0.0,0.0,0.0,-0.03801846,0.3627702,0.5867616,-0.2968439,0.16806066,0.83228916,-0.49185973,-0.24550064,0.065421596,-0.39681742,0.15053348,-0.10839318,0.023756986,0.057302393,-0.038503107,-0.026155533,0.07269362,0.057423864,-0.06168637,-0.069304496,-0.025287569,0.051148467,-0.01627219,0.013584443,0.024777867,3.0,1.7460941,-3.0,3.0,2.7518194,-3.0,-3.0,0.21084957,-3.0,3.0,-0.97766215,-3.0,3.0,2.3401082,-3.0,3.0,2.4267488,-3.0,-3.0,0.48415804,-3.0,3.0,-1.4223392,-3.0
2025-06-05 17:23:41.279,0.049405538,0.025523046,-0.039503567,0.120774806,-0.075532414,-0.028162446,0.0,0.0,0.0,-0.03748035,0.37587363,0.6040213,-0.2991081,0.1670784,0.82461244,-0.507229,-0.22621371,0.06887299,-0.40501007,0.14944191,-0.10350966,0.025539096,-0.012156848,-0.033987455,-0.06479534,0.044319633,0.061034326,0.017047524,-0.039085455,0.0135709215,0.018223027,-0.005741665,-0.035692584,0.05996654,3.0,2.3401082,-3.0,3.0,2.4267488,-3.0,-3.0,0.48415804,-3.0,3.0,-1.4223392,-3.0,3.0,2.1357136,-3.0,3.0,2.1156278,-3.0,-3.0,0.2997648,-3.0,3.0,-1.2059381,-3.0
2025-06-05 17:23:41.298,0.013488923,-0.065891504,0.06859302,0.16351289,-0.09873517,-0.028661415,0.0,0.0,0.0,-0.03738962,0.3746852,0.60353893,-0.29872975,0.18726651,0.81261057,-0.49692908,-0.23668078,0.07097943,-0.40907618,0.14548767,-0.11784643,0.023471998,0.044207357,0.0129795205,0.0019937472,0.02864793,-0.07138397,0.022871116,0.034081675,-0.038067833,-0.030836474,0.008437068,-0.060832925,-0.06727606,3.0,2.1357136,-3.0,3.0,2.1156278,-3.0,-3.0,0.2997648,-3.0,3.0,-1.2059381,-3.0,3.0,1.3803743,-3.0,3.0,2.778395,-3.0,-3.0,0.18374328,-3.0,3.0,-0.6500805,-3.0
2025-06-05 17:23:41.318,-0.026405256,0.030427093,-0.040640976,0.09703028,-0.031637255,-0.01992628,0.0,0.0,0.0,-0.03781968,0.37301713,0.5936386,-0.28125793,0.17583068,0.8197451,-0.5008958,-0.23892428,0.06671802,-0.41271895,0.15239838,-0.116868496,0.027631786,-0.0811074,0.032783914,0.063820936,0.01834892,-0.016110953,-0.014802864,-0.054971807,-0.08444045,0.041665666,0.014161009,-0.024834367,0.0062042554,3.0,1.3803743,-3.0,3.0,2.778395,-3.0,-3.0,0.18374328,-3.0,3.0,-0.6500805,-3.0,3.0,1.9362687,-3.0,3.0,2.6815312,-3.0,-3.0,0.58969915,-3.0,3.0,-1.254932,-3.0
2025-06-05 17:23:41.338,0.008248287,0.06843342,0.004711552,0.14929074,-0.058659878,-0.0446017,0.0,0.0,0.0,-0.03739076,0.36666346,0.5924242,-0.29350477,0.18331832,0.84080046,-0.49335814,-0.24656376,0.060014643,-0.40255547,0.15280129,-0.10861663,0.014497639,-0.002439214,-0.05719658,0.02493663,-0.013453383,0.07168728,-0.0051859105,0.041412313,0.026268953,-0.009904741,0.027831579,0.035399847,0.053468198,3.0,1.9362687,-3.0,3.0,2.6815312,-3.0,-3.0,0.58969915,-3.0,3.0,-1.254932,-3.0,3.0,1.9530859,-3.0,3.0,2.742439,-3.0,-3.0,0.25134486,-3.0,3.0,-1.0732944,-3.0
2025-06-05 17:23:41.399,-0.031309836,-0.009847018,-0.048184697,0.08974128,-0.05956895,0.031352613,0.0,0.0,0.0,-0.03689157,0.37799194,0.587038,-0.2781328,0.17488672,0.8326532,-0.49782997,-0.24074312,0.058116227,-0.41055453,0.15891008,-0.10754618,0.011154816,-0.054995816,0.049435653,-0.023153923,0.073594555,-0.057758167,0.02465291,-0.010269257,-0.036676444,-0.07841654,0.022710903,0.07223526,-0.047683142,3.0,1.9530859,-3.0,3.0,2.742439,-3.0,-3.0,0.25134486,-3.0,3.0,-1.0732944,-3.0,3.0,2.2127304,-3.0,3.0,2.3756225,-3.0,-3.0,0.5122462,-3.0,3.0,-1.3050082,-3.0
2025-06-05 17:23:41.419,-0.013582995,0.005937987,0.05236502,0.11660687,-0.03585172,0.0069859233,0.0,0.0,0.0,-0.0364616,0.37975985,0.60307765,-0.27103874,0.18126161,0.8300715,-0.4953305,-0.2426115,0.067967005,-0.41627926,0.1498378,-0.119489595,0.0076886346,-0.047084287,-0.0011718975,0.031440422,0.0008569276,-0.0049264324,-0.003305025,-0.054099467,-0.051762074,-0.07754512,-0.0045737266,0.04892823,-0.05578722,3.0,2.2127304,-3.0,3.0,2.3756225,-3.0,-3.0,0.5122462,-3.0,3.0,-1.3050082,-3.0,3.0,1.5608954,-3.0,3.0,2.744204,-3.0,-3.0,0.20585148,-3.0,3.0,-0.82420367,-3.0
2025-06-05 17:23:41.439,-0.07393229,0.018492939,-0.03148692,0.1204485,-0.07396427,0.03502023,0.0,0.0,0.0,-0.036466934,0.36703056,0.58576775,-0.27975193,0.19310881,0.83592665,-0.4922273,-0.22790407,0.06158951,-0.422732,0.14379768,-0.12734972,-0.0005248175,-0.05460222,-0.045224816,-0.02544617,0.050971713,-0.025396945,-0.050005317,0.045252956,0.024703544,0.002297067,0.040985934,0.048223693,0.02381653,3.0,1.5608954,-3.0,3.0,2.744204,-3.0,-3.0,0.20585148,-3.0,3.0,-0.82420367,-3.0,3.0,2.2995477,-3.0,3.0,2.7421727,-3.0,-3.0,0.4322844,-3.0,3.0,-1.2841635,-3.0
2025-06-05 17:23:41.461,0.04061978,-0.021802701,-0.032655302,0.09814781,-0.082108825,0.0028801998,0.0,0.0,0.0,-0.036117505,0.3739301,0.600337,-0.27114865,0.17778724,0.8437199,-0.51088357,-0.22972193,0.0679866,-0.41960832,0.15956908,-0.12161397,-0.00096878054,0.059840754,0.079983115,-0.05850507,0.06255367,0.021431474,0.04591556,0.021608781,0.022786967,-0.042689703,-0.010028445,0.014009455,0.034717932,3.0,2.2995477,-3.0,3.0,2.7421727,-3.0,-3.0,0.4322844,-3.0,3.0,-1.2841635,-3.0,3.0,2.0790772,-3.0,3.0,2.2797117,-3.0,-3.0,0.39768994,-3.0,3.0,-1.2515191,-3.0
2025-06-05 17:23:41.479,0.04501041,-0.009245956,0.004487469,0.084033966,-0.09395023,0.039362956,0.0,0.0,0.0,-0.03577598,0.36987403,0.59030557,-0.28310022,0.18781748,0.8338037,-0.5064081,-0.23197608,0.058726,-0.41507447,0.14778683,-0.13109107,0.0024385806,0.007597464,0.06470533,0.0623445,-0.06304189,0.022816073,-0.02879548,-0.017259585,-0.04527021,0.05992738,-0.06284219,0.0025084077,0.015944097,3.0,2.0790772,-3.0,3.0,2.2797117,-3.0,-3.0,0.39768994,-3.0,3.0,-1.2515191,-3.0,3.0,1.6146694,-3.0,3.0,2.5807946,-3.0,-3.0,0.27986687,-3.0,3.0,-0.9987704,-3.0
2025-06-05 17:23:41.499,0.020175654,-0.03413186,-0.043691818,0.11120624,-0.08592648,0.028635181,0.0,0.0,0.0,-0.035930343,0.3626468,0.5966048,-0.2665254,0.19358341,0.8245328,-0.50306684,-0.23959315,0.06673939,-0.4283728,0.1437394,-0.1391305,-0.0068985526,-0.0019515796,0.033817012,-0.06489547,0.057959896,-0.025588496,-0.00694304,-0.066376776,-0.0046883626,0.024655672,-0.07265501,-0.02996663,-0.011630667,3.0,1.6146694,-3.0,3.0,2.5807946,-3.0,-3.0,0.27986687,-3.0,3.0,-0.9987704,-3.0,3.0,2.1211247,-3.0,3.0,2.4778032,-3.0,-3.0,0.5045902,-3.0,3.0,-1.2624724,-3.0
2025-06-05 17:23:41.519,-0.005647212,-0.014934932,0.05064248,0.14997385,-0.029908605,0.032424346,0.0,0.0,0.0,-0.035930388,0.37253985,0.5948958,-0.27436906,0.19036704,0.8204148,-0.49425998,-0.22896165,0.061457016,-0.4231211,0.14781411,-0.12909594,-0.0051223184,0.031783335,0.04163773,0.009536455,0.0786462,-0.027615508,0.041067187,0.016124679,-0.042631023,-0.06515799,-0.045106445,-0.074665256,-0.032237854,3.0,2.1211247,-3.0,3.0,2.4778032,-3.0,-3.0,0.5045902,-3.0,3.0,-1.2624724,-3.0,3.0,1.5683873,-3.0,3.0,2.877557,-3.0,-3.0,0.2669143,-3.0,3.0,-0.7475447,-3.0
2025-06-05 17:23:41.539,-0.009707728,0.06564813,-0.062954776,0.12462777,-0.059106834,-0.02974841,0.0,0.0,0.0,-0.036110237,0.36474192,0.59928185,-0.26461482,0.19029659,0.8386506,-0.48907676,-0.23600633,0.05196017,-0.41642085,0.15182376,-0.1257045,0.0008590505,-0.08100811,0.052815553,-0.0044406177,-0.0357649,-0.048069913,0.013826228,0.033950407,-0.0063614054,0.029145347,-0.004727608,-0.033621464,0.033616614,3.0,1.5683873,-3.0,3.0,2.877557,-3.0,-3.0,0.2669143,-3.0,3.0,-0.7475447,-3.0,3.0,2.2289996,-3.0,3.0,2.5458853,-3.0,-3.0,0.5785441,-3.0,3.0,-1.3783153,-3.0
2025-06-05 17:23:41.561,-0.029706305,-0.017329795,0.043294232,0.08237449,-0.020616774,0.021177832,0.0,0.0,0.0,-0.035714336,0.37187245,0.6049781,-0.2628375,0.1967497,0.84307873,-0.48977304,-0.237144,0.06434759,-0.4206797,0.14634553,-0.14291131,-0.012347984,-0.007044448,0.019031327,-0.049327247,0.057517286,-0.037277475,-0.077897,-0.018112099,0.082159616,0.05188334,-0.060214173,-0.060802992,-0.008320293,3.0,2.2289996,-3.0,3.0,2.5458853,-3.0,-3.0,0.5785441,-3.0,3.0,-1.3783153,-3.0,3.0,1.8298917,-3.0,3.0,2.7792435,-3.0,-3.0,0.12509672,-3.0,3.0,-0.88699096,-3.0
2025-06-05 17:23:41.580,-0.027293023,-0.023151515,-0.027078897,0.13669625,-0.077397846,-0.028380714,0.0,0.0,0.0,-0.03554251,0.35721362,0.58964366,-0.2703888,0.17948766,0.8445142,-0.506073,-0.23933929,0.06498718,-0.4246723,0.14501102,-0.12620746,-0.013427771,-0.050668303,-0.058683045,0.07635682,0.029411685,0.075760365,0.073687516,0.024464138,-0.04966966,0.033751197,0.051685747,-0.044621795,-0.03825096,3.0,1.8298917,-3.0,3.0,2.7792435,-3.0,-3.0,0.12509672,-3.0,3.0,-0.88699096,-3.0,3.0,1.9218907,-3.0,3.0,2.8384864,-3.0,-3.0,0.5155227,-3.0,3.0,-1.0215669,-3.0
2025-06-05 17:23:41.599,0.020475924,0.076181516,-0.014388321,0.10155266,-0.034947917,-0.024417968,0.0,0.0,0.0,-0.035134736,0.3543327,0.58821315,-0.26203763,0.18774597,0.84635675,-0.49900594,-0.23830523,0.05280954,-0.42967033,0.1521094,-0.13406093,-0.019753566,-0.07791436,-0.057719957,-0.060605407,-0.008330765,0.0062259105,-0.016907984,-0.044979494,-0.007332272,0.009491054,-0.05127381,-0.036940005,-0.054499187,3.0,1.9218907,-3.0,3.0,2.8384864,-3.0,-3.0,0.5155227,-3.0,3.0,-1.0215669,-3.0,3.0,2.2368078,-3.0,3.0,2.7725093,-3.0,-3.0,0.39232904,-3.0,3.0,-1.0990968,-3.0
2025-06-05 17:23:41.620,0.050280187,0.07628387,-0.05269223,0.06794182,-0.08907069,-0.045182228,0.0,0.0,0.0,-0.034530282,0.36577561,0.59272134,-0.25743985,0.19476897,0.85797125,-0.50712454,-0.22177409,0.063711904,-0.441662,0.16144815,-0.11662133,-0.03408725,-0.040479183,-0.04815496,-0.055234727,0.020720225,0.029794946,-0.05575925,0.020898448,-0.04785747,0.010636393,0.04609989,0.08440094,-0.06682434,3.0,2.2368078,-3.0,3.0,2.7725093,-3.0,-3.0,0.39232904,-3.0,3.0,-1.0990968,-3.0,3.0,2.3271136,-3.0,3.0,2.553006,-3.0,-3.0,0.47667593,-3.0,3.0,-1.2710218,-3.0
2025-06-05 17:23:41.640,0.006456702,-0.031705324,0.058266222,0.09724122,0.0012281905,0.008038257,0.0,0.0,0.0,-0.03411871,0.36211056,0.6011624,-0.2556521,0.19113803,0.8531798,-0.49920538,-0.23557407,0.07124909,-0.44456002,0.16368385,-0.13661098,-0.02996757,0.050037105,-0.01980029,-0.05800722,0.053394623,-0.008400643,0.067661904,-0.054104123,0.03158578,0.02165266,-0.06204988,-0.07213544,-0.021574998,3.0,2.3271136,-3.0,3.0,2.553006,-3.0,-3.0,0.47667593,-3.0,3.0,-1.2710218,-3.0,3.0,1.6398469,-3.0,3.0,2.8770564,-3.0,-3.0,0.17111842,-3.0,3.0,-0.7365435,-3.0
2025-06-05 17:23:41.661,-0.03052489,0.03510169,-0.058551587,0.10966009,-0.08544115,-0.045374688,0.0,0.0,0.0,-0.034161218,0.37326238,0.61492556,-0.26380327,0.19520809,0.86489666,-0.50965416,-0.22881138,0.07162115,-0.441138,0.1547754,-0.1302441,-0.024979234,-0.049780127,-0.01985972,0.01246607,-0.057820488,0.07667396,-0.016365955,0.028720507,0.049942117,-0.020979764,0.057511233,-0.016012924,-0.03109666,3.0,1.6398469,-3.0,3.0,2.8770564,-3.0,-3.0,0.17111842,-3.0,3.0,-0.7365435,-3.0,3.0,2.2988098,-3.0,3.0,2.6671634,-3.0,-3.0,0.60604554,-3.0,3.0,-1.2957265,-3.0
2025-06-05 17:23:41.680,0.03973205,-0.021625645,0.045101862,0.09955694,-0.05258206,0.032447435,0.0,0.0,0.0,-0.033683922,0.3720335,0.6226842,-0.26207015,0.19431968,0.87338287,-0.4921489,-0.23139262,0.07511291,-0.44060296,0.15065925,-0.13151743,-0.034221426,-0.06573594,0.05372652,0.056198448,-0.009211498,-0.030580342,0.011512978,0.041273657,0.022294546,0.0031445255,-0.022122903,0.04761261,-0.061458137,3.0,2.2988098,-3.0,3.0,2.6671634,-3.0,-3.0,0.60604554,-3.0,3.0,-1.2957265,-3.0,3.0,1.6863781,-3.0,3.0,2.8534424,-3.0,-3.0,0.22881345,-3.0,3.0,-0.8669663,-3.0
2025-06-05 17:23:41.699,-0.06469967,0.0030484782,-0.04224615,0.11840657,-0.08586973,0.04107936,0.0,0.0,0.0,-0.033430565,0.35837492,0.6117593,-0.25985828,0.17815551,0.8665806,-0.5010818,-0.2218986,0.062520616,-0.42251623,0.16597985,-0.13246548,-0.035890605,-0.04530168,0.020912986,-0.027694227,0.019908953,-0.052279346,-0.01359647,0.048952777,-0.06851443,0.0040599336,0.016333299,0.019358084,-0.03860958,3.0,1.6863781,-3.0,3.0,2.8534424,-3.0,-3.0,0.22881345,-3.0,3.0,-0.8669663,-3.0,3.0,2.0882564,-3.0,3.0,2.7254093,-3.0,-3.0,0.56895834,-3.0,3.0,-1.2373853,-3.0
2025-06-05 17:23:41.720,0.03719333,0.023303777,-0.053106155,0.059429683,-0.07260035,-0.033024464,0.0,0.0,0.0,-0.03300894,0.36557508,0.62464464,-0.25232047,0.1852542,0.8809887,-0.50549835,-0.22762315,0.055654053,-0.42256513,0.16053614,-0.12097806,-0.03402233,-0.07344037,0.00874705,0.0077152154,0.07207197,-0.04143579,-0.024532039,-0.034677364,-0.014846517,0.03275209,0.017895646,0.017942568,-0.06858979,3.0,2.0882564,-3.0,3.0,2.7254093,-3.0,-3.0,0.56895834,-3.0,3.0,-1.2373853,-3.0,3.0,2.1271544,-3.0,3.0,2.4175422,-3.0,-3.0,0.50323397,-3.0,3.0,-1.2448137,-3.0
2025-06-05 17:23:41.740,0.037837353,0.021196436,0.073197395,0.10218033,-0.08728499,-0.043556266,0.0,0.0,0.0,-0.032775186,0.37277538,0.6301027,-0.2506509,0.17914674,0.87946635,-0.49865732,-0.23236328,0.06679096,-0.43671864,0.15500939,-0.13336727,-0.021127697,-0.010472934,-0.06693283,-0.046787385,0.038450547,0.033470552,-0.027141131,0.011052,0.010093869,-0.00913114,0.008314155,-0.075325064,0.052925345,3.0,2.1271544,-3.0,3.0,2.4175422,-3.0,-3.0,0.50323397,-3.0,3.0,-1.2448137,-3.0,3.0,1.5565894,-3.0,3.0,2.874742,-3.0,-3.0,0.19617967,-3.0,3.0,-0.7127473,-3.0
2025-06-05 17:23:41.761,-0.057726495,0.02428223,-0.016065128,0.10219381,-0.048517395,0.047554854,0.0,0.0,0.0,-0.033121694,0.36785522,0.6177387,-0.25256327,0.17811896,0.8771336,-0.50121427,-0.22094944,0.067906834,-0.42422244,0.15260935,-0.14172018,-0.017369969,-0.018932495,0.009789843,-0.03486584,0.06490714,0.0031703294,0.06501816,-0.04417112,-0.029711438,0.08113652,0.07070199,-0.057653286,-0.019834455,3.0,1.5565894,-3.0,3.0,2.874742,-3.0,-3.0,0.19617967,-3.0,3.0,-0.7127473,-3.0,3.0,1.7745926,-3.0,3.0,2.825364,-3.0,-3.0,0.50187325,-3.0,3.0,-1.1441655,-3.0
2025-06-05 17:23:41.780,0.03281414,0.011956418,-0.028383426,0.112914436,-0.01845458,-0.023367269,0.0,0.0,0.0,-0.032863695,0.35677293,0.61825514,-0.2411212,0.18583766,0.8924394,-0.4922454,-0.22331704,0.06975849,-0.41832122,0.1529012,-0.1376448,-0.023180338,0.06608673,0.016861148,-0.017184,0.015093425,-0.031010155,-0.007039341,-0.037994076,0.007801224,0.0046580364,0.024997355,-0.061275978,-0.05332062,3.0,1.7745926,-3.0,3.0,2.825364,-3.0,-3.0,0.50187325,-3.0,3.0,-1.1441655,-3.0,3.0,1.9715297,-3.0,3.0,2.737578,-3.0,-3.0,0.50502676,-3.0,3.0,-1.1390903,-3.0
2025-06-05 17:23:41.800,0.02792675,-0.023951182,-0.037383236,0.1569788,-0.014703971,0.025347458,0.0,0.0,0.0,-0.03238983,0.36828426,0.62116355,-0.24889614,0.19066237,0.88073516,-0.5000417,-0.22874317,0.053853847,-0.4266848,0.16573255,-0.1374501,-0.024753278,-0.0127898995,-0.06615348,-0.0018807395,-0.017470904,0.055144396,-0.042739667,-0.04069203,0.015949413,0.023285294,-0.0029170255,-0.008160443,0.0014300724,3.0,1.9715297,-3.0,3.0,2.737578,-3.0,-3.0,0.50502676,-3.0,3.0,-1.1390903,-3.0,3.0,2.076645,-3.0,3.0,2.618399,-3.0,-3.0,0.4369282,-3.0,3.0,-1.187242,-3.0
2025-06-05 17:23:41.820,0.042652283,-0.04683764,0.0450566,0.11005307,-0.035376374,-0.0361037,0.0,0.0,0.0,-0.03223586,0.36529624,0.6089931,-0.25732413,0.1876035,0.89229846,-0.48936725,-0.2273725,0.06623123,-0.4250946,0.15977623,-0.13442433,-0.018464351,0.061055023,0.0224517,-0.010393668,0.06939316,-0.041472696,0.046514016,-0.051159855,0.06891389,0.04921157,0.06922167,-0.066041596,0.07871539,3.0,2.076645,-3.0,3.0,2.618399,-3.0,-3.0,0.4369282,-3.0,3.0,-1.187242,-3.0,3.0,1.5703856,-3.0,3.0,2.8237162,-3.0,-3.0,0.23100619,-3.0,3.0,-0.94030327,-3.0
2025-06-05 17:23:41.840,-0.052448764,-0.036538962,-0.06532729,0.09615896,-0.07954875,-0.041142754,0.0,0.0,0.0,-0.032383475,0.3491372,0.61015356,-0.25193694,0.19290873,0.8844225,-0.48534417,-0.2364057,0.06684972,-0.42206737,0.16461973,-0.13708255,-0.01280538,0.038926475,-0.079096705,0.014029673,0.06568239,-0.014518464,0.062815085,0.016336922,0.019635426,-0.035370994,-0.048640043,-0.04936869,0.015859162,3.0,1.5703856,-3.0,3.0,2.8237162,-3.0,-3.0,0.23100619,-3.0,3.0,-0.94030327,-3.0,3.0,2.3859572,-3.0,3.0,2.5659037,-3.0,-3.0,0.63895327,-3.0,3.0,-1.2371867,-3.0
2025-06-05 17:23:41.860,-0.012584629,0.045234255,0.04689606,0.12117583,-0.0062445295,-0.047285814,0.0,0.0,0.0,-0.032173853,0.3526773,0.6142779,-0.24727726,0.18112114,0.8826671,-0.49542668,-0.22339594,0.05165876,-0.4304057,0.16211842,-0.15034097,-0.015585919,0.032413945,-0.010003841,-0.021226937,0.06793822,0.06682052,-0.003701153,0.06978072,0.0020939976,0.011145362,0.0468987,0.05467487,-0.0007735963,3.0,2.3859572,-3.0,3.0,2.5659037,-3.0,-3.0,0.63895327,-3.0,3.0,-1.2371867,-3.0,3.0,1.5148695,-3.0,3.0,2.9102602,-3.0,-3.0,0.16484408,-3.0,3.0,-0.84367687,-3.0
2025-06-05 17:23:41.881,0.0032579221,-0.017686155,-0.043495122,0.12747173,-0.015447413,-0.024334239,0.0,0.0,0.0,-0.032275062,0.3559204,0.6125407,-0.2383293,0.19152054,0.8866996,-0.48202518,-0.2400468,0.051540777,-0.4382122,0.15882787,-0.14110206,-0.019972999,0.05977411,0.066872664,-0.049818527,0.011562289,-0.0530811,0.057387277,0.024605809,-0.07539743,-0.018558137,0.04754889,0.02599498,0.029495409,3.0,1.5148695,-3.0,3.0,2.9102602,-3.0,-3.0,0.16484408,-3.0,3.0,-0.84367687,-3.0,3.0,1.8708593,-3.0,3.0,2.6508698,-3.0,-3.0,0.7104103,-3.0,3.0,-1.2669864,-3.0
2025-06-05 17:23:41.900,0.051375125,-0.03498674,0.003030452,0.16174585,-0.042811498,-0.027495187,0.0,0.0,0.0,-0.031937126,0.35118526,0.62196875,-0.23641543,0.17789377,0.8894888,-0.484725,-0.23327096,0.05925163,-0.44084722,0.15042625,-0.14533588,-0.029670583,-0.026706612,-0.032215122,-0.014903659,0.06040281,0.039052602,0.07602927,-0.04639716,0.0033775182,0.0053178975,0.020642588,0.04404163,0.049188636,3.0,1.8708593,-3.0,3.0,2.6508698,-3.0,-3.0,0.7104103,-3.0,3.0,-1.2669864,-3.0,3.0,1.7460388,-3.0,3.0,2.6185076,-3.0,-3.0,0.3686083,-3.0,3.0,-1.0757674,-3.0
2025-06-05 17:23:41.920,0.019741703,-0.05359328,0.044046756,0.09241212,-0.053061116,0.019938814,0.0,0.0,0.0,-0.031763893,0.36303604,0.6109033,-0.2549208,0.17856282,0.8951111,-0.48052537,-0.23067664,0.060304444,-0.4463725,0.16417131,-0.16152565,-0.011873401,0.014437377,0.0016420603,0.020200742,0.02957303,-0.04903026,-0.041817315,0.023827022,-0.02630452,0.029593844,0.07107403,0.0009051929,-0.046369344,3.0,1.7460388,-3.0,3.0,2.6185076,-3.0,-3.0,0.3686083,-3.0,3.0,-1.0757674,-3.0,3.0,1.5038227,-3.0,3.0,3.0,-3.0,-3.0,0.37114143,-3.0,3.0,-0.82302254,-3.0
2025-06-05 17:23:41.943,-0.01694421,0.013643246,0.0013297222,0.1218802,-0.08381063,-0.014480702,0.0,0.0,0.0,-0.03176146,0.3601436,0.61575335,-0.23567249,0.19279306,0.8952725,-0.4811341,-0.23418109,0.06251641,-0.43785506,0.15887938,-0.1574377,-0.022742433,-0.08041074,-0.0030984657,0.06320482,0.017460212,-0.010825624,0.063420214,0.07220375,-0.0683385,-0.019750554,-0.010075283,-0.058169108,-0.03190485,3.0,1.5038227,-3.0,3.0,3.0,-3.0,-3.0,0.37114143,-3.0,3.0,-0.82302254,-3.0,3.0,1.9280933,-3.0,3.0,2.9783728,-3.0,-3.0,0.5834489,-3.0,3.0,-0.97623557,-3.0
2025-06-05 17:23:41.961,-0.017022505,0.014965691,-0.0499619,0.10042742,-0.053915747,-0.028063016,0.0,0.0,0.0,-0.031174885,0.35894477,0.6149813,-0.2337471,0.17888218,0.9024716,-0.49335787,-0.2242772,0.054632686,-0.43939948,0.15513162,-0.15214263,-0.025939796,-0.0689487,0.005575052,0.035528123,-0.008726011,0.0016887969,0.017267758,0.06721028,0.014008372,-0.07187416,0.063817136,0.032702517,-0.03005472,3.0,1.9280933,-3.0,3.0,2.9783728,-3.0,-3.0,0.5834489,-3.0,3.0,-0.97623557,-3.0,3.0,2.2803838,-3.0,3.0,2.540036,-3.0,-3.0,0.57708246,-3.0,3.0,-1.245877,-3.0
2025-06-05 17:23:41.981,0.04544532,0.063376196,0.031350974,0.14700952,-0.032379605,-0.035969477,0.0,0.0,0.0,-0.030412821,0.34264153,0.6199223,-0.2309223,0.19661109,0.9010115,-0.4946817,-0.22252628,0.057655085,-0.44008785,0.15297712,-0.16063209,-0.020266052,0.038737986,-0.055247676,0.0068002166,-0.06510279,0.006250888,-0.033134624,0.024674084,-0.0013157142,-0.014310123,-0.039029207,0.027215468,0.05883362,3.0,2.2803838,-3.0,3.0,2.540036,-3.0,-3.0,0.57708246,-3.0,3.0,-1.245877,-3.0,3.0,1.771489,-3.0,3.0,2.828908,-3.0,-3.0,0.26115388,-3.0,3.0,-0.9029898,-3.0
2025-06-05 17:23:42.001,0.047784783,-0.028894177,-0.056909893,0.15803944,-0.062271446,0.047509253,0.0,0.0,0.0,-0.030267803,0.3585898,0.62556064,-0.2404638,0.18982069,0.9158968,-0.49548998,-0.23410147,0.06212624,-0.452315,0.15875572,-0.14448138,-0.030217554,-0.07683131,0.03852248,0.05115436,0.06632838,0.053544898,0.012874749,-0.0089978,-0.027359262,0.070952296,-0.07367598,-0.05431527,-0.019564705,3.0,1.771489,-3.0,3.0,2.828908,-3.0,-3.0,0.26115388,-3.0,3.0,-0.9029898,-3.0,3.0,1.9753743,-3.0,3.0,2.6289308,-3.0,-3.0,0.61148685,-3.0,3.0,-1.2178307,-3.0
2025-06-05 17:23:42.021,-0.008231378,0.04981269,-0.030711645,0.16394712,-0.037945632,0.023462629,0.0,0.0,0.0,-0.030023897,0.33973357,0.61329716,-0.23475383,0.18098918,0.9124959,-0.49308705,-0.22061709,0.073748216,-0.45745468,0.16354701,-0.15996431,-0.02914615,0.008952713,0.0128745,-0.03423625,-0.023747308,-0.05350881,-0.021366606,0.06593438,0.05721611,-0.028152646,-0.014691955,-0.036710847,-0.04802774,3.0,1.9753743,-3.0,3.0,2.6289308,-3.0,-3.0,0.61148685,-3.0,3.0,-1.2178307,-3.0,3.0,2.129456,-3.0,3.0,2.560432,-3.0,-3.0,0.44543564,-3.0,3.0,-1.0645247,-3.0
2025-06-05 17:23:42.044,-0.03267235,-0.010332904,-0.019217977,0.13559109,-0.02773233,0.032816123,0.0,0.0,0.0,-0.02999306,0.3460164,0.6197575,-0.24702787,0.19217496,0.90986204,-0.4892921,-0.21870591,0.05993253,-0.45046666,0.16489209,-0.1573049,-0.03536361,-0.06548214,0.07145517,0.017561628,-0.058456354,-0.0077626263,0.0060267537,-0.07542701,0.041701563,0.03885023,0.050160043,-0.058949225,-0.031990647,3.0,2.129456,-3.0,3.0,2.560432,-3.0,-3.0,0.44543564,-3.0,3.0,-1.0645247,-3.0,3.0,1.7927471,-3.0,3.0,2.5672002,-3.0,-3.0,0.41104192,-3.0,3.0,-1.0890093,-3.0
2025-06-05 17:23:42.062,0.00809298,-0.04181145,0.05461935,0.08098867,-0.08362708,-0.027812984,0.0,0.0,0.0,-0.030247262,0.3461803,0.6204303,-0.24084426,0.18437488,0.8972117,-0.4787452,-0.2189236,0.06219847,-0.44844118,0.15132116,-0.1631672,-0.024370022,0.059821937,-0.02272866,0.00079892593,0.031189036,-0.007008931,-0.04446137,-0.0067717377,0.011842608,-0.06458279,0.01601546,-0.08793875,0.023617905,3.0,1.7927471,-3.0,3.0,2.5672002,-3.0,-3.0,0.41104192,-3.0,3.0,-1.0890093,-3.0,3.0,1.6661079,-3.0,3.0,3.0,-3.0,-3.0,0.38083792,-3.0,3.0,-0.75827664,-3.0
2025-06-05 17:23:42.081,0.014804877,0.008964206,-0.07604006,0.15344903,-0.017816845,-0.003262468,0.0,0.0,0.0,-0.030493788,0.33712548,0.62175685,-0.23671359,0.18804078,0.9001435,-0.48254746,-0.22176687,0.066507384,-0.450477,0.15867193,-0.161796,-0.021167262,0.039027918,-0.00480865,0.078474574,-0.05105723,0.005298876,0.009932012,-0.011446752,-0.06403639,0.007265246,0.05227571,0.05478696,0.0482918,3.0,1.6661079,-3.0,3.0,3.0,-3.0,-3.0,0.38083792,-3.0,3.0,-0.75827664,-3.0,3.0,2.0637405,-3.0,3.0,2.670819,-3.0,-3.0,0.6838399,-3.0,3.0,-1.4222205,-3.0
2025-06-05 17:23:42.102,0.03125388,-0.033386618,0.053790163,0.122114845,-0.07851764,-0.040768873,0.0,0.0,0.0,-0.030115237,0.33809602,0.6062837,-0.23261136,0.18968394,0.9066302,-0.4852397,-0.23665307,0.063727394,-0.46601853,0.15977864,-0.16940321,-0.03853012,-0.051721487,0.0378897,-0.069039084,0.058794823,-0.049830303,0.03321374,0.04408788,-0.029430022,-0.03160123,-0.026363721,-0.039797433,-0.0170082,3.0,2.0637405,-3.0,3.0,2.670819,-3.0,-3.0,0.6838399,-3.0,3.0,-1.4222205,-3.0,3.0,1.7228156,-3.0,3.0,2.7751234,-3.0,-3.0,0.36885828,-3.0,3.0,-0.7350655,-3.0
2025-06-05 17:23:42.121,-0.038176764,-0.016456718,-0.015004852,0.11104657,-0.08124679,0.039833687,0.0,0.0,0.0,-0.030059403,0.34068322,0.6103076,-0.23269145,0.18671435,0.90259117,-0.48527426,-0.2380468,0.07190736,-0.45576277,0.15060234,-0.17351478,-0.03541482,0.027532948,-0.008106261,0.0326518,-0.058716934,0.050817564,0.04575704,-0.016497467,0.0060309153,-0.024133021,-0.04507425,-0.04634873,-0.07193258,3.0,1.7228156,-3.0,3.0,2.7751234,-3.0,-3.0,0.36885828,-3.0,3.0,-0.7350655,-3.0,3.0,2.0169578,-3.0,3.0,2.8870854,-3.0,-3.0,0.51419353,-3.0,3.0,-1.0118717,-3.0
2025-06-05 17:23:42.144,-0.022725545,0.04595445,-0.034949,0.13202679,0.005142104,-0.010891523,0.0,0.0,0.0,-0.029845199,0.34934542,0.62367636,-0.22888893,0.18058278,0.9018809,-0.48404804,-0.22385095,0.0665603,-0.470481,0.15949452,-0.16628616,-0.04009339,-0.05521092,0.05021482,0.032984287,0.0133681195,-0.0020918846,-0.054267034,0.069456354,0.056229148,-0.050232712,0.029087307,-0.001190568,-0.004931339,3.0,2.0169578,-3.0,3.0,2.8870854,-3.0,-3.0,0.51419353,-3.0,3.0,-1.0118717,-3.0,3.0,2.1190643,-3.0,3.0,2.6448388,-3.0,-3.0,0.5188668,-3.0,3.0,-1.165662,-3.0
2025-06-05 17:23:42.161,0.021452727,0.020336974,0.043932796,0.15344752,0.0061347797,0.013558026,0.0,0.0,0.0,-0.029440453,0.35287815,0.6224244,-0.22955063,0.18336743,0.91700006,-0.48417896,-0.23418474,0.07399537,-0.46335223,0.16006094,-0.16883846,-0.036043845,-0.0010269298,0.0014756613,0.0035102987,-0.017918821,-0.06795371,-0.011508788,-0.011848236,0.0060442775,-0.034488786,0.06265626,0.0625408,-0.034646474,3.0,2.1190643,-3.0,3.0,2.6448388,-3.0,-3.0,0.5188668,-3.0,3.0,-1.165662,-3.0,3.0,1.6339961,-3.0,3.0,2.9178326,-3.0,-3.0,0.31732243,-3.0,3.0,-0.89601225,-3.0
2025-06-05 17:23:42.181,0.022467934,-0.013718997,0.015170202,0.069223404,-0.07165714,0.04681051,0.0,0.0,0.0,-0.02936057,0.3410681,0.6074564,-0.23525341,0.18351834,0.9032842,-0.4832341,-0.22360209,0.06795625,-0.471266,0.15959503,-0.16680546,-0.033724774,0.027551867,-0.06761945,-0.033951927,0.038267177,-0.06525314,0.056582335,0.020480504,0.03949686,-0.055256385,-0.042755224,-0.06361296,0.04548692,3.0,1.6339961,-3.0,3.0,2.9178326,-3.0,-3.0,0.31732243,-3.0,3.0,-0.89601225,-3.0,3.0,2.1720371,-3.0,3.0,2.9491127,-3.0,-3.0,0.49562645,-3.0,3.0,-1.0001295,-3.0
2025-06-05 17:23:42.201,-0.031609632,0.061276603,-0.04516179,0.12968507,-0.03701535,0.03773765,0.0,0.0,0.0,-0.029021768,0.34160706,0.61187446,-0.23023361,0.18689041,0.9213386,-0.4910987,-0.21610929,0.07237545,-0.45854393,0.16313353,-0.1577978,-0.044885848,-0.004961466,-0.028585488,-0.067735404,0.032559853,0.031094877,-0.07674203,0.011446343,0.0049145794,-0.008749567,-0.055785637,0.001225157,0.015777582,3.0,2.1720371,-3.0,3.0,2.9491127,-3.0,-3.0,0.49562645,-3.0,3.0,-1.0001295,-3.0,3.0,2.3434427,-3.0,3.0,2.587077,-3.0,-3.0,0.4533614,-3.0,3.0,-1.2379638,-3.0
2025-06-05 17:23:42.222,0.013083166,-0.034822073,-0.0070467005,0.12669306,-0.07473669,0.027172076,0.0,0.0,0.0,-0.028548198,0.33488083,0.6250818,-0.23586175,0.1930792,0.911661,-0.47760028,-0.21492563,0.059674997,-0.46517965,0.15465501,-0.17498103,-0.046582256,-0.068225466,0.029514452,-0.014719514,-0.05191457,0.022773303,-0.03553099,-0.040872134,-0.05231821,-0.017336635,0.0055043963,0.016093787,-0.025866967,3.0,2.3434427,-3.0,3.0,2.587077,-3.0,-3.0,0.4533614,-3.0,3.0,-1.2379638,-3.0,3.0,1.8340108,-3.0,3.0,2.5511987,-3.0,-3.0,0.4640748,-3.0,3.0,-0.9973412,-3.0
2025-06-05 17:23:42.244,0.020638864,0.0072579514,0.02119756,0.09257659,-0.0012970447,0.036306035,0.0,0.0,0.0,-0.028526666,0.35292628,0.6230291,-0.2454086,0.18067545,0.915953,-0.4758135,-0.22285712,0.060760908,-0.45955482,0.16066378,-0.17154355,-0.048490144,0.056700747,0.0300394,0.044010304,-0.051485088,-0.054311045,0.035324503,0.0013282176,0.06323472,-0.04930493,0.043391705,-0.06547629,0.06795888,3.0,1.8340108,-3.0,3.0,2.5511987,-3.0,-3.0,0.4640748,-3.0,3.0,-0.9973412,-3.0,3.0,1.7620151,-3.0,3.0,2.821842,-3.0,-3.0,0.42097515,-3.0,3.0,-0.919427,-3.0
2025-06-05 17:23:42.262,-0.06179572,-0.029990666,-0.034475535,0.1530729,-0.025360383,-0.00025795872,0.0,0.0,0.0,-0.02872161,0.33362943,0.629005,-0.23376954,0.1779833,0.9219848,-0.48242196,-0.22479545,0.06926923,-0.4706867,0.16587378,-0.17166126,-0.043704588,0.047435135,0.030862838,-0.06235396,-0.06637316,0.021322265,0.01171222,-0.059373077,0.0063452753,0.05220472,0.025936816,0.03455449,0.05790479,3.0,1.7620151,-3.0,3.0,2.821842,-3.0,-3.0,0.42097515,-3.0,3.0,-0.919427,-3.0,3.0,1.8446462,-3.0,3.0,2.6098356,-3.0,-3.0,0.51931554,-3.0,3.0,-1.2870117,-3.0
2025-06-05 17:23:42.282,-0.016985761,-0.03231311,0.0018637307,0.1394723,0.013735134,0.031423476,0.0,0.0,0.0,-0.02868275,0.3329363,0.62620974,-0.23852941,0.19354947,0.903063,-0.49083573,-0.22888091,0.07214642,-0.46201274,0.16614364,-0.17299731,-0.029506572,0.032805014,0.062220894,-0.025127694,0.069124684,0.010019737,-0.014618085,0.0103536835,-0.06983265,-0.009389676,-0.05637039,-0.042113148,0.05447339,3.0,1.8446462,-3.0,3.0,2.6098356,-3.0,-3.0,0.51931554,-3.0,3.0,-1.2870117,-3.0,3.0,1.6235355,-3.0,3.0,2.6739123,-3.0,-3.0,0.5140076,-3.0,3.0,-0.95598596,-3.0
2025-06-05 17:23:42.302,0.0347521,0.029308172,0.047337465,0.112159394,-0.01259847,0.03045466,0.0,0.0,0.0,-0.028847119,0.34791538,0.6339826,-0.23225005,0.1753386,0.9007917,-0.47247833,-0.23641485,0.06753738,-0.4602746,0.15267727,-0.18218367,-0.03586101,0.012900248,-0.027326925,0.07350412,0.045276966,0.066206306,0.05205737,0.054526802,-0.0051367194,0.051956926,-0.03738717,0.06297463,0.060413808,3.0,1.6235355,-3.0,3.0,2.6739123,-3.0,-3.0,0.5140076,-3.0,3.0,-0.95598596,-3.0,3.0,1.4653703,-3.0,3.0,3.0,-3.0,-3.0,0.32042414,-3.0,3.0,-0.8272249,-3.0
2025-06-05 17:23:42.322,-0.0360726,-0.0049049393,-0.084728725,0.12053762,0.0012657893,-0.046424683,0.0,0.0,0.0,-0.02903812,0.3470282,0.62913173,-0.23563457,0.19208671,0.9120847,-0.48792562,-0.23365228,0.051687047,-0.46377137,0.16034508,-0.17726393,-0.04390226,-0.0116219055,0.04313868,-0.060327966,-0.0029943998,0.046567116,-0.0067578065,-0.059989333,0.021980675,-0.048153553,-0.069325924,-0.038775306,-0.035692256,3.0,1.4653703,-3.0,3.0,3.0,-3.0,-3.0,0.32042414,-3.0,3.0,-0.8272249,-3.0,3.0,2.2919166,-3.0,3.0,2.436346,-3.0,-3.0,0.78371084,-3.0,3.0,-1.3361578,-3.0
2025-06-05 17:23:42.344,0.006163751,0.026402038,-0.011794709,0.06859722,-0.020231089,-0.011927469,0.0,0.0,0.0,-0.028587379,0.3366776,0.63256794,-0.23843248,0.18245834,0.9120089,-0.47819886,-0.22610882,0.060142893,-0.45202118,0.16959302,-0.18748763,-0.03782615,0.01503378,-0.04775255,0.056927763,0.065160446,0.04911324,0.07777415,-0.0127821,0.0078685945,0.039033815,0.05733343,-0.04233297,-0.054842256,3.0,2.2919166,-3.0,3.0,2.436346,-3.0,-3.0,0.78371084,-3.0,3.0,-1.3361578,-3.0,3.0,1.7328732,-3.0,3.0,2.635765,-3.0,-3.0,0.40944344,-3.0,3.0,-0.8965122,-3.0
2025-06-05 17:23:42.362,0.037335813,0.008949177,0.017420435,0.11163009,-0.050668977,-0.01532237,0.0,0.0,0.0,-0.028708512,0.34270778,0.6315806,-0.22925214,0.17862241,0.9010122,-0.4748868,-0.2219927,0.055293743,-0.45704052,0.16956899,-0.19729356,-0.041888185,0.07538493,-0.033320438,-0.026068103,0.042867105,0.04588405,-0.005436212,-0.027947785,0.049199726,0.06337905,0.022739584,-0.052823,0.0007425132,3.0,1.7328732,-3.0,3.0,2.635765,-3.0,-3.0,0.40944344,-3.0,3.0,-0.8965122,-3.0,3.0,1.6173087,-3.0,3.0,3.0,-3.0,-3.0,0.3943358,-3.0,3.0,-0.91685003,-3.0
2025-06-05 17:23:42.382,0.004680293,0.047915295,-0.07104844,0.12169405,0.013810831,0.0038224512,0.0,0.0,0.0,-0.02895562,0.34776402,0.62924224,-0.23110418,0.17769995,0.9146298,-0.48334244,-0.22834176,0.05021106,-0.46091524,0.16672517,-0.18636596,-0.036073886,-0.02867228,-0.04033588,-0.001999449,-0.060066815,-0.017076723,0.06582267,-0.03778799,0.008936302,-0.033018444,-0.059247766,0.015761066,0.0054426137,3.0,1.6173087,-3.0,3.0,3.0,-3.0,-3.0,0.3943358,-3.0,3.0,-0.91685003,-3.0,3.0,2.306801,-3.0,3.0,2.497329,-3.0,-3.0,0.697961,-3.0,3.0,-1.2935128,-3.0
2025-06-05 17:23:42.402,0.00075447425,0.066880696,0.06934451,0.10529702,0.018716026,-0.0028539444,0.0,0.0,0.0,-0.02863381,0.33347964,0.6306756,-0.22451825,0.18704069,0.908164,-0.4688926,-0.2339978,0.06322436,-0.46076736,0.17062292,-0.18503888,-0.050650522,0.08147283,0.08277993,-0.0059073283,0.001468246,-0.004592784,-0.0028788531,-0.06350197,-0.06047281,-0.06940065,0.013811178,-0.0732343,-0.018025586,3.0,2.306801,-3.0,3.0,2.497329,-3.0,-3.0,0.697961,-3.0,3.0,-1.2935128,-3.0,3.0,1.2960927,-3.0,3.0,2.9170213,-3.0,-3.0,0.32164794,-3.0,3.0,-0.6514713,-3.0
2025-06-05 17:23:42.422,-0.07701333,-0.041348945,-0.021395627,0.1095649,0.014222242,0.049807776,0.0,0.0,0.0,-0.028765459,0.3489592,0.6291777,-0.22219597,0.18491437,0.9135009,-0.47682962,-0.23215902,0.066351555,-0.46647677,0.15435492,-0.19942434,-0.044623643,-0.01588477,-0.02020352,-0.034189258,0.039781224,0.035686795,0.0084204255,0.044329025,-0.067638196,0.0643401,0.01943929,0.022455728,-0.0002032277,3.0,1.2960927,-3.0,3.0,2.9170213,-3.0,-3.0,0.32164794,-3.0,3.0,-0.6514713,-3.0,3.0,1.8336331,-3.0,3.0,2.91392,-3.0,-3.0,0.62461764,-3.0,3.0,-1.1033921,-3.0
2025-06-05 17:23:42.444,-0.0469304,0.015350612,-0.0009044357,0.12056381,-0.03691975,-0.009472767,0.0,0.0,0.0,-0.028429609,0.34220922,0.6344712,-0.21998346,0.19193086,0.91948515,-0.4716544,-0.227991,0.06732969,-0.47760227,0.15428562,-0.1813938,-0.06144698,-0.059429582,-0.01641631,0.041522935,-0.065956146,0.08314023,-0.0545809,0.022859951,-0.019313222,-0.025214322,0.030033734,0.026493702,0.025563689,3.0,1.8336331,-3.0,3.0,2.91392,-3.0,-3.0,0.62461764,-3.0,3.0,-1.1033921,-3.0,3.0,1.9234009,-3.0,3.0,2.8584092,-3.0,-3.0,0.51750296,-3.0,3.0,-1.0064976,-3.0
2025-06-05 17:23:42.462,-0.00885062,0.039008483,-0.06366557,0.07117791,0.012702736,0.043098647,0.0,0.0,0.0,-0.027923062,0.3467174,0.6257521,-0.22948903,0.19134581,0.9135034,-0.47681728,-0.226523,0.053985823,-0.47241616,0.16235977,-0.17685568,-0.0674894,0.0065288343,0.017865896,0.076006755,-0.059719186,0.0052290685,0.042075157,0.018901678,-0.039018493,-0.054701056,-0.06293799,0.08015957,0.06606105,3.0,1.9234009,-3.0,3.0,2.8584092,-3.0,-3.0,0.51750296,-3.0,3.0,-1.0064976,-3.0,3.0,2.146396,-3.0,3.0,2.4396894,-3.0,-3.0,0.65345716,-3.0,3.0,-1.2152641,-3.0
2025-06-05 17:23:42.482,0.05197287,-0.042426337,-0.00790884,0.06845891,-0.071718626,-0.021142324,0.0,0.0,0.0,-0.027606905,0.34649378,0.627894,-0.21267717,0.1884546,0.9152797,-0.4731672,-0.2184384,0.058915593,-0.47899342,0.15886906,-0.18161671,-0.06080207,0.07699402,0.06260653,0.028671911,-0.054929465,-0.028073516,0.0016631753,0.06706709,0.07289793,-0.028414933,-0.013547458,-0.06761948,-0.06581402,3.0,2.146396,-3.0,3.0,2.4396894,-3.0,-3.0,0.65345716,-3.0,3.0,-1.2152641,-3.0,3.0,1.8784338,-3.0,3.0,2.632427,-3.0,-3.0,0.49099022,-3.0,3.0,-0.87276655,-3.0
2025-06-05 17:23:42.502,-0.011801983,-0.012448208,-0.019692076,0.09672818,0.004140493,-0.012317166,0.0,0.0,0.0,-0.027859794,0.33646336,0.63481516,-0.22641777,0.18995868,0.90578973,-0.47237867,-0.23301888,0.06466925,-0.4678183,0.15653524,-0.18925677,-0.06759848,0.044034537,0.0034245146,-0.012822807,0.0261647,-0.06543965,-0.03822,-0.028390806,-0.051533792,-0.0021453812,-0.04535289,-0.0043027033,0.0647551,3.0,1.8784338,-3.0,3.0,2.632427,-3.0,-3.0,0.49099022,-3.0,3.0,-0.87276655,-3.0,3.0,1.8835547,-3.0,3.0,2.6711495,-3.0,-3.0,0.5419827,-3.0,3.0,-1.1022204,-3.0
2025-06-05 17:23:42.523,0.015210153,-0.017520314,-0.02034687,0.12480108,0.02126152,0.002129354,0.0,0.0,0.0,-0.028195951,0.34942132,0.6331647,-0.2305327,0.20069245,0.9119047,-0.47611895,-0.22149368,0.05657831,-0.47861075,0.16525514,-0.20022886,-0.07441773,0.029896196,-0.05162669,0.03125275,0.05573713,-0.042255133,0.07170205,0.052236132,-0.040785495,-0.02714312,-0.05788762,0.052801643,-0.013027433,3.0,1.8835547,-3.0,3.0,2.6711495,-3.0,-3.0,0.5419827,-3.0,3.0,-1.1022204,-3.0,3.0,1.9438955,-3.0,3.0,2.721005,-3.0,-3.0,0.5850126,-3.0,3.0,-0.92660314,-3.0
2025-06-05 17:23:42.543,0.0021194094,-0.00595453,0.05555613,0.0797585,-0.06256102,-0.016013457,0.0,0.0,0.0,-0.028500067,0.3511619,0.6313612,-0.21612442,0.18680021,0.90914726,-0.47369325,-0.22433414,0.0671465,-0.48749307,0.1585847,-0.18646869,-0.05803118,-0.06515055,-0.06180541,0.070151694,0.036346283,0.040692434,-0.0048901737,-0.057255857,0.055910442,0.020002687,-0.01825685,-0.045790434,-0.0045067207,3.0,1.9438955,-3.0,3.0,2.721005,-3.0,-3.0,0.5850126,-3.0,3.0,-0.92660314,-3.0,3.0,1.7541305,-3.0,3.0,3.0,-3.0,-3.0,0.31802905,-3.0,3.0,-0.7742426,-3.0
2025-06-05 17:23:42.563,-0.014998474,-0.008629768,0.0059163896,0.07907589,-0.03771155,0.04313263,0.0,0.0,0.0,-0.028740836,0.3336826,0.62132573,-0.224936,0.1965896,0.90649813,-0.48160356,-0.23334679,0.0683792,-0.48759222,0.1638036,-0.19566697,-0.06818994,-0.020066755,0.028177312,0.069914274,0.02551643,0.023581604,-0.07847338,0.046294205,-0.058901574,-8.8167806e-05,-0.0495097,-0.04735865,-0.067042336,3.0,1.7541305,-3.0,3.0,3.0,-3.0,-3.0,0.31802905,-3.0,3.0,-0.7742426,-3.0,3.0,1.8679587,-3.0,3.0,3.0,-3.0,-3.0,0.58588344,-3.0,3.0,-0.87061757,-3.0
2025-06-05 17:23:42.584,-0.023031559,0.07605939,0.009284145,0.08139212,0.0012904684,0.0027093247,0.0,0.0,0.0,-0.028347349,0.33804676,0.6278431,-0.21286152,0.18326509,0.9186411,-0.48307815,-0.21947084,0.06882822,-0.47072506,0.16156916,-0.18166582,-0.07385434,0.06508583,0.046653185,0.06410096,0.01939017,0.0017917297,-0.017823419,0.05038499,0.041578904,0.045771305,0.060294773,0.004890501,0.063512236,3.0,1.8679587,-3.0,3.0,3.0,-3.0,-3.0,0.58588344,-3.0,3.0,-0.87061757,-3.0,3.0,1.7435981,-3.0,3.0,3.0,-3.0,-3.0,0.4197545,-3.0,3.0,-1.0540975,-3.0
2025-06-05 17:23:42.603,-0.010458883,-0.014907149,0.0043168906,0.13588378,-0.0017852247,-0.047845226,0.0,0.0,0.0,-0.02762039,0.33611032,0.6314121,-0.21295044,0.18440472,0.9391996,-0.47967204,-0.2162723,0.06702203,-0.4759531,0.15537675,-0.18462037,-0.084224336,-0.03931574,-0.039323453,0.059264887,0.040479235,0.09279172,0.048877813,0.01623207,-0.07336366,0.027904531,0.061388202,0.054162033,-0.040558815,3.0,1.7435981,-3.0,3.0,3.0,-3.0,-3.0,0.4197545,-3.0,3.0,-1.0540975,-3.0,3.0,1.6571333,-3.0,3.0,3.0,-3.0,-3.0,0.582507,-3.0,3.0,-0.85919553,-3.0
2025-06-05 17:23:42.624,-0.036940854,0.014221056,-0.048928604,0.09354901,0.03169414,0.021527354,0.0,0.0,0.0,-0.026878614,0.34100398,0.6307572,-0.22051752,0.19154319,0.9400097,-0.4805646,-0.21524256,0.05661116,-0.47438115,0.16535623,-0.16406922,-0.07917103,-0.012439212,0.04171902,0.08297351,0.064928785,-0.030721225,-0.0013743504,0.033512186,0.041079015,-0.04045388,-0.032165118,-0.035576124,0.024434472,3.0,1.6571333,-3.0,3.0,3.0,-3.0,-3.0,0.582507,-3.0,3.0,-0.85919553,-3.0,3.0,2.1431081,-3.0,3.0,2.6991732,-3.0,-3.0,0.63775474,-3.0,3.0,-1.1432936,-3.0
2025-06-05 17:23:42.644,0.013299404,-0.038634393,-0.020501127,0.11784485,0.032594655,0.007183154,0.0,0.0,0.0,-0.026125124,0.34098837,0.63242394,-0.21567573,0.17750251,0.94500554,-0.49556985,-0.21802536,0.06654657,-0.4795585,0.16809171,-0.18046589,-0.077372506,0.030206582,0.06650345,0.0073017483,0.031421904,0.05674343,-0.029653389,0.072514184,0.012102326,-0.022739718,-0.017420225,-0.02502617,0.040585198,3.0,2.1431081,-3.0,3.0,2.6991732,-3.0,-3.0,0.63775474,-3.0,3.0,-1.1432936,-3.0,3.0,1.8412818,-3.0,3.0,2.5916548,-3.0,-3.0,0.515655,-3.0,3.0,-0.9849767,-3.0
2025-06-05 17:23:42.664,0.058157217,-0.0006234954,0.058595244,0.13568495,-0.03811294,-0.037338514,0.0,0.0,0.0,-0.025892235,0.3315279,0.6378359,-0.20383036,0.19318938,0.94814926,-0.49277928,-0.22854409,0.07185821,-0.46666318,0.1742187,-0.17000353,-0.06741095,-0.039310627,0.07239143,0.0010226947,-0.018802386,-0.08078271,-0.024824802,0.015459943,0.042777818,-2.9527204e-05,0.028689373,-0.04607444,-0.05589189,3.0,1.8412818,-3.0,3.0,2.5916548,-3.0,-3.0,0.515655,-3.0,3.0,-0.9849767,-3.0,3.0,1.5624398,-3.0,3.0,2.9890103,-3.0,-3.0,0.3568452,-3.0,3.0,-0.7417285,-3.0
2025-06-05 17:23:42.684,-0.019316223,0.03573244,-0.0023943773,0.128723,0.028594172,0.0026404397,0.0,0.0,0.0,-0.02605221,0.34302676,0.62823164,-0.21388191,0.19476876,0.9458758,-0.49098644,-0.22699413,0.057906162,-0.4818101,0.16993907,-0.17374808,-0.07385602,0.009441604,0.063938886,0.06006309,-0.054058176,0.0021082987,-0.07241461,-0.029529551,-0.047443278,-0.020514963,-0.010056134,-0.006943048,0.019846393,3.0,1.5624398,-3.0,3.0,2.9890103,-3.0,-3.0,0.3568452,-3.0,3.0,-0.7417285,-3.0,3.0,1.7281989,-3.0,3.0,3.0,-3.0,-3.0,0.6357484,-3.0,3.0,-1.0164597,-3.0
2025-06-05 17:23:42.703,-0.027591174,0.01662266,-0.023225475,0.1586999,-0.059526432,0.016214006,0.0,0.0,0.0,-0.025792833,0.3314351,0.6277637,-0.215609,0.19212495,0.949058,-0.49231517,-0.21252666,0.056620445,-0.47273034,0.17472607,-0.17494982,-0.076781705,0.0553859,0.044361457,0.06771068,0.033934176,0.009080662,-0.07099007,0.034553498,-0.010355484,0.06291141,-0.009190011,-0.0067623504,-0.042625424,3.0,1.7281989,-3.0,3.0,3.0,-3.0,-3.0,0.6357484,-3.0,3.0,-1.0164597,-3.0,3.0,1.825636,-3.0,3.0,3.0,-3.0,-3.0,0.54850155,-3.0,3.0,-1.0808392,-3.0
2025-06-05 17:23:42.795,-0.02054695,0.035947207,0.008638062,0.14603248,-0.006184405,0.042541135,0.0,0.0,0.0,-0.025448332,0.32891944,0.62021255,-0.19718982,0.18006228,0.95227146,-0.49283907,-0.22172919,0.059338447,-0.4760655,0.18098834,-0.18097873,-0.069817856,0.06358409,-0.036031034,-0.038923588,-0.06128949,-0.00320597,-0.03488237,0.032215416,-0.06661662,-0.0023669444,-0.011370769,0.055486646,0.01092764,3.0,1.825636,-3.0,3.0,3.0,-3.0,-3.0,0.54850155,-3.0,3.0,-1.0808392,-3.0,3.0,1.8439803,-3.0,3.0,3.0,-3.0,-3.0,0.50035936,-3.0,3.0,-0.9797992,-3.0
2025-06-05 17:23:42.814,0.0039466876,-0.031384114,0.019276276,0.122144066,-0.0142240925,0.010028097,0.0,0.0,0.0,-0.025307456,0.32989323,0.6220005,-0.20374215,0.18535389,0.94215524,-0.4944346,-0.21881485,0.067548424,-0.4645091,0.18113393,-0.17864539,-0.07436172,-0.02872149,0.008554319,-0.01660586,-0.010047755,-0.05905283,-0.027348904,0.074523434,0.05363476,-0.049394608,0.037862655,0.007956877,-0.055331092,3.0,1.8439803,-3.0,3.0,3.0,-3.0,-3.0,0.50035936,-3.0,3.0,-0.9797992,-3.0,3.0,2.023152,-3.0,3.0,3.0,-3.0,-3.0,0.458633,-3.0,3.0,-0.92244345,-3.0
2025-06-05 17:23:42.834,-0.008649785,0.053189885,0.031156873,0.109444,0.013692633,0.039543197,0.0,0.0,0.0,-0.025200745,0.33750764,0.630847,-0.19882505,0.17960125,0.94910336,-0.4778103,-0.20869178,0.06445606,-0.4709671,0.18149592,-0.18104698,-0.06586287,-0.0018088814,0.0061691254,-0.031580467,-0.07476479,-0.040795363,0.01062679,0.00030644285,0.0016144215,-0.006550652,-0.0673805,-0.050686445,-0.051322877,3.0,2.023152,-3.0,3.0,3.0,-3.0,-3.0,0.458633,-3.0,3.0,-0.92244345,-3.0,3.0,1.8698128,-3.0,3.0,3.0,-3.0,-3.0,0.42453706,-3.0,3.0,-0.83411056,-3.0
2025-06-05 17:23:42.900,0.0359942,0.02976515,-0.050569315,0.16462922,-0.008422548,0.0370736,0.0,0.0,0.0,-0.025031755,0.33913973,0.62508464,-0.2047922,0.18575852,0.9535996,-0.4768431,-0.2258782,0.057092212,-0.4748396,0.16565429,-0.18249223,-0.07527875,-0.037422165,-0.018504646,0.04480389,-0.025246486,0.035113364,-0.07162425,-0.048847932,0.0034405298,0.03905673,0.032947563,0.03523833,0.008485172,3.0,1.8698128,-3.0,3.0,3.0,-3.0,-3.0,0.42453706,-3.0,3.0,-0.83411056,-3.0,3.0,2.1056352,-3.0,3.0,2.7793868,-3.0,-3.0,0.57265455,-3.0,3.0,-1.2665129,-3.0
2025-06-05 17:23:42.920,-0.015080632,0.017033596,0.030903438,0.13984098,-0.0050999573,0.023380676,0.0,0.0,0.0,-0.024686113,0.33781326,0.6303635,-0.21137193,0.17513269,0.9537452,-0.48460028,-0.21492392,0.07103197,-0.4752849,0.17051329,-0.18819788,-0.07057765,0.0017604694,-0.043518152,-0.018063752,-0.007796188,-0.0009535197,-0.06497592,-0.056824803,0.012213095,0.029081708,0.061554052,0.015148418,-0.042391002,3.0,2.1056352,-3.0,3.0,2.7793868,-3.0,-3.0,0.57265455,-3.0,3.0,-1.2665129,-3.0,3.0,1.7115122,-3.0,3.0,2.9770625,-3.0,-3.0,0.35999256,-3.0,3.0,-0.8815655,-3.0
2025-06-05 17:23:42.938,0.025839603,-0.028306311,-0.00682382,0.08808879,0.021338047,-0.029751096,0.0,0.0,0.0,-0.024757253,0.33979487,0.62901527,-0.21142426,0.17753264,0.96879095,-0.49546862,-0.2080606,0.066815406,-0.47080526,0.18050973,-0.17949525,-0.07392658,-0.025123287,-0.04906818,-0.008926608,0.061453607,0.010724888,-0.056422267,0.045389198,-0.017493704,-0.016864197,0.052947946,-0.049845096,-0.024195708,3.0,1.7115122,-3.0,3.0,2.9770625,-3.0,-3.0,0.35999256,-3.0,3.0,-0.8815655,-3.0,3.0,2.0160606,-3.0,3.0,2.9988196,-3.0,-3.0,0.61026305,-3.0,3.0,-0.94287986,-3.0
2025-06-05 17:23:42.960,0.031786617,-0.029973293,0.027954964,0.08470079,0.010258902,-0.019065857,0.0,0.0,0.0,-0.024764014,0.33670202,0.64129376,-0.21356376,0.17622359,0.96742016,-0.48293912,-0.22704698,0.060082328,-0.47865343,0.16550018,-0.18736474,-0.06040142,0.0050980193,-0.04975994,0.010754772,-0.018795844,0.04186671,0.040237945,-0.033487584,0.06516855,-0.011377232,-0.032524653,-0.004948058,-0.03885408,3.0,2.0160606,-3.0,3.0,2.9988196,-3.0,-3.0,0.61026305,-3.0,3.0,-0.94287986,-3.0,3.0,1.9043571,-3.0,3.0,3.0,-3.0,-3.0,0.4236334,-3.0,3.0,-0.88370746,-3.0
2025-06-05 17:23:42.978,0.009044738,0.025207248,-0.009055663,0.1579657,-0.054270428,-0.0017805783,0.0,0.0,0.0,-0.024694143,0.33438936,0.6428845,-0.21284841,0.17628823,0.96365476,-0.4876663,-0.21076582,0.072731726,-0.46375737,0.17023914,-0.18278807,-0.06708967,-0.013521872,0.0715046,0.008972546,0.034380984,0.033914927,0.031337395,-0.020200765,-0.043020964,0.052317914,-0.032580145,0.06846372,-0.033500306,3.0,1.9043571,-3.0,3.0,3.0,-3.0,-3.0,0.4236334,-3.0,3.0,-0.88370746,-3.0,3.0,1.6787264,-3.0,3.0,2.8733506,-3.0,-3.0,0.51332444,-3.0,3.0,-1.1227739,-3.0
2025-06-05 17:23:42.999,-0.016031744,-0.06881421,-0.0052344683,0.10072198,-0.04896838,-0.0073936996,0.0,0.0,0.0,-0.024514265,0.31979108,0.64043576,-0.19932564,0.1813999,0.9774624,-0.47949237,-0.21657595,0.060526833,-0.47271657,0.16805033,-0.17784005,-0.06480925,-0.0627029,-0.02401425,0.058678776,0.047664724,-0.043674517,0.06863673,0.057677902,0.023575732,-0.014401176,-0.027068835,-0.011659762,0.045994774,3.0,1.6787264,-3.0,3.0,2.8733506,-3.0,-3.0,0.51332444,-3.0,3.0,-1.1227739,-3.0,3.0,1.9638642,-3.0,3.0,2.733526,-3.0,-3.0,0.57401735,-3.0,3.0,-0.9404207,-3.0
2025-06-05 17:23:43.019,0.04179363,0.042277392,-0.038068417,0.07997915,-0.04604717,0.017306993,0.0,0.0,0.0,-0.024427075,0.33408773,0.6490033,-0.20080811,0.17307112,0.9642027,-0.49136248,-0.21264331,0.065789096,-0.46505526,0.1774957,-0.18892698,-0.06434659,0.051696472,-0.0036347557,6.6771456e-05,-0.0052033756,0.0023467422,0.0692857,0.008803907,-0.054926164,0.070991516,-0.04905992,0.05016693,0.049960297,3.0,1.9638642,-3.0,3.0,2.733526,-3.0,-3.0,0.57401735,-3.0,3.0,-0.9404207,-3.0,3.0,1.826179,-3.0,3.0,2.6003358,-3.0,-3.0,0.53934973,-3.0,3.0,-1.180485,-3.0
2025-06-05 17:23:43.039,-0.0239724,0.0011562891,0.0077587273,0.09178099,-0.011683519,-0.012934829,0.0,0.0,0.0,-0.024567546,0.33122206,0.6415444,-0.21955867,0.17417097,0.9681358,-0.48889193,-0.22359978,0.06464364,-0.47417834,0.18204308,-0.18658027,-0.060587075,0.0040263683,0.055245083,0.037467074,-0.020430665,0.019322261,0.04804258,0.025432087,0.0042063575,0.0061289864,-0.023870254,-0.09057632,-0.024284888,3.0,1.826179,-3.0,3.0,2.6003358,-3.0,-3.0,0.53934973,-3.0,3.0,-1.180485,-3.0,3.0,1.638445,-3.0,3.0,2.7813225,-3.0,-3.0,0.54107517,-3.0,3.0,-0.7986166,-3.0
2025-06-05 17:23:43.060,0.018195085,0.0045821182,0.0038449813,0.08607486,-0.06827025,-0.0069343485,0.0,0.0,0.0,-0.025049366,0.33111274,0.64392936,-0.20240915,0.17366123,0.9567503,-0.47615963,-0.22922266,0.063123584,-0.467345,0.17732821,-0.18824409,-0.05733605,0.030416666,-0.022599999,-0.0050643147,0.011930056,-0.01338262,-0.03494539,0.047290497,0.069648705,0.007850933,0.050836854,-0.06346756,0.07607531,3.0,1.638445,-3.0,3.0,2.7813225,-3.0,-3.0,0.54107517,-3.0,3.0,-0.7986166,-3.0,3.0,1.9212085,-3.0,3.0,2.903889,-3.0,-3.0,0.48491895,-3.0,3.0,-1.0487036,-3.0
2025-06-05 17:23:43.079,0.04049518,-0.03832748,0.036832903,0.08536102,-1.1199003e-05,0.031553835,0.0,0.0,0.0,-0.02538085,0.34054288,0.6320878,-0.21864589,0.19007134,0.94550496,-0.48209843,-0.21384642,0.06993391,-0.47668695,0.17821978,-0.19937444,-0.05790297,-0.0750505,-0.062204193,-0.04875134,0.051006787,-0.027819749,-0.07063129,0.021300385,0.035274085,0.022892315,-0.0032931247,0.061966967,0.04594667,3.0,1.9212085,-3.0,3.0,2.903889,-3.0,-3.0,0.48491895,-3.0,3.0,-1.0487036,-3.0,3.0,1.9609476,-3.0,3.0,2.9625938,-3.0,-3.0,0.35662276,-3.0,3.0,-0.9615877,-3.0
2025-06-05 17:23:43.099,0.043601472,0.039897166,0.022321712,0.09508865,-0.040271703,0.015030934,0.0,0.0,0.0,-0.02552345,0.3292505,0.63863635,-0.20637116,0.1829344,0.9469007,-0.4722496,-0.22442728,0.055262085,-0.46780962,0.16579917,-0.19723086,-0.049703065,-0.04578906,-0.032995988,-0.060788028,-0.04038054,0.06471189,0.047753215,-0.057315238,0.017819304,0.026504735,-0.06451242,-0.018959224,-0.018509058,3.0,1.9609476,-3.0,3.0,2.9625938,-3.0,-3.0,0.35662276,-3.0,3.0,-0.9615877,-3.0,3.0,1.8670814,-3.0,3.0,2.949673,-3.0,-3.0,0.43895042,-3.0,3.0,-0.9173474,-3.0
2025-06-05 17:23:43.119,-0.017139843,-0.027810104,-0.044579245,0.13057537,-0.04728415,0.032229632,0.0,0.0,0.0,-0.025423788,0.32338968,0.6351814,-0.20928507,0.17580497,0.9630875,-0.47438586,-0.21772698,0.05943488,-0.4720925,0.17223336,-0.19084136,-0.04492339,-0.016905801,-0.06159929,0.0012925722,0.056844413,-0.04793967,0.05744288,-0.025670642,0.029194992,0.034759827,0.0037352284,-0.018417165,0.0123507865,3.0,1.8670814,-3.0,3.0,2.949673,-3.0,-3.0,0.43895042,-3.0,3.0,-0.9173474,-3.0,3.0,2.1562643,-3.0,3.0,2.6743827,-3.0,-3.0,0.5707707,-3.0,3.0,-1.2079233,-3.0
2025-06-05 17:23:43.139,0.05482422,-0.022657625,0.0070788288,0.13293208,0.015435594,0.035372965,0.0,0.0,0.0,-0.025089474,0.32013202,0.6328711,-0.21797729,0.18949565,0.9609199,-0.48021784,-0.21611887,0.06310468,-0.46663296,0.16599046,-0.19071141,-0.055092778,-0.028939426,0.052514378,-0.015115728,-0.06859181,-0.033364836,-0.054739278,0.059859224,0.07744203,-0.044706684,-0.03722846,0.044876467,-0.021722311,3.0,2.1562643,-3.0,3.0,2.6743827,-3.0,-3.0,0.5707707,-3.0,3.0,-1.2079233,-3.0,3.0,1.9238757,-3.0,3.0,2.6519463,-3.0,-3.0,0.38367897,-3.0,3.0,-0.9142875,-3.0
2025-06-05 17:23:43.160,-0.026340242,-0.026899572,-0.025772618,0.082110174,0.0032305932,0.030784316,0.0,0.0,0.0,-0.025131304,0.31985343,0.6520706,-0.2260579,0.1736497,0.9554122,-0.46665892,-0.22710867,0.06694004,-0.48218402,0.17850117,-0.20715731,-0.0458047,-0.034679,-0.009526806,-0.027696183,0.016471667,0.018824095,-0.005982793,-0.0062294686,-0.065024406,0.04917281,0.04914094,0.050937723,-0.026038526,3.0,1.9238757,-3.0,3.0,2.6519463,-3.0,-3.0,0.38367897,-3.0,3.0,-0.9142875,-3.0,3.0,1.7206293,-3.0,3.0,2.700125,-3.0,-3.0,0.577609,-3.0,3.0,-1.0760969,-3.0
2025-06-05 17:23:43.180,-0.03359855,0.002116322,0.06401185,0.105952986,0.026085796,-0.047363244,0.0,0.0,0.0,-0.025275825,0.33209434,0.6352449,-0.20984176,0.19055222,0.9561721,-0.4805829,-0.22494012,0.0631524,-0.4687312,0.16851401,-0.20197938,-0.0453196,0.053350206,-0.07587117,-0.05611604,-0.030213503,0.046838745,-0.018973416,0.06235182,0.0026271015,0.07186994,0.06542237,-0.068516545,0.033238158,3.0,1.7206293,-3.0,3.0,2.700125,-3.0,-3.0,0.577609,-3.0,3.0,-1.0760969,-3.0,3.0,1.4920425,-3.0,3.0,3.0,-3.0,-3.0,0.33898467,-3.0,3.0,-0.62764233,-3.0
2025-06-05 17:23:43.199,-0.015116967,0.019691268,-0.02555597,0.16489165,-0.045147415,-0.021033628,0.0,0.0,0.0,-0.025483126,0.32306072,0.6453542,-0.214529,0.17515203,0.9584265,-0.48266423,-0.21371274,0.06360267,-0.48224726,0.17709786,-0.2013803,-0.050645407,-0.08157858,-0.03868391,0.018336844,-0.0015204771,-0.015450022,-0.07548865,-0.06285342,-0.008605489,0.03393123,0.0203921,0.069142945,-0.0007150835,3.0,1.4920425,-3.0,3.0,3.0,-3.0,-3.0,0.33898467,-3.0,3.0,-0.62764233,-3.0,3.0,1.950405,-3.0,3.0,2.9292324,-3.0,-3.0,0.5990711,-3.0,3.0,-1.2467885,-3.0
