openverse-orca/OrcaGym/log/simulation_log_20250718_164013.csv
timestamp,sim_time,physics_step,control_step,imu_angle_roll,imu_angle_pitch,imu_angle_yaw,imu_angular_velocity_roll,imu_angular_velocity_pitch,imu_angular_velocity_yaw,imu_acc_x,imu_acc_y,imu_acc_z,fl_joint1_pos,fl_joint1_vel,fl_joint1_torque,fl_joint2_pos,fl_joint2_vel,fl_joint2_torque,fl_joint3_pos,fl_joint3_vel,fl_joint3_torque,fr_joint1_pos,fr_joint1_vel,fr_joint1_torque,fr_joint2_pos,fr_joint2_vel,fr_joint2_torque,fr_joint3_pos,fr_joint3_vel,fr_joint3_torque,hl_joint1_pos,hl_joint1_vel,hl_joint1_torque,hl_joint2_pos,hl_joint2_vel,hl_joint2_torque,hl_joint3_pos,hl_joint3_vel,hl_joint3_torque,hr_joint1_pos,hr_joint1_vel,hr_joint1_torque,hr_joint2_pos,hr_joint2_vel,hr_joint2_torque,hr_joint3_pos,hr_joint3_vel,hr_joint3_torque,fl_force_x,fl_force_y,fl_force_z,fr_force_x,fr_force_y,fr_force_z,hl_force_x,hl_force_y,hl_force_z,hr_force_x,hr_force_y,hr_force_z,fl_hip_action,fl_thigh_action,fl_calf_action,fr_hip_action,fr_thigh_action,fr_calf_action,hl_hip_action,hl_thigh_action,hl_calf_action,hr_hip_action,hr_thigh_action,hr_calf_action
2025-07-18 16:40:13.117,0.0,0,0,-0.00046140546,0.013106636,-0.002986987,0.0047102156,-0.019322373,-0.030679332,0.47648063,0.42126155,0.0,0.0,0.0022744713,-0.009282885,-0.0030246319,-0.006046848,-0.0038805206,-0.007812717,0.006942875,0.0075569297,-0.0085501345,-0.00014967444,-0.009048553,0.0025196467,0.043133345,0.04637493,0.034981914,0.070302166,-0.038503405,0.06942846,0.0035791355,-0.0408902,0.025657944,-0.042904027,-0.05939648,0.04522967,0.0,0.0,0.0,0.0,0.0,0.0,0.0,0.0,0.0,0.0,0.0,0.0,0.77189225,2.0,-2.0,-1.4612434,-2.0,-0.5640516,1.3870724,2.0,2.0,0.093251735,2.0,-0.55331886
2025-07-18 16:40:13.130,0.02,20,1,-0.10753701,0.22431168,-0.032981746,0.044244424,0.039308783,0.006659053,0.0,0.0,0.0,0.0,0.019059883,0.04486939,-0.047914237,-0.026569646,-0.021009313,-0.022436377,0.038314857,0.0416999,0.051794067,0.0067105996,0.045889113,-0.014151896,0.1069936,0.16825114,-0.052264478,-0.11713382,-0.058207378,-0.01219897,0.04033111,0.25861433,0.1476825,0.025809214,0.26375163,0.013733665,0.77189225,2.0,-2.0,-1.4612434,-2.0,-0.5640516,1.3870724,2.0,2.0,0.093251735,2.0,-0.55331886,-0.434746,-1.1971127,-2.0,1.5272942,-2.0,2.0,-1.8784243,-2.0,2.0,0.57539576,1.2572091,-2.0
2025-07-18 16:40:13.150,0.04,40,2,0.119105645,-0.060499933,-0.111074656,-0.007703236,-0.015046839,0.04294161,0.0,0.0,0.0,0.00043012234,0.013499081,0.076834984,-0.088686615,-0.047340415,-0.075991996,0.028204883,0.02233574,0.08034408,0.094500236,0.018927457,0.13288967,-0.05830204,-0.00084768416,-0.12863174,-0.103492446,-0.0036197582,-0.1333448,0.159874,-0.03918117,0.031243969,0.06839371,0.038639467,0.22402662,-0.16327906,-0.434746,-1.1971127,-2.0,1.5272942,-2.0,2.0,-1.8784243,-2.0,2.0,0.57539576,1.2572091,-2.0,1.6113856,-1.4766544,-2.0,-0.4783987,2.0,2.0,-0.9712681,-2.0,2.0,-2.0,1.5522187,-2.0
2025-07-18 16:40:13.170,0.06,60,3,-0.0007690335,-0.21247879,-0.012065999,-0.017550737,0.014253745,-0.03697806,0.0,0.0,0.0,0.0021748696,0.045305736,-0.022292849,-0.13838615,-0.04456907,-0.10297508,0.05774377,-0.011489054,0.03929918,0.13231915,-0.027068833,0.22457501,-0.09871712,0.11470484,-0.22077896,-0.05583244,-0.10344163,-0.035523143,0.047778826,-0.05549549,-0.04970243,0.13043924,-0.17812452,0.13891453,-0.0814488,1.6113856,-1.4766544,-2.0,-0.4783987,2.0,2.0,-0.9712681,-2.0,2.0,-2.0,1.5522187,-2.0,2.0,-2.0,-0.9254638,0.76105875,2.0,2.0,-0.5495305,-2.0,2.0,-2.0,0.16749695,-2.0
2025-07-18 16:40:13.191,0.08,80,4,0.15981975,0.12862553,0.030911202,0.0051938,0.028660614,-0.019346047,0.0,0.0,0.0,0.0032603785,0.09349285,-0.15925804,-0.14097439,-0.05400686,-0.12623936,0.09049278,0.006874982,0.013282646,0.15838504,-0.0763684,0.24329649,-0.13158901,0.16971162,-0.3915302,-0.06633294,-0.037760217,-0.0688251,0.12709475,0.08478155,-0.052108087,0.09502691,-0.17213692,-0.011233439,-0.06202511,2.0,-2.0,-0.9254638,0.76105875,2.0,2.0,-0.5495305,-2.0,2.0,-2.0,0.16749695,-2.0,2.0,-0.3312356,2.0,1.0434667,2.0,0.99529123,-1.7433853,-2.0,1.9713188,-2.0,-1.0686334,-1.3186572
2025-07-18 16:40:13.212,0.1,100,5,0.16888553,0.031516235,-0.10859596,0.005095343,0.02000252,0.0056646536,0.0,0.0,0.0,0.0024294753,0.12892304,-0.20834622,-0.06678329,-0.030876087,-0.105130725,0.095439784,-0.0041023064,-0.036148384,0.1923338,-0.12271138,0.14530534,-0.14205314,0.06251547,-0.056497503,0.1518825,0.023915272,-0.010405833,-0.0756049,-0.057514127,-0.1129335,0.09418609,-0.15073268,-0.2982461,0.047238175,2.0,-0.3312356,2.0,1.0434667,2.0,0.99529123,-1.7433853,-2.0,1.9713188,-2.0,-1.0686334,-1.3186572,2.0,-2.0,2.0,0.2262212,2.0,-2.0,-0.2496306,-0.5981627,-2.0,-2.0,0.1842742,2.0
2025-07-18 16:40:13.232,0.12000000000000001,120,6,0.22891013,-0.0777539,0.17307104,-0.047976337,0.011778421,0.03181359,0.0,0.0,0.0,0.003397621,0.1697505,-0.26958978,0.0036974875,-0.028047794,-0.04715888,0.028550386,-0.0052653286,-0.054439746,0.13130623,-0.15483421,0.09973257,-0.09213527,0.02306522,-0.23580442,0.2178193,-0.05301586,0.19101222,-0.16475101,-0.0669443,-0.11137395,-0.14877917,-0.0867798,-0.07253936,0.20528346,2.0,-2.0,2.0,0.2262212,2.0,-2.0,-0.2496306,-0.5981627,-2.0,-2.0,0.1842742,2.0,1.6421251,0.61302423,2.0,1.3217089,2.0,-2.0,-2.0,2.0,-2.0,-0.73773617,-2.0,2.0
2025-07-18 16:40:13.251,0.14,140,7,0.046693,0.14194383,-0.06482329,0.017264016,0.004374371,-0.04970232,0.0,0.0,0.0,0.0026931565,0.19578765,-0.2899706,0.05125708,0.010487944,0.029921975,-0.04309842,-0.02129335,-0.020207163,0.048195787,-0.1614576,0.057029657,-0.0059370534,0.0133159645,0.14267276,0.08878851,0.11978241,0.17669329,-0.1704997,-0.0487662,0.20556924,-0.1380709,0.0638687,-0.1899935,0.15484966,1.6421251,0.61302423,2.0,1.3217089,2.0,-2.0,-2.0,2.0,-2.0,-0.73773617,-2.0,2.0,-2.0,-0.35740593,2.0,0.5114139,1.5769764,-2.0,-1.2568042,2.0,-2.0,1.8475225,-2.0,2.0
2025-07-18 16:40:13.271,0.16,160,8,-0.37534255,-0.08137273,0.0060715564,-0.05861336,-0.04383723,-0.011076824,0.0,0.0,0.0,0.0025267287,0.1760811,-0.27043477,0.08855355,0.014615698,0.13797745,-0.08724438,-0.07236874,0.07955884,-0.014674193,-0.10193586,-0.060344145,0.04728827,-0.036222644,0.0845849,0.08166269,0.060497183,0.23802842,-0.08491499,-0.09181631,0.26694947,-0.08151503,0.22718298,-0.23131728,0.11187861,-2.0,-0.35740593,2.0,0.5114139,1.5769764,-2.0,-1.2568042,2.0,-2.0,1.8475225,-2.0,2.0,-2.0,2.0,2.0,-1.6797788,-2.0,-2.0,-0.055625882,2.0,-2.0,2.0,-2.0,2.0
2025-07-18 16:40:13.291,0.18,180,9,-0.25623378,-0.038916226,-0.13867065,-0.03137509,-0.012433174,0.034878287,0.0,0.0,0.0,0.0035795928,0.13859677,-0.22756323,0.1101449,-0.019188987,0.15826671,-0.13420093,-0.06618692,0.217148,-0.06508396,-0.055074755,-0.16765234,0.09427537,-0.071624085,0.09252795,-0.0045866184,-0.18501428,-0.11034734,-0.15550688,0.030147312,0.3778661,-0.121758275,0.025570031,-0.15050702,0.15782982,-2.0,2.0,2.0,-1.6797788,-2.0,-2.0,-0.055625882,2.0,-2.0,2.0,-2.0,2.0,-2.0,1.6478695,2.0,-2.0,-2.0,-2.0,2.0,-2.0,-2.0,2.0,-2.0,2.0
2025-07-18 16:40:13.311,0.19999999999999998,200,10,-0.04543116,0.060827766,-0.2015765,0.0058193253,0.05119092,-0.043432344,0.0,0.0,0.0,0.0044956217,0.1221015,-0.21672568,0.14682408,-0.08281273,0.06924485,-0.15818284,-0.0058815773,0.24106245,-0.10453665,-0.04171512,-0.20737994,0.13427246,-0.071863554,0.0051844595,0.0052865576,-0.1537896,-0.3481421,-0.0053400546,0.13097346,-0.14060599,-0.16604838,-0.025833752,-0.1509525,0.06605304,-2.0,1.6478695,2.0,-2.0,-2.0,-2.0,2.0,-2.0,-2.0,2.0,-2.0,2.0,-2.0,2.0,0.9404405,-2.0,-2.0,0.9346148,2.0,-1.6752831,2.0,2.0,2.0,-1.4696171
2025-07-18 16:40:13.331,0.21999999999999997,220,11,-0.22740337,-0.021148182,-0.04260934,-0.015269217,0.04930151,0.03415125,0.0,0.0,0.0,0.0070529245,0.08626656,-0.18445338,0.14071289,-0.123266526,-0.08524223,-0.10897954,0.055628896,0.15966548,-0.048301484,-0.030464906,-0.16497374,0.0695085,-0.10862852,0.15409094,0.012843477,-0.11291296,-0.31214443,0.07083796,0.11857496,-0.2840842,0.16358083,0.020997813,0.144079,-0.2387653,-2.0,2.0,0.9404405,-2.0,-2.0,0.9346148,2.0,-1.6752831,2.0,2.0,2.0,-1.4696171,-1.0601283,2.0,-2.0,-1.0283484,-2.0,2.0,0.75144404,1.8784206,2.0,1.6986256,2.0,-2.0
2025-07-18 16:40:13.354,0.23999999999999996,240,12,-0.3422408,0.32519764,0.079795,0.055839147,0.057258043,-0.020736394,0.0,0.0,0.0,0.008810234,0.06232799,-0.097692035,0.06368258,-0.124585524,-0.20709907,-0.044684958,0.073223725,0.1262966,0.0030270496,0.0035175113,-0.061940074,-0.005310451,-0.14888334,0.2857254,-0.17768306,-0.05564184,-0.25826687,0.21980798,0.035592403,0.06488931,0.07566929,0.025220945,0.30654207,-0.1404108,-1.0601283,2.0,-2.0,-1.0283484,-2.0,2.0,0.75144404,1.8784206,2.0,1.6986256,2.0,-2.0,0.5164558,0.67286116,-2.0,0.94790256,0.8663569,2.0,-1.8337092,-2.0,2.0,1.0920501,2.0,-2.0
2025-07-18 16:40:13.371,0.25999999999999995,260,13,-0.038819667,-0.08389859,0.1285322,0.0566687,0.06130792,0.018834868,0.0,0.0,0.0,0.008945574,0.055187292,-0.022514066,-0.016880276,-0.09076871,-0.2683843,0.011244509,0.070757054,0.14278649,0.069225706,0.017435707,0.045252956,-0.07000075,0.071309574,0.11221393,-0.1789201,0.04836468,-0.03810132,0.13004352,0.0058061685,0.03822627,0.15263364,0.030444605,0.32278335,-0.122147106,0.5164558,0.67286116,-2.0,0.94790256,0.8663569,2.0,-1.8337092,-2.0,2.0,1.0920501,2.0,-2.0,2.0,-0.97276175,-2.0,1.629945,1.7228686,2.0,-1.6610392,-2.0,2.0,-2.0,2.0,-2.0
2025-07-18 16:40:13.391,0.27999999999999997,280,14,-0.009679332,-0.44942066,0.11711218,0.039587207,0.042512055,0.03335803,0.0,0.0,0.0,0.007549648,0.08780534,-0.028365105,-0.05618205,-0.044471677,-0.20986937,0.053173807,0.055410758,0.102723606,0.09841089,-0.03009493,0.16781266,-0.11414079,0.15435573,-0.122511424,-0.1197859,0.052443903,0.17903587,0.11200214,-0.10852039,-0.032563053,0.08493257,-0.1374257,0.28614154,-0.1761646,2.0,-0.97276175,-2.0,1.629945,1.7228686,2.0,-1.6610392,-2.0,2.0,-2.0,2.0,-2.0,2.0,-2.0,-1.5281796,2.0,0.5978092,2.0,-1.9181982,-2.0,2.0,-2.0,-0.55756056,-2.0
2025-07-18 16:40:13.411,0.3,300,15,0.08506207,-0.07724724,0.03141273,-0.0047184257,0.041225273,0.01956382,0.0,0.0,0.0,0.0054717846,0.14749035,-0.13260117,-0.089257106,-0.049723536,-0.1967658,0.086751446,0.020680264,0.07599717,0.13458043,-0.07410552,0.19966643,-0.14186746,0.076896705,-0.33830532,-0.055763282,0.005028568,0.019928131,0.07657575,-0.06285486,-0.063096054,0.1321006,-0.059141617,-0.11576949,-0.05324054,2.0,-2.0,-1.5281796,2.0,0.5978092,2.0,-1.9181982,-2.0,2.0,-2.0,-0.55756056,-2.0,2.0,-0.7030769,2.0,1.4018959,2.0,-0.21270649,-1.0954596,-2.0,0.6787227,-2.0,-0.98112,-1.7188278
2025-07-18 16:40:13.432,0.32,320,16,0.1980846,0.07171021,-0.094823904,0.028226465,0.024169328,0.0037181408,0.0,0.0,0.0,0.0038533574,0.18048462,-0.20702003,-0.040778793,-0.024429318,-0.15374388,0.064342014,0.004303533,0.041607074,0.13984407,-0.122890994,0.12663803,-0.16092555,0.11170997,-0.0619127,0.15231983,0.05130305,0.07367765,-0.1342987,-0.06927482,-0.044789027,-0.044699848,-0.049270768,-0.20122686,-0.029376565,2.0,-0.7030769,2.0,1.4018959,2.0,-0.21270649,-1.0954596,-2.0,0.6787227,-2.0,-0.98112,-1.7188278,1.8980838,-2.0,2.0,0.8857143,2.0,-2.0,-0.4243019,-0.5231704,-2.0,-2.0,-1.990347,2.0
2025-07-18 16:40:13.452,0.34,340,17,0.385345,0.05560822,0.018987926,-0.03665665,-0.0023072832,-0.015350847,0.0,0.0,0.0,0.004228017,0.19828653,-0.27012148,0.025884131,-0.018865753,-0.095160365,-0.021815699,-0.008351584,0.00070643675,0.06680735,-0.16045387,-0.01809407,-0.098065004,0.07423894,-0.27210656,0.086502574,0.073058225,0.20709011,-0.122729845,-0.053411007,-0.12028368,-0.24658637,-0.09867836,-0.42960706,0.21755162,1.8980838,-2.0,2.0,0.8857143,2.0,-2.0,-0.4243019,-0.5231704,-2.0,-2.0,-1.990347,2.0,0.8684705,2.0,2.0,0.36249506,2.0,-2.0,-0.56453806,2.0,-2.0,1.2428339,0.04985345,2.0
2025-07-18 16:40:13.472,0.36000000000000004,360,18,0.030477772,0.18790036,0.03140848,-0.024201185,0.020426719,0.018593667,0.0,0.0,0.0,0.0041512316,0.19786495,-0.2977023,0.08066366,-0.0016493618,-0.014724879,-0.07948431,-0.0056585097,0.03903872,-0.0011489859,-0.12426395,-0.07377655,-0.021985676,-0.06976302,0.061999828,0.12880088,-0.054922666,0.20174217,-0.10249119,0.050282925,0.26027474,-0.19939616,0.09153885,-0.020767283,0.15817767,0.8684705,2.0,2.0,0.36249506,2.0,-2.0,-0.56453806,2.0,-2.0,1.2428339,0.04985345,2.0,-2.0,0.8075208,2.0,-0.0052579045,-1.5474621,-2.0,-0.84801877,2.0,-2.0,2.0,-2.0,2.0
2025-07-18 16:40:13.492,0.38000000000000006,380,19,-0.024201047,0.1071647,-0.04066424,0.02767177,-0.029861325,0.044711698,0.0,0.0,0.0,0.0024741902,0.15658407,-0.23012519,0.10464844,-0.0027569507,0.04181929,-0.11509254,-0.028028969,0.13607083,-0.05984457,-0.06439931,-0.09246378,0.032158952,0.014896761,0.10536625,0.07857445,-0.026610844,0.07562018,-0.14761236,-0.05152445,0.36267558,-0.080978364,0.0647405,-0.11969163,0.17913073,-2.0,0.8075208,2.0,-0.0052579045,-1.5474621,-2.0,-0.84801877,2.0,-2.0,2.0,-2.0,2.0,-2.0,2.0,2.0,-2.0,-2.0,-2.0,1.8216801,0.2178151,-2.0,2.0,-2.0,2.0
2025-07-18 16:40:13.512,0.4000000000000001,400,20,0.049161382,0.0016367113,-0.09212309,-0.022995071,-0.028114485,0.0055631907,0.0,0.0,0.0,0.002571685,0.14753504,-0.2120813,0.13442099,-0.053159706,0.010035666,-0.1529875,0.0017405237,0.19343156,-0.10211591,-0.03581183,-0.12526059,0.08861286,0.013379644,-0.03681217,0.11749581,-0.112531684,-0.20180696,-0.02439109,0.11411029,-0.0146566965,-0.07824825,0.068275996,-0.011623476,0.12791914,-2.0,2.0,2.0,-2.0,-2.0,-2.0,1.8216801,0.2178151,-2.0,2.0,-2.0,2.0,-2.0,2.0,1.8731172,-2.0,-2.0,-0.48086673,2.0,-0.31684393,0.46160287,1.9714406,-0.78791606,1.3593963
2025-07-18 16:40:13.532,0.4200000000000001,420,21,0.08133865,-0.0067377826,-0.17632571,0.010696381,0.035224948,0.024692398,0.0,0.0,0.0,0.0040033874,0.14228792,-0.19341938,0.13921678,-0.10156788,-0.110429175,-0.12514584,0.05208582,0.1393195,-0.06530812,-0.0140304705,-0.15415785,0.100998536,-0.07271825,0.07973934,0.07909002,-0.17415884,-0.40619966,-0.032165904,0.18901391,-0.1423578,0.1087212,-0.01375957,-0.069655016,-0.016794391,-2.0,2.0,1.8731172,-2.0,-2.0,-0.48086673,2.0,-0.31684393,0.46160287,1.9714406,-0.78791606,1.3593963,-2.0,2.0,-1.0577364,-2.0,-0.86546755,2.0,2.0,0.32265413,2.0,1.9930425,2.0,-2.0
2025-07-18 16:40:13.552,0.4400000000000001,440,22,-0.17608422,-0.011798274,-0.011806602,-0.033450462,-0.031772453,0.011842703,0.0,0.0,0.0,0.00677356,0.09446063,-0.1381825,0.086836345,-0.13601947,-0.17132042,-0.063363776,0.11743675,0.12621124,-0.0060143634,0.022145264,-0.10907056,0.04604477,-0.13670485,0.2045165,-0.17483798,-0.07277509,-0.11986535,0.111460455,0.06613292,0.02601481,0.16517855,0.10363464,0.19094913,-0.22028996,-2.0,2.0,-1.0577364,-2.0,-0.86546755,2.0,2.0,0.32265413,2.0,1.9930425,2.0,-2.0,-1.3487266,1.6831251,-2.0,0.1026158,-2.0,2.0,-0.6732038,-2.0,2.0,1.9412019,2.0,-2.0
2025-07-18 16:40:13.572,0.46000000000000013,460,23,-0.19315822,0.051603306,0.00084121665,0.06333892,-0.04283323,-0.04733407,0.0,0.0,0.0,0.008527498,0.05176143,-0.04002924,0.012715132,-0.11615421,-0.25057733,0.00023147062,0.087645724,0.08646893,0.051567666,0.05450037,-0.0013275344,-0.035452567,-0.09526567,0.28371525,-0.121333584,0.028153514,-0.313722,0.08487004,-0.11893095,-0.20137042,0.10167975,0.045448978,0.3540391,-0.17747904,-1.3487266,1.6831251,-2.0,0.1026158,-2.0,2.0,-0.6732038,-2.0,2.0,1.9412019,2.0,-2.0,1.1081892,0.35781223,-2.0,0.29533637,1.7795432,2.0,-1.0770215,-1.019203,2.0,-0.29673225,2.0,-2.0
2025-07-18 16:40:13.592,0.48000000000000015,480,24,-0.052120745,-0.22292416,0.11175642,0.011340383,0.014175591,0.006202697,0.0,0.0,0.0,0.008384893,0.067416884,-0.0060981866,-0.03983191,-0.09069322,-0.29135963,0.051466312,0.054112323,-0.0048728143,0.08982822,0.051962018,0.122838594,-0.08048812,0.10016062,0.1148212,-0.10427208,0.07273605,-0.020183401,0.15748718,-0.021590132,-0.15333992,0.03449032,-0.07674794,0.35896173,-0.051269185,1.1081892,0.35781223,-2.0,0.29533637,1.7795432,2.0,-1.0770215,-1.019203,2.0,-0.29673225,2.0,-2.0,2.0,-2.0,-2.0,1.9668953,1.6765711,2.0,-1.2241166,-2.0,2.0,-2.0,2.0,-2.0
2025-07-18 16:40:13.612,0.5000000000000001,500,25,0.049405217,-0.21152031,0.13114583,0.011687732,0.039941076,-0.0008754741,0.0,0.0,0.0,0.007121967,0.11067095,-0.028502025,-0.08923809,-0.08641234,-0.26754767,0.09012885,0.021204593,-0.04204049,0.14292446,-0.0025469007,0.25257382,-0.13124979,0.07657987,-0.1599591,-0.05575033,0.030318191,0.076295674,0.08848753,-0.083040506,-0.17512079,0.1307646,-0.10186787,0.2396691,-0.12102239,2.0,-2.0,-2.0,1.9668953,1.6765711,2.0,-1.2241166,-2.0,2.0,-2.0,2.0,-2.0,2.0,-2.0,-0.7694405,2.0,2.0,2.0,-1.6427648,-0.7356704,2.0,-2.0,-1.2815537,-2.0
2025-07-18 16:40:13.632,0.5200000000000001,520,26,0.16104661,-0.065744966,0.12559323,-0.019196179,0.0073802923,0.048234038,0.0,0.0,0.0,0.0046465565,0.1520109,-0.13728553,-0.08804739,-0.08822699,-0.2451549,0.10547337,0.011968855,-0.09200037,0.16600168,-0.055649795,0.2871265,-0.15416509,0.16692011,-0.32884753,-0.03433829,0.027996937,-0.05591646,0.08355898,-0.032723688,-0.0790397,0.025932122,-0.0798857,-0.14766736,-0.12216085,2.0,-2.0,-0.7694405,2.0,2.0,2.0,-1.6427648,-0.7356704,2.0,-2.0,-1.2815537,-2.0,2.0,-1.478187,2.0,1.8146293,2.0,-1.0037863,-1.8529396,-2.0,0.23163491,-2.0,-0.9528582,-0.15662958
2025-07-18 16:40:13.652,0.5400000000000001,540,27,0.30314314,-0.08155017,-0.026416983,0.005302693,0.04288091,-0.033852004,0.0,0.0,0.0,0.002426878,0.1862678,-0.23055568,-0.030238258,-0.07278837,-0.21407951,0.06862255,-0.011761891,-0.117992945,0.15458292,-0.10557667,0.19973925,-0.1304699,0.03887617,-0.14074306,0.118167445,-0.008410674,0.1407471,-0.06997455,-0.022699635,-0.13569035,-0.006033408,-0.10865822,-0.3423769,0.09793221,2.0,-1.478187,2.0,1.8146293,2.0,-1.0037863,-1.8529396,-2.0,0.23163491,-2.0,-0.9528582,-0.15662958,1.9698055,-1.8914787,2.0,1.8787817,2.0,-2.0,-0.87397873,2.0,-2.0,-2.0,-1.7339016,2.0
2025-07-18 16:40:13.673,0.5600000000000002,560,28,0.14994703,0.3158442,-0.12955321,0.018491562,-0.00034385725,0.02848662,0.0,0.0,0.0,0.0020007484,0.20567517,-0.3263699,0.035660375,-0.030348912,-0.1393025,-0.0023466921,-0.011633991,-0.08162276,0.077683985,-0.14905034,0.055131864,-0.052562814,0.05885882,-0.25689548,0.10837586,0.16360244,0.20996371,-0.17239152,-0.0781465,0.25873876,-0.2680805,-0.13236427,-0.30569187,0.22637852,1.9698055,-1.8914787,2.0,1.8787817,2.0,-2.0,-0.87397873,2.0,-2.0,-2.0,-1.7339016,2.0,-0.43157652,1.9530915,2.0,0.3278533,2.0,-2.0,-0.83206844,2.0,-2.0,1.289258,-2.0,2.0
2025-07-18 16:40:13.692,0.5800000000000002,580,29,-0.048125677,0.256181,-0.07239081,-0.058778238,-0.053263813,-0.03398556,0.0,0.0,0.0,0.003362486,0.18458521,-0.35502353,0.06771295,-0.0019700988,-0.041244082,-0.059734188,-0.04074622,0.023224982,-0.008104034,-0.13319594,-0.089792706,0.013162643,-0.059178658,0.087216094,0.17937131,0.018126259,0.22513917,-0.08976633,-0.098289594,0.29835412,-0.21200421,0.12041296,-0.2917947,0.07328248,-0.43157652,1.9530915,2.0,0.3278533,2.0,-2.0,-0.83206844,2.0,-2.0,1.289258,-2.0,2.0,-2.0,2.0,2.0,-0.98457134,-0.40833238,-2.0,-0.23530492,2.0,-2.0,2.0,-2.0,2.0
2025-07-18 16:40:13.713,0.6000000000000002,600,30,-0.20511809,0.091450326,-0.16560337,-0.03205336,-0.055172946,0.0044263,0.0,0.0,0.0,0.005246782,0.10624751,-0.2942081,0.11466281,-0.026616499,0.014178887,-0.1059787,-0.040898446,0.15435356,-0.05270261,-0.05209389,-0.2238611,0.066243045,-0.1094818,0.14881891,0.099782616,-0.060261343,-0.096131206,-0.09556684,0.043331992,0.2644659,-0.083590806,0.12470124,-0.17564146,0.1915887,-2.0,2.0,2.0,-0.98457134,-0.40833238,-2.0,-0.23530492,2.0,-2.0,2.0,-2.0,2.0,-2.0,2.0,2.0,-2.0,-1.4645765,-2.0,1.7013928,0.07347375,-2.0,2.0,-2.0,2.0
2025-07-18 16:40:13.733,0.6200000000000002,620,31,-0.0537353,0.032267697,-0.14333743,0.048008308,-0.04900584,-0.030439574,0.0,0.0,0.0,0.007202311,0.09303721,-0.25819635,0.12608008,-0.08897547,-0.051546704,-0.1455632,-0.0021622998,0.20561849,-0.08975552,-0.03567252,-0.28641877,0.098511964,-0.0036881287,0.111327745,-0.00059397303,-0.18671486,-0.30474117,-0.046134587,0.066042446,-0.010247182,-0.15645038,0.06391835,-0.06914509,0.102879874,-2.0,2.0,2.0,-2.0,-1.4645765,-2.0,1.7013928,0.07347375,-2.0,2.0,-2.0,2.0,-2.0,2.0,0.9810514,-2.0,-1.4397469,0.48705265,2.0,-0.9598235,2.0,2.0,1.564852,-0.565704
2025-07-18 16:40:13.753,0.6400000000000002,640,32,-0.27484295,0.043568894,-0.022946872,0.047170997,0.033827946,-0.006282981,0.0,0.0,0.0,0.009880534,0.078691274,-0.20799738,0.11949009,-0.11662733,-0.15339491,-0.11012903,0.06366509,0.12617338,-0.039739873,-0.017120447,-0.27060542,0.06166069,-0.01838201,0.16315791,0.024708971,-0.12347611,-0.21434727,0.06646495,0.13428043,-0.30351067,0.17978291,-0.062981,0.079870574,-0.12763603,-2.0,2.0,0.9810514,-2.0,-1.4397469,0.48705265,2.0,-0.9598235,2.0,2.0,1.564852,-0.565704,-1.1595185,2.0,-2.0,-1.526833,-2.0,2.0,0.90498495,2.0,2.0,1.7417405,2.0,-2.0
2025-07-18 16:40:13.773,0.6600000000000003,660,33,-0.32353485,0.24700528,0.032781105,0.052892033,-0.037359938,0.048557423,0.0,0.0,0.0,0.011260511,0.028170604,-0.11137723,0.052696925,-0.14711288,-0.27520004,-0.03420302,0.090539284,0.09242998,0.0071064457,0.0013534937,-0.18245773,-0.006010055,-0.12489119,0.20977922,-0.19633813,-0.09366384,-0.21306077,0.14685301,0.030576464,0.05451166,0.103564635,0.112728454,0.21835746,-0.13805655,-1.1595185,2.0,-2.0,-1.526833,-2.0,2.0,0.90498495,2.0,2.0,1.7417405,2.0,-2.0,-0.09816287,1.7601908,-2.0,0.40151703,0.38518605,2.0,-1.8706013,-2.0,2.0,1.7365997,2.0,-2.0
2025-07-18 16:40:13.793,0.6800000000000003,680,34,-0.10111004,-0.012292952,0.1401529,0.101188324,-0.044079293,-0.02534331,0.0,0.0,0.0,0.011131382,0.029759295,0.0068172575,-0.025589429,-0.123899624,-0.30266693,0.021545038,0.095448956,0.10365697,0.057512425,0.031878885,-0.07120727,-0.06509263,-0.052772276,0.29123017,-0.13444209,0.010676885,0.061276875,0.19477808,-0.04333684,-0.010456105,0.11683496,0.029580856,0.27391058,-0.21375582,-0.09816287,1.7601908,-2.0,0.40151703,0.38518605,2.0,-1.8706013,-2.0,2.0,1.7365997,2.0,-2.0,1.3985411,-1.9216748,-2.0,1.7580428,-1.0836817,2.0,-1.194261,-2.0,2.0,-2.0,2.0,-2.0
2025-07-18 16:40:13.813,0.7000000000000003,700,35,0.0031619673,-0.5825132,0.07572768,0.02830217,0.0020454698,-0.03157713,0.0,0.0,0.0,0.009540856,0.056209397,0.046668645,-0.06529236,-0.057489384,-0.3242825,0.06340224,0.068975255,0.09104704,0.11475251,-0.0014991164,0.061286427,-0.11273636,0.048357174,-0.11984005,-0.080061175,0.14152063,-0.085057445,0.06335352,-0.15739802,-0.086359136,0.11202009,-0.14777663,0.3749961,-0.15086707,1.3985411,-1.9216748,-2.0,1.7580428,-1.0836817,2.0,-1.194261,-2.0,2.0,-2.0,2.0,-2.0,2.0,-1.2284945,-2.0,0.6491645,2.0,2.0,-1.3907412,-2.0,2.0,-2.0,1.7901114,-2.0
2025-07-18 16:40:13.833,0.7200000000000003,720,36,0.13092674,-0.45030263,0.13138169,0.055875476,0.081794195,0.02251064,0.0,0.0,0.0,0.008424818,0.10399361,-0.011645008,-0.10566497,-0.03768601,-0.3134549,0.10234172,0.03150583,0.05599991,0.15114494,-0.0688831,0.18357305,-0.14016238,0.17364705,-0.19291918,-0.17159563,-0.10247136,0.01598475,-0.021963377,-0.109861955,-0.1473323,0.07823565,-0.087211594,0.23439881,-0.10848848,2.0,-1.2284945,-2.0,0.6491645,2.0,2.0,-1.3907412,-2.0,2.0,-2.0,1.7901114,-2.0,2.0,-2.0,-0.112742424,1.993916,2.0,2.0,-1.9472656,-2.0,2.0,-2.0,-0.51346976,-2.0
2025-07-18 16:40:13.853,0.7400000000000003,740,37,0.2197844,-0.104157194,0.08592177,-0.032736275,0.05451384,0.022998746,0.0,0.0,0.0,0.0051948605,0.13734208,-0.14784883,-0.09014799,-0.060893163,-0.3110259,0.1225395,0.016538227,-0.0061528254,0.17146316,-0.108356364,0.21528958,-0.1812674,0.042484537,-0.33676457,-0.016399307,-0.01386564,0.0043228893,0.028154101,0.018573392,-0.09232291,0.022679545,-0.17679015,-0.08573534,-0.09264948,2.0,-2.0,-0.112742424,1.993916,2.0,2.0,-1.9472656,-2.0,2.0,-2.0,-0.51346976,-2.0,2.0,-1.136469,2.0,1.600322,2.0,-1.138666,-2.0,-2.0,-0.5422668,-2.0,-0.7435088,0.79884195
2025-07-18 16:40:13.873,0.7600000000000003,760,38,0.35178536,-0.065364175,-0.09126383,-0.07414275,0.08894221,-0.04259478,0.0,0.0,0.0,0.0029373723,0.18567812,-0.21525206,-0.02274391,-0.0511489,-0.25740743,0.059389547,-0.022767335,-0.034995016,0.15083186,-0.14909306,0.13702594,-0.12307111,0.11804398,-0.19792435,0.2120648,0.002435962,0.12013796,-0.08280059,-0.01660106,-0.028865129,-0.1709627,-0.09405214,-0.26215506,0.13325267,2.0,-1.136469,2.0,1.600322,2.0,-1.138666,-2.0,-2.0,-0.5422668,-2.0,-0.7435088,0.79884195,1.2685595,-0.6948365,2.0,1.4473025,2.0,-2.0,-0.5318496,2.0,-2.0,-1.7309132,-2.0,2.0
2025-07-18 16:40:13.896,0.7800000000000004,780,39,0.16932422,0.3908556,-0.1340536,-0.069002576,-0.029854037,0.047757264,0.0,0.0,0.0,0.0031055594,0.1822521,-0.23219399,0.027825851,-0.0020174247,-0.20353639,0.004857943,-0.036951218,-0.0036046035,0.06504438,-0.16891746,0.022920694,-0.06130433,0.041842956,-0.044503216,0.20539086,0.16762811,0.17996801,-0.1081151,-0.012826918,0.26877993,-0.17934364,-0.03747632,-0.2851155,0.22041683,1.2685595,-0.6948365,2.0,1.4473025,2.0,-2.0,-0.5318496,2.0,-2.0,-1.7309132,-2.0,2.0,-1.4606994,0.62741506,2.0,0.4787885,2.0,-2.0,-0.82327646,2.0,-2.0,1.7086561,-2.0,2.0
2025-07-18 16:40:13.913,0.8000000000000004,800,40,-0.147398,0.294685,-0.0687175,0.002388148,0.00037516904,-0.021010218,0.0,0.0,0.0,0.004946254,0.12976386,-0.1933715,0.081171,0.011215891,-0.094373055,-0.06336013,-0.052403368,0.11836923,-0.010034316,-0.13838866,-0.12122502,0.0066335904,-0.12258999,0.17865911,0.049420595,0.07157193,0.22416672,-0.0813526,0.0069495477,0.4061823,-0.19776013,0.12735032,-0.378002,0.1773538,-1.4606994,0.62741506,2.0,0.4787885,2.0,-2.0,-0.82327646,2.0,-2.0,1.7086561,-2.0,2.0,-2.0,1.2513249,2.0,-1.5510691,-0.06791027,-2.0,0.039425645,2.0,-2.0,2.0,-2.0,2.0
2025-07-18 16:40:13.933,0.8200000000000004,820,41,-0.22538826,0.05664095,-0.12099187,0.0021718058,0.05216978,0.019473618,0.0,0.0,0.0,0.0065465975,0.10422376,-0.14206794,0.10108668,-0.027853107,-0.044948604,-0.1108602,-0.05590059,0.24105005,-0.055257518,-0.08410222,-0.24237558,0.057522815,-0.026167732,0.16663858,0.11718001,-0.07628839,0.046438064,-0.056545563,0.00836058,0.25808418,-0.09378115,0.088624224,-0.115988,0.1348377,-2.0,1.2513249,2.0,-1.5510691,-0.06791027,-2.0,0.039425645,2.0,-2.0,2.0,-2.0,2.0,-2.0,1.2798878,2.0,-2.0,-2.0,-2.0,1.8468643,-0.9968392,-2.0,2.0,-2.0,2.0
2025-07-18 16:40:13.953,0.8400000000000004,840,42,-0.007834676,0.02886593,-0.23090166,0.0032279182,0.032356195,-0.03258965,0.0,0.0,0.0,0.007524567,0.07945155,-0.102830365,0.12654564,-0.070624895,-0.08872893,-0.13513322,0.011474118,0.26646742,-0.10564858,-0.06268111,-0.2962993,0.1119814,-0.059950043,0.116876885,0.08263978,-0.057572227,-0.18193194,-0.10037386,0.15010776,-0.15179646,-0.06086135,0.026796458,-0.050944615,0.060837954,-2.0,1.2798878,2.0,-2.0,-2.0,-2.0,1.8468643,-0.9968392,-2.0,2.0,-2.0,2.0,-2.0,2.0,0.6699347,-2.0,-2.0,0.9063717,2.0,-1.581211,2.0,2.0,2.0,-2.0
2025-07-18 16:40:13.973,0.8600000000000004,860,43,-0.20744169,-0.015668737,-0.117261045,0.0014076094,0.011236375,0.0161327,0.0,0.0,0.0,0.010426761,0.06776673,-0.034665212,0.112988874,-0.11326244,-0.21648327,-0.098432705,0.07286913,0.18198326,-0.03483862,-0.04479675,-0.25898397,0.034104045,-0.11402437,0.16630623,-0.016202094,-0.13922752,-0.33779186,0.12670803,0.09523183,-0.35213715,0.24058063,0.0035078619,0.107626714,-0.17638546,-2.0,2.0,0.6699347,-2.0,-2.0,0.9063717,2.0,-1.581211,2.0,2.0,2.0,-2.0,-1.1722237,1.8014942,-2.0,-1.2342951,-0.5375455,2.0,0.22105762,2.0,2.0,1.7561972,2.0,-2.0
2025-07-18 16:40:13.993,0.8800000000000004,880,44,-0.3084075,0.42272502,0.074112765,0.05385675,5.2411415e-05,-0.00977999,0.0,0.0,0.0,0.013068914,0.020776179,0.06493161,0.03966959,-0.13902113,-0.26571232,-0.029716333,0.061147064,0.1659566,0.023528097,-0.013040605,-0.16596256,-0.03758013,-0.08173393,0.36732557,-0.20965414,0.031297956,0.03951012,0.19358286,-0.06459077,0.09208829,0.08140666,0.048529133,0.34561932,-0.10627188,-1.1722237,1.8014942,-2.0,-1.2342951,-0.5375455,2.0,0.22105762,2.0,2.0,1.7561972,2.0,-2.0,-0.6831365,-2.0,-2.0,2.0,-0.7469545,2.0,-1.8344431,-2.0,2.0,0.40179968,2.0,-2.0
2025-07-18 16:40:14.013,0.9000000000000005,900,45,-0.020295896,-0.27875602,0.094536245,0.10854173,-0.02222434,-0.02509473,0.0,0.0,0.0,0.013883828,0.008154778,0.1345389,-0.01790341,-0.105973534,-0.2609349,0.026442677,0.063125856,0.16821375,0.07744227,-0.00676543,-0.053134575,-0.08102565,-0.117774054,0.02264995,-0.11613449,0.14493227,-0.08933266,0.12246503,-0.046427384,-0.06394907,0.05922887,-0.01928978,0.21002638,-0.16793954,-0.6831365,-2.0,-2.0,2.0,-0.7469545,2.0,-1.8344431,-2.0,2.0,0.40179968,2.0,-2.0,2.0,-2.0,-2.0,1.0071352,2.0,2.0,-1.3859521,-2.0,2.0,-2.0,2.0,-2.0
2025-07-18 16:40:14.034,0.9200000000000005,920,46,0.09176085,-0.43167016,0.18601167,-0.0052393796,0.004746096,-0.0249833,0.0,0.0,0.0,0.013286929,0.04670465,0.10381281,-0.06661138,-0.06373918,-0.23863836,0.067182496,0.0071413675,0.12817594,0.12420797,-0.048389006,0.059097804,-0.12391343,0.1358855,-0.16746591,-0.1314974,0.031946786,0.07570912,0.08167505,-0.14104268,-0.09450456,0.0750993,-0.103571355,0.35368013,-0.15214065,2.0,-2.0,-2.0,1.0071352,2.0,2.0,-1.3859521,-2.0,2.0,-2.0,2.0,-2.0,2.0,-2.0,-1.6674812,2.0,1.1467808,2.0,-2.0,-2.0,2.0,-2.0,-0.42839718,-2.0
2025-07-18 16:40:14.054,0.9400000000000005,940,47,0.18511218,-0.12401093,0.0807186,0.06203395,0.07132972,-0.018095942,0.0,0.0,0.0,0.011026354,0.10350864,-0.027164983,-0.101078175,-0.059235457,-0.19512153,0.10092089,-0.0065852073,0.093454584,0.15350096,-0.10438769,0.088038854,-0.16530786,0.15215306,-0.38142604,-0.1441694,0.006726849,0.0077080764,0.023184285,-0.102121405,-0.12865508,0.13438258,-0.12459853,-0.0916308,-0.14019325,2.0,-2.0,-1.6674812,2.0,1.1467808,2.0,-2.0,-2.0,2.0,-2.0,-0.42839718,-2.0,2.0,-1.2649239,1.9760337,1.4517877,2.0,0.32297805,-1.4210047,-2.0,1.1486086,-2.0,0.51612425,-1.7701871
2025-07-18 16:40:14.074,0.9600000000000005,960,48,0.17499453,-0.065272994,-0.014287126,-0.0073507023,0.019931478,-0.021359058,0.0,0.0,0.0,0.008821058,0.13687845,-0.10809592,-0.04438807,-0.06312815,-0.16700473,0.079313286,-0.034393813,0.06677792,0.15911968,-0.14454848,0.10451603,-0.17899923,0.13506335,-0.27020943,0.2227326,0.08837625,0.12364566,-0.068248585,-0.10072608,-0.046913963,0.09062265,-0.14641546,-0.003875579,-0.0008123152,2.0,-1.2649239,1.9760337,1.4517877,2.0,0.32297805,-1.4210047,-2.0,1.1486086,-2.0,0.51612425,-1.7701871,2.0,-2.0,2.0,1.3300843,2.0,-2.0,-1.6614679,-1.6574553,-2.0,-2.0,-2.0,1.9392126
2025-07-18 16:40:14.094,0.9800000000000005,980,49,0.42142707,0.03663017,-0.04361889,-0.03695853,-0.0035248783,0.0013457851,0.0,0.0,0.0,0.008295546,0.18014528,-0.2354251,0.011835539,-0.016622279,-0.096208654,0.008217961,-0.059952058,0.043943826,0.103028975,-0.1771385,0.04989219,-0.11033432,0.14683335,-0.22572401,0.09767568,0.11851548,0.12623262,-0.19645917,-0.009711235,-0.097708285,-0.14489998,-0.05741475,-0.16920806,0.17664732,2.0,-2.0,2.0,1.3300843,2.0,-2.0,-1.6614679,-1.6574553,-2.0,-2.0,-2.0,1.9392126,0.5642124,1.2990607,2.0,0.9980463,2.0,-2.0,-0.84176445,2.0,-2.0,-0.21790856,-2.0,2.0
2025-07-18 16:40:14.114,1.0000000000000004,1000,50,0.27334243,0.43487197,-0.027000371,0.0051086224,0.010749967,-0.040702183,0.0,0.0,0.0,0.008562557,0.17180705,-0.25858116,0.059656624,0.00884014,0.010215555,-0.053094152,-0.07239604,0.09676801,0.024873378,-0.15803689,-0.07011567,-0.029432792,-0.07816128,0.009422223,0.14335117,0.020019898,0.29242498,-0.12573653,-0.034668334,0.24076255,-0.15525962,-0.015642231,-0.32804638,0.14651315,0.5642124,1.2990607,2.0,0.9980463,2.0,-2.0,-0.84176445,2.0,-2.0,-0.21790856,-2.0,2.0,-2.0,1.7490597,2.0,-0.0942826,-0.3234743,-2.0,-0.15031175,2.0,-2.0,2.0,-2.0,2.0
2025-07-18 16:40:14.134,1.0200000000000005,1020,51,-0.15634924,0.071749896,-0.08362928,0.0008960333,-0.05405241,0.034253698,0.0,0.0,0.0,0.009436843,0.14383183,-0.24034326,0.09528914,-0.00035075346,0.048480343,-0.09950037,-0.064299114,0.20519091,-0.046127293,-0.105408736,-0.20389254,0.021357805,-0.06326506,0.112601146,0.06280773,-0.08017373,0.110328846,-0.07405846,0.0049610576,0.34888357,-0.0871174,0.20562373,-0.35611114,0.14915584,-2.0,1.7490597,2.0,-0.0942826,-0.3234743,-2.0,-0.15031175,2.0,-2.0,2.0,-2.0,2.0,-2.0,2.0,2.0,-2.0,-2.0,-2.0,1.711136,-0.087958515,-2.0,2.0,-2.0,2.0
2025-07-18 16:40:14.154,1.0400000000000005,1040,52,-0.06969853,-0.14675808,-0.11101837,0.027686477,-0.010772811,-0.015759496,0.0,0.0,0.0,0.010508332,0.13704172,-0.2027975,0.12944295,-0.054581836,0.032611996,-0.13493995,-0.028731564,0.23896718,-0.08235135,-0.06362127,-0.28571045,0.07635311,-0.034606397,0.04441419,0.10709528,-0.12459469,-0.14800751,-0.09678741,0.07481262,-0.10475668,-0.13421237,0.057409905,-0.14019392,0.14009859,-2.0,2.0,2.0,-2.0,-2.0,-2.0,1.711136,-0.087958515,-2.0,2.0,-2.0,2.0,-2.0,2.0,1.960249,-2.0,-2.0,-1.7820902,2.0,-0.52448195,0.55549747,2.0,1.1167729,1.2608961
2025-07-18 16:40:14.174,1.0600000000000005,1060,53,-0.30365822,-0.03192673,-0.040085897,-0.010570373,0.02349984,0.013618165,0.0,0.0,0.0,0.012003914,0.10805381,-0.15320094,0.13707396,-0.09738815,-0.07687083,-0.15022306,0.04667637,0.17141202,-0.06350894,-0.04962404,-0.29886192,0.08122613,0.014361583,0.067074135,0.103122905,-0.1258676,-0.27134573,-0.09664782,0.1386349,-0.24147956,0.0016446831,-0.00032890434,0.119602546,0.04881984,-2.0,2.0,1.960249,-2.0,-2.0,-1.7820902,2.0,-0.52448195,0.55549747,2.0,1.1167729,1.2608961,-1.1545991,2.0,-2.0,-1.67332,-2.0,2.0,2.0,1.6254331,2.0,1.3887055,0.76331246,-2.0
2025-07-18 16:40:14.194,1.0800000000000005,1080,54,-0.30448958,0.35871896,0.005320386,0.05449876,-0.03688598,-0.040273353,0.0,0.0,0.0,0.013614911,0.07724911,-0.0604594,0.07629055,-0.13292806,-0.20663185,-0.09512327,0.0902626,0.16858518,0.012143605,-0.024843011,-0.2075459,0.011763132,-0.15158999,0.28911346,-0.19453456,-0.0813205,-0.38188276,0.2673198,0.12059757,0.0953056,0.14185521,0.11417962,0.22214697,-0.20334384,-1.1545991,2.0,-2.0,-1.67332,-2.0,2.0,2.0,1.6254331,2.0,1.3887055,0.76331246,-2.0,-0.5429783,1.2412286,-2.0,0.44273925,1.183387,2.0,-1.95676,-2.0,2.0,1.7235639,2.0,-2.0
2025-07-18 16:40:14.214,1.1000000000000005,1100,55,-0.21580562,0.26443776,0.19571342,0.06801062,0.040531974,0.021071188,0.0,0.0,0.0,0.013754925,0.05680209,0.035239555,0.005818552,-0.094461806,-0.25596175,-0.02350337,0.075060636,0.16780451,0.055899806,0.0022165407,-0.102707975,-0.036788166,-0.005818954,0.21815957,-0.20114121,0.06516488,0.030909406,0.12815647,-0.084168606,-0.0009843163,0.14459582,0.10237787,0.27872196,-0.111039214,-0.5429783,1.2412286,-2.0,0.44273925,1.183387,2.0,-1.95676,-2.0,2.0,1.7235639,2.0,-2.0,1.338985,-2.0,-2.0,2.0,-0.46654853,2.0,-1.55712,-2.0,2.0,-2.0,2.0,-2.0
2025-07-18 16:40:14.234,1.1200000000000006,1120,56,0.002470003,-0.4961156,0.14743343,0.10845395,0.04630757,0.046832733,0.0,0.0,0.0,0.011564867,0.06978757,0.064593256,-0.05660546,-0.054705117,-0.2520291,0.030747823,0.050741885,0.13679564,0.09561407,-0.03081993,0.02269673,-0.102208294,0.061096944,-0.12822017,-0.10757848,0.13822229,-0.00762064,0.08663539,-0.13031265,-0.056566797,0.1458881,-0.18540978,0.26508856,-0.13106771,1.338985,-2.0,-2.0,2.0,-0.46654853,2.0,-1.55712,-2.0,2.0,-2.0,2.0,-2.0,2.0,-2.0,-2.0,1.1689527,1.2297059,2.0,-1.633345,-2.0,2.0,-2.0,1.8150741,-2.0
2025-07-18 16:40:14.254,1.1400000000000006,1140,57,0.12947813,-0.3461492,0.1526223,0.0739891,0.05260145,0.04747767,0.0,0.0,0.0,0.009227261,0.11987196,-0.00813584,-0.08950509,-0.023533143,-0.21919203,0.0696995,0.008569179,0.09209608,0.14799453,-0.08116978,0.16263361,-0.13787384,0.11776654,-0.34206977,-0.09833453,-0.071089335,0.083106264,0.089073926,-0.083544694,-0.14434469,0.09508853,-0.13080093,0.32056966,-0.009503701,2.0,-2.0,-2.0,1.1689527,1.2297059,2.0,-1.633345,-2.0,2.0,-2.0,1.8150741,-2.0,2.0,-2.0,0.49677804,2.0,2.0,1.9877272,-2.0,-2.0,2.0,-2.0,-2.0,-2.0
2025-07-18 16:40:14.274,1.1600000000000006,1160,58,0.23517969,-0.022618044,-0.02232257,-0.012565621,-0.003701141,0.0072011496,0.0,0.0,0.0,0.006153468,0.15864585,-0.15621412,-0.07101277,-0.052869458,-0.19350618,0.0874824,-0.01291779,0.059036925,0.16412993,-0.12576458,0.18289661,-0.16033411,0.1557621,-0.3376216,0.08506812,-0.08178251,0.0041589113,0.023183502,-0.038795654,-0.079075634,0.045244258,-0.03414007,-0.07716614,-0.01202805,2.0,-2.0,0.49677804,2.0,2.0,1.9877272,-2.0,-2.0,2.0,-2.0,-2.0,-2.0,2.0,-2.0,2.0,1.009336,2.0,-1.8873255,-1.4507247,-2.0,-0.9553912,-2.0,-1.3473777,1.3262632
2025-07-18 16:40:14.294,1.1800000000000006,1180,59,0.39164048,0.003605767,-0.07467376,0.013732846,0.06613823,0.048749063,0.0,0.0,0.0,0.004531757,0.18585491,-0.26648358,-0.0069471765,-0.023674484,-0.15712877,0.021603495,-0.036121063,0.035565805,0.12816945,-0.15861683,0.105852164,-0.11451832,0.14951162,-0.20146546,0.13195516,0.09668972,0.10092039,-0.23811539,-0.08937293,-0.08605366,-0.15532465,-0.12551214,-0.25035197,0.09706119,2.0,-2.0,2.0,1.009336,2.0,-1.8873255,-1.4507247,-2.0,-0.9553912,-2.0,-1.3473777,1.3262632,1.0411863,1.2265003,2.0,1.015875,2.0,-2.0,-0.59145975,2.0,-2.0,-0.57405406,-1.9954787,2.0
2025-07-18 16:40:14.316,1.2000000000000006,1200,60,0.23572867,0.39529216,-0.07247477,0.018487636,-0.004361422,-0.044213545,0.0,0.0,0.0,0.004570329,0.19918583,-0.31415597,0.052922335,0.017125212,-0.070988454,-0.030541819,-0.045507208,0.07376196,0.061131854,-0.14960448,-0.03400999,-0.042250685,-0.007513526,0.08662925,0.14236324,0.119760096,0.2294844,-0.2044478,-0.02542556,0.26572785,-0.23510697,0.06383798,-0.43856537,0.19708377,1.0411863,1.2265003,2.0,1.015875,2.0,-2.0,-0.59145975,2.0,-2.0,-0.57405406,-1.9954787,2.0,-2.0,1.1275426,2.0,-0.18844178,2.0,-2.0,-0.14443249,2.0,-2.0,2.0,-2.0,2.0
2025-07-18 16:40:14.335,1.2200000000000006,1220,61,-0.23020138,0.1232365,0.06389804,0.031355157,-0.014610079,0.024374105,0.0,0.0,0.0,0.0056339214,0.14362867,-0.23479986,0.08436026,0.0040488,0.04458434,-0.08696069,-0.051916257,0.19687459,-0.009859995,-0.09532404,-0.16569246,0.021836434,-0.1566504,0.15153754,0.027661938,0.02873792,0.39434907,-0.15339863,0.0010608728,0.25261977,-0.13603216,0.12906983,-0.27541745,0.0747681,-2.0,1.1275426,2.0,-0.18844178,2.0,-2.0,-0.14443249,2.0,-2.0,2.0,-2.0,2.0,-2.0,2.0,2.0,-1.6244957,-2.0,-2.0,0.28559372,2.0,-2.0,2.0,-2.0,2.0
2025-07-18 16:40:14.355,1.2400000000000007,1240,62,-0.11844451,0.13534522,-0.14800131,0.024437325,-0.037722204,-0.010076468,0.0,0.0,0.0,0.0058794115,0.11242499,-0.17855313,0.11741323,-0.03849373,0.103062764,-0.13208254,-0.042130295,0.30019334,-0.053072043,-0.060227435,-0.26259246,0.06913426,0.012300926,0.14811185,0.03177488,-0.081552155,-0.04810329,-0.09934584,0.039859533,0.1840846,-0.19269088,-0.0055901906,-0.18169904,0.112197354,-2.0,2.0,2.0,-1.6244957,-2.0,-2.0,0.28559372,2.0,-2.0,2.0,-2.0,2.0,-2.0,0.7502898,2.0,-2.0,-2.0,-2.0,2.0,-2.0,-2.0,2.0,-1.646155,1.7838287
2025-07-18 16:40:14.375,1.2600000000000007,1260,63,-0.005591171,0.0422466,-0.14156975,-0.010432415,-0.036060296,0.015352306,0.0,0.0,0.0,0.006467826,0.120710984,-0.14992252,0.12888706,-0.09424738,0.04485953,-0.15423594,0.014230904,0.32916558,-0.10208159,-0.056066435,-0.29547295,0.11642917,0.048011787,0.084756896,0.08574354,-0.091482304,-0.2121764,-0.035417322,0.17727417,-0.14653626,-0.0820629,0.074431404,-0.17140655,0.046584696,-2.0,0.7502898,2.0,-2.0,-2.0,-2.0,2.0,-2.0,-2.0,2.0,-1.646155,1.7838287,-2.0,2.0,1.3478577,-2.0,-2.0,0.18392238,2.0,-2.0,2.0,2.0,2.0,-2.0
2025-07-18 16:40:14.395,1.2800000000000007,1280,64,-0.26278767,-0.10377096,-0.10774448,0.071436204,0.023353145,-0.0067660464,0.0,0.0,0.0,0.009206903,0.0870364,-0.086800195,0.13496286,-0.1319123,-0.08512854,-0.13449953,0.07102214,0.22830504,-0.039260503,-0.023245478,-0.2603762,0.04475363,-0.11940588,0.20064072,0.059839092,-0.10767877,-0.39409214,0.078218654,0.11098801,-0.29774195,0.17627919,0.11353952,0.19695042,-0.14118357,-2.0,2.0,1.3478577,-2.0,-2.0,0.18392238,2.0,-2.0,2.0,2.0,2.0,-2.0,-1.4170401,0.8051368,-2.0,-0.755419,-1.3948301,2.0,0.7237721,0.7538409,2.0,1.8399544,2.0,-2.0
2025-07-18 16:40:14.415,1.3000000000000007,1300,65,-0.2594182,0.22898686,0.10593004,0.0062386123,-0.01391815,-0.028830854,0.0,0.0,0.0,0.011901315,0.05902097,-0.0140370745,0.07173793,-0.14234757,-0.18253194,-0.061064806,0.08107182,0.20832145,0.021715319,0.0017678979,-0.15924586,-0.023211312,-0.13499552,0.22197157,-0.11700259,0.077396266,-0.15673496,0.24144194,-0.002514155,-0.026812548,0.17867416,0.011436542,0.2291253,-0.20498642,-1.4170401,0.8051368,-2.0,-0.755419,-1.3948301,2.0,0.7237721,0.7538409,2.0,1.8399544,2.0,-2.0,-0.12906158,-0.31006306,-2.0,1.3519496,-1.2453715,2.0,-1.6868979,-2.0,2.0,0.6679291,2.0,-2.0
2025-07-18 16:40:14.439,1.3200000000000007,1320,66,-0.06579552,-0.266017,0.11621338,0.07483693,0.025500018,0.030023603,0.0,0.0,0.0,0.012328108,0.04845362,0.0211302,0.0077129602,-0.08471748,-0.23468167,0.00865183,0.05478206,0.17707522,0.06117404,0.015643913,-0.047086917,-0.072854616,-0.011099013,0.055736426,-0.18435585,0.20972328,-0.098056085,0.09466169,-0.13487478,-0.10368922,0.08006245,0.066743195,0.28020817,-0.112213925,-0.12906158,-0.31006306,-2.0,1.3519496,-1.2453715,2.0,-1.6868979,-2.0,2.0,0.6679291,2.0,-2.0,1.9148939,-1.2580012,-2.0,1.1911187,0.4747783,2.0,-1.3877252,-2.0,2.0,-2.0,2.0,-2.0
2025-07-18 16:40:14.455,1.3400000000000007,1340,67,0.08472471,-0.48781088,0.20314552,0.042846605,0.020276738,0.04433503,0.0,0.0,0.0,0.010684458,0.07553212,-0.027682958,-0.042019766,-0.036501125,-0.24286291,0.065354876,-0.00046902662,0.13494447,0.11317541,-0.029592652,0.087110266,-0.11999508,0.18185505,-0.15796481,-0.15207766,0.044857074,0.08504355,0.16381449,-0.10192849,-0.15137956,0.109434485,-0.15797985,0.28941125,-0.05736909,1.9148939,-1.2580012,-2.0,1.1911187,0.4747783,2.0,-1.3877252,-2.0,2.0,-2.0,2.0,-2.0,2.0,-2.0,-1.9466138,2.0,0.72470933,2.0,-2.0,-2.0,2.0,-2.0,0.55712277,-2.0
2025-07-18 16:40:14.475,1.3600000000000008,1360,68,0.10788583,-0.20475468,0.09672227,-0.0029724166,0.012921109,-0.021817874,0.0,0.0,0.0,0.0071361605,0.120993525,-0.15903774,-0.09592656,-0.042667508,-0.21630006,0.082980566,-0.021918993,0.091131695,0.15983196,-0.08045228,0.1260001,-0.15296957,0.06461261,-0.36420158,-0.12493756,-0.03842359,-0.011295723,0.06550548,-0.09800736,-0.15481232,0.047247715,-0.050484143,-0.014071117,-0.117852606,2.0,-2.0,-1.9466138,2.0,0.72470933,2.0,-2.0,-2.0,2.0,-2.0,0.55712277,-2.0,2.0,-0.19640523,2.0,1.7431923,2.0,0.62155354,-1.6951175,-2.0,1.5704838,-2.0,0.3952273,-2.0
2025-07-18 16:40:14.495,1.3800000000000008,1380,69,0.08877554,-0.06805617,-0.04259436,0.045444537,0.00058335473,0.0036093367,0.0,0.0,0.0,0.0036059609,0.14952825,-0.22203138,-0.044919964,-0.05036151,-0.16660528,0.069888435,-0.04760835,0.051476758,0.17212285,-0.12478309,0.14371936,-0.17713922,0.12351343,-0.04863935,0.1844876,0.07861434,0.120957315,0.048600186,-0.13065101,-0.046559885,0.050575834,-0.1414363,0.07366563,-0.06179963,2.0,-0.19640523,2.0,1.7431923,2.0,0.62155354,-1.6951175,-2.0,1.5704838,-2.0,0.3952273,-2.0,2.0,-2.0,2.0,1.1172135,2.0,-1.1370099,-1.4082171,-1.6076652,-2.0,-2.0,-2.0,0.82060647
2025-07-18 16:40:14.515,1.4000000000000008,1400,70,0.44376072,0.025987297,0.018508555,0.027306715,0.07708336,-0.010787122,0.0,0.0,0.0,0.0028916376,0.19036828,-0.2717896,0.015217653,-0.016166262,-0.12279183,0.03426485,-0.07021131,0.032901015,0.11189731,-0.15847681,0.07654283,-0.14113428,0.062204916,-0.27651888,0.10922128,0.08006579,0.18502927,-0.0741837,-0.037014063,-0.06776558,-0.22121403,-0.10902167,-0.25332898,0.1142136,2.0,-2.0,2.0,1.1172135,2.0,-1.1370099,-1.4082171,-1.6076652,-2.0,-2.0,-2.0,0.82060647,0.8177191,2.0,2.0,1.1933863,2.0,-2.0,-1.2736919,2.0,-2.0,-0.42445713,-1.8823773,2.0
2025-07-18 16:40:14.535,1.4200000000000008,1420,71,0.18533395,0.34722772,-0.056222606,0.009588905,-0.031464905,-0.0007887203,0.0,0.0,0.0,0.0031649962,0.18934323,-0.27999622,0.07547432,0.013864917,-0.0344535,-0.04186797,-0.097975835,0.08877228,0.028638035,-0.15514159,-0.05089816,-0.05139064,-0.029857082,0.02949962,0.08330729,0.037311073,0.17675528,-0.0946468,-0.044108525,0.21232042,-0.18049754,0.0070849247,-0.29794827,0.18459557,0.8177191,2.0,2.0,1.1933863,2.0,-2.0,-1.2736919,2.0,-2.0,-0.42445713,-1.8823773,2.0,-2.0,1.9311141,2.0,0.011308163,1.6517903,-2.0,-0.1855618,2.0,-2.0,2.0,-2.0,2.0
2025-07-18 16:40:14.555,1.4400000000000008,1440,72,-0.2271482,0.034602486,-0.008903181,-0.00056790374,0.013925067,0.04661629,0.0,0.0,0.0,0.0040168255,0.1500489,-0.22892562,0.104746886,0.02066639,0.083987445,-0.093381375,-0.09066494,0.20797665,-0.026787715,-0.08589471,-0.17805599,0.006548831,-0.060565222,0.21517114,0.0058953227,-0.07604303,0.31823415,-0.15410438,0.068355665,0.3077258,-0.16155955,0.25691482,-0.27942586,0.13439694,-2.0,1.9311141,2.0,0.011308163,1.6517903,-2.0,-0.1855618,2.0,-2.0,2.0,-2.0,2.0,-2.0,1.848466,2.0,-1.6965429,-2.0,-2.0,0.63336086,2.0,-2.0,2.0,-2.0,2.0
2025-07-18 16:40:14.589,1.4600000000000009,1460,73,-0.22401024,-0.018829752,-0.1310123,-0.014742186,0.04692615,-0.012143394,0.0,0.0,0.0,0.0041936175,0.101649664,-0.1677216,0.12371628,-0.03377388,0.13713184,-0.13396125,-0.05709851,0.30701146,-0.07521007,-0.053266983,-0.2794305,0.058349684,-0.035133097,0.10112537,0.013168778,-0.13247046,-0.10727265,-0.08029933,0.0506243,0.24491705,-0.12746698,0.10549706,-0.115126304,0.064179555,-2.0,1.848466,2.0,-1.6965429,-2.0,-2.0,0.63336086,2.0,-2.0,2.0,-2.0,2.0,-2.0,1.3353397,2.0,-2.0,-2.0,-2.0,2.0,-2.0,-2.0,2.0,-1.6647037,1.6724559
2025-07-18 16:40:14.617,1.4800000000000009,1480,74,0.019988403,-0.033902444,-0.17693594,0.01130931,-0.02192216,-0.02569493,0.0,0.0,0.0,0.0046366462,0.114852324,-0.13120873,0.15512124,-0.07540566,0.060053255,-0.15439697,0.0025167465,0.3305768,-0.11702253,-0.039123897,-0.32650185,0.101914175,-0.029128002,0.10573375,0.039309487,-0.06807966,-0.23304084,-0.036758732,0.12933357,-0.080240116,-0.06407141,-0.028590428,-0.03154478,0.005102041,-2.0,1.3353397,2.0,-2.0,-2.0,-2.0,2.0,-2.0,-2.0,2.0,-1.6647037,1.6724559,-2.0,2.0,0.48244062,-2.0,-2.0,0.9551866,2.0,-2.0,2.0,2.0,2.0,-2.0
2025-07-18 16:40:14.627,1.5000000000000009,1500,75,-0.19082184,-0.12190309,-0.04120283,0.036425274,0.03806021,0.007785952,0.0,0.0,0.0,0.0075844293,0.08343927,-0.05743382,0.13414942,-0.13612743,-0.072511725,-0.116712,0.05397916,0.24335028,-0.048988473,-0.010124293,-0.2818722,0.020778885,-0.106549144,0.23909481,-0.047446415,-0.15169543,-0.42719063,0.08639619,0.10386742,-0.24646118,0.1213979,0.083773315,0.18685606,-0.25338054,-2.0,2.0,0.48244062,-2.0,-2.0,0.9551866,2.0,-2.0,2.0,2.0,2.0,-2.0,-1.0300963,0.59384805,-2.0,-0.17169175,-1.8048643,2.0,0.23263142,-0.13987464,2.0,1.4552383,2.0,-2.0
2025-07-18 16:40:14.655,1.520000000000001,1520,76,-0.09901674,0.07653351,0.04709889,0.03128691,-0.011204696,-0.0024352341,0.0,0.0,0.0,0.010445354,0.04274343,-0.007016561,0.062321376,-0.11845467,-0.19147581,-0.045342926,0.06423313,0.17928377,0.008056411,0.022849536,-0.20974274,-0.039692797,-0.108790316,0.16767983,-0.2284863,0.07468102,-0.2260031,0.106282264,-0.07010905,-0.07084437,0.07594863,0.11014744,0.27974132,-0.12395995,-1.0300963,0.59384805,-2.0,-0.17169175,-1.8048643,2.0,0.23263142,-0.13987464,2.0,1.4552383,2.0,-2.0,-0.03660176,0.005955644,-2.0,1.0479482,-0.47149384,2.0,-1.4976503,-2.0,2.0,0.40073568,2.0,-2.0
2025-07-18 16:40:14.675,1.540000000000001,1540,77,-0.04327495,-0.19735208,0.220539,0.040655434,0.057439633,0.019086719,0.0,0.0,0.0,0.011089124,0.03789441,0.023917265,-0.011577148,-0.07162352,-0.24100365,0.027419494,0.016740117,0.08909463,0.0593154,0.02233649,-0.09243685,-0.09344897,-0.011699094,0.06537267,-0.14390308,0.17801496,0.08738966,0.100122064,-0.13686417,-0.26190796,0.20332325,-0.037191536,0.25901762,-0.17881572,-0.03660176,0.005955644,-2.0,1.0479482,-0.47149384,2.0,-1.4976503,-2.0,2.0,0.40073568,2.0,-2.0,2.0,-1.7545459,-2.0,1.5111889,-2.0,2.0,-1.1799883,-0.20100707,2.0,-2.0,2.0,-2.0
2025-07-18 16:40:14.695,1.560000000000001,1560,78,0.10221062,-0.013231126,-0.11687467,0.05269837,0.07693742,0.030562,0.0,0.0,0.0,0.008907762,0.07239979,-0.020227026,-0.068165824,-0.036652826,-0.24521163,0.071241654,-0.0019618142,0.05153244,0.1040323,-0.004771092,0.01828144,-0.12819044,0.14607471,-0.14788629,-0.11834808,0.12146648,-0.024080105,0.080906846,-0.06566848,-0.06820766,0.12192619,-0.14429075,0.2898612,-0.11338607,2.0,-1.7545459,-2.0,1.5111889,-2.0,2.0,-1.1799883,-0.20100707,2.0,-2.0,2.0,-2.0,2.0,-0.2789995,-2.0,-0.16533309,1.2500341,2.0,0.03240249,-1.3133647,2.0,-2.0,2.0,-2.0
2025-07-18 16:40:14.715,1.580000000000001,1580,79,0.119417004,0.07070868,0.11970286,-0.036941133,0.035243,-0.0005096588,0.0,0.0,0.0,0.008462671,0.12085954,-0.059553657,-0.1066503,-0.045265496,-0.24307807,0.09719893,-0.002228511,0.048718404,0.14288674,-0.06546246,0.169887,-0.16751994,0.15019435,0.02451482,-0.15009014,-0.0067993416,0.0925966,0.06831046,-0.050439708,0.03099085,0.050894577,-0.069569565,0.2733998,-0.04712707,2.0,-0.2789995,-2.0,-0.16533309,1.2500341,2.0,0.03240249,-1.3133647,2.0,-2.0,2.0,-2.0,2.0,-2.0,-1.6003115,1.9727585,1.8227415,2.0,-1.8114799,-2.0,2.0,-2.0,0.232117,-2.0
2025-07-18 16:40:14.735,1.600000000000001,1600,80,0.22038366,0.1564097,0.04127943,-0.0059612943,-0.016334733,0.01830185,0.0,0.0,0.0,0.00754986,0.15930961,-0.11162191,-0.12052381,-0.036854096,-0.2349048,0.118846655,0.00458372,0.024352454,0.16879396,-0.108530715,0.20446052,-0.18597592,0.118371636,-0.21623841,-0.04022932,-0.0053169397,0.08074703,-0.024155652,0.057164993,-0.14756729,0.034374904,-0.13221338,-0.092918605,-0.05376272,2.0,-2.0,-1.6003115,1.9727585,1.8227415,2.0,-1.8114799,-2.0,2.0,-2.0,0.232117,-2.0,2.0,-2.0,2.0,1.3364456,2.0,-0.6817714,-1.0021712,-2.0,-0.754789,-2.0,-1.1237053,-0.10050941
2025-07-18 16:40:14.755,1.620000000000001,1620,81,0.36493087,0.12802087,-0.032277368,-0.032154743,-0.042970438,-0.036073368,0.0,0.0,0.0,0.005378008,0.19016309,-0.2364419,-0.06805826,-0.018675465,-0.19218764,0.07170613,-0.014590722,-0.0015461001,0.14216465,-0.16434519,0.13074374,-0.16557713,0.05075971,-0.33741227,0.21754177,0.014006559,0.111316755,-0.15486069,-0.024566839,-0.06862162,-0.057070907,-0.121919736,-0.33390749,0.09021165,2.0,-2.0,2.0,1.3364456,2.0,-0.6817714,-1.0021712,-2.0,-0.754789,-2.0,-1.1237053,-0.10050941,1.060465,0.84817713,2.0,1.1433338,2.0,-2.0,-1.0612892,2.0,-2.0,-1.489234,-1.6658233,2.0
2025-07-18 16:40:14.776,1.640000000000001,1640,82,0.19587287,0.32994297,-0.12542753,-0.06370331,-0.040685277,-0.018337982,0.0,0.0,0.0,0.004559934,0.20476298,-0.26978666,-0.007904974,0.024060568,-0.10166694,0.0110201975,-0.041999,0.040831458,0.06315775,-0.1771552,-0.006649003,-0.08792521,-0.06367127,0.059732616,0.22024854,0.14423001,0.29692876,-0.1467459,-0.030482924,0.25046054,-0.2288854,-0.02431545,-0.31755707,0.16558272,1.060465,0.84817713,2.0,1.1433338,2.0,-2.0,-1.0612892,2.0,-2.0,-1.489234,-1.6658233,2.0,-2.0,-0.27308738,2.0,0.2910557,2.0,-2.0,-0.5613899,2.0,-2.0,2.0,-2.0,2.0
2025-07-18 16:40:14.795,1.660000000000001,1660,83,-0.1485875,0.11463374,0.10740118,-0.015539515,-0.08477372,0.02968876,0.0,0.0,0.0,0.0054341,0.15577148,-0.25850925,0.057210345,0.03375218,0.006878708,-0.04775787,-0.05442804,0.14677987,-0.010264763,-0.13402773,-0.15022089,-0.007571892,-0.020709274,0.051365703,0.1296224,0.0037850728,0.26547956,-0.2010561,0.030058876,0.39441523,-0.12465135,0.14184527,-0.26677358,0.12067831,-2.0,-0.27308738,2.0,0.2910557,2.0,-2.0,-0.5613899,2.0,-2.0,2.0,-2.0,2.0,-2.0,2.0,2.0,-1.3176,-2.0,-2.0,-1.049156,2.0,-2.0,2.0,-2.0,2.0
2025-07-18 16:40:14.815,1.680000000000001,1680,84,-0.41912857,-0.27163112,0.08286813,0.02069066,0.006187542,-0.036842287,0.0,0.0,0.0,0.005318095,0.108015075,-0.21420819,0.079967,-0.017855465,0.05955699,-0.09333603,-0.07888962,0.27537093,-0.05413223,-0.054467667,-0.26010606,0.05135636,-0.1927932,0.14724848,0.088905856,-0.07017306,-0.06380563,-0.07018909,-0.12296157,0.24205267,-0.15320264,0.1461799,-0.19979659,0.099975415,-2.0,2.0,2.0,-1.3176,-2.0,-2.0,-1.049156,2.0,-2.0,2.0,-2.0,2.0,-2.0,2.0,2.0,-2.0,-2.0,-2.0,2.0,-1.4886113,-2.0,2.0,-2.0,2.0
2025-07-18 16:40:14.835,1.700000000000001,1700,85,-0.14734827,-0.08622001,-0.033775646,0.0641011,-0.025102118,-0.028724613,0.0,0.0,0.0,0.0033766783,0.067252055,-0.17380038,0.11878893,-0.076318584,-0.0013063914,-0.12512355,-0.014077813,0.30002627,-0.09590758,-0.03248396,-0.31599894,0.08189256,-0.13559188,0.024611125,0.026618985,-0.07203567,-0.21449676,-0.13364136,0.21762276,-0.1623457,-0.08504558,0.050955374,-0.14351717,0.044659384,-2.0,2.0,2.0,-2.0,-2.0,-2.0,2.0,-1.4886113,-2.0,2.0,-2.0,2.0,-2.0,2.0,1.4643784,-2.0,-2.0,-0.1892722,2.0,-1.276476,2.0,2.0,1.8687621,-0.32859802
2025-07-18 16:40:14.855,1.720000000000001,1720,86,-0.2674735,-0.023409866,0.0520093,0.04418606,-0.023932641,0.008108143,0.0,0.0,0.0,0.0028460568,0.018142657,-0.15037923,0.11457431,-0.1212962,-0.13248709,-0.11148412,0.038769573,0.2111522,-0.048353855,-0.032421127,-0.29001006,0.055508625,-0.10019428,0.1507615,-0.036128312,-0.16158205,-0.32919502,0.04403379,0.10911864,-0.23618884,0.12438655,-0.026809892,0.07900429,-0.061903857,-2.0,2.0,1.4643784,-2.0,-2.0,-0.1892722,2.0,-1.276476,2.0,2.0,1.8687621,-0.32859802,-0.22087026,2.0,-2.0,-1.0284768,-2.0,2.0,0.977614,1.2692541,2.0,1.217493,2.0,-2.0
2025-07-18 16:40:14.875,1.740000000000001,1740,87,-0.23430088,0.56259423,0.10810875,0.02858464,0.04600026,-0.0134346625,0.0,0.0,0.0,0.0023589327,0.012283888,-0.05041752,0.057631377,-0.12815137,-0.25899777,-0.045000855,0.07044996,0.17926782,0.018342463,-0.008512105,-0.21112233,-0.012906882,0.0018748032,0.29851925,-0.21136832,0.04489586,-0.21554755,0.1402991,-0.007177915,0.113354184,0.1066511,0.014415854,0.32238704,-0.100415,-0.22087026,2.0,-2.0,-1.0284768,-2.0,2.0,0.977614,1.2692541,2.0,1.217493,2.0,-2.0,0.48020378,0.6930888,-2.0,1.447342,0.21895109,2.0,-2.0,-2.0,2.0,0.6957275,2.0,-2.0
2025-07-18 16:40:14.895,1.7600000000000011,1760,88,-0.09382695,-0.04627523,0.16037434,0.11268923,0.04311649,0.010649911,0.0,0.0,0.0,0.0011949727,0.018017208,0.02550969,-0.008772714,-0.09195552,-0.28582308,0.01876041,0.070756555,0.18483992,0.07769136,0.0036261,-0.10282167,-0.06787704,0.02928894,0.191499,-0.19234101,0.098396584,-0.027874889,0.08139384,-0.07399191,-0.000106493964,0.12330462,0.029698834,0.32046375,-0.17985144,0.48020378,0.6930888,-2.0,1.447342,0.21895109,2.0,-2.0,-2.0,2.0,0.6957275,2.0,-2.0,2.0,-1.8504969,-2.0,2.0,0.34446448,2.0,-1.9761155,-2.0,2.0,-2.0,2.0,-2.0
2025-07-18 16:40:14.915,1.7800000000000011,1780,89,0.017846562,-0.7081194,0.13004933,0.10799074,0.046335496,0.040419355,0.0,0.0,0.0,-0.00066527165,0.07021308,-0.004219256,-0.06067771,-0.010529577,-0.23826371,0.056261398,0.036853015,0.16166121,0.107157625,-0.031312276,-0.005189091,-0.1175043,0.13592121,-0.162804,-0.07730293,0.124252506,0.19098601,0.13881518,-0.19433114,-0.14432101,0.043551944,-0.08599863,0.28327376,-0.0456235,2.0,-1.8504969,-2.0,2.0,0.34446448,2.0,-1.9761155,-2.0,2.0,-2.0,2.0,-2.0,2.0,-2.0,-1.4362867,1.5496879,-0.3249259,1.918317,-1.5096287,-2.0,2.0,-2.0,0.7677798,-2.0
2025-07-18 16:40:14.935,1.8000000000000012,1800,90,0.3364687,-0.18185566,0.026849711,-0.0058395793,0.03387247,0.0010570541,0.0,0.0,0.0,-0.0030106439,0.12584227,-0.11070906,-0.08153793,4.9603525e-05,-0.20839275,0.08394516,0.004197015,0.11326927,0.1428991,-0.07753388,0.063731134,-0.15122576,0.118522294,-0.3576911,-0.045291655,-0.06784369,-0.01022625,-0.016380714,-0.09855399,-0.10991362,0.050091825,-0.17418562,0.19769232,-0.010772568,2.0,-2.0,-1.4362867,1.5496879,-0.3249259,1.918317,-1.5096287,-2.0,2.0,-2.0,0.7677798,-2.0,2.0,-0.5261182,1.4119709,1.6368988,2.0,1.123513,-1.9142308,-2.0,2.0,-2.0,-0.27729878,-2.0
2025-07-18 16:40:14.955,1.8200000000000012,1820,91,0.25499958,0.026361503,-0.19848064,-0.008942478,0.0008529302,-0.026189564,0.0,0.0,0.0,-0.0042745876,0.16019432,-0.1757694,-0.04584601,0.004055196,-0.19921567,0.100626335,-0.022202084,0.069773935,0.18672447,-0.12542193,0.057863336,-0.18088512,0.12371988,-0.014838851,0.13964705,0.033926226,-0.019435523,0.05632288,-0.13546023,-0.06063989,0.115087636,-0.05879715,-0.028482093,-0.10798277,2.0,-0.5261182,1.4119709,1.6368988,2.0,1.123513,-1.9142308,-2.0,2.0,-2.0,-0.27729878,-2.0,2.0,-2.0,2.0,0.026364267,2.0,-0.6265173,-0.286873,-2.0,-0.76630765,-2.0,0.6025794,0.79954094
2025-07-18 16:40:14.976,1.8400000000000012,1840,92,0.2510795,-0.019338844,0.10570716,0.024151519,0.0574087,0.014964881,0.0,0.0,0.0,-0.002426094,0.18494996,-0.23135357,0.026526254,0.006019579,-0.16594014,0.045225438,-0.030615358,0.04922895,0.14706704,-0.16291933,0.07603194,-0.12765822,0.08479246,-0.21714853,0.11967861,0.03029259,0.083669886,-0.062791616,-0.05192377,-0.050975256,-0.18173727,-0.13724227,0.13646954,0.12919843,2.0,-2.0,2.0,0.026364267,2.0,-0.6265173,-0.286873,-2.0,-0.76630765,-2.0,0.6025794,0.79954094,2.0,-1.4922659,2.0,1.3553591,2.0,-2.0,-2.0,2.0,-2.0,-2.0,-2.0,2.0
2025-07-18 16:40:14.997,1.8600000000000012,1860,93,0.24999768,0.21389188,-0.07633371,-0.06517383,-0.010126283,0.0073013236,0.0,0.0,0.0,-0.0025025357,0.22419108,-0.2940789,0.07506231,0.032048132,-0.08819791,-0.016663237,-0.06829438,0.09615628,0.057708267,-0.19045337,0.036247734,-0.04719245,0.11770093,-0.13983528,0.05069612,0.020830285,0.26377955,-0.13015786,-0.14742735,0.19351424,-0.16619521,-0.025372947,-0.19800346,0.16517845,2.0,-1.4922659,2.0,1.3553591,2.0,-2.0,-2.0,2.0,-2.0,-2.0,-2.0,2.0,-1.0621208,1.1626587,2.0,0.6566945,2.0,-2.0,-1.5042982,2.0,-2.0,1.0390368,-2.0,2.0
2025-07-18 16:40:15.016,1.8800000000000012,1880,94,-0.014307064,0.2864028,-0.026369344,0.008157127,-0.06112576,-0.04982635,0.0,0.0,0.0,-0.0019462003,0.17475551,-0.30198747,0.10747072,0.032420542,-0.006824219,-0.077680476,-0.105855316,0.19815019,-0.003421801,-0.1537862,-0.05479638,0.018545857,-0.047659487,0.08384858,0.1236585,-0.029382478,0.2346476,-0.09803199,-0.13703085,0.2936628,-0.19827701,0.088142045,-0.3633841,0.21268514,-1.0621208,1.1626587,2.0,0.6566945,2.0,-2.0,-1.5042982,2.0,-2.0,1.0390368,-2.0,2.0,-2.0,2.0,2.0,-0.99091685,-0.8599367,-2.0,-0.43898213,2.0,-2.0,2.0,-2.0,2.0
2025-07-18 16:40:15.036,1.9000000000000012,1900,95,-0.3813222,-0.074869655,-0.022752158,-0.034769576,-0.05148165,-0.01063392,0.0,0.0,0.0,-0.0003421173,0.14124,-0.26079035,0.13600203,0.003513377,0.054976206,-0.10768712,-0.099832945,0.32211423,-0.06344035,-0.07982177,-0.18286653,0.07119349,-0.14089082,0.047457304,0.11841236,-0.04713843,-0.01261169,-0.163796,0.03897884,0.27148822,-0.06509144,0.1000298,-0.23356172,0.10205023,-2.0,2.0,2.0,-0.99091685,-0.8599367,-2.0,-0.43898213,2.0,-2.0,2.0,-2.0,2.0,-2.0,2.0,2.0,-2.0,-2.0,-2.0,1.9834225,-1.5083936,-2.0,2.0,-2.0,2.0
2025-07-18 16:40:15.059,1.9200000000000013,1920,96,-0.089408085,-0.13202636,-0.122395806,0.019777467,0.003953932,-0.041794647,0.0,0.0,0.0,0.00029013527,0.11069434,-0.2228892,0.15754282,-0.04663512,0.010330541,-0.14395662,-0.03632775,0.33841172,-0.10341882,-0.06864328,-0.25873843,0.096268125,-0.1017275,0.14331415,0.06661979,-0.20652603,-0.29515156,-0.100481406,0.11905281,-0.05273739,-0.15599956,0.076306626,-0.079000115,0.15303852,-2.0,2.0,2.0,-2.0,-2.0,-2.0,1.9834225,-1.5083936,-2.0,2.0,-2.0,2.0,-2.0,2.0,2.0,-2.0,-1.9170018,0.09755674,2.0,-2.0,1.555972,2.0,1.6451935,-0.83420146
2025-07-18 16:40:15.076,1.9400000000000013,1940,97,-0.32124302,-0.06063043,-0.045375645,-0.01026706,0.061241087,0.044957083,0.0,0.0,0.0,0.0021037608,0.08819014,-0.17395027,0.15921928,-0.09910269,-0.09731822,-0.12282396,0.024496108,0.23569754,-0.04907166,-0.0643843,-0.236708,0.05550155,-0.02928906,0.15762432,0.00033050086,-0.17451249,-0.3311132,0.115058236,0.12876292,-0.24156602,0.12837173,-0.013479702,0.12833591,-0.045668248,-2.0,2.0,2.0,-2.0,-1.9170018,0.09755674,2.0,-2.0,1.555972,2.0,1.6451935,-0.83420146,-1.0433757,2.0,-2.0,-1.4053578,-2.0,2.0,1.3859473,0.82107574,2.0,1.6312349,2.0,-2.0
2025-07-18 16:40:15.096,1.9600000000000013,1960,98,-0.28187194,0.3754539,0.017531483,0.030119674,0.059235018,-0.030462444,0.0,0.0,0.0,0.0040014246,0.06454778,-0.09088102,0.088478394,-0.11967461,-0.23107526,-0.050137654,0.068235114,0.20187084,0.01853186,-0.033010878,-0.14656788,0.0016814743,-0.061971,0.28588077,-0.24537547,-0.058101818,-0.3412417,0.17945062,0.026123814,0.12161762,0.10674716,0.0391426,0.3119966,-0.1203139,-1.0433757,2.0,-2.0,-1.4053578,-2.0,2.0,1.3859473,0.82107574,2.0,1.6312349,2.0,-2.0,-0.12427562,1.3047334,-2.0,0.47998565,1.352495,2.0,-2.0,-2.0,2.0,1.4166873,2.0,-2.0
2025-07-18 16:40:15.116,1.9800000000000013,1980,99,-0.108090274,0.16979484,0.18594126,0.12679835,0.053228132,0.023274759,0.0,0.0,0.0,0.004256735,0.037969384,0.028840832,0.023681052,-0.0940298,-0.27012256,0.019984398,0.071199805,0.2060803,0.069801375,-0.010270771,-0.021378731,-0.0603272,0.029228771,0.24362175,-0.19104427,0.009655434,0.03315231,0.13736019,0.05672426,-0.045850996,0.14725302,0.08075363,0.36825112,-0.11465111,-0.12427562,1.3047334,-2.0,0.47998565,1.352495,2.0,-2.0,-2.0,2.0,1.4166873,2.0,-2.0,1.9714301,-2.0,-2.0,2.0,0.7068348,2.0,-1.7177396,-2.0,2.0,-2.0,2.0,-2.0
2025-07-18 16:40:15.137,2.0000000000000013,2000,100,0.026323678,-0.5640856,0.061047554,0.089900665,0.012983179,-0.012105236,0.0,0.0,0.0,0.0025636873,0.07126671,0.06254016,-0.030662045,-0.036869425,-0.2268717,0.06861798,0.034895,0.17757231,0.10797943,-0.04785538,0.11420785,-0.110423386,0.046149526,-0.07284886,-0.081194215,0.1922853,0.17602693,0.1109436,-0.10873618,-0.02940263,0.06628507,-0.09680746,0.38155112,-0.058597885,1.9714301,-2.0,-2.0,2.0,0.7068348,2.0,-1.7177396,-2.0,2.0,-2.0,2.0,-2.0,2.0,-2.0,-1.9841878,1.1108029,0.5557711,2.0,-1.3437841,-2.0,2.0,-2.0,-0.711192,-2.0
2025-07-18 16:40:15.156,2.0200000000000014,2020,101,0.19734795,-0.14557217,0.02105175,0.042263534,0.07182528,-0.012675572,0.0,0.0,0.0,0.0006002314,0.12746154,-0.0061485833,-0.089906566,-0.027517468,-0.17345849,0.08806146,0.0011066418,0.15527223,0.14723141,-0.087790124,0.16106483,-0.13758846,0.061510004,-0.3151364,-0.117815904,0.066314586,0.11512667,-0.0035860806,-0.08077994,-0.12132535,0.071227886,-0.18333222,0.03676778,-0.107908,2.0,-2.0,-1.9841878,1.1108029,0.5557711,2.0,-1.3437841,-2.0,2.0,-2.0,-0.711192,-2.0,2.0,-2.0,1.2289128,1.2167758,2.0,0.5457138,-0.8405659,-2.0,1.0991765,-2.0,-1.2599884,-2.0
2025-07-18 16:40:15.176,2.0400000000000014,2040,102,0.36770728,0.053752355,-0.03411166,0.013518732,0.009743814,-0.00469286,0.0,0.0,0.0,-0.0015463436,0.16566357,-0.14722294,-0.04919837,-0.021425825,-0.119040385,0.08404113,0.0054074833,0.11775358,0.14977242,-0.12653822,0.1024783,-0.16912657,0.06730031,-0.3912439,0.058251105,0.10403341,0.17506109,0.023094608,-0.09016333,-0.10903374,0.07655442,-0.036780126,-0.2321788,0.011601734,2.0,-2.0,1.2289128,1.2167758,2.0,0.5457138,-0.8405659,-2.0,1.0991765,-2.0,-1.2599884,-2.0,1.9178246,-1.6423837,2.0,0.47459185,2.0,-2.0,-0.7339067,-2.0,-2.0,-2.0,-1.3103212,2.0
2025-07-18 16:40:15.196,2.0600000000000014,2060,103,0.41848966,-0.100084685,0.11008628,0.022750964,0.028150743,0.046176396,0.0,0.0,0.0,-0.00260111,0.18206042,-0.24499372,0.017830357,0.0024779227,-0.064474694,0.0032374524,-0.02238376,0.08926264,0.08271372,-0.17250296,-0.017932741,-0.096435085,0.10219176,-0.2182148,0.08389469,0.05590222,0.25067,-0.123378955,-0.069267675,-0.12101064,-0.25272712,-0.0061304774,-0.20513885,0.16190577,1.9178246,-1.6423837,2.0,0.47459185,2.0,-2.0,-0.7339067,-2.0,-2.0,-2.0,-1.3103212,2.0,0.7635089,2.0,2.0,0.5817163,2.0,-2.0,-1.4139028,2.0,-2.0,0.43984777,-2.0,2.0
2025-07-18 16:40:15.216,2.0800000000000014,2080,104,0.21052028,0.21854505,-0.0013629856,-0.0048287306,-0.022064615,-0.0149729615,0.0,0.0,0.0,-0.0036654782,0.18454902,-0.261944,0.07284161,0.0048253327,0.038079042,-0.048366487,-0.04929085,0.14192054,0.026713993,-0.15430687,-0.14050199,-0.026386432,0.053483985,0.051661395,0.08242147,0.087771505,0.18787448,-0.09923969,-0.15044762,0.18327299,-0.18805712,0.060082857,-0.3507833,0.2002157,0.7635089,2.0,2.0,0.5817163,2.0,-2.0,-1.4139028,2.0,-2.0,0.43984777,-2.0,2.0,-2.0,2.0,2.0,-0.32683313,-1.0654315,-2.0,0.088179916,2.0,-2.0,2.0,-2.0,2.0
2025-07-18 16:40:15.237,2.1000000000000014,2100,105,-0.07208691,0.100515775,-0.057383366,0.010498989,0.014026307,0.011196219,0.0,0.0,0.0,-0.004237669,0.16671851,-0.23026235,0.10689087,-0.005059094,0.091943435,-0.09223232,-0.039599217,0.23645343,-0.04079866,-0.08451539,-0.26195022,0.020326912,-0.093251824,0.13872816,0.10958967,-0.027193565,0.012907541,-0.08184405,-0.019168057,0.3431799,-0.1096904,0.06465832,-0.24607956,0.2050393,-2.0,2.0,2.0,-0.32683313,-1.0654315,-2.0,0.088179916,2.0,-2.0,2.0,-2.0,2.0,-2.0,1.9376119,2.0,-1.9482787,-2.0,-2.0,1.9442923,-1.0075022,-2.0,2.0,-2.0,2.0
2025-07-18 16:40:15.257,2.1200000000000014,2120,106,0.07404835,0.001791868,-0.18525383,-0.011351811,0.017409036,-0.0020122693,0.0,0.0,0.0,-0.004060623,0.16138944,-0.19057412,0.11845637,-0.048032623,0.06417401,-0.14022811,0.015065394,0.27183738,-0.08402996,-0.04614852,-0.32796475,0.08171534,-0.0127078025,0.11270355,0.10512099,-0.1140244,-0.1014202,-0.11110463,0.093008794,-0.027855799,-0.04875751,0.0524458,-0.2100607,0.08189028,-2.0,1.9376119,2.0,-1.9482787,-2.0,-2.0,1.9442923,-1.0075022,-2.0,2.0,-2.0,2.0,-2.0,1.7524892,1.6748976,-2.0,-2.0,-2.0,2.0,-2.0,1.0816574,2.0,2.0,-0.0517124
2025-07-18 16:40:15.277,2.1400000000000015,2140,107,-0.20677094,-0.0432863,-0.0980803,-0.0060958243,-0.014128613,-0.023783425,0.0,0.0,0.0,-0.0020084556,0.1394338,-0.15271229,0.12554953,-0.10596251,-0.033310834,-0.16007774,0.06431199,0.19615069,-0.043959126,-0.039343305,-0.33087566,0.061113574,-0.06326789,0.10152638,0.037955713,-0.121130176,-0.3751921,-0.1407619,0.20064807,-0.23644395,0.07974168,-0.020660087,0.11356865,-0.055086344,-2.0,1.7524892,1.6748976,-2.0,-2.0,-2.0,2.0,-2.0,1.0816574,2.0,2.0,-0.0517124,-1.3533888,1.3533584,-2.0,-1.1613278,-2.0,2.0,1.8166178,0.31929654,2.0,1.8993874,2.0,-2.0
2025-07-18 16:40:15.297,2.1600000000000015,2160,108,-0.34714487,0.27657118,0.036328774,-0.013464168,0.046220947,0.0137633635,0.0,0.0,0.0,0.00041339235,0.099299096,-0.045796495,0.05885977,-0.11477738,-0.17404705,-0.09343525,0.11724443,0.14845139,0.017732985,-0.0134224715,-0.23030202,-0.0030512058,-0.15624759,0.25319117,-0.15650411,-0.06516387,-0.39116153,0.26893914,0.13707191,-0.059188027,0.08096711,0.049510423,0.28161108,-0.13583675,-1.3533888,1.3533584,-2.0,-1.1613278,-2.0,2.0,1.8166178,0.31929654,2.0,1.8993874,2.0,-2.0,0.121422835,0.9277508,-2.0,0.38236618,0.6851375,2.0,-1.7445424,-1.6069418,2.0,1.4325976,2.0,-2.0
2025-07-18 16:40:15.322,2.1800000000000015,2180,109,-0.052680656,0.10456083,0.18286894,0.060614303,-0.011421856,-0.045902483,0.0,0.0,0.0,0.0013459771,0.08750248,0.019432772,0.003339826,-0.091962576,-0.22627191,-0.031753182,0.08279298,0.10750326,0.06201902,0.037535988,-0.12531191,-0.074686386,-0.10274374,0.10821588,-0.07741532,0.043542325,0.082193226,0.13581495,-0.035987128,-0.09288669,0.1322247,0.1089319,0.26600507,-0.098994404,0.121422835,0.9277508,-2.0,0.38236618,0.6851375,2.0,-1.7445424,-1.6069418,2.0,1.4325976,2.0,-2.0,1.7772655,-2.0,-2.0,2.0,-1.031778,2.0,-1.2659701,-2.0,2.0,-2.0,2.0,-2.0
2025-07-18 16:40:15.337,2.2000000000000015,2200,110,0.05416482,-0.39665958,0.13029204,0.04785674,0.003313251,-0.001007017,0.0,0.0,0.0,-5.1860487e-05,0.10097579,0.046864368,-0.04496244,-0.032927148,-0.24513787,0.026826184,0.040913593,0.064047076,0.1060029,-0.0130843315,0.004185216,-0.115056165,0.10450331,-0.12156637,-0.1340717,0.1666991,-0.016979907,0.06605074,-0.10730479,-0.04987023,0.12954308,-0.10217115,0.32949674,-0.046833012,1.7772655,-2.0,-2.0,2.0,-1.031778,2.0,-1.2659701,-2.0,2.0,-2.0,2.0,-2.0,2.0,-2.0,-2.0,1.2552,1.1407522,2.0,-1.1985843,-1.6496218,2.0,-2.0,1.4678344,-2.0
2025-07-18 16:40:15.357,2.2200000000000015,2220,111,0.15773182,-0.17329851,0.08694072,0.020846557,0.022819996,0.0011050606,0.0,0.0,0.0,-0.001667833,0.15456665,-0.057590585,-0.10150856,-0.026141834,-0.2719643,0.06824291,0.015393522,0.011307522,0.13964328,-0.068131045,0.120066226,-0.14369003,0.06438277,-0.35847428,-0.029542038,0.0576337,-0.024572205,0.11097831,-0.078439884,-0.08584492,0.019122073,-0.06705873,0.20094305,-0.019928645,2.0,-2.0,-2.0,1.2552,1.1407522,2.0,-1.1985843,-1.6496218,2.0,-2.0,1.4678344,-2.0,2.0,-1.5562633,1.323847,1.9092281,2.0,1.6436839,-1.8619744,-2.0,2.0,-2.0,-0.5220456,-2.0
2025-07-18 16:40:15.377,2.2400000000000015,2240,112,0.3136166,0.017894678,-0.035690296,-0.01827974,0.0100585455,0.03182588,0.0,0.0,0.0,-0.0038802542,0.17831463,-0.14958298,-0.051416714,-0.018495344,-0.24640363,0.09037039,-0.0025809002,-0.027657792,0.17207025,-0.107891366,0.14059372,-0.18193652,0.12327073,-0.2713281,0.1538316,0.09008732,0.09776041,-0.018830173,0.019849194,-0.10833292,0.042721353,-0.1726369,-0.11955397,-0.024438115,2.0,-1.5562633,1.323847,1.9092281,2.0,1.6436839,-1.8619744,-2.0,2.0,-2.0,-0.5220456,-2.0,2.0,-2.0,2.0,1.0103773,2.0,-1.9526694,-1.4571494,-2.0,-1.9714541,-2.0,-0.63031924,2.0
2025-07-18 16:40:15.397,2.2600000000000016,2260,113,0.40976128,-0.014509922,0.028043427,-0.009657968,-0.013800685,0.041042145,0.0,0.0,0.0,-0.004300147,0.21620668,-0.2672169,-0.0013043241,0.00046150235,-0.20419104,0.025641114,-0.031920444,-0.048612416,0.1102118,-0.14742212,0.06535847,-0.10149711,0.008920666,-0.244729,0.1267741,0.07830493,0.16573699,-0.15635458,-0.05095658,0.01187453,-0.23836766,-0.05957257,-0.22259109,0.17783922,2.0,-2.0,2.0,1.0103773,2.0,-1.9526694,-1.4571494,-2.0,-1.9714541,-2.0,-0.63031924,2.0,1.1043245,1.7159244,2.0,1.1813636,2.0,-2.0,-1.4518563,2.0,-2.0,-0.25814146,-2.0,2.0
2025-07-18 16:40:15.419,2.2800000000000016,2280,114,0.21709174,0.25214747,-0.102615334,-0.04272497,-0.08425539,-0.027498828,0.0,0.0,0.0,-0.0039758408,0.21343951,-0.30550313,0.06176093,0.020813067,-0.12903601,-0.05479945,-0.05992875,-0.00795996,0.033896904,-0.13355312,-0.01879324,-0.024981434,0.057236146,0.10162583,0.050007842,0.08752791,0.16791452,-0.15523797,-0.04956423,0.24073583,-0.10726421,-0.023907224,-0.2625257,0.10026614,1.1043245,1.7159244,2.0,1.1813636,2.0,-2.0,-1.4518563,2.0,-2.0,-0.25814146,-2.0,2.0,-2.0,1.4046475,2.0,0.17761108,2.0,-2.0,-0.33496508,2.0,-2.0,2.0,-2.0,2.0
2025-07-18 16:40:15.437,2.3000000000000016,2300,115,-0.39691865,0.014800238,-0.09741509,0.017200364,-0.02575885,-0.01820791,0.0,0.0,0.0,-0.002541006,0.21194911,-0.2754568,0.09274496,0.026246917,-0.0153108165,-0.10166459,-0.05791325,0.11500622,-0.013347485,-0.09485068,-0.15921848,0.030988023,-0.020614902,0.073702626,0.1081129,-0.034452394,0.35946184,-0.14276975,-0.015830968,0.33635047,-0.13011055,0.22537209,-0.25983283,0.19759533,-2.0,1.4046475,2.0,0.17761108,2.0,-2.0,-0.33496508,2.0,-2.0,2.0,-2.0,2.0,-2.0,2.0,2.0,-1.8286554,-2.0,-2.0,0.18675134,2.0,-2.0,2.0,-2.0,2.0
2025-07-18 16:40:15.457,2.3200000000000016,2320,116,-0.3154277,-0.14664136,-0.120715134,-0.052238904,-0.011881111,-0.027351916,0.0,0.0,0.0,-0.0013926782,0.15828378,-0.2103331,0.11861582,-0.027992196,0.051380493,-0.14101852,-0.046573594,0.25420794,-0.067735754,-0.039738692,-0.25729537,0.08788822,-0.06935092,0.072817214,0.084802054,-0.070414744,0.008955724,-0.069529414,0.024154129,0.2798226,-0.15447977,0.049412634,-0.18096644,0.17383389,-2.0,2.0,2.0,-1.8286554,-2.0,-2.0,0.18675134,2.0,-2.0,2.0,-2.0,2.0,-2.0,1.8642684,2.0,-2.0,-2.0,-2.0,2.0,-2.0,-2.0,2.0,-2.0,2.0
2025-07-18 16:40:15.481,2.3400000000000016,2340,117,-0.08071881,-0.10649529,-0.25276127,-0.04789208,-0.047001213,0.036624756,0.0,0.0,0.0,-0.0003263338,0.13403304,-0.15970647,0.14174059,-0.07768618,-0.006924094,-0.16907695,0.0071247406,0.2708515,-0.106218435,-0.012224892,-0.30848086,0.121525645,-0.016527822,0.025143692,0.08156021,-0.11501948,-0.21138081,-0.07791603,0.17719398,-0.050193988,-0.06806583,0.08014803,-0.13939756,0.07906163,-2.0,1.8642684,2.0,-2.0,-2.0,-2.0,2.0,-2.0,-2.0,2.0,-2.0,2.0,-2.0,2.0,1.4120328,-2.0,-2.0,0.013362855,2.0,-2.0,2.0,2.0,2.0,-1.6038752
2025-07-18 16:40:15.497,2.3600000000000017,2360,118,-0.19973047,-0.17025758,-0.09036604,0.017936515,-0.018634338,-0.027499,0.0,0.0,0.0,0.0028765043,0.106600374,-0.10419458,0.14325105,-0.111847915,-0.13623114,-0.13872762,0.069233015,0.179479,-0.047377255,0.0070274593,-0.2552958,0.057988573,-0.1422131,0.19783156,-0.037331697,-0.043523017,-0.40969422,0.122520074,0.19951802,-0.30253398,0.16103172,0.032753687,0.23277374,-0.21239875,-2.0,2.0,1.4120328,-2.0,-2.0,0.013362855,2.0,-2.0,2.0,2.0,2.0,-1.6038752,-0.8795415,1.319991,-2.0,-1.0060616,-0.85771805,2.0,0.49267003,1.4334226,2.0,1.8254533,2.0,-2.0
2025-07-18 16:40:15.517,2.3800000000000017,2380,119,-0.25447556,0.35205913,-0.012542067,-0.018793277,0.052012052,0.016677938,0.0,0.0,0.0,0.006167775,0.07018091,-0.004571965,0.065668985,-0.12268544,-0.19434766,-0.07216312,0.07279248,0.16250362,0.005557187,0.03732666,-0.16642869,-0.0030425868,-0.08236919,0.23483938,-0.22056688,-0.005715522,-0.0042486843,0.23743628,0.03717824,0.0403819,0.09190278,0.06625575,0.3313878,-0.09039355,-0.8795415,1.319991,-2.0,-1.0060616,-0.85771805,2.0,0.49267003,1.4334226,2.0,1.8254533,2.0,-2.0,-1.0034946,-1.4289284,-2.0,1.3037091,-1.7708697,2.0,-1.5262574,-2.0,2.0,0.6729345,2.0,-2.0
2025-07-18 16:40:15.538,2.4000000000000017,2400,120,-0.14471002,-0.046529237,0.06971436,0.04623286,0.005442117,-0.027310887,0.0,0.0,0.0,0.007867494,0.035961036,0.054131355,0.008763809,-0.08384801,-0.2715989,0.0009067039,0.03846146,0.12287443,0.06962371,0.05082263,-0.039591465,-0.078222305,-0.027194334,0.15133941,-0.18425192,0.18243176,-0.19446641,0.07510555,-0.078006506,-0.1266061,0.055689424,-0.006569313,0.33343223,-0.13922468,-1.0034946,-1.4289284,-2.0,1.3037091,-1.7708697,2.0,-1.5262574,-2.0,2.0,0.6729345,2.0,-2.0,1.8165045,-2.0,-2.0,1.1052351,2.0,2.0,-1.1999344,-1.8443696,2.0,-1.9726288,2.0,-2.0
2025-07-18 16:40:15.558,2.4200000000000017,2420,121,0.08020724,-0.33439592,0.20487577,0.0074896645,0.04389124,-0.031238817,0.0,0.0,0.0,0.007579154,0.06465122,0.037058435,-0.049075883,-0.048901293,-0.30724573,0.049797162,-0.01507854,0.06598154,0.1153818,0.0040442846,0.080814034,-0.12549083,0.19021624,-0.12561072,-0.16391031,0.069484815,0.021478182,0.14146292,-0.06920541,-0.04908925,0.06640634,-0.18851602,0.35260695,-0.12898727,1.8165045,-2.0,-2.0,1.1052351,2.0,2.0,-1.1999344,-1.8443696,2.0,-1.9726288,2.0,-2.0,2.0,-2.0,-1.7182887,2.0,2.0,2.0,-2.0,-2.0,2.0,-2.0,-0.24584723,-2.0
2025-07-18 16:40:15.578,2.4400000000000017,2440,122,0.25932938,-0.113910615,0.07318475,0.046523795,0.009419563,-0.04992103,0.0,0.0,0.0,0.0042100823,0.105402134,-0.070575796,-0.075100034,-0.053804897,-0.27922007,0.08841574,-0.028384442,0.037691254,0.13925031,-0.05376876,0.1354415,-0.1421569,0.11155205,-0.39590058,-0.120819755,0.058142923,0.0627457,0.009655286,0.016398055,-0.11382811,0.023285495,-0.1934019,0.027300313,-0.10210992,2.0,-2.0,-1.7182887,2.0,2.0,2.0,-2.0,-2.0,2.0,-2.0,-0.24584723,-2.0,2.0,-1.5901448,2.0,1.6553186,2.0,0.3401216,-1.6973513,-2.0,0.81080353,-2.0,-0.57658434,-1.4399132
2025-07-18 16:40:15.598,2.4600000000000017,2460,123,0.29716283,0.014550319,-0.06343561,0.029508648,0.04960509,-0.04298635,0.0,0.0,0.0,0.0013831146,0.15896776,-0.17407371,-0.028642012,-0.03494449,-0.2538268,0.07109829,-0.03784631,-0.0019872047,0.1565702,-0.10573753,0.083935894,-0.16633797,0.05712796,-0.29264885,0.21696104,-0.052086663,0.061016176,-0.0084141735,0.025588391,-0.13971798,0.034299776,-0.07347628,-0.15820645,-0.0158793,2.0,-1.5901448,2.0,1.6553186,2.0,0.3401216,-1.6973513,-2.0,0.81080353,-2.0,-0.57658434,-1.4399132,2.0,-2.0,2.0,1.2586999,2.0,-2.0,-1.4304825,0.0014885105,-2.0,-2.0,-0.36694443,2.0
2025-07-18 16:40:15.618,2.4800000000000018,2480,124,0.31267396,0.17098543,0.02123157,-0.055145428,-0.035169646,0.049766876,0.0,0.0,0.0,0.0010530807,0.17954664,-0.27851558,0.03595647,-0.010525092,-0.19017686,-0.0021886034,-0.075144425,0.0044464455,0.07770233,-0.15307838,0.04101096,-0.0863816,0.058510482,-0.27639616,0.19505545,0.01238257,0.16167635,-0.17144407,-0.059669483,0.054883618,-0.17635314,-0.016506704,-0.12111176,0.22670232,2.0,-2.0,2.0,1.2586999,2.0,-2.0,-1.4304825,0.0014885105,-2.0,-2.0,-0.36694443,2.0,0.78574467,1.7691796,2.0,1.2837672,2.0,-2.0,-1.8820411,2.0,-2.0,0.225321,-2.0,2.0
2025-07-18 16:40:15.638,2.5000000000000018,2500,125,0.083449386,0.26339585,-0.15333275,-0.02583282,-0.065794915,-0.02316294,0.0,0.0,0.0,0.0012813859,0.18693581,-0.3161791,0.07685482,0.02801684,-0.11116526,-0.05807028,-0.104122505,0.06418903,0.014337349,-0.13776053,-0.035718583,-0.023457916,0.058288105,0.0784123,0.07780864,0.0709242,0.23016432,-0.18875684,-0.093471974,0.2697112,-0.14465979,0.06831304,-0.18024166,0.14910774,0.78574467,1.7691796,2.0,1.2837672,2.0,-2.0,-1.8820411,2.0,-2.0,0.225321,-2.0,2.0,-2.0,1.4497155,2.0,-0.34402472,1.7951683,-2.0,-0.27702877,2.0,-2.0,2.0,-2.0,2.0
2025-07-18 16:40:15.658,2.520000000000002,2520,126,-0.3485338,-0.04716872,-0.060588356,-0.044368368,-0.029108988,7.65627e-05,0.0,0.0,0.0,0.0030766379,0.17745692,-0.28339502,0.1128473,0.005778149,0.0032566076,-0.10539013,-0.10707156,0.1822809,-0.05152815,-0.07037069,-0.15426399,0.039360836,-0.1285799,0.14208028,0.12885067,-0.056040566,0.31402206,-0.16155526,0.05061268,0.33148992,-0.16895838,0.16386043,-0.31687734,0.16689545,-2.0,1.4497155,2.0,-0.34402472,1.7951683,-2.0,-0.27702877,2.0,-2.0,2.0,-2.0,2.0,-2.0,2.0,2.0,-1.8305387,-2.0,-2.0,0.5867931,2.0,-2.0,2.0,-2.0,2.0
2025-07-18 16:40:15.678,2.540000000000002,2540,127,-0.14324182,0.0022533364,-0.14447479,0.01887478,0.0391875,-0.029906455,0.0,0.0,0.0,0.00416745,0.14760417,-0.23486115,0.12351347,-0.0314487,0.07226521,-0.14549787,-0.068550594,0.307415,-0.09384506,-0.046151426,-0.21476108,0.09174252,0.050659172,0.19224994,0.11595901,-0.15088393,0.026380433,-0.0990346,0.119020365,0.23420379,-0.038944773,0.10436545,-0.043903276,0.03968813,-2.0,2.0,2.0,-1.8305387,-2.0,-2.0,0.5867931,2.0,-2.0,2.0,-2.0,2.0,-2.0,0.93636906,2.0,-2.0,-2.0,-2.0,2.0,-2.0,-2.0,2.0,-2.0,1.4693118
2025-07-18 16:40:15.698,2.560000000000002,2560,128,0.0003640748,0.018243354,-0.23781002,-0.042259168,-0.022129167,0.031628035,0.0,0.0,0.0,0.0058739707,0.15501638,-0.18642138,0.15016279,-0.095561236,-0.00041347957,-0.16485831,-0.015663307,0.32210562,-0.13131379,-0.020109912,-0.2525105,0.10316909,-0.052138116,0.14722607,-4.1227046e-05,-0.14859623,-0.27144906,0.003565722,0.17524293,-0.15609539,-0.07157987,0.042926643,-0.054622643,0.040288154,-2.0,0.93636906,2.0,-2.0,-2.0,-2.0,2.0,-2.0,-2.0,2.0,-2.0,1.4693118,-2.0,2.0,0.62087303,-2.0,-2.0,1.6595379,2.0,-2.0,2.0,2.0,2.0,-2.0
2025-07-18 16:40:15.718,2.580000000000002,2580,129,-0.11655207,-0.121361084,-0.09371287,0.016792387,-0.024628524,-0.030570088,0.0,0.0,0.0,0.009616351,0.12834767,-0.1283217,0.13259768,-0.13271515,-0.13826989,-0.114046976,0.061833385,0.2265796,-0.075385496,0.0015316715,-0.20587258,0.04207406,-0.16654499,0.14772156,-0.10518226,-0.073647805,-0.36386254,0.14119065,0.06999986,-0.33384097,0.12839052,0.10515038,0.2591528,-0.13155702,-2.0,2.0,0.62087303,-2.0,-2.0,1.6595379,2.0,-2.0,2.0,2.0,2.0,-2.0,-1.0164933,1.6768761,-2.0,-0.8356846,-1.5510488,2.0,0.31470564,0.81222147,2.0,1.4851415,2.0,-2.0
2025-07-18 16:40:15.738,2.600000000000002,2600,130,-0.22335356,0.24625772,-0.022284335,0.05478443,0.01530236,-0.01415399,0.0,0.0,0.0,0.012967763,0.08009113,-0.019764809,0.06582205,-0.13781664,-0.23527956,-0.0399567,0.05404799,0.18737938,-0.009077125,0.024517767,-0.102867596,-0.026229428,-0.09229728,0.25277296,-0.12090177,-0.026937118,-0.19872582,0.19236095,0.00577697,-0.0056279767,0.084270865,0.091070764,0.23674281,-0.092094555,-1.0164933,1.6768761,-2.0,-0.8356846,-1.5510488,2.0,0.31470564,0.81222147,2.0,1.4851415,2.0,-2.0,-0.5067377,-0.017130189,-2.0,0.63251984,0.9050504,2.0,-1.4199693,-2.0,2.0,0.75425965,2.0,-2.0
2025-07-18 16:40:15.759,2.620000000000002,2620,131,-0.16843945,-0.12554546,0.19253756,0.003941444,-0.027555231,-0.040840637,0.0,0.0,0.0,0.014844064,0.06232617,0.04072467,0.00074357993,-0.107485175,-0.23966792,0.028219122,0.028349997,0.1605351,0.055706188,0.038772397,0.018696563,-0.08219445,-0.09487442,0.13492003,-0.09974641,0.1189561,0.051613778,0.16470523,-0.0704198,-0.104689024,0.10277713,0.060467467,0.30678093,-0.08946854,-0.5067377,-0.017130189,-2.0,0.63251984,0.9050504,2.0,-1.4199693,-2.0,2.0,0.75425965,2.0,-2.0,2.0,-2.0,-2.0,1.8992888,0.43981218,2.0,-1.3358744,-2.0,2.0,-2.0,2.0,-2.0
2025-07-18 16:40:15.778,2.640000000000002,2640,132,0.036907516,-0.18405256,0.16415942,0.079238884,0.07125764,0.04607855,0.0,0.0,0.0,0.014221924,0.08911195,0.017953929,-0.059806865,-0.060860254,-0.17656614,0.061868146,-0.014489361,0.13310836,0.09614101,-0.008874679,0.14793268,-0.13121901,0.051616423,-0.146868,-0.15744065,0.04891635,0.16577555,0.018950421,-0.043667033,-0.046462975,0.17457068,-0.123667456,0.37572753,-0.021141835,2.0,-2.0,-2.0,1.8992888,0.43981218,2.0,-1.3358744,-2.0,2.0,-2.0,2.0,-2.0,2.0,-2.0,-1.4161972,2.0,0.87021434,2.0,-2.0,-2.0,2.0,-2.0,-1.5806836,-2.0
2025-07-18 16:40:15.798,2.660000000000002,2660,133,0.21780658,-0.0039497577,0.089648016,-0.015186338,-0.023906605,-0.02553736,0.0,0.0,0.0,0.011345641,0.13283104,-0.089004025,-0.09170708,-0.04449654,-0.13653177,0.0879162,-0.020037863,0.08763548,0.13349564,-0.06550546,0.20393862,-0.15402828,0.06722557,-0.36390075,-0.03428743,0.072448835,0.045394003,0.02209088,-0.07814548,-0.14474419,0.1047071,-0.0789067,-0.022254897,-0.062702924,2.0,-2.0,-1.4161972,2.0,0.87021434,2.0,-2.0,-2.0,2.0,-2.0,-1.5806836,-2.0,2.0,-1.9886543,2.0,1.6180174,2.0,-0.6367316,-1.4138584,-2.0,0.5549881,-2.0,-2.0,-1.2835716
2025-07-18 16:40:15.819,2.680000000000002,2680,134,0.34648135,0.05110577,-0.06471522,0.043294206,0.04711957,0.029403066,0.0,0.0,0.0,0.009447873,0.17659625,-0.2115186,-0.01611481,-0.03174287,-0.08813537,0.052083053,-0.051691763,0.061466087,0.1360022,-0.11327501,0.11999031,-0.15896268,0.113131315,-0.28571242,0.2236057,0.1059509,0.2313616,-0.035941005,-0.039430927,-0.07528612,0.03564883,-0.04217715,-0.34806904,-0.07134986,2.0,-1.9886543,2.0,1.6180174,2.0,-0.6367316,-1.4138584,-2.0,0.5549881,-2.0,-2.0,-1.2835716,1.086593,-1.2031687,2.0,0.72956026,2.0,-2.0,-0.42435238,-0.67482,-2.0,-2.0,-1.8610464,2.0
2025-07-18 16:40:15.839,2.700000000000002,2700,135,0.44192186,-0.020276643,0.0070145493,-0.034964684,-0.017193211,-0.018313903,0.0,0.0,0.0,0.009402349,0.16837057,-0.28941613,0.029938618,-0.00723992,-0.0023790884,-0.009904495,-0.046040043,0.053280786,0.06074476,-0.15545681,-0.025407078,-0.079339094,-0.050265178,-0.10250517,0.19987358,-0.025028143,0.14615867,-0.13905108,-0.01831285,-0.12505743,-0.2302435,-0.0753326,-0.37432706,0.15615813,1.086593,-1.2031687,2.0,0.72956026,2.0,-2.0,-0.42435238,-0.67482,-2.0,-2.0,-1.8610464,2.0,-0.045172952,1.9258567,2.0,0.42125154,2.0,-2.0,-0.060223784,2.0,-2.0,1.5651047,-0.35402262,2.0
2025-07-18 16:40:15.863,2.720000000000002,2720,136,-0.13080004,0.093111336,0.14011177,0.009795684,-0.024177095,0.028515905,0.0,0.0,0.0,0.00973787,0.15770055,-0.28180036,0.075989686,0.0073182783,0.0897324,-0.071573794,-0.041265417,0.07500415,-0.0028186785,-0.117127374,-0.08397689,-0.012103604,-0.073944345,0.06954893,0.054041583,0.08438019,0.38637775,-0.13447328,0.0157283,0.16997238,-0.088823184,0.2330828,-0.09241234,0.11990539,-0.045172952,1.9258567,2.0,0.42125154,2.0,-2.0,-0.060223784,2.0,-2.0,1.5651047,-0.35402262,2.0,-2.0,1.3156084,2.0,-0.9431057,-2.0,-2.0,-0.6279651,2.0,-2.0,2.0,-2.0,2.0
2025-07-18 16:40:15.879,2.740000000000002,2740,137,-0.2635305,-0.12915444,-0.04213471,0.015065708,0.0053447117,0.01904751,0.0,0.0,0.0,0.008171039,0.12024337,-0.23153351,0.110836215,-0.030994687,0.17557815,-0.11191532,-0.056028053,0.20122883,-0.06232468,-0.056705147,-0.12725314,0.03678013,-0.05849582,0.10651373,0.122276895,-0.09269369,0.008828273,-0.16401948,-0.09522482,0.27914768,-0.18510577,0.05070596,-0.11194639,0.06400462,-2.0,1.3156084,2.0,-0.9431057,-2.0,-2.0,-0.6279651,2.0,-2.0,2.0,-2.0,2.0,-2.0,1.8703367,2.0,-2.0,-2.0,-2.0,2.0,-0.86514443,-2.0,2.0,-2.0,2.0
2025-07-18 16:40:15.899,2.760000000000002,2760,138,-0.05697813,-0.08816525,-0.08711422,0.024638033,0.056040533,0.035578515,0.0,0.0,0.0,0.0072969426,0.10789197,-0.20082086,0.1224877,-0.07190426,0.13180715,-0.15149166,-0.001668037,0.22967793,-0.09035848,-0.019240258,-0.15016058,0.086177975,0.027497508,0.06321703,0.012115196,-0.17177255,-0.20519999,-0.13621283,0.09237726,-0.016532458,-0.07950333,-0.001819133,-0.02837967,0.098658204,-2.0,1.8703367,2.0,-2.0,-2.0,-2.0,2.0,-0.86514443,-2.0,2.0,-2.0,2.0,-2.0,2.0,0.8003233,-2.0,-2.0,-0.59986556,2.0,-1.5928453,1.6894077,2.0,0.22007644,-0.29747725
2025-07-18 16:40:15.919,2.780000000000002,2780,139,-0.11820347,-0.12934823,0.027182344,-0.03991524,0.016411465,0.023671491,0.0,0.0,0.0,0.007974495,0.07423773,-0.14407636,0.11178616,-0.12948567,0.0028171767,-0.13611123,0.06360108,0.14477465,-0.049140748,0.011030871,-0.10328623,0.06633779,-0.013651065,0.13963665,-0.07575919,-0.1172489,-0.40156913,0.0475876,0.1876475,-0.33271515,0.0939874,-0.020229032,0.14669813,-0.042555753,-2.0,2.0,0.8003233,-2.0,-2.0,-0.59986556,2.0,-1.5928453,1.6894077,2.0,0.22007644,-0.29747725,-0.69419223,2.0,-2.0,-0.8725906,-2.0,2.0,0.9055208,2.0,2.0,1.4500682,2.0,-2.0
2025-07-18 16:40:15.939,2.800000000000002,2800,140,-0.19171758,0.17049623,0.050410915,-0.008482088,0.078603044,-0.033267464,0.0,0.0,0.0,0.0082640285,0.048887707,-0.060954034,0.046696477,-0.12764007,-0.14464146,-0.070440054,0.06784956,0.11811738,0.023950573,0.03194164,-0.013661354,0.0039050472,-0.054230586,0.32150313,-0.20641439,-0.07560531,-0.40223223,0.20282438,0.091326006,0.050175533,0.12540486,0.08123562,0.2264266,-0.14226702,-0.69419223,2.0,-2.0,-0.8725906,-2.0,2.0,0.9055208,2.0,2.0,1.4500682,2.0,-2.0,0.5435984,0.46269077,-2.0,0.74836975,1.5214164,2.0,-1.7456831,-2.0,2.0,0.9246713,2.0,-2.0
2025-07-18 16:40:15.959,2.820000000000002,2820,141,-0.1172032,0.089537255,0.12684731,0.023199199,0.055544645,-0.048511956,0.0,0.0,0.0,0.008314119,0.05208754,0.01608871,-0.02438623,-0.08658017,-0.20235258,-0.0040650815,0.04378453,0.08858005,0.06613788,0.06489413,0.11294668,-0.05666945,-0.029736254,0.032309193,-0.077175,0.10646972,0.047355533,0.1834339,-0.082692266,-0.17794117,0.08116192,-0.00658455,0.32900646,-0.09805607,0.5435984,0.46269077,-2.0,0.74836975,1.5214164,2.0,-1.7456831,-2.0,2.0,0.9246713,2.0,-2.0,2.0,-2.0,-2.0,1.6637255,0.21308391,2.0,-0.9863434,-2.0,2.0,-2.0,2.0,-2.0
2025-07-18 16:40:15.979,2.840000000000002,2840,142,-0.08759404,-0.034439884,0.09894834,0.0124569675,0.0021296223,0.036070704,0.0,0.0,0.0,0.0071317973,0.08817809,-0.016374273,-0.0759385,-0.08280782,-0.1942508,0.031355828,0.009297349,0.039440177,0.10504928,0.033674017,0.2400843,-0.10518255,0.08769564,-0.13868153,-0.11038273,-0.0061855465,0.12106309,0.11728145,-0.04924045,-0.092694715,0.15543827,-0.2087308,0.27497402,-0.09071876,2.0,-2.0,-2.0,1.6637255,0.21308391,2.0,-0.9863434,-2.0,2.0,-2.0,2.0,-2.0,2.0,-2.0,-2.0,1.8544084,0.41732705,2.0,-1.3128875,-1.9028451,2.0,-2.0,-0.7199985,-2.0
2025-07-18 16:40:15.999,2.860000000000002,2860,143,0.16266516,0.0072151376,0.039705284,-0.029108359,-0.004822022,-0.016158434,0.0,0.0,0.0,0.0049998285,0.1457014,-0.11963395,-0.10711047,-0.07854171,-0.15589423,0.07270045,0.012823699,0.02230668,0.14028716,-0.046601683,0.27108434,-0.13511795,0.09181496,-0.36797133,-0.05717719,0.055655345,0.034401983,0.1133647,-0.005232989,-0.015922546,0.07004735,-0.15290518,-0.11305241,-0.0891782,2.0,-2.0,-2.0,1.8544084,0.41732705,2.0,-1.3128875,-1.9028451,2.0,-2.0,-0.7199985,-2.0,2.0,-1.0697231,1.8949603,1.5488225,2.0,0.21361828,-0.77278984,-2.0,1.4204322,-2.0,-1.8615245,-2.0
2025-07-18 16:40:16.019,2.880000000000002,2880,144,0.32434762,0.06048136,-0.017754043,-0.04710581,0.059975192,-0.006620576,0.0,0.0,0.0,0.003221795,0.18090111,-0.19893748,-0.04691292,-0.0732461,-0.1072946,0.06433457,-0.008180102,-0.006699568,0.16856396,-0.09847408,0.18227084,-0.17140451,0.14217485,-0.10495654,0.22226907,0.104102395,0.21255742,-0.09210378,0.010162462,-0.09534489,0.070353575,-0.10839873,-0.33777142,0.0022148208,2.0,-1.0697231,1.8949603,1.5488225,2.0,0.21361828,-0.77278984,-2.0,1.4204322,-2.0,-1.8615245,-2.0,1.4941477,-2.0,2.0,0.5632732,2.0,-2.0,-0.2628481,-0.54827374,-2.0,-2.0,-2.0,2.0
2025-07-18 16:40:16.044,2.900000000000002,2900,145,0.4643425,-0.07967146,0.07111515,0.019322228,0.031164346,0.03572075,0.0,0.0,0.0,0.0031180978,0.19654262,-0.29330269,0.008434938,-0.052370872,-0.032672066,-0.0066460078,-0.0024400651,-0.01472528,0.08858876,-0.13002291,0.039146848,-0.10471486,-0.035399947,-0.25433403,0.08595401,0.043751575,0.2024744,-0.23195645,-0.06975092,-0.091305785,-0.24329771,-0.1572988,-0.44157636,0.18803287,1.4941477,-2.0,2.0,0.5632732,2.0,-2.0,-0.2628481,-0.54827374,-2.0,-2.0,-2.0,2.0,1.0600998,2.0,2.0,0.54613256,2.0,-2.0,-0.7773724,2.0,-2.0,1.1593115,-0.61900294,2.0
2025-07-18 16:40:16.059,2.920000000000002,2920,146,0.1806884,0.20149037,0.05921139,-0.06858361,-0.066757135,0.012250569,0.0,0.0,0.0,0.002297508,0.19261017,-0.3199983,0.058689065,-0.01845211,0.077867545,-0.06813153,-0.013751651,0.013390445,0.021290755,-0.09761405,-0.046471212,-0.022267187,0.06424532,0.013243066,0.090897344,0.09478893,0.3075986,-0.18031716,-0.023091553,0.21639107,-0.1656544,0.18502346,-0.036903933,0.14500767,1.0600998,2.0,2.0,0.54613256,2.0,-2.0,-0.7773724,2.0,-2.0,1.1593115,-0.61900294,2.0,-2.0,0.898708,2.0,-0.17388853,-2.0,-2.0,-0.9248383,2.0,-2.0,2.0,-2.0,2.0
2025-07-18 16:40:16.079,2.940000000000002,2940,147,-0.18251094,-0.031770978,-0.12650102,-0.058058787,0.029377908,0.0040076547,0.0,0.0,0.0,0.0006727759,0.18052435,-0.270577,0.09136685,-0.036188886,0.1498159,-0.11835975,-0.044302676,0.12603348,-0.044492833,-0.027991794,-0.1266491,0.037468977,-0.09970418,0.06350607,0.0040814066,0.017255975,0.110284775,-0.14027297,-0.1164497,0.3657325,-0.12517263,0.059665047,-0.2758989,0.15491624,-2.0,0.898708,2.0,-0.17388853,-2.0,-2.0,-0.9248383,2.0,-2.0,2.0,-2.0,2.0,-2.0,2.0,2.0,-2.0,-2.0,-2.0,2.0,0.038983885,-2.0,2.0,-2.0,2.0
2025-07-18 16:40:16.099,2.960000000000002,2960,148,0.07773493,-0.06822831,-0.11862977,-0.05139988,-0.025598861,-0.012308593,0.0,0.0,0.0,0.0006953868,0.16494715,-0.25419202,0.11801331,-0.074055225,0.11909107,-0.13250451,-0.006989264,0.18298495,-0.08278203,-0.0056080623,-0.1817465,0.0907821,0.027934993,0.001678336,0.04565083,-0.1820945,-0.1452741,-0.035926625,0.1368525,-0.12086375,-0.13298367,0.05561367,-0.08735067,0.12905125,-2.0,2.0,2.0,-2.0,-2.0,-2.0,2.0,0.038983885,-2.0,2.0,-2.0,2.0,-2.0,2.0,1.2986505,-2.0,-2.0,-1.5798569,2.0,0.30946296,1.0318209,2.0,0.8500575,1.2305031
2025-07-18 16:40:16.119,2.980000000000002,2980,149,-0.23821236,-0.052106276,0.004240291,-0.0031490112,-0.044554606,0.01748047,0.0,0.0,0.0,0.0020764717,0.14973162,-0.20545428,0.12214589,-0.12645347,0.031388618,-0.1612914,0.060680483,0.17555626,-0.052427262,0.02876244,-0.14403364,0.102530636,-0.10913205,0.08533723,0.058995146,-0.060292788,-0.26134786,-0.0319942,0.07475454,-0.07670324,0.10849818,-0.01838993,0.22625405,0.04719114,-2.0,2.0,1.2986505,-2.0,-2.0,-1.5798569,2.0,0.30946296,1.0318209,2.0,0.8500575,1.2305031,-1.0078015,1.8174163,-2.0,-0.6922629,-2.0,2.0,1.8154451,-1.0514292,2.0,1.8276086,-0.1226707,-2.0
2025-07-18 16:40:16.141,3.000000000000002,3000,150,0.07630429,-0.0405831,0.05581775,-0.017035622,0.026915357,-0.049044207,0.0,0.0,0.0,0.0032242362,0.11834021,-0.12309211,0.041696146,-0.121076226,-0.12766568,-0.09070629,0.09525413,0.107176885,0.014794806,0.05535856,-0.11277016,0.034142397,-0.10143829,0.2553084,-0.24152566,-0.015662212,-0.35485914,0.17745987,0.11388075,-0.18927497,0.074462675,0.1598013,0.08705025,-0.12141937,-1.0078015,1.8174163,-2.0,-0.6922629,-2.0,2.0,1.8154451,-1.0514292,2.0,1.8276086,-0.1226707,-2.0,-0.111938246,2.0,-2.0,-0.3100527,-1.4979082,2.0,-0.86311805,-0.8053265,2.0,0.71095926,2.0,-2.0
2025-07-18 16:40:16.160,3.0200000000000022,3020,151,-0.12422812,-0.017454008,-0.08051337,0.007526602,-0.027460676,0.030691624,0.0,0.0,0.0,0.0032143972,0.09326398,-0.004704058,-0.010519538,-0.11182581,-0.20468968,-0.011824437,0.07614804,0.01948616,0.069188565,0.070787854,-0.043629143,-0.03962445,-0.064800724,0.2679359,-0.17230664,-0.0057439837,-0.07938634,0.21893111,-0.055895533,-0.16956185,0.17334181,-0.03242027,0.25400966,-0.08927904,-0.111938246,2.0,-2.0,-0.3100527,-1.4979082,2.0,-0.86311805,-0.8053265,2.0,0.71095926,2.0,-2.0,0.14018461,-1.2151403,-2.0,0.18218076,-1.4460536,2.0,-0.36091956,-0.9290213,2.0,-0.42185962,2.0,-2.0
2025-07-18 16:40:16.180,3.0400000000000023,3040,152,0.10775071,0.06801252,-0.10279262,-0.03417228,0.030221255,-0.0051633473,0.0,0.0,0.0,0.0040808995,0.092865534,0.07730815,-0.07485007,-0.0992805,-0.26970473,0.043654636,0.04974162,-0.03172562,0.10468358,0.057859905,0.08541532,-0.08687223,-0.088221125,0.002386326,-0.12628382,0.0069068456,-0.1826793,0.19689769,-0.07887805,-0.16678275,0.13206254,-0.050353196,0.2561278,-0.14310348,0.14018461,-1.2151403,-2.0,0.18218076,-1.4460536,2.0,-0.36091956,-0.9290213,2.0,-0.42185962,2.0,-2.0,2.0,-0.9201819,-2.0,-0.3751069,2.0,2.0,-0.037137832,0.45852745,2.0,-1.9867277,2.0,-2.0
2025-07-18 16:40:16.200,3.0600000000000023,3060,153,-0.23057885,0.12233805,-0.024144702,-0.027475802,0.011917039,-0.033562485,0.0,0.0,0.0,0.0062591946,0.12110481,0.031713217,-0.0985191,-0.09080851,-0.28318733,0.07009912,0.043952744,-0.027714256,0.12887213,-0.0054109325,0.20283161,-0.12121397,0.048120942,-0.25061563,-0.03378536,-0.05162485,0.04312168,0.09792245,0.056579944,0.14682955,0.11843182,-0.16772088,0.36143807,-0.11116897,2.0,-0.9201819,-2.0,-0.3751069,2.0,2.0,-0.037137832,0.45852745,2.0,-1.9867277,2.0,-2.0,2.0,-2.0,-1.2974505,1.5885046,2.0,2.0,-1.715824,-2.0,2.0,-2.0,-0.202694,-2.0
2025-07-18 16:40:16.220,3.0800000000000023,3080,154,0.021300029,0.05168071,-0.060044058,0.038473103,-0.05456314,0.0034900347,0.0,0.0,0.0,0.0079050185,0.15612042,-0.084883645,-0.11293732,-0.095926896,-0.26418537,0.10638021,0.03939818,-0.005890096,0.17898375,-0.06694985,0.24121824,-0.1591791,0.055799257,-0.43319663,-0.07568256,0.02442602,0.09626579,0.094059914,-0.026979474,0.09213614,0.13585341,-0.18984348,-0.043843675,-0.110279515,2.0,-2.0,-1.2974505,1.5885046,2.0,2.0,-1.715824,-2.0,2.0,-2.0,-0.202694,-2.0,2.0,-1.7231344,2.0,1.1889111,2.0,0.24710646,-0.6863924,-2.0,0.72711664,-2.0,-1.991964,-1.1529677
2025-07-18 16:40:16.240,3.1000000000000023,3100,155,0.20298411,0.1590012,-0.14851765,-0.053589318,-0.018704465,-0.018030984,0.0,0.0,0.0,0.009056948,0.19836839,-0.19806993,-0.050258886,-0.06830262,-0.20677875,0.07590564,0.030574802,-0.010122905,0.15552734,-0.11567106,0.1762413,-0.14586575,0.01400603,-0.24381481,0.22031827,0.019421611,0.059010703,-0.0045476053,0.0065829777,0.04574233,0.036702182,-0.15666738,-0.2570631,0.047184024,2.0,-1.7231344,2.0,1.1889111,2.0,0.24710646,-0.6863924,-2.0,0.72711664,-2.0,-1.991964,-1.1529677,1.9347388,-2.0,2.0,0.7158803,2.0,-2.0,-0.31254616,-2.0,-2.0,-2.0,-2.0,2.0
2025-07-18 16:40:16.260,3.1200000000000023,3120,156,0.3627145,0.07916801,0.022616178,-0.048587956,-0.07074068,-0.015505514,0.0,0.0,0.0,0.011112523,0.21474378,-0.31723756,0.012856925,-0.039614517,-0.13284588,0.016145747,0.036167506,-0.01195802,0.09134558,-0.14571361,0.015546091,-0.08516759,0.010710261,-0.30649418,0.14936072,0.090269,0.2065592,-0.10661042,-0.0072015463,-0.039255235,-0.23458347,-0.10318769,-0.45628965,0.16796991,1.9347388,-2.0,2.0,0.7158803,2.0,-2.0,-0.31254616,-2.0,-2.0,-2.0,-2.0,2.0,0.72127175,2.0,2.0,0.18312061,2.0,-2.0,-0.66116893,2.0,-2.0,0.92987126,-0.80989397,2.0
2025-07-18 16:40:16.280,3.1400000000000023,3140,157,-0.13074288,0.14771876,-0.055333834,-0.004190132,-0.0893333,-0.047281083,0.0,0.0,0.0,0.012557062,0.19826809,-0.33288014,0.057800293,-0.04291531,-0.04906691,-0.0611047,0.013822044,0.051047955,0.026609931,-0.12736714,-0.07769343,-0.011277719,-0.04264623,0.050338533,0.16354859,0.019189643,0.345193,-0.15205535,-0.11631574,0.30748934,-0.12819043,0.112117976,-0.17178464,0.22829688,0.72127175,2.0,2.0,0.18312061,2.0,-2.0,-0.66116893,2.0,-2.0,0.92987126,-0.80989397,2.0,-2.0,1.0294887,2.0,-0.64046675,-1.9586359,-2.0,-0.37820727,2.0,-2.0,2.0,-2.0,2.0
2025-07-18 16:40:16.302,3.1600000000000024,3160,158,-0.27773654,-0.037450444,-0.09766216,0.016693434,-0.05541088,-0.010577362,0.0,0.0,0.0,0.0126518635,0.18484157,-0.3035187,0.080650486,-0.051959395,0.015117824,-0.08586247,-0.007676998,0.16610718,-0.0329175,-0.059985362,-0.14030342,0.049024716,-0.056650095,0.17216294,0.06324025,-0.0020984923,0.06116687,-0.15118138,0.023671629,0.3958981,-0.19078279,0.15297887,-0.2290713,0.069186695,-2.0,1.0294887,2.0,-0.64046675,-1.9586359,-2.0,-0.37820727,2.0,-2.0,2.0,-2.0,2.0,-2.0,2.0,2.0,-2.0,-2.0,-2.0,2.0,-1.4310905,-2.0,2.0,-2.0,2.0
2025-07-18 16:40:16.320,3.1800000000000024,3180,159,-0.049437687,-0.03297033,-0.20560986,-0.030309267,-0.049699448,0.035805985,0.0,0.0,0.0,0.013723836,0.18539214,-0.27421093,0.11818406,-0.08495552,-0.012674711,-0.12543313,0.031179681,0.19871345,-0.08002605,-0.027230551,-0.2091833,0.093552515,0.021927658,0.026840743,0.078186944,-0.071517974,-0.2067313,-0.08734464,0.10173351,-0.052065413,-0.10649128,0.031345572,-0.12693961,0.060975198,-2.0,2.0,2.0,-2.0,-2.0,-2.0,2.0,-1.4310905,-2.0,2.0,-2.0,2.0,-2.0,2.0,1.0683892,-2.0,-2.0,-0.41149053,2.0,-1.0895354,2.0,2.0,2.0,-0.29897058
2025-07-18 16:40:16.340,3.2000000000000024,3200,160,-0.2401489,-0.04093422,-0.051081434,0.040715713,-0.05002137,-0.04296745,0.0,0.0,0.0,0.016224872,0.14717583,-0.23209566,0.11070032,-0.14336346,-0.12000435,-0.120252825,0.094326325,0.12644893,-0.024996283,-0.008279905,-0.17693429,0.061050504,-0.09937075,0.19795254,0.056556992,-0.09828937,-0.3506746,0.007564577,0.16381407,-0.33553666,0.12922342,0.004936385,0.20902492,-0.051561162,-2.0,2.0,1.0683892,-2.0,-2.0,-0.41149053,2.0,-1.0895354,2.0,2.0,2.0,-0.29897058,-0.90524614,1.9963602,-2.0,-1.0942672,-1.4838766,2.0,0.80604494,2.0,2.0,1.6895726,2.0,-2.0
2025-07-18 16:40:16.360,3.2200000000000024,3220,161,-0.36785614,0.19196957,0.038095273,0.0029646114,-0.021027265,-0.031884857,0.0,0.0,0.0,0.01806923,0.1059508,-0.13684428,0.034051552,-0.15247522,-0.22188298,-0.04468559,0.0952174,0.092274845,0.036247723,-0.00020168093,-0.06939306,-0.015920209,-0.10793596,0.22889866,-0.25303406,0.036488574,-0.22115842,0.22316523,0.05013066,0.011021726,0.16412106,0.06744855,0.2569249,-0.18393952,-0.90524614,1.9963602,-2.0,-1.0942672,-1.4838766,2.0,0.80604494,2.0,2.0,1.6895726,2.0,-2.0,0.25282905,1.4734387,-2.0,0.3895229,0.20714583,2.0,-1.8521062,-2.0,2.0,1.1799028,2.0,-2.0
2025-07-18 16:40:16.380,3.2400000000000024,3240,162,-0.17148858,-0.14538081,0.14469251,0.011270086,0.024506532,0.03827552,0.0,0.0,0.0,0.017806606,0.097368404,-0.0037711996,-0.0248803,-0.117760256,-0.22652361,0.01395651,0.1146991,0.123121746,0.07198732,0.032995608,0.078063786,-0.06810162,-0.10620519,0.26916933,-0.16898705,0.10025575,0.048812404,0.120584816,-0.06787113,-0.028602134,0.088719904,0.044095483,0.26722446,-0.09863036,0.25282905,1.4734387,-2.0,0.3895229,0.20714583,2.0,-1.8521062,-2.0,2.0,1.1799028,2.0,-2.0,1.8129457,-2.0,-2.0,1.8843434,-0.96041596,2.0,-0.9658576,-2.0,2.0,-2.0,2.0,-2.0
2025-07-18 16:40:16.401,3.2600000000000025,3260,163,0.11932581,-0.27473113,-0.06630056,-0.012466632,0.045627043,0.02220772,0.0,0.0,0.0,0.016054804,0.12149576,0.03300814,-0.07055147,-0.06393895,-0.24657954,0.055194978,0.070437804,0.10797145,0.12457786,-0.010679064,0.20365763,-0.118612185,0.047664627,-0.029953929,-0.06308041,-0.0023384653,-0.008887012,0.16833712,-0.030851383,-0.07827313,0.1448179,-0.1224466,0.29745242,-0.071270496,1.8129457,-2.0,-2.0,1.8843434,-0.96041596,2.0,-0.9658576,-2.0,2.0,-2.0,2.0,-2.0,2.0,-2.0,-2.0,0.08909851,1.9178555,2.0,-0.39879677,-2.0,2.0,-2.0,0.49121058,-2.0
2025-07-18 16:40:16.420,3.2800000000000025,3280,164,0.25601837,-0.027447913,0.11676973,0.048462946,-0.0015461519,0.017936727,0.0,0.0,0.0,0.015252613,0.17005688,-0.037718534,-0.117907494,-0.06352588,-0.23679292,0.08800261,0.056905974,0.053447735,0.15463212,-0.063974924,0.24651092,-0.14746912,0.016172579,-0.27613312,-0.080511004,0.02985954,0.05077079,0.09347089,-0.06974326,-0.051642884,0.09954083,-0.12754843,-0.031402558,-0.06340667,2.0,-2.0,-2.0,0.08909851,1.9178555,2.0,-0.39879677,-2.0,2.0,-2.0,0.49121058,-2.0,2.0,-2.0,1.8283355,1.5984011,2.0,1.1142844,-1.5288161,-2.0,1.7596275,-2.0,-1.343233,-2.0
2025-07-18 16:40:16.440,3.3000000000000025,3300,165,0.32438093,0.056251705,0.0439166,0.03644211,0.032051526,0.030110907,0.0,0.0,0.0,0.01411018,0.193187,-0.18225953,-0.05469631,-0.060523096,-0.22484714,0.09631072,0.05719142,0.022649707,0.17195818,-0.11399136,0.19174922,-0.1679314,0.07427608,-0.32488453,0.13630497,0.04435044,0.08971712,-0.061822534,0.013109334,-0.078126505,0.07646121,-0.046889454,-0.27385628,-0.01187723,2.0,-2.0,1.8283355,1.5984011,2.0,1.1142844,-1.5288161,-2.0,1.7596275,-2.0,-1.343233,-2.0,2.0,-1.952972,2.0,1.1948783,2.0,-2.0,-1.8623712,-2.0,-1.694221,-2.0,-1.0704325,2.0
