openverse-orca/OrcaGym/log/simulation_log_20250609_092035.csv
timestamp,imu_angle_roll,imu_angle_pitch,imu_angle_yaw,imu_angular_velocity_roll,imu_angular_velocity_pitch,imu_angular_velocity_yaw,imu_acc_x,imu_acc_y,imu_acc_z,fl_joint1_pos,fl_joint1_vel,fl_joint1_torque,fl_joint2_pos,fl_joint2_vel,fl_joint2_torque,fl_joint3_pos,fl_joint3_vel,fl_joint3_torque,fr_joint1_pos,fr_joint1_vel,fr_joint1_torque,fr_joint2_pos,fr_joint2_vel,fr_joint2_torque,fr_joint3_pos,fr_joint3_vel,fr_joint3_torque,hl_joint1_pos,hl_joint1_vel,hl_joint1_torque,hl_joint2_pos,hl_joint2_vel,hl_joint2_torque,hl_joint3_pos,hl_joint3_vel,hl_joint3_torque,hr_joint1_pos,hr_joint1_vel,hr_joint1_torque,hr_joint2_pos,hr_joint2_vel,hr_joint2_torque,hr_joint3_pos,hr_joint3_vel,hr_joint3_torque,fl_force_x,fl_force_y,fl_force_z,fr_force_x,fr_force_y,fr_force_z,hl_force_x,hl_force_y,hl_force_z,hr_force_x,hr_force_y,hr_force_z,fl_hip_action,fl_thigh_action,fl_calf_action,fr_hip_action,fr_thigh_action,fr_calf_action,hl_hip_action,hl_thigh_action,hl_calf_action,hr_hip_action,hr_thigh_action,hr_calf_action
2025-06-09 09:20:35.190,0.008890814,0.0073980414,0.017941885,0.002782544,0.005758433,-0.031232568,0.35862783,1.4154663,0.0,0.0,-0.006568748,-0.00017065894,-0.008384002,-0.0034820812,-0.0049336995,-0.0035057515,0.009612055,-0.0071878135,0.0073790266,-0.0010021667,0.0023424851,-0.0024584825,0.011674907,-0.05329928,0.071449965,-0.016728844,-0.0025926207,-0.011788571,-0.06858371,-0.03931701,-0.06070338,0.048312124,0.054940917,-0.022788202,0.0,0.0,0.0,0.0,0.0,0.0,0.0,0.0,0.0,0.0,0.0,0.0,-2.0,-0.7787341,-2.0,2.0,1.3839107,-2.0,2.0,-2.0,-2.0,-2.0,-2.0,-2.0
2025-06-09 09:20:35.198,-0.17630184,0.03743258,-0.0638162,0.05344175,-0.050541822,0.008324056,0.0,0.0,0.0,0.0,-0.015044298,-0.019787584,-0.045701236,0.019820085,0.055738702,-0.059310474,0.02204258,-0.08123769,-0.041349214,-0.024411207,-0.06946189,-0.05155779,-0.008424626,-0.13386236,-0.11487652,0.11057861,0.16129036,-0.12709212,0.05161078,-0.19100869,-0.076306306,-0.06497143,-0.16988668,-0.1550176,-2.0,-0.7787341,-2.0,2.0,1.3839107,-2.0,2.0,-2.0,-2.0,-2.0,-2.0,-2.0,-2.0,2.0,-2.0,2.0,2.0,-2.0,2.0,-2.0,-2.0,-2.0,-2.0,-2.0
2025-06-09 09:20:35.215,-0.06571201,-0.050269004,-0.023684334,0.010849674,-0.018836943,-0.034083184,0.0,0.0,0.0,0.00044914984,-0.038563173,0.028871866,-0.10054768,0.0357152,0.13507509,-0.10205451,0.03860773,-0.16453266,-0.083164886,-0.032975774,-0.16082802,-0.085392974,-0.05444042,0.14166865,-0.13408579,0.092319086,0.15320006,-0.09333872,0.099075906,-0.2124893,-0.0017975941,-0.010455759,-0.10941172,0.03608495,-2.0,2.0,-2.0,2.0,2.0,-2.0,2.0,-2.0,-2.0,-2.0,-2.0,-2.0,-2.0,1.8830875,-2.0,2.0,2.0,-2.0,2.0,-2.0,-2.0,-2.0,-2.0,-2.0
2025-06-09 09:20:35.235,-0.097123176,-0.07715257,-0.031161113,0.0015317299,-0.019362614,0.034045376,0.0,0.0,0.0,0.0006934864,-0.050815895,0.03244044,-0.123957895,0.057300568,0.14838742,-0.12285006,0.041796017,-0.21071272,-0.047963403,-0.037605498,-0.20079294,-0.047457106,0.021774588,-0.035933472,0.070474416,0.044316784,-0.05490304,0.029894268,0.030633856,-0.15043731,-0.007433313,-0.028003134,-0.056588586,-0.007785895,-2.0,1.8830875,-2.0,2.0,2.0,-2.0,2.0,-2.0,-2.0,-2.0,-2.0,-2.0,-2.0,2.0,-2.0,2.0,2.0,-2.0,2.0,-2.0,-2.0,-2.0,-2.0,-2.0
2025-06-09 09:20:35.255,-0.05463064,-0.09057486,0.018481871,-0.011441077,-0.05633446,0.024465479,0.0,0.0,0.0,0.00065644877,-0.058956284,0.05752368,-0.10434342,0.058523715,0.14544213,-0.108620785,0.04580588,-0.2355579,-0.03396038,-0.036527984,-0.23658837,-0.030479884,0.011399889,0.05987497,0.049025577,0.07022101,-0.027393121,-0.03956579,0.0013850882,-0.060787946,0.0043708715,-0.068550296,-0.007920154,0.041454375,-2.0,2.0,-2.0,2.0,2.0,-2.0,2.0,-2.0,-2.0,-2.0,-2.0,-2.0,-2.0,1.7385135,-2.0,2.0,2.0,-2.0,2.0,-2.0,-2.0,-2.0,-2.0,-2.0
2025-06-09 09:20:35.275,-0.038813215,-0.08427304,-0.00057338824,-0.0063889464,-0.019109618,-0.04536581,0.0,0.0,0.0,0.00044675343,-0.060469735,0.0543349,-0.12103936,0.06929985,0.17150594,-0.116098225,0.034995057,-0.2485644,-0.012836521,-0.036291596,-0.23758459,-0.029630372,-0.07324886,0.095344216,0.0047724284,-0.05516232,0.017606813,-0.006560333,-0.0032813689,-0.05694222,-0.022589875,-0.04161972,-0.0048422683,-0.042480692,-2.0,1.7385135,-2.0,2.0,2.0,-2.0,2.0,-2.0,-2.0,-2.0,-2.0,-2.0,-2.0,1.8922687,-2.0,2.0,2.0,-2.0,2.0,-2.0,-2.0,-2.0,-2.0,-2.0
2025-06-09 09:20:35.298,-0.05182667,-0.03452649,0.03755659,0.016976425,-0.05393281,-0.007492475,0.0,0.0,0.0,0.00017670443,-0.06737835,0.08247004,-0.12540585,0.06727993,0.17641933,-0.13562045,0.0493193,-0.24675395,-0.018362116,-0.027137361,-0.2473509,-0.021572512,-0.05768928,-0.008447734,0.024762148,0.028428627,0.028812477,-0.024446309,0.012589272,-0.027346201,0.04016391,0.02823086,0.038947724,-0.056695808,-2.0,1.8922687,-2.0,2.0,2.0,-2.0,2.0,-2.0,-2.0,-2.0,-2.0,-2.0,-2.0,1.7573612,-2.0,2.0,2.0,-2.0,2.0,-2.0,-2.0,-2.0,-2.0,-2.0
2025-06-09 09:20:35.316,-0.072619475,-0.055617735,-0.024373958,0.008917211,-0.005811594,-0.010407828,0.0,0.0,0.0,-0.00014121222,-0.06302558,0.113065414,-0.14284837,0.071173385,0.20633005,-0.1322192,0.035812292,-0.25213507,-0.0159587,-0.04229051,-0.27147636,-0.022461867,-0.018226698,0.0015002193,-0.1120293,-0.0068646614,0.11312711,-0.12654033,0.04535472,-0.03545749,0.0071438504,-0.034773298,0.04669574,-0.017544376,-2.0,1.7573612,-2.0,2.0,2.0,-2.0,2.0,-2.0,-2.0,-2.0,-2.0,-2.0,-2.0,2.0,-2.0,2.0,2.0,-2.0,2.0,-2.0,-2.0,-2.0,-2.0,-2.0
2025-06-09 09:20:35.337,-0.02845448,-0.03720465,-0.012311757,0.028589664,0.0060966513,0.002770971,0.0,0.0,0.0,-0.00048758904,-0.07165568,0.13543795,-0.15172699,0.08277136,0.24151736,-0.16872649,0.034985106,-0.26230058,-0.022401894,-0.03821228,-0.25848904,-0.022864155,0.015661232,0.06728911,-0.06624802,0.06554421,0.121031426,-0.019063974,-0.038996067,0.011330417,0.007950246,0.038989704,0.051544588,0.0286201,-2.0,2.0,-2.0,2.0,2.0,-2.0,2.0,-2.0,-2.0,-2.0,-2.0,-2.0,-2.0,2.0,-2.0,2.0,2.0,-2.0,2.0,-2.0,-2.0,-2.0,-2.0,-2.0
2025-06-09 09:20:35.356,-0.0086502815,-0.039767448,0.062639855,0.020844044,0.015684681,0.04644287,0.0,0.0,0.0,-0.0010055113,-0.064572886,0.1542141,-0.17338635,0.09323457,0.26937306,-0.17009413,0.039582238,-0.26759273,-0.02178775,-0.039471235,-0.26818356,-0.0021966002,0.05149968,0.06103424,-0.03541931,-0.029117774,0.00982391,0.016675452,0.056858186,0.05560952,-0.021886196,0.024766704,0.048994362,-0.0029861387,-2.0,2.0,-2.0,2.0,2.0,-2.0,2.0,-2.0,-2.0,-2.0,-2.0,-2.0,-2.0,1.3445038,-2.0,2.0,2.0,-2.0,2.0,-2.0,-2.0,-2.0,-2.0,-2.0
2025-06-09 09:20:35.378,0.031787243,-0.05312057,-0.034143105,0.035259634,-0.045456547,-0.023391237,0.0,0.0,0.0,-0.0016178602,-0.06772143,0.16189702,-0.1804287,0.080064125,0.30089417,-0.1818089,0.031392027,-0.2765127,-0.041090693,-0.042912547,-0.26842445,-0.009031493,0.004580353,0.0023276329,0.024862166,-0.0640578,0.0072213374,0.01602074,-0.06930564,-0.06902928,0.038874228,0.052198716,0.054374564,0.04559631,-2.0,1.3445038,-2.0,2.0,2.0,-2.0,2.0,-2.0,-2.0,-2.0,-2.0,-2.0,-2.0,2.0,-2.0,2.0,2.0,-2.0,2.0,-2.0,-2.0,-2.0,-2.0,-2.0
2025-06-09 09:20:35.398,0.04434275,-0.024936523,-0.0113920085,0.10507952,-0.031846896,0.03172592,0.0,0.0,0.0,-0.0020094556,-0.078493476,0.17147578,-0.17203772,0.086007275,0.29100838,-0.16610686,0.031401582,-0.2795773,-0.034523472,-0.05068686,-0.29224482,0.012879529,-0.016432798,0.009347244,0.036156416,0.04028547,-0.016586611,0.028957183,0.04891723,0.06033489,-0.0030563322,0.046623252,-0.012740931,0.029897086,-2.0,2.0,-2.0,2.0,2.0,-2.0,2.0,-2.0,-2.0,-2.0,-2.0,-2.0,-2.0,1.9508822,-2.0,2.0,2.0,-2.0,2.0,-2.0,-2.0,-2.0,-2.0,-2.0
2025-06-09 09:20:35.417,0.041700162,-0.05584558,-0.0032517803,0.008143997,0.0061970167,-0.014802714,0.0,0.0,0.0,-0.0022861464,-0.0779063,0.19920634,-0.16338344,0.09456806,0.2993539,-0.16236481,0.029644927,-0.2741223,-0.029363133,-0.049942825,-0.28647062,0.018240869,0.05332106,-0.020228885,0.017666912,-0.015182316,0.036474485,0.0048046215,0.047117874,0.046858102,0.036607753,0.05923095,0.06304492,-0.02249619,-2.0,1.9508822,-2.0,2.0,2.0,-2.0,2.0,-2.0,-2.0,-2.0,-2.0,-2.0,-2.0,2.0,-2.0,2.0,2.0,-2.0,2.0,-2.0,-2.0,-2.0,-2.0,-2.0
2025-06-09 09:20:35.437,0.062065773,-0.05394757,-0.0080929715,0.0672633,0.01105082,0.011430759,0.0,0.0,0.0,-0.002528265,-0.07713846,0.19520074,-0.17391829,0.08199735,0.29574615,-0.14300384,0.024214447,-0.2693128,-0.044828545,-0.054425277,-0.28248996,0.007724989,-0.056549624,0.0059370548,0.031650905,-0.033290703,-0.053658057,0.08775962,0.038925868,0.015840404,-0.038872503,-0.02544872,-0.02656694,0.0669366,-2.0,2.0,-2.0,2.0,2.0,-2.0,2.0,-2.0,-2.0,-2.0,-2.0,-2.0,-2.0,1.8107721,-2.0,2.0,2.0,-2.0,2.0,-2.0,-2.0,-2.0,-2.0,-2.0
2025-06-09 09:20:35.457,-0.01842113,-0.039898608,-0.0047264346,0.08485131,0.039738122,-0.031516872,0.0,0.0,0.0,-0.0027500035,-0.0891409,0.21712655,-0.16572608,0.09298158,0.29677787,-0.13477407,0.025633173,-0.27788678,-0.03756326,-0.046200953,-0.29926082,0.024055792,-0.0631193,0.0103294505,0.0028898201,-0.016734732,0.021530457,-0.03454376,-0.03689302,-0.06965296,-0.069025494,-0.025685681,-0.08083802,-0.02176697,-2.0,1.8107721,-2.0,2.0,2.0,-2.0,2.0,-2.0,-2.0,-2.0,-2.0,-2.0,-2.0,2.0,-2.0,2.0,2.0,-2.0,2.0,-2.0,-2.0,-2.0,-2.0,-2.0
2025-06-09 09:20:35.480,0.07806517,0.0020375997,0.0493586,0.03327907,-0.008251583,0.03683475,0.0,0.0,0.0,-0.0029173305,-0.09086119,0.22963586,-0.17078747,0.09452499,0.3140819,-0.13571443,0.043693908,-0.287591,-0.03656989,-0.046243574,-0.2833891,0.03242623,0.04756247,0.06560881,0.06276914,0.038442247,-0.005604424,0.027837284,0.033890046,0.019098002,-0.031158108,0.04286952,-0.06746836,-0.0294051,-2.0,2.0,-2.0,2.0,2.0,-2.0,2.0,-2.0,-2.0,-2.0,-2.0,-2.0,-2.0,1.1989815,-2.0,2.0,2.0,-2.0,2.0,-2.0,-2.0,-2.0,-2.0,-2.0
2025-06-09 09:20:35.497,0.029150235,0.065618634,-0.036270685,0.057223387,0.023228714,-0.03971393,0.0,0.0,0.0,-0.0031018856,-0.09719813,0.22254355,-0.15188183,0.089269236,0.313848,-0.12829807,0.028830748,-0.28396007,-0.03890696,-0.05472329,-0.2980863,0.018118808,-0.057451043,-0.0013703846,0.046043843,0.06502587,0.048389554,-0.010846575,0.060518757,-0.017470751,-0.0093649505,0.026772358,-0.039737288,0.056392495,-2.0,1.1989815,-2.0,2.0,2.0,-2.0,2.0,-2.0,-2.0,-2.0,-2.0,-2.0,-2.0,2.0,-2.0,2.0,2.0,-2.0,2.0,-2.0,-2.0,-2.0,-2.0,-2.0
2025-06-09 09:20:35.517,0.0075141056,-0.010989628,-0.010703579,0.001974493,-0.02417183,-0.028113171,0.0,0.0,0.0,-0.003070824,-0.09632796,0.24066037,-0.16264626,0.09015412,0.30779415,-0.12044737,0.031944375,-0.28890193,-0.033144042,-0.039829332,-0.29309365,0.027395466,0.021040553,-0.056300532,-0.015080166,-0.026385633,0.039523926,-0.012614835,0.060177367,0.042811424,-0.0014885797,-0.018875137,-0.0027829888,0.045952465,-2.0,2.0,-2.0,2.0,2.0,-2.0,2.0,-2.0,-2.0,-2.0,-2.0,-2.0,-2.0,2.0,-2.0,2.0,2.0,-2.0,2.0,-2.0,-2.0,-2.0,-2.0,-2.0
2025-06-09 09:20:35.537,0.037866198,-0.021031234,-0.017984036,0.016704006,-0.017683959,-0.014314359,0.0,0.0,0.0,-0.0030635789,-0.10232685,0.24313235,-0.15358382,0.08817849,0.30694434,-0.12205864,0.043885034,-0.29759175,-0.040386382,-0.039672427,-0.29236475,0.02534831,0.05611106,-0.0045293183,0.07667755,0.05771101,0.02291725,-0.056945134,-0.06545808,-0.0234857,-0.066265896,-0.04404099,0.034218922,0.04452411,-2.0,2.0,-2.0,2.0,2.0,-2.0,2.0,-2.0,-2.0,-2.0,-2.0,-2.0,-2.0,2.0,-2.0,2.0,2.0,-2.0,2.0,-2.0,-2.0,-2.0,-2.0,-2.0
2025-06-09 09:20:35.557,0.009973852,0.044613663,0.010870828,0.050643384,-0.040037777,0.021565007,0.0,0.0,0.0,-0.003254065,-0.11086432,0.24385422,-0.15526769,0.08896043,0.30049044,-0.123243906,0.04247622,-0.29951966,-0.03237425,-0.052082956,-0.29535255,0.021234464,-0.07387439,-0.014329114,-0.004259215,-0.048839398,0.06869983,0.016373564,-0.0075966525,-0.058808878,-0.01436788,-0.011564557,0.023799889,-0.011463122,-2.0,2.0,-2.0,2.0,2.0,-2.0,2.0,-2.0,-2.0,-2.0,-2.0,-2.0,-2.0,1.7512511,-2.0,2.0,2.0,-2.0,2.0,-2.0,-2.0,-2.0,-2.0,-2.0
2025-06-09 09:20:35.581,-0.014556279,0.006269283,-0.0061888,0.030389694,-0.02969734,-0.023438713,0.0,0.0,0.0,-0.0036017525,-0.10657169,0.24900936,-0.15958728,0.09457614,0.31441575,-0.12306345,0.03497563,-0.2879248,-0.03982345,-0.036676776,-0.30014366,0.018092904,-0.0018199121,-0.037043877,-0.041068163,0.06866697,0.026252735,-0.039821103,0.042516507,0.008366238,0.06938087,0.07095183,-0.009338076,-0.08340412,-2.0,1.7512511,-2.0,2.0,2.0,-2.0,2.0,-2.0,-2.0,-2.0,-2.0,-2.0,-2.0,1.9748278,-2.0,2.0,2.0,-2.0,2.0,-2.0,-2.0,-2.0,-2.0,-2.0
2025-06-09 09:20:35.599,-0.02969186,0.04227595,0.02565068,0.060519747,-0.037993323,0.0428214,0.0,0.0,0.0,-0.003974127,-0.10129624,0.26704183,-0.15252393,0.08128679,0.30133933,-0.12594958,0.040929608,-0.29631597,-0.03238682,-0.049858462,-0.30356196,0.018278442,-0.023134038,0.04397504,-0.05345455,-0.038996603,-0.005246905,-0.058330216,-0.022917073,-0.020918738,-0.074372016,-0.020283112,0.067345686,-0.04498589,-2.0,1.9748278,-2.0,2.0,2.0,-2.0,2.0,-2.0,-2.0,-2.0,-2.0,-2.0,-2.0,1.6926283,-2.0,2.0,2.0,-2.0,2.0,-2.0,-2.0,-2.0,-2.0,-2.0
2025-06-09 09:20:35.617,-0.004608838,0.055806074,0.00086342724,0.067630485,0.012060237,-0.02453549,0.0,0.0,0.0,-0.0043994226,-0.10988389,0.25429526,-0.1491291,0.096703656,0.3041798,-0.117178224,0.043944612,-0.30807075,-0.042777523,-0.05242156,-0.3158213,-0.00071961613,0.010296941,-0.03820162,0.07268627,0.03102601,-0.020939898,0.018186213,0.029072165,-0.082091935,-0.05525399,0.0042263763,0.052316256,-0.011148363,-2.0,1.6926283,-2.0,2.0,2.0,-2.0,2.0,-2.0,-2.0,-2.0,-2.0,-2.0,-2.0,1.8892696,-2.0,2.0,2.0,-2.0,2.0,-2.0,-2.0,-2.0,-2.0,-2.0
2025-06-09 09:20:35.637,-0.01883922,0.06005488,-0.015908271,0.02894157,0.044448327,0.04138435,0.0,0.0,0.0,-0.0047943844,-0.107399076,0.259898,-0.14767836,0.08916752,0.30793282,-0.115662426,0.035546556,-0.3107844,-0.049425174,-0.053013455,-0.3105134,0.006070666,0.066967346,0.07111191,-0.012646583,-0.05908312,-0.03922694,0.018002575,-0.049255043,0.047148176,-0.06133027,-0.07177849,-0.013753618,0.021016503,-2.0,1.8892696,-2.0,2.0,2.0,-2.0,2.0,-2.0,-2.0,-2.0,-2.0,-2.0,-2.0,1.6319762,-2.0,2.0,2.0,-2.0,2.0,-2.0,-2.0,-2.0,-2.0,-2.0
2025-06-09 09:20:35.657,0.0023982292,0.043879174,0.032973073,0.0629978,-0.043335896,0.022123145,0.0,0.0,0.0,-0.0051855166,-0.105868675,0.26183984,-0.14187069,0.10329207,0.30945092,-0.12489931,0.04218377,-0.29916933,-0.051222574,-0.048560698,-0.30851546,0.0030524428,-0.03736212,0.009458932,-0.03721441,-0.014763947,-0.036878932,-0.009082474,0.06741837,-0.04183461,-0.002560454,0.032228716,-0.037033767,-0.02600231,-2.0,1.6319762,-2.0,2.0,2.0,-2.0,2.0,-2.0,-2.0,-2.0,-2.0,-2.0,-2.0,1.4588504,-2.0,2.0,2.0,-2.0,2.0,-2.0,-2.0,-2.0,-2.0,-2.0
2025-06-09 09:20:35.681,0.0075129378,0.013234352,0.028948186,0.062956214,-0.022012258,0.0025877922,0.0,0.0,0.0,-0.0055138106,-0.10229822,0.26211068,-0.12635677,0.099750735,0.29922587,-0.117434934,0.036612846,-0.32016182,-0.045317348,-0.049494352,-0.3179623,-0.019231819,-0.022253329,0.05468521,-0.011449775,-0.066287495,-0.042290736,0.015713677,-0.06358523,-0.017739806,-0.069386974,-0.069279745,-0.029448785,-0.050674103,-2.0,1.4588504,-2.0,2.0,2.0,-2.0,2.0,-2.0,-2.0,-2.0,-2.0,-2.0,-2.0,1.3298126,-2.0,2.0,2.0,-2.0,2.0,-2.0,-2.0,-2.0,-2.0,-2.0
2025-06-09 09:20:35.698,-0.05602653,0.014655948,-0.014376518,0.05289575,-0.053058326,-0.0035972171,0.0,0.0,0.0,-0.005691478,-0.11412286,0.24211459,-0.11708707,0.09841929,0.2957986,-0.13138281,0.03891602,-0.32746148,-0.04579476,-0.037779164,-0.30794102,-0.01814438,0.024967775,-0.07890632,-0.012200812,-0.055194564,-0.039350923,0.01963185,0.06959523,-0.03844265,0.05300883,0.06633283,0.044655975,-0.02660065,-2.0,1.3298126,-2.0,2.0,2.0,-2.0,2.0,-2.0,-2.0,-2.0,-2.0,-2.0,-2.0,2.0,-2.0,2.0,2.0,-2.0,2.0,-2.0,-2.0,-2.0,-2.0,-2.0
2025-06-09 09:20:35.718,-0.02166745,0.011301877,0.05563001,0.039502036,-0.031793278,0.039683733,0.0,0.0,0.0,-0.005687892,-0.09688513,0.2548019,-0.11758743,0.08695225,0.287637,-0.11949806,0.04105447,-0.32089508,-0.04386546,-0.029323969,-0.31332883,-0.027637057,-0.07417672,0.009465776,0.017538825,0.07167418,0.049865317,0.02838958,-0.0140224835,0.047196098,0.030380158,0.040180642,-0.03119296,-0.07973082,-2.0,2.0,-2.0,2.0,2.0,-2.0,2.0,-2.0,-2.0,-2.0,-2.0,-2.0,-2.0,1.0610135,-2.0,2.0,2.0,-2.0,2.0,-2.0,-2.0,-2.0,-2.0,-2.0
2025-06-09 09:20:35.738,0.02234612,0.072845496,-0.025122331,0.06115725,-0.016830837,-0.033472627,0.0,0.0,0.0,-0.005801335,-0.10398817,0.2473292,-0.12243687,0.10108856,0.280136,-0.13633096,0.046133664,-0.32326606,-0.032762602,-0.025755385,-0.32479858,-0.030085415,-0.0051412745,-0.005506154,-0.046413198,-0.009263804,-0.072858855,-0.021746125,-0.04817663,0.034702156,0.04927308,-0.05466137,-0.055069212,0.004151098,-2.0,1.0610135,-2.0,2.0,2.0,-2.0,2.0,-2.0,-2.0,-2.0,-2.0,-2.0,-2.0,1.9335207,-2.0,2.0,2.0,-2.0,2.0,-2.0,-2.0,-2.0,-2.0,-2.0
2025-06-09 09:20:35.758,-0.041599553,0.04421617,0.038606063,0.03305396,-0.061148632,-0.00018372822,0.0,0.0,0.0,-0.0057887477,-0.10384355,0.2525782,-0.12027274,0.10500857,0.28577873,-0.123990715,0.046441805,-0.32575625,-0.047472037,-0.02783668,-0.3292807,-0.044396583,0.021685673,0.06771474,-0.043897334,0.033517264,-0.015114974,0.030144213,-0.018790241,0.029236369,-0.051158607,-0.0206182,0.04516385,-0.08671611,-2.0,1.9335207,-2.0,2.0,2.0,-2.0,2.0,-2.0,-2.0,-2.0,-2.0,-2.0,-2.0,1.106894,-2.0,2.0,2.0,-2.0,2.0,-2.0,-2.0,-2.0,-2.0,-2.0
2025-06-09 09:20:35.781,-0.06374735,-0.013212315,0.026056912,0.04459664,0.02476233,-0.005639799,0.0,0.0,0.0,-0.005855685,-0.10154185,0.23346683,-0.10563987,0.10087962,0.28585604,-0.12460289,0.05327027,-0.3299424,-0.049830593,-0.023140602,-0.31663102,-0.03838431,-0.07084528,0.040923167,-0.006699577,-0.03114038,0.020152241,-0.009508453,0.07228349,-0.03811699,0.02071176,0.010601147,-0.03232433,0.0078025996,-2.0,1.106894,-2.0,2.0,2.0,-2.0,2.0,-2.0,-2.0,-2.0,-2.0,-2.0,-2.0,1.2196854,-2.0,2.0,2.0,-2.0,2.0,-2.0,-2.0,-2.0,-2.0,-2.0
2025-06-09 09:20:35.798,0.0066058654,0.051729303,0.034266226,0.0066413777,0.02427847,0.00019767195,0.0,0.0,0.0,-0.005850512,-0.115920216,0.22522835,-0.111223266,0.08966753,0.28495196,-0.13900091,0.03868555,-0.3378004,-0.040439714,-0.032345638,-0.32125047,-0.058932986,-0.050468944,-0.05378207,0.0018105533,-0.03342691,0.024700347,0.011727624,-0.028683929,0.008777992,0.057028003,-0.06252042,0.043889616,-0.06710494,-2.0,1.2196854,-2.0,2.0,2.0,-2.0,2.0,-2.0,-2.0,-2.0,-2.0,-2.0,-2.0,1.2557886,-2.0,2.0,2.0,-2.0,2.0,-2.0,-2.0,-2.0,-2.0,-2.0
2025-06-09 09:20:35.819,-0.0020179017,-0.014310531,-0.019861864,-0.0029511661,-0.014693897,0.036113452,0.0,0.0,0.0,-0.005709742,-0.11744639,0.22896098,-0.10123622,0.10486062,0.27143642,-0.13199165,0.037345156,-0.35314268,-0.041566297,-0.030599978,-0.3199144,-0.06551491,0.025916541,-0.010868799,-0.05602287,0.049251717,-0.012845787,0.05214952,0.031614617,0.0063181957,-0.0178014,-0.03822786,-0.043253366,-0.058067705,-2.0,1.2557886,-2.0,2.0,2.0,-2.0,2.0,-2.0,-2.0,-2.0,-2.0,-2.0,-2.0,1.6722012,-2.0,2.0,2.0,-2.0,2.0,-2.0,-2.0,-2.0,-2.0,-2.0
2025-06-09 09:20:35.838,0.0573655,0.022387687,-0.015130965,0.042003673,-0.0048668575,-0.007282364,0.0,0.0,0.0,-0.005542957,-0.10544128,0.23112744,-0.10685435,0.09246265,0.27642548,-0.1389367,0.04053238,-0.34626794,-0.04738713,-0.034945477,-0.3348628,-0.06404835,0.016467987,0.051785965,0.07462925,0.007616344,-0.062314235,0.047913894,0.04387013,0.070551135,0.010854371,-0.033618905,-0.05362127,0.005494955,-2.0,1.6722012,-2.0,2.0,2.0,-2.0,2.0,-2.0,-2.0,-2.0,-2.0,-2.0,-2.0,1.39133,-2.0,2.0,2.0,-2.0,2.0,-2.0,-2.0,-2.0,-2.0,-2.0
2025-06-09 09:20:35.858,-0.0019410197,0.057368882,0.0057721734,0.061802495,-0.042805057,0.03273036,0.0,0.0,0.0,-0.0055441232,-0.105202705,0.22142676,-0.10651259,0.10072441,0.26646033,-0.13221149,0.04648632,-0.34085286,-0.047282763,-0.027126605,-0.32961476,-0.07616989,0.006009588,0.017967738,0.06547971,0.021377282,-0.052020736,-0.036239654,-0.038858056,-0.005685762,-0.018088851,0.04914508,0.023954319,0.01698278,-2.0,1.39133,-2.0,2.0,2.0,-2.0,2.0,-2.0,-2.0,-2.0,-2.0,-2.0,-2.0,1.5539641,-2.0,2.0,2.0,-2.0,2.0,-2.0,-2.0,-2.0,-2.0,-2.0
2025-06-09 09:20:35.881,0.046430662,-0.028673837,4.394016e-06,-0.015117164,-0.03866352,-0.0051929667,0.0,0.0,0.0,-0.0056369295,-0.11740391,0.23308021,-0.107323885,0.09234781,0.258301,-0.12611787,0.04970381,-0.34089568,-0.051705018,-0.023047045,-0.32970276,-0.07591165,-0.04493357,0.023591235,-0.071037814,0.026405975,0.05355968,-0.006078825,-0.0032988912,-0.06821804,-0.05332653,0.057351276,0.053047422,0.015596592,-2.0,1.5539641,-2.0,2.0,2.0,-2.0,2.0,-2.0,-2.0,-2.0,-2.0,-2.0,-2.0,1.5514808,-2.0,2.0,2.0,-2.0,2.0,-2.0,-2.0,-2.0,-2.0,-2.0
2025-06-09 09:20:35.898,-0.030525642,0.038328964,0.00951835,0.04007566,-0.06326118,0.04111347,0.0,0.0,0.0,-0.00579124,-0.1099705,0.21845329,-0.09526606,0.108516134,0.25591826,-0.13566275,0.045889914,-0.34086195,-0.045599587,-0.018862046,-0.34272018,-0.08485725,-0.022769347,-0.017634442,0.006132425,0.016797999,-0.023314208,-0.053616673,0.0006195532,-0.011954669,0.013474536,0.06191871,-0.073715255,-0.071730755,-2.0,1.5514808,-2.0,2.0,2.0,-2.0,2.0,-2.0,-2.0,-2.0,-2.0,-2.0,-2.0,1.6137326,-2.0,2.0,2.0,-2.0,2.0,-2.0,-2.0,-2.0,-2.0,-2.0
2025-06-09 09:20:35.918,0.00047246058,0.016298076,0.044676255,-0.016862718,-0.029852927,0.0020730067,0.0,0.0,0.0,-0.005997165,-0.099316336,0.21543358,-0.098314404,0.09333925,0.27370495,-0.13252297,0.048957467,-0.35242075,-0.06018799,-0.01769351,-0.3257523,-0.07940952,0.07065282,0.022496464,-0.0010182553,0.03995066,0.034594346,-0.005474004,-0.01584468,-0.024630424,0.0011481048,-0.055238668,-0.05893376,0.017765041,-2.0,1.6137326,-2.0,2.0,2.0,-2.0,2.0,-2.0,-2.0,-2.0,-2.0,-2.0,-2.0,0.91855323,-2.0,2.0,2.0,-2.0,2.0,-2.0,-2.0,-2.0,-2.0,-2.0
2025-06-09 09:20:35.939,0.0062181256,0.021342475,-0.032063972,-0.0013503555,0.028242646,0.0012303068,0.0,0.0,0.0,-0.006228817,-0.100079864,0.21995054,-0.09173479,0.11004554,0.26524785,-0.12787905,0.03474238,-0.34893218,-0.05429166,-0.033438873,-0.33679414,-0.07603797,0.048524104,0.04543238,-0.020044146,0.0119046215,-0.01710025,-0.046056453,-0.00669753,0.022657128,-0.02724,-0.07237472,-0.009518486,-0.07500016,-2.0,0.91855323,-2.0,2.0,2.0,-2.0,2.0,-2.0,-2.0,-2.0,-2.0,-2.0,-2.0,1.9417194,-2.0,2.0,2.0,-2.0,2.0,-2.0,-2.0,-2.0,-2.0,-2.0
2025-06-09 09:20:35.958,0.010577353,-0.060497463,0.012853209,0.0721704,-0.038615182,0.03856177,0.0,0.0,0.0,-0.0062067825,-0.1124076,0.2360881,-0.09974339,0.10828793,0.26712582,-0.1261067,0.04280287,-0.34025422,-0.050289262,-0.032895062,-0.33297324,-0.081895016,-0.035741284,0.02498822,0.057115402,0.015827803,0.0005194219,0.009766142,-0.070058554,-0.02060182,0.045323428,0.0038681198,0.012789596,-0.03672889,-2.0,1.9417194,-2.0,2.0,2.0,-2.0,2.0,-2.0,-2.0,-2.0,-2.0,-2.0,-2.0,1.1865231,-2.0,2.0,2.0,-2.0,2.0,-2.0,-2.0,-2.0,-2.0,-2.0
2025-06-09 09:20:35.981,0.018858591,-0.018925978,-0.02118841,0.06317109,0.018994,-0.023649454,0.0,0.0,0.0,-0.0062370626,-0.10669188,0.23248051,-0.0967033,0.11184521,0.260167,-0.12345862,0.042503312,-0.3416432,-0.06274183,-0.02825274,-0.34596664,-0.077914625,0.038039498,-0.013220779,-0.032091703,-0.016789062,-0.04696089,0.025875485,0.07348164,0.025093503,0.060477633,-0.0004471685,-0.05497909,0.07343673,-2.0,1.1865231,-2.0,2.0,2.0,-2.0,2.0,-2.0,-2.0,-2.0,-2.0,-2.0,-2.0,1.731814,-2.0,2.0,2.0,-2.0,2.0,-2.0,-2.0,-2.0,-2.0,-2.0
2025-06-09 09:20:36.000,0.043895498,-0.06190601,-0.024733838,0.034590017,0.0022151303,-0.0341071,0.0,0.0,0.0,-0.0062183253,-0.10512028,0.2312628,-0.10820012,0.11051857,0.26329178,-0.11940987,0.036655284,-0.34258643,-0.05381337,-0.028347036,-0.33488846,-0.08273984,-0.049291983,0.010222376,0.026187504,-0.06919137,0.04249058,-0.036893252,-0.05537292,-0.055666313,-0.04200575,-0.028962152,-0.04338465,-0.044963647,-2.0,1.731814,-2.0,2.0,2.0,-2.0,2.0,-2.0,-2.0,-2.0,-2.0,-2.0,-2.0,1.9380039,-2.0,2.0,2.0,-2.0,2.0,-2.0,-2.0,-2.0,-2.0,-2.0
2025-06-09 09:20:36.019,0.007778444,-0.057457525,0.05082789,0.0635611,-0.025871258,-0.013729351,0.0,0.0,0.0,-0.0062240823,-0.11744476,0.2338288,-0.11639711,0.09564329,0.2549729,-0.1364781,0.0485681,-0.34509835,-0.0554654,-0.019457467,-0.34932962,-0.092348605,-0.014572646,0.09970036,-0.006060711,-0.009902557,0.034803625,-0.014171883,0.04832201,-0.026850142,0.05472619,0.05902997,0.04383252,0.034828193,-2.0,1.9380039,-2.0,2.0,2.0,-2.0,2.0,-2.0,-2.0,-2.0,-2.0,-2.0,-2.0,0.6652734,-2.0,2.0,2.0,-2.0,2.0,-2.0,-2.0,-2.0,-2.0,-2.0
2025-06-09 09:20:36.039,0.0008368699,0.007024357,-0.062715724,0.0595827,-0.023362663,-0.036349677,0.0,0.0,0.0,-0.0064215236,-0.108992435,0.25351018,-0.10402581,0.10334907,0.26675984,-0.13304068,0.051350206,-0.35443687,-0.045480113,-0.014688687,-0.34097537,-0.08134368,-0.074089825,-0.0504438,0.06759896,0.02461384,-0.0621613,0.07528478,-0.014819172,-0.04157882,0.018688584,-0.049315177,-0.07272428,-0.056389883,-2.0,0.6652734,-2.0,2.0,2.0,-2.0,2.0,-2.0,-2.0,-2.0,-2.0,-2.0,-2.0,2.0,-2.0,2.0,2.0,-2.0,2.0,-2.0,-2.0,-2.0,-2.0,-2.0
2025-06-09 09:20:36.059,-0.018862812,0.014681417,-0.04541644,-0.006844556,-0.057871137,-0.0003110107,0.0,0.0,0.0,-0.006305312,-0.11653024,0.25382447,-0.10318975,0.1046469,0.2754119,-0.13290274,0.048085257,-0.3440021,-0.049493045,-0.015442374,-0.3343084,-0.08593046,-0.029743284,-0.0079080565,-0.050860178,-0.06465873,-0.00873735,-0.07009461,0.05601318,0.05689053,-0.032138865,0.027001416,0.0058172233,0.038810577,-2.0,2.0,-2.0,2.0,2.0,-2.0,2.0,-2.0,-2.0,-2.0,-2.0,-2.0,-2.0,2.0,-2.0,2.0,2.0,-2.0,2.0,-2.0,-2.0,-2.0,-2.0,-2.0
2025-06-09 09:20:36.081,0.03119197,0.03147351,0.019451395,0.0029113574,-0.034055572,-0.008721166,0.0,0.0,0.0,-0.00622554,-0.11158758,0.26454228,-0.107828975,0.09774113,0.2742321,-0.1293081,0.03926168,-0.33390248,-0.05935012,-0.033416726,-0.339762,-0.07401068,-0.03753231,0.002032707,-0.051168267,-0.03221311,0.01639022,-0.042710304,0.018623294,-0.057954624,0.049497418,0.05410888,-0.05533996,-0.020574467,-2.0,2.0,-2.0,2.0,2.0,-2.0,2.0,-2.0,-2.0,-2.0,-2.0,-2.0,-2.0,1.4467286,-2.0,2.0,2.0,-2.0,2.0,-2.0,-2.0,-2.0,-2.0,-2.0
2025-06-09 09:20:36.100,0.022988988,-0.015403405,-0.026826356,0.015125634,-0.046846602,0.032035317,0.0,0.0,0.0,-0.0064414847,-0.11373988,0.26147115,-0.10535671,0.104225434,0.2678823,-0.11389568,0.044050965,-0.34401932,-0.055434357,-0.015579949,-0.3508967,-0.08527623,0.06240524,0.0016606741,0.07223817,-0.007090204,-0.041935414,0.07545093,0.07051298,-0.021164468,0.06967252,0.0001316383,0.056647237,-0.038387973,-2.0,1.4467286,-2.0,2.0,2.0,-2.0,2.0,-2.0,-2.0,-2.0,-2.0,-2.0,-2.0,1.4502633,-2.0,2.0,2.0,-2.0,2.0,-2.0,-2.0,-2.0,-2.0,-2.0
2025-06-09 09:20:36.120,-0.047267135,-0.040787518,-0.037064962,-0.00976527,-0.020719932,-0.014351069,0.0,0.0,0.0,-0.0066415337,-0.10866392,0.26607835,-0.11941698,0.107936315,0.27304745,-0.112724446,0.049550045,-0.33570638,-0.050271984,-0.025182853,-0.33794606,-0.066926144,0.034850642,0.034912236,-0.00801639,0.012780825,0.016603708,0.04046247,0.030149782,0.050572556,0.08170566,0.0006325903,0.07012382,0.031435605,-2.0,1.4502633,-2.0,2.0,2.0,-2.0,2.0,-2.0,-2.0,-2.0,-2.0,-2.0,-2.0,1.6640648,-2.0,2.0,2.0,-2.0,2.0,-2.0,-2.0,-2.0,-2.0,-2.0
2025-06-09 09:20:36.140,0.04548944,0.050731942,0.003323339,0.055586264,-0.032295264,-0.0020185162,0.0,0.0,0.0,-0.0067027393,-0.12702146,0.26991758,-0.11781651,0.106742725,0.2715601,-0.115775004,0.03586761,-0.33222988,-0.052375354,-0.022438135,-0.35098958,-0.08199064,0.003680722,-0.030972764,0.04718529,-0.014754066,0.017723178,0.038998522,0.043182023,-0.03286015,-0.013014723,-0.057129588,-0.07265078,0.023930624,-2.0,1.6640648,-2.0,2.0,2.0,-2.0,2.0,-2.0,-2.0,-2.0,-2.0,-2.0,-2.0,1.4118332,-2.0,2.0,2.0,-2.0,2.0,-2.0,-2.0,-2.0,-2.0,-2.0
2025-06-09 09:20:36.164,0.002420099,0.037234586,-0.010071161,0.05901916,-0.009616425,-0.048133563,0.0,0.0,0.0,-0.006747924,-0.10936836,0.2676296,-0.10197039,0.107939474,0.27334738,-0.111565,0.047511052,-0.33669668,-0.03705391,-0.029728658,-0.33978453,-0.067817435,-0.04159493,-0.029338963,-0.0111193685,-0.025993433,-0.040366035,0.07158136,0.072496966,-0.051834084,-0.054949805,0.019654665,0.06906462,-0.019207189,-2.0,1.4118332,-2.0,2.0,2.0,-2.0,2.0,-2.0,-2.0,-2.0,-2.0,-2.0,-2.0,1.7731968,-2.0,2.0,2.0,-2.0,2.0,-2.0,-2.0,-2.0,-2.0,-2.0
2025-06-09 09:20:36.180,-0.03352433,-0.003752262,-0.041373834,-0.011694465,-0.053847067,0.040731344,0.0,0.0,0.0,-0.0067330035,-0.11387422,0.26985517,-0.11450373,0.09466976,0.26821235,-0.11354598,0.049829848,-0.33586493,-0.049300443,-0.020380024,-0.34400108,-0.065217845,0.03326819,-0.04940133,0.05964714,-0.059025597,0.054576248,0.025535591,0.04903911,-0.041232873,0.024556208,-0.037603725,0.019975206,-0.039103866,-2.0,1.7731968,-2.0,2.0,2.0,-2.0,2.0,-2.0,-2.0,-2.0,-2.0,-2.0,-2.0,1.9255544,-2.0,2.0,2.0,-2.0,2.0,-2.0,-2.0,-2.0,-2.0,-2.0
2025-06-09 09:20:36.202,0.029604543,-0.022942722,-0.012433139,0.014363115,0.013676028,-0.034167457,0.0,0.0,0.0,-0.0067678206,-0.10865448,0.2836609,-0.110832535,0.10415949,0.28161708,-0.11669809,0.04508332,-0.34338063,-0.04310105,-0.029753597,-0.3374476,-0.064481296,-0.026907127,0.044107344,-0.07228393,-0.040986955,0.031683464,-0.006070786,-0.05639501,-0.062247425,0.001255384,-0.051517177,-0.05435646,0.038681157,-2.0,1.9255544,-2.0,2.0,2.0,-2.0,2.0,-2.0,-2.0,-2.0,-2.0,-2.0,-2.0,1.5450655,-2.0,2.0,2.0,-2.0,2.0,-2.0,-2.0,-2.0,-2.0,-2.0
2025-06-09 09:20:36.222,0.007085952,0.023521772,0.04846214,-0.021275848,0.006524299,-0.03851471,0.0,0.0,0.0,-0.0069628353,-0.12579209,0.27796108,-0.10907433,0.104151025,0.28470367,-0.12614688,0.03951797,-0.3316707,-0.038087912,-0.021780854,-0.34984985,-0.07625491,0.016810516,0.006661879,0.057132445,-0.0016433578,-0.06961037,0.0051343404,0.04314559,0.01603616,0.026937393,-0.015697023,0.030385109,0.072414495,-2.0,1.5450655,-2.0,2.0,2.0,-2.0,2.0,-2.0,-2.0,-2.0,-2.0,-2.0,-2.0,1.0095006,-2.0,2.0,2.0,-2.0,2.0,-2.0,-2.0,-2.0,-2.0,-2.0
2025-06-09 09:20:36.240,-0.024010729,0.052763343,-0.004214066,-0.018827382,0.016158933,0.048417836,0.0,0.0,0.0,-0.007129792,-0.10931495,0.2811778,-0.10656445,0.107006684,0.2862891,-0.12351805,0.041116472,-0.33626089,-0.03591159,-0.0320143,-0.33483002,-0.07667962,0.03202971,0.051313844,-0.057682063,-0.014835321,-0.053810563,-0.075727575,-0.044629257,-0.041843664,0.0033169987,-0.026589992,-0.056480654,-0.011931922,-2.0,1.0095006,-2.0,2.0,2.0,-2.0,2.0,-2.0,-2.0,-2.0,-2.0,-2.0,-2.0,1.6047398,-2.0,2.0,2.0,-2.0,2.0,-2.0,-2.0,-2.0,-2.0,-2.0
2025-06-09 09:20:36.261,0.04708758,-0.029158087,-0.0002110779,-0.021258675,0.0041630366,-0.038012147,0.0,0.0,0.0,-0.006997467,-0.117477864,0.2813487,-0.11179063,0.1114559,0.27150878,-0.11947808,0.047085267,-0.34801257,-0.024570987,-0.03188795,-0.3495388,-0.07690396,-0.051503193,0.04834125,-0.026500136,0.03749061,0.06680082,-0.07193519,0.02494912,-0.043390334,-0.021090487,0.031024843,-0.014568868,-0.04452659,-2.0,1.6047398,-2.0,2.0,2.0,-2.0,2.0,-2.0,-2.0,-2.0,-2.0,-2.0,-2.0,1.6626347,-2.0,2.0,2.0,-2.0,2.0,-2.0,-2.0,-2.0,-2.0,-2.0
2025-06-09 09:20:36.280,-0.010468935,0.00069191563,0.040850703,0.017650247,-0.027536048,-0.027996529,0.0,0.0,0.0,-0.006809695,-0.1108808,0.28500888,-0.10637123,0.11359087,0.2757813,-0.12763973,0.045696747,-0.34959155,-0.032870833,-0.016364949,-0.33878276,-0.07349258,-0.03892622,0.03270269,0.043443616,0.012552293,-0.01047953,-0.062264398,0.0057885936,0.024071978,-0.05719095,0.049770303,0.005619667,-0.067504466,-2.0,1.6626347,-2.0,2.0,2.0,-2.0,2.0,-2.0,-2.0,-2.0,-2.0,-2.0,-2.0,1.3435398,-2.0,2.0,2.0,-2.0,2.0,-2.0,-2.0,-2.0,-2.0,-2.0
2025-06-09 09:20:36.303,-0.020825928,0.05082267,0.006650186,0.057858173,-0.04864761,0.025431307,0.0,0.0,0.0,-0.006754853,-0.12068805,0.27919522,-0.11151754,0.11205056,0.28848347,-0.12791716,0.038312074,-0.34274864,-0.029906467,-0.022208821,-0.3370335,-0.08206933,0.026005905,-0.033278696,0.07754459,-0.038738806,-0.012078557,0.040780745,-0.055973485,0.007088666,0.057358775,-0.04508239,0.07169374,0.06234443,-2.0,1.3435398,-2.0,2.0,2.0,-2.0,2.0,-2.0,-2.0,-2.0,-2.0,-2.0,-2.0,1.3891164,-2.0,2.0,2.0,-2.0,2.0,-2.0,-2.0,-2.0,-2.0,-2.0
2025-06-09 09:20:36.323,-0.038964722,0.031726614,0.03753479,0.024043875,-0.042196084,-0.020765804,0.0,0.0,0.0,-0.0066952487,-0.11786977,0.2762109,-0.100842655,0.11216123,0.27422976,-0.11794543,0.04143945,-0.3397742,-0.037434243,-0.029113192,-0.3465078,-0.07092837,0.038862005,0.044709545,0.077910356,-0.05952058,-0.041996084,0.046186898,-0.051088672,-0.054723457,-0.05102143,0.07429194,-0.023408057,-0.06821043,-2.0,1.3891164,-2.0,2.0,2.0,-2.0,2.0,-2.0,-2.0,-2.0,-2.0,-2.0,-2.0,1.1465695,-2.0,2.0,2.0,-2.0,2.0,-2.0,-2.0,-2.0,-2.0,-2.0
2025-06-09 09:20:36.340,0.022123126,-0.014083568,0.013593333,0.012932408,-0.04260589,-0.03888605,0.0,0.0,0.0,-0.0065986803,-0.122182354,0.27242315,-0.09441068,0.1048603,0.27838108,-0.11340562,0.042748,-0.34098494,-0.030427815,-0.01884652,-0.3456083,-0.07208071,0.025215589,0.051165573,-0.030547924,0.036679007,-0.078939766,-0.075799465,0.04885133,-0.026374461,0.008566631,0.04992794,0.040683776,0.0679221,-2.0,1.1465695,-2.0,2.0,2.0,-2.0,2.0,-2.0,-2.0,-2.0,-2.0,-2.0,-2.0,1.4395357,-2.0,2.0,2.0,-2.0,2.0,-2.0,-2.0,-2.0,-2.0,-2.0
2025-06-09 09:20:36.364,0.049011678,0.02947283,-0.024910664,0.008579719,-0.013864935,-0.04834414,0.0,0.0,0.0,-0.006416326,-0.120214514,0.26632762,-0.10571516,0.11011087,0.28294286,-0.12601373,0.040039,-0.34547907,-0.026785294,-0.013294376,-0.33988327,-0.07639393,-0.026751919,0.045578703,-0.06144319,0.036222987,-0.012022812,0.023500659,-0.051647805,0.06271486,-0.03801904,-0.039153032,0.07212298,-0.078075476,-2.0,1.4395357,-2.0,2.0,2.0,-2.0,2.0,-2.0,-2.0,-2.0,-2.0,-2.0,-2.0,1.6524819,-2.0,2.0,2.0,-2.0,2.0,-2.0,-2.0,-2.0,-2.0,-2.0
2025-06-09 09:20:36.381,-0.0379541,-0.04370952,-0.027994838,0.046854597,0.02112427,0.024247302,0.0,0.0,0.0,-0.00626747,-0.121878386,0.2745328,-0.09378045,0.10351822,0.27183986,-0.119498864,0.050631713,-0.35416546,-0.04108073,-0.021758834,-0.35145113,-0.08607194,-0.059987415,-0.07546381,0.03676638,-0.017483585,0.047204915,0.028600113,0.015255117,0.019520402,-0.029817387,-0.035860095,0.034293097,-0.01718683,-2.0,1.6524819,-2.0,2.0,2.0,-2.0,2.0,-2.0,-2.0,-2.0,-2.0,-2.0,-2.0,1.8893231,-2.0,2.0,2.0,-2.0,2.0,-2.0,-2.0,-2.0,-2.0,-2.0
2025-06-09 09:20:36.401,0.012688993,-0.04549575,0.04402486,0.047805913,0.030931806,-0.032378875,0.0,0.0,0.0,-0.0062976247,-0.116458416,0.2608916,-0.09406955,0.10425648,0.2678621,-0.114523254,0.037258375,-0.3396902,-0.035999637,-0.010347659,-0.33567923,-0.090521105,-0.053629976,0.0073899343,-0.004574322,-0.015533423,0.04953227,0.049786597,-0.06288338,0.047968462,-0.06421355,0.0407031,0.0008229583,0.04839537,-2.0,1.8893231,-2.0,2.0,2.0,-2.0,2.0,-2.0,-2.0,-2.0,-2.0,-2.0,-2.0,1.0071375,-2.0,2.0,2.0,-2.0,2.0,-2.0,-2.0,-2.0,-2.0,-2.0
2025-06-09 09:20:36.421,0.005273728,0.041923326,0.024357246,0.056728844,0.0170256,0.016870322,0.0,0.0,0.0,-0.006567034,-0.11761152,0.2573323,-0.10830718,0.10962683,0.26528913,-0.12751296,0.052193362,-0.35390556,-0.041074406,-0.01585625,-0.34910405,-0.09151154,-0.033502847,-0.015786445,0.0051114913,0.005627151,-0.037473775,0.008234992,0.038361654,0.028225549,-0.073088184,-0.07356878,-0.025032425,-0.055963237,-2.0,1.0071375,-2.0,2.0,2.0,-2.0,2.0,-2.0,-2.0,-2.0,-2.0,-2.0,-2.0,1.2450732,-2.0,2.0,2.0,-2.0,2.0,-2.0,-2.0,-2.0,-2.0,-2.0
2025-06-09 09:20:36.441,-0.032344356,0.009774303,-0.028521739,0.0015133175,-0.069370046,-0.042571705,0.0,0.0,0.0,-0.0066747232,-0.116685666,0.27246082,-0.09915926,0.109646164,0.25864288,-0.1315734,0.04040693,-0.35507235,-0.045272216,-0.021892367,-0.35044298,-0.0910579,-0.017338835,0.057548597,-0.065850034,0.009303228,0.01752521,0.053376846,-0.049226273,0.032168277,0.025779337,-0.056900673,-0.06093516,0.04152798,-2.0,1.2450732,-2.0,2.0,2.0,-2.0,2.0,-2.0,-2.0,-2.0,-2.0,-2.0,-2.0,1.5765388,-2.0,2.0,2.0,-2.0,2.0,-2.0,-2.0,-2.0,-2.0,-2.0
2025-06-09 09:20:36.464,-0.039420404,0.04534097,0.0045786533,-0.009836932,-0.056274675,0.037735794,0.0,0.0,0.0,-0.0065858928,-0.11347556,0.25760344,-0.093733646,0.10018947,0.27185103,-0.12060146,0.05222762,-0.35761464,-0.04041169,-0.02506956,-0.3493404,-0.08446625,0.038716085,-0.061348904,-0.02583901,0.006728451,0.056094486,0.006825137,-0.019635798,0.07139828,0.00446454,-0.050392497,0.029372267,0.02605348,-2.0,1.5765388,-2.0,2.0,2.0,-2.0,2.0,-2.0,-2.0,-2.0,-2.0,-2.0,-2.0,1.5633013,-2.0,2.0,2.0,-2.0,2.0,-2.0,-2.0,-2.0,-2.0,-2.0
2025-06-09 09:20:36.481,0.030565927,0.009414725,0.025392408,0.064805634,0.005931745,0.019158103,0.0,0.0,0.0,-0.0065535447,-0.112921946,0.26070553,-0.099546336,0.10233512,0.26512516,-0.11589346,0.038021352,-0.3561143,-0.050196286,-0.013331697,-0.34575933,-0.09779356,0.012585565,0.016044308,0.004822773,-0.02289317,-0.0018858851,-0.0034213308,0.009827824,-0.050840333,-0.07704894,-0.07382052,-0.005828109,0.023468498,-2.0,1.5633013,-2.0,2.0,2.0,-2.0,2.0,-2.0,-2.0,-2.0,-2.0,-2.0,-2.0,1.1609204,-2.0,2.0,2.0,-2.0,2.0,-2.0,-2.0,-2.0,-2.0,-2.0
2025-06-09 09:20:36.501,0.020763222,0.010212401,0.029712187,0.0040665786,-0.06317612,-0.033548884,0.0,0.0,0.0,-0.0066253305,-0.11423033,0.25878,-0.09701904,0.106622495,0.2658273,-0.12134403,0.05185802,-0.361103,-0.053583503,-0.021431655,-0.3557713,-0.09884291,-0.017374601,-0.030398933,-0.04423888,0.054173768,0.041563135,0.018316247,-0.028985182,-0.03453865,-0.055969488,0.04945343,-0.00659759,-0.020004405,-2.0,1.1609204,-2.0,2.0,2.0,-2.0,2.0,-2.0,-2.0,-2.0,-2.0,-2.0,-2.0,1.3215775,-2.0,2.0,2.0,-2.0,2.0,-2.0,-2.0,-2.0,-2.0,-2.0
2025-06-09 09:20:36.521,-0.04830618,-0.025748778,0.022838539,-0.019299163,-0.0009782506,0.009931327,0.0,0.0,0.0,-0.00660833,-0.1229902,0.25513765,-0.09718301,0.11319376,0.25332513,-0.12541659,0.039195213,-0.35992345,-0.051034346,-0.02465245,-0.34196213,-0.09222404,0.07333542,-0.046407618,-0.0022226663,0.056031663,-0.02117899,0.04134783,0.039593898,-0.024668913,-0.064134866,-0.03151968,-0.050800707,0.029127162,-2.0,1.3215775,-2.0,2.0,2.0,-2.0,2.0,-2.0,-2.0,-2.0,-2.0,-2.0,-2.0,1.4199153,-2.0,2.0,2.0,-2.0,2.0,-2.0,-2.0,-2.0,-2.0,-2.0
2025-06-09 09:20:36.541,-0.013798013,-0.0071322056,-0.032576628,0.009215985,0.006386946,0.046190728,0.0,0.0,0.0,-0.0065144873,-0.1156534,0.2485259,-0.09173498,0.10804638,0.26168832,-0.12607457,0.041184817,-0.35721797,-0.034937844,-0.025166867,-0.35119435,-0.09882885,0.02594201,-0.05646833,0.03675994,0.042504415,0.014050682,0.026908137,-0.035802558,0.0436451,0.023183804,-0.011468824,0.0061382116,0.041675087,-2.0,1.4199153,-2.0,2.0,2.0,-2.0,2.0,-2.0,-2.0,-2.0,-2.0,-2.0,-2.0,1.8806221,-2.0,2.0,2.0,-2.0,2.0,-2.0,-2.0,-2.0,-2.0,-2.0
2025-06-09 09:20:36.564,0.026106283,0.03125921,0.005095102,0.045784816,-0.03202084,-0.009554388,0.0,0.0,0.0,-0.006450786,-0.11198213,0.25769943,-0.0919894,0.100881666,0.26875776,-0.12207463,0.041808322,-0.35330456,-0.038942996,-0.020457413,-0.34124616,-0.08842515,-0.036175273,-0.025761932,-0.07023579,-0.010447488,-0.051518526,-0.062258758,-0.047324937,0.035279673,-0.06798564,0.073467396,-0.05190125,0.013446441,-2.0,1.8806221,-2.0,2.0,2.0,-2.0,2.0,-2.0,-2.0,-2.0,-2.0,-2.0,-2.0,1.7462002,-2.0,2.0,2.0,-2.0,2.0,-2.0,-2.0,-2.0,-2.0,-2.0
2025-06-09 09:20:36.581,0.008504298,0.015355911,0.017127061,0.020387238,-0.043214,-0.042239033,0.0,0.0,0.0,-0.0065977587,-0.114824355,0.25525346,-0.09287894,0.108414896,0.25992736,-0.12484025,0.037609145,-0.35476995,-0.043120097,-0.028810885,-0.3388566,-0.08992041,0.005329689,0.04692686,-0.038176756,-0.020602569,0.0015874152,-0.025457881,-0.034693427,0.05144404,0.007613665,-0.0014788016,0.053222533,0.06235523,-2.0,1.7462002,-2.0,2.0,2.0,-2.0,2.0,-2.0,-2.0,-2.0,-2.0,-2.0,-2.0,1.3530202,-2.0,2.0,2.0,-2.0,2.0,-2.0,-2.0,-2.0,-2.0,-2.0
2025-06-09 09:20:36.601,0.036139358,0.011694612,0.053248595,0.002059353,0.011758018,0.04560814,0.0,0.0,0.0,-0.0068912534,-0.124071226,0.2661913,-0.09366956,0.10042774,0.2652185,-0.116968766,0.038810953,-0.34838796,-0.046873003,-0.022374017,-0.33779082,-0.092039116,-0.01450037,-0.033138286,0.07321195,0.064226724,0.04985644,0.037744842,-0.040557586,0.042042293,-0.040169682,-0.044093117,-0.04659221,0.06765823,-2.0,1.3530202,-2.0,2.0,2.0,-2.0,2.0,-2.0,-2.0,-2.0,-2.0,-2.0,-2.0,0.89189386,-2.0,2.0,2.0,-2.0,2.0,-2.0,-2.0,-2.0,-2.0,-2.0
2025-06-09 09:20:36.621,-0.013957948,-0.016420031,-0.016197255,0.04643137,-0.006362271,-0.0018338207,0.0,0.0,0.0,-0.007077886,-0.11310105,0.26339447,-0.09884087,0.111036964,0.25423732,-0.12249499,0.043085974,-0.3503956,-0.04519676,-0.029408146,-0.34130275,-0.09549991,-0.041724093,0.056155235,-0.057482205,-0.06018511,0.056396566,0.03052671,0.06945951,-0.050471433,0.04290131,0.02560922,0.021655384,0.0623083,-2.0,0.89189386,-2.0,2.0,2.0,-2.0,2.0,-2.0,-2.0,-2.0,-2.0,-2.0,-2.0,1.4700257,-2.0,2.0,2.0,-2.0,2.0,-2.0,-2.0,-2.0,-2.0,-2.0
2025-06-09 09:20:36.641,0.0069042514,0.01212172,-0.003666875,0.057912633,0.024695175,0.014897843,0.0,0.0,0.0,-0.006926884,-0.122300655,0.2585058,-0.09470795,0.097632065,0.26433328,-0.13099182,0.0438898,-0.3494927,-0.051823802,-0.027870793,-0.3506613,-0.089838155,-0.030093646,0.05548837,0.015865685,0.029510727,-0.002104957,0.004505249,-0.025397273,0.0442376,0.060503244,0.07430924,-0.056888226,-0.055631895,-2.0,1.4700257,-2.0,2.0,2.0,-2.0,2.0,-2.0,-2.0,-2.0,-2.0,-2.0,-2.0,1.2310817,-2.0,2.0,2.0,-2.0,2.0,-2.0,-2.0,-2.0,-2.0,-2.0
2025-06-09 09:20:36.664,0.012733318,-0.03888657,0.03019459,0.007637433,-0.05582755,-0.009674045,0.0,0.0,0.0,-0.006695772,-0.12211448,0.2604199,-0.10244422,0.10792961,0.2672264,-0.12620461,0.05032963,-0.35150406,-0.044793583,-0.01676131,-0.34374744,-0.10252167,0.06616151,-0.035022657,0.018445054,0.029925881,-0.06657771,-0.0055085355,-0.018240677,0.03816268,0.0049160235,-0.0026956738,0.037419856,0.040919907,-2.0,1.2310817,-2.0,2.0,2.0,-2.0,2.0,-2.0,-2.0,-2.0,-2.0,-2.0,-2.0,1.2391844,-2.0,2.0,2.0,-2.0,2.0,-2.0,-2.0,-2.0,-2.0,-2.0
2025-06-09 09:20:36.682,0.017109126,-0.018901037,-0.017915448,0.018690936,0.016072834,0.012494522,0.0,0.0,0.0,-0.006477226,-0.120342225,0.262885,-0.087283835,0.094887756,0.2698287,-0.12001888,0.04566148,-0.35523343,-0.0514477,-0.010210941,-0.34638494,-0.09140615,-0.07609258,-0.01987838,0.026752613,0.059660517,0.049368218,-0.00028193512,0.034509458,0.06626858,0.045917932,-0.059518874,-0.05646164,-0.047820386,-2.0,1.2391844,-2.0,2.0,2.0,-2.0,2.0,-2.0,-2.0,-2.0,-2.0,-2.0,-2.0,1.4854546,-2.0,2.0,2.0,-2.0,2.0,-2.0,-2.0,-2.0,-2.0,-2.0
2025-06-09 09:20:36.702,0.023368139,0.027677072,0.03619238,-0.012828049,-0.039020974,-0.039138336,0.0,0.0,0.0,-0.0062537445,-0.12331525,0.24895301,-0.10035205,0.113058105,0.26935384,-0.11001956,0.043698493,-0.35688856,-0.042694222,-0.01513267,-0.34877834,-0.10065758,-0.057039633,0.062380634,-0.06891273,-0.0051093614,-0.073482856,-0.06409102,-0.03158767,0.07452732,0.07390114,0.07027911,0.03787027,-0.02881959,-2.0,1.4854546,-2.0,2.0,2.0,-2.0,2.0,-2.0,-2.0,-2.0,-2.0,-2.0,-2.0,0.9807302,-2.0,2.0,2.0,-2.0,2.0,-2.0,-2.0,-2.0,-2.0,-2.0
2025-06-09 09:20:36.722,-0.02040611,0.0015777923,0.0019830477,0.02992532,-0.0029296288,0.043986533,0.0,0.0,0.0,-0.006147999,-0.13147412,0.25123885,-0.08759879,0.104330726,0.25902474,-0.12284122,0.054614186,-0.36086583,-0.042748924,-0.024327071,-0.341004,-0.10111025,0.018417979,-0.049752448,0.063963756,0.041345455,0.06548666,0.07326846,0.017334223,-0.024932852,0.027688337,-0.06612804,0.023898484,0.03595052,-2.0,0.9807302,-2.0,2.0,2.0,-2.0,2.0,-2.0,-2.0,-2.0,-2.0,-2.0,-2.0,1.2119107,-2.0,2.0,2.0,-2.0,2.0,-2.0,-2.0,-2.0,-2.0,-2.0
2025-06-09 09:20:36.742,0.027958056,0.009550016,-0.026730977,-0.004867727,-0.01538528,0.01787215,0.0,0.0,0.0,-0.005996028,-0.13425632,0.253131,-0.08679858,0.09860957,0.25582218,-0.11976623,0.0406384,-0.37262708,-0.046667363,-0.015230528,-0.3545688,-0.09485816,0.054717187,0.030400403,-0.015014855,-0.030825965,-0.0590266,0.012749582,-0.023559747,-0.0653886,0.012561823,0.03747478,0.061115775,0.045237735,-2.0,1.2119107,-2.0,2.0,2.0,-2.0,2.0,-2.0,-2.0,-2.0,-2.0,-2.0,-2.0,1.5561144,-2.0,2.0,2.0,-2.0,2.0,-2.0,-2.0,-2.0,-2.0,-2.0
2025-06-09 09:20:36.764,-0.0021222054,-0.020284597,-0.018286899,0.040688097,-0.008487575,0.041127678,0.0,0.0,0.0,-0.005810523,-0.1161798,0.256031,-0.0938918,0.101452254,0.25009954,-0.11706055,0.048024938,-0.36041498,-0.035025068,-0.018303132,-0.3572491,-0.09377838,0.0072320695,0.06461468,-0.045035034,-0.0039159576,-0.009015054,0.007868313,-0.06373721,0.052514628,0.052221503,0.07334034,0.04067024,-0.04371084,-2.0,1.5561144,-2.0,2.0,2.0,-2.0,2.0,-2.0,-2.0,-2.0,-2.0,-2.0,-2.0,1.3647398,-2.0,2.0,2.0,-2.0,2.0,-2.0,-2.0,-2.0,-2.0,-2.0
2025-06-09 09:20:36.782,-0.021478308,0.04580129,0.05355352,-0.012698379,-0.013820382,-0.01973321,0.0,0.0,0.0,-0.0058006854,-0.119752,0.25869244,-0.10301144,0.11423801,0.26589066,-0.11905851,0.05310772,-0.35388932,-0.03638021,-0.008537236,-0.3575355,-0.10430553,0.011835791,0.006933388,-0.055793617,0.044141687,0.07384887,-0.06248594,0.06768491,-0.04116055,-0.033948846,-0.0008810545,-0.0096664475,0.03171963,-2.0,1.3647398,-2.0,2.0,2.0,-2.0,2.0,-2.0,-2.0,-2.0,-2.0,-2.0,-2.0,1.0540882,-2.0,2.0,2.0,-2.0,2.0,-2.0,-2.0,-2.0,-2.0,-2.0
2025-06-09 09:20:36.802,-0.03515883,0.03915731,-0.039702494,0.0057503027,-0.049834464,-0.033900972,0.0,0.0,0.0,-0.005907143,-0.124901645,0.25561124,-0.08895484,0.11247138,0.24978189,-0.11309071,0.047580056,-0.36638027,-0.05511236,-0.020757522,-0.3441002,-0.09749375,0.0478372,0.0028070807,-0.017858505,-0.039459486,0.03354338,0.050429005,-0.069671206,0.05936326,0.072557785,-0.052330237,0.002402748,0.06041076,-2.0,1.0540882,-2.0,2.0,2.0,-2.0,2.0,-2.0,-2.0,-2.0,-2.0,-2.0,-2.0,1.6952219,-2.0,2.0,2.0,-2.0,2.0,-2.0,-2.0,-2.0,-2.0,-2.0
2025-06-09 09:20:36.822,-0.029128386,-0.004150463,0.023717985,-0.014298039,-0.0045411657,-0.032543514,0.0,0.0,0.0,-0.0059222966,-0.120586485,0.26188084,-0.08849623,0.106447145,0.26268712,-0.115696706,0.04722203,-0.35690102,-0.04963975,-0.013560331,-0.34781507,-0.10479591,-0.061641507,-0.013669528,0.061605833,-0.067669265,-0.04326111,0.04099727,0.03251318,0.06622979,0.056240328,0.06954649,0.07526879,0.035932228,-2.0,1.6952219,-2.0,2.0,2.0,-2.0,2.0,-2.0,-2.0,-2.0,-2.0,-2.0,-2.0,1.1516577,-2.0,2.0,2.0,-2.0,2.0,-2.0,-2.0,-2.0,-2.0,-2.0
2025-06-09 09:20:36.842,-0.031236785,0.0022860123,-0.016833693,0.02407918,0.023075849,-0.012618465,0.0,0.0,0.0,-0.0060441173,-0.12036616,0.2616536,-0.08790646,0.10844337,0.24794985,-0.12006644,0.042527955,-0.36491922,-0.049275953,-0.011884928,-0.35292438,-0.09713026,-0.02492169,0.031884387,0.03971615,0.059086658,-0.006587013,0.004796135,-0.0076053776,-0.03482922,-0.007811645,0.05445163,0.021918545,-0.022879872,-2.0,1.1516577,-2.0,2.0,2.0,-2.0,2.0,-2.0,-2.0,-2.0,-2.0,-2.0,-2.0,1.6102798,-2.0,2.0,2.0,-2.0,2.0,-2.0,-2.0,-2.0,-2.0,-2.0
2025-06-09 09:20:36.865,0.025061399,0.024455331,-0.00029163255,-0.011582092,-0.049232904,-0.015696617,0.0,0.0,0.0,-0.006148162,-0.12623146,0.246164,-0.09329954,0.10402409,0.25903824,-0.1276976,0.040450715,-0.35410565,-0.053048752,-0.023185346,-0.35100886,-0.09540761,-0.0041523096,0.060585953,0.044736102,-0.0565399,-0.062860094,0.038546912,0.026686374,-0.007487379,-0.047080245,-0.06630788,0.018695077,-0.02200504,-2.0,1.6102798,-2.0,2.0,2.0,-2.0,2.0,-2.0,-2.0,-2.0,-2.0,-2.0,-2.0,1.2609313,-2.0,2.0,2.0,-2.0,2.0,-2.0,-2.0,-2.0,-2.0,-2.0
2025-06-09 09:20:36.882,0.009536163,0.02598636,0.04357646,-0.014879303,-0.07186998,-0.04486972,0.0,0.0,0.0,-0.0062854327,-0.12795448,0.24795496,-0.087009184,0.11617574,0.25647599,-0.11724096,0.041461613,-0.3586241,-0.039812155,-0.018547898,-0.34225684,-0.09756985,-0.00014997958,-0.051363442,-0.009335555,0.05382022,0.052537266,0.0066045662,-0.01998023,0.01820441,-0.061380547,-0.04251859,-0.017883407,0.03957297,-2.0,1.2609313,-2.0,2.0,2.0,-2.0,2.0,-2.0,-2.0,-2.0,-2.0,-2.0,-2.0,1.3028221,-2.0,2.0,2.0,-2.0,2.0,-2.0,-2.0,-2.0,-2.0,-2.0
2025-06-09 09:20:36.903,-0.0103614805,-0.028225379,-0.0049635917,0.01891053,-0.0681222,-0.0269245,0.0,0.0,0.0,-0.006386533,-0.124500036,0.25825715,-0.09913328,0.10761797,0.2609181,-0.1252289,0.040601432,-0.354391,-0.049009345,-0.009276489,-0.34781307,-0.09956888,0.049735945,-0.010665718,0.055481054,-0.009283494,-0.04429097,0.0016128253,0.0021159365,0.036378346,0.048127476,0.0729932,0.019055907,-0.054311145,-2.0,1.3028221,-2.0,2.0,2.0,-2.0,2.0,-2.0,-2.0,-2.0,-2.0,-2.0,-2.0,1.5161521,-2.0,2.0,2.0,-2.0,2.0,-2.0,-2.0,-2.0,-2.0,-2.0
2025-06-09 09:20:36.923,-0.026062153,-0.0185619,-0.034614768,0.06766068,0.009592264,-0.032506682,0.0,0.0,0.0,-0.006397578,-0.119315796,0.25035432,-0.0920652,0.10241794,0.2602041,-0.13160363,0.044126336,-0.3550861,-0.037670925,-0.008891932,-0.35612765,-0.10293707,-0.053161275,0.04524309,0.06782463,-0.025934832,0.07608717,-0.016794728,-0.071778916,-0.053509362,-0.06426291,-0.024992172,0.02011157,0.06899303,-2.0,1.5161521,-2.0,2.0,2.0,-2.0,2.0,-2.0,-2.0,-2.0,-2.0,-2.0,-2.0,1.7783298,-2.0,2.0,2.0,-2.0,2.0,-2.0,-2.0,-2.0,-2.0,-2.0
2025-06-09 09:20:36.943,-0.030400194,-0.011075203,0.0009637358,0.0014867466,-0.011360687,0.029556423,0.0,0.0,0.0,-0.006431749,-0.11665766,0.2699405,-0.10366609,0.10710953,0.252434,-0.113720864,0.04226463,-0.34882888,-0.055036727,-0.026357211,-0.3513082,-0.10440522,0.07456498,0.035523534,-0.0063850298,0.060759123,-0.06301747,-0.019667486,-0.035496257,0.00050607853,-0.061761577,-0.062513635,-0.021791989,0.010328462,-2.0,1.7783298,-2.0,2.0,2.0,-2.0,2.0,-2.0,-2.0,-2.0,-2.0,-2.0,-2.0,1.3905494,-2.0,2.0,2.0,-2.0,2.0,-2.0,-2.0,-2.0,-2.0,-2.0
2025-06-09 09:20:36.964,-0.0021609403,0.027143454,0.05471556,-0.004044922,-0.039264422,0.024083009,0.0,0.0,0.0,-0.006609457,-0.11626927,0.26329795,-0.10545507,0.107607655,0.25563493,-0.12836352,0.050477166,-0.34570572,-0.03894611,-0.028796576,-0.34663427,-0.10336963,0.062693715,-0.0036883606,-0.04066686,0.07165329,0.0040892884,0.054881494,-0.056249734,0.0064403377,-0.023656828,0.021697385,-0.013650102,-0.025354877,-2.0,1.3905494,-2.0,2.0,2.0,-2.0,2.0,-2.0,-2.0,-2.0,-2.0,-2.0,-2.0,0.8646349,-2.0,2.0,2.0,-2.0,2.0,-2.0,-2.0,-2.0,-2.0,-2.0
2025-06-09 09:20:36.983,0.0033400445,0.0038126924,0.016527396,0.04471972,-0.010740432,-0.047159526,0.0,0.0,0.0,-0.0067640315,-0.123759225,0.2678098,-0.09142939,0.10500284,0.26321846,-0.115027025,0.041532427,-0.35938925,-0.043974664,-0.017384553,-0.3398246,-0.098148346,-0.060217246,-0.007854243,0.04148996,0.038226575,0.06407365,-0.06276874,0.0065144054,-0.048820086,-0.04119258,0.062745586,-0.0088051045,0.008383956,-2.0,0.8646349,-2.0,2.0,2.0,-2.0,2.0,-2.0,-2.0,-2.0,-2.0,-2.0,-2.0,1.4922225,-2.0,2.0,2.0,-2.0,2.0,-2.0,-2.0,-2.0,-2.0,-2.0
2025-06-09 09:20:37.003,0.034074225,-0.04352539,-0.005276897,0.032804366,-0.05222867,0.016032225,0.0,0.0,0.0,-0.006615376,-0.12794116,0.26059297,-0.09647867,0.10536858,0.26962438,-0.118686564,0.04801569,-0.35858876,-0.051443532,-0.020964349,-0.35894358,-0.085326664,-0.020668253,0.005752376,0.046473965,0.055141937,-0.02434733,0.02334043,0.007796901,0.032392558,-0.027598545,0.0030892987,0.068700746,-0.0081546465,-2.0,1.4922225,-2.0,2.0,2.0,-2.0,2.0,-2.0,-2.0,-2.0,-2.0,-2.0,-2.0,1.3982745,-2.0,2.0,2.0,-2.0,2.0,-2.0,-2.0,-2.0,-2.0,-2.0
2025-06-09 09:20:37.023,0.0115878,-0.026413832,-0.0047927815,0.026729066,0.0050491462,-0.033370145,0.0,0.0,0.0,-0.0064133336,-0.12781985,0.26814258,-0.09061888,0.113405704,0.25584042,-0.12608038,0.05170763,-0.36796236,-0.046854682,-0.022566825,-0.3470595,-0.08887556,-0.023829391,0.06997514,0.06941144,-0.021710929,0.04193793,-0.06920226,-0.056073654,-0.004926807,0.028141944,-0.05377198,-0.012990798,0.045315467,-2.0,1.3982745,-2.0,2.0,2.0,-2.0,2.0,-2.0,-2.0,-2.0,-2.0,-2.0,-2.0,1.4520326,-2.0,2.0,2.0,-2.0,2.0,-2.0,-2.0,-2.0,-2.0,-2.0
2025-06-09 09:20:37.043,0.017677436,-0.004154068,-0.045408428,0.06631628,-0.048923753,0.026306475,0.0,0.0,0.0,-0.006293895,-0.12825337,0.2533774,-0.103794456,0.10801257,0.27057555,-0.11030292,0.037754547,-0.35204986,-0.039012168,-0.019368602,-0.35458073,-0.08842725,0.0007981985,-0.03650468,-0.0434101,0.0073147616,-0.06476293,0.0181677,0.03351739,0.05599527,0.045054417,0.07147374,0.06784069,0.05547408,-2.0,1.4520326,-2.0,2.0,2.0,-2.0,2.0,-2.0,-2.0,-2.0,-2.0,-2.0,-2.0,1.8687103,-2.0,2.0,2.0,-2.0,2.0,-2.0,-2.0,-2.0,-2.0,-2.0
2025-06-09 09:20:37.064,0.012927407,-0.0018643693,0.059574537,0.0016161705,-0.053891327,0.008074008,0.0,0.0,0.0,-0.0062459363,-0.13246685,0.26035982,-0.09457959,0.106289625,0.2556091,-0.11042897,0.043756258,-0.34877822,-0.03876906,-0.025886187,-0.34189808,-0.10045039,0.07327311,-0.054392856,-0.06860747,0.062049694,-0.049104728,-0.059122384,0.033547405,0.03998259,0.033767905,-0.03004928,-0.040534575,0.05956109,-2.0,1.8687103,-2.0,2.0,2.0,-2.0,2.0,-2.0,-2.0,-2.0,-2.0,-2.0,-2.0,0.99100363,-2.0,2.0,2.0,-2.0,2.0,-2.0,-2.0,-2.0,-2.0,-2.0
2025-06-09 09:20:37.083,-0.030301776,0.043436524,0.019067988,0.013321196,0.0062753228,0.03424185,0.0,0.0,0.0,-0.0064077834,-0.123751946,0.27205032,-0.09511681,0.110600814,0.2625611,-0.12838094,0.034024335,-0.34755167,-0.052320603,-0.01537316,-0.34613574,-0.09907327,-0.07049622,0.061255444,-0.042313334,-0.021970108,-0.061821777,0.016025722,-0.036087807,-0.03126044,0.07153049,0.00694605,-0.02566733,-0.06852763,-2.0,0.99100363,-2.0,2.0,2.0,-2.0,2.0,-2.0,-2.0,-2.0,-2.0,-2.0,-2.0,1.0189703,-2.0,2.0,2.0,-2.0,2.0,-2.0,-2.0,-2.0,-2.0,-2.0
2025-06-09 09:20:37.103,-0.0066896044,0.020059858,0.023596328,0.049057376,-0.048345715,0.013996843,0.0,0.0,0.0,-0.006438256,-0.13208935,0.2680222,-0.097425185,0.1063069,0.25617924,-0.12929037,0.035535347,-0.3560632,-0.033910856,-0.016627247,-0.3411151,-0.08737832,-0.07475412,-0.061040815,-0.0056692376,-0.02690445,0.032255247,0.0025421935,-0.008272408,-0.056266982,0.04796417,-0.036295857,-0.042006597,-0.012078625,-2.0,1.0189703,-2.0,2.0,2.0,-2.0,2.0,-2.0,-2.0,-2.0,-2.0,-2.0,-2.0,1.3520601,-2.0,2.0,2.0,-2.0,2.0,-2.0,-2.0,-2.0,-2.0,-2.0
2025-06-09 09:20:37.123,0.016599694,0.022660485,-0.031429566,0.038349163,0.014549352,-0.009976044,0.0,0.0,0.0,-0.006225475,-0.11672347,0.25433177,-0.09732259,0.09750595,0.2684824,-0.11128711,0.046232305,-0.35311535,-0.0464856,-0.027001949,-0.35683653,-0.08138053,-0.030363413,-0.054107435,0.024590967,-0.047081,0.04726207,-0.06487428,-0.019272491,0.055752113,-0.041113846,0.03926292,-0.032574326,-0.0633431,-2.0,1.3520601,-2.0,2.0,2.0,-2.0,2.0,-2.0,-2.0,-2.0,-2.0,-2.0,-2.0,2.0,-2.0,2.0,2.0,-2.0,2.0,-2.0,-2.0,-2.0,-2.0,-2.0
2025-06-09 09:20:37.143,-0.014868481,-0.020254726,-0.03603842,0.07009183,-0.007889344,0.03460296,0.0,0.0,0.0,-0.006014251,-0.116679035,0.27850702,-0.104415074,0.11087337,0.25854355,-0.1207908,0.053041983,-0.35895258,-0.039297387,-0.00965138,-0.34890342,-0.090546586,0.051340804,0.088031024,-0.041790787,-0.02818353,-0.048363987,-0.031107467,-0.05781604,0.0501575,0.049793854,0.031691264,-0.031325687,-0.03732301,-2.0,2.0,-2.0,2.0,2.0,-2.0,2.0,-2.0,-2.0,-2.0,-2.0,-2.0,-2.0,1.4170283,-2.0,2.0,2.0,-2.0,2.0,-2.0,-2.0,-2.0,-2.0,-2.0
2025-06-09 09:20:37.164,0.0044599804,0.02661908,0.012543972,0.0025095134,-0.065574765,-0.0036338924,0.0,0.0,0.0,-0.0061368467,-0.12843639,0.28090364,-0.09650318,0.11080477,0.26194045,-0.121471025,0.043935694,-0.36633268,-0.046671603,-0.015192769,-0.3391934,-0.08652021,-0.072936796,-0.016423535,-0.024614653,0.037725717,0.001351793,-0.03863136,-0.008373649,-0.03249825,0.04832342,0.06973058,0.014874858,-0.017854786,-2.0,1.4170283,-2.0,2.0,2.0,-2.0,2.0,-2.0,-2.0,-2.0,-2.0,-2.0,-2.0,1.4715341,-2.0,2.0,2.0,-2.0,2.0,-2.0,-2.0,-2.0,-2.0,-2.0
2025-06-09 09:20:37.222,0.013292936,0.016194297,0.057822123,0.0016812702,-0.049198665,-0.04278836,0.0,0.0,0.0,-0.0063650953,-0.13156927,0.28123233,-0.10285153,0.11154336,0.25495937,-0.1284298,0.04843861,-0.35259363,-0.040480506,-0.023729874,-0.3485073,-0.0896121,0.05105,-0.03626035,0.067364216,-0.03458808,-0.06991345,0.008045097,0.014748254,-0.06432019,-0.02590238,0.012868808,-0.054411534,0.048950102,-2.0,1.4715341,-2.0,2.0,2.0,-2.0,2.0,-2.0,-2.0,-2.0,-2.0,-2.0,-2.0,1.1072223,-2.0,2.0,2.0,-2.0,2.0,-2.0,-2.0,-2.0,-2.0,-2.0
2025-06-09 09:20:37.239,-0.034483142,-0.027791806,0.029248834,0.040499244,-0.06219122,-0.04057076,0.0,0.0,0.0,-0.0065468024,-0.12014428,0.28019306,-0.0938855,0.10722389,0.27243137,-0.12340421,0.0482591,-0.36558488,-0.045980323,-0.02640982,-0.3432798,-0.09911553,-0.055340666,0.028919717,-0.059038714,-0.018824566,0.0047513936,0.030406509,-0.005581738,-0.01151697,-0.0026160784,-0.03887011,-0.0514836,-0.032861076,-2.0,1.1072223,-2.0,2.0,2.0,-2.0,2.0,-2.0,-2.0,-2.0,-2.0,-2.0,-2.0,1.0099431,-2.0,2.0,2.0,-2.0,2.0,-2.0,-2.0,-2.0,-2.0,-2.0
2025-06-09 09:20:37.258,0.02829399,-0.015384192,-0.023186231,0.035463393,-0.010464095,-0.015237789,0.0,0.0,0.0,-0.0065559703,-0.13122056,0.2635469,-0.08957529,0.10386319,0.25251186,-0.12377981,0.03496689,-0.36980322,-0.044950116,-0.020188844,-0.3444692,-0.09908977,-0.00958429,0.021090252,0.061326165,0.06498953,-0.04267935,-0.026034351,0.04979164,0.020789122,0.06485656,-0.0038418332,0.05861581,-0.0010744339,-2.0,1.0099431,-2.0,2.0,2.0,-2.0,2.0,-2.0,-2.0,-2.0,-2.0,-2.0,-2.0,1.5749077,-2.0,2.0,2.0,-2.0,2.0,-2.0,-2.0,-2.0,-2.0,-2.0
2025-06-09 09:20:37.281,0.0005945474,-0.024185674,0.0016338234,0.06341563,0.024506545,-0.03892013,0.0,0.0,0.0,-0.006350396,-0.11740664,0.2656513,-0.10013724,0.105179586,0.25622973,-0.12895115,0.04366452,-0.35688305,-0.0355988,-0.01158035,-0.34146374,-0.09168606,0.05179978,0.059803925,0.03591478,0.0037808996,-0.014995515,-0.04493367,0.05260471,0.006968936,-0.07556941,0.040813666,0.07530337,-0.04703183,-2.0,1.5749077,-2.0,2.0,2.0,-2.0,2.0,-2.0,-2.0,-2.0,-2.0,-2.0,-2.0,1.5307157,-2.0,2.0,2.0,-2.0,2.0,-2.0,-2.0,-2.0,-2.0,-2.0
2025-06-09 09:20:37.299,0.015520104,0.02417938,-0.025503142,-0.0268365,-0.0441307,-0.031050403,0.0,0.0,0.0,-0.0062258258,-0.11858001,0.26178706,-0.10373361,0.109066196,0.2704818,-0.112538636,0.04910711,-0.36577857,-0.049761392,-0.008898196,-0.3447604,-0.10172885,0.0255686,0.05938575,-0.027191566,-0.05519967,-0.035627164,0.06796746,0.034952458,0.032052673,-0.011464104,-0.02348206,-0.0037374143,-0.04719855,-2.0,1.5307157,-2.0,2.0,2.0,-2.0,2.0,-2.0,-2.0,-2.0,-2.0,-2.0,-2.0,1.3094747,-2.0,2.0,2.0,-2.0,2.0,-2.0,-2.0,-2.0,-2.0,-2.0
2025-06-09 09:20:37.319,0.030999625,0.023226388,-0.037925426,0.009020714,-0.009058469,-0.0035127176,0.0,0.0,0.0,-0.006269827,-0.11846322,0.2572345,-0.096812434,0.105960205,0.26332426,-0.11384608,0.05378084,-0.36811665,-0.040385988,-0.011501622,-0.34701943,-0.08878236,-0.015213332,-0.06719051,-0.014408298,0.043975696,-0.061255384,-0.016086709,-0.05407278,-0.024588665,-0.045921136,-0.049152724,-0.017533349,-0.07472858,-2.0,1.3094747,-2.0,2.0,2.0,-2.0,2.0,-2.0,-2.0,-2.0,-2.0,-2.0,-2.0,2.0,-2.0,2.0,2.0,-2.0,2.0,-2.0,-2.0,-2.0,-2.0,-2.0
2025-06-09 09:20:37.339,0.051590163,0.0016386732,-0.03039004,0.056847584,-0.049457375,0.019999672,0.0,0.0,0.0,-0.0063299434,-0.13063595,0.27394903,-0.09819955,0.11338333,0.26885062,-0.12618141,0.049341183,-0.35384366,-0.045667805,-0.021499248,-0.33966726,-0.10399805,-0.048674796,0.017351007,0.038821924,-0.06625068,0.047278054,-0.07257007,-0.017489992,-0.011459468,-0.012116387,0.00010203639,0.051052112,-0.024832837,-2.0,2.0,-2.0,2.0,2.0,-2.0,2.0,-2.0,-2.0,-2.0,-2.0,-2.0,-2.0,1.7666242,-2.0,2.0,2.0,-2.0,2.0,-2.0,-2.0,-2.0,-2.0,-2.0
2025-06-09 09:20:37.359,-0.024854857,-0.015938586,-0.016975991,0.04213683,-0.0058212876,-0.03504843,0.0,0.0,0.0,-0.00659716,-0.12654513,0.28269738,-0.093272164,0.101121515,0.2612524,-0.118433036,0.05145152,-0.3634465,-0.045446917,-0.010012032,-0.35271916,-0.09847792,-0.01991353,-0.034241404,0.039826777,0.02147162,-0.017742366,-0.0693871,-0.07365802,0.011132588,-0.038899682,-0.035545535,-0.06975669,-0.008148178,-2.0,1.7666242,-2.0,2.0,2.0,-2.0,2.0,-2.0,-2.0,-2.0,-2.0,-2.0,-2.0,1.7821978,-2.0,2.0,2.0,-2.0,2.0,-2.0,-2.0,-2.0,-2.0,-2.0
2025-06-09 09:20:37.381,-0.04066368,-0.003967773,-0.0031462095,0.06386194,0.007853861,0.019170802,0.0,0.0,0.0,-0.00700106,-0.120217234,0.2756568,-0.09663876,0.10604628,0.26391733,-0.11656104,0.046197195,-0.35366836,-0.04264112,-0.014190937,-0.33928466,-0.08877437,-0.052252017,-0.03876973,-0.078607626,0.050542064,-0.03325375,-0.012083131,-0.05956868,0.0023512237,0.037759844,0.01762267,0.06198825,0.033443134,-2.0,1.7821978,-2.0,2.0,2.0,-2.0,2.0,-2.0,-2.0,-2.0,-2.0,-2.0,-2.0,1.5342164,-2.0,2.0,2.0,-2.0,2.0,-2.0,-2.0,-2.0,-2.0,-2.0
2025-06-09 09:20:37.399,-0.020145644,-0.01760218,-0.037476327,0.0055053257,-0.0018555663,-0.024668984,0.0,0.0,0.0,-0.00740824,-0.11214424,0.2781311,-0.104035005,0.10879414,0.26297754,-0.12365311,0.050271884,-0.35909197,-0.04751027,-0.026923144,-0.33825126,-0.09132892,0.04503259,0.00092510384,-0.013534379,-0.06484954,-0.06389088,0.071704835,-0.07127072,0.044457152,-0.059720054,0.0006418654,-0.047839426,0.07578483,-2.0,1.5342164,-2.0,2.0,2.0,-2.0,2.0,-2.0,-2.0,-2.0,-2.0,-2.0,-2.0,1.825566,-2.0,2.0,2.0,-2.0,2.0,-2.0,-2.0,-2.0,-2.0,-2.0
2025-06-09 09:20:37.419,-0.03803275,0.0020636083,0.037123993,0.03623024,0.017462116,-0.021641858,0.0,0.0,0.0,-0.0076760165,-0.11762956,0.28904578,-0.09810298,0.11442564,0.27567014,-0.11952597,0.031891502,-0.3378329,-0.044833463,-0.018237922,-0.34151584,-0.08520737,-0.039388776,0.041542824,0.070252426,0.0032501754,0.02191211,-0.051380437,-0.027831797,0.037352215,0.0541068,-0.053065185,0.06000162,0.036964815,-2.0,1.825566,-2.0,2.0,2.0,-2.0,2.0,-2.0,-2.0,-2.0,-2.0,-2.0,-2.0,1.111036,-2.0,2.0,2.0,-2.0,2.0,-2.0,-2.0,-2.0,-2.0,-2.0
2025-06-09 09:20:37.439,-0.02384101,0.044346843,-0.0583995,0.0019878657,-0.06862332,0.029728444,0.0,0.0,0.0,-0.007874052,-0.11402567,0.2857291,-0.102925576,0.11934516,0.2719082,-0.11357157,0.047835067,-0.35175967,-0.039971314,-0.032896087,-0.3563852,-0.094763085,-0.07522676,-0.06699181,0.007361018,-0.069000095,-0.024411125,-0.03172986,-0.052912068,0.041724883,0.04136775,0.014233471,-0.02687476,-0.007207114,-2.0,1.111036,-2.0,2.0,2.0,-2.0,2.0,-2.0,-2.0,-2.0,-2.0,-2.0,-2.0,2.0,-2.0,2.0,2.0,-2.0,2.0,-2.0,-2.0,-2.0,-2.0,-2.0
2025-06-09 09:20:37.459,-0.0064351424,-0.05248178,0.0061563076,-0.013182333,-0.029570462,-0.017501518,0.0,0.0,0.0,-0.007795334,-0.12388538,0.30022472,-0.0990057,0.11001204,0.27566552,-0.117886804,0.03410359,-0.34054115,-0.047905155,-0.018268984,-0.35641888,-0.095372126,-0.02668193,0.07946167,-0.005211187,-0.029816696,0.075546324,0.042021703,0.027222352,-0.039546125,0.007700693,0.060878646,-0.010626933,-0.06314197,-2.0,2.0,-2.0,2.0,2.0,-2.0,2.0,-2.0,-2.0,-2.0,-2.0,-2.0,-2.0,1.1009905,-2.0,2.0,2.0,-2.0,2.0,-2.0,-2.0,-2.0,-2.0,-2.0
2025-06-09 09:20:37.481,-0.057488535,0.051080875,-0.047158014,0.017169895,-0.06361426,-0.041871168,0.0,0.0,0.0,-0.007734758,-0.1200653,0.30132714,-0.10400816,0.120038696,0.26631564,-0.12397954,0.042509846,-0.35105875,-0.029512053,-0.016799457,-0.3546415,-0.09583866,0.021666793,0.0056447424,-0.016406583,-0.07144959,0.028471107,-0.060753435,-0.039097518,-0.06530889,-0.03935681,0.0011569146,-0.05912013,0.05372192,-2.0,1.1009905,-2.0,2.0,2.0,-2.0,2.0,-2.0,-2.0,-2.0,-2.0,-2.0,-2.0,2.0,-2.0,2.0,2.0,-2.0,2.0,-2.0,-2.0,-2.0,-2.0,-2.0
2025-06-09 09:20:37.499,0.032110963,-0.02895265,0.034651477,-0.01782066,-0.06686845,0.016087128,0.0,0.0,0.0,-0.00753057,-0.12376418,0.29500228,-0.10281386,0.10709566,0.27910742,-0.11784044,0.044914037,-0.35472712,-0.029208668,-0.026213279,-0.3521982,-0.07805308,-0.04621132,0.0555027,-0.025498208,0.03112838,0.057000414,0.05496281,-0.048287805,-0.0032857163,0.04314142,-0.062524825,0.06704603,-0.025507705,-2.0,2.0,-2.0,2.0,2.0,-2.0,2.0,-2.0,-2.0,-2.0,-2.0,-2.0,-2.0,0.8012246,-2.0,2.0,2.0,-2.0,2.0,-2.0,-2.0,-2.0,-2.0,-2.0
2025-06-09 09:20:37.519,-0.008758243,0.061518583,-0.047194745,0.066664286,-0.050848916,0.020740828,0.0,0.0,0.0,-0.0074254023,-0.12984063,0.2854273,-0.09672808,0.11561898,0.26859152,-0.110394314,0.04931054,-0.3572977,-0.035323393,-0.012092076,-0.3577862,-0.08631826,0.023039604,-0.03398901,-0.047730446,-0.02543501,0.05866506,-0.010626886,-0.02489047,-0.08604805,-0.06695038,-0.06141467,0.0006942877,0.075766265,-2.0,0.8012246,-2.0,2.0,2.0,-2.0,2.0,-2.0,-2.0,-2.0,-2.0,-2.0,-2.0,2.0,-2.0,2.0,2.0,-2.0,2.0,-2.0,-2.0,-2.0,-2.0,-2.0
2025-06-09 09:20:37.539,-0.02428721,0.016216625,-0.040204976,0.0702989,0.025373086,-0.022867955,0.0,0.0,0.0,-0.007128506,-0.13160887,0.29006532,-0.09976751,0.10617803,0.27573603,-0.11836071,0.04689373,-0.35168734,-0.041231208,-0.0131344665,-0.34023494,-0.0858585,-0.029994883,-0.018744718,-0.047641996,0.021848729,0.0680331,-0.033524696,-0.026742695,0.025969224,-0.011853809,0.04820936,0.06850651,0.038356487,-2.0,2.0,-2.0,2.0,2.0,-2.0,2.0,-2.0,-2.0,-2.0,-2.0,-2.0,-2.0,1.9125986,-2.0,2.0,2.0,-2.0,2.0,-2.0,-2.0,-2.0,-2.0,-2.0
2025-06-09 09:20:37.560,-0.018286953,0.019737722,-0.010349534,0.046063498,-0.064882465,0.04249056,0.0,0.0,0.0,-0.0069689173,-0.12877554,0.29614952,-0.10071297,0.10395297,0.27347374,-0.1146654,0.044052348,-0.3471769,-0.02806731,-0.017218582,-0.34125352,-0.094877854,-0.057192147,-0.03384763,0.050759003,0.020829314,0.038917627,-0.05940827,-0.05377024,-0.065077335,0.014757117,0.06314111,0.041429363,-0.058888644,-2.0,1.9125986,-2.0,2.0,2.0,-2.0,2.0,-2.0,-2.0,-2.0,-2.0,-2.0,-2.0,1.674524,-2.0,2.0,2.0,-2.0,2.0,-2.0,-2.0,-2.0,-2.0,-2.0
2025-06-09 09:20:37.581,-0.02803841,-0.04701304,-0.013924363,0.040899575,0.028808089,0.02039583,0.0,0.0,0.0,-0.007115815,-0.12575856,0.30937183,-0.10279016,0.10457591,0.26788244,-0.1237538,0.047670566,-0.3462363,-0.026894255,-0.019604957,-0.3546362,-0.08262506,-0.009446292,-0.048565723,0.01722787,-0.0034382655,-0.020665914,-0.057053268,0.038936183,-0.004077338,0.019680366,0.04553949,0.022899672,-0.038751476,-2.0,1.674524,-2.0,2.0,2.0,-2.0,2.0,-2.0,-2.0,-2.0,-2.0,-2.0,-2.0,1.8672341,-2.0,2.0,2.0,-2.0,2.0,-2.0,-2.0,-2.0,-2.0,-2.0
2025-06-09 09:20:37.600,0.030654259,-0.024775047,0.034116056,-0.004061489,-0.010196954,0.0046570254,0.0,0.0,0.0,-0.00734467,-0.115618594,0.29416054,-0.11371579,0.108394854,0.26539424,-0.12222743,0.038458794,-0.3569183,-0.033752397,-0.02633613,-0.33606637,-0.08302098,0.049619928,0.051540438,-0.06585834,0.0054191,-0.021104136,-0.046938922,-0.07358161,0.018200746,-0.05636176,-0.059528295,0.034488432,0.023881216,-2.0,1.8672341,-2.0,2.0,2.0,-2.0,2.0,-2.0,-2.0,-2.0,-2.0,-2.0,-2.0,1.1811757,-2.0,2.0,2.0,-2.0,2.0,-2.0,-2.0,-2.0,-2.0,-2.0
2025-06-09 09:20:37.620,0.014546083,0.0071877195,-0.025266014,0.053498887,0.007948645,-0.040577967,0.0,0.0,0.0,-0.0076246792,-0.12882183,0.29456916,-0.110851854,0.118594185,0.27846387,-0.12601836,0.03487893,-0.34865415,-0.033272833,-0.026776351,-0.343916,-0.096729524,0.020844175,0.036854457,3.8072994e-05,0.010503784,-0.033859715,-0.04630812,-0.034111906,-0.01534573,0.057071622,-0.03171579,0.059716057,0.0023288003,-2.0,1.1811757,-2.0,2.0,2.0,-2.0,2.0,-2.0,-2.0,-2.0,-2.0,-2.0,-2.0,1.6894066,-2.0,2.0,2.0,-2.0,2.0,-2.0,-2.0,-2.0,-2.0,-2.0
2025-06-09 09:20:37.640,-0.0007480344,0.049023677,-0.016265016,0.0697792,-0.05039245,0.0007344902,0.0,0.0,0.0,-0.007684527,-0.12377539,0.295063,-0.097787745,0.11851727,0.27712888,-0.12593113,0.032305125,-0.34076777,-0.042933103,-0.025760597,-0.34930688,-0.09678685,0.003745208,0.06493197,0.041355092,-0.005280489,0.0017952218,-0.06861018,-0.056749433,0.045393813,0.04870382,-0.029117042,-0.032632872,-0.07024381,-2.0,1.6894066,-2.0,2.0,2.0,-2.0,2.0,-2.0,-2.0,-2.0,-2.0,-2.0,-2.0,1.5292865,-2.0,2.0,2.0,-2.0,2.0,-2.0,-2.0,-2.0,-2.0,-2.0
2025-06-09 09:20:37.660,0.025464574,0.010970553,-0.024822785,0.012269991,-0.05180491,-0.04715062,0.0,0.0,0.0,-0.0076508727,-0.12986845,0.29450476,-0.10340293,0.1046671,0.27933985,-0.12836815,0.046218865,-0.35209972,-0.035563484,-0.018938469,-0.3534487,-0.09205323,-0.0038190319,0.0066066217,-0.043059908,0.06620322,-0.029583782,0.03548519,-0.00527345,-0.004132466,0.0272533,0.073381625,0.044158734,-0.039528243,-2.0,1.5292865,-2.0,2.0,2.0,-2.0,2.0,-2.0,-2.0,-2.0,-2.0,-2.0,-2.0,1.5797426,-2.0,2.0,2.0,-2.0,2.0,-2.0,-2.0,-2.0,-2.0,-2.0
2025-06-09 09:20:37.681,0.042046282,0.045798212,0.014414151,-0.00069075846,0.025690312,-0.01860622,0.0,0.0,0.0,-0.007607018,-0.12518744,0.29660907,-0.09114121,0.10429856,0.2638182,-0.12109798,0.04006261,-0.35710317,-0.028417744,-0.027577164,-0.3493694,-0.08542981,-0.038834892,-0.07616258,-0.008564727,0.061973687,-0.035429828,0.069189124,-0.07214101,0.048461456,-0.050553534,0.054657355,-0.0028089837,0.044968992,-2.0,1.5797426,-2.0,2.0,2.0,-2.0,2.0,-2.0,-2.0,-2.0,-2.0,-2.0,-2.0,1.583451,-2.0,2.0,2.0,-2.0,2.0,-2.0,-2.0,-2.0,-2.0,-2.0
2025-06-09 09:20:37.700,-0.041094627,0.016788792,0.044742756,0.0027296,-0.047121774,-0.017727388,0.0,0.0,0.0,-0.007554214,-0.12550148,0.29706717,-0.1000751,0.11921914,0.2612204,-0.116622664,0.043361936,-0.35511732,-0.03612455,-0.013855451,-0.34506184,-0.08800046,0.01723397,0.062177744,-0.05951857,-0.012022007,-0.07538997,0.035255916,-0.0037807936,-0.062937036,0.06742037,-0.015169099,-0.025449162,-0.02597178,-2.0,1.583451,-2.0,2.0,2.0,-2.0,2.0,-2.0,-2.0,-2.0,-2.0,-2.0,-2.0,0.707569,-2.0,2.0,2.0,-2.0,2.0,-2.0,-2.0,-2.0,-2.0,-2.0
2025-06-09 09:20:37.720,-0.06420565,-0.00549639,-0.052041236,0.03601863,-0.024911312,0.048929863,0.0,0.0,0.0,-0.007516359,-0.12432839,0.2860848,-0.10059156,0.11593803,0.27499184,-0.12055014,0.03756114,-0.3601673,-0.024666116,-0.015267022,-0.34960952,-0.09699721,0.052271377,0.024952358,-0.058880378,-0.06671228,0.022567999,0.0690074,0.013985027,0.029269144,0.027568195,0.024025965,0.02375643,0.04574158,-2.0,0.707569,-2.0,2.0,2.0,-2.0,2.0,-2.0,-2.0,-2.0,-2.0,-2.0,-2.0,1.6963267,-2.0,2.0,2.0,-2.0,2.0,-2.0,-2.0,-2.0,-2.0,-2.0
2025-06-09 09:20:37.740,0.007193054,0.036874153,-0.007943961,-0.028264312,-0.02244329,-0.011226515,0.0,0.0,0.0,-0.0071713184,-0.128678,0.27804145,-0.08739036,0.1064218,0.26481247,-0.1102526,0.042941686,-0.3670519,-0.042578388,-0.0184299,-0.3490929,-0.090614386,-0.015245052,0.01906516,-0.020332199,0.03349358,-0.040169295,-0.013263206,0.033082325,0.01508495,-0.018252118,-0.03636403,-0.029130122,-0.001435397,-2.0,1.6963267,-2.0,2.0,2.0,-2.0,2.0,-2.0,-2.0,-2.0,-2.0,-2.0,-2.0,1.4588242,-2.0,2.0,2.0,-2.0,2.0,-2.0,-2.0,-2.0,-2.0,-2.0
2025-06-09 09:20:37.763,0.03985907,-0.003887664,-0.018750828,-0.0076671164,0.0015849292,-0.04098236,0.0,0.0,0.0,-0.0068751564,-0.13444003,0.2909958,-0.102916546,0.112905465,0.25449824,-0.12371273,0.041983332,-0.36279547,-0.033277314,-0.008778942,-0.34315982,-0.10070207,0.038159125,-0.07708873,0.06334748,0.01116673,0.0335281,-0.0015247443,0.018713783,0.036336042,-0.06868371,-0.04585353,-0.053290054,-0.010296584,-2.0,1.4588242,-2.0,2.0,2.0,-2.0,2.0,-2.0,-2.0,-2.0,-2.0,-2.0,-2.0,1.9524968,-2.0,2.0,2.0,-2.0,2.0,-2.0,-2.0,-2.0,-2.0,-2.0
2025-06-09 09:20:37.782,-0.022999058,0.0073448056,-0.03674849,-0.020795498,-0.0048760483,0.048467074,0.0,0.0,0.0,-0.0067572286,-0.13335095,0.27797192,-0.08921979,0.10976926,0.2621906,-0.1107441,0.051827904,-0.35458598,-0.0298895,-0.009161863,-0.3567933,-0.09325502,-0.050202616,-0.011671305,0.053102974,-0.020804018,-0.0029680037,0.023559052,0.03716623,-0.049677294,0.049920432,0.008132851,0.029200042,-0.0600788,-2.0,1.9524968,-2.0,2.0,2.0,-2.0,2.0,-2.0,-2.0,-2.0,-2.0,-2.0,-2.0,1.6038196,-2.0,2.0,2.0,-2.0,2.0,-2.0,-2.0,-2.0,-2.0,-2.0
2025-06-09 09:20:37.801,-0.001708278,0.0028851489,-0.008829169,0.06306964,0.021226477,-0.03798725,0.0,0.0,0.0,-0.006903569,-0.12995136,0.2986938,-0.09926168,0.11377542,0.2706945,-0.12546292,0.037467986,-0.3595471,-0.034298588,-0.011107224,-0.34961656,-0.093517736,-0.012225502,-0.055563588,0.056264326,-0.0008182349,0.061897013,0.04617042,0.025637316,0.05502226,-0.074379504,-0.049463797,0.057738718,0.0013316832,-2.0,1.6038196,-2.0,2.0,2.0,-2.0,2.0,-2.0,-2.0,-2.0,-2.0,-2.0,-2.0,1.7297378,-2.0,2.0,2.0,-2.0,2.0,-2.0,-2.0,-2.0,-2.0,-2.0
2025-06-09 09:20:37.820,-0.031227842,0.032761578,0.0037919441,0.039172616,0.019466955,-0.0018442229,0.0,0.0,0.0,-0.007157648,-0.12503314,0.2825704,-0.10603403,0.12132024,0.2677131,-0.12089724,0.035347193,-0.36108148,-0.041797828,-0.015293507,-0.3543704,-0.098071985,-0.013134724,0.00335635,0.062492326,-0.055485304,-0.052883063,0.0008110319,-0.016444925,-0.050615866,0.04853835,0.06459325,-0.047445986,-0.05419376,-2.0,1.7297378,-2.0,2.0,2.0,-2.0,2.0,-2.0,-2.0,-2.0,-2.0,-2.0,-2.0,1.3918334,-2.0,2.0,2.0,-2.0,2.0,-2.0,-2.0,-2.0,-2.0,-2.0
2025-06-09 09:20:37.840,-0.013569349,-0.028732788,0.012995646,0.0011490862,-0.020050619,-0.0066035977,0.0,0.0,0.0,-0.0074289283,-0.13360536,0.2845176,-0.10105982,0.10928937,0.2722999,-0.121324055,0.041889064,-0.36075345,-0.0334277,-0.014975401,-0.34982103,-0.10503097,0.032442328,-0.021584153,-0.02180458,0.05792949,-0.030372268,-0.059604514,-0.049632303,-0.0751669,0.046647444,-0.058498535,-0.070096776,-0.0067423903,-2.0,1.3918334,-2.0,2.0,2.0,-2.0,2.0,-2.0,-2.0,-2.0,-2.0,-2.0,-2.0,1.305338,-2.0,2.0,2.0,-2.0,2.0,-2.0,-2.0,-2.0,-2.0,-2.0
2025-06-09 09:20:37.864,-0.025768952,0.029155917,0.024662169,-0.02039315,-0.012974426,0.012593605,0.0,0.0,0.0,-0.0075748703,-0.12691148,0.28747994,-0.0967477,0.10355162,0.26303035,-0.12692872,0.039522856,-0.3621429,-0.04158413,-0.024218295,-0.35461333,-0.092254646,-0.010189757,-0.05643943,0.056565247,0.035367064,0.03861742,-0.028330907,-0.0070496537,0.04132766,0.04900525,-0.03010733,0.058044482,0.015314027,-2.0,1.305338,-2.0,2.0,2.0,-2.0,2.0,-2.0,-2.0,-2.0,-2.0,-2.0,-2.0,1.4250274,-2.0,2.0,2.0,-2.0,2.0,-2.0,-2.0,-2.0,-2.0,-2.0
2025-06-09 09:20:37.881,-0.041562784,0.020922178,-0.049619436,0.033198595,-0.0703549,0.005182991,0.0,0.0,0.0,-0.0075226333,-0.12901373,0.2818946,-0.0959853,0.10726985,0.26777118,-0.11687719,0.032596886,-0.3586503,-0.033900384,-0.019983947,-0.35178998,-0.09810892,-0.050240226,-0.02694213,-0.070585765,-0.028158475,-0.0025076277,0.0064506717,0.00056049874,-0.009034251,0.027928796,0.0018164924,-0.0030790062,0.04640651,-2.0,1.4250274,-2.0,2.0,2.0,-2.0,2.0,-2.0,-2.0,-2.0,-2.0,-2.0,-2.0,1.9823304,-2.0,2.0,2.0,-2.0,2.0,-2.0,-2.0,-2.0,-2.0,-2.0
2025-06-09 09:20:37.900,0.021877697,-0.03868357,-0.032258175,-0.0039874115,-0.06748598,-0.0182072,0.0,0.0,0.0,-0.007379162,-0.13284573,0.28954208,-0.09132128,0.1218813,0.2614594,-0.1211114,0.049934,-0.3598575,-0.03783471,-0.021225471,-0.35054663,-0.08959933,-0.052755535,-0.06009414,0.014837639,0.072741255,-0.05047579,0.0026767566,0.043382876,-0.05514957,-0.06913177,0.03873687,-0.016547695,0.02801009,-2.0,1.9823304,-2.0,2.0,2.0,-2.0,2.0,-2.0,-2.0,-2.0,-2.0,-2.0,-2.0,2.0,-2.0,2.0,2.0,-2.0,2.0,-2.0,-2.0,-2.0,-2.0,-2.0
2025-06-09 09:20:37.921,0.052176412,-0.018486286,0.04080149,0.01888438,-0.0024344865,0.048743363,0.0,0.0,0.0,-0.0074264132,-0.13591817,0.29974958,-0.10466047,0.11801001,0.25837675,-0.118010916,0.04803531,-0.34848735,-0.05150892,-0.009984744,-0.35777453,-0.089903705,-0.022482337,0.033076152,0.058118463,0.0069558755,-0.043926794,0.021992156,-0.024385834,0.022929816,-0.0029343255,-0.048961744,-0.0258594,0.019757684,-2.0,2.0,-2.0,2.0,2.0,-2.0,2.0,-2.0,-2.0,-2.0,-2.0,-2.0,-2.0,0.77069056,-2.0,2.0,2.0,-2.0,2.0,-2.0,-2.0,-2.0,-2.0,-2.0
2025-06-09 09:20:37.941,-0.038791582,0.026369978,-0.032057557,0.030164931,-0.030705726,-0.013545251,0.0,0.0,0.0,-0.007697808,-0.11744965,0.29847538,-0.09154582,0.11447503,0.2655771,-0.11776035,0.034787938,-0.35865194,-0.040117413,-0.029370394,-0.3483128,-0.093082614,0.013561133,0.0147791905,-0.0063218484,0.016613113,0.041041587,0.07116906,0.042997885,0.04672902,0.022884037,-0.046337895,-0.059487924,-0.05116433,-2.0,0.77069056,-2.0,2.0,2.0,-2.0,2.0,-2.0,-2.0,-2.0,-2.0,-2.0,-2.0,1.6378005,-2.0,2.0,2.0,-2.0,2.0,-2.0,-2.0,-2.0,-2.0,-2.0
2025-06-09 09:20:37.964,-0.0325849,-0.01833019,-0.04194575,-0.01431604,-0.057498965,0.025763666,0.0,0.0,0.0,-0.00762368,-0.123391554,0.29615083,-0.09152873,0.110426374,0.2518015,-0.12951767,0.0406265,-0.35514474,-0.047538247,-0.012711971,-0.36057204,-0.09634791,0.0023126272,-0.014726628,0.043260325,-0.005964725,0.041484646,0.04274575,-0.04439311,-0.058677383,-0.008714967,0.0010232771,-0.04836542,0.04282703,-2.0,1.6378005,-2.0,2.0,2.0,-2.0,2.0,-2.0,-2.0,-2.0,-2.0,-2.0,-2.0,1.9102465,-2.0,2.0,2.0,-2.0,2.0,-2.0,-2.0,-2.0,-2.0,-2.0
2025-06-09 09:20:37.981,-0.007795792,0.0057259975,0.055132512,0.04474915,-0.03404556,-0.037953127,0.0,0.0,0.0,-0.00742905,-0.12075414,0.30191496,-0.10911072,0.1112195,0.2601246,-0.12880307,0.033135932,-0.3583013,-0.030831907,-0.013824929,-0.3428004,-0.100148655,0.03847813,-0.038687408,-0.024577806,-0.021665875,-0.00883213,-0.06359379,-0.036403738,-0.04866222,0.03166441,0.071142666,0.007879317,-0.015474565,-2.0,1.9102465,-2.0,2.0,2.0,-2.0,2.0,-2.0,-2.0,-2.0,-2.0,-2.0,-2.0,1.2332699,-2.0,2.0,2.0,-2.0,2.0,-2.0,-2.0,-2.0,-2.0,-2.0
2025-06-09 09:20:38.001,-0.03652795,-0.042127114,-0.014072593,-0.02174994,0.026631748,0.020208813,0.0,0.0,0.0,-0.007455946,-0.13169174,0.29869214,-0.10788221,0.12276391,0.2637217,-0.1131539,0.04013392,-0.3505185,-0.029559042,-0.011744542,-0.35027876,-0.08937628,0.060459737,-0.063174255,0.028840631,-0.021391168,0.049090628,0.05796416,-0.03673931,-0.037676554,-0.0271424,-0.028762203,0.006078326,-0.031698905,-2.0,1.2332699,-2.0,2.0,2.0,-2.0,2.0,-2.0,-2.0,-2.0,-2.0,-2.0,-2.0,1.7581265,-2.0,2.0,2.0,-2.0,2.0,-2.0,-2.0,-2.0,-2.0,-2.0
2025-06-09 09:20:38.021,0.01267722,0.021311488,0.028427798,0.03662326,-0.056677934,0.04235227,0.0,0.0,0.0,-0.0074262386,-0.119102366,0.3018665,-0.094820626,0.12142473,0.25564927,-0.1179093,0.045574583,-0.35767004,-0.046236657,-0.018990502,-0.34551707,-0.09505592,0.021335812,-0.029195013,-0.0042358832,0.019319512,-0.031707343,0.006172767,-0.006275525,-0.016370393,0.007488976,0.0085947765,-0.047131486,-0.040796936,-2.0,1.7581265,-2.0,2.0,2.0,-2.0,2.0,-2.0,-2.0,-2.0,-2.0,-2.0,-2.0,1.250568,-2.0,2.0,2.0,-2.0,2.0,-2.0,-2.0,-2.0,-2.0,-2.0
2025-06-09 09:20:38.041,0.015677407,0.011258468,-0.053060938,0.010475899,0.00022725594,0.008666311,0.0,0.0,0.0,-0.00742539,-0.13693713,0.29927126,-0.09763559,0.11405102,0.265942,-0.113022864,0.042204015,-0.3578283,-0.047823057,-0.014179818,-0.34373945,-0.10528053,0.055563293,0.047908153,-0.014351586,-0.020991692,0.033388708,-0.042285163,-0.07204597,-0.013099813,0.06671371,0.06494698,-0.044638637,-0.07457604,-2.0,1.250568,-2.0,2.0,2.0,-2.0,2.0,-2.0,-2.0,-2.0,-2.0,-2.0,-2.0,1.7610893,-2.0,2.0,2.0,-2.0,2.0,-2.0,-2.0,-2.0,-2.0,-2.0
2025-06-09 09:20:38.064,-0.011248422,0.0017486674,0.047265004,0.023574807,-0.071954995,-0.024947885,0.0,0.0,0.0,-0.007359109,-0.11946299,0.29883623,-0.09375366,0.114813395,0.26040176,-0.12398987,0.045556545,-0.36031756,-0.03653408,-0.020689901,-0.34558,-0.0883514,-0.015305651,-0.027818082,-0.011020527,-0.010971319,-0.065607294,-0.074370824,-0.037653398,-0.0019331991,0.048663385,0.024487609,0.01809639,-0.0031432388,-2.0,1.7610893,-2.0,2.0,2.0,-2.0,2.0,-2.0,-2.0,-2.0,-2.0,-2.0,-2.0,1.2973619,-2.0,2.0,2.0,-2.0,2.0,-2.0,-2.0,-2.0,-2.0,-2.0
2025-06-09 09:20:38.081,0.030507468,0.013827056,-0.0255142,0.032317,0.017174862,-0.009465614,0.0,0.0,0.0,-0.007350539,-0.12992436,0.28852743,-0.09329174,0.11385512,0.27115524,-0.118487835,0.052291602,-0.35675383,-0.046561275,-0.024046598,-0.3506996,-0.10033506,0.0075470493,-0.07550288,-0.04740281,0.043354828,-0.03769527,-0.071929336,-0.048668634,0.010249743,-0.07114483,-0.05120717,0.057371527,0.047168627,-2.0,1.2973619,-2.0,2.0,2.0,-2.0,2.0,-2.0,-2.0,-2.0,-2.0,-2.0,-2.0,2.0,-2.0,2.0,2.0,-2.0,2.0,-2.0,-2.0,-2.0,-2.0,-2.0
2025-06-09 09:20:38.101,-0.02262822,0.00565387,-0.02976449,-0.012653639,-0.03646582,0.035260335,0.0,0.0,0.0,-0.0073104827,-0.13214107,0.30753702,-0.08910116,0.10776636,0.25520965,-0.1125512,0.04844074,-0.36104828,-0.042679343,-0.010587798,-0.35764778,-0.09171044,-0.028700516,0.0833509,-0.00998105,0.035483032,0.031297915,0.0112206,-0.035358716,0.034433097,-0.008886596,-0.0243318,0.009562277,-0.048967063,-2.0,2.0,-2.0,2.0,2.0,-2.0,2.0,-2.0,-2.0,-2.0,-2.0,-2.0,-2.0,1.3474112,-2.0,2.0,2.0,-2.0,2.0,-2.0,-2.0,-2.0,-2.0,-2.0
2025-06-09 09:20:38.182,-0.0051610284,0.026748974,0.0083402805,0.0005445664,0.021597343,0.023434892,0.0,0.0,0.0,-0.0074249506,-0.1259027,0.3018798,-0.0936499,0.10995386,0.2695958,-0.11281994,0.046986725,-0.34834313,-0.04208165,-0.01544753,-0.35406703,-0.10266121,0.009307482,0.06365266,0.0075217593,0.02277503,0.060630467,-0.039435625,0.04876568,0.023555653,-0.013526119,-0.017511446,-0.0011527243,0.053416196,-2.0,1.3474112,-2.0,2.0,2.0,-2.0,2.0,-2.0,-2.0,-2.0,-2.0,-2.0,-2.0,1.2201369,-2.0,2.0,2.0,-2.0,2.0,-2.0,-2.0,-2.0,-2.0,-2.0
2025-06-09 09:20:38.202,0.030828374,0.03835504,0.031951696,0.05930239,0.019281872,-0.010776561,0.0,0.0,0.0,-0.0075124786,-0.120227545,0.29340744,-0.090543926,0.11476647,0.26987705,-0.11491715,0.033199187,-0.3647525,-0.033704754,-0.01539268,-0.34285885,-0.09004034,-0.014904372,0.057024535,-0.032431472,-0.014086346,-0.064460024,0.056337684,0.07514474,0.026197884,0.07619885,-0.072239466,0.0013736171,0.054971594,-2.0,1.2201369,-2.0,2.0,2.0,-2.0,2.0,-2.0,-2.0,-2.0,-2.0,-2.0,-2.0,0.75980914,-2.0,2.0,2.0,-2.0,2.0,-2.0,-2.0,-2.0,-2.0,-2.0
2025-06-09 09:20:38.222,-0.010647067,0.015434984,0.010189052,0.062331613,-0.043217193,-0.005936482,0.0,0.0,0.0,-0.007403552,-0.13783778,0.2955227,-0.08688138,0.11177442,0.26094803,-0.112867944,0.039865095,-0.3588386,-0.028234776,-0.023859132,-0.35224944,-0.10142401,0.027345026,-0.052204207,-0.023569504,0.018653113,0.05007561,0.058732484,-0.02016153,-0.00068044267,0.0032247233,-0.0023686383,-0.06958532,-0.068584196,-2.0,0.75980914,-2.0,2.0,2.0,-2.0,2.0,-2.0,-2.0,-2.0,-2.0,-2.0,-2.0,1.3141642,-2.0,2.0,2.0,-2.0,2.0,-2.0,-2.0,-2.0,-2.0,-2.0
2025-06-09 09:20:38.336,0.018068755,0.032183174,0.029279288,0.017114867,-0.03851066,0.010268147,0.0,0.0,0.0,-0.006990997,-0.12937132,0.28799847,-0.08688469,0.10295155,0.2556576,-0.116258,0.0439509,-0.36961034,-0.029856784,-0.010373545,-0.34585994,-0.09348597,0.04015777,-0.06340561,0.029667197,-0.06268098,0.03102144,-0.049942616,0.05530673,0.00428898,-0.062461067,0.03017395,0.074405625,-0.0016863294,-2.0,1.3141642,-2.0,2.0,2.0,-2.0,2.0,-2.0,-2.0,-2.0,-2.0,-2.0,-2.0,1.5479176,-2.0,2.0,2.0,-2.0,2.0,-2.0,-2.0,-2.0,-2.0,-2.0
2025-06-09 09:20:38.354,-0.00018176601,-0.039053213,0.015201364,0.028653767,-0.04686951,0.019440213,0.0,0.0,0.0,-0.0065595713,-0.13802709,0.28596276,-0.09709834,0.10560484,0.26686293,-0.114388235,0.043505296,-0.37852478,-0.02694992,-0.024142407,-0.35955417,-0.099020004,0.058306348,0.038008377,-0.010126041,-0.056099962,0.0015308174,-0.058427073,-0.052037317,0.006126517,-0.024305036,-0.016817443,-0.056248188,-0.06552109,-2.0,1.5479176,-2.0,2.0,2.0,-2.0,2.0,-2.0,-2.0,-2.0,-2.0,-2.0,-2.0,1.1909705,-2.0,2.0,2.0,-2.0,2.0,-2.0,-2.0,-2.0,-2.0,-2.0
2025-06-09 09:20:38.373,0.038520943,0.05645308,0.012409313,0.015425497,-0.05828468,-0.046994314,0.0,0.0,0.0,-0.006376712,-0.13064696,0.27364168,-0.096406475,0.10454371,0.2552461,-0.10933868,0.038421564,-0.38018408,-0.038932465,-0.008314028,-0.3558808,-0.09588867,0.011803329,-0.06014707,0.0119606815,-0.034431644,-0.04627872,0.0659459,0.0032068677,0.06838798,0.008879025,-0.054928325,-0.055069525,-0.004966076,-2.0,1.1909705,-2.0,2.0,2.0,-2.0,2.0,-2.0,-2.0,-2.0,-2.0,-2.0,-2.0,1.2971958,-2.0,2.0,2.0,-2.0,2.0,-2.0,-2.0,-2.0,-2.0,-2.0
2025-06-09 09:20:38.396,-0.008839176,-0.042741038,0.023534266,0.04205963,0.022289997,-0.032253306,0.0,0.0,0.0,-0.006292694,-0.12324133,0.28549257,-0.07919583,0.10313208,0.25587443,-0.10995095,0.04459905,-0.36283365,-0.033807877,-0.011588829,-0.34841862,-0.09933782,-0.042784814,0.045453995,0.005643549,-0.05249717,0.034774218,-0.00972049,0.020068998,0.030692134,-0.03691275,0.014602256,0.028905617,0.014894586,-2.0,1.2971958,-2.0,2.0,2.0,-2.0,2.0,-2.0,-2.0,-2.0,-2.0,-2.0,-2.0,1.1813885,-2.0,2.0,2.0,-2.0,2.0,-2.0,-2.0,-2.0,-2.0,-2.0
2025-06-09 09:20:38.414,-0.015440701,0.013379365,-0.0033368575,0.0067409575,0.007585755,-0.04856,0.0,0.0,0.0,-0.0062531084,-0.13501896,0.27247027,-0.08756643,0.116563566,0.2443258,-0.11996733,0.050056443,-0.3808462,-0.043181233,-0.0043975953,-0.35312676,-0.118052065,-0.0032057948,-0.049829874,-0.020490061,-0.06427402,0.060616024,-0.054860227,-0.017647525,0.04678999,0.04716842,0.07147156,0.021151952,0.028274043,-2.0,1.1813885,-2.0,2.0,2.0,-2.0,2.0,-2.0,-2.0,-2.0,-2.0,-2.0,-2.0,1.7060889,-2.0,2.0,2.0,-2.0,2.0,-2.0,-2.0,-2.0,-2.0,-2.0
2025-06-09 09:20:38.434,0.007871766,0.033048067,-0.0053302594,-0.000347223,0.0051125376,-0.0064476044,0.0,0.0,0.0,-0.0062252167,-0.123627745,0.26970026,-0.0952319,0.10717529,0.2568964,-0.11399527,0.043931402,-0.365198,-0.04436627,-0.017037641,-0.34788674,-0.119710706,-0.020316413,0.07110963,-0.06823247,0.0593475,-0.07507355,-0.0034015763,-0.0047066878,0.029320363,-0.036478892,0.034456853,-0.02951797,-0.04617862,-2.0,1.7060889,-2.0,2.0,2.0,-2.0,2.0,-2.0,-2.0,-2.0,-2.0,-2.0,-2.0,1.2236252,-2.0,2.0,2.0,-2.0,2.0,-2.0,-2.0,-2.0,-2.0,-2.0
2025-06-09 09:20:38.454,0.028898705,0.016966334,0.051091474,0.0108865835,-0.03967148,-0.0373347,0.0,0.0,0.0,-0.0063579674,-0.1257809,0.2652955,-0.09741431,0.10635187,0.25065142,-0.1207624,0.040619515,-0.3671231,-0.035387747,-0.024952468,-0.35313702,-0.1160077,-0.003074702,-0.016742852,-0.033572167,-0.06407238,-0.0020731874,0.027645819,-0.0029945392,-0.009214043,0.06542343,0.033900842,-0.054463513,-0.071348354,-2.0,1.2236252,-2.0,2.0,2.0,-2.0,2.0,-2.0,-2.0,-2.0,-2.0,-2.0,-2.0,0.8755944,-2.0,2.0,2.0,-2.0,2.0,-2.0,-2.0,-2.0,-2.0,-2.0
2025-06-09 09:20:38.474,-0.001955817,0.02673932,-0.01924797,0.044719037,-0.05160328,-0.0074647344,0.0,0.0,0.0,-0.0064980476,-0.13334231,0.2632677,-0.083500944,0.105992064,0.24700944,-0.11770577,0.040813796,-0.3835481,-0.04667046,-0.012691571,-0.35550636,-0.119638935,0.023262769,-0.04021994,-0.024908451,-0.043166187,-0.03584806,-0.059984118,0.0086158225,0.025204267,-0.06808473,0.008546272,-0.049705084,-0.0066343285,-2.0,0.8755944,-2.0,2.0,2.0,-2.0,2.0,-2.0,-2.0,-2.0,-2.0,-2.0,-2.0,1.822958,-2.0,2.0,2.0,-2.0,2.0,-2.0,-2.0,-2.0,-2.0,-2.0
2025-06-09 09:20:38.497,-0.019241579,-0.02645199,0.025618281,-0.023755638,-0.07169362,-0.011620143,0.0,0.0,0.0,-0.006407736,-0.13524693,0.26167366,-0.08569219,0.11346558,0.24524398,-0.12626038,0.047604423,-0.37118536,-0.050378125,-0.015410789,-0.34532228,-0.118227646,-0.05264885,0.031577732,0.026737139,0.051733937,-0.014852797,-0.06749453,-0.04276189,-0.030769749,0.06406434,-0.0029780199,0.041630663,0.053315736,-2.0,1.822958,-2.0,2.0,2.0,-2.0,2.0,-2.0,-2.0,-2.0,-2.0,-2.0,-2.0,1.0875072,-2.0,2.0,2.0,-2.0,2.0,-2.0,-2.0,-2.0,-2.0,-2.0
2025-06-09 09:20:38.514,0.044039104,0.013021435,-0.021978585,0.024902916,-0.008483443,0.045854196,0.0,0.0,0.0,-0.006443841,-0.1285788,0.27549794,-0.091412395,0.12183034,0.24328636,-0.12501042,0.05046796,-0.37186548,-0.05723019,-0.012474613,-0.34996894,-0.11962634,-0.049710117,-0.06110685,0.017935941,-0.01139512,-0.01852893,0.0036421386,-0.044797685,0.028248439,0.03618389,0.0670617,0.04431533,-0.01835666,-2.0,1.0875072,-2.0,2.0,2.0,-2.0,2.0,-2.0,-2.0,-2.0,-2.0,-2.0,-2.0,1.794437,-2.0,2.0,2.0,-2.0,2.0,-2.0,-2.0,-2.0,-2.0,-2.0
2025-06-09 09:20:38.534,-0.007626936,0.027720476,-0.021895695,0.03285107,0.0033958866,0.013430939,0.0,0.0,0.0,-0.006471108,-0.12713355,0.2640725,-0.081412196,0.12253478,0.24568877,-0.12131049,0.038371634,-0.36842176,-0.046249274,-0.023387233,-0.3569845,-0.11598788,0.008684269,-0.017114995,-0.048746053,-0.0044351327,-0.0207059,-0.00089988334,0.04172239,-0.038658533,-0.060640406,-0.014435684,0.06566018,-0.041289475,-2.0,1.794437,-2.0,2.0,2.0,-2.0,2.0,-2.0,-2.0,-2.0,-2.0,-2.0,-2.0,1.8442225,-2.0,2.0,2.0,-2.0,2.0,-2.0,-2.0,-2.0,-2.0,-2.0
2025-06-09 09:20:38.554,-0.020726046,-0.032935042,0.015899891,0.052759353,-0.018149067,-0.049918022,0.0,0.0,0.0,-0.006606563,-0.120410725,0.2810718,-0.101064466,0.115243375,0.24715644,-0.12764898,0.049319144,-0.36059996,-0.05287742,-0.009355997,-0.3483621,-0.12420582,0.07876402,0.08177228,0.04860876,-0.056160823,-0.037106134,0.056527555,0.057557043,-0.02001281,0.0522152,0.019355556,0.0040295487,-0.04336484,-2.0,1.8442225,-2.0,2.0,2.0,-2.0,2.0,-2.0,-2.0,-2.0,-2.0,-2.0,-2.0,0.7963388,-2.0,2.0,2.0,-2.0,2.0,-2.0,-2.0,-2.0,-2.0,-2.0
2025-06-09 09:20:38.574,-0.03649541,-0.03708912,-0.025428455,0.051090397,-0.029264348,-0.020427702,0.0,0.0,0.0,-0.0069422214,-0.1217599,0.27074268,-0.082716025,0.10856721,0.25255617,-0.11510569,0.048435632,-0.3715729,-0.05261513,-0.024837619,-0.34558567,-0.12230886,0.012231478,-0.045627937,-0.027601449,-0.05457558,0.010385817,-0.06617357,-0.062377974,-0.059260845,0.031597972,-0.027344685,0.0052150837,0.072757445,-2.0,0.7963388,-2.0,2.0,2.0,-2.0,2.0,-2.0,-2.0,-2.0,-2.0,-2.0,-2.0,1.8614233,-2.0,2.0,2.0,-2.0,2.0,-2.0,-2.0,-2.0,-2.0,-2.0
2025-06-09 09:20:38.597,-0.01740479,0.016380025,-0.026284276,0.02836492,-0.0016372257,-0.013091671,0.0,0.0,0.0,-0.006987723,-0.1318954,0.27606004,-0.08810179,0.105026074,0.25768638,-0.12338941,0.04946111,-0.36803183,-0.05221804,-0.019258915,-0.35876223,-0.10699024,-0.0016641216,-0.009490454,0.058898967,0.025767133,-0.060866788,0.014199151,-0.026467886,0.055884976,0.001852968,0.059308454,-0.004600426,-0.0064280583,-2.0,1.8614233,-2.0,2.0,2.0,-2.0,2.0,-2.0,-2.0,-2.0,-2.0,-2.0,-2.0,1.5886197,-2.0,2.0,2.0,-2.0,2.0,-2.0,-2.0,-2.0,-2.0,-2.0
2025-06-09 09:20:38.614,-0.029675353,0.011321753,0.0071643945,-0.022330003,-0.03468279,0.0069008367,0.0,0.0,0.0,-0.0070210844,-0.12548326,0.28151116,-0.094850555,0.106034875,0.25192896,-0.12573835,0.042405225,-0.35531837,-0.050021544,-0.0199225,-0.35651082,-0.107357755,0.042139612,-0.06451557,0.015045478,-0.05854877,0.011324109,0.0072539668,0.011483363,0.05292841,0.011662027,-0.07554551,0.012400954,0.06434162,-2.0,1.5886197,-2.0,2.0,2.0,-2.0,2.0,-2.0,-2.0,-2.0,-2.0,-2.0,-2.0,1.5661107,-2.0,2.0,2.0,-2.0,2.0,-2.0,-2.0,-2.0,-2.0,-2.0
2025-06-09 09:20:38.635,0.024398815,0.020282524,-0.015644284,0.033257164,0.003403891,0.024254372,0.0,0.0,0.0,-0.0071453573,-0.12490281,0.28353843,-0.0972584,0.12252128,0.26176655,-0.120248355,0.04373554,-0.36334932,-0.03916442,-0.015667178,-0.35591108,-0.11710738,-0.0636298,0.08205557,-0.0076728025,-0.026472488,0.025663028,0.0485049,-0.06518806,0.05388746,-0.061651256,0.031671077,0.011115907,0.04013102,-2.0,1.5661107,-2.0,2.0,2.0,-2.0,2.0,-2.0,-2.0,-2.0,-2.0,-2.0,-2.0,1.303275,-2.0,2.0,2.0,-2.0,2.0,-2.0,-2.0,-2.0,-2.0,-2.0
2025-06-09 09:20:38.654,0.035880513,-0.00796143,-0.021500902,0.027544474,-0.02082679,0.013661283,0.0,0.0,0.0,-0.0072479793,-0.13128862,0.2816218,-0.08882782,0.115540475,0.25078747,-0.11933362,0.04590908,-0.3590084,-0.04441167,-0.029978031,-0.34431225,-0.10492848,0.020628525,0.047631584,0.018812086,-0.033292837,-0.002184139,-0.017280862,0.04331177,0.0612852,0.045957513,0.021106882,0.061288677,-0.0066206697,-2.0,1.303275,-2.0,2.0,2.0,-2.0,2.0,-2.0,-2.0,-2.0,-2.0,-2.0,-2.0,1.5453023,-2.0,2.0,2.0,-2.0,2.0,-2.0,-2.0,-2.0,-2.0,-2.0
2025-06-09 09:20:38.674,-0.030306956,-0.04997304,-0.030353652,0.009915904,0.02521779,-0.048198648,0.0,0.0,0.0,-0.007217042,-0.124658026,0.29383725,-0.09349753,0.10713962,0.25090566,-0.11958575,0.03590609,-0.3567807,-0.04900193,-0.018079387,-0.35438,-0.106904864,0.048729133,-0.062421214,-0.019971674,-0.03321374,-0.013172475,-0.033428498,0.027248811,0.015548539,-0.013530914,-0.0098358765,0.05195382,0.046461172,-2.0,1.5453023,-2.0,2.0,2.0,-2.0,2.0,-2.0,-2.0,-2.0,-2.0,-2.0,-2.0,2.0,-2.0,2.0,2.0,-2.0,2.0,-2.0,-2.0,-2.0,-2.0,-2.0
2025-06-09 09:20:38.697,0.06477504,-0.061982576,0.047553353,-0.016907873,-0.033079762,-0.04017665,0.0,0.0,0.0,-0.007139,-0.122742824,0.29616982,-0.090624556,0.117720604,0.2517589,-0.12158497,0.037653476,-0.35226348,-0.044015672,-0.018188275,-0.3412811,-0.092141174,-0.02428178,0.09332853,0.03781931,0.060681794,-0.043937523,0.016691422,-0.022083694,0.08287755,0.051888548,-0.013636373,0.021202141,0.059547935,-2.0,2.0,-2.0,2.0,2.0,-2.0,2.0,-2.0,-2.0,-2.0,-2.0,-2.0,-2.0,0.6948136,-2.0,2.0,2.0,-2.0,2.0,-2.0,-2.0,-2.0,-2.0,-2.0
2025-06-09 09:20:38.714,-0.036203954,-0.010388043,0.024968566,-0.000533126,-0.043520514,0.000779095,0.0,0.0,0.0,-0.0072541763,-0.12869284,0.30121678,-0.104431726,0.11357271,0.2597806,-0.12821934,0.041441098,-0.36439624,-0.031287987,-0.024130104,-0.346432,-0.10795714,-0.021950493,-0.008589484,0.064676404,0.039215427,-0.052964807,-0.06625173,0.054572023,0.012186504,0.07190651,-0.008391402,0.05069336,0.036907654,-2.0,0.6948136,-2.0,2.0,2.0,-2.0,2.0,-2.0,-2.0,-2.0,-2.0,-2.0,-2.0,1.3152372,-2.0,2.0,2.0,-2.0,2.0,-2.0,-2.0,-2.0,-2.0,-2.0
2025-06-09 09:20:38.735,-0.0133444965,-0.010995859,-0.044162072,0.06827154,-0.068984844,0.0044269254,0.0,0.0,0.0,-0.007075802,-0.124007076,0.2903119,-0.09207505,0.10622745,0.26371002,-0.12825425,0.051110934,-0.35995555,-0.030873863,-0.010079548,-0.35771668,-0.09467775,-0.029039843,-0.004926921,0.021440415,-0.024101462,-0.044307366,-0.0015004433,0.04148424,-0.013184847,-0.018227847,-0.042272866,-0.030966144,0.01323019,-2.0,1.3152372,-2.0,2.0,2.0,-2.0,2.0,-2.0,-2.0,-2.0,-2.0,-2.0,-2.0,1.8589871,-2.0,2.0,2.0,-2.0,2.0,-2.0,-2.0,-2.0,-2.0,-2.0
2025-06-09 09:20:38.755,0.03327486,0.025522461,0.03826806,0.04118379,-0.07005891,-0.020474628,0.0,0.0,0.0,-0.00671477,-0.12355467,0.28992057,-0.089535885,0.11970027,0.27021766,-0.11279113,0.05376823,-0.37223956,-0.04540107,-0.02668513,-0.3607828,-0.10030415,0.009698393,0.07436821,-0.051320106,0.05977601,-0.03065242,-0.025367498,-0.022647575,-0.067215405,0.055314586,0.075172976,-0.030206215,-0.049912963,-2.0,1.8589871,-2.0,2.0,2.0,-2.0,2.0,-2.0,-2.0,-2.0,-2.0,-2.0,-2.0,0.79932356,-2.0,2.0,2.0,-2.0,2.0,-2.0,-2.0,-2.0,-2.0,-2.0
2025-06-09 09:20:38.775,-0.029993122,0.030492628,-0.062172577,0.012322554,-0.06592663,0.011555927,0.0,0.0,0.0,-0.006607948,-0.12784643,0.2804499,-0.0899636,0.11920654,0.2656488,-0.11620141,0.050825514,-0.36270833,-0.027624827,-0.017065728,-0.35500142,-0.096449904,-0.05302956,-0.06054278,-0.005141603,-0.0012585865,-0.0035370272,-0.04473269,-0.06097541,-0.05375805,0.049673855,-0.052917875,-0.024533685,-0.010309113,-2.0,0.79932356,-2.0,2.0,2.0,-2.0,2.0,-2.0,-2.0,-2.0,-2.0,-2.0,-2.0,2.0,-2.0,2.0,2.0,-2.0,2.0,-2.0,-2.0,-2.0,-2.0,-2.0
2025-06-09 09:20:38.797,0.052221593,-0.013737763,0.013646059,0.03675074,-0.003990377,-0.027977245,0.0,0.0,0.0,-0.00639659,-0.121702716,0.28207433,-0.09620127,0.11952391,0.25422978,-0.11666602,0.05370065,-0.36623827,-0.037283912,-0.024945313,-0.35594118,-0.09750552,0.053807393,-0.018038979,-0.032371473,0.025179086,0.015487409,-0.05662094,0.057554767,0.042982966,0.05906154,-0.07094266,0.014957567,0.013166554,-2.0,2.0,-2.0,2.0,2.0,-2.0,2.0,-2.0,-2.0,-2.0,-2.0,-2.0,-2.0,1.3809522,-2.0,2.0,2.0,-2.0,2.0,-2.0,-2.0,-2.0,-2.0,-2.0
2025-06-09 09:20:38.815,-0.008283315,0.038246248,0.03019061,0.0017436462,0.026040457,0.036770523,0.0,0.0,0.0,-0.006384145,-0.137142,0.2899387,-0.09305268,0.120711595,0.25467283,-0.12288247,0.050142452,-0.3577683,-0.04120127,-0.02347484,-0.3426576,-0.10460382,-0.040825453,-0.010698318,0.0028595105,0.0009949274,-0.07189262,-0.008984147,-0.0649292,-0.055909306,0.027881572,-0.015169484,0.00045553563,0.062385865,-2.0,1.3809522,-2.0,2.0,2.0,-2.0,2.0,-2.0,-2.0,-2.0,-2.0,-2.0,-2.0,1.1711968,-2.0,2.0,2.0,-2.0,2.0,-2.0,-2.0,-2.0,-2.0,-2.0
2025-06-09 09:20:38.835,-0.011534711,-0.012411921,0.021816753,-0.015051604,-0.05573952,-0.012638899,0.0,0.0,0.0,-0.006496583,-0.124858074,0.28696316,-0.1039252,0.10925561,0.27000812,-0.12640202,0.040417887,-0.355449,-0.034846954,-0.015137656,-0.35619202,-0.090331465,-0.009476275,-0.0065338123,0.053310737,0.05127966,0.023930276,0.05604447,-0.035250235,0.030175362,0.031278834,0.04468775,-0.05055197,-0.059556384,-2.0,1.1711968,-2.0,2.0,2.0,-2.0,2.0,-2.0,-2.0,-2.0,-2.0,-2.0,-2.0,1.1780417,-2.0,2.0,2.0,-2.0,2.0,-2.0,-2.0,-2.0,-2.0,-2.0
2025-06-09 09:20:38.855,0.0062175314,-0.02248268,-0.04575195,0.017356358,-0.049522255,0.049009763,0.0,0.0,0.0,-0.006482181,-0.13281997,0.27774644,-0.092460684,0.10789961,0.25859132,-0.11063614,0.04494735,-0.36937127,-0.03464331,-0.020271813,-0.3582127,-0.09754064,0.04464371,-0.0020866639,-0.041512262,0.026411686,-0.06837909,-0.072377004,-0.039077226,-0.041142225,-0.051440224,-0.026077662,-0.042865712,-0.05761675,-2.0,1.1780417,-2.0,2.0,2.0,-2.0,2.0,-2.0,-2.0,-2.0,-2.0,-2.0,-2.0,1.974201,-2.0,2.0,2.0,-2.0,2.0,-2.0,-2.0,-2.0,-2.0,-2.0
2025-06-09 09:20:38.875,0.032418188,-0.04125737,0.01129373,-0.02106408,-0.039637353,0.0020503735,0.0,0.0,0.0,-0.0063535646,-0.12226367,0.29436898,-0.08582099,0.11392897,0.2573758,-0.124215886,0.04126996,-0.3592185,-0.030779246,-0.014326367,-0.3485081,-0.09553384,-0.008047665,0.0076742196,0.053361207,0.03197736,-0.051718388,0.06905464,-0.036067445,0.014284057,0.045690175,0.024513667,0.0778767,-0.017081747,-2.0,1.974201,-2.0,2.0,2.0,-2.0,2.0,-2.0,-2.0,-2.0,-2.0,-2.0,-2.0,1.1718276,-2.0,2.0,2.0,-2.0,2.0,-2.0,-2.0,-2.0,-2.0,-2.0
2025-06-09 09:20:38.897,-0.04147162,-0.043179378,-0.003936719,0.061791897,-0.021758,0.029008195,0.0,0.0,0.0,-0.006468707,-0.1364612,0.29551366,-0.08433041,0.111677006,0.2648883,-0.11284923,0.04774116,-0.3626595,-0.049104612,-0.024649644,-0.3480931,-0.10571594,-0.018740704,-0.034022838,-0.02820312,-0.06175606,-0.01555502,-0.06265338,0.03071893,-0.029602928,-0.06356081,-0.0661966,-0.03364428,-0.06526091,-2.0,1.1718276,-2.0,2.0,2.0,-2.0,2.0,-2.0,-2.0,-2.0,-2.0,-2.0,-2.0,1.6762748,-2.0,2.0,2.0,-2.0,2.0,-2.0,-2.0,-2.0,-2.0,-2.0
2025-06-09 09:20:38.915,-0.02146595,0.017068109,-0.03551628,-0.012768301,-0.044423163,0.007839723,0.0,0.0,0.0,-0.006581391,-0.12714651,0.29121384,-0.085230045,0.110439986,0.26555237,-0.12563595,0.040556516,-0.37110335,-0.04114508,-0.025874244,-0.3494706,-0.11054585,0.039502237,-0.027997646,0.03342377,-0.002186376,-0.015049759,0.028342415,-0.014526048,-0.0426061,-0.0037003036,-0.067075476,0.019142464,0.037607707,-2.0,1.6762748,-2.0,2.0,2.0,-2.0,2.0,-2.0,-2.0,-2.0,-2.0,-2.0,-2.0,1.8126564,-2.0,2.0,2.0,-2.0,2.0,-2.0,-2.0,-2.0,-2.0,-2.0
2025-06-09 09:20:38.935,-0.0035725657,-0.020940201,0.031870183,-0.0033271322,-0.023450363,-0.0234803,0.0,0.0,0.0,-0.0067152684,-0.13578561,0.28362364,-0.088232726,0.107006185,0.26080877,-0.1269431,0.039189547,-0.35681984,-0.04089618,-0.027701586,-0.34300482,-0.09797324,0.030244932,0.013542572,0.008216903,-0.04392714,-0.04410428,-0.01614195,-0.07486012,0.081861995,0.06554839,0.027571883,0.019493517,0.031550862,-2.0,1.8126564,-2.0,2.0,2.0,-2.0,2.0,-2.0,-2.0,-2.0,-2.0,-2.0,-2.0,1.0852147,-2.0,2.0,2.0,-2.0,2.0,-2.0,-2.0,-2.0,-2.0,-2.0
2025-06-09 09:20:38.955,-0.022408055,0.007219758,0.005634773,0.041585058,-0.061430812,0.04583753,0.0,0.0,0.0,-0.0069984384,-0.12772903,0.30034366,-0.10233532,0.11188876,0.25179276,-0.11846416,0.04458779,-0.35774833,-0.048524104,-0.011769264,-0.34815696,-0.1110389,0.05211988,0.018671155,0.0012259699,0.012359767,-0.037891455,0.00907879,0.056739893,-0.032290995,0.032878485,-0.06112121,0.0031685794,0.05213911,-2.0,1.0852147,-2.0,2.0,2.0,-2.0,2.0,-2.0,-2.0,-2.0,-2.0,-2.0,-2.0,1.1639073,-2.0,2.0,2.0,-2.0,2.0,-2.0,-2.0,-2.0,-2.0,-2.0
2025-06-09 09:20:38.975,-0.028125444,-0.021195024,0.016042737,0.052816726,0.013718454,0.033702057,0.0,0.0,0.0,-0.0070986436,-0.1253437,0.29089743,-0.09233004,0.114242226,0.2533205,-0.12224988,0.05272112,-0.36072654,-0.038050525,-0.018700376,-0.35943553,-0.10210911,0.036957376,-0.07579264,-0.03498658,-0.047042668,0.028471025,-0.010438566,0.048209354,-0.0027871982,-0.056293767,0.0067652417,-0.027872074,-0.034686413,-2.0,1.1639073,-2.0,2.0,2.0,-2.0,2.0,-2.0,-2.0,-2.0,-2.0,-2.0,-2.0,1.6037412,-2.0,2.0,2.0,-2.0,2.0,-2.0,-2.0,-2.0,-2.0,-2.0
2025-06-09 09:20:38.997,0.022776907,8.225697e-05,-0.03035796,0.047976255,-0.02070448,-0.01948326,0.0,0.0,0.0,-0.006954629,-0.120930426,0.29747155,-0.09961251,0.10987305,0.26435477,-0.124630556,0.051551066,-0.36146277,-0.0403549,-0.023019817,-0.34950912,-0.11273952,0.013091221,-0.044211738,0.07316035,-0.029077604,-0.043654434,0.012095568,0.034236193,-0.02432376,-0.06338091,-0.037745543,-0.04841611,-0.025586616,-2.0,1.6037412,-2.0,2.0,2.0,-2.0,2.0,-2.0,-2.0,-2.0,-2.0,-2.0,-2.0,1.8723427,-2.0,2.0,2.0,-2.0,2.0,-2.0,-2.0,-2.0,-2.0,-2.0
2025-06-09 09:20:39.015,0.060459923,0.01808692,0.023581106,0.018305944,-0.03220561,0.032505166,0.0,0.0,0.0,-0.006855189,-0.13228482,0.28417468,-0.08721848,0.111438714,0.2600407,-0.12717521,0.04544428,-0.37445986,-0.0376915,-0.010118407,-0.35114837,-0.10173824,0.046844278,0.036971837,0.024971668,-0.03892468,-0.016973125,-0.0016517723,0.06979494,-0.061956428,0.0624283,-0.018103037,0.02498154,-0.036727745,-2.0,1.8723427,-2.0,2.0,2.0,-2.0,2.0,-2.0,-2.0,-2.0,-2.0,-2.0,-2.0,0.9115027,-2.0,2.0,2.0,-2.0,2.0,-2.0,-2.0,-2.0,-2.0,-2.0
2025-06-09 09:20:39.035,-0.062062476,0.0366133,0.008283311,0.012485289,-0.05055314,0.011287548,0.0,0.0,0.0,-0.006987847,-0.13877323,0.28606787,-0.09672532,0.12243256,0.2615188,-0.1199696,0.05352725,-0.35581312,-0.043801077,-0.016971828,-0.34659067,-0.10485947,-0.03656381,-0.07515161,-0.005771668,-0.047821358,-0.03961878,0.052900173,0.067072205,-0.0724088,-0.0100605525,-0.0052362047,-0.042088695,0.050134968,-2.0,0.9115027,-2.0,2.0,2.0,-2.0,2.0,-2.0,-2.0,-2.0,-2.0,-2.0,-2.0,1.4365764,-2.0,2.0,2.0,-2.0,2.0,-2.0,-2.0,-2.0,-2.0,-2.0
