openverse-orca/OrcaGym/log/simulation_log_20250721_155114.csv
timestamp,sim_time,physics_step,control_step,imu_angle_roll,imu_angle_pitch,imu_angle_yaw,imu_angular_velocity_roll,imu_angular_velocity_pitch,imu_angular_velocity_yaw,imu_acc_x,imu_acc_y,imu_acc_z,fl_joint1_pos,fl_joint1_vel,fl_joint1_torque,fl_joint2_pos,fl_joint2_vel,fl_joint2_torque,fl_joint3_pos,fl_joint3_vel,fl_joint3_torque,fr_joint1_pos,fr_joint1_vel,fr_joint1_torque,fr_joint2_pos,fr_joint2_vel,fr_joint2_torque,fr_joint3_pos,fr_joint3_vel,fr_joint3_torque,hl_joint1_pos,hl_joint1_vel,hl_joint1_torque,hl_joint2_pos,hl_joint2_vel,hl_joint2_torque,hl_joint3_pos,hl_joint3_vel,hl_joint3_torque,hr_joint1_pos,hr_joint1_vel,hr_joint1_torque,hr_joint2_pos,hr_joint2_vel,hr_joint2_torque,hr_joint3_pos,hr_joint3_vel,hr_joint3_torque,fl_force_x,fl_force_y,fl_force_z,fr_force_x,fr_force_y,fr_force_z,hl_force_x,hl_force_y,hl_force_z,hr_force_x,hr_force_y,hr_force_z,fl_hip_action,fl_thigh_action,fl_calf_action,fr_hip_action,fr_thigh_action,fr_calf_action,hl_hip_action,hl_thigh_action,hl_calf_action,hr_hip_action,hr_thigh_action,hr_calf_action
2025-07-21 15:51:14.486,0.0,0,0,-0.042403746,-0.008373409,0.014545816,0.024575703,-0.04750153,0.04628445,0.0,0.0,0.0,0.0,0.009763551,0.00017153805,-0.008977822,-0.0019049168,-0.00868247,0.0007281892,-0.0018987496,-0.0032292977,0.0027703617,0.006510146,-0.005451511,-0.009184984,0.028444124,-0.040151063,0.06887863,-0.0221312,-0.02419079,0.06661446,0.045665707,0.04475269,-0.059153855,-0.036794882,0.05741376,-0.020589888,0.0,0.0,0.0,0.0,0.0,0.0,0.0,0.0,0.0,0.0,0.0,0.0,-0.077239096,-0.18218273,-0.07552622,-0.025639094,0.0011507124,-0.3655598,0.027615096,0.052251827,-0.4787627,0.14590491,-0.09186389,0.04598093
2025-07-21 15:51:14.498,0.02,20,1,-0.059336826,0.019856308,-0.012295908,0.005676275,0.008722168,-0.03526506,0.0,0.0,0.0,0.0,-0.00373773,-0.015932942,-0.0009542207,-1.4627787e-05,0.0011903183,-0.004086048,-0.008813953,0.010106384,-0.011783603,0.012662127,-0.008794708,0.0012451472,-0.047183644,-0.02081662,-0.06597812,0.051496737,0.03593002,-0.04457581,-0.063693285,0.07704677,-0.04625678,-0.02760783,-0.050970796,0.04423278,-0.077239096,-0.18218273,-0.07552622,-0.025639094,0.0011507124,-0.3655598,0.027615096,0.052251827,-0.4787627,0.14590491,-0.09186389,0.04598093,0.09283892,-0.3796355,0.051609628,-0.39866424,-0.10331926,-0.6906908,-0.0050105304,0.05223685,-0.512462,0.2632809,0.6682992,0.29239184
2025-07-21 15:51:14.517,0.04,40,2,0.03572851,-0.028454505,0.055338282,-0.04883504,0.026534256,-0.0069426536,0.0,0.0,0.0,0.0,0.0003029729,-0.03531082,0.004401893,-0.016738335,-0.0019293,-0.0348676,-0.0020639854,-0.00092464424,-0.022480767,0.00026851866,0.016149085,-0.003973994,0.008251364,-0.12680243,-0.054754477,0.04307418,-0.00027003122,-0.07912238,-0.052165102,-0.064058445,-0.015196079,0.07275342,0.07816647,-0.060373697,0.09283892,-0.3796355,0.051609628,-0.39866424,-0.10331926,-0.6906908,-0.0050105304,0.05223685,-0.512462,0.2632809,0.6682992,0.29239184,0.2934849,0.28476524,-0.15353777,-0.07833479,-0.26023945,-0.49857816,-0.17607826,0.48477465,-0.03507988,-0.3394355,0.32155138,0.20725977
2025-07-21 15:51:14.540,0.06,60,3,0.14171557,-0.046740193,-0.1468749,0.0336991,-0.041469466,0.016259586,0.0,0.0,0.0,0.0,0.0036497489,-0.02323192,-0.010943708,-0.00630214,-0.018278703,-0.044513334,-0.004878455,0.029039837,-0.015985072,0.011672058,0.0420755,0.000797647,-0.00070903666,0.07203099,0.013858492,-0.0076970104,0.015583053,-0.071037196,0.015332598,0.030385882,0.07398404,0.030631913,0.038216762,0.055740505,0.2934849,0.28476524,-0.15353777,-0.07833479,-0.26023945,-0.49857816,-0.17607826,0.48477465,-0.03507988,-0.3394355,0.32155138,0.20725977,-0.13967794,-0.5459876,-0.053500835,-0.3888812,-0.33611208,-0.3497199,0.3930916,-0.26805615,-0.39146805,0.40828893,0.3109191,0.1747078
2025-07-21 15:51:14.561,0.08,80,4,-0.11414844,-0.07749777,0.12758845,0.026859866,0.012351853,-0.0017819315,0.0,0.0,0.0,0.0,0.013136954,-0.030875167,-0.010045923,-0.014695041,-0.04588119,-0.038036354,0.002997881,0.02736772,-0.031188931,0.013812211,0.065749586,-0.0010096739,-0.057477903,-0.04079124,-0.04043792,-0.05870715,-0.08289559,-0.0014600871,0.020901838,-0.10537857,-0.0569397,-0.042847905,-0.014317597,-0.055037346,-0.13967794,-0.5459876,-0.053500835,-0.3888812,-0.33611208,-0.3497199,0.3930916,-0.26805615,-0.39146805,0.40828893,0.3109191,0.1747078,0.18980092,0.1985774,-0.28956458,-0.025319837,0.13776046,-0.44807473,-0.032926112,0.73744065,-0.037295893,-0.41468495,-0.050961457,0.5678787
2025-07-21 15:51:14.578,0.1,100,5,0.026814928,-0.04110001,-0.11327663,0.011076956,0.026560994,-0.00030096952,0.0,0.0,0.0,0.0,0.025144838,-0.017552337,-0.02589719,-0.026995527,-0.027219258,-0.05154217,-0.0015001218,0.040074866,-0.027611293,-0.007783902,0.053966157,0.010417987,0.046558503,0.10618912,0.013971105,0.043356817,0.006833371,0.015708582,-0.036646325,0.14593494,0.015082501,-0.09364756,0.019412844,0.076832354,0.18980092,0.1985774,-0.28956458,-0.025319837,0.13776046,-0.44807473,-0.032926112,0.73744065,-0.037295893,-0.41468495,-0.050961457,0.5678787,-0.38176996,-0.8348632,0.18310389,-0.40225422,-0.1826925,-0.4378861,0.46896368,-0.1625096,-0.4366427,0.6900131,-0.05923649,0.3290281
2025-07-21 15:51:14.598,0.12000000000000001,120,6,-0.06266134,-0.050161,0.1270151,0.03966318,0.049863458,-0.03646684,0.0,0.0,0.0,0.0,0.008852868,-0.01544189,-0.01955623,-0.03989417,-0.034611598,-0.047500428,0.019832699,0.029113267,-0.03541347,0.002033785,0.029951192,0.0071234605,-0.0549105,-0.10218621,0.07684154,-0.024464998,-0.06380224,0.047050588,0.010996017,-0.018237714,-0.0115896175,0.00072007574,-0.042253803,0.0647631,-0.38176996,-0.8348632,0.18310389,-0.40225422,-0.1826925,-0.4378861,0.46896368,-0.1625096,-0.4366427,0.6900131,-0.05923649,0.3290281,0.24891153,0.2768935,0.25609112,-0.3119047,0.17427325,-0.4401199,0.07547173,0.6764251,-0.17193247,-0.32813913,-0.09573538,0.76343787
2025-07-21 15:51:14.618,0.14,140,7,0.1240996,-0.0068287263,-0.12869467,0.02509425,0.034816615,0.049800493,0.0,0.0,0.0,0.0,0.027888259,-0.02233339,-0.00904038,-0.032862544,-0.02336404,-0.07008108,0.015124058,0.06750219,-0.02798711,-0.0044377996,0.026978558,0.033246413,0.0146542685,-0.0064996043,0.057492383,0.022713518,0.03540964,0.032113444,0.035498865,0.03917819,-0.026686106,0.027263284,0.03404253,0.088542566,0.24891153,0.2768935,0.25609112,-0.3119047,0.17427325,-0.4401199,0.07547173,0.6764251,-0.17193247,-0.32813913,-0.09573538,0.76343787,-0.5355923,-0.72669446,0.3656169,-0.38779706,-0.16619524,-0.39951614,0.6245205,-0.020157237,-0.39318013,1.0137312,0.099253915,0.38830936
2025-07-21 15:51:14.644,0.16,160,8,-0.0020429632,-0.04579676,0.11280907,0.022736875,-0.043925684,-0.027406674,0.0,0.0,0.0,0.0,0.0075368052,-0.017693155,-0.010748267,-0.04032929,-0.028725833,-0.066193596,0.029199652,0.064742945,-0.043668978,0.004508252,0.032741204,0.023013616,-0.069293365,-0.00016090182,-0.018728813,-0.021321015,-0.008073336,-0.00458419,0.067217305,0.02504337,-0.062766746,0.0859039,0.065652296,0.062729135,-0.5355923,-0.72669446,0.3656169,-0.38779706,-0.16619524,-0.39951614,0.6245205,-0.020157237,-0.39318013,1.0137312,0.099253915,0.38830936,0.10544307,-0.6007407,0.018118981,-0.18848786,0.030079775,-0.21620661,0.3112853,0.07422322,-0.40210807,0.076985195,-0.6568311,0.04716581
2025-07-21 15:51:14.663,0.18,180,9,-0.065409176,-0.11245019,0.050758637,0.0093418,0.040840384,-0.0389082,0.0,0.0,0.0,0.0,0.013178228,-0.045980237,-0.00561714,-0.05572185,-0.03009153,-0.057322558,0.03134192,0.055087734,-0.033491377,0.017811533,0.0038351004,0.038951773,0.053740058,-0.05970609,0.016096301,-0.016636984,0.026811257,0.006404896,-0.05719606,-0.060175966,-0.052128065,0.04735657,-0.044701006,0.03829877,0.10544307,-0.6007407,0.018118981,-0.18848786,0.030079775,-0.21620661,0.3112853,0.07422322,-0.40210807,0.076985195,-0.6568311,0.04716581,0.09951506,0.202963,0.3596855,-0.32883793,0.096638225,-0.4307405,0.17632529,0.7996981,-0.13397251,0.2571556,0.17119437,0.49524158
2025-07-21 15:51:14.678,0.19999999999999998,200,10,0.21039607,-0.045640144,0.03148247,-0.03171036,0.057466257,-0.01828975,0.0,0.0,0.0,0.0,0.016782448,-0.050173044,-0.014317416,-0.043314535,-0.018262489,-0.07153138,0.02296663,0.10455865,-0.047036853,0.025296027,0.014744569,0.029034246,0.06780858,0.01367655,-0.016385786,-0.015817707,-0.022343576,-0.067279406,0.06370966,0.073522374,0.06642224,-0.00073236064,0.058676098,0.044476993,0.09951506,0.202963,0.3596855,-0.32883793,0.096638225,-0.4307405,0.17632529,0.7996981,-0.13397251,0.2571556,0.17119437,0.49524158,-0.1229535,-0.63581645,0.34115908,-0.32877934,-0.025576882,-0.33773085,0.3282204,-0.11326267,-0.24280478,0.55807555,-0.4484684,0.3935145
2025-07-21 15:51:14.698,0.21999999999999997,220,11,-0.096243456,-0.01438007,0.0502869,-0.021872805,0.02865257,-0.009058633,0.0,0.0,0.0,0.0,0.012993994,-0.05918207,0.0035779,-0.054266702,-0.012358105,-0.05733089,0.04091205,0.09165505,-0.033797305,0.02783927,0.001832792,0.04186704,-0.037087895,-0.08730519,-0.03414033,-0.019084327,0.025424013,0.0657636,-0.039352965,-0.11337153,-0.0062687956,0.017277373,-0.096204884,-0.05916027,-0.1229535,-0.63581645,0.34115908,-0.32877934,-0.025576882,-0.33773085,0.3282204,-0.11326267,-0.24280478,0.55807555,-0.4484684,0.3935145,0.30070803,0.16837022,0.16881363,-0.35879222,-0.04925149,0.020972997,0.44563168,0.70693576,0.44306618,0.21875016,0.5099181,0.31724158
2025-07-21 15:51:14.718,0.23999999999999996,240,12,0.21226548,0.05324692,-0.046149626,0.031678665,0.048977297,0.008047903,0.0,0.0,0.0,0.0,0.031448513,-0.05197846,-0.005276868,-0.052373614,-0.01932132,-0.049288165,0.036091298,0.100370854,-0.025636563,0.031369276,0.014643491,0.03481302,0.08539695,-0.0034712693,-0.061104607,0.0284046,-0.055037882,0.026790375,-0.015803587,0.036377314,0.10062524,-0.022343267,0.043675467,-0.0832119,0.30070803,0.16837022,0.16881363,-0.35879222,-0.04925149,0.020972997,0.44563168,0.70693576,0.44306618,0.21875016,0.5099181,0.31724158,-0.36572596,-0.45474756,0.047622077,-0.40173095,-0.009840779,-0.14208004,0.49987984,-0.27665234,-0.0318895,0.70157725,0.0595659,0.20994043
2025-07-21 15:51:14.744,0.25999999999999995,260,13,-0.023799831,0.0058246027,0.19253048,-0.019454358,-0.0043124417,-0.005834327,0.0,0.0,0.0,0.0,0.018846039,-0.051201522,-0.008095163,-0.058437753,-0.016371349,-0.039539304,0.047552984,0.089427814,-0.015538586,0.03239116,0.012044663,0.03803029,-0.04380969,-0.11168698,-0.036215976,-0.047297157,-0.041571897,-0.022051875,0.07660117,-0.08865428,0.026120167,0.0015216564,0.066635974,0.01105834,-0.36572596,-0.45474756,0.047622077,-0.40173095,-0.009840779,-0.14208004,0.49987984,-0.27665234,-0.0318895,0.70157725,0.0595659,0.20994043,0.22546265,0.5339262,-0.15923712,0.15091075,-0.035937853,-0.121782444,0.10505262,0.27585942,0.1442375,-0.3970265,-0.7447956,0.39011207
2025-07-21 15:51:14.761,0.27999999999999997,280,14,0.06949067,-0.029350707,-0.14448053,0.0029869745,0.06678622,0.016148783,0.0,0.0,0.0,0.0,0.028873045,-0.028941166,-0.021209398,-0.045154445,-0.021760741,-0.038684286,0.056579474,0.07748799,-0.013596195,0.0045682476,-0.0088157095,0.0317234,0.08868717,0.1579775,-0.09625033,-0.02635123,-0.08162612,0.040255267,-0.012365514,-0.029918157,0.0713796,-0.047154255,-0.09853395,-0.015851557,0.22546265,0.5339262,-0.15923712,0.15091075,-0.035937853,-0.121782444,0.10505262,0.27585942,0.1442375,-0.3970265,-0.7447956,0.39011207,-0.41457066,-0.93802404,0.040745925,-0.4867475,-0.118979774,0.052268304,0.53602016,-0.007977057,0.30543995,1.0902928,0.4616836,0.4764503
2025-07-21 15:51:14.787,0.3,300,15,-0.084503,0.07036955,0.16058806,0.047356103,0.005299468,0.0060070297,0.0,0.0,0.0,0.0,0.017619513,-0.04223602,-0.009370942,-0.05306036,-0.019134348,-0.040390708,0.05768437,0.07115279,0.0019322151,0.03816595,0.008765326,0.032773305,-0.08002704,-0.023284528,0.041933116,-0.07523117,-0.04159565,0.074462764,-0.0029676228,-0.10131421,-0.04483544,0.11222156,0.02823637,-0.07212161,-0.41457066,-0.93802404,0.040745925,-0.4867475,-0.118979774,0.052268304,0.53602016,-0.007977057,0.30543995,1.0902928,0.4616836,0.4764503,0.13998455,-0.1580385,-0.3866987,0.13851829,0.033179052,0.02812875,0.2328777,0.08013187,0.06290656,-0.17227174,-0.46035573,0.1055078
2025-07-21 15:51:14.811,0.32,320,16,0.015519331,-0.057429526,0.047019303,0.002071269,-0.007970316,-0.0380447,0.0,0.0,0.0,0.0,0.020382585,-0.035268944,-0.032489188,-0.037935108,-0.014650906,-0.026817173,0.054197468,0.07006894,-0.009696102,0.03403043,0.001579391,0.029595608,0.0028609703,0.004029393,-0.09178021,-0.0454966,-0.051444642,0.0036059523,-0.022957776,-0.0024669522,-0.028815975,0.042079877,-0.043195356,0.007860118,0.13998455,-0.1580385,-0.3866987,0.13851829,0.033179052,0.02812875,0.2328777,0.08013187,0.06290656,-0.17227174,-0.46035573,0.1055078,-0.12775184,0.013207191,0.2094077,-0.33801866,0.15742081,-0.37442756,-0.048549704,0.17211579,-0.14198786,0.35640946,0.20008248,0.4235874
2025-07-21 15:51:14.828,0.34,340,17,0.13715954,0.12187868,0.016583102,0.030538034,-0.005127058,-0.030166037,0.0,0.0,0.0,0.0,0.030510202,-0.047104973,-0.015964366,-0.046039917,-0.0038487578,-0.042544026,0.04546308,0.06299996,-0.0029295934,0.019661076,0.0113702845,0.040412165,-0.04566558,-0.01293036,0.042537216,0.052349474,0.010511378,-0.030056715,-0.049377915,0.011951825,-0.075300634,-0.010930893,0.018976595,-0.011403709,-0.12775184,0.013207191,0.2094077,-0.33801866,0.15742081,-0.37442756,-0.048549704,0.17211579,-0.14198786,0.35640946,0.20008248,0.4235874,-0.15146199,-0.28844643,0.13612539,-0.3822305,0.014673971,-0.4332597,0.19124812,0.08477838,-0.43692315,0.414309,0.08991597,0.31783456
2025-07-21 15:51:14.847,0.36000000000000004,360,18,-0.06640558,0.047557693,0.112723045,-0.021189323,0.023968866,-0.012448956,0.0,0.0,0.0,0.0,0.012300899,-0.042240053,-0.01655489,-0.046160564,0.0038651375,-0.05028499,0.051207885,0.05852961,-0.022350373,0.032401305,0.023277769,0.04185129,0.017831586,-0.07928734,0.05374681,-0.014625447,-0.014409438,-0.06754037,0.021042522,-0.043474436,0.03942507,0.022185478,0.01670893,-0.065449975,-0.15146199,-0.28844643,0.13612539,-0.3822305,0.014673971,-0.4332597,0.19124812,0.08477838,-0.43692315,0.414309,0.08991597,0.31783456,0.1854578,0.055083714,0.044271085,-0.13046046,0.023938201,-0.3044053,-0.060308702,0.38067776,-0.009308502,-0.17423435,-0.1434153,0.44412366
2025-07-21 15:51:14.867,0.38000000000000006,380,19,0.012743841,0.09222213,-0.06574994,0.008057106,-0.010080788,-0.03120574,0.0,0.0,0.0,0.0,0.021615969,-0.042676006,-0.018961655,-0.034631167,-0.0006650837,-0.047271788,0.038641058,0.08696259,-0.021206142,0.018404908,0.016266417,0.030946633,-0.031137507,-0.0127827255,0.0076167937,0.006314047,0.03790184,-0.06656073,0.04936441,0.012296793,-0.0633868,0.03312235,-0.014471107,0.072873056,0.1854578,0.055083714,0.044271085,-0.13046046,0.023938201,-0.3044053,-0.060308702,0.38067776,-0.009308502,-0.17423435,-0.1434153,0.44412366,-0.2517207,-0.25750363,0.18766491,-0.5026274,-0.052584317,-0.48556754,0.23942155,0.03917938,-0.38988227,0.71839964,0.44601473,0.28555733
2025-07-21 15:51:14.889,0.4000000000000001,400,20,-0.023634095,0.080084085,0.094170555,0.00861319,-0.0049404297,-0.029195704,0.0,0.0,0.0,0.0,0.02391589,-0.04725244,-0.021397708,-0.047058154,-0.004185343,-0.058232266,0.028625624,0.06681671,-0.013827896,0.01827836,0.021871116,0.03853963,0.026131494,0.033241864,-0.022221457,0.042771403,-0.03894867,-0.0484387,-0.03254838,-0.085679986,-0.0022324543,0.09658345,0.01703776,0.04006771,-0.2517207,-0.25750363,0.18766491,-0.5026274,-0.052584317,-0.48556754,0.23942155,0.03917938,-0.38988227,0.71839964,0.44601473,0.28555733,0.22675644,-0.6424104,-0.2051491,-0.20384352,-0.038800284,-0.30792752,0.1774645,0.13456541,-0.30447102,-0.15921013,-0.046528585,0.2713532
2025-07-21 15:51:14.911,0.4200000000000001,420,21,-0.05288583,-0.049207047,-0.0038466922,0.03830483,0.034750964,0.0040151333,0.0,0.0,0.0,0.0,0.030036837,-0.07941033,-0.013558487,-0.05527024,-0.0070744813,-0.04938158,0.029915864,0.06031048,-0.023772655,0.025568105,0.026644988,0.03444947,0.065307006,-0.12167819,-0.06663281,0.013311207,0.01608023,-0.06409062,-0.043704923,-0.016061014,-0.024652632,-0.07995338,0.042898796,0.029198,0.22675644,-0.6424104,-0.2051491,-0.20384352,-0.038800284,-0.30792752,0.1774645,0.13456541,-0.30447102,-0.15921013,-0.046528585,0.2713532,-0.20705439,0.5062088,0.10401361,-0.24904703,0.04033859,-0.34183496,-0.028256744,0.10080375,-0.045795813,0.39269134,0.28956613,0.45663658
2025-07-21 15:51:14.928,0.4400000000000001,440,22,0.0707203,0.078869484,0.05594425,-0.04281408,-0.02551439,0.04622626,0.0,0.0,0.0,0.0,0.0130496,-0.077057056,-0.028942442,-0.050408676,0.0058282935,-0.062441938,0.030398654,0.061863575,-0.026798058,0.022104813,0.033474736,0.034501117,-0.025275037,0.0074008824,-0.056636106,-0.05326488,0.034820724,0.07211291,0.022236785,0.024718242,0.080893695,-0.009936671,0.06465874,0.019758314,-0.20705439,0.5062088,0.10401361,-0.24904703,0.04033859,-0.34183496,-0.028256744,0.10080375,-0.045795813,0.39269134,0.28956613,0.45663658,-0.12988186,-0.22807223,-0.18927722,-0.20215517,-0.3923087,-0.18630198,0.3378156,-0.1700629,-0.095477596,0.39943752,-0.18163776,0.034121476
2025-07-21 15:51:14.947,0.46000000000000013,460,23,-0.07141986,-0.024946371,-0.009669743,0.018433888,-0.0010014253,-0.04329657,0.0,0.0,0.0,0.0,0.008241744,-0.07199339,-0.034903582,-0.04379196,-0.010602848,-0.059608433,0.03926781,0.050855692,-0.027456133,0.026189506,0.03461119,0.023139017,-0.0518272,-0.031890675,-0.010443534,0.044538647,-0.088213526,-0.018652739,-0.05166153,-0.076586604,0.02759003,-0.0077968575,-0.0064412067,-0.02664352,-0.12988186,-0.22807223,-0.18927722,-0.20215517,-0.3923087,-0.18630198,0.3378156,-0.1700629,-0.095477596,0.39943752,-0.18163776,0.034121476,0.0053715454,0.13594687,-0.49180827,-0.24873018,0.2538562,-0.020857327,0.2096006,0.16984369,0.41242057,0.3310825,0.8082306,0.40705958
2025-07-21 15:51:14.967,0.48000000000000015,480,24,0.14352833,0.073932774,0.015785052,0.03171652,-0.00756881,-0.040676303,0.0,0.0,0.0,0.0,0.012747761,-0.061560582,-0.03656104,-0.059424516,0.0009338903,-0.04201968,0.0373913,0.0518434,-0.004718371,0.030188167,0.06481368,0.035200812,-0.08069112,0.11690581,-0.039873376,-0.051012643,0.11904584,0.04019454,-0.056005448,0.08513224,0.0554889,-0.019590732,0.16571328,0.07140184,0.0053715454,0.13594687,-0.49180827,-0.24873018,0.2538562,-0.020857327,0.2096006,0.16984369,0.41242057,0.3310825,0.8082306,0.40705958,-0.44099706,-0.705689,-0.037114304,-0.39614922,-0.67278004,-0.31682172,0.5372628,-0.44834656,-0.2560109,0.5034983,-0.6175778,-0.041637987
2025-07-21 15:51:14.990,0.5000000000000001,500,25,-0.23469847,0.04386027,0.0679069,-0.0074178125,0.012512487,0.0068038506,0.0,0.0,0.0,0.0,0.0017290938,-0.077084444,-0.045996387,-0.058499355,-0.044670522,-0.049282905,0.049288116,0.025489526,-0.024180578,0.037699293,0.066485986,0.027477896,-0.009733596,-0.08201664,0.06701331,-0.013083406,-0.06369039,-0.07331009,0.020107526,-0.15880466,0.045520604,0.08345241,-0.090343446,0.055919383,-0.44099706,-0.705689,-0.037114304,-0.39614922,-0.67278004,-0.31682172,0.5372628,-0.44834656,-0.2560109,0.5034983,-0.6175778,-0.041637987,0.14653498,0.5502081,-0.37427613,-0.07155969,0.42418134,-0.057884462,0.10572779,0.93346107,0.68569285,-0.26862386,0.68426996,0.56883824
2025-07-21 15:51:15.007,0.5200000000000001,520,26,0.23547558,0.055673286,0.06600925,0.045919467,-0.017776519,-0.023243507,0.0,0.0,0.0,0.0,0.004938871,-0.05545715,-0.042259496,-0.049728498,-0.03780969,-0.044487808,0.03929102,0.045443825,-0.001826316,0.021178192,0.07914737,0.019885335,0.058183182,0.048785344,0.023580173,0.08492183,0.03509656,0.015602222,-0.0047386675,0.20819862,0.033383854,-0.056280684,0.13286746,0.035261706,0.14653498,0.5502081,-0.37427613,-0.07155969,0.42418134,-0.057884462,0.10572779,0.93346107,0.68569285,-0.26862386,0.68426996,0.56883824,-0.6695008,-0.223041,0.26045212,-0.55971557,-0.49968103,-0.24974582,0.22418422,-0.48771036,-0.13924518,0.30395898,-0.97180045,0.10726823
2025-07-21 15:51:15.028,0.5400000000000001,540,27,-0.19980991,0.1081978,0.09960531,-0.01833009,-0.01093117,0.049529772,0.0,0.0,0.0,0.0,0.0005026563,-0.063246146,-0.040948454,-0.064472616,-0.043254834,-0.048155434,0.048767157,0.030577308,-0.0024370658,0.015205078,0.07667478,0.03692973,-0.071525864,-0.006992514,0.06423086,0.025459183,-0.05586627,-0.051915172,-0.0010987356,-0.13513042,-0.075231604,0.057316724,0.018923935,-0.06715817,-0.6695008,-0.223041,0.26045212,-0.55971557,-0.49968103,-0.24974582,0.22418422,-0.48771036,-0.13924518,0.30395898,-0.97180045,0.10726823,0.36893174,0.30905113,-0.35474,0.26443583,0.20616409,0.2635722,0.32757887,0.899601,0.2561295,-0.6168132,-0.6180448,0.33292145
2025-07-21 15:51:15.053,0.5600000000000002,560,28,0.08218311,-0.10115817,-0.18323742,0.026802875,-0.014268606,0.035181604,0.0,0.0,0.0,0.0,0.011584072,-0.022494836,-0.038827326,-0.05135355,-0.05015358,-0.03372746,0.04483778,0.06406806,0.015122319,0.017386585,0.056058493,0.041319974,0.005596297,0.041960828,0.0057347706,0.07973976,0.040856544,-0.0037347944,-0.04104075,0.2173077,0.0549895,-0.08161829,-0.081840925,0.04153676,0.36893174,0.30905113,-0.35474,0.26443583,0.20616409,0.2635722,0.32757887,0.899601,0.2561295,-0.6168132,-0.6180448,0.33292145,-0.5594277,-0.6689064,0.51623255,-0.5043804,-0.26822203,-0.3948747,0.66330904,-0.49466366,-0.46494043,1.0284771,0.45385125,0.28111672
2025-07-21 15:51:15.079,0.5800000000000002,580,29,-0.1201936,0.07495121,0.16988547,-0.019650193,0.036900703,0.0021403662,0.0,0.0,0.0,0.0,0.0061264513,-0.03189209,-0.019754194,-0.05645448,-0.06264687,-0.03987973,0.05326105,0.05622874,0.0011096078,0.023786439,0.070146106,0.039943803,-0.072196804,-0.010750972,0.03177287,-0.023561558,0.01718732,0.044496708,0.035307672,-0.05459478,-0.02104059,0.14177804,0.13018556,0.007949881,-0.5594277,-0.6689064,0.51623255,-0.5043804,-0.26822203,-0.3948747,0.66330904,-0.49466366,-0.46494043,1.0284771,0.45385125,0.28111672,0.3176421,-0.6168084,-0.20363872,0.24101068,-0.08995614,0.010497488,0.30575377,0.13941044,-0.14088203,-0.38704953,-0.9607565,-0.17950411
2025-07-21 15:51:15.094,0.6000000000000002,600,30,0.0620339,-0.06894188,0.098556034,0.052202523,-0.012209567,0.04289071,0.0,0.0,0.0,0.0,0.01565185,-0.0778517,-0.028675253,-0.051160485,-0.049520776,-0.04758244,0.05291437,0.038314648,-0.013430034,0.0065476554,0.04397808,0.021712782,-0.04286553,-0.07227615,-0.081449084,0.04943538,-0.009838226,0.051142223,-0.034066953,-0.023299616,0.006391642,-0.08895288,-0.13478802,-0.04757603,0.3176421,-0.6168084,-0.20363872,0.24101068,-0.08995614,0.010497488,0.30575377,0.13941044,-0.14088203,-0.38704953,-0.9607565,-0.17950411,0.12940963,0.8452483,0.36679867,-0.28073555,-0.0018698797,-0.9004667,-0.30904874,0.7960875,-0.37848067,0.24167706,0.20204604,0.6139746
2025-07-21 15:51:15.114,0.6200000000000002,620,31,0.31990778,-0.014110069,0.040497094,-0.0496728,0.003675644,0.044393625,0.0,0.0,0.0,0.0,0.016365329,-0.072812594,-0.031103294,-0.034841012,-0.048050694,-0.04903989,0.040130038,0.089415595,-0.013081215,0.00097644795,0.02088051,0.01960245,0.08199805,0.034948852,0.08090524,-0.056665864,-0.0132887885,0.01310479,-0.064161,0.16272965,0.014560403,0.06188242,0.048717815,-0.052906495,0.12940963,0.8452483,0.36679867,-0.28073555,-0.0018698797,-0.9004667,-0.30904874,0.7960875,-0.37848067,0.24167706,0.20204604,0.6139746,-0.23604439,-0.38052392,0.425961,-0.33104503,-0.19445932,-0.16649541,-0.05965451,-0.115192994,-0.30066204,0.43503407,-0.38393638,0.50990367
2025-07-21 15:51:15.134,0.6400000000000002,640,32,-0.118487924,0.045550805,0.057747632,-0.029050801,0.050670832,-0.046868823,0.0,0.0,0.0,0.0,0.016595436,-0.069670394,-0.013233195,-0.04214894,-0.06149573,-0.060038302,0.035732355,0.07293606,-0.022328598,0.007687708,0.017706256,0.036348224,-0.04485393,-0.075022794,-0.055256702,0.030272022,-0.01745265,0.008848404,-0.07370081,-0.089551546,-0.005495001,0.04834756,-0.13511458,0.034436315,-0.23604439,-0.38052392,0.425961,-0.33104503,-0.19445932,-0.16649541,-0.05965451,-0.115192994,-0.30066204,0.43503407,-0.38393638,0.50990367,0.37538025,0.3400519,0.23044959,-0.4980188,0.2695416,-0.39253646,0.13958445,0.762642,0.0012355,-0.13246144,0.5769176,0.6936518
2025-07-21 15:51:15.253,0.6600000000000003,660,33,0.08452723,0.13008614,0.014756732,-0.020320596,0.037257247,-0.046497647,0.0,0.0,0.0,0.0,0.029919926,-0.05466245,-0.016234566,-0.053680837,-0.03472891,-0.04530634,0.038915996,0.099774905,-0.025925854,-0.0032516762,0.031437334,0.0469405,0.07313211,0.15914585,-0.024164928,-0.0023691861,0.013351652,0.071524344,-0.0073818336,0.110698685,-0.035956137,-0.018269805,0.054583658,0.010310495,0.37538025,0.3400519,0.23044959,-0.4980188,0.2695416,-0.39253646,0.13958445,0.762642,0.0012355,-0.13246144,0.5769176,0.6936518,-0.49489972,-1.0634612,0.1546727,-0.48611978,-0.07306398,-0.32698354,0.31245726,-0.111867055,-0.34418738,0.6091884,-0.6625837,0.17977425
2025-07-21 15:51:15.262,0.6800000000000003,680,34,-0.15052396,-0.034493618,0.09978048,0.03504697,-0.009435647,-0.04393674,0.0,0.0,0.0,0.0,0.013864629,-0.06163462,-0.0072169374,-0.06462501,-0.019672431,-0.06178171,0.041556317,0.08977675,-0.027258167,0.0015525753,0.033585526,0.04649998,0.024496315,0.021329364,-0.026726075,-0.040459823,0.0031299049,-0.08417376,0.044255074,-0.031148914,0.06283525,0.04853752,-0.101189926,0.023765607,-0.49489972,-1.0634612,0.1546727,-0.48611978,-0.07306398,-0.32698354,0.31245726,-0.111867055,-0.34418738,0.6091884,-0.6625837,0.17977425,0.2814174,-0.15726599,0.18086208,-0.19119786,0.14248544,-0.10323181,0.19338971,0.2948707,0.10827446,0.015188569,-0.0025869738,0.26140237
2025-07-21 15:51:15.282,0.7000000000000003,700,35,0.1110551,-0.09676995,0.040615752,0.044216204,0.008372482,0.039162997,0.0,0.0,0.0,0.0,0.025734276,-0.05817575,-0.015943592,-0.046743993,-0.028459549,-0.05060827,0.04123549,0.09401733,-0.017267158,0.0051044016,0.025864488,0.03702839,0.0137032075,-0.006118875,-0.02840527,0.008757245,0.09796459,-0.06454478,0.013364764,-0.0062240483,0.043900024,-0.05804849,-0.010862382,-0.0008588641,0.2814174,-0.15726599,0.18086208,-0.19119786,0.14248544,-0.10323181,0.19338971,0.2948707,0.10827446,0.015188569,-0.0025869738,0.26140237,-0.18802387,-0.087636985,0.31901687,-0.43323952,-0.18646759,-0.5050673,0.14747906,0.28124088,-0.44801462,0.4753164,-0.12358033,0.46737728
2025-07-21 15:51:15.302,0.7200000000000003,720,36,-0.019519618,0.00087151065,0.04755823,0.013283085,0.049065616,0.003088012,0.0,0.0,0.0,0.0,0.02219452,-0.061544072,0.0012217184,-0.06428714,-0.032918766,-0.0635634,0.029084,0.09533946,-0.0262345,0.01066384,0.014224136,0.044319887,0.017657615,0.06415808,0.038489398,-0.068035886,0.02949829,-0.036919124,-0.02146015,-0.05332186,0.04485344,-0.059098218,-0.05750345,0.06615364,-0.18802387,-0.087636985,0.31901687,-0.43323952,-0.18646759,-0.5050673,0.14747906,0.28124088,-0.44801462,0.4753164,-0.12358033,0.46737728,0.0863292,-0.60652834,0.18446662,-0.3702336,0.05359287,-0.30123684,0.3059313,0.23474474,-0.3416726,0.343928,0.10611873,0.5322056
2025-07-21 15:51:15.327,0.7400000000000003,740,37,-0.037363105,0.0520595,0.14307083,-0.032075305,0.0574549,-0.0051038237,0.0,0.0,0.0,0.0,0.019259244,-0.074287996,-0.0067562335,-0.056034286,-0.015652813,-0.06718285,0.03481294,0.10307705,-0.031844992,0.007118665,0.01452834,0.045363873,0.06708441,-0.043393057,0.020592995,2.9477582e-05,0.09091077,0.04580427,-0.027472306,0.04223788,-0.006510936,0.05683481,0.009801332,-0.04802961,0.0863292,-0.60652834,0.18446662,-0.3702336,0.05359287,-0.30123684,0.3059313,0.23474474,-0.3416726,0.343928,0.10611873,0.5322056,0.1272968,-0.1592479,0.24171142,-0.33459634,-0.014828794,-0.33214322,-0.039511763,0.18029714,-0.102186754,0.074548155,-0.4076814,0.44168794
2025-07-21 15:51:15.343,0.7600000000000003,760,38,-0.08940546,-0.009971268,-0.10042086,-0.0104586575,0.049282327,-0.006851456,0.0,0.0,0.0,0.0,0.03629861,-0.09325946,-0.0028768126,-0.05451018,-0.0111665465,-0.059711162,0.024678007,0.08657224,-0.034676168,0.022391638,0.019231316,0.060394675,-0.03549039,0.03171156,-0.015785906,-0.056081112,0.039463528,0.033388004,-0.025095485,-0.0045131184,0.04320257,-0.06899723,-0.03393103,0.07717566,0.1272968,-0.1592479,0.24171142,-0.33459634,-0.014828794,-0.33214322,-0.039511763,0.18029714,-0.102186754,0.074548155,-0.4076814,0.44168794,-0.42506075,-0.47257987,0.23501574,-0.54211855,-0.044255763,-0.13968599,0.5948796,0.023851823,0.030887462,1.0056753,0.4880717,0.26648128
2025-07-21 15:51:15.410,0.7800000000000004,780,39,0.0028542113,0.0016296111,0.18250607,-0.049728617,-0.033221524,-0.048190936,0.0,0.0,0.0,0.0,0.022867512,-0.10837454,1.4840625e-05,-0.059291724,-0.01616834,-0.059661385,0.02788528,0.080780074,-0.029504713,0.038799167,0.03797293,0.032460712,0.021970317,0.0118663935,-0.011359861,0.0193161,0.055399608,0.042037327,-0.03475134,-0.055630025,0.050486285,-0.00971455,0.12789452,-0.05565736,-0.42506075,-0.47257987,0.23501574,-0.54211855,-0.044255763,-0.13968599,0.5948796,0.023851823,0.030887462,1.0056753,0.4880717,0.26648128,0.22050646,-0.38435057,-0.34830898,-0.11270376,-0.17683569,0.0005513504,0.46711212,-0.13667189,-0.0076645613,-0.29908687,-0.97103554,-0.07831718
2025-07-21 15:51:15.427,0.8000000000000004,800,40,-0.037604135,-0.11537925,-0.0041838,-0.007729345,0.053553067,-0.022045758,0.0,0.0,0.0,0.0,0.035157926,-0.11659073,-0.02218067,-0.06214988,-0.026551094,-0.049079802,0.035131473,0.05998339,-0.026095461,0.02708075,0.034682736,0.036259484,0.01335552,-0.036126312,-0.056128383,0.07628843,-0.011612604,-0.055483155,0.006835873,0.009335855,0.043777615,0.013486346,-0.034389365,-0.031613253,0.22050646,-0.38435057,-0.34830898,-0.11270376,-0.17683569,0.0005513504,0.46711212,-0.13667189,-0.0076645613,-0.29908687,-0.97103554,-0.07831718,-0.16886081,0.2957512,0.10143322,-0.14846714,0.19642386,-0.19715312,0.13861033,0.12784368,0.069029585,0.48330238,0.17704496,0.30106705
2025-07-21 15:51:15.445,0.8200000000000004,820,41,0.08104103,-0.029292792,0.041497685,-0.0076888534,0.004979676,0.015235363,0.0,0.0,0.0,0.0,0.020362804,-0.08868816,-0.013169068,-0.04873208,-0.005540456,-0.041035045,0.054391827,0.05944877,-0.009136937,0.01940126,0.03282331,0.025742587,-0.010954591,0.018791018,0.026183914,-0.048249673,-0.003492611,0.03450548,-0.033356488,-0.05363827,-0.009052204,-0.038810965,0.0747651,-0.07132557,-0.16886081,0.2957512,0.10143322,-0.14846714,0.19642386,-0.19715312,0.13861033,0.12784368,0.069029585,0.48330238,0.17704496,0.30106705,-0.053768698,-0.23918217,-0.1745788,-0.13627651,-0.13201305,-0.07364934,0.2862767,-0.015389938,0.0034082383,0.40402037,-0.23628922,0.0893103
2025-07-21 15:51:15.465,0.8400000000000004,840,42,-0.047847588,-0.016939806,0.042482432,-0.025920447,0.023684546,-0.046036057,0.0,0.0,0.0,0.0,0.016267398,-0.09161795,-0.023172455,-0.049617954,-0.026206253,-0.048085704,0.046431832,0.039390296,-0.016052427,0.029517151,0.012767215,0.01888053,0.0043185973,-0.009033523,0.038696155,-0.068993196,-0.01972564,0.0022959718,0.02143573,0.020827927,-0.059602585,-0.049193814,-0.015636146,-0.02814734,-0.053768698,-0.23918217,-0.1745788,-0.13627651,-0.13201305,-0.07364934,0.2862767,-0.015389938,0.0034082383,0.40402037,-0.23628922,0.0893103,-0.108132906,0.15351519,-0.03748784,-0.28553528,0.13742355,-0.23257059,0.07573266,0.099274695,-0.123302534,0.5092432,0.24544984,0.33762905
2025-07-21 15:51:15.519,0.8600000000000004,860,43,0.0331453,0.030350726,0.047803,-0.042173207,-0.0017366036,0.03318531,0.0,0.0,0.0,0.0,0.019189158,-0.06273486,-0.02785942,-0.057566788,-0.0067978683,-0.047701146,0.046365526,0.055328377,-0.01533227,0.031544305,0.027791925,0.026674967,0.0012189315,0.115723185,-0.057364397,0.0145558175,0.026795138,0.009915258,-0.03146115,0.002698965,-0.04675867,-0.04231688,0.06648049,-0.03181707,-0.108132906,0.15351519,-0.03748784,-0.28553528,0.13742355,-0.23257059,0.07573266,0.099274695,-0.123302534,0.5092432,0.24544984,0.33762905,-0.16611159,-0.9165487,-0.20279242,-0.2409326,-0.1718556,-0.17005283,0.3767979,-0.124332964,-0.23362936,0.3484449,-0.30184415,0.044502333
2025-07-21 15:51:15.547,0.8800000000000004,880,44,-0.16190495,-0.038307276,0.08541664,0.026460204,0.043521453,0.04237675,0.0,0.0,0.0,0.0,0.0056756195,-0.07839134,-0.03917921,-0.05196902,-0.027277915,-0.03564985,0.038337365,0.02851872,-0.009768858,0.04145995,0.0046882774,0.029432105,-0.01347874,-0.13142125,-0.03163328,0.01859387,-0.022541927,0.018314913,-0.047654994,-0.035049487,-0.061453052,0.048343837,0.009660849,-0.034394063,-0.16611159,-0.9165487,-0.20279242,-0.2409326,-0.1718556,-0.17005283,0.3767979,-0.124332964,-0.23362936,0.3484449,-0.30184415,0.044502333,0.091104604,0.6807022,-0.08958402,-0.002807363,0.0979074,-0.07284321,-0.13421589,0.33117643,0.24464749,-0.046631046,0.35261142,0.26313663
2025-07-21 15:51:15.567,0.9000000000000005,900,45,0.1274393,0.075444385,-0.075257875,-0.039659165,-0.013771981,-0.04838008,0.0,0.0,0.0,0.0,0.014897765,-0.08047442,-0.026975688,-0.050174166,-0.016976595,-0.044042327,0.044312075,0.056684677,-0.0058784448,0.028742688,0.019217966,0.019554919,0.049061175,0.024843268,0.040943623,0.0090783555,0.0865601,0.061248615,0.033057112,0.083647095,0.015690634,0.049555264,0.08077512,-0.018346706,0.091104604,0.6807022,-0.08958402,-0.002807363,0.0979074,-0.07284321,-0.13421589,0.33117643,0.24464749,-0.046631046,0.35261142,0.26313663,-0.29016045,-0.28962457,0.022664826,-0.46167973,-0.5463497,-0.3130133,0.37867743,-0.415731,-0.12439634,0.6543555,0.03484858,-0.2926573
2025-07-21 15:51:15.587,0.9200000000000005,920,46,-0.18816535,0.03363036,0.08907572,0.047320455,0.0038101922,-0.0037220186,0.0,0.0,0.0,0.0,0.00818585,-0.08158628,-0.024393275,-0.048642028,-0.02853932,-0.049890436,0.040694732,0.037781082,0.0022571967,0.047633246,0.02157223,0.015565394,-0.08831329,-0.08033684,0.0035873875,-0.043743752,-0.013302825,-0.0024870685,-0.031320367,-0.09843559,0.053133294,0.0131550785,-0.046588935,0.04244778,-0.29016045,-0.28962457,0.022664826,-0.46167973,-0.5463497,-0.3130133,0.37867743,-0.415731,-0.12439634,0.6543555,0.03484858,-0.2926573,0.29463378,0.6840796,-0.39490846,-0.048087604,-0.18143669,-0.20032644,0.119954586,0.41114634,0.37245214,-0.12766977,0.75219506,0.34472647
2025-07-21 15:51:15.607,0.9400000000000005,940,47,0.11600273,0.022826174,0.028147886,0.008839222,0.00811735,-0.04742459,0.0,0.0,0.0,0.0,0.01657191,-0.043444794,-0.037704565,-0.053047363,-0.05060772,-0.03724385,0.045406077,0.04180954,0.004775578,0.03439311,0.049565166,0.015674252,0.02102987,0.09076786,-0.074586704,0.08587609,-0.06889652,0.026730498,-0.02197694,0.0052122185,-0.03884157,-0.06881627,0.16340795,-0.025711685,0.29463378,0.6840796,-0.39490846,-0.048087604,-0.18143669,-0.20032644,0.119954586,0.41114634,0.37245214,-0.12766977,0.75219506,0.34472647,-0.28091067,-0.38465375,-0.20031115,-0.22744636,-0.23580417,0.040290885,0.24358326,-0.4011527,0.05552478,0.033564903,-0.60481966,0.119026
2025-07-21 15:51:15.628,0.9600000000000005,960,48,-0.14189231,-0.031590696,0.10809367,0.016556762,0.05625772,0.025127256,0.0,0.0,0.0,0.0,0.006785646,-0.050585713,-0.035460368,-0.046829887,-0.063532166,-0.044922,0.039322626,0.03406332,-0.006395993,0.025724813,0.05346315,0.012030938,0.041590173,-0.10439203,0.020019934,0.054559328,-0.031550642,0.05385495,-0.014068714,-0.100834675,0.049375135,-0.07992098,-0.1363106,-0.04550269,-0.28091067,-0.38465375,-0.20031115,-0.22744636,-0.23580417,0.040290885,0.24358326,-0.4011527,0.05552478,0.033564903,-0.60481966,0.119026,0.08017478,0.97715086,0.031225864,0.0378405,0.1701842,-0.44899517,-0.052223355,0.7404264,0.17472963,-0.32334217,0.3593843,0.58625567
2025-07-21 15:51:15.647,0.9800000000000005,980,49,0.12959924,0.02600741,-0.08807013,-0.002600506,0.013411825,0.0072408477,0.0,0.0,0.0,0.0,0.010043026,-0.020105127,-0.044609237,-0.049827393,-0.028461367,-0.053312976,0.038250953,0.06437517,0.010291329,0.0061606374,0.06101924,0.011476843,-0.032259304,0.1708332,0.025707975,0.016574578,-0.00019791852,-0.06970097,0.036052905,0.13013747,0.075768866,0.022536283,0.09971178,0.05737434,0.08017478,0.97715086,0.031225864,0.0378405,0.1701842,-0.44899517,-0.052223355,0.7404264,0.17472963,-0.32334217,0.3593843,0.58625567,-0.3146158,-0.87468654,-0.022595454,-0.38582993,-0.5425446,-0.41448626,0.16894557,-0.38700056,-0.2598045,0.4696556,-0.26947513,-0.12540191
2025-07-21 15:51:15.667,1.0000000000000004,1000,50,-0.19253264,0.061021175,0.0051620193,0.016850373,0.019627033,0.011036813,0.0,0.0,0.0,0.0,0.0005634347,-0.02586285,-0.040573917,-0.057999965,-0.063985385,-0.043979432,0.025686627,0.036242507,-0.0037609183,0.011208465,0.06491799,0.010467565,0.046069395,0.0057650968,0.06706329,0.0145341,-0.13904077,-0.05712667,-0.021683117,-0.1018817,0.024443373,0.051132303,-0.009788682,-0.024257552,-0.3146158,-0.87468654,-0.022595454,-0.38582993,-0.5425446,-0.41448626,0.16894557,-0.38700056,-0.2598045,0.4696556,-0.26947513,-0.12540191,0.066088475,-0.356101,-0.3020804,-0.10552391,0.4983898,0.21490842,0.025265232,0.41197824,0.2853721,-0.025240643,0.3807874,0.3880963
2025-07-21 15:51:15.687,1.0200000000000005,1020,51,0.16935728,-0.01854958,0.13296255,0.029069085,0.042967513,0.003657562,0.0,0.0,0.0,0.0,0.01636678,-0.033249766,-0.047128778,-0.053647727,-0.0690645,-0.039856073,0.025153259,0.051109053,0.0053264694,0.014251055,0.06489365,0.0041754805,-0.04840234,-0.11497805,-0.079612486,0.043304466,0.02578001,-0.015588332,-0.033899307,-0.0015610236,0.040393032,-0.010620205,0.06959633,0.057441268,0.066088475,-0.356101,-0.3020804,-0.10552391,0.4983898,0.21490842,0.025265232,0.41197824,0.2853721,-0.025240643,0.3807874,0.3880963,-0.20155317,0.39777726,0.13514407,-0.07306962,-0.17370874,-0.52906364,-0.14852408,0.28544247,-0.3224454,-0.090032876,-0.5354426,0.40108952
2025-07-21 15:51:15.707,1.0400000000000005,1040,52,-0.028128529,0.00674769,-0.09013952,0.05353993,-0.02734146,0.03438927,0.0,0.0,0.0,0.0,0.017967613,-0.0322123,-0.038669083,-0.037337568,-0.05945997,-0.041892376,0.0075116637,0.066637084,0.00645904,0.014358114,0.04855036,0.013781824,0.06310027,0.033838775,-0.034429844,0.041712977,0.055866424,0.036247052,0.030397305,0.034648817,-0.07404316,-0.056383766,-0.07271338,-0.04818112,-0.20155317,0.39777726,0.13514407,-0.07306962,-0.17370874,-0.52906364,-0.14852408,0.28544247,-0.3224454,-0.090032876,-0.5354426,0.40108952,-0.19310418,-0.34850198,0.054693345,-0.4810049,-0.047177114,-0.39823282,0.34512702,0.1762329,-0.5309931,0.7965485,0.47845545,0.19036332
2025-07-21 15:51:15.727,1.0600000000000005,1060,53,-0.057693638,0.017746635,-0.00037778006,0.008718959,0.023871802,-0.03006545,0.0,0.0,0.0,0.0,0.009916685,-0.032363754,-0.022936128,-0.055216454,-0.054385606,-0.04505933,0.012444205,0.072969414,-0.019421363,0.025906026,0.085587785,0.013665997,0.015189514,-0.07446949,0.043391366,0.050924025,-0.03357465,0.028489476,-0.039924663,-0.051842812,0.028744765,-0.011255299,0.0055935727,0.0003826089,-0.19310418,-0.34850198,0.054693345,-0.4810049,-0.047177114,-0.39823282,0.34512702,0.1762329,-0.5309931,0.7965485,0.47845545,0.19036332,-0.045688298,-0.03866697,-0.18933333,-0.23693235,0.20172042,-0.2378299,0.31545964,0.09372698,-0.13170432,0.3610895,0.6042028,0.28867084
2025-07-21 15:51:15.778,1.0800000000000005,1080,54,0.04622693,-0.036340863,0.036009,-0.023733795,-0.03148605,-0.009273765,0.0,0.0,0.0,0.0,0.005610479,-0.020321032,-0.04193251,-0.053572018,-0.029747134,-0.05003811,0.021137772,0.0679538,-0.013532312,0.032788392,0.10156775,0.020735877,0.040328767,0.077717096,-0.058229752,0.066118345,-0.0031249842,-0.031737514,-0.026925815,-0.06701601,0.0634703,0.034837663,0.024698758,0.049134944,-0.045688298,-0.03866697,-0.18933333,-0.23693235,0.20172042,-0.2378299,0.31545964,0.09372698,-0.13170432,0.3610895,0.6042028,0.28867084,-0.06399418,-0.6082226,-0.35291162,-0.08711149,-0.17047033,-0.29127303,0.31641713,-0.12885116,-0.13811813,0.085566,0.003330851,0.15417881
2025-07-21 15:51:15.798,1.1000000000000005,1100,55,-0.13924067,-0.01717855,0.087018624,0.0055444497,0.041911412,0.03628163,0.0,0.0,0.0,0.0,0.013207389,-0.044756833,-0.046011496,-0.043308023,-0.028629998,-0.059263125,0.024779398,0.047737136,-0.014770449,0.03683395,0.09423669,0.02170559,-0.029529463,-0.13622381,0.021262582,0.021621563,0.030453961,-0.0101844305,-0.03242769,-0.11009247,-0.0716406,-0.051647794,-0.09416385,0.023593115,-0.06399418,-0.6082226,-0.35291162,-0.08711149,-0.17047033,-0.29127303,0.31641713,-0.12885116,-0.13811813,0.085566,0.003330851,0.15417881,0.09038452,0.9615896,-0.22896959,-0.031122088,-0.051515408,-0.61035913,-0.29984155,0.646369,0.1382962,-0.25535807,0.64136434,0.5050452
2025-07-21 15:51:15.818,1.1200000000000006,1120,56,0.09993367,0.1516794,-0.18039453,0.043943487,-0.017051952,0.03627331,0.0,0.0,0.0,0.0,0.006954804,-0.038891476,-0.049724508,-0.039389476,-0.029316531,-0.06693672,0.021827482,0.06838994,-0.012538215,0.025394905,0.12360763,0.018167755,-0.02906313,0.09206003,-0.06105968,-0.056229863,-0.055666264,-0.055695817,-0.0020781895,0.09414237,-0.042060394,-0.05618209,0.029797304,-0.04433053,0.09038452,0.9615896,-0.22896959,-0.031122088,-0.051515408,-0.61035913,-0.29984155,0.646369,0.1382962,-0.25535807,0.64136434,0.5050452,-0.3530629,-0.42707586,-0.13743125,-0.31082833,-0.18661681,-0.172643,0.29715693,-0.2714051,-0.030762978,0.49791458,0.19527653,0.13423952
2025-07-21 15:51:15.838,1.1400000000000006,1140,57,-0.12650669,0.022344016,0.022078045,0.05607672,0.01198319,0.009410598,0.0,0.0,0.0,0.0,0.0056910934,-0.035818405,-0.035203066,-0.04623078,-0.04418605,-0.058936913,0.019315286,0.056829367,-0.00944105,0.020003993,0.12878245,0.03478857,0.044038225,-0.015345474,-0.048337072,-0.08629929,0.03144199,0.029748159,0.028587027,-0.04231947,-0.03526523,0.032605108,-0.020668944,-0.038414456,-0.3530629,-0.42707586,-0.13743125,-0.31082833,-0.18661681,-0.172643,0.29715693,-0.2714051,-0.030762978,0.49791458,0.19527653,0.13423952,-0.048485603,0.11160367,-0.61652845,0.18127398,-0.13985059,-0.08520209,0.24204513,-0.25473535,-0.01821331,0.23160416,0.18472913,-0.05745764
2025-07-21 15:51:15.858,1.1600000000000006,1160,58,0.05004058,-0.048293855,-0.021098156,0.014657034,-0.008273566,-0.003825135,0.0,0.0,0.0,0.0,0.004730072,-0.021071369,-0.053255968,-0.040869817,-0.047455665,-0.050659332,0.037387565,0.039888155,-0.018552925,0.027852042,0.106847376,0.027984433,-0.02634249,0.059994295,0.010468755,-0.023189869,0.03490542,0.028793156,-0.04381027,-0.07821501,-0.030386847,-0.027460095,-0.04371086,0.008892523,-0.048485603,0.11160367,-0.61652845,0.18127398,-0.13985059,-0.08520209,0.24204513,-0.25473535,-0.01821331,0.23160416,0.18472913,-0.05745764,-0.012634504,-0.026174998,-0.51506716,0.031066924,-0.14690852,-0.1823743,0.109007165,-0.09194648,0.14591417,0.048985757,0.55336237,0.09957911
2025-07-21 15:51:15.944,1.1800000000000006,1180,59,-0.008770871,0.026894514,0.037451807,-0.009662875,-0.035036467,0.0076529253,0.0,0.0,0.0,0.0,0.015507115,-0.03205725,-0.06140883,-0.048547275,-0.036254995,-0.05315921,0.034032486,0.0107013555,-0.0073848525,0.020023271,0.13702933,0.0116772475,0.04666799,-0.040700905,-0.009827433,0.048789807,-0.01554822,-0.047451235,-0.01352144,0.0036206788,0.055633258,-0.05015784,0.07003594,0.06670572,-0.012634504,-0.026174998,-0.51506716,0.031066924,-0.14690852,-0.1823743,0.109007165,-0.09194648,0.14591417,0.048985757,0.55336237,0.09957911,-0.089452304,0.21586278,-0.42541125,0.10828089,-0.32497528,-0.43668756,0.04264921,-0.21881706,0.015591815,-0.1446435,-0.03433957,0.17228553
2025-07-21 15:51:15.996,1.2000000000000006,1200,60,-0.09073272,-0.012964897,-0.12326894,-0.038492784,-0.024827048,0.046088804,0.0,0.0,0.0,0.0,0.009319323,-0.004983721,-0.069727816,-0.035929166,-0.054989643,-0.058977976,0.027764507,-0.003305378,-0.0036029601,0.021750074,0.120477855,0.01459968,-0.020359056,0.008956742,-0.07927663,0.035729777,-0.07498958,-0.085128054,-0.070536,-0.11420778,-0.04135275,-0.011556716,-0.072754346,0.027013462,-0.089452304,0.21586278,-0.42541125,0.10828089,-0.32497528,-0.43668756,0.04264921,-0.21881706,0.015591815,-0.1446435,-0.03433957,0.17228553,0.16732365,0.1166228,-0.785548,-0.40656415,0.4227986,0.107062526,-0.010888964,0.38462424,0.68195176,-0.03141512,0.94547796,0.49893776
2025-07-21 15:51:16.016,1.2200000000000006,1220,61,0.10617579,0.05886262,0.057337802,-0.01059279,-0.04142868,-0.03540888,0.0,0.0,0.0,0.0,0.0012104389,-0.00107315,-0.086181015,-0.045756243,-0.032067407,-0.046978258,0.035683025,0.020289162,-0.005916525,0.010167534,0.1279468,0.028816452,0.068084225,0.03819075,-0.0057963124,-0.044680208,0.13883172,-0.035714447,-0.002028886,-0.0038737706,-0.026206348,-0.053559873,0.17641304,-0.066529974,0.16732365,0.1166228,-0.785548,-0.40656415,0.4227986,0.107062526,-0.010888964,0.38462424,0.68195176,-0.03141512,0.94547796,0.49893776,-0.5260624,-0.24895173,0.03498439,-0.13630709,-0.8715177,-0.098733954,0.2114971,-0.24666928,-0.12251933,0.26221213,-0.59455526,-0.022581533
2025-07-21 15:51:16.036,1.2400000000000007,1240,62,-0.15016994,0.061763633,0.013655721,-0.022040546,0.020125631,-0.033146195,0.0,0.0,0.0,0.0,0.0070092217,-0.020298414,-0.07422359,-0.044426575,-0.047988024,-0.049013693,0.037268702,0.014868863,0.008894487,0.0068457588,0.14581823,0.016185358,0.001643973,-0.04918196,0.0073004537,-0.017602498,-0.039039984,0.039798632,0.01957144,-0.07277689,-0.005877403,0.032097302,0.0019894878,0.007366677,-0.5260624,-0.24895173,0.03498439,-0.13630709,-0.8715177,-0.098733954,0.2114971,-0.24666928,-0.12251933,0.26221213,-0.59455526,-0.022581533,0.4221535,0.25062138,-0.5119197,-0.004570446,0.33034015,0.09563414,0.14876725,0.4220575,0.16945404,-0.18227045,-0.049318664,0.17109919
2025-07-21 15:51:16.083,1.2600000000000007,1260,63,0.049603287,-0.025857238,-0.11455227,0.018626614,0.025395675,0.009291406,0.0,0.0,0.0,0.0,0.014233069,0.001132691,-0.07027835,-0.037456494,-0.033908714,-0.054413527,0.033369824,0.02069173,0.008271064,-0.004396456,0.10832736,0.024203198,0.028402202,0.09940451,-0.07756626,-0.035027742,0.002790914,-0.068983324,0.042037673,0.07357603,-0.019586893,-0.060398363,-0.082706295,0.0221481,0.4221535,0.25062138,-0.5119197,-0.004570446,0.33034015,0.09563414,0.14876725,0.4220575,0.16945404,-0.18227045,-0.049318664,0.17109919,-0.21283318,-0.4179957,0.14862503,-0.29568732,-0.16175404,-0.22851306,0.47911012,-0.42683196,-0.2750857,0.44918707,0.27337772,0.118664205
2025-07-21 15:51:16.103,1.2800000000000007,1280,64,-0.08466144,0.04886594,0.032725736,0.05689,0.03074462,0.0023417303,0.0,0.0,0.0,0.0,0.014803425,-0.009177326,-0.051038142,-0.04744932,-0.040923618,-0.048760884,0.043988205,0.0020022704,0.0010351435,0.016834097,0.10756957,0.024421778,0.0039470703,-0.09385435,0.065849066,-0.08326376,-0.06762855,-0.051608913,0.034568872,-0.028542157,0.0063848267,0.004023274,0.007676721,0.022416212,-0.21283318,-0.4179957,0.14862503,-0.29568732,-0.16175404,-0.22851306,0.47911012,-0.42683196,-0.2750857,0.44918707,0.27337772,0.118664205,-0.009809907,0.3776896,-0.32364115,-0.046002947,0.17857626,-0.31348738,0.0091196,0.11027521,0.049657807,-0.04817961,0.10801153,0.32354704
2025-07-21 15:51:16.125,1.3000000000000007,1300,65,0.09752879,-0.06749791,-0.054731745,0.02371479,-0.009257506,0.046919595,0.0,0.0,0.0,0.0,0.014247571,-0.0052085593,-0.06927108,-0.04769292,-0.02520203,-0.049868196,0.043790955,-0.0003479889,0.0036238884,0.011767604,0.110518746,0.027877022,0.020752959,0.011307888,0.041327406,-0.009270679,0.09519393,0.042112727,-0.09238583,0.070212774,0.03368525,0.034076184,0.024651527,0.035154447,-0.009809907,0.3776896,-0.32364115,-0.046002947,0.17857626,-0.31348738,0.0091196,0.11027521,0.049657807,-0.04817961,0.10801153,0.32354704,-0.22528979,-0.21591339,-0.010262724,-0.050793856,-0.7293785,-0.30991682,0.46797028,-0.26832625,-0.46472788,0.26508644,0.02030895,-0.057390697
2025-07-21 15:51:16.144,1.3200000000000007,1320,66,-0.09271619,-0.012077579,-0.057426758,-0.028315647,0.028806888,0.0068555768,0.0,0.0,0.0,0.0,0.0109309275,-0.0098891705,-0.060377322,-0.04584237,-0.030799482,-0.049475677,0.045055397,-0.002443928,-0.02418741,0.0202496,0.097384974,0.027220706,-0.050750215,-0.0783916,-0.034710813,0.013349751,-0.09600707,0.05572712,-0.051127136,-0.09586659,-0.026626453,-0.050012443,-0.04001134,-0.06870885,-0.22528979,-0.21591339,-0.010262724,-0.050793856,-0.7293785,-0.30991682,0.46797028,-0.26832625,-0.46472788,0.26508644,0.02030895,-0.057390697,0.08951569,0.103101306,-0.66265005,-0.32482147,0.2607728,0.16191468,0.26351833,0.51531434,0.6408948,0.28432217,1.0637408,0.49996164
2025-07-21 15:51:16.163,1.3400000000000007,1340,67,0.17737506,0.0043986076,0.11366239,0.007394833,-0.029018397,-0.024118254,0.0,0.0,0.0,0.0,0.021685254,0.006061133,-0.055752657,-0.047566388,-0.03645754,-0.04701098,0.05187227,0.014521198,0.007082332,0.012923543,0.11842339,0.010055077,-0.026533453,-0.016115457,0.02011643,-0.04364465,0.020122036,0.07147736,0.076937586,0.035510585,0.08202823,0.076990195,0.16406529,0.026155679,0.08951569,0.103101306,-0.66265005,-0.32482147,0.2607728,0.16191468,0.26351833,0.51531434,0.6408948,0.28432217,1.0637408,0.49996164,-0.25934318,-0.21686435,-0.10329154,-0.16287501,-0.673428,-0.1339981,0.29378715,-0.43326017,-0.1763565,0.111330524,-0.58314085,0.0041409284
2025-07-21 15:51:16.183,1.3600000000000008,1360,68,-0.21634398,-0.08124279,0.031075792,0.037432402,0.0060924888,-0.025842391,0.0,0.0,0.0,0.0,0.0065703327,-0.003406092,-0.058861848,-0.044873532,-0.03428792,-0.04377613,0.0467721,0.015478741,0.004511631,0.024513908,0.1087564,0.016856238,-0.07942288,-0.11294943,-0.06460363,0.018212909,-0.10885752,-0.0054549463,0.031440344,-0.08154068,-0.068229645,-0.07526925,-0.13893157,0.018258862,-0.25934318,-0.21686435,-0.10329154,-0.16287501,-0.673428,-0.1339981,0.29378715,-0.43326017,-0.1763565,0.111330524,-0.58314085,0.0041409284,0.051473144,0.654969,-0.17771737,-0.1795511,0.4438484,-0.40544727,-0.019798249,0.54819554,0.10897574,-0.19500953,0.6402581,0.7058394
2025-07-21 15:51:16.203,1.3800000000000008,1380,69,0.18737498,0.0665554,-0.014932049,-0.0045427703,0.018740218,-0.01185538,0.0,0.0,0.0,0.0,0.010008676,0.0077316165,-0.058871992,-0.050743915,-0.032712575,-0.041754134,0.041196756,0.032730635,0.00067625486,0.008689163,0.12159526,0.03436779,0.0017766013,0.141354,0.0622673,-0.014216348,0.16917355,-0.039125662,0.02194226,0.055861533,0.027492056,0.009012691,0.06616958,0.04401868,0.051473144,0.654969,-0.17771737,-0.1795511,0.4438484,-0.40544727,-0.019798249,0.54819554,0.10897574,-0.19500953,0.6402581,0.7058394,-0.27982026,-0.9407469,-0.0971048,-0.2569623,-1.1481663,-0.43531442,0.3135066,-0.16075563,-0.46180284,0.32405436,-0.42042804,-0.037447326
2025-07-21 15:51:16.227,1.4000000000000008,1400,70,-0.20715879,-0.055565972,0.019030577,0.01893101,-0.040599983,-0.049374383,0.0,0.0,0.0,0.0,0.0027603004,0.018824631,-0.058982767,-0.037999187,-0.0392598,-0.061239388,0.043432165,0.03795517,-0.014520488,0.014925839,0.10262296,0.027153045,-0.037405476,0.00492304,0.02050877,0.02293621,-0.11987336,-0.05959193,0.025415754,-0.11423355,0.007703003,-0.052209087,-0.1486213,-0.018734168,-0.27982026,-0.9407469,-0.0971048,-0.2569623,-1.1481663,-0.43531442,0.3135066,-0.16075563,-0.46180284,0.32405436,-0.42042804,-0.037447326,0.16832095,-0.24587941,-0.20229696,-0.38698584,0.25931773,-0.26055565,0.22728026,0.6044699,0.1870583,-0.061522514,0.78775084,0.6304656
2025-07-21 15:51:16.244,1.4200000000000008,1420,71,0.08137512,-0.007077766,0.097164504,-0.017308667,-0.043691307,-0.044392128,0.0,0.0,0.0,0.0,0.01321198,-0.0077227494,-0.052411027,-0.058652505,-0.034931906,-0.06400255,0.035410658,0.05219074,0.0012819394,0.015443327,0.13250846,0.041419644,-0.018293448,-0.035551626,-0.039780196,0.02557104,0.11773497,0.051587503,-0.04282457,0.104976416,0.051531736,-0.01788591,0.063376546,0.03146326,0.16832095,-0.24587941,-0.20229696,-0.38698584,0.25931773,-0.26055565,0.22728026,0.6044699,0.1870583,-0.061522514,0.78775084,0.6304656,-0.44660255,-0.16488591,0.13779244,-0.42867202,-0.46007958,-0.43412164,0.21261646,-0.091644526,-0.52280384,0.11387947,-0.6645361,0.48537076
2025-07-21 15:51:16.263,1.4400000000000008,1440,72,-0.02585444,0.030187001,-0.006173573,0.0419863,-0.010431733,0.048341706,0.0,0.0,0.0,0.0,0.0066700946,-0.019493736,-0.05968557,-0.063588664,-0.03925721,-0.057335943,0.04353197,0.054505903,-0.01217983,0.014394951,0.12769425,0.04056434,0.056675762,0.005964777,0.069180705,0.06252309,-0.1155,-0.06326841,-0.02495014,-0.09303026,-0.0756769,0.020001534,-0.051111642,-0.012906711,-0.44660255,-0.16488591,0.13779244,-0.42867202,-0.46007958,-0.43412164,0.21261646,-0.091644526,-0.52280384,0.11387947,-0.6645361,0.48537076,-0.06277447,-0.06883804,-0.1738658,-0.117068835,0.25948972,0.15291911,0.31576112,0.5971006,0.119763464,0.0649776,0.199551,0.6126394
2025-07-21 15:51:16.283,1.4600000000000009,1460,73,0.16771664,0.03316132,-0.019198379,-0.0351862,0.01977497,0.04557012,0.0,0.0,0.0,0.0,0.007048888,-0.021567099,-0.040974464,-0.053508945,-0.023389446,-0.058432024,0.04926269,0.070319206,-0.025285287,0.0071737557,0.10333066,0.04199449,0.014910543,0.008742523,-0.021941038,0.036366835,0.11830819,0.05329224,-0.0056596384,0.029114842,-0.056622766,0.035054736,0.045563232,0.045199085,-0.06277447,-0.06883804,-0.1738658,-0.117068835,0.25948972,0.15291911,0.31576112,0.5971006,0.119763464,0.0649776,0.199551,0.6126394,-0.34067863,-0.5032057,-0.06733002,-0.29359,-0.40057087,-0.3487139,0.4649726,-0.15080425,-0.20562433,0.7645138,-0.13245995,-0.017655954
2025-07-21 15:51:16.303,1.4800000000000009,1480,74,-0.15631624,-0.0291594,0.12758572,0.039263807,0.016414667,-0.01568663,0.0,0.0,0.0,0.0,-0.00025284605,-0.04983821,-0.052849695,-0.05674919,-0.048586965,-0.060006283,0.05781799,0.050775208,-0.025264207,0.021569595,0.09916488,0.041681323,0.051294725,-0.108569294,0.050832886,-0.03353375,-0.063754424,0.062867746,0.014365842,-0.041096956,-0.024329673,-0.037021358,-0.077249214,-0.022001617,-0.34067863,-0.5032057,-0.06733002,-0.29359,-0.40057087,-0.3487139,0.4649726,-0.15080425,-0.20562433,0.7645138,-0.13245995,-0.017655954,0.089064725,0.8117243,-0.15038852,-0.06534519,0.17002219,-0.26584828,0.025316343,0.291793,-0.014410183,-0.12053588,0.0031390581,0.6218835
2025-07-21 15:51:16.327,1.5000000000000009,1500,75,0.110802494,-0.018850641,-0.013971775,0.041625723,0.04680066,-0.0038877379,0.0,0.0,0.0,0.0,0.013979654,-0.028058572,-0.05392693,-0.047917064,-0.028076785,-0.05051791,0.047293514,0.077775046,-0.010172963,0.010306415,0.08166675,0.04479695,0.0215897,0.11712174,-0.0039499607,0.05737615,0.0025595548,-0.045099042,-0.066884615,0.052332845,0.032140363,-0.08199528,-0.06804267,0.037116818,0.089064725,0.8117243,-0.15038852,-0.06534519,0.17002219,-0.26584828,0.025316343,0.291793,-0.014410183,-0.12053588,0.0031390581,0.6218835,-0.31704602,-0.6184348,0.072980374,-0.324771,-0.20042354,-0.49804732,0.27477634,-0.123360634,-0.2575137,0.36689314,-0.15794443,0.48882923
2025-07-21 15:51:16.344,1.520000000000001,1520,76,-0.06048456,-0.052057147,0.031771716,0.043926828,0.05792702,-0.032238778,0.0,0.0,0.0,0.0,-0.005101369,-0.031650644,-0.0357127,-0.04435146,-0.04784037,-0.052494287,0.04940833,0.051233012,-0.027109543,0.019923782,0.050387494,0.058396734,0.03630561,0.0065527027,-0.021513317,0.0076880334,0.030114673,0.041134715,-0.0048780036,-0.0019419348,-0.010665141,-0.0027345053,-0.11972829,0.012342016,-0.31704602,-0.6184348,0.072980374,-0.324771,-0.20042354,-0.49804732,0.27477634,-0.123360634,-0.2575137,0.36689314,-0.15794443,0.48882923,0.0009150852,-0.27995622,0.07330394,-0.48835987,0.05153624,-0.33669373,0.2640727,0.29032832,0.01710555,0.37871498,0.44176292,0.49725702
2025-07-21 15:51:16.363,1.540000000000001,1540,77,0.07604093,0.05289553,0.0781166,0.006058224,0.062397417,-0.022669634,0.0,0.0,0.0,0.0,0.008320351,-0.04479245,-0.028938234,-0.067070834,-0.03177693,-0.06327588,0.040378336,0.05271929,-0.020407787,0.017500866,0.07864126,0.061361488,0.06565695,-0.07618413,0.031803034,-0.06353487,0.040855914,-0.04166004,-0.053472772,-0.0017859342,0.034511358,0.07580973,0.0966655,-0.040264525,0.0009150852,-0.27995622,0.07330394,-0.48835987,0.05153624,-0.33669373,0.2640727,0.29032832,0.01710555,0.37871498,0.44176292,0.49725702,-0.075659566,-0.04678879,0.06486791,-0.07729953,-0.1884203,-0.23885816,0.042418435,0.09343769,-0.13674964,0.13025184,-0.4871889,0.2675565
2025-07-21 15:51:16.383,1.560000000000001,1560,78,0.008464046,-0.04331886,-0.06802723,0.019513091,0.052381106,0.03846085,0.0,0.0,0.0,0.0,0.0005267903,-0.049633183,-0.03500211,-0.046234395,-0.034767535,-0.06778899,0.04006976,0.056806933,-0.029817337,0.021232828,0.06949795,0.044189993,0.04699661,-0.0046106214,-0.052315276,-0.00914763,0.01252261,0.014499414,0.017509088,0.033258304,-0.059256665,-0.04475444,-0.028686346,-0.0011953036,-0.075659566,-0.04678879,0.06486791,-0.07729953,-0.1884203,-0.23885816,0.042418435,0.09343769,-0.13674964,0.13025184,-0.4871889,0.2675565,-0.18655242,-0.117714025,0.012788009,-0.35574692,0.012789421,-0.13384998,0.3486017,0.029333305,-0.06781754,0.91786104,0.3505097,0.20588492
2025-07-21 15:51:16.403,1.580000000000001,1580,79,0.09832288,0.014234922,0.09426101,0.009762754,0.052651126,-0.040370252,0.0,0.0,0.0,0.0,0.004785848,-0.04505845,-0.03911039,-0.060501106,-0.031164061,-0.04983747,0.040393647,0.05239476,-0.02273001,0.040883645,0.07339706,0.040627353,0.03176299,0.0005099474,0.041202173,-0.052679967,0.06019298,0.091100216,-0.039661814,0.0059005725,-0.047729645,-0.027025139,0.09543852,0.012815508,-0.18655242,-0.117714025,0.012788009,-0.35574692,0.012789421,-0.13384998,0.3486017,0.029333305,-0.06781754,0.91786104,0.3505097,0.20588492,-0.06642213,-0.48622784,-0.13643207,-0.17723478,-0.21139783,-0.18141508,0.29127675,-0.099367484,-0.25084662,0.33007637,-0.45843664,0.03801909
2025-07-21 15:51:16.423,1.600000000000001,1600,80,-0.13940048,-0.027392503,-0.021365073,0.02333337,0.040350962,-0.01407691,0.0,0.0,0.0,0.0,-0.0010209214,-0.070458114,-0.03213074,-0.05501397,-0.042108264,-0.050020266,0.04858574,0.038679793,-0.018596508,0.029705742,0.065285094,0.04258895,-0.060379278,-0.030183395,-0.025244247,0.06765605,-0.062795095,0.048658725,-0.07332579,-0.08842011,0.0007930364,-0.021758396,-0.05425913,-0.038405567,-0.06642213,-0.48622784,-0.13643207,-0.17723478,-0.21139783,-0.18141508,0.29127675,-0.099367484,-0.25084662,0.33007637,-0.45843664,0.03801909,0.0070273923,0.03229844,-0.33650172,-0.25493926,0.38348112,0.026832856,0.30417025,0.47125384,0.4150704,0.5141933,0.74810237,0.3824058
2025-07-21 15:51:16.446,1.620000000000001,1620,81,0.16640644,-0.038233377,0.073395886,-0.0058386265,-0.01632795,0.032286286,0.0,0.0,0.0,0.0,0.008348369,-0.05910719,-0.04004208,-0.055682696,-0.02744948,-0.05495609,0.051112913,0.057848033,-0.013486158,0.041582875,0.08273435,0.029356677,-0.044939063,0.02259052,-0.066709414,-0.04672831,0.14405121,0.0306219,0.022812624,-0.008673538,-0.022699902,-0.028230468,0.18053743,-0.021419538,0.0070273923,0.03229844,-0.33650172,-0.25493926,0.38348112,0.026832856,0.30417025,0.47125384,0.4150704,0.5141933,0.74810237,0.3824058,-0.38380986,-0.31053644,-0.15058897,-0.3127659,-0.6509694,-0.18815225,0.34705555,-0.19430879,-0.17063177,0.41258505,-0.6741065,-0.12537439
2025-07-21 15:51:16.464,1.640000000000001,1640,82,-0.1570825,-0.041492414,-0.017319573,-0.024125766,-0.026056191,-0.013057953,0.0,0.0,0.0,0.0,-0.0035880245,-0.06602387,-0.05345976,-0.049043387,-0.041557632,-0.050486874,0.053828202,0.05618026,-0.010080794,0.055826966,0.084147535,0.031064965,0.060363036,-0.01082038,0.0046490766,-0.017077805,-0.1347217,-0.026689189,0.002626879,-0.028574536,-0.03599334,0.06276013,-0.13067769,0.056063138,-0.38380986,-0.31053644,-0.15058897,-0.3127659,-0.6509694,-0.18815225,0.34705555,-0.19430879,-0.17063177,0.41258505,-0.6741065,-0.12537439,-0.07144236,0.1272263,-0.40085876,-0.10868666,0.5907589,0.2010256,0.123913676,0.1428104,0.3580053,0.14556918,0.933861,0.4877402
2025-07-21 15:51:16.484,1.660000000000001,1660,83,0.18286191,0.017838366,0.13467176,-0.02777634,-0.010992246,-0.011256863,0.0,0.0,0.0,0.0,0.0004573823,-0.05805313,-0.04808743,-0.061491977,-0.051568102,-0.0482169,0.045239486,0.049148347,0.0058463984,0.036450863,0.09612663,0.027233578,0.04676904,0.112738855,-0.050828084,-0.012868613,0.101060845,0.027966963,0.02929398,-0.039971612,0.071940884,0.0055601173,0.05965274,0.021585945,-0.07144236,0.1272263,-0.40085876,-0.10868666,0.5907589,0.2010256,0.123913676,0.1428104,0.3580053,0.14556918,0.933861,0.4877402,-0.2806289,-0.42345077,-0.05839074,-0.20128088,-0.7551734,-0.2114915,0.20304036,-0.12638061,-0.1336951,0.013432944,-0.8101723,0.0691129
2025-07-21 15:51:16.504,1.680000000000001,1680,84,-0.163204,-0.027455878,-0.061929002,0.027458062,-0.037886195,-0.03064444,0.0,0.0,0.0,0.0,-0.0045033586,-0.07862735,-0.05883857,-0.058341455,-0.062315978,-0.043080598,0.04477057,0.03392981,-0.011851704,0.04408927,0.09260176,0.020778496,-0.02942743,-0.06441754,0.07832229,0.07407923,-0.019457024,0.01246149,-0.064820625,-0.039157268,0.012802536,0.006183084,-0.08649996,-0.037964772,-0.2806289,-0.42345077,-0.05839074,-0.20128088,-0.7551734,-0.2114915,0.20304036,-0.12638061,-0.1336951,0.013432944,-0.8101723,0.0691129,0.10551206,0.38237572,-0.30904374,-0.22728966,0.23572505,-0.093007706,0.36907828,0.13970114,0.17311724,0.14383718,1.0051106,0.3224779
2025-07-21 15:51:16.526,1.700000000000001,1700,85,0.15871775,0.07513009,0.06353572,-0.004308498,0.057007864,-0.047183592,0.0,0.0,0.0,0.0,0.0031743054,-0.050841413,-0.05852365,-0.058878075,-0.044577412,-0.037753988,0.054431573,0.031952024,0.005174023,0.03606882,0.12777612,0.029547554,0.051621635,0.16591522,0.02653003,0.00092365325,0.014318931,0.014207314,0.0077452166,0.093368314,-0.04555586,0.009470801,0.18239388,-0.03009155,0.10551206,0.38237572,-0.30904374,-0.22728966,0.23572505,-0.093007706,0.36907828,0.13970114,0.17311724,0.14383718,1.0051106,0.3224779,-0.308931,-0.7956276,-0.059794057,-0.3035965,-0.47124118,-0.20627204,0.11940062,-0.4591733,-0.08933869,0.45729986,-0.9856245,-0.066135764
2025-07-21 15:51:16.545,1.720000000000001,1720,86,-0.20245253,-0.018950291,0.016276913,0.0015604522,0.042490035,-0.001155968,0.0,0.0,0.0,0.0,-0.0037766166,-0.068351865,-0.059091683,-0.046609957,-0.0698261,-0.032440722,0.047624655,0.013522605,-0.007025425,0.032269467,0.1197094,0.023695821,0.043254353,-0.024085458,0.040321574,0.027918793,-0.072606884,-0.07134862,0.008952097,-0.09917465,-0.038597867,-0.030818645,-0.19316752,-0.08464526,-0.308931,-0.7956276,-0.059794057,-0.3035965,-0.47124118,-0.20627204,0.11940062,-0.4591733,-0.08933869,0.45729986,-0.9856245,-0.066135764,0.14708692,0.35577258,-0.13753341,-0.11711772,0.6614914,-0.20940754,0.062389582,0.68718773,0.23620552,-0.13457549,0.6671814,0.560138
2025-07-21 15:51:16.564,1.740000000000001,1740,87,0.25733444,0.0314387,0.012052973,-0.024626382,-0.031825583,0.023594713,0.0,0.0,0.0,0.0,-0.011988592,-0.061021853,-0.049984604,-0.05070713,-0.06285922,-0.046902977,0.040584154,0.033123452,0.0049202647,0.034189742,0.1093428,0.024613347,0.035854917,0.082472175,0.01738434,-0.042204484,0.14059882,0.064193845,0.06239432,0.15457815,0.06426853,-0.0840566,0.094764166,0.038906522,0.14708692,0.35577258,-0.13753341,-0.11711772,0.6614914,-0.20940754,0.062389582,0.68718773,0.23620552,-0.13457549,0.6671814,0.560138,-0.40874526,-0.55563897,0.038966697,-0.46903676,-0.7095792,-0.32791835,0.35802558,-0.40479732,-0.13315126,0.56804883,-0.8496964,0.11394346
2025-07-21 15:51:16.584,1.7600000000000011,1760,88,-0.2512704,-0.04905668,0.15659161,0.015754076,0.012445627,-0.030560277,0.0,0.0,0.0,0.0,-0.014725559,-0.052218053,-0.05429883,-0.056276437,-0.069453664,-0.04616286,0.052556504,0.04282458,0.010125207,0.039188977,0.11229643,0.016955651,0.041813776,-0.0684695,0.06628331,0.04259071,-0.1510007,0.0152142355,0.019228308,-0.060096737,0.01055738,0.0048220656,-0.11500154,0.07027539,-0.40874526,-0.55563897,0.038966697,-0.46903676,-0.7095792,-0.32791835,0.35802558,-0.40479732,-0.13315126,0.56804883,-0.8496964,0.11394346,0.05573711,0.6925371,0.24254774,0.106212504,0.566233,-0.19710776,0.077124536,0.7011596,0.07585566,-0.6567472,-0.3695777,0.82593083
2025-07-21 15:51:16.604,1.7800000000000011,1780,89,0.017710453,0.00033465124,-0.124516994,0.012108293,-0.032583103,0.00212879,0.0,0.0,0.0,0.0,-0.0063386685,-0.06073888,-0.038571015,-0.047898393,-0.07609579,-0.059240155,0.038078148,0.058876045,0.011953236,0.018895632,0.06711191,0.049616076,-0.03292551,0.058060426,-0.039859843,0.07624418,-0.007691625,-0.03178508,-0.049566925,0.054220546,0.048746567,-0.11097489,-0.11627325,0.07695643,0.05573711,0.6925371,0.24254774,0.106212504,0.566233,-0.19710776,0.077124536,0.7011596,0.07585566,-0.6567472,-0.3695777,0.82593083,-0.30912438,-0.38589275,0.20951308,-0.57529974,0.31228635,-0.34028053,0.6867315,0.15202677,-0.2595383,0.55739415,0.44442672,0.7105808
2025-07-21 15:51:16.626,1.8000000000000012,1800,90,0.07421111,0.008402517,0.10620643,0.05342646,0.02105172,-0.0481967,0.0,0.0,0.0,0.0,-0.007903781,-0.056818195,-0.030989645,-0.047196195,-0.040325448,-0.046754744,0.04685857,0.058273472,0.0019730239,0.018488606,0.07862751,0.04455322,-0.021051506,-0.086246885,-0.009696379,0.0046681333,0.08429697,-0.020875365,0.07993925,-0.004921412,0.04544561,-0.012663722,0.08021096,0.061835,-0.30912438,-0.38589275,0.20951308,-0.57529974,0.31228635,-0.34028053,0.6867315,0.15202677,-0.2595383,0.55739415,0.44442672,0.7105808,-0.1289081,-0.14148667,-0.09885998,-0.2095351,-0.161806,-0.34501186,0.20809878,0.080418065,0.0017769039,0.15212713,-0.7540458,0.3666294
2025-07-21 15:51:16.644,1.8200000000000012,1820,91,-0.071434535,0.006709511,-0.06815842,0.016438857,0.015983516,-0.02981825,0.0,0.0,0.0,0.0,-0.011188478,-0.065814,-0.041553248,-0.059569445,-0.03844986,-0.05026142,0.04943612,0.05687681,-0.002391502,0.0148963025,0.07492408,0.04886399,-0.057941847,-0.08535839,-0.041833285,0.06584623,0.018487828,-0.020579362,0.019962061,0.014599167,0.06158462,-0.029489141,-0.0710573,0.035383977,-0.1289081,-0.14148667,-0.09885998,-0.2095351,-0.161806,-0.34501186,0.20809878,0.080418065,0.0017769039,0.15212713,-0.7540458,0.3666294,-0.17845419,0.31619698,-0.017394964,-0.38245082,0.14081302,-0.050656468,0.3450779,-0.120882824,0.26198912,0.64340705,0.7901464,0.3462889
2025-07-21 15:51:16.664,1.8400000000000012,1840,92,0.19972093,0.025735369,0.0133569,-0.024522064,0.06053596,0.037880015,0.0,0.0,0.0,0.0,-0.014964387,-0.029860875,-0.03889796,-0.051514048,-0.0238016,-0.036240462,0.06206476,0.05058036,0.010145267,0.025451992,0.11356946,0.034567438,-0.03579952,0.14411706,0.029034382,-0.038225293,0.11567933,0.0843117,-0.038258035,-0.11818684,0.023253707,0.08901377,0.1388231,0.052072875,-0.17845419,0.31619698,-0.017394964,-0.38245082,0.14081302,-0.050656468,0.3450779,-0.120882824,0.26198912,0.64340705,0.7901464,0.3462889,-0.0944888,-0.94021475,-0.262979,-0.012955806,-0.7306734,-0.06610449,0.29444084,-0.20525886,0.07229392,0.45322195,-0.55656004,-0.2688693
2025-07-21 15:51:16.684,1.8600000000000012,1860,93,-0.07937546,-0.034241576,-0.033247262,0.01182572,0.032133013,-0.007836062,0.0,0.0,0.0,0.0,0.0018248908,-0.0519663,-0.03697924,-0.04089733,-0.044833478,-0.043270446,0.06072597,0.027422005,0.002278527,0.03507368,0.09009807,0.022001607,0.035046965,-0.116347075,0.023064423,-0.034961764,-0.05814484,0.037774608,0.017194707,-0.023683032,-0.034984272,-0.002652465,-0.1262924,-0.05806564,-0.0944888,-0.94021475,-0.262979,-0.012955806,-0.7306734,-0.06610449,0.29444084,-0.20525886,0.07229392,0.45322195,-0.55656004,-0.2688693,0.12987664,0.5693073,-0.23370247,-0.050610997,0.34536162,0.018021986,-0.09287287,-0.024258245,0.20061801,0.36135003,0.9319256,0.34804174
2025-07-21 15:51:16.705,1.8800000000000012,1880,94,0.17863898,0.09300834,0.07099221,-0.046489663,0.019329702,0.030458445,0.0,0.0,0.0,0.0,-0.0016460537,-0.036984038,-0.05429946,-0.047378104,-0.03176112,-0.038786042,0.04184223,0.025115501,-0.0010505865,0.04171314,0.09364762,0.023731848,0.00392419,0.10632232,0.02975574,0.009209733,0.016895685,0.071883306,-0.023193909,-0.043294437,0.052898612,0.008173153,0.0872582,-0.061518632,0.12987664,0.5693073,-0.23370247,-0.050610997,0.34536162,0.018021986,-0.09287287,-0.024258245,0.20061801,0.36135003,0.9319256,0.34804174,-0.0061526177,-0.3856358,-0.12331909,-0.09464913,-0.60545886,-0.13046154,0.30904642,-0.22755729,-0.06942572,0.0022694264,-0.5095492,-0.10943462
2025-07-21 15:51:16.727,1.9000000000000012,1900,95,-0.14711148,-0.017717645,0.014832022,0.011429884,0.010119901,0.014579292,0.0,0.0,0.0,0.0,0.009356284,-0.03130331,-0.042878143,-0.041864835,-0.050216343,-0.04414213,0.056721665,0.007099272,0.009877905,0.04389071,0.08212929,0.0118613085,0.015428976,-0.096801035,0.03317961,-0.0075469087,-0.015718823,0.06384831,0.046901014,-0.028268337,0.032598168,0.030718805,-0.17651114,-0.06790749,-0.0061526177,-0.3856358,-0.12331909,-0.09464913,-0.60545886,-0.13046154,0.30904642,-0.22755729,-0.06942572,0.0022694264,-0.5095492,-0.10943462,0.19847937,0.7701759,-0.010687862,-0.11093349,-0.071329795,-0.48283026,-0.016177893,0.41623676,-0.07484834,0.08001611,0.8792912,0.4887544
2025-07-21 15:51:16.745,1.9200000000000013,1920,96,0.1967892,0.12320174,-0.09933765,0.00033819288,-0.02408356,-0.03622796,0.0,0.0,0.0,0.0,0.006686283,-0.017236106,-0.03636128,-0.04060096,-0.03464017,-0.036649298,0.03817589,0.025673158,-0.008111959,0.03385916,0.091343835,0.01814902,0.07021803,0.09237755,-0.07037606,0.08373661,-0.03785755,-0.07087364,0.03537705,0.13741587,0.051723618,-0.034498733,0.097814776,-0.0690423,0.19847937,0.7701759,-0.010687862,-0.11093349,-0.071329795,-0.48283026,-0.016177893,0.41623676,-0.07484834,0.08001611,0.8792912,0.4887544,-0.3260074,-0.74514735,-0.0908947,-0.4657548,-0.2702376,-0.2695068,0.3068214,-0.3482225,-0.2964369,0.513664,-0.24090238,-0.00012322515
2025-07-21 15:51:16.765,1.9400000000000013,1940,97,-0.18440469,0.026532194,0.053828858,0.02526931,0.03616811,0.040396053,0.0,0.0,0.0,0.0,0.004678248,-0.0079687815,-0.043284338,-0.04517297,-0.053805422,-0.03997064,0.04254038,0.016864814,-0.013576395,0.025659434,0.092052594,0.019448077,0.025212295,-0.04187681,0.049582995,0.05190259,-0.10542711,0.0065647606,-0.070075355,-0.06912859,0.048047453,0.015517089,-0.11082324,0.022181282,-0.3260074,-0.74514735,-0.0908947,-0.4657548,-0.2702376,-0.2695068,0.3068214,-0.3482225,-0.2964369,0.513664,-0.24090238,-0.00012322515,0.012286936,0.14912897,-0.17378007,-0.09311376,0.35387555,-0.21961433,0.06260353,0.529829,0.27875715,-0.15473136,0.62651235,0.56361115
2025-07-21 15:51:16.785,1.9600000000000013,1960,98,0.14908867,-0.043893535,0.063397035,0.019550888,0.006279263,-0.012623869,0.0,0.0,0.0,0.0,0.011233669,0.010441116,-0.032912575,-0.047957316,-0.03776223,-0.05784439,0.04325378,0.030946905,-0.008924814,0.028870946,0.12144632,0.030524034,0.06549325,0.09696676,0.003986022,-0.06715663,0.11966147,0.02181448,-0.006489243,0.1355008,0.037414588,0.023806715,0.08277797,-0.02987096,0.012286936,0.14912897,-0.17378007,-0.09311376,0.35387555,-0.21961433,0.06260353,0.529829,0.27875715,-0.15473136,0.62651235,0.56361115,-0.35155165,-0.73118705,0.15937276,-0.22188579,-0.92476356,-0.4082488,0.28468183,-0.30526975,-0.36704916,0.37524006,-0.7307562,0.1109736
2025-07-21 15:51:16.810,1.9800000000000013,1980,99,-0.1946942,-0.03743586,0.09331618,-0.0005083305,0.006864288,-0.025715353,0.0,0.0,0.0,0.0,-0.0049973023,-0.010684416,-0.04045874,-0.040078826,-0.07123569,-0.05221464,0.03195784,0.018250575,-0.008936486,0.031881765,0.09445126,0.03542485,0.062576704,-0.15523036,-0.04237382,-0.05384702,-0.08612057,0.022865057,0.054778226,-0.019404385,-0.008146128,0.0048383125,-0.1279383,0.015162265,-0.35155165,-0.73118705,0.15937276,-0.22188579,-0.92476356,-0.4082488,0.28468183,-0.30526975,-0.36704916,0.37524006,-0.7307562,0.1109736,0.19911093,0.73098654,0.22915083,-0.057509042,0.30507246,-0.304028,0.049484998,0.6829151,-0.0776488,-0.38977477,0.045899868,0.76542294
2025-07-21 15:51:16.826,2.0000000000000013,2000,100,0.105319746,-0.061409667,0.004548734,-0.042133234,-0.027819796,0.021512985,0.0,0.0,0.0,0.0,0.0019656478,-0.013180725,-0.026833858,-0.046475522,-0.067351125,-0.05043689,0.040254768,0.04639901,-0.00043951886,0.0053545246,0.0837396,0.03248547,0.049317006,0.14366862,0.06093784,-0.013322254,0.06836447,-0.049168304,-0.07989345,0.093059555,0.04063102,-0.025671672,-0.06594411,-0.018272603,0.19911093,0.73098654,0.22915083,-0.057509042,0.30507246,-0.304028,0.049484998,0.6829151,-0.0776488,-0.38977477,0.045899868,0.76542294,-0.20183195,-0.9292243,0.16088466,-0.3561475,-0.3663909,-0.45671377,0.05531282,0.24989252,-0.5843298,0.2111756,-0.1591599,0.36354664
2025-07-21 15:51:16.845,2.0200000000000014,2020,101,-0.11363945,0.03785431,0.026455458,-0.011992128,-0.010468457,0.013406279,0.0,0.0,0.0,0.0,-0.00636264,-0.001912045,-0.024859129,-0.04862307,-0.08174377,-0.05570584,0.03149772,0.057834364,-0.015395726,0.020949787,0.06669436,0.04754367,-0.04328361,-0.118215896,-0.03800624,-0.05322349,-0.09371019,0.031667992,-0.08659192,0.03784272,0.032208577,-0.008988796,-0.018351603,-0.03432727,-0.20183195,-0.9292243,0.16088466,-0.3561475,-0.3663909,-0.45671377,0.05531282,0.24989252,-0.5843298,0.2111756,-0.1591599,0.36354664,0.08043677,0.1892994,0.21154799,-0.27555123,0.45951852,-0.08949452,-0.03144616,0.2919951,-0.14237736,-0.04706709,0.22752927,0.49332833
2025-07-21 15:51:16.865,2.0400000000000014,2040,102,0.15633807,0.02917714,-0.021594178,-0.04572252,0.049869914,-0.0378863,0.0,0.0,0.0,0.0,0.012203566,0.0068931715,-0.012414561,-0.044079464,-0.06393032,-0.06440367,0.029637268,0.084184945,-0.03191671,0.005699016,0.06197588,0.05286126,-0.0068686837,0.020093556,-0.027782643,-0.060575314,0.06643912,0.037481073,-0.02453429,-0.024479296,-0.020856166,-0.06216349,0.090414755,-0.03574766,0.08043677,0.1892994,0.21154799,-0.27555123,0.45951852,-0.08949452,-0.03144616,0.2919951,-0.14237736,-0.04706709,0.22752927,0.49332833,-0.19356209,-0.68419534,0.1374172,-0.19481818,0.13879502,-0.1664995,0.3048626,0.036840837,-0.3321213,0.5956464,-0.46099445,-0.031284302
2025-07-21 15:51:16.885,2.0600000000000014,2060,103,-0.0629508,-0.018013349,0.040767748,0.026971327,0.0465869,-0.018743811,0.0,0.0,0.0,0.0,0.013826843,-0.020417761,-0.019632872,-0.052067578,-0.042826913,-0.055045817,0.030622378,0.06855565,-0.036290385,0.013996804,0.060139935,0.047390334,-0.03243426,-0.11920957,0.03699237,0.031916182,0.029503385,0.020229412,-0.03350433,-0.08745292,-0.0065081404,0.0052482947,-0.092725724,0.04194623,-0.19356209,-0.68419534,0.1374172,-0.19481818,0.13879502,-0.1664995,0.3048626,0.036840837,-0.3321213,0.5956464,-0.46099445,-0.031284302,0.24079788,0.4894871,0.21115987,-0.40175155,0.10686589,-0.40389368,0.27158743,0.7760893,0.038942605,0.22664572,0.5709665,0.48105773
2025-07-21 15:51:16.909,2.0800000000000014,2080,104,0.17095481,0.055966664,-0.03888661,0.03847643,0.049448647,0.035384282,0.0,0.0,0.0,0.0,0.014721063,0.001475867,-0.017930662,-0.04115736,-0.03778521,-0.04938264,0.026066968,0.098480046,-0.020077474,0.012393492,0.066921264,0.047314472,0.054131497,0.15194596,0.028474616,0.0404309,-0.02458681,0.004312449,0.072357245,0.12621212,-0.027162176,-0.07243979,0.015039956,0.040718008,0.24079788,0.4894871,0.21115987,-0.40175155,0.10686589,-0.40389368,0.27158743,0.7760893,0.038942605,0.22664572,0.5709665,0.48105773,-0.5308362,-1.101317,0.16994877,-0.3685343,-0.2129325,-0.47160265,0.4573949,-0.20892839,-0.45283616,0.8775377,-0.44174537,0.15194817
2025-07-21 15:51:16.926,2.1000000000000014,2100,105,-0.18198878,-0.042393286,0.12329858,-0.039899252,0.042065933,-0.018615408,0.0,0.0,0.0,0.0,0.008324112,-0.0012083716,-0.012813904,-0.04975697,-0.03200847,-0.05850698,0.030615829,0.08374213,-0.031850107,0.03923953,0.057059128,0.036191985,-0.087976575,-0.010779117,-0.033028036,-0.07318192,-0.05533593,0.051187355,0.018685179,-0.13130854,-0.020383153,-0.0016917223,-0.06810267,-0.06557963,-0.5308362,-1.101317,0.16994877,-0.3685343,-0.2129325,-0.47160265,0.4573949,-0.20892839,-0.45283616,0.8775377,-0.44174537,0.15194817,0.30622408,-0.17614171,0.06509872,-0.08730473,0.1939536,0.07364104,0.38009542,0.88552773,0.22488336,-0.35233063,-0.14516385,0.33214143
2025-07-21 15:51:16.946,2.1200000000000014,2120,106,0.11031211,-0.10182825,0.0539011,0.050530333,-0.028546529,0.0305852,0.0,0.0,0.0,0.0,0.02254112,-0.0055061863,-0.0075042993,-0.048094396,-0.03435214,-0.059866846,0.032114834,0.11578455,-0.012251271,0.013229444,0.05696999,0.038557574,0.0034063084,-0.052401785,0.07553112,0.03272156,0.037689075,0.04963883,-0.021505645,0.1379968,0.026063638,-0.042123772,-0.056677863,-0.0110376,0.30622408,-0.17614171,0.06509872,-0.08730473,0.1939536,0.07364104,0.38009542,0.88552773,0.22488336,-0.35233063,-0.14516385,0.33214143,-0.22840728,0.11008259,0.61282176,-0.5707782,-0.1531299,-0.6483242,0.1797438,0.03665873,-0.6442685,0.56708086,-0.2173488,0.6311903
2025-07-21 15:51:16.965,2.1400000000000015,2140,107,0.03145248,0.012709312,0.06257067,0.035347693,0.013050548,0.017303005,0.0,0.0,0.0,0.0,0.015959032,-0.0007161454,-0.0022074701,-0.050358787,-0.038897496,-0.06984952,0.048088036,0.10947723,-0.03411969,0.020717364,0.030961545,0.043665275,-0.010264802,-0.008525839,-0.056069933,-0.02562891,-0.00078206026,-0.058067605,-0.0045191487,-0.09838526,-0.07094454,-0.02979224,0.020239007,-0.02286425,-0.22840728,0.11008259,0.61282176,-0.5707782,-0.1531299,-0.6483242,0.1797438,0.03665873,-0.6442685,0.56708086,-0.2173488,0.6311903,0.13883907,-0.55202776,0.19478177,-0.16596085,0.18719524,0.005292274,0.35620865,0.3220194,-0.4760229,0.07883866,-0.46267506,0.41168764
2025-07-21 15:51:16.986,2.1600000000000015,2160,108,-0.18252178,0.076984674,0.023995861,0.02821984,0.01956894,0.007849712,0.0,0.0,0.0,0.0,0.020373225,-0.0196955,0.0063665602,-0.060946863,-0.016160276,-0.05005212,0.03181695,0.11323025,-0.047160715,0.025250396,-0.007348609,0.05787642,0.072440304,-0.093867965,0.050537474,-0.05590425,-0.011898814,0.02277308,0.0061563686,0.062125392,-0.042268164,-0.0651934,-0.0696054,-0.022900462,0.13883907,-0.55202776,0.19478177,-0.16596085,0.18719524,0.005292274,0.35620865,0.3220194,-0.4760229,0.07883866,-0.46267506,0.41168764,-0.09145718,0.11021691,0.47320426,-0.3022989,0.18279573,-0.3257086,0.011067972,0.1322635,-0.240963,0.51362836,0.22780435,0.5282035
2025-07-21 15:51:17.009,2.1800000000000015,2180,109,0.1374017,0.07242514,0.009260077,0.042057216,0.058469743,-0.009646241,0.0,0.0,0.0,0.0,0.011699544,-0.020563338,0.00064019626,-0.042488135,-0.008927558,-0.05189522,0.034524083,0.112573534,-0.03544659,0.018853338,0.003310735,0.04860565,-0.015396202,-0.0044562356,0.030600466,-0.048899017,0.10981219,-0.07141439,-0.034430582,-0.059961297,-0.021464048,0.0013117851,0.01152072,-0.0053657517,-0.09145718,0.11021691,0.47320426,-0.3022989,0.18279573,-0.3257086,0.011067972,0.1322635,-0.240963,0.51362836,0.22780435,0.5282035,-0.08729046,-0.5895377,0.26852176,-0.3499676,-0.0708868,-0.4866198,0.25420612,0.13819112,-0.3426653,0.415829,-0.058626853,0.28264818
2025-07-21 15:51:17.026,2.2000000000000015,2200,110,-0.06825555,0.032228086,0.007228406,0.054251276,-0.009102275,-0.038702134,0.0,0.0,0.0,0.0,0.01997149,-0.049990043,-0.0028023047,-0.05576603,-0.010269591,-0.06883484,0.036030643,0.10447244,-0.048999418,0.034029756,0.006599593,0.040315162,-0.055306707,-0.114915006,0.06479508,0.046414275,0.009605319,-0.04111935,0.056316298,-0.08047155,-0.029493114,-0.044046182,0.059333924,-0.0011032025,-0.08729046,-0.5895377,0.26852176,-0.3499676,-0.0708868,-0.4866198,0.25420612,0.13819112,-0.3426653,0.415829,-0.058626853,0.28264818,0.045388136,0.17793274,0.15213543,-0.34568042,0.13494185,-0.103868775,0.18863374,0.32375616,-0.033094272,0.45803115,0.31212297,0.3186117
2025-07-21 15:51:17.046,2.2200000000000015,2220,111,0.11964023,0.07340312,0.02963571,0.019270938,0.06359011,-0.005099236,0.0,0.0,0.0,0.0,0.019667016,-0.031540427,-0.0029996724,-0.060255483,-0.005968267,-0.0508616,0.03686242,0.108934574,-0.028805867,0.026960006,0.02164523,0.044671092,-0.032659132,0.05137885,0.036801,0.06003144,0.03981784,0.038143244,-0.048667666,0.0140785035,0.0065656803,0.08134175,-0.01683003,0.03254113,0.045388136,0.17793274,0.15213543,-0.34568042,0.13494185,-0.103868775,0.18863374,0.32375616,-0.033094272,0.45803115,0.31212297,0.3186117,-0.14268474,-0.7376907,0.016729306,-0.30760503,-0.13667062,-0.3982745,0.46565115,-0.17358418,-0.24123628,0.50676644,0.051488094,0.15004309
2025-07-21 15:51:17.066,2.2400000000000015,2240,112,-0.093051665,0.09621499,0.06284273,0.01145789,0.053272445,-0.047749586,0.0,0.0,0.0,0.0,0.0124956425,-0.049300607,0.00017512495,-0.057745893,-0.014056843,-0.05906019,0.034210548,0.084500015,-0.0322678,0.04113191,0.021654457,0.040221732,-0.020308651,-0.05007365,-0.019590965,-0.07396964,-0.05701041,-0.044336133,0.07683394,-0.1324748,0.033974297,0.07786925,-0.06882065,-0.059342794,-0.14268474,-0.7376907,0.016729306,-0.30760503,-0.13667062,-0.3982745,0.46565115,-0.17358418,-0.24123628,0.50676644,0.051488094,0.15004309,0.16739571,0.07750004,-0.069326386,-0.30961925,0.13096538,-0.097372524,0.13914603,0.5981128,0.40987802,0.24651192,0.4677778,0.4896371
2025-07-21 15:51:17.086,2.2600000000000016,2260,113,0.16894062,0.056792516,-0.024232564,-0.019215547,0.056475986,-0.027280869,0.0,0.0,0.0,0.0,0.01593008,-0.040834572,-0.010424638,-0.053203393,0.005830418,-0.04243734,0.033660006,0.0859615,-0.013155469,0.03988219,0.050103042,0.04166042,0.009678606,0.0030216766,-0.012848207,0.04995741,-0.015928065,0.059226826,-0.08170071,0.05092431,0.068758644,0.07359359,0.08628475,0.064985305,0.16739571,0.07750004,-0.069326386,-0.30961925,0.13096538,-0.097372524,0.13914603,0.5981128,0.40987802,0.24651192,0.4677778,0.4896371,-0.3129917,-0.49945354,0.050909963,-0.28620532,-0.16883624,-0.23740575,0.39482778,-0.3134725,-0.028828613,0.5694063,-0.11259689,0.09793961
2025-07-21 15:51:17.109,2.2800000000000016,2280,114,-0.17133442,-0.015401382,0.08783169,0.026972756,-0.03380085,0.020754369,0.0,0.0,0.0,0.0,0.014474049,-0.05085405,-0.0038864058,-0.04704189,-0.016691303,-0.048726253,0.037815228,0.07989204,-0.0072154934,0.052552283,0.05092903,0.024889182,0.052364,-0.016114404,-0.045116857,0.05462049,-0.02342485,0.05140558,-0.020310251,-0.1666013,0.026189676,0.07126973,0.0035463625,0.040093344,-0.3129917,-0.49945354,0.050909963,-0.28620532,-0.16883624,-0.23740575,0.39482778,-0.3134725,-0.028828613,0.5694063,-0.11259689,0.09793961,0.28230482,0.18479341,-0.42271826,-0.041332923,-0.16782382,0.11564663,0.43520978,0.32771504,0.3247797,-0.06691744,0.07899938,0.25717092
2025-07-21 15:51:17.128,2.3000000000000016,2300,115,0.12444804,-0.025054432,0.021913368,-0.02601479,0.02241597,-0.03544846,0.0,0.0,0.0,0.0,0.03283488,-0.046478882,-0.012360346,-0.058944315,-0.015206674,-0.045349248,0.041317012,0.08751057,-0.007481901,0.04524698,0.04182643,0.032037646,0.06906008,-0.013312001,-0.003589134,0.01420352,0.04073624,0.012778853,0.011732457,0.07027927,-0.031896345,-0.026438007,-0.04983231,0.037236582,0.28230482,0.18479341,-0.42271826,-0.041332923,-0.16782382,0.11564663,0.43520978,0.32771504,0.3247797,-0.06691744,0.07899938,0.25717092,-0.28098148,-0.047747947,0.11753382,-0.3380105,-0.29948503,-0.43916774,0.17336315,-0.2959733,-0.10685372,0.50588065,0.24866478,0.2552734
2025-07-21 15:51:17.146,2.3200000000000016,2320,116,-0.05386303,0.079759836,0.07208451,0.02016904,0.034792766,-0.013169033,0.0,0.0,0.0,0.0,0.025306555,-0.04328539,-0.019968567,-0.047200352,-0.04262467,-0.054946743,0.036833808,0.06981056,0.007144716,0.03554296,0.04533845,0.036426086,0.027513959,-0.030218326,0.022584932,-0.024201052,-0.03625248,-0.04274245,0.07017861,-0.07516872,-0.016172795,-0.015758436,0.09026989,0.049528588,-0.28098148,-0.047747947,0.11753382,-0.3380105,-0.29948503,-0.43916774,0.17336315,-0.2959733,-0.10685372,0.50588065,0.24866478,0.2552734,0.09136344,-0.09511737,-0.38354555,0.04258368,0.004392743,-0.107752256,0.14386939,-0.010798294,-0.034644336,0.022858383,-0.35206813,0.27626252
2025-07-21 15:51:17.166,2.3400000000000016,2340,117,-0.0026421237,-0.023084836,-0.049515855,0.042020712,0.052253086,-0.02019944,0.0,0.0,0.0,0.0,0.011838462,-0.053312857,-0.02406187,-0.050685853,-0.041652165,-0.058516838,0.05151168,0.049373552,-0.002371978,0.033252716,0.041368637,0.032323904,-0.0405095,-0.07219497,-0.04790303,0.0065309247,-0.030410573,0.04554417,-0.046474054,0.01105595,0.008712511,-0.02749176,-0.07207253,0.08045221,0.09136344,-0.09511737,-0.38354555,0.04258368,0.004392743,-0.107752256,0.14386939,-0.010798294,-0.034644336,0.022858383,-0.35206813,0.27626252,-0.25892416,0.35919383,0.026106354,-0.34582564,0.2983899,-0.25680763,0.17060378,0.022701036,0.028946027,0.60541904,0.7659994,0.514683
2025-07-21 15:51:17.186,2.3600000000000017,2360,118,0.08290768,0.049597003,0.10194926,0.0010285015,0.0048358613,-0.03059061,0.0,0.0,0.0,0.0,0.0019761603,-0.029496407,-0.026911156,-0.044457875,-0.01162304,-0.04326492,0.042332057,0.059967313,-0.009928921,0.03379708,0.05161092,0.03542774,-0.066652335,0.09788483,0.060163844,-0.016008176,0.037916493,0.028537948,0.0153711885,-0.019507626,0.05298104,-0.0501285,0.042806633,0.045552555,-0.25892416,0.35919383,0.026106354,-0.34582564,0.2983899,-0.25680763,0.17060378,0.022701036,0.028946027,0.60541904,0.7659994,0.514683,-0.16682215,-0.7801322,-0.13888592,-0.22869767,-0.4533676,-0.3675795,0.337709,-0.16225629,-0.3179596,0.118455924,-0.55462223,0.18215592
2025-07-21 15:51:17.210,2.3800000000000017,2380,119,-0.27880824,0.01074238,-0.016876446,0.051574845,-0.013334975,0.046937395,0.0,0.0,0.0,0.0,-0.0023556994,-0.03496845,-0.036962267,-0.054320507,-0.02937047,-0.04795076,0.038635686,0.02474634,-0.0042663775,0.04522131,0.058013905,0.0421666,-0.015204603,-0.035221934,0.06288644,-0.06573449,-0.012080737,0.012551531,0.024187716,-0.109035216,-0.069471635,0.021611447,-0.030704627,-0.010562386,-0.16682215,-0.7801322,-0.13888592,-0.22869767,-0.4533676,-0.3675795,0.337709,-0.16225629,-0.3179596,0.118455924,-0.55462223,0.18215592,0.06935913,0.081541054,-0.37199238,-0.024342678,0.11927798,0.18947202,0.18612531,0.24895309,0.30360055,0.08156775,0.6334912,0.19495782
2025-07-21 15:51:17.226,2.4000000000000017,2400,120,0.153842,-0.09823766,0.07483315,0.022093562,0.044199172,-0.03188401,0.0,0.0,0.0,0.0,0.007855704,-0.036485385,-0.04827291,-0.038119297,-0.03367379,-0.052849818,0.053477496,0.047871336,0.0036374729,0.039584517,0.08358154,0.033449337,-0.026588818,-0.031410374,-0.04354928,-0.037180588,-0.03639029,-0.043721627,-0.012875434,0.040249333,0.09799521,-0.056260034,0.055703975,0.03031255,0.06935913,0.081541054,-0.37199238,-0.024342678,0.11927798,0.18947202,0.18612531,0.24895309,0.30360055,0.08156775,0.6334912,0.19495782,-0.10259273,0.01399728,0.00056029484,-0.12695323,-0.21254513,-0.32262066,0.10903709,-0.28848642,-0.21184202,0.008149149,-0.18978678,0.22437632
2025-07-21 15:51:17.246,2.4200000000000017,2420,121,-0.15197213,0.025066437,-0.041415323,-0.04468876,-0.012308639,0.036653068,0.0,0.0,0.0,0.0,0.00843111,-0.035429157,-0.04572072,-0.051067512,-0.03788686,-0.05523677,0.03478271,0.033382677,-0.011261333,0.027879933,0.07054839,0.030724667,-0.03882477,0.059556745,-0.057899486,-0.039644305,-0.0042281286,-0.016426736,-0.027747246,-0.03372761,-0.08297531,-0.049187925,0.008537391,0.06515122,-0.10259273,0.01399728,0.00056029484,-0.12695323,-0.21254513,-0.32262066,0.10903709,-0.28848642,-0.21184202,0.008149149,-0.18978678,0.22437632,0.027775398,-0.40463677,-0.43026632,-0.2174943,0.02110403,-0.07482488,0.27876994,0.16876797,0.050431803,0.24351914,0.2417335,0.11250304
2025-07-21 15:51:17.267,2.4400000000000017,2440,122,0.099447824,0.048278593,0.049858205,-0.0072883754,0.0618105,-0.002669778,0.0,0.0,0.0,0.0,0.003987444,-0.04832791,-0.039159402,-0.043511894,-0.032717176,-0.048794534,0.046035152,0.03711751,-0.011940832,0.038727544,0.080723636,0.021550879,-0.054771442,-0.1236832,0.037667688,-0.05802882,0.049496524,0.069847725,-0.001138698,-0.042921163,-0.039236758,0.056794386,0.0375035,0.027275989,0.027775398,-0.40463677,-0.43026632,-0.2174943,0.02110403,-0.07482488,0.27876994,0.16876797,0.050431803,0.24351914,0.2417335,0.11250304,-0.026649551,0.67242634,-0.30264175,0.14128901,-0.15321589,-0.25083393,-0.050198577,0.14295277,0.09435244,0.11827412,0.4145129,0.03817177
2025-07-21 15:51:17.286,2.4600000000000017,2460,123,0.052843656,0.0016572991,-0.084074415,0.010252544,-0.031973053,0.010217958,0.0,0.0,0.0,0.0,-0.00094593957,-0.030491546,-0.050962977,-0.035028107,-0.030076409,-0.037170157,0.03853219,0.043333095,-0.012593162,0.02245076,0.09967476,0.0216573,-0.051710542,0.16263212,-0.04638358,-0.009635448,0.014956312,0.021963714,0.051492963,-0.0028052342,-0.027504493,-0.053108394,0.041316755,0.05016778,-0.026649551,0.67242634,-0.30264175,0.14128901,-0.15321589,-0.25083393,-0.050198577,0.14295277,0.09435244,0.11827412,0.4145129,0.03817177,-0.09117437,-0.6222031,-0.48052207,-0.18348335,-0.4590933,-0.11539025,0.3285001,-0.4191928,-0.020976119,0.31935433,0.028137127,-0.04739435
2025-07-21 15:51:17.310,2.4800000000000018,2480,124,-0.1809883,0.03899859,0.012241838,0.032194242,-0.032551777,-0.034098737,0.0,0.0,0.0,0.0,0.0035681403,-0.031856872,-0.05466145,-0.038057428,-0.058934756,-0.054038312,0.036025498,0.023618963,9.573083e-06,0.04013545,0.084588155,0.0143079115,0.036405515,-0.11904937,-0.042471062,-0.060681757,-0.09922151,0.05914393,-0.019107342,-0.14276315,0.05046043,-0.039575584,-0.017310387,-0.051640596,-0.09117437,-0.6222031,-0.48052207,-0.18348335,-0.4590933,-0.11539025,0.3285001,-0.4191928,-0.020976119,0.31935433,0.028137127,-0.04739435,0.09227192,0.73674417,-0.67780167,0.008783632,0.34467262,0.058686055,-0.22614738,0.21163826,0.5254426,-0.036989853,0.8824361,0.3436838
2025-07-21 15:51:17.327,2.5000000000000018,2500,125,0.21672606,0.08400108,-0.00078459096,-0.036619406,0.030645078,-0.027686035,0.0,0.0,0.0,0.0,0.005927384,-0.013353652,-0.06290871,-0.03355984,-0.039993394,-0.037210662,0.04278763,0.015926134,-0.0018326107,0.021115063,0.11158322,0.01577522,-0.0028120566,0.18068713,0.022457458,-0.058034852,0.091989785,-0.06915453,-0.023806686,-0.013955908,0.014933267,0.038240064,0.08478404,0.009970288,0.09227192,0.73674417,-0.67780167,0.008783632,0.34467262,0.058686055,-0.22614738,0.21163826,0.5254426,-0.036989853,0.8824361,0.3436838,-0.041673522,-0.5605109,-0.022012722,0.006155961,-1.0379504,-0.1967414,0.32052743,-0.30842394,-0.02395311,0.047661453,-0.21244512,-0.008053958
2025-07-21 15:51:17.347,2.520000000000002,2520,126,-0.045439195,-0.038242694,0.020893225,-0.029279944,0.0545085,0.030458678,0.0,0.0,0.0,0.0,0.014165968,-0.02771028,-0.067733146,-0.027673205,-0.053593185,-0.0461718,0.030982023,0.010603953,0.008309013,0.028787602,0.093252376,0.022096366,0.03884459,-0.07422598,0.0026197021,-0.034698136,-0.09214902,-0.053321984,0.037539177,-0.07339985,0.0031017081,0.06430137,-0.062088117,0.04942838,-0.041673522,-0.5605109,-0.022012722,0.006155961,-1.0379504,-0.1967414,0.32052743,-0.30842394,-0.02395311,0.047661453,-0.21244512,-0.008053958,0.288107,0.47886193,-0.25531033,-0.27337998,0.30065462,-0.22251475,-0.03506896,0.7638591,0.16855286,-0.20742987,0.3763162,0.6786883
2025-07-21 15:51:17.367,2.540000000000002,2540,127,0.19027525,0.13212378,0.0010690772,-0.004381461,-0.0047291364,-0.012780226,0.0,0.0,0.0,0.0,0.020515077,-0.0027568135,-0.06377758,-0.037989266,-0.041797895,-0.042704165,0.03591443,0.02413931,0.006903194,0.022083877,0.09577871,0.022204354,-0.04704628,0.05118759,0.005384659,-0.07011844,0.058691286,0.027390894,-0.041712813,0.09373569,-0.0318962,-0.08803892,0.0976861,0.066694625,0.288107,0.47886193,-0.25531033,-0.27337998,0.30065462,-0.22251475,-0.03506896,0.7638591,0.16855286,-0.20742987,0.3763162,0.6786883,-0.4254949,-0.45202258,-0.0010952689,-0.30002454,-0.44089618,-0.34490356,0.2803223,-0.16864546,-0.24744846,0.38460225,-0.45352533,0.25745487
2025-07-21 15:51:17.387,2.560000000000002,2560,128,-0.20457852,0.056745745,0.070625186,0.0269064,-0.007603193,-0.04673784,0.0,0.0,0.0,0.0,0.012289983,-0.0009839524,-0.046306863,-0.04384883,-0.057204057,-0.054410756,0.04624673,0.024834905,-0.0030510048,0.004590947,0.086102985,0.029065771,-0.08228745,0.020842364,-0.004847656,-0.0028495253,-0.07259442,0.013973694,0.008663397,0.013457976,0.014075208,0.01365749,-0.1377272,0.0704834,-0.4254949,-0.45202258,-0.0010952689,-0.30002454,-0.44089618,-0.34490356,0.2803223,-0.16864546,-0.24744846,0.38460225,-0.45352533,0.25745487,0.069379665,-0.19190735,0.0932205,-0.23998949,0.2184625,-0.3910626,0.0048413724,0.3056087,-0.23077403,-0.1042323,0.13043366,0.5748395
2025-07-21 15:51:17.407,2.580000000000002,2580,129,0.050140854,0.049498636,-0.0068331137,-0.037343178,0.004960925,0.04993167,0.0,0.0,0.0,0.0,0.0017476097,-0.0141386585,-0.04116352,-0.04921888,-0.049303576,-0.06164493,0.03675236,0.028853647,-0.004997697,0.012679725,0.08043415,0.03254032,0.06531182,0.0046988367,0.018218784,-0.018142229,-0.011370786,-0.011527046,-0.07665466,0.042012226,-0.06780927,0.0041404287,0.010087623,0.026609793,0.069379665,-0.19190735,0.0932205,-0.23998949,0.2184625,-0.3910626,0.0048413724,0.3056087,-0.23077403,-0.1042323,0.13043366,0.5748395,-0.20260262,-0.38429156,0.15704603,-0.3033262,0.07898956,-0.4710767,0.21006563,0.19712111,-0.4266445,0.27301583,-0.12303587,0.42212474
2025-07-21 15:51:17.460,2.600000000000002,2600,130,-0.111173935,0.052843343,0.072011486,-0.044705782,-0.025779353,0.027705027,0.0,0.0,0.0,0.0,-0.003701667,-0.041596606,-0.046245165,-0.047273066,-0.039631017,-0.055791292,0.025079966,0.0391178,-0.012061812,0.0105725555,0.072002865,0.05426044,0.021249367,-0.081285276,-0.0026406562,0.057556942,-0.023685597,0.015736902,-0.033211853,0.05437291,-0.061552003,-0.04688889,-0.10389443,0.007871668,-0.20260262,-0.38429156,0.15704603,-0.3033262,0.07898956,-0.4710767,0.21006563,0.19712111,-0.4266445,0.27301583,-0.12303587,0.42212474,-0.028486455,0.40299952,0.20263524,-0.36285168,0.17628601,-0.54913527,-0.043647498,0.35109746,-0.22644521,0.06749083,0.17097245,0.70183814
2025-07-21 15:51:17.476,2.620000000000002,2620,131,0.14617242,0.11296084,0.037284203,-0.007026453,-0.053826466,0.0041354853,0.0,0.0,0.0,0.0,0.014403458,-0.019571042,-0.023372676,-0.038744938,-0.00743036,-0.06036257,0.02946914,0.05481231,-0.020255432,0.017026838,0.06469999,0.055756897,-0.022435706,0.05721722,0.06264785,0.04225333,0.015865823,0.0075360327,-0.013818675,0.08126487,0.068454064,0.03363526,0.029050533,-0.039236683,-0.028486455,0.40299952,0.20263524,-0.36285168,0.17628601,-0.54913527,-0.043647498,0.35109746,-0.22644521,0.06749083,0.17097245,0.70183814,-0.35124984,-0.64695585,0.118618414,-0.30418682,-0.24766755,-0.30932537,0.25739688,0.019156601,-0.54057544,0.31575403,-0.408337,0.2501528
2025-07-21 15:51:17.577,2.640000000000002,2640,132,-0.16366874,-0.0077008205,-0.015113206,0.017425163,0.0013179964,0.009931533,0.0,0.0,0.0,0.0,0.0029801487,-0.023382273,-0.020218344,-0.04259961,-0.01180127,-0.073956765,0.01472094,0.04203185,-0.028125199,0.013680636,0.04444065,0.05779431,-0.07693271,-0.047137104,-0.037457068,-0.037756722,-0.035786953,-0.03225066,0.012948261,-0.025969014,-0.039134823,-0.038350735,-0.12252617,-0.0128552215,-0.35124984,-0.64695585,0.118618414,-0.30418682,-0.24766755,-0.30932537,0.25739688,0.019156601,-0.54057544,0.31575403,-0.408337,0.2501528,0.099470295,-0.025883442,-0.008657355,-0.50929284,0.14270711,-0.20970017,0.31347886,0.4537828,0.08741883,0.37550518,1.0077633,0.44139946
2025-07-21 15:51:17.593,2.660000000000002,2660,133,0.16081381,-0.025267377,0.13010384,-0.03644085,0.008705826,-0.04358575,0.0,0.0,0.0,0.0,0.0027605123,-0.021117005,-0.019798432,-0.05744304,-0.0056882575,-0.0574325,0.02650687,0.06389571,-0.016659299,0.017633751,0.060204655,0.041150462,0.015563804,0.08012489,0.03489085,0.0101168575,0.10356662,-0.0073696305,0.008167048,-0.0104653295,0.03614783,0.08807975,0.1851025,0.03187558,0.099470295,-0.025883442,-0.008657355,-0.50929284,0.14270711,-0.20970017,0.31347886,0.4537828,0.08741883,0.37550518,1.0077633,0.44139946,-0.10968966,-0.8586072,0.05632825,-0.115396105,-0.7869051,-0.1724773,0.067611694,-0.07231636,-0.28407735,-0.014515987,-1.0382733,0.05087126
2025-07-21 15:51:17.611,2.680000000000002,2680,134,-0.1568904,-0.06767333,0.042177174,0.03216903,-0.06834208,0.002293286,0.0,0.0,0.0,0.0,-0.004296289,-0.06357343,-0.023199013,-0.04786368,-0.048417263,-0.057249814,0.03214249,0.060322046,-0.03608526,0.018918697,0.06739139,0.046385016,0.012547883,-0.16042934,0.0011025886,0.030121855,-0.087074555,-0.0169352,0.019876424,-0.0059765554,-0.01916237,-0.019461969,-0.04157913,0.013627555,-0.10968966,-0.8586072,0.05632825,-0.115396105,-0.7869051,-0.1724773,0.067611694,-0.07231636,-0.28407735,-0.014515987,-1.0382733,0.05087126,0.18190512,0.7881082,0.29187074,-0.032298587,0.32270387,-0.2960728,0.034064725,0.36671948,-0.20560957,-0.112204015,-0.06429116,0.5000932
2025-07-21 15:51:17.631,2.700000000000002,2700,135,0.093712114,-0.022497054,-0.117564894,-0.011963954,-0.041532747,-0.016784742,0.0,0.0,0.0,0.0,0.007140271,-0.0700516,-0.010106815,-0.049841333,-0.060182866,-0.059169106,0.019774258,0.06447274,-0.027754508,0.022100214,0.06086016,0.04913782,0.04775462,-0.0075162062,0.056809507,0.065058336,0.03924476,-0.03921426,-0.08228376,0.059030112,0.01814446,-0.031227455,-0.057626233,0.07314402,0.18190512,0.7881082,0.29187074,-0.032298587,0.32270387,-0.2960728,0.034064725,0.36671948,-0.20560957,-0.112204015,-0.06429116,0.5000932,-0.39672053,-0.27205324,0.23883866,-0.5418332,0.09279772,-0.35993257,0.59069186,0.030056667,-0.3280378,0.7505138,0.45940614,0.4138555
2025-07-21 15:51:17.650,2.720000000000002,2720,136,0.07858099,-0.030017274,0.123102136,0.030709071,-0.045232795,0.009833662,0.0,0.0,0.0,0.0,0.0025611585,-0.05299458,-0.01842537,-0.05913313,-0.035484783,-0.063696325,0.03238134,0.054699287,-0.022972643,0.03213625,0.077887855,0.04433248,-0.08409665,-0.05255539,-0.026968973,-0.05026544,0.0010912812,0.019104064,0.08894952,-0.009492702,-0.06909974,0.0067340257,0.018457823,-0.049744032,-0.39672053,-0.27205324,0.23883866,-0.5418332,0.09279772,-0.35993257,0.59069186,0.030056667,-0.3280378,0.7505138,0.45940614,0.4138555,0.008702879,-0.026456958,-0.28182906,-0.106564276,-0.11110302,-0.2346591,0.37186888,0.15424979,-0.26693535,0.0914278,-0.4509487,0.2079109
2025-07-21 15:51:17.671,2.740000000000002,2740,137,-0.008138854,-0.122976735,-0.048904613,-0.04221006,-0.008161798,-0.006989986,0.0,0.0,0.0,0.0,0.0070794523,-0.06007736,-0.027425772,-0.04138448,-0.047032658,-0.061097916,0.042595897,0.06532192,-0.029113626,0.03182733,0.06374084,0.033082616,0.039111592,-0.061699554,-0.10619411,-0.01743109,-0.0328026,0.00013005933,-0.0036689152,0.024855537,-0.009522944,0.048171673,0.030394569,0.024733888,0.008702879,-0.026456958,-0.28182906,-0.106564276,-0.11110302,-0.2346591,0.37186888,0.15424979,-0.26693535,0.0914278,-0.4509487,0.2079109,-0.18036152,0.018827135,-0.24676098,-0.25180727,0.2506251,0.13332295,0.27077293,0.008288082,0.2530824,0.76865727,0.49613914,0.21888629
2025-07-21 15:51:17.693,2.760000000000002,2760,138,0.06570142,-0.060440592,0.18270609,-0.045859244,0.0067109857,0.04930697,0.0,0.0,0.0,0.0,0.011503,-0.051904894,-0.035387136,-0.05678298,-0.033875197,-0.04669176,0.04295186,0.046794187,-0.027116615,0.033024922,0.09597802,0.022467025,-0.029734828,0.06008371,-0.0758815,-0.026724996,0.12435024,0.067093246,0.055785317,0.026634684,0.07508429,0.010624416,0.12073009,0.040097956,-0.18036152,0.018827135,-0.24676098,-0.25180727,0.2506251,0.13332295,0.27077293,0.008288082,0.2530824,0.76865727,0.49613914,0.21888629,-0.15019143,-0.57547414,-0.27305946,0.07381929,-0.7939236,-0.20729813,0.34535944,-0.13922374,-0.113973245,0.08995013,-0.98207444,-0.07039294
2025-07-21 15:51:17.711,2.780000000000002,2780,139,-0.1535197,-0.18459739,-0.018672792,0.029885871,0.042587534,-0.03909474,0.0,0.0,0.0,0.0,-0.004478328,-0.0664437,-0.040872708,-0.036922924,-0.027095743,-0.045320325,0.056514427,0.043788087,-0.020164054,0.027029201,0.06954382,0.033419523,-0.04604587,-0.1344669,0.032039136,0.013980536,-0.13533692,0.06357474,0.009167498,-0.10389545,-0.06577966,0.06303859,-0.06730218,-0.07477641,-0.15019143,-0.57547414,-0.27305946,0.07381929,-0.7939236,-0.20729813,0.34535944,-0.13922374,-0.113973245,0.08995013,-0.98207444,-0.07039294,-0.0017353843,0.5149071,-0.23126854,-0.22217096,0.745411,0.044686697,0.21126348,0.4682759,0.31471834,0.2715296,0.5974086,0.70186555
