openverse-orca/OrcaGym/log/simulation_log_20250610_090146.csv
timestamp,imu_angle_roll,imu_angle_pitch,imu_angle_yaw,imu_angular_velocity_roll,imu_angular_velocity_pitch,imu_angular_velocity_yaw,imu_acc_x,imu_acc_y,imu_acc_z,fl_joint1_pos,fl_joint1_vel,fl_joint1_torque,fl_joint2_pos,fl_joint2_vel,fl_joint2_torque,fl_joint3_pos,fl_joint3_vel,fl_joint3_torque,fr_joint1_pos,fr_joint1_vel,fr_joint1_torque,fr_joint2_pos,fr_joint2_vel,fr_joint2_torque,fr_joint3_pos,fr_joint3_vel,fr_joint3_torque,hl_joint1_pos,hl_joint1_vel,hl_joint1_torque,hl_joint2_pos,hl_joint2_vel,hl_joint2_torque,hl_joint3_pos,hl_joint3_vel,hl_joint3_torque,hr_joint1_pos,hr_joint1_vel,hr_joint1_torque,hr_joint2_pos,hr_joint2_vel,hr_joint2_torque,hr_joint3_pos,hr_joint3_vel,hr_joint3_torque,fl_force_x,fl_force_y,fl_force_z,fr_force_x,fr_force_y,fr_force_z,hl_force_x,hl_force_y,hl_force_z,hr_force_x,hr_force_y,hr_force_z,fl_hip_action,fl_thigh_action,fl_calf_action,fr_hip_action,fr_thigh_action,fr_calf_action,hl_hip_action,hl_thigh_action,hl_calf_action,hr_hip_action,hr_thigh_action,hr_calf_action
2025-06-10 09:01:46.098,-0.005419576,-0.027230643,-0.036583755,-0.022951819,0.024360552,-0.03682591,-1.5108566,-1.3734125,0.0,0.0,0.0059667714,-0.0020020825,0.007917608,-0.0047243442,-0.00925456,0.0059880763,0.0038046488,0.003820879,0.0013996374,-0.0077661793,-0.0032919722,0.009166958,0.00028956932,0.063116506,-0.072786905,-0.04420668,0.043382384,-0.022484988,-0.024733799,0.020416254,-0.049217056,0.030549623,-0.028532717,0.011749961,0.0,0.0,0.0,0.0,0.0,0.0,0.0,0.0,0.0,0.0,0.0,0.0,-2.0,2.0,-2.0,2.0,2.0,-1.9997284,2.0,0.74302655,-2.0,-2.0,-0.15347199,-2.0
2025-06-10 09:01:46.102,-0.09685164,-0.13184671,-0.020114686,-0.018784028,0.021218479,-0.027942328,0.0,0.0,0.0,0.0,-0.03675872,0.10189986,-0.0657058,0.036274955,0.10770429,-0.06988272,0.012167024,0.042255085,-0.07798629,-0.027803782,-0.0065574236,-0.071601495,-0.08789286,0.2901572,-0.24695213,0.14632963,0.3876151,-0.16406655,0.06178626,0.1097654,-0.27941754,-0.08886989,-0.04620547,-0.15720043,-2.0,2.0,-2.0,2.0,2.0,-1.9997284,2.0,0.74302655,-2.0,-2.0,-0.15347199,-2.0,2.0,2.0,2.0,2.0,1.0720581,-2.0,2.0,-1.9846625,-2.0,-2.0,0.054745905,-2.0
2025-06-10 09:01:46.125,0.056873728,-0.07549127,-0.0019910107,-0.004032799,-0.012607942,-0.02539295,0.0,0.0,0.0,-0.00030287178,-0.010998006,0.214248,-0.026660012,0.056545105,0.17300813,-0.11177607,0.04298354,-0.018068327,-0.07699656,-0.028707417,-0.008487287,-0.09809675,0.12400319,0.31392097,0.23854406,0.024466898,0.023318416,0.018486073,0.10348326,-0.17540137,0.04817556,0.05421054,-0.066967964,0.028415553,2.0,2.0,2.0,2.0,1.0720581,-2.0,2.0,-1.9846625,-2.0,-2.0,0.054745905,-2.0,2.0,2.0,-2.0,2.0,2.0,-2.0,2.0,-0.27310774,-2.0,-2.0,-0.3127077,-2.0
2025-06-10 09:01:46.142,0.09775062,-0.18506947,-0.034643684,-0.022433873,-0.033570986,-0.048965532,0.0,0.0,0.0,-0.0003642181,0.021182438,0.34439805,-0.051407784,0.0625751,0.18995474,-0.11501302,0.03977796,-0.031695433,-0.06739607,-0.047791395,0.005439484,-0.110633284,0.07576172,0.2235353,-0.21176803,0.04935224,-0.008988374,0.02821893,-0.068193294,-0.015664406,0.08130226,0.0009323717,0.062144764,0.052359413,2.0,2.0,-2.0,2.0,2.0,-2.0,2.0,-0.27310774,-2.0,-2.0,-0.3127077,-2.0,2.0,2.0,-2.0,2.0,2.0,-2.0,2.0,-0.44658265,-2.0,-2.0,-0.58202964,-2.0
2025-06-10 09:01:46.162,0.06835677,-0.053352874,0.013502495,0.01359477,0.027413456,-0.042601053,0.0,0.0,0.0,-0.0003412024,0.04651811,0.38500038,-0.07125056,0.05859199,0.2053646,-0.11965649,0.04269145,-0.026436485,-0.04584224,-0.045020312,0.0030137852,-0.10857871,0.02050318,-0.006289284,-0.039860535,0.047863763,0.07630193,-0.041842926,-0.03333288,-0.037734643,0.029409623,0.06457143,-0.06722026,-0.008132432,2.0,2.0,-2.0,2.0,2.0,-2.0,2.0,-0.44658265,-2.0,-2.0,-0.58202964,-2.0,2.0,2.0,-2.0,2.0,2.0,-2.0,2.0,-0.47831294,-2.0,-2.0,-0.17570196,-2.0
2025-06-10 09:01:46.182,0.018800726,0.022892714,0.085060224,0.0039057995,0.020146096,0.045194212,0.0,0.0,0.0,-0.0011639164,0.054679044,0.39340636,-0.079838805,0.07624473,0.2213097,-0.121707246,0.058634784,-0.014889187,-0.05666156,-0.04473072,-0.0078111286,-0.09572002,0.08407976,-0.0090374835,-0.02522616,0.06050234,0.0071295733,-0.010420883,0.07909197,-0.0034357186,0.04599975,0.026540054,0.057286892,-0.0027612904,2.0,2.0,-2.0,2.0,2.0,-2.0,2.0,-0.47831294,-2.0,-2.0,-0.17570196,-2.0,2.0,2.0,-2.0,2.0,2.0,-2.0,2.0,-0.6384746,-2.0,-2.0,0.11076916,-2.0
2025-06-10 09:01:46.202,0.12286278,0.026868839,0.024718124,0.04245302,0.02070349,-0.009376406,0.0,0.0,0.0,-0.0022292926,0.05880911,0.40448993,-0.109129794,0.09565621,0.24377327,-0.16053258,0.05380756,-0.012003262,-0.06928176,-0.03910569,0.006353209,-0.11751344,-0.053353976,-0.02743267,-0.04550605,0.011943574,0.109016694,-0.14694488,0.001977812,0.0532575,0.041769233,0.030444203,-0.027729321,-0.113364376,2.0,2.0,-2.0,2.0,2.0,-2.0,2.0,-0.6384746,-2.0,-2.0,0.11076916,-2.0,2.0,2.0,-2.0,2.0,2.0,-2.0,2.0,-0.48398432,-2.0,-2.0,-0.1507882,-2.0
2025-06-10 09:01:46.224,0.07488138,0.08701607,0.05224269,-0.002530942,-0.027652781,-0.004882038,0.0,0.0,0.0,-0.0027844345,0.07136634,0.4228398,-0.11041159,0.09705397,0.2823752,-0.19734786,0.06507529,-0.0028105993,-0.06413992,-0.021904329,0.026196335,-0.13972957,0.021357454,0.073864155,0.0072401785,0.06989534,0.08166188,-0.020385697,0.002544977,-0.029871339,-0.012335033,0.012026551,0.06509965,-0.101028085,2.0,2.0,-2.0,2.0,2.0,-2.0,2.0,-0.48398432,-2.0,-2.0,-0.1507882,-2.0,2.0,2.0,-2.0,2.0,2.0,-2.0,2.0,-0.5280499,-2.0,-2.0,0.058588974,-2.0
2025-06-10 09:01:46.242,0.03734997,0.050984707,0.020069899,-0.026229717,-0.019365555,0.02205079,0.0,0.0,0.0,-0.0030774751,0.08033702,0.43033478,-0.13648434,0.095324375,0.34368405,-0.22470848,0.06903479,-0.009807912,-0.076275475,-0.016608804,0.023273824,-0.14758344,0.07044298,0.08785175,-0.0059334436,-0.028666742,0.08322097,-0.00752764,0.083379745,0.07012539,0.019003017,-0.038111255,-0.024862014,0.039175376,2.0,2.0,-2.0,2.0,2.0,-2.0,2.0,-0.5280499,-2.0,-2.0,0.058588974,-2.0,2.0,2.0,-2.0,2.0,2.0,-2.0,2.0,-0.40897527,-2.0,-2.0,-0.13923575,-2.0
2025-06-10 09:01:46.263,0.009274282,0.029588427,0.0005678858,-0.021471167,0.042596895,0.03897301,0.0,0.0,0.0,-0.0033527901,0.09414791,0.44516158,-0.16042712,0.10349182,0.40709665,-0.25720897,0.06551975,-0.0075765965,-0.068545125,-0.021104272,0.044403795,-0.14678174,0.09524235,0.051798005,-0.09623489,0.0643802,0.15451895,-0.07699249,-0.056429025,-0.019616533,0.069089346,0.02678466,0.042303327,-0.034685776,2.0,2.0,-2.0,2.0,2.0,-2.0,2.0,-0.40897527,-2.0,-2.0,-0.13923575,-2.0,2.0,2.0,-2.0,2.0,2.0,-2.0,2.0,-0.5314747,-2.0,-2.0,0.026835164,-2.0
2025-06-10 09:01:46.283,0.04953371,0.005772945,0.07504615,0.02804583,0.021945484,0.025280982,0.0,0.0,0.0,-0.0040469104,0.10301592,0.4552754,-0.17217053,0.107277274,0.45089403,-0.27079368,0.07965348,-0.010765553,-0.061637357,-0.020110939,0.02796434,-0.14302927,0.047794335,0.022285253,0.04599506,0.036884286,0.029792722,-0.048716366,0.04950616,-0.05906255,0.009432312,0.013262756,0.058161218,-0.008565737,2.0,2.0,-2.0,2.0,2.0,-2.0,2.0,-0.5314747,-2.0,-2.0,0.026835164,-2.0,2.0,2.0,-2.0,2.0,2.0,-2.0,2.0,-0.50262856,-2.0,-2.0,0.4148226,-2.0
2025-06-10 09:01:46.304,0.001921225,-0.005448534,0.024626978,-0.006316777,-0.015279713,-0.030978119,0.0,0.0,0.0,-0.005024249,0.107295364,0.46061978,-0.16087417,0.09300182,0.47779664,-0.2683081,0.068033665,-0.0067926673,-0.06119459,-0.008508228,0.0455763,-0.13871539,-0.017312286,0.030537954,0.026518436,-0.05505782,0.07015935,-0.043898746,-0.021152753,0.01399515,-0.0068912716,0.010405073,0.0110165095,-0.021528663,2.0,2.0,-2.0,2.0,2.0,-2.0,2.0,-0.50262856,-2.0,-2.0,0.4148226,-2.0,2.0,2.0,-2.0,2.0,2.0,-2.0,2.0,-0.36720416,-2.0,-2.0,0.10159861,-2.0
2025-06-10 09:01:46.324,-0.025500553,-0.042543795,0.06925932,0.0022891508,-0.025097812,0.043101724,0.0,0.0,0.0,-0.0056829397,0.1147156,0.4687789,-0.14939909,0.09443084,0.50602794,-0.2708496,0.07518933,0.0032822718,-0.050135884,-0.0069496725,0.058791097,-0.13900675,0.0015194032,-0.034553472,-0.022048462,-0.0535209,-0.008686056,-0.03135126,-0.04539079,-0.052750353,-0.044193346,-0.0075820857,-0.0038222994,-0.041585695,2.0,2.0,-2.0,2.0,2.0,-2.0,2.0,-0.36720416,-2.0,-2.0,0.10159861,-2.0,2.0,2.0,-2.0,2.0,2.0,-2.0,2.0,-0.49326494,-2.0,-2.0,0.39420614,-2.0
2025-06-10 09:01:46.344,-0.038809042,-0.08623512,-0.03367336,-0.021500845,-0.033578116,0.04393563,0.0,0.0,0.0,-0.0062552965,0.11713474,0.49242932,-0.14672822,0.10174256,0.5163781,-0.27129248,0.07486025,0.008026207,-0.048999336,-0.002754771,0.05050749,-0.14013855,0.01425731,-0.01858396,0.036689553,0.04815676,-0.03479553,-0.07594281,0.068266995,0.018890867,0.034894418,-0.0413222,0.017676812,-0.025553867,2.0,2.0,-2.0,2.0,2.0,-2.0,2.0,-0.49326494,-2.0,-2.0,0.39420614,-2.0,2.0,2.0,-2.0,2.0,2.0,-2.0,2.0,-0.15211007,-2.0,-2.0,-0.22759594,-2.0
2025-06-10 09:01:46.364,-0.05648452,-0.030477438,0.07575326,0.0030125245,0.030373534,0.00792963,0.0,0.0,0.0,-0.006489044,0.12858321,0.48133916,-0.14584728,0.09676111,0.5050355,-0.27858457,0.08266541,0.018080184,-0.058016993,-0.009433339,0.053202488,-0.14213713,-0.023447437,0.070321485,0.062984385,-0.064417735,0.07112382,0.026621183,-0.03549256,0.024355188,0.06051826,0.057591833,-0.015151504,0.03087269,2.0,2.0,-2.0,2.0,2.0,-2.0,2.0,-0.15211007,-2.0,-2.0,-0.22759594,-2.0,2.0,2.0,-2.0,2.0,2.0,-2.0,2.0,-0.5682138,-2.0,-2.0,0.43526998,-2.0
2025-06-10 09:01:46.384,0.02214703,-0.01887171,-0.055422075,0.015945377,0.041970007,0.012589751,0.0,0.0,0.0,-0.00698526,0.124495365,0.4848554,-0.12836501,0.10084637,0.5034219,-0.27862954,0.08197203,0.025010096,-0.043398988,-0.004234609,0.058800355,-0.121555954,0.011812708,0.037490442,0.027106756,0.069808945,0.044828806,-0.0345707,-0.06444,0.04538633,-0.003803917,-0.031265877,-0.02793879,-0.049529877,2.0,2.0,-2.0,2.0,2.0,-2.0,2.0,-0.5682138,-2.0,-2.0,0.43526998,-2.0,2.0,2.0,-2.0,2.0,2.0,-2.0,2.0,-0.13394085,-2.0,-2.0,-0.275313,-2.0
2025-06-10 09:01:46.404,-0.0050854594,0.020447133,0.046896875,0.009882282,-0.0059750318,-0.041211925,0.0,0.0,0.0,-0.0070651355,0.12479508,0.49428397,-0.12053314,0.10013568,0.5192551,-0.27154428,0.07351627,0.030369496,-0.04168531,-0.0012841377,0.051378753,-0.11652131,-0.04602572,-0.0352773,-0.00017110941,-0.02855116,-0.044203375,0.056247953,0.04194945,0.05542769,0.01217301,0.022628525,-0.03933851,0.0064518615,2.0,2.0,-2.0,2.0,2.0,-2.0,2.0,-0.13394085,-2.0,-2.0,-0.275313,-2.0,2.0,2.0,-2.0,2.0,2.0,-2.0,2.0,-0.44810906,-2.0,-2.0,0.16526784,-2.0
2025-06-10 09:01:46.425,-0.015354336,-0.0015881574,0.024025973,0.015478435,-0.0026243865,-0.046359036,0.0,0.0,0.0,-0.0073537845,0.12074206,0.49977344,-0.13715921,0.08844875,0.51882994,-0.26665786,0.07936623,0.028905436,-0.051971875,-0.0032279857,0.058303338,-0.12200851,-0.063472845,0.011282312,-0.047776468,-0.047898088,-0.013410092,-0.020109136,-0.060131606,-0.07062005,0.022395207,-0.06622113,-0.012903028,0.046506897,2.0,2.0,-2.0,2.0,2.0,-2.0,2.0,-0.44810906,-2.0,-2.0,0.16526784,-2.0,2.0,2.0,-2.0,2.0,2.0,-2.0,2.0,-0.30867645,-2.0,-2.0,0.21351707,-2.0
2025-06-10 09:01:46.444,0.018301714,0.014251584,-0.05026274,0.05860634,0.022751747,3.015772e-05,0.0,0.0,0.0,-0.007600433,0.11888325,0.49855405,-0.12030766,0.098979436,0.5139654,-0.26015645,0.06628576,0.04284631,-0.0366432,-0.009498199,0.053139277,-0.11828244,-0.009104349,0.069366544,-0.02503646,0.040778525,0.0002638721,0.012657454,0.013818873,-0.04636821,-0.022283942,-0.052595552,-0.0048806807,-0.035968874,2.0,2.0,-2.0,2.0,2.0,-2.0,2.0,-0.30867645,-2.0,-2.0,0.21351707,-2.0,2.0,2.0,-2.0,2.0,2.0,-2.0,2.0,-0.257911,-2.0,-2.0,-0.26060355,-2.0
2025-06-10 09:01:46.464,-0.0031552096,0.021646354,-0.02503383,0.0033614372,-0.016762346,-0.006775299,0.0,0.0,0.0,-0.0075522843,0.12983331,0.501028,-0.12471019,0.083148606,0.50655884,-0.23999564,0.06741633,0.033862937,-0.054335903,-0.022474859,0.05781071,-0.111698836,-0.0029272789,0.0022242821,-0.045087833,-0.006784827,0.04102906,0.050315313,-0.044896554,-0.027107984,0.015776586,-0.027227009,0.0253244,0.08237426,2.0,2.0,-2.0,2.0,2.0,-2.0,2.0,-0.257911,-2.0,-2.0,-0.26060355,-2.0,2.0,2.0,-2.0,2.0,2.0,-2.0,2.0,-0.31607452,-2.0,-2.0,-0.040384956,-2.0
2025-06-10 09:01:46.484,-0.011731884,0.009676637,-0.036652375,0.0303715,0.030260492,0.0048399474,0.0,0.0,0.0,-0.00775212,0.11297243,0.51004213,-0.14652488,0.099725164,0.5184594,-0.25433746,0.080354124,0.031130057,-0.05484198,-0.008911998,0.053269316,-0.09105611,0.017724166,-0.044153214,-0.0681114,-0.023095373,-0.04523967,-0.010747397,-0.005413699,-0.054082874,-0.07989814,0.025996469,-0.0742003,-0.04814018,2.0,2.0,-2.0,2.0,2.0,-2.0,2.0,-0.31607452,-2.0,-2.0,-0.040384956,-2.0,2.0,2.0,-2.0,2.0,2.0,-2.0,2.0,-0.23883066,-2.0,-2.0,-0.13902287,-2.0
2025-06-10 09:01:46.507,-0.08388925,0.021163369,0.044824246,0.0044209184,0.021415658,0.041213337,0.0,0.0,0.0,-0.0080276765,0.12530333,0.50056136,-0.1396154,0.09048312,0.50571483,-0.23884326,0.060212765,0.030617105,-0.0575051,-0.024288017,0.030822,-0.09713812,-0.06896389,-0.039548,-0.0041705566,0.036424868,0.051349927,-0.023333998,-0.03371795,-0.025149323,0.0094698025,0.05282015,-0.023680355,0.061141558,2.0,2.0,-2.0,2.0,2.0,-2.0,2.0,-0.23883066,-2.0,-2.0,-0.13902287,-2.0,2.0,2.0,-2.0,2.0,2.0,-2.0,2.0,-0.5004295,-2.0,-2.0,0.38767913,-2.0
2025-06-10 09:01:46.525,0.0076682954,-0.024494536,0.006881861,0.02392546,0.003138982,0.025178393,0.0,0.0,0.0,-0.008321042,0.122871846,0.5072877,-0.14404313,0.091660716,0.50868356,-0.23991689,0.07089945,0.042446263,-0.054344285,-0.026414646,0.03468511,-0.0960673,-0.03604947,0.06416891,0.047874343,-0.043423433,-0.068867505,0.025176845,-0.010762389,0.028999675,0.009190721,0.057691794,0.034997646,-0.052882094,2.0,2.0,-2.0,2.0,2.0,-2.0,2.0,-0.5004295,-2.0,-2.0,0.38767913,-2.0,2.0,2.0,-2.0,2.0,2.0,-2.0,2.0,-0.23100522,-2.0,-2.0,-0.06335501,-2.0
2025-06-10 09:01:46.545,-0.062474176,-0.027811278,-0.06343716,-0.013333365,-0.020075383,0.021600926,0.0,0.0,0.0,-0.008023845,0.106477045,0.50277495,-0.1424688,0.08091758,0.5137467,-0.22917233,0.066746265,0.03545297,-0.07492694,-0.019080183,0.048380002,-0.09502664,0.011288913,-0.0063042752,-0.08006045,-0.03409053,-0.0240434,-0.017922118,-0.050945163,0.038374387,0.0456992,0.0074317832,-0.046859674,0.030075952,2.0,2.0,-2.0,2.0,2.0,-2.0,2.0,-0.23100522,-2.0,-2.0,-0.06335501,-2.0,2.0,2.0,-2.0,2.0,2.0,-2.0,2.0,-0.19563618,-2.0,-2.0,-0.28707305,-2.0
2025-06-10 09:01:46.565,-0.008059817,0.017803902,0.049853303,0.042320874,-0.006190471,0.009163359,0.0,0.0,0.0,-0.0076203174,0.11959308,0.5021773,-0.15634711,0.095406644,0.5099387,-0.2356765,0.0695842,0.04893962,-0.08123321,-0.02728809,0.03700258,-0.08332281,-0.048088863,0.0386732,0.0570449,0.03869327,0.016753273,0.05308066,-0.044446036,-0.0086154435,0.04552777,0.05515984,-0.0837436,0.043389052,2.0,2.0,-2.0,2.0,2.0,-2.0,2.0,-0.19563618,-2.0,-2.0,-0.28707305,-2.0,2.0,2.0,-2.0,2.0,2.0,-2.0,2.0,-0.49497893,-2.0,-2.0,0.3584257,-2.0
2025-06-10 09:01:46.585,-0.00916302,-0.009685146,-0.029328622,0.029244589,0.038108252,-0.038200714,0.0,0.0,0.0,-0.007631638,0.104537755,0.49759585,-0.14923002,0.0831061,0.51512474,-0.23333625,0.061907582,0.045613855,-0.075066105,-0.012787992,0.026456587,-0.08523823,0.022439757,-0.008061798,-0.05388581,-0.010489463,0.004937646,0.0012144841,-0.004205726,-0.01908232,-0.00992658,0.055792935,0.05933804,-0.06986658,2.0,2.0,-2.0,2.0,2.0,-2.0,2.0,-0.49497893,-2.0,-2.0,0.3584257,-2.0,2.0,2.0,-2.0,2.0,2.0,-2.0,2.0,-0.2796671,-2.0,-2.0,-0.12714787,-2.0
2025-06-10 09:01:46.608,-0.018921867,0.066273585,-0.00848305,0.0015516871,0.039749786,0.030948328,0.0,0.0,0.0,-0.007272315,0.11628855,0.50775754,-0.1529598,0.08233271,0.5040363,-0.23303106,0.052880052,0.035377476,-0.07374329,-0.018131219,0.03274269,-0.08601794,-0.07842864,-0.056533977,-0.021894572,-0.040860012,-0.066524245,0.02073969,-0.0023541923,-0.01716729,-0.028171226,0.06722417,-0.07001041,0.05770502,2.0,2.0,-2.0,2.0,2.0,-2.0,2.0,-0.2796671,-2.0,-2.0,-0.12714787,-2.0,2.0,2.0,-2.0,2.0,2.0,-2.0,2.0,-0.32157764,-2.0,-2.0,0.036353044,-2.0
2025-06-10 09:01:46.625,-0.054938626,-0.0071049808,-0.026519455,0.036680754,-0.0003082539,-0.018244283,0.0,0.0,0.0,-0.0068994625,0.09940149,0.49299145,-0.15594868,0.080466084,0.503134,-0.2349584,0.06962517,0.043666832,-0.079973936,-0.023208365,0.040257245,-0.09597931,-0.07880642,-0.011658252,-0.054042768,0.066231236,0.058920525,0.05403089,0.054827318,0.046617053,-0.06450957,0.021953713,-0.024260478,0.048812486,2.0,2.0,-2.0,2.0,2.0,-2.0,2.0,-0.32157764,-2.0,-2.0,0.036353044,-2.0,2.0,2.0,-2.0,2.0,2.0,-2.0,2.0,-0.36317137,-2.0,-2.0,-0.04488065,-2.0
2025-06-10 09:01:46.645,0.028789174,-0.013720222,0.009062703,0.021696763,0.024723243,-0.0017048649,0.0,0.0,0.0,-0.0066254335,0.1033299,0.49824604,-0.15502097,0.08061478,0.5057784,-0.23076506,0.05980295,0.036674384,-0.09483893,-0.023489015,0.038716033,-0.08663229,0.006530635,-0.054641012,-0.07679323,0.05837263,-0.008296574,-0.026618533,-0.03488848,-0.042365037,0.03924901,-0.06724698,-0.00025612788,0.015801474,2.0,2.0,-2.0,2.0,2.0,-2.0,2.0,-0.36317137,-2.0,-2.0,-0.04488065,-2.0,2.0,2.0,-2.0,2.0,2.0,-2.0,2.0,-0.36854622,-2.0,-2.0,0.1378101,-2.0
2025-06-10 09:01:46.665,-0.048489895,-0.027910238,0.025570009,0.02746083,-0.007914585,0.0027139138,0.0,0.0,0.0,-0.0063852333,0.09885943,0.49196464,-0.15579788,0.08391553,0.5110948,-0.21475123,0.06245293,0.03727627,-0.101104714,-0.020683115,0.034905907,-0.08676183,-0.055872377,-0.0012555157,-0.06880174,-0.06445039,-0.07355538,-0.013976031,-0.043355513,-0.062598504,-0.0057104854,0.070458576,0.03658512,-0.015783872,2.0,2.0,-2.0,2.0,2.0,-2.0,2.0,-0.36854622,-2.0,-2.0,0.1378101,-2.0,2.0,2.0,-2.0,2.0,2.0,-2.0,2.0,-0.4194748,-2.0,-2.0,0.20153694,-2.0
2025-06-10 09:01:46.685,-0.022921385,-0.061226144,0.010154798,-0.03452538,-0.00022491747,0.042248614,0.0,0.0,0.0,-0.006050683,0.09175407,0.49935165,-0.16655838,0.091727145,0.5004648,-0.22886217,0.051853366,0.034801103,-0.103702106,-0.029502459,0.026277868,-0.0931014,0.015294297,-0.0032683145,0.060664468,0.028025316,-0.06326504,-0.06574272,0.05128388,0.048253678,0.013765239,0.045122296,-0.06415073,-0.041152656,2.0,2.0,-2.0,2.0,2.0,-2.0,2.0,-0.4194748,-2.0,-2.0,0.20153694,-2.0,2.0,2.0,-2.0,2.0,2.0,-2.0,2.0,-0.29132524,-2.0,-2.0,-0.011707852,-2.0
2025-06-10 09:01:46.708,-0.049915966,0.013716178,0.021878872,-0.022851883,0.02501376,-0.0049122595,0.0,0.0,0.0,-0.005526234,0.09509476,0.49824673,-0.17070295,0.08787561,0.50924087,-0.22019587,0.07109004,0.039593924,-0.11274194,-0.024647528,0.02706883,-0.10647947,-0.048702504,0.025148723,0.07303224,-0.04773865,-0.048278257,-0.003885094,-0.06996987,0.03665908,0.010973354,-0.0019658427,0.038787127,-0.06683386,2.0,2.0,-2.0,2.0,2.0,-2.0,2.0,-0.29132524,-2.0,-2.0,-0.011707852,-2.0,2.0,2.0,-2.0,2.0,2.0,-2.0,2.0,-0.36607537,-2.0,-2.0,0.15209779,-2.0
2025-06-10 09:01:46.725,-0.00805368,-0.037915576,-0.026875312,0.02040745,-0.017257236,0.0010690057,0.0,0.0,0.0,-0.0051432005,0.09304158,0.4960406,-0.16658208,0.08739577,0.5136717,-0.22512573,0.06829714,0.021137593,-0.11500284,-0.028555676,0.020781973,-0.10595574,-0.014507051,0.0098669045,0.031960975,0.002199396,0.03424405,-0.02284023,-0.011487444,0.06531605,0.053378936,-0.022895448,0.06091085,0.012114345,2.0,2.0,-2.0,2.0,2.0,-2.0,2.0,-0.36607537,-2.0,-2.0,0.15209779,-2.0,2.0,2.0,-2.0,2.0,2.0,-2.0,2.0,-0.28856596,-2.0,-2.0,-0.103855945,-2.0
2025-06-10 09:01:46.745,-0.012232768,-0.010729001,0.048197605,-0.013116819,-0.06221611,-0.02684262,0.0,0.0,0.0,-0.004836405,0.09936424,0.49019673,-0.16497444,0.081115276,0.5065847,-0.2154949,0.07123477,0.03473331,-0.11510751,-0.009953781,0.03383828,-0.109655745,-0.061199047,-0.020316608,-0.023683846,0.017384758,0.0463833,0.03603738,-0.0711346,-0.044850238,-0.035401426,0.046889942,0.032796446,0.07581076,2.0,2.0,-2.0,2.0,2.0,-2.0,2.0,-0.28856596,-2.0,-2.0,-0.103855945,-2.0,2.0,2.0,-2.0,2.0,2.0,-2.0,2.0,-0.50752217,-2.0,-2.0,0.4298122,-2.0
2025-06-10 09:01:46.765,0.022748923,-0.08602892,-0.051574025,0.032741368,0.0048942533,-0.046072006,0.0,0.0,0.0,-0.004779046,0.09536675,0.47939026,-0.16436265,0.078016974,0.5036984,-0.21108916,0.055205543,0.014866618,-0.10921285,-0.010710873,0.024056876,-0.09601912,-0.055217594,-0.02740176,0.06310497,0.01614167,-0.059374902,0.07016682,-0.058945395,0.033181217,-0.03522043,-0.06354419,-0.036436338,0.0045118053,2.0,2.0,-2.0,2.0,2.0,-2.0,2.0,-0.50752217,-2.0,-2.0,0.4298122,-2.0,2.0,2.0,-2.0,2.0,2.0,-2.0,2.0,-0.1110042,-2.0,-2.0,-0.28911537,-2.0
2025-06-10 09:01:46.785,-0.00036612328,0.05024018,0.006091315,-0.06253064,-0.064027764,-0.035376776,0.0,0.0,0.0,-0.004511761,0.10623964,0.49110764,-0.16608618,0.094934136,0.5055381,-0.21652745,0.068000466,0.02634514,-0.107945435,-0.012461614,0.0372381,-0.09778768,-0.00824674,-0.07636629,-0.04839224,-0.023998063,-0.04042556,0.020602662,-0.058395676,0.038119566,0.042005282,0.03476604,-0.075207815,-0.039256424,2.0,2.0,-2.0,2.0,2.0,-2.0,2.0,-0.1110042,-2.0,-2.0,-0.28911537,-2.0,2.0,2.0,-2.0,2.0,2.0,-2.0,2.0,-0.3951907,-2.0,-2.0,0.024557894,-2.0
2025-06-10 09:01:46.808,0.043901753,0.042894244,-0.0104409885,-0.005075665,-0.03531497,0.029806996,0.0,0.0,0.0,-0.0047127246,0.104098424,0.47509325,-0.15520142,0.09831021,0.50693256,-0.22045124,0.06694062,0.019005116,-0.118007004,-0.02254092,0.029225994,-0.11004308,-0.019448971,0.03116601,-0.0035381683,0.035394873,-0.0015192031,0.034325443,-0.043524507,-0.050233293,-0.026975123,0.035398148,-0.0628795,0.038610563,2.0,2.0,-2.0,2.0,2.0,-2.0,2.0,-0.3951907,-2.0,-2.0,0.024557894,-2.0,2.0,2.0,-2.0,2.0,2.0,-2.0,2.0,-0.39462408,-2.0,-2.0,0.08030184,-2.0
2025-06-10 09:01:46.826,0.013484661,0.004733621,-0.012801888,0.0039322292,-0.06838623,-0.036623888,0.0,0.0,0.0,-0.00512492,0.10037245,0.488991,-0.156511,0.08836585,0.5052748,-0.22555526,0.06325554,0.025971204,-0.12159307,-0.028351808,0.03268811,-0.11026546,-0.022038292,0.0061668307,-0.012167603,-0.058854163,0.016293032,-0.064769566,0.03438837,0.05046424,0.050700013,0.07130934,-0.069549434,-0.057054475,2.0,2.0,-2.0,2.0,2.0,-2.0,2.0,-0.39462408,-2.0,-2.0,0.08030184,-2.0,2.0,2.0,-2.0,2.0,2.0,-2.0,2.0,-0.29528233,-2.0,-2.0,-0.10736395,-2.0
2025-06-10 09:01:46.846,-0.039844748,-0.029718405,0.00020008128,0.030112462,-0.022572828,0.04880652,0.0,0.0,0.0,-0.0053647957,0.09876985,0.47281098,-0.16000123,0.0944847,0.50292724,-0.22808395,0.05813492,0.013485419,-0.12289388,-0.012197709,0.018962035,-0.11059907,-0.038631637,0.067099735,-0.04364513,0.06668536,-0.073784605,-0.055048306,0.030673144,0.01917969,-0.07167766,-0.009892933,-0.0022311439,0.057658616,2.0,2.0,-2.0,2.0,2.0,-2.0,2.0,-0.29528233,-2.0,-2.0,-0.10736395,-2.0,2.0,2.0,-2.0,2.0,2.0,-2.0,2.0,-0.4579874,-2.0,-2.0,0.067259066,-2.0
2025-06-10 09:01:46.865,0.031200016,0.044789884,-0.044210248,-0.028117461,-0.06359344,-0.013156998,0.0,0.0,0.0,-0.0056708036,0.105215505,0.4865803,-0.16442436,0.1018777,0.49859098,-0.21863978,0.055345874,0.009762875,-0.1212689,-0.030742848,0.010830423,-0.10763249,0.068476155,-0.06939964,-0.023761053,0.06016801,0.034478772,-0.06285297,-0.047885206,-0.004660187,0.06559001,-0.04549943,-0.0039604786,0.00593256,2.0,2.0,-2.0,2.0,2.0,-2.0,2.0,-0.4579874,-2.0,-2.0,0.067259066,-2.0,2.0,2.0,-2.0,2.0,2.0,-2.0,2.0,-0.20365635,-2.0,-2.0,-0.19979163,-2.0
2025-06-10 09:01:46.886,0.00841444,-0.017455596,0.023827516,-0.032382064,-0.04092487,0.015020212,0.0,0.0,0.0,-0.0058399853,0.09347807,0.47311568,-0.15235211,0.08731218,0.49873704,-0.2227971,0.059774738,0.01567467,-0.106260024,-0.027101582,0.011011012,-0.09232008,0.07583869,0.05778082,-0.020637747,0.06051235,-0.01873541,0.05416616,-0.026933048,0.07187066,0.015695632,-0.072791964,0.06266327,0.05274271,2.0,2.0,-2.0,2.0,2.0,-2.0,2.0,-0.20365635,-2.0,-2.0,-0.19979163,-2.0,2.0,2.0,-2.0,2.0,2.0,-2.0,2.0,-0.50726384,-2.0,-2.0,0.08519947,-2.0
2025-06-10 09:01:46.908,0.042919964,0.024911316,0.0133968,-0.043617245,0.028274756,0.009078739,0.0,0.0,0.0,-0.006163474,0.09677092,0.47465348,-0.16349535,0.10539737,0.5037672,-0.23045942,0.053245436,0.014754704,-0.10653881,-0.026986457,0.0105190165,-0.10061941,-0.05315317,0.024562186,0.046480365,-0.0036426967,-0.06679202,-0.059236314,0.047850404,-0.01835822,-0.00916522,-0.019546086,0.06662379,-0.07050174,2.0,2.0,-2.0,2.0,2.0,-2.0,2.0,-0.50726384,-2.0,-2.0,0.08519947,-2.0,2.0,2.0,-2.0,2.0,2.0,-2.0,2.0,-0.3489546,-2.0,-2.0,0.097367905,-2.0
2025-06-10 09:01:46.926,-0.008908513,-0.021147989,0.03116158,0.014283944,-0.010609832,0.020132396,0.0,0.0,0.0,-0.0063311397,0.10218703,0.482217,-0.15696254,0.085917905,0.49990764,-0.22629286,0.054484792,0.00046267197,-0.123530984,-0.02584548,0.016956218,-0.10539851,-0.057976976,0.071102045,-0.04603627,-0.022284005,-0.060062423,0.03299148,-0.06769368,0.051999234,0.060009085,0.015238257,0.056529436,0.012242631,2.0,2.0,-2.0,2.0,2.0,-2.0,2.0,-0.3489546,-2.0,-2.0,0.097367905,-2.0,2.0,2.0,-2.0,2.0,2.0,-2.0,2.0,-0.46249256,-2.0,-2.0,0.158953,-2.0
2025-06-10 09:01:46.946,0.052350704,-0.035576586,-0.06848512,-0.053321544,-0.05091828,-0.03850157,0.0,0.0,0.0,-0.006270255,0.1022996,0.48424575,-0.14256175,0.095688395,0.51525867,-0.21679334,0.060018558,0.0028367063,-0.106608056,-0.030207556,0.020856386,-0.096677326,0.060846064,-0.035394024,-0.055702943,0.041076668,-0.06827968,-0.0006131494,0.03851373,0.06578462,-0.06228422,0.042787384,0.03964898,-0.024577184,2.0,2.0,-2.0,2.0,2.0,-2.0,2.0,-0.46249256,-2.0,-2.0,0.158953,-2.0,2.0,2.0,-2.0,2.0,2.0,-2.0,2.0,-0.14575842,-2.0,-2.0,-0.43040603,-2.0
2025-06-10 09:01:46.966,-0.052839063,0.046034694,0.057060942,-0.060402256,-0.007940166,0.042737316,0.0,0.0,0.0,-0.005982493,0.10591211,0.48007903,-0.15813199,0.09347524,0.50251085,-0.21891549,0.05539677,0.016902087,-0.118271135,-0.021975664,0.025238791,-0.10376233,-0.0057208175,0.05905957,-0.048097078,0.07163566,-0.077600956,-0.00022239577,-0.03140802,-0.040239308,-0.00692946,0.025135886,0.021150267,-0.026720103,2.0,2.0,-2.0,2.0,2.0,-2.0,2.0,-0.14575842,-2.0,-2.0,-0.43040603,-2.0,2.0,2.0,-2.0,2.0,2.0,-2.0,2.0,-0.6543465,-2.0,-2.0,0.4172893,-2.0
2025-06-10 09:01:46.986,0.023792453,-0.05535839,0.000106507425,0.011594022,-0.020244015,0.027529722,0.0,0.0,0.0,-0.0061607105,0.09873446,0.4712295,-0.14262655,0.099019855,0.51851165,-0.22784369,0.05334146,0.0016524886,-0.10389323,-0.027326453,0.029524207,-0.1006345,-0.07137664,-0.0077058687,0.01451281,0.011390078,-0.0633492,0.011615455,-0.050116614,-0.061647203,-0.02937369,0.013816135,-0.02683441,-0.010891609,2.0,2.0,-2.0,2.0,2.0,-2.0,2.0,-0.6543465,-2.0,-2.0,0.4172893,-2.0,2.0,2.0,-2.0,2.0,2.0,-2.0,2.0,-0.27775946,-2.0,-2.0,0.08508109,-2.0
2025-06-10 09:01:47.008,-0.01437427,-0.05986648,0.021426544,0.021017488,-0.012824025,0.0004961186,0.0,0.0,0.0,-0.0060540736,0.10570842,0.48528352,-0.14341281,0.102792084,0.51605076,-0.22650984,0.06379041,0.0050133574,-0.11639068,-0.022008108,0.028813768,-0.10517294,-0.061726186,-0.04764361,-0.039532464,-0.0021947648,0.025508575,0.034953494,0.05598976,0.06056172,-0.00465248,0.06215404,-0.038040698,0.046995327,2.0,2.0,-2.0,2.0,2.0,-2.0,2.0,-0.27775946,-2.0,-2.0,0.08508109,-2.0,2.0,2.0,-2.0,2.0,2.0,-2.0,2.0,-0.4947013,-2.0,-2.0,0.13046037,-2.0
2025-06-10 09:01:47.026,-0.039251626,-0.012517091,-0.054245647,0.0005770152,-0.006909532,0.047160473,0.0,0.0,0.0,-0.005811364,0.09166827,0.48648196,-0.14388375,0.090119235,0.50453216,-0.22693303,0.070264876,0.010608328,-0.12093148,-0.014607858,0.036230195,-0.10124459,0.06025959,-0.008810765,-0.065978274,0.07078144,-0.057427853,0.03237946,-0.019098263,0.026231976,-0.041963276,-0.02159768,0.024114162,0.030302193,2.0,2.0,-2.0,2.0,2.0,-2.0,2.0,-0.4947013,-2.0,-2.0,0.13046037,-2.0,2.0,2.0,-2.0,2.0,2.0,-2.0,2.0,-0.21347257,-2.0,-2.0,-0.22001953,-2.0
2025-06-10 09:01:47.049,-0.04857836,0.008915776,0.027896892,0.0031496643,0.014566133,0.026160398,0.0,0.0,0.0,-0.0055345315,0.104628,0.47163975,-0.14029424,0.10322376,0.51822644,-0.22383171,0.0585631,0.0004496598,-0.11906945,-0.021587588,0.034699097,-0.10770763,0.05135672,-0.01926587,-0.04650443,0.001280067,0.005297254,-0.052394073,0.0334238,-0.03911418,-0.03608072,0.012492646,-0.041197017,0.0056182574,2.0,2.0,-2.0,2.0,2.0,-2.0,2.0,-0.21347257,-2.0,-2.0,-0.22001953,-2.0,2.0,2.0,-2.0,2.0,2.0,-2.0,2.0,-0.5652259,-2.0,-2.0,0.25146577,-2.0
2025-06-10 09:01:47.069,0.017281016,-0.013796753,0.0009864853,0.013959177,-0.010673478,0.038298164,0.0,0.0,0.0,-0.0056270687,0.109067924,0.48463693,-0.14697932,0.086803734,0.5110038,-0.2279854,0.05561144,0.0056908126,-0.10952112,-0.02110902,0.030087175,-0.10683153,-0.063910715,-0.015284755,-0.034862794,-0.07196019,-0.036504325,-0.026942722,0.012595354,0.06131518,0.023717199,-0.021560978,-0.020620935,0.0719219,2.0,2.0,-2.0,2.0,2.0,-2.0,2.0,-0.5652259,-2.0,-2.0,0.25146577,-2.0,2.0,2.0,-2.0,2.0,2.0,-2.0,2.0,-0.30239263,-2.0,-2.0,0.0026605334,-2.0
2025-06-10 09:01:47.091,-0.042001843,0.023795133,0.04843446,0.03639319,-0.0034937828,-0.0061068116,0.0,0.0,0.0,-0.0055993344,0.109323874,0.48643073,-0.13808091,0.09762363,0.51880497,-0.23465298,0.0654868,-0.009509777,-0.12069947,-0.022414874,0.028796893,-0.09663482,0.057346337,0.06197654,-0.032531008,-0.03955056,-0.07091037,-0.015093042,0.020763319,-0.017864695,-0.074166104,-0.021815343,-0.034935366,-0.018723032,2.0,2.0,-2.0,2.0,2.0,-2.0,2.0,-0.30239263,-2.0,-2.0,0.0026605334,-2.0,2.0,2.0,-2.0,2.0,2.0,-2.0,2.0,-0.47164902,-2.0,-2.0,0.2235996,-2.0
2025-06-10 09:01:47.109,0.04214215,-0.005052704,0.010560614,-0.013359908,0.012291631,0.020352937,0.0,0.0,0.0,-0.0055829254,0.10114792,0.4783238,-0.13745756,0.08754523,0.51562876,-0.21603608,0.06441543,0.0052146805,-0.1128191,-0.0171206,0.03278196,-0.1073759,0.0044948645,-0.018952062,0.008413117,-0.0066303327,0.04992953,-0.020635314,-0.037785202,0.00036264313,0.047621526,-0.0076624746,-0.056215387,-0.03336626,2.0,2.0,-2.0,2.0,2.0,-2.0,2.0,-0.47164902,-2.0,-2.0,0.2235996,-2.0,2.0,2.0,-2.0,2.0,2.0,-2.0,2.0,-0.41297355,-2.0,-2.0,0.1790348,-2.0
2025-06-10 09:01:47.129,-0.04417465,-0.031167127,0.018104117,-0.022619288,-0.07013963,-0.015763814,0.0,0.0,0.0,-0.005457101,0.100647256,0.4782288,-0.13847798,0.08944908,0.53029484,-0.22329701,0.05320223,-0.008602763,-0.11223081,-0.021814859,0.03105048,-0.11479713,-0.033826545,0.059997253,0.038630113,0.030087955,-0.021226399,-0.056730475,0.010401084,-0.013424267,0.074722484,-0.014057336,-0.0072648376,-0.058564093,2.0,2.0,-2.0,2.0,2.0,-2.0,2.0,-0.41297355,-2.0,-2.0,0.1790348,-2.0,2.0,2.0,-2.0,2.0,2.0,-2.0,2.0,-0.355562,-2.0,-2.0,0.16410868,-2.0
2025-06-10 09:01:47.149,0.041339863,0.030853214,-0.043326035,0.02392169,-0.022721037,0.018938258,0.0,0.0,0.0,-0.005200513,0.109760776,0.48234752,-0.15138379,0.08388774,0.5312382,-0.21502581,0.05655998,-0.004487769,-0.120560534,-0.026622022,0.029026207,-0.09850702,-0.04514667,0.014848667,-0.06550181,-0.075068384,-0.06772852,0.046322796,0.07147006,-0.0478153,-0.0014303243,0.04953613,-0.03715245,0.029767573,2.0,2.0,-2.0,2.0,2.0,-2.0,2.0,-0.355562,-2.0,-2.0,0.16410868,-2.0,2.0,2.0,-2.0,2.0,2.0,-2.0,2.0,-0.3038623,-2.0,-2.0,-0.16668858,-2.0
2025-06-10 09:01:47.169,0.042849172,0.0077508413,0.051794168,0.003294908,-0.05575999,-0.00421488,0.0,0.0,0.0,-0.004981007,0.0928514,0.47941142,-0.14577672,0.09113729,0.5148037,-0.22285669,0.06641702,-0.0010615569,-0.12007054,-0.010363497,0.03518803,-0.1017882,0.039558213,-0.039177943,-0.03479748,0.067905836,-0.04271399,-0.047563642,0.031800438,0.06374854,0.03977214,-0.026175074,0.05546601,-0.027150268,2.0,2.0,-2.0,2.0,2.0,-2.0,2.0,-0.3038623,-2.0,-2.0,-0.16668858,-2.0,2.0,2.0,-2.0,2.0,2.0,-2.0,2.0,-0.51399225,-2.0,-2.0,0.3062549,-2.0
2025-06-10 09:01:47.191,-0.036287136,-0.02921156,0.0042642467,0.009771896,-0.053813923,-0.033271205,0.0,0.0,0.0,-0.0051293885,0.10717922,0.4828916,-0.14394328,0.10132127,0.5307505,-0.22441685,0.070694886,-0.0069410377,-0.11333069,-0.010814658,0.037918627,-0.107155964,-0.037431657,-0.024198307,-0.04697742,0.050013255,-0.066111214,0.0044938624,-0.06159981,0.0028405988,-0.057785295,0.073587015,0.06566671,-0.041377645,2.0,2.0,-2.0,2.0,2.0,-2.0,2.0,-0.51399225,-2.0,-2.0,0.3062549,-2.0,2.0,2.0,-2.0,2.0,2.0,-2.0,2.0,-0.33607247,-2.0,-2.0,0.11570644,-2.0
2025-06-10 09:01:47.213,-0.034737665,-0.032586884,0.02624012,-0.04745302,-0.03277981,0.029448517,0.0,0.0,0.0,-0.005124455,0.104871415,0.4933589,-0.15020339,0.09443563,0.5296791,-0.22011603,0.054907843,-0.00876802,-0.11723668,-0.01900676,0.03553564,-0.112082906,0.03972889,0.01042584,0.076458976,-0.05481764,-0.061490152,0.046926886,-0.06590421,0.04890988,0.008151382,0.0622335,-0.05084044,0.053638257,2.0,2.0,-2.0,2.0,2.0,-2.0,2.0,-0.33607247,-2.0,-2.0,0.11570644,-2.0,2.0,2.0,-2.0,2.0,2.0,-2.0,2.0,-0.32649228,-2.0,-2.0,0.14859547,-2.0
2025-06-10 09:01:47.231,0.023804802,0.012863671,-0.00046851294,0.03830421,-0.06129413,0.035783842,0.0,0.0,0.0,-0.005041191,0.10342983,0.48843816,-0.15247221,0.090738736,0.52824396,-0.22128272,0.06476713,-0.0072792885,-0.11739634,-0.012996207,0.03488088,-0.101403676,-0.05076612,-0.06755082,0.02552019,-0.027433548,-0.028373979,0.0473186,0.0063342303,0.05832757,-0.0029105714,0.065461,0.0020122281,0.07311576,2.0,2.0,-2.0,2.0,2.0,-2.0,2.0,-0.32649228,-2.0,-2.0,0.14859547,-2.0,2.0,2.0,-2.0,2.0,2.0,-2.0,2.0,-0.35877922,-2.0,-2.0,0.059499912,-2.0
2025-06-10 09:01:47.251,0.003677356,-0.009144455,-0.029980132,-0.02129035,-0.03493156,-0.04972378,0.0,0.0,0.0,-0.005038924,0.10349833,0.48499626,-0.15351018,0.08916911,0.5341967,-0.22033322,0.06731337,-0.0012197375,-0.1236879,-0.026458222,0.03423692,-0.11041872,-0.022914343,-0.0432759,0.06916308,0.0029398245,0.05188388,-0.068945885,0.070303224,0.041547425,0.01329973,0.0025230972,-0.006737219,0.03173628,2.0,2.0,-2.0,2.0,2.0,-2.0,2.0,-0.35877922,-2.0,-2.0,0.059499912,-2.0,2.0,2.0,-2.0,2.0,2.0,-2.0,2.0,-0.2647318,-2.0,-2.0,-0.038191147,-2.0
2025-06-10 09:01:47.275,-0.035516653,-0.030249972,0.022613471,-0.01866534,-0.02841868,0.032957055,0.0,0.0,0.0,-0.005128531,0.10108475,0.48509914,-0.13745055,0.102462485,0.5203932,-0.22319534,0.06356922,0.010428352,-0.114358425,-0.015417245,0.03171841,-0.100807495,0.0676453,0.021917142,-0.05730856,-0.019473035,-0.039728932,-0.01056043,0.0032190392,-0.013475208,-0.07252844,0.046143934,0.05485328,-0.0043245405,2.0,2.0,-2.0,2.0,2.0,-2.0,2.0,-0.2647318,-2.0,-2.0,-0.038191147,-2.0,2.0,2.0,-2.0,2.0,2.0,-2.0,2.0,-0.48067167,-2.0,-2.0,0.12729259,-2.0
2025-06-10 09:01:47.291,0.05055587,-0.04042325,0.053820588,-0.010079758,-0.008539221,-0.03618868,0.0,0.0,0.0,-0.005430927,0.096132696,0.4930008,-0.13939916,0.09253111,0.5335644,-0.22317562,0.056213584,-0.008299802,-0.10703448,-0.019769132,0.02893673,-0.09141047,0.049511753,-0.050259065,-0.0693381,0.060222447,0.026750004,0.039169047,0.013507458,-0.0124487085,-0.015390996,0.007993207,-0.016185444,0.010727799,2.0,2.0,-2.0,2.0,2.0,-2.0,2.0,-0.48067167,-2.0,-2.0,0.12729259,-2.0,2.0,2.0,-2.0,2.0,2.0,-2.0,2.0,-0.48373374,-2.0,-2.0,0.39813069,-2.0
2025-06-10 09:01:47.312,-0.008802984,-0.030106124,-0.018738594,0.035826642,0.014804989,0.04352831,0.0,0.0,0.0,-0.0056227907,0.11066369,0.48885,-0.1358159,0.08905253,0.53092796,-0.22897707,0.050549768,0.007001526,-0.11763324,-0.029358461,0.033871803,-0.098555714,0.03459935,-0.023861347,-0.009036159,0.04457247,-0.01593936,0.04172274,-0.06853315,-0.044135027,-0.006260798,0.07023851,-0.010908941,-0.04765724,2.0,2.0,-2.0,2.0,2.0,-2.0,2.0,-0.48373374,-2.0,-2.0,0.39813069,-2.0,2.0,2.0,-2.0,2.0,2.0,-2.0,2.0,-0.32904765,-2.0,-2.0,-0.01881204,-2.0
2025-06-10 09:01:47.332,-0.042912867,0.0018020103,0.01047688,-0.014280963,-0.054829415,0.04952031,0.0,0.0,0.0,-0.005362993,0.09733545,0.49534026,-0.14422219,0.096368566,0.53664416,-0.2189059,0.06767073,-0.007762123,-0.10941067,-0.018783705,0.048146665,-0.09907477,0.057205055,0.019645061,0.06543299,0.02095951,-0.051597614,-0.053783115,-0.05826835,0.072836965,0.058539607,-0.058055416,0.07234731,0.049928002,2.0,2.0,-2.0,2.0,2.0,-2.0,2.0,-0.32904765,-2.0,-2.0,-0.01881204,-2.0,2.0,2.0,-2.0,2.0,2.0,-2.0,2.0,-0.30801556,-2.0,-2.0,0.14493494,-2.0
2025-06-10 09:01:47.352,-0.044700418,-0.033322815,-0.0003511813,-0.006042434,0.013693533,0.022160785,0.0,0.0,0.0,-0.00516697,0.10278683,0.5030611,-0.15031248,0.09061629,0.522884,-0.21689788,0.0583406,-0.009572849,-0.11992106,-0.010194115,0.036203824,-0.094313726,0.00055977283,-0.07104771,0.06508997,0.0075550075,0.015125438,0.02248355,-0.01800631,-0.024088778,-0.031512205,-0.005221148,0.042280637,0.011071901,2.0,2.0,-2.0,2.0,2.0,-2.0,2.0,-0.30801556,-2.0,-2.0,0.14493494,-2.0,2.0,2.0,-2.0,2.0,2.0,-2.0,2.0,-0.32478276,-2.0,-2.0,0.13297182,-2.0
2025-06-10 09:01:47.375,-0.020868214,0.014594602,-0.016610099,-0.050904915,-0.052934196,0.043011624,0.0,0.0,0.0,-0.0051302547,0.09581868,0.50330377,-0.13933001,0.10358779,0.5269904,-0.21852222,0.06749987,0.010479991,-0.11452172,-0.010062348,0.0384811,-0.10562253,-0.020808885,-0.048985057,-0.019225575,-0.0641153,0.02467572,0.049095225,-0.035424896,0.045312624,-0.019961055,-0.0058396007,0.012541473,-0.0062563457,2.0,2.0,-2.0,2.0,2.0,-2.0,2.0,-0.32478276,-2.0,-2.0,0.13297182,-2.0,2.0,2.0,-2.0,2.0,2.0,-2.0,2.0,-0.330857,-2.0,-2.0,-0.044266827,-2.0
2025-06-10 09:01:47.396,-0.0005979528,0.030008227,0.03721491,-0.012182901,0.021888765,0.020468429,0.0,0.0,0.0,-0.0051471563,0.09533766,0.49058753,-0.14845757,0.08518564,0.53584343,-0.21425436,0.066954546,0.0068608713,-0.11012614,-0.014892081,0.037998766,-0.10391199,-0.06292226,0.070010856,-0.013923758,-0.05796394,-0.05172694,0.0035774964,-0.033955436,-0.0018653215,-0.010152152,-0.03702269,-0.04685947,0.080077924,2.0,2.0,-2.0,2.0,2.0,-2.0,2.0,-0.330857,-2.0,-2.0,-0.044266827,-2.0,2.0,2.0,-2.0,2.0,2.0,-2.0,2.0,-0.4705774,-2.0,-2.0,0.3703655,-2.0
2025-06-10 09:01:47.416,0.0025599578,-0.020910792,-0.06150386,-0.008203465,-0.053548936,0.041014425,0.0,0.0,0.0,-0.0053314813,0.09506235,0.4882176,-0.14010257,0.09594447,0.5234491,-0.22831184,0.050549023,0.008800103,-0.10762543,-0.01562233,0.037772544,-0.094893076,-0.0025821144,-0.05717997,-0.06058801,-0.020080317,-0.06409188,0.059729666,-0.06498111,-0.061794594,-0.06934038,0.0168804,0.046551943,-0.00038301022,2.0,2.0,-2.0,2.0,2.0,-2.0,2.0,-0.4705774,-2.0,-2.0,0.3703655,-2.0,2.0,2.0,-2.0,2.0,2.0,-2.0,2.0,-0.17382172,-2.0,-2.0,-0.29648015,-2.0
2025-06-10 09:01:47.436,0.027169406,0.036918912,0.0124066025,0.003481046,-0.037937906,-0.035489067,0.0,0.0,0.0,-0.0052442257,0.10198451,0.49252596,-0.15231507,0.09502345,0.5266729,-0.23144118,0.06572601,-0.005572952,-0.11574073,-0.015206698,0.045360133,-0.09166753,-0.008023913,-0.035554852,0.032458797,-0.045608908,0.06459895,0.051170755,0.06512867,-0.055821013,0.068797626,0.052469075,-0.014883483,-0.05327242,2.0,2.0,-2.0,2.0,2.0,-2.0,2.0,-0.17382172,-2.0,-2.0,-0.29648015,-2.0,2.0,2.0,-2.0,2.0,2.0,-2.0,2.0,-0.46464136,-2.0,-2.0,0.18602027,-2.0
2025-06-10 09:01:47.458,-0.01995774,-0.0104711475,0.0079515455,0.022977907,-0.009012742,-0.040936507,0.0,0.0,0.0,-0.005507125,0.1036221,0.5023671,-0.14382252,0.10619051,0.5317191,-0.22449228,0.05763101,-0.0034134393,-0.12154367,-0.015375942,0.04004875,-0.089677535,-0.014551196,0.044965982,-0.04401105,-0.016066916,0.04039736,-0.037496697,0.035086304,0.008546904,0.068483934,0.06483879,-0.07651558,-0.027977329,2.0,2.0,-2.0,2.0,2.0,-2.0,2.0,-0.46464136,-2.0,-2.0,0.18602027,-2.0,2.0,2.0,-2.0,2.0,2.0,-2.0,2.0,-0.3686516,-2.0,-2.0,0.13063578,-2.0
2025-06-10 09:01:47.476,-0.033248935,0.021057136,0.040650122,-0.039088834,0.015033544,-0.021426598,0.0,0.0,0.0,-0.005741465,0.09538579,0.5015429,-0.15196487,0.10158461,0.5343179,-0.22104765,0.0525769,-0.0013201159,-0.11695356,-0.011209404,0.041992143,-0.09196023,-0.0654869,0.043375432,0.0660757,-0.006646487,-0.021995487,-0.06449207,-0.032288186,-0.06042637,0.040049247,-0.05088713,0.027953235,-0.05685512,2.0,2.0,-2.0,2.0,2.0,-2.0,2.0,-0.3686516,-2.0,-2.0,0.13063578,-2.0,2.0,2.0,-2.0,2.0,2.0,-2.0,2.0,-0.37383178,-2.0,-2.0,0.38700652,-2.0
2025-06-10 09:01:47.498,-0.008196548,-0.056328204,-0.027170286,-0.00056823675,-0.010698127,-0.01894519,0.0,0.0,0.0,-0.0057586995,0.10061066,0.4941221,-0.14337447,0.09762617,0.5338014,-0.22748005,0.05993993,-0.009732061,-0.12425452,-0.013448589,0.03914002,-0.093909025,0.018742498,0.06217253,-0.046177976,-0.0634298,-0.04058612,0.03752301,0.07030358,0.062810406,1.5269405e-05,-0.053366706,0.08658664,0.055972125,2.0,2.0,-2.0,2.0,2.0,-2.0,2.0,-0.37383178,-2.0,-2.0,0.38700652,-2.0,2.0,2.0,-2.0,2.0,2.0,-2.0,2.0,-0.23100427,-2.0,-2.0,-0.22283424,-2.0
2025-06-10 09:01:47.517,0.003283027,-0.0013044771,-0.0063208747,-0.01600599,-0.04432145,0.049877,0.0,0.0,0.0,-0.005490216,0.10075523,0.4941186,-0.14731956,0.10009246,0.533539,-0.21278037,0.06452975,-0.00044472344,-0.11690282,-0.013780014,0.040540602,-0.09920314,-0.048117567,-0.06736381,0.060783785,0.040750515,-0.07748739,-0.06344473,-0.06130944,-0.04007914,-0.050867613,-0.0511165,0.045598477,0.08095728,2.0,2.0,-2.0,2.0,2.0,-2.0,2.0,-0.23100427,-2.0,-2.0,-0.22283424,-2.0,2.0,2.0,-2.0,2.0,2.0,-2.0,2.0,-0.2961724,-2.0,-2.0,0.16666572,-2.0
2025-06-10 09:01:47.537,-0.031336725,0.0054337373,0.036864363,-0.020693466,-0.017861435,-0.015150472,0.0,0.0,0.0,-0.0055395896,0.09915104,0.4864439,-0.15125833,0.09369283,0.53499365,-0.21376908,0.06100743,-0.0030339074,-0.12913704,-0.024622105,0.03524224,-0.098372616,-0.06193224,-0.029702095,0.00034512856,-0.032889903,-0.024769612,-0.016283803,0.009317619,-0.017379774,0.033376515,0.042052813,0.06104883,0.027975146,2.0,2.0,-2.0,2.0,2.0,-2.0,2.0,-0.2961724,-2.0,-2.0,0.16666572,-2.0,2.0,2.0,-2.0,2.0,2.0,-2.0,2.0,-0.45916983,-2.0,-2.0,0.32125807,-2.0
2025-06-10 09:01:47.558,-0.042268034,-0.06599667,-0.05059203,0.017605346,-0.068344,-0.003960751,0.0,0.0,0.0,-0.005715079,0.09961316,0.48828655,-0.14913282,0.08798844,0.5318193,-0.22859897,0.054510396,0.0074436604,-0.1293222,-0.017528633,0.036031995,-0.10680964,0.054183096,0.046582237,0.02309774,-0.07891322,-0.027641632,0.040819824,0.033605862,-0.04251323,0.03890607,0.0069149924,0.082086295,0.047450673,2.0,2.0,-2.0,2.0,2.0,-2.0,2.0,-0.45916983,-2.0,-2.0,0.32125807,-2.0,2.0,2.0,-2.0,2.0,2.0,-2.0,2.0,-0.08945975,-2.0,-2.0,-0.2852915,-2.0
2025-06-10 09:01:47.577,-0.021313248,0.07391195,0.06163307,0.017271837,0.020620117,-0.030830884,0.0,0.0,0.0,-0.005553187,0.11269367,0.5001661,-0.1422857,0.09995297,0.52702415,-0.2245494,0.057414267,-0.0055553047,-0.118780725,-0.017961945,0.038431983,-0.10691881,0.0033816302,-0.049054302,0.05214627,-0.06195842,-0.07235682,0.05109191,-0.006117804,-0.012171527,-0.057896744,-0.0059396853,-0.0044209897,0.0064201774,2.0,2.0,-2.0,2.0,2.0,-2.0,2.0,-0.08945975,-2.0,-2.0,-0.2852915,-2.0,2.0,2.0,-2.0,2.0,2.0,-2.0,2.0,-0.48112938,-2.0,-2.0,0.34674782,-2.0
2025-06-10 09:01:47.597,0.056870732,-0.013598243,0.024014892,-0.015916798,0.012623609,-0.032697976,0.0,0.0,0.0,-0.0058003953,0.09905048,0.5006908,-0.14171433,0.090654634,0.52818584,-0.22248042,0.049122997,-0.008132585,-0.12246984,-0.014728085,0.039851293,-0.10595717,0.023518601,-0.059704788,0.027061,-0.07287239,0.03666152,-0.00827327,0.07203225,0.059738986,-0.018714514,0.06854205,0.02796922,0.029101226,2.0,2.0,-2.0,2.0,2.0,-2.0,2.0,-0.48112938,-2.0,-2.0,0.34674782,-2.0,2.0,2.0,-2.0,2.0,2.0,-2.0,2.0,-0.34987512,-2.0,-2.0,0.1326903,-2.0
2025-06-10 09:01:47.617,0.020868849,0.02610743,0.010152043,-0.04144302,-0.064018615,-0.0200158,0.0,0.0,0.0,-0.0058943573,0.10092571,0.49370605,-0.13580301,0.094701804,0.52597284,-0.22025257,0.04711078,0.008495438,-0.121995345,-0.02041804,0.033578947,-0.095929384,-0.053441413,-0.07342594,0.011874741,0.06227444,0.075149454,0.0072963587,0.053406715,0.01734567,0.07165535,0.04721865,0.0029809452,-0.028652346,2.0,2.0,-2.0,2.0,2.0,-2.0,2.0,-0.34987512,-2.0,-2.0,0.1326903,-2.0,2.0,2.0,-2.0,2.0,2.0,-2.0,2.0,-0.43223557,-2.0,-2.0,0.15505745,-2.0
2025-06-10 09:01:47.641,0.036612753,0.020824663,-0.056879297,-0.020057848,-0.06698741,0.027778607,0.0,0.0,0.0,-0.005772148,0.109755166,0.49174792,-0.14751045,0.09222607,0.5224087,-0.21193245,0.062942795,-0.010489768,-0.11451638,-0.01258175,0.033805277,-0.097401984,-0.02296011,0.0058233873,0.070127726,-0.017211886,-0.042813815,0.027065335,-0.013866374,0.05811167,0.010165296,-0.067180626,-0.0017451916,0.057334457,2.0,2.0,-2.0,2.0,2.0,-2.0,2.0,-0.43223557,-2.0,-2.0,0.15505745,-2.0,2.0,2.0,-2.0,2.0,2.0,-2.0,2.0,-0.11247453,-2.0,-2.0,-0.25044817,-2.0
2025-06-10 09:01:47.658,-0.023628842,-0.01848622,-0.009292388,-0.04386454,-0.057126474,0.015042414,0.0,0.0,0.0,-0.005564249,0.10354163,0.48664266,-0.14400005,0.093956724,0.52318585,-0.22403274,0.05276114,-0.0007464518,-0.12151425,-0.023014748,0.030657984,-0.09548535,-0.04061565,0.056001794,-0.06748746,0.030236127,0.03690442,-0.02204123,0.06577552,0.0049092392,0.00970519,-0.05578583,-0.081324175,-0.05043905,2.0,2.0,-2.0,2.0,2.0,-2.0,2.0,-0.11247453,-2.0,-2.0,-0.25044817,-2.0,2.0,2.0,-2.0,2.0,2.0,-2.0,2.0,-0.5265114,-2.0,-2.0,-0.007190833,-2.0
2025-06-10 09:01:47.680,0.053395346,-0.011332795,-0.028137984,0.029508984,0.025166085,-0.045382716,0.0,0.0,0.0,-0.005817134,0.1103402,0.49294755,-0.15383132,0.089721106,0.51971227,-0.21436708,0.059020244,-0.01593187,-0.12547305,-0.029478386,0.03158476,-0.10206342,0.07119327,0.06427214,-0.06502722,-0.0014471458,-0.075201675,-0.0573972,-0.009919957,-0.01138172,-0.024534876,0.016266286,-0.023111485,0.071599305,2.0,2.0,-2.0,2.0,2.0,-2.0,2.0,-0.5265114,-2.0,-2.0,-0.007190833,-2.0,2.0,2.0,-2.0,2.0,2.0,-2.0,2.0,-0.23851374,-2.0,-2.0,-0.05326671,-2.0
2025-06-10 09:01:47.700,-0.01976336,-0.03412897,0.019663822,-0.024639297,-0.0014402675,-0.020892216,0.0,0.0,0.0,-0.0061198073,0.10470432,0.49367583,-0.14417946,0.10265398,0.5279845,-0.22360161,0.05919706,-0.0083425725,-0.12374084,-0.014980308,0.03745711,-0.1013898,0.053056866,0.059323926,0.003999142,0.05810259,-0.05041221,0.0030897332,-0.01447643,0.07327728,-0.06468202,-0.058182664,-9.297414e-05,0.027467756,2.0,2.0,-2.0,2.0,2.0,-2.0,2.0,-0.23851374,-2.0,-2.0,-0.05326671,-2.0,2.0,2.0,-2.0,2.0,2.0,-2.0,2.0,-0.4126735,-2.0,-2.0,0.12163951,-2.0
2025-06-10 09:01:47.720,-0.041904792,-0.027288612,0.0008308213,-0.018590946,-0.0019509823,-0.047736254,0.0,0.0,0.0,-0.0064183753,0.1100052,0.4914375,-0.14507791,0.08900591,0.51325303,-0.22096561,0.0510902,-0.0062967855,-0.11389271,-0.01827251,0.023168335,-0.091472946,0.04892377,-0.06451619,-0.04500179,0.061012287,-0.05474373,-0.02543459,-0.033102285,0.022244988,0.0040125316,-0.015236096,-0.052310854,0.001962117,2.0,2.0,-2.0,2.0,2.0,-2.0,2.0,-0.4126735,-2.0,-2.0,0.12163951,-2.0,2.0,2.0,-2.0,2.0,2.0,-2.0,2.0,-0.29253802,-2.0,-2.0,0.021939492,-2.0
2025-06-10 09:01:47.741,0.007337835,0.0011940766,0.034173418,0.007882486,-0.05255077,-0.045132995,0.0,0.0,0.0,-0.0065492433,0.10126835,0.48760554,-0.15456554,0.09179457,0.5238088,-0.22740257,0.059537604,-0.0012000789,-0.1330736,-0.022318369,0.038175065,-0.10452087,0.010503165,0.06986962,-0.022476947,0.014162825,0.007365145,-0.0543906,0.016370047,-0.06669056,0.029675083,-0.028763348,-0.014647702,0.058289785,2.0,2.0,-2.0,2.0,2.0,-2.0,2.0,-0.29253802,-2.0,-2.0,0.021939492,-2.0,2.0,2.0,-2.0,2.0,2.0,-2.0,2.0,-0.4710795,-2.0,-2.0,0.3010846,-2.0
2025-06-10 09:01:47.761,0.02076984,-0.052931115,0.009053757,-0.05442146,-0.060444284,-0.048030265,0.0,0.0,0.0,-0.0065934747,0.11330216,0.50295514,-0.15181452,0.10133848,0.53025854,-0.21624789,0.057940185,-0.012573247,-0.11627536,-0.01814317,0.026417669,-0.09497511,-0.0797558,0.0032349688,-0.043625403,-0.035477858,-0.051945455,0.004841303,0.059670568,0.009051973,0.06330363,-0.019051308,0.039692488,0.023870103,2.0,2.0,-2.0,2.0,2.0,-2.0,2.0,-0.4710795,-2.0,-2.0,0.3010846,-2.0,2.0,2.0,-2.0,2.0,2.0,-2.0,2.0,-0.27876547,-2.0,-2.0,0.034069918,-2.0
2025-06-10 09:01:47.782,0.018582596,0.044307325,0.031060832,-0.044037357,-0.03989753,0.0003471005,0.0,0.0,0.0,-0.0063166013,0.10828058,0.49399638,-0.1386704,0.08863836,0.5293037,-0.22931834,0.056221027,-0.009408662,-0.13124122,-0.02486958,0.045429043,-0.106273055,-0.046781767,0.03801747,-0.07096623,-0.020617966,0.067149244,-0.06076985,-0.0026369535,0.067940325,-0.071628384,-0.060503926,0.045549694,-0.0066151023,2.0,2.0,-2.0,2.0,2.0,-2.0,2.0,-0.27876547,-2.0,-2.0,0.034069918,-2.0,2.0,2.0,-2.0,2.0,2.0,-2.0,2.0,-0.55069435,-2.0,-2.0,0.25006685,-2.0
2025-06-10 09:01:47.801,-0.0070635956,-0.005754716,0.005323295,0.005578062,-0.01694145,-0.012879298,0.0,0.0,0.0,-0.0060351044,0.10620188,0.48620722,-0.14191334,0.09884416,0.53224564,-0.21750371,0.06240481,-0.017587176,-0.11787291,-0.023990333,0.04780059,-0.09949343,-0.063572295,-0.05400935,-0.07143186,-0.04383154,0.064923815,0.0671633,0.041262392,0.04648381,-0.060623944,0.06733833,-0.06596079,-0.0756209,2.0,2.0,-2.0,2.0,2.0,-2.0,2.0,-0.55069435,-2.0,-2.0,0.25006685,-2.0,2.0,2.0,-2.0,2.0,2.0,-2.0,2.0,-0.430899,-2.0,-2.0,0.13612463,-2.0
2025-06-10 09:01:47.824,-0.0039463863,-0.023709105,-0.05713915,0.013759131,0.008112426,0.045913454,0.0,0.0,0.0,-0.00562008,0.10073343,0.48453447,-0.14113879,0.10101679,0.52766794,-0.22377431,0.05933894,-0.005479026,-0.12462932,-0.025716482,0.03570976,-0.10520289,0.033964563,0.068178676,-0.06799557,-0.011085962,-0.059147064,0.016320135,-0.010949593,-0.052758113,-0.06753302,-0.047952108,0.021868477,-0.03276265,2.0,2.0,-2.0,2.0,2.0,-2.0,2.0,-0.430899,-2.0,-2.0,0.13612463,-2.0,2.0,2.0,-2.0,2.0,2.0,-2.0,2.0,-0.24929044,-2.0,-2.0,-0.23386855,-2.0
2025-06-10 09:01:47.841,0.021227079,0.033139687,0.05313736,0.014272849,-0.02271944,0.044227313,0.0,0.0,0.0,-0.0051556253,0.096946664,0.49612,-0.15583739,0.093956865,0.5164312,-0.21207127,0.06402806,-0.02390703,-0.12675847,-0.017303439,0.030808505,-0.1037258,0.0056941886,0.04758025,-0.05128754,-0.029539403,0.036424223,-0.07091346,-0.00487095,0.059834633,-0.06953213,-0.02913646,-0.0034777618,-0.038506813,2.0,2.0,-2.0,2.0,2.0,-2.0,2.0,-0.24929044,-2.0,-2.0,-0.23386855,-2.0,2.0,2.0,-2.0,2.0,2.0,-2.0,2.0,-0.63367623,-2.0,-2.0,0.3857366,-2.0
2025-06-10 09:01:47.863,0.037722558,-0.015646694,-0.041324284,0.03104469,-0.022150334,-0.00995126,0.0,0.0,0.0,-0.0051937713,0.10153446,0.49013135,-0.14892471,0.08980836,0.51935375,-0.22975619,0.06453395,-0.015819658,-0.12548861,-0.01952751,0.037598982,-0.09180452,0.02350998,0.05121912,-0.01839567,0.04802277,0.031070383,-0.014070757,-0.018729117,-0.014802301,-0.024841065,0.008508479,-0.016113348,-0.06409363,2.0,2.0,-2.0,2.0,2.0,-2.0,2.0,-0.63367623,-2.0,-2.0,0.3857366,-2.0,2.0,2.0,-2.0,2.0,2.0,-2.0,2.0,-0.21286985,-2.0,-2.0,-0.11537064,-2.0
2025-06-10 09:01:47.881,0.009821969,0.043820746,0.031037817,-0.00400402,-0.06580577,0.028785754,0.0,0.0,0.0,-0.0050591975,0.109731145,0.4923974,-0.14267862,0.10401373,0.5277563,-0.21285982,0.053071488,-0.010723989,-0.13257855,-0.02412552,0.030903151,-0.101882614,-0.05531487,-0.043078057,0.0014934257,0.04052183,0.05612019,-0.03839306,-0.043436877,0.008315775,-0.010069243,0.017269135,0.00037180298,-0.039044723,2.0,2.0,-2.0,2.0,2.0,-2.0,2.0,-0.21286985,-2.0,-2.0,-0.11537064,-2.0,2.0,2.0,-2.0,2.0,2.0,-2.0,2.0,-0.5572493,-2.0,-2.0,0.31155998,-2.0
2025-06-10 09:01:47.901,-0.009756428,-0.020927416,-0.000734394,-0.009556175,-0.018986274,0.030301142,0.0,0.0,0.0,-0.0051597888,0.09366603,0.49183226,-0.13509685,0.0959491,0.52418983,-0.21591166,0.059106007,-0.025970789,-0.117327794,-0.012933386,0.03959376,-0.09529759,0.05462127,-0.06409165,-0.0033452169,-0.057496533,0.05398068,-0.06923977,-0.010574012,-0.06318577,0.072011106,0.046251442,0.014895526,-0.032934044,2.0,2.0,-2.0,2.0,2.0,-2.0,2.0,-0.5572493,-2.0,-2.0,0.31155998,-2.0,2.0,2.0,-2.0,2.0,2.0,-2.0,2.0,-0.31207904,-2.0,-2.0,0.15044452,-2.0
2025-06-10 09:01:47.924,0.0027113648,-0.017564913,-0.023447815,-0.02655195,-0.02508065,-0.031462215,0.0,0.0,0.0,-0.005167751,0.099264875,0.50286955,-0.13550213,0.098692745,0.52339506,-0.22151227,0.053043496,-0.014180678,-0.1233369,-0.020602642,0.04407603,-0.09790386,0.010097693,0.042473003,0.06952831,0.05733632,-0.033755828,-0.029577661,-0.01841202,0.042180125,0.00690378,-0.042174187,-0.043999463,-0.056046836,2.0,2.0,-2.0,2.0,2.0,-2.0,2.0,-0.31207904,-2.0,-2.0,0.15044452,-2.0,2.0,2.0,-2.0,2.0,2.0,-2.0,2.0,-0.2119427,-2.0,-2.0,-0.10765792,-2.0
2025-06-10 09:01:47.941,-0.016016545,-0.007000215,0.06222079,-0.050124932,-0.0031698868,-0.0035591766,0.0,0.0,0.0,-0.0051339646,0.09696993,0.5037383,-0.14561918,0.09989965,0.5368173,-0.22883789,0.050087493,-0.019535055,-0.1355691,-0.015272589,0.033075523,-0.113022156,0.014242713,-0.04207062,-0.016115125,0.06430518,0.057999745,-0.06861918,-0.015809445,-0.043808226,-0.0057007037,0.05574425,0.016057625,-0.04461965,2.0,2.0,-2.0,2.0,2.0,-2.0,2.0,-0.2119427,-2.0,-2.0,-0.10765792,-2.0,2.0,2.0,-2.0,2.0,2.0,-2.0,2.0,-0.60445404,-2.0,-2.0,0.53758174,-2.0
2025-06-10 09:01:47.962,-0.04167963,-0.051921237,-0.052829802,-0.04096475,-0.057650097,-0.019231712,0.0,0.0,0.0,-0.005484082,0.10593497,0.49969882,-0.15003313,0.08636404,0.5228109,-0.21809751,0.061290815,-0.014378997,-0.12931402,-0.021398865,0.045032803,-0.09942534,-0.03264477,0.03785099,0.005012505,-0.031887475,-0.013934122,0.055091206,0.06957316,0.04881335,0.013683981,-0.019817226,0.0646033,-0.04203727,2.0,2.0,-2.0,2.0,2.0,-2.0,2.0,-0.60445404,-2.0,-2.0,0.53758174,-2.0,2.0,2.0,-2.0,2.0,2.0,-2.0,2.0,-0.06876966,-2.0,-2.0,-0.3268039,-2.0
2025-06-10 09:01:47.982,0.015965015,0.05326055,0.08420004,-0.053151555,0.004449394,-0.038626038,0.0,0.0,0.0,-0.005481205,0.10847008,0.48865807,-0.13447621,0.09328155,0.52362853,-0.2123121,0.058932006,-0.029185887,-0.11977588,-0.020668857,0.051649515,-0.11575672,0.045598164,0.037766393,-0.030470528,-0.04665704,0.050075013,-0.054922495,0.0196787,0.054335974,0.058277976,-0.039615456,0.025054902,-0.03495154,2.0,2.0,-2.0,2.0,2.0,-2.0,2.0,-0.06876966,-2.0,-2.0,-0.3268039,-2.0,2.0,2.0,-2.0,2.0,2.0,-2.0,2.0,-0.684393,-2.0,-2.0,0.5161026,-2.0
2025-06-10 09:01:48.002,-0.005472663,-0.021423701,-0.046799958,0.032493822,-0.07582899,0.0415894,0.0,0.0,0.0,-0.0058877943,0.101675175,0.49783158,-0.14338298,0.09104636,0.5217724,-0.21403031,0.05272053,-0.017444164,-0.12515648,-0.015963072,0.051671978,-0.1014089,-0.045003053,0.054421917,-0.061989166,0.037167486,0.032825425,-0.006661935,0.027944954,0.018460708,0.0022652985,0.0034003935,0.033445,0.065125495,2.0,2.0,-2.0,2.0,2.0,-2.0,2.0,-0.684393,-2.0,-2.0,0.5161026,-2.0,2.0,2.0,-2.0,2.0,2.0,-2.0,2.0,-0.20818225,-2.0,-2.0,-0.1234547,-2.0
2025-06-10 09:01:48.025,0.008208482,-0.013116901,0.06857206,-0.011309715,-0.06105249,0.001160842,0.0,0.0,0.0,-0.0060255025,0.10993432,0.4959444,-0.13479672,0.09902125,0.5259441,-0.22914582,0.06798142,-0.019786948,-0.1210245,-0.030713003,0.05371646,-0.101228654,0.02140245,0.043989778,-0.012784097,0.0044985926,-0.04002797,-0.075803265,-0.03412256,0.003130173,-0.028150631,0.027678771,-0.018159473,-0.055048905,2.0,2.0,-2.0,2.0,2.0,-2.0,2.0,-0.20818225,-2.0,-2.0,-0.1234547,-2.0,2.0,2.0,-2.0,2.0,2.0,-2.0,2.0,-0.54065204,-2.0,-2.0,0.40130037,-2.0
2025-06-10 09:01:48.042,0.02175207,-0.008480775,-0.04453727,0.023922289,0.0054688803,-0.034041412,0.0,0.0,0.0,-0.0062551927,0.10586103,0.50992316,-0.14755446,0.10073435,0.539215,-0.22826032,0.055217613,-0.031428155,-0.1375236,-0.031609405,0.045508232,-0.10725081,-0.021567574,0.050712656,0.073166266,-0.008172392,-0.053411417,-0.006056901,-0.038268827,0.06878275,0.056241468,-0.024614802,0.06959361,-0.028135702,2.0,2.0,-2.0,2.0,2.0,-2.0,2.0,-0.54065204,-2.0,-2.0,0.40130037,-2.0,2.0,2.0,-2.0,2.0,2.0,-2.0,2.0,-0.073525995,-2.0,-2.0,-0.20946519,-2.0
2025-06-10 09:01:48.062,-0.008572507,0.06016082,-0.0028649752,-0.02414355,-0.018938793,-0.020864336,0.0,0.0,0.0,-0.006249766,0.10709649,0.5025535,-0.13498157,0.101703726,0.5383766,-0.21540223,0.057818998,-0.02761122,-0.1273169,-0.015580924,0.052653912,-0.106254525,0.032850616,-0.014747873,-0.021341572,0.028184602,-0.07251959,0.034239244,0.04542868,-0.04580461,-0.07421421,-0.035660647,0.018202022,-0.0133703165,2.0,2.0,-2.0,2.0,2.0,-2.0,2.0,-0.073525995,-2.0,-2.0,-0.20946519,-2.0,2.0,2.0,-2.0,2.0,2.0,-2.0,2.0,-0.43000743,-2.0,-2.0,0.09371538,-2.0
2025-06-10 09:01:48.082,-0.028513983,-0.034586854,0.05551797,0.03904893,-0.07203938,0.009505577,0.0,0.0,0.0,-0.006576705,0.10775763,0.50027907,-0.14799237,0.108033106,0.5313808,-0.22430956,0.057008754,-0.017568082,-0.1404626,-0.035290066,0.032916114,-0.10529736,0.0003455201,0.016155409,0.008254612,-0.011354631,-0.027825844,0.022554591,0.058035236,0.027009731,0.07425085,-0.036038715,-0.07475581,-0.0016873172,2.0,2.0,-2.0,2.0,2.0,-2.0,2.0,-0.43000743,-2.0,-2.0,0.09371538,-2.0,2.0,2.0,-2.0,2.0,2.0,-2.0,2.0,-0.42559734,-2.0,-2.0,0.26329035,-2.0
2025-06-10 09:01:48.102,-0.025092522,-0.025237672,0.033736322,0.016906574,-0.028667873,-0.0078338105,0.0,0.0,0.0,-0.006984295,0.11282737,0.50623655,-0.1313956,0.09426542,0.52463067,-0.22299418,0.06260318,-0.01823079,-0.13176131,-0.033952367,0.035241492,-0.09814404,-0.063302,0.018963758,0.06888248,0.01766481,0.008167336,0.0602291,-0.015709179,-0.04762348,-0.04300221,-0.064412825,0.056358855,-0.0074053574,2.0,2.0,-2.0,2.0,2.0,-2.0,2.0,-0.42559734,-2.0,-2.0,0.26329035,-2.0,2.0,2.0,-2.0,2.0,2.0,-2.0,2.0,-0.3419555,-2.0,-2.0,0.26344463,-2.0
2025-06-10 09:01:48.125,0.030687366,0.017264906,0.012561317,-0.0069699935,-0.042016737,-0.038255353,0.0,0.0,0.0,-0.007037954,0.104910485,0.5082572,-0.13555005,0.08956225,0.5395869,-0.22671877,0.059629906,-0.020828156,-0.13308676,-0.022310568,0.04322094,-0.098198354,-0.038997233,-0.010104929,0.053973265,-0.06435238,0.002666025,0.06775435,0.05125094,-0.027558997,0.07148533,0.0077614184,0.058883917,0.021618942,2.0,2.0,-2.0,2.0,2.0,-2.0,2.0,-0.3419555,-2.0,-2.0,0.26344463,-2.0,2.0,2.0,-2.0,2.0,2.0,-2.0,2.0,-0.29441193,-2.0,-2.0,0.11329388,-2.0
2025-06-10 09:01:48.142,0.023959858,-0.041573428,0.027204992,0.026465388,-0.06277305,-0.047704905,0.0,0.0,0.0,-0.0068575107,0.101456106,0.4982541,-0.12713894,0.093835734,0.5375597,-0.22464119,0.06093723,-0.017027382,-0.13189365,-0.03202607,0.044706747,-0.108629555,0.023748312,-0.046226308,0.042168822,0.029603345,0.012246756,-0.029324705,-0.015691118,0.011389507,-0.022816747,-0.013990303,0.069210604,-0.052898873,2.0,2.0,-2.0,2.0,2.0,-2.0,2.0,-0.29441193,-2.0,-2.0,0.11329388,-2.0,2.0,2.0,-2.0,2.0,2.0,-2.0,2.0,-0.388487,-2.0,-2.0,0.18711926,-2.0
2025-06-10 09:01:48.162,0.02997889,0.048161533,-0.013298994,0.035500478,-0.032654874,-0.023829985,0.0,0.0,0.0,-0.0067192484,0.10752655,0.5095499,-0.1378806,0.100586876,0.5420887,-0.22093804,0.0486548,-0.016464954,-0.12649195,-0.03360129,0.058732554,-0.11308762,-0.03842925,-0.007412618,0.0011861139,0.052032042,-0.051501624,-0.054675244,-0.015390756,-0.0061600055,0.031358697,0.026593795,-0.027579878,-0.054414526,2.0,2.0,-2.0,2.0,2.0,-2.0,2.0,-0.388487,-2.0,-2.0,0.18711926,-2.0,2.0,2.0,-2.0,2.0,2.0,-2.0,2.0,-0.2993203,-2.0,-2.0,0.05554884,-2.0
2025-06-10 09:01:48.183,0.04307684,-0.028956465,-0.006624736,0.031776335,-0.031273194,-0.0001694617,0.0,0.0,0.0,-0.0065693264,0.10361699,0.504654,-0.13521363,0.099696934,0.5316305,-0.21718803,0.06283573,-0.028186044,-0.14387473,-0.031232221,0.057794746,-0.09351067,0.023447024,0.014801032,0.017112663,-0.041685157,-0.019988894,-0.06118875,-0.06640246,0.03993886,0.03468514,0.0089951595,-0.064310715,0.06225864,2.0,2.0,-2.0,2.0,2.0,-2.0,2.0,-0.2993203,-2.0,-2.0,0.05554884,-2.0,2.0,2.0,-2.0,2.0,2.0,-2.0,2.0,-0.28960595,-2.0,-2.0,0.050788067,-2.0
2025-06-10 09:01:48.202,-0.02022366,0.021282405,0.016059129,0.029413147,0.009795633,0.041058876,0.0,0.0,0.0,-0.006526685,0.110833526,0.51147217,-0.14302273,0.0894052,0.5408854,-0.20895621,0.05254988,-0.014136538,-0.12610666,-0.023655094,0.05414866,-0.09644446,-0.011438891,0.029897507,-0.04550119,0.054261524,-0.064189106,0.041714042,-0.029265473,-0.04995636,0.07458128,-0.07482857,0.017846776,0.061213106,2.0,2.0,-2.0,2.0,2.0,-2.0,2.0,-0.28960595,-2.0,-2.0,0.050788067,-2.0,2.0,2.0,-2.0,2.0,2.0,-2.0,2.0,-0.42325172,-2.0,-2.0,0.28146714,-2.0
2025-06-10 09:01:48.225,0.015711034,0.019771509,-0.022117455,-0.025902674,-0.04621413,0.0030828025,0.0,0.0,0.0,-0.0066464646,0.11194672,0.5147854,-0.13590887,0.107436836,0.5428743,-0.21504319,0.053169683,-0.025782421,-0.13384405,-0.026714034,0.04610079,-0.1106173,0.031051693,0.014875932,0.0026896102,-0.07183998,0.056905784,-0.04555065,-0.0028843482,0.03361916,0.011265301,-0.01657374,0.061728746,-0.07656108,2.0,2.0,-2.0,2.0,2.0,-2.0,2.0,-0.42325172,-2.0,-2.0,0.28146714,-2.0,2.0,2.0,-2.0,2.0,2.0,-2.0,2.0,-0.2567751,-2.0,-2.0,-0.07900707,-2.0
2025-06-10 09:01:48.242,-0.008435434,0.04235047,0.0030978287,0.01476562,0.0025416238,0.037491012,0.0,0.0,0.0,-0.0065979837,0.1102917,0.5040965,-0.14348592,0.10110593,0.52711105,-0.20888488,0.06144846,-0.02011988,-0.14015216,-0.021967512,0.04944062,-0.09804398,-0.010822615,0.04179892,0.04315876,0.031581722,0.027725546,-0.060562655,-8.418905e-05,-0.06860861,0.020726023,-0.009338901,-0.024278209,0.012552923,2.0,2.0,-2.0,2.0,2.0,-2.0,2.0,-0.2567751,-2.0,-2.0,-0.07900707,-2.0,2.0,2.0,-2.0,2.0,2.0,-2.0,2.0,-0.4340699,-2.0,-2.0,0.27105793,-2.0
2025-06-10 09:01:48.263,0.040214468,0.0060596266,-0.032469563,0.01167425,-0.00015935476,0.016065244,0.0,0.0,0.0,-0.006703948,0.09689262,0.5080352,-0.14682855,0.095335506,0.53468907,-0.2188744,0.06464571,-0.024714727,-0.1334849,-0.033584945,0.055444915,-0.09354757,0.04657872,0.038528554,0.032624274,0.046057496,-0.0006870156,0.062840834,-0.01076817,0.022981124,-0.06467822,-0.020356726,-0.06632738,0.02209365,2.0,2.0,-2.0,2.0,2.0,-2.0,2.0,-0.4340699,-2.0,-2.0,0.27105793,-2.0,2.0,2.0,-2.0,2.0,2.0,-2.0,2.0,-0.25039127,-2.0,-2.0,-0.047958232,-2.0
2025-06-10 09:01:48.282,-0.032287434,0.0088441875,0.037696496,0.010891291,-0.0040301667,-0.009475603,0.0,0.0,0.0,-0.006697341,0.106749624,0.50557137,-0.13025577,0.1005698,0.52740604,-0.21095866,0.06431852,-0.030624028,-0.12644793,-0.023486096,0.040867653,-0.10203398,-0.05843234,0.053941943,-0.0015412587,-0.017416326,-0.022599764,-0.06169199,0.023757309,-0.029055713,-0.0189233,-0.053805847,0.044160213,0.044010434,2.0,2.0,-2.0,2.0,2.0,-2.0,2.0,-0.25039127,-2.0,-2.0,-0.047958232,-2.0,2.0,2.0,-2.0,2.0,2.0,-2.0,2.0,-0.4538842,-2.0,-2.0,0.3441748,-2.0
2025-06-10 09:01:48.303,-0.044491317,0.0053951843,0.011250436,-0.020980854,-0.038599707,-0.047612164,0.0,0.0,0.0,-0.0067969817,0.105893664,0.50105923,-0.13901652,0.099411756,0.52644634,-0.22668648,0.050934706,-0.014900061,-0.13521516,-0.024997417,0.041161258,-0.09882617,0.042735245,-0.045549117,-0.017891098,-0.024421353,-0.025459532,-0.052081905,-0.010370477,-0.07320472,-0.07483311,0.017006455,0.0767514,-0.0058935327,2.0,2.0,-2.0,2.0,2.0,-2.0,2.0,-0.4538842,-2.0,-2.0,0.3441748,-2.0,2.0,2.0,-2.0,2.0,2.0,-2.0,2.0,-0.28838262,-2.0,-2.0,0.11885088,-2.0
2025-06-10 09:01:48.325,0.042517602,-0.0340563,0.012917794,-0.006232184,-0.015296235,0.035393246,0.0,0.0,0.0,-0.0066972114,0.101907775,0.51595753,-0.1417796,0.09337827,0.54285985,-0.22690651,0.05972007,-0.01740056,-0.13748336,-0.03165316,0.045450296,-0.096321784,0.010474332,0.03291472,0.006813007,0.0357617,0.024949748,0.050906714,0.020244585,0.0755417,-0.07789765,0.00808004,0.013497183,-0.059809353,2.0,2.0,-2.0,2.0,2.0,-2.0,2.0,-0.28838262,-2.0,-2.0,0.11885088,-2.0,2.0,2.0,-2.0,2.0,2.0,-2.0,2.0,-0.4485213,-2.0,-2.0,0.11717885,-2.0
2025-06-10 09:01:48.343,-0.007609148,-0.031752776,-0.0135476915,-0.012367091,-0.039723236,-0.031800482,0.0,0.0,0.0,-0.0065517416,0.110602856,0.51586884,-0.12975982,0.09596917,0.53735185,-0.21879908,0.054301057,-0.014784884,-0.13781726,-0.020493275,0.037784882,-0.10735175,0.038120028,0.04290723,-0.023322146,-0.052717555,-0.011534948,-0.05951514,-0.027735487,-0.07059919,0.0760666,0.06582883,0.035037175,0.03121001,2.0,2.0,-2.0,2.0,2.0,-2.0,2.0,-0.4485213,-2.0,-2.0,0.11717885,-2.0,2.0,2.0,-2.0,2.0,2.0,-2.0,2.0,-0.210094,-2.0,-2.0,0.04184433,-2.0
2025-06-10 09:01:48.363,-0.018955084,0.036603563,0.00448421,-0.021950541,-0.023765601,-0.04555485,0.0,0.0,0.0,-0.0064209434,0.104395345,0.5128579,-0.13100134,0.09750906,0.53275543,-0.2105772,0.06662311,-0.027744135,-0.13638608,-0.023990242,0.053671747,-0.10870874,0.0579931,0.06989083,0.0014731016,-0.010774539,-0.040393,0.035145525,-0.071721494,-0.05748708,-0.029077714,-0.03979018,-0.013773711,0.069294214,2.0,2.0,-2.0,2.0,2.0,-2.0,2.0,-0.210094,-2.0,-2.0,0.04184433,-2.0,2.0,2.0,-2.0,2.0,2.0,-2.0,2.0,-0.328706,-2.0,-2.0,0.15052532,-2.0
2025-06-10 09:01:48.383,-0.0063406867,-0.041468017,0.010525574,0.030659731,-0.038967084,0.005701947,0.0,0.0,0.0,-0.006476891,0.11572192,0.50249654,-0.1379674,0.08999616,0.5309497,-0.215088,0.06284099,-0.011964795,-0.13386977,-0.01984928,0.042786922,-0.107832395,-0.041293398,0.0597416,0.005442056,-0.028848886,0.009052032,-0.005383321,-0.026502509,0.057213396,0.065019354,-0.070573375,-0.00809826,0.058639403,2.0,2.0,-2.0,2.0,2.0,-2.0,2.0,-0.328706,-2.0,-2.0,0.15052532,-2.0,2.0,2.0,-2.0,2.0,2.0,-2.0,2.0,-0.36387417,-2.0,-2.0,0.10972809,-2.0
2025-06-10 09:01:48.403,-0.006165213,-0.012863883,-0.01435343,-0.048105724,-0.07726068,0.048860177,0.0,0.0,0.0,-0.0065974426,0.11496403,0.49903113,-0.14201842,0.095629595,0.543433,-0.20909618,0.05809321,-0.023922216,-0.13234633,-0.023149397,0.036717504,-0.09970591,0.066336654,0.0141372485,-0.06212057,-0.06684988,0.054965604,0.014910495,0.006375061,0.052574698,-0.060793754,-0.064612694,0.04958157,-0.011844027,2.0,2.0,-2.0,2.0,2.0,-2.0,2.0,-0.36387417,-2.0,-2.0,0.10972809,-2.0,2.0,2.0,-2.0,2.0,2.0,-2.0,2.0,-0.3898979,-2.0,-2.0,-0.040707387,-2.0
2025-06-10 09:01:48.425,-0.03784962,0.006108681,0.009433549,0.023247568,-0.037431795,0.016035013,0.0,0.0,0.0,-0.0066757295,0.102863565,0.50562173,-0.1422641,0.10293719,0.52615064,-0.21879363,0.057798043,-0.027949579,-0.12794822,-0.03581788,0.03992536,-0.094534695,-0.03022217,0.0052916603,0.038428318,0.0034747417,-0.02563974,0.0054359697,0.059550177,-0.0013269738,-0.022491844,-0.0075836694,-0.0024471052,0.010218758,2.0,2.0,-2.0,2.0,2.0,-2.0,2.0,-0.3898979,-2.0,-2.0,-0.040707387,-2.0,2.0,2.0,-2.0,2.0,2.0,-2.0,2.0,-0.33459488,-2.0,-2.0,0.14408375,-2.0
2025-06-10 09:01:48.443,0.02408223,0.036727183,0.046180643,-0.041047167,0.01369518,-0.045083158,0.0,0.0,0.0,-0.0068137986,0.114163935,0.50526464,-0.1405256,0.09623221,0.5238982,-0.22617976,0.061762758,-0.022895018,-0.14134343,-0.036026966,0.040741447,-0.10033943,-0.05261603,0.05556685,-0.0446342,0.058304653,-0.018798359,-0.070824176,-0.01942711,0.06799856,-0.013574331,0.031500388,-0.057003234,0.0067028557,2.0,2.0,-2.0,2.0,2.0,-2.0,2.0,-0.33459488,-2.0,-2.0,0.14408375,-2.0,2.0,2.0,-2.0,2.0,2.0,-2.0,2.0,-0.4937345,-2.0,-2.0,0.34625107,-2.0
2025-06-10 09:01:48.464,0.009521259,0.014870834,-0.00560369,0.037599884,-0.019858256,-0.03075009,0.0,0.0,0.0,-0.0069151935,0.1059419,0.50250137,-0.13583218,0.09986888,0.5387993,-0.2214831,0.055906057,-0.02753489,-0.13743429,-0.02058126,0.046722457,-0.11077057,0.046822757,0.020293558,0.030781383,0.06475171,0.034945752,0.02094853,0.0642926,0.0354718,0.0012970502,-0.00650411,-0.032958154,-0.033988204,2.0,2.0,-2.0,2.0,2.0,-2.0,2.0,-0.4937345,-2.0,-2.0,0.34625107,-2.0,2.0,2.0,-2.0,2.0,2.0,-2.0,2.0,-0.31158474,-2.0,-2.0,0.053955726,-2.0
2025-06-10 09:01:48.483,-0.038453642,-0.008926624,-0.012114875,-0.022119218,-0.055918213,0.007579049,0.0,0.0,0.0,-0.006672182,0.09740125,0.51278883,-0.14727634,0.10196627,0.53466696,-0.21817233,0.06336615,-0.032916132,-0.12634516,-0.026203694,0.041730307,-0.11095267,-0.06794929,0.006541791,-0.004422341,-0.057801366,-0.010615654,-0.03674083,0.020689627,-0.024435563,-0.056589257,-0.014369919,0.01661927,-0.07228189,2.0,2.0,-2.0,2.0,2.0,-2.0,2.0,-0.31158474,-2.0,-2.0,0.053955726,-2.0,2.0,2.0,-2.0,2.0,2.0,-2.0,2.0,-0.3074557,-2.0,-2.0,0.04498183,-2.0
2025-06-10 09:01:48.503,-0.02329737,0.01242821,0.03774682,-0.0051052184,-0.033676058,-0.029344179,0.0,0.0,0.0,-0.006451078,0.09835036,0.49869147,-0.13426827,0.09661068,0.53024745,-0.21552533,0.057357393,-0.027940324,-0.14318931,-0.03448758,0.046641886,-0.10899051,-0.06400235,0.015290752,0.013156844,0.020414278,0.07322889,0.06317728,0.02461557,0.053169917,-0.052630704,0.07232468,-0.039878957,-0.03340643,2.0,2.0,-2.0,2.0,2.0,-2.0,2.0,-0.3074557,-2.0,-2.0,0.04498183,-2.0,2.0,2.0,-2.0,2.0,2.0,-2.0,2.0,-0.5234826,-2.0,-2.0,0.33936635,-2.0
2025-06-10 09:01:48.525,-0.02712997,0.006200396,-0.024040658,-0.007481372,-0.07116557,0.037833977,0.0,0.0,0.0,-0.0064460505,0.10036559,0.49344045,-0.14553842,0.102378905,0.5305958,-0.21696202,0.06193675,-0.031339835,-0.13063703,-0.034479946,0.054619215,-0.11134858,0.016444242,-0.012154405,-0.03400355,0.06521461,-0.01701136,0.022897124,-0.07377554,-0.06278506,-0.05649029,0.05980963,-0.00047981858,0.0464882,2.0,2.0,-2.0,2.0,2.0,-2.0,2.0,-0.5234826,-2.0,-2.0,0.33936635,-2.0,2.0,2.0,-2.0,2.0,2.0,-2.0,2.0,-0.29190537,-2.0,-2.0,0.08394476,-2.0
2025-06-10 09:01:48.543,0.0075270645,-0.0020157236,0.043685295,0.039307967,0.004554544,-0.0007424207,0.0,0.0,0.0,-0.006210897,0.105245695,0.49623194,-0.14544022,0.09434635,0.529323,-0.22029917,0.06305213,-0.018270629,-0.13521883,-0.029797515,0.054156676,-0.11260275,0.004478791,-0.03930169,-0.052506786,0.01663828,0.06360689,-0.046287056,0.04748884,-0.0149353,0.006980498,-0.05585769,-0.046569403,-0.031937283,2.0,2.0,-2.0,2.0,2.0,-2.0,2.0,-0.29190537,-2.0,-2.0,0.08394476,-2.0,2.0,2.0,-2.0,2.0,2.0,-2.0,2.0,-0.5562389,-2.0,-2.0,0.37306887,-2.0
2025-06-10 09:01:48.564,0.042850677,-0.026969165,-0.012596879,-0.022109926,-0.015076812,-0.04922701,0.0,0.0,0.0,-0.006023478,0.09504694,0.5060057,-0.14124309,0.103193894,0.5258153,-0.21293207,0.067436524,-0.032432187,-0.13912618,-0.01854606,0.056113858,-0.10520983,0.015468216,-0.022753647,0.034169503,-0.0054299957,0.042553354,0.004932309,0.0652819,-0.048201654,0.053957354,-0.06678812,0.06383162,0.057369675,2.0,2.0,-2.0,2.0,2.0,-2.0,2.0,-0.5562389,-2.0,-2.0,0.37306887,-2.0,2.0,2.0,-2.0,2.0,2.0,-2.0,2.0,-0.2083337,-2.0,-2.0,0.072139524,-2.0
2025-06-10 09:01:48.584,0.011925666,0.034816675,0.047625236,0.0019834668,-0.0278297,0.00853179,0.0,0.0,0.0,-0.005673693,0.102903694,0.5118309,-0.14116852,0.091469884,0.53111875,-0.22310461,0.055164997,-0.022068735,-0.1358175,-0.022890171,0.047377136,-0.105358705,0.025240218,-0.020910122,0.035641376,0.052381784,0.051863078,0.015791548,0.018366456,0.01886589,-0.011838324,-0.06113014,0.05172582,-0.042308733,2.0,2.0,-2.0,2.0,2.0,-2.0,2.0,-0.2083337,-2.0,-2.0,0.072139524,-2.0,2.0,2.0,-2.0,2.0,2.0,-2.0,2.0,-0.49413934,-2.0,-2.0,0.34528726,-2.0
2025-06-10 09:01:48.604,0.014780566,-0.008277596,-0.04442132,-0.03507002,-0.026340151,0.025777295,0.0,0.0,0.0,-0.005525399,0.10069906,0.49959403,-0.13709816,0.09556081,0.5286241,-0.20964101,0.054857977,-0.030234357,-0.12657183,-0.016959125,0.045742035,-0.099439085,0.019100325,0.045912575,-0.04291206,0.008347782,0.04836948,-0.06822932,-0.037356373,0.071303904,-0.04099746,0.06739453,0.047512524,-0.024068259,2.0,2.0,-2.0,2.0,2.0,-2.0,2.0,-0.49413934,-2.0,-2.0,0.34528726,-2.0,2.0,2.0,-2.0,2.0,2.0,-2.0,2.0,-0.27506563,-2.0,-2.0,-0.10469637,-2.0
2025-06-10 09:01:48.624,0.019773128,0.06853297,-0.01745901,0.046856605,-0.03923023,0.016407233,0.0,0.0,0.0,-0.0053542485,0.10981268,0.5077648,-0.12894003,0.09332917,0.5315122,-0.21071742,0.050564993,-0.027229099,-0.13213345,-0.03001379,0.05156582,-0.097944476,0.053861856,0.030510928,0.023232853,0.057237647,-0.046407975,0.010736894,-0.06442827,0.02073952,0.04903558,0.05609388,-0.024664927,-0.04944324,2.0,2.0,-2.0,2.0,2.0,-2.0,2.0,-0.27506563,-2.0,-2.0,-0.10469637,-2.0,2.0,2.0,-2.0,2.0,2.0,-2.0,2.0,-0.32936963,-2.0,-2.0,0.02522864,-2.0
2025-06-10 09:01:48.644,-0.012709982,-0.016733743,-0.016429417,-0.030696236,-0.04510299,0.04633023,0.0,0.0,0.0,-0.00548234,0.11294547,0.51081294,-0.14723116,0.09734871,0.5297197,-0.22060917,0.06905851,-0.030428497,-0.13672525,-0.018648406,0.051370036,-0.09694553,-0.03686962,0.039415117,-0.06727135,0.02414495,-0.055036962,0.06207707,-0.022641262,-0.049210194,0.026917806,-0.022339111,-0.022468649,-0.014078631,2.0,2.0,-2.0,2.0,2.0,-2.0,2.0,-0.32936963,-2.0,-2.0,0.02522864,-2.0,2.0,2.0,-2.0,2.0,2.0,-2.0,2.0,-0.33669063,-2.0,-2.0,0.052814595,-2.0
2025-06-10 09:01:48.664,0.034068782,0.046203166,0.0012006823,-0.029946571,-0.06997851,0.046764664,0.0,0.0,0.0,-0.0058954395,0.1125536,0.5009135,-0.14029637,0.09993964,0.5403545,-0.22044376,0.06255976,-0.037005793,-0.13474101,-0.02043445,0.05136564,-0.10364915,-0.048533436,0.045749687,-0.06355648,0.07176265,0.005286386,0.047548637,-0.031005468,0.01973405,0.015182196,0.006766505,-0.05951657,-0.065368615,2.0,2.0,-2.0,2.0,2.0,-2.0,2.0,-0.33669063,-2.0,-2.0,0.052814595,-2.0,2.0,2.0,-2.0,2.0,2.0,-2.0,2.0,-0.47799972,-2.0,-2.0,0.18410163,-2.0
2025-06-10 09:01:48.684,0.04394681,-0.017381607,0.0021897317,0.0074502984,0.020357154,-0.027462333,0.0,0.0,0.0,-0.0063581173,0.10719992,0.5121861,-0.14306004,0.09568751,0.5406756,-0.22053078,0.05158744,-0.029178996,-0.13742867,-0.017670913,0.034859806,-0.10235816,-0.011239096,-0.059689663,-0.029858025,0.026440406,-0.005323393,-0.015599172,0.026584037,0.021260155,-0.019161936,-0.01417328,-0.06336414,0.0042297896,2.0,2.0,-2.0,2.0,2.0,-2.0,2.0,-0.47799972,-2.0,-2.0,0.18410163,-2.0,2.0,2.0,-2.0,2.0,2.0,-2.0,2.0,-0.3320419,-2.0,-2.0,0.13459857,-2.0
2025-06-10 09:01:48.704,0.017975194,0.021388846,0.036421843,-0.032328334,-0.061042286,-0.01026227,0.0,0.0,0.0,-0.0065957457,0.109396845,0.5050286,-0.14680403,0.0928812,0.5239323,-0.22954562,0.0632209,-0.021785915,-0.13465288,-0.030453881,0.037723474,-0.09316878,-0.0690319,0.07620492,-0.029848002,0.04282646,-0.030715266,0.016235976,0.051415402,0.036409844,-0.059850115,-0.015347252,-0.011905971,-0.013045037,2.0,2.0,-2.0,2.0,2.0,-2.0,2.0,-0.3320419,-2.0,-2.0,0.13459857,-2.0,2.0,2.0,-2.0,2.0,2.0,-2.0,2.0,-0.4536573,-2.0,-2.0,0.22455896,-2.0
2025-06-10 09:01:48.725,-0.03816422,0.04016205,-0.00891,-0.023394184,0.0019442039,0.021048531,0.0,0.0,0.0,-0.0067020454,0.11058447,0.5126092,-0.13852441,0.09033119,0.54212844,-0.22521141,0.06308748,-0.021179788,-0.123642474,-0.016741745,0.05279209,-0.09711393,0.006207322,-0.061689407,-0.046835877,-0.03864885,-0.005371435,-0.023116572,0.03559155,0.06554301,-0.017570665,-0.071768075,-0.01545478,-0.02194433,2.0,2.0,-2.0,2.0,2.0,-2.0,2.0,-0.4536573,-2.0,-2.0,0.22455896,-2.0,2.0,2.0,-2.0,2.0,2.0,-2.0,2.0,-0.304938,-2.0,-2.0,0.033781104,-2.0
2025-06-10 09:01:48.744,0.0089416485,-0.0055050277,0.024829866,0.027229508,-0.01992025,0.048347387,0.0,0.0,0.0,-0.006625691,0.10789157,0.5082646,-0.12761748,0.10139177,0.52528113,-0.21643254,0.051951274,-0.035578083,-0.13906838,-0.026955951,0.039204188,-0.09913304,0.051698495,-0.004705478,-0.018351393,-0.004223323,-0.074675284,0.028791413,-0.0032382596,0.062807806,-0.017940179,0.013398639,-0.008031707,-0.02184615,2.0,2.0,-2.0,2.0,2.0,-2.0,2.0,-0.304938,-2.0,-2.0,0.033781104,-2.0,2.0,2.0,-2.0,2.0,2.0,-2.0,2.0,-0.40921053,-2.0,-2.0,0.10559162,-2.0
2025-06-10 09:01:48.764,-0.017119396,0.036650423,0.019415513,0.00089384586,-0.016509501,-0.019437928,0.0,0.0,0.0,-0.0066076024,0.10155985,0.4958357,-0.1276866,0.10228371,0.53381205,-0.22154775,0.046749692,-0.032383054,-0.12862958,-0.027644563,0.04779192,-0.09845759,0.047788966,-0.020490343,0.009440839,-0.0714918,-0.035011683,-0.030260533,-0.04451559,0.064529195,-0.01706215,-0.005088042,0.02366872,-0.049174376,2.0,2.0,-2.0,2.0,2.0,-2.0,2.0,-0.40921053,-2.0,-2.0,0.10559162,-2.0,2.0,2.0,-2.0,2.0,2.0,-2.0,2.0,-0.32882985,-2.0,-2.0,0.10867625,-2.0
2025-06-10 09:01:48.784,-0.05098332,-0.038153395,-0.008713388,-0.022557031,0.01827935,0.016224913,0.0,0.0,0.0,-0.0066194166,0.1102532,0.4949319,-0.13933301,0.10179,0.53924876,-0.21668111,0.050506596,-0.026445253,-0.13011438,-0.033759672,0.04402394,-0.09465019,-0.05171829,-0.04734405,-0.057542697,-0.027140252,0.067957185,-0.0037632305,0.05685486,0.039906614,0.025892386,-0.0065066037,0.068268046,-0.013555755,2.0,2.0,-2.0,2.0,2.0,-2.0,2.0,-0.32882985,-2.0,-2.0,0.10867625,-2.0,2.0,2.0,-2.0,2.0,2.0,-2.0,2.0,-0.4504685,-2.0,-2.0,0.08373367,-2.0
2025-06-10 09:01:48.807,0.051054522,0.003987278,0.020141054,4.585715e-05,-0.007939233,0.028968101,0.0,0.0,0.0,-0.0066377036,0.09857353,0.49574378,-0.12942694,0.10045948,0.53778917,-0.22456847,0.065414555,-0.032073986,-0.1388371,-0.017986534,0.04024182,-0.101672195,-0.0069091404,-0.06996903,0.036241412,0.051490128,-0.073099166,-0.048139784,-0.052580602,-0.07711434,0.06595286,-0.0028303738,0.028123593,0.05307847,2.0,2.0,-2.0,2.0,2.0,-2.0,2.0,-0.4504685,-2.0,-2.0,0.08373367,-2.0,2.0,2.0,-2.0,2.0,2.0,-2.0,2.0,-0.3129141,-2.0,-2.0,0.34915316,-2.0
2025-06-10 09:01:48.825,-0.026794178,-0.040620554,-0.027392983,-0.05283465,-0.023619568,-0.00702563,0.0,0.0,0.0,-0.0066191163,0.10716268,0.49488398,-0.14713119,0.09215365,0.5331508,-0.22632514,0.059224352,-0.038658604,-0.13741827,-0.03391209,0.047053624,-0.107989565,0.046367314,-0.03984708,0.06224524,0.0446386,0.05233165,-0.019869873,-0.03864502,-0.017872669,0.0115167815,0.04584435,0.039467383,0.055449434,2.0,2.0,-2.0,2.0,2.0,-2.0,2.0,-0.3129141,-2.0,-2.0,0.34915316,-2.0,2.0,2.0,-2.0,2.0,2.0,-2.0,2.0,-0.27880278,-2.0,-2.0,0.022834769,-2.0
2025-06-10 09:01:48.844,-0.02094185,0.042709842,-0.001227423,-0.03387648,-0.0673462,-0.028817082,0.0,0.0,0.0,-0.0064390237,0.11635199,0.50430584,-0.14151052,0.10759059,0.53131217,-0.20901608,0.06486679,-0.030319534,-0.1320708,-0.021848889,0.051980786,-0.11334502,0.05501683,0.075727455,0.04776295,-0.022598647,0.03001316,0.04942855,0.02107859,0.049025487,0.027772313,0.067994334,0.07388671,0.0037450457,2.0,2.0,-2.0,2.0,2.0,-2.0,2.0,-0.27880278,-2.0,-2.0,0.022834769,-2.0,2.0,2.0,-2.0,2.0,2.0,-2.0,2.0,-0.3276281,-2.0,-2.0,0.05735799,-2.0
2025-06-10 09:01:48.865,-0.03184194,0.004822611,0.030776529,0.0454077,-0.019534651,0.022241183,0.0,0.0,0.0,-0.0064009004,0.09866917,0.5093946,-0.14255156,0.09264296,0.53322875,-0.21716096,0.04749185,-0.018750813,-0.13762416,-0.032392986,0.03976678,-0.105169,-0.044770613,0.038943034,0.058759935,-0.013939205,0.0014590689,0.024524685,-0.015625365,-0.048023626,-0.021380702,0.024932703,-0.054603767,0.00952466,2.0,2.0,-2.0,2.0,2.0,-2.0,2.0,-0.3276281,-2.0,-2.0,0.05735799,-2.0,2.0,2.0,-2.0,2.0,2.0,-2.0,2.0,-0.417061,-2.0,-2.0,0.31622848,-2.0
2025-06-10 09:01:48.885,-0.016896985,-0.03234527,-0.016810667,-0.026508065,-0.018937554,-0.026475877,0.0,0.0,0.0,-0.0065271105,0.1118168,0.5112794,-0.13902989,0.08825783,0.53119135,-0.2133865,0.064422674,-0.031119999,-0.1304478,-0.03393075,0.053538848,-0.096246235,0.071008705,0.045170635,-0.042535372,0.013653304,-0.048556272,-0.03942651,-0.006048339,0.009286236,0.015859473,-0.021844296,-0.014476539,-0.027329883,2.0,2.0,-2.0,2.0,2.0,-2.0,2.0,-0.417061,-2.0,-2.0,0.31622848,-2.0,2.0,2.0,-2.0,2.0,2.0,-2.0,2.0,-0.24553964,-2.0,-2.0,-0.057126947,-2.0
2025-06-10 09:01:48.908,-0.008262162,0.031990595,-0.019057922,-0.047469847,-0.062065106,-0.0054160906,0.0,0.0,0.0,-0.0064569153,0.11614773,0.50416774,-0.14239918,0.09663001,0.5372342,-0.22589889,0.05255502,-0.029667096,-0.13514435,-0.033488754,0.039389253,-0.10947499,-0.0040405015,-0.049161743,0.037272718,-0.0079558,0.033568047,-0.018190319,0.026304217,0.057363052,0.05271856,-0.057048332,-0.04717483,0.052551243,2.0,2.0,-2.0,2.0,2.0,-2.0,2.0,-0.24553964,-2.0,-2.0,-0.057126947,-2.0,2.0,2.0,-2.0,2.0,2.0,-2.0,2.0,-0.29910108,-2.0,-2.0,-0.02284787,-2.0
2025-06-10 09:01:48.925,0.027938774,0.041634053,0.031966012,0.028319221,-0.045354314,-0.014126822,0.0,0.0,0.0,-0.006544065,0.10875471,0.5063847,-0.13863085,0.10901177,0.5258519,-0.21275784,0.054644357,-0.027093826,-0.14677213,-0.018773884,0.04156091,-0.099322334,-0.06853389,-0.047777478,-0.06628088,0.031951673,-0.0036296581,0.03563795,0.060780503,0.061350804,0.067615904,0.015813844,-0.073416956,-0.032808505,2.0,2.0,-2.0,2.0,2.0,-2.0,2.0,-0.29910108,-2.0,-2.0,-0.02284787,-2.0,2.0,2.0,-2.0,2.0,2.0,-2.0,2.0,-0.5086857,-2.0,-2.0,0.23223388,-2.0
2025-06-10 09:01:48.945,0.033088125,-0.035579264,-0.037594784,-0.0036167407,-0.03343852,0.022556514,0.0,0.0,0.0,-0.0068525122,0.09981431,0.5043201,-0.13618708,0.10209853,0.5393851,-0.2283749,0.06092628,-0.032620415,-0.13451672,-0.01794432,0.044357847,-0.10016148,0.0027213232,-0.026449813,-0.03134879,0.066122845,0.012379081,-0.06805748,0.03610813,-0.042263415,-0.05352598,-0.013998019,-0.05022138,-0.07061382,2.0,2.0,-2.0,2.0,2.0,-2.0,2.0,-0.5086857,-2.0,-2.0,0.23223388,-2.0,2.0,2.0,-2.0,2.0,2.0,-2.0,2.0,-0.26043686,-2.0,-2.0,-0.030414293,-2.0
2025-06-10 09:01:48.965,0.034854915,-0.0064327638,-0.031756926,-0.022184217,-0.030502226,0.01205417,0.0,0.0,0.0,-0.006897827,0.10236718,0.513644,-0.13398401,0.09961347,0.5315611,-0.22783178,0.056264523,-0.035519723,-0.13537955,-0.03397974,0.03500959,-0.10668136,-0.016757168,0.02074423,-0.014291969,0.0056565334,0.057790443,0.014688224,-0.051780466,0.07487618,-0.06593029,0.05497999,-0.056798592,0.0126459785,2.0,2.0,-2.0,2.0,2.0,-2.0,2.0,-0.26043686,-2.0,-2.0,-0.030414293,-2.0,2.0,2.0,-2.0,2.0,2.0,-2.0,2.0,-0.34715226,-2.0,-2.0,-0.045337684,-2.0
2025-06-10 09:01:48.985,0.010903228,0.003155802,0.0036595985,0.0071143117,0.0050481013,-0.023031557,0.0,0.0,0.0,-0.006971966,0.099119455,0.50583506,-0.14586565,0.09709058,0.53899854,-0.21729311,0.04894882,-0.03703648,-0.12665679,-0.02464044,0.035771266,-0.086226344,-0.0537477,-0.07481952,0.0052245464,-0.04689476,-0.032976415,0.057303052,0.055389516,0.009698022,0.045808878,-0.001631045,0.048788838,0.07844921,2.0,2.0,-2.0,2.0,2.0,-2.0,2.0,-0.34715226,-2.0,-2.0,-0.045337684,-2.0,2.0,2.0,-2.0,2.0,2.0,-2.0,2.0,-0.3262129,-2.0,-2.0,0.14616539,-2.0
2025-06-10 09:01:49.008,0.02595679,-0.023781158,-0.01760132,-0.053981867,-0.07722352,-0.037395917,0.0,0.0,0.0,-0.0071865804,0.112984546,0.5032588,-0.1400969,0.09252632,0.5321845,-0.21964371,0.056070123,-0.027561834,-0.13537745,-0.028766077,0.04419162,-0.10062756,-0.055413034,-0.05091303,-0.026611477,-0.05095055,-0.046838768,-0.007831019,0.008626614,-0.025090175,-0.004838729,-0.043262307,0.057285115,0.029326454,2.0,2.0,-2.0,2.0,2.0,-2.0,2.0,-0.3262129,-2.0,-2.0,0.14616539,-2.0,2.0,2.0,-2.0,2.0,2.0,-2.0,2.0,-0.24223939,-2.0,-2.0,-0.052876003,-2.0
2025-06-10 09:01:49.025,-0.033511586,0.030893281,0.0064297095,-0.041058972,0.015970502,0.035554763,0.0,0.0,0.0,-0.00731053,0.11304293,0.50627726,-0.13642004,0.10113695,0.5315075,-0.21318622,0.047779936,-0.035180323,-0.13016635,-0.02688616,0.027941843,-0.097767964,-0.0671183,0.014705788,-0.007391986,0.06600434,0.05522731,-0.067803524,-0.06210775,-0.053833462,-0.048754103,0.008451547,-0.022250004,0.061240133,2.0,2.0,-2.0,2.0,2.0,-2.0,2.0,-0.24223939,-2.0,-2.0,-0.052876003,-2.0,2.0,2.0,-2.0,2.0,2.0,-2.0,2.0,-0.4935293,-2.0,-2.0,0.3477585,-2.0
2025-06-10 09:01:49.045,-0.036988653,0.017184151,0.032210242,-0.02440864,-0.03133385,-0.00605648,0.0,0.0,0.0,-0.0075112893,0.11147637,0.5034207,-0.14298594,0.09513507,0.52959156,-0.20902753,0.058497995,-0.02491833,-0.1322885,-0.031531468,0.034575794,-0.091823,-0.0711008,-0.053443246,0.059375364,-0.004940069,0.07756923,-0.019150099,-0.062048875,0.052644193,0.015801251,-0.03850946,0.07930227,-0.04364387,2.0,2.0,-2.0,2.0,2.0,-2.0,2.0,-0.4935293,-2.0,-2.0,0.3477585,-2.0,2.0,2.0,-2.0,2.0,2.0,-2.0,2.0,-0.37459186,-2.0,-2.0,0.3120704,-2.0
2025-06-10 09:01:49.066,8.131447e-05,-0.030371733,0.014950743,-0.049582977,-0.0709723,-0.007377795,0.0,0.0,0.0,-0.007363426,0.1084399,0.5008705,-0.13868052,0.088320605,0.5362672,-0.21904065,0.05909489,-0.014363295,-0.14055479,-0.018914895,0.041341707,-0.10738711,-0.014572757,0.0137397135,-0.041080873,0.063713185,0.05120687,-0.056786317,0.045459975,-0.05152367,-0.03600831,-0.025270348,-0.042459663,-0.07277332,2.0,2.0,-2.0,2.0,2.0,-2.0,2.0,-0.37459186,-2.0,-2.0,0.3120704,-2.0,2.0,2.0,-2.0,2.0,2.0,-2.0,2.0,-0.45497784,-2.0,-2.0,0.21962218,-2.0
2025-06-10 09:01:49.085,0.051461045,0.029955197,-0.06342128,0.0050597587,-0.07142949,-0.00046175148,0.0,0.0,0.0,-0.0068819216,0.11195166,0.51218116,-0.1306499,0.09791321,0.529127,-0.210861,0.047748107,-0.017311847,-0.13983782,-0.023422342,0.049655806,-0.096458755,0.04691792,0.06561858,0.020388113,0.044584554,-0.012788346,-0.021505175,0.03596724,0.050207764,0.011909499,-0.033775583,0.047015402,0.032496907,2.0,2.0,-2.0,2.0,2.0,-2.0,2.0,-0.45497784,-2.0,-2.0,0.21962218,-2.0,2.0,2.0,-2.0,2.0,2.0,-2.0,2.0,-0.10478988,-2.0,-2.0,-0.3014206,-2.0
2025-06-10 09:01:49.108,-0.037955128,0.02693802,0.019143486,-0.025223421,-0.012463742,0.045617472,0.0,0.0,0.0,-0.006304398,0.10326957,0.499357,-0.14987607,0.10628011,0.53530514,-0.22179301,0.059744596,-0.019285643,-0.14785528,-0.016614923,0.03669539,-0.09479893,0.04083008,-0.06355628,-0.05921078,0.064588204,-0.058708377,-0.029326199,0.0695562,-0.005459623,0.06237975,-0.009397495,0.03682612,-0.0081193205,2.0,2.0,-2.0,2.0,2.0,-2.0,2.0,-0.10478988,-2.0,-2.0,-0.3014206,-2.0,2.0,2.0,-2.0,2.0,2.0,-2.0,2.0,-0.5387238,-2.0,-2.0,0.22704954,-2.0
2025-06-10 09:01:49.126,0.04577369,-0.021401819,0.020143606,0.021902366,-0.01523133,0.02290444,0.0,0.0,0.0,-0.006353796,0.098740734,0.495467,-0.13212748,0.10723375,0.53638494,-0.22663434,0.059490547,-0.032446027,-0.13108799,-0.025283976,0.041394588,-0.091690205,-0.07196105,0.0012302847,-0.02015039,0.002915765,0.027857741,-0.0657257,-0.039516117,0.03429652,0.012625407,-0.057511553,-0.0200411,0.061829146,2.0,2.0,-2.0,2.0,2.0,-2.0,2.0,-0.5387238,-2.0,-2.0,0.22704954,-2.0,2.0,2.0,-2.0,2.0,2.0,-2.0,2.0,-0.3728849,-2.0,-2.0,0.2725891,-2.0
2025-06-10 09:01:49.145,0.026306096,0.012961545,-0.030918794,-0.0410425,-0.067992784,0.0057226825,0.0,0.0,0.0,-0.006418628,0.09627408,0.5118209,-0.1308489,0.09520512,0.5429028,-0.21900569,0.06328797,-0.028297875,-0.14166613,-0.029710928,0.03875315,-0.09934504,-0.062002223,0.033781994,0.053754497,0.016776217,-0.023790225,0.07297859,-0.011250954,-0.06982768,-0.011311809,0.01960524,0.020149147,-0.0693133,2.0,2.0,-2.0,2.0,2.0,-2.0,2.0,-0.3728849,-2.0,-2.0,0.2725891,-2.0,2.0,2.0,-2.0,2.0,2.0,-2.0,2.0,-0.19892278,-2.0,-2.0,-0.031159619,-2.0
2025-06-10 09:01:49.166,-0.040624067,-0.020664256,-0.019765116,-0.041649267,-0.07733104,-0.037306927,0.0,0.0,0.0,-0.0062308596,0.103092216,0.5003236,-0.14465198,0.0992252,0.52649623,-0.21469252,0.06530871,-0.018003484,-0.13329247,-0.026437813,0.036810875,-0.105142884,-0.059387147,-0.025989566,-0.06849706,0.043304197,-0.010076529,-0.053547494,0.030349454,0.022034584,0.014283175,-0.0684386,0.016511958,-0.007982162,2.0,2.0,-2.0,2.0,2.0,-2.0,2.0,-0.19892278,-2.0,-2.0,-0.031159619,-2.0,2.0,2.0,-2.0,2.0,2.0,-2.0,2.0,-0.37454596,-2.0,-2.0,-0.024733016,-2.0
2025-06-10 09:01:49.186,-0.0048866333,0.04309606,-0.021460779,-0.010473108,-0.008284991,0.008339885,0.0,0.0,0.0,-0.0063016503,0.10972654,0.49643764,-0.14366253,0.104084715,0.5342959,-0.2192729,0.06520458,-0.028842282,-0.13103592,-0.033370953,0.051523015,-0.106560335,0.05088,0.04512851,-0.012887321,-0.013756351,-0.020537263,-0.017637864,-0.0066561224,-0.06834243,-0.04983287,-0.049506206,0.0102977585,0.06108089,2.0,2.0,-2.0,2.0,2.0,-2.0,2.0,-0.37454596,-2.0,-2.0,-0.024733016,-2.0,2.0,2.0,-2.0,2.0,2.0,-2.0,2.0,-0.31204233,-2.0,-2.0,0.06586551,-2.0
2025-06-10 09:01:49.208,0.003961966,0.03801519,0.052977897,-0.056212004,-0.037376788,0.036451906,0.0,0.0,0.0,-0.006576936,0.113301754,0.5050861,-0.13288957,0.099269755,0.52643675,-0.21130152,0.06412855,-0.032868788,-0.13432853,-0.023277897,0.039257143,-0.1005331,0.04577362,0.03860842,0.0096711535,0.032145295,-0.051019948,-0.04392072,0.05173464,0.05381973,-0.06761083,0.047481265,0.026591089,0.050241895,2.0,2.0,-2.0,2.0,2.0,-2.0,2.0,-0.31204233,-2.0,-2.0,0.06586551,-2.0,2.0,2.0,-2.0,2.0,2.0,-2.0,2.0,-0.47360095,-2.0,-2.0,0.34898564,-2.0
2025-06-10 09:01:49.226,-0.0020620315,-0.026547022,-0.047480658,0.030006194,0.00094799517,-0.010195654,0.0,0.0,0.0,-0.0068646627,0.115613006,0.4999879,-0.1326168,0.10371317,0.52747005,-0.20929012,0.05727582,-0.034758396,-0.1344765,-0.024084449,0.052529883,-0.09516995,0.06523943,0.031268734,-0.039288707,0.06516571,0.058609802,0.06140229,-0.0164051,-0.052578554,0.05980541,0.022483671,-0.042000555,-0.022266278,2.0,2.0,-2.0,2.0,2.0,-2.0,2.0,-0.47360095,-2.0,-2.0,0.34898564,-2.0,2.0,2.0,-2.0,2.0,2.0,-2.0,2.0,-0.27158538,-2.0,-2.0,-0.089403786,-2.0
2025-06-10 09:01:49.246,-0.025054717,0.05723625,-0.016067322,-0.046840925,-0.06453886,0.032517843,0.0,0.0,0.0,-0.0067955633,0.11112339,0.5035559,-0.12987612,0.09088409,0.5290383,-0.22685432,0.06448345,-0.02079105,-0.13976826,-0.029587587,0.050559394,-0.10832352,-0.06837271,-0.057147954,-0.007200009,-0.067988224,0.004621654,-0.067798704,-0.034032304,0.05650968,0.0074812355,-0.061715264,-0.012750375,0.022778638,2.0,2.0,-2.0,2.0,2.0,-2.0,2.0,-0.27158538,-2.0,-2.0,-0.089403786,-2.0,2.0,2.0,-2.0,2.0,2.0,-2.0,2.0,-0.30882147,-2.0,-2.0,0.025939306,-2.0
2025-06-10 09:01:49.266,0.017557027,-0.018318461,-0.023594923,0.008269396,-0.008203237,0.018110491,0.0,0.0,0.0,-0.006816493,0.10711184,0.49667653,-0.14179826,0.105868176,0.529327,-0.21472733,0.06401278,-0.025117707,-0.14329337,-0.03592546,0.048519183,-0.107088655,0.008692401,-0.05977541,-0.07186699,-0.026938718,-0.06749076,-0.037319954,0.046507478,-0.009566362,-0.031075517,-0.022490446,-0.047752652,0.03773678,2.0,2.0,-2.0,2.0,2.0,-2.0,2.0,-0.30882147,-2.0,-2.0,0.025939306,-2.0,2.0,2.0,-2.0,2.0,2.0,-2.0,2.0,-0.33436838,-2.0,-2.0,-0.05710671,-2.0
2025-06-10 09:01:49.286,-0.0372064,-0.025286324,0.027105529,-0.028676083,0.0202134,-0.03721629,0.0,0.0,0.0,-0.0070055453,0.099735536,0.5059138,-0.15022211,0.09898316,0.5335869,-0.21281266,0.046462014,-0.029170578,-0.14282091,-0.0285152,0.04287083,-0.0974473,0.025024539,-0.047041703,-0.06936174,0.025403338,-0.050508942,-0.061948195,-0.048085622,-0.046098404,0.029586878,0.04011244,-0.03337646,-0.068744935,2.0,2.0,-2.0,2.0,2.0,-2.0,2.0,-0.33436838,-2.0,-2.0,-0.05710671,-2.0,2.0,2.0,-2.0,2.0,2.0,-2.0,2.0,-0.43952027,-2.0,-2.0,0.31643966,-2.0
2025-06-10 09:01:49.308,-0.019658316,-0.009656656,0.029715467,0.030216344,-0.011180977,-0.03446861,0.0,0.0,0.0,-0.0072703063,0.11712296,0.5038474,-0.14195244,0.09663432,0.53333664,-0.21158017,0.053511523,-0.020223616,-0.13410702,-0.033936877,0.03409629,-0.10629433,0.063942716,-0.040203996,0.020950628,-0.0126186125,-0.059313826,0.010543336,0.04138863,-0.06511943,0.019868715,-0.054376908,0.02190371,-0.04471591,2.0,2.0,-2.0,2.0,2.0,-2.0,2.0,-0.43952027,-2.0,-2.0,0.31643966,-2.0,2.0,2.0,-2.0,2.0,2.0,-2.0,2.0,-0.3231562,-2.0,-2.0,0.16741996,-2.0
2025-06-10 09:01:49.326,-0.05126601,0.009752752,0.027513938,-0.015714368,-0.00966889,0.04343491,0.0,0.0,0.0,-0.007221969,0.10154676,0.5064337,-0.14261858,0.098646805,0.5373918,-0.21786584,0.056594994,-0.01795518,-0.13875309,-0.03773574,0.034431003,-0.09219878,-0.023527853,-0.015177314,-0.07012339,0.053370796,-0.033622146,-0.060395204,-0.03233014,-0.03272851,0.06493327,-0.013905862,0.057053678,-0.041757967,2.0,2.0,-2.0,2.0,2.0,-2.0,2.0,-0.3231562,-2.0,-2.0,0.16741996,-2.0,2.0,2.0,-2.0,2.0,2.0,-2.0,2.0,-0.4898717,-2.0,-2.0,0.3125295,-2.0
2025-06-10 09:01:49.347,0.028059252,-0.0507801,-0.06203583,0.032218963,-0.0148668485,0.039793186,0.0,0.0,0.0,-0.007000966,0.100635394,0.5012022,-0.14151241,0.09666812,0.5382679,-0.20745538,0.052487995,-0.021911165,-0.13180405,-0.03197483,0.053164653,-0.10317171,-0.02245621,-0.06568044,-0.021012422,0.061852764,0.01880686,-0.037952855,-0.025709184,0.060953006,0.03703157,0.01643553,-0.05946764,0.0064391075,2.0,2.0,-2.0,2.0,2.0,-2.0,2.0,-0.4898717,-2.0,-2.0,0.3125295,-2.0,2.0,2.0,-2.0,2.0,2.0,-2.0,2.0,-0.1903291,-2.0,-2.0,-0.16959818,-2.0
2025-06-10 09:01:49.367,0.034470152,0.011396328,0.0027400756,-0.00023214865,-0.07622294,-0.0045262887,0.0,0.0,0.0,-0.0065607154,0.10820393,0.5101814,-0.13701724,0.09646133,0.5286588,-0.22211489,0.0653251,-0.030685417,-0.12868282,-0.022995213,0.03957358,-0.109578334,0.008209567,-0.0166437,0.036642242,0.017229639,-0.067160696,-0.021398846,0.003660899,0.06749961,-0.036491666,0.0050134426,0.014635755,-0.006983357,2.0,2.0,-2.0,2.0,2.0,-2.0,2.0,-0.1903291,-2.0,-2.0,-0.16959818,-2.0,2.0,2.0,-2.0,2.0,2.0,-2.0,2.0,-0.33917043,-2.0,-2.0,0.034697108,-2.0
2025-06-10 09:01:49.386,-0.03922111,-0.021145163,-0.023539666,0.037954025,-0.02688011,-0.01530305,0.0,0.0,0.0,-0.0064820866,0.10711245,0.5048495,-0.14944795,0.108609974,0.53221864,-0.21356113,0.056439698,-0.023125663,-0.1332432,-0.022082452,0.0349548,-0.093464695,-0.022997076,-0.03332406,0.04794976,-0.045764416,-0.031468846,-0.029667227,0.05602614,-0.04267711,0.027977878,-0.01766892,-0.05092501,0.05652981,2.0,2.0,-2.0,2.0,2.0,-2.0,2.0,-0.33917043,-2.0,-2.0,0.034697108,-2.0,2.0,2.0,-2.0,2.0,2.0,-2.0,2.0,-0.21449849,-2.0,-2.0,-0.024079839,-2.0
2025-06-10 09:01:49.408,-0.03689586,0.029063547,-0.0024703934,-0.024940226,-0.046692442,0.009867474,0.0,0.0,0.0,-0.006666578,0.10148492,0.49538505,-0.14227548,0.09174888,0.53153795,-0.22420354,0.061039846,-0.029692877,-0.14258198,-0.023895131,0.041518,-0.107856,0.05267477,-0.0619995,0.03908378,0.010678055,-0.022583082,-0.023542318,0.03829474,-0.03546156,-0.06429677,0.031438764,-0.0028346095,0.019693539,2.0,2.0,-2.0,2.0,2.0,-2.0,2.0,-0.21449849,-2.0,-2.0,-0.024079839,-2.0,2.0,2.0,-2.0,2.0,2.0,-2.0,2.0,-0.36560324,-2.0,-2.0,0.11884933,-2.0
2025-06-10 09:01:49.426,0.0074982396,0.023267284,-0.039818704,-0.029494414,-0.009380985,-0.027856957,0.0,0.0,0.0,-0.007009514,0.10610249,0.49902034,-0.14752513,0.09276055,0.5401072,-0.2198452,0.057113975,-0.027258445,-0.14550804,-0.034529496,0.030078629,-0.1005312,0.023354648,-0.02871527,-0.030205693,-0.06217622,-0.031042425,0.0069271466,-0.058174167,0.035020486,0.048068784,-0.048297785,0.029751182,0.06373204,2.0,2.0,-2.0,2.0,2.0,-2.0,2.0,-0.36560324,-2.0,-2.0,0.11884933,-2.0,2.0,2.0,-2.0,2.0,2.0,-2.0,2.0,-0.22807226,-2.0,-2.0,-0.12716843,-2.0
2025-06-10 09:01:49.446,-0.0024348074,0.042421043,0.06540312,-0.03133307,0.0038481005,0.04146926,0.0,0.0,0.0,-0.0072760195,0.11715053,0.5113165,-0.1443346,0.10247392,0.52764803,-0.22267893,0.05844957,-0.03399045,-0.14497085,-0.02071372,0.04486149,-0.0923884,0.07055603,-0.025548935,0.014570985,-0.0070537543,-0.023740761,0.04748462,0.068378575,-0.07113427,-0.040065397,0.053918187,-0.046124727,0.03153144,2.0,2.0,-2.0,2.0,2.0,-2.0,2.0,-0.22807226,-2.0,-2.0,-0.12716843,-2.0,2.0,2.0,-2.0,2.0,2.0,-2.0,2.0,-0.5191315,-2.0,-2.0,0.4797576,-2.0
2025-06-10 09:01:49.466,-0.00894084,-0.06893615,-0.017794264,-0.0057000825,-0.060507514,-0.012991811,0.0,0.0,0.0,-0.0076404046,0.10635362,0.5130693,-0.14598069,0.10539341,0.5309466,-0.21935353,0.04931974,-0.0341835,-0.14212854,-0.02258637,0.04995636,-0.09333836,-0.06959809,0.05335553,0.014240084,-0.064251095,0.008510728,0.02030741,0.07140947,-0.035917852,0.07098151,0.06630157,0.063863836,0.020293687,2.0,2.0,-2.0,2.0,2.0,-2.0,2.0,-0.5191315,-2.0,-2.0,0.4797576,-2.0,2.0,2.0,-2.0,2.0,2.0,-2.0,2.0,-0.17092541,-2.0,-2.0,-0.04627309,-2.0
2025-06-10 09:01:49.487,0.010959428,0.0047643143,-0.031473774,-0.011371954,-0.014996023,-0.029602937,0.0,0.0,0.0,-0.007530124,0.10225608,0.49803728,-0.14699234,0.102505386,0.52460533,-0.22442417,0.043731097,-0.019180663,-0.13352294,-0.0353523,0.039360184,-0.10822228,0.022126295,-0.05267893,0.068884104,0.0478079,-0.027230497,0.038333915,-0.05464338,0.032471538,0.01395535,-0.008369646,-0.03240408,-0.052068014,2.0,2.0,-2.0,2.0,2.0,-2.0,2.0,-0.17092541,-2.0,-2.0,-0.04627309,-2.0,2.0,2.0,-2.0,2.0,2.0,-2.0,2.0,-0.2764385,-2.0,-2.0,-0.115983196,-2.0
2025-06-10 09:01:49.508,-0.006698879,0.0010877064,0.020627517,-0.008249208,-0.01652012,-0.004603182,0.0,0.0,0.0,-0.007451685,0.106236026,0.49781692,-0.1332065,0.1092315,0.53552073,-0.21264823,0.052179746,-0.023961628,-0.13829556,-0.03119215,0.041332282,-0.099836,-0.03912974,0.04315541,-0.05117203,0.0052387854,-0.0029896179,0.0184709,-0.0023840894,0.010680729,-0.055665985,0.0016468117,0.0436181,0.048554096,2.0,2.0,-2.0,2.0,2.0,-2.0,2.0,-0.2764385,-2.0,-2.0,-0.115983196,-2.0,2.0,2.0,-2.0,2.0,2.0,-2.0,2.0,-0.49924555,-2.0,-2.0,0.25090936,-2.0
2025-06-10 09:01:49.527,0.00026725355,-0.03460212,-0.0076670386,0.008726932,0.011437059,-0.03647866,0.0,0.0,0.0,-0.0076712575,0.11052773,0.5012561,-0.14053072,0.10593264,0.5331218,-0.22575489,0.04877856,-0.019051952,-0.13302347,-0.029832833,0.04845054,-0.0895381,0.05945026,-0.047490586,0.061135497,-0.025922064,-0.017761063,-0.040511232,0.0014407198,0.04620009,0.019377453,0.048455168,0.023949806,-0.052498154,2.0,2.0,-2.0,2.0,2.0,-2.0,2.0,-0.49924555,-2.0,-2.0,0.25090936,-2.0,2.0,2.0,-2.0,2.0,2.0,-2.0,2.0,-0.2052162,-2.0,-2.0,-0.028339395,-2.0
2025-06-10 09:01:49.547,-0.0039183963,0.026970424,0.046197608,0.03177565,0.0057723206,0.02048877,0.0,0.0,0.0,-0.0076085897,0.114446424,0.5112703,-0.1367733,0.09389931,0.53082263,-0.21739621,0.046057455,-0.03269522,-0.14782718,-0.026147299,0.048755843,-0.09683978,0.019458141,0.06639917,-0.007736459,0.026279919,0.017017419,-0.03941302,-0.014092776,-0.026672479,-0.07319871,0.056892373,-0.01434307,0.026997302,2.0,2.0,-2.0,2.0,2.0,-2.0,2.0,-0.2052162,-2.0,-2.0,-0.028339395,-2.0,2.0,2.0,-2.0,2.0,2.0,-2.0,2.0,-0.5526841,-2.0,-2.0,0.4287572,-2.0
2025-06-10 09:01:49.567,-0.038523246,-0.014826337,-0.01964033,-0.03803673,-0.029150965,0.029614955,0.0,0.0,0.0,-0.00757346,0.11483016,0.50924927,-0.14569168,0.09652689,0.5234845,-0.22637577,0.049336605,-0.02473275,-0.14896652,-0.03348216,0.044107415,-0.10225175,0.034034505,-0.06872253,0.047418937,-0.057266213,-0.0058280607,-0.011089212,-0.062172208,0.0109021235,-0.06985276,-0.04567673,-0.014248025,0.006295398,2.0,2.0,-2.0,2.0,2.0,-2.0,2.0,-0.5526841,-2.0,-2.0,0.4287572,-2.0,2.0,2.0,-2.0,2.0,2.0,-2.0,2.0,-0.15352318,-2.0,-2.0,-0.088921286,-2.0
2025-06-10 09:01:49.587,0.014503332,-0.024482263,-0.03452293,-0.003785487,-0.034065608,0.037021145,0.0,0.0,0.0,-0.0072157863,0.11126557,0.51385146,-0.1421535,0.09921829,0.54026294,-0.21287072,0.045155395,-0.03711612,-0.15068348,-0.022519523,0.03652941,-0.09358562,0.025243105,0.059417106,0.014152271,-0.04090584,-0.027032446,0.009068015,-0.058551505,-0.031390455,-0.00022168682,0.023145402,-0.018602205,0.061041087,2.0,2.0,-2.0,2.0,2.0,-2.0,2.0,-0.15352318,-2.0,-2.0,-0.088921286,-2.0,2.0,2.0,-2.0,2.0,2.0,-2.0,2.0,-0.2927871,-2.0,-2.0,-0.045629747,-2.0
2025-06-10 09:01:49.607,-0.044340882,0.038174506,-0.0017275226,-0.046244677,-0.07331898,-0.03614091,0.0,0.0,0.0,-0.007072514,0.10987647,0.510388,-0.13098341,0.10204152,0.5299641,-0.20789716,0.061679825,-0.031305775,-0.1404289,-0.03738755,0.05229591,-0.09536455,0.05144998,-0.052249268,0.062147442,-0.05440445,0.052965377,-0.04113997,0.026902974,-0.002280509,-0.07496042,-0.055756338,0.0017255645,-0.038765546,2.0,2.0,-2.0,2.0,2.0,-2.0,2.0,-0.2927871,-2.0,-2.0,-0.045629747,-2.0,2.0,2.0,-2.0,2.0,2.0,-2.0,2.0,-0.28523114,-2.0,-2.0,0.057000034,-2.0
2025-06-10 09:01:49.627,-0.03503786,-0.042213187,0.0302305,-0.049565293,-0.037867866,0.010430093,0.0,0.0,0.0,-0.0072604683,0.107630886,0.5097621,-0.14643852,0.106391706,0.53721786,-0.2144136,0.053516906,-0.022718582,-0.14860831,-0.03354497,0.03364713,-0.08882339,0.06882455,-0.0040005376,-0.0740487,0.024386432,-0.008921628,-0.044337966,-0.06271743,-0.063342005,0.022043535,0.063739605,-0.056043558,-0.0591763,2.0,2.0,-2.0,2.0,2.0,-2.0,2.0,-0.28523114,-2.0,-2.0,0.057000034,-2.0,2.0,2.0,-2.0,2.0,2.0,-2.0,2.0,-0.49268696,-2.0,-2.0,0.2808735,-2.0
2025-06-10 09:01:49.647,-0.020449148,0.010284832,-0.016180413,-0.049557403,-0.049483895,-0.041167874,0.0,0.0,0.0,-0.007503676,0.10971691,0.50843364,-0.14394483,0.10954326,0.5269916,-0.22641446,0.060645383,-0.020887963,-0.1482347,-0.029009873,0.045268998,-0.097681545,-0.07170764,0.0042356695,0.0028737003,-0.06251486,0.069613196,-0.0037109216,-0.014493906,-0.07430343,-0.04531104,0.04045179,-0.01006652,-0.0041689207,2.0,2.0,-2.0,2.0,2.0,-2.0,2.0,-0.49268696,-2.0,-2.0,0.2808735,-2.0,2.0,2.0,-2.0,2.0,2.0,-2.0,2.0,-0.2375454,-2.0,-2.0,0.0700978,-2.0
2025-06-10 09:01:49.667,0.0008437889,-0.041463666,-0.043651484,0.03186404,-0.04921779,-0.046496756,0.0,0.0,0.0,-0.0074141333,0.10237288,0.51708096,-0.13535747,0.102700256,0.5249975,-0.20710877,0.059856307,-0.028074605,-0.13676986,-0.024503544,0.04357558,-0.10536428,0.027511213,0.04889831,0.051966257,0.016686814,0.03769962,0.05945398,-0.023759454,-0.018854663,0.03406525,-0.046551466,-0.03594622,0.026516093,2.0,2.0,-2.0,2.0,2.0,-2.0,2.0,-0.2375454,-2.0,-2.0,0.0700978,-2.0,2.0,2.0,-2.0,2.0,2.0,-2.0,2.0,-0.20309123,-2.0,-2.0,-0.13556461,-2.0
2025-06-10 09:01:49.688,-0.010272383,-0.019260278,-0.02785945,0.017875465,0.01608629,-0.00072439224,0.0,0.0,0.0,-0.007302117,0.099647366,0.514205,-0.13778065,0.09229639,0.5338253,-0.2117885,0.058656085,-0.03198371,-0.1405814,-0.03418903,0.049724698,-0.10058425,-0.059527393,0.0010519243,-0.033520028,0.0054470524,-0.005379383,-0.036533345,0.060675617,0.04926178,0.057524968,0.02072865,0.0052564195,0.038468,2.0,2.0,-2.0,2.0,2.0,-2.0,2.0,-0.20309123,-2.0,-2.0,-0.13556461,-2.0,2.0,2.0,-2.0,2.0,2.0,-2.0,2.0,-0.37448636,-2.0,-2.0,0.02963691,-2.0
