openverse-orca/OrcaGym/log/simulation_log_20250721_095038.csv
timestamp,sim_time,physics_step,control_step,imu_angle_roll,imu_angle_pitch,imu_angle_yaw,imu_angular_velocity_roll,imu_angular_velocity_pitch,imu_angular_velocity_yaw,imu_acc_x,imu_acc_y,imu_acc_z,fl_joint1_pos,fl_joint1_vel,fl_joint1_torque,fl_joint2_pos,fl_joint2_vel,fl_joint2_torque,fl_joint3_pos,fl_joint3_vel,fl_joint3_torque,fr_joint1_pos,fr_joint1_vel,fr_joint1_torque,fr_joint2_pos,fr_joint2_vel,fr_joint2_torque,fr_joint3_pos,fr_joint3_vel,fr_joint3_torque,hl_joint1_pos,hl_joint1_vel,hl_joint1_torque,hl_joint2_pos,hl_joint2_vel,hl_joint2_torque,hl_joint3_pos,hl_joint3_vel,hl_joint3_torque,hr_joint1_pos,hr_joint1_vel,hr_joint1_torque,hr_joint2_pos,hr_joint2_vel,hr_joint2_torque,hr_joint3_pos,hr_joint3_vel,hr_joint3_torque,fl_force_x,fl_force_y,fl_force_z,fr_force_x,fr_force_y,fr_force_z,hl_force_x,hl_force_y,hl_force_z,hr_force_x,hr_force_y,hr_force_z,fl_hip_action,fl_thigh_action,fl_calf_action,fr_hip_action,fr_thigh_action,fr_calf_action,hl_hip_action,hl_thigh_action,hl_calf_action,hr_hip_action,hr_thigh_action,hr_calf_action
2025-07-21 09:50:38.833,0.0,0,0,-0.010238551,0.007643528,-0.026432784,-0.042982653,0.013870735,-0.03567798,1.1290834,0.404583,0.0,0.0,-0.0022315148,0.007733452,-0.0016944134,0.008808809,-0.007474246,-0.0046078726,0.008819893,-0.0052697994,0.003617224,0.0016868266,-0.0029089923,0.00927109,0.03338052,0.0024682563,-0.07048193,0.008603472,-0.05059553,-0.05337805,0.049043722,0.031386714,0.041681524,-0.058620643,-0.062302228,0.050140392,0.0,0.0,0.0,0.0,0.0,0.0,0.0,0.0,0.0,0.0,0.0,0.0,2.0,2.0,-2.0,-2.0,2.0,1.7135124,-2.0,2.0,-2.0,-2.0,2.0,2.0
2025-07-21 09:50:38.845,0.02,20,1,0.2475421,-0.36973304,0.05683944,0.012245628,-0.00798861,0.047192983,0.0,0.0,0.0,0.0,0.025077734,0.053870972,-0.053715054,-0.04559614,0.017915804,0.026696103,-0.05473176,0.06542372,-0.06097064,-0.04588507,0.047460716,0.05823449,0.121818915,0.24055575,-0.095725276,-0.10273249,0.06639262,0.12152837,-0.121996716,0.33812052,-0.14220574,-0.180798,0.21750563,0.16835426,2.0,2.0,-2.0,-2.0,2.0,1.7135124,-2.0,2.0,-2.0,-2.0,2.0,2.0,2.0,-2.0,1.5293612,-2.0,-2.0,-2.0,2.0,-2.0,2.0,-0.98731816,-2.0,2.0
2025-07-21 09:50:38.864,0.04,40,2,-0.19123305,0.23719724,0.054958817,-0.014236837,0.0061390833,0.02944632,0.0,0.0,0.0,-0.0006893713,0.08882511,0.06741424,-0.019323766,-0.09242393,0.02554644,-0.01400072,-0.033282015,0.081001,0.0055439463,-0.069459714,0.08171795,0.099062264,0.08301908,-0.15433626,0.15133765,-0.16792436,-0.14575852,-0.19626914,0.06374715,-0.052204017,0.15663433,0.051081713,-0.10621783,0.05973852,2.0,-2.0,1.5293612,-2.0,-2.0,-2.0,2.0,-2.0,2.0,-0.98731816,-2.0,2.0,2.0,-2.0,2.0,-2.0,-2.0,-1.0442779,2.0,2.0,2.0,-0.7791735,2.0,2.0
2025-07-21 09:50:38.885,0.06,60,3,-0.09330965,0.18000486,0.15349256,0.035938773,0.016364917,-0.00898411,0.0,0.0,0.0,-0.001886452,0.13120069,-0.030376982,0.037072442,-0.13472648,-0.06828685,-0.0334889,0.014778666,0.10712232,0.042209446,-0.077854335,0.10133214,0.1366191,0.10468869,-0.32374862,0.11923663,-0.027255205,-0.37090042,-0.068265036,0.1707846,0.03365997,0.19113894,-0.008996495,0.13481314,0.01632726,2.0,-2.0,2.0,-2.0,-2.0,-1.0442779,2.0,2.0,2.0,-0.7791735,2.0,2.0,2.0,-2.0,2.0,-2.0,-2.0,2.0,2.0,2.0,2.0,-0.37537873,-2.0,2.0
2025-07-21 09:50:38.905,0.08,80,4,-0.14470163,0.12781154,-0.03688687,0.011774753,0.034503333,0.04567807,0.0,0.0,0.0,-0.0037669677,0.16957319,-0.10095571,0.09643169,-0.17323963,-0.20880459,0.022706265,0.08300837,0.17334448,0.08793208,-0.078180216,0.108314745,0.15657675,0.025105288,-0.21526027,0.12583949,-0.12329618,-0.26657814,0.17723897,0.13090944,0.33746633,0.12727664,0.027860604,-0.07289631,0.08549187,2.0,-2.0,2.0,-2.0,-2.0,2.0,2.0,2.0,2.0,-0.37537873,-2.0,2.0,2.0,-2.0,-1.6751174,-2.0,-2.0,2.0,2.0,-2.0,2.0,-2.0,2.0,-0.3865018
2025-07-21 09:50:38.925,0.1,100,5,0.17808948,0.2869505,0.16887558,0.046844628,0.070773944,0.042414736,0.0,0.0,0.0,-0.0046508424,0.18946418,-0.19232304,0.0470604,-0.21458575,-0.30253795,0.07506956,0.13172498,0.2136898,0.136969,-0.113628134,0.13688612,0.11909481,0.087952934,-0.20797086,-0.14747448,-0.002249169,-0.2523284,0.13441981,0.17836693,-0.0041735643,0.10216308,-0.08308013,0.22029722,-0.027222859,2.0,-2.0,-1.6751174,-2.0,-2.0,2.0,2.0,-2.0,2.0,-2.0,2.0,-0.3865018,2.0,0.22246897,1.8233072,-2.0,2.0,2.0,2.0,2.0,2.0,-1.8301026,2.0,2.0
2025-07-21 09:50:38.946,0.12000000000000001,120,6,0.38413346,-0.4427221,0.06649621,0.022100488,0.005700545,-0.043227468,0.0,0.0,0.0,-0.006190346,0.22372101,-0.2267552,0.061941095,-0.22498354,-0.3561802,0.09559705,0.16895425,0.25193447,0.15025483,-0.14903504,0.23108974,0.15937288,0.027839486,0.0005742588,0.045326117,-0.06847446,0.07862554,0.0245247,0.0674289,0.29524764,0.018136255,-0.088493474,0.36197415,0.093765184,2.0,0.22246897,1.8233072,-2.0,2.0,2.0,2.0,2.0,2.0,-1.8301026,2.0,2.0,2.0,-2.0,-0.47421652,2.0,-2.0,-1.9175903,2.0,-2.0,1.1043661,-1.8440996,-2.0,-2.0
2025-07-21 09:50:38.965,0.14,140,7,-0.26829824,-0.19537319,-0.12704381,0.0036801298,0.03489216,-0.015762197,0.0,0.0,0.0,-0.007914917,0.25521153,-0.26598766,0.02970233,-0.195202,-0.3713044,0.0449341,0.19641976,0.29433516,0.16807783,-0.18253167,0.2848218,0.09820515,-0.0025020947,-0.20530395,0.011256698,0.17455827,-0.1077063,-0.21492206,0.14940631,-0.1457623,0.0072709615,-0.039818,-0.14168061,-0.22664689,2.0,-2.0,-0.47421652,2.0,-2.0,-1.9175903,2.0,-2.0,1.1043661,-1.8440996,-2.0,-2.0,2.0,-2.0,2.0,-2.0,2.0,-2.0,2.0,-0.33698073,2.0,-2.0,2.0,2.0
2025-07-21 09:50:38.985,0.16,160,8,0.26873118,-0.17634635,0.07942916,0.03480624,0.019004833,-0.027946398,0.0,0.0,0.0,-0.0072870897,0.26462966,-0.35657367,0.07519104,-0.20866175,-0.35124123,-0.026754092,0.21456885,0.22706698,0.18479232,-0.21162295,0.31289178,0.1117202,-0.005076008,-0.2509842,0.1680455,-0.1325925,0.13030624,-0.111810595,0.08854146,-0.19813427,0.06979067,-0.13138393,0.17914437,0.024093525,2.0,-2.0,2.0,-2.0,2.0,-2.0,2.0,-0.33698073,2.0,-2.0,2.0,2.0,2.0,-2.0,2.0,0.7346605,2.0,-2.0,2.0,2.0,-2.0,0.53308856,-2.0,2.0
2025-07-21 09:50:39.005,0.18,180,9,-0.0897307,-0.24383545,0.017898746,0.01324148,-0.08153189,0.03144893,0.0,0.0,0.0,-0.008008963,0.29053852,-0.43021595,0.12293781,-0.19070457,-0.2900782,-0.0730786,0.2481807,0.23512462,0.118088715,-0.17138538,0.3324909,0.15273061,0.10043961,-0.2136327,0.0489504,0.13319601,0.19331431,-0.1132609,0.054411393,0.14129287,-0.21758235,0.12185725,0.043568574,0.07644274,2.0,-2.0,2.0,0.7346605,2.0,-2.0,2.0,2.0,-2.0,0.53308856,-2.0,2.0,2.0,2.0,2.0,-2.0,-2.0,-2.0,2.0,2.0,-2.0,-1.5925175,-2.0,2.0
2025-07-21 09:50:39.025,0.19999999999999998,200,10,-0.0010358999,-0.04143116,-0.3084219,-0.0069738575,-0.058138046,0.033831388,0.0,0.0,0.0,-0.010020434,0.30626228,-0.43403187,0.13125685,-0.2050219,-0.28279018,-0.12610897,0.27382603,0.3193408,0.034245063,-0.17988336,0.3110826,0.17578292,-0.0071436665,-0.006344094,0.12216608,0.014274115,-0.15766795,-0.13799568,0.010311712,0.18543518,-0.13787703,-0.0019371703,-0.01339742,0.03213803,2.0,2.0,2.0,-2.0,-2.0,-2.0,2.0,2.0,-2.0,-1.5925175,-2.0,2.0,2.0,2.0,-2.0,-2.0,-2.0,2.0,2.0,-2.0,2.0,2.0,2.0,2.0
2025-07-21 09:50:39.045,0.21999999999999997,220,11,-0.23808575,0.13109417,0.040640827,-0.04392007,-0.022409037,0.04775947,0.0,0.0,0.0,-0.007182002,0.31676674,-0.401349,0.06273612,-0.23153397,-0.3769787,-0.0692328,0.2873786,0.351375,0.07352456,-0.18184954,0.3233634,0.18779583,-0.028880997,0.098624356,-0.24477516,-0.01612629,-0.20952986,0.18090571,0.029438745,0.011262081,0.09031743,0.099927515,0.08035227,0.012080597,2.0,2.0,-2.0,-2.0,-2.0,2.0,2.0,-2.0,2.0,2.0,2.0,2.0,2.0,2.0,-2.0,-2.0,-2.0,2.0,2.0,-2.0,2.0,2.0,2.0,2.0
2025-07-21 09:50:39.065,0.23999999999999996,240,12,-0.14510079,0.21517323,0.20970692,0.024651742,-0.029765852,0.032764655,0.0,0.0,0.0,-0.004660742,0.33413786,-0.3747207,-0.016931996,-0.26129392,-0.4645019,-0.0014010131,0.30655146,0.30821458,0.110755526,-0.11739141,0.4110502,0.19663626,0.015151417,0.020701546,-0.16673805,-0.12057249,-0.18856086,0.061324034,0.01751636,-0.10184838,0.13327564,0.21454024,0.22518596,0.08829874,2.0,2.0,-2.0,-2.0,-2.0,2.0,2.0,-2.0,2.0,2.0,2.0,2.0,2.0,2.0,-2.0,-2.0,-2.0,2.0,2.0,-2.0,2.0,-0.2582065,-2.0,2.0
2025-07-21 09:50:39.088,0.25999999999999995,260,13,-0.108886056,0.26315594,0.046356212,0.019742606,0.012131627,-0.026174305,0.0,0.0,0.0,-0.0070578908,0.34092557,-0.32987908,-0.0761522,-0.28804514,-0.52397907,0.03656146,0.3138003,0.24199113,0.15131587,-0.09723947,0.43880692,0.21662126,0.0052901222,0.12321045,-0.16552374,-0.115118824,-0.21579567,0.17141257,-0.022084251,-0.20488852,0.13609388,-0.036403973,0.031666566,0.09051862,2.0,2.0,-2.0,-2.0,-2.0,2.0,2.0,-2.0,2.0,-0.2582065,-2.0,2.0,2.0,2.0,-2.0,-2.0,-0.7305689,2.0,2.0,2.0,2.0,-0.46822226,-2.0,2.0
2025-07-21 09:50:39.105,0.27999999999999997,280,14,-0.026832145,-0.004152345,-0.05317558,0.02484064,-0.0218069,0.010131468,0.0,0.0,0.0,-0.008807152,0.35935065,-0.26158327,-0.11327749,-0.30118427,-0.55037457,0.08398684,0.32353893,0.25504807,0.17807026,-0.10075674,0.39666608,0.23856448,0.058358163,0.19360873,-0.10955743,0.013598331,-0.020382691,0.013001051,0.031038504,0.103279665,0.047371987,-0.03600957,-0.079178736,0.05819838,2.0,2.0,-2.0,-2.0,-0.7305689,2.0,2.0,2.0,2.0,-0.46822226,-2.0,2.0,2.0,-2.0,-2.0,-2.0,-2.0,2.0,2.0,-2.0,2.0,0.8196448,2.0,2.0
2025-07-21 09:50:39.125,0.3,300,15,-0.1354273,0.20317222,0.19348185,0.014946861,0.021419685,0.025914572,0.0,0.0,0.0,-0.008887051,0.3556966,-0.23403156,-0.13910188,-0.31364393,-0.5821531,0.11047949,0.3323495,0.24872187,0.204198,-0.06790503,0.41883555,0.25268498,0.064789325,-0.110126436,-0.021599771,-0.021390995,-0.16109517,0.051253323,0.07666719,-0.068074636,0.012533908,0.041712485,0.21336868,-0.0022544402,2.0,-2.0,-2.0,-2.0,-2.0,2.0,2.0,-2.0,2.0,0.8196448,2.0,2.0,2.0,2.0,-2.0,-2.0,2.0,2.0,2.0,2.0,2.0,-2.0,-2.0,2.0
2025-07-21 09:50:39.145,0.32,320,16,-0.054421477,-0.07984072,-0.011443568,0.0066326275,0.017814362,0.039378967,0.0,0.0,0.0,-0.010667296,0.34663042,-0.19529766,-0.18769312,-0.31930876,-0.6033644,0.15351322,0.34137455,0.26218343,0.20611027,-0.09511581,0.43078935,0.26280302,0.08062824,0.1800388,-0.004148014,-0.056530625,0.05353257,0.016951125,-0.010972824,0.124927744,0.05106906,-0.117393725,-0.063206285,0.061423443,2.0,2.0,-2.0,-2.0,2.0,2.0,2.0,2.0,2.0,-2.0,-2.0,2.0,2.0,-2.0,-2.0,-2.0,-2.0,2.0,2.0,-2.0,2.0,-2.0,-2.0,-2.0
2025-07-21 09:50:39.165,0.34,340,17,-0.066723496,0.14763658,0.08174103,0.010909754,0.044660334,0.0342412,0.0,0.0,0.0,-0.012003606,0.35936883,-0.15970092,-0.19821149,-0.32817748,-0.63402754,0.16310884,0.3442089,0.25051743,0.24226163,-0.13923182,0.35920757,0.19028391,-0.007289056,0.0053710593,-0.044799898,-0.008207793,-0.13300674,0.04632085,0.0027140097,-0.13241333,0.04449927,-0.12443524,-0.33863938,-0.18028893,2.0,-2.0,-2.0,-2.0,-2.0,2.0,2.0,-2.0,2.0,-2.0,-2.0,-2.0,2.0,-2.0,-1.4067649,-2.0,2.0,2.0,2.0,2.0,2.0,-2.0,2.0,-2.0
2025-07-21 09:50:39.188,0.36000000000000004,360,18,0.112729214,-0.2795616,0.040967327,-0.074398555,-0.008875286,0.0054970486,0.0,0.0,0.0,-0.012654081,0.3616947,-0.20618862,-0.20153557,-0.34194165,-0.6435504,0.198459,0.34240338,0.26783496,0.24636556,-0.18662389,0.34784922,0.09137882,0.037921295,-0.23152521,-0.048456125,-0.025161523,0.075130664,-0.017328814,0.1037683,0.08934075,-0.050213877,-0.11363104,0.08452965,-0.143945,2.0,-2.0,-1.4067649,-2.0,2.0,2.0,2.0,2.0,2.0,-2.0,2.0,-2.0,2.0,-2.0,-2.0,2.0,2.0,0.14029513,-2.0,-2.0,2.0,-2.0,2.0,-2.0
2025-07-21 09:50:39.206,0.38000000000000006,380,19,0.16558215,-0.13312978,0.08032832,0.00073493324,0.032122117,-0.009076886,0.0,0.0,0.0,-0.01420478,0.34636763,-0.3149983,-0.22654451,-0.33482474,-0.60193264,0.16040069,0.34966865,0.26398692,0.24973784,-0.21308869,0.42172325,0.017661521,-0.029230475,-0.22592892,-0.044947498,0.05754663,0.040960517,-0.11590965,0.03663756,-0.030733112,-0.010930793,-0.045866057,0.265689,-0.17030871,2.0,-2.0,-2.0,2.0,2.0,0.14029513,-2.0,-2.0,2.0,-2.0,2.0,-2.0,2.0,-2.0,2.0,2.0,2.0,-2.0,-2.0,-2.0,2.0,-2.0,-2.0,-2.0
2025-07-21 09:50:39.228,0.4000000000000001,400,20,0.16516398,0.113522716,-0.022269549,-0.055540543,-0.035706397,0.022950694,0.0,0.0,0.0,-0.016007254,0.3525997,-0.40832946,-0.14667441,-0.33923972,-0.5532702,0.07827625,0.33873683,0.26783812,0.27803975,-0.22364588,0.4148601,-0.04085873,0.0037033665,-0.25747576,0.2695205,0.0022097782,0.13377969,-0.25052935,0.0075239027,-0.038045347,-0.035380173,-0.09816356,-0.15809152,-0.16061923,2.0,-2.0,2.0,2.0,2.0,-2.0,-2.0,-2.0,2.0,-2.0,-2.0,-2.0,2.0,-2.0,2.0,2.0,2.0,-2.0,-2.0,-2.0,-1.235357,-2.0,2.0,2.0
2025-07-21 09:50:39.246,0.4200000000000001,420,21,-0.08984502,0.055677947,0.11072085,0.024779905,-0.04056051,0.01716745,0.0,0.0,0.0,-0.016078603,0.3466693,-0.4838453,-0.073842116,-0.30964214,-0.52266294,-0.0020422924,0.31320068,0.27610174,0.20793551,-0.2580501,0.39454964,-6.411672e-05,-0.053198043,-0.21404885,0.24799019,0.06134048,0.09544635,-0.24595594,-0.1106586,0.098830484,-0.22919454,-0.10808897,0.034732156,0.19093548,2.0,-2.0,2.0,2.0,2.0,-2.0,-2.0,-2.0,-1.235357,-2.0,2.0,2.0,2.0,-2.0,2.0,2.0,2.0,-2.0,-2.0,-1.7672604,-2.0,-2.0,-2.0,2.0
2025-07-21 09:50:39.270,0.4400000000000001,440,22,-0.030317316,0.1298603,0.063541666,0.042327214,0.014467618,-0.0458776,0.0,0.0,0.0,-0.016807757,0.35349742,-0.54310787,0.0015990108,-0.29099834,-0.47963652,-0.07181368,0.28838053,0.2819772,0.11739954,-0.27012092,0.3670241,0.05620413,0.047935817,-0.17633957,0.13182831,0.11925866,-0.0118345255,-0.0895797,-0.14179048,0.044460986,-0.12742323,-0.111405544,-0.22577363,0.092120014,2.0,-2.0,2.0,2.0,2.0,-2.0,-2.0,-1.7672604,-2.0,-2.0,-2.0,2.0,2.0,2.0,2.0,-2.0,2.0,-2.0,-2.0,2.0,-2.0,-2.0,2.0,2.0
2025-07-21 09:50:39.286,0.46000000000000013,460,23,0.32504934,-0.08396435,-0.108431816,0.0018384962,0.016377533,-0.028918384,0.0,0.0,0.0,-0.017825687,0.34135142,-0.5605538,0.03839686,-0.30060926,-0.4359698,-0.11250429,0.23536237,0.358451,0.04474948,-0.2909616,0.36648536,0.09848754,-0.046106968,0.113803826,0.12879238,-0.10674325,0.20246679,-0.111090034,-0.14670825,0.20221826,-0.23542659,-0.06749662,0.07845834,0.0229165,2.0,2.0,2.0,-2.0,2.0,-2.0,-2.0,2.0,-2.0,-2.0,2.0,2.0,2.0,2.0,2.0,-2.0,2.0,-2.0,2.0,2.0,-2.0,2.0,-2.0,2.0
2025-07-21 09:50:39.306,0.48000000000000015,480,24,-0.30517128,-0.24748124,-0.014242011,-0.0057936953,0.0047136787,-0.04952374,0.0,0.0,0.0,-0.017161699,0.3736639,-0.5388728,0.07036109,-0.30500945,-0.367966,-0.16220295,0.23208308,0.43654042,-0.020646892,-0.27228734,0.38331577,0.1367543,-0.026034134,0.07568746,0.13300203,-0.090695575,0.17188208,-0.15912358,-0.01240062,0.26440322,-0.2147566,0.04623551,0.038034648,0.1644899,2.0,2.0,2.0,-2.0,2.0,-2.0,2.0,2.0,-2.0,2.0,-2.0,2.0,2.0,2.0,2.0,-2.0,-2.0,-2.0,2.0,-2.0,-2.0,2.0,-2.0,2.0
2025-07-21 09:50:39.326,0.5000000000000001,500,25,-0.1634172,-0.0594748,-0.045873683,-0.036137912,-0.044858642,-0.036416057,0.0,0.0,0.0,-0.016037034,0.38806865,-0.5203853,0.10749634,-0.32016656,-0.33755895,-0.18405801,0.24499351,0.4370702,-0.06648314,-0.25390777,0.3814951,0.17401904,0.05586303,0.06459086,0.09862538,0.03523524,-0.11181553,-0.0007600103,0.041760944,-0.12495688,-0.13328469,0.014636359,-0.0007579613,0.031984404,2.0,2.0,2.0,-2.0,-2.0,-2.0,2.0,-2.0,-2.0,2.0,-2.0,2.0,2.0,2.0,-2.0,-2.0,-2.0,2.0,2.0,-2.0,-2.0,1.3384985,-2.0,2.0
2025-07-21 09:50:39.348,0.5200000000000001,520,26,-0.2252864,0.31190175,0.1439809,-0.010481888,0.042778827,-0.030169217,0.0,0.0,0.0,-0.015131125,0.38240716,-0.47365725,0.044543963,-0.31571144,-0.4215333,-0.11314213,0.27724892,0.3581901,-0.09828278,-0.20148157,0.34521925,0.202954,0.061687347,0.1023394,-0.2661805,0.028631285,-0.18425965,0.21760915,0.020777205,-0.21395347,-0.015058371,0.16790827,-0.06698326,0.04123743,2.0,2.0,-2.0,-2.0,-2.0,2.0,2.0,-2.0,-2.0,1.3384985,-2.0,2.0,2.0,2.0,-2.0,-2.0,-2.0,2.0,2.0,-2.0,2.0,-2.0,1.5733554,2.0
2025-07-21 09:50:39.366,0.5400000000000001,540,27,0.32573736,0.27796066,0.19721311,-0.02718319,0.029055996,-0.039559435,0.0,0.0,0.0,-0.01594953,0.37551692,-0.39892268,-0.021889646,-0.337636,-0.4932777,-0.0440502,0.29231495,0.28030038,-0.038348477,-0.22529078,0.3614138,0.2148078,-0.012916273,0.17429434,-0.17723638,-0.024513753,-0.22893465,0.1571457,0.06482122,-0.23269062,0.24309209,-0.0075917086,0.094551064,0.024352692,2.0,2.0,-2.0,-2.0,-2.0,2.0,2.0,-2.0,2.0,-2.0,1.5733554,2.0,2.0,2.0,-2.0,-2.0,-2.0,2.0,2.0,2.0,2.0,-2.0,-2.0,2.0
2025-07-21 09:50:39.386,0.5600000000000002,560,28,0.20802155,-0.02291817,-0.08374126,0.0017054427,0.012591707,-0.01939104,0.0,0.0,0.0,-0.01838403,0.38370398,-0.321688,-0.07357702,-0.3411643,-0.55975556,0.014624509,0.3005697,0.27546415,0.01310357,-0.23719975,0.36073992,0.23041363,0.0025699388,0.23956484,-0.17076685,0.006623082,-0.1876816,0.110829,0.007975896,0.04801182,0.1611052,-0.059213772,-0.06897975,0.093595944,2.0,2.0,-2.0,-2.0,-2.0,2.0,2.0,2.0,2.0,-2.0,-2.0,2.0,2.0,2.0,-2.0,-2.0,1.1770415,2.0,2.0,-2.0,2.0,1.150391,-2.0,2.0
2025-07-21 09:50:39.407,0.5800000000000002,580,29,-0.2610045,0.047562145,0.07196598,-0.016432427,0.056714233,-0.0030945295,0.0,0.0,0.0,-0.018918611,0.37318188,-0.19288366,-0.117910996,-0.33957595,-0.57283556,0.07006817,0.30025527,0.25085196,0.0632048,-0.20543051,0.2991488,0.2542526,0.08655877,0.2798067,-0.091713466,-0.060326166,0.012228103,0.10885969,0.029269233,-0.17613657,0.09949518,0.115634315,-0.10226346,0.046675503,2.0,2.0,-2.0,-2.0,1.1770415,2.0,2.0,-2.0,2.0,1.150391,-2.0,2.0,2.0,-0.7390412,-2.0,-2.0,-2.0,2.0,2.0,-0.4537119,2.0,-2.0,2.0,2.0
2025-07-21 09:50:39.427,0.6000000000000002,600,30,0.07718942,0.069880635,0.16387479,0.044014357,0.0061966754,0.037725303,0.0,0.0,0.0,-0.019520022,0.3818883,-0.14506803,-0.15724683,-0.3498124,-0.61153746,0.094431505,0.30837047,0.18447593,0.11625884,-0.19396843,0.30393398,0.26023746,0.04530887,0.014247877,-0.043777827,0.02502211,-0.090226196,0.15057272,-0.023172881,-0.10830428,0.081559695,0.015148501,0.15236291,0.08572957,2.0,-0.7390412,-2.0,-2.0,-2.0,2.0,2.0,-0.4537119,2.0,-2.0,2.0,2.0,2.0,-2.0,-2.0,-2.0,0.6110215,2.0,2.0,2.0,2.0,-2.0,-2.0,2.0
2025-07-21 09:50:39.447,0.6200000000000002,620,31,-0.091110036,-0.020492943,0.102758236,-0.03196412,0.0043286528,0.0218122,0.0,0.0,0.0,-0.021965375,0.37221205,-0.20376877,-0.18074217,-0.34422255,-0.6289921,0.13690268,0.33431083,0.1720807,0.13524906,-0.2209606,0.3237894,0.27151883,0.008041762,-0.23003583,-0.008857511,0.046681445,-0.015974557,0.12825502,0.017675593,0.12694867,0.113656506,-0.07373676,-0.050928675,-0.046659075,2.0,-2.0,-2.0,-2.0,0.6110215,2.0,2.0,2.0,2.0,-2.0,-2.0,2.0,2.0,-2.0,-2.0,-2.0,2.0,2.0,1.1764983,-1.817015,2.0,-2.0,-2.0,-2.0
2025-07-21 09:50:39.468,0.6400000000000002,640,32,-0.09421065,0.1327322,0.15595005,0.035524882,0.045800477,0.038471937,0.0,0.0,0.0,-0.02406457,0.3692765,-0.31319392,-0.19592133,-0.36679056,-0.6222489,0.1409284,0.3297549,0.16826771,0.17325002,-0.24745172,0.28190613,0.18752119,-0.06307663,-0.23637171,-0.030755822,-0.010384557,0.05244858,-0.022528492,-0.0043014647,-0.070674255,0.04815402,0.024755703,-0.12698875,-0.20781747,2.0,-2.0,-2.0,-2.0,2.0,2.0,1.1764983,-1.817015,2.0,-2.0,-2.0,-2.0,2.0,-2.0,-0.59653336,2.0,2.0,-2.0,-2.0,-2.0,2.0,-2.0,2.0,-2.0
2025-07-21 09:50:39.491,0.6600000000000003,660,33,0.027637744,0.12330499,0.13898776,0.005002748,0.013536991,0.01983694,0.0,0.0,0.0,-0.02619368,0.3724945,-0.4005719,-0.17903535,-0.35274023,-0.5884136,0.081136495,0.31663218,0.1336854,0.19560288,-0.27121744,0.29130906,0.10139953,0.05207925,-0.19100052,0.10173985,0.07875033,0.04877218,-0.22386946,0.012820796,-0.012199968,0.029197432,0.019473655,0.09628069,-0.16177405,2.0,-2.0,-0.59653336,2.0,2.0,-2.0,-2.0,-2.0,2.0,-2.0,2.0,-2.0,2.0,-2.0,2.0,2.0,2.0,-2.0,-2.0,-2.0,2.0,-2.0,-0.23482437,2.0
2025-07-21 09:50:39.507,0.6800000000000003,680,34,-0.031381886,0.22470427,0.046874367,0.004785084,-8.0928425e-05,0.010928094,0.0,0.0,0.0,-0.028355254,0.35929766,-0.4723949,-0.10990258,-0.3303088,-0.5521727,-0.010801063,0.3011035,0.11422249,0.23079029,-0.2759712,0.28645512,0.12125325,0.05483408,-0.18984465,0.162213,0.078692496,0.019891005,-0.10548798,0.0032818757,-0.008531985,0.06173329,-0.08072024,-0.13767385,0.10253497,2.0,-2.0,2.0,2.0,2.0,-2.0,-2.0,-2.0,2.0,-2.0,-0.23482437,2.0,2.0,-2.0,2.0,2.0,2.0,-2.0,-2.0,2.0,-2.0,-2.0,2.0,2.0
2025-07-21 09:50:39.529,0.7000000000000003,700,35,0.08577981,-0.20049876,-0.03426039,-0.035238627,0.012613692,0.022314548,0.0,0.0,0.0,-0.029846944,0.3679013,-0.54366404,-0.027152114,-0.30356374,-0.5055014,-0.059657574,0.25724453,0.17748928,0.14456187,-0.28556,0.27816635,0.1594808,0.021277156,-0.17208995,0.20595878,0.15009226,0.12919429,-0.15092611,-0.13353199,0.3043176,-0.23365459,-0.06541417,0.10312884,0.04057724,2.0,-2.0,2.0,2.0,2.0,-2.0,-2.0,2.0,-2.0,-2.0,2.0,2.0,2.0,-2.0,2.0,2.0,2.0,-2.0,-2.0,-2.0,-2.0,-2.0,-0.6016962,2.0
2025-07-21 09:50:39.547,0.7200000000000003,720,36,0.19599561,-0.040861182,-0.025879456,0.041783456,0.06232501,-0.028740449,0.0,0.0,0.0,-0.030223094,0.36759892,-0.5830146,0.0133529585,-0.2803369,-0.4641414,-0.11312984,0.21831979,0.23618235,0.0724907,-0.30584502,0.26775774,0.17970285,-0.02345181,-0.1739104,0.13177839,0.02657777,0.12039039,-0.10044988,-0.1960532,0.06856335,-0.17491803,0.03284029,-0.14034787,0.075197846,2.0,-2.0,2.0,2.0,2.0,-2.0,-2.0,-2.0,-2.0,-2.0,-0.6016962,2.0,2.0,-0.82612216,2.0,-1.1500965,2.0,-2.0,-2.0,2.0,-2.0,-2.0,2.0,2.0
2025-07-21 09:50:39.569,0.7400000000000003,740,37,0.23718727,-0.27381003,-0.06938682,0.023774065,-0.004222842,0.04075974,0.0,0.0,0.0,-0.030330528,0.35353625,-0.57993346,0.07079863,-0.26875532,-0.40789926,-0.15637162,0.16097467,0.33410254,-0.0069258837,-0.31098893,0.27532434,0.20009631,0.022776352,0.16604875,0.1418603,0.032914214,0.13929631,-0.14184006,-0.1667735,0.19443457,-0.12015026,-0.09558652,0.19674668,0.06517318,2.0,-0.82612216,2.0,-1.1500965,2.0,-2.0,-2.0,2.0,-2.0,-2.0,2.0,2.0,2.0,-2.0,2.0,-2.0,2.0,-2.0,2.0,2.0,-2.0,2.0,-2.0,2.0
2025-07-21 09:50:39.587,0.7600000000000003,760,38,-0.3511515,-0.18679549,0.15455465,0.061219625,0.018908458,0.02071992,0.0,0.0,0.0,-0.02949899,0.3729582,-0.57521224,0.10379375,-0.28387657,-0.31610683,-0.18769509,0.17446151,0.40999305,-0.044645954,-0.28145427,0.30696183,0.21877389,0.09382538,-0.11636972,0.0672104,-0.023324633,0.21921372,-0.018473035,0.15256684,0.20478609,-0.16273868,0.13254546,0.017409252,0.08198805,2.0,-2.0,2.0,-2.0,2.0,-2.0,2.0,2.0,-2.0,2.0,-2.0,2.0,2.0,2.0,2.0,-2.0,-2.0,-2.0,2.0,2.0,-2.0,0.5673026,-2.0,2.0
2025-07-21 09:50:39.608,0.7800000000000004,780,39,-0.31331244,-0.14565936,0.109970495,-0.020682674,0.026673906,0.04345297,0.0,0.0,0.0,-0.03128914,0.3832586,-0.59768325,0.14210732,-0.28544605,-0.3036321,-0.20527068,0.19472429,0.49954772,-0.09666824,-0.25020248,0.29612127,0.24056421,0.08368096,0.022032881,0.045502756,-0.006832668,-0.067225456,-0.0920549,0.057431996,0.21686792,-0.13279651,0.06278209,-0.079229206,0.061938,2.0,2.0,2.0,-2.0,-2.0,-2.0,2.0,2.0,-2.0,0.5673026,-2.0,2.0,2.0,2.0,2.0,-2.0,-2.0,2.0,2.0,-2.0,-2.0,1.7691334,-2.0,2.0
2025-07-21 09:50:39.627,0.8000000000000004,800,40,-0.26726988,0.03750088,0.07017484,-0.045611374,-0.013733764,0.017708259,0.0,0.0,0.0,-0.034137405,0.38433254,-0.60359985,0.15681767,-0.29793027,-0.3853071,-0.1343062,0.22857523,0.48501393,-0.14065638,-0.1989601,0.28012887,0.25984257,0.013918002,0.04063512,0.036773883,0.05600452,-0.24935958,0.17139314,0.044779647,-0.0761504,-0.14554918,0.17764066,-0.108617835,0.09571298,2.0,2.0,2.0,-2.0,-2.0,2.0,2.0,-2.0,-2.0,1.7691334,-2.0,2.0,2.0,2.0,-2.0,-2.0,-2.0,2.0,2.0,-2.0,2.0,-2.0,-2.0,2.0
2025-07-21 09:50:39.650,0.8200000000000004,820,41,0.021217024,0.2141652,-0.056941893,-0.08624747,-0.02510166,0.0007111751,0.0,0.0,0.0,-0.03635467,0.37991095,-0.56827545,0.07945041,-0.32069278,-0.4600728,-0.061734237,0.2507611,0.38475257,-0.06921195,-0.22058897,0.24799664,0.2848266,-0.041543927,0.13592085,-0.26999468,-0.060083557,-0.1778009,0.13216817,0.07417653,-0.35460937,0.18950322,-0.04337188,-0.049839795,-0.016749509,2.0,2.0,-2.0,-2.0,-2.0,2.0,2.0,-2.0,2.0,-2.0,-2.0,2.0,2.0,2.0,-2.0,-2.0,-2.0,2.0,2.0,2.0,2.0,-2.0,2.0,2.0
2025-07-21 09:50:39.667,0.8400000000000004,840,42,0.17132697,-0.109715946,-0.09845114,0.0047283927,0.030923406,-0.039407488,0.0,0.0,0.0,-0.036552735,0.39471808,-0.5034713,0.011604696,-0.3174647,-0.53749776,0.0136317,0.25494888,0.33470398,-0.0063711717,-0.24900255,0.2704314,0.2831997,0.03136224,0.18538235,-0.19734214,-0.007537407,-0.17532063,0.090012364,0.10545675,-0.034283668,0.15885887,0.0034437852,0.18490666,0.04598853,2.0,2.0,-2.0,-2.0,-2.0,2.0,2.0,2.0,2.0,-2.0,2.0,2.0,2.0,2.0,-2.0,-2.0,-2.0,2.0,2.0,-2.0,2.0,-2.0,-2.0,2.0
2025-07-21 09:50:39.687,0.8600000000000004,860,43,0.1860452,0.099790014,-0.096775316,-0.009464013,0.058149546,0.04695118,0.0,0.0,0.0,-0.03483998,0.3799343,-0.4192838,-0.050425895,-0.32032692,-0.576106,0.057525303,0.2792493,0.32420635,0.052490223,-0.25605705,0.30522493,0.28812957,0.010377549,0.24104774,-0.17075409,0.01024385,-0.12166533,0.036949378,0.08087304,-0.060770534,0.11146857,-0.07097765,-0.12627296,0.0409188,2.0,2.0,-2.0,-2.0,-2.0,2.0,2.0,-2.0,2.0,-2.0,-2.0,2.0,2.0,2.0,-2.0,-2.0,-2.0,2.0,2.0,-2.0,2.0,-2.0,2.0,2.0
2025-07-21 09:50:39.708,0.8800000000000004,880,44,0.13140188,0.04728595,0.023144279,0.0052386792,0.021990076,0.0007968118,0.0,0.0,0.0,-0.032891724,0.37739587,-0.31773555,-0.094884805,-0.33337304,-0.63690996,0.0873478,0.27797246,0.28243557,0.100650474,-0.279331,0.33100328,0.28011844,0.07182762,0.31303638,-0.1924516,-0.026738308,-0.039600942,0.12737107,-0.016940434,-0.10257893,0.14525528,0.021258056,0.13430081,0.022757994,2.0,2.0,-2.0,-2.0,-2.0,2.0,2.0,-2.0,2.0,-2.0,2.0,2.0,2.0,2.0,-2.0,-2.0,-2.0,2.0,2.0,-1.6979223,2.0,-2.0,-2.0,2.0
2025-07-21 09:50:39.728,0.9000000000000005,900,45,0.15058199,0.15071765,0.020967945,-0.011364409,0.03590866,0.04932736,0.0,0.0,0.0,-0.03267044,0.37593055,-0.20903693,-0.13601607,-0.3394517,-0.66065323,0.12226424,0.302434,0.2579759,0.13914809,-0.29304734,0.33837503,0.28604397,-0.044360142,0.3079607,-0.17099853,-0.057684433,-0.0342001,0.101558656,0.003160331,-0.17082344,0.05235656,-0.06325228,-0.17729944,0.083407804,2.0,2.0,-2.0,-2.0,-2.0,2.0,2.0,-1.6979223,2.0,-2.0,-2.0,2.0,2.0,-0.9694618,-2.0,-2.0,-2.0,2.0,2.0,2.0,2.0,-2.0,2.0,2.0
2025-07-21 09:50:39.748,0.9200000000000005,920,46,-0.0611101,-0.120786846,0.069310196,-0.017799087,0.06478793,-0.029299468,0.0,0.0,0.0,-0.033809032,0.37573212,-0.18266347,-0.17538702,-0.3454753,-0.6917341,0.15275675,0.3172535,0.28148264,0.16032943,-0.29215676,0.3564608,0.29605865,0.02672433,-0.048441697,-0.12596293,0.012810118,-0.08486197,0.14200722,0.06607885,0.16692255,0.01741104,0.040959146,0.08899792,0.01907592,2.0,-0.9694618,-2.0,-2.0,-2.0,2.0,2.0,2.0,2.0,-2.0,2.0,2.0,2.0,-0.51440704,-2.0,-2.0,2.0,2.0,2.0,-2.0,2.0,-2.0,-2.0,2.0
2025-07-21 09:50:39.768,0.9400000000000005,940,47,-0.14989579,-0.12854207,0.24947965,-0.01806274,-0.03982341,0.031240799,0.0,0.0,0.0,-0.035585016,0.36599565,-0.19551691,-0.20161636,-0.36239332,-0.688021,0.17169899,0.32629046,0.28145045,0.19159047,-0.3018585,0.3429631,0.309837,-0.042961005,0.05101872,-0.05294056,0.00060487597,0.08932097,-0.02342604,0.03302012,-0.1268181,-0.0051653287,-0.04826796,-0.059735026,0.059305467,2.0,-0.51440704,-2.0,-2.0,2.0,2.0,2.0,-2.0,2.0,-2.0,-2.0,2.0,2.0,-2.0,-2.0,-0.8393363,-2.0,2.0,-0.38310343,2.0,2.0,-2.0,2.0,-2.0
2025-07-21 09:50:39.793,0.9600000000000005,960,48,-0.04786955,-0.20529123,-0.1296323,-0.018325185,-0.049529508,0.036924817,0.0,0.0,0.0,-0.03881289,0.36876354,-0.25001255,-0.21420582,-0.3502158,-0.7206395,0.19873199,0.31016627,0.31267247,0.19746248,-0.3097082,0.3725864,0.21221524,-0.0625564,-0.275596,-0.10017693,0.12050922,-0.09519979,-0.022206474,-0.041319,0.22938561,0.0126549015,-0.017699275,0.17697084,-0.26817203,2.0,-2.0,-2.0,-0.8393363,-2.0,2.0,-0.38310343,2.0,2.0,-2.0,2.0,-2.0,2.0,-2.0,-2.0,-2.0,2.0,2.0,-2.0,-2.0,2.0,-2.0,0.38671,-2.0
2025-07-21 09:50:39.808,0.9800000000000005,980,49,0.159432,0.102325484,-0.03693131,-0.043405425,-0.054195177,-0.048285093,0.0,0.0,0.0,-0.039750516,0.36581635,-0.3406788,-0.23562129,-0.35094452,-0.72428334,0.2004171,0.2940363,0.3405395,0.21947058,-0.31709188,0.35852292,0.112065725,-0.03969131,-0.2668577,-0.068050034,-0.03743024,-0.038127974,0.060247533,-0.03367535,-0.06356721,0.05332634,-0.081424594,0.00042225697,-0.16217752,2.0,-2.0,-2.0,-2.0,2.0,2.0,-2.0,-2.0,2.0,-2.0,0.38671,-2.0,2.0,-2.0,-1.9161576,1.7453169,2.0,2.0,-2.0,-2.0,2.0,-2.0,2.0,-2.0
2025-07-21 09:50:39.828,1.0000000000000004,1000,50,0.030579407,-0.035411738,0.012612373,-0.0016980126,-0.009727872,0.009494412,0.0,0.0,0.0,-0.03863412,0.35507178,-0.44084635,-0.24870719,-0.3554178,-0.7328651,0.20680857,0.27228072,0.33034274,0.24195352,-0.33084816,0.38473818,0.04765717,0.02762663,-0.2211172,-0.08001691,-0.055391997,-0.04934387,-0.036936972,0.014729886,0.048088077,-0.020091655,-0.0032520886,0.1578875,-0.19273782,2.0,-2.0,-1.9161576,1.7453169,2.0,2.0,-2.0,-2.0,2.0,-2.0,2.0,-2.0,2.0,-2.0,2.0,2.0,2.0,-2.0,-2.0,-2.0,2.0,-2.0,2.0,-2.0
2025-07-21 09:50:39.848,1.0200000000000005,1020,51,0.21482664,0.10434245,-0.07094323,0.0017246314,0.004294134,0.04038602,0.0,0.0,0.0,-0.038214456,0.36534074,-0.5108782,-0.16049032,-0.35325477,-0.70025,0.11685173,0.23508827,0.32838342,0.2493846,-0.32951903,0.47624505,-0.017648026,0.03853829,-0.10004978,0.2321995,0.011099849,0.08465831,-0.22856992,-0.079866864,-0.00064862863,0.09608893,0.0056065153,0.2151407,-0.21462017,2.0,-2.0,2.0,2.0,2.0,-2.0,-2.0,-2.0,2.0,-2.0,2.0,-2.0,2.0,-2.0,2.0,2.0,2.0,-2.0,-2.0,-2.0,-2.0,-2.0,-2.0,2.0
2025-07-21 09:50:39.868,1.0400000000000005,1040,52,-0.050592978,0.23144346,-0.16697718,0.07893418,0.026678927,0.0041276393,0.0,0.0,0.0,-0.036678668,0.36136037,-0.5694703,-0.08285473,-0.3293621,-0.66588986,0.04837563,0.20493785,0.36020383,0.18866204,-0.32389763,0.44881392,0.037682608,0.027135225,-0.18452367,0.19395266,-0.0044660666,0.061847955,-0.13332248,-0.06024102,0.052037165,-0.15750577,-0.05587117,-0.098386265,0.1848889,2.0,-2.0,2.0,2.0,2.0,-2.0,-2.0,-2.0,-2.0,-2.0,-2.0,2.0,2.0,-2.0,2.0,-2.0,2.0,-2.0,-2.0,-2.0,-2.0,-2.0,-1.3397763,2.0
2025-07-21 09:50:39.891,1.0600000000000005,1060,53,0.05720414,0.37955847,-0.21046975,0.083656125,0.0028049932,-0.012517257,0.0,0.0,0.0,-0.03398584,0.3470568,-0.62144786,-0.013089467,-0.35451183,-0.6621253,-0.022159392,0.13254635,0.3734694,0.09988191,-0.33884758,0.35739252,0.08378541,0.040073965,-0.12679102,0.14684151,-0.047514725,0.010357756,-0.21332194,-0.18253265,0.014346391,-0.24440937,0.0653901,-0.32125118,0.056563485,2.0,-2.0,2.0,-2.0,2.0,-2.0,-2.0,-2.0,-2.0,-2.0,-1.3397763,2.0,2.0,2.0,2.0,-2.0,2.0,-2.0,-0.63431245,-2.0,-2.0,-2.0,2.0,2.0
2025-07-21 09:50:39.908,1.0800000000000005,1080,54,0.14704016,0.030058688,-0.021123575,0.10089742,-0.0011439644,-0.041957296,0.0,0.0,0.0,-0.030913843,0.360323,-0.62578183,0.042391423,-0.365745,-0.6166579,-0.088274404,0.09576168,0.37514144,0.031373724,-0.3302198,0.29299456,0.11944837,-0.03846715,0.013216998,0.06811078,-0.03256411,0.16645469,-0.11042622,-0.1125351,0.08893253,-0.0784854,0.043837458,-0.032675795,0.042837273,2.0,2.0,2.0,-2.0,2.0,-2.0,-0.63431245,-2.0,-2.0,-2.0,2.0,2.0,2.0,2.0,2.0,-2.0,2.0,-2.0,2.0,2.0,-2.0,1.9012197,2.0,2.0
2025-07-21 09:50:39.928,1.1000000000000005,1100,55,-0.29030946,-0.52201587,0.03424116,0.006517284,0.005552351,0.027563494,0.0,0.0,0.0,-0.028737674,0.37143162,-0.6122657,0.078184076,-0.3572753,-0.541401,-0.13465238,0.13622291,0.43967676,-0.028632484,-0.31113505,0.37435788,0.140352,-0.0026442283,0.008721175,0.06861298,0.020262407,0.27468526,-0.07763417,0.16289268,0.1621974,-0.14886859,0.10001552,0.16529466,0.040531978,2.0,2.0,2.0,-2.0,2.0,-2.0,2.0,2.0,-2.0,1.9012197,2.0,2.0,2.0,2.0,2.0,-2.0,-2.0,-2.0,2.0,1.0890385,-2.0,2.0,-2.0,2.0
2025-07-21 09:50:39.948,1.1200000000000006,1120,56,-0.21486403,-0.09155589,0.0332147,-0.0061386586,0.009458381,0.029913856,0.0,0.0,0.0,-0.028907733,0.38287386,-0.6011712,0.10723511,-0.34989935,-0.53301615,-0.16699515,0.17464913,0.48782045,-0.06329945,-0.26338756,0.40123916,0.17398849,0.010349115,0.081680484,0.046415538,0.011930635,-0.12771037,-0.043640584,0.14993323,0.013916753,-0.07389243,0.04753403,0.011484917,0.044949517,2.0,2.0,2.0,-2.0,-2.0,-2.0,2.0,1.0890385,-2.0,2.0,-2.0,2.0,2.0,2.0,2.0,-2.0,-2.0,2.0,2.0,-2.0,-2.0,2.0,-2.0,2.0
2025-07-21 09:50:39.968,1.1400000000000006,1140,57,-0.11322695,0.082439154,0.063761376,-0.019541077,0.02071958,-0.015114496,0.0,0.0,0.0,-0.029376967,0.37528434,-0.58569044,0.12685873,-0.34772667,-0.5720508,-0.095485084,0.19571939,0.43411982,-0.10342238,-0.23417747,0.38775188,0.19502068,-0.044050436,-0.03132855,0.12424897,-0.021982307,-0.17721877,0.22719803,0.0127800265,-0.23410536,-0.007992081,0.06383872,0.023053,-0.0022480884,2.0,2.0,2.0,-2.0,-2.0,2.0,2.0,-2.0,-2.0,2.0,-2.0,2.0,2.0,2.0,-2.0,-2.0,-2.0,2.0,2.0,-2.0,2.0,-2.0,-2.0,2.0
2025-07-21 09:50:39.990,1.1600000000000006,1160,58,0.23040976,0.38558593,0.027107373,-0.0076860855,0.007316245,0.022123635,0.0,0.0,0.0,-0.030297985,0.38601547,-0.55273706,0.06189104,-0.3525463,-0.626674,-0.030367645,0.23040439,0.34190524,-0.06857918,-0.24588194,0.35172805,0.23283051,-0.014940249,0.08562193,-0.19122514,-0.046272084,-0.1049443,0.11814053,0.08115735,-0.24736467,0.13561134,-0.03396805,-0.12615173,-0.0024543176,2.0,2.0,-2.0,-2.0,-2.0,2.0,2.0,-2.0,2.0,-2.0,-2.0,2.0,2.0,2.0,-2.0,-2.0,-2.0,2.0,2.0,2.0,2.0,-2.0,2.0,2.0
2025-07-21 09:50:40.009,1.1800000000000006,1180,59,0.19860144,-0.0786,-0.05206273,0.061816953,0.031011935,0.0011023314,0.0,0.0,0.0,-0.031090086,0.37604576,-0.4680256,-0.017428461,-0.36269537,-0.66535425,0.038711295,0.25544292,0.30670017,-0.0031536613,-0.25077394,0.37868387,0.24731296,0.06647527,0.23174311,-0.12094083,-0.06125953,-0.14042273,0.15936598,0.07722595,0.14000373,0.1555704,-0.04321666,0.19684505,-0.038972236,2.0,2.0,-2.0,-2.0,-2.0,2.0,2.0,2.0,2.0,-2.0,2.0,2.0,2.0,2.0,-2.0,-2.0,2.0,2.0,2.0,-2.0,2.0,-1.6231033,-2.0,2.0
2025-07-21 09:50:40.030,1.2000000000000006,1200,60,0.11439894,-0.26838088,0.01167932,0.04293849,-0.013579416,0.021866797,0.0,0.0,0.0,-0.029757265,0.3864606,-0.35906425,-0.06919962,-0.35342762,-0.67662525,0.07645424,0.26534054,0.27927473,0.057931527,-0.2560453,0.39043942,0.25290626,-0.033209167,0.36686856,-0.12756063,0.05441578,0.088121116,0.13838536,0.08342002,-0.20960386,0.1027936,0.02059612,-0.02760154,0.08625671,2.0,2.0,-2.0,-2.0,2.0,2.0,2.0,-2.0,2.0,-1.6231033,-2.0,2.0,2.0,2.0,-2.0,-2.0,-2.0,2.0,2.0,1.3999518,2.0,-2.0,-0.687267,2.0
2025-07-21 09:50:40.049,1.2200000000000006,1220,61,-0.18443686,-0.16267182,-0.23938984,0.037604,0.0058797356,-0.03216459,0.0,0.0,0.0,-0.028862922,0.3663878,-0.20680895,-0.103414446,-0.35145676,-0.6911884,0.10470822,0.2852756,0.26519352,0.10432329,-0.2873563,0.3558902,0.26377946,-0.052133016,0.45852515,-0.046563245,-0.027816065,-0.05153335,0.1401093,0.070672765,0.17117015,0.05528805,0.018408753,-0.028720804,-0.02133349,2.0,2.0,-2.0,-2.0,-2.0,2.0,2.0,1.3999518,2.0,-2.0,-0.687267,2.0,2.0,-2.0,-2.0,-2.0,2.0,2.0,2.0,-2.0,2.0,1.0482491,-2.0,2.0
2025-07-21 09:50:40.070,1.2400000000000007,1240,62,-0.2776122,0.23804411,0.18487497,-0.018564647,0.027818015,-0.034804218,0.0,0.0,0.0,-0.025756018,0.37189224,-0.11829824,-0.13981068,-0.36321372,-0.7125801,0.14041908,0.30808622,0.26652667,0.13030995,-0.24779207,0.30986992,0.28019464,0.034169488,0.014855576,-0.034764174,-0.06498319,0.022052204,0.08380082,0.06654989,-0.107307196,0.048231166,0.11155522,-0.057573814,0.029720549,2.0,-2.0,-2.0,-2.0,2.0,2.0,2.0,-2.0,2.0,1.0482491,-2.0,2.0,2.0,-2.0,-2.0,-2.0,-1.157661,2.0,2.0,2.0,2.0,-2.0,2.0,-2.0
2025-07-21 09:50:40.089,1.2600000000000007,1260,63,0.11927339,-0.18247074,0.18484312,0.028647006,0.007885973,0.00693088,0.0,0.0,0.0,-0.024936117,0.38385844,-0.119405486,-0.1815005,-0.3629789,-0.6873358,0.15052119,0.32101676,0.27073008,0.16881199,-0.2695297,0.3616843,0.188191,-0.014430215,-0.08021505,-0.10810956,-0.02854437,0.031866204,0.026418826,0.013239541,0.119277306,0.06868694,-0.11701488,0.19569731,-0.29052156,2.0,-2.0,-2.0,-2.0,-1.157661,2.0,2.0,2.0,2.0,-2.0,2.0,-2.0,2.0,-2.0,-2.0,0.9694295,2.0,2.0,-2.0,1.2322689,2.0,-2.0,0.38505918,-2.0
2025-07-21 09:50:40.109,1.2800000000000007,1280,64,-0.08393087,-0.21568729,0.068415456,-0.009620028,0.014055542,-0.026289228,0.0,0.0,0.0,-0.028622905,0.37318653,-0.19006716,-0.19095138,-0.36767995,-0.6730829,0.17126477,0.2977205,0.324366,0.19014613,-0.27008122,0.37606832,0.11029004,-0.013935639,-0.32690588,-0.110624894,-0.014976018,0.104986005,0.036337122,-0.0001195866,0.0939645,0.112536326,-0.00966265,-0.16813004,-0.16129616,2.0,-2.0,-2.0,0.9694295,2.0,2.0,-2.0,1.2322689,2.0,-2.0,0.38505918,-2.0,2.0,-2.0,0.47152275,2.0,2.0,-2.0,-2.0,-2.0,2.0,-2.0,2.0,-2.0
2025-07-21 09:50:40.129,1.3000000000000007,1300,65,0.17317888,-0.040061872,0.01190791,-0.029931981,0.024148567,-0.031614505,0.0,0.0,0.0,-0.031210188,0.37135243,-0.29190415,-0.15352851,-0.3314807,-0.6055661,0.10172751,0.29244518,0.33108935,0.21201032,-0.2813284,0.38904703,0.027598377,0.054385178,-0.24661463,0.075560465,0.09127313,0.1548032,-0.27164498,-0.04140773,0.004620524,0.10543204,-0.07511614,0.19845659,-0.18462181,2.0,-2.0,0.47152275,2.0,2.0,-2.0,-2.0,-2.0,2.0,-2.0,2.0,-2.0,2.0,-2.0,2.0,2.0,2.0,-2.0,-2.0,-2.0,2.0,-2.0,-2.0,2.0
2025-07-21 09:50:40.149,1.3200000000000007,1320,66,0.028960133,0.04249059,-0.11100194,0.011103722,-0.034937486,-0.04446126,0.0,0.0,0.0,-0.03151477,0.35797617,-0.3919862,-0.07251498,-0.29640546,-0.55981016,0.021593256,0.24514756,0.32822683,0.23805916,-0.29005265,0.3694528,0.06855334,0.014176533,-0.19786178,0.18843722,0.04031596,0.12091254,-0.1348843,-0.16953567,0.036711548,0.05463273,-0.07877079,-0.14247389,0.15246244,2.0,-2.0,2.0,2.0,2.0,-2.0,-2.0,-2.0,2.0,-2.0,-2.0,2.0,2.0,-2.0,2.0,2.0,2.0,-2.0,-2.0,-2.0,-2.0,-2.0,2.0,2.0
2025-07-21 09:50:40.169,1.3400000000000007,1340,67,-0.0028022646,0.06618467,-0.027508458,0.046567507,-0.02547527,0.042833652,0.0,0.0,0.0,-0.03067299,0.35570997,-0.47567618,0.0009988202,-0.26283112,-0.5140113,-0.03769451,0.21882805,0.3648118,0.15951216,-0.302779,0.36511794,0.10397379,0.030108565,-0.24720004,0.19968008,0.11754436,0.10357611,-0.119555816,-0.1387165,0.0010486945,-0.2785544,-0.022251436,0.01295763,0.08349654,2.0,-2.0,2.0,2.0,2.0,-2.0,-2.0,-2.0,-2.0,-2.0,2.0,2.0,2.0,-2.0,2.0,-0.6478907,2.0,-2.0,-2.0,-0.69588894,-2.0,-2.0,-1.1170151,2.0
2025-07-21 09:50:40.189,1.3600000000000008,1360,68,0.020543773,0.23917781,-0.13006298,-0.00548631,-0.046725035,0.009112377,0.0,0.0,0.0,-0.02990439,0.3571848,-0.5313384,0.045642924,-0.23440073,-0.48961237,-0.101285025,0.14838481,0.37353003,0.08561948,-0.32162938,0.33139127,0.14491573,0.027834794,-0.116541736,0.119366206,0.053572588,0.074562356,-0.07090716,-0.10530611,-0.0015950256,-0.15420817,0.046056036,-0.21211916,0.07749638,2.0,-2.0,2.0,-0.6478907,2.0,-2.0,-2.0,-0.69588894,-2.0,-2.0,-1.1170151,2.0,2.0,0.32076085,2.0,-2.0,2.0,-2.0,-2.0,2.0,-2.0,-2.0,2.0,2.0
2025-07-21 09:50:40.209,1.3800000000000008,1380,69,0.2214124,-0.023203174,-0.053536274,0.054311067,0.022419041,0.026212128,0.0,0.0,0.0,-0.029020278,0.35420233,-0.53526586,0.09554852,-0.26655567,-0.4350309,-0.1425663,0.08155126,0.42750946,0.023776263,-0.31810224,0.33019122,0.1639409,-0.035805885,0.13541324,0.014380262,-0.008050524,0.22030476,-0.17034206,-0.17261541,0.16664906,-0.22782612,-0.032099232,0.12844156,0.07834946,2.0,0.32076085,2.0,-2.0,2.0,-2.0,-2.0,2.0,-2.0,-2.0,2.0,2.0,2.0,-0.13019645,2.0,-2.0,2.0,-2.0,2.0,2.0,-2.0,2.0,-2.0,2.0
2025-07-21 09:50:40.229,1.4000000000000008,1400,70,-0.30937114,-0.32616,0.04966851,0.008393423,-0.04022126,-0.030284919,0.0,0.0,0.0,-0.027691402,0.35627562,-0.49397722,0.10873422,-0.27480492,-0.3504898,-0.18846802,0.11127366,0.504773,-0.028028838,-0.2951825,0.36225376,0.19650777,-0.029771365,0.031998526,0.048907228,0.0075317086,0.18623273,-0.079625,0.10490517,0.1795912,-0.17993213,0.0035281063,0.08069942,0.041525934,2.0,-0.13019645,2.0,-2.0,2.0,-2.0,2.0,2.0,-2.0,2.0,-2.0,2.0,2.0,2.0,2.0,-2.0,-2.0,-2.0,2.0,-2.0,-2.0,2.0,-2.0,2.0
2025-07-21 09:50:40.249,1.4200000000000008,1420,71,-0.20164505,-0.14064892,-0.07263943,-0.037150845,-0.0022400965,-0.022118932,0.0,0.0,0.0,-0.027228098,0.37809587,-0.46801287,0.14202623,-0.27757803,-0.3216546,-0.21234128,0.15016198,0.5036711,-0.09093955,-0.27019686,0.35994938,0.23067802,0.035498995,0.106149375,0.12036079,-0.034942914,-0.06493604,-0.07246971,0.07815024,-0.2267104,-0.06841536,0.10627386,0.03247356,-0.018560432,2.0,2.0,2.0,-2.0,-2.0,-2.0,2.0,-2.0,-2.0,2.0,-2.0,2.0,2.0,2.0,-2.0,-2.0,-2.0,2.0,2.0,-2.0,-2.0,0.4379028,-2.0,2.0
2025-07-21 09:50:40.269,1.4400000000000008,1440,72,-0.15548863,0.25040957,0.0728988,0.01808629,-0.0015574783,-0.016581604,0.0,0.0,0.0,-0.026594352,0.39311966,-0.41049057,0.05953894,-0.29443502,-0.41726342,-0.12179815,0.1863613,0.41487867,-0.1153727,-0.21753207,0.3376116,0.25067428,0.019835439,0.188103,-0.22266456,-0.07362163,-0.26417875,0.20789583,0.1299259,-0.21263322,-0.017099543,0.12363982,-0.1606546,0.018118123,2.0,2.0,-2.0,-2.0,-2.0,2.0,2.0,-2.0,-2.0,0.4379028,-2.0,2.0,2.0,2.0,-2.0,-2.0,-2.0,2.0,2.0,-2.0,2.0,-2.0,2.0,2.0
2025-07-21 09:50:40.290,1.4600000000000009,1460,73,0.34295127,0.31615523,0.14924856,-0.004561066,0.033760436,-0.018071095,0.0,0.0,0.0,-0.027061928,0.38224754,-0.34193784,0.0046725674,-0.3217035,-0.4791239,-0.06253104,0.20983593,0.31588095,-0.07815573,-0.24231152,0.3704155,0.2565759,-0.02385036,0.13593931,-0.121418126,-0.09196845,-0.10579316,0.1817722,0.09074943,-0.2595445,0.124131076,-0.08693084,0.08507853,0.09692667,2.0,2.0,-2.0,-2.0,-2.0,2.0,2.0,-2.0,2.0,-2.0,2.0,2.0,2.0,2.0,-2.0,-2.0,-2.0,2.0,2.0,2.0,2.0,-2.0,-2.0,2.0
2025-07-21 09:50:40.314,1.4800000000000009,1480,74,0.05003886,0.0069907205,-0.070962586,0.016080314,0.055789333,0.04353039,0.0,0.0,0.0,-0.029746056,0.39306775,-0.251694,-0.07020301,-0.32471028,-0.5547878,0.008768455,0.2186699,0.2881492,-0.0019133319,-0.2637982,0.37156716,0.27667865,0.019906042,0.23271094,-0.10752386,-0.083535664,-0.20379634,0.07716492,0.120302506,0.10527155,0.18629897,-0.08952403,-0.13734393,-0.0048320536,2.0,2.0,-2.0,-2.0,-2.0,2.0,2.0,2.0,2.0,-2.0,-2.0,2.0,2.0,-2.0,-2.0,-2.0,1.6520867,2.0,2.0,-2.0,2.0,-0.26652324,-2.0,2.0
2025-07-21 09:50:40.330,1.5000000000000009,1500,75,-0.28253508,0.057046406,0.1592197,0.04310475,0.035368904,-0.048340432,0.0,0.0,0.0,-0.030231042,0.38077053,-0.21035774,-0.093671225,-0.33257547,-0.5636318,0.04292104,0.24295479,0.26856726,0.052398574,-0.23051515,0.29755655,0.2690284,-0.0781039,-0.0025212956,-0.14721574,-0.0070474558,-0.044457678,0.059282135,0.06900163,-0.23765677,0.17667148,0.012854537,-0.24005924,-0.006963433,2.0,-2.0,-2.0,-2.0,1.6520867,2.0,2.0,-2.0,2.0,-0.26652324,-2.0,2.0,2.0,-2.0,-2.0,-2.0,-2.0,2.0,2.0,2.0,2.0,-2.0,2.0,-2.0
2025-07-21 09:50:40.350,1.520000000000001,1520,76,-0.260502,-0.1430386,0.08928042,-0.042223327,0.06594283,-0.022279093,0.0,0.0,0.0,-0.031777393,0.37561756,-0.26538688,-0.1347476,-0.34351653,-0.6063965,0.09085104,0.26642957,0.26540855,0.08650558,-0.23399237,0.31825033,0.19846644,0.049481947,-0.20469718,-0.06906466,-0.009092207,-0.103066295,0.05260912,0.087011896,0.0427178,0.032879315,-0.09833625,0.10361758,-0.30607912,2.0,-2.0,-2.0,-2.0,-2.0,2.0,2.0,2.0,2.0,-2.0,2.0,-2.0,2.0,-2.0,0.5192221,-2.0,2.0,2.0,-1.5386368,2.0,2.0,-2.0,2.0,-2.0
2025-07-21 09:50:40.370,1.540000000000001,1540,77,0.17603613,-0.27540222,-0.044162236,-0.023787932,-0.008459657,0.029099317,0.0,0.0,0.0,-0.033824794,0.3716001,-0.3687544,-0.102147035,-0.33921337,-0.6169008,0.12718582,0.2651129,0.335031,0.12454841,-0.2599688,0.3983442,0.10538004,-0.064157635,-0.19857912,0.107491046,0.022052122,0.053387314,0.09813402,-0.051528893,0.15843682,0.045180842,-0.09585326,0.19250587,-0.2553703,2.0,-2.0,0.5192221,-2.0,2.0,2.0,-1.5386368,2.0,2.0,-2.0,2.0,-2.0,2.0,-2.0,1.2280062,2.0,2.0,1.9552618,-2.0,-2.0,2.0,-2.0,2.0,-2.0
2025-07-21 09:50:40.390,1.560000000000001,1560,78,0.15237288,-0.15681823,-0.0018529312,-0.02570895,-0.0016135685,-0.008431773,0.0,0.0,0.0,-0.03379351,0.3504135,-0.4568508,-0.05378654,-0.33916545,-0.58424777,0.14647894,0.24062453,0.37372246,0.14569354,-0.28035754,0.48563656,0.034695525,-0.023208981,-0.23111917,0.079791896,0.033967048,0.059184715,0.114456475,0.013452406,0.09903168,0.047354437,0.026540022,0.24063277,-0.10242188,2.0,-2.0,1.2280062,2.0,2.0,1.9552618,-2.0,-2.0,2.0,-2.0,2.0,-2.0,2.0,-2.0,2.0,2.0,2.0,-2.0,-2.0,-2.0,2.0,-2.0,-2.0,-2.0
2025-07-21 09:50:40.410,1.580000000000001,1580,79,0.09052627,0.08073889,-0.15702432,-0.03314893,-0.014972926,0.024214681,0.0,0.0,0.0,-0.03319811,0.36729944,-0.5188311,0.0008604991,-0.3164222,-0.53216636,0.07258591,0.20873989,0.38570547,0.19233902,-0.27992943,0.4657327,-0.019513408,-0.064738825,-0.21746382,0.08428902,-0.0018235055,0.07100381,-0.19554822,-0.17347592,-0.0033639497,0.057795588,0.047055513,-0.18314953,-0.19459522,2.0,-2.0,2.0,2.0,2.0,-2.0,-2.0,-2.0,2.0,-2.0,-2.0,-2.0,2.0,-2.0,2.0,2.0,2.0,-2.0,-2.0,-2.0,-2.0,-2.0,2.0,2.0
2025-07-21 09:50:40.430,1.600000000000001,1600,80,0.00016997776,0.007378688,-0.11339002,-0.030312132,-0.016896702,0.012257129,0.0,0.0,0.0,-0.030653985,0.34803987,-0.5786101,0.05588384,-0.2936887,-0.49716404,-0.009729987,0.15775016,0.41360864,0.12095092,-0.3010828,0.4519268,0.0108130025,0.049184453,-0.18211935,0.097733185,-0.015535499,0.10584905,-0.18762498,-0.15260482,0.11428683,-0.15223409,0.033427525,0.03258525,0.11265389,2.0,-2.0,2.0,2.0,2.0,-2.0,-2.0,-2.0,-2.0,-2.0,2.0,2.0,2.0,-2.0,2.0,1.600453,2.0,-2.0,-2.0,-2.0,-2.0,-2.0,-2.0,2.0
2025-07-21 09:50:40.453,1.620000000000001,1620,81,-0.15524782,0.18924151,-0.2156082,0.0058773295,-0.028465964,0.026951836,0.0,0.0,0.0,-0.028190278,0.35844058,-0.6336554,0.10393295,-0.27153772,-0.46694782,-0.06218409,0.09977304,0.4482299,0.048491284,-0.29847106,0.44075084,0.07069465,-0.022348601,-0.04605792,0.028389178,0.08208947,0.020827716,-0.120642476,-0.09590701,0.09596567,-0.20917864,-0.024502214,-0.15684097,0.17789978,2.0,-2.0,2.0,1.600453,2.0,-2.0,-2.0,-2.0,-2.0,-2.0,-2.0,2.0,2.0,-2.0,2.0,-2.0,2.0,-2.0,-2.0,-2.0,-2.0,-2.0,2.0,2.0
2025-07-21 09:50:40.470,1.640000000000001,1640,82,0.33993664,0.20530817,0.04587354,0.06310588,0.019035444,0.043495756,0.0,0.0,0.0,-0.025091382,0.36342368,-0.65092885,0.1430089,-0.28944767,-0.4301775,-0.11516862,0.04247211,0.44118577,0.0012729982,-0.3107445,0.43216035,0.10693779,-0.038978815,-0.14506775,0.14007375,-0.07757699,0.17439814,-0.1814194,-0.09998847,-0.031981543,-0.17432578,-0.05542183,0.18858051,0.117257096,2.0,-2.0,2.0,-2.0,2.0,-2.0,-2.0,-2.0,-2.0,-2.0,2.0,2.0,2.0,2.0,2.0,-2.0,2.0,-2.0,-2.0,0.12867221,-2.0,-1.2187587,-2.0,2.0
2025-07-21 09:50:40.490,1.660000000000001,1660,83,0.24058704,0.15879434,-0.05439668,0.07094624,-0.030099148,-0.023628468,0.0,0.0,0.0,-0.023877973,0.36131522,-0.65160847,0.15532048,-0.31696957,-0.3872589,-0.15443814,-0.015234412,0.44389522,-0.057723507,-0.29560733,0.41165885,0.15527435,0.02291527,0.12478029,0.022034544,-0.09861911,0.17374521,-0.021385197,-0.15632515,-0.070870265,-0.164252,0.036712967,-0.20163773,0.0955793,2.0,2.0,2.0,-2.0,2.0,-2.0,-2.0,0.12867221,-2.0,-1.2187587,-2.0,2.0,2.0,2.0,2.0,-2.0,2.0,-2.0,2.0,2.0,-2.0,2.0,2.0,2.0
2025-07-21 09:50:40.510,1.680000000000001,1680,84,0.09391431,-0.4489713,0.028818527,0.057257574,-0.01665863,-0.047460515,0.0,0.0,0.0,-0.022832315,0.35627973,-0.60148716,0.19009934,-0.32688797,-0.2962785,-0.20292808,0.021668142,0.50434077,-0.09460012,-0.21221274,0.4430619,0.16796926,-0.029185954,0.13170059,0.06975324,-0.01917513,0.21639594,-0.07407555,0.14001782,0.16170475,-0.15933251,0.25160095,0.20379786,0.07173344,2.0,2.0,2.0,-2.0,2.0,-2.0,2.0,2.0,-2.0,2.0,2.0,2.0,2.0,2.0,2.0,-2.0,-2.0,-2.0,2.0,-1.4959034,-2.0,2.0,-2.0,2.0
2025-07-21 09:50:40.530,1.700000000000001,1700,85,-0.15879837,-0.23882346,-0.099816,0.033541225,-0.049360964,0.037382543,0.0,0.0,0.0,-0.022071917,0.3647522,-0.5594319,0.18819101,-0.32317,-0.28349048,-0.20549716,0.08366367,0.48571563,-0.13772881,-0.14773025,0.47265357,0.19969045,0.0066735027,0.13045043,-0.025964022,-0.07905869,-0.08817293,-0.08889177,0.17898758,-0.1993714,-0.017711854,0.09763009,0.11796011,0.121367164,2.0,2.0,2.0,-2.0,-2.0,-2.0,2.0,-1.4959034,-2.0,2.0,-2.0,2.0,2.0,2.0,-2.0,-2.0,-2.0,2.0,2.0,-2.0,-2.0,1.6415302,-2.0,2.0
2025-07-21 09:50:40.553,1.720000000000001,1720,86,-0.18613859,0.2600812,0.11289769,0.04429229,-0.071316496,0.047429677,0.0,0.0,0.0,-0.020716432,0.3781111,-0.48210788,0.10827165,-0.34270108,-0.3445737,-0.13062514,0.13089119,0.42867234,-0.16128749,-0.075192794,0.48480624,0.21922815,0.0850581,0.21799906,-0.27653885,-0.06928652,-0.20643924,0.22069074,0.14654057,-0.11292317,-0.022743363,0.07316256,-0.084096804,0.03619694,2.0,2.0,-2.0,-2.0,-2.0,2.0,2.0,-2.0,-2.0,1.6415302,-2.0,2.0,2.0,2.0,-2.0,-2.0,-2.0,2.0,2.0,-2.0,2.0,-2.0,-2.0,2.0
2025-07-21 09:50:40.571,1.740000000000001,1740,87,-0.03989469,0.44578016,-0.09332374,0.08057811,0.04286082,-0.017832197,0.0,0.0,0.0,-0.021132123,0.38930428,-0.42076445,0.028610034,-0.3522926,-0.43203843,-0.075122,0.14728363,0.33038008,-0.11272463,-0.09435448,0.43484855,0.25492176,0.023841478,0.17837462,-0.24196772,-0.05553152,-0.13657403,0.087178305,0.1469431,-0.3365509,0.20057473,-0.14816546,-0.20172559,0.09178001,2.0,2.0,-2.0,-2.0,-2.0,2.0,2.0,-2.0,2.0,-2.0,-2.0,2.0,2.0,2.0,-2.0,-2.0,-2.0,2.0,2.0,2.0,2.0,-2.0,2.0,2.0
2025-07-21 09:50:40.590,1.7600000000000011,1760,88,-0.09859523,-0.07776448,-0.115252174,0.0682529,-0.015854524,-0.027997734,0.0,0.0,0.0,-0.021580065,0.3712179,-0.31195265,-0.026155116,-0.35092023,-0.5031077,-0.014576709,0.18166126,0.30577397,-0.036575805,-0.15053938,0.45250627,0.2650425,-0.061528254,0.24236791,-0.13978612,-0.017980162,-0.21460137,0.12607424,0.0834084,0.122597694,0.14052713,-0.04060802,0.19738574,-0.029314933,2.0,2.0,-2.0,-2.0,-2.0,2.0,2.0,2.0,2.0,-2.0,2.0,2.0,2.0,-0.9784092,-2.0,-2.0,0.7840891,2.0,2.0,-2.0,2.0,-1.205948,-2.0,2.0
2025-07-21 09:50:40.610,1.7800000000000011,1780,89,-0.2586598,-0.054081038,0.14584029,0.056242913,-0.013647252,0.034062542,0.0,0.0,0.0,-0.019565893,0.3781707,-0.264113,-0.07588049,-0.3550228,-0.5339237,0.04208944,0.2216559,0.2800566,0.018681066,-0.15808092,0.44516468,0.26328894,-0.062395167,0.026044106,-0.045035027,0.047170255,-0.016060194,0.11361041,0.0803262,-0.17717777,0.09920967,-0.025619429,-0.117214754,0.0074969158,2.0,-0.9784092,-2.0,-2.0,0.7840891,2.0,2.0,-2.0,2.0,-1.205948,-2.0,2.0,2.0,-1.1207116,-2.0,-2.0,-2.0,2.0,2.0,2.0,2.0,-2.0,2.0,2.0
2025-07-21 09:50:40.631,1.8000000000000012,1800,90,-0.17174877,-0.27067488,-0.024074474,-0.025075775,-0.04408424,0.016967386,0.0,0.0,0.0,-0.01977555,0.37244627,-0.30280167,-0.11477367,-0.34928218,-0.5651561,0.09171856,0.24223563,0.2782228,0.06786608,-0.17898893,0.46369895,0.27044818,-0.015272477,-0.046227373,-0.1348775,-0.05937835,-0.12438354,0.08950866,0.10607707,0.18485157,0.07999996,-0.050390027,0.1470155,0.042801097,2.0,-1.1207116,-2.0,-2.0,-2.0,2.0,2.0,2.0,2.0,-2.0,2.0,2.0,2.0,0.9940182,-2.0,-2.0,2.0,2.0,2.0,-2.0,2.0,-2.0,-2.0,2.0
2025-07-21 09:50:40.651,1.8200000000000012,1820,91,-0.1323685,-0.091411985,0.14811334,0.016282152,-0.026172375,0.027532939,0.0,0.0,0.0,-0.020780364,0.3659939,-0.27525482,-0.15592015,-0.36251384,-0.5864789,0.11222378,0.2725813,0.27789062,0.11467838,-0.21691382,0.46006382,0.27326253,-0.038369577,0.19126597,-0.13740009,0.0034758036,-0.03200736,0.09251016,0.107663624,-0.015377881,0.11312878,-0.12262093,-0.16436683,0.074113935,2.0,0.9940182,-2.0,-2.0,2.0,2.0,2.0,-2.0,2.0,-2.0,-2.0,2.0,2.0,-2.0,-2.0,-2.0,-2.0,2.0,2.0,-2.0,2.0,-2.0,2.0,-2.0
2025-07-21 09:50:40.671,1.8400000000000012,1840,92,-0.12049786,0.09990546,0.21835151,-0.041934337,-0.007662868,0.044975508,0.0,0.0,0.0,-0.021732144,0.35922977,-0.28436378,-0.17044003,-0.36445615,-0.6117242,0.15415943,0.2910359,0.2709687,0.14074744,-0.2378093,0.46926266,0.18486677,-0.00066496915,-0.19914888,-0.13584627,-0.029693034,-0.16313288,0.06621415,0.09407514,-0.07402092,0.09059942,-0.10372493,0.13718764,-0.18164752,2.0,-2.0,-2.0,-2.0,-2.0,2.0,2.0,-2.0,2.0,-2.0,2.0,-2.0,2.0,-2.0,1.4994092,-1.561348,2.0,2.0,-2.0,2.0,2.0,-2.0,-2.0,-0.75956345
2025-07-21 09:50:40.691,1.8600000000000012,1860,93,0.13276388,-0.0071552554,0.030781602,0.033388916,-0.030861635,-0.0051711686,0.0,0.0,0.0,-0.024870617,0.35748166,-0.36039194,-0.12839699,-0.36230016,-0.64204943,0.15852147,0.28546464,0.2948626,0.16417624,-0.2630248,0.44361627,0.1402462,0.013232973,-0.20369135,0.22565295,0.027280198,0.05320129,0.0616513,-0.112394914,0.18939878,0.044400115,0.009029829,-0.08797986,-0.081004836,2.0,-2.0,1.4994092,-1.561348,2.0,2.0,-2.0,2.0,2.0,-2.0,-2.0,-0.75956345,2.0,-2.0,2.0,2.0,2.0,-2.0,-2.0,-2.0,2.0,-2.0,2.0,-2.0
2025-07-21 09:50:40.711,1.8800000000000012,1880,94,0.5461717,-0.013273604,0.0057843276,0.05672391,-0.014461823,-0.0020111005,0.0,0.0,0.0,-0.026549678,0.35434827,-0.45202285,-0.056158945,-0.3694671,-0.5974177,0.09188358,0.24541242,0.3092043,0.19662015,-0.2728277,0.44761527,0.0621325,-0.03626057,-0.13086642,0.15650496,0.047200013,0.13385585,-0.2066813,-0.028745813,0.037081458,0.044495914,-0.047331274,0.09226169,-0.16053845,2.0,-2.0,2.0,2.0,2.0,-2.0,-2.0,-2.0,2.0,-2.0,2.0,-2.0,2.0,-2.0,2.0,2.0,2.0,-2.0,-2.0,-2.0,-2.0,-2.0,2.0,2.0
2025-07-21 09:50:40.734,1.9000000000000012,1900,95,0.41218108,-0.025783813,0.021649452,0.06451418,0.01159192,-0.01907653,0.0,0.0,0.0,-0.026970692,0.3512966,-0.5118582,0.020236202,-0.36696333,-0.54956424,0.01127238,0.19574647,0.31963894,0.13378774,-0.27836886,0.51813537,0.09209249,0.012861101,-0.21664952,0.104992285,0.098135576,0.089046195,-0.1370833,-0.1471664,0.07566106,-0.16465387,-0.03283985,0.16282398,0.049440738,2.0,-2.0,2.0,2.0,2.0,-2.0,-2.0,-2.0,-2.0,-2.0,2.0,2.0,2.0,-2.0,2.0,2.0,2.0,-2.0,-2.0,-2.0,-2.0,-2.0,-2.0,2.0
2025-07-21 09:50:40.751,1.9200000000000013,1920,96,0.12696677,0.07671473,-0.05573104,0.1129517,-0.019223407,-0.037942935,0.0,0.0,0.0,-0.028385876,0.36790138,-0.5788642,0.06658593,-0.34225443,-0.5018041,-0.0531167,0.16847491,0.34010333,0.072071515,-0.29255345,0.5105451,0.13607146,0.024274828,-0.183215,0.0645917,0.07667486,0.049179606,-0.16748166,-0.14135242,0.01729029,-0.22209764,-0.09340782,-0.08263071,0.041388206,2.0,-2.0,2.0,2.0,2.0,-2.0,-2.0,-2.0,-2.0,-2.0,-2.0,2.0,2.0,0.13631356,2.0,-0.6166531,2.0,-2.0,-2.0,0.35315284,-2.0,-2.0,-2.0,2.0
2025-07-21 09:50:40.771,1.9400000000000013,1940,97,0.055884607,0.05782739,-0.15620899,0.042420868,-0.037363585,0.04210771,0.0,0.0,0.0,-0.028706638,0.34792945,-0.5740351,0.10596687,-0.3277332,-0.47357732,-0.11444072,0.101274796,0.3318522,0.008452103,-0.29255685,0.40416625,0.17012818,-0.045546375,0.21190742,0.025313752,0.116882905,0.008665891,-0.08548049,-0.19466688,-0.06341947,-0.09143197,-0.018897852,-0.27841273,0.11701451,2.0,0.13631356,2.0,-0.6166531,2.0,-2.0,-2.0,0.35315284,-2.0,-2.0,-2.0,2.0,2.0,2.0,2.0,-2.0,2.0,-2.0,2.0,2.0,-2.0,2.0,2.0,2.0
2025-07-21 09:50:40.791,1.9600000000000013,1960,98,-0.26225016,-0.43592426,0.05825177,0.032070756,-0.06526994,0.032042913,0.0,0.0,0.0,-0.0268933,0.35971025,-0.48962358,0.13679421,-0.3207114,-0.4245843,-0.14147751,0.13736272,0.3978607,-0.060669158,-0.25038055,0.37426642,0.18894137,0.018994125,0.09549326,0.108436696,-0.04135735,0.250086,-0.15963954,0.058086056,0.16071478,-0.14397205,0.084960036,0.11846959,0.015540645,2.0,2.0,2.0,-2.0,2.0,-2.0,2.0,2.0,-2.0,2.0,2.0,2.0,2.0,2.0,2.0,-2.0,-2.0,-2.0,2.0,2.0,-2.0,2.0,-2.0,2.0
2025-07-21 09:50:40.811,1.9800000000000013,1980,99,-0.27376148,-0.23377752,-0.007923314,0.019803239,-0.040341787,0.038790673,0.0,0.0,0.0,-0.026738033,0.37534875,-0.43395397,0.15383546,-0.3315786,-0.39777625,-0.18122865,0.1690251,0.46392375,-0.097104125,-0.2016703,0.4038958,0.20069037,0.10252725,0.06519341,0.04358032,0.06049153,-0.17573598,-0.08167838,0.13146545,0.22121836,-0.108884126,0.09168047,0.109024905,0.05140027,2.0,2.0,2.0,-2.0,-2.0,-2.0,2.0,2.0,-2.0,2.0,-2.0,2.0,2.0,2.0,2.0,-2.0,-2.0,2.0,2.0,-2.0,-2.0,2.0,-2.0,2.0
2025-07-21 09:50:40.832,2.0000000000000013,2000,100,-0.13278267,-0.049093496,0.056885354,-0.02652344,-0.0050051655,-0.016925206,0.0,0.0,0.0,-0.026799593,0.39615688,-0.4224684,0.171962,-0.3354367,-0.48167303,-0.100084856,0.2002118,0.4628963,-0.13989562,-0.17722473,0.40825075,0.22836022,0.038012285,0.10552374,-0.0020598767,0.06314879,-0.148234,0.17652583,-0.0025245275,-0.1945482,-0.13852178,0.055930503,-0.03892472,-0.0031094076,2.0,2.0,2.0,-2.0,-2.0,2.0,2.0,-2.0,-2.0,2.0,-2.0,2.0,2.0,2.0,-2.0,-2.0,-2.0,2.0,2.0,-2.0,2.0,-2.0,-2.0,2.0
2025-07-21 09:50:40.851,2.0200000000000014,2020,101,0.1797243,0.2595557,-0.12062499,0.040452536,-0.017986812,0.027022108,0.0,0.0,0.0,-0.027157968,0.39323968,-0.35819644,0.09292598,-0.32469136,-0.55216056,-0.0249345,0.2193955,0.36109278,-0.071337074,-0.20020485,0.3947078,0.25180855,0.006779347,0.2290936,-0.17891012,-0.014504456,-0.18513446,0.23652466,0.12340328,-0.28230724,0.19150582,-0.13800944,-0.0034838337,0.09458727,2.0,2.0,-2.0,-2.0,-2.0,2.0,2.0,-2.0,2.0,-2.0,-2.0,2.0,2.0,2.0,-2.0,-2.0,-2.0,2.0,2.0,-2.0,2.0,-0.17805634,-2.0,2.0
2025-07-21 09:50:40.871,2.0400000000000014,2040,102,-0.016329821,0.48257315,-0.028169772,0.04870111,-0.017996868,0.030687546,0.0,0.0,0.0,-0.02659091,0.39486483,-0.26921076,0.012041967,-0.3402273,-0.5911509,0.02261945,0.23702203,0.26127002,0.0034713608,-0.19049717,0.3562468,0.25925294,0.045985993,0.10756628,-0.13410614,0.00742668,-0.090065636,0.12386745,0.0106875235,-0.2728409,0.16901067,0.10911986,-0.10748909,0.0537766,2.0,2.0,-2.0,-2.0,-2.0,2.0,2.0,-2.0,2.0,-0.17805634,-2.0,2.0,2.0,2.0,-2.0,-2.0,-2.0,2.0,2.0,2.0,2.0,-2.0,2.0,2.0
2025-07-21 09:50:40.892,2.0600000000000014,2060,103,0.21895346,-0.068642154,-0.13567016,0.003681799,0.029906448,-0.03398873,0.0,0.0,0.0,-0.026488515,0.3959478,-0.1934907,-0.04081636,-0.33651596,-0.6419786,0.0757384,0.26543856,0.2442513,0.052251082,-0.21536902,0.36087164,0.27594173,0.05414738,0.17814764,-0.102866516,0.052391727,-0.12197302,0.074102014,0.0650509,0.15295787,0.14590724,-0.021588983,0.22236913,0.018655954,2.0,2.0,-2.0,-2.0,-2.0,2.0,2.0,2.0,2.0,-2.0,2.0,2.0,2.0,-1.9180816,-2.0,-2.0,2.0,2.0,2.0,-2.0,2.0,-2.0,-2.0,2.0
2025-07-21 09:50:40.911,2.0800000000000014,2080,104,0.01911054,-0.038143333,0.16373685,0.09924094,0.0513731,0.005480645,0.0,0.0,0.0,-0.025304006,0.39321467,-0.17373863,-0.095069,-0.35772878,-0.65372723,0.1043834,0.2727195,0.22832939,0.0964023,-0.23171245,0.3731261,0.28966424,0.046802755,-0.03478578,-0.037281733,0.053151596,0.06805153,0.083626606,-0.020848393,-0.10631205,0.098428115,-0.06285544,-0.03228319,0.013724165,2.0,-1.9180816,-2.0,-2.0,2.0,2.0,2.0,-2.0,2.0,-2.0,-2.0,2.0,2.0,-2.0,-2.0,-2.0,-1.5215051,2.0,2.0,2.0,2.0,-2.0,2.0,-2.0
2025-07-21 09:50:40.934,2.1000000000000014,2100,105,0.04406048,-0.27487686,0.06102376,0.0036212285,-0.034016173,-0.034107544,0.0,0.0,0.0,-0.025616203,0.3706906,-0.2543718,-0.11970894,-0.3464843,-0.6488258,0.122709446,0.29206353,0.2174875,0.13305813,-0.24685724,0.43127605,0.18825847,-0.020260025,-0.31450254,-0.14707147,-0.007085654,0.011366863,0.13804005,0.021665461,0.13893922,0.05493007,-0.050516505,0.25862065,-0.19747026,2.0,-2.0,-2.0,-2.0,-1.5215051,2.0,2.0,2.0,2.0,-2.0,2.0,-2.0,2.0,-2.0,2.0,1.6728485,2.0,2.0,-2.0,-2.0,2.0,-2.0,-2.0,-2.0
2025-07-21 09:50:40.952,2.1200000000000014,2120,106,-0.07766728,-0.09111645,-0.002047773,0.08207304,0.0007803829,-0.032392442,0.0,0.0,0.0,-0.027594052,0.36900723,-0.36278874,-0.0560537,-0.35209736,-0.6486925,0.14194413,0.2970153,0.23648477,0.16417935,-0.26653725,0.42090702,0.108070746,-0.06697854,-0.18848336,0.23881899,0.10331871,-0.03773402,0.074710265,0.037355628,0.0044905585,0.14191581,-0.10077586,-0.05582483,-0.1902867,2.0,-2.0,2.0,1.6728485,2.0,2.0,-2.0,-2.0,2.0,-2.0,-2.0,-2.0,2.0,-2.0,2.0,-0.9130634,2.0,-2.0,-2.0,-2.0,2.0,-2.0,2.0,-2.0
2025-07-21 09:50:40.972,2.1400000000000015,2140,107,0.23524083,0.0057455203,0.0341775,0.07272216,-0.04565432,0.0053153476,0.0,0.0,0.0,-0.02779981,0.359515,-0.4436419,0.0027902247,-0.32863924,-0.60157025,0.07194553,0.30222845,0.22331597,0.18807447,-0.28728026,0.45545438,0.028364923,-0.057942852,-0.17824486,0.20314409,0.10148342,0.16063781,-0.2038597,0.032677878,-0.06667779,0.08184539,-0.09325906,0.2256331,-0.22227785,2.0,-2.0,2.0,-0.9130634,2.0,-2.0,-2.0,-2.0,2.0,-2.0,2.0,-2.0,2.0,-2.0,2.0,2.0,2.0,-2.0,-2.0,-2.0,-2.0,-2.0,-2.0,2.0
2025-07-21 09:50:40.992,2.1600000000000015,2160,108,-0.019401502,0.15643202,-0.09998692,0.06376339,-0.064638115,0.015716797,0.0,0.0,0.0,-0.02765116,0.35890114,-0.50459915,0.05510944,-0.3152527,-0.5498189,-0.0070976964,0.27122125,0.24245083,0.13657169,-0.29273778,0.42423132,0.0733601,0.03782119,-0.118425004,0.15646361,-0.012075271,-0.0059829406,-0.22368582,-0.08752249,-0.02710053,-0.23509039,-0.05050692,-0.07527385,0.047994133,2.0,-2.0,2.0,2.0,2.0,-2.0,-2.0,-2.0,-2.0,-2.0,-2.0,2.0,2.0,-2.0,2.0,-1.8849269,2.0,-2.0,-2.0,2.0,-2.0,-2.0,-2.0,2.0
2025-07-21 09:50:41.012,2.1800000000000015,2180,109,-0.013219978,0.20541848,-0.16752952,0.10388382,-0.031937744,0.012066935,0.0,0.0,0.0,-0.027412387,0.36158454,-0.5639077,0.10918813,-0.30780825,-0.52365613,-0.061793953,0.2185026,0.30388388,0.060279045,-0.31388888,0.38263097,0.12220524,0.012608523,-0.20131323,0.08790533,0.024276061,0.12949789,-0.099630445,-0.25010568,0.20009632,-0.214361,-0.10753603,-0.1376519,0.1335716,2.0,-2.0,2.0,-1.8849269,2.0,-2.0,-2.0,2.0,-2.0,-2.0,-2.0,2.0,2.0,-1.8300627,2.0,-2.0,2.0,-2.0,-2.0,-2.0,-2.0,-2.0,2.0,2.0
2025-07-21 09:50:41.032,2.2000000000000015,2200,110,0.09083975,0.118647,-0.057863776,0.06057606,-0.037681505,0.046550266,0.0,0.0,0.0,-0.024821248,0.3604854,-0.6077295,0.14530486,-0.3344748,-0.49640656,-0.115388215,0.14235017,0.33976588,-0.0028693133,-0.31772462,0.3927033,0.15121652,-0.05764434,-0.14036733,0.0717955,0.011458684,0.08030849,-0.17712314,-0.1912572,0.08634017,-0.07837365,-0.07786109,0.20363656,0.101273336,2.0,-1.8300627,2.0,-2.0,2.0,-2.0,-2.0,-2.0,-2.0,-2.0,2.0,2.0,2.0,2.0,2.0,-2.0,2.0,-2.0,-0.8519836,-2.0,-2.0,0.80067337,-2.0,2.0
2025-07-21 09:50:41.052,2.2200000000000015,2220,111,0.108313344,0.07735592,-0.12194727,0.09153864,0.057053052,0.028185068,0.0,0.0,0.0,-0.023015818,0.3664112,-0.61012,0.15773103,-0.33801648,-0.4444306,-0.16374698,0.10580771,0.3418143,-0.04877558,-0.2651661,0.39958617,0.18724294,0.04732235,0.014998081,0.12319096,-0.03134624,0.04880632,-0.063621834,-0.06825518,-0.019047776,-0.077538125,0.13749066,-0.103563786,0.029691767,2.0,2.0,2.0,-2.0,2.0,-2.0,-0.8519836,-2.0,-2.0,0.80067337,-2.0,2.0,2.0,2.0,2.0,-2.0,2.0,-2.0,2.0,2.0,-2.0,2.0,2.0,2.0
2025-07-21 09:50:41.072,2.2400000000000015,2240,112,-0.21787627,-0.46998626,0.13922635,0.057547417,-0.045007225,-0.025852498,0.0,0.0,0.0,-0.022007136,0.3736891,-0.5981825,0.17591399,-0.3328841,-0.36923248,-0.19627982,0.12252588,0.40242988,-0.109014794,-0.1879878,0.43437847,0.20088296,-0.041029315,0.09797633,0.018568808,-0.068505116,0.252264,-0.1286923,0.10260829,0.22956483,-0.028867558,0.13411348,0.27432,0.09894486,2.0,2.0,2.0,-2.0,2.0,-2.0,2.0,2.0,-2.0,2.0,2.0,2.0,2.0,2.0,2.0,-2.0,-2.0,-2.0,2.0,2.0,-2.0,2.0,-2.0,2.0
2025-07-21 09:50:41.095,2.2600000000000016,2260,113,-0.2912292,-0.25902256,0.107024595,0.06107955,-0.03905591,-0.02420876,0.0,0.0,0.0,-0.022708397,0.37144572,-0.5617235,0.18506852,-0.3413929,-0.33864498,-0.21303679,0.16311543,0.48565704,-0.13736698,-0.12289943,0.47965127,0.21894693,0.029565036,0.08230318,0.090933524,-0.06988014,-0.11099119,-0.09186393,0.03306535,0.21095107,-0.14064537,0.080720685,0.05179067,0.12288631,2.0,2.0,2.0,-2.0,-2.0,-2.0,2.0,2.0,-2.0,2.0,-2.0,2.0,2.0,2.0,2.0,-2.0,-2.0,2.0,2.0,-2.0,-2.0,2.0,-2.0,2.0
2025-07-21 09:50:41.113,2.2800000000000016,2280,114,-0.22406815,-0.13006712,0.14060628,0.03793238,-0.0073134527,0.012441596,0.0,0.0,0.0,-0.024092017,0.38454345,-0.5486935,0.19465505,-0.347948,-0.40886945,-0.12721163,0.20340312,0.47871506,-0.17111796,-0.06980505,0.49324656,0.25031257,-0.009292907,0.10282624,-0.024762057,0.027609862,-0.13454111,0.24942133,0.013279186,-0.22779033,-0.123595916,0.12347038,0.06578207,-0.01752415,2.0,2.0,2.0,-2.0,-2.0,2.0,2.0,-2.0,-2.0,2.0,-2.0,2.0,2.0,2.0,-2.0,-2.0,-2.0,2.0,2.0,-2.0,2.0,-2.0,-2.0,2.0
2025-07-21 09:50:41.132,2.3000000000000016,2300,115,0.15116906,0.2052823,0.023741907,-0.028672554,-0.012867457,-0.03668085,0.0,0.0,0.0,-0.026191901,0.37810275,-0.4780207,0.1167546,-0.3429194,-0.5016325,-0.052011944,0.22738126,0.3800109,-0.10545484,-0.09600447,0.4827734,0.25738475,-0.06827498,0.17167562,-0.2505802,0.0488793,-0.09863786,0.15193824,0.10669738,-0.26902887,0.14116535,-0.1680174,-0.056646872,0.0035660665,2.0,2.0,-2.0,-2.0,-2.0,2.0,2.0,-2.0,2.0,-2.0,-2.0,2.0,2.0,2.0,-2.0,-2.0,-2.0,2.0,2.0,-0.20831886,2.0,-2.0,-2.0,2.0
2025-07-21 09:50:41.153,2.3200000000000016,2320,116,0.10940226,0.2988828,-0.116843924,0.06832977,-0.0306753,0.019529609,0.0,0.0,0.0,-0.026968356,0.37946397,-0.411388,0.045328945,-0.357972,-0.55067515,-0.0004648983,0.23893294,0.30139184,-0.018818347,-0.13489512,0.45236287,0.26804665,0.015725166,0.14666462,-0.13640334,-0.033371553,-0.15820624,0.07478773,-0.023284541,-0.16430306,0.1129259,-0.12151635,-0.14037254,-0.011360602,2.0,2.0,-2.0,-2.0,-2.0,2.0,2.0,-0.20831886,2.0,-2.0,-2.0,2.0,2.0,2.0,-2.0,-2.0,2.0,2.0,2.0,0.76105267,2.0,-0.9145504,-0.66584605,2.0
2025-07-21 09:50:41.172,2.3400000000000016,2340,117,0.0038349228,0.027740473,-0.096853375,0.06781834,-0.016258344,0.036495887,0.0,0.0,0.0,-0.025667176,0.3975842,-0.32558104,-0.028622665,-0.36115724,-0.5842038,0.042444438,0.26573122,0.28383538,0.026577124,-0.14564264,0.40212545,0.28477615,-0.061658945,0.25339535,-0.11877739,0.038997572,-0.08865504,0.067544505,0.1037145,-0.014303217,0.05929896,-0.03784208,-0.086469024,0.06221305,2.0,2.0,-2.0,-2.0,2.0,2.0,2.0,0.76105267,2.0,-0.9145504,-0.66584605,2.0,2.0,0.11196529,-2.0,-2.0,-2.0,2.0,2.0,-2.0,2.0,-2.0,2.0,2.0
2025-07-21 09:50:41.195,2.3600000000000017,2360,118,0.05543083,0.021612117,-0.0014178563,0.07107727,0.048597187,0.008936647,0.0,0.0,0.0,-0.024001498,0.3917821,-0.26423827,-0.07300074,-0.36495176,-0.61136323,0.09092919,0.26792926,0.2623049,0.072707236,-0.17987911,0.42927423,0.28241372,-0.011204569,0.18334435,-0.15618825,-0.0062666833,-0.12477312,0.14651237,-0.0006108388,-0.094862856,0.17214109,0.0011324398,0.21718955,0.0018201412,2.0,0.11196529,-2.0,-2.0,-2.0,2.0,2.0,-2.0,2.0,-2.0,2.0,2.0,2.0,2.0,-2.0,-2.0,2.0,2.0,2.0,2.0,2.0,-2.0,-2.0,2.0
2025-07-21 09:50:41.213,2.3800000000000017,2380,119,-0.080466606,-0.23283789,-0.01939377,0.021385726,0.0007552646,0.0155460555,0.0,0.0,0.0,-0.02322099,0.3670604,-0.15470791,-0.11188385,-0.3623938,-0.61851144,0.12535141,0.2883653,0.27800292,0.11041796,-0.20416324,0.4283847,0.29521045,-0.005896899,0.33375034,-0.12288997,-0.047790907,-0.010323092,0.11679271,-0.01872064,0.14620028,0.009128792,-0.13583976,-0.10481385,-0.024138557,2.0,2.0,-2.0,-2.0,2.0,2.0,2.0,2.0,2.0,-2.0,-2.0,2.0,2.0,-2.0,-2.0,-2.0,-2.0,2.0,2.0,-2.0,2.0,-2.0,-2.0,-2.0
2025-07-21 09:50:41.233,2.4000000000000017,2400,120,-0.18608533,0.2184467,0.023962261,0.04096606,-0.025996856,0.040567387,0.0,0.0,0.0,-0.022788588,0.37284574,-0.09735824,-0.15808436,-0.37471673,-0.66270274,0.14579763,0.30109286,0.2856252,0.14186665,-0.2292996,0.38896528,0.20662476,-0.000320165,0.01289817,-0.03141035,-0.04952568,-0.055205714,0.10817705,-0.019930586,-0.123329714,0.08386463,-0.026031435,-0.07973962,-0.24985246,2.0,-2.0,-2.0,-2.0,-2.0,2.0,2.0,-2.0,2.0,-2.0,-2.0,-2.0,2.0,-2.0,-2.0,-2.0,2.0,2.0,2.0,2.0,2.0,-2.0,2.0,-1.3822875
2025-07-21 09:50:41.253,2.4200000000000017,2420,121,-0.17414026,-0.27936247,0.21519808,0.007110955,0.0035939894,0.042657968,0.0,0.0,0.0,-0.022233391,0.37523776,-0.12223337,-0.18715246,-0.3695331,-0.6551663,0.15804788,0.31597364,0.28586623,0.18322317,-0.26037472,0.40006334,0.13874431,0.00030623324,-0.2099623,-0.065951474,0.011839277,0.120731734,0.028675213,0.06822037,0.22440833,0.0078093717,-0.059536006,0.23559862,-0.22665527,2.0,-2.0,-2.0,-2.0,2.0,2.0,2.0,2.0,2.0,-2.0,2.0,-1.3822875,2.0,-2.0,-0.9439371,2.0,2.0,-2.0,-2.0,-2.0,2.0,-2.0,-2.0,-2.0
2025-07-21 09:50:41.273,2.4400000000000017,2440,122,-0.047775183,0.07437816,0.051953565,0.01708161,-0.025613796,0.03804797,0.0,0.0,0.0,-0.02424512,0.37059355,-0.22867808,-0.16860959,-0.3451847,-0.61426556,0.082697004,0.30145666,0.31219018,0.19113399,-0.27594534,0.39858142,0.053424347,-0.08057646,-0.31097248,-0.0003999081,0.06009579,0.14030583,-0.28426734,0.061805706,-0.02312325,0.042669907,0.0072631994,-0.12718262,-0.15776575,2.0,-2.0,-0.9439371,2.0,2.0,-2.0,-2.0,-2.0,2.0,-2.0,-2.0,-2.0,2.0,-2.0,2.0,2.0,2.0,-2.0,-2.0,-2.0,2.0,-2.0,2.0,2.0
2025-07-21 09:50:41.293,2.4600000000000017,2460,123,0.40313238,0.028826118,0.077408105,0.05605354,0.03710081,-0.024541369,0.0,0.0,0.0,-0.026157085,0.376437,-0.33525038,-0.103795975,-0.33834997,-0.5700959,0.017800607,0.29493582,0.30561927,0.22499721,-0.28313628,0.39558557,0.08206096,-0.04026231,-0.24920186,0.24509753,-0.026480306,0.09731789,-0.22579011,-0.0435507,-0.06960967,0.12942006,-0.031218726,0.05120446,0.16403589,2.0,-2.0,2.0,2.0,2.0,-2.0,-2.0,-2.0,2.0,-2.0,2.0,2.0,2.0,-2.0,2.0,2.0,2.0,-2.0,-2.0,-2.0,-2.0,-2.0,-1.2520669,2.0
2025-07-21 09:50:41.316,2.4800000000000018,2480,124,0.15139134,0.07001645,0.039107427,0.023225823,-0.035821244,0.0011788347,0.0,0.0,0.0,-0.027387222,0.3657445,-0.41766936,-0.027779698,-0.31110784,-0.53241694,-0.04591086,0.25394306,0.3157376,0.15561251,-0.2999785,0.3751322,0.13311115,-0.05123737,-0.21859556,0.11665093,0.03207014,0.009719785,-0.12942487,-0.057014897,-0.04416064,-0.261679,-0.059867736,-0.22910342,0.045407932,2.0,-2.0,2.0,2.0,2.0,-2.0,-2.0,-2.0,-2.0,-2.0,-1.2520669,2.0,2.0,-0.6070403,2.0,-0.42575034,2.0,-2.0,-2.0,2.0,-2.0,-2.0,2.0,2.0
2025-07-21 09:50:41.333,2.5000000000000018,2500,125,0.062342126,-0.23432085,0.0010259446,0.065345,-0.017622046,0.028328612,0.0,0.0,0.0,-0.028624117,0.37289065,-0.4177051,0.029660461,-0.28625873,-0.48217618,-0.095221885,0.19005463,0.37689343,0.07995615,-0.2942877,0.38606262,0.15569529,-0.0017174245,0.05246246,0.14393164,0.068735,0.07889066,-0.050526194,-0.12408652,0.24175513,-0.1329408,0.024497358,0.08394634,0.05249587,2.0,-0.6070403,2.0,-0.42575034,2.0,-2.0,-2.0,2.0,-2.0,-2.0,2.0,2.0,2.0,-2.0,2.0,-2.0,2.0,-2.0,0.10990637,-1.5165881,-2.0,2.0,-2.0,2.0
2025-07-21 09:50:41.353,2.520000000000002,2520,126,-0.15961303,0.08364786,0.20954876,-0.010129419,-0.0053880373,0.026001668,0.0,0.0,0.0,-0.027961366,0.37444612,-0.43937626,0.07179787,-0.28577983,-0.40405786,-0.15116918,0.16151233,0.39780483,0.01300105,-0.28092855,0.39771542,0.17974001,0.01029111,-0.08717635,0.08188945,-0.009195777,0.19146113,-0.09764844,-0.0042174216,-0.0276054,-0.13448985,0.20043637,0.0345568,0.14116752,2.0,-2.0,2.0,-2.0,2.0,-2.0,0.10990637,-1.5165881,-2.0,2.0,-2.0,2.0,2.0,2.0,2.0,-2.0,0.75323176,-2.0,2.0,2.0,-2.0,-0.12066804,-2.0,2.0
2025-07-21 09:50:41.373,2.540000000000002,2540,127,-0.2250606,-0.1538276,0.076885544,-0.026968854,-0.004903476,0.021530744,0.0,0.0,0.0,-0.030271372,0.37945282,-0.4590982,0.11167119,-0.31279728,-0.32855192,-0.17586674,0.1874668,0.43477935,-0.036136746,-0.24891011,0.3994415,0.20893024,0.06135225,-0.05880544,0.1413356,-0.054815646,0.23693937,-0.025876097,0.05604489,0.14978398,-0.12732409,0.07698491,-0.06204372,0.031987816,2.0,2.0,2.0,-2.0,0.75323176,-2.0,2.0,2.0,-2.0,-0.12066804,-2.0,2.0,2.0,2.0,2.0,-2.0,-2.0,-2.0,2.0,2.0,-2.0,2.0,-2.0,2.0
2025-07-21 09:50:41.393,2.560000000000002,2560,128,-0.25930887,-0.04426336,0.014745518,-0.021308893,-0.028800778,0.0039571696,0.0,0.0,0.0,-0.032741915,0.3861464,-0.44688973,0.12790948,-0.31701195,-0.31214443,-0.20187505,0.20950413,0.5087322,-0.085009746,-0.19864449,0.380096,0.22787897,0.07965052,-0.039196588,0.045627393,0.04473433,-0.11636318,-0.04248345,0.08588458,0.097641796,-0.072097674,0.013953571,-0.05225099,-0.011094269,2.0,2.0,2.0,-2.0,-2.0,-2.0,2.0,2.0,-2.0,2.0,-2.0,2.0,2.0,2.0,2.0,-2.0,-2.0,2.0,2.0,-2.0,-2.0,2.0,-2.0,2.0
2025-07-21 09:50:41.413,2.580000000000002,2580,129,-0.13307157,0.030205682,0.0027020536,-0.0245084,-0.007095769,0.042815704,0.0,0.0,0.0,-0.033065747,0.4014278,-0.4457325,0.15180807,-0.3111597,-0.39355132,-0.12955658,0.23821853,0.49432817,-0.12320384,-0.17281418,0.37186635,0.25754398,-0.04537959,0.051352862,0.032832574,0.00093327946,-0.2796637,0.2668024,0.012305414,-0.16811301,-0.05140502,0.07940933,-0.029697808,0.017072046,2.0,2.0,2.0,-2.0,-2.0,2.0,2.0,-2.0,-2.0,2.0,-2.0,2.0,2.0,2.0,-2.0,-2.0,-2.0,2.0,2.0,-2.0,2.0,-2.0,-2.0,2.0
2025-07-21 09:50:41.434,2.600000000000002,2600,130,0.08736411,0.20748116,-0.13460173,-0.054272678,-0.0031711464,-0.012246947,0.0,0.0,0.0,-0.03364971,0.39445803,-0.39499396,0.07861476,-0.33341926,-0.46783447,-0.056659374,0.2558394,0.38247347,-0.05573102,-0.19185837,0.32476997,0.263144,-0.061219,0.22723326,-0.13477562,-0.08182394,-0.22009897,0.09932375,-0.024089677,-0.36628106,0.19955596,-0.06010743,-0.100891374,0.09781966,2.0,2.0,-2.0,-2.0,-2.0,2.0,2.0,-2.0,2.0,-2.0,-2.0,2.0,2.0,2.0,-2.0,-2.0,-2.0,2.0,2.0,1.6169635,2.0,-2.0,2.0,2.0
2025-07-21 09:50:41.453,2.620000000000002,2620,131,0.2190025,-0.1515878,-0.16967674,0.029396472,-0.031973675,-0.0012291163,0.0,0.0,0.0,-0.03271635,0.4009129,-0.29661188,0.0029656559,-0.32086912,-0.52513003,0.014079189,0.27469033,0.33465728,0.00833761,-0.22469679,0.34790677,0.2759721,-0.022305315,0.17930008,-0.19608109,-0.022539956,-0.22055194,0.08017707,-0.0033132492,0.044228513,0.08053105,-0.030727468,0.11043558,-0.027010242,2.0,2.0,-2.0,-2.0,-2.0,2.0,2.0,1.6169635,2.0,-2.0,2.0,2.0,2.0,2.0,-2.0,-2.0,0.93677187,2.0,2.0,-2.0,2.0,-2.0,-2.0,2.0
2025-07-21 09:50:41.474,2.640000000000002,2640,132,-0.021867769,-0.113064475,-0.07201447,-0.027675223,-0.03755411,0.0062526045,0.0,0.0,0.0,-0.029879605,0.3922916,-0.17259677,-0.05461606,-0.32925192,-0.55762213,0.050369352,0.28937045,0.2982149,0.0506931,-0.23674367,0.35981995,0.27935448,0.054737825,0.42447856,-0.19976124,-0.06635334,0.0054617957,0.04430982,0.048654698,-0.24789385,0.07051356,-0.055454306,0.051518213,-0.011314921,2.0,2.0,-2.0,-2.0,0.93677187,2.0,2.0,-2.0,2.0,-2.0,-2.0,2.0,2.0,-2.0,-2.0,-2.0,-2.0,2.0,2.0,-2.0,2.0,-2.0,-2.0,2.0
2025-07-21 09:50:41.494,2.660000000000002,2660,133,-0.20147653,0.33533704,-0.00786615,0.0048440853,-0.024137422,0.022078391,0.0,0.0,0.0,-0.027656315,0.3764059,-0.13130909,-0.10361066,-0.3369537,-0.6009217,0.09345206,0.29678342,0.20554963,0.10722727,-0.25715587,0.3319254,0.29942346,-0.058366865,0.04217501,-0.17832707,-0.07481238,-0.17683837,0.1172615,-0.023807226,-0.25847268,0.13117349,-0.08111869,-0.07950746,0.0742059,2.0,-2.0,-2.0,-2.0,-2.0,2.0,2.0,-2.0,2.0,-2.0,-2.0,2.0,2.0,2.0,-2.0,-2.0,2.0,2.0,2.0,2.0,2.0,-2.0,2.0,2.0
2025-07-21 09:50:41.514,2.680000000000002,2680,134,0.12888741,-0.26215246,0.01117332,-0.032680344,-0.021501169,-0.019453522,0.0,0.0,0.0,-0.025982957,0.37114286,-0.08676837,-0.12812035,-0.35310405,-0.6143609,0.12891966,0.3136272,0.19472533,0.13128796,-0.2788181,0.37076694,0.2934737,-0.021814367,0.13794146,-0.049980946,-0.020143611,0.05306752,0.019565094,0.09939859,0.1675312,0.046496067,-0.018631084,0.134651,0.05576353,2.0,2.0,-2.0,-2.0,2.0,2.0,2.0,2.0,2.0,-2.0,2.0,2.0,2.0,-2.0,-2.0,-2.0,-2.0,2.0,2.0,-2.0,2.0,-2.0,-2.0,-2.0
2025-07-21 09:50:41.534,2.700000000000002,2700,135,-0.11000898,0.11271942,0.024888588,-0.02728615,-0.0028542408,0.039244194,0.0,0.0,0.0,-0.02568513,0.3742681,-0.08929614,-0.1588574,-0.34500766,-0.64080065,0.14263758,0.31866553,0.20357673,0.16279212,-0.29131845,0.3917011,0.21117379,0.06032628,-0.13891724,-0.122762114,0.025771495,-0.15667318,0.090369,0.0189347,-0.03437917,0.11491026,0.039701533,-0.16856775,-0.18637493,2.0,-2.0,-2.0,-2.0,-2.0,2.0,2.0,-2.0,2.0,-2.0,-2.0,-2.0,2.0,-2.0,-2.0,-2.0,2.0,2.0,2.0,2.0,2.0,-2.0,2.0,0.37259626
2025-07-21 09:50:41.554,2.720000000000002,2720,136,0.05017529,-0.26975977,0.100911826,-0.023789158,0.0013744199,0.026965776,0.0,0.0,0.0,-0.025851382,0.3658716,-0.17745866,-0.18089259,-0.35144302,-0.64812076,0.1722499,0.33603448,0.23155656,0.1772221,-0.29757124,0.39080402,0.18179294,-0.06701356,-0.2959259,-0.090354584,-0.004019166,0.008467861,0.018215323,0.08063735,0.13160166,-0.0048362566,-0.03732595,0.1502561,-0.025472315,2.0,-2.0,-2.0,-2.0,2.0,2.0,2.0,2.0,2.0,-2.0,2.0,0.37259626,2.0,-2.0,-2.0,2.0,2.0,-1.8147231,-2.0,-2.0,2.0,-2.0,-2.0,-2.0
2025-07-21 09:50:41.574,2.740000000000002,2740,137,-0.0020202713,0.12210407,0.010730582,-0.028790407,-0.011064993,-0.04196652,0.0,0.0,0.0,-0.027437808,0.36309263,-0.29276463,-0.20623212,-0.3437173,-0.596686,0.096275054,0.31970587,0.2717014,0.20184293,-0.29785463,0.38652158,0.09664971,-0.07172332,-0.30071032,0.007863574,0.00970418,0.047774244,-0.15134981,-0.024550358,-0.07064666,0.13009357,0.03329805,-0.10544438,-0.21870801,2.0,-2.0,-2.0,2.0,2.0,-1.8147231,-2.0,-2.0,2.0,-2.0,-2.0,-2.0,2.0,-2.0,2.0,2.0,2.0,-2.0,-2.0,-2.0,2.0,-2.0,2.0,-2.0
2025-07-21 09:50:41.594,2.760000000000002,2760,138,0.15623671,0.046370365,0.00093753554,0.03185649,0.009638727,0.035904784,0.0,0.0,0.0,-0.027660234,0.3530523,-0.4044093,-0.1334052,-0.33323753,-0.54847586,0.021048045,0.30687496,0.26402795,0.23556758,-0.30264318,0.3912479,0.030792492,-0.05947367,-0.23641905,0.20158614,-0.018463327,0.106124125,-0.22588703,-0.08841348,-0.036562674,0.09846436,-0.020338112,0.11265989,-0.12749662,2.0,-2.0,2.0,2.0,2.0,-2.0,-2.0,-2.0,2.0,-2.0,2.0,-2.0,2.0,-2.0,2.0,2.0,2.0,-2.0,-2.0,-2.0,-2.0,-2.0,2.0,2.0
2025-07-21 09:50:41.614,2.780000000000002,2780,139,0.065946035,0.06530538,0.0026691821,-0.018852873,-0.041066214,0.010491301,0.0,0.0,0.0,-0.027172355,0.3653051,-0.48541817,-0.047840785,-0.33196184,-0.5126922,-0.047721967,0.2990129,0.29677486,0.16227555,-0.30889973,0.46559465,0.06098226,-0.011676703,-0.1299791,0.15092327,-0.05567481,0.17205237,-0.1837673,-0.057651263,0.08528944,-0.19127719,0.03877076,0.23870268,0.09115214,2.0,-2.0,2.0,2.0,2.0,-2.0,-2.0,-2.0,-2.0,-2.0,2.0,2.0,2.0,-2.0,2.0,2.0,2.0,-2.0,-2.0,-2.0,-2.0,-2.0,-2.0,2.0
2025-07-21 09:50:41.634,2.800000000000002,2800,140,0.054596175,0.15291281,-0.020262422,0.06515904,-0.0522536,-0.044336215,0.0,0.0,0.0,-0.027733335,0.3603968,-0.52999806,0.0029483482,-0.32816303,-0.4810285,-0.09701384,0.25789282,0.30763808,0.077720724,-0.31389058,0.47615144,0.11325147,0.07177949,-0.1932578,0.10254807,0.018118205,0.059745807,-0.10329304,-0.0963834,0.08932404,-0.10309593,0.0072485474,-0.14523876,0.08091205,2.0,-2.0,2.0,2.0,2.0,-2.0,-2.0,-2.0,-2.0,-2.0,-2.0,2.0,2.0,-1.2428511,2.0,-0.06694709,2.0,-2.0,-2.0,0.22636852,-2.0,-2.0,-2.0,2.0
2025-07-21 09:50:41.657,2.820000000000002,2820,141,0.08861359,0.042821206,-0.2406922,0.029011704,0.03752022,0.018479874,0.0,0.0,0.0,-0.027573999,0.36653438,-0.5648631,0.053052314,-0.3171153,-0.45108008,-0.14540343,0.23121628,0.32607037,0.01606794,-0.33529457,0.37948945,0.15030207,0.026596269,0.011944322,0.10741919,0.0443375,-0.005021129,-0.112447746,-0.18560596,0.08662113,-0.10094047,-0.0712001,-0.26274332,0.07992421,2.0,-1.2428511,2.0,-0.06694709,2.0,-2.0,-2.0,0.22636852,-2.0,-2.0,-2.0,2.0,2.0,-1.6723889,2.0,-2.0,2.0,-2.0,2.0,2.0,-2.0,-2.0,2.0,2.0
2025-07-21 09:50:41.674,2.840000000000002,2840,142,0.06687594,-0.33337182,0.07045517,0.048719972,-0.070022486,-0.0010543134,0.0,0.0,0.0,-0.025423242,0.3528691,-0.5889912,0.09058391,-0.31051117,-0.40082392,-0.18223901,0.24102326,0.3821367,-0.034665838,-0.34242734,0.37630713,0.17013192,0.0057380996,-0.001890793,0.077473186,-0.056908824,0.15500474,-0.1070699,0.010525437,0.23344326,-0.11204883,-0.07908211,0.10623987,0.039569244,2.0,-1.6723889,2.0,-2.0,2.0,-2.0,2.0,2.0,-2.0,-2.0,2.0,2.0,2.0,2.0,2.0,-2.0,1.3269632,-2.0,2.0,-2.0,-2.0,2.0,-2.0,2.0
2025-07-21 09:50:41.694,2.860000000000002,2860,143,-0.24263549,-0.18115819,0.13967307,0.02978434,-0.0741132,-0.0371078,0.0,0.0,0.0,-0.024930414,0.37688553,-0.5773147,0.12946841,-0.3243193,-0.33372062,-0.2175856,0.2600288,0.4228118,-0.073654056,-0.31067577,0.3935265,0.18969776,0.061021958,-0.033217732,0.05198212,-0.019902684,0.26677507,-0.0135203395,0.03339932,-0.033611223,-0.051975958,0.107045405,-0.01684503,0.06819536,2.0,2.0,2.0,-2.0,1.3269632,-2.0,2.0,-2.0,-2.0,2.0,-2.0,2.0,2.0,2.0,2.0,-2.0,-2.0,-2.0,2.0,2.0,-2.0,2.0,-2.0,2.0
2025-07-21 09:50:41.719,2.880000000000002,2880,144,-0.22798303,-0.11573433,0.062419597,-0.0015672861,-0.03841346,-0.02050844,0.0,0.0,0.0,-0.026880248,0.37971842,-0.5683775,0.14355801,-0.32859188,-0.30301014,-0.23380223,0.267407,0.45712623,-0.13077228,-0.27800986,0.39883125,0.2286752,0.08729149,0.09069856,0.12412083,0.041546017,-0.08110404,-0.1012831,0.04632939,0.253334,-0.13356543,0.13868469,0.024025021,0.022554548,2.0,2.0,2.0,-2.0,-2.0,-2.0,2.0,2.0,-2.0,2.0,-2.0,2.0,2.0,2.0,2.0,-2.0,-2.0,2.0,2.0,-2.0,-2.0,2.0,-2.0,2.0
2025-07-21 09:50:41.734,2.900000000000002,2900,145,-0.18118095,0.05763074,0.05606138,0.032446727,-0.06580897,-0.016923757,0.0,0.0,0.0,-0.027512718,0.40205592,-0.5667963,0.15838426,-0.3393761,-0.38914374,-0.15112913,0.28672266,0.45788202,-0.14396676,-0.23367807,0.40358344,0.23474163,-0.007093229,-0.057438288,0.083833836,-0.059375335,-0.20850116,0.252492,-0.025233904,-0.11038813,-0.12961389,0.10120194,0.020890051,0.11878835,2.0,2.0,2.0,-2.0,-2.0,2.0,2.0,-2.0,-2.0,2.0,-2.0,2.0,2.0,2.0,-2.0,-2.0,-2.0,2.0,2.0,-2.0,2.0,-2.0,-2.0,2.0
2025-07-21 09:50:41.756,2.920000000000002,2920,146,0.069659725,0.2854209,-0.06335891,-0.0090487,0.024329334,-0.040199693,0.0,0.0,0.0,-0.028410325,0.38386872,-0.51255983,0.09053054,-0.33739874,-0.46914437,-0.06904394,0.29845664,0.36119813,-0.087293774,-0.24278219,0.37307084,0.26621172,0.068245694,0.14881754,-0.22627795,0.044741828,-0.1568933,0.17380403,0.0761996,-0.23137261,0.21081617,-0.008909335,-0.03399085,0.042451646,2.0,2.0,-2.0,-2.0,-2.0,2.0,2.0,-2.0,2.0,-2.0,-2.0,2.0,2.0,2.0,-2.0,-2.0,-2.0,2.0,2.0,-2.0,2.0,-2.0,-2.0,2.0
2025-07-21 09:50:41.775,2.940000000000002,2940,147,0.06630154,0.46184912,-0.13614398,-0.01475093,-0.03330429,-0.029886613,0.0,0.0,0.0,-0.028298844,0.3974513,-0.4634636,0.009121088,-0.34020823,-0.54009897,-0.00146928,0.30702055,0.25600594,-0.012696613,-0.26161164,0.32014325,0.27714038,0.022950722,0.16134293,-0.1314235,-0.005542717,-0.17701656,0.08026938,-0.0074618394,-0.25460467,0.10898787,-0.07117656,-0.13538437,0.030454155,2.0,2.0,-2.0,-2.0,-2.0,2.0,2.0,-2.0,2.0,-2.0,-2.0,2.0,2.0,2.0,-2.0,-2.0,2.0,2.0,2.0,2.0,2.0,-0.40544426,2.0,2.0
2025-07-21 09:50:41.798,2.960000000000002,2960,148,0.077006444,-0.1967473,0.09744586,0.0002154616,-0.0034567667,-0.042386997,0.0,0.0,0.0,-0.027045032,0.3942194,-0.3871638,-0.0577738,-0.347037,-0.5488696,0.034851916,0.32123613,0.23208888,0.04280689,-0.24538296,0.33955482,0.27499118,-0.06979723,0.27152395,-0.06333009,0.021515317,-0.03354167,0.06896344,0.0015342464,0.038742147,0.07491205,0.111826435,0.14571096,-0.03518304,2.0,2.0,-2.0,-2.0,2.0,2.0,2.0,2.0,2.0,-0.40544426,2.0,2.0,2.0,0.6946379,-2.0,-2.0,-2.0,2.0,2.0,-2.0,2.0,-2.0,-2.0,-2.0
2025-07-21 09:50:41.815,2.980000000000002,2980,149,-0.122890316,0.11157394,0.028397169,0.040264964,-0.042164024,0.015195995,0.0,0.0,0.0,-0.027025292,0.38258162,-0.26919428,-0.10113799,-0.35169557,-0.595029,0.072884955,0.32836977,0.22301167,0.079834834,-0.27033418,0.36958116,0.19963093,-0.03166552,0.24344791,-0.126222,-0.073049136,-0.12938824,0.1380589,0.065320686,-0.021428045,0.06460465,-0.08328128,-0.04324699,-0.26559192,2.0,0.6946379,-2.0,-2.0,-2.0,2.0,2.0,-2.0,2.0,-2.0,-2.0,-2.0,2.0,-2.0,-2.0,-2.0,2.0,2.0,2.0,2.0,2.0,-2.0,2.0,2.0
2025-07-21 09:50:41.835,3.000000000000002,3000,150,0.15253887,-0.19670616,0.13169473,0.029322121,-0.023531552,-0.01090238,0.0,0.0,0.0,-0.026659986,0.36641788,-0.2399536,-0.12388539,-0.35499704,-0.60428715,0.10676369,0.33743882,0.24098787,0.12250642,-0.26987213,0.36980614,0.19932702,-0.01390352,-0.0497903,-0.09959086,-0.0702149,0.035768617,0.119093694,0.058149043,0.08983049,0.008003037,-0.09505598,0.22022453,0.12329125,2.0,-2.0,-2.0,-2.0,2.0,2.0,2.0,2.0,2.0,-2.0,2.0,2.0,2.0,-2.0,-2.0,2.0,-0.7986704,0.69176316,-0.42400843,-2.0,2.0,-2.0,-2.0,-2.0
2025-07-21 09:50:41.855,3.0200000000000022,3020,151,0.061816543,0.045391284,0.06905605,-0.011645156,-0.0555972,0.0022510423,0.0,0.0,0.0,-0.028127352,0.3757101,-0.30374557,-0.16707261,-0.35625902,-0.5668771,0.113662004,0.34138352,0.23574622,0.15392564,-0.29141396,0.38616747,0.13504769,-0.081286386,-0.2568525,-0.048820592,0.047042403,0.12729825,-9.3878785e-05,-0.039859552,-0.027080925,0.023256134,-0.06483898,-0.17269184,-0.22697555,2.0,-2.0,-2.0,2.0,-0.7986704,0.69176316,-0.42400843,-2.0,2.0,-2.0,-2.0,-2.0,2.0,-2.0,2.0,2.0,2.0,-2.0,-2.0,-2.0,2.0,-2.0,2.0,-2.0
2025-07-21 09:50:41.877,3.0400000000000023,3040,152,0.19252756,-0.016835272,0.06492649,-0.009426578,0.036699273,-0.032778513,0.0,0.0,0.0,-0.02959993,0.36290115,-0.402165,-0.0834766,-0.3440129,-0.51960236,0.034988016,0.3293999,0.23940785,0.18567249,-0.29229707,0.38818204,0.043429412,0.029228445,-0.2772024,0.26150677,0.035564985,0.07458417,-0.19756109,-0.033157438,0.012670502,0.008919351,-0.029040374,0.114165656,-0.11169549,2.0,-2.0,2.0,2.0,2.0,-2.0,-2.0,-2.0,2.0,-2.0,2.0,-2.0,2.0,-2.0,2.0,2.0,2.0,-2.0,-2.0,-2.0,-2.0,-2.0,2.0,2.0
2025-07-21 09:50:41.895,3.0600000000000023,3060,153,0.13307165,-0.041572243,0.10681205,0.041163977,-0.025263228,0.018547056,0.0,0.0,0.0,-0.030288102,0.3589284,-0.47819817,-0.016865041,-0.3168174,-0.47393855,-0.031979688,0.30584222,0.25581333,0.13465093,-0.30701974,0.45902556,0.07991415,0.050435793,-0.15798916,0.18056355,0.0026251588,0.118928306,-0.09630488,-0.06602762,0.06228606,-0.15275164,-0.08059614,0.16935664,0.101878755,2.0,-2.0,2.0,2.0,2.0,-2.0,-2.0,-2.0,-2.0,-2.0,2.0,2.0,2.0,-2.0,2.0,2.0,2.0,-2.0,-2.0,2.0,-2.0,-2.0,-2.0,2.0
2025-07-21 09:50:41.915,3.0800000000000023,3080,154,-0.19843574,-0.19342741,-0.08573432,0.027950486,0.002276596,0.033293936,0.0,0.0,0.0,-0.032204986,0.3528147,-0.5387535,0.028652392,-0.27855277,-0.41700402,-0.093254864,0.24573544,0.3194793,0.051234722,-0.31934628,0.46272737,0.12948427,0.011988668,-0.11660141,0.14378753,0.18365587,0.16262957,-0.11860068,-0.19992915,0.2792687,-0.13558167,-0.08806615,-0.12220967,0.13002406,2.0,-2.0,2.0,2.0,2.0,-2.0,-2.0,2.0,-2.0,-2.0,-2.0,2.0,2.0,-2.0,2.0,-0.7516557,2.0,-2.0,-2.0,-2.0,-2.0,-2.0,-2.0,2.0
2025-07-21 09:50:41.935,3.1000000000000023,3100,155,0.042465907,0.05834886,-0.16855872,0.059746675,-0.04324529,-0.025177386,0.0,0.0,0.0,-0.031663995,0.3496812,-0.589861,0.08194346,-0.26122978,-0.37243435,-0.14315258,0.17741607,0.38724282,-0.0015744965,-0.32740465,0.38389978,0.14933543,-0.022025036,-0.1182582,0.07387375,0.033711556,0.1375038,-0.16054551,-0.107630126,0.1590083,-0.15035917,-0.07393142,-0.2774611,0.052249096,2.0,-2.0,2.0,-0.7516557,2.0,-2.0,-2.0,-2.0,-2.0,-2.0,-2.0,2.0,2.0,0.7948781,2.0,-2.0,2.0,-2.0,-2.0,-2.0,-2.0,-2.0,2.0,2.0
2025-07-21 09:50:41.956,3.1200000000000023,3120,156,0.2544981,0.104672335,0.03214981,0.048568934,-0.009946097,0.044257253,0.0,0.0,0.0,-0.029495217,0.3608861,-0.591907,0.114395246,-0.28768808,-0.31141102,-0.17562427,0.12711206,0.409508,-0.05085393,-0.32398748,0.34575623,0.18743466,0.0058179507,0.09281417,0.060175028,-0.1207651,0.106363215,-0.06744488,-0.10200443,0.03739124,-0.10834452,-0.036164157,0.061201833,0.028957998,2.0,0.7948781,2.0,-2.0,2.0,-2.0,-2.0,-2.0,-2.0,-2.0,2.0,2.0,2.0,2.0,2.0,-2.0,2.0,-2.0,2.0,2.0,-2.0,2.0,-2.0,2.0
2025-07-21 09:50:41.978,3.1400000000000023,3140,157,-0.36701575,-0.18027425,0.010849386,-0.0027131515,0.008796113,-0.018155366,0.0,0.0,0.0,-0.028668188,0.35463092,-0.5203651,0.15060984,-0.2990652,-0.23187125,-0.20448132,0.14244677,0.4607184,-0.09804984,-0.30201635,0.34683576,0.21534657,0.06594351,0.11922522,0.014262451,-0.013197354,0.22480047,-0.021289118,0.16009314,0.21663088,-0.14581057,0.05056629,0.009944561,0.039546605,2.0,2.0,2.0,-2.0,2.0,-2.0,2.0,2.0,-2.0,2.0,-2.0,2.0,2.0,2.0,2.0,-2.0,-2.0,-2.0,2.0,-2.0,-2.0,2.0,-2.0,2.0
2025-07-21 09:50:41.995,3.1600000000000024,3160,158,-0.27994394,-0.0602355,0.015106922,-0.020413416,-0.030161226,-0.009219056,0.0,0.0,0.0,-0.029105103,0.37727386,-0.48433295,0.17012396,-0.31726253,-0.22937821,-0.23396948,0.19358255,0.4687485,-0.13084802,-0.26020268,0.32596415,0.22672965,0.08550339,0.062742546,0.07598985,-0.0020889123,-0.12291242,0.015739178,0.07177832,-0.18917738,-0.076491974,0.12852684,0.035959065,0.015849387,2.0,2.0,2.0,-2.0,-2.0,-2.0,2.0,-2.0,-2.0,2.0,-2.0,2.0,2.0,2.0,-1.7061454,-2.0,-2.0,2.0,2.0,-2.0,-2.0,-2.0,-2.0,2.0
2025-07-21 09:50:42.016,3.1800000000000024,3180,159,-0.0010362808,0.13393159,-0.13264008,0.01763352,0.022982782,0.014964669,0.0,0.0,0.0,-0.028847393,0.37518847,-0.41662946,0.09542698,-0.30898193,-0.30617607,-0.15721318,0.21952629,0.36433518,-0.16164015,-0.2708401,0.30308512,0.25383112,-0.052173898,0.24824621,-0.16768415,-0.046729613,-0.2731112,0.17953227,0.076394886,-0.37935224,-0.049625967,-0.028842252,-0.07272113,0.027893327,2.0,2.0,-1.7061454,-2.0,-2.0,2.0,2.0,-2.0,-2.0,-2.0,-2.0,2.0,2.0,2.0,-2.0,-2.0,-2.0,2.0,2.0,-1.3573626,2.0,-2.0,2.0,2.0
2025-07-21 09:50:42.036,3.2000000000000024,3200,160,0.05882691,0.12214597,-0.010647963,-0.033010688,-0.04195424,-0.014269329,0.0,0.0,0.0,-0.02702083,0.38687068,-0.32799584,0.025277836,-0.32833967,-0.38817817,-0.08335351,0.22961932,0.24571307,-0.10443143,-0.2755592,0.32411435,0.26726732,0.025904445,0.17105657,-0.22336747,-0.06509904,-0.263926,0.23062143,0.057304867,-0.30668613,0.15784588,-0.019248279,0.20266882,0.02064507,2.0,2.0,-2.0,-2.0,-2.0,2.0,2.0,-1.3573626,2.0,-2.0,2.0,2.0,2.0,2.0,-2.0,-2.0,-2.0,2.0,2.0,2.0,2.0,-2.0,-2.0,2.0
2025-07-21 09:50:42.056,3.2200000000000024,3220,161,0.068980984,-0.06858894,-0.24187525,0.041940063,0.036907062,-0.0004959541,0.0,0.0,0.0,-0.025688896,0.3778249,-0.24772076,-0.05073884,-0.35093334,-0.47260168,-0.0126703875,0.2606495,0.23319139,-0.031428676,-0.3043316,0.32271114,0.26365054,0.056767467,0.32768026,-0.13738017,0.0069112564,-0.12607516,0.14247185,-0.015270319,0.03636572,0.08031515,0.037167653,-0.043729976,-0.046804883,2.0,2.0,-2.0,-2.0,-2.0,2.0,2.0,2.0,2.0,-2.0,-2.0,2.0,2.0,-2.0,-2.0,-2.0,-2.0,2.0,2.0,-2.0,2.0,2.0,-2.0,2.0
2025-07-21 09:50:42.076,3.2400000000000024,3240,162,-0.54388046,0.27461526,-0.050515812,0.013227192,-0.0151469195,-0.042749178,0.0,0.0,0.0,-0.022421043,0.38795903,-0.21976018,-0.089766815,-0.34603006,-0.5361448,0.044805944,0.26905632,0.20663682,0.014853148,-0.25305173,0.25541458,0.2750026,0.057493158,-0.09932891,-0.17860708,-0.051264547,-0.11414363,0.096826494,0.022753965,-0.10673349,0.09168373,0.124361575,-0.21372108,0.0021048128,2.0,-2.0,-2.0,-2.0,-2.0,2.0,2.0,-2.0,2.0,2.0,-2.0,2.0,2.0,2.0,-2.0,-2.0,-2.0,2.0,2.0,2.0,2.0,1.099346,2.0,2.0
2025-07-21 09:50:42.096,3.2600000000000025,3260,163,-0.16433921,0.0320869,-0.029070402,-0.034283597,0.07669131,-0.01930488,0.0,0.0,0.0,-0.019706387,0.3866859,-0.20294528,-0.13620967,-0.3381366,-0.58698523,0.08072005,0.29247856,0.20977634,0.068618596,-0.17173457,0.25685605,0.28634232,0.015252531,0.045128502,-0.09781983,-0.01623324,-0.06874748,0.08828099,0.05354888,0.04774239,0.10899904,0.088568754,0.06805852,-0.050054308,2.0,2.0,-2.0,-2.0,-2.0,2.0,2.0,2.0,2.0,1.099346,2.0,2.0,2.0,2.0,-2.0,-2.0,-2.0,2.0,2.0,-2.0,2.0,-1.0317882,2.0,2.0
2025-07-21 09:50:42.119,3.2800000000000025,3280,164,-0.03613106,-0.059375837,-0.111699946,0.0233693,0.06862792,-0.0075641954,0.0,0.0,0.0,-0.019004077,0.37565693,-0.14418381,-0.16971235,-0.35232463,-0.6370834,0.13205671,0.30021542,0.20634958,0.117948055,-0.18005809,0.3445084,0.2846055,0.053908754,0.24078046,-0.053651933,-0.057687033,-0.10166302,0.15248963,0.010102629,-0.15974458,0.09023243,0.041693047,0.30569714,-0.060048755,2.0,2.0,-2.0,-2.0,-2.0,2.0,2.0,-2.0,2.0,-1.0317882,2.0,2.0,2.0,2.0,-2.0,-2.0,2.0,2.0,2.0,0.21621796,2.0,2.0,-2.0,2.0
2025-07-21 09:50:42.136,3.3000000000000025,3300,165,-0.08783292,-0.042144313,0.014956672,-0.03659106,0.027821098,0.028684396,0.0,0.0,0.0,-0.017596694,0.37578037,-0.03512483,-0.20263742,-0.34538162,-0.63671005,0.15642506,0.3058377,0.18942368,0.13795745,-0.118334115,0.38428217,0.29895493,0.032787718,0.23263666,-0.09794594,-0.055156015,0.034329917,0.12042326,0.09220719,-0.026618276,0.055067446,0.28244847,0.028197475,-0.033033296,2.0,2.0,-2.0,-2.0,2.0,2.0,2.0,0.21621796,2.0,2.0,-2.0,2.0,2.0,-2.0,-2.0,-2.0,-2.0,2.0,2.0,-2.0,2.0,-0.797966,-2.0,0.8865266
2025-07-21 09:50:42.156,3.3200000000000025,3320,166,-0.05562518,0.18432643,0.08878199,-0.04171987,0.022047974,-0.04050374,0.0,0.0,0.0,-0.016794408,0.38340113,0.018883858,-0.2167049,-0.3556974,-0.6717338,0.17942376,0.32557297,0.1599967,0.17109637,-0.10425877,0.32042253,0.27415502,0.07074146,0.064779334,-0.086378075,0.015577512,-0.050739683,0.11874946,0.006767616,-0.16774373,0.08672187,0.047063585,-0.1901816,-0.05487715,2.0,-2.0,-2.0,-2.0,-2.0,2.0,2.0,-2.0,2.0,-0.797966,-2.0,0.8865266,2.0,-2.0,-2.0,-2.0,2.0,2.0,2.0,2.0,2.0,-2.0,2.0,2.0
2025-07-21 09:50:42.178,3.3400000000000025,3340,167,0.07830157,-0.27236947,0.13923253,-0.05305479,0.016471824,0.049821407,0.0,0.0,0.0,-0.017460488,0.372055,-0.0038935218,-0.24257906,-0.36095324,-0.67535573,0.19648671,0.3342084,0.1841781,0.19287163,-0.13615654,0.31704366,0.2691436,-0.048336923,-0.11350838,-0.09731297,0.02741346,0.08234465,-0.0005534091,-0.03249629,0.09337367,0.08606064,-0.13547002,0.1860486,-0.005216574,2.0,-2.0,-2.0,-2.0,2.0,2.0,2.0,2.0,2.0,-2.0,2.0,2.0,2.0,-2.0,-2.0,0.4506158,-0.48643434,2.0,0.6682996,-2.0,2.0,-2.0,-2.0,-2.0
2025-07-21 09:50:42.196,3.3600000000000025,3360,168,-0.06686302,-0.056519125,0.050852723,-0.06888269,0.027732195,-0.041707706,0.0,0.0,0.0,-0.019098064,0.36425778,-0.09838766,-0.24754588,-0.35972336,-0.6628322,0.20628938,0.344078,0.19549343,0.2225892,-0.18037787,0.31995356,0.19863562,-0.030152628,-0.28912285,-0.06601735,-0.0048093107,0.06873274,0.09121492,-0.022592552,0.033893287,0.036773995,-0.05273118,-0.106228955,-0.22337496,2.0,-2.0,-2.0,0.4506158,-0.48643434,2.0,0.6682996,-2.0,2.0,-2.0,-2.0,-2.0,2.0,-2.0,-0.515076,-0.021258216,2.0,2.0,-2.0,-2.0,2.0,-2.0,2.0,-2.0
2025-07-21 09:50:42.216,3.3800000000000026,3380,169,0.10411718,-0.110285796,0.11236171,-0.07728409,0.012508468,-0.020988425,0.0,0.0,0.0,-0.020564042,0.3550351,-0.24551205,-0.2130522,-0.37350076,-0.64517736,0.20306927,0.33255437,0.17731005,0.23296233,-0.19465032,0.32353908,0.10320835,0.013038603,-0.27268198,0.047380902,-0.058203552,0.009783989,0.0036738669,0.02533324,0.028460495,0.105287716,-0.10899031,0.13708791,-0.24963418,2.0,-2.0,-0.515076,-0.021258216,2.0,2.0,-2.0,-2.0,2.0,-2.0,2.0,-2.0,2.0,-2.0,0.16970317,2.0,2.0,-1.88453,-2.0,-2.0,2.0,-2.0,2.0,-2.0
2025-07-21 09:50:42.240,3.4000000000000026,3400,170,0.21269296,0.047975644,0.10592603,-0.022564532,0.039344095,-0.00836299,0.0,0.0,0.0,-0.022175897,0.36359334,-0.33435652,-0.18553099,-0.3604577,-0.5830035,0.12486856,0.3260355,0.18664038,0.25951383,-0.21707346,0.40725848,0.028801797,0.039866507,-0.28930515,0.16079983,0.05489341,0.075110115,-0.27809283,-0.05300108,0.028114714,-0.01531544,-0.101805806,0.23023772,-0.10066252,2.0,-2.0,0.16970317,2.0,2.0,-1.88453,-2.0,-2.0,2.0,-2.0,2.0,-2.0,2.0,-2.0,2.0,2.0,2.0,-2.0,-2.0,-2.0,2.0,-2.0,-2.0,2.0
2025-07-21 09:50:42.256,3.4200000000000026,3420,171,0.10566331,0.14732647,-0.015390985,-0.0005270978,-0.002839437,0.016306361,0.0,0.0,0.0,-0.023632396,0.36284065,-0.42346302,-0.09342818,-0.33242592,-0.5383206,0.04243506,0.30731863,0.18273231,0.2663235,-0.24910524,0.40405086,0.062873796,0.015351798,-0.2044279,0.25578737,0.13308246,0.17907709,-0.18847857,-0.0073490823,-0.004655832,0.01898227,-0.067697756,-0.11689854,0.06772805,2.0,-2.0,2.0,2.0,2.0,-2.0,-2.0,-2.0,2.0,-2.0,-2.0,2.0,2.0,-2.0,2.0,2.0,2.0,-2.0,-2.0,-2.0,-2.0,-2.0,0.41215402,2.0
2025-07-21 09:50:42.276,3.4400000000000026,3440,172,0.058971297,0.16581146,0.032814547,0.0024489462,0.02045617,0.0050139027,0.0,0.0,0.0,-0.02403429,0.35822344,-0.5087032,-0.03375098,-0.31516972,-0.48744264,-0.022165159,0.28136575,0.18536045,0.19105354,-0.2677323,0.3703217,0.117135085,0.011270176,-0.08763207,0.12314088,0.06741839,0.07532656,-0.10649812,-0.11941759,0.0071477564,-0.16298051,-0.017557323,-0.09417718,0.044305142,2.0,-2.0,2.0,2.0,2.0,-2.0,-2.0,-2.0,-2.0,-2.0,0.41215402,2.0,2.0,-2.0,2.0,0.88670766,2.0,-2.0,-2.0,2.0,-2.0,-2.0,1.5213964,2.0
2025-07-21 09:50:42.296,3.4600000000000026,3460,173,0.2523434,-0.20650397,-0.04118853,0.015902558,-0.013896222,0.035199504,0.0,0.0,0.0,-0.02441067,0.35693276,-0.56138635,0.035807986,-0.29135665,-0.46303046,-0.07488192,0.23561122,0.2511465,0.11506134,-0.28421137,0.38972053,0.13951308,0.021984106,-0.11351014,0.1966488,0.09733983,0.18370736,-0.14179519,-0.11798082,0.2398276,-0.28510693,-0.038497433,0.14579181,0.06863365,2.0,-2.0,2.0,0.88670766,2.0,-2.0,-2.0,2.0,-2.0,-2.0,1.5213964,2.0,2.0,-2.0,2.0,2.0,2.0,-2.0,-2.0,-2.0,-2.0,-2.0,-2.0,2.0
2025-07-21 09:50:42.316,3.4800000000000026,3480,174,0.12658548,-0.011340011,-0.11881841,0.0708948,-0.030453365,0.029830754,0.0,0.0,0.0,-0.024715053,0.35359424,-0.6021364,0.075720154,-0.24448991,-0.4105757,-0.13656117,0.20477493,0.3385941,0.04217066,-0.28361896,0.3594701,0.1813567,-0.06595562,-0.13191158,0.06539154,0.08794721,0.021353438,-0.13660717,-0.045007426,0.19300714,-0.22538716,-0.0023795466,-0.18282878,0.13889684,2.0,-2.0,2.0,2.0,2.0,-2.0,-2.0,-2.0,-2.0,-2.0,-2.0,2.0,2.0,-0.2574128,2.0,-2.0,2.0,-2.0,-2.0,-2.0,-2.0,-2.0,2.0,2.0
2025-07-21 09:50:42.337,3.5000000000000027,3500,175,0.5121675,0.045768455,-0.022541711,0.09087883,-0.055894677,-0.014999234,0.0,0.0,0.0,-0.023707058,0.35932887,-0.5949884,0.12811483,-0.27411276,-0.37081325,-0.17049968,0.14156067,0.3494713,-0.0094659645,-0.2939069,0.37098366,0.20288557,0.03314669,0.076586574,0.121317096,-0.11618405,0.19344825,-0.10176967,-0.22403908,0.024470596,-0.14858493,-0.013621658,0.091992244,0.104498126,2.0,-0.2574128,2.0,-2.0,2.0,-2.0,-2.0,-2.0,-2.0,-2.0,2.0,2.0,2.0,2.0,2.0,-2.0,2.0,-2.0,2.0,2.0,-2.0,2.0,-2.0,2.0
2025-07-21 09:50:42.361,3.5200000000000027,3520,176,-0.2621177,-0.25350475,0.07511141,0.094628274,-0.045050103,0.0075779115,0.0,0.0,0.0,-0.023270907,0.36297452,-0.5082648,0.13996701,-0.28306925,-0.3042939,-0.19740358,0.15041904,0.41741318,-0.0607495,-0.2566079,0.3822095,0.21497174,-0.0042668665,0.22952293,0.062667765,0.047793623,0.22604616,-0.05243288,0.13775073,0.25660118,-0.17442124,0.080704466,-0.04340568,0.09604769,2.0,2.0,2.0,-2.0,2.0,-2.0,2.0,2.0,-2.0,2.0,-2.0,2.0,2.0,2.0,2.0,-2.0,-2.0,-2.0,2.0,-2.0,-2.0,2.0,-2.0,2.0
2025-07-21 09:50:42.377,3.5400000000000027,3540,177,-0.21800898,-0.11349955,-0.012486169,0.030851044,-0.07456831,0.02141581,0.0,0.0,0.0,-0.02361517,0.3811048,-0.4567717,0.17088556,-0.2983057,-0.29051715,-0.21387243,0.19148183,0.41907173,-0.10116885,-0.21017808,0.3801367,0.24580537,-0.02916434,0.035466015,0.043979704,-0.060985286,-0.15332243,0.013223421,0.103051074,-0.09327724,-0.122411855,0.12600134,-0.0590201,0.038736988,2.0,2.0,2.0,-2.0,-2.0,-2.0,2.0,-2.0,-2.0,2.0,-2.0,2.0,2.0,2.0,-2.0,-2.0,-2.0,2.0,2.0,-2.0,-2.0,-1.9417709,-2.0,2.0
2025-07-21 09:50:42.397,3.5600000000000027,3560,178,0.090320595,0.24774948,-0.09491952,0.03694152,0.023392309,-0.03374459,0.0,0.0,0.0,-0.023600882,0.37725788,-0.3979567,0.086889654,-0.31141558,-0.367308,-0.15054862,0.20811613,0.33370048,-0.14085288,-0.22063525,0.37011158,0.25366703,-0.013896986,0.14091675,-0.18318927,-0.046516377,-0.26161537,0.16199052,0.007309794,-0.25000727,-0.12038477,-0.096817,-0.10759355,0.09736702,2.0,2.0,-2.0,-2.0,-2.0,2.0,2.0,-2.0,-2.0,-1.9417709,-2.0,2.0,2.0,2.0,-2.0,-2.0,-2.0,2.0,2.0,-0.9803414,2.0,-2.0,2.0,2.0
2025-07-21 09:50:42.417,3.5800000000000027,3580,179,0.19891424,0.22600994,0.06421628,0.028618205,0.030844003,0.0019862568,0.0,0.0,0.0,-0.022151291,0.3861683,-0.32633352,0.0071000415,-0.3241708,-0.45752957,-0.06345835,0.23026173,0.2509058,-0.09955094,-0.24198858,0.39666975,0.2608256,-0.056858655,0.19753422,-0.23761232,-0.074489534,-0.21866854,0.104724154,0.041627675,-0.26410806,0.20817766,0.012963391,0.19151312,-0.030178772,2.0,2.0,-2.0,-2.0,-2.0,2.0,2.0,-0.9803414,2.0,-2.0,2.0,2.0,2.0,2.0,-2.0,-2.0,-2.0,2.0,2.0,2.0,2.0,-2.0,-2.0,2.0
2025-07-21 09:50:42.440,3.6000000000000028,3600,180,0.049549792,-0.041681085,-0.12900303,0.06546915,0.020685034,0.0027385342,0.0,0.0,0.0,-0.021827355,0.37963235,-0.21736503,-0.053339865,-0.33582962,-0.5290462,-0.003674299,0.25933558,0.24549797,-0.025963405,-0.2695906,0.3991199,0.2771077,-0.046773277,0.33615118,-0.17594244,0.015785616,-0.19690226,0.15099432,0.06639136,0.13313806,0.09364202,-0.05212917,-0.15784173,0.032693584,2.0,2.0,-2.0,-2.0,-2.0,2.0,2.0,2.0,2.0,-2.0,-2.0,2.0,2.0,-2.0,-2.0,-2.0,-1.1790912,2.0,2.0,-2.0,2.0,1.2559482,-2.0,2.0
2025-07-21 09:50:42.461,3.6200000000000028,3620,181,-0.49085236,0.15306158,0.12710191,-0.01544281,-0.0041021276,-0.009172031,0.0,0.0,0.0,-0.020070504,0.37837476,-0.17104739,-0.092444606,-0.3311281,-0.5471633,0.03304666,0.28270084,0.21423012,0.04396596,-0.2195397,0.33284992,0.2796877,-0.0066103223,-0.11114231,-0.14020914,-0.06927516,-0.09991537,0.108103044,0.007871605,-0.10378386,0.10661474,0.13527942,-0.055250324,0.097057395,2.0,-2.0,-2.0,-2.0,-1.1790912,2.0,2.0,-2.0,2.0,1.2559482,-2.0,2.0,2.0,2.0,-2.0,-2.0,-2.0,2.0,2.0,2.0,2.0,-2.0,2.0,2.0
