openverse-orca/OrcaGym/log/simulation_log_20250604_122701.csv
timestamp,imu_angle_roll,imu_angle_pitch,imu_angle_yaw,imu_angular_velocity_roll,imu_angular_velocity_pitch,imu_angular_velocity_yaw,imu_acc_x,imu_acc_y,imu_acc_z,fl_joint1_pos,fl_joint1_vel,fl_joint1_torque,fl_joint2_pos,fl_joint2_vel,fl_joint2_torque,fl_joint3_pos,fl_joint3_vel,fl_joint3_torque,fr_joint1_pos,fr_joint1_vel,fr_joint1_torque,fr_joint2_pos,fr_joint2_vel,fr_joint2_torque,fr_joint3_pos,fr_joint3_vel,fr_joint3_torque,hl_joint1_pos,hl_joint1_vel,hl_joint1_torque,hl_joint2_pos,hl_joint2_vel,hl_joint2_torque,hl_joint3_pos,hl_joint3_vel,hl_joint3_torque,hr_joint1_pos,hr_joint1_vel,hr_joint1_torque,hr_joint2_pos,hr_joint2_vel,hr_joint2_torque,hr_joint3_pos,hr_joint3_vel,hr_joint3_torque,fl_force_x,fl_force_y,fl_force_z,fr_force_x,fr_force_y,fr_force_z,hl_force_x,hl_force_y,hl_force_z,hr_force_x,hr_force_y,hr_force_z,fl_hip_action,fl_thigh_action,fl_calf_action,fr_hip_action,fr_thigh_action,fr_calf_action,hl_hip_action,hl_thigh_action,hl_calf_action,hr_hip_action,hr_thigh_action,hr_calf_action
2025-06-04 12:27:01.729,-0.018496372,-0.01074257,-0.021046236,0.012981271,-0.027402062,0.02434814,-1.1701633,0.0,0.0,0.0,-0.0036784317,0.007279347,-0.008699205,-0.0008256563,0.0014545248,0.0021043096,0.0064854133,0.008152261,-0.003395296,0.0040662033,0.0048471075,0.0047357916,-0.06993431,-0.024825482,-0.014676157,0.04751218,-0.018141637,-0.028560255,-0.012204219,-0.032132797,0.072030485,-0.0012546265,-0.05191504,-0.06889402,0.0,0.0,0.0,0.0,0.0,0.0,0.0,0.0,0.0,0.0,0.0,0.0,-1.0,1.0,-1.0,-1.0,1.0,-1.0,-1.0,-1.0,-1.0,1.0,-1.0,-1.0
2025-06-04 12:27:01.733,0.058567517,0.16841467,-0.01583546,0.026239092,-0.03300276,-0.036630716,0.0,0.0,0.0,0.0,-0.02612395,0.07102004,-0.033271864,-0.022518527,0.070331246,-0.035486836,-0.015777977,-0.057800688,-0.03515779,0.009739537,-0.055968944,-0.029266981,-0.059840254,0.25048462,-0.038568992,0.0003423464,0.12336871,-0.17091498,0.009141011,-0.2591836,-0.10148779,0.010339901,-0.25869405,-0.07638345,-1.0,1.0,-1.0,-1.0,1.0,-1.0,-1.0,-1.0,-1.0,1.0,-1.0,-1.0,-1.0,-1.0,-1.0,1.0,1.0,-1.0,-1.0,-1.0,-1.0,1.0,-1.0,-1.0
2025-06-04 12:27:01.754,0.03137371,0.16796672,-0.071021594,0.017639317,0.035232045,0.027467886,0.0,0.0,0.0,0.000110961,-0.017420128,0.017120065,-0.071495794,0.005383511,0.13206394,-0.07170508,-0.021895973,-0.13544522,-0.06994413,0.020991853,-0.13574041,-0.08173342,-0.03653804,-0.19027711,-0.15115185,0.079444,0.13366853,-0.056671057,-0.021076133,-0.18195003,0.018510178,0.08453529,-0.23427586,-0.10793258,-1.0,-1.0,-1.0,1.0,1.0,-1.0,-1.0,-1.0,-1.0,1.0,-1.0,-1.0,1.0,1.0,-1.0,1.0,1.0,-1.0,-1.0,-1.0,-1.0,1.0,-1.0,-1.0
2025-06-04 12:27:01.775,-0.23358399,0.10568315,0.04668645,0.034946065,0.015902631,-0.031898443,0.0,0.0,0.0,0.0008730208,-0.022445124,-0.018582363,-0.09245732,0.022863755,0.15975635,-0.0858982,-0.035424944,-0.17108446,-0.07995857,0.045132194,-0.18581943,-0.09765455,0.018694453,-0.018648922,-0.036571562,0.002531588,0.009542083,-0.03778368,-0.041978005,-0.079262055,-0.0124733765,0.027261555,-0.070206426,0.06682775,1.0,1.0,-1.0,1.0,1.0,-1.0,-1.0,-1.0,-1.0,1.0,-1.0,-1.0,1.0,-1.0,-1.0,1.0,1.0,-1.0,-1.0,-1.0,-1.0,1.0,-1.0,-1.0
2025-06-04 12:27:01.798,-0.07784619,0.25344336,-0.026892701,-0.012351926,-0.001062978,-0.042832386,0.0,0.0,0.0,-6.0262875e-05,0.0033906281,-0.054336436,-0.095482,0.031718682,0.17014652,-0.09217772,-0.030587815,-0.21833697,-0.07225243,0.06348399,-0.215867,-0.07758005,0.057541817,-0.04583073,0.015965277,0.08276723,-0.017011352,-0.07184654,0.026522405,-0.14206909,0.04341793,-0.022829443,-0.060229827,0.022832453,1.0,-1.0,-1.0,1.0,1.0,-1.0,-1.0,-1.0,-1.0,1.0,-1.0,-1.0,1.0,-1.0,-1.0,1.0,1.0,-1.0,-1.0,-1.0,-1.0,1.0,-1.0,-1.0
2025-06-04 12:27:01.815,0.050532643,0.17215528,-0.07721494,0.007072811,0.09477919,0.03060529,0.0,0.0,0.0,-0.00034867862,0.011168689,-0.10718208,-0.10900478,0.04097296,0.18550396,-0.115358666,-0.045262095,-0.24375325,-0.06234653,0.06734691,-0.2591976,-0.07636628,0.026613453,-0.12818982,0.0024883205,-0.03947289,0.0374042,-0.01049828,-0.07905905,-0.104850926,-0.05182055,-0.0060559795,-0.048775565,-0.028207164,1.0,-1.0,-1.0,1.0,1.0,-1.0,-1.0,-1.0,-1.0,1.0,-1.0,-1.0,1.0,1.0,-1.0,1.0,1.0,-1.0,-1.0,-1.0,-1.0,1.0,-1.0,-1.0
2025-06-04 12:27:01.835,-0.04427069,0.10967156,-0.022784377,-0.020234106,0.08346981,-0.031251222,0.0,0.0,0.0,0.000681781,0.02331243,-0.06032032,-0.14680356,0.043478675,0.22188984,-0.14285427,-0.050833143,-0.27007264,-0.061318774,0.07731024,-0.26620367,-0.070347,-0.0067733144,0.16641943,-0.096656084,-0.015089224,0.09835219,-0.0645776,-0.019048242,-0.03231459,-0.07947736,0.07284502,0.012279757,-0.07330408,1.0,1.0,-1.0,1.0,1.0,-1.0,-1.0,-1.0,-1.0,1.0,-1.0,-1.0,-1.0,-1.0,-1.0,1.0,1.0,-1.0,-1.0,-1.0,-1.0,1.0,-1.0,-1.0
2025-06-04 12:27:01.855,0.04901237,0.18474203,-0.07263348,-0.025928969,0.11286735,-0.00781592,0.0,0.0,0.0,0.0009768887,0.0057171513,-0.09042063,-0.13031912,0.059375286,0.27326748,-0.15074737,-0.055331264,-0.3106551,-0.092860825,0.08628884,-0.29576623,-0.08025357,-0.0143515235,-0.10041882,0.008688627,0.051975336,0.05952268,-0.02641735,0.029224493,-0.12162574,-0.09688737,-0.039247297,-0.030349055,-0.008094794,-1.0,-1.0,-1.0,1.0,1.0,-1.0,-1.0,-1.0,-1.0,1.0,-1.0,-1.0,1.0,-1.0,-1.0,1.0,1.0,-1.0,-1.0,-1.0,-1.0,1.0,-1.0,-1.0
2025-06-04 12:27:01.875,0.021816107,0.04349897,0.0011094984,-0.0029488285,0.093294844,-0.00080497266,0.0,0.0,0.0,0.001423473,0.020926252,-0.14680885,-0.16041797,0.06990421,0.31485745,-0.17255849,-0.07230909,-0.32298905,-0.104399376,0.078057505,-0.33246127,-0.09621081,0.07662636,-0.16788566,-0.08383067,-0.044629417,0.080538355,0.030555641,-0.07734098,-0.12072441,-0.0042597717,-0.049445063,-0.11206413,0.044582125,1.0,-1.0,-1.0,1.0,1.0,-1.0,-1.0,-1.0,-1.0,1.0,-1.0,-1.0,1.0,-1.0,-1.0,1.0,1.0,-1.0,-1.0,-1.0,-1.0,1.0,-1.0,-1.0
2025-06-04 12:27:01.898,-0.044635482,-0.10719124,0.05089638,0.030826416,0.107993044,0.0007410379,0.0,0.0,0.0,0.0017098322,0.028469874,-0.19973134,-0.15746664,0.070706986,0.33817944,-0.2020067,-0.07565996,-0.3440594,-0.105874084,0.09194748,-0.347006,-0.09905719,0.0135602625,-0.12162989,-0.025463803,0.04979288,0.011874961,-0.028210646,-0.046142373,-0.08667312,-0.048471317,-0.016971499,0.02030641,-0.055565204,1.0,-1.0,-1.0,1.0,1.0,-1.0,-1.0,-1.0,-1.0,1.0,-1.0,-1.0,1.0,-1.0,-1.0,1.0,1.0,-1.0,-1.0,-1.0,-1.0,1.0,-1.0,-1.0
2025-06-04 12:27:01.915,-0.05714224,-0.08027057,-0.057445914,0.02212555,0.052831065,0.04079687,0.0,0.0,0.0,0.0016417407,0.031174101,-0.24270017,-0.16644599,0.08375672,0.3598473,-0.19370322,-0.07115104,-0.36591494,-0.090521805,0.09541443,-0.36264288,-0.09885633,-0.0017590837,-0.01431145,0.04515286,-0.028233154,0.027626982,-0.03632452,-0.055273484,0.0138254175,-0.012585378,0.00372619,-0.0034858007,-0.033284377,1.0,-1.0,-1.0,1.0,1.0,-1.0,-1.0,-1.0,-1.0,1.0,-1.0,-1.0,1.0,-1.0,-1.0,1.0,1.0,-1.0,-1.0,-1.0,-1.0,1.0,-1.0,-1.0
2025-06-04 12:27:01.936,0.07148825,-0.03521889,-0.011764997,0.028325511,0.044953518,0.047453523,0.0,0.0,0.0,0.0018460208,0.028627137,-0.26032573,-0.1418547,0.09092775,0.3574574,-0.1953487,-0.07331337,-0.37610912,-0.104356915,0.091296114,-0.38016757,-0.105520025,-0.058672253,-0.09827822,0.06934202,-0.05786487,0.00652212,-0.0015800191,-0.07778373,-0.047006488,0.0023692802,0.013394963,-0.051818762,0.05134656,1.0,-1.0,-1.0,1.0,1.0,-1.0,-1.0,-1.0,-1.0,1.0,-1.0,-1.0,1.0,-1.0,-1.0,1.0,1.0,-1.0,-1.0,-1.0,-1.0,1.0,-1.0,-1.0
2025-06-04 12:27:01.956,0.023782821,0.0114755565,-0.04602925,0.048432436,0.04504272,-0.023910318,0.0,0.0,0.0,0.0025875254,0.039282206,-0.30452216,-0.15696038,0.090519115,0.34935308,-0.18858738,-0.06770774,-0.40060976,-0.10462589,0.09874627,-0.3830328,-0.11854727,-0.04836592,-0.015975678,-0.013881922,-0.044448838,-0.08132552,-0.054250233,-0.04597043,-0.099291414,-0.07811953,-0.013816259,0.01979439,-0.08056644,1.0,-1.0,-1.0,1.0,1.0,-1.0,-1.0,-1.0,-1.0,1.0,-1.0,-1.0,1.0,-1.0,-1.0,1.0,1.0,-1.0,-1.0,-1.0,-1.0,1.0,-1.0,-1.0
2025-06-04 12:27:01.975,0.003939917,-0.060234316,-0.0074938284,0.03849678,0.07173723,-0.036178365,0.0,0.0,0.0,0.0034318906,0.03459204,-0.32225302,-0.16545327,0.10478557,0.35106292,-0.1842297,-0.06254964,-0.41624668,-0.11999818,0.09892544,-0.39995474,-0.12715413,-7.256241e-05,-0.12007218,-0.071783185,-0.03241882,0.055089355,-0.026861975,0.04962832,0.009939691,-0.039412055,-0.029752938,-0.035472855,-0.103680246,1.0,-1.0,-1.0,1.0,1.0,-1.0,-1.0,-1.0,-1.0,1.0,-1.0,-1.0,1.0,-1.0,-1.0,1.0,1.0,-1.0,-1.0,-1.0,-1.0,1.0,-1.0,-1.0
2025-06-04 12:27:01.997,0.035104662,-0.019926248,-0.012387767,0.006053911,0.051644534,-0.042031813,0.0,0.0,0.0,0.0039965166,0.042038046,-0.3529643,-0.16610639,0.11257702,0.36242262,-0.18484108,-0.0709703,-0.43742928,-0.13315497,0.09723824,-0.41233373,-0.14977458,0.04022795,-0.0146609405,-0.042901162,-0.0016191278,-0.027664635,0.043299805,-0.048901796,-0.019685289,0.0025113728,-0.057795815,0.03752598,-0.07022162,1.0,-1.0,-1.0,1.0,1.0,-1.0,-1.0,-1.0,-1.0,1.0,-1.0,-1.0,1.0,-1.0,-1.0,1.0,1.0,-1.0,-1.0,-1.0,-1.0,1.0,-1.0,-1.0
2025-06-04 12:27:02.015,0.06569229,-0.05552368,0.022448095,0.017223844,0.042919744,0.023462674,0.0,0.0,0.0,0.0042281984,0.03579628,-0.36517066,-0.16592677,0.103129245,0.35772517,-0.17810617,-0.07641094,-0.4546271,-0.13995361,0.10486576,-0.42045394,-0.1523056,0.07258548,-0.086390615,-0.0723228,-0.02983677,-0.065237835,-0.025288982,-0.018199986,-0.08363144,-0.06749097,0.013720935,0.044926107,-0.024175772,1.0,-1.0,-1.0,1.0,1.0,-1.0,-1.0,-1.0,-1.0,1.0,-1.0,-1.0,1.0,-1.0,-1.0,1.0,1.0,-1.0,-1.0,-1.0,-1.0,1.0,-1.0,-1.0
2025-06-04 12:27:02.036,0.030835126,-0.05976464,-0.014729483,-0.023835523,0.03223358,-0.02964813,0.0,0.0,0.0,0.004318141,0.0424576,-0.39172655,-0.16543607,0.11055928,0.35397223,-0.17368361,-0.07906772,-0.4544732,-0.14048621,0.09623642,-0.4315712,-0.17522079,0.01645343,-0.06423618,-0.06345651,-0.002517344,0.023632525,-0.04775205,-0.06434435,0.011549058,0.023796309,-0.0021452887,0.023924462,-0.03263055,1.0,-1.0,-1.0,1.0,1.0,-1.0,-1.0,-1.0,-1.0,1.0,-1.0,-1.0,1.0,-1.0,-1.0,1.0,1.0,-1.0,-1.0,-1.0,-1.0,1.0,-1.0,-1.0
2025-06-04 12:27:02.056,0.0037073407,-0.04809861,-0.024899563,-0.018057207,0.07241788,-0.035251778,0.0,0.0,0.0,0.004321757,0.045116317,-0.3996891,-0.15509395,0.13101466,0.34046042,-0.17162833,-0.074106105,-0.4715276,-0.14541402,0.10206217,-0.4340025,-0.1811835,0.022691393,-0.106833465,0.059852153,-0.045379933,-0.020061422,0.026581535,-0.055659994,-0.03385558,0.003232213,0.05498649,0.017567717,-0.110035576,1.0,-1.0,-1.0,1.0,1.0,-1.0,-1.0,-1.0,-1.0,1.0,-1.0,-1.0,1.0,-1.0,-1.0,1.0,1.0,-1.0,-1.0,-1.0,-1.0,1.0,-1.0,-1.0
2025-06-04 12:27:02.076,0.008479796,-0.050719608,0.017690277,0.016287606,0.08202186,0.020571213,0.0,0.0,0.0,0.0042987997,0.034282755,-0.41466758,-0.15668653,0.1311436,0.34557554,-0.1680225,-0.072719276,-0.4862158,-0.1487372,0.0926674,-0.44619948,-0.20635445,0.004537845,-0.0068583163,-0.014544196,-0.03471988,-0.015143,-0.06304383,-0.04574743,-0.013502123,-0.06960908,-0.0026554838,-0.07269879,-0.0657543,1.0,-1.0,-1.0,1.0,1.0,-1.0,-1.0,-1.0,-1.0,1.0,-1.0,-1.0,1.0,-1.0,-1.0,1.0,1.0,-1.0,-1.0,-1.0,-1.0,1.0,-1.0,-1.0
2025-06-04 12:27:02.098,0.040435933,-0.04327987,0.017726656,0.024118109,0.1090862,-0.027016193,0.0,0.0,0.0,0.0043718973,0.05103238,-0.4261589,-0.1701785,0.13370693,0.33718598,-0.16544631,-0.073483534,-0.4921482,-0.16383311,0.0986252,-0.4493463,-0.2097812,0.040239424,-0.020341627,0.027504843,0.036189634,-0.03145866,0.0604273,-0.05062619,-0.015321499,-0.0818351,0.013396277,-0.057466082,-0.010870552,1.0,-1.0,-1.0,1.0,1.0,-1.0,-1.0,-1.0,-1.0,1.0,-1.0,-1.0,1.0,-1.0,-1.0,1.0,1.0,-1.0,-1.0,-1.0,-1.0,1.0,-1.0,-1.0
2025-06-04 12:27:02.116,0.0046905437,-0.02967923,0.026909607,-0.008318643,0.04768993,0.027585309,0.0,0.0,0.0,0.004566814,0.042623296,-0.45120025,-0.16944145,0.14487101,0.33981338,-0.16110678,-0.072613,-0.5076978,-0.16754799,0.10215438,-0.44974956,-0.21409939,-0.036101837,-0.09602978,-0.05708411,0.056440115,-0.0068972153,0.05264141,-0.023200171,-0.044928614,-0.08661218,0.014092341,-0.07323804,0.029792631,1.0,-1.0,-1.0,1.0,1.0,-1.0,-1.0,-1.0,-1.0,1.0,-1.0,-1.0,1.0,-1.0,-1.0,1.0,1.0,-1.0,-1.0,-1.0,-1.0,1.0,-1.0,-1.0
2025-06-04 12:27:02.137,-0.0126304,-0.02128236,-0.016062656,0.05655283,0.035814878,-0.032790743,0.0,0.0,0.0,0.004854741,0.05393452,-0.4489575,-0.15801784,0.14431891,0.3451511,-0.15773912,-0.07487696,-0.5190473,-0.17621145,0.095007084,-0.4589157,-0.22174706,0.050945733,0.01913123,-0.074436195,-0.06636823,0.02745641,0.005303764,0.07216722,0.054016966,0.05079706,0.013381828,-0.0047746873,-0.0046783253,1.0,-1.0,-1.0,1.0,1.0,-1.0,-1.0,-1.0,-1.0,1.0,-1.0,-1.0,1.0,-1.0,-1.0,1.0,1.0,-1.0,-1.0,-1.0,-1.0,1.0,-1.0,-1.0
2025-06-04 12:27:02.157,-0.017542003,-0.03696953,-0.00892679,0.08751655,0.050580498,0.049323987,0.0,0.0,0.0,0.005174227,0.04427515,-0.4730355,-0.16529714,0.14989607,0.34594873,-0.15057737,-0.07423951,-0.5223402,-0.17198168,0.09786827,-0.45159844,-0.2413322,-0.03689898,-0.04611161,-0.046587493,-0.06901474,0.026859067,0.010046535,-0.011796189,-0.022878729,0.030947227,0.01758,-0.022943558,0.04335115,1.0,-1.0,-1.0,1.0,1.0,-1.0,-1.0,-1.0,-1.0,1.0,-1.0,-1.0,1.0,-1.0,-1.0,1.0,1.0,-1.0,-1.0,-1.0,-1.0,1.0,-1.0,-1.0
2025-06-04 12:27:02.177,-0.00015008199,-0.044326637,-0.03282862,0.01601287,0.0062868507,0.020996522,0.0,0.0,0.0,0.0054581044,0.046346508,-0.46958458,-0.16835488,0.14173613,0.35805315,-0.1611535,-0.074479565,-0.52576387,-0.18671463,0.096179284,-0.46661684,-0.24805906,0.035279375,-0.063674584,0.027635328,-0.0020808135,0.0032391138,0.053233083,-0.02599353,0.008455152,-0.021400588,-0.01727034,0.046454433,0.061402295,1.0,-1.0,-1.0,1.0,1.0,-1.0,-1.0,-1.0,-1.0,1.0,-1.0,-1.0,1.0,-1.0,-1.0,1.0,1.0,-1.0,-1.0,-1.0,-1.0,1.0,-1.0,-1.0
2025-06-04 12:27:02.198,-0.013800289,-0.046920333,-0.0042431387,0.04805077,0.031345535,0.04511807,0.0,0.0,0.0,0.005640732,0.051722843,-0.46955892,-0.16597897,0.146553,0.35784143,-0.15738559,-0.07783217,-0.53457254,-0.17239848,0.092216685,-0.4580689,-0.23873988,0.022040581,-0.04978399,-0.06324443,-0.050248973,0.016998217,0.033922903,0.04894778,-0.017457658,-0.025014266,0.038372323,0.001405477,0.046882767,1.0,-1.0,-1.0,1.0,1.0,-1.0,-1.0,-1.0,-1.0,1.0,-1.0,-1.0,1.0,-1.0,-1.0,1.0,1.0,-1.0,-1.0,-1.0,-1.0,1.0,-1.0,-1.0
2025-06-04 12:27:02.217,-0.0019797352,0.033883568,0.030305041,0.057994645,0.08032318,0.008424144,0.0,0.0,0.0,0.005733934,0.068290904,-0.48753408,-0.16336726,0.15025628,0.35603204,-0.15742122,-0.084083274,-0.52963406,-0.19291586,0.08677732,-0.46740907,-0.25149748,0.044205032,-0.04971418,-0.052120812,0.022644453,0.018927762,-0.017479058,0.063366935,0.047224075,0.04183107,0.01904182,-0.0650736,0.0036424247,1.0,-1.0,-1.0,1.0,1.0,-1.0,-1.0,-1.0,-1.0,1.0,-1.0,-1.0,1.0,-1.0,-1.0,1.0,1.0,-1.0,-1.0,-1.0,-1.0,1.0,-1.0,-1.0
2025-06-04 12:27:02.237,0.043547694,-0.039026003,-0.0128508555,0.04602724,0.06294104,0.00847125,0.0,0.0,0.0,0.0057465634,0.06989519,-0.48637846,-0.15782633,0.1373665,0.35208938,-0.15360942,-0.07316832,-0.54129213,-0.18099391,0.086859174,-0.45748964,-0.2501906,-0.04100976,-0.008148544,-0.05595554,0.07414292,0.08158708,-0.032879405,-0.06740983,0.05556298,-0.058436606,0.06285305,-0.029463984,0.019523682,1.0,-1.0,-1.0,1.0,1.0,-1.0,-1.0,-1.0,-1.0,1.0,-1.0,-1.0,1.0,-1.0,-1.0,1.0,1.0,-1.0,-1.0,-1.0,-1.0,1.0,-1.0,-1.0
2025-06-04 12:27:02.257,-0.036683816,0.03426705,-0.035562027,0.063570626,0.07978478,-0.021619167,0.0,0.0,0.0,0.0056798984,0.063256286,-0.5042405,-0.15803798,0.13859048,0.36044532,-0.1572165,-0.08115904,-0.53621256,-0.188231,0.10479698,-0.46402922,-0.24940437,0.047078826,0.011116936,-0.032788295,0.034743212,0.044869527,-0.0710491,0.043137904,-0.016711026,0.0039697615,0.05394819,-0.056403,0.009833616,1.0,-1.0,-1.0,1.0,1.0,-1.0,-1.0,-1.0,-1.0,1.0,-1.0,-1.0,1.0,-1.0,-1.0,1.0,1.0,-1.0,-1.0,-1.0,-1.0,1.0,-1.0,-1.0
2025-06-04 12:27:02.279,-0.040229026,0.024267487,0.00018979519,0.03950664,0.034212492,0.038894407,0.0,0.0,0.0,0.0055541666,0.06587581,-0.49822813,-0.1606034,0.1560515,0.3696343,-0.14731507,-0.08955102,-0.5482663,-0.18149416,0.102323055,-0.4774062,-0.2485587,0.017192818,0.009040949,0.016946113,0.050115664,0.027218249,0.058150914,0.0049361233,-0.018171402,-0.0048900754,0.022743514,0.038052343,-0.054010347,1.0,-1.0,-1.0,1.0,1.0,-1.0,-1.0,-1.0,-1.0,1.0,-1.0,-1.0,1.0,-1.0,-1.0,1.0,1.0,-1.0,-1.0,-1.0,-1.0,1.0,-1.0,-1.0
2025-06-04 12:27:02.297,-0.023687964,-0.04010137,0.015812453,0.09394122,0.096305385,-0.016828539,0.0,0.0,0.0,0.0053783697,0.06459311,-0.5108053,-0.16586909,0.15841605,0.3611809,-0.1479127,-0.07973757,-0.535934,-0.20056373,0.09639762,-0.47573927,-0.25397077,-0.029953973,0.03875942,0.06763386,0.05330797,0.05062738,-0.057978045,0.011851318,-0.06437687,-0.05481509,-0.04335497,-0.05830576,-0.01096068,1.0,-1.0,-1.0,1.0,1.0,-1.0,-1.0,-1.0,-1.0,1.0,-1.0,-1.0,1.0,-1.0,-1.0,1.0,1.0,-1.0,-1.0,-1.0,-1.0,1.0,-1.0,-1.0
2025-06-04 12:27:02.317,-0.013122261,-0.007988554,0.021553,0.058236357,0.03656287,-0.0020479448,0.0,0.0,0.0,0.0051874425,0.06552574,-0.5142349,-0.16992894,0.14625199,0.38140878,-0.14372149,-0.07083683,-0.53396183,-0.20030677,0.086518966,-0.4677269,-0.2528878,0.014143771,0.048366293,0.010880986,0.042959668,-0.03784517,-0.06160638,-0.020930216,0.05961372,-0.066289574,0.0058826376,-0.00082288287,0.045448698,1.0,-1.0,-1.0,1.0,1.0,-1.0,-1.0,-1.0,-1.0,1.0,-1.0,-1.0,1.0,-1.0,-1.0,1.0,1.0,-1.0,-1.0,-1.0,-1.0,1.0,-1.0,-1.0
2025-06-04 12:27:02.336,0.00672816,-0.01154052,0.019834097,0.052646905,0.032473862,0.025187913,0.0,0.0,0.0,0.0050176405,0.06434761,-0.5148041,-0.16137432,0.14781909,0.3757788,-0.1468267,-0.08280182,-0.5362754,-0.18603082,0.08632523,-0.4789464,-0.2557746,-0.054261755,-0.01426396,0.005904506,-0.028904093,-0.034974407,-0.055744503,-0.024486555,-0.032926492,-0.022578618,0.068617426,-0.04772224,0.072445154,1.0,-1.0,-1.0,1.0,1.0,-1.0,-1.0,-1.0,-1.0,1.0,-1.0,-1.0,1.0,-1.0,-1.0,1.0,1.0,-1.0,-1.0,-1.0,-1.0,1.0,-1.0,-1.0
2025-06-04 12:27:02.356,-0.028167266,-0.04952431,0.043927636,0.07384288,0.010894617,-0.04574281,0.0,0.0,0.0,0.0048826816,0.06233858,-0.50740147,-0.17398834,0.15473361,0.38669634,-0.14271542,-0.08011329,-0.5430896,-0.20516782,0.091227256,-0.47193614,-0.25883615,-0.027916234,-0.053510983,-0.002560693,-0.049518794,-0.013713748,-0.005311194,-0.009697907,-0.0717097,0.004259647,-0.047399998,-0.017221965,-0.0100981975,1.0,-1.0,-1.0,1.0,1.0,-1.0,-1.0,-1.0,-1.0,1.0,-1.0,-1.0,1.0,-1.0,-1.0,1.0,1.0,-1.0,-1.0,-1.0,-1.0,1.0,-1.0,-1.0
2025-06-04 12:27:02.379,-0.0041236356,-0.051372018,0.03459313,0.07735741,0.022097956,-0.027155362,0.0,0.0,0.0,0.004782469,0.07883862,-0.50327605,-0.15889047,0.15685007,0.38300616,-0.14167628,-0.08376543,-0.53627163,-0.2039892,0.095636316,-0.4801442,-0.2589049,-0.019883504,0.029840134,-0.0706161,-0.0035652807,-0.05770372,-0.00678591,-0.033481494,0.030083572,-0.011351757,0.037514504,-0.0686374,0.009724481,1.0,-1.0,-1.0,1.0,1.0,-1.0,-1.0,-1.0,-1.0,1.0,-1.0,-1.0,1.0,-1.0,-1.0,1.0,1.0,-1.0,-1.0,-1.0,-1.0,1.0,-1.0,-1.0
2025-06-04 12:27:02.398,0.027079284,0.028352935,0.011525825,0.087041646,0.029220534,-0.015469098,0.0,0.0,0.0,0.004712087,0.07031702,-0.52037394,-0.17142117,0.14186317,0.39915392,-0.15970245,-0.07230806,-0.55189395,-0.20108615,0.09035166,-0.48323163,-0.2564122,0.056392785,0.061008632,0.07285964,0.06945943,-0.043576445,0.054069184,-0.068864405,0.04317187,0.049700033,-9.1746064e-05,-0.03894216,0.05992791,1.0,-1.0,-1.0,1.0,1.0,-1.0,-1.0,-1.0,-1.0,1.0,-1.0,-1.0,1.0,-1.0,-1.0,1.0,1.0,-1.0,-1.0,-1.0,-1.0,1.0,-1.0,-1.0
2025-06-04 12:27:02.418,-0.025404809,-0.03272956,0.011854029,0.0024718333,0.08362309,-0.046978123,0.0,0.0,0.0,0.00466568,0.06497874,-0.5079735,-0.16596186,0.15901381,0.39159015,-0.14979887,-0.07792859,-0.54109687,-0.19493589,0.10085926,-0.48340607,-0.26977423,-0.04604413,0.005412923,0.010138107,0.021240594,0.023915345,0.061064497,0.003846876,0.04278818,-0.073357925,0.019947216,-0.006076819,-0.012600628,1.0,-1.0,-1.0,1.0,1.0,-1.0,-1.0,-1.0,-1.0,1.0,-1.0,-1.0,1.0,-1.0,-1.0,1.0,1.0,-1.0,-1.0,-1.0,-1.0,1.0,-1.0,-1.0
2025-06-04 12:27:02.438,0.025505574,-0.053199116,0.012534041,0.017804518,0.020942215,-0.0051930337,0.0,0.0,0.0,0.0046372158,0.062751845,-0.5069583,-0.1756429,0.14124832,0.3921371,-0.1522984,-0.07296191,-0.5385393,-0.20198604,0.10332922,-0.4733463,-0.26498613,0.06785999,-0.014189841,0.040541444,0.014735815,0.027233953,0.06005577,0.013644751,0.04953891,0.027558206,0.014572894,-0.005109618,0.007917948,1.0,-1.0,-1.0,1.0,1.0,-1.0,-1.0,-1.0,-1.0,1.0,-1.0,-1.0,1.0,-1.0,-1.0,1.0,1.0,-1.0,-1.0,-1.0,-1.0,1.0,-1.0,-1.0
2025-06-04 12:27:02.458,-0.003342815,-0.05252004,-0.020749338,0.0613432,0.0037618533,-0.024178011,0.0,0.0,0.0,0.0046205954,0.07920402,-0.5087739,-0.15738589,0.15095012,0.41081303,-0.14684138,-0.07972863,-0.55019003,-0.20052305,0.093775205,-0.48792517,-0.270582,0.03723905,-0.047685545,-0.05155059,-0.044002276,0.0031531022,-0.009771507,-0.029288385,-0.06218457,-0.06113438,-0.036299776,-0.008342471,-0.001956115,1.0,-1.0,-1.0,1.0,1.0,-1.0,-1.0,-1.0,-1.0,1.0,-1.0,-1.0,1.0,-1.0,-1.0,1.0,1.0,-1.0,-1.0,-1.0,-1.0,1.0,-1.0,-1.0
2025-06-04 12:27:02.481,0.0121670775,-0.024525387,-0.048856054,0.031383812,0.019625809,-0.008062122,0.0,0.0,0.0,0.004610461,0.06101175,-0.5196429,-0.1760582,0.15895516,0.40291068,-0.14395635,-0.084805645,-0.5356568,-0.2001182,0.08974474,-0.4830345,-0.25905424,0.04165143,0.02424125,0.066562995,-0.0053061903,-0.0018446379,0.011085408,-0.018840611,-0.013549085,-0.05687335,0.027776888,0.056733944,-0.010980012,1.0,-1.0,-1.0,1.0,1.0,-1.0,-1.0,-1.0,-1.0,1.0,-1.0,-1.0,1.0,-1.0,-1.0,1.0,1.0,-1.0,-1.0,-1.0,-1.0,1.0,-1.0,-1.0
2025-06-04 12:27:02.498,0.019242661,-0.03571,-0.010814916,0.063617855,0.039347503,-0.006918752,0.0,0.0,0.0,0.00460471,0.07777346,-0.51817805,-0.15938352,0.14839315,0.41204205,-0.13767724,-0.07328009,-0.54909503,-0.19938959,0.092470005,-0.48741442,-0.25131702,0.048769303,0.01816864,-0.006947801,-0.0132410545,0.042656247,-0.060974088,-0.049412772,-0.059940923,-0.01089252,-0.00020608425,0.014808442,0.027052298,1.0,-1.0,-1.0,1.0,1.0,-1.0,-1.0,-1.0,-1.0,1.0,-1.0,-1.0,1.0,-1.0,-1.0,1.0,1.0,-1.0,-1.0,-1.0,-1.0,1.0,-1.0,-1.0
2025-06-04 12:27:02.519,0.0095311105,0.0033431037,0.0028733693,0.059753075,0.06373272,0.032493725,0.0,0.0,0.0,0.00460589,0.07017024,-0.52404845,-0.16862963,0.14755565,0.40181756,-0.1508642,-0.085366815,-0.54859835,-0.19871603,0.10267399,-0.4930064,-0.25329828,-0.016741091,-0.014909931,0.05153285,0.05611336,-0.0105335,-0.048615143,0.04169988,-0.05441327,-0.05248211,0.071277544,0.00537656,0.050717413,1.0,-1.0,-1.0,1.0,1.0,-1.0,-1.0,-1.0,-1.0,1.0,-1.0,-1.0,1.0,-1.0,-1.0,1.0,1.0,-1.0,-1.0,-1.0,-1.0,1.0,-1.0,-1.0
2025-06-04 12:27:02.539,0.007029673,-0.0063726166,-0.04008457,0.04468803,0.045990467,0.018856894,0.0,0.0,0.0,0.0046145325,0.065346375,-0.51142293,-0.17628846,0.1403327,0.41661432,-0.14386758,-0.08666728,-0.5391158,-0.20642653,0.08630073,-0.4993773,-0.2666759,-0.035499804,0.06808743,0.04060886,0.0019358471,0.05893351,0.076671764,0.043431163,0.05747053,-0.07120006,-0.062884636,-0.033476602,-0.05309292,1.0,-1.0,-1.0,1.0,1.0,-1.0,-1.0,-1.0,-1.0,1.0,-1.0,-1.0,1.0,-1.0,-1.0,1.0,1.0,-1.0,-1.0,-1.0,-1.0,1.0,-1.0,-1.0
2025-06-04 12:27:02.558,-0.039098907,0.023438081,-0.0008198242,-0.011330167,0.037543315,0.026702365,0.0,0.0,0.0,0.004630094,0.07853474,-0.51672465,-0.17397536,0.13960034,0.4221628,-0.15037332,-0.08746532,-0.543721,-0.21432416,0.092118286,-0.48372963,-0.25710908,0.02101571,-0.04988125,-0.04478778,0.012216008,0.054909676,0.04193996,-0.0021155197,0.039459035,0.019642558,0.031097472,-0.07002148,0.021797432,1.0,-1.0,-1.0,1.0,1.0,-1.0,-1.0,-1.0,-1.0,1.0,-1.0,-1.0,1.0,-1.0,-1.0,1.0,1.0,-1.0,-1.0,-1.0,-1.0,1.0,-1.0,-1.0
2025-06-04 12:27:02.582,0.027717382,-0.041813616,0.0042685843,0.0278872,0.01021063,-0.018594071,0.0,0.0,0.0,0.0046515134,0.06824409,-0.516274,-0.17709404,0.15394898,0.40987217,-0.14555252,-0.07410768,-0.54515535,-0.20333382,0.09004023,-0.48867574,-0.2623855,0.052579347,-0.037453912,-0.025391031,-0.003552658,0.06351213,-0.048651192,-0.06573975,-0.0313604,-0.04876284,0.07028011,-0.059717253,-0.054184098,1.0,-1.0,-1.0,1.0,1.0,-1.0,-1.0,-1.0,-1.0,1.0,-1.0,-1.0,1.0,-1.0,-1.0,1.0,1.0,-1.0,-1.0,-1.0,-1.0,1.0,-1.0,-1.0
2025-06-04 12:27:02.599,0.0069006192,0.0144805815,0.009203713,0.039962847,0.06069752,0.036482915,0.0,0.0,0.0,0.004676582,0.073902346,-0.51628023,-0.16591868,0.14168806,0.4273291,-0.13246989,-0.08006948,-0.53944194,-0.20841803,0.09071432,-0.4985281,-0.26068616,-0.04746756,-0.03167644,-0.040631156,0.067173384,0.0037084776,0.0013613766,0.06305115,-0.00036775632,-0.064667664,0.014577275,-0.056837026,0.054800022,1.0,-1.0,-1.0,1.0,1.0,-1.0,-1.0,-1.0,-1.0,1.0,-1.0,-1.0,1.0,-1.0,-1.0,1.0,1.0,-1.0,-1.0,-1.0,-1.0,1.0,-1.0,-1.0
2025-06-04 12:27:02.619,0.045632254,-0.024360862,0.012222418,0.011864367,0.028949628,0.04576606,0.0,0.0,0.0,0.004703055,0.0781664,-0.5150286,-0.1586234,0.1490652,0.42016548,-0.14090513,-0.074054696,-0.5475518,-0.21498902,0.0891371,-0.48331133,-0.26188383,-0.015119922,0.03023314,0.06224242,-0.030038988,-0.02178051,0.029346311,-0.006444375,0.048542876,0.018604442,0.06154065,-0.016426835,0.073024854,1.0,-1.0,-1.0,1.0,1.0,-1.0,-1.0,-1.0,-1.0,1.0,-1.0,-1.0,1.0,-1.0,-1.0,1.0,1.0,-1.0,-1.0,-1.0,-1.0,1.0,-1.0,-1.0
2025-06-04 12:27:02.639,-0.021996425,-0.033661325,-0.018441504,0.0076500704,0.073197015,0.039502945,0.0,0.0,0.0,0.0047293166,0.07193986,-0.52310264,-0.16953562,0.15519682,0.42435524,-0.1450529,-0.08248888,-0.55533856,-0.2088852,0.10382339,-0.5030295,-0.2537923,-0.036195654,-0.024919318,-0.014394181,-0.030356556,0.03978264,0.015588971,-0.062567875,0.037069533,0.019801341,0.008296244,-0.07355418,-0.032792915,1.0,-1.0,-1.0,1.0,1.0,-1.0,-1.0,-1.0,-1.0,1.0,-1.0,-1.0,1.0,-1.0,-1.0,1.0,1.0,-1.0,-1.0,-1.0,-1.0,1.0,-1.0,-1.0
2025-06-04 12:27:02.659,-0.042126674,-0.009312155,-0.045123886,0.0814372,0.027103065,0.03408032,0.0,0.0,0.0,0.004754496,0.06918056,-0.52291673,-0.17254682,0.14720884,0.4169755,-0.1361995,-0.091823384,-0.5417563,-0.21221009,0.10082875,-0.50277317,-0.26117924,0.06337866,0.044626027,-0.026812846,-0.030803781,-0.0527943,-0.067856915,-0.055621054,-0.0509389,0.029103154,0.012063226,-0.03097884,-0.027333546,1.0,-1.0,-1.0,1.0,1.0,-1.0,-1.0,-1.0,-1.0,1.0,-1.0,-1.0,1.0,-1.0,-1.0,1.0,1.0,-1.0,-1.0,-1.0,-1.0,1.0,-1.0,-1.0
2025-06-04 12:27:02.681,0.044259656,-0.02914583,0.0035245006,0.06579657,0.060120553,-0.020832732,0.0,0.0,0.0,0.0047782934,0.07262036,-0.526326,-0.16777867,0.14187704,0.41478288,-0.13251819,-0.07391719,-0.5387937,-0.21552281,0.10405007,-0.50414175,-0.25491005,-0.046102427,0.012533435,0.004684003,0.026711982,0.03570317,-0.006390532,0.061020568,-0.06750465,0.023791837,0.013951462,0.0726513,-0.008469565,1.0,-1.0,-1.0,1.0,1.0,-1.0,-1.0,-1.0,-1.0,1.0,-1.0,-1.0,1.0,-1.0,-1.0,1.0,1.0,-1.0,-1.0,-1.0,-1.0,1.0,-1.0,-1.0
2025-06-04 12:27:02.699,0.042004663,0.035049614,0.00019936074,0.03736437,0.08957899,0.04207218,0.0,0.0,0.0,0.0048007313,0.060355917,-0.52341354,-0.17148128,0.13991177,0.42439678,-0.1332683,-0.08907214,-0.54686064,-0.21049257,0.09475627,-0.49022692,-0.25742862,-0.062345155,-0.045196798,0.0076866015,-0.0067135976,0.004261078,0.06219082,1.973438e-05,0.073795915,-0.013529772,-0.04869979,-0.031945553,-0.025246881,1.0,-1.0,-1.0,1.0,1.0,-1.0,-1.0,-1.0,-1.0,1.0,-1.0,-1.0,1.0,-1.0,-1.0,1.0,1.0,-1.0,-1.0,-1.0,-1.0,1.0,-1.0,-1.0
2025-06-04 12:27:02.719,0.007182598,-0.0019001338,-0.004825921,-0.008998276,0.090974964,0.012866044,0.0,0.0,0.0,0.004821952,0.06262352,-0.5207967,-0.17609619,0.14438887,0.42504105,-0.14230709,-0.07472086,-0.54454154,-0.20565167,0.08648036,-0.49488914,-0.2522917,-0.07061312,0.02704739,0.03977666,-0.061371226,-0.045709107,-0.03204342,-0.048301518,-0.0027248044,-0.039184157,0.035998818,-0.052119005,0.022381298,1.0,-1.0,-1.0,1.0,1.0,-1.0,-1.0,-1.0,-1.0,1.0,-1.0,-1.0,1.0,-1.0,-1.0,1.0,1.0,-1.0,-1.0,-1.0,-1.0,1.0,-1.0,-1.0
2025-06-04 12:27:02.738,-0.027837735,-0.021285085,-0.03473982,0.01502295,0.06705118,0.007728287,0.0,0.0,0.0,0.0048421016,0.060633734,-0.5340009,-0.1608572,0.1400059,0.42102635,-0.13338825,-0.08318199,-0.55352914,-0.20491141,0.09017932,-0.49650314,-0.26112446,-0.0713056,0.01637399,0.037868455,-0.048044384,0.0496159,-0.06998683,-0.022562707,-0.058312137,0.03413288,0.0029450029,0.064086586,-0.0065510636,1.0,-1.0,-1.0,1.0,1.0,-1.0,-1.0,-1.0,-1.0,1.0,-1.0,-1.0,1.0,-1.0,-1.0,1.0,1.0,-1.0,-1.0,-1.0,-1.0,1.0,-1.0,-1.0
2025-06-04 12:27:02.759,0.03160409,-0.019427592,-0.0044850507,0.0357004,0.07378934,-0.02344248,0.0,0.0,0.0,0.0048612864,0.06946541,-0.515111,-0.1651829,0.14677852,0.41833052,-0.12749402,-0.07860053,-0.54475987,-0.21436015,0.09829932,-0.48988643,-0.26329574,0.051212464,-0.0056928894,0.0018204477,-0.0075725815,-0.01808826,-0.069962025,-0.0060756984,-0.030953953,0.012897245,-0.043082993,0.029744025,-0.04636429,1.0,-1.0,-1.0,1.0,1.0,-1.0,-1.0,-1.0,-1.0,1.0,-1.0,-1.0,1.0,-1.0,-1.0,1.0,1.0,-1.0,-1.0,-1.0,-1.0,1.0,-1.0,-1.0
2025-06-04 12:27:02.781,0.031234626,-0.047739416,-0.021446671,0.0009988267,0.025554128,-0.037814397,0.0,0.0,0.0,0.0048795664,0.078821585,-0.5242313,-0.17876449,0.15273309,0.43036658,-0.14139795,-0.07423026,-0.5448325,-0.20843266,0.102168314,-0.49999717,-0.254021,-0.058383293,0.043342143,-0.028408622,-0.004812875,-0.03874594,-0.06318835,0.00818698,-0.014382914,-0.006000558,-0.026212571,-0.035442144,-0.00088406645,1.0,-1.0,-1.0,1.0,1.0,-1.0,-1.0,-1.0,-1.0,1.0,-1.0,-1.0,1.0,-1.0,-1.0,1.0,1.0,-1.0,-1.0,-1.0,-1.0,1.0,-1.0,-1.0
2025-06-04 12:27:02.800,-0.037788674,-0.04154284,0.032384034,0.072108954,0.09346217,0.036612384,0.0,0.0,0.0,0.004896968,0.06624472,-0.52551234,-0.1643253,0.15514535,0.42218137,-0.1389066,-0.090780675,-0.5495567,-0.21492296,0.09207513,-0.4994988,-0.26147372,0.023981135,-0.023028161,-0.055417378,0.021324277,0.07433042,0.04444882,-0.06710051,0.0024713564,0.002021032,0.038734082,-0.056734536,0.004440645,1.0,-1.0,-1.0,1.0,1.0,-1.0,-1.0,-1.0,-1.0,1.0,-1.0,-1.0,1.0,-1.0,-1.0,1.0,1.0,-1.0,-1.0,-1.0,-1.0,1.0,-1.0,-1.0
2025-06-04 12:27:02.820,-0.03881498,-0.049489185,-0.031793315,0.009196398,0.08271759,0.036945473,0.0,0.0,0.0,0.004913496,0.062877536,-0.51523376,-0.16378306,0.14456476,0.4343579,-0.14248808,-0.08896734,-0.5518845,-0.21289317,0.10435325,-0.4897598,-0.25357723,0.007929074,-0.034159373,0.036362566,-0.017461203,0.047330268,-0.06535657,-0.03904026,0.049841356,-0.0028833742,-0.06325978,-0.054144427,-0.035996374,1.0,-1.0,-1.0,1.0,1.0,-1.0,-1.0,-1.0,-1.0,1.0,-1.0,-1.0,1.0,-1.0,-1.0,1.0,1.0,-1.0,-1.0,-1.0,-1.0,1.0,-1.0,-1.0
2025-06-04 12:27:02.840,0.01533514,-0.043086782,0.03969493,0.07603677,0.083706096,0.022955425,0.0,0.0,0.0,0.0049291425,0.07489569,-0.527617,-0.17597318,0.15665832,0.42216352,-0.12961698,-0.09150516,-0.552513,-0.21189438,0.09418148,-0.4915759,-0.26468518,-0.035969097,0.0407867,0.024064975,-0.015695138,-0.07401354,-0.050794657,-0.01790725,0.012208229,-0.009990855,0.017261311,0.008281482,0.018887922,1.0,-1.0,-1.0,1.0,1.0,-1.0,-1.0,-1.0,-1.0,1.0,-1.0,-1.0,1.0,-1.0,-1.0,1.0,1.0,-1.0,-1.0,-1.0,-1.0,1.0,-1.0,-1.0
2025-06-04 12:27:02.860,0.0332864,-0.048081633,-0.02414318,0.04284948,0.093627624,0.0066780318,0.0,0.0,0.0,0.0049438956,0.059085757,-0.5194897,-0.16352543,0.1477824,0.436157,-0.13637939,-0.07524635,-0.54215145,-0.216169,0.090450935,-0.48925054,-0.26797324,0.07406929,-0.050617367,0.017659886,0.07049271,0.029834792,-0.07349947,-0.036013782,-0.006653644,0.03430543,-0.038644917,-0.068805546,0.021292863,1.0,-1.0,-1.0,1.0,1.0,-1.0,-1.0,-1.0,-1.0,1.0,-1.0,-1.0,1.0,-1.0,-1.0,1.0,1.0,-1.0,-1.0,-1.0,-1.0,1.0,-1.0,-1.0
2025-06-04 12:27:02.880,0.034296915,-0.026727341,0.03654744,0.0604609,0.03708954,-0.028605482,0.0,0.0,0.0,0.0049577416,0.06375197,-0.5350383,-0.17240599,0.14853941,0.43726808,-0.14196846,-0.09214574,-0.5396205,-0.20983265,0.08817306,-0.5064082,-0.25753078,-0.018836852,-0.07123492,0.044578616,0.063887514,0.05224499,-0.062315166,0.030766118,0.0034925041,-0.023684807,0.031374454,0.031902283,0.05386327,1.0,-1.0,-1.0,1.0,1.0,-1.0,-1.0,-1.0,-1.0,1.0,-1.0,-1.0,1.0,-1.0,-1.0,1.0,1.0,-1.0,-1.0,-1.0,-1.0,1.0,-1.0,-1.0
2025-06-04 12:27:02.900,-0.024237107,0.011657313,0.012496363,0.06431203,0.029499391,-0.04515964,0.0,0.0,0.0,0.0049706683,0.06872005,-0.5213505,-0.1691361,0.1382952,0.4349181,-0.13422985,-0.08762975,-0.5523219,-0.2054954,0.10198864,-0.5043238,-0.25793907,-0.055933077,-0.038502056,0.062060077,0.044643205,0.06852364,0.06298841,0.029198755,-0.008772396,-0.06043131,-0.004698122,0.0074819396,0.013188301,1.0,-1.0,-1.0,1.0,1.0,-1.0,-1.0,-1.0,-1.0,1.0,-1.0,-1.0,1.0,-1.0,-1.0,1.0,1.0,-1.0,-1.0,-1.0,-1.0,1.0,-1.0,-1.0
2025-06-04 12:27:02.920,-0.03485837,0.029591188,0.041273575,0.008473572,0.05833561,-0.037036948,0.0,0.0,0.0,0.0049826694,0.06970062,-0.5206252,-0.17400116,0.15186024,0.43111682,-0.14306189,-0.084612906,-0.5382381,-0.22426976,0.09540258,-0.5059828,-0.25694036,-0.02274579,-0.06298586,-0.014115568,-0.044355895,0.063203536,0.020718675,0.030391289,0.022551704,-0.0019661426,-0.06900807,0.005702441,-0.034692425,1.0,-1.0,-1.0,1.0,1.0,-1.0,-1.0,-1.0,-1.0,1.0,-1.0,-1.0,1.0,-1.0,-1.0,1.0,1.0,-1.0,-1.0,-1.0,-1.0,1.0,-1.0,-1.0
2025-06-04 12:27:02.939,0.033572834,0.02047821,-0.0037793415,-0.011639136,0.04012425,-0.037848726,0.0,0.0,0.0,0.0049937447,0.07315818,-0.533627,-0.16379999,0.15462703,0.43767923,-0.14190298,-0.07472314,-0.55024683,-0.2209935,0.101492316,-0.5046289,-0.25261024,0.049217496,-0.049678482,-0.01813701,0.0630918,0.006495576,-0.03748487,-0.0500649,-0.039398912,0.02399201,0.015432028,0.05321355,-0.019415902,1.0,-1.0,-1.0,1.0,1.0,-1.0,-1.0,-1.0,-1.0,1.0,-1.0,-1.0,1.0,-1.0,-1.0,1.0,1.0,-1.0,-1.0,-1.0,-1.0,1.0,-1.0,-1.0
2025-06-04 12:27:02.960,0.042057574,-0.023936909,0.030539364,0.037753865,-0.0036105202,0.017396642,0.0,0.0,0.0,0.005003901,0.06067005,-0.5166164,-0.1605715,0.1489672,0.42488295,-0.1419391,-0.07497732,-0.537252,-0.20732644,0.105339326,-0.49816942,-0.2526956,0.01036177,-0.06220992,0.054152805,-0.028938584,0.0013492827,-0.013787993,0.04084549,-0.033352785,-0.017730655,-0.021475865,-0.03311402,-0.03082833,1.0,-1.0,-1.0,1.0,1.0,-1.0,-1.0,-1.0,-1.0,1.0,-1.0,-1.0,1.0,-1.0,-1.0,1.0,1.0,-1.0,-1.0,-1.0,-1.0,1.0,-1.0,-1.0
2025-06-04 12:27:02.981,0.031004999,-0.0037275774,-0.034179367,0.079217024,0.07216019,-0.017513826,0.0,0.0,0.0,0.005013156,0.061813265,-0.5200109,-0.16027682,0.15174246,0.43446428,-0.14428756,-0.083741374,-0.5536122,-0.21447991,0.098806635,-0.4892375,-0.2631214,-0.054097712,-0.039396685,0.026842538,-0.008823013,-0.014677162,0.034131855,-0.04310607,0.028448611,-0.054343868,0.025482947,0.018869802,-0.013426349,1.0,-1.0,-1.0,1.0,1.0,-1.0,-1.0,-1.0,-1.0,1.0,-1.0,-1.0,1.0,-1.0,-1.0,1.0,1.0,-1.0,-1.0,-1.0,-1.0,1.0,-1.0,-1.0
2025-06-04 12:27:03.000,-0.030995019,0.015655255,0.04321401,0.026645074,0.029093992,0.039890744,0.0,0.0,0.0,0.0050215344,0.07759126,-0.52919596,-0.15933289,0.14926836,0.42930505,-0.13210396,-0.092633486,-0.5424725,-0.2166618,0.100062124,-0.5002472,-0.2622188,-0.02663713,0.06876383,0.059001345,-0.04530959,0.031322036,-0.07480398,-0.014760551,-0.06958046,-0.018854303,-0.025700174,-0.029712994,-0.06477568,1.0,-1.0,-1.0,1.0,1.0,-1.0,-1.0,-1.0,-1.0,1.0,-1.0,-1.0,1.0,-1.0,-1.0,1.0,1.0,-1.0,-1.0,-1.0,-1.0,1.0,-1.0,-1.0
2025-06-04 12:27:03.019,-0.04182855,-0.011308427,-0.03829318,0.023773985,0.061009075,0.028583486,0.0,0.0,0.0,0.0050290683,0.078868434,-0.5201257,-0.16765405,0.13915025,0.42070112,-0.14003725,-0.07931245,-0.55315834,-0.20528309,0.09963353,-0.4908038,-0.26484844,-0.014328111,0.039659936,-0.029087888,0.05161725,-0.061165076,0.04753379,0.0018528928,0.04036747,-0.07286825,-0.044448297,0.0005694884,-0.0028282336,1.0,-1.0,-1.0,1.0,1.0,-1.0,-1.0,-1.0,-1.0,1.0,-1.0,-1.0,1.0,-1.0,-1.0,1.0,1.0,-1.0,-1.0,-1.0,-1.0,1.0,-1.0,-1.0
2025-06-04 12:27:03.040,-0.050034102,0.0022875797,-0.0058337026,0.07049721,0.030127794,-0.0017954557,0.0,0.0,0.0,0.0050357967,0.059197806,-0.5218303,-0.17246793,0.15429077,0.43049228,-0.13068,-0.085159734,-0.53907037,-0.21498409,0.09211753,-0.498504,-0.24860735,0.004767775,-0.018471787,0.03245846,0.068127066,0.01744607,-0.067510165,0.037087265,0.040564466,-0.029984562,0.024316797,-0.010465612,0.064039834,1.0,-1.0,-1.0,1.0,1.0,-1.0,-1.0,-1.0,-1.0,1.0,-1.0,-1.0,1.0,-1.0,-1.0,1.0,1.0,-1.0,-1.0,-1.0,-1.0,1.0,-1.0,-1.0
2025-06-04 12:27:03.059,-0.035128485,-0.04776186,0.0027252885,0.0025452543,0.05741003,-0.045043945,0.0,0.0,0.0,0.0050417655,0.07003898,-0.52045196,-0.17778656,0.14897719,0.43378827,-0.14189526,-0.0844398,-0.53699535,-0.20938891,0.10490964,-0.5030422,-0.26206422,0.05127745,-0.01600734,-0.058849994,-0.0081000645,0.058125895,0.013332309,0.004634698,-0.024792591,-0.03722985,-0.022619443,0.05908838,0.03007441,1.0,-1.0,-1.0,1.0,1.0,-1.0,-1.0,-1.0,-1.0,1.0,-1.0,-1.0,1.0,-1.0,-1.0,1.0,1.0,-1.0,-1.0,-1.0,-1.0,1.0,-1.0,-1.0
2025-06-04 12:27:03.080,-0.029399062,-0.0027240694,-0.02481606,0.0799405,0.07176297,-0.03333578,0.0,0.0,0.0,0.0050470233,0.07839193,-0.5218375,-0.1685917,0.15115114,0.4213669,-0.14219351,-0.08509067,-0.55291146,-0.22430892,0.10166428,-0.4992978,-0.26481688,0.06993002,-0.07302236,0.058971435,0.0037357335,0.043274086,-0.0598847,0.045577355,-0.027984643,-0.025313795,-0.03185203,-0.038008306,-0.020265074,1.0,-1.0,-1.0,1.0,1.0,-1.0,-1.0,-1.0,-1.0,1.0,-1.0,-1.0,1.0,-1.0,-1.0,1.0,1.0,-1.0,-1.0,-1.0,-1.0,1.0,-1.0,-1.0
2025-06-04 12:27:03.100,-0.03819671,0.011015879,0.016008887,0.032520033,0.018087737,0.0053217956,0.0,0.0,0.0,0.005051623,0.059558723,-0.5263998,-0.16078134,0.15628307,0.4362783,-0.13137685,-0.08549936,-0.5418641,-0.21936786,0.10135533,-0.4877808,-0.24951443,-0.07172774,0.061146,-0.032634053,-0.025872603,0.028466549,0.04680439,-0.0060656685,0.015238133,0.061137166,0.04694441,0.0033443333,0.013828322,1.0,-1.0,-1.0,1.0,1.0,-1.0,-1.0,-1.0,-1.0,1.0,-1.0,-1.0,1.0,-1.0,-1.0,1.0,1.0,-1.0,-1.0,-1.0,-1.0,1.0,-1.0,-1.0
2025-06-04 12:27:03.120,-0.006647364,-0.044358864,-0.04901656,-0.001796348,0.024885759,-0.0018438372,0.0,0.0,0.0,0.005055619,0.060338367,-0.5285235,-0.17171755,0.15518281,0.43711445,-0.12835613,-0.086834386,-0.54280365,-0.21867478,0.09668297,-0.49710682,-0.26052544,-0.059993178,0.03797117,0.06452129,0.058628112,0.064867355,-0.059786018,0.03902405,0.006212396,-0.05717476,0.04928056,-0.03238542,0.045441724,1.0,-1.0,-1.0,1.0,1.0,-1.0,-1.0,-1.0,-1.0,1.0,-1.0,-1.0,1.0,-1.0,-1.0,1.0,1.0,-1.0,-1.0,-1.0,-1.0,1.0,-1.0,-1.0
2025-06-04 12:27:03.140,-0.0074759647,-0.037124507,0.012914516,0.058281887,-0.0037365605,0.032539193,0.0,0.0,0.0,0.0050590653,0.06868077,-0.519069,-0.16505128,0.15060307,0.43939525,-0.13551407,-0.07958639,-0.54688865,-0.21191125,0.092349246,-0.5023856,-0.25366402,-0.03955338,0.03169621,0.042356584,-0.047695465,0.042920247,0.028849548,0.07122699,0.023476351,0.014875498,0.046403002,0.036326133,0.03615482,1.0,-1.0,-1.0,1.0,1.0,-1.0,-1.0,-1.0,-1.0,1.0,-1.0,-1.0,1.0,-1.0,-1.0,1.0,1.0,-1.0,-1.0,-1.0,-1.0,1.0,-1.0,-1.0
2025-06-04 12:27:03.160,0.025048366,0.01890322,-0.018484816,0.021322971,0.060233135,0.021645106,0.0,0.0,0.0,0.005062017,0.063986905,-0.52540904,-0.16907789,0.15440142,0.43197635,-0.14086962,-0.08745494,-0.55019,-0.22294413,0.09870087,-0.48975438,-0.2498721,-0.001534931,-0.07322534,0.05877223,-0.052634235,0.041149244,-0.06994337,-0.051418345,-0.065632075,0.032670557,0.04942839,-0.013728261,-0.026578682,1.0,-1.0,-1.0,1.0,1.0,-1.0,-1.0,-1.0,-1.0,1.0,-1.0,-1.0,1.0,-1.0,-1.0,1.0,1.0,-1.0,-1.0,-1.0,-1.0,1.0,-1.0,-1.0
2025-06-04 12:27:03.180,-0.035664383,0.028064951,-0.049850326,0.0017588004,0.08750175,-0.032298483,0.0,0.0,0.0,0.0050645266,0.06599491,-0.5341109,-0.16259886,0.15503111,0.4373157,-0.13540685,-0.080422126,-0.55427295,-0.20539099,0.08946626,-0.50369805,-0.2550548,-0.03944567,0.012544637,0.027208796,-0.05831738,0.014265544,0.018169574,-0.05671998,0.029420793,0.064728744,0.01982397,-0.019867776,0.0083286,1.0,-1.0,-1.0,1.0,1.0,-1.0,-1.0,-1.0,-1.0,1.0,-1.0,-1.0,1.0,-1.0,-1.0,1.0,1.0,-1.0,-1.0,-1.0,-1.0,1.0,-1.0,-1.0
2025-06-04 12:27:03.200,-0.01698119,0.0040562167,-0.024751442,0.0490939,0.04363912,-0.044548236,0.0,0.0,0.0,0.005066645,0.07859266,-0.52318543,-0.17608613,0.14752355,0.43538898,-0.12676476,-0.078255616,-0.553168,-0.22213583,0.098968126,-0.5057155,-0.2567605,-0.001699447,0.031839803,-0.04466899,-0.061207782,-0.026134355,0.00639065,-0.009013382,-0.068415396,0.05057782,0.051785517,-0.018275805,-0.039098192,1.0,-1.0,-1.0,1.0,1.0,-1.0,-1.0,-1.0,-1.0,1.0,-1.0,-1.0,1.0,-1.0,-1.0,1.0,1.0,-1.0,-1.0,-1.0,-1.0,1.0,-1.0,-1.0
2025-06-04 12:27:03.220,-0.048528615,0.043456342,-0.0024354635,0.0631673,0.023714824,-0.0059668156,0.0,0.0,0.0,0.0050684204,0.07032683,-0.52120864,-0.17328705,0.14916712,0.4364591,-0.13685673,-0.09202337,-0.5503228,-0.22433475,0.10049938,-0.49070764,-0.26273686,0.021221962,-0.02601473,-0.009822873,-0.011641418,-0.025208505,-0.05879345,-0.0553986,0.012780505,-0.012826825,0.03794101,-0.021626538,-0.03899164,1.0,-1.0,-1.0,1.0,1.0,-1.0,-1.0,-1.0,-1.0,1.0,-1.0,-1.0,1.0,-1.0,-1.0,1.0,1.0,-1.0,-1.0,-1.0,-1.0,1.0,-1.0,-1.0
2025-06-04 12:27:03.240,-0.03919317,0.04854094,-0.011607574,0.039492723,0.08191239,-0.015514766,0.0,0.0,0.0,0.0050698975,0.07606007,-0.5339579,-0.17105404,0.14670241,0.423858,-0.13107476,-0.091293655,-0.5406019,-0.21093261,0.09519679,-0.50455755,-0.25966558,0.0528311,0.00058582664,0.019105645,0.06324195,0.010105878,0.046530478,-0.025629,-0.026803453,0.034251336,0.059220135,0.008372896,0.04333693,1.0,-1.0,-1.0,1.0,1.0,-1.0,-1.0,-1.0,-1.0,1.0,-1.0,-1.0,1.0,-1.0,-1.0,1.0,1.0,-1.0,-1.0,-1.0,-1.0,1.0,-1.0,-1.0
2025-06-04 12:27:03.265,-0.037042197,-0.0145408735,0.015272183,0.06307952,0.008017132,0.030396849,0.0,0.0,0.0,0.0050711185,0.066887304,-0.5261721,-0.16205233,0.14773628,0.4370764,-0.1286927,-0.08869548,-0.5509921,-0.21611206,0.10248804,-0.50544363,-0.25621927,0.051836118,0.06357935,-0.059241842,0.0056061456,-0.02251629,0.042878583,0.020209944,-0.048138443,0.028085675,-0.022500789,-0.05138625,-0.044344276,1.0,-1.0,-1.0,1.0,1.0,-1.0,-1.0,-1.0,-1.0,1.0,-1.0,-1.0,1.0,-1.0,-1.0,1.0,1.0,-1.0,-1.0,-1.0,-1.0,1.0,-1.0,-1.0
2025-06-04 12:27:03.280,0.018661296,-0.034381818,0.043668345,0.0077265017,0.041544165,-0.030216295,0.0,0.0,0.0,0.00507212,0.060527515,-0.5239784,-0.1724876,0.13860805,0.43814293,-0.12665278,-0.08065767,-0.5426098,-0.20746528,0.09540533,-0.49917528,-0.26609918,-0.06029513,-0.0037388445,0.037785105,0.044001505,-0.020181075,0.03378215,0.0058297496,0.0002809678,0.04987849,-0.06250283,-0.009935263,0.060605723,1.0,-1.0,-1.0,1.0,1.0,-1.0,-1.0,-1.0,-1.0,1.0,-1.0,-1.0,1.0,-1.0,-1.0,1.0,1.0,-1.0,-1.0,-1.0,-1.0,1.0,-1.0,-1.0
2025-06-04 12:27:03.301,0.028835945,-0.0073133875,-0.049791537,-0.014503121,0.07158056,0.031963907,0.0,0.0,0.0,0.005072938,0.070368685,-0.52489173,-0.17578478,0.14147162,0.43155572,-0.1391325,-0.077621005,-0.5519223,-0.22311924,0.09868176,-0.48760375,-0.2629406,-0.027820894,0.045527358,-0.051783487,0.00034281757,0.029419998,0.023313075,-0.07119558,-0.018843835,0.003578075,0.07483424,-0.067286134,0.04160698,1.0,-1.0,-1.0,1.0,1.0,-1.0,-1.0,-1.0,-1.0,1.0,-1.0,-1.0,1.0,-1.0,-1.0,1.0,1.0,-1.0,-1.0,-1.0,-1.0,1.0,-1.0,-1.0
2025-06-04 12:27:03.320,0.032281283,0.036614798,-0.025287656,0.024124004,0.030855121,-0.021673447,0.0,0.0,0.0,0.0050736014,0.07779576,-0.5160598,-0.17649291,0.15036842,0.42568356,-0.13899636,-0.08032419,-0.5443858,-0.2232824,0.09310541,-0.5065474,-0.24995872,-0.064138606,0.050328262,-0.063028656,-0.02385472,-0.042288557,-0.06294029,-0.06748266,-0.031821795,-0.06467645,0.019126488,0.02768566,0.0031737394,1.0,-1.0,-1.0,1.0,1.0,-1.0,-1.0,-1.0,-1.0,1.0,-1.0,-1.0,1.0,-1.0,-1.0,1.0,1.0,-1.0,-1.0,-1.0,-1.0,1.0,-1.0,-1.0
2025-06-04 12:27:03.341,-0.04337589,0.0051395833,0.0191352,0.07519402,0.046065144,-0.0030290692,0.0,0.0,0.0,0.005074138,0.061004236,-0.5244791,-0.15999362,0.1507309,0.43939427,-0.12642659,-0.087552935,-0.5369076,-0.22328216,0.10032689,-0.49390393,-0.25414574,-0.06747806,0.008785103,0.05418711,0.027919473,0.05393835,-0.022178086,0.0008069991,-0.033340424,0.074215434,0.009524814,0.07298432,-0.012718067,1.0,-1.0,-1.0,1.0,1.0,-1.0,-1.0,-1.0,-1.0,1.0,-1.0,-1.0,1.0,-1.0,-1.0,1.0,1.0,-1.0,-1.0,-1.0,-1.0,1.0,-1.0,-1.0
2025-06-04 12:27:03.364,-0.04340681,0.029823646,-0.040365454,0.07225535,0.08571259,-0.023113506,0.0,0.0,0.0,0.005074571,0.0713261,-0.5320262,-0.15983467,0.15147609,0.44039252,-0.14218268,-0.084118634,-0.539762,-0.20666057,0.09007874,-0.5008459,-0.2615642,0.021320645,-0.07423461,0.01578255,-0.042152878,-0.063553974,-0.018322982,-0.031955115,-0.018953068,-0.008714126,-0.07474449,-0.0073129605,0.018491412,1.0,-1.0,-1.0,1.0,1.0,-1.0,-1.0,-1.0,-1.0,1.0,-1.0,-1.0,1.0,-1.0,-1.0,1.0,1.0,-1.0,-1.0,-1.0,-1.0,1.0,-1.0,-1.0
2025-06-04 12:27:03.381,0.031966917,0.041742917,0.014454763,0.02546196,0.072108544,0.021108087,0.0,0.0,0.0,0.0050749206,0.07186146,-0.5216066,-0.17649786,0.14416528,0.42461747,-0.13973881,-0.0864328,-0.55562395,-0.2060359,0.10179466,-0.49620682,-0.25165617,-0.054347783,0.007117993,0.06597467,0.010915209,0.011730536,0.06442871,-0.030952297,0.008121703,0.06075365,-0.058600962,0.038332473,-0.0509206,1.0,-1.0,-1.0,1.0,1.0,-1.0,-1.0,-1.0,-1.0,1.0,-1.0,-1.0,1.0,-1.0,-1.0,1.0,1.0,-1.0,-1.0,-1.0,-1.0,1.0,-1.0,-1.0
2025-06-04 12:27:03.401,-0.0037908675,-0.0007240655,-0.0031027177,-0.017731143,-0.0006735245,0.029445387,0.0,0.0,0.0,0.005075204,0.06827634,-0.5353844,-0.17749996,0.14060704,0.43097398,-0.14287892,-0.09217375,-0.5530828,-0.2239441,0.098816544,-0.50302714,-0.2614955,0.044103205,-0.04405215,0.027216518,-0.038576353,-0.061043873,0.04916856,0.04381008,-0.033989474,0.058566876,-0.030957073,-0.027860243,0.060121648,1.0,-1.0,-1.0,1.0,1.0,-1.0,-1.0,-1.0,-1.0,1.0,-1.0,-1.0,1.0,-1.0,-1.0,1.0,1.0,-1.0,-1.0,-1.0,-1.0,1.0,-1.0,-1.0
2025-06-04 12:27:03.421,0.023656674,-0.038763124,-0.03561488,0.071771026,0.056634784,0.02311382,0.0,0.0,0.0,0.005075436,0.07824768,-0.5161456,-0.17556474,0.1527469,0.43868607,-0.14153847,-0.07673495,-0.54065144,-0.21039656,0.09794708,-0.49357748,-0.25691447,0.04716899,0.011468787,-0.028945511,0.036736324,-0.026340026,-0.05615197,0.05775743,0.044410367,-0.028984634,-0.05747427,-0.029469462,0.022238562,1.0,-1.0,-1.0,1.0,1.0,-1.0,-1.0,-1.0,-1.0,1.0,-1.0,-1.0,1.0,-1.0,-1.0,1.0,1.0,-1.0,-1.0,-1.0,-1.0,1.0,-1.0,-1.0
2025-06-04 12:27:03.441,0.044906367,0.00610979,0.02483504,0.07162012,0.08592378,0.033428233,0.0,0.0,0.0,0.005075628,0.061860535,-0.53320175,-0.17290874,0.14538442,0.43751818,-0.14142527,-0.08192308,-0.55035424,-0.22270995,0.09482691,-0.49670652,-0.26481313,-0.05568903,0.067775704,0.0015302077,0.0365423,-0.06260312,-0.07331918,0.015751237,-0.0020150624,-0.04373911,-0.044802316,-0.051823474,0.038070403,1.0,-1.0,-1.0,1.0,1.0,-1.0,-1.0,-1.0,-1.0,1.0,-1.0,-1.0,1.0,-1.0,-1.0,1.0,1.0,-1.0,-1.0,-1.0,-1.0,1.0,-1.0,-1.0
2025-06-04 12:27:03.464,0.0326125,0.018146036,0.0133035965,0.006738853,0.015659919,-0.04505982,0.0,0.0,0.0,0.0050757905,0.066168495,-0.52263933,-0.1787703,0.15196204,0.42223305,-0.1291457,-0.09038939,-0.541672,-0.21778025,0.09711282,-0.4940943,-0.2596894,0.05927856,-0.0014361761,0.049842056,-0.071464464,0.06544465,-0.043045204,-0.051362317,0.029439567,-0.02289345,0.02208297,-0.028170662,0.06495981,1.0,-1.0,-1.0,1.0,1.0,-1.0,-1.0,-1.0,-1.0,1.0,-1.0,-1.0,1.0,-1.0,-1.0,1.0,1.0,-1.0,-1.0,-1.0,-1.0,1.0,-1.0,-1.0
2025-06-04 12:27:03.482,-0.02326165,0.013840555,-0.038945314,0.008847162,0.014170407,-0.04772186,0.0,0.0,0.0,0.00507593,0.07689007,-0.52638996,-0.17005225,0.15436916,0.4363795,-0.12966548,-0.07815403,-0.54713917,-0.21623449,0.09283719,-0.49907133,-0.25742117,-0.06653535,0.005337563,-0.022463,-0.026472475,-0.023583794,0.057329055,0.02795075,0.030587763,0.043100327,-0.06438729,0.067719385,-0.029457081,1.0,-1.0,-1.0,1.0,1.0,-1.0,-1.0,-1.0,-1.0,1.0,-1.0,-1.0,1.0,-1.0,-1.0,1.0,1.0,-1.0,-1.0,-1.0,-1.0,1.0,-1.0,-1.0
2025-06-04 12:27:03.502,0.0126921255,-0.02231767,0.03299508,-0.013467637,0.017201582,0.02596006,0.0,0.0,0.0,0.005076054,0.07116726,-0.5319986,-0.16178373,0.14487118,0.4383143,-0.14248776,-0.079111405,-0.54565537,-0.20713598,0.08967845,-0.4977192,-0.26562467,-0.030226998,-0.074491404,0.028416038,-0.008677804,-0.07493989,-0.042324845,-0.06837316,0.05204192,-0.059476625,-0.045299593,-0.048490606,-0.033567473,1.0,-1.0,-1.0,1.0,1.0,-1.0,-1.0,-1.0,-1.0,1.0,-1.0,-1.0,1.0,-1.0,-1.0,1.0,1.0,-1.0,-1.0,-1.0,-1.0,1.0,-1.0,-1.0
2025-06-04 12:27:03.522,0.023901405,-0.021444054,-0.017917339,0.027751507,0.093790896,-0.044133488,0.0,0.0,0.0,0.0050761662,0.059757575,-0.52066875,-0.17210121,0.14252675,0.43038234,-0.13996483,-0.08692287,-0.5443561,-0.21182808,0.08850048,-0.49479637,-0.26561064,-0.036213774,0.002658301,-0.023662351,0.06290824,0.055092487,0.031702794,0.0074312636,-0.068169646,0.068616375,0.0028093357,-0.021817407,0.028946657,1.0,-1.0,-1.0,1.0,1.0,-1.0,-1.0,-1.0,-1.0,1.0,-1.0,-1.0,1.0,-1.0,-1.0,1.0,1.0,-1.0,-1.0,-1.0,-1.0,1.0,-1.0,-1.0
2025-06-04 12:27:03.542,0.042352363,0.032388233,-0.01774302,0.008556331,0.0017055261,0.048426345,0.0,0.0,0.0,0.0050762706,0.077256456,-0.5199652,-0.16055267,0.14673622,0.4222983,-0.1453993,-0.094406694,-0.5511352,-0.21745275,0.09681766,-0.50399464,-0.25196537,-0.006054732,0.022817124,0.07102451,-0.06490097,0.031778753,0.02664125,0.015819276,-0.0065668263,0.04450117,-0.0327116,0.050832607,-0.0010708601,1.0,-1.0,-1.0,1.0,1.0,-1.0,-1.0,-1.0,-1.0,1.0,-1.0,-1.0,1.0,-1.0,-1.0,1.0,1.0,-1.0,-1.0,-1.0,-1.0,1.0,-1.0,-1.0
2025-06-04 12:27:03.564,-0.04434434,0.025211293,-0.029498242,0.027458007,0.091786645,0.03252182,0.0,0.0,0.0,0.0050763693,0.07592964,-0.51805806,-0.15937224,0.1535342,0.42766133,-0.14277841,-0.08567558,-0.5393043,-0.22342412,0.09583296,-0.5066485,-0.2558362,-0.03076695,-0.052853517,-0.0053193765,0.0523819,0.074336946,0.0073078503,0.03602247,-0.0010969638,-0.06384006,0.0055196495,-0.02321269,-0.030069187,1.0,-1.0,-1.0,1.0,1.0,-1.0,-1.0,-1.0,-1.0,1.0,-1.0,-1.0,1.0,-1.0,-1.0,1.0,1.0,-1.0,-1.0,-1.0,-1.0,1.0,-1.0,-1.0
2025-06-04 12:27:03.583,-0.01945319,0.009265884,-0.0217086,0.035145175,0.008331433,0.018491788,0.0,0.0,0.0,0.0050764643,0.06456999,-0.5246064,-0.16673723,0.15232977,0.43242294,-0.13639712,-0.09403699,-0.55190885,-0.20962101,0.104426846,-0.4877181,-0.24812207,-0.07112067,-0.020989705,-0.061220367,-0.058570735,-0.0039849505,0.054965463,-0.003593077,0.04342785,0.0339748,-0.011202219,-0.0046119946,0.007736121,1.0,-1.0,-1.0,1.0,1.0,-1.0,-1.0,-1.0,-1.0,1.0,-1.0,-1.0,1.0,-1.0,-1.0,1.0,1.0,-1.0,-1.0,-1.0,-1.0,1.0,-1.0,-1.0
2025-06-04 12:27:03.603,-0.04137699,-0.0027156295,0.0062648114,-0.015442191,0.0034653854,0.043156784,0.0,0.0,0.0,0.0050765565,0.063789845,-0.53301764,-0.16986877,0.14808059,0.42739904,-0.13056801,-0.08188306,-0.54165,-0.21667232,0.09345365,-0.5058442,-0.25765455,0.051991623,-0.04930371,-0.07345479,-0.045602445,-0.060333133,0.031790733,0.038129527,-0.030304309,0.0659333,-0.0023876969,0.026007175,-0.0149287265,1.0,-1.0,-1.0,1.0,1.0,-1.0,-1.0,-1.0,-1.0,1.0,-1.0,-1.0,1.0,-1.0,-1.0,1.0,1.0,-1.0,-1.0,-1.0,-1.0,1.0,-1.0,-1.0
2025-06-04 12:27:03.623,0.042058732,-0.011345773,-0.04757063,0.042509597,0.08130438,0.04221233,0.0,0.0,0.0,0.0050766463,0.05998996,-0.5162217,-0.16208927,0.14173733,0.43353498,-0.14219804,-0.09315506,-0.5455143,-0.20886636,0.1046481,-0.49724168,-0.26602328,-0.017100176,0.036283266,0.023207825,0.06160746,-0.031914685,0.028709179,-0.0502494,0.05444449,-0.05808917,-0.028849354,0.0063220626,-0.018719938,1.0,-1.0,-1.0,1.0,1.0,-1.0,-1.0,-1.0,-1.0,1.0,-1.0,-1.0,1.0,-1.0,-1.0,1.0,1.0,-1.0,-1.0,-1.0,-1.0,1.0,-1.0,-1.0
2025-06-04 12:27:03.646,0.044803858,-0.010973712,0.0027032604,0.062154237,0.065362394,0.03478179,0.0,0.0,0.0,0.0050767343,0.077679284,-0.5192987,-0.17348585,0.15188074,0.43902707,-0.13783869,-0.080398746,-0.55225843,-0.20870677,0.09832418,-0.4955399,-0.25689828,-0.019422589,0.06861927,0.02019781,0.03235427,0.057073165,-0.03436897,0.05800358,0.03207989,-0.068978205,0.053052753,-0.032468975,-0.04909186,1.0,-1.0,-1.0,1.0,1.0,-1.0,-1.0,-1.0,-1.0,1.0,-1.0,-1.0,1.0,-1.0,-1.0,1.0,1.0,-1.0,-1.0,-1.0,-1.0,1.0,-1.0,-1.0
2025-06-04 12:27:03.663,-0.015500214,-0.033521146,0.03365553,0.074048884,0.08716487,0.0033109747,0.0,0.0,0.0,0.00507682,0.07760339,-0.53381294,-0.17881818,0.13918568,0.4217839,-0.14589703,-0.079230584,-0.54272676,-0.22059986,0.0946171,-0.5035569,-0.2520707,-0.0682722,0.06966232,-0.040946756,0.060558803,-0.066109814,-0.02083075,0.009928884,0.046276767,-0.014661781,0.044812232,0.03946718,0.014702937,1.0,-1.0,-1.0,1.0,1.0,-1.0,-1.0,-1.0,-1.0,1.0,-1.0,-1.0,1.0,-1.0,-1.0,1.0,1.0,-1.0,-1.0,-1.0,-1.0,1.0,-1.0,-1.0
2025-06-04 12:27:03.683,0.005087898,0.005899092,-0.016105749,0.0781123,-0.0030847285,0.0072731725,0.0,0.0,0.0,0.005076903,0.063581966,-0.5350948,-0.16574131,0.14778812,0.4326596,-0.14588061,-0.085518904,-0.54897434,-0.2083335,0.09375354,-0.4973533,-0.2625028,0.003220512,0.01325415,0.00538154,0.054974012,0.063124254,0.014718658,0.06407077,0.06570579,0.016148943,0.015600817,-0.022367142,-0.024635235,1.0,-1.0,-1.0,1.0,1.0,-1.0,-1.0,-1.0,-1.0,1.0,-1.0,-1.0,1.0,-1.0,-1.0,1.0,1.0,-1.0,-1.0,-1.0,-1.0,1.0,-1.0,-1.0
2025-06-04 12:27:03.705,-0.0004697472,0.0067134076,-0.010860071,0.039179794,0.042862583,-0.046951104,0.0,0.0,0.0,0.0050769835,0.07483899,-0.53300333,-0.16074137,0.14199527,0.4248654,-0.13324204,-0.080876455,-0.5409244,-0.20876141,0.10508803,-0.506212,-0.26759914,-0.014222782,0.018483862,0.042535808,0.0021048917,0.0017780628,0.033259965,-0.068926394,0.00025848247,-0.031042092,0.021068882,-0.0663782,0.018116659,1.0,-1.0,-1.0,1.0,1.0,-1.0,-1.0,-1.0,-1.0,1.0,-1.0,-1.0,1.0,-1.0,-1.0,1.0,1.0,-1.0,-1.0,-1.0,-1.0,1.0,-1.0,-1.0
2025-06-04 12:27:03.723,0.016015923,-0.04720957,0.01643211,0.017486557,0.08236287,-0.009187194,0.0,0.0,0.0,0.0050770603,0.06896343,-0.516995,-0.17312685,0.15464228,0.43531486,-0.14041556,-0.083097816,-0.5402953,-0.22401164,0.10219931,-0.50261104,-0.2581092,-0.06890218,0.024807109,0.06516136,-0.06798973,0.059856135,-0.022287231,0.030549493,0.039691042,-0.0075124376,0.049635977,-0.05577077,0.026395883,1.0,-1.0,-1.0,1.0,1.0,-1.0,-1.0,-1.0,-1.0,1.0,-1.0,-1.0,1.0,-1.0,-1.0,1.0,1.0,-1.0,-1.0,-1.0,-1.0,1.0,-1.0,-1.0
2025-06-04 12:27:03.747,0.021773413,-0.04962441,-0.013682746,0.051917434,0.005245319,0.039139256,0.0,0.0,0.0,0.005077134,0.06706724,-0.5209819,-0.1684398,0.14046173,0.42984453,-0.14027308,-0.084886804,-0.5460939,-0.2244148,0.08984657,-0.49350202,-0.2658636,0.026321752,0.011632408,0.014404557,0.03708731,0.008304339,-0.033485778,0.011549594,-0.0049178284,0.021656115,-0.05916224,-0.056202512,-0.045946147,1.0,-1.0,-1.0,1.0,1.0,-1.0,-1.0,-1.0,-1.0,1.0,-1.0,-1.0,1.0,-1.0,-1.0,1.0,1.0,-1.0,-1.0,-1.0,-1.0,1.0,-1.0,-1.0
2025-06-04 12:27:03.764,-0.038636804,-0.01874755,-0.02169929,0.005966245,0.03845497,0.03766331,0.0,0.0,0.0,0.0050772037,0.06698871,-0.5189675,-0.17298461,0.13721392,0.43384075,-0.14328453,-0.08825289,-0.5460458,-0.22451472,0.102929324,-0.4996719,-0.24909799,0.061511524,0.024448372,0.01620133,-0.008317923,0.04973696,0.018004747,0.051993147,-0.050662626,0.06961624,0.018153492,0.028177701,-0.034938276,1.0,-1.0,-1.0,1.0,1.0,-1.0,-1.0,-1.0,-1.0,1.0,-1.0,-1.0,1.0,-1.0,-1.0,1.0,1.0,-1.0,-1.0,-1.0,-1.0,1.0,-1.0,-1.0
2025-06-04 12:27:03.783,-0.029958343,0.043558367,-0.027359016,0.073774,0.007570787,-0.030330652,0.0,0.0,0.0,0.005077269,0.059453025,-0.5313137,-0.16737643,0.15291171,0.42654115,-0.13333824,-0.07926835,-0.5539926,-0.22464491,0.091007434,-0.5016242,-0.2526314,-0.059131995,-0.029798493,-0.07140039,0.0019412688,0.02836547,-0.04466328,-0.03655583,0.010483872,0.036224265,0.0048133545,0.026764104,-0.048989825,1.0,-1.0,-1.0,1.0,1.0,-1.0,-1.0,-1.0,-1.0,1.0,-1.0,-1.0,1.0,-1.0,-1.0,1.0,1.0,-1.0,-1.0,-1.0,-1.0,1.0,-1.0,-1.0
2025-06-04 12:27:03.803,0.024459047,-0.007969549,-0.0117381625,0.06619482,0.080650456,-0.030990565,0.0,0.0,0.0,0.00507733,0.07191077,-0.5174479,-0.16161941,0.15546641,0.42518502,-0.13569443,-0.08988268,-0.54375666,-0.21451193,0.0902523,-0.49432135,-0.26586986,-0.010959735,-0.030198319,0.014353312,-0.053703714,0.040351663,0.06848975,-0.035498466,0.04992292,0.040890258,-0.03258456,-0.014558438,-0.064142875,1.0,-1.0,-1.0,1.0,1.0,-1.0,-1.0,-1.0,-1.0,1.0,-1.0,-1.0,1.0,-1.0,-1.0,1.0,1.0,-1.0,-1.0,-1.0,-1.0,1.0,-1.0,-1.0
2025-06-04 12:27:03.823,-0.043940604,0.036120318,-0.01703145,0.05087317,0.017864473,-0.0017947502,0.0,0.0,0.0,0.0050773867,0.06419703,-0.53073716,-0.17072652,0.14264454,0.4298317,-0.14448321,-0.08373101,-0.5368871,-0.21998036,0.091411255,-0.5019468,-0.26279768,0.0026497832,-0.033790562,0.0024103993,0.06879835,-0.06273346,0.026287533,0.053380176,-0.05696666,0.018720083,0.044639487,-0.016807202,-0.07057151,1.0,-1.0,-1.0,1.0,1.0,-1.0,-1.0,-1.0,-1.0,1.0,-1.0,-1.0,1.0,-1.0,-1.0,1.0,1.0,-1.0,-1.0,-1.0,-1.0,1.0,-1.0,-1.0
2025-06-04 12:27:03.846,0.017257888,-0.0150054125,-0.03659787,-0.017597226,0.08342176,-0.04185437,0.0,0.0,0.0,0.0050774384,0.06474482,-0.5247557,-0.16214968,0.14653325,0.4377573,-0.13866834,-0.07573606,-0.5459717,-0.21576485,0.08789165,-0.50031906,-0.2542475,-0.029928325,0.048805226,0.06901072,-0.01334278,0.058011126,-0.0030081617,0.0010685866,0.013812309,0.018066855,0.03915105,-0.061978143,0.0730052,1.0,-1.0,-1.0,1.0,1.0,-1.0,-1.0,-1.0,-1.0,1.0,-1.0,-1.0,1.0,-1.0,-1.0,1.0,1.0,-1.0,-1.0,-1.0,-1.0,1.0,-1.0,-1.0
2025-06-04 12:27:03.864,0.017949719,0.044353146,-0.025882633,-0.0006715078,0.035482634,0.013976785,0.0,0.0,0.0,0.0050774855,0.06663663,-0.5329338,-0.16684781,0.14706971,0.4256515,-0.13630295,-0.08254849,-0.5441092,-0.21799923,0.10183906,-0.5028678,-0.25402918,0.01906611,-0.033582233,-0.03205135,-0.015551531,-0.048752207,-0.042189773,0.0295726,-0.021119831,0.051245417,-0.0661072,-0.032199383,-0.0028644595,1.0,-1.0,-1.0,1.0,1.0,-1.0,-1.0,-1.0,-1.0,1.0,-1.0,-1.0,1.0,-1.0,-1.0,1.0,1.0,-1.0,-1.0,-1.0,-1.0,1.0,-1.0,-1.0
2025-06-04 12:27:03.884,0.029081104,-0.028287506,-0.036076248,0.021696731,0.019931545,-0.04203795,0.0,0.0,0.0,0.005077528,0.07661335,-0.5224259,-0.17104854,0.1383668,0.427159,-0.1283797,-0.075011216,-0.5528032,-0.21180168,0.106053226,-0.4948517,-0.25358695,-0.02301428,-0.04375433,-0.061248343,-0.04527846,0.015443038,0.004629077,0.066058494,0.06665123,-0.004516111,-0.05348025,0.036765207,-0.07059878,1.0,-1.0,-1.0,1.0,1.0,-1.0,-1.0,-1.0,-1.0,1.0,-1.0,-1.0,1.0,-1.0,-1.0,1.0,1.0,-1.0,-1.0,-1.0,-1.0,1.0,-1.0,-1.0
2025-06-04 12:27:03.903,0.036476646,0.04245181,-0.045311052,-0.018057443,0.0057221903,-0.048513636,0.0,0.0,0.0,0.005077566,0.07035845,-0.5338029,-0.16696402,0.13850248,0.4263246,-0.136685,-0.09244347,-0.54575336,-0.22451049,0.10309168,-0.4879311,-0.2661198,-0.07230371,0.0064114607,0.022305887,0.035493273,-0.00048132194,-0.04195791,-0.058582652,0.037908833,0.07436468,-0.050069693,-0.060673397,-0.059532903,1.0,-1.0,-1.0,1.0,1.0,-1.0,-1.0,-1.0,-1.0,1.0,-1.0,-1.0,1.0,-1.0,-1.0,1.0,1.0,-1.0,-1.0,-1.0,-1.0,1.0,-1.0,-1.0
2025-06-04 12:27:03.924,-0.034121484,0.009694001,-0.010158052,0.03963549,0.058084697,-0.03587729,0.0,0.0,0.0,0.0050776,0.06232341,-0.516428,-0.15942478,0.1545551,0.43029055,-0.14253888,-0.08019031,-0.55551434,-0.21199772,0.08988815,-0.4944211,-0.25870094,0.024663059,-0.054865573,-0.06212177,-0.030326199,0.04344554,-0.06990731,0.007588905,-0.064490534,-0.04412406,0.047410592,-0.02203409,-0.025916144,1.0,-1.0,-1.0,1.0,1.0,-1.0,-1.0,-1.0,-1.0,1.0,-1.0,-1.0,1.0,-1.0,-1.0,1.0,1.0,-1.0,-1.0,-1.0,-1.0,1.0,-1.0,-1.0
2025-06-04 12:27:03.947,-0.03628167,-0.018957648,-0.008724066,0.018434566,0.013780698,-0.004566734,0.0,0.0,0.0,0.00507763,0.07657312,-0.51739216,-0.17855747,0.13824336,0.42224827,-0.13432445,-0.08538984,-0.54904556,-0.20735434,0.099216565,-0.50153255,-0.25785187,0.025759213,-0.03585855,-0.06828102,-0.04957906,-0.04615519,-0.035097633,-0.0024322425,-0.007882129,-0.00980401,-0.057087716,-0.044418924,0.023339286,1.0,-1.0,-1.0,1.0,1.0,-1.0,-1.0,-1.0,-1.0,1.0,-1.0,-1.0,1.0,-1.0,-1.0,1.0,1.0,-1.0,-1.0,-1.0,-1.0,1.0,-1.0,-1.0
2025-06-04 12:27:03.964,0.02484206,0.015702898,-0.035282407,0.048052557,0.08574995,0.037477765,0.0,0.0,0.0,0.0050776554,0.06672909,-0.51896346,-0.16557741,0.13721594,0.4277537,-0.14094827,-0.092861176,-0.54864883,-0.2094913,0.10250283,-0.49360132,-0.26569453,-0.021935975,0.04941148,0.033704683,-0.041465163,0.04259034,-0.068342015,0.0012299248,0.026438981,-0.013028894,0.06216999,0.02544337,-0.030569777,1.0,-1.0,-1.0,1.0,1.0,-1.0,-1.0,-1.0,-1.0,1.0,-1.0,-1.0,1.0,-1.0,-1.0,1.0,1.0,-1.0,-1.0,-1.0,-1.0,1.0,-1.0,-1.0
2025-06-04 12:27:03.984,0.012687958,0.016370708,-0.04248292,0.060289837,0.008242185,0.0342929,0.0,0.0,0.0,0.0050776782,0.06337906,-0.5197193,-0.16814846,0.14455038,0.42732817,-0.13008717,-0.07948606,-0.54782826,-0.20724696,0.0975643,-0.49587175,-0.259801,0.0075178766,-0.026583817,-0.00026335998,-0.048195355,0.04336159,-0.040694423,0.059116118,0.025533577,-0.02755077,-0.014147527,-0.0051988903,-0.062300373,1.0,-1.0,-1.0,1.0,1.0,-1.0,-1.0,-1.0,-1.0,1.0,-1.0,-1.0,1.0,-1.0,-1.0,1.0,1.0,-1.0,-1.0,-1.0,-1.0,1.0,-1.0,-1.0
2025-06-04 12:27:04.004,0.028899927,-0.0031609763,0.035132032,0.05939797,-0.0008240246,-0.00034560187,0.0,0.0,0.0,0.0050776973,0.07129708,-0.520124,-0.17729524,0.14556718,0.4289051,-0.14360656,-0.091100834,-0.537777,-0.21510795,0.0978512,-0.48998708,-0.2614779,0.018109106,-0.043521788,0.000183947,0.014291994,0.02734907,-0.025017396,-0.05914536,0.03701229,0.030384012,0.014208523,-0.04177334,0.03515713,1.0,-1.0,-1.0,1.0,1.0,-1.0,-1.0,-1.0,-1.0,1.0,-1.0,-1.0,1.0,-1.0,-1.0,1.0,1.0,-1.0,-1.0,-1.0,-1.0,1.0,-1.0,-1.0
2025-06-04 12:27:04.024,-0.0013698699,-0.024282135,0.047177445,0.0557815,0.022330409,0.0045102513,0.0,0.0,0.0,0.0050777136,0.062804945,-0.51872504,-0.17380552,0.14176106,0.43967825,-0.13555637,-0.08860868,-0.55280966,-0.20901243,0.104534365,-0.5038119,-0.25794032,0.02542367,0.05897098,0.04589063,0.060513113,-0.039118275,-0.067049354,0.052523185,-0.04553152,-0.026882447,0.031095149,-0.0105754975,0.0656435,1.0,-1.0,-1.0,1.0,1.0,-1.0,-1.0,-1.0,-1.0,1.0,-1.0,-1.0,1.0,-1.0,-1.0,1.0,1.0,-1.0,-1.0,-1.0,-1.0,1.0,-1.0,-1.0
2025-06-04 12:27:04.047,-0.028873695,-0.032947004,-0.014114408,0.057387073,0.02789269,-0.023323307,0.0,0.0,0.0,0.005077727,0.064124316,-0.52236414,-0.16832872,0.14707123,0.42463082,-0.1349121,-0.092539616,-0.54858506,-0.21856722,0.10075775,-0.50178385,-0.26735514,-0.034755994,0.023979235,-0.04856118,-0.044368375,-0.035378784,0.05767043,0.018172536,-0.008575534,0.04321499,0.07026311,0.012883236,-0.048920043,1.0,-1.0,-1.0,1.0,1.0,-1.0,-1.0,-1.0,-1.0,1.0,-1.0,-1.0,1.0,-1.0,-1.0,1.0,1.0,-1.0,-1.0,-1.0,-1.0,1.0,-1.0,-1.0
2025-06-04 12:27:04.065,0.032518264,0.028479762,0.02332136,0.06461685,0.08740261,0.024863666,0.0,0.0,0.0,0.005077739,0.060548887,-0.5174119,-0.16452917,0.14276834,0.43143207,-0.1275512,-0.09258172,-0.55553573,-0.21160313,0.10013931,-0.50389946,-0.25881296,-0.06013326,0.025245523,-0.06686066,-0.03328927,-0.02951717,0.06933167,-0.021872392,0.05744442,0.06905618,-0.025111131,-0.0148655595,-0.0010383059,1.0,-1.0,-1.0,1.0,1.0,-1.0,-1.0,-1.0,-1.0,1.0,-1.0,-1.0,1.0,-1.0,-1.0,1.0,1.0,-1.0,-1.0,-1.0,-1.0,1.0,-1.0,-1.0
2025-06-04 12:27:04.085,-0.035088792,-0.041270673,-0.048095286,0.07566745,0.028449617,-0.04787572,0.0,0.0,0.0,0.005077748,0.06629802,-0.51975465,-0.17626083,0.13895722,0.42772767,-0.1403357,-0.09319887,-0.55253035,-0.20601037,0.10167937,-0.4982614,-0.26401618,0.005928802,0.04833126,-0.021113817,-0.07375529,-0.054291878,-0.07062716,-0.037889123,-0.0060567376,0.030785289,-0.046651285,-0.01131376,0.02714098,1.0,-1.0,-1.0,1.0,1.0,-1.0,-1.0,-1.0,-1.0,1.0,-1.0,-1.0,1.0,-1.0,-1.0,1.0,1.0,-1.0,-1.0,-1.0,-1.0,1.0,-1.0,-1.0
2025-06-04 12:27:04.104,0.03742123,-0.005284896,-0.022191277,-0.01524725,0.019641051,-0.047699127,0.0,0.0,0.0,0.0050777555,0.07665867,-0.5285475,-0.16546576,0.14855276,0.42811388,-0.12740386,-0.075713,-0.55404633,-0.20726824,0.09454423,-0.49208248,-0.25679955,0.048290547,0.06467727,0.0437401,-0.0696248,-0.012403666,0.05311332,-0.0694135,-0.00793034,0.012500188,-0.0064685466,0.036625102,0.05822543,1.0,-1.0,-1.0,1.0,1.0,-1.0,-1.0,-1.0,-1.0,1.0,-1.0,-1.0,1.0,-1.0,-1.0,1.0,1.0,-1.0,-1.0,-1.0,-1.0,1.0,-1.0,-1.0
2025-06-04 12:27:04.125,-0.01534772,-0.017339095,-0.011973848,0.025006881,0.06690603,-0.00836335,0.0,0.0,0.0,0.005077762,0.0711116,-0.51872176,-0.16940065,0.1389326,0.4289283,-0.12788282,-0.08174963,-0.5468191,-0.20640881,0.09932366,-0.49600354,-0.26135385,-0.057555,-0.031685993,-0.03144263,0.049518395,-0.032377988,-0.05248739,-0.009010162,0.0054619764,0.06934757,-0.06724282,0.027640093,-0.05721998,1.0,-1.0,-1.0,1.0,1.0,-1.0,-1.0,-1.0,-1.0,1.0,-1.0,-1.0,1.0,-1.0,-1.0,1.0,1.0,-1.0,-1.0,-1.0,-1.0,1.0,-1.0,-1.0
2025-06-04 12:27:04.147,-0.010035406,-0.00014953385,0.00921911,0.07508,0.028284537,-0.048838723,0.0,0.0,0.0,0.0050777667,0.06964311,-0.52825844,-0.17772865,0.15085907,0.43793428,-0.1374508,-0.07676209,-0.5409388,-0.22368982,0.08715474,-0.4947796,-0.24839936,-0.046661533,0.0030954464,0.020188347,-0.0259957,0.02187865,-0.03975171,-0.048762605,0.0074110655,-0.016503405,-0.07176607,0.04130701,0.045560613,1.0,-1.0,-1.0,1.0,1.0,-1.0,-1.0,-1.0,-1.0,1.0,-1.0,-1.0,1.0,-1.0,-1.0,1.0,1.0,-1.0,-1.0,-1.0,-1.0,1.0,-1.0,-1.0
2025-06-04 12:27:04.165,0.019098578,-0.026079554,0.028478917,0.045539,0.024178717,0.0034317512,0.0,0.0,0.0,0.0050777704,0.07747279,-0.5315236,-0.17686127,0.14969638,0.43408316,-0.13501462,-0.088348135,-0.54793686,-0.21355379,0.09000605,-0.4910542,-0.26362312,-0.023206733,-0.049213655,0.04231541,0.024606146,-0.05807582,-0.008408364,0.0138308285,-0.03384704,-0.0041932277,0.051228963,0.061887503,0.0030530328,1.0,-1.0,-1.0,1.0,1.0,-1.0,-1.0,-1.0,-1.0,1.0,-1.0,-1.0,1.0,-1.0,-1.0,1.0,1.0,-1.0,-1.0,-1.0,-1.0,1.0,-1.0,-1.0
2025-06-04 12:27:04.187,-0.04043865,0.017198224,-0.023061236,0.0708469,0.020571815,-0.02104213,0.0,0.0,0.0,0.0050777732,0.063334405,-0.52835715,-0.16459318,0.15242967,0.43029594,-0.13188133,-0.08810836,-0.5400254,-0.20530283,0.090934575,-0.5014465,-0.25473654,-0.060062863,0.060129836,0.06537335,-0.04746701,0.028251836,0.02709414,0.04437076,-0.02529868,0.038117025,-0.00018565284,-0.059228446,0.0061487597,1.0,-1.0,-1.0,1.0,1.0,-1.0,-1.0,-1.0,-1.0,1.0,-1.0,-1.0,1.0,-1.0,-1.0,1.0,1.0,-1.0,-1.0,-1.0,-1.0,1.0,-1.0,-1.0
2025-06-04 12:27:04.206,0.0036353897,0.035820942,0.02569546,0.04197426,0.077509366,-0.008143746,0.0,0.0,0.0,0.0050777756,0.060761437,-0.5340896,-0.1765637,0.14538711,0.43361512,-0.14017732,-0.09223186,-0.55230194,-0.20791253,0.09364499,-0.5042912,-0.25528657,0.06633998,0.046663318,0.063031495,0.059459455,0.026531868,-0.022055898,-0.032517634,-0.019911593,-0.0028244574,0.023506934,0.012166497,-0.027123643,1.0,-1.0,-1.0,1.0,1.0,-1.0,-1.0,-1.0,-1.0,1.0,-1.0,-1.0,1.0,-1.0,-1.0,1.0,1.0,-1.0,-1.0,-1.0,-1.0,1.0,-1.0,-1.0
2025-06-04 12:27:04.225,-0.0051035606,0.0063505475,0.007687255,0.034756146,0.071821086,-0.025377838,0.0,0.0,0.0,0.0050777774,0.07241313,-0.5181074,-0.17621416,0.15479906,0.44062173,-0.13546607,-0.094741926,-0.54971635,-0.20733586,0.09769792,-0.4956108,-0.2522343,-0.06304412,-0.0026663535,-0.060973123,0.070657946,-0.057773463,0.049184483,-0.04410483,-0.01717325,0.030452462,-0.036369663,0.036413305,0.013787081,1.0,-1.0,-1.0,1.0,1.0,-1.0,-1.0,-1.0,-1.0,1.0,-1.0,-1.0,1.0,-1.0,-1.0,1.0,1.0,-1.0,-1.0,-1.0,-1.0,1.0,-1.0,-1.0
2025-06-04 12:27:04.247,0.0028420482,0.011766954,0.02413691,0.044387583,0.076187365,0.0063631996,0.0,0.0,0.0,0.0050777784,0.07523664,-0.5271077,-0.17566995,0.13702402,0.44123045,-0.13233028,-0.083648644,-0.54220164,-0.20639575,0.10481413,-0.49277568,-0.2559912,-0.037548188,-0.056011416,0.069510415,-0.06561999,0.04722196,-0.07397295,0.028096551,0.032403745,0.04205752,-0.010784291,-0.0055453666,0.06491439,1.0,-1.0,-1.0,1.0,1.0,-1.0,-1.0,-1.0,-1.0,1.0,-1.0,-1.0,1.0,-1.0,-1.0,1.0,1.0,-1.0,-1.0,-1.0,-1.0,1.0,-1.0,-1.0
2025-06-04 12:27:04.265,-0.038627982,-0.029080544,0.043371852,0.057492565,-0.0015545829,0.035320733,0.0,0.0,0.0,0.0050777793,0.059303276,-0.5350346,-0.16419731,0.15374558,0.43442845,-0.13968809,-0.09135935,-0.54078656,-0.21896514,0.0952321,-0.48779365,-0.2526169,0.017541407,-0.027893944,0.025393536,-0.012527915,0.033625588,-0.033309903,-0.074126914,0.06469745,-0.037855312,-0.0154510215,0.009493439,0.06396919,1.0,-1.0,-1.0,1.0,1.0,-1.0,-1.0,-1.0,-1.0,1.0,-1.0,-1.0,1.0,-1.0,-1.0,1.0,1.0,-1.0,-1.0,-1.0,-1.0,1.0,-1.0,-1.0
2025-06-04 12:27:04.285,-0.04141903,0.0047489353,-0.0099104,0.010347015,0.021344656,-0.03154717,0.0,0.0,0.0,0.0050777798,0.06663213,-0.52352965,-0.1624423,0.1457173,0.42992955,-0.1373828,-0.07761568,-0.5436915,-0.21620017,0.10419928,-0.4914956,-0.2585166,-0.06673732,-0.053838115,0.064308465,0.04270012,0.059185833,0.058710493,0.044672187,0.07031468,0.053026382,0.0038169543,-0.06896636,0.030139938,1.0,-1.0,-1.0,1.0,1.0,-1.0,-1.0,-1.0,-1.0,1.0,-1.0,-1.0,1.0,-1.0,-1.0,1.0,1.0,-1.0,-1.0,-1.0,-1.0,1.0,-1.0,-1.0
2025-06-04 12:27:04.305,-0.03711841,0.04164988,-0.02871948,0.048580118,0.022864684,-0.014732522,0.0,0.0,0.0,0.00507778,0.06033498,-0.528317,-0.17857844,0.14890827,0.43881786,-0.13301657,-0.07683382,-0.5364264,-0.22322139,0.09098246,-0.48999235,-0.2639909,0.011558822,0.0157281,-0.026033793,0.072372645,0.05852686,0.020368222,0.06010977,0.060728498,-0.020166133,0.008290298,0.012220083,-0.055872574,1.0,-1.0,-1.0,1.0,1.0,-1.0,-1.0,-1.0,-1.0,1.0,-1.0,-1.0,1.0,-1.0,-1.0,1.0,1.0,-1.0,-1.0,-1.0,-1.0,1.0,-1.0,-1.0
2025-06-04 12:27:04.326,0.04511419,0.03430233,-0.0031111194,0.068086244,0.030756697,-0.043374013,0.0,0.0,0.0,0.0050777807,0.061619125,-0.5271841,-0.16458315,0.15005928,0.4339492,-0.13141006,-0.08149916,-0.5512184,-0.20700307,0.08746676,-0.5069844,-0.2534477,-0.050117984,-0.057734746,-0.01871648,-0.029617006,0.005994001,-0.021825485,-0.07183604,0.05063404,0.0009398318,0.051166095,-0.06775323,0.024571998,1.0,-1.0,-1.0,1.0,1.0,-1.0,-1.0,-1.0,-1.0,1.0,-1.0,-1.0,1.0,-1.0,-1.0,1.0,1.0,-1.0,-1.0,-1.0,-1.0,1.0,-1.0,-1.0
2025-06-04 12:27:04.347,0.048783127,-0.04900365,0.010835666,0.058383375,0.069307856,-0.04443298,0.0,0.0,0.0,0.0050777807,0.06388597,-0.5230179,-0.16757701,0.13738462,0.42482778,-0.13682324,-0.084717564,-0.5376146,-0.21160762,0.09151624,-0.48896512,-0.24860248,-0.040958315,0.012562722,0.0072588893,-0.016150031,-0.0369674,-0.020155601,0.05967751,-0.024921188,-0.0290301,-0.008728017,0.062486418,-0.06913226,1.0,-1.0,-1.0,1.0,1.0,-1.0,-1.0,-1.0,-1.0,1.0,-1.0,-1.0,1.0,-1.0,-1.0,1.0,1.0,-1.0,-1.0,-1.0,-1.0,1.0,-1.0,-1.0
2025-06-04 12:27:04.366,-0.046778172,-0.01726251,0.0070834043,0.06293727,0.024112873,0.026698131,0.0,0.0,0.0,0.005077781,0.06495462,-0.53428394,-0.16658582,0.1554312,0.43504962,-0.12829809,-0.07749051,-0.5394343,-0.2126616,0.10295133,-0.49154568,-0.26346514,0.055569816,-0.022027487,-0.06665455,-0.05674971,-0.0004945014,-0.040321197,0.01248766,0.030198552,0.028977182,-0.015849553,-0.03461256,-0.008296922,1.0,-1.0,-1.0,1.0,1.0,-1.0,-1.0,-1.0,-1.0,1.0,-1.0,-1.0,1.0,-1.0,-1.0,1.0,1.0,-1.0,-1.0,-1.0,-1.0,1.0,-1.0,-1.0
2025-06-04 12:27:04.386,-0.037720148,0.0211488,-0.0026966496,0.07038139,0.007879541,0.037745614,0.0,0.0,0.0,0.005077781,0.06514042,-0.5317492,-0.16623223,0.14710335,0.4317483,-0.13476758,-0.08175953,-0.54025716,-0.21643822,0.09565167,-0.48730186,-0.26134598,-0.023209797,-0.0473831,0.006415989,0.0196937,0.073233716,0.06572091,-0.020396268,0.05514695,-0.060245495,0.061080083,-0.04048604,0.005616436,1.0,-1.0,-1.0,1.0,1.0,-1.0,-1.0,-1.0,-1.0,1.0,-1.0,-1.0,1.0,-1.0,-1.0,1.0,1.0,-1.0,-1.0,-1.0,-1.0,1.0,-1.0,-1.0
2025-06-04 12:27:04.406,-0.029729413,-0.04936514,-0.03587979,0.015134021,0.07572393,0.0009605699,0.0,0.0,0.0,0.0050777816,0.07562238,-0.516613,-0.16660757,0.1550933,0.42385197,-0.13685969,-0.09457691,-0.55614084,-0.2200872,0.09823328,-0.50042987,-0.26702693,-0.02673337,0.019871244,-0.065739274,0.002733256,-0.0627324,0.00078783993,-0.063751645,-0.05460277,-0.044660717,0.06526017,-0.06070818,0.040689807,1.0,-1.0,-1.0,1.0,1.0,-1.0,-1.0,-1.0,-1.0,1.0,-1.0,-1.0,1.0,-1.0,-1.0,1.0,1.0,-1.0,-1.0,-1.0,-1.0,1.0,-1.0,-1.0
2025-06-04 12:27:04.426,0.018231539,-0.03476364,-0.026463116,0.013866404,0.011651623,-0.03622022,0.0,0.0,0.0,0.0050777816,0.06319284,-0.51912725,-0.16253331,0.15593757,0.44056654,-0.13832821,-0.08195409,-0.54090184,-0.21778707,0.10638101,-0.5026543,-0.26646495,-0.0039155683,0.042125776,-0.0252738,0.058757942,0.018827854,-0.042675827,-0.03320449,-0.035922706,-0.009414683,-0.05894739,-0.009321014,-0.040676817,1.0,-1.0,-1.0,1.0,1.0,-1.0,-1.0,-1.0,-1.0,1.0,-1.0,-1.0,1.0,-1.0,-1.0,1.0,1.0,-1.0,-1.0,-1.0,-1.0,1.0,-1.0,-1.0
2025-06-04 12:27:04.447,0.015424662,0.0071089584,0.045311205,0.0063861767,0.016813524,-0.009689007,0.0,0.0,0.0,0.005077782,0.06510392,-0.52981645,-0.17450538,0.13870706,0.4255874,-0.13882211,-0.091341086,-0.54731447,-0.2238878,0.09421419,-0.49131522,-0.26280466,-0.026456999,-0.042817585,-0.05706776,-0.022722725,-0.030689348,-0.01858563,0.03114821,-0.025823435,-0.0062798043,0.04376197,0.064569935,0.029682755,1.0,-1.0,-1.0,1.0,1.0,-1.0,-1.0,-1.0,-1.0,1.0,-1.0,-1.0,1.0,-1.0,-1.0,1.0,1.0,-1.0,-1.0,-1.0,-1.0,1.0,-1.0,-1.0
2025-06-04 12:27:04.466,0.029252565,-0.043521598,-0.03503415,-0.0076329415,0.09355335,0.03659886,0.0,0.0,0.0,0.005077782,0.066643745,-0.5211411,-0.17162809,0.13903767,0.42215222,-0.1324797,-0.0916142,-0.5478819,-0.22227998,0.10492648,-0.4905813,-0.26569325,-0.056423478,-0.0044907206,0.015467666,-0.030997999,-0.008289478,0.039474208,0.04638056,-0.01824773,-0.047379892,-0.0041779145,0.018327983,-0.048376646,1.0,-1.0,-1.0,1.0,1.0,-1.0,-1.0,-1.0,-1.0,1.0,-1.0,-1.0,1.0,-1.0,-1.0,1.0,1.0,-1.0,-1.0,-1.0,-1.0,1.0,-1.0,-1.0
2025-06-04 12:27:04.486,-0.046547186,-0.022367312,0.014338596,-0.013375081,0.06864126,0.024760228,0.0,0.0,0.0,0.0050777826,0.07086171,-0.52726954,-0.16506746,0.14710598,0.43544385,-0.14403495,-0.089669466,-0.5386399,-0.2139931,0.105598055,-0.5033627,-0.26053372,-0.039109856,-0.037010923,-0.004357732,0.022343326,0.013313161,-0.070153184,-0.010209431,-0.058948137,-0.047858868,-0.038826104,-0.056637716,0.05518775,1.0,-1.0,-1.0,1.0,1.0,-1.0,-1.0,-1.0,-1.0,1.0,-1.0,-1.0,1.0,-1.0,-1.0,1.0,1.0,-1.0,-1.0,-1.0,-1.0,1.0,-1.0,-1.0
2025-06-04 12:27:04.506,0.031523164,0.008377271,0.030120675,0.0136955995,0.007220152,-0.024476456,0.0,0.0,0.0,0.005077783,0.07101357,-0.5262773,-0.16888419,0.14889339,0.424896,-0.13022855,-0.07946847,-0.54636806,-0.20866933,0.10556484,-0.49285123,-0.26472944,-0.073958285,0.019747168,-0.06694576,-0.03603525,-0.048924077,0.056008585,0.0678499,0.012037171,0.04477589,-0.024615474,-0.00035829717,-0.0007571578,1.0,-1.0,-1.0,1.0,1.0,-1.0,-1.0,-1.0,-1.0,1.0,-1.0,-1.0,1.0,-1.0,-1.0,1.0,1.0,-1.0,-1.0,-1.0,-1.0,1.0,-1.0,-1.0
2025-06-04 12:27:04.528,-0.0010551816,-0.045673206,-0.02219541,0.020177478,0.047965072,-0.0062474366,0.0,0.0,0.0,0.005077783,0.062180147,-0.5260967,-0.16283162,0.13741116,0.42871708,-0.12707323,-0.09272639,-0.54352796,-0.20583028,0.10072491,-0.5028741,-0.25130555,-0.039244335,0.046536483,0.005562114,-0.041395824,-0.0077152564,-0.0011694151,0.07373033,0.0014294996,-0.03817851,-0.0024376127,-0.06524512,0.013076525,1.0,-1.0,-1.0,1.0,1.0,-1.0,-1.0,-1.0,-1.0,1.0,-1.0,-1.0,1.0,-1.0,-1.0,1.0,1.0,-1.0,-1.0,-1.0,-1.0,1.0,-1.0,-1.0
2025-06-04 12:27:04.547,0.021438794,0.013614877,-0.04466285,0.06115014,0.029713444,-0.020976348,0.0,0.0,0.0,0.0050777835,0.07566746,-0.52687496,-0.17470519,0.14002423,0.42618385,-0.13774127,-0.08141401,-0.55480677,-0.21704435,0.103376605,-0.50689816,-0.24813892,0.016977381,0.051691357,-0.019855952,-0.015846578,-0.070179634,-0.04210289,0.047558025,-0.06303965,-0.06341864,-0.033856113,0.0032156252,0.015074158,1.0,-1.0,-1.0,1.0,1.0,-1.0,-1.0,-1.0,-1.0,1.0,-1.0,-1.0,1.0,-1.0,-1.0,1.0,1.0,-1.0,-1.0,-1.0,-1.0,1.0,-1.0,-1.0
2025-06-04 12:27:04.567,0.013211568,0.009581672,0.014374435,0.04978979,0.055173628,-0.030852722,0.0,0.0,0.0,0.005077784,0.072824456,-0.5240213,-0.17477283,0.15601593,0.4361946,-0.1282897,-0.092937686,-0.55197734,-0.21114038,0.10514913,-0.4927726,-0.25660425,-0.057444125,0.050557613,0.056861535,0.010844362,0.055807814,-0.051860504,0.003665745,0.018110095,0.04241454,0.035398524,-0.005146766,-0.06685127,1.0,-1.0,-1.0,1.0,1.0,-1.0,-1.0,-1.0,-1.0,1.0,-1.0,-1.0,1.0,-1.0,-1.0,1.0,1.0,-1.0,-1.0,-1.0,-1.0,1.0,-1.0,-1.0
2025-06-04 12:27:04.587,-0.01587217,-0.026871761,0.034160316,0.041992713,0.024508426,-0.023282735,0.0,0.0,0.0,0.0050777844,0.07597396,-0.53498894,-0.17518112,0.13772082,0.42431086,-0.14031193,-0.09194553,-0.5374281,-0.20822972,0.0946656,-0.49342754,-0.2629353,0.056754656,0.058058824,-0.019128084,0.04827271,-0.0063764583,0.0063844854,0.059206102,0.020793129,-0.017357413,-0.030021321,-0.061703097,0.06140464,1.0,-1.0,-1.0,1.0,1.0,-1.0,-1.0,-1.0,-1.0,1.0,-1.0,-1.0,1.0,-1.0,-1.0,1.0,1.0,-1.0,-1.0,-1.0,-1.0,1.0,-1.0,-1.0
2025-06-04 12:27:04.606,-0.03383147,-0.02426254,0.03946738,0.03442494,0.028046647,-0.048014652,0.0,0.0,0.0,0.005077785,0.07453059,-0.52692384,-0.17809711,0.13923886,0.4258089,-0.13252695,-0.076752394,-0.5392938,-0.21254946,0.10294495,-0.48894882,-0.25016245,0.021658828,-0.045331072,0.02875709,0.011855947,0.051501464,0.019810999,-0.025979057,-0.011475539,-0.010167558,-0.006438429,-0.0272067,0.071039714,1.0,-1.0,-1.0,1.0,1.0,-1.0,-1.0,-1.0,-1.0,1.0,-1.0,-1.0,1.0,-1.0,-1.0,1.0,1.0,-1.0,-1.0,-1.0,-1.0,1.0,-1.0,-1.0
2025-06-04 12:27:04.628,0.011215106,-0.041758478,0.0155544765,0.037541788,0.036180258,0.008340318,0.0,0.0,0.0,0.005077785,0.0638538,-0.53347754,-0.16406752,0.14969471,0.4349748,-0.14096682,-0.09341367,-0.5505184,-0.2184692,0.10151364,-0.49923488,-0.26696122,-0.041441042,0.044668037,-0.018999126,0.04720877,0.029348932,0.051339563,0.061126065,-0.007671297,0.029477976,0.035339218,-0.040922206,0.07352005,1.0,-1.0,-1.0,1.0,1.0,-1.0,-1.0,-1.0,-1.0,1.0,-1.0,-1.0,1.0,-1.0,-1.0,1.0,1.0,-1.0,-1.0,-1.0,-1.0,1.0,-1.0,-1.0
2025-06-04 12:27:04.647,0.0498882,-0.017454619,-0.002567921,0.07340723,0.00832719,-0.014177035,0.0,0.0,0.0,0.0050777853,0.060922965,-0.5289608,-0.16356795,0.14380854,0.42964527,-0.1353927,-0.0779021,-0.5463997,-0.22015433,0.099220574,-0.5051861,-0.25649974,0.03314268,0.019804114,-0.030826502,-0.002484804,-0.05748518,-0.009312087,-0.009551868,-0.074451365,-0.04136346,0.040734082,-0.046687216,-0.03068663,1.0,-1.0,-1.0,1.0,1.0,-1.0,-1.0,-1.0,-1.0,1.0,-1.0,-1.0,1.0,-1.0,-1.0,1.0,1.0,-1.0,-1.0,-1.0,-1.0,1.0,-1.0,-1.0
2025-06-04 12:27:04.667,-0.014212199,0.04161514,0.020091517,0.06670181,0.0386409,-0.019630255,0.0,0.0,0.0,0.005077786,0.07423042,-0.5269596,-0.17762145,0.14547983,0.43275514,-0.12951814,-0.0838601,-0.5561192,-0.20634285,0.09122574,-0.5032618,-0.26358962,0.026021363,-0.034335352,-0.058656354,0.0027571293,-0.017656773,-0.016245292,0.06792068,-0.06281458,-0.014856413,0.064819835,0.017492605,-0.00878026,1.0,-1.0,-1.0,1.0,1.0,-1.0,-1.0,-1.0,-1.0,1.0,-1.0,-1.0,1.0,-1.0,-1.0,1.0,1.0,-1.0,-1.0,-1.0,-1.0,1.0,-1.0,-1.0
2025-06-04 12:27:04.687,0.0027794128,0.044808663,-0.014602738,0.026889503,0.027505785,-0.0041356813,0.0,0.0,0.0,0.005077786,0.07163686,-0.5221337,-0.15930317,0.14193101,0.42966926,-0.13423343,-0.084778935,-0.53824955,-0.22026387,0.09765908,-0.4889652,-0.26556572,-0.027992288,0.009446697,-0.068955705,0.01164449,-0.062064946,0.025778018,0.016617272,-0.019030137,0.003880914,0.07093819,-0.073301494,0.042370472,1.0,-1.0,-1.0,1.0,1.0,-1.0,-1.0,-1.0,-1.0,1.0,-1.0,-1.0,1.0,-1.0,-1.0,1.0,1.0,-1.0,-1.0,-1.0,-1.0,1.0,-1.0,-1.0
2025-06-04 12:27:04.707,0.017736385,0.014148958,-0.04342968,-0.017529689,0.07098104,0.030493459,0.0,0.0,0.0,0.0050777863,0.076691024,-0.5295174,-0.17748082,0.14104083,0.42719588,-0.13897249,-0.08613191,-0.53769445,-0.22000316,0.09399102,-0.49309012,-0.2575886,-0.029750027,-0.019505765,-0.027137997,7.924061e-05,0.01899682,0.016110966,-0.05321758,0.07497761,0.062123846,0.056254584,-0.055907223,0.074301414,1.0,-1.0,-1.0,1.0,1.0,-1.0,-1.0,-1.0,-1.0,1.0,-1.0,-1.0,1.0,-1.0,-1.0,1.0,1.0,-1.0,-1.0,-1.0,-1.0,1.0,-1.0,-1.0
2025-06-04 12:27:04.729,0.0020595398,-0.04302991,-0.03677922,0.030862147,0.019405989,-0.031374767,0.0,0.0,0.0,0.0050777867,0.059771497,-0.5251112,-0.17816065,0.15443927,0.43460196,-0.13820694,-0.08326316,-0.54290247,-0.21899283,0.1054655,-0.50269234,-0.26099122,0.0091494955,0.058085747,0.023384864,-0.06868255,-0.037808686,-0.0529701,0.0111843655,0.015006162,0.03828137,-0.05727754,-0.0128908185,-0.032634966,1.0,-1.0,-1.0,1.0,1.0,-1.0,-1.0,-1.0,-1.0,1.0,-1.0,-1.0,1.0,-1.0,-1.0,1.0,1.0,-1.0,-1.0,-1.0,-1.0,1.0,-1.0,-1.0
2025-06-04 12:27:04.747,0.0076263836,-0.043027237,-0.0056232573,-0.015878316,0.00011882741,0.012861008,0.0,0.0,0.0,0.0050777867,0.069420785,-0.52386993,-0.16037805,0.14529483,0.43394548,-0.13521624,-0.08895586,-0.54424524,-0.20593207,0.103544086,-0.4916636,-0.25782412,-0.011729999,0.036992844,-0.016255166,0.02993561,-0.064625815,0.047476895,0.024828084,-0.059472438,-0.012492316,-0.07247486,-0.019529508,0.023842067,1.0,-1.0,-1.0,1.0,1.0,-1.0,-1.0,-1.0,-1.0,1.0,-1.0,-1.0,1.0,-1.0,-1.0,1.0,1.0,-1.0,-1.0,-1.0,-1.0,1.0,-1.0,-1.0
2025-06-04 12:27:04.768,0.03787733,-0.013153492,0.01920917,-0.007767724,0.051981926,-0.0196231,0.0,0.0,0.0,0.005077787,0.07579127,-0.5270208,-0.17198679,0.15085489,0.42584383,-0.13276687,-0.08518394,-0.5501361,-0.21740474,0.09728742,-0.4871159,-0.2609883,0.032380108,-0.016304387,-0.0027148814,-0.06651025,0.04073712,-0.019086909,-0.06297597,-0.06477272,0.039957017,-0.0024399704,0.07000172,0.015223812,1.0,-1.0,-1.0,1.0,1.0,-1.0,-1.0,-1.0,-1.0,1.0,-1.0,-1.0,1.0,-1.0,-1.0,1.0,1.0,-1.0,-1.0,-1.0,-1.0,1.0,-1.0,-1.0
2025-06-04 12:27:04.788,0.038530167,-0.00744333,-0.01946143,-0.0012488582,0.051744074,-0.010317785,0.0,0.0,0.0,0.005077787,0.06218019,-0.52999157,-0.1629333,0.14273371,0.4354446,-0.14227849,-0.09181621,-0.540324,-0.21361898,0.09319221,-0.50588924,-0.25453794,0.037683625,0.016073475,-0.024618823,-0.030984582,0.04131802,-0.07167001,-0.004972462,0.016871508,-0.06082876,0.053234335,0.043671414,-0.03247043,1.0,-1.0,-1.0,1.0,1.0,-1.0,-1.0,-1.0,-1.0,1.0,-1.0,-1.0,1.0,-1.0,-1.0,1.0,1.0,-1.0,-1.0,-1.0,-1.0,1.0,-1.0,-1.0
2025-06-04 12:27:04.808,0.02837541,-0.048296712,0.016613811,0.073514596,0.07889534,0.03372856,0.0,0.0,0.0,0.005077787,0.06867741,-0.53227514,-0.1682484,0.13804899,0.43417037,-0.1335498,-0.08108664,-0.54609483,-0.22113948,0.10162068,-0.50076896,-0.25619298,0.009844918,0.0056713,0.061232388,-0.024570314,-0.034378696,0.0049090143,-0.028720934,-0.010415206,-0.013154115,-0.0737564,-0.0056026084,-0.0280817,1.0,-1.0,-1.0,1.0,1.0,-1.0,-1.0,-1.0,-1.0,1.0,-1.0,-1.0,1.0,-1.0,-1.0,1.0,1.0,-1.0,-1.0,-1.0,-1.0,1.0,-1.0,-1.0
2025-06-04 12:27:04.832,0.0047168685,0.042813618,-0.024654008,0.01974525,0.041019797,0.03944708,0.0,0.0,0.0,0.0050777877,0.070376344,-0.5249839,-0.16867208,0.1394145,0.4330377,-0.13112926,-0.08644621,-0.55617034,-0.22462964,0.10199679,-0.48975378,-0.26745087,-0.04811822,0.058877762,0.027503395,-0.031933,-0.050320894,0.03197818,0.0665151,-0.021437315,0.056287754,0.06720011,0.07218831,-0.068208605,1.0,-1.0,-1.0,1.0,1.0,-1.0,-1.0,-1.0,-1.0,1.0,-1.0,-1.0,1.0,-1.0,-1.0,1.0,1.0,-1.0,-1.0,-1.0,-1.0,1.0,-1.0,-1.0
2025-06-04 12:27:04.849,-0.03605987,0.039454475,-0.041229717,0.034656007,0.05858235,0.046289597,0.0,0.0,0.0,0.0050777877,0.06345409,-0.5187469,-0.16705634,0.15281637,0.43516332,-0.13884935,-0.08552691,-0.5425256,-0.20494899,0.104056254,-0.50365275,-0.26458466,0.04243571,0.039590012,0.016026013,-0.06677518,0.059825744,-0.074218035,0.019383473,0.015617171,-0.056670386,0.07358525,0.025208976,-0.019617708,1.0,-1.0,-1.0,1.0,1.0,-1.0,-1.0,-1.0,-1.0,1.0,-1.0,-1.0,1.0,-1.0,-1.0,1.0,1.0,-1.0,-1.0,-1.0,-1.0,1.0,-1.0,-1.0
2025-06-04 12:27:04.869,-0.03981506,0.015969737,-0.028404897,-0.018481446,0.039199397,-0.0272725,0.0,0.0,0.0,0.0050777877,0.059520192,-0.528464,-0.16693026,0.15579517,0.42179948,-0.13185246,-0.07712778,-0.54599696,-0.21736227,0.09182294,-0.5054968,-0.2674289,0.06949311,-0.06801596,0.015798558,-0.008271953,-0.0587737,-0.0059275744,0.015671726,0.0022209662,0.009881728,0.03299578,0.027089562,0.07236023,1.0,-1.0,-1.0,1.0,1.0,-1.0,-1.0,-1.0,-1.0,1.0,-1.0,-1.0,1.0,-1.0,-1.0,1.0,1.0,-1.0,-1.0,-1.0,-1.0,1.0,-1.0,-1.0
2025-06-04 12:27:04.890,-0.024409205,-0.014777517,-0.01562114,0.013787873,0.073801264,0.04688842,0.0,0.0,0.0,0.0050777877,0.07779188,-0.5292982,-0.17428328,0.13871662,0.433162,-0.13526478,-0.08769742,-0.5384263,-0.21750996,0.08943323,-0.49728042,-0.26755637,-0.047047324,0.0069558984,0.059236303,0.025036067,-0.0048948126,0.0671653,-0.043509692,0.052156392,-0.028534045,0.034233775,0.052860577,-0.047754962,1.0,-1.0,-1.0,1.0,1.0,-1.0,-1.0,-1.0,-1.0,1.0,-1.0,-1.0,1.0,-1.0,-1.0,1.0,1.0,-1.0,-1.0,-1.0,-1.0,1.0,-1.0,-1.0
2025-06-04 12:27:04.909,-0.046930246,-0.008553954,0.018708223,-0.0052467687,0.08619329,-0.02773621,0.0,0.0,0.0,0.005077788,0.06710253,-0.51708657,-0.17227694,0.14700198,0.4406993,-0.13649002,-0.08902517,-0.54807496,-0.22181726,0.094129756,-0.5050336,-0.26514053,-0.04691486,0.023949578,0.0006918832,-0.036602076,0.044222333,-0.061672665,-0.008354056,-0.029026316,-0.05521505,-0.0061382838,0.063334055,-0.043810118,1.0,-1.0,-1.0,1.0,1.0,-1.0,-1.0,-1.0,-1.0,1.0,-1.0,-1.0,1.0,-1.0,-1.0,1.0,1.0,-1.0,-1.0,-1.0,-1.0,1.0,-1.0,-1.0
2025-06-04 12:27:04.931,-0.046173066,-0.040178746,-0.021469843,0.060433365,0.026481485,0.026226081,0.0,0.0,0.0,0.005077788,0.07002307,-0.5243934,-0.16227524,0.15494022,0.42440456,-0.13240859,-0.07488514,-0.5460085,-0.21447544,0.104587264,-0.50049627,-0.25906384,-0.011751525,0.00473498,0.021242596,0.03245575,-0.018281396,0.0051027597,0.010568357,-0.05139187,-0.06075821,-0.05209409,-0.03868182,0.04665136,1.0,-1.0,-1.0,1.0,1.0,-1.0,-1.0,-1.0,-1.0,1.0,-1.0,-1.0,1.0,-1.0,-1.0,1.0,1.0,-1.0,-1.0,-1.0,-1.0,1.0,-1.0,-1.0
2025-06-04 12:27:04.949,0.039477177,0.023588791,-0.020175721,0.079476476,0.063190944,0.009901618,0.0,0.0,0.0,0.005077788,0.07214679,-0.5330704,-0.17228949,0.14723815,0.42717552,-0.12707086,-0.076536745,-0.55359995,-0.21483344,0.08966218,-0.49001747,-0.26269767,-0.057421647,-0.044506066,-0.063524194,-0.06707767,-0.031016858,-0.02977736,-0.048209112,-0.016543845,-0.032131523,0.0164741,-0.019224498,0.026354944,1.0,-1.0,-1.0,1.0,1.0,-1.0,-1.0,-1.0,-1.0,1.0,-1.0,-1.0,1.0,-1.0,-1.0,1.0,1.0,-1.0,-1.0,-1.0,-1.0,1.0,-1.0,-1.0
2025-06-04 12:27:04.970,0.032089494,-0.0323801,0.02717731,0.0145676285,0.06513033,-0.0056433138,0.0,0.0,0.0,0.005077788,0.074658334,-0.5249582,-0.17897941,0.15095474,0.44150364,-0.12905514,-0.08160467,-0.54129446,-0.21821368,0.09966168,-0.49641654,-0.25789207,-0.017175337,-0.031044466,0.031965137,-0.06970447,-0.04593581,0.0080727525,-0.025811354,0.07275155,-0.029337065,0.020946434,-0.04581512,-0.05717508,1.0,-1.0,-1.0,1.0,1.0,-1.0,-1.0,-1.0,-1.0,1.0,-1.0,-1.0,1.0,-1.0,-1.0,1.0,1.0,-1.0,-1.0,-1.0,-1.0,1.0,-1.0,-1.0
2025-06-04 12:27:04.989,-0.040487412,-0.0047694067,-0.013736686,0.0117949685,0.013904108,0.01734662,0.0,0.0,0.0,0.005077788,0.068637185,-0.5285719,-0.17685032,0.1454379,0.42387325,-0.13570997,-0.083539754,-0.5499173,-0.21725492,0.09325075,-0.4969025,-0.2509347,-0.0088851545,0.036957715,0.072272636,0.053359337,-0.01625399,0.06101354,-0.058784958,-0.03243162,0.032776058,0.051148262,-0.0050531942,-0.029662155,1.0,-1.0,-1.0,1.0,1.0,-1.0,-1.0,-1.0,-1.0,1.0,-1.0,-1.0,1.0,-1.0,-1.0,1.0,1.0,-1.0,-1.0,-1.0,-1.0,1.0,-1.0,-1.0
2025-06-04 12:27:05.010,0.026271507,-0.029872518,0.03851441,0.043698348,0.027966179,-0.017572502,0.0,0.0,0.0,0.005077788,0.073592655,-0.5176684,-0.17649247,0.14272252,0.43373013,-0.1270723,-0.09272059,-0.5525078,-0.21609737,0.09091843,-0.49184093,-0.25915024,-0.023594238,0.031785585,-0.008138068,0.01740325,0.0749923,-0.014549052,-0.053486813,0.0673962,0.035253786,-0.0059190895,-0.03191404,0.028728478,1.0,-1.0,-1.0,1.0,1.0,-1.0,-1.0,-1.0,-1.0,1.0,-1.0,-1.0,1.0,-1.0,-1.0,1.0,1.0,-1.0,-1.0,-1.0,-1.0,1.0,-1.0,-1.0
2025-06-04 12:27:05.031,0.03211119,0.004113879,0.00948744,-0.0060883295,0.08671195,0.032028925,0.0,0.0,0.0,0.005077788,0.07628725,-0.52526146,-0.16707137,0.14582501,0.43367022,-0.14014453,-0.08909848,-0.5546171,-0.22215259,0.10111646,-0.488277,-0.25811198,-0.069879204,0.0584662,0.03764168,-0.04342592,0.074687175,-0.03028783,-0.04663598,0.026679384,0.069708,-0.058177345,0.06426619,0.0048822206,1.0,-1.0,-1.0,1.0,1.0,-1.0,-1.0,-1.0,-1.0,1.0,-1.0,-1.0,1.0,-1.0,-1.0,1.0,1.0,-1.0,-1.0,-1.0,-1.0,1.0,-1.0,-1.0
2025-06-04 12:27:05.051,0.031720914,0.028765429,-0.012821791,0.01893089,0.08076995,-0.01633877,0.0,0.0,0.0,0.005077788,0.06951999,-0.5226838,-0.16792998,0.14166938,0.43369517,-0.13066342,-0.087108746,-0.5409129,-0.21963987,0.099854246,-0.49644834,-0.2554407,-0.05959307,0.03303238,0.06786694,0.040011484,0.07456423,0.034583233,-0.023603277,0.02644832,-0.04418362,0.067383856,0.021548435,-0.028216545,1.0,-1.0,-1.0,1.0,1.0,-1.0,-1.0,-1.0,-1.0,1.0,-1.0,-1.0,1.0,-1.0,-1.0,1.0,1.0,-1.0,-1.0,-1.0,-1.0,1.0,-1.0,-1.0
2025-06-04 12:27:05.070,-0.043767914,-0.03326857,-0.01946461,0.030760242,0.032237805,0.048825145,0.0,0.0,0.0,0.005077788,0.06540925,-0.5219304,-0.17709053,0.15255205,0.423728,-0.1272022,-0.079511955,-0.5365614,-0.21893641,0.103081495,-0.49325174,-0.26316467,0.07416548,-0.00044403318,-0.06686779,-0.039135437,0.07498891,-0.025660066,-0.0036882893,0.014804288,0.067474574,0.04700207,0.018616835,0.03813487,1.0,-1.0,-1.0,1.0,1.0,-1.0,-1.0,-1.0,-1.0,1.0,-1.0,-1.0,1.0,-1.0,-1.0,1.0,1.0,-1.0,-1.0,-1.0,-1.0,1.0,-1.0,-1.0
2025-06-04 12:27:05.090,0.0014043452,0.025630172,-0.026633795,0.07331492,0.08909624,-0.027473995,0.0,0.0,0.0,0.005077788,0.07260849,-0.5176738,-0.17149867,0.15382394,0.42241892,-0.14208528,-0.08276021,-0.54899925,-0.22218636,0.10221896,-0.5065447,-0.2556817,-0.064080924,0.00176635,-0.010305335,0.033640448,-0.03784338,0.0060323104,-0.014083941,-0.015704278,-0.07489312,0.057866897,0.020870227,0.004941774,1.0,-1.0,-1.0,1.0,1.0,-1.0,-1.0,-1.0,-1.0,1.0,-1.0,-1.0,1.0,-1.0,-1.0,1.0,1.0,-1.0,-1.0,-1.0,-1.0,1.0,-1.0,-1.0
2025-06-04 12:27:05.110,0.0034047074,-0.018683767,0.03775824,-0.0067554447,0.08301637,0.046349786,0.0,0.0,0.0,0.005077788,0.07699177,-0.5286692,-0.17127122,0.14618316,0.4242286,-0.14083667,-0.090838395,-0.5504184,-0.21671289,0.0892026,-0.49198622,-0.25170135,-0.060192607,-0.0132403085,-0.0415111,0.0090583395,-0.042595055,0.019725766,-0.054092266,-0.052670848,0.022470936,0.058935758,-0.019143509,-0.032147482,1.0,-1.0,-1.0,1.0,1.0,-1.0,-1.0,-1.0,-1.0,1.0,-1.0,-1.0,1.0,-1.0,-1.0,1.0,1.0,-1.0,-1.0,-1.0,-1.0,1.0,-1.0,-1.0
2025-06-04 12:27:05.131,-0.0045399396,-0.036358796,-0.046452668,0.06969186,0.08115595,-0.03042203,0.0,0.0,0.0,0.005077788,0.076376565,-0.518735,-0.16353197,0.13671537,0.42781565,-0.13619077,-0.09384193,-0.53848565,-0.22367316,0.09642145,-0.48994753,-0.2634897,-0.03685494,0.011015874,0.072565585,0.0028318367,0.022522895,0.013860193,-0.024351042,0.041873932,0.04211002,0.013367756,-0.008432377,-0.043374036,1.0,-1.0,-1.0,1.0,1.0,-1.0,-1.0,-1.0,-1.0,1.0,-1.0,-1.0,1.0,-1.0,-1.0,1.0,1.0,-1.0,-1.0,-1.0,-1.0,1.0,-1.0,-1.0
2025-06-04 12:27:05.150,-0.021781474,0.03328224,-0.013300802,0.07078192,0.06580397,0.014221286,0.0,0.0,0.0,0.005077788,0.0771167,-0.53068626,-0.17259216,0.14601882,0.43226972,-0.13062201,-0.080980636,-0.5468281,-0.2163631,0.09968982,-0.4973204,-0.26217842,-0.0029458583,0.047766123,0.042942487,0.030159546,0.052588385,-0.061303232,0.00576794,-0.016561693,0.051659007,0.03465583,0.02503954,-0.04054447,1.0,-1.0,-1.0,1.0,1.0,-1.0,-1.0,-1.0,-1.0,1.0,-1.0,-1.0,1.0,-1.0,-1.0,1.0,1.0,-1.0,-1.0,-1.0,-1.0,1.0,-1.0,-1.0
2025-06-04 12:27:05.171,-0.028571537,-0.032124795,-0.008275896,0.057828963,0.019440347,0.024241941,0.0,0.0,0.0,0.005077788,0.061348792,-0.52598435,-0.16464004,0.14702436,0.4258068,-0.12651843,-0.08860713,-0.5387943,-0.20894039,0.10512335,-0.49656326,-0.25063273,0.061876997,-0.032648664,-0.058112353,-0.06086124,-0.04029273,0.0654026,0.017583411,0.03154259,-0.04880124,0.034038335,-0.04950042,0.019781936,1.0,-1.0,-1.0,1.0,1.0,-1.0,-1.0,-1.0,-1.0,1.0,-1.0,-1.0,1.0,-1.0,-1.0,1.0,1.0,-1.0,-1.0,-1.0,-1.0,1.0,-1.0,-1.0
2025-06-04 12:27:05.190,0.02391325,-0.0460447,0.0073258607,-0.01291311,0.034205575,0.02889853,0.0,0.0,0.0,0.005077788,0.07540422,-0.5209472,-0.16880082,0.13898659,0.440606,-0.1278583,-0.079119444,-0.55237204,-0.22367713,0.09927132,-0.5046651,-0.26443845,-0.017167157,-0.0019741594,0.055924345,-0.06526641,0.061244875,0.05285782,-0.01868421,0.067291014,0.024864508,0.008958809,0.020103835,0.003763302,1.0,-1.0,-1.0,1.0,1.0,-1.0,-1.0,-1.0,-1.0,1.0,-1.0,-1.0,1.0,-1.0,-1.0,1.0,1.0,-1.0,-1.0,-1.0,-1.0,1.0,-1.0,-1.0
2025-06-04 12:27:05.212,0.011992163,-0.045325104,0.04594195,0.05494652,0.080354735,-0.009956799,0.0,0.0,0.0,0.005077788,0.067294426,-0.51650375,-0.16488503,0.15235144,0.42235023,-0.14288886,-0.08561554,-0.5521824,-0.2083529,0.100979835,-0.50680345,-0.2667178,0.022093728,0.026631659,0.03338867,-0.043615118,-0.04304439,0.04402313,-0.050509803,0.021818098,-0.0026792665,-0.031177055,0.03879035,0.026509661,1.0,-1.0,-1.0,1.0,1.0,-1.0,-1.0,-1.0,-1.0,1.0,-1.0,-1.0,1.0,-1.0,-1.0,1.0,1.0,-1.0,-1.0,-1.0,-1.0,1.0,-1.0,-1.0
2025-06-04 12:27:05.231,0.022398492,-0.0061878166,0.028054237,-0.011801502,0.0073781027,-0.011292974,0.0,0.0,0.0,0.005077788,0.06148311,-0.51683706,-0.16050066,0.14794281,0.43792152,-0.12789701,-0.086830445,-0.5423822,-0.2135587,0.100929044,-0.48978677,-0.25110006,-0.0033144855,-0.07025356,0.025667286,0.06603397,-0.05985088,-0.05743852,0.037729204,0.024005441,0.027462635,0.009210598,0.034204133,0.06565823,1.0,-1.0,-1.0,1.0,1.0,-1.0,-1.0,-1.0,-1.0,1.0,-1.0,-1.0,1.0,-1.0,-1.0,1.0,1.0,-1.0,-1.0,-1.0,-1.0,1.0,-1.0,-1.0
2025-06-04 12:27:05.251,0.009737214,0.038477257,-0.0029939068,0.01945814,0.04402718,-0.0114140725,0.0,0.0,0.0,0.005077788,0.07894546,-0.5214358,-0.16803858,0.15446222,0.4286122,-0.13141243,-0.089864895,-0.5555477,-0.22286318,0.096596524,-0.50501853,-0.2526442,0.010511966,0.013837451,-0.025836555,0.017376347,-0.042376142,-0.03944714,0.0745059,-0.07443649,-0.06086178,0.060464874,0.0660635,0.0130613,1.0,-1.0,-1.0,1.0,1.0,-1.0,-1.0,-1.0,-1.0,1.0,-1.0,-1.0,1.0,-1.0,-1.0,1.0,1.0,-1.0,-1.0,-1.0,-1.0,1.0,-1.0,-1.0
2025-06-04 12:27:05.271,0.047714785,0.00073677057,0.009163751,0.04127863,0.028138531,-0.0023519304,0.0,0.0,0.0,0.005077788,0.061627988,-0.52789605,-0.16182037,0.15343161,0.43869755,-0.1342629,-0.076883204,-0.55408394,-0.21293668,0.08816935,-0.50706077,-0.25643936,-0.04264955,0.033160504,-0.021261696,-0.019975035,-0.07439783,0.00013350291,0.06500554,0.022573309,-0.01919608,-0.0597435,0.04072495,-0.05740398,1.0,-1.0,-1.0,1.0,1.0,-1.0,-1.0,-1.0,-1.0,1.0,-1.0,-1.0,1.0,-1.0,-1.0,1.0,1.0,-1.0,-1.0,-1.0,-1.0,1.0,-1.0,-1.0
2025-06-04 12:27:05.292,-0.032587882,-0.034609802,-0.023554688,0.07738184,0.07534507,-0.031711295,0.0,0.0,0.0,0.005077788,0.0784041,-0.5188803,-0.16310997,0.14806274,0.4298123,-0.132485,-0.085588396,-0.5559129,-0.2076169,0.10694027,-0.4936211,-0.25474927,-0.0025449933,-0.05238301,-0.06907143,-0.050674148,-0.029259335,-0.033327617,0.05462178,-0.04526391,-0.04834518,-0.07324588,0.052103378,-0.051511973,1.0,-1.0,-1.0,1.0,1.0,-1.0,-1.0,-1.0,-1.0,1.0,-1.0,-1.0,1.0,-1.0,-1.0,1.0,1.0,-1.0,-1.0,-1.0,-1.0,1.0,-1.0,-1.0
2025-06-04 12:27:05.313,-0.0016813332,0.039990526,-0.028806524,0.0150082875,0.050260913,0.032408502,0.0,0.0,0.0,0.005077788,0.062376425,-0.51775366,-0.17489634,0.13775554,0.4375804,-0.1352375,-0.09367279,-0.5476489,-0.21679619,0.09715571,-0.5038604,-0.24936235,0.0564417,0.02574113,0.07236487,0.0007335209,-0.004948895,-0.008406565,-0.031101689,-0.047429476,0.06932575,0.010991652,0.066761635,-0.05122194,1.0,-1.0,-1.0,1.0,1.0,-1.0,-1.0,-1.0,-1.0,1.0,-1.0,-1.0,1.0,-1.0,-1.0,1.0,1.0,-1.0,-1.0,-1.0,-1.0,1.0,-1.0,-1.0
2025-06-04 12:27:05.332,-0.026688326,0.008948683,0.0146904215,-0.009085,0.008011991,0.018904177,0.0,0.0,0.0,0.005077788,0.07579159,-0.5165959,-0.17507443,0.13733795,0.43730116,-0.138122,-0.08076596,-0.53713566,-0.21215104,0.10121551,-0.49060872,-0.2594421,-0.07478162,-0.065203846,-0.06270308,0.066411525,-0.042383377,0.052914757,-0.03743182,0.0066501293,-0.005916961,0.019462395,-0.027135534,-0.016702397,1.0,-1.0,-1.0,1.0,1.0,-1.0,-1.0,-1.0,-1.0,1.0,-1.0,-1.0,1.0,-1.0,-1.0,1.0,1.0,-1.0,-1.0,-1.0,-1.0,1.0,-1.0,-1.0
2025-06-04 12:27:05.353,-0.0037452641,-0.038543787,0.040550623,0.03668855,0.010799543,-0.035933405,0.0,0.0,0.0,0.005077788,0.06448061,-0.5176503,-0.17902488,0.153479,0.43229017,-0.13966902,-0.08512315,-0.5488374,-0.21414511,0.10032992,-0.50123805,-0.26356438,-0.06701686,-0.0049742544,-0.034669805,0.0107719535,0.026979921,-0.06434742,-0.04946012,-0.011752138,-0.052592646,0.062375467,0.072777,-0.071212046,1.0,-1.0,-1.0,1.0,1.0,-1.0,-1.0,-1.0,-1.0,1.0,-1.0,-1.0,1.0,-1.0,-1.0,1.0,1.0,-1.0,-1.0,-1.0,-1.0,1.0,-1.0,-1.0
2025-06-04 12:27:05.372,-0.021649417,-0.04567968,0.041464444,0.019596642,0.07940611,-0.016151063,0.0,0.0,0.0,0.005077788,0.06287024,-0.5272027,-0.17909415,0.15359652,0.4261258,-0.12636825,-0.08344219,-0.54143304,-0.21275643,0.09627668,-0.5013616,-0.25633547,-0.010909135,-0.007180578,-0.014351072,-0.06402735,0.024347214,-0.07105274,-0.053648733,0.06029951,-0.06298642,-0.02357438,0.008555456,-0.072577834,1.0,-1.0,-1.0,1.0,1.0,-1.0,-1.0,-1.0,-1.0,1.0,-1.0,-1.0,1.0,-1.0,-1.0,1.0,1.0,-1.0,-1.0,-1.0,-1.0,1.0,-1.0,-1.0
2025-06-04 12:27:05.392,-0.016031139,-0.03229623,0.014641313,0.023289995,0.03299386,-0.045468785,0.0,0.0,0.0,0.005077788,0.06763587,-0.52412283,-0.16503282,0.14198224,0.430248,-0.12845786,-0.08218525,-0.5521383,-0.21322031,0.09731671,-0.49061486,-0.2633173,-0.027422342,-0.06424083,-0.07044973,-0.06331165,0.051168747,0.04262402,-0.057281777,-0.068582825,-0.041402012,-0.0070890877,-0.011246146,0.025949819,1.0,-1.0,-1.0,1.0,1.0,-1.0,-1.0,-1.0,-1.0,1.0,-1.0,-1.0,1.0,-1.0,-1.0,1.0,1.0,-1.0,-1.0,-1.0,-1.0,1.0,-1.0,-1.0
2025-06-04 12:27:05.414,0.017027969,0.039210852,0.0020984309,0.05987234,0.021259889,-0.0436096,0.0,0.0,0.0,0.005077788,0.062823914,-0.5195836,-0.16870801,0.14313997,0.4239201,-0.1421635,-0.07956435,-0.5427426,-0.20583652,0.10223485,-0.48989227,-0.2495452,0.046449374,-0.00045680557,0.0030412343,0.002182573,0.017935451,0.03949893,-0.054019406,0.018403558,0.027505295,-0.01173844,0.05225574,-0.043855913,1.0,-1.0,-1.0,1.0,1.0,-1.0,-1.0,-1.0,-1.0,1.0,-1.0,-1.0,1.0,-1.0,-1.0,1.0,1.0,-1.0,-1.0,-1.0,-1.0,1.0,-1.0,-1.0
2025-06-04 12:27:05.432,0.005110746,-0.034503695,0.018654931,-0.0059488197,0.09040034,-0.028499022,0.0,0.0,0.0,0.005077788,0.0635435,-0.52554995,-0.16239113,0.13978344,0.43938273,-0.13457513,-0.084499605,-0.55253816,-0.21563262,0.10104133,-0.50117284,-0.26146814,-0.015448863,0.045040224,-0.05663217,-0.012651087,0.007742739,0.0036154292,0.0020492214,0.06806316,-0.052421898,-0.006870379,-0.07290578,-0.014796307,1.0,-1.0,-1.0,1.0,1.0,-1.0,-1.0,-1.0,-1.0,1.0,-1.0,-1.0,1.0,-1.0,-1.0,1.0,1.0,-1.0,-1.0,-1.0,-1.0,1.0,-1.0,-1.0
2025-06-04 12:27:05.452,0.026604868,0.010765687,0.025410498,0.06066179,0.039465494,-0.027639804,0.0,0.0,0.0,0.005077788,0.06172346,-0.53260165,-0.17621055,0.15408453,0.43835235,-0.14608683,-0.07981171,-0.5510749,-0.21297422,0.105248,-0.50226533,-0.2642458,0.061509825,0.05463322,-0.009643127,-0.018888999,-0.013135795,0.060669653,0.011062657,0.06285743,0.07406376,0.05952414,0.018894274,0.07484018,1.0,-1.0,-1.0,1.0,1.0,-1.0,-1.0,-1.0,-1.0,1.0,-1.0,-1.0,1.0,-1.0,-1.0,1.0,1.0,-1.0,-1.0,-1.0,-1.0,1.0,-1.0,-1.0
2025-06-04 12:27:05.472,0.025873639,-0.028165849,0.001285941,0.039810173,0.08586306,-0.009668699,0.0,0.0,0.0,0.005077788,0.07219766,-0.5243613,-0.16816697,0.14008704,0.43348593,-0.14406644,-0.08898022,-0.5412136,-0.20568793,0.09841401,-0.49250504,-0.26593712,0.0053180256,-0.036437344,-0.037030872,0.068585075,0.068228416,-0.039383896,-0.074230865,0.025437627,0.05405112,-0.011636123,-0.0030182316,-0.03938046,1.0,-1.0,-1.0,1.0,1.0,-1.0,-1.0,-1.0,-1.0,1.0,-1.0,-1.0,1.0,-1.0,-1.0,1.0,1.0,-1.0,-1.0,-1.0,-1.0,1.0,-1.0,-1.0
2025-06-04 12:27:05.493,-0.023677398,-0.045767553,0.018399458,-0.0027520692,0.045924425,-0.022158867,0.0,0.0,0.0,0.005077788,0.07017595,-0.53067917,-0.16133133,0.15563086,0.43054762,-0.13534482,-0.09244645,-0.54041094,-0.2216188,0.094694406,-0.48870426,-0.25469744,0.06787456,-0.017881773,0.041030765,-0.012802096,0.038221985,-0.049598034,-7.576137e-05,0.052820314,-0.011622133,-0.055100493,-0.0024674418,-0.049074233,1.0,-1.0,-1.0,1.0,1.0,-1.0,-1.0,-1.0,-1.0,1.0,-1.0,-1.0,1.0,-1.0,-1.0,1.0,1.0,-1.0,-1.0,-1.0,-1.0,1.0,-1.0,-1.0
2025-06-04 12:27:05.514,-0.01418769,0.03045053,-0.03486357,0.040259447,0.057048447,-0.0084243165,0.0,0.0,0.0,0.005077788,0.065528944,-0.52858686,-0.17470491,0.1375215,0.4280508,-0.12636818,-0.08334329,-0.5387188,-0.21791402,0.10061771,-0.49803337,-0.25178674,-0.0058213104,-0.01916792,0.0044327113,0.071996324,0.025646709,-0.023209656,-0.07240154,-0.0062481975,0.049369793,0.01164926,0.04928139,-0.044301096,1.0,-1.0,-1.0,1.0,1.0,-1.0,-1.0,-1.0,-1.0,1.0,-1.0,-1.0,1.0,-1.0,-1.0,1.0,1.0,-1.0,-1.0,-1.0,-1.0,1.0,-1.0,-1.0
