openverse-orca/OrcaGym/log/simulation_log_20250610_090230.csv
timestamp,imu_angle_roll,imu_angle_pitch,imu_angle_yaw,imu_angular_velocity_roll,imu_angular_velocity_pitch,imu_angular_velocity_yaw,imu_acc_x,imu_acc_y,imu_acc_z,fl_joint1_pos,fl_joint1_vel,fl_joint1_torque,fl_joint2_pos,fl_joint2_vel,fl_joint2_torque,fl_joint3_pos,fl_joint3_vel,fl_joint3_torque,fr_joint1_pos,fr_joint1_vel,fr_joint1_torque,fr_joint2_pos,fr_joint2_vel,fr_joint2_torque,fr_joint3_pos,fr_joint3_vel,fr_joint3_torque,hl_joint1_pos,hl_joint1_vel,hl_joint1_torque,hl_joint2_pos,hl_joint2_vel,hl_joint2_torque,hl_joint3_pos,hl_joint3_vel,hl_joint3_torque,hr_joint1_pos,hr_joint1_vel,hr_joint1_torque,hr_joint2_pos,hr_joint2_vel,hr_joint2_torque,hr_joint3_pos,hr_joint3_vel,hr_joint3_torque,fl_force_x,fl_force_y,fl_force_z,fr_force_x,fr_force_y,fr_force_z,hl_force_x,hl_force_y,hl_force_z,hr_force_x,hr_force_y,hr_force_z,fl_hip_action,fl_thigh_action,fl_calf_action,fr_hip_action,fr_thigh_action,fr_calf_action,hl_hip_action,hl_thigh_action,hl_calf_action,hr_hip_action,hr_thigh_action,hr_calf_action
2025-06-10 09:02:30.693,0.043593895,0.01369911,0.027084593,0.041029073,-0.031732913,-0.016677782,-1.5265121,0.38366166,0.0,0.0,-0.007563075,-0.0019216795,-0.007182456,-0.00067064486,-0.00774943,0.004587551,-9.260899e-05,0.0002119026,0.009951194,-0.004936797,0.000404642,0.0003466525,-0.051350717,-0.025191842,0.041193042,0.06662104,-0.040794104,-0.011875716,-0.04786291,0.07143383,-0.073257945,-0.003700656,0.026608845,0.06392421,0.0,0.0,0.0,0.0,0.0,0.0,0.0,0.0,0.0,0.0,0.0,0.0,2.0,0.6670329,-1.9428415,2.0,1.64854,-2.0,2.0,-0.7092953,-2.0,-2.0,0.10036775,-2.0
2025-06-10 09:02:30.698,0.021395724,-0.032814052,0.0166687,-0.024331843,-0.04685047,0.027127659,0.0,0.0,0.0,0.0,0.026954878,0.04103787,-0.06846794,0.026397424,0.080790244,-0.07893477,0.022315862,-0.036774844,-0.07059086,-0.006549394,0.0068190573,-0.062773384,0.10224222,0.043317925,-0.24873209,0.04984887,0.25565702,-0.18749823,0.08775153,-0.14405513,-0.189918,-0.037925098,0.09618718,-0.14854702,2.0,0.6670329,-1.9428415,2.0,1.64854,-2.0,2.0,-0.7092953,-2.0,-2.0,0.10036775,-2.0,2.0,0.41820154,0.08798665,2.0,2.0,-2.0,2.0,0.11882671,-2.0,-2.0,0.15001217,-1.8009905
2025-06-10 09:02:30.718,0.08977239,0.1776736,0.019097827,0.023803953,0.013139426,0.014063276,0.0,0.0,0.0,0.00028421226,0.031834878,0.04755487,-0.05590057,0.050927613,0.15778893,-0.10996997,0.046067692,-0.040812258,-0.11968102,-0.031282507,0.016358143,-0.10353623,0.012325291,0.027460214,0.019258006,0.104876205,0.13229771,-0.0824617,-0.029512163,0.0913407,-0.10711945,-0.08533231,0.071247436,-0.109018646,2.0,0.41820154,0.08798665,2.0,2.0,-2.0,2.0,0.11882671,-2.0,-2.0,0.15001217,-1.8009905,2.0,0.5284913,-0.37789458,2.0,2.0,-2.0,2.0,0.13308421,-2.0,-2.0,-0.07938149,-1.3908298
2025-06-10 09:02:30.739,0.11788115,0.15020464,0.031806193,-0.0034609977,-0.01921205,0.022537148,0.0,0.0,0.0,0.0002624451,0.035109635,0.05939703,-0.027655913,0.07590339,0.18207638,-0.103388205,0.04286227,-0.008206498,-0.11146376,-0.028932812,0.0364281,-0.10805846,0.00068065233,-0.023035562,0.09796469,-0.02695526,0.009308218,-0.041088622,-0.030464005,0.07068026,-0.059079006,0.021916306,0.005839563,-0.05562564,2.0,0.5284913,-0.37789458,2.0,2.0,-2.0,2.0,0.13308421,-2.0,-2.0,-0.07938149,-1.3908298,2.0,0.84701127,-1.1028883,2.0,2.0,-2.0,2.0,0.13772109,-2.0,-2.0,0.23302498,-2.0
2025-06-10 09:02:30.760,0.009377212,0.11623311,0.0661501,-0.02831743,0.039879516,-0.024001753,0.0,0.0,0.0,-0.0007242094,0.053825717,0.068218715,-0.0030047286,0.075624995,0.21360189,-0.10002964,0.040404547,0.004700175,-0.12759429,-0.028044935,0.06258446,-0.110019736,0.08361828,0.11385885,0.06284361,-0.020752536,0.04221253,0.05836882,-0.0053575393,0.07255879,-0.031677544,-0.015195287,0.01820726,-0.07907819,2.0,0.84701127,-1.1028883,2.0,2.0,-2.0,2.0,0.13772109,-2.0,-2.0,0.23302498,-2.0,2.0,0.5458443,-1.6098161,2.0,2.0,-2.0,2.0,0.08207675,-2.0,-2.0,0.35900787,-2.0
2025-06-10 09:02:30.782,0.005155831,0.028979404,0.031885095,0.013287635,0.007755556,-0.022966307,0.0,0.0,0.0,-0.002031681,0.05504345,0.08290872,-0.012217786,0.09349502,0.260786,-0.11304549,0.05220053,0.028328987,-0.12643608,-0.03595526,0.06865473,-0.11352951,0.06361625,0.116487704,-0.055395517,-0.03278473,0.08878487,0.018126816,0.05314516,0.107982635,-0.039493162,0.06486872,0.101454616,0.021791248,2.0,0.5458443,-1.6098161,2.0,2.0,-2.0,2.0,0.08207675,-2.0,-2.0,0.35900787,-2.0,2.0,0.6221834,-0.69765407,2.0,2.0,-2.0,2.0,0.096038096,-2.0,-2.0,0.35169223,-2.0
2025-06-10 09:02:30.799,-0.034744132,-0.0138626555,0.061320934,-0.005865677,0.06675211,-0.03665145,0.0,0.0,0.0,-0.0028829037,0.06664267,0.11812154,-0.023870185,0.0954481,0.27885133,-0.14374465,0.047057096,0.051334973,-0.13124524,-0.017926006,0.094522,-0.14276302,0.04203877,0.0012285446,0.025278518,-0.0076883766,0.149375,-0.053289548,0.06818916,0.02648864,-0.044240896,-0.03276127,-0.007657956,-0.07857446,2.0,0.6221834,-0.69765407,2.0,2.0,-2.0,2.0,0.096038096,-2.0,-2.0,0.35169223,-2.0,2.0,0.23336291,-1.2193244,2.0,2.0,-2.0,2.0,0.25778928,-2.0,-2.0,0.38079855,-2.0
2025-06-10 09:02:30.819,-0.106347956,-0.052724604,0.039342284,-0.030293118,-0.015841011,0.0117545985,0.0,0.0,0.0,-0.0034197555,0.062969655,0.12816319,-0.024099698,0.109884776,0.31028464,-0.17458268,0.05892939,0.06732292,-0.13274711,-0.029172616,0.124663875,-0.16043377,0.07260688,0.03406011,-0.08851571,-0.027542993,0.14000568,-0.13204874,-0.026070293,0.012844648,-0.027728386,0.05063155,0.03234618,-0.10686466,2.0,0.23336291,-1.2193244,2.0,2.0,-2.0,2.0,0.25778928,-2.0,-2.0,0.38079855,-2.0,2.0,0.46591383,-0.20511228,2.0,2.0,-2.0,2.0,0.33515438,-2.0,-2.0,0.34230834,-2.0
2025-06-10 09:02:30.841,-0.08692718,0.09402136,-0.027526,-0.041246444,0.0054142764,-0.04002693,0.0,0.0,0.0,-0.0036335203,0.06869819,0.13497433,-0.010846787,0.1102621,0.3587305,-0.19919537,0.06232488,0.08828465,-0.12282234,-0.029662058,0.12983748,-0.15741634,-0.022516677,-0.031886954,0.021738585,-0.011424845,0.057209354,-0.007819663,0.031128274,0.032804422,-0.03663774,-0.0066586914,0.10039407,0.0054891477,2.0,0.46591383,-0.20511228,2.0,2.0,-2.0,2.0,0.33515438,-2.0,-2.0,0.34230834,-2.0,2.0,0.8870108,-1.8432884,2.0,2.0,-2.0,2.0,0.30708537,-2.0,-2.0,0.15936227,-2.0
2025-06-10 09:02:30.860,-0.06076378,-0.031052183,0.03994018,0.011576465,0.015069486,-0.048908934,0.0,0.0,0.0,-0.0038893945,0.08374301,0.16196725,-0.02684506,0.13279311,0.3661864,-0.22415572,0.053207237,0.09254587,-0.12769733,-0.019595968,0.1498708,-0.17697991,0.06478486,0.07482907,-0.01730622,0.0944377,0.115531124,-0.1080324,-0.050833907,0.017830698,0.01858705,0.008393041,0.04017581,0.07315592,2.0,0.8870108,-1.8432884,2.0,2.0,-2.0,2.0,0.30708537,-2.0,-2.0,0.15936227,-2.0,2.0,1.1367643,-0.2023477,2.0,2.0,-2.0,2.0,0.08127769,-2.0,-2.0,0.3601415,-2.0
2025-06-10 09:02:30.879,-0.03992488,-0.009572786,0.0091082975,-0.0032972018,0.06449605,0.023517258,0.0,0.0,0.0,-0.004265981,0.09214644,0.17781933,-0.024743266,0.13581966,0.40547803,-0.24386571,0.058803327,0.09035079,-0.11966911,-0.025070261,0.15396883,-0.16725168,-0.0035486387,0.096014105,-0.03120836,0.013939808,0.051318258,-0.0983912,-0.0341781,0.049059767,0.050970785,0.00957257,0.009377217,-0.024320692,2.0,1.1367643,-0.2023477,2.0,2.0,-2.0,2.0,0.08127769,-2.0,-2.0,0.3601415,-2.0,2.0,1.0945874,-2.0,2.0,2.0,-2.0,2.0,0.27002695,-2.0,-2.0,0.25547576,-2.0
2025-06-10 09:02:30.899,-0.046646334,-0.100751765,0.051959023,-0.012633494,0.043413963,-0.025156748,0.0,0.0,0.0,-0.0047920425,0.0891451,0.18040441,-0.02658372,0.14489828,0.407942,-0.24837258,0.0708872,0.102807775,-0.11416747,-0.026372347,0.15440221,-0.15904613,-0.03531421,-0.019682715,-0.007160858,-0.00870299,-0.013741551,0.019744577,0.019812685,0.057783112,0.039413672,0.02858354,0.0017375177,0.065614,2.0,1.0945874,-2.0,2.0,2.0,-2.0,2.0,0.27002695,-2.0,-2.0,0.25547576,-2.0,2.0,1.2259294,-0.8079483,2.0,2.0,-2.0,2.0,0.01797768,-2.0,-2.0,0.49427903,-2.0
2025-06-10 09:02:30.919,0.025463363,-0.0013365494,0.05545725,0.012001852,0.021012317,0.048594218,0.0,0.0,0.0,-0.005348352,0.09238383,0.21097744,-0.022468584,0.13444772,0.43346426,-0.26741746,0.06411972,0.113605894,-0.09879017,-0.016537683,0.15008403,-0.15017633,0.02730213,0.09757278,0.055916574,-0.0784218,0.099759325,0.0072107534,0.02779337,0.041096445,0.013409583,-0.054453615,-0.017913029,-0.014058084,2.0,1.2259294,-0.8079483,2.0,2.0,-2.0,2.0,0.01797768,-2.0,-2.0,0.49427903,-2.0,2.0,0.8818868,-2.0,2.0,2.0,-2.0,2.0,0.1871812,-2.0,-2.0,0.4010913,-2.0
2025-06-10 09:02:30.942,0.0060767634,-0.13746165,-0.027902082,-0.035290033,0.005508105,-0.03045899,0.0,0.0,0.0,-0.005832006,0.10628978,0.22102426,-0.04351313,0.14023517,0.4521065,-0.25826028,0.06965553,0.11978802,-0.0887691,-0.00726091,0.15235843,-0.1585031,-0.01541737,-0.030710164,0.04355696,-0.06386021,0.018150406,-0.008866655,0.044106714,0.031163508,0.030887028,-0.04942893,0.063029066,-0.04199023,2.0,0.8818868,-2.0,2.0,2.0,-2.0,2.0,0.1871812,-2.0,-2.0,0.4010913,-2.0,2.0,1.7453133,-1.1277444,2.0,2.0,-2.0,2.0,0.11734416,-2.0,-2.0,0.0911902,-2.0
2025-06-10 09:02:30.961,-0.0032206816,-0.0562355,0.0011193504,-0.015283765,-0.0069968225,-0.01724638,0.0,0.0,0.0,-0.0060281963,0.10859673,0.22984284,-0.042867333,0.13048019,0.4688048,-0.26193717,0.07954609,0.11359415,-0.08796774,-0.0069390773,0.15936188,-0.14552857,-0.032686766,0.086322516,-0.035291303,0.005231323,0.033324916,0.056122907,-0.0521383,0.045106556,0.04287141,-0.0522228,0.026118184,-0.02886436,2.0,1.7453133,-1.1277444,2.0,2.0,-2.0,2.0,0.11734416,-2.0,-2.0,0.0911902,-2.0,2.0,1.550297,-1.912344,2.0,2.0,-2.0,2.0,0.06629711,-2.0,-2.0,0.24791722,-2.0
2025-06-10 09:02:30.979,0.021135267,-0.09480706,0.02359366,-0.054606877,-0.013737588,0.0047235894,0.0,0.0,0.0,-0.00668189,0.11881669,0.23853278,-0.06856415,0.12953384,0.4872069,-0.27229506,0.08039008,0.12917109,-0.06673549,-0.0132118575,0.1602161,-0.12852593,0.06578367,0.011206856,-0.058680672,-0.017549986,-0.03697577,-0.02540302,-0.008746266,0.0715541,-0.01097635,0.0513621,-0.0077263056,0.0003426663,2.0,1.550297,-1.912344,2.0,2.0,-2.0,2.0,0.06629711,-2.0,-2.0,0.24791722,-2.0,2.0,1.5609442,-0.63997597,2.0,2.0,-2.0,2.0,0.03892105,-2.0,-2.0,0.37613592,-2.0
2025-06-10 09:02:30.999,0.0014696361,0.02494013,0.070992365,-0.015300578,0.0059176926,0.04543698,0.0,0.0,0.0,-0.0075336955,0.1133712,0.2594903,-0.06319626,0.12247061,0.49911642,-0.2685633,0.06337466,0.1436434,-0.074694894,-0.026884247,0.16113679,-0.12159155,-0.04197878,0.061555035,-0.0029411134,-0.061672073,0.025952615,-0.0014576515,0.024402713,0.00021135129,-0.03324806,0.026869625,0.05805721,0.032170042,2.0,1.5609442,-0.63997597,2.0,2.0,-2.0,2.0,0.03892105,-2.0,-2.0,0.37613592,-2.0,2.0,0.91055924,-2.0,2.0,2.0,-2.0,2.0,0.14033815,-2.0,-2.0,0.64263874,-2.0
2025-06-10 09:02:31.019,-0.017619621,-0.0069006816,0.016679266,0.026226493,-0.022482788,0.0328562,0.0,0.0,0.0,-0.008306551,0.10160495,0.27611902,-0.06470007,0.11965311,0.5054088,-0.2696577,0.06732469,0.14831293,-0.06536493,-0.02843621,0.16185676,-0.097826935,-0.03599099,0.08627319,-0.04031405,0.06338176,-0.025023106,-0.05647176,-0.0417113,0.030266229,0.0015450354,0.05086098,0.07704255,0.06509891,2.0,0.91055924,-2.0,2.0,2.0,-2.0,2.0,0.14033815,-2.0,-2.0,0.64263874,-2.0,2.0,1.480038,-0.7273523,2.0,2.0,-2.0,2.0,0.15262023,-2.0,-2.0,0.3600164,-2.0
2025-06-10 09:02:31.044,0.07935433,0.013334861,-0.014765735,0.03641501,-0.035417415,-0.011444512,0.0,0.0,0.0,-0.008241514,0.10319075,0.2882073,-0.07053509,0.115422,0.5043979,-0.26019078,0.070300266,0.15959203,-0.06101989,-0.024350055,0.15883943,-0.08529514,-0.07097563,0.011185009,-0.04304203,0.024407566,0.08961748,0.028029243,0.02367481,0.042277686,-0.0494116,-0.011365883,0.023471447,-0.02173942,2.0,1.480038,-0.7273523,2.0,2.0,-2.0,2.0,0.15262023,-2.0,-2.0,0.3600164,-2.0,2.0,1.4445413,-2.0,2.0,2.0,-2.0,2.0,0.1646699,-2.0,-2.0,0.21463948,-2.0
2025-06-10 09:02:31.060,0.0838018,-0.11497224,0.0038665738,-0.030092422,-0.010246336,-0.025772968,0.0,0.0,0.0,-0.007920727,0.11564792,0.30084085,-0.063956805,0.11595164,0.52286386,-0.25842977,0.071457766,0.16901882,-0.074163385,-0.016169906,0.16626751,-0.078209184,0.019531248,0.035447918,0.027122585,0.048510533,0.058507163,0.04709534,-0.026739772,0.06363826,0.014882279,-0.027208555,0.042556252,0.00854709,2.0,1.4445413,-2.0,2.0,2.0,-2.0,2.0,0.1646699,-2.0,-2.0,0.21463948,-2.0,2.0,1.7828187,-0.77374005,2.0,2.0,-2.0,2.0,-0.021018272,-2.0,-2.0,0.23158255,-2.0
2025-06-10 09:02:31.080,0.020100275,-0.06221556,-0.032130074,-0.011699894,0.030779742,0.013126817,0.0,0.0,0.0,-0.007743367,0.09373531,0.32070914,-0.07815447,0.11510145,0.52513254,-0.25372884,0.064747095,0.17341769,-0.07129347,-0.026498618,0.1569793,-0.07705599,-0.0057302755,0.03855332,0.067061,0.007660915,0.006140929,-0.016994376,-0.08006821,0.074931346,0.04574019,-0.015480154,0.06475003,-0.04090051,2.0,1.7828187,-0.77374005,2.0,2.0,-2.0,2.0,-0.021018272,-2.0,-2.0,0.23158255,-2.0,2.0,1.8134133,-2.0,2.0,2.0,-2.0,2.0,0.19438815,-2.0,-2.0,-0.02863555,-2.0
2025-06-10 09:02:31.100,0.0077339495,-0.08035222,0.053246345,0.0065598753,0.025368767,-0.010184156,0.0,0.0,0.0,-0.007698904,0.09558987,0.33584353,-0.09500056,0.11645594,0.5201861,-0.2565903,0.064174324,0.17686641,-0.063685566,-0.023551583,0.15524322,-0.057270966,-0.011103122,-0.020757217,0.0152725745,0.008376759,-0.02779387,-0.010016853,0.060054783,0.06967738,-0.059444122,-0.016739126,0.040876094,0.064940386,2.0,1.8134133,-2.0,2.0,2.0,-2.0,2.0,0.19438815,-2.0,-2.0,-0.02863555,-2.0,2.0,1.6155149,-0.6654727,2.0,2.0,-2.0,2.0,-0.0989059,-2.0,-2.0,0.37684408,-2.0
2025-06-10 09:02:31.120,-0.019565536,-0.029862791,0.04760187,0.05659785,0.032615047,-0.009020336,0.0,0.0,0.0,-0.008035918,0.097442515,0.34882966,-0.1022942,0.1090696,0.52410537,-0.2538212,0.04928377,0.17885931,-0.06622538,-0.022798792,0.16244116,-0.040281467,0.005484859,0.075420044,0.048557334,-0.06398458,-0.034790304,0.083063036,-0.064569786,-0.009921154,-0.021654397,0.010618117,-0.013314234,0.018238928,2.0,1.6155149,-0.6654727,2.0,2.0,-2.0,2.0,-0.0989059,-2.0,-2.0,0.37684408,-2.0,2.0,1.3039817,-2.0,2.0,2.0,-2.0,2.0,0.21797487,-2.0,-2.0,0.34001994,-2.0
2025-06-10 09:02:31.144,0.067801766,-0.08535128,0.007029621,0.057587415,-0.008853321,0.04965934,0.0,0.0,0.0,-0.008184267,0.10139633,0.35213393,-0.09626534,0.11694466,0.5284747,-0.2529392,0.058661763,0.16887857,-0.057927392,-0.039056964,0.15172091,-0.03556277,0.013345699,-0.030821484,0.014065399,-0.0621978,-0.033169106,-0.023705777,0.052908655,0.032318067,-0.0048307315,0.05046178,-0.058384117,0.0052961684,2.0,1.3039817,-2.0,2.0,2.0,-2.0,2.0,0.21797487,-2.0,-2.0,0.34001994,-2.0,2.0,1.8420196,-0.90956604,2.0,2.0,-2.0,2.0,0.036396675,-2.0,-2.0,0.20725341,-2.0
2025-06-10 09:02:31.161,0.03827633,-0.05955514,-0.02710838,0.067873456,-0.03820204,0.013594668,0.0,0.0,0.0,-0.007897444,0.09524491,0.370108,-0.10988331,0.10766024,0.5171242,-0.24141441,0.04606672,0.16847445,-0.07023868,-0.026808819,0.15341495,-0.01993624,-0.03620156,0.109104246,0.04369432,-0.0036022284,0.009912484,-0.023974618,-0.055438306,0.03637122,-0.070186004,-0.031255778,-0.034580816,0.028784914,2.0,1.8420196,-0.90956604,2.0,2.0,-2.0,2.0,0.036396675,-2.0,-2.0,0.20725341,-2.0,2.0,1.9380313,-2.0,2.0,2.0,-2.0,2.0,0.1752657,-2.0,-2.0,-0.10896086,-2.0
2025-06-10 09:02:31.180,0.04426225,-0.053131785,0.027628534,0.048446987,0.037365504,-0.023811586,0.0,0.0,0.0,-0.007615966,0.08222618,0.3909208,-0.1213225,0.117978305,0.53071326,-0.23371701,0.05501252,0.17516425,-0.057985432,-0.03336774,0.15451118,-0.021989066,-0.06167257,0.060991693,-0.11620689,-0.0069192904,-0.021798527,0.043823868,0.051050186,0.07331857,-0.029226167,-0.045359604,-0.04040062,0.097338095,2.0,1.9380313,-2.0,2.0,2.0,-2.0,2.0,0.1752657,-2.0,-2.0,-0.10896086,-2.0,2.0,1.8286934,-0.5310001,2.0,2.0,-2.0,2.0,-0.11919693,-2.0,-2.0,0.27109447,-2.0
2025-06-10 09:02:31.200,0.033845827,0.04005931,-0.0044421414,0.004028857,-0.013967798,-0.0069534536,0.0,0.0,0.0,-0.007808428,0.092293486,0.40409097,-0.1184996,0.10945994,0.5147622,-0.22581446,0.051238503,0.18430881,-0.06800754,-0.04244699,0.14822139,-0.014145296,-0.06479032,0.0025227973,0.058556437,0.030449754,-0.0077110673,0.02627623,-0.07784108,-0.014482261,-0.065759994,-0.06030952,0.060460888,-0.004980715,2.0,1.8286934,-0.5310001,2.0,2.0,-2.0,2.0,-0.11919693,-2.0,-2.0,0.27109447,-2.0,2.0,1.6554083,-2.0,2.0,2.0,-2.0,2.0,0.21418878,-2.0,-2.0,-0.017242286,-2.0
2025-06-10 09:02:31.220,0.06985501,-0.006727392,-0.028163208,0.0671857,0.0077775894,-0.03285595,0.0,0.0,0.0,-0.007973611,0.09674949,0.4046072,-0.122971624,0.11655358,0.5260055,-0.21693991,0.0365656,0.17509834,-0.06961447,-0.047450345,0.15186651,-0.007492971,0.039456572,0.07301034,-0.041436173,-0.015670348,0.0074142017,0.018445052,0.056667037,-0.032710224,0.025260372,-0.061775602,0.0200903,-0.026484845,2.0,1.6554083,-2.0,2.0,2.0,-2.0,2.0,0.21418878,-2.0,-2.0,-0.017242286,-2.0,2.0,2.0,-0.92730457,2.0,2.0,-2.0,2.0,-0.085191764,-2.0,-2.0,-0.034114625,-2.0
2025-06-10 09:02:31.240,0.024434375,-0.012851988,0.06064553,-0.0046857814,-0.0054082274,-0.0317348,0.0,0.0,0.0,-0.008138183,0.094057776,0.4237122,-0.12374108,0.10186194,0.5249807,-0.22914997,0.049842026,0.17266074,-0.06557655,-0.04225774,0.14370246,-0.0048820083,0.058376286,0.063071005,0.0036177766,0.06394732,-0.08341277,0.081136405,0.0005535681,0.06016939,-0.027155284,0.059327982,-0.058199313,-0.0038273216,2.0,2.0,-0.92730457,2.0,2.0,-2.0,2.0,-0.085191764,-2.0,-2.0,-0.034114625,-2.0,2.0,1.4538146,-2.0,2.0,2.0,-2.0,2.0,0.10398706,-2.0,-2.0,0.39426124,-2.0
2025-06-10 09:02:31.260,0.0004455751,0.027925957,-0.07287259,0.08770698,-0.016505774,-0.029964752,0.0,0.0,0.0,-0.008482209,0.07868546,0.41832468,-0.13462426,0.1092197,0.5071382,-0.22680028,0.043053813,0.16137032,-0.065405436,-0.035261944,0.14555939,0.0060492367,-0.069377854,0.022737231,-0.08197428,0.004040539,0.058419105,0.006926975,0.027825711,-0.01709018,-0.04443728,0.03942603,-7.689829e-05,0.061952215,2.0,1.4538146,-2.0,2.0,2.0,-2.0,2.0,0.10398706,-2.0,-2.0,0.39426124,-2.0,2.0,2.0,-1.0246353,2.0,2.0,-2.0,2.0,0.04316967,-2.0,-2.0,-0.09901167,-2.0
2025-06-10 09:02:31.282,-0.0053596436,-0.024162607,0.0042406432,0.05327157,-0.035628922,0.049233872,0.0,0.0,0.0,-0.008309478,0.091611534,0.4324235,-0.12744126,0.11683225,0.5162394,-0.21845558,0.043401517,0.16638435,-0.07165192,-0.034158267,0.13238709,0.008296034,0.003047294,0.025146909,0.0019993936,-0.015793432,0.027990215,0.031225255,-0.011877923,-0.010895266,-0.032927558,0.06477808,-0.061616313,-0.032869235,2.0,2.0,-1.0246353,2.0,2.0,-2.0,2.0,0.04316967,-2.0,-2.0,-0.09901167,-2.0,2.0,1.7604047,-1.9711442,2.0,2.0,-2.0,2.0,0.052266143,-2.0,-2.0,0.14276426,-2.0
2025-06-10 09:02:31.301,0.008044242,0.049340654,-0.015617332,0.03483686,-0.029857175,0.038453184,0.0,0.0,0.0,-0.008202125,0.08765565,0.43314296,-0.1484467,0.10887014,0.503015,-0.20997567,0.053377595,0.15767379,-0.05799474,-0.043157954,0.14252879,-0.0024861293,-0.0700771,0.052081373,-0.07287991,0.061225172,0.032789793,0.04067246,-0.03152715,-0.021163862,0.026064713,0.029990898,-0.008564687,-0.028695598,2.0,1.7604047,-1.9711442,2.0,2.0,-2.0,2.0,0.052266143,-2.0,-2.0,0.14276426,-2.0,2.0,1.9382007,-0.8672832,2.0,2.0,-2.0,2.0,-0.03712634,-2.0,-2.0,0.112812825,-2.0
2025-06-10 09:02:31.321,-0.056925543,0.019520065,0.009209035,0.06653398,-0.0025591678,-0.042484526,0.0,0.0,0.0,-0.008105026,0.09462729,0.43948007,-0.13592051,0.11314612,0.5006275,-0.20767905,0.044357445,0.15261084,-0.05972783,-0.0348212,0.14378047,-0.016567135,-0.01665011,-0.041755933,0.08950597,-0.033145525,-0.07615621,-0.013489348,-0.034315333,-0.067321196,0.02199288,0.058590114,0.039022032,-0.036965337,2.0,1.9382007,-0.8672832,2.0,2.0,-2.0,2.0,-0.03712634,-2.0,-2.0,0.112812825,-2.0,2.0,1.6232846,-2.0,2.0,2.0,-2.0,2.0,0.16194257,-2.0,-2.0,0.06580497,-2.0
2025-06-10 09:02:31.343,-0.041711416,0.031644933,-0.03890776,0.052989036,-0.034388855,-0.035907406,0.0,0.0,0.0,-0.008057997,0.081214674,0.44192514,-0.13529293,0.105984315,0.49462157,-0.2065386,0.048910175,0.15049931,-0.06554958,-0.04358523,0.13261448,-0.0104008475,0.016735055,0.0029441428,-0.055444043,0.029969467,-0.0114566665,0.05026328,-0.020113517,-0.064149745,-0.076332174,0.07290746,-0.056995593,0.028520837,2.0,1.6232846,-2.0,2.0,2.0,-2.0,2.0,0.16194257,-2.0,-2.0,0.06580497,-2.0,2.0,2.0,-0.8406691,2.0,2.0,-2.0,2.0,0.0014475826,-2.0,-2.0,0.025523636,-2.0
2025-06-10 09:02:31.361,0.00094621914,0.030531224,-0.041277654,0.06297718,-0.036324874,-0.028426008,0.0,0.0,0.0,-0.008041361,0.08571984,0.43779334,-0.13140124,0.106248304,0.48815334,-0.21680324,0.048804566,0.15301304,-0.06749639,-0.04922473,0.13581993,-0.018497234,0.053763945,0.06911749,0.088313214,-0.04461316,-0.07639884,-0.06840703,-0.042421576,-0.024704034,0.0049765916,-0.030975167,0.024132911,-0.03224405,2.0,2.0,-0.8406691,2.0,2.0,-2.0,2.0,0.0014475826,-2.0,-2.0,0.025523636,-2.0,2.0,2.0,-2.0,2.0,2.0,-2.0,2.0,0.18826371,-2.0,-2.0,-0.28452343,-2.0
2025-06-10 09:02:31.381,0.03178148,-0.008766685,0.04995086,-0.0147322565,-0.014458788,-0.013980363,0.0,0.0,0.0,-0.008173733,0.09558542,0.4583149,-0.14275701,0.11758622,0.49300924,-0.22552373,0.044871587,0.1529815,-0.06992462,-0.037696358,0.122384235,-0.025184693,-0.061931893,0.041088875,-0.07802838,0.07952569,-0.065330185,-0.035565358,0.0007347004,0.042435233,0.031884067,-0.051659532,-0.053337164,0.0057039093,2.0,2.0,-2.0,2.0,2.0,-2.0,2.0,0.18826371,-2.0,-2.0,-0.28452343,-2.0,2.0,1.9008603,-0.6210608,2.0,2.0,-2.0,2.0,-0.13304245,-2.0,-2.0,0.19396798,-2.0
2025-06-10 09:02:31.401,-0.00071302144,0.11088384,0.06549761,0.0074344114,0.04475405,-0.0006255588,0.0,0.0,0.0,-0.008789147,0.10238769,0.45678735,-0.12021915,0.11400753,0.49108925,-0.21790732,0.046262406,0.13408647,-0.07311646,-0.03805548,0.12138387,-0.038230103,-0.060014505,-0.020341735,0.041699905,0.07185651,-0.042524118,0.0137778,0.021997461,0.039810732,0.025318865,-0.000464852,0.026359774,0.04435691,2.0,1.9008603,-0.6210608,2.0,2.0,-2.0,2.0,-0.13304245,-2.0,-2.0,0.19396798,-2.0,2.0,1.2547338,-2.0,2.0,2.0,-2.0,2.0,0.1349065,-2.0,-2.0,0.30813032,-2.0
2025-06-10 09:02:31.421,-0.064237304,0.03536252,0.020789318,-0.004982351,-0.027623212,-0.045787625,0.0,0.0,0.0,-0.009338445,0.087811045,0.44939956,-0.121988304,0.1199766,0.49260733,-0.21809119,0.05248461,0.14522922,-0.06340471,-0.03598322,0.115252495,-0.039291177,0.05903235,-0.011778116,-0.02777939,0.010103629,-0.017244898,-0.021653129,-0.01571949,-0.043787144,-0.05657528,-0.06902493,-0.013915012,-0.059680134,2.0,1.2547338,-2.0,2.0,2.0,-2.0,2.0,0.1349065,-2.0,-2.0,0.30813032,-2.0,2.0,1.8180567,-0.99127334,2.0,2.0,-2.0,2.0,0.09675708,-2.0,-2.0,0.14487717,-2.0
2025-06-10 09:02:31.443,0.0022763533,0.102444425,0.030196916,0.026428547,0.005142905,0.014019139,0.0,0.0,0.0,-0.009192208,0.09646187,0.4426325,-0.09822854,0.1264589,0.47507054,-0.22663449,0.039799597,0.12770239,-0.064175285,-0.049395002,0.13106944,-0.04890197,0.01096074,-0.07192678,0.011530341,0.061487645,0.035101745,0.011331839,0.023602357,-0.03952559,-0.0053125685,-0.04994818,0.06287426,-0.0027111785,2.0,1.8180567,-0.99127334,2.0,2.0,-2.0,2.0,0.09675708,-2.0,-2.0,0.14487717,-2.0,2.0,1.4868222,-2.0,2.0,2.0,-2.0,2.0,0.034468554,-2.0,-2.0,0.16717266,-2.0
2025-06-10 09:02:31.461,-0.024568943,0.044364616,0.0011781903,-0.014891114,0.013398126,-0.023115529,0.0,0.0,0.0,-0.008894316,0.08985095,0.43596393,-0.10220117,0.13077655,0.48460162,-0.23014888,0.04538986,0.1264172,-0.070882834,-0.046775293,0.113192685,-0.0715784,-0.0564179,0.017319825,-0.031061599,0.07713242,-0.058629043,-0.079093814,-0.021275422,-0.028342962,0.03926252,-0.060405347,0.009158317,-0.021014983,2.0,1.4868222,-2.0,2.0,2.0,-2.0,2.0,0.034468554,-2.0,-2.0,0.16717266,-2.0,2.0,2.0,-1.2416945,2.0,2.0,-2.0,2.0,0.054610156,-2.0,-2.0,0.0009900823,-2.0
2025-06-10 09:02:31.482,-0.026208242,0.018717492,-0.016335757,-0.024926485,0.020105656,0.026795601,0.0,0.0,0.0,-0.008471002,0.1013318,0.4252709,-0.11174067,0.11892114,0.48779356,-0.2363143,0.044154968,0.1168841,-0.070642285,-0.04448388,0.11458709,-0.06499814,0.05534756,-0.036225043,-0.005521921,-0.048693698,0.015561934,-0.060970597,0.04205006,0.058366314,0.017081121,0.010307424,-0.034141693,0.050117657,2.0,2.0,-1.2416945,2.0,2.0,-2.0,2.0,0.054610156,-2.0,-2.0,0.0009900823,-2.0,2.0,1.8647106,-1.9427657,2.0,2.0,-2.0,2.0,0.035793208,-2.0,-2.0,-0.016720925,-2.0
2025-06-10 09:02:31.501,-0.038361646,0.017333258,0.054016836,0.020765677,0.021463206,-0.04342484,0.0,0.0,0.0,-0.00828046,0.08998426,0.41950265,-0.11591193,0.13116972,0.4849839,-0.22405565,0.06103007,0.12280298,-0.09046617,-0.030697957,0.11901103,-0.07179909,-0.014004214,0.0005785972,-0.05584817,0.075653195,0.0010573824,0.023639368,-0.008195375,-0.08367993,-0.006190042,0.07859449,0.008303087,-0.062149964,2.0,1.8647106,-1.9427657,2.0,2.0,-2.0,2.0,0.035793208,-2.0,-2.0,-0.016720925,-2.0,2.0,1.4929429,-0.87241477,2.0,2.0,-2.0,2.0,-0.088809974,-2.0,-2.0,0.3765667,-2.0
2025-06-10 09:02:31.521,-0.035660997,0.11267998,-0.038857218,0.02129966,-0.019853448,-0.0070748827,0.0,0.0,0.0,-0.008380121,0.10676807,0.42037034,-0.09580911,0.13465886,0.46781895,-0.2444149,0.060545534,0.10914412,-0.08257334,-0.038317554,0.11444927,-0.08479321,-0.04038884,-0.05297302,0.05770376,0.01608912,0.041294288,-0.00990813,-0.044959385,-0.015088244,-0.032030337,0.052227188,0.05747174,0.02298951,2.0,1.4929429,-0.87241477,2.0,2.0,-2.0,2.0,-0.088809974,-2.0,-2.0,0.3765667,-2.0,2.0,1.7465447,-2.0,2.0,2.0,-2.0,2.0,0.2164348,-2.0,-2.0,-0.093361564,-2.0
2025-06-10 09:02:31.543,0.044757377,0.032627396,0.0038565295,-0.037906956,0.038574863,-0.00414914,0.0,0.0,0.0,-0.008137202,0.09185324,0.39617515,-0.10410266,0.12290063,0.4790956,-0.23494135,0.060109254,0.10274796,-0.085264996,-0.04164788,0.12034703,-0.09988924,-0.021074105,-0.052082732,0.0046925475,0.08112004,-0.0088410955,-0.038853012,0.06362656,-0.009591998,-0.06485612,0.026180401,6.993683e-05,0.017273255,2.0,1.7465447,-2.0,2.0,2.0,-2.0,2.0,0.2164348,-2.0,-2.0,-0.093361564,-2.0,2.0,1.8738824,-0.8024305,2.0,2.0,-2.0,2.0,-0.10805861,-2.0,-2.0,0.16620618,-2.0
2025-06-10 09:02:31.561,0.0345183,0.015139407,-0.0074333195,-0.01585003,-0.01802726,0.032993913,0.0,0.0,0.0,-0.008063742,0.0975417,0.40211636,-0.087580554,0.12764017,0.46904945,-0.23099245,0.049695354,0.10962686,-0.08450197,-0.024087975,0.108121336,-0.102993384,0.004701454,0.00250047,-0.014263912,-0.0030766395,-0.015408593,0.060626905,-0.0018074983,0.0500299,-0.013618356,-0.024135523,0.019455511,-0.060454108,2.0,1.8738824,-0.8024305,2.0,2.0,-2.0,2.0,-0.10805861,-2.0,-2.0,0.16620618,-2.0,2.0,1.681994,-2.0,2.0,2.0,-2.0,2.0,0.13429838,-2.0,-2.0,-0.0010194883,-2.0
2025-06-10 09:02:31.582,-0.007335083,0.0041760104,-0.01233263,-0.0067024156,-0.005914346,0.011571112,0.0,0.0,0.0,-0.008102511,0.101180874,0.40209475,-0.09091646,0.1323278,0.47218993,-0.23709117,0.049287226,0.09991475,-0.095036194,-0.028574958,0.10172915,-0.11004647,0.02020964,0.020347593,0.039006807,-0.008605223,-0.055098753,-0.013611402,0.062857956,-0.05042435,0.026170425,0.04793561,-0.048254404,-0.07496148,2.0,1.681994,-2.0,2.0,2.0,-2.0,2.0,0.13429838,-2.0,-2.0,-0.0010194883,-2.0,2.0,2.0,-1.3959932,2.0,2.0,-2.0,2.0,-0.041456617,-2.0,-2.0,-0.02418686,-2.0
2025-06-10 09:02:31.602,0.03251257,-0.035062928,0.017699506,0.0061534434,-0.005243764,-0.018379396,0.0,0.0,0.0,-0.008199246,0.11113967,0.3968696,-0.101271465,0.12638673,0.47048166,-0.24426591,0.04980752,0.10041167,-0.099399306,-0.0344607,0.09346804,-0.09375931,0.072888255,-0.03640109,0.062895015,0.039406,0.043242633,-0.024709865,0.058000334,-0.058290977,0.04161432,0.030586367,0.05780739,0.05153515,2.0,2.0,-1.3959932,2.0,2.0,-2.0,2.0,-0.041456617,-2.0,-2.0,-0.02418686,-2.0,2.0,1.5163754,-1.9533207,2.0,2.0,-2.0,2.0,-0.0646993,-2.0,-2.0,0.1141638,-2.0
2025-06-10 09:02:31.622,-0.05434664,-0.009847047,0.013669799,-0.0046694707,0.04680238,0.04057555,0.0,0.0,0.0,-0.008428657,0.10623084,0.40007094,-0.1032666,0.13102548,0.47235635,-0.24647321,0.05383783,0.08368539,-0.085033245,-0.029870454,0.10479092,-0.09758187,-0.06733221,-0.025725218,0.005692775,-0.06384357,0.021504583,0.026152924,0.01945195,-0.053688683,-0.06798424,-0.026127018,-0.035598107,0.044615816,2.0,1.5163754,-1.9533207,2.0,2.0,-2.0,2.0,-0.0646993,-2.0,-2.0,0.1141638,-2.0,2.0,1.6928314,-1.3406963,2.0,2.0,-2.0,2.0,0.046381406,-2.0,-2.0,0.19523221,-2.0
2025-06-10 09:02:31.643,0.039175462,0.032150265,-0.00591572,0.0042404374,0.03768331,0.046087787,0.0,0.0,0.0,-0.008352831,0.10382346,0.3944991,-0.095894925,0.14257224,0.4672296,-0.23900065,0.05256456,0.087195635,-0.094726264,-0.026141083,0.08906831,-0.09686441,-0.02137998,-0.027760532,-0.06557454,-0.004486308,-0.055410568,-0.01619401,-0.059616677,0.044454128,-0.062762596,-0.0052387277,-0.0144287255,-0.029651092,2.0,1.6928314,-1.3406963,2.0,2.0,-2.0,2.0,0.046381406,-2.0,-2.0,0.19523221,-2.0,2.0,1.9227971,-1.9963362,2.0,2.0,-2.0,2.0,0.09478428,-2.0,-2.0,-0.0005967573,-2.0
2025-06-10 09:02:31.662,0.085798845,-0.038707495,-0.040095497,0.025366556,0.0093280915,0.047671463,0.0,0.0,0.0,-0.008016833,0.10346583,0.3904649,-0.10667153,0.1269274,0.47450116,-0.24557267,0.06390575,0.100919165,-0.108495235,-0.032809455,0.10600941,-0.10779177,-0.020355614,-0.013351277,-0.060209658,0.07482883,-0.048546195,-0.02497313,-0.068894304,0.06324841,-0.01398276,0.033137105,-0.02634331,-0.050803542,2.0,1.9227971,-1.9963362,2.0,2.0,-2.0,2.0,0.09478428,-2.0,-2.0,-0.0005967573,-2.0,2.0,2.0,-1.0746181,2.0,2.0,-2.0,2.0,-0.047925122,-2.0,-2.0,-0.14497726,-2.0
2025-06-10 09:02:31.682,-0.02357984,0.0005840988,0.039400168,0.02779443,-0.003711639,0.036129996,0.0,0.0,0.0,-0.007847561,0.09079527,0.39560422,-0.10368108,0.14528997,0.4667314,-0.24163304,0.05619595,0.089859895,-0.11333745,-0.041165143,0.09127959,-0.10073878,-0.074197896,0.07029241,-0.009820303,0.017668093,-0.04144229,0.011338462,0.04087263,0.007864896,-0.037857503,-0.04031237,-0.04648106,-0.003529213,2.0,2.0,-1.0746181,2.0,2.0,-2.0,2.0,-0.047925122,-2.0,-2.0,-0.14497726,-2.0,2.0,1.5724579,-2.0,2.0,2.0,-2.0,2.0,0.036235176,-2.0,-2.0,0.17234959,-2.0
2025-06-10 09:02:31.702,0.021597248,-0.016546328,-0.022658572,-0.03550113,-0.03096454,-0.049184963,0.0,0.0,0.0,-0.008005045,0.087460354,0.40089384,-0.110468715,0.14144532,0.46823606,-0.25171256,0.05855309,0.085372336,-0.09632426,-0.035510957,0.09168433,-0.10604444,0.06924735,-0.045142896,-0.0625249,-0.013342714,-0.06939594,0.076246746,0.06128046,-0.023150988,-0.011725624,0.017860934,-0.0023850729,-0.009412373,2.0,1.5724579,-2.0,2.0,2.0,-2.0,2.0,0.036235176,-2.0,-2.0,0.17234959,-2.0,2.0,1.9239274,-1.4291704,2.0,2.0,-2.0,2.0,0.011612529,-2.0,-2.0,0.032199588,-2.0
2025-06-10 09:02:31.723,0.02666551,0.050475013,0.004559036,-0.007879087,-0.0015965359,0.03537809,0.0,0.0,0.0,-0.0079267025,0.091196835,0.41035533,-0.112959616,0.1308392,0.47570798,-0.23483756,0.050025385,0.08534281,-0.10891668,-0.023955647,0.09284712,-0.10414339,-0.017112756,0.07658048,-0.015769405,-0.02553354,-0.028361859,-0.010024957,-0.004281233,0.06810714,-0.06540692,0.016928991,-0.047797237,-0.020468168,2.0,1.9239274,-1.4291704,2.0,2.0,-2.0,2.0,0.011612529,-2.0,-2.0,0.032199588,-2.0,2.0,1.8420593,-1.8763335,2.0,2.0,-2.0,2.0,0.020971859,-2.0,-2.0,0.03453738,-2.0
2025-06-10 09:02:31.743,0.0021623357,-0.05678206,-0.02538134,0.05102679,-0.0062598535,0.04521714,0.0,0.0,0.0,-0.007760087,0.098171726,0.40136135,-0.12253481,0.14326833,0.4649329,-0.24211332,0.04974948,0.08638763,-0.10770215,-0.03966547,0.097496055,-0.1030706,-0.030728098,-0.049713876,-0.05281111,0.073513344,-0.06895884,0.027978422,0.043764964,0.035013866,0.05241817,0.049819343,0.030842887,0.04365663,2.0,1.8420593,-1.8763335,2.0,2.0,-2.0,2.0,0.020971859,-2.0,-2.0,0.03453738,-2.0,2.0,1.960119,-1.4985235,2.0,2.0,-2.0,2.0,-0.043115176,-2.0,-2.0,-0.007610428,-2.0
2025-06-10 09:02:31.762,-0.018457878,-0.05730859,0.0073155845,0.004367103,-0.0144629255,-0.049466424,0.0,0.0,0.0,-0.0076296288,0.09341944,0.41462943,-0.11486444,0.13297725,0.47025615,-0.2341415,0.042583607,0.09355946,-0.10432761,-0.031992808,0.08370513,-0.10112314,-0.029471777,0.058801435,0.038383313,-0.054664653,-0.014961587,0.0015978381,0.010201798,-0.0122893,0.0709812,-0.020749396,-0.021864451,0.015771886,2.0,1.960119,-1.4985235,2.0,2.0,-2.0,2.0,-0.043115176,-2.0,-2.0,-0.007610428,-2.0,2.0,1.7501601,-2.0,2.0,2.0,-2.0,2.0,-0.003419375,-2.0,-2.0,-0.04010615,-2.0
2025-06-10 09:02:31.782,-0.017462078,-0.0033145882,0.011186212,-0.020843944,0.068345636,0.041203167,0.0,0.0,0.0,-0.007549638,0.094271876,0.41075468,-0.12388335,0.14580226,0.4757963,-0.24315563,0.06019206,0.09165858,-0.100258164,-0.034472343,0.07877794,-0.09708658,-0.04999692,-0.03227931,0.046076618,-0.00960815,-0.009420225,0.010010771,0.058392815,-0.011497896,0.024868598,0.013332711,0.027692853,-0.008776232,2.0,1.7501601,-2.0,2.0,2.0,-2.0,2.0,-0.003419375,-2.0,-2.0,-0.04010615,-2.0,2.0,1.7634581,-1.3661282,2.0,2.0,-2.0,2.0,-0.06963704,-2.0,-2.0,0.11402946,-2.0
2025-06-10 09:02:31.802,-0.028953366,-0.0061717103,-0.04610185,0.03649202,0.020543445,-0.036907777,0.0,0.0,0.0,-0.0074260617,0.095897414,0.41120988,-0.12621519,0.12773156,0.4654311,-0.22541565,0.04133866,0.08873377,-0.099632405,-0.026917355,0.08248805,-0.07607718,0.011205258,0.07229165,-0.020432191,-0.032169122,-0.019046778,0.022488765,-0.042458914,0.044053793,0.029233778,-0.06049059,0.057393827,0.009966017,2.0,1.7634581,-1.3661282,2.0,2.0,-2.0,2.0,-0.06963704,-2.0,-2.0,0.11402946,-2.0,2.0,2.0,-2.0,2.0,2.0,-2.0,2.0,0.10611924,-2.0,-2.0,-0.2219988,-2.0
2025-06-10 09:02:31.825,0.025952952,-0.011361397,-0.014648249,-0.013363748,-0.026662763,-0.004485361,0.0,0.0,0.0,-0.0071185767,0.08119068,0.40897906,-0.12661391,0.12755373,0.4742382,-0.23465623,0.041050382,0.1018113,-0.10201621,-0.029316619,0.08075653,-0.08511336,0.04450642,-0.041767936,-0.08896018,-0.06919818,0.03160152,-0.012274743,0.057502925,-0.008755142,-0.07161701,0.0142884385,0.035191253,0.002881758,2.0,2.0,-2.0,2.0,2.0,-2.0,2.0,0.10611924,-2.0,-2.0,-0.2219988,-2.0,2.0,1.9935961,-0.87304,2.0,2.0,-2.0,2.0,-0.1741099,-2.0,-2.0,0.035006646,-2.0
2025-06-10 09:02:31.843,-0.041638296,0.06157306,-0.014366202,0.01944237,0.06475816,-0.028871186,0.0,0.0,0.0,-0.00710228,0.077986605,0.43077132,-0.12218573,0.1280944,0.4825703,-0.23641793,0.0414245,0.09018625,-0.10804321,-0.028175002,0.073795594,-0.06993925,0.020422973,0.016804462,0.013252782,-0.013392739,0.026178496,-0.06105951,-0.034495633,0.063114345,0.01932363,0.0050539398,-0.0029506308,-0.05276062,2.0,1.9935961,-0.87304,2.0,2.0,-2.0,2.0,-0.1741099,-2.0,-2.0,0.035006646,-2.0,2.0,1.8167675,-2.0,2.0,2.0,-2.0,2.0,0.14636904,-2.0,-2.0,-0.08999126,-2.0
2025-06-10 09:02:31.863,0.035858925,-0.054298874,0.05540121,0.039329287,0.010010759,0.041990615,0.0,0.0,0.0,-0.0071692183,0.0880727,0.43161824,-0.13054508,0.13577624,0.47421762,-0.23069312,0.05094055,0.106979,-0.10543237,-0.046348784,0.07016921,-0.07419041,0.025889756,0.023204492,-0.072459474,-0.029377075,0.071383715,-0.00033863177,0.0058017904,0.022013761,-0.03711431,-0.06438457,0.028114242,-0.0010110901,2.0,1.8167675,-2.0,2.0,2.0,-2.0,2.0,0.14636904,-2.0,-2.0,-0.08999126,-2.0,2.0,1.7236778,-0.82775474,2.0,2.0,-2.0,2.0,-0.18135336,-2.0,-2.0,0.21134502,-2.0
2025-06-10 09:02:31.883,-0.04098852,0.021795278,-0.0034816281,0.019797247,0.0043917806,-0.03643094,0.0,0.0,0.0,-0.007267605,0.08184174,0.44105628,-0.11756753,0.12666878,0.47335866,-0.21842672,0.03590091,0.098157264,-0.11054006,-0.04128496,0.07847671,-0.06906203,0.032885708,0.069693215,0.07874873,-0.064447545,0.04456284,0.0033306584,-0.049711425,0.046230014,-0.0345817,0.051525734,-0.012762241,-0.0059758183,2.0,1.7236778,-0.82775474,2.0,2.0,-2.0,2.0,-0.18135336,-2.0,-2.0,0.21134502,-2.0,2.0,1.6834378,-2.0,2.0,2.0,-2.0,2.0,0.1812683,-2.0,-2.0,-0.076034136,-2.0
2025-06-10 09:02:31.903,-0.012536881,-0.025453975,0.029915823,0.022210829,0.031093175,-0.0095511675,0.0,0.0,0.0,-0.0070441863,0.07246327,0.43029565,-0.11169799,0.13015427,0.487118,-0.22799699,0.053119138,0.097622514,-0.09678891,-0.0321573,0.085928746,-0.07378646,0.005076063,0.052822035,-0.028437892,0.023543151,0.0051771943,0.016708614,0.07339203,-0.060464334,0.003511595,-0.028417654,-0.049054366,0.019260708,2.0,1.6834378,-2.0,2.0,2.0,-2.0,2.0,0.1812683,-2.0,-2.0,-0.076034136,-2.0,2.0,1.7113817,-1.0114403,2.0,2.0,-2.0,2.0,-0.10557563,-2.0,-2.0,0.20229448,-2.0
2025-06-10 09:02:31.926,-0.039992563,0.01219698,-0.044052593,-0.0027570857,0.03724154,-0.0220552,0.0,0.0,0.0,-0.006821674,0.07835275,0.44043067,-0.107341,0.13659045,0.48611107,-0.21748537,0.036080644,0.10787444,-0.09238168,-0.04442438,0.09663278,-0.0652956,-0.07262247,-0.06796369,-0.023777515,-0.060897414,-0.012227661,0.02188995,0.0012963716,-0.07028956,-0.018635316,0.013810394,0.02079602,0.023020485,2.0,1.7113817,-1.0114403,2.0,2.0,-2.0,2.0,-0.10557563,-2.0,-2.0,0.20229448,-2.0,2.0,1.844664,-2.0,2.0,2.0,-2.0,2.0,0.16264006,-2.0,-2.0,-0.12965836,-2.0
2025-06-10 09:02:31.943,-0.029540868,-0.021246336,0.008825111,0.045641325,0.016710935,0.049890406,0.0,0.0,0.0,-0.006486638,0.07768116,0.44338205,-0.116728544,0.13635263,0.48646453,-0.21928136,0.04811961,0.10989032,-0.09635296,-0.039293937,0.08541427,-0.056031715,-0.03760574,0.039207563,-0.025454298,0.060761426,0.020109093,-0.06093141,0.069655694,0.068255566,0.06812583,-0.05173551,-0.060758818,-0.035872057,2.0,1.844664,-2.0,2.0,2.0,-2.0,2.0,0.16264006,-2.0,-2.0,-0.12965836,-2.0,2.0,2.0,-0.93841726,2.0,2.0,-2.0,2.0,-0.12093703,-2.0,-2.0,-0.019376408,-2.0
2025-06-10 09:02:31.963,-0.022888219,-0.0034793774,-0.026804112,0.014430882,-0.0034092676,0.006884079,0.0,0.0,0.0,-0.006377701,0.082054615,0.44562298,-0.11006461,0.12849809,0.48623824,-0.20920977,0.04465858,0.10852938,-0.097601525,-0.048774254,0.09215507,-0.06631243,0.061671205,-0.021123338,-0.017621506,-0.022469884,0.022514293,0.01452245,0.06728678,0.043070544,0.03825786,0.043730978,0.049913634,0.0031710018,2.0,2.0,-0.93841726,2.0,2.0,-2.0,2.0,-0.12093703,-2.0,-2.0,-0.019376408,-2.0,2.0,1.7234622,-2.0,2.0,2.0,-2.0,2.0,0.06626453,-2.0,-2.0,-0.04313908,-2.0
2025-06-10 09:02:31.983,0.00024079651,-0.010650448,0.02034828,-0.02417996,0.06368073,0.033616282,0.0,0.0,0.0,-0.006508701,0.08795653,0.44903815,-0.11993302,0.13887691,0.4742135,-0.20568964,0.038447253,0.103574276,-0.09402867,-0.04838203,0.08460305,-0.06237071,-0.01680234,0.04822132,-0.07503606,-0.0044413353,-0.051612373,0.057525013,0.009701136,0.0119945165,-0.01107851,-0.04627386,0.0116588455,-0.06090813,2.0,1.7234622,-2.0,2.0,2.0,-2.0,2.0,0.06626453,-2.0,-2.0,-0.04313908,-2.0,2.0,1.9331361,-1.263406,2.0,2.0,-2.0,2.0,-0.067867614,-2.0,-2.0,0.0542606,-2.0
2025-06-10 09:02:32.003,0.008714769,0.022355359,0.0042483774,0.005260148,0.019200336,0.040807568,0.0,0.0,0.0,-0.006651837,0.08904318,0.4373284,-0.119503476,0.14128877,0.48795614,-0.21015456,0.0488529,0.10004741,-0.09103366,-0.03602518,0.09261212,-0.062371295,-0.056187883,-0.025571316,-0.039586227,0.022699986,0.006368422,0.03859767,0.018288886,-0.005694199,0.0024599298,-0.058179043,-0.05266805,-0.003413997,2.0,1.9331361,-1.263406,2.0,2.0,-2.0,2.0,-0.067867614,-2.0,-2.0,0.0542606,-2.0,2.0,1.694474,-2.0,2.0,2.0,-2.0,2.0,0.030094916,-2.0,-2.0,0.045706112,-2.0
2025-06-10 09:02:32.026,-0.0067024576,-0.009780917,-0.02953574,0.028257152,0.020718327,0.009409893,0.0,0.0,0.0,-0.0067365323,0.07770915,0.44627407,-0.12364551,0.1368104,0.48286587,-0.21515824,0.0434961,0.08711962,-0.08848638,-0.0487297,0.08784141,-0.07197585,0.03546919,-0.048313092,0.04240945,0.0057996907,-0.023768581,-0.059485868,0.022905676,0.007644085,-0.0046179392,0.05846194,-0.040165424,0.05094185,2.0,1.694474,-2.0,2.0,2.0,-2.0,2.0,0.030094916,-2.0,-2.0,0.045706112,-2.0,2.0,2.0,-1.2185378,2.0,2.0,-2.0,2.0,-0.02332834,-2.0,-2.0,-0.09937779,-2.0
2025-06-10 09:02:32.043,-0.014024314,0.008349881,0.014153585,-0.0010267118,0.03210735,0.013525618,0.0,0.0,0.0,-0.0066777705,0.09569908,0.4528439,-0.115862384,0.13621575,0.47536346,-0.22389308,0.04287916,0.10114936,-0.100487195,-0.03741958,0.081174076,-0.056868777,0.012732156,-0.0043789325,0.07227963,-0.012193127,0.007553224,-0.0072218585,0.017764466,-0.0014709053,-0.009282491,0.07135716,0.023894837,-0.064331755,2.0,2.0,-1.2185378,2.0,2.0,-2.0,2.0,-0.02332834,-2.0,-2.0,-0.09937779,-2.0,2.0,1.7251412,-2.0,2.0,2.0,-2.0,2.0,0.004762912,-2.0,-2.0,0.011485455,-2.0
2025-06-10 09:02:32.063,-0.03543858,-0.06000811,-0.021627383,-0.037255798,-0.01706784,0.036942746,0.0,0.0,0.0,-0.0067507676,0.09523086,0.4481131,-0.11093565,0.14095293,0.4907313,-0.22744884,0.05682983,0.09432675,-0.08789242,-0.039655484,0.09434627,-0.06057577,-0.062141906,-0.043405827,0.032339014,0.0367199,-0.064223655,0.03603488,-0.047270086,0.051317744,0.025653616,0.024871128,-0.06788775,0.031603158,2.0,1.7251412,-2.0,2.0,2.0,-2.0,2.0,0.004762912,-2.0,-2.0,0.011485455,-2.0,2.0,2.0,-1.4457753,2.0,2.0,-2.0,2.0,0.026085908,-2.0,-2.0,-0.055850644,-2.0
2025-06-10 09:02:32.083,0.04180342,-0.015992846,0.060672097,0.05633398,0.050598398,0.0039110384,0.0,0.0,0.0,-0.006792078,0.098120004,0.4506943,-0.11965465,0.14475709,0.4849643,-0.23248251,0.047261924,0.09677475,-0.10041992,-0.036062017,0.09084423,-0.064653344,-0.059823066,0.005326939,-0.060028847,-0.047446746,-0.014783349,-0.00457872,0.037543885,0.00911178,0.030806562,-0.013017446,-0.023457693,-0.07366478,2.0,2.0,-1.4457753,2.0,2.0,-2.0,2.0,0.026085908,-2.0,-2.0,-0.055850644,-2.0,2.0,1.5702037,-1.8694828,2.0,2.0,-2.0,2.0,-0.053060032,-2.0,-2.0,0.20585383,-2.0
2025-06-10 09:02:32.147,-0.060785025,0.04722008,0.0017584354,0.023357809,0.03502861,-0.0304487,0.0,0.0,0.0,-0.0069218297,0.079868965,0.44885042,-0.121964306,0.13998313,0.49148163,-0.2326798,0.038184997,0.085789554,-0.093461245,-0.036228504,0.087409,-0.07930708,0.056989692,-0.036643732,0.03153324,0.06117463,0.053072296,0.030537117,-0.0036471675,-0.028246142,-0.059325833,-0.017376132,0.07278551,-0.02850839,2.0,1.5702037,-1.8694828,2.0,2.0,-2.0,2.0,-0.053060032,-2.0,-2.0,0.20585383,-2.0,2.0,1.7734662,-1.383944,2.0,2.0,-2.0,2.0,0.024652058,-2.0,-2.0,0.05333524,-2.0
2025-06-10 09:02:32.167,0.013462939,0.06637935,-0.040530466,0.0072213123,0.040030472,0.012894562,0.0,0.0,0.0,-0.006720324,0.08481319,0.436689,-0.124269195,0.12762482,0.47793385,-0.22785315,0.0566405,0.09453922,-0.104947194,-0.03792805,0.083144926,-0.075814344,0.018716417,-0.069131225,0.078321874,-0.024946893,0.03270661,-0.0011091782,0.047156285,-0.051528208,-0.05116725,0.060475037,-0.047220558,-0.0677228,2.0,1.7734662,-1.383944,2.0,2.0,-2.0,2.0,0.024652058,-2.0,-2.0,0.05333524,-2.0,2.0,1.9453197,-2.0,2.0,2.0,-2.0,2.0,0.049374364,-2.0,-2.0,-0.1246283,-2.0
2025-06-10 09:02:32.187,-0.0018789415,-0.07211392,-0.0062788436,0.007990138,0.052712698,-0.011365972,0.0,0.0,0.0,-0.0063870763,0.0886713,0.43353686,-0.11648576,0.12864493,0.49097022,-0.2288175,0.054638516,0.08670204,-0.09702541,-0.044518236,0.08608863,-0.07312546,0.063429065,0.050556213,-0.074085504,-0.040020727,0.028870305,0.0068776496,0.0036752664,-0.014994965,-0.07008462,0.033037327,-0.06574095,-0.017712686,2.0,1.9453197,-2.0,2.0,2.0,-2.0,2.0,0.049374364,-2.0,-2.0,-0.1246283,-2.0,2.0,2.0,-0.8714675,2.0,2.0,-2.0,2.0,-0.08724303,-2.0,-2.0,0.007296768,-2.0
2025-06-10 09:02:32.211,0.02706133,0.04870264,0.055838224,0.02508721,-0.0020468393,0.027824547,0.0,0.0,0.0,-0.0063391584,0.08087132,0.44753706,-0.10950291,0.13642485,0.48120105,-0.22110727,0.047669735,0.09478143,-0.093450174,-0.04412561,0.08257004,-0.07616252,-0.04238607,0.008316146,0.09127847,-0.074838676,-0.039257884,0.078008056,-0.025214363,-0.039615415,0.05149663,0.06905912,-0.031335432,0.06854056,2.0,2.0,-0.8714675,2.0,2.0,-2.0,2.0,-0.08724303,-2.0,-2.0,0.007296768,-2.0,2.0,1.3711963,-2.0,2.0,2.0,-2.0,2.0,0.025687123,-2.0,-2.0,0.24805944,-2.0
2025-06-10 09:02:32.227,-0.00723784,0.047208164,-0.03558083,-0.04181612,0.05015231,-0.049029734,0.0,0.0,0.0,-0.006502201,0.08680828,0.43840536,-0.10853397,0.13726355,0.47514343,-0.23739572,0.05630034,0.07991671,-0.09019987,-0.03607172,0.09439432,-0.08430509,-0.06835351,0.05305323,-0.048961885,-0.03559977,0.036661834,-0.030309863,-0.015944073,0.017053809,0.013068472,-0.017164307,-0.03323075,-0.051676337,2.0,1.3711963,-2.0,2.0,2.0,-2.0,2.0,0.025687123,-2.0,-2.0,0.24805944,-2.0,2.0,2.0,-1.3658001,2.0,2.0,-2.0,2.0,0.08263632,-2.0,-2.0,-0.09148445,-2.0
2025-06-10 09:02:32.247,0.019182492,0.008668301,0.012484975,0.051657934,0.013927992,-0.045297734,0.0,0.0,0.0,-0.0062442394,0.095992066,0.43987387,-0.11845917,0.1285213,0.4781967,-0.21891879,0.057097975,0.083257176,-0.09098903,-0.04028619,0.09380365,-0.07321266,-0.05528527,0.020134619,-0.026293237,0.024160126,0.003999222,-0.06790157,-0.013834796,-0.062368583,-0.048372302,0.010890916,-0.0026546617,0.0003155097,2.0,2.0,-1.3658001,2.0,2.0,-2.0,2.0,0.08263632,-2.0,-2.0,-0.09148445,-2.0,2.0,1.7871788,-1.760983,2.0,2.0,-2.0,2.0,-0.026097393,-2.0,-2.0,0.04829858,-2.0
2025-06-10 09:02:32.267,0.023785558,-0.040423468,0.00866235,-0.020347083,-0.020457825,-0.0048858896,0.0,0.0,0.0,-0.006136427,0.0844774,0.44087544,-0.117135406,0.13305673,0.4779748,-0.2312967,0.059591617,0.08121212,-0.0886445,-0.033746865,0.09188897,-0.084694184,0.013348628,-0.011656238,-0.07557632,0.07279518,-0.062545344,0.019921012,-0.013032085,-0.062925495,-0.050111692,-0.03480177,0.0642177,-0.012650667,2.0,1.7871788,-1.760983,2.0,2.0,-2.0,2.0,-0.026097393,-2.0,-2.0,0.04829858,-2.0,2.0,1.7838991,-1.5587668,2.0,2.0,-2.0,2.0,0.011312986,-2.0,-2.0,0.0894454,-2.0
2025-06-10 09:02:32.288,-0.0026522304,0.014346358,0.03236482,0.0045568063,0.06831232,0.036821127,0.0,0.0,0.0,-0.006178792,0.077748686,0.44691283,-0.10664975,0.14154178,0.47915012,-0.2272737,0.041436188,0.08173077,-0.09397497,-0.039244983,0.098272674,-0.089391164,0.068928294,-0.022004912,0.030016871,-0.026060514,0.053120907,0.020817649,-0.06975979,0.050649207,-0.02360614,-0.025954932,0.04120319,-0.03124623,2.0,1.7838991,-1.5587668,2.0,2.0,-2.0,2.0,0.011312986,-2.0,-2.0,0.0894454,-2.0,2.0,1.6923767,-1.730206,2.0,2.0,-2.0,2.0,-0.005373275,-2.0,-2.0,0.114859544,-2.0
2025-06-10 09:02:32.311,-0.010444651,-0.04492302,-0.015895939,-0.03065664,0.04206517,0.0103743635,0.0,0.0,0.0,-0.006154735,0.09512878,0.43256792,-0.11712361,0.13469872,0.4813352,-0.22071591,0.04607328,0.08715827,-0.092202514,-0.038575165,0.09653439,-0.08931322,0.033760343,0.062061887,0.061180644,0.072717056,0.058291692,0.019694015,0.046411213,-0.03897116,0.0083864415,-0.011833215,-0.072640926,0.028635444,2.0,1.6923767,-1.730206,2.0,2.0,-2.0,2.0,-0.005373275,-2.0,-2.0,0.114859544,-2.0,2.0,1.8515179,-1.4879813,2.0,2.0,-2.0,2.0,0.006644303,-2.0,-2.0,-0.05159257,-2.0
2025-06-10 09:02:32.327,-0.04145173,0.037021667,0.031441998,-0.022389958,0.032580834,0.005479368,0.0,0.0,0.0,-0.0060031647,0.07734143,0.4364457,-0.11041206,0.1313202,0.48669988,-0.23130964,0.059673227,0.09014214,-0.09910568,-0.03393439,0.09685694,-0.092291005,-0.030631272,-0.04919227,0.009182646,-0.02040317,0.04905618,0.049775817,6.790265e-05,0.03347726,0.02618772,0.020506175,0.043254487,0.061951436,2.0,1.8515179,-1.4879813,2.0,2.0,-2.0,2.0,0.006644303,-2.0,-2.0,-0.05159257,-2.0,2.0,1.4529873,-1.8154707,2.0,2.0,-2.0,2.0,-0.03849832,-2.0,-2.0,0.30500007,-2.0
2025-06-10 09:02:32.348,-0.033469982,-0.010181034,-0.04895885,-0.015211173,0.027174395,0.018644048,0.0,0.0,0.0,-0.005977061,0.09255849,0.44446713,-0.119627565,0.14147894,0.4834251,-0.22255714,0.05872653,0.08254341,-0.10129922,-0.029953951,0.08746274,-0.08574342,0.041619234,0.048062827,-0.03838666,0.06632671,0.0597076,-0.044184964,0.003773793,-0.053606212,-0.047223452,0.04299507,0.048900962,0.05056445,2.0,1.4529873,-1.8154707,2.0,2.0,-2.0,2.0,-0.03849832,-2.0,-2.0,0.30500007,-2.0,2.0,1.9845773,-1.4597814,2.0,2.0,-2.0,2.0,0.07458069,-2.0,-2.0,-0.078421615,-2.0
2025-06-10 09:02:32.368,-0.03192508,0.025993174,0.049197428,0.0008617232,0.027137602,0.01043043,0.0,0.0,0.0,-0.005605956,0.09135682,0.43878582,-0.11277207,0.13067211,0.47772118,-0.22350483,0.06173638,0.08389033,-0.102491565,-0.031521257,0.090132326,-0.097648785,-0.05883015,-0.02677579,0.024003781,-0.038146485,0.04985863,-0.010845858,0.016368289,0.020206062,-0.014608825,-0.019123329,0.058024805,-0.028401328,2.0,1.9845773,-1.4597814,2.0,2.0,-2.0,2.0,0.07458069,-2.0,-2.0,-0.078421615,-2.0,2.0,1.4795344,-1.8849313,2.0,2.0,-2.0,2.0,-0.076730646,-2.0,-2.0,0.2336269,-2.0
2025-06-10 09:02:32.388,-0.00021395377,-0.050799232,0.017942555,0.020211985,-0.01124228,-0.030245308,0.0,0.0,0.0,-0.0054562925,0.08854424,0.431254,-0.11233886,0.13353711,0.47548202,-0.22417712,0.050051402,0.0891491,-0.093215376,-0.03397566,0.09257398,-0.08499975,0.028836692,0.037391156,-0.023574024,-0.01172672,0.023696637,-0.013912892,-0.0068698837,0.057037424,-0.008138596,-0.011302869,-0.018291498,0.03540226,2.0,1.4795344,-1.8849313,2.0,2.0,-2.0,2.0,-0.076730646,-2.0,-2.0,0.2336269,-2.0,2.0,1.7507542,-1.2689493,2.0,2.0,-2.0,2.0,0.049620174,-2.0,-2.0,0.09484977,-2.0
2025-06-10 09:02:32.411,-0.021130051,-0.0043199314,-0.04750665,-0.025718333,0.024963731,0.023611177,0.0,0.0,0.0,-0.005153702,0.07781636,0.4304211,-0.10351936,0.12655388,0.48468024,-0.22515255,0.05619188,0.08931493,-0.11052163,-0.022755902,0.08471733,-0.091487385,0.043667417,-0.007958376,0.015822642,-0.02671327,-0.054807927,0.039071042,0.011261699,-0.055841967,-0.039536912,0.07343946,-0.0521807,-0.025517121,2.0,1.7507542,-1.2689493,2.0,2.0,-2.0,2.0,0.049620174,-2.0,-2.0,0.09484977,-2.0,2.0,1.9738983,-2.0,2.0,2.0,-2.0,2.0,0.11417695,-2.0,-2.0,-0.11165234,-2.0
2025-06-10 09:02:32.428,0.002258725,-0.05000903,0.026031908,0.0029319644,0.015002013,0.019592071,0.0,0.0,0.0,-0.0048590507,0.08197997,0.42508745,-0.10725606,0.13956678,0.4841256,-0.22358209,0.04509576,0.0847987,-0.105688564,-0.03082375,0.09009571,-0.09591709,0.05102573,-0.0070351604,-0.08682285,0.069478534,0.00044762678,0.06705942,-0.071519725,-0.037932348,-0.0204323,-0.06319027,0.04914279,-0.0010079257,2.0,1.9738983,-2.0,2.0,2.0,-2.0,2.0,0.11417695,-2.0,-2.0,-0.11165234,-2.0,2.0,1.8433061,-1.0121019,2.0,2.0,-2.0,2.0,-0.14462596,-2.0,-2.0,0.14202951,-2.0
2025-06-10 09:02:32.448,0.017517239,0.059614886,-0.023452226,0.033851326,0.02914904,-0.046075217,0.0,0.0,0.0,-0.005048199,0.086071976,0.43744263,-0.097600006,0.13675582,0.48866168,-0.21870121,0.04827603,0.08359818,-0.10714993,-0.029584387,0.083552934,-0.09390249,-0.063285105,-0.03576178,0.058771502,0.02904208,-0.0352164,0.039493155,-0.047728572,0.019083876,0.073832795,0.0040771314,0.044933468,-0.028468072,2.0,1.8433061,-1.0121019,2.0,2.0,-2.0,2.0,-0.14462596,-2.0,-2.0,0.14202951,-2.0,2.0,1.7893171,-2.0,2.0,2.0,-2.0,2.0,0.11601441,-2.0,-2.0,-0.1289006,-2.0
2025-06-10 09:02:32.468,-0.015755836,-0.03600076,-0.014333586,0.012097345,0.0043973494,-0.0035754433,0.0,0.0,0.0,-0.005302485,0.095317006,0.44252104,-0.11313493,0.13942882,0.4840592,-0.22812942,0.052832514,0.07226051,-0.09569157,-0.024317062,0.09208273,-0.0970931,0.06409488,0.024695456,-0.012695666,-0.019387614,-0.013403918,-0.011682399,-0.048122328,-0.021056693,-0.0135760065,-0.044387788,-0.036189348,-0.03480096,2.0,1.7893171,-2.0,2.0,2.0,-2.0,2.0,0.11601441,-2.0,-2.0,-0.1289006,-2.0,2.0,2.0,-1.1875567,2.0,2.0,-2.0,2.0,-0.032335438,-2.0,-2.0,-0.07201941,-2.0
2025-06-10 09:02:32.488,-0.044475578,-0.03218955,0.057143446,0.042739775,0.04861072,-0.04386854,0.0,0.0,0.0,-0.0056904797,0.08050606,0.4279814,-0.103326716,0.14196949,0.4700198,-0.22781813,0.044544607,0.07897569,-0.10398427,-0.040340077,0.09137209,-0.09349283,-0.033705987,-0.06210207,0.049720395,-0.035134006,0.0010731863,0.04570063,-0.022908378,0.03974392,0.05184867,-0.048347153,-0.04151082,-0.009192729,2.0,2.0,-1.1875567,2.0,2.0,-2.0,2.0,-0.032335438,-2.0,-2.0,-0.07201941,-2.0,2.0,1.4553136,-2.0,2.0,2.0,-2.0,2.0,0.015331829,-2.0,-2.0,0.17343993,-2.0
2025-06-10 09:02:32.510,-0.015704492,0.029056061,-0.024353623,0.021905603,-0.010589056,-0.0017754372,0.0,0.0,0.0,-0.006256979,0.08794544,0.43261477,-0.1086835,0.14664522,0.4807819,-0.21819092,0.056636915,0.070487216,-0.11029821,-0.027210841,0.08932636,-0.08473963,0.0700528,0.021044625,-0.021140823,-0.046031877,0.013557951,-0.06539977,-0.006134547,-0.0019451338,0.036743853,0.060540985,-0.007477306,-0.04692533,2.0,1.4553136,-2.0,2.0,2.0,-2.0,2.0,0.015331829,-2.0,-2.0,0.17343993,-2.0,2.0,1.9871335,-1.3035946,2.0,2.0,-2.0,2.0,0.030462379,-2.0,-2.0,-0.002121742,-2.0
2025-06-10 09:02:32.529,0.0004207564,-0.002770298,0.04850836,0.009546116,0.039819825,0.041309528,0.0,0.0,0.0,-0.006400681,0.08706564,0.43602073,-0.11188817,0.14372654,0.4850716,-0.2171853,0.056662533,0.08448691,-0.09805972,-0.04506864,0.084621385,-0.09338818,-0.039371405,0.05472222,0.06942937,0.058148578,0.0017810854,-0.021781947,0.027514607,0.005396311,-0.028234337,0.059829853,-0.01769502,0.006101263,2.0,1.9871335,-1.3035946,2.0,2.0,-2.0,2.0,0.030462379,-2.0,-2.0,-0.002121742,-2.0,2.0,1.4922165,-2.0,2.0,2.0,-2.0,2.0,-0.044848926,-2.0,-2.0,0.18762526,-2.0
2025-06-10 09:02:32.548,0.033352412,0.016460326,-0.037581187,-0.016176129,0.06421379,-0.012094157,0.0,0.0,0.0,-0.006451895,0.098041445,0.44602588,-0.10790562,0.14264867,0.47787145,-0.23245235,0.0403342,0.08768102,-0.10839981,-0.04309425,0.08530319,-0.09714163,0.0072366577,-0.06661724,0.023717139,0.041886464,0.012457008,-0.015827024,-0.028987229,-0.044874907,-0.021345628,-0.07208985,0.015148663,-0.003163144,2.0,1.4922165,-2.0,2.0,2.0,-2.0,2.0,-0.044848926,-2.0,-2.0,0.18762526,-2.0,2.0,2.0,-1.5213656,2.0,2.0,-2.0,2.0,0.03686043,-2.0,-2.0,-0.1964844,-2.0
2025-06-10 09:02:32.568,0.0019222421,0.0077722417,0.01728664,0.033377822,0.026720604,0.04589798,0.0,0.0,0.0,-0.0061603887,0.09687934,0.44194502,-0.11165336,0.12712519,0.46925226,-0.2201807,0.040486526,0.08034212,-0.10931215,-0.030503755,0.07675858,-0.085224226,-0.07166481,-0.009082392,0.014046934,0.0066703833,-0.035698216,0.05259135,0.010694732,0.059371818,-0.015961193,0.026430497,0.01632298,0.049318817,2.0,2.0,-1.5213656,2.0,2.0,-2.0,2.0,0.03686043,-2.0,-2.0,-0.1964844,-2.0,2.0,1.7633289,-1.930887,2.0,2.0,-2.0,2.0,-0.0741641,-2.0,-2.0,0.086061575,-2.0
2025-06-10 09:02:32.589,0.0469685,-0.066723675,0.022664197,-0.04314102,0.020374656,0.0175339,0.0,0.0,0.0,-0.0060369526,0.07821837,0.44496104,-0.11875335,0.14621645,0.4712642,-0.23334897,0.040187538,0.08146206,-0.107811205,-0.03792702,0.06840158,-0.08634079,0.029411303,-0.06007884,-0.025484825,-0.014807905,-0.00012207952,0.01503046,-0.021758188,0.011118733,0.03229812,-0.0036818867,-0.06066335,-0.015768677,2.0,1.7633289,-1.930887,2.0,2.0,-2.0,2.0,-0.0741641,-2.0,-2.0,0.086061575,-2.0,2.0,1.8042666,-1.3364878,2.0,2.0,-2.0,2.0,-0.037177213,-2.0,-2.0,0.059371535,-2.0
2025-06-10 09:02:32.612,-0.0034654478,-0.007745012,-0.0514561,-0.0041582715,0.07004892,0.026249938,0.0,0.0,0.0,-0.0059000673,0.091832094,0.4371349,-0.11066583,0.13020466,0.4842144,-0.2307742,0.047688447,0.071453825,-0.10838426,-0.04452369,0.08477864,-0.09459096,0.0068378826,-0.024255754,0.0064220247,-0.012429214,0.04102733,0.0013082363,0.033239335,-0.031209718,-0.06047764,-0.06319389,0.01938629,0.06043672,2.0,1.8042666,-1.3364878,2.0,2.0,-2.0,2.0,-0.037177213,-2.0,-2.0,0.059371535,-2.0,2.0,2.0,-2.0,2.0,2.0,-2.0,2.0,0.070732795,-2.0,-2.0,-0.19267766,-2.0
2025-06-10 09:02:32.629,0.066879764,-0.013180269,0.0025650896,-0.026840637,0.037456024,-0.03969034,0.0,0.0,0.0,-0.0056708166,0.0802524,0.4426087,-0.11469014,0.13005349,0.47558925,-0.22589058,0.0564615,0.06847032,-0.108715914,-0.033499528,0.08232586,-0.07674558,0.042318467,0.04410406,-0.01947765,0.03846853,0.01715203,-0.017235389,0.04908413,0.0106607145,-0.06300316,-0.038306657,-0.06400153,0.02808453,2.0,2.0,-2.0,2.0,2.0,-2.0,2.0,0.070732795,-2.0,-2.0,-0.19267766,-2.0,2.0,1.9889272,-0.93203384,2.0,2.0,-2.0,2.0,-0.13510036,-2.0,-2.0,-0.01781879,-2.0
2025-06-10 09:02:32.649,-0.046570305,0.0058377273,0.0160663,0.012810486,0.043276563,-0.041506328,0.0,0.0,0.0,-0.005771128,0.09213229,0.43323556,-0.11505213,0.13325432,0.4709438,-0.21788706,0.047267158,0.07596304,-0.11297421,-0.028308915,0.07856086,-0.08009727,-0.005225158,0.08244734,-0.010115961,-0.030597102,0.031121988,0.005963416,-0.017747788,0.044956814,0.032128874,-0.025462655,0.053033963,0.03966761,2.0,1.9889272,-0.93203384,2.0,2.0,-2.0,2.0,-0.13510036,-2.0,-2.0,-0.01781879,-2.0,2.0,1.5635786,-2.0,2.0,2.0,-2.0,2.0,0.07225218,-2.0,-2.0,0.071123905,-2.0
2025-06-10 09:02:32.669,0.04324209,-0.036861796,-0.020219214,-0.011727413,0.025695095,0.0165615,0.0,0.0,0.0,-0.0060314983,0.08264424,0.4385646,-0.105758235,0.13514195,0.47374284,-0.22047321,0.05312226,0.08862487,-0.11451911,-0.04653285,0.081466995,-0.08957556,0.06662571,-0.027892603,0.008721701,-0.04893438,0.057872105,0.0075482726,0.018104844,-0.009743223,-0.0055796867,-0.04955215,0.046587948,-0.042127106,2.0,1.5635786,-2.0,2.0,2.0,-2.0,2.0,0.07225218,-2.0,-2.0,0.071123905,-2.0,2.0,2.0,-1.425178,2.0,2.0,-2.0,2.0,-0.0646664,-2.0,-2.0,-0.0838772,-2.0
2025-06-10 09:02:32.692,0.03986368,0.039149735,0.050860964,0.014707852,0.07125855,0.019146334,0.0,0.0,0.0,-0.006058429,0.08515361,0.45024058,-0.112288244,0.13276385,0.4877395,-0.23203954,0.045297936,0.07536824,-0.110332295,-0.043986868,0.0774952,-0.07390206,0.008511643,-0.0038847644,-0.052216504,-0.045144226,0.004189937,0.0028637443,0.033287674,0.008353501,0.0077472753,-0.07339908,-0.0033185596,-0.049981155,2.0,2.0,-1.425178,2.0,2.0,-2.0,2.0,-0.0646664,-2.0,-2.0,-0.0838772,-2.0,2.0,1.5584866,-1.931335,2.0,2.0,-2.0,2.0,-0.038509347,-2.0,-2.0,0.17900771,-2.0
2025-06-10 09:02:32.710,0.006543089,-0.008798601,-0.037439976,-0.016887205,-0.025268944,-0.020448608,0.0,0.0,0.0,-0.00608719,0.093927465,0.4414311,-0.11450758,0.12648046,0.4767252,-0.22531587,0.05465435,0.077192746,-0.107543394,-0.029096296,0.08086359,-0.08781586,-0.069501236,-0.054453142,-0.07124929,0.027087733,0.013761969,-0.015363791,0.06521669,0.040799443,0.047800045,-0.06076415,0.016619826,0.026700577,2.0,1.5584866,-1.931335,2.0,2.0,-2.0,2.0,-0.038509347,-2.0,-2.0,0.17900771,-2.0,2.0,1.9805015,-1.524245,2.0,2.0,-2.0,2.0,0.022559518,-2.0,-2.0,-0.0735861,-2.0
2025-06-10 09:02:32.729,-0.03119339,-0.013212877,-0.030881176,0.03957281,0.052560717,-0.020982914,0.0,0.0,0.0,-0.0058082044,0.0802852,0.43963927,-0.11219679,0.1286015,0.46944302,-0.21830413,0.03977806,0.08614332,-0.110557295,-0.0340915,0.08514099,-0.07541545,-0.070948385,-0.00025139804,0.029399822,-0.014397447,0.03009123,0.0058476618,0.0059206043,-0.018226003,-0.013666951,-0.014024131,-0.010963722,-0.061705414,2.0,1.9805015,-1.524245,2.0,2.0,-2.0,2.0,0.022559518,-2.0,-2.0,-0.0735861,-2.0,2.0,2.0,-1.992116,2.0,2.0,-2.0,2.0,-0.009419596,-2.0,-2.0,-0.20901836,-2.0
2025-06-10 09:02:32.749,0.022642763,-0.017579889,-0.024607774,0.019212736,0.041671906,0.046954855,0.0,0.0,0.0,-0.0056048916,0.09489895,0.4452906,-0.12359482,0.13768288,0.48738363,-0.22374877,0.05851702,0.073761754,-0.101355284,-0.033141248,0.07870854,-0.081941426,0.033934746,-0.023334969,0.0066322847,0.077830136,-0.07288807,-0.01204909,-0.009821898,-0.0059107738,-0.041110285,0.047996975,0.006557169,0.0262272,2.0,2.0,-1.992116,2.0,2.0,-2.0,2.0,-0.009419596,-2.0,-2.0,-0.20901836,-2.0,2.0,2.0,-1.1959085,2.0,2.0,-2.0,2.0,-0.071319886,-2.0,-2.0,-0.0741149,-2.0
2025-06-10 09:02:32.769,0.017461019,0.042950578,0.035115052,0.031065699,0.050979093,0.009007076,0.0,0.0,0.0,-0.005755461,0.0807342,0.45590788,-0.13037758,0.13408676,0.48544535,-0.22844347,0.04973661,0.07561892,-0.10672729,-0.045446005,0.07379337,-0.06630877,0.020832056,-0.06711334,0.014265069,0.032276466,-0.003998556,0.07491544,-0.017636582,0.073612384,-0.02700865,-0.014400228,-0.063575014,0.0135841835,2.0,2.0,-1.1959085,2.0,2.0,-2.0,2.0,-0.071319886,-2.0,-2.0,-0.0741149,-2.0,2.0,1.5927805,-2.0,2.0,2.0,-2.0,2.0,0.017184699,-2.0,-2.0,0.1544952,-2.0
2025-06-10 09:02:32.794,-0.048000995,0.010817558,0.025635008,-0.028894596,-0.014642105,0.04366834,0.0,0.0,0.0,-0.0060619,0.09287776,0.44548094,-0.12252621,0.1274134,0.4750398,-0.22967833,0.04305605,0.08333845,-0.10448271,-0.03651943,0.06680476,-0.078744,-0.061697736,0.045740765,-0.042167556,-0.014307878,-0.010354426,-0.0006780985,-0.062448338,0.00061981677,0.04556244,0.044492725,0.055192914,-0.03311387,2.0,1.5927805,-2.0,2.0,2.0,-2.0,2.0,0.017184699,-2.0,-2.0,0.1544952,-2.0,2.0,1.7629634,-1.4620085,2.0,2.0,-2.0,2.0,-0.024767077,-2.0,-2.0,0.15656166,-2.0
2025-06-10 09:02:32.811,0.025982905,-0.016291315,-0.03520157,-0.030174093,0.034512613,0.0073895794,0.0,0.0,0.0,-0.0060323984,0.09306555,0.44899425,-0.12040147,0.14257832,0.47944623,-0.21501674,0.049412057,0.0724427,-0.11109326,-0.03282629,0.07302211,-0.069999315,0.039309733,-0.0664563,-0.008834573,0.033167303,-0.03928196,0.034819633,-0.033870388,0.027804852,0.07265796,0.062087283,-0.030221011,0.03825951,2.0,1.7629634,-1.4620085,2.0,2.0,-2.0,2.0,-0.024767077,-2.0,-2.0,0.15656166,-2.0,2.0,1.9312507,-2.0,2.0,2.0,-2.0,2.0,0.054865234,-2.0,-2.0,-0.08270113,-2.0
2025-06-10 09:02:32.829,-0.0015329004,0.006087984,0.0032797097,-0.0070653344,0.017337756,0.038426314,0.0,0.0,0.0,-0.005681848,0.075450055,0.46103483,-0.12966074,0.12818234,0.48456845,-0.23071302,0.04283453,0.07181797,-0.09872501,-0.040139414,0.08513006,-0.08864021,-0.030435424,0.074751414,0.040876485,-0.010459564,0.007735568,-0.020032339,-0.067279115,-0.057043202,-0.030238004,-0.03376195,-0.018948812,-0.011157856,2.0,1.9312507,-2.0,2.0,2.0,-2.0,2.0,0.054865234,-2.0,-2.0,-0.08270113,-2.0,2.0,2.0,-1.3454907,2.0,2.0,-2.0,2.0,-0.07487924,-2.0,-2.0,-0.055981677,-2.0
2025-06-10 09:02:32.850,-0.040444445,-0.034083318,0.049385518,0.021191346,0.015444048,0.027010188,0.0,0.0,0.0,-0.005473552,0.09550962,0.46330464,-0.12965529,0.13209252,0.48054942,-0.23057297,0.056685533,0.0852892,-0.11109089,-0.037008155,0.07962489,-0.075524874,0.04585895,0.027128387,0.012210956,0.021718388,0.06253101,-0.05410588,0.031923044,-0.07375756,0.032428563,-0.044390664,0.058885343,-0.07106663,2.0,2.0,-1.3454907,2.0,2.0,-2.0,2.0,-0.07487924,-2.0,-2.0,-0.055981677,-2.0,2.0,1.441893,-2.0,2.0,2.0,-2.0,2.0,-0.012350565,-2.0,-2.0,0.15791045,-2.0
2025-06-10 09:02:32.927,0.025641147,0.021360705,-0.04514199,-0.0068994095,0.03706051,0.028652536,0.0,0.0,0.0,-0.005480301,0.07515988,0.45152098,-0.12239753,0.13167144,0.48645577,-0.2247959,0.051584885,0.07187211,-0.11369598,-0.034039494,0.08647748,-0.078150876,-0.046248805,-0.053430103,-0.016369324,0.028945945,0.053690415,-0.0051973592,0.027218703,-0.007898293,-0.0066377376,0.0313151,0.051889814,-0.036222175,2.0,1.441893,-2.0,2.0,2.0,-2.0,2.0,-0.012350565,-2.0,-2.0,0.15791045,-2.0,2.0,2.0,-1.3803475,2.0,2.0,-2.0,2.0,0.01320144,-2.0,-2.0,-0.034410786,-2.0
2025-06-10 09:02:32.947,-0.016579157,0.058968473,0.010739393,0.044289447,0.054356657,0.0139684,0.0,0.0,0.0,-0.0051692394,0.08243255,0.4551794,-0.12921314,0.13380921,0.48483765,-0.22814617,0.051136844,0.08674684,-0.100105524,-0.03359082,0.07161936,-0.075717084,0.0134372255,-0.052656792,0.0014536935,-0.010497183,-0.048157286,0.03900677,-0.060639326,0.065556005,-0.012113842,0.010147736,-0.037340764,0.052005667,2.0,2.0,-1.3803475,2.0,2.0,-2.0,2.0,0.01320144,-2.0,-2.0,-0.034410786,-2.0,2.0,1.8376007,-1.9956722,2.0,2.0,-2.0,2.0,0.01378938,-2.0,-2.0,0.033387993,-2.0
2025-06-10 09:02:32.987,0.005013685,-0.04012388,0.023680078,0.0019549706,0.063288115,-0.0118911415,0.0,0.0,0.0,-0.0049393335,0.08342303,0.46246958,-0.1238813,0.13474692,0.4751501,-0.2141749,0.05304491,0.06970086,-0.096164785,-0.034945633,0.08903363,-0.08764511,0.034212608,0.029660804,-0.067125596,-0.029434333,0.019954082,-0.0033631749,-0.0679373,0.026958948,0.06172549,-0.03327217,-0.03888906,-0.03894724,2.0,1.8376007,-1.9956722,2.0,2.0,-2.0,2.0,0.01378938,-2.0,-2.0,0.033387993,-2.0,2.0,1.868207,-1.1219366,2.0,2.0,-2.0,2.0,-0.04973588,-2.0,-2.0,0.073187344,-2.0
2025-06-10 09:02:33.005,-0.05146502,0.015060317,-0.0038415983,-0.02810431,0.022041189,0.013753351,0.0,0.0,0.0,-0.0048653185,0.076721616,0.45864964,-0.111183405,0.13271344,0.4846771,-0.21297505,0.055688534,0.077674225,-0.10379281,-0.026075123,0.09096018,-0.07466435,0.07122939,0.06281902,0.057421688,-0.0060992585,1.5277104e-06,0.043602657,0.059207138,0.043854944,0.066076286,0.057783205,0.06668327,0.04427872,2.0,1.868207,-1.1219366,2.0,2.0,-2.0,2.0,-0.04973588,-2.0,-2.0,0.073187344,-2.0,2.0,1.5403787,-2.0,2.0,2.0,-2.0,2.0,0.057567023,-2.0,-2.0,0.08165296,-2.0
2025-06-10 09:02:33.028,0.041214798,-0.0058188597,-0.0602996,-0.014254108,0.0018024665,-0.012476822,0.0,0.0,0.0,-0.0048455377,0.093343474,0.45231697,-0.12742607,0.14022067,0.48556837,-0.23061237,0.057124477,0.08316214,-0.11201691,-0.03078005,0.07781048,-0.09131183,-0.04223687,0.022378659,-0.032010335,-0.042334788,-0.063799836,0.0051972265,0.05570731,-0.005781504,0.04599087,0.013591011,0.071569555,-0.06609018,2.0,1.5403787,-2.0,2.0,2.0,-2.0,2.0,0.057567023,-2.0,-2.0,0.08165296,-2.0,2.0,2.0,-1.8466294,2.0,2.0,-2.0,2.0,0.013208205,-2.0,-2.0,-0.21032484,-2.0
2025-06-10 09:02:33.045,0.011016037,-0.026450168,0.05150874,0.05122894,0.026023665,-0.009985017,0.0,0.0,0.0,-0.004714998,0.08384278,0.46134305,-0.12422571,0.12984188,0.4858907,-0.23203418,0.04172947,0.07032852,-0.112085946,-0.0376585,0.06881118,-0.09072429,0.031506184,-3.917663e-05,-0.07466355,-0.0061403182,0.018027026,-0.07280925,0.004557224,0.031394925,0.02338126,-0.0037641516,0.04186104,-0.03887511,2.0,2.0,-1.8466294,2.0,2.0,-2.0,2.0,0.013208205,-2.0,-2.0,-0.21032484,-2.0,2.0,1.7010142,-1.0969644,2.0,2.0,-2.0,2.0,-0.12841493,-2.0,-2.0,0.1835766,-2.0
2025-06-10 09:02:33.065,-0.042761877,0.050545968,-0.017942037,0.04256922,0.047749154,0.009421792,0.0,0.0,0.0,-0.004822203,0.074732564,0.4548756,-0.118655205,0.14099357,0.48916647,-0.22163202,0.047709174,0.0820861,-0.110744014,-0.0443769,0.074165896,-0.08740369,0.011168158,0.0015646467,-0.03340902,0.05475673,-0.06867471,-0.04717077,0.02433864,0.0070332144,0.06028741,-0.0172744,0.03702811,0.0640229,2.0,1.7010142,-1.0969644,2.0,2.0,-2.0,2.0,-0.12841493,-2.0,-2.0,0.1835766,-2.0,2.0,1.7620114,-2.0,2.0,2.0,-2.0,2.0,0.14831811,-2.0,-2.0,-0.06729414,-2.0
2025-06-10 09:02:33.085,0.06161876,-0.05360176,-0.0183625,-0.0067490847,0.06804594,0.04228592,0.0,0.0,0.0,-0.004862409,0.08559389,0.44055668,-0.12492744,0.13666452,0.48242038,-0.22427166,0.057769675,0.07258342,-0.10195547,-0.025899705,0.07443464,-0.086592205,-0.017759642,0.074373074,-0.062243655,-0.005822784,-0.050241943,-0.056625072,-0.04783433,-0.023986489,0.024429586,0.027816812,0.06966943,0.014853352,2.0,1.7620114,-2.0,2.0,2.0,-2.0,2.0,0.14831811,-2.0,-2.0,-0.06729414,-2.0,2.0,2.0,-1.3436859,2.0,2.0,-2.0,2.0,-0.077473946,-2.0,-2.0,-0.030119743,-2.0
2025-06-10 09:02:33.106,0.0066749593,0.05171483,-0.0030985065,-0.034962174,0.013845239,0.010413415,0.0,0.0,0.0,-0.004964744,0.08999131,0.45895275,-0.120997265,0.12781185,0.49093568,-0.22832975,0.05731214,0.0862596,-0.09732043,-0.042772148,0.083959214,-0.08151777,0.033562556,0.009147571,0.07372537,-0.03878464,0.034190714,-0.06633633,0.019412676,0.06091158,-0.0077256863,-0.07619001,0.012337634,0.03944717,2.0,2.0,-1.3436859,2.0,2.0,-2.0,2.0,-0.077473946,-2.0,-2.0,-0.030119743,-2.0,2.0,1.8313752,-2.0,2.0,2.0,-2.0,2.0,0.022323513,-2.0,-2.0,-0.10318442,-2.0
2025-06-10 09:02:33.127,0.0024511756,-0.043924674,0.054942824,0.005372896,0.058896136,0.045949653,0.0,0.0,0.0,-0.005239196,0.079855815,0.45713103,-0.12699422,0.1342727,0.47265184,-0.22856279,0.05892961,0.073151276,-0.096865065,-0.04402497,0.06801111,-0.08780104,0.026553059,-0.015499005,-0.039161142,0.0035991396,-0.04649058,-0.04557139,-0.044551633,-0.014044925,-0.047829185,0.01753477,-0.053828064,-0.060199622,2.0,1.8313752,-2.0,2.0,2.0,-2.0,2.0,0.022323513,-2.0,-2.0,-0.10318442,-2.0,2.0,1.783799,-0.9549787,2.0,2.0,-2.0,2.0,-0.057375915,-2.0,-2.0,0.18733685,-2.0
2025-06-10 09:02:33.145,-0.037063643,0.054694578,-0.01019651,0.039297707,0.03321828,-0.022604302,0.0,0.0,0.0,-0.0055775247,0.08673492,0.45004994,-0.111987114,0.12729794,0.4827824,-0.21905646,0.03902265,0.08699599,-0.10597933,-0.038981505,0.08052668,-0.07755867,-0.026747847,-0.057741467,0.05490957,0.005098124,-0.048449446,0.019817593,-0.005838819,0.042423807,0.005340308,0.019881232,-0.002579254,0.06053209,2.0,1.783799,-0.9549787,2.0,2.0,-2.0,2.0,-0.057375915,-2.0,-2.0,0.18733685,-2.0,2.0,1.7233833,-2.0,2.0,2.0,-2.0,2.0,0.13260469,-2.0,-2.0,-0.07312587,-2.0
2025-06-10 09:02:33.166,0.0052068313,-0.028645566,-0.026899392,-0.0036708934,0.04177654,0.030816467,0.0,0.0,0.0,-0.0057323617,0.08264814,0.45770735,-0.101200856,0.13462585,0.48009375,-0.2209208,0.041765157,0.0870755,-0.112131156,-0.037771646,0.08799033,-0.086263105,0.020766871,-0.002100399,0.07149509,-0.04607632,0.035873674,-0.037749916,0.00480869,-0.036983933,-0.061993595,-0.0398334,-0.02462041,-0.072775096,2.0,1.7233833,-2.0,2.0,2.0,-2.0,2.0,0.13260469,-2.0,-2.0,-0.07312587,-2.0,2.0,2.0,-1.4439008,2.0,2.0,-2.0,2.0,-0.05623073,-2.0,-2.0,-0.21995224,-2.0
2025-06-10 09:02:33.186,0.017201941,0.013790059,0.024644433,-0.041306224,0.016416432,-0.03403885,0.0,0.0,0.0,-0.005873682,0.091382325,0.44158408,-0.11642424,0.13041571,0.4772724,-0.23342092,0.04244308,0.06773269,-0.10247144,-0.030264817,0.081159376,-0.08744154,-0.04713337,0.06498398,0.0649029,-0.057785764,0.029717818,0.061114382,0.07068332,-0.047420353,0.024482049,-0.061155863,0.05547647,0.013812494,2.0,2.0,-1.4439008,2.0,2.0,-2.0,2.0,-0.05623073,-2.0,-2.0,-0.21995224,-2.0,2.0,1.5407535,-2.0,2.0,2.0,-2.0,2.0,-0.062450804,-2.0,-2.0,0.110293515,-2.0
2025-06-10 09:02:33.209,-0.022905316,-0.028018303,-0.040533274,-0.020514235,0.027087482,0.024414407,0.0,0.0,0.0,-0.006225391,0.08625777,0.4482352,-0.11675617,0.14135098,0.47196493,-0.23189738,0.038574662,0.075889096,-0.098601155,-0.041938644,0.07382756,-0.090974346,-0.014319619,0.03764208,0.047177963,-0.036254812,0.0478397,0.034755044,-0.003576173,0.048400063,0.036928292,0.04943055,-0.015308316,-0.01608617,2.0,1.5407535,-2.0,2.0,2.0,-2.0,2.0,-0.062450804,-2.0,-2.0,0.110293515,-2.0,2.0,2.0,-1.5593929,2.0,2.0,-2.0,2.0,0.015558654,-2.0,-2.0,-0.16092865,-2.0
2025-06-10 09:02:33.228,0.018923573,0.0052352403,-0.0098132,0.03285258,0.0068165115,-0.041931964,0.0,0.0,0.0,-0.0062073343,0.091357194,0.44684285,-0.11476472,0.13599299,0.4832781,-0.23193964,0.050661642,0.07543484,-0.108559065,-0.0387915,0.063439906,-0.08042036,-0.0062191975,0.07406741,-0.028727353,-0.014381988,0.07254505,-0.007854692,-0.045239873,-0.039648894,0.049218956,-0.02102048,0.021547578,0.06272733,2.0,2.0,-1.5593929,2.0,2.0,-2.0,2.0,0.015558654,-2.0,-2.0,-0.16092865,-2.0,2.0,1.9056534,-1.7405784,2.0,2.0,-2.0,2.0,-0.09041316,-2.0,-2.0,-0.04255567,-2.0
2025-06-10 09:02:33.246,-0.045391373,-0.04196102,0.007561059,-0.03195315,0.02706033,0.0110199135,0.0,0.0,0.0,-0.0061962605,0.09239816,0.44513875,-0.11418362,0.13324563,0.4672093,-0.23731677,0.05696941,0.06793544,-0.10156677,-0.03431211,0.06446797,-0.073148124,0.0617653,0.055297937,-0.0017965873,-0.0114608705,0.053922087,-0.046644054,0.028788151,0.03852348,0.05527438,0.031684425,0.013200386,0.041296292,2.0,1.9056534,-1.7405784,2.0,2.0,-2.0,2.0,-0.09041316,-2.0,-2.0,-0.04255567,-2.0,2.0,1.7452177,-1.5569987,2.0,2.0,-2.0,2.0,-0.03836996,-2.0,-2.0,0.033331435,-2.0
2025-06-10 09:02:33.266,-0.028663408,-0.010511058,0.009338238,0.037577003,-0.001650087,-0.014320327,0.0,0.0,0.0,-0.006236298,0.08400218,0.45163774,-0.12781419,0.1403941,0.4766249,-0.23314838,0.056542072,0.07224497,-0.0995879,-0.033532258,0.06251071,-0.082075976,0.034038432,0.058391303,-0.060664635,-0.07588327,0.04967404,0.023863146,0.054401085,0.029123308,0.061119977,-0.021517193,-0.046057627,0.043573987,2.0,1.7452177,-1.5569987,2.0,2.0,-2.0,2.0,-0.03836996,-2.0,-2.0,0.033331435,-2.0,2.0,1.674856,-1.7658312,2.0,2.0,-2.0,2.0,0.00026654638,-2.0,-2.0,0.09314499,-2.0
2025-06-10 09:02:33.286,-0.037477054,0.007538441,0.0023843728,-0.033125825,0.06779097,0.03423022,0.0,0.0,0.0,-0.0061019026,0.09416396,0.45320246,-0.111660555,0.14096919,0.48234764,-0.23687448,0.04994171,0.06299481,-0.10538689,-0.037606973,0.069857374,-0.07820602,-0.0043294593,-0.028906543,0.042624965,-0.049200527,-0.051825397,0.06407902,0.033408236,-0.05688856,-0.0020024271,-0.027905451,0.062585086,-0.02794983,2.0,1.674856,-1.7658312,2.0,2.0,-2.0,2.0,0.00026654638,-2.0,-2.0,0.09314499,-2.0,2.0,1.7783865,-2.0,2.0,2.0,-2.0,2.0,0.019116396,-2.0,-2.0,0.01700351,-2.0
2025-06-10 09:02:33.309,-0.016248453,-0.04912283,-0.06665771,0.043835375,0.03317731,0.0065351063,0.0,0.0,0.0,-0.0057478626,0.07805845,0.4399121,-0.13035113,0.13586381,0.48091063,-0.23486125,0.04795076,0.06475573,-0.10720916,-0.028458297,0.06617539,-0.09028596,0.059554864,-0.0030345868,0.012102341,0.047727495,-0.06490396,-0.032891624,0.050655328,0.07297813,-0.06393769,-0.03589489,0.043436076,-0.00020307556,2.0,1.7783865,-2.0,2.0,2.0,-2.0,2.0,0.019116396,-2.0,-2.0,0.01700351,-2.0,2.0,2.0,-1.5014966,2.0,2.0,-2.0,2.0,0.016554737,-2.0,-2.0,-0.3486418,-2.0
2025-06-10 09:02:33.327,-0.026108183,-0.07007599,0.02120502,-0.02665987,0.038914632,-0.022709416,0.0,0.0,0.0,-0.0053104735,0.08769697,0.44327947,-0.12314139,0.14124022,0.48507586,-0.23193988,0.049018566,0.077353545,-0.10374957,-0.036341567,0.0771089,-0.07746629,0.07416104,0.023931498,0.02551777,0.06986563,-0.05127293,0.0071861027,-0.07351547,0.024901636,-0.005879089,-0.051635504,0.02740874,0.04693547,2.0,2.0,-1.5014966,2.0,2.0,-2.0,2.0,0.016554737,-2.0,-2.0,-0.3486418,-2.0,2.0,1.8658452,-1.6337435,2.0,2.0,-2.0,2.0,-0.0137012955,-2.0,-2.0,0.058026943,-2.0
2025-06-10 09:02:33.346,0.012801561,-0.00879871,-0.04119376,0.04801659,0.03068325,0.0347422,0.0,0.0,0.0,-0.0053139785,0.08969895,0.44010094,-0.12065206,0.14447333,0.48211965,-0.23004484,0.05806195,0.08077024,-0.11946347,-0.043902352,0.067214176,-0.07478975,0.06811288,-0.02634698,-0.042798713,0.018856967,-0.051027387,0.0011599133,-0.019032877,0.052590404,-0.014800552,-0.030192057,0.018940989,-0.0005025745,2.0,1.8658452,-1.6337435,2.0,2.0,-2.0,2.0,-0.0137012955,-2.0,-2.0,0.058026943,-2.0,2.0,2.0,-1.9025848,2.0,2.0,-2.0,2.0,0.026244188,-2.0,-2.0,-0.23061977,-2.0
2025-06-10 09:02:33.366,0.047181387,-0.05448746,0.060497265,0.026924957,0.019412126,-0.03423665,0.0,0.0,0.0,-0.0054330807,0.08726488,0.44045836,-0.11861,0.14268242,0.46792024,-0.22481084,0.056878556,0.07635239,-0.102025285,-0.035380583,0.064694434,-0.08423394,-0.015192443,0.0681931,-0.047413383,0.060988165,-0.0048671514,-0.048079085,-0.030048938,0.02481754,-0.013256262,-0.053866558,0.0205523,0.00025925192,2.0,2.0,-1.9025848,2.0,2.0,-2.0,2.0,0.026244188,-2.0,-2.0,-0.23061977,-2.0,2.0,1.7468289,-0.98459345,2.0,2.0,-2.0,2.0,-0.14589271,-2.0,-2.0,0.14506893,-2.0
2025-06-10 09:02:33.386,0.02199245,0.08332902,-0.031347338,-0.0075991596,0.013195877,-0.04805736,0.0,0.0,0.0,-0.0057017915,0.088296846,0.45697665,-0.11587333,0.14589809,0.47876522,-0.22939602,0.05554567,0.07547338,-0.11901883,-0.043457966,0.062809646,-0.08675054,-0.00043102453,0.010489198,-0.010312505,0.051275816,-0.02379735,0.009905908,0.03072253,0.033178005,0.00470326,0.027070632,-0.004281413,0.003409635,2.0,1.7468289,-0.98459345,2.0,2.0,-2.0,2.0,-0.14589271,-2.0,-2.0,0.14506893,-2.0,2.0,1.8429044,-2.0,2.0,2.0,-2.0,2.0,0.14093974,-2.0,-2.0,-0.12891297,-2.0
2025-06-10 09:02:33.410,0.056138724,-0.03156826,0.032723233,0.01797103,0.06635539,0.04579632,0.0,0.0,0.0,-0.005773933,0.09024849,0.43925557,-0.11250034,0.13704908,0.48437124,-0.21865767,0.03910813,0.08043733,-0.11689741,-0.030865572,0.073196225,-0.077579744,0.0011328999,-0.0580438,-0.024892958,0.0051489477,0.06344877,-0.026550397,0.055776373,0.041137405,0.03877397,0.007730981,0.04088307,0.015156273,2.0,1.8429044,-2.0,2.0,2.0,-2.0,2.0,0.14093974,-2.0,-2.0,-0.12891297,-2.0,2.0,1.7236055,-0.9983149,2.0,2.0,-2.0,2.0,-0.20526642,-2.0,-2.0,0.19292171,-2.0
2025-06-10 09:02:33.428,-0.015409389,0.09186452,0.010893001,-0.005758926,0.036064595,-0.002580117,0.0,0.0,0.0,-0.0058636065,0.0908612,0.4498244,-0.11998153,0.13812543,0.4766313,-0.21662587,0.05244258,0.06999858,-0.10803488,-0.049909074,0.075530395,-0.077410385,0.035883147,-0.057208132,0.100085855,0.03323994,-0.029388469,0.051736232,0.05423263,-0.011462757,0.06040091,-0.0098512415,0.013710003,-0.026983775,2.0,1.7236055,-0.9983149,2.0,2.0,-2.0,2.0,-0.20526642,-2.0,-2.0,0.19292171,-2.0,2.0,1.4418255,-2.0,2.0,2.0,-2.0,2.0,0.12954754,-2.0,-2.0,0.034276392,-2.0
2025-06-10 09:02:33.446,0.0027778128,-0.016155351,0.009732363,-0.029109089,-0.019094625,-0.046963923,0.0,0.0,0.0,-0.0056787645,0.09369636,0.45132476,-0.108202875,0.12827002,0.48775735,-0.21959305,0.039711732,0.075035445,-0.106274,-0.04144485,0.081356086,-0.08212159,-0.031592794,0.04857718,0.0376654,-0.02799568,-0.009397399,0.06671086,-0.06733376,-0.0038599644,-0.071212664,0.057246473,0.06370378,-0.019457811,2.0,1.4418255,-2.0,2.0,2.0,-2.0,2.0,0.12954754,-2.0,-2.0,0.034276392,-2.0,2.0,1.9060494,-1.4604578,2.0,2.0,-2.0,2.0,-0.0255203,-2.0,-2.0,0.10526024,-2.0
2025-06-10 09:02:33.466,0.009740361,0.029368367,-0.021203587,0.020349888,0.056544382,0.017213836,0.0,0.0,0.0,-0.0052285823,0.07525811,0.43330202,-0.11326546,0.1415555,0.47845742,-0.21674179,0.044171542,0.08489754,-0.105128355,-0.029989922,0.07632824,-0.079065666,0.015417205,-0.045378134,0.020572068,-0.057428245,0.008320709,-0.05081467,0.05258718,-0.041209348,-0.03526074,-0.058559276,-0.063250504,-0.07843062,2.0,1.9060494,-1.4604578,2.0,2.0,-2.0,2.0,-0.0255203,-2.0,-2.0,0.10526024,-2.0,2.0,1.9586843,-2.0,2.0,2.0,-2.0,2.0,0.030097837,-2.0,-2.0,-0.19853322,-2.0
2025-06-10 09:02:33.487,-0.024513245,-0.07801842,0.034805242,-0.030315079,0.021413883,0.0316737,0.0,0.0,0.0,-0.0047967145,0.077677384,0.44724745,-0.110730946,0.1284015,0.4772815,-0.21503882,0.043777477,0.08077968,-0.11742254,-0.032246206,0.0666983,-0.07842417,-0.026712662,-0.033826303,-0.0104602855,0.011234255,0.050237607,-0.02378852,0.04550444,-0.033751037,0.03413289,-0.0062537254,0.06392134,0.005242143,2.0,1.9586843,-2.0,2.0,2.0,-2.0,2.0,0.030097837,-2.0,-2.0,-0.19853322,-2.0,2.0,1.630976,-1.1988254,2.0,2.0,-2.0,2.0,-0.17868549,-2.0,-2.0,0.17117728,-2.0
2025-06-10 09:02:33.510,-0.06794807,0.063447386,-0.027748821,-0.0056854044,0.040453106,0.03648573,0.0,0.0,0.0,-0.004721904,0.07942176,0.44340402,-0.11830232,0.13573438,0.4899517,-0.22504458,0.04803214,0.06722427,-0.10008955,-0.026991103,0.0667466,-0.081681475,-0.06843247,0.03563201,-0.04903391,-0.023744943,0.06011085,-0.040720526,-0.046401046,-0.007568099,0.07143144,0.02848553,0.016439581,-0.018006165,2.0,1.630976,-1.1988254,2.0,2.0,-2.0,2.0,-0.17868549,-2.0,-2.0,0.17117728,-2.0,2.0,1.763974,-2.0,2.0,2.0,-2.0,2.0,0.14243874,-2.0,-2.0,0.011137602,-2.0
2025-06-10 09:02:33.527,0.032268964,0.024195557,0.0035255183,-0.030225018,0.03986791,0.018368946,0.0,0.0,0.0,-0.0045135226,0.08271858,0.4480008,-0.11661988,0.12724245,0.4873818,-0.21696883,0.041509036,0.074722,-0.1023584,-0.042923927,0.08420718,-0.08322416,0.07500571,0.06509953,0.03054809,-0.06592606,0.009848899,0.07158484,0.035797294,-0.060100917,0.03545612,-0.0023460477,-0.0023762495,0.050634556,2.0,1.763974,-2.0,2.0,2.0,-2.0,2.0,0.14243874,-2.0,-2.0,0.011137602,-2.0,2.0,1.824886,-1.5314071,2.0,2.0,-2.0,2.0,-0.13471559,-2.0,-2.0,0.06763492,-2.0
2025-06-10 09:02:33.547,-0.013833641,-0.020187948,5.727065e-05,0.028404888,0.008111257,-0.015808394,0.0,0.0,0.0,-0.004324821,0.08727023,0.44625863,-0.122717924,0.13774043,0.4832017,-0.2316035,0.05447283,0.06237625,-0.11623902,-0.043382354,0.07221937,-0.08726834,0.0021447383,-0.07306927,-0.024689775,-0.043509632,0.075299345,-0.04607211,0.034994837,0.013246811,-0.018061914,-0.021567957,0.027409649,0.043747485,2.0,1.824886,-1.5314071,2.0,2.0,-2.0,2.0,-0.13471559,-2.0,-2.0,0.06763492,-2.0,2.0,1.6848761,-1.7883441,2.0,2.0,-2.0,2.0,0.010445381,-2.0,-2.0,0.033618007,-2.0
2025-06-10 09:02:33.567,-0.04295183,-0.055024292,0.025638668,-0.044885248,0.00024620528,0.021610096,0.0,0.0,0.0,-0.004154454,0.07587869,0.43630004,-0.12382522,0.13589537,0.48938286,-0.23257397,0.056408323,0.0669601,-0.10160776,-0.03585916,0.07112016,-0.093996756,0.021206627,0.0372861,0.009854144,-0.061795022,-0.020860137,0.014626323,-0.0072722468,-0.004874878,-0.059890904,0.03317661,-0.075396255,0.01578932,2.0,1.6848761,-1.7883441,2.0,2.0,-2.0,2.0,0.010445381,-2.0,-2.0,0.033618007,-2.0,2.0,1.7122648,-1.4694827,2.0,2.0,-2.0,2.0,0.019437963,-2.0,-2.0,0.16410771,-2.0
2025-06-10 09:02:33.587,-0.020257575,0.0058482476,0.03668782,-0.019411704,-0.006657838,-0.04646985,0.0,0.0,0.0,-0.003972829,0.09002907,0.44785902,-0.10767696,0.13341491,0.48291013,-0.21972387,0.050343744,0.06491842,-0.11568366,-0.031116378,0.07559073,-0.08484039,-0.06326511,0.020281823,-0.04123123,-0.020272475,0.010063801,0.010751192,-0.04357557,-0.042096958,0.0637136,-0.07300068,0.0060131904,-0.018875433,2.0,1.7122648,-1.4694827,2.0,2.0,-2.0,2.0,0.019437963,-2.0,-2.0,0.16410771,-2.0,2.0,1.5462296,-2.0,2.0,2.0,-2.0,2.0,0.023001278,-2.0,-2.0,0.14912438,-2.0
2025-06-10 09:02:33.610,0.0455881,0.02888333,-0.045578495,0.04274837,-0.01607525,0.029947555,0.0,0.0,0.0,-0.0037805836,0.074996434,0.4340045,-0.11414637,0.13171744,0.4789937,-0.21921094,0.04649779,0.0724853,-0.11919225,-0.039394133,0.07828554,-0.100475796,0.028749779,-0.025666941,-0.008243635,-0.016106805,0.011799796,0.062197383,0.07565175,0.058440853,-0.038922247,0.044870365,0.027198285,-0.029459316,2.0,1.5462296,-2.0,2.0,2.0,-2.0,2.0,0.023001278,-2.0,-2.0,0.14912438,-2.0,2.0,2.0,-1.5016346,2.0,2.0,-2.0,2.0,-0.039988793,-2.0,-2.0,-0.11084651,-2.0
2025-06-10 09:02:33.627,0.045222238,-0.0327365,0.027439531,-0.02193619,0.024383787,-0.025490183,0.0,0.0,0.0,-0.0034422008,0.08110214,0.43699047,-0.10513476,0.13527086,0.4829531,-0.22767444,0.05683316,0.06984965,-0.11887324,-0.036190566,0.075176075,-0.084443726,-0.028343352,-0.06627788,0.06684918,-0.024107652,0.0030839506,-0.032264195,-0.030717652,-0.03289708,0.054531243,-0.049760025,0.0062269843,0.07598255,2.0,2.0,-1.5016346,2.0,2.0,-2.0,2.0,-0.039988793,-2.0,-2.0,-0.11084651,-2.0,2.0,1.6340086,-2.0,2.0,2.0,-2.0,2.0,-0.05510912,-2.0,-2.0,0.07428355,-2.0
2025-06-10 09:02:33.647,0.025099166,0.019608062,-0.02551863,-0.01744306,0.056792777,-0.0026567942,0.0,0.0,0.0,-0.0034055712,0.07509956,0.44131708,-0.120337404,0.13997003,0.48173127,-0.23524708,0.058816116,0.073842086,-0.1035389,-0.0314916,0.074826546,-0.08866975,0.06963829,-0.0127581535,-0.07690753,-0.014479493,-0.009835786,-0.06450362,0.029713798,-0.020408547,-0.049152356,-0.033219982,-0.0648371,0.001853207,2.0,1.6340086,-2.0,2.0,2.0,-2.0,2.0,-0.05510912,-2.0,-2.0,0.07428355,-2.0,2.0,2.0,-1.1195748,2.0,2.0,-2.0,2.0,0.029986555,-2.0,-2.0,-0.08104568,-2.0
2025-06-10 09:02:33.667,-0.04586539,-0.017800277,-0.0092148855,-0.012453024,0.040922493,0.019533467,0.0,0.0,0.0,-0.0033999872,0.07372642,0.43924552,-0.122501425,0.12419806,0.47613677,-0.2344025,0.047294814,0.071084276,-0.11413258,-0.025074875,0.08330215,-0.085938305,-0.059558675,-0.017089084,0.027057765,-0.072151065,-0.023789398,0.06450825,-0.0037149184,0.06792699,0.064650685,-0.06598271,-0.041619413,0.053432677,2.0,2.0,-1.1195748,2.0,2.0,-2.0,2.0,0.029986555,-2.0,-2.0,-0.08104568,-2.0,2.0,1.7857695,-2.0,2.0,2.0,-2.0,2.0,0.06247016,-2.0,-2.0,-0.042277995,-2.0
2025-06-10 09:02:33.687,0.051202882,-0.01911159,0.057611868,-0.020621045,0.016553486,-0.044131137,0.0,0.0,0.0,-0.0036696426,0.07592743,0.44960374,-0.11592413,0.13585474,0.47546563,-0.22686775,0.05395644,0.073852815,-0.11103094,-0.035207115,0.07749674,-0.093224056,0.05887845,0.079007044,-0.03334562,-0.056828916,0.010445665,0.060227666,0.05924635,0.002057266,0.067304626,-0.031638097,0.03408983,-0.018518386,2.0,1.7857695,-2.0,2.0,2.0,-2.0,2.0,0.06247016,-2.0,-2.0,-0.042277995,-2.0,2.0,1.5257226,-1.3918262,2.0,2.0,-2.0,2.0,-0.14211872,-2.0,-2.0,0.24738006,-2.0
2025-06-10 09:02:33.710,0.0016957773,-0.022807501,-0.004458655,-0.011003014,-0.011703232,-0.0048226556,0.0,0.0,0.0,-0.004143056,0.08019632,0.44522586,-0.10330288,0.13009758,0.48776713,-0.2327582,0.049085636,0.06614021,-0.11389555,-0.028190557,0.0783421,-0.09605987,0.04543892,0.05108976,0.073300235,0.0666094,0.07599521,0.020639805,-0.05544406,-0.035995472,-0.048517898,0.060531806,-0.0641942,-0.008980482,2.0,1.5257226,-1.3918262,2.0,2.0,-2.0,2.0,-0.14211872,-2.0,-2.0,0.24738006,-2.0,2.0,1.6883646,-1.9497318,2.0,2.0,-2.0,2.0,0.12939793,-2.0,-2.0,0.019714896,-2.0
2025-06-10 09:02:33.727,-0.006346698,-0.007739631,0.016676886,-0.038925126,-0.01842658,-0.01754556,0.0,0.0,0.0,-0.004157846,0.08721264,0.43937126,-0.119237766,0.12653165,0.49246913,-0.21966411,0.045090806,0.07099681,-0.10897224,-0.030934451,0.07873983,-0.08350784,0.009944114,-0.025292592,0.049262535,-0.047893174,0.018608613,-0.028731558,-0.025704296,0.005526398,0.028642649,0.037723225,0.0022909814,0.0021539833,2.0,1.6883646,-1.9497318,2.0,2.0,-2.0,2.0,0.12939793,-2.0,-2.0,0.019714896,-2.0,2.0,1.7836927,-1.3333151,2.0,2.0,-2.0,2.0,-0.075473584,-2.0,-2.0,0.13073024,-2.0
2025-06-10 09:02:33.747,-0.013520244,-0.011116063,-0.0011492613,-0.00059082924,0.012382482,0.037981246,0.0,0.0,0.0,-0.0040396205,0.07962096,0.4409457,-0.10407675,0.13288715,0.48673853,-0.22450934,0.044673964,0.065655425,-0.11035308,-0.043362107,0.067983255,-0.095699005,-0.0047556465,0.04101894,0.054416254,0.008893384,-0.031413503,-0.06277129,-0.022358786,-0.05959034,0.026896846,-0.0059298095,0.008980616,-0.04263514,2.0,1.7836927,-1.3333151,2.0,2.0,-2.0,2.0,-0.075473584,-2.0,-2.0,0.13073024,-2.0,2.0,1.7965064,-2.0,2.0,2.0,-2.0,2.0,0.08103045,-2.0,-2.0,-0.096867874,-2.0
2025-06-10 09:02:33.768,0.0363035,-0.02513045,0.028187249,0.047768615,0.003285681,-0.032859083,0.0,0.0,0.0,-0.003921996,0.09350876,0.43737605,-0.110766724,0.13789396,0.47283554,-0.22273901,0.051656954,0.07049338,-0.11813933,-0.04034001,0.06609692,-0.10078755,-0.06354604,-0.05380226,-0.031462397,-0.032636352,-0.05718994,0.046997994,0.07046142,-0.033923168,0.010166912,0.04099999,0.05781981,0.0047722147,2.0,1.7965064,-2.0,2.0,2.0,-2.0,2.0,0.08103045,-2.0,-2.0,-0.096867874,-2.0,2.0,1.7065039,-1.5200977,2.0,2.0,-2.0,2.0,-0.14475396,-2.0,-2.0,0.16037028,-2.0
2025-06-10 09:02:33.788,-0.047257632,-0.023862561,0.027685566,0.012038758,0.035906013,-0.040510595,0.0,0.0,0.0,-0.0039763805,0.08851889,0.44671106,-0.111435816,0.14051878,0.48030066,-0.21374875,0.058366682,0.06325359,-0.10273034,-0.042692456,0.07349272,-0.095553406,0.060635477,0.032228015,0.058684893,-0.026142359,0.052443907,0.014666894,-0.062048536,0.019651696,-0.056278795,-0.0020775492,-0.019433213,-0.008201966,2.0,1.7065039,-1.5200977,2.0,2.0,-2.0,2.0,-0.14475396,-2.0,-2.0,0.16037028,-2.0,2.0,1.6344227,-1.8186312,2.0,2.0,-2.0,2.0,0.06883683,-2.0,-2.0,0.059345562,-2.0
2025-06-10 09:02:33.810,0.03757064,-0.05342657,0.032488234,-0.018214421,0.037693076,-0.018184207,0.0,0.0,0.0,-0.003880027,0.080142885,0.43644232,-0.12115077,0.12743008,0.47580197,-0.21998467,0.044708528,0.061640833,-0.11225784,-0.026042875,0.07148721,-0.10328158,-0.032897867,-0.04889796,-0.008445344,0.05226916,-0.06261614,-0.049717437,-0.010310754,-0.027434153,0.009769866,0.07571596,-0.028285613,0.006260165,2.0,1.6344227,-1.8186312,2.0,2.0,-2.0,2.0,0.06883683,-2.0,-2.0,0.059345562,-2.0,2.0,1.6609138,-1.3561034,2.0,2.0,-2.0,2.0,-0.015700793,-2.0,-2.0,0.20099248,-2.0
2025-06-10 09:02:33.828,0.041839536,0.033580326,-0.023015557,0.011798112,-0.00895466,0.024425047,0.0,0.0,0.0,-0.0036871359,0.09108589,0.43763393,-0.110018685,0.14050329,0.47803468,-0.23148102,0.059071936,0.07141725,-0.11785917,-0.028002778,0.07733976,-0.08817618,-0.03252759,0.008137711,0.0622213,-0.006119296,0.014363752,0.032837566,-0.055049535,0.04066596,0.06993055,0.049554005,-0.0021026435,-0.075511225,2.0,1.6609138,-1.3561034,2.0,2.0,-2.0,2.0,-0.015700793,-2.0,-2.0,0.20099248,-2.0,2.0,1.8940537,-2.0,2.0,2.0,-2.0,2.0,0.070788644,-2.0,-2.0,-0.10079754,-2.0
2025-06-10 09:02:33.849,0.03198219,-0.017511558,0.009665763,-0.009909913,-0.01647349,0.0076739984,0.0,0.0,0.0,-0.0034371773,0.08654337,0.44791207,-0.11892503,0.13290341,0.48399374,-0.22125106,0.061712984,0.074048765,-0.11899281,-0.03333763,0.07062553,-0.09907307,0.068431176,-0.061259557,-0.05701686,-0.042764686,-0.060156174,-0.02475386,0.0735897,0.06077633,-0.06625358,0.03976558,0.052091938,0.03809024,2.0,1.8940537,-2.0,2.0,2.0,-2.0,2.0,0.070788644,-2.0,-2.0,-0.10079754,-2.0,2.0,1.8593711,-1.2440581,2.0,2.0,-2.0,2.0,-0.11556373,-2.0,-2.0,0.09614456,-2.0
2025-06-10 09:02:33.868,-0.03706944,0.052101854,0.014209877,0.031779397,0.017762618,0.027269104,0.0,0.0,0.0,-0.0034555425,0.07750078,0.44606388,-0.11325848,0.13421707,0.49020815,-0.22211775,0.04998415,0.07579448,-0.10448128,-0.024035634,0.08071613,-0.093173064,0.015896061,0.04400702,0.05269153,0.049274914,0.06694419,0.034506965,-0.042429242,0.05141499,-0.034818515,-0.04842222,-0.018134488,0.04849837,2.0,1.8593711,-1.2440581,2.0,2.0,-2.0,2.0,-0.11556373,-2.0,-2.0,0.09614456,-2.0,2.0,1.6277547,-2.0,2.0,2.0,-2.0,2.0,0.05800595,-2.0,-2.0,0.044904973,-2.0
2025-06-10 09:02:33.891,-0.0076961583,0.0008378057,0.025311183,0.00558169,0.03213653,0.04029266,0.0,0.0,0.0,-0.0036108177,0.07808655,0.44503734,-0.10867803,0.1273954,0.4801024,-0.2268748,0.054290038,0.07701482,-0.10417595,-0.039990585,0.07802007,-0.0990297,0.06656474,-0.035709705,-0.02490289,0.04120804,-0.050249208,0.06512862,-0.005024339,0.0054044123,0.002721669,0.01437035,-0.025468221,-0.0015586398,2.0,1.6277547,-2.0,2.0,2.0,-2.0,2.0,0.05800595,-2.0,-2.0,0.044904973,-2.0,2.0,1.7729641,-1.245729,2.0,2.0,-2.0,2.0,-0.033692487,-2.0,-2.0,0.17373623,-2.0
2025-06-10 09:02:33.908,-0.010949341,0.0055396063,0.024668688,0.009191194,-0.017900836,0.016566511,0.0,0.0,0.0,-0.0037010876,0.09205964,0.4449,-0.10120543,0.13763052,0.47906578,-0.21584648,0.046983782,0.06964189,-0.11050923,-0.040690366,0.0750146,-0.08925628,-0.014165026,-0.050904453,0.079704955,-0.0019846486,-0.012725191,0.0388051,-0.0133403065,-0.06193349,0.015460869,0.01566978,0.040751897,0.059409954,2.0,1.7729641,-1.245729,2.0,2.0,-2.0,2.0,-0.033692487,-2.0,-2.0,0.17373623,-2.0,2.0,1.4747974,-2.0,2.0,2.0,-2.0,2.0,0.023433888,-2.0,-2.0,0.09621505,-2.0
2025-06-10 09:02:33.928,-0.002729863,-0.011631649,0.0012750037,-0.036573127,0.045707747,-0.016460292,0.0,0.0,0.0,-0.0037124925,0.08567482,0.42962754,-0.098551854,0.13703024,0.4885645,-0.22372885,0.05406643,0.07678885,-0.1115597,-0.03069691,0.086757936,-0.10203281,0.04626312,0.053537436,-0.028171968,0.024998972,0.0037597744,-0.026029117,0.07106064,-0.0347778,-0.05482245,-0.035947956,0.013503799,0.04580923,2.0,1.4747974,-2.0,2.0,2.0,-2.0,2.0,0.023433888,-2.0,-2.0,0.09621505,-2.0,2.0,1.8232476,-1.2289023,2.0,2.0,-2.0,2.0,-0.002568936,-2.0,-2.0,0.079721205,-2.0
2025-06-10 09:02:33.948,-0.026746098,0.008944167,0.04478003,0.01311064,0.015346173,-0.020834642,0.0,0.0,0.0,-0.0035353831,0.07170971,0.43312448,-0.09977184,0.13592373,0.48199046,-0.21781674,0.05059879,0.08015538,-0.115852356,-0.03684772,0.079023585,-0.09746907,-0.0050080344,-0.05588323,-0.02364413,0.055494033,0.04501667,0.032253403,0.0023799615,0.015663743,-0.041409254,0.018230097,-0.025799887,-0.06688063,2.0,1.8232476,-1.2289023,2.0,2.0,-2.0,2.0,-0.002568936,-2.0,-2.0,0.079721205,-2.0,2.0,1.430502,-1.9250772,2.0,2.0,-2.0,2.0,0.015323991,-2.0,-2.0,0.2310812,-2.0
2025-06-10 09:02:33.968,0.014168286,-0.038698897,-0.060623225,0.002298277,0.069822,0.03230673,0.0,0.0,0.0,-0.0034357298,0.07887583,0.4458936,-0.09371471,0.13865073,0.48934558,-0.2264768,0.062528424,0.06006208,-0.10844465,-0.037847154,0.071824156,-0.1072856,0.047167838,0.011601176,0.00038062374,0.024323856,0.05578242,-0.04344827,0.038410265,0.06540945,-0.036885455,-0.05122196,-0.022443192,-0.00956454,2.0,1.430502,-1.9250772,2.0,2.0,-2.0,2.0,0.015323991,-2.0,-2.0,0.2310812,-2.0,2.0,2.0,-1.488033,2.0,2.0,-2.0,2.0,0.0681444,-2.0,-2.0,-0.2694009,-2.0
2025-06-10 09:02:33.989,0.023973797,-0.047581974,0.053163014,0.04539106,0.07797291,-0.01758034,0.0,0.0,0.0,-0.0031584995,0.0908067,0.43512285,-0.10550914,0.14132099,0.47595522,-0.21976882,0.049764823,0.060322847,-0.11749859,-0.042120617,0.078198195,-0.09400266,-0.01965935,0.02828641,0.050711706,-0.012440774,-0.050082397,-0.044025216,0.04101239,0.029683268,0.06656084,-0.013171033,-0.004755592,-0.030255428,2.0,2.0,-1.488033,2.0,2.0,-2.0,2.0,0.0681444,-2.0,-2.0,-0.2694009,-2.0,2.0,1.6488262,-1.9279003,2.0,2.0,-2.0,2.0,-0.07989565,-2.0,-2.0,0.11978444,-2.0
2025-06-10 09:02:34.009,0.022894086,0.012447986,-0.0150095625,0.008224741,0.0066339574,0.023402698,0.0,0.0,0.0,-0.0033061805,0.09041476,0.43603635,-0.11712885,0.14310907,0.4766434,-0.21398716,0.06435879,0.07466078,-0.10823983,-0.033820584,0.07619547,-0.092174634,-0.009894477,0.014952027,0.040486794,0.03856754,0.057748057,-0.0006011615,0.07071896,0.019567179,0.06621687,0.066370904,0.062187176,0.006108162,2.0,1.6488262,-1.9279003,2.0,2.0,-2.0,2.0,-0.07989565,-2.0,-2.0,0.11978444,-2.0,2.0,1.7597823,-1.5362277,2.0,2.0,-2.0,2.0,-0.06573225,-2.0,-2.0,0.019776184,-2.0
2025-06-10 09:02:34.029,-0.030556211,0.00725401,0.032644454,-0.021221403,0.059279837,0.009048516,0.0,0.0,0.0,-0.003463597,0.089159854,0.43768468,-0.111937374,0.1282006,0.48724407,-0.23150152,0.06412387,0.06413132,-0.116227664,-0.04318167,0.06706427,-0.091440916,-0.014341627,-0.01425408,-0.07518147,-0.027187755,-0.07302848,-0.058397315,-0.003692868,0.031643562,-0.025353506,0.007489654,0.020280698,0.036526017,2.0,1.7597823,-1.5362277,2.0,2.0,-2.0,2.0,-0.06573225,-2.0,-2.0,0.019776184,-2.0,2.0,1.6515863,-1.8303142,2.0,2.0,-2.0,2.0,0.050864242,-2.0,-2.0,0.19593337,-2.0
2025-06-10 09:02:34.051,-0.03151184,0.03301454,-0.022568602,-0.012812522,0.024948157,0.039667234,0.0,0.0,0.0,-0.0034898056,0.08250852,0.43352416,-0.118828215,0.13167676,0.48049355,-0.21499182,0.055823646,0.066964194,-0.11050613,-0.0346473,0.07600334,-0.090450905,-0.037371945,-0.012360445,0.026347198,0.07115296,0.06809011,0.02132902,0.047716226,0.038920958,0.031042835,-0.034096487,-0.062274426,0.03704001,2.0,1.6515863,-1.8303142,2.0,2.0,-2.0,2.0,0.050864242,-2.0,-2.0,0.19593337,-2.0,2.0,1.8721566,-1.4746659,2.0,2.0,-2.0,2.0,-0.023747807,-2.0,-2.0,-0.03464591,-2.0
2025-06-10 09:02:34.069,-0.009976434,0.0018015031,0.0032484282,-0.0070081973,0.0027664076,0.03718886,0.0,0.0,0.0,-0.0033891392,0.08584782,0.43365273,-0.11501944,0.1387257,0.48368782,-0.22769539,0.05756565,0.074796416,-0.11932799,-0.029113099,0.06480922,-0.10194931,0.026881004,0.017631644,-0.022050742,-0.060039144,-0.06927149,0.053165663,0.06078462,-0.024191247,-0.042222366,-0.02657943,0.013837354,-0.010945934,2.0,1.8721566,-1.4746659,2.0,2.0,-2.0,2.0,-0.023747807,-2.0,-2.0,-0.03464591,-2.0,2.0,1.7539368,-2.0,2.0,2.0,-2.0,2.0,0.012223864,-2.0,-2.0,0.022244621,-2.0
2025-06-10 09:02:34.089,-0.016546844,-0.004708388,-0.04194448,-0.033793706,0.054582786,-0.032196566,0.0,0.0,0.0,-0.0034227127,0.08497367,0.44359115,-0.108628705,0.13933611,0.47724918,-0.22724111,0.04984708,0.07229662,-0.11184406,-0.023309095,0.07332327,-0.09418987,0.05609271,-0.03140826,0.016863834,-0.027351033,-0.07027309,0.04470869,0.031556837,0.048225738,-0.013503278,0.052371364,-0.052961253,0.07061612,2.0,1.7539368,-2.0,2.0,2.0,-2.0,2.0,0.012223864,-2.0,-2.0,0.022244621,-2.0,2.0,2.0,-1.573792,2.0,2.0,-2.0,2.0,-0.00244469,-2.0,-2.0,-0.15349379,-2.0
2025-06-10 09:02:34.110,0.015781676,0.016286021,-0.0023085962,0.047382206,0.02491895,-0.04815319,0.0,0.0,0.0,-0.0035321168,0.082275674,0.44601157,-0.11901593,0.12972695,0.4732219,-0.22889759,0.054473404,0.07330461,-0.11834527,-0.04098463,0.06327369,-0.10048717,-0.004763188,-0.0051701535,0.021342056,-0.062832355,0.07065352,0.02829094,-0.009970692,0.010523426,-0.016493065,-0.06911111,0.051581975,0.039298043,2.0,2.0,-1.573792,2.0,2.0,-2.0,2.0,-0.00244469,-2.0,-2.0,-0.15349379,-2.0,2.0,1.8615626,-1.8759999,2.0,2.0,-2.0,2.0,-0.090575226,-2.0,-2.0,-0.074142516,-2.0
2025-06-10 09:02:34.129,-0.014332004,-0.0034228961,-0.0006881836,0.027743421,0.0313409,0.008813609,0.0,0.0,0.0,-0.0038949964,0.08562267,0.4377371,-0.12659016,0.1347485,0.48199752,-0.22077511,0.05799466,0.07519674,-0.11966055,-0.039262377,0.06431117,-0.09677105,-0.018546822,0.04267805,-0.06977185,-0.054839764,0.006984262,-0.019304689,0.014242547,0.0512601,0.018808993,-0.049929675,-0.0014633827,0.026396375,2.0,1.8615626,-1.8759999,2.0,2.0,-2.0,2.0,-0.090575226,-2.0,-2.0,-0.074142516,-2.0,2.0,1.9146796,-1.401622,2.0,2.0,-2.0,2.0,-0.04527045,-2.0,-2.0,-0.009172815,-2.0
2025-06-10 09:02:34.149,0.042096477,0.02198972,0.029937949,0.05198835,0.021559214,0.013654538,0.0,0.0,0.0,-0.0043118596,0.07928983,0.43806204,-0.1286571,0.14233288,0.4848409,-0.23276973,0.051974583,0.06870763,-0.11937549,-0.0385385,0.074867174,-0.09318738,0.024843514,0.06463626,0.045110904,-0.019050343,0.06777124,-0.0451766,0.0653469,0.004496681,0.021830361,0.018689526,-0.0024347373,-0.011648675,2.0,1.9146796,-1.401622,2.0,2.0,-2.0,2.0,-0.04527045,-2.0,-2.0,-0.009172815,-2.0,2.0,1.5468031,-1.9197094,2.0,2.0,-2.0,2.0,-0.053009667,-2.0,-2.0,0.10942063,-2.0
2025-06-10 09:02:34.169,0.032845728,-0.045658603,0.009737743,0.017891318,0.018615361,-0.01282576,0.0,0.0,0.0,-0.0046743425,0.09230539,0.44193375,-0.12928344,0.13198385,0.48673874,-0.22238582,0.04538021,0.060725965,-0.104944736,-0.03330918,0.06991743,-0.09026912,-0.0730016,-0.042379994,0.04095852,-0.04053927,-0.070424184,0.05753013,-0.0051063295,-0.01678741,-0.01603608,0.057258014,0.018401403,0.04821597,2.0,1.5468031,-1.9197094,2.0,2.0,-2.0,2.0,-0.053009667,-2.0,-2.0,0.10942063,-2.0,2.0,1.7415327,-1.7251766,2.0,2.0,-2.0,2.0,0.014189804,-2.0,-2.0,0.12027751,-2.0
2025-06-10 09:02:34.191,-0.01176157,-0.03448551,-0.06252869,0.023609398,-0.006677192,0.0010916544,0.0,0.0,0.0,-0.004658023,0.086244844,0.43780667,-0.12347251,0.13163814,0.4806193,-0.2291676,0.0515568,0.07790417,-0.112842366,-0.043623988,0.07524581,-0.083975606,0.06651162,-0.06420845,-0.024780968,0.062391117,-0.046643287,0.047944017,-0.06746623,0.07256155,-0.0603336,-0.037327543,-0.06080893,0.03187952,2.0,1.7415327,-1.7251766,2.0,2.0,-2.0,2.0,0.014189804,-2.0,-2.0,0.12027751,-2.0,2.0,2.0,-1.646549,2.0,2.0,-2.0,2.0,0.085982405,-2.0,-2.0,-0.29093555,-2.0
2025-06-10 09:02:34.210,0.026775107,0.0048201866,0.009467067,0.033606566,-0.0048862495,0.015822785,1.5,0.0,0.0,-0.004350099,0.079907626,0.44055817,-0.122970715,0.13046266,0.47693896,-0.22805773,0.04933002,0.07752772,-0.11636334,-0.0365827,0.07190128,-0.08028559,0.04481485,-0.06845299,-0.008231409,0.027742706,-0.016247652,-0.03819684,-0.024620464,0.023629837,0.04253171,0.019529209,-0.021677662,0.046189547,2.0,2.0,-1.646549,2.0,2.0,-2.0,2.0,0.085982405,-2.0,-2.0,-0.29093555,-2.0,2.0,1.0432969,-1.4535329,2.0,1.3142165,-1.6497688,2.0,0.11981305,-2.0,-2.0,-0.050750505,-2.0
2025-06-10 09:02:34.229,-0.03167796,0.027194053,0.025799548,0.026150072,0.03248116,0.041611467,1.5,0.0,0.0,-0.0044465456,0.08575336,0.4407704,-0.11143298,0.13180205,0.47473764,-0.2135399,0.060808916,0.07828599,-0.11628057,-0.033422302,0.06464018,-0.07644799,0.05880627,-0.10663052,0.08382972,0.052869655,-0.055909067,0.061295077,-0.015098518,-0.004438662,-0.014342725,-0.019341506,-0.056983083,0.050797217,2.0,1.0432969,-1.4535329,2.0,1.3142165,-1.6497688,2.0,0.11981305,-2.0,-2.0,-0.050750505,-2.0,2.0,0.42527646,-1.8443761,2.0,1.1582557,-1.9720906,2.0,0.42731354,-2.0,-2.0,0.058727626,-2.0
2025-06-10 09:02:34.250,-0.03496584,0.006612043,-0.02963561,-0.019975716,-0.014149855,0.00784911,1.5,0.0,0.0,-0.0047433674,0.07875432,0.418985,-0.10260325,0.1423414,0.4424354,-0.20011987,0.05061994,0.059296403,-0.102535225,-0.032972265,0.03884463,-0.07688046,-0.03854621,0.0001348244,0.07427691,0.0035792077,0.00035248202,-0.0096480455,0.025550961,-0.058595046,0.06279826,0.020575872,-0.009968427,0.06021311,2.0,0.42527646,-1.8443761,2.0,1.1582557,-1.9720906,2.0,0.42731354,-2.0,-2.0,0.058727626,-2.0,2.0,0.51013297,-1.7679832,2.0,0.9454144,-1.7072308,2.0,0.49502936,-2.0,-2.0,-0.22003298,-2.0
2025-06-10 09:02:34.270,0.014886697,-0.055803522,0.04774196,-0.01132103,0.057123672,0.015725281,1.5,0.0,0.0,-0.005004339,0.10006325,0.37713194,-0.090668276,0.1417402,0.40889233,-0.19662091,0.049322378,0.053261615,-0.12454234,-0.03744512,0.033976257,-0.08103425,0.033138536,-0.13078146,0.052518975,0.0333027,-0.08124299,0.03825527,-0.04695102,0.01886021,-0.08124024,-0.025854986,-0.05044266,0.055608734,2.0,0.51013297,-1.7679832,2.0,0.9454144,-1.7072308,2.0,0.49502936,-2.0,-2.0,-0.22003298,-2.0,2.0,0.30465698,-1.0205028,2.0,1.290928,-2.0,2.0,0.42541432,-2.0,-2.0,0.060838733,-2.0
2025-06-10 09:02:34.293,0.006212149,0.006686198,-0.016312797,0.022543935,0.025624765,0.01947996,1.5,0.0,0.0,-0.0055705523,0.085174225,0.33655247,-0.07847801,0.13858497,0.407873,-0.1884219,0.050368506,0.04752113,-0.12357034,-0.05248273,0.03759731,-0.08133813,-0.033899177,-0.14316697,0.017383104,-0.062352087,0.007160061,0.07254515,-0.07409923,-0.028043494,-0.062273722,-0.032181922,-0.05655125,-0.0745177,2.0,0.30465698,-1.0205028,2.0,1.290928,-2.0,2.0,0.42541432,-2.0,-2.0,0.060838733,-2.0,2.0,0.20231679,-1.4050801,2.0,1.1062851,-2.0,2.0,0.6490795,-2.0,-2.0,-0.21434136,-2.0
