openverse-orca/OrcaGym/log/simulation_log_20250605_164724.csv
timestamp,imu_angle_roll,imu_angle_pitch,imu_angle_yaw,imu_angular_velocity_roll,imu_angular_velocity_pitch,imu_angular_velocity_yaw,imu_acc_x,imu_acc_y,imu_acc_z,fl_joint1_pos,fl_joint1_vel,fl_joint1_torque,fl_joint2_pos,fl_joint2_vel,fl_joint2_torque,fl_joint3_pos,fl_joint3_vel,fl_joint3_torque,fr_joint1_pos,fr_joint1_vel,fr_joint1_torque,fr_joint2_pos,fr_joint2_vel,fr_joint2_torque,fr_joint3_pos,fr_joint3_vel,fr_joint3_torque,hl_joint1_pos,hl_joint1_vel,hl_joint1_torque,hl_joint2_pos,hl_joint2_vel,hl_joint2_torque,hl_joint3_pos,hl_joint3_vel,hl_joint3_torque,hr_joint1_pos,hr_joint1_vel,hr_joint1_torque,hr_joint2_pos,hr_joint2_vel,hr_joint2_torque,hr_joint3_pos,hr_joint3_vel,hr_joint3_torque,fl_force_x,fl_force_y,fl_force_z,fr_force_x,fr_force_y,fr_force_z,hl_force_x,hl_force_y,hl_force_z,hr_force_x,hr_force_y,hr_force_z,fl_hip_action,fl_thigh_action,fl_calf_action,fr_hip_action,fr_thigh_action,fr_calf_action,hl_hip_action,hl_thigh_action,hl_calf_action,hr_hip_action,hr_thigh_action,hr_calf_action
2025-06-05 16:47:24.211,-0.017372603,-0.047342848,0.04730788,0.01002436,0.033833418,0.013017049,2.2900517,-0.73254013,0.0,0.0,-0.0017343058,0.0021502392,0.007309145,0.0018415748,0.008739784,-0.00786588,0.0038216403,-0.0037479838,-0.0058478136,-0.0011035979,-0.0023709934,-0.007867648,0.009318049,0.01721536,0.029768916,0.06779126,0.051457964,0.0157529,-0.061272327,0.020078868,0.063361354,-0.052690767,0.005204179,-0.03432154,0.0,0.0,0.0,0.0,0.0,0.0,0.0,0.0,0.0,0.0,0.0,0.0,-2.0,-0.70565265,-0.29505825,2.0,1.2046057,2.0,-2.0,-2.0,-2.0,0.22308873,-0.8541551,1.7751113
2025-06-05 16:47:24.218,-0.05684784,-0.23245612,-0.050504558,-0.029516913,-0.029739082,0.004823304,0.0,0.0,0.0,0.0,-0.031172212,-0.05000644,-0.019840384,0.012023548,0.069817856,0.08419383,-0.022054346,-0.12539268,-0.06975578,-0.0029079777,-0.055963825,0.08789282,-0.12107812,-0.2066304,-0.0515144,0.08636678,0.21411026,0.3235803,-0.013680479,-0.49306554,-0.28255963,0.03702728,-0.22092526,0.318936,-2.0,-0.70565265,-0.29505825,2.0,1.2046057,2.0,-2.0,-2.0,-2.0,0.22308873,-0.8541551,1.7751113,-2.0,1.7728109,-2.0,2.0,0.75371736,2.0,-2.0,0.2426686,2.0,-2.0,0.19608964,-2.0
2025-06-05 16:47:24.238,-0.056670014,0.058008,-0.017300326,-0.050287176,0.012992302,-0.031806905,0.0,0.0,0.0,0.0012835569,-0.08218248,0.021006536,-0.11387807,0.054125633,0.17350885,0.21041209,-0.05550424,-0.18095836,-0.035816405,-0.018672833,-0.07871233,0.026684154,-0.1855367,0.17653063,-0.17556424,0.06543157,0.26072416,0.36739892,-0.056229755,-0.021899935,0.22068512,-0.12110265,-0.0076176315,-0.2677721,-2.0,1.7728109,-2.0,2.0,0.75371736,2.0,-2.0,0.2426686,2.0,-2.0,0.19608964,-2.0,-2.0,-0.16730212,-2.0,2.0,1.5704175,-2.0,-2.0,0.022605117,2.0,-2.0,-0.31145903,-2.0
2025-06-05 16:47:24.258,-0.18605147,-0.16299057,-0.008596752,-0.04302673,0.0027285898,0.040705904,0.0,0.0,0.0,0.0015517236,-0.121597186,0.039227836,-0.102969855,0.1139447,0.31463543,0.11311476,-0.11583839,-0.18287647,0.097768605,-0.05147842,-0.067572646,-0.08437544,-0.06531748,-0.090821095,0.0833606,0.0647029,0.33933648,-0.37095428,-0.059882045,0.03589012,0.34813008,-0.076285884,-0.09425663,-0.12119195,-2.0,-0.16730212,-2.0,2.0,1.5704175,-2.0,-2.0,0.022605117,2.0,-2.0,-0.31145903,-2.0,-2.0,1.2460974,-2.0,2.0,2.0,-2.0,2.0,0.08275511,2.0,-2.0,-1.4016507,-2.0
2025-06-05 16:47:24.278,0.08620757,-0.109903194,-0.03907952,-0.057668377,0.03023294,-0.024885235,0.0,0.0,0.0,0.0018415748,-0.13595347,0.020217666,-0.08684097,0.13613014,0.48687991,-0.06315029,-0.0832638,-0.14045681,0.22812307,-0.06591396,-0.10907077,-0.04431003,-0.085135244,0.012513895,0.08141089,0.072591476,0.42390713,-0.5399771,0.15836439,0.14169233,0.26684317,0.062913276,-0.13057762,0.17669305,-2.0,1.2460974,-2.0,2.0,2.0,-2.0,2.0,0.08275511,2.0,-2.0,-1.4016507,-2.0,-2.0,2.0,-2.0,2.0,1.5818627,-2.0,2.0,-0.049128745,-2.0,-2.0,-0.07542251,-2.0
2025-06-05 16:47:24.298,0.06160348,0.15472396,-0.010502603,-0.04769178,-0.020088919,0.02284083,0.0,0.0,0.0,0.002713577,-0.13624571,0.043684985,-0.07761085,0.15792108,0.62082994,-0.23021054,-0.010153332,-0.0696262,0.14133978,-0.06717071,-0.14288369,0.008466575,-0.06516079,0.015891733,-0.045454774,-0.015181912,0.32160756,-0.3167089,0.21522175,0.14403896,-0.34583896,0.027952844,0.00010611174,0.13305151,-2.0,2.0,-2.0,2.0,1.5818627,-2.0,2.0,-0.049128745,-2.0,-2.0,-0.07542251,-2.0,-2.0,0.28919345,2.0,-2.0,0.30884808,-2.0,2.0,-0.046583567,-2.0,2.0,-1.3189505,-2.0
2025-06-05 16:47:24.318,0.017396275,0.045883615,-0.046567205,-0.002778694,0.025760343,-0.015427208,0.0,0.0,0.0,0.0037571953,-0.1446489,0.060053002,0.028472655,0.12592515,0.6484612,-0.29968655,0.036240082,-0.02418788,0.01122936,-0.06685079,-0.16007955,0.04266279,0.025420433,0.0013752579,0.3998865,-0.08942181,-0.061261103,-0.063696265,0.0348136,0.08374503,-0.18091883,0.10407548,-0.10969799,0.08474087,-2.0,0.28919345,2.0,-2.0,0.30884808,-2.0,2.0,-0.046583567,-2.0,2.0,-1.3189505,-2.0,-2.0,-0.12181227,2.0,-2.0,0.04382403,-2.0,2.0,1.3775431,-2.0,2.0,-1.077603,-2.0
2025-06-05 16:47:24.338,0.016728418,0.35028118,0.05538387,0.009372688,-0.0009477567,-0.04723764,0.0,0.0,0.0,0.0046860613,-0.14599602,0.050739933,0.17500009,0.12704507,0.6425384,-0.26103166,0.041878622,-0.008585911,-0.011203269,-0.044701003,-0.17819487,0.04799061,-0.0014576357,0.040433127,0.40393463,0.006345203,0.016051328,0.13227259,0.033445265,0.11678809,-0.08448669,0.1163858,-0.00081946363,-0.024650248,-2.0,-0.12181227,2.0,-2.0,0.04382403,-2.0,2.0,1.3775431,-2.0,2.0,-1.077603,-2.0,-2.0,0.0373192,0.34105313,-2.0,0.38914764,-2.0,2.0,0.60509926,-2.0,2.0,-1.0199065,-2.0
2025-06-05 16:47:24.361,0.04540744,0.24024962,0.05694522,0.05692674,-0.015620376,-0.009658813,0.0,0.0,0.0,0.0038749413,-0.15745299,0.06397108,0.21607758,0.13373531,0.63484454,-0.21503219,0.04017259,0.020976793,-0.0206912,0.004158669,-0.20433699,-0.049571306,-0.0102627855,-0.029442348,-0.028842833,-0.035698812,-0.044454917,0.05659396,0.033625882,0.056165628,-0.02871258,0.092289634,-0.035793938,-0.21303727,-2.0,0.0373192,0.34105313,-2.0,0.38914764,-2.0,2.0,0.60509926,-2.0,2.0,-1.0199065,-2.0,-2.0,-0.05345115,-0.78105843,-2.0,0.25242388,-2.0,2.0,0.73110414,-2.0,2.0,-0.61355925,-2.0
2025-06-05 16:47:24.379,-0.0132108545,0.20004544,0.14796188,0.02174438,0.021050809,-0.03570404,0.0,0.0,0.0,0.0019289495,-0.16120958,0.051134553,0.13337395,0.15125191,0.633928,-0.17410505,0.01818155,0.05944823,-0.058469865,0.045453224,-0.2213532,-0.13771354,-0.08905076,-0.057535138,-0.24714714,0.08268401,-0.03464378,0.0657821,-0.07756811,0.019675665,-0.11401597,0.11537307,-0.01627379,-0.21005848,-2.0,-0.05345115,-0.78105843,-2.0,0.25242388,-2.0,2.0,0.73110414,-2.0,2.0,-0.61355925,-2.0,-2.0,0.25216866,-0.9254021,-2.0,0.6053783,-2.0,2.0,0.19113612,-2.0,2.0,-0.539981,-2.0
2025-06-05 16:47:24.399,-0.06757749,0.11319683,0.09052667,0.039036747,0.0040629166,-0.0104819145,0.0,0.0,0.0,-0.00030570469,-0.16478357,0.059560284,0.023312392,0.14655338,0.6105345,-0.14258094,-0.003336859,0.079493806,-0.07591935,0.088967614,-0.22489138,-0.26743105,0.027262243,0.10337625,-0.31983396,-0.037462257,-0.00023042774,0.05440941,-0.034578253,0.076502435,-0.0879133,0.10047502,0.017560473,-0.34640393,-2.0,0.25216866,-0.9254021,-2.0,0.6053783,-2.0,2.0,0.19113612,-2.0,2.0,-0.539981,-2.0,-2.0,-0.16738936,2.0,-2.0,0.2076055,-2.0,2.0,0.65588224,-2.0,2.0,-0.058326613,-2.0
2025-06-05 16:47:24.419,-0.15998785,0.12503065,0.16634195,0.016571375,0.026854405,0.045529712,0.0,0.0,0.0,-0.0023625372,-0.17687276,0.047946446,0.077693276,0.14040497,0.60617346,-0.11363462,-0.029339654,0.10125381,-0.07952889,0.11854916,-0.20385177,-0.3555195,0.023433028,-0.09007761,0.20302577,-0.026274655,-0.035066057,-0.0006972447,-0.13813941,-0.0070364242,-0.080274515,0.12130103,0.027276263,-0.2936836,-2.0,-0.16738936,2.0,-2.0,0.2076055,-2.0,2.0,0.65588224,-2.0,2.0,-0.058326613,-2.0,-2.0,0.827407,1.8068281,-2.0,1.5057896,-2.0,2.0,-0.13515005,-2.0,2.0,-0.2014531,-2.0
2025-06-05 16:47:24.439,-0.14516754,-0.0067980816,-0.02241324,0.04887787,0.06972867,0.03608514,0.0,0.0,0.0,-0.0047299387,-0.17048544,0.06554481,0.16817404,0.122880116,0.5889944,-0.1050414,-0.039674282,0.11247083,-0.10106368,0.1493,-0.1700839,-0.43129304,-0.061833702,0.18136771,0.31285444,-0.03993983,-0.031976387,0.08010591,-0.035245962,0.078992724,-0.009360735,0.018001717,0.04758509,-0.21292767,-2.0,0.827407,1.8068281,-2.0,1.5057896,-2.0,2.0,-0.13515005,-2.0,2.0,-0.2014531,-2.0,-2.0,0.07820389,2.0,-2.0,-0.18947606,-2.0,2.0,0.6700594,-2.0,2.0,-0.7632837,-2.0
2025-06-05 16:47:24.461,0.0064540557,-0.060685538,0.14903359,0.07489136,0.018435784,-0.0245663,0.0,0.0,0.0,-0.0061323503,-0.16593924,0.094732665,0.28348613,0.104874395,0.5718062,-0.08401321,-0.067896545,0.10328495,-0.11378969,0.16865863,-0.19174488,-0.45355272,0.054226674,0.024483666,0.21071957,-0.09140437,-0.06704499,-0.011766605,-0.12103648,0.014838975,0.008904541,0.076544106,-0.040434737,-0.11270462,-2.0,0.07820389,2.0,-2.0,-0.18947606,-2.0,2.0,0.6700594,-2.0,2.0,-0.7632837,-2.0,-2.0,0.48545367,0.57366866,-2.0,1.2524248,-2.0,2.0,0.4343622,-2.0,2.0,0.16363738,-2.0
2025-06-05 16:47:24.479,0.03629357,0.069903225,0.022873454,0.029193316,0.008026482,0.028426189,0.0,0.0,0.0,-0.007849459,-0.16188586,0.13173307,0.2865265,0.08633099,0.5547398,-0.077521265,-0.09479161,0.120150514,-0.12618734,0.17486161,-0.16566636,-0.4952327,0.04169329,0.103085585,0.009311662,-0.09910258,-0.0204899,0.019325381,-0.09413216,-0.009249954,-0.07129694,0.05007162,0.03857404,-0.0609953,-2.0,0.48545367,0.57366866,-2.0,1.2524248,-2.0,2.0,0.4343622,-2.0,2.0,0.16363738,-2.0,-2.0,0.1124655,0.8744932,-2.0,0.07609297,-2.0,2.0,0.80551785,-2.0,2.0,-0.515179,-2.0
2025-06-05 16:47:24.499,0.08405264,-0.037394643,0.052963473,0.024291899,0.023331396,0.034231547,0.0,0.0,0.0,-0.009013941,-0.15853263,0.15629603,0.27482843,0.09780152,0.5448576,-0.06709634,-0.092921,0.13277079,-0.14427602,0.18959183,-0.16015975,-0.50349844,0.014327926,-0.026896002,-0.114617415,0.040577214,-0.0575563,0.0059257434,-0.0072484156,0.070872515,-0.017951142,0.052343674,-0.08096977,0.057131797,-2.0,0.1124655,0.8744932,-2.0,0.07609297,-2.0,2.0,0.80551785,-2.0,2.0,-0.515179,-2.0,-2.0,0.3155561,0.91995937,-2.0,0.17348452,-2.0,2.0,0.71850973,-2.0,2.0,-0.093145534,-2.0
2025-06-05 16:47:24.519,0.10105273,0.06542255,0.104957916,0.07350005,0.009308848,0.037490826,0.0,0.0,0.0,-0.010394884,-0.15645888,0.15322192,0.26828367,0.085700564,0.5416568,-0.04564247,-0.11425456,0.14104366,-0.16001736,0.18049787,-0.16404955,-0.49235278,-0.050725445,0.06954113,-0.052526377,0.027211506,-0.051905636,0.02775084,-0.010565041,0.005158803,-0.116242126,-0.037441757,-0.035248995,0.038787182,-2.0,0.3155561,0.91995937,-2.0,0.17348452,-2.0,2.0,0.71850973,-2.0,2.0,-0.093145534,-2.0,-2.0,0.4246853,0.62457085,-2.0,0.680614,-2.0,2.0,0.72526884,-2.0,2.0,-0.21870808,-2.0
2025-06-05 16:47:24.539,0.045456804,0.13394147,0.021506619,0.037435394,-0.0024099976,-0.036397092,0.0,0.0,0.0,-0.01187951,-0.15520649,0.17014284,0.2288915,0.08779385,0.5182902,-0.039148703,-0.10970625,0.15357102,-0.19143793,0.16876046,-0.18118861,-0.49667862,-0.062120736,0.08621824,-0.101489976,-0.026225794,0.008764705,0.05308774,-0.042064067,0.07408849,-0.065233245,-0.0050875875,-0.055537507,0.00819075,-2.0,0.4246853,0.62457085,-2.0,0.680614,-2.0,2.0,0.72526884,-2.0,2.0,-0.21870808,-2.0,-2.0,0.21722607,1.9742366,-2.0,-0.15545325,-2.0,2.0,0.98579067,-2.0,2.0,-0.18090571,-2.0
2025-06-05 16:47:24.561,0.05563109,0.15610237,0.08490612,0.05126006,0.034685154,0.010370864,0.0,0.0,0.0,-0.01270816,-0.14596324,0.16887504,0.26992995,0.09037226,0.52532506,-0.024210611,-0.119565345,0.18673138,-0.21571279,0.16258694,-0.1684316,-0.48633745,0.04352149,0.020647636,0.09541978,-0.051949006,0.03583044,-0.025944171,-0.0824036,0.12004123,-0.08645058,0.03316563,-0.060995627,0.011253204,-2.0,0.21722607,1.9742366,-2.0,-0.15545325,-2.0,2.0,0.98579067,-2.0,2.0,-0.18090571,-2.0,-2.0,0.46017176,1.6620542,-2.0,0.43437558,-2.0,2.0,0.8008364,-2.0,2.0,0.10619284,-2.0
2025-06-05 16:47:24.579,0.0806969,0.10706033,0.02320398,0.045450505,0.084024325,-0.0042643338,0.0,0.0,0.0,-0.013713213,-0.15087388,0.17398357,0.31902725,0.09192572,0.5053318,-0.005087152,-0.124801785,0.20328239,-0.25240204,0.147109,-0.16875155,-0.5010227,-0.05522314,0.07496821,0.12411476,-0.02683001,-0.028388893,0.01503694,0.021598643,0.016617494,-0.06978955,-0.01862978,0.0742944,-0.086125955,-2.0,0.46017176,1.6620542,-2.0,0.43437558,-2.0,2.0,0.8008364,-2.0,2.0,0.10619284,-2.0,-2.0,0.1136121,0.33896953,-2.0,0.2168289,-2.0,2.0,1.2378272,-2.0,2.0,-0.21832366,-2.0
2025-06-05 16:47:24.599,0.10815834,0.12139935,-0.009388234,0.12646307,0.034388117,-0.04705072,0.0,0.0,0.0,-0.014290308,-0.16151273,0.17764106,0.301182,0.08576339,0.5144182,0.012469849,-0.12822586,0.21671844,-0.2694805,0.14190577,-0.1674668,-0.5005306,0.03508742,-0.086885974,-0.16876858,-0.0052137524,-0.006004342,0.060324267,0.06798858,0.07323765,-0.06686561,0.042165704,-0.009747066,-0.016445257,-2.0,0.1136121,0.33896953,-2.0,0.2168289,-2.0,2.0,1.2378272,-2.0,2.0,-0.21832366,-2.0,-2.0,0.41866314,0.7677605,-2.0,-0.33361936,-2.0,2.0,1.2837179,-2.0,2.0,-0.077812925,-2.0
2025-06-05 16:47:24.620,0.106656015,0.119751625,0.035095148,0.105533116,0.039274614,0.0033558442,0.0,0.0,0.0,-0.014682559,-0.15259543,0.1703338,0.25741893,0.08896986,0.50679445,0.025045576,-0.13366921,0.25359705,-0.31674957,0.143327,-0.16947055,-0.5006085,-0.03353749,0.030665478,-0.11033285,-0.0070267282,-0.05610616,-0.0049025835,0.017434748,-0.0031056416,-0.04831809,0.018078974,-0.04283704,-0.07991316,-2.0,0.41866314,0.7677605,-2.0,-0.33361936,-2.0,2.0,1.2837179,-2.0,2.0,-0.077812925,-2.0,-2.0,0.43926984,1.5620272,-2.0,0.42090017,-2.0,2.0,1.4193538,-2.0,2.0,0.23118924,-2.0
2025-06-05 16:47:24.639,0.027298093,0.18237424,0.02255986,0.105949186,0.08360366,-0.009014448,0.0,0.0,0.0,-0.015816998,-0.16131052,0.16959153,0.27989432,0.08556953,0.5077191,0.047076292,-0.13061374,0.26697615,-0.3483811,0.12721674,-0.15380372,-0.5029597,0.00033404928,0.03155868,0.090394735,0.007850179,0.010556549,-0.037359644,-0.06702111,0.072134525,-0.15509425,-3.3834625e-05,0.10936601,-0.09032235,-2.0,0.43926984,1.5620272,-2.0,0.42090017,-2.0,2.0,1.4193538,-2.0,2.0,0.23118924,-2.0,-2.0,0.3327083,0.52276653,-2.0,0.14441033,-2.0,2.0,1.3949274,-2.0,2.0,-0.048495155,-2.0
2025-06-05 16:47:24.661,0.07183165,0.10973119,0.09970459,0.10120468,0.05553362,0.021287184,0.0,0.0,0.0,-0.01702535,-0.16964614,0.18035579,0.26437876,0.08813398,0.5009068,0.057248484,-0.13356575,0.3014046,-0.37720644,0.12797984,-0.13779283,-0.52641034,0.055871174,-0.052730855,-0.13545561,0.062196396,0.042984013,0.06573095,-0.042299222,0.10945203,-0.14531708,-0.06240365,-0.024812613,-0.073924586,-2.0,0.3327083,0.52276653,-2.0,0.14441033,-2.0,2.0,1.3949274,-2.0,2.0,-0.048495155,-2.0,-2.0,0.54019314,0.07755791,-2.0,0.28399855,-2.0,2.0,1.1342542,-2.0,2.0,0.2579665,-2.0
2025-06-05 16:47:24.679,0.049584646,0.07944638,-0.032347508,0.0906592,0.070738986,0.04275665,0.0,0.0,0.0,-0.018117145,-0.16518664,0.20801923,0.2077442,0.09265354,0.5016615,0.060411166,-0.14089817,0.31792897,-0.41175035,0.111299716,-0.123268574,-0.53401256,0.017136537,-0.015966482,-0.09561399,0.05859539,0.06605021,0.051864315,-0.07230428,0.041712057,-0.082759015,-0.07440758,0.018658707,0.035479143,-2.0,0.54019314,0.07755791,-2.0,0.28399855,-2.0,2.0,1.1342542,-2.0,2.0,0.2579665,-2.0,-2.0,0.543513,2.0,-2.0,-0.28678006,-2.0,2.0,1.6674784,-2.0,2.0,-0.16376714,-2.0
2025-06-05 16:47:24.699,0.0030284484,0.022186395,0.06821225,0.11604423,0.043540858,-0.026772918,0.0,0.0,0.0,-0.018648015,-0.16994575,0.22491507,0.22433044,0.104900695,0.4883637,0.06587253,-0.1368957,0.34033835,-0.4212816,0.10666893,-0.12232521,-0.5451649,0.08400917,0.027821356,0.15635113,0.08573092,0.0147000905,-0.02864325,0.04148601,0.014614296,-0.101046,-0.01413504,-0.050285634,0.0673484,-2.0,0.543513,2.0,-2.0,-0.28678006,-2.0,2.0,1.6674784,-2.0,2.0,-0.16376714,-2.0,-2.0,0.4002344,1.5290655,-2.0,0.5679651,-2.0,2.0,1.4478439,-2.0,2.0,0.26324177,-2.0
2025-06-05 16:47:24.720,-0.016262043,0.13582817,0.021664744,0.13398698,0.08702691,-0.048409216,0.0,0.0,0.0,-0.019983996,-0.16926822,0.22424546,0.2785605,0.1083579,0.49492928,0.06437807,-0.1497515,0.36538824,-0.45740712,0.11398058,-0.12187519,-0.5382999,-0.066157445,0.06436673,0.1478149,0.054865476,0.051809758,0.010644315,-0.03464715,0.0030645283,-0.026504012,-0.033424497,0.103257895,-0.07301335,-2.0,0.4002344,1.5290655,-2.0,0.5679651,-2.0,2.0,1.4478439,-2.0,2.0,0.26324177,-2.0,-2.0,0.11046411,0.0214573,-2.0,0.1769218,-2.0,2.0,1.6265082,-2.0,2.0,-0.06319015,-2.0
2025-06-05 16:47:24.739,0.068218015,0.030194484,0.06443598,0.18157543,0.10364845,0.017523505,0.0,0.0,0.0,-0.021154866,-0.15743785,0.21108949,0.24768634,0.11033564,0.4869114,0.06384227,-0.14748934,0.3696448,-0.47186705,0.10653792,-0.11750842,-0.53743565,0.028061932,0.002834383,-0.11373824,0.073100336,-0.044522315,-0.0048923222,-0.050342288,0.08292692,0.028871145,-0.009457424,0.06490475,0.0013223678,-2.0,0.11046411,0.0214573,-2.0,0.1769218,-2.0,2.0,1.6265082,-2.0,2.0,-0.06319015,-2.0,-2.0,0.16354354,-0.38801926,-2.0,0.12520309,-2.0,2.0,1.522416,-2.0,2.0,0.1771323,-2.0
2025-06-05 16:47:24.760,-0.007732833,0.028306073,0.030504625,0.15973957,0.048288938,-0.00035073044,0.0,0.0,0.0,-0.02196686,-0.16272812,0.18069787,0.17057861,0.102881126,0.4849842,0.06974666,-0.14375207,0.38864756,-0.4855147,0.10099898,-0.121663526,-0.5431958,-0.0503567,-0.089616545,-0.22960226,0.04562796,-0.041887935,0.013061525,-0.044586692,-0.00047477052,0.04802452,0.033113964,0.06946647,0.036962856,-2.0,0.16354354,-0.38801926,-2.0,0.12520309,-2.0,2.0,1.522416,-2.0,2.0,0.1771323,-2.0,-2.0,0.5443095,0.26545894,-2.0,0.19179328,-2.0,2.0,1.5048862,-2.0,2.0,0.055453945,-2.0
2025-06-05 16:47:24.780,-0.041480463,0.07074078,0.06358934,0.123317145,0.036091927,-0.023608852,0.0,0.0,0.0,-0.022715198,-0.16593191,0.18191972,0.11067404,0.11725892,0.4848771,0.08626688,-0.14387234,0.3845874,-0.48875862,0.09645841,-0.12077641,-0.5552392,-0.07396089,0.009382365,-0.1205312,0.0424522,-0.058187496,0.03379942,0.04427457,0.06656781,-0.016762543,0.05063007,0.056293756,-0.06344529,-2.0,0.5443095,0.26545894,-2.0,0.19179328,-2.0,2.0,1.5048862,-2.0,2.0,0.055453945,-2.0,-2.0,0.46730077,1.7469182,-2.0,0.40598232,-2.0,2.0,1.4043078,-2.0,2.0,0.16454221,-2.0
2025-06-05 16:47:24.802,-0.048208114,-0.015643124,0.061509322,0.1934129,0.10754364,-0.011242922,0.0,0.0,0.0,-0.023583306,-0.15649696,0.18251115,0.14280277,0.105338864,0.4966143,0.085769996,-0.16004977,0.3966067,-0.49254382,0.1068222,-0.10124112,-0.55659676,0.018211333,-0.000104219354,0.23409508,-0.023002196,-0.03702744,0.03321608,-0.05586413,0.02978572,0.03411691,-0.027863117,0.080078,-0.07155642,-2.0,0.46730077,1.7469182,-2.0,0.40598232,-2.0,2.0,1.4043078,-2.0,2.0,0.16454221,-2.0,-2.0,0.4681704,1.8373625,-2.0,0.7500969,-2.0,2.0,1.4011327,-2.0,2.0,0.1898532,-2.0
2025-06-05 16:47:24.820,-0.08246629,0.0647641,-0.03803771,0.1300159,0.057056464,-0.041401625,0.0,0.0,0.0,-0.024279624,-0.17242679,0.18876547,0.2387502,0.11432692,0.49759644,0.08188084,-0.1606335,0.4063655,-0.49145204,0.0944332,-0.106053665,-0.5570301,0.05901649,0.101960264,0.24047232,-0.041234035,0.082121514,-0.06645022,-0.015923006,0.0644599,-0.002803587,-0.029677872,0.089573,-0.05537945,-2.0,0.4681704,1.8373625,-2.0,0.7500969,-2.0,2.0,1.4011327,-2.0,2.0,0.1898532,-2.0,-2.0,0.09489073,1.9233695,-2.0,-0.3736475,-2.0,2.0,1.7335473,-2.0,2.0,-0.00016136095,-2.0
2025-06-05 16:47:24.840,-0.04760365,-0.028777469,0.007575872,0.1804521,0.13134566,0.04877167,0.0,0.0,0.0,-0.024159774,-0.15332651,0.18565246,0.3298815,0.110043794,0.4960806,0.07076161,-0.15691097,0.40762416,-0.48929244,0.09140808,-0.08704945,-0.5365207,0.06774824,-0.12158088,0.21751899,0.00071919215,-0.03774605,-0.026226036,-0.022080734,0.048378777,0.008270837,0.049168523,-0.04681053,-0.050327834,-2.0,0.09489073,1.9233695,-2.0,-0.3736475,-2.0,2.0,1.7335473,-2.0,2.0,-0.00016136095,-2.0,-2.0,0.4048251,1.0860476,-2.0,0.3926695,-2.0,2.0,1.6228405,-2.0,2.0,0.18428706,-2.0
2025-06-05 16:47:24.861,-0.025372572,0.03679035,0.063727856,0.16977237,0.06965844,0.035978377,0.0,0.0,0.0,-0.024538338,-0.15575556,0.18104726,0.3535153,0.10377814,0.5007788,0.08008602,-0.15354271,0.4237509,-0.4817515,0.08952724,-0.09070891,-0.54785824,-0.023156144,0.002877838,0.059761442,0.07772246,-0.029807553,-0.0040923357,-0.0021239282,-0.023075689,-0.016569087,-0.064626426,0.013492522,-0.06453715,-2.0,0.4048251,1.0860476,-2.0,0.3926695,-2.0,2.0,1.6228405,-2.0,2.0,0.18428706,-2.0,-2.0,0.22019918,-0.98838675,-2.0,0.47309256,-2.0,2.0,1.6234499,-2.0,2.0,0.07584886,-2.0
2025-06-05 16:47:24.880,-0.042520285,0.0037868628,-0.040307704,0.16320086,0.06318892,0.016448861,0.0,0.0,0.0,-0.0252299,-0.16713795,0.18322305,0.23753855,0.11150723,0.51426876,0.084794976,-0.15586631,0.42948243,-0.49400404,0.10898126,-0.095127575,-0.54297894,-0.024644645,-0.022864189,-0.30855373,-0.010840318,0.06760388,-0.059382457,0.063662745,0.06683639,0.076687604,0.037675362,0.049952574,0.002451253,-2.0,0.22019918,-0.98838675,-2.0,0.47309256,-2.0,2.0,1.6234499,-2.0,2.0,0.07584886,-2.0,-2.0,0.2924739,0.34456265,-2.0,-0.61624455,-2.0,2.0,1.7428731,-2.0,2.0,-0.012729984,-2.0
2025-06-05 16:47:24.900,0.0024075706,-0.0073577566,0.132999,0.19348241,0.059392206,-0.011358909,0.0,0.0,0.0,-0.025522131,-0.16939774,0.1717892,0.15698749,0.12805314,0.48335886,0.0893128,-0.15460555,0.437224,-0.4853577,0.09097579,-0.102469265,-0.52220136,-0.029646384,-0.09764208,-0.0858405,-0.009081679,-0.0785057,0.005987251,-0.03505824,-0.011413329,-0.05868904,0.04713571,-0.07150995,0.0422865,-2.0,0.2924739,0.34456265,-2.0,-0.61624455,-2.0,2.0,1.7428731,-2.0,2.0,-0.012729984,-2.0,-2.0,0.71335644,1.6659847,-2.0,1.1521266,-2.0,2.0,1.1324005,-2.0,2.0,0.2095515,-2.0
2025-06-05 16:47:24.922,-0.09260799,-0.04054667,0.026603477,0.17871621,0.0570887,0.0030647544,0.0,0.0,0.0,-0.026936699,-0.16846298,0.19710197,0.16714963,0.12572151,0.49134058,0.07323578,-0.16118592,0.4217263,-0.4747136,0.10189326,-0.10093678,-0.5300151,0.03342509,0.13182656,0.10100111,-0.0791217,0.073892675,-0.089281544,0.011472819,-0.0051680794,-0.035300028,-0.016226871,-0.03607228,0.07271018,-2.0,0.71335644,1.6659847,-2.0,1.1521266,-2.0,2.0,1.1324005,-2.0,2.0,0.2095515,-2.0,-2.0,0.1646377,2.0,-2.0,0.082463816,-2.0,2.0,1.5777297,-2.0,2.0,0.049285788,-2.0
2025-06-05 16:47:24.940,-0.051210254,-0.00826885,0.02426847,0.13528776,0.14007987,-0.0067075877,0.0,0.0,0.0,-0.027771296,-0.15384434,0.19347,0.26005688,0.11687744,0.49412078,0.07702819,-0.15710975,0.42352957,-0.4622162,0.1022939,-0.09059322,-0.53019655,0.0860038,-0.063897416,0.19189009,0.014780713,0.02849277,-0.050775696,-0.016404966,0.06068197,0.06951002,-0.04949702,0.04041882,-0.045182906,-2.0,0.1646377,2.0,-2.0,0.082463816,-2.0,2.0,1.5777297,-2.0,2.0,0.049285788,-2.0,-2.0,0.20432378,0.8713711,-2.0,0.30834192,-2.0,2.0,1.5102421,-2.0,2.0,0.16391201,-2.0
2025-06-05 16:47:24.961,-0.090952136,0.008357677,-0.0039500836,0.13974038,0.09322852,0.022134172,0.0,0.0,0.0,-0.028195214,-0.15178452,0.18704885,0.2884217,0.12748991,0.5132185,0.066613026,-0.17397654,0.4352947,-0.45390886,0.10486201,-0.079452895,-0.5291801,-0.011687567,0.027345702,0.073943816,-0.051867153,0.03606452,-0.09241539,-0.0020898983,0.02054535,-0.0022754583,-0.045386095,0.0014156871,0.03244417,-2.0,0.20432378,0.8713711,-2.0,0.30834192,-2.0,2.0,1.5102421,-2.0,2.0,0.16391201,-2.0,-2.0,0.22858058,1.6132631,-2.0,-0.081135795,-2.0,2.0,1.6462194,-2.0,2.0,-0.06812443,-2.0
2025-06-05 16:47:24.980,-0.07414678,-0.075993806,0.09548534,0.10842712,0.10285392,0.047068365,0.0,0.0,0.0,-0.028622169,-0.16524768,0.17122102,0.30956408,0.13847327,0.5212638,0.06620489,-0.16264722,0.43296838,-0.44344002,0.10446019,-0.07539876,-0.5124407,0.071055084,-0.008737348,0.09117537,-0.010366838,0.053413942,-0.01996625,-0.02269319,-0.054117404,0.06448123,0.01728637,0.03686685,0.023239013,-2.0,0.22858058,1.6132631,-2.0,-0.081135795,-2.0,2.0,1.6462194,-2.0,2.0,-0.06812443,-2.0,-2.0,0.20439269,-0.36480272,-2.0,0.94458246,-2.0,2.0,1.2830945,-2.0,2.0,0.16041063,-2.0
2025-06-05 16:47:25.000,-0.09930477,-0.018144138,-0.0667705,0.1423525,0.11925812,0.049696136,0.0,0.0,0.0,-0.02973414,-0.15579686,0.14587945,0.26264456,0.13983852,0.53396755,0.049997237,-0.16582206,0.43154773,-0.4242753,0.10487785,-0.07298911,-0.5184546,0.02817986,-0.0626868,-0.2916792,-0.023727497,0.062685825,0.007827217,0.011581906,0.018731367,0.04029562,0.06628737,0.024178004,-0.009900685,-2.0,0.20439269,-0.36480272,-2.0,0.94458246,-2.0,2.0,1.2830945,-2.0,2.0,0.16041063,-2.0,-2.0,0.21372558,0.8170807,-2.0,-0.5494356,-2.0,2.0,1.7084996,-2.0,2.0,-0.19022216,-2.0
2025-06-05 16:47:25.071,0.0027395408,-0.0672556,0.14492796,0.07209761,0.07319659,-0.031198258,0.0,0.0,0.0,-0.030092686,-0.1671636,0.14719078,0.20777279,0.13670109,0.5043362,0.048085615,-0.17061068,0.42572647,-0.41465205,0.0981358,-0.090144195,-0.51008594,-0.035726115,0.029423721,-0.1154843,-0.05844459,-0.103937864,0.09754297,-0.03260254,-0.05266833,-0.024741622,-0.039113943,0.028748946,0.07315904,-2.0,0.21372558,0.8170807,-2.0,-0.5494356,-2.0,2.0,1.7084996,-2.0,2.0,-0.19022216,-2.0,-2.0,0.41756433,0.44401115,-2.0,1.4396564,-2.0,2.0,1.1551629,-2.0,2.0,0.24540384,-2.0
2025-06-05 16:47:25.087,-0.1065258,0.019187322,-0.004471118,0.09451161,0.060642354,0.025845336,0.0,0.0,0.0,-0.031386435,-0.16051292,0.1499501,0.1823961,0.13862161,0.51325226,0.04281519,-0.1705413,0.4437977,-0.4073126,0.10420698,-0.07903898,-0.49995437,-0.011297245,0.0851939,-0.10372239,-0.021437546,0.011891962,-0.024609556,0.024441792,0.020087693,0.10799515,0.07608195,0.04374007,-0.015790187,-2.0,0.41756433,0.44401115,-2.0,1.4396564,-2.0,2.0,1.1551629,-2.0,2.0,0.24540384,-2.0,-2.0,-0.09899525,1.553597,-2.0,-0.062088896,-2.0,2.0,1.3824474,-2.0,2.0,-0.314838,-2.0
2025-06-05 16:47:25.107,-0.073752865,-0.15382351,0.09005709,0.08896231,0.14638141,-0.016013026,0.0,0.0,0.0,-0.031889264,-0.16476277,0.117100775,0.2089952,0.14811285,0.5321522,0.017586667,-0.16842526,0.4395548,-0.38090375,0.11840918,-0.07621837,-0.49863186,0.03928227,-0.09959134,0.09358714,0.0027128067,-0.052151922,-0.047482308,-0.022187585,-0.083324015,-0.014522266,0.10186084,0.029285058,0.0034286354,-2.0,-0.09899525,1.553597,-2.0,-0.062088896,-2.0,2.0,1.3824474,-2.0,2.0,-0.314838,-2.0,-2.0,0.26472306,0.7633841,-2.0,1.1372553,-2.0,2.0,1.1003972,-2.0,2.0,0.2155142,-2.0
2025-06-05 16:47:25.129,-0.07005239,-0.023775838,-0.056974486,0.03969161,0.07839429,0.022072721,0.0,0.0,0.0,-0.032447778,-0.170682,0.10434706,0.22263919,0.15649635,0.5389704,0.0119163385,-0.16432257,0.4373294,-0.36034316,0.12177261,-0.06035472,-0.5111705,-0.010096582,0.009015796,-0.05437305,-0.050102733,0.06418297,-0.034342293,0.015454606,-0.053478017,0.029811103,0.09639168,0.11182681,-0.06540582,-2.0,0.26472306,0.7633841,-2.0,1.1372553,-2.0,2.0,1.1003972,-2.0,2.0,0.2155142,-2.0,-2.0,0.12360506,1.1674248,-2.0,-0.14232664,-2.0,2.0,1.4025226,-2.0,2.0,-0.3330205,-2.0
2025-06-05 16:47:25.148,-0.06383875,-0.09596629,0.01806344,0.049285684,0.14283389,0.02129004,0.0,0.0,0.0,-0.03274339,-0.16455872,0.099282436,0.24193524,0.1593364,0.5240197,-0.0035473958,-0.17891082,0.42583254,-0.34822974,0.12792131,-0.08145502,-0.5043704,0.03318532,0.016525371,0.043844815,0.08290675,-0.083328925,-0.071828045,0.06597093,-0.038192615,0.05982948,0.083020486,-0.028354999,0.09792248,-2.0,0.12360506,1.1674248,-2.0,-0.14232664,-2.0,2.0,1.4025226,-2.0,2.0,-0.3330205,-2.0,-2.0,0.15162678,1.8447222,-2.0,0.3227237,-2.0,2.0,1.3139623,-2.0,2.0,-0.03371654,-2.0
2025-06-05 16:47:25.167,-0.08242519,-0.05646001,0.09068337,0.072347805,0.124848485,0.031197166,0.0,0.0,0.0,-0.033580437,-0.16926166,0.09646497,0.278817,0.15173262,0.5246979,-0.016373262,-0.172563,0.4290407,-0.33053252,0.13562062,-0.08304193,-0.4937996,0.054507464,-0.02679775,0.083946474,-0.04235757,0.027007198,0.016364675,-0.005396455,-0.010968664,0.06594085,0.023326708,0.041882463,0.08704547,-2.0,0.15162678,1.8447222,-2.0,0.3227237,-2.0,2.0,1.3139623,-2.0,2.0,-0.03371654,-2.0,-2.0,0.26385677,-0.38232803,-2.0,0.7868027,-2.0,2.0,0.9347197,-2.0,2.0,-0.12025671,-2.0
2025-06-05 16:47:25.187,-0.0430697,-0.063078225,0.031914935,0.08961938,0.04925346,0.012300231,0.0,0.0,0.0,-0.03518892,-0.1746722,0.096118845,0.2375418,0.1593505,0.5432891,-0.03279036,-0.16895933,0.4063742,-0.30093303,0.12762427,-0.099171676,-0.4835553,-0.08500671,-0.020211423,-0.21462972,0.030570306,-0.021595504,0.020480309,-0.018157076,-0.03760715,0.060028117,0.074189514,0.039499514,-0.040279984,-2.0,0.26385677,-0.38232803,-2.0,0.7868027,-2.0,2.0,0.9347197,-2.0,2.0,-0.12025671,-2.0,-2.0,0.059175357,-0.055180803,-2.0,0.19793387,-2.0,2.0,1.0752856,-2.0,2.0,-0.36017433,-2.0
2025-06-05 16:47:25.207,0.033774428,-0.19338207,0.070361055,0.09993916,0.04723834,0.02841937,0.0,0.0,0.0,-0.035958927,-0.16259132,0.10708131,0.16948889,0.16048963,0.54431134,-0.045487456,-0.16536139,0.39979345,-0.26777488,0.13322899,-0.11273376,-0.46535283,0.0152474,0.04082554,-0.24965896,0.009149394,-0.06008039,-0.009630589,0.058160946,-0.034636267,0.0704334,0.031079758,-0.063079774,0.0144999195,-2.0,0.059175357,-0.055180803,-2.0,0.19793387,-2.0,2.0,1.0752856,-2.0,2.0,-0.36017433,-2.0,-2.0,0.023833469,1.8819817,-2.0,0.43036163,-2.0,2.0,1.0030783,-2.0,2.0,0.007079143,-2.0
2025-06-05 16:47:25.229,-0.08059591,-0.02842734,-0.0069435854,0.034907375,0.048981473,-0.019315993,0.0,0.0,0.0,-0.03664987,-0.16012952,0.08200738,0.19153732,0.17542718,0.54231274,-0.07009688,-0.17205179,0.39816812,-0.262309,0.1401473,-0.11351377,-0.4612263,0.021281699,-0.047289465,0.20471552,-0.048138097,-0.028676016,-0.0038433676,-0.008341764,0.05589824,-0.015090549,-0.07472123,-0.07692278,0.06034745,-2.0,0.023833469,1.8819817,-2.0,0.43036163,-2.0,2.0,1.0030783,-2.0,2.0,0.007079143,-2.0,-2.0,0.47799146,2.0,-2.0,-0.04170828,-2.0,2.0,1.0312468,-2.0,2.0,-0.2906747,-2.0
2025-06-05 16:47:25.247,-0.076092064,-0.08262619,0.082649276,0.039985288,0.08108132,0.0061063045,0.0,0.0,0.0,-0.037379157,-0.15802822,0.091715485,0.26596102,0.1744216,0.53314453,-0.07004835,-0.16996576,0.3841073,-0.23980457,0.13293314,-0.114279225,-0.44082853,0.015877182,0.059539523,0.19483517,0.02352224,0.034829028,0.0133539755,-0.06589257,-0.029879006,0.07725579,0.042041037,-0.0919118,-0.048879568,-2.0,0.47799146,2.0,-2.0,-0.04170828,-2.0,2.0,1.0312468,-2.0,2.0,-0.2906747,-2.0,-2.0,0.3097176,1.3882269,-2.0,0.7220833,-2.0,2.0,0.7950197,-2.0,2.0,-0.016952943,-2.0
2025-06-05 16:47:25.268,-0.06958941,-0.02784913,0.02612783,0.067434214,0.051373255,-0.01122382,0.0,0.0,0.0,-0.038666006,-0.16978656,0.12197046,0.31714165,0.16574587,0.5415817,-0.07408027,-0.17876427,0.38357222,-0.22215632,0.13972132,-0.12471045,-0.43388596,-0.063819736,-0.010765977,0.1296512,0.040822227,-0.028943857,-0.0032926674,0.07271845,0.05891539,0.033026543,0.006248171,-0.07088753,0.061227046,-2.0,0.3097176,1.3882269,-2.0,0.7220833,-2.0,2.0,0.7950197,-2.0,2.0,-0.016952943,-2.0,-2.0,0.05622287,1.0343319,-2.0,-0.00704496,-2.0,2.0,0.82416266,-2.0,2.0,-0.6754563,-2.0
2025-06-05 16:47:25.288,0.01775777,-0.13500905,0.09737864,0.039749276,0.104547516,-0.044225153,0.0,0.0,0.0,-0.039312635,-0.16616966,0.13080028,0.3318227,0.17950058,0.5255928,-0.07824343,-0.17466842,0.37994707,-0.18410067,0.14949149,-0.13962828,-0.44045377,-0.026304318,-0.011086482,0.05247553,0.07246692,-0.039111316,-0.06813574,-0.06771111,-0.061807785,0.10003875,0.036928974,-0.062143236,0.04381927,-2.0,0.05622287,1.0343319,-2.0,-0.00704496,-2.0,2.0,0.82416266,-2.0,2.0,-0.6754563,-2.0,-2.0,-0.08648671,-0.2639076,-2.0,0.6691274,-2.0,2.0,0.7706236,-2.0,2.0,-0.09870775,-2.0
2025-06-05 16:47:25.308,-0.064051785,-0.08780573,-0.0094863605,-0.023063658,0.04707095,-0.034890298,0.0,0.0,0.0,-0.04009609,-0.17023888,0.10856844,0.24511708,0.17847176,0.5265361,-0.095076345,-0.17049961,0.35647318,-0.17747414,0.15165316,-0.15664345,-0.43336266,-0.0349478,-0.022955606,-0.24563898,0.0332538,0.036167346,0.000994808,0.03971942,-0.08346521,-0.0070555545,0.06502872,0.06689838,-0.05828238,-2.0,-0.08648671,-0.2639076,-2.0,0.6691274,-2.0,2.0,0.7706236,-2.0,2.0,-0.09870775,-2.0,-2.0,-0.1388091,0.3888548,-2.0,-0.049140383,-2.0,2.0,1.059522,-2.0,2.0,-0.4508154,-2.0
2025-06-05 16:47:25.328,0.023276744,-0.094327696,0.075521916,0.028552419,0.08112904,-0.047553536,0.0,0.0,0.0,-0.040573046,-0.15739425,0.06573052,0.19310592,0.18736143,0.500422,-0.106129326,-0.17216673,0.33892328,-0.14841115,0.16553055,-0.17125638,-0.44020876,-0.036281798,-0.082267255,-0.18001936,0.06912587,-0.08108318,-0.06825786,0.04281633,0.036925234,0.055872757,0.009963061,-0.010065823,0.032721788,-2.0,-0.1388091,0.3888548,-2.0,-0.049140383,-2.0,2.0,1.059522,-2.0,2.0,-0.4508154,-2.0,-2.0,0.16504657,0.8186525,-2.0,0.3800577,-2.0,2.0,0.52788657,-2.0,2.0,-0.27072963,-2.0
2025-06-05 16:47:25.348,-0.08588284,-0.1096797,0.006173869,0.01171484,0.09801771,-0.04845,0.0,0.0,0.0,-0.041550428,-0.16927512,0.058457136,0.16958317,0.18571287,0.5007907,-0.1011784,-0.1658768,0.3405705,-0.13528307,0.15823568,-0.16888414,-0.43072233,0.0223194,-0.09329255,-0.036853105,-0.013902158,-0.061111383,0.041599996,-0.05524198,-0.07753465,0.11567469,0.016607605,-0.004287465,-0.053236395,-2.0,0.16504657,0.8186525,-2.0,0.3800577,-2.0,2.0,0.52788657,-2.0,2.0,-0.27072963,-2.0,-2.0,0.29779238,1.9268837,-2.0,0.5338265,-2.0,2.0,0.7621191,-2.0,2.0,-0.30072746,-2.0
2025-06-05 16:47:25.368,-0.043789666,-0.042576753,0.043312788,-0.0058429157,0.10149235,0.010643307,0.0,0.0,0.0,-0.042637922,-0.17000675,0.050508644,0.228144,0.18070115,0.49249008,-0.11774593,-0.1717552,0.3352792,-0.11499351,0.14374743,-0.17310926,-0.43911698,0.055852454,0.103815526,0.1590748,0.06284553,0.027469575,-0.005172654,0.063947156,-0.06289614,0.0040537217,0.0142656285,0.0033029544,0.028742725,-2.0,0.29779238,1.9268837,-2.0,0.5338265,-2.0,2.0,0.7621191,-2.0,2.0,-0.30072746,-2.0,-2.0,0.08604249,1.5301609,-2.0,0.36227566,-2.0,2.0,0.70228213,-2.0,2.0,-0.3757145,-2.0
2025-06-05 16:47:25.388,-0.023047235,-0.041353542,-0.014699264,0.03610457,0.056766994,-0.0032948428,0.0,0.0,0.0,-0.043496102,-0.15475628,0.06997355,0.29108262,0.19558488,0.5078051,-0.11598172,-0.17532049,0.32429734,-0.107474506,0.15283935,-0.18326867,-0.4390694,-0.01687585,0.018778369,0.17682454,0.03950683,-0.03940961,-0.08538798,-0.03503338,0.009647586,0.056106653,-0.04876358,-0.0013158675,0.0068667145,-2.0,0.08604249,1.5301609,-2.0,0.36227566,-2.0,2.0,0.70228213,-2.0,2.0,-0.3757145,-2.0,-2.0,0.03233309,1.8144101,-2.0,-0.06370585,-2.0,2.0,0.87461466,-2.0,2.0,-0.5092191,-2.0
2025-06-05 16:47:25.408,0.0131567335,-0.09100146,0.103891484,-0.03686294,0.07263526,0.0463341,0.0,0.0,0.0,-0.044227846,-0.16856979,0.059267826,0.3367615,0.19665478,0.48694825,-0.13161953,-0.17103636,0.33142123,-0.09734165,0.15789229,-0.18336725,-0.4401756,-0.019001007,-0.08081599,0.08244172,-0.06024627,-0.07040669,0.07031077,-0.037936218,0.060296346,-0.013177397,0.02624822,-0.042299915,-0.039310087,-2.0,0.03233309,1.8144101,-2.0,-0.06370585,-2.0,2.0,0.87461466,-2.0,2.0,-0.5092191,-2.0,-2.0,0.5034034,-0.022574678,-2.0,0.71564496,-2.0,2.0,0.36890426,-2.0,2.0,-0.15796353,-2.0
2025-06-05 16:47:25.428,-0.05033364,-0.014959856,-0.023007547,-0.0128065795,0.012874477,0.035169043,0.0,0.0,0.0,-0.045657057,-0.17520408,0.105225,0.30372053,0.19637266,0.4813498,-0.12393666,-0.18479162,0.3164907,-0.08595692,0.16409709,-0.18244135,-0.4548685,-0.079000294,0.16182752,-0.1625673,-0.06287393,-0.03825904,-0.034732368,-0.04708102,0.012538743,-0.01726509,-0.06773541,0.043817233,0.02342739,-2.0,0.5034034,-0.022574678,-2.0,0.71564496,-2.0,2.0,0.36890426,-2.0,2.0,-0.15796353,-2.0,-2.0,-0.33227658,1.7107197,-2.0,-0.3013056,-2.0,2.0,1.0030808,-2.0,2.0,-0.6992049,-2.0
2025-06-05 16:47:25.448,-0.0015903813,-0.046159048,0.09482365,0.011845576,0.03160595,0.009046513,0.0,0.0,0.0,-0.046424754,-0.16028167,0.07264031,0.2865717,0.21397777,0.4532268,-0.1300085,-0.17597486,0.3149946,-0.087871626,0.16130002,-0.2047308,-0.44805413,-0.055371635,-0.09641483,0.08308911,0.037562937,-0.034335185,0.07065974,-0.03128394,-0.06289421,0.05381651,0.06473009,0.0089799585,-0.04099976,-2.0,-0.33227658,1.7107197,-2.0,-0.3013056,-2.0,2.0,1.0030808,-2.0,2.0,-0.6992049,-2.0,-2.0,0.39515173,-0.23136272,-2.0,0.94792753,-2.0,2.0,0.31275925,-2.0,2.0,-0.22936131,-2.0
2025-06-05 16:47:25.468,-0.058946274,-0.014248293,-0.016455118,-0.030571435,0.009981566,-0.04313982,0.0,0.0,0.0,-0.047937304,-0.15739734,0.081051126,0.24571835,0.2026603,0.43911076,-0.12286299,-0.18007194,0.30444136,-0.07663647,0.15935364,-0.20498198,-0.47013465,-0.004801653,0.023759877,-0.18763386,0.05222321,-0.01481431,-0.09191169,-0.0535246,0.029821964,0.0050051818,-0.028422162,-0.06909829,-0.10398271,-2.0,0.39515173,-0.23136272,-2.0,0.94792753,-2.0,2.0,0.31275925,-2.0,2.0,-0.22936131,-2.0,-2.0,-0.17159207,2.0,-2.0,-0.50773036,-2.0,2.0,0.8489627,-2.0,2.0,-0.47873056,-2.0
2025-06-05 16:47:25.488,0.0046184706,-0.040390678,0.09662972,-0.05759071,0.023592876,0.037731525,0.0,0.0,0.0,-0.04918978,-0.16754608,0.0687843,0.25841355,0.20169717,0.42063385,-0.112368375,-0.1826686,0.28837013,-0.05335187,0.16776367,-0.20183331,-0.46615747,-0.021622203,-0.093773894,0.09031115,-0.027733395,-0.070642635,0.022255572,-0.0780537,-0.001767468,0.03624549,-0.06334246,0.036987346,-0.04558946,-2.0,-0.17159207,2.0,-2.0,-0.50773036,-2.0,2.0,0.8489627,-2.0,2.0,-0.47873056,-2.0,-2.0,0.59304345,0.5174587,-2.0,1.0461264,-2.0,2.0,0.23815367,-2.0,2.0,-0.20756982,-2.0
2025-06-05 16:47:25.511,-0.007818588,0.009251911,0.055270802,-0.051600795,0.06458183,0.009615965,0.0,0.0,0.0,-0.050891276,-0.1606874,0.09035743,0.23978323,0.20964588,0.39802244,-0.12580313,-0.17799737,0.28449342,-0.0517068,0.15814383,-0.21922761,-0.48398137,-0.08995564,0.0833386,0.0013984361,0.035821076,-0.03163365,-0.02487662,0.04349388,-0.033189747,0.04953537,0.02562518,0.0017296874,-0.06252357,-2.0,0.59304345,0.5174587,-2.0,1.0461264,-2.0,2.0,0.23815367,-2.0,2.0,-0.20756982,-2.0,-2.0,-0.23876895,0.93517375,-2.0,0.24205913,-2.0,2.0,0.32720852,-2.0,2.0,-0.7534106,-2.0
2025-06-05 16:47:25.528,-0.053688478,-0.12888044,-0.01949442,-0.028002497,0.04115776,0.048694737,0.0,0.0,0.0,-0.051874004,-0.1732762,0.08777977,0.2350485,0.19958894,0.40994614,-0.1242875,-0.18350212,0.2725433,-0.0400316,0.16991055,-0.22111018,-0.4893604,0.07554649,-0.067324094,0.0614045,-0.004724114,0.039807174,0.028603101,-4.448368e-05,0.019485518,0.05362793,-0.02534346,-0.053349636,0.03215672,-2.0,-0.23876895,0.93517375,-2.0,0.24205913,-2.0,2.0,0.32720852,-2.0,2.0,-0.7534106,-2.0,-2.0,0.31906366,2.0,-2.0,-0.3059948,-2.0,2.0,0.4732885,-2.0,2.0,-0.36357462,-2.0
2025-06-05 16:47:25.548,0.007403741,-0.107903,0.10164426,-0.08304105,0.006859119,-0.036569525,0.0,0.0,0.0,-0.052084,-0.15665117,0.08780294,0.2919049,0.2032296,0.38077417,-0.13544297,-0.18612659,0.26902747,-0.026055804,0.16603035,-0.23316917,-0.49243575,-0.04278098,-0.021884518,0.20691912,0.03199208,-0.06197599,0.07451693,0.027831394,0.009712495,0.0047730203,-0.015768858,0.054112192,0.039138034,-2.0,0.31906366,2.0,-2.0,-0.3059948,-2.0,2.0,0.4732885,-2.0,2.0,-0.36357462,-2.0,-2.0,0.50558305,0.34460497,-2.0,0.8709227,-2.0,2.0,0.23323414,-2.0,2.0,-0.50558996,-2.0
2025-06-05 16:47:25.569,0.047312737,-0.05861805,-0.029775629,-0.05016749,0.03501959,-0.03168842,0.0,0.0,0.0,-0.053129897,-0.16078205,0.11721618,0.280329,0.20449623,0.36692405,-0.13376062,-0.19212344,0.25942376,-0.016605131,0.17433846,-0.2339336,-0.4911101,0.022583684,0.12756343,-0.05882352,-0.036321755,-0.041532654,-0.075819805,-0.052147225,-0.04530666,0.032529432,0.032913785,-0.0770181,0.022934,-2.0,0.50558305,0.34460497,-2.0,0.8709227,-2.0,2.0,0.23323414,-2.0,2.0,-0.50558996,-2.0,-2.0,-0.23661254,2.0,-2.0,-0.3641296,-2.0,2.0,0.8411035,-2.0,2.0,-0.5110183,-2.0
2025-06-05 16:47:25.589,-0.0012718438,-0.037590142,0.0846499,-0.06448347,0.05759932,-0.030601561,0.0,0.0,0.0,-0.053723615,-0.156228,0.10793051,0.3031653,0.2049502,0.35449854,-0.12552789,-0.18805774,0.24939597,-0.009945618,0.16569082,-0.25348032,-0.49701628,-0.024529826,-0.14394048,0.1430319,0.015849205,-0.063144445,0.07343644,-0.011702329,0.056486826,0.05551135,0.061585438,-0.035095315,-0.063894935,-2.0,-0.23661254,2.0,-2.0,-0.3641296,-2.0,2.0,0.8411035,-2.0,2.0,-0.5110183,-2.0,-2.0,0.5592518,0.7443408,-2.0,0.64559525,-2.0,2.0,0.08637544,-2.0,2.0,-0.26561615,-2.0
2025-06-05 16:47:25.611,-0.04694577,0.005764404,0.00017138418,-0.054076713,-0.012572697,0.031098653,0.0,0.0,0.0,-0.054836813,-0.17050089,0.118265055,0.30889344,0.21280955,0.3500679,-0.1350829,-0.18696333,0.2490665,-0.014625769,0.17338261,-0.25394037,-0.49358734,0.033895124,0.07944938,-0.08098735,0.058987796,-0.035261434,-0.07975475,0.0070796623,0.046220187,0.016945885,0.048338305,0.011829885,-0.056324475,-2.0,0.5592518,0.7443408,-2.0,0.64559525,-2.0,2.0,0.08637544,-2.0,2.0,-0.26561615,-2.0,-2.0,-0.2692474,0.9808837,-2.0,-0.32767946,-2.0,2.0,0.57662135,-2.0,2.0,-0.60916185,-2.0
2025-06-05 16:47:25.629,0.06902401,-0.06751848,0.0903575,-0.006828129,0.031696722,0.041739363,0.0,0.0,0.0,-0.05546444,-0.17016365,0.094138175,0.2891054,0.21111278,0.3282877,-0.13499998,-0.18642786,0.23616558,-0.005594691,0.18285172,-0.25083667,-0.5102065,-0.012906463,-0.12599906,-0.060959507,0.07462765,0.0008961855,-0.025612492,-0.02163937,0.025394877,-0.03345474,-0.032399967,-0.025475388,-0.062788345,-2.0,-0.2692474,0.9808837,-2.0,-0.32767946,-2.0,2.0,0.57662135,-2.0,2.0,-0.60916185,-2.0,-2.0,0.47694522,-0.15009649,-2.0,0.47363478,-2.0,2.0,0.12257033,-2.0,2.0,-0.18536383,-2.0
2025-06-05 16:47:25.649,0.024432236,-0.008478463,0.019989673,-0.0807636,0.0710525,0.020935593,0.0,0.0,0.0,-0.05615069,-0.16558866,0.10493005,0.22609009,0.21647377,0.33039403,-0.1345218,-0.18629819,0.22836204,-0.008763198,0.1850922,-0.24877037,-0.5104423,-0.02183794,0.10850552,-0.19105177,-0.05215665,-0.030989394,-0.04275284,0.046556126,-0.06082117,0.060180634,0.06370773,0.051335268,-0.014519708,-2.0,0.47694522,-0.15009649,-2.0,0.47363478,-2.0,2.0,0.12257033,-2.0,2.0,-0.18536383,-2.0,-2.0,-0.309879,1.2233309,-2.0,0.10553737,-2.0,2.0,0.4974979,-2.0,2.0,-0.6393073,-2.0
2025-06-05 16:47:25.669,-0.004800043,-0.024569953,0.0660564,-0.091709055,0.054001685,0.037454206,0.0,0.0,0.0,-0.056379106,-0.15923753,0.07607194,0.19498922,0.20475884,0.31690267,-0.124682374,-0.19101217,0.23257047,0.0063719493,0.1703334,-0.26170114,-0.50958097,-0.03127642,-0.077695474,-0.050193008,0.058396827,-0.022975698,0.042548317,0.043635387,0.014285217,0.008183137,-0.041439783,0.045072306,0.031575773,-2.0,-0.309879,1.2233309,-2.0,0.10553737,-2.0,2.0,0.4974979,-2.0,2.0,-0.6393073,-2.0,-2.0,0.42320204,1.1279389,-2.0,0.37187213,-2.0,2.0,0.06793138,-2.0,2.0,-0.3634911,-2.0
2025-06-05 16:47:25.689,-0.027099313,-0.034838125,-0.0021707832,-0.008582614,0.0627619,0.040868834,0.0,0.0,0.0,-0.056553163,-0.16940375,0.078057475,0.22270449,0.22068663,0.30396733,-0.12454081,-0.19371423,0.2201752,0.011638063,0.17880653,-0.26399735,-0.5191913,0.0053467136,0.092230804,0.06378374,0.033886876,-0.022321345,0.053400367,-0.0030332452,0.04656429,0.027959442,0.031095512,0.07865744,-0.013024028,-2.0,0.42320204,1.1279389,-2.0,0.37187213,-2.0,2.0,0.06793138,-2.0,2.0,-0.3634911,-2.0,-2.0,0.187111,2.0,-2.0,-0.08279662,-2.0,2.0,0.34522334,-2.0,2.0,-0.6790359,-2.0
2025-06-05 16:47:25.711,0.023393104,-0.019921517,-0.010526162,-0.06410436,0.06248835,-0.042298164,0.0,0.0,0.0,-0.05658072,-0.16717325,0.079596005,0.28153113,0.21618645,0.30970833,-0.14098126,-0.18470389,0.21813245,0.0061820163,0.18435279,-0.27402824,-0.5227974,-0.028633086,0.092881404,0.18834813,0.020316985,0.023238411,0.027299866,0.01953165,-0.0052446965,-0.015062,-0.041202165,-0.02400095,-0.073433906,-2.0,0.187111,2.0,-2.0,-0.08279662,-2.0,2.0,0.34522334,-2.0,2.0,-0.6790359,-2.0,-2.0,0.27731735,1.9680613,-2.0,-0.0087968595,-2.0,2.0,0.673129,-2.0,2.0,-0.22988434,-2.0
2025-06-05 16:47:25.729,-0.034782626,0.104213044,0.10343558,-0.08961822,0.00012487886,0.00804701,0.0,0.0,0.0,-0.056910887,-0.1599457,0.093798704,0.34974298,0.20881133,0.30407393,-0.121904254,-0.19190732,0.21626617,0.011107755,0.18182926,-0.2593915,-0.53732777,-0.012587751,0.07030667,0.21027869,-0.041128747,0.00028058066,0.03453322,-0.048965573,0.054082382,-0.036773693,0.04834609,0.02234765,0.012177075,-2.0,0.27731735,1.9680613,-2.0,-0.0087968595,-2.0,2.0,0.673129,-2.0,2.0,-0.22988434,-2.0,-2.0,0.40536368,0.153118,-2.0,0.49886775,-2.0,2.0,0.02012932,-2.0,2.0,-0.54307497,-2.0
2025-06-05 16:47:25.749,0.0034454006,-0.032592848,0.014637808,-0.0822647,0.036887795,0.045704175,0.0,0.0,0.0,-0.05784343,-0.16370888,0.12598303,0.32041642,0.21585122,0.289045,-0.123557724,-0.17705902,0.21859872,-0.006249673,0.16686726,-0.25674045,-0.5443706,-0.0046395785,0.06558714,-0.13563609,-0.01699946,-0.08080329,-0.034801647,0.014898767,-0.060027305,-0.0048527247,0.06676566,-0.0007719826,-0.02056568,-2.0,0.40536368,0.153118,-2.0,0.49886775,-2.0,2.0,0.02012932,-2.0,2.0,-0.54307497,-2.0,-2.0,-0.19768076,0.4136995,-2.0,-0.11012702,-2.0,2.0,0.63193935,-2.0,2.0,-0.4245549,-2.0
2025-06-05 16:47:25.769,-0.010016246,0.048422102,0.03901869,-0.03938241,-0.008112323,-0.014213268,0.0,0.0,0.0,-0.058158074,-0.16717422,0.12349631,0.26122186,0.21453686,0.28717637,-0.11664004,-0.19269122,0.20456362,-0.00858512,0.17834437,-0.26250836,-0.54940104,0.041659657,-0.12835921,-0.20409068,-0.034339156,-0.020602444,-0.019508634,0.029407118,0.05673565,-0.016865985,-0.068619184,0.002078812,0.059457846,-2.0,-0.19768076,0.4136995,-2.0,-0.11012702,-2.0,2.0,0.63193935,-2.0,2.0,-0.4245549,-2.0,-2.0,0.33334452,0.43670344,-2.0,-0.15128605,-2.0,2.0,0.2871255,-2.0,2.0,-0.3600023,-2.0
2025-06-05 16:47:25.789,0.037496246,0.049872354,0.011366131,-0.006692408,0.01763109,0.028572442,0.0,0.0,0.0,-0.05844227,-0.1673363,0.115751475,0.20291159,0.2197372,0.2811523,-0.114603214,-0.18267289,0.20545541,-0.009889286,0.1695896,-0.27217174,-0.5400627,-0.040783122,-0.030361816,-0.09313902,-0.037643097,-0.017458651,-0.05665827,-0.045700487,0.020274697,-0.041583095,0.039542876,0.062144477,-0.033019498,-2.0,0.33334452,0.43670344,-2.0,-0.15128605,-2.0,2.0,0.2871255,-2.0,2.0,-0.3600023,-2.0,-2.0,0.3616864,1.7308282,-2.0,0.012123894,-2.0,2.0,0.38194868,-2.0,2.0,-0.37912974,-2.0
2025-06-05 16:47:25.811,-0.049216975,0.038323592,0.024019549,0.006982918,0.056462277,-0.003380764,0.0,0.0,0.0,-0.059055176,-0.1703588,0.116142206,0.21629494,0.22929452,0.26865306,-0.103622705,-0.18537433,0.19935031,-0.006837168,0.17109185,-0.26412806,-0.556621,-0.035934635,-0.04597474,0.14606124,0.019264186,-0.074838035,-0.024550227,0.009953427,0.005288127,-0.08425151,-0.07195243,-0.042397145,-0.052200016,-2.0,0.3616864,1.7308282,-2.0,0.012123894,-2.0,2.0,0.38194868,-2.0,2.0,-0.37912974,-2.0,-2.0,0.61235654,1.941023,-2.0,0.28688294,-2.0,2.0,0.41285825,-2.0,2.0,-0.38114133,-2.0
2025-06-05 16:47:25.829,0.022670604,0.06569618,0.02841963,-0.0023155077,0.02975972,0.021824585,0.0,0.0,0.0,-0.059857547,-0.15569165,0.14491653,0.30044332,0.23445508,0.2559398,-0.102633566,-0.19095896,0.21753426,-0.020328168,0.17173335,-0.26770198,-0.5619829,0.029798618,0.03258026,0.13450883,-0.030526703,-0.04185288,-0.044671763,-0.076809265,0.08357655,-0.069411404,-0.07078372,0.026371647,-0.03935422,-2.0,0.61235654,1.941023,-2.0,0.28688294,-2.0,2.0,0.41285825,-2.0,2.0,-0.38114133,-2.0,-2.0,0.25157315,0.36855793,-2.0,0.05120523,-2.0,2.0,0.5339273,-2.0,2.0,-0.346553,-2.0
2025-06-05 16:47:25.849,-0.033032525,0.010616668,0.02963851,-0.018240692,0.08443179,-0.0055539696,0.0,0.0,0.0,-0.06064851,-0.16452806,0.1692552,0.29603463,0.23854259,0.25276807,-0.103915736,-0.19877672,0.22189695,-0.024010163,0.16553807,-0.25290862,-0.5618778,-0.071644425,0.0071790596,-0.1572126,0.06995026,0.045279697,0.083071224,-0.018521773,0.0020695708,0.014084756,0.06479472,0.057815786,-0.06573423,-2.0,0.25157315,0.36855793,-2.0,0.05120523,-2.0,2.0,0.5339273,-2.0,2.0,-0.346553,-2.0,-2.0,-0.031583995,-0.36677104,-2.0,-0.13584499,-2.0,2.0,0.40709093,-2.0,2.0,-0.46814537,-2.0
2025-06-05 16:47:25.870,0.03115753,0.010151469,0.04872991,-0.014736591,0.07849391,0.02875372,0.0,0.0,0.0,-0.061366707,-0.15733299,0.15527794,0.20721602,0.22457148,0.25201723,-0.09037743,-0.1945559,0.21944767,-0.031997483,0.16457531,-0.24813332,-0.55967253,-0.042595085,-0.037329406,-0.26724115,-0.044202134,0.030696407,-0.057012375,-0.03029423,0.06387569,-0.06668804,-0.0008968527,-0.07046581,0.072138876,-2.0,-0.031583995,-0.36677104,-2.0,-0.13584499,-2.0,2.0,0.40709093,-2.0,2.0,-0.46814537,-2.0,-2.0,0.20303658,2.0,-2.0,-0.28131944,-2.0,2.0,0.30262473,-2.0,2.0,-0.28681618,-2.0
2025-06-05 16:47:25.890,0.00071273785,-0.00503641,0.06326585,-0.032129765,0.025921548,0.020333523,0.0,0.0,0.0,-0.061996438,-0.16976918,0.14310412,0.21791422,0.2391866,0.23153506,-0.09232603,-0.20213315,0.21896014,-0.025303964,0.17061825,-0.25609228,-0.57206285,-0.033099428,-0.13629046,0.1296728,0.04620059,-0.08898343,0.05026267,0.02838651,0.060736965,-0.0035429304,-0.002491352,0.0653928,-0.026340192,-2.0,0.20303658,2.0,-2.0,-0.28131944,-2.0,2.0,0.30262473,-2.0,2.0,-0.28681618,-2.0,-2.0,0.6908185,0.5232172,-2.0,0.7319395,-2.0,2.0,0.13431993,-2.0,2.0,-0.46259704,-2.0
2025-06-05 16:47:25.912,0.019222219,-0.05079955,-0.056074552,-0.0053994767,0.03951688,-0.004888802,0.0,0.0,0.0,-0.06277973,-0.16927224,0.1496618,0.22117688,0.21913274,0.22277401,-0.08786641,-0.20256685,0.21280037,-0.043648727,0.16734436,-0.26983684,-0.55460423,0.010327353,0.14595729,0.0021834187,0.036865328,0.031409692,0.007125182,-0.013884573,0.04332078,-0.049537767,0.0393515,-0.0028932944,0.0075758486,-2.0,0.6908185,0.5232172,-2.0,0.7319395,-2.0,2.0,0.13431993,-2.0,2.0,-0.46259704,-2.0,-2.0,0.0061631054,2.0,-2.0,-0.72417265,-2.0,2.0,0.7355157,-2.0,2.0,-0.5977026,-2.0
2025-06-05 16:47:25.930,0.023072766,-0.019025002,0.1330436,-0.027975744,0.075004764,0.024904098,0.0,0.0,0.0,-0.06296589,-0.1607625,0.15310688,0.26643452,0.22139363,0.20243286,-0.091484025,-0.19795012,0.19906637,-0.040174793,0.16624646,-0.2719527,-0.5474264,-0.051170122,-0.08589117,0.17595154,0.053482044,-0.06802094,0.056702282,0.056718964,0.037478395,-0.0135477185,0.036921073,-0.08776751,0.06399496,-2.0,0.0061631054,2.0,-2.0,-0.72417265,-2.0,2.0,0.7355157,-2.0,2.0,-0.5977026,-2.0,-2.0,0.71978515,0.53865206,-2.0,1.0060666,-2.0,2.0,0.019322034,-2.0,2.0,-0.25489995,-2.0
2025-06-05 16:47:25.950,-0.03459034,0.009116699,-0.022753151,-0.043339666,0.050054897,-0.032100733,0.0,0.0,0.0,-0.0640045,-0.16667533,0.1743834,0.27795878,0.2228598,0.19965108,-0.08223793,-0.20468217,0.20517953,-0.04799704,0.17484033,-0.2645886,-0.5641362,0.0009033289,0.096677974,-0.046967845,-0.008811775,-0.054203704,-0.069165505,-0.026474664,-0.056322902,0.004206486,-0.0051042023,-0.004039033,0.031146344,-2.0,0.71978515,0.53865206,-2.0,1.0060666,-2.0,2.0,0.019322034,-2.0,2.0,-0.25489995,-2.0,-2.0,-0.21234994,0.8224021,-2.0,-0.29740852,-2.0,2.0,0.79024297,-2.0,2.0,-0.64472234,-2.0
2025-06-05 16:47:25.970,0.039243136,0.023150695,0.048662975,-0.04037669,-0.014068676,-0.00066264166,0.0,0.0,0.0,-0.06437897,-0.1659354,0.1543675,0.25607243,0.21751584,0.1930042,-0.093689874,-0.20572126,0.20879711,-0.04652298,0.17015868,-0.26294896,-0.5627696,-0.028439196,-0.046869542,-0.09146613,0.020167029,-0.00752786,-0.043830648,0.06298102,0.030295068,-0.05315468,0.04458885,0.014183917,0.08835453,-2.0,-0.21234994,0.8224021,-2.0,-0.29740852,-2.0,2.0,0.79024297,-2.0,2.0,-0.64472234,-2.0,-2.0,0.2953592,0.36288977,-2.0,0.060375642,-2.0,2.0,0.32348803,-2.0,2.0,-0.2869498,-2.0
2025-06-05 16:47:25.990,0.044943303,0.0032166855,0.02917089,-0.05061755,0.06940724,0.048875656,0.0,0.0,0.0,-0.06480701,-0.15692338,0.15114096,0.2149761,0.21777081,0.17980546,-0.082075156,-0.22031163,0.20463218,-0.057752434,0.17684701,-0.26492518,-0.5607895,0.05018887,-0.070726074,-0.062338326,0.009941492,-0.031287577,0.01855083,-0.017212508,0.039516374,0.049917657,0.0023266524,0.030067768,-0.059354823,-2.0,0.2953592,0.36288977,-2.0,0.060375642,-2.0,2.0,0.32348803,-2.0,2.0,-0.2869498,-2.0,-2.0,0.27878273,1.0595766,-2.0,-0.094958946,-2.0,2.0,0.33423373,-2.0,2.0,-0.33481634,-2.0
2025-06-05 16:47:26.011,-0.033864718,-0.01388706,0.015117128,0.004639962,0.011580787,0.01784354,0.0,0.0,0.0,-0.06562348,-0.164954,0.14230801,0.20062119,0.23418516,0.1680721,-0.09731098,-0.2185254,0.20158616,-0.06534152,0.16397196,-0.25771376,-0.5644428,0.0348302,0.0037409754,0.012406144,-0.06698766,0.045272734,-0.047938213,-0.06658634,0.059000894,0.046760708,0.05053454,0.0130709065,-0.032805666,-2.0,0.27878273,1.0595766,-2.0,-0.094958946,-2.0,2.0,0.33423373,-2.0,2.0,-0.33481634,-2.0,-2.0,0.40603167,1.7354552,-2.0,0.024540257,-2.0,2.0,0.37972096,-2.0,2.0,-0.27239433,-2.0
2025-06-05 16:47:26.030,-0.032302164,0.06503737,0.020477315,-0.04630983,-0.00840925,-0.04293117,0.0,0.0,0.0,-0.06622063,-0.16443561,0.14569968,0.25907725,0.22343571,0.1811462,-0.084956415,-0.20767856,0.20153926,-0.0705756,0.17141336,-0.2564071,-0.56104153,-0.03080047,-0.019330986,0.13093196,-0.038423438,-0.05592181,0.041429903,0.03851206,0.06087196,0.05501839,0.02023238,-0.045919765,-0.07545352,-2.0,0.40603167,1.7354552,-2.0,0.024540257,-2.0,2.0,0.37972096,-2.0,2.0,-0.27239433,-2.0,-2.0,0.48566514,0.93346715,-2.0,0.22586544,-2.0,2.0,0.40600798,-2.0,2.0,-0.40281543,-2.0
2025-06-05 16:47:26.050,-0.008271341,0.070043415,0.008296849,-0.0072836895,0.027576415,-0.01665758,0.0,0.0,0.0,-0.06669204,-0.17457342,0.16220686,0.27759507,0.22956988,0.1711814,-0.07893475,-0.21565887,0.20815706,-0.08106533,0.17571712,-0.25384003,-0.5649348,-0.0066787815,0.10815282,-0.048912108,0.04017544,-0.033666354,0.030775659,0.0014141107,-0.019025216,0.04119386,0.0042195744,0.082631916,-0.008797048,-2.0,0.48566514,0.93346715,-2.0,0.22586544,-2.0,2.0,0.40600798,-2.0,2.0,-0.40281543,-2.0,-2.0,-0.08376245,-0.5802351,-2.0,0.04068942,-2.0,2.0,0.7236832,-2.0,2.0,-0.40485713,-2.0
2025-06-05 16:47:26.070,0.055782415,-0.015640473,0.04998176,-0.0032252248,0.029014667,0.023266679,0.0,0.0,0.0,-0.06701369,-0.16899483,0.1610584,0.20035256,0.22328886,0.15725741,-0.093512446,-0.22010806,0.21836644,-0.08925077,0.17703314,-0.24258314,-0.5626856,0.057296947,-0.0020249928,-0.2812549,0.026618624,-0.015362639,-0.05340587,-0.040535465,0.062056936,-0.052639708,0.007421238,0.0804573,-0.046474528,-2.0,-0.08376245,-0.5802351,-2.0,0.04068942,-2.0,2.0,0.7236832,-2.0,2.0,-0.40485713,-2.0,-2.0,-0.008117765,-0.44747567,-2.0,-0.24261741,-2.0,2.0,0.53514445,-2.0,2.0,-0.18674935,-1.4178516
2025-06-05 16:47:26.091,0.026898738,0.045503862,0.0015950142,-0.0449995,0.03894563,0.03769032,0.0,0.0,0.0,-0.06745453,-0.15925701,0.13318999,0.096980974,0.2301337,0.1509129,-0.0913413,-0.21322572,0.21579584,-0.08542363,0.16751292,-0.23153853,-0.5434522,0.054082274,-0.04406053,-0.29578832,0.023096016,-0.008399389,0.055702243,-0.008057087,0.006405952,0.027172545,-0.006057417,-0.049621224,0.055000067,-2.0,-0.008117765,-0.44747567,-2.0,-0.24261741,-2.0,2.0,0.53514445,-2.0,2.0,-0.18674935,-1.4178516,-2.0,0.42296582,2.0,-2.0,-0.23934643,-2.0,2.0,0.42534858,-2.0,2.0,-0.2731842,-1.930204
2025-06-05 16:47:26.111,-0.010197743,0.03828879,0.073990226,-0.008413989,0.0012757491,-0.042894464,0.0,0.0,0.0,-0.06817674,-0.16188432,0.104011595,0.13022174,0.22665717,0.14598605,-0.0928939,-0.23023407,0.23202817,-0.1069202,0.18642044,-0.21588793,-0.5281234,-0.042809453,-0.030917907,0.23032092,-0.058377057,0.015070537,0.02665226,0.05152153,0.02366921,-0.084323406,-0.025267381,0.08154047,-0.020338794,-2.0,0.42296582,2.0,-2.0,-0.23934643,-2.0,2.0,0.42534858,-2.0,2.0,-0.2731842,-1.930204,-2.0,0.76254046,0.7588618,-2.0,0.97518855,-2.0,2.0,0.28761294,-2.0,2.0,-0.39403054,-2.0
2025-06-05 16:47:26.130,-0.04015999,0.0512998,0.0021860804,0.014159445,0.009790055,-0.003604046,0.0,0.0,0.0,-0.06947295,-0.17010154,0.15532206,0.16297881,0.22148943,0.15231541,-0.09358048,-0.22779888,0.22515258,-0.10331918,0.17889649,-0.2199507,-0.53158724,-0.024507074,0.15398978,0.044823095,0.00417118,0.018911282,-0.011533941,-0.025291627,-0.05651002,-0.054097,-0.035355825,0.08687164,-0.041015048,-2.0,0.76254046,0.7588618,-2.0,0.97518855,-2.0,2.0,0.28761294,-2.0,2.0,-0.39403054,-2.0,-2.0,-0.12781866,0.44501668,-2.0,0.0017852299,-2.0,2.0,0.7060854,-2.0,2.0,-0.5573365,-2.0
2025-06-05 16:47:26.150,-0.022213576,-0.022421075,0.009886934,-0.052048672,0.052590434,0.02300886,0.0,0.0,0.0,-0.070242986,-0.17323111,0.16099797,0.17516792,0.2191548,0.15500544,-0.09664463,-0.23697695,0.23291653,-0.11147527,0.16757214,-0.20525582,-0.52838826,0.06278898,0.010311147,0.027834618,-0.014002641,-0.078977205,-0.07546148,-0.07128888,-0.0003582415,0.006494785,0.061068483,0.029967092,0.026956383,-2.0,-0.12781866,0.44501668,-2.0,0.0017852299,-2.0,2.0,0.7060854,-2.0,2.0,-0.5573365,-2.0,-2.0,0.14752151,1.5442207,-2.0,0.09572317,-2.0,2.0,0.56580764,-2.0,2.0,-0.32427695,-2.0
2025-06-05 16:47:26.171,0.019091863,0.024580646,0.07391842,-0.051604748,0.06756632,0.04638949,0.0,0.0,0.0,-0.07089681,-0.15671748,0.13358589,0.20617117,0.2171697,0.14522867,-0.095215,-0.23241971,0.23469974,-0.1148206,0.17822054,-0.20986514,-0.5226551,-0.049286608,0.014424327,0.11309123,0.033137433,-0.0058908244,-0.020702515,0.01991199,-0.009343046,-0.061986364,-0.013166098,0.08728187,0.00090031046,-2.0,0.14752151,1.5442207,-2.0,0.09572317,-2.0,2.0,0.56580764,-2.0,2.0,-0.32427695,-2.0,-2.0,0.24824105,-0.6291498,-2.0,0.6957019,-2.0,2.0,0.39112863,-2.0,2.0,-0.3823943,-2.0
2025-06-05 16:47:26.191,-0.050857686,0.008239776,-0.018750552,-0.038866732,0.03808007,-0.039111976,0.0,0.0,0.0,-0.07199626,-0.15453301,0.13322566,0.16559786,0.22148623,0.13976237,-0.10943425,-0.23894896,0.23525293,-0.11294639,0.17658587,-0.19324157,-0.5390052,-0.06840508,-0.043789983,-0.17708859,-0.06930497,0.05959952,0.018479137,0.07003142,0.01380572,0.041244656,0.047163337,-0.04879242,0.03220345,-2.0,0.24824105,-0.6291498,-2.0,0.6957019,-2.0,2.0,0.39112863,-2.0,2.0,-0.3823943,-2.0,-2.0,0.029323071,1.247739,-2.0,-0.58720726,-2.0,2.0,0.4700422,-2.0,2.0,-0.8223141,-2.0
2025-06-05 16:47:26.211,0.01631736,-0.079143375,0.054000188,-0.071658924,0.025802024,0.026562603,0.0,0.0,0.0,-0.07266942,-0.15164517,0.10164263,0.1521488,0.2298943,0.12816735,-0.11040057,-0.24726216,0.22413278,-0.10744031,0.17124222,-0.20503953,-0.5277201,0.039104756,-0.0076080463,0.10184101,-0.003095767,-0.0032645029,-0.05828423,-0.030027792,0.041618846,-0.040818322,-0.000109022556,-0.115089595,-0.03329163,-2.0,0.029323071,1.247739,-2.0,-0.58720726,-2.0,2.0,0.4700422,-2.0,2.0,-0.8223141,-2.0,-2.0,0.74090046,2.0,-2.0,0.48937553,-2.0,2.0,0.33316213,-2.0,2.0,0.066770196,-2.0
2025-06-05 16:47:26.231,-0.018477568,-0.0011460963,0.07713507,-0.00090835086,0.025150724,-0.04051967,0.0,0.0,0.0,-0.07389106,-0.16168784,0.13540922,0.23289217,0.22537494,0.13501136,-0.122509636,-0.23638773,0.22884497,-0.11296492,0.17484902,-0.1947047,-0.52982306,-0.06285367,0.1411298,0.23118918,0.019850623,0.008272982,0.0572114,-0.02947771,-0.06481059,0.042111024,-0.062654875,0.1247106,0.041326556,-2.0,0.74090046,2.0,-2.0,0.48937553,-2.0,2.0,0.33316213,-2.0,2.0,0.066770196,-2.0,-2.0,0.07752217,-1.8558599,-2.0,0.9507759,-2.0,2.0,0.42858195,-2.0,2.0,-0.7683581,-2.0
2025-06-05 16:47:26.251,0.018922385,-0.007767549,0.031809524,-0.03053815,0.008414649,-0.020003494,0.0,0.0,0.0,-0.075187765,-0.17693536,0.15505369,0.13576303,0.23786946,0.12038673,-0.122380614,-0.23403855,0.21996778,-0.117748395,0.18087965,-0.20937023,-0.5284596,-0.035214428,0.020013351,-0.38702518,0.020375932,0.059959434,-0.112273,-0.027253691,-0.060926057,0.05652011,-9.760828e-05,-0.058654573,-0.030068994,-2.0,0.07752217,-1.8558599,-2.0,0.9507759,-2.0,2.0,0.42858195,-2.0,2.0,-0.7683581,-2.0,-2.0,0.004007116,-1.4811064,-2.0,-0.44419783,-2.0,2.0,0.3944571,-2.0,2.0,-0.6041248,-2.0
2025-06-05 16:47:26.271,0.062396113,-0.12508692,0.045624297,-0.054665443,-0.0023698804,0.010620415,0.0,0.0,0.0,-0.075432464,-0.16770895,0.15127943,-0.0059471726,0.2363253,0.11476294,-0.13540143,-0.23066725,0.20157397,-0.11624322,0.17730646,-0.22811526,-0.52046496,0.032981113,-0.067073934,-0.277068,-0.043988474,-0.100803986,-0.00905073,0.054063533,-0.032522988,-0.015880415,0.06844636,-0.052425798,-0.0025708398,-2.0,0.004007116,-1.4811064,-2.0,-0.44419783,-2.0,2.0,0.3944571,-2.0,2.0,-0.6041248,-2.0,-2.0,0.55907285,2.0,-2.0,0.21961464,-2.0,2.0,0.23146504,-2.0,2.0,-0.35537082,-2.0
2025-06-05 16:47:26.291,-0.04560807,-0.09209806,0.058408815,0.003941225,0.07276862,-0.009931834,0.0,0.0,0.0,-0.07563153,-0.1660079,0.1427153,0.042410698,0.23212767,0.12038932,-0.15207352,-0.24441423,0.2095272,-0.11089614,0.1796466,-0.23310316,-0.52180403,-0.0044989674,0.060661267,0.27048904,0.033639416,0.047579348,-0.017127324,0.001271634,-0.0056158043,-0.009376391,-0.0029774706,0.0030751247,0.031922963,-2.0,0.55907285,2.0,-2.0,0.21961464,-2.0,2.0,0.23146504,-2.0,2.0,-0.35537082,-2.0,-2.0,0.48650008,1.846823,-2.0,0.7526519,-2.0,2.0,0.34059122,-2.0,2.0,-0.42819571,-2.0
2025-06-05 16:47:26.311,-0.020624055,-0.038547616,0.00055066077,-0.05484082,-0.020283902,-0.023696713,0.0,0.0,0.0,-0.075959444,-0.17226501,0.1580029,0.15055141,0.22284384,0.1303052,-0.1441006,-0.2424137,0.20099242,-0.09388131,0.17474207,-0.2355735,-0.54263073,0.0472921,0.004935357,0.28551674,-0.08311537,0.03545453,-0.02892464,0.030289669,0.04757981,-0.070266195,0.012097628,-0.0011272146,0.059074383,-2.0,0.48650008,1.846823,-2.0,0.7526519,-2.0,2.0,0.34059122,-2.0,2.0,-0.42819571,-2.0,-2.0,0.41378218,1.4951569,-2.0,-0.12101935,-2.0,2.0,0.38568515,-2.0,2.0,-0.61485755,-2.0
2025-06-05 16:47:26.331,-0.0103344675,0.019603422,0.0030665228,-0.022193478,0.022380196,-0.033715438,0.0,0.0,0.0,-0.07587759,-0.15496434,0.18899693,0.25210446,0.23203519,0.112885706,-0.16175693,-0.23508894,0.1946672,-0.10502724,0.17602916,-0.24180047,-0.52676535,-0.07107554,0.04812559,0.21171008,0.0029476553,-0.020529198,0.03956793,0.07217145,0.0001328517,-0.06635208,0.054594405,-0.058588423,-0.06765831,-2.0,0.41378218,1.4951569,-2.0,-0.12101935,-2.0,2.0,0.38568515,-2.0,2.0,-0.61485755,-2.0,-2.0,0.19070344,0.23261844,-2.0,0.1867419,-2.0,2.0,0.7619352,-2.0,2.0,-0.3241358,-2.0
2025-06-05 16:47:26.351,0.064587645,0.09535524,0.039964996,-0.06451842,0.0012715819,-0.028560523,0.0,0.0,0.0,-0.07580427,-0.16543561,0.18870397,0.24908598,0.23804013,0.11665731,-0.15021245,-0.22509335,0.19699161,-0.10949499,0.1886738,-0.22572824,-0.5388694,0.0025824718,-0.05052239,-0.07469625,-0.02456259,0.058471177,0.07013171,-0.05362954,0.008291917,-0.07786367,-0.009590194,0.03861563,0.016770761,-2.0,0.19070344,0.23261844,-2.0,0.1867419,-2.0,2.0,0.7619352,-2.0,2.0,-0.3241358,-2.0,-2.0,0.13021165,-2.0,-2.0,-0.10608439,-2.0,2.0,0.5105545,-2.0,2.0,-0.47289175,-2.0
2025-06-05 16:47:26.372,0.032781012,0.053266324,0.06612212,0.011639402,0.020796398,-0.038538296,0.0,0.0,0.0,-0.07610706,-0.1789144,0.18645212,0.10473399,0.2353506,0.11285215,-0.16093722,-0.21719539,0.20029569,-0.11234485,0.18405493,-0.22127242,-0.54807645,0.023227762,-0.067406,-0.41320887,0.046212155,0.0068213106,-0.06712054,0.07484958,-0.037328817,0.010653511,-0.067858756,0.031381156,-0.07003902,-2.0,0.13021165,-2.0,-2.0,-0.10608439,-2.0,2.0,0.5105545,-2.0,2.0,-0.47289175,-2.0,-2.0,0.33503157,-2.0,-2.0,-0.09706192,-2.0,2.0,0.26077548,-2.0,2.0,-0.34704423,-2.0
2025-06-05 16:47:26.391,0.094470225,0.001915664,0.005139559,-0.035718396,0.028603941,-0.016619757,0.0,0.0,0.0,-0.07655598,-0.18376495,0.18766922,-0.08324612,0.25142893,0.10755345,-0.15257087,-0.22011505,0.21007968,-0.10912245,0.18668705,-0.23352009,-0.5420252,0.005078397,0.008000396,-0.25389385,-0.027492806,-0.04786897,-0.048588615,-0.004674974,0.049401525,-0.022945125,0.021089273,-0.08415966,0.046322457,-2.0,0.33503157,-2.0,-2.0,-0.09706192,-2.0,2.0,0.26077548,-2.0,2.0,-0.34704423,-2.0,-2.0,0.24137594,2.0,-2.0,-0.33040553,-2.0,2.0,0.35334736,-2.0,2.0,-0.7597598,-2.0
2025-06-05 16:47:26.411,0.06257992,-0.07002081,0.095519185,-0.047893472,0.04164819,0.014797724,0.0,0.0,0.0,-0.07673647,-0.16851526,0.1506395,-0.015693683,0.24056378,0.108516365,-0.14302883,-0.23355548,0.20747007,-0.115786925,0.1894641,-0.24175254,-0.52898854,0.006056415,-0.017285123,0.28490314,0.07142649,-0.045124914,-0.014805164,-0.018224351,0.004622828,0.011573927,-0.038961124,-0.019931763,-0.010385226,-2.0,0.24137594,2.0,-2.0,-0.33040553,-2.0,2.0,0.35334736,-2.0,2.0,-0.7597598,-2.0,-2.0,0.7581854,2.0,-2.0,1.1381035,-2.0,2.0,0.14513879,-2.0,2.0,-0.09952405,-2.0
2025-06-05 16:47:26.431,-0.086404085,0.009255769,-0.07379454,-0.054740794,0.028036611,0.044636518,0.0,0.0,0.0,-0.07735717,-0.1631583,0.1708195,0.11009485,0.24782138,0.10905514,-0.16195296,-0.23111062,0.18960235,-0.10018741,0.17333382,-0.24044171,-0.5360865,-0.012833642,0.1284695,0.32884076,-0.03401355,0.088685304,-0.0022600275,0.036444463,0.06715522,-0.029935533,-0.039439294,0.0493908,-0.03715001,-2.0,0.7581854,2.0,-2.0,1.1381035,-2.0,2.0,0.14513879,-2.0,2.0,-0.09952405,-2.0,-2.0,0.14303376,2.0,-2.0,-0.57844406,-2.0,2.0,0.5826804,-2.0,2.0,-1.0449922,-2.0
2025-06-05 16:47:26.451,-0.004156728,0.024017077,0.060352128,-0.027226334,-0.009502776,0.007781844,0.0,0.0,0.0,-0.07738769,-0.17087296,0.17051513,0.2390281,0.23454085,0.09904813,-0.15673506,-0.22515911,0.20539849,-0.1021069,0.17991179,-0.2629927,-0.5320567,0.006729331,0.035546742,0.23659341,0.008290978,0.03543535,-0.019993875,0.044280328,0.06769727,-0.0075650397,-0.011099951,-0.10112444,-0.053233966,-2.0,0.14303376,2.0,-2.0,-0.57844406,-2.0,2.0,0.5826804,-2.0,2.0,-1.0449922,-2.0,-2.0,0.28864443,0.3097111,-2.0,0.4230122,-2.0,2.0,0.50222504,-2.0,2.0,0.071929574,-2.0
2025-06-05 16:47:26.472,-0.012863694,0.006650165,0.005541329,-0.0140606165,-0.008139161,0.030138697,0.0,0.0,0.0,-0.077665046,-0.16379699,0.17970085,0.2688976,0.23227863,0.09009881,-0.14681694,-0.22257951,0.19493926,-0.11271415,0.17369285,-0.23545553,-0.5435749,-0.07590945,-0.009588393,-0.01054889,0.01626114,-0.04764064,-0.058408987,-0.0020916127,0.020026118,-0.04561528,-0.04868494,0.18096592,-0.082348816,-2.0,0.28864443,0.3097111,-2.0,0.4230122,-2.0,2.0,0.50222504,-2.0,2.0,0.071929574,-2.0,-2.0,-0.19914877,-2.0,-2.0,-0.18130438,-2.0,2.0,0.65740806,-2.0,2.0,-0.7520434,-1.487652
2025-06-05 16:47:26.494,0.100456744,0.04004596,0.06576029,-0.048341937,0.000119985845,-0.033234227,0.0,0.0,0.0,-0.07790314,-0.16535123,0.157018,0.1320267,0.24776018,0.0859604,-0.13537377,-0.22475645,0.20523465,-0.12308175,0.17590274,-0.23316862,-0.5162753,0.029737981,-0.106273405,-0.44987085,-0.054353934,-0.05591379,0.05776693,0.042860344,-0.046536237,0.05545228,0.027637739,-0.10591399,0.12459814,-2.0,-0.19914877,-2.0,-2.0,-0.18130438,-2.0,2.0,0.65740806,-2.0,2.0,-0.7520434,-1.487652,-2.0,0.84830374,-2.0,-2.0,0.052176844,-2.0,2.0,0.09113651,-2.0,2.0,-0.30776045,-1.4291672
2025-06-05 16:47:26.512,0.04984134,-0.04453952,0.019447677,-0.0035237723,0.05894769,-0.008229158,0.0,0.0,0.0,-0.07830392,-0.18635218,0.16140164,-0.0730166,0.25065905,0.08345264,-0.13967735,-0.23180039,0.20027043,-0.11683654,0.17642848,-0.2558656,-0.4931445,0.017473474,0.085068025,-0.28317112,0.02344501,-0.050443977,0.042389728,-0.04465847,0.0049501504,0.0064011486,0.0920711,0.020730602,0.09872042,-2.0,0.84830374,-2.0,-2.0,0.052176844,-2.0,2.0,0.09113651,-2.0,2.0,-0.30776045,-1.4291672,-2.0,0.166766,2.0,-2.0,0.00029499456,-2.0,2.0,0.4389167,-2.0,2.0,-0.6411327,-2.0
2025-06-05 16:47:26.532,-0.058971893,-0.010859376,0.08797051,-0.017775623,0.029082723,-0.039514445,0.0,0.0,0.0,-0.078633904,-0.16593987,0.15691388,-0.0159885,0.24493092,0.085496224,-0.13639784,-0.2363212,0.18831435,-0.11592742,0.19116525,-0.24526589,-0.49117476,-0.020481912,-0.055949155,0.29808944,-0.015561942,-0.026260143,-0.02626895,-0.027375927,-0.042585395,0.048668534,0.007828253,0.04102705,-0.024133276,-2.0,0.166766,2.0,-2.0,0.00029499456,-2.0,2.0,0.4389167,-2.0,2.0,-0.6411327,-2.0,-2.0,0.61564434,1.4654976,-2.0,1.2739391,-2.0,2.0,0.09610798,-2.0,2.0,-0.30945918,-2.0
2025-06-05 16:47:26.552,-0.10294573,-0.022369623,-0.09535952,0.009599384,-0.02597922,0.0019020272,0.0,0.0,0.0,-0.07914533,-0.17789346,0.16515729,0.10261756,0.23558226,0.097419105,-0.14545879,-0.22886112,0.20605932,-0.109502934,0.18398821,-0.23448068,-0.48877016,0.067018345,0.0035715087,0.28889486,-0.008990148,0.08641259,0.02966325,-0.008478077,0.064002514,-0.06775842,0.047398165,0.011253826,-0.06669981,-2.0,0.61564434,1.4654976,-2.0,1.2739391,-2.0,2.0,0.09610798,-2.0,2.0,-0.30945918,-2.0,-2.0,0.29493123,2.0,-2.0,-0.7396339,-2.0,2.0,0.55760694,-2.0,2.0,-0.96815985,-2.0
2025-06-05 16:47:26.635,0.0473717,0.010276481,0.0132690715,-0.022694677,0.049112618,0.021732673,0.0,0.0,0.0,-0.07884207,-0.16356307,0.17201063,0.22471923,0.23117241,0.08608742,-0.14151996,-0.23770522,0.19927756,-0.10692742,0.177905,-0.26523313,-0.4899973,-0.018741438,-0.032565445,0.33383855,-0.007307499,-0.02705312,0.02797149,-0.022752961,-0.07286256,-0.06288835,-0.034959145,-0.033172254,0.060545906,-2.0,0.29493123,2.0,-2.0,-0.7396339,-2.0,2.0,0.55760694,-2.0,2.0,-0.96815985,-2.0,-2.0,0.5048525,0.5389683,-2.0,0.7510604,-2.0,2.0,0.8103905,-2.0,2.0,-0.13088305,-2.0
2025-06-05 16:47:26.657,0.021218302,0.09718954,0.016863931,-0.019950366,0.021372218,-0.046350423,0.0,0.0,0.0,-0.0789724,-0.1638527,0.19917214,0.25169706,0.227105,0.07114491,-0.15260942,-0.24379213,0.21002811,-0.12867619,0.17902704,-0.2546074,-0.51696455,0.053832274,0.006291408,0.0385339,-0.008512914,0.0025181856,-0.021035498,-0.05867166,0.08494994,-0.0827257,0.016244536,0.05906059,0.0018438116,-2.0,0.5048525,0.5389683,-2.0,0.7510604,-2.0,2.0,0.8103905,-2.0,2.0,-0.13088305,-2.0,-2.0,-0.13018359,-2.0,-2.0,-0.45222467,-2.0,2.0,0.697185,-2.0,2.0,-0.61177456,-0.31697243
2025-06-05 16:47:26.678,0.1254474,-0.02793317,0.08558758,-0.036570173,-0.018099798,-0.028193068,0.0,0.0,0.0,-0.07953118,-0.16905822,0.18107253,0.10933966,0.23440033,0.07813952,-0.1507103,-0.22955182,0.22762187,-0.13831466,0.17637697,-0.23708689,-0.43775454,-0.0009969812,-0.070098214,-0.38128302,-0.049395654,-0.065657236,0.01753156,0.0202066,0.029878814,-0.07023629,0.0279221,0.01990172,0.3162627,-2.0,-0.13018359,-2.0,-2.0,-0.45222467,-2.0,2.0,0.697185,-2.0,2.0,-0.61177456,-0.31697243,-2.0,0.70718634,-2.0,-2.0,0.32347444,-2.0,2.0,0.032478627,-2.0,2.0,-0.14733417,2.0
2025-06-05 16:47:26.698,0.072754815,-0.025011638,0.012311507,-0.045039877,-0.023498856,-0.003738596,0.0,0.0,0.0,-0.08018343,-0.18342642,0.20116268,-0.053991918,0.23621674,0.08401629,-0.1442629,-0.21991563,0.22792618,-0.12331967,0.18339044,-0.24460192,-0.22539185,-0.07920417,0.09090962,-0.33056182,0.0427747,0.031080684,-0.03746987,-0.05311347,-0.06111804,-0.050822627,-0.060760137,-0.015215093,0.5336395,-2.0,0.70718634,-2.0,-2.0,0.32347444,-2.0,2.0,0.032478627,-2.0,2.0,-0.14733417,2.0,-2.0,0.20008089,-2.0,-2.0,1.0303628,-2.0,2.0,0.24591747,-2.0,2.0,-0.46157935,1.8711803
2025-06-05 16:47:26.718,0.14068817,-0.17010467,-0.11213986,0.029903915,7.0410475e-05,0.015230831,0.0,0.0,0.0,-0.08005528,-0.17845471,0.19657637,-0.13253517,0.24042957,0.08563017,-0.16105995,-0.21569529,0.20822924,-0.13320813,0.17820162,-0.21834359,-0.008271397,0.056187756,-0.04201346,-0.069769405,-0.06628255,0.035391573,-0.06377721,0.026141098,-0.09546882,0.055515666,-0.020511,0.06721073,0.5023227,-2.0,0.20008089,-2.0,-2.0,1.0303628,-2.0,2.0,0.24591747,-2.0,2.0,-0.46157935,1.8711803,-2.0,0.31619585,-2.0,-2.0,0.22429945,-2.0,2.0,0.47638595,-2.0,2.0,-0.82956964,-0.91342896
2025-06-05 16:47:26.738,0.20719652,-0.29936475,-0.104196124,-0.011492058,-0.013447112,0.04873376,0.0,0.0,0.0,-0.07815569,-0.16158324,0.19859254,-0.15500295,0.24792777,0.09806482,-0.19178854,-0.20408808,0.18041801,-0.13251054,0.17389801,-0.20927943,0.032020424,-0.04729403,-0.009424468,-0.054196745,-0.012401642,-0.020501902,-0.039163236,0.04685768,-0.0040859203,-0.025672099,0.056409672,-0.074539885,-0.10460475,-2.0,0.31619585,-2.0,-2.0,0.22429945,-2.0,2.0,0.47638595,-2.0,2.0,-0.82956964,-0.91342896,-2.0,0.16332163,2.0,-2.0,-0.118586764,-2.0,2.0,0.5569057,-2.0,2.0,-0.8706504,-2.0
2025-06-05 16:47:26.758,0.12502795,-0.18092424,-0.013643059,-0.039360255,-0.040226437,0.021147223,0.0,0.0,0.0,-0.075900726,-0.15986307,0.17377515,-0.05972165,0.23075509,0.096893415,-0.19567199,-0.19839107,0.15648308,-0.1359431,0.18740486,-0.23617376,-0.061869856,0.00091598585,-0.14731097,0.32792723,-0.026132185,-0.05748436,-0.056051232,0.01030792,0.022651996,-0.05069597,-0.024893222,-0.0049385857,-0.38689047,-2.0,0.16332163,2.0,-2.0,-0.118586764,-2.0,2.0,0.5569057,-2.0,2.0,-0.8706504,-2.0,-2.0,0.384952,1.5454615,-2.0,1.1086379,-2.0,2.0,0.74286854,-2.0,2.0,-0.22355269,-2.0
2025-06-05 16:47:26.778,0.02344617,-0.042162355,-0.10386476,-0.032352783,-0.004489896,-0.03107756,0.0,0.0,0.0,-0.074848995,-0.17523715,0.16145772,0.09724369,0.2343634,0.10895412,-0.21406524,-0.19359231,0.1703937,-0.1595154,0.18065949,-0.21869807,-0.20016879,-0.006175777,-0.039864022,0.31302774,0.0310052,0.035270143,0.003409061,-0.06794422,-0.018761393,-0.032235116,0.0053251097,0.017127642,-0.31562674,-2.0,0.384952,1.5454615,-2.0,1.1086379,-2.0,2.0,0.74286854,-2.0,2.0,-0.22355269,-2.0,-2.0,0.056041256,-0.05357863,-2.0,-0.19702964,-2.0,2.0,1.0519637,-2.0,2.0,-0.8245003,-2.0
2025-06-05 16:47:26.798,0.042277597,0.059969373,-0.02389676,0.0011002013,-0.08070036,-0.019397046,0.0,0.0,0.0,-0.07403368,-0.17793083,0.14641407,0.12191107,0.23046316,0.11233669,-0.21921362,-0.18487445,0.19540899,-0.17914888,0.17461507,-0.2001329,-0.23335704,0.014387365,-0.06353931,0.013359814,-0.009888971,-0.014668002,-0.019085096,0.026566211,0.13586424,-0.07649739,-0.022965087,0.039810244,-0.091090895,-2.0,0.056041256,-0.05357863,-2.0,-0.19702964,-2.0,2.0,1.0519637,-2.0,2.0,-0.8245003,-2.0,-2.0,0.08516595,-1.4310684,-2.0,-0.35066175,-2.0,2.0,0.8882854,-2.0,2.0,-0.57588935,-2.0
2025-06-05 16:47:26.818,0.028074577,0.07631344,0.0029418734,0.0006374379,-0.07858658,-0.03823707,0.0,0.0,0.0,-0.07372519,-0.188622,0.14834656,0.0404645,0.21370833,0.10692319,-0.21193947,-0.19145907,0.22454335,-0.21297438,0.16774687,-0.1942754,-0.24778667,-0.008151935,0.0118770655,-0.25574222,-0.09120414,0.005383028,0.014768183,0.016508041,0.018840406,-0.079160884,-0.04424166,0.03816865,-0.06447336,-2.0,0.08516595,-1.4310684,-2.0,-0.35066175,-2.0,2.0,0.8882854,-2.0,2.0,-0.57588935,-2.0,-2.0,0.35071445,-2.0,-2.0,-0.15283285,-2.0,2.0,0.9647153,-2.0,2.0,-0.33146018,-2.0
2025-06-05 16:47:26.838,0.037095543,0.15757804,0.02250081,0.047886077,-0.01719291,-0.023797251,0.0,0.0,0.0,-0.074120626,-0.18018787,0.13693087,-0.111560896,0.21181187,0.12249705,-0.20591122,-0.20047358,0.25424653,-0.25077823,0.16536741,-0.18643017,-0.25121439,-0.055650197,0.056681346,-0.31889412,0.0510517,0.069348596,0.08803348,0.026576765,0.13242199,-0.047277987,0.043894354,0.102374345,-0.10426016,-2.0,0.35071445,-2.0,-2.0,-0.15283285,-2.0,2.0,0.9647153,-2.0,2.0,-0.33146018,-2.0,-2.0,0.21098305,-1.1138457,-2.0,-0.24043094,-2.0,2.0,0.56534076,-2.0,2.0,-0.6180037,-2.0
2025-06-05 16:47:26.858,-0.0116131855,0.027410995,-0.019819297,0.050429787,-0.024018792,-0.04524499,0.0,0.0,0.0,-0.07466962,-0.18178119,0.13042209,-0.21608777,0.20793259,0.11736404,-0.2071959,-0.19798785,0.2680339,-0.27915034,0.17714058,-0.17838202,-0.26458156,0.04409395,-0.00223487,-0.23887919,-0.085397005,-0.017160714,-0.04768,-0.07990216,0.042788677,-0.045261547,0.00782734,0.045461588,-0.08013349,-2.0,0.21098305,-1.1138457,-2.0,-0.24043094,-2.0,2.0,0.56534076,-2.0,2.0,-0.6180037,-2.0,-2.0,0.3303874,1.7192847,-2.0,0.30489683,-2.0,2.0,1.0044194,-2.0,2.0,-0.022135537,-2.0
2025-06-05 16:47:26.878,-0.17069915,0.21430498,0.012471125,-0.0147340195,-0.04097715,-0.04898889,0.0,0.0,0.0,-0.07518939,-0.18764623,0.12149609,-0.13237853,0.19767745,0.12828882,-0.19483931,-0.20853631,0.3077496,-0.2898751,0.15529472,-0.14051247,-0.29603156,-0.0460418,-0.06978049,0.42025638,-0.0065882327,-0.01289615,0.023388501,0.01711329,0.075607225,-0.057072334,0.043371443,0.15059294,-0.05877502,-2.0,0.3303874,1.7192847,-2.0,0.30489683,-2.0,2.0,1.0044194,-2.0,2.0,-0.022135537,-2.0,-2.0,0.33057874,0.7997743,-2.0,0.8848907,-2.0,2.0,0.6241659,-2.0,2.0,-0.9264941,-2.0
2025-06-05 16:47:26.898,-0.12624815,0.027005026,-0.02609383,0.036600552,0.008520755,-0.022020184,0.0,0.0,0.0,-0.07570365,-0.1815094,0.12724534,-0.0026955302,0.17949022,0.12657669,-0.2032651,-0.2167978,0.30744702,-0.30099905,0.16146061,-0.15814508,-0.33351436,-0.038037002,-0.052185483,0.2904804,-0.047026396,-0.051973738,-0.07000859,-0.0017408289,-0.048771415,-0.023699895,-0.029451888,-0.12664549,-0.099598184,-2.0,0.33057874,0.7997743,-2.0,0.8848907,-2.0,2.0,0.6241659,-2.0,2.0,-0.9264941,-2.0,-2.0,0.048222587,0.97252285,-2.0,0.21190639,-2.0,2.0,1.1819519,-2.0,2.0,-0.2368965,-2.0
2025-06-05 16:47:26.918,-0.060704134,0.16851383,0.03690355,-0.009982828,0.04694683,-0.010377081,0.0,0.0,0.0,-0.0758844,-0.17225933,0.12030319,0.06899693,0.192374,0.13413294,-0.2016353,-0.23150398,0.32594442,-0.3136847,0.17335175,-0.16175817,-0.40386733,-0.0133438455,-0.09241599,0.2506489,0.022171017,0.06922073,0.08980638,-0.027855938,0.0045385268,-0.09198022,-0.057557754,-0.019517047,-0.21413681,-2.0,0.048222587,0.97252285,-2.0,0.21190639,-2.0,2.0,1.1819519,-2.0,2.0,-0.2368965,-2.0,-2.0,0.31909752,-0.8271594,-2.0,0.39582294,-2.0,2.0,0.8914501,-2.0,2.0,-0.15774192,-2.0
2025-06-05 16:47:26.939,-0.025384907,0.071255274,0.025971701,0.0053741746,-0.0006259617,0.018087668,0.0,0.0,0.0,-0.07608508,-0.16215067,0.13374065,0.052146673,0.18322384,0.13821618,-0.17535888,-0.2330473,0.334107,-0.33051667,0.17745374,-0.14296931,-0.44202134,0.014721373,0.032664355,-0.17872854,-0.0038341798,0.045484494,0.07775031,-0.02786175,0.014462445,-0.033203065,0.03952402,-0.027695505,-0.069269,-2.0,0.31909752,-0.8271594,-2.0,0.39582294,-2.0,2.0,0.8914501,-2.0,2.0,-0.15774192,-2.0,-2.0,0.15318978,-1.3832666,-2.0,-0.11929165,-2.0,2.0,1.103808,-2.0,2.0,-0.13470902,-2.0
2025-06-05 16:47:26.961,-0.054141153,0.059766043,-0.014624828,0.0037154646,0.060136005,-0.008655309,0.0,0.0,0.0,-0.0761547,-0.180973,0.13380809,-0.045197207,0.19090505,0.13928144,-0.1652808,-0.23100947,0.34900478,-0.3123185,0.16942975,-0.13636948,-0.4797184,-0.0331878,0.060859997,-0.24652466,0.034952044,0.028428478,0.115295365,-0.034157813,0.04026261,-0.009193631,0.05419371,0.10850717,-0.038839314,-2.0,0.15318978,-1.3832666,-2.0,-0.11929165,-2.0,2.0,1.103808,-2.0,2.0,-0.13470902,-2.0,-2.0,0.21263506,-0.17233153,-2.0,-0.2554292,-2.0,2.0,1.0602087,-2.0,2.0,-0.30834898,-2.0
2025-06-05 16:47:26.979,0.0047528725,0.06438495,0.12897046,0.0003106746,0.08058298,-0.0025968435,0.0,0.0,0.0,-0.07652848,-0.16943587,0.1269236,-0.08675342,0.19075835,0.12756333,-0.14157674,-0.22718823,0.36271638,-0.31497762,0.18916367,-0.11405854,-0.50681186,0.037554707,-0.068261236,-0.08392094,-0.011455687,-0.0005752694,0.11904108,-0.0010006195,0.057454422,0.044140268,-0.018593267,0.053955715,-0.08223306,-2.0,0.21263506,-0.17233153,-2.0,-0.2554292,-2.0,2.0,1.0602087,-2.0,2.0,-0.30834898,-2.0,-2.0,0.49496436,-0.90728676,-2.0,0.9613796,-2.0,2.0,0.26489082,-2.0,2.0,-0.06852834,-2.0
2025-06-05 16:47:26.999,-0.071673274,-0.043372523,-0.035547704,0.0040884437,-0.0040695835,0.000603747,0.0,0.0,0.0,-0.07803304,-0.16820733,0.1312102,-0.12560649,0.19490546,0.1313094,-0.14108029,-0.2468954,0.34926102,-0.2937012,0.17233768,-0.10687997,-0.5141185,0.041215014,-0.07278974,-0.09858827,-0.0101676155,0.062386036,-0.016325623,-0.07589142,-0.08056839,0.010874701,0.0014426713,-0.003882397,-0.066930525,-2.0,0.49496436,-0.90728676,-2.0,0.9613796,-2.0,2.0,0.26489082,-2.0,2.0,-0.06852834,-2.0,-2.0,0.19697337,2.0,-2.0,0.07453127,-2.0,2.0,0.938955,-2.0,2.0,-0.5148808,-2.0
2025-06-05 16:47:27.018,-0.06924903,-0.006123445,0.07155831,0.043819208,0.07595295,-0.026442053,0.0,0.0,0.0,-0.078816436,-0.16596676,0.11870751,-0.01706906,0.20208414,0.127811,-0.13383383,-0.24250624,0.34078676,-0.27915287,0.18304782,-0.12529667,-0.51369524,-0.05556096,-0.028893346,0.40143847,-2.798415e-05,0.055850446,0.06392721,-0.0134691335,0.010724732,0.052975584,-0.07134666,-0.007675681,0.05156248,-2.0,0.19697337,2.0,-2.0,0.07453127,-2.0,2.0,0.938955,-2.0,2.0,-0.5148808,-2.0,-2.0,0.5632116,1.1783428,-2.0,0.91602105,-2.0,2.0,0.4096746,-2.0,2.0,-0.328643,-2.0
2025-06-05 16:47:27.038,-0.06695843,0.002949733,0.031194242,-0.0006380458,0.08484529,0.005695614,0.0,0.0,0.0,-0.079676665,-0.16408935,0.13605987,0.10665203,0.19989756,0.12544167,-0.14333951,-0.2538916,0.34594873,-0.25018847,0.18784948,-0.13292268,-0.4864476,-0.012150683,0.070864774,0.17945741,0.06630075,0.08865942,0.02347386,-0.039163705,-0.091865614,-0.013231175,-0.006418323,-0.030451082,0.10285319,-2.0,0.5632116,1.1783428,-2.0,0.91602105,-2.0,2.0,0.4096746,-2.0,2.0,-0.328643,-2.0,-2.0,-0.040007442,-0.42278945,-2.0,0.390921,-2.0,2.0,0.80834,-2.0,2.0,-0.47685355,-2.0
2025-06-05 16:47:27.061,-0.10735346,-0.0744194,0.025838567,0.033187903,0.02615942,-0.038158167,0.0,0.0,0.0,-0.08017242,-0.17231612,0.146462,0.09966722,0.19582449,0.13390748,-0.13832602,-0.25163382,0.33062348,-0.2247701,0.17351893,-0.14358921,-0.47965425,-0.058232043,-0.033927944,-0.040635854,0.011374043,-0.0029110988,0.01221098,-0.063476115,-0.047010675,-0.020486962,-0.042556573,-0.09438512,0.077453196,-2.0,-0.040007442,-0.42278945,-2.0,0.390921,-2.0,2.0,0.80834,-2.0,2.0,-0.47685355,-2.0,-2.0,0.13598734,0.60997534,-2.0,0.11443342,-2.0,2.0,0.74001056,-2.0,2.0,-0.49406353,-2.0
2025-06-05 16:47:27.079,-0.019076008,-0.06661224,-0.0064488132,0.015966807,0.078864954,-0.011254741,0.0,0.0,0.0,-0.08020276,-0.16920753,0.13333696,0.09974939,0.18671508,0.13320786,-0.14073792,-0.24190544,0.31560567,-0.20139624,0.17705113,-0.14986613,-0.4644606,0.044275757,-0.079067715,0.06192255,0.0694083,-0.0676503,-0.04517432,-0.03317312,-0.06685281,0.0948521,0.0075997757,0.04346209,-0.054161917,-2.0,0.13598734,0.60997534,-2.0,0.11443342,-2.0,2.0,0.74001056,-2.0,2.0,-0.49406353,-2.0,-2.0,-0.030029163,-0.44705397,-2.0,0.48064923,-2.0,2.0,0.86503965,-2.0,2.0,-0.2753938,-2.0
2025-06-05 16:47:27.099,-0.09250363,0.015552753,0.024312938,-0.039182667,0.059277967,-0.013633586,0.0,0.0,0.0,-0.08081191,-0.16642696,0.111618534,0.057850737,0.19799331,0.12936662,-0.1540164,-0.24754076,0.31637192,-0.18827067,0.19561522,-0.15595731,-0.48918855,-0.051292997,-0.12672599,-0.1025667,0.04008363,-0.057837635,0.035431515,-0.029845832,0.017676864,0.007830503,0.045591556,0.06763514,0.012448232,-2.0,-0.030029163,-0.44705397,-2.0,0.48064923,-2.0,2.0,0.86503965,-2.0,2.0,-0.2753938,-2.0,-2.0,0.13100654,-0.5827314,-2.0,0.16936828,-2.0,2.0,0.41435745,-2.0,2.0,-0.7619148,-2.0
2025-06-05 16:47:27.122,-0.053986616,-0.09641245,0.0055492464,-0.07547091,0.029429052,0.025006244,0.0,0.0,0.0,-0.08178836,-0.1657302,0.095432796,-0.008040595,0.21579689,0.13539533,-0.14652078,-0.26064032,0.32944143,-0.1855089,0.19105807,-0.16151671,-0.4790621,0.02842805,-0.068919115,-0.20623542,0.01627284,0.056148887,0.056720037,0.008871336,-0.07863616,0.037012704,0.07808899,-0.05030569,0.058255848,-2.0,0.13100654,-0.5827314,-2.0,0.16936828,-2.0,2.0,0.41435745,-2.0,2.0,-0.7619148,-2.0,-2.0,0.21874027,2.0,-2.0,0.16538055,-2.0,2.0,0.5028747,-2.0,2.0,-0.31417406,-2.0
2025-06-05 16:47:27.141,-0.069440566,-0.035971303,0.07581812,-0.08423405,0.007536893,-0.002103502,0.0,0.0,0.0,-0.08293378,-0.1647462,0.08926895,0.07344678,0.21390861,0.13017303,-0.15281224,-0.26291686,0.31704128,-0.15159175,0.18388404,-0.17897695,-0.48962697,-0.021941295,-0.020229246,0.2578443,-0.04028499,-0.05591422,0.037549816,-0.05536992,-0.053346578,0.10126601,0.05946637,0.051495716,-0.0481494,-2.0,0.21874027,2.0,-2.0,0.16538055,-2.0,2.0,0.5028747,-2.0,2.0,-0.31417406,-2.0,-2.0,0.48308235,0.5042067,-2.0,1.3087217,-2.0,2.0,0.23286806,-2.0,2.0,-0.35803375,-2.0
2025-06-05 16:47:27.162,-0.0835254,-0.059922658,-0.021152984,0.0027196084,0.06955682,-0.042764097,0.0,0.0,0.0,-0.08442249,-0.16142039,0.09350112,0.10689611,0.2064355,0.14834675,-0.16360073,-0.2505323,0.31023297,-0.138904,0.18011837,-0.17180242,-0.48108202,0.037437897,0.14989427,0.024038082,-0.024153387,0.091649495,-0.0033250214,-0.023453705,-0.084215984,0.052623298,0.03329386,0.06562826,0.022873964,-2.0,0.48308235,0.5042067,-2.0,1.3087217,-2.0,2.0,0.23286806,-2.0,2.0,-0.35803375,-2.0,-2.0,-0.4034316,0.24923946,-2.0,0.0009331815,-2.0,2.0,0.7907358,-2.0,2.0,-0.6361764,-2.0
2025-06-05 16:47:27.179,-0.03133649,-0.035018407,0.048001792,-0.0791449,-0.0076760254,0.006440573,0.0,0.0,0.0,-0.08490691,-0.16187046,0.090821125,0.121506065,0.2147506,0.16491036,-0.1787571,-0.26116318,0.31742722,-0.103272,0.19741529,-0.17702407,-0.49000612,-0.055659696,-0.12401103,-0.041221466,-0.031418316,-0.019483406,0.043919805,0.02213297,0.0049015908,0.030148204,-0.032425772,0.033933096,-0.024443809,-2.0,-0.4034316,0.24923946,-2.0,0.0009331815,-2.0,2.0,0.7907358,-2.0,2.0,-0.6361764,-2.0,-2.0,0.27958578,-0.12217219,-2.0,0.408778,-2.0,2.0,0.111517064,-2.0,2.0,-0.5030086,-2.0
2025-06-05 16:47:27.199,-0.059588015,-0.05835958,0.0050792736,-0.03585931,0.0027696001,0.038976118,0.0,0.0,0.0,-0.08533674,-0.17294064,0.070783325,0.09641449,0.23204887,0.152496,-0.18865752,-0.25069836,0.29781163,-0.08341166,0.18440694,-0.19519773,-0.4940561,-0.027305277,0.07430082,-0.08266208,0.0711171,-0.03139945,0.043665674,0.060911644,-0.067077905,0.05910843,-0.015269521,-0.10158794,0.043486044,-2.0,0.27958578,-0.12217219,-2.0,0.408778,-2.0,2.0,0.111517064,-2.0,2.0,-0.5030086,-2.0,-2.0,0.04495974,2.0,-2.0,0.08556898,-2.0,2.0,0.403757,-2.0,2.0,-0.73250186,-2.0
2025-06-05 16:47:27.220,-0.03970799,-0.056808334,0.014841718,-0.05787467,0.013505975,0.005921985,0.0,0.0,0.0,-0.08571156,-0.16236871,0.06816482,0.13812418,0.22834128,0.15977009,-0.18000484,-0.2457885,0.30294475,-0.07383628,0.20306341,-0.21496281,-0.48650402,-0.06038041,-0.03353397,0.15900189,-0.03856538,0.076697715,0.05554844,0.07449757,-0.08866535,0.039615646,0.048483938,-0.10919823,-0.0036937762,-2.0,0.04495974,2.0,-2.0,0.08556898,-2.0,2.0,0.403757,-2.0,2.0,-0.73250186,-2.0,-2.0,0.5352582,1.4125723,-2.0,0.5955606,-2.0,2.0,0.31483677,-2.0,2.0,-0.3095886,-2.0
2025-06-05 16:47:27.240,-0.08336682,-0.027610712,-0.00033946784,-0.10173889,0.013083361,0.007843507,0.0,0.0,0.0,-0.08640804,-0.15446447,0.094343394,0.22552958,0.2413747,0.17581809,-0.20258273,-0.2527786,0.29343113,-0.05355372,0.20343456,-0.21481027,-0.48720852,0.044844616,0.085064,0.103996724,-0.00048566886,0.030069875,-0.050072294,0.033742506,0.019846953,0.06809582,0.06979228,-0.059229642,-0.02219151,-2.0,0.5352582,1.4125723,-2.0,0.5955606,-2.0,2.0,0.31483677,-2.0,2.0,-0.3095886,-2.0,-2.0,-0.05981706,0.62247,-2.0,-0.06724016,-2.0,2.0,0.40733632,-2.0,2.0,-0.64289665,-2.0
2025-06-05 16:47:27.262,-0.07625803,-0.05350558,0.029497353,-0.11794623,-0.014004725,0.027137663,0.0,0.0,0.0,-0.08709248,-0.16533387,0.10604131,0.23555686,0.23548791,0.1807426,-0.19950019,-0.25353417,0.29297197,-0.021759698,0.2052419,-0.23086712,-0.47668725,-0.06926656,0.045304958,0.027055454,0.08732214,0.0751254,-0.0055693346,0.005706003,0.0553914,-0.024477953,-0.032991793,-0.04399189,0.045736905,-2.0,-0.05981706,0.62247,-2.0,-0.06724016,-2.0,2.0,0.40733632,-2.0,2.0,-0.64289665,-2.0,-2.0,0.05981493,0.90933645,-2.0,-0.15663306,-2.0,2.0,0.19745836,-2.0,2.0,-0.6555977,-2.0
2025-06-05 16:47:27.280,-0.0396172,-0.050857507,0.029767778,-0.06718403,-0.033292454,0.00719045,0.0,0.0,0.0,-0.087760076,-0.16702734,0.08146065,0.24426551,0.2516514,0.17262906,-0.20946345,-0.25070843,0.2834958,-0.0039701723,0.21138366,-0.23984885,-0.4691196,-0.038561765,-0.0035832527,-0.035299383,-0.022167504,-0.006193754,0.00836103,-0.04689811,-0.0150078535,0.076993845,-0.05635422,-0.008100469,0.094045796,-2.0,0.05981493,0.90933645,-2.0,-0.15663306,-2.0,2.0,0.19745836,-2.0,2.0,-0.6555977,-2.0,-2.0,0.20697404,-0.28189373,-2.0,0.4384848,-2.0,2.0,0.29292873,-2.0,2.0,-0.5898246,-2.0
2025-06-05 16:47:27.300,-0.09040853,-0.020361032,0.05726275,-0.04862438,0.0417492,-0.005875657,0.0,0.0,0.0,-0.08875165,-0.17407903,0.08614179,0.17041388,0.2519905,0.17083763,-0.21524973,-0.2544362,0.28417817,0.01936079,0.19730349,-0.24408804,-0.46205476,0.012007816,-0.024992697,-0.23461601,0.041869175,0.05206566,0.0069827973,-0.057806503,-0.009072161,0.044911005,-0.027635675,-0.09512033,-0.05106805,-2.0,0.20697404,-0.28189373,-2.0,0.4384848,-2.0,2.0,0.29292873,-2.0,2.0,-0.5898246,-2.0,-2.0,-0.09606609,0.11962961,-2.0,0.077056006,-2.0,2.0,0.1101047,-2.0,2.0,-0.498206,-2.0
2025-06-05 16:47:27.320,-0.05326024,-0.015622943,0.05186418,-0.10099341,0.011677134,-0.046750378,0.0,0.0,0.0,-0.08970271,-0.16598749,0.08369948,0.12816258,0.25715715,0.17456529,-0.21659632,-0.2405102,0.26203707,0.038591284,0.19719015,-0.26218194,-0.46470794,-0.07222506,-0.024071934,-0.14989907,0.02107547,0.039379776,0.030804802,-0.0041056746,-0.01608547,-0.027754696,-0.07302527,0.04528007,0.048858568,-2.0,-0.09606609,0.11962961,-2.0,0.077056006,-2.0,2.0,0.1101047,-2.0,2.0,-0.498206,-2.0,-2.0,0.14062363,0.3721944,-2.0,0.34318322,-2.0,2.0,0.037422206,-2.0,2.0,-0.7064331,-2.0
2025-06-05 16:47:27.340,-0.056412607,-0.049349647,0.039794676,-0.08831909,-0.0029708457,0.0425988,0.0,0.0,0.0,-0.09028563,-0.1630946,0.06320801,0.12198059,0.27061635,0.18414307,-0.23260102,-0.2413546,0.25831154,0.052609995,0.211599,-0.26355535,-0.46319577,-0.04386877,-0.0023130174,0.06858858,0.004425359,0.019986186,-0.0032692614,0.0033874002,-0.073918976,0.0331131,-0.031166982,-0.06273955,-0.001972043,-2.0,0.14062363,0.3721944,-2.0,0.34318322,-2.0,2.0,0.037422206,-2.0,2.0,-0.7064331,-2.0,-2.0,0.28247297,1.8459009,-2.0,0.4615497,-2.0,2.0,-0.08557562,-2.0,2.0,-0.8968357,-2.0
2025-06-05 16:47:27.361,-0.062093593,-0.09965251,-0.054884095,-0.055482253,-0.012156803,0.033270072,0.0,0.0,0.0,-0.09053146,-0.1592022,0.07159419,0.17881888,0.2558743,0.18185975,-0.24238433,-0.24548963,0.25440854,0.06303497,0.21115117,-0.27121094,-0.44972268,-0.05684063,0.07507015,0.2584786,-0.006382244,0.020353997,-0.009962075,-0.01940151,-0.07804148,0.113515094,-0.053919736,-0.0846108,0.012857314,-2.0,0.28247297,1.8459009,-2.0,0.4615497,-2.0,2.0,-0.08557562,-2.0,2.0,-0.8968357,-2.0,-2.0,0.14957453,2.0,-2.0,0.26519966,-2.0,2.0,0.5475792,-2.0,2.0,-0.91247416,-2.0
2025-06-05 16:47:27.380,-0.036083017,0.0032089823,0.07760921,-0.14779325,0.032291442,-0.03726107,0.0,0.0,0.0,-0.09062616,-0.15307455,0.08126598,0.2731613,0.26914144,0.17732552,-0.24160445,-0.24302311,0.2556299,0.08586079,0.19401944,-0.30062997,-0.46626228,-0.055670172,0.048392612,0.22304936,0.06385847,-0.001366594,-0.043431327,0.026284186,0.079373375,0.023247974,-0.011359172,-0.02534921,0.033640377,-2.0,0.14957453,2.0,-2.0,0.26519966,-2.0,2.0,0.5475792,-2.0,2.0,-0.91247416,-2.0,-2.0,0.012436405,-0.120507374,-2.0,0.34599978,-2.0,2.0,-0.034344885,-2.0,2.0,-0.70187104,-2.0
2025-06-05 16:47:27.401,0.004970704,-0.014946703,-0.038626537,-0.12188545,-0.03029815,-0.025684316,0.0,0.0,0.0,-0.091315255,-0.1633938,0.06980958,0.25100914,0.27251658,0.18155046,-0.24177185,-0.2444013,0.2344473,0.08763747,0.19102184,-0.3336942,-0.48225066,0.025160175,0.011271773,-0.1217501,-0.022237075,-0.048388924,0.03962743,0.035315,0.00029531724,0.09170621,-0.015158922,0.03640451,-0.010341105,-2.0,0.012436405,-0.120507374,-2.0,0.34599978,-2.0,2.0,-0.034344885,-2.0,2.0,-0.70187104,-2.0,-2.0,-0.03505534,1.1412007,-2.0,-0.52361584,-2.0,2.0,0.39453688,-2.0,2.0,-0.8120555,-2.0
2025-06-05 16:47:27.422,0.03675466,-0.08062538,0.04353898,-0.07564786,0.031771965,-0.024818622,0.0,0.0,0.0,-0.09156627,-0.16333203,0.06610104,0.2386532,0.2766301,0.16467392,-0.22802147,-0.23366478,0.24559547,0.094973795,0.19803368,-0.3476179,-0.5085961,-0.06027303,-0.03493944,-0.0723733,-0.028741084,-0.1177551,0.06774449,0.0045983,-0.019421725,-0.058162555,0.046943404,0.029020412,0.00052327494,-2.0,-0.03505534,1.1412007,-2.0,-0.52361584,-2.0,2.0,0.39453688,-2.0,2.0,-0.8120555,-2.0,-2.0,0.5444447,0.13628481,-2.0,0.7321846,-2.0,2.0,0.22732392,-2.0,2.0,-0.19922622,-2.0
2025-06-05 16:47:27.444,-0.033750948,0.1369542,-0.020645464,-0.1327174,-0.013965922,0.0036258353,0.0,0.0,0.0,-0.09235651,-0.16975787,0.08918613,0.19433877,0.29220447,0.15539435,-0.23064588,-0.23849675,0.24606806,0.10401693,0.1819744,-0.33221325,-0.52936286,0.044585966,0.10983086,-0.18238306,0.023716202,-0.021994267,0.03746694,-0.008478471,-0.025946656,-0.05482147,-0.033568703,0.0019227712,-0.05841471,-2.0,0.5444447,0.13628481,-2.0,0.7321846,-2.0,2.0,0.22732392,-2.0,2.0,-0.19922622,-2.0,-2.0,-0.058720157,1.3258004,-2.0,-0.5621513,-2.0,2.0,0.34002912,-2.0,2.0,-0.7621174,-2.0
2025-06-05 16:47:27.462,0.016528377,0.006500274,0.03393154,-0.09422474,-0.0039944733,-0.022798643,0.0,0.0,0.0,-0.093056016,-0.1672853,0.085439324,0.20269346,0.2945898,0.15036269,-0.21647519,-0.23251547,0.2605726,0.098352484,0.18765299,-0.3142195,-0.5303908,-0.031582642,-0.013853397,-0.011568556,0.0023137087,-0.12227454,0.06319578,-0.065480255,-0.019957805,-0.024084,-0.077488005,0.043032303,0.020759005,-2.0,-0.058720157,1.3258004,-2.0,-0.5621513,-2.0,2.0,0.34002912,-2.0,2.0,-0.7621174,-2.0,-2.0,0.550352,0.55098224,-2.0,0.70395577,-2.0,2.0,0.22197595,-2.0,2.0,-0.29347292,-2.0
2025-06-05 16:47:27.482,-0.0745219,0.103001855,0.07105378,-0.1366279,-0.03108512,-0.018860519,0.0,0.0,0.0,-0.094009355,-0.167986,0.121599324,0.19641155,0.28291833,0.13972086,-0.2115286,-0.23183374,0.2695662,0.0872874,0.17230101,-0.3123628,-0.5244811,0.025741829,0.037627377,0.0048109675,0.06461569,0.09716176,0.06355289,0.062166493,0.100160696,-0.00770137,0.054022487,1.5751222e-05,-0.040945385,-2.0,0.550352,0.55098224,-2.0,0.70395577,-2.0,2.0,0.22197595,-2.0,2.0,-0.29347292,-2.0,-2.0,-0.09659283,0.47853762,-2.0,-0.3909905,-2.0,2.0,-0.3997105,-2.0,2.0,-0.9678903,-2.0
2025-06-05 16:47:27.502,0.0010719672,-0.095385626,-0.06330429,-0.110793725,-0.014423253,-0.048484173,0.0,0.0,0.0,-0.094652586,-0.17757511,0.10326751,0.18473142,0.2853056,0.1411441,-0.20152292,-0.23301153,0.27300167,0.09516337,0.19157748,-0.31189474,-0.53040975,0.031368043,-0.015373837,-0.030507145,-0.0849067,-0.08498938,-0.032582786,-0.00022891539,-0.042826653,0.05842609,-0.011291559,-0.0470717,-0.0597258,-2.0,-0.09659283,0.47853762,-2.0,-0.3909905,-2.0,2.0,-0.3997105,-2.0,2.0,-0.9678903,-2.0,-2.0,0.4020524,2.0,-2.0,0.07442732,-2.0,2.0,0.60033995,-2.0,2.0,-0.325023,-2.0
2025-06-05 16:47:27.522,-0.030066457,0.040893413,0.050977297,-0.105609156,-0.029929575,0.03940448,0.0,0.0,0.0,-0.094420895,-0.16761677,0.120928854,0.23284297,0.2817045,0.13898928,-0.2036438,-0.2235312,0.26747268,0.117015064,0.17384623,-0.30030888,-0.53723156,-0.037413064,-0.03488303,0.17847344,0.017245226,-0.032226056,-0.050375134,-0.035404135,0.07068568,0.0136397155,-0.0019348569,0.14099352,0.051267248,-2.0,0.4020524,2.0,-2.0,0.07442732,-2.0,2.0,0.60033995,-2.0,2.0,-0.325023,-2.0,-2.0,0.23261581,-0.6491916,-2.0,0.37110192,-2.0,2.0,-0.25656232,-2.0,2.0,-0.89496386,-2.0
2025-06-05 16:47:27.542,-0.016294068,-0.09666526,0.0050227195,-0.14096561,-0.01689953,0.02241247,0.0,0.0,0.0,-0.094802976,-0.16973531,0.12616885,0.18249743,0.28077486,0.14017048,-0.21772191,-0.22499089,0.25754058,0.123719126,0.18583365,-0.3070477,-0.53235793,-0.058749273,-0.014835804,-0.23339047,-0.036242172,0.035566323,0.048597526,-0.032369077,-0.10100133,-0.0046918867,-0.04869309,-0.052376498,-0.023109611,-2.0,0.23261581,-0.6491916,-2.0,0.37110192,-2.0,2.0,-0.25656232,-2.0,2.0,-0.89496386,-2.0,-2.0,0.09527476,1.4994192,-2.0,-0.15436779,-2.0,2.0,0.162873,-2.0,2.0,-0.57564914,-2.0
2025-06-05 16:47:27.563,-0.050565567,0.017430397,0.016603831,-0.15782313,0.03894031,0.022011943,0.0,0.0,0.0,-0.09491649,-0.15618023,0.121844426,0.18213405,0.2862139,0.14102651,-0.21077982,-0.23577508,0.25075877,0.11823836,0.17773825,-0.3185483,-0.5200971,-0.057715364,0.026814172,0.043994196,0.035777673,-0.079455465,0.008504778,-0.025574978,0.012752027,-0.0013892958,0.022643907,0.05114232,0.037665978,-2.0,0.09527476,1.4994192,-2.0,-0.15436779,-2.0,2.0,0.162873,-2.0,2.0,-0.57564914,-2.0,-2.0,0.24191909,1.4248815,-2.0,0.41508406,-2.0,2.0,0.11953386,-2.0,2.0,-0.6247313,-2.0
2025-06-05 16:47:27.584,-0.08655693,0.05809051,-0.0319212,-0.14466596,0.022765122,-0.012485478,0.0,0.0,0.0,-0.094927326,-0.16174681,0.10520432,0.23125888,0.28706574,0.12553072,-0.21767715,-0.23903501,0.24787174,0.13508883,0.18303305,-0.31547114,-0.5239376,0.024595832,0.0477471,0.120946534,-0.057771463,0.030517315,0.04104449,-0.04099668,0.05127777,0.034156326,-0.02038597,-0.025074448,-0.017270105,-2.0,0.24191909,1.4248815,-2.0,0.41508406,-2.0,2.0,0.11953386,-2.0,2.0,-0.6247313,-2.0,-2.0,0.18137963,1.9887792,-2.0,-0.32980877,-2.0,2.0,0.16889009,-2.0,2.0,-0.7958926,-2.0
2025-06-05 16:47:27.607,0.019247005,-0.011101345,0.05396634,-0.14428018,0.008853511,-0.048615344,0.0,0.0,0.0,-0.0949803,-0.15069148,0.10350596,0.30613023,0.2848191,0.1362163,-0.21098103,-0.222416,0.2537451,0.13529728,0.19021511,-0.31488246,-0.5335847,0.052999754,0.040549055,0.14270222,-0.019658457,-0.08295528,-0.047153234,0.07158537,-0.018200535,0.033930503,-0.042501245,0.0150507325,0.02182944,-2.0,0.18137963,1.9887792,-2.0,-0.32980877,-2.0,2.0,0.16889009,-2.0,2.0,-0.7958926,-2.0,-2.0,0.10261501,-0.45080304,-2.0,0.67226297,-2.0,2.0,0.19276205,-2.0,2.0,-0.38825735,-2.0
2025-06-05 16:47:27.628,-0.057852942,0.030929107,0.03862199,-0.13742885,0.028250933,-0.049011845,0.0,0.0,0.0,-0.095498696,-0.16871992,0.11649546,0.24970871,0.2785048,0.13444607,-0.21774232,-0.23524636,0.25200287,0.13443324,0.17866968,-0.3044136,-0.53190494,0.0068812,0.062643684,-0.18654352,0.050359886,-0.021644007,-0.053976603,-0.002790786,-0.0319622,-0.012515666,0.027399777,-0.023408175,-0.007999012,-2.0,0.10261501,-0.45080304,-2.0,0.67226297,-2.0,2.0,0.19276205,-2.0,2.0,-0.38825735,-2.0,-2.0,-0.37300295,0.19767217,-2.0,-0.28931803,-2.0,2.0,0.0016804589,-2.0,2.0,-0.8831661,-2.0
2025-06-05 16:47:27.647,0.04689017,-0.076448515,-0.02060768,-0.11617171,-0.013400011,-0.029539369,0.0,0.0,0.0,-0.09567385,-0.16195987,0.07220608,0.18882386,0.2791771,0.13612121,-0.21839063,-0.23260404,0.2430902,0.1397957,0.17755644,-0.32777745,-0.5367071,-0.013846022,-0.14140156,-0.060903683,-0.06817771,-0.07762148,0.004184751,-0.042893916,-0.09062179,-0.04229799,0.014225523,-0.063813835,0.061346624,-2.0,-0.37300295,0.19767217,-2.0,-0.28931803,-2.0,2.0,0.0016804589,-2.0,2.0,-0.8831661,-2.0,-2.0,0.79902136,2.0,-2.0,0.18744643,-2.0,2.0,0.113255076,-2.0,2.0,-0.5229057,-2.0
2025-06-05 16:47:27.667,-0.0074975253,0.054085735,0.037869066,-0.14765766,0.008436882,-0.037489302,0.0,0.0,0.0,-0.09558921,-0.16360395,0.09199478,0.23882283,0.27837703,0.1334237,-0.21409757,-0.22863315,0.24374501,0.13609228,0.18728954,-0.3197591,-0.529764,0.02234333,0.014769032,0.23156875,-0.054135785,-0.046402782,0.008565811,-0.042007796,0.02073025,0.0412797,0.03734711,-0.05813194,-0.051526442,-2.0,0.79902136,2.0,-2.0,0.18744643,-2.0,2.0,0.113255076,-2.0,2.0,-0.5229057,-2.0,-2.0,0.4854548,1.0813992,-2.0,0.43127483,-2.0,2.0,-0.078436114,-2.0,2.0,-0.6377665,-2.0
2025-06-05 16:47:27.687,-0.019349178,-0.045571968,0.020183166,-0.10638586,-0.012485209,0.0040643415,0.0,0.0,0.0,-0.095964566,-0.16932236,0.12791061,0.26160005,0.2902085,0.12062943,-0.22605403,-0.23429996,0.23394445,0.13917771,0.17788766,-0.3143318,-0.52827585,-0.02654031,0.102734275,0.021952229,-0.012504348,0.07817316,-0.042580914,0.018030303,0.0147335855,0.04127665,0.04990719,-0.04156122,0.028280793,-2.0,0.4854548,1.0813992,-2.0,0.43127483,-2.0,2.0,-0.078436114,-2.0,2.0,-0.6377665,-2.0,-2.0,-0.008818731,0.8749342,-2.0,-0.083734974,-2.0,2.0,-0.044851545,-2.0,2.0,-0.8550843,-2.0
2025-06-05 16:47:27.707,0.013538881,-0.09453275,-0.07544207,-0.12636898,0.03686063,-0.0018076634,0.0,0.0,0.0,-0.09596601,-0.16839603,0.1447502,0.26372385,0.29862097,0.12396572,-0.22842018,-0.22704977,0.22794469,0.14172716,0.18163396,-0.33404943,-0.5265026,-0.05843912,-0.030775432,0.03116145,0.02147229,-0.025041847,0.013983834,-0.014714813,0.015006602,0.025725652,-0.049894117,0.034736518,0.02039393,-2.0,-0.008818731,0.8749342,-2.0,-0.083734974,-2.0,2.0,-0.044851545,-2.0,2.0,-0.8550843,-2.0,-2.0,0.15198644,1.3343692,-2.0,-0.428716,-2.0,2.0,0.45322758,-2.0,2.0,-0.796741,-2.0
2025-06-05 16:47:27.728,0.11273092,-0.040356424,0.049356356,-0.07589839,-0.004015791,0.03196876,0.0,0.0,0.0,-0.09558899,-0.17110819,0.12522413,0.27055037,0.29999265,0.108247004,-0.21769652,-0.22987412,0.216855,0.13205259,0.17901367,-0.3351847,-0.5374765,0.024712002,0.0056343316,0.041267682,0.08016674,0.01945856,0.015542321,0.068968154,-0.058107916,-0.048662897,-0.0017667109,-0.028213182,0.07271564,-2.0,0.15198644,1.3343692,-2.0,-0.428716,-2.0,2.0,0.45322758,-2.0,2.0,-0.796741,-2.0,-2.0,0.41692334,-0.10696007,-2.0,0.33081335,-2.0,2.0,0.026636567,-2.0,2.0,-0.46108562,-2.0
