openverse-orca/OrcaGym/log/simulation_log_20250721_090051.csv
timestamp,sim_time,physics_step,control_step,imu_angle_roll,imu_angle_pitch,imu_angle_yaw,imu_angular_velocity_roll,imu_angular_velocity_pitch,imu_angular_velocity_yaw,imu_acc_x,imu_acc_y,imu_acc_z,fl_joint1_pos,fl_joint1_vel,fl_joint1_torque,fl_joint2_pos,fl_joint2_vel,fl_joint2_torque,fl_joint3_pos,fl_joint3_vel,fl_joint3_torque,fr_joint1_pos,fr_joint1_vel,fr_joint1_torque,fr_joint2_pos,fr_joint2_vel,fr_joint2_torque,fr_joint3_pos,fr_joint3_vel,fr_joint3_torque,hl_joint1_pos,hl_joint1_vel,hl_joint1_torque,hl_joint2_pos,hl_joint2_vel,hl_joint2_torque,hl_joint3_pos,hl_joint3_vel,hl_joint3_torque,hr_joint1_pos,hr_joint1_vel,hr_joint1_torque,hr_joint2_pos,hr_joint2_vel,hr_joint2_torque,hr_joint3_pos,hr_joint3_vel,hr_joint3_torque,fl_force_x,fl_force_y,fl_force_z,fr_force_x,fr_force_y,fr_force_z,hl_force_x,hl_force_y,hl_force_z,hr_force_x,hr_force_y,hr_force_z,fl_hip_action,fl_thigh_action,fl_calf_action,fr_hip_action,fr_thigh_action,fr_calf_action,hl_hip_action,hl_thigh_action,hl_calf_action,hr_hip_action,hr_thigh_action,hr_calf_action
2025-07-21 09:00:51.847,0.0,0,0,-0.013615252,-0.021589624,-0.02223535,-0.041355982,-0.024125908,-0.000551396,0.0,0.0,0.0,0.0,0.009541268,-0.0026671097,0.0052508996,0.00065337244,-0.00078878965,-0.0022818772,0.0011644387,0.0034907777,-0.001037835,0.009960386,0.007270194,0.0067153056,-0.058566242,0.046411738,0.04957767,0.035415165,0.041366536,0.035845377,-0.0313105,0.02920164,-0.011781733,0.04656999,0.029918825,0.04532396,0.0,0.0,0.0,0.0,0.0,0.0,0.0,0.0,0.0,0.0,0.0,0.0,-2.0,-2.0,-2.0,-2.0,-2.0,-2.0,2.0,2.0,2.0,-1.2116065,2.0,2.0
2025-07-21 09:00:51.860,0.02,20,1,0.016594218,0.49276996,0.07269697,-0.03670824,-0.05488439,0.0042526247,0.0,0.0,0.0,0.0,-0.034745317,-0.014018723,-0.06004352,-0.045532376,-0.022448413,-0.051904816,0.046155922,0.04349687,0.058206227,-0.039049476,0.045210343,0.039565492,-0.144799,-0.062402163,-0.17319585,-0.089100175,-0.08905377,-0.10856098,0.2111439,0.20957936,0.11737106,-0.13157663,0.16528197,0.19302802,-2.0,-2.0,-2.0,-2.0,-2.0,-2.0,2.0,2.0,2.0,-1.2116065,2.0,2.0,2.0,-2.0,-1.6654155,-2.0,-2.0,-2.0,2.0,-2.0,2.0,-2.0,-2.0,2.0
2025-07-21 09:00:51.880,0.04,40,2,-0.383162,0.10155586,-0.06600972,0.027796265,-0.078388594,-0.0044797985,0.0,0.0,0.0,0.0,-0.012542774,-0.08293186,-0.09545836,-0.10966504,-0.11354351,-0.090445794,0.0909661,0.044559397,0.10655762,-0.080958635,0.06447344,0.09232504,0.14377525,-0.28171736,-0.12626661,-0.08341136,-0.2787424,-0.13398509,0.18674913,-0.07910319,0.05831965,-0.16116938,-0.13356344,0.09981138,2.0,-2.0,-1.6654155,-2.0,-2.0,-2.0,2.0,-2.0,2.0,-2.0,-2.0,2.0,2.0,2.0,-2.0,-2.0,-2.0,-0.42540437,2.0,2.0,2.0,-2.0,2.0,2.0
2025-07-21 09:00:51.900,0.06,60,3,-0.08184395,0.14337255,-0.15330298,-0.03594413,-0.06868835,0.034441985,0.0,0.0,0.0,0.0,0.042422175,-0.12025526,-0.133956,-0.13774216,-0.24415353,-0.099212155,0.14407091,0.0474907,0.12801027,-0.122267395,0.08011172,0.13684042,0.09882777,0.05628621,-0.15256429,-0.13162254,-0.36376262,-0.056962457,0.16298683,0.19688773,0.08869909,-0.1099346,0.21013594,0.056283567,2.0,2.0,-2.0,-2.0,-2.0,-0.42540437,2.0,2.0,2.0,-2.0,2.0,2.0,2.0,2.0,-2.0,-2.0,-2.0,2.0,2.0,-2.0,2.0,2.0,-0.27303803,2.0
2025-07-21 09:00:51.920,0.08,80,4,-0.201946,-0.53771096,0.032968305,-0.020834308,-0.05267996,0.023774866,0.0,0.0,0.0,0.0,0.10276767,-0.045366894,-0.16045307,-0.16438589,-0.34482384,-0.031946063,0.16647287,0.050021205,0.17180948,-0.0952253,0.09253427,0.15827426,0.12918055,0.19390061,-0.020912746,-0.037893884,-0.19405659,0.16722165,0.0856518,-0.20329069,0.041096583,0.17475882,-0.14742842,0.13903444,2.0,2.0,-2.0,-2.0,-2.0,2.0,2.0,-2.0,2.0,2.0,-0.27303803,2.0,2.0,2.0,-2.0,-2.0,-2.0,2.0,2.0,2.0,2.0,2.0,2.0,2.0
2025-07-21 09:00:51.944,0.1,100,5,0.046694722,-0.8805626,0.096521415,0.09397824,0.0039737476,-0.046440035,0.0,0.0,0.0,0.0,0.144397,0.07897705,-0.18507002,-0.20053077,-0.426017,0.014790394,0.2010666,0.066790804,0.19122238,-0.03762958,0.095350444,0.16943496,0.1038932,0.35032645,-0.039563823,-0.08741259,-0.2312905,0.07260047,0.12076311,0.11661318,0.007801456,0.13198197,0.08247052,0.023253785,2.0,2.0,-2.0,-2.0,-2.0,2.0,2.0,2.0,2.0,2.0,2.0,2.0,2.0,-2.0,-2.0,-2.0,-2.0,2.0,2.0,-2.0,2.0,-2.0,2.0,2.0
2025-07-21 09:00:51.960,0.12000000000000001,120,6,0.119431145,-0.43647948,0.12884355,0.0966304,0.059019867,0.04649332,0.0,0.0,0.0,0.0,0.16807409,0.16385311,-0.21645243,-0.23276208,-0.5095297,0.076132275,0.23727609,0.05397278,0.20805438,-0.0601576,0.1827042,0.20305021,0.1317831,0.08458572,-0.0058129765,-0.0722772,-0.16916892,0.17233051,0.06391338,-0.11473334,-0.017336397,-0.18116824,0.29507506,0.10169214,2.0,-2.0,-2.0,-2.0,-2.0,2.0,2.0,-2.0,2.0,-2.0,2.0,2.0,2.0,-2.0,-2.0,-2.0,-2.0,2.0,2.0,2.0,2.0,-1.647366,0.40598857,2.0
2025-07-21 09:00:51.980,0.14,140,7,0.039284766,-0.24789517,-0.017914357,0.103701,0.0687716,0.019182486,0.0,0.0,0.0,0.0,0.2117657,0.15542069,-0.24474964,-0.25565153,-0.55709505,0.106889814,0.25022215,0.063305296,0.21449529,-0.089298904,0.20688675,0.221125,0.09079389,0.047603097,0.018273808,-0.09679737,-0.068059154,0.029903784,0.079741694,0.13210739,0.08059057,-0.13991062,-0.04946866,0.05128481,2.0,-2.0,-2.0,-2.0,-2.0,2.0,2.0,2.0,2.0,-1.647366,0.40598857,2.0,2.0,-2.0,-2.0,-2.0,-2.0,2.0,2.0,2.0,2.0,-2.0,2.0,2.0
2025-07-21 09:00:52.000,0.16,160,8,0.026210932,0.1504379,-0.04784381,0.10956814,0.07499865,-0.026322795,0.0,0.0,0.0,0.0,0.22420943,0.12962049,-0.2512625,-0.27059695,-0.6085948,0.15267497,0.27517357,0.1213681,0.22685917,-0.13811524,0.27075335,0.22831437,0.0825159,-0.082402654,0.0055931187,-0.09252322,-0.16961296,0.112376794,0.04757934,0.27538168,0.06081976,-0.14424008,0.1959991,0.02296622,2.0,-2.0,-2.0,-2.0,-2.0,2.0,2.0,2.0,2.0,-2.0,2.0,2.0,2.0,-2.0,-2.0,-2.0,2.0,2.0,2.0,-2.0,2.0,-2.0,-2.0,2.0
2025-07-21 09:00:52.020,0.18,180,9,-0.00073743606,0.14260891,0.17152548,0.04167822,0.020841073,-0.0074355383,0.0,0.0,0.0,0.0,0.25246468,0.09327162,-0.27707598,-0.28945303,-0.64237535,0.1550035,0.2836357,0.14152485,0.23478049,-0.17471822,0.2728851,0.24586955,0.0334641,-0.23517723,0.019205287,-0.06452397,-0.035634685,-0.021927321,-0.01312231,0.011178762,-0.029078301,-0.055238284,-0.12800145,0.047834784,2.0,-2.0,-2.0,-2.0,2.0,2.0,2.0,-2.0,2.0,-2.0,-2.0,2.0,2.0,-2.0,-2.0,-2.0,2.0,2.0,-0.28251055,2.0,2.0,-2.0,2.0,-2.0
2025-07-21 09:00:52.043,0.19999999999999998,200,10,0.21540587,0.5116372,0.088488854,0.10664708,0.033427685,0.03803342,0.0,0.0,0.0,0.0,0.25706962,0.01588889,-0.27535453,-0.31499845,-0.624387,0.18616301,0.28176132,0.1827261,0.23624723,-0.20882824,0.30991897,0.17156929,0.059156477,-0.2512713,-0.08493236,-0.10654628,0.03220457,0.06603942,0.00562848,0.12287846,0.011620124,-0.12285679,0.23069645,-0.2398746,2.0,-2.0,-2.0,-2.0,2.0,2.0,-0.28251055,2.0,2.0,-2.0,2.0,-2.0,2.0,-2.0,-2.0,2.0,2.0,2.0,-2.0,-2.0,2.0,-2.0,2.0,-2.0
2025-07-21 09:00:52.061,0.21999999999999997,220,11,0.122233815,0.5227714,0.11527887,0.040708713,0.008680168,0.01667476,0.0,0.0,0.0,0.0,0.28451124,-0.07473773,-0.2858727,-0.33403257,-0.6262307,0.19122988,0.25667083,0.19328734,0.24843617,-0.21944045,0.40453023,0.09015057,-0.01598304,-0.21342033,0.053495493,-0.09209996,0.03397987,0.040799137,-0.02323418,0.060723282,0.033957202,0.013115975,0.25793335,-0.21222314,2.0,-2.0,-2.0,2.0,2.0,2.0,-2.0,-2.0,2.0,-2.0,2.0,-2.0,2.0,-2.0,-2.0,2.0,2.0,-2.0,-2.0,-2.0,2.0,-2.0,-2.0,-2.0
2025-07-21 09:00:52.081,0.23999999999999996,240,12,-0.11303468,0.3962562,-0.03108734,-0.0357189,-0.04018617,-0.009157441,0.0,0.0,0.0,0.0,0.2836727,-0.1980745,-0.2850442,-0.35415465,-0.574307,0.11880282,0.2184616,0.17876361,0.26139724,-0.23799278,0.4042607,0.01027738,0.02705459,-0.37719086,0.056409504,-0.028858012,0.14626728,-0.21567231,-0.069642484,-0.028718261,0.05916181,-0.025912121,-0.18851161,-0.15722893,2.0,-2.0,-2.0,2.0,2.0,-2.0,-2.0,-2.0,2.0,-2.0,-2.0,-2.0,2.0,-2.0,2.0,2.0,2.0,-2.0,-2.0,-2.0,2.0,-2.0,1.9900025,-2.0
2025-07-21 09:00:52.101,0.25999999999999995,260,13,-0.01898453,0.4583945,0.0025371665,-0.052101407,-0.083294235,0.0356004,0.0,0.0,0.0,0.0,0.30435562,-0.30347553,-0.19104713,-0.33623147,-0.5435227,0.038112924,0.19840099,0.16442734,0.2888401,-0.2658761,0.4155376,-0.037385214,-0.055075374,-0.29325742,0.2614157,0.05576296,0.07698905,-0.1853872,-0.041688733,-0.0037085868,-0.041584436,-0.02645914,0.10942332,-0.06311544,2.0,-2.0,2.0,2.0,2.0,-2.0,-2.0,-2.0,2.0,-2.0,1.9900025,-2.0,2.0,-2.0,2.0,2.0,2.0,-2.0,-2.0,-2.0,-2.0,-2.0,-2.0,2.0
2025-07-21 09:00:52.121,0.27999999999999997,280,14,-0.11391973,0.2373939,0.0021176513,-0.060966358,-0.07381144,-0.026639821,0.0,0.0,0.0,0.0,0.2967542,-0.4118617,-0.11458041,-0.30864388,-0.50557905,-0.045280747,0.16635947,0.19198677,0.19857801,-0.26809034,0.39185476,0.0135619985,-0.014953981,-0.24358597,0.19935249,0.039825674,0.07875396,-0.11344221,-0.08714768,0.073827125,-0.17949258,-0.024012452,-0.2015464,0.0930333,2.0,-2.0,2.0,2.0,2.0,-2.0,-2.0,-2.0,-2.0,-2.0,-2.0,2.0,2.0,-2.0,2.0,2.0,2.0,-2.0,-2.0,2.0,-2.0,-2.0,2.0,2.0
2025-07-21 09:00:52.141,0.3,300,15,0.36045298,0.23821534,-0.09064101,-0.08721466,-0.068732016,0.024224944,0.0,0.0,0.0,0.0,0.3153425,-0.47887456,-0.04048543,-0.27663147,-0.46630877,-0.09270537,0.11634469,0.2655072,0.10653289,-0.28213462,0.39619857,0.06876076,0.017518664,-0.2326159,0.1970233,0.16282932,0.060514983,-0.07095064,-0.15687677,0.23347154,-0.22768153,-0.037946288,0.07100947,0.18273711,2.0,-2.0,2.0,2.0,2.0,-2.0,-2.0,2.0,-2.0,-2.0,2.0,2.0,2.0,-2.0,2.0,2.0,2.0,-2.0,-2.0,-2.0,-2.0,-2.0,-2.0,2.0
2025-07-21 09:00:52.161,0.32,320,16,-0.054610424,-0.066462204,-0.32621458,-0.081683315,-0.08593333,0.007950891,0.0,0.0,0.0,0.0,0.31988874,-0.5462941,0.021076528,-0.2203689,-0.4315324,-0.15189704,0.0755723,0.33053473,0.0539905,-0.28922424,0.40660334,0.10537466,-0.050595228,-0.16077167,0.071883336,0.10437047,0.07784226,-0.059175007,-0.20430757,0.120610826,-0.08287184,0.009418044,-0.11328796,0.045875248,2.0,-2.0,2.0,2.0,2.0,-2.0,-2.0,-2.0,-2.0,-2.0,-2.0,2.0,2.0,-2.0,2.0,-2.0,2.0,-2.0,2.0,-2.0,-2.0,-2.0,-2.0,2.0
2025-07-21 09:00:52.181,0.34,340,17,-0.15661399,-0.15301433,-0.1134372,-0.037238676,-0.047368996,0.045453813,0.0,0.0,0.0,0.0,0.3247696,-0.5919915,0.07086245,-0.2172794,-0.4161972,-0.17971468,0.090533644,0.3337599,-0.01570301,-0.29604682,0.35348025,0.13689317,0.04998174,-0.12468557,0.16526578,-0.061283644,0.07431513,-0.079890594,0.10735942,-0.072593816,-0.10575652,0.051332958,-0.12563299,0.12609039,2.0,-2.0,2.0,-2.0,2.0,-2.0,2.0,-2.0,-2.0,-2.0,-2.0,2.0,2.0,2.0,2.0,-2.0,2.0,-2.0,2.0,2.0,-2.0,-2.0,2.0,2.0
2025-07-21 09:00:52.202,0.36000000000000004,360,18,0.27331114,-0.17293768,-0.067442715,-0.028768294,-0.09804321,0.018117463,0.0,0.0,0.0,0.0,0.3193903,-0.5786968,0.122875094,-0.23224303,-0.35493067,-0.22012599,0.14115298,0.35545582,-0.07428578,-0.32189366,0.36879778,0.17054626,0.035389543,0.18104053,0.089207225,-0.019040808,0.1871888,-0.09995988,0.15245652,0.19959651,-0.15656725,0.045695573,0.17490181,0.0039604837,2.0,2.0,2.0,-2.0,2.0,-2.0,2.0,2.0,-2.0,-2.0,2.0,2.0,2.0,2.0,2.0,-2.0,-2.0,-2.0,2.0,-1.9897591,-2.0,2.0,-2.0,2.0
2025-07-21 09:00:52.222,0.38000000000000006,380,19,0.036652096,-0.560221,-0.057675425,-0.059216805,-0.011156229,-0.036577463,0.0,0.0,0.0,0.0,0.33401942,-0.4831563,0.1400024,-0.25149465,-0.355199,-0.2296209,0.17095266,0.3622098,-0.10374837,-0.23975344,0.38362783,0.18667951,0.1040206,0.25258625,0.07690677,-0.06368375,-0.16733088,-0.054933906,0.039531074,-0.106061354,-0.1390351,0.18678936,-0.01720756,0.093568034,2.0,2.0,2.0,-2.0,-2.0,-2.0,2.0,-1.9897591,-2.0,2.0,-2.0,2.0,2.0,2.0,-2.0,-2.0,-2.0,2.0,2.0,-2.0,2.0,-1.1544211,-2.0,2.0
2025-07-21 09:00:52.241,0.4000000000000001,400,20,-0.20880966,-0.1430029,-0.20882611,0.010728786,0.003181411,-0.020923369,0.0,0.0,0.0,0.0,0.33948344,-0.3766812,0.06669568,-0.28291315,-0.42497376,-0.15946569,0.1935244,0.2673896,-0.057149667,-0.22971956,0.34857595,0.22555959,0.06585731,0.1779428,-0.15181583,-0.047753587,-0.23312399,0.15384832,0.07516909,-0.226139,0.23358564,0.07354005,-0.17910403,0.08090829,2.0,2.0,-2.0,-2.0,-2.0,2.0,2.0,-2.0,2.0,-1.1544211,-2.0,2.0,2.0,2.0,-2.0,-2.0,-2.0,2.0,2.0,1.0318035,2.0,2.0,2.0,2.0
2025-07-21 09:00:52.261,0.4200000000000001,420,21,0.1663526,-0.18274236,-0.043422148,0.03533311,0.008186087,0.010415996,0.0,0.0,0.0,0.0,0.35895002,-0.28135452,-0.011915934,-0.2828755,-0.49987403,-0.069003,0.23090589,0.24787773,0.010906492,-0.2107975,0.3604204,0.22330377,0.059371836,0.1901576,-0.13511685,0.011101013,-0.19823706,0.09573193,0.040752705,0.124815434,0.16276684,0.048044596,0.13101745,0.07333991,2.0,2.0,-2.0,-2.0,-2.0,2.0,2.0,1.0318035,2.0,2.0,2.0,2.0,2.0,2.0,-2.0,-2.0,-2.0,2.0,2.0,-2.0,2.0,2.0,2.0,2.0
2025-07-21 09:00:52.282,0.4400000000000001,440,22,-0.0026306529,-0.07702389,0.026622858,-0.01914858,0.033480316,-0.015672887,0.0,0.0,0.0,0.0,0.36833727,-0.1992329,-0.05885034,-0.30715874,-0.5591668,-0.006177846,0.24930653,0.23292036,0.0524905,-0.129509,0.44693068,0.24755143,0.044686213,0.1792796,-0.10885278,0.0388243,-0.1029699,0.11508879,0.07721704,-0.010540829,0.07880222,0.2566457,0.2637606,0.09977883,2.0,2.0,-2.0,-2.0,-2.0,2.0,2.0,-2.0,2.0,2.0,2.0,2.0,2.0,2.0,-2.0,-2.0,-2.0,2.0,2.0,-2.0,2.0,2.0,-2.0,2.0
2025-07-21 09:00:52.302,0.46000000000000013,460,23,-0.09153229,-0.06903501,0.019856172,0.037627894,0.03655682,-0.026568532,0.0,0.0,0.0,0.0,0.36633837,-0.11455582,-0.11457378,-0.32605872,-0.6143546,0.043329034,0.2792322,0.21293657,0.099833384,-0.05113095,0.45108685,0.26704842,-0.059059434,0.23962049,-0.078028806,-0.10711423,-0.08336966,0.1792019,0.088790156,-0.06660025,0.10179495,0.1305488,-0.12392813,0.068015836,2.0,2.0,-2.0,-2.0,-2.0,2.0,2.0,-2.0,2.0,2.0,-2.0,2.0,2.0,2.0,-2.0,-2.0,-2.0,2.0,2.0,-2.0,2.0,0.7684667,2.0,2.0
2025-07-21 09:00:52.322,0.48000000000000015,480,24,-0.03150962,0.12957399,0.108881414,-0.045324568,0.004075594,-0.042915322,0.0,0.0,0.0,0.0,0.3717085,-0.02287866,-0.14584948,-0.33656487,-0.65758336,0.07942121,0.27907816,0.16238275,0.14817174,-0.01587442,0.4765064,0.26867673,-0.02308373,0.19878954,-0.050077535,-0.095780246,-0.12963454,0.14017312,0.092965014,-0.11576685,0.08192835,0.085153125,0.1594854,-0.002202246,2.0,2.0,-2.0,-2.0,-2.0,2.0,2.0,-2.0,2.0,0.7684667,2.0,2.0,2.0,2.0,-2.0,-2.0,-2.0,2.0,2.0,2.0,2.0,-1.8279316,-2.0,2.0
2025-07-21 09:00:52.342,0.5000000000000001,500,25,0.044228207,0.076594815,-0.13131312,0.022947827,-0.035054248,-0.0029522218,0.0,0.0,0.0,0.0,0.37553564,0.10873325,-0.18094523,-0.33730647,-0.6747264,0.11773768,0.29254302,0.17810054,0.15807828,-0.060934372,0.4665236,0.27342218,-0.026533416,0.35883772,-0.027779954,-0.023167225,-0.013087312,0.045550972,0.045293238,0.06526561,0.12630874,-0.14198306,-0.06168773,-0.039317593,2.0,2.0,-2.0,-2.0,-2.0,2.0,2.0,2.0,2.0,-1.8279316,-2.0,2.0,2.0,-2.0,-2.0,-2.0,0.97782975,2.0,2.0,-2.0,2.0,-2.0,2.0,2.0
2025-07-21 09:00:52.362,0.5200000000000001,520,26,0.16621903,0.16306639,0.22861668,-0.051671367,-0.00088321994,0.00095051917,0.0,0.0,0.0,0.0,0.35309616,0.16241735,-0.21181886,-0.35294977,-0.6942146,0.13484456,0.30768684,0.19557291,0.19399819,-0.096507415,0.47123274,0.27614394,-0.06990789,-0.07449907,0.0024704612,-0.013575701,0.07036406,0.12186313,0.0376356,0.045211766,0.11786363,-0.175369,0.22617498,-0.03967901,2.0,-2.0,-2.0,-2.0,0.97782975,2.0,2.0,-2.0,2.0,-2.0,2.0,2.0,2.0,-2.0,-2.0,-2.0,-2.0,2.0,2.0,2.0,2.0,-2.0,-2.0,-2.0
2025-07-21 09:00:52.382,0.5400000000000001,540,27,0.0832911,0.00570321,-0.06399358,-0.00077734824,-0.051918436,-0.021082059,0.0,0.0,0.0,0.0,0.37096402,0.10011844,-0.22100621,-0.36197713,-0.7100978,0.17389514,0.32760182,0.24083275,0.19946492,-0.14830387,0.48933372,0.20310883,0.04210216,-0.17743258,-0.07809403,-0.05507567,-0.1013276,0.039829686,0.048544932,0.21694744,-0.017390912,-0.048935734,-0.1423926,-0.23814078,2.0,-2.0,-2.0,-2.0,-2.0,2.0,2.0,2.0,2.0,-2.0,-2.0,-2.0,2.0,-2.0,-2.0,-2.0,2.0,2.0,2.0,-2.0,2.0,-2.0,2.0,-2.0
2025-07-21 09:00:52.402,0.5600000000000002,560,28,0.13439463,0.0849425,0.16512099,-0.025423426,-0.06852165,0.04169718,0.0,0.0,0.0,0.0,0.3478038,-0.03683207,-0.24362135,-0.35585088,-0.7082429,0.19147477,0.3434112,0.24302055,0.22914854,-0.17875765,0.49851996,0.10611268,-0.081292085,-0.36486155,-0.0033312766,0.024807684,0.103389956,0.063319355,0.04940798,-0.081458926,0.11052554,-0.057332553,0.10539511,-0.14289187,2.0,-2.0,-2.0,-2.0,2.0,2.0,2.0,-2.0,2.0,-2.0,2.0,-2.0,2.0,-2.0,-2.0,2.0,2.0,-0.077987716,-2.0,2.0,2.0,-2.0,2.0,-2.0
2025-07-21 09:00:52.423,0.5800000000000002,580,29,0.3016048,0.03256614,-0.048428167,-0.09671884,0.019884015,0.0014598293,0.0,0.0,0.0,0.0,0.35290122,-0.181357,-0.25154188,-0.3478418,-0.6714254,0.14327092,0.34382766,0.289532,0.23765154,-0.21582243,0.5659765,0.026486227,0.04527657,-0.37861598,0.03857898,0.056283053,0.15476784,-0.07347055,-0.08752842,0.25159433,-0.025343662,-0.061441056,0.065332994,-0.21687602,2.0,-2.0,-2.0,2.0,2.0,-0.077987716,-2.0,2.0,2.0,-2.0,2.0,-2.0,2.0,-2.0,2.0,2.0,2.0,-2.0,-2.0,-2.0,2.0,-2.0,-2.0,-2.0
2025-07-21 09:00:52.443,0.6000000000000002,600,30,0.01851183,-0.0071574915,-0.2045153,-0.05596374,-0.020533893,-0.010351837,0.0,0.0,0.0,0.0,0.36032033,-0.28873336,-0.16031338,-0.30267358,-0.61692905,0.05223356,0.31119907,0.33791855,0.24675117,-0.24001141,0.5520588,-0.02760161,-0.060293715,-0.20853704,0.26200685,0.025318887,0.16396055,-0.17194997,-0.12361512,0.10969221,0.10661617,-0.11852172,-0.121988595,-0.09918798,2.0,-2.0,2.0,2.0,2.0,-2.0,-2.0,-2.0,2.0,-2.0,-2.0,-2.0,2.0,-2.0,2.0,2.0,2.0,-2.0,-2.0,-2.0,2.0,-2.0,2.0,2.0
2025-07-21 09:00:52.463,0.6200000000000002,620,31,0.0034648615,-0.14931881,-0.10171917,-0.08467327,0.034579027,0.02625822,0.0,0.0,0.0,0.0,0.36103025,-0.38355607,-0.080035895,-0.2737487,-0.5834441,-0.018955367,0.30669168,0.35866928,0.26697126,-0.2519598,0.567824,0.005856352,0.038653824,-0.2821718,0.1710222,0.11234155,0.06828731,-0.23160098,-0.09895993,-0.015140548,0.00042271684,-0.0124566285,0.13897938,0.21273154,2.0,-2.0,2.0,2.0,2.0,-2.0,-2.0,-2.0,2.0,-2.0,2.0,2.0,2.0,-2.0,2.0,2.0,2.0,-2.0,-2.0,-2.0,-2.0,-2.0,-2.0,2.0
2025-07-21 09:00:52.483,0.6400000000000002,640,32,-0.2159648,-0.3127072,-0.14274308,-0.088064976,-0.025063513,0.008636617,0.0,0.0,0.0,0.0,0.3603574,-0.46611106,-0.023688177,-0.23026595,-0.5662382,-0.07618376,0.2744275,0.37935296,0.19478528,-0.2718991,0.52875596,0.05258832,0.065245,-0.19409187,0.09778251,0.16860998,-0.01822943,-0.20732872,-0.053445566,0.08977942,-0.17610651,0.02660162,-0.15794665,0.083121255,2.0,-2.0,2.0,2.0,2.0,-2.0,-2.0,-2.0,-2.0,-2.0,-2.0,2.0,2.0,-2.0,2.0,-2.0,2.0,-2.0,-2.0,0.17467682,-2.0,-2.0,-2.0,2.0
2025-07-21 09:00:52.503,0.6600000000000003,660,33,-0.44790557,0.20127875,-0.046788163,0.010407389,0.015431176,0.011515001,0.0,0.0,0.0,0.0,0.3426599,-0.5378178,0.030230599,-0.24008034,-0.54226154,-0.12457192,0.19628501,0.38396105,0.123696476,-0.28471658,0.43442884,0.10071615,0.009581313,-0.17506772,0.13509338,-0.098301515,0.060905203,-0.17261745,-0.2459888,0.0030899441,-0.23764957,-0.042053778,-0.34880614,0.09234629,2.0,-2.0,2.0,-2.0,2.0,-2.0,-2.0,0.17467682,-2.0,-2.0,-2.0,2.0,2.0,2.0,2.0,-2.0,2.0,-2.0,-2.0,2.0,-2.0,-2.0,2.0,2.0
2025-07-21 09:00:52.523,0.6800000000000003,680,34,-0.004150831,0.30991787,-0.13420747,-0.065626554,-0.02575487,0.000583499,0.0,0.0,0.0,0.0,0.3427462,-0.5351631,0.08584242,-0.26686764,-0.53137153,-0.17286278,0.12247898,0.4471212,0.042860128,-0.29908383,0.38519672,0.13491645,-0.026061865,0.07933935,0.16431373,-0.04966198,0.19407326,-0.11393718,-0.1476524,0.20383587,-0.11856078,-0.02179069,0.05937226,0.030685924,2.0,2.0,2.0,-2.0,2.0,-2.0,-2.0,2.0,-2.0,-2.0,2.0,2.0,2.0,2.0,2.0,-2.0,2.0,-2.0,2.0,2.0,-2.0,2.0,-2.0,2.0
2025-07-21 09:00:52.544,0.7000000000000003,700,35,0.20138276,-0.14885068,-0.00402446,-0.03490132,-0.079990454,-0.048512198,0.0,0.0,0.0,0.0,0.36000913,-0.51185775,0.11571687,-0.274377,-0.4363157,-0.19152594,0.12948179,0.51965094,-0.019424928,-0.28157339,0.3932912,0.17277527,0.06811922,0.10343326,0.0477591,-0.05280589,0.26207596,-0.08494895,0.027685009,0.17746525,-0.077379584,-0.015958034,0.02153083,0.14225139,2.0,2.0,2.0,-2.0,2.0,-2.0,2.0,2.0,-2.0,2.0,-2.0,2.0,2.0,2.0,2.0,-2.0,-2.0,-2.0,2.0,-2.0,-2.0,2.0,-2.0,2.0
2025-07-21 09:00:52.564,0.7200000000000003,720,36,0.00026233293,-0.1632094,-0.07110477,-0.03292401,0.019116033,-0.037324313,0.0,0.0,0.0,0.0,0.3746642,-0.49297187,0.13109782,-0.28837004,-0.39627656,-0.21039551,0.16122223,0.49960342,-0.06017743,-0.25410956,0.38418162,0.19308707,0.010358708,0.054190043,0.059565496,-0.033186786,-0.052051254,-0.10301436,0.018277649,-0.11495487,-0.13907821,0.008132735,-0.04478098,-0.007284241,2.0,2.0,2.0,-2.0,-2.0,-2.0,2.0,-2.0,-2.0,2.0,-2.0,2.0,2.0,2.0,-2.0,-2.0,-2.0,2.0,2.0,-2.0,-1.6028929,1.4463806,-2.0,2.0
2025-07-21 09:00:52.584,0.7400000000000003,740,37,-0.23859605,-0.28101337,0.055319197,-0.043277465,-0.029727124,0.015438932,0.0,0.0,0.0,0.0,0.39529324,-0.44688588,0.06788689,-0.29821673,-0.4498231,-0.13070999,0.19220042,0.39909974,-0.093378335,-0.2200198,0.36199218,0.22091304,-0.03591453,0.09417772,-0.19214009,0.029061059,-0.2512489,0.19978876,0.05099737,-0.40282962,-0.099126436,0.08792223,-0.086816065,0.073364094,2.0,2.0,-2.0,-2.0,-2.0,2.0,2.0,-2.0,-1.6028929,1.4463806,-2.0,2.0,2.0,2.0,-2.0,-2.0,-2.0,2.0,2.0,2.0,2.0,-2.0,2.0,2.0
2025-07-21 09:00:52.604,0.7600000000000003,760,38,0.0920861,0.20271066,-0.13376139,-0.04921724,-0.027324239,-0.010371956,0.0,0.0,0.0,0.0,0.3953207,-0.35659158,-0.0044692555,-0.3231953,-0.51302844,-0.073685154,0.22080825,0.34140748,-0.053350795,-0.22267364,0.3856022,0.2468268,0.04961068,0.20038767,-0.16853969,-0.06443898,-0.21694572,0.20071411,0.0521565,0.09388987,0.18901514,-0.06511534,0.21320564,-0.0043618595,2.0,2.0,-2.0,-2.0,-2.0,2.0,2.0,2.0,2.0,-2.0,2.0,2.0,2.0,2.0,-2.0,-2.0,-2.0,2.0,2.0,-2.0,2.0,2.0,-2.0,2.0
2025-07-21 09:00:52.624,0.7800000000000004,780,39,-0.056086134,-0.11796183,-0.02008078,-0.0034696204,-0.012889254,-0.022735197,0.0,0.0,0.0,0.0,0.39105603,-0.27072394,-0.073062785,-0.32733324,-0.5678058,-0.0060866517,0.23908839,0.31831515,0.009833084,-0.19102228,0.39455852,0.2514925,0.03849143,0.2764044,-0.18699971,-0.059348185,-0.13317546,0.19642347,0.016156882,-0.044423904,0.21471664,0.2503458,-0.0743517,0.040334664,2.0,2.0,-2.0,-2.0,-2.0,2.0,2.0,-2.0,2.0,2.0,-2.0,2.0,2.0,2.0,-2.0,-2.0,-2.0,2.0,2.0,-2.0,2.0,2.0,2.0,2.0
2025-07-21 09:00:52.644,0.8000000000000004,800,40,-0.13221638,-0.051214278,0.16162887,-0.027960354,0.031124296,0.031158507,0.0,0.0,0.0,0.0,0.3871972,-0.18009585,-0.11340727,-0.34362787,-0.61687946,0.052829556,0.26362154,0.27898148,0.06540801,-0.10940145,0.42651248,0.2572635,-0.078144275,0.2431849,-0.04511495,-0.052050155,-0.059623826,0.051201325,0.012476168,-0.12911971,0.1459679,0.28439483,0.20886004,0.04015066,2.0,2.0,-2.0,-2.0,-2.0,2.0,2.0,-2.0,2.0,2.0,2.0,2.0,2.0,2.0,-2.0,-2.0,-2.0,2.0,2.0,-2.0,2.0,2.0,-2.0,2.0
2025-07-21 09:00:52.664,0.8200000000000004,820,41,-0.12762713,-0.19826809,0.06727619,0.014406486,-0.016826725,0.045550518,0.0,0.0,0.0,0.0,0.39451712,-0.06903409,-0.14347093,-0.3404236,-0.6510467,0.09296145,0.2841565,0.2064913,0.10013647,-0.029171893,0.44389927,0.26555446,0.00616154,0.2909747,-0.07870547,-0.021328935,-0.037983555,0.022329614,-0.036334466,-0.12708871,0.08599948,0.24392693,-0.09607823,0.0054223235,2.0,2.0,-2.0,-2.0,-2.0,2.0,2.0,-2.0,2.0,2.0,-2.0,2.0,2.0,2.0,-2.0,-2.0,-2.0,2.0,2.0,0.933968,2.0,-2.0,2.0,2.0
2025-07-21 09:00:52.685,0.8400000000000004,840,42,0.11115186,0.10632305,0.04465887,-0.012590973,-0.046432674,0.010064017,0.0,0.0,0.0,0.0,0.3741826,0.08081262,-0.17386033,-0.35443458,-0.7003098,0.11764063,0.2959462,0.2209733,0.13668866,-0.05444813,0.45878926,0.27917573,-0.026876045,0.42716163,-0.06897328,-0.048270904,-0.12985672,0.030464387,-0.04548358,0.10366797,0.095837586,-0.06868863,0.14496157,0.078685455,2.0,2.0,-2.0,-2.0,-2.0,2.0,2.0,0.933968,2.0,-2.0,2.0,2.0,2.0,-2.0,-2.0,-2.0,-0.35204044,2.0,2.0,-2.0,2.0,-2.0,-2.0,2.0
2025-07-21 09:00:52.705,0.8600000000000004,860,43,-0.011916049,-0.038657002,0.18421313,-0.023032159,0.027050436,-0.015349424,0.0,0.0,0.0,0.0,0.3793656,0.14203615,-0.20950475,-0.3573956,-0.6838971,0.14503114,0.31011325,0.20664854,0.16779357,-0.10279996,0.43638894,0.27646923,-0.010369704,-0.009501912,-0.04278869,0.03390501,0.023247378,0.06691253,0.11431288,-0.10925246,0.103643,-0.077833004,-0.080813475,-0.048472464,2.0,-2.0,-2.0,-2.0,-0.35204044,2.0,2.0,-2.0,2.0,-2.0,-2.0,2.0,2.0,-2.0,-2.0,-2.0,-1.5902706,2.0,2.0,2.0,2.0,-2.0,2.0,2.0
2025-07-21 09:00:52.725,0.8800000000000004,880,44,0.18293633,0.23021811,0.05218711,0.022360174,-0.05549728,-0.017489616,0.0,0.0,0.0,0.0,0.37044647,0.08897493,-0.21895249,-0.36013153,-0.6881078,0.17613423,0.3380445,0.22918007,0.1928038,-0.14117269,0.45583844,0.29422882,-0.090294726,-0.3123382,-0.105416834,0.035841845,0.029075535,-0.0013392677,0.09966798,0.10416432,-0.022049138,-0.07007749,0.20640284,-0.03674705,2.0,-2.0,-2.0,-2.0,-1.5902706,2.0,2.0,2.0,2.0,-2.0,2.0,2.0,2.0,-2.0,-2.0,-2.0,1.4519557,2.0,2.0,-2.0,2.0,-2.0,-2.0,-2.0
2025-07-21 09:00:52.750,0.9000000000000005,900,45,0.018966846,0.027450336,0.22046643,0.003699943,-0.028211955,0.04205667,0.0,0.0,0.0,0.0,0.36986956,-0.056826647,-0.22458373,-0.37050647,-0.6813917,0.19297153,0.34850124,0.23337622,0.22079948,-0.18096733,0.4635762,0.19707808,-0.034739617,-0.3927296,-0.098610885,-0.043415383,-0.023464002,0.031232446,0.08208969,-0.01712636,0.09619467,-0.044189867,-0.14346255,-0.30168015,2.0,-2.0,-2.0,-2.0,1.4519557,2.0,2.0,-2.0,2.0,-2.0,-2.0,-2.0,2.0,-2.0,-2.0,-0.9900269,2.0,2.0,-2.0,2.0,2.0,-2.0,2.0,-2.0
2025-07-21 09:00:52.765,0.9200000000000005,920,46,0.43736482,0.14147878,-0.0058409693,0.011015457,-0.012474836,-0.010206934,0.0,0.0,0.0,0.0,0.35884184,-0.18724105,-0.23974097,-0.36872765,-0.6532741,0.20473635,0.36381894,0.2774203,0.21818158,-0.2101904,0.46963668,0.11049251,-0.05001556,-0.2468137,0.02921723,-0.012244164,0.14126046,0.0006139732,0.0019698718,0.17668135,-0.029210242,-0.06791098,0.09413347,-0.26991358,2.0,-2.0,-2.0,-0.9900269,2.0,2.0,-2.0,2.0,2.0,-2.0,2.0,-2.0,2.0,-2.0,2.0,2.0,2.0,-0.4296916,-2.0,-2.0,2.0,-2.0,2.0,-2.0
2025-07-21 09:00:52.785,0.9400000000000005,940,47,0.20236468,0.24428925,-0.03119209,-0.1002356,-0.003931639,0.011315799,0.0,0.0,0.0,0.0,0.3482953,-0.3017155,-0.15536937,-0.33928338,-0.59167284,0.14098555,0.34415498,0.30354515,0.22992052,-0.22254153,0.53872067,0.043808673,-0.02291987,-0.32210293,0.2474424,0.052967995,0.17315586,-0.11707431,-0.07834812,0.10661512,-0.0017991428,-0.1213792,0.08433435,-0.2364366,2.0,-2.0,2.0,2.0,2.0,-0.4296916,-2.0,-2.0,2.0,-2.0,2.0,-2.0,2.0,-2.0,2.0,2.0,2.0,-2.0,-2.0,-2.0,2.0,-2.0,-2.0,-2.0
2025-07-21 09:00:52.805,0.9600000000000005,960,48,-0.07593509,-0.060526572,-0.17859156,-0.017688617,-0.0048860414,0.002048348,0.0,0.0,0.0,0.0,0.35497573,-0.40652087,-0.074435286,-0.3251092,-0.5412399,0.07166191,0.3199975,0.33131275,0.25424334,-0.24892646,0.5299827,-0.02036699,0.029651996,-0.22995272,0.26049992,0.0022969334,0.16796285,-0.15280685,-0.048394024,0.054957602,-0.003890508,-0.002843493,-0.05062174,-0.10854207,2.0,-2.0,2.0,2.0,2.0,-2.0,-2.0,-2.0,2.0,-2.0,-2.0,-2.0,2.0,-2.0,2.0,2.0,2.0,-2.0,-2.0,-2.0,1.178112,-2.0,-0.54738724,2.0
2025-07-21 09:00:52.830,0.9800000000000005,980,49,-0.26410824,-0.30747113,-0.22242631,-0.00029049002,-0.0022670352,0.020412931,0.0,0.0,0.0,0.0,0.36366913,-0.47511774,-0.02309619,-0.2885551,-0.49929243,-0.0158474,0.28084862,0.34266284,0.25592956,-0.25934896,0.45786992,0.018675262,-0.011999984,-0.112344086,0.15292229,0.08937041,0.078525856,-0.21570939,-0.10075244,-0.054766238,-0.036412247,0.004022683,-0.28197697,0.08014281,2.0,-2.0,2.0,2.0,2.0,-2.0,-2.0,-2.0,1.178112,-2.0,-0.54738724,2.0,2.0,-2.0,2.0,2.0,2.0,-2.0,-2.0,-2.0,-2.0,-2.0,2.0,2.0
2025-07-21 09:00:52.845,1.0000000000000004,1000,50,-0.19477423,-0.18710433,-0.16323015,-0.013227887,-0.050132923,0.015163718,0.0,0.0,0.0,0.0,0.35287297,-0.5395672,0.03286695,-0.25202695,-0.49215984,-0.079254575,0.24389239,0.3552029,0.16860725,-0.2756443,0.42736328,0.07631204,-0.015541713,-0.07592759,0.19742408,0.06926806,0.067400694,-0.14597075,-0.17788042,0.023914866,-0.18208025,0.008275567,0.0037082885,0.047651954,2.0,-2.0,2.0,2.0,2.0,-2.0,-2.0,-2.0,-2.0,-2.0,2.0,2.0,2.0,-2.0,2.0,-1.5369234,2.0,-2.0,-1.606232,2.0,-2.0,-2.0,-0.3935958,2.0
2025-07-21 09:00:52.865,1.0200000000000005,1020,51,-0.15815297,0.11513886,-0.06021187,-0.024693139,0.018067123,0.028239725,0.0,0.0,0.0,0.0,0.35826087,-0.5960609,0.08065151,-0.25521356,-0.45957538,-0.12592746,0.1759278,0.42786002,0.09409904,-0.2976742,0.40274045,0.10789189,0.09003342,-0.122500956,0.06616909,-0.0034232037,0.11998488,-0.0849107,-0.20519562,0.19087033,-0.22219755,-0.08631114,-0.1450076,0.1747908,2.0,-2.0,2.0,-1.5369234,2.0,-2.0,-1.606232,2.0,-2.0,-2.0,-0.3935958,2.0,2.0,2.0,2.0,-2.0,2.0,-2.0,-2.0,2.0,-2.0,-2.0,2.0,2.0
2025-07-21 09:00:52.885,1.0400000000000005,1040,52,0.25024948,0.32401597,-0.079258636,-0.0220789,-0.053327892,0.005958115,0.0,0.0,0.0,0.0,0.35324442,-0.5922448,0.11879344,-0.28240836,-0.39045528,-0.15791075,0.087817945,0.5007735,0.016656354,-0.30416387,0.4100997,0.15121354,0.04478549,0.078897364,0.08698932,0.027329013,0.22727454,-0.11477786,-0.14817719,0.20168218,-0.19229248,0.040270537,0.1424228,0.05993416,2.0,2.0,2.0,-2.0,2.0,-2.0,-2.0,2.0,-2.0,-2.0,2.0,2.0,2.0,2.0,2.0,-2.0,2.0,-2.0,2.0,2.0,-2.0,2.0,-2.0,2.0
2025-07-21 09:00:52.906,1.0600000000000005,1060,53,0.4178073,-0.17255202,-0.017738285,-0.09722004,0.040443264,-0.02877988,0.0,0.0,0.0,0.0,0.368525,-0.5514027,0.1461891,-0.28675273,-0.29788393,-0.19563168,0.109612495,0.5634632,-0.025022607,-0.26988015,0.448698,0.17929003,0.021111239,0.09451843,0.11346078,-0.078863315,0.18215881,-0.024753008,0.11203406,0.19626448,-0.11855371,0.11775314,0.034240816,0.12765464,2.0,2.0,2.0,-2.0,2.0,-2.0,2.0,2.0,-2.0,2.0,-2.0,2.0,2.0,2.0,2.0,-2.0,-2.0,-2.0,2.0,-2.0,-2.0,2.0,-2.0,2.0
2025-07-21 09:00:52.926,1.0800000000000005,1080,54,0.05736503,-0.21505325,0.09465029,-0.037390813,0.049471226,-0.01843509,0.0,0.0,0.0,0.0,0.38181657,-0.52986044,0.15862624,-0.29790756,-0.28645375,-0.20435748,0.14954042,0.57487667,-0.07216784,-0.21294393,0.45242774,0.2013171,0.0008384864,-0.011495247,-0.028302683,-0.0070893504,-0.12926121,-0.06479431,0.09376859,-0.13043483,-0.11076171,0.15321194,0.018059716,0.033875927,2.0,2.0,2.0,-2.0,-2.0,-2.0,2.0,-2.0,-2.0,2.0,-2.0,2.0,2.0,2.0,-2.0,-2.0,-2.0,2.0,2.0,-2.0,-2.0,-2.0,-2.0,2.0
2025-07-21 09:00:52.946,1.1000000000000005,1100,55,-0.2978307,0.013361446,-0.11389147,-0.037326567,0.026159504,0.010516154,0.0,0.0,0.0,0.0,0.36864507,-0.4702262,0.09238836,-0.31551576,-0.3586161,-0.13988042,0.18080516,0.50903964,-0.11908795,-0.24441428,0.4219915,0.2208009,0.0427448,0.17749742,-0.2251528,-0.026758157,-0.28374586,0.14983523,0.028317777,-0.2940647,-0.017615605,-0.06407786,-0.03281082,0.054588083,2.0,2.0,-2.0,-2.0,-2.0,2.0,2.0,-2.0,-2.0,-2.0,-2.0,2.0,2.0,2.0,-2.0,-2.0,-2.0,2.0,2.0,-2.0,2.0,0.5669091,-2.0,2.0
2025-07-21 09:00:52.966,1.1200000000000006,1120,56,-0.4188329,-0.21501897,0.005749088,-0.004345107,-0.029884588,-0.043705434,0.0,0.0,0.0,0.0,0.3935863,-0.42125922,0.0013816241,-0.31226963,-0.45560086,-0.06341148,0.20134573,0.405483,-0.05592446,-0.20997436,0.37251413,0.23924902,-0.0050837644,0.0661365,-0.12230248,0.01717333,-0.20545624,0.15517938,0.12751973,-0.27196598,0.16940352,0.1409329,-0.17575291,0.057263248,2.0,2.0,-2.0,-2.0,-2.0,2.0,2.0,-2.0,2.0,0.5669091,-2.0,2.0,2.0,2.0,-2.0,-2.0,-2.0,2.0,2.0,-1.6140443,2.0,-2.0,2.0,2.0
2025-07-21 09:00:52.986,1.1400000000000006,1140,57,-0.2483789,0.15658264,0.07609642,-0.0012296868,0.022116644,0.037334606,0.0,0.0,0.0,0.0,0.39359033,-0.35827655,-0.0535664,-0.33636963,-0.5222607,-0.001911378,0.22387236,0.29689077,0.008391859,-0.23337287,0.37840503,0.25650257,0.031662334,0.22056745,-0.06831793,-0.033645395,-0.14839761,0.11754363,-0.0043564,-0.14824516,0.08312813,-0.041296355,0.19188729,0.03623705,2.0,2.0,-2.0,-2.0,-2.0,2.0,2.0,-1.6140443,2.0,-2.0,2.0,2.0,2.0,2.0,-2.0,-2.0,-2.0,2.0,2.0,2.0,2.0,2.0,-2.0,2.0
2025-07-21 09:00:53.006,1.1600000000000006,1160,58,-0.0145654855,-0.1492938,-0.11538698,0.053889416,-0.010241334,0.003150313,0.0,0.0,0.0,0.0,0.38695708,-0.27095202,-0.09499272,-0.34548137,-0.57531595,0.047575466,0.25782007,0.28302544,0.05987286,-0.16460113,0.3788138,0.27192247,0.08369211,0.190981,-0.13414611,-0.07493096,-0.19245328,0.08982178,0.09655066,0.16309598,0.18378504,0.27237755,-0.093607605,0.094109274,2.0,2.0,-2.0,-2.0,-2.0,2.0,2.0,2.0,2.0,2.0,-2.0,2.0,2.0,2.0,-2.0,-2.0,-2.0,2.0,2.0,-2.0,2.0,2.0,2.0,2.0
2025-07-21 09:00:53.026,1.1800000000000006,1180,59,0.20210359,-0.08764025,0.01583041,0.061712734,0.03219612,-0.046038337,0.0,0.0,0.0,0.0,0.37731597,-0.16219914,-0.13910906,-0.34338608,-0.6151158,0.08365487,0.27953324,0.2793921,0.10117422,-0.09451806,0.38643134,0.2823245,-0.038166553,0.33907425,-0.14551863,-0.010928607,-0.08362097,0.03631647,0.018852225,-0.16126812,0.13395359,0.14178194,0.12002376,-0.03654818,2.0,2.0,-2.0,-2.0,-2.0,2.0,2.0,-2.0,2.0,2.0,2.0,2.0,2.0,2.0,-2.0,-2.0,-2.0,2.0,2.0,-2.0,2.0,2.0,2.0,2.0
2025-07-21 09:00:53.046,1.2000000000000006,1200,60,-0.03218675,0.042106338,0.091886975,0.036977306,0.027117686,0.014964573,0.0,0.0,0.0,0.0,0.38862625,-0.028697887,-0.16573577,-0.34099472,-0.6627977,0.12399325,0.29227605,0.21769339,0.14269583,-0.014457507,0.46571875,0.28920567,0.022568738,0.32575372,-0.03987697,0.051076584,-0.15551077,0.072560556,0.11131541,-0.1853148,0.12099668,0.23034582,0.16128787,0.06539879,2.0,2.0,-2.0,-2.0,-2.0,2.0,2.0,-2.0,2.0,2.0,2.0,2.0,2.0,2.0,-2.0,-2.0,-2.0,2.0,2.0,2.0,2.0,0.6460371,2.0,2.0
2025-07-21 09:00:53.066,1.2200000000000006,1220,61,0.17297415,0.06645248,-0.05477218,-0.015272608,0.046493653,0.020216664,0.0,0.0,0.0,0.0,0.3802109,0.13178027,-0.19821933,-0.3539121,-0.69406885,0.16218683,0.31200445,0.2333896,0.16176999,0.014780866,0.5334603,0.2901645,-0.014803489,0.41787574,-0.08943041,0.031362075,-0.14640413,0.027637297,0.10650155,0.1437084,0.09046305,-0.02686793,0.08118096,-0.010269492,2.0,2.0,-2.0,-2.0,-2.0,2.0,2.0,2.0,2.0,0.6460371,2.0,2.0,2.0,-2.0,-2.0,-2.0,0.05282577,2.0,2.0,-2.0,2.0,-2.0,2.0,2.0
2025-07-21 09:00:53.088,1.2400000000000007,1240,62,0.0348291,0.14463772,0.19697617,0.03889677,-0.04008092,0.018046392,0.0,0.0,0.0,0.0,0.3652982,0.1705337,-0.21473615,-0.3542629,-0.69486123,0.16994247,0.314391,0.25172943,0.20395017,-0.03423269,0.5827665,0.28857982,-0.055517722,-0.0027556596,-0.09001315,-0.08133198,0.0043749693,0.077589035,0.016199013,0.05915292,0.11586496,-0.10234326,0.063247725,-0.043897912,2.0,-2.0,-2.0,-2.0,0.05282577,2.0,2.0,-2.0,2.0,-2.0,2.0,2.0,2.0,-2.0,-2.0,-2.0,2.0,2.0,2.0,2.0,2.0,-2.0,2.0,-2.0
2025-07-21 09:00:53.106,1.2600000000000007,1260,63,0.3043822,0.21398798,0.09248644,-0.011411556,-0.032612484,0.049973447,0.0,0.0,0.0,0.0,0.3598529,0.112399116,-0.23738328,-0.36785197,-0.66574705,0.18290888,0.33511257,0.28047287,0.21367994,-0.09089081,0.6320703,0.19423401,0.011587543,-0.25573194,-0.10974856,0.06631755,0.14811754,0.012404443,-0.02575373,0.20449655,0.0619982,-0.09453732,0.035801265,-0.28701487,2.0,-2.0,-2.0,-2.0,2.0,2.0,2.0,2.0,2.0,-2.0,2.0,-2.0,2.0,-2.0,-2.0,-2.0,2.0,2.0,-2.0,-2.0,2.0,-2.0,-2.0,-2.0
2025-07-21 09:00:53.129,1.2800000000000007,1280,64,0.094313145,0.1979917,0.18039992,-0.07507938,0.011632446,0.02834024,0.0,0.0,0.0,0.0,0.36017865,-0.022248767,-0.24530175,-0.37390783,-0.64276695,0.20638017,0.3328297,0.31196558,0.2225887,-0.13807917,0.61577016,0.12534927,-0.06242381,-0.40258875,-0.08343475,0.024254728,-0.014073027,0.027468152,0.008467716,-0.011837226,0.05182777,-0.039642252,-0.20702562,-0.22837175,2.0,-2.0,-2.0,-2.0,2.0,2.0,-2.0,-2.0,2.0,-2.0,-2.0,-2.0,2.0,-2.0,-2.0,2.0,2.0,2.0,-2.0,-2.0,2.0,-2.0,2.0,-2.0
2025-07-21 09:00:53.146,1.3000000000000007,1300,65,0.11256654,0.24709174,0.11732284,-0.10964031,-0.0502228,-0.035101626,0.0,0.0,0.0,0.0,0.35446894,-0.15266559,-0.24932194,-0.3980813,-0.6155712,0.19846275,0.3352715,0.31450605,0.2512925,-0.17484757,0.6066501,0.03589735,-0.01772531,-0.26449203,-0.098970085,0.006166171,0.025528021,0.037889533,-0.023898726,0.054580707,0.05992262,-0.014193783,0.07451697,-0.23432437,2.0,-2.0,-2.0,2.0,2.0,2.0,-2.0,-2.0,2.0,-2.0,2.0,-2.0,2.0,-2.0,-0.23062299,2.0,2.0,-2.0,-2.0,-2.0,2.0,-2.0,2.0,-2.0
2025-07-21 09:00:53.166,1.3200000000000007,1320,66,-0.032447267,0.26625767,0.06475843,-0.030054202,0.0069335746,-0.035872836,0.0,0.0,0.0,0.0,0.34412163,-0.2788969,-0.22307506,-0.3969205,-0.5662851,0.11687498,0.34482136,0.31154656,0.25843036,-0.19909683,0.63934124,-0.028786136,-0.035946734,-0.22556685,0.13024002,0.029836278,0.06827881,-0.2614816,0.0019645756,-0.035151683,0.0938689,-0.0685601,0.041582834,-0.114721306,2.0,-2.0,-0.23062299,2.0,2.0,-2.0,-2.0,-2.0,2.0,-2.0,2.0,-2.0,2.0,-2.0,2.0,2.0,2.0,-2.0,-2.0,-2.0,2.0,-2.0,-2.0,-0.8795943
2025-07-21 09:00:53.186,1.3400000000000007,1340,67,-0.1789142,-0.04898199,-0.008647488,-0.09753337,-0.057140447,-0.048690032,0.0,0.0,0.0,0.0,0.35970855,-0.379524,-0.14028399,-0.38155714,-0.5128223,0.028736304,0.33085725,0.29746774,0.27388564,-0.21301112,0.6262408,-0.043479893,0.028479708,-0.22475488,0.16583858,0.09351791,0.13139415,-0.21070434,-0.011449537,-0.067415565,0.04104542,-0.124907985,-0.06478054,0.040412366,2.0,-2.0,2.0,2.0,2.0,-2.0,-2.0,-2.0,2.0,-2.0,-2.0,-0.8795943,2.0,-2.0,2.0,2.0,2.0,-2.0,-2.0,-2.0,-2.0,-2.0,-2.0,2.0
2025-07-21 09:00:53.207,1.3600000000000008,1360,68,-0.3218709,-0.3485233,-0.017529417,-0.0716999,-0.07369505,0.031251546,0.0,0.0,0.0,0.0,0.35766578,-0.45679212,-0.05050291,-0.36485204,-0.49776727,-0.029936237,0.2852898,0.30068725,0.2122703,-0.23927997,0.5377751,0.016999522,0.026734166,-0.24482954,0.21098748,0.02687681,-0.026188364,-0.16624366,-0.046990544,-0.009190993,-0.24296798,-0.07195194,-0.34861076,0.12441448,2.0,-2.0,2.0,2.0,2.0,-2.0,-2.0,-2.0,-2.0,-2.0,-2.0,2.0,2.0,-2.0,2.0,0.5014654,2.0,-2.0,-2.0,2.0,-2.0,-2.0,2.0,2.0
2025-07-21 09:00:53.232,1.3800000000000008,1380,69,0.072798066,-0.28250515,-0.14901769,-0.022002444,-0.058010146,0.008902108,0.0,0.0,0.0,0.0,0.35233083,-0.5370753,0.009909185,-0.3221365,-0.46967947,-0.08182204,0.23660664,0.36511546,0.1086672,-0.2605024,0.5076966,0.050875835,-0.015245093,-0.20993996,0.1466428,0.13720517,0.026523221,-0.116444506,-0.09950362,0.18635137,-0.23660284,0.012634128,-0.00941684,0.16296849,2.0,-2.0,2.0,0.5014654,2.0,-2.0,-2.0,2.0,-2.0,-2.0,2.0,2.0,2.0,-2.0,2.0,-1.7360044,2.0,-2.0,-2.0,-2.0,-2.0,-2.0,2.0,2.0
2025-07-21 09:00:53.247,1.4000000000000008,1400,70,-0.18671484,0.16894263,-0.066353,-0.03403717,-0.06441534,0.004842525,0.0,0.0,0.0,0.0,0.34444627,-0.57299644,0.06750008,-0.32795614,-0.43933806,-0.13261501,0.181271,0.40964457,0.046796788,-0.27066582,0.55913275,0.101875566,0.00560596,-0.054503288,0.084114656,-0.06752,0.14942603,-0.15381116,-0.25868073,0.021614995,-0.1853222,-0.096299954,0.1504704,0.16511567,2.0,-2.0,2.0,-1.7360044,2.0,-2.0,-2.0,-2.0,-2.0,-2.0,2.0,2.0,2.0,0.6531003,2.0,-2.0,2.0,-2.0,1.9490471,2.0,-2.0,2.0,-2.0,2.0
2025-07-21 09:00:53.267,1.4200000000000008,1420,71,0.29343477,-0.023337163,-0.017623749,-0.06405637,-0.052748255,-0.018516721,0.0,0.0,0.0,0.0,0.36836484,-0.5932369,0.083391935,-0.31986603,-0.370747,-0.17937899,0.19008404,0.4798722,-0.008745767,-0.22639303,0.57413775,0.13878429,0.044745892,0.046377737,0.029396681,0.02637189,0.2099446,-0.0831354,0.038954884,0.15152694,-0.17578779,0.25975525,-0.07826334,0.03053324,2.0,0.6531003,2.0,-2.0,2.0,-2.0,1.9490471,2.0,-2.0,2.0,-2.0,2.0,2.0,2.0,2.0,-2.0,-2.0,-2.0,2.0,2.0,-2.0,2.0,-2.0,2.0
2025-07-21 09:00:53.287,1.4400000000000008,1440,72,0.29300922,-0.10476208,-0.15542842,-0.023996154,0.023289587,0.03497836,0.0,0.0,0.0,0.0,0.3716919,-0.55996585,0.11446584,-0.33532405,-0.3634289,-0.19673656,0.21285962,0.53335935,-0.070447065,-0.13018294,0.5073443,0.1780232,0.008725629,0.09309283,0.019605154,0.018494518,-0.047016088,0.008130018,0.028432943,0.08449965,-0.12451477,0.17123474,-0.0788114,0.05171879,2.0,2.0,2.0,-2.0,-2.0,-2.0,2.0,2.0,-2.0,2.0,-2.0,2.0,2.0,2.0,-2.0,-2.0,-2.0,2.0,2.0,-2.0,-2.0,2.0,-2.0,2.0
2025-07-21 09:00:53.307,1.4600000000000009,1460,73,-0.019921038,-0.43570426,0.0746211,0.011848685,0.04591444,-0.03559171,0.0,0.0,0.0,0.0,0.37374598,-0.51422143,0.046582565,-0.3452036,-0.4448991,-0.12990345,0.23342888,0.5127866,-0.11669363,-0.09931343,0.48956898,0.2141289,0.017624838,0.1454093,-0.15261742,0.0042656614,-0.23248535,0.16144885,0.126053,-0.17963,-0.10822724,0.11979288,-0.10558869,0.12690656,2.0,2.0,-2.0,-2.0,-2.0,2.0,2.0,-2.0,-2.0,2.0,-2.0,2.0,2.0,2.0,-2.0,-2.0,-2.0,2.0,2.0,-2.0,2.0,-2.0,2.0,2.0
2025-07-21 09:00:53.328,1.4800000000000009,1480,74,-0.0602807,0.28201124,0.081917346,-0.0011276058,0.005857119,-0.03739648,0.0,0.0,0.0,0.0,0.3777726,-0.42481852,-0.0072132386,-0.3389196,-0.50804555,-0.046668097,0.24858068,0.42484754,-0.052478567,-0.12607329,0.52254254,0.2211127,-0.03616133,0.17436643,-0.10414311,0.002089214,-0.20716597,0.15370087,0.07605039,-0.22176053,0.20869201,-0.13224828,0.09292018,0.033868358,2.0,2.0,-2.0,-2.0,-2.0,2.0,2.0,-2.0,2.0,-2.0,2.0,2.0,2.0,2.0,-2.0,-2.0,-2.0,2.0,2.0,1.9717492,2.0,-1.294718,-2.0,2.0
2025-07-21 09:00:53.347,1.5000000000000009,1500,75,0.080450304,0.05676709,-0.13994308,-0.050823174,0.019449195,-0.016145483,0.0,0.0,0.0,0.0,0.384513,-0.35331222,-0.06480748,-0.33974317,-0.5768937,0.012087318,0.271844,0.4123624,0.005048868,-0.1332093,0.53189963,0.2379938,0.06334735,0.1481005,-0.073742986,-0.07320337,-0.1046201,0.053281296,0.05580168,0.12020967,0.097193286,0.0062816655,0.04281299,-0.011533151,2.0,2.0,-2.0,-2.0,-2.0,2.0,2.0,1.9717492,2.0,-1.294718,-2.0,2.0,2.0,2.0,-2.0,-2.0,-2.0,2.0,2.0,-2.0,2.0,2.0,-2.0,2.0
2025-07-21 09:00:53.367,1.520000000000001,1520,76,-0.10367102,-0.2115335,0.010772697,-0.019100603,-0.014464007,0.008519,0.0,0.0,0.0,0.0,0.3839869,-0.2843792,-0.12880084,-0.35280687,-0.61911696,0.049364306,0.29542544,0.40534082,0.053308077,-0.11653094,0.53306764,0.2589661,0.01055819,0.115515225,-0.17329898,0.015520804,-0.18070348,0.05196977,0.104495645,-0.061494812,0.18901636,0.124821395,-0.08990857,0.09059664,2.0,2.0,-2.0,-2.0,-2.0,2.0,2.0,-2.0,2.0,2.0,-2.0,2.0,2.0,2.0,-2.0,-2.0,-2.0,2.0,2.0,-2.0,2.0,2.0,2.0,2.0
2025-07-21 09:00:53.390,1.540000000000001,1540,77,-0.12628657,0.0047890143,0.15461314,-0.0467127,-0.008457603,-0.02716717,0.0,0.0,0.0,0.0,0.3851831,-0.21702437,-0.15351391,-0.35644865,-0.65183747,0.09985385,0.30612716,0.36961514,0.112858355,-0.049344677,0.5589487,0.262151,-0.008205231,0.16382171,-0.16209722,-0.047227856,-0.050731428,0.0886521,0.093163304,-0.15641771,0.14492197,0.2389301,0.07278635,-0.039766844,2.0,2.0,-2.0,-2.0,-2.0,2.0,2.0,-2.0,2.0,2.0,2.0,2.0,2.0,2.0,-2.0,-2.0,-2.0,2.0,2.0,-2.0,2.0,-0.6225836,2.0,2.0
2025-07-21 09:00:53.407,1.560000000000001,1560,78,-0.047086477,0.019132208,0.113035075,0.00909134,0.03713872,0.014171516,0.0,0.0,0.0,0.0,0.39270037,-0.13016567,-0.1935698,-0.36403793,-0.6912375,0.12109849,0.31066602,0.33013198,0.1527401,-0.038291793,0.61715096,0.26717445,0.07681941,0.20043312,-0.1281709,0.018052472,-0.033261806,0.073697634,-0.036461193,-0.044129465,0.11373556,-0.0070716348,0.17034361,0.03713777,2.0,2.0,-2.0,-2.0,-2.0,2.0,2.0,-2.0,2.0,-0.6225836,2.0,2.0,2.0,2.0,-2.0,-2.0,-2.0,2.0,2.0,-2.0,2.0,0.08677218,-2.0,2.0
2025-07-21 09:00:53.427,1.580000000000001,1580,79,-0.13054945,-0.031097813,0.053479772,-0.022123894,-0.042144887,-0.037462506,0.0,0.0,0.0,0.0,0.39487782,-0.007396182,-0.22017364,-0.3830123,-0.7234766,0.1509645,0.3305057,0.2672771,0.16990113,-0.030166285,0.587407,0.280601,-0.037923682,0.31236672,-0.07073208,-0.0009828459,-0.08778597,0.08835289,-0.026129298,-0.1268037,0.0727658,0.059199277,-0.22478975,-0.0031568666,2.0,2.0,-2.0,-2.0,-2.0,2.0,2.0,-2.0,2.0,0.08677218,-2.0,2.0,2.0,-2.0,-2.0,-2.0,2.0,2.0,2.0,2.0,2.0,-2.0,2.0,2.0
2025-07-21 09:00:53.450,1.600000000000001,1600,80,0.21287887,0.19423221,0.08182786,0.02482837,-0.026552016,-0.016694661,0.0,0.0,0.0,0.0,0.3706101,0.021699628,-0.22490999,-0.38462937,-0.7151344,0.18446481,0.34148133,0.27861857,0.20761475,-0.086879775,0.5910023,0.2916014,0.038561843,-0.06611258,0.0012352662,0.0064140214,0.12087249,0.013703126,-0.018042037,0.10859827,-0.01700281,-0.09716069,0.14163412,-0.0015585352,2.0,-2.0,-2.0,-2.0,2.0,2.0,2.0,2.0,2.0,-2.0,2.0,2.0,2.0,-2.0,-2.0,-2.0,-1.5193087,2.0,2.0,-1.9969593,2.0,-2.0,-2.0,-2.0
2025-07-21 09:00:53.467,1.620000000000001,1620,81,-0.04245719,0.016050845,0.10514905,0.009981432,-0.019808438,-0.019543916,0.0,0.0,0.0,0.0,0.38367414,-0.0392055,-0.24432887,-0.3883928,-0.69424266,0.19132276,0.34092274,0.295643,0.22720553,-0.13104594,0.58079666,0.20606264,0.01196996,-0.28725338,-0.07724945,0.0076527456,0.057703946,0.08431303,0.032263055,-0.100449905,-0.005250926,-0.038423553,-0.14236388,-0.21580103,2.0,-2.0,-2.0,-2.0,-1.5193087,2.0,2.0,-1.9969593,2.0,-2.0,-2.0,-2.0,2.0,-2.0,-2.0,-2.0,2.0,2.0,2.0,2.0,2.0,-2.0,2.0,-2.0
2025-07-21 09:00:53.487,1.640000000000001,1640,82,0.2675144,0.15522818,0.04265737,-0.04604536,0.054607045,0.012203466,0.0,0.0,0.0,0.0,0.3778714,-0.18197118,-0.2557862,-0.38345507,-0.67610145,0.20584738,0.35760617,0.32562596,0.23183545,-0.16558585,0.59638774,0.10394853,0.010104276,-0.38456008,0.020019788,-0.041049678,0.13152105,0.0640633,0.026380304,0.18692431,0.04930025,-0.04082277,0.09766634,-0.17815414,2.0,-2.0,-2.0,-2.0,2.0,2.0,2.0,2.0,2.0,-2.0,2.0,-2.0,2.0,-2.0,2.0,2.0,2.0,-2.0,-2.0,-2.0,2.0,-2.0,2.0,-2.0
2025-07-21 09:00:53.511,1.660000000000001,1660,83,0.091213025,0.2835634,-0.0306552,-0.09149815,-0.044348866,-0.00086823857,0.0,0.0,0.0,0.0,0.3707711,-0.29164174,-0.1674883,-0.36890563,-0.6059086,0.11586046,0.35022223,0.35542372,0.25611538,-0.1978354,0.626636,0.03412432,0.03598709,-0.28856063,0.3026955,0.11973988,0.13970211,-0.25779247,0.016742356,0.09537606,0.1008937,-0.1331583,0.092427745,-0.13361832,2.0,-2.0,2.0,2.0,2.0,-2.0,-2.0,-2.0,2.0,-2.0,2.0,-2.0,2.0,-2.0,2.0,2.0,2.0,-2.0,-2.0,-2.0,2.0,-2.0,-2.0,2.0
2025-07-21 09:00:53.528,1.680000000000001,1680,84,-0.10634102,0.09605607,-0.11003914,-0.08954509,-0.018190093,0.032270998,0.0,0.0,0.0,0.0,0.36839616,-0.39015806,-0.09288724,-0.3467549,-0.5546527,0.034887142,0.32133937,0.3731707,0.26215798,-0.2215827,0.6041584,0.074757196,0.035738952,-0.16179515,0.20233448,0.10834727,0.09928148,-0.18234399,-0.12493269,-0.0485144,-0.006243158,0.003629043,-0.24004754,0.1926627,2.0,-2.0,2.0,2.0,2.0,-2.0,-2.0,-2.0,2.0,-2.0,-2.0,2.0,2.0,-2.0,2.0,2.0,2.0,-2.0,-2.0,-2.0,-2.0,-2.0,2.0,2.0
2025-07-21 09:00:53.548,1.700000000000001,1700,85,-0.078210846,0.17074229,-0.026521316,-0.039188974,0.002351184,-0.029342752,0.0,0.0,0.0,0.0,0.36414784,-0.4603838,-0.009131716,-0.3244536,-0.5020049,-0.028862555,0.2935417,0.4035156,0.20265804,-0.23365533,0.58175397,0.10669206,0.05217748,-0.14032362,0.114206314,0.08571026,0.04145,-0.09520954,-0.1439149,0.10896488,-0.21940465,-0.09912993,0.06596281,0.11232796,2.0,-2.0,2.0,2.0,2.0,-2.0,-2.0,-2.0,-2.0,-2.0,2.0,2.0,2.0,-2.0,2.0,2.0,2.0,-2.0,-2.0,-0.5214091,-2.0,-2.0,-2.0,2.0
2025-07-21 09:00:53.571,1.720000000000001,1720,86,-0.14157793,-0.14138901,-0.086782075,-0.08843008,0.020530133,0.004034952,0.0,0.0,0.0,0.0,0.35150662,-0.5336219,0.03949952,-0.29153678,-0.48310423,-0.09087294,0.2538426,0.4257995,0.10803528,-0.25988033,0.54501784,0.15389094,0.009599876,-0.13525456,0.164764,0.10630177,0.09925902,-0.063282125,-0.07965953,0.08847553,-0.13576671,-0.017550953,-0.21971768,0.08479329,2.0,-2.0,2.0,2.0,2.0,-2.0,-2.0,-0.5214091,-2.0,-2.0,-2.0,2.0,2.0,-2.0,2.0,-2.0,2.0,-2.0,-2.0,2.0,-2.0,-2.0,2.0,2.0
2025-07-21 09:00:53.588,1.740000000000001,1740,87,-0.08003726,0.2378266,-0.028741501,-0.058091667,-0.0904045,-0.036095627,0.0,0.0,0.0,0.0,0.35794318,-0.5849365,0.085996576,-0.30846488,-0.4520148,-0.13481939,0.19495769,0.4719253,0.03969371,-0.28160396,0.55693376,0.18220241,0.0035585645,-0.101217575,0.15033026,-0.0295107,0.10364739,-0.1745079,-0.12436028,0.22589552,-0.1456438,-0.05800653,0.20378938,0.11601515,2.0,-2.0,2.0,-2.0,2.0,-2.0,-2.0,2.0,-2.0,-2.0,2.0,2.0,2.0,-2.0,2.0,-2.0,2.0,-2.0,-1.1627932,0.05361597,-2.0,-1.5937779,-2.0,2.0
2025-07-21 09:00:53.608,1.7600000000000011,1760,88,-0.21025835,-0.0066282684,0.015196019,-0.07224299,-0.10129873,-0.027830668,0.0,0.0,0.0,0.0,0.34406748,-0.6275938,0.12159875,-0.32818404,-0.39371464,-0.17505413,0.14421934,0.5166875,-0.0198383,-0.27918556,0.5462395,0.19281822,0.007725387,-0.08979484,0.082025446,-0.09740482,0.014747933,-0.09199334,-0.17691027,0.023240175,-0.1894591,-0.005351424,-0.14322789,0.007276093,2.0,-2.0,2.0,-2.0,2.0,-2.0,-1.1627932,0.05361597,-2.0,-1.5937779,-2.0,2.0,2.0,2.0,2.0,-2.0,2.0,-2.0,-2.0,2.0,-2.0,-2.0,-1.9507056,2.0
2025-07-21 09:00:53.633,1.7800000000000011,1780,89,0.010052731,0.020948188,-0.20912747,-0.0029731584,-0.07001638,-0.014450915,0.0,0.0,0.0,0.0,0.35638872,-0.6222036,0.15607357,-0.33989877,-0.36163604,-0.20539089,0.06879499,0.5687804,-0.066072226,-0.29490086,0.48573092,0.23069249,0.064503126,0.00067140243,0.033790138,0.043086722,0.17473173,-0.008314947,-0.20993951,0.06391474,-0.18203641,-0.050866242,-0.06871625,0.01674323,2.0,2.0,2.0,-2.0,2.0,-2.0,-2.0,2.0,-2.0,-2.0,-1.9507056,2.0,2.0,2.0,2.0,-2.0,1.6742443,-2.0,2.0,2.0,-2.0,2.0,-2.0,2.0
2025-07-21 09:00:53.648,1.8000000000000012,1800,90,0.27147532,-0.2914709,-0.010010521,-0.06830787,-0.012176476,-0.02412548,0.0,0.0,0.0,0.0,0.37126085,-0.597792,0.17344676,-0.32980204,-0.30354425,-0.24204293,0.08234209,0.6172794,-0.11232653,-0.271658,0.46109736,0.24468069,-0.0049592857,0.07313363,-0.0131221125,0.01916833,0.14654058,-0.02867097,0.09338662,0.087215535,-0.053507444,0.05686404,-0.07041277,0.09144935,2.0,2.0,2.0,-2.0,1.6742443,-2.0,2.0,2.0,-2.0,2.0,-2.0,2.0,2.0,2.0,2.0,-2.0,-2.0,-2.0,2.0,-2.0,-2.0,2.0,-2.0,2.0
2025-07-21 09:00:53.668,1.8200000000000012,1820,91,0.10270986,-0.22545488,0.006101839,-0.08532068,-0.023575384,0.015666176,0.0,0.0,0.0,0.0,0.39228243,-0.5963944,0.17753963,-0.32794067,-0.2919966,-0.25704393,0.13617186,0.59222704,-0.14561728,-0.24326779,0.46588376,0.25633544,0.081535645,-0.02432627,0.030967064,-0.039244138,-0.094495215,-0.04639796,0.09250591,-0.21576023,-0.12976778,0.10072542,-0.06047853,-0.03005512,2.0,2.0,2.0,-2.0,-2.0,-2.0,2.0,-2.0,-2.0,2.0,-2.0,2.0,2.0,2.0,-2.0,-2.0,-2.0,2.0,2.0,-2.0,-2.0,-2.0,-2.0,2.0
2025-07-21 09:00:53.688,1.8400000000000012,1840,92,-0.274332,-0.014143052,-0.09554307,-0.06899666,-0.056308106,0.03910033,0.0,0.0,0.0,0.0,0.37650192,-0.53349686,0.10914556,-0.3358838,-0.38572955,-0.16001569,0.15693516,0.52129006,-0.1685059,-0.27136624,0.42571503,0.27463424,0.07124689,0.075584754,-0.16422646,-0.037417896,-0.25244176,0.2766878,0.098493375,-0.14552312,0.012503143,-0.10014574,-0.14988853,0.009207233,2.0,2.0,-2.0,-2.0,-2.0,2.0,2.0,-2.0,-2.0,-2.0,-2.0,2.0,2.0,2.0,-2.0,-2.0,-2.0,2.0,2.0,-2.0,2.0,-1.5471938,2.0,2.0
2025-07-21 09:00:53.708,1.8600000000000012,1860,93,-0.07884993,0.0121032335,0.006435568,-0.02911716,0.0005353659,-0.029581718,0.0,0.0,0.0,0.0,0.38063166,-0.4774324,0.015872141,-0.3444869,-0.4663582,-0.08589476,0.18858309,0.44234166,-0.09620101,-0.2713064,0.43702728,0.2874696,0.010407157,0.101299204,-0.19344139,-0.07975772,-0.185632,0.23562899,0.12663732,-0.15594982,0.15552215,-0.046657212,0.15306926,-0.0015643775,2.0,2.0,-2.0,-2.0,-2.0,2.0,2.0,-2.0,2.0,-1.5471938,2.0,2.0,2.0,2.0,-2.0,-2.0,-2.0,2.0,2.0,-2.0,2.0,2.0,-2.0,2.0
2025-07-21 09:00:53.728,1.8800000000000012,1880,94,-0.17065467,-0.15681559,0.00912573,0.043103337,-0.023899956,0.041187048,0.0,0.0,0.0,0.0,0.38400042,-0.39997494,-0.046014678,-0.3495684,-0.5319012,-0.027538579,0.22857723,0.35156333,-0.03237077,-0.20157404,0.43531767,0.28833574,-0.028396536,0.13434084,-0.20253304,0.029813439,-0.16457985,0.17753242,0.06971069,-0.19664104,0.15835612,0.20111433,-0.09758257,0.00079338305,2.0,2.0,-2.0,-2.0,-2.0,2.0,2.0,-2.0,2.0,2.0,-2.0,2.0,2.0,2.0,-2.0,-2.0,-2.0,2.0,2.0,-2.0,2.0,2.0,2.0,2.0
2025-07-21 09:00:53.753,1.9000000000000012,1900,95,-0.04144958,0.01863803,0.1576226,0.046439573,-0.06558716,0.004570229,0.0,0.0,0.0,0.0,0.38590536,-0.34023008,-0.0939512,-0.35490006,-0.5848497,0.036156718,0.24921411,0.27042347,0.043368403,-0.105071366,0.4587607,0.28836817,0.053659014,0.15472265,-0.17479324,-0.0879839,-0.07938135,0.066527665,0.033191394,-0.23619911,0.15936774,0.18670449,0.21467146,-0.02907448,2.0,2.0,-2.0,-2.0,-2.0,2.0,2.0,-2.0,2.0,2.0,2.0,2.0,2.0,2.0,-2.0,-2.0,-2.0,2.0,2.0,2.0,2.0,2.0,-2.0,2.0
2025-07-21 09:00:53.768,1.9200000000000013,1920,96,0.044215262,-0.07076023,-0.03746678,0.03324431,0.007852619,0.029903445,0.0,0.0,0.0,0.0,0.37635288,-0.2336904,-0.14223044,-0.3560081,-0.630173,0.0821354,0.2627867,0.27392882,0.07556024,-0.023471989,0.46407682,0.2895513,0.023163863,0.33599636,-0.09263649,0.06741461,-0.12166012,0.063240886,-0.018609738,0.13708687,0.06780721,0.10655693,-0.13462675,-0.054134496,2.0,2.0,-2.0,-2.0,-2.0,2.0,2.0,2.0,2.0,2.0,-2.0,2.0,2.0,2.0,-2.0,-2.0,-2.0,2.0,2.0,-2.0,2.0,0.752434,2.0,2.0
2025-07-21 09:00:53.788,1.9400000000000013,1940,97,0.018035447,0.07913159,0.034988586,-0.0035514643,-0.014889589,0.026713086,0.0,0.0,0.0,0.0,0.3779013,-0.098966606,-0.17529668,-0.3668879,-0.66521305,0.11658425,0.27575752,0.26326597,0.12646395,0.0013938433,0.46443284,0.29844183,-0.0385393,0.34612933,-0.06124414,0.026784899,-0.0149186915,0.04095241,0.0980973,0.0059291827,0.10655253,0.13154116,0.114723295,-0.0066804425,2.0,2.0,-2.0,-2.0,-2.0,2.0,2.0,-2.0,2.0,0.752434,2.0,2.0,2.0,-2.0,-2.0,-2.0,-2.0,2.0,2.0,-2.0,2.0,-0.21767834,2.0,2.0
2025-07-21 09:00:53.809,1.9600000000000013,1960,98,-0.18905507,0.009092589,0.20636156,-0.0135110635,-0.06802172,0.039156254,0.0,0.0,0.0,0.0,0.37410983,-0.043525793,-0.19016649,-0.37108162,-0.7043623,0.15348856,0.3050753,0.23562464,0.15593915,0.0031995138,0.5422749,0.29985493,0.0025530136,0.011675117,-0.0069095152,-0.035008073,-0.07188679,0.1319956,0.0071725617,-0.08440901,0.066435225,-0.007041436,0.18200447,0.025758708,2.0,-2.0,-2.0,-2.0,-2.0,2.0,2.0,-2.0,2.0,-0.21767834,2.0,2.0,2.0,-0.23090097,-2.0,-2.0,0.27263865,2.0,2.0,2.0,2.0,-2.0,-2.0,2.0
2025-07-21 09:00:53.829,1.9800000000000013,1980,99,0.14583737,-0.14822869,0.18760748,-0.020444905,-0.017069032,-0.03661059,0.0,0.0,0.0,0.0,0.37429115,-0.04690815,-0.21777768,-0.3726989,-0.7010463,0.17320122,0.3035928,0.2620908,0.1739738,-0.055711057,0.544193,0.29699478,-0.020893045,-0.008418118,-0.090893365,0.06835461,0.043878924,0.015856916,-0.026794275,0.13535352,0.03059683,-0.14756736,-0.07236022,0.022248037,2.0,-0.23090097,-2.0,-2.0,0.27263865,2.0,2.0,2.0,2.0,-2.0,-2.0,2.0,2.0,-2.0,-2.0,-2.0,-2.0,2.0,2.0,2.0,2.0,-2.0,-2.0,-0.94910145
2025-07-21 09:00:53.849,2.0000000000000013,2000,100,0.11272187,-0.16400637,0.13698517,-0.013005136,0.0052156127,-0.019848175,0.0,0.0,0.0,0.0,0.365774,-0.10601779,-0.21970385,-0.36931336,-0.7318324,0.18359336,0.321797,0.3381587,0.19912729,-0.11332615,0.46680668,0.23879205,0.07101001,-0.1050739,-0.0717328,-0.009094919,-0.09005585,0.082919374,0.059447963,0.20245896,0.11727598,-0.1820698,-0.2093569,-0.21371457,2.0,-2.0,-2.0,-2.0,-2.0,2.0,2.0,2.0,2.0,-2.0,-2.0,-0.94910145,2.0,-2.0,-2.0,-2.0,2.0,2.0,0.4719889,1.5956815,2.0,-2.0,2.0,-2.0
2025-07-21 09:00:53.869,2.0200000000000014,2020,101,0.31292304,-0.1010813,0.19103007,-0.02568195,-0.0017601389,0.029772013,0.0,0.0,0.0,0.0,0.3651126,-0.17223364,-0.25036532,-0.37974587,-0.7138229,0.19627333,0.27541122,0.39773923,0.22557613,-0.13675316,0.43367112,0.14575125,-0.06843345,-0.31407443,-0.058633193,-0.05922191,0.13958882,0.033418234,-0.015666831,0.19688514,0.10298445,-0.15681814,0.10990664,-0.16177231,2.0,-2.0,-2.0,-2.0,2.0,2.0,0.4719889,1.5956815,2.0,-2.0,2.0,-2.0,2.0,-2.0,2.0,2.0,2.0,-2.0,-2.0,-2.0,2.0,-2.0,2.0,-2.0
2025-07-21 09:00:53.889,2.0400000000000014,2040,102,0.04474254,0.35575897,0.10922182,-0.01028497,0.0072246566,-0.01398476,0.0,0.0,0.0,0.0,0.36313924,-0.29161796,-0.1568167,-0.364045,-0.66901004,0.116931945,0.23978063,0.42663434,0.24556611,-0.17179622,0.50319517,0.053129368,-0.056643996,-0.26363024,0.17141163,0.021775981,0.12079651,-0.19008708,-0.01928758,0.024306415,0.053391665,-0.06345899,0.12368528,-0.12321943,2.0,-2.0,2.0,2.0,2.0,-2.0,-2.0,-2.0,2.0,-2.0,2.0,-2.0,2.0,-2.0,2.0,2.0,2.0,-2.0,-2.0,-2.0,2.0,-2.0,-2.0,2.0
2025-07-21 09:00:53.909,2.0600000000000014,2060,103,-0.2346456,0.31285125,-0.0504771,0.021704813,0.0056893737,0.016995013,0.0,0.0,0.0,0.0,0.37907463,-0.3768569,-0.07845115,-0.35186604,-0.62051654,0.034145385,0.21118349,0.40270582,0.25860626,-0.20470813,0.5025481,0.0809566,0.03885425,-0.17496435,0.21784039,0.047034517,0.13969667,-0.16906138,-0.089837156,-0.1314137,0.008245836,-0.02989732,-0.024143904,0.1161985,2.0,-2.0,2.0,2.0,2.0,-2.0,-2.0,-2.0,2.0,-2.0,-2.0,2.0,2.0,-2.0,2.0,2.0,2.0,-2.0,-2.0,2.0,-2.0,-2.0,-2.0,2.0
2025-07-21 09:00:53.929,2.0800000000000014,2080,104,-0.11025915,0.016470615,-0.2486312,-0.024680436,0.014053852,0.025426533,0.0,0.0,0.0,0.0,0.3749504,-0.45965117,-0.013264144,-0.3079648,-0.6090706,-0.040283654,0.13374825,0.4548138,0.1682637,-0.22265235,0.4698958,0.1150422,-0.0028026395,-0.21157798,0.0752565,0.15606983,-0.0031735727,-0.18160182,-0.24916181,0.14443718,-0.15420577,-0.10068579,-0.096013136,0.13519564,2.0,-2.0,2.0,2.0,2.0,-2.0,-2.0,2.0,-2.0,-2.0,-2.0,2.0,2.0,-2.0,2.0,-2.0,2.0,-2.0,-0.6713698,-2.0,-2.0,-2.0,-2.0,2.0
2025-07-21 09:00:53.952,2.1000000000000014,2100,105,-0.30559027,0.060276594,-0.060756225,-0.011118986,-0.03783016,-0.006526978,0.0,0.0,0.0,0.0,0.36689496,-0.52394724,0.03655194,-0.32175958,-0.56359714,-0.07865708,0.08962887,0.47305936,0.08962386,-0.24887787,0.39962798,0.15715937,0.016598856,-0.10822235,0.18336697,-0.094698116,0.04502614,-0.06942923,-0.04514528,-0.015609226,-0.15500717,-0.08575662,-0.2309557,0.053502157,2.0,-2.0,2.0,-2.0,2.0,-2.0,-0.6713698,-2.0,-2.0,-2.0,-2.0,2.0,2.0,2.0,2.0,-2.0,2.0,-2.0,-2.0,2.0,-2.0,-2.0,2.0,2.0
2025-07-21 09:00:53.969,2.1200000000000014,2120,106,0.28810412,0.15636434,-0.03491644,-0.009374883,-0.099776395,0.025504395,0.0,0.0,0.0,0.0,0.37272447,-0.5309077,0.08270876,-0.3122794,-0.52336013,-0.13958395,0.012751913,0.51710016,0.024417935,-0.27073905,0.40413657,0.18321799,0.0034466917,0.013567283,0.10876212,0.045067865,0.19595008,-0.060002334,-0.12462129,0.111961894,-0.15679899,-0.08687158,0.114004776,0.06105316,2.0,2.0,2.0,-2.0,2.0,-2.0,-2.0,2.0,-2.0,-2.0,2.0,2.0,2.0,2.0,2.0,-2.0,2.0,-2.0,2.0,2.0,-2.0,2.0,-2.0,2.0
2025-07-21 09:00:53.989,2.1400000000000015,2140,107,0.36147478,-0.23660216,0.037666053,0.015675385,0.013431383,0.03840879,0.0,0.0,0.0,0.0,0.39516667,-0.51315284,0.116070114,-0.31598392,-0.42582604,-0.16053428,0.038385104,0.56113803,-0.03101332,-0.2503216,0.43462875,0.198763,0.065910414,0.10830285,0.00069601793,-0.011153837,0.26191518,-0.027323341,0.16713612,0.17282094,-0.2011484,0.11831869,0.10130569,0.006685549,2.0,2.0,2.0,-2.0,2.0,-2.0,2.0,2.0,-2.0,2.0,-2.0,2.0,2.0,2.0,2.0,-2.0,-2.0,-2.0,2.0,-2.0,-2.0,2.0,-2.0,2.0
2025-07-21 09:00:54.014,2.1600000000000015,2160,108,0.13423903,-0.24974339,-0.024494044,0.0030221143,0.031725816,-0.04777159,0.0,0.0,0.0,0.0,0.3950747,-0.4876697,0.14341797,-0.32489842,-0.3910162,-0.19636194,0.09634963,0.54977393,-0.08766906,-0.22079894,0.43176946,0.23149203,0.07324497,0.06907131,0.109288126,-0.074989796,-0.03211029,-0.0005890776,0.09235371,-0.14161874,-0.07109756,0.13468067,-0.107323885,0.11548275,2.0,2.0,2.0,-2.0,-2.0,-2.0,2.0,-2.0,-2.0,2.0,-2.0,2.0,2.0,2.0,-2.0,-2.0,-2.0,2.0,2.0,-2.0,-2.0,-2.0,-2.0,2.0
2025-07-21 09:00:54.029,2.1800000000000015,2180,109,-0.2653541,-0.039447628,-0.08210217,-0.041661836,-0.006791211,0.020763826,0.0,0.0,0.0,0.0,0.3998508,-0.44583458,0.0639305,-0.34172374,-0.44385692,-0.1084538,0.14322995,0.4694471,-0.119708896,-0.24285915,0.3915015,0.24967068,0.050435286,0.1274197,-0.27147257,0.016259331,-0.24377154,0.14165515,0.14891765,-0.10771376,-0.11471019,-0.016172074,-0.18928827,0.013251435,2.0,2.0,-2.0,-2.0,-2.0,2.0,2.0,-2.0,-2.0,-2.0,-2.0,2.0,2.0,2.0,-2.0,-2.0,-2.0,2.0,2.0,-2.0,2.0,-2.0,2.0,2.0
2025-07-21 09:00:54.049,2.2000000000000015,2200,110,-0.28528127,0.33810675,0.049002953,-0.0010006103,-0.06539318,-0.0030765857,0.0,0.0,0.0,0.0,0.38010588,-0.35745707,-0.0010169129,-0.3316273,-0.5183568,-0.04812172,0.17469561,0.38938764,-0.050940625,-0.2573182,0.36930078,0.24664076,-0.09300994,0.2781369,-0.116148666,0.006244592,-0.20885451,0.1165949,0.027199995,-0.16159709,0.13872363,0.011775648,0.04209746,0.0546725,2.0,2.0,-2.0,-2.0,-2.0,2.0,2.0,-2.0,2.0,-2.0,2.0,2.0,2.0,2.0,-2.0,-2.0,-2.0,2.0,2.0,-1.198814,2.0,-2.0,1.4380583,2.0
2025-07-21 09:00:54.074,2.2200000000000015,2220,111,-0.25347066,0.07383524,0.13106085,-0.009722864,-0.0053581344,0.017113367,0.0,0.0,0.0,0.0,0.3849624,-0.24232933,-0.05916772,-0.34392878,-0.5788939,0.013019215,0.19487308,0.30148134,0.010785853,-0.28014332,0.41519037,0.26843783,0.03187372,0.29003745,-0.10180341,-0.038184028,-0.12232731,0.08792829,0.03522952,-0.27480164,0.10412082,-0.024004553,0.15288988,0.09290678,2.0,2.0,-2.0,-2.0,-2.0,2.0,2.0,-1.198814,2.0,-2.0,1.4380583,2.0,2.0,2.0,-2.0,-2.0,-2.0,2.0,2.0,2.0,2.0,-1.2292182,-2.0,2.0
2025-07-21 09:00:54.089,2.2400000000000015,2240,112,-0.05217541,-0.03064462,-0.07880663,0.057779297,-0.011902533,0.04165539,0.0,0.0,0.0,0.0,0.39283347,-0.08137643,-0.10292755,-0.34995797,-0.6282345,0.068663076,0.21894218,0.26971608,0.048632618,-0.26765415,0.40043536,0.28403512,-0.003296073,0.38042977,-0.10281457,-0.0046994886,-0.058753926,0.05303456,0.111182004,0.01889653,0.10357505,-0.05512343,-0.20278172,-0.025619218,2.0,2.0,-2.0,-2.0,-2.0,2.0,2.0,2.0,2.0,-1.2292182,-2.0,2.0,2.0,-2.0,-2.0,-2.0,-2.0,2.0,2.0,-2.0,2.0,-2.0,2.0,2.0
2025-07-21 09:00:54.110,2.2600000000000016,2260,113,0.047539096,0.05477763,0.08568436,0.050378524,-0.011167052,-0.014354225,0.0,0.0,0.0,0.0,0.37220696,-0.026877517,-0.14115798,-0.3500092,-0.66249275,0.09229555,0.2540243,0.24883641,0.112309754,-0.2716932,0.39863953,0.27859032,0.02010755,-0.080620326,-0.012710405,-0.05725278,-0.07432911,0.14829099,0.02804929,-0.07588995,0.10149408,-0.000583458,0.16054107,0.06471375,2.0,-2.0,-2.0,-2.0,-2.0,2.0,2.0,-2.0,2.0,-2.0,2.0,2.0,2.0,2.0,-2.0,-2.0,0.9632452,2.0,2.0,2.0,2.0,-2.0,-2.0,2.0
2025-07-21 09:00:54.130,2.2800000000000016,2280,114,0.31212887,-0.022961052,0.017637845,0.0052115223,-0.00789944,-0.041844785,0.0,0.0,0.0,0.0,0.36582014,0.02467027,-0.16924258,-0.35198826,-0.67679244,0.12558177,0.2774913,0.24379683,0.12232143,-0.2870357,0.3955337,0.28421387,0.05237511,0.28676924,-0.023923924,0.024760848,0.03581339,0.06514654,0.12366998,0.15773171,0.054190677,-0.011916507,-0.09986889,0.0035677573,2.0,2.0,-2.0,-2.0,0.9632452,2.0,2.0,2.0,2.0,-2.0,-2.0,2.0,2.0,-2.0,-2.0,-2.0,-2.0,2.0,2.0,-2.0,2.0,-2.0,2.0,2.0
2025-07-21 09:00:54.150,2.3000000000000016,2300,115,0.12644279,0.020309094,0.15926044,-0.072506465,-0.08645962,-0.03549799,0.0,0.0,0.0,0.0,0.37069073,0.023949564,-0.19445705,-0.3654926,-0.6869231,0.15009604,0.29763108,0.25076792,0.1509194,-0.29481906,0.38820797,0.2890993,-0.058833826,-0.18070833,-0.061743364,-0.10052922,-0.054933157,0.10075415,0.08716389,-0.08339763,0.03629944,-0.034996673,0.068415806,0.03795296,2.0,-2.0,-2.0,-2.0,-2.0,2.0,2.0,-2.0,2.0,-2.0,2.0,2.0,2.0,-2.0,-2.0,-2.0,-0.26599708,2.0,2.0,2.0,2.0,-2.0,2.0,2.0
2025-07-21 09:00:54.170,2.3200000000000016,2320,116,0.28471896,0.12807083,0.071416594,-0.07845371,-0.076062046,0.042082887,0.0,0.0,0.0,0.0,0.36196268,-0.045336418,-0.20576008,-0.372617,-0.6947917,0.16967463,0.32785654,0.2810709,0.18925667,-0.31235284,0.47238323,0.29128915,-0.052447435,-0.3387892,-0.021224238,-0.069884285,-0.010147329,-2.0534886e-05,0.057648323,0.23528822,0.023889523,-0.09186045,0.13694657,-0.012674047,2.0,-2.0,-2.0,-2.0,-0.26599708,2.0,2.0,2.0,2.0,-2.0,2.0,2.0,2.0,-2.0,-2.0,-2.0,2.0,2.0,-2.0,-2.0,2.0,-2.0,-2.0,-2.0
2025-07-21 09:00:54.190,2.3400000000000016,2340,117,-0.10298483,0.021460563,0.09679192,-0.07045354,-0.014200938,0.04262758,0.0,0.0,0.0,0.0,0.35881352,-0.18155347,-0.2287775,-0.39212665,-0.6720542,0.18482405,0.32017344,0.30472577,0.18989985,-0.30598962,0.49079978,0.21276116,-0.01220798,-0.28783947,-0.047911268,0.046098165,0.00039122018,-0.028855493,-0.013781818,0.034984455,0.024962597,-0.0047974186,0.009953054,-0.16449553,2.0,-2.0,-2.0,-2.0,2.0,2.0,-2.0,-2.0,2.0,-2.0,-2.0,-2.0,2.0,-2.0,-1.0790436,2.0,2.0,2.0,-2.0,-2.0,2.0,-2.0,2.0,-2.0
2025-07-21 09:00:54.210,2.3600000000000017,2360,118,-0.00016942577,0.08159213,0.092923544,-0.054292887,-0.013631352,0.03069818,0.0,0.0,0.0,0.0,0.3646614,-0.2974177,-0.22911854,-0.39973965,-0.6759886,0.2009448,0.32088035,0.2986269,0.219019,-0.3104545,0.5405031,0.11375534,-0.08099703,-0.18829228,0.002774668,-0.05019888,0.09236831,-0.0381501,-0.03014676,-0.025682824,0.10268304,-0.022873847,0.21215566,-0.1615053,2.0,-2.0,-1.0790436,2.0,2.0,2.0,-2.0,-2.0,2.0,-2.0,2.0,-2.0,2.0,-2.0,2.0,2.0,2.0,-2.0,-2.0,-2.0,2.0,-2.0,-2.0,-2.0
2025-07-21 09:00:54.230,2.3800000000000017,2380,119,-0.19356517,0.036967307,-0.072425716,-0.04228101,-0.00436076,0.034379248,0.0,0.0,0.0,0.0,0.3451802,-0.3906125,-0.13098828,-0.37917885,-0.6462704,0.111506626,0.29718384,0.27805224,0.23447457,-0.32173654,0.52840626,0.045224413,0.051112276,-0.25386223,0.16313975,0.011988535,0.091304034,-0.15689297,-0.040976647,-0.047031593,0.057141047,0.04013177,-0.20726433,-0.15525573,2.0,-2.0,2.0,2.0,2.0,-2.0,-2.0,-2.0,2.0,-2.0,-2.0,-2.0,2.0,-2.0,2.0,2.0,2.0,-2.0,-2.0,-2.0,2.0,-2.0,2.0,2.0
2025-07-21 09:00:54.250,2.4000000000000017,2400,120,-0.07206181,0.09665533,-0.043390185,-0.07366773,-0.10653085,-0.021332745,0.0,0.0,0.0,0.0,0.35287768,-0.48296234,-0.051922545,-0.35864818,-0.5977276,0.03639314,0.28961724,0.26504514,0.26076362,-0.32154882,0.5225751,0.07298533,-0.01865174,-0.14464737,0.12041925,0.12148411,0.07779713,-0.2160111,-0.0818398,0.05157923,0.030706018,0.057452466,0.15931225,0.1457871,2.0,-2.0,2.0,2.0,2.0,-2.0,-2.0,-2.0,2.0,-2.0,2.0,2.0,2.0,-2.0,2.0,2.0,2.0,-2.0,-2.0,-2.0,-2.0,-2.0,-2.0,2.0
2025-07-21 09:00:54.270,2.4200000000000017,2420,121,-0.22378537,-0.13073896,-0.0850135,-0.017231122,-0.030507768,-0.034146063,0.0,0.0,0.0,0.0,0.3423281,-0.53052485,-0.0026606293,-0.3375696,-0.58682406,-0.036306627,0.25120115,0.28529915,0.19802669,-0.32350564,0.49100238,0.113703,0.046226952,-0.1859686,0.12452487,0.13169049,0.004848947,-0.095917694,-0.03353649,0.05955436,-0.2622249,0.013032562,-0.15449972,0.058472715,2.0,-2.0,2.0,2.0,2.0,-2.0,-2.0,-2.0,-2.0,-2.0,-2.0,2.0,2.0,-2.0,2.0,-2.0,2.0,-2.0,-2.0,2.0,-2.0,-2.0,-2.0,2.0
2025-07-21 09:00:54.290,2.4400000000000017,2440,122,-0.14983673,-0.06133757,-0.23002738,-0.026368976,-0.06112736,-0.022616146,0.0,0.0,0.0,0.0,0.34799019,-0.5994786,0.061338466,-0.33430424,-0.5695055,-0.101072006,0.18380716,0.34869894,0.0901209,-0.32750145,0.3956012,0.15657336,-0.067266196,-0.15213035,0.19203393,-0.0939835,0.05891161,-0.063199796,-0.18229227,0.22042431,-0.25896356,-0.0068456023,-0.28864452,0.060058285,2.0,-2.0,2.0,-2.0,2.0,-2.0,-2.0,2.0,-2.0,-2.0,-2.0,2.0,2.0,-1.8083398,2.0,-2.0,2.0,-2.0,-2.0,1.4693316,-2.0,-2.0,2.0,2.0
2025-07-21 09:00:54.311,2.4600000000000017,2460,123,-0.010308749,0.050621927,-0.017409083,0.0042614248,-0.06958647,0.03927297,0.0,0.0,0.0,0.0,0.34813505,-0.6297463,0.10158996,-0.34406477,-0.52658623,-0.13476844,0.10894114,0.41125578,0.03834449,-0.34350887,0.35387602,0.1854297,0.05366067,-0.07573788,0.14594714,0.045468338,0.1287806,-0.16977096,-0.11966279,0.17726156,-0.21007483,0.028262429,0.03678365,0.06361432,2.0,-1.8083398,2.0,-2.0,2.0,-2.0,-2.0,1.4693316,-2.0,-2.0,2.0,2.0,2.0,2.0,2.0,-2.0,2.0,-2.0,-2.0,2.0,-2.0,-2.0,2.0,2.0
2025-07-21 09:00:54.331,2.4800000000000018,2480,124,0.22737795,0.141864,-0.13701753,-0.037597306,-0.094058126,-0.018617304,0.0,0.0,0.0,0.0,0.3453011,-0.6095955,0.13279973,-0.3543385,-0.4520005,-0.17312026,0.050204743,0.48690125,-0.025554098,-0.33958662,0.4241809,0.20184807,0.03891655,0.029385556,0.038584404,0.045029413,0.16879265,-0.05009991,-0.10349582,0.17226012,-0.13287814,0.023755148,0.15865843,0.10605619,2.0,2.0,2.0,-2.0,2.0,-2.0,-2.0,2.0,-2.0,-2.0,2.0,2.0,2.0,2.0,2.0,-2.0,2.0,-2.0,2.0,2.0,-2.0,2.0,-2.0,2.0
2025-07-21 09:00:54.353,2.5000000000000018,2500,125,0.46865726,-0.19926609,-0.049246363,-0.039595485,-0.06355746,0.016769094,0.0,0.0,0.0,0.0,0.36588362,-0.5808746,0.14633286,-0.35175264,-0.36873913,-0.1992376,0.06426963,0.5433108,-0.07266933,-0.2887242,0.4690468,0.23025788,-0.006709728,0.093963854,0.050527237,-0.0661832,0.2771476,0.00043367932,0.1624637,0.15844645,-0.1583563,0.19333656,-0.011130289,0.075199746,2.0,2.0,2.0,-2.0,2.0,-2.0,2.0,2.0,-2.0,2.0,-2.0,2.0,2.0,2.0,2.0,-2.0,-2.0,-2.0,2.0,-2.0,-2.0,2.0,-2.0,2.0
2025-07-21 09:00:54.370,2.520000000000002,2520,126,0.06156714,-0.2688676,0.007870548,-0.09685682,-0.029820528,-0.0021080724,0.0,0.0,0.0,0.0,0.38379288,-0.5394413,0.16825007,-0.35288984,-0.3621483,-0.21934058,0.11220497,0.53548723,-0.104157396,-0.2544413,0.47771046,0.23749647,-0.030014982,0.07243948,0.04729529,0.03569334,-0.08474759,-0.033422433,0.16819037,0.01762438,-0.10804304,0.04681053,0.053817045,0.074442625,2.0,2.0,2.0,-2.0,-2.0,-2.0,2.0,-2.0,-2.0,2.0,-2.0,2.0,2.0,2.0,-2.0,-2.0,-2.0,2.0,2.0,-2.0,-2.0,2.0,-2.0,2.0
2025-07-21 09:00:54.391,2.540000000000002,2540,127,-0.2153061,-0.29155186,0.17977016,0.0015359614,-0.044263124,0.00073027366,0.0,0.0,0.0,0.0,0.37751222,-0.4930958,0.08399372,-0.34596163,-0.43484288,-0.1464461,0.15278244,0.48700657,-0.15159559,-0.20618032,0.4476203,0.2595057,0.080152504,0.1774096,-0.22295767,0.072652906,-0.16208193,0.21703495,0.13291384,-0.23641787,-0.012641228,0.0977568,-0.03581759,0.050606612,2.0,2.0,-2.0,-2.0,-2.0,2.0,2.0,-2.0,-2.0,2.0,-2.0,2.0,2.0,2.0,-2.0,-2.0,-2.0,2.0,2.0,-2.0,2.0,-2.0,-2.0,2.0
2025-07-21 09:00:54.412,2.560000000000002,2560,128,-0.39019755,-0.07641344,0.021357965,-0.0128153525,0.009923686,0.02743915,0.0,0.0,0.0,0.0,0.3765216,-0.44678745,0.007439679,-0.3666841,-0.50284266,-0.08042381,0.19544083,0.39911273,-0.07569839,-0.20298554,0.39365345,0.2701851,-0.021671465,0.17915867,-0.16260572,0.016646612,-0.21560937,0.2101628,0.05432186,-0.21943876,0.235149,-0.08358533,-0.10320248,0.0673508,2.0,2.0,-2.0,-2.0,-2.0,2.0,2.0,-2.0,2.0,-2.0,-2.0,2.0,2.0,2.0,-2.0,-2.0,-2.0,2.0,2.0,-2.0,2.0,-2.0,2.0,2.0
2025-07-21 09:00:54.431,2.580000000000002,2580,129,-0.19588082,0.10885895,0.047711868,0.04720957,-0.05122233,0.04795437,0.0,0.0,0.0,0.0,0.38839248,-0.3927474,-0.04257032,-0.37425315,-0.56071055,-0.015544303,0.22307783,0.3009881,-0.00642359,-0.22116596,0.40702307,0.28259796,-0.07794381,0.1880517,-0.08948303,0.030141663,-0.119950406,0.19166785,0.08773026,-0.2767789,0.2125679,-0.07239696,0.15850677,0.008874017,2.0,2.0,-2.0,-2.0,-2.0,2.0,2.0,-2.0,2.0,-2.0,2.0,2.0,2.0,2.0,-2.0,-2.0,-2.0,2.0,2.0,2.0,2.0,2.0,-2.0,2.0
2025-07-21 09:00:54.451,2.600000000000002,2600,130,0.08959164,-0.0993617,-0.01734745,0.06381072,-0.0054965816,-0.028932348,0.0,0.0,0.0,0.0,0.39048108,-0.3013677,-0.09182473,-0.35503286,-0.6117326,0.046540316,0.24703874,0.29528508,0.036665384,-0.16741127,0.40556934,0.28308055,-0.053432453,0.27255744,-0.1801756,0.018300453,-0.13202582,0.14038819,0.008738365,0.18033688,0.0895888,0.19581614,-0.07486939,0.04346501,2.0,2.0,-2.0,-2.0,-2.0,2.0,2.0,2.0,2.0,2.0,-2.0,2.0,2.0,2.0,-2.0,-2.0,-2.0,2.0,2.0,-2.0,2.0,2.0,2.0,2.0
2025-07-21 09:00:54.476,2.620000000000002,2620,131,0.17604096,-0.15600838,0.046782393,0.019330183,-0.010325315,0.03891512,0.0,0.0,0.0,0.0,0.37471765,-0.19259404,-0.14189358,-0.3695047,-0.6563475,0.085650206,0.25495112,0.27541217,0.082414165,-0.09698755,0.4346166,0.29701495,0.06758806,0.33219138,-0.11899412,0.06443442,-0.129737,0.13411815,0.08838744,-0.20950536,0.083639935,0.25462648,0.12768722,0.020508671,2.0,2.0,-2.0,-2.0,-2.0,2.0,2.0,-2.0,2.0,2.0,2.0,2.0,2.0,2.0,-2.0,-2.0,-2.0,2.0,2.0,1.0637797,2.0,2.0,2.0,2.0
2025-07-21 09:00:54.491,2.640000000000002,2640,132,0.29708967,0.0030373984,-0.14961012,-0.03216314,0.0030503024,0.030694673,0.0,0.0,0.0,0.0,0.37139097,-0.03404117,-0.16967042,-0.36320177,-0.6868858,0.12695076,0.27953726,0.2840827,0.12734495,-0.017366402,0.51079905,0.28545123,-0.0028993704,0.42547923,-0.12439245,0.014093796,-0.114460364,0.11471801,-0.021526586,0.033155095,0.054442905,0.116436765,0.20288402,0.040937636,2.0,2.0,-2.0,-2.0,-2.0,2.0,2.0,1.0637797,2.0,2.0,2.0,2.0,2.0,-2.0,-2.0,-2.0,-2.0,2.0,2.0,-2.0,2.0,2.0,2.0,2.0
2025-07-21 09:00:54.511,2.660000000000002,2660,133,-0.010701159,-0.008145368,0.035697233,-0.051279403,-0.05112993,0.048023686,0.0,0.0,0.0,0.0,0.38337746,0.023645207,-0.20082358,-0.3770296,-0.7151363,0.15206279,0.3005241,0.28856012,0.16558422,0.03908514,0.5635347,0.28923002,0.035667464,-0.065409414,-0.031686876,0.069103524,-0.07885003,0.14042507,0.014461925,-0.061255828,0.013305414,0.11293869,0.17489688,0.07424899,2.0,-2.0,-2.0,-2.0,-2.0,2.0,2.0,-2.0,2.0,2.0,2.0,2.0,2.0,2.0,-2.0,-2.0,2.0,2.0,2.0,2.0,2.0,-2.0,-2.0,2.0
2025-07-21 09:00:54.531,2.680000000000002,2680,134,0.23835666,0.06884845,-0.10808553,0.009319289,-0.013908123,0.0042081093,0.0,0.0,0.0,0.0,0.36669397,0.07824195,-0.22375588,-0.37268996,-0.7174022,0.16549815,0.31532034,0.32419574,0.17271009,0.016443629,0.55182225,0.30147722,-0.062583834,0.27822772,-0.015312943,0.0068690185,-0.012368473,0.06459877,-0.011302559,0.15210803,0.038830843,-0.13660257,0.010532735,0.091368176,2.0,2.0,-2.0,-2.0,2.0,2.0,2.0,2.0,2.0,-2.0,-2.0,2.0,2.0,-2.0,-2.0,-2.0,0.65286046,2.0,2.0,-2.0,2.0,-2.0,-2.0,2.0
2025-07-21 09:00:54.551,2.700000000000002,2700,135,-0.060942363,-0.1417306,0.060365874,-0.0032324854,-0.016386367,-0.0036555417,0.0,0.0,0.0,0.0,0.37090608,0.10909282,-0.22275968,-0.37913713,-0.7123416,0.17898133,0.31621698,0.3447022,0.20265064,-0.04900997,0.538385,0.31617105,0.048781805,-0.06747375,-0.017782733,0.024537837,-0.055382684,0.07607823,-0.04019646,-0.05462918,0.05197006,-0.10348189,-0.10422151,0.08823422,2.0,-2.0,-2.0,-2.0,0.65286046,2.0,2.0,-2.0,2.0,-2.0,-2.0,2.0,2.0,-2.0,-2.0,-2.0,2.0,2.0,2.0,2.0,2.0,-2.0,2.0,0.70370674
2025-07-21 09:00:54.574,2.720000000000002,2720,136,0.30418795,0.06625486,0.090871975,-0.008054492,0.033698406,0.010849492,0.0,0.0,0.0,0.0,0.37140402,0.06811592,-0.24979182,-0.37142375,-0.6835605,0.18961847,0.32251734,0.3942174,0.2188106,-0.0948496,0.5668504,0.27528223,-0.063728504,-0.1096481,-0.061720107,0.0066271466,0.040190578,0.06486396,0.0388293,0.16972658,-0.024980977,-0.09315472,0.19091317,-0.038487326,2.0,-2.0,-2.0,-2.0,2.0,2.0,2.0,2.0,2.0,-2.0,2.0,0.70370674,2.0,-2.0,-2.0,-2.0,2.0,2.0,1.650202,-2.0,2.0,-2.0,-2.0,-2.0
2025-07-21 09:00:54.591,2.740000000000002,2740,137,-0.02829966,-0.09566231,0.14994995,-0.079631396,0.050414626,-0.04588014,0.0,0.0,0.0,0.0,0.36687136,-0.04128687,-0.26350048,-0.3942606,-0.6655652,0.2105824,0.33672652,0.41520137,0.2350541,-0.13318235,0.56996244,0.18569672,-0.02337412,-0.28773254,-0.00713364,-0.007935841,0.009759088,-0.038710754,0.032786686,-0.069951326,0.108251214,-0.116366684,0.039558377,-0.14593685,2.0,-2.0,-2.0,-2.0,2.0,2.0,1.650202,-2.0,2.0,-2.0,-2.0,-2.0,2.0,-2.0,-2.0,-1.3684655,2.0,2.0,-2.0,-2.0,2.0,-2.0,2.0,-2.0
2025-07-21 09:00:54.611,2.760000000000002,2760,138,-0.013487163,-0.14882632,0.048025522,-0.042861067,0.049232587,-0.012327277,0.0,0.0,0.0,0.0,0.35718334,-0.19426937,-0.26926816,-0.3855619,-0.6489953,0.21191414,0.32968575,0.3936744,0.2474042,-0.16329461,0.60470384,0.10702765,0.030111521,-0.378985,-0.043845974,0.039802067,-0.0032237826,0.07540108,-0.079235494,-0.01101887,0.054462876,-0.10225464,0.083939,-0.19459803,2.0,-2.0,-2.0,-1.3684655,2.0,2.0,-2.0,-2.0,2.0,-2.0,2.0,-2.0,2.0,-2.0,2.0,2.0,2.0,2.0,-2.0,-2.0,2.0,-2.0,2.0,-2.0
2025-07-21 09:00:54.631,2.780000000000002,2780,139,0.0103614945,-0.1730206,-0.022280522,-0.03347532,0.04919059,-0.00828444,0.0,0.0,0.0,0.0,0.36443484,-0.30149722,-0.18323733,-0.3877232,-0.6507977,0.2147233,0.32863817,0.37958184,0.27631202,-0.19638653,0.6582223,0.021668088,0.01052833,-0.24576895,0.2820534,-0.0041863318,0.05154176,-0.0020626795,-0.03686943,-0.08565277,0.10848635,-0.08184422,0.079769805,-0.13050647,2.0,-2.0,2.0,2.0,2.0,2.0,-2.0,-2.0,2.0,-2.0,2.0,-2.0,2.0,-2.0,2.0,2.0,2.0,-2.0,-2.0,-2.0,2.0,-2.0,-0.10391535,-2.0
2025-07-21 09:00:54.651,2.800000000000002,2800,140,-0.21026322,0.072730675,-0.08600462,-0.005825809,-0.002423391,0.008741586,0.0,0.0,0.0,0.0,0.36139902,-0.39414948,-0.092648424,-0.38130572,-0.60585856,0.13213363,0.28836593,0.38204825,0.2770061,-0.2273788,0.6187474,-0.02437118,-0.017195137,-0.1986925,0.16646487,0.088319495,0.10151696,-0.18004423,-0.084792376,-0.07288685,0.07083651,-0.06731938,-0.2466356,-0.115552776,2.0,-2.0,2.0,2.0,2.0,-2.0,-2.0,-2.0,2.0,-2.0,-0.10391535,-2.0,2.0,-2.0,2.0,2.0,2.0,-2.0,-2.0,-2.0,-1.8248196,-2.0,2.0,2.0
2025-07-21 09:00:54.671,2.820000000000002,2820,141,-0.11887354,0.26759753,0.027932623,0.010048541,-0.0049619814,0.028321845,0.0,0.0,0.0,0.0,0.34986192,-0.48021388,-0.030944986,-0.36479157,-0.5690843,0.045435827,0.24115144,0.37943873,0.20832229,-0.23773985,0.610335,0.015358562,0.06291178,-0.20737353,0.11032833,-0.036674906,0.14524627,-0.23432279,-0.15290697,0.025914673,-0.26560575,-0.09238281,0.13216229,0.18427256,2.0,-2.0,2.0,2.0,2.0,-2.0,-2.0,-2.0,-1.8248196,-2.0,2.0,2.0,2.0,-2.0,2.0,2.0,2.0,-2.0,-2.0,1.710616,-2.0,-2.0,-2.0,2.0
2025-07-21 09:00:54.692,2.840000000000002,2840,142,-0.047489528,0.10233786,-0.13607873,0.019980667,-0.035023272,-0.049855776,0.0,0.0,0.0,0.0,0.35361952,-0.53268707,0.02898571,-0.33304954,-0.53169596,-0.011555892,0.17178506,0.428282,0.13040727,-0.26092443,0.58063513,0.07651676,0.037818372,-0.1392821,0.10036426,0.1625039,0.1292906,-0.20383477,-0.21500455,0.19276918,-0.20136239,-0.055752553,-0.22991598,0.17589386,2.0,-2.0,2.0,2.0,2.0,-2.0,-2.0,1.710616,-2.0,-2.0,-2.0,2.0,2.0,-2.0,2.0,-1.8256207,2.0,-2.0,-2.0,-2.0,-2.0,-2.0,0.6414546,2.0
2025-07-21 09:00:54.712,2.860000000000002,2860,143,-0.14204034,0.35260144,-0.087549105,-0.014835518,-0.03556839,0.03897131,0.0,0.0,0.0,0.0,0.3614723,-0.5938559,0.080073275,-0.3283978,-0.48017436,-0.07178294,0.097345784,0.47889963,0.055432852,-0.27238208,0.5264069,0.11510761,-0.028912945,-0.051492915,0.12860388,-0.05029025,0.06688063,-0.1047252,-0.16486132,0.11561029,-0.20889114,0.0006438418,-0.0875335,0.1152348,2.0,-2.0,2.0,-1.8256207,2.0,-2.0,-2.0,-2.0,-2.0,-2.0,0.6414546,2.0,2.0,2.0,2.0,-2.0,2.0,-2.0,-2.0,1.7292324,-2.0,-2.0,-0.24048342,2.0
2025-07-21 09:00:54.732,2.880000000000002,2880,144,0.089428805,0.08383679,-0.040134,-0.0752895,-0.017119793,-0.04932247,0.0,0.0,0.0,0.0,0.3564173,-0.5787973,0.11302277,-0.34135652,-0.42963168,-0.12341025,0.021168709,0.5051899,-0.016133424,-0.28542385,0.42947298,0.14684719,0.059508614,0.10053681,0.1483704,0.031805106,0.10948214,-0.10425747,-0.22007811,0.16480145,-0.20019418,0.02036401,-0.18351375,0.14568217,2.0,2.0,2.0,-2.0,2.0,-2.0,-2.0,1.7292324,-2.0,-2.0,-0.24048342,2.0,2.0,2.0,2.0,-2.0,2.0,-2.0,-2.0,2.0,-2.0,2.0,2.0,2.0
2025-07-21 09:00:54.752,2.900000000000002,2900,145,0.23191349,0.05069886,0.017327772,-0.086656116,-0.034002904,0.021239381,0.0,0.0,0.0,0.0,0.3555281,-0.5096595,0.14032014,-0.34375685,-0.34249717,-0.1680414,-0.035188135,0.5805865,-0.061856065,-0.25656545,0.4259643,0.1765805,0.04458586,0.21604474,0.0715376,0.011142641,0.28388122,-0.103468254,-0.16665432,0.19474642,-0.100142926,0.09609053,0.081312545,0.018608274,2.0,2.0,2.0,-2.0,2.0,-2.0,-2.0,2.0,-2.0,2.0,2.0,2.0,-2.0,-2.0,2.0,-2.0,-2.0,-2.0,2.0,2.0,-2.0,2.0,-2.0,2.0
2025-07-21 09:00:54.772,2.920000000000002,2920,146,-0.018799318,-0.23869222,0.20680892,0.0059356107,-0.02366004,0.03596927,0.0,0.0,0.0,0.0,0.35937074,-0.49831843,0.16890033,-0.34752896,-0.32749802,-0.19449385,0.01801409,0.62186307,-0.1122221,-0.22015929,0.43374372,0.19742253,-0.038424384,-0.14720267,0.07083079,-0.067023434,-0.121810235,0.00045461973,0.21741837,0.09608392,-0.15642011,0.16351591,-0.029083094,0.11098555,-2.0,-2.0,2.0,-2.0,-2.0,-2.0,2.0,2.0,-2.0,2.0,-2.0,2.0,2.0,2.0,2.0,-2.0,-1.4132453,2.0,2.0,-2.0,-2.0,-2.0,-2.0,2.0
2025-07-21 09:00:54.792,2.940000000000002,2940,147,-0.11714219,0.07884487,0.017195376,-0.060724042,-0.07417076,0.033314947,0.0,0.0,0.0,0.0,0.37457696,-0.51197886,0.18920691,-0.35417074,-0.3735447,-0.11385916,0.058738954,0.6011608,-0.13580357,-0.23648974,0.4057205,0.22786461,-0.0007511848,0.042577427,0.106844954,-0.0062156892,-0.044345297,0.13107465,0.16576292,-0.2529533,-0.011207621,-0.009413237,0.003037829,-0.004260835,2.0,2.0,2.0,-2.0,-1.4132453,2.0,2.0,-2.0,-2.0,-2.0,-2.0,2.0,2.0,2.0,-2.0,-2.0,-2.0,2.0,2.0,-2.0,2.0,-2.0,-2.0,2.0
2025-07-21 09:00:54.817,2.960000000000002,2960,148,-0.19359122,-0.15423632,-0.17206307,-0.005108655,-0.05045669,-0.03157755,0.0,0.0,0.0,0.0,0.37807888,-0.4649906,0.11073353,-0.35566747,-0.43831894,-0.04727492,0.10767012,0.48849416,-0.079079986,-0.25376317,0.36545992,0.23549883,0.06946743,0.1591435,-0.16300467,-0.004499404,-0.14512374,0.20951732,0.14180693,-0.4324923,0.19699761,-0.08331547,-0.072326384,0.110387094,2.0,2.0,-2.0,-2.0,-2.0,2.0,2.0,-2.0,2.0,-2.0,-2.0,2.0,2.0,2.0,-2.0,-2.0,-2.0,2.0,2.0,-2.0,2.0,0.22379562,2.0,2.0
2025-07-21 09:00:54.832,2.980000000000002,2980,149,-0.104501694,-0.16421153,0.022937715,-0.05254726,0.011103027,0.034056526,0.0,0.0,0.0,0.0,0.37464434,-0.39913255,0.022789072,-0.35761824,-0.5154467,0.016557,0.16111907,0.35414833,-0.0018646618,-0.21435705,0.37719193,0.25335026,0.07506857,0.1938046,-0.14046691,-0.08081315,-0.11185348,0.088843375,0.14829822,-0.32554927,0.1828535,0.109822616,0.09951398,0.06525261,2.0,2.0,-2.0,-2.0,-2.0,2.0,2.0,-2.0,2.0,0.22379562,2.0,2.0,2.0,2.0,-2.0,-2.0,-2.0,2.0,2.0,2.0,2.0,2.0,2.0,2.0
2025-07-21 09:00:54.852,3.000000000000002,3000,150,0.11040216,-0.07762741,-0.13543469,-0.03506589,-0.027660742,0.049126547,0.0,0.0,0.0,0.0,0.3716456,-0.31951854,-0.028423756,-0.36041325,-0.564729,0.06744401,0.18905492,0.31850335,0.054142255,-0.1512522,0.47587132,0.2592712,-0.06481846,0.19588187,-0.092371605,-0.004089175,-0.05827485,0.10291305,0.07316686,0.120886475,0.08961588,0.22296667,0.16066006,-0.042132307,2.0,2.0,-2.0,-2.0,-2.0,2.0,2.0,2.0,2.0,2.0,2.0,2.0,2.0,2.0,-2.0,-2.0,-2.0,2.0,2.0,-2.0,2.0,2.0,2.0,2.0
2025-07-21 09:00:54.872,3.0200000000000022,3020,151,-0.019765927,0.09320348,-0.031204222,0.021321207,-0.03375881,-0.03550364,0.0,0.0,0.0,0.0,0.37790176,-0.23523755,-0.084132954,-0.3679681,-0.61644137,0.09440555,0.22416782,0.30754015,0.096403964,-0.059671536,0.5283441,0.2647694,0.0021939331,0.26550263,-0.1203531,-0.0019031964,-0.102048434,0.13956238,0.06484379,-0.061028454,0.1498921,0.17629085,0.1290186,-0.049628388,2.0,2.0,-2.0,-2.0,-2.0,2.0,2.0,-2.0,2.0,2.0,2.0,2.0,2.0,2.0,-2.0,-2.0,-2.0,2.0,2.0,-2.0,2.0,2.0,2.0,2.0
2025-07-21 09:00:54.892,3.0400000000000023,3040,152,-0.08121413,0.057082757,0.05133256,-0.0568677,-0.0022603252,0.0322795,0.0,0.0,0.0,0.0,0.365492,-0.0923501,-0.13460399,-0.3591724,-0.65222484,0.12551594,0.23392162,0.2818236,0.13417898,0.010683573,0.59014,0.2709977,-0.013325923,0.35641682,-0.17715557,-0.06446579,-0.048062667,0.03705476,-0.019036194,-0.12823169,0.03249743,0.15489219,0.092139535,-0.027800567,2.0,2.0,-2.0,-2.0,-2.0,2.0,2.0,-2.0,2.0,2.0,2.0,2.0,2.0,-2.0,-2.0,-2.0,-2.0,2.0,2.0,-2.0,2.0,2.0,2.0,2.0
2025-07-21 09:00:54.912,3.0600000000000023,3060,153,-0.2190602,-0.075245954,0.1874735,-0.024272455,-0.053042606,-0.039964836,0.0,0.0,0.0,0.0,0.37344822,-0.047680035,-0.161479,-0.3800891,-0.6938507,0.1573664,0.26392388,0.22810456,0.16869776,0.07468349,0.6279143,0.27781668,-0.001530482,0.009226137,-0.12483538,-0.09051431,-0.05201367,0.10543286,-0.0034711764,-0.15357955,0.04844095,0.19808829,0.09259222,-0.045950633,2.0,-2.0,-2.0,-2.0,-2.0,2.0,2.0,-2.0,2.0,2.0,2.0,2.0,2.0,1.4005997,-2.0,-2.0,0.20948586,2.0,2.0,2.0,2.0,-2.0,-2.0,2.0
2025-07-21 09:00:54.932,3.0800000000000023,3080,154,0.21102388,-0.023358718,0.07174636,-0.030173592,-0.050967596,-0.046908394,0.0,0.0,0.0,0.0,0.37307903,0.0036590828,-0.19810455,-0.36561748,-0.698823,0.17511272,0.28733015,0.23865916,0.17671934,0.034524485,0.6062968,0.29069725,-0.058055613,0.24771644,-0.1110242,0.04250651,0.036088414,0.04272095,0.11578825,0.15602614,0.1114743,-0.24956354,-0.087896965,-0.018389901,2.0,1.4005997,-2.0,-2.0,0.20948586,2.0,2.0,2.0,2.0,-2.0,-2.0,2.0,2.0,-2.0,-2.0,-2.0,-2.0,2.0,2.0,-2.0,2.0,-2.0,-2.0,2.0
2025-07-21 09:00:54.952,3.1000000000000023,3100,155,-0.131529,-0.123954594,0.089490935,0.008373978,0.014173803,0.005371588,0.0,0.0,0.0,0.0,0.3750661,0.02887714,-0.21614993,-0.38133258,-0.7228059,0.2051474,0.29560605,0.24830313,0.20074965,-0.04252226,0.50597465,0.29595417,0.05859868,0.015917648,-0.057226747,-0.08129898,0.004866683,0.10790118,0.03891329,-0.1486636,0.015921792,-0.08449962,-0.2758745,0.054714587,2.0,-2.0,-2.0,-2.0,-2.0,2.0,2.0,-2.0,2.0,-2.0,-2.0,2.0,2.0,-2.0,-2.0,-2.0,2.0,2.0,2.0,2.0,2.0,-2.0,2.0,2.0
2025-07-21 09:00:54.973,3.1200000000000023,3120,156,0.3075114,0.10930433,0.08534572,0.002789244,-0.006256206,0.01545658,0.0,0.0,0.0,0.0,0.3657808,-0.003616456,-0.22253619,-0.37601125,-0.7194518,0.21048906,0.31292343,0.27662352,0.21513739,-0.09159064,0.46483064,0.2966721,-0.011687514,-0.20185679,0.0076046023,0.016627597,0.018177096,0.07215708,3.084285e-05,0.14244458,0.06355443,-0.109839745,-0.007010134,0.060587432,2.0,-2.0,-2.0,-2.0,2.0,2.0,2.0,2.0,2.0,-2.0,2.0,2.0,2.0,-2.0,-2.0,-2.0,2.0,2.0,-0.7739055,-2.0,2.0,-2.0,2.0,-2.0
2025-07-21 09:00:54.993,3.1400000000000023,3140,157,0.07144654,0.17480731,0.13111192,-0.06411955,0.009842809,0.0064229555,0.0,0.0,0.0,0.0,0.3539715,-0.107915185,-0.24046506,-0.40658647,-0.6964552,0.2251251,0.31241462,0.293384,0.23885652,-0.13340624,0.52179533,0.20581087,-0.030675376,-0.37451026,-0.0109838825,0.03853059,0.014134047,0.041768197,0.032020237,-0.035220537,0.114414975,-0.031834133,0.12493926,-0.25926307,2.0,-2.0,-2.0,-2.0,2.0,2.0,-0.7739055,-2.0,2.0,-2.0,2.0,-2.0,2.0,-2.0,-2.0,2.0,2.0,2.0,-2.0,-2.0,2.0,-2.0,2.0,-2.0
2025-07-21 09:00:55.013,3.1600000000000024,3160,158,0.06292579,0.09067765,0.07364208,-0.018923454,-0.04104099,0.040251803,0.0,0.0,0.0,0.0,0.35036287,-0.237217,-0.25443947,-0.41196042,-0.6958478,0.23395689,0.32132655,0.2675958,0.25688052,-0.15681632,0.5770049,0.11405348,-0.01883917,-0.28887743,0.044082016,-0.04071496,0.092428565,-0.034357943,0.071919836,-0.009710719,0.030657869,-0.02612935,0.14324053,-0.2656025,2.0,-2.0,-2.0,2.0,2.0,2.0,-2.0,-2.0,2.0,-2.0,2.0,-2.0,2.0,-2.0,2.0,2.0,2.0,-2.0,-2.0,-2.0,2.0,-2.0,-2.0,-2.0
2025-07-21 09:00:55.033,3.1800000000000024,3180,159,-0.18323249,0.055562202,-0.10609096,-0.07328779,-0.060026012,-0.0051368494,0.0,0.0,0.0,0.0,0.3662956,-0.33534777,-0.16561505,-0.38778976,-0.6559046,0.13866682,0.3176122,0.26796818,0.2681741,-0.19622062,0.56904787,0.042283963,-0.03717311,-0.29668182,0.2547209,0.09064681,0.14233881,-0.2001167,-0.03890017,-0.07507448,0.016931258,-0.07308451,-0.22121489,-0.23448326,2.0,-2.0,2.0,2.0,2.0,-2.0,-2.0,-2.0,2.0,-2.0,-2.0,-2.0,2.0,-2.0,2.0,2.0,2.0,-2.0,-2.0,-2.0,2.0,-2.0,2.0,2.0
2025-07-21 09:00:55.053,3.2000000000000024,3200,160,-0.042347427,0.22873123,0.0015730665,-0.0031031824,-0.022485228,-0.0074781054,0.0,0.0,0.0,0.0,0.36231226,-0.4393858,-0.08488469,-0.35828438,-0.6188156,0.056228302,0.28957418,0.24127088,0.28285047,-0.21605846,0.5559882,0.084653534,-0.06375126,-0.22469682,0.25050294,0.02175917,0.020804487,-0.20163965,-0.09079675,-0.05961295,0.010535117,-0.09853831,0.039455052,0.17798495,2.0,-2.0,2.0,2.0,2.0,-2.0,-2.0,-2.0,2.0,-2.0,2.0,2.0,2.0,-2.0,2.0,2.0,2.0,-2.0,-2.0,2.0,-2.0,-2.0,-2.0,2.0
2025-07-21 09:00:55.078,3.2200000000000024,3220,161,0.080421925,-0.087689996,-0.20205373,-0.0055598826,-0.020013267,0.04326055,0.0,0.0,0.0,0.0,0.35134533,-0.5038854,-0.016182639,-0.3159494,-0.588187,-0.016823944,0.25483233,0.3148744,0.19393952,-0.23749411,0.51735514,0.120130025,-1.2124788e-06,-0.22943638,0.08778214,0.1962232,0.09418765,-0.1842575,-0.17412703,0.32548013,-0.3023136,-0.020993086,-0.16257314,0.13299797,2.0,-2.0,2.0,2.0,2.0,-2.0,-2.0,2.0,-2.0,-2.0,-2.0,2.0,2.0,-2.0,2.0,-2.0,2.0,-2.0,-2.0,-2.0,-2.0,-2.0,-2.0,2.0
2025-07-21 09:00:55.093,3.2400000000000024,3240,162,-0.32636726,-0.006177691,-0.13271749,-0.05776142,-0.025748348,0.0017977062,0.0,0.0,0.0,0.0,0.35536295,-0.55918264,0.04771907,-0.32255405,-0.5724653,-0.073352456,0.20193215,0.3768583,0.10363237,-0.26265156,0.45921817,0.15901195,0.070335135,-0.10908722,0.13563462,0.00306855,0.035046954,-0.08973506,-0.25763968,0.0732369,-0.25858644,0.01764549,-0.15245523,0.10419217,2.0,-2.0,2.0,-2.0,2.0,-2.0,-2.0,-2.0,-2.0,-2.0,-2.0,2.0,2.0,2.0,2.0,-2.0,2.0,-2.0,-2.0,2.0,-2.0,-2.0,2.0,2.0
2025-07-21 09:00:55.113,3.2600000000000025,3260,163,0.0682384,0.08603994,-0.0961968,0.016533576,-0.041609325,0.006919581,0.0,0.0,0.0,0.0,0.34454873,-0.5486298,0.09232143,-0.3411154,-0.53364575,-0.12195388,0.111778736,0.43679598,0.04184095,-0.28036058,0.4596477,0.18424302,-0.024251096,0.17487547,0.13746142,-0.023606539,0.13754213,-0.09033122,-0.25836655,0.25904176,-0.14546362,-0.07155345,0.15677927,0.0971426,2.0,2.0,2.0,-2.0,2.0,-2.0,-2.0,2.0,-2.0,-2.0,2.0,2.0,2.0,2.0,2.0,-2.0,2.0,-2.0,2.0,2.0,-2.0,2.0,-2.0,2.0
2025-07-21 09:00:55.133,3.2800000000000025,3280,164,0.38057157,-0.34521347,-0.040954687,-0.024669576,-0.04116708,-0.03068103,0.0,0.0,0.0,0.0,0.3609783,-0.5148951,0.121169515,-0.3397797,-0.46871078,-0.17325237,0.1332227,0.5153236,-0.02846363,-0.27583715,0.492944,0.20462829,0.017126823,0.04199533,0.057331108,0.03363771,0.2507346,-0.019708136,0.12379589,0.14530244,-0.1264488,0.038367175,0.046415832,0.100283414,2.0,2.0,2.0,-2.0,2.0,-2.0,2.0,2.0,-2.0,2.0,-2.0,2.0,2.0,2.0,2.0,-2.0,-2.0,-2.0,2.0,-2.0,-2.0,2.0,-2.0,2.0
2025-07-21 09:00:55.153,3.3000000000000025,3300,165,0.15124966,-0.25997838,0.026314659,-0.01695229,-0.05720545,0.04437607,0.0,0.0,0.0,0.0,0.37178317,-0.49064815,0.13447341,-0.34730503,-0.45505598,-0.19183904,0.15497966,0.5061997,-0.079015,-0.24685758,0.48826686,0.2293395,-0.02839385,-0.029721227,0.07072751,-0.078785524,-0.12915084,0.004334155,0.08707515,-0.09267241,-0.15930906,-0.003348787,-0.04027453,0.103621446,2.0,2.0,2.0,-2.0,-2.0,-2.0,2.0,-2.0,-2.0,2.0,-2.0,2.0,2.0,2.0,-2.0,-2.0,-2.0,2.0,2.0,-2.0,-1.6072063,-2.0,-2.0,2.0
2025-07-21 09:00:55.173,3.3200000000000025,3320,166,-0.26524097,0.017095638,-0.11494639,-0.07289279,-0.04173602,-0.022810739,0.0,0.0,0.0,0.0,0.38757077,-0.43609688,0.06727867,-0.35342023,-0.5297054,-0.11758718,0.19554117,0.44260526,-0.09498044,-0.26327887,0.4634505,0.25183636,-0.058648445,0.120952874,-0.17409743,-0.05219641,-0.16456492,0.18656155,0.04654999,-0.09327712,-0.1411439,0.0078093824,-0.2210911,0.092893064,2.0,2.0,-2.0,-2.0,-2.0,2.0,2.0,-2.0,-1.6072063,-2.0,-2.0,2.0,2.0,2.0,-2.0,-2.0,-2.0,2.0,2.0,-2.0,2.0,1.1584373,2.0,2.0
2025-07-21 09:00:55.193,3.3400000000000025,3340,167,-0.14027634,0.02469149,0.09514398,0.03899603,-0.022866873,-0.020195413,0.0,0.0,0.0,0.0,0.38942558,-0.3793104,-0.004537959,-0.35241014,-0.58439773,-0.04464695,0.21693704,0.35638595,-0.04246793,-0.22514932,0.45720434,0.24990533,0.04738396,0.22673455,-0.10799431,-0.013187824,-0.18402311,0.15513425,-0.0059674587,-0.1522925,0.22319622,0.18187428,0.17500083,-0.008481685,2.0,2.0,-2.0,-2.0,-2.0,2.0,2.0,-2.0,2.0,1.1584373,2.0,2.0,2.0,2.0,-2.0,-2.0,-2.0,2.0,2.0,-2.0,2.0,2.0,-2.0,2.0
2025-07-21 09:00:55.216,3.3600000000000025,3360,168,-0.18640968,-0.02603883,0.10782391,0.0043645655,-0.071665585,-0.017408747,0.0,0.0,0.0,0.0,0.37772715,-0.3190723,-0.07043798,-0.34667653,-0.6324442,0.014196589,0.24868177,0.2709517,0.017918603,-0.12365436,0.46403578,0.27166167,-0.016595814,0.19222781,-0.20027557,-0.022150418,-0.16752136,0.052980814,0.07854236,-0.2163059,0.11608818,0.20757249,-0.123261474,-0.03779901,2.0,2.0,-2.0,-2.0,-2.0,2.0,2.0,-2.0,2.0,2.0,-2.0,2.0,2.0,2.0,-2.0,-2.0,-2.0,2.0,2.0,2.0,2.0,-2.0,2.0,2.0
2025-07-21 09:00:55.233,3.3800000000000026,3380,169,0.2662032,0.31659934,-0.08636593,-0.049219217,-0.029811785,0.03559814,0.0,0.0,0.0,0.0,0.3736025,-0.21241759,-0.12130666,-0.36341155,-0.65297556,0.06480657,0.25789404,0.26339075,0.0811001,-0.15015408,0.4845934,0.27856815,-0.022511585,0.3614678,-0.13070735,-0.039876085,-0.116134346,0.050766766,0.019057853,0.19730994,0.1625473,-0.07059195,0.16942853,-0.057774387,2.0,2.0,-2.0,-2.0,-2.0,2.0,2.0,2.0,2.0,-2.0,2.0,2.0,2.0,1.0384877,-2.0,-2.0,2.0,2.0,2.0,-2.0,2.0,-2.0,-2.0,2.0
2025-07-21 09:00:55.808,3.4000000000000026,3400,170,0.012350614,0.10687539,0.07241855,-0.07939713,-0.081260964,-0.045508478,0.0,0.0,0.0,0.0,0.37721422,-0.105423704,-0.15561055,-0.35639772,-0.6642433,0.099762216,0.28728703,0.28186145,0.1087502,-0.16827615,0.5010002,0.2794261,0.05918777,0.2616311,-0.025596293,0.042783644,0.072645664,0.07323213,0.10878316,-0.026648743,0.061890934,-0.009540187,-0.035862654,-0.02436473,2.0,1.0384877,-2.0,-2.0,2.0,2.0,2.0,-2.0,2.0,-2.0,-2.0,2.0,2.0,-2.0,-2.0,-2.0,-2.0,2.0,2.0,-2.0,2.0,-2.0,1.0184115,2.0
2025-07-21 09:00:55.828,3.4200000000000026,3420,171,-0.1784844,-0.054155085,0.20889737,0.0011067645,-0.06344359,-0.0022262228,0.0,0.0,0.0,0.0,0.36886433,-0.08509967,-0.16560583,-0.36958727,-0.6937936,0.12503202,0.2944601,0.26189595,0.14990562,-0.19013844,0.4971,0.2893842,0.024623021,-0.109118074,-0.05202102,-0.06063512,-0.012456728,0.03369714,0.111008376,-0.09849344,0.06495314,-0.11871224,-0.08102061,-0.016844947,2.0,-2.0,-2.0,-2.0,-2.0,2.0,2.0,-2.0,2.0,-2.0,1.0184115,2.0,2.0,-2.0,-2.0,-2.0,-2.0,2.0,2.0,2.0,2.0,-2.0,2.0,2.0
2025-07-21 09:00:55.848,3.4400000000000026,3440,172,0.09645777,0.0017972424,0.07057085,-0.062230002,-0.027525228,-0.02392081,0.0,0.0,0.0,0.0,0.37369943,-0.16086733,-0.20572105,-0.3688783,-0.73009455,0.1475403,0.30412063,0.2678134,0.17590849,-0.22355454,0.5352091,0.29878363,-0.048613716,-0.2340701,-0.026911318,0.03235286,-0.0810257,0.1368269,0.027625557,0.17428352,0.042261586,-0.11315611,0.18024091,-0.051801246,2.0,-2.0,-2.0,-2.0,-2.0,2.0,2.0,2.0,2.0,-2.0,2.0,2.0,2.0,2.0,-2.0,-2.0,2.0,2.0,2.0,-2.0,2.0,-0.43765572,-2.0,2.0
2025-07-21 09:00:55.868,3.4600000000000026,3460,173,0.041303657,-0.10413463,0.17220405,0.019046815,-0.046498895,0.009119269,0.0,0.0,0.0,0.0,0.36812463,-0.18301621,-0.21270686,-0.37775925,-0.72288644,0.16653773,0.31555188,0.25345135,0.20535578,-0.21471386,0.5231135,0.29108346,0.023659844,0.075342946,0.020711571,-0.07937062,0.061355393,0.060814187,0.042500827,-0.09769266,0.12801878,0.031075832,-0.16038354,0.02057375,2.0,2.0,-2.0,-2.0,2.0,2.0,2.0,-2.0,2.0,-0.43765572,-2.0,2.0,2.0,2.0,-2.0,-2.0,-2.0,2.0,2.0,2.0,2.0,-2.0,2.0,2.0
2025-07-21 09:00:55.888,3.4800000000000026,3480,174,0.23605303,0.0529265,-0.051294073,-0.023748826,-0.027570039,-0.02902433,0.0,0.0,0.0,0.0,0.36695722,-0.123541206,-0.22738476,-0.37672925,-0.73968875,0.18995136,0.34015176,0.2982557,0.21901584,-0.22453952,0.5454118,0.2957195,-0.037818696,0.26102963,-0.0025826846,-0.061498675,-0.07127564,0.041794084,-0.0116773965,0.13186073,0.022297611,-0.08999715,0.06864408,-0.0036932088,2.0,2.0,-2.0,-2.0,-2.0,2.0,2.0,2.0,2.0,-2.0,2.0,2.0,2.0,-1.4281757,-2.0,-2.0,2.0,2.0,2.0,-2.0,2.0,-2.0,-2.0,2.0
2025-07-21 09:00:56.222,3.5000000000000027,3500,175,0.06701375,-0.012461675,0.12460069,-0.04737125,0.0027108802,0.016951982,0.0,0.0,0.0,0.0,0.3625536,-0.08276622,-0.25186557,-0.37401018,-0.75131524,0.1961487,0.34564215,0.3101599,0.22992264,-0.24102679,0.5279479,0.29864335,-0.044675384,-0.09943941,0.04597925,0.030646672,0.020316409,0.100647055,0.044761486,0.042792805,-0.026713543,-0.12080909,-0.18911435,0.006702763,2.0,-1.4281757,-2.0,-2.0,2.0,2.0,2.0,-2.0,2.0,-2.0,-2.0,2.0,2.0,-2.0,-2.0,-2.0,2.0,2.0,2.0,2.0,2.0,-2.0,2.0,-2.0
2025-07-21 09:00:56.441,3.5200000000000027,3520,176,0.29607713,0.08625973,0.07555216,-0.092360586,-0.07454287,0.040817287,0.0,0.0,0.0,0.0,0.35676053,-0.15370037,-0.24920532,-0.39094734,-0.7215717,0.21827151,0.36035118,0.3547141,0.23394327,-0.25960964,0.5449307,0.20986566,-0.0026983574,-0.25509572,-0.04164683,-0.014122703,0.026393753,0.0848439,0.033077504,0.14467502,9.7328935e-05,-0.059651576,0.13750277,-0.26894575,2.0,-2.0,-2.0,-2.0,2.0,2.0,2.0,2.0,2.0,-2.0,2.0,-2.0,2.0,-2.0,-2.0,-2.0,2.0,2.0,-2.0,-2.0,2.0,-2.0,2.0,-2.0
2025-07-21 09:00:57.057,3.5400000000000027,3540,177,0.028632648,0.03130793,0.09012142,-0.084735446,-0.034503646,0.0018411136,0.0,0.0,0.0,0.0,0.3472081,-0.2823789,-0.26927903,-0.38575044,-0.7105034,0.21761334,0.36154464,0.3825201,0.24259274,-0.28266874,0.61430645,0.13406463,0.037224542,-0.2285392,0.048387103,-0.001482293,0.070068136,0.04531033,-0.030812887,0.06071714,0.044332057,-0.06352281,0.078747556,-0.14851017,2.0,-2.0,-2.0,-2.0,2.0,2.0,-2.0,-2.0,2.0,-2.0,2.0,-2.0,2.0,-2.0,2.0,2.0,2.0,0.40106195,-2.0,-2.0,2.0,-2.0,2.0,-2.0
2025-07-21 09:00:57.321,3.5600000000000027,3560,178,-0.016769316,0.061973564,-0.04411201,-0.027563708,-0.08548824,0.017108707,0.0,0.0,0.0,0.0,0.353974,-0.37798625,-0.1770708,-0.38931954,-0.676373,0.19067326,0.3451435,0.371908,0.26863945,-0.28044432,0.6545341,0.05464052,-0.0004815195,-0.20361118,0.26501006,-0.0020129653,0.114835635,-0.08946849,-0.060038123,0.05423565,0.03132699,0.00012747092,0.13745047,-0.22099233,2.0,-2.0,2.0,2.0,2.0,0.40106195,-2.0,-2.0,2.0,-2.0,2.0,-2.0,2.0,-2.0,2.0,2.0,2.0,-2.0,-2.0,-2.0,2.0,-2.0,-2.0,-2.0
2025-07-21 09:00:57.341,3.5800000000000027,3580,179,-0.16348164,-0.039852466,-0.13473366,-0.088900134,-0.021037841,-0.014968684,0.0,0.0,0.0,0.0,0.34249312,-0.45399356,-0.09427638,-0.37598976,-0.6443434,0.09369579,0.3280429,0.36471042,0.28110397,-0.30351508,0.6234351,-0.016842764,0.013598468,-0.15181617,0.16528268,0.056679916,0.13640092,-0.2553062,-0.077075094,0.00961545,0.0735052,-0.09616906,-0.25270256,-0.10717925,2.0,-2.0,2.0,2.0,2.0,-2.0,-2.0,-2.0,2.0,-2.0,-2.0,-2.0,2.0,-2.0,2.0,2.0,2.0,-2.0,-2.0,-2.0,2.0,-2.0,2.0,2.0
2025-07-21 09:00:57.361,3.6000000000000028,3600,180,-0.11196921,-0.02638303,-0.035348512,-0.015897805,-0.09286863,0.044452697,0.0,0.0,0.0,0.0,0.3440715,-0.52422327,-0.017996738,-0.3591331,-0.6263058,0.021196473,0.2954703,0.37005827,0.2939146,-0.30479506,0.5945084,0.028766816,-0.06061602,-0.219642,0.22234732,0.03205093,0.029639756,-0.20316721,-0.09403608,0.015868712,0.06497566,0.03657804,0.11889762,0.07810462,2.0,-2.0,2.0,2.0,2.0,-2.0,-2.0,-2.0,2.0,-2.0,2.0,2.0,2.0,-2.0,2.0,2.0,2.0,-2.0,-2.0,-2.0,-2.0,-2.0,-2.0,2.0
2025-07-21 09:00:57.381,3.6200000000000028,3620,181,-0.2958137,-0.05252628,-0.12987438,-0.00028970375,-0.036072444,0.0052926196,0.0,0.0,0.0,0.0,0.36048988,-0.576942,0.0311552,-0.33482116,-0.61294955,-0.051262703,0.27423403,0.38952953,0.21221961,-0.32366246,0.54174346,0.069710664,-0.021560255,-0.19860362,0.11710004,0.07563443,0.055896293,-0.10771783,-0.18885975,0.0034252726,-0.22709094,-0.047197808,-0.14063822,0.10738055,2.0,-2.0,2.0,2.0,2.0,-2.0,-2.0,-2.0,-2.0,-2.0,-2.0,2.0,2.0,-2.0,2.0,-2.0,2.0,-2.0,-2.0,2.0,-2.0,-2.0,-2.0,2.0
2025-07-21 09:00:57.401,3.640000000000003,3640,182,-0.16877611,0.02483654,-0.18173549,-0.024393627,-0.06209961,-0.027089749,0.0,0.0,0.0,0.0,0.36208138,-0.6262842,0.0853787,-0.3446705,-0.5823381,-0.10799325,0.1828577,0.45441267,0.13130583,-0.3292588,0.461446,0.11252024,0.062051795,-0.12275029,0.15927224,-0.10181102,0.06296258,-0.107940964,-0.28359336,0.20745926,-0.14894903,0.0037003858,-0.17381032,0.034364685,2.0,-2.0,2.0,-2.0,2.0,-2.0,-2.0,2.0,-2.0,-2.0,-2.0,2.0,2.0,0.67879325,2.0,-2.0,2.0,-2.0,-2.0,-0.8473483,-2.0,-2.0,2.0,2.0
2025-07-21 09:00:57.421,3.660000000000003,3660,183,-0.048166122,0.16216983,-0.0890158,-0.055443015,-0.08874058,0.015186985,0.0,0.0,0.0,0.0,0.34652427,-0.63369125,0.10862651,-0.35246134,-0.5350241,-0.14867103,0.111487746,0.49884066,0.052307718,-0.33693188,0.44579434,0.1426311,-0.024906516,0.016265422,0.14243266,-0.0043142927,0.14720269,-0.09733526,-0.19425452,0.033503123,-0.09456257,0.0045572594,0.04385246,0.14074592,2.0,0.67879325,2.0,-2.0,2.0,-2.0,-2.0,-0.8473483,-2.0,-2.0,2.0,2.0,2.0,2.0,2.0,-2.0,2.0,-2.0,-0.18558481,2.0,-2.0,2.0,-2.0,2.0
2025-07-21 09:00:57.441,3.680000000000003,3680,184,0.2790077,-0.2358122,0.030395426,-0.069933645,-0.05380106,0.010428948,0.0,0.0,0.0,0.0,0.36869252,-0.62307966,0.1407648,-0.3513976,-0.4663903,-0.18424568,0.079675406,0.56090593,-0.0107528595,-0.3097656,0.4476134,0.18638691,-0.01712349,0.10912609,0.085572466,-0.0027061913,0.14230946,-0.1411904,-0.036784198,0.15973714,-0.18403165,0.083258055,-0.015049878,0.12092673,2.0,2.0,2.0,-2.0,2.0,-2.0,-0.18558481,2.0,-2.0,2.0,-2.0,2.0,2.0,2.0,2.0,-2.0,0.7271467,-2.0,2.0,2.0,-2.0,2.0,-2.0,2.0
2025-07-21 09:00:57.462,3.700000000000003,3700,185,0.38745707,-0.27331525,0.08860395,-0.008067029,-0.045579173,0.026153728,0.0,0.0,0.0,0.0,0.3863197,-0.5971733,0.1650518,-0.35812142,-0.38396528,-0.20956987,0.1141133,0.5984148,-0.06573859,-0.27951717,0.46115705,0.20503165,-0.028932493,0.13451459,0.07919095,0.04391275,0.26792938,-0.043034054,0.05179409,0.13147485,-0.11671532,0.10632235,-0.025986165,0.03316818,2.0,2.0,2.0,-2.0,0.7271467,-2.0,2.0,2.0,-2.0,2.0,-2.0,2.0,2.0,2.0,2.0,-2.0,-2.0,-2.0,2.0,-2.0,-2.0,2.0,-2.0,2.0
