openverse-orca/OrcaGym/log/simulation_log_20250719_151843.csv
timestamp,sim_time,physics_step,control_step,imu_angle_roll,imu_angle_pitch,imu_angle_yaw,imu_angular_velocity_roll,imu_angular_velocity_pitch,imu_angular_velocity_yaw,imu_acc_x,imu_acc_y,imu_acc_z,fl_joint1_pos,fl_joint1_vel,fl_joint1_torque,fl_joint2_pos,fl_joint2_vel,fl_joint2_torque,fl_joint3_pos,fl_joint3_vel,fl_joint3_torque,fr_joint1_pos,fr_joint1_vel,fr_joint1_torque,fr_joint2_pos,fr_joint2_vel,fr_joint2_torque,fr_joint3_pos,fr_joint3_vel,fr_joint3_torque,hl_joint1_pos,hl_joint1_vel,hl_joint1_torque,hl_joint2_pos,hl_joint2_vel,hl_joint2_torque,hl_joint3_pos,hl_joint3_vel,hl_joint3_torque,hr_joint1_pos,hr_joint1_vel,hr_joint1_torque,hr_joint2_pos,hr_joint2_vel,hr_joint2_torque,hr_joint3_pos,hr_joint3_vel,hr_joint3_torque,fl_force_x,fl_force_y,fl_force_z,fr_force_x,fr_force_y,fr_force_z,hl_force_x,hl_force_y,hl_force_z,hr_force_x,hr_force_y,hr_force_z,fl_hip_action,fl_thigh_action,fl_calf_action,fr_hip_action,fr_thigh_action,fr_calf_action,hl_hip_action,hl_thigh_action,hl_calf_action,hr_hip_action,hr_thigh_action,hr_calf_action
2025-07-19 15:18:44.033,0.0,0,0,0.04949941,-0.011959471,0.03935502,-0.03655485,0.012056616,0.03454856,0.9690878,0.5670008,0.0,0.0,0.007956813,-0.0057799392,-0.009294067,0.00955663,0.0056039686,0.0063297334,0.007556043,0.006247243,-0.0016710857,-0.006268676,-0.003447495,0.0040761083,0.047955703,-0.016799368,0.01992499,-0.06380503,0.011689445,-0.009971142,0.016422722,0.05779558,4.5596633e-05,0.008238897,0.01835296,0.040565487,0.0,0.0,0.0,0.0,0.0,0.0,0.0,0.0,0.0,0.0,0.0,0.0,1.0741751,1.7607625,1.266282,-0.917016,0.55634505,-0.9315874,-0.32654837,2.0,2.0,-0.52453744,-1.4049187,0.8854574
2025-07-19 15:18:44.047,0.02,20,1,-0.12280468,0.09685254,-0.23225701,0.029538648,0.017313175,0.026286513,0.0,0.0,0.0,0.0,0.021444418,0.030321974,0.0242547,-0.012282803,0.024182359,-0.025751494,-0.0036363413,0.057616457,0.04584578,-0.026481962,-0.03790684,0.017255623,0.1292173,0.15705712,0.06921502,-0.033950772,0.03509548,-0.0856999,-0.04050121,0.20324227,0.14848103,0.021921234,-0.061616603,0.004979623,1.0741751,1.7607625,1.266282,-0.917016,0.55634505,-0.9315874,-0.32654837,2.0,2.0,-0.52453744,-1.4049187,0.8854574,-0.59689933,-2.0,0.38516277,-1.1367,-2.0,0.8597882,1.4894586,-2.0,2.0,-0.48533309,-0.66221297,0.11699024
2025-07-19 15:18:44.064,0.04,40,2,-0.13533424,-0.27661377,0.00089782954,0.035275236,0.034045503,0.020355077,0.0,0.0,0.0,0.0024906518,0.021517314,0.032638725,0.03976771,-0.06061614,0.0015528013,-0.010025091,0.012542774,0.0450584,0.09409968,-0.032538246,-0.07748559,0.017158926,0.0065226774,-0.08404715,0.017141176,-0.10365368,-0.053037647,0.012410702,0.059375793,-0.08850132,0.18007703,-0.07892192,-0.039676215,-0.06127258,-0.59689933,-2.0,0.38516277,-1.1367,-2.0,0.8597882,1.4894586,-2.0,2.0,-0.48533309,-0.66221297,0.11699024,0.35688296,-2.0,0.44009376,-0.6392287,-1.2182552,0.17595936,1.7531123,-0.054708235,2.0,-1.0865438,1.5018727,1.133385
2025-07-19 15:18:44.084,0.06,60,3,0.032997075,-0.1592503,0.028694557,-0.023005752,0.021287844,-0.0015244005,0.0,0.0,0.0,0.0038707852,0.037851397,-0.00052508333,0.030998403,-0.06858364,-0.03146257,0.010200564,0.0636401,0.031919856,0.12766768,-0.052192207,-0.08485568,0.04221221,0.074502744,-0.060640067,0.0009094065,-0.07206858,-0.06740771,0.08240727,0.08099779,-0.036853597,0.058637537,-0.12672223,0.0006420784,-0.039582457,0.35688296,-2.0,0.44009376,-0.6392287,-1.2182552,0.17595936,1.7531123,-0.054708235,2.0,-1.0865438,1.5018727,1.133385,1.1858181,-2.0,0.90761995,-1.7335064,-2.0,0.8900612,1.4178122,-0.18386567,2.0,-1.1699626,2.0,2.0
2025-07-19 15:18:44.108,0.08,80,4,-0.03805942,-0.08590495,0.07010365,-0.06419429,0.028239962,-0.011236103,0.0,0.0,0.0,0.0045926278,0.051358204,-0.055825904,0.052430432,-0.10492052,-0.10978809,0.023398124,0.084646925,0.015452348,0.16855015,-0.07344667,-0.05693977,0.07147829,0.022975007,-0.115703605,0.0013538408,-0.045646,-0.1897988,0.054192074,0.09209568,-0.10782394,0.040869877,-0.055993628,0.13296036,0.1384465,1.1858181,-2.0,0.90761995,-1.7335064,-2.0,0.8900612,1.4178122,-0.18386567,2.0,-1.1699626,2.0,2.0,0.035378765,-0.7674101,0.38267565,-1.370091,-1.6099701,2.0,0.2119686,-0.09867834,2.0,-0.43763787,0.21824524,1.7585208
2025-07-19 15:18:44.126,0.1,100,5,0.014614978,-0.10726741,0.003876753,-0.042881414,0.018052382,-0.036467165,0.0,0.0,0.0,0.004574289,0.064518675,-0.110043325,0.059168193,-0.13044964,-0.18863522,0.073517,0.07658201,0.009342706,0.1921457,-0.07064359,-0.02814388,0.10959961,0.063878596,-0.08009719,0.0029054466,-0.12620917,-0.24912427,0.17194542,-0.056742016,-0.027777974,0.058773063,0.028506532,0.0042563477,0.14153686,0.035378765,-0.7674101,0.38267565,-1.370091,-1.6099701,2.0,0.2119686,-0.09867834,2.0,-0.43763787,0.21824524,1.7585208,-1.083962,1.5303462,0.9443927,-1.3150138,-0.10930339,2.0,0.2942057,-0.078436606,2.0,-0.38138732,2.0,2.0
2025-07-19 15:18:44.144,0.12000000000000001,120,6,-0.36564332,0.2500657,0.073481955,-0.052258596,0.041367866,-0.016994726,0.0,0.0,0.0,0.004643424,0.032089658,-0.112141035,0.06035274,-0.14893751,-0.19931228,0.10977387,0.08264498,-0.010598618,0.20995605,-0.0777463,0.057422087,0.15233544,-0.14037246,0.035161633,0.0063370885,-0.03841215,0.017272105,0.0933045,0.02384726,0.035184063,0.02514597,-0.061806723,0.27971965,0.072012804,-1.083962,1.5303462,0.9443927,-1.3150138,-0.10930339,2.0,0.2942057,-0.078436606,2.0,-0.38138732,2.0,2.0,-1.2382358,0.9044723,-1.3757601,0.09623131,-2.0,0.94804484,0.16697699,-1.9943652,2.0,0.42785972,-2.0,-1.399221
2025-07-19 15:18:44.164,0.14,140,7,-0.1076888,0.20905544,-0.1631909,-0.047824457,-0.025739608,-0.017319366,0.0,0.0,0.0,0.00372741,-0.008390701,-0.039992914,0.022861075,-0.13810064,-0.22430752,0.118785165,0.08049587,-0.0490383,0.23434147,-0.052159064,0.100437574,0.10712977,-0.09225389,0.1678347,-0.070703276,0.10573938,-0.05543849,-0.0025389257,-0.024472158,-0.2918937,-0.018564414,0.049796898,-0.051290177,-0.17794637,-1.2382358,0.9044723,-1.3757601,0.09623131,-2.0,0.94804484,0.16697699,-1.9943652,2.0,0.42785972,-2.0,-1.399221,-0.95697874,-1.102189,-2.0,-0.46635,0.33231184,1.5202794,0.29370168,0.020749189,2.0,1.1002051,1.86485,-2.0
2025-07-19 15:18:44.184,0.16,160,8,-0.1880918,0.44063857,0.06459324,-0.043173578,0.051803507,0.044176262,0.0,0.0,0.0,0.0042796656,-0.04174919,-0.02166969,-0.033898946,-0.1253367,-0.2108134,0.13210844,0.068239614,-0.08322607,0.24006216,-0.006496729,0.1549691,0.027708948,0.006136673,-0.107973956,-0.13266134,0.020923592,0.10309508,0.073007084,-0.05808563,0.06349795,-0.06259089,0.12470995,0.21208476,-0.16888689,-0.95697874,-1.102189,-2.0,-0.46635,0.33231184,1.5202794,0.29370168,0.020749189,2.0,1.1002051,1.86485,-2.0,0.041312825,0.14664264,-1.8399811,1.5273356,1.3022318,0.48830113,-0.6221925,-1.0540109,2.0,0.039879825,-1.4639045,-2.0
2025-07-19 15:18:44.208,0.18,180,9,-0.067555696,-0.00023984809,-0.096641265,-0.04473693,0.016419956,-0.040708143,0.0,0.0,0.0,0.004655706,-0.037231587,-0.01951367,-0.08500552,-0.12171696,-0.17859681,0.10818048,0.057426754,-0.08098621,0.24696225,-0.008173056,0.19067496,-0.03466553,0.0027697636,0.11372315,-0.059019234,-0.012716473,0.13459092,-0.11414897,-0.085738935,-0.050019324,0.04303733,-0.03691827,-0.013098118,-0.0669955,0.041312825,0.14664264,-1.8399811,1.5273356,1.3022318,0.48830113,-0.6221925,-1.0540109,2.0,0.039879825,-1.4639045,-2.0,0.32345852,-2.0,-2.0,1.158161,1.9147857,0.0066641136,-0.13546997,-1.6769189,2.0,-2.0,-2.0,-2.0
2025-07-19 15:18:44.224,0.19999999999999998,200,10,0.11232864,-0.0684009,-0.0060947747,-0.012641329,0.057523053,-0.012211328,0.0,0.0,0.0,0.006062347,-0.02086487,-0.069211386,-0.13030654,-0.084442444,-0.14379717,0.09096032,0.047101934,-0.09722761,0.26574326,-0.051147826,0.1301958,-0.080764376,0.02078527,-0.23891631,-0.052384645,0.12416163,0.095635705,-0.13925026,-0.022548933,-0.03565949,-0.020950744,-0.17177191,-0.34518173,-0.09129434,0.32345852,-2.0,-2.0,1.158161,1.9147857,0.0066641136,-0.13546997,-1.6769189,2.0,-2.0,-2.0,-2.0,2.0,-2.0,0.50331557,1.0091419,2.0,-2.0,-0.35687965,-1.2276099,2.0,-2.0,-0.5055764,0.19702789
2025-07-19 15:18:44.244,0.21999999999999997,220,11,-0.03077637,-0.18297789,0.009607104,-0.08888817,0.092780225,-0.019748634,0.0,0.0,0.0,0.0071312445,0.028962227,-0.19850267,-0.098426126,-0.05873954,-0.086334676,-0.0004163051,0.047860637,-0.1221336,0.26177022,-0.09289973,0.05088017,-0.060914077,0.17747706,-0.27030694,0.09751783,0.05868504,0.20513646,-0.15567377,0.021344006,-0.13040188,0.079630256,-0.048710473,-0.18692349,0.11782095,2.0,-2.0,0.50331557,1.0091419,2.0,-2.0,-0.35687965,-1.2276099,2.0,-2.0,-0.5055764,0.19702789,1.9612354,-2.0,1.9315119,1.3351446,0.19455376,-2.0,1.0228012,2.0,1.9836982,-2.0,0.47516042,2.0
2025-07-19 15:18:44.264,0.23999999999999996,240,12,0.16311918,0.037468128,-0.050877407,-0.0047325613,0.052579395,0.025581235,0.0,0.0,0.0,0.0067301677,0.091425255,-0.31268436,-0.021023186,-0.012651734,-0.04691069,-0.042823408,0.07688639,-0.10053355,0.25909698,-0.13481009,0.05173385,-0.009864837,0.061936993,-0.22163524,0.1759442,0.047857445,0.08767988,-0.15310465,0.028293243,0.11003978,0.023442013,-0.0888324,0.032787573,0.19206391,1.9612354,-2.0,1.9315119,1.3351446,0.19455376,-2.0,1.0228012,2.0,1.9836982,-2.0,0.47516042,2.0,1.8000096,-1.8602543,2.0,0.04222247,-1.0111241,-0.5666744,2.0,2.0,1.6954286,-0.7861313,-2.0,2.0
2025-07-19 15:18:44.284,0.25999999999999995,260,13,0.16682042,0.031624593,-0.1328481,-0.032467183,0.02984671,-0.04995884,0.0,0.0,0.0,0.0068557435,0.12566926,-0.38480017,0.039668255,-0.0037987614,-0.06550539,-0.053208627,0.11460543,-0.055729657,0.26800972,-0.14063397,0.03119876,0.06418046,0.10735033,-0.20905823,0.20087168,0.030090338,-0.13750729,-0.08780565,0.15591206,0.24055748,-0.01077098,-0.03972109,-0.17526403,0.17109837,1.8000096,-1.8602543,2.0,0.04222247,-1.0111241,-0.5666744,2.0,2.0,1.6954286,-0.7861313,-2.0,2.0,0.7004342,-0.6182721,2.0,-1.4382704,2.0,-1.840597,2.0,-0.25759363,2.0,0.22483344,-0.7669561,2.0
2025-07-19 15:18:44.304,0.27999999999999997,280,14,0.33116746,-0.12511724,0.08223598,-0.04589455,0.04123524,0.015346533,0.0,0.0,0.0,0.00818535,0.13579473,-0.40397954,0.074965045,-0.047837775,-0.05845839,-0.09891829,0.16718358,-0.039012436,0.27206373,-0.12438934,-0.026011966,0.10697815,0.016762763,0.11451783,0.11289342,-0.08249561,0.14189373,-0.14913896,0.08410007,-0.023778949,0.022446414,0.12578224,-0.09130782,0.12146971,0.7004342,-0.6182721,2.0,-1.4382704,2.0,-1.840597,2.0,-0.25759363,2.0,0.22483344,-0.7669561,2.0,-0.31092554,0.8970382,2.0,-0.6331902,-0.9946446,-1.2969793,2.0,2.0,2.0,0.13486113,-0.3725747,2.0
2025-07-19 15:18:44.328,0.3,300,15,0.117783085,0.047187865,-0.08398229,0.024776824,-0.04169706,-0.012300828,0.0,0.0,0.0,0.008545149,0.109826036,-0.35796046,0.11955283,-0.05048305,-0.0966055,-0.114375815,0.18510155,0.0042213695,0.2709777,-0.10950458,-0.056834683,0.13110985,-0.04976105,0.14106256,0.08186615,-0.04867657,-0.0849901,-0.06782895,0.10992699,0.20530325,-0.00995277,0.084829785,-0.031474914,0.031533673,-0.31092554,0.8970382,2.0,-0.6331902,-0.9946446,-1.2969793,2.0,2.0,2.0,0.13486113,-0.3725747,2.0,-0.7837706,0.021689195,1.4416032,-2.0,0.57785606,-0.37972096,2.0,-0.8456769,2.0,0.75748545,-2.0,2.0
2025-07-19 15:18:44.345,0.32,320,16,-0.110622525,-0.06850215,0.014130374,0.023637297,0.030387023,0.042017475,0.0,0.0,0.0,0.0092849,0.095261775,-0.31060937,0.113536276,-0.10219444,-0.09434542,-0.113168985,0.2105822,0.008644775,0.28997684,-0.09676324,-0.06879752,0.16322775,-0.035942335,0.047276065,-0.062361553,-0.16500962,0.11841229,0.02394825,0.07331267,-0.055402078,0.03185092,0.039479043,0.012834461,0.13637632,-0.7837706,0.021689195,1.4416032,-2.0,0.57785606,-0.37972096,2.0,-0.8456769,2.0,0.75748545,-2.0,2.0,-1.7126793,2.0,0.20825861,-1.1542553,-2.0,-0.11526649,2.0,0.2761402,2.0,0.061201524,-1.3992395,2.0
2025-07-19 15:18:44.365,0.34,340,17,0.08016913,-0.057526752,-0.08658969,0.010788369,-0.02150294,-0.04007457,0.0,0.0,0.0,0.00955529,0.0765591,-0.27157068,0.09145894,-0.12184691,-0.09980911,-0.08837004,0.23191468,0.0072002644,0.278664,-0.10030549,-0.10132675,0.17975411,-0.05087408,0.07914252,-0.111663274,-0.01046969,-0.14903696,0.11566436,0.022962477,0.10146701,0.06569172,-0.046325106,-0.089189716,0.040655285,-1.7126793,2.0,0.20825861,-1.1542553,-2.0,-0.11526649,2.0,0.2761402,2.0,0.061201524,-1.3992395,2.0,-1.3960631,1.163414,-2.0,-1.753043,-2.0,1.1371051,2.0,-2.0,2.0,0.6011173,1.4753443,2.0
2025-07-19 15:18:44.385,0.36000000000000004,360,18,-0.049892608,-0.0923301,0.13445619,-0.045614965,-0.0008938261,0.033305936,0.0,0.0,0.0,0.010595674,0.067335606,-0.21569078,0.008918606,-0.15003657,-0.21368839,-0.04180222,0.26427934,-0.029699145,0.28508797,-0.08032998,-0.07214288,0.21056853,-0.103591174,0.17970626,-0.21397646,-0.026129473,-0.32404768,0.09760322,0.08455771,-0.22221164,0.088772066,0.013537804,0.15233149,-0.009182525,-1.3960631,1.163414,-2.0,-1.753043,-2.0,1.1371051,2.0,-2.0,2.0,0.6011173,1.4753443,2.0,-1.3275952,1.6396459,-2.0,-0.06586161,-1.2222546,2.0,-1.085958,-0.089443915,2.0,-0.2409883,0.40196383,2.0
2025-07-19 15:18:44.409,0.38000000000000006,380,19,-0.0011469088,0.17771997,0.06070829,-0.012104745,0.0099869445,-0.007937852,0.0,0.0,0.0,0.009535827,0.02424269,-0.11808517,-0.053549435,-0.13628128,-0.26308623,0.020828974,0.21932666,-0.039726373,0.28664434,-0.091267735,-0.047047373,0.20355168,-0.08349398,0.25424784,-0.2204392,0.09337657,-0.13195843,0.18048017,-0.2192836,0.028205091,0.04843599,0.011443948,0.14325267,-0.026018534,-1.3275952,1.6396459,-2.0,-0.06586161,-1.2222546,2.0,-1.085958,-0.089443915,2.0,-0.2409883,0.40196383,2.0,-1.3038075,0.2319106,-2.0,0.39275917,0.19729522,2.0,-1.9532318,0.27249444,2.0,-0.6689734,1.8839849,-1.9359694
2025-07-19 15:18:44.425,0.4000000000000001,400,20,-0.2852558,0.24816489,0.02051596,-0.018854631,0.032849394,-0.029713972,0.0,0.0,0.0,0.0075283963,-0.0246103,-0.08265778,-0.08689526,-0.1220268,-0.27210337,0.0579639,0.15255578,-0.008615074,0.30400816,-0.09235489,0.05702331,0.13501841,-0.03515687,0.08064621,-0.14514348,0.05211187,0.031125402,0.13561475,-0.050014768,0.147932,0.0002938387,-0.011580542,0.25764906,-0.23904704,-1.3038075,0.2319106,-2.0,0.39275917,0.19729522,2.0,-1.9532318,0.27249444,2.0,-0.6689734,1.8839849,-1.9359694,-0.2902658,-1.2586588,-2.0,2.0,2.0,1.8988737,-0.7154918,-2.0,2.0,-0.83038104,-1.9233487,-2.0
2025-07-19 15:18:44.445,0.4200000000000001,420,21,0.13269448,-0.018375492,-0.018459478,-0.041264787,-0.0077046547,0.018926973,0.0,0.0,0.0,0.0063604494,-0.014557871,-0.097477265,-0.13273291,-0.10438582,-0.25149518,0.089931995,0.12998287,-0.0018280187,0.29451558,-0.10796198,0.12006538,0.057588156,0.03244662,-0.10632315,-0.062211175,-0.016678626,-0.03079201,0.09549952,-0.04811606,-0.043562587,-0.03389768,-0.062250637,0.07104264,-0.1785752,-0.2902658,-1.2586588,-2.0,2.0,2.0,1.8988737,-0.7154918,-2.0,2.0,-0.83038104,-1.9233487,-2.0,1.3957208,-1.7350483,-1.9507356,1.2682863,2.0,0.40511784,-0.29628587,-1.8481915,2.0,-1.9897678,-2.0,-2.0
2025-07-19 15:18:44.465,0.4400000000000001,440,22,0.29439646,-0.094137356,0.009762489,-0.019223873,0.040218726,0.03886964,0.0,0.0,0.0,0.0061237146,0.007778252,-0.18819779,-0.16560437,-0.066632785,-0.22653335,0.06698937,0.106803544,-0.0019885863,0.31110185,-0.14726207,0.06352788,0.00072896486,0.09074604,-0.18705569,-0.11250973,0.15383835,0.0032736002,-0.045824252,-0.0028299063,0.008934343,0.023430463,-0.07104596,-0.17642196,-0.21466498,1.3957208,-1.7350483,-1.9507356,1.2682863,2.0,0.40511784,-0.29628587,-1.8481915,2.0,-1.9897678,-2.0,-2.0,1.655619,-1.7790301,0.87895525,0.9202431,2.0,-2.0,-1.1490259,-1.8549471,2.0,-2.0,-0.76741886,0.7045466
2025-07-19 15:18:44.485,0.46000000000000013,460,23,0.06935329,-0.26915967,-0.027430968,-0.009984533,0.014139191,-0.027856471,0.0,0.0,0.0,0.0069048065,0.06481121,-0.2858245,-0.11293123,-0.029206537,-0.17905414,-0.004773882,0.069115326,-0.03601215,0.30850422,-0.17554793,-0.008329903,0.017237933,0.17836723,-0.293615,0.14316538,0.011287483,0.099946834,-0.18019308,-0.03387482,-0.0087785935,-0.034482494,-0.022630367,-0.15774296,0.01567389,1.655619,-1.7790301,0.87895525,0.9202431,2.0,-2.0,-1.1490259,-1.8549471,2.0,-2.0,-0.76741886,0.7045466,1.4655463,-2.0,2.0,0.8614022,2.0,-2.0,0.61525774,1.790766,1.4299529,-0.9665218,1.1374297,2.0
2025-07-19 15:18:44.508,0.48000000000000015,480,24,0.15040632,0.21413945,0.012930119,0.043754466,-0.036281347,-0.009485982,0.0,0.0,0.0,0.007318657,0.09079768,-0.387938,-0.0489303,-0.005344525,-0.09289693,-0.0492361,0.09099461,0.011395802,0.29345092,-0.17980778,0.0115505075,0.06606016,0.12769371,-0.20709875,0.19477175,0.116212025,0.3093155,-0.2105394,0.030324543,0.21697111,0.010310305,0.034811724,0.20049752,0.06383322,1.4655463,-2.0,2.0,0.8614022,2.0,-2.0,0.61525774,1.790766,1.4299529,-0.9665218,1.1374297,2.0,0.8570233,-0.18237717,2.0,-0.101067275,-0.8793775,-2.0,1.92828,0.5624279,1.7406,-1.0377158,-2.0,2.0
2025-07-19 15:18:44.526,0.5000000000000001,500,25,0.24728589,0.06620789,0.027407309,-0.012903063,0.018700765,0.012510589,0.0,0.0,0.0,0.0062597743,0.09957171,-0.40814614,0.01941078,0.0037552773,-0.054442037,-0.10790971,0.11349179,0.0414698,0.28871873,-0.17503539,-0.00068917323,0.10229982,0.046995915,0.13344686,0.12133607,0.055940997,0.0037590903,-0.15486985,0.15070422,0.060164846,-0.07789859,-0.004498137,-0.09388646,0.09167476,0.8570233,-0.18237717,2.0,-0.101067275,-0.8793775,-2.0,1.92828,0.5624279,1.7406,-1.0377158,-2.0,2.0,-0.12156354,-0.60556346,1.4800773,-0.4226522,1.4496897,-1.6469787,1.6320219,1.1874372,2.0,0.17760156,-2.0,2.0
2025-07-19 15:18:44.546,0.5200000000000001,520,26,-0.07741974,-0.013109015,-0.02283569,0.012860915,-0.021057518,0.012078357,0.0,0.0,0.0,0.005469313,0.09399676,-0.37442964,0.05200997,-0.014214407,-0.011805733,-0.13135229,0.14555714,0.10277889,0.2910097,-0.15432258,-0.08437659,0.13363022,0.034499034,0.08075785,0.039617162,0.03931876,0.28028926,-0.0014174046,-0.0012084069,0.16228765,0.066244006,0.13573018,-0.29578656,0.024152528,-0.12156354,-0.60556346,1.4800773,-0.4226522,1.4496897,-1.6469787,1.6320219,1.1874372,2.0,0.17760156,-2.0,2.0,0.06940766,-0.39605674,2.0,-1.3692553,-1.137707,-2.0,2.0,-1.3348439,2.0,-0.5549316,0.120073624,2.0
2025-07-19 15:18:44.565,0.5400000000000001,540,27,-0.06726528,0.23169452,0.0012147889,0.006330016,0.006412845,-0.03308825,0.0,0.0,0.0,0.0060490523,0.07475979,-0.35169217,0.087837614,-0.057468865,-0.0011915659,-0.16879366,0.18384819,0.13197502,0.2912462,-0.14864248,-0.12261455,0.16034551,-0.07594094,0.05035282,0.04651416,-0.08262781,-0.058997273,-0.018810514,0.11172453,-0.027215833,-0.0471283,0.055733733,-0.00151682,0.05556144,0.06940766,-0.39605674,2.0,-1.3692553,-1.137707,-2.0,2.0,-1.3348439,2.0,-0.5549316,0.120073624,2.0,-0.9443132,0.987719,0.53687125,-1.7078016,0.4762062,-0.24484615,2.0,-1.6462537,2.0,0.16123147,-1.2194575,2.0
2025-07-19 15:18:44.585,0.5600000000000002,560,28,0.01348011,-0.0807168,0.103338614,0.023957355,0.048836213,-0.005758745,0.0,0.0,0.0,0.0070323315,0.07487276,-0.3336438,0.0621959,-0.09737491,0.008787811,-0.13712204,0.21172942,0.07646246,0.294322,-0.13845752,-0.12777618,0.18942453,-0.042495973,0.09269176,-0.06949247,-0.15949829,0.16376792,0.08863421,0.06777585,-0.19064792,0.07752456,-0.01144347,-0.05173666,0.07671014,-0.9443132,0.987719,0.53687125,-1.7078016,0.4762062,-0.24484615,2.0,-1.6462537,2.0,0.16123147,-1.2194575,2.0,-1.0943544,1.5245016,-0.2591046,-1.1253766,-2.0,-0.6550889,2.0,-0.14804602,2.0,-1.328754,0.48946607,2.0
2025-07-19 15:18:44.609,0.5800000000000002,580,29,-0.28436512,-0.031407878,0.17124583,0.040466513,0.029017035,0.04482935,0.0,0.0,0.0,0.006118033,0.0403269,-0.29373604,0.04551198,-0.1176567,-0.01223535,-0.13764226,0.24032502,0.059148584,0.29999584,-0.17297101,-0.07790448,0.19790055,-0.10524746,0.04872267,-0.008360995,-0.07584933,-0.11571264,-0.015929174,0.121392354,-0.07938057,0.047647774,-0.045823157,0.070430905,-0.0041791787,-1.0943544,1.5245016,-0.2591046,-1.1253766,-2.0,-0.6550889,2.0,-0.14804602,2.0,-1.328754,0.48946607,2.0,-0.5867042,2.0,-0.6765164,-0.44075593,-1.1994109,0.50228184,1.5616701,-1.5115142,2.0,-0.85950226,-2.0,1.8580554
2025-07-19 15:18:44.626,0.6000000000000002,600,30,-0.06840534,-0.23936561,0.051273677,0.043546546,-0.023087649,-0.036567315,0.0,0.0,0.0,0.0035607328,0.015995381,-0.24211563,0.008447384,-0.09670965,-0.08723465,-0.09479929,0.25149158,0.014651439,0.30691263,-0.1765863,-0.06746663,0.22451046,-0.102879085,0.10411148,-0.12412379,-0.018973924,-0.15465075,0.060235143,-0.037779786,-0.1853973,-0.030291127,-0.010317157,0.046691585,-0.016900206,-0.5867042,2.0,-0.6765164,-0.44075593,-1.1994109,0.50228184,1.5616701,-1.5115142,2.0,-0.85950226,-2.0,1.8580554,-0.21382116,2.0,-2.0,-1.0327294,-1.5831983,1.1765996,0.91551983,0.5350483,2.0,-0.1295033,0.12583637,2.0
2025-07-19 15:18:44.646,0.6200000000000002,620,31,0.16208652,0.07560643,-0.028368184,0.0025711833,-0.022065151,-0.007736753,0.0,0.0,0.0,0.001509817,0.009722064,-0.17312908,-0.058509964,-0.11642774,-0.17447689,-0.042764395,0.2253364,0.031015089,0.30897862,-0.16860205,-0.045949407,0.22722375,0.02081521,0.14128791,-0.09091212,-0.045748286,-0.12451196,0.15921663,-0.098530635,0.12077609,0.03719546,0.049084913,-0.016979411,0.038762677,-0.21382116,2.0,-2.0,-1.0327294,-1.5831983,1.1765996,0.91551983,0.5350483,2.0,-0.1295033,0.12583637,2.0,-1.6857744,0.81523293,-1.1469207,-1.005942,-2.0,2.0,-0.09392788,-1.2378464,2.0,-0.29313928,2.0,0.8615843
2025-07-19 15:18:44.666,0.6400000000000002,640,32,-0.1805633,0.014448708,0.057692695,0.025972538,-0.023201613,0.04720249,0.0,0.0,0.0,0.0010780083,-0.0214895,-0.10585089,-0.0932315,-0.1442487,-0.26949236,0.005238393,0.19279476,0.033247624,0.31714994,-0.1429096,0.0038919065,0.20385218,-0.11113927,0.19959928,-0.030433405,-0.07528898,-0.16969657,0.13182266,-0.113415174,0.009726149,0.06690322,0.07654438,0.26629308,-0.116997056,-1.6857744,0.81523293,-1.1469207,-1.005942,-2.0,2.0,-0.09392788,-1.2378464,2.0,-0.29313928,2.0,0.8615843,-1.6047034,0.6487004,-2.0,0.2007336,-0.2860811,2.0,-0.6782867,-1.2062349,2.0,0.673062,-1.0729114,-2.0
2025-07-19 15:18:44.686,0.6600000000000003,660,33,0.078864545,-0.12828478,0.046542276,0.010012598,-0.012923835,0.047087885,0.0,0.0,0.0,-7.256029e-05,-0.057011265,-0.054451413,-0.13247694,-0.14876784,-0.29917535,0.045274265,0.16901344,0.018812912,0.3165714,-0.1150805,0.06188186,0.12666512,-0.13549413,0.15983476,-0.16557534,-0.029277438,-0.052374605,0.124111,-0.01687012,-0.001639114,0.050242487,0.073509894,0.014473802,-0.20866172,-1.6047034,0.6487004,-2.0,0.2007336,-0.2860811,2.0,-0.6782867,-1.2062349,2.0,0.673062,-1.0729114,-2.0,0.43429613,-0.40990973,-2.0,1.0344561,2.0,1.9070884,-1.1830144,-2.0,2.0,-0.115485206,-0.14983082,-2.0
2025-07-19 15:18:44.706,0.6800000000000003,680,34,0.23540965,-0.16373992,-0.020095747,-0.007909104,-0.003997792,0.047743835,0.0,0.0,0.0,-0.000986531,-0.033115372,-0.044367705,-0.16133377,-0.12528381,-0.32011935,0.09110945,0.14823115,-0.014913454,0.31359908,-0.09714745,0.05121269,0.059067145,-0.01815248,-0.01766023,-0.028594399,0.13228661,0.023366688,0.06745974,-0.042064115,-0.085972406,-0.015278276,0.101945065,0.010550241,-0.22839896,0.43429613,-0.40990973,-2.0,1.0344561,2.0,1.9070884,-1.1830144,-2.0,2.0,-0.115485206,-0.14983082,-2.0,-0.13920906,-0.8782968,-1.6883905,0.94408906,2.0,0.5798114,-0.907903,-1.4555328,2.0,-2.0,-0.030109577,-2.0
2025-07-19 15:18:44.726,0.7000000000000003,700,35,0.03517421,-0.17316638,-0.046660595,-0.040880725,-0.06494987,-0.042011347,0.0,0.0,0.0,-0.000645966,-0.030484159,-0.09743161,-0.16971302,-0.094320364,-0.3158448,0.067815475,0.11865032,-0.05598346,0.32526413,-0.13356175,0.041381434,-0.014394152,-0.03757636,-0.14775106,-0.029918646,0.13418351,0.1272492,-0.0694751,-0.035290312,-0.03907632,0.060813338,-0.14202172,-0.09314051,-0.1401321,-0.13920906,-0.8782968,-1.6883905,0.94408906,2.0,0.5798114,-0.907903,-1.4555328,2.0,-2.0,-0.030109577,-2.0,1.1358708,-1.5322111,-0.6299156,1.0813483,2.0,-1.4558338,-0.22155166,-1.7057703,2.0,-2.0,0.18294561,-2.0
2025-07-19 15:18:44.746,0.7200000000000003,720,36,0.18850201,-0.1919628,0.07248911,0.0138968425,-0.008178721,0.006548061,0.0,0.0,0.0,-0.00042668698,0.0015274711,-0.17522424,-0.17275964,-0.07099838,-0.26268587,0.016606977,0.10049436,-0.099354506,0.31779742,-0.16829029,0.047374118,-0.052466523,0.12777227,-0.28907612,0.05389749,0.15617366,0.19802032,-0.21000583,-0.11764144,-0.10797037,-0.023323927,-0.15240724,0.05242434,-0.14111587,1.1358708,-1.5322111,-0.6299156,1.0813483,2.0,-1.4558338,-0.22155166,-1.7057703,2.0,-2.0,0.18294561,-2.0,1.8923079,-1.41176,1.439415,1.2621089,2.0,-2.0,-1.1492535,2.0,2.0,-2.0,-1.0019344,1.6696366
2025-07-19 15:18:44.766,0.7400000000000003,740,37,0.24521787,0.08582947,-0.06374843,0.027721224,-0.029464805,0.0031361524,0.0,0.0,0.0,-0.0010133538,0.046672188,-0.25444287,-0.10810669,-0.013655857,-0.16950847,-0.04586642,0.051643144,-0.083559185,0.31411266,-0.19040635,-0.021236626,-0.02257332,0.1741628,-0.13395557,0.18233931,0.074044704,0.15325825,-0.11015112,-0.065259434,0.09397946,-0.01564654,-0.1066392,-0.16265069,0.15393114,1.8923079,-1.41176,1.439415,1.2621089,2.0,-2.0,-1.1492535,2.0,2.0,-2.0,-1.0019344,1.6696366,1.197157,-2.0,2.0,0.5472005,0.69138795,-2.0,0.34316945,0.69184065,0.5418562,-0.9847825,-0.75221026,2.0
2025-07-19 15:18:44.786,0.7600000000000003,760,38,0.3422221,0.1073617,0.08334656,0.006688888,-0.1114406,0.03159808,0.0,0.0,0.0,-1.9317102e-05,0.07439326,-0.3443772,-0.035805576,0.009482585,-0.08724622,-0.10178365,0.063193776,-0.0040160343,0.28712448,-0.20604649,-0.07311293,0.03747967,0.084056444,-0.25960603,0.1470088,0.101754345,0.2477391,-0.113584004,0.0034445708,0.18981965,-0.16127537,-0.031587504,-0.12557794,0.122839004,1.197157,-2.0,2.0,0.5472005,0.69138795,-2.0,0.34316945,0.69184065,0.5418562,-0.9847825,-0.75221026,2.0,0.7989394,0.41327235,2.0,0.052952558,0.35516217,-2.0,1.3891177,1.4361451,0.077046074,-0.47311205,0.4561206,2.0
2025-07-19 15:18:44.809,0.7800000000000004,780,39,-0.035272665,0.42967808,0.044680763,-0.003185633,-0.022828182,0.033889093,0.0,0.0,0.0,-0.0004043315,0.10229608,-0.37487444,0.029249912,-0.003804992,-0.059036244,-0.12641013,0.09242215,0.08917943,0.2333354,-0.17396224,-0.04595059,0.078535214,-0.036332976,-0.026746247,0.17628944,-0.016366947,0.060426358,-0.1087411,0.05233016,0.26645064,-0.040911473,0.014018488,0.09500656,0.095018126,0.7989394,0.41327235,2.0,0.052952558,0.35516217,-2.0,1.3891177,1.4361451,0.077046074,-0.47311205,0.4561206,2.0,-0.9234683,1.9304053,2.0,-0.8486966,1.6128774,-2.0,1.7888567,-0.7685944,1.6520336,0.14983512,-2.0,2.0
2025-07-19 15:18:44.827,0.8000000000000004,800,40,-0.6200791,0.3171605,0.039010715,0.024204288,0.0076154894,-0.047265597,0.0,0.0,0.0,-0.0014830331,0.07432635,-0.36307272,0.058673467,-0.021291878,0.03243909,-0.17161828,0.12716909,0.09754074,0.23215921,-0.14291392,-0.057621505,0.13618653,-0.14697969,0.015110638,0.10307458,-0.07418559,0.22886126,-0.07460254,0.112896346,-0.105308704,0.0037482113,0.058261372,-0.0714861,0.050779905,-0.9234683,1.9304053,2.0,-0.8486966,1.6128774,-2.0,1.7888567,-0.7685944,1.6520336,0.14983512,-2.0,2.0,-1.1409389,2.0,1.4256568,-1.3030435,-2.0,-2.0,2.0,1.0720267,2.0,1.2469819,-2.0,2.0
2025-07-19 15:18:44.846,0.8200000000000004,820,41,-0.2613193,0.294283,-0.12957527,-0.021631163,0.018102646,0.0066942484,0.0,0.0,0.0,-0.0024819223,0.03502699,-0.29826245,0.07349609,-0.052647367,0.0733139,-0.17732301,0.1459274,0.13156174,0.24635132,-0.12651224,-0.11465853,0.15157825,-0.034660053,0.056834303,-0.021421833,-0.005632676,-0.04238249,-0.10720409,0.0454855,0.16251911,-0.039639447,0.032027483,-0.10448851,0.0013056708,-1.1409389,2.0,1.4256568,-1.3030435,-2.0,-2.0,2.0,1.0720267,2.0,1.2469819,-2.0,2.0,-2.0,-0.28538933,0.5062346,-2.0,-2.0,-1.4186757,2.0,-1.6760273,2.0,1.115735,-0.336466,2.0
2025-07-19 15:18:44.867,0.8400000000000004,840,42,-0.020991748,-0.1151511,0.17009898,0.062349666,-0.016520761,0.034509998,0.0,0.0,0.0,-0.0018919326,0.022308767,-0.27981824,0.06899943,-0.09310699,-0.011664104,-0.19371726,0.1809656,0.14477696,0.2657821,-0.114580914,-0.11641251,0.18683846,-0.05718689,0.07103421,-0.03297075,-0.13808455,-0.330884,-0.03093276,0.07205583,0.025586735,0.09723956,0.048689224,-0.011464626,0.026949188,-2.0,-0.28538933,0.5062346,-2.0,-2.0,-1.4186757,2.0,-1.6760273,2.0,1.115735,-0.336466,2.0,-0.942337,2.0,-0.5680605,-1.4319125,-0.7214496,1.4449947,2.0,-2.0,2.0,-0.9178024,-2.0,2.0
2025-07-19 15:18:44.886,0.8600000000000004,860,43,-0.113135375,-0.27615696,0.025783965,0.06016536,0.038534787,0.0051777475,0.0,0.0,0.0,-0.002708411,0.0041924478,-0.25514778,0.036958035,-0.12982604,-0.07017644,-0.121660754,0.20844734,0.07742937,0.2755537,-0.13164343,-0.10855719,0.19771682,-0.033466913,0.0990431,-0.097821765,-0.07188138,-0.054311145,0.20917924,-0.012504795,-0.24950397,-0.027930608,-0.02827748,-0.015808553,0.11772662,-0.942337,2.0,-0.5680605,-1.4319125,-0.7214496,1.4449947,2.0,-2.0,2.0,-0.9178024,-2.0,2.0,-0.73702043,0.17281218,-1.9748358,-1.344752,-2.0,0.38924113,1.6027496,-0.20524502,2.0,-1.2567728,2.0,2.0
2025-07-19 15:18:44.931,0.8800000000000004,880,44,0.010334545,-0.07874921,0.033521853,-0.032278296,-0.0017008332,0.009931,0.0,0.0,0.0,-0.004661117,-0.0021576486,-0.19966038,-0.03654533,-0.13429663,-0.16358027,-0.08494166,0.21414071,0.04187671,0.27977931,-0.1568139,-0.08817754,0.20486909,-0.09760489,0.19364186,-0.17025149,-0.10161728,-0.22111915,0.04277224,0.0390846,0.008165837,0.07689772,-0.0059918584,0.17305787,0.018844942,-0.73702043,0.17281218,-1.9748358,-1.344752,-2.0,0.38924113,1.6027496,-0.20524502,2.0,-1.2567728,2.0,2.0,-0.60911876,0.70319456,-1.886125,-0.05561313,-1.232637,2.0,-1.2113106,-2.0,2.0,0.029480886,0.40268165,0.5607066
2025-07-19 15:18:44.951,0.9000000000000005,900,45,-0.035686165,-0.296316,0.13200897,0.031239139,0.04895647,-0.012494821,0.0,0.0,0.0,-0.004730504,-0.029787647,-0.13572693,-0.077051066,-0.123379365,-0.22746544,-0.027840544,0.21757007,0.017729979,0.28708118,-0.14443932,-0.0531079,0.195926,-0.07206052,0.20668101,-0.05610758,0.103727445,-0.14675884,0.21630433,-0.032521583,-0.11068348,-0.027027298,0.080992796,0.099053584,-0.02434541,-0.60911876,0.70319456,-1.886125,-0.05561313,-1.232637,2.0,-1.2113106,-2.0,2.0,0.029480886,0.40268165,0.5607066,-0.75439805,1.5908575,-2.0,1.1198372,1.2383525,2.0,-1.5730743,1.955832,2.0,-0.20974772,1.7323177,-1.4981121
2025-07-19 15:18:44.971,0.9200000000000005,920,46,-0.11561473,0.22941001,-0.064011864,0.014456433,0.064212196,-0.017824084,0.0,0.0,0.0,-0.006112329,-0.045999087,-0.06530702,-0.13125525,-0.109816015,-0.23142155,0.023887968,0.1910115,0.040169578,0.29268247,-0.1260497,0.0440135,0.11957398,0.020948045,0.3250562,-0.036243502,0.009706824,0.12036724,0.099368125,-0.08554154,0.20171107,-0.06971304,0.02939559,0.2793908,-0.21951093,-0.75439805,1.5908575,-2.0,1.1198372,1.2383525,2.0,-1.5730743,1.955832,2.0,-0.20974772,1.7323177,-1.4981121,-0.887652,-2.0,-2.0,1.7403597,2.0,1.9906813,-0.5623475,-2.0,2.0,-1.3679867,-2.0,-2.0
2025-07-19 15:18:44.991,0.9400000000000005,940,47,-0.031522363,-0.05407595,-0.14527714,0.0014907954,0.0023127012,0.009446855,0.0,0.0,0.0,-0.0055385516,-0.05120874,-0.013813723,-0.15316968,-0.101999894,-0.21374986,0.05546465,0.17209865,0.084264226,0.3042352,-0.14703813,0.109252974,0.043362025,-0.0300556,-0.027539378,-0.07961196,0.06774662,-0.019484015,0.019181062,-0.11822121,0.104392305,0.0454337,0.022120953,-0.0014610977,-0.13790481,-0.887652,-2.0,-2.0,1.7403597,2.0,1.9906813,-0.5623475,-2.0,2.0,-1.3679867,-2.0,-2.0,0.95955515,-2.0,-2.0,0.64455444,2.0,-0.22793715,-0.55467665,-2.0,2.0,-1.7050003,-1.7959138,-2.0
2025-07-19 15:18:45.011,0.9600000000000005,960,48,0.119702145,-0.15408368,-0.11812289,0.004892131,0.032669477,0.03642216,0.0,0.0,0.0,-0.0031889575,-0.022465786,-0.058915317,-0.18665856,-0.08393286,-0.19571446,0.026381254,0.14188322,0.07111796,0.30668277,-0.17480233,0.04438034,-0.021178665,0.092643514,-0.24267186,-0.0056597935,0.0077389516,0.12354312,-0.014832589,-0.011311805,-0.064363606,0.031195577,-0.02292381,-0.19457467,-0.064915895,0.95955515,-2.0,-2.0,0.64455444,2.0,-0.22793715,-0.55467665,-2.0,2.0,-1.7050003,-1.7959138,-2.0,1.4305915,-2.0,0.0052350014,0.3752166,2.0,-2.0,-0.30635524,-2.0,2.0,-2.0,0.2583614,-0.94991475
2025-07-19 15:18:45.036,0.9800000000000005,980,49,0.06515419,-0.15462866,0.002519392,-0.0067059933,0.043336388,0.032669075,0.0,0.0,0.0,-0.00079089723,0.029630851,-0.17511366,-0.16376115,-0.056955397,-0.1400179,-0.028606003,0.11900779,0.059271965,0.30655682,-0.1913344,0.028258912,-0.04639561,0.14990985,-0.2901298,0.02802137,0.027116604,0.119375736,-0.15596037,-0.03476114,-0.040705975,-0.0013419451,-0.010199052,0.09943614,-0.0019204945,1.4305915,-2.0,0.0052350014,0.3752166,2.0,-2.0,-0.30635524,-2.0,2.0,-2.0,0.2583614,-0.94991475,1.3864943,-2.0,1.9222164,0.9662828,2.0,-2.0,0.18189311,1.2626622,2.0,-2.0,-0.9580743,2.0
2025-07-19 15:18:45.055,1.0000000000000004,1000,50,0.2969541,0.14792211,-0.025935058,-0.013698542,0.03492019,0.008555164,0.0,0.0,0.0,-0.00033707503,0.062509455,-0.2902295,-0.090128,-0.026215341,-0.040682014,-0.09323687,0.10222585,0.07644906,0.29953435,-0.23255455,-0.008885497,0.011550425,0.08098458,-0.2374084,0.21695367,0.08542778,0.20258579,-0.14087187,-0.052081667,0.2266105,-0.023753194,0.012928495,-0.17593147,0.1367908,1.3864943,-2.0,1.9222164,0.9662828,2.0,-2.0,0.18189311,1.2626622,2.0,-2.0,-0.9580743,2.0,1.2668697,-2.0,2.0,-0.27526614,1.2429584,-2.0,1.1501101,-1.0075142,1.2943046,-0.48612988,-0.31701887,2.0
2025-07-19 15:18:45.077,1.0200000000000005,1020,51,0.30300114,0.02935209,0.15399462,0.054015137,-0.027369238,0.00814222,0.0,0.0,0.0,-7.9128375e-05,0.096025914,-0.3987933,-0.014899814,-0.03689917,0.040820517,-0.12588868,0.12629484,0.109610476,0.3034808,-0.20062745,-0.037848115,0.06356493,0.12412281,-0.26788825,0.18353121,-0.08971693,0.18708904,-0.021050049,-0.00592692,0.0004913233,-0.008282919,0.043655388,-0.05993755,0.1468944,1.2668697,-2.0,2.0,-0.27526614,1.2429584,-2.0,1.1501101,-1.0075142,1.2943046,-0.48612988,-0.31701887,2.0,0.5222954,1.7364187,2.0,-0.10084894,0.60597324,-2.0,2.0,2.0,2.0,-0.92538047,-0.0016651079,2.0
2025-07-19 15:18:45.095,1.0400000000000005,1040,52,-0.1622885,0.29947892,-0.0095373,0.07196095,-0.0033608892,0.043491606,0.0,0.0,0.0,-0.0020430314,0.08861968,-0.4191823,0.034875758,-0.030944716,0.09132032,-0.16884938,0.14717752,0.15000378,0.30155826,-0.19981112,-0.036428645,0.10369843,0.056327883,-0.028456178,0.064536065,-0.008034867,0.14204897,-0.10691265,0.09604248,0.19213511,-0.026931176,0.05215676,-0.03686615,0.14961031,0.5222954,1.7364187,2.0,-0.10084894,0.60597324,-2.0,2.0,2.0,2.0,-0.92538047,-0.0016651079,2.0,-0.90593094,0.99239415,2.0,-1.1475254,0.46111277,-2.0,2.0,-1.3721727,2.0,0.4316895,-2.0,2.0
2025-07-19 15:18:45.115,1.0600000000000005,1060,53,-0.21655944,0.13535495,0.037360113,-0.014609568,0.016274069,0.04086578,0.0,0.0,0.0,-0.0039348616,0.075989395,-0.4047522,0.061563168,-0.052682314,0.11022404,-0.19467466,0.17804028,0.17027692,0.3033363,-0.18353532,-0.047137886,0.14742683,-0.1122017,0.109042645,0.10655305,-0.05602315,0.01291064,-0.10573522,0.08851958,-0.13501503,-0.014414878,0.043491382,0.032269448,0.053815033,-0.90593094,0.99239415,2.0,-1.1475254,0.46111277,-2.0,2.0,-1.3721727,2.0,0.4316895,-2.0,2.0,-1.3928632,2.0,0.5290381,-1.5126413,-2.0,-1.1975412,2.0,-0.26704514,2.0,1.0788885,-2.0,2.0
2025-07-19 15:18:45.132,1.0800000000000005,1080,54,-0.081502706,-0.24417597,0.15275544,-0.017235762,0.016571116,0.012721906,0.0,0.0,0.0,-0.0048031705,0.044215266,-0.37227634,0.066996135,-0.08462532,0.053745948,-0.18457626,0.21587959,0.11417493,0.30192292,-0.17564623,-0.048549276,0.16704065,-0.010708929,0.0006295431,-0.08950216,-0.0053155622,-0.20041572,0.06846831,0.11513161,-0.12278368,-0.0019031183,-0.05264178,-0.0047012134,0.1265435,-1.3928632,2.0,0.5290381,-1.5126413,-2.0,-1.1975412,2.0,-0.26704514,2.0,1.0788885,-2.0,2.0,-0.70300406,2.0,-0.40553623,-1.472531,-1.2032404,-0.2087925,2.0,0.5133649,2.0,-0.18209986,-2.0,2.0
2025-07-19 15:18:45.152,1.1000000000000005,1100,55,-0.01773194,-0.14423978,0.012579744,-0.024300992,-0.038576897,-0.030011903,0.0,0.0,0.0,-0.0069535123,0.04203993,-0.34110874,0.021926237,-0.12468373,-0.039146855,-0.1625823,0.24222949,0.12307273,0.31503138,-0.16804601,-0.061737526,0.19422562,0.008589171,0.03352355,-0.04142553,-0.05898354,-0.24232629,0.029274464,0.027070103,0.10601676,-0.025393678,0.024200805,-0.049866978,0.021446861,-0.70300406,2.0,-0.40553623,-1.472531,-1.2032404,-0.2087925,2.0,0.5133649,2.0,-0.18209986,-2.0,2.0,-1.1018045,2.0,-0.57948565,-1.3251572,-0.47287756,-0.103762135,1.751069,-2.0,2.0,0.2713682,-0.52355516,2.0
2025-07-19 15:18:45.175,1.1200000000000006,1120,56,-0.047878537,-0.2714665,0.18234596,-0.025932178,-0.02047141,-0.0019657111,0.0,0.0,0.0,-0.00840025,0.029903146,-0.33026642,-0.0017501053,-0.13129297,-0.0715941,-0.13772625,0.25056425,0.092666656,0.31150988,-0.1682966,-0.065804996,0.2299104,-0.040373966,0.1108968,-0.023717266,-0.10036608,-0.028311467,0.084210016,-0.03444696,-0.2581009,-0.035368137,-0.040312003,-0.06237659,0.11640605,-1.1018045,2.0,-0.57948565,-1.3251572,-0.47287756,-0.103762135,1.751069,-2.0,2.0,0.2713682,-0.52355516,2.0,-0.70114225,2.0,-0.8959334,-1.0267507,-1.8007226,-0.012828274,1.186496,0.39892352,2.0,-1.743025,0.19351763,2.0
2025-07-19 15:18:45.192,1.1400000000000006,1140,57,-0.08190791,0.052587528,-0.1274112,-0.00049222325,-0.014324475,0.047515072,0.0,0.0,0.0,-0.010454342,-0.0017124942,-0.27703324,-0.043094277,-0.14153977,-0.11760624,-0.117215216,0.23618023,0.08361142,0.31724086,-0.1774299,-0.051532537,0.24370922,-0.062329397,0.21758524,-0.03919444,-0.0072952644,-0.08324365,-0.01457641,-0.048905894,-0.012336983,-0.037554275,-0.12630345,0.0731151,-0.01801235,-0.70114225,2.0,-0.8959334,-1.0267507,-1.8007226,-0.012828274,1.186496,0.39892352,2.0,-1.743025,0.19351763,2.0,-1.5101553,0.4871181,-2.0,-0.9078178,-1.7621435,1.9839613,0.8226471,-2.0,2.0,0.52053803,1.287997,0.07531926
2025-07-19 15:18:45.212,1.1600000000000006,1160,58,0.120923184,0.2075062,0.11387701,0.01492095,0.05434161,-0.00026872047,0.0,0.0,0.0,-0.010664444,-0.03649307,-0.20922276,-0.08416026,-0.15341306,-0.15284902,-0.04880964,0.21796319,0.049847938,0.30499935,-0.15939744,0.024966074,0.19256496,-0.14332582,0.25411642,-0.18083847,-0.02962302,-0.12150178,0.13025469,-0.006322699,-0.19723181,-0.057316046,0.053485878,0.29479927,-0.041708734,-1.5101553,0.4871181,-2.0,-0.9078178,-1.7621435,1.9839613,0.8226471,-2.0,2.0,0.52053803,1.287997,0.07531926,-1.0979704,0.82615083,-2.0,0.7979834,-0.32767642,2.0,-1.028504,0.4367466,2.0,1.1141034,-0.36351466,-1.6443992
2025-07-19 15:18:45.232,1.1800000000000006,1180,59,0.16986121,0.20157121,-0.1320748,-0.03082716,0.049086645,-0.03616707,0.0,0.0,0.0,-0.011818211,-0.03731135,-0.11680562,-0.1369451,-0.12467223,-0.15925662,-0.001901332,0.1762838,0.027744856,0.31032607,-0.115767084,0.09873957,0.12753688,-0.117569596,0.21986617,-0.035745177,0.09230098,-0.028228804,0.18577215,-0.117241114,0.044867735,-0.028520234,0.16172081,0.07455728,-0.15737748,-1.0979704,0.82615083,-2.0,0.7979834,-0.32767642,2.0,-1.028504,0.4367466,2.0,1.1141034,-0.36351466,-1.6443992,-1.1070555,-1.667253,-2.0,0.725498,2.0,2.0,-0.83298516,-2.0,2.0,0.54167676,0.3468457,-2.0
2025-07-19 15:18:45.252,1.2000000000000006,1200,60,0.037610985,-0.040496733,0.045517094,-0.034143955,-0.02150507,0.020011242,0.0,0.0,0.0,-0.011952814,-0.06306111,-0.07984156,-0.16663742,-0.08327502,-0.15908764,0.040144216,0.14982666,0.044150148,0.3156949,-0.0723194,0.10093556,0.059115477,-0.09151847,-0.07203535,-0.112219036,0.09559559,0.016152425,0.048475705,-0.049496002,-0.033711392,-0.032177772,0.013106969,-0.02584213,-0.12340939,-1.1070555,-1.667253,-2.0,0.725498,2.0,2.0,-0.83298516,-2.0,2.0,0.54167676,0.3468457,-2.0,0.5454692,-1.114374,-1.4851999,0.92410153,2.0,-0.8613524,-0.7882475,-1.267463,2.0,-1.7039447,0.5693875,-2.0
2025-07-19 15:18:45.274,1.2200000000000006,1220,61,0.015168623,-0.18052131,0.009374428,0.03399246,-0.017246773,-0.007025407,0.0,0.0,0.0,-0.010921359,-0.050260413,-0.1453414,-0.18177658,-0.067622945,-0.09197873,0.017601917,0.10988166,0.02897146,0.3120823,-0.10469428,0.12681143,-0.0052627195,0.105709665,-0.17074849,-0.0991859,0.13683787,0.13271587,-0.14879416,-0.010373966,-0.06220579,0.025969867,-0.0329,0.04528484,-0.07920103,0.5454692,-1.114374,-1.4851999,0.92410153,2.0,-0.8613524,-0.7882475,-1.267463,2.0,-1.7039447,0.5693875,-2.0,1.3790367,-1.1488593,-0.089111105,1.1749434,2.0,-1.6967994,-0.4217909,-0.12551236,2.0,-2.0,-2.0,-2.0
2025-07-19 15:18:45.292,1.2400000000000007,1240,62,0.1719712,-0.06096988,-0.09328047,0.023719156,-0.029438037,0.00800338,0.0,0.0,0.0,-0.010653727,-0.010779132,-0.20442815,-0.14764068,-0.03045012,-0.0070329662,-0.0379013,0.08905411,0.014388184,0.32545152,-0.14885655,0.089093246,-0.07046392,0.14559181,-0.15312907,0.09248203,0.057417013,0.20251764,-0.20201717,-0.1164878,0.016999364,0.008577468,-0.03717239,-0.22831717,-0.17147355,1.3790367,-1.1488593,-0.089111105,1.1749434,2.0,-1.6967994,-0.4217909,-0.12551236,2.0,-2.0,-2.0,-2.0,1.6584736,-2.0,1.1663009,0.89453846,0.88577485,-2.0,0.4514236,-0.67091286,2.0,-2.0,-0.89989555,1.676645
2025-07-19 15:18:45.312,1.2600000000000007,1260,63,0.15051818,-0.3255231,0.04965139,-0.0064528408,-0.04007456,-0.0016965127,0.0,0.0,0.0,-0.0096794665,0.038496584,-0.294995,-0.08614436,-0.003165071,0.049212985,-0.083327375,0.082336575,-0.007746813,0.31204107,-0.17641765,0.0013195927,-0.014846713,0.07906546,-0.25653717,0.12745678,0.13114941,0.2069751,-0.080703385,0.061027423,-0.10619981,-0.052632507,-0.14558895,-0.15988621,0.11327583,1.6584736,-2.0,1.1663009,0.89453846,0.88577485,-2.0,0.4514236,-0.67091286,2.0,-2.0,-0.89989555,1.676645,1.5517124,-1.7549995,2.0,0.8590272,-0.48590854,-2.0,1.148638,2.0,1.6095551,-0.83856714,0.6880429,2.0
2025-07-19 15:18:45.332,1.2800000000000007,1280,64,0.1523938,-0.13015357,0.0590141,0.04163692,-0.0429705,-0.0073755584,0.0,0.0,0.0,-0.010182124,0.088610485,-0.381269,-0.030969387,0.034160916,0.04684121,-0.13337049,0.099047005,-0.0014294148,0.30972463,-0.1657789,0.003980918,0.034498252,0.067727484,-0.21688908,0.09393682,0.041379083,-0.15232106,-0.08618865,0.03205392,0.12720083,0.018329263,0.046914835,0.07369614,0.123061076,1.5517124,-1.7549995,2.0,0.8590272,-0.48590854,-2.0,1.148638,2.0,1.6095551,-0.83856714,0.6880429,2.0,1.4767032,1.0734174,2.0,-1.0559696,0.7592753,-2.0,1.956033,2.0,1.8704841,-0.012481975,-1.0894175,2.0
2025-07-19 15:18:45.354,1.3000000000000007,1300,65,-0.04324384,0.2029961,-0.15526158,0.044321343,-0.06660335,-0.013180284,0.0,0.0,0.0,-0.011526468,0.1133364,-0.40303814,0.016917884,0.00479864,0.06995373,-0.16429898,0.13593458,0.10211677,0.30021834,-0.14832757,-0.0066235717,0.09597025,0.07755654,0.029537251,0.089030825,-0.052281134,0.04897597,-0.10570481,0.064842656,0.32705018,-0.07334349,0.03793796,-0.17442493,0.12885667,1.4767032,1.0734174,2.0,-1.0559696,0.7592753,-2.0,1.956033,2.0,1.8704841,-0.012481975,-1.0894175,2.0,-1.3237152,0.19408356,2.0,-1.6181933,0.12679067,-2.0,2.0,-1.909483,2.0,0.9175801,-2.0,2.0
2025-07-19 15:18:45.377,1.3200000000000007,1320,66,-0.58154327,0.049656667,-0.14654213,0.044040997,-0.0518938,0.039373007,0.0,0.0,0.0,-0.0104936045,0.0965986,-0.38006726,0.056527186,-0.054566335,0.08204805,-0.18807353,0.16879976,0.13898255,0.29937792,-0.1094239,-0.075458825,0.12151082,-0.07780721,0.051035963,0.044795934,-0.14762703,-0.07405916,-0.12882723,0.0972604,-0.045572903,0.04141566,0.06833101,-0.20734541,0.1338823,-1.3237152,0.19408356,2.0,-1.6181933,0.12679067,-2.0,2.0,-1.909483,2.0,0.9175801,-2.0,2.0,-1.815219,1.4799862,0.90219796,-1.9132683,-2.0,-1.8208466,2.0,-1.0540907,2.0,1.767329,0.6326877,2.0
2025-07-19 15:18:45.393,1.3400000000000007,1340,67,-0.41468072,0.20299873,0.051201552,-0.04161658,0.007395978,0.015219184,0.0,0.0,0.0,-0.0076564047,0.063797854,-0.34434232,0.07330107,-0.097299926,0.0131991925,-0.20262666,0.21349165,0.1016066,0.30128616,-0.10572382,-0.1091596,0.13926515,-0.057917792,0.019858005,0.049507108,-0.092181765,-0.17285675,0.030428674,0.1275509,-0.20396546,0.061089925,-0.0873454,0.06999566,0.053738765,-1.815219,1.4799862,0.90219796,-1.9132683,-2.0,-1.8208466,2.0,-1.0540907,2.0,1.767329,0.6326877,2.0,-1.8993491,2.0,-1.3501548,-1.4569141,-2.0,0.4275464,2.0,-0.36590475,2.0,0.79320973,-1.8488362,2.0
2025-07-19 15:18:45.412,1.3600000000000008,1360,68,0.076080106,0.09294964,0.00058549433,-0.018866995,0.0484885,0.049981866,0.0,0.0,0.0,-0.007594756,0.032399226,-0.27719977,0.015562703,-0.12175266,-0.11970773,-0.14922884,0.22007772,0.03584476,0.30410704,-0.10945442,-0.098886766,0.17188287,0.023872731,0.1702281,-0.07271072,-0.016298905,-0.4209643,0.044051085,-0.011437598,-0.06809565,0.06669903,-0.01548298,-0.03947205,0.0014411471,-1.8993491,2.0,-1.3501548,-1.4569141,-2.0,0.4275464,2.0,-0.36590475,2.0,0.79320973,-1.8488362,2.0,-1.1626998,2.0,-2.0,-1.1859568,-1.4625722,2.0,1.5645864,-0.6418323,2.0,0.085307315,1.3726678,2.0
2025-07-19 15:18:45.433,1.3800000000000008,1380,69,0.060270526,0.14954306,0.27747023,-0.004785449,-0.010931872,0.0017003466,0.0,0.0,0.0,-0.0085226,0.004155134,-0.20578541,-0.049549587,-0.13108799,-0.21076527,-0.07407394,0.245818,0.00026245878,0.31545582,-0.106581226,-0.060707264,0.1906934,-0.06782198,0.24089389,-0.16889723,-0.027654525,-0.14945555,0.1855928,0.0003634803,-0.15662277,-0.036289968,0.05029701,0.16812582,-0.040919058,-1.1626998,2.0,-2.0,-1.1859568,-1.4625722,2.0,1.5645864,-0.6418323,2.0,0.085307315,1.3726678,2.0,-0.15435593,0.4238442,-2.0,0.593464,-2.0,2.0,-1.4610916,0.5861702,2.0,-1.6067013,0.67066014,1.2462773
2025-07-19 15:18:45.453,1.4000000000000008,1400,70,-0.009978696,0.068468116,-0.1514982,-0.060949452,0.024799073,0.012750817,0.0,0.0,0.0,-0.011549401,0.0022414508,-0.12232687,-0.10280122,-0.11792241,-0.29703608,-0.0053190985,0.21464318,0.015367078,0.3004035,-0.1360058,0.0037970264,0.17772117,-0.0629831,0.15226966,-0.107589714,0.066037446,-0.114942655,0.11565965,-0.024450356,0.1642021,0.007926105,-0.03224289,0.12333467,0.0020038967,-0.15435593,0.4238442,-2.0,0.593464,-2.0,2.0,-1.4610916,0.5861702,2.0,-1.6067013,0.67066014,1.2462773,-1.3430626,0.24717294,-1.0155401,-0.83790904,1.9864073,2.0,-1.6892763,-1.7258536,2.0,0.5047783,1.1888666,-2.0
2025-07-19 15:18:45.476,1.4200000000000008,1420,71,-0.09467073,-0.080175966,0.090976305,-0.018311413,0.021527234,-0.030259214,0.0,0.0,0.0,-0.011716589,-0.038345937,-0.08296969,-0.11545335,-0.11750875,-0.31489974,0.02905681,0.18390286,0.035028435,0.31978187,-0.12196245,0.08310134,0.11194455,-0.048121613,0.06728308,-0.06916576,-0.07449157,-0.06934319,0.08480096,-0.11950409,-0.052556533,-0.049409505,0.026551925,0.24607615,-0.18439084,-1.3430626,0.24717294,-1.0155401,-0.83790904,1.9864073,2.0,-1.6892763,-1.7258536,2.0,0.5047783,1.1888666,-2.0,0.8927601,0.058297295,-2.0,1.6348501,2.0,2.0,-0.47467482,-1.606542,2.0,-0.79240817,-1.3514717,-2.0
2025-07-19 15:18:45.494,1.4400000000000008,1440,72,0.35391697,-0.07692831,-0.0021893615,0.017041711,-0.023129286,-0.03479496,0.0,0.0,0.0,-0.01157271,-0.002156609,-0.063261054,-0.1408359,-0.12565017,-0.3358817,0.07420972,0.1505416,0.03320416,0.32220384,-0.13149974,0.11507342,0.031741343,0.054379996,0.017531097,-0.1051121,0.044960905,-0.07494618,0.024692394,0.00883718,0.052344136,0.0022551056,-0.08107699,-0.031980183,-0.15273073,0.8927601,0.058297295,-2.0,1.6348501,2.0,2.0,-0.47467482,-1.606542,2.0,-0.79240817,-1.3514717,-2.0,1.0415019,-1.182358,-1.3311594,1.3563547,2.0,0.3765014,-0.9620334,-2.0,2.0,-2.0,-2.0,-2.0
2025-07-19 15:18:45.513,1.4600000000000009,1460,73,0.27743688,-0.19861828,-0.061906066,0.023013515,-0.042241886,-0.024665432,0.0,0.0,0.0,-0.01145839,0.01283437,-0.09053203,-0.15440865,-0.08438465,-0.3127456,0.050253484,0.109635964,-0.0003973327,0.317605,-0.14965984,0.044708423,-0.028808821,0.045638114,-0.25227177,0.043544058,0.14475937,-0.0023610904,-0.106461205,-0.08083402,0.006521983,0.0026101423,-0.06615665,-0.27949944,-0.10582031,1.0415019,-1.182358,-1.3311594,1.3563547,2.0,0.3765014,-0.9620334,-2.0,2.0,-2.0,-2.0,-2.0,1.5357572,-2.0,1.3413539,0.9683194,2.0,-2.0,-0.98785496,-2.0,2.0,-2.0,1.0050471,0.3132407
2025-07-19 15:18:45.533,1.4800000000000009,1480,74,0.15522997,-0.23198736,0.056350343,-0.023207102,-0.057573695,-0.006396433,0.0,0.0,0.0,-0.009696768,0.06267875,-0.21826346,-0.10899884,-0.055104025,-0.28014454,-0.01815323,0.07623953,-0.022379547,0.33241764,-0.19535367,0.0036718985,-0.021331057,0.06869341,-0.34881258,0.09573383,0.017809061,0.15284781,-0.11725063,-0.08591109,-0.053643633,0.049409524,-0.074244075,0.017933536,0.006345456,1.5357572,-2.0,1.3413539,0.9683194,2.0,-2.0,-0.98785496,-2.0,2.0,-2.0,1.0050471,0.3132407,1.660337,-1.8728265,2.0,1.0631996,2.0,-2.0,-0.2317828,2.0,1.4903172,-1.2128278,0.79535925,2.0
2025-07-19 15:18:45.554,1.5000000000000009,1500,75,0.07362494,0.12621461,-0.034672644,0.028247967,-0.07709275,0.035223722,0.0,0.0,0.0,-0.008952057,0.090476386,-0.2904747,-0.02602366,-0.02790108,-0.201605,-0.05884977,0.056688126,0.017535655,0.30661985,-0.18899396,0.051315222,0.028781183,0.16416813,-0.20343415,0.08590513,0.047009457,0.22852248,-0.17145936,0.0122563625,0.21041471,-0.038529355,-0.06881809,0.20392646,0.15012237,1.660337,-1.8728265,2.0,1.0631996,2.0,-2.0,-0.2317828,2.0,1.4903172,-1.2128278,0.79535925,2.0,0.8438963,-0.97213703,2.0,0.38587877,-0.24941298,-1.9602704,1.2066236,0.39557064,1.1268326,-0.60628885,-2.0,2.0
2025-07-19 15:18:45.576,1.520000000000001,1520,76,0.015518101,0.096170485,-0.08651585,-0.020279404,-0.039946843,0.025562512,0.0,0.0,0.0,-0.009246605,0.11425088,-0.32774752,0.009473539,-0.00036547423,-0.15962236,-0.1162179,0.079878606,0.04900349,0.29256177,-0.17248456,0.033553712,0.07855042,-0.016514082,0.03194261,0.11653348,0.103512414,0.0056303926,-0.09301862,0.034797702,0.096013926,-0.08713049,0.034607504,-0.13508625,0.09075368,0.8438963,-0.97213703,2.0,0.38587877,-0.24941298,-1.9602704,1.2066236,0.39557064,1.1268326,-0.60628885,-2.0,2.0,-0.10340814,-0.38930514,2.0,-0.6551588,2.0,-2.0,2.0,0.05824388,2.0,0.4916374,-1.4753519,2.0
2025-07-19 15:18:45.593,1.540000000000001,1540,77,-0.31553394,0.16932014,-0.0772428,-0.023004597,-0.016811263,-0.0476799,0.0,0.0,0.0,-0.009128161,0.10330122,-0.31821683,0.05433783,-0.026813295,-0.097164966,-0.14296915,0.12442218,0.03504416,0.28220832,-0.1374924,-0.047118727,0.12422174,-0.09671942,0.01507492,0.036166262,-0.052039005,0.2657632,-0.06474732,0.058325965,0.054230347,-0.05471216,0.13809413,-0.2743852,0.07438964,-0.10340814,-0.38930514,2.0,-0.6551588,2.0,-2.0,2.0,0.05824388,2.0,0.4916374,-1.4753519,2.0,-0.6512066,0.7862431,2.0,-1.3967382,-1.0913408,-2.0,2.0,0.31004286,2.0,0.41910762,0.3988871,2.0
2025-07-19 15:18:45.613,1.560000000000001,1560,78,-0.29643068,0.3381359,-0.05773096,0.02889698,0.010260607,-0.037902292,0.0,0.0,0.0,-0.008640234,0.06322027,-0.26630187,0.09996648,-0.060365215,-0.06687741,-0.16751301,0.15790913,0.06680534,0.3033605,-0.11763446,-0.06938349,0.16085932,-0.11608825,0.21255611,0.1344693,-0.011980532,-0.05388045,-0.07867166,0.14081664,0.03132849,0.031403627,0.02625752,0.119433425,0.08487081,-0.6512066,0.7862431,2.0,-1.3967382,-1.0913408,-2.0,2.0,0.31004286,2.0,0.41910762,0.3988871,2.0,-1.429083,0.41169125,-0.98586464,-1.6264217,-1.5697727,0.9228236,2.0,-0.70358115,2.0,1.4515964,-2.0,2.0
2025-07-19 15:18:45.633,1.580000000000001,1580,79,0.08028948,0.11884302,0.007714568,-0.012658021,-0.020842897,-0.027400559,0.0,0.0,0.0,-0.0075701587,0.0352104,-0.19515978,0.06325514,-0.08855705,-0.14743787,-0.11526195,0.19717802,0.020255283,0.30275717,-0.09770153,-0.075840525,0.1847027,-0.05740694,0.19959669,-0.19387317,-0.037282728,-0.24656166,0.08997836,0.031182166,-0.1178929,-0.05716119,0.0017050074,-0.056502737,0.021631867,-1.429083,0.41169125,-0.98586464,-1.6264217,-1.5697727,0.9228236,2.0,-0.70358115,2.0,1.4515964,-2.0,2.0,-1.5632833,0.59682065,-2.0,-0.44284466,-2.0,2.0,1.786475,-1.1152016,2.0,-0.3120578,1.6716712,2.0
2025-07-19 15:18:45.761,1.600000000000001,1600,80,-0.055332866,-0.049495522,0.2147675,0.039161574,0.068276696,-0.023095129,0.0,0.0,0.0,-0.007580888,-0.011975098,-0.12117714,-0.019172344,-0.09864627,-0.27313206,-0.042024545,0.21945274,-0.047295507,0.30483392,-0.112605155,-0.030987844,0.19400191,-0.15006545,0.18692231,-0.20993157,-0.0012422563,-0.2152766,0.123330176,0.10168087,-0.121986195,0.06898167,-0.031389594,0.055587538,0.10431604,-1.5632833,0.59682065,-2.0,-0.44284466,-2.0,2.0,1.786475,-1.1152016,2.0,-0.3120578,1.6716712,2.0,-0.015863527,0.85727125,-1.1770123,0.5787506,-0.9331806,2.0,-1.8725022,0.74536836,2.0,-1.4187778,0.30127954,1.2533412
2025-07-19 15:18:45.852,1.620000000000001,1620,81,-0.36035714,-0.05942403,-0.097610414,-0.06588894,0.037288684,0.03979595,0.0,0.0,0.0,-0.010062257,-0.0036150613,-0.05274708,-0.048351377,-0.06286777,-0.31859165,0.0036774052,0.19264673,-0.036813885,0.29685622,-0.13915344,0.0062522953,0.1920298,-0.038140792,0.21531683,-0.10310077,0.018175589,-0.009019853,0.1262539,-0.16649717,0.14726663,0.051339027,-0.07207396,0.1009501,-0.026449682,-0.015863527,0.85727125,-1.1770123,0.5787506,-0.9331806,2.0,-1.8725022,0.74536836,2.0,-1.4187778,0.30127954,1.2533412,-1.2281023,-0.71444315,-1.8532939,-0.08165975,1.3374932,2.0,-1.3543117,-1.7241659,2.0,-0.05619668,-0.51780653,-2.0
2025-07-19 15:18:45.863,1.640000000000001,1640,82,0.055483975,-0.32074288,-0.032045465,-0.08169566,-0.0037517997,0.04556911,0.0,0.0,0.0,-0.010653587,-0.044692647,-0.041217834,-0.08408917,-0.06010574,-0.32698822,0.051711068,0.14997046,-0.030640928,0.3060603,-0.12862793,0.006930795,0.117200755,-0.15106955,-0.12856206,-0.10658362,-0.038201932,0.0038935577,0.045104768,-0.02015964,-0.053884942,0.026582507,0.09140603,-0.010876121,-0.2598976,-1.2281023,-0.71444315,-1.8532939,-0.08165975,1.3374932,2.0,-1.3543117,-1.7241659,2.0,-0.05619668,-0.51780653,-2.0,0.7309473,-0.68771124,-1.8227193,1.1123012,2.0,0.96223587,-0.3656743,-1.5692263,2.0,-1.2801533,0.91269326,-2.0
2025-07-19 15:18:45.883,1.660000000000001,1660,83,0.14637057,-0.101305865,0.024982464,-0.029164508,-0.0141134,0.02719457,0.0,0.0,0.0,-0.010209735,-0.015424447,-0.090201914,-0.13041818,-0.060211938,-0.30612585,0.060450647,0.12274801,-0.042908743,0.30256534,-0.13483083,0.044179708,0.047006804,0.060482524,-0.1673111,-0.014314169,0.06302536,-0.025093334,0.0754222,-0.08803621,-0.023205556,0.035090107,-0.035253547,0.18144569,-0.11932296,0.7309473,-0.68771124,-1.8227193,1.1123012,2.0,0.96223587,-0.3656743,-1.5692263,2.0,-1.2801533,0.91269326,-2.0,0.90770537,1.4021837,-0.42285544,1.2840469,2.0,0.23096521,-0.549741,-0.46261573,2.0,-2.0,-1.6897622,-2.0
2025-07-19 15:18:45.908,1.680000000000001,1680,84,0.19538239,-0.10327783,-0.14368226,-0.013782664,-0.027082108,-0.03412945,0.0,0.0,0.0,-0.010116488,0.003974897,-0.069893286,-0.111160964,-0.032799996,-0.3122651,0.030783353,0.10978048,-0.053745165,0.32417193,-0.17027478,0.043668237,-0.0055136434,0.09606049,0.17187898,0.053474855,0.08043966,0.0010137022,-0.09724783,-0.07385031,-0.010951219,0.014875679,-0.064428434,-0.15501861,-0.21108198,0.90770537,1.4021837,-0.42285544,1.2840469,2.0,0.23096521,-0.549741,-0.46261573,2.0,-2.0,-1.6897622,-2.0,1.362649,-2.0,-2.0,0.6450859,2.0,-0.32395008,-0.31353068,-2.0,2.0,-2.0,-1.0524008,-2.0
2025-07-19 15:18:45.926,1.700000000000001,1700,85,0.19414458,-0.13160239,-0.052607514,-0.08342645,-0.055521227,0.04967944,0.0,0.0,0.0,-0.00843356,0.047110308,-0.06047366,-0.14011048,-0.03789737,-0.28186458,0.013158384,0.11096747,-0.081235036,0.31207377,-0.2009727,-0.02609967,-0.07149153,0.09763305,-0.077260286,-0.042363573,0.032967713,-0.044150762,-0.038354944,-0.034935225,-0.055742715,-0.030573806,-0.08467688,-0.1613212,-0.1451184,1.362649,-2.0,-2.0,0.6450859,2.0,-0.32395008,-0.31353068,-2.0,2.0,-2.0,-1.0524008,-2.0,1.5739292,-2.0,-0.520279,0.4956338,2.0,-2.0,-0.94894886,-0.595595,2.0,-2.0,0.97402716,-0.56180674
2025-07-19 15:18:45.943,1.720000000000001,1720,86,-0.009152355,-0.18573205,0.08107562,-0.057335403,-0.010867273,-0.027027017,0.0,0.0,0.0,-0.006698791,0.073568,-0.16060567,-0.13727339,-0.020837879,-0.24466407,-0.05981133,0.08395876,-0.09918113,0.33145896,-0.22297566,-0.045632996,-0.06885976,0.11773271,-0.26793236,0.025827795,0.039300423,0.12185577,-0.112568945,-0.08517634,0.013187465,-0.009710705,-0.056778412,0.14827538,-0.01935053,1.5739292,-2.0,-0.520279,0.4956338,2.0,-2.0,-0.94894886,-0.595595,2.0,-2.0,0.97402716,-0.56180674,1.2734387,-1.1367266,2.0,1.5249676,2.0,-2.0,-0.08828806,2.0,1.9535954,-1.8101962,-0.8894252,2.0
2025-07-19 15:18:45.963,1.740000000000001,1740,87,0.14647043,0.12840001,-0.14907433,-0.009252285,-0.05115491,-0.02118421,0.0,0.0,0.0,-0.006861985,0.11140748,-0.23492813,-0.06877296,0.0069298935,-0.17497814,-0.11307265,0.065401554,-0.075681224,0.30963832,-0.24867418,-0.061461437,-0.018321285,0.025757024,-0.09541268,0.13349636,0.090667315,0.19561791,-0.12051462,-0.031760626,0.19222999,-0.052931596,0.009166417,-0.19685324,0.15739296,1.2734387,-1.1367266,2.0,1.5249676,2.0,-2.0,-0.08828806,2.0,1.9535954,-1.8101962,-0.8894252,2.0,1.5694532,-2.0,2.0,-0.36732587,1.3600764,-2.0,1.3853171,-0.35564232,0.8693258,-0.46257877,-0.23111415,2.0
2025-07-19 15:18:45.986,1.7600000000000011,1760,88,0.095466726,0.11993425,0.123905644,-0.042763922,-0.08290896,-0.011139132,0.0,0.0,0.0,-0.0057641915,0.12281647,-0.31823385,0.00022269749,0.0047918884,-0.07625219,-0.1545603,0.103692874,-0.05409609,0.29058948,-0.22387774,-0.08644237,0.040616207,0.043048736,-0.22349086,0.16329311,-0.080905385,0.29919243,-0.044186868,0.022565043,-0.013992342,0.01209585,0.10027959,0.0058893133,0.06376218,1.5694532,-2.0,2.0,-0.36732587,1.3600764,-2.0,1.3853171,-0.35564232,0.8693258,-0.46257877,-0.23111415,2.0,0.83222187,0.354607,2.0,0.40206978,-0.4060236,-2.0,2.0,2.0,2.0,-0.51823825,-0.12825239,2.0
2025-07-19 15:18:46.007,1.7800000000000011,1780,89,-0.050445467,0.317539,-0.049974404,-0.049410302,-0.03794046,0.04337056,0.0,0.0,0.0,-0.006856303,0.13723043,-0.35078457,0.038620457,0.017421676,-0.03360407,-0.1664019,0.13283285,-0.022003608,0.2783935,-0.20066527,-0.08319206,0.0848872,-0.035137348,0.052496005,0.15358633,-0.04554932,-0.006859999,-0.041003745,0.101328634,0.22171342,-0.053092875,0.07756555,-0.0023262107,0.078911625,0.83222187,0.354607,2.0,0.40206978,-0.4060236,-2.0,2.0,2.0,2.0,-0.51823825,-0.12825239,2.0,-0.25058538,-0.07681362,2.0,-1.484508,0.94866997,-1.7782336,2.0,0.5671791,2.0,0.26706707,-2.0,2.0
2025-07-19 15:18:46.026,1.8000000000000012,1800,90,-0.32882202,0.32196212,-0.033292793,-0.05404565,0.037462045,-0.015183191,0.0,0.0,0.0,-0.008538298,0.11942318,-0.31763414,0.07599688,-0.022195395,0.04403543,-0.18662146,0.17769577,0.024721524,0.29050377,-0.16649309,-0.112403445,0.12823977,-0.12393054,0.17002104,0.053580377,-0.14842494,0.179642,-0.08652383,0.019703655,0.0964602,-0.012845341,0.06576682,-0.08450097,0.10148823,-0.25058538,-0.07681362,2.0,-1.484508,0.94866997,-1.7782336,2.0,0.5671791,2.0,0.26706707,-2.0,2.0,-1.0674199,-0.23382573,1.1160096,-1.1064526,-2.0,-1.2461611,2.0,0.27114367,2.0,1.0312474,-1.8229892,2.0
2025-07-19 15:18:46.044,1.8200000000000012,1820,91,0.021835105,0.072937325,-0.045279767,-0.0024304138,0.0095862625,-0.02829426,0.0,0.0,0.0,-0.0084839985,0.11462211,-0.28885046,0.087200776,-0.055736184,0.030540088,-0.1994429,0.19475657,0.05270063,0.304531,-0.14307499,-0.14375289,0.1616746,0.0041950247,0.11942793,-0.026832957,-0.12443898,-0.116891004,-0.04090507,0.10230316,0.043679535,0.038176168,0.04483573,-0.07173717,0.049887355,-1.0674199,-0.23382573,1.1160096,-1.1064526,-2.0,-1.2461611,2.0,0.27114367,2.0,1.0312474,-1.8229892,2.0,-1.4443378,0.0141371675,-0.32185376,-1.873221,-1.8720796,0.3958598,2.0,-0.31900322,2.0,0.10794611,-0.55924046,2.0
2025-07-19 15:18:46.063,1.8400000000000012,1840,92,0.14535603,-0.05839119,0.030360738,0.022177007,0.017353192,0.047028925,0.0,0.0,0.0,-0.007285143,0.11528358,-0.23909046,0.06071577,-0.09567369,-0.0832329,-0.15455559,0.21656469,0.026610604,0.2946712,-0.14568259,-0.1617797,0.19604664,-0.06696919,0.035919372,-0.06140853,-0.102122426,-0.36031574,0.05593327,0.07563558,-0.08229954,0.07266378,-0.0035888464,0.007227786,0.03803128,-1.4443378,0.0141371675,-0.32185376,-1.873221,-1.8720796,0.3958598,2.0,-0.31900322,2.0,0.10794611,-0.55924046,2.0,-1.1963879,2.0,-1.4171237,-1.0247298,-1.3015175,2.0,1.5122292,-1.3791404,2.0,-0.92396337,0.419753,2.0
2025-07-19 15:18:46.084,1.8600000000000012,1860,93,-0.15274589,-0.021869978,0.16099024,-0.008964389,0.04497928,-0.036394384,0.0,0.0,0.0,-0.006959449,0.084383026,-0.17373133,0.012554051,-0.10667287,-0.15517125,-0.06635927,0.238969,-0.05062169,0.30816767,-0.16266377,-0.13004458,0.19235718,-0.09795304,0.24710609,-0.12617306,-0.034068905,-0.15409967,0.21287727,0.03021943,-0.14936028,-0.028103596,-0.09269705,0.14028603,-0.047918864,-1.1963879,2.0,-1.4171237,-1.0247298,-1.3015175,2.0,1.5122292,-1.3791404,2.0,-0.92396337,0.419753,2.0,-0.367742,-0.23356812,-2.0,0.17176944,-2.0,2.0,-0.65225935,0.19718686,2.0,-1.6687903,1.296894,1.2477721
2025-07-19 15:18:46.108,1.8800000000000012,1880,94,-0.057169594,0.0684215,0.009665773,-0.06093778,0.02897917,-0.034385756,0.0,0.0,0.0,-0.008734384,0.0555506,-0.13843134,-0.050587643,-0.109830454,-0.21884769,-0.002414934,0.22351438,-0.052844413,0.29830796,-0.18131591,-0.06268482,0.19064909,-0.08095267,-0.037165128,-0.09291089,0.09254643,-0.19234605,0.18921523,-0.05979081,0.12050605,-0.025691912,-0.12223783,0.16930313,-0.049513575,-0.367742,-0.23356812,-2.0,0.17176944,-2.0,2.0,-0.65225935,0.19718686,2.0,-1.6687903,1.296894,1.2477721,-0.76312757,1.8954675,0.4758317,-0.42357478,1.1297414,2.0,-1.8873358,-0.114393465,2.0,-0.73926634,2.0,-0.8467047
2025-07-19 15:18:46.124,1.9000000000000012,1900,95,-0.26451606,0.15836176,0.08412737,0.0023818684,0.055135116,-0.043171357,0.0,0.0,0.0,-0.010043542,0.031597417,-0.12447844,-0.038713828,-0.111644685,-0.23028548,0.045000955,0.1774817,-0.050663922,0.30370924,-0.17817302,0.060979623,0.14381708,-0.08200326,0.03789361,-0.015595249,-0.011221056,-0.009445228,0.17113996,-0.03596251,-0.017186005,-0.03565518,0.023516951,0.28539586,-0.076211825,-0.76312757,1.8954675,0.4758317,-0.42357478,1.1297414,2.0,-1.8873358,-0.114393465,2.0,-0.73926634,2.0,-0.8467047,0.7682908,-0.042065304,-2.0,1.6483427,1.5443249,2.0,0.3718062,-1.7431781,2.0,-0.6077572,-2.0,-2.0
2025-07-19 15:18:46.144,1.9200000000000013,1920,96,0.27958918,0.053082436,0.03402963,0.031338517,0.038459633,-0.0068120263,0.0,0.0,0.0,-0.010296148,0.05124089,-0.1001263,-0.09492124,-0.093053274,-0.2250669,0.06455764,0.18005355,-0.03693886,0.3170833,-0.16627146,0.11008648,0.062001087,0.034370244,0.027716512,-0.06899679,0.060531393,-0.011101986,0.011312589,-0.004853669,0.0032824245,0.010358342,0.018077789,-0.04233739,-0.18501316,0.7682908,-0.042065304,-2.0,1.6483427,1.5443249,2.0,0.3718062,-1.7431781,2.0,-0.6077572,-2.0,-2.0,1.4195213,-1.7695312,-1.4284928,1.362909,2.0,-0.8365043,-0.86209846,-1.8437805,2.0,-2.0,-2.0,-1.0311943
2025-07-19 15:18:46.164,1.9400000000000013,1940,97,0.13984546,-0.15907432,-0.058379523,-0.013579056,-0.017051268,-0.025350705,0.0,0.0,0.0,-0.011051192,0.064996585,-0.1449506,-0.1103826,-0.06717851,-0.17268139,0.036816474,0.15191586,-0.05003422,0.3200216,-0.19886974,0.04481399,0.0275967,0.0921464,-0.21835463,0.0022614712,0.119134754,0.13746028,-0.13657331,-0.118673414,-0.042167865,0.02429892,-0.10704618,-0.1910804,-0.052903987,1.4195213,-1.7695312,-1.4284928,1.362909,2.0,-0.8365043,-0.86209846,-1.8437805,2.0,-2.0,-2.0,-1.0311943,1.6125785,-2.0,1.0484201,1.1136444,2.0,-2.0,-0.5199466,-1.0219036,2.0,-2.0,-0.7264122,1.4828882
2025-07-19 15:18:46.184,1.9600000000000013,1960,98,0.0448269,-0.22317272,0.08471662,0.012830193,-0.020604044,0.034789737,0.0,0.0,0.0,-0.0108453585,0.111662574,-0.2521878,-0.06469663,-0.031116067,-0.11563658,-0.029276097,0.12253466,-0.09428174,0.32852963,-0.22952859,-0.010716668,0.05061682,0.077862196,-0.28719962,0.16139297,0.14281787,0.14168009,-0.13074255,-0.09518053,-0.05378529,-0.052571945,-0.021929871,-0.09621983,0.08616016,1.6125785,-2.0,1.0484201,1.1136444,2.0,-2.0,-0.5199466,-1.0219036,2.0,-2.0,-0.7264122,1.4828882,1.5090472,-1.8346918,2.0,1.138518,1.3038149,-2.0,0.092072554,2.0,1.2395716,-0.42957777,0.34377867,2.0
2025-07-19 15:18:46.205,1.9800000000000013,1980,99,0.12668853,0.0669508,0.033351984,-0.032222606,-0.0011481789,0.0065467153,0.0,0.0,0.0,-0.011574159,0.13066544,-0.3490239,-0.0038782824,-0.011349715,-0.03445627,-0.08913553,0.11395144,-0.063174516,0.29059434,-0.19715117,-0.0019624236,0.10646687,0.0460557,-0.26936543,0.085809425,0.14164789,0.32267943,-0.13209723,-0.09093292,0.2247056,-0.035514403,0.10442123,0.054461755,0.04663369,1.5090472,-1.8346918,2.0,1.138518,1.3038149,-2.0,0.092072554,2.0,1.2395716,-0.42957777,0.34377867,2.0,1.2037398,-0.027967256,2.0,-0.15039262,-1.9230713,-2.0,1.7890933,1.7747523,0.030408122,-0.9596033,-2.0,2.0
2025-07-19 15:18:46.227,2.0000000000000013,2000,100,0.19979632,0.19301623,-0.11684813,-0.005562343,-0.037347317,-0.0157242,0.0,0.0,0.0,-0.012800688,0.15398331,-0.35763228,0.045889813,-0.007156925,0.022312986,-0.13500684,0.13845286,0.049518563,0.24043779,-0.19274442,-0.035278887,0.13309345,0.040847067,0.16344014,0.059017573,0.00034554847,-0.059388094,-0.012219343,0.0073871696,0.3146111,-0.15473165,0.015939826,-0.14394602,0.050721113,1.2037398,-0.027967256,2.0,-0.15039262,-1.9230713,-2.0,1.7890933,1.7747523,0.030408122,-0.9596033,-2.0,2.0,-0.69274396,-2.0,2.0,-1.1088635,0.0044799075,-1.2437645,2.0,-2.0,0.84497005,-0.4995277,-1.9954734,2.0
2025-07-19 15:18:46.244,2.0200000000000014,2020,101,-0.05022741,-0.24331225,-0.009765329,0.043969344,0.01571177,-0.016492827,0.0,0.0,0.0,-0.011847082,0.12453841,-0.37205264,0.08675968,-0.040698078,0.016516656,-0.14410514,0.1701653,0.08132666,0.22018112,-0.18826556,-0.12338469,0.16320895,-0.074824885,-0.076290295,0.04053775,-0.04407082,-0.02712416,-0.06359484,0.079044476,-0.00022183849,-0.0737995,-0.019398341,-0.1963895,0.095377855,-0.69274396,-2.0,2.0,-1.1088635,0.0044799075,-1.2437645,2.0,-2.0,0.84497005,-0.4995277,-1.9954734,2.0,0.056864213,0.049193908,1.5390887,-1.076099,1.3709928,-2.0,2.0,-0.55444765,2.0,-0.8790993,0.2559489,2.0
2025-07-19 15:18:46.265,2.0400000000000014,2040,102,-0.09263746,0.11160712,0.0083065,0.008347868,-0.03592612,0.021218266,0.0,0.0,0.0,-0.010983351,0.10855868,-0.38628048,0.10223115,-0.04912645,0.066613674,-0.16638082,0.20254189,0.03536329,0.24114592,-0.18774371,-0.1603836,0.1918769,-0.04191755,0.06563876,0.03099626,-0.04115119,0.19365796,-0.03669269,0.080033585,-0.09816885,0.054998737,0.012510046,-0.019076137,-0.01650144,0.056864213,0.049193908,1.5390887,-1.076099,1.3709928,-2.0,2.0,-0.55444765,2.0,-0.8790993,0.2559489,2.0,-0.52668256,0.943932,0.92708135,-1.1784366,-1.8284618,-1.2214763,2.0,0.28095388,2.0,-0.096590325,-0.47531068,2.0
2025-07-19 15:18:46.285,2.0600000000000014,2060,103,0.047550607,0.07298487,-0.10898195,-0.025211511,-0.0041987603,0.048659526,0.0,0.0,0.0,-0.011796011,0.11045962,-0.358335,0.11210417,-0.084083825,0.08545958,-0.17339917,0.23861748,0.026168121,0.24290064,-0.18899488,-0.15323876,0.20922047,0.07267093,0.060207617,0.0004987843,-0.018832656,-0.15706873,-0.04697693,0.02820105,0.07367714,-0.039010167,0.02938239,0.06711466,0.036243927,-0.52668256,0.943932,0.92708135,-1.1784366,-1.8284618,-1.2214763,2.0,0.28095388,2.0,-0.096590325,-0.47531068,2.0,-1.7958974,1.0673766,-0.44207114,-1.7781194,-1.2862556,0.36572006,2.0,-1.7321322,2.0,0.6007933,-0.77487576,2.0
2025-07-19 15:18:46.310,2.0800000000000014,2080,104,0.11861385,-0.05545901,-0.024229826,-0.034171563,0.014639078,-0.0027630462,0.0,0.0,0.0,-0.01113751,0.0975712,-0.3270629,0.05763401,-0.111840606,-0.01383586,-0.13908134,0.2516649,-0.008497451,0.26827747,-0.18813352,-0.15848581,0.23021024,0.0030482095,0.07566351,-0.11913089,-0.060470697,-0.2114797,0.05200581,0.030913167,-0.19678113,0.078651555,0.003851175,-0.011976496,0.015530372,-1.7958974,1.0673766,-0.44207114,-1.7781194,-1.2862556,0.36572006,2.0,-1.7321322,2.0,0.6007933,-0.77487576,2.0,-1.7780452,2.0,-2.0,-1.2464172,-2.0,1.740013,2.0,-0.31500483,2.0,-0.905119,1.503087,2.0
2025-07-19 15:18:46.325,2.1000000000000014,2100,105,0.019830128,0.04903679,0.07911647,0.039320912,-0.046775986,0.005848206,0.0,0.0,0.0,-0.009864986,0.07139754,-0.24618615,-0.013852275,-0.1299722,-0.11628375,-0.060247734,0.26589757,-0.0300261,0.27557215,-0.18991257,-0.1240309,0.24068576,-0.08777972,0.21806541,-0.20740397,-0.080420196,-0.19684976,0.19909218,0.014835519,0.03519461,0.017655926,0.06717039,0.1614438,0.08728998,-1.7780452,2.0,-2.0,-1.2464172,-2.0,1.740013,2.0,-0.31500483,2.0,-0.905119,1.503087,2.0,-0.67578226,0.21568651,-1.665173,-0.093004614,-2.0,2.0,-0.35246158,-2.0,2.0,-0.46391374,1.1743191,1.1196008
2025-07-19 15:18:46.346,2.1200000000000014,2120,106,-0.0027070858,-0.07373232,0.10530292,-0.015670735,0.032544505,-0.019513734,0.0,0.0,0.0,-0.010027146,0.05493006,-0.20049334,-0.05342522,-0.14927994,-0.1828923,-0.011871931,0.26968607,-0.055268437,0.28554657,-0.1851845,-0.06488594,0.22198372,-0.114129774,0.15215367,-0.18066743,-0.062498767,-0.1107277,0.19094725,-0.008418721,-0.110068776,0.07522461,0.06839737,0.22961113,-0.088591,-0.67578226,0.21568651,-1.665173,-0.093004614,-2.0,2.0,-0.35246158,-2.0,2.0,-0.46391374,1.1743191,1.1196008,-1.2825755,1.5589577,-1.8871355,0.8865388,0.068926565,2.0,-1.4134598,1.7988789,2.0,-0.40826565,0.42928296,-0.6850287
2025-07-19 15:18:46.365,2.1400000000000015,2140,107,-0.06548664,0.13263436,-0.10383689,0.055179782,-0.007567122,-0.030994624,0.0,0.0,0.0,-0.012363686,0.02186681,-0.12186066,-0.10178386,-0.12296021,-0.21052441,0.043162767,0.24583867,-0.0206014,0.2835429,-0.17174916,-0.014859724,0.1598279,-0.1499412,0.22213864,-0.07385516,0.009896064,-0.024832964,0.081624076,-0.08672933,0.067908354,-0.018310875,0.054722246,0.067966506,-0.1768615,-1.2825755,1.5589577,-1.8871355,0.8865388,0.068926565,2.0,-1.4134598,1.7988789,2.0,-0.40826565,0.42928296,-0.6850287,-0.7677414,-1.845665,-2.0,0.8333753,2.0,2.0,-1.0033677,-1.973918,2.0,-0.5878369,0.93568647,-2.0
2025-07-19 15:18:46.385,2.1600000000000015,2160,108,-0.1686177,-0.0026341788,-0.055069495,-0.033601694,0.0427926,-0.03564108,0.0,0.0,0.0,-0.011776412,-0.012271614,-0.0808267,-0.14339544,-0.09355113,-0.19406854,0.069764346,0.21337503,0.005622028,0.29051325,-0.15022804,0.06149246,0.09204353,-0.060745165,-0.062534146,-0.07436665,0.08637908,0.11326324,0.008859972,-0.035143495,0.00855373,0.018342698,0.04370308,0.18100134,-0.16861291,-0.7677414,-1.845665,-2.0,0.8333753,2.0,2.0,-1.0033677,-1.973918,2.0,-0.5878369,0.93568647,-2.0,-0.003382314,-2.0,-2.0,1.3785293,2.0,-0.70087194,-0.23722792,-2.0,2.0,-1.6960304,-1.4306443,-2.0
2025-07-19 15:18:46.408,2.1800000000000015,2180,109,0.05963011,-0.11829997,-0.022588234,-0.0038302673,0.011949271,0.034329638,0.0,0.0,0.0,-0.010588628,-0.0040581673,-0.15285549,-0.17449245,-0.05915926,-0.13817576,0.042083062,0.17351174,-0.0067769927,0.30036718,-0.17140743,0.048039522,0.017265106,-0.046172306,-0.27039912,-0.12591545,0.13295981,0.13036843,-0.03367239,-0.06292125,-0.034838837,0.073839076,-0.107807085,-0.19274491,-0.20875487,-0.003382314,-2.0,-2.0,1.3785293,2.0,-0.70087194,-0.23722792,-2.0,2.0,-1.6960304,-1.4306443,-2.0,2.0,-2.0,-0.0042842478,0.4730566,2.0,-2.0,-0.7581823,-1.5370983,2.0,-2.0,0.4669999,-0.47507575
2025-07-19 15:18:46.426,2.2000000000000015,2200,110,-0.081614316,-0.23695467,0.032058798,-0.0030667318,-0.036552675,0.016348548,0.0,0.0,0.0,-0.009731748,0.032933224,-0.26595196,-0.13807392,-0.049331203,-0.058068715,-0.023517435,0.13873023,-0.037788726,0.29914555,-0.21212892,0.045961767,0.0056272154,0.10029167,-0.2022182,0.0052327225,0.05215917,0.18757203,-0.18153122,-0.16139568,-0.025397567,-0.008929611,-0.08652555,0.015256716,0.011473012,2.0,-2.0,-0.0042842478,0.4730566,2.0,-2.0,-0.7581823,-1.5370983,2.0,-2.0,0.4669999,-0.47507575,1.4627296,-2.0,2.0,1.4564124,0.8724632,-2.0,0.53200966,2.0,2.0,-2.0,-0.75791395,2.0
2025-07-19 15:18:46.495,2.2200000000000015,2220,111,0.326015,0.09349368,-0.037876263,-0.011440153,0.025728608,0.01503155,0.0,0.0,0.0,-0.009851601,0.07143129,-0.36944467,-0.06920823,-0.005527536,0.010241403,-0.078553915,0.13416347,-0.0069726063,0.29557276,-0.23524256,0.016362917,0.056945454,0.029325701,-0.16013826,0.25561714,0.103621855,0.17003591,-0.11389538,-0.0038601952,0.19674237,-0.008663588,-0.12265127,-0.0891686,0.19679509,1.4627296,-2.0,2.0,1.4564124,0.8724632,-2.0,0.53200966,2.0,2.0,-2.0,-0.75791395,2.0,1.4525303,-2.0,2.0,-0.056079,-0.32086816,-2.0,1.3307322,0.33899283,1.0877619,-0.7350402,-1.6536548,2.0
2025-07-19 15:18:46.515,2.2400000000000015,2240,112,0.41430968,-0.019030452,-0.060112502,-0.0063389307,-0.04312745,-0.010415342,0.0,0.0,0.0,-0.00931699,0.10724013,-0.45394677,0.00016594495,0.0064334506,0.013797641,-0.12010249,0.14782685,0.0083865905,0.28842455,-0.214615,-0.08941703,0.087857105,0.11099731,-0.1522571,0.08707756,-0.019244824,-0.06817777,-0.16418396,0.09385623,0.070666976,-0.101683974,-0.031790946,-0.34028006,0.050635144,1.4525303,-2.0,2.0,-0.056079,-0.32086816,-2.0,1.3307322,0.33899283,1.0877619,-0.7350402,-1.6536548,2.0,0.76138526,0.24335034,2.0,-1.1957697,2.0,-2.0,2.0,1.4023178,2.0,-0.41084737,2.0,2.0
2025-07-19 15:18:46.535,2.2600000000000016,2260,113,0.069705255,0.26885304,-0.0141916415,0.021549923,-0.07396892,-0.004153309,0.0,0.0,0.0,-0.008197543,0.11546252,-0.45841876,0.05813753,-0.037400533,0.041839007,-0.15836836,0.1696793,0.08553256,0.295892,-0.19393599,-0.12579407,0.1382277,0.0119740665,0.052306436,0.114532836,-0.06354594,0.2704622,-0.021505477,0.14014381,0.25967425,0.04236,0.11990381,0.14696826,0.094209574,0.76138526,0.24335034,2.0,-1.1957697,2.0,-2.0,2.0,1.4023178,2.0,-0.41084737,2.0,2.0,-0.39252418,1.2431742,2.0,-0.9333206,-1.141624,-1.3861741,2.0,-2.0,2.0,0.27149558,-2.0,2.0
2025-07-19 15:18:46.557,2.2800000000000016,2280,114,-0.346582,0.17949699,-0.12061252,0.027681647,0.012067412,0.033259977,0.0,0.0,0.0,-0.0076293363,0.111017,-0.43111256,0.08398284,-0.06409421,0.048406824,-0.15402393,0.19482583,0.107166365,0.30403525,-0.15946035,-0.13898936,0.16514783,-0.1264794,0.045832362,0.036073137,0.009225482,-0.1197091,-0.08053596,0.11013191,-0.113856934,0.073204584,0.10322715,-0.076692626,0.08035812,-0.39252418,1.2431742,2.0,-0.9333206,-1.141624,-1.3861741,2.0,-2.0,2.0,0.27149558,-2.0,2.0,-1.7171465,1.4048553,-0.06330277,-2.0,-1.2805195,-0.70408416,2.0,-0.20221329,2.0,0.6703742,-0.18183178,2.0
2025-07-19 15:18:46.575,2.3000000000000016,2300,115,-0.20872347,0.03963301,0.22373773,0.04369763,0.05151448,0.039843593,0.0,0.0,0.0,-0.006809533,0.06744119,-0.3744947,0.06602776,-0.10011725,-0.020290984,-0.14243847,0.23695807,0.093871556,0.2960049,-0.16218631,-0.1465452,0.17496538,-0.10096774,0.15000042,-0.116597794,-0.05547148,-0.28475487,-0.021765862,0.058793817,0.0012532477,0.06441521,0.065411784,0.017229646,0.10156207,-1.7171465,1.4048553,-0.06330277,-2.0,-1.2805195,-0.70408416,2.0,-0.20221329,2.0,0.6703742,-0.18183178,2.0,-0.6890842,2.0,-0.37897474,-1.0388501,-0.8767358,1.290593,2.0,-2.0,2.0,-0.76187474,-2.0,2.0
2025-07-19 15:18:46.595,2.3200000000000016,2320,116,-0.16052486,-0.21557091,0.074855685,0.03946934,-0.007096456,-0.03097133,0.0,0.0,0.0,-0.008192365,0.042866874,-0.35143793,0.020181019,-0.11810368,-0.08663138,-0.10214055,0.25477967,0.048931886,0.30990478,-0.14940707,-0.13411377,0.20982677,-0.06714311,-0.016340926,-0.09896393,-0.05778655,-0.062699206,0.20407248,0.017156446,-0.06414884,0.041246183,-0.064656295,0.024179984,0.12833542,-0.6890842,2.0,-0.37897474,-1.0388501,-0.8767358,1.290593,2.0,-2.0,2.0,-0.76187474,-2.0,2.0,-0.4953813,1.948081,-0.5679487,-1.5558853,-1.5884919,0.03971918,1.2982334,-0.858074,2.0,-1.4224335,0.70224637,2.0
2025-07-19 15:18:46.615,2.3400000000000016,2340,117,-0.21210235,-0.16800739,0.20323619,0.028039698,-0.02236186,-0.020331698,0.0,0.0,0.0,-0.011223067,0.013254437,-0.3220755,-0.004229463,-0.14534386,-0.18530856,-0.08307891,0.24198031,0.009211781,0.30477574,-0.19133511,-0.101529695,0.21749824,-0.062123533,0.10636091,-0.039896574,-0.063017935,-0.2879551,0.0052600517,0.057088263,-0.117601775,-0.0055278316,-0.10558453,0.1259886,0.055671424,-0.4953813,1.948081,-0.5679487,-1.5558853,-1.5884919,0.03971918,1.2982334,-0.858074,2.0,-1.4224335,0.70224637,2.0,-0.42105517,2.0,-1.5257204,-0.20537332,0.07829697,1.7141536,0.238386,0.41287607,2.0,-1.4612436,-2.0,2.0
2025-07-19 15:18:46.635,2.3600000000000017,2360,118,-0.016627094,0.00071189075,-0.07409028,-0.03149119,-0.0048482637,0.016767167,0.0,0.0,0.0,-0.013656321,0.003990177,-0.26957655,-0.057371616,-0.14066897,-0.22071709,-0.028679565,0.21715014,0.020556541,0.3175656,-0.18823352,-0.09053165,0.2373946,-0.081536576,0.10972208,-0.10624525,0.061030988,-0.028788704,0.100407995,-0.13907869,0.06560553,-0.04867885,-0.06896356,0.07034169,-0.0032460913,-0.42105517,2.0,-1.5257204,-0.20537332,0.07829697,1.7141536,0.238386,0.41287607,2.0,-1.4612436,-2.0,2.0,-0.59684604,-0.28132144,-1.4886589,-0.5129663,-0.6771035,1.872271,-0.16347277,-1.2311308,2.0,-0.5226169,1.2200162,0.37599155
2025-07-19 15:18:46.658,2.3800000000000017,2380,119,0.0042367983,-0.20636049,0.024742836,-0.020419966,0.03022582,0.023216676,0.0,0.0,0.0,-0.013359255,0.004801506,-0.23619415,-0.088924885,-0.13145083,-0.23838644,0.020204647,0.20383586,0.022434305,0.3071695,-0.19250712,-0.02862207,0.20229068,-0.086663514,0.12439554,-0.055867773,-0.080608755,-0.09089275,0.06608924,-0.06523551,0.043569483,0.0029644778,0.020782266,0.13380027,-0.06377383,-0.59684604,-0.28132144,-1.4886589,-0.5129663,-0.6771035,1.872271,-0.16347277,-1.2311308,2.0,-0.5226169,1.2200162,0.37599155,-0.94876283,2.0,-0.74948984,-0.065350786,1.338248,1.984804,-0.9361466,-0.1908269,2.0,0.2305146,1.617477,-1.6591334
2025-07-19 15:18:46.675,2.4000000000000017,2400,120,-0.07773538,0.10238012,0.086311124,-0.015331443,0.015583173,-0.024534985,0.0,0.0,0.0,-0.013541488,-0.017787103,-0.19298968,-0.094998345,-0.14756328,-0.21507697,0.052059244,0.1701265,0.011830198,0.31302863,-0.14717028,0.09521491,0.13172166,-0.04560891,0.18755822,-0.003899683,-0.0020736593,0.062220868,0.11455107,-0.060724437,-0.02559029,-0.01889565,0.100048475,0.31660056,-0.20309241,-0.94876283,2.0,-0.74948984,-0.065350786,1.338248,1.984804,-0.9361466,-0.1908269,2.0,0.2305146,1.617477,-1.6591334,0.28803676,0.07902689,-2.0,1.9123774,1.2900872,2.0,0.17784795,-2.0,2.0,-0.5539767,-2.0,-2.0
2025-07-19 15:18:46.695,2.4200000000000017,2420,121,0.2209242,0.03557042,0.08444654,0.034954716,-0.018918129,-0.020119764,0.0,0.0,0.0,-0.0151973,-0.0218424,-0.16323785,-0.14319356,-0.13917989,-0.2097308,0.096649736,0.1696562,0.0047139693,0.32022613,-0.14573035,0.11538897,0.055375513,-0.010739009,0.11796475,-0.028452866,0.101858236,0.084958136,0.10977004,0.03488846,0.014049066,-0.04634664,-0.014590325,-0.05929601,-0.13604358,0.28803676,0.07902689,-2.0,1.9123774,1.2900872,2.0,0.17784795,-2.0,2.0,-0.5539767,-2.0,-2.0,1.5134526,-2.0,-1.5444896,1.5639274,2.0,-1.3665247,-0.9212403,-2.0,2.0,-2.0,-2.0,-1.4908949
2025-07-19 15:18:46.715,2.4400000000000017,2440,122,0.16717835,-0.24316107,-0.05482076,0.027907554,-0.024274,-0.04045061,0.0,0.0,0.0,-0.01629465,0.023986341,-0.18794411,-0.15412728,-0.09810663,-0.15827905,0.030263998,0.13159844,-0.00045907524,0.3230301,-0.1672057,0.043866437,0.008055255,0.10377271,-0.16353682,-0.11139652,0.03692006,0.19568472,-0.11365183,-0.1143509,-0.04407694,-0.054146785,-0.10162237,-0.31789157,-0.051131815,1.5134526,-2.0,-1.5444896,1.5639274,2.0,-1.3665247,-0.9212403,-2.0,2.0,-2.0,-2.0,-1.4908949,1.7808125,-2.0,1.0153356,1.1377888,2.0,-2.0,-0.30481142,-1.0758295,2.0,-2.0,0.33789384,1.17433
2025-07-19 15:18:46.736,2.4600000000000017,2460,123,0.08217413,-0.19750263,0.06644214,0.03112979,-0.0011460539,0.015500798,0.0,0.0,0.0,-0.015966533,0.067366876,-0.30071887,-0.106223404,-0.060422905,-0.09569806,-0.02179,0.12628551,-0.05505071,0.3270448,-0.20658289,-0.01955127,0.021830695,0.09552697,-0.33570895,0.12308273,0.10168434,0.18007313,-0.09829634,0.022326123,-0.11480681,-0.013307525,-0.07834924,0.07297868,0.05207127,1.7808125,-2.0,1.0153356,1.1377888,2.0,-2.0,-0.30481142,-1.0758295,2.0,-2.0,0.33789384,1.17433,1.3274814,-1.1321532,2.0,1.0960149,0.70149684,-2.0,0.540231,2.0,1.9944199,-0.9866088,-0.48869252,2.0
2025-07-19 15:18:46.759,2.4800000000000018,2480,124,0.29642472,0.04761604,0.005354558,-0.018053003,-0.009719239,-0.032705743,0.0,0.0,0.0,-0.016937932,0.11224717,-0.3398793,-0.031889014,-0.030548654,-0.019176831,-0.083748855,0.108185366,-0.034091335,0.32150874,-0.19148414,-0.046915952,0.074767694,0.12259754,-0.015015354,0.21998379,0.033032898,0.18399262,-0.08707704,-0.07253597,0.17854074,-0.04613241,0.0773188,-0.099491924,0.12109766,1.3274814,-1.1321532,2.0,1.0960149,0.70149684,-2.0,0.540231,2.0,1.9944199,-0.9866088,-0.48869252,2.0,1.3579885,-1.6644117,2.0,-0.20993087,-0.74915606,-2.0,1.3344746,1.2783585,0.32283226,-0.9073277,-0.6292851,2.0
2025-07-19 15:18:46.776,2.5000000000000018,2500,125,0.09717699,-0.0028843298,0.04285332,0.005022088,-0.02436867,-0.028860133,0.0,0.0,0.0,-0.01758286,0.13600379,-0.39192045,0.032685507,-0.016454421,-0.016761215,-0.11989978,0.13738465,0.057802446,0.28095713,-0.2007644,-0.08274273,0.11768621,0.06702067,-0.078441724,0.15532523,0.05551155,-0.031356256,-0.10927313,0.035367645,0.26391196,-0.06425618,0.04108799,-0.08701382,0.09508458,1.3579885,-1.6644117,2.0,-0.20993087,-0.74915606,-2.0,1.3344746,1.2783585,0.32283226,-0.9073277,-0.6292851,2.0,0.10639067,-0.008556407,2.0,-0.6834746,1.3534436,-2.0,1.441533,-0.33701658,1.1726338,-0.573142,-0.7735677,2.0
2025-07-19 15:18:46.796,2.520000000000002,2520,126,-0.40143067,0.11420537,0.014577429,0.063221656,-0.023739753,-0.04669885,0.0,0.0,0.0,-0.018117025,0.1280215,-0.40496922,0.0654825,-0.04297095,0.007713536,-0.15039447,0.15306644,0.07889395,0.25480172,-0.1888507,-0.12789458,0.15361258,-0.08733031,0.05490211,0.06850508,-0.0336054,0.13782305,-0.013942843,0.106782384,-0.121072784,0.0077959984,0.02226633,-0.1199388,0.06136061,0.10639067,-0.008556407,2.0,-0.6834746,1.3534436,-2.0,1.441533,-0.33701658,1.1726338,-0.573142,-0.7735677,2.0,-0.27607942,1.8046658,1.6313027,-1.0813366,-0.6808683,-1.8016994,2.0,1.8395193,2.0,0.2791757,-0.20081818,2.0
2025-07-19 15:18:46.816,2.540000000000002,2540,127,-0.30905253,0.35137096,-0.12379287,0.0048879758,-0.046727333,0.019573936,0.0,0.0,0.0,-0.019511526,0.08895568,-0.37702712,0.08904949,-0.060761675,0.01669511,-0.18105026,0.18633822,0.124493465,0.27424213,-0.14443904,-0.12500426,0.18796197,-0.069468886,0.048043836,0.089815326,-0.0900433,-0.13195106,-0.050766326,0.105273776,0.24010864,0.07519689,0.06923641,0.11165014,0.11786546,-0.27607942,1.8046658,1.6313027,-1.0813366,-0.6808683,-1.8016994,2.0,1.8395193,2.0,0.2791757,-0.20081818,2.0,-1.8501661,1.9495909,1.3082004,-1.8846959,-0.10009382,-1.139098,2.0,-2.0,2.0,1.2345469,-2.0,2.0
2025-07-19 15:18:46.836,2.560000000000002,2560,128,-0.18113965,0.12711114,-0.028905556,-0.03548933,0.03166544,-0.03779555,0.0,0.0,0.0,-0.019797584,0.0772635,-0.3387414,0.101923145,-0.09685108,0.00629454,-0.18520373,0.21215753,0.111633986,0.2741647,-0.16384473,-0.10129258,0.19781609,0.013312422,0.10830038,0.041698974,-0.1289472,-0.06334898,0.067714445,0.1288062,-0.06548168,-0.029809194,-0.0032171363,0.09041201,0.0072664726,-1.8501661,1.9495909,1.3082004,-1.8846959,-0.10009382,-1.139098,2.0,-2.0,2.0,1.2345469,-2.0,2.0,-1.9010158,2.0,-1.3710692,-1.2258917,-2.0,0.04813607,2.0,-1.8584876,2.0,0.6789662,-2.0,2.0
2025-07-19 15:18:46.858,2.580000000000002,2580,129,0.11754041,-0.13745165,0.02141055,0.010035811,-0.025693707,-0.0012933868,0.0,0.0,0.0,-0.019282805,0.06815767,-0.27703384,0.03874464,-0.11725742,-0.068474494,-0.13729712,0.23664719,0.030686803,0.2825344,-0.1562924,-0.08459753,0.21756798,0.05309147,0.11469557,-0.078484006,-2.84147e-05,-0.20509595,0.11561608,0.11329565,-0.35722002,0.060838256,0.016931806,0.045720857,0.120689034,-1.9010158,2.0,-1.3710692,-1.2258917,-2.0,0.04813607,2.0,-1.8584876,2.0,0.6789662,-2.0,2.0,-1.0673105,2.0,-2.0,-0.87214094,-2.0,1.9334456,1.7949336,1.1758782,2.0,0.0077311518,0.58815575,2.0
2025-07-19 15:18:46.876,2.600000000000002,2600,130,0.034449168,0.19055796,0.11979254,0.028891802,0.055731468,0.03588213,0.0,0.0,0.0,-0.019361837,0.039024163,-0.20310606,-0.022003181,-0.12027318,-0.19740435,-0.07072252,0.239583,-0.015685786,0.28133985,-0.13647434,-0.0560225,0.23874806,-0.027630022,0.2795503,-0.1588246,0.0015197949,-0.32324204,0.18991707,0.031309534,0.07013651,0.026964407,-0.067451246,0.18346523,0.06073521,-1.0673105,2.0,-2.0,-0.87214094,-2.0,1.9334456,1.7949336,1.1758782,2.0,0.0077311518,0.58815575,2.0,-0.37836593,0.6579446,-2.0,0.13588944,-2.0,2.0,-1.0993655,-0.9076835,2.0,-0.1865981,0.16161054,0.3770878
2025-07-19 15:18:46.896,2.620000000000002,2620,131,0.04382112,-0.18395193,-0.05871793,-0.022194741,0.0031696633,-0.009093708,0.0,0.0,0.0,-0.020479916,0.029559925,-0.11542044,-0.09594086,-0.114973664,-0.3049114,0.002139734,0.24706373,-0.035381455,0.2979104,-0.1400693,-0.025773017,0.19607592,-0.08770404,0.15102439,-0.12642564,0.02018364,-0.15466554,0.17670764,-0.10975691,-0.08554794,0.042813,0.082059614,0.050095774,-0.108470626,-0.37836593,0.6579446,-2.0,0.13588944,-2.0,2.0,-1.0993655,-0.9076835,2.0,-0.1865981,0.16161054,0.3770878,-1.4409994,2.0,-2.0,-0.12128644,2.0,2.0,-1.7900293,1.7541096,2.0,0.7234226,2.0,-2.0
2025-07-19 15:18:46.916,2.640000000000002,2640,132,-0.18119663,0.22866946,-0.079639256,0.017382845,0.030344654,-0.022782145,0.0,0.0,0.0,-0.020994015,-0.0051843394,-0.03718284,-0.132669,-0.104290515,-0.32661477,0.044642694,0.20631525,0.017904889,0.2982997,-0.12237816,0.06882554,0.1161656,-0.06272099,0.19424878,-0.07086757,-0.042934258,0.06708247,0.09843825,-0.11922615,0.117628075,0.04093886,0.007144235,0.27691635,-0.14299354,-1.4409994,2.0,-2.0,-0.12128644,2.0,2.0,-1.7900293,1.7541096,2.0,0.7234226,2.0,-2.0,-0.5383353,-1.5761257,-2.0,1.9137884,2.0,2.0,-0.88167524,-2.0,2.0,-0.91502666,-1.7482619,-2.0
2025-07-19 15:18:47.028,2.660000000000002,2660,133,-0.019386414,-0.028148577,-0.058303647,-0.009457609,0.05054269,-0.007508619,1.5,0.0,0.0,-0.020280784,-0.014937977,0.0033889855,-0.15829024,-0.104862355,-0.33080918,0.06905238,0.1721056,0.03972633,0.30199853,-0.108322866,0.111229345,0.035962615,-0.04555854,0.08367277,-0.01835029,0.042862672,0.049074143,0.052760802,-0.08360181,0.04131796,-0.010204283,-0.07477754,0.09322851,-0.11050144,-0.5383353,-1.5761257,-2.0,1.9137884,2.0,2.0,-0.88167524,-2.0,2.0,-0.91502666,-1.7482619,-2.0,2.0,-2.0,-2.0,0.7858766,2.0,2.0,-2.0,-2.0,2.0,-2.0,-2.0,-2.0
2025-07-19 15:18:47.047,2.680000000000002,2680,134,0.20995027,-0.0728607,-0.14557323,0.052175924,-0.038860876,0.002312413,1.5,0.0,0.0,-0.018227942,0.031560518,-0.025776915,-0.1895161,-0.07631629,-0.33337432,0.09320821,0.11779077,0.046609588,0.30740947,-0.14664006,0.06394793,-0.022339722,0.09213087,-0.23198962,-0.10742332,-0.014629712,-0.023470698,0.105936475,-0.12405364,0.0627762,0.04758748,-0.12579128,-0.1941814,-0.06387304,2.0,-2.0,-2.0,0.7858766,2.0,2.0,-2.0,-2.0,2.0,-2.0,-2.0,-2.0,2.0,-2.0,-0.575248,0.06787914,2.0,0.6552504,-1.4402473,-2.0,2.0,-2.0,-0.20305043,-2.0
2025-07-19 15:18:47.067,2.700000000000002,2700,135,-0.029501105,-0.12115426,-0.0741028,-0.053233955,-0.0028005322,0.003923343,1.5,0.0,0.0,-0.015786935,0.08676659,-0.16317621,-0.17486197,-0.07371937,-0.3034288,0.103267826,0.07483903,0.045589466,0.30530086,-0.18664804,0.04084183,-0.062068798,0.15766996,-0.3077941,0.032968808,-0.020680424,0.010281898,0.00029907958,-0.10630945,-0.055914614,-0.0051453123,-0.093740046,-0.120980255,-0.07602983,2.0,-2.0,-0.575248,0.06787914,2.0,0.6552504,-1.4402473,-2.0,2.0,-2.0,-0.20305043,-2.0,2.0,-0.61227477,2.0,0.5459158,2.0,-1.4200152,-1.2400627,-1.4176967,2.0,-1.4232299,0.30514294,-1.1428487
2025-07-19 15:18:47.090,2.720000000000002,2720,136,-0.064589135,-0.17755195,-0.028742226,-0.04315875,-0.020116592,-0.04930039,1.5,0.0,0.0,-0.014585309,0.13163343,-0.20350067,-0.10504383,-0.049971808,-0.24594542,0.040101454,0.04724103,0.02872091,0.32476243,-0.19570847,0.04388692,-0.085429616,0.05710612,0.010291587,0.25780055,0.050288454,0.18259405,-0.1907165,-0.02787776,-0.08656507,-0.017644448,0.034863245,0.016662605,-0.002524127,2.0,-0.61227477,2.0,0.5459158,2.0,-1.4200152,-1.2400627,-1.4176967,2.0,-1.4232299,0.30514294,-1.1428487,2.0,-2.0,1.0619475,1.9357004,2.0,-2.0,-1.1108809,0.9116962,2.0,-1.3815489,-1.593184,-0.051535666
2025-07-19 15:18:47.109,2.740000000000002,2740,137,0.28410906,0.11535217,-0.14996861,-0.03528515,0.0042384216,0.030885633,1.5,0.0,0.0,-0.013577354,0.16343707,-0.2643858,-0.050802667,-0.005085448,-0.16934302,-0.03878449,0.016604435,0.07144029,0.31746566,-0.20270967,0.0052208914,-0.063743,0.11994612,-0.23613028,0.13936888,0.20868385,0.23486471,-0.097179875,-0.086206175,0.17294826,-0.015850507,-0.062048443,-0.24896657,0.04718111,2.0,-2.0,1.0619475,1.9357004,2.0,-2.0,-1.1108809,0.9116962,2.0,-1.3815489,-1.593184,-0.051535666,2.0,-1.5524875,2.0,-0.5912327,2.0,-2.0,0.68420845,-1.4222039,1.0547458,0.02103449,-0.5322226,2.0
2025-07-19 15:18:47.128,2.760000000000002,2760,138,0.18362178,-0.096366085,0.07305919,0.0048834295,0.013405718,-0.017917078,1.5,0.0,0.0,-0.010965491,0.18733677,-0.3423266,0.020318847,-0.019528631,-0.07819728,-0.081670836,0.024361454,0.09123259,0.29771382,-0.16380183,-0.04499386,-0.008248303,0.048288416,-0.097937234,0.14158957,-0.11688548,0.2619535,-0.1720367,0.03261162,-0.03185048,0.007564825,0.052575067,-0.10750497,0.09772973,2.0,-1.5524875,2.0,-0.5912327,2.0,-2.0,0.68420845,-1.4222039,1.0547458,0.02103449,-0.5322226,2.0,0.8091858,2.0,2.0,-0.55675024,1.0665945,-2.0,2.0,2.0,2.0,1.0427196,-0.24293351,2.0
2025-07-19 15:18:47.148,2.780000000000002,2780,139,0.15900125,0.15266989,0.0010277425,0.027815973,-0.0488033,-0.011294064,1.5,0.0,0.0,-0.010915632,0.18879017,-0.3264034,0.0696312,-0.030768061,0.0031121199,-0.1268408,0.0648651,0.15055051,0.2851094,-0.11003207,-0.05894439,0.04473462,0.059585847,0.15597315,0.153927,0.01134157,0.14623958,-0.0640938,0.05924362,0.29278165,-0.042831305,0.12292122,0.04291885,0.06649246,0.8091858,2.0,2.0,-0.55675024,1.0665945,-2.0,2.0,2.0,2.0,1.0427196,-0.24293351,2.0,-1.2867595,2.0,2.0,-2.0,0.056424998,-2.0,2.0,-2.0,2.0,1.9225924,-2.0,2.0
2025-07-19 15:18:47.168,2.800000000000002,2800,140,-0.3539385,-0.0031820126,-0.008680797,0.017297294,-0.03776903,0.048343368,1.5,0.0,0.0,-0.012739383,0.17256357,-0.3008339,0.09069454,-0.071409054,0.04142885,-0.15913688,0.12268613,0.158112,0.29706982,-0.050996814,-0.09989339,0.09396952,-0.06938885,0.061627492,-0.0064152437,-0.05518982,0.024613267,-0.064364225,0.16497356,-0.045868464,-0.007517738,0.017202618,-0.095048964,0.08538989,-1.2867595,2.0,2.0,-2.0,0.056424998,-2.0,2.0,-2.0,2.0,1.9225924,-2.0,2.0,-1.5386125,2.0,2.0,-2.0,-2.0,-2.0,2.0,-2.0,2.0,1.9452899,-0.062433787,2.0
2025-07-19 15:18:47.192,2.820000000000002,2820,141,-0.27492046,0.10779114,0.058779523,-0.04029685,-0.0018379814,-0.009246517,1.5,0.0,0.0,-0.013246472,0.1449283,-0.26509336,0.11624739,-0.117241986,-0.023378054,-0.18918373,0.16082719,0.102636315,0.30354246,-0.05128197,-0.08849401,0.1192051,-0.09343955,0.108406894,0.09219837,-0.06631896,-0.22493926,-0.06269342,0.14435366,-0.25107825,0.06961923,0.055057827,0.03852841,0.12761529,-1.5386125,2.0,2.0,-2.0,-2.0,-2.0,2.0,-2.0,2.0,1.9452899,-0.062433787,2.0,-0.50544363,2.0,1.6852657,-2.0,-2.0,-1.9707263,2.0,-0.9812478,2.0,0.47871035,-1.5905381,2.0
2025-07-19 15:18:47.209,2.840000000000002,2840,142,-0.16462214,-0.21777101,0.12076706,-0.0140252225,0.02000721,0.01142823,1.5,0.0,0.0,-0.014489613,0.11937564,-0.24960351,0.13720594,-0.15524699,-0.14258496,-0.20124453,0.18961638,0.013988863,0.3117282,-0.038666524,-0.09342961,0.14873357,-0.0612191,0.035954244,0.084963605,-0.032376464,-0.2676987,-0.03452489,0.04204705,-0.18622333,0.03718679,0.04970798,0.011073665,0.047136717,-0.50544363,2.0,1.6852657,-2.0,-2.0,-1.9707263,2.0,-0.9812478,2.0,0.47871035,-1.5905381,2.0,0.3743552,2.0,1.1868321,-2.0,-0.024543978,-1.1841139,2.0,0.8386585,2.0,-0.1352524,-2.0,2.0
2025-07-19 15:18:47.228,2.860000000000002,2860,143,-0.009777996,-0.045755867,-0.14084914,-0.025584124,-0.040968996,0.0004893572,1.5,0.0,0.0,-0.016192365,0.11357887,-0.21693213,0.12826803,-0.18471508,-0.19467025,-0.20091349,0.2196348,0.03745773,0.31832552,-0.05403229,-0.082992464,0.19034664,-0.053041138,0.087943494,-0.06268484,-0.03536466,0.0052909916,-0.019669106,0.06310759,0.18329798,0.035813875,-0.022061108,0.03300648,0.13523194,0.3743552,2.0,1.1868321,-2.0,-0.024543978,-1.1841139,2.0,0.8386585,2.0,-0.1352524,-2.0,2.0,-1.4298882,2.0,1.1872141,-1.8968334,0.61702365,-2.0,2.0,-2.0,2.0,2.0,-0.44642758,2.0
2025-07-19 15:18:47.248,2.880000000000002,2880,144,-0.059395645,-0.20987618,-0.03110737,-0.037095487,-0.033410452,0.033717033,1.5,0.0,0.0,-0.015688745,0.11862813,-0.16970964,0.12373142,-0.2099589,-0.1536271,-0.22278634,0.2359618,0.027276523,0.3068637,-0.059606507,-0.08642261,0.20108259,-0.008165149,0.17946799,0.03969186,-0.12233701,0.22540314,-0.019460585,0.10230431,-0.21589132,-0.061248403,-0.0045248508,-0.054275095,0.101032175,-1.4298882,2.0,1.1872141,-1.8968334,0.61702365,-2.0,2.0,-2.0,2.0,2.0,-0.44642758,2.0,-1.9514587,2.0,1.0177473,-1.7348179,-2.0,-2.0,2.0,-1.7300353,2.0,1.4724326,0.6561397,2.0
2025-07-19 15:18:47.268,2.900000000000002,2900,145,-0.22799802,-0.12895647,0.13343777,-0.07116119,-0.030968722,-0.046814613,1.5,0.0,0.0,-0.0142872725,0.095041014,-0.114267394,0.11691598,-0.22478768,-0.13912022,-0.23894042,0.2609961,-0.065184355,0.31691033,-0.029136978,-0.05196433,0.21915317,-0.13004686,0.11621795,-0.018872663,-0.07949338,-0.06457767,-0.074182615,0.07042663,-0.35311595,-0.013860719,0.1148928,0.09844792,0.056076504,-1.9514587,2.0,1.0177473,-1.7348179,-2.0,-2.0,2.0,-1.7300353,2.0,1.4724326,0.6561397,2.0,0.19291027,2.0,-0.39609915,-1.0179415,-2.0,0.08294566,2.0,0.20823973,2.0,-0.25610358,-2.0,2.0
2025-07-19 15:18:47.293,2.920000000000002,2920,146,-0.019242475,-0.091693975,-0.21103005,-0.0051039946,0.019129291,-0.011880931,1.5,0.0,0.0,-0.015269012,0.08409398,-0.035145484,0.09229045,-0.22307712,-0.2274542,-0.19362834,0.27629933,-0.12126171,0.32116354,-0.03327976,-0.04009443,0.22974566,0.059305646,0.32433715,-0.10247343,0.036988825,-0.29128093,0.0488464,0.009962473,-0.045054086,-0.07866695,-0.08613386,0.035371836,0.07326311,0.19291027,2.0,-0.39609915,-1.0179415,-2.0,0.08294566,2.0,0.20823973,2.0,-0.25610358,-2.0,2.0,-0.029781926,2.0,-2.0,-1.1712705,0.1326161,2.0,-0.04239797,-2.0,2.0,1.4239558,2.0,2.0
2025-07-19 15:18:47.308,2.940000000000002,2940,147,-0.031154066,-0.14255877,0.047030665,-0.040304676,0.004220487,-0.030425651,1.5,0.0,0.0,-0.013823505,0.06527492,0.08812825,0.020021854,-0.2111428,-0.26464516,-0.120037556,0.23988114,-0.15963304,0.3160644,-0.009978553,0.014272917,0.24835372,0.022181861,0.37752149,-0.1840554,-0.04485672,0.034631893,0.27114287,-0.113242395,-0.18487361,0.035590038,0.124433346,0.19239087,-0.054019623,-0.029781926,2.0,-2.0,-1.1712705,0.1326161,2.0,-0.04239797,-2.0,2.0,1.4239558,2.0,2.0,1.6502458,-2.0,-2.0,1.718717,0.7977126,2.0,-2.0,-2.0,2.0,-1.0999693,2.0,-0.4496168
2025-07-19 15:18:47.328,2.960000000000002,2960,148,-0.036906797,0.030616052,0.06859629,-0.111804135,-0.04842874,-0.018476205,1.5,0.0,0.0,-0.012709307,0.111311324,0.13324079,-0.041329294,-0.1664766,-0.20406719,-0.034861322,0.15860076,-0.26837417,0.3125304,-0.02176661,0.13153067,0.19459678,0.14028198,0.05243225,-0.13085872,0.20353214,0.1635168,0.058014475,-0.24574204,-0.2773824,-0.002455325,-0.023000984,0.28135827,-0.1129356,1.6502458,-2.0,-2.0,1.718717,0.7977126,2.0,-2.0,-2.0,2.0,-1.0999693,2.0,-0.4496168,1.3375332,-2.0,-2.0,1.1809546,2.0,2.0,-2.0,2.0,2.0,-2.0,-1.1273439,-2.0
2025-07-19 15:18:47.348,2.980000000000002,2980,149,0.027636755,0.32685512,-0.06344093,-0.093656614,-0.06420675,0.005071393,1.5,0.0,0.0,-0.0135533,0.12409113,0.0763427,-0.07810041,-0.1275396,-0.14868051,0.011169656,0.104729064,-0.27642378,0.31382284,-0.085769616,0.19379465,0.11565632,0.09236532,-0.1536668,-0.08561042,0.05079424,0.101564825,0.062231377,-0.050255045,0.15627363,-0.011538088,-0.1281623,0.06681905,-0.14574677,1.3375332,-2.0,-2.0,1.1809546,2.0,2.0,-2.0,2.0,2.0,-2.0,-1.1273439,-2.0,2.0,-2.0,-2.0,1.932274,2.0,1.9428306,-0.67265207,-0.73611283,2.0,-2.0,-2.0,-2.0
2025-07-19 15:18:47.369,3.000000000000002,3000,150,0.13579528,0.19192378,0.08566354,-0.076222904,-0.025149666,0.030729767,1.5,0.0,0.0,-0.0135909105,0.16692977,-0.04790312,-0.12572855,-0.10221886,-0.10629269,0.037452824,0.1058752,-0.2536635,0.31583223,-0.12701409,0.15455769,0.03615696,0.0812061,-0.45531464,-0.038552508,0.029922293,0.0886073,0.0104489,-0.0129581895,0.07601087,0.073736794,-0.11969067,-0.26715943,-0.20166856,2.0,-2.0,-2.0,1.932274,2.0,1.9428306,-0.67265207,-0.73611283,2.0,-2.0,-2.0,-2.0,2.0,-2.0,0.8382075,1.5884768,2.0,-2.0,-0.57296,1.1604824,2.0,-2.0,-2.0,-1.9478495
2025-07-19 15:18:47.394,3.0200000000000022,3020,151,-0.052362874,0.151588,-0.18564302,-0.08029631,0.014429792,-0.018427916,1.5,0.0,0.0,-0.013772095,0.18333444,-0.18521084,-0.07507777,-0.050466236,-0.019975565,-0.020237813,0.1058952,-0.18284537,0.31529,-0.16362977,0.020587109,-0.0261024,0.031062067,-0.3263042,0.14504763,0.12013882,0.29780373,-0.23224889,-0.010715076,0.27544516,-0.0679177,-0.06126364,-0.419277,-0.069548815,2.0,-2.0,0.8382075,1.5884768,2.0,-2.0,-0.57296,1.1604824,2.0,-2.0,-2.0,-1.9478495,2.0,-2.0,2.0,0.5409048,1.9021758,-2.0,1.3073319,-0.54017377,1.6407523,-1.4695985,-0.98767877,2.0
2025-07-19 15:18:47.409,3.0400000000000023,3040,152,-0.005857906,0.0853899,0.12849878,-0.0150394,0.04267384,0.0041507357,1.5,0.0,0.0,-0.012216514,0.22334744,-0.3067516,-0.02042215,-0.036290333,0.094842225,-0.08461345,0.124106504,-0.13829495,0.30244663,-0.18617338,-0.073736854,0.02710471,0.07170526,-0.21463619,0.22581054,0.08676313,0.23879239,-0.18834321,0.014176483,0.019346328,0.025756178,-0.0786511,-0.2198188,0.116516106,2.0,-2.0,2.0,0.5409048,1.9021758,-2.0,1.3073319,-0.54017377,1.6407523,-1.4695985,-0.98767877,2.0,1.6701373,2.0,2.0,-0.44315392,-0.5101463,-2.0,2.0,2.0,2.0,0.66702324,-0.16934156,2.0
2025-07-19 15:18:47.429,3.0600000000000023,3060,153,0.38999993,0.14993119,-0.027907971,-0.048964914,0.03875669,0.0031520573,1.5,0.0,0.0,-0.01261299,0.24083105,-0.32579076,0.045516014,-0.030299438,0.15565248,-0.12535675,0.16558415,-0.07115629,0.2979293,-0.14707704,-0.08155287,0.07810768,-0.022975229,0.015563307,0.114033744,-0.056071132,0.13345547,-0.035658687,0.069881834,0.12603413,-0.033347256,0.15519479,-0.0255749,0.1627598,1.6701373,2.0,2.0,-0.44315392,-0.5101463,-2.0,2.0,2.0,2.0,0.66702324,-0.16934156,2.0,0.09765603,2.0,2.0,-2.0,-1.9409263,-2.0,2.0,2.0,1.4070226,1.2152289,-1.9753091,2.0
2025-07-19 15:18:47.449,3.0800000000000023,3080,154,0.53835094,-0.051730707,-0.17515542,0.029139845,-0.015840353,-0.03771497,1.5,0.0,0.0,-0.014463965,0.20779769,-0.25936434,0.07937144,-0.08846743,0.13680202,-0.1482746,0.20353061,0.03607159,0.27222848,-0.104723476,-0.09054094,0.11844944,-0.044617042,0.13396022,0.031941365,-0.1854667,-0.14422226,-0.045478486,0.10387403,0.27752268,0.0047770664,0.093387924,-0.123919256,0.118738964,0.09765603,2.0,2.0,-2.0,-1.9409263,-2.0,2.0,2.0,1.4070226,1.2152289,-1.9753091,2.0,-1.5655757,2.0,2.0,-2.0,-1.358012,-2.0,2.0,-1.3780493,1.2737876,2.0,1.7233756,2.0
2025-07-19 15:18:47.469,3.1000000000000023,3100,155,-0.012034164,0.07042635,0.014880655,0.0021714834,-0.037319165,0.04264061,1.5,0.0,0.0,-0.012787898,0.21464092,-0.21733415,0.10987286,-0.12217891,0.021200022,-0.171225,0.22406122,0.060899127,0.27335057,-0.07184241,-0.06779778,0.13414025,0.044029888,0.12559493,0.11672045,-0.083062194,-0.22266982,-0.075570606,0.021508105,0.04020178,-0.08606063,0.018397765,0.17006762,0.124603175,-1.5655757,2.0,2.0,-2.0,-1.358012,-2.0,2.0,-1.3780493,1.2737876,2.0,1.7233756,2.0,-0.7863932,2.0,2.0,-2.0,-1.9707906,-2.0,2.0,-2.0,2.0,2.0,-2.0,2.0
2025-07-19 15:18:47.492,3.1200000000000023,3120,156,-0.08941189,-0.023404434,-0.053585842,-0.0030194984,-0.04497079,0.04928276,1.5,0.0,0.0,-0.011457375,0.19359514,-0.16147861,0.123063736,-0.1668594,-0.12444783,-0.18875913,0.25257668,-0.0013226533,0.27774498,-0.048518248,-0.04049694,0.17393151,0.023439994,0.1101069,-0.0001378122,-0.016044537,-0.4007495,-0.1069066,0.056851584,-0.29727712,0.038760215,0.080407515,0.02668495,0.077449866,-0.7863932,2.0,2.0,-2.0,-1.9707906,-2.0,2.0,-2.0,2.0,2.0,-2.0,2.0,-0.5117673,2.0,-0.8292976,-1.8752487,-1.2575666,0.3210279,2.0,0.13243616,2.0,0.39877838,-1.2306126,2.0
