openverse-orca/OrcaGym/log/simulation_log_20250606_161644.csv
timestamp,imu_angle_roll,imu_angle_pitch,imu_angle_yaw,imu_angular_velocity_roll,imu_angular_velocity_pitch,imu_angular_velocity_yaw,imu_acc_x,imu_acc_y,imu_acc_z,fl_joint1_pos,fl_joint1_vel,fl_joint1_torque,fl_joint2_pos,fl_joint2_vel,fl_joint2_torque,fl_joint3_pos,fl_joint3_vel,fl_joint3_torque,fr_joint1_pos,fr_joint1_vel,fr_joint1_torque,fr_joint2_pos,fr_joint2_vel,fr_joint2_torque,fr_joint3_pos,fr_joint3_vel,fr_joint3_torque,hl_joint1_pos,hl_joint1_vel,hl_joint1_torque,hl_joint2_pos,hl_joint2_vel,hl_joint2_torque,hl_joint3_pos,hl_joint3_vel,hl_joint3_torque,hr_joint1_pos,hr_joint1_vel,hr_joint1_torque,hr_joint2_pos,hr_joint2_vel,hr_joint2_torque,hr_joint3_pos,hr_joint3_vel,hr_joint3_torque,fl_force_x,fl_force_y,fl_force_z,fr_force_x,fr_force_y,fr_force_z,hl_force_x,hl_force_y,hl_force_z,hr_force_x,hr_force_y,hr_force_z,fl_hip_action,fl_thigh_action,fl_calf_action,fr_hip_action,fr_thigh_action,fr_calf_action,hl_hip_action,hl_thigh_action,hl_calf_action,hr_hip_action,hr_thigh_action,hr_calf_action
2025-06-06 16:16:44.413,0.039778154,-0.016153358,-0.0009005061,0.033745345,-0.015438532,0.037759695,-1.1289517,-1.4536855,0.0,0.0,-0.0033077511,0.0010515203,-0.008033091,-0.0014953451,-0.006498784,0.0012716637,0.0060949232,0.0016463866,0.00068926107,-0.00811487,-0.009638145,0.00058911886,0.006762912,-0.052481655,0.07300151,0.061729312,-0.019809332,0.0421603,0.031286236,0.023128089,0.009561751,-0.061699625,0.021512873,0.07191293,0.0,0.0,0.0,0.0,0.0,0.0,0.0,0.0,0.0,0.0,0.0,0.0,-3.0,1.0027645,-3.0,-3.0,1.9564639,-1.7238566,-3.0,-0.9394421,-2.2701447,-0.89056426,-2.3856833,-0.70259726
2025-06-06 16:16:44.417,-0.16992667,-0.17788343,0.0005411911,-0.06114336,-0.039334103,-0.02518457,0.0,0.0,0.0,0.0,-0.027092274,0.042276237,-0.080390215,-0.014691077,0.071723334,-0.047578514,-0.02198393,-0.038508877,-0.04938775,-0.0035513511,-0.09002282,-0.011402461,-0.06166961,0.16261798,-0.2137523,-0.033954278,0.29308045,-0.088573046,-0.058596153,-0.112802885,-0.23177122,-0.08719513,-0.3189589,-0.08807722,-3.0,1.0027645,-3.0,-3.0,1.9564639,-1.7238566,-3.0,-0.9394421,-2.2701447,-0.89056426,-2.3856833,-0.70259726,-3.0,1.9487127,-3.0,-3.0,2.6367989,-1.4554306,-3.0,-2.1732419,-3.0,-2.12339,0.079906374,-3.0
2025-06-06 16:16:44.437,-0.11788431,-0.09274192,-0.08869018,-0.06497871,-0.05160068,-0.023209425,0.0,0.0,0.0,-1.9920519e-05,-0.06555644,0.07613541,-0.14001308,-0.043543562,0.17217888,-0.077000424,-0.06539091,-0.10034111,-0.09860195,-0.02552463,-0.108165555,-0.100268595,-0.085565835,-0.023356112,-0.13251792,-0.043757603,0.101976514,-0.11172613,-0.11007313,-0.2352737,0.019669687,0.017408406,-0.03874182,-0.28811917,-3.0,1.9487127,-3.0,-3.0,2.6367989,-1.4554306,-3.0,-2.1732419,-3.0,-2.12339,0.079906374,-3.0,-3.0,1.9961286,-3.0,-3.0,1.9408696,-3.0,-3.0,-2.0915418,-3.0,-3.0,-1.4245064,-3.0
2025-06-06 16:16:44.459,-0.14917192,-0.15273036,-0.08060385,-0.03818734,0.0055478388,0.037757885,0.0,0.0,0.0,0.00093584263,-0.08900641,0.06947773,-0.14126517,-0.07635794,0.18557546,-0.09420648,-0.077571094,-0.15938994,-0.0893863,-0.042631447,-0.12459059,-0.11849784,-0.011990761,-0.0040713227,-0.060258377,-0.11237875,-0.030113434,-0.027570497,-0.03875796,-0.18742815,0.12234984,-0.007827487,-0.032996915,0.042017143,-3.0,1.9961286,-3.0,-3.0,1.9408696,-3.0,-3.0,-2.0915418,-3.0,-3.0,-1.4245064,-3.0,-0.12045428,2.4393818,-3.0,-3.0,3.0,-3.0,-3.0,-2.928591,-3.0,-3.0,-1.0889071,-3.0
2025-06-06 16:16:44.478,-0.09672062,-0.15323126,-0.11147226,-0.010659553,-0.027137814,0.03265496,0.0,0.0,0.0,0.0022188055,-0.099534534,0.08650155,-0.16676822,-0.089210905,0.20618945,-0.121485494,-0.10202831,-0.21767873,-0.0939817,-0.05276073,-0.14338057,-0.107376315,-0.09502281,0.0855516,-0.04998021,-0.09079695,-0.0014824606,-0.088191286,0.044530172,-0.13015224,-0.12118588,-0.042772308,-0.08842299,0.093894936,-0.12045428,2.4393818,-3.0,-3.0,3.0,-3.0,-3.0,-2.928591,-3.0,-3.0,-1.0889071,-3.0,3.0,2.1910148,-3.0,-3.0,3.0,-3.0,-3.0,-2.6069365,-3.0,-3.0,-1.6834224,-3.0
2025-06-06 16:16:44.497,0.08016398,-0.12467035,0.027086098,-0.0043117325,-0.0730568,0.0029065104,0.0,0.0,0.0,0.0036925199,-0.09938165,0.115542054,-0.195236,-0.1036308,0.24122684,-0.17071691,-0.095795244,-0.30647072,-0.15183498,-0.057390947,-0.14722691,-0.08315486,0.009935282,0.117286585,-0.05766383,0.012807121,0.01897622,-0.056663252,0.06421601,-0.18375105,-0.13564229,-0.035844583,-0.0025183603,0.031757418,3.0,2.1910148,-3.0,-3.0,3.0,-3.0,-3.0,-2.6069365,-3.0,-3.0,-1.6834224,-3.0,3.0,0.17723152,-3.0,-2.2808425,3.0,-2.171906,-3.0,-2.5301642,-3.0,-3.0,0.0085137375,-3.0
2025-06-06 16:16:44.518,-0.07140468,-0.03815998,-0.04162784,-0.07314911,-0.06289677,-0.025582671,0.0,0.0,0.0,0.0039544394,-0.092549756,0.11361357,-0.19593813,-0.087213956,0.28004518,-0.17663643,-0.09591382,-0.35599786,-0.21318042,-0.046296805,-0.12818776,-0.085917026,0.09503755,0.08423995,-0.063101985,0.07406834,0.07411684,-0.034753162,-0.032956816,-0.2094856,-0.07936045,0.018990789,0.035429765,-0.07004882,3.0,0.17723152,-3.0,-2.2808425,3.0,-2.171906,-3.0,-2.5301642,-3.0,-3.0,0.0085137375,-3.0,3.0,0.08730492,-3.0,2.0897882,3.0,-1.3571143,-3.0,-1.8933903,-3.0,-3.0,0.9658249,-3.0
2025-06-06 16:16:44.538,-0.01791127,0.21551277,0.0065506687,-0.070397675,-0.07255302,0.01881257,0.0,0.0,0.0,0.004107476,-0.08907462,0.1317147,-0.18287064,-0.057973042,0.361866,-0.18757217,-0.09641837,-0.37419385,-0.25665504,-0.04014767,-0.07539561,-0.12464506,0.1115438,0.09030626,0.075491354,0.051732387,0.13870819,0.000748351,0.039015684,0.006458267,-0.11989919,-0.048049495,0.120846786,-0.040385913,3.0,0.08730492,-3.0,2.0897882,3.0,-1.3571143,-3.0,-1.8933903,-3.0,-3.0,0.9658249,-3.0,3.0,-0.6693944,-3.0,3.0,3.0,-2.0696363,-3.0,-1.0398412,-3.0,-3.0,1.6057914,-3.0
2025-06-06 16:16:44.559,-0.028873475,0.35522527,-0.030392384,-0.03554817,0.004896409,-0.043506145,0.0,0.0,0.0,0.004579072,-0.051994205,0.1176402,-0.15530823,-0.009789925,0.44435695,-0.18200798,-0.10752308,-0.35172567,-0.28088677,-0.031248145,-0.026688397,-0.14223088,0.07024849,0.037818626,0.06624353,0.10162358,0.21237962,0.05189576,0.0025402782,0.14671142,-0.0629369,-0.036947105,0.23840304,-0.042075872,3.0,-0.6693944,-3.0,3.0,3.0,-2.0696363,-3.0,-1.0398412,-3.0,-3.0,1.6057914,-3.0,3.0,-0.42177776,-3.0,3.0,3.0,-3.0,-3.0,-1.5471116,-3.0,-3.0,1.1145376,-3.0
2025-06-06 16:16:44.578,-0.02889901,0.20307085,-0.10833601,-0.045144472,0.047672365,0.012034081,0.0,0.0,0.0,0.005652762,-0.05156234,0.10690021,-0.13741003,0.04841422,0.50657433,-0.21289264,-0.09733601,-0.3143159,-0.3054485,-0.03489678,0.035378203,-0.17337163,0.09363927,0.033478383,0.10698454,0.036356553,0.044906378,-0.041793846,0.010730384,0.04944343,-0.0955981,0.051236693,0.07815826,-0.05059369,3.0,-0.42177776,-3.0,3.0,3.0,-3.0,-3.0,-1.5471116,-3.0,-3.0,1.1145376,-3.0,3.0,0.31126398,-3.0,3.0,3.0,-3.0,-3.0,-1.6157931,-3.0,-3.0,0.27747577,-3.0
2025-06-06 16:16:44.598,0.083156325,0.06183372,-0.026815357,0.012311696,0.0487887,-0.032288037,0.0,0.0,0.0,0.0074355477,-0.049048234,0.11980109,-0.108139314,0.07418858,0.52956635,-0.24882719,-0.11537641,-0.31820226,-0.30382925,-0.002671657,0.06445913,-0.16799347,0.06580803,0.073142715,0.018526297,0.114882454,0.09180664,-0.072312616,0.012802022,0.008277813,-0.016713865,-0.017424503,0.086538926,0.032409158,3.0,0.31126398,-3.0,3.0,3.0,-3.0,-3.0,-1.6157931,-3.0,-3.0,0.27747577,-3.0,3.0,-0.32323578,-3.0,3.0,3.0,-3.0,-3.0,-1.4433652,-3.0,-3.0,0.95987576,-3.0
2025-06-06 16:16:44.618,-0.036800846,0.04264232,-0.11920149,-0.04539763,-0.0005342666,-0.00023252018,0.0,0.0,0.0,0.009129733,-0.03454856,0.12036511,-0.093322866,0.09140491,0.55007213,-0.27547696,-0.120323434,-0.2938908,-0.31016076,0.0045567844,0.06677902,-0.16304874,-0.010717158,-0.07613056,-0.018677427,0.018660499,-0.018139241,-0.017676074,-0.037533443,-0.015765842,0.036114752,0.08779849,-0.040636543,0.07853136,3.0,-0.32323578,-3.0,3.0,3.0,-3.0,-3.0,-1.4433652,-3.0,-3.0,0.95987576,-3.0,3.0,0.64589083,-3.0,3.0,3.0,-3.0,-3.0,-1.7171669,-3.0,-3.0,0.17216627,-3.0
2025-06-06 16:16:44.638,0.06918979,-0.015380696,-0.13051118,-0.063014716,-0.01564787,0.009201803,0.0,0.0,0.0,0.011100612,-0.03126259,0.112640835,-0.08593234,0.089167655,0.5708695,-0.29490313,-0.11776948,-0.29350275,-0.313847,0.023518162,0.07023401,-0.14543849,0.06896498,-0.050632734,0.0013783558,0.08493921,-0.007374991,-0.08134314,0.0543882,0.030358898,0.019034619,0.022929316,0.022529086,0.05207723,3.0,0.64589083,-3.0,3.0,3.0,-3.0,-3.0,-1.7171669,-3.0,-3.0,0.17216627,-3.0,3.0,0.34542125,-3.0,3.0,3.0,-3.0,-3.0,-1.3767029,-3.0,-3.0,0.31189722,-3.0
2025-06-06 16:16:44.659,0.050639644,-0.1241863,-0.027366305,-0.04644496,-0.020572126,0.0426439,0.0,0.0,0.0,0.0129678035,-0.03784337,0.10939168,-0.08312652,0.09923017,0.5754806,-0.30655104,-0.114192806,-0.30062097,-0.31305745,0.019990833,0.072342925,-0.11927928,0.037513196,-0.041115064,0.081938684,-0.009242363,0.08662782,-0.038390804,-0.070034936,0.06354594,-0.057507895,0.08209591,-0.06323638,-0.012559532,3.0,0.34542125,-3.0,3.0,3.0,-3.0,-3.0,-1.3767029,-3.0,-3.0,0.31189722,-3.0,3.0,-0.107880875,-3.0,3.0,3.0,-3.0,-3.0,-1.577114,-3.0,-3.0,0.8747654,-3.0
2025-06-06 16:16:44.679,-0.10293523,-0.1253158,-0.10074597,-0.06827913,0.023036288,-0.0490137,0.0,0.0,0.0,0.014477736,-0.040171895,0.11130341,-0.06663603,0.0989612,0.5673158,-0.31461552,-0.10819786,-0.29189396,-0.31974682,0.029642088,0.07894724,-0.098815545,-0.034686487,0.01727146,0.05219689,0.031239292,-0.033839572,-0.0022109947,-0.02636904,0.0037038852,-0.029602114,0.014086155,-0.060916256,0.08205481,3.0,-0.107880875,-3.0,3.0,3.0,-3.0,-3.0,-1.577114,-3.0,-3.0,0.8747654,-3.0,3.0,0.521542,-3.0,3.0,3.0,-3.0,-3.0,-1.6314282,-3.0,-3.0,0.28672665,-3.0
2025-06-06 16:16:44.698,-0.030525954,-0.018231137,-0.0149019165,0.009804109,-0.049324606,-0.025888678,0.0,0.0,0.0,0.016346276,-0.026486756,0.114871494,-0.049490854,0.094189204,0.5733588,-0.31371474,-0.09771765,-0.29979044,-0.31142282,0.047844812,0.069379665,-0.0792809,0.023200557,-0.055613033,0.03028703,0.012754521,0.088588536,-0.07676184,0.05953449,-0.016372042,-0.021748146,0.079530396,0.029351534,0.107274145,3.0,0.521542,-3.0,3.0,3.0,-3.0,-3.0,-1.6314282,-3.0,-3.0,0.28672665,-3.0,3.0,-0.29049554,-3.0,3.0,3.0,-3.0,-3.0,-1.3860419,-3.0,-3.0,1.1944443,-3.0
2025-06-06 16:16:44.719,-0.025333418,0.08233691,-0.037286855,-0.083924584,0.013183508,-0.013523259,0.0,0.0,0.0,0.017892636,-0.028215751,0.10569544,-0.047963202,0.098807245,0.5863775,-0.3024197,-0.110063285,-0.29747564,-0.27953884,0.034423217,0.080909654,-0.082693614,0.011398366,0.020053642,0.098194815,0.01740871,0.060360175,0.0525537,-0.05377836,-0.07856691,0.00838037,0.06828234,0.026110334,0.034952283,3.0,-0.29049554,-3.0,3.0,3.0,-3.0,-3.0,-1.3860419,-3.0,-3.0,1.1944443,-3.0,3.0,0.088361114,-3.0,3.0,3.0,-3.0,-3.0,-1.6092814,-3.0,-3.0,0.98199457,-3.0
2025-06-06 16:16:44.739,-0.07337671,0.06650317,-0.057921953,-0.08190783,-0.057475396,0.041770414,0.0,0.0,0.0,0.019088553,-0.04072312,0.12238688,-0.022843907,0.10640776,0.59027785,-0.31349415,-0.10162447,-0.30522633,-0.27963015,0.045227356,0.110478744,-0.096751116,0.06567295,0.0665117,-0.013345252,0.058928754,0.02638738,0.042607248,0.066249214,0.0035024977,0.089328155,0.07770976,-0.011221854,0.02124384,3.0,0.088361114,-3.0,3.0,3.0,-3.0,-3.0,-1.6092814,-3.0,-3.0,0.98199457,-3.0,3.0,0.028727682,-3.0,3.0,3.0,-3.0,-3.0,-1.4425439,-3.0,-3.0,1.0158864,-3.0
2025-06-06 16:16:44.759,-0.079084955,0.013200853,-0.019536301,-0.032725878,0.03648417,0.0052947756,0.0,0.0,0.0,0.020123133,-0.031693693,0.12978533,-0.03028779,0.10214189,0.59991956,-0.30717015,-0.095043875,-0.31638542,-0.2661849,0.054191872,0.13597879,-0.0998186,-0.025278497,-0.024795895,-0.030945174,-0.0004976903,0.039694075,0.07715643,-0.056739986,-0.06760727,0.024770347,-0.056429952,-0.032335754,-0.084790476,3.0,0.028727682,-3.0,3.0,3.0,-3.0,-3.0,-1.4425439,-3.0,-3.0,1.0158864,-3.0,3.0,-0.17745163,-3.0,3.0,3.0,-3.0,-3.0,-1.4596179,-3.0,-3.0,1.3769152,-3.0
2025-06-06 16:16:44.779,-0.07516588,-0.006147037,-0.03309826,-0.04046374,0.009559091,0.04980338,0.0,0.0,0.0,0.02082119,-0.044015203,0.11739577,-0.026677577,0.10177715,0.596297,-0.30144563,-0.09174468,-0.30447975,-0.26054487,0.049765106,0.1371092,-0.10591582,-0.07970891,0.015568215,0.0029193899,0.06923595,-0.0057522166,-0.018295348,0.05354668,-0.013654523,-0.06508931,-0.013153181,0.0014435073,-0.051262256,3.0,-0.17745163,-3.0,3.0,3.0,-3.0,-3.0,-1.4596179,-3.0,-3.0,1.3769152,-3.0,3.0,-0.10526949,-3.0,3.0,3.0,-3.0,-3.0,-1.3677127,-3.0,-3.0,1.313619,-3.0
2025-06-06 16:16:44.798,-0.020172082,0.0206491,-0.021369131,-0.074486494,0.030742107,-0.0113299815,0.0,0.0,0.0,0.021553906,-0.050681356,0.12842505,-0.011676781,0.09946403,0.6040349,-0.30793375,-0.09939607,-0.29091126,-0.25185984,0.057926994,0.16373506,-0.13059103,-0.0014566247,-0.03307197,-0.06445007,0.07592666,-0.06205651,-0.06986848,0.0570224,0.038649295,-0.007053022,0.04302467,0.023918586,-0.04484322,3.0,-0.10526949,-3.0,3.0,3.0,-3.0,-3.0,-1.3677127,-3.0,-3.0,1.313619,-3.0,3.0,-0.21707906,-3.0,3.0,3.0,-3.0,-3.0,-1.4027961,-3.0,-3.0,1.4341425,-3.0
2025-06-06 16:16:44.819,-0.05585209,0.06785996,-0.08479935,-0.012229956,-0.026049336,0.011514649,0.0,0.0,0.0,0.022313038,-0.040673047,0.14016116,-0.019692527,0.095467165,0.5895179,-0.30289528,-0.08865059,-0.2910031,-0.2672691,0.063157246,0.17256385,-0.14020373,0.017041044,-0.034603767,-0.040418155,-0.025513409,-0.06861558,-0.06621475,0.03279105,0.07761989,-0.002084246,-0.036256324,0.05923021,-0.012357965,3.0,-0.21707906,-3.0,3.0,3.0,-3.0,-3.0,-1.4027961,-3.0,-3.0,1.4341425,-3.0,3.0,0.1785163,-3.0,3.0,3.0,-3.0,-3.0,-1.4181504,-3.0,-3.0,1.001537,-3.0
2025-06-06 16:16:44.841,0.015255056,-0.016358405,-0.05784462,-0.017088415,0.013147906,-0.025143376,0.0,0.0,0.0,0.023141867,-0.042020626,0.12677386,-0.02146021,0.09771544,0.59747326,-0.31696132,-0.09135248,-0.29697087,-0.27244753,0.05564818,0.1651556,-0.13385716,-0.071961336,0.0667418,-0.032246348,-0.018686576,0.028368052,-0.059089538,-0.07108414,-0.036691528,-0.018647369,0.03015185,0.022151707,-0.029085763,3.0,0.1785163,-3.0,3.0,3.0,-3.0,-3.0,-1.4181504,-3.0,-3.0,1.001537,-3.0,3.0,0.014186682,-3.0,3.0,3.0,-3.0,-3.0,-1.3342328,-3.0,-3.0,1.1559788,-3.0
2025-06-06 16:16:44.859,-0.007006217,-0.0059688305,-0.0030142479,-0.09143866,0.035909694,0.0013526886,0.0,0.0,0.0,0.023612216,-0.048422907,0.12478148,-0.027202746,0.096048124,0.5989911,-0.3221182,-0.09587264,-0.28935453,-0.2654005,0.05528148,0.1819987,-0.14383928,-0.035050984,-0.057334814,-0.046980232,-0.022785332,0.060631618,0.020762628,0.03712836,0.05157694,0.014674109,-0.018047208,-0.05455184,0.011151911,3.0,0.014186682,-3.0,3.0,3.0,-3.0,-3.0,-1.3342328,-3.0,-3.0,1.1559788,-3.0,3.0,-0.29173967,-3.0,3.0,3.0,-3.0,-3.0,-1.434784,-3.0,-3.0,1.556727,-3.0
2025-06-06 16:16:44.879,0.006660957,0.011521777,-0.031339746,-0.0689601,0.041265026,0.016129013,0.0,0.0,0.0,0.02369305,-0.055672444,0.12770224,-0.018550174,0.10165738,0.59316164,-0.32189077,-0.09281372,-0.2920013,-0.27706227,0.053848747,0.17543134,-0.14073709,0.011478217,0.06332954,0.04512661,0.015442459,0.06655102,0.0658071,0.06434753,0.0573943,0.03018191,0.013230705,0.029200584,-0.0309502,3.0,-0.29173967,-3.0,3.0,3.0,-3.0,-3.0,-1.434784,-3.0,-3.0,1.556727,-3.0,3.0,-0.09824759,-3.0,3.0,3.0,-3.0,-3.0,-1.4755626,-3.0,-3.0,1.3948084,-3.0
2025-06-06 16:16:44.899,-0.020605085,0.019516066,-0.057570335,-0.09217273,-0.018431814,-0.0450507,0.0,0.0,0.0,0.024047973,-0.054474942,0.13500412,-0.036354024,0.10859936,0.57885224,-0.3090901,-0.09437951,-0.29305202,-0.26957583,0.062110815,0.17412455,-0.1587072,-0.027962467,-0.08098025,-0.03229331,-0.068916366,0.008934274,0.07294839,0.020225063,0.027144188,0.0068957186,0.014298756,-0.00021130547,-0.0053416337,3.0,-0.09824759,-3.0,3.0,3.0,-3.0,-3.0,-1.4755626,-3.0,-3.0,1.3948084,-3.0,3.0,0.073130816,-3.0,3.0,3.0,-3.0,-3.0,-1.4022769,-3.0,-3.0,1.1002758,-3.0
2025-06-06 16:16:44.919,0.036801167,0.038868234,-0.038999744,-0.043033473,0.03787295,0.0009772708,0.0,0.0,0.0,0.024664082,-0.05691425,0.123031,-0.034243774,0.1071418,0.5832609,-0.31650588,-0.09098734,-0.29426768,-0.2707193,0.06688961,0.17087588,-0.14687572,-0.074593544,-0.011742219,-0.0026424304,-0.0004781862,0.054290857,-0.06495616,0.03380124,0.0049569644,-0.0067931474,0.031154154,-0.07669189,0.00048336553,3.0,0.073130816,-3.0,3.0,3.0,-3.0,-3.0,-1.4022769,-3.0,-3.0,1.1002758,-3.0,3.0,-0.092300564,-3.0,3.0,3.0,-3.0,-3.0,-1.3690976,-3.0,-3.0,1.3443122,-3.0
2025-06-06 16:16:44.942,-0.044213116,-0.033880398,-0.047595065,-0.037995413,0.037243124,-0.026349599,0.0,0.0,0.0,0.025036387,-0.057277676,0.13252555,-0.023491008,0.09631381,0.59104735,-0.32118687,-0.08266117,-0.289017,-0.27858663,0.0612456,0.18679504,-0.16246569,-0.010111563,-0.0042137313,0.06564916,0.039748114,-0.07507282,-0.0030429075,-0.047408342,-0.018104337,0.045766845,0.063046984,-0.04548024,0.0063945013,3.0,-0.092300564,-3.0,3.0,3.0,-3.0,-3.0,-1.3690976,-3.0,-3.0,1.3443122,-3.0,3.0,0.031006219,-3.0,3.0,3.0,-3.0,-3.0,-1.49356,-3.0,-3.0,1.1561306,-3.0
2025-06-06 16:16:44.959,0.018301921,0.038175162,-0.044815432,-0.07486844,0.04692225,0.029020824,0.0,0.0,0.0,0.025292633,-0.061296947,0.12304571,-0.03826732,0.102595896,0.5747719,-0.32104033,-0.09471933,-0.30004305,-0.28201354,0.062462106,0.18227233,-0.16003585,-0.075219214,-0.018448576,0.05942168,0.019155553,-0.059330538,0.026253892,0.042551327,-0.00883977,0.051269587,-0.05928986,0.0070028673,0.058897108,3.0,0.031006219,-3.0,3.0,3.0,-3.0,-3.0,-1.49356,-3.0,-3.0,1.1561306,-3.0,3.0,-0.073102206,-3.0,3.0,3.0,-3.0,-3.0,-1.3604789,-3.0,-3.0,1.2287639,-3.0
2025-06-06 16:16:44.979,-0.012297611,0.024134567,0.01877253,-0.01827514,0.024430213,0.03374428,0.0,0.0,0.0,0.0255025,-0.059425816,0.12334127,-0.025293339,0.09995886,0.5837282,-0.31461963,-0.088608496,-0.29295337,-0.29718938,0.05524065,0.1630964,-0.1542419,-0.047668107,0.037889976,-0.053797428,-0.030937735,0.007892048,0.061327312,0.0119408285,0.007005341,-0.007415833,0.06810123,0.031951036,-0.07216131,3.0,-0.073102206,-3.0,3.0,3.0,-3.0,-3.0,-1.3604789,-3.0,-3.0,1.2287639,-3.0,3.0,-0.43960837,-3.0,3.0,3.0,-3.0,-3.0,-1.3617562,-3.0,-3.0,1.6715088,-3.0
2025-06-06 16:16:44.999,-0.06846763,-0.0043168124,-0.0396509,-0.04897204,0.03413016,0.01604717,0.0,0.0,0.0,0.02563427,-0.05645568,0.1198014,-0.035729207,0.10578136,0.57919353,-0.3049608,-0.089702085,-0.3033511,-0.28830093,0.05971722,0.1775209,-0.1509156,0.0486816,0.026607566,-0.02072997,-0.05043245,-0.022462923,0.0023958816,-0.010260348,0.06122996,0.04512452,-0.0083596995,-0.026301244,-0.045771737,3.0,-0.43960837,-3.0,3.0,3.0,-3.0,-3.0,-1.3617562,-3.0,-3.0,1.6715088,-3.0,3.0,0.011220874,-3.0,3.0,3.0,-3.0,-3.0,-1.5110832,-3.0,-3.0,1.272524,-3.0
2025-06-06 16:16:45.019,-0.018341841,-0.015951678,0.011236482,-0.07672989,0.03104442,-0.008120829,0.0,0.0,0.0,0.026129978,-0.047328416,0.10334927,-0.031529527,0.09931231,0.5801589,-0.30100578,-0.079318166,-0.29029274,-0.2967256,0.054879226,0.17560215,-0.17128716,-0.06867702,-0.065134406,-0.048856385,-0.059733335,-0.03766082,-0.060932986,-0.042948112,-0.045552973,-0.05585558,-0.069152504,-0.015738305,0.058062296,3.0,0.011220874,-3.0,3.0,3.0,-3.0,-3.0,-1.5110832,-3.0,-3.0,1.272524,-3.0,3.0,-0.3389418,-3.0,3.0,3.0,-3.0,-3.0,-1.2426416,-3.0,-3.0,1.5874814,-3.0
2025-06-06 16:16:45.043,-0.059730023,0.06094089,-0.05533301,-0.041083045,-0.027612254,-0.0011250874,0.0,0.0,0.0,0.026734699,-0.04919981,0.1072154,-0.023748804,0.09613031,0.58275723,-0.30052385,-0.09261228,-0.29533294,-0.30701098,0.06974611,0.17703205,-0.17275938,-0.024834448,-0.045492172,0.016718497,-0.026130665,0.026870415,0.006661585,-0.033187922,-0.051555574,0.027202386,-0.050863195,-0.01696716,0.04218249,3.0,-0.3389418,-3.0,3.0,3.0,-3.0,-3.0,-1.2426416,-3.0,-3.0,1.5874814,-3.0,3.0,0.04912806,-3.0,3.0,3.0,-3.0,-3.0,-1.4720616,-3.0,-3.0,1.2656454,-3.0
2025-06-06 16:16:45.060,-0.0065159095,-0.01549126,-0.03756257,-0.06883163,-0.02244788,-0.021176072,0.0,0.0,0.0,0.02735465,-0.055502605,0.104947366,-0.028909782,0.09543787,0.5805083,-0.30989003,-0.08463839,-0.30454385,-0.30782038,0.054423667,0.18339169,-0.16479565,-0.04709703,-0.039141066,-0.037335053,-0.055765893,0.013606612,-0.0056375684,-0.07257427,0.015320707,0.067316696,-0.01898041,-0.0565379,-0.05044186,3.0,0.04912806,-3.0,3.0,3.0,-3.0,-3.0,-1.4720616,-3.0,-3.0,1.2656454,-3.0,3.0,-0.08553454,-3.0,3.0,3.0,-3.0,-3.0,-1.3244784,-3.0,-3.0,1.2975538,-3.0
2025-06-06 16:16:45.079,0.038719926,0.017754868,-0.012224575,-0.06018751,0.019846322,-0.047382496,0.0,0.0,0.0,0.027828293,-0.05794159,0.09666054,-0.02066955,0.10771085,0.57554686,-0.29690292,-0.083029635,-0.30034018,-0.2987523,0.064499535,0.16874118,-0.16646588,0.051208857,0.05383153,0.07005272,-0.030511186,0.04223819,0.00083704176,0.070227996,-0.0085593145,0.048604187,0.061680794,0.022010406,0.038737293,3.0,-0.08553454,-3.0,3.0,3.0,-3.0,-3.0,-1.3244784,-3.0,-3.0,1.2975538,-3.0,3.0,-0.34401163,-3.0,3.0,3.0,-3.0,-3.0,-1.4574193,-3.0,-3.0,1.525132,-3.0
2025-06-06 16:16:45.099,0.01754751,-0.017192228,-0.06180529,-0.0683947,-0.019886008,0.034840815,0.0,0.0,0.0,0.02805609,-0.06524535,0.09803449,-0.024370465,0.09933797,0.57094115,-0.30355,-0.09503324,-0.2948525,-0.31810626,0.056033615,0.17042957,-0.16846977,0.006418442,-0.038639303,-0.06041493,0.06944815,-0.052305125,0.020970048,0.04117451,-0.046530332,-0.024213072,0.0018930994,-0.06292514,0.045069892,3.0,-0.34401163,-3.0,3.0,3.0,-3.0,-3.0,-1.4574193,-3.0,-3.0,1.525132,-3.0,3.0,0.17802098,-3.0,3.0,3.0,-3.0,-3.0,-1.429354,-3.0,-3.0,1.0235261,-3.0
2025-06-06 16:16:45.119,-0.02128768,-0.0010167974,0.02381323,-0.011851577,0.03137995,-0.043624084,0.0,0.0,0.0,0.028429793,-0.055741444,0.08778261,-0.030396014,0.09331474,0.57861096,-0.3042478,-0.08611973,-0.3018858,-0.3198852,0.06957599,0.18087098,-0.17199512,-0.024393978,-0.0021646812,-0.02750887,0.017208891,-0.034226444,-0.06770551,-0.034515817,-0.07949869,-0.0400099,-0.006366762,0.05145494,-0.00066366163,3.0,0.17802098,-3.0,3.0,3.0,-3.0,-3.0,-1.429354,-3.0,-3.0,1.0235261,-3.0,3.0,-0.6131199,-3.0,3.0,3.0,-3.0,-3.0,-1.2456843,-3.0,-3.0,1.8145796,-3.0
2025-06-06 16:16:45.143,-0.0047898707,0.055967584,-0.0048240735,-0.06341651,0.023412654,-0.02426788,0.0,0.0,0.0,0.028517885,-0.06268438,0.09138809,-0.029759405,0.09247673,0.56453806,-0.3049102,-0.08785983,-0.30901545,-0.30436522,0.06032799,0.17874964,-0.18009323,-0.022114959,-0.045361362,-0.041720904,0.043923907,0.07286537,0.0023403333,-0.047894582,0.024380155,0.01286058,0.0050987964,0.011996056,-0.020399185,3.0,-0.6131199,-3.0,3.0,3.0,-3.0,-3.0,-1.2456843,-3.0,-3.0,1.8145796,-3.0,3.0,-0.23577335,-3.0,3.0,3.0,-3.0,-3.0,-1.4928933,-3.0,-3.0,1.625484,-3.0
2025-06-06 16:16:45.160,-0.037870117,-0.008092373,-0.009270213,-0.1032567,0.007493134,0.028318536,0.0,0.0,0.0,0.028792143,-0.06610855,0.08573625,-0.015475825,0.108976506,0.5833364,-0.31119752,-0.07855433,-0.2952413,-0.3193504,0.06156609,0.18076342,-0.18156233,0.019512165,-0.0639337,0.058046274,0.025151892,0.008981091,-0.057986442,-0.066314586,-0.0020120777,0.014844993,0.055242665,0.014224829,0.043850686,3.0,-0.23577335,-3.0,3.0,3.0,-3.0,-3.0,-1.4928933,-3.0,-3.0,1.625484,-3.0,3.0,-0.25796,-3.0,3.0,3.0,-3.0,-3.0,-1.3738898,-3.0,-3.0,1.565088,-3.0
2025-06-06 16:16:45.180,0.0135617675,0.007935892,-0.044704374,-0.074105754,0.06575901,-0.01733824,0.0,0.0,0.0,0.029411126,-0.060640313,0.087646715,-0.020238247,0.09743263,0.57567245,-0.29916883,-0.075960815,-0.3085147,-0.31231797,0.058317754,0.18411931,-0.18101312,-0.02443537,0.054154087,0.039682917,-0.0048025483,0.0070784,0.047358915,0.03073319,0.010108384,0.029716672,0.033840366,-0.033135824,-0.0794073,3.0,-0.25796,-3.0,3.0,3.0,-3.0,-3.0,-1.3738898,-3.0,-3.0,1.565088,-3.0,3.0,-0.098429084,-3.0,3.0,3.0,-3.0,-3.0,-1.4228216,-3.0,-3.0,1.3013617,-3.0
2025-06-06 16:16:45.200,0.015472464,0.032083098,-0.057126913,-0.10090458,0.009170555,-0.0067759347,0.0,0.0,0.0,0.03006486,-0.056199398,0.077173114,-0.016735712,0.09692322,0.5801917,-0.3079395,-0.08658841,-0.30667117,-0.31630346,0.06979632,0.18955731,-0.18458033,-0.0400161,-0.033029176,-0.034062378,0.0701297,-0.04826248,-0.00038354142,0.04505974,-0.016568452,-0.007053539,-0.04250458,0.05381722,0.07359987,3.0,-0.098429084,-3.0,3.0,3.0,-3.0,-3.0,-1.4228216,-3.0,-3.0,1.3013617,-3.0,3.0,-0.11520043,-3.0,3.0,3.0,-3.0,-3.0,-1.3308525,-3.0,-3.0,1.2404238,-3.0
2025-06-06 16:16:45.220,0.035722766,-0.0053703524,0.040433243,-0.017442886,-0.0075791697,-0.02733777,0.0,0.0,0.0,0.030445365,-0.062967286,0.0810921,-0.018650511,0.107348315,0.5738675,-0.30641457,-0.08288632,-0.30616006,-0.3153503,0.07338182,0.180943,-0.19021784,0.0013535337,0.009666991,0.033197,-0.003296504,0.042868815,-0.055173118,0.04875256,0.020585276,-0.025061091,-0.041297704,0.04885701,0.023842143,3.0,-0.11520043,-3.0,3.0,3.0,-3.0,-3.0,-1.3308525,-3.0,-3.0,1.2404238,-3.0,3.0,-0.6968515,-3.0,3.0,3.0,-2.876313,-3.0,-1.3572935,-3.0,-3.0,1.9628567,-3.0
2025-06-06 16:16:45.243,-0.045508966,0.006730201,0.009912135,-0.07560671,2.7481312e-05,0.020379856,0.0,0.0,0.0,0.030429417,-0.062461916,0.07157477,-0.017229676,0.10624899,0.5843584,-0.31103754,-0.075472966,-0.29629678,-0.32613492,0.07195623,0.19141021,-0.18708885,-0.03129509,-0.037964467,-0.020516962,-0.06577228,0.030976536,-0.034332898,-0.0025139966,0.02676534,-0.013499482,0.033529736,-0.044052735,-0.026138905,3.0,-0.6968515,-3.0,3.0,3.0,-2.876313,-3.0,-1.3572935,-3.0,-3.0,1.9628567,-3.0,3.0,-0.31988373,-3.0,3.0,3.0,-3.0,-3.0,-1.3932256,-3.0,-3.0,1.7726282,-3.0
2025-06-06 16:16:45.260,-0.028059313,0.04000305,-0.034659795,-0.046435215,0.0053045503,0.036426708,0.0,0.0,0.0,0.030807404,-0.066047095,0.07221246,-0.0028103401,0.091334365,0.5880026,-0.30222645,-0.08906968,-0.30304128,-0.32172433,0.074760325,0.19331157,-0.18714722,-0.05592626,-0.031052899,0.027577179,0.037189256,0.082203805,-0.043697584,0.051074293,-0.04217068,0.003975811,0.05564289,-0.021812331,0.022246175,3.0,-0.31988373,-3.0,3.0,3.0,-3.0,-3.0,-1.3932256,-3.0,-3.0,1.7726282,-3.0,3.0,-0.21572411,-3.0,3.0,3.0,-3.0,-3.0,-1.3407592,-3.0,-3.0,1.6294138,-3.0
2025-06-06 16:16:45.281,0.025224784,0.054974325,-0.015146849,-0.09146798,0.037924822,-0.043518547,0.0,0.0,0.0,0.03152863,-0.065499626,0.07405227,0.0013631372,0.09210437,0.593795,-0.30177426,-0.08980552,-0.31121922,-0.3259069,0.07197351,0.20489186,-0.19282721,0.017561004,0.0039738663,0.044725846,0.013101921,0.038405303,-0.057377465,-0.035822157,0.05488032,-0.047483977,-0.052111264,0.030194072,0.032117605,3.0,-0.21572411,-3.0,3.0,3.0,-3.0,-3.0,-1.3407592,-3.0,-3.0,1.6294138,-3.0,3.0,-0.33622515,-3.0,3.0,3.0,-3.0,-3.0,-1.3539386,-3.0,-3.0,1.6404797,-3.0
2025-06-06 16:16:45.300,0.0013587067,-0.029418629,0.0017433756,-0.09507691,0.009575087,0.004182278,0.0,0.0,0.0,0.032135364,-0.061108693,0.06907564,-0.0026813427,0.10361304,0.58871096,-0.294236,-0.071228795,-0.3025375,-0.32178617,0.082125485,0.19519699,-0.18517816,-0.005366608,0.060436152,0.07540924,-0.064421564,0.046588168,0.07262262,-0.043582577,-0.03654899,-0.03605266,-0.06971899,0.03817102,-0.02679412,3.0,-0.33622515,-3.0,3.0,3.0,-3.0,-3.0,-1.3539386,-3.0,-3.0,1.6404797,-3.0,3.0,-0.4204884,-3.0,3.0,3.0,-3.0,-3.0,-1.3642904,-3.0,-3.0,1.7621351,-3.0
2025-06-06 16:16:45.320,0.036030415,0.038457464,0.015945254,-0.053073112,0.03817543,-0.0030865008,0.0,0.0,0.0,0.032599244,-0.060175233,0.057768628,-0.0063061514,0.10367734,0.5887244,-0.30818343,-0.083116084,-0.29778126,-0.31200793,0.070338525,0.19710529,-0.19485149,-0.0052078227,-0.010980133,0.036353968,-0.010763128,0.043560557,0.04220934,0.012093025,-0.03585227,0.04282522,-0.052895032,-0.05839955,0.0364015,3.0,-0.4204884,-3.0,3.0,3.0,-3.0,-3.0,-1.3642904,-3.0,-3.0,1.7621351,-3.0,3.0,-0.38052627,-3.0,3.0,3.0,-3.0,-3.0,-1.4169806,-3.0,-3.0,1.7865704,-3.0
2025-06-06 16:16:45.343,-0.004338546,0.02058859,-0.079414636,-0.10594996,0.07100405,0.0021758105,0.0,0.0,0.0,0.033085585,-0.062840514,0.06842491,-0.010699282,0.10279344,0.595189,-0.30496192,-0.07437295,-0.3012934,-0.3150736,0.07036268,0.21397461,-0.19287539,-0.03466208,0.05142319,-0.021489441,0.0065225144,-0.052198183,-0.06583414,-0.03334034,-0.035545163,0.069363765,-0.029804476,0.006470882,-0.06346532,3.0,-0.38052627,-3.0,3.0,3.0,-3.0,-3.0,-1.4169806,-3.0,-3.0,1.7865704,-3.0,3.0,0.0888482,-3.0,3.0,3.0,-3.0,-3.0,-1.3360063,-3.0,-3.0,1.2357587,-3.0
2025-06-06 16:16:45.361,0.064637914,-0.003964223,0.008437266,-0.08540753,0.062303223,-0.0050158063,0.0,0.0,0.0,0.033656094,-0.07306694,0.05713367,-0.0027745983,0.09093539,0.596081,-0.2970691,-0.088861674,-0.3001521,-0.31765458,0.08711184,0.2040025,-0.20138332,-0.015263468,0.07123313,-0.076974764,0.07266067,0.052248847,0.03187952,-0.0055990387,0.023404764,0.027072683,-0.06004102,-0.03982357,-0.0023247334,3.0,0.0888482,-3.0,3.0,3.0,-3.0,-3.0,-1.3360063,-3.0,-3.0,1.2357587,-3.0,3.0,-0.56753945,-3.0,3.0,3.0,-3.0,-3.0,-1.3067296,-3.0,-3.0,1.8248357,-3.0
2025-06-06 16:16:45.380,0.03907185,0.040153388,0.01913148,-0.018640123,-0.024741514,0.02050289,0.0,0.0,0.0,0.033686597,-0.06830107,0.05876603,-0.011719059,0.09735958,0.5991583,-0.2984774,-0.08522881,-0.31143078,-0.3239037,0.070029296,0.20812017,-0.19565749,0.04857763,-0.0258629,-0.004505952,0.013540118,0.018271724,-0.01764205,0.038883563,-0.05805054,0.054336824,0.061636627,-0.012730572,0.024956256,3.0,-0.56753945,-3.0,3.0,3.0,-3.0,-3.0,-1.3067296,-3.0,-3.0,1.8248357,-3.0,3.0,-0.48602536,-3.0,3.0,3.0,-2.9692016,-3.0,-1.4279135,-3.0,-3.0,1.9292717,-3.0
2025-06-06 16:16:45.401,-0.01193711,0.048692465,0.02158333,-0.083759926,0.044946153,0.025273219,0.0,0.0,0.0,0.033669177,-0.06505311,0.055144113,-0.0050037187,0.09535755,0.5957472,-0.30705932,-0.08424837,-0.29735014,-0.326184,0.07937537,0.21555492,-0.19719881,-0.02354272,0.0006652709,0.054491226,0.04550888,-0.02712713,-0.03237463,0.061615538,-0.008174546,0.07387342,0.043948017,-0.0069371755,-0.02078103,3.0,-0.48602536,-3.0,3.0,3.0,-2.9692016,-3.0,-1.4279135,-3.0,-3.0,1.9292717,-3.0,3.0,-0.5294489,-3.0,3.0,3.0,-2.9608448,-3.0,-1.3210686,-3.0,-3.0,1.9774724,-3.0
2025-06-06 16:16:45.421,0.006459582,0.033705533,-0.0042039487,-0.051868454,0.055679575,0.029554259,0.0,0.0,0.0,0.034081716,-0.066251315,0.06546571,-0.0003046052,0.09766758,0.60534024,-0.30232236,-0.0854719,-0.29687822,-0.32692057,0.08640005,0.20810416,-0.19679281,0.067116655,0.003509514,0.0012911716,-0.03492992,0.0090746395,-0.054818284,-0.022071043,-0.04734838,0.06556469,-0.010140571,0.073869884,0.02078939,3.0,-0.5294489,-3.0,3.0,3.0,-2.9608448,-3.0,-1.3210686,-3.0,-3.0,1.9774724,-3.0,3.0,-0.38375342,-3.0,3.0,3.0,-3.0,-3.0,-1.3868176,-3.0,-3.0,1.8861986,-3.0
2025-06-06 16:16:45.442,0.019754093,-0.0123879155,-0.0056675994,-0.050586645,0.054373477,0.03434316,0.0,0.0,0.0,0.03481484,-0.08541653,0.05525616,-0.0070512327,0.09669698,0.5937155,-0.294661,-0.08629565,-0.3032906,-0.3287102,0.08786237,0.22082058,-0.19664997,0.021394923,-0.02682872,-0.012648184,0.046804473,0.03378914,-0.016337791,-0.0255653,-0.036046688,0.001028081,-0.017589632,-0.058013313,-0.04263047,3.0,-0.38375342,-3.0,3.0,3.0,-3.0,-3.0,-1.3868176,-3.0,-3.0,1.8861986,-3.0,3.0,-0.37582624,-3.0,3.0,3.0,-3.0,-3.0,-1.3385154,-3.0,-3.0,1.8499864,-3.0
2025-06-06 16:16:45.461,-0.04238362,-0.030148529,-0.08118093,-0.09967757,0.0668534,0.014809933,0.0,0.0,0.0,0.035637982,-0.07611874,0.07217993,-0.00056440406,0.09094485,0.5988313,-0.30388123,-0.075963475,-0.3108953,-0.31592754,0.07336839,0.22419082,-0.20793407,-0.05230878,0.0742659,0.029652342,-0.052129198,-0.07053508,-0.03744273,0.06892891,0.019768732,0.025952814,-0.0647019,0.04593399,0.04879621,3.0,-0.37582624,-3.0,3.0,3.0,-3.0,-3.0,-1.3385154,-3.0,-3.0,1.8499864,-3.0,3.0,0.005858811,-3.0,3.0,3.0,-3.0,-3.0,-1.3395023,-3.0,-3.0,1.2509775,-3.0
2025-06-06 16:16:45.481,0.0005520321,0.011086399,0.060059972,-0.11067385,0.06514114,0.024441823,0.0,0.0,0.0,0.036398668,-0.06775721,0.07150107,-0.005920132,0.09243366,0.598381,-0.29212117,-0.08485771,-0.31687683,-0.312914,0.08630842,0.22906677,-0.19042476,0.0027884054,0.07385259,-0.064194605,-0.067142814,-0.035422567,0.06432043,-0.02294835,-0.0044639884,-0.022935838,-0.0039387713,0.008047193,0.06739346,3.0,0.005858811,-3.0,3.0,3.0,-3.0,-3.0,-1.3395023,-3.0,-3.0,1.2509775,-3.0,3.0,-0.83307785,-3.0,3.0,3.0,-2.9331086,-3.0,-1.291922,-3.0,-3.0,2.1546743,-3.0
2025-06-06 16:16:45.501,-0.031071343,-0.020624343,0.0045598485,-0.061159782,0.026620006,0.025126934,0.0,0.0,0.0,0.03647192,-0.08570169,0.056968167,-0.0067866063,0.09149805,0.59459656,-0.29717723,-0.07963674,-0.30812764,-0.32780257,0.08831863,0.21593376,-0.20409854,0.030516334,-0.074309535,-0.013477002,-0.031851973,-0.009120337,0.019790541,-0.028381865,0.0043381415,0.02657756,0.00051600044,-0.008820187,-0.06608726,3.0,-0.83307785,-3.0,3.0,3.0,-2.9331086,-3.0,-1.291922,-3.0,-3.0,2.1546743,-3.0,3.0,-0.38705683,-3.0,3.0,3.0,-3.0,-3.0,-1.4545468,-3.0,-3.0,1.85925,-3.0
2025-06-06 16:16:45.521,-0.001715473,-0.034886863,-0.07454737,-0.018811882,0.05426491,-0.036457118,0.0,0.0,0.0,0.036699407,-0.072434306,0.04890092,-0.0032575773,0.10831974,0.59497786,-0.29261187,-0.080357976,-0.30069318,-0.32797727,0.077483974,0.21887013,-0.19453943,0.0007392002,0.0038817155,-0.038002845,0.014937464,0.051125817,0.04799861,-0.065381296,-0.037600465,0.039367314,-0.061567906,0.07868535,0.041575827,3.0,-0.38705683,-3.0,3.0,3.0,-3.0,-3.0,-1.4545468,-3.0,-3.0,1.85925,-3.0,3.0,0.0515354,-3.0,3.0,3.0,-3.0,-3.0,-1.4001871,-3.0,-3.0,1.2306014,-3.0
2025-06-06 16:16:45.542,0.0030028087,-0.06523131,0.05270526,-0.025130056,0.01544833,-0.01533017,0.0,0.0,0.0,0.037221257,-0.0792606,0.063920625,-0.008205036,0.09302507,0.5889312,-0.30463484,-0.07344906,-0.3154003,-0.3201318,0.084082626,0.22525738,-0.18846363,-0.019019267,0.00028028444,0.020412585,0.036158223,-0.03659759,-0.07806607,0.0312505,-0.043800954,0.05240341,0.042393465,-0.08666432,7.270536e-05,3.0,0.0515354,-3.0,3.0,3.0,-3.0,-3.0,-1.4001871,-3.0,-3.0,1.2306014,-3.0,3.0,-0.8007843,-3.0,3.0,3.0,-2.7444463,-3.0,-1.2915566,-3.0,-3.0,2.1786723,-3.0
2025-06-06 16:16:45.561,-0.027681086,0.00058371766,-0.03311444,-0.09654587,0.073986314,-0.008012281,0.0,0.0,0.0,0.037182737,-0.07956604,0.05674684,-0.013636951,0.09740092,0.6039042,-0.30339226,-0.08941013,-0.30988917,-0.31845176,0.07680242,0.21383199,-0.19194153,0.024684733,-0.021615993,0.017773075,-0.048696015,0.046424944,0.055205736,-0.0084988065,0.054593965,0.06935495,-0.048509166,-0.057384126,-0.021377763,3.0,-0.8007843,-3.0,3.0,3.0,-2.7444463,-3.0,-1.2915566,-3.0,-3.0,2.1786723,-3.0,3.0,-0.081240505,-3.0,3.0,3.0,-3.0,-3.0,-1.5184063,-3.0,-3.0,1.5279932,-3.0
2025-06-06 16:16:45.581,0.06475698,0.023839587,-0.040530115,-0.09753612,0.060565826,0.008462875,0.0,0.0,0.0,0.037412655,-0.083615474,0.050740473,-0.0074224593,0.10690447,0.60207,-0.29100895,-0.08809121,-0.31249422,-0.32413152,0.08268229,0.21991657,-0.19022474,0.020986019,-0.027437853,0.05299765,0.015755465,0.044435963,0.0192706,0.048458453,-0.053293273,-0.015293989,0.046025325,-0.055207524,-0.0039127795,3.0,-0.081240505,-3.0,3.0,3.0,-3.0,-3.0,-1.5184063,-3.0,-3.0,1.5279932,-3.0,3.0,-0.2506909,-3.0,3.0,3.0,-3.0,-3.0,-1.3188146,-3.0,-3.0,1.5346116,-3.0
2025-06-06 16:16:45.601,0.015973786,-0.0086675305,-0.019466981,-0.06613741,0.015089399,-0.026218211,0.0,0.0,0.0,0.037740912,-0.07768385,0.062119585,-0.011628346,0.104944676,0.59871566,-0.29929295,-0.08726079,-0.3118974,-0.31667376,0.080824055,0.22180736,-0.17645654,-0.00063358736,0.052487995,-0.037629228,-0.0641306,0.05819382,0.053357564,0.068143435,-0.073549345,-0.06861044,-0.026969226,-0.030006664,0.022128193,3.0,-0.2506909,-3.0,3.0,3.0,-3.0,-3.0,-1.3188146,-3.0,-3.0,1.5346116,-3.0,3.0,-0.32171357,-3.0,3.0,3.0,-3.0,-3.0,-1.3485802,-3.0,-3.0,1.6609942,-3.0
2025-06-06 16:16:45.621,-0.027275408,0.026526693,0.012313433,-0.10118817,0.061839476,0.0020609193,0.0,0.0,0.0,0.037722763,-0.07196169,0.051805064,-0.011247128,0.10661312,0.5982489,-0.30415848,-0.08534843,-0.3123071,-0.32815364,0.092463374,0.21822657,-0.18154997,0.07123937,0.008160757,0.031301897,0.055294875,-0.008173327,0.0128567275,-0.07083612,-0.011704593,0.06686195,-0.04949621,-0.046949647,0.07156603,3.0,-0.32171357,-3.0,3.0,3.0,-3.0,-3.0,-1.3485802,-3.0,-3.0,1.6609942,-3.0,3.0,-0.4311638,-3.0,3.0,3.0,-3.0,-3.0,-1.4504915,-3.0,-3.0,1.829055,-3.0
2025-06-06 16:16:45.642,-0.014028642,-0.036340006,-0.05983581,-0.046855014,0.048797414,0.047434412,0.0,0.0,0.0,0.037579443,-0.07494012,0.054386854,-0.017480297,0.09984487,0.60572785,-0.3001332,-0.091348074,-0.311787,-0.3170945,0.08337103,0.22330509,-0.1763772,-0.017073652,0.018153384,0.014701148,0.025119426,0.04860054,0.030272152,-0.036483012,-0.047536664,0.017304232,0.03136676,0.00014604499,0.0006911793,3.0,-0.4311638,-3.0,3.0,3.0,-3.0,-3.0,-1.4504915,-3.0,-3.0,1.829055,-3.0,3.0,-0.024517773,-3.0,3.0,3.0,-3.0,-3.0,-1.4064378,-3.0,-3.0,1.4065491,-3.0
2025-06-06 16:16:45.661,0.019276662,-0.003578639,-0.029618114,-0.053479783,0.024684185,-0.033955462,0.0,0.0,0.0,0.037663564,-0.08340868,0.0594067,-0.008792097,0.09304899,0.6024646,-0.29564798,-0.08598405,-0.31645557,-0.31144655,0.09007211,0.22321771,-0.18306653,0.051916733,-0.04037896,0.020427914,0.009431593,0.01577983,-0.05796686,0.008883344,-0.03893181,-0.06410059,-0.041767597,-0.06608215,0.021007948,3.0,-0.024517773,-3.0,3.0,3.0,-3.0,-3.0,-1.4064378,-3.0,-3.0,1.4065491,-3.0,3.0,-0.33339548,-3.0,3.0,3.0,-3.0,-3.0,-1.325651,-3.0,-3.0,1.6380256,-3.0
2025-06-06 16:16:45.682,-0.032912448,-0.049838234,0.030755883,-0.039556935,0.010875701,-0.046636466,0.0,0.0,0.0,0.03756979,-0.07385823,0.057020254,-0.012885299,0.109501764,0.59628415,-0.2928988,-0.090968385,-0.30633843,-0.32668838,0.09023796,0.2156958,-0.17123133,-0.034634955,0.019253017,0.027003288,-0.023652492,0.07117635,-0.00041292692,0.02086643,0.022103041,0.049632903,-0.032725595,-0.057132687,0.07699849,3.0,-0.33339548,-3.0,3.0,3.0,-3.0,-3.0,-1.325651,-3.0,-3.0,1.6380256,-3.0,3.0,-0.5286165,-3.0,3.0,3.0,-3.0,-3.0,-1.4292725,-3.0,-3.0,1.9192274,-3.0
2025-06-06 16:16:45.701,-0.0031497867,0.0063185445,-0.038844667,-0.01818092,0.034494586,-0.013695109,0.0,0.0,0.0,0.03734828,-0.085891165,0.058531348,-0.023315933,0.110692464,0.59942836,-0.30139217,-0.080672644,-0.30252802,-0.3105734,0.075979136,0.21819101,-0.18096678,-0.011762894,-0.072685,-0.05618718,-0.009912107,0.024810772,0.036294576,0.015485466,-0.023053458,-0.010029586,0.01947457,0.040585488,0.055106696,3.0,-0.5286165,-3.0,3.0,3.0,-3.0,-3.0,-1.4292725,-3.0,-3.0,1.9192274,-3.0,3.0,-0.12873608,-3.0,3.0,3.0,-3.0,-3.0,-1.3998674,-3.0,-3.0,1.4534525,-3.0
2025-06-06 16:16:45.722,0.0705217,0.020660944,0.047282122,-0.08785915,-0.019344334,-0.024506625,0.0,0.0,0.0,0.037502795,-0.07219897,0.05870972,-0.007979929,0.09423058,0.5918781,-0.30456582,-0.092329934,-0.30554625,-0.3168994,0.08247162,0.21973345,-0.16398723,-0.07333567,0.030715771,-0.06071401,0.035027873,0.07282095,-0.033950962,0.021103607,-0.026885975,0.063875385,-0.001116673,0.038219154,-0.028759226,3.0,-0.12873608,-3.0,3.0,3.0,-3.0,-3.0,-1.3998674,-3.0,-3.0,1.4534525,-3.0,3.0,-0.7378189,-3.0,3.0,3.0,-2.6048026,-3.0,-1.2179356,-3.0,-3.0,2.2256045,-3.0
2025-06-06 16:16:45.742,-0.03931738,0.07662936,-0.08136569,-0.062887534,0.054602344,-7.774859e-05,0.0,0.0,0.0,0.037597287,-0.080797896,0.05490813,-0.010302049,0.104423076,0.6006529,-0.28637207,-0.082921065,-0.30421337,-0.31314254,0.07501352,0.22527453,-0.18056129,-0.055023465,-0.039182987,0.03676909,-0.05040871,0.032000244,-0.024069555,0.074264,-0.014545704,0.06658479,0.035344277,0.08045391,-0.0501685,3.0,-0.7378189,-3.0,3.0,3.0,-2.6048026,-3.0,-1.2179356,-3.0,-3.0,2.2256045,-3.0,3.0,-0.014960973,-3.0,3.0,3.0,-3.0,-3.0,-1.3961663,-3.0,-3.0,1.4220729,-3.0
2025-06-06 16:16:45.762,0.07097331,0.018822592,-0.042515494,-0.016348623,0.043321278,0.018812096,0.0,0.0,0.0,0.03810717,-0.08085892,0.0546496,-0.006016647,0.11177616,0.60571736,-0.29269743,-0.09304495,-0.3083548,-0.32664815,0.07752813,0.23776877,-0.16882844,0.029745888,-0.045785073,-0.068834424,-0.030966261,0.013276596,0.060427643,-0.0074394173,-0.010080964,0.027712464,0.050638728,0.05640719,-0.064391725,3.0,-0.014960973,-3.0,3.0,3.0,-3.0,-3.0,-1.3961663,-3.0,-3.0,1.4220729,-3.0,3.0,-0.26876733,-3.0,3.0,3.0,-3.0,-3.0,-1.3225405,-3.0,-3.0,1.5166034,-3.0
2025-06-06 16:16:45.782,0.017329441,-0.024239171,0.04623266,-0.08476867,0.0009699028,0.047623947,0.0,0.0,0.0,0.03850305,-0.07174314,0.059078973,-0.020241762,0.09859036,0.5927005,-0.29078734,-0.09271528,-0.310128,-0.3106024,0.09057386,0.21857823,-0.16646984,0.029357458,0.016747711,-0.04921731,0.007981762,-0.0014394342,-0.06818229,0.069604315,0.0069574434,0.027066262,0.010562632,-0.06203444,0.022349745,3.0,-0.26876733,-3.0,3.0,3.0,-3.0,-3.0,-1.3225405,-3.0,-3.0,1.5166034,-3.0,3.0,-0.6830329,-3.0,3.0,3.0,-2.7602494,-3.0,-1.3378704,-3.0,-3.0,2.1425302,-3.0
2025-06-06 16:16:45.802,-0.060252707,0.02212801,-0.0781076,-0.04835651,0.02948595,-0.020924121,0.0,0.0,0.0,0.0384838,-0.086683445,0.06516201,-0.016565677,0.103119664,0.5973188,-0.28913444,-0.09355399,-0.31045666,-0.3126236,0.08700885,0.22483085,-0.16526781,-0.05547709,0.060701042,0.06885071,0.06585611,0.024557592,0.059203744,0.038513556,0.03234219,0.04208786,0.056555856,0.018161723,-0.033620704,3.0,-0.6830329,-3.0,3.0,3.0,-2.7602494,-3.0,-1.3378704,-3.0,-3.0,2.1425302,-3.0,3.0,0.08772561,-3.0,3.0,3.0,-3.0,-3.0,-1.4488901,-3.0,-3.0,1.2639929,-3.0
2025-06-06 16:16:45.825,0.011711283,-0.0460004,-0.010903643,-0.015804857,0.032087322,0.014177008,0.0,0.0,0.0,0.038882118,-0.0915645,0.06946199,-0.020276621,0.095980674,0.59355193,-0.29424062,-0.07776568,-0.30714017,-0.31642002,0.07551168,0.23266819,-0.1719123,-0.008925962,-0.019139301,-0.004271788,0.044459656,0.01950233,-0.062124282,-0.06309555,-0.058088936,-0.028409034,0.057081446,-0.045089375,0.07455743,3.0,0.08772561,-3.0,3.0,3.0,-3.0,-3.0,-1.4488901,-3.0,-3.0,1.2639929,-3.0,3.0,-0.37343678,-3.0,3.0,3.0,-3.0,-3.0,-1.3031365,-3.0,-3.0,1.6743582,-3.0
2025-06-06 16:16:45.843,0.0385901,-0.053624306,0.012044868,-0.04774831,0.011697442,0.024673209,0.0,0.0,0.0,0.039003212,-0.0888297,0.059224788,-0.021707257,0.10384814,0.6025277,-0.29004583,-0.08852114,-0.3145037,-0.32481697,0.07831918,0.2245864,-0.16458136,0.048855837,-0.06431804,0.027936438,-0.030370707,-0.010308059,0.047170408,0.046057556,-0.072491966,-0.03491698,-0.05311619,-0.037573483,0.07522146,3.0,-0.37343678,-3.0,3.0,3.0,-3.0,-3.0,-1.3031365,-3.0,-3.0,1.6743582,-3.0,3.0,-0.43833715,-3.0,3.0,3.0,-3.0,-3.0,-1.4221094,-3.0,-3.0,1.8054094,-3.0
2025-06-06 16:16:45.862,0.024754744,0.039801136,-0.018065708,-2.5944799e-05,-0.024326488,-0.018428711,0.0,0.0,0.0,0.038868107,-0.09232612,0.06323288,-0.010498334,0.10575931,0.6020324,-0.29495546,-0.08402859,-0.30550805,-0.32324046,0.09181034,0.23276597,-0.17638764,0.05682478,-0.06341118,-0.027568696,-0.0726996,0.007470105,-0.03188357,0.004405242,0.07048335,-0.025181534,-0.055416625,0.054083772,-0.038065698,3.0,-0.43833715,-3.0,3.0,3.0,-3.0,-3.0,-1.4221094,-3.0,-3.0,1.8054094,-3.0,3.0,-0.34042868,-3.0,3.0,3.0,-3.0,-3.0,-1.3348179,-3.0,-3.0,1.711891,-3.0
2025-06-06 16:16:45.882,0.039725028,-0.007632565,0.015121415,-0.055092063,-0.0006766838,-0.037917916,0.0,0.0,0.0,0.038934924,-0.08147251,0.06863315,-0.0204449,0.11011111,0.6121059,-0.2978471,-0.085044675,-0.30686012,-0.30639598,0.08416879,0.22979078,-0.15966637,-0.06929128,0.03837156,0.03023894,0.016652277,0.044880565,-0.019233419,0.06685725,0.0033591946,0.00782431,-0.056601763,0.047554817,-0.06209788,3.0,-0.34042868,-3.0,3.0,3.0,-3.0,-3.0,-1.3348179,-3.0,-3.0,1.711891,-3.0,3.0,-0.54659307,-3.0,3.0,3.0,-3.0,-3.0,-1.2967769,-3.0,-3.0,1.956853,-3.0
2025-06-06 16:16:45.903,-0.057922754,0.06738697,-0.042062383,-0.008733992,0.022571156,0.021796387,0.0,0.0,0.0,0.039058648,-0.091527246,0.05578062,-0.023403306,0.09873182,0.60916996,-0.30171245,-0.090199046,-0.30945382,-0.312076,0.09168739,0.23662487,-0.17744017,-0.060463555,-0.0077211964,-0.055081323,-0.046948567,-0.04790634,0.06677943,-0.02910791,0.07681117,0.05212078,0.0009054597,-0.02461591,0.029172719,3.0,-0.54659307,-3.0,3.0,3.0,-3.0,-3.0,-1.2967769,-3.0,-3.0,1.956853,-3.0,3.0,-0.097013265,-3.0,3.0,3.0,-3.0,-3.0,-1.4065573,-3.0,-3.0,1.4417735,-3.0
2025-06-06 16:16:45.925,-0.023289733,0.025518846,-0.031977292,-0.0116203055,0.02973594,0.0063068536,0.0,0.0,0.0,0.039328273,-0.08111206,0.072206736,-0.012606204,0.1090615,0.6132077,-0.28996143,-0.09088515,-0.3001985,-0.3120099,0.09196528,0.24237943,-0.17918617,-0.027780293,0.06758597,0.012351007,-0.040473066,0.03950554,0.024855534,0.000886886,0.051396728,0.01592679,-0.05622328,-0.07523007,0.07263477,3.0,-0.097013265,-3.0,3.0,3.0,-3.0,-3.0,-1.4065573,-3.0,-3.0,1.4417735,-3.0,3.0,-0.20249423,-3.0,3.0,3.0,-3.0,-3.0,-1.3706185,-3.0,-3.0,1.4856837,-3.0
2025-06-06 16:16:45.942,0.027575988,-0.06332346,-0.009210112,-0.09774028,0.005718516,-0.00011558906,0.0,0.0,0.0,0.039361253,-0.08537034,0.061212562,-0.021082098,0.100240335,0.5993377,-0.29229406,-0.08485833,-0.29959476,-0.31541017,0.0844432,0.2282575,-0.17469235,0.04665799,0.060929436,0.048421416,-0.046201177,-0.07653904,0.032633804,0.039546613,0.007058929,-0.033826157,0.034518998,-0.06407999,0.06651762,3.0,-0.20249423,-3.0,3.0,3.0,-3.0,-3.0,-1.3706185,-3.0,-3.0,1.4856837,-3.0,3.0,-0.31148896,-3.0,3.0,3.0,-3.0,-3.0,-1.3867093,-3.0,-3.0,1.5261339,-3.0
2025-06-06 16:16:45.962,-0.037805386,-0.028514294,0.03884982,-0.097743325,-0.03226215,0.043709558,0.0,0.0,0.0,0.039075073,-0.078745216,0.07231529,-0.025339572,0.1125777,0.6002404,-0.3066594,-0.090398386,-0.30868474,-0.3073137,0.07992397,0.2172357,-0.15787527,0.07069403,0.024353825,0.061058223,-0.030382806,0.04033812,-0.060025446,0.07006763,0.006301743,0.05845548,-0.05477426,-0.026207164,0.015748046,3.0,-0.31148896,-3.0,3.0,3.0,-3.0,-3.0,-1.3867093,-3.0,-3.0,1.5261339,-3.0,3.0,-0.6209858,-3.0,3.0,3.0,-2.8051758,-3.0,-1.3929931,-3.0,-3.0,2.0805783,-3.0
2025-06-06 16:16:45.982,-0.070483856,0.015751498,-0.06965029,-0.025701279,-0.010943732,-0.0017897987,0.0,0.0,0.0,0.03871516,-0.07576366,0.060305595,-0.029127812,0.11160802,0.59567535,-0.29064935,-0.09543609,-0.30117252,-0.30643326,0.07441899,0.22752218,-0.17210099,-0.0014344795,0.0035561684,0.066479765,-0.06090607,0.008766038,0.027291894,0.037008423,-0.012848332,-0.003573012,-0.064521864,0.023632381,0.0371255,3.0,-0.6209858,-3.0,3.0,3.0,-2.8051758,-3.0,-1.3929931,-3.0,-3.0,2.0805783,-3.0,3.0,0.10059956,-3.0,3.0,3.0,-3.0,-3.0,-1.4033355,-3.0,-3.0,1.2342604,-3.0
2025-06-06 16:16:46.003,0.0044753263,-0.026210653,0.03028741,-0.004579628,0.053696472,0.038817108,0.0,0.0,0.0,0.038927402,-0.077463776,0.060148917,-0.025204085,0.1079278,0.59731174,-0.29460925,-0.09220559,-0.30556756,-0.3048235,0.07781276,0.22593287,-0.16525862,0.055835396,-0.0007801414,0.005538773,0.05506385,-0.01338551,0.032263156,-0.071166374,-0.052790407,0.054200936,-0.056373473,0.052639954,0.06181376,3.0,0.10059956,-3.0,3.0,3.0,-3.0,-3.0,-1.4033355,-3.0,-3.0,1.2342604,-3.0,3.0,-0.6353496,-3.0,3.0,3.0,-3.0,-3.0,-1.3557551,-3.0,-3.0,1.9085073,-3.0
2025-06-06 16:16:46.026,-0.023965908,-0.017515825,-0.049099233,-0.039531816,-0.018583165,0.03879037,0.0,0.0,0.0,0.038905114,-0.07315117,0.06050197,-0.015994752,0.11302782,0.6010138,-0.28596923,-0.098891,-0.30095807,-0.30815136,0.08412241,0.22110446,-0.16728565,0.047008254,0.060085762,-0.036758274,0.029465308,-0.025284825,-0.017939419,-0.0022510695,0.02754109,0.021135792,0.008016105,0.03216088,-0.050836936,3.0,-0.6353496,-3.0,3.0,3.0,-3.0,-3.0,-1.3557551,-3.0,-3.0,1.9085073,-3.0,3.0,-0.017598359,-3.0,3.0,3.0,-3.0,-3.0,-1.4461448,-3.0,-3.0,1.3592649,-3.0
2025-06-06 16:16:46.043,0.02838331,-0.0014244444,-0.026777355,-0.020792717,0.05341534,-0.023101274,0.0,0.0,0.0,0.038963754,-0.07610751,0.051842924,-0.024827745,0.112122275,0.60148865,-0.28880078,-0.09600012,-0.31060225,-0.3053927,0.09453046,0.23468666,-0.16343687,-0.041887816,-0.0289884,0.06970825,0.035679657,-0.06160029,0.03191202,-0.054193202,-0.007528662,-0.06166728,-0.06986043,0.04578372,-0.0024643785,3.0,-0.017598359,-3.0,3.0,3.0,-3.0,-3.0,-1.4461448,-3.0,-3.0,1.3592649,-3.0,3.0,-0.30672273,-3.0,3.0,3.0,-3.0,-3.0,-1.3087949,-3.0,-3.0,1.475508,-3.0
2025-06-06 16:16:46.063,0.013888059,0.007325064,0.04722448,-0.03923854,-0.0300295,-0.031725354,0.0,0.0,0.0,0.038900487,-0.0787123,0.06384663,-0.018529722,0.11574807,0.6081481,-0.30170533,-0.0892366,-0.300471,-0.30616066,0.08027055,0.22798792,-0.16970451,-0.031721096,0.026123356,0.05077016,0.050918683,0.04123721,-0.07822273,0.066843666,-0.024365341,-0.07589624,0.04077607,-0.02294742,0.058506608,3.0,-0.30672273,-3.0,3.0,3.0,-3.0,-3.0,-1.3087949,-3.0,-3.0,1.475508,-3.0,3.0,-0.6474173,-3.0,3.0,3.0,-2.7796822,-3.0,-1.3573977,-3.0,-3.0,2.0555527,-3.0
2025-06-06 16:16:46.083,-0.01790126,0.041333277,-0.04007238,-0.020523248,0.019092577,-0.030985784,0.0,0.0,0.0,0.038606983,-0.07725604,0.06540722,-0.015274667,0.1135782,0.60752106,-0.29367438,-0.09206768,-0.30997336,-0.3170078,0.083442114,0.2301786,-0.15971954,-0.07193624,-0.06657186,0.05136028,-0.019870857,-0.056126863,0.05911195,0.038151663,-0.042676076,0.066772915,-0.029016646,-0.02242842,0.03883154,3.0,-0.6474173,-3.0,3.0,3.0,-2.7796822,-3.0,-1.3573977,-3.0,-3.0,2.0555527,-3.0,3.0,-0.028280852,-3.0,3.0,3.0,-3.0,-3.0,-1.4220177,-3.0,-3.0,1.4208096,-3.0
2025-06-06 16:16:46.103,0.029008508,-0.016250271,0.028667448,-0.08019713,0.03714248,-0.011838888,0.0,0.0,0.0,0.03883406,-0.07855223,0.054199785,-0.014023533,0.10432127,0.6018562,-0.29099742,-0.095457844,-0.2954033,-0.3161384,0.08497908,0.21928053,-0.16237605,-0.04334006,-0.056474492,-0.001446402,0.054603048,-0.035712253,-0.07021943,-0.0008439951,-0.060934983,0.0012605601,0.06644842,-0.014253991,0.039346367,3.0,-0.028280852,-3.0,3.0,3.0,-3.0,-3.0,-1.4220177,-3.0,-3.0,1.4208096,-3.0,3.0,-0.56678873,-3.0,3.0,3.0,-3.0,-3.0,-1.2681112,-3.0,-3.0,1.9148836,-3.0
2025-06-06 16:16:46.126,0.00048740013,-0.024592424,-0.06485901,-0.068215,-0.005411299,0.041297283,0.0,0.0,0.0,0.039031994,-0.0874319,0.054735865,-0.017221902,0.1019455,0.6071347,-0.28785202,-0.09919221,-0.31088892,-0.31878346,0.08914422,0.22300312,-0.16503511,-0.025513506,-0.017926421,0.028199542,-0.048231702,-0.031749073,-0.0627174,0.055235174,-0.03848548,0.001272188,-0.014564046,0.028177276,-0.0399675,3.0,-0.56678873,-3.0,3.0,3.0,-3.0,-3.0,-1.2681112,-3.0,-3.0,1.9148836,-3.0,3.0,-0.05537718,-3.0,3.0,3.0,-3.0,-3.0,-1.3797334,-3.0,-3.0,1.4305372,-3.0
2025-06-06 16:16:46.143,-0.006531986,-0.029268287,-0.034266353,-0.08107634,0.030374508,0.034314122,0.0,0.0,0.0,0.03927129,-0.08186435,0.0645217,-0.025596462,0.114689596,0.59193736,-0.2935449,-0.09389693,-0.3004918,-0.31637642,0.0827618,0.23563974,-0.17108823,-0.025078412,-0.024004998,-0.03492143,0.04915138,-0.0043292083,0.011886005,-0.019370684,-0.017634246,0.047954693,0.06363745,-0.053015687,0.07773888,3.0,-0.05537718,-3.0,3.0,3.0,-3.0,-3.0,-1.3797334,-3.0,-3.0,1.4305372,-3.0,3.0,-0.16649476,-3.0,3.0,3.0,-3.0,-3.0,-1.3715541,-3.0,-3.0,1.4417769,-3.0
2025-06-06 16:16:46.163,0.044847917,-0.0009701816,-0.014467435,-0.03199654,0.06349258,0.044134963,0.0,0.0,0.0,0.039300747,-0.07100898,0.05025432,-0.017190509,0.099353194,0.5981637,-0.2979653,-0.094309084,-0.30434275,-0.32607543,0.08632234,0.22124854,-0.16169165,0.0769676,0.0075107543,-0.00626071,-0.019074755,0.033501476,-0.070739396,-0.061529264,0.036415547,0.0038407226,-0.013301223,0.037750926,0.0019481471,3.0,-0.16649476,-3.0,3.0,3.0,-3.0,-3.0,-1.3715541,-3.0,-3.0,1.4417769,-3.0,3.0,-0.3509604,-3.0,3.0,3.0,-3.0,-3.0,-1.387524,-3.0,-3.0,1.6885682,-3.0
2025-06-06 16:16:46.183,-0.0047713122,-0.017498337,-0.014665209,-0.01347898,-0.020530315,0.011451066,0.0,0.0,0.0,0.03902786,-0.08653497,0.0678639,-0.028168999,0.10596122,0.5927322,-0.29340777,-0.08824747,-0.30811927,-0.325273,0.076203495,0.23487487,-0.1568959,0.051695354,0.027790774,-0.025975492,0.0033252325,-0.0101281,-0.0057550143,0.04524413,0.004491115,-0.023670543,-0.020424627,0.031739403,0.026620774,3.0,-0.3509604,-3.0,3.0,3.0,-3.0,-3.0,-1.387524,-3.0,-3.0,1.6885682,-3.0,3.0,-0.31654075,-3.0,3.0,3.0,-3.0,-3.0,-1.3506926,-3.0,-3.0,1.643519,-3.0
2025-06-06 16:16:46.203,-0.023898823,0.03030162,0.0485988,-0.07069714,-0.01965485,-0.01751015,0.0,0.0,0.0,0.038851693,-0.08186474,0.06040921,-0.032552894,0.101506494,0.5966428,-0.2918636,-0.09744479,-0.29744947,-0.31666273,0.09232043,0.22858234,-0.1683172,0.0026710432,-0.035137925,-0.040060505,-0.040183645,0.073492184,-0.047869205,-0.011716758,0.06072773,0.058360595,-0.038388856,0.04801396,-0.07331396,3.0,-0.31654075,-3.0,3.0,3.0,-3.0,-3.0,-1.3506926,-3.0,-3.0,1.643519,-3.0,3.0,-0.7533106,-3.0,3.0,3.0,-2.5549579,-3.0,-1.300091,-3.0,-3.0,2.222164,-3.0
2025-06-06 16:16:46.226,-0.011816491,0.054277,-0.07293845,-0.031520706,0.058491632,-0.003087603,0.0,0.0,0.0,0.03880428,-0.09211586,0.06090305,-0.026168115,0.10441959,0.59026474,-0.28752914,-0.09260217,-0.2927448,-0.32179993,0.07981192,0.24169701,-0.16184258,0.06549683,0.006950819,0.0444453,-0.07618426,-0.05204345,-0.03526758,0.009288598,0.034774613,0.027659314,0.056701228,0.050503694,-0.01934961,3.0,-0.7533106,-3.0,3.0,3.0,-2.5549579,-3.0,-1.300091,-3.0,-3.0,2.222164,-3.0,3.0,0.07827306,-3.0,3.0,3.0,-3.0,-3.0,-1.4272565,-3.0,-3.0,1.320161,-3.0
2025-06-06 16:16:46.243,0.025612952,-0.019808533,0.016135551,-0.08075555,0.03562393,-0.021904316,0.0,0.0,0.0,0.03941348,-0.076748155,0.045581426,-0.032273363,0.10485269,0.6035773,-0.28300837,-0.09476689,-0.3008296,-0.31219408,0.08232057,0.24606064,-0.17297369,-0.03677404,0.050443046,-0.05939574,0.06501036,-0.0050128778,-0.05695957,0.057983566,-0.065737784,-0.061401825,0.018581279,0.064004265,0.03599577,3.0,0.07827306,-3.0,3.0,3.0,-3.0,-3.0,-1.4272565,-3.0,-3.0,1.320161,-3.0,3.0,-0.67067176,-3.0,3.0,3.0,-3.0,-3.0,-1.1623424,-3.0,-3.0,1.9472976,-3.0
2025-06-06 16:16:46.263,-0.01318568,0.012089984,-0.043638185,-0.03714768,0.04582235,0.01842354,0.0,0.0,0.0,0.039832816,-0.07697564,0.05633489,-0.026250111,0.1087948,0.5995567,-0.27936763,-0.08133285,-0.29570755,-0.32272696,0.090557724,0.23432775,-0.16606982,0.051630747,-0.07604024,0.04039949,-0.02199424,0.019960819,0.05446303,0.027986249,-0.012414636,0.03316507,0.05782333,0.033987854,0.023897769,3.0,-0.67067176,-3.0,3.0,3.0,-3.0,-3.0,-1.1623424,-3.0,-3.0,1.9472976,-3.0,3.0,-0.12338045,-3.0,3.0,3.0,-3.0,-3.0,-1.5754157,-3.0,-3.0,1.4889992,-3.0
2025-06-06 16:16:46.283,-0.027936183,0.0074676657,-0.008432227,-0.052604996,0.028846003,-0.0009020197,0.0,0.0,0.0,0.04012197,-0.09086212,0.05773966,-0.026425846,0.113018945,0.5997488,-0.2801194,-0.09887445,-0.29737198,-0.3232209,0.090682186,0.23506004,-0.16523163,-0.041900743,-0.030294808,0.04537495,-0.044301398,-0.06376174,0.06814106,0.013860531,-0.016827019,-0.037654795,-0.042272843,0.0049714353,-0.025192829,3.0,-0.12338045,-3.0,3.0,3.0,-3.0,-3.0,-1.5754157,-3.0,-3.0,1.4889992,-3.0,3.0,-0.3614653,-3.0,3.0,3.0,-3.0,-3.0,-1.256076,-3.0,-3.0,1.5750382,-3.0
2025-06-06 16:16:46.304,-0.0015687621,0.010308145,0.004348228,-0.059569072,0.034760486,-0.036057282,0.0,0.0,0.0,0.040332217,-0.08414753,0.040211942,-0.028857814,0.104555115,0.5894184,-0.2921078,-0.08883067,-0.30018365,-0.32092696,0.07810856,0.24339202,-0.15944959,-0.009189888,0.008172071,0.056121353,0.021653173,-0.06315331,-0.068989486,-0.071863644,-0.01716867,-0.059463307,0.009237512,-0.0135899875,0.040219657,3.0,-0.3614653,-3.0,3.0,3.0,-3.0,-3.0,-1.256076,-3.0,-3.0,1.5750382,-3.0,3.0,-0.3656521,-3.0,3.0,3.0,-3.0,-3.0,-1.3976622,-3.0,-3.0,1.665979,-3.0
2025-06-06 16:16:46.326,0.0033787997,0.014219888,-0.022885405,-0.044329755,0.040663194,0.04456094,0.0,0.0,0.0,0.040294383,-0.081284136,0.05822239,-0.01863226,0.09710334,0.5990988,-0.29327708,-0.08940948,-0.30795074,-0.321857,0.07803816,0.23411623,-0.15757178,-0.037570458,0.037213378,0.04209491,-0.049088154,0.06762639,0.06060515,0.06507221,0.06576021,-0.034414265,0.013491124,0.024760824,-0.0433046,3.0,-0.3656521,-3.0,3.0,3.0,-3.0,-3.0,-1.3976622,-3.0,-3.0,1.665979,-3.0,3.0,-0.30826446,-3.0,3.0,3.0,-3.0,-3.0,-1.3701086,-3.0,-3.0,1.622186,-3.0
2025-06-06 16:16:46.344,0.052573275,-0.046760015,-0.012341101,-0.050610892,0.018320143,-0.034114998,0.0,0.0,0.0,0.04021375,-0.08053517,0.046868168,-0.032798547,0.09894557,0.6068077,-0.28598663,-0.09661192,-0.31338617,-0.32301483,0.092915006,0.23785387,-0.1732242,-0.00018642846,0.008506542,0.018999252,-0.05668592,-0.06358078,-0.061403926,0.019165186,-0.05380851,0.071014866,-0.035675224,-0.023915103,0.04505361,3.0,-0.30826446,-3.0,3.0,3.0,-3.0,-3.0,-1.3701086,-3.0,-3.0,1.622186,-3.0,3.0,-0.3426355,-3.0,3.0,3.0,-3.0,-3.0,-1.346113,-3.0,-3.0,1.6936821,-3.0
2025-06-06 16:16:46.364,-0.00030606144,0.0015168911,-0.043204978,-0.021505227,-0.007003653,0.019220639,0.0,0.0,0.0,0.04012382,-0.08171326,0.04937521,-0.03341155,0.10666995,0.5955537,-0.29139212,-0.092209496,-0.30374828,-0.30935445,0.095419504,0.22590409,-0.17260054,0.06213216,0.026995514,0.059167054,-0.01545101,0.03924104,-0.036045242,-0.067823835,-0.067070745,0.058003396,0.020393217,-0.032162786,-0.040837973,3.0,-0.3426355,-3.0,3.0,3.0,-3.0,-3.0,-1.346113,-3.0,-3.0,1.6936821,-3.0,3.0,-0.14876029,-3.0,3.0,3.0,-3.0,-3.0,-1.4206269,-3.0,-3.0,1.5605093,-3.0
2025-06-06 16:16:46.384,-0.017067656,-0.02309062,-0.020192795,-0.06306892,0.0072429325,0.038880546,0.0,0.0,0.0,0.0400446,-0.08198234,0.054300383,-0.029794808,0.099586375,0.6021896,-0.30469608,-0.0902613,-0.3040431,-0.3109319,0.08057018,0.24103838,-0.15999731,0.01465475,0.041687258,0.00430672,0.023252811,-0.006290618,0.045677535,-0.021852918,-0.041812155,-0.045871947,-0.06329191,-0.041729238,0.070716314,3.0,-0.14876029,-3.0,3.0,3.0,-3.0,-3.0,-1.4206269,-3.0,-3.0,1.5605093,-3.0,3.0,-0.25416702,-3.0,3.0,3.0,-3.0,-3.0,-1.3133918,-3.0,-3.0,1.586623,-3.0
2025-06-06 16:16:46.404,-0.006214093,0.035112113,0.037864767,-0.0142154815,0.041490193,0.04178156,0.0,0.0,0.0,0.039900497,-0.085960254,0.05591311,-0.028562263,0.10251751,0.5991964,-0.29551718,-0.09759865,-0.29841432,-0.30619895,0.083335884,0.23185803,-0.16409042,-0.050104994,0.04853336,0.020021485,-0.013673197,0.01996187,0.029955758,0.06469246,-0.045856718,-0.06351273,-0.039148755,-0.023799758,-0.03873988,3.0,-0.25416702,-3.0,3.0,3.0,-3.0,-3.0,-1.3133918,-3.0,-3.0,1.586623,-3.0,3.0,-0.644391,-3.0,3.0,3.0,-3.0,-3.0,-1.2854079,-3.0,-3.0,2.0563934,-3.0
2025-06-06 16:16:46.426,-0.012111297,-0.014075558,0.017846465,-0.042824026,0.0157606,0.038080357,0.0,0.0,0.0,0.039660916,-0.08610425,0.05703441,-0.021503031,0.11317718,0.61030483,-0.29793152,-0.08332963,-0.29767296,-0.32657385,0.07461305,0.23292753,-0.17109446,-0.0025531258,-0.0035923831,0.03961114,-0.0242172,-0.047882233,0.013515951,0.03776839,-0.04648876,-0.016577981,-0.062732056,-0.0111586265,0.048728775,3.0,-0.644391,-3.0,3.0,3.0,-3.0,-3.0,-1.2854079,-3.0,-3.0,2.0563934,-3.0,3.0,-0.3827918,-3.0,3.0,3.0,-3.0,-3.0,-1.3826586,-3.0,-3.0,1.8170265,-3.0
2025-06-06 16:16:46.444,0.01574882,-0.006401689,-0.031448398,-0.056269884,-0.029576642,-0.047574714,0.0,0.0,0.0,0.039785817,-0.09066011,0.060897283,-0.017367776,0.100952946,0.5938468,-0.3038864,-0.09073642,-0.29120478,-0.30860606,0.08697293,0.23497166,-0.1604383,-0.049242873,0.055263042,-0.03522747,-0.06240748,0.010986339,0.040243406,0.01152755,0.060950648,-0.03178871,0.019106194,0.0034850426,-0.03380721,3.0,-0.3827918,-3.0,3.0,3.0,-3.0,-3.0,-1.3826586,-3.0,-3.0,1.8170265,-3.0,3.0,-0.15178132,-3.0,3.0,3.0,-3.0,-3.0,-1.3072885,-3.0,-3.0,1.4914715,-3.0
2025-06-06 16:16:46.464,0.03229324,-0.057588536,-0.0008494248,-0.04239695,0.052304458,0.008747099,0.0,0.0,0.0,0.040158503,-0.0730627,0.052601423,-0.025561824,0.09598803,0.6002027,-0.29491407,-0.08726894,-0.29552653,-0.3176492,0.086826734,0.24354784,-0.17625156,0.02084108,-0.0065811714,0.071143515,0.025100226,0.0705926,-0.020280637,0.0122047,-0.06386254,-0.06089253,0.007270292,-0.033799157,0.059010208,3.0,-0.15178132,-3.0,3.0,3.0,-3.0,-3.0,-1.3072885,-3.0,-3.0,1.4914715,-3.0,3.0,-0.43222848,-3.0,3.0,3.0,-3.0,-3.0,-1.3937169,-3.0,-3.0,1.8108777,-3.0
2025-06-06 16:16:46.484,0.04434946,-0.021848464,0.03681732,-0.09507671,-0.018247472,0.042671863,0.0,0.0,0.0,0.040223755,-0.08059451,0.045511864,-0.016940812,0.10049296,0.6117206,-0.28682572,-0.08904614,-0.29624632,-0.32503593,0.084913716,0.23582996,-0.16569284,-0.061701722,0.011171982,-0.035255507,-0.065080576,0.01857586,-0.00326258,-0.034953628,-0.0048237625,0.040451083,0.038641278,0.039976757,0.035823308,3.0,-0.43222848,-3.0,3.0,3.0,-3.0,-3.0,-1.3937169,-3.0,-3.0,1.8108777,-3.0,3.0,-0.5825139,-3.0,3.0,3.0,-2.88099,-3.0,-1.2673771,-3.0,-3.0,2.0521698,-3.0
2025-06-06 16:16:46.504,-0.06207857,0.002911387,-0.06537338,-0.045289986,0.005598148,-0.022648409,0.0,0.0,0.0,0.040275846,-0.09016801,0.057625096,-0.014326871,0.09960752,0.6025612,-0.2975607,-0.0958138,-0.3079895,-0.3095626,0.08684409,0.24894603,-0.17716706,-0.0053266753,-0.03902334,0.019675555,0.013134048,-0.02885778,-0.06264029,-0.047207963,0.045392357,-0.0040417365,-0.052833766,0.065554105,-0.021276899,3.0,-0.5825139,-3.0,3.0,3.0,-2.88099,-3.0,-1.2673771,-3.0,-3.0,2.0521698,-3.0,3.0,-0.032263216,-3.0,3.0,3.0,-3.0,-3.0,-1.3957487,-3.0,-3.0,1.4063675,-3.0
2025-06-06 16:16:46.526,0.058942545,0.009651153,-0.014274399,-0.07294386,-0.012073867,-0.03140321,0.0,0.0,0.0,0.04066113,-0.091509044,0.05770893,-0.0265782,0.09702981,0.6024035,-0.2885049,-0.09823154,-0.30074662,-0.32390338,0.08025214,0.25214446,-0.17797221,-0.014028369,0.06801921,-0.079304084,-0.0119718965,-0.04275198,0.0086430395,0.0282629,-0.017294945,-0.026287273,-0.005052103,0.040529117,0.048956566,3.0,-0.032263216,-3.0,3.0,3.0,-3.0,-3.0,-1.3957487,-3.0,-3.0,1.4063675,-3.0,3.0,-0.3994446,-3.0,3.0,3.0,-3.0,-3.0,-1.2090083,-3.0,-3.0,1.6407714,-3.0
2025-06-06 16:16:46.544,0.016352322,0.019952824,-0.0070700822,-0.034224093,0.004194261,0.030807506,0.0,0.0,0.0,0.04074736,-0.07440313,0.045358587,-0.023831507,0.10100536,0.5968742,-0.2914533,-0.09023843,-0.29163435,-0.3110265,0.08499173,0.23557015,-0.16242729,-0.04867917,-0.04955129,-0.042578373,-0.0030532654,-0.0324266,-0.06594612,0.031630598,-0.06271018,0.05705195,-0.0028132927,-0.029870754,-0.047714964,3.0,-0.3994446,-3.0,3.0,3.0,-3.0,-3.0,-1.2090083,-3.0,-3.0,1.6407714,-3.0,3.0,-0.35076833,-3.0,3.0,3.0,-3.0,-3.0,-1.3594286,-3.0,-3.0,1.7792429,-3.0
2025-06-06 16:16:46.564,-0.025345137,-0.027951803,0.05355454,-0.05523302,0.038340442,0.0034710641,0.0,0.0,0.0,0.040512964,-0.08721621,0.048585072,-0.016204901,0.09660365,0.5975932,-0.29167363,-0.08579159,-0.2978407,-0.31515765,0.08566171,0.24752173,-0.17260374,-0.016207017,-0.05039705,-0.0585797,0.012894236,-0.005678514,-0.045305964,0.04846612,-0.06352537,0.010164728,0.0044927592,-0.027992427,-0.050927993,3.0,-0.35076833,-3.0,3.0,3.0,-3.0,-3.0,-1.3594286,-3.0,-3.0,1.7792429,-3.0,3.0,-0.76174235,-3.0,3.0,3.0,-2.5851493,-3.0,-1.2671003,-3.0,-3.0,2.2823963,-3.0
2025-06-06 16:16:46.584,-0.07921462,0.01597901,-0.030430432,-0.031571176,0.00046045624,0.042950533,0.0,0.0,0.0,0.04036036,-0.08429933,0.04192088,-0.014255089,0.10029236,0.59625053,-0.28666654,-0.08064358,-0.28709364,-0.3088541,0.09030116,0.24079706,-0.1786063,-0.07585662,-0.03170689,-0.044115435,0.0014067134,0.030557403,-0.0144475475,-0.053161636,0.0383833,-0.03537705,0.015808228,0.051969692,-0.08776218,3.0,-0.76174235,-3.0,3.0,3.0,-2.5851493,-3.0,-1.2671003,-3.0,-3.0,2.2823963,-3.0,3.0,-0.22947308,-3.0,3.0,3.0,-3.0,-3.0,-1.292311,-3.0,-3.0,1.7171742,-3.0
2025-06-06 16:16:46.605,0.053361434,0.064853825,0.0058409832,-0.093157254,0.06555584,0.037924312,0.0,0.0,0.0,0.040878586,-0.09169869,0.05053938,-0.02053291,0.11269446,0.59708554,-0.29447067,-0.09590401,-0.2950292,-0.3256676,0.07672645,0.2587921,-0.18161121,-0.0652413,0.0068628676,-0.04252338,0.06268208,-0.073273234,0.04653824,-0.041573044,-0.03597715,-0.073150665,-0.05783422,0.049646918,0.001029456,3.0,-0.22947308,-3.0,3.0,3.0,-3.0,-3.0,-1.292311,-3.0,-3.0,1.7171742,-3.0,3.0,-0.42207208,-3.0,3.0,3.0,-3.0,-3.0,-1.2162651,-3.0,-3.0,1.7689332,-3.0
2025-06-06 16:16:46.626,-0.005315827,0.04056467,0.02310537,-0.07677739,0.042401966,-0.046913598,0.0,0.0,0.0,0.04144747,-0.08790987,0.047760315,-0.012951347,0.10766828,0.60358787,-0.29454282,-0.08843226,-0.30292797,-0.3219058,0.084690206,0.2550598,-0.17472775,-0.0351297,0.032955166,-0.072311364,0.036009457,-0.06405273,-0.035577167,0.032027967,-0.063152015,0.024826284,-0.01899948,-0.00031190243,0.016096057,3.0,-0.42207208,-3.0,3.0,3.0,-3.0,-3.0,-1.2162651,-3.0,-3.0,1.7689332,-3.0,3.0,-0.5516289,-3.0,3.0,3.0,-3.0,-3.0,-1.3182241,-3.0,-3.0,1.9807862,-3.0
2025-06-06 16:16:46.645,-0.04442473,0.009655951,0.027599216,0.0029618512,0.031909037,0.028589353,0.0,0.0,0.0,0.041715804,-0.08528715,0.053850483,-0.012178914,0.102066725,0.607228,-0.2857994,-0.0792684,-0.29190692,-0.32201958,0.08600651,0.25605562,-0.16850159,-0.06732647,-0.0034422332,-0.05134684,-0.016281588,0.07007351,0.002428475,-0.028602106,0.052971322,0.052766833,0.032937873,-0.030257367,-0.03757815,3.0,-0.5516289,-3.0,3.0,3.0,-3.0,-3.0,-1.3182241,-3.0,-3.0,1.9807862,-3.0,3.0,-0.5072749,-3.0,3.0,3.0,-2.9195423,-3.0,-1.3670706,-3.0,-3.0,2.0333087,-3.0
2025-06-06 16:16:46.665,0.039985456,0.02651672,-0.022956632,-0.014696049,0.014641749,0.030438093,0.0,0.0,0.0,0.042021014,-0.085657924,0.04575765,-0.020690715,0.09255236,0.6117119,-0.2879162,-0.09248958,-0.2928923,-0.3235901,0.08881618,0.25908092,-0.16770105,-0.008765316,0.018821644,0.023204025,0.0663919,-0.049994476,-0.012555203,0.014025545,-0.005622446,0.005059052,-0.053244825,-0.0013291701,-0.0591473,3.0,-0.5072749,-3.0,3.0,3.0,-2.9195423,-3.0,-1.3670706,-3.0,-3.0,2.0333087,-3.0,3.0,-0.24217546,-3.0,3.0,3.0,-3.0,-3.0,-1.2874376,-3.0,-3.0,1.6903995,-3.0
2025-06-06 16:16:46.685,0.03783096,-0.036152977,-0.019492421,-0.04278083,-0.026465757,0.040963594,0.0,0.0,0.0,0.042525765,-0.09113455,0.03894039,-0.011153859,0.09965394,0.60948163,-0.28552258,-0.07787892,-0.29136336,-0.32487932,0.08008426,0.2682458,-0.17576829,0.0646423,-0.013093726,-0.023727236,-0.0094059,0.029391116,-0.056942623,0.03129356,0.020853845,-0.021276247,0.02884761,0.06840071,-0.01775457,3.0,-0.24217546,-3.0,3.0,3.0,-3.0,-3.0,-1.2874376,-3.0,-3.0,1.6903995,-3.0,3.0,-0.458985,-3.0,3.0,3.0,-3.0,-3.0,-1.2989318,-3.0,-3.0,1.8222394,-3.0
2025-06-06 16:16:46.705,-0.022753274,-0.039301924,0.039464742,-0.061743796,0.0008328644,0.022836505,0.0,0.0,0.0,0.042766325,-0.08424078,0.0385072,-0.028914334,0.09486501,0.61112976,-0.2901089,-0.07784288,-0.30034176,-0.3244482,0.08516222,0.26700765,-0.16640665,-0.04129169,0.003975441,-0.020563595,-0.03508114,-0.052241404,0.054106,0.032184925,-0.015986132,0.06703573,0.0096662175,-0.07485963,0.07599348,3.0,-0.458985,-3.0,3.0,3.0,-3.0,-3.0,-1.2989318,-3.0,-3.0,1.8222394,-3.0,3.0,-0.5925295,-3.0,3.0,3.0,-2.9979594,-3.0,-1.3554292,-3.0,-3.0,2.0242722,-3.0
2025-06-06 16:16:46.726,-0.036185715,0.029432395,-0.058296427,-0.028552845,0.07008557,-0.021166606,0.0,0.0,0.0,0.042771555,-0.09001417,0.03786212,-0.015987823,0.098558314,0.59788674,-0.29671833,-0.088030905,-0.30238178,-0.3263719,0.09672029,0.2496864,-0.18464251,0.047522523,0.033354476,0.011657397,-0.07244874,-0.06205019,0.013453925,-0.04836197,0.030483166,-0.022837682,0.05235029,-0.050224613,-0.05831414,3.0,-0.5925295,-3.0,3.0,3.0,-2.9979594,-3.0,-1.3554292,-3.0,-3.0,2.0242722,-3.0,3.0,0.016320052,-3.0,3.0,3.0,-3.0,-3.0,-1.4317511,-3.0,-3.0,1.3381135,-3.0
2025-06-06 16:16:46.745,0.008558468,-0.05882302,-0.023375401,-0.013122611,0.047032,0.018559078,0.0,0.0,0.0,0.042922106,-0.09139468,0.044800095,-0.016015125,0.097626865,0.60886,-0.28448415,-0.08263066,-0.2982041,-0.32515526,0.08781726,0.26140752,-0.16401495,0.024005482,-0.024609393,-0.042708337,-0.0058042845,0.06339924,0.045329496,-0.03028251,0.021598019,0.068668045,0.053532366,0.053319067,-0.04867282,3.0,0.016320052,-3.0,3.0,3.0,-3.0,-3.0,-1.4317511,-3.0,-3.0,1.3381135,-3.0,3.0,-0.45357674,-3.0,3.0,3.0,-3.0,-3.0,-1.3480242,-3.0,-3.0,1.7217304,-3.0
2025-06-06 16:16:46.765,-0.02344127,-0.06503893,-0.022294862,-0.06517268,-0.013311774,0.04239931,0.0,0.0,0.0,0.04267516,-0.07868103,0.040379193,-0.030696038,0.10791155,0.6048542,-0.28291404,-0.09302775,-0.29914537,-0.31451324,0.08569982,0.24027698,-0.16299273,0.009450683,0.00983063,0.047686182,-0.06607045,-0.04671789,0.029235868,-0.062327243,-0.023939457,-0.036627308,0.06525558,0.004744724,0.00312648,3.0,-0.45357674,-3.0,3.0,3.0,-3.0,-3.0,-1.3480242,-3.0,-3.0,1.7217304,-3.0,3.0,-0.18657291,-3.0,3.0,3.0,-3.0,-3.0,-1.4120424,-3.0,-3.0,1.4825977,-3.0
2025-06-06 16:16:46.785,0.041982874,-0.010447766,0.009585562,-0.038941372,-0.010766323,0.007288379,0.0,0.0,0.0,0.04225561,-0.079085365,0.04251116,-0.034136266,0.108240396,0.60611653,-0.30088067,-0.0871926,-0.29927015,-0.3190075,0.097375445,0.25256932,-0.16104342,-0.015343976,-0.05849878,-0.06130059,-0.045729388,0.0055524744,-0.07719543,-0.07259123,0.058290318,-0.018900847,-0.06609807,-0.060598183,0.004014852,3.0,-0.18657291,-3.0,3.0,3.0,-3.0,-3.0,-1.4120424,-3.0,-3.0,1.4825977,-3.0,3.0,-0.41514692,-3.0,3.0,3.0,-3.0,-3.0,-1.2763146,-3.0,-3.0,1.8380308,-3.0
2025-06-06 16:16:46.805,0.039299645,0.027432604,0.017304918,-0.06743711,0.062326003,-0.021989906,0.0,0.0,0.0,0.041755527,-0.08733271,0.052842878,-0.02693598,0.103131436,0.59632653,-0.29007357,-0.09594069,-0.30677575,-0.30957633,0.08264057,0.23802719,-0.17307737,0.05857216,0.046414442,0.03166807,-0.059183102,0.043205425,-0.0123313675,0.03933241,0.046276297,-0.014116515,-0.030801345,0.015103154,-0.015350256,3.0,-0.41514692,-3.0,3.0,3.0,-3.0,-3.0,-1.2763146,-3.0,-3.0,1.8380308,-3.0,3.0,-0.5137226,-3.0,3.0,3.0,-3.0,-3.0,-1.3837961,-3.0,-3.0,1.9191093,-3.0
2025-06-06 16:16:46.826,0.011577885,0.033912778,-0.05514332,-0.0415523,0.0024391965,0.039685387,0.0,0.0,0.0,0.04138748,-0.08793963,0.053849407,-0.03263875,0.09886993,0.5952251,-0.29596144,-0.08480312,-0.2986722,-0.31769606,0.07769567,0.25098026,-0.17189588,0.015446396,0.064999215,-0.046163626,-0.02077257,0.042645488,-0.05430949,0.04305422,-0.016044304,-0.072783075,0.027691549,-0.0165926,0.0075901793,3.0,-0.5137226,-3.0,3.0,3.0,-3.0,-3.0,-1.3837961,-3.0,-3.0,1.9191093,-3.0,3.0,-0.05432486,-3.0,3.0,3.0,-3.0,-3.0,-1.3108971,-3.0,-3.0,1.4878893,-3.0
2025-06-06 16:16:46.846,0.012368083,-0.04319451,0.023586992,-0.033469893,-0.028847422,-0.010297075,0.0,0.0,0.0,0.041401733,-0.0792293,0.041692346,-0.030085184,0.10922471,0.608063,-0.29428142,-0.086784326,-0.30019733,-0.30833644,0.08872505,0.24017501,-0.16569766,-0.039425064,-0.052378975,0.0541044,-0.012964514,-0.03250159,0.06094017,0.04375394,-0.045944955,-0.019345691,0.034001093,-0.017700732,0.044040155,3.0,-0.05432486,-3.0,3.0,3.0,-3.0,-3.0,-1.3108971,-3.0,-3.0,1.4878893,-3.0,3.0,-0.60173005,-3.0,3.0,3.0,-3.0,-3.0,-1.3027488,-3.0,-3.0,1.8675414,-3.0
2025-06-06 16:16:46.865,0.017676067,-0.009201439,-0.007691934,-0.0013650233,0.05958652,-0.0055119405,0.0,0.0,0.0,0.041253094,-0.074649185,0.047327083,-0.031906746,0.10037588,0.60186213,-0.3015723,-0.09362948,-0.31043366,-0.324253,0.09181626,0.24250369,-0.15905704,0.0068009454,-0.061832614,0.07097235,0.051869955,-0.07256226,-0.044868845,-0.07528895,-0.03439216,0.0009788086,-0.05741666,-0.0054121385,0.055183876,3.0,-0.60173005,-3.0,3.0,3.0,-3.0,-3.0,-1.3027488,-3.0,-3.0,1.8675414,-3.0,3.0,-0.21558961,-3.0,3.0,3.0,-3.0,-3.0,-1.4766117,-3.0,-3.0,1.640084,-3.0
2025-06-06 16:16:46.886,0.004613055,0.02056889,-0.03649796,-0.079929516,0.051460475,-0.022522718,0.0,0.0,0.0,0.04119861,-0.085647546,0.047931246,-0.033995,0.11581804,0.5957365,-0.2877607,-0.084292985,-0.29517093,-0.31958085,0.08431788,0.24715291,-0.16257165,-0.028537443,-0.0043019415,0.0065540555,0.02929456,-0.03473291,-0.037567485,0.058175866,0.03291604,-0.02436586,-0.038966343,0.011318266,-0.0005714638,3.0,-0.21558961,-3.0,3.0,3.0,-3.0,-3.0,-1.4766117,-3.0,-3.0,1.640084,-3.0,3.0,-0.23246136,-3.0,3.0,3.0,-3.0,-3.0,-1.2732015,-3.0,-3.0,1.4714304,-3.0
2025-06-06 16:16:46.908,-0.016414415,-0.045009203,0.022831393,-0.05782234,0.0136816725,0.035901856,0.0,0.0,0.0,0.04126688,-0.07899577,0.055274002,-0.032685373,0.11142699,0.5903541,-0.30420187,-0.09917796,-0.29437914,-0.30795875,0.09446653,0.25199142,-0.15218346,-0.013065784,0.07426648,0.049135517,-0.053034775,-0.0019895607,-0.05747267,-0.011272238,0.04615882,0.03730329,-0.05738009,0.024567133,0.07669572,3.0,-0.23246136,-3.0,3.0,3.0,-3.0,-3.0,-1.2732015,-3.0,-3.0,1.4714304,-3.0,3.0,-0.52370065,-3.0,3.0,3.0,-3.0,-3.0,-1.3729913,-3.0,-3.0,1.9305688,-3.0
2025-06-06 16:16:46.926,-0.010307548,0.04326678,0.013907319,-0.094553284,-0.032889023,-0.03064426,0.0,0.0,0.0,0.0410859,-0.07595408,0.049140155,-0.029523123,0.11371482,0.610013,-0.28733504,-0.09472807,-0.31208885,-0.32293427,0.08823169,0.23716323,-0.16865923,0.038283423,-0.008897475,-0.0028141805,0.0068620373,-0.016172374,0.0736907,-0.035616856,0.034130394,-0.07508551,0.057247777,-0.031076683,-0.04179987,3.0,-0.52370065,-3.0,3.0,3.0,-3.0,-3.0,-1.3729913,-3.0,-3.0,1.9305688,-3.0,3.0,-0.38186845,-3.0,3.0,3.0,-3.0,-3.0,-1.3621521,-3.0,-3.0,1.7265931,-3.0
2025-06-06 16:16:46.946,-0.013858229,0.030686565,-0.034662463,-0.023407646,0.031085178,0.015832404,0.0,0.0,0.0,0.04111752,-0.075142525,0.042572178,-0.025523022,0.10882998,0.5976419,-0.29707664,-0.100267075,-0.29987344,-0.32355908,0.08034277,0.24286832,-0.15961778,-0.027597416,-0.055853996,0.035371177,-0.008423888,-0.015416979,-0.019587368,-0.021599025,0.019849787,-0.06921465,0.038876437,-0.04946556,-0.06552564,3.0,-0.38186845,-3.0,3.0,3.0,-3.0,-3.0,-1.3621521,-3.0,-3.0,1.7265931,-3.0,3.0,-0.1076833,-3.0,3.0,3.0,-3.0,-3.0,-1.381523,-3.0,-3.0,1.4250747,-3.0
2025-06-06 16:16:46.966,0.068798184,-0.041813795,-0.025230192,-0.0074684233,-0.008977993,-0.020567367,0.0,0.0,0.0,0.041315623,-0.078582905,0.056682654,-0.036662772,0.108955696,0.5987545,-0.29063925,-0.09712572,-0.30363026,-0.31510958,0.08013214,0.25221154,-0.16310468,-0.04553649,0.06518997,-0.0042271717,-0.056674678,0.017562533,0.037844587,0.0021869328,-0.009328254,-0.0591394,-0.021228937,-0.0011095641,0.05340707,3.0,-0.1076833,-3.0,3.0,3.0,-3.0,-3.0,-1.381523,-3.0,-3.0,1.4250747,-3.0,3.0,-0.22426564,-3.0,3.0,3.0,-3.0,-3.0,-1.3005322,-3.0,-3.0,1.4721371,-3.0
2025-06-06 16:16:46.986,0.049413245,0.036746953,-0.019535093,-0.048607033,-0.016174423,-0.03571399,0.0,0.0,0.0,0.041230485,-0.08688477,0.045536265,-0.031875577,0.1008597,0.60580885,-0.2996449,-0.094540715,-0.30414283,-0.31091297,0.08730723,0.24069189,-0.16207312,0.029933479,-0.0397815,0.017301196,-0.065097235,-0.017266516,-0.068990886,0.025138084,0.011548615,0.06988082,-0.04910052,0.05656694,0.04557442,3.0,-0.22426564,-3.0,3.0,3.0,-3.0,-3.0,-1.3005322,-3.0,-3.0,1.4721371,-3.0,3.0,-0.38975403,-3.0,3.0,3.0,-3.0,-3.0,-1.3614632,-3.0,-3.0,1.6956427,-3.0
2025-06-06 16:16:47.009,-0.027167263,-0.037917398,-0.020584814,-0.064407386,0.038351055,-0.047031794,0.0,0.0,0.0,0.04086358,-0.072322756,0.04338153,-0.031909347,0.11874749,0.58954406,-0.30465043,-0.098894104,-0.3127292,-0.30984923,0.08199547,0.24335146,-0.1650895,-0.029465716,-0.03430082,-0.038187783,-0.044318262,-0.038910385,-0.010742469,-0.057113837,0.07498679,0.028725022,-0.027501602,0.021824284,-0.022075938,3.0,-0.38975403,-3.0,3.0,3.0,-3.0,-3.0,-1.3614632,-3.0,-3.0,1.6956427,-3.0,3.0,-0.2071887,-3.0,3.0,3.0,-3.0,-3.0,-1.4000803,-3.0,-3.0,1.4813946,-3.0
2025-06-06 16:16:47.026,0.05727038,0.032266866,0.00877926,-0.018064747,-0.01159503,0.017311303,0.0,0.0,0.0,0.040617403,-0.08480332,0.054299086,-0.02572743,0.103191994,0.6038084,-0.30677992,-0.090787746,-0.30097565,-0.32207778,0.088637665,0.24376155,-0.15295528,0.05889904,0.029656222,-0.052113853,0.058759835,-0.0425167,0.016600756,-0.061495427,0.019318117,0.031345543,0.050493978,0.042093333,0.053651176,3.0,-0.2071887,-3.0,3.0,3.0,-3.0,-3.0,-1.4000803,-3.0,-3.0,1.4813946,-3.0,3.0,-0.4345345,-3.0,3.0,3.0,-3.0,-3.0,-1.3503565,-3.0,-3.0,1.7791356,-3.0
2025-06-06 16:16:47.046,-0.039088733,-0.025956782,0.0052906196,-0.010703733,0.041734837,0.030060349,0.0,0.0,0.0,0.04042419,-0.08523101,0.04741309,-0.028302701,0.10352308,0.58853257,-0.2945983,-0.10333675,-0.3039859,-0.31026307,0.084485374,0.2342955,-0.16193357,0.03627628,0.02381785,0.052184936,-0.050364528,-0.058485586,-0.054263193,-0.010077688,0.074456856,-0.06245292,0.06789248,-0.009294204,0.035893995,3.0,-0.4345345,-3.0,3.0,3.0,-3.0,-3.0,-1.3503565,-3.0,-3.0,1.7791356,-3.0,3.0,-0.35179543,-3.0,3.0,3.0,-3.0,-3.0,-1.408987,-3.0,-3.0,1.6670043,-3.0
2025-06-06 16:16:47.066,0.033398315,0.02145148,-0.035974726,-0.052390907,-0.019052472,-0.02845093,0.0,0.0,0.0,0.040439975,-0.08924029,0.05888057,-0.02875479,0.103333905,0.59948635,-0.2971254,-0.091518566,-0.31057307,-0.31684265,0.08236337,0.23872194,-0.14787367,0.008055845,0.062301695,-0.051577035,0.062860906,0.016721426,-0.0063182823,-0.055057794,-0.0346021,0.016733043,-0.0690578,0.06190538,-0.0024953526,3.0,-0.35179543,-3.0,3.0,3.0,-3.0,-3.0,-1.408987,-3.0,-3.0,1.6670043,-3.0,3.0,-0.18770388,-3.0,3.0,3.0,-3.0,-3.0,-1.3195184,-3.0,-3.0,1.5649937,-3.0
2025-06-06 16:16:47.086,0.04276578,0.0026437605,-0.0009606743,-0.080682516,0.04620761,-0.043062344,0.0,0.0,0.0,0.040637214,-0.08855658,0.05607097,-0.026859367,0.10096496,0.59955347,-0.3003958,-0.101985954,-0.29646635,-0.32474956,0.09152623,0.23542774,-0.14760152,-0.01784112,0.027146341,0.054187737,-0.008201083,-0.004588675,-0.035036247,-0.012239365,-0.008671856,-0.06288618,0.062620796,-0.056267306,0.040086597,3.0,-0.18770388,-3.0,3.0,3.0,-3.0,-3.0,-1.3195184,-3.0,-3.0,1.5649937,-3.0,3.0,-0.32692873,-3.0,3.0,3.0,-3.0,-3.0,-1.3522139,-3.0,-3.0,1.6804668,-3.0
2025-06-06 16:16:47.109,0.04491613,0.040845126,-0.035027914,-0.022317866,0.012939137,0.013633139,0.0,0.0,0.0,0.040715586,-0.07939619,0.046406887,-0.02865786,0.11527492,0.5962913,-0.28666618,-0.09202145,-0.30749443,-0.31200483,0.09376734,0.22964601,-0.15603599,-0.04225495,-0.01329955,-0.07340994,-0.04710313,0.075116836,0.03700925,-0.000249772,-0.012866067,0.06893108,-0.07257343,-0.037758134,-0.031077042,3.0,-0.32692873,-3.0,3.0,3.0,-3.0,-3.0,-1.3522139,-3.0,-3.0,1.6804668,-3.0,3.0,-0.18394583,-3.0,3.0,3.0,-3.0,-3.0,-1.3491135,-3.0,-3.0,1.5993818,-3.0
2025-06-06 16:16:47.126,-0.0026588864,-0.0062715737,0.0017787284,-0.060200326,0.018159265,0.013097245,0.0,0.0,0.0,0.04076048,-0.085420266,0.060916796,-0.033020675,0.10639711,0.5943982,-0.28908476,-0.0984098,-0.30736336,-0.32393372,0.08396645,0.23072995,-0.15701136,0.05454116,-0.035788126,0.022702258,-0.025849504,0.02446923,0.02040894,0.015473283,-0.041683298,0.056733795,0.02214495,0.061627943,0.053257216,3.0,-0.18394583,-3.0,3.0,3.0,-3.0,-3.0,-1.3491135,-3.0,-3.0,1.5993818,-3.0,3.0,-0.46894917,-3.0,3.0,3.0,-3.0,-3.0,-1.3743109,-3.0,-3.0,1.8216851,-3.0
2025-06-06 16:16:47.146,0.009938214,-0.041530743,-0.061677717,-0.053168036,0.04606869,-0.03520617,0.0,0.0,0.0,0.040747564,-0.07496773,0.054679383,-0.035627514,0.10633977,0.6077444,-0.28640434,-0.10186792,-0.2958089,-0.311202,0.086087555,0.2345345,-0.1608077,0.053946476,0.011140306,-0.051411863,0.0057170712,-0.06352562,-0.010790038,-0.043191046,-0.06827502,-0.05783623,-0.009025022,0.0790346,-0.0026591183,3.0,-0.46894917,-3.0,3.0,3.0,-3.0,-3.0,-1.3743109,-3.0,-3.0,1.8216851,-3.0,3.0,0.035614792,-3.0,3.0,3.0,-3.0,-3.0,-1.3923969,-3.0,-3.0,1.2504566,-3.0
2025-06-06 16:16:47.166,0.044596285,-0.001960901,0.048031356,-0.07458994,0.061336856,-0.045296058,0.0,0.0,0.0,0.040898096,-0.07728451,0.047803633,-0.040805776,0.10719067,0.59698606,-0.2984975,-0.10110378,-0.31155878,-0.31537527,0.087854095,0.2474144,-0.15641822,-0.06625345,0.003072204,0.034520637,0.003009435,0.011551773,-0.07779735,-0.034868047,0.006596999,-0.042054173,0.064331606,-0.039062206,0.059453737,3.0,0.035614792,-3.0,3.0,3.0,-3.0,-3.0,-1.3923969,-3.0,-3.0,1.2504566,-3.0,3.0,-0.6854403,-3.0,3.0,3.0,-2.9860687,-3.0,-1.2765206,-3.0,-3.0,2.0350065,-3.0
2025-06-06 16:16:47.187,-0.051480435,0.041795846,0.022398451,-0.014927099,0.030849097,-0.031979017,0.0,0.0,0.0,0.04073518,-0.07430211,0.04982527,-0.041823737,0.10853377,0.60563284,-0.30345324,-0.091464944,-0.30696708,-0.31435683,0.077891015,0.24306238,-0.15583095,-0.07342474,-0.016804786,-0.054285374,0.06799079,0.005878708,0.062515534,-0.038951278,-0.03936538,-0.013638981,-0.042605884,0.025253523,-0.03335313,3.0,-0.6854403,-3.0,3.0,3.0,-2.9860687,-3.0,-1.2765206,-3.0,-3.0,2.0350065,-3.0,3.0,-0.4147478,-3.0,3.0,3.0,-3.0,-3.0,-1.3796431,-3.0,-3.0,1.8643686,-3.0
2025-06-06 16:16:47.209,-0.06599718,0.04184055,-0.032430496,-0.0021510054,-0.025195876,0.004596439,0.0,0.0,0.0,0.04079734,-0.08168175,0.057784386,-0.025507726,0.096651554,0.59963053,-0.29484332,-0.103963666,-0.30879158,-0.313192,0.084332116,0.23638341,-0.16661428,-0.015650922,0.028342426,0.06318025,-0.0524685,0.0486769,0.0030992436,-0.0066048536,-0.044224314,-0.011346133,-0.06855733,0.08620073,-0.06850922,3.0,-0.4147478,-3.0,3.0,3.0,-3.0,-3.0,-1.3796431,-3.0,-3.0,1.8643686,-3.0,3.0,-0.26584604,-3.0,3.0,3.0,-3.0,-3.0,-1.3071159,-3.0,-3.0,1.6782519,-3.0
2025-06-06 16:16:47.227,0.030440912,0.025343005,-0.04143037,-0.038025,0.00060580514,-0.015339617,0.0,0.0,0.0,0.041182492,-0.0926304,0.037805818,-0.029156474,0.10461511,0.60342246,-0.29232785,-0.09009993,-0.29372048,-0.31467503,0.07783975,0.2508771,-0.15464665,0.0686307,-0.034131348,-0.029650189,-0.026753668,-0.037517436,0.010568741,0.07391009,0.022905907,-0.049450155,-0.046442885,0.06775412,0.032513153,3.0,-0.26584604,-3.0,3.0,3.0,-3.0,-3.0,-1.3071159,-3.0,-3.0,1.6782519,-3.0,3.0,-0.26122254,-3.0,3.0,3.0,-3.0,-3.0,-1.3331934,-3.0,-3.0,1.4852945,-3.0
2025-06-06 16:16:47.247,0.03516197,-0.038403023,-0.013619395,-0.08552961,0.036038406,0.03370185,0.0,0.0,0.0,0.041447185,-0.084496774,0.047429487,-0.0343736,0.10044854,0.6014082,-0.288884,-0.09741868,-0.29572624,-0.3205619,0.08038543,0.25391978,-0.15438528,-0.03519402,-0.067766935,0.044756822,0.05332875,0.06544711,0.026383402,0.05193659,-0.024861531,0.05264401,0.042103384,0.0026564477,-0.037068687,3.0,-0.26122254,-3.0,3.0,3.0,-3.0,-3.0,-1.3331934,-3.0,-3.0,1.4852945,-3.0,3.0,-0.3917234,-3.0,3.0,3.0,-3.0,-3.0,-1.4145051,-3.0,-3.0,1.7431041,-3.0
2025-06-06 16:16:47.267,0.047892973,-0.028563952,-0.027170174,-0.043604195,-0.017679067,0.009184449,0.0,0.0,0.0,0.041386336,-0.08436213,0.05155756,-0.024333231,0.10432171,0.59365785,-0.2887828,-0.09907136,-0.29613397,-0.30661327,0.087460525,0.24318251,-0.16980496,-0.057646364,0.018040942,0.051438645,0.047394626,-0.028208258,-0.07109008,-0.028785959,-0.03779119,-0.0033368533,-0.0637437,0.04029666,0.03222955,3.0,-0.3917234,-3.0,3.0,3.0,-3.0,-3.0,-1.4145051,-3.0,-3.0,1.7431041,-3.0,3.0,-0.17932871,-3.0,3.0,3.0,-3.0,-3.0,-1.3011876,-3.0,-3.0,1.5703129,-3.0
2025-06-06 16:16:47.287,0.039744664,0.03524359,-0.012244552,-0.06266845,0.035429314,0.039378278,0.0,0.0,0.0,0.041347597,-0.089257,0.041839615,-0.041728873,0.10978506,0.6119098,-0.29480606,-0.08893322,-0.29931128,-0.30332553,0.08327426,0.2371784,-0.16432507,0.015226968,-0.0599362,-0.023831496,-0.010690214,0.061575167,0.029034145,-0.033577755,0.04056267,-0.019447062,0.009933138,-0.062109847,0.07179061,3.0,-0.17932871,-3.0,3.0,3.0,-3.0,-3.0,-1.3011876,-3.0,-3.0,1.5703129,-3.0,3.0,-0.31850818,-3.0,3.0,3.0,-3.0,-3.0,-1.3900756,-3.0,-3.0,1.6425086,-3.0
2025-06-06 16:16:47.309,-0.010537093,-0.015032387,0.03180766,-0.056559063,0.03450629,0.026450124,0.0,0.0,0.0,0.041204154,-0.07642204,0.039551616,-0.030066546,0.11098842,0.5959031,-0.29682645,-0.09879472,-0.2999365,-0.3134125,0.091442265,0.23272449,-0.15129651,-0.042697147,0.054759655,-0.003321301,0.054194514,-0.017910043,0.04177679,-0.029663516,-0.058645852,0.008377702,-0.005194003,-0.009774681,-0.040460702,3.0,-0.31850818,-3.0,3.0,3.0,-3.0,-3.0,-1.3900756,-3.0,-3.0,1.6425086,-3.0,3.0,-0.53518045,-3.0,3.0,3.0,-3.0,-3.0,-1.3123559,-3.0,-3.0,1.9483734,-3.0
2025-06-06 16:16:47.328,0.008046638,0.04210728,-0.03647006,-0.072436295,0.0066478243,-0.02926203,0.0,0.0,0.0,0.041033667,-0.07982059,0.046526518,-0.03973602,0.11046355,0.60190344,-0.3043447,-0.10183863,-0.29118443,-0.31025907,0.07942488,0.23804623,-0.15076345,0.054540463,-0.06936214,-0.009237003,-0.008041084,0.049528927,-0.052051052,0.055348784,-0.058347978,0.061393544,0.017053904,-0.020263629,-0.07953476,3.0,-0.53518045,-3.0,3.0,3.0,-3.0,-3.0,-1.3123559,-3.0,-3.0,1.9483734,-3.0,3.0,-0.13870534,-3.0,3.0,3.0,-3.0,-3.0,-1.4152883,-3.0,-3.0,1.6088976,-3.0
2025-06-06 16:16:47.347,-0.00043303263,-0.03159111,0.0045198044,-0.08249132,0.007610009,-0.03185404,0.0,0.0,0.0,0.04116151,-0.08484938,0.052942507,-0.03530502,0.09629609,0.5999532,-0.29015794,-0.09791388,-0.2950267,-0.3057516,0.07986397,0.23712534,-0.16260397,-0.06651828,-0.05038355,0.056418348,0.0517554,-0.000144364,0.03674055,0.040584993,0.062132765,-0.031201908,0.00637424,-0.050206624,0.053327706,3.0,-0.13870534,-3.0,3.0,3.0,-3.0,-3.0,-1.4152883,-3.0,-3.0,1.6088976,-3.0,3.0,-0.38445175,-3.0,3.0,3.0,-3.0,-3.0,-1.3265992,-3.0,-3.0,1.6199186,-3.0
2025-06-06 16:16:47.368,-0.030951664,0.0011214074,0.011789091,-0.05620359,-0.030652126,-0.019852214,0.0,0.0,0.0,0.0412861,-0.077350006,0.039495006,-0.039887406,0.09999152,0.6010472,-0.29932752,-0.09818999,-0.29240167,-0.3226229,0.09532214,0.2390607,-0.15262337,-0.059068613,-0.013435146,0.05998616,0.017271351,0.0016099168,0.026359625,-0.020706497,0.016717095,0.026902387,-0.026684565,-0.05234345,0.018929785,3.0,-0.38445175,-3.0,3.0,3.0,-3.0,-3.0,-1.3265992,-3.0,-3.0,1.6199186,-3.0,3.0,-0.39098027,-3.0,3.0,3.0,-3.0,-3.0,-1.395008,-3.0,-3.0,1.7535602,-3.0
2025-06-06 16:16:47.387,-0.029583028,-0.0059494283,0.00022130251,-0.053854335,0.041772578,-0.03581636,0.0,0.0,0.0,0.041277133,-0.08751484,0.05524638,-0.03463728,0.11154025,0.60192955,-0.29853716,-0.09472386,-0.29331562,-0.30980965,0.08097561,0.2484633,-0.16282223,-0.026909595,-0.011258605,0.071992,-0.067555405,0.06809302,-0.06180931,-0.018110123,0.024565764,0.008905035,-0.05088044,-0.05353707,-0.01393257,3.0,-0.39098027,-3.0,3.0,3.0,-3.0,-3.0,-1.395008,-3.0,-3.0,1.7535602,-3.0,3.0,-0.31778663,-3.0,3.0,3.0,-3.0,-3.0,-1.3859072,-3.0,-3.0,1.7514745,-3.0
2025-06-06 16:16:47.409,-0.0446124,-0.0013402558,-0.0050736903,-0.00019468335,0.032499306,0.0026161377,0.0,0.0,0.0,0.041341383,-0.07927885,0.049350873,-0.02603898,0.10675576,0.61288184,-0.30399477,-0.10316822,-0.29456398,-0.31101072,0.078960575,0.23926191,-0.16439365,-0.007742743,0.041959245,0.06180803,-0.015654925,0.01989291,0.049517665,-0.00088835857,0.012798929,0.021217097,0.016392794,-0.063929304,0.07234074,3.0,-0.31778663,-3.0,3.0,3.0,-3.0,-3.0,-1.3859072,-3.0,-3.0,1.7514745,-3.0,3.0,-0.23920035,-3.0,3.0,3.0,-3.0,-3.0,-1.4270606,-3.0,-3.0,1.5774698,-3.0
2025-06-06 16:16:47.432,-0.02586382,-0.016712483,0.01128204,-0.085835986,-0.0031766382,0.038573608,0.0,0.0,0.0,0.04148097,-0.08926309,0.042773608,-0.031184737,0.098823436,0.6039569,-0.28733143,-0.09543184,-0.31058627,-0.3192947,0.086516425,0.2410888,-0.16055058,-0.039855346,-0.06049097,0.019606698,0.029629534,-0.0052307276,-0.016586358,0.039452143,-0.05205134,0.00018883374,-0.042616762,-0.007440377,0.025216812,3.0,-0.23920035,-3.0,3.0,3.0,-3.0,-3.0,-1.4270606,-3.0,-3.0,1.5774698,-3.0,3.0,-0.5395349,-3.0,3.0,3.0,-3.0,-3.0,-1.274905,-3.0,-3.0,1.9336978,-3.0
2025-06-06 16:16:47.449,0.032391604,-0.00292456,-0.04048069,0.0019865376,0.0022243732,-0.040947277,0.0,0.0,0.0,0.041519802,-0.07634769,0.039436653,-0.026049739,0.110269964,0.6129994,-0.29486337,-0.09669135,-0.3129426,-0.31957346,0.07888476,0.24391478,-0.16409174,-0.0631691,0.044786442,0.050780114,0.031343173,-0.023428814,-0.0692289,0.0030780488,0.049682267,-0.06287273,-0.06685941,-0.06180731,0.058580987,3.0,-0.5395349,-3.0,3.0,3.0,-3.0,-3.0,-1.274905,-3.0,-3.0,1.9336978,-3.0,3.0,-0.018599985,-3.0,3.0,3.0,-3.0,-3.0,-1.3990806,-3.0,-3.0,1.3344406,-3.0
2025-06-06 16:16:47.469,-0.0056398553,-0.022788925,0.05781272,-0.092338085,-0.0059896274,-0.041420195,0.0,0.0,0.0,0.04166448,-0.080774084,0.04436145,-0.032110345,0.109691404,0.60984147,-0.29681545,-0.08688497,-0.29615235,-0.31055737,0.09034134,0.2503099,-0.15657116,-0.0008014125,0.03362955,0.03890673,0.021617595,-0.023948364,-0.07510588,-0.009317706,0.04366032,-0.054924402,-0.0039947447,-0.06556228,-0.049085848,3.0,-0.018599985,-3.0,3.0,3.0,-3.0,-3.0,-1.3990806,-3.0,-3.0,1.3344406,-3.0,3.0,-0.774113,-3.0,3.0,3.0,-2.8804567,-3.0,-1.2468768,-3.0,-3.0,2.1189349,-3.0
2025-06-06 16:16:47.492,-0.036555074,0.06439199,0.007560562,-0.07079851,0.05397737,0.01923765,0.0,0.0,0.0,0.04149435,-0.08736442,0.046776906,-0.035235673,0.10303282,0.6097894,-0.29632086,-0.09456125,-0.29681683,-0.31361893,0.08890271,0.2414985,-0.17014612,-0.022543073,-0.055389628,0.056276944,-0.0691017,-0.012956958,0.060470052,-0.044104993,0.0792488,0.037748184,0.040259156,0.08481721,-0.021021195,3.0,-0.774113,-3.0,3.0,3.0,-2.8804567,-3.0,-1.2468768,-3.0,-3.0,2.1189349,-3.0,3.0,-0.39804438,-3.0,3.0,3.0,-3.0,-3.0,-1.4486195,-3.0,-3.0,1.8016237,-3.0
2025-06-06 16:16:47.509,0.03203982,0.009746273,-0.026952717,-0.025732495,-0.02418721,0.039009325,0.0,0.0,0.0,0.041594315,-0.07504779,0.0481648,-0.034475166,0.10918381,0.61200863,-0.2956312,-0.08604647,-0.30219272,-0.31122825,0.08725131,0.24134457,-0.1618436,-0.037461966,-0.052820213,0.0693085,0.02043445,-0.057344683,0.039144017,0.043029763,0.07052561,-0.03469909,0.060944732,-0.043931954,0.015211055,3.0,-0.39804438,-3.0,3.0,3.0,-3.0,-3.0,-1.4486195,-3.0,-3.0,1.8016237,-3.0,3.0,-0.15629274,-3.0,3.0,3.0,-3.0,-3.0,-1.3582641,-3.0,-3.0,1.422356,-3.0
2025-06-06 16:16:47.530,0.016433569,-0.03321426,0.03962321,-0.04337773,0.040558353,0.026155999,0.0,0.0,0.0,0.041977372,-0.08721816,0.03974126,-0.024860991,0.09744287,0.6001512,-0.2932702,-0.0881928,-0.293242,-0.3154734,0.09185887,0.25221017,-0.15328565,-0.048777632,-0.032385033,0.011237839,0.011760811,0.05454421,0.0040566837,0.009132475,-0.06747289,0.049052943,0.06571888,-0.06753633,-0.026144885,3.0,-0.15629274,-3.0,3.0,3.0,-3.0,-3.0,-1.3582641,-3.0,-3.0,1.422356,-3.0,3.0,-0.68101054,-3.0,3.0,3.0,-2.8727534,-3.0,-1.3397396,-3.0,-3.0,2.1575763,-3.0
2025-06-06 16:16:47.550,-0.02914385,-0.0072100367,0.007730983,-0.033245135,0.012382681,-0.013459686,0.0,0.0,0.0,0.04201285,-0.08732269,0.030242257,-0.035436664,0.09856407,0.60702515,-0.28315538,-0.08204832,-0.30110934,-0.31837627,0.0966841,0.25395042,-0.17179583,0.015725477,-0.023843959,-0.057074666,0.011915697,-0.014831665,-0.060724165,-0.06676508,-0.06798288,0.015207117,-0.016436337,0.035955057,0.062850185,3.0,-0.68101054,-3.0,3.0,3.0,-2.8727534,-3.0,-1.3397396,-3.0,-3.0,2.1575763,-3.0,3.0,-0.43758664,-3.0,3.0,3.0,-2.864473,-3.0,-1.315778,-3.0,-3.0,1.9751626,-3.0
2025-06-06 16:16:47.570,-0.017887255,0.055230167,-0.06427254,-0.046479307,0.030742835,0.023398882,0.0,0.0,0.0,0.04232088,-0.08422068,0.02848652,-0.0315374,0.09422057,0.60784453,-0.28383154,-0.088360816,-0.30999726,-0.32339418,0.08706541,0.24837662,-0.16401133,0.006162552,0.059904654,0.027342884,0.039611597,-0.02538024,-0.01644763,-0.06722823,-0.02262239,-0.010145643,-0.070922114,-0.048337553,0.0015087663,3.0,-0.43758664,-3.0,3.0,3.0,-2.864473,-3.0,-1.315778,-3.0,-3.0,1.9751626,-3.0,3.0,-0.013504265,-3.0,3.0,3.0,-3.0,-3.0,-1.324671,-3.0,-3.0,1.3992603,-3.0
2025-06-06 16:16:47.592,0.011543619,-0.030299585,-0.0054658703,-0.09045681,-0.020501222,-0.041832574,0.0,0.0,0.0,0.04290616,-0.07598454,0.04609861,-0.0228652,0.1055664,0.6123876,-0.29027146,-0.08486049,-0.3024322,-0.3219789,0.09448723,0.25022957,-0.1777308,-0.043404315,0.06443426,-0.07074427,0.07452544,-0.051856443,0.049438156,0.018361224,-0.07144704,0.05564168,0.031219162,-0.011016056,0.06989918,3.0,-0.013504265,-3.0,3.0,3.0,-3.0,-3.0,-1.324671,-3.0,-3.0,1.3992603,-3.0,3.0,-0.44701955,-3.0,3.0,3.0,-3.0,-3.0,-1.2730228,-3.0,-3.0,1.7076417,-3.0
2025-06-06 16:16:47.612,-0.028761344,-0.040844902,0.002400157,-0.06402544,0.031429328,0.030661993,0.0,0.0,0.0,0.042955827,-0.086877815,0.048333257,-0.01927276,0.106116585,0.6124658,-0.29168805,-0.088928916,-0.29587805,-0.32014117,0.08847033,0.25136968,-0.17281052,0.055528816,-0.0054694414,0.071685165,0.046321575,-0.0024736393,0.00853506,-0.073702075,0.05354066,0.02096946,-0.007926095,-0.05098955,-0.028951751,3.0,-0.44701955,-3.0,3.0,3.0,-3.0,-3.0,-1.2730228,-3.0,-3.0,1.7076417,-3.0,3.0,-0.34920526,-3.0,3.0,3.0,-3.0,-3.0,-1.5067465,-3.0,-3.0,1.7110208,-3.0
2025-06-06 16:16:47.632,0.0341957,-0.013456597,-0.0016674248,-0.06792804,-0.020350086,-0.04329074,0.0,0.0,0.0,0.042694855,-0.08153128,0.033717517,-0.03436487,0.11256664,0.6028778,-0.30053994,-0.09429129,-0.30538186,-0.32482046,0.086415745,0.24696489,-0.15995069,-0.032999203,-0.02321642,0.022200767,0.0056335283,0.01625951,0.001815874,-0.02034072,0.026716601,0.01482812,-0.06831851,-0.040134866,0.076538645,3.0,-0.34920526,-3.0,3.0,3.0,-3.0,-3.0,-1.5067465,-3.0,-3.0,1.7110208,-3.0,3.0,-0.2851765,-3.0,3.0,3.0,-3.0,-3.0,-1.325453,-3.0,-3.0,1.643202,-3.0
2025-06-06 16:16:47.653,-0.019551644,-0.0057529835,0.0016239799,-0.012292307,-0.003379569,-0.0013079329,0.0,0.0,0.0,0.04255468,-0.07774292,0.04840552,-0.035161365,0.10772734,0.59558976,-0.2857445,-0.098548144,-0.3003871,-0.32394937,0.079414114,0.2567141,-0.16433595,-0.0474557,-0.030162401,-0.07490341,-0.029834067,-0.047847554,-0.04224074,-0.06420711,0.012072346,-0.018621983,-0.00789738,-0.00025382603,-0.0066869147,3.0,-0.2851765,-3.0,3.0,3.0,-3.0,-3.0,-1.325453,-3.0,-3.0,1.643202,-3.0,3.0,-0.33878753,-3.0,3.0,3.0,-3.0,-3.0,-1.2917356,-3.0,-3.0,1.6777614,-3.0
2025-06-06 16:16:47.676,0.045877043,0.050549373,-0.025803678,-0.014754817,0.031882588,-0.012228058,0.0,0.0,0.0,0.042386696,-0.09083002,0.037712,-0.041018195,0.103196055,0.6089192,-0.30183724,-0.08375761,-0.311817,-0.3079594,0.079430655,0.24841855,-0.16421428,0.06698166,-0.032006256,0.045870453,-0.0021998263,0.04194169,-0.01183301,0.06677738,-0.022151137,0.039592523,-0.025097666,0.032823473,0.016016806,3.0,-0.33878753,-3.0,3.0,3.0,-3.0,-3.0,-1.2917356,-3.0,-3.0,1.6777614,-3.0,3.0,-0.38428986,-3.0,3.0,3.0,-3.0,-3.0,-1.4151539,-3.0,-3.0,1.7285069,-3.0
2025-06-06 16:16:47.693,-0.024370795,0.029378884,0.03737298,-0.05087682,0.04178648,0.0063677607,0.0,0.0,0.0,0.042144872,-0.08460725,0.043126464,-0.037522558,0.11206695,0.6083931,-0.28484926,-0.10141713,-0.2952042,-0.31811234,0.090765044,0.2539811,-0.16949849,0.020731583,-0.0421227,-0.064716764,0.0509292,0.027643586,-0.0074050277,-0.037675653,0.02560018,-0.057213344,0.06751725,0.054718122,-0.013599449,3.0,-0.38428986,-3.0,3.0,3.0,-3.0,-3.0,-1.4151539,-3.0,-3.0,1.7285069,-3.0,3.0,-0.6341143,-3.0,3.0,3.0,-2.917664,-3.0,-1.3201118,-3.0,-3.0,2.0302572,-3.0
2025-06-06 16:16:47.713,-0.014560532,-0.014799324,0.0002980521,-0.038661923,0.05179668,0.0077589382,0.0,0.0,0.0,0.042023495,-0.07618031,0.045023084,-0.03098935,0.10676626,0.60886836,-0.29391727,-0.10171888,-0.31035468,-0.30843163,0.09283352,0.25223118,-0.16563813,0.004041809,0.042292323,0.075836696,0.054391105,-0.06877312,-0.017254066,0.02567725,-0.062194865,0.06980244,-0.06347835,-0.020011473,-0.05508012,3.0,-0.6341143,-3.0,3.0,3.0,-2.917664,-3.0,-1.3201118,-3.0,-3.0,2.0302572,-3.0,3.0,-0.34468642,-3.0,3.0,3.0,-3.0,-3.0,-1.3974358,-3.0,-3.0,1.8360385,-3.0
2025-06-06 16:16:47.733,0.044331145,0.049877316,-0.046191175,0.0009106666,-0.0082799615,0.048648044,0.0,0.0,0.0,0.04229469,-0.08256886,0.047563154,-0.03602053,0.0942282,0.6010558,-0.28596443,-0.082865275,-0.30996376,-0.31809595,0.078191526,0.25541776,-0.17605628,-0.040677674,0.030936824,0.02641829,-0.05008878,-0.052491285,0.05685692,-0.006818976,0.028761476,0.038579118,0.020431133,-0.015032634,-0.078988224,3.0,-0.34468642,-3.0,3.0,3.0,-3.0,-3.0,-1.3974358,-3.0,-3.0,1.8360385,-3.0,3.0,-0.13209105,-3.0,3.0,3.0,-3.0,-3.0,-1.2842749,-3.0,-3.0,1.4388368,-3.0
2025-06-06 16:16:47.753,-0.013979996,-0.019707922,-0.022686373,-0.0030497806,0.05817058,-0.028260944,0.0,0.0,0.0,0.042714342,-0.08586153,0.048036672,-0.024290927,0.10821186,0.5982612,-0.2974682,-0.09264108,-0.2936807,-0.32506514,0.084047936,0.25934824,-0.16149701,-0.031161273,0.011471263,-0.034999926,0.03680155,0.0535191,-0.04224344,-0.026541125,-0.031247191,-0.0026137524,-0.024260806,-0.005851699,0.018302776,3.0,-0.13209105,-3.0,3.0,3.0,-3.0,-3.0,-1.2842749,-3.0,-3.0,1.4388368,-3.0,3.0,-0.3041595,-3.0,3.0,3.0,-3.0,-3.0,-1.3695015,-3.0,-3.0,1.6422815,-3.0
2025-06-06 16:16:47.775,0.022888456,0.0010334749,-0.008022133,-0.032633077,0.03928987,0.014909124,0.0,0.0,0.0,0.042676467,-0.07633387,0.04841057,-0.033657454,0.098068476,0.60336626,-0.2954474,-0.09797445,-0.3047565,-0.3243201,0.0989732,0.2443891,-0.16650988,-0.030750398,-0.032134734,-0.009121585,-0.022966888,-0.021113768,0.007417482,0.026343385,-0.016908772,0.023462962,0.0055304114,-0.043391936,0.07279697,3.0,-0.3041595,-3.0,3.0,3.0,-3.0,-3.0,-1.3695015,-3.0,-3.0,1.6422815,-3.0,3.0,-0.31538984,-3.0,3.0,3.0,-3.0,-3.0,-1.3617786,-3.0,-3.0,1.6994913,-3.0
2025-06-06 16:16:47.793,0.020644411,-0.023309134,0.056536905,-0.068699636,0.0450807,-0.03144275,0.0,0.0,0.0,0.04240201,-0.08867924,0.03944284,-0.030775225,0.104822285,0.6014773,-0.29746085,-0.08479859,-0.30595905,-0.32169884,0.08782437,0.25761992,-0.1602345,-0.055717025,-0.011070335,0.003765489,0.06592248,-0.033199463,0.068544894,-0.017671302,-0.02968029,0.004419634,0.02160469,0.018085623,-0.0071904236,3.0,-0.31538984,-3.0,3.0,3.0,-3.0,-3.0,-1.3617786,-3.0,-3.0,1.6994913,-3.0,3.0,-0.7484163,-3.0,3.0,3.0,-2.843758,-3.0,-1.3036765,-3.0,-3.0,2.1375883,-3.0
2025-06-06 16:16:47.813,-0.072448544,0.034348227,-0.038898017,-0.07644534,0.050943557,0.010178816,0.0,0.0,0.0,0.04217257,-0.08781318,0.04077804,-0.039880607,0.101552024,0.5938165,-0.2906804,-0.09212324,-0.30165845,-0.31205735,0.095947966,0.25562197,-0.1631831,-0.0026072934,-0.019094871,-0.031465765,0.05898457,-0.026624542,-0.05084396,0.028671563,0.033044573,-0.0063492325,-0.03813005,0.036783192,-0.08107535,3.0,-0.7484163,-3.0,3.0,3.0,-2.843758,-3.0,-1.3036765,-3.0,-3.0,2.1375883,-3.0,3.0,-0.21581429,-3.0,3.0,3.0,-3.0,-3.0,-1.3615131,-3.0,-3.0,1.6558572,-3.0
2025-06-06 16:16:47.877,0.02661761,0.010551517,0.0347773,-0.02332678,0.056570414,-0.0340012,0.0,0.0,0.0,0.04244067,-0.08710572,0.039189555,-0.03369951,0.098672256,0.6098273,-0.28443068,-0.08573729,-0.2910729,-0.319613,0.079678655,0.25133163,-0.17357029,-0.04278019,0.030124765,0.0626244,0.06462175,0.04959675,-0.045203395,0.044926878,-0.020709211,0.006076317,-0.014725397,0.05827845,-0.061786886,3.0,-0.21581429,-3.0,3.0,3.0,-3.0,-3.0,-1.3615131,-3.0,-3.0,1.6558572,-3.0,3.0,-0.7363017,-3.0,3.0,3.0,-2.8325825,-3.0,-1.2657083,-3.0,-3.0,2.1076548,-3.0
2025-06-06 16:16:47.897,-0.017967345,0.029828487,-0.007979914,-0.01609029,0.0028437213,-0.0031994318,0.0,0.0,0.0,0.042708546,-0.09330414,0.026418678,-0.019063558,0.1127592,0.60471153,-0.29083103,-0.09032579,-0.2885952,-0.32264158,0.088502705,0.2618846,-0.16412026,-0.0674747,0.06286723,0.0073361313,-0.046474583,0.037256356,-0.049394604,0.008116814,-0.005131039,0.041733824,-0.02712843,-0.004647842,-0.06970106,3.0,-0.7363017,-3.0,3.0,3.0,-2.8325825,-3.0,-1.2657083,-3.0,-3.0,2.1076548,-3.0,3.0,-0.32905445,-3.0,3.0,3.0,-3.0,-3.0,-1.3323513,-3.0,-3.0,1.8594853,-3.0
2025-06-06 16:16:47.933,-0.04727113,0.03533105,-0.050873835,-0.060041703,0.0143020125,-0.027517086,0.0,0.0,0.0,0.043154143,-0.090607084,0.0380918,-0.017478602,0.10963487,0.60696584,-0.29260215,-0.09437471,-0.30659688,-0.3226508,0.08848801,0.2599651,-0.16455139,-0.051926658,-0.073875,0.015170783,-0.046561286,-0.0044568446,-0.025778512,0.020443974,0.06603231,-0.061299298,0.047339413,0.0026220977,0.034588806,3.0,-0.32905445,-3.0,3.0,3.0,-3.0,-3.0,-1.3323513,-3.0,-3.0,1.8594853,-3.0,3.0,-0.14215654,-3.0,3.0,3.0,-3.0,-3.0,-1.3298303,-3.0,-3.0,1.4313923,-3.0
2025-06-06 16:16:47.951,0.025683645,-0.03497213,-0.0070782495,-0.056932934,0.058030035,0.03107835,0.0,0.0,0.0,0.043603864,-0.08880294,0.024249736,-0.026771046,0.098203555,0.6054392,-0.29146597,-0.0875977,-0.28945637,-0.31229496,0.083348334,0.2707975,-0.16857423,0.06502985,-0.015241335,-0.022834353,0.0773053,-0.014521739,0.005912793,-0.065050706,0.04831276,0.03526907,-0.01674965,-0.07560247,-0.01304237,3.0,-0.14215654,-3.0,3.0,3.0,-3.0,-3.0,-1.3298303,-3.0,-3.0,1.4313923,-3.0,3.0,-0.38572192,-3.0,3.0,3.0,-3.0,-3.0,-1.4177972,-3.0,-3.0,1.6745571,-3.0
2025-06-06 16:16:47.971,0.007516232,-0.06741885,0.032988638,-0.0885515,0.060603894,0.0071161487,0.0,0.0,0.0,0.043530177,-0.077176705,0.03619565,-0.023334142,0.11485348,0.61274344,-0.29165623,-0.08285004,-0.30167153,-0.3063932,0.08776554,0.25594318,-0.16821188,-0.0064399363,0.033171743,-0.035751265,-0.04922629,-0.0787442,-0.021699771,0.05507444,-0.010026718,0.04577665,0.047530185,-0.039354194,0.08170462,3.0,-0.38572192,-3.0,3.0,3.0,-3.0,-3.0,-1.4177972,-3.0,-3.0,1.6745571,-3.0,3.0,-0.55054,-3.0,3.0,3.0,-3.0,-3.0,-1.3529185,-3.0,-3.0,1.9189975,-3.0
