openverse-orca/OrcaGym/log/simulation_log_20250606_141118.csv
timestamp,imu_angle_roll,imu_angle_pitch,imu_angle_yaw,imu_angular_velocity_roll,imu_angular_velocity_pitch,imu_angular_velocity_yaw,imu_acc_x,imu_acc_y,imu_acc_z,fl_joint1_pos,fl_joint1_vel,fl_joint1_torque,fl_joint2_pos,fl_joint2_vel,fl_joint2_torque,fl_joint3_pos,fl_joint3_vel,fl_joint3_torque,fr_joint1_pos,fr_joint1_vel,fr_joint1_torque,fr_joint2_pos,fr_joint2_vel,fr_joint2_torque,fr_joint3_pos,fr_joint3_vel,fr_joint3_torque,hl_joint1_pos,hl_joint1_vel,hl_joint1_torque,hl_joint2_pos,hl_joint2_vel,hl_joint2_torque,hl_joint3_pos,hl_joint3_vel,hl_joint3_torque,hr_joint1_pos,hr_joint1_vel,hr_joint1_torque,hr_joint2_pos,hr_joint2_vel,hr_joint2_torque,hr_joint3_pos,hr_joint3_vel,hr_joint3_torque,fl_force_x,fl_force_y,fl_force_z,fr_force_x,fr_force_y,fr_force_z,hl_force_x,hl_force_y,hl_force_z,hr_force_x,hr_force_y,hr_force_z,fl_hip_action,fl_thigh_action,fl_calf_action,fr_hip_action,fr_thigh_action,fr_calf_action,hl_hip_action,hl_thigh_action,hl_calf_action,hr_hip_action,hr_thigh_action,hr_calf_action
2025-06-06 14:11:18.192,0.029045291,-0.041413244,0.039364107,-0.040561084,-0.0043408195,0.027406495,0.31916416,0.6003607,0.0,0.0,0.008898264,0.0011931744,-0.0017360024,0.00825017,0.009149806,0.0012037234,0.00041028322,0.0056222,-0.0046580737,-0.0029465458,-0.002337738,-0.007895116,0.059758477,-0.058891054,0.057850793,-0.05451665,0.039101414,-3.261842e-05,-0.06208324,0.005232916,0.0027943633,-0.05664959,-0.06283135,-0.07349897,0.0,0.0,0.0,0.0,0.0,0.0,0.0,0.0,0.0,0.0,0.0,0.0,-1.7777431,-0.0037284093,0.98210436,-0.6848804,0.13190997,-0.41519606,0.23475318,-0.95630884,-0.64701617,0.14192146,-0.07217187,-1.90077
2025-06-06 14:11:18.196,0.041951716,-0.07490164,-0.020823967,-0.013531943,-0.0370543,0.031124638,0.0,0.0,0.0,0.0,-0.008790579,0.006422648,0.024425918,0.00054248166,0.00070629414,-0.011445707,0.006338388,-0.03576387,-0.014814082,-0.0065695103,-0.0043536774,-0.055767484,0.0051700156,0.05227019,0.06460597,0.002869337,0.037402183,-0.08990175,-0.010882044,-0.059268314,-0.11312624,0.01398182,0.0122558335,-0.10116173,-1.7777431,-0.0037284093,0.98210436,-0.6848804,0.13190997,-0.41519606,0.23475318,-0.95630884,-0.64701617,0.14192146,-0.07217187,-1.90077,-2.914195,0.6212906,0.030458655,0.22129002,0.36398867,-0.83138484,0.3852634,-1.0386113,-2.2575123,-3.0,-0.84127444,-0.8244365
2025-06-06 14:11:18.216,-0.015524271,-0.042575512,-0.02092095,-0.005135665,0.04949424,-0.016209122,0.0,0.0,0.0,0.00023835461,-0.036434587,0.015781583,0.03364061,-0.012963333,0.023893692,-0.025309531,0.008925434,-0.0886074,-0.061537705,-0.011114088,-0.025354616,-0.06348616,-0.08511018,0.15474455,-0.019555643,-0.022094347,0.06947542,-0.031688273,-0.049996734,-0.14843763,-0.06863937,-0.042658083,-0.043869793,0.0001819348,-2.914195,0.6212906,0.030458655,0.22129002,0.36398867,-0.83138484,0.3852634,-1.0386113,-2.2575123,-3.0,-0.84127444,-0.8244365,-3.0,0.28935784,-0.033444393,3.0,0.51740664,-1.6051435,0.5965514,-1.8192462,-3.0,-3.0,-0.39676753,-1.3644634
2025-06-06 14:11:18.238,-0.119021595,0.006531321,0.029628063,0.0007430899,0.03297147,0.03057914,0.0,0.0,0.0,0.00025654153,-0.06918833,0.049800936,0.02621746,0.008740322,0.034569863,-0.0432439,-0.007176652,-0.11116958,-0.039903134,-0.022486715,-0.04943874,-0.033733673,-0.025755748,0.09960637,-0.09151417,0.024071606,0.041020546,0.08786647,-0.029017022,-0.11465988,0.067603566,0.05645944,0.0075286864,0.1465971,-3.0,0.28935784,-0.033444393,3.0,0.51740664,-1.6051435,0.5965514,-1.8192462,-3.0,-3.0,-0.39676753,-1.3644634,-2.664722,0.41919678,-1.7387158,3.0,0.14836136,-1.3068365,0.43556505,-2.8511798,-3.0,-3.0,-0.4815353,-3.0
2025-06-06 14:11:18.257,-0.11295877,-0.08066874,-0.06559894,-0.0035601063,0.056860052,0.016560497,0.0,0.0,0.0,0.00026731327,-0.079884656,0.061030466,-0.019950224,-0.00022229484,0.007598519,-0.015084334,-0.005040121,-0.1546911,-0.0051227394,-0.03739252,-0.066863954,-0.018977083,-0.08208059,-0.006319046,-0.018964052,-0.033063304,-0.08476234,-0.0017459326,0.048411597,-0.124762125,0.12954476,0.027395139,-0.06594663,-0.040301286,-2.664722,0.41919678,-1.7387158,3.0,0.14836136,-1.3068365,0.43556505,-2.8511798,-3.0,-3.0,-0.4815353,-3.0,-0.38121083,1.0516565,-2.3453755,3.0,-0.6096605,-0.92861,-0.747775,-2.4550803,-2.2464101,-3.0,-0.22544892,-3.0
2025-06-06 14:11:18.277,-0.019348826,0.05975622,0.0044781785,-0.041929863,0.0061387247,-0.026792683,0.0,0.0,0.0,0.0006136026,-0.091391675,0.050351087,-0.0078834025,0.015320124,-0.00094221235,0.001426694,-0.0037208877,-0.20750228,0.008824406,-0.024583014,-0.07523022,-0.012463761,0.060670342,-0.01252866,0.0054699923,0.09013547,-0.06328835,-0.022351304,0.05521873,-0.1587135,-0.01203774,-0.043275513,-0.0445256,-0.07219544,-0.38121083,1.0516565,-2.3453755,3.0,-0.6096605,-0.92861,-0.747775,-2.4550803,-2.2464101,-3.0,-0.22544892,-3.0,2.3445115,0.39952797,-3.0,3.0,-0.22484604,0.607017,-1.7121257,-2.7211785,-2.1269262,-3.0,0.082175285,-3.0
2025-06-06 14:11:18.297,0.019786233,0.07008203,-0.0024762994,0.055110294,0.008011597,-0.004231768,0.0,0.0,0.0,0.00085780915,-0.07028727,0.032424707,-0.0012765797,0.03162028,-0.02434276,0.02689083,-0.0017161522,-0.27543998,-0.043953728,-0.02238278,-0.08297718,-0.019332174,0.081264056,-0.07276928,0.0411176,0.13507213,-0.009835898,0.107009575,0.00010786887,-0.19961777,-0.14752279,-0.041214716,0.039584745,-0.029877631,2.3445115,0.39952797,-3.0,3.0,-0.22484604,0.607017,-1.7121257,-2.7211785,-2.1269262,-3.0,0.082175285,-3.0,3.0,0.15048687,-3.0,3.0,0.03984355,0.66943973,-2.7689407,-2.1185656,-0.8195012,-3.0,-0.10030103,-3.0
2025-06-06 14:11:18.321,-0.018872531,0.16525744,-0.042312786,0.0080224825,-0.017929776,-0.0065702386,0.0,0.0,0.0,0.0014134995,-0.07166935,0.017616214,0.0053819544,0.053734403,-0.013775865,0.03245238,-0.023240313,-0.32448938,-0.07457401,-0.013065411,-0.06364219,-0.038710117,0.075364135,0.050121617,0.06997555,-0.009930825,-0.018974608,0.0495978,-0.0047040125,-0.11463079,-0.08677916,0.057367377,0.07885745,-0.083996154,3.0,0.15048687,-3.0,3.0,0.03984355,0.66943973,-2.7689407,-2.1185656,-0.8195012,-3.0,-0.10030103,-3.0,3.0,-0.058422703,-3.0,3.0,0.5248809,0.3530057,-3.0,-1.4270829,-0.07114294,-3.0,-0.36339322,-3.0
2025-06-06 14:11:18.337,-0.01799393,0.16602837,0.042438958,0.017490607,0.0046543563,0.010493175,0.0,0.0,0.0,0.002062263,-0.04521998,0.017348897,0.001302487,0.0786729,0.0126433205,0.03388678,-0.044068314,-0.32600012,-0.07471006,-0.0033115782,-0.07001279,-0.057002366,0.07690247,-0.02937906,-0.0044625183,0.10453148,0.044812914,0.058524337,-0.12964436,0.01007846,-0.014281273,0.026317617,0.037139505,-0.09693418,3.0,-0.058422703,-3.0,3.0,0.5248809,0.3530057,-3.0,-1.4270829,-0.07114294,-3.0,-0.36339322,-3.0,3.0,-0.47178712,-3.0,3.0,1.0500777,0.2600037,-3.0,-1.2818124,0.56683165,-3.0,-0.099356234,-3.0
2025-06-06 14:11:18.360,-0.013607149,0.12695278,-0.06392697,0.023586724,-0.024830405,-0.027734688,0.0,0.0,0.0,0.0023677165,-0.05011927,0.004639402,-0.012731152,0.08919306,0.06964313,0.023516132,-0.06563946,-0.31684828,-0.04627356,0.025847502,-0.07110075,-0.07521276,0.009071255,-0.053171434,0.03978773,-0.003971451,0.09668521,-0.0026739927,-0.09478803,0.10157597,0.063152954,0.07641392,-0.05299984,0.033971142,3.0,-0.47178712,-3.0,3.0,1.0500777,0.2600037,-3.0,-1.2818124,0.56683165,-3.0,-0.099356234,-3.0,3.0,-0.19611071,-3.0,3.0,0.7932619,-0.110962026,-3.0,-0.6429582,1.1641679,-3.0,-0.66921866,-3.0
2025-06-06 14:11:18.380,0.09404683,0.07291544,0.022163779,0.057826173,0.007118294,-0.010505514,0.0,0.0,0.0,0.0027447974,-0.029342847,0.012328023,-0.017251711,0.10521256,0.098024115,0.022221083,-0.08701099,-0.2623132,0.0056723934,0.019678967,-0.065604135,-0.08741783,0.029544558,-0.0129721,-0.11248811,0.036313627,0.034865472,-0.032633387,0.03160556,0.19952984,0.10103199,-0.049023084,-0.060873386,-0.07790359,3.0,-0.19611071,-3.0,3.0,0.7932619,-0.110962026,-3.0,-0.6429582,1.1641679,-3.0,-0.66921866,-3.0,3.0,-0.43105862,-3.0,3.0,1.2204014,-0.008120127,-3.0,-0.6900598,1.1743767,-3.0,-0.42195123,-3.0
2025-06-06 14:11:18.400,0.06368774,0.010685767,-0.030110836,0.039101567,0.0051073357,0.047727685,0.0,0.0,0.0,0.0026627248,-0.03236567,-0.0154267205,-0.0263448,0.093485765,0.13685888,0.017957155,-0.101068676,-0.22714604,0.050432518,0.031815436,-0.08458145,-0.081439525,0.04996792,-0.040287193,-0.086762495,-0.059690483,0.129981,-0.047505714,-0.07048994,0.06205028,0.11696066,0.036098078,0.0037083132,-0.0552746,3.0,-0.43105862,-3.0,3.0,1.2204014,-0.008120127,-3.0,-0.6900598,1.1743767,-3.0,-0.42195123,-3.0,3.0,-0.35200825,-3.0,3.0,1.1991106,-0.030289046,-3.0,-0.50892144,1.533757,-3.0,-0.56683034,-3.0
2025-06-06 14:11:18.421,0.011881494,-0.032415826,0.05999536,0.05048068,-0.041657742,-0.03991642,0.0,0.0,0.0,0.002439456,-0.02581139,-0.011673505,-0.0422056,0.10262428,0.18232332,-0.005417757,-0.11455107,-0.16870655,0.09268497,0.039426394,-0.10840825,-0.09818745,-0.049762636,-0.10372149,-0.046039976,0.06029268,0.08609318,-0.00053145614,0.06308447,0.12369315,0.14775041,0.0747692,-0.017778603,-0.066763006,3.0,-0.35200825,-3.0,3.0,1.1991106,-0.030289046,-3.0,-0.50892144,1.533757,-3.0,-0.56683034,-3.0,2.579127,-0.5402747,-3.0,3.0,1.4515302,-0.010521598,-3.0,-0.5722304,1.5219812,-3.0,-0.30617106,-3.0
2025-06-06 14:11:18.440,-0.052257203,-0.051776364,-0.038021874,-0.0011994214,0.033599246,-0.015993023,0.0,0.0,0.0,0.002171113,-0.030819032,-0.04299243,-0.06641624,0.09627427,0.21605967,-0.0077713337,-0.11125442,-0.13189189,0.11695649,0.044060457,-0.118292816,-0.096394815,0.027764529,-0.08433477,-0.012750478,-0.02346387,0.117204465,0.017672686,0.062421788,0.019521207,0.029558312,-0.07022816,-0.079234734,-0.02359767,2.579127,-0.5402747,-3.0,3.0,1.4515302,-0.010521598,-3.0,-0.5722304,1.5219812,-3.0,-0.30617106,-3.0,3.0,-0.2522473,-3.0,3.0,1.0984745,-0.11411681,-3.0,-0.25621006,1.7894475,-3.0,-0.70544976,-3.0
2025-06-06 14:11:18.460,0.04178854,-0.027243068,-0.024900984,-0.0015569348,-0.009127527,0.022382904,0.0,0.0,0.0,0.0021884402,-0.015083665,-0.05060193,-0.068148255,0.104993,0.22073723,0.0024997552,-0.10351491,-0.1147011,0.12968881,0.029341074,-0.12809187,-0.11723175,0.05077004,0.007331987,0.02652528,0.043745104,-0.051003207,0.029279,0.024282036,0.033186078,0.05136557,0.051949896,0.022329729,-0.028650854,3.0,-0.2522473,-3.0,3.0,1.0984745,-0.11411681,-3.0,-0.25621006,1.7894475,-3.0,-0.70544976,-3.0,3.0,-0.42701182,-3.0,3.0,1.2733436,-0.039280273,-3.0,-0.24830829,1.6124258,-3.0,-0.7622764,-3.0
2025-06-06 14:11:18.480,-0.011312526,0.0077895937,0.043243818,-0.0053093093,-0.012741653,0.023711398,0.0,0.0,0.0,0.0019865483,-0.021288337,-0.070522666,-0.07012418,0.112457655,0.2430856,-0.016905755,-0.099852666,-0.07675666,0.15171862,0.032268573,-0.14511175,-0.12363817,0.008733462,0.010663326,-0.042578835,0.001034131,0.05200679,0.063190915,0.0065745064,0.038202535,0.06984251,-0.012951356,-0.08431065,0.013141171,3.0,-0.42701182,-3.0,3.0,1.2733436,-0.039280273,-3.0,-0.24830829,1.6124258,-3.0,-0.7622764,-3.0,2.7371044,-0.5879168,-3.0,3.0,1.5231006,-0.014826082,-3.0,-0.22457528,1.7373104,-3.0,-0.6097409,-3.0
2025-06-06 14:11:18.500,-0.014918598,-0.030707758,0.04835826,0.051530305,0.024637574,-0.04329269,0.0,0.0,0.0,0.0015041687,-0.03320523,-0.08809697,-0.07447818,0.112139575,0.2514384,-0.016123924,-0.09376521,-0.054209355,0.1614253,0.019906135,-0.17324206,-0.13375135,-0.040101085,-0.048467446,0.050429888,0.06689225,0.10773213,-0.02348033,-0.021499172,0.029247813,0.051827703,-0.006179192,0.016339995,0.049572974,2.7371044,-0.5879168,-3.0,3.0,1.5231006,-0.014826082,-3.0,-0.22457528,1.7373104,-3.0,-0.6097409,-3.0,2.5111198,-0.5261683,-3.0,3.0,1.5145595,-0.037756898,-3.0,-0.13390732,1.9407766,-3.0,-0.6491117,-3.0
2025-06-06 14:11:18.521,-0.065813646,-0.016565468,-0.009942982,0.031460572,0.02290932,0.007407839,0.0,0.0,0.0,0.0011262562,-0.022063509,-0.10070304,-0.074544154,0.113902226,0.27214414,-0.017507909,-0.09234362,-0.046530087,0.1732379,0.021067668,-0.19022256,-0.14885879,-0.02124199,0.01848502,0.011063115,-0.045816444,0.07571601,-0.073200196,0.013659215,-0.033096153,0.010530574,-0.0814397,-0.07091438,0.010156254,2.5111198,-0.5261683,-3.0,3.0,1.5145595,-0.037756898,-3.0,-0.13390732,1.9407766,-3.0,-0.6491117,-3.0,2.881485,-0.36850896,-3.0,3.0,1.342566,-0.101962544,-3.0,0.114408225,1.9594526,-3.0,-0.93500745,-3.0
2025-06-06 14:11:18.540,0.01053732,0.061662313,0.04151196,0.08155138,-0.043971818,-0.048371356,0.0,0.0,0.0,0.0008499818,-0.021276856,-0.117112935,-0.08859319,0.10697983,0.2699213,-0.017380651,-0.102245085,-0.016240867,0.18216035,0.0179459,-0.19050968,-0.14628315,-0.011907339,0.0295837,0.024514394,-0.048682034,0.031238694,-0.06151544,-0.042673167,0.09169918,0.09606359,-0.0055855154,0.03113061,-0.014599966,2.881485,-0.36850896,-3.0,3.0,1.342566,-0.101962544,-3.0,0.114408225,1.9594526,-3.0,-0.93500745,-3.0,2.6814692,-0.6268652,-3.0,3.0,1.5865172,-0.008520819,-3.0,0.07523738,1.8544607,-3.0,-0.839768,-3.0
2025-06-06 14:11:18.560,-0.08421402,0.14563666,0.030530585,0.014518042,0.026020462,-0.04903474,0.0,0.0,0.0,0.0002264666,-0.02966821,-0.14119817,-0.072386526,0.115439124,0.27805805,-0.015043332,-0.10243731,-0.006417013,0.18862624,0.029274644,-0.20551232,-0.14967111,0.060863316,-0.08500754,0.0293631,-0.073206395,0.09215604,-0.043266553,0.06391888,0.045719083,-0.033190973,-0.015603464,0.0055426024,-0.06713241,2.6814692,-0.6268652,-3.0,3.0,1.5865172,-0.008520819,-3.0,0.07523738,1.8544607,-3.0,-0.839768,-3.0,2.4257212,-0.5495953,-3.0,3.0,1.5823622,-0.042093866,-3.0,0.21268205,2.187959,-3.0,-0.7939776,-3.0
2025-06-06 14:11:18.581,-0.06702427,0.07552757,-0.01409345,0.061677173,-0.051615745,-0.04621862,0.0,0.0,0.0,-0.0005380721,-0.031796448,-0.15293431,-0.07745191,0.1111648,0.2698119,-0.0022281073,-0.09199082,0.0072142277,0.18711154,0.022679757,-0.2280441,-0.16281098,-0.026774323,-0.085813284,-0.007511818,0.04242829,0.022998208,0.10711888,0.017763572,-0.017336223,-0.03899969,-0.03437165,0.006491854,-0.05914286,2.4257212,-0.5495953,-3.0,3.0,1.5823622,-0.042093866,-3.0,0.21268205,2.187959,-3.0,-0.7939776,-3.0,2.813581,-0.49891084,-3.0,3.0,1.533741,-0.11250322,-3.0,0.41611937,2.3746688,-3.0,-1.0535165,-3.0
2025-06-06 14:11:18.603,-0.057833053,0.040171955,-0.015346028,0.022814156,0.027057454,0.045802366,0.0,0.0,0.0,-0.0010827489,-0.026395114,-0.17884146,-0.089077845,0.12419206,0.25117472,0.033650603,-0.10776988,0.038464013,0.20158556,0.008055476,-0.2423896,-0.18072124,0.06237624,-0.07101839,0.013929762,-0.021629665,-0.116696544,0.10098515,-0.028150218,0.05425495,0.02157041,0.00093821087,-0.04943085,-0.0019815352,2.813581,-0.49891084,-3.0,3.0,1.533741,-0.11250322,-3.0,0.41611937,2.3746688,-3.0,-1.0535165,-3.0,3.0,-0.53418106,-3.0,2.534915,1.4797473,-0.12709534,-3.0,0.6744661,2.2512305,-3.0,-1.2918391,-3.0
2025-06-06 14:11:18.622,-0.0008911557,0.013956526,0.08723216,0.05806866,0.027804708,0.03215292,0.0,0.0,0.0,-0.0016956349,-0.02497291,-0.18692018,-0.09015945,0.12221579,0.22364709,0.0435087,-0.09209445,0.07405874,0.2111127,0.00845727,-0.23898183,-0.20284814,0.05029991,-0.047139872,-0.09145418,-0.036123183,-0.07454922,-0.028425096,-0.070982516,0.09090722,0.0664399,-0.0006865807,-0.054666467,-0.0151465265,3.0,-0.53418106,-3.0,2.534915,1.4797473,-0.12709534,-3.0,0.6744661,2.2512305,-3.0,-1.2918391,-3.0,2.4043832,-0.8514404,-3.0,1.1929501,1.899755,-0.08020725,-3.0,0.6394094,1.901339,-3.0,-0.8880092,-3.0
2025-06-06 14:11:18.641,-0.091355614,-0.06750974,0.03167722,0.033850003,0.017333224,0.034739763,0.0,0.0,0.0,-0.0025462273,-0.033513788,-0.20689696,-0.12011815,0.11696273,0.19305573,0.051329143,-0.095734276,0.0848227,0.21714748,0.005276295,-0.2604096,-0.21877943,-0.014221988,-0.0074569057,0.006050718,-0.01624864,-0.07010943,0.021742657,0.0002809578,0.035119083,0.018339206,-0.055420004,0.03872887,-0.06645204,2.4043832,-0.8514404,-3.0,1.1929501,1.899755,-0.08020725,-3.0,0.6394094,1.901339,-3.0,-0.8880092,-3.0,1.872742,-0.5486398,-2.8846593,0.28187886,1.9822292,-0.4834894,-3.0,1.208869,1.4397323,-3.0,-0.7606601,-3.0
2025-06-06 14:11:18.661,-0.12513137,-0.103857554,-0.08379692,0.07962683,-0.026009696,0.024443334,0.0,0.0,0.0,-0.0026730746,-0.0427936,-0.19859268,-0.12447187,0.09287215,0.1909991,0.051296875,-0.11535992,0.13143608,0.19856705,-0.017873874,-0.24560845,-0.23284422,-0.07534191,0.016070992,0.020632999,0.021369698,0.050266262,0.053827856,-0.06503572,0.042063825,-0.044286378,-0.090101115,0.06920321,-0.07553939,1.872742,-0.5486398,-2.8846593,0.28187886,1.9822292,-0.4834894,-3.0,1.208869,1.4397323,-3.0,-0.7606601,-3.0,2.2489989,-0.11490177,-1.7238349,-0.45293906,1.6265669,-1.3232802,-3.0,1.8846513,0.12017605,-3.0,-0.95539725,-3.0
2025-06-06 14:11:18.681,-0.08401382,-0.059373792,-0.039338697,0.114679344,0.007461131,0.0029888693,0.0,0.0,0.0,-0.001970077,-0.07250532,-0.20806015,-0.1351264,0.088071674,0.1916658,0.06394575,-0.11011388,0.19345637,0.13675675,-0.023778614,-0.24336872,-0.26603445,-0.061415803,-0.05619809,0.021670785,-0.008816502,-0.04279789,-0.072506234,-0.052983183,0.19652645,-0.1303859,-0.021890102,0.0082130665,0.00090199703,2.2489989,-0.11490177,-1.7238349,-0.45293906,1.6265669,-1.3232802,-3.0,1.8846513,0.12017605,-3.0,-0.95539725,-3.0,1.2690736,-0.44205475,0.3702734,-2.7123637,1.2487943,-2.269902,-3.0,1.667028,-2.7136457,-3.0,-0.801677,-3.0
2025-06-06 14:11:18.705,-0.15041928,-0.2953753,0.008607186,0.11371552,0.03276932,0.026017167,0.0,0.0,0.0,-0.0016403348,-0.081660025,-0.24390008,-0.11422304,0.07339826,0.18290423,0.042326592,-0.11848713,0.2613135,0.038461205,-0.043228526,-0.24579108,-0.274991,-0.032786135,-0.056231897,0.14038123,-0.038549665,0.053601865,-0.072488114,-0.0827394,0.07233199,-0.28538805,-0.075961255,0.0067028063,-0.047245562,1.2690736,-0.44205475,0.3702734,-2.7123637,1.2487943,-2.269902,-3.0,1.667028,-2.7136457,-3.0,-0.801677,-3.0,-2.6349013,-0.41665292,3.0,-3.0,0.8302905,-3.0,-1.1927475,0.9864065,-3.0,-3.0,-1.4420426,-1.6425167
2025-06-06 14:11:18.721,0.003061289,-0.5869159,0.016810521,0.049260475,0.093753666,-0.026227813,0.0,0.0,0.0,-0.001902193,-0.09158527,-0.23410185,-0.018510168,0.024581166,0.17919166,0.029932048,-0.12077354,0.2560431,-0.07778167,-0.09199037,-0.25197884,-0.27238563,0.0041153296,0.0072273626,0.34504676,-0.10680577,-0.018314343,-0.058109507,-0.03210519,0.007856667,-0.27455375,-0.12940452,-0.0357561,0.083832934,-2.6349013,-0.41665292,3.0,-3.0,0.8302905,-3.0,-1.1927475,0.9864065,-3.0,-3.0,-1.4420426,-1.6425167,-3.0,0.39430076,3.0,-3.0,0.6981993,-3.0,0.47182214,-0.17324746,-3.0,-3.0,-1.5870602,1.1188118
2025-06-06 14:11:18.741,0.14854275,-0.31778145,-0.031514432,-0.02808701,0.10493282,0.012939542,0.0,0.0,0.0,-0.0026468635,-0.10035935,-0.17580336,0.100314856,0.0015414652,0.15682817,-0.0054147304,-0.12905622,0.21411283,-0.09871528,-0.09720247,-0.2703029,-0.17467165,-0.043614075,0.16777031,0.17912121,-0.027646508,-0.07511235,-0.13533679,-0.02476043,-0.15213521,0.0436129,0.009910691,-0.004962062,0.23311676,-3.0,0.39430076,3.0,-3.0,0.6981993,-3.0,0.47182214,-0.17324746,-3.0,-3.0,-1.5870602,1.1188118,-3.0,0.24753721,3.0,-1.8454585,0.7087072,-3.0,1.4174563,-0.18481582,-3.0,-3.0,-0.912096,2.9926891
2025-06-06 14:11:18.761,0.20191184,-0.11391973,0.02907871,-0.011465156,0.09817056,0.04147286,0.0,0.0,0.0,-0.0033813973,-0.09920299,-0.08572408,0.17307532,-0.007159772,0.13912985,-0.034054425,-0.129961,0.1606935,-0.042952295,-0.10983949,-0.27167398,-0.030370707,0.07864558,0.17071137,0.09750249,0.0008721222,0.024978504,-0.010823767,-0.052027114,-0.18497786,0.18497702,0.01576439,0.10818068,0.37046143,-3.0,0.24753721,3.0,-1.8454585,0.7087072,-3.0,1.4174563,-0.18481582,-3.0,-3.0,-0.912096,2.9926891,-3.0,0.36698514,2.3430703,-0.066440254,1.2946371,-3.0,1.8592001,-1.2699225,-3.0,-3.0,-0.695667,2.4523115
2025-06-06 14:11:18.781,0.338154,0.055017356,-0.060913254,0.0017083347,0.0596496,-0.009349842,0.0,0.0,0.0,-0.003932239,-0.08717931,-0.0034765832,0.20463125,0.0026160313,0.13293652,-0.047312077,-0.12896231,0.10683828,-0.0063405135,-0.10842723,-0.23588356,0.069930516,0.0677304,0.13951753,-0.00020962462,0.053432252,-0.00573187,-0.03293095,0.02574123,-0.16544878,0.089507304,-0.07376341,0.10102299,0.1948889,-3.0,0.36698514,2.3430703,-0.066440254,1.2946371,-3.0,1.8592001,-1.2699225,-3.0,-3.0,-0.695667,2.4523115,-3.0,0.5373209,2.087302,2.5222535,1.1085429,-3.0,1.9854585,-0.5498405,-3.0,-3.0,-0.70011234,1.3341317
2025-06-06 14:11:18.805,0.41761243,0.26870683,0.012413297,-0.054041218,0.025737831,0.00873839,0.0,0.0,0.0,-0.0035764107,-0.087798275,0.047584217,0.22270593,0.04220864,0.117412105,-0.07940403,-0.09489708,0.07698056,0.022931198,-0.1206872,-0.18955043,0.117398076,0.05060455,0.0929185,0.04026756,0.09227879,-0.033415575,-0.09802369,0.032106627,-0.07898485,0.07610335,-0.049106512,0.14412688,0.096488215,-3.0,0.5373209,2.087302,2.5222535,1.1085429,-3.0,1.9854585,-0.5498405,-3.0,-3.0,-0.70011234,1.3341317,-3.0,0.6967764,0.7176202,3.0,1.0543342,-3.0,2.0369468,-1.0056554,-3.0,-3.0,-0.4847972,-1.0550528
2025-06-06 14:11:18.822,0.14964102,0.13267975,-0.033185586,-0.091543056,0.0008653967,0.017750759,0.0,0.0,0.0,-0.0032598504,-0.084577374,0.09136056,0.1826469,0.069643326,0.10313518,-0.082827695,-0.056711644,0.035054117,0.049012702,-0.11561968,-0.15727505,0.103886515,-0.00204308,0.0486568,-0.115785524,0.031430643,0.057608854,0.020017697,-0.0020605961,-0.10206556,-0.0027631873,0.038702097,0.058033127,0.0014978275,-3.0,0.6967764,0.7176202,3.0,1.0543342,-3.0,2.0369468,-1.0056554,-3.0,-3.0,-0.4847972,-1.0550528,-2.9232233,0.9924894,-0.60138834,3.0,0.15792754,-3.0,1.4614664,-1.0214583,-3.0,-3.0,-0.28097448,-3.0
2025-06-06 14:11:18.841,-0.040649325,-0.007988918,-0.0890365,-0.041995898,0.025823452,-0.04910382,0.0,0.0,0.0,-0.0029390818,-0.089068875,0.11747227,0.12132102,0.071197405,0.10075051,-0.11027516,-0.046673235,0.032142263,0.038951732,-0.08466371,-0.14947662,0.07892545,-0.069268405,0.032684635,-0.15105556,0.033464175,-0.019948646,-0.051602874,0.09042273,-0.06480442,-0.009071392,0.0463604,0.028299969,-0.14948758,-2.9232233,0.9924894,-0.60138834,3.0,0.15792754,-3.0,1.4614664,-1.0214583,-3.0,-3.0,-0.28097448,-3.0,-1.0403329,1.4913589,-1.2176076,3.0,-0.42689767,-2.9761655,0.43390518,-0.9978751,-2.4030468,-3.0,-0.26109114,-3.0
2025-06-06 14:11:18.861,-0.104172006,-0.06503479,0.0051572025,0.0028270448,-0.033372592,-0.011968864,0.0,0.0,0.0,-0.0021483607,-0.09582499,0.1747894,0.03530156,0.07901856,0.10394603,-0.13033348,-0.044719208,0.028484924,0.02080517,-0.07326402,-0.1353915,0.040550165,0.041364238,0.10096132,-0.12117536,0.012707115,-0.08567244,-0.07723496,-0.049363177,0.045753013,-0.042207062,-0.0008795315,0.044834763,-0.06849941,-1.0403329,1.4913589,-1.2176076,3.0,-0.42689767,-2.9761655,0.43390518,-0.9978751,-2.4030468,-3.0,-0.26109114,-3.0,0.9906242,1.2635813,-2.2258878,3.0,-0.19297245,-1.2835529,-0.66000825,-1.4121153,-1.7017267,-3.0,-0.16833247,-3.0
2025-06-06 14:11:18.882,-0.2157683,-0.18978299,-0.12116142,-0.04992066,0.020826537,-0.0015822208,0.0,0.0,0.0,-0.0013577342,-0.073906094,0.1948412,-0.05010717,0.089778826,0.07597684,-0.13003168,-0.038516615,0.0033709044,0.027023593,-0.084726535,-0.11372079,-0.0024736836,0.109682664,0.09588571,-0.19122246,0.07367063,-0.048696503,0.039044563,0.048455287,-0.10491117,0.07263412,0.04813733,0.0046894383,-0.09108515,0.9906242,1.2635813,-2.2258878,3.0,-0.19297245,-1.2835529,-0.66000825,-1.4121153,-1.7017267,-3.0,-0.16833247,-3.0,3.0,1.9819274,-3.0,3.0,0.061872713,-0.63093895,-2.5542097,-1.2863717,-0.69611263,-3.0,-0.7048449,-3.0
2025-06-06 14:11:18.905,-0.16680196,-0.015819872,0.019999329,-0.053358465,0.024031825,0.03756998,0.0,0.0,0.0,-2.6703432e-05,-0.040509276,0.22786485,-0.10285933,0.107343234,0.045264926,-0.11713694,-0.04467426,-0.057974797,-0.0052948496,-0.08199795,-0.09252334,-0.046436157,-0.036080208,-0.002512466,-0.08869662,0.09591289,-0.01999861,-0.027752005,-0.06455808,-0.10643056,-0.0024915515,0.0006121472,0.04312413,-0.08478108,3.0,1.9819274,-3.0,3.0,0.061872713,-0.63093895,-2.5542097,-1.2863717,-0.69611263,-3.0,-0.7048449,-3.0,3.0,0.25846666,-3.0,3.0,0.6072696,0.12582919,-3.0,-1.9145691,-1.1427069,-3.0,-0.39626434,-3.0
2025-06-06 14:11:18.922,-0.034063082,-0.027091186,-0.043674275,-0.052600786,0.029498607,0.0013545203,0.0,0.0,0.0,0.0007135084,-0.02554231,0.20033506,-0.08031189,0.10195248,0.04538496,-0.085120335,-0.050060127,-0.13726181,-0.033954106,-0.06996032,-0.08579597,-0.07720474,0.01568845,-0.050666463,0.08195973,0.04723223,-0.043030016,0.08538075,0.0035051827,-0.26720008,-0.08520727,0.063298374,0.036722012,-0.015503731,3.0,0.25846666,-3.0,3.0,0.6072696,0.12582919,-3.0,-1.9145691,-1.1427069,-3.0,-0.39626434,-3.0,3.0,0.66758186,-3.0,3.0,0.3481407,-0.022475556,-3.0,-1.477684,-0.3255219,-3.0,-0.5741384,-3.0
2025-06-06 14:11:18.942,-0.0024514424,-0.0059230034,0.04419741,-0.06820656,-0.0034187231,0.008642733,0.0,0.0,0.0,0.0009800828,-0.025561197,0.17589769,-0.07966854,0.10379332,0.046583667,-0.059408486,-0.06730699,-0.20254138,-0.060787182,-0.043964062,-0.101873584,-0.07920761,0.048728853,-0.0291556,0.050123096,0.014914955,0.08489009,0.016464552,0.018484432,-0.17024629,0.04702262,-0.027338728,-0.010977731,0.04155694,3.0,0.66758186,-3.0,3.0,0.3481407,-0.022475556,-3.0,-1.477684,-0.3255219,-3.0,-0.5741384,-3.0,3.0,-0.20181201,-3.0,3.0,0.7716683,0.05686883,-3.0,-1.6301486,-0.64398646,-3.0,-0.29045996,-3.0
2025-06-06 14:11:18.962,0.05958673,0.04015897,-0.029421007,-0.052747276,0.017333178,0.0316531,0.0,0.0,0.0,0.000935655,-0.0015520751,0.14435865,-0.05374103,0.11471355,0.08187567,-0.032114793,-0.09617401,-0.2516949,-0.06553626,-0.03846291,-0.09519657,-0.103183165,0.047678795,-0.098082274,0.09737959,-0.044407878,0.042108066,0.017641349,0.00984776,-0.12894845,0.019367691,0.0639136,0.008510837,-0.034902856,3.0,-0.20181201,-3.0,3.0,0.7716683,0.05686883,-3.0,-1.6301486,-0.64398646,-3.0,-0.29045996,-3.0,3.0,0.24560776,-3.0,3.0,0.5236353,-0.06756114,-3.0,-1.2524843,-0.01965496,-3.0,-0.43844453,-3.0
2025-06-06 14:11:18.982,0.04114997,-0.0204953,0.03439887,-0.017068466,0.024368843,-0.009451425,0.0,0.0,0.0,0.0011192693,0.010168953,0.12697612,-0.04195668,0.10925678,0.10067468,-0.027994351,-0.10058908,-0.25680837,-0.061224204,-0.017436106,-0.10763617,-0.11707862,0.04019646,-0.040671147,0.08341764,-0.012555409,0.09874634,0.06583543,-0.017704366,0.06419409,0.0630924,-0.020460265,-0.08542639,-0.011029364,3.0,0.24560776,-3.0,3.0,0.5236353,-0.06756114,-3.0,-1.2524843,-0.01965496,-3.0,-0.43844453,-3.0,3.0,-0.20346124,-3.0,3.0,0.86313325,0.011874773,-3.0,-1.2852044,-0.08164698,-3.0,-0.38616958,-3.0
2025-06-06 14:11:19.004,0.019511282,-0.09149103,-0.013499615,-0.07545644,0.01408879,-0.010447739,0.0,0.0,0.0,0.0013501652,0.020080261,0.09575574,-0.03571711,0.101918146,0.1088322,-0.02904157,-0.110485666,-0.26313695,-0.04630479,-0.0021077748,-0.12676169,-0.1136536,-0.00880905,-0.07800849,0.07247303,-0.039642353,0.029222155,0.08108528,-0.018195083,0.077149175,0.02702084,-0.017887987,-0.09157662,0.030954467,3.0,-0.20346124,-3.0,3.0,0.86313325,0.011874773,-3.0,-1.2852044,-0.08164698,-3.0,-0.38616958,-3.0,3.0,-0.016513009,-3.0,3.0,0.66640097,-0.13364726,-3.0,-0.9637218,0.36408827,-3.0,-0.56557286,-3.0
2025-06-06 14:11:19.022,0.07508149,-0.102874875,-0.049625207,-0.047546405,0.07499986,0.029594714,0.0,0.0,0.0,0.001746854,0.020753352,0.07166926,-0.030118339,0.105066836,0.13302428,-0.02556306,-0.11611023,-0.23599994,-0.027786875,-0.008856294,-0.14297533,-0.13820912,-0.027899018,-0.00736455,0.055383794,0.030991353,0.061955553,-0.014629796,0.041764908,0.123668775,0.11572158,0.05145991,-0.09827347,0.014827806,3.0,-0.016513009,-3.0,3.0,0.66640097,-0.13364726,-3.0,-0.9637218,0.36408827,-3.0,-0.56557286,-3.0,3.0,0.0295435,-3.0,3.0,0.6733801,-0.116600074,-3.0,-0.8185904,0.42889017,-3.0,-0.74665254,-3.0
2025-06-06 14:11:19.042,0.065804385,-0.1292321,-0.0066976687,-0.039009187,0.029421167,-0.048772473,0.0,0.0,0.0,0.002107422,0.024940895,0.040458795,-0.035359003,0.094419435,0.12506633,-0.019573972,-0.11197805,-0.21238199,0.007492084,0.008509512,-0.16195783,-0.14433907,0.006059103,-0.12187245,-0.0035994942,-0.06340601,-0.010213324,0.05329026,0.07196341,0.05014079,-0.02398816,-0.033624303,0.0044567506,-0.0046684523,3.0,0.0295435,-3.0,3.0,0.6733801,-0.116600074,-3.0,-0.8185904,0.42889017,-3.0,-0.74665254,-3.0,3.0,-0.3024047,-3.0,3.0,1.0488393,-0.0013247207,-3.0,-0.7873737,0.7309024,-3.0,-0.58553493,-3.0
2025-06-06 14:11:19.062,-0.0008325523,-0.10741852,-0.0039376467,-0.011836399,-0.002688218,-0.013969275,0.0,0.0,0.0,0.0022253697,0.031745378,0.0121400785,-0.04730858,0.100714,0.14357644,-0.01912779,-0.11228602,-0.19352144,0.022890396,0.013838581,-0.16738623,-0.15151699,0.0074805478,-0.013236042,0.020762084,0.0681412,0.10126278,0.024000978,0.068365656,0.01999704,0.008741818,-0.016481051,-0.0026800763,0.044465076,3.0,-0.3024047,-3.0,3.0,1.0488393,-0.0013247207,-3.0,-0.7873737,0.7309024,-3.0,-0.58553493,-3.0,3.0,-0.3594546,-3.0,3.0,1.0880363,-0.06243425,-3.0,-0.54726684,1.2230318,-3.0,-0.68932855,-3.0
2025-06-06 14:11:19.083,0.053925764,-0.14349571,-0.052399356,-0.026361408,0.0027220948,-0.033402633,0.0,0.0,0.0,0.002471387,0.027932907,-0.010765159,-0.04395327,0.099632,0.17892946,-0.012860487,-0.10491789,-0.1516038,0.042541962,0.005019143,-0.1986215,-0.15912186,0.062366817,0.0051090354,0.02810954,-0.033543173,0.054038364,0.06741287,0.0074415207,0.018043352,0.086336106,-0.023343345,-0.06383408,-0.012318361,3.0,-0.3594546,-3.0,3.0,1.0880363,-0.06243425,-3.0,-0.54726684,1.2230318,-3.0,-0.68932855,-3.0,3.0,-0.21156998,-3.0,3.0,0.9977482,-0.12965274,-3.0,-0.22593614,1.4341247,-3.0,-0.97781944,-3.0
2025-06-06 14:11:19.104,0.09432638,-0.13455276,-0.06534021,-0.038101647,0.06643543,-0.010545167,0.0,0.0,0.0,0.0028379501,0.038267888,-0.039495975,-0.045751248,0.09821188,0.19355024,-0.022944136,-0.10982903,-0.13164029,0.07852238,0.005212406,-0.22056347,-0.177986,-0.025864296,-0.078699835,0.03797439,0.054176938,0.06952163,0.012969816,0.06675113,0.031266335,0.114037864,0.023447204,-0.11916274,-0.040177315,3.0,-0.21156998,-3.0,3.0,0.9977482,-0.12965274,-3.0,-0.22593614,1.4341247,-3.0,-0.97781944,-3.0,3.0,-0.07630376,-3.0,3.0,0.9934665,-0.092094235,-3.0,-0.16466162,1.4541829,-3.0,-1.0633516,-3.0
2025-06-06 14:11:19.122,0.08767216,-0.10606584,-0.05503003,-0.12851089,0.046071798,-0.028022906,0.0,0.0,0.0,0.0029480944,0.022121292,-0.06471886,-0.03809978,0.10441847,0.18746582,-0.022772267,-0.10397727,-0.08067762,0.11451592,0.022929754,-0.24409267,-0.18101862,-0.047649793,-0.07101615,0.062970094,-0.006075151,-0.035739556,-0.0468716,0.07282502,0.1321279,0.06199201,0.05673133,-0.0051671034,0.047710255,3.0,-0.07630376,-3.0,3.0,0.9934665,-0.092094235,-3.0,-0.16466162,1.4541829,-3.0,-1.0633516,-3.0,3.0,-0.17908712,-3.0,3.0,1.0145118,-0.07430246,-3.0,-0.0023894086,1.3462372,-3.0,-1.1771054,-3.0
2025-06-06 14:11:19.143,0.06820016,-0.085179456,0.051886834,-0.11070126,0.019178689,-0.019815633,0.0,0.0,0.0,0.0027264168,0.022430776,-0.09127349,-0.05488113,0.0935794,0.18746011,-0.020760817,-0.09573005,-0.04835338,0.116274446,0.010980033,-0.25314084,-0.18526642,0.0023064709,0.0014605771,-0.038552247,-0.06371263,0.06990137,0.06243719,0.040827166,0.102307536,-0.0058370894,-0.0074955183,-0.002857464,0.055643443,3.0,-0.17908712,-3.0,3.0,1.0145118,-0.07430246,-3.0,-0.0023894086,1.3462372,-3.0,-1.1771054,-3.0,3.0,-0.7203622,-3.0,3.0,1.5768447,0.024459772,-3.0,-0.07060069,1.607822,-3.0,-0.78767043,-3.0
2025-06-06 14:11:19.163,-0.022258047,-0.12461015,-0.010971491,-0.07756658,0.10648644,-0.0202208,0.0,0.0,0.0,0.0022086883,0.028273366,-0.10299709,-0.036830705,0.0924714,0.2094078,-0.013466909,-0.10192816,-0.034029167,0.13427565,0.014193846,-0.2707223,-0.19138214,0.037559066,-0.010413687,0.06159143,0.0053516934,0.1447244,-0.0032403057,0.051756173,-0.013391996,-0.021831289,0.04782064,-0.070058934,0.03460469,3.0,-0.7203622,-3.0,3.0,1.5768447,0.024459772,-3.0,-0.07060069,1.607822,-3.0,-0.78767043,-3.0,3.0,-0.4199268,-3.0,3.0,1.2116365,-0.15791017,-3.0,0.2876383,1.9442837,-3.0,-1.0467104,-3.0
2025-06-06 14:11:19.183,0.039126314,-0.13689888,0.0006311894,-0.10546106,0.061043836,0.012078537,0.0,0.0,0.0,0.0020492733,0.03728065,-0.1285496,-0.043586917,0.10608713,0.22625875,-0.00830298,-0.0975837,0.0058940034,0.14493598,0.012901047,-0.2903263,-0.20836131,-0.020476053,-0.00506987,-0.052195523,0.03818991,-0.021923825,0.070659,0.023869505,0.08973439,0.04741888,-0.06630644,-0.09932512,0.04683572,3.0,-0.4199268,-3.0,3.0,1.2116365,-0.15791017,-3.0,0.2876383,1.9442837,-3.0,-1.0467104,-3.0,3.0,-0.47445163,-3.0,3.0,1.3458031,-0.11936235,-3.0,0.4692004,1.8534961,-3.0,-1.2722116,-3.0
2025-06-06 14:11:19.204,0.016371025,-0.045578938,-0.028405612,-0.091232516,0.054385483,0.049220577,0.0,0.0,0.0,0.0019003608,0.033403628,-0.14340398,-0.0404745,0.11383478,0.24219185,-0.008274855,-0.104562394,0.03796091,0.17188105,0.014867969,-0.29317594,-0.20718455,0.015586364,-0.013502343,0.025210163,0.058230117,-0.0051680473,0.0026928594,0.02126903,0.11910223,0.049523886,-0.002769159,-0.115648106,0.052586317,3.0,-0.47445163,-3.0,3.0,1.3458031,-0.11936235,-3.0,0.4692004,1.8534961,-3.0,-1.2722116,-3.0,3.0,-0.23277204,-3.0,3.0,1.1693093,-0.17088735,-3.0,0.626515,1.7110088,-3.0,-1.4318783,-3.0
2025-06-06 14:11:19.223,0.1191338,-0.086476825,0.018012179,-0.16468531,0.10768105,-0.008716531,0.0,0.0,0.0,0.0014538905,0.029039767,-0.17601186,-0.04117579,0.09770441,0.23935863,-0.01484424,-0.09643374,0.05833758,0.1771875,0.016612343,-0.3283803,-0.21907201,-0.01978234,-0.072843134,-0.0050427164,-0.062436234,-0.042676203,-0.0026929283,0.03993926,0.11902514,0.031941213,-0.028570304,0.0005806188,-0.0040818118,3.0,-0.23277204,-3.0,3.0,1.1693093,-0.17088735,-3.0,0.626515,1.7110088,-3.0,-1.4318783,-3.0,3.0,-0.562454,-3.0,2.623914,1.4675049,-0.026863448,-3.0,0.4105751,1.6988585,-3.0,-1.1280847,-3.0
2025-06-06 14:11:19.243,0.0014433262,-0.020526571,0.055923633,-0.12574741,0.115604416,0.01911615,0.0,0.0,0.0,0.00055715366,0.033933047,-0.18898824,-0.04406241,0.09335303,0.25999466,-0.008138656,-0.10723724,0.076892205,0.17894,0.020115292,-0.3354885,-0.234533,-0.02243166,-0.1031924,0.00237749,-0.06491553,0.071168005,-0.0040541054,0.050475407,0.011218106,-0.023614487,-0.028152738,0.028007345,-0.035210572,3.0,-0.562454,-3.0,2.623914,1.4675049,-0.026863448,-3.0,0.4105751,1.6988585,-3.0,-1.1280847,-3.0,2.6468081,-0.71911526,-3.0,2.3597388,1.7688017,-0.077395,-3.0,0.5399094,1.8809686,-3.0,-0.8973187,-3.0
2025-06-06 14:11:19.263,-0.09285674,-0.11221535,0.037631813,-0.13361162,0.12823316,0.025346762,0.0,0.0,0.0,-0.00027248668,0.045561183,-0.21090844,-0.041857395,0.0977977,0.2659112,-0.023808826,-0.10914851,0.09045817,0.1687689,0.007956892,-0.34894407,-0.23883146,-0.06623171,0.01143371,-0.061998628,0.034616224,0.045786727,0.03202666,0.07540955,0.08534115,0.064004965,-0.0784513,-0.026537243,0.009515284,2.6468081,-0.71911526,-3.0,2.3597388,1.7688017,-0.077395,-3.0,0.5399094,1.8809686,-3.0,-0.8973187,-3.0,2.8327377,-0.57704747,-3.0,2.3077385,1.5991821,-0.30681753,-3.0,0.9380147,1.89504,-3.0,-1.0800107,-3.0
2025-06-06 14:11:19.283,-0.08071886,-0.05449316,0.0138178365,-0.18175316,0.09268993,-0.03335692,0.0,0.0,0.0,-0.0006505849,0.05081696,-0.22432119,-0.04251148,0.08938642,0.29479823,-0.025151517,-0.10624484,0.11727178,0.19103606,0.017628094,-0.3331565,-0.26101476,0.01696277,-0.0015375881,0.07664893,0.018950637,-0.018756343,-0.020803504,0.049910143,0.0067232936,0.0063947313,0.024229545,-0.06730974,0.008479264,2.8327377,-0.57704747,-3.0,2.3077385,1.5991821,-0.30681753,-3.0,0.9380147,1.89504,-3.0,-1.0800107,-3.0,3.0,-0.54075986,-2.9162967,1.7687577,1.5647656,-0.3414755,-3.0,1.072581,1.5367353,-3.0,-1.2069979,-3.0
2025-06-06 14:11:19.304,0.0045785974,0.03483992,0.038449276,-0.13035844,0.11094107,-0.00684852,0.0,0.0,0.0,-0.0009960444,0.039817616,-0.22813804,-0.03966225,0.09062974,0.29458356,-0.021312673,-0.10664404,0.1572592,0.17442034,0.0034293788,-0.35348123,-0.27245006,-0.009676325,-0.058420725,-0.03200733,-0.07937852,0.032968145,-0.0012934228,-0.019730372,0.14502908,-0.06874684,0.06025893,-0.010453408,0.042677876,3.0,-0.54075986,-2.9162967,1.7687577,1.5647656,-0.3414755,-3.0,1.072581,1.5367353,-3.0,-1.2069979,-3.0,2.7842312,-0.67490745,-2.525082,0.5820397,1.8094263,-0.43262446,-3.0,1.3242502,0.975131,-3.0,-1.1280994,-3.0
2025-06-06 14:11:19.323,-0.04093534,-0.010818501,0.02428203,-0.12424757,0.10628839,0.027824624,0.0,0.0,0.0,-0.0015738737,0.0411379,-0.2419892,-0.050962042,0.06244122,0.314405,-0.043794837,-0.094846964,0.1915011,0.16107681,0.013205246,-0.345686,-0.26710293,-0.026093328,-0.053007014,-0.050937995,-0.08018093,0.069309406,0.04465681,-0.005447136,0.046891317,-0.11509238,0.0019284389,-0.0112009365,-0.078383625,2.7842312,-0.67490745,-2.525082,0.5820397,1.8094263,-0.43262446,-3.0,1.3242502,0.975131,-3.0,-1.1280994,-3.0,1.8562115,-0.5749081,-1.9348975,-0.6606549,1.9306569,-0.81938654,-3.0,1.4111208,-0.12565026,-3.0,-0.6822697,-3.0
2025-06-06 14:11:19.343,-0.13204956,0.004517235,0.054742277,-0.15149722,0.10664666,-0.02500435,0.0,0.0,0.0,-0.0022604298,0.049498465,-0.24517347,-0.037225675,0.027158545,0.32833168,-0.05005072,-0.09504774,0.21407437,0.1014299,0.009708731,-0.34415966,-0.28899264,-0.028286643,-0.051097162,0.056092888,-0.05766562,-0.011800229,-0.032216333,0.028403709,0.051736444,-0.06800813,-0.0017552656,0.06480772,-0.07755005,1.8562115,-0.5749081,-1.9348975,-0.6606549,1.9306569,-0.81938654,-3.0,1.4111208,-0.12565026,-3.0,-0.6822697,-3.0,0.13936493,-0.4867802,-0.700211,-1.8852553,1.7808452,-1.8393918,-3.0,0.94207126,-2.1780198,-3.0,-0.4347871,-3.0
2025-06-06 14:11:19.363,-0.29594496,0.06371412,0.03133023,-0.0747676,0.12703419,0.048091073,0.0,0.0,0.0,-0.0026632333,0.050894734,-0.2512615,-0.0046985396,-0.007948026,0.35152182,-0.09168261,-0.10822411,0.25120303,0.052491967,-0.012682509,-0.3180463,-0.31782067,0.004215136,-0.0017683794,0.08639679,-0.05782625,0.02288299,-0.042918317,-0.014276012,0.03513823,-0.068361506,0.046690654,0.09650225,-0.115636654,0.13936493,-0.4867802,-0.700211,-1.8852553,1.7808452,-1.8393918,-3.0,0.94207126,-2.1780198,-3.0,-0.4347871,-3.0,-2.4490652,-0.108474486,1.6492555,-2.4670875,1.2335663,-3.0,-1.9347118,0.028085884,-3.0,-3.0,-0.9742038,-2.7853668
2025-06-06 14:11:19.383,-0.29501456,0.1383957,0.09816302,-0.079714954,0.16589579,0.0030537972,0.0,0.0,0.0,-0.0027648634,0.03170558,-0.2700044,0.048873816,-0.033556025,0.3390101,-0.15801859,-0.11638719,0.2719721,0.044338234,-0.03037615,-0.2919536,-0.32275775,0.03544322,0.0439804,0.15541422,-0.028647833,-0.1201472,-0.23956755,0.040325094,-0.01764048,-0.05539435,-0.0994382,-0.0044176946,0.07106485,-2.4490652,-0.108474486,1.6492555,-2.4670875,1.2335663,-3.0,-1.9347118,0.028085884,-3.0,-3.0,-0.9742038,-2.7853668,-3.0,0.5111794,3.0,-3.0,0.8447161,-3.0,-0.1556264,-0.9611698,-3.0,-3.0,-1.5623617,-0.9949683
2025-06-06 14:11:19.404,-0.117813796,0.22599845,-0.021183288,-0.105267294,0.08348161,-0.039078206,0.0,0.0,0.0,-0.0028347478,0.012061992,-0.23813449,0.109710306,-0.062402565,0.2989149,-0.19257583,-0.11141756,0.251882,0.05452249,-0.038942285,-0.2915328,-0.26072785,-0.058172096,0.12849008,0.23394723,-0.062445816,-0.07128299,0.08235599,-0.054456316,-0.008035103,0.056589592,-0.09887605,0.010944171,0.10646049,-3.0,0.5111794,3.0,-3.0,0.8447161,-3.0,-0.1556264,-0.9611698,-3.0,-3.0,-1.5623617,-0.9949683,-3.0,0.3725924,3.0,-2.6314611,0.44643906,-3.0,1.3700228,0.14789873,-3.0,-3.0,-1.3039937,2.0341778
2025-06-06 14:11:19.423,0.072390445,0.32350165,-0.017624449,-0.0834427,0.08526849,0.03379137,0.0,0.0,0.0,-0.0020393874,-0.016574748,-0.15420097,0.16943909,-0.04442152,0.26429185,-0.15328489,-0.10283023,0.23802996,0.04576887,-0.066261604,-0.2899708,-0.13558327,-0.022882447,0.26053125,0.2126953,0.07581592,-0.07340126,0.13871965,0.05080127,-0.06460363,0.021728102,-0.124641635,0.018101346,0.32737377,-3.0,0.3725924,3.0,-2.6314611,0.44643906,-3.0,1.3700228,0.14789873,-3.0,-3.0,-1.3039937,2.0341778,-3.0,0.30435187,3.0,-1.0014642,0.74974966,-3.0,2.0322232,-0.33724946,-3.0,-3.0,-0.5113609,3.0
2025-06-06 14:11:19.443,0.2826599,0.25431004,-0.002273638,-0.08798026,0.025137423,-0.04202923,0.0,0.0,0.0,-0.0008559192,-0.047801055,-0.062389303,0.21583952,-0.03606662,0.236104,-0.10136733,-0.086827636,0.22249576,0.05435966,-0.09367751,-0.2559515,-0.006316036,0.009127326,0.18594572,0.119393885,0.010517793,-0.13927859,0.053147875,0.092865296,-0.034231976,0.072117954,-0.11039163,0.10305547,0.26591352,-3.0,0.30435187,3.0,-1.0014642,0.74974966,-3.0,2.0322232,-0.33724946,-3.0,-3.0,-0.5113609,3.0,-3.0,0.61454326,2.2627995,0.86406994,1.1376443,-3.0,2.114915,-0.84334236,-3.0,-3.0,-0.57664025,2.0975597
2025-06-06 14:11:19.463,0.431145,0.3044163,-0.072038636,-0.087241635,0.029458802,0.024733024,0.0,0.0,0.0,0.00035223653,-0.06371846,0.0106718205,0.23232345,-0.004660388,0.1920941,-0.0817381,-0.050861277,0.18674697,0.081542835,-0.097339116,-0.19573872,0.08862947,0.020060042,0.109006435,-0.059713352,0.072591156,-0.13571261,0.029266376,0.09356141,-0.085194275,0.09102281,-0.011176627,0.14354646,0.10341338,-3.0,0.61454326,2.2627995,0.86406994,1.1376443,-3.0,2.114915,-0.84334236,-3.0,-3.0,-0.57664025,2.0975597,-3.0,0.6049116,1.7783829,3.0,1.0145205,-3.0,2.1791937,-0.51059204,-3.0,-3.0,-0.54573494,0.6469126
2025-06-06 14:11:19.484,0.2933795,0.27938285,-0.0815647,-0.018989949,0.024443591,0.033111263,0.0,0.0,0.0,0.0015451971,-0.081583254,0.06298666,0.22877833,0.023009611,0.16823174,-0.072996005,-0.03200883,0.14779899,0.08661827,-0.10255142,-0.20037849,0.11930592,0.015851678,0.12298921,0.022955874,0.06773917,-0.10044211,-0.03786551,0.053494293,-0.12376403,0.06338987,0.022814188,0.017027136,0.031378683,-3.0,0.6049116,1.7783829,3.0,1.0145205,-3.0,2.1791937,-0.51059204,-3.0,-3.0,-0.54573494,0.6469126,-3.0,1.0136057,0.45838654,3.0,0.48787454,-3.0,1.712559,-0.334298,-3.0,-3.0,-0.3553432,-1.9174823
2025-06-06 14:11:19.504,-0.011584464,0.11265035,-0.03832787,-0.03729991,-0.0017544274,0.0016921201,0.0,0.0,0.0,0.0023327242,-0.08727713,0.11835782,0.17858532,0.03509744,0.15277348,-0.07850748,0.0032330486,0.14032897,0.066036865,-0.092117,-0.18836774,0.107582405,-0.052756112,0.055125657,-0.117318995,-0.0053277784,0.038822636,-0.014843942,0.035603378,-0.07247091,-0.058771793,-0.044288293,-0.007870625,0.0065358207,-3.0,1.0136057,0.45838654,3.0,0.48787454,-3.0,1.712559,-0.334298,-3.0,-3.0,-0.3553432,-1.9174823,-2.758101,1.1412574,-0.84959984,3.0,-0.16290388,-3.0,1.0677577,-0.8938398,-3.0,-3.0,-0.31250256,-3.0
2025-06-06 14:11:19.524,-0.0871663,0.027011082,0.001223465,-0.008125487,-0.010226579,0.011305289,0.0,0.0,0.0,0.0027970884,-0.10432805,0.14645056,0.097880796,0.030816637,0.16289993,-0.09192788,0.0031190028,0.13275641,0.040005513,-0.06844767,-0.18687333,0.08682939,-0.058508683,0.16692442,-0.13786273,0.06685165,0.0033630277,0.017874552,0.04154679,-0.06896846,-0.05355887,0.057758607,0.06334619,-0.027472502,-2.758101,1.1412574,-0.84959984,3.0,-0.16290388,-3.0,1.0677577,-0.8938398,-3.0,-3.0,-0.31250256,-3.0,-1.8677658,0.99557984,-1.6884226,3.0,-0.37011287,-2.1116579,0.4450093,-1.6568975,-3.0,-3.0,-0.30315787,-3.0
2025-06-06 14:11:19.544,-0.13147183,-0.046652764,-0.072001226,-0.09069678,-0.019322915,0.013599532,0.0,0.0,0.0,0.0032715285,-0.09633516,0.16999258,0.010855738,0.04354967,0.13102502,-0.09704834,-0.0048627704,0.102993965,0.02870844,-0.069278285,-0.16518642,0.033161577,-0.019318357,0.09324702,-0.21641569,0.0916157,-0.029714828,0.008041816,0.059345882,-0.15239169,0.011700469,-0.003137274,0.093560845,-0.071594216,-1.8677658,0.99557984,-1.6884226,3.0,-0.37011287,-2.1116579,0.4450093,-1.6568975,-3.0,-3.0,-0.30315787,-3.0,0.7282417,1.4470012,-1.9855059,3.0,-0.44947675,-1.6755024,-0.7911169,-1.5065193,-1.9137359,-3.0,-0.4463211,-3.0
2025-06-06 14:11:19.564,-0.27537745,-0.16738766,-0.12564333,-0.088957705,0.004087746,0.034629617,0.0,0.0,0.0,0.004397694,-0.069048785,0.20710231,-0.055419736,0.0696941,0.063435085,-0.12511434,-0.007045755,0.039309654,0.017277561,-0.08103826,-0.13998103,-0.01036438,0.019651005,0.08975231,-0.1519763,-0.016337411,-0.16853987,-0.06884654,0.03157578,-0.117560394,0.009856554,-0.07054297,0.016674407,-0.05852684,0.7282417,1.4470012,-1.9855059,3.0,-0.44947675,-1.6755024,-0.7911169,-1.5065193,-1.9137359,-3.0,-0.4463211,-3.0,3.0,2.231429,-2.9176233,3.0,0.1485847,-0.79312545,-2.8438463,-1.0679041,-0.8910535,-3.0,-0.8318269,-3.0
2025-06-06 14:11:19.585,-0.23780552,-0.07646079,-0.068231225,-0.07726643,-0.0074761435,-0.038839463,0.0,0.0,0.0,0.006078896,-0.035970878,0.23859085,-0.12567592,0.08073013,0.028114783,-0.11781417,-0.01808501,-0.012175937,0.0011629302,-0.08841564,-0.11993971,-0.058435626,0.1333514,0.054585613,-0.09142444,0.036380623,-0.069685906,-0.04245583,-0.024763737,-0.14844336,-0.106848925,0.021805275,0.08402514,-0.1245397,3.0,2.231429,-2.9176233,3.0,0.1485847,-0.79312545,-2.8438463,-1.0679041,-0.8910535,-3.0,-0.8318269,-3.0,3.0,0.8890783,-3.0,3.0,0.4691899,0.10172654,-3.0,-1.6529984,-0.8485301,-3.0,-0.83831394,-3.0
2025-06-06 14:11:19.605,-0.1070272,0.09168882,-0.04502541,-0.023710297,0.0031579614,-0.022802973,0.0,0.0,0.0,0.007417985,-0.023281647,0.24040021,-0.12330419,0.10645391,0.040585794,-0.10406252,-0.05607216,-0.103661686,-0.024313856,-0.07525554,-0.110562846,-0.08085555,0.016514363,-0.014020526,0.045464337,0.04322034,0.083609514,0.05327221,-0.05870926,-0.17805138,-0.12193505,0.09034183,-0.07955362,-0.10142932,3.0,0.8890783,-3.0,3.0,0.4691899,0.10172654,-3.0,-1.6529984,-0.8485301,-3.0,-0.83831394,-3.0,3.0,0.82151484,-3.0,3.0,0.425009,0.044086643,-3.0,-1.4824457,-0.22945815,-3.0,-0.74990934,-3.0
2025-06-06 14:11:19.625,-0.037253663,0.08210916,0.04049333,-0.010914,0.058149867,0.01078332,0.0,0.0,0.0,0.007860878,-0.012665035,0.21131636,-0.10298469,0.11151627,0.04146697,-0.05970793,-0.07102017,-0.16333836,-0.03534795,-0.073830776,-0.1321546,-0.09587556,0.071007505,-0.026175957,0.10795056,-0.018182065,0.05039304,0.05840375,-0.04697482,-0.18227331,0.039484054,-0.03644054,-0.041012827,-0.011296209,3.0,0.82151484,-3.0,3.0,0.425009,0.044086643,-3.0,-1.4824457,-0.22945815,-3.0,-0.74990934,-3.0,3.0,0.08190324,-3.0,3.0,0.6839254,0.032523967,-3.0,-1.6330609,-0.45601046,-3.0,-0.4302326,-3.0
2025-06-06 14:11:19.644,0.05287173,0.15319316,-0.04431519,-0.0074832905,0.06425314,-0.018176906,0.0,0.0,0.0,0.007781983,-0.0049423687,0.16251533,-0.07405892,0.12222433,0.06138111,-0.044035383,-0.07433206,-0.22417554,-0.048775513,-0.05451102,-0.14026459,-0.10017924,0.09113322,-0.1400463,0.017403254,0.051479645,0.06240676,0.045024186,-0.035002977,-0.057368387,-0.07824004,0.07000875,-0.04129579,-0.09601484,3.0,0.08190324,-3.0,3.0,0.6839254,0.032523967,-3.0,-1.6330609,-0.45601046,-3.0,-0.4302326,-3.0,3.0,0.5180326,-3.0,3.0,0.44003084,-0.074449174,-3.0,-1.1988878,0.2126823,-3.0,-0.6329411,-3.0
2025-06-06 14:11:19.664,-0.037158296,0.13752617,-0.010106824,0.015759446,-0.009826536,0.034126125,0.0,0.0,0.0,0.007891915,0.019479293,0.13410029,-0.07105526,0.10811993,0.08192646,-0.022505611,-0.09698788,-0.23333198,-0.02879252,-0.03812957,-0.15473281,-0.12527609,0.022201372,-0.106063634,-0.0031486927,-0.036047436,0.0017554343,-0.032765914,-0.043346375,-0.022912845,0.006199976,0.035854317,-0.0698608,-0.09683885,3.0,0.5180326,-3.0,3.0,0.44003084,-0.074449174,-3.0,-1.1988878,0.2126823,-3.0,-0.6329411,-3.0,3.0,0.07636998,-3.0,3.0,0.7871352,0.0065742955,-3.0,-1.1870849,0.08432111,-3.0,-0.66862696,-3.0
2025-06-06 14:11:19.687,0.04856324,0.07741949,0.0008106855,0.03283807,-0.03184076,-0.0075906077,0.0,0.0,0.0,0.007909638,0.033807956,0.11014707,-0.04394115,0.10640619,0.10936651,-0.029875834,-0.09998794,-0.24110527,-0.019149669,-0.023095157,-0.15600835,-0.12780353,0.0048001427,-0.107598655,-0.012014411,-0.039938103,-0.00086625334,-0.01304305,-0.0791062,-0.033512246,0.055158783,0.08450407,0.03751456,-0.0718517,3.0,0.07636998,-3.0,3.0,0.7871352,0.0065742955,-3.0,-1.1870849,0.08432111,-3.0,-0.66862696,-3.0,3.0,-0.058629353,-3.0,3.0,0.9091826,-0.013831742,-3.0,-1.085769,0.48423606,-3.0,-0.55598956,-3.0
2025-06-06 14:11:19.705,0.032048896,0.11453518,-0.039181728,0.001956411,-0.053673122,-0.013807821,0.0,0.0,0.0,0.007919051,0.024822755,0.079991706,-0.056956224,0.11374639,0.12473633,-0.016536348,-0.11282221,-0.22803436,0.002984185,-0.021964265,-0.178769,-0.14729257,0.08391418,-0.13171019,-0.04301456,0.0541797,0.09204392,0.045059387,0.010837211,0.08293305,0.050883457,-0.019790469,-0.015198426,-0.10107685,3.0,-0.058629353,-3.0,3.0,0.9091826,-0.013831742,-3.0,-1.085769,0.48423606,-3.0,-0.55598956,-3.0,3.0,0.016724061,-3.0,3.0,0.7880454,-0.116609,-3.0,-0.726884,0.95199925,-3.0,-0.78330916,-3.0
2025-06-06 14:11:19.725,0.04559568,0.09092901,0.033755053,-0.020162024,0.032463625,-0.018293496,0.0,0.0,0.0,0.008167517,0.043658234,0.054770827,-0.0496529,0.099275,0.14501032,-0.018719653,-0.111226305,-0.21600078,0.0156429,-0.009275958,-0.18862236,-0.1479792,0.021543238,-0.07854846,0.062336095,0.02135162,0.095482066,-0.0055965884,0.039711628,0.008430913,0.13657768,0.06034388,-0.09364516,-0.0062782653,3.0,0.016724061,-3.0,3.0,0.7880454,-0.116609,-3.0,-0.726884,0.95199925,-3.0,-0.78330916,-3.0,3.0,-0.3489912,-3.0,3.0,1.1550007,-0.0078836605,-3.0,-0.7843539,0.895594,-3.0,-0.6094383,-3.0
2025-06-06 14:11:19.744,-0.040136475,-0.007115334,-0.06716443,0.038120743,0.010700154,0.04491903,0.0,0.0,0.0,0.008366251,0.047934137,0.030262083,-0.031621248,0.10579447,0.16647142,-0.005824165,-0.11496475,-0.18377587,0.045407806,-0.007888701,-0.19961971,-0.17359006,0.03610698,-0.13555114,0.012276587,-0.023968074,0.12047319,-0.03258893,0.024004478,0.11573811,0.076868206,-0.005151511,0.0271398,-0.060110133,3.0,-0.3489912,-3.0,3.0,1.1550007,-0.0078836605,-3.0,-0.7843539,0.895594,-3.0,-0.6094383,-3.0,3.0,0.060075294,-3.0,3.0,0.7508802,-0.20628956,-3.0,-0.3290876,1.2286906,-3.0,-0.942919,-3.0
2025-06-06 14:11:19.765,0.023438742,0.04789853,0.021891866,-0.01858833,0.0085539045,0.022313273,0.0,0.0,0.0,0.008847404,0.045124058,0.015214962,-0.04087522,0.093556084,0.16455466,-0.020609945,-0.109664254,-0.15440278,0.06666821,-0.009206035,-0.22724788,-0.17225407,-0.026582532,-0.105889015,-0.059395503,-0.013505694,0.027636008,-0.029234646,0.008931984,0.16398814,0.11153104,-0.031907853,-0.023999264,0.03757557,3.0,0.060075294,-3.0,3.0,0.7508802,-0.20628956,-3.0,-0.3290876,1.2286906,-3.0,-0.942919,-3.0,3.0,-0.37052563,-3.0,3.0,1.1929928,-0.024113618,-3.0,-0.40169367,1.0830581,-3.0,-0.8923795,-3.0
2025-06-06 14:11:19.788,0.00026231832,-0.007826359,-0.043088503,0.009260021,-0.0028357394,-0.018660666,0.0,0.0,0.0,0.009168447,0.03416747,-0.010258139,-0.037205532,0.095964655,0.17825158,-0.018467516,-0.10233111,-0.12552619,0.08510982,-0.0015926299,-0.23445019,-0.18423958,0.021485073,-0.13638987,-0.041567188,0.031003153,0.08301262,0.018142529,-0.013823475,0.08263965,0.05642854,0.044992052,0.019513402,0.00377568,3.0,-0.37052563,-3.0,3.0,1.1929928,-0.024113618,-3.0,-0.40169367,1.0830581,-3.0,-0.8923795,-3.0,3.0,-0.1350358,-3.0,3.0,1.0128381,-0.1342397,-3.0,-0.117531836,1.4741724,-3.0,-1.046802,-3.0
2025-06-06 14:11:19.805,0.015023479,0.1084583,-0.020957602,0.048504777,-0.067611024,0.040014055,0.0,0.0,0.0,0.009552156,0.043208804,-0.034505833,-0.038617827,0.10046306,0.19052888,-0.022492077,-0.1001028,-0.08265355,0.09795187,-0.001617959,-0.25938058,-0.18670073,0.012127646,-0.08824021,0.015386286,-0.032497503,-0.015472319,-0.0031541865,-0.02680943,0.06496241,0.0012723934,0.051729903,-0.07854935,0.045423497,3.0,-0.1350358,-3.0,3.0,1.0128381,-0.1342397,-3.0,-0.117531836,1.4741724,-3.0,-1.046802,-3.0,3.0,-0.20075335,-3.0,3.0,1.1795301,-0.08193471,-3.0,0.098225266,1.4607606,-3.0,-1.2804242,-3.0
2025-06-06 14:11:19.825,0.011038712,0.089332454,-0.044778578,-0.012534577,-0.06334022,-0.0055082096,0.0,0.0,0.0,0.009858938,0.029612085,-0.076402925,-0.036961183,0.1101921,0.20116368,-0.02047251,-0.10190844,-0.050537992,0.122573435,0.0013457829,-0.28492606,-0.19341822,-0.056280326,0.008151794,-0.057051875,-0.021215323,-0.023634892,-0.033294566,-0.04791546,0.07631932,-0.0159624,0.07092326,-0.10537746,-0.0028411944,3.0,-0.20075335,-3.0,3.0,1.1795301,-0.08193471,-3.0,0.098225266,1.4607606,-3.0,-1.2804242,-3.0,3.0,-0.11417913,-3.0,3.0,1.1125714,-0.13754141,-3.0,0.39282304,1.6027973,-3.0,-1.4641757,-3.0
2025-06-06 14:11:19.845,0.025568282,0.1799984,0.061151978,0.03749529,-0.050795868,0.045939982,0.0,0.0,0.0,0.00989123,0.037525967,-0.08943266,-0.051607165,0.11132724,0.21630532,-0.025269216,-0.097433925,-0.0058133663,0.12712044,-0.0071419277,-0.30740312,-0.20381759,0.06215485,-0.017108329,0.03652436,-0.040108006,0.01500015,-0.036615975,0.05004313,0.07353593,-0.0024118728,0.002768723,-0.08163069,0.023736522,3.0,-0.11417913,-3.0,3.0,1.1125714,-0.13754141,-3.0,0.39282304,1.6027973,-3.0,-1.4641757,-3.0,3.0,-0.53192186,-3.0,2.7773168,1.5047603,0.0029299036,-3.0,0.15931259,1.655514,-3.0,-1.0951968,-3.0
2025-06-06 14:11:19.865,-0.07158365,0.08553523,-0.05993028,-0.016429259,0.00012374591,-0.00045488728,0.0,0.0,0.0,0.0094990935,0.033344995,-0.10225379,-0.06269871,0.1139226,0.19985165,-0.0059354366,-0.109776616,0.019822596,0.15128268,-0.004107526,-0.33404166,-0.21832156,-0.006301812,-0.0029431207,0.04510298,-0.008354084,-0.036528137,0.0904778,0.06511371,-0.005841692,-0.019102175,-0.009177072,-0.07338581,0.039954323,3.0,-0.53192186,-3.0,2.7773168,1.5047603,0.0029299036,-3.0,0.15931259,1.655514,-3.0,-1.0951968,-3.0,3.0,-0.108519726,-3.0,3.0,1.0481718,-0.37979054,-3.0,0.8854887,1.6664243,-3.0,-1.5652218,-3.0
2025-06-06 14:11:19.888,0.052960154,0.05008134,0.0379783,-0.0027559097,-0.072150685,-0.004104657,0.0,0.0,0.0,0.009520149,0.0329248,-0.11804037,-0.07525512,0.10094083,0.16286354,0.019796226,-0.11050469,0.056136165,0.16179451,-0.015102853,-0.33487317,-0.21413003,-0.06293038,-0.045631394,-0.09011512,0.06898426,-0.013947737,0.09923165,0.0038961282,0.17749198,0.03427562,0.010932667,-0.04696152,0.039631702,3.0,-0.108519726,-3.0,3.0,1.0481718,-0.37979054,-3.0,0.8854887,1.6664243,-3.0,-1.5652218,-3.0,3.0,-0.5549261,-2.7516093,2.0751612,1.4540751,-0.07532673,-3.0,0.56346315,1.5465968,-3.0,-1.3857423,-3.0
2025-06-06 14:11:19.905,-0.06428623,-0.007687197,-0.04320114,0.050770994,-0.028614903,-0.013611499,0.0,0.0,0.0,0.00925524,0.017442616,-0.13485508,-0.0831763,0.10556982,0.15764599,0.024735864,-0.10853519,0.08330756,0.15680215,-0.015945844,-0.36054075,-0.2322335,-0.080927625,-0.109023765,0.012946592,-0.04607932,-0.08459398,0.04797724,-0.0483294,0.029249365,0.047555592,-0.08137873,-0.010944388,-0.026688965,3.0,-0.5549261,-2.7516093,2.0751612,1.4540751,-0.07532673,-3.0,0.56346315,1.5465968,-3.0,-1.3857423,-3.0,3.0,-0.049393196,-2.5281713,1.7304852,1.3273954,-0.48576218,-3.0,1.2113979,1.0655172,-3.0,-1.5156937,-3.0
2025-06-06 14:11:19.925,-0.060301244,0.024905672,0.02824463,-0.0032714063,-0.094310634,-0.041811068,0.0,0.0,0.0,0.009137457,0.012275262,-0.14476064,-0.08286671,0.0899506,0.14055818,0.045225073,-0.09599279,0.124807574,0.1437072,-0.030140433,-0.36937788,-0.24965589,0.026901353,0.032926865,0.032557275,-0.02467099,-0.07527625,0.026715277,-0.025303785,0.09956523,-0.09149849,0.008791813,-0.026850846,-0.09515363,3.0,-0.049393196,-2.5281713,1.7304852,1.3273954,-0.48576218,-3.0,1.2113979,1.0655172,-3.0,-1.5156937,-3.0,3.0,-0.5095257,-1.9964896,0.5198717,1.5142413,-0.41954282,-3.0,1.0342005,0.37247863,-3.0,-1.1994748,-3.0
2025-06-06 14:11:19.945,-0.10892268,-0.036339786,0.015583166,0.06714139,-0.017191216,0.007617922,0.0,0.0,0.0,0.008881893,0.009995471,-0.1679502,-0.09553626,0.093676604,0.1224086,0.048602816,-0.099104494,0.1594502,0.12134037,-0.046069883,-0.35742378,-0.27123526,-0.06094557,0.043603558,-0.014135256,-0.07823674,-0.08560633,-0.0058583966,-0.064850025,0.070370875,-0.027298544,-0.048262786,0.034732874,-0.046312097,3.0,-0.5095257,-1.9964896,0.5198717,1.5142413,-0.41954282,-3.0,1.0342005,0.37247863,-3.0,-1.1994748,-3.0,3.0,-0.44978437,-1.1737456,-0.40079337,1.5800302,-1.1104151,-3.0,1.4543103,-1.318547,-3.0,-1.0251117,-3.0
2025-06-06 14:11:19.965,-0.15124412,-0.1166194,-0.028594445,0.0800726,-0.04659461,0.019374894,0.0,0.0,0.0,0.008848096,-9.649172e-05,-0.17786866,-0.09324079,0.079956055,0.12885556,0.054816086,-0.11205233,0.21242674,0.038673747,-0.061577324,-0.35191473,-0.28604874,-0.036968097,0.039214883,0.037714723,-0.040944092,-0.058747154,0.023463588,0.008884675,0.0486439,-0.13386343,0.024424538,0.06245801,-0.03329507,3.0,-0.44978437,-1.1737456,-0.40079337,1.5800302,-1.1104151,-3.0,1.4543103,-1.318547,-3.0,-1.0251117,-3.0,1.5771458,-0.44858095,1.1236268,-1.9568933,1.0087304,-2.8326027,-2.9690847,1.7913225,-3.0,-3.0,-1.0352793,-3.0
2025-06-06 14:11:19.988,-0.13620052,-0.25974202,0.0016521092,0.006134419,-0.017418284,0.008666335,0.0,0.0,0.0,0.008925167,-0.012176836,-0.18822145,-0.05779573,0.055868287,0.12491716,0.041760802,-0.11283468,0.2512403,-0.06941681,-0.08572388,-0.325027,-0.30755332,0.035815522,-0.06817124,0.13660492,-0.029309044,-0.014124735,-0.0497478,0.0046477625,0.09020783,-0.33216318,-0.119788505,0.024112381,-0.07647929,1.5771458,-0.44858095,1.1236268,-1.9568933,1.0087304,-2.8326027,-2.9690847,1.7913225,-3.0,-3.0,-1.0352793,-3.0,-2.643629,-0.36979878,3.0,-3.0,0.30591002,-3.0,-1.3100011,1.7531213,-3.0,-3.0,-1.111294,-0.53882635
2025-06-06 14:11:20.005,-0.09868685,-0.4290199,0.028052622,0.042059246,-0.017420134,-0.04689766,0.0,0.0,0.0,0.008477693,-0.05478255,-0.19486898,0.051638953,0.015695069,0.13246152,0.037736833,-0.11357469,0.2751004,-0.15367272,-0.11125102,-0.32782292,-0.27472013,-0.023663042,0.075645275,0.25311786,-0.12902805,0.0021488531,0.017146436,-0.025973242,0.037224866,-0.07398966,-0.01682865,0.09454975,0.12385444,-2.643629,-0.36979878,3.0,-3.0,0.30591002,-3.0,-1.3100011,1.7531213,-3.0,-3.0,-1.111294,-0.53882635,-3.0,0.46481854,3.0,-3.0,0.53269565,-3.0,0.7045086,-0.08427858,-3.0,-3.0,-1.3184488,2.0892577
2025-06-06 14:11:20.026,0.12236002,-0.2982467,-0.006228448,0.021360245,0.04658326,-0.02504045,0.0,0.0,0.0,0.0075796773,-0.06891436,-0.12811553,0.12887119,0.0012703217,0.12567692,0.0205201,-0.13052048,0.25402066,-0.121770926,-0.12459353,-0.3264888,-0.14023466,-0.019302802,0.15273643,0.15191455,-0.09785023,-0.014636712,-0.07548169,0.0044932407,-0.13962805,0.050609387,-0.036403254,-0.011149818,0.32530218,-3.0,0.46481854,3.0,-3.0,0.53269565,-3.0,0.7045086,-0.08427858,-3.0,-3.0,-1.3184488,2.0892577,-3.0,0.43383163,3.0,-1.3674169,0.60039186,-3.0,1.5484622,-0.15706617,-3.0,-3.0,-0.63758624,3.0
2025-06-06 14:11:20.046,0.27236447,-0.024294922,-0.019535478,0.021724764,0.073084526,-0.031929564,0.0,0.0,0.0,0.006670067,-0.064514525,-0.04460562,0.19791505,-0.003499217,0.113336265,-0.0051048584,-0.13659015,0.20848824,-0.08788693,-0.1073226,-0.27915174,0.0032893643,-0.07194579,0.17288116,0.06864806,0.049679354,0.004108894,-0.11760852,-0.054229807,-0.14163688,0.18718703,0.06605102,0.19034626,0.39372024,-3.0,0.43383163,3.0,-1.3674169,0.60039186,-3.0,1.5484622,-0.15706617,-3.0,-3.0,-0.63758624,3.0,-3.0,0.6600387,2.5454648,0.74283797,0.89803684,-3.0,1.851336,-0.5804583,-3.0,-3.0,-0.3434184,2.823588
2025-06-06 14:11:20.066,0.32882968,0.118459396,0.029361906,0.01885544,0.047278345,-0.0049106786,0.0,0.0,0.0,0.006035205,-0.07336111,0.023794895,0.2148775,0.012825726,0.09365335,-0.024075156,-0.13163765,0.16090336,-0.044840366,-0.119757526,-0.20785059,0.10775248,-0.034365844,0.16211359,0.001571396,0.12714066,0.026538815,-0.06487425,0.091494486,-0.058463324,0.099946104,0.04664953,0.120152764,0.2532534,-3.0,0.6600387,2.5454648,0.74283797,0.89803684,-3.0,1.851336,-0.5804583,-3.0,-3.0,-0.3434184,2.823588,-3.0,0.7715797,1.5236886,2.7456884,1.1552703,-3.0,2.0908995,-1.0190018,-3.0,-3.0,-0.46352842,1.0818853
2025-06-06 14:11:20.087,0.43306696,0.22312935,-0.052332815,-0.04403213,-0.05527659,-0.034119066,0.0,0.0,0.0,0.005663276,-0.074016914,0.0710358,0.21428944,0.031321704,0.07523682,-0.05151732,-0.093894124,0.109908,0.00027819962,-0.10722174,-0.15570743,0.13949524,0.00026735765,0.13076071,-0.008765033,0.104082406,-0.07019968,-0.03825325,0.1286672,-0.06653279,0.08433705,-0.03401526,0.1594295,-0.02449712,-3.0,0.7715797,1.5236886,2.7456884,1.1552703,-3.0,2.0908995,-1.0190018,-3.0,-3.0,-0.46352842,1.0818853,-3.0,0.91722244,0.57400227,3.0,0.6147212,-3.0,1.9958352,-0.42877728,-3.0,-3.0,-0.3325205,-1.345553
2025-06-06 14:11:20.106,0.17828797,0.10906469,-0.05932056,-0.06408283,-0.02475487,-0.019475708,0.0,0.0,0.0,0.005667195,-0.08287473,0.13034852,0.1686135,0.0686032,0.073705114,-0.07352661,-0.06349499,0.09119269,0.026006876,-0.09075605,-0.14718223,0.13270305,0.026096279,0.1490711,-0.16410713,0.08903431,-0.06945815,-0.012169045,0.06494738,-0.11543571,-0.0038336804,0.103035,0.032178782,-0.038706195,-3.0,0.91722244,0.57400227,3.0,0.6147212,-3.0,1.9958352,-0.42877728,-3.0,-3.0,-0.3325205,-1.345553,-2.7374592,1.2417856,-0.49728793,3.0,-0.19923696,-3.0,1.3864516,-0.48469642,-3.0,-3.0,-0.17095757,-3.0
2025-06-06 14:11:20.126,-0.08871033,-0.046306282,-0.0048392625,-0.05493832,-0.003857593,-0.016718294,0.0,0.0,0.0,0.005913939,-0.10053671,0.16500202,0.113089286,0.08911158,0.07524123,-0.095343776,-0.06496849,0.08840519,0.01823173,-0.08496229,-0.114546284,0.11419304,-0.037315384,0.07188342,-0.22943893,0.06591544,0.015572584,0.0025107213,0.01867563,0.054483533,-0.06313701,0.015487287,0.10688173,-0.029031297,-2.7374592,1.2417856,-0.49728793,3.0,-0.19923696,-3.0,1.3864516,-0.48469642,-3.0,-3.0,-0.17095757,-3.0,-1.5978513,1.2800877,-1.3636045,3.0,-0.40815416,-2.5943303,0.6816593,-1.1698809,-2.8156183,-3.0,-0.28441963,-3.0
2025-06-06 14:11:20.146,-0.12739648,-0.08726024,-0.021084016,-0.06574338,-0.020516623,0.017447503,0.0,0.0,0.0,0.0061652297,-0.09143492,0.19583417,0.023046114,0.088251404,0.07491645,-0.123130135,-0.053046707,0.064402424,-0.002175514,-0.07853228,-0.10077921,0.06584072,-0.051953167,0.06565181,-0.16928309,0.053782698,-0.103792585,-0.052109014,-0.06513855,0.0073492955,-0.04654753,0.081579976,0.09645219,-0.16723113,-1.5978513,1.2800877,-1.3636045,3.0,-0.40815416,-2.5943303,0.6816593,-1.1698809,-2.8156183,-3.0,-0.28441963,-3.0,0.8434387,1.4992379,-1.8994069,3.0,-0.32532302,-1.7588439,-0.5208226,-1.2897539,-1.7118828,-3.0,-0.27334705,-3.0
2025-06-06 14:11:20.169,-0.18078722,-0.24024934,-0.10111149,0.0004916147,0.03679412,0.031109324,0.0,0.0,0.0,0.0068369918,-0.062532134,0.22552027,-0.043366622,0.090398185,0.046564806,-0.12593782,-0.05248871,0.025745247,0.0038834454,-0.07630369,-0.07517711,0.030521441,0.071404226,0.029834105,-0.15890184,0.08482161,-0.017653106,-0.08258343,-0.064853944,-0.1453584,0.020249574,0.012035375,0.030443626,-0.095842324,0.8434387,1.4992379,-1.8994069,3.0,-0.32532302,-1.7588439,-0.5208226,-1.2897539,-1.7118828,-3.0,-0.27334705,-3.0,3.0,2.235972,-3.0,3.0,0.15867668,-0.72075164,-2.5398524,-1.3223224,-0.7258313,-3.0,-0.5824621,-3.0
2025-06-06 14:11:20.188,-0.18725193,-0.24316415,-0.03614134,-0.011011979,0.03869389,-0.046430066,0.0,0.0,0.0,0.008062334,-0.035945263,0.25944847,-0.11532923,0.09531879,0.030105112,-0.1314683,-0.04287256,-0.026970655,0.0002574171,-0.07155765,-0.06548106,-0.022279562,0.059679464,0.119979024,-0.16488425,-0.03585074,0.009143245,-0.040726975,-0.015456296,-0.19479208,0.03418087,-0.020501053,0.0064505427,-0.039719313,3.0,2.235972,-3.0,3.0,0.15867668,-0.72075164,-2.5398524,-1.3223224,-0.7258313,-3.0,-0.5824621,-3.0,3.0,0.7268511,-3.0,3.0,0.48591068,0.1285297,-3.0,-1.8525294,-1.0544391,-3.0,-0.6448666,-3.0
2025-06-06 14:11:20.206,-0.07670955,-0.040584374,-0.05009871,-0.0877395,0.08302018,0.016361553,0.0,0.0,0.0,0.009142988,-0.019320441,0.25454348,-0.111848354,0.11252475,0.03550217,-0.09566141,-0.05795798,-0.09438504,-0.022298284,-0.07940175,-0.0524475,-0.044816747,0.07121348,-0.037540477,0.053445812,0.048731986,0.0600542,0.07269574,-0.075481586,-0.25231242,-0.0092525855,0.02960463,-0.05232245,-0.054630578,3.0,0.7268511,-3.0,3.0,0.48591068,0.1285297,-3.0,-1.8525294,-1.0544391,-3.0,-0.6448666,-3.0,3.0,1.0565038,-3.0,3.0,0.3016906,0.07313233,-3.0,-1.6417007,-0.41652983,-3.0,-0.6586218,-3.0
2025-06-06 14:11:20.226,0.009183526,-0.06374285,-0.016111122,-0.021046504,0.04329968,0.025125973,0.0,0.0,0.0,0.009502187,-0.022559082,0.23042966,-0.09528119,0.10387214,0.04734201,-0.07014494,-0.07088025,-0.17516164,-0.034258757,-0.06992802,-0.059864156,-0.05355451,0.016203538,-0.0062346878,0.06158832,-0.04483207,-0.021047546,0.09782265,-0.09220411,-0.14418948,0.020613136,0.043486852,-0.08541706,-0.09070265,3.0,1.0565038,-3.0,3.0,0.3016906,0.07313233,-3.0,-1.6417007,-0.41652983,-3.0,-0.6586218,-3.0,3.0,0.5774618,-3.0,3.0,0.44472697,0.16113734,-3.0,-1.7673315,-0.50419426,-3.0,-0.5433241,-3.0
2025-06-06 14:11:20.246,0.031696573,-0.040586077,0.025827056,-0.045750882,0.046961185,-0.03736632,0.0,0.0,0.0,0.009284383,-0.005649681,0.19898206,-0.077880874,0.10969729,0.046478868,-0.039049715,-0.08648823,-0.2329301,-0.034048848,-0.04909327,-0.080958076,-0.0711111,0.0688396,-0.08806311,-0.018731592,0.024545448,0.046925478,0.0004931668,0.034326848,-0.13830316,-0.029265916,0.053694718,-0.061895803,-0.06855914,3.0,0.5774618,-3.0,3.0,0.44472697,0.16113734,-3.0,-1.7673315,-0.50419426,-3.0,-0.5433241,-3.0,3.0,0.20082895,-3.0,3.0,0.5548802,0.12573656,-3.0,-1.6693358,-0.39792472,-3.0,-0.3167791,-3.0
2025-06-06 14:11:20.267,0.06669768,-0.10822844,-0.009118892,-0.0831603,0.03763219,-0.03298682,0.0,0.0,0.0,0.008858349,0.0074509117,0.1655223,-0.07122821,0.10527614,0.081530586,-0.02866903,-0.10217123,-0.26601663,-0.049949616,-0.02992824,-0.10204244,-0.084579356,-0.030570278,-0.03605001,0.097632654,0.023667084,0.035626538,0.06562402,0.04700824,-0.124801785,-0.028521087,-0.03241191,-0.019276217,-0.09887164,3.0,0.20082895,-3.0,3.0,0.5548802,0.12573656,-3.0,-1.6693358,-0.39792472,-3.0,-0.3167791,-3.0,3.0,0.21535851,-3.0,3.0,0.54354787,0.04032492,-3.0,-1.444596,-0.11502361,-3.0,-0.3906844,-3.0
2025-06-06 14:11:20.288,0.0410452,-0.091620035,0.024973884,-0.017891802,0.059531093,-0.012299705,0.0,0.0,0.0,0.008700088,0.021765761,0.13187054,-0.045342345,0.098041765,0.09784871,-0.017965907,-0.09747359,-0.27809653,-0.038237292,-0.025175901,-0.11748491,-0.09818798,-0.034436963,-0.049057003,-0.048760448,-0.06467251,0.06215279,0.06751832,-0.015379176,-0.006103075,-0.045028858,0.07443869,-0.046644386,-0.040537693,3.0,0.21535851,-3.0,3.0,0.54354787,0.04032492,-3.0,-1.444596,-0.11502361,-3.0,-0.3906844,-3.0,3.0,-0.1976388,-3.0,3.0,0.8635441,0.07233565,-3.0,-1.2791358,0.0023345947,-3.0,-0.35634306,-3.0
2025-06-06 14:11:20.306,0.0060545574,-0.13511778,-0.074722946,-0.10149984,0.019790368,-0.028351434,0.0,0.0,0.0,0.008736274,0.029208062,0.10909308,-0.052215926,0.102625124,0.11339155,-0.01087454,-0.104608394,-0.2729264,-0.027299413,-0.022574572,-0.11868616,-0.10948125,0.078708805,-0.09866953,7.950851e-05,0.06822791,0.04508917,0.0043063457,-0.024996217,0.033545136,0.088815935,0.008459168,-0.047605466,-0.08855536,3.0,-0.1976388,-3.0,3.0,0.8635441,0.07233565,-3.0,-1.2791358,0.0023345947,-3.0,-0.35634306,-3.0,3.0,0.3975386,-3.0,3.0,0.40009868,-0.19315013,-3.0,-0.9446521,0.4826898,-3.0,-0.66699815,-3.0
2025-06-06 14:11:20.327,0.029253343,-0.12487667,0.032258887,-0.024864055,0.014276917,-0.0014010182,0.0,0.0,0.0,0.009094224,0.03962377,0.087168485,-0.04582339,0.09868573,0.1122488,-0.011370229,-0.115308546,-0.24861047,-0.009650897,-0.004484856,-0.13839495,-0.11652919,0.06379377,-0.05752623,-0.02833664,0.051131673,-0.03342644,-0.033563685,0.015666768,0.08715816,0.061914977,0.07059066,-0.07246301,-0.018172398,3.0,0.3975386,-3.0,3.0,0.40009868,-0.19315013,-3.0,-0.9446521,0.4826898,-3.0,-0.66699815,-3.0,3.0,-0.25793523,-3.0,3.0,0.91756284,0.028172888,-3.0,-1.1648226,0.105575025,-3.0,-0.48197493,-3.0
2025-06-06 14:11:20.346,-0.0012916045,-0.13744174,-0.052926097,-0.05957389,0.011721592,0.048700675,0.0,0.0,0.0,0.0092204595,0.03604023,0.05778862,-0.049576096,0.10787943,0.12122005,-0.013793988,-0.117831565,-0.23940335,-0.008893556,0.002582763,-0.13838957,-0.1281437,0.06441641,-0.024721926,0.04433343,-0.025400717,0.070855744,-0.04882037,-0.059889134,0.011392005,0.010758651,0.055533286,0.008349382,-0.08995222,3.0,-0.25793523,-3.0,3.0,0.91756284,0.028172888,-3.0,-1.1648226,0.105575025,-3.0,-0.48197493,-3.0,3.0,0.10539278,-3.0,3.0,0.6232123,-0.14855614,-3.0,-0.85045356,0.62830347,-3.0,-0.6375376,-3.0
2025-06-06 14:11:20.367,0.011788145,-0.13791811,-0.0055264295,-0.08364802,0.086122915,0.011539021,0.0,0.0,0.0,0.0095545165,0.037341096,0.04532514,-0.039158452,0.10427905,0.13725543,-0.0026570135,-0.1198838,-0.21041441,0.011711297,0.003783966,-0.17162086,-0.13562703,0.011209356,-0.0486314,-0.06090791,0.049669586,0.06425305,0.044635963,-0.07033282,0.06378523,0.0513864,0.07990506,-0.03179307,-0.0015839506,3.0,0.10539278,-3.0,3.0,0.6232123,-0.14855614,-3.0,-0.85045356,0.62830347,-3.0,-0.6375376,-3.0,3.0,-0.27792525,-3.0,3.0,0.99186385,-0.0012953058,-3.0,-0.8295031,0.68456984,-3.0,-0.6784064,-3.0
2025-06-06 14:11:20.388,0.0072386237,-0.11945189,-0.012618018,-0.06804383,0.0369106,-0.024253283,0.0,0.0,0.0,0.009853634,0.04131411,0.02010952,-0.040389184,0.1082443,0.14713974,-0.0053080576,-0.11437703,-0.2131911,0.026708739,0.005778812,-0.17298709,-0.1500942,-0.013827059,-0.08916697,0.07229221,0.040586825,0.03992421,0.016250338,-0.065029226,0.07760624,-0.006284017,0.057968486,-0.07241102,-0.055000324,3.0,-0.27792525,-3.0,3.0,0.99186385,-0.0012953058,-3.0,-0.8295031,0.68456984,-3.0,-0.6784064,-3.0,3.0,-0.13070425,-3.0,3.0,0.9070949,-0.08290892,-3.0,-0.61826944,1.1152945,-3.0,-0.7411849,-3.0
2025-06-06 14:11:20.407,0.011569533,-0.12573358,0.03326573,-0.07304125,0.10106091,-0.048790958,0.0,0.0,0.0,0.009598388,0.05463084,-0.0011177072,-0.041490864,0.094902664,0.16028616,-0.013108951,-0.11281681,-0.19650477,0.053073462,0.0025623785,-0.17474176,-0.1642529,-0.009959701,-0.0822235,0.0021824029,-0.052992724,0.08886374,-0.016157638,0.063247725,0.07567483,0.075842164,0.020674756,-0.04501372,-0.0032440736,3.0,-0.13070425,-3.0,3.0,0.9070949,-0.08290892,-3.0,-0.61826944,1.1152945,-3.0,-0.7411849,-3.0,3.0,-0.46323922,-3.0,3.0,1.2284844,-0.014375366,-3.0,-0.56090975,1.1898725,-3.0,-0.5901614,-3.0
2025-06-06 14:11:20.427,0.03232119,-0.18321733,0.028303178,-0.101615995,0.06287648,-0.034637813,0.0,0.0,0.0,0.008966333,0.06454962,-0.028962467,-0.02653145,0.11042253,0.17255698,-0.015707191,-0.12064502,-0.17457445,0.0865475,0.00460976,-0.198454,-0.18560037,0.027832067,-0.0953413,-0.04651006,0.030384982,0.07939893,-0.05857566,-0.06964677,0.010231333,0.090890735,0.058191992,0.045281608,0.0016315939,3.0,-0.46323922,-3.0,3.0,1.2284844,-0.014375366,-3.0,-0.56090975,1.1898725,-3.0,-0.5901614,-3.0,3.0,-0.39780018,-3.0,3.0,1.210721,-0.04770208,-3.0,-0.3907502,1.5428727,-3.0,-0.7114879,-3.0
2025-06-06 14:11:20.447,0.05876343,-0.13763157,0.042117562,-0.17082307,0.09969168,-0.044033434,0.0,0.0,0.0,0.008341511,0.06486298,-0.036030836,-0.021649845,0.105860874,0.21042994,-0.0024067934,-0.10960205,-0.1467297,0.102958195,0.00028112362,-0.2048934,-0.19649185,0.041631415,-0.06341887,0.020692846,0.028368315,0.070617765,-0.017776417,0.049397185,0.044529635,0.07259057,0.048207633,-0.086802706,0.038775656,3.0,-0.39780018,-3.0,3.0,1.210721,-0.04770208,-3.0,-0.3907502,1.5428727,-3.0,-0.7114879,-3.0,3.0,-0.49139345,-3.0,3.0,1.289553,-0.06671775,-3.0,-0.23618408,1.5805957,-3.0,-0.73977447,-3.0
2025-06-06 14:11:20.468,0.08140995,-0.19292633,-0.0043726284,-0.11129473,0.086148314,-0.048303224,0.0,0.0,0.0,0.0077372007,0.061768908,-0.05961513,-0.021423273,0.096614406,0.22399576,-0.014669171,-0.11871017,-0.12100913,0.1205415,0.012824407,-0.21040355,-0.20701575,-0.0008574447,-0.08957416,0.049954996,0.06824492,-0.016815742,0.052195165,0.025702456,0.0288885,0.06402323,-0.011328405,-0.1032837,-0.014524981,3.0,-0.49139345,-3.0,3.0,1.289553,-0.06671775,-3.0,-0.23618408,1.5805957,-3.0,-0.73977447,-3.0,3.0,-0.29449236,-3.0,3.0,1.1281369,-0.1308741,-3.0,-0.07092169,1.6851702,-3.0,-0.9174912,-3.0
2025-06-06 14:11:20.487,0.09023846,-0.14906466,-0.025558796,-0.110990606,0.12607649,0.014595659,0.0,0.0,0.0,0.0071837893,0.06960978,-0.07135545,-0.029150015,0.10850815,0.2228024,-0.009103947,-0.12608808,-0.08710315,0.14451468,0.0056792595,-0.22154215,-0.20917365,0.030747782,-0.11486427,-0.040800255,0.05801588,-0.029060261,0.024103591,0.056586836,-0.00097637135,-0.0035948968,-0.00904772,-0.099632114,0.01959853,3.0,-0.29449236,-3.0,3.0,1.1281369,-0.1308741,-3.0,-0.07092169,1.6851702,-3.0,-0.9174912,-3.0,3.0,-0.24304824,-3.0,3.0,1.1285292,-0.11195093,-3.0,0.07841903,1.6119661,-3.0,-1.0689118,-3.0
2025-06-06 14:11:20.507,0.038966797,-0.11762777,0.0073853014,-0.18921809,0.069161385,-0.016805548,0.0,0.0,0.0,0.0064312425,0.065361954,-0.09970561,-0.037663978,0.0959069,0.22425857,-0.01528656,-0.12048749,-0.07060774,0.14997767,0.007442338,-0.252505,-0.21442896,-0.020951033,-0.06410894,-0.026030218,-0.05704922,-0.015509241,-0.0643416,0.0006942231,0.14283293,0.024024159,-0.07090702,0.0056583923,0.036648784,3.0,-0.24304824,-3.0,3.0,1.1285292,-0.11195093,-3.0,0.07841903,1.6119661,-3.0,-1.0689118,-3.0,3.0,-0.43581587,-3.0,3.0,1.2750688,-0.08531339,-3.0,0.1897953,1.5343447,-3.0,-1.0949984,-3.0
2025-06-06 14:11:20.527,0.08747252,-0.06516115,0.019131085,-0.20844668,0.09227426,-0.031239592,0.0,0.0,0.0,0.0052820123,0.06808954,-0.11228506,-0.023578689,0.10534958,0.22563106,-0.018044934,-0.11472144,-0.04695817,0.17008187,0.010171172,-0.255591,-0.21101916,-0.02382043,-0.053609,-0.023218296,-0.0041018627,-0.001555914,-0.05444001,-0.023924107,-0.008308545,-0.02292438,-0.013024497,0.00042133112,-0.022816112,3.0,-0.43581587,-3.0,3.0,1.2750688,-0.08531339,-3.0,0.1897953,1.5343447,-3.0,-1.0949984,-3.0,3.0,-0.44830307,-3.0,3.0,1.3754224,-0.0640296,-3.0,0.16116357,1.7092834,-3.0,-0.98105526,-3.0
2025-06-06 14:11:20.547,0.009116167,-0.12164159,0.040376507,-0.17287973,0.1631006,0.011725214,0.0,0.0,0.0,0.0037472863,0.07722115,-0.11678084,-0.028201075,0.09289085,0.23222822,-0.017767787,-0.12774865,-0.023721658,0.18023513,0.006361163,-0.26396933,-0.23557737,-0.044207092,-0.050298918,-0.0010349432,-0.05969007,0.06180932,0.059677802,0.03898544,-0.019429795,0.08177681,0.026101574,-0.07827476,-0.026244542,3.0,-0.44830307,-3.0,3.0,1.3754224,-0.0640296,-3.0,0.16116357,1.7092834,-3.0,-0.98105526,-3.0,3.0,-0.58435005,-3.0,3.0,1.4822664,-0.05467663,-3.0,0.13017794,1.8533809,-3.0,-0.86116505,-3.0
2025-06-06 14:11:20.570,0.066505186,-0.10337486,0.05289593,-0.15088017,0.12144347,0.0007000268,0.0,0.0,0.0,0.002154048,0.087530196,-0.13129017,-0.03444337,0.097976565,0.25328553,-0.021891296,-0.111356385,-0.005385031,0.18790463,-0.002655346,-0.28118792,-0.24288806,-0.021775436,0.03239088,0.06858919,-0.002205288,-0.006479004,0.05121569,0.07435563,-0.005283178,0.07557252,0.017713007,-0.083851814,-0.07311245,3.0,-0.58435005,-3.0,3.0,1.4822664,-0.05467663,-3.0,0.13017794,1.8533809,-3.0,-0.86116505,-3.0,3.0,-0.60009223,-3.0,3.0,1.4889226,-0.078220405,-3.0,0.2359938,1.9533923,-3.0,-0.91218436,-3.0
2025-06-06 14:11:20.588,-0.0114868125,-0.14542697,0.027494848,-0.15168083,0.12081855,-0.02132862,0.0,0.0,0.0,0.0007817295,0.09675676,-0.14053838,-0.028762242,0.10170915,0.27537665,-0.016140467,-0.1274889,-0.00017298252,0.19451421,-0.0021226085,-0.29172945,-0.24278066,0.013198096,-0.04871818,-0.021590317,0.03850319,-0.027898679,0.011520111,-0.052146297,-0.03768441,-0.04717496,0.012571637,-0.009520001,0.028731393,3.0,-0.60009223,-3.0,3.0,1.4889226,-0.078220405,-3.0,0.2359938,1.9533923,-3.0,-0.91218436,-3.0,3.0,-0.5201784,-3.0,3.0,1.4186335,-0.12840346,-3.0,0.46033624,1.976938,-3.0,-1.1274309,-3.0
2025-06-06 14:11:20.608,0.08865408,-0.16033573,0.052459497,-0.19239768,0.14415875,0.03481828,0.0,0.0,0.0,-0.00036446468,0.10030283,-0.15425485,-0.023213105,0.09712437,0.26493368,-0.013697048,-0.11741267,0.032672238,0.199143,-0.007181843,-0.2990235,-0.25647265,-0.016010514,-0.0015748774,-0.063866645,0.042394515,-0.059221156,-0.0049850303,-0.015246811,0.020965569,0.030895226,0.06967284,-0.051860634,-0.058346935,3.0,-0.5201784,-3.0,3.0,1.4186335,-0.12840346,-3.0,0.46033624,1.976938,-3.0,-1.1274309,-3.0,3.0,-0.589549,-3.0,2.7801788,1.5270838,-0.049988173,-3.0,0.39365745,1.9446044,-3.0,-1.0318015,-3.0
2025-06-06 14:11:20.628,-0.0035445353,-0.13149595,0.038986772,-0.21948788,0.12255432,0.017610995,0.0,0.0,0.0,-0.0015769135,0.100054525,-0.16620845,-0.031385582,0.10526571,0.27821937,-0.013861794,-0.12059581,0.03550846,0.19856077,0.002562428,-0.31190935,-0.2604842,-0.036687963,0.0032881598,-0.025225718,0.030082485,0.034932293,-0.007511069,-0.015275181,-0.008251688,0.0015444922,-0.008508851,-0.062126134,0.02809048,3.0,-0.589549,-3.0,2.7801788,1.5270838,-0.049988173,-3.0,0.39365745,1.9446044,-3.0,-1.0318015,-3.0,3.0,-0.59654856,-3.0,2.7353613,1.5346026,-0.15429068,-3.0,0.6150196,1.8486338,-3.0,-1.1340904,-3.0
2025-06-06 14:11:20.648,0.02189219,-0.09423899,0.06075181,-0.25592536,0.14521061,0.0031266965,0.0,0.0,0.0,-0.002739004,0.094781324,-0.1644837,-0.02181936,0.10272626,0.29578558,-0.019128023,-0.11363557,0.066996634,0.20988537,-0.006772319,-0.31699365,-0.26557827,0.0037293667,-0.033303652,0.062258292,-0.012364529,-0.029069064,0.025303146,0.026859362,-0.020971833,0.053187918,-0.06901556,-0.06828935,0.04773674,3.0,-0.59654856,-3.0,2.7353613,1.5346026,-0.15429068,-3.0,0.6150196,1.8486338,-3.0,-1.1340904,-3.0,2.997997,-0.60643715,-3.0,2.5082533,1.573858,-0.1605863,-3.0,0.58931816,1.6651871,-3.0,-1.042445,-3.0
2025-06-06 14:11:20.671,-0.021792253,-0.08775592,0.046750326,-0.18614937,0.13042344,-0.047119744,0.0,0.0,0.0,-0.0039862087,0.11459113,-0.15749903,-0.01885877,0.09577911,0.28351697,-0.026959956,-0.11455052,0.07621901,0.21714483,0.00023539571,-0.30539906,-0.25835884,0.022508226,-0.01855337,-0.057890397,-0.07946624,-0.02133947,-0.0046636416,-0.020423373,-0.028313218,0.05651952,0.056724917,-0.028851015,0.04671273,2.997997,-0.60643715,-3.0,2.5082533,1.573858,-0.1605863,-3.0,0.58931816,1.6651871,-3.0,-1.042445,-3.0,2.9144638,-0.60135394,-3.0,2.3051765,1.6145427,-0.19516891,-3.0,0.7091902,1.5145586,-3.0,-1.0393653,-3.0
2025-06-06 14:11:20.688,-0.021779284,-0.10064687,0.051834676,-0.20371349,0.1841621,0.0026189534,0.0,0.0,0.0,-0.0053301053,0.10678856,-0.16692896,-0.019087978,0.08030987,0.29388952,-0.015166037,-0.12539153,0.08197613,0.20339742,-0.00945042,-0.31560117,-0.2687868,0.08914533,0.062419213,0.06130561,0.055810656,0.011430582,0.03909292,-0.017768044,0.03608812,-0.020624267,0.021714339,-0.047089625,-0.079303354,2.9144638,-0.60135394,-3.0,2.3051765,1.6145427,-0.19516891,-3.0,0.7091902,1.5145586,-3.0,-1.0393653,-3.0,2.770499,-0.55408883,-3.0,2.1997907,1.5651928,-0.24015701,-3.0,0.69794095,1.4672487,-3.0,-0.89335585,-3.0
2025-06-06 14:11:20.708,-0.0005294155,-0.119178325,0.104666434,-0.21051738,0.19501375,-0.033338282,0.0,0.0,0.0,-0.006864002,0.1262684,-0.15740299,-0.019630674,0.07265329,0.29557925,-0.019391287,-0.12121296,0.10319925,0.20435974,-0.008638057,-0.30352443,-0.27873045,0.026691204,0.05808744,0.007853363,0.013693657,-0.063282385,0.025966745,-0.05929437,-0.021642286,-0.04377752,0.041104898,-0.02442962,0.053457472,2.770499,-0.55408883,-3.0,2.1997907,1.5651928,-0.24015701,-3.0,0.69794095,1.4672487,-3.0,-0.89335585,-3.0,2.280313,-0.7405511,-3.0,1.868444,1.7995298,-0.18495503,-3.0,0.6435123,1.3169024,-3.0,-0.7212759,-3.0
2025-06-06 14:11:20.728,-0.0204528,-0.10826939,0.030638153,-0.21527486,0.17213783,-0.04518641,0.0,0.0,0.0,-0.008461602,0.13191254,-0.15571427,-0.028248334,0.06730577,0.31553528,-0.03222335,-0.119030364,0.097891755,0.20563474,-0.026833149,-0.29470086,-0.2915125,0.01613525,-0.012609777,-0.01750017,-0.05950908,0.03744932,-0.046143476,0.039506022,0.096261576,0.054264106,0.022731163,0.04993942,0.010217821,2.280313,-0.7405511,-3.0,1.868444,1.7995298,-0.18495503,-3.0,0.6435123,1.3169024,-3.0,-0.7212759,-3.0,2.2775104,-0.3677802,-2.9036038,2.0055044,1.5105855,-0.5163529,-3.0,1.0479429,0.99103636,-3.0,-0.8280137,-3.0
2025-06-06 14:11:20.748,-0.0114672445,-0.0046452535,0.10850173,-0.20092249,0.12530132,-0.008551412,0.0,0.0,0.0,-0.009711595,0.12778956,-0.15061556,-0.019226762,0.05869601,0.31105694,-0.029404124,-0.1257898,0.12381272,0.20793429,-0.023209557,-0.28954226,-0.28535834,0.08129931,-0.048844606,0.056403365,-0.07848016,0.009903915,-0.027834715,0.010567708,0.021536984,-0.022906348,-0.047647685,-0.028937748,-0.05521893,2.2775104,-0.3677802,-2.9036038,2.0055044,1.5105855,-0.5163529,-3.0,1.0479429,0.99103636,-3.0,-0.8280137,-3.0,1.6377177,-0.5871401,-2.7812507,1.5058874,1.7341937,-0.22366369,-3.0,0.54057163,0.6832034,-3.0,-0.48182607,-3.0
2025-06-06 14:11:20.771,-0.01625288,-0.068180926,0.024410443,-0.20019795,0.1278239,-0.021836538,0.0,0.0,0.0,-0.0110797575,0.13168775,-0.13731806,-0.012932397,0.04931868,0.32389826,-0.026111245,-0.12294529,0.14122622,0.19225863,-0.033592604,-0.2830254,-0.3055486,-0.011747285,0.064312615,0.066624776,-0.04431931,0.05818407,0.040224116,-0.0740887,0.07083505,-0.07446185,-0.08000871,0.016009608,-0.011636056,1.6377177,-0.5871401,-2.7812507,1.5058874,1.7341937,-0.22366369,-3.0,0.54057163,0.6832034,-3.0,-0.48182607,-3.0,2.0840878,-0.16762139,-2.6457849,2.3912423,1.3478955,-0.7090232,-3.0,0.98583966,0.24182916,-3.0,-0.71871036,-3.0
2025-06-06 14:11:20.789,0.02154357,-0.012036554,0.08026996,-0.27757406,0.12625244,0.035509475,0.0,0.0,0.0,-0.011931864,0.13903926,-0.12744917,-0.010996742,0.054260444,0.31337556,-0.05399319,-0.12967798,0.15490954,0.1861584,-0.03154932,-0.25282302,-0.30183262,0.0812597,-0.025962213,0.045904834,0.03725336,-0.025136048,-0.0017385922,0.058884945,0.014547471,0.01551689,-0.05547944,-0.030163813,0.0011941267,2.0840878,-0.16762139,-2.6457849,2.3912423,1.3478955,-0.7090232,-3.0,0.98583966,0.24182916,-3.0,-0.71871036,-3.0,2.0819468,-0.34901702,-2.7214077,3.0,1.2974979,-0.19330272,-3.0,0.2224161,-0.043175038,-3.0,-0.5595514,-3.0
2025-06-06 14:11:20.809,-0.01987227,-0.035341863,-0.0063703074,-0.19282189,0.18629467,0.024862392,0.0,0.0,0.0,-0.0127021065,0.13358799,-0.12510611,-0.016169947,0.061192326,0.28399447,-0.050792314,-0.11164815,0.16383678,0.18193853,-0.038345303,-0.24855353,-0.31408694,-0.008590977,0.07272572,0.044324663,0.00017811159,-0.074713,-0.052070152,0.005953979,-0.011675696,0.03198872,0.03859861,0.07227453,-0.00392472,2.0819468,-0.34901702,-2.7214077,3.0,1.2974979,-0.19330272,-3.0,0.2224161,-0.043175038,-3.0,-0.5595514,-3.0,3.0,-0.066271715,-3.0,3.0,0.76547086,-0.30734915,-3.0,0.189582,0.047992453,-3.0,-0.9191051,-3.0
2025-06-06 14:11:20.829,0.1229346,0.021333052,0.00065404124,-0.19169337,0.17834157,-0.045992482,0.0,0.0,0.0,-0.013014817,0.14309894,-0.10306707,-0.033350952,0.07489033,0.26469973,-0.035257295,-0.10624409,0.16722958,0.17697349,-0.030979091,-0.2552405,-0.29696625,0.05121401,0.09899259,-0.11375948,-0.016108265,-0.1046376,-0.05845662,0.07989536,0.038099457,-0.059017703,-0.022820635,0.0044681015,0.04138258,3.0,-0.066271715,-3.0,3.0,0.76547086,-0.30734915,-3.0,0.189582,0.047992453,-3.0,-0.9191051,-3.0,3.0,-0.37661812,-2.9530199,3.0,1.0275339,-0.18253595,-3.0,0.30599564,0.16603258,-3.0,-1.1169617,-3.0
2025-06-06 14:11:20.848,0.1326987,-0.047968917,-0.09653549,-0.26146314,0.2008997,-0.016515346,0.0,0.0,0.0,-0.013023748,0.13816832,-0.10429413,-0.04171715,0.08601165,0.22248282,-0.029398685,-0.11094129,0.17644793,0.17653231,-0.012876145,-0.25803736,-0.2999684,0.016001333,0.034933776,0.0073480955,-0.028775675,-0.122132,0.020017939,-0.028898017,-0.038973935,0.055359874,0.07459561,0.007915088,0.08572732,3.0,-0.37661812,-2.9530199,3.0,1.0275339,-0.18253595,-3.0,0.30599564,0.16603258,-3.0,-1.1169617,-3.0,3.0,0.15570234,-2.7418056,3.0,0.5801417,-0.4757615,-3.0,0.62096506,-0.056149155,-3.0,-1.3426323,-3.0
2025-06-06 14:11:20.871,0.16646236,-0.072414294,-0.014954155,-0.29396647,0.14059727,-0.029470168,0.0,0.0,0.0,-0.013033645,0.13033696,-0.08477083,-0.07577173,0.09863295,0.2038062,-0.035629608,-0.10907744,0.16131672,0.17022663,-0.022029007,-0.26484072,-0.28988734,-0.03740581,-0.024304384,-0.10589105,0.06859495,-0.14595515,0.041448522,0.0041981125,0.025964057,-0.07709612,0.034677647,0.029605681,0.04396594,3.0,0.15570234,-2.7418056,3.0,0.5801417,-0.4757615,-3.0,0.62096506,-0.056149155,-3.0,-1.3426323,-3.0,3.0,-0.28667015,-2.4694602,3.0,0.9772232,-0.12665805,-3.0,0.23726001,-0.15169433,-3.0,-1.1326005,-3.0
2025-06-06 14:11:20.888,0.08740518,-0.096299276,-0.048968587,-0.26703453,0.19087726,0.016788626,0.0,0.0,0.0,-0.013692081,0.13474478,-0.07005014,-0.074710496,0.10155736,0.17491913,-0.046709597,-0.111801416,0.16704495,0.17369017,-0.015897451,-0.28845048,-0.2686688,-0.048995025,-0.020077078,0.04899631,-0.024647515,0.016580947,0.0049371193,-0.038634043,0.07170526,-0.045073655,-0.013459129,-0.044741966,-0.03284605,3.0,-0.28667015,-2.4694602,3.0,0.9772232,-0.12665805,-3.0,0.23726001,-0.15169433,-3.0,-1.1326005,-3.0,3.0,0.16752681,-2.637769,3.0,0.5234994,-0.32388812,-3.0,0.3132125,-0.4418364,-3.0,-1.1234204,-3.0
2025-06-06 14:11:20.909,0.052733675,-0.010715872,-0.019703845,-0.24980214,0.19500525,0.0049807685,0.0,0.0,0.0,-0.014364548,0.13608563,-0.0751692,-0.0780222,0.10872403,0.16175207,-0.039046757,-0.10891768,0.18081781,0.17578882,-0.02463883,-0.29327244,-0.26339936,-0.04148384,0.09919162,-0.011444291,-0.015577817,0.0020670712,-0.061384764,-0.017326921,0.086087756,-0.053788893,-0.07280848,-0.04876065,-0.044814453,3.0,0.16752681,-2.637769,3.0,0.5234994,-0.32388812,-3.0,0.3132125,-0.4418364,-3.0,-1.1234204,-3.0,3.0,-0.023674626,-2.5778625,3.0,0.6585423,-0.24587229,-3.0,0.21698825,-0.48427612,-3.0,-1.1367854,-3.0
2025-06-06 14:11:20.929,-0.0040801805,-0.06930106,-0.023672262,-0.26207557,0.11895271,-0.03547199,0.0,0.0,0.0,-0.014903672,0.12074217,-0.055890307,-0.08908024,0.10535764,0.15724379,-0.030317742,-0.1169466,0.18655959,0.17088439,-0.02982033,-0.28646427,-0.25970966,0.035515495,0.06951986,0.053311896,-0.012369366,-0.102565475,0.017888008,0.062451128,0.0333427,0.05168739,0.043509413,-0.055573337,0.051813588,3.0,-0.023674626,-2.5778625,3.0,0.6585423,-0.24587229,-3.0,0.21698825,-0.48427612,-3.0,-1.1367854,-3.0,3.0,0.027236413,-2.6339564,3.0,0.61319524,-0.29779807,-3.0,0.2033997,-0.6461001,-3.0,-1.1451516,-3.0
2025-06-06 14:11:20.949,0.08045536,-0.043723933,-0.04291255,-0.26042074,0.116760164,-0.00473316,0.0,0.0,0.0,-0.015220698,0.12868589,-0.055315778,-0.10578678,0.1101716,0.14174862,-0.02981954,-0.116717,0.20399103,0.16179216,-0.0342417,-0.29158983,-0.24711989,9.77932e-05,0.04020805,0.014867946,-0.05403438,0.023144927,-0.011032538,0.016125182,-0.012092526,-0.008407115,-0.050215285,-0.02864951,0.010741334,3.0,0.027236413,-2.6339564,3.0,0.61319524,-0.29779807,-3.0,0.2033997,-0.6461001,-3.0,-1.1451516,-3.0,3.0,0.12746952,-2.5898736,3.0,0.5920657,-0.38288373,-3.0,0.2744575,-0.7250066,-3.0,-1.1722114,-3.0
2025-06-06 14:11:20.971,0.05640005,-0.019733246,-0.015165423,-0.30694357,0.141255,-0.040653713,0.0,0.0,0.0,-0.015259144,0.1316029,-0.047853608,-0.09509119,0.10596965,0.123352975,-0.033246074,-0.12704898,0.19892927,0.16236115,-0.022061296,-0.29492986,-0.25281167,-0.038015183,-0.03753566,0.03735467,0.018672828,0.05230096,0.036865823,-0.06731105,0.035724476,0.033181325,0.039237823,0.07639501,0.022188727,3.0,0.12746952,-2.5898736,3.0,0.5920657,-0.38288373,-3.0,0.2744575,-0.7250066,-3.0,-1.1722114,-3.0,3.0,-0.02448066,-2.618551,3.0,0.71919674,-0.28068957,-3.0,0.062310282,-0.68673325,-3.0,-1.06263,-3.0
2025-06-06 14:11:20.989,0.025171645,0.009528942,-0.0716392,-0.24130142,0.1663188,-0.044970836,0.0,0.0,0.0,-0.015172715,0.13384882,-0.03920658,-0.103777416,0.09836713,0.12267152,-0.037763778,-0.11590777,0.22153716,0.16477458,-0.031752016,-0.29198352,-0.23791361,-0.03217237,0.010338344,-0.067890935,-0.021811295,-0.032129988,-0.066405386,0.04212116,0.07690121,0.06775464,-0.028861444,0.03559923,0.066846415,3.0,-0.02448066,-2.618551,3.0,0.71919674,-0.28068957,-3.0,0.062310282,-0.68673325,-3.0,-1.06263,-3.0,3.0,0.44571787,-2.5379293,3.0,0.39368832,-0.5632754,-3.0,0.45220214,-0.8840869,-3.0,-1.2952114,-3.0
2025-06-06 14:11:21.009,0.056880537,0.030444384,-0.0041116267,-0.25519836,0.18917228,0.013238485,0.0,0.0,0.0,-0.014697889,0.118546516,-0.036585998,-0.10538873,0.10207427,0.11277945,-0.039433323,-0.11548771,0.2165075,0.15128464,-0.03485444,-0.28336024,-0.23916787,0.02812735,-0.020856962,-0.07715145,-0.012649419,0.035047293,0.03743868,-0.067243434,0.084289454,-0.08556453,-0.018520642,-0.015897859,0.051697005,3.0,0.44571787,-2.5379293,3.0,0.39368832,-0.5632754,-3.0,0.45220214,-0.8840869,-3.0,-1.2952114,-3.0,3.0,-0.056130577,-2.449433,3.0,0.78345484,-0.27169406,-3.0,0.15257293,-0.6337605,-3.0,-1.0888959,-3.0
2025-06-06 14:11:21.029,0.031268377,-0.030108608,-0.0791876,-0.27887914,0.14020373,0.02237635,0.0,0.0,0.0,-0.014470222,0.1311157,-0.021493329,-0.11130552,0.1094656,0.13096373,-0.0365506,-0.108643174,0.21969655,0.14351818,-0.035288777,-0.2876627,-0.23149267,0.025999008,0.08136855,0.05857879,0.06861869,0.049536094,0.0033322042,-0.016132116,0.03790937,0.04515338,-0.0536359,-0.020823356,0.04253196,3.0,-0.056130577,-2.449433,3.0,0.78345484,-0.27169406,-3.0,0.15257293,-0.6337605,-3.0,-1.0888959,-3.0,3.0,0.59671044,-2.553757,3.0,0.33638784,-0.55036795,-3.0,0.39909127,-0.8327253,-3.0,-1.248285,-3.0
2025-06-06 14:11:21.049,0.02652465,0.06534599,0.014382036,-0.27832192,0.17748053,-0.039241277,0.0,0.0,0.0,-0.014094459,0.118137635,-0.01447899,-0.12270206,0.0946387,0.12273758,-0.043609504,-0.115935445,0.22592735,0.14367704,-0.01595351,-0.2818374,-0.22077353,-0.059201386,0.070158675,0.020636905,-0.065399185,-0.057350483,-1.8962704e-05,0.05063625,0.0908935,0.06490503,0.0016180226,-0.023273153,-0.0007829005,3.0,0.59671044,-2.553757,3.0,0.33638784,-0.55036795,-3.0,0.39909127,-0.8327253,-3.0,-1.248285,-3.0,3.0,-0.16233738,-2.531397,3.0,0.8273523,-0.1933367,-3.0,-0.027047459,-0.68604326,-3.0,-1.0000799,-3.0
2025-06-06 14:11:21.071,0.02205787,-0.066564746,-0.04526018,-0.28759035,0.18054695,-0.0432715,0.0,0.0,0.0,-0.01386637,0.11849873,-0.010647396,-0.115606256,0.099193074,0.1112903,-0.05222179,-0.11884179,0.23156059,0.14095491,-0.033846665,-0.2681817,-0.23062278,-0.010863159,-0.045866538,0.006939234,-0.0716286,0.07079466,-0.025934987,0.04042579,-0.055643175,0.059029583,-0.02734096,0.056884624,-0.05707885,3.0,-0.16233738,-2.531397,3.0,0.8273523,-0.1933367,-3.0,-0.027047459,-0.68604326,-3.0,-1.0000799,-3.0,3.0,0.25468183,-2.6870277,3.0,0.46071365,-0.38390583,-3.0,0.06624821,-0.7858862,-3.0,-1.00959,-3.0
2025-06-06 14:11:21.090,0.013093024,0.01805851,-0.037210375,-0.31321424,0.17448649,0.044891533,0.0,0.0,0.0,-0.013219527,0.12407403,-0.003208926,-0.1204469,0.096884534,0.1261895,-0.049949262,-0.12107893,0.22795105,0.14454763,-0.030171908,-0.2637077,-0.2154286,0.038995307,0.066305496,-0.03519285,-0.005960033,-0.075671844,-0.028227862,-0.059201036,-0.004170737,0.010852813,0.05016307,0.051178686,0.023528049,3.0,0.25468183,-2.6870277,3.0,0.46071365,-0.38390583,-3.0,0.06624821,-0.7858862,-3.0,-1.00959,-3.0,3.0,0.21849225,-2.6193304,3.0,0.5684359,-0.33351874,-3.0,0.10838586,-0.7513722,-3.0,-1.1270531,-3.0
2025-06-06 14:11:21.110,0.036698733,-0.013245173,-0.10449104,-0.30195934,0.13596801,0.019763181,0.0,0.0,0.0,-0.012172929,0.10767774,-0.006955521,-0.11719534,0.10484833,0.107048064,-0.04562343,-0.12752715,0.21757849,0.16019484,-0.01888555,-0.25822204,-0.21697606,-0.0047988873,-0.046853155,0.027924733,-0.06283178,-0.011259484,-0.050241433,0.03701642,-0.059836727,-0.050490998,0.07943016,0.0037457566,-0.037066374,3.0,0.21849225,-2.6193304,3.0,0.5684359,-0.33351874,-3.0,0.10838586,-0.7513722,-3.0,-1.1270531,-3.0,3.0,0.62926084,-2.4720032,3.0,0.3736534,-0.45757556,-3.0,0.30030456,-0.7019169,-3.0,-1.1908203,-3.0
2025-06-06 14:11:21.130,0.009111215,0.022488361,-0.06645384,-0.28304988,0.13520664,-0.04390885,0.0,0.0,0.0,-0.011111999,0.113068365,-0.009195449,-0.11131073,0.093025446,0.09691883,-0.039042316,-0.114929564,0.23604228,0.16431113,-0.017122485,-0.2686545,-0.22150932,0.002038957,0.014360844,-0.065256,0.047339644,0.046351306,0.027839936,0.05360855,0.019294232,0.0714288,-0.030283982,0.006429219,-0.058798317,3.0,0.62926084,-2.4720032,3.0,0.3736534,-0.45757556,-3.0,0.30030456,-0.7019169,-3.0,-1.1908203,-3.0,3.0,0.35455292,-2.4930549,3.0,0.56037843,-0.2591745,-3.0,0.0988864,-0.47770107,-3.0,-1.1401968,-3.0
2025-06-06 14:11:21.150,-0.007875714,0.01474598,-0.013468305,-0.29226533,0.116845705,-0.011640719,0.0,0.0,0.0,-0.010471461,0.10304143,-0.010272274,-0.12654446,0.1020657,0.10175597,-0.05212872,-0.10844195,0.22499742,0.15866351,-0.013011419,-0.25795504,-0.20391998,0.032806613,-0.044604123,-0.033859886,-0.015887644,0.04707205,-0.057197947,-0.07174868,-0.014995763,0.0061461916,-0.033041432,0.05530727,0.059568156,3.0,0.35455292,-2.4930549,3.0,0.56037843,-0.2591745,-3.0,0.0988864,-0.47770107,-3.0,-1.1401968,-3.0,3.0,0.0058162613,-2.6785254,3.0,0.6984103,-0.17137665,-3.0,-0.053599026,-0.61688465,-3.0,-1.0713036,-3.0
2025-06-06 14:11:21.171,0.0010262466,0.01907058,-0.097534336,-0.30614826,0.19179708,0.004172084,0.0,0.0,0.0,-0.009985974,0.09892878,-0.012901959,-0.1284753,0.10970985,0.10825225,-0.033175148,-0.11630151,0.23244147,0.16545561,-0.018668542,-0.25737068,-0.22024517,-0.025129952,-0.025583155,-0.004185173,0.008991236,0.045518644,-0.05597965,-0.03595876,-0.041912533,0.010283917,-0.025620766,0.049747374,-0.006890384,3.0,0.0058162613,-2.6785254,3.0,0.6984103,-0.17137665,-3.0,-0.053599026,-0.61688465,-3.0,-1.0713036,-3.0,3.0,0.58309674,-2.5762722,3.0,0.34283224,-0.49360973,-3.0,0.28187996,-0.71424586,-3.0,-1.2282612,-3.0
2025-06-06 14:11:21.189,0.04183641,0.055448905,0.037024613,-0.34229147,0.12032033,0.049832564,0.0,0.0,0.0,-0.009241074,0.110074006,-0.005923037,-0.11658675,0.11037518,0.115106486,-0.047981393,-0.118850894,0.2288867,0.16861032,-0.006723804,-0.26545542,-0.2057755,-0.054375634,0.078433886,0.02542103,0.036615666,-0.08200464,-0.030412545,0.009672418,0.0547901,0.004641317,-0.011776828,-0.021793576,0.011911204,3.0,0.58309674,-2.5762722,3.0,0.34283224,-0.49360973,-3.0,0.28187996,-0.71424586,-3.0,-1.2282612,-3.0,3.0,-0.16734423,-2.6447158,3.0,0.83207154,-0.11689048,-3.0,-0.1747879,-0.63678724,-3.0,-0.9465059,-3.0
2025-06-06 14:11:21.209,-0.036080547,-0.056933586,-0.06285507,-0.26044703,0.13671127,-0.03197092,0.0,0.0,0.0,-0.008876106,0.10676256,0.003960564,-0.12415896,0.09449313,0.11118617,-0.03643455,-0.11227259,0.21316394,0.16854826,-0.0022264814,-0.2675768,-0.21219265,-0.028885456,-0.059052415,0.006088336,0.016410964,-0.04138136,0.08520117,-0.036891457,-0.07299412,-0.05480683,-0.062274393,0.001797009,0.058944847,3.0,-0.16734423,-2.6447158,3.0,0.83207154,-0.11689048,-3.0,-0.1747879,-0.63678724,-3.0,-0.9465059,-3.0,3.0,0.3511964,-2.7001803,3.0,0.4187282,-0.4691869,-3.0,0.17596418,-0.7209512,-3.0,-1.1556842,-3.0
2025-06-06 14:11:21.230,-0.02989204,-0.030931875,0.0027163457,-0.26661217,0.16861045,0.048380986,0.0,0.0,0.0,-0.008261765,0.09644892,-0.0032864686,-0.12012112,0.10027742,0.10652137,-0.030473676,-0.110143445,0.20378749,0.16738038,-0.0020733923,-0.24963413,-0.20320216,-0.0071942713,0.07262376,0.035867624,0.05745249,-0.015645696,-0.06639815,-0.02190446,-0.020036735,-0.05348254,0.06267726,0.032063223,-0.04302655,3.0,0.3511964,-2.7001803,3.0,0.4187282,-0.4691869,-3.0,0.17596418,-0.7209512,-3.0,-1.1556842,-3.0,3.0,-0.088153206,-2.7167296,3.0,0.7730203,-0.10455311,-3.0,-0.2543773,-0.57310265,-3.0,-0.8881584,-3.0
2025-06-06 14:11:21.250,-0.031329844,0.034532323,-0.017764462,-0.26582348,0.18760408,0.012352525,0.0,0.0,0.0,-0.007779809,0.09042043,0.0017181849,-0.12096275,0.09585706,0.111483276,-0.031200124,-0.11558541,0.19617158,0.17901206,0.0016212177,-0.24739969,-0.2061859,0.06513564,-0.046321884,-0.014388034,-0.012225696,-0.027237533,0.025088888,-0.017923236,0.028993556,0.009059538,0.05968492,0.06395744,-0.009645415,3.0,-0.088153206,-2.7167296,3.0,0.7730203,-0.10455311,-3.0,-0.2543773,-0.57310265,-3.0,-0.8881584,-3.0,3.0,0.00801755,-2.8705027,3.0,0.59682167,-0.20954016,-3.0,-0.16737363,-0.54080576,-3.0,-0.9324449,-3.0
2025-06-06 14:11:21.271,0.028589634,-0.012601738,-0.09871293,-0.33193132,0.13233133,-0.02660996,0.0,0.0,0.0,-0.0070413067,0.099156186,-0.017198382,-0.13457185,0.1091704,0.12132393,-0.03990027,-0.12479938,0.19133298,0.17157121,0.0016172839,-0.25989637,-0.205325,0.02725085,0.028355155,0.0071842507,-0.07328163,-0.015420527,0.009415125,0.0377557,0.012287961,0.033283167,-0.058368135,-0.038204104,-0.08189155,3.0,0.00801755,-2.8705027,3.0,0.59682167,-0.20954016,-3.0,-0.16737363,-0.54080576,-3.0,-0.9324449,-3.0,3.0,0.5126388,-2.599264,3.0,0.31121632,-0.49160647,-3.0,0.2714408,-0.5718551,-3.0,-1.2562568,-3.0
2025-06-06 14:11:21.290,0.00961464,0.04182476,0.039104182,-0.3377134,0.15908626,0.046896324,0.0,0.0,0.0,-0.0059986473,0.09325427,-0.012371965,-0.1276583,0.10070139,0.10530282,-0.039069857,-0.12249907,0.18274581,0.16689196,4.341879e-05,-0.26029903,-0.2139232,0.028202165,0.023285631,-0.070719495,0.018877452,-0.07826158,-0.07884251,0.05338072,0.036472205,0.033909593,0.056565803,-0.0027978304,-0.035294265,3.0,0.5126388,-2.599264,3.0,0.31121632,-0.49160647,-3.0,0.2714408,-0.5718551,-3.0,-1.2562568,-3.0,3.0,-0.3147743,-2.6713712,3.0,0.9005573,-0.0018421188,-3.0,-0.3160972,-0.4971623,-3.0,-0.8322867,-3.0
2025-06-06 14:11:21.310,-0.058869466,-0.02688817,-0.027733171,-0.32877296,0.14104767,0.04134142,0.0,0.0,0.0,-0.0057233484,0.09704288,-0.020686347,-0.12112037,0.0967187,0.10875712,-0.031059822,-0.11795039,0.18625754,0.18720156,0.0048748963,-0.25339603,-0.21603091,-0.01773712,0.029869836,-0.048393138,0.063687176,0.061167076,0.04372252,-0.076065145,0.051809814,0.07838072,0.019124895,-0.0057774326,-0.02640168,3.0,-0.3147743,-2.6713712,3.0,0.9005573,-0.0018421188,-3.0,-0.3160972,-0.4971623,-3.0,-0.8322867,-3.0,3.0,0.09312231,-2.978381,3.0,0.5176383,-0.29985017,-3.0,-0.047099117,-0.49117297,-3.0,-1.0303788,-3.0
2025-06-06 14:11:21.330,-0.02693159,-0.03197025,-0.029096613,-0.3238775,0.14435859,-0.029023636,0.0,0.0,0.0,-0.0052957707,0.10107675,-0.021022985,-0.13613431,0.09408568,0.1189384,-0.035635073,-0.13001204,0.18007734,0.18826823,-0.0028429276,-0.24874035,-0.21221091,-0.014441801,0.059427403,0.045881294,-0.067077965,-0.05249556,-0.010392515,-0.0052155084,0.004889981,0.039544214,0.014944703,-0.0006088039,0.048825543,3.0,0.09312231,-2.978381,3.0,0.5176383,-0.29985017,-3.0,-0.047099117,-0.49117297,-3.0,-1.0303788,-3.0,3.0,0.0047470136,-2.7343268,3.0,0.6265329,-0.29874256,-3.0,0.030066516,-0.63156134,-3.0,-1.1313457,-3.0
2025-06-06 14:11:21.350,0.047144637,-0.0030458672,-0.03397662,-0.29400018,0.18701912,0.0027598406,0.0,0.0,0.0,-0.004822024,0.10013925,-0.01814598,-0.13433535,0.108957544,0.122521415,-0.030223923,-0.11571577,0.18057953,0.18253045,0.01355042,-0.24339,-0.22970921,0.008003012,-0.001074943,0.011882382,-0.011985597,0.062337924,-0.032491438,-0.040985845,-0.012421726,0.006390542,-0.060813803,0.03465227,-0.060588337,3.0,0.0047470136,-2.7343268,3.0,0.6265329,-0.29874256,-3.0,0.030066516,-0.63156134,-3.0,-1.1313457,-3.0,3.0,0.076439716,-2.713015,3.0,0.6410828,-0.21923459,-3.0,-0.11581279,-0.58598244,-3.0,-0.9508412,-3.0
2025-06-06 14:11:21.371,0.023640847,0.02207634,0.015039465,-0.24571109,0.1255197,0.0148444865,0.0,0.0,0.0,-0.0047943546,0.093710095,-0.02657226,-0.13536172,0.10735096,0.11725718,-0.028912505,-0.12153606,0.18025826,0.17939772,0.008630598,-0.25104603,-0.2226854,-0.022077506,0.062496915,-0.010572989,-0.030896178,0.048278127,-0.0037981912,0.0024736407,-0.023105487,-0.053712554,0.064642236,-0.052880332,0.042005938,3.0,0.076439716,-2.713015,3.0,0.6410828,-0.21923459,-3.0,-0.11581279,-0.58598244,-3.0,-0.9508412,-3.0,3.0,-0.29616454,-2.8803127,3.0,0.82873255,-0.14388895,-3.0,-0.14897701,-0.6108672,-3.0,-0.9546745,-3.0
2025-06-06 14:11:21.390,-0.03672652,-0.034869514,0.011409219,-0.24837495,0.15868896,-0.029811837,0.0,0.0,0.0,-0.0049073887,0.092178494,-0.014697477,-0.13566867,0.107480146,0.1286239,-0.0349393,-0.11537346,0.17460097,0.17812121,0.008212818,-0.256445,-0.23563063,0.010008577,0.037002563,0.07388439,-0.039467506,0.08787903,-0.05087831,-0.012519769,0.027679143,-0.057853322,0.054029733,0.020740196,0.02869393,3.0,-0.29616454,-2.8803127,3.0,0.82873255,-0.14388895,-3.0,-0.14897701,-0.6108672,-3.0,-0.9546745,-3.0,3.0,-0.14654414,-2.980482,3.0,0.7097769,-0.20546034,-3.0,-0.07536432,-0.4771657,-3.0,-0.9460661,-3.0
2025-06-06 14:11:21.411,0.029479858,0.047578625,0.043888204,-0.30279428,0.19037993,0.02822498,0.0,0.0,0.0,-0.0048595527,0.10446965,-0.018337108,-0.11600226,0.10898458,0.12603799,-0.03042224,-0.12316177,0.1687731,0.17233108,0.0025499954,-0.24836251,-0.2270225,-0.061095905,0.047521867,0.054041605,-0.032078493,0.044944048,0.043872472,-0.004210819,-0.05635726,-0.056428716,0.04109118,0.031516436,-0.04972584,3.0,-0.14654414,-2.980482,3.0,0.7097769,-0.20546034,-3.0,-0.07536432,-0.4771657,-3.0,-0.9460661,-3.0,3.0,-0.37219334,-3.0,3.0,1.0001596,-0.062835805,-3.0,-0.2606009,-0.16517735,-3.0,-0.80404764,-3.0
