openverse-orca/OrcaGym/log/simulation_log_20250721_172822.csv
timestamp,sim_time,physics_step,control_step,imu_angle_roll,imu_angle_pitch,imu_angle_yaw,imu_angular_velocity_roll,imu_angular_velocity_pitch,imu_angular_velocity_yaw,imu_acc_x,imu_acc_y,imu_acc_z,fl_joint1_pos,fl_joint1_vel,fl_joint1_torque,fl_joint2_pos,fl_joint2_vel,fl_joint2_torque,fl_joint3_pos,fl_joint3_vel,fl_joint3_torque,fr_joint1_pos,fr_joint1_vel,fr_joint1_torque,fr_joint2_pos,fr_joint2_vel,fr_joint2_torque,fr_joint3_pos,fr_joint3_vel,fr_joint3_torque,hl_joint1_pos,hl_joint1_vel,hl_joint1_torque,hl_joint2_pos,hl_joint2_vel,hl_joint2_torque,hl_joint3_pos,hl_joint3_vel,hl_joint3_torque,hr_joint1_pos,hr_joint1_vel,hr_joint1_torque,hr_joint2_pos,hr_joint2_vel,hr_joint2_torque,hr_joint3_pos,hr_joint3_vel,hr_joint3_torque,fl_force_x,fl_force_y,fl_force_z,fr_force_x,fr_force_y,fr_force_z,hl_force_x,hl_force_y,hl_force_z,hr_force_x,hr_force_y,hr_force_z,fl_hip_action,fl_thigh_action,fl_calf_action,fr_hip_action,fr_thigh_action,fr_calf_action,hl_hip_action,hl_thigh_action,hl_calf_action,hr_hip_action,hr_thigh_action,hr_calf_action
2025-07-21 17:28:22.289,0.0,0,0,-0.13011944,-0.06473618,-0.06323656,-0.04856958,0.012178407,0.036765404,0.019803217,-0.040312488,-0.043217197,3.685236,-0.33183783,0.0,0.0,0.85329676,0.0,0.0,0.0012187499,0.001468982,-0.005738672,-0.0023578287,0.0074690245,-0.001231198,0.005846513,0.007035183,0.0061801095,0.006354067,-0.0014896712,-0.008492612,0.06949157,-0.008484327,-0.060715556,-0.074842416,0.06275608,-0.041168276,-0.055833098,0.018308327,0.029397959,0.06515622,0.026124883,-0.026781907,0.0,0.0,0.0,0.0,0.0,0.0,0.0,0.0,0.0,0.0,0.0,0.0,0.013196452,0.55770683,-1.0,1.0,-1.0,1.0,-1.0,-1.0,-1.0,-1.0,-1.0,0.7794726
2025-07-21 17:28:22.312,0.02,20,1,-0.068421416,0.2753953,0.038331565,0.2691786,0.05955404,-0.25361,0.040695436,0.028053463,0.041949093,0.0,0.0,0.0,-0.25,0.5,0.0,0.0,-0.0031019575,0.04813182,-0.06717363,0.03249251,-0.045512963,0.07791778,-0.05194259,-0.031717036,-0.06974679,-0.058579344,-0.06644383,0.061442416,0.036409568,0.24547258,-0.23349792,0.115076676,-0.17681298,0.19069616,-0.23938823,-0.25234994,-0.1968996,-0.27087504,-0.31813943,0.14373195,0.013196452,0.55770683,-1.0,1.0,-1.0,1.0,-1.0,-1.0,-1.0,-1.0,-1.0,0.7794726,0.68435776,-1.0,-1.0,1.0,1.0,1.0,-1.0,-0.5503913,1.0,-1.0,1.0,-1.0
2025-07-21 17:28:22.332,0.04,40,2,0.06581,-0.14462222,-0.23839971,0.21776436,0.3692281,-0.14148292,0.021615036,-0.019944541,0.006254049,0.0,0.0,0.0,-0.25,0.5,0.0,0.0,0.051914737,0.08836698,-0.13577046,0.10770289,-0.072198085,0.119521834,-0.13346007,-0.13567944,-0.004849733,-0.13250428,-0.09411695,-0.005215422,0.12931551,-0.15093271,-0.13571547,0.14578868,0.043254495,0.11073347,-0.14888786,-0.25204128,0.15831369,-0.106050625,0.116468295,-0.2707603,0.68435776,-1.0,-1.0,1.0,1.0,1.0,-1.0,-0.5503913,1.0,-1.0,1.0,-1.0,-0.18367071,1.0,-0.29333538,1.0,-1.0,1.0,-1.0,1.0,1.0,1.0,0.5374922,-1.0
2025-07-21 17:28:22.351,0.06,60,3,0.09596795,0.13223554,0.3694497,0.2382649,0.37492764,-0.23776777,0.05725557,-0.04696499,-0.048743054,0.0,0.0,0.0,-0.25,0.5,0.0,0.0,0.04460264,0.09672275,-0.1406079,0.15534948,-0.09115837,0.18650803,-0.13447781,-0.17966618,0.047505464,-0.12635952,-0.009732743,-0.0965207,-0.011317956,0.1444541,0.04110914,0.100953214,-0.048916884,0.115029946,-0.056744814,-0.027962962,0.17235175,0.19156185,0.3080872,-0.22180194,-0.18367071,1.0,-0.29333538,1.0,-1.0,1.0,-1.0,1.0,1.0,1.0,0.5374922,-1.0,-0.9796954,-1.0,-1.0,1.0,1.0,1.0,-1.0,-0.9776666,1.0,-1.0,-1.0,-0.9083172
2025-07-21 17:28:22.371,0.08,80,4,-0.14111719,0.058036707,0.35542578,-0.124474965,-0.09703456,-0.41770327,0.06797319,-0.00738381,-0.026527252,0.0,0.0,0.0,-0.25,0.5,0.0,0.0,-0.05137395,0.11563107,-0.19810583,0.17052755,-0.11055375,0.22432812,-0.16687968,-0.20772906,0.11743036,-0.13553248,0.025424331,-0.13559894,-0.25565538,-0.058519,-0.09611932,0.021022702,-0.050040234,0.058345784,-0.06770299,-0.08321343,0.17927247,-0.23021251,-0.13597581,-0.1088304,-0.9796954,-1.0,-1.0,1.0,1.0,1.0,-1.0,-0.9776666,1.0,-1.0,-1.0,-0.9083172,1.0,-1.0,1.0,-0.67473644,1.0,-1.0,-1.0,1.0,1.0,1.0,1.0,0.52464247
2025-07-21 17:28:22.386,0.1,100,5,0.28662476,0.12579522,0.23793215,-0.15051188,-0.37983835,-0.27770755,0.032999966,-0.008398017,-0.034232814,0.0,0.0,0.0,-0.25,0.5,0.0,0.0,-0.04383871,-0.0016097887,-0.10296025,0.13939048,-0.062377714,0.1306799,-0.20449619,-0.1989066,0.1655781,-0.13414504,0.03257779,-0.09874397,0.20256917,-0.346659,0.29725552,-0.12819815,0.14581925,-0.34116733,-0.10960175,0.057115547,0.163983,0.16612802,0.19518241,0.23041241,1.0,-1.0,1.0,-0.67473644,1.0,-1.0,-1.0,1.0,1.0,1.0,1.0,0.52464247,-1.0,-1.0,1.0,-1.0,0.061220743,-1.0,1.0,1.0,-1.0,-0.499465,-1.0,1.0
2025-07-21 17:28:22.406,0.12000000000000001,120,6,0.09325319,0.0550224,0.060560152,-0.27293953,-0.47875398,-0.20501886,0.03380839,-0.017798811,0.024689056,0.0,0.0,0.0,-0.25,0.5,0.0,0.0,-0.07849663,-0.1706773,-0.0020526685,0.030513972,-0.023995183,0.025273293,-0.21852146,-0.14536485,0.081457905,-0.13572514,0.024393598,-0.0033394133,-0.15595344,-0.47181553,0.21468443,-0.29791337,-0.02011159,-0.26400593,0.089661665,0.18252237,-0.27420402,0.0072170473,-0.19742092,0.17633888,-1.0,-1.0,1.0,-1.0,0.061220743,-1.0,1.0,1.0,-1.0,-0.499465,-1.0,1.0,1.0,1.0,1.0,-1.0,1.0,1.0,1.0,1.0,-1.0,-1.0,-1.0,0.8585187
2025-07-21 17:28:22.431,0.14,140,7,0.30656677,0.03871109,-0.27113414,0.05186075,0.20394485,-0.31074885,0.01078332,-0.03764304,-0.0064259088,0.0,0.0,0.0,-0.25,0.5,0.0,0.0,-0.06386614,-0.2374694,0.07570269,-0.05506535,0.02699743,0.06884125,-0.13281925,-0.04886119,-0.011796617,-0.19315116,-0.064125255,0.08249108,0.18499272,0.02136051,0.24815717,-0.2764674,0.255499,0.13320154,0.27804857,0.3253695,-0.22850522,-0.14981882,-0.31344604,0.21180527,1.0,1.0,1.0,-1.0,1.0,1.0,1.0,1.0,-1.0,-1.0,-1.0,0.8585187,-1.0,-1.0,1.0,0.97057927,-1.0,-1.0,1.0,-1.0,-1.0,1.0,-1.0,1.0
2025-07-21 17:28:22.452,0.16,160,8,-0.23645417,0.13480261,-0.074258015,0.24710153,-0.039548796,-0.26131725,-0.04185918,-0.049898352,-0.018115893,0.0,0.0,0.0,-0.25,0.5,0.0,0.0,-0.011934922,-0.27989104,0.13277754,-0.061063375,0.042425383,0.011676481,-0.026322419,-0.012154738,-0.08661773,-0.1653829,-0.21085477,0.14187711,-0.048656795,-0.12679058,0.09429608,0.09760379,-0.0047479947,-0.22914155,0.27963394,-0.08625835,-0.23822123,0.27027246,-0.39460948,0.13796572,-1.0,-1.0,1.0,0.97057927,-1.0,-1.0,1.0,-1.0,-1.0,1.0,-1.0,1.0,1.0,1.0,1.0,-1.0,1.0,-0.2864902,0.88348114,-0.49669012,-1.0,1.0,1.0,1.0
2025-07-21 17:28:22.472,0.18,180,9,0.25435647,-0.101559125,-0.41653922,0.071143605,0.18342383,-0.22047988,-0.030402847,0.027319476,0.042874027,0.0,0.0,0.0,-0.25,0.5,0.0,0.0,0.011364031,-0.29904833,0.18040371,-0.07148765,0.08492176,-0.01070124,0.061252046,-0.067748204,-0.1495492,-0.064998,-0.26960707,0.20271558,0.07958006,0.0724171,0.1172448,-0.19061883,0.10305118,-0.05248943,0.20932995,-0.2972546,-0.21620043,0.13369738,-0.07768304,0.1726658,1.0,1.0,1.0,-1.0,1.0,-0.2864902,0.88348114,-0.49669012,-1.0,1.0,1.0,1.0,-1.0,-1.0,1.0,-1.0,-1.0,-1.0,1.0,1.0,0.96572375,1.0,-1.0,1.0
2025-07-21 17:28:22.491,0.19999999999999998,200,10,0.07660795,-0.26515436,-0.2860862,0.23309283,0.078985095,-0.23233722,-0.0029359653,0.012053832,0.0008670905,0.0,0.0,0.0,-0.25,0.5,0.0,0.0,0.053585216,-0.30070204,0.22829252,-0.1470114,0.08428692,-0.10169012,0.14320037,-0.11488745,-0.09879509,-0.023183081,-0.3062739,0.23738454,0.03327964,0.020125141,0.1766384,-0.20998044,-0.19518018,-0.17607029,0.1961321,-0.020997413,0.2724275,1.26352925e-05,-0.14313868,0.14033662,-1.0,-1.0,1.0,-1.0,-1.0,-1.0,1.0,1.0,0.96572375,1.0,-1.0,1.0,-1.0,1.0,1.0,-0.52214974,-0.4309334,1.0,1.0,1.0,-1.0,1.0,-1.0,1.0
2025-07-21 17:28:22.516,0.21999999999999997,220,11,-0.22717227,-0.22529301,0.019445026,0.05110524,0.17358367,-0.2935353,0.0074122264,-0.015650509,0.013663149,0.0,0.0,0.0,-0.25,0.5,0.0,0.0,0.07957283,-0.31229383,0.25922254,-0.17173037,-0.025214974,-0.024688186,0.19763805,-0.036475465,-0.13113277,0.0005818096,-0.3431579,0.28004992,0.09479347,0.041376673,0.12792432,-0.02122027,-0.20894656,0.2123394,0.11099032,0.25145474,-0.2392901,-0.018598989,-0.05154179,0.16047291,-1.0,1.0,1.0,-0.52214974,-0.4309334,1.0,1.0,1.0,-1.0,1.0,-1.0,1.0,-1.0,1.0,1.0,0.75749916,1.0,0.2859214,1.0,-1.0,-1.0,1.0,-0.28152558,1.0
2025-07-21 17:28:22.536,0.23999999999999996,240,12,0.1366456,-0.15067028,0.21120375,-0.094067916,0.32468498,-0.09758222,0.007055738,-0.042729966,-0.044205207,0.0,0.0,0.0,-0.25,0.5,0.0,0.0,0.12430492,-0.29728094,0.28085876,-0.10339697,-0.034241237,0.012450561,0.26148066,0.00038172313,-0.1904278,0.014454273,-0.35443848,0.29848638,0.08897475,0.05214225,0.078309335,0.19324495,0.16488604,0.022181805,0.14047131,-0.042096406,-0.19863914,-0.026215384,-0.025198342,-0.0070813526,-1.0,1.0,1.0,0.75749916,1.0,0.2859214,1.0,-1.0,-1.0,1.0,-0.28152558,1.0,-1.0,1.0,1.0,-1.0,-1.0,-1.0,1.0,0.6523737,1.0,1.0,-1.0,1.0
2025-07-21 17:28:22.555,0.25999999999999995,260,13,-0.018695677,-0.17335556,0.27081198,-0.14308482,-0.0075051086,-0.3324043,0.003047583,-0.0117743425,-0.03330657,0.0,0.0,0.0,-0.25,0.5,0.0,0.0,0.10209607,-0.27236176,0.305128,-0.112330474,-0.046706032,-0.06631118,0.29808232,0.025423136,-0.11024505,0.006430165,-0.36740834,0.3369449,-0.05420076,-0.0009325239,0.094571576,-0.17294185,-0.09082917,-0.19871907,0.049875025,0.14582598,0.2962535,-0.052097954,-0.09116102,0.030105995,-1.0,1.0,1.0,-1.0,-1.0,-1.0,1.0,0.6523737,1.0,1.0,-1.0,1.0,1.0,1.0,1.0,-1.0,1.0,1.0,1.0,-1.0,-1.0,1.0,1.0,1.0
2025-07-21 17:28:22.574,0.27999999999999997,280,14,0.23049322,-0.090992704,0.13150238,0.12154672,0.74585986,-0.06894556,0.09404435,-0.09152093,0.040742412,0.0,0.0,0.0,-0.25,0.5,0.0,0.0,0.16910957,-0.2259316,0.31859425,-0.1604125,-0.05724226,-0.0036082298,0.34184086,0.036058284,-0.14100473,0.038487438,-0.3483477,0.34395263,0.20455308,0.09066257,0.09184732,-0.22288483,0.0668345,0.23322065,0.023402471,-0.13917531,-0.19162795,0.16720791,0.11425763,-0.006944713,1.0,1.0,1.0,-1.0,1.0,1.0,1.0,-1.0,-1.0,1.0,1.0,1.0,-1.0,-1.0,1.0,1.0,-1.0,1.0,-0.013354693,-0.72955227,1.0,-1.0,-0.17533822,-1.0
2025-07-21 17:28:22.593,0.3,300,15,0.2089528,-0.25230205,0.41116464,-0.30015588,-0.2050298,-0.21073438,0.043581046,-0.020130055,-0.042659596,0.0,0.0,0.0,-0.25,0.5,0.0,0.0,0.17157462,-0.21258986,0.35208905,-0.19077572,-0.09059638,0.08130499,0.29278627,-0.065701194,-0.052534766,-0.00068245264,-0.3191775,0.2277014,-0.04704529,-0.09495308,0.067742124,0.113813706,-0.08686013,0.2284109,-0.21196754,-0.33173218,0.27679724,-0.25873363,0.013465004,-0.40385965,-1.0,-1.0,1.0,1.0,-1.0,1.0,-0.013354693,-0.72955227,1.0,-1.0,-0.17533822,-1.0,-1.0,1.0,-1.0,1.0,-1.0,1.0,-1.0,-1.0,1.0,-0.96500516,1.0,-1.0
2025-07-21 17:28:22.613,0.32,320,16,0.17786193,0.06584739,0.03586242,-0.4696419,-0.4143471,-0.17465122,0.12545231,0.018998813,-0.023265924,0.0,0.0,0.0,-0.25,0.5,0.0,0.0,0.077537596,-0.1424139,0.24382435,-0.11133435,-0.17952177,0.1496961,0.18835491,-0.2162267,0.03237145,-0.10099754,-0.2639862,0.10704098,-0.22546862,0.28469476,-0.28512284,0.20337236,-0.36214033,0.109246746,-0.35654697,-0.47439966,0.23081382,-0.16055842,0.30675858,-0.32405263,-1.0,1.0,-1.0,1.0,-1.0,1.0,-1.0,-1.0,1.0,-0.96500516,1.0,-1.0,-0.78369844,-0.87547266,-1.0,1.0,1.0,1.0,-1.0,0.56574106,1.0,-1.0,0.73352325,-1.0
2025-07-21 17:28:22.633,0.34,340,17,-0.057763807,-0.2871501,-0.23238131,-0.645994,-0.37249956,-0.10610465,0.09562478,0.05400067,-0.038074147,0.0,0.0,0.0,-0.25,0.5,0.0,0.0,-0.010848202,-0.12329282,0.121759504,-0.0048507606,-0.2204212,0.20515108,0.06746597,-0.29425314,0.099238984,-0.16379012,-0.14359961,0.016224181,-0.14994228,-0.133921,-0.29618856,0.28580862,-0.00530873,0.07511236,-0.16528791,-0.010274318,0.12789388,-0.2081645,0.460442,-0.20394975,-0.78369844,-0.87547266,-1.0,1.0,1.0,1.0,-1.0,0.56574106,1.0,-1.0,0.73352325,-1.0,1.0,1.0,-1.0,-0.87093574,-0.45838013,1.0,-1.0,-0.029105395,1.0,1.0,-1.0,1.0
2025-07-21 17:28:22.652,0.36000000000000004,360,18,0.17016447,-0.08205431,-0.14908233,-0.41134995,-0.6823611,-0.2770306,0.044576596,0.13064884,-0.009691443,0.0,0.0,0.0,-0.25,0.5,0.0,0.0,-0.0031282725,-0.09568335,0.00789172,0.0054095564,-0.25493878,0.2559759,0.0006244718,-0.30369624,0.14833388,-0.1741855,-0.08923237,0.062234186,0.0771057,0.20599094,-0.27305672,-0.054530814,-0.10745867,0.06525987,-0.21794872,-0.062111776,0.040417884,0.13660969,-0.03139605,0.13745804,1.0,1.0,-1.0,-0.87093574,-0.45838013,1.0,-1.0,-0.029105395,1.0,1.0,-1.0,1.0,-0.23934345,1.0,0.24460125,1.0,0.30058822,1.0,-1.0,-1.0,1.0,1.0,1.0,-1.0
2025-07-21 17:28:22.672,0.38000000000000006,380,19,0.3429517,-0.18546766,0.12551464,-0.058977008,-0.22698113,-0.14160092,0.013764343,0.11366936,0.049851034,0.0,0.0,0.0,-0.25,0.5,0.0,0.0,-0.0077402056,-0.017281812,0.022780059,-0.011803154,-0.27559912,0.28209093,-0.06476209,-0.31114066,0.19945294,-0.11149573,-0.016289007,0.0045705764,-0.0066201296,0.269035,0.074803464,-0.03008163,0.0303134,0.06294971,-0.107295804,-0.04671652,0.12273933,0.11584231,0.17872383,-0.17720476,-0.23934345,1.0,0.24460125,1.0,0.30058822,1.0,-1.0,-1.0,1.0,1.0,1.0,-1.0,0.26859137,-1.0,-1.0,1.0,-0.5233538,1.0,-1.0,-0.10871169,1.0,0.14006127,1.0,-1.0
2025-07-21 17:28:22.696,0.4000000000000001,400,20,0.20318685,-0.123326324,0.2699497,-0.067353845,-0.14063798,-0.3558168,-0.009529407,0.14035574,-0.025731191,0.0,0.0,0.0,-0.25,0.5,0.0,0.0,0.008272373,0.030837657,-0.04777732,0.016342375,-0.29938018,0.3011427,-0.09049252,-0.3183686,0.23520538,-0.082685776,0.09268132,-0.07930589,0.06015523,-0.09629064,-0.13590729,0.07823998,-0.13504983,0.042011756,-0.06912326,-0.048010048,0.0060170516,0.06658666,0.360726,-0.21572986,0.26859137,-1.0,-1.0,1.0,-0.5233538,1.0,-1.0,-0.10871169,1.0,0.14006127,1.0,-1.0,1.0,-1.0,-1.0,-1.0,1.0,1.0,-0.9298946,1.0,1.0,-0.13719033,-0.89991504,-1.0
2025-07-21 17:28:22.717,0.4200000000000001,420,21,0.35150027,-0.17951247,0.30743986,-0.41239247,-0.6830692,-0.16834545,0.0022861916,0.16805749,0.03446224,0.0,0.0,0.0,-0.25,0.5,0.0,0.0,0.070260815,-0.028673366,-0.12727875,-0.018629551,-0.3092084,0.33010432,-0.13982946,-0.30084473,0.2627452,-0.0761698,0.117597766,-0.15943883,0.14001396,-0.2927649,-0.18068823,-0.16779114,-0.06189208,-0.008709949,-0.13438885,0.04535734,0.02973117,0.063111395,-0.067108415,-0.13813621,1.0,-1.0,-1.0,-1.0,1.0,1.0,-0.9298946,1.0,1.0,-0.13719033,-0.89991504,-1.0,-1.0,1.0,1.0,1.0,-1.0,1.0,-1.0,-1.0,-1.0,0.2632836,-1.0,1.0
2025-07-21 17:28:22.735,0.4400000000000001,440,22,0.17171402,-0.1591634,0.61321104,-0.077629685,-0.35971534,-0.41038567,0.017148456,0.21116135,0.025120122,0.0,0.0,0.0,-0.25,0.5,0.0,0.0,0.07188082,-0.07904324,-0.06391904,-0.052224346,-0.32065186,0.35760424,-0.18082368,-0.30873466,0.16980077,-0.056828246,0.052699927,-0.07086812,-0.17257155,0.0076619433,0.27009806,0.0047020167,-0.036733244,0.00043431998,-0.16704433,-0.008514902,-0.24809805,0.08245466,-0.17959183,0.21149652,-1.0,1.0,1.0,1.0,-1.0,1.0,-1.0,-1.0,-1.0,0.2632836,-1.0,1.0,-1.0,-1.0,-0.780934,-1.0,1.0,1.0,1.0,1.0,-0.8015301,1.0,1.0,-1.0
2025-07-21 17:28:22.755,0.46000000000000013,460,23,0.24469127,0.000731181,0.4529765,-0.19192128,0.08618964,0.013933744,0.004091657,0.2671577,-0.044236496,0.0,0.0,0.0,-0.25,0.5,0.0,0.0,-0.0035356872,-0.103344314,-0.08704966,-0.06509283,-0.32360613,0.37109095,-0.15937391,-0.28852043,0.07584759,0.015307773,0.04698707,-0.114521876,-0.2858477,-0.18290076,-0.13261192,-0.111549854,0.025806535,0.07131531,0.20311198,0.21845423,-0.28741398,0.1802212,0.20170768,-0.18259577,-1.0,-1.0,-0.780934,-1.0,1.0,1.0,1.0,1.0,-0.8015301,1.0,1.0,-1.0,1.0,-0.048829798,1.0,1.0,0.99327385,1.0,0.054752406,0.9239048,1.0,-1.0,-1.0,0.47109172
2025-07-21 17:28:22.773,0.48000000000000015,480,24,0.31430215,-0.02435972,0.35508612,-0.0021426806,0.55336076,-0.5669023,0.022518443,0.24714643,-0.017402295,0.0,0.0,0.0,-0.25,0.5,0.0,0.0,-0.015226529,-0.11027144,-0.012573878,-0.03732608,-0.29846767,0.3637576,-0.1144638,-0.18714696,0.12018097,0.047444053,0.048186444,-0.102815576,0.14510995,-0.026938576,0.2566122,0.19724923,0.06327956,0.07807404,0.05474343,0.3160196,0.114015244,0.008242771,-0.038195007,0.11015925,1.0,-0.048829798,1.0,1.0,0.99327385,1.0,0.054752406,0.9239048,1.0,-1.0,-1.0,0.47109172,-1.0,-1.0,1.0,-0.17256254,1.0,-1.0,-0.49505183,-1.0,-1.0,1.0,-1.0,1.0
2025-07-21 17:28:22.792,0.5000000000000001,500,25,0.19996223,0.16520315,0.509374,0.52107424,0.24754322,-0.23993997,-0.017917322,0.17113099,-0.014679715,0.0,0.0,0.0,-0.25,0.5,0.0,0.0,-0.010960843,-0.16408396,0.072902896,-0.027789393,-0.22656941,0.25923508,-0.13492897,-0.13139652,0.05455121,0.046481457,-0.012809895,-0.01780616,-0.10357993,-0.20918468,0.14756364,-0.031197706,0.27725098,-0.27850404,-0.08258184,-0.08005004,-0.23937824,0.052917436,-0.26016033,0.18560086,-1.0,-1.0,1.0,-0.17256254,1.0,-1.0,-0.49505183,-1.0,-1.0,1.0,-1.0,1.0,1.0,-1.0,1.0,-1.0,0.79718673,-0.13884813,1.0,1.0,-1.0,-1.0,1.0,0.7934154
2025-07-21 17:28:22.813,0.5200000000000001,520,26,0.46549138,0.1582371,-0.22167479,0.23742135,0.5143931,-0.2311856,0.06684442,0.093970984,0.035335187,0.0,0.0,0.0,-0.25,0.5,0.0,0.0,-0.00798879,-0.2838651,0.1389783,-0.088015884,-0.10191563,0.1858336,-0.09570744,-0.098823994,-0.04708128,0.014653694,-0.052258905,0.049145773,0.10585387,-0.29635897,0.1713244,-0.24587022,0.4344268,-0.19307649,0.3270328,0.26133,-0.18998921,-0.19229782,0.13544126,0.101170726,1.0,-1.0,1.0,-1.0,0.79718673,-0.13884813,1.0,1.0,-1.0,-1.0,1.0,0.7934154,-0.56989646,-0.48961806,1.0,-0.24461335,-1.0,-1.0,1.0,-1.0,-1.0,1.0,-1.0,1.0
2025-07-21 17:28:22.831,0.5400000000000001,540,27,0.19646737,-0.008412882,-0.26070645,0.6267068,0.58373,-0.18016955,-0.012520623,0.09389904,-0.005604044,0.0,0.0,0.0,-0.25,0.5,0.0,0.0,0.00990445,-0.37298906,0.18963441,-0.09672123,-0.022030044,0.083422095,0.020875655,-0.07472351,-0.109241046,0.041489933,-0.085180245,0.1227582,-0.09555159,-0.063493304,0.1980334,0.014097744,-0.05390901,-0.18887372,0.16415156,-0.1154144,-0.18193576,0.21393456,-0.1798789,0.18366797,-0.56989646,-0.48961806,1.0,-0.24461335,-1.0,-1.0,1.0,-1.0,-1.0,1.0,-1.0,1.0,0.78614783,0.92643285,1.0,-1.0,-0.19297954,1.0,1.0,0.053102404,-1.0,1.0,-1.0,1.0
2025-07-21 17:28:22.857,0.5600000000000002,560,28,0.22653745,0.022978187,-0.8612183,0.7347885,0.90708053,-0.26651752,0.04719999,-0.005934027,0.04391165,0.0,0.0,0.0,-0.25,0.5,0.0,0.0,0.03235021,-0.3608388,0.24315797,-0.16108815,-0.0575031,0.12472606,0.10283837,-0.079780996,-0.18421088,0.11337266,-0.17760727,0.18020272,0.12516627,0.18684651,0.17170785,-0.106158346,-0.12426478,0.22092946,0.21882735,0.10028089,-0.107146986,0.1996632,-0.24763915,0.1333569,0.78614783,0.92643285,1.0,-1.0,-0.19297954,1.0,1.0,0.053102404,-1.0,1.0,-1.0,1.0,-1.0,-1.0,1.0,1.0,-0.27049032,1.0,1.0,-1.0,-0.7350664,1.0,-0.11190675,1.0
2025-07-21 17:28:22.879,0.5800000000000002,580,29,0.13860284,0.20832491,-0.70837826,0.47260863,0.43060166,0.056053452,0.04521687,-0.13584627,-0.028763771,0.0,0.0,0.0,-0.25,0.5,0.0,0.0,0.05138908,-0.34850004,0.27307215,-0.16112314,-0.10865708,0.18482158,0.16331692,-0.11486489,-0.20907408,0.18237764,-0.22110075,0.22858678,0.10407769,-0.008714716,0.13546759,0.1848556,-0.064781256,0.099824764,0.0970169,-0.19606787,-0.043350197,0.16077048,0.0027007083,0.16116932,-1.0,-1.0,1.0,1.0,-0.27049032,1.0,1.0,-1.0,-0.7350664,1.0,-0.11190675,1.0,-1.0,-1.0,1.0,1.0,1.0,1.0,0.8799452,1.0,0.7526446,-1.0,-1.0,1.0
2025-07-21 17:28:22.899,0.6000000000000002,600,30,0.24212718,0.27401748,-0.24355622,0.065554954,-0.5603582,-0.088461265,-0.0012793319,-0.091557205,-0.007827,0.0,0.0,0.0,-0.25,0.5,0.0,0.0,0.05270827,-0.3825124,0.30273613,-0.081287816,-0.10024113,0.22671162,0.21959105,-0.14090653,-0.13270152,0.158001,-0.26876375,0.26704746,-0.10567413,-0.13250487,0.11852341,0.24520558,0.109245524,0.11367641,0.094518,0.070055924,0.28191763,-0.1122651,-0.13272819,0.12732753,-1.0,-1.0,1.0,1.0,1.0,1.0,0.8799452,1.0,0.7526446,-1.0,-1.0,1.0,1.0,0.7710825,1.0,1.0,-0.32112673,-0.5378277,-1.0,-1.0,1.0,-0.13237344,1.0,-1.0
2025-07-21 17:28:22.919,0.6200000000000002,620,31,-0.12932089,0.07320762,-0.3603553,0.049270116,-0.25945842,-0.4188119,-0.04964063,-0.054841746,-0.004452821,0.0,0.0,0.0,-0.25,0.5,0.0,0.0,0.069864176,-0.38412526,0.31612024,0.016310185,-0.07002912,0.16222335,0.17566285,-0.1569958,-0.020620834,0.123112515,-0.23623726,0.17215052,0.12392882,0.027995408,0.112377055,0.19357888,-0.058550186,-0.12894669,-0.14158729,-0.13927597,0.20648353,-0.11840217,0.22828674,-0.35571125,1.0,0.7710825,1.0,1.0,-0.32112673,-0.5378277,-1.0,-1.0,1.0,-0.13237344,1.0,-1.0,0.5715169,1.0,-1.0,1.0,1.0,1.0,-1.0,-0.47895178,1.0,0.18844523,-0.03849383,-1.0
2025-07-21 17:28:22.940,0.6400000000000002,640,32,-0.052594494,0.01295284,-0.44617528,-0.2378406,0.5952641,-0.35315582,0.022182848,-0.06055473,0.039857883,0.0,0.0,0.0,-0.25,0.5,0.0,0.0,0.11228947,-0.29966748,0.20809104,0.07026324,-0.079628386,0.16532245,0.09287425,-0.24517988,0.06151333,0.12748814,-0.20333429,0.065176465,0.12244389,0.3375325,-0.29342863,0.12923408,0.004573347,0.1090534,-0.1992169,-0.11284825,0.24984245,0.016756866,0.07873819,-0.25734267,0.5715169,1.0,-1.0,1.0,1.0,1.0,-1.0,-0.47895178,1.0,0.18844523,-0.03849383,-1.0,0.20912842,0.010257866,-1.0,1.0,-0.3474777,1.0,-1.0,-1.0,1.0,-0.33202922,1.0,-1.0
2025-07-21 17:28:22.958,0.6600000000000003,660,33,-0.0673118,0.18861054,-0.14280231,-0.06713744,0.11850137,-0.2811607,-0.03947582,-0.097566314,-0.02885168,0.0,0.0,0.0,-0.25,0.5,0.0,0.0,0.12064354,-0.23939475,0.10354459,0.12696736,-0.10452855,0.21038103,0.00830894,-0.31842315,0.13434455,0.08618489,-0.12371312,-0.026586581,-0.018044533,0.06236567,-0.30350003,0.087838404,-0.1099911,0.09759296,-0.15657116,-0.21698228,0.10946289,-0.11323138,0.15291841,-0.22260158,0.20912842,0.010257866,-1.0,1.0,-0.3474777,1.0,-1.0,-1.0,1.0,-0.33202922,1.0,-1.0,-0.52431214,1.0,-1.0,1.0,1.0,1.0,-1.0,0.13927153,1.0,-1.0,1.0,-1.0
2025-07-21 17:28:22.981,0.6800000000000003,680,34,0.11199807,0.026582882,-0.08168448,-0.50427306,-0.1137954,-0.3497887,0.06478296,-0.033764802,-0.012456354,0.0,0.0,0.0,-0.25,0.5,0.0,0.0,0.058711667,-0.15253733,-0.0009062297,0.119275264,-0.07290811,0.25142485,-0.04352375,-0.33714607,0.18071295,-0.013803186,0.00176288,-0.11057535,-0.18637253,0.3013485,-0.29333207,0.07987121,0.15660591,0.09432855,-0.104414485,-0.026706822,0.086305596,-0.2816411,0.35867113,-0.15763645,-0.52431214,1.0,-1.0,1.0,1.0,1.0,-1.0,0.13927153,1.0,-1.0,1.0,-1.0,-0.7878921,0.46794507,-1.0,-0.391914,-1.0,1.0,-1.0,-0.8067721,1.0,-0.10211955,-0.9453897,-0.14678147
2025-07-21 17:28:23.001,0.7000000000000003,700,35,-0.16476011,0.19760713,0.6640034,0.018970838,-0.80460143,-0.27410072,0.024974305,-0.0023629244,0.04174774,0.0,0.0,0.0,-0.25,0.5,0.0,0.0,-0.028498413,-0.015441784,-0.073706545,0.08769941,-0.076213956,0.27221805,-0.10648822,-0.35082182,0.22221811,-0.043108694,0.046974413,-0.10088292,-0.21972893,0.28946817,-0.16189535,-0.13676405,-0.07621465,0.060683854,-0.21490212,-0.1314443,0.16694954,0.030634597,-0.020798111,0.035894398,-0.7878921,0.46794507,-1.0,-0.391914,-1.0,1.0,-1.0,-0.8067721,1.0,-0.10211955,-0.9453897,-0.14678147,-0.467896,-1.0,-1.0,1.0,1.0,1.0,-1.0,1.0,1.0,0.29329193,1.0,-0.81026447
2025-07-21 17:28:23.024,0.7200000000000003,720,36,0.1446591,0.00055952347,0.5755271,-0.26869082,-0.43364823,-0.2781531,0.042758413,0.020623177,0.010620244,0.0,0.0,0.0,-0.25,0.5,0.0,0.0,-0.06420845,0.020966683,-0.15024504,0.063772365,-0.082816906,0.29617083,-0.1479015,-0.3562491,0.24345727,0.0018665208,0.093604825,-0.15627094,-0.15270294,-0.037821595,-0.17338805,-0.095921785,0.015157933,0.058818687,-0.13062255,-0.011663685,0.03234256,0.03684735,0.18371867,-0.08024101,-0.467896,-1.0,-1.0,1.0,1.0,1.0,-1.0,1.0,1.0,0.29329193,1.0,-0.81026447,-0.38894418,-1.0,1.0,0.85798514,1.0,0.09011847,-1.0,1.0,1.0,0.3072092,-1.0,1.0
2025-07-21 17:28:23.044,0.7400000000000003,740,37,0.34542933,0.07955797,0.89385,-0.34658307,-0.31374156,-0.4373822,0.04760657,0.093001485,0.03227903,0.0,0.0,0.0,-0.25,0.5,0.0,0.0,-0.08889099,-0.05800788,-0.07134505,0.07807978,-0.007723291,0.25701636,-0.1971503,-0.34902212,0.2672249,0.011055077,0.096889354,-0.06195676,-0.10861234,-0.31519488,0.26867443,0.1564539,0.2633257,-0.19884963,-0.06612161,0.03742294,0.01956317,0.02187434,-0.1007314,0.33435938,-0.38894418,-1.0,1.0,0.85798514,1.0,0.09011847,-1.0,1.0,1.0,0.3072092,-1.0,1.0,-1.0,0.3480969,1.0,-1.0,0.81011,-1.0,1.0,1.0,-1.0,1.0,-0.80151254,0.62325954
2025-07-21 17:28:23.064,0.7600000000000003,760,38,0.13520835,-0.15642215,0.11634786,-0.32559115,-0.21557197,-0.25628304,0.08108298,0.068630435,0.022024805,0.0,0.0,0.0,-0.25,0.5,0.0,0.0,-0.14987731,-0.08657942,0.024560092,0.06632752,0.10821865,0.14147659,-0.19076167,-0.25668296,0.18161999,0.09935944,0.02675629,-0.011445034,-0.19008568,0.040123936,0.16286407,-0.1629083,0.36178705,-0.31766513,0.12595962,0.24712487,-0.26374114,0.12930982,-0.22490123,0.20336726,-1.0,0.3480969,1.0,-1.0,0.81011,-1.0,1.0,1.0,-1.0,1.0,-0.80151254,0.62325954,1.0,-1.0,1.0,-1.0,-0.9989883,-1.0,1.0,1.0,-1.0,1.0,-1.0,1.0
2025-07-21 17:28:23.083,0.7800000000000004,780,39,0.3257149,0.02873502,-0.15614079,0.22049372,0.73844916,-0.48442116,0.013512794,0.033387937,-0.016667811,0.0,0.0,0.0,-0.25,0.5,0.0,0.0,-0.10818575,-0.1201132,0.099334046,-0.030121328,0.17089586,0.029565943,-0.09509719,-0.13208865,0.058045078,0.16849165,-0.107583396,0.08762774,0.23578042,-0.18494213,0.12924409,-0.17946413,-0.09506366,-0.27619085,0.2727658,0.34509644,-0.18635024,0.17295422,-0.3419388,0.18510011,1.0,-1.0,1.0,-1.0,-0.9989883,-1.0,1.0,1.0,-1.0,1.0,-1.0,1.0,0.036297843,-1.0,1.0,-1.0,-0.53736293,0.48823637,1.0,-1.0,-1.0,1.0,1.0,1.0
2025-07-21 17:28:23.100,0.8000000000000004,800,40,0.17515032,0.10977545,-0.38830432,0.23380123,0.6681376,-0.19879498,0.0026643467,0.032899693,-0.047345717,0.0,0.0,0.0,-0.25,0.5,0.0,0.0,-0.084334895,-0.224271,0.16244079,-0.11584418,0.08735379,0.06175079,0.0017915254,-0.06720924,-0.034930203,0.22224501,-0.15214215,0.1457704,0.03988656,-0.29103053,0.09525351,-0.11596168,-0.24408962,0.1451893,0.30716974,-0.036998436,-0.23127991,0.07092082,-0.035769127,0.08615387,0.036297843,-1.0,1.0,-1.0,-0.53736293,0.48823637,1.0,-1.0,-1.0,1.0,1.0,1.0,-0.2712055,1.0,1.0,-0.78464687,1.0,-0.23179603,1.0,-1.0,-1.0,1.0,-0.34094307,1.0
2025-07-21 17:28:23.121,0.8200000000000004,820,41,0.13306235,-0.2052205,-0.41016087,0.23526828,0.47484198,-0.110791355,0.05854088,0.007258623,0.04689922,0.0,0.0,0.0,-0.25,0.5,0.0,0.0,-0.08198405,-0.30908725,0.21045408,-0.16452903,0.060225323,0.022526164,0.08913995,-0.12042794,-0.10261349,0.25050324,-0.1883721,0.19174887,0.008675346,-0.038626943,0.087703355,-0.19370584,0.08203725,-0.022129595,0.17370486,-0.20886189,-0.13125765,0.015408786,-0.057214636,0.15423635,-0.2712055,1.0,1.0,-0.78464687,1.0,-0.23179603,1.0,-1.0,-1.0,1.0,-0.34094307,1.0,-1.0,1.0,1.0,-0.862212,-1.0,1.0,1.0,1.0,-1.0,1.0,-1.0,1.0
2025-07-21 17:28:23.140,0.8400000000000004,840,42,0.0774504,-0.19807084,-0.105575,0.085214995,0.24594334,-0.07868398,-0.0125243915,-0.06554043,-0.0031424281,0.0,0.0,0.0,-0.25,0.5,0.0,0.0,-0.045336712,-0.33287868,0.23637395,-0.21869679,0.0029202835,0.09436899,0.16552767,-0.15111543,-0.16677497,0.27745,-0.23985179,0.2408973,0.07972382,-0.01586879,0.07970615,-0.13528988,-0.13349025,0.13653377,0.16717562,0.038415752,-0.11590834,0.014292399,-0.00013550768,0.14930294,-1.0,1.0,1.0,-0.862212,-1.0,1.0,1.0,1.0,-1.0,1.0,-1.0,1.0,-0.07043709,1.0,1.0,1.0,-0.042844914,1.0,1.0,1.0,1.0,-1.0,0.7084125,-0.4268619
2025-07-21 17:28:23.160,0.8600000000000004,860,43,0.4801215,-0.14448807,-0.38606447,-0.40920806,-0.14962432,-0.32135144,0.042070545,-0.04475185,0.028602364,0.0,0.0,0.0,-0.25,0.5,0.0,0.0,-0.044295263,-0.31027424,0.27596173,-0.18683606,-0.005772853,0.15413652,0.21997581,-0.08923359,-0.09910836,0.24328649,-0.1927912,0.16612758,-0.02946454,0.104810186,0.111371785,0.2528841,-0.07827953,0.077422634,0.11232367,0.24187186,0.25270942,-0.13190128,0.17226447,-0.25204408,-0.07043709,1.0,1.0,1.0,-0.042844914,1.0,1.0,1.0,1.0,-1.0,0.7084125,-0.4268619,-0.5450752,1.0,1.0,1.0,-1.0,1.0,-1.0,-1.0,1.0,-1.0,1.0,-1.0
2025-07-21 17:28:23.179,0.8800000000000004,880,44,0.45129713,0.07246159,-0.2627071,-0.44305715,-0.81851655,-0.37006098,0.026592448,0.03349844,-0.04911423,0.0,0.0,0.0,-0.25,0.5,0.0,0.0,-0.08408246,-0.24069956,0.2926423,-0.10767871,-0.065519914,0.20830464,0.18815753,-0.03600786,0.009074925,0.12482367,-0.07283025,0.054689653,-0.0616523,0.17848508,0.012741384,0.3330493,-0.19621164,0.08919938,-0.19844376,-0.05935499,0.18751632,-0.24629991,0.32062033,-0.24896677,-0.5450752,1.0,1.0,1.0,-1.0,1.0,-1.0,-1.0,1.0,-1.0,1.0,-1.0,-1.0,-1.0,1.0,-0.45521903,0.17879531,1.0,-1.0,-1.0,1.0,-0.17890315,-0.47161362,-1.0
2025-07-21 17:28:23.200,0.9000000000000005,900,45,0.31129497,-0.12837355,-0.12323614,0.12627262,-0.8243656,-0.08245858,0.06918091,0.110982016,0.04826571,0.0,0.0,0.0,-0.25,0.5,0.0,0.0,-0.13681178,-0.21871807,0.32218096,-0.08184113,-0.087163456,0.26207796,0.06616192,-0.10776965,0.07834125,0.04370151,0.006068981,-0.023959914,-0.13453005,-0.050713472,0.12472241,-0.055575326,0.0989333,0.026981886,-0.3098336,-0.2935491,0.19271605,-0.14430255,0.123003535,-0.22918199,-1.0,-1.0,1.0,-0.45521903,0.17879531,1.0,-1.0,-1.0,1.0,-0.17890315,-0.47161362,-1.0,0.15605919,0.49129605,-1.0,1.0,-1.0,1.0,-1.0,-0.87770355,1.0,-1.0,-1.0,-1.0
2025-07-21 17:28:23.225,0.9200000000000005,920,46,-0.1153026,-0.029669274,-0.103261836,0.14295608,0.06425044,-0.30723315,0.08431394,0.030294005,-0.039201863,0.0,0.0,0.0,-0.25,0.5,0.0,0.0,-0.1322425,-0.16344868,0.21756318,-0.059118215,-0.11084009,0.2926419,-0.026189378,-0.23985688,0.1437342,-0.0233383,-0.0210939,-0.10010161,0.080571614,0.23940483,-0.38815826,0.023619737,-0.056884456,0.09635297,-0.23395592,-0.36025864,0.15636536,-0.18926564,-0.236444,-0.21488266,0.15605919,0.49129605,-1.0,1.0,-1.0,1.0,-1.0,-0.87770355,1.0,-1.0,-1.0,-1.0,1.0,-1.0,-1.0,1.0,0.9769752,1.0,-1.0,0.6488185,1.0,-1.0,1.0,-1.0
2025-07-21 17:28:23.245,0.9400000000000005,940,47,0.18533038,-0.05318015,-0.2042643,-0.15608346,0.22971605,-0.3239765,0.040349856,0.018161515,0.033783257,0.0,0.0,0.0,-0.25,0.5,0.0,0.0,-0.05411634,-0.13113885,0.11189432,-0.03653949,-0.10376007,0.31622332,-0.047912005,-0.30309352,0.20253578,-0.09832519,-0.029400837,-0.16651691,0.27927083,-0.11609831,-0.31354085,0.08473159,0.10386197,0.01846571,0.0038663591,0.05760492,0.15271646,-0.18385334,0.06495223,-0.17320639,1.0,-1.0,-1.0,1.0,0.9769752,1.0,-1.0,0.6488185,1.0,-1.0,1.0,-1.0,-0.9198518,-0.3251834,-1.0,1.0,-1.0,1.0,-1.0,-1.0,1.0,-1.0,1.0,-1.0
2025-07-21 17:28:23.262,0.9600000000000005,960,48,0.2427591,-0.13785505,0.2125142,0.1414374,-0.2808341,-0.25326473,0.087575845,0.07570812,0.008700308,0.0,0.0,0.0,-0.25,0.5,0.0,0.0,-0.034923058,-0.18469581,0.0064573362,-0.026163839,-0.11280172,0.34245244,-0.08179276,-0.3214607,0.25020072,-0.17389537,0.04463263,-0.21634302,-0.13076997,-0.038028516,-0.18684396,-0.07935942,-0.05479255,0.08723094,-0.083182245,-0.059031,0.06083943,-0.08633112,0.3265491,-0.10882818,-0.9198518,-0.3251834,-1.0,1.0,-1.0,1.0,-1.0,-1.0,1.0,-1.0,1.0,-1.0,-1.0,-0.38709265,-1.0,1.0,0.30063668,1.0,-1.0,-0.07010338,1.0,1.0,-0.6236902,0.12915352
2025-07-21 17:28:23.281,0.9800000000000005,980,49,0.08937574,0.27017277,0.26776806,-0.08431069,0.13907011,-0.3905435,0.026333636,0.02911422,-0.04696605,0.0,0.0,0.0,-0.25,0.5,0.0,0.0,-0.123182215,-0.23927508,-0.07722154,-0.015398084,-0.10966368,0.34442678,-0.092368424,-0.32564533,0.26491994,-0.15364318,0.07850183,-0.17378066,-0.2618909,-0.1430329,-0.18175499,0.029246144,0.096693,0.083124794,-0.083790414,-0.015304768,0.028522724,0.24126677,-0.10439086,0.07455084,-1.0,-0.38709265,-1.0,1.0,0.30063668,1.0,-1.0,-0.07010338,1.0,1.0,-0.6236902,0.12915352,0.68000865,1.0,1.0,0.52872896,1.0,1.0,-0.6459761,-1.0,1.0,-0.93478644,1.0,-1.0
2025-07-21 17:28:23.302,1.0000000000000004,1000,50,0.457072,0.093551114,0.22941111,-0.17356953,-0.05928496,-0.40281442,0.11215236,0.044125773,-0.041806754,0.0,0.0,0.0,-0.25,0.5,0.0,0.0,-0.11972399,-0.23766766,-0.023470858,0.01686522,-0.08616644,0.35670653,-0.11463225,-0.31180632,0.30227023,-0.15617432,0.1016142,-0.22908889,0.12513255,0.14735723,0.16515175,0.03527226,0.09893149,0.07515002,-0.010626658,-0.018784285,0.15315917,-0.17933433,0.14319427,-0.117756404,0.68000865,1.0,1.0,0.52872896,1.0,1.0,-0.6459761,-1.0,1.0,-0.93478644,1.0,-1.0,-1.0,-1.0,1.0,0.4284837,0.80113804,-1.0,-1.0,1.0,-1.0,-0.17316936,1.0,1.0
2025-07-21 17:28:23.321,1.0200000000000005,1020,51,0.58932906,-0.047112904,0.0661923,-0.15510474,-0.37013274,-0.22120309,0.07986917,0.06829247,0.008818982,0.0,0.0,0.0,-0.25,0.5,0.0,0.0,-0.13936582,-0.25377658,0.06391137,0.040184937,0.00091526273,0.23470011,-0.18377559,-0.22818089,0.20781961,-0.15222916,0.20921834,-0.13373512,-0.13472372,-0.16135587,0.18048485,0.109167606,0.26332164,-0.39007518,-0.16392395,0.24274158,-0.35924158,0.057350438,0.39064628,0.3141563,-1.0,-1.0,1.0,0.4284837,0.80113804,-1.0,-1.0,1.0,-1.0,-0.17316936,1.0,1.0,1.0,-1.0,1.0,-0.58442193,1.0,-1.0,1.0,1.0,-1.0,1.0,-1.0,1.0
2025-07-21 17:28:23.341,1.0400000000000005,1040,52,0.52563816,-0.2847743,-0.29291746,-0.046604425,0.53869784,-0.27728176,0.09028631,0.06670342,-0.026597595,0.0,0.0,0.0,-0.25,0.5,0.0,0.0,-0.12631203,-0.35508916,0.14296313,0.02174507,0.13160163,0.11585004,-0.14856304,-0.119978175,0.07881002,-0.06356078,0.26064134,-0.029767219,0.28988647,-0.26127866,0.18784483,-0.089574516,0.33168137,-0.28332582,0.15521741,0.36085132,-0.30615568,0.28804338,-0.037500955,0.21629208,1.0,-1.0,1.0,-0.58442193,1.0,-1.0,1.0,1.0,-1.0,1.0,-1.0,1.0,-1.0,0.7517451,1.0,-1.0,-0.20748815,0.048809826,1.0,1.0,-1.0,1.0,-1.0,1.0
2025-07-21 17:28:23.361,1.0600000000000005,1060,53,0.42627728,-0.0788781,-0.59550095,-0.0864429,0.3045229,-0.2055134,0.021855766,0.016783094,-0.007426064,0.0,0.0,0.0,-0.25,0.5,0.0,0.0,-0.102064736,-0.40652376,0.1846954,-0.0623457,0.1798017,0.091955096,-0.056876432,0.04021252,-0.011182417,0.022381665,0.20647557,0.06345006,-0.11649882,-0.029430848,0.18527362,-0.24519782,-0.03970212,-0.004042473,0.24115631,0.47009304,-0.25535774,0.26473317,-0.2662956,0.24030128,-1.0,0.7517451,1.0,-1.0,-0.20748815,0.048809826,1.0,1.0,-1.0,1.0,-1.0,1.0,-1.0,1.0,1.0,-1.0,-1.0,-0.50561255,1.0,-1.0,-1.0,1.0,-1.0,1.0
2025-07-21 17:28:23.384,1.0800000000000005,1080,54,0.08937269,-0.042608287,-0.7415226,0.09168524,0.1547037,-0.2251372,0.096247286,-0.0113355685,-0.003650534,0.0,0.0,0.0,-0.25,0.5,0.0,0.0,-0.16430694,-0.3518376,0.23977378,-0.13271552,0.12094958,0.051829375,0.047836345,0.119111344,-0.09757047,0.101812825,0.08119626,0.12612656,-0.023974763,0.14521319,0.12363008,-0.11331686,-0.24241716,-0.19874328,0.2006267,-0.06062995,-0.15563244,0.14509656,-0.19681002,0.099321775,-1.0,1.0,1.0,-1.0,-1.0,-0.50561255,1.0,-1.0,-1.0,1.0,-1.0,1.0,-1.0,1.0,1.0,-1.0,-0.6928706,0.4429087,1.0,-1.0,-1.0,1.0,-1.0,1.0
2025-07-21 17:28:23.406,1.1000000000000005,1100,55,0.33158693,0.029984307,-0.23648226,0.13191672,0.0015886603,-0.026377648,0.010792991,-0.020058168,-0.026985932,0.0,0.0,0.0,-0.25,0.5,0.0,0.0,-0.16618082,-0.3607594,0.26568362,-0.20145376,-0.0066731526,0.07719895,0.12737024,0.054240778,-0.1525384,0.11057917,0.014633315,0.1915486,-0.045951318,-0.033682868,0.096365616,-0.12311851,-0.40082556,0.0717493,0.14753239,-0.27007523,-0.16276956,-0.05562987,-0.17421126,0.09522675,-1.0,1.0,1.0,-1.0,-0.6928706,0.4429087,1.0,-1.0,-1.0,1.0,-1.0,1.0,1.0,-0.93111575,1.0,1.0,-0.0828258,1.0,1.0,-0.19772264,-1.0,-1.0,-1.0,-1.0
2025-07-21 17:28:23.425,1.1200000000000006,1120,56,-0.05648423,-0.30822763,-0.31260544,-0.06294755,0.41093212,-0.302456,0.06269835,-0.0547765,0.031566333,0.0,0.0,0.0,-0.25,0.5,0.0,0.0,-0.14562693,-0.37326524,0.29088748,-0.16887107,-0.07780017,0.13642485,0.18866676,0.0050244443,-0.20379151,0.07329488,-0.008360493,0.11953127,0.16212542,-0.08347335,0.004206234,0.20238356,-0.010119773,0.17987649,0.20270598,-0.15915251,-0.109193854,-0.17815953,-0.019837147,-0.27926704,1.0,-0.93111575,1.0,1.0,-0.0828258,1.0,1.0,-0.19772264,-1.0,-1.0,-1.0,-1.0,-1.0,1.0,1.0,1.0,-0.7392013,1.0,-0.35986856,-1.0,1.0,1.0,-0.1458291,-1.0
2025-07-21 17:28:23.444,1.1400000000000006,1140,57,0.040886693,-0.094989516,0.14842178,0.17514484,-0.13172784,-0.31833598,0.013966595,0.019486926,-0.049111992,0.0,0.0,0.0,-0.25,0.5,0.0,0.0,-0.10837918,-0.40261942,0.3098034,-0.05235629,-0.15020959,0.19197093,0.17505762,-0.1079717,-0.13347661,0.06602775,-0.04977868,0.012294205,0.021403493,0.021399839,0.0020148803,0.1804267,-0.2656232,0.089442305,-0.2330339,-0.34445366,0.27393135,0.041009676,-0.021500755,-0.29214376,-1.0,1.0,1.0,1.0,-0.7392013,1.0,-0.35986856,-1.0,1.0,1.0,-0.1458291,-1.0,0.9445741,1.0,-1.0,1.0,1.0,1.0,-1.0,-1.0,1.0,-1.0,-0.046897132,-1.0
2025-07-21 17:28:23.462,1.1600000000000006,1160,58,0.035103306,-0.0140342815,-0.160172,-0.38779846,0.34921342,-0.44473544,0.04786833,-0.035188597,0.01722115,0.0,0.0,0.0,-0.25,0.5,0.0,0.0,-0.037379254,-0.3580916,0.195364,0.021278376,-0.1922984,0.22875343,0.07239015,-0.24364462,-0.018449953,0.012781132,-0.055313054,-0.07339151,0.1765207,0.30930403,-0.29399443,0.13629939,-0.1198449,0.14523436,-0.3140087,-0.36656892,0.25850803,-0.17899117,0.01706008,-0.24697179,0.9445741,1.0,-1.0,1.0,1.0,1.0,-1.0,-1.0,1.0,-1.0,-0.046897132,-1.0,-0.55814046,0.85693836,-1.0,1.0,1.0,1.0,-1.0,-0.21878013,1.0,1.0,1.0,-1.0
2025-07-21 17:28:23.482,1.1800000000000006,1180,59,0.36264053,-0.13476177,0.0539478,-0.6324688,-0.11122358,-0.2844611,0.02538771,-0.091896504,0.01437787,0.0,0.0,0.0,-0.25,0.5,0.0,0.0,-0.013590392,-0.22289225,0.08826119,0.08461658,-0.18086204,0.2622369,-0.004280104,-0.31631058,0.051035605,-0.0028940649,0.025314858,-0.14134604,-0.17150405,0.33709222,-0.25204074,0.09700444,0.028948706,0.055516493,-0.10336497,0.07756563,0.08875309,0.097160995,0.21729222,-0.1033755,-0.55814046,0.85693836,-1.0,1.0,1.0,1.0,-1.0,-0.21878013,1.0,1.0,1.0,-1.0,1.0,1.0,-1.0,1.0,-1.0,1.0,-1.0,-1.0,1.0,-0.42671025,1.0,-1.0
2025-07-21 17:28:23.502,1.2000000000000006,1200,60,-0.09532218,-0.112734236,0.26801136,-0.15544836,0.0018208986,-0.43554428,0.078604594,-0.061791454,-0.011977581,0.0,0.0,0.0,-0.25,0.5,0.0,0.0,-0.008785933,-0.0711062,-0.022732403,0.1172562,-0.17586976,0.28553367,-0.027074037,-0.29807103,0.11597485,-0.015066939,0.13965873,-0.18931119,0.21482532,0.4396116,-0.14511968,0.10255088,-0.08290064,0.065538295,-0.032272518,0.061125226,0.1684777,-0.09910332,0.36091495,-0.1753021,1.0,1.0,-1.0,1.0,-1.0,1.0,-1.0,-1.0,1.0,-0.42671025,1.0,-1.0,-1.0,-1.0,-1.0,1.0,1.0,1.0,0.7222093,1.0,0.5696583,-0.7629915,-1.0,1.0
2025-07-21 17:28:23.522,1.2200000000000006,1220,61,0.06947578,-0.185352,0.20353077,-0.37770104,0.2388292,-0.2179052,0.068708345,-0.09922458,0.0017124066,0.0,0.0,0.0,-0.25,0.5,0.0,0.0,-0.0115251215,0.010945449,-0.097382076,0.1747925,-0.18143146,0.31607437,0.014455703,-0.26691687,0.13799381,-0.072187364,0.16566785,-0.10725406,-0.11049448,0.08885235,-0.17596653,0.12165478,-0.0051720296,0.08557642,0.19601478,0.14523342,-0.045197874,-0.17197418,-0.13438244,0.2236347,-1.0,-1.0,-1.0,1.0,1.0,1.0,0.7222093,1.0,0.5696583,-0.7629915,-1.0,1.0,1.0,-0.10017562,-1.0,-1.0,-0.67584634,1.0,-1.0,0.7279092,1.0,1.0,-1.0,-0.82807136
2025-07-21 17:28:23.540,1.2400000000000007,1240,62,0.011001698,-0.31686756,0.73707473,0.26329213,-0.21980806,-0.42859727,0.06652175,-0.109808005,0.008587754,0.0,0.0,0.0,-0.25,0.5,0.0,0.0,-0.0048692883,-0.0074371537,-0.15715858,0.16672415,-0.19642235,0.33799002,0.019344816,-0.25728732,0.16888006,-0.042535264,0.10699014,-0.138976,0.09516838,-0.07506694,-0.16038059,-0.10778248,-0.10349419,0.12918624,-0.123861216,-0.08484308,0.032951526,0.15984097,-0.19066031,-0.07870535,1.0,-0.10017562,-1.0,-1.0,-0.67584634,1.0,-1.0,0.7279092,1.0,1.0,-1.0,-0.82807136,-1.0,0.66930807,1.0,0.29448438,0.49175408,-0.1582877,1.0,-1.0,-1.0,-0.19064961,-0.8404482,1.0
2025-07-21 17:28:23.565,1.2600000000000007,1260,63,0.26507702,-0.2181101,0.44508743,0.08595866,-0.38783756,-0.30112907,0.13163133,-0.037277553,-0.047286138,0.0,0.0,0.0,-0.25,0.5,0.0,0.0,-0.021038756,0.02166638,-0.09236703,0.16541561,-0.17810899,0.2692577,0.067351855,-0.2766963,0.07879627,-0.037724383,-0.027067838,-0.046123546,-0.17389546,0.21884319,0.28948247,-0.021814,0.12025287,-0.12240571,0.1579836,-0.06041093,-0.23223802,0.025078772,-0.3950353,0.2859283,-1.0,0.66930807,1.0,0.29448438,0.49175408,-0.1582877,1.0,-1.0,-1.0,-0.19064961,-0.8404482,1.0,1.0,-1.0,0.23702139,-1.0,0.6800943,1.0,-0.49848595,1.0,-1.0,1.0,1.0,1.0
2025-07-21 17:28:23.586,1.2800000000000007,1280,64,0.30885333,-0.18083127,0.44451663,-0.17595269,-0.3215609,-0.002279856,0.112837896,-0.065504156,0.023076147,0.0,0.0,0.0,-0.25,0.5,0.0,0.0,-0.023555083,0.024310017,-0.048847113,0.14142916,-0.12370258,0.2739653,0.069718495,-0.24565671,-0.015967177,0.009470586,-0.10119364,0.023248587,0.18132463,-0.13217147,0.041500397,-0.060777225,0.1308164,0.010767505,-0.16388118,0.18946473,-0.1767358,0.12153176,-0.022963947,0.2110536,1.0,-1.0,0.23702139,-1.0,0.6800943,1.0,-0.49848595,1.0,-1.0,1.0,1.0,1.0,-1.0,0.28412497,1.0,0.8198618,-1.0,-1.0,1.0,1.0,-1.0,-1.0,-1.0,1.0
2025-07-21 17:28:23.605,1.3000000000000007,1300,65,0.17711902,-0.25335574,0.33116966,-0.18282998,-0.07612797,-0.38733172,0.17885865,-0.0117581,0.045995254,0.0,0.0,0.0,-0.25,0.5,0.0,0.0,-0.038278542,0.027300168,0.027213428,0.16161187,-0.11414554,0.19230942,0.08763405,-0.14767526,-0.088044256,-0.016781297,-0.1227299,0.0986842,-0.208266,0.10158988,0.19259627,0.06228717,-0.04350306,-0.3179549,0.18692936,0.25100404,-0.18158117,-0.16396193,-0.12719688,0.13633125,-1.0,0.28412497,1.0,0.8198618,-1.0,-1.0,1.0,1.0,-1.0,-1.0,-1.0,1.0,1.0,-1.0,1.0,-1.0,1.0,1.0,1.0,-0.23303732,-1.0,1.0,1.0,1.0
2025-07-21 17:28:23.625,1.3200000000000007,1320,66,0.45694074,-0.053524256,0.012541462,-0.24663296,0.56869376,0.08300877,0.1667776,-0.11734681,0.029842352,0.0,0.0,0.0,-0.25,0.5,0.0,0.0,-0.026355933,0.023327159,0.10557921,0.15229282,-0.11984755,0.21151772,0.16890353,-0.0982636,-0.16189943,-0.010014366,-0.16773453,0.16116677,0.2251727,-0.21903118,0.15783468,-0.1456682,0.055792607,0.17605005,0.16354801,0.020774664,-0.19024943,0.053533554,-0.12885721,0.058731385,1.0,-1.0,1.0,-1.0,1.0,1.0,1.0,-0.23303732,-1.0,1.0,1.0,1.0,-0.57537967,-1.0,1.0,0.49304324,-1.0,0.69999725,0.3890427,0.38103953,1.0,-1.0,-1.0,1.0
2025-07-21 17:28:23.641,1.3400000000000007,1340,67,0.1456356,-0.025724739,0.103435785,0.14198223,0.15365012,-0.3329085,0.06691422,-0.03478783,-0.012803155,0.0,0.0,0.0,-0.25,0.5,0.0,0.0,-0.015412467,-0.058745846,0.18323341,0.13562515,-0.13630253,0.23070362,0.17408983,-0.075237155,-0.08239254,-0.046966635,-0.2182032,0.20593154,-0.1311329,-0.32816944,0.08474363,-0.006260131,-0.120508716,0.02648814,0.041520715,0.16919914,0.29566202,-0.15604676,-0.19300155,0.14622001,-0.57537967,-1.0,1.0,0.49304324,-1.0,0.69999725,0.3890427,0.38103953,1.0,-1.0,-1.0,1.0,1.0,1.0,-1.0,1.0,0.42522153,1.0,-1.0,-1.0,1.0,-0.41581744,1.0,-1.0
2025-07-21 17:28:23.662,1.3600000000000008,1360,68,0.26298225,-0.15616488,-0.597905,0.059418004,0.35712495,-0.28813556,0.12933894,-0.06997781,0.042240977,0.0,0.0,0.0,-0.25,0.5,0.0,0.0,-0.011816892,-0.10248427,0.09591983,0.19968708,-0.14760663,0.27171978,0.12005069,-0.07803332,0.0067247576,-0.06807812,-0.21343656,0.12267511,0.20815782,0.0035320655,-0.29779655,0.16750792,0.057029292,0.04809128,-0.21371007,-0.07699072,0.17340621,-0.12456182,0.19616506,-0.3142397,1.0,1.0,-1.0,1.0,0.42522153,1.0,-1.0,-1.0,1.0,-0.41581744,1.0,-1.0,0.511945,1.0,-1.0,1.0,-1.0,1.0,-1.0,-1.0,1.0,1.0,1.0,-1.0
2025-07-21 17:28:23.683,1.3800000000000008,1380,69,0.24954301,-0.03756629,-0.36152887,0.1187677,0.4950586,-0.13950932,0.005740201,-0.1515103,-0.035226773,0.0,0.0,0.0,-0.25,0.5,0.0,0.0,0.051593196,-0.042379092,0.00097291975,0.24884854,-0.14909485,0.2888767,0.047724012,-0.15778199,0.09607863,-0.031985957,-0.13269413,0.011396305,0.072789125,0.30017233,-0.18273991,0.04185986,-0.08551765,0.045818035,-0.11554476,-0.22842841,0.16489749,0.18309517,0.27027524,-0.19937828,0.511945,1.0,-1.0,1.0,-1.0,1.0,-1.0,-1.0,1.0,1.0,1.0,-1.0,-0.039862648,-1.0,-0.6313374,1.0,-1.0,1.0,-1.0,1.0,1.0,1.0,0.24002723,1.0
2025-07-21 17:28:23.701,1.4000000000000008,1400,70,0.20643556,-0.06217523,0.14526749,0.1796783,0.4219828,-0.37797436,-0.019314518,-0.14627841,-0.011528539,0.0,0.0,0.0,-0.25,0.5,0.0,0.0,0.042579725,-0.017310295,-0.047522277,0.28034458,-0.18909764,0.32260922,-0.0011882164,-0.18576695,0.13720754,0.07767628,-0.05862546,0.06771288,-0.08041665,-0.03257377,-0.03790955,0.044302464,-0.060946014,0.07302916,-0.04230433,-0.033238508,0.17928629,0.18250972,0.20719273,0.2623263,-0.039862648,-1.0,-0.6313374,1.0,-1.0,1.0,-1.0,1.0,1.0,1.0,0.24002723,1.0,-1.0,-1.0,-1.0,-0.2006877,0.8485878,1.0,1.0,-1.0,0.31650436,-1.0,-1.0,-1.0
2025-07-21 17:28:23.727,1.4200000000000008,1420,71,0.102423824,0.04770778,0.18406616,0.4008352,-0.22660628,-0.17236726,0.049431607,-0.029287934,-0.033214234,0.0,0.0,0.0,-0.25,0.5,0.0,0.0,-0.038719792,-0.09220642,-0.12857582,0.2718441,-0.20856291,0.3426106,-0.004573638,-0.21228746,0.15642408,0.060562134,-0.0286819,0.010736884,-0.24452013,-0.29637456,-0.19772533,-0.12649365,0.024302952,-0.041430824,0.03221541,-0.14579529,-0.02128444,-0.10478933,-0.03103807,-0.21681938,-1.0,-1.0,-1.0,-0.2006877,0.8485878,1.0,1.0,-1.0,0.31650436,-1.0,-1.0,-1.0,0.71621805,1.0,-1.0,1.0,-1.0,1.0,-1.0,0.9900626,1.0,-1.0,1.0,-1.0
2025-07-21 17:28:23.746,1.4400000000000008,1440,72,0.2935248,0.21234152,0.24868068,-0.04435628,0.13238862,-0.5047866,0.035470005,-0.055431496,0.02928039,0.0,0.0,0.0,-0.25,0.5,0.0,0.0,-0.035825245,-0.13152294,-0.19252616,0.2489242,-0.22557253,0.35218227,-0.013409175,-0.23127836,0.17449798,-0.036089987,-0.0014601138,-0.08259289,0.16328429,-0.0005768371,-0.08461708,0.11324243,0.002411011,0.115931526,-0.040383264,-0.10114746,0.09460524,-0.23368603,0.10934844,-0.25209522,0.71621805,1.0,-1.0,1.0,-1.0,1.0,-1.0,0.9900626,1.0,-1.0,1.0,-1.0,-1.0,-1.0,1.0,0.1014556,0.5829598,1.0,-0.9520187,-0.5661411,1.0,-1.0,1.0,1.0
2025-07-21 17:28:23.769,1.4600000000000009,1460,73,0.31414017,0.11143295,0.37265342,0.36422008,-0.5263777,-0.27586055,0.030718248,0.009713454,-0.04527555,0.0,0.0,0.0,-0.25,0.5,0.0,0.0,-0.07054041,-0.16212943,-0.09574392,0.23010477,-0.22319649,0.3700906,-0.08448827,-0.2607426,0.23519629,-0.11582075,0.080473006,-0.0114838835,-0.2305806,-0.26901773,0.316007,-0.16893442,0.049712226,0.0119629605,-0.15837656,-0.13895498,0.05271511,-0.13777396,0.3522929,0.2851519,-1.0,-1.0,1.0,0.1014556,0.5829598,1.0,-0.9520187,-0.5661411,1.0,-1.0,1.0,1.0,-1.0,-1.0,1.0,-1.0,1.0,-1.0,-1.0,1.0,-0.873822,1.0,-1.0,1.0
2025-07-21 17:28:23.788,1.4800000000000009,1480,74,0.1873512,0.23318604,0.24888691,0.3388149,-0.35620853,-0.13212703,0.022099894,-0.024703711,0.008287652,0.0,0.0,0.0,-0.25,0.5,0.0,0.0,-0.15133011,-0.28417704,-0.010067732,0.15852623,-0.16758548,0.23447958,-0.16244619,-0.22430386,0.14896974,-0.0986794,0.13685803,0.076269664,-0.19894984,-0.43551245,0.21368174,-0.2938591,0.15370163,-0.40740335,-0.20336875,0.14063857,-0.24411185,0.15438093,-0.016670931,0.24985668,-1.0,-1.0,1.0,-1.0,1.0,-1.0,-1.0,1.0,-0.873822,1.0,-1.0,1.0,1.0,1.0,1.0,-1.0,1.0,0.6935368,1.0,1.0,-1.0,-1.0,-1.0,0.58730364
2025-07-21 17:28:23.807,1.5000000000000009,1500,75,0.19779162,0.12063363,-0.27237573,-0.3319783,-0.42686218,-0.10093207,0.07523857,-0.012303193,-0.0346681,0.0,0.0,0.0,-0.25,0.5,0.0,0.0,-0.14690535,-0.35560006,0.08840464,0.09018875,-0.103173345,0.21382739,-0.13676433,-0.10640502,0.027267408,-0.11913089,0.095541075,0.10396961,0.121700875,0.0006223441,0.13446437,-0.15052521,0.23879512,-0.025589203,0.1328682,0.42369863,-0.27504623,-0.19229509,-0.2362418,0.122968376,1.0,1.0,1.0,-1.0,1.0,0.6935368,1.0,1.0,-1.0,-1.0,-1.0,0.58730364,-1.0,1.0,1.0,-0.779066,0.057489254,-1.0,1.0,-1.0,-1.0,1.0,-1.0,1.0
2025-07-21 17:28:23.826,1.520000000000001,1520,76,0.2852297,0.2625253,-0.29067564,-0.15311165,-0.26977724,-0.046254925,0.105215974,0.022369675,0.013999986,0.0,0.0,0.0,-0.25,0.5,0.0,0.0,-0.16199073,-0.2913887,0.14169486,0.009136852,-0.064955875,0.1153259,-0.031412773,-0.05521273,-0.043891903,-0.11526503,-0.01409642,0.17574541,-0.13597651,0.18182346,0.09493855,-0.22283955,-0.010172392,-0.29982668,0.2450317,0.023354236,-0.25069273,0.12731838,-0.37981316,0.16649434,-1.0,1.0,1.0,-0.779066,0.057489254,-1.0,1.0,-1.0,-1.0,1.0,-1.0,1.0,1.0,-1.0,1.0,-1.0,0.3578165,0.15756482,0.54007703,-0.6780045,-1.0,-1.0,-1.0,1.0
2025-07-21 17:28:23.851,1.540000000000001,1540,77,-0.12504977,0.40328366,-0.61853564,0.15736534,0.0013400209,-0.31301433,0.13339278,-0.008912723,-0.0037726632,0.0,0.0,0.0,-0.25,0.5,0.0,0.0,-0.14068776,-0.27461854,0.19366409,-0.09043384,-0.017234944,0.090292685,0.02560324,-0.12043522,-0.12609777,-0.11237351,-0.13982187,0.2260872,0.19545086,-0.072974965,0.11342694,-0.27675155,0.12203053,-0.017050574,0.07664928,-0.26299712,-0.12655847,-0.12614936,-0.2528357,0.040850762,1.0,-1.0,1.0,-1.0,0.3578165,0.15756482,0.54007703,-0.6780045,-1.0,-1.0,-1.0,1.0,-1.0,-1.0,1.0,0.7254633,-0.56250596,-0.34949756,-0.13184142,1.0,1.0,1.0,1.0,1.0
2025-07-21 17:28:23.874,1.560000000000001,1560,78,-0.0932244,0.46651107,-0.5427295,-0.22216399,0.48708138,-0.15024108,0.121963166,-0.045683865,-0.007815569,0.0,0.0,0.0,-0.25,0.5,0.0,0.0,-0.13605234,-0.34780464,0.24926649,-0.08629295,0.0012259391,0.04759477,0.013928704,-0.16545795,-0.05232187,-0.12637708,-0.18395346,0.24833281,-0.14340867,-0.26055488,0.12509802,0.23461245,-0.13056588,-0.030213356,0.03673749,-0.018859714,0.28406578,0.025693642,-0.019963294,0.04089148,-1.0,-1.0,1.0,0.7254633,-0.56250596,-0.34949756,-0.13184142,1.0,1.0,1.0,1.0,1.0,1.0,1.0,1.0,-0.082083166,1.0,1.0,-1.0,-1.0,1.0,1.0,1.0,1.0
2025-07-21 17:28:23.894,1.580000000000001,1580,79,0.29478866,0.3311137,-0.3358199,-0.5415118,0.58789134,-0.070149444,0.064722344,-0.063869506,-0.0048636543,0.0,0.0,0.0,-0.25,0.5,0.0,0.0,-0.11632155,-0.39995074,0.28530824,-0.060555786,0.012097638,0.116921626,-0.026409807,-0.20621595,0.038932685,-0.071526624,-0.18569872,0.27592492,0.17146438,0.042224433,0.018058123,-0.041722838,0.09096006,0.19739059,-0.13160516,-0.18298762,0.12291642,0.10954946,0.04681911,0.017148908,1.0,1.0,1.0,-0.082083166,1.0,1.0,-1.0,-1.0,1.0,1.0,1.0,1.0,1.0,0.3723424,1.0,1.0,-1.0,1.0,-1.0,0.46409383,1.0,-1.0,1.0,-1.0
2025-07-21 17:28:23.915,1.600000000000001,1600,80,0.5638334,0.106368616,-0.17103505,-0.2354348,-0.09929286,-0.47822773,0.048027262,-0.09442095,-0.0076247295,0.0,0.0,0.0,-0.25,0.5,0.0,0.0,-0.065492466,-0.37501937,0.31189063,-0.016707493,0.009693856,0.1682485,-0.07478266,-0.20732401,0.08938007,-0.11428416,-0.13379548,0.17048974,0.19955504,0.15119289,0.09584772,0.2302435,-0.09495652,0.18074845,-0.13866262,-0.0023754812,0.16406305,-0.24635868,0.28806233,-0.35607806,1.0,0.3723424,1.0,1.0,-1.0,1.0,-1.0,0.46409383,1.0,-1.0,1.0,-1.0,-1.0,-1.0,1.0,0.77941245,-1.0,1.0,0.58972645,-1.0,1.0,0.44191086,1.0,-1.0
2025-07-21 17:28:23.938,1.620000000000001,1620,81,0.01126086,-0.07169352,0.23019372,-0.014646141,0.3099525,-0.035577364,0.05972198,-0.029699117,-0.018707102,0.0,0.0,0.0,-0.25,0.5,0.0,0.0,-0.042481925,-0.3717803,0.33805194,0.05387773,-0.03791898,0.2352994,-0.07502019,-0.23777871,0.15847397,-0.09158726,-0.0047096186,0.06434876,-0.030960947,-0.048329327,0.062195506,0.17202598,-0.100907564,0.10988281,0.121912025,-0.115076005,0.08986739,0.21034889,0.26932967,-0.26214844,-1.0,-1.0,1.0,0.77941245,-1.0,1.0,0.58972645,-1.0,1.0,0.44191086,1.0,-1.0,1.0,1.0,-1.0,0.031260192,1.0,1.0,-1.0,-0.08512983,1.0,1.0,-1.0,-1.0
2025-07-21 17:28:23.959,1.640000000000001,1640,82,0.43299556,0.0036543359,0.16106391,0.23022436,0.0980816,-0.21365866,-0.015033765,-0.007148478,0.027642315,0.0,0.0,0.0,-0.25,0.5,0.0,0.0,0.0015280538,-0.3174013,0.22677702,0.049346242,-0.06356248,0.2530299,-0.059012156,-0.25846788,0.19969165,-0.0049686823,0.050426096,-0.018263996,0.10306314,0.27792147,-0.35990518,0.025964214,-0.01483253,0.10069302,-0.08610157,0.023869278,0.13201429,0.2913142,-0.017845392,-0.13605727,1.0,1.0,-1.0,0.031260192,1.0,1.0,-1.0,-0.08512983,1.0,1.0,-1.0,-1.0,-1.0,1.0,-1.0,1.0,-1.0,1.0,-0.8911378,-1.0,1.0,-1.0,0.24574654,-1.0
2025-07-21 17:28:23.978,1.660000000000001,1660,83,0.48267427,0.232334,0.49371856,0.5569691,-0.2813011,-0.3281558,0.08093405,0.041051865,0.0020696812,0.0,0.0,0.0,-0.25,0.5,0.0,0.0,-0.01606356,-0.21639141,0.095942415,0.024228903,-0.08417838,0.2852004,-0.12056992,-0.28771335,0.24407943,0.004193588,0.07867039,-0.099734895,-0.20643194,0.30341804,-0.3310187,-0.13186318,-0.1506992,0.106091924,-0.19201791,-0.0926597,0.04721748,-0.1465491,0.110439956,-0.18519977,-1.0,1.0,-1.0,1.0,-1.0,1.0,-0.8911378,-1.0,1.0,-1.0,0.24574654,-1.0,-1.0,-1.0,-1.0,1.0,1.0,1.0,-1.0,0.95703685,1.0,-1.0,1.0,-1.0
2025-07-21 17:28:23.996,1.680000000000001,1680,84,0.58519,0.12410682,0.6818635,0.17289743,-0.36020726,-0.22221859,0.03086113,-0.025271328,-0.012397351,0.0,0.0,0.0,-0.25,0.5,0.0,0.0,-0.10013304,-0.15403765,0.014291733,0.01725681,-0.08112458,0.3068367,-0.17823471,-0.28885117,0.25957856,-0.07989014,0.16994123,-0.16662616,-0.18269303,0.0140546365,-0.29138374,-0.048662122,0.11791983,-0.003078774,-0.09508931,0.025284303,0.074827105,-0.25421515,0.3386074,-0.14694223,-1.0,-1.0,-1.0,1.0,1.0,1.0,-1.0,0.95703685,1.0,-1.0,1.0,-1.0,-1.0,-1.0,1.0,-0.4665903,-0.9778727,-1.0,-1.0,1.0,-0.78985524,0.40487814,-0.6274165,1.0
2025-07-21 17:28:24.014,1.700000000000001,1700,85,0.35947025,0.03276467,0.34204203,0.24817319,-0.06906213,-0.2601583,0.04059706,0.04681769,-0.024004968,0.0,0.0,0.0,-0.25,0.5,0.0,0.0,-0.16740178,-0.21741703,0.055157237,-0.024677964,-0.069894634,0.21571326,-0.22868669,-0.21635774,0.16912429,-0.085825086,0.20030922,-0.08307867,-0.13239436,-0.24512617,0.15565732,-0.02472757,-0.06877683,-0.2838939,-0.15855935,0.17428607,-0.28928474,0.19937478,-0.113927945,0.3353159,-1.0,-1.0,1.0,-0.4665903,-0.9778727,-1.0,-1.0,1.0,-0.78985524,0.40487814,-0.6274165,1.0,1.0,-1.0,1.0,-1.0,1.0,0.027482092,1.0,1.0,-1.0,-1.0,-1.0,1.0
2025-07-21 17:28:24.034,1.720000000000001,1720,86,0.30862895,0.3023603,-0.35327467,-0.13923565,0.059172615,-0.2288929,0.10640148,0.02576572,-0.0019165159,0.0,0.0,0.0,-0.25,0.5,0.0,0.0,-0.16588914,-0.3529725,0.1404407,-0.06643191,-0.065015465,0.16093268,-0.21411961,-0.10306017,0.06986797,-0.114900574,0.12367518,0.00016411979,0.21258217,-0.3157585,0.20943566,-0.20449252,0.13073245,-0.035118364,0.16978644,0.3444628,-0.27275705,-0.14937827,-0.27175862,0.27902162,1.0,-1.0,1.0,-1.0,1.0,0.027482092,1.0,1.0,-1.0,-1.0,-1.0,1.0,0.6927595,1.0,1.0,-0.6257847,1.0,0.3262189,0.2156072,-1.0,1.0,-0.5163226,-0.2049386,1.0
2025-07-21 17:28:24.055,1.740000000000001,1740,87,0.4343174,0.042369235,-0.62105423,-0.18125126,0.048279144,-0.19072635,0.06360157,-0.009499204,0.046998125,0.0,0.0,0.0,-0.25,0.5,0.0,0.0,-0.07807766,-0.4126943,0.19474886,-0.11755501,0.011316244,0.15553412,-0.16384704,-0.057434164,0.110646516,-0.13230173,0.049046617,0.08091972,0.14002857,-0.041969627,0.056898266,-0.099786475,0.27003634,-0.07524159,0.13511586,-0.07281124,0.17644788,-0.050131626,-0.08213811,0.2194201,0.6927595,1.0,1.0,-0.6257847,1.0,0.3262189,0.2156072,-1.0,1.0,-0.5163226,-0.2049386,1.0,-1.0,1.0,1.0,1.0,-1.0,-1.0,-1.0,-1.0,-1.0,1.0,-1.0,1.0
2025-07-21 17:28:24.073,1.7600000000000011,1760,88,0.43987447,0.116519235,-0.38690642,0.0028664826,0.26206797,-0.25973532,0.009889803,-0.0012573124,0.047180537,0.0,0.0,0.0,-0.25,0.5,0.0,0.0,-0.06698516,-0.37675977,0.23819625,-0.09493422,0.05986329,0.07779183,-0.18919824,-0.10280218,0.03848711,-0.101807564,-0.05974115,0.15448278,-0.17948222,0.16355194,0.08196329,0.18134567,-0.03207031,-0.29375365,-0.10474585,-0.23489875,-0.1889293,0.19605917,-0.32017693,0.16562147,-1.0,1.0,1.0,1.0,-1.0,-1.0,-1.0,-1.0,-1.0,1.0,-1.0,1.0,-1.0,-0.775501,1.0,-1.0,-0.94671226,0.034227252,1.0,1.0,-1.0,1.0,-1.0,1.0
2025-07-21 17:28:24.098,1.7800000000000011,1780,89,0.2722151,0.0072678924,-0.65138966,0.25051054,0.17491738,-0.09521938,0.028021341,0.06490969,0.03674313,0.0,0.0,0.0,-0.25,0.5,0.0,0.0,-0.11976015,-0.3504958,0.26846817,-0.106881,-0.0019734933,0.05412477,-0.18552668,-0.11875126,-0.04839828,-0.018231522,-0.1783214,0.20621784,-0.06581243,-0.031759076,0.08173006,-0.14447047,-0.32859293,0.045362264,0.13244936,-0.0009895256,-0.25579032,0.05728396,-0.17916673,0.14896894,-1.0,-0.775501,1.0,-1.0,-0.94671226,0.034227252,1.0,1.0,-1.0,1.0,-1.0,1.0,1.0,0.32266286,1.0,-1.0,1.0,1.0,1.0,1.0,-1.0,1.0,-1.0,1.0
2025-07-21 17:28:24.119,1.8000000000000012,1800,90,0.21138684,-0.071219616,-0.34562215,-0.7222367,0.6007993,-0.3166882,0.057100628,-0.0046145273,-0.018824251,0.0,0.0,0.0,-0.25,0.5,0.0,0.0,-0.07471479,-0.34857997,0.28142694,-0.16534385,-0.050645925,0.11918289,-0.06130104,-0.05204888,-0.119175844,0.038270473,-0.23214974,0.25013947,0.17764746,0.064868465,0.09895608,-0.072635986,0.027215065,0.17245653,0.22459015,0.23374997,-0.21294186,0.14839935,-0.12074239,0.10020031,1.0,0.32266286,1.0,-1.0,1.0,1.0,1.0,1.0,-1.0,1.0,-1.0,1.0,-1.0,-1.0,1.0,0.15406781,1.0,-1.0,1.0,-0.7604673,-1.0,1.0,-0.54416186,1.0
2025-07-21 17:28:24.138,1.8200000000000012,1820,91,0.03433583,-0.16822506,0.20787697,-0.25935504,0.5066761,0.0067178416,-0.04439312,-0.038647138,0.00853254,0.0,0.0,0.0,-0.25,0.5,0.0,0.0,-0.006650124,-0.37577593,0.30684543,-0.14813976,0.034664474,0.04295817,0.024238767,-0.029899156,-0.16934681,0.10765724,-0.28672037,0.28780168,0.060914945,-0.07594382,0.05918677,0.040699415,0.24065569,-0.19830586,0.22483,-0.09738694,-0.13674174,0.21801794,-0.17137626,0.12844382,-1.0,-1.0,1.0,0.15406781,1.0,-1.0,1.0,-0.7604673,-1.0,1.0,-0.54416186,1.0,1.0,1.0,1.0,-1.0,-0.9537039,0.17987716,1.0,1.0,-0.56301975,-1.0,-0.940392,1.0
2025-07-21 17:28:24.157,1.8400000000000012,1840,92,-0.19712536,-0.11068813,0.10974746,-0.056532577,0.2674547,-0.54611874,-0.107370965,-0.02170007,0.015474691,0.0,0.0,0.0,-0.25,0.5,0.0,0.0,0.054440342,-0.36528212,0.33396196,-0.19407587,0.040251676,0.044907488,0.107665285,-0.004852836,-0.19969852,0.119151086,-0.35891095,0.32954013,0.10843685,0.097933345,-0.026690463,-0.16855441,-0.114479125,0.03925299,0.18625213,0.13294226,0.005999621,-0.011254322,-0.27373892,0.10276955,1.0,1.0,1.0,-1.0,-0.9537039,0.17987716,1.0,1.0,-0.56301975,-1.0,-0.940392,1.0,-1.0,1.0,1.0,1.0,1.0,1.0,1.0,-1.0,1.0,1.0,1.0,1.0
2025-07-21 17:28:24.175,1.8600000000000012,1860,93,-0.008056373,-0.30091944,0.4927793,-0.3284935,-0.11738903,-0.38151008,-0.08351923,-0.013583196,0.027986068,0.0,0.0,0.0,-0.25,0.5,0.0,0.0,0.09748097,-0.33030313,0.33833173,-0.1705487,0.06410607,0.11458982,0.18783881,-0.0100884475,-0.10178152,0.10809523,-0.37834308,0.33999574,0.10778737,0.1643819,-0.033875566,0.23213041,0.12517396,0.10526051,0.20203553,-0.12209294,0.28243905,0.021562666,0.08921038,0.07815332,-1.0,1.0,1.0,1.0,1.0,1.0,1.0,-1.0,1.0,1.0,1.0,1.0,-1.0,1.0,-1.0,1.0,-0.9035734,1.0,-1.0,-1.0,1.0,-0.30736005,0.7157033,-0.19284227
2025-07-21 17:28:24.195,1.8800000000000012,1880,94,0.294916,-0.020282287,0.40975842,0.32385033,-0.5498317,-0.40449882,-0.060758352,0.009634818,0.00030180643,0.0,0.0,0.0,-0.25,0.5,0.0,0.0,0.046483718,-0.24784556,0.21874014,-0.057610504,0.07232113,0.16896677,0.1502,-0.090954185,0.006490356,0.06510868,-0.3072813,0.27712134,-0.25675583,0.21224,-0.34829628,0.326568,-0.16004233,0.10917595,-0.31444195,-0.3157688,0.27044493,-0.07629475,0.24062404,-0.14471658,-1.0,1.0,-1.0,1.0,-0.9035734,1.0,-1.0,-1.0,1.0,-0.30736005,0.7157033,-0.19284227,0.14842276,1.0,-1.0,-0.75851965,-1.0,1.0,-1.0,-1.0,1.0,-1.0,1.0,-1.0
2025-07-21 17:28:24.215,1.9000000000000012,1900,95,0.008238263,-0.20578486,-0.106688306,0.53481376,-0.5789643,-0.42147607,-0.011256127,0.019270092,0.03328302,0.0,0.0,0.0,-0.25,0.5,0.0,0.0,0.03565648,-0.1272703,0.10130587,-0.061821602,-0.004240237,0.2267954,0.044955853,-0.24076302,0.073761314,-0.029692557,-0.21480419,0.1413386,0.026946282,0.40281785,-0.30617696,-0.16907145,-0.28792083,0.16549473,-0.22766717,-0.3706363,0.15082575,-0.31161875,0.2342003,-0.29064256,0.14842276,1.0,-1.0,-0.75851965,-1.0,1.0,-1.0,-1.0,1.0,-1.0,1.0,-1.0,0.9922395,-1.0,-1.0,1.0,1.0,1.0,-1.0,1.0,1.0,0.87018716,1.0,-1.0
2025-07-21 17:28:24.234,1.9200000000000013,1920,96,0.3077658,-0.18363738,-0.24382508,-0.19976781,-0.1878672,-0.34946856,0.033845894,-0.023675276,-0.016929105,0.0,0.0,0.0,-0.25,0.5,0.0,0.0,0.10477916,-0.057893746,0.0010405919,-0.048308007,-0.051588625,0.27027753,-0.03310419,-0.3072827,0.13369218,-0.014117567,-0.06274533,0.03207818,0.12576637,0.07097757,-0.20232815,0.02820099,0.022231355,0.11043117,-0.10528732,-0.085860506,0.08566046,0.24512616,0.4086105,-0.1672915,0.9922395,-1.0,-1.0,1.0,1.0,1.0,-1.0,1.0,1.0,0.87018716,1.0,-1.0,-0.054162487,-1.0,-1.0,1.0,-0.24738291,1.0,-1.0,-1.0,1.0,0.2745124,-0.46687397,-1.0
2025-07-21 17:28:24.258,1.9400000000000013,1940,97,0.03901014,-0.08232668,0.2589048,0.3297818,-0.015191702,-0.40160137,0.004087612,-0.018398331,0.023708813,0.0,0.0,0.0,-0.25,0.5,0.0,0.0,0.10792635,-0.10283611,-0.07537341,-0.042938877,-0.06491539,0.295726,-0.07191015,-0.33129215,0.18769361,0.026827574,0.005317379,-0.040763225,-0.07662182,-0.18050626,-0.13755323,0.04748192,-0.08815487,0.10982119,-0.16503187,-0.14660533,0.06297261,0.0832424,0.051009513,-0.22999515,-0.054162487,-1.0,-1.0,1.0,-0.24738291,1.0,-1.0,-1.0,1.0,0.2745124,-0.46687397,-1.0,-0.18510713,1.0,-1.0,1.0,1.0,1.0,-1.0,-0.95811963,1.0,1.0,1.0,-1.0
2025-07-21 17:28:24.279,1.9600000000000013,1960,98,-0.076637685,0.02700833,0.31557634,0.11743273,0.008924916,-0.3283098,0.07458664,-0.009048699,-0.001462056,0.0,0.0,0.0,-0.25,0.5,0.0,0.0,0.0731278,-0.13219868,-0.13572441,-0.03786776,-0.08248284,0.31604356,-0.1312483,-0.37639236,0.2343978,0.090010054,0.058245797,-0.12895946,-0.13654852,0.050479688,-0.20893812,0.093574286,0.0248577,0.014016019,-0.07135669,-0.04860657,0.047419872,0.19775096,0.20651966,-0.13782725,-0.18510713,1.0,-1.0,1.0,1.0,1.0,-1.0,-0.95811963,1.0,1.0,1.0,-1.0,-0.20010473,1.0,-1.0,1.0,1.0,1.0,-1.0,-1.0,1.0,-0.8139936,1.0,-1.0
2025-07-21 17:28:24.298,1.9800000000000013,1980,99,0.042903014,-0.08445253,0.4075041,0.21908288,-0.21274428,-0.32111272,0.12814191,0.031364612,0.039893184,0.0,0.0,0.0,-0.25,0.5,0.0,0.0,0.027704151,-0.06104025,-0.20618188,-0.03578821,-0.050665583,0.33188513,-0.17322928,-0.42505512,0.28290555,0.093839936,0.18740563,-0.1822696,-0.09692488,0.24313381,-0.12748963,-0.035866562,0.087587535,0.06575868,-0.19388905,-0.0036209808,0.038120706,-0.22530255,0.33380517,-0.082082935,-0.20010473,1.0,-1.0,1.0,1.0,1.0,-1.0,-1.0,1.0,-0.8139936,1.0,-1.0,-0.37131843,-1.0,-0.121837616,1.0,1.0,1.0,-1.0,1.0,1.0,0.6926429,-1.0,0.054757565
2025-07-21 17:28:24.316,2.0000000000000013,2000,100,0.205009,-0.012294211,0.63254386,-0.044505995,-0.16082913,-0.21634096,0.09343955,0.047974344,0.023262564,0.0,0.0,0.0,-0.25,0.5,0.0,0.0,0.0062349164,-0.022702252,-0.17693926,0.003062034,-0.0108963195,0.3467932,-0.20744427,-0.41762412,0.30075714,0.103846096,0.23155397,-0.15572672,-0.065337256,-0.13955477,0.033732515,0.14364146,0.07979159,-0.016312996,-0.08621709,0.05134757,0.035136763,0.07773518,-0.07533845,0.15784559,-0.37131843,-1.0,-0.121837616,1.0,1.0,1.0,-1.0,1.0,1.0,0.6926429,-1.0,0.054757565,-0.74812245,1.0,1.0,-1.0,-1.0,-1.0,-1.0,1.0,1.0,0.7535274,-1.0,1.0
2025-07-21 17:28:24.336,2.0200000000000014,2020,101,0.23841326,0.038782656,0.31674254,0.5809986,-0.22937769,-0.44002023,0.09514222,0.022690734,-0.024908789,0.0,0.0,0.0,-0.25,0.5,0.0,0.0,-0.06274675,-0.016633678,-0.073098116,-0.037501004,0.029903874,0.2393432,-0.25553676,-0.39379668,0.32054162,0.14702408,0.15896438,-0.051723372,-0.22329605,0.09073843,0.2754692,-0.21191439,-0.016399458,-0.3264322,-0.11831944,0.11303535,0.07572242,0.082203545,-0.27948722,0.25821477,-0.74812245,1.0,1.0,-1.0,-1.0,-1.0,-1.0,1.0,1.0,0.7535274,-1.0,1.0,-1.0,-1.0,1.0,-0.922625,0.59215283,0.22346717,1.0,1.0,-1.0,-0.120425925,-1.0,1.0
2025-07-21 17:28:24.355,2.0400000000000014,2040,102,0.13364378,-0.097944565,0.30572185,0.26583636,-0.35927242,-0.16842176,0.124685206,0.036715712,-0.018804563,0.0,0.0,0.0,-0.25,0.5,0.0,0.0,-0.13321161,-0.00936918,0.01683328,-0.11278371,0.06203178,0.20385727,-0.2404586,-0.3015201,0.21378212,0.12824802,0.04979585,0.03616262,-0.11942535,-0.11646427,0.19117986,-0.19021922,0.19956474,0.0040513054,0.17236543,0.30158383,-0.35188967,-0.020927964,-0.30497447,0.22771303,-1.0,-1.0,1.0,-0.922625,0.59215283,0.22346717,1.0,1.0,-1.0,-0.120425925,-1.0,1.0,1.0,-1.0,1.0,-1.0,-1.0,-1.0,1.0,1.0,-1.0,1.0,0.55027133,1.0
2025-07-21 17:28:24.376,2.0600000000000014,2060,103,0.3852469,-0.03296783,-0.33500594,-0.6883588,0.11137057,-0.20529898,0.14938529,0.020937486,-0.0009357198,0.0,0.0,0.0,-0.25,0.5,0.0,0.0,-0.11026228,-0.08938889,0.097159944,-0.16706671,0.05134201,0.10312407,-0.13631912,-0.16158204,0.091777965,0.15979421,-0.025443401,0.11588725,0.22516213,-0.22118467,0.15704331,-0.17270707,-0.08547384,-0.2606001,0.27612603,0.34400156,-0.19745949,0.18615063,-0.065244935,0.1491723,1.0,-1.0,1.0,-1.0,-1.0,-1.0,1.0,1.0,-1.0,1.0,0.55027133,1.0,1.0,-1.0,1.0,-0.69588476,-0.6956973,-0.6041756,1.0,-0.83360445,-1.0,-1.0,-1.0,1.0
2025-07-21 17:28:24.398,2.0800000000000014,2080,104,0.18122905,-0.18191996,-0.45597857,-0.17727718,0.49739823,-0.4046605,0.14533699,-0.021320121,-0.035506878,0.0,0.0,0.0,-0.25,0.5,0.0,0.0,-0.0073970268,-0.2422751,0.15714622,-0.21311936,-0.039272692,0.04155884,-0.027326377,-0.10701684,0.004581919,0.19413263,-0.06953991,0.17438704,0.25079077,-0.4437618,0.21458966,-0.1171108,-0.29525843,-0.1076592,0.29277396,-0.023702737,-0.23687296,0.03267122,-0.15680687,0.18195905,1.0,-1.0,1.0,-0.69588476,-0.6956973,-0.6041756,1.0,-0.83360445,-1.0,-1.0,-1.0,1.0,-0.50399566,1.0,1.0,1.0,1.0,1.0,1.0,-0.3242598,-1.0,1.0,-0.6027395,1.0
2025-07-21 17:28:24.420,2.1000000000000014,2100,105,0.3841376,-0.0445145,-0.087728836,-0.53775936,0.62322515,-0.23417458,0.059395496,0.06310135,0.009170772,0.0,0.0,0.0,-0.25,0.5,0.0,0.0,0.03162145,-0.3263016,0.21001641,-0.1639995,-0.11145045,0.077735044,0.081826136,-0.1420864,-0.07431361,0.21949379,-0.14994383,0.22879554,-0.10123933,-0.021649688,0.04373054,0.24722384,0.030631969,0.17233534,0.17972326,-0.19346738,-0.1651906,0.11991999,-0.12374306,0.08362048,-0.50399566,1.0,1.0,1.0,1.0,1.0,1.0,-0.3242598,-1.0,1.0,-0.6027395,1.0,-1.0,-1.0,1.0,0.8305176,-1.0,1.0,1.0,1.0,1.0,1.0,-1.0,1.0
2025-07-21 17:28:24.440,2.1200000000000014,2120,106,0.17634429,-0.043552876,-0.21762986,-0.14572911,0.6976795,-0.15044357,-0.048734378,0.05383897,0.022445422,0.0,0.0,0.0,-0.24738002,0.5,0.0,0.0,-0.014329074,-0.39970535,0.25649074,-0.07961656,-0.17396045,0.15138996,0.14387938,-0.16060741,-0.019116823,0.26854348,-0.22770339,0.26453218,0.020971987,-0.23962784,0.14384685,0.26537737,-0.26211888,0.13244103,0.15135412,0.046724156,0.29115784,0.04897545,-0.22818872,0.06474795,-1.0,-1.0,1.0,0.8305176,-1.0,1.0,1.0,1.0,1.0,1.0,-1.0,1.0,1.0,1.0,1.0,1.0,1.0,1.0,-1.0,-1.0,1.0,-1.0,1.0,-1.0
2025-07-21 17:28:24.457,2.1400000000000015,2140,107,0.43370172,-0.22158644,-0.10788159,-0.25527436,0.03016965,-0.49927318,-0.044786673,0.05560445,0.028808983,0.0,0.0,0.0,-0.24338001,0.5,0.0,0.0,-0.0025127197,-0.4286245,0.27511203,0.01189322,-0.20322895,0.20512065,0.13727745,-0.15176919,0.06587086,0.23596029,-0.22374724,0.17877269,0.10868274,-0.07575844,0.050622724,0.16826366,-0.03578745,0.13437508,-0.14579225,-0.119487636,0.18233852,-0.16358505,0.13292398,-0.36362267,1.0,1.0,1.0,1.0,1.0,1.0,-1.0,-1.0,1.0,-1.0,1.0,-1.0,-1.0,1.0,-1.0,1.0,-1.0,1.0,-1.0,-1.0,1.0,-1.0,1.0,-1.0
2025-07-21 17:28:24.477,2.1600000000000015,2160,108,0.26144314,0.023996195,-0.09188129,-0.14623827,-0.21513064,-0.53070396,-0.060126677,0.09105666,-0.0045552654,0.0,0.0,0.0,-0.23734558,0.5,0.0,0.0,-0.019668294,-0.3632586,0.1708594,0.059103455,-0.22570473,0.24789517,0.04725225,-0.2375465,0.12662314,0.13265638,-0.13241814,0.051634006,-0.11349001,0.2070619,-0.34298697,0.085440315,0.0016988855,0.16385648,-0.22235404,-0.21771528,0.21155576,-0.36203513,0.26257727,-0.20773683,-1.0,1.0,-1.0,1.0,-1.0,1.0,-1.0,-1.0,1.0,-1.0,1.0,-1.0,-0.32909444,1.0,-1.0,-0.26815733,0.766677,1.0,-1.0,-1.0,1.0,-1.0,1.0,-0.74495244
2025-07-21 17:28:24.497,2.1800000000000015,2180,109,0.31550583,0.014323657,-0.128946,0.26098832,-0.38657573,-0.25615537,-0.050698876,-0.007110575,-0.007713842,0.0,0.0,0.0,-0.22763205,0.5,0.0,0.0,-0.036653876,-0.26406989,0.06415454,0.02947295,-0.22744007,0.2714072,-0.040306758,-0.33891,0.18628603,0.022761544,0.025970316,-0.007210787,-0.12177191,0.38110915,-0.270249,-0.026403721,0.11088499,0.03441581,-0.11915338,-0.1898491,0.08575707,-0.25053608,0.44145358,-0.14246923,-0.32909444,1.0,-1.0,-0.26815733,0.766677,1.0,-1.0,-1.0,1.0,-1.0,1.0,-0.74495244,-0.6015718,0.34705967,-1.0,1.0,-0.19851187,1.0,-1.0,0.0066518486,1.0,-1.0,-0.7093608,-1.0
2025-07-21 17:28:24.516,2.2000000000000015,2200,110,0.23743913,0.007553022,0.085116215,0.1814849,-0.21206293,-0.49270615,-0.039593875,0.0020052802,-0.044978477,0.0,0.0,0.0,-0.22033069,0.5,0.0,0.0,-0.09536049,-0.13572665,-0.02827818,0.014880446,-0.2171466,0.3107573,-0.09179574,-0.3581617,0.2390849,-0.0772605,0.101600885,-0.085597545,-0.117558286,0.22857478,-0.15418214,0.0767676,0.029293608,0.13028774,-0.12688147,0.04802687,0.093815155,-0.17161706,0.061443783,-0.18022388,-0.6015718,0.34705967,-1.0,1.0,-0.19851187,1.0,-1.0,0.0066518486,1.0,-1.0,-0.7093608,-1.0,0.40808353,-1.0,-1.0,-0.66881895,1.0,1.0,-1.0,-1.0,1.0,-0.033699855,0.7269518,0.61946857
2025-07-21 17:28:24.539,2.2200000000000015,2220,111,0.050737474,0.3477541,0.34856558,0.5950696,-0.05297984,-0.12313371,0.047356658,0.019873317,0.010959123,0.0,0.0,0.0,-0.21294393,0.5,0.0,0.0,-0.07861424,-0.10817076,-0.11338761,-0.01729088,-0.20434883,0.3116885,-0.13770302,-0.37549582,0.26491922,-0.074188374,0.14287584,-0.049103066,0.16692156,-0.05646156,-0.11414015,-0.15530951,0.003530565,0.009502226,-0.116364926,-0.021573808,0.04678399,-0.032348108,0.26907334,0.12620264,0.40808353,-1.0,-1.0,-0.66881895,1.0,1.0,-1.0,-1.0,1.0,-0.033699855,0.7269518,0.61946857,-0.7442976,0.75131863,0.8632555,1.0,1.0,1.0,-1.0,0.93062294,1.0,0.7125877,-1.0,-1.0
2025-07-21 17:28:24.560,2.2400000000000015,2240,112,0.16578004,0.39697734,0.41220188,0.3351952,-0.39674667,-0.28379223,0.08923316,0.04029318,-0.02750007,0.0,0.0,0.0,-0.20721355,0.5,0.0,0.0,-0.08644703,-0.09807668,-0.048333388,-0.05168803,-0.16815783,0.3392881,-0.19276744,-0.37288177,0.28866324,-0.022007005,0.17216794,-0.090153314,-0.1938767,0.13957986,0.14215998,-0.039232012,0.13076316,-0.03264869,-0.05387948,0.03208148,0.06710308,0.24652863,-0.029533103,-0.23456438,-0.7442976,0.75131863,0.8632555,1.0,1.0,1.0,-1.0,0.93062294,1.0,0.7125877,-1.0,-1.0,-0.23798384,-1.0,1.0,0.80249375,1.0,-1.0,-1.0,0.21521488,1.0,1.0,-1.0,1.0
2025-07-21 17:28:24.579,2.2600000000000016,2260,113,0.4061329,0.06435671,0.4534331,0.29238176,-0.2975077,-0.38870305,0.12595984,0.008740737,0.002550199,0.0,0.0,0.0,-0.20303343,0.5,0.0,0.0,-0.09500876,-0.10248637,0.048090857,-0.028999643,-0.07967512,0.23022999,-0.23198603,-0.3532656,0.30808997,0.06553478,0.094934985,-0.034772713,-0.0012600905,-0.16653332,0.2815957,0.07146732,0.30783057,-0.32041904,-0.16944514,0.058147524,0.008106794,0.16598241,-0.33451718,0.20694926,-0.23798384,-1.0,1.0,0.80249375,1.0,-1.0,-1.0,0.21521488,1.0,1.0,-1.0,1.0,-1.0,-1.0,1.0,-1.0,1.0,-1.0,1.0,1.0,-1.0,1.0,-1.0,0.53631926
2025-07-21 17:28:24.596,2.2800000000000016,2280,114,0.25698096,0.11361551,0.024258208,0.23117486,-0.1150022,-0.15295349,0.085762516,-0.03096036,0.0049095466,0.0,0.0,0.0,-0.19629303,0.5,0.0,0.0,-0.15509492,-0.1732765,0.11783622,-0.038589913,0.049050055,0.09545599,-0.21999745,-0.2552625,0.19200437,0.15088367,-0.038961705,0.03206754,-0.15893598,-0.265862,0.13246733,-0.1306492,0.41167197,-0.32941964,0.07351908,0.21509185,-0.3570176,0.06992183,-0.35094124,0.062417008,-1.0,-1.0,1.0,-1.0,1.0,-1.0,1.0,1.0,-1.0,1.0,-1.0,0.53631926,1.0,-0.38593274,1.0,-1.0,-0.7265352,-0.5488141,1.0,1.0,-1.0,1.0,1.0,1.0
2025-07-21 17:28:24.616,2.3000000000000016,2300,115,0.62557685,0.11740508,-0.31947237,-0.9449226,-0.05054324,-0.13733603,0.06451484,-0.019745795,-0.010857899,0.0,0.0,0.0,-0.19124164,0.5,0.0,0.0,-0.12372572,-0.2355856,0.18144642,-0.106892854,0.11705559,0.049507983,-0.12397797,-0.1242889,0.07563357,0.20659843,-0.11439698,0.08650627,0.19523878,-0.087120704,0.08427713,-0.17202923,-0.041900992,-0.07717785,0.23797603,0.3816632,-0.27893105,0.21661462,-0.09421264,0.20835772,1.0,-0.38593274,1.0,-1.0,-0.7265352,-0.5488141,1.0,1.0,-1.0,1.0,1.0,1.0,1.0,-1.0,1.0,-0.41599196,-1.0,-1.0,1.0,-1.0,-1.0,-1.0,-0.054039914,1.0
2025-07-21 17:28:24.636,2.3200000000000016,2320,116,0.26187265,0.3347927,-0.45366585,-0.5497378,0.116766505,-0.29499567,0.06686508,-0.03661991,-0.04606121,0.0,0.0,0.0,-0.18718305,0.5,0.0,0.0,-0.017909098,-0.33688185,0.22167279,-0.15169106,0.07161456,-0.052573986,-0.015505195,-0.0591479,-0.0023630655,0.22235838,-0.12949781,0.14436136,0.17696969,-0.26754117,0.115424894,-0.004572646,-0.18880637,-0.20148231,0.27443153,0.033592563,-0.14387858,-0.023138857,-0.02320164,0.18746018,1.0,-1.0,1.0,-0.41599196,-1.0,-1.0,1.0,-1.0,-1.0,-1.0,-0.054039914,1.0,1.0,-0.47917962,1.0,0.096685946,1.0,0.81261605,1.0,-1.0,-1.0,1.0,1.0,0.8624346
2025-07-21 17:28:24.661,2.3400000000000016,2340,117,0.8583351,0.01392425,-0.34876624,-0.89563835,0.09934023,-0.029008301,-0.020957049,-0.039997257,-0.046922617,0.0,0.0,0.0,-0.18101057,0.5,0.0,0.0,0.08918146,-0.3934407,0.27105018,-0.111825876,0.027723474,0.0058773644,0.07177927,-0.10138605,-0.09791734,0.23957126,-0.09830584,0.18008648,0.23222065,-0.15847987,0.026299229,0.1217759,-0.0025872285,0.123998456,0.24432002,-0.14855662,-0.18954061,0.17735074,0.11703948,0.12206552,1.0,-0.47917962,1.0,0.096685946,1.0,0.81261605,1.0,-1.0,-1.0,1.0,1.0,0.8624346,-1.0,-1.0,1.0,1.0,-1.0,0.39382344,1.0,1.0,1.0,-0.01890789,-0.31088027,-1.0
2025-07-21 17:28:24.681,2.3600000000000017,2360,118,0.48838896,0.2198571,-0.5753863,-0.29595897,0.16128373,-0.23850998,-0.0897969,-0.0026601593,0.00739646,0.0,0.0,0.0,-0.17659917,0.5,0.0,0.0,0.08902011,-0.46057442,0.29793844,-0.041715134,-0.011108408,0.036270954,0.15002489,-0.14583829,-0.032738887,0.22601642,-0.05929734,0.09469112,-0.0011943153,-0.21640073,0.12260873,0.3142553,-0.23949374,0.102198586,0.129952,0.014096574,0.29555443,-0.090357006,0.023246003,-0.21297735,-1.0,-1.0,1.0,1.0,-1.0,0.39382344,1.0,1.0,1.0,-0.01890789,-0.31088027,-1.0,0.59455514,0.7504306,1.0,1.0,-1.0,1.0,-1.0,-1.0,1.0,-1.0,1.0,-1.0
2025-07-21 17:28:24.699,2.3800000000000017,2380,119,0.52475893,0.14751767,-0.537037,0.10555982,0.08253157,-0.45807686,-0.10050489,-0.04587844,-0.040713422,0.0,0.0,0.0,-0.17210004,0.5,0.0,0.0,0.096014746,-0.49572772,0.3206617,0.046149872,-0.11595455,0.1079703,0.12266199,-0.17438029,0.059371,0.119524226,-0.018895112,-0.003953765,0.12802894,0.061453555,0.03914904,0.16595492,-0.3701377,0.20166044,-0.1275237,-0.09215984,0.16549405,-0.2897229,0.2575406,-0.19036691,0.59455514,0.7504306,1.0,1.0,-1.0,1.0,-1.0,-1.0,1.0,-1.0,1.0,-1.0,-1.0,0.9964844,1.0,1.0,1.0,1.0,-1.0,-1.0,1.0,-1.0,-1.0,-0.06410268
2025-07-21 17:28:24.718,2.4000000000000017,2400,120,0.43216136,0.27754906,-0.36643624,0.69381315,0.020636072,-0.42045224,-0.08660443,-0.009219314,0.0022514246,0.0,0.0,0.0,-0.16462348,0.5,0.0,0.0,0.08423992,-0.4787409,0.34048706,0.10065378,-0.16682301,0.16198178,0.033479597,-0.24350883,0.13131157,0.003242427,-0.012617114,-0.020794606,-0.09000247,0.014910005,-0.0155541655,0.06440485,-0.12018458,0.03304759,-0.28656128,-0.13281223,0.15922816,-0.257311,-0.1515173,0.05420291,-1.0,0.9964844,1.0,1.0,1.0,1.0,-1.0,-1.0,1.0,-1.0,-1.0,-0.06410268,-1.0,1.0,1.0,1.0,-0.74269193,1.0,-1.0,-1.0,1.0,-0.56200445,-0.02346607,-1.0
2025-07-21 17:28:24.737,2.4200000000000017,2420,121,0.21594106,-0.120671526,0.32556093,0.7617138,0.0857422,-0.44006175,0.025448246,-0.0517685,-0.0104037495,0.0,0.0,0.0,-0.15649551,0.5,0.0,0.0,0.041442487,-0.4546532,0.36596137,0.08199827,-0.2102681,0.21741411,-0.06130288,-0.27574885,0.18884711,-0.044310585,-0.017331993,-0.080840275,-0.13289005,0.13470721,-0.010489766,-0.10599916,-0.015064023,0.10997289,-0.14414074,-0.111521415,0.0857164,-0.0967277,-0.06579678,-0.19366457,-1.0,1.0,1.0,1.0,-0.74269193,1.0,-1.0,-1.0,1.0,-0.56200445,-0.02346607,-1.0,-1.0,1.0,-1.0,1.0,0.07642744,1.0,1.0,-1.0,0.031725407,-1.0,1.0,0.45725963
2025-07-21 17:28:24.757,2.4400000000000017,2440,122,0.29915866,0.14920123,0.0028108237,0.10175024,-0.29531488,-0.02905866,0.08339265,-0.019184915,-0.042935867,0.0,0.0,0.0,-0.1489856,0.5,0.0,0.0,-0.014809369,-0.35791537,0.24339119,0.050329912,-0.21207105,0.24612907,-0.04605113,-0.30184364,0.15786037,-0.0989255,0.015687153,-0.04015467,-0.14344014,0.3538451,-0.35028914,-0.005631371,0.06426933,0.08735667,0.22269449,-0.092052616,-0.13934907,-0.19782883,0.2056743,0.08983113,-1.0,1.0,-1.0,1.0,0.07642744,1.0,1.0,-1.0,0.031725407,-1.0,1.0,0.45725963,-0.90686023,1.0,-1.0,-1.0,-1.0,1.0,-1.0,0.61603105,1.0,-0.980543,-1.0,-1.0
2025-07-21 17:28:24.775,2.4600000000000017,2460,123,0.19454712,-0.12292015,0.5557777,0.847313,-0.02907357,-0.30840045,0.06981504,-0.0794743,-0.016967596,0.0,0.0,0.0,-0.14422351,0.5,0.0,0.0,-0.10649709,-0.22387697,0.10838404,-0.0046227085,-0.22161865,0.27796715,-0.07728401,-0.32450575,0.19488126,-0.17943138,0.042004794,-0.11175314,-0.2051574,0.42175186,-0.33428645,-0.20432743,-0.057493743,0.14113098,-0.13805766,-0.07384277,0.04718695,-0.19638996,-0.023190781,-0.16298246,-0.90686023,1.0,-1.0,-1.0,-1.0,1.0,-1.0,0.61603105,1.0,-0.980543,-1.0,-1.0,0.46217212,-1.0,-1.0,1.0,0.7476007,1.0,-1.0,-1.0,-0.069615364,0.57124627,1.0,1.0
2025-07-21 17:28:24.801,2.4800000000000018,2480,124,0.16026144,-0.043784454,0.32188487,-0.07185023,-0.031973552,-0.09553316,0.09742809,-0.03428378,0.007686196,0.0,0.0,0.0,-0.1415201,0.5,0.0,0.0,-0.07030079,-0.15131769,0.014048596,-0.024747957,-0.22265199,0.29765487,-0.11804058,-0.3379366,0.15803637,-0.14089476,0.052618556,-0.04867932,0.1819102,-0.053813,-0.28362784,0.029092481,0.064586714,-0.0050588334,-0.10829387,-0.07598197,-0.07677778,0.18738213,0.084494516,0.2521438,0.46217212,-1.0,-1.0,1.0,0.7476007,1.0,-1.0,-1.0,-0.069615364,0.57124627,1.0,1.0,0.13145648,1.0,-1.0,0.98506564,-1.0,1.0,-1.0,0.34011355,1.0,1.0,-0.17007227,-1.0
2025-07-21 17:28:24.820,2.5000000000000018,2500,125,0.15275557,-0.11394821,0.76255214,-0.04891077,-0.0776884,-0.3677058,0.11046819,-0.035383634,-0.049088407,0.0,0.0,0.0,-0.13879801,0.5,0.0,0.0,-0.051132195,-0.09761716,-0.07038561,-0.0120041855,-0.23451374,0.31994903,-0.15652627,-0.35952026,0.18011297,-0.030089457,0.06388807,-0.07253003,0.111594066,0.28997377,-0.26847324,0.086194195,-0.11210587,0.1161734,-0.124005005,0.052586976,0.091902696,0.19924954,-0.17843413,-0.12970912,0.13145648,1.0,-1.0,0.98506564,-1.0,1.0,-1.0,0.34011355,1.0,1.0,-0.17007227,-1.0,-0.6543784,-1.0,-1.0,-0.37439102,1.0,1.0,1.0,-1.0,1.0,-0.9859407,1.0,0.8004503
2025-07-21 17:28:24.838,2.520000000000002,2520,126,0.28143817,-0.17650998,0.39062348,0.39094135,-0.09305804,-0.07633235,0.18081987,-0.0501439,-0.009110808,0.0,0.0,0.0,-0.13384347,0.5,0.0,0.0,-0.08850624,-0.07727054,-0.12793718,-0.045214858,-0.23604462,0.3463127,-0.14523824,-0.3959458,0.23240632,-0.026602319,0.04974397,-0.037228387,-0.09569268,-0.12101173,-0.122459546,-0.14017741,0.024798108,-0.006660457,0.13882735,-0.112041056,0.07409437,-0.08870041,0.060897004,0.2592339,-0.6543784,-1.0,-1.0,-0.37439102,1.0,1.0,1.0,-1.0,1.0,-0.9859407,1.0,0.8004503,0.34317985,-0.8301673,-0.9484868,-0.5064852,-1.0,1.0,-1.0,1.0,1.0,1.0,-0.30305257,-1.0
2025-07-21 17:28:24.858,2.540000000000002,2540,127,-0.13722625,-0.03761507,0.37620014,0.29262465,0.09055868,-0.2202714,0.119047165,-0.11170406,-0.042074583,0.0,0.0,0.0,-0.13027753,0.5,0.0,0.0,-0.071160324,-0.16004904,-0.17792848,-0.078806676,-0.24113502,0.3720484,-0.14851108,-0.39501747,0.2644996,0.003701288,0.046501145,-0.07136211,0.069555715,-0.3622801,-0.18547912,-0.014457468,-0.12771846,0.056006476,-0.07037815,-0.020066515,0.056035463,0.19587071,-0.17577784,-0.14304948,0.34317985,-0.8301673,-0.9484868,-0.5064852,-1.0,1.0,-1.0,1.0,1.0,1.0,-0.30305257,-1.0,1.0,1.0,1.0,1.0,1.0,1.0,-0.5348452,-1.0,1.0,-0.9823071,1.0,1.0
2025-07-21 17:28:24.878,2.560000000000002,2560,128,0.08210259,-0.17582648,0.2667225,0.10947326,-0.17176491,-0.18032207,0.17861843,-0.12778214,0.043168165,0.0,0.0,0.0,-0.12804227,0.5,0.0,0.0,0.021637049,-0.22340779,-0.10887427,-0.05540222,-0.2527456,0.38154936,-0.17048784,-0.40595335,0.29758802,0.022694726,0.048146445,-0.0074621756,0.29791623,0.045688454,0.3253012,0.070425384,0.115459,0.07938194,-0.024160067,-0.018508727,0.056772403,-0.19074465,0.02496108,0.2919727,1.0,1.0,1.0,1.0,1.0,1.0,-0.5348452,-1.0,1.0,-0.9823071,1.0,1.0,-1.0,1.0,1.0,-1.0,0.61369526,0.34370977,-1.0,1.0,-0.38597417,1.0,0.1719933,1.0
2025-07-21 17:28:24.898,2.580000000000002,2580,129,0.1718028,-0.0021061357,0.3516123,0.6336571,-0.21074603,0.039890934,0.22409911,-0.13292237,0.038750336,0.0,0.0,0.0,-0.124693744,0.5,0.0,0.0,0.014102979,-0.1564765,-0.0052757533,-0.10671081,-0.1715187,0.34563944,-0.22971456,-0.33540702,0.23131539,0.023701908,0.08428652,0.06573725,-0.16962753,0.20217541,0.26076367,-0.23741579,0.28179136,-0.0840834,-0.21056822,0.28254825,-0.23209013,0.22424024,0.04139735,0.22554654,-1.0,1.0,1.0,-1.0,0.61369526,0.34370977,-1.0,1.0,-0.38597417,1.0,0.1719933,1.0,-1.0,0.22452402,1.0,-0.16462386,1.0,-1.0,1.0,1.0,-1.0,0.87720597,-1.0,1.0
2025-07-21 17:28:24.922,2.600000000000002,2600,130,0.3554162,-0.24118267,-0.17600377,-0.47159883,-0.09915971,0.16196984,0.1380833,-0.17433399,-0.0063255187,0.0,0.0,0.0,-0.12419233,0.5,0.0,0.0,-0.07824763,-0.084654585,0.07723475,-0.09433002,-0.04574924,0.20789334,-0.19270119,-0.2052735,0.10120745,0.09651178,0.07387403,0.13625343,-0.2363841,0.19001813,0.14335136,0.03018181,0.29484892,-0.2811331,0.27749392,0.42536697,-0.29650185,0.17972001,-0.0022891688,0.12586907,-1.0,0.22452402,1.0,-0.16462386,1.0,-1.0,1.0,1.0,-1.0,0.87720597,-1.0,1.0,1.0,-1.0,1.0,-1.0,-0.3012112,-0.12353438,1.0,1.0,-1.0,-1.0,-1.0,1.0
2025-07-21 17:28:24.942,2.620000000000002,2620,131,0.30003265,-0.036182445,-0.57216126,-0.5523559,0.25362483,-0.21319285,0.15034841,-0.12310893,-0.046340153,0.0,0.0,0.0,-0.12527113,0.5,0.0,0.0,-0.07230765,-0.086569294,0.13530093,-0.1516736,-0.0005746967,0.16526653,-0.09339321,-0.06692368,0.012344618,0.11499563,0.031019721,0.20337945,0.21392319,-0.19981365,0.14450744,-0.22322316,-0.08927701,-0.06275749,0.28352305,0.36547762,-0.25265476,-0.023514774,-0.16805555,0.11255401,1.0,-1.0,1.0,-1.0,-0.3012112,-0.12353438,1.0,1.0,-1.0,-1.0,-1.0,1.0,-0.54369926,-0.5496763,1.0,0.9864251,0.09364102,1.0,1.0,-1.0,-1.0,0.9174179,1.0,1.0
2025-07-21 17:28:24.960,2.640000000000002,2640,132,0.15079457,-0.17099522,-0.34338304,-0.71928763,0.25333488,0.02838881,0.13592799,-0.10804234,-0.03202081,0.0,0.0,0.0,-0.12325312,0.5,0.0,0.0,-0.07104733,-0.1690196,0.19475025,-0.13635826,-0.0026934664,0.21370198,0.023225145,0.0129114315,-0.0637151,0.15867035,0.023188353,0.22969277,-0.16757178,-0.21399266,0.0795145,0.14497824,0.07550304,0.056707576,0.25037396,-0.010164751,-0.15643437,0.1326591,-0.011617635,0.06610511,-0.54369926,-0.5496763,1.0,0.9864251,0.09364102,1.0,1.0,-1.0,-1.0,0.9174179,1.0,1.0,-0.56319964,1.0,1.0,1.0,-1.0,1.0,1.0,-1.0,1.0,1.0,-1.0,1.0
2025-07-21 17:28:24.977,2.660000000000002,2660,133,0.08808918,-0.0057496745,-0.41569528,-0.85897744,0.4368991,-0.09771828,0.016572839,-0.028989466,-0.009267561,0.0,0.0,0.0,-0.121686496,0.5,0.0,0.0,-0.100771315,-0.21245609,0.24729154,-0.035088316,-0.024239251,0.24617566,0.11182564,-0.053941734,-0.0015447742,0.20814371,-0.017121393,0.27493972,-0.053087562,-0.030640202,0.15766917,0.22114055,-0.15214886,0.12774527,0.23773934,-0.22462212,0.24483308,0.0721367,-0.23687883,0.1525052,-0.56319964,1.0,1.0,1.0,-1.0,1.0,1.0,-1.0,1.0,1.0,-1.0,1.0,-1.0,1.0,1.0,1.0,-1.0,1.0,-1.0,-1.0,1.0,-1.0,1.0,-1.0
2025-07-21 17:28:24.998,2.680000000000002,2680,134,0.08710461,-0.003289084,-0.4492959,0.2836474,0.19374263,-0.26200163,0.047222476,0.010164435,0.03262826,0.0,0.0,0.0,-0.120900564,0.5,0.0,0.0,-0.1368243,-0.182632,0.2618612,-0.0005563017,-0.08772293,0.29520142,0.06956954,-0.17329697,0.07919566,0.16615857,0.005531158,0.18979344,-0.036386535,0.09422052,0.0045072385,-0.044327363,-0.08223714,0.13524786,-0.2641804,-0.33900794,0.17372088,-0.2941877,0.19556366,-0.37518248,-1.0,1.0,1.0,1.0,-1.0,1.0,-1.0,-1.0,1.0,-1.0,1.0,-1.0,0.24965401,0.64854395,-1.0,0.22016212,0.70940113,1.0,-1.0,-1.0,1.0,-0.19959627,0.88012797,0.20830855
2025-07-21 17:28:25.017,2.700000000000002,2700,135,0.13704179,0.21810725,-0.43906817,-0.21640338,-0.277655,-0.06642742,0.013464555,-0.025107853,-0.028347049,0.0,0.0,0.0,-0.11803173,0.5,0.0,0.0,-0.10202606,-0.10194634,0.1647868,0.016025959,-0.09956784,0.31412178,-0.01835783,-0.30246457,0.14855672,0.12386195,0.0928033,0.16345692,0.041072495,0.32575148,-0.33573058,0.09785169,0.10729511,0.02820286,-0.19553839,-0.44039357,0.22496898,-0.085251145,0.26177356,0.038615044,0.24965401,0.64854395,-1.0,0.22016212,0.70940113,1.0,-1.0,-1.0,1.0,-0.19959627,0.88012797,0.20830855,1.0,-1.0,-1.0,1.0,-0.43196204,1.0,-1.0,1.0,1.0,-0.8029648,-0.08699043,-1.0
2025-07-21 17:28:25.038,2.720000000000002,2720,136,-0.052034147,0.080166705,-0.51328945,-0.51530385,-0.27269012,-0.35055318,0.031589966,0.0439399,0.032741144,0.0,0.0,0.0,-0.11472808,0.5,0.0,0.0,-0.014699892,-0.038812786,0.065452576,0.06896973,-0.10524684,0.32744747,-0.08583212,-0.38833204,0.19893387,0.04975532,0.15228908,0.058399376,0.25673753,0.10579763,-0.24433358,0.15874268,0.0008466023,0.11978372,-0.09669153,-0.14700954,0.10897349,-0.270796,-0.10419592,-0.2585475,1.0,-1.0,-1.0,1.0,-0.43196204,1.0,-1.0,1.0,1.0,-0.8029648,-0.08699043,-1.0,0.89354026,-1.0,-0.6707382,0.5758877,1.0,1.0,-1.0,1.0,1.0,-1.0,1.0,-1.0
2025-07-21 17:28:25.061,2.740000000000002,2740,137,0.3260633,0.081804484,-0.08449627,0.02743057,-0.30553737,-0.25147134,0.0024678167,0.021564612,-0.002626853,0.0,0.0,0.0,-0.10951301,0.5,0.0,0.0,0.06338039,-0.06494279,-0.00022342446,0.087287575,-0.09434478,0.34725067,-0.09030261,-0.37970144,0.21986647,-0.05917891,0.17916991,-0.021253075,0.11050759,-0.15651596,-0.091922164,0.083452895,0.014330468,0.002540101,-0.013225918,-0.010845931,0.0009054599,-0.15389477,0.16360973,-0.28209043,0.89354026,-1.0,-0.6707382,0.5758877,1.0,1.0,-1.0,1.0,1.0,-1.0,1.0,-1.0,-1.0,-1.0,1.0,-0.41113886,0.10461978,1.0,-1.0,1.0,1.0,-1.0,-1.0,-1.0
2025-07-21 17:28:25.082,2.760000000000002,2760,138,0.5875835,0.059232343,0.4070068,0.8691615,-0.10112983,-0.17643669,0.02383866,-0.040024817,-0.013086236,0.0,0.0,0.0,-0.10328382,0.5,0.0,0.0,0.020923167,-0.19972903,0.06616705,0.041106608,-0.05982839,0.35277346,-0.14981268,-0.3497374,0.24633402,-0.14305297,0.20396528,-0.106755085,-0.28577435,-0.41489857,0.12583634,-0.16478287,0.025916638,0.09378373,-0.23400171,0.05639431,0.0575068,-0.19610816,-0.10613334,-0.14862694,-1.0,-1.0,1.0,-0.41113886,0.10461978,1.0,-1.0,1.0,1.0,-1.0,-1.0,-1.0,-1.0,0.87621045,1.0,1.0,-1.0,0.81125706,1.0,1.0,0.6902566,-1.0,-0.041381408,1.0
2025-07-21 17:28:25.100,2.780000000000002,2780,139,0.6557669,-0.059951328,0.53335667,-0.28398654,-0.50201136,-0.21156678,0.028612847,-0.09916473,-0.003042515,0.0,0.0,0.0,-0.098896444,0.5,0.0,0.0,-0.070766605,-0.2545712,0.13392337,0.036741275,-0.040274024,0.36695302,-0.1435212,-0.30169776,0.25574613,-0.20577966,0.16537683,-0.026773037,-0.12789862,0.01780477,0.18737738,0.0883725,0.008142259,-0.015843837,0.13903488,0.2444733,-0.005782219,-0.20420165,-0.03843147,0.17004876,-1.0,0.87621045,1.0,1.0,-1.0,0.81125706,1.0,1.0,0.6902566,-1.0,-0.041381408,1.0,-1.0,-1.0,1.0,-1.0,-1.0,-0.56918234,1.0,1.0,-1.0,1.0,-1.0,-1.0
2025-07-21 17:28:25.117,2.800000000000002,2800,140,0.35558218,0.103539534,0.2634604,-0.5398014,-0.27007708,-0.095548525,-0.05331882,-0.082172915,-0.0038559125,0.0,0.0,0.0,-0.09463403,0.5,0.0,0.0,-0.14207345,-0.30932096,0.19385807,0.05005397,-0.055010125,0.27907667,-0.054322243,-0.18773246,0.14471407,-0.15296884,0.090437405,-0.071093336,-0.13305613,-0.26000533,0.124526255,-0.08983336,-0.06944758,-0.28538153,0.3121852,0.33425093,-0.35325286,0.1903168,-0.2206853,-0.13464567,-1.0,-1.0,1.0,-1.0,-1.0,-0.56918234,1.0,1.0,-1.0,1.0,-1.0,-1.0,1.0,-1.0,1.0,-1.0,0.4549341,-1.0,1.0,1.0,-1.0,1.0,0.95431787,1.0
2025-07-21 17:28:25.138,2.820000000000002,2820,141,0.60676026,0.037263453,-0.53488404,-0.6507613,-0.39085525,-0.021391975,-0.14039569,-0.028108,-0.01447912,0.0,0.0,0.0,-0.08992091,0.5,0.0,0.0,-0.13530314,-0.4423773,0.23371407,-0.028418759,-0.046205338,0.14771585,0.04468972,-0.07432569,0.04093483,-0.03952268,0.049048033,-0.03011813,0.1776237,-0.28519294,0.09758099,-0.16827875,0.18242775,-0.2303837,0.20743488,0.37936565,-0.24067132,0.2786847,0.03876462,0.3022621,1.0,-1.0,1.0,-1.0,0.4549341,-1.0,1.0,1.0,-1.0,1.0,0.95431787,1.0,-1.0,1.0,1.0,-0.31733048,-1.0,1.0,1.0,-1.0,-1.0,-1.0,-1.0,1.0
2025-07-21 17:28:25.159,2.840000000000002,2840,142,0.2348082,-0.06930923,-0.74358416,-0.22575912,-0.24922886,-0.22242312,-0.16140321,-0.035034437,-0.015788646,0.0,0.0,0.0,-0.0871466,0.5,0.0,0.0,-0.16278447,-0.49123606,0.2698292,-0.073655,-0.06158857,0.18018895,0.12252877,0.005661918,-0.061781254,-0.0329997,-0.0021587743,0.06173247,-0.1314858,-0.08068494,0.07803094,-0.005196618,-0.15820487,0.120239966,0.14777742,0.062020484,-0.12992536,-0.120823145,-0.15714118,0.13029963,-1.0,1.0,1.0,-0.31733048,-1.0,1.0,1.0,-1.0,-1.0,-1.0,-1.0,1.0,-1.0,1.0,1.0,1.0,-1.0,1.0,-1.0,-1.0,1.0,1.0,-0.5172355,-0.7892437
2025-07-21 17:28:25.178,2.860000000000002,2860,143,0.23326217,-0.06312087,-0.24376708,0.2411639,0.12657638,-0.1443044,-0.1765999,-0.018155746,-0.016712856,0.0,0.0,0.0,-0.084291324,0.5,0.0,0.0,-0.20546481,-0.47222665,0.29595828,-0.044752847,-0.14650407,0.22712392,0.12465865,-0.04447494,0.0110177165,-0.0322697,-0.102336064,0.015694547,-0.044977345,-0.024422767,0.019274075,0.16252603,-0.2956377,0.12539549,-0.089060225,-0.07299559,0.28324336,0.13264522,-0.21479994,-0.201527,-1.0,1.0,1.0,1.0,-1.0,1.0,-1.0,-1.0,1.0,1.0,-0.5172355,-0.7892437,1.0,1.0,-1.0,1.0,-1.0,1.0,-1.0,-1.0,1.0,-1.0,1.0,-1.0
2025-07-21 17:28:25.201,2.880000000000002,2880,144,0.19440822,-0.31796002,-0.4715613,0.6648708,0.50097877,-0.35152927,-0.15540938,-0.107010216,0.03860637,0.0,0.0,0.0,-0.08034499,0.5,0.0,0.0,-0.22735225,-0.4226054,0.20022209,0.052950334,-0.29349986,0.2600811,0.07328104,-0.10528577,0.09301582,-0.03190649,-0.14730558,-0.065365314,0.001144674,0.20947224,-0.3440087,0.21854995,-0.39651838,0.03315971,-0.2137886,-0.038521934,0.12978339,-0.20018737,0.03923366,-0.22277072,1.0,1.0,-1.0,1.0,-1.0,1.0,-1.0,-1.0,1.0,-1.0,1.0,-1.0,1.0,1.0,-1.0,-0.9760271,1.0,1.0,-1.0,-1.0,1.0,-0.9942138,1.0,-0.049591333
2025-07-21 17:28:25.222,2.900000000000002,2900,145,0.40937722,-0.34201106,-0.4540499,0.9340993,0.66222054,-0.11564781,-0.0045682336,-0.11142032,0.017593643,0.0,0.0,0.0,-0.0767053,0.5,0.0,0.0,-0.18283522,-0.3073072,0.06893486,0.037389938,-0.38134277,0.28711253,-0.015144674,-0.13545264,0.14325823,-0.11629877,-0.09093207,-0.05922312,0.2503096,0.38779873,-0.24725646,-0.1494043,-0.09602558,0.07473048,-0.26052043,-0.09283785,0.18405733,-0.2419105,0.17442816,0.07044617,1.0,1.0,-1.0,-0.9760271,1.0,1.0,-1.0,-1.0,1.0,-0.9942138,1.0,-0.049591333,1.0,0.99971765,-1.0,1.0,0.39193627,1.0,-1.0,-1.0,-1.0,1.0,-1.0,-1.0
2025-07-21 17:28:25.240,2.920000000000002,2920,146,0.37164322,-0.14001612,-0.07423435,-0.02308756,0.30926248,-0.07358509,0.06017653,-0.053853802,-0.034419928,0.0,0.0,0.0,-0.07470659,0.5,0.0,0.0,-0.06891913,-0.1712931,-0.015274358,0.02427003,-0.4273236,0.30388927,-0.075525835,-0.16966142,0.067015864,-0.07345922,-0.07643812,-0.13702196,0.22185236,0.3917116,-0.23775062,0.059926916,-0.0059512844,-0.026617547,-0.06367704,0.005011659,-0.19819939,0.2111724,-0.054720838,-0.15517569,1.0,0.99971765,-1.0,1.0,0.39193627,1.0,-1.0,-1.0,-1.0,1.0,-1.0,-1.0,1.0,-1.0,-1.0,1.0,-0.3886525,1.0,-1.0,-1.0,1.0,-1.0,1.0,-1.0
2025-07-21 17:28:25.259,2.940000000000002,2940,147,0.12166664,-0.33557087,0.29257953,0.43237022,0.41909075,-0.009524573,0.0753262,-0.017284693,0.00086281454,0.0,0.0,0.0,-0.07463367,0.5,0.0,0.0,0.023159055,-0.09106507,-0.088329054,-0.0063519296,-0.44412053,0.32846645,-0.13021605,-0.21973412,0.08859275,-0.06575866,-0.052187447,-0.18142638,0.21783565,0.01758921,-0.10539736,-0.06813025,-0.10437139,0.013371042,-0.09587379,-0.13897993,0.16633098,-0.16366462,0.22477855,-0.14022698,1.0,-1.0,-1.0,1.0,-0.3886525,1.0,-1.0,-1.0,1.0,-1.0,1.0,-1.0,0.62638116,-1.0,-1.0,1.0,0.2051095,1.0,-1.0,1.0,-1.0,1.0,-0.46207723,-1.0
2025-07-21 17:28:25.279,2.960000000000002,2960,148,0.09541067,-0.16807836,0.4208002,-0.2613928,-0.1807387,0.017702222,0.10921135,-0.067300834,-0.018242247,0.0,0.0,0.0,-0.07511431,0.5,0.0,0.0,0.09218142,-0.12787819,-0.15103011,-0.013693221,-0.44581154,0.34027535,-0.18322936,-0.20310797,0.020846138,-0.008913912,-0.051580504,-0.23899905,0.16742864,-0.25856844,-0.13363414,0.10094364,0.0006870121,0.10874925,-0.1373358,0.09126698,-0.2533625,0.19845487,-0.08596707,-0.06920611,0.62638116,-1.0,-1.0,1.0,0.2051095,1.0,-1.0,1.0,-1.0,1.0,-0.46207723,-1.0,-0.12882884,1.0,1.0,-1.0,0.14316449,1.0,0.79021853,-0.79651856,0.11880088,-1.0,-0.327072,1.0
2025-07-21 17:28:25.299,2.980000000000002,2980,149,0.28475213,-0.110530324,0.45272923,0.42824456,-0.033268068,0.28042692,0.050691396,-0.11477453,0.0017372173,0.0,0.0,0.0,-0.07522902,0.5,0.0,0.0,0.060757667,-0.14154938,-0.077661514,-0.04326296,-0.41865715,0.3431834,-0.2034597,-0.1935271,0.012390756,-0.028396733,-0.099413075,-0.1422178,-0.13062602,0.081658445,0.20037442,-0.122849,0.119879335,0.09593265,0.11828019,-0.057605483,0.054775763,-0.23197481,-0.18337569,0.33107713,-0.12882884,1.0,1.0,-1.0,0.14316449,1.0,0.79021853,-0.79651856,0.11880088,-1.0,-0.327072,1.0,-0.9493717,0.48097736,-1.0,1.0,-1.0,1.0,-1.0,1.0,-0.0072100163,-1.0,-1.0,1.0
2025-07-21 17:28:25.317,3.000000000000002,3000,150,0.22475709,-0.12750648,0.29298493,0.28794667,-0.1587185,-0.016119717,0.06818422,-0.10638522,0.017140904,0.0,0.0,0.0,-0.078278564,0.5,0.0,0.0,-0.021422422,-0.04458005,-0.11503936,-0.06919239,-0.4246089,0.37812102,-0.22732723,-0.16840133,-0.013273728,-0.099140465,-0.20197502,-0.031542502,-0.15766263,0.3373595,-0.14002933,0.031122623,-0.041493982,-0.010875813,-0.040487036,0.113316655,-0.07538376,-0.14216247,-0.3160735,0.30361736,-0.9493717,0.48097736,-1.0,1.0,-1.0,1.0,-1.0,1.0,-0.0072100163,-1.0,-1.0,1.0,1.0,-1.0,-1.0,0.7879165,-1.0,1.0,-1.0,-1.0,1.0,-1.0,1.0,-1.0
2025-07-21 17:28:25.343,3.0200000000000022,3020,151,-0.10660117,-0.29684454,0.8079105,0.020380376,0.28153038,-0.27142486,0.07901294,-0.06868172,-0.00021965403,0.0,0.0,0.0,-0.08072305,0.5,0.0,0.0,-0.016037343,-0.006046054,-0.1814725,-0.055678215,-0.48058358,0.39005056,-0.25830856,-0.19409835,0.04032505,-0.1642416,-0.26315087,-0.077122904,0.23383501,-0.094717465,-0.10577164,0.027384823,-0.135148,0.08975553,0.009508283,-0.18087249,0.18274912,-0.18615039,-0.0004674166,-0.15416218,1.0,-1.0,-1.0,0.7879165,-1.0,1.0,-1.0,-1.0,1.0,-1.0,1.0,-1.0,1.0,-0.6652457,-0.74841905,-1.0,-0.035561286,1.0,-1.0,1.0,-1.0,1.0,1.0,0.91479206
2025-07-21 17:28:25.362,3.0400000000000023,3040,152,-0.10301116,-0.26988816,0.41451228,0.03459571,0.09544176,0.1814402,0.067091264,-0.103188775,-0.021171855,0.0,0.0,0.0,-0.07861327,0.5,0.0,0.0,0.066265,-0.08629378,-0.20103405,-0.07406097,-0.5094086,0.38371968,-0.31406814,-0.1728131,-0.019994453,-0.14973731,-0.2160684,-0.023049556,0.2356147,-0.3292263,-0.12844752,-0.1534642,-0.023741655,0.01366229,-0.09831662,0.14894408,-0.18977858,0.122915775,0.24029186,0.1906203,1.0,-0.6652457,-0.74841905,-1.0,-0.035561286,1.0,-1.0,1.0,-1.0,1.0,1.0,0.91479206,-1.0,1.0,1.0,1.0,1.0,1.0,1.0,0.58153665,-1.0,-1.0,-1.0,1.0
2025-07-21 17:28:25.381,3.0600000000000023,3060,153,0.17304832,-0.059862517,0.27967992,0.05368065,-0.5991309,0.10303231,0.13733396,-0.06781194,0.024351712,0.0,0.0,0.0,-0.0784136,0.5,0.0,0.0,0.06458268,-0.12935257,-0.11195889,-0.06673241,-0.47056985,0.40748695,-0.26750314,-0.040175747,-0.091654204,-0.16477752,-0.18934608,0.051884826,-0.20622185,0.010665376,0.22574422,0.049331225,0.11523438,-0.0535393,0.17643872,0.41177553,-0.23276548,-0.20520243,-0.09390982,0.22722659,-1.0,1.0,1.0,1.0,1.0,1.0,1.0,0.58153665,-1.0,-1.0,-1.0,1.0,-1.0,1.0,1.0,-1.0,1.0,-1.0,-1.0,1.0,-1.0,1.0,-1.0,1.0
2025-07-21 17:28:25.399,3.0800000000000023,3080,154,0.030088808,-0.24746531,0.08935433,0.0173902,-0.18276602,-0.023504607,0.038974706,-0.1186993,0.01898941,0.0,0.0,0.0,-0.079652764,0.5,0.0,0.0,-0.02053954,-0.06454948,-0.026444063,-0.10436935,-0.35690784,0.2919615,-0.2637833,0.11602864,-0.15412816,-0.1857339,-0.23998341,0.12709631,-0.24800536,0.2268908,0.22605227,-0.20660715,0.32346842,-0.29259235,-0.17819022,0.48038846,-0.112891555,0.10052142,-0.14618847,0.19643614,-1.0,1.0,1.0,-1.0,1.0,-1.0,-1.0,1.0,-1.0,1.0,-1.0,1.0,-1.0,-1.0,1.0,-0.84155375,1.0,-1.0,1.0,-1.0,-1.0,-1.0,-1.0,1.0
2025-07-21 17:28:25.420,3.1000000000000023,3100,155,-0.12346209,-0.19841695,-0.1577619,-0.15028606,0.06902547,-0.13866185,0.04167595,-0.19335397,-0.018337667,0.0,0.0,0.0,-0.079304405,0.5,0.0,0.0,-0.09820168,-0.029417027,0.056193974,-0.15456495,-0.21304543,0.1575421,-0.2395853,0.18787391,-0.22183645,-0.2170201,-0.30439514,0.18406107,-0.2166279,-0.083748795,0.1745197,-0.20675786,0.38120463,-0.32648078,0.29715517,-0.012678451,-0.06645559,-0.09027695,-0.27102268,0.07033252,-1.0,-1.0,1.0,-0.84155375,1.0,-1.0,1.0,-1.0,-1.0,-1.0,-1.0,1.0,-0.5587925,1.0,1.0,1.0,-0.9678955,1.0,1.0,-1.0,0.07427907,1.0,1.0,1.0
2025-07-21 17:28:25.440,3.1200000000000023,3120,156,-0.1795235,0.100008674,-0.5070452,-1.2504143,-0.33011597,0.086945534,0.043538913,-0.075650685,-0.042422604,0.0,0.0,0.0,-0.07770319,0.5,0.0,0.0,-0.14215285,-0.014031275,0.14129943,-0.12156788,-0.14788257,0.17499308,-0.116285905,0.14043503,-0.17850792,-0.17154537,-0.356155,0.23133053,-0.07462197,0.12559278,0.122631505,0.2629515,-0.0744639,0.21347578,0.342296,-0.2652863,0.03394411,0.17627814,-0.10093138,0.12674436,-0.5587925,1.0,1.0,1.0,-0.9678955,1.0,1.0,-1.0,0.07427907,1.0,1.0,1.0,1.0,0.15953577,1.0,-0.66789955,1.0,-1.0,-1.0,-1.0,1.0,1.0,1.0,1.0
2025-07-21 17:28:25.463,3.1400000000000023,3140,157,0.04451597,0.16460128,-0.67647034,-1.0282965,-0.08549053,0.06602059,-0.006215246,-0.08046619,-0.046974894,0.0,0.0,0.0,-0.07436357,0.5,0.0,0.0,-0.11202973,0.03079813,0.19511262,-0.089732334,-0.08421801,0.110822275,-0.08330864,0.0064935545,-0.073740534,-0.09898648,-0.3579812,0.26601273,0.121370226,0.12013939,0.027682673,-0.09716012,0.24301217,-0.24875543,-0.098925054,-0.33846086,0.27237818,0.13357289,0.023222553,0.04655917,1.0,0.15953577,1.0,-0.66789955,1.0,-1.0,-1.0,-1.0,1.0,1.0,1.0,1.0,-1.0,-1.0,1.0,0.6014666,-1.0,-1.0,0.15122822,0.6949707,1.0,0.84521925,-1.0,1.0
2025-07-21 17:28:25.483,3.1600000000000024,3160,158,-0.0432997,0.203349,-0.07016151,-0.7024677,-0.040136933,-0.101120204,-0.08914247,-0.042831995,0.027279537,0.0,0.0,0.0,-0.07248547,0.5,0.0,0.0,-0.026370073,0.015453841,0.22441928,-0.060585175,-0.06429889,-0.00064588507,-0.08692642,-0.08383326,0.009348552,-0.0134922005,-0.38412076,0.297024,0.19794036,-0.04627413,0.15159678,0.21687084,-0.036221992,-0.28070077,0.008864305,-0.10211502,0.22942416,0.11223779,-0.17986138,0.11834101,-1.0,-1.0,1.0,0.6014666,-1.0,-1.0,0.15122822,0.6949707,1.0,0.84521925,-1.0,1.0,-1.0,-1.0,1.0,0.64661723,1.0,-1.0,0.5832527,1.0,-1.0,1.0,1.0,1.0
2025-07-21 17:28:25.502,3.1800000000000024,3180,159,0.29108655,-0.050050333,0.11917135,-0.2579628,-0.19748564,0.12587911,-0.16267745,0.02518449,-0.033437703,0.0,0.0,0.0,-0.07047276,0.5,0.0,0.0,0.0072351727,-0.010331328,0.26180443,0.00046440624,-0.019114854,-0.07755415,-0.014725606,-0.058637843,-0.03616298,0.046224225,-0.38977966,0.3115695,0.03591567,-0.0030180619,0.16496933,0.11071869,0.14211933,-0.21808025,0.08912217,0.18228865,-0.27512112,0.1150692,-0.004514144,-0.03553632,-1.0,-1.0,1.0,0.64661723,1.0,-1.0,0.5832527,1.0,-1.0,1.0,1.0,1.0,1.0,-1.0,1.0,-1.0,-0.9316367,-0.33114284,1.0,1.0,-1.0,-1.0,-0.42503145,1.0
2025-07-21 17:28:25.520,3.2000000000000024,3200,160,-0.121291675,-0.121224865,-0.19335915,-0.14243044,-0.03667029,-0.010464882,-0.14908917,-0.006938194,-0.008590702,0.0,0.0,0.0,-0.07137296,0.5,0.0,0.0,0.050002247,-0.03289177,0.30565402,-0.018835025,-0.02742868,-0.09051939,0.055213418,0.05047491,-0.11816764,0.042630427,-0.40821338,0.33905676,0.047125943,0.019365877,0.015885485,-0.22045153,-0.12059499,0.026145937,0.26349893,0.27002022,-0.14125453,-0.1791984,-0.005410039,-0.0061707646,1.0,-1.0,1.0,-1.0,-0.9316367,-0.33114284,1.0,1.0,-1.0,-1.0,-0.42503145,1.0,-0.8666873,1.0,1.0,1.0,1.0,1.0,1.0,-1.0,-1.0,0.123819724,1.0,1.0
