openverse-orca/OrcaGym/log/simulation_log_20250604_182249.csv
timestamp,imu_angle_roll,imu_angle_pitch,imu_angle_yaw,imu_angular_velocity_roll,imu_angular_velocity_pitch,imu_angular_velocity_yaw,imu_acc_x,imu_acc_y,imu_acc_z,fl_joint1_pos,fl_joint1_vel,fl_joint1_torque,fl_joint2_pos,fl_joint2_vel,fl_joint2_torque,fl_joint3_pos,fl_joint3_vel,fl_joint3_torque,fr_joint1_pos,fr_joint1_vel,fr_joint1_torque,fr_joint2_pos,fr_joint2_vel,fr_joint2_torque,fr_joint3_pos,fr_joint3_vel,fr_joint3_torque,hl_joint1_pos,hl_joint1_vel,hl_joint1_torque,hl_joint2_pos,hl_joint2_vel,hl_joint2_torque,hl_joint3_pos,hl_joint3_vel,hl_joint3_torque,hr_joint1_pos,hr_joint1_vel,hr_joint1_torque,hr_joint2_pos,hr_joint2_vel,hr_joint2_torque,hr_joint3_pos,hr_joint3_vel,hr_joint3_torque,fl_force_x,fl_force_y,fl_force_z,fr_force_x,fr_force_y,fr_force_z,hl_force_x,hl_force_y,hl_force_z,hr_force_x,hr_force_y,hr_force_z,fl_hip_action,fl_thigh_action,fl_calf_action,fr_hip_action,fr_thigh_action,fr_calf_action,hl_hip_action,hl_thigh_action,hl_calf_action,hr_hip_action,hr_thigh_action,hr_calf_action
2025-06-04 18:22:49.945,0.035121176,0.031313725,-0.020303106,-0.00498364,0.008857784,0.023202362,1.1864157,0.5602731,0.0,0.0,0.00051454606,0.0011263397,0.0026493482,0.008428281,-0.00985819,-0.0031331242,0.009840133,0.006850866,0.005886496,0.003209971,-0.0053398362,0.0007003211,0.05916018,0.07010648,-0.07466666,-0.00016735926,-0.032829206,0.01804322,-0.06032373,-0.04546187,0.0605929,0.020122789,-0.03883929,-0.05075589,0.0,0.0,0.0,0.0,0.0,0.0,0.0,0.0,0.0,0.0,0.0,0.0,0.24306317,0.5566875,0.6700974,0.17724656,-0.01197066,0.36729363,-0.66922206,-0.75687695,-0.950955,0.97486705,0.14185357,-0.4925302
2025-06-04 18:22:49.950,-0.038140938,0.07544623,0.01277881,-0.018210536,-0.02514504,-0.024845585,0.0,0.0,0.0,0.0,-0.005324356,0.03880058,0.03400218,-0.0027144805,-0.0011989888,0.01941748,-0.001093138,-0.042993948,-0.044493027,0.015573063,0.009573838,-0.020188833,0.062389992,0.1620061,0.016499199,-0.06663477,-0.040267613,0.102901205,-0.05808434,-0.096454695,-0.033527784,0.053579256,-0.021897888,0.021668911,0.24306317,0.5566875,0.6700974,0.17724656,-0.01197066,0.36729363,-0.66922206,-0.75687695,-0.950955,0.97486705,0.14185357,-0.4925302,-0.29059348,0.4531194,-0.5466769,-0.6249047,0.40440655,-0.5457731,-0.8742755,-0.89680266,-0.9865678,0.86195654,-0.5591644,-0.09781245
2025-06-04 18:22:49.970,0.03901768,0.07305027,-0.008866801,-0.046165414,0.05379203,-0.0054656197,0.0,0.0,0.0,0.00013870603,-0.007406501,0.075009294,0.0031975044,-0.0028834413,0.017717859,-0.0077239326,-0.020471217,-0.11814515,-0.06713126,0.03297949,-0.031132663,-0.020446774,-0.05390912,0.10513272,-0.09108329,0.009757596,0.11829424,-0.00562973,-0.0023029996,-0.08371383,-0.16482116,0.010328576,-0.039235123,0.022492725,-0.29059348,0.4531194,-0.5466769,-0.6249047,0.40440655,-0.5457731,-0.8742755,-0.89680266,-0.9865678,0.86195654,-0.5591644,-0.09781245,-0.2902062,-0.23603605,0.26546144,-0.9401487,-0.07745501,-0.38658142,-0.6661169,-0.74701136,-0.95390195,0.9021902,-0.8557938,-0.42320684
2025-06-04 18:22:49.991,-0.0053460323,-0.02544401,0.047018915,-0.0072853,0.026724527,0.0401237,0.0,0.0,0.0,0.00033919004,-0.009684517,0.055870004,0.0036100817,-0.017675923,0.02146239,-0.0049972297,-0.02702873,-0.15818156,-0.06496901,0.027887901,-0.07633403,-0.029125469,-0.035395995,-0.07510981,0.032693215,-0.04404963,0.030232288,0.041451305,0.02101583,-0.1240268,-0.022411603,0.06643099,-0.07664332,0.022645975,-0.2902062,-0.23603605,0.26546144,-0.9401487,-0.07745501,-0.38658142,-0.6661169,-0.74701136,-0.95390195,0.9021902,-0.8557938,-0.42320684,-0.3375849,-0.13241732,0.8268225,-0.9635352,0.21007481,-0.57373416,0.512562,-0.7855136,-0.90475893,0.91753256,-0.7562926,0.1579532
2025-06-04 18:22:50.011,0.060184054,-0.05837781,-0.03157781,0.036208592,0.02971037,0.025750967,0.0,0.0,0.0,-6.0170885e-05,-0.0029341758,0.0263271,0.048263468,-0.012397163,0.008584949,0.0032585617,-0.042887524,-0.17969231,-0.054526255,0.04889127,-0.11434501,-0.011283202,0.04979887,0.013894336,0.07462682,0.03418656,-0.048099115,0.055406313,0.017483398,-0.069562785,0.0064329547,0.017377255,-0.07167921,0.08463634,-0.3375849,-0.13241732,0.8268225,-0.9635352,0.21007481,-0.57373416,0.512562,-0.7855136,-0.90475893,0.91753256,-0.7562926,0.1579532,-0.6422899,0.40057927,0.6227038,-0.779296,-0.5182992,-0.6261652,0.8653549,-0.8288541,-0.6196186,0.9836213,-0.60707796,0.13255817
2025-06-04 18:22:50.034,-0.120133325,0.06326296,0.0562029,0.038210213,-0.030209173,0.008276438,0.0,0.0,0.0,-0.00043369667,-0.00806297,0.025035355,0.079537645,-0.012674528,-0.01762859,0.041793026,-0.028401546,-0.21012712,-0.014580751,0.042106133,-0.14723592,0.032650955,-0.029415658,-0.06591669,0.13855599,-0.045659143,-0.08355677,-0.00013728105,-0.060597975,-0.064199604,0.063265316,0.030756934,-0.13577543,0.053969927,-0.6422899,0.40057927,0.6227038,-0.779296,-0.5182992,-0.6261652,0.8653549,-0.8288541,-0.6196186,0.9836213,-0.60707796,0.13255817,-0.6355206,0.29311913,0.47790998,-0.34321374,0.08751666,-0.50175285,0.9301354,-0.717255,-0.41691762,0.8553875,-0.38554528,0.5294186
2025-06-04 18:22:50.052,-0.0054865982,0.045138266,-0.075734176,-0.044954322,-0.017393561,0.02633409,0.0,0.0,0.0,-0.0008033893,-0.012098793,0.04358169,0.08887203,-0.01091249,-0.040047392,0.055636905,-0.036064632,-0.22723289,-0.010902222,0.045611225,-0.15710983,0.039519325,-0.000510005,0.10258428,0.062412508,-0.057757683,-0.0019543674,0.020286549,0.0042327074,-0.022674289,0.044561915,-0.045455724,-0.015240029,0.10955323,-0.6355206,0.29311913,0.47790998,-0.34321374,0.08751666,-0.50175285,0.9301354,-0.717255,-0.41691762,0.8553875,-0.38554528,0.5294186,-0.33156958,0.21457809,-0.5330762,-0.26722437,-0.5098594,-0.5283361,0.8956866,-0.74370515,0.44306767,0.96030426,-0.37406647,0.6759217
2025-06-04 18:22:50.071,-0.033670675,0.18744737,0.05087476,0.00672228,0.051168095,-0.041773807,0.0,0.0,0.0,-0.00058948883,-0.009282858,0.045556042,0.045057878,4.0322575e-05,-0.042618256,0.062825955,-0.02150502,-0.26479104,0.007781274,0.059006266,-0.16697282,0.07131995,-0.006527819,0.0074530463,-0.040015068,-0.032166805,-0.08107992,0.04918951,0.023544889,-0.13250418,-0.004016163,-0.050267998,0.025021873,0.04109552,-0.33156958,0.21457809,-0.5330762,-0.26722437,-0.5098594,-0.5283361,0.8956866,-0.74370515,0.44306767,0.96030426,-0.37406647,0.6759217,0.8815756,-0.021287672,-0.91256565,-0.67084855,-0.38300604,0.9018116,0.76617926,-0.803912,0.8582158,0.83400196,-0.6046333,0.30660707
2025-06-04 18:22:50.090,-0.13433194,0.17034183,-0.042651482,-0.017747028,0.0036745423,0.008085724,0.0,0.0,0.0,-0.00036243396,-0.006962496,0.046545975,0.037205376,-0.009373596,-0.0801379,0.09483295,-0.005146151,-0.2997747,0.04414357,0.08157429,-0.19368036,0.082501926,0.040298916,-0.037298713,-0.070869535,-0.006395391,-0.025346551,0.15747014,0.033186544,-0.03610738,0.15000015,0.091976024,-0.023124466,0.09055529,0.8815756,-0.021287672,-0.91256565,-0.67084855,-0.38300604,0.9018116,0.76617926,-0.803912,0.8582158,0.83400196,-0.6046333,0.30660707,0.99935436,0.22665638,-0.98537636,-0.8561584,-0.60446584,0.9987831,-0.3351708,-0.9115523,0.99690175,0.98030907,-0.84950083,-0.899755
2025-06-04 18:22:50.112,-0.11086233,0.12387641,0.06234832,-0.06059261,0.09040268,0.01822646,0.0,0.0,0.0,-0.0005545637,-0.0034318585,0.032287452,0.017918231,-0.018819673,-0.11465951,0.117632225,0.0002849041,-0.32306108,0.090882555,0.077228285,-0.21938755,0.09525691,0.0212073,-0.011175685,-8.617955e-05,-0.08319886,-0.101930715,0.06110719,0.027231162,-0.06744985,0.12800612,0.06107498,-0.1099999,0.09524291,0.99935436,0.22665638,-0.98537636,-0.8561584,-0.60446584,0.9987831,-0.3351708,-0.9115523,0.99690175,0.98030907,-0.84950083,-0.899755,0.38830158,0.6967249,-0.5083716,-0.7970199,-0.5197037,0.28942353,-0.869334,-0.9692233,0.356358,0.94909495,-0.4320796,-0.643944
2025-06-04 18:22:50.134,0.02681528,-0.080806434,-0.0141587835,0.008763113,0.0624589,-0.033802815,0.0,0.0,0.0,-0.00081539364,0.016336326,0.042955667,0.007900299,-0.033215296,-0.13489647,0.112869345,-0.010230621,-0.35160503,0.09091251,0.093674466,-0.2232451,0.09208275,-0.056141797,0.00022009923,0.035171565,-0.098166786,0.011868069,-0.089480296,0.0332258,-0.11638973,0.020005595,0.06153231,-0.060908426,-0.0068813534,0.38830158,0.6967249,-0.5083716,-0.7970199,-0.5197037,0.28942353,-0.869334,-0.9692233,0.356358,0.94909495,-0.4320796,-0.643944,0.062619455,0.5131201,-0.2884662,-0.892505,0.1989722,-0.7315933,-0.97273785,-0.9573276,-0.95245993,0.8737116,-0.8660002,-0.8322058
2025-06-04 18:22:50.151,0.1601526,-0.0042287325,0.025241813,0.010106633,0.086559534,-0.028436951,0.0,0.0,0.0,-0.00081343733,0.017490994,0.047288485,0.009455209,-0.03485116,-0.10668271,0.07883759,-0.023129944,-0.35146558,0.032388248,0.0930576,-0.2294464,0.07295143,-0.045455225,0.037917055,0.03538658,0.024787853,0.10073165,-0.05960185,0.015030163,-0.021576786,-0.12031507,0.07604154,-0.014446184,0.037384145,0.062619455,0.5131201,-0.2884662,-0.892505,0.1989722,-0.7315933,-0.97273785,-0.9573276,-0.95245993,0.8737116,-0.8660002,-0.8322058,-0.57708937,-0.52400684,0.5088488,-0.91388357,0.14691982,-0.7695574,-0.59196806,-0.87409234,-0.9708326,0.96012217,-0.90233,-0.6235974
2025-06-04 18:22:50.172,0.20633166,0.123865224,0.018479588,0.029942634,0.042384513,-0.04126918,0.0,0.0,0.0,-0.0012063895,0.008270522,0.026189191,0.034637425,-0.05403351,-0.1093623,0.042146545,-0.04660294,-0.3774485,-0.007848739,0.08996093,-0.2504502,0.061865997,0.043670736,-0.042206902,0.09224655,-0.014049487,0.068357244,-0.09213818,-0.103305005,0.0100297015,-0.10596008,-0.005142812,-0.02187442,-0.14833581,-0.57708937,-0.52400684,0.5088488,-0.91388357,0.14691982,-0.7695574,-0.59196806,-0.87409234,-0.9708326,0.96012217,-0.90233,-0.6235974,-0.29448324,-0.31155655,0.78510654,-0.9698577,0.35889503,-0.59947574,0.27381352,-0.79866374,-0.9276922,0.9702743,-0.8731679,0.09527555
2025-06-04 18:22:50.191,0.09202343,-0.064721845,0.017508663,0.040426757,0.05221433,-0.04836594,0.0,0.0,0.0,-0.0016225631,-0.0063206824,-0.0148391845,0.06311093,-0.04925736,-0.09691095,0.024422074,-0.049754325,-0.37769955,-0.026568277,0.09930353,-0.26413795,0.045072936,0.036774628,-0.06976379,-0.0026922591,-0.050742134,-0.035700157,-0.042412724,0.023968535,-0.036782816,-0.077232644,0.02075496,-0.106483534,0.049957156,-0.29448324,-0.31155655,0.78510654,-0.9698577,0.35889503,-0.59947574,0.27381352,-0.79866374,-0.9276922,0.9702743,-0.8731679,0.09527555,-0.20359808,0.2149553,0.54808414,-0.9350455,-0.1699153,-0.2170062,0.8061302,-0.86753875,-0.6885762,0.9878941,-0.76574504,-0.14068674
2025-06-04 18:22:50.212,0.024720035,-0.034768734,-0.032780558,0.031029448,0.0138871055,-0.026776511,0.0,0.0,0.0,-0.0014254735,-0.0033206092,-0.0015258293,0.07822397,-0.047793493,-0.07971338,0.034668542,-0.046007305,-0.38196984,-0.027951071,0.10020074,-0.28184938,0.02509683,0.0091612395,0.061165012,0.031119686,-0.046598185,0.010930621,0.051742814,0.08655189,-0.051124636,0.014279209,-0.0011065381,0.022594675,-0.023207445,-0.20359808,0.2149553,0.54808414,-0.9350455,-0.1699153,-0.2170062,0.8061302,-0.86753875,-0.6885762,0.9878941,-0.76574504,-0.14068674,-0.05440498,0.5789959,-0.20149757,-0.69049156,-0.42041516,0.20095716,0.8943425,-0.85236853,-0.22847816,0.9390693,-0.56034255,0.0627182
2025-06-04 18:22:50.234,-0.048513666,-0.09860946,-0.062393013,-0.012776116,0.07933415,0.037362672,0.0,0.0,0.0,-0.0004543864,-0.010875679,0.0402349,0.07076913,-0.05183095,-0.09967042,0.05710802,-0.032046605,-0.38132524,-0.01808399,0.085640885,-0.29207808,0.021928415,0.0010733149,0.07199623,0.017324062,0.056756638,-0.081720755,0.02976314,-0.0022667006,-0.083982565,0.07511222,-0.0474195,-0.029231066,-0.022548487,-0.05440498,0.5789959,-0.20149757,-0.69049156,-0.42041516,0.20095716,0.8943425,-0.85236853,-0.22847816,0.9390693,-0.56034255,0.0627182,0.77588665,0.32809055,-0.8947062,-0.4232647,-0.42705983,0.84697104,0.6884537,-0.86517596,0.65035164,0.8091268,-0.77267885,-0.23426762
2025-06-04 18:22:50.251,-0.084743395,-0.01800883,-0.035824757,0.030027287,-0.0004608648,-8.687216e-05,0.0,0.0,0.0,0.00077381305,0.004574122,0.05440988,0.06345198,-0.044968534,-0.11137108,0.07815196,-0.014750666,-0.40603837,0.007900888,0.108648784,-0.30936396,0.03198632,0.0039215246,0.034424562,-0.046224486,0.07955449,-0.09309274,0.06577201,-0.010941259,-0.12050599,0.011346739,-0.008061297,0.037611645,0.081046805,0.77588665,0.32809055,-0.8947062,-0.4232647,-0.42705983,0.84697104,0.6884537,-0.86517596,0.65035164,0.8091268,-0.77267885,-0.23426762,0.9863805,0.3431937,-0.97188365,-0.167429,-0.35369176,0.983481,-0.59547555,-0.9249495,0.9815698,0.9666267,-0.7907417,-0.73839253
2025-06-04 18:22:50.272,-0.13973767,0.017431207,0.02170381,-0.018645898,0.017495578,-0.015642978,0.0,0.0,0.0,0.0015565373,0.011660033,0.05779124,0.05842587,-0.038184434,-0.12695073,0.11376427,-0.018275358,-0.4211102,0.048400518,0.10914977,-0.3056482,0.02871753,-0.04625868,-0.049785305,0.035776667,0.064601034,0.000367775,0.108221516,-0.023429504,-0.0010384681,0.032919277,-0.019657865,-0.029165434,-0.05109371,0.9863805,0.3431937,-0.97188365,-0.167429,-0.35369176,0.983481,-0.59547555,-0.9249495,0.9815698,0.9666267,-0.7907417,-0.73839253,0.41650662,0.74529386,-0.7448947,-0.49900886,0.123047695,0.4727779,-0.97763515,-0.9647876,0.2257657,0.896296,-0.5799954,-0.73595184
2025-06-04 18:22:50.294,-0.044646595,0.04610129,0.0026848293,-0.035270855,0.00077487214,-0.030975856,0.0,0.0,0.0,0.0018649533,0.0036184664,0.079055436,0.045386456,-0.035412196,-0.12399197,0.12857373,-0.015926931,-0.4249332,0.059670016,0.119784586,-0.3058317,0.026513508,-0.06701132,0.10559822,-0.03791829,0.030333303,0.038992886,0.044131413,-0.085280776,0.018783024,-0.06222018,0.060864497,0.068023086,-0.008629866,0.41650662,0.74529386,-0.7448947,-0.49900886,0.123047695,0.4727779,-0.97763515,-0.9647876,0.2257657,0.896296,-0.5799954,-0.73595184,-0.12318774,0.4118313,-0.47646517,-0.7722698,0.2325296,-0.4990315,-0.96341616,-0.9618561,-0.9198418,0.8879879,-0.77043235,-0.57192326
2025-06-04 18:22:50.311,0.0885851,0.10836618,-0.0027106083,0.024806557,0.0828642,-0.029605342,0.0,0.0,0.0,0.002377529,0.009437357,0.088400185,0.038113464,-0.03935377,-0.080681145,0.10238005,-0.029229507,-0.4354559,0.010506407,0.11946096,-0.30871856,0.025672907,-0.018757328,0.042348314,-0.02889842,-0.08066501,0.05355697,-0.027564753,-0.07781916,-0.049625732,-0.061744608,-0.03413563,-0.06432676,0.036248967,-0.12318774,0.4118313,-0.47646517,-0.7722698,0.2325296,-0.4990315,-0.96341616,-0.9618561,-0.9198418,0.8879879,-0.77043235,-0.57192326,-0.36456934,-0.25614426,0.12289428,-0.9188017,0.09082145,-0.47393385,-0.50596786,-0.83855844,-0.94104946,0.9234536,-0.83040935,-0.26580477
2025-06-04 18:22:50.333,0.14206783,0.12584883,-0.0076533263,0.022441767,0.03775569,-0.027933098,0.0,0.0,0.0,0.0026760881,-0.006393553,0.060597077,0.04865112,-0.051288582,-0.07511015,0.0685824,-0.03604651,-0.42742693,-0.013153612,0.1108999,-0.3072117,0.028755585,-0.046995513,-0.07415112,-0.0025063949,-0.044101797,0.07922707,-0.0346827,-0.06621535,-0.03668359,-0.09870577,0.047390006,0.015017837,0.07329155,-0.36456934,-0.25614426,0.12289428,-0.9188017,0.09082145,-0.47393385,-0.50596786,-0.83855844,-0.94104946,0.9234536,-0.83040935,-0.26580477,0.20731683,-0.17451347,0.26218352,-0.9726561,0.051901724,-0.19295055,0.257815,-0.77832013,-0.80751157,0.94369996,-0.81425977,0.024292318
2025-06-04 18:22:50.352,-0.061085336,-0.013943051,-0.0042524477,0.0062872428,0.10658978,-0.033109024,0.0,0.0,0.0,0.003087245,-0.008801282,0.04574793,0.047186464,-0.054952774,-0.06695678,0.066700645,-0.040773332,-0.42771605,-0.026944626,0.11829076,-0.31177393,0.034957513,-0.0038520198,-0.012312713,0.00018262715,0.031237569,-0.010062946,0.019912917,0.051289212,-0.049568366,0.046701983,-0.06001605,-0.022985563,0.008887188,0.20731683,-0.17451347,0.26218352,-0.9726561,0.051901724,-0.19295055,0.257815,-0.77832013,-0.80751157,0.94369996,-0.81425977,0.024292318,0.5371071,0.3101779,-0.35922694,-0.93438756,-0.30591014,0.5458727,0.75393116,-0.8181789,-0.37316516,0.95613986,-0.63652945,-0.16707611
2025-06-04 18:22:50.372,-0.09388579,-0.06399287,-0.011589554,-0.005241291,0.014063577,-0.030941602,0.0,0.0,0.0,0.0034410756,0.016897239,0.04631034,0.049544778,-0.054252975,-0.06651265,0.06992932,-0.032839343,-0.4268657,-0.03420101,0.1283386,-0.3123349,0.037963104,-0.024550913,0.060503114,-0.048439074,0.031307824,-0.055298556,0.10135885,-0.039138485,-0.027595526,0.06444641,-0.008226179,0.033033036,0.02238299,0.5371071,0.3101779,-0.35922694,-0.93438756,-0.30591014,0.5458727,0.75393116,-0.8181789,-0.37316516,0.95613986,-0.63652945,-0.16707611,0.8852319,0.300235,-0.9018121,-0.55580115,-0.4618588,0.92969126,0.57719016,-0.91799384,0.7771888,0.9413347,-0.6920619,-0.38156176
2025-06-04 18:22:50.392,-0.13412042,0.018964615,0.001857044,-0.03774895,0.104344346,-0.039225668,0.0,0.0,0.0,0.0041237986,0.017543834,0.049882814,0.04275978,-0.045251235,-0.094845936,0.114546485,-0.01671144,-0.43190765,-0.010741138,0.13666414,-0.310416,0.048153713,0.09347788,0.030551745,-0.09560329,-0.052769423,-0.11975732,0.09978592,-0.029816767,0.013266818,0.1148925,-0.051214635,0.07292583,0.05234755,0.8852319,0.300235,-0.9018121,-0.55580115,-0.4618588,0.92969126,0.57719016,-0.91799384,0.7771888,0.9413347,-0.6920619,-0.38156176,0.97523624,0.5229248,-0.96222526,-0.48690915,-0.4479117,0.9793007,-0.6830697,-0.9624492,0.96002555,0.97899306,-0.7074021,-0.7219683
2025-06-04 18:22:50.414,-0.08001344,0.04154039,0.027928717,-0.034757596,0.085269384,-0.045807023,0.0,0.0,0.0,0.004419754,0.028745858,0.070281744,0.024020746,-0.04535791,-0.116238914,0.14095144,-0.013575547,-0.4337935,0.03170746,0.13457727,-0.30595315,0.056229673,0.027693955,0.012558672,0.009376502,0.015829744,-0.06574495,0.10492579,-0.0051232907,0.06102759,0.041610096,-0.02260435,-0.070524774,0.07322507,0.97523624,0.5229248,-0.96222526,-0.48690915,-0.4479117,0.9793007,-0.6830697,-0.9624492,0.96002555,0.97899306,-0.7074021,-0.7219683,0.5164981,0.7633416,-0.5288706,-0.7557881,0.11504763,0.05635545,-0.97993195,-0.97363734,-0.24866837,0.91961515,-0.6270114,-0.8321641
2025-06-04 18:22:50.433,0.03444566,-0.039312042,0.06356482,0.007883866,0.06733185,-0.018487612,0.0,0.0,0.0,0.0041767457,0.02465706,0.09370907,0.011220736,-0.065677896,-0.088503234,0.1263475,-0.032762863,-0.43528154,0.030225191,0.13295631,-0.29434195,0.050224442,0.028338803,-0.0172479,-0.009720559,-0.0243113,0.023196075,-0.109423645,-0.04172894,-0.001006391,-0.0145027,-0.051283218,-0.02913555,0.016792756,0.5164981,0.7633416,-0.5288706,-0.7557881,0.11504763,0.05635545,-0.97993195,-0.97363734,-0.24866837,0.91961515,-0.6270114,-0.8321641,-0.46325424,0.026375085,0.009520016,-0.91401786,0.2567868,-0.7767117,-0.8831347,-0.971196,-0.9683578,0.9685963,-0.7492868,-0.49404684
2025-06-04 18:22:50.452,0.26498654,0.12218597,0.0007579356,0.016375748,0.08793676,-0.036821466,0.0,0.0,0.0,0.0037405398,0.022039985,0.0828907,0.029430138,-0.068656124,-0.08024362,0.1023043,-0.052840248,-0.44631562,-0.013732171,0.13585526,-0.29212725,0.04332135,-0.05092195,0.0016801164,-0.046975113,-0.014335427,-0.0067352396,-0.05579963,0.041640136,0.036074776,-0.041577004,-0.03675843,0.05803346,-0.0019831597,-0.46325424,0.026375085,0.009520016,-0.91401786,0.2567868,-0.7767117,-0.8831347,-0.971196,-0.9683578,0.9685963,-0.7492868,-0.49404684,-0.14815946,-0.34816512,0.4584035,-0.9691852,0.2192751,-0.5683515,-0.2947272,-0.8061126,-0.92735076,0.96475846,-0.88828677,-0.021500394
2025-06-04 18:22:50.473,0.13858096,0.15118045,-0.006481377,0.036110662,0.054169595,-0.0006103585,0.0,0.0,0.0,0.003365972,-0.00013911247,0.062224776,0.04334383,-0.07257628,-0.055596065,0.061062366,-0.04449844,-0.44292954,-0.049646284,0.12448593,-0.32087293,0.056565877,-0.057622958,-0.030050224,0.13349146,0.036169026,0.015011681,-0.09534439,0.023284141,0.025361715,-0.12614691,-0.008734533,0.029218996,-0.0024822373,-0.14815946,-0.34816512,0.4584035,-0.9691852,0.2192751,-0.5683515,-0.2947272,-0.8061126,-0.92735076,0.96475846,-0.88828677,-0.021500394,0.3634163,-0.19739817,0.26830903,-0.9795363,0.008517235,-0.3229488,0.27390733,-0.7907138,-0.7128576,0.9725512,-0.86722624,-0.13570556
2025-06-04 18:22:50.493,-0.023767782,-0.037771378,0.04282559,0.0020738856,0.048593353,0.03686729,0.0,0.0,0.0,0.003050379,0.011304808,0.030949246,0.058951493,-0.08593225,-0.059801273,0.06173565,-0.049369738,-0.4586426,-0.061574616,0.1322006,-0.3245554,0.04660174,-0.030171413,-0.098346554,-0.05128914,0.027838923,0.026911717,0.0648084,0.031697266,-0.009093152,-0.00038628987,-0.052256092,-0.08704778,0.05638358,0.3634163,-0.19739817,0.26830903,-0.9795363,0.008517235,-0.3229488,0.27390733,-0.7907138,-0.7128576,0.9725512,-0.86722624,-0.13570556,0.38714582,0.28900418,-0.0992457,-0.9214895,-0.20123914,0.4398075,0.82261515,-0.8552563,-0.43309548,0.96370935,-0.6340289,-0.12008604
2025-06-04 18:22:50.514,-0.06673169,-0.107198164,-0.0052617183,-0.029279573,0.030812038,0.042958025,0.0,0.0,0.0,0.0024976344,0.03129794,0.043346815,0.061605006,-0.07402986,-0.04957096,0.07775593,-0.039600465,-0.45265502,-0.057883188,0.122147575,-0.31730425,0.059411,-0.044080444,-0.0654651,0.033980515,0.009627946,-0.0077677923,-0.013709038,-0.046757195,0.041943423,0.06503984,0.087833546,0.09144341,-0.029151013,0.38714582,0.28900418,-0.0992457,-0.9214895,-0.20123914,0.4398075,0.82261515,-0.8552563,-0.43309548,0.96370935,-0.6340289,-0.12008604,0.9251544,0.18744782,-0.9407811,-0.5993849,-0.5598581,0.9373384,0.49567735,-0.9357212,0.88078415,0.9585939,-0.7315539,-0.42414725
2025-06-04 18:22:50.536,-0.124570854,-0.018474357,-0.0048510307,-0.030874223,0.06264674,-0.040341083,0.0,0.0,0.0,0.0023044702,0.03560475,0.0352402,0.057548176,-0.076328754,-0.07595343,0.10801735,-0.039721627,-0.45883918,-0.006402882,0.13691814,-0.30871904,0.04152052,-0.011323132,-0.023892412,0.0042200657,-0.027700925,-0.05312765,0.0816857,0.061008014,-0.026004625,0.058732606,0.03235767,0.06822712,0.018807717,0.9251544,0.18744782,-0.9407811,-0.5993849,-0.5598581,0.9373384,0.49567735,-0.9357212,0.88078415,0.9585939,-0.7315539,-0.42414725,0.9685421,0.52936393,-0.96156585,-0.4808584,-0.4995384,0.9745476,-0.8054416,-0.9573757,0.97200245,0.97551,-0.69475627,-0.7297198
2025-06-04 18:22:50.556,-0.048038553,0.05803189,-0.0042416,-0.020537414,0.034073774,-2.1050817e-05,0.0,0.0,0.0,0.0019582782,0.04683608,0.04661609,0.04591145,-0.082052104,-0.11119191,0.14382578,-0.03332474,-0.45643765,0.026521785,0.14002107,-0.31413394,0.04349302,-0.051657986,-0.008821728,-0.021962414,0.06900579,-0.108102314,0.07609504,0.02437015,0.04491155,0.10879724,0.036092665,-0.017206708,0.026381876,0.9685421,0.52936393,-0.96156585,-0.4808584,-0.4995384,0.9745476,-0.8054416,-0.9573757,0.97200245,0.97551,-0.69475627,-0.7297198,0.38636294,0.7463956,-0.577127,-0.6804174,0.16811724,0.02353766,-0.98297805,-0.9729878,-0.39520258,0.8944687,-0.72357696,-0.84500766
2025-06-04 18:22:50.573,0.042258162,0.029679557,0.048010956,-0.032478303,0.0538754,-0.009464935,0.0,0.0,0.0,0.0013029136,0.049546868,0.07365605,0.025948443,-0.07060772,-0.08080586,0.10816598,-0.05381156,-0.45690823,0.016631542,0.13454874,-0.31028774,0.050848864,-0.010142159,0.004867335,-0.026682904,0.006108858,0.07809055,-0.10753558,-0.025744734,-0.04899633,-0.08507496,-0.01583438,0.04570585,0.045827314,0.38636294,0.7463956,-0.577127,-0.6804174,0.16811724,0.02353766,-0.98297805,-0.9729878,-0.39520258,0.8944687,-0.72357696,-0.84500766,-0.54137456,-0.0379672,-0.035358053,-0.85958415,0.2376561,-0.73207206,-0.86774945,-0.96093935,-0.9656268,0.95277977,-0.77766633,-0.40688822
2025-06-04 18:22:50.593,0.17598696,0.12080885,-0.04302341,-0.0440674,0.053915605,0.045388307,0.0,0.0,0.0,0.0006447811,0.029576588,0.072685435,0.032413278,-0.08658779,-0.050132573,0.077608556,-0.05711372,-0.45247427,-0.026442712,0.13561125,-0.3145294,0.038813893,0.02175962,-0.063008726,-0.031980567,-0.073530845,0.08768777,-0.1346767,-0.041880105,-0.06171781,-0.046243653,-0.06458443,0.023597315,0.041631754,-0.54137456,-0.0379672,-0.035358053,-0.85958415,0.2376561,-0.73207206,-0.86774945,-0.96093935,-0.9656268,0.95277977,-0.77766633,-0.40688822,-0.11719708,-0.29445738,0.40775338,-0.96526796,0.22005531,-0.5776418,-0.2619003,-0.78443086,-0.9026036,0.9415713,-0.89345586,-0.041245226
2025-06-04 18:22:50.616,0.048881363,0.05018975,-0.02118851,0.004865472,0.046878956,0.03240476,0.0,0.0,0.0,0.00032287708,0.025110925,0.04325965,0.051216718,-0.08709131,-0.04907719,0.05525406,-0.06479602,-0.4611311,-0.052134167,0.12428318,-0.31004164,0.04963815,0.038863197,-0.110333174,-0.0047408245,-0.055008322,0.06459508,-0.014763071,-0.07793763,-0.07128853,-0.021459838,0.018974766,-0.06315346,-0.023716709,-0.11719708,-0.29445738,0.40775338,-0.96526796,0.22005531,-0.5776418,-0.2619003,-0.78443086,-0.9026036,0.9415713,-0.89345586,-0.041245226,0.288543,0.0012884301,0.21632864,-0.9739132,-0.09016316,0.009745612,0.5098392,-0.79982626,-0.7481809,0.97153074,-0.7982094,-0.071237355
2025-06-04 18:22:50.633,-0.07666759,-0.02385891,-0.022545015,0.021879343,0.11863809,0.0034150814,0.0,0.0,0.0,0.00015149318,0.03803879,0.033975773,0.071263894,-0.08219649,-0.053718515,0.068869196,-0.06278381,-0.4492334,-0.05413112,0.1191164,-0.31950673,0.051274322,0.0693689,0.004244481,0.045418568,0.016508514,0.028603781,0.048607554,-0.04589784,0.06755625,0.044777278,-0.039579216,0.039001573,0.071722366,0.288543,0.0012884301,0.21632864,-0.9739132,-0.09016316,0.009745612,0.5098392,-0.79982626,-0.7481809,0.97153074,-0.7982094,-0.071237355,0.76215005,0.29887784,-0.62954235,-0.8731264,-0.37548015,0.74158907,0.77114654,-0.8471181,0.20194267,0.93834376,-0.67139435,-0.2697079
2025-06-04 18:22:50.653,-0.15665014,-0.005486682,-0.04500645,-0.049266987,0.02029957,-0.0044885087,0.0,0.0,0.0,2.0763335e-05,0.028754499,0.039397396,0.060292024,-0.08946122,-0.06121459,0.09631084,-0.044443242,-0.4510007,-0.053910095,0.1287518,-0.3290456,0.070868045,0.0556841,0.096055284,-0.06473314,-0.00397237,-0.0114302905,0.10873666,0.08982338,-0.02212262,0.02367215,-0.008919547,0.04274915,-0.01526076,0.76215005,0.29887784,-0.62954235,-0.8731264,-0.37548015,0.74158907,0.77114654,-0.8471181,0.20194267,0.93834376,-0.67139435,-0.2697079,0.9626322,0.31828547,-0.9515232,-0.5440308,-0.5560105,0.96532565,0.07556281,-0.9417603,0.914203,0.9554793,-0.7743783,-0.62464607
2025-06-04 18:22:50.673,-0.07856352,-0.010342733,0.0394415,-0.045446124,0.07708169,0.020693911,0.0,0.0,0.0,-5.926188e-05,0.047617465,0.059720114,0.05131655,-0.06937551,-0.09718829,0.11842753,-0.04178079,-0.46455505,-0.009116369,0.13497394,-0.3227335,0.06812335,-0.015278425,0.07684974,-0.07940436,0.068538226,-0.09136481,0.12034838,0.086922996,-0.011950214,0.039547153,0.07018339,-0.05093312,-0.008398427,0.9626322,0.31828547,-0.9515232,-0.5440308,-0.5560105,0.96532565,0.07556281,-0.9417603,0.914203,0.9554793,-0.7743783,-0.62464607,0.8294723,0.615608,-0.87625855,-0.3020848,-0.2874901,0.87300885,-0.87998784,-0.96048146,0.80124694,0.95589674,-0.61892253,-0.64779437
2025-06-04 18:22:50.695,-0.053272787,-0.04212013,0.022573099,-0.012715914,0.044302903,0.03361713,0.0,0.0,0.0,-0.00063855865,0.055711567,0.06925034,0.037668902,-0.06609956,-0.10904124,0.13319959,-0.047946364,-0.46168408,0.023564395,0.15152974,-0.31423306,0.06851393,0.012983591,-0.017359307,0.029231729,0.05236893,-0.06840359,0.08439679,0.002825904,0.05425436,0.12475928,0.06770922,-0.057578053,0.009317197,0.8294723,0.615608,-0.87625855,-0.3020848,-0.2874901,0.87300885,-0.87998784,-0.96048146,0.80124694,0.95589674,-0.61892253,-0.64779437,0.19025567,0.69201314,-0.658888,-0.5786232,0.2930286,-0.014503429,-0.98850834,-0.97074825,-0.4519349,0.91181254,-0.709031,-0.80867815
2025-06-04 18:22:50.717,0.01013338,-0.046646293,0.055257402,-0.06495391,0.1092334,0.035272878,0.0,0.0,0.0,-0.0012686995,0.049697734,0.085020535,0.030772703,-0.08310791,-0.07687081,0.12600379,-0.04469979,-0.4559211,0.00974853,0.13770105,-0.30953342,0.0474903,-0.033080876,0.08504733,-0.040383916,-0.068811946,0.14506055,-0.09312254,0.008867727,-0.045023236,-0.046938542,-0.01656227,0.050779056,0.04701182,0.19025567,0.69201314,-0.658888,-0.5786232,0.2930286,-0.014503429,-0.98850834,-0.97074825,-0.4519349,0.91181254,-0.709031,-0.80867815,-0.5326284,-0.071007036,-0.108706035,-0.8394197,0.21717568,-0.61972725,-0.8567807,-0.9601646,-0.96168625,0.9550796,-0.75912607,-0.36144313
2025-06-04 18:22:50.734,0.14070068,0.14042276,-0.0018386769,0.0192473,0.08349282,0.033790383,0.0,0.0,0.0,-0.0016915591,0.039934773,0.09185463,0.032515652,-0.072023466,-0.043945387,0.08820181,-0.053265713,-0.46519575,-0.024310105,0.13319175,-0.31310502,0.04782599,0.0310033,-0.02148785,0.03161218,0.049354102,0.11163909,-0.028788028,-0.016989244,0.07064285,-0.1108367,-0.081272066,0.030737285,-0.04293323,-0.5326284,-0.071007036,-0.108706035,-0.8394197,0.21717568,-0.61972725,-0.8567807,-0.9601646,-0.96168625,0.9550796,-0.75912607,-0.36144313,-0.11812684,-0.25117043,0.46645635,-0.9714539,0.37129965,-0.5776176,-0.2868327,-0.82052857,-0.92744464,0.94557285,-0.86046743,0.0139640225
2025-06-04 18:22:50.754,0.09247174,0.08005276,0.029844856,-0.052286662,0.1229085,0.0033503007,0.0,0.0,0.0,-0.0016603628,0.025951654,0.06368572,0.035517946,-0.08417714,-0.022079168,0.07221646,-0.061583403,-0.4554987,-0.052388776,0.11728453,-0.31487355,0.056884672,-0.0154172145,-0.09668897,0.0041622017,-0.08494057,-0.008676188,-0.043718435,-0.059993792,-0.032142747,-0.079052106,-0.016640805,-0.07862551,0.06629265,-0.11812684,-0.25117043,0.46645635,-0.9714539,0.37129965,-0.5776176,-0.2868327,-0.82052857,-0.92744464,0.94557285,-0.86046743,0.0139640225,0.25873402,-0.09762599,0.44972265,-0.9798678,0.076050386,-0.22928013,0.5461608,-0.83150774,-0.7457075,0.9765764,-0.82704407,-0.1209976
2025-06-04 18:22:50.775,-0.059361167,-0.07807908,-0.04630628,-0.052916117,0.030000202,-0.032665722,0.0,0.0,0.0,-0.0013498883,0.028689351,0.044332623,0.06471853,-0.081277266,-0.03350654,0.06441761,-0.057874843,-0.46101284,-0.06162558,0.12701859,-0.3154207,0.070449345,0.0058403052,0.027057873,-0.017757757,0.06918697,-0.0051007033,0.071633086,0.037392795,0.04035936,0.0243394,0.0069716284,0.03040894,0.03473808,0.25873402,-0.09762599,0.44972265,-0.9798678,0.076050386,-0.22928013,0.5461608,-0.83150774,-0.7457075,0.9765764,-0.82704407,-0.1209976,0.4394646,0.487596,-0.39014086,-0.8800729,-0.44899136,0.46153536,0.8050165,-0.84205747,-0.2833996,0.9594844,-0.6650637,-0.23879863
2025-06-04 18:22:50.794,-0.09380905,-0.049874786,-0.03811933,-0.004395698,0.030443648,-0.001385124,0.0,0.0,0.0,-0.0010884396,0.03581822,0.06350826,0.050457913,-0.07429754,-0.044199295,0.0814165,-0.04879543,-0.45591936,-0.05961553,0.14184853,-0.32125533,0.05729577,0.017869154,0.08627512,-0.051219665,0.01203934,0.0017119697,0.0968916,0.07719952,-0.007488669,-0.026470346,0.06658974,0.027250309,-0.04334516,0.4394646,0.487596,-0.39014086,-0.8800729,-0.44899136,0.46153536,0.8050165,-0.84205747,-0.2833996,0.9594844,-0.6650637,-0.23879863,0.83099085,0.28614616,-0.8952448,-0.37444955,-0.44855002,0.9021511,0.4455681,-0.90902525,0.6831776,0.89950216,-0.752866,-0.38529506
2025-06-04 18:22:50.817,-0.10087587,-0.03182958,0.014628003,0.024340672,0.07718957,-0.01011637,0.0,0.0,0.0,-0.0010889226,0.048772544,0.06929698,0.038276963,-0.07075152,-0.058815904,0.110601306,-0.032615144,-0.47290346,-0.03871442,0.14803052,-0.32401925,0.060921688,-0.031443097,-0.044724498,-0.07519784,-0.060567133,-0.02841284,0.019159297,0.022141676,-0.018291617,0.12650155,-0.019971197,0.0013553216,0.026039483,0.83099085,0.28614616,-0.8952448,-0.37444955,-0.44855002,0.9021511,0.4455681,-0.90902525,0.6831776,0.89950216,-0.752866,-0.38529506,0.9618303,0.49436173,-0.96938163,-0.18125516,-0.3192139,0.9759188,-0.8429716,-0.9523289,0.9713671,0.9788982,-0.6913718,-0.71928906
2025-06-04 18:22:50.834,-0.112116925,-0.028682621,-0.007557616,0.0021880546,0.028293915,0.047654334,0.0,0.0,0.0,-0.0017887477,0.059711736,0.06979701,0.03285714,-0.07058618,-0.07914315,0.13135436,-0.040266972,-0.47565192,0.022409493,0.14811192,-0.3136441,0.058444444,0.02006784,0.066513434,0.026866475,-0.014222303,-0.06657468,0.12661348,0.061515227,-0.05552152,0.08951046,-0.06292722,0.021606743,0.03452246,0.9618303,0.49436173,-0.96938163,-0.18125516,-0.3192139,0.9759188,-0.8429716,-0.9523289,0.9713671,0.9788982,-0.6913718,-0.71928906,0.31871316,0.75139225,-0.66330016,-0.54613507,0.29742962,0.07513773,-0.9851529,-0.97101426,-0.2710496,0.89155424,-0.66130507,-0.81355226
2025-06-04 18:22:50.855,0.0012987496,-0.015693242,0.028758744,-0.069453165,0.07246906,0.0015065455,0.0,0.0,0.0,-0.0027053566,0.046932325,0.10010242,0.03636965,-0.06638938,-0.04165583,0.13349259,-0.039829288,-0.4579585,0.008852055,0.1446279,-0.30244106,0.063249014,-0.0035194384,-0.0028688188,-0.029310687,-0.06252488,0.15140377,-0.11944861,-0.02216612,-0.026447784,0.00676286,0.0051441984,0.08572359,0.039303202,0.31871316,0.75139225,-0.66330016,-0.54613507,0.29742962,0.07513773,-0.9851529,-0.97101426,-0.2710496,0.89155424,-0.66130507,-0.81355226,-0.46125478,0.0822893,-0.2994169,-0.8307688,0.2176069,-0.638569,-0.93308526,-0.9679175,-0.95427203,0.9546922,-0.8013786,-0.49823716
2025-06-04 18:22:50.875,0.22228192,0.07443437,-0.024032503,-0.012281673,0.07188791,-0.022557927,0.0,0.0,0.0,-0.0032570418,0.03978742,0.1011333,0.022946892,-0.07979145,-0.017453516,0.09695062,-0.061336357,-0.4695876,-0.024461275,0.13675302,-0.31292078,0.05680223,-0.009779703,-0.0700862,-0.027873978,0.042352438,0.002748223,-0.09692782,-0.05699637,-0.030398415,-0.105089016,-0.0040807324,-0.020163381,-0.06603788,-0.46125478,0.0822893,-0.2994169,-0.8307688,0.2176069,-0.638569,-0.93308526,-0.9679175,-0.95427203,0.9546922,-0.8013786,-0.49823716,-0.28618187,-0.25913623,0.33374098,-0.9548327,0.26247758,-0.615824,-0.4698094,-0.8539528,-0.9427184,0.94318646,-0.8857146,-0.22817454
2025-06-04 18:22:50.894,0.07905126,0.04456046,-0.0022782555,0.005624825,0.11057485,-0.014963057,0.0,0.0,0.0,-0.0033037786,0.036256276,0.06290702,0.049894832,-0.09394109,-0.024240253,0.05728896,-0.06692834,-0.47504485,-0.06396268,0.11692166,-0.3127985,0.06435723,-0.07082783,-0.019399576,0.029087808,0.027766341,-0.02276277,-0.11394752,0.024954434,-0.0020708167,-0.09401582,-0.06815553,-0.025599688,-0.047422748,-0.28618187,-0.25913623,0.33374098,-0.9548327,0.26247758,-0.615824,-0.4698094,-0.8539528,-0.9427184,0.94318646,-0.8857146,-0.22817454,-0.027872017,-0.08707062,0.46149445,-0.96306217,0.16963515,-0.5180052,0.23889297,-0.77055407,-0.84416264,0.95836323,-0.8573564,-0.061312765
2025-06-04 18:22:50.917,0.044554193,-0.032754,0.04727359,-0.02692341,0.10562084,-0.00031231594,0.0,0.0,0.0,-0.003108231,0.03440284,0.06334656,0.06715016,-0.07950261,-0.0011423285,0.04887481,-0.059666477,-0.46321344,-0.06020741,0.1191087,-0.3283687,0.058145925,-0.04731562,-0.019697519,0.07739316,-0.04416878,0.006114921,-0.046453677,-0.042720545,0.057939976,-0.04110667,0.024987169,0.060554426,0.007528858,-0.027872017,-0.08707062,0.46149445,-0.96306217,0.16963515,-0.5180052,0.23889297,-0.77055407,-0.84416264,0.95836323,-0.8573564,-0.061312765,0.21622242,0.1332717,0.09157914,-0.9323544,0.008804053,0.079187915,0.7079617,-0.86935097,-0.5948838,0.9725345,-0.70270133,-0.1792583
2025-06-04 18:22:50.935,-0.021854164,-0.08144526,0.019814052,-0.010969974,0.10514899,-0.047245868,0.0,0.0,0.0,-0.0033460814,0.027359873,0.06255138,0.051107682,-0.089267,-0.019867945,0.055380117,-0.052480005,-0.45715523,-0.07224873,0.12595189,-0.3187793,0.049811512,-0.06998485,0.059809696,0.037555538,0.049492344,-0.0023676157,0.09413859,0.07278598,-0.06564867,0.019245876,-0.014793271,-0.00022235609,-0.013151479,0.21622242,0.1332717,0.09157914,-0.9323544,0.008804053,0.079187915,0.7079617,-0.86935097,-0.5948838,0.9725345,-0.70270133,-0.1792583,0.6754177,0.3594518,-0.6347145,-0.7970484,-0.3468791,0.7574683,0.861408,-0.90229416,0.33206356,0.93850434,-0.6327082,-0.075458854
2025-06-04 18:22:50.955,-0.09776854,-0.059767075,0.019704726,0.0055557583,0.027363796,0.015116254,0.0,0.0,0.0,-0.0032184767,0.035033055,0.05519684,0.055166427,-0.080566235,-0.027519578,0.09881733,-0.03745708,-0.47402498,-0.049397625,0.1272528,-0.32027102,0.053989083,0.008471248,0.014662404,-0.020049104,0.008911844,-0.08681904,0.096567266,0.08392705,0.019797666,0.090593636,0.019374961,-0.037397183,0.025249582,0.6754177,0.3594518,-0.6347145,-0.7970484,-0.3468791,0.7574683,0.861408,-0.90229416,0.33206356,0.93850434,-0.6327082,-0.075458854,0.98023474,0.27909464,-0.97231054,-0.4410011,-0.5675627,0.97265035,-0.11700508,-0.9452204,0.98187375,0.9837693,-0.7277291,-0.60775363
2025-06-04 18:22:50.975,-0.06555241,0.04624408,0.033775613,-0.04296333,0.08251421,0.04281054,0.0,0.0,0.0,-0.003234371,0.051648833,0.07578331,0.046820495,-0.08399732,-0.065180026,0.11780067,-0.030391322,-0.48152187,-0.013278473,0.13827412,-0.30990842,0.057221446,0.009550928,-0.0058878167,-0.052347496,0.014235999,-0.12993823,0.06519131,0.07991019,-0.021568725,0.12743236,-0.0020909666,-0.008744332,0.042930044,0.98023474,0.27909464,-0.97231054,-0.4410011,-0.5675627,0.97265035,-0.11700508,-0.9452204,0.98187375,0.9837693,-0.7277291,-0.60775363,0.7695545,0.6631149,-0.88103867,-0.35369608,-0.23760077,0.8482165,-0.9334022,-0.96659255,0.8188051,0.9634526,-0.57549083,-0.66180694
2025-06-04 18:22:50.996,-0.05033073,0.027974216,0.012725318,-0.049093492,0.0757879,-0.030590268,0.0,0.0,0.0,-0.0037366059,0.04506892,0.08485937,0.031199403,-0.07688419,-0.067509316,0.14615773,-0.037683815,-0.47060817,0.025445314,0.1501724,-0.3151511,0.05923847,-0.006023218,0.025871735,-0.033347927,0.048861213,-0.073953696,0.040986214,-0.034075573,0.030276855,0.042928312,0.060771946,-0.012654999,-0.024650734,0.7695545,0.6631149,-0.88103867,-0.35369608,-0.23760077,0.8482165,-0.9334022,-0.96659255,0.8188051,0.9634526,-0.57549083,-0.66180694,0.06506783,0.6784487,-0.6398738,-0.6699126,0.32119232,-0.30383515,-0.99042994,-0.97028923,-0.63110435,0.93206775,-0.67505074,-0.7984644
2025-06-04 18:22:51.016,0.022815295,-0.011964535,0.025291573,0.0154602835,0.03388645,0.04165709,0.0,0.0,0.0,-0.0040265126,0.03661795,0.08676552,0.029000314,-0.06300774,-0.030959291,0.109873995,-0.04186341,-0.47559994,0.011781759,0.13307652,-0.3035033,0.049746785,-0.04007028,0.04480459,-0.05363645,-0.026468076,0.14050321,-0.13919128,0.028253986,0.06958576,-0.12880124,-0.056799132,0.05886588,-0.0019901337,0.06506783,0.6784487,-0.6398738,-0.6699126,0.32119232,-0.30383515,-0.99042994,-0.97028923,-0.63110435,0.93206775,-0.67505074,-0.7984644,-0.6035601,-0.22921619,0.043939516,-0.87286544,0.22466454,-0.7368852,-0.8122705,-0.94649255,-0.97145575,0.95185727,-0.8295662,-0.4262586
2025-06-04 18:22:51.035,0.17887938,0.13649188,0.0055302517,-0.010631938,0.058761932,-0.04354279,0.0,0.0,0.0,-0.004095377,0.034591556,0.07824844,0.026863873,-0.06987677,-0.017903218,0.07198123,-0.058295634,-0.46447155,-0.044068113,0.13110933,-0.30624285,0.05508092,0.011396268,-0.035784364,0.09864706,-0.046660118,0.02313187,-0.11088213,-0.05557585,0.021666853,-0.05626576,-0.03250187,0.04521129,0.050644875,-0.6035601,-0.22921619,0.043939516,-0.87286544,0.22466454,-0.7368852,-0.8122705,-0.94649255,-0.97145575,0.95185727,-0.8295662,-0.4262586,-0.16257092,-0.39241043,0.61613274,-0.9764554,0.4250633,-0.65555716,-0.0928013,-0.83239925,-0.9125021,0.9564899,-0.8957059,-0.0052790656
2025-06-04 18:22:51.056,0.08152618,-0.017542554,-0.042589314,-0.0053742765,0.06375009,-0.0439152,0.0,0.0,0.0,-0.0039807977,0.018083425,0.037408605,0.049433935,-0.082523294,-0.014315277,0.04668819,-0.072981566,-0.47888103,-0.05409124,0.12652875,-0.31534967,0.05225625,-0.008971225,-0.10191357,0.115543514,0.03227636,0.013818325,-0.07646333,0.041106317,-0.03093718,-0.1016088,-0.081160635,-0.027504817,-0.012312387,-0.16257092,-0.39241043,0.61613274,-0.9764554,0.4250633,-0.65555716,-0.0928013,-0.83239925,-0.9125021,0.9564899,-0.8957059,-0.0052790656,0.18828014,-0.04185514,0.25674945,-0.9690062,-0.11707646,-0.4002991,0.5122462,-0.8156838,-0.6318699,0.9819938,-0.8668479,-0.18427719
2025-06-04 18:22:51.075,-0.06403627,-0.0109362975,0.057076514,-0.048228946,0.04206007,-0.04018305,0.0,0.0,0.0,-0.0038131825,0.028185358,0.03281632,0.059510317,-0.077803105,-0.008789071,0.04286187,-0.0710774,-0.47880855,-0.05179485,0.13746168,-0.3219587,0.051880285,-0.04130635,-0.09281523,-0.04222896,0.0460084,-0.06915806,0.07794763,0.07735935,-0.056054834,0.014417657,-0.022049323,0.026385041,0.01726924,0.18828014,-0.04185514,0.25674945,-0.9690062,-0.11707646,-0.4002991,0.5122462,-0.8156838,-0.6318699,0.9819938,-0.8668479,-0.18427719,0.11415419,0.37582377,0.015267858,-0.8639063,-0.036685772,0.38977975,0.883976,-0.859434,-0.46910387,0.9505106,-0.5598093,0.09655948
2025-06-04 18:22:51.096,-0.10302628,-0.13921754,0.029297682,-0.016632918,0.025229663,0.03167592,0.0,0.0,0.0,-0.004229129,0.029408438,0.04736907,0.056320198,-0.07009489,-0.007201507,0.069375336,-0.060837217,-0.4692964,-0.06358991,0.13637063,-0.31307167,0.06096478,0.01905879,0.010063474,-0.015306035,-0.03335619,-0.015135312,0.12683104,0.051997468,0.03700092,-0.03256765,-0.046586145,0.020107692,-0.04373947,0.11415419,0.37582377,0.015267858,-0.8639063,-0.036685772,0.38977975,0.883976,-0.859434,-0.46910387,0.9505106,-0.5598093,0.09655948,0.85232747,0.33594728,-0.86455834,-0.6153176,-0.3566185,0.87628543,0.7740243,-0.9216534,0.80562675,0.9489508,-0.5627353,-0.16812837
2025-06-04 18:22:51.116,-0.14157589,-0.004123223,0.019401696,-0.015842311,0.034193452,0.029789694,0.0,0.0,0.0,-0.004201074,0.024530604,0.058768854,0.0641719,-0.0796161,-0.027952049,0.10743546,-0.04580714,-0.46533582,-0.03405274,0.15104173,-0.3100814,0.065873764,-0.008238098,0.094693676,0.057094358,0.049420208,0.016426383,0.12620685,0.03430074,-0.07551403,0.029021503,0.069552496,0.026543228,-0.023080446,0.85232747,0.33594728,-0.86455834,-0.6153176,-0.3566185,0.87628543,0.7740243,-0.9216534,0.80562675,0.9489508,-0.5627353,-0.16812837,0.98419327,0.24356323,-0.9838857,-0.16019128,-0.42788768,0.9816667,-0.7481917,-0.93956554,0.9921642,0.99012876,-0.65397835,-0.6870508
2025-06-04 18:22:51.136,-0.04311708,0.09024819,0.028930012,-0.023656642,0.09951204,-0.013031057,0.0,0.0,0.0,-0.0042488165,0.037890784,0.051079057,0.05031977,-0.07189087,-0.04545006,0.136627,-0.049343407,-0.47983298,0.017398182,0.15947023,-0.3154846,0.06579667,0.056153886,0.060709625,0.013113032,0.015737848,-0.05629378,0.10307262,-0.06797967,0.013770123,0.07313113,0.04376583,0.02149247,0.042025592,0.98419327,0.24356323,-0.9838857,-0.16019128,-0.42788768,0.9816667,-0.7481917,-0.93956554,0.9921642,0.99012876,-0.65397835,-0.6870508,0.27500942,0.7267318,-0.7451352,-0.58312917,0.14870629,0.25042725,-0.98742515,-0.9641234,0.1851185,0.9538393,-0.42617318,-0.72675073
2025-06-04 18:22:51.156,-0.02078494,-0.05771254,0.0091052,0.011269394,0.023109369,0.044684064,0.0,0.0,0.0,-0.004349624,0.043852013,0.06318283,0.045127,-0.07245369,-0.033849966,0.120788984,-0.047870774,-0.47361994,0.041065224,0.15865758,-0.30159068,0.059052743,-0.019348191,0.006572269,-0.036562372,-0.071022846,0.010252828,-0.067135304,-0.042941716,0.063792,-0.052056067,0.031205464,0.088520564,0.047589768,0.27500942,0.7267318,-0.7451352,-0.58312917,0.14870629,0.25042725,-0.98742515,-0.9641234,0.1851185,0.9538393,-0.42617318,-0.72675073,-0.4699825,0.2016605,-0.45469636,-0.8134179,0.14401844,-0.7024442,-0.9637166,-0.971647,-0.90424156,0.9559044,-0.7653273,-0.5863712
2025-06-04 18:22:51.176,0.11950926,0.10301978,-0.044488784,0.03400801,0.068481475,0.04799367,0.0,0.0,0.0,-0.0036632014,0.020498632,0.08764477,0.019800687,-0.066611715,-0.016817166,0.08270188,-0.06335677,-0.47394088,-0.016011687,0.14418419,-0.28757283,0.040512588,-0.06924683,-0.03266515,0.036147837,-0.08604788,0.055250514,-0.12996987,-0.09531861,0.032962043,-0.06329149,-0.090413205,-0.020198764,-0.045710545,-0.4699825,0.2016605,-0.45469636,-0.8134179,0.14401844,-0.7024442,-0.9637166,-0.971647,-0.90424156,0.9559044,-0.7653273,-0.5863712,-0.43556696,-0.34560704,0.24662018,-0.9290106,0.27062944,-0.6786577,-0.5430664,-0.8351533,-0.9274512,0.91210604,-0.9027647,-0.24697049
2025-06-04 18:22:51.199,0.09781418,0.089383505,-0.040921953,0.016649665,0.103886485,-0.04143911,0.0,0.0,0.0,-0.0029252723,0.006395786,0.04881931,0.04520274,-0.08354946,-0.007974738,0.057607614,-0.06606758,-0.4632922,-0.045735717,0.14133961,-0.30721363,0.05638121,-0.09015531,-0.118124284,0.0747454,0.046699613,0.07945905,-0.09721002,-0.07579753,-0.008128804,-0.026619889,0.029936008,-0.071805045,-0.028931154,-0.43556696,-0.34560704,0.24662018,-0.9290106,0.27062944,-0.6786577,-0.5430664,-0.8351533,-0.9274512,0.91210604,-0.9027647,-0.24697049,0.16013359,-0.32071033,0.41663185,-0.98060703,0.14071287,-0.51175267,0.120982215,-0.7782439,-0.79983646,0.9610573,-0.92108995,-0.14607367
2025-06-04 18:22:51.216,0.021625204,-0.030249808,-0.015114153,0.028644701,0.105052575,0.011187587,0.0,0.0,0.0,-0.0025463772,0.022528676,0.031516902,0.065699,-0.0756169,-0.009029678,0.057605132,-0.064866886,-0.4681938,-0.044875022,0.14069644,-0.30768177,0.045396857,0.050002024,-0.10458964,0.091021515,0.029276028,-0.060531173,0.039072514,0.049397986,0.07544235,-0.064397775,-0.05548782,-0.08253725,0.045049354,0.16013359,-0.32071033,0.41663185,-0.98060703,0.14071287,-0.51175267,0.120982215,-0.7782439,-0.79983646,0.9610573,-0.92108995,-0.14607367,0.2971276,0.101860516,-0.097916365,-0.93322766,-0.21500628,-0.09659263,0.7083507,-0.8057649,-0.4510903,0.9667491,-0.8064313,-0.31228533
2025-06-04 18:22:51.236,-0.021693602,-0.04933358,0.064201824,0.014742024,0.07527452,0.0073773805,0.0,0.0,0.0,-0.002887074,0.02323751,0.016486488,0.0568822,-0.08200006,-0.012416053,0.05409925,-0.05608757,-0.4598842,-0.046523843,0.14714162,-0.32506928,0.0480703,0.029745577,0.03412685,-0.02220329,-0.0034581497,-0.08712501,0.029839229,0.03267878,0.066705525,-0.04464265,0.03335049,-0.039247572,-0.06421044,0.2971276,0.101860516,-0.097916365,-0.93322766,-0.21500628,-0.09659263,0.7083507,-0.8057649,-0.4510903,0.9667491,-0.8064313,-0.31228533,0.5223723,0.16690895,-0.5059656,-0.740605,-0.36003894,0.70364,0.83366627,-0.8964603,0.3101226,0.9598879,-0.5872397,0.0068287626
2025-06-04 18:22:51.256,-0.11913472,-0.04117965,0.013955927,0.020935565,0.083960325,0.019246627,0.0,0.0,0.0,-0.003470797,0.034294207,0.019801324,0.044961084,-0.061800774,-0.025998712,0.0882675,-0.044179212,-0.46964684,-0.030597763,0.14198779,-0.32024556,0.058861904,-0.037824675,0.044630527,-0.07199377,-0.024937259,-0.08321099,0.10203526,0.029048475,-0.036685284,0.09278698,-0.04115138,0.06089565,-0.055348888,0.5223723,0.16690895,-0.5059656,-0.740605,-0.36003894,0.70364,0.83366627,-0.8964603,0.3101226,0.9598879,-0.5872397,0.0068287626,0.96920806,0.33812407,-0.9699629,-0.5511391,-0.52554786,0.9675901,0.14526062,-0.9483025,0.96786517,0.97812235,-0.6547848,-0.4892954
2025-06-04 18:22:51.276,-0.15647735,0.037586045,0.018375216,-0.06833183,0.028856825,0.02614677,0.0,0.0,0.0,-0.0038276187,0.044935085,0.04190681,0.031216796,-0.0762001,-0.051435735,0.1177829,-0.041334003,-0.48203072,0.008825625,0.15244548,-0.3169827,0.042561058,0.08635239,-0.0046134624,0.05565487,0.01803855,-0.08002364,0.023266306,0.03684624,0.019705327,0.10239367,0.034168348,0.034031663,0.04085861,0.96920806,0.33812407,-0.9699629,-0.5511391,-0.52554786,0.9675901,0.14526062,-0.9483025,0.96786517,0.97812235,-0.6547848,-0.4892954,0.8626109,0.55528456,-0.92292017,-0.27753597,-0.33193815,0.8941527,-0.9394134,-0.95917124,0.9391355,0.97795594,-0.5416361,-0.6662901
2025-06-04 18:22:51.299,-0.10951143,-0.0054911715,-0.024607882,-0.062471475,0.040941082,0.040318843,0.0,0.0,0.0,-0.0043944074,0.05184192,0.034679066,0.027156854,-0.06821917,-0.071480274,0.1315453,-0.03851432,-0.472907,0.05597274,0.14741302,-0.30946514,0.045809213,0.021704013,0.0154826,-0.05662017,0.03376799,0.008302123,0.11457247,0.05182618,-0.018969921,0.07313884,-0.033278372,0.06862959,-0.057801157,0.8626109,0.55528456,-0.92292017,-0.27753597,-0.33193815,0.8941527,-0.9394134,-0.95917124,0.9391355,0.97795594,-0.5416361,-0.6662901,0.17716645,0.7331687,-0.6874367,-0.64176345,0.35128278,-0.16706824,-0.989151,-0.968581,-0.6316685,0.9131039,-0.6728231,-0.80306643
2025-06-04 18:22:51.317,-0.02003034,-0.029669497,-0.020940762,-0.05279409,0.10577988,-0.039715715,0.0,0.0,0.0,-0.0048015593,0.039165135,0.05963338,0.014841088,-0.073243804,-0.034213055,0.11438735,-0.044933535,-0.47309458,0.029624883,0.14771302,-0.30081624,0.049136855,-0.048092797,0.021890232,0.0229069,0.0025267948,0.088425,-0.12769973,-0.084377214,0.028242826,-0.04885519,0.048449658,0.0030475883,-0.033771884,0.17716645,0.7331687,-0.6874367,-0.64176345,0.35128278,-0.16706824,-0.989151,-0.968581,-0.6316685,0.9131039,-0.6728231,-0.80306643,-0.57088184,-0.11609538,-0.15322906,-0.8425542,0.09465002,-0.7334502,-0.9078054,-0.94597644,-0.9688354,0.9414037,-0.8900054,-0.6177182
2025-06-04 18:22:51.336,0.16416891,0.12953454,0.06368403,0.025701236,0.10935087,-0.013683814,0.0,0.0,0.0,-0.0051137246,0.03666251,0.046884906,0.016577719,-0.073541254,-0.019544486,0.07688003,-0.052080445,-0.4576211,-0.030373544,0.13906407,-0.30645207,0.040723562,0.017974908,-0.0839753,-0.04804669,0.04006811,-0.032445345,-0.13533087,-0.09046927,-0.022264639,-0.055531416,-0.040370256,-0.07913957,0.046429016,-0.57088184,-0.11609538,-0.15322906,-0.8425542,0.09465002,-0.7334502,-0.9078054,-0.94597644,-0.9688354,0.9414037,-0.8900054,-0.6177182,-0.518467,-0.39287135,0.803365,-0.9765606,0.5135866,-0.7261632,0.17034088,-0.91699404,-0.9595972,0.9689635,-0.8467154,-0.046679277
2025-06-04 18:22:51.357,0.12210364,0.019491332,0.03251811,0.02167785,0.08885609,0.04733412,0.0,0.0,0.0,-0.005634921,0.020035416,0.022634326,0.047515318,-0.07957441,-0.011821348,0.060636222,-0.063970655,-0.46938652,-0.057544466,0.13360871,-0.31088427,0.040606324,-0.012023366,-0.023838924,0.112014584,0.0389061,0.009377076,-0.06547011,0.024779707,-0.03987536,-0.10511055,-0.03679076,-0.05877353,0.07901503,-0.518467,-0.39287135,0.803365,-0.9765606,0.5135866,-0.7261632,0.17034088,-0.91699404,-0.9595972,0.9689635,-0.8467154,-0.046679277,-0.40564156,0.13440223,0.7807067,-0.9604071,0.18531707,-0.5997459,0.8037516,-0.9225031,-0.7524091,0.98689884,-0.8498836,0.011392915
2025-06-04 18:22:51.376,0.022840353,0.030829221,-0.05574818,-0.011707679,0.034649648,0.04443115,0.0,0.0,0.0,-0.005617971,0.010633302,0.015752448,0.066659324,-0.08340652,0.010411748,0.054072283,-0.052855175,-0.46191633,-0.06681695,0.12662968,-0.33440617,0.052511547,-0.014462845,-0.0060375556,0.034857508,0.021594256,0.02603927,-0.06550795,0.060881995,-0.06402791,-0.03281134,-0.014374207,0.053860605,-0.044206362,-0.40564156,0.13440223,0.7807067,-0.9604071,0.18531707,-0.5997459,0.8037516,-0.9225031,-0.7524091,0.98689884,-0.8498836,0.011392915,-0.40863132,0.51148796,0.19885775,-0.75971425,-0.28355375,-0.38284263,0.888934,-0.89257526,-0.4192052,0.97000515,-0.68351054,0.023589877
2025-06-04 18:22:51.435,-0.067547984,-0.019256292,0.012589319,-0.0479353,0.093158744,0.024566552,0.0,0.0,0.0,-0.005417617,0.009438094,0.06279946,0.06468504,-0.0774638,0.005525915,0.051446617,-0.060452357,-0.47957247,-0.062336974,0.12905394,-0.32724658,0.053637452,-0.008283103,0.020609453,-0.053833205,0.0023075242,-0.0819897,0.09086508,0.083178826,-0.04830598,0.04888875,0.052106477,0.006757912,0.034987777,-0.40863132,0.51148796,0.19885775,-0.75971425,-0.28355375,-0.38284263,0.888934,-0.89257526,-0.4192052,0.97000515,-0.68351054,0.023589877,0.033828683,0.5411284,-0.2820552,-0.64753354,-0.15385097,0.37150195,0.8902177,-0.85458267,-0.084249124,0.85723215,-0.55305445,0.3257461
2025-06-04 18:22:51.456,-0.031091861,-0.18475047,-0.0357919,-0.044024244,0.10806357,-0.023692986,0.0,0.0,0.0,-0.005527773,-0.0014665279,0.08452675,0.05833059,-0.06657422,-0.008347568,0.075528614,-0.04243415,-0.4730336,-0.04224437,0.1438247,-0.33128047,0.049071692,0.052747387,0.03660172,-0.11908537,-0.045623034,0.048728485,0.11544069,0.01534047,-0.022423496,0.0643067,0.057888027,0.0018854633,0.013172744,0.033828683,0.5411284,-0.2820552,-0.64753354,-0.15385097,0.37150195,0.8902177,-0.85458267,-0.084249124,0.85723215,-0.55305445,0.3257461,0.9446403,0.36573416,-0.95309347,-0.5435654,-0.40775988,0.9501936,0.43501076,-0.92227626,0.87388414,0.9504994,-0.707592,-0.46982554
2025-06-04 18:22:51.476,-0.096429944,-0.06132019,0.017897643,-0.028523277,0.08587443,0.03185745,0.0,0.0,0.0,-0.0056131855,0.013151722,0.10650585,0.037279256,-0.069330245,-0.022982962,0.11139669,-0.029351603,-0.49529746,-0.012692429,0.1450158,-0.3198023,0.05950347,-0.03264733,-0.022634404,0.024082314,0.049393203,-0.102952026,0.12759067,-0.028445866,-0.04439443,0.09484018,0.020393202,0.02094226,-0.01283253,0.9446403,0.36573416,-0.95309347,-0.5435654,-0.40775988,0.9501936,0.43501076,-0.92227626,0.87388414,0.9504994,-0.707592,-0.46982554,0.93428373,0.48413703,-0.9669671,-0.12576564,-0.4027941,0.9575816,-0.8631092,-0.96060437,0.9764323,0.9848595,-0.61882246,-0.64417076
2025-06-04 18:22:51.501,-0.017004643,-0.030024556,0.05179308,0.014609086,0.08328373,-0.002326883,0.0,0.0,0.0,-0.006324246,0.021535734,0.109222256,0.037266918,-0.05119467,-0.04952204,0.15330863,-0.043338463,-0.49466467,0.035621677,0.14240502,-0.31727365,0.07047941,0.033916745,0.012005303,-0.07832959,0.008696676,-0.06687869,0.11327772,-0.06643093,-0.02937539,0.079411864,-0.045098234,0.038869258,-0.012473712,0.93428373,0.48413703,-0.9669671,-0.12576564,-0.4027941,0.9575816,-0.8631092,-0.96060437,0.9764323,0.9848595,-0.61882246,-0.64417076,0.0042780684,0.7606834,-0.77729553,-0.44188282,0.3967974,0.17652893,-0.9898292,-0.9710715,-0.21289852,0.9585464,-0.36467978,-0.6745791
2025-06-04 18:22:51.518,0.115295604,-0.051627126,0.012653899,0.007893797,0.06769354,-0.0239612,0.0,0.0,0.0,-0.0073325704,0.013774702,0.12202545,0.032434404,-0.06685496,-0.018127449,0.1351313,-0.053842984,-0.48112518,0.027109342,0.15448552,-0.2952423,0.054939277,-0.07756268,0.036390156,0.04326143,-0.06770573,0.081402555,-0.05751536,0.004855019,0.030810185,0.0010559144,-0.024537085,0.100313164,-0.0698547,0.0042780684,0.7606834,-0.77729553,-0.44188282,0.3967974,0.17652893,-0.9898292,-0.9710715,-0.21289852,0.9585464,-0.36467978,-0.6745791,-0.3919468,0.18275243,-0.62309146,-0.7987167,0.26000318,-0.4386396,-0.97261333,-0.9752223,-0.9400732,0.9557524,-0.82186496,-0.5414733
2025-06-04 18:22:51.537,0.10695641,0.18529196,-0.03666211,0.0076131425,0.0567523,0.014893576,0.0,0.0,0.0,-0.007135438,0.01756884,0.118178025,0.025018388,-0.061436,-0.006965671,0.10455432,-0.05737166,-0.46981063,-0.01818332,0.14895593,-0.29614115,0.037779815,-0.07100529,-0.02996832,-0.02061227,-0.013580635,0.031509597,-0.046797946,0.03152529,-0.0016655505,-0.18125676,0.018733501,-0.07252167,-0.019148666,-0.3919468,0.18275243,-0.62309146,-0.7987167,0.26000318,-0.4386396,-0.97261333,-0.9752223,-0.9400732,0.9557524,-0.82186496,-0.5414733,-0.39657998,-0.21263622,0.15462552,-0.93224734,0.07505291,-0.6544574,-0.50601715,-0.85336006,-0.9259564,0.89679015,-0.8872123,-0.3526722
2025-06-04 18:22:51.556,0.09738923,0.052015685,0.036379855,-0.045099318,0.05829576,-0.032042954,0.0,0.0,0.0,-0.0065594953,-0.0014670438,0.110878676,0.04290698,-0.058740247,0.01362991,0.075207256,-0.075814135,-0.4801508,-0.03603706,0.13630657,-0.30680722,0.046008017,0.016787956,-0.000772297,0.07478969,-0.08077925,0.08416003,-0.085598186,-0.08132474,-0.023562975,0.0004121826,0.016444236,-0.014122582,-0.03825476,-0.39657998,-0.21263622,0.15462552,-0.93224734,0.07505291,-0.6544574,-0.50601715,-0.85336006,-0.9259564,0.89679015,-0.8872123,-0.3526722,-0.13641651,-0.16772047,0.5911068,-0.9666457,0.3844333,-0.36649403,0.29451483,-0.84056425,-0.9066136,0.9575483,-0.7641501,0.071372226
2025-06-04 18:22:51.576,0.018650439,-0.116071954,-0.043588903,-0.01846139,0.09562693,-0.014480757,0.0,0.0,0.0,-0.006434154,0.0054877438,0.073518984,0.0667545,-0.06614268,0.019795187,0.056616556,-0.064884804,-0.47523066,-0.046525877,0.13753885,-0.32130376,0.049191702,0.04209754,0.00829486,0.09878983,-0.028432107,-0.033633016,0.04745311,0.04768268,0.028626159,-0.0036899012,-0.03631363,-0.028635124,-0.012728462,-0.13641651,-0.16772047,0.5911068,-0.9666457,0.3844333,-0.36649403,0.29451483,-0.84056425,-0.9066136,0.9575483,-0.7641501,0.071372226,0.34687713,0.30117244,-0.23263502,-0.9395632,-0.28198874,0.06358655,0.75653917,-0.8587405,-0.36031863,0.9729374,-0.7315905,-0.18689463
2025-06-04 18:22:51.599,-0.09131697,-0.06808631,0.037991814,0.013300143,0.059156373,0.02499604,0.0,0.0,0.0,-0.0063383915,-0.0005925863,0.07780756,0.063653745,-0.07436953,0.00752208,0.07565811,-0.06529586,-0.48265615,-0.045214016,0.15214689,-0.31348795,0.05257049,0.05262061,0.045285083,-0.008051128,-0.020535,-0.10040794,-0.014398224,0.0751776,-0.0006752958,-0.013168611,0.0713231,-0.052150667,0.000324804,0.34687713,0.30117244,-0.23263502,-0.9395632,-0.28198874,0.06358655,0.75653917,-0.8587405,-0.36031863,0.9729374,-0.7315905,-0.18689463,0.7335224,0.17406233,-0.72602284,-0.63416624,-0.4488751,0.8187665,0.75843424,-0.9010319,0.65837234,0.9461141,-0.6116244,-0.021360654
2025-06-04 18:22:51.617,-0.13582171,-0.03835171,-0.0072928015,-0.013802244,0.069472685,0.024849806,0.0,0.0,0.0,-0.006280701,0.004912254,0.08819732,0.05619386,-0.057542723,-0.01962393,0.11131394,-0.041683856,-0.47973013,-0.024867851,0.15933593,-0.3221203,0.04918308,0.019498758,0.020181427,0.02598245,0.020235602,-0.048625052,0.080676705,0.071096756,-0.028051643,0.14261687,0.055435836,0.05734644,-0.03663017,0.7335224,0.17406233,-0.72602284,-0.63416624,-0.4488751,0.8187665,0.75843424,-0.9010319,0.65837234,0.9461141,-0.6116244,-0.021360654,0.98973,0.35497943,-0.9831942,-0.5138622,-0.50571537,0.98716235,-0.56970465,-0.9527523,0.9872335,0.9872309,-0.7165849,-0.7200859
2025-06-04 18:22:51.637,-0.053726103,-0.0014140673,0.02132379,-0.06337551,0.05635534,0.01636547,0.0,0.0,0.0,-0.006719789,0.03071937,0.084674634,0.039620068,-0.057692237,-0.045515344,0.13408236,-0.03282165,-0.49520814,0.013356114,0.15640576,-0.3201566,0.04045407,0.010575972,0.01923243,-0.016096724,0.014393648,-0.15052627,0.030390434,0.0042974325,0.0735651,0.04019296,0.01806613,0.0061685476,0.047657337,0.98973,0.35497943,-0.9831942,-0.5138622,-0.50571537,0.98716235,-0.56970465,-0.9527523,0.9872335,0.9872309,-0.7165849,-0.7200859,0.34151298,0.7207954,-0.7242423,-0.5437653,-0.063985154,0.2780893,-0.9784463,-0.9709545,0.3274121,0.9543542,-0.49081933,-0.7322143
2025-06-04 18:22:51.656,-0.032708123,-0.08878155,0.022013273,0.01238177,0.062002603,-0.011163859,0.0,0.0,0.0,-0.0074454607,0.024030296,0.10720239,0.024088258,-0.06969569,-0.05523584,0.1276805,-0.052111547,-0.47513974,0.040838957,0.1476478,-0.30439806,0.048240952,0.033675965,-0.030829096,0.019883716,0.049633987,0.04454879,-0.08740586,-0.08223684,-0.026233098,-0.02372226,0.05093963,0.062752135,0.01844949,0.34151298,0.7207954,-0.7242423,-0.5437653,-0.063985154,0.2780893,-0.9784463,-0.9709545,0.3274121,0.9543542,-0.49081933,-0.7322143,-0.49983388,0.31898683,-0.3986957,-0.82116,0.32792357,-0.72861063,-0.97416687,-0.9747925,-0.92247057,0.9666554,-0.6837373,-0.5755844
2025-06-04 18:22:51.677,0.111444026,0.015859578,0.017071888,-0.043458622,0.08626147,-0.029972205,0.0,0.0,0.0,-0.0075430945,0.017463846,0.10153951,0.02594807,-0.08054864,-0.036493994,0.08965209,-0.055741064,-0.48507923,-0.012689263,0.1451165,-0.29604056,0.04384282,-0.102639325,0.07879853,-0.04836232,-0.055876292,0.060623832,-0.07685273,0.023018615,0.07302192,-0.14507309,-0.028707977,0.0351705,-0.031759933,-0.49983388,0.31898683,-0.3986957,-0.82116,0.32792357,-0.72861063,-0.97416687,-0.9747925,-0.92247057,0.9666554,-0.6837373,-0.5755844,-0.42139977,-0.4103421,0.51851976,-0.95694196,0.42833465,-0.68915856,-0.51546264,-0.8780844,-0.96364003,0.9554488,-0.8668813,-0.14332843
2025-06-04 18:22:51.700,0.19429177,0.09343834,0.008169488,0.017822772,0.09902642,-0.021564167,0.0,0.0,0.0,-0.007124113,0.010820843,0.08566287,0.058449857,-0.07359355,-0.012846606,0.07142578,-0.056346945,-0.46635285,-0.04439773,0.14418957,-0.3081145,0.026130626,-0.06074064,-0.11571985,-0.0050904816,-0.07935265,0.0692705,-0.10881461,0.049828712,-0.01711406,0.010820378,-0.06565319,-0.070298344,0.037891507,-0.42139977,-0.4103421,0.51851976,-0.95694196,0.42833465,-0.68915856,-0.51546264,-0.8780844,-0.96364003,0.9554488,-0.8668813,-0.14332843,0.16892338,-0.18860383,0.5942706,-0.9884731,0.152116,-0.39749104,0.4626808,-0.85442334,-0.8180938,0.9830277,-0.8953669,-0.029767767
2025-06-04 18:22:51.717,-0.0072606155,-0.07034241,-0.030502733,0.031272974,0.08146035,-0.046306014,0.0,0.0,0.0,-0.0065523568,0.0015190982,0.05939335,0.069624916,-0.09123001,-0.010564777,0.05960001,-0.0699533,-0.4679002,-0.049484503,0.14630495,-0.32459122,0.041306082,-0.020977275,-0.026327554,-0.032343917,0.07554582,0.047631063,-0.05259512,0.03972593,0.026991894,-0.068771936,0.046556886,0.034621004,-0.01981478,0.16892338,-0.18860383,0.5942706,-0.9884731,0.152116,-0.39749104,0.4626808,-0.85442334,-0.8180938,0.9830277,-0.8953669,-0.029767767,0.35588852,0.4131974,-0.10601979,-0.9306922,-0.2962995,0.24883123,0.7663945,-0.86308813,-0.53142214,0.97609663,-0.6915194,-0.28984472
2025-06-04 18:22:51.737,-0.06218493,-0.09110157,0.032464534,-0.010380777,0.06156737,-0.025595687,0.0,0.0,0.0,-0.0063701742,0.006958722,0.052515645,0.0542033,-0.08309353,-0.014166781,0.078474514,-0.064180054,-0.47109365,-0.05313783,0.13749258,-0.33011636,0.052135777,0.029033141,0.024603618,0.014218149,0.07717683,-0.029601358,0.12124055,-0.045684986,-0.027323505,-0.018590556,0.014057787,-0.036029175,-0.016110789,0.35588852,0.4131974,-0.10601979,-0.9306922,-0.2962995,0.24883123,0.7663945,-0.86308813,-0.53142214,0.97609663,-0.6915194,-0.28984472,0.67275274,0.29005334,-0.6399164,-0.58957446,-0.28919762,0.7875592,0.76032627,-0.9070578,0.5169987,0.9324305,-0.54776835,0.02562887
2025-06-04 18:22:51.757,-0.1357168,-0.04390286,0.026596293,0.030706257,0.07239351,0.0045822673,0.0,0.0,0.0,-0.0064873314,0.020124765,0.07916687,0.061496854,-0.06938481,-0.032880016,0.09799485,-0.049765237,-0.48684755,-0.02617968,0.15718286,-0.31812298,0.039184865,-0.04323158,0.053944968,-0.04813678,0.06307845,-0.09295707,0.0950878,0.021494422,-0.082682766,0.1207738,-0.018668855,0.07566205,0.016757466,0.67275274,0.29005334,-0.6399164,-0.58957446,-0.28919762,0.7875592,0.76032627,-0.9070578,0.5169987,0.9324305,-0.54776835,0.02562887,0.97623557,0.36138222,-0.98110545,-0.4028249,-0.39665735,0.97752947,-0.30553278,-0.9603145,0.97832876,0.9879468,-0.61023414,-0.5669563
2025-06-04 18:22:51.777,-0.13569696,0.029479798,0.027478047,-0.025440194,0.04707018,0.036444563,0.0,0.0,0.0,-0.0068131112,0.02264229,0.08725321,0.044963915,-0.07659004,-0.05825071,0.13843219,-0.044724096,-0.4802094,0.014060144,0.15567136,-0.30542633,0.039683495,0.04786495,-0.0021999814,0.037348825,0.0041159126,-0.12184751,0.006460932,0.019377328,-0.034311842,0.10512468,-0.027008492,-0.069209136,0.011643753,0.97623557,0.36138222,-0.98110545,-0.4028249,-0.39665735,0.97752947,-0.30553278,-0.9603145,0.97832876,0.9879468,-0.61023414,-0.5669563,0.5643507,0.6527022,-0.8565068,-0.40698987,-0.1860873,0.7044662,-0.96821296,-0.9680125,0.7597551,0.96478856,-0.46048224,-0.65243065
2025-06-04 18:22:51.801,0.010701132,0.028391333,-0.010621546,-0.006560412,0.07206446,0.0062204185,0.0,0.0,0.0,-0.007228371,0.024334207,0.09541684,0.036229156,-0.07151308,-0.047316864,0.15165511,-0.05150055,-0.4770886,0.038022634,0.15383156,-0.29635477,0.05004673,-0.00581623,-0.038620025,-0.032601975,0.03175939,-0.034444105,0.03399573,0.05465753,0.062158003,0.046389528,0.018204937,-0.019402929,0.040015336,0.5643507,0.6527022,-0.8565068,-0.40698987,-0.1860873,0.7044662,-0.96821296,-0.9680125,0.7597551,0.96478856,-0.46048224,-0.65243065,0.06466128,0.6350732,-0.6420753,-0.75300086,0.20514938,-0.42388117,-0.9886392,-0.97055227,-0.6655859,0.9151046,-0.76754814,-0.8095124
2025-06-04 18:22:51.818,0.09235826,0.07914522,-0.017157076,0.018495068,0.011242303,-0.043561883,0.0,0.0,0.0,-0.0072217174,0.033780146,0.117361076,0.037835874,-0.06953632,-0.034328934,0.11060966,-0.054544296,-0.46721283,0.01894194,0.15295282,-0.3025319,0.039409656,-0.02571277,0.029758392,-0.029535968,-0.026318444,0.049712818,-0.15427001,-0.033079688,0.081101336,-0.10692286,-0.015733683,-0.026085984,-0.048139766,0.06466128,0.6350732,-0.6420753,-0.75300086,0.20514938,-0.42388117,-0.9886392,-0.97055227,-0.6655859,0.9151046,-0.76754814,-0.8095124,-0.60139716,-0.18216763,0.008868055,-0.864958,0.13975532,-0.72462106,-0.8077662,-0.91484416,-0.96681225,0.9328269,-0.88209254,-0.5551357
2025-06-04 18:22:51.838,0.14578122,0.13114728,-0.020776,-0.021605844,0.11573724,-0.049189806,0.0,0.0,0.0,-0.0073328167,0.022268811,0.08744152,0.028291387,-0.07654727,-0.018520012,0.07327948,-0.0679564,-0.46591157,-0.018895397,0.1485244,-0.31236735,0.046470743,-0.08916799,-0.0032683413,0.025919385,-0.071968645,0.06978448,-0.1005742,-0.006016917,0.03405517,-0.08520933,-0.0046974616,-0.02309935,0.05575009,-0.60139716,-0.18216763,0.008868055,-0.864958,0.13975532,-0.72462106,-0.8077662,-0.91484416,-0.96681225,0.9328269,-0.88209254,-0.5551357,-0.20610552,-0.3650678,0.5133254,-0.95904857,0.30906302,-0.69656014,-0.17329298,-0.7493639,-0.8871068,0.9371692,-0.9065755,-0.077004686
2025-06-04 18:22:51.857,0.004916436,0.027328443,0.026948227,0.0065805214,0.10702891,0.03233486,0.0,0.0,0.0,-0.0075456416,0.016373614,0.051393837,0.056710664,-0.082672685,-0.020787166,0.050959516,-0.06490507,-0.4638757,-0.04851394,0.13969709,-0.32211298,0.030837182,-0.042880382,-0.16385767,0.07748496,0.044516347,0.093335874,0.009118503,-0.021416686,0.017826328,-0.064209856,-0.03769196,0.016801937,-0.042647496,-0.20610552,-0.3650678,0.5133254,-0.95904857,0.30906302,-0.69656014,-0.17329298,-0.7493639,-0.8871068,0.9371692,-0.9065755,-0.077004686,0.03570514,-0.10828297,0.60438645,-0.9749582,0.27289048,-0.31325975,0.6385866,-0.8545272,-0.7860682,0.9781144,-0.8170242,0.0020226603
2025-06-04 18:22:51.880,-0.0025754396,-0.050914135,-0.010151201,0.010677834,0.09843837,0.016289663,0.0,0.0,0.0,-0.008065268,0.018400779,0.04745927,0.07433248,-0.07566263,-0.009343781,0.048872747,-0.070865996,-0.46169698,-0.05067647,0.13595143,-0.32238302,0.050848052,-0.06940922,-0.07665014,0.07858602,-0.014980746,0.08285895,-0.049330886,0.03137808,0.006826497,0.015289715,0.039644986,-0.0063555976,0.053232215,0.03570514,-0.10828297,0.60438645,-0.9749582,0.27289048,-0.31325975,0.6385866,-0.8545272,-0.7860682,0.9781144,-0.8170242,0.0020226603,0.6031006,0.20411235,-0.46533114,-0.9265239,-0.38282108,0.42556262,0.85604966,-0.90363985,0.101070404,0.97726184,-0.75885487,-0.2883873
2025-06-04 18:22:51.900,-0.055673547,-0.049721096,-0.009793079,-0.04002086,0.105486155,0.0027657044,0.0,0.0,0.0,-0.008230541,0.026024355,0.041430023,0.039922263,-0.084960654,-0.011223147,0.069898084,-0.046247344,-0.46124974,-0.04515393,0.13272832,-0.3224073,0.031072207,-0.027565463,0.050892703,-0.019193595,0.010232535,-0.032102723,0.028863614,0.055233564,-0.053460818,0.07281143,0.011135006,-0.022179443,-0.03971933,0.6031006,0.20411235,-0.46533114,-0.9265239,-0.38282108,0.42556262,0.85604966,-0.90363985,0.101070404,0.97726184,-0.75885487,-0.2883873,0.93341595,0.24113402,-0.93051726,-0.56224316,-0.6358069,0.9327223,0.56672955,-0.92733544,0.93153214,0.9578188,-0.7335839,-0.34458858
2025-06-04 18:22:51.918,-0.0630031,-0.043470316,0.04262782,0.003995807,0.11406193,-0.048503563,0.0,0.0,0.0,-0.00833277,0.02382207,0.050013952,0.03546401,-0.074403785,-0.058980398,0.11719313,-0.040801596,-0.48075882,0.008409591,0.15197763,-0.32593274,0.034303438,0.0986035,-0.00018147533,-0.08963389,0.040018335,-0.088097915,0.08669158,0.061857563,0.04372119,0.071821034,-0.012510418,0.03413246,0.052286126,0.93341595,0.24113402,-0.93051726,-0.56224316,-0.6358069,0.9327223,0.56672955,-0.92733544,0.93153214,0.9578188,-0.7335839,-0.34458858,0.95993435,0.49707562,-0.95850384,-0.21855831,-0.41521418,0.9654795,-0.8100642,-0.95725733,0.97721004,0.99101686,-0.52434814,-0.63514006
2025-06-04 18:22:51.937,-0.0576991,0.011025098,0.05586388,-0.034974318,0.09817296,-0.034733955,0.0,0.0,0.0,-0.009203601,0.034253504,0.06429247,0.0252365,-0.067045465,-0.06807639,0.15067327,-0.032062303,-0.47255713,0.037222184,0.14220068,-0.336589,0.03244874,-0.012356807,0.09791996,-0.05618364,-0.0434874,-0.090203024,0.08052722,0.0025686722,0.0874628,0.10894177,-0.016777674,0.004781032,-0.060695,0.95993435,0.49707562,-0.95850384,-0.21855831,-0.41521418,0.9654795,-0.8100642,-0.95725733,0.97721004,0.99101686,-0.52434814,-0.63514006,0.13911413,0.74409735,-0.7587911,-0.57437444,0.33079198,0.1029553,-0.99025357,-0.97056717,-0.2589588,0.9590459,-0.44613147,-0.7426266
2025-06-04 18:22:51.958,-0.0071948804,-0.06475297,0.0073210527,0.027531823,0.051123656,-0.047081746,0.0,0.0,0.0,-0.009854999,0.042593036,0.07960231,0.027344387,-0.073039524,-0.046985675,0.13371876,-0.05051651,-0.45940056,0.028604904,0.15350674,-0.3045336,0.025054686,0.01715302,0.046906836,0.03975781,-0.07249937,0.15036331,-0.11398031,-0.012325093,-0.059342783,-0.06184101,-0.0002224212,0.002123426,-0.0062516285,0.13911413,0.74409735,-0.7587911,-0.57437444,0.33079198,0.1029553,-0.99025357,-0.97056717,-0.2589588,0.9590459,-0.44613147,-0.7426266,-0.47472665,0.011962515,-0.3370737,-0.8649696,0.1545579,-0.6500916,-0.9468843,-0.9725153,-0.95405227,0.9653159,-0.79100436,-0.5311712
2025-06-04 18:22:51.978,0.19587557,0.12023714,-0.00030047956,-0.039845966,0.043520994,0.0076695816,0.0,0.0,0.0,-0.009590004,0.03318286,0.07273137,0.0348769,-0.075171344,-0.025952818,0.0918932,-0.057259135,-0.47652277,-0.009276139,0.14317994,-0.31310397,0.032253988,-0.033367362,-0.020235686,0.038022794,0.0115212435,-0.0016429005,-0.1255942,-0.06746455,-0.018704345,-0.18561031,-0.050351955,-0.0076573193,0.071627475,-0.47472665,0.011962515,-0.3370737,-0.8649696,0.1545579,-0.6500916,-0.9468843,-0.9725153,-0.95405227,0.9653159,-0.79100436,-0.5311712,-0.41444173,-0.3577194,0.5903551,-0.9655084,0.38254768,-0.7326791,-0.26973754,-0.884585,-0.94559187,0.9466429,-0.85975534,-0.118392356
2025-06-04 18:22:52.000,0.11319567,0.02651448,-0.043540813,0.018707193,0.06993,-0.010093831,0.0,0.0,0.0,-0.009101025,0.014821685,0.04015003,0.052089293,-0.08035729,-0.007907864,0.06727341,-0.06778963,-0.462331,-0.046504878,0.14701645,-0.30871338,0.0357325,-0.071998514,-0.07656681,0.018355908,-0.015171431,-0.02118409,0.011341019,-0.067774884,0.009550875,0.0030932447,-0.08289226,0.043731123,-0.037332177,-0.41444173,-0.3577194,0.5903551,-0.9655084,0.38254768,-0.7326791,-0.26973754,-0.884585,-0.94559187,0.9466429,-0.85975534,-0.118392356,-0.09401855,0.0021758436,0.5315437,-0.9698088,0.07940642,-0.5010949,0.5922175,-0.8052008,-0.7631395,0.9752547,-0.83822924,0.15837525
2025-06-04 18:22:52.018,-0.03301658,-0.0036001576,0.03616726,0.038665537,0.04310846,0.01940722,0.0,0.0,0.0,-0.008626016,0.021863313,0.028838975,0.07767716,-0.0920052,0.0013530251,0.051639233,-0.05618289,-0.46675295,-0.046254303,0.1302301,-0.32368857,0.036713768,-0.073316164,0.059474703,0.05665518,-0.007921173,0.0128664365,-0.014781311,0.02765319,-0.042340595,-0.0040050265,-0.0017731873,-0.063991286,0.024625722,-0.09401855,0.0021758436,0.5315437,-0.9698088,0.07940642,-0.5010949,0.5922175,-0.8052008,-0.7631395,0.9752547,-0.83822924,0.15837525,-0.046575658,0.4060494,0.31152833,-0.8935255,-0.014319629,0.0754051,0.880782,-0.8874272,-0.5223924,0.9721381,-0.5846256,-0.0280508
2025-06-04 18:22:52.038,-0.0043897517,-0.089159705,-0.029803658,-0.014978596,0.10914065,-0.040095594,0.0,0.0,0.0,-0.008617886,0.024102861,0.045892227,0.08125347,-0.07016392,-0.0059388625,0.060858853,-0.062633894,-0.4569778,-0.051023796,0.13447712,-0.31564397,0.054255556,0.0676621,0.059721965,-0.0681686,-0.004917361,0.07625119,-0.008106078,-0.04273666,-0.052938968,-0.029260434,-0.03610543,-0.0032770727,0.027143579,-0.046575658,0.4060494,0.31152833,-0.8935255,-0.014319629,0.0754051,0.880782,-0.8874272,-0.5223924,0.9721381,-0.5846256,-0.0280508,0.65897906,0.5166857,-0.63479304,-0.74222577,-0.3337707,0.73304236,0.8543066,-0.90663123,0.29161736,0.93486464,-0.5662904,-0.1013277
2025-06-04 18:22:52.058,-0.09947453,-0.028265439,-0.026975986,-0.009396008,0.047475442,0.008898657,0.0,0.0,0.0,-0.008244286,0.012565621,0.085066006,0.0606623,-0.07374106,-0.003980908,0.100220636,-0.04687257,-0.46011147,-0.029926416,0.15162225,-0.3114102,0.037675973,-0.054459393,0.07429017,-0.031772647,0.0012036061,-0.011556869,0.10357276,-0.023950916,0.059200767,0.02986984,0.042096026,-0.033680055,-0.006960017,0.65897906,0.5166857,-0.63479304,-0.74222577,-0.3337707,0.73304236,0.8543066,-0.90663123,0.29161736,0.93486464,-0.5662904,-0.1013277,0.9809406,0.2938176,-0.97058225,-0.48234153,-0.5262056,0.9711649,-0.24421932,-0.941379,0.97110415,0.9732325,-0.7497364,-0.6644132
2025-06-04 18:22:52.078,-0.0626505,0.0054707364,0.011149574,0.0018159791,0.1067127,0.015849294,0.0,0.0,0.0,-0.008096092,0.032162484,0.084648065,0.04344582,-0.07492438,-0.03402948,0.13752882,-0.03657425,-0.47126442,0.0130004715,0.1419301,-0.31835344,0.039063383,-0.021474734,-0.008685637,-0.019140873,0.032541636,-0.06601323,0.052853104,0.07068949,0.06530178,0.09030582,-0.00013869797,0.037301622,0.08223673,0.9809406,0.2938176,-0.97058225,-0.48234153,-0.5262056,0.9711649,-0.24421932,-0.941379,0.97110415,0.9732325,-0.7497364,-0.6644132,0.7285236,0.690089,-0.8050445,-0.5459444,-0.2271587,0.6666026,-0.9539214,-0.96824044,0.7009653,0.9539733,-0.5654558,-0.7322921
2025-06-04 18:22:52.100,0.044534642,0.012636425,-0.0017621685,-0.044549767,0.10230794,0.044802763,0.0,0.0,0.0,-0.008685316,0.023892986,0.10281002,0.04649386,-0.07207227,-0.057130188,0.15973236,-0.04677139,-0.48472974,0.04547824,0.15163285,-0.3178098,0.055966955,0.027542384,0.0013455207,-0.08486602,0.04779038,0.0018233238,-0.039065436,-0.06491808,0.058370817,0.112422176,-0.069301724,0.048172545,0.028309375,0.7285236,0.690089,-0.8050445,-0.5459444,-0.2271587,0.6666026,-0.9539214,-0.96824044,0.7009653,0.9539733,-0.5654558,-0.7322921,0.14472625,0.64514923,-0.56432366,-0.79867804,0.26213357,-0.44792765,-0.9845976,-0.9766261,-0.7698918,0.95045596,-0.6827358,-0.7467278
2025-06-04 18:22:52.118,0.13384421,0.06200751,0.06076401,0.0037464064,0.044072185,0.0032269065,0.0,0.0,0.0,-0.009231685,0.025048634,0.117205866,0.028509857,-0.070178285,-0.02940086,0.10793142,-0.048609182,-0.47688177,0.0069136843,0.14397304,-0.30120865,0.038313482,-0.013081127,0.06644168,0.026523238,-0.06884899,0.054674152,-0.035138026,-0.011156554,-0.030077947,-0.113484845,0.034343388,0.0905602,-0.056239,0.14472625,0.64514923,-0.56432366,-0.79867804,0.26213357,-0.44792765,-0.9845976,-0.9766261,-0.7698918,0.95045596,-0.6827358,-0.7467278,-0.6159581,-0.36262476,0.36241302,-0.94304377,0.29598773,-0.6484847,-0.6387557,-0.9600463,-0.98107064,0.97458416,-0.73401064,-0.21816444
2025-06-04 18:22:52.139,0.12240405,0.10063217,-0.048362438,-0.012972,0.11706945,-0.017741527,0.0,0.0,0.0,-0.009640261,0.026502676,0.077387094,0.05920518,-0.085573286,-0.018990612,0.07551923,-0.060534287,-0.48176795,-0.030373758,0.13070764,-0.31036195,0.049386546,-0.0029297676,-0.01692061,0.033783864,-0.06407284,-0.016873183,-0.14305352,-0.052464243,-0.03932518,0.0034675587,0.05529714,-0.03874165,0.031762466,-0.6159581,-0.36262476,0.36241302,-0.94304377,0.29598773,-0.6484847,-0.6387557,-0.9600463,-0.98107064,0.97458416,-0.73401064,-0.21816444,0.2531764,-0.24349576,0.44655794,-0.98794514,0.12057638,-0.4672708,0.120660275,-0.8003963,-0.8347893,0.96640515,-0.90743434,0.030898636
2025-06-04 18:22:52.159,-0.00913578,0.04056332,-0.012152461,0.036609024,0.04018196,0.008716797,0.0,0.0,0.0,-0.0096344855,0.009155794,0.053904075,0.07328492,-0.07603598,-0.012705985,0.06920169,-0.06047428,-0.46532753,-0.039063353,0.14065427,-0.3141495,0.042514637,-0.013270456,-0.06747341,0.07644599,-0.055230457,-0.024858825,-0.005921952,-0.042635143,-0.028071025,-0.0016927011,-0.039432872,0.03310427,0.0020699052,0.2531764,-0.24349576,0.44655794,-0.98794514,0.12057638,-0.4672708,0.120660275,-0.8003963,-0.8347893,0.96640515,-0.90743434,0.030898636,0.48246637,0.08395799,-0.12204233,-0.95635563,-0.11343937,0.27616408,0.7588287,-0.82239527,-0.4747143,0.9679308,-0.69383246,-0.11758782
2025-06-04 18:22:52.179,-0.05677612,-0.06262623,0.0406184,0.03995699,0.053056356,0.025779862,0.0,0.0,0.0,-0.0100396145,0.025267605,0.043948505,0.052947797,-0.080587134,-0.0028966044,0.07149625,-0.060956877,-0.461271,-0.043738443,0.14807995,-0.30597648,0.05983858,0.015211611,0.04169174,-0.072389714,-0.014257989,0.057219706,-0.011425219,-0.0027088418,-0.031790834,0.008331888,0.030110072,0.03811698,-0.01771766,0.48246637,0.08395799,-0.12204233,-0.95635563,-0.11343937,0.27616408,0.7588287,-0.82239527,-0.4747143,0.9679308,-0.69383246,-0.11758782,0.8479547,0.18333215,-0.81098795,-0.7359787,-0.4896704,0.9120334,0.762823,-0.93494064,0.7512804,0.97914565,-0.48384544,-0.15421113
2025-06-04 18:22:52.200,-0.12500885,-0.008793227,-0.003667454,-0.056403145,0.09057058,-0.046710465,0.0,0.0,0.0,-0.010323576,0.030246673,0.047968384,0.0651512,-0.07009748,-0.031028412,0.10649823,-0.033984486,-0.46885568,-0.020048862,0.15625249,-0.31320378,0.055179313,0.043556713,0.06602071,-0.07682027,0.071622714,-0.022413295,0.1262325,0.06332928,0.028651321,0.09961568,0.037780225,0.013151632,0.028517146,0.8479547,0.18333215,-0.81098795,-0.7359787,-0.4896704,0.9120334,0.762823,-0.93494064,0.7512804,0.97914565,-0.48384544,-0.15421113,0.98926145,0.40152985,-0.9766556,-0.5736562,-0.5105251,0.985525,-0.5822594,-0.9567542,0.98266757,0.9894566,-0.6870127,-0.7373729
2025-06-04 18:22:52.218,-0.09368481,0.10089904,0.044221953,-0.052552953,0.017919607,-0.022607986,0.0,0.0,0.0,-0.010451598,0.04172252,0.069424026,0.047251053,-0.07690163,-0.06608159,0.13121858,-0.032138884,-0.47797024,0.019025294,0.1437382,-0.30693534,0.04979004,0.03069011,-0.020667262,-0.09637677,0.07041561,-0.099028334,0.027781265,0.06915461,-0.04763849,0.15111528,-0.031023925,-0.012770642,-0.048385456,0.98926145,0.40152985,-0.9766556,-0.5736562,-0.5105251,0.985525,-0.5822594,-0.9567542,0.98266757,0.9894566,-0.6870127,-0.7373729,0.16360588,0.685088,-0.731307,-0.5539725,-0.085280076,0.29978976,-0.9611381,-0.97576386,0.054687407,0.96469545,-0.41273203,-0.57027483
2025-06-04 18:22:52.238,0.038169775,-0.00087489537,-0.02252911,-0.040328987,0.08451243,0.032284275,0.0,0.0,0.0,-0.010947831,0.042508073,0.06693266,0.032162886,-0.07556468,-0.06932095,0.13816091,-0.05405167,-0.47943214,0.024802351,0.15404855,-0.29950035,0.04747458,-0.016560094,0.06750463,0.041610517,-0.044766262,0.024879804,0.040991165,-0.0039272513,0.0492287,0.008453521,-0.050400075,0.08979779,-0.068208985,0.16360588,0.685088,-0.731307,-0.5539725,-0.085280076,0.29978976,-0.9611381,-0.97576386,0.054687407,0.96469545,-0.41273203,-0.57027483,-0.058803085,0.46184084,-0.5405309,-0.8076693,0.28785375,-0.45706317,-0.97250414,-0.9668939,-0.9331986,0.906748,-0.78258663,-0.5490427
2025-06-04 18:22:52.259,0.05953104,0.07038463,0.005304043,-0.049429547,0.058279525,-0.026849452,0.0,0.0,0.0,-0.010768408,0.0305078,0.08252751,0.035764337,-0.078980684,-0.038222108,0.10391767,-0.055254687,-0.46402955,-0.0065509616,0.1387441,-0.29496738,0.04218581,-0.060654428,0.002898943,-0.052075025,0.013049545,0.004656727,-0.07625092,0.003865226,-0.054675523,-0.13100757,-0.048028566,-0.062219985,0.027636478,-0.058803085,0.46184084,-0.5405309,-0.8076693,0.28785375,-0.45706317,-0.97250414,-0.9668939,-0.9331986,0.906748,-0.78258663,-0.5490427,-0.4781395,-0.24797258,0.30221832,-0.93022645,0.20346892,-0.62745935,-0.47759083,-0.8905159,-0.95835274,0.9386415,-0.80686736,-0.27893767
2025-06-04 18:22:52.279,0.11456402,0.031909477,-0.038349733,0.010392777,0.096677415,0.00038945457,0.0,0.0,0.0,-0.010700459,0.015972612,0.07077887,0.032660775,-0.085368134,-0.023426091,0.07021409,-0.063539974,-0.46065965,-0.03708245,0.13422105,-0.30477396,0.056210615,-0.030040767,-0.12002996,0.04240676,-0.0062510413,-0.031230884,0.0048879497,0.019022245,-0.075288504,-0.13149537,-0.09021239,0.050730605,0.0052243723,-0.4781395,-0.24797258,0.30221832,-0.93022645,0.20346892,-0.62745935,-0.47759083,-0.8905159,-0.95835274,0.9386415,-0.80686736,-0.27893767,-0.081890374,-0.12132565,0.50167805,-0.9590367,0.2372341,-0.5809372,0.41555396,-0.7419499,-0.7935041,0.9307723,-0.83778286,0.20057736
2025-06-04 18:22:52.301,0.008509667,-0.0023100406,0.009986105,0.01361394,0.10051915,0.032650243,0.0,0.0,0.0,-0.010696404,0.015567029,0.042354718,0.05236171,-0.07783953,-0.015663164,0.062405046,-0.05344271,-0.47385645,-0.05332696,0.12596668,-0.31485403,0.05550898,-0.062930994,-0.087548524,-0.0024543882,-0.0045250244,-0.00038661258,0.055924453,0.037504204,0.008213264,-0.06963794,0.04350003,-0.054545112,0.09338008,-0.081890374,-0.12132565,0.50167805,-0.9590367,0.2372341,-0.5809372,0.41555396,-0.7419499,-0.7935041,0.9307723,-0.83778286,0.20057736,0.1616041,0.22971392,0.16860679,-0.93878144,-0.16335522,0.030622058,0.8332865,-0.8648137,-0.4175951,0.9760289,-0.71876186,-0.12851979
2025-06-04 18:22:52.319,-0.044327095,-0.09796557,0.0012493621,-0.022791522,0.05995266,0.04057497,0.0,0.0,0.0,-0.010955467,0.016514374,0.0473437,0.053223845,-0.083266936,-0.0152726285,0.07724754,-0.052858204,-0.45789644,-0.05206107,0.13915089,-0.30858445,0.060107455,-0.022065783,0.034561064,0.009461242,0.049344487,0.06171025,0.019137988,-0.054201223,0.006178294,0.079384014,0.075094566,-0.002870393,-0.042408545,0.1616041,0.22971392,0.16860679,-0.93878144,-0.16335522,0.030622058,0.8332865,-0.8648137,-0.4175951,0.9760289,-0.71876186,-0.12851979,0.77732325,0.31453836,-0.6961832,-0.759137,-0.39226487,0.81304204,0.82915443,-0.9090347,0.5793675,0.95070106,-0.6201197,-0.06421529
2025-06-04 18:22:52.340,-0.12794042,0.022058588,0.06260199,-0.013546091,0.086531185,-0.0077911806,0.0,0.0,0.0,-0.011073569,0.02884146,0.066930704,0.052671954,-0.072546735,-0.028057674,0.09953312,-0.047746655,-0.46326736,-0.030078424,0.13545123,-0.308278,0.068881705,-0.02123396,0.10000887,-0.08170174,0.0400188,-0.12174429,0.12034697,0.039009064,-0.023984682,0.12499757,0.058601364,-0.054603655,0.042907268,0.77732325,0.31453836,-0.6961832,-0.759137,-0.39226487,0.81304204,0.82915443,-0.9090347,0.5793675,0.95070106,-0.6201197,-0.06421529,0.97872525,0.31137624,-0.9691096,-0.4309101,-0.5160235,0.97524047,-0.20910428,-0.95116055,0.98267674,0.9896692,-0.61057043,-0.5578009
2025-06-04 18:22:52.359,-0.047408234,0.022288915,0.033954255,-0.05493588,0.09096793,0.04125153,0.0,0.0,0.0,-0.011461813,0.030812947,0.072696716,0.043680374,-0.082639076,-0.05509678,0.13054498,-0.028110627,-0.47043025,0.010845176,0.1602231,-0.29478505,0.07062667,0.06172527,0.088483006,0.015317391,0.07802722,-0.036868695,0.08552958,0.027269403,-0.009047328,0.039010346,0.05692844,0.011106538,-0.066554904,0.97872525,0.31137624,-0.9691096,-0.4309101,-0.5160235,0.97524047,-0.20910428,-0.95116055,0.98267674,0.9896692,-0.61057043,-0.5578009,0.5915459,0.6081749,-0.8723852,-0.22573704,-0.06693804,0.7068304,-0.97191226,-0.96055174,0.7461202,0.9776315,-0.37484688,-0.643203
2025-06-04 18:22:52.383,-0.012672667,-0.020429846,-0.05549867,-0.06472464,0.012404448,0.027458211,0.0,0.0,0.0,-0.011940629,0.037871595,0.081178464,0.02742913,-0.07246863,-0.05722776,0.13631833,-0.049445614,-0.47711018,0.042099293,0.15886502,-0.28463805,0.060306605,-0.012887597,0.05192737,0.024762271,4.8085974e-05,-0.04637032,0.027206661,0.036448203,-0.0036176944,0.03476733,0.0026310154,-0.03175809,0.01686048,0.5915459,0.6081749,-0.8723852,-0.22573704,-0.06693804,0.7068304,-0.97191226,-0.96055174,0.7461202,0.9776315,-0.37484688,-0.643203,0.13219541,0.6421735,-0.72748995,-0.646533,0.27924988,-0.19560863,-0.9911403,-0.96422917,-0.64938486,0.85778177,-0.83930635,-0.877939
2025-06-04 18:22:52.401,0.09385303,0.025122838,0.05925788,0.020768203,0.040661383,0.046674415,0.0,0.0,0.0,-0.011604916,0.034296215,0.101505876,0.029119823,-0.07460199,-0.031247523,0.11969849,-0.055920094,-0.46208715,0.026232695,0.15878911,-0.28741905,0.05528933,0.03286284,0.07388207,-0.00018361903,0.02608545,0.021131402,-0.102330975,0.026388545,0.017953558,-0.08249527,-0.03320228,-0.009886741,-0.025391161,0.13219541,0.6421735,-0.72748995,-0.646533,0.27924988,-0.19560863,-0.9911403,-0.96422917,-0.64938486,0.85778177,-0.83930635,-0.877939,-0.71287936,-0.21618778,0.23478,-0.8893414,0.25732276,-0.7408018,-0.6796808,-0.9658807,-0.97230995,0.969609,-0.72894466,-0.3231714
2025-06-04 18:22:52.420,0.15632541,0.057996407,0.0031588008,-0.023998804,0.07784406,0.027453093,0.0,0.0,0.0,-0.011679081,0.023998503,0.084585845,0.040375102,-0.07788004,-0.0116025545,0.07856495,-0.06151414,-0.47625107,-0.018280553,0.14369358,-0.28861678,0.054164253,0.0061819423,-0.011358069,0.044429123,-0.09476571,0.10237751,-0.14507571,-0.020155974,0.024026671,-0.07116717,-0.094069734,0.007961667,0.034563124,-0.71287936,-0.21618778,0.23478,-0.8893414,0.25732276,-0.7408018,-0.6796808,-0.9658807,-0.97230995,0.969609,-0.72894466,-0.3231714,-0.14984114,-0.28445882,0.7165244,-0.9797272,0.47929323,-0.65424657,0.13564034,-0.83835906,-0.9063058,0.9606579,-0.86306345,0.12699471
2025-06-04 18:22:52.439,0.06703923,-0.015235351,-0.0033781184,-0.033167776,0.11772545,0.035478257,0.0,0.0,0.0,-0.011761126,0.02182201,0.04269497,0.05744995,-0.07113335,0.009845828,0.059914395,-0.06673489,-0.47479594,-0.044994466,0.14243533,-0.3058177,0.062074013,-0.027866637,-0.070910454,0.10596259,0.051069036,-0.014624147,-0.018570594,0.016525172,0.04102668,-0.02564518,-0.05969043,-0.015755108,-0.00045367537,-0.14984114,-0.28445882,0.7165244,-0.9797272,0.47929323,-0.65424657,0.13564034,-0.83835906,-0.9063058,0.9606579,-0.86306345,0.12699471,0.12288167,0.10813292,0.40909797,-0.9671549,0.029956305,-0.31700015,0.7278718,-0.88184756,-0.61885303,0.9851979,-0.8232213,-0.15297206
2025-06-04 18:22:52.459,-0.04740816,-0.023327636,-0.0011763304,-0.03461669,0.09554587,0.039052863,0.0,0.0,0.0,-0.011752328,0.024138624,0.046091218,0.071966514,-0.08481535,0.016082102,0.06633646,-0.059773877,-0.46405923,-0.044548336,0.14546798,-0.29721937,0.07676017,-0.04717195,0.014740601,0.055426255,-0.0077298465,0.039994374,0.08135572,0.044103578,-0.023104973,-0.035003044,-0.014320949,0.04814624,0.03552134,0.12288167,0.10813292,0.40909797,-0.9671549,0.029956305,-0.31700015,0.7278718,-0.88184756,-0.61885303,0.9851979,-0.8232213,-0.15297206,0.3094278,0.40275383,-0.17586613,-0.8398293,-0.20856711,0.3181604,0.89168394,-0.8814629,-0.11720577,0.95035785,-0.617815,-0.018320855
2025-06-04 18:22:52.484,-0.0170418,-0.114924185,-0.02329342,0.00065194286,0.06011183,-0.011849354,0.0,0.0,0.0,-0.011818064,0.012244345,0.060624532,0.050962977,-0.079704046,0.005628082,0.06754542,-0.05542312,-0.476415,-0.043897294,0.14690265,-0.30727625,0.07625394,0.06191934,-0.030863153,0.014242077,0.061226524,-0.02282856,0.10778243,0.013309934,0.07032675,-0.025812319,-0.057252094,0.0045874687,-0.0024090041,0.3094278,0.40275383,-0.17586613,-0.8398293,-0.20856711,0.3181604,0.89168394,-0.8814629,-0.11720577,0.95035785,-0.617815,-0.018320855,0.92401457,0.28299463,-0.9084882,-0.64149916,-0.49010482,0.89121914,0.64168394,-0.91578233,0.89778566,0.94308627,-0.67417324,-0.27895185
2025-06-04 18:22:52.501,-0.12242243,0.0018964827,0.032567196,-0.041703373,0.049391072,0.004679317,0.0,0.0,0.0,-0.011943916,0.03305174,0.07050365,0.05642504,-0.0774429,-0.014681796,0.10432503,-0.037248615,-0.48287195,-4.339085e-06,0.15039586,-0.30873692,0.07159151,0.036469325,0.039635077,-0.07716585,0.056176975,-0.04141605,0.0712398,-0.027099703,-0.052854672,0.0781533,-0.00012916028,-0.025186712,-0.039281346,0.92401457,0.28299463,-0.9084882,-0.64149916,-0.49010482,0.89121914,0.64168394,-0.91578233,0.89778566,0.94308627,-0.67417324,-0.27895185,0.964765,0.38965896,-0.97161627,-0.14296238,-0.4394037,0.9726857,-0.751467,-0.95328945,0.98442054,0.9921965,-0.52430207,-0.6076597
2025-06-04 18:22:52.520,-0.009167975,0.055861916,0.018320877,-0.059883587,0.08833997,0.048615567,0.0,0.0,0.0,-0.012805004,0.02766543,0.08163175,0.046269566,-0.06076114,-0.037918124,0.14030142,-0.042490046,-0.49034256,0.044290524,0.14489947,-0.29056284,0.070396364,0.082999825,0.023372477,0.010545547,0.013820892,-0.08250765,0.1193173,-0.031235952,0.06493544,0.052423544,0.056382798,-0.00025469938,-0.047920827,0.964765,0.38965896,-0.97161627,-0.14296238,-0.4394037,0.9726857,-0.751467,-0.95328945,0.98442054,0.9921965,-0.52430207,-0.6076597,0.18489496,0.73450136,-0.80642587,-0.4587852,0.29231155,0.33425915,-0.9919734,-0.96395296,0.15619308,0.95578253,-0.4792432,-0.7741796
2025-06-04 18:22:52.601,0.022546234,-0.0075952676,-0.049822953,-0.026445951,0.05515617,0.023174662,0.0,0.0,0.0,-0.013536513,0.027707856,0.08642077,0.03469306,-0.052579675,-0.027781947,0.13074124,-0.044276267,-0.47142324,0.037362684,0.15376471,-0.28738305,0.06265654,-0.05111268,0.09561092,0.024566488,-0.030320358,0.030653246,-0.07997092,-0.009441977,0.03886519,0.026046481,-0.031088695,0.08767445,-0.05165312,0.18489496,0.73450136,-0.80642587,-0.4587852,0.29231155,0.33425915,-0.9919734,-0.96395296,0.15619308,0.95578253,-0.4792432,-0.7741796,-0.22474156,0.3148814,-0.6121526,-0.7476823,0.14667161,-0.5808439,-0.9742341,-0.96793664,-0.9008024,0.899437,-0.8855542,-0.72322553
2025-06-04 18:22:52.621,0.09637139,0.114878744,0.013381445,-0.048490245,0.1010354,0.04132833,0.0,0.0,0.0,-0.0134244,0.032510128,0.094030514,0.03158129,-0.060266566,-0.0038090032,0.097002424,-0.048351042,-0.4798382,-0.00030775703,0.15701368,-0.2820989,0.04790135,-0.067490086,0.039844383,0.016470667,0.008948951,-0.0037408413,-0.11032229,0.028544363,0.024689414,-0.09090595,-0.01730399,0.040035903,-0.01048058,-0.22474156,0.3148814,-0.6121526,-0.7476823,0.14667161,-0.5808439,-0.9742341,-0.96793664,-0.9008024,0.899437,-0.8855542,-0.72322553,-0.6226884,-0.26007578,0.4000225,-0.92350024,0.3142795,-0.7248169,-0.49918446,-0.9149183,-0.96504855,0.9398293,-0.828934,-0.27493742
2025-06-04 18:22:52.661,0.12766865,0.022270178,0.026301207,-0.031900886,0.055090323,0.0027018655,0.0,0.0,0.0,-0.013468286,0.023091923,0.06999427,0.0373916,-0.07958214,0.0040800823,0.0524422,-0.057957873,-0.4651439,-0.03808148,0.14244026,-0.29225093,0.04700758,0.018554348,-0.086291015,0.11480098,0.036887016,0.0708681,-0.09762653,0.051490646,-0.006671624,0.0014194254,-0.012492299,-0.06363334,-0.012944487,-0.6226884,-0.26007578,0.4000225,-0.92350024,0.3142795,-0.7248169,-0.49918446,-0.9149183,-0.96504855,0.9398293,-0.828934,-0.27493742,-0.23446967,-0.17680238,0.8115267,-0.9817843,0.45083722,-0.68752384,0.41537458,-0.8942017,-0.8988095,0.9746362,-0.86944896,0.061114978
2025-06-04 18:22:52.677,0.01712735,0.0045137573,-0.062966436,-0.028147226,0.087506756,0.020396778,0.0,0.0,0.0,-0.0133924,0.009743677,0.051928043,0.07408171,-0.081916444,0.009379757,0.03655842,-0.07189076,-0.4817607,-0.031795908,0.13013801,-0.30079517,0.061280902,0.044147767,-0.114435054,0.049389753,0.03297149,0.045275807,-0.08997896,-0.0057798373,-0.018052816,-0.010599939,-0.016205465,-0.018297274,0.07826611,-0.23446967,-0.17680238,0.8115267,-0.9817843,0.45083722,-0.68752384,0.41537458,-0.8942017,-0.8988095,0.9746362,-0.86944896,0.061114978,-0.01884367,0.255509,0.2288528,-0.9365439,-0.23780133,-0.30841377,0.80866283,-0.8898235,-0.5130382,0.98650044,-0.8128885,-0.2372769
2025-06-04 18:22:52.701,-0.045945473,0.007558703,-0.008527583,0.0077343024,0.092862874,0.0421566,0.0,0.0,0.0,-0.013085074,0.0017538845,0.053194534,0.072215036,-0.06531649,0.0067215697,0.04046897,-0.061719283,-0.47015712,-0.037533883,0.13342209,-0.30402297,0.047653433,0.02873698,0.08752906,-0.0030795706,0.05170092,-0.038991842,0.08907057,-0.053029582,0.039153606,0.032061975,-0.041602634,0.03548541,0.04263891,-0.01884367,0.255509,0.2288528,-0.9365439,-0.23780133,-0.30841377,0.80866283,-0.8898235,-0.5130382,0.98650044,-0.8128885,-0.2372769,0.15363193,0.5134348,-0.1609064,-0.74396527,-0.16800302,0.4147773,0.89209604,-0.86242646,-0.18022478,0.92064863,-0.56962436,0.12469758
2025-06-04 18:22:52.718,-0.039531782,-0.14276448,-0.058154404,0.017865477,0.042430613,-0.026006315,0.0,0.0,0.0,-0.012910351,0.016232794,0.07837888,0.05100241,-0.058027055,0.015166544,0.07570712,-0.06011352,-0.47080374,-0.029679999,0.13767986,-0.31592843,0.054990157,-0.0012884506,0.0172578,-0.09585041,-0.046321265,-0.0469123,0.123802096,0.046126343,0.070571154,0.009499252,-0.052774984,-0.027786933,-0.061142847,0.15363193,0.5134348,-0.1609064,-0.74396527,-0.16800302,0.4147773,0.89209604,-0.86242646,-0.18022478,0.92064863,-0.56962436,0.12469758,0.9099469,0.35236868,-0.9371114,-0.587129,-0.44983268,0.9047785,0.6698954,-0.9059233,0.83771783,0.90751106,-0.7381629,-0.39057216
2025-06-04 18:22:52.738,-0.12887211,0.03550063,0.02902437,-0.0650501,0.040023938,-0.034910105,0.0,0.0,0.0,-0.01263626,0.02338942,0.096350476,0.053650044,-0.066442266,-0.011246259,0.118320405,-0.040931668,-0.47679183,0.0052759093,0.15083027,-0.3082781,0.055748265,-0.014178213,0.062104624,-0.049298692,-0.016193205,-0.064723805,0.034049124,0.01809883,0.016171847,0.09309669,-0.03316361,0.056418207,-0.041683666,0.9099469,0.35236868,-0.9371114,-0.587129,-0.44983268,0.9047785,0.6698954,-0.9059233,0.83771783,0.90751106,-0.7381629,-0.39057216,0.9601592,0.45654395,-0.97050184,-0.17639981,-0.41540834,0.9718033,-0.7777928,-0.9606363,0.9789152,0.9890521,-0.5849199,-0.64729035
2025-06-04 18:22:52.758,-0.06317468,0.060582627,0.06931685,0.011527535,0.026905846,-0.02947267,0.0,0.0,0.0,-0.01311729,0.028587334,0.1121512,0.035359062,-0.047521785,-0.052028306,0.13143444,-0.038788795,-0.47995064,0.03640647,0.14217556,-0.30744302,0.06330158,0.012663994,0.07803012,0.011184599,0.018763807,0.014902794,0.10514423,0.057866443,0.02097949,0.13017513,-0.044504914,0.073266536,0.06929707,0.9601592,0.45654395,-0.97050184,-0.17639981,-0.41540834,0.9718033,-0.7777928,-0.9606363,0.9789152,0.9890521,-0.5849199,-0.64729035,0.16004066,0.720942,-0.7955197,-0.5252285,0.32944632,0.23187387,-0.98796993,-0.97121465,-0.047654435,0.9659326,-0.3484496,-0.6701279
2025-06-04 18:22:52.779,-0.00807607,-0.059451528,-0.03947754,-0.03713964,0.100800395,0.010879875,0.0,0.0,0.0,-0.013773596,0.018812673,0.10784266,0.035854567,-0.049838338,-0.018514834,0.1411082,-0.04910287,-0.47555724,0.027777916,0.1508166,-0.29359156,0.05169778,0.014597573,0.039758004,-0.054502066,-0.025642013,0.1250903,-0.029636404,0.030944744,0.086457126,-0.026180059,-0.04467824,0.016893893,-0.017775172,0.16004066,0.720942,-0.7955197,-0.5252285,0.32944632,0.23187387,-0.98796993,-0.97121465,-0.047654435,0.9659326,-0.3484496,-0.6701279,-0.03083887,0.2919713,-0.60501957,-0.83744186,0.08551154,-0.502278,-0.9719787,-0.9657952,-0.93020195,0.92749923,-0.871097,-0.69767153
2025-06-04 18:22:52.800,0.0861601,0.13221538,-0.010379169,0.015819477,0.03824924,0.013772614,0.0,0.0,0.0,-0.0133092925,0.009825079,0.11292257,0.030348495,-0.060164783,-0.0054257116,0.102120794,-0.048885852,-0.47209808,0.0018027747,0.14407696,-0.29757315,0.038376294,-0.019433081,0.05895409,-0.09573516,-0.079327,-0.013769373,-0.13303854,-0.037328586,-0.011944458,-0.10503595,-0.043412562,-0.0404701,-0.044615414,-0.03083887,0.2919713,-0.60501957,-0.83744186,0.08551154,-0.502278,-0.9719787,-0.9657952,-0.93020195,0.92749923,-0.871097,-0.69767153,-0.55791837,-0.1492318,0.2827806,-0.91679,0.17800039,-0.558625,-0.41167542,-0.8836631,-0.9627948,0.9370273,-0.7714548,-0.27914998
2025-06-04 18:22:52.817,0.05704265,0.067033045,-0.031917896,-0.032020014,0.06301415,0.029500635,0.0,0.0,0.0,-0.013246011,0.0005626255,0.09668356,0.04332454,-0.06821964,0.023633474,0.084961474,-0.05603329,-0.4711561,-0.04020131,0.13325423,-0.31531215,0.04407703,0.0009551309,-0.05246913,0.0008900265,-0.07350749,0.05788439,-0.07905588,-0.06735335,-0.04988118,-0.1031421,0.05461777,-0.043289285,0.023111794,-0.55791837,-0.1492318,0.2827806,-0.91679,0.17800039,-0.558625,-0.41167542,-0.8836631,-0.9627948,0.9370273,-0.7714548,-0.27914998,-0.021329312,-0.086359344,0.53777957,-0.96568656,0.22135246,-0.52473897,0.39398283,-0.7998029,-0.8104541,0.93297946,-0.8209834,0.12509796
2025-06-04 18:22:52.838,-0.067126706,-0.082632564,-0.03803088,0.023581704,0.090383485,0.038963966,0.0,0.0,0.0,-0.0132141,0.010789689,0.0796886,0.06268622,-0.062120494,0.015482324,0.057749096,-0.06629838,-0.47404647,-0.039971,0.12960307,-0.3097328,0.038884293,0.060197163,-0.06300715,-0.0019112434,-0.040378697,-0.03525992,-0.0027494386,-0.05923762,-0.0028425318,0.031817175,-0.04066978,-0.06754048,0.0776844,-0.021329312,-0.086359344,0.53777957,-0.96568656,0.22135246,-0.52473897,0.39398283,-0.7998029,-0.8104541,0.93297946,-0.8209834,0.12509796,0.20568234,0.33248585,-0.07154767,-0.90482914,-0.21074079,0.15597978,0.83988285,-0.8369923,-0.36897114,0.96800077,-0.6773777,-0.16250207
2025-06-04 18:22:52.858,-0.058203943,-0.11979895,-0.0006761561,0.04078555,0.032167885,0.036674537,0.0,0.0,0.0,-0.01328072,0.0024152035,0.08085386,0.06062642,-0.06326992,0.022840021,0.07158051,-0.05360003,-0.46227214,-0.049955092,0.13511406,-0.3223226,0.046600234,0.04019317,0.024552936,0.0035290055,-0.023978088,-0.043736387,0.02752366,-0.0050555146,0.0023100039,0.06856265,-0.041928392,0.01601239,0.07174203,0.20568234,0.33248585,-0.07154767,-0.90482914,-0.21074079,0.15597978,0.83988285,-0.8369923,-0.36897114,0.96800077,-0.6773777,-0.16250207,0.8066774,0.25609875,-0.8019291,-0.61732423,-0.4290437,0.8353783,0.80968124,-0.9004851,0.7860055,0.9400354,-0.6270752,-0.064784594
2025-06-04 18:22:52.879,-0.1522079,-0.023832446,0.033347737,-0.030745817,0.10951175,0.03718266,0.0,0.0,0.0,-0.013190743,0.012953839,0.09219857,0.06121448,-0.07089185,-0.0016244828,0.098183155,-0.030409487,-0.48204392,-0.027604103,0.14883374,-0.31949574,0.04452454,0.07856735,-0.04334018,-0.07364769,-0.039422363,-0.07290751,0.09979818,0.012447078,0.040099937,0.1432573,0.09017982,0.039624024,0.050184015,0.8066774,0.25609875,-0.8019291,-0.61732423,-0.4290437,0.8353783,0.80968124,-0.9004851,0.7860055,0.9400354,-0.6270752,-0.064784594,0.9878741,0.27772123,-0.98748106,-0.19492686,-0.4856875,0.9874498,-0.67408025,-0.9503137,0.99512833,0.9950802,-0.62993306,-0.6951504
2025-06-04 18:22:52.901,-0.07063071,0.009720151,-0.03132188,-0.05872055,0.07705993,0.01170172,0.0,0.0,0.0,-0.013635462,0.026258677,0.09872983,0.047962617,-0.061022934,-0.044789035,0.14489481,-0.039627783,-0.47919822,0.020690074,0.15970786,-0.31330967,0.04684594,-0.015484219,-0.006408987,-0.0120405415,0.08167119,-0.075055614,0.017538464,0.009377409,0.045994528,0.041808333,0.019622298,-0.009902026,-0.049003992,0.9878741,0.27772123,-0.98748106,-0.19492686,-0.4856875,0.9874498,-0.67408025,-0.9503137,0.99512833,0.9950802,-0.62993306,-0.6951504,0.46998918,0.77388597,-0.7553129,-0.5073348,0.27287868,0.4195293,-0.9902339,-0.9659281,0.10257039,0.9149555,-0.6522204,-0.8518356
2025-06-04 18:22:52.919,-0.008597738,-0.024218801,-0.015343612,-0.06998162,0.084663756,-0.043836854,0.0,0.0,0.0,-0.014075064,0.03239411,0.106074065,0.026199643,-0.06483445,-0.016349114,0.12875879,-0.036832023,-0.47392073,0.027660303,0.16172844,-0.30305472,0.04206616,0.061078176,0.11114612,0.033916526,0.0053569255,0.054671448,-0.044690136,-0.06454022,-0.049351107,-0.01141158,0.039107453,0.053325765,-0.04681448,0.46998918,0.77388597,-0.7553129,-0.5073348,0.27287868,0.4195293,-0.9902339,-0.9659281,0.10257039,0.9149555,-0.6522204,-0.8518356,-0.36886823,0.29264984,-0.4313558,-0.7984755,0.23143448,-0.69306403,-0.96648,-0.97401386,-0.92470896,0.9578979,-0.7572473,-0.6176065
2025-06-04 18:22:52.939,0.12506072,0.034756757,0.023172587,0.02471981,0.059732515,-0.021861289,0.0,0.0,0.0,-0.014253271,0.017608838,0.105547816,0.03572612,-0.07000079,0.005294705,0.08800011,-0.06236511,-0.4683037,-0.0026247473,0.14688303,-0.3047626,0.04757791,-0.053775333,-0.054435022,0.009309032,-0.08788128,0.083356775,-0.103026055,-0.061200883,-0.05406744,-0.06389345,-0.062404696,0.07108369,-0.03491396,-0.36886823,0.29264984,-0.4313558,-0.7984755,0.23143448,-0.69306403,-0.96648,-0.97401386,-0.92470896,0.9578979,-0.7572473,-0.6176065,-0.5296726,-0.41050336,0.576053,-0.9622967,0.4310015,-0.632319,-0.3111397,-0.92203134,-0.96699864,0.9632938,-0.80136776,-0.025870947
2025-06-04 18:22:52.959,0.096060835,0.013382758,0.009278021,-0.00336639,0.02286861,0.012922361,0.0,0.0,0.0,-0.014181698,0.00389961,0.07201268,0.05279734,-0.06918811,0.023339836,0.07490762,-0.055479955,-0.4716839,-0.03393724,0.13506833,-0.32111076,0.041918043,-0.030472567,-0.12590367,0.13065125,-0.022004923,0.080114454,-0.09826501,0.0009273265,0.024924735,-0.091160774,-0.06875438,-0.08757693,-0.013972775,-0.5296726,-0.41050336,0.576053,-0.9622967,0.4310015,-0.632319,-0.3111397,-0.92203134,-0.96699864,0.9632938,-0.80136776,-0.025870947,0.16385855,-0.20211133,0.64533186,-0.98631465,0.35190287,-0.5417441,0.5534985,-0.86961466,-0.7352771,0.97619504,-0.8741157,0.055159025
