openverse-orca/OrcaGym/log/simulation_log_20250721_131802.csv
timestamp,sim_time,physics_step,control_step,imu_angle_roll,imu_angle_pitch,imu_angle_yaw,imu_angular_velocity_roll,imu_angular_velocity_pitch,imu_angular_velocity_yaw,imu_acc_x,imu_acc_y,imu_acc_z,fl_joint1_pos,fl_joint1_vel,fl_joint1_torque,fl_joint2_pos,fl_joint2_vel,fl_joint2_torque,fl_joint3_pos,fl_joint3_vel,fl_joint3_torque,fr_joint1_pos,fr_joint1_vel,fr_joint1_torque,fr_joint2_pos,fr_joint2_vel,fr_joint2_torque,fr_joint3_pos,fr_joint3_vel,fr_joint3_torque,hl_joint1_pos,hl_joint1_vel,hl_joint1_torque,hl_joint2_pos,hl_joint2_vel,hl_joint2_torque,hl_joint3_pos,hl_joint3_vel,hl_joint3_torque,hr_joint1_pos,hr_joint1_vel,hr_joint1_torque,hr_joint2_pos,hr_joint2_vel,hr_joint2_torque,hr_joint3_pos,hr_joint3_vel,hr_joint3_torque,fl_force_x,fl_force_y,fl_force_z,fr_force_x,fr_force_y,fr_force_z,hl_force_x,hl_force_y,hl_force_z,hr_force_x,hr_force_y,hr_force_z,fl_hip_action,fl_thigh_action,fl_calf_action,fr_hip_action,fr_thigh_action,fr_calf_action,hl_hip_action,hl_thigh_action,hl_calf_action,hr_hip_action,hr_thigh_action,hr_calf_action
2025-07-21 13:18:02.950,0.0,0,0,0.008292445,-0.042680413,-0.006051798,0.020425027,0.005202991,0.017517174,2.0984263,0.3641542,0.0,0.0,0.007939407,0.0023597728,-0.0013722109,0.0021567442,-0.00411273,-0.0065568155,0.004166413,-0.0063192667,-0.0058515323,0.0040896186,-0.0012601349,0.006489408,-0.03710071,0.04299082,-0.052988425,0.055060785,0.0044163805,0.007317881,-0.009615986,0.0017779216,-0.0703354,-0.025661778,-0.003537586,-0.042371925,0.0,0.0,0.0,0.0,0.0,0.0,0.0,0.0,0.0,0.0,0.0,0.0,0.6322108,2.0,-0.5672119,-0.5463736,1.8258673,0.02100198,-0.8193739,0.6452677,0.6211628,0.29601425,0.81764835,0.9138446
2025-07-21 13:18:02.966,0.02,20,1,0.28226304,0.12009044,0.04138983,-0.012107594,0.02377633,-0.038711242,0.0,0.0,0.0,0.0,0.012391418,0.04535568,-0.02139621,-0.009197298,0.03968878,0.0050322255,-0.014547778,0.030525893,0.019800661,0.0016674758,0.051795352,0.023465484,0.016576914,0.16595744,-0.028914465,-0.010659092,0.19724682,0.006034153,-0.061884765,0.05043089,0.036459353,-0.04978121,0.20980468,-0.0006047495,0.6322108,2.0,-0.5672119,-0.5463736,1.8258673,0.02100198,-0.8193739,0.6452677,0.6211628,0.29601425,0.81764835,0.9138446,-0.31295413,-0.15917511,-0.74600893,0.31618816,-1.3324434,-0.46019286,-0.30859154,0.54210794,-0.774268,-0.108393386,0.053211853,-0.55093503
2025-07-21 13:18:02.983,0.04,40,2,-0.023135174,-0.13428533,-0.13196434,-0.06047969,-0.007819811,0.01907708,0.0,0.0,0.0,-0.00016547789,0.010968106,0.048933044,-0.024880925,-0.011577022,0.06856096,-0.019680154,-0.021368358,0.07023724,-0.0072049503,0.009925232,0.06937405,0.0055113514,-0.08485338,-0.037222482,-0.02648035,-0.03279846,0.03516933,-0.051093668,-0.07872082,0.057778116,-0.0021414577,-0.05071499,0.00820263,-0.004311073,-0.31295413,-0.15917511,-0.74600893,0.31618816,-1.3324434,-0.46019286,-0.30859154,0.54210794,-0.774268,-0.108393386,0.053211853,-0.55093503,-0.16513383,-0.6509098,-0.283836,-0.3745133,-0.45883963,0.0162438,0.5453118,-0.19719519,0.15575612,-0.09643978,0.24388182,-0.06693247
2025-07-21 13:18:03.001,0.06,60,3,-0.17865393,-0.07119312,0.0396619,0.018061278,-0.017664073,0.048899777,0.0,0.0,0.0,0.0007095923,0.007903437,0.01766213,-0.03682657,-0.016535759,0.04509248,-0.01592466,-0.0211512,0.05924158,-0.009527004,-0.0014497146,0.07499726,0.008042397,-0.027424777,-0.08566121,0.036525358,0.017467862,-0.07665504,-0.024288744,-0.0024011852,-0.1399897,0.08856412,-0.07673774,0.046354245,0.063578196,-0.16513383,-0.6509098,-0.283836,-0.3745133,-0.45883963,0.0162438,0.5453118,-0.19719519,0.15575612,-0.09643978,0.24388182,-0.06693247,0.35391474,-0.17732996,-0.27499193,-0.20460427,0.040496092,0.023489758,0.1363022,0.6334547,0.5053548,-0.27371958,-0.12547089,0.3619141
2025-07-21 13:18:03.021,0.08,80,4,-0.020410817,-0.08474749,0.064401016,0.027253909,-0.02827865,0.022439782,0.0,0.0,0.0,1.3043724e-05,0.018202567,-0.00015218779,-0.04784615,-0.015247952,0.038263723,-0.015500958,-0.005064737,0.07014585,0.0069098254,-0.015439308,0.056032177,0.00716708,-0.032741513,-0.0025359606,0.004895876,-0.053364005,-0.012512912,0.00908803,-0.05353317,0.044980653,0.104796365,-0.057217486,-0.075847365,0.001108482,0.35391474,-0.17732996,-0.27499193,-0.20460427,0.040496092,0.023489758,0.1363022,0.6334547,0.5053548,-0.27371958,-0.12547089,0.3619141,-0.055877678,0.0032076277,-0.07298823,-0.17907473,-0.4970468,-0.6430085,0.2906579,0.54628444,-0.032970287,-0.35863942,-0.28585526,0.09265584
2025-07-21 13:18:03.041,0.1,100,5,0.094117835,0.006975277,-0.025641037,-0.018703157,0.01571613,-0.037634645,0.0,0.0,0.0,-0.0005030069,0.021035884,-0.0051831286,-0.041153073,-0.019063212,0.0152849,-0.03857591,0.009582471,0.113493614,0.010107257,-0.014696236,0.021146586,0.007736161,0.025761,0.0391039,-0.062550694,0.05381508,-0.10834938,-0.033992168,-0.013444222,0.110401616,0.018407209,-0.018669145,-0.091622636,0.062680855,-0.055877678,0.0032076277,-0.07298823,-0.17907473,-0.4970468,-0.6430085,0.2906579,0.54628444,-0.032970287,-0.35863942,-0.28585526,0.09265584,-0.21967128,-0.27820233,0.1142191,-0.5368734,0.22129476,-0.57855994,0.6205213,0.38300502,-0.1904319,0.08146419,-0.38099012,0.34358102
2025-07-21 13:18:03.066,0.12000000000000001,120,6,0.044463832,-0.002830449,0.06814474,-0.030698063,-0.030025072,-0.032720603,0.0,0.0,0.0,-0.00011125991,0.018973354,-0.022212774,-0.043890387,-0.027106082,0.030454895,-0.050705526,0.023300242,0.11158913,4.7560083e-05,-0.008559371,-0.0074505773,0.027919007,0.006246624,-0.02719654,-0.033950962,-0.02798189,-0.02076589,-0.021469789,0.09637749,0.026384404,-0.0498292,0.03771731,0.0041559204,0.050571784,-0.21967128,-0.27820233,0.1142191,-0.5368734,0.22129476,-0.57855994,0.6205213,0.38300502,-0.1904319,0.08146419,-0.38099012,0.34358102,-0.16254088,-0.20438187,0.2252159,-0.40715945,0.23599018,-0.61325467,0.63270724,0.86310303,-0.31200287,0.025516048,-0.7272747,0.2738682
2025-07-21 13:18:03.083,0.14,140,7,-0.05386555,-0.042581536,-0.11765782,-0.010725353,-0.031022452,0.04681381,0.0,0.0,0.0,-0.00033730618,0.0124232285,-0.02005099,-0.037185702,-0.044866264,0.02781669,-0.047388703,0.03153587,0.15931757,0.00015087675,-0.019577824,-0.030148158,0.022355314,-0.02199302,-0.054440472,0.08096835,-0.030663054,-0.03790171,-0.009703004,0.10127942,0.052957408,-0.082077414,-0.04807672,-0.13324797,0.06334744,-0.16254088,-0.20438187,0.2252159,-0.40715945,0.23599018,-0.61325467,0.63270724,0.86310303,-0.31200287,0.025516048,-0.7272747,0.2738682,-0.3555422,-0.5867567,0.21152832,-0.74444723,0.73339915,-0.4121433,0.70839256,0.5228462,0.30204326,0.5375145,0.28715503,0.55011463
2025-07-21 13:18:03.101,0.16,160,8,0.048291657,-0.0054414086,0.18451895,0.01803086,-0.023147274,-0.042423368,0.0,0.0,0.0,0.00055726845,0.01178664,-0.044986278,-0.020443335,-0.050855245,0.078210935,-0.064261734,0.0525355,0.1640987,-0.0039027813,-0.01020725,-0.028862469,0.027846534,0.05189249,-0.015809227,0.07252939,-0.09946212,0.15275753,0.016944947,0.08742662,-0.023626672,0.05973566,-0.042651378,0.03610126,0.050760224,-0.3555422,-0.5867567,0.21152832,-0.74444723,0.73339915,-0.4121433,0.70839256,0.5228462,0.30204326,0.5375145,0.28715503,0.55011463,0.20095652,0.049960364,0.05742653,-0.2459245,-1.0096139,-0.6682886,0.10731629,0.6972175,-0.16744232,-0.64134467,-0.9339533,-0.12229675
2025-07-21 13:18:03.121,0.18,180,9,0.01446073,-0.11491877,-0.118967324,-0.048840456,0.05016223,0.03297757,0.0,0.0,0.0,-0.0008807351,0.0010668162,-0.04785397,-0.019960493,-0.055562828,0.0574874,-0.06660531,0.044110518,0.19808257,-0.0062900535,-0.028632637,-0.038048707,0.013038219,0.03556016,-0.046819016,-0.08651424,-0.020265272,-0.13471839,-0.051122334,-0.04712381,0.07398187,0.060204804,-0.04052815,-0.030170163,-0.001350699,0.20095652,0.049960364,0.05742653,-0.2459245,-1.0096139,-0.6682886,0.10731629,0.6972175,-0.16744232,-0.64134467,-0.9339533,-0.12229675,-0.43946952,-0.08958191,-0.10309458,-0.6039052,0.40212265,-0.19936179,0.57381564,-0.08899523,0.21158218,0.33015785,0.010274621,0.39268062
2025-07-21 13:18:03.142,0.19999999999999998,200,10,0.10078519,0.019263156,0.122323945,-6.4938875e-05,0.06548123,-0.023263687,0.0,0.0,0.0,-0.00047322767,0.006942323,-0.0576992,-0.029378239,-0.06306568,0.05170101,-0.06683707,0.050929215,0.15458034,-0.0022773435,-0.021109536,-0.028822895,0.0100916475,0.0008545418,0.029303035,0.038587242,-0.07904924,0.06057456,0.07786908,0.0053785024,-0.15911573,-0.041242052,-0.05892161,0.0028973636,-0.003767678,-0.43946952,-0.08958191,-0.10309458,-0.6039052,0.40212265,-0.19936179,0.57381564,-0.08899523,0.21158218,0.33015785,0.010274621,0.39268062,0.12962751,-0.01167177,-0.26487452,-0.2376112,-0.23197387,-0.39071786,0.44358143,0.81178343,0.017377533,-0.5287546,-0.25903603,-0.049697902
2025-07-21 13:18:03.166,0.21999999999999997,220,11,0.0592097,0.0336908,-0.18114202,-0.0079221865,0.07141554,0.016735885,0.0,0.0,0.0,-0.00097304635,0.011048995,-0.042256985,-0.039003816,-0.06179006,0.04434739,-0.058637027,0.050516523,0.16466975,-0.002676731,-0.028433,-0.047993694,0.020002143,0.0716072,-0.04643486,-0.032510996,0.029190747,-0.11345667,-0.01263538,-0.042523287,0.14650503,-0.041684903,0.03358546,0.049119387,-0.08555901,0.12962751,-0.01167177,-0.26487452,-0.2376112,-0.23197387,-0.39071786,0.44358143,0.81178343,0.017377533,-0.5287546,-0.25903603,-0.049697902,-0.70316005,-0.44724223,0.16601631,-0.67097,0.6584966,-0.29493397,0.6527173,-0.18571219,0.3570252,0.35264593,-0.055880398,0.12628877
2025-07-21 13:18:03.183,0.23999999999999996,240,12,-0.1592735,0.09053604,0.24228494,-0.0050591044,-0.0024630765,0.0028450212,0.0,0.0,0.0,0.00034705797,-0.0056945314,-0.056970254,-0.036572013,-0.067917995,0.057165682,-0.06506352,0.054368403,0.16770202,0.010773022,-0.031979688,-0.032253984,0.011939215,0.008211607,-0.0061291424,0.031252936,-0.04036399,0.12603526,-0.045607764,0.03140693,-0.10356687,-0.03216263,0.06831103,-0.033617064,-0.018706148,-0.70316005,-0.44724223,0.16601631,-0.67097,0.6584966,-0.29493397,0.6527173,-0.18571219,0.3570252,0.35264593,-0.055880398,0.12628877,0.6208242,0.2616352,0.06299326,-0.12486029,-0.4064751,-0.79137135,-0.003745162,0.62708473,0.073894136,-0.72854114,-0.43818918,-0.16944325
2025-07-21 13:18:03.202,0.25999999999999995,260,13,0.016156903,-0.10903484,-0.08939789,-0.042590756,-0.020305933,0.019284744,0.0,0.0,0.0,-0.0012525765,0.014299905,-0.06407146,-0.030592717,-0.055974502,0.05503454,-0.06855179,0.052435834,0.15967448,-0.0002771117,-0.044001825,-0.05997788,0.0052556875,0.05965611,0.10828603,0.022175567,-0.05980221,-0.08216751,-0.03022755,-0.076788604,-0.014000589,0.0006493207,-0.03167783,-0.033312514,0.0073134555,0.6208242,0.2616352,0.06299326,-0.12486029,-0.4064751,-0.79137135,-0.003745162,0.62708473,0.073894136,-0.72854114,-0.43818918,-0.16944325,-0.52247834,-0.7138765,-0.10470314,-0.40005735,-0.018863548,-0.24600564,0.75589514,0.4158638,-0.10013946,0.12754302,-0.3863929,0.20271555
2025-07-21 13:18:03.222,0.27999999999999997,280,14,-0.07043226,-0.03393999,0.10045246,0.02789208,0.0007068415,-0.01983549,0.0,0.0,0.0,-0.0013289892,0.0068515027,-0.061272785,-0.036358096,-0.059880234,0.046256136,-0.06898902,0.060979363,0.17562324,0.006948952,-0.038959447,-0.07441991,0.003958409,-0.0714736,-0.043187287,0.015076517,-0.03131732,-0.07700754,0.059653997,-0.00024814814,-0.052356247,0.048921734,0.051099453,-0.08951263,0.08019259,-0.52247834,-0.7138765,-0.10470314,-0.40005735,-0.018863548,-0.24600564,0.75589514,0.4158638,-0.10013946,0.12754302,-0.3863929,0.20271555,0.4588353,0.11157352,0.06851799,-0.338309,0.3678134,-0.7186832,0.3511853,0.5735915,0.32540464,-0.43672034,0.09856808,0.330706
2025-07-21 13:18:03.242,0.3,300,15,0.104406804,0.09851883,0.039360203,-0.017926393,-0.021637699,0.0442632,0.0,0.0,0.0,-0.0023921933,0.016216943,-0.06343988,-0.044800974,-0.06037136,0.053341392,-0.069497794,0.070055336,0.18166111,0.00400803,-0.059278253,-0.06484094,0.0013480537,-0.025306592,0.03789554,0.009018651,0.037662588,0.071326405,-0.04388098,-0.06496438,0.0055732667,0.021288166,0.012994893,0.004212618,0.0005775313,0.4588353,0.11157352,0.06851799,-0.338309,0.3678134,-0.7186832,0.3511853,0.5735915,0.32540464,-0.43672034,0.09856808,0.330706,-0.20899105,-0.3112712,0.13350183,-0.43705973,-0.10344364,-0.8091059,0.41589534,0.5718883,-0.17536023,-0.25009,-0.7571854,-0.01759931
2025-07-21 13:18:03.266,0.32,320,16,-0.06904811,0.08848788,-0.03493969,-0.048437126,0.009862353,0.014496449,0.0,0.0,0.0,-0.004212325,0.018741246,-0.062872194,-0.03908226,-0.057491828,0.04336621,-0.0834383,0.06528416,0.18671799,0.01024354,-0.048812915,-0.07516962,0.0055360375,0.031239579,0.038620144,0.05536387,-0.04777134,0.029658923,0.017589616,-0.06842177,0.0012749287,-0.07183569,-0.04336776,-0.038697246,-0.059800386,-0.20899105,-0.3112712,0.13350183,-0.43705973,-0.10344364,-0.8091059,0.41589534,0.5718883,-0.17536023,-0.25009,-0.7571854,-0.01759931,-0.33857074,-0.45734167,-0.071356416,-0.4763118,0.25523973,-0.43370193,0.5493072,0.46387994,0.13522413,0.1253266,-0.16710845,-0.12365475
2025-07-21 13:18:03.284,0.34,340,17,0.014000155,-0.032112923,0.14390057,-0.0375513,0.036990825,0.021272738,0.0,0.0,0.0,-0.004525231,0.023642462,-0.08125571,-0.025553167,-0.065788366,0.040609185,-0.08937157,0.07467436,0.19729635,0.0124507295,-0.058223844,-0.073738255,-0.00019984767,-0.09155538,0.030704496,0.07325519,-0.07426504,0.041702542,0.013845563,0.056617405,0.053540852,0.0686554,0.082588226,-0.01780681,0.024260687,-0.33857074,-0.45734167,-0.071356416,-0.4763118,0.25523973,-0.43370193,0.5493072,0.46387994,0.13522413,0.1253266,-0.16710845,-0.12365475,0.43721634,0.06179226,0.13704997,-0.29988647,-0.01485217,-0.8919487,0.24193966,0.38593635,0.06611631,-0.39300248,-0.562806,0.0040879883
2025-07-21 13:18:03.302,0.36000000000000004,360,18,0.07897867,-0.08082228,-0.15302512,-0.039735835,-0.006453098,-0.021609265,0.0,0.0,0.0,-0.005950005,0.022707954,-0.076818734,-0.034770243,-0.06236642,0.03376369,-0.099342376,0.06703961,0.17853633,0.005820325,-0.05889216,-0.101469316,-0.0091657825,-0.038147286,-0.0022101765,-0.013592946,0.018252853,-0.06682813,0.03535582,-0.044384386,-0.08307687,0.06655435,-0.01837544,-0.06870821,-0.0084663015,0.43721634,0.06179226,0.13704997,-0.29988647,-0.01485217,-0.8919487,0.24193966,0.38593635,0.06611631,-0.39300248,-0.562806,0.0040879883,-0.4623753,-0.6808921,-0.044246588,-0.6011015,0.4590384,-0.22878952,0.81854177,0.48938262,0.33436245,0.48279715,0.34971955,0.33353817
2025-07-21 13:18:03.322,0.38000000000000006,380,19,0.08370596,0.04737494,0.21212018,-0.008618138,0.01683938,0.03270591,0.0,0.0,0.0,-0.0053658755,0.015097748,-0.09168765,-0.021506036,-0.07769424,0.057683304,-0.09199089,0.06827322,0.1990997,0.010908911,-0.045835584,-0.09483643,0.0014663355,-0.062382516,-0.1276398,-0.053682573,-0.057873663,-0.00720998,0.0555913,0.0934362,-0.027420765,0.071005374,0.052766807,0.07139536,0.05137398,-0.4623753,-0.6808921,-0.044246588,-0.6011015,0.4590384,-0.22878952,0.81854177,0.48938262,0.33436245,0.48279715,0.34971955,0.33353817,0.6218889,0.76274925,0.2589021,-0.112393625,-0.3278735,-0.54344684,0.12444059,0.6174666,0.36555007,-0.7867179,-0.5536753,0.13135083
2025-07-21 13:18:03.342,0.4000000000000001,400,20,0.07459892,-0.04269431,-0.12955678,-0.04379532,-0.008844185,0.0024898862,0.0,0.0,0.0,-0.0066191014,0.030684078,-0.09108314,-0.03548811,-0.054463673,0.045415163,-0.07666948,0.055993825,0.19755158,0.032228567,-0.068043,-0.09590234,0.0032035925,0.006585949,0.11402532,-0.0059877527,0.029903328,-0.12621008,-0.07677183,0.017082257,0.08158077,-0.020861723,-0.008370554,-0.011600108,0.047404844,0.6218889,0.76274925,0.2589021,-0.112393625,-0.3278735,-0.54344684,0.12444059,0.6174666,0.36555007,-0.7867179,-0.5536753,0.13135083,-0.34458807,-0.62270576,0.014903266,-0.7613043,0.47059664,-0.43888044,0.63169754,0.11841188,-0.018506862,0.33232832,-0.38901874,0.13158587
2025-07-21 13:18:03.366,0.4200000000000001,420,21,-0.06509529,0.0016625791,0.16950256,-0.046879422,0.014539264,0.035230454,0.0,0.0,0.0,-0.0065752883,0.039804257,-0.08741256,-0.02694436,-0.068760894,0.046676643,-0.081317686,0.08015625,0.18496953,0.011107831,-0.06514024,-0.09827609,-0.0017915055,-0.08626961,-0.097191274,-0.028124338,-0.051413126,0.14038467,-0.010663784,0.010121331,-0.10915494,0.044284824,0.048005633,0.038820624,0.06672611,-0.34458807,-0.62270576,0.014903266,-0.7613043,0.47059664,-0.43888044,0.63169754,0.11841188,-0.018506862,0.33232832,-0.38901874,0.13158587,0.30128115,0.3663494,0.13337904,-0.36695066,-0.28977254,-0.5967173,0.24930269,0.7861217,0.25023615,-0.47797346,-0.63376594,0.01244754
2025-07-21 13:18:03.383,0.4400000000000001,440,22,0.07026378,-0.08347873,-0.100413784,-0.0010334201,0.060802743,0.047549255,0.0,0.0,0.0,-0.00768968,0.045407046,-0.08838571,-0.03498461,-0.07147949,0.040853485,-0.08352111,0.068734355,0.194198,0.019901833,-0.05935643,-0.12475117,-0.00051261985,0.013974124,-0.029535457,-0.04341708,0.018249957,-0.076129325,0.017808462,0.010026695,0.057264384,0.008225993,0.009129813,-0.015935889,0.008985025,0.30128115,0.3663494,0.13337904,-0.36695066,-0.28977254,-0.5967173,0.24930269,0.7861217,0.25023615,-0.47797346,-0.63376594,0.01244754,-0.24802399,-0.2447919,0.086287156,-0.8093828,0.4444414,-0.57513505,0.6190159,0.31812292,0.2561336,0.37137252,-0.013440995,0.1453644
2025-07-21 13:18:03.402,0.46000000000000013,460,23,0.11264522,-0.012600679,0.08741667,-0.02464848,0.042619456,0.011072671,0.0,0.0,0.0,-0.007268098,0.037038762,-0.08787299,-0.02832376,-0.071520634,0.045469992,-0.08580202,0.07064914,0.18348001,0.034612983,-0.06407082,-0.11714906,-0.003944357,-0.026288595,-0.024727143,-0.0345847,0.022544336,0.0660359,-0.035002567,0.037374657,-0.063402236,-0.0001147561,-0.043371446,0.052343868,-0.024662755,-0.24802399,-0.2447919,0.086287156,-0.8093828,0.4444414,-0.57513505,0.6190159,0.31812292,0.2561336,0.37137252,-0.013440995,0.1453644,0.17544535,0.041705523,-0.21049426,-0.3598551,-0.063656256,-0.6590678,0.46486852,0.6601699,0.116628684,-0.44757766,-0.3958533,-0.2373082
2025-07-21 13:18:03.423,0.48000000000000015,480,24,0.011651711,0.076059505,-0.089390524,0.024971405,-0.0036659676,0.048002437,0.0,0.0,0.0,-0.008050878,0.041727673,-0.07245603,-0.034916855,-0.08115358,0.034427144,-0.08032203,0.0808101,0.20904602,0.015127863,-0.07384924,-0.120783255,-0.01102234,-0.06969186,-0.025853507,0.028545605,0.079739615,-0.07731931,-0.05248029,-0.019230977,0.015249029,0.018942371,-0.0840891,-0.07759898,-0.040778354,0.17544535,0.041705523,-0.21049426,-0.3598551,-0.063656256,-0.6590678,0.46486852,0.6601699,0.116628684,-0.44757766,-0.3958533,-0.2373082,-0.0076926593,-0.2685571,0.16197602,-0.6024318,0.5355416,-0.8070129,0.5381505,0.36431867,0.28871617,0.31287402,0.27076072,0.19487424
2025-07-21 13:18:03.444,0.5000000000000001,500,25,0.03185803,-0.04333743,0.08075429,-0.06621722,0.036416892,0.0043230415,0.0,0.0,0.0,-0.007385138,0.043241553,-0.08134622,-0.02382731,-0.086709745,0.072264396,-0.09854177,0.0734666,0.20154554,0.025699267,-0.050975498,-0.09273185,-0.011082963,0.03146561,-0.036795743,0.05959578,-0.040645972,0.01883337,0.041967534,0.027981468,-0.072827384,0.020543646,0.010857014,0.10691003,-0.006493444,-0.0076926593,-0.2685571,0.16197602,-0.6024318,0.5355416,-0.8070129,0.5381505,0.36431867,0.28871617,0.31287402,0.27076072,0.19487424,0.05908207,0.04691251,-0.168893,-0.21579346,-0.21670939,-0.36323762,0.41426075,0.7524259,0.0539101,-0.50075984,-0.6877949,-0.2105689
2025-07-21 13:18:03.466,0.5200000000000001,520,26,-0.025529826,0.013344828,-0.1405373,0.010689066,0.028592018,0.01798221,0.0,0.0,0.0,-0.008191966,0.046651646,-0.07255852,-0.043808654,-0.06474508,0.052488826,-0.094382904,0.06832336,0.21671537,0.021938559,-0.06151475,-0.10222482,-0.026830696,0.027349913,0.07280532,-0.06647471,-0.04554811,-0.033104688,-0.005616675,-0.021719256,-0.010007164,0.04550753,-0.028346892,-0.05868008,-0.0019101322,0.05908207,0.04691251,-0.168893,-0.21579346,-0.21670939,-0.36323762,0.41426075,0.7524259,0.0539101,-0.50075984,-0.6877949,-0.2105689,-0.30501348,-0.70973164,-0.011937585,-0.69306123,0.5188947,-0.39409226,0.7063228,0.23838112,0.31949088,0.32963568,0.23752576,0.16316825
2025-07-21 13:18:03.483,0.5400000000000001,540,27,-0.006313988,0.019029303,0.2041262,-0.06858759,-0.015577738,0.007611461,0.0,0.0,0.0,-0.0074109174,0.02860942,-0.087188505,-0.042501904,-0.076486565,0.06894139,-0.08332102,0.09503437,0.19813818,0.02672648,-0.061560433,-0.08096852,-0.031132288,-0.014249163,-0.10661665,-0.057015244,-0.018764852,0.0050983364,0.06787422,0.019214258,-0.014226133,0.080158114,-0.04323817,0.10097575,-0.07257317,-0.30501348,-0.70973164,-0.011937585,-0.69306123,0.5188947,-0.39409226,0.7063228,0.23838112,0.31949088,0.32963568,0.23752576,0.16316825,0.41562933,0.67209274,0.18142767,-0.120986655,-0.3282875,-0.59837276,0.08195648,0.49432495,0.42207983,-0.7455231,-0.77929544,-0.14833859
2025-07-21 13:18:03.502,0.5600000000000002,560,28,-0.03630239,0.03234696,-0.11152196,-0.06268848,0.06614178,-0.02720259,0.0,0.0,0.0,-0.008451286,0.038941927,-0.09718892,-0.040665936,-0.0747777,0.050401017,-0.079533584,0.066478394,0.19797775,0.03894315,-0.068939656,-0.09263694,-0.025171375,0.075377904,0.09314023,-0.036629736,-0.0046825567,-0.119417205,0.019213006,-0.090291835,-0.04296265,-0.045130342,-0.09696722,-0.013825088,-0.050415125,0.41562933,0.67209274,0.18142767,-0.120986655,-0.3282875,-0.59837276,0.08195648,0.49432495,0.42207983,-0.7455231,-0.77929544,-0.14833859,-0.32743442,-0.4396879,-0.20148684,-0.49603966,0.45506406,-0.21746857,0.72592175,0.38180062,0.1356622,0.16623077,-0.2802966,-0.0651626
2025-07-21 13:18:03.523,0.5800000000000002,580,29,-0.009616413,0.052008245,0.18155785,0.020842565,-0.0064069745,0.012615428,0.0,0.0,0.0,-0.008114961,0.039142948,-0.09530933,-0.030772367,-0.07370878,0.06502555,-0.08376094,0.07692922,0.1998772,0.021012401,-0.064819306,-0.1068941,-0.02500256,-0.06648014,-0.049762648,-0.072355814,0.049941022,0.051690266,-0.046498854,0.023600567,-0.07160786,-0.012361874,-0.03833733,-0.023527175,0.01454812,-0.32743442,-0.4396879,-0.20148684,-0.49603966,0.45506406,-0.21746857,0.72592175,0.38180062,0.1356622,0.16623077,-0.2802966,-0.0651626,0.6463481,0.326487,0.18689075,-0.32674956,-0.09224439,-0.90736306,0.23812392,0.7159321,0.13108015,-0.5601165,-0.50933194,0.12556043
2025-07-21 13:18:03.545,0.6000000000000002,600,30,0.031098763,-0.12158224,-0.16060798,0.02274191,9.337563e-05,-0.048621897,0.0,0.0,0.0,-0.0089142425,0.047126133,-0.090719946,-0.040375672,-0.0617061,0.04921055,-0.09700421,0.08328066,0.20473121,0.029640755,-0.07331235,-0.10923758,-0.0117512895,0.08560709,0.09274339,0.042216018,0.049237486,-0.024900822,0.045202233,-0.02132241,0.06232415,0.029319499,0.025629258,0.0026661116,0.004235878,0.6463481,0.326487,0.18689075,-0.32674956,-0.09224439,-0.90736306,0.23812392,0.7159321,0.13108015,-0.5601165,-0.50933194,0.12556043,-0.54616016,-0.87477934,0.0070758723,-0.79773295,0.20969588,-0.35131288,0.62391484,0.090488404,0.101482905,0.32932293,-0.35814354,0.061219398
2025-07-21 13:18:03.567,0.6200000000000002,620,31,-0.115231216,0.037247594,0.2014404,0.0023215292,0.04693709,0.046766497,0.0,0.0,0.0,-0.00800193,0.05591376,-0.08987889,-0.023979593,-0.0812984,0.048620198,-0.084990494,0.07973429,0.17996569,0.030743608,-0.059521094,-0.13148741,-0.02799298,-0.079016976,-0.08998117,-0.0020939633,-0.03923102,-0.015912408,-0.004689324,-0.045578722,-0.020278228,-0.03459338,0.08436007,-0.034355067,0.04699746,-0.54616016,-0.87477934,0.0070758723,-0.79773295,0.20969588,-0.35131288,0.62391484,0.090488404,0.101482905,0.32932293,-0.35814354,0.061219398,0.8076583,0.5208104,0.31774703,-0.22652315,0.11195937,-0.8105212,0.18801051,0.35957623,0.3426743,-0.59427387,-0.28633878,0.13417685
2025-07-21 13:18:03.583,0.6400000000000002,640,32,-0.035398245,0.13053435,-0.019848056,-0.042934477,-0.0057195416,0.02273772,0.0,0.0,0.0,-0.008704063,0.050812367,-0.079641536,-0.027961353,-0.0728694,0.060672563,-0.09695378,0.067577004,0.17015189,0.036041427,-0.077711925,-0.12474872,-0.021218618,0.10585851,0.062876254,0.06390082,0.0039090086,0.055815857,-0.06869334,-0.0479157,0.0045724083,0.027656347,0.00038540395,-0.057426192,0.009301301,0.8076583,0.5208104,0.31774703,-0.22652315,0.11195937,-0.8105212,0.18801051,0.35957623,0.3426743,-0.59427387,-0.28633878,0.13417685,-0.061894797,-0.2968016,0.09526846,-0.4468113,-0.06358637,-0.5997173,0.37939373,0.37343428,-0.044256873,-0.11135602,-0.3410202,0.0072010793
2025-07-21 13:18:03.603,0.6600000000000003,660,33,-0.0016827766,0.039609667,0.047681194,-0.047789894,0.0077192592,-0.036939465,0.0,0.0,0.0,-0.009061072,0.06878852,-0.08545534,-0.012890416,-0.06691797,0.05413634,-0.09960458,0.063340746,0.17564748,0.021386629,-0.06676186,-0.12266667,-0.025828863,0.03152393,-0.08667766,-0.018698212,0.038239803,0.015823761,-0.011656985,-0.015414832,-0.049643155,-0.0659805,0.036116,-0.07364552,-0.06566676,-0.061894797,-0.2968016,0.09526846,-0.4468113,-0.06358637,-0.5997173,0.37939373,0.37343428,-0.044256873,-0.11135602,-0.3410202,0.0072010793,0.19127437,0.2004897,0.10422093,-0.41035703,0.11698538,-0.7130638,0.57383436,0.6099978,0.17639777,-0.027865902,0.061843008,0.15178293
2025-07-21 13:18:03.623,0.6800000000000003,680,34,0.15470284,-0.062246326,0.09559285,-0.06295076,0.009743672,0.025897881,0.0,0.0,0.0,-0.009879647,0.06303984,-0.065170646,-0.018378116,-0.07778739,0.049282048,-0.09975288,0.06743551,0.19454923,0.015546725,-0.073315516,-0.11153402,-0.019411702,-0.0560784,0.11242816,0.06720088,-0.042339876,0.014893308,0.014198431,-0.0448877,0.056715082,0.06065736,-0.012540741,0.107546866,0.0474226,0.19127437,0.2004897,0.10422093,-0.41035703,0.11698538,-0.7130638,0.57383436,0.6099978,0.17639777,-0.027865902,0.061843008,0.15178293,0.030898517,-0.2222935,-0.1233554,-0.2878901,-0.16941848,-0.6770959,0.46180284,0.56386197,-0.47498104,-0.44398424,-1.1814471,-0.1138652
2025-07-21 13:18:03.649,0.7000000000000003,700,35,-0.07317695,-0.022344518,-0.06471364,0.0015429123,-0.015870923,-0.0054413364,0.0,0.0,0.0,-0.011423716,0.05931265,-0.061820585,-0.022077559,-0.06740849,0.032767612,-0.09286255,0.06639105,0.19055425,-0.0024653403,-0.07586407,-0.1244142,-0.032435466,-0.028716225,-0.025214458,0.013015973,0.07758738,-0.109267615,-0.006035001,-0.06304472,-0.01697817,-0.066290714,-0.038856585,-0.05646403,-0.019659597,0.030898517,-0.2222935,-0.1233554,-0.2878901,-0.16941848,-0.6770959,0.46180284,0.56386197,-0.47498104,-0.44398424,-1.1814471,-0.1138652,-0.09815153,-0.09499112,0.011592496,-0.6951376,0.5892106,-0.5743947,0.62506264,0.36049944,0.1857431,0.1489272,0.027820857,0.28183168
2025-07-21 13:18:03.666,0.7200000000000003,720,36,0.10640458,-0.050730933,0.1609975,0.0046357145,0.027905244,0.04449502,0.0,0.0,0.0,-0.011844995,0.047344007,-0.07246513,-0.035684824,-0.07512156,0.056948505,-0.10378603,0.08683209,0.18212435,0.017569534,-0.07672511,-0.1178062,-0.0223455,-0.07830623,0.073301576,-0.064203046,0.025812758,0.10283367,0.053708866,-0.015898567,-0.017746184,-0.0018602987,0.06321872,0.062705524,-0.00045664632,-0.09815153,-0.09499112,0.011592496,-0.6951376,0.5892106,-0.5743947,0.62506264,0.36049944,0.1857431,0.1489272,0.027820857,0.28183168,0.24489138,-0.19115356,-0.24428941,-0.3684745,-0.2713754,-0.80974823,0.3232582,0.73298603,-0.38107365,-0.6236371,-0.8364104,-0.26717198
2025-07-21 13:18:03.683,0.7400000000000003,740,37,-0.07786208,-0.06478207,-0.066606775,-0.019101053,0.0038107354,-0.04708484,0.0,0.0,0.0,-0.013210151,0.06344556,-0.06881188,-0.037922956,-0.07595521,0.032148626,-0.09797621,0.0767966,0.21529429,0.0051249196,-0.07880155,-0.13254596,-0.018285986,-0.06107265,-0.016554628,-0.081603885,-0.03489337,-0.11861706,0.042318482,-0.015563379,0.102568366,-0.01008326,-0.050783563,-0.052493878,-0.025900992,0.24489138,-0.19115356,-0.24428941,-0.3684745,-0.2713754,-0.80974823,0.3232582,0.73298603,-0.38107365,-0.6236371,-0.8364104,-0.26717198,-0.19005938,-0.1498648,0.07431063,-0.68320805,0.5752315,-0.63129634,0.5108803,0.06130436,0.24677026,0.30238312,-0.016779123,0.26074135
2025-07-21 13:18:03.703,0.7600000000000003,760,38,0.083417855,-0.023109231,0.14688063,-0.05589727,0.012239859,-0.021265233,0.0,0.0,0.0,-0.013311513,0.046233,-0.062836684,-0.035838913,-0.08202268,0.051164012,-0.103416845,0.08565739,0.18532449,-2.2027385e-05,-0.08446611,-0.12231707,-0.032141738,0.0065827626,-0.034437273,-0.057264484,-0.024714584,0.10554738,0.022586063,0.06841242,0.010386065,0.04051656,-0.058119286,0.036307078,0.044918664,-0.19005938,-0.1498648,0.07431063,-0.68320805,0.5752315,-0.63129634,0.5108803,0.06130436,0.24677026,0.30238312,-0.016779123,0.26074135,0.34001836,0.27228627,0.064836085,-0.37264153,-0.2277817,-0.80151933,0.22360435,0.6879363,0.030809335,-0.39400798,-0.68107826,-0.050385233
2025-07-21 13:18:03.723,0.7800000000000004,780,39,-0.034121662,0.023576774,-0.1688001,-0.025123224,0.044021327,0.0071974546,0.0,0.0,0.0,-0.014640069,0.06004361,-0.056740142,-0.044309497,-0.07007285,0.0505366,-0.09748546,0.065679945,0.19991708,0.002881275,-0.084059335,-0.14241476,-0.020962793,-0.0506519,0.03438715,0.042582747,0.038703542,-0.015414705,0.02492363,0.047302216,0.08142387,0.05835242,0.010904175,-0.035744667,0.06277726,0.34001836,0.27228627,0.064836085,-0.37264153,-0.2277817,-0.80151933,0.22360435,0.6879363,0.030809335,-0.39400798,-0.68107826,-0.050385233,-0.37032428,-0.70754665,0.06817555,-0.714445,0.38248178,-0.4829852,0.5949154,0.30466065,0.16533053,0.34224266,0.129383,0.12352419
2025-07-21 13:18:03.749,0.8000000000000004,800,40,-0.10686185,0.031754483,0.16501352,-0.00055557414,0.059917945,0.02793217,0.0,0.0,0.0,-0.013732728,0.045314487,-0.04943696,-0.021546468,-0.091841236,0.061199665,-0.1067586,0.07280035,0.19933017,0.0031728684,-0.07693745,-0.13729428,-0.034498762,0.006679441,-0.010995757,0.008488376,-0.008556561,0.097495385,-0.03529964,0.061460514,-0.026283313,0.06687715,-0.03549304,0.13134089,-0.06832098,-0.37032428,-0.70754665,0.06817555,-0.714445,0.38248178,-0.4829852,0.5949154,0.30466065,0.16533053,0.34224266,0.129383,0.12352419,0.37683448,-0.04072779,-0.117149696,-0.16171482,-0.535821,-0.72087616,0.1893042,0.5327742,0.076397136,-0.6286511,-0.785163,-0.40912426
2025-07-21 13:18:03.766,0.8200000000000004,820,41,-0.13790427,-0.021211414,-0.083990246,0.0047021653,0.042086225,-0.041897617,0.0,0.0,0.0,-0.015069253,0.052171472,-0.046639964,-0.03690849,-0.06770025,0.021920932,-0.108221404,0.07013172,0.1920329,0.005346926,-0.07944585,-0.13868192,-0.0348852,0.08274406,-0.009039425,-0.070290044,-0.019321628,-0.19797994,-0.03239424,-0.07660742,-0.033252057,0.06714652,-0.0016232562,-0.033732757,0.0038682912,0.37683448,-0.04072779,-0.117149696,-0.16171482,-0.535821,-0.72087616,0.1893042,0.5327742,0.076397136,-0.6286511,-0.785163,-0.40912426,-0.14923167,-0.16052306,-0.06111985,-0.39432442,0.6804339,-0.44882685,0.5678771,0.31599072,0.30264425,0.20291808,0.021539869,0.28606766
2025-07-21 13:18:03.783,0.8400000000000004,840,42,0.07071275,-0.062325623,0.24385169,0.006113911,-0.016361594,-0.037386462,0.0,0.0,0.0,-0.015537104,0.052437637,-0.05082164,-0.034830254,-0.06895359,0.033537876,-0.10037359,0.07696687,0.18152775,0.022947194,-0.070065275,-0.13398246,-0.029991705,-0.067402154,-0.061184347,0.08114364,0.03927187,0.1062203,-0.02489033,-0.045445394,-0.015216362,0.06257697,-0.030629424,-0.004260756,0.014272075,-0.14923167,-0.16052306,-0.06111985,-0.39432442,0.6804339,-0.44882685,0.5678771,0.31599072,0.30264425,0.20291808,0.021539869,0.28606766,0.63842607,0.47337383,0.13131243,-0.20359506,-0.253474,-0.97154397,-0.15997708,0.9957077,0.21196088,-0.5433612,-0.8411435,0.29458785
2025-07-21 13:18:03.804,0.8600000000000004,860,43,0.09576042,-0.15910368,-0.12254035,0.030663187,0.02088425,-0.015094107,0.0,0.0,0.0,-0.017352322,0.05723162,-0.03153592,-0.043146547,-0.07199759,0.021745767,-0.100333825,0.058902904,0.21336916,0.017699547,-0.08586425,-0.14390875,-0.025514184,-0.04035173,0.11026269,-0.01949157,0.08467466,-0.03723332,-0.040757626,-0.068762474,0.09372349,-0.016559863,0.016390175,-0.07960078,-0.0007910023,0.63842607,0.47337383,0.13131243,-0.20359506,-0.253474,-0.97154397,-0.15997708,0.9957077,0.21196088,-0.5433612,-0.8411435,0.29458785,-0.083542906,-0.7755442,-0.15795775,-0.6563971,0.024496984,-0.7147704,0.49399862,0.32257345,-0.34460053,0.0031957924,0.20267758,0.10323954
2025-07-21 13:18:03.824,0.8800000000000004,880,44,-0.0050369957,-0.017723456,0.13594769,0.024555996,0.053106483,-0.04257886,0.0,0.0,0.0,-0.017445467,0.063508555,-0.020851362,-0.026886972,-0.06409808,0.020482784,-0.10451903,0.063077845,0.21220723,0.013671185,-0.076126695,-0.11853911,-0.01614712,0.015582054,-0.02645625,-0.04808309,-0.07935448,0.040544614,0.017517999,0.008263465,-0.054668162,-0.060977258,-0.047130104,0.048504304,0.033451993,-0.083542906,-0.7755442,-0.15795775,-0.6563971,0.024496984,-0.7147704,0.49399862,0.32257345,-0.34460053,0.0031957924,0.20267758,0.10323954,0.19930524,-0.056849983,0.31101057,-0.14162897,0.08713645,-0.64645857,0.5111538,0.7152898,-0.085287206,-0.2909276,-0.95344245,0.12012446
2025-07-21 13:18:03.849,0.9000000000000005,900,45,-0.055875916,0.041372333,-0.06769297,-0.061064065,0.010825634,-0.034390815,0.0,0.0,0.0,-0.018764535,0.058089163,-0.036961865,-0.025248954,-0.05729539,0.016967611,-0.10181858,0.05929763,0.21347697,0.0025291154,-0.075717606,-0.117525995,-0.008496068,0.061820112,-0.049599137,0.086685546,0.07437636,0.01571777,-0.035662636,0.05945817,-0.007471211,-0.020842308,-0.0341555,0.0042996206,0.04765183,0.19930524,-0.056849983,0.31101057,-0.14162897,0.08713645,-0.64645857,0.5111538,0.7152898,-0.085287206,-0.2909276,-0.95344245,0.12012446,-0.2198939,-0.2528826,0.022353671,-0.6411499,0.377183,-0.6291179,0.7024738,0.7087977,0.1013838,0.2244682,-0.27460176,0.15978557
2025-07-21 13:18:03.866,0.9200000000000005,920,46,-0.09550415,-0.00015580498,0.14040066,-0.04428681,-0.022022387,-0.041795507,0.0,0.0,0.0,-0.019076267,0.06493598,-0.029335255,-0.027197814,-0.0781075,0.04187986,-0.10161088,0.07223334,0.24226904,-0.0056849243,-0.061606474,-0.13077824,-0.0064813993,-0.05647146,0.0010593921,-0.056131586,-0.05874845,0.061226342,-0.0376269,0.05201384,0.07941945,0.047171123,0.0066964785,-0.042828005,-0.047487732,-0.2198939,-0.2528826,0.022353671,-0.6411499,0.377183,-0.6291179,0.7024738,0.7087977,0.1013838,0.2244682,-0.27460176,0.15978557,0.6231315,0.051331136,-0.04514573,-0.24992439,-0.21566778,-0.91573507,0.16393709,0.09359233,0.006545387,-0.4804625,-0.32685637,-0.095941246
2025-07-21 13:18:03.884,0.9400000000000005,940,47,-0.088603646,-0.021736726,-0.027587533,0.016506784,-0.017299797,0.014422377,0.0,0.0,0.0,-0.020043079,0.07202681,-0.027636293,-0.02538474,-0.07441378,0.0193236,-0.10622826,0.062158216,0.21239169,0.001981283,-0.06582834,-0.11316963,-0.026789028,0.06359031,-0.018764235,0.03617328,0.062262975,-0.115834884,0.02498192,-0.0051697325,-0.12980627,0.06907255,-0.024877973,-0.038447425,-0.074329585,0.6231315,0.051331136,-0.04514573,-0.24992439,-0.21566778,-0.91573507,0.16393709,0.09359233,0.006545387,-0.4804625,-0.32685637,-0.095941246,-0.038652055,-0.121076286,-0.040638674,-0.25970215,0.4415077,-0.48619288,0.65518713,0.5417076,0.116395645,0.010537177,-0.23441109,0.20854732
2025-07-21 13:18:03.904,0.9600000000000005,960,48,0.033598475,0.0032006213,0.10986634,0.015448435,0.006941486,-0.008683657,0.0,0.0,0.0,-0.020480653,0.058522422,-0.02592946,-0.02560123,-0.07153988,0.040293656,-0.12000984,0.06426198,0.21493149,0.010845056,-0.06390232,-0.12036763,-0.018916875,-0.018964173,-0.051999073,-0.029052932,-0.0021271643,0.09918758,0.08352542,0.07496929,-0.042240195,-0.06582479,0.08838739,-0.029810442,-0.019606454,-0.038652055,-0.121076286,-0.040638674,-0.25970215,0.4415077,-0.48619288,0.65518713,0.5417076,0.116395645,0.010537177,-0.23441109,0.20854732,0.45829368,0.011249397,-0.06216855,-0.31609085,-0.20963444,-0.85865915,0.47749504,0.72334737,-0.17802817,-0.42830643,-0.24863103,0.10960564
2025-07-21 13:18:03.924,0.9800000000000005,980,49,0.036120404,-0.031845775,-0.02923214,-0.0020982486,0.035185505,0.049764574,0.0,0.0,0.0,-0.02149169,0.06604821,-0.034220062,-0.041978087,-0.07001872,0.014218928,-0.10995621,0.0794855,0.23087208,-0.0015265802,-0.06005435,-0.10897,-0.018909309,-0.056830123,0.06657888,0.059314527,-0.06332984,-0.017537747,-0.021974783,-0.033235546,0.003750284,0.003104115,-0.0061866655,-0.025325213,-0.0034378942,0.45829368,0.011249397,-0.06216855,-0.31609085,-0.20963444,-0.85865915,0.47749504,0.72334737,-0.17802817,-0.42830643,-0.24863103,0.10960564,-0.12481796,-0.4517973,-0.13984014,-0.42741272,0.15665378,-0.5891414,0.62701666,0.521011,-0.044168957,-0.06389031,-0.36860085,0.05478761
2025-07-21 13:18:03.950,1.0000000000000004,1000,50,-0.10626129,-0.027767742,0.13322896,0.016688574,0.056675985,0.003769389,0.0,0.0,0.0,-0.02165714,0.05812356,-0.037909377,-0.04246065,-0.058777615,0.021608748,-0.119615786,0.08507407,0.21318929,-0.007066803,-0.07483532,-0.11179727,-0.004835389,-0.030218113,-0.10130663,0.017749783,-0.039211713,-0.061827876,0.051795013,0.013155235,0.05017379,-0.06634917,0.04269273,0.045664877,0.028843582,-0.12481796,-0.4517973,-0.13984014,-0.42741272,0.15665378,-0.5891414,0.62701666,0.521011,-0.044168957,-0.06389031,-0.36860085,0.05478761,0.4813398,0.38832808,0.49706164,-0.41101226,0.49034822,-0.8063713,0.33547434,0.43346655,-0.032171674,-0.25256237,-0.7774482,0.16079587
2025-07-21 13:18:03.966,1.0200000000000005,1020,51,0.033089064,-0.005973482,-0.15135436,-0.02678347,0.06520754,-0.01808338,0.0,0.0,0.0,-0.0222947,0.0610733,-0.043049157,-0.026627924,-0.06840345,0.05087345,-0.11319364,0.07542878,0.22024694,-0.004624175,-0.059286453,-0.13096859,0.0007330388,0.08235145,0.04724292,0.090497024,0.016606301,0.019968783,0.027995266,0.05582325,-0.084770955,-0.06849136,-0.0497771,-0.1428151,0.053110633,0.4813398,0.38832808,0.49706164,-0.41101226,0.49034822,-0.8063713,0.33547434,0.43346655,-0.032171674,-0.25256237,-0.7774482,0.16079587,-0.33615506,-1.0052484,-0.06882277,-0.68054765,0.40417078,-0.4173125,0.8107674,0.546456,-0.017932631,0.20837049,0.36299363,0.3365273
2025-07-21 13:18:03.984,1.0400000000000005,1040,52,0.06353832,0.09787393,0.12937585,-0.033919618,0.041331545,0.038837437,0.0,0.0,0.0,-0.021581674,0.056178994,-0.046437353,-0.031500522,-0.07835616,0.06683365,-0.104593225,0.078909814,0.21212626,-0.002065699,-0.06185046,-0.13590476,0.0036177412,-0.08555166,0.016582798,-0.067445315,-0.0847879,0.024039408,-0.051821753,-0.003878919,-0.017802248,-0.06437036,0.057525735,0.04459721,-0.054043073,-0.33615506,-1.0052484,-0.06882277,-0.68054765,0.40417078,-0.4173125,0.8107674,0.546456,-0.017932631,0.20837049,0.36299363,0.3365273,0.37869254,-0.2604333,-0.18337758,-0.02082422,-0.1820029,-0.7219257,0.4669256,0.53706986,-0.15373796,-0.6971849,-0.18804473,-0.15619127
2025-07-21 13:18:04.004,1.0600000000000005,1060,53,-0.018084276,-0.008669811,-0.00549727,0.002139677,0.057196483,-0.02873207,0.0,0.0,0.0,-0.022000007,0.07299584,-0.049068637,-0.032537155,-0.07091196,0.062295284,-0.106229536,0.08663671,0.22282742,-0.0015226497,-0.061811674,-0.119949356,-0.0127214985,0.0045977696,-0.05436887,0.050494306,0.029943746,-0.09459952,-0.0018971454,-0.042344995,0.0591305,-0.06531947,0.031524356,0.019996587,0.0505504,0.37869254,-0.2604333,-0.18337758,-0.02082422,-0.1820029,-0.7219257,0.4669256,0.53706986,-0.15373796,-0.6971849,-0.18804473,-0.15619127,-0.032061838,0.054423545,0.26816303,-0.5067316,0.4661614,-0.7424507,0.49188548,0.2567085,0.025113933,0.14014006,-0.47625557,0.27503473
2025-07-21 13:18:04.025,1.0800000000000005,1080,54,-0.004491214,0.014306409,0.017191708,-0.038479425,-0.0034589488,-0.027431909,0.0,0.0,0.0,-0.023098966,0.069499224,-0.040265482,-0.02661081,-0.05887907,0.066319354,-0.10410613,0.07411595,0.20451362,-0.007863233,-0.077851,-0.12160959,-0.009313935,0.027689494,0.09005414,-0.053374905,-0.023982352,0.027125971,-0.009010281,-0.046509624,-0.10434363,0.030690866,-0.042922743,-0.020686263,0.06436834,-0.032061838,0.054423545,0.26816303,-0.5067316,0.4661614,-0.7424507,0.49188548,0.2567085,0.025113933,0.14014006,-0.47625557,0.27503473,-0.08449411,-0.52576715,-0.23904674,-0.39224765,0.013698842,-0.67743224,0.72552043,0.69549996,-0.321641,-0.35962957,-0.4052556,-0.020246502
2025-07-21 13:18:04.049,1.1000000000000005,1100,55,-0.08108146,0.08022643,0.008458685,-0.030238086,0.06537571,-0.042137418,0.0,0.0,0.0,-0.023094354,0.06267574,-0.056116026,-0.030535582,-0.068233386,0.060629167,-0.10926007,0.081771754,0.20385152,-0.017105768,-0.077590406,-0.12478854,-0.005861094,-0.01721528,-0.12453258,-0.06596297,-0.02739035,-0.06140495,0.053058907,-0.007712353,0.03565288,0.03568089,-0.06410908,0.0025869287,-0.06155104,-0.08449411,-0.52576715,-0.23904674,-0.39224765,0.013698842,-0.67743224,0.72552043,0.69549996,-0.321641,-0.35962957,-0.4052556,-0.020246502,0.1066126,0.14457804,0.1566842,-0.37485495,0.3761837,-0.54368436,0.46350703,0.28254277,0.2495262,0.053044856,-0.09252125,0.14789635
2025-07-21 13:18:04.066,1.1200000000000006,1120,56,0.09941824,-0.05033248,0.008599497,0.011545369,0.0034345002,-0.02046388,0.0,0.0,0.0,-0.02301136,0.05603994,-0.06220294,-0.02874578,-0.072613254,0.07992076,-0.103332594,0.0891215,0.20191368,0.0046735015,-0.07394153,-0.12505227,-0.016749315,-0.0131299915,0.09799451,-0.06807654,-0.055034503,-0.026667861,-0.050734796,-0.001416353,0.015125289,-0.028880779,-0.033218503,0.036103714,-0.057772145,0.1066126,0.14457804,0.1566842,-0.37485495,0.3761837,-0.54368436,0.46350703,0.28254277,0.2495262,0.053044856,-0.09252125,0.14789635,0.051619984,-0.4565732,-0.32045212,-0.40171477,0.12505513,-0.7759691,0.616729,0.4116504,-0.31781673,-0.37347695,-0.32408458,-0.22933942
2025-07-21 13:18:04.085,1.1400000000000006,1140,57,-0.014436808,0.020426502,0.014005729,-0.020769596,-0.007878173,-0.03765027,0.0,0.0,0.0,-0.024113156,0.063462004,-0.067290716,-0.036770888,-0.075681366,0.06634371,-0.105671056,0.079903424,0.19868028,-0.00075038313,-0.06488513,-0.12127171,-0.020077623,-0.054482695,-0.045239676,-0.018672075,-0.013001423,-0.0028426978,-0.06749661,0.064560615,-0.05959845,-0.0824345,-0.019078862,-0.04577618,-0.034425613,0.051619984,-0.4565732,-0.32045212,-0.40171477,0.12505513,-0.7759691,0.616729,0.4116504,-0.31781673,-0.37347695,-0.32408458,-0.22933942,0.02948535,-0.18396866,0.21478514,-0.34574857,0.3148727,-0.68819207,0.63426346,0.6697681,0.0015082285,0.16879697,-0.025792925,0.2210496
2025-07-21 13:18:04.105,1.1600000000000006,1160,58,0.09981808,-0.093472876,0.029324636,-0.01045956,-0.018332137,-0.015918376,0.0,0.0,0.0,-0.024642026,0.059619114,-0.08468631,-0.02675138,-0.06843549,0.07319677,-0.11189199,0.10120477,0.19925241,-0.016720928,-0.071876846,-0.094862945,-0.024775194,-0.049047936,0.054462317,0.053141072,0.07402251,0.06280864,0.00480152,0.016128203,-0.027413124,-0.04987083,0.0024018786,0.052521646,-0.06486977,0.02948535,-0.18396866,0.21478514,-0.34574857,0.3148727,-0.68819207,0.63426346,0.6697681,0.0015082285,0.16879697,-0.025792925,0.2210496,0.041842155,-0.4072251,-0.35683447,-0.41367716,-0.20103444,-0.72045726,0.50229126,0.5202548,-0.29606557,-0.49956042,-0.5233059,-0.23181987
2025-07-21 13:18:04.125,1.1800000000000006,1180,59,-0.066875756,-0.014601814,-0.023437185,0.032609906,0.06412862,0.0060453285,0.0,0.0,0.0,-0.025725696,0.049794827,-0.08663306,-0.039195836,-0.074751586,0.054647952,-0.107080154,0.09677405,0.20551495,-0.008784619,-0.07259727,-0.123273104,-0.02545675,0.05105222,-0.08685082,0.051562365,0.056508806,-0.12346779,-0.0074935863,-0.07049179,0.07429299,0.0053413445,-0.04424091,-0.048827913,-0.07379349,0.041842155,-0.4072251,-0.35683447,-0.41367716,-0.20103444,-0.72045726,0.50229126,0.5202548,-0.29606557,-0.49956042,-0.5233059,-0.23181987,0.1277613,0.15688717,0.10670605,-0.5678094,0.37363014,-0.6665145,0.2757415,-0.028898032,0.3423948,0.09665388,-0.018449722,0.21770313
2025-07-21 13:18:04.149,1.2000000000000006,1200,60,0.033600066,-0.07820266,0.09528358,0.020560177,0.020535462,0.04226313,0.0,0.0,0.0,-0.026512086,0.054358106,-0.072960064,-0.03322419,-0.059794396,0.07168871,-0.11063555,0.076085284,0.18178822,-0.005399229,-0.058853213,-0.11318249,-0.024708135,-0.016185816,0.010725812,-0.056449626,0.03301791,0.055737644,-0.05575606,0.029658489,-0.09756915,0.07668472,-0.02814618,-0.012575641,0.05143413,0.1277613,0.15688717,0.10670605,-0.5678094,0.37363014,-0.6665145,0.2757415,-0.028898032,0.3423948,0.09665388,-0.018449722,0.21770313,0.37446177,0.024324078,-0.013875838,-0.37253377,-0.13092601,-0.74262154,0.38384536,0.7785444,-0.042159356,-0.42275572,-0.40729615,0.101226866
2025-07-21 13:18:04.166,1.2200000000000006,1220,61,0.01228982,-0.05990458,-0.10481684,-0.024264887,-0.013390116,-0.039272476,0.0,0.0,0.0,-0.02737048,0.050171867,-0.060889166,-0.04408952,-0.07468228,0.041674927,-0.11681431,0.07301509,0.19962631,-0.011831215,-0.08157351,-0.10177211,-0.020391395,0.04590234,0.0560377,0.05216072,-0.070307516,-0.06029163,-0.020316241,-0.0032819328,0.053583648,-0.03232062,0.029609723,-0.06669297,-0.03781619,0.37446177,0.024324078,-0.013875838,-0.37253377,-0.13092601,-0.74262154,0.38384536,0.7785444,-0.042159356,-0.42275572,-0.40729615,0.101226866,-0.27899528,-0.4523954,-0.09948467,-0.56490564,0.40320936,-0.5276838,0.6575837,0.46342692,0.2253569,0.24193954,0.037405163,0.056723956
2025-07-21 13:18:04.185,1.2400000000000007,1240,62,-0.047682222,0.014459759,0.17971197,0.0066993227,0.04663159,-0.037186515,0.0,0.0,0.0,-0.025714956,0.05301816,-0.08596471,-0.03041299,-0.07931793,0.059137084,-0.09913852,0.081499375,0.1877144,-0.0021396857,-0.06910838,-0.097169384,-0.010755882,0.023602001,0.002660766,-0.05681903,0.052158788,0.109944984,-0.018078098,-0.057120733,-0.06269285,-0.058123555,0.0028614546,0.019072318,0.0072786375,-0.27899528,-0.4523954,-0.09948467,-0.56490564,0.40320936,-0.5276838,0.6575837,0.46342692,0.2253569,0.24193954,0.037405163,0.056723956,0.40273708,0.108000934,-0.01813225,-0.25483218,-0.17647167,-0.7793866,0.20431183,0.88911366,0.04300905,-0.5835689,-0.78621197,-0.12385076
2025-07-21 13:18:04.205,1.2600000000000007,1260,63,-0.034009065,-0.041343182,-0.1403937,-0.028787462,-0.0075168954,0.00069948786,0.0,0.0,0.0,-0.026945388,0.058948003,-0.0662188,-0.04192104,-0.0639351,0.051353674,-0.11560531,0.069211006,0.22010942,0.00228197,-0.072946124,-0.10234694,-0.024939166,0.015560967,0.033593614,0.054498687,0.084074855,-0.12332228,0.049302112,0.040120758,0.14174308,-0.033960793,-0.037423864,-0.077835344,0.010238118,0.40273708,0.108000934,-0.01813225,-0.25483218,-0.17647167,-0.7793866,0.20431183,0.88911366,0.04300905,-0.5835689,-0.78621197,-0.12385076,-0.16287968,-0.34831458,0.07253283,-0.7964723,0.6265096,-0.696967,0.5381143,0.23149326,0.20069408,0.3483613,0.034850627,0.25619203
2025-07-21 13:18:04.234,1.2800000000000007,1280,64,-0.0651465,0.023342539,0.19443157,0.0019552277,0.035366986,-0.022318646,0.0,0.0,0.0,-0.026701357,0.048842724,-0.08017184,-0.035256393,-0.07423004,0.07992914,-0.1079945,0.086751945,0.20032798,0.0065959254,-0.06044471,-0.11167522,-0.011261888,-0.05867674,-0.07888421,0.010807362,-0.040526025,0.16141628,-0.034441035,0.06142765,0.0070826765,-0.03539022,0.01673374,0.026074462,-0.01930429,-0.16287968,-0.34831458,0.07253283,-0.7964723,0.6265096,-0.696967,0.5381143,0.23149326,0.20069408,0.3483613,0.034850627,0.25619203,0.43831784,0.37377763,0.21292402,-0.375329,-0.6074715,-0.80615526,0.07650217,0.53855044,0.12715557,-0.35046455,-0.76542836,-0.22332177
2025-07-21 13:18:04.249,1.3000000000000007,1300,65,-0.052102074,-0.01893482,-0.116152465,-0.03650439,-0.006001797,-0.042580567,0.0,0.0,0.0,-0.027798401,0.056369346,-0.05501154,-0.04571459,-0.06569086,0.03927179,-0.10959117,0.06402486,0.2098314,0.007433348,-0.06666859,-0.124936774,-0.027722156,-0.022127576,0.03303805,-0.030844824,-0.037562747,-0.15597685,0.02270715,-0.09415071,0.015077997,0.071312256,-0.004068834,-0.04936191,-0.053770434,0.43831784,0.37377763,0.21292402,-0.375329,-0.6074715,-0.80615526,0.07650217,0.53855044,0.12715557,-0.35046455,-0.76542836,-0.22332177,-0.17010398,-0.3406665,-0.28075546,-0.45156303,0.46979192,-0.26404184,0.6723488,0.32942966,0.27557066,0.2298404,0.1580914,-0.034492698
2025-07-21 13:18:04.266,1.3200000000000007,1320,66,0.040261105,0.033523608,0.13980484,0.030764095,0.0280402,-0.049376816,0.0,0.0,0.0,-0.0272169,0.058771625,-0.04989548,-0.03923907,-0.07915831,0.050671022,-0.101793565,0.07091898,0.19628756,0.0172488,-0.06681616,-0.11184486,-0.0194934,-0.014596304,-0.053660214,-0.08009629,-0.05004931,0.12699212,0.06517461,-0.044351466,-0.051525295,-0.01746672,-0.010697426,0.1427207,0.05632907,-0.17010398,-0.3406665,-0.28075546,-0.45156303,0.46979192,-0.26404184,0.6723488,0.32942966,0.27557066,0.2298404,0.1580914,-0.034492698,0.12734511,0.09904747,0.22156848,-0.2806789,-0.39796913,-0.761692,0.3904009,0.912675,-0.09425644,-0.35964203,-0.8529861,-0.31316733
2025-07-21 13:18:04.286,1.3400000000000007,1340,67,0.06710652,0.04106168,-0.1275026,0.0027083212,0.05260179,-0.032719985,0.0,0.0,0.0,-0.028176079,0.04877221,-0.047776956,-0.03515862,-0.067818865,0.03217272,-0.09708546,0.068881474,0.21465462,0.017348904,-0.05861649,-0.105152205,-0.03525485,0.071577094,-0.027740877,-0.030120412,-0.023366017,-0.16875486,0.052687116,-0.053337652,0.058090784,0.048400573,-0.014850304,-0.045772657,0.030379916,0.12734511,0.09904747,0.22156848,-0.2806789,-0.39796913,-0.761692,0.3904009,0.912675,-0.09425644,-0.35964203,-0.8529861,-0.31316733,-0.16286764,-0.16695845,-0.1644394,-0.5171575,0.74703264,-0.3412252,0.6750561,0.22821885,0.31069717,0.2153388,0.020457001,0.102800086
2025-07-21 13:18:04.306,1.3600000000000008,1360,68,0.06245033,0.031969827,0.20074019,-0.0067819823,0.028776787,-4.3378786e-06,0.0,0.0,0.0,-0.028203508,0.048347022,-0.054829724,-0.028325776,-0.06464118,0.038743004,-0.10331161,0.079639696,0.2132243,0.017744325,-0.059567895,-0.10422862,-0.04389038,-0.01597446,0.043764006,0.025598569,-0.020013725,0.14524119,0.026452493,0.05323759,-0.03360526,0.076119535,0.09292005,-0.018636167,0.03140864,-0.16286764,-0.16695845,-0.1644394,-0.5171575,0.74703264,-0.3412252,0.6750561,0.22821885,0.31069717,0.2153388,0.020457001,0.102800086,0.5729652,0.048373614,-0.024539921,-0.1955032,-0.37535986,-0.9801044,0.07241971,0.8926505,-0.061262257,-0.6460657,-0.64816475,0.039042834
2025-07-21 13:18:04.328,1.3800000000000008,1380,69,0.029351583,-0.0667108,-0.108830355,0.012231314,0.02741292,0.023768691,0.0,0.0,0.0,-0.029687306,0.05777964,-0.048806895,-0.030900877,-0.058403313,0.034640193,-0.09664188,0.064188585,0.23836102,0.010909037,-0.06474603,-0.10962671,-0.031791616,-0.040479176,-0.011329154,0.055474337,-0.0074958922,-0.10355026,-0.023113478,0.023044601,0.008147386,0.027071124,-0.004026718,-0.005592048,0.050860543,0.5729652,0.048373614,-0.024539921,-0.1955032,-0.37535986,-0.9801044,0.07241971,0.8926505,-0.061262257,-0.6460657,-0.64816475,0.039042834,-0.30040395,-0.31820238,-0.016745511,-0.53826976,0.45424202,-0.55869675,0.70458066,0.49795282,0.09346145,0.29040134,-0.26208645,0.2898066
2025-07-21 13:18:04.349,1.4000000000000008,1400,70,-0.039041206,-0.01244701,0.18991642,-0.06513631,-0.020569818,-0.04058417,0.0,0.0,0.0,-0.029120654,0.05119103,-0.049717937,-0.042855628,-0.059475932,0.056873918,-0.104333565,0.06702696,0.21789867,0.007029409,-0.06945901,-0.112080544,-0.019641105,-0.039407115,-0.03461965,-0.032947503,-0.019236116,0.0020315018,0.049091544,0.0060397987,-0.066779,-0.005785055,-0.02382059,0.0099741705,-0.010352133,-0.30040395,-0.31820238,-0.016745511,-0.53826976,0.45424202,-0.55869675,0.70458066,0.49795282,0.09346145,0.29040134,-0.26208645,0.2898066,0.6330119,0.4313324,0.0061816573,-0.11424514,0.11114533,-0.7196614,0.19719318,0.74402,-0.06719086,-0.7197943,-0.7098277,0.10221255
2025-07-21 13:18:04.366,1.4200000000000008,1420,71,-0.055181585,-0.043804877,-0.11948332,-0.00621064,-0.0017815661,0.0075440905,0.0,0.0,0.0,-0.030217253,0.060263697,-0.029653145,-0.03809897,-0.06275923,0.047732357,-0.110448316,0.057228815,0.23944685,0.0025048133,-0.066683136,-0.13627502,-0.022102555,-0.052392844,0.10673113,-0.025958303,0.08447625,0.016899351,0.0008312967,0.010008849,-0.009727255,-0.03492372,0.026270369,-0.014022555,-0.043415535,0.6330119,0.4313324,0.0061816573,-0.11424514,0.11114533,-0.7196614,0.19719318,0.74402,-0.06719086,-0.7197943,-0.7098277,0.10221255,-0.30103204,-0.95305014,-0.19737141,-0.6734041,0.006319549,-0.6323599,0.78638846,0.3633429,-0.35378906,-0.016767815,-0.038778514,-0.027963039
2025-07-21 13:18:04.386,1.4400000000000008,1440,72,-0.00914981,0.01178682,0.11660388,-0.039912578,0.047053088,-0.006570986,0.0,0.0,0.0,-0.029893458,0.05866519,-0.021519613,-0.044239134,-0.0764211,0.045738682,-0.10390357,0.07142543,0.21958053,0.0077522984,-0.06856645,-0.116422065,-0.026301473,-0.042439435,-0.081288405,0.015766762,-0.09700088,0.0527004,0.060952,0.04540986,-0.1003607,-0.028316477,-0.044555735,0.027959276,0.02909467,-0.30103204,-0.95305014,-0.19737141,-0.6734041,0.006319549,-0.6323599,0.78638846,0.3633429,-0.35378906,-0.016767815,-0.038778514,-0.027963039,0.25493628,-0.010777768,0.33478943,-0.050466444,-0.029559154,-0.6132223,0.54542017,0.73065394,0.09569573,-0.30061248,-0.6134398,0.17842638
2025-07-21 13:18:04.406,1.4600000000000009,1460,73,0.069892466,-0.016637566,-0.15671052,0.02984008,-0.0029891483,0.010178709,0.0,0.0,0.0,-0.030860554,0.05810402,-0.03760766,-0.03590915,-0.06461791,0.043963138,-0.11007866,0.07477533,0.23143713,-0.005720769,-0.08234066,-0.1407737,-0.02433048,-0.029366503,0.06310127,0.059770435,0.016057283,-0.047627375,-0.050250527,0.0026411212,0.05143796,-0.026818573,0.012129556,-0.08014423,-0.010561912,0.25493628,-0.010777768,0.33478943,-0.050466444,-0.029559154,-0.6132223,0.54542017,0.73065394,0.09569573,-0.30061248,-0.6134398,0.17842638,-0.10530821,-0.6177214,-0.19650285,-0.6299819,0.43447176,-0.53856146,0.5955565,0.33933628,0.22361943,0.08917078,0.3132324,0.06970328
2025-07-21 13:18:04.433,1.4800000000000009,1480,74,0.06652426,0.04251431,0.16988268,-0.018866347,0.043152016,-0.045061752,1.5,0.0,0.0,-0.030311495,0.062584236,-0.060749356,-0.03304695,-0.06647373,0.053652585,-0.09606125,0.07886413,0.21722734,0.0012624052,-0.074146464,-0.10861846,-0.013671916,-0.041049287,-0.13980986,-0.026113015,0.0030122004,0.1299084,0.03994678,0.0721149,-0.06561741,0.020536378,0.010487121,0.17157716,0.0028813898,-0.10530821,-0.6177214,-0.19650285,-0.6299819,0.43447176,-0.53856146,0.5955565,0.33933628,0.22361943,0.08917078,0.3132324,0.06970328,0.594528,2.0,0.9413189,-0.14598337,0.49871027,-0.70788187,-0.4239466,0.82789433,0.00077512115,0.5347588,-1.280934,1.0873331
2025-07-21 13:18:04.449,1.5000000000000009,1500,75,0.051617157,-0.2369529,-0.15434942,0.002993505,0.083771236,-0.0092253415,1.5,0.0,0.0,-0.031402417,0.07356127,-0.07854349,-0.025011357,-0.05293992,0.08512797,-0.106197104,0.062385328,0.24163437,0.011707647,-0.059163336,-0.11883391,-0.00092453364,0.07276138,0.043237742,0.0035471192,0.07897931,-0.0062252143,-0.0060743755,-0.10105558,0.09859041,-0.04477563,0.09138055,0.002251901,0.02793852,0.594528,2.0,0.9413189,-0.14598337,0.49871027,-0.70788187,-0.4239466,0.82789433,0.00077512115,0.5347588,-1.280934,1.0873331,-0.48008958,0.92202353,0.8502287,-1.751961,0.86075526,-1.4934778,0.3361821,0.47291264,-0.5997689,0.7442237,0.4500868,1.3764307
2025-07-21 13:18:04.467,1.520000000000001,1520,76,0.216909,-0.07170365,0.1012159,0.020239154,0.013329321,0.027596842,1.5,0.0,0.0,-0.030947879,0.06529216,-0.044660438,-0.007070436,-0.089405306,0.12212645,-0.13257039,0.05809418,0.23224825,-0.007790675,-0.052166756,-0.10887406,0.038680457,-0.008051739,0.08714234,0.025748523,-0.13861933,0.07661559,-0.089435086,-0.07056764,-0.025429823,-0.07975444,-0.0022104462,0.017251456,0.09836289,-0.48008958,0.92202353,0.8502287,-1.751961,0.86075526,-1.4934778,0.3361821,0.47291264,-0.5997689,0.7442237,0.4500868,1.3764307,0.27098978,0.7803165,1.0036831,-0.6311173,-0.6364027,-1.0398344,0.7477342,-0.25604305,-1.2783761,-0.015353024,-0.9169576,1.6847652
2025-07-21 13:18:04.487,1.540000000000001,1540,77,-0.043492965,-0.04549812,-0.06771826,-0.017309824,0.07927724,0.0019130793,1.5,0.0,0.0,-0.031431362,0.0809318,0.007072766,0.016878566,-0.09498474,0.11314809,-0.13157634,0.06827779,0.21324828,-0.0431364,-0.04731311,-0.12563498,0.07272492,0.052278113,0.18417536,0.037149027,-0.062017076,-0.15082328,0.026649725,-0.006273899,-0.11154058,-0.02771629,-0.022190707,-0.14586425,0.07182679,0.27098978,0.7803165,1.0036831,-0.6311173,-0.6364027,-1.0398344,0.7477342,-0.25604305,-1.2783761,-0.015353024,-0.9169576,1.6847652,-0.36748195,0.75068676,0.8144959,-0.28664887,-0.9435815,-0.75636715,1.427132,-1.3347636,-0.8415354,0.8347975,1.3647107,1.4987022
2025-07-21 13:18:04.507,1.560000000000001,1560,78,0.06706792,-0.06045251,0.12898397,-0.028976398,0.030520605,0.008038311,1.5,0.0,0.0,-0.030986946,0.055618025,0.05323587,0.026259646,-0.08252449,0.017621532,-0.12273053,0.107103184,0.13321994,-0.04354211,-0.019776322,-0.09713227,0.09040851,-0.008306066,0.048569497,-0.038150474,0.037765533,-0.24570706,-0.016223231,0.043393753,-0.2637086,0.040427163,0.10554752,0.10822307,-0.016426694,-0.36748195,0.75068676,0.8144959,-0.28664887,-0.9435815,-0.75636715,1.427132,-1.3347636,-0.8415354,0.8347975,1.3647107,1.4987022,0.70095354,1.9327124,0.24680696,0.056797203,-0.5245317,0.3149345,-0.11971723,-1.3367745,-0.29067653,-0.021050721,0.3139715,1.3680707
2025-07-21 13:18:04.532,1.580000000000001,1580,79,-0.10922694,0.18144989,0.15085979,-0.026816882,0.06819135,-0.04092278,1.5,0.0,0.0,-0.030709593,0.06544029,0.11548099,0.019023595,-0.08243067,-0.01666583,-0.09274901,0.087641284,0.05918659,-0.053952225,-0.024702193,-0.06361598,0.111029595,0.08990727,0.13810119,0.045337852,0.015600235,-0.1692225,0.100043155,-0.0647671,-0.3063023,-0.020709177,-0.075401664,0.084647186,0.06690841,0.70095354,1.9327124,0.24680696,0.056797203,-0.5245317,0.3149345,-0.11971723,-1.3367745,-0.29067653,-0.021050721,0.3139715,1.3680707,1.1342036,1.4124292,-0.23962758,0.51701885,0.10743192,1.1518158,-0.64100754,0.2121999,0.44787,-1.108314,1.2689457,0.8975686
2025-07-21 13:18:04.549,1.600000000000001,1600,80,0.059059147,0.34474325,0.088949695,-0.042853672,0.030405069,-0.0007433063,1.5,0.0,0.0,-0.032746322,0.08615139,0.20660527,0.011828138,-0.039187003,-0.012865003,-0.044939905,0.06102584,0.031130537,-0.039544392,-0.060390804,0.0064165615,0.10754291,0.12362492,0.12798996,-0.04120175,0.11427197,-0.015123561,0.16016714,-0.07823098,-0.03353336,0.09150994,-0.038812857,0.22978386,0.027762331,1.1342036,1.4124292,-0.23962758,0.51701885,0.10743192,1.1518158,-0.64100754,0.2121999,0.44787,-1.108314,1.2689457,0.8975686,1.132723,-0.562796,-1.2050579,1.251899,0.5680107,1.7947173,-1.7169096,0.48693383,1.2958032,-1.173177,1.2014097,-0.39575177
2025-07-21 13:18:04.567,1.620000000000001,1620,81,-0.047676187,0.5514252,-0.001798307,-0.043828897,-0.05126138,0.019736987,1.5,0.0,0.0,-0.03435738,0.10494715,0.21980162,-0.014080416,2.0817273e-05,0.027073152,0.006141014,0.02126612,0.048287056,-0.002958976,-0.09657966,0.08001873,0.07140244,0.04722969,-0.06598385,-0.13247393,0.06760149,0.029760063,0.052422468,-0.089900374,0.11004169,0.01755939,-0.074479595,0.26881552,-0.011759592,1.132723,-0.562796,-1.2050579,1.251899,0.5680107,1.7947173,-1.7169096,0.48693383,1.2958032,-1.173177,1.2014097,-0.39575177,0.7459861,-1.0710446,-1.7471128,0.91097504,0.78078115,1.5517465,-2.0,0.034462407,1.92182,-1.0323472,0.288066,-0.889667
2025-07-21 13:18:04.587,1.640000000000001,1640,82,-0.06852846,0.36358476,-0.06927279,-0.021649864,-0.09849082,-0.020014642,1.5,0.0,0.0,-0.035297904,0.107748486,0.121562146,-0.0687709,-0.0038810403,0.064599544,0.037047386,-0.026858736,0.035723187,0.039001185,-0.11318802,0.10836913,0.03456614,0.07418011,-0.34830594,-0.100450605,-0.035766263,0.1445993,0.12678349,-0.17167002,-0.07678673,0.15904781,-0.08086876,0.038234446,-0.14521632,0.7459861,-1.0710446,-1.7471128,0.91097504,0.78078115,1.5517465,-2.0,0.034462407,1.92182,-1.0323472,0.288066,-0.889667,0.45179585,-0.7145252,-1.1917381,0.053210106,0.50198156,0.49367225,-0.50029886,0.11939618,2.0,-1.0022829,-0.15859148,-0.9892144
2025-07-21 13:18:04.607,1.660000000000001,1660,83,-0.066478096,0.10536651,-0.029157037,-0.06607893,-0.02027962,-0.02261828,1.5,0.0,0.0,-0.035212588,0.11849535,0.06041081,-0.07779677,0.010360255,0.08186691,0.04244069,-0.03764984,0.048664767,0.074361145,-0.11048247,0.09238038,0.0043418393,-0.08543452,-0.24337287,-0.11738277,-0.029128134,0.05536254,-0.011102936,0.016566252,-0.06625535,0.09209536,0.05033617,-0.123377755,-0.041927125,0.45179585,-0.7145252,-1.1917381,0.053210106,0.50198156,0.49367225,-0.50029886,0.11939618,2.0,-1.0022829,-0.15859148,-0.9892144,0.38195103,-0.96780634,-0.8061195,0.27985078,1.0192606,0.47708392,-0.7666205,0.8645303,2.0,-0.8767046,-0.15930775,-0.70744705
2025-07-21 13:18:04.633,1.680000000000001,1680,84,0.091821365,0.12290965,-0.1352276,-0.05668875,-0.024830822,0.044376533,1.5,0.0,0.0,-0.03411053,0.10362757,-0.029145556,-0.09802938,-0.0010820563,0.14565288,0.040407963,-0.039114714,0.071131214,0.11770652,-0.118613385,0.06573936,-0.013790893,0.055668775,-0.25209072,0.0013834444,-0.05205934,0.09774394,-0.034969874,-0.005071348,0.09056794,0.06329434,-0.056559592,-0.08419848,0.020755908,0.38195103,-0.96780634,-0.8061195,0.27985078,1.0192606,0.47708392,-0.7666205,0.8645303,2.0,-0.8767046,-0.15930775,-0.70744705,-0.13418058,-0.45792145,0.18299504,-0.24592665,0.8087804,-0.36282194,0.10973791,-0.20693535,1.3385183,-0.13807201,-0.6363924,-0.19636056
2025-07-21 13:18:04.649,1.700000000000001,1700,85,-0.22819518,-0.17642894,-0.065562986,-0.017950233,-0.07688164,-0.045665916,1.5,0.0,0.0,-0.032382857,0.07551995,-0.06558196,-0.07269006,-0.008801348,0.17523289,0.01755773,-0.038150996,0.09100982,0.13035558,-0.10870801,0.008979641,-0.012215697,-0.0032331073,-0.11292866,-0.0020990958,0.0015645592,0.0984121,-0.041943386,0.02713338,-0.13368437,0.08002993,0.006009373,-0.1461477,-0.06771321,-0.13418058,-0.45792145,0.18299504,-0.24592665,0.8087804,-0.36282194,0.10973791,-0.20693535,1.3385183,-0.13807201,-0.6363924,-0.19636056,-0.6794707,0.89617354,1.3143876,-0.6314361,0.23158006,-0.68402046,0.843192,2.0,0.28438774,1.0217739,-0.41951048,0.9962133
2025-07-21 13:18:04.667,1.720000000000001,1720,86,-0.16050927,-0.60546404,-0.110853955,-0.023225095,-0.09014436,-0.028822135,1.5,0.0,0.0,-0.030799523,0.05176468,-0.04056888,-0.03226245,-0.009644243,0.18522872,-0.0032212064,-0.014377727,0.10668726,0.120242864,-0.06907062,-0.025332935,0.008490889,-0.009941072,0.19560102,0.14425853,-0.097412005,-0.07931639,-0.07427217,0.053936042,0.24057542,-0.024074059,0.06375275,-0.053589877,0.12708716,-0.6794707,0.89617354,1.3143876,-0.6314361,0.23158006,-0.68402046,0.843192,2.0,0.28438774,1.0217739,-0.41951048,0.9962133,-0.6908277,-0.40401626,0.588213,-0.8294126,0.2568998,-1.8667306,1.0501323,0.4683406,-0.60715574,0.73318964,-0.013712062,1.1320139
2025-07-21 13:18:04.687,1.740000000000001,1740,87,-0.24377882,-0.32545894,0.04223825,-0.0016111772,0.037907775,-0.00029396755,1.5,0.0,0.0,-0.02926591,0.018310457,-0.022598615,-0.012657187,-0.03557114,0.1650191,-0.05686673,0.025368884,0.12684347,0.07487823,-0.042408444,-0.030146625,0.033935547,-0.09284283,-0.040858347,0.056989808,-0.02430703,-0.07215638,-0.14926106,0.09100475,-0.028780924,-0.0813853,0.009739062,-0.035871517,-0.005918916,-0.6908277,-0.40401626,0.588213,-0.8294126,0.2568998,-1.8667306,1.0501323,0.4683406,-0.60715574,0.73318964,-0.013712062,1.1320139,0.037898824,1.8673065,1.6913719,-0.45858628,-0.48708025,-1.4614142,0.94090396,0.28580323,-0.95945686,1.0226007,-0.09997982,2.0
2025-07-21 13:18:04.707,1.7600000000000011,1760,88,-0.013614259,-0.18266755,-0.031395275,0.06811937,0.023495741,0.0074993703,1.5,0.0,0.0,-0.028747428,0.03534106,-0.028076317,0.03095381,-0.047181223,0.11922272,-0.073430985,0.04488598,0.12977053,0.050246887,-0.017663723,-0.031348687,0.08304361,0.016805213,0.025380146,0.13713722,0.03954645,-0.22300579,-0.049946297,0.06538843,0.023237558,-0.13963737,-0.027791038,0.023177061,0.046369057,0.037898824,1.8673065,1.6913719,-0.45858628,-0.48708025,-1.4614142,0.94090396,0.28580323,-0.95945686,1.0226007,-0.09997982,2.0,-0.18977198,1.2079875,0.93939656,-0.7755947,-0.31583807,-0.70482534,0.7208487,-0.43321022,-1.0630304,0.7799053,-0.55982625,2.0
2025-07-21 13:18:04.733,1.7800000000000011,1780,89,-0.07582629,-0.11655742,-0.11814683,0.04542339,0.039972343,0.030450484,1.5,0.0,0.0,-0.0278875,0.04359284,0.0049657263,0.0232487,-0.063005045,0.061652556,-0.080887556,0.049107052,0.092760034,0.0071097654,-0.006313891,-0.029767346,0.12637134,-0.06214954,0.14974028,0.06903258,0.022134122,-0.050622545,-0.036727272,0.0032639913,-0.064559065,-0.09668234,0.067086264,-0.030482952,0.100776404,-0.18977198,1.2079875,0.93939656,-0.7755947,-0.31583807,-0.70482534,0.7208487,-0.43321022,-1.0630304,0.7799053,-0.55982625,2.0,-0.59708655,0.42292762,0.5533379,-0.8005528,-0.7272483,-0.5517136,1.3442652,-0.82408714,-0.87270147,1.2635577,0.91526914,1.9736893
2025-07-21 13:18:04.749,1.8000000000000012,1800,90,0.061191235,0.13166647,0.13742317,0.0142166,-0.010529279,0.043394286,1.5,0.0,0.0,-0.026819885,0.034106262,0.03396478,0.03794615,-0.06384919,0.004770501,-0.092551395,0.08808765,0.021632774,-0.016352534,0.019354535,-0.006695854,0.15009896,-0.06850711,0.040227786,-0.029238233,-0.058533587,-0.21966957,-0.0315036,0.008109115,-0.22173859,-0.0154802175,0.017842112,0.12645815,0.11230445,-0.59708655,0.42292762,0.5533379,-0.8005528,-0.7272483,-0.5517136,1.3442652,-0.82408714,-0.87270147,1.2635577,0.91526914,1.9736893,0.94938874,2.0,0.21262234,-0.10626984,-0.27412668,0.82564324,-0.2921292,-0.9185523,0.046597965,-0.005512491,0.14893645,1.6663604
2025-07-21 13:18:04.767,1.8200000000000012,1820,91,0.043851297,-0.106468245,-0.13010141,0.08120962,0.052158836,0.004798358,1.5,0.0,0.0,-0.028223667,0.060596038,0.100638434,0.033661045,-0.061968386,-0.01392726,-0.0525233,0.069138795,-0.05039,-0.02144421,0.013648599,0.014686282,0.16299483,-0.011633558,0.20592408,-0.08183114,-0.041223798,-0.067092784,0.113767065,-0.018027851,-0.23405692,-0.04586087,0.0434482,-0.002227721,0.049461614,0.94938874,2.0,0.21262234,-0.10626984,-0.27412668,0.82564324,-0.2921292,-0.9185523,0.046597965,-0.005512491,0.14893645,1.6663604,0.48940748,-0.31976956,-1.6467175,-0.04790901,-0.09052633,1.36744,-0.2326093,-0.5547959,0.7849931,-0.25079823,2.0,0.21803945
2025-07-21 13:18:04.788,1.8400000000000012,1840,92,-0.08022509,0.0079509085,0.030951265,0.041916754,0.033314265,0.02691615,1.5,0.0,0.0,-0.028357832,0.052552786,0.13677679,-0.011905992,-0.06875489,-0.019151792,-0.021466259,0.05571559,-0.07998501,0.014237838,0.017172528,0.080926746,0.13993472,0.034712065,0.08865499,-0.15460569,0.04615709,-0.042096283,0.08175786,0.052360088,0.015745861,0.009636416,0.03131132,0.1536263,-0.07820409,0.48940748,-0.31976956,-1.6467175,-0.04790901,-0.09052633,1.36744,-0.2326093,-0.5547959,0.7849931,-0.25079823,2.0,0.21803945,0.8102802,-0.49629194,-1.5589157,0.59831345,0.4692733,1.5858533,-1.3762574,-0.64649034,1.1550533,-0.5892218,2.0,-0.5561773
2025-07-21 13:18:04.808,1.8600000000000012,1860,93,-0.08179853,0.18079287,0.105840355,-0.000109411856,0.027081998,-0.031418204,1.5,0.0,0.0,-0.027962813,0.08184401,0.13119675,-0.05899142,-0.08054246,0.006052518,0.020327672,0.031727932,-0.11566405,0.030525366,-0.011846642,0.19455703,0.10798503,0.011167828,0.005111364,-0.12231651,-0.009163585,0.013534779,0.026754022,-0.09158849,-0.0268866,0.1389353,0.021863967,0.29747853,-0.09493154,0.8102802,-0.49629194,-1.5589157,0.59831345,0.4692733,1.5858533,-1.3762574,-0.64649034,1.1550533,-0.5892218,2.0,-0.5561773,1.5138888,-0.57396805,-1.7703373,0.8447323,0.44047627,1.523098,-1.614708,1.1177496,2.0,-1.1855345,0.48721877,-0.90172035
2025-07-21 13:18:04.833,1.8800000000000012,1880,94,0.096685566,-0.09184346,-0.09974498,0.016517373,-0.003277737,-0.035209943,1.5,0.0,0.0,-0.029489497,0.09977328,0.09340823,-0.090466306,-0.082045816,0.03557444,0.041987684,0.007635384,-0.10135447,0.07687094,-0.035251148,0.2504572,0.0738291,0.10331641,-0.15011866,-0.049572736,0.029285053,0.09974833,0.10806558,-0.015325303,0.072416455,0.09774077,-0.049707852,-0.05952311,-0.108388804,1.5138888,-0.57396805,-1.7703373,0.8447323,0.44047627,1.523098,-1.614708,1.1177496,2.0,-1.1855345,0.48721877,-0.90172035,0.7310693,-1.3261017,-1.3544841,-0.16577229,0.51926994,0.60292155,-0.23414005,-0.4655626,1.866882,-0.76651466,-0.3585067,-1.19477
2025-07-21 13:18:04.849,1.9000000000000012,1900,95,-0.17525057,-0.049014248,0.06544518,0.07497143,-0.04529352,0.02760141,1.5,0.0,0.0,-0.029906206,0.11063387,-0.0084966505,-0.102849886,-0.06588493,0.062174186,0.047416072,0.0099064065,-0.100515544,0.107314736,-0.056611493,0.1940589,0.02946665,-0.04216071,-0.25393522,-0.110690325,-0.05125922,0.03336716,0.036079813,-0.0172375,-0.0053497613,0.091082454,-0.0775182,-0.13480361,-0.107868694,0.7310693,-1.3261017,-1.3544841,-0.16577229,0.51926994,0.60292155,-0.23414005,-0.4655626,1.866882,-0.76651466,-0.3585067,-1.19477,0.66036874,-0.19068882,-0.48546913,0.35703027,0.5513503,0.37785023,-0.75396645,1.126104,1.7703159,-1.0787382,-0.7379757,-0.7370355
2025-07-21 13:18:04.870,1.9200000000000013,1920,96,0.085669085,-0.08787805,-0.1538449,0.005876964,0.0247842,0.015163518,1.5,0.0,0.0,-0.030409342,0.10686043,-0.047306556,-0.11072172,-0.050585654,0.09055301,0.054848466,-0.0023852717,-0.054942016,0.12626964,-0.07364907,0.09789727,-0.003599795,-0.05284219,0.004323733,0.07683814,0.00040684233,0.06185372,-0.06904117,-0.020209102,0.22725068,-0.013666081,-0.09760213,-0.23116586,-0.067401014,0.66036874,-0.19068882,-0.48546913,0.35703027,0.5513503,0.37785023,-0.75396645,1.126104,1.7703159,-1.0787382,-0.7379757,-0.7370355,-0.06980262,-0.84318763,-0.14801857,-0.1940318,1.0680549,-0.12272169,-0.1757933,-0.252279,1.2494074,-0.08234914,-0.6983516,0.09263304
2025-07-21 13:18:04.890,1.9400000000000013,1940,97,-0.18846841,-0.033940397,0.09345157,0.046157826,-0.030343072,0.03709872,1.5,0.0,0.0,-0.029258832,0.101755,-0.08309107,-0.09265152,-0.055100195,0.13985091,0.02237034,-0.01867617,-0.039588105,0.15351756,-0.059090573,0.028967913,0.007255828,-0.005376434,-0.07564099,0.030797606,0.032635875,0.18494515,-0.043662414,-0.0038997903,0.052146304,0.039424833,0.009150145,-0.17246406,-0.035947505,-0.06980262,-0.84318763,-0.14801857,-0.1940318,1.0680549,-0.12272169,-0.1757933,-0.252279,1.2494074,-0.08234914,-0.6983516,0.09263304,-0.37721673,0.5779933,1.1805868,0.19100511,-0.5311044,-0.8761377,0.04235991,2.0,0.58429974,0.5013782,-1.1909332,0.5183497
2025-07-21 13:18:04.916,1.9600000000000013,1960,98,0.14770356,0.19800526,-0.13103992,0.07077013,0.03215794,0.0052414974,1.5,0.0,0.0,-0.029129675,0.08095655,-0.08730186,-0.058173247,-0.06161342,0.1764317,0.002019712,-0.003394567,0.016901117,0.1403459,-0.05323032,-0.060373887,0.009037349,-0.10946916,0.051083762,0.13847421,0.048661992,0.0035762107,-0.018507928,-0.028811269,0.25015634,0.016602695,0.084743865,-0.16279168,0.07395059,-0.37721673,0.5779933,1.1805868,0.19100511,-0.5311044,-0.8761377,0.04235991,2.0,0.58429974,0.5013782,-1.1909332,0.5183497,-0.5915375,0.27978486,1.0998609,-1.0265003,0.31561372,-1.5674078,1.2571518,1.6188054,-0.39515626,1.2392868,0.32554385,1.5505236
2025-07-21 13:18:04.936,1.9800000000000013,1980,99,0.27655718,0.07944396,-0.00502935,0.019409321,0.024338238,0.04263919,1.5,0.0,0.0,-0.02799701,0.060477294,-0.055351906,-0.022662219,-0.07383374,0.17546614,-0.039562464,0.027404482,0.120876126,0.096366815,-0.010889308,-0.070489086,0.045278322,-0.04149423,0.094856955,0.111196026,0.006831917,0.0056560044,-0.018957164,0.09838104,0.23253468,-0.044331655,0.0048405915,0.09539371,0.00902407,-0.5915375,0.27978486,1.0998609,-1.0265003,0.31561372,-1.5674078,1.2571518,1.6188054,-0.39515626,1.2392868,0.32554385,1.5505236,-0.17925164,0.33186114,1.1321002,-0.76652044,-0.8458785,-1.1479956,1.0233358,-0.066375166,-1.2047169,0.7441659,-0.46610114,1.6656268
2025-07-21 13:18:04.957,2.0000000000000013,2000,100,-0.01486686,-0.057961855,-0.078016624,0.017235372,0.017568555,0.00507904,1.5,0.0,0.0,-0.026390605,0.060708597,-0.031095639,0.010620584,-0.08396631,0.12956701,-0.05845526,0.050009392,0.15012334,0.061442763,-0.002293361,-0.07095937,0.09315667,-0.042966757,0.08618762,0.04399366,0.011570544,-0.22005755,-0.0586797,0.1262871,-0.014090319,-0.13618514,0.054579634,0.011141344,0.11655808,-0.17925164,0.33186114,1.1321002,-0.76652044,-0.8458785,-1.1479956,1.0233358,-0.066375166,-1.2047169,0.7441659,-0.46610114,1.6656268,-0.52385604,1.116039,1.1587703,-0.74293566,-0.664606,-0.72195125,1.481455,-0.9378598,-1.2567084,1.5161867,0.6116367,2.0
2025-07-21 13:18:04.984,2.0200000000000014,2020,101,0.1278586,-0.0021506809,0.08893281,-0.029667769,-0.025463142,0.016544318,1.5,0.0,0.0,-0.025064103,0.048903782,0.015394177,0.026429119,-0.09045279,0.05800139,-0.06848254,0.09390273,0.08715859,0.013817495,0.016327603,-0.044623476,0.12256241,-0.08562893,0.17129114,0.113783255,0.04076506,-0.09573378,-0.07841806,0.049961574,-0.20549259,-0.118773654,0.043447718,0.13924263,0.05160574,-0.52385604,1.116039,1.1587703,-0.74293566,-0.664606,-0.72195125,1.481455,-0.9378598,-1.2567084,1.5161867,0.6116367,2.0,-0.02389195,0.70232713,0.7578648,-0.2798568,-1.2104369,-0.4214368,0.95214593,-0.8652345,-1.2122018,0.08363106,-0.010741023,1.610681
2025-07-21 13:18:05.003,2.0400000000000014,2040,102,-0.09893712,-0.0038284848,-0.11246375,0.05008716,-0.030035531,0.04849904,1.5,0.0,0.0,-0.02613675,0.05326367,0.060858663,0.042485654,-0.09185197,-0.043340236,-0.073382005,0.09680727,-0.0033780492,-0.013724847,0.02483352,-0.012072571,0.14212368,-0.01794294,0.11840108,0.07204039,0.051922705,-0.24991202,-0.07311575,0.09809161,-0.13098493,-0.118561216,-0.019986883,0.015833778,0.1332018,-0.02389195,0.70232713,0.7578648,-0.2798568,-1.2104369,-0.4214368,0.95214593,-0.8652345,-1.2122018,0.08363106,-0.010741023,1.610681,0.25601962,1.0280818,-0.41484165,-0.4110398,-0.0070741363,0.50627506,0.3316258,-1.363751,0.25400105,0.46368587,1.2261797,1.3509781
2025-07-21 13:18:05.023,2.0600000000000014,2060,103,0.16755316,-0.09013489,0.033940986,0.032522004,0.011987827,-0.035847288,1.5,0.0,0.0,-0.02618422,0.03978749,0.121646985,0.018053092,-0.09048357,-0.06029143,-0.039677788,0.09549997,-0.09262081,-0.011692348,0.022573385,0.039383892,0.1369167,-0.013328108,0.12666537,-0.0017574548,0.05567148,-0.026012564,0.012746058,-0.0150788855,-0.29356796,0.044207092,0.07299562,0.1655255,-0.00047601032,0.25601962,1.0280818,-0.41484165,-0.4110398,-0.0070741363,0.50627506,0.3316258,-1.363751,0.25400105,0.46368587,1.2261797,1.3509781,1.022519,0.4314877,-1.6770198,0.37635964,-0.09816314,1.6047572,-0.86759716,-0.09485397,1.3252361,-0.5999788,2.0,0.6141752
2025-07-21 13:18:05.042,2.0800000000000014,2080,104,0.20712642,0.047250893,-0.07288141,-0.029174428,0.014847679,0.010413652,1.5,0.0,0.0,-0.026305588,0.06842683,0.15237337,-0.026414188,-0.07288298,-0.05402198,-0.00946067,0.061929498,-0.120725274,0.026404578,-0.001559283,0.14183211,0.14088109,0.079987034,-0.019927021,-0.0916975,-0.028005872,0.032879166,0.09563338,-0.06360232,0.019592853,0.09732552,-0.044391148,0.23880966,-0.08685507,1.022519,0.4314877,-1.6770198,0.37635964,-0.09816314,1.6047572,-0.86759716,-0.09485397,1.3252361,-0.5999788,2.0,0.6141752,0.93627876,-0.5593661,-1.8075244,0.27010122,0.33341262,1.5978076,-0.8876607,-0.59204483,1.814385,-0.5769468,1.4307758,-1.1495893
2025-07-21 13:18:05.066,2.1000000000000014,2100,105,-0.03169261,0.13112076,-0.032453746,-0.00086788955,-0.042465646,-0.013868392,1.5,0.0,0.0,-0.026019586,0.076921515,0.11835485,-0.06109905,-0.072952695,-0.033866424,0.038743995,0.05214535,-0.116699874,0.0625643,-0.003949583,0.23557302,0.09321823,0.0033014468,-0.18333371,-0.106584415,0.024138793,-0.007406319,0.107682936,-0.0075220987,-0.0078092595,0.068238705,-0.02230156,0.24512976,-0.07955941,0.93627876,-0.5593661,-1.8075244,0.27010122,0.33341262,1.5978076,-0.8876607,-0.59204483,1.814385,-0.5769468,1.4307758,-1.1495893,1.3691752,-0.21725735,-1.903761,0.36088416,1.4523424,1.3591344,-0.524091,-0.2152953,2.0,-1.1014719,0.07515773,-1.2480034
2025-07-21 13:18:05.083,2.1200000000000014,2120,106,-0.03536867,0.007468863,-0.032414228,0.024127416,0.00060159364,-0.042670332,1.5,0.0,0.0,-0.02544481,0.118898705,0.06966543,-0.10961997,-0.0578034,0.006462095,0.05789319,0.04040148,-0.115259714,0.10908722,-0.043574333,0.23162466,0.033693653,-0.010053937,-0.1585046,-0.08320672,-0.037976205,0.12100547,0.031643894,0.015112414,-0.021311613,0.08040708,-0.107452966,-0.06545347,-0.03854387,1.3691752,-0.21725735,-1.903761,0.36088416,1.4523424,1.3591344,-0.524091,-0.2152953,2.0,-1.1014719,0.07515773,-1.2480034,0.8948298,-0.657166,-1.2880485,0.13579398,0.7571052,0.5418665,-0.21102834,-0.1324031,1.8263103,-1.0425955,-0.5512881,-0.99044454
2025-07-21 13:18:05.102,2.1400000000000015,2140,107,-0.12011128,-0.07426497,-0.07371985,0.03568755,-0.038932614,-0.02885346,1.5,0.0,0.0,-0.024077648,0.111160174,0.018782392,-0.12165909,-0.048010867,0.07112659,0.04535105,0.023198904,-0.10250826,0.13599044,-0.06307841,0.1621136,0.0037045213,0.08226657,-0.078675136,0.004432401,-0.035513025,0.08779454,-0.02447772,-0.0029685446,0.006519619,0.09082466,0.013121192,-0.2333304,-0.025450984,0.8948298,-0.657166,-1.2880485,0.13579398,0.7571052,0.5418665,-0.21102834,-0.1324031,1.8263103,-1.0425955,-0.5512881,-0.99044454,0.23008527,-1.2319882,-0.36977932,0.16817997,0.608742,0.9173152,0.11657863,0.28236952,1.5638161,-0.93083376,-0.84620225,-0.79371226
2025-07-21 13:18:05.122,2.1600000000000015,2160,108,-0.03059138,-0.13200985,-0.059395745,-0.039326858,-0.03297415,-0.047021147,1.5,0.0,0.0,-0.02254134,0.11317044,-0.06610584,-0.12195999,-0.045040846,0.09077318,0.056499887,0.042071402,-0.07120053,0.14323366,-0.072350696,0.06854317,-0.026385376,0.00091172947,-0.24240299,0.049200434,0.052261826,0.1475824,0.016554782,-0.04633731,0.08332937,0.06807904,0.003411945,-0.26863718,-0.033030655,0.23008527,-1.2319882,-0.36977932,0.16817997,0.608742,0.9173152,0.11657863,0.28236952,1.5638161,-0.93083376,-0.84620225,-0.79371226,-0.48454523,-0.25206462,0.5205221,-0.40815672,0.33925346,-0.5200673,0.23698282,0.71759754,1.1266448,0.0023196638,-0.6776471,0.055136684
2025-07-21 13:18:05.144,2.1800000000000015,2180,109,-0.015176118,-0.18146448,-0.1793956,0.015273904,0.004498842,0.04085567,1.5,0.0,0.0,-0.021359673,0.07560389,-0.09714455,-0.08032642,-0.04127831,0.11877664,0.044710808,0.03654897,-0.018602435,0.13610162,-0.0679427,0.006303941,-0.01892124,-0.04727427,-0.002414919,0.05651488,0.027432827,0.048578843,0.006071345,0.0012934305,0.17958917,0.042985104,0.034380257,-0.15854469,-0.007973411,-0.48454523,-0.25206462,0.5205221,-0.40815672,0.33925346,-0.5200673,0.23698282,0.71759754,1.1266448,0.0023196638,-0.6776471,0.055136684,-1.0011401,0.38443515,1.4149376,-1.3178257,1.1677041,-0.8821249,1.0857799,1.380552,-0.2300533,1.6440651,-0.14596951,1.5561942
2025-07-21 13:18:05.166,2.2000000000000015,2200,110,0.18525001,0.031703655,-0.04483781,-0.032503475,-0.015319927,0.022751806,1.5,0.0,0.0,-0.019285854,0.03803454,-0.06603562,-0.03675167,-0.07977133,0.16732806,0.012532484,0.05453222,0.0810745,0.11419422,-0.023118813,-0.0065134764,0.019440493,-0.046633795,0.1415319,0.021519696,-0.053555977,0.20194434,-0.025589606,0.11477098,0.17240132,-0.041950338,0.001890643,0.066851184,0.14908537,-1.0011401,0.38443515,1.4149376,-1.3178257,1.1677041,-0.8821249,1.0857799,1.380552,-0.2300533,1.6440651,-0.14596951,1.5561942,-0.6243697,-0.33029017,0.77233,-0.68405664,-1.0965096,-1.1948767,1.2907037,0.23031905,-1.5295368,1.0783962,-0.20620444,1.4261781
2025-07-21 13:18:05.183,2.2200000000000015,2220,111,-0.25375175,-0.006546826,0.16004272,-0.039416842,0.052304897,-0.021622332,1.5,0.0,0.0,-0.018154325,0.02974261,-0.04155155,-0.021409638,-0.0917107,0.15421359,-0.021210585,0.08356333,0.11191821,0.05447067,0.009181755,-0.008354165,0.064004235,-0.10873499,-0.05186766,0.10612454,-0.015093487,-0.117592864,-0.13138847,0.08126962,0.016678084,-0.121874616,0.055049144,-0.0005300974,0.016569456,-0.6243697,-0.33029017,0.77233,-0.68405664,-1.0965096,-1.1948767,1.2907037,0.23031905,-1.5295368,1.0783962,-0.20620444,1.4261781,0.114646025,2.0,2.0,-0.29523125,-0.4152541,-1.4902147,0.7417396,-0.1260049,-1.2722366,1.0123662,-0.6679478,2.0
2025-07-21 13:18:05.202,2.2400000000000015,2240,112,-0.12765785,-0.10403607,-0.032484263,0.00899536,0.007498843,-0.020872267,1.5,0.0,0.0,-0.019738376,0.0317778,-0.059361916,0.026690051,-0.0790035,0.10048934,-0.049626917,0.09919782,0.08313153,0.02055754,0.017029945,-0.048218332,0.1050833,0.029040767,-0.0608117,0.14508307,0.03155214,-0.13436566,-0.05363319,0.05991792,-0.017809521,-0.038343713,0.09055893,-0.0832473,0.055016663,0.114646025,2.0,2.0,-0.29523125,-0.4152541,-1.4902147,0.7417396,-0.1260049,-1.2722366,1.0123662,-0.6679478,2.0,-0.19561455,2.0,0.98938066,-0.80465686,-0.13562545,-0.9068157,0.44572288,-0.2628993,-0.82189775,0.81525505,0.65336883,2.0
2025-07-21 13:18:05.223,2.2600000000000016,2260,113,0.08695311,0.12559894,-0.0076695657,0.007177427,-0.0064220987,0.045415442,1.5,0.0,0.0,-0.01992824,0.023953315,-0.024269562,0.031085802,-0.085274614,0.080052264,-0.08076047,0.10006515,0.063848674,-0.01986494,0.030821787,-0.015030756,0.13493156,-0.08019874,0.18265556,0.044068437,-0.04890433,-0.05222507,-0.08463021,-0.0380603,-0.14996906,-0.041304544,-0.022485552,0.13867953,0.020787528,-0.19561455,2.0,0.98938066,-0.80465686,-0.13562545,-0.9068157,0.44572288,-0.2628993,-0.82189775,0.81525505,0.65336883,2.0,-0.048736803,0.62275755,0.098685026,-0.4871346,-1.0483826,-0.038275674,0.36659023,-1.0126805,-0.7647081,0.41705525,0.14230004,1.7313904
2025-07-21 13:18:05.245,2.2800000000000016,2280,114,-0.10255632,0.0148350885,-0.04979774,0.027333928,0.0075295987,0.022893298,1.5,0.0,0.0,-0.01982297,0.03205028,0.02426848,0.017212287,-0.08760839,-0.00038153015,-0.051944643,0.0928787,-0.015833087,-0.03938814,0.030959502,0.015174787,0.15351956,0.05487185,0.13014294,0.0032765938,0.052020907,-0.16389543,0.0014970431,-0.021404397,-0.22475989,0.013682162,0.041670237,0.10714803,0.017463924,-0.048736803,0.62275755,0.098685026,-0.4871346,-1.0483826,-0.038275674,0.36659023,-1.0126805,-0.7647081,0.41705525,0.14230004,1.7313904,0.2316621,1.1964042,-0.96263504,-0.3146233,-0.6750004,0.95810044,-0.085059814,-1.1771868,0.68311054,0.26828444,1.4704372,1.436957
2025-07-21 13:18:05.266,2.3000000000000016,2300,115,0.13913006,-0.1480115,-0.03880069,0.066281416,-0.020752598,0.036762547,1.5,0.0,0.0,-0.019538242,0.02730817,0.1065054,-0.0035096332,-0.09297667,-0.034893993,-0.021674633,0.06806771,-0.09217822,-0.008964641,0.04254788,0.068885654,0.1688669,-0.008342774,0.26165968,-0.091187485,0.043161146,-0.002378154,0.06735608,-0.057138126,-0.16139089,0.02044566,-0.025627976,0.2233696,-0.014363923,0.2316621,1.1964042,-0.96263504,-0.3146233,-0.6750004,0.95810044,-0.085059814,-1.1771868,0.68311054,0.26828444,1.4704372,1.436957,0.34153146,-0.48651642,-1.986511,0.38749537,-0.37536713,1.6168807,-0.7624194,-0.7452746,1.1926702,-0.29734856,2.0,0.1329659
2025-07-21 13:18:05.283,2.3200000000000016,2320,116,-0.07049775,-0.033411995,-0.046677157,0.065334864,-0.03046113,0.024589933,1.5,0.0,0.0,-0.018284515,0.04469169,0.13578103,-0.06547966,-0.09278867,-0.05186519,0.007320979,0.060173463,-0.12999809,0.015961738,0.014169865,0.16914898,0.14714403,0.081203096,-0.008781441,-0.08396548,0.073019035,0.03286909,0.1690001,-0.12740386,-0.12557223,0.012086009,0.041209467,0.31187072,-0.042156428,0.34153146,-0.48651642,-1.986511,0.38749537,-0.37536713,1.6168807,-0.7624194,-0.7452746,1.1926702,-0.29734856,2.0,0.1329659,0.62652063,-0.44245514,-1.7803848,0.002697018,0.7863346,1.5850173,-0.961712,0.01399873,1.9539897,-0.29126436,1.4265424,-0.5367438
2025-07-21 13:18:05.303,2.3400000000000016,2340,117,0.0069563086,0.14548269,-0.15976106,0.06818418,-0.01479025,-0.04142267,1.5,0.0,0.0,-0.016516492,0.05592604,0.14214708,-0.09734992,-0.088948466,-0.037565608,0.056150597,0.023348954,-0.122527435,0.0689934,0.008548746,0.26690027,0.10689509,0.045804054,-0.13862115,-0.03176786,0.06588138,0.1469581,0.09200073,0.011213196,0.09094669,0.10667693,0.04482956,0.18405297,-0.051836066,0.62652063,-0.44245514,-1.7803848,0.002697018,0.7863346,1.5850173,-0.961712,0.01399873,1.9539897,-0.29126436,1.4265424,-0.5367438,0.61929214,-0.3864447,-1.624485,0.1386686,0.8324761,1.205013,0.1402697,-1.9662409,2.0,-0.7855981,0.42087564,-0.9656069
2025-07-21 13:18:05.323,2.3600000000000017,2360,118,-0.075017534,-0.08845228,0.03302763,0.048828732,-0.013879579,-0.040384807,1.5,0.0,0.0,-0.013994053,0.067689225,0.08901752,-0.12073813,-0.06736131,0.013036013,0.061876558,0.03286194,-0.13609268,0.113507144,-0.002812579,0.2601472,0.060734563,0.037878152,-0.11072247,-0.09943434,-0.023536146,0.13494758,0.045006987,0.08064669,-0.10924146,0.08913808,-0.09758087,-0.00025435738,-0.03654481,0.61929214,-0.3864447,-1.624485,0.1386686,0.8324761,1.205013,0.1402697,-1.9662409,2.0,-0.7855981,0.42087564,-0.9656069,0.50026983,-0.6901981,-0.7659905,0.13173962,0.63458,1.2100292,-0.48223016,1.095144,2.0,-1.2043855,-0.5894313,-1.1733499
2025-07-21 13:18:05.349,2.3800000000000017,2380,119,0.029233266,-0.08145312,-0.12256444,0.05278403,0.009260102,-0.04139345,1.5,0.0,0.0,-0.0127327675,0.074357614,0.026416905,-0.120389596,-0.058441535,0.04501938,0.06953201,0.016220659,-0.102162056,0.13417193,-0.042101704,0.20830767,0.017844038,-0.06544205,-0.13323797,0.012881572,0.031111842,0.1428677,0.08871419,-0.064975336,0.060453776,-0.005048681,-0.15169859,-0.25456014,-0.097558014,0.50026983,-0.6901981,-0.7659905,0.13173962,0.63458,1.2100292,-0.48223016,1.095144,2.0,-1.2043855,-0.5894313,-1.1733499,0.044855207,-1.1340917,-0.5515948,-0.36181697,0.6826977,0.31643176,0.42213073,-0.19791958,1.6318308,-0.45998555,-0.69054145,-0.42995578
2025-07-21 13:18:05.366,2.4000000000000017,2400,120,-0.12962706,-0.067500435,0.054555174,0.012571815,-0.007966957,-0.02059203,1.5,0.0,0.0,-0.011053246,0.056390148,-0.06341771,-0.11588143,-0.05758,0.08612853,0.076358385,0.03033077,-0.088426545,0.15558523,-0.04363376,0.11555156,0.0041095344,-0.0053697745,-0.13689347,-0.048499588,-0.064646155,0.14526154,-0.042166304,-0.0045895567,-0.044262946,0.0050419797,0.02395333,-0.24573278,0.006526086,0.044855207,-1.1340917,-0.5515948,-0.36181697,0.6826977,0.31643176,0.42213073,-0.19791958,1.6318308,-0.45998555,-0.69054145,-0.42995578,-0.2312065,0.17146048,0.35587752,0.2310801,-0.068266526,0.41529882,-0.1773203,1.8506997,1.2684926,-0.36565036,-0.8261447,-0.2753497
2025-07-21 13:18:05.383,2.4200000000000017,2420,121,0.11931934,0.09990592,-0.1801788,0.017445525,0.059042033,-0.029595546,0.0,0.0,0.0,-0.010439452,0.06389738,-0.08632927,-0.08954741,-0.058325633,0.10067649,0.070497505,0.018785529,-0.047221605,0.16013125,-0.04981221,0.03729893,0.0021423812,-0.06264521,0.04575158,0.011792955,0.056426622,-0.043347728,0.030623084,-0.066616856,0.23358442,-0.005359785,-0.009356565,-0.24928524,-0.034895148,-0.2312065,0.17146048,0.35587752,0.2310801,-0.068266526,0.41529882,-0.1773203,1.8506997,1.2684926,-0.36565036,-0.8261447,-0.2753497,-0.19661467,-0.6827806,0.22314112,-0.5325202,0.15893467,-0.21337442,0.08202734,-0.35108963,0.121637695,0.19500229,0.17843178,-0.012423363
2025-07-21 13:18:05.403,2.4400000000000017,2440,122,-0.19715646,0.16926698,0.040279392,0.03549324,-0.027102185,-0.034097645,0.0,0.0,0.0,-0.008972346,0.04850544,-0.08576667,-0.076855786,-0.060896292,0.110344164,0.06264047,0.026907334,-0.011300164,0.1336923,-0.045430195,0.012790266,-0.0054292195,-0.09783139,-0.12933885,0.11077098,0.0233551,-0.017159892,0.019869652,-0.029340029,0.01991477,-0.10259061,0.083954446,0.08267286,-0.0018638272,-0.19661467,-0.6827806,0.22314112,-0.5325202,0.15893467,-0.21337442,0.08202734,-0.35108963,0.121637695,0.19500229,0.17843178,-0.012423363,-0.24837685,0.21722674,0.241248,-0.23442698,-0.642483,-0.0843543,0.39556,0.23931248,-0.07886199,-0.2730453,-0.08566746,-0.48340398
2025-07-21 13:18:05.428,2.4600000000000017,2460,123,-0.003496912,0.16349377,-0.13454674,0.081246406,-0.05547973,-0.0467994,0.0,0.0,0.0,-0.0083953915,0.045110673,-0.06431777,-0.06473276,-0.06695268,0.095838554,0.045015316,0.022863824,0.0079917135,0.11871664,-0.03322131,0.0023916587,-0.008707104,0.041999683,0.053084295,0.02433334,-0.049903315,0.0036188005,-0.09531789,0.014766352,-0.015563988,-0.055997353,0.0034900066,-0.08761167,-0.08229048,-0.24837685,0.21722674,0.241248,-0.23442698,-0.642483,-0.0843543,0.39556,0.23931248,-0.07886199,-0.2730453,-0.08566746,-0.48340398,-0.38875306,-0.6860779,-0.22498338,-0.2748779,-0.15746899,-0.07637493,0.6193831,-0.06635584,0.3269901,-0.04331754,0.15127209,-0.39811862
2025-07-21 13:18:05.449,2.4800000000000018,2480,124,-0.0709958,0.18164207,-0.008315498,0.08488232,-0.03189321,0.039137587,0.0,0.0,0.0,-0.0071314084,0.021136507,-0.07013244,-0.05549829,-0.07505715,0.09543005,0.034423728,0.046242535,0.002448635,0.10379572,-0.040539235,0.025330175,-0.018808048,0.027051117,-0.11674716,-0.052932203,-0.019555638,0.001732416,-0.015005972,0.045462973,-0.08442012,0.012380733,0.051674258,0.089416884,-0.06723671,-0.38875306,-0.6860779,-0.22498338,-0.2748779,-0.15746899,-0.07637493,0.6193831,-0.06635584,0.3269901,-0.04331754,0.15127209,-0.39811862,-0.15861636,-0.08757004,-0.3065574,0.0014773207,-0.37302718,0.18318571,0.45021215,0.106922716,0.3208188,-0.23480779,0.07486659,-0.30720156
2025-07-21 13:18:05.468,2.5000000000000018,2500,125,0.025433369,0.079284064,-0.13813412,0.066161945,-0.021053635,-0.014807783,0.0,0.0,0.0,-0.0058093877,0.028315509,-0.07128798,-0.05009865,-0.063349165,0.06852971,0.040506247,0.034983512,0.013406573,0.09238504,-0.029585652,0.023459017,-0.033785142,0.034589,0.09064671,-0.051224805,-0.0018840121,0.010848748,-0.010730461,-0.003368716,0.017372122,0.03175321,0.031642392,-0.04455126,-0.050091397,-0.15861636,-0.08757004,-0.3065574,0.0014773207,-0.37302718,0.18318571,0.45021215,0.106922716,0.3208188,-0.23480779,0.07486659,-0.30720156,-0.33654305,-0.70200825,-0.42389733,-0.2308623,-0.013608832,0.1331958,0.46213576,-0.58225983,0.38391215,-0.07729754,0.24107921,-0.24819896
2025-07-21 13:18:05.486,2.520000000000002,2520,126,-0.029831003,0.023047805,-0.071879216,0.048692692,-0.080794655,0.014444483,0.0,0.0,0.0,-0.0036579494,0.020767868,-0.0719132,-0.0582666,-0.08481664,0.06783433,0.032763824,0.053199068,-0.033951733,0.08488773,-0.037449874,0.037007704,-0.030631898,-0.0076777306,-0.11822054,0.025819257,-0.02487031,0.038977824,0.014828928,0.07541382,-0.06907293,0.05309304,0.014676453,0.077216454,0.021320852,-0.33654305,-0.70200825,-0.42389733,-0.2308623,-0.013608832,0.1331958,0.46213576,-0.58225983,0.38391215,-0.07729754,0.24107921,-0.24819896,-0.13860275,-0.36749917,-0.30316755,-0.050690833,-0.22467972,0.5147468,0.33153066,-0.43509117,0.59928644,0.037318192,0.4034707,-0.11493321
2025-07-21 13:18:05.507,2.540000000000002,2540,127,0.084997304,-0.033359665,-0.09094768,0.028694334,-0.040059287,0.049939346,0.0,0.0,0.0,-0.0024535076,0.018621357,-0.09126795,-0.048919648,-0.07552304,0.0643199,0.0366992,0.05582628,-0.062167004,0.08435279,-0.021589404,0.055194397,-0.02012517,0.040809166,0.03867392,-0.021175781,0.039628036,-0.059979472,0.08443225,0.004343609,-0.12501197,0.060932703,-0.014659446,0.063999146,-0.02767817,-0.13860275,-0.36749917,-0.30316755,-0.050690833,-0.22467972,0.5147468,0.33153066,-0.43509117,0.59928644,0.037318192,0.4034707,-0.11493321,0.08013456,-0.6292676,-1.1580389,-0.20345622,0.0055473857,0.46677345,0.24460202,-0.34707996,0.92486495,0.060801923,0.6614665,-0.34219962
2025-07-21 13:18:05.536,2.560000000000002,2560,128,0.100084566,-0.06050068,-0.018706724,0.012648646,-0.0121927755,0.0318519,0.0,0.0,0.0,-0.0010869866,0.021903392,-0.111356124,-0.07407986,-0.0760465,0.064579345,0.048367,0.056534924,-0.07871715,0.08855899,-0.0111156665,0.10020455,-0.02813567,0.07276382,-0.06617385,-0.09634543,-0.034348782,0.010961913,-0.0017745857,-0.04273643,-0.10405088,-0.016550997,0.0017870781,0.042577203,-0.058927692,0.08013456,-0.6292676,-1.1580389,-0.20345622,0.0055473857,0.46677345,0.24460202,-0.34707996,0.92486495,0.060801923,0.6614665,-0.34219962,0.1733495,-0.2741902,-0.8773319,-0.08507724,-0.27991772,0.51235414,0.22186054,-0.3732194,0.6569494,-0.3317405,0.5670583,-0.5479187
2025-07-21 13:18:05.553,2.580000000000002,2580,129,0.074809,-0.08232261,-0.08228685,0.08343922,-0.05812048,0.03962231,0.0,0.0,0.0,-0.00023687995,0.03396998,-0.11441255,-0.09555574,-0.0812492,0.033750385,0.049160607,0.048036933,-0.073055014,0.098354585,-0.018298324,0.12636665,-0.042798556,0.07149246,-0.046264146,0.0061281696,0.05687123,-0.09588942,-0.007000793,0.004042949,0.021187069,-0.00215589,-0.07278378,-0.0075580385,-0.016878413,0.1733495,-0.2741902,-0.8773319,-0.08507724,-0.27991772,0.51235414,0.22186054,-0.3732194,0.6569494,-0.3317405,0.5670583,-0.5479187,0.13665247,0.11460659,-0.61417013,-0.13912751,0.34382594,0.5094639,0.30658355,-0.7852731,0.40669322,-0.49966943,0.36653998,-0.21569136
2025-07-21 13:18:05.574,2.600000000000002,2600,130,0.07671807,-0.067744724,0.054376304,0.080194116,-0.04137355,-0.014189675,0.0,0.0,0.0,0.0006826076,0.02479091,-0.094205275,-0.10185484,-0.07536227,0.061616275,0.0473556,0.049316432,-0.1031829,0.096341275,-0.025150793,0.122562155,-0.037443586,0.03640871,0.09895983,-0.05896694,-0.055653345,-0.013961367,0.012600923,0.055063475,-0.11500509,-0.021685375,0.03501965,0.01100497,0.022612374,0.13665247,0.11460659,-0.61417013,-0.13912751,0.34382594,0.5094639,0.30658355,-0.7852731,0.40669322,-0.49966943,0.36653998,-0.21569136,0.40901098,-0.4578992,-1.0815917,0.03957742,-0.13448413,0.09625445,-0.018288504,0.24906078,0.38068888,-0.6127576,0.15012133,-0.19294173
2025-07-21 13:18:05.601,2.620000000000002,2620,131,0.102890514,-0.10284371,-0.15541275,0.07157049,0.028740885,0.04029089,0.0,0.0,0.0,0.0010978371,0.032455225,-0.10649988,-0.114134364,-0.07026528,0.050452843,0.04917117,0.04494935,-0.08000379,0.083888486,-0.033318542,0.10509684,-0.043188863,0.017267572,0.027381744,-0.04564349,-0.019238792,-0.022312712,0.01518178,-0.034992594,0.01705442,-0.048143167,0.015846796,-0.05147347,0.027893852,0.40901098,-0.4578992,-1.0815917,0.03957742,-0.13448413,0.09625445,-0.018288504,0.24906078,0.38068888,-0.6127576,0.15012133,-0.19294173,-0.10005938,-0.40922523,-0.5339404,-0.08748166,0.23751266,0.4852234,0.34017372,-0.9246215,0.35450876,-0.5073192,0.32423782,-0.057811674
2025-07-21 13:18:05.616,2.640000000000002,2640,132,0.07332073,-0.0133746145,0.06530276,0.05956123,0.0222483,0.030583832,0.0,0.0,0.0,0.0023925684,0.033838294,-0.11057529,-0.117337786,-0.07590894,0.059483357,0.031461466,0.044825457,-0.076520465,0.06920418,-0.05583677,0.11379876,-0.034176797,-0.064510874,-0.095363624,-0.0050999834,-0.043299243,0.08568448,0.061831493,0.02258251,-0.085216746,0.03934717,-0.047081415,0.04514685,0.07099292,-0.10005938,-0.40922523,-0.5339404,-0.08748166,0.23751266,0.4852234,0.34017372,-0.9246215,0.35450876,-0.5073192,0.32423782,-0.057811674,0.23171648,0.13272029,-0.6012541,-0.09821664,-0.6166728,0.15439625,-0.061899103,-0.022194536,0.4019049,-0.5434735,-0.2196301,-0.41743731
2025-07-21 13:18:05.636,2.660000000000002,2660,133,0.07882986,0.10205149,-0.1037837,0.0076776254,0.031212235,0.025845522,0.0,0.0,0.0,0.001997829,0.035847917,-0.106094375,-0.11674158,-0.061703537,0.04627244,0.040585402,0.05094756,-0.08190207,0.06035157,-0.053508047,0.09286067,-0.03254771,-0.04468847,0.029095875,-0.04232636,0.0010413267,-0.026728543,0.05918865,-0.019506654,0.0031126405,0.037281558,0.007035513,-0.08637985,-0.014802287,0.23171648,0.13272029,-0.6012541,-0.09821664,-0.6166728,0.15439625,-0.061899103,-0.022194536,0.4019049,-0.5434735,-0.2196301,-0.41743731,-0.16774859,-0.27890274,-0.62743324,-0.16457078,0.14964898,0.46024477,0.44521007,-0.6979941,0.3479489,-0.40319216,0.27266762,-0.26123813
2025-07-21 13:18:05.656,2.680000000000002,2680,134,0.028501498,0.015897613,0.12839927,0.022125224,-0.010034135,0.019170972,0.0,0.0,0.0,0.0026555918,0.03236282,-0.11041668,-0.11303616,-0.07576827,0.038177013,0.036550276,0.04453691,-0.09158789,0.057455886,-0.05332819,0.09395767,-0.039971072,-0.031353213,-0.07016795,0.048453674,-0.06194051,0.07679843,0.022680638,0.06300521,-0.1321083,-0.03919812,-0.02493482,0.008130322,-0.024747968,-0.16774859,-0.27890274,-0.62743324,-0.16457078,0.14964898,0.46024477,0.44521007,-0.6979941,0.3479489,-0.40319216,0.27266762,-0.26123813,0.34876165,0.27111724,-0.76538897,0.087532,-0.7088309,-0.11168255,-0.1882918,0.41380867,0.46109232,-0.8029006,-0.09091513,-0.4021731
2025-07-21 13:18:05.682,2.700000000000002,2700,135,0.101838596,0.013043535,-0.0729869,-0.0010980949,-0.046426818,0.018797088,0.0,0.0,0.0,0.0012348966,0.029067246,-0.0704678,-0.12382916,-0.06706668,0.014016391,0.03091927,0.03845169,-0.073396355,0.061609723,-0.06338182,0.07517531,-0.043230947,0.0378963,0.11944708,-0.00919316,-0.013463534,-0.035511196,0.053026535,-0.08042298,0.07306551,0.022302683,0.02969715,-0.094780564,-0.013728091,0.34876165,0.27111724,-0.76538897,0.087532,-0.7088309,-0.11168255,-0.1882918,0.41380867,0.46109232,-0.8029006,-0.09091513,-0.4021731,-0.094648175,-0.42320365,-0.34274223,-0.1157572,-0.24946208,0.072087094,0.31986338,-0.54151535,0.022673301,-0.39049825,0.077050954,-0.007899832
2025-07-21 13:18:05.699,2.720000000000002,2720,136,-0.055950966,-0.0029644559,0.04883882,-0.010169212,0.04164668,-0.049600106,0.0,0.0,0.0,0.001692831,0.029643802,-0.09265033,-0.101579644,-0.057694227,0.0034591663,0.016223842,0.041113082,-0.07964484,0.050076354,-0.059570532,0.06411932,-0.038694263,-0.032278243,-0.019778606,-0.004844649,0.004130583,-0.10170106,-0.08618797,-0.049802955,-0.012766418,-0.054931883,0.0018349048,0.024125855,-0.052919585,-0.094648175,-0.42320365,-0.34274223,-0.1157572,-0.24946208,0.072087094,0.31986338,-0.54151535,0.022673301,-0.39049825,0.077050954,-0.007899832,0.1938954,0.32074648,-0.6231608,-0.112443015,0.06520812,0.08270143,0.2178625,0.31649417,0.19003323,-0.45490828,-0.023376135,0.007974688
2025-07-21 13:18:05.720,2.740000000000002,2740,137,0.16653244,0.10577754,-0.05479531,-0.0038382097,0.053536933,0.047342665,0.0,0.0,0.0,0.0016691803,0.031900603,-0.06910505,-0.1076177,-0.04908833,-0.0031859544,0.02243961,0.045520354,-0.06527192,0.032391522,-0.06650687,0.055042535,-0.024856104,-0.0325626,0.04081277,0.06660532,0.018882828,-0.04062557,-0.027873483,-0.00589477,0.034178864,-0.023076374,-0.033654016,-0.07241668,0.05379821,0.1938954,0.32074648,-0.6231608,-0.112443015,0.06520812,0.08270143,0.2178625,0.31649417,0.19003323,-0.45490828,-0.023376135,0.007974688,-0.12230306,-0.1502528,-0.6405485,-0.095771715,0.19356363,-0.028225765,0.31749168,-0.2543814,0.18876222,-0.35229552,0.22908208,-0.083686054
2025-07-21 13:18:05.740,2.760000000000002,2760,138,0.043247566,-0.0094671445,0.0875999,0.0063668247,0.014942613,0.0076357033,0.0,0.0,0.0,0.0021748575,0.032755002,-0.0742981,-0.11205986,-0.06477758,0.0071826167,-0.0016884198,0.04036695,-0.06389924,0.031211775,-0.06463656,0.047119424,-0.03165916,0.0372854,0.039289314,-0.021613427,0.01727877,0.04568973,-0.03555819,0.055901647,0.018927382,-0.0011771006,0.062442794,0.07984948,0.07962103,-0.12230306,-0.1502528,-0.6405485,-0.095771715,0.19356363,-0.028225765,0.31749168,-0.2543814,0.18876222,-0.35229552,0.22908208,-0.083686054,0.15692547,-0.0754956,-0.634281,0.087257534,-0.32020462,-0.21325223,-4.5948662e-05,0.49487758,0.09414681,-0.35968858,-0.2442815,-0.003658589
2025-07-21 13:18:05.766,2.780000000000002,2780,139,-0.019984124,-0.010811819,-0.059917647,-0.025098005,-0.004670533,0.023640994,0.0,0.0,0.0,0.0012776153,0.029239172,-0.0622945,-0.107689425,-0.041439783,0.0008209787,-3.939403e-05,0.051926266,-0.034420624,0.02633073,-0.0729134,0.03349694,-0.01752988,0.03653336,0.062923834,-0.013374364,0.07381223,-0.042661536,0.023334244,0.013902172,0.07188175,-0.016474523,0.040428936,-0.12423162,0.023153188,0.15692547,-0.0754956,-0.634281,0.087257534,-0.32020462,-0.21325223,-4.5948662e-05,0.49487758,0.09414681,-0.35968858,-0.2442815,-0.003658589,-0.16612089,-0.23472604,-0.41351914,-0.20974937,0.15891933,-0.18860899,0.27757782,-0.21464933,0.14448306,-0.2791171,0.28515163,0.040960107
