openverse-orca/OrcaGym/log/simulation_log_20250605_141400.csv
timestamp,imu_angle_roll,imu_angle_pitch,imu_angle_yaw,imu_angular_velocity_roll,imu_angular_velocity_pitch,imu_angular_velocity_yaw,imu_acc_x,imu_acc_y,imu_acc_z,fl_joint1_pos,fl_joint1_vel,fl_joint1_torque,fl_joint2_pos,fl_joint2_vel,fl_joint2_torque,fl_joint3_pos,fl_joint3_vel,fl_joint3_torque,fr_joint1_pos,fr_joint1_vel,fr_joint1_torque,fr_joint2_pos,fr_joint2_vel,fr_joint2_torque,fr_joint3_pos,fr_joint3_vel,fr_joint3_torque,hl_joint1_pos,hl_joint1_vel,hl_joint1_torque,hl_joint2_pos,hl_joint2_vel,hl_joint2_torque,hl_joint3_pos,hl_joint3_vel,hl_joint3_torque,hr_joint1_pos,hr_joint1_vel,hr_joint1_torque,hr_joint2_pos,hr_joint2_vel,hr_joint2_torque,hr_joint3_pos,hr_joint3_vel,hr_joint3_torque,fl_force_x,fl_force_y,fl_force_z,fr_force_x,fr_force_y,fr_force_z,hl_force_x,hl_force_y,hl_force_z,hr_force_x,hr_force_y,hr_force_z,fl_hip_action,fl_thigh_action,fl_calf_action,fr_hip_action,fr_thigh_action,fr_calf_action,hl_hip_action,hl_thigh_action,hl_calf_action,hr_hip_action,hr_thigh_action,hr_calf_action
2025-06-05 14:14:00.297,-0.049592387,-0.038454596,-0.045366004,0.002349735,-0.03972553,-0.021704393,1.3451511,-1.1018602,0.0,0.0,0.008625337,-0.0034440185,-0.0058685727,0.0086597195,-0.002508491,0.004596364,-0.0016384239,0.009828839,-0.005293503,0.004770294,-0.0048920554,-0.0098706335,-0.062230483,-0.047938384,-0.029193392,0.041190557,0.029118858,-0.051443197,-0.0060250587,0.04514596,-0.066539094,0.0480965,-0.026040198,0.060436618,0.0,0.0,0.0,0.0,0.0,0.0,0.0,0.0,0.0,0.0,0.0,0.0,-2.0,2.0,2.0,2.0,0.98820716,-2.0,-2.0,-1.833941,0.10711498,2.0,-2.0,-2.0
2025-06-05 14:14:00.304,-0.06766614,0.08532089,0.010596746,0.04922063,0.024035683,-0.012628472,0.0,0.0,0.0,0.0,-0.01915505,0.06901966,0.042351753,0.01800278,0.024117848,-0.041384794,-0.018795028,-0.062762715,0.01145767,0.021383287,-0.06986569,-0.033459425,0.027487332,0.22943819,0.12427122,-0.024331579,0.024211733,-0.053005785,-0.071771964,-0.12546663,-0.04367833,0.06757213,-0.23067078,-0.117681764,-2.0,2.0,2.0,2.0,0.98820716,-2.0,-2.0,-1.833941,0.10711498,2.0,-2.0,-2.0,-2.0,2.0,-2.0,2.0,0.44024172,-2.0,-2.0,-2.0,-2.0,2.0,-2.0,-2.0
2025-06-05 14:14:00.321,-0.10530807,0.115671486,-0.0106954025,0.056887615,-0.00413984,0.046858557,0.0,0.0,0.0,-0.00039462585,-0.03580905,0.14420152,0.002673527,0.033727683,0.048694767,-0.06961532,-0.033846416,-0.13794036,-0.034129377,0.031724766,-0.1343941,-0.07284434,-0.05632224,0.17327191,-0.055184532,-0.024873134,-0.025428645,-0.08682613,-0.069506675,-0.17336409,-0.16773833,-0.0023164258,-0.101386674,-0.15796226,-2.0,2.0,-2.0,2.0,0.44024172,-2.0,-2.0,-2.0,-2.0,2.0,-2.0,-2.0,-2.0,2.0,-2.0,2.0,-1.4089998,-2.0,-2.0,-2.0,-2.0,2.0,-2.0,-2.0
2025-06-05 14:14:00.342,0.03348294,0.15262806,0.01813331,-0.026524311,0.06770362,0.0112301875,0.0,0.0,0.0,-0.00073958805,-0.04544906,0.20255738,-0.04781879,0.033074904,0.023705034,-0.07756051,-0.044480454,-0.19714057,-0.05587262,0.033684615,-0.19293015,-0.06975175,0.0056915553,0.19300848,-0.0846629,0.019674808,-0.13688329,0.095997006,-0.008297164,-0.20440456,-0.059874553,-0.06523947,-0.07359974,0.04331299,-2.0,2.0,-2.0,2.0,-1.4089998,-2.0,-2.0,-2.0,-2.0,2.0,-2.0,-2.0,-2.0,2.0,-2.0,2.0,-2.0,-2.0,-2.0,-2.0,-2.0,2.0,-2.0,-2.0
2025-06-05 14:14:00.363,-0.07073421,0.07222776,0.110712215,0.032824226,0.05084579,0.045835186,0.0,0.0,0.0,-0.0015676526,-0.045780536,0.22571486,-0.06683016,0.05546746,-0.027798967,-0.06975849,-0.060587194,-0.23689142,-0.060014706,0.033091847,-0.23583764,-0.063712634,-0.0737659,0.1105184,-0.010898509,0.04089502,-0.13372777,0.07500168,0.00690832,-0.13681006,0.007445121,-0.018626772,-0.06700519,0.021738207,-2.0,2.0,-2.0,2.0,-2.0,-2.0,-2.0,-2.0,-2.0,2.0,-2.0,-2.0,-2.0,2.0,-2.0,-2.0,-1.2488467,-2.0,-2.0,-2.0,-2.0,2.0,-2.0,-2.0
2025-06-05 14:14:00.385,-0.012114642,0.11927596,0.10080238,0.031461753,0.058953587,0.04861588,0.0,0.0,0.0,-0.0037373325,-0.059907787,0.23220225,-0.0648764,0.047538176,-0.05160783,-0.05726246,-0.062394634,-0.25757697,-0.04369075,0.033227433,-0.27727896,-0.054559957,-0.08614956,0.042308107,0.001907552,-0.06329125,-0.11678788,-0.0007003057,-0.06075485,-0.079762846,-0.035311885,-0.07729175,-0.11447973,0.019059302,-2.0,2.0,-2.0,-2.0,-1.2488467,-2.0,-2.0,-2.0,-2.0,2.0,-2.0,-2.0,-2.0,2.0,-2.0,-2.0,-1.6285621,-2.0,2.0,-2.0,-2.0,2.0,-2.0,-2.0
2025-06-05 14:14:00.403,-0.25844914,-0.063729,0.01822828,-0.009890638,0.077643275,0.023027228,0.0,0.0,0.0,-0.005798451,-0.047481615,0.2398469,-0.09207049,0.044568237,-0.0905207,-0.07475962,-0.070068516,-0.2762532,-0.044465464,0.03623294,-0.30744725,-0.05418659,0.0057788673,0.014637435,-0.06499741,-0.04869308,-0.10922267,-0.13912146,-0.0009449836,-0.06758772,-0.056712862,0.023719423,-0.0647667,-0.014996667,-2.0,2.0,-2.0,-2.0,-1.6285621,-2.0,2.0,-2.0,-2.0,2.0,-2.0,-2.0,-2.0,2.0,-2.0,-2.0,-2.0,-2.0,2.0,-2.0,-2.0,2.0,-2.0,-2.0
2025-06-05 14:14:00.422,-0.16204,0.03171422,-0.026345875,0.04316596,0.051447555,0.018719709,0.0,0.0,0.0,-0.006531686,-0.05962507,0.25278378,-0.10679223,0.041231234,-0.15059797,-0.09043993,-0.054337997,-0.30861634,-0.060113188,0.0478677,-0.32729274,-0.07996599,-0.038013212,0.044611238,-0.07023583,-0.04742744,-0.2030513,-0.007378938,-0.0023612233,-0.03417407,-0.0975593,0.017522493,-0.11265339,0.00935962,-2.0,2.0,-2.0,-2.0,-2.0,-2.0,2.0,-2.0,-2.0,2.0,-2.0,-2.0,-2.0,2.0,-2.0,-2.0,-2.0,-2.0,2.0,-2.0,-2.0,2.0,-2.0,-2.0
2025-06-05 14:14:00.443,-0.04396537,0.047512036,-0.012348929,0.035863448,0.07610236,0.024167417,0.0,0.0,0.0,-0.0064021396,-0.07238504,0.29278576,-0.12627763,0.0229468,-0.20371349,-0.10848821,-0.03368692,-0.3324603,-0.08249922,0.0708228,-0.34558287,-0.08925269,-0.014031018,0.042607155,-0.12259498,-0.007159501,-0.10052736,-0.06442656,0.105534546,-0.1361141,-0.0113203805,0.09385429,-0.022205878,0.041946534,-2.0,2.0,-2.0,-2.0,-2.0,-2.0,2.0,-2.0,-2.0,2.0,-2.0,-2.0,-2.0,2.0,-2.0,-2.0,-2.0,-2.0,2.0,-2.0,-2.0,2.0,-2.0,-2.0
2025-06-05 14:14:00.462,-0.050800636,-0.031445954,-0.023595583,0.0038223562,0.083672866,0.04058252,0.0,0.0,0.0,-0.005928751,-0.06674645,0.32343882,-0.15433143,0.0021973928,-0.24777912,-0.12305191,-0.0179306,-0.3503236,-0.08588286,0.078255445,-0.36928946,-0.09210707,-0.07713923,0.07923812,-0.042049658,-0.029757624,-0.1391607,-0.050658423,-0.024179375,-0.081061296,-0.09344096,0.054907314,-0.101985924,0.03359532,-2.0,2.0,-2.0,-2.0,-2.0,-2.0,2.0,-2.0,-2.0,2.0,-2.0,-2.0,-2.0,2.0,-2.0,-2.0,-2.0,-2.0,2.0,-2.0,-2.0,2.0,-2.0,-2.0
2025-06-05 14:14:00.485,-0.046342645,-0.079722,-0.08024903,-0.009509969,0.02796303,-0.009392111,0.0,0.0,0.0,-0.005062526,-0.08109374,0.34052682,-0.17585763,0.0011182873,-0.2829059,-0.12510642,-0.01295925,-0.3787382,-0.11138341,0.08986208,-0.3819667,-0.11437053,0.014696541,0.026768005,-0.061680727,0.03278719,-0.045695227,-0.03198604,-0.034483902,-0.10654177,-0.020238046,-0.026124885,0.010778086,-0.049637303,-2.0,2.0,-2.0,-2.0,-2.0,-2.0,2.0,-2.0,-2.0,2.0,-2.0,-2.0,-2.0,2.0,-2.0,-2.0,-2.0,-2.0,2.0,-2.0,-2.0,2.0,-2.0,-2.0
2025-06-05 14:14:00.504,-0.037050284,-0.09527121,0.039940324,0.04397539,0.110621415,-0.04417394,0.0,0.0,0.0,-0.004135389,-0.08950161,0.34570986,-0.18025249,0.0001250783,-0.29996008,-0.13500369,-0.0040916787,-0.39975876,-0.121902615,0.09969425,-0.403847,-0.12717448,-0.023348518,0.045702945,0.033891074,0.023920434,-0.058384065,0.056196153,0.061589558,0.00039242473,0.01447068,0.06715183,-0.062241476,-0.019339088,-2.0,2.0,-2.0,-2.0,-2.0,-2.0,2.0,-2.0,-2.0,2.0,-2.0,-2.0,-2.0,2.0,-2.0,-2.0,-0.97706085,-2.0,2.0,-2.0,-2.0,2.0,-2.0,-2.0
2025-06-05 14:14:00.523,-0.039757483,-0.039016776,-0.004226258,0.0050614965,0.04589709,-0.025139684,0.0,0.0,0.0,-0.0037758695,-0.09836408,0.33685273,-0.16703466,0.005303613,-0.32789493,-0.14589472,0.0038616918,-0.40224347,-0.1283025,0.08827908,-0.39926374,-0.13284332,0.020233994,-0.049561456,-0.032215677,0.04456788,-0.060787253,-0.06298646,0.008942291,-0.06824843,0.012803272,0.013714054,0.0325266,-0.08914884,-2.0,2.0,-2.0,-2.0,-0.97706085,-2.0,2.0,-2.0,-2.0,2.0,-2.0,-2.0,-2.0,2.0,-2.0,-2.0,-1.4465643,-2.0,2.0,-2.0,-2.0,2.0,-2.0,-2.0
2025-06-05 14:14:00.542,-0.09901476,-0.004203256,0.03617225,0.03492723,0.067175746,-0.045684744,0.0,0.0,0.0,-0.0035664013,-0.10421571,0.3269247,-0.16537002,-0.006235996,-0.34814054,-0.14585036,0.0058994587,-0.42257836,-0.15360372,0.088450626,-0.41890243,-0.15376031,0.04867312,-0.031170158,-0.067660615,-0.0121497065,-0.033812672,-0.078953624,-0.015499706,0.0074969237,-0.015654994,0.024188008,-0.062116064,0.02641586,-2.0,2.0,-2.0,-2.0,-1.4465643,-2.0,2.0,-2.0,-2.0,2.0,-2.0,-2.0,-2.0,2.0,-2.0,-2.0,-0.80508095,-2.0,2.0,-2.0,-2.0,2.0,-2.0,-2.0
2025-06-05 14:14:00.563,0.01687386,0.032135677,-0.0043317275,-0.032152534,0.11219567,0.024071319,0.0,0.0,0.0,-0.003468373,-0.110084176,0.31415012,-0.1680008,-0.00880188,-0.34374702,-0.16329472,0.009118831,-0.4305037,-0.16372761,0.1040118,-0.4210071,-0.1617551,-0.06731389,-0.0056692264,0.021599384,0.04869632,0.054732993,-0.033660475,0.061841145,-0.058627814,-0.05785582,-0.030131446,0.044250753,-0.053270493,-2.0,2.0,-2.0,-2.0,-0.80508095,-2.0,2.0,-2.0,-2.0,2.0,-2.0,-2.0,-2.0,2.0,-2.0,-2.0,-1.1282841,-2.0,2.0,-2.0,-2.0,2.0,-2.0,-2.0
2025-06-05 14:14:00.586,-0.03073247,0.02239724,0.047794387,-0.05038483,0.087921456,-0.025669381,0.0,0.0,0.0,-0.0034179243,-0.12013618,0.33550012,-0.18621883,-0.014039125,-0.3620559,-0.17292057,0.029416308,-0.4315201,-0.1733974,0.09413804,-0.4399509,-0.17828006,-0.08955706,-0.0496826,-0.08082601,-0.06160904,-0.052171644,-0.0927302,0.072836846,0.016180085,-0.05452051,-0.057983518,-0.063955985,-0.03857013,-2.0,2.0,-2.0,-2.0,-1.1282841,-2.0,2.0,-2.0,-2.0,2.0,-2.0,-2.0,-2.0,2.0,-2.0,-2.0,-0.5223375,-2.0,2.0,-2.0,-2.0,2.0,-2.0,-2.0
2025-06-05 14:14:00.654,0.00931269,0.018845484,-0.03652293,-0.026199058,0.08320503,0.024207076,0.0,0.0,0.0,-0.0034488335,-0.12235481,0.33584678,-0.19286196,-0.014386131,-0.35450977,-0.1750753,0.031688165,-0.44043252,-0.18835995,0.09858089,-0.43152466,-0.18824427,-0.0032781598,0.04255667,-0.083316505,0.018814927,0.01926058,-0.053008404,0.06647845,-0.0012870213,-0.07664292,-0.06918943,-0.023910223,0.020582976,-2.0,2.0,-2.0,-2.0,-0.5223375,-2.0,2.0,-2.0,-2.0,2.0,-2.0,-2.0,-2.0,2.0,-2.0,-2.0,-2.0,-2.0,2.0,-2.0,-2.0,2.0,-2.0,-2.0
2025-06-05 14:14:00.674,-0.097152404,-0.06609499,0.028460111,-0.05344144,0.06425059,-0.0011334367,0.0,0.0,0.0,-0.0033415693,-0.13401952,0.34628886,-0.18796134,-0.004685967,-0.36816773,-0.1789266,0.040346127,-0.4549361,-0.2030253,0.08953785,-0.44431672,-0.19416732,0.02057049,0.014539802,-0.06947675,-0.009187745,-0.086416915,0.079886384,0.034461573,0.009877297,-0.013471219,-0.06896029,-0.045897216,-0.02971802,-2.0,2.0,-2.0,-2.0,-2.0,-2.0,2.0,-2.0,-2.0,2.0,-2.0,-2.0,-2.0,2.0,-2.0,-2.0,-1.3731385,-2.0,2.0,-2.0,-2.0,2.0,-2.0,-2.0
2025-06-05 14:14:00.697,0.004234081,-0.046283282,0.051169734,-0.047252815,0.028570997,0.035280548,0.0,0.0,0.0,-0.0034592503,-0.13086179,0.34525874,-0.19412506,-0.019998468,-0.39496398,-0.16375992,0.045263786,-0.4634982,-0.2108376,0.10682631,-0.4593862,-0.19207053,0.046591416,-0.06527658,-0.04798199,0.0676755,0.019904794,0.017685825,0.08046153,0.049291704,0.041136377,0.048798222,-0.06681168,-0.055038754,-2.0,2.0,-2.0,-2.0,-1.3731385,-2.0,2.0,-2.0,-2.0,2.0,-2.0,-2.0,-2.0,2.0,-2.0,-2.0,-0.5731378,-2.0,2.0,-2.0,-2.0,2.0,-2.0,-2.0
2025-06-05 14:14:00.716,0.053256616,0.017991554,-0.017637776,-0.0130139515,0.062917076,-0.002493354,0.0,0.0,0.0,-0.003704168,-0.1309044,0.351009,-0.18530825,-0.008888838,-0.38692534,-0.16496119,0.04557269,-0.46959597,-0.20673817,0.093507454,-0.4555302,-0.2032724,-0.050741293,0.015384652,0.07064843,0.048099726,-0.052649226,-0.04818786,0.046762876,0.028676888,0.0007874012,0.060933463,-0.007627579,0.020609854,-2.0,2.0,-2.0,-2.0,-0.5731378,-2.0,2.0,-2.0,-2.0,2.0,-2.0,-2.0,-0.9658756,2.0,-2.0,-2.0,-1.3633767,-2.0,2.0,-2.0,-2.0,2.0,-2.0,-2.0
2025-06-05 14:14:00.734,-0.056345616,-0.025203481,0.04688873,0.0058148582,0.06480725,0.04931326,0.0,0.0,0.0,-0.0038660502,-0.13861822,0.34077585,-0.20369393,-0.013236935,-0.39254853,-0.18557341,0.05015321,-0.4616846,-0.20844433,0.086831555,-0.47439906,-0.19252138,-0.010062094,0.026918786,-0.050892588,-0.026535854,0.011821694,-0.067872226,0.019423336,0.029075088,0.02587173,-0.04033513,-0.066386916,-0.06396806,-0.9658756,2.0,-2.0,-2.0,-1.3633767,-2.0,2.0,-2.0,-2.0,2.0,-2.0,-2.0,2.0,2.0,-2.0,-2.0,-0.4162484,-2.0,2.0,-2.0,-2.0,2.0,-2.0,-2.0
2025-06-05 14:14:00.755,-0.083099775,-0.019496663,0.13090919,0.006031868,0.06214652,-0.022503179,0.0,0.0,0.0,-0.0044511054,-0.12021747,0.35785925,-0.20392787,-0.0011081644,-0.4033683,-0.17335208,0.04891006,-0.46429297,-0.21784899,0.09500001,-0.47419006,-0.2084695,-0.01963741,-0.009664841,-0.04319369,-0.01194546,-0.041848555,-0.087839894,-0.029237904,-0.05114256,-0.07439926,0.0070821918,0.0064277723,-0.03929759,2.0,2.0,-2.0,-2.0,-0.4162484,-2.0,2.0,-2.0,-2.0,2.0,-2.0,-2.0,2.0,2.0,-2.0,-2.0,2.0,-2.0,2.0,-2.0,-2.0,2.0,-2.0,-2.0
2025-06-05 14:14:00.775,0.1342835,0.012256314,0.034329038,-0.044916634,0.02623832,0.018322296,0.0,0.0,0.0,-0.0059296684,-0.11809895,0.3597038,-0.20631935,-0.012570432,-0.3870625,-0.20281841,0.054441262,-0.4660664,-0.2220386,0.08873047,-0.47257683,-0.21918137,0.027226442,0.08374765,-0.06063093,0.0094164945,0.03097343,-0.113217786,-0.04760015,-0.03007672,0.00049786555,0.047043383,-0.0027116253,0.037312947,2.0,2.0,-2.0,-2.0,2.0,-2.0,2.0,-2.0,-2.0,2.0,-2.0,-2.0,2.0,2.0,-2.0,-2.0,2.0,-2.0,2.0,-2.0,-2.0,2.0,-2.0,-2.0
2025-06-05 14:14:00.794,0.19764557,0.072379656,0.09553171,0.03726197,0.034375314,-0.0150732985,0.0,0.0,0.0,-0.007681448,-0.116024986,0.3871621,-0.1965033,-0.012433005,-0.3405632,-0.23618348,0.075753495,-0.46165717,-0.23811007,0.09041955,-0.47050676,-0.22179899,0.048013538,0.027953269,-0.0711962,-0.0687971,0.095284514,-0.04121479,0.09780175,0.013081188,0.0058570737,-0.065885894,-0.033197146,0.041779354,2.0,2.0,-2.0,-2.0,2.0,-2.0,2.0,-2.0,-2.0,2.0,-2.0,-2.0,2.0,2.0,-2.0,-2.0,2.0,-2.0,2.0,-2.0,-2.0,2.0,-2.0,-2.0
2025-06-05 14:14:00.815,0.21011364,0.015955344,0.09175115,0.008107432,0.07741265,0.036706813,0.0,0.0,0.0,-0.009288355,-0.0981697,0.40963075,-0.18947648,-0.019995626,-0.31277066,-0.26936784,0.080149785,-0.45516863,-0.2282873,0.09765494,-0.46530145,-0.2261579,-0.034018423,0.08429874,-0.026032576,-0.004106782,0.1287874,-0.06664957,0.04795236,0.02462379,0.036665216,0.0015114743,-0.0007627708,0.056495085,2.0,2.0,-2.0,-2.0,2.0,-2.0,2.0,-2.0,-2.0,2.0,-2.0,-2.0,2.0,2.0,-2.0,-2.0,2.0,-2.0,2.0,-2.0,-2.0,2.0,-2.0,-2.0
2025-06-05 14:14:00.837,0.26641244,0.10667922,-0.02183529,-0.008512134,0.06834456,0.01564581,0.0,0.0,0.0,-0.010531195,-0.093591206,0.43672094,-0.19374141,-0.019459926,-0.25110012,-0.2901713,0.09406584,-0.45413876,-0.24165374,0.095477,-0.45636174,-0.23555844,0.08942686,0.014078277,0.07132582,0.0573483,0.15374453,-0.041066185,0.063802436,-0.0493026,-0.05949935,0.062397297,-0.051600393,-0.005863899,2.0,2.0,-2.0,-2.0,2.0,-2.0,2.0,-2.0,-2.0,2.0,-2.0,-2.0,2.0,2.0,-2.0,-2.0,2.0,-2.0,2.0,-2.0,-2.0,2.0,-2.0,-2.0
2025-06-05 14:14:00.855,0.2994297,0.107268386,-0.03496402,0.051718738,-0.032922134,0.026793603,0.0,0.0,0.0,-0.011193392,-0.082595326,0.45537958,-0.18775983,-0.0052772486,-0.21902284,-0.30588317,0.08449148,-0.47372928,-0.24242678,0.084150195,-0.46473512,-0.23006175,-0.005975198,0.07023668,0.026694639,-0.013063382,0.12691535,-0.099742845,0.04478192,-0.016561141,0.024990672,0.07020725,-0.06842066,-0.002609975,2.0,2.0,-2.0,-2.0,2.0,-2.0,2.0,-2.0,-2.0,2.0,-2.0,-2.0,2.0,2.0,-2.0,-2.0,2.0,-2.0,2.0,-2.0,-2.0,2.0,-2.0,-2.0
2025-06-05 14:14:00.875,0.21740048,0.15370601,-0.044452924,0.068325594,-0.013084167,0.0072601736,0.0,0.0,0.0,-0.011147105,-0.08228187,0.4883085,-0.1792966,-0.010838109,-0.18132271,-0.3105981,0.10061008,-0.46307084,-0.24758975,0.08844381,-0.46297163,-0.2391109,0.0010556749,0.016332146,0.08994816,-0.054169215,0.12058513,0.041133266,0.0423201,0.05406749,0.022841454,-0.04749287,-0.071299784,0.0637659,2.0,2.0,-2.0,-2.0,2.0,-2.0,2.0,-2.0,-2.0,2.0,-2.0,-2.0,2.0,2.0,-2.0,-2.0,2.0,-2.0,2.0,-2.0,-2.0,2.0,-2.0,-2.0
2025-06-05 14:14:00.895,0.20792143,0.22547927,-0.06135074,0.1220647,-0.0030042757,-0.014864321,0.0,0.0,0.0,-0.010296001,-0.07715686,0.4932973,-0.1711182,-0.014557944,-0.12835088,-0.3146202,0.096914634,-0.46439722,-0.26022497,0.09924303,-0.46273372,-0.24862702,0.03142492,0.02577069,0.016575206,0.06683324,0.14437282,-0.06824038,-0.021840569,-0.06458545,0.040495053,0.059686188,0.054266673,0.051221557,2.0,2.0,-2.0,-2.0,2.0,-2.0,2.0,-2.0,-2.0,2.0,-2.0,-2.0,2.0,2.0,-2.0,-2.0,2.0,-2.0,2.0,-2.0,-2.0,2.0,-2.0,-2.0
2025-06-05 14:14:00.915,0.21300524,0.27776727,-0.10182229,0.15837242,-0.0030613495,-0.030293303,0.0,0.0,0.0,-0.008623714,-0.058034774,0.50767094,-0.16752298,-0.015686957,-0.08096525,-0.33360723,0.0936204,-0.47385582,-0.24767718,0.0933214,-0.4689701,-0.25211704,0.043640763,-0.022442719,-0.040120486,0.05769653,0.14148596,-0.053715374,0.03652649,-0.035302367,0.04455818,0.022164851,0.044307724,0.05389263,2.0,2.0,-2.0,-2.0,2.0,-2.0,2.0,-2.0,-2.0,2.0,-2.0,-2.0,2.0,2.0,-2.0,-2.0,2.0,-2.0,2.0,-2.0,-2.0,2.0,-2.0,-2.0
2025-06-05 14:14:00.937,0.15219903,0.22561783,-0.094927765,0.10935814,-0.06838561,-0.0035628984,0.0,0.0,0.0,-0.0061024493,-0.061004624,0.5215955,-0.1518125,-0.007463904,-0.048537068,-0.32451484,0.12045237,-0.4737168,-0.24938722,0.096789785,-0.46295527,-0.24777403,0.022785697,0.033626102,0.054284334,-0.032064583,0.04974521,0.0115938485,0.086773954,-0.0193362,0.08002939,-0.022349041,-0.034716602,-0.05654811,2.0,2.0,-2.0,-2.0,2.0,-2.0,2.0,-2.0,-2.0,2.0,-2.0,-2.0,2.0,2.0,-2.0,-2.0,2.0,-2.0,2.0,-2.0,-2.0,2.0,-2.0,-2.0
2025-06-05 14:14:00.956,0.18788941,0.061125543,-0.13825242,0.155587,-0.0479511,0.022611039,0.0,0.0,0.0,-0.0033401384,-0.055452015,0.55655247,-0.14628543,-0.020815564,0.002870425,-0.32806575,0.12280238,-0.47904006,-0.21495992,0.09282383,-0.4626698,-0.26167876,-0.054315735,0.07179287,0.07142808,0.056136496,0.0673776,0.021540394,0.023884857,-0.0027874864,0.04173226,-0.04457647,0.052194133,0.015616396,2.0,2.0,-2.0,-2.0,2.0,-2.0,2.0,-2.0,-2.0,2.0,-2.0,-2.0,2.0,2.0,-2.0,-2.0,2.0,-2.0,2.0,-2.0,-2.0,2.0,-2.0,-2.0
2025-06-05 14:14:00.976,0.18770811,0.049345456,-0.15220743,0.16061512,-0.09157198,0.049022723,0.0,0.0,0.0,-0.0009275196,-0.03692186,0.57402927,-0.14952375,-0.006101876,0.046818115,-0.31948432,0.145403,-0.47026876,-0.16308706,0.087389134,-0.47520566,-0.26074755,0.006955892,0.040244106,0.07558302,-0.06551071,0.1444946,-0.041836992,0.01633948,0.0003130853,0.03485547,-0.06050824,-0.010884499,0.034431305,2.0,2.0,-2.0,-2.0,2.0,-2.0,2.0,-2.0,-2.0,2.0,-2.0,-2.0,2.0,2.0,-2.0,-2.0,2.0,-2.0,2.0,-2.0,-2.0,2.0,-2.0,-2.0
2025-06-05 14:14:00.996,0.20035467,0.11444438,-0.057125207,0.14985316,-0.08411784,-0.04660864,0.0,0.0,0.0,0.0012280738,-0.027390016,0.594138,-0.12871723,-0.008941424,0.10607661,-0.32472154,0.16246115,-0.47272035,-0.14016527,0.080068946,-0.45908338,-0.26298007,0.0033551168,0.01236061,-0.051104967,-0.08453777,0.1053017,0.013231467,0.051626783,0.06329628,0.048717275,-0.002667019,0.049869042,0.031251963,2.0,2.0,-2.0,-2.0,2.0,-2.0,2.0,-2.0,-2.0,2.0,-2.0,-2.0,2.0,2.0,-2.0,-2.0,2.0,-2.0,2.0,-2.0,-2.0,2.0,-2.0,-2.0
2025-06-05 14:14:01.018,0.1557792,0.0057322197,-0.08835782,0.13464074,-0.078884296,-0.028095344,0.0,0.0,0.0,0.0031721299,-0.025689613,0.6074481,-0.13760404,-0.016848683,0.16312572,-0.3064705,0.17218335,-0.46447983,-0.12974651,0.08714488,-0.47523436,-0.26421446,0.09132219,0.010486769,-0.012966545,-0.037348777,0.17019993,-0.05610039,0.014264469,-0.0037190325,0.0870733,0.07233469,0.023231877,0.040228568,2.0,2.0,-2.0,-2.0,2.0,-2.0,2.0,-2.0,-2.0,2.0,-2.0,-2.0,2.0,2.0,-2.0,-2.0,2.0,-2.0,2.0,-2.0,-2.0,2.0,-2.0,-2.0
2025-06-05 14:14:01.037,0.055223,0.020852929,-0.054703068,0.13386375,-0.07019484,-0.012053721,0.0,0.0,0.0,0.004398076,-0.010043706,0.6016375,-0.12712012,-0.029949084,0.20825881,-0.3084373,0.17280866,-0.4611514,-0.11259735,0.08977542,-0.46694323,-0.2627114,0.071655944,0.03363658,-0.01845441,-0.086497,0.15837662,0.070280254,0.050378755,0.06310324,0.030684164,0.0019530028,0.026255984,-0.06368022,2.0,2.0,-2.0,-2.0,2.0,-2.0,2.0,-2.0,-2.0,2.0,-2.0,-2.0,2.0,2.0,-2.0,-2.0,2.0,-2.0,2.0,-2.0,-2.0,2.0,-2.0,-2.0
2025-06-05 14:14:01.056,0.069647,0.017900858,0.037138473,0.17544731,-0.12973264,-0.016383937,0.0,0.0,0.0,0.005218918,0.009193193,0.6253208,-0.12896445,-0.04600276,0.24552925,-0.30350798,0.19548416,-0.4747623,-0.093860105,0.09457858,-0.4818116,-0.25376105,0.08093093,0.048179016,0.009716198,0.053285357,0.11223907,0.012007264,-0.047417115,-0.004517501,0.08158242,-0.053891286,-0.044256598,0.02874869,2.0,2.0,-2.0,-2.0,2.0,-2.0,2.0,-2.0,-2.0,2.0,-2.0,-2.0,2.0,2.0,-2.0,-2.0,2.0,-2.0,2.0,-2.0,-2.0,2.0,-2.0,-2.0
2025-06-05 14:14:01.076,0.040035896,-0.010730318,0.06323237,0.16863392,-0.14343625,0.049041558,0.0,0.0,0.0,0.0055800783,0.0325895,0.6264775,-0.12211414,-0.052571833,0.28917938,-0.29700503,0.21189505,-0.46721947,-0.0742566,0.088531494,-0.4818563,-0.26182976,0.031215727,-0.04373797,-0.053973515,-0.031064797,0.14024912,-0.055700153,-0.037268527,-0.018252486,-0.042370044,-0.04705257,-0.066662624,0.068537846,2.0,2.0,-2.0,-2.0,2.0,-2.0,2.0,-2.0,-2.0,2.0,-2.0,-2.0,2.0,2.0,-2.0,-2.0,2.0,-2.0,2.0,-2.0,-2.0,2.0,-2.0,-2.0
2025-06-05 14:14:01.097,-0.011493812,0.044027533,0.0383601,0.13917199,-0.14999706,-0.0229474,0.0,0.0,0.0,0.0054095984,0.032689046,0.62095815,-0.12696323,-0.052751016,0.32215944,-0.2919128,0.21779333,-0.47260872,-0.05832379,0.093892224,-0.47366378,-0.2694036,0.084335014,0.023382535,-0.046524618,-0.05112522,0.0449375,-0.062417075,0.06661513,-0.054383554,-0.043677866,0.016267838,0.021477867,-0.050571434,2.0,2.0,-2.0,-2.0,2.0,-2.0,2.0,-2.0,-2.0,2.0,-2.0,-2.0,2.0,2.0,-2.0,-2.0,2.0,-2.0,2.0,-2.0,-2.0,2.0,-2.0,-2.0
2025-06-05 14:14:01.118,-0.033153154,0.008924786,0.057629637,0.16092329,-0.08988228,0.010905318,0.0,0.0,0.0,0.004618766,0.058138553,0.63863075,-0.108158246,-0.07113975,0.34210557,-0.27722687,0.22064807,-0.47872838,-0.05512849,0.08165593,-0.46435413,-0.25631633,0.062369183,0.039728813,0.06935626,0.010918321,0.06756374,0.036383975,-0.054600853,-0.06318218,0.04844979,-0.003791136,0.06515779,-0.028219186,2.0,2.0,-2.0,-2.0,2.0,-2.0,2.0,-2.0,-2.0,2.0,-2.0,-2.0,2.0,2.0,-2.0,-2.0,2.0,-2.0,2.0,-2.0,-2.0,2.0,-2.0,-2.0
2025-06-05 14:14:01.137,-0.016518122,-0.006240959,0.069554925,0.22069223,-0.1489727,0.003513876,0.0,0.0,0.0,0.0034929325,0.072485715,0.6278355,-0.10384878,-0.07796113,0.37370804,-0.28577358,0.22116506,-0.4833697,-0.06136294,0.08412678,-0.47721818,-0.25985652,0.026150469,0.061845783,0.057255868,-0.041487392,0.07573093,0.0131489355,0.002704123,0.036333233,-0.0063004093,-0.038508363,-0.027289778,0.035093002,2.0,2.0,-2.0,-2.0,2.0,-2.0,2.0,-2.0,-2.0,2.0,-2.0,-2.0,2.0,2.0,-2.0,-2.0,2.0,-2.0,2.0,-2.0,-2.0,2.0,-2.0,-2.0
2025-06-05 14:14:01.157,-0.037560917,-0.06517557,0.031419426,0.19854577,-0.12101616,-0.018619722,0.0,0.0,0.0,0.0020895062,0.07586089,0.6209215,-0.10878382,-0.08540876,0.3720364,-0.28299513,0.22696121,-0.47732434,-0.06047975,0.08999189,-0.46819225,-0.2629638,0.10180067,-0.071708746,-0.045809668,0.03929622,0.020405537,0.0016440037,-0.057661433,-0.073928885,0.047931027,-0.06873042,-0.06361702,0.00021442231,2.0,2.0,-2.0,-2.0,2.0,-2.0,2.0,-2.0,-2.0,2.0,-2.0,-2.0,2.0,2.0,-2.0,-2.0,2.0,-2.0,2.0,-2.0,-2.0,2.0,-2.0,-2.0
2025-06-05 14:14:01.178,-0.09046071,-0.07332647,0.06459066,0.13506563,-0.061515406,-0.014964692,0.0,0.0,0.0,0.0006900527,0.09632191,0.6088944,-0.104334675,-0.087186545,0.39746875,-0.28382793,0.22392626,-0.49671236,-0.06576937,0.092028074,-0.47854772,-0.257445,0.011189826,0.016036522,-0.053734343,0.013437205,0.07352117,-0.024777208,0.043630123,-0.039726418,-0.001065093,-0.008112439,-0.04722777,0.053366777,2.0,2.0,-2.0,-2.0,2.0,-2.0,2.0,-2.0,-2.0,2.0,-2.0,-2.0,2.0,2.0,-2.0,-2.0,2.0,-2.0,2.0,-2.0,-2.0,2.0,-2.0,-2.0
2025-06-05 14:14:01.196,-0.08178159,0.013606766,0.04424885,0.15383694,-0.10546405,-0.048502017,0.0,0.0,0.0,-0.0006446169,0.09545755,0.6034711,-0.09609264,-0.07491309,0.39741433,-0.27775127,0.21503082,-0.49408808,-0.06252914,0.082587816,-0.47673306,-0.26689938,-0.007775494,-0.051074438,0.056512352,0.06299473,0.08893152,-0.05723056,-0.05775266,0.04700924,0.02532057,0.07104856,0.06536684,0.04210067,2.0,2.0,-2.0,-2.0,2.0,-2.0,2.0,-2.0,-2.0,2.0,-2.0,-2.0,2.0,2.0,-2.0,-2.0,2.0,-2.0,2.0,-2.0,-2.0,2.0,-2.0,-2.0
2025-06-05 14:14:01.220,-0.05176066,-0.069595635,0.07507174,0.19964705,-0.04764178,-0.045774903,0.0,0.0,0.0,-0.0018294078,0.099338144,0.5928012,-0.08461506,-0.0801819,0.4137791,-0.2755574,0.21399754,-0.5061137,-0.070308834,0.096662074,-0.4746404,-0.26046535,0.03810127,-0.03242096,0.028783347,0.07268316,-0.062215265,-0.03517985,-0.058052108,0.05426452,-0.013658995,-0.060450707,-0.06612367,-0.020952646,2.0,2.0,-2.0,-2.0,2.0,-2.0,2.0,-2.0,-2.0,2.0,-2.0,-2.0,2.0,2.0,-2.0,-2.0,2.0,-2.0,2.0,-2.0,-2.0,2.0,-2.0,-2.0
2025-06-05 14:14:01.237,-0.07199937,-0.08917318,0.07668538,0.20403336,-0.055792835,0.008680778,0.0,0.0,0.0,-0.0028709415,0.10144247,0.5827416,-0.09092469,-0.067466386,0.41175628,-0.25939953,0.19583848,-0.5099547,-0.08978831,0.09143169,-0.46901608,-0.26371077,0.025484882,-0.043005854,-0.06437704,0.0033481035,-0.011233687,-0.038129225,0.037063196,-0.049233258,-0.058040746,-0.000277747,-0.0064210272,-0.01899914,2.0,2.0,-2.0,-2.0,2.0,-2.0,2.0,-2.0,-2.0,2.0,-2.0,-2.0,2.0,2.0,-2.0,-2.0,2.0,-2.0,2.0,-2.0,-2.0,2.0,-2.0,-2.0
2025-06-05 14:14:01.257,-0.11644997,-0.038718008,0.03672633,0.14353476,-0.102014884,-0.0478221,0.0,0.0,0.0,-0.0037245138,0.104075335,0.5812561,-0.10205773,-0.06703227,0.4042069,-0.26194596,0.20666404,-0.49738032,-0.09917115,0.09698697,-0.46218163,-0.26484,0.012071274,0.016040508,-0.0036016328,0.026458815,0.004268726,-0.04880472,0.040523916,0.05799726,0.04809604,0.056475163,0.061450295,0.07374519,2.0,2.0,-2.0,-2.0,2.0,-2.0,2.0,-2.0,-2.0,2.0,-2.0,-2.0,2.0,2.0,-2.0,-2.0,2.0,-2.0,2.0,-2.0,-2.0,2.0,-2.0,-2.0
2025-06-05 14:14:01.276,-0.08486932,-0.05934523,0.06509299,0.19222386,-0.10947896,0.03097651,0.0,0.0,0.0,-0.004428744,0.099911064,0.5668774,-0.09199821,-0.07249036,0.40440685,-0.26268253,0.1873523,-0.5173224,-0.10813378,0.08217884,-0.46236268,-0.26942298,0.060518615,-0.04870683,0.009553614,-0.018905856,0.018954802,-0.058239568,-0.0029048363,0.019641493,-0.088459715,-0.015651716,0.057992503,-0.07273088,2.0,2.0,-2.0,-2.0,2.0,-2.0,2.0,-2.0,-2.0,2.0,-2.0,-2.0,2.0,2.0,-2.0,-2.0,2.0,-2.0,2.0,-2.0,-2.0,2.0,-2.0,-2.0
2025-06-05 14:14:01.296,-0.17496061,-0.0027933717,0.039918877,0.1221217,-0.013689376,-0.046593,0.0,0.0,0.0,-0.004938629,0.112292364,0.56858206,-0.10756442,-0.071854874,0.4040507,-0.2397354,0.1772173,-0.51139003,-0.10789636,0.079954125,-0.47091722,-0.2720334,-0.0009435806,-0.052354023,0.020996481,-0.0028420107,0.05503495,0.029400805,-0.0087089995,-0.0043713255,-0.023843272,0.043094106,0.021223085,-0.014748046,2.0,2.0,-2.0,-2.0,2.0,-2.0,2.0,-2.0,-2.0,2.0,-2.0,-2.0,2.0,2.0,-2.0,-2.0,2.0,-2.0,2.0,-2.0,-2.0,2.0,-2.0,-2.0
2025-06-05 14:14:01.320,-0.15422323,-0.057033267,-0.032453865,0.155092,-0.07497036,0.011363631,0.0,0.0,0.0,-0.0052841394,0.111957215,0.55257785,-0.10491417,-0.06276237,0.40352,-0.24939044,0.17951755,-0.516685,-0.119430356,0.08557714,-0.46438253,-0.269778,0.009709257,-0.0543624,-0.021130914,-0.055918764,-0.005842896,0.058507923,-0.04963597,-0.06577177,-0.011790165,-0.0693834,-0.015803954,-0.074588574,2.0,2.0,-2.0,-2.0,2.0,-2.0,2.0,-2.0,-2.0,2.0,-2.0,-2.0,2.0,2.0,-2.0,-2.0,2.0,-2.0,2.0,-2.0,-2.0,2.0,-2.0,-2.0
2025-06-05 14:14:01.337,-0.1836225,-0.030627497,-0.01990643,0.14797087,0.00072228396,0.0044897012,0.0,0.0,0.0,-0.0054939934,0.10858991,0.54800427,-0.1039411,-0.07337686,0.40449968,-0.22878054,0.16896252,-0.5105444,-0.11656231,0.09010086,-0.47725832,-0.25930458,-0.073902614,0.041986194,-0.0574866,0.051102277,0.057850447,0.07525226,0.04657192,-0.071694046,-0.04436967,0.074595526,0.04061222,-0.045206096,2.0,2.0,-2.0,-2.0,2.0,-2.0,2.0,-2.0,-2.0,2.0,-2.0,-2.0,2.0,2.0,-2.0,-2.0,2.0,-2.0,2.0,-2.0,-2.0,2.0,-2.0,-2.0
2025-06-05 14:14:01.357,-0.11610917,-0.05649342,-0.014047591,0.14638597,-0.009708695,0.0092985565,0.0,0.0,0.0,-0.0055739135,0.10060202,0.54577744,-0.11711267,-0.064149484,0.39831242,-0.2329734,0.16725071,-0.5124241,-0.11306768,0.08764491,-0.47565868,-0.27455443,-0.066181675,-0.029510466,-0.061942678,0.05874276,-0.043667596,0.05755363,-0.048110437,0.0683937,-0.028761758,-0.003191154,-0.06783582,-0.0046672323,2.0,2.0,-2.0,-2.0,2.0,-2.0,2.0,-2.0,-2.0,2.0,-2.0,-2.0,2.0,2.0,-2.0,-2.0,2.0,-2.0,2.0,-2.0,-2.0,2.0,-2.0,-2.0
2025-06-05 14:14:01.378,-0.10608849,-0.031394728,-0.040871274,0.07628619,0.026655247,0.012223223,0.0,0.0,0.0,-0.005531234,0.09526176,0.54270095,-0.1232556,-0.06142883,0.40009958,-0.22245675,0.17045939,-0.52628535,-0.12674506,0.09295848,-0.46646032,-0.2670666,-0.0077931928,0.05284777,-0.005722935,0.0031030206,-0.005399746,0.03013205,-0.039244443,-0.07367591,-0.049032934,0.06509064,0.02300304,-0.016431475,2.0,2.0,-2.0,-2.0,2.0,-2.0,2.0,-2.0,-2.0,2.0,-2.0,-2.0,2.0,2.0,-2.0,-2.0,2.0,-2.0,2.0,-2.0,-2.0,2.0,-2.0,-2.0
2025-06-05 14:14:01.397,-0.113287024,-0.032506958,-0.0052917306,0.084868394,-0.010141696,0.016159799,0.0,0.0,0.0,-0.005420781,0.101339124,0.55041605,-0.1400459,-0.07164314,0.3848309,-0.21147265,0.15738253,-0.52218616,-0.12304004,0.09153092,-0.46970984,-0.2700956,-0.030072203,0.020403728,0.005667159,-0.01618413,0.045743797,-0.001190259,-0.01493211,-0.024763793,0.0527561,-0.058331825,-0.032788392,0.009207779,2.0,2.0,-2.0,-2.0,2.0,-2.0,2.0,-2.0,-2.0,2.0,-2.0,-2.0,2.0,2.0,-2.0,-2.0,2.0,-2.0,2.0,-2.0,-2.0,2.0,-2.0,-2.0
2025-06-05 14:14:01.420,-0.13331181,-0.02894028,-0.014989201,0.13603258,-0.035125483,-0.01891092,0.0,0.0,0.0,-0.0052928105,0.08457131,0.5525874,-0.15355586,-0.06297994,0.3872977,-0.2071278,0.16022947,-0.50972813,-0.12864469,0.087509885,-0.46436536,-0.26067525,0.058062553,0.05100885,0.0316939,-0.07366158,-0.013004495,-0.0067950133,0.04470417,-0.030263502,-0.07349333,0.03989658,0.0698194,0.05462216,2.0,2.0,-2.0,-2.0,2.0,-2.0,2.0,-2.0,-2.0,2.0,-2.0,-2.0,2.0,2.0,-2.0,-2.0,2.0,-2.0,2.0,-2.0,-2.0,2.0,-2.0,-2.0
2025-06-05 14:14:01.438,-0.16547327,-0.002820878,0.014263433,0.07634658,-0.0076633687,0.0071016387,0.0,0.0,0.0,-0.0051742652,0.087730646,0.5550374,-0.1522278,-0.070995286,0.38348547,-0.19614266,0.16113324,-0.52764744,-0.13081038,0.09058555,-0.47520936,-0.25900626,-0.07229817,-0.0064194673,0.05241808,0.008811978,-0.030448679,0.008692778,-0.04782175,-0.05837533,-0.06683341,-0.0138232615,-0.068849064,-0.06931425,2.0,2.0,-2.0,-2.0,2.0,-2.0,2.0,-2.0,-2.0,2.0,-2.0,-2.0,2.0,2.0,-2.0,-2.0,2.0,-2.0,2.0,-2.0,-2.0,2.0,-2.0,-2.0
2025-06-05 14:14:01.458,-0.17498566,-0.06428546,0.04486818,0.044296622,0.016044244,-0.028855208,0.0,0.0,0.0,-0.005067071,0.082230784,0.55293494,-0.15310794,-0.07599256,0.38666382,-0.18003164,0.15269479,-0.5126121,-0.12988031,0.082563095,-0.4757497,-0.2712679,-0.007429932,0.022435134,0.009113154,-0.03868143,-0.011748058,-0.050300844,-0.0800646,0.04319988,0.009446651,0.039764553,0.07122127,0.02587509,2.0,2.0,-2.0,-2.0,2.0,-2.0,2.0,-2.0,-2.0,2.0,-2.0,-2.0,2.0,2.0,-2.0,-2.0,2.0,-2.0,2.0,-2.0,-2.0,2.0,-2.0,-2.0
2025-06-05 14:14:01.479,-0.16978139,-0.09059834,0.0111175785,0.07772399,0.058275975,-0.035094906,0.0,0.0,0.0,-0.00496956,0.07713907,0.5582234,-0.16156816,-0.07328653,0.3831336,-0.18484443,0.1405496,-0.52494544,-0.12130713,0.08015105,-0.46791413,-0.26086178,-0.06827973,-0.008559368,-0.026293686,0.054808494,0.020081213,0.050922602,0.053941842,0.06328136,-0.039620128,-0.016830249,-0.069177076,0.05664859,2.0,2.0,-2.0,-2.0,2.0,-2.0,2.0,-2.0,-2.0,2.0,-2.0,-2.0,2.0,2.0,-2.0,-2.0,2.0,-2.0,2.0,-2.0,-2.0,2.0,-2.0,-2.0
2025-06-05 14:14:01.498,-0.10633143,-0.06408743,0.005119183,0.025589561,0.052715134,-0.0351789,0.0,0.0,0.0,-0.0048769983,0.083555214,0.5655186,-0.18495944,-0.068356045,0.3805422,-0.16633587,0.1509026,-0.52668756,-0.12564342,0.09220444,-0.4723902,-0.2736271,0.07201601,0.00079355517,-0.08741078,0.0070231548,-0.058532383,0.07520656,-0.025921933,-0.0045317225,0.040224478,-0.06924619,0.06304158,-0.034516737,2.0,2.0,-2.0,-2.0,2.0,-2.0,2.0,-2.0,-2.0,2.0,-2.0,-2.0,2.0,2.0,-2.0,-2.0,2.0,-2.0,2.0,-2.0,-2.0,2.0,-2.0,-2.0
2025-06-05 14:14:01.520,-0.09367681,0.008162192,-0.039988764,0.10986503,0.040985778,0.0041604927,0.0,0.0,0.0,-0.0047833337,0.076936886,0.5527698,-0.17696725,-0.067486696,0.38382506,-0.16410993,0.13652979,-0.50916624,-0.112907566,0.09413148,-0.4690151,-0.27098012,0.030363755,0.04189703,0.028074235,0.03180195,-0.050342634,0.042132232,-0.06902264,0.04427312,0.032795932,-0.07485709,-0.0056264647,-0.036282502,2.0,2.0,-2.0,-2.0,2.0,-2.0,2.0,-2.0,-2.0,2.0,-2.0,-2.0,2.0,2.0,-2.0,-2.0,2.0,-2.0,2.0,-2.0,-2.0,2.0,-2.0,-2.0
2025-06-05 14:14:01.538,-0.07915327,-0.016293388,-0.0042241714,0.010974738,0.06289628,-0.04837085,0.0,0.0,0.0,-0.004689291,0.07457096,0.54854584,-0.18695295,-0.06678336,0.37734303,-0.16186017,0.14607796,-0.52532357,-0.103837386,0.08712876,-0.47474995,-0.26649442,0.03248612,0.06564624,-0.03159103,0.025470637,0.008838743,-0.0023283747,0.042696856,0.05229343,0.029018767,-0.040036865,0.004640007,0.052881707,2.0,2.0,-2.0,-2.0,2.0,-2.0,2.0,-2.0,-2.0,2.0,-2.0,-2.0,2.0,2.0,-2.0,-2.0,2.0,-2.0,2.0,-2.0,-2.0,2.0,-2.0,-2.0
2025-06-05 14:14:01.558,-0.07701488,-0.056741234,0.025886504,0.07743428,0.06741454,0.012207615,0.0,0.0,0.0,-0.0046048546,0.09183885,0.5615167,-0.18446468,-0.086227775,0.3691537,-0.14337772,0.14292109,-0.5200527,-0.11970126,0.07978314,-0.4617883,-0.271105,-0.034681875,0.00024014081,-0.040435463,0.050180107,-0.04211101,-0.025710799,0.0010884631,-0.06592309,-0.022701217,0.063788,-0.044282038,-0.012247733,2.0,2.0,-2.0,-2.0,2.0,-2.0,2.0,-2.0,-2.0,2.0,-2.0,-2.0,2.0,2.0,-2.0,-2.0,2.0,-2.0,2.0,-2.0,-2.0,2.0,-2.0,-2.0
2025-06-05 14:14:01.578,-0.10600495,-0.050038747,0.02707186,0.072199464,0.035986703,-0.03553973,0.0,0.0,0.0,-0.0045334194,0.092812054,0.5529098,-0.19120856,-0.075502865,0.3851417,-0.13635394,0.1301376,-0.5172127,-0.112731315,0.084611416,-0.4674103,-0.27072203,0.031050786,-0.028475007,0.01872397,-0.05069232,-0.020136772,0.057847243,-0.050895266,0.019120876,-0.026030716,0.0031331643,-0.051352385,0.0047053406,2.0,2.0,-2.0,-2.0,2.0,-2.0,2.0,-2.0,-2.0,2.0,-2.0,-2.0,2.0,2.0,-2.0,-2.0,2.0,-2.0,2.0,-2.0,-2.0,2.0,-2.0,-2.0
2025-06-05 14:14:01.598,-0.081357725,0.004343253,-0.011804771,-0.004822651,0.049102187,-0.037112072,0.0,0.0,0.0,-0.0044665732,0.08453846,0.53733176,-0.20567665,-0.09086531,0.369985,-0.14420691,0.13010156,-0.5141537,-0.10108768,0.07994516,-0.47672388,-0.2626319,-0.06556546,0.051562782,0.008345552,-0.053411394,0.025514478,-0.033828747,-0.026956718,-0.028415753,0.03637544,-0.03306584,0.010561421,0.0703035,2.0,2.0,-2.0,-2.0,2.0,-2.0,2.0,-2.0,-2.0,2.0,-2.0,-2.0,2.0,2.0,-2.0,-2.0,2.0,-2.0,2.0,-2.0,-2.0,2.0,-2.0,-2.0
2025-06-05 14:14:01.620,-0.09443908,-0.047073193,-0.016488826,0.07441111,0.04439439,-0.0004832378,0.0,0.0,0.0,-0.0044411886,0.09238096,0.55061954,-0.20441376,-0.08467139,0.38816026,-0.12415393,0.13676557,-0.50828016,-0.096284196,0.09772867,-0.47517824,-0.26821512,-0.057107795,-0.067269765,0.012774386,-0.047824863,-0.054361645,0.048951413,0.03752863,0.04917107,-0.017883096,-0.008170605,-0.0042864406,-0.01470904,2.0,2.0,-2.0,-2.0,2.0,-2.0,2.0,-2.0,-2.0,2.0,-2.0,-2.0,2.0,2.0,-2.0,-2.0,2.0,-2.0,2.0,-2.0,-2.0,2.0,-2.0,-2.0
2025-06-05 14:14:01.639,-0.027269362,-0.062254105,0.0084565785,0.029722074,0.10596164,-0.019635655,0.0,0.0,0.0,-0.0044092606,0.07826775,0.5447911,-0.21775353,-0.07990698,0.39148778,-0.12578446,0.12908699,-0.4963005,-0.10061422,0.084637254,-0.466399,-0.25276166,0.038850036,0.016382318,-0.029360713,-0.053902086,0.08614356,0.018772578,-0.0727405,-0.019418867,-0.02381502,0.005855345,-0.0796432,-0.024723949,2.0,2.0,-2.0,-2.0,2.0,-2.0,2.0,-2.0,-2.0,2.0,-2.0,-2.0,2.0,2.0,-2.0,-2.0,2.0,-2.0,2.0,-2.0,-2.0,2.0,-2.0,-2.0
2025-06-05 14:14:01.659,-0.07678901,-0.008588266,-0.023191622,0.057666827,0.07517375,-0.04908876,0.0,0.0,0.0,-0.0041873185,0.09475006,0.53444403,-0.20740713,-0.09919736,0.38664827,-0.12854098,0.11876938,-0.49640188,-0.09158582,0.085779175,-0.47449216,-0.25493783,0.019925484,0.012337991,-0.0057667107,-0.004009676,0.06546812,0.00897913,-0.05707695,0.008554919,0.029187134,-0.04636757,0.016262017,0.001365175,2.0,2.0,-2.0,-2.0,2.0,-2.0,2.0,-2.0,-2.0,2.0,-2.0,-2.0,2.0,2.0,-2.0,-2.0,2.0,-2.0,2.0,-2.0,-2.0,2.0,-2.0,-2.0
2025-06-05 14:14:01.679,-0.065012805,-0.030120816,-0.070662625,0.0123134935,0.09297009,0.010877285,0.0,0.0,0.0,-0.0037451726,0.09516846,0.5322795,-0.21400733,-0.10543603,0.4038111,-0.12839137,0.13047048,-0.48425677,-0.10723673,0.07932999,-0.46776992,-0.24496676,0.060095344,-0.059602376,-0.043888837,-0.041508783,0.08397742,-0.05310962,-0.07258208,-0.037504252,-0.043195028,-0.023102185,0.013661075,0.0056677456,2.0,2.0,-2.0,-2.0,2.0,-2.0,2.0,-2.0,-2.0,2.0,-2.0,-2.0,2.0,2.0,-2.0,-2.0,2.0,-2.0,2.0,-2.0,-2.0,2.0,-2.0,-2.0
2025-06-05 14:14:01.699,-0.011173894,0.026522508,0.009707245,-0.0057939207,0.090294875,0.0069034323,0.0,0.0,0.0,-0.0031969764,0.08787862,0.52573156,-0.22491868,-0.100448094,0.40649498,-0.113168895,0.11386871,-0.49344024,-0.09581671,0.08577194,-0.47572726,-0.2350001,0.06749309,-0.01819869,-0.0560644,-0.058330383,-0.0034860445,0.0052284854,0.053689275,0.076746956,0.06699169,-0.005325599,-0.012388407,-0.0215427,2.0,2.0,-2.0,-2.0,2.0,-2.0,2.0,-2.0,-2.0,2.0,-2.0,-2.0,2.0,2.0,-2.0,-2.0,2.0,-2.0,2.0,-2.0,-2.0,2.0,-2.0,-2.0
2025-06-05 14:14:01.720,-0.012508569,-0.0576246,-0.027313279,-0.0032931857,0.08468071,0.025171941,0.0,0.0,0.0,-0.0027003437,0.0787665,0.5382209,-0.22045301,-0.1110752,0.39903384,-0.11292386,0.112615995,-0.48129663,-0.09864161,0.09830597,-0.48314807,-0.23342048,0.0038307153,0.029004341,0.04238337,0.04652536,-0.043212447,-0.064649336,0.06140706,0.06013341,-0.0058371583,0.020618018,-0.062395345,-0.034290478,2.0,2.0,-2.0,-2.0,2.0,-2.0,2.0,-2.0,-2.0,2.0,-2.0,-2.0,2.0,2.0,-2.0,-2.0,2.0,-2.0,2.0,-2.0,-2.0,2.0,-2.0,-2.0
2025-06-05 14:14:01.739,-0.031506743,0.03450825,-0.03810166,-0.012188017,0.12933391,0.03703329,0.0,0.0,0.0,-0.0023183075,0.08617471,0.5319512,-0.21862094,-0.104434185,0.40505245,-0.12755217,0.11851555,-0.4832297,-0.09964935,0.09508446,-0.48419183,-0.23371467,0.0056832074,0.070692874,-0.041049793,0.01223782,-0.0049293023,0.021656685,0.034592777,0.010448681,0.046562057,-0.04845381,-0.029255347,-0.061268944,2.0,2.0,-2.0,-2.0,2.0,-2.0,2.0,-2.0,-2.0,2.0,-2.0,-2.0,2.0,2.0,-2.0,-2.0,2.0,-2.0,2.0,-2.0,-2.0,2.0,-2.0,-2.0
2025-06-05 14:14:01.759,-0.03367605,-0.0055246423,-0.022709677,0.04640018,0.12945473,-0.009397865,0.0,0.0,0.0,-0.002064489,0.08812875,0.53880304,-0.23031595,-0.113126606,0.41341838,-0.12342817,0.11124521,-0.47439516,-0.09489556,0.10046279,-0.47859958,-0.22366498,-0.01508631,0.003281569,0.047329847,-0.053777423,0.017847143,-0.05699376,-0.033049062,-0.060613208,-0.013921161,0.062581696,0.0639711,-0.00085949467,2.0,2.0,-2.0,-2.0,2.0,-2.0,2.0,-2.0,-2.0,2.0,-2.0,-2.0,2.0,2.0,-2.0,-2.0,2.0,-2.0,2.0,-2.0,-2.0,2.0,-2.0,-2.0
2025-06-05 14:14:01.779,-0.038913336,-0.048918713,0.015314078,-0.020165525,0.05293098,0.02811172,0.0,0.0,0.0,-0.0019140046,0.0924879,0.5379924,-0.22023483,-0.106525995,0.41905367,-0.12776104,0.109128445,-0.47681946,-0.10628446,0.10147862,-0.4898474,-0.22465444,0.009719139,0.00811477,-0.007662262,-0.05297777,-0.018284371,-0.020540604,0.012233392,-0.019367788,0.032792926,-0.018114012,0.064791024,-0.013053992,2.0,2.0,-2.0,-2.0,2.0,-2.0,2.0,-2.0,-2.0,2.0,-2.0,-2.0,2.0,2.0,-2.0,-2.0,2.0,-2.0,2.0,-2.0,-2.0,2.0,-2.0,-2.0
2025-06-05 14:14:01.799,-0.024704497,0.004004883,0.049088128,0.058143936,0.0414101,0.0076521165,0.0,0.0,0.0,-0.0018344907,0.07810613,0.53676444,-0.2318379,-0.110953204,0.4083607,-0.12343282,0.12381908,-0.48562416,-0.10452584,0.09712685,-0.4876616,-0.2365863,0.07497918,-0.04791958,-0.0009001308,-0.067646645,-0.04686283,-0.008482516,-0.0082069915,-0.03893524,0.045204837,0.0027811308,-0.033253722,-0.05935845,2.0,2.0,-2.0,-2.0,2.0,-2.0,2.0,-2.0,-2.0,2.0,-2.0,-2.0,2.0,2.0,-2.0,-2.0,2.0,-2.0,2.0,-2.0,-2.0,2.0,-2.0,-2.0
2025-06-05 14:14:01.820,-0.00991612,0.039394777,-0.015846292,0.03992662,0.08363995,0.04288436,0.0,0.0,0.0,-0.001801592,0.08693089,0.53025836,-0.21609826,-0.106377415,0.41578463,-0.12465319,0.11473588,-0.47019604,-0.10726888,0.10644622,-0.47452947,-0.22202489,0.012356384,0.052460544,0.06062116,0.07171699,0.066097125,-0.06967666,0.023621619,-0.062898114,-0.01948327,-0.030542297,-0.009556855,-0.0016905332,2.0,2.0,-2.0,-2.0,2.0,-2.0,2.0,-2.0,-2.0,2.0,-2.0,-2.0,2.0,2.0,-2.0,-2.0,2.0,-2.0,2.0,-2.0,-2.0,2.0,-2.0,-2.0
2025-06-05 14:14:01.839,0.042641066,0.032631084,-0.03334463,0.031363048,0.06949754,-0.014784803,0.0,0.0,0.0,-0.0017997228,0.08454818,0.5238457,-0.22037727,-0.11808215,0.40807763,-0.113199264,0.121187404,-0.47440538,-0.105746545,0.08966907,-0.48079115,-0.22645795,0.0015543448,0.03200161,-0.023502912,-0.07007733,0.044107202,0.06583232,0.057049852,0.053597327,0.016400168,-0.03891083,0.017519243,0.07032824,2.0,2.0,-2.0,-2.0,2.0,-2.0,2.0,-2.0,-2.0,2.0,-2.0,-2.0,2.0,2.0,-2.0,-2.0,2.0,-2.0,2.0,-2.0,-2.0,2.0,-2.0,-2.0
2025-06-05 14:14:01.860,0.0031397073,0.0065558567,0.024525415,0.004248957,0.06458627,0.02044596,0.0,0.0,0.0,-0.0018178496,0.09529177,0.5203251,-0.22000362,-0.117895246,0.41684747,-0.117104605,0.11922394,-0.4768126,-0.094657876,0.10204631,-0.48181373,-0.2329665,0.041716058,-0.019120332,0.05406211,0.01829761,-0.0507871,-0.07532852,-0.049143575,0.045203898,0.05359997,0.024901008,-0.040963646,0.051605184,2.0,2.0,-2.0,-2.0,2.0,-2.0,2.0,-2.0,-2.0,2.0,-2.0,-2.0,2.0,2.0,-2.0,-2.0,2.0,-2.0,2.0,-2.0,-2.0,2.0,-2.0,-2.0
2025-06-05 14:14:01.880,0.02380618,0.03438879,-0.04166529,0.046900943,0.09204211,-0.0009299263,0.0,0.0,0.0,-0.001844771,0.0889279,0.52036124,-0.23132412,-0.113466464,0.40465868,-0.12117648,0.113900416,-0.4743802,-0.09944181,0.09783367,-0.4730976,-0.23067585,-0.014016091,0.02455646,-0.045669384,-0.034538075,-0.058536857,-0.01679599,-0.06385958,0.021603022,-0.014709439,-0.06265667,-0.0064528673,-0.010851897,2.0,2.0,-2.0,-2.0,2.0,-2.0,2.0,-2.0,-2.0,2.0,-2.0,-2.0,2.0,2.0,-2.0,-2.0,2.0,-2.0,2.0,-2.0,-2.0,2.0,-2.0,-2.0
2025-06-05 14:14:01.901,0.033076227,0.03259084,-0.019904817,0.022193402,0.0672139,-0.030979453,0.0,0.0,0.0,-0.0018773706,0.093268,0.52724093,-0.2312052,-0.111362256,0.42186567,-0.13127948,0.110313244,-0.47643676,-0.093180776,0.096586734,-0.472502,-0.23224083,-0.006098835,0.03381585,-0.052490566,-0.022554971,0.038342938,-0.044063807,0.0014110412,0.043670926,-0.034852654,-0.0025481812,-0.03479899,-0.07594146,2.0,2.0,-2.0,-2.0,2.0,-2.0,2.0,-2.0,-2.0,2.0,-2.0,-2.0,2.0,2.0,-2.0,-2.0,2.0,-2.0,2.0,-2.0,-2.0,2.0,-2.0,-2.0
2025-06-05 14:14:01.920,-0.0081062,-0.022442553,0.0009783056,0.00023172378,0.109519586,-0.012760169,0.0,0.0,0.0,-0.0019156219,0.08668283,0.5352023,-0.22375228,-0.10209423,0.41315088,-0.12799647,0.11890302,-0.48613825,-0.098738104,0.09474059,-0.47304073,-0.23915234,-0.0033562046,-0.059620075,0.061980926,-0.054047514,-0.031490885,0.04976241,0.0055002966,0.01761178,-0.040141355,0.065568276,0.06340525,0.041951943,2.0,2.0,-2.0,-2.0,2.0,-2.0,2.0,-2.0,-2.0,2.0,-2.0,-2.0,2.0,2.0,-2.0,-2.0,2.0,-2.0,2.0,-2.0,-2.0,2.0,-2.0,-2.0
2025-06-05 14:14:01.939,-0.043012854,0.021731287,-0.04042839,0.051894423,0.10540709,0.033090454,0.0,0.0,0.0,-0.001958089,0.086136535,0.5383236,-0.21690835,-0.1155988,0.4186593,-0.121951185,0.10675693,-0.47021958,-0.104141615,0.09882928,-0.48844296,-0.2376908,0.061764564,0.011777274,0.013339263,0.020592494,-0.02735264,0.06384392,0.06358761,0.046367034,-0.048671454,0.025708953,-0.025937453,0.014700368,2.0,2.0,-2.0,-2.0,2.0,-2.0,2.0,-2.0,-2.0,2.0,-2.0,-2.0,2.0,2.0,-2.0,-2.0,2.0,-2.0,2.0,-2.0,-2.0,2.0,-2.0,-2.0
2025-06-05 14:14:01.961,0.036288865,0.044749,0.00062902767,-0.031567536,0.05390053,0.009323847,0.0,0.0,0.0,-0.002002376,0.087707356,0.52940863,-0.2173341,-0.11132789,0.4056626,-0.118919566,0.12310116,-0.475753,-0.11111966,0.091896646,-0.4893215,-0.22333777,-0.027678346,-0.06812828,-0.0020173718,-0.032733526,-0.009426827,0.066327766,-0.06625755,-0.020678187,0.032060117,-0.011820571,-0.0018189655,0.025886003,2.0,2.0,-2.0,-2.0,2.0,-2.0,2.0,-2.0,-2.0,2.0,-2.0,-2.0,2.0,2.0,-2.0,-2.0,2.0,-2.0,2.0,-2.0,-2.0,2.0,-2.0,-2.0
2025-06-05 14:14:01.979,0.02099471,0.017834961,0.034228217,-0.016962774,0.11647602,0.014343708,0.0,0.0,0.0,-0.0020462624,0.090659894,0.52312,-0.23090968,-0.10402883,0.4215158,-0.119286485,0.12406261,-0.4814785,-0.11149544,0.10865886,-0.47615898,-0.22819093,0.018753387,-0.072730966,-0.016573202,-0.0696714,-0.0548821,-0.0013060546,-0.015416177,0.068200946,-0.037362974,0.032916777,-0.012494942,0.010597644,2.0,2.0,-2.0,-2.0,2.0,-2.0,2.0,-2.0,-2.0,2.0,-2.0,-2.0,2.0,2.0,-2.0,-2.0,2.0,-2.0,2.0,-2.0,-2.0,2.0,-2.0,-2.0
2025-06-05 14:14:02.002,-0.02748335,-0.03235043,0.030345615,-0.028644538,0.05813093,-0.04189487,0.0,0.0,0.0,-0.002088189,0.08181994,0.52614945,-0.22229742,-0.11041405,0.41862378,-0.11490121,0.113989584,-0.4788665,-0.10625561,0.108756386,-0.47994125,-0.22753178,-0.05635373,-0.060870323,-0.03589649,0.027744683,0.057653986,0.06313163,-0.03231509,0.052444454,-0.045485765,0.07373166,-0.054906007,0.013302724,2.0,2.0,-2.0,-2.0,2.0,-2.0,2.0,-2.0,-2.0,2.0,-2.0,-2.0,2.0,2.0,-2.0,-2.0,2.0,-2.0,2.0,-2.0,-2.0,2.0,-2.0,-2.0
2025-06-05 14:14:02.019,0.04381049,0.041464046,-0.046499245,-0.016748881,0.06823099,-0.03854599,0.0,0.0,0.0,-0.0021272304,0.09278242,0.5308713,-0.2136933,-0.10881798,0.4156784,-0.123557195,0.11818614,-0.48738053,-0.0959135,0.09693159,-0.47618294,-0.23429911,0.03218018,-0.03453858,-0.017805172,0.046491694,-0.014490672,-0.0018577548,0.018172475,-0.05211982,-0.029352143,-0.053324666,-0.06737441,-0.02091603,2.0,2.0,-2.0,-2.0,2.0,-2.0,2.0,-2.0,-2.0,2.0,-2.0,-2.0,2.0,2.0,-2.0,-2.0,2.0,-2.0,2.0,-2.0,-2.0,2.0,-2.0,-2.0
2025-06-05 14:14:02.040,0.031050658,0.02327202,0.026090002,0.05879222,0.07907589,0.009693333,0.0,0.0,0.0,-0.0021628817,0.08574028,0.5257621,-0.23035537,-0.11163932,0.40895966,-0.126305,0.1118312,-0.4810342,-0.10052153,0.10197181,-0.4889747,-0.23571675,-0.063384056,0.03600909,-0.025048286,-0.07358775,0.062549636,-0.057195015,0.04681938,0.060981836,0.041327342,0.042691458,-0.017224927,-0.048534308,2.0,2.0,-2.0,-2.0,2.0,-2.0,2.0,-2.0,-2.0,2.0,-2.0,-2.0,2.0,2.0,-2.0,-2.0,2.0,-2.0,2.0,-2.0,-2.0,2.0,-2.0,-2.0
2025-06-05 14:14:02.060,-0.0136078615,-0.005015779,-0.0080845775,0.037247427,0.10705235,-0.019271977,0.0,0.0,0.0,-0.0021947923,0.094415456,0.53284895,-0.2241981,-0.1153739,0.42095926,-0.11964822,0.1086189,-0.4811932,-0.09358993,0.09718922,-0.48659098,-0.2339143,-0.07218784,-0.007517383,0.052480657,0.025189346,-0.03472409,0.056264974,0.006643943,-0.0039926977,0.068487845,-0.04331212,-0.023477836,-0.021750078,2.0,2.0,-2.0,-2.0,2.0,-2.0,2.0,-2.0,-2.0,2.0,-2.0,-2.0,2.0,2.0,-2.0,-2.0,2.0,-2.0,2.0,-2.0,-2.0,2.0,-2.0,-2.0
2025-06-05 14:14:02.080,0.051106934,-0.018088302,0.021294078,0.04824933,0.07350133,-0.014855437,0.0,0.0,0.0,-0.0022227254,0.085791364,0.5226339,-0.22885379,-0.11188325,0.4187594,-0.12548065,0.10853149,-0.4862569,-0.098401226,0.10699174,-0.48640013,-0.2276203,-0.06684684,-0.0432222,0.041761093,0.04867319,0.009081663,0.05381656,-0.038747128,0.06556578,-0.04232313,-0.07008132,-0.061000135,0.07242532,2.0,2.0,-2.0,-2.0,2.0,-2.0,2.0,-2.0,-2.0,2.0,-2.0,-2.0,2.0,2.0,-2.0,-2.0,2.0,-2.0,2.0,-2.0,-2.0,2.0,-2.0,-2.0
2025-06-05 14:14:02.103,0.04985082,-0.024634399,0.020367512,0.0045668404,0.119430915,0.012895769,0.0,0.0,0.0,-0.002246614,0.09463413,0.5258225,-0.22275467,-0.11286374,0.4043416,-0.1294293,0.11296899,-0.4731309,-0.09533836,0.094578415,-0.47190487,-0.23240216,0.045564305,0.026345251,0.030944124,0.0012713416,-0.033706557,-0.04600873,0.05091719,-0.04613224,-0.033561345,-0.038435787,-0.03823981,-0.065972656,2.0,2.0,-2.0,-2.0,2.0,-2.0,2.0,-2.0,-2.0,2.0,-2.0,-2.0,2.0,2.0,-2.0,-2.0,2.0,-2.0,2.0,-2.0,-2.0,2.0,-2.0,-2.0
2025-06-05 14:14:02.121,-0.017336223,-0.021920577,0.039829146,0.052981794,0.08436855,0.01710339,0.0,0.0,0.0,-0.0022666163,0.09861941,0.51983833,-0.2280383,-0.10524795,0.41608328,-0.13054125,0.11578177,-0.4801394,-0.1061201,0.1065355,-0.4701182,-0.22848813,0.030192968,0.05327943,0.002749783,0.023519842,-0.050181646,-0.010381656,-0.028150147,-0.009945957,-0.023414774,-0.0293898,0.0140425535,-0.02525281,2.0,2.0,-2.0,-2.0,2.0,-2.0,2.0,-2.0,-2.0,2.0,-2.0,-2.0,2.0,2.0,-2.0,-2.0,2.0,-2.0,2.0,-2.0,-2.0,2.0,-2.0,-2.0
2025-06-05 14:14:02.144,-0.005992191,0.050774146,0.034317143,-0.019706305,0.11596135,0.017200872,0.0,0.0,0.0,-0.0022830218,0.102352306,0.5358435,-0.22052725,-0.11541702,0.41260076,-0.11881794,0.1137223,-0.48470342,-0.09583202,0.10624738,-0.4762651,-0.23676106,0.00095382606,0.014117039,0.049009666,0.012419932,0.014192862,-0.026003435,0.07351005,0.031988673,0.056898125,0.0019625733,-0.06454086,-0.07130371,2.0,2.0,-2.0,-2.0,2.0,-2.0,2.0,-2.0,-2.0,2.0,-2.0,-2.0,2.0,2.0,-2.0,-2.0,2.0,-2.0,2.0,-2.0,-2.0,2.0,-2.0,-2.0
2025-06-05 14:14:02.162,0.036900867,0.00038532782,0.036440693,-0.019278219,0.088309936,-0.029321538,0.0,0.0,0.0,-0.002296172,0.08509694,0.5301761,-0.22531532,-0.101087525,0.41370386,-0.13306794,0.11227598,-0.47862428,-0.10750533,0.107468955,-0.4712669,-0.23627758,0.060041152,-0.03570098,-0.036131278,0.059229005,0.06774672,0.070228614,-0.0023358783,0.062735535,0.025283977,-0.030854352,-0.026164068,-0.07507509,2.0,2.0,-2.0,-2.0,2.0,-2.0,2.0,-2.0,-2.0,2.0,-2.0,-2.0,2.0,2.0,-2.0,-2.0,2.0,-2.0,2.0,-2.0,-2.0,2.0,-2.0,-2.0
2025-06-05 14:14:02.181,0.01174675,-0.03135542,0.026694035,0.047592055,0.04800432,0.018464122,0.0,0.0,0.0,-0.0023064339,0.083199844,0.5328529,-0.21522939,-0.11706934,0.40929222,-0.13511872,0.112500034,-0.47799724,-0.093134165,0.09865152,-0.48869628,-0.24399823,0.020450506,-0.060614455,-0.025002224,-0.03968583,-0.03708397,-0.061999578,-0.008689209,-0.03356444,-0.045567747,-0.039089736,-0.03807531,0.07001257,2.0,2.0,-2.0,-2.0,2.0,-2.0,2.0,-2.0,-2.0,2.0,-2.0,-2.0,2.0,2.0,-2.0,-2.0,2.0,-2.0,2.0,-2.0,-2.0,2.0,-2.0,-2.0
2025-06-05 14:14:02.203,-0.045219537,-0.041169457,-0.018136922,0.016813837,0.115824774,0.025328467,0.0,0.0,0.0,-0.002314186,0.1021041,0.5233283,-0.22390267,-0.11092818,0.41734827,-0.12574789,0.12557898,-0.48671725,-0.09245842,0.09332404,-0.47784224,-0.23732178,0.011639282,-0.010249362,0.03749961,0.04306796,-0.023183666,-0.0683768,-0.03303197,-0.01578927,0.07159008,0.002536501,-0.059325963,0.062717244,2.0,2.0,-2.0,-2.0,2.0,-2.0,2.0,-2.0,-2.0,2.0,-2.0,-2.0,2.0,2.0,-2.0,-2.0,2.0,-2.0,2.0,-2.0,-2.0,2.0,-2.0,-2.0
2025-06-05 14:14:02.221,0.02710948,0.020737713,-0.03934342,0.016953247,0.10225326,0.0008919117,0.0,0.0,0.0,-0.002319805,0.1020419,0.53468925,-0.2233605,-0.10330896,0.41153154,-0.13073696,0.11031605,-0.4758692,-0.10217998,0.09245497,-0.47551027,-0.22517443,-0.0039528646,0.028714316,0.03867159,-0.067514405,-0.04598314,-0.059996195,-0.0020475395,0.06743797,0.016406478,0.07493814,-0.006597933,0.055353235,2.0,2.0,-2.0,-2.0,2.0,-2.0,2.0,-2.0,-2.0,2.0,-2.0,-2.0,2.0,2.0,-2.0,-2.0,2.0,-2.0,2.0,-2.0,-2.0,2.0,-2.0,-2.0
2025-06-05 14:14:02.242,0.017792193,0.00052721705,-0.03643218,-0.014775752,0.11668919,-0.04242906,0.0,0.0,0.0,-0.002323655,0.10016893,0.52513206,-0.21793279,-0.10072285,0.41272447,-0.12488637,0.12440366,-0.47596672,-0.108821906,0.10026531,-0.4729967,-0.2447817,0.049812123,-0.02272384,-0.011394677,-0.006205268,0.036703248,0.02522873,0.063964084,-0.06754598,0.0020295554,-0.026466837,0.070248656,0.059797257,2.0,2.0,-2.0,-2.0,2.0,-2.0,2.0,-2.0,-2.0,2.0,-2.0,-2.0,2.0,2.0,-2.0,-2.0,2.0,-2.0,2.0,-2.0,-2.0,2.0,-2.0,-2.0
2025-06-05 14:14:02.261,0.013053369,-0.012231894,0.02384759,-0.012466257,0.09670196,-0.016238874,0.0,0.0,0.0,-0.002326075,0.09829498,0.53601795,-0.2229126,-0.11339922,0.41610864,-0.12907965,0.124778226,-0.4841632,-0.09036297,0.1086632,-0.4756251,-0.23482363,0.05802251,0.00052489847,0.04824048,-0.02714295,0.00095802743,0.06576509,0.052841466,-0.0043753856,-0.023142831,-0.051043708,-0.062527776,0.051486436,2.0,2.0,-2.0,-2.0,2.0,-2.0,2.0,-2.0,-2.0,2.0,-2.0,-2.0,2.0,2.0,-2.0,-2.0,2.0,-2.0,2.0,-2.0,-2.0,2.0,-2.0,-2.0
2025-06-05 14:14:02.281,-0.026481211,-0.03637798,-0.007656259,-0.010082712,0.110817105,0.018851278,0.0,0.0,0.0,-0.0023273728,0.102335215,0.5213242,-0.22191684,-0.116609804,0.41600493,-0.1330769,0.12312588,-0.48720875,-0.09490138,0.10544464,-0.48457602,-0.23738833,-0.038465373,-0.02107879,-0.01380264,-0.051239975,0.06236912,0.030981708,-0.034652486,-0.07387413,0.053054653,0.013026754,-0.019695172,0.06541983,2.0,2.0,-2.0,-2.0,2.0,-2.0,2.0,-2.0,-2.0,2.0,-2.0,-2.0,2.0,2.0,-2.0,-2.0,2.0,-2.0,2.0,-2.0,-2.0,2.0,-2.0,-2.0
2025-06-05 14:14:02.303,-0.0016746132,-0.0048450143,-0.034245033,0.008928883,0.062382545,-0.012870637,0.0,0.0,0.0,-0.0023278191,0.08979302,0.5299251,-0.2155787,-0.116834484,0.40780655,-0.11588684,0.12041192,-0.4893796,-0.1021264,0.09104375,-0.4803615,-0.2424975,0.008613912,-0.036613245,-0.048247762,0.05373415,-0.013846078,-0.07361685,0.06463275,-0.025498318,0.005159119,0.06598525,0.055708952,0.0035056828,2.0,2.0,-2.0,-2.0,2.0,-2.0,2.0,-2.0,-2.0,2.0,-2.0,-2.0,2.0,2.0,-2.0,-2.0,2.0,-2.0,2.0,-2.0,-2.0,2.0,-2.0,-2.0
2025-06-05 14:14:02.322,-0.03423313,-0.027036883,0.033544026,0.011466595,0.13168602,0.0303648,0.0,0.0,0.0,-0.0023276454,0.087344415,0.52446514,-0.21243133,-0.108087055,0.41536453,-0.13299508,0.12386816,-0.49183166,-0.09899834,0.10212625,-0.48844054,-0.2349667,-0.028838117,0.034639306,0.059247408,-0.018861676,0.05638251,0.03890567,-0.041485958,-0.0505753,0.061351594,-0.067873284,0.026555061,-0.02853324,2.0,2.0,-2.0,-2.0,2.0,-2.0,2.0,-2.0,-2.0,2.0,-2.0,-2.0,2.0,2.0,-2.0,-2.0,2.0,-2.0,2.0,-2.0,-2.0,2.0,-2.0,-2.0
2025-06-05 14:14:02.344,-0.024108062,-0.032667186,-0.040238995,0.007613038,0.070182174,0.034750205,0.0,0.0,0.0,-0.002327045,0.09443536,0.526216,-0.21979088,-0.100485265,0.4091538,-0.12894739,0.10773806,-0.48572725,-0.10324716,0.10042595,-0.47023636,-0.22907868,0.07085508,0.050094314,-0.060618937,-0.071754836,-0.035884634,-0.053869072,-0.0028372447,0.015034061,0.026979055,-0.0027533872,0.04670266,0.0076582343,2.0,2.0,-2.0,-2.0,2.0,-2.0,2.0,-2.0,-2.0,2.0,-2.0,-2.0,2.0,2.0,-2.0,-2.0,2.0,-2.0,2.0,-2.0,-2.0,2.0,-2.0,-2.0
2025-06-05 14:14:02.363,-0.022601414,0.00031516523,0.012112998,0.046835,0.12445264,0.04814171,0.0,0.0,0.0,-0.0023261749,0.09449951,0.52773273,-0.21158038,-0.0995381,0.41761646,-0.13013974,0.11225244,-0.48288363,-0.094532534,0.10023233,-0.48600328,-0.23438042,-0.05886681,-0.023352366,-0.060848504,-0.037639737,0.052128393,-0.0053139203,0.04851251,0.0022094997,0.020897653,0.04994316,-0.050051477,0.059655044,2.0,2.0,-2.0,-2.0,2.0,-2.0,2.0,-2.0,-2.0,2.0,-2.0,-2.0,2.0,2.0,-2.0,-2.0,2.0,-2.0,2.0,-2.0,-2.0,2.0,-2.0,-2.0
2025-06-05 14:14:02.387,-0.010286924,-0.034360092,0.048482254,0.017106926,0.082827345,-0.027003743,0.0,0.0,0.0,-0.002325159,0.10216329,0.5230814,-0.21890658,-0.11494732,0.41539663,-0.12807597,0.12571952,-0.48016784,-0.093101,0.103007235,-0.48102438,-0.24424131,-0.045310922,-0.057686277,0.007563296,-0.068588,-0.069594726,0.035416387,0.047430266,0.07478093,0.007986857,-0.048345905,-0.016286308,-0.036455594,2.0,2.0,-2.0,-2.0,2.0,-2.0,2.0,-2.0,-2.0,2.0,-2.0,-2.0,2.0,2.0,-2.0,-2.0,2.0,-2.0,2.0,-2.0,-2.0,2.0,-2.0,-2.0
2025-06-05 14:14:02.404,0.003670116,-0.04252753,0.01501579,0.051243965,0.041447178,-0.029107064,0.0,0.0,0.0,-0.0023240917,0.10132856,0.53321034,-0.22572935,-0.11317549,0.41040665,-0.12931915,0.11380094,-0.4810724,-0.09217131,0.08902064,-0.48173106,-0.24067397,-0.0390791,0.021525908,0.07466408,-0.042290214,0.051527426,0.07177972,0.051080827,-0.057455614,-0.049747866,-0.031586036,0.004349636,0.026917139,2.0,2.0,-2.0,-2.0,2.0,-2.0,2.0,-2.0,-2.0,2.0,-2.0,-2.0,2.0,2.0,-2.0,-2.0,2.0,-2.0,2.0,-2.0,-2.0,2.0,-2.0,-2.0
2025-06-05 14:14:02.425,0.03181872,0.02775795,0.032646675,0.00962295,0.12937057,0.026145004,0.0,0.0,0.0,-0.0023230421,0.09597906,0.52618474,-0.21067257,-0.1038637,0.40942767,-0.12008476,0.12177765,-0.4821868,-0.096984304,0.10880437,-0.47873613,-0.2372499,0.049329154,-0.06044031,-0.005263208,0.0059573627,0.045250174,0.07153336,-0.029571362,0.067200534,-0.022966122,0.03826394,0.029986208,-0.07441224,2.0,2.0,-2.0,-2.0,2.0,-2.0,2.0,-2.0,-2.0,2.0,-2.0,-2.0,2.0,2.0,-2.0,-2.0,2.0,-2.0,2.0,-2.0,-2.0,2.0,-2.0,-2.0
2025-06-05 14:14:02.445,-0.0220461,-0.008900077,0.0041495995,0.051486205,0.06886335,-0.008661588,0.0,0.0,0.0,-0.0023220577,0.086993426,0.5195493,-0.22077757,-0.11395697,0.41276452,-0.1293424,0.10624788,-0.48755848,-0.092178054,0.097304665,-0.47889626,-0.23657323,-0.042563934,-0.06787991,-0.039099995,0.0061115543,0.060923204,0.014284746,0.015942287,0.01964581,0.0077272914,-0.022337884,-0.023388946,0.008442745,2.0,2.0,-2.0,-2.0,2.0,-2.0,2.0,-2.0,-2.0,2.0,-2.0,-2.0,2.0,2.0,-2.0,-2.0,2.0,-2.0,2.0,-2.0,-2.0,2.0,-2.0,-2.0
2025-06-05 14:14:02.464,0.030297277,0.022357024,-0.047860328,-0.020565342,0.12600939,-0.048871268,0.0,0.0,0.0,-0.0023211695,0.101454385,0.52184117,-0.2187514,-0.11323593,0.41682222,-0.13199939,0.120143384,-0.47731906,-0.105328895,0.09299298,-0.4804535,-0.24458596,-0.027678126,-0.05246063,0.060117126,-0.07217734,-0.058554057,0.06840775,0.046647824,0.024549082,-0.019727407,0.032336567,0.020324495,-0.01432826,2.0,2.0,-2.0,-2.0,2.0,-2.0,2.0,-2.0,-2.0,2.0,-2.0,-2.0,2.0,2.0,-2.0,-2.0,2.0,-2.0,2.0,-2.0,-2.0,2.0,-2.0,-2.0
2025-06-05 14:14:02.487,0.039927475,-0.014930495,-0.011897855,0.055665687,0.072530314,0.008064918,0.0,0.0,0.0,-0.0023203937,0.09609799,0.5168682,-0.21049555,-0.10567363,0.42101192,-0.13417517,0.12534826,-0.47511166,-0.09419947,0.09721354,-0.48764503,-0.22677048,0.07095281,-0.05130305,-0.04201314,-0.043589085,0.0315918,0.06725133,0.050341632,-0.029911464,-0.046580516,-0.0388323,0.031660333,-0.06201605,2.0,2.0,-2.0,-2.0,2.0,-2.0,2.0,-2.0,-2.0,2.0,-2.0,-2.0,2.0,2.0,-2.0,-2.0,2.0,-2.0,2.0,-2.0,-2.0,2.0,-2.0,-2.0
2025-06-05 14:14:02.505,-0.025307195,0.04660325,-0.027570574,0.044140194,0.062735856,0.023550266,0.0,0.0,0.0,-0.0023197366,0.090689175,0.5261495,-0.22620913,-0.11417099,0.41168243,-0.13212432,0.11083909,-0.48071453,-0.09058309,0.09918252,-0.48706937,-0.22891757,0.060038146,0.060088176,-0.03034516,-0.011782896,-0.01075107,0.052464362,-0.06706046,0.058201138,-0.012686405,-0.041168056,0.062316783,-0.02359362,2.0,2.0,-2.0,-2.0,2.0,-2.0,2.0,-2.0,-2.0,2.0,-2.0,-2.0,2.0,2.0,-2.0,-2.0,2.0,-2.0,2.0,-2.0,-2.0,2.0,-2.0,-2.0
2025-06-05 14:14:02.525,-0.040030617,0.012110734,0.035402354,-0.019121543,0.060617186,0.045169674,0.0,0.0,0.0,-0.0023191967,0.099003926,0.52497864,-0.22846903,-0.0999252,0.40320447,-0.12238999,0.10858601,-0.4885332,-0.10548342,0.099387325,-0.47491053,-0.22860284,0.030371001,-0.05883349,0.008446996,0.028595446,0.067590214,0.06346561,0.04329539,-0.02527541,0.04945179,0.06674817,-0.014083028,-0.07104322,2.0,2.0,-2.0,-2.0,2.0,-2.0,2.0,-2.0,-2.0,2.0,-2.0,-2.0,2.0,2.0,-2.0,-2.0,2.0,-2.0,2.0,-2.0,-2.0,2.0,-2.0,-2.0
2025-06-05 14:14:02.544,-0.048875242,0.0033361514,-0.020859716,-0.031421624,0.039585676,0.0321559,0.0,0.0,0.0,-0.002318767,0.09139329,0.51809716,-0.21624261,-0.10722286,0.40241334,-0.12306923,0.11499371,-0.4893974,-0.10063505,0.09662322,-0.47676623,-0.23089196,-0.070890374,-0.04538327,-0.033359237,-0.024946744,0.01672974,0.009844121,-0.016405325,0.043428093,0.07477753,-0.02842203,0.029738067,-0.028510382,2.0,2.0,-2.0,-2.0,2.0,-2.0,2.0,-2.0,-2.0,2.0,-2.0,-2.0,2.0,2.0,-2.0,-2.0,2.0,-2.0,2.0,-2.0,-2.0,2.0,-2.0,-2.0
2025-06-05 14:14:02.565,-0.048612583,0.03072114,0.0065029874,0.024798853,0.113901466,0.010178051,0.0,0.0,0.0,-0.0023184367,0.09567799,0.52761567,-0.21259664,-0.1146636,0.41346365,-0.12087925,0.106878236,-0.47382262,-0.09749006,0.09467105,-0.47645682,-0.22897154,-0.064780734,0.045805596,0.07030356,-0.043737,0.03678344,-0.00624922,0.0060775317,0.010970065,-0.004291643,0.06658931,-0.05656035,0.032350328,2.0,2.0,-2.0,-2.0,2.0,-2.0,2.0,-2.0,-2.0,2.0,-2.0,-2.0,2.0,2.0,-2.0,-2.0,2.0,-2.0,2.0,-2.0,-2.0,2.0,-2.0,-2.0
2025-06-05 14:14:02.587,0.030205278,0.026834985,-0.011130235,-0.024114234,0.057977308,0.037910707,0.0,0.0,0.0,-0.0023181941,0.09345977,0.52479124,-0.21458225,-0.116618894,0.40623343,-0.13052404,0.120698854,-0.48869726,-0.10482021,0.100758426,-0.4761401,-0.23511359,-0.0057206857,-0.027026638,-0.07090751,-0.04834959,-0.008171068,0.01057077,-0.010553461,-0.02255878,-0.02946261,0.011565128,-0.04015942,-0.02269342,2.0,2.0,-2.0,-2.0,2.0,-2.0,2.0,-2.0,-2.0,2.0,-2.0,-2.0,2.0,2.0,-2.0,-2.0,2.0,-2.0,2.0,-2.0,-2.0,2.0,-2.0,-2.0
2025-06-05 14:14:02.605,0.034652453,-0.028191553,0.007892938,0.06314594,0.091879964,0.011263489,0.0,0.0,0.0,-0.0023180256,0.09739587,0.52384037,-0.21627584,-0.10235333,0.4025127,-0.12943895,0.11412021,-0.48856443,-0.10507033,0.102796696,-0.48379022,-0.2286239,0.0744063,0.030881464,0.017571358,-0.032101084,-0.00047425355,0.056829628,-0.029564422,-0.072549306,-0.032402392,-0.04749054,-0.032624397,0.007344899,2.0,2.0,-2.0,-2.0,2.0,-2.0,2.0,-2.0,-2.0,2.0,-2.0,-2.0,2.0,2.0,-2.0,-2.0,2.0,-2.0,2.0,-2.0,-2.0,2.0,-2.0,-2.0
2025-06-05 14:14:02.626,-0.021270238,0.04624177,-0.01382265,0.015699157,0.06013778,0.005427123,0.0,0.0,0.0,-0.0023179185,0.08979425,0.51931244,-0.22359958,-0.109237015,0.418284,-0.13438691,0.11886909,-0.47819796,-0.10485504,0.104090326,-0.47582266,-0.2396513,0.014934869,-0.07074869,-0.014743798,0.010166894,-0.03758327,-0.029700218,0.04461926,-0.031450484,-0.04496881,-0.018391598,-0.037462976,-0.0030002303,2.0,2.0,-2.0,-2.0,2.0,-2.0,2.0,-2.0,-2.0,2.0,-2.0,-2.0,2.0,2.0,-2.0,-2.0,2.0,-2.0,2.0,-2.0,-2.0,2.0,-2.0,-2.0
2025-06-05 14:14:02.645,-0.041254614,0.038075324,-0.03330852,0.035667006,0.11747147,-0.010565902,0.0,0.0,0.0,-0.0023178603,0.09207529,0.519115,-0.21861199,-0.116664134,0.41258672,-0.1210838,0.11281742,-0.47998315,-0.105850995,0.09540173,-0.48833582,-0.24346817,0.059869174,0.015816811,-0.06313362,0.0014234622,0.056859303,0.031138685,0.020457782,0.061011445,0.017926455,-0.053883795,-0.056043442,0.036118932,2.0,2.0,-2.0,-2.0,2.0,-2.0,2.0,-2.0,-2.0,2.0,-2.0,-2.0,2.0,2.0,-2.0,-2.0,2.0,-2.0,2.0,-2.0,-2.0,2.0,-2.0,-2.0
2025-06-05 14:14:02.666,-0.0050048353,0.011641959,-0.0031996921,0.05580939,0.12093408,-0.020210402,0.0,0.0,0.0,-0.0023178402,0.089483075,0.5207026,-0.21316218,-0.10625706,0.4133426,-0.123082034,0.11367051,-0.48635614,-0.101317145,0.09929867,-0.47727326,-0.23665786,-0.045578152,0.07479486,-0.029122837,-0.006827572,0.013742914,0.038191706,-0.053472303,0.034281768,-0.07493137,-0.031849723,0.026580393,0.06723492,2.0,2.0,-2.0,-2.0,2.0,-2.0,2.0,-2.0,-2.0,2.0,-2.0,-2.0,2.0,2.0,-2.0,-2.0,2.0,-2.0,2.0,-2.0,-2.0,2.0,-2.0,-2.0
2025-06-05 14:14:02.687,-0.005675514,-0.037143808,0.014071286,0.014907568,0.061220665,-0.042694528,0.0,0.0,0.0,-0.0023178486,0.08341871,0.5360734,-0.21516138,-0.10644945,0.40295067,-0.1265944,0.10616951,-0.4870691,-0.09466998,0.10727966,-0.47352326,-0.24097191,-0.027985223,-0.06715572,-0.011757849,0.03190994,0.06774293,0.07032186,0.03826999,0.030895352,0.0076365997,0.048445567,0.07150069,-0.038307495,2.0,2.0,-2.0,-2.0,2.0,-2.0,2.0,-2.0,-2.0,2.0,-2.0,-2.0,2.0,2.0,-2.0,-2.0,2.0,-2.0,2.0,-2.0,-2.0,2.0,-2.0,-2.0
2025-06-05 14:14:02.706,0.03632276,-0.029125487,-0.024621153,-0.004391409,0.062026177,0.001671287,0.0,0.0,0.0,-0.0023178768,0.09420228,0.5255116,-0.21855478,-0.09969724,0.4046657,-0.11583246,0.117839344,-0.48620632,-0.109627515,0.10162887,-0.47108582,-0.23463018,0.06808595,-0.013640089,-0.021720733,0.07407968,0.0037927562,-0.052044246,-0.042476658,0.07148014,0.0030807117,0.061926205,0.0070356205,0.00034383973,2.0,2.0,-2.0,-2.0,2.0,-2.0,2.0,-2.0,-2.0,2.0,-2.0,-2.0,2.0,2.0,-2.0,-2.0,2.0,-2.0,2.0,-2.0,-2.0,2.0,-2.0,-2.0
2025-06-05 14:14:02.726,0.0010883467,0.017209563,-0.037704077,0.0016550109,0.07008245,-0.004446387,0.0,0.0,0.0,-0.002317918,0.094954416,0.53479165,-0.21900952,-0.111778714,0.40279025,-0.118900314,0.10728449,-0.47808442,-0.09621399,0.09147577,-0.48358932,-0.24171373,0.019083643,-0.038775466,0.01917504,-0.07197919,-0.0011109225,0.04634985,-0.062171284,0.065522745,-0.011501049,0.07395291,-0.056233693,-0.035673227,2.0,2.0,-2.0,-2.0,2.0,-2.0,2.0,-2.0,-2.0,2.0,-2.0,-2.0,2.0,2.0,-2.0,-2.0,2.0,-2.0,2.0,-2.0,-2.0,2.0,-2.0,-2.0
2025-06-05 14:14:02.746,0.0027558329,0.002044524,0.00048363238,0.0505497,0.12435382,-0.039930046,0.0,0.0,0.0,-0.0023179667,0.09962085,0.52123123,-0.21298285,-0.10141545,0.41451058,-0.1207455,0.12086007,-0.48428994,-0.094458364,0.099229656,-0.48939458,-0.23926336,-0.002125745,0.03919299,-0.039402157,0.05362907,-0.04556593,0.030463032,0.039729785,0.018559083,-0.059481688,-0.050810415,-0.019850861,-0.0715471,2.0,2.0,-2.0,-2.0,2.0,-2.0,2.0,-2.0,-2.0,2.0,-2.0,-2.0,2.0,2.0,-2.0,-2.0,2.0,-2.0,2.0,-2.0,-2.0,2.0,-2.0,-2.0
2025-06-05 14:14:02.768,-0.036794495,0.014089675,0.039798442,-0.02954332,0.07036541,0.022901446,0.0,0.0,0.0,-0.0023180186,0.09556471,0.5263513,-0.21100801,-0.09785656,0.40872973,-0.13275555,0.11940173,-0.48755673,-0.101191744,0.10498513,-0.48165494,-0.24503349,-0.020749746,0.037522655,-0.06390198,-0.020586327,-0.011924525,-0.06543675,-0.031865604,-0.0011761062,-0.07288469,0.009879478,-0.0068163113,-0.05642795,2.0,2.0,-2.0,-2.0,2.0,-2.0,2.0,-2.0,-2.0,2.0,-2.0,-2.0,2.0,2.0,-2.0,-2.0,2.0,-2.0,2.0,-2.0,-2.0,2.0,-2.0,-2.0
2025-06-05 14:14:02.787,-0.042289354,0.03392289,-0.004293565,0.011411876,0.052670345,-0.024953872,0.0,0.0,0.0,-0.0023180705,0.09604709,0.5267371,-0.21283133,-0.11543348,0.4169192,-0.13317184,0.115276426,-0.47957665,-0.09815263,0.10190683,-0.46989515,-0.24155508,-0.026622117,0.015032374,0.019222734,0.066730924,0.058843274,0.022859212,-0.033891555,-0.011570799,0.01278168,-0.003303286,-0.012903231,-0.07061426,2.0,2.0,-2.0,-2.0,2.0,-2.0,2.0,-2.0,-2.0,2.0,-2.0,-2.0,2.0,2.0,-2.0,-2.0,2.0,-2.0,2.0,-2.0,-2.0,2.0,-2.0,-2.0
2025-06-05 14:14:02.806,-0.049692377,0.04244814,-0.015603214,0.02905353,0.068979934,0.006203808,0.0,0.0,0.0,-0.00231812,0.0884088,0.52925396,-0.22945921,-0.10770328,0.4054284,-0.13372278,0.11189411,-0.47310594,-0.09094251,0.10144704,-0.47549713,-0.2386469,0.062563665,0.027974918,0.053656634,-0.04095865,-0.06129948,0.044435352,0.01660595,-0.0288309,0.00058287976,-0.01515612,0.025064347,-0.04243119,2.0,2.0,-2.0,-2.0,2.0,-2.0,2.0,-2.0,-2.0,2.0,-2.0,-2.0,2.0,2.0,-2.0,-2.0,2.0,-2.0,2.0,-2.0,-2.0,2.0,-2.0,-2.0
2025-06-05 14:14:02.826,-0.027330015,0.036251206,-0.039131716,0.0019453117,0.054980632,-0.012770216,0.0,0.0,0.0,-0.002318166,0.0936268,0.5242216,-0.21744592,-0.11197936,0.4119056,-0.13118583,0.12411124,-0.47322968,-0.10641532,0.095093,-0.48154047,-0.23161717,-0.041030716,0.021096509,0.00881873,-0.052557535,0.014410667,0.031197302,0.07457102,0.012758455,-0.046165753,0.010863394,0.06796726,-0.058312364,2.0,2.0,-2.0,-2.0,2.0,-2.0,2.0,-2.0,-2.0,2.0,-2.0,-2.0,2.0,2.0,-2.0,-2.0,2.0,-2.0,2.0,-2.0,-2.0,2.0,-2.0,-2.0
2025-06-05 14:14:02.845,-0.011703215,-0.01287015,-0.024079943,-0.012617548,0.04971945,0.021469237,0.0,0.0,0.0,-0.002318207,0.10141841,0.5366673,-0.22469313,-0.1095646,0.41553164,-0.12851223,0.11448082,-0.47897387,-0.101792514,0.09781378,-0.4731849,-0.22536695,-0.033661935,0.024135625,-0.065417424,-0.032890476,0.07283756,0.03454737,0.030893696,0.07254002,0.009963441,0.053025104,-0.047450513,0.06678598,2.0,2.0,-2.0,-2.0,2.0,-2.0,2.0,-2.0,-2.0,2.0,-2.0,-2.0,2.0,2.0,-2.0,-2.0,2.0,-2.0,2.0,-2.0,-2.0,2.0,-2.0,-2.0
2025-06-05 14:14:02.868,-0.0483686,-0.020251244,-0.024954677,0.028556734,0.11701815,-0.013224679,0.0,0.0,0.0,-0.0023182426,0.09861734,0.52131104,-0.22826995,-0.10905817,0.4201467,-0.13179965,0.123830296,-0.48613343,-0.092439115,0.10264099,-0.47468168,-0.22602019,0.036621187,0.012501032,0.043382164,-0.011361329,-0.028779987,-0.055797312,-0.0080695115,0.014049383,-0.02153158,0.04177942,0.0067140507,0.040852632,2.0,2.0,-2.0,-2.0,2.0,-2.0,2.0,-2.0,-2.0,2.0,-2.0,-2.0,2.0,2.0,-2.0,-2.0,2.0,-2.0,2.0,-2.0,-2.0,2.0,-2.0,-2.0
2025-06-05 14:14:02.887,0.028143445,-0.031485613,-0.02578406,0.030284096,0.089832455,-0.048365038,0.0,0.0,0.0,-0.002318273,0.09181615,0.5348455,-0.21846585,-0.115806326,0.42186853,-0.132338,0.116098605,-0.48361444,-0.09531531,0.106819324,-0.48958698,-0.24420357,-0.019939395,0.006253097,0.00732119,-0.014752164,0.007793988,0.022740947,0.044780355,0.070591256,0.060410198,-0.07283033,-0.057925217,-0.045298375,2.0,2.0,-2.0,-2.0,2.0,-2.0,2.0,-2.0,-2.0,2.0,-2.0,-2.0,2.0,2.0,-2.0,-2.0,2.0,-2.0,2.0,-2.0,-2.0,2.0,-2.0,-2.0
2025-06-05 14:14:02.906,-0.03877362,-0.024981461,-0.02882635,0.013263199,0.11496897,-0.0033470932,0.0,0.0,0.0,-0.0023182982,0.10204742,0.52820224,-0.22761233,-0.10874482,0.4081944,-0.13467212,0.11816285,-0.47650295,-0.0987949,0.10575627,-0.47991416,-0.23718044,-0.053432994,0.005545621,0.03626561,-0.04748937,0.044994134,-0.032761294,-0.06887021,-0.042577814,0.037861817,-0.0706342,-0.036156368,0.03651929,2.0,2.0,-2.0,-2.0,2.0,-2.0,2.0,-2.0,-2.0,2.0,-2.0,-2.0,2.0,2.0,-2.0,-2.0,2.0,-2.0,2.0,-2.0,-2.0,2.0,-2.0,-2.0
2025-06-05 14:14:02.927,-0.0063911807,-0.016430631,-0.0062605245,0.055402987,0.08662148,-0.03209621,0.0,0.0,0.0,-0.002318319,0.10082003,0.5253971,-0.20950131,-0.109758645,0.40995157,-0.11910457,0.10876983,-0.4902956,-0.09884225,0.10139606,-0.4857982,-0.24184453,0.043996952,-0.03330209,0.015715782,0.03374658,0.022522658,-0.054598123,0.05414309,0.005511098,-0.01601296,-0.049458165,-0.007671874,0.0522598,2.0,2.0,-2.0,-2.0,2.0,-2.0,2.0,-2.0,-2.0,2.0,-2.0,-2.0,2.0,2.0,-2.0,-2.0,2.0,-2.0,2.0,-2.0,-2.0,2.0,-2.0,-2.0
2025-06-05 14:14:02.945,0.043315154,-0.003105631,-0.019062746,0.052682992,0.046602085,-0.006515202,0.0,0.0,0.0,-0.0023183352,0.08676139,0.52858853,-0.21496274,-0.09869748,0.40608945,-0.12031141,0.11511986,-0.48712918,-0.09490824,0.10597444,-0.4788525,-0.23410045,0.06758132,-0.018620165,-0.01659439,-0.0637283,0.06644549,0.071468666,0.04894948,-0.017688677,0.033187743,-0.019479001,0.04039005,0.041919895,2.0,2.0,-2.0,-2.0,2.0,-2.0,2.0,-2.0,-2.0,2.0,-2.0,-2.0,2.0,2.0,-2.0,-2.0,2.0,-2.0,2.0,-2.0,-2.0,2.0,-2.0,-2.0
2025-06-05 14:14:02.968,0.016300742,0.014360034,0.04065102,0.016647965,0.09810261,0.041663878,0.0,0.0,0.0,-0.0023183478,0.08477138,0.5273092,-0.21793209,-0.11085955,0.40582666,-0.1330153,0.12539884,-0.48336563,-0.09615224,0.10255609,-0.48213115,-0.2357623,0.0108016245,0.073670074,0.053217914,-0.016741004,-0.07305469,-0.051381182,-0.02480863,-0.03520103,0.03379737,-0.063155286,-0.070219986,-0.034421396,2.0,2.0,-2.0,-2.0,2.0,-2.0,2.0,-2.0,-2.0,2.0,-2.0,-2.0,2.0,2.0,-2.0,-2.0,2.0,-2.0,2.0,-2.0,-2.0,2.0,-2.0,-2.0
2025-06-05 14:14:02.986,-0.005958974,-0.029406268,-0.01879911,0.055546157,0.10562985,-0.03040625,0.0,0.0,0.0,-0.0023183571,0.08613339,0.5212796,-0.22734763,-0.09752628,0.41131568,-0.118509315,0.11136112,-0.48899883,-0.10205277,0.10354971,-0.47167134,-0.22979648,0.074067816,0.04998451,0.03575367,-0.046307683,-0.011658449,-0.031527348,-0.0040675295,-0.044950336,0.035900556,0.0007477443,0.065662466,0.010868807,2.0,2.0,-2.0,-2.0,2.0,-2.0,2.0,-2.0,-2.0,2.0,-2.0,-2.0,2.0,2.0,-2.0,-2.0,2.0,-2.0,2.0,-2.0,-2.0,2.0,-2.0,-2.0
2025-06-05 14:14:03.007,-0.0115807075,0.00061155716,0.00692795,-0.02596527,0.059959088,0.028343957,0.0,0.0,0.0,-0.0023183639,0.09352767,0.53503716,-0.22936171,-0.10962025,0.4037078,-0.13407522,0.107704245,-0.4737822,-0.093063466,0.09740795,-0.48721406,-0.24097127,0.03413862,-0.020316474,-0.031314395,-0.068191126,-0.064947605,0.05910047,0.047410164,-0.002210464,-0.06945792,-0.026984854,0.06405376,-0.02304209,2.0,2.0,-2.0,-2.0,2.0,-2.0,2.0,-2.0,-2.0,2.0,-2.0,-2.0,2.0,2.0,-2.0,-2.0,2.0,-2.0,2.0,-2.0,-2.0,2.0,-2.0,-2.0
2025-06-05 14:14:03.027,0.006392285,0.026693283,-0.005702822,0.048593726,0.068930574,0.015232661,0.0,0.0,0.0,-0.0023183685,0.08977871,0.5221242,-0.21169989,-0.10776189,0.40348214,-0.13372849,0.12061303,-0.4921787,-0.10368015,0.10110431,-0.47448775,-0.23050229,0.053678438,0.05403167,-0.067939065,-0.008387177,0.062415622,0.05458629,0.046508286,-0.0073446925,-0.04558494,0.0054897307,0.051699866,0.052337963,2.0,2.0,-2.0,-2.0,2.0,-2.0,2.0,-2.0,-2.0,2.0,-2.0,-2.0,2.0,2.0,-2.0,-2.0,2.0,-2.0,2.0,-2.0,-2.0,2.0,-2.0,-2.0
2025-06-05 14:14:03.047,-0.04416087,-0.010055426,0.0045333137,0.04903649,0.073889166,-0.047060702,0.0,0.0,0.0,-0.0023183713,0.08895557,0.53649753,-0.21883252,-0.109180555,0.40546986,-0.13051279,0.111560754,-0.48815575,-0.09230702,0.10138996,-0.47975487,-0.22633117,0.0033824982,0.026941856,0.06682562,-0.010167327,0.04456881,0.021653328,-0.052579336,0.028591897,0.014435845,-0.020970654,0.039172944,-0.028854854,2.0,2.0,-2.0,-2.0,2.0,-2.0,2.0,-2.0,-2.0,2.0,-2.0,-2.0,2.0,2.0,-2.0,-2.0,2.0,-2.0,2.0,-2.0,-2.0,2.0,-2.0,-2.0
2025-06-05 14:14:03.070,-0.03960404,-0.037162624,0.02571433,-0.008876074,0.10570131,-0.011532094,0.0,0.0,0.0,-0.002318373,0.08591674,0.5322654,-0.22138983,-0.11120496,0.40473714,-0.12065411,0.1062883,-0.48695397,-0.10398884,0.09428458,-0.47650477,-0.23493981,0.038804334,0.043513365,0.04248338,-0.0026691104,0.059886012,0.034109436,0.016819824,0.014777059,-0.050322447,0.04474412,0.036842696,-0.072687805,2.0,2.0,-2.0,-2.0,2.0,-2.0,2.0,-2.0,-2.0,2.0,-2.0,-2.0,2.0,2.0,-2.0,-2.0,2.0,-2.0,2.0,-2.0,-2.0,2.0,-2.0,-2.0
2025-06-05 14:14:03.087,-0.028027255,-0.006499113,-0.012068978,-0.025754109,0.07145121,-0.027051885,0.0,0.0,0.0,-0.0023183734,0.0837937,0.52969855,-0.21424371,-0.103171356,0.42140773,-0.12429831,0.11544975,-0.48314685,-0.10492825,0.090084605,-0.48407945,-0.22887635,-0.033533994,0.049740717,-0.065485425,0.04872321,-0.052130487,0.06606859,0.027745418,0.0008944734,-0.047018006,0.029028457,-0.068834014,0.03917487,2.0,2.0,-2.0,-2.0,2.0,-2.0,2.0,-2.0,-2.0,2.0,-2.0,-2.0,2.0,2.0,-2.0,-2.0,2.0,-2.0,2.0,-2.0,-2.0,2.0,-2.0,-2.0
2025-06-05 14:14:03.107,-0.02707374,0.04596744,0.010734799,0.035865676,0.058685705,0.042354003,0.0,0.0,0.0,-0.0023183734,0.091075696,0.5255323,-0.22208461,-0.097480856,0.41638833,-0.12659673,0.123446226,-0.48640746,-0.109459445,0.09499653,-0.4859065,-0.23103204,0.018734457,0.064296536,0.04422493,0.00073818705,0.0001207247,-0.06616093,-0.0028999613,-0.057141524,0.019893952,0.04168232,-0.046444923,0.013124037,2.0,2.0,-2.0,-2.0,2.0,-2.0,2.0,-2.0,-2.0,2.0,-2.0,-2.0,2.0,2.0,-2.0,-2.0,2.0,-2.0,2.0,-2.0,-2.0,2.0,-2.0,-2.0
2025-06-05 14:14:03.128,0.0044197403,-0.01576716,-0.0058413898,0.016470391,0.061067384,-0.033543527,0.0,0.0,0.0,-0.0023183727,0.0890513,0.5170035,-0.22048475,-0.11260805,0.41526446,-0.119647086,0.1249159,-0.49201152,-0.10611838,0.09420325,-0.48928398,-0.23296805,0.062065296,-0.014533987,0.030951388,-0.013393129,-0.057177577,-0.060524184,-0.053790685,-0.053242434,0.017564053,-0.031347755,-0.07341324,0.038744822,2.0,2.0,-2.0,-2.0,2.0,-2.0,2.0,-2.0,-2.0,2.0,-2.0,-2.0,2.0,2.0,-2.0,-2.0,2.0,-2.0,2.0,-2.0,-2.0,2.0,-2.0,-2.0
2025-06-05 14:14:03.147,0.049492817,-0.03516287,-0.016006822,-0.015799496,0.057793476,0.009837069,0.0,0.0,0.0,-0.0023183718,0.09037315,0.51985544,-0.22746386,-0.11593915,0.40696755,-0.12448285,0.120601796,-0.48413703,-0.09380335,0.09535556,-0.48443848,-0.23604734,0.0065472866,-0.061493304,-0.04529779,-0.050278224,0.006449757,0.00662769,-0.021297976,-0.038190685,-0.06628778,-0.05113611,0.070344724,-0.026192272,2.0,2.0,-2.0,-2.0,2.0,-2.0,2.0,-2.0,-2.0,2.0,-2.0,-2.0,2.0,2.0,-2.0,-2.0,2.0,-2.0,2.0,-2.0,-2.0,2.0,-2.0,-2.0
2025-06-05 14:14:03.170,-0.025070379,-0.04723809,0.039706975,0.036345735,0.038508616,0.018652057,0.0,0.0,0.0,-0.0023183709,0.0871221,0.5285122,-0.21588852,-0.10898917,0.40373656,-0.12417235,0.105956614,-0.48876423,-0.1062088,0.092863955,-0.46968916,-0.24398349,0.015875857,-0.03855436,-0.047788784,-0.028855907,0.07177321,0.04584417,0.06782643,-0.07194901,0.07324564,-0.008188168,0.014590385,0.02030493,2.0,2.0,-2.0,-2.0,2.0,-2.0,2.0,-2.0,-2.0,2.0,-2.0,-2.0,2.0,2.0,-2.0,-2.0,2.0,-2.0,2.0,-2.0,-2.0,2.0,-2.0,-2.0
2025-06-05 14:14:03.187,0.049535614,0.046368152,0.011639009,-0.001883954,0.12587291,-0.0065528126,0.0,0.0,0.0,-0.0023183697,0.08949756,0.5198107,-0.22812028,-0.10070393,0.409489,-0.121247455,0.1145099,-0.4733641,-0.0996768,0.091698326,-0.4886111,-0.24129802,0.042496506,-0.014942068,-0.04297906,0.0355379,0.041099105,-0.024143277,0.051366445,-0.074010976,0.015348449,-0.056612145,0.02115174,0.043094482,2.0,2.0,-2.0,-2.0,2.0,-2.0,2.0,-2.0,-2.0,2.0,-2.0,-2.0,2.0,2.0,-2.0,-2.0,2.0,-2.0,2.0,-2.0,-2.0,2.0,-2.0,-2.0
2025-06-05 14:14:03.207,-0.020336695,-0.0040005734,0.049282245,0.044142477,0.13702917,0.048845958,0.0,0.0,0.0,-0.0023183688,0.093311064,0.52102286,-0.22814557,-0.10618639,0.41339535,-0.12403854,0.11268368,-0.4798291,-0.09449993,0.10827152,-0.4812477,-0.22995576,0.03431014,-0.022914406,-0.028951364,0.030166278,0.05632284,0.020675454,-0.04419459,-0.01685252,0.022679845,-0.0643352,-0.056550257,-0.055603288,2.0,2.0,-2.0,-2.0,2.0,-2.0,2.0,-2.0,-2.0,2.0,-2.0,-2.0,2.0,2.0,-2.0,-2.0,2.0,-2.0,2.0,-2.0,-2.0,2.0,-2.0,-2.0
2025-06-05 14:14:03.227,0.02880417,-0.032903574,0.048376787,0.057185903,0.040459514,0.008072159,0.0,0.0,0.0,-0.0023183678,0.09426284,0.519664,-0.2236976,-0.10274561,0.4215906,-0.13029003,0.11683583,-0.47823107,-0.1063038,0.1027438,-0.48394606,-0.2413491,-0.022339506,-0.02035699,0.07020376,-0.052376427,-0.01204488,0.05958418,-0.03537553,0.062013708,-0.011445834,-0.067646615,0.06756865,0.047225937,2.0,2.0,-2.0,-2.0,2.0,-2.0,2.0,-2.0,-2.0,2.0,-2.0,-2.0,2.0,2.0,-2.0,-2.0,2.0,-2.0,2.0,-2.0,-2.0,2.0,-2.0,-2.0
2025-06-05 14:14:03.248,0.043028753,0.020243876,-0.019329628,-0.008948026,0.068418905,-0.049685504,0.0,0.0,0.0,-0.002318367,0.09184201,0.5248768,-0.22110943,-0.1160389,0.41887835,-0.119923174,0.11028878,-0.48720267,-0.10894043,0.092845365,-0.4888691,-0.22838856,-0.056221504,0.052918248,-0.06916832,0.053471178,0.06033127,-0.01769882,-0.020084687,-0.04246669,-0.071496665,0.06679081,0.018957172,-0.015107696,2.0,2.0,-2.0,-2.0,2.0,-2.0,2.0,-2.0,-2.0,2.0,-2.0,-2.0,2.0,2.0,-2.0,-2.0,2.0,-2.0,2.0,-2.0,-2.0,2.0,-2.0,-2.0
2025-06-05 14:14:03.270,0.0147780925,-0.007686276,-0.016009133,0.05232379,0.06367784,-0.019233296,0.0,0.0,0.0,-0.0023183662,0.08461787,0.53565824,-0.21278112,-0.10932647,0.41698638,-0.1154476,0.12276598,-0.48780692,-0.107984975,0.10587281,-0.47362044,-0.24040334,-0.01840674,0.006529978,-0.011640367,-0.019229645,-0.034591746,0.03762123,0.043334708,0.012468204,0.008490311,0.039624702,0.06203783,0.045743022,2.0,2.0,-2.0,-2.0,2.0,-2.0,2.0,-2.0,-2.0,2.0,-2.0,-2.0,2.0,2.0,-2.0,-2.0,2.0,-2.0,2.0,-2.0,-2.0,2.0,-2.0,-2.0
2025-06-05 14:14:03.287,-0.000388968,0.0006760112,0.024132729,0.060825173,0.13254242,0.016977314,0.0,0.0,0.0,-0.0023183655,0.100581884,0.53093034,-0.21364646,-0.10530587,0.40454742,-0.11655037,0.11986861,-0.49229065,-0.108441986,0.08934189,-0.47303185,-0.23867078,0.059338357,0.027243368,0.008651989,0.006464063,-0.06839723,0.014778404,-0.06965546,0.050694287,0.073451824,-0.012066056,-0.026062028,0.019852802,2.0,2.0,-2.0,-2.0,2.0,-2.0,2.0,-2.0,-2.0,2.0,-2.0,-2.0,2.0,2.0,-2.0,-2.0,2.0,-2.0,2.0,-2.0,-2.0,2.0,-2.0,-2.0
2025-06-05 14:14:03.308,0.041396555,-0.026494138,-0.0096859895,0.018941678,0.067694716,-0.03067869,0.0,0.0,0.0,-0.0023183648,0.08396863,0.526283,-0.22004877,-0.11399947,0.40796852,-0.13245687,0.117826924,-0.4873589,-0.10327948,0.10828865,-0.48274112,-0.23035999,0.033877872,0.054759633,-0.003517683,-0.061646476,0.051509667,0.05910514,0.06358138,0.024608977,-0.033161666,-0.009519754,0.06323662,0.07084539,2.0,2.0,-2.0,-2.0,2.0,-2.0,2.0,-2.0,-2.0,2.0,-2.0,-2.0,2.0,2.0,-2.0,-2.0,2.0,-2.0,2.0,-2.0,-2.0,2.0,-2.0,-2.0
2025-06-05 14:14:03.328,-0.045233842,0.0034268347,0.0012380892,-0.021510357,0.0581666,0.005522035,0.0,0.0,0.0,-0.0023183646,0.09987489,0.5201856,-0.2159842,-0.09804665,0.41098514,-0.13313366,0.1061813,-0.48902315,-0.0936727,0.09250583,-0.4836624,-0.23453613,0.043310944,-0.030235257,0.025617516,-0.012365878,-0.06561992,-0.057400584,-0.005037847,-0.05483721,-0.03777117,-0.058240727,0.005738572,0.05750186,2.0,2.0,-2.0,-2.0,2.0,-2.0,2.0,-2.0,-2.0,2.0,-2.0,-2.0,2.0,2.0,-2.0,-2.0,2.0,-2.0,2.0,-2.0,-2.0,2.0,-2.0,-2.0
2025-06-05 14:14:03.348,0.043294612,-0.018559996,0.016494976,-0.0063572433,0.06468029,-0.0337206,0.0,0.0,0.0,-0.002318364,0.09157729,0.51683986,-0.21851356,-0.110978365,0.41926667,-0.13055389,0.11579713,-0.47688246,-0.098294646,0.1067098,-0.48577097,-0.23694356,0.0442492,-0.03755091,-0.041951805,-0.0071396753,-0.05867517,0.018707568,-0.029388053,0.021886272,0.057175495,-0.062373962,-0.048174202,-0.010623369,2.0,2.0,-2.0,-2.0,2.0,-2.0,2.0,-2.0,-2.0,2.0,-2.0,-2.0,2.0,2.0,-2.0,-2.0,2.0,-2.0,2.0,-2.0,-2.0,2.0,-2.0,-2.0
2025-06-05 14:14:03.370,0.0018981344,0.021341637,0.018787159,0.0007437404,0.061304912,0.0110490285,0.0,0.0,0.0,-0.0023183639,0.09588529,0.53644645,-0.21381727,-0.100071646,0.41600594,-0.1303111,0.121751994,-0.48387304,-0.0909254,0.1081919,-0.47996217,-0.23784351,-0.054916695,-0.06395728,-0.023802951,-0.006849923,0.06966698,-0.03530109,0.063984156,0.067023076,-0.07455969,0.030702239,0.0689965,0.045264605,2.0,2.0,-2.0,-2.0,2.0,-2.0,2.0,-2.0,-2.0,2.0,-2.0,-2.0,2.0,2.0,-2.0,-2.0,2.0,-2.0,2.0,-2.0,-2.0,2.0,-2.0,-2.0
2025-06-05 14:14:03.388,-0.041909598,0.027387977,-0.036278047,0.004095633,0.06312844,-0.03058861,0.0,0.0,0.0,-0.0023183639,0.08878983,0.5290714,-0.22730231,-0.115036055,0.41013125,-0.13093577,0.118206166,-0.47382984,-0.10068661,0.092266686,-0.47158945,-0.22643356,0.04714957,-0.05891879,-0.023671223,-0.06422081,0.01220635,-0.035716385,0.07113688,0.029121872,-0.002124101,-0.017997546,-0.060357854,0.04123028,2.0,2.0,-2.0,-2.0,2.0,-2.0,2.0,-2.0,-2.0,2.0,-2.0,-2.0,2.0,2.0,-2.0,-2.0,2.0,-2.0,2.0,-2.0,-2.0,2.0,-2.0,-2.0
2025-06-05 14:14:03.408,0.04324169,-0.034916166,0.003904155,0.04836367,0.08264494,-0.01931581,0.0,0.0,0.0,-0.0023183636,0.090908706,0.5188971,-0.2175896,-0.09720998,0.4025498,-0.12929407,0.12405873,-0.4885234,-0.10379521,0.08997202,-0.48492324,-0.22720739,0.06531618,-0.014408215,0.0060643326,-0.02567141,0.024155777,-0.048019778,-0.025342707,0.025877262,0.03634652,-0.030086646,0.05607089,0.07009304,2.0,2.0,-2.0,-2.0,2.0,-2.0,2.0,-2.0,-2.0,2.0,-2.0,-2.0,2.0,2.0,-2.0,-2.0,2.0,-2.0,2.0,-2.0,-2.0,2.0,-2.0,-2.0
2025-06-05 14:14:03.428,0.014759852,0.025888998,0.018094253,0.016835352,0.07322736,0.0026639611,0.0,0.0,0.0,-0.0023183636,0.092935555,0.5217627,-0.21596928,-0.11520348,0.41371858,-0.11952072,0.108316265,-0.47916535,-0.10822335,0.10297352,-0.48928547,-0.23340072,-0.0694279,0.07248018,0.03991235,0.036691643,0.07060274,0.054636043,0.073162004,-0.06450085,0.019305915,0.012081939,-0.047997355,0.030331077,2.0,2.0,-2.0,-2.0,2.0,-2.0,2.0,-2.0,-2.0,2.0,-2.0,-2.0,2.0,2.0,-2.0,-2.0,2.0,-2.0,2.0,-2.0,-2.0,2.0,-2.0,-2.0
2025-06-05 14:14:03.448,-0.043306295,0.046020675,-0.03180649,-0.018140834,0.06797714,0.028856823,0.0,0.0,0.0,-0.0023183636,0.095141,0.5173748,-0.22158416,-0.10431766,0.41885853,-0.12747344,0.11914275,-0.47273806,-0.09244358,0.09729568,-0.48302123,-0.23419116,-0.059605144,-0.015753087,0.052694827,-0.06476995,0.03423864,-0.007419318,-0.07212433,-0.06889284,-0.028195873,-0.028316433,0.032098774,-0.01070005,2.0,2.0,-2.0,-2.0,2.0,-2.0,2.0,-2.0,-2.0,2.0,-2.0,-2.0,2.0,2.0,-2.0,-2.0,2.0,-2.0,2.0,-2.0,-2.0,2.0,-2.0,-2.0
2025-06-05 14:14:03.470,0.037685435,0.014171905,-0.011367277,0.02645704,0.046839073,-0.013351822,0.0,0.0,0.0,-0.0023183636,0.09621593,0.5178575,-0.21223903,-0.11181189,0.41476935,-0.13089496,0.1170423,-0.48799795,-0.09667317,0.089539364,-0.47855744,-0.22616936,-0.06853166,-0.019470073,-0.059043385,0.010819898,-0.06639657,0.0077877576,0.011238889,0.053139314,0.026865605,-0.05394412,0.0023025991,0.03956051,2.0,2.0,-2.0,-2.0,2.0,-2.0,2.0,-2.0,-2.0,2.0,-2.0,-2.0,2.0,2.0,-2.0,-2.0,2.0,-2.0,2.0,-2.0,-2.0,2.0,-2.0,-2.0
2025-06-05 14:14:03.489,-0.04666374,-0.047402304,0.043656725,0.00222604,0.1286668,0.030726356,0.0,0.0,0.0,-0.0023183636,0.09969992,0.52545375,-0.21687183,-0.099029854,0.4114514,-0.13258345,0.11755254,-0.47479025,-0.09893517,0.09702942,-0.4866492,-0.24482389,-0.050964594,0.057276297,0.03927723,0.017875912,-0.022630705,0.023644181,-0.033287015,0.06094468,-0.025495857,0.06711698,-0.012127585,-0.012243207,2.0,2.0,-2.0,-2.0,2.0,-2.0,2.0,-2.0,-2.0,2.0,-2.0,-2.0,2.0,2.0,-2.0,-2.0,2.0,-2.0,2.0,-2.0,-2.0,2.0,-2.0,-2.0
2025-06-05 14:14:03.509,-0.045907076,0.026945002,-0.048483614,0.008476572,0.13649544,-0.00878099,0.0,0.0,0.0,-0.0023183636,0.08958788,0.51875323,-0.22560063,-0.101468556,0.4042507,-0.13508032,0.108870834,-0.47324514,-0.1048329,0.09650317,-0.4708254,-0.23864423,0.053481948,0.039016616,0.0010360602,-0.023476211,0.042891268,-0.060819376,-0.0065045143,-0.040799774,0.056162145,0.044390228,-0.045809332,0.015030576,2.0,2.0,-2.0,-2.0,2.0,-2.0,2.0,-2.0,-2.0,2.0,-2.0,-2.0,2.0,2.0,-2.0,-2.0,2.0,-2.0,2.0,-2.0,-2.0,2.0,-2.0,-2.0
2025-06-05 14:14:03.529,0.010639827,0.0009812001,-0.040102877,0.019916799,0.095364995,0.013135531,0.0,0.0,0.0,-0.0023183639,0.08284236,0.5190069,-0.22647275,-0.109205715,0.403218,-0.116901845,0.12143077,-0.47714746,-0.10065449,0.09676829,-0.48633036,-0.22943848,-0.02601866,-0.053091273,-0.046416916,0.023387948,0.01366773,0.004361817,0.04916016,-0.0073212273,-0.062442888,-0.050675746,0.054438874,0.011588376,2.0,2.0,-2.0,-2.0,2.0,-2.0,2.0,-2.0,-2.0,2.0,-2.0,-2.0,2.0,2.0,-2.0,-2.0,2.0,-2.0,2.0,-2.0,-2.0,2.0,-2.0,-2.0
2025-06-05 14:14:03.549,-0.0016436811,0.008260665,0.005566832,-0.028302139,0.08945252,-0.025988918,0.0,0.0,0.0,-0.0023183639,0.10220793,0.5244633,-0.21559985,-0.09777634,0.41203752,-0.12732041,0.12374336,-0.48551077,-0.10674297,0.09917757,-0.48421103,-0.23681375,-0.016989054,-0.029081838,0.002973223,-0.03926232,0.06605061,0.021341696,-0.06912208,0.037833158,-0.01865943,0.029949624,0.03377459,0.009938041,2.0,2.0,-2.0,-2.0,2.0,-2.0,2.0,-2.0,-2.0,2.0,-2.0,-2.0,2.0,2.0,-2.0,-2.0,2.0,-2.0,2.0,-2.0,-2.0,2.0,-2.0,-2.0
2025-06-05 14:14:03.570,0.034677085,0.04470286,0.04120811,0.011915088,0.04060051,-0.048884083,0.0,0.0,0.0,-0.0023183639,0.085893266,0.5257037,-0.21377985,-0.11531025,0.42012784,-0.11631886,0.12075099,-0.4790944,-0.107007325,0.10299172,-0.48891607,-0.23853256,0.05284476,0.018759154,0.03649377,0.06480618,0.042040523,0.059180383,0.024100643,-0.0029019795,-0.025016934,0.05268203,-0.029577173,-0.008935137,2.0,2.0,-2.0,-2.0,2.0,-2.0,2.0,-2.0,-2.0,2.0,-2.0,-2.0,2.0,2.0,-2.0,-2.0,2.0,-2.0,2.0,-2.0,-2.0,2.0,-2.0,-2.0
2025-06-05 14:14:03.589,0.02742906,0.009951308,0.014158656,0.048051093,0.11691562,0.030935695,0.0,0.0,0.0,-0.0023183639,0.095185645,0.53417516,-0.22613055,-0.108081646,0.4039166,-0.12284594,0.11562462,-0.49089274,-0.094616696,0.10004557,-0.48939902,-0.23221466,0.013168947,0.024881793,-0.028283091,0.02927165,0.07132281,-0.05506823,0.039157562,-0.052095853,-0.016487356,0.057716697,0.0089908745,0.034549102,2.0,2.0,-2.0,-2.0,2.0,-2.0,2.0,-2.0,-2.0,2.0,-2.0,-2.0,2.0,2.0,-2.0,-2.0,2.0,-2.0,2.0,-2.0,-2.0,2.0,-2.0,-2.0
2025-06-05 14:14:03.609,-0.0015935604,0.015213689,0.02178995,0.0060452493,0.08731337,0.020040201,0.0,0.0,0.0,-0.0023183639,0.097051516,0.51949805,-0.22322571,-0.11450303,0.4042291,-0.122195564,0.11337567,-0.48200092,-0.10104525,0.10502553,-0.48886526,-0.23945558,-0.072015606,-0.03156264,-0.009452111,0.03402033,-0.032779172,0.058442324,0.05320307,-0.018074464,0.001967912,0.010786031,-0.017187268,-0.023777764,2.0,2.0,-2.0,-2.0,2.0,-2.0,2.0,-2.0,-2.0,2.0,-2.0,-2.0,2.0,2.0,-2.0,-2.0,2.0,-2.0,2.0,-2.0,-2.0,2.0,-2.0,-2.0
2025-06-05 14:14:03.629,-0.0131303,0.045583762,-0.043099407,0.020699412,0.11213621,-0.0053059245,0.0,0.0,0.0,-0.0023183639,0.09261914,0.53317267,-0.22424325,-0.106038906,0.4135544,-0.120240435,0.123729676,-0.48184717,-0.095896915,0.107886106,-0.48958817,-0.24141319,-0.0421497,-0.06801115,0.04168217,-0.008290442,-0.040414177,-0.07379072,-0.0450211,-0.031250875,0.06873426,-0.03455665,0.07233767,0.035848662,2.0,2.0,-2.0,-2.0,2.0,-2.0,2.0,-2.0,-2.0,2.0,-2.0,-2.0,2.0,2.0,-2.0,-2.0,2.0,-2.0,2.0,-2.0,-2.0,2.0,-2.0,-2.0
2025-06-05 14:14:03.649,0.00031621836,0.037910603,-0.029450024,-0.026762486,0.08524193,-0.025307689,0.0,0.0,0.0,-0.002318364,0.099748395,0.5357184,-0.22102845,-0.11298347,0.40390462,-0.12983638,0.11832986,-0.48289064,-0.09993651,0.08951932,-0.48681363,-0.22807038,0.06601709,-0.065124445,-0.010338227,-0.054023437,-0.069345884,0.029252877,-0.073805556,0.029230574,0.047781233,0.046520136,-0.05188289,0.037237976,2.0,2.0,-2.0,-2.0,2.0,-2.0,2.0,-2.0,-2.0,2.0,-2.0,-2.0,2.0,2.0,-2.0,-2.0,2.0,-2.0,2.0,-2.0,-2.0,2.0,-2.0,-2.0
2025-06-05 14:14:03.670,0.016957585,-0.004551095,-0.035977505,0.06547035,0.050770946,-0.031624474,0.0,0.0,0.0,-0.002318364,0.0936036,0.52018553,-0.21668057,-0.11651661,0.4144319,-0.12419011,0.12523445,-0.48211214,-0.10220593,0.10699005,-0.48147348,-0.24374278,-0.03150878,0.047644507,-0.012465629,0.050483942,-0.05481818,-0.024080027,-0.020367902,0.009656484,0.038381808,0.06474472,0.015899919,0.0129498085,2.0,2.0,-2.0,-2.0,2.0,-2.0,2.0,-2.0,-2.0,2.0,-2.0,-2.0,2.0,2.0,-2.0,-2.0,2.0,-2.0,2.0,-2.0,-2.0,2.0,-2.0,-2.0
2025-06-05 14:14:03.689,0.022282097,-0.018554782,-0.023408314,0.029785583,0.121024534,0.039690293,0.0,0.0,0.0,-0.002318364,0.08585273,0.5183961,-0.22750613,-0.10002941,0.40490508,-0.12178921,0.11991526,-0.48842558,-0.10279282,0.0988143,-0.4775341,-0.23828489,-0.061556805,0.019919774,0.059619844,-0.0636185,0.03034664,-0.004927907,-0.0721332,-0.022247722,0.0072432314,0.02436878,0.002800833,0.05150207,2.0,2.0,-2.0,-2.0,2.0,-2.0,2.0,-2.0,-2.0,2.0,-2.0,-2.0,2.0,2.0,-2.0,-2.0,2.0,-2.0,2.0,-2.0,-2.0,2.0,-2.0,-2.0
2025-06-05 14:14:03.709,-0.030712878,0.014952916,0.030915271,-0.0020368064,0.0911879,0.04439325,0.0,0.0,0.0,-0.002318364,0.083120175,0.53115207,-0.22203888,-0.11677407,0.40763503,-0.11743666,0.12576257,-0.4819367,-0.10190503,0.100986436,-0.4833908,-0.24272248,0.03954692,0.036383957,-0.06680857,-0.00014123047,0.042638823,0.05415236,-0.06825969,-0.05092803,-0.016351203,0.035511404,-0.030064743,0.04537596,2.0,2.0,-2.0,-2.0,2.0,-2.0,2.0,-2.0,-2.0,2.0,-2.0,-2.0,2.0,2.0,-2.0,-2.0,2.0,-2.0,2.0,-2.0,-2.0,2.0,-2.0,-2.0
2025-06-05 14:14:03.729,0.0067331316,-0.04528477,-0.012066005,-0.013625425,0.06406364,-0.029105369,0.0,0.0,0.0,-0.002318364,0.09571343,0.5354225,-0.22741635,-0.10298934,0.4163961,-0.1302449,0.1200401,-0.47316858,-0.093259886,0.0900447,-0.47392884,-0.23633444,0.014981601,-0.03694244,0.023029387,-0.009079417,-0.003943279,0.007525147,-0.024926774,-0.018058188,-0.013300943,-0.02032117,0.07224604,0.033871613,2.0,2.0,-2.0,-2.0,2.0,-2.0,2.0,-2.0,-2.0,2.0,-2.0,-2.0,2.0,2.0,-2.0,-2.0,2.0,-2.0,2.0,-2.0,-2.0,2.0,-2.0,-2.0
2025-06-05 14:14:03.751,-0.033401497,0.04022654,0.043971922,0.05659783,0.072238125,-0.04427649,0.0,0.0,0.0,-0.002318364,0.10008154,0.5234999,-0.21113302,-0.09774162,0.41092128,-0.13073929,0.11337029,-0.47313425,-0.106769636,0.1017137,-0.48021668,-0.23123346,0.06166328,-0.023370963,0.016151886,0.066443,-0.0157368,-0.05414762,0.048900545,0.026060319,0.07084338,-0.00974068,-0.06809298,0.0050553684,2.0,2.0,-2.0,-2.0,2.0,-2.0,2.0,-2.0,-2.0,2.0,-2.0,-2.0,2.0,2.0,-2.0,-2.0,2.0,-2.0,2.0,-2.0,-2.0,2.0,-2.0,-2.0
2025-06-05 14:14:03.770,0.026198057,-0.04968677,-0.018446978,-0.020790221,0.089249834,-0.033659935,0.0,0.0,0.0,-0.002318364,0.08692208,0.5270975,-0.22923353,-0.10094111,0.41683748,-0.12672792,0.108968966,-0.4821465,-0.09843592,0.090129964,-0.47755018,-0.2327294,-0.006963862,0.033318944,0.0255194,0.0017460675,0.023355436,0.06753198,-0.0038397317,-0.031818286,-0.040280353,-0.057478532,-0.008936996,0.03884002,2.0,2.0,-2.0,-2.0,2.0,-2.0,2.0,-2.0,-2.0,2.0,-2.0,-2.0,2.0,2.0,-2.0,-2.0,2.0,-2.0,2.0,-2.0,-2.0,2.0,-2.0,-2.0
2025-06-05 14:14:03.789,0.031306356,0.019576153,-0.008524188,0.0073496564,0.059080794,-0.0436274,0.0,0.0,0.0,-0.002318364,0.092030704,0.5220648,-0.2109526,-0.10718025,0.41021848,-0.13355447,0.11779706,-0.48117164,-0.102160275,0.0972438,-0.48719278,-0.23871802,0.049501527,0.0019978127,0.028479267,-0.0008290494,-0.047060303,0.039347712,0.0045700655,0.0070121735,-0.031981647,0.07265417,-0.06353424,-0.013545598,2.0,2.0,-2.0,-2.0,2.0,-2.0,2.0,-2.0,-2.0,2.0,-2.0,-2.0,2.0,2.0,-2.0,-2.0,2.0,-2.0,2.0,-2.0,-2.0,2.0,-2.0,-2.0
2025-06-05 14:14:03.810,-0.0011943746,0.031206822,0.03599369,-0.0019290757,0.1336091,-0.038592845,0.0,0.0,0.0,-0.002318364,0.09739819,0.52091753,-0.22002293,-0.10677682,0.4119655,-0.12274858,0.10727916,-0.48607603,-0.10200836,0.098354384,-0.48040205,-0.22912492,0.020947339,-0.01744926,0.038572576,-0.026255868,0.059292458,0.041845642,-0.07187577,-0.05620533,0.023290442,-0.06899149,-0.04787573,-0.011349715,2.0,2.0,-2.0,-2.0,2.0,-2.0,2.0,-2.0,-2.0,2.0,-2.0,-2.0,2.0,2.0,-2.0,-2.0,2.0,-2.0,2.0,-2.0,-2.0,2.0,-2.0,-2.0
2025-06-05 14:14:03.830,-0.0265945,-0.040667813,-0.038868327,0.018375015,0.03882076,-0.044901136,0.0,0.0,0.0,-0.002318364,0.09433083,0.5323339,-0.22167961,-0.112760015,0.4119487,-0.11682782,0.11238984,-0.48876664,-0.10887315,0.09983058,-0.47495177,-0.23850976,0.014767617,0.07213987,-0.030378396,-0.0610305,-0.0066747065,-0.07334032,0.012593381,-0.04653607,0.07357057,0.03109955,0.07434971,0.07160889,2.0,2.0,-2.0,-2.0,2.0,-2.0,2.0,-2.0,-2.0,2.0,-2.0,-2.0,2.0,2.0,-2.0,-2.0,2.0,-2.0,2.0,-2.0,-2.0,2.0,-2.0,-2.0
2025-06-05 14:14:03.853,0.044798005,0.00974184,0.027005987,0.052121274,0.065297484,-0.022181755,0.0,0.0,0.0,-0.002318364,0.089485385,0.51823545,-0.21256804,-0.109945476,0.4150555,-0.13072522,0.11437535,-0.47944,-0.10145111,0.090507485,-0.4824495,-0.22894312,-0.017985165,0.020828659,0.020240411,-0.07296784,-0.070524484,0.026607592,0.059270892,0.02613629,0.06835088,0.037945196,-0.02880901,-0.055052876,2.0,2.0,-2.0,-2.0,2.0,-2.0,2.0,-2.0,-2.0,2.0,-2.0,-2.0,2.0,2.0,-2.0,-2.0,2.0,-2.0,2.0,-2.0,-2.0,2.0,-2.0,-2.0
2025-06-05 14:14:03.870,0.013381912,0.018692574,0.0004894416,0.06171417,0.10756289,-0.0020756994,0.0,0.0,0.0,-0.002318364,0.09665411,0.52546096,-0.22665401,-0.10248543,0.42054883,-0.122000955,0.111714765,-0.48133892,-0.109843396,0.09043424,-0.47832572,-0.23478734,0.04586633,0.005676188,0.018600848,0.045729216,-0.0111944275,0.03854395,0.050198104,-0.06828032,0.0139277605,-0.053575434,0.0029278675,0.072925456,2.0,2.0,-2.0,-2.0,2.0,-2.0,2.0,-2.0,-2.0,2.0,-2.0,-2.0,2.0,2.0,-2.0,-2.0,2.0,-2.0,2.0,-2.0,-2.0,2.0,-2.0,-2.0
2025-06-05 14:14:03.890,0.009830636,-0.04110283,-0.03414559,0.008517509,0.12096169,0.049419805,0.0,0.0,0.0,-0.002318364,0.08553886,0.52795815,-0.22663917,-0.09731184,0.41072464,-0.121594526,0.116955556,-0.48655766,-0.0941654,0.10535074,-0.48548573,-0.22920893,-0.05799654,0.015704518,0.07065422,0.06315052,0.049101815,0.028294966,0.02133591,-0.0054880856,0.024372092,-0.00060187816,0.036414888,0.05034727,2.0,2.0,-2.0,-2.0,2.0,-2.0,2.0,-2.0,-2.0,2.0,-2.0,-2.0,2.0,2.0,-2.0,-2.0,2.0,-2.0,2.0,-2.0,-2.0,2.0,-2.0,-2.0
2025-06-05 14:14:03.910,0.0007904136,0.012894332,-0.007565497,-0.0014261004,0.10541777,0.0013207907,0.0,0.0,0.0,-0.002318364,0.089764826,0.5182342,-0.21218607,-0.1129649,0.41423145,-0.1320678,0.11802667,-0.48316032,-0.09950894,0.093630165,-0.47197106,-0.23761377,-0.07486078,-0.038665004,0.013826615,-0.073210545,0.014874744,0.06478365,0.04771794,0.06973541,-0.04294021,0.01633963,0.024268812,0.004191775,2.0,2.0,-2.0,-2.0,2.0,-2.0,2.0,-2.0,-2.0,2.0,-2.0,-2.0,2.0,2.0,-2.0,-2.0,2.0,-2.0,2.0,-2.0,-2.0,2.0,-2.0,-2.0
2025-06-05 14:14:03.930,-0.0031319167,-0.02293491,0.009089812,0.0673079,0.072958,0.027401475,0.0,0.0,0.0,-0.002318364,0.094344676,0.52053267,-0.21168825,-0.101266325,0.41892925,-0.13081627,0.11488855,-0.4795409,-0.094682515,0.099714786,-0.4766254,-0.23936358,-0.04127925,-0.020729017,0.0014242883,0.01213697,0.069589734,-0.06369346,0.0025750017,-0.073382735,0.0011375771,0.04321979,0.01235772,0.06592471,2.0,2.0,-2.0,-2.0,2.0,-2.0,2.0,-2.0,-2.0,2.0,-2.0,-2.0,2.0,2.0,-2.0,-2.0,2.0,-2.0,2.0,-2.0,-2.0,2.0,-2.0,-2.0
2025-06-05 14:14:03.955,0.020295393,-0.0057685575,-0.019387696,0.030544613,0.11406373,0.02914112,0.0,0.0,0.0,-0.002318364,0.099949814,0.53578985,-0.21121152,-0.09962774,0.41867688,-0.12223061,0.10833846,-0.4890897,-0.104734056,0.09277343,-0.47348896,-0.23588473,0.0147084715,0.02062141,0.011924295,-0.049077254,-0.068304606,-0.0016242827,0.03839141,0.06641777,0.05144991,0.04079369,-0.070596546,-0.027864553,2.0,2.0,-2.0,-2.0,2.0,-2.0,2.0,-2.0,-2.0,2.0,-2.0,-2.0,2.0,2.0,-2.0,-2.0,2.0,-2.0,2.0,-2.0,-2.0,2.0,-2.0,-2.0
2025-06-05 14:14:03.971,0.049286667,-0.039081857,0.011033869,0.03703195,0.065867,0.033920277,0.0,0.0,0.0,-0.002318364,0.095515445,0.52449214,-0.22036898,-0.10541914,0.4205294,-0.1335277,0.10838889,-0.4810876,-0.0901525,0.09878771,-0.4698566,-0.23027773,-0.0032177495,0.040523164,-0.008006359,-0.002448796,-0.01431657,0.018628132,-0.0030495825,-0.05402943,-0.030162819,-0.0034730476,-0.06925594,-0.06305704,2.0,2.0,-2.0,-2.0,2.0,-2.0,2.0,-2.0,-2.0,2.0,-2.0,-2.0,2.0,2.0,-2.0,-2.0,2.0,-2.0,2.0,-2.0,-2.0,2.0,-2.0,-2.0
2025-06-05 14:14:03.994,0.00392954,-0.022624394,0.04772298,0.01891253,0.041802656,0.045938246,0.0,0.0,0.0,-0.002318364,0.08953288,0.53482836,-0.22302741,-0.11185546,0.40980804,-0.13175577,0.12176649,-0.48843822,-0.107049,0.10458536,-0.4795633,-0.23118158,0.071706556,-0.054607477,0.0019755617,0.07337347,0.055052087,-0.015998654,0.05923794,-0.056108292,-0.07020769,0.020428302,-0.02540404,-0.023481771,2.0,2.0,-2.0,-2.0,2.0,-2.0,2.0,-2.0,-2.0,2.0,-2.0,-2.0,2.0,2.0,-2.0,-2.0,2.0,-2.0,2.0,-2.0,-2.0,2.0,-2.0,-2.0
2025-06-05 14:14:04.011,0.046957932,0.0021169095,0.0032797728,0.006301902,0.07916616,-0.020327598,0.0,0.0,0.0,-0.002318364,0.09205349,0.51777476,-0.21503669,-0.10588435,0.42159322,-0.118171975,0.11337769,-0.4796366,-0.09770036,0.10766546,-0.47617152,-0.23711357,0.026997993,-0.054655287,-0.04425966,0.039231144,-0.031100662,-0.064229555,0.04087316,0.04784692,0.025355635,0.05783394,-0.028790064,0.030736897,2.0,2.0,-2.0,-2.0,2.0,-2.0,2.0,-2.0,-2.0,2.0,-2.0,-2.0,2.0,2.0,-2.0,-2.0,2.0,-2.0,2.0,-2.0,-2.0,2.0,-2.0,-2.0
2025-06-05 14:14:04.031,0.04589377,-0.045915667,0.0476369,0.033602815,0.05189744,0.024589112,0.0,0.0,0.0,-0.002318364,0.09942243,0.5212953,-0.21431273,-0.10860382,0.40629366,-0.120664746,0.11821475,-0.48474804,-0.09224881,0.09788444,-0.47375816,-0.23811609,-0.018898437,0.015137236,-0.05268128,-0.071534455,0.047747638,-0.024438709,-0.014907358,-0.060700674,0.013743426,-0.07419401,-0.025414329,-0.06479501,2.0,2.0,-2.0,-2.0,2.0,-2.0,2.0,-2.0,-2.0,2.0,-2.0,-2.0,2.0,2.0,-2.0,-2.0,2.0,-2.0,2.0,-2.0,-2.0,2.0,-2.0,-2.0
2025-06-05 14:14:04.054,0.02117747,0.0058557205,-0.012159865,0.018079977,0.10938753,-0.030803034,0.0,0.0,0.0,-0.002318364,0.09427747,0.53596944,-0.21552499,-0.1062425,0.41015062,-0.13412543,0.114524685,-0.4909062,-0.1034678,0.10017798,-0.48407963,-0.2388187,0.045195498,0.009274686,-0.010994724,0.042092405,-0.01406371,-0.03505374,-0.0057654832,0.0018901963,0.021393625,-0.009874333,0.0427739,0.013631239,2.0,2.0,-2.0,-2.0,2.0,-2.0,2.0,-2.0,-2.0,2.0,-2.0,-2.0,2.0,2.0,-2.0,-2.0,2.0,-2.0,2.0,-2.0,-2.0,2.0,-2.0,-2.0
2025-06-05 14:14:04.071,0.008348639,0.03784655,-0.01254872,0.057337396,0.12230881,-4.6477247e-10,0.0,0.0,0.0,-0.002318364,0.08402451,0.5362468,-0.2267555,-0.09823488,0.41665792,-0.12996435,0.10763992,-0.48360592,-0.09026698,0.096172094,-0.47103226,-0.24497578,-0.013381424,-0.03612488,0.04347475,0.005933719,-0.044761185,-0.061300974,-0.033395424,0.011425844,0.02585902,-0.006649345,0.06501219,0.005196239,2.0,2.0,-2.0,-2.0,2.0,-2.0,2.0,-2.0,-2.0,2.0,-2.0,-2.0,2.0,2.0,-2.0,-2.0,2.0,-2.0,2.0,-2.0,-2.0,2.0,-2.0,-2.0
2025-06-05 14:14:04.092,-0.00960713,-0.0152672175,-0.035321217,-0.012197887,0.047522474,-0.027067669,0.0,0.0,0.0,-0.002318364,0.082753904,0.5269027,-0.21826981,-0.10093693,0.41998857,-0.12441853,0.11932642,-0.47453192,-0.10074584,0.106407695,-0.48408654,-0.2430597,0.062148817,0.051087297,-0.0036242986,0.04402672,-0.060392663,0.031991556,0.028077377,-0.030813726,0.015057387,-0.032082297,0.021662077,-0.027668195,2.0,2.0,-2.0,-2.0,2.0,-2.0,2.0,-2.0,-2.0,2.0,-2.0,-2.0,2.0,2.0,-2.0,-2.0,2.0,-2.0,2.0,-2.0,-2.0,2.0,-2.0,-2.0
2025-06-05 14:14:04.112,-0.04403985,0.045083452,-0.03878847,-0.015522992,0.062201604,-0.025182,0.0,0.0,0.0,-0.002318364,0.08908992,0.5259419,-0.21357967,-0.11229697,0.4086079,-0.11662132,0.12161766,-0.48002642,-0.10694319,0.10276186,-0.47734854,-0.24455114,-0.063614085,0.026532762,-0.024448983,0.06721203,-0.039791055,0.021134702,0.040211376,0.02985492,0.055691846,0.037317272,-0.046284415,0.011041074,2.0,2.0,-2.0,-2.0,2.0,-2.0,2.0,-2.0,-2.0,2.0,-2.0,-2.0,2.0,2.0,-2.0,-2.0,2.0,-2.0,2.0,-2.0,-2.0,2.0,-2.0,-2.0
2025-06-05 14:14:04.132,0.013289439,0.019020738,0.0189298,0.012689553,0.10504776,0.036342483,0.0,0.0,0.0,-0.002318364,0.09819764,0.5205531,-0.21799192,-0.11413651,0.40263307,-0.116550334,0.11340968,-0.48582458,-0.10869002,0.10661143,-0.47942853,-0.24447829,-0.039822858,0.034124274,-0.030702576,0.0470675,-0.04704609,0.028768029,0.002399908,0.0055684457,0.05499161,4.2487274e-05,-0.008458283,0.014826385,2.0,2.0,-2.0,-2.0,2.0,-2.0,2.0,-2.0,-2.0,2.0,-2.0,-2.0,2.0,2.0,-2.0,-2.0,2.0,-2.0,2.0,-2.0,-2.0,2.0,-2.0,-2.0
