openverse-orca/OrcaGym/log/simulation_log_20250718_172152.csv
timestamp,sim_time,physics_step,control_step,imu_angle_roll,imu_angle_pitch,imu_angle_yaw,imu_angular_velocity_roll,imu_angular_velocity_pitch,imu_angular_velocity_yaw,imu_acc_x,imu_acc_y,imu_acc_z,fl_joint1_pos,fl_joint1_vel,fl_joint1_torque,fl_joint2_pos,fl_joint2_vel,fl_joint2_torque,fl_joint3_pos,fl_joint3_vel,fl_joint3_torque,fr_joint1_pos,fr_joint1_vel,fr_joint1_torque,fr_joint2_pos,fr_joint2_vel,fr_joint2_torque,fr_joint3_pos,fr_joint3_vel,fr_joint3_torque,hl_joint1_pos,hl_joint1_vel,hl_joint1_torque,hl_joint2_pos,hl_joint2_vel,hl_joint2_torque,hl_joint3_pos,hl_joint3_vel,hl_joint3_torque,hr_joint1_pos,hr_joint1_vel,hr_joint1_torque,hr_joint2_pos,hr_joint2_vel,hr_joint2_torque,hr_joint3_pos,hr_joint3_vel,hr_joint3_torque,fl_force_x,fl_force_y,fl_force_z,fr_force_x,fr_force_y,fr_force_z,hl_force_x,hl_force_y,hl_force_z,hr_force_x,hr_force_y,hr_force_z,fl_hip_action,fl_thigh_action,fl_calf_action,fr_hip_action,fr_thigh_action,fr_calf_action,hl_hip_action,hl_thigh_action,hl_calf_action,hr_hip_action,hr_thigh_action,hr_calf_action
2025-07-18 17:21:52.840,0.0,0,0,0.0083076805,0.04074945,0.046680614,0.047823332,-0.008659818,0.021641245,1.6490742,-0.23162895,0.0,0.0,0.008815803,-0.008179778,0.009979812,-0.00291579,-0.0049248897,0.00802992,0.0037431144,0.00346041,0.007428695,0.0021429437,0.0071527776,-0.0050860145,-0.016805276,0.06153464,0.024145575,0.04613404,-0.059314467,0.0107810795,0.051891107,-0.038317606,-0.051712807,-0.04224057,0.01766967,0.038969964,0.0,0.0,0.0,0.0,0.0,0.0,0.0,0.0,0.0,0.0,0.0,0.0,2.0,2.0,1.3820574,-2.0,2.0,-1.3752427,0.5499319,-0.2655682,1.1417711,0.32771003,1.0118719,2.0
2025-07-18 17:21:52.849,0.02,20,1,-0.21030226,-0.09876766,-0.023105321,0.055525463,0.037678104,0.015212659,0.0,0.0,0.0,0.0,0.037472066,0.026586212,0.031915236,-0.031248944,0.046038285,-0.044838462,0.009805304,-0.017610699,0.032821015,0.017158318,0.04646999,0.038120195,0.07714114,0.18252452,0.040833335,-0.20586587,0.18849865,-0.103118375,0.024851073,0.04949115,0.021770839,0.022464652,0.17988312,0.021982102,2.0,2.0,1.3820574,-2.0,2.0,-1.3752427,0.5499319,-0.2655682,1.1417711,0.32771003,1.0118719,2.0,1.2393095,-2.0,1.2907143,2.0,-2.0,-2.0,-0.38468364,2.0,-2.0,0.57178,-2.0,2.0
2025-07-18 17:21:52.870,0.04,40,2,-0.0027252936,0.28604615,-0.18447343,-0.03430596,0.011904365,0.025175804,0.0,0.0,0.0,1.8132723e-05,0.072640665,0.04536165,0.044468015,-0.0150000155,0.0555069,-0.08226298,-0.0027409617,0.03034084,-0.0139386915,0.017860955,0.04663706,0.077368595,0.116632745,0.007574895,0.08299334,0.12296165,-0.13655141,-0.03766403,-0.034448974,0.17440397,-0.20848113,0.08260172,-0.11959052,0.1736314,1.2393095,-2.0,1.2907143,2.0,-2.0,-2.0,-0.38468364,2.0,-2.0,0.57178,-2.0,2.0,-1.0251511,-2.0,0.89545745,-0.45532715,-2.0,-2.0,-0.33107814,0.092177495,-2.0,-0.39563447,0.08211435,2.0
2025-07-18 17:21:52.890,0.06,60,3,0.40365008,-0.1273184,0.028007854,0.03879216,-0.0017715733,0.015053979,0.0,0.0,0.0,0.0024137183,0.051436078,0.01945682,0.07344682,-0.028899219,-0.030734256,-0.13173604,-0.0047651604,0.04645978,-0.0765691,0.0061365375,0.03400644,0.11638315,-0.038299747,-0.09623271,0.0804366,0.020547701,-0.37181,-0.06277834,0.009638886,-0.07846222,-0.18556052,0.011524946,-0.08339695,0.03371796,-1.0251511,-2.0,0.89545745,-0.45532715,-2.0,-2.0,-0.33107814,0.092177495,-2.0,-0.39563447,0.08211435,2.0,-0.1581923,-1.1326537,0.26066366,-1.4897047,-2.0,0.048084263,1.0425347,0.5956628,-1.9597889,1.2430421,0.28082287,2.0
2025-07-18 17:21:52.910,0.08,80,4,0.38788787,-0.038697787,0.23802994,0.023532532,0.070790984,-0.031983938,0.0,0.0,0.0,0.0038198596,0.052670255,-0.020130232,0.0621171,-0.050212428,-0.1640672,-0.11199079,0.024348708,0.06540391,-0.11073955,0.032270413,0.05611083,0.14169574,-0.027484132,-0.17031392,0.03226242,-0.14817761,-0.30943936,0.0446491,0.07216152,0.013750323,-0.058449663,0.12509933,0.08018711,0.13295327,-0.1581923,-1.1326537,0.26066366,-1.4897047,-2.0,0.048084263,1.0425347,0.5956628,-1.9597889,1.2430421,0.28082287,2.0,-1.4943547,2.0,1.7751081,-0.4473086,-2.0,2.0,1.8931906,1.877179,-1.8079675,0.6930042,-2.0,2.0
2025-07-18 17:21:52.930,0.1,100,5,0.24173687,-0.10937876,0.12772039,0.027566357,0.058571372,-0.025920868,0.0,0.0,0.0,0.0009623204,0.014315997,-0.04146471,0.07808404,-0.062163647,-0.2746868,-0.029677056,0.06550891,0.15830496,-0.14319761,0.026093982,0.0406135,0.17910942,-0.10868921,0.030529557,0.036896512,-0.025369316,-0.32561144,0.1433854,0.18847634,0.28656387,-0.084597744,-0.053966414,-0.06646425,0.05438499,-1.4943547,2.0,1.7751081,-0.4473086,-2.0,2.0,1.8931906,1.877179,-1.8079675,0.6930042,-2.0,2.0,-0.32277343,2.0,1.1402179,-0.61473435,-2.0,1.9085485,2.0,-2.0,-0.14506814,-0.83322555,-2.0,2.0
2025-07-18 17:21:52.950,0.12000000000000001,120,6,0.269264,-0.07988533,-0.17297265,-0.0353733,0.046316862,-0.033860605,0.0,0.0,0.0,-0.0012105701,0.018285122,-0.035306975,0.09058068,-0.07597531,-0.38098693,0.012303263,0.117491625,0.19658144,-0.119969696,-0.0030900096,0.0029475847,0.19633433,-0.046152454,0.06918089,0.048624154,0.017988604,-0.20181748,0.11188824,0.16681278,-0.09306114,0.12134807,-0.003276982,-0.17967175,0.048603658,-0.32277343,2.0,1.1402179,-0.61473435,-2.0,1.9085485,2.0,-2.0,-0.14506814,-0.83322555,-2.0,2.0,-0.080411166,1.4150145,-2.0,-2.0,-2.0,2.0,2.0,-2.0,2.0,0.381701,2.0,2.0
2025-07-18 17:21:52.970,0.14,140,7,0.15062332,0.031685524,0.028537637,-0.037292536,0.111946486,0.036912717,0.0,0.0,0.0,-0.00018744584,0.001313136,0.050036743,0.031805094,-0.11340925,-0.45364982,0.058492314,0.16511093,0.11617399,-0.054375526,0.009516743,0.011739702,0.20994231,0.043828722,0.26529682,-0.15497707,-0.054849174,-0.13846554,0.098026425,0.071847096,-0.32656652,0.20948854,0.08998462,0.12579155,0.08103007,-0.080411166,1.4150145,-2.0,-2.0,-2.0,2.0,2.0,-2.0,2.0,0.381701,2.0,2.0,-0.7568034,-0.55533534,-2.0,-2.0,-2.0,2.0,1.8062392,1.9981622,2.0,0.88375413,1.5828638,2.0
2025-07-18 17:21:52.990,0.16,160,8,-0.049240008,-0.003590308,0.07128881,0.010273203,0.09611724,-0.043783125,0.0,0.0,0.0,0.00027110116,-0.008351659,0.07391091,-0.035005376,-0.15587132,-0.51354337,0.101807624,0.17714974,0.073896155,0.012662059,0.020692473,0.08805217,0.22837064,-0.011303114,-0.0564189,-0.16536537,-0.06188717,-0.16681145,0.03128581,-0.009553072,0.10939393,0.16278593,0.041145485,0.3250515,-0.025980532,-0.7568034,-0.55533534,-2.0,-2.0,-2.0,2.0,1.8062392,1.9981622,2.0,0.88375413,1.5828638,2.0,-0.0032199621,2.0,-2.0,-0.7713465,-0.8453477,2.0,0.9725046,-1.2381556,2.0,-0.5391496,-2.0,-1.7480168
2025-07-18 17:21:53.010,0.18,180,9,-0.17282604,0.14586017,0.04003292,-0.015835974,0.08284038,0.022665808,0.0,0.0,0.0,-0.0011137965,0.0006297663,0.10508474,-0.082160726,-0.15999119,-0.5450004,0.13067515,0.19191656,0.05636777,0.06917793,0.0127914315,0.1302363,0.16775984,-0.06794034,0.2548725,-0.0861064,-0.019319143,0.038967144,0.03480114,-0.037734542,-0.21570256,0.14997728,0.008625275,-0.064462975,-0.15246709,-0.0032199621,2.0,-2.0,-0.7713465,-0.8453477,2.0,0.9725046,-1.2381556,2.0,-0.5391496,-2.0,-1.7480168,1.6329012,-0.8493987,-2.0,-0.94147784,2.0,2.0,-0.09622042,-0.6971038,2.0,-0.10188685,1.7547259,-2.0
2025-07-18 17:21:53.030,0.19999999999999998,200,10,-0.50479835,0.05271791,0.2168282,-0.013432212,0.052856084,-0.008041604,0.0,0.0,0.0,-0.0014452671,0.035433277,0.116847716,-0.116943836,-0.16633582,-0.5204851,0.15937945,0.16183677,-0.007719191,0.09947056,0.010747115,0.18651293,0.08409187,0.14475644,-0.12563068,-0.024107417,-0.013466525,0.1620387,0.028355477,-0.13030683,-0.065661944,0.11121808,0.05994449,0.27582875,-0.21942602,1.6329012,-0.8493987,-2.0,-0.94147784,2.0,2.0,-0.09622042,-0.6971038,2.0,-0.10188685,1.7547259,-2.0,2.0,-2.0,-2.0,1.4551659,2.0,2.0,-2.0,-0.4315297,2.0,1.3130822,-1.7541231,-2.0
2025-07-18 17:21:53.050,0.21999999999999997,220,11,-0.5519474,0.2680846,0.15535763,-0.040906105,0.017371127,-0.042694278,0.0,0.0,0.0,-0.0038503937,0.080735356,0.043454587,-0.14504416,-0.12312967,-0.47304,0.17756903,0.09373984,-0.034329403,0.13703035,0.041606463,0.19471887,0.012708382,0.16332567,-0.23095682,-0.10837271,0.19251326,0.08657421,0.106021196,-0.117652275,0.0023875025,0.08354077,0.105191596,-0.053608377,-0.10316792,2.0,-2.0,-2.0,1.4551659,2.0,2.0,-2.0,-0.4315297,2.0,1.3130822,-1.7541231,-2.0,2.0,-2.0,-2.0,2.0,2.0,-0.20175418,-2.0,-2.0,2.0,-2.0,-0.7985758,-2.0
2025-07-18 17:21:53.074,0.23999999999999996,240,12,-0.057472628,-0.05539034,0.035177052,-0.02894947,-0.050765462,0.045137584,0.0,0.0,0.0,-0.0069108466,0.13508189,-0.09895934,-0.18313359,-0.076110095,-0.43587294,0.13427113,0.08081852,-0.060990963,0.17118436,-0.007211113,0.107738376,-0.05312522,0.16160741,-0.30523297,-0.13471846,0.056455072,0.14998455,-0.0947746,-0.036644794,0.03285256,0.08902185,-0.2116347,-0.16304973,-0.116227195,2.0,-2.0,-2.0,2.0,2.0,-0.20175418,-2.0,-2.0,2.0,-2.0,-0.7985758,-2.0,2.0,-2.0,0.9076155,2.0,2.0,-2.0,-2.0,-2.0,2.0,-2.0,-1.2368927,-2.0
2025-07-18 17:21:53.090,0.25999999999999995,260,13,0.16542843,-0.087209076,0.021604644,0.028014774,-0.049779456,0.030392079,0.0,0.0,0.0,-0.00846629,0.15425563,-0.23198758,-0.12325688,-0.051976796,-0.37340394,0.054360714,0.06964164,-0.07151808,0.19170457,-0.05100906,0.0015838332,-0.086526506,0.093170054,-0.28877118,0.15706465,0.0038533297,0.20234548,-0.2581625,-0.008810691,-0.049603995,0.09720879,-0.06956577,-0.25259316,-0.13191205,2.0,-2.0,0.9076155,2.0,2.0,-2.0,-2.0,-2.0,2.0,-2.0,-1.2368927,-2.0,2.0,-2.0,2.0,2.0,2.0,-2.0,-2.0,-2.0,2.0,-2.0,2.0,2.0
2025-07-18 17:21:53.110,0.27999999999999997,280,14,0.27570283,-0.15507433,0.12752223,-0.010226013,0.027277753,-0.007317068,0.0,0.0,0.0,-0.009246605,0.19639796,-0.34642166,-0.047794957,-0.053435348,-0.3203756,-0.03317263,0.0632983,-0.09754057,0.20090698,-0.1142266,-0.033073194,-0.032491922,0.13456444,-0.2630641,0.12934968,-0.037824765,0.1815447,-0.16358389,-0.090334,0.020242255,0.03138644,-0.06758328,-0.05576277,0.07998594,2.0,-2.0,2.0,2.0,2.0,-2.0,-2.0,-2.0,2.0,-2.0,2.0,2.0,2.0,-2.0,2.0,2.0,2.0,-2.0,-2.0,0.3869993,-1.595196,-2.0,2.0,2.0
2025-07-18 17:21:53.133,0.3,300,15,0.0074229324,0.005939467,-0.032697193,0.012216104,0.052688316,0.00695115,0.0,0.0,0.0,-0.010640558,0.22199671,-0.43998364,0.004790236,-0.028734794,-0.2493728,-0.08005974,0.017681101,-0.045419756,0.1399816,-0.15457568,-0.019305393,0.005781926,0.12631245,-0.13934475,0.21105868,0.09543997,0.19828227,-0.14348468,-0.004570867,0.12956826,-0.2570986,-0.10342317,0.09314955,0.16805913,2.0,-2.0,2.0,2.0,2.0,-2.0,-2.0,0.3869993,-1.595196,-2.0,2.0,2.0,1.9772024,-2.0,2.0,0.6283518,2.0,-2.0,-2.0,0.82531536,-2.0,-1.7362429,2.0,2.0
2025-07-18 17:21:53.151,0.32,320,16,0.01675075,-0.28934395,-0.008755019,0.016959112,0.06064324,-0.019389238,0.0,0.0,0.0,-0.011106784,0.2306754,-0.5001353,0.054944575,-0.009104339,-0.187294,-0.123992585,-0.010642319,0.0151066,0.064417765,-0.17647348,0.04217079,0.053072523,0.06925107,-0.09304376,0.08940242,0.06197579,0.18235558,-0.050758697,-0.16980119,0.12328641,-0.12836076,-0.123663664,0.29192412,0.14298946,1.9772024,-2.0,2.0,0.6283518,2.0,-2.0,-2.0,0.82531536,-2.0,-1.7362429,2.0,2.0,1.5039343,-1.347346,2.0,0.60890245,-0.21247357,-2.0,-2.0,1.8502014,-2.0,-0.8174826,-0.25299406,2.0
2025-07-18 17:21:53.173,0.34,340,17,-0.04137136,0.084082685,-0.29536253,0.056220356,-0.0019687156,0.037997235,0.0,0.0,0.0,-0.010716783,0.23884429,-0.51717883,0.09713659,0.018497024,-0.15111966,-0.15744853,-0.0691122,0.11487321,-0.016892651,-0.17166854,0.07926646,0.09805795,-0.054879323,-0.08424117,0.07207299,0.030109042,0.074625365,-0.14315723,-0.071192704,0.30304578,-0.1899351,0.0023401086,-0.0023396602,0.07889723,1.5039343,-1.347346,2.0,0.60890245,-0.21247357,-2.0,-2.0,1.8502014,-2.0,-0.8174826,-0.25299406,2.0,-0.13731936,-0.548587,2.0,-0.2594505,1.2030025,-2.0,-2.0,-1.7277846,-2.0,-1.1250755,1.5155153,2.0
2025-07-18 17:21:53.191,0.36000000000000004,360,18,0.118616894,-0.042923618,0.0036307978,0.056340527,-0.009797713,-0.004416139,0.0,0.0,0.0,-0.007265059,0.21053647,-0.48120874,0.14179026,-0.0025838544,-0.09548112,-0.19837192,-0.100535884,0.17863765,-0.05671536,-0.1814625,0.11036942,0.13352072,-0.044466846,0.18905216,0.03980829,-0.096685834,0.10126158,-0.15057953,-0.045619432,0.13034795,-0.1768895,-0.047077823,0.16440473,0.12919143,-0.13731936,-0.548587,2.0,-0.2594505,1.2030025,-2.0,-2.0,-1.7277846,-2.0,-1.1250755,1.5155153,2.0,1.8247175,-1.7185017,2.0,0.6870708,-2.0,-2.0,-1.6396114,1.0888131,-2.0,-0.7185383,-1.8822368,2.0
2025-07-18 17:21:53.211,0.38000000000000006,380,19,0.06605619,0.31579036,-0.1395309,0.020882895,0.017688893,-0.041039396,0.0,0.0,0.0,-0.004909185,0.22505485,-0.48898983,0.16050169,0.0112698935,-0.09052574,-0.2282421,-0.13386498,0.2284582,-0.1056459,-0.17019829,0.102289215,0.16693418,0.10355466,-0.105311416,0.04592738,0.08459614,-0.06760529,-0.09212974,-0.14986435,0.044030305,-0.13936423,-0.0421398,-0.13187636,0.107948475,1.8247175,-1.7185017,2.0,0.6870708,-2.0,-2.0,-1.6396114,1.0888131,-2.0,-0.7185383,-1.8822368,2.0,-0.57287693,2.0,2.0,-1.5961773,0.14110893,-2.0,-1.06575,-0.9074567,-2.0,-2.0,2.0,2.0
2025-07-18 17:21:53.231,0.4000000000000001,400,20,0.16824144,-0.5874289,-0.025263615,-0.02226389,0.09228507,-0.007897843,0.0,0.0,0.0,-0.0025054617,0.20269316,-0.50214756,0.19702305,-0.0326311,-0.06674681,-0.23317415,-0.14830194,0.2125237,-0.13436404,-0.20832752,0.1312621,0.18908145,-0.17343245,-0.012066858,0.04904645,-0.1284307,0.010890776,-0.1031116,-0.019580524,-0.21712753,-0.014353201,-0.030212352,0.25094783,0.09312918,-0.57287693,2.0,2.0,-1.5961773,0.14110893,-2.0,-1.06575,-0.9074567,-2.0,-2.0,2.0,2.0,1.3918324,1.5121824,2.0,-0.92658705,-2.0,-2.0,1.0407649,2.0,-2.0,1.1536072,-2.0,2.0
2025-07-18 17:21:53.253,0.4200000000000001,420,21,-0.42295372,0.13991311,-0.1766974,-0.016807828,0.07176355,0.039771423,0.0,0.0,0.0,-0.0015034282,0.20006377,-0.4704756,0.1963091,-0.045933712,-0.07895607,-0.2463463,-0.093435645,0.20735845,-0.17029114,-0.17339309,0.15383744,0.21690097,0.02416752,0.12207196,0.046468865,-0.016258849,-0.040450294,-0.022438556,0.08360895,0.12514436,-0.103398435,0.01117967,0.040718712,0.074584015,1.3918324,1.5121824,2.0,-0.92658705,-2.0,-2.0,1.0407649,2.0,-2.0,1.1536072,-2.0,2.0,-2.0,2.0,2.0,-2.0,-2.0,-0.9312526,2.0,1.5424201,-2.0,2.0,-2.0,2.0
2025-07-18 17:21:53.275,0.4400000000000001,440,22,-0.3445943,0.046754055,-0.14918783,0.050143663,0.043470833,-0.0057834014,0.0,0.0,0.0,0.0008095307,0.22611444,-0.4414499,0.20916562,-0.094685994,-0.18128444,-0.22562557,-0.025911104,0.2785856,-0.20154393,-0.16798927,0.1630429,0.22701283,0.073558256,0.03901144,-0.05632693,-0.12998241,-0.34946865,0.09206634,0.20892742,0.14932056,-0.1248319,0.06395293,-0.0044436464,0.11995296,-2.0,2.0,2.0,-2.0,-2.0,-0.9312526,2.0,1.5424201,-2.0,2.0,-2.0,2.0,-2.0,2.0,1.5662291,-2.0,-2.0,1.5637336,2.0,-0.4006335,-2.0,2.0,-2.0,2.0
2025-07-18 17:21:53.291,0.46000000000000013,460,23,-0.16161965,0.07157882,-0.043296933,0.038346585,-0.045586564,0.016046187,0.0,0.0,0.0,0.0034181338,0.2282577,-0.40738744,0.2013055,-0.14312252,-0.3001993,-0.15896636,0.03875232,0.27308816,-0.21975899,-0.15631892,0.16588154,0.25532296,-0.000116542076,0.05978202,0.0038230303,-0.16138217,-0.22820507,0.12140832,0.12719181,-0.08703831,-0.055285633,0.019164916,0.032558013,0.049592495,-2.0,2.0,1.5662291,-2.0,-2.0,1.5637336,2.0,-0.4006335,-2.0,2.0,-2.0,2.0,-2.0,2.0,-0.26123232,-2.0,-2.0,2.0,2.0,0.6162358,-1.89544,2.0,-2.0,2.0
2025-07-18 17:21:53.311,0.48000000000000015,480,24,-0.08905727,0.15340875,-0.0044068256,0.041238293,-0.0075141257,0.036594532,0.0,0.0,0.0,0.005143299,0.22480997,-0.35922092,0.1486598,-0.16604005,-0.3988347,-0.076830916,0.08405012,0.2608535,-0.2280138,-0.14114864,0.15196368,0.26467144,0.06372249,0.081556305,-0.08497773,-0.026341788,-0.23187308,0.2269582,0.17476018,-0.011455867,-0.0009907632,0.035259306,-0.041698642,0.024235776,-2.0,2.0,-0.26123232,-2.0,-2.0,2.0,2.0,0.6162358,-1.89544,2.0,-2.0,2.0,-2.0,2.0,-2.0,-2.0,-2.0,2.0,2.0,-0.29749858,1.680714,2.0,-2.0,2.0
2025-07-18 17:21:53.334,0.5000000000000001,500,25,0.0047385115,0.22047035,0.0030650645,0.03526297,0.0043294276,0.0034651593,0.0,0.0,0.0,0.006136044,0.22889586,-0.3017265,0.07064744,-0.20016645,-0.47327113,-0.0088660205,0.12246741,0.22056594,-0.15160067,-0.13867395,0.14257531,0.2700151,-0.08588285,0.21988145,-0.24071965,-0.018796254,-0.19077475,0.10868324,0.13761237,-0.09204542,0.27092865,0.005338471,-0.096845254,0.09160709,-2.0,2.0,-2.0,-2.0,-2.0,2.0,2.0,-0.29749858,1.680714,2.0,-2.0,2.0,-2.0,2.0,-2.0,-1.5676671,-2.0,2.0,2.0,-0.7742158,2.0,1.8041247,-2.0,1.5358067
2025-07-18 17:21:53.351,0.5200000000000001,520,26,0.20912643,0.22371036,0.099944524,-0.06379408,0.013551819,-0.04544414,0.0,0.0,0.0,0.00609568,0.20755458,-0.23596221,-0.014912074,-0.21441557,-0.53676957,0.045598097,0.16288371,0.11929932,-0.07342127,-0.10301953,0.1177308,0.27988893,-0.11555659,0.18833938,-0.17137241,0.0439109,-0.13212693,0.14069949,0.010352789,-0.223518,0.14938234,0.032240894,-0.10280628,-0.073162585,-2.0,2.0,-2.0,-1.5676671,-2.0,2.0,2.0,-0.7742158,2.0,1.8041247,-2.0,1.5358067,-1.5019906,2.0,-2.0,-1.5084786,-0.5735597,2.0,2.0,0.76302105,2.0,0.7937755,-2.0,-0.27611774
2025-07-18 17:21:53.371,0.5400000000000001,540,27,0.22612752,0.026392622,0.08429972,-0.0010840778,-0.071932115,-0.0075619016,0.0,0.0,0.0,0.0052435924,0.17051682,-0.18070582,-0.06924603,-0.2131824,-0.5377159,0.092724554,0.1859568,0.09587935,-0.019417677,-0.078459635,0.09868704,0.2265191,-0.12317671,0.16724125,-0.20487262,-0.0134036,0.12139218,0.052165683,0.107078485,0.14586967,0.10928466,0.0027474375,-0.015217987,-0.15899849,-1.5019906,2.0,-2.0,-1.5084786,-0.5735597,2.0,2.0,0.76302105,2.0,0.7937755,-2.0,-0.27611774,0.48624173,2.0,-2.0,0.64823574,0.5193467,2.0,0.18070205,-2.0,2.0,-1.7543858,1.8717442,-2.0
2025-07-18 17:21:53.391,0.5600000000000002,560,28,-0.079917274,-0.17929031,0.010566776,-0.044598196,-0.054842666,0.040404227,0.0,0.0,0.0,0.0038321535,0.16117883,-0.08629849,-0.121761754,-0.19268177,-0.4530151,0.11358266,0.17251371,0.089250006,0.054234315,-0.10536433,0.16205998,0.13256912,0.01032877,0.19477715,-0.09622831,0.045594078,0.21701358,0.028190548,-0.0035049005,0.03316261,0.0677825,-0.14224632,0.23511328,-0.21141133,0.48624173,2.0,-2.0,0.64823574,0.5193467,2.0,0.18070205,-2.0,2.0,-1.7543858,1.8717442,-2.0,2.0,-2.0,-2.0,0.08513584,2.0,2.0,-2.0,-2.0,2.0,-0.45976287,0.8242527,-2.0
2025-07-18 17:21:53.411,0.5800000000000002,580,29,-0.052765734,0.009583647,0.12498879,-0.026798384,-0.021290792,-0.0048175263,0.0,0.0,0.0,0.003692145,0.19418661,-0.06394188,-0.15139145,-0.16815995,-0.41867855,0.14726642,0.16951062,0.07900178,0.08551061,-0.09431497,0.20353167,0.059838317,0.11975561,0.025724465,-0.039870765,-0.039715637,0.025257142,0.0025306058,-0.010728164,-0.07045092,0.062932424,0.027857494,0.08749459,-0.18123332,2.0,-2.0,-2.0,0.08513584,2.0,2.0,-2.0,-2.0,2.0,-0.45976287,0.8242527,-2.0,2.0,-2.0,-2.0,1.0534015,2.0,1.5348198,-2.0,-2.0,2.0,-0.16696621,-1.6819247,-2.0
2025-07-18 17:21:53.437,0.6000000000000002,600,30,0.07637395,0.12811577,0.080162466,-0.043481547,-0.019407084,0.0074238293,0.0,0.0,0.0,0.0025248465,0.20635521,-0.13669638,-0.18818623,-0.17122619,-0.4088353,0.14945349,0.14280167,0.03810375,0.13374718,-0.09378568,0.16501752,-0.0059313774,-0.010782663,-0.23188128,-0.059644744,-0.01904379,0.043523796,-0.055313874,-0.07107678,-0.15338768,0.15937343,0.049553733,-0.22916713,-0.19756219,2.0,-2.0,-2.0,1.0534015,2.0,1.5348198,-2.0,-2.0,2.0,-0.16696621,-1.6819247,-2.0,2.0,-2.0,-0.9963947,2.0,2.0,-2.0,-2.0,-2.0,2.0,-2.0,-0.36156833,-2.0
2025-07-18 17:21:53.457,0.6200000000000002,620,31,0.2450888,-0.007249183,0.050525133,-0.035213053,-0.03338241,0.045452405,0.0,0.0,0.0,0.00088866556,0.2381382,-0.25903514,-0.17295234,-0.15291339,-0.34534377,0.067296505,0.11433214,-0.0073492355,0.16298935,-0.12051042,0.11156746,-0.05487776,-0.012121369,-0.26035154,0.057726245,0.0220147,0.0768241,-0.27550215,-0.09622895,-0.065010615,0.042148646,-0.14425497,-0.09273345,-0.14829859,2.0,-2.0,-0.9963947,2.0,2.0,-2.0,-2.0,-2.0,2.0,-2.0,-0.36156833,-2.0,2.0,-2.0,2.0,2.0,2.0,-2.0,-2.0,-2.0,2.0,-2.0,-0.21853638,1.1169504
2025-07-18 17:21:53.478,0.6400000000000002,640,32,0.18168384,-0.037855048,0.08779657,-0.040792573,0.03660477,-0.034454454,0.0,0.0,0.0,-0.00030045517,0.2617709,-0.34631848,-0.09463223,-0.110359006,-0.28617758,-0.0039067534,0.06755595,-0.039756253,0.1940722,-0.15394771,0.07641221,-0.021956256,0.00048305598,-0.24916688,0.13955915,0.0694048,0.21343718,-0.1413893,-0.07015235,-0.029126529,0.08849595,-0.15683042,-0.036737032,0.16374996,2.0,-2.0,2.0,2.0,2.0,-2.0,-2.0,-2.0,2.0,-2.0,-0.21853638,1.1169504,1.8040724,-2.0,2.0,2.0,2.0,-2.0,-2.0,-0.9698531,-1.6540244,-2.0,1.056817,2.0
2025-07-18 17:21:53.501,0.6600000000000003,660,33,0.16478823,-0.06143222,0.12075287,-0.05367767,0.04673242,0.019396413,0.0,0.0,0.0,-0.0011431392,0.25687435,-0.43905407,-0.032177247,-0.084288746,-0.21586186,-0.059216138,0.031858996,-0.045856006,0.12489408,-0.19557926,0.10508578,0.028893635,0.0171162,-0.14639576,0.16336784,0.009926649,0.10094051,-0.16852033,-0.05424087,-0.0179532,-0.14481041,-0.057671405,0.1086062,0.12634024,1.8040724,-2.0,2.0,2.0,2.0,-2.0,-2.0,-0.9698531,-1.6540244,-2.0,1.056817,2.0,1.9523957,-2.0,2.0,1.1099919,2.0,-2.0,-2.0,2.0,-2.0,-1.973928,1.0995746,2.0
2025-07-18 17:21:53.519,0.6800000000000003,680,34,-0.11696434,-0.06366668,-0.040228464,-0.021144733,0.02226511,-0.02888135,0.0,0.0,0.0,-0.0025923348,0.27603608,-0.5123554,0.029935278,-0.05147805,-0.1423972,-0.11479899,-0.02013383,0.0007662316,0.05102345,-0.21991871,0.16016527,0.08523749,0.02729406,-0.20912825,0.18060558,0.112805665,0.2666956,-0.17763829,-0.07850107,0.26754922,-0.13698941,-0.0996496,0.13682163,0.051552247,1.9523957,-2.0,2.0,1.1099919,2.0,-2.0,-2.0,2.0,-2.0,-1.973928,1.0995746,2.0,0.69546425,-0.5156516,2.0,0.059599146,0.1236583,-2.0,-2.0,0.56523985,-2.0,-0.4610591,-1.4973667,2.0
2025-07-18 17:21:53.537,0.7000000000000003,700,35,0.11920344,0.03872147,-0.12761508,-0.028319752,0.004281593,0.038445532,0.0,0.0,0.0,-0.0030942338,0.25622267,-0.5049085,0.074877,-0.04945495,-0.10462654,-0.1582154,-0.058523715,0.04928365,-0.006086604,-0.19964819,0.15146132,0.116890654,-0.040592004,0.16011319,0.1326067,0.022256795,0.09726062,-0.05341959,-0.09776679,0.14808102,-0.21173903,0.076759174,-0.094470374,0.11182219,0.69546425,-0.5156516,2.0,0.059599146,0.1236583,-2.0,-2.0,0.56523985,-2.0,-0.4610591,-1.4973667,2.0,-0.29514664,-2.0,2.0,0.8379393,-0.2728101,-2.0,-2.0,1.7293928,-2.0,-1.3249336,0.9124043,2.0
2025-07-18 17:21:53.557,0.7200000000000003,720,36,-0.11868225,0.04583651,-0.15497471,-0.016948491,0.069546595,-0.0008020785,0.0,0.0,0.0,-0.0015344857,0.21563083,-0.51808673,0.11414592,-0.027626805,-0.08465611,-0.18875585,-0.11250338,0.1394326,-0.055597857,-0.2053178,0.15251763,0.14696531,-0.09070932,-0.14798793,0.09547112,0.11029914,-0.036939003,-0.011566829,-0.1661544,0.24161956,-0.15200503,0.034242667,0.17986496,0.09652995,-0.29514664,-2.0,2.0,0.8379393,-0.2728101,-2.0,-2.0,1.7293928,-2.0,-1.3249336,0.9124043,2.0,-0.1434615,2.0,2.0,-1.4690458,-0.72841066,-2.0,-2.0,-0.82418317,-2.0,0.6251792,-1.9331875,2.0
2025-07-18 17:21:53.579,0.7400000000000003,740,37,0.16376127,-0.20678513,-0.06572506,-0.05305294,-0.0027862305,0.02914924,0.0,0.0,0.0,0.0013245346,0.17109886,-0.54193324,0.15515839,-0.039845113,-0.11706602,-0.2038349,-0.1472794,0.15981928,-0.102251016,-0.15485792,0.1486584,0.17630087,-0.110739514,0.039147392,-0.008951849,-0.031623293,-0.082922935,-0.012645457,-0.09010741,-0.012401463,-0.09852528,0.18408097,-0.19859752,0.1111021,-0.1434615,2.0,2.0,-1.4690458,-0.72841066,-2.0,-2.0,-0.82418317,-2.0,0.6251792,-1.9331875,2.0,-0.61944604,2.0,2.0,-1.4026371,-0.38063723,-2.0,0.959074,2.0,-2.0,-0.42856073,-0.100934975,2.0
2025-07-18 17:21:53.597,0.7600000000000003,760,38,-0.09833912,-0.71989506,-0.08124818,-0.028294897,0.052057516,0.0065824324,0.0,0.0,0.0,0.0035637622,0.14672336,-0.5245524,0.17602402,-0.08355023,-0.12701915,-0.23201665,-0.13013832,0.18669647,-0.1397085,-0.13875565,0.118977726,0.21486309,-0.064522125,0.06283848,0.11979534,-0.027369043,0.058707185,-0.020592825,0.103504784,0.12852862,-0.03812099,0.008969883,-0.12596205,0.043713924,-0.61944604,2.0,2.0,-1.4026371,-0.38063723,-2.0,0.959074,2.0,-2.0,-0.42856073,-0.100934975,2.0,-1.9167211,2.0,2.0,-0.14182447,-2.0,-2.0,0.48559287,1.1407516,-2.0,2.0,-2.0,2.0
2025-07-18 17:21:53.620,0.7800000000000004,780,39,-0.16502309,-0.25506136,-0.043256067,0.038525257,0.030707045,-0.029569337,0.0,0.0,0.0,0.005630725,0.12042307,-0.48491937,0.1880785,-0.06818836,-0.18546031,-0.24338816,-0.095429525,0.24042837,-0.16574071,-0.14467527,0.09459517,0.23369831,3.043334e-05,0.06503661,-0.024815364,0.071319126,-0.28533724,-0.011507244,0.03386203,0.07851156,-0.00017671597,-0.0067882715,0.053780567,0.10146477,-1.9167211,2.0,2.0,-0.14182447,-2.0,-2.0,0.48559287,1.1407516,-2.0,2.0,-2.0,2.0,-2.0,2.0,0.8049292,-2.0,-2.0,0.53115296,2.0,0.11172007,-2.0,2.0,-2.0,2.0
2025-07-18 17:21:53.637,0.8000000000000004,800,40,0.03590321,-0.07810051,0.046867892,0.014068367,0.03725635,-0.033734683,0.0,0.0,0.0,0.008164707,0.09269745,-0.4435692,0.17019185,-0.102734804,-0.29890245,-0.19399096,-0.03307161,0.22455592,-0.19606486,-0.1762509,0.106360555,0.2396137,-0.0018805756,0.040544335,-0.018204268,-0.08516067,-0.3213941,0.10082771,0.16035183,-0.057508823,-0.009875486,-0.092665374,0.045824964,0.057164397,-2.0,2.0,0.8049292,-2.0,-2.0,0.53115296,2.0,0.11172007,-2.0,2.0,-2.0,2.0,-2.0,2.0,-0.9596233,-2.0,-2.0,2.0,2.0,0.6097093,-1.8344725,2.0,-2.0,2.0
2025-07-18 17:21:53.662,0.8200000000000004,820,41,-0.002857149,0.13399859,0.068829745,0.025265733,0.07162413,-0.042350497,0.0,0.0,0.0,0.008792753,0.06890341,-0.3861393,0.10430908,-0.14257635,-0.40576836,-0.099003315,0.032851547,0.21751507,-0.21500315,-0.17260838,0.10975767,0.255973,0.016522601,0.12684847,-0.12884928,-0.13884617,-0.23435181,0.18538146,0.16161895,0.06838632,-0.09579003,0.057422753,0.05523143,0.105606884,-2.0,2.0,-0.9596233,-2.0,-2.0,2.0,2.0,0.6097093,-1.8344725,2.0,-2.0,2.0,-2.0,2.0,-2.0,-2.0,-2.0,2.0,2.0,-0.119822696,1.6720918,2.0,-2.0,2.0
2025-07-18 17:21:53.677,0.8400000000000004,840,42,0.075944364,0.23017667,0.044583786,0.066235445,0.09204746,0.023675911,0.0,0.0,0.0,0.008416286,0.060841322,-0.3383936,0.029682966,-0.1717358,-0.48357186,-0.040430713,0.081693485,0.18969856,-0.14425123,-0.16397588,0.10431147,0.2621245,0.024701888,0.07442607,-0.20660335,-0.09942975,-0.23093818,0.22712862,0.13102427,-0.17921841,0.22447762,0.07088975,0.047425453,0.0789022,-2.0,2.0,-2.0,-2.0,-2.0,2.0,2.0,-0.119822696,1.6720918,2.0,-2.0,2.0,-2.0,2.0,-2.0,-2.0,-1.0999112,2.0,2.0,1.4533747,2.0,2.0,-2.0,2.0
2025-07-18 17:21:53.699,0.8600000000000004,860,43,-0.083105125,0.21957913,0.17061974,-0.036472607,0.06582365,0.014156647,0.0,0.0,0.0,0.006832325,0.048708502,-0.28742534,-0.046656214,-0.21140052,-0.48573664,0.026753366,0.1390867,0.19264324,-0.065052204,-0.13427162,0.10481269,0.2873369,-0.014764871,0.09115342,-0.08328707,0.0087744575,0.05169889,0.14714533,0.067203194,0.09433939,0.14466849,0.017694114,0.026081182,0.03422325,-2.0,2.0,-2.0,-2.0,-1.0999112,2.0,2.0,1.4533747,2.0,2.0,-2.0,2.0,-0.81882536,2.0,-2.0,0.17492925,-2.0,2.0,2.0,-1.8608198,2.0,-1.3946064,-2.0,-1.6070316
2025-07-18 17:21:53.718,0.8800000000000004,880,44,-0.032482207,0.19796433,-0.07030022,0.04512925,0.025392558,-0.041105926,0.0,0.0,0.0,0.0043286113,0.014919663,-0.21609177,-0.11073864,-0.20105803,-0.5242916,0.07122187,0.17000581,0.20833449,0.013198725,-0.14611082,0.10725636,0.21070191,-0.07669839,0.21241723,-0.0789946,0.023388686,-0.17414425,0.10208656,0.06476989,-0.06326324,0.2054151,-0.098092414,-0.010256798,-0.22150415,-0.81882536,2.0,-2.0,0.17492925,-2.0,2.0,2.0,-1.8608198,2.0,-1.3946064,-2.0,-1.6070316,0.9067955,2.0,-2.0,-1.9934546,2.0,2.0,1.3915318,-2.0,2.0,-1.2438327,0.39671963,-2.0
2025-07-18 17:21:53.737,0.9000000000000005,900,45,-0.1599655,0.08637573,0.0047959173,-0.035123087,-0.0002776019,0.011447482,0.0,0.0,0.0,0.0044908533,0.036615204,-0.16035992,-0.14358534,-0.21607499,-0.53615457,0.101498626,0.18044905,0.11037837,0.052746415,-0.16809165,0.120524354,0.13107526,0.023369815,0.1823503,-0.125026,-0.077360384,0.00016463341,0.008388359,-0.030648617,-0.21200351,0.13573214,-0.04351749,0.012503965,-0.2664841,0.9067955,2.0,-2.0,-1.9934546,2.0,2.0,1.3915318,-2.0,2.0,-1.2438327,0.39671963,-2.0,1.728885,0.21730702,-2.0,-1.9636161,2.0,2.0,-2.0,1.9892755,2.0,2.0,2.0,-2.0
2025-07-18 17:21:53.757,0.9200000000000005,920,46,-0.26544538,-0.23335753,0.04069874,0.015964197,0.05087815,-0.026950538,0.0,0.0,0.0,0.0057274234,0.08761893,-0.096326664,-0.16676454,-0.22206873,-0.48714072,0.14500177,0.14793001,0.076733604,0.104503095,-0.120314926,0.1818764,0.049737044,0.158853,0.07913993,-0.013544985,-0.10271898,0.083618745,0.046876315,-0.12404223,0.055358917,0.1330437,0.28070325,0.33142653,-0.17953081,1.728885,0.21730702,-2.0,-1.9636161,2.0,2.0,-2.0,1.9892755,2.0,2.0,2.0,-2.0,2.0,-0.49755162,-2.0,0.411735,2.0,2.0,-2.0,-2.0,2.0,2.0,0.3581357,-2.0
2025-07-18 17:21:53.778,0.9400000000000005,940,47,-0.12012676,0.20924811,0.007206119,0.043498762,-0.022255678,0.031223875,0.0,0.0,0.0,0.0056349323,0.12758012,-0.11269566,-0.19364727,-0.24669777,-0.47408107,0.16552663,0.12830393,0.081206165,0.1334103,-0.038021307,0.2198769,-0.0050643473,0.04985578,-0.03055478,-0.12376205,0.018466016,0.09398923,-0.024867063,0.008306055,-0.025163064,0.016080353,0.10585453,0.06698216,-0.13071658,2.0,-0.49755162,-2.0,0.411735,2.0,2.0,-2.0,-2.0,2.0,2.0,0.3581357,-2.0,2.0,-2.0,-2.0,1.239462,2.0,2.0,-2.0,-2.0,2.0,0.28228426,-1.1137798,-2.0
2025-07-18 17:21:53.798,0.9600000000000005,960,48,0.03834083,0.1494007,-0.058272626,-0.04693951,-0.042658355,0.046556212,0.0,0.0,0.0,0.0055797133,0.15360585,-0.1865367,-0.22545493,-0.23867856,-0.46382084,0.17459428,0.10630051,0.06920831,0.16557963,-0.025317764,0.18419534,-0.06903022,0.1501214,-0.19850595,0.032602265,0.06746282,-0.015169862,0.032385755,-0.112855814,-0.06306918,0.093681954,0.10439667,-0.24164432,-0.15003997,2.0,-2.0,-2.0,1.239462,2.0,2.0,-2.0,-2.0,2.0,0.28228426,-1.1137798,-2.0,2.0,-2.0,-1.5007994,0.2736107,2.0,-0.38813022,-2.0,-2.0,2.0,-2.0,1.7811633,-2.0
2025-07-18 17:21:53.818,0.9800000000000005,980,49,0.18572718,-0.08047155,-0.017098678,-0.051835027,0.00264133,0.030956455,0.0,0.0,0.0,0.0061221397,0.18644957,-0.28708956,-0.22534989,-0.22023632,-0.4236908,0.122608565,0.079150274,0.04925147,0.18854313,-0.06817628,0.18493804,-0.11160678,0.00042360357,-0.314557,0.023398539,0.03948231,0.061454687,-0.057141688,-0.14583948,0.027477788,0.09977504,-0.070131876,0.1125657,-0.12956147,2.0,-2.0,-1.5007994,0.2736107,2.0,-0.38813022,-2.0,-2.0,2.0,-2.0,1.7811633,-2.0,2.0,-2.0,0.7079788,0.48510998,2.0,-2.0,-2.0,-2.0,2.0,-1.8338017,-1.7587032,-2.0
2025-07-18 17:21:53.838,1.0000000000000004,1000,50,0.29843304,0.09209738,-0.07425005,-0.024975756,0.016921774,-0.030816074,0.0,0.0,0.0,0.00690614,0.21713635,-0.39719197,-0.17371032,-0.19534494,-0.36457106,0.050475277,0.021267766,0.027858691,0.21609798,-0.11114035,0.14914215,-0.14107713,0.09616919,-0.18733802,0.073492974,0.09934515,0.14746217,-0.14767756,-0.18476345,-0.1370863,-0.016133266,-0.0383677,-0.13369521,-0.15190382,2.0,-2.0,0.7079788,0.48510998,2.0,-2.0,-2.0,-2.0,2.0,-1.8338017,-1.7587032,-2.0,2.0,-2.0,2.0,0.48710245,2.0,-2.0,-2.0,-2.0,2.0,-2.0,-0.01640367,1.5577915
2025-07-18 17:21:53.858,1.0200000000000005,1020,51,0.25789082,0.1233331,-0.12610695,0.014000202,0.0022298975,-0.039822116,0.0,0.0,0.0,0.008765382,0.23188381,-0.47440276,-0.087818585,-0.15313993,-0.3297508,-0.019097438,-0.026636092,-0.006641035,0.2325848,-0.14641912,0.11720685,-0.0880765,0.062508896,-0.21382846,0.11801064,0.056833435,0.1877274,-0.13035144,-0.11819348,-0.123659715,0.030966476,-0.15118672,0.0007533791,0.15354809,2.0,-2.0,2.0,0.48710245,2.0,-2.0,-2.0,-2.0,2.0,-2.0,-0.01640367,1.5577915,1.3862681,-2.0,2.0,-0.008419586,2.0,-2.0,-1.9909608,-1.3610682,-2.0,-2.0,1.164587,2.0
2025-07-18 17:21:53.884,1.0400000000000005,1040,52,0.19440906,-0.0056890054,0.0406637,0.004509478,0.039260104,0.045760013,0.0,0.0,0.0,0.010948536,0.23257188,-0.54362315,-0.007925926,-0.14294173,-0.27200344,-0.089332104,-0.06844804,0.0029118585,0.16301076,-0.16755156,0.15019536,-0.025192583,0.0066264956,-0.190877,0.10076941,0.06573058,0.13222484,-0.08130455,-0.13947697,-0.02453279,-0.1721003,-0.09948153,0.24151577,0.17484751,1.3862681,-2.0,2.0,-0.008419586,2.0,-2.0,-1.9909608,-1.3610682,-2.0,-2.0,1.164587,2.0,2.0,-0.08119865,2.0,0.13875411,2.0,-2.0,-2.0,2.0,-2.0,-1.5519338,0.07464076,2.0
2025-07-18 17:21:53.898,1.0600000000000005,1060,53,-0.18914403,0.13072374,-0.12889972,-0.040291186,0.014088767,0.0016955225,0.0,0.0,0.0,0.011530778,0.26081797,-0.52283156,0.036134914,-0.12926759,-0.20562343,-0.12968646,-0.10743301,0.05826769,0.08309822,-0.19875915,0.15303451,0.036293935,0.02224313,0.2029152,0.18687582,-0.0008621622,0.13028565,-0.12547801,-0.15677612,0.21258289,-0.19988064,0.030408833,-0.030795379,0.11377889,2.0,-0.08119865,2.0,0.13875411,2.0,-2.0,-2.0,2.0,-2.0,-1.5519338,0.07464076,2.0,0.97439766,-2.0,2.0,0.94361764,0.4027204,-2.0,-2.0,1.5562465,-2.0,-0.45818293,-0.44723797,2.0
2025-07-18 17:21:53.918,1.0800000000000005,1080,54,-0.26984307,0.34977445,-0.110686034,-0.08771752,0.07932235,-0.009668468,0.0,0.0,0.0,0.013097119,0.247888,-0.5377521,0.079319015,-0.08764042,-0.14218602,-0.15707445,-0.13997461,0.15409985,0.013812537,-0.17459433,0.106403336,0.09416305,-0.029440992,-0.10518849,0.15026762,0.13028303,0.17356555,-0.032927882,-0.054020453,0.3169392,-0.09241211,0.111781016,-0.07620958,0.15162987,0.97439766,-2.0,2.0,0.94361764,0.4027204,-2.0,-2.0,1.5562465,-2.0,-0.45818293,-0.44723797,2.0,0.2889038,-0.04546548,2.0,0.38836718,0.35865426,-2.0,-2.0,-1.9677775,-2.0,-1.8807751,1.8648403,2.0
2025-07-18 17:21:53.938,1.1000000000000005,1100,55,-0.18877916,-0.25923595,-0.110943764,-0.059305195,0.016367648,0.013289634,0.0,0.0,0.0,0.015784694,0.21484126,-0.53618115,0.109883554,-0.055880666,-0.07830837,-0.1945595,-0.18226278,0.17730606,-0.0417373,-0.20299,0.11512143,0.13170587,-0.0862871,0.010345527,0.0016622435,0.024189986,0.08800909,-0.010365466,-0.12115687,-0.006407574,-0.15696204,-0.023119738,0.13144428,0.07982667,0.2889038,-0.04546548,2.0,0.38836718,0.35865426,-2.0,-2.0,-1.9677775,-2.0,-1.8807751,1.8648403,2.0,1.5076993,0.21165179,2.0,-0.82122105,-1.0425353,-2.0,-0.20545654,1.3206444,-2.0,-1.1538365,1.3307188,2.0
2025-07-18 17:21:53.963,1.1200000000000006,1120,56,-0.33622515,-0.21260639,-0.11962649,-0.089560024,0.021348761,-0.005573791,0.0,0.0,0.0,0.017685475,0.23524001,-0.47742343,0.13965185,-0.06193948,-0.10587857,-0.20874298,-0.1628171,0.2274994,-0.0851241,-0.20091647,0.18304531,0.1500715,0.084071234,0.13362066,0.10935271,-0.06976804,-0.1084621,-0.045947406,0.04014454,0.19684394,-0.1490629,0.0048805005,0.14883547,0.006148515,1.5076993,0.21165179,2.0,-0.82122105,-1.0425353,-2.0,-0.20545654,1.3206444,-2.0,-1.1538365,1.3307188,2.0,-1.6979303,0.49908346,2.0,-0.50322115,-2.0,-2.0,-0.14405261,1.3480706,-2.0,1.3837531,-2.0,2.0
2025-07-18 17:21:53.978,1.1400000000000006,1140,57,-0.11116712,-0.4688813,-0.09469386,-0.004772572,-0.058873426,0.040281404,0.0,0.0,0.0,0.019669905,0.22896121,-0.4371707,0.15111291,-0.06463941,-0.1940071,-0.2319698,-0.15546283,0.2850639,-0.12925328,-0.15729488,0.19579501,0.18635662,-0.06758606,0.10969819,0.055843107,-0.031586353,-0.27192748,-0.112347215,0.043813784,0.076979525,-0.028420027,0.13092338,-0.15763986,0.043511167,-1.6979303,0.49908346,2.0,-0.50322115,-2.0,-2.0,-0.14405261,1.3480706,-2.0,1.3837531,-2.0,2.0,-2.0,2.0,1.4090724,-1.8310404,-2.0,0.0025896765,2.0,0.45484334,-2.0,2.0,-2.0,2.0
2025-07-18 17:21:53.998,1.1600000000000006,1160,58,0.07962489,-0.13019453,0.15762456,-0.008227311,9.203191e-05,-0.008917212,0.0,0.0,0.0,0.02156479,0.20552854,-0.4168827,0.14958909,-0.1144902,-0.3122324,-0.18577293,-0.11164882,0.30999407,-0.16469043,-0.08173667,0.17274134,0.2204608,-0.057319142,0.002818629,-0.007911323,-0.09636196,-0.2725441,0.07655378,0.15518364,0.005377892,-0.12075294,0.06798454,-0.009176619,0.02061432,-2.0,2.0,1.4090724,-1.8310404,-2.0,0.0025896765,2.0,0.45484334,-2.0,2.0,-2.0,2.0,-2.0,2.0,1.1011202,-2.0,-2.0,2.0,2.0,0.62838775,-2.0,2.0,-2.0,2.0
2025-07-18 17:21:54.018,1.1800000000000006,1180,59,0.075206526,-0.012294507,0.23022585,-0.01791303,-0.041245177,0.011316836,0.0,0.0,0.0,0.020013439,0.18787827,-0.39686093,0.14063276,-0.14461498,-0.40321305,-0.10112798,-0.037104577,0.31145626,-0.17945623,-0.065062314,0.1714098,0.24006636,0.020089695,-0.027569594,-0.013391629,-0.116213195,-0.20317754,0.18807286,0.13320018,-0.08864782,-0.1131336,0.0517631,0.038774025,0.05626094,-2.0,2.0,1.1011202,-2.0,-2.0,2.0,2.0,0.62838775,-2.0,2.0,-2.0,2.0,-1.2412016,2.0,0.09493803,-2.0,-2.0,2.0,2.0,1.1894557,-1.2534848,1.022588,-2.0,2.0
2025-07-18 17:21:54.038,1.2000000000000006,1200,60,0.17753738,-0.02441951,0.17641692,-0.017935485,0.008552798,0.028668111,0.0,0.0,0.0,0.0161351,0.17212923,-0.37083524,0.117895305,-0.18375665,-0.48825055,-0.03158028,0.019862838,0.32254663,-0.19650032,-0.03701895,0.17748922,0.2459591,0.015653744,0.031683873,-0.08852986,-0.03101741,-0.16429709,0.22513579,0.15629221,0.04726282,-0.028351093,0.019859483,0.018097432,0.10843251,-1.2412016,2.0,0.09493803,-2.0,-2.0,2.0,2.0,1.1894557,-1.2534848,1.022588,-2.0,2.0,-2.0,2.0,-1.1338522,-1.7033092,-2.0,2.0,2.0,-0.9057147,1.0569135,0.56954193,-2.0,2.0
2025-07-18 17:21:54.063,1.2200000000000006,1220,61,0.36993283,-0.13612813,0.18047394,-0.000673796,0.041762654,0.024127644,0.0,0.0,0.0,0.012149045,0.13155463,-0.3291853,0.0644141,-0.20466669,-0.54882884,0.02823106,0.08567597,0.29832104,-0.13227546,-0.025422446,0.18048374,0.26233885,-0.10752597,0.14821911,-0.13323179,-0.08328324,-0.2071911,0.19722094,0.09160368,-0.15505196,0.12562986,0.043736592,-0.051821887,0.082435876,-2.0,2.0,-1.1338522,-1.7033092,-2.0,2.0,2.0,-0.9057147,1.0569135,0.56954193,-2.0,2.0,-0.95267296,2.0,-2.0,-1.3802788,-1.8529654,2.0,2.0,-0.7019968,2.0,0.12517248,-2.0,1.2937381
2025-07-18 17:21:54.079,1.2400000000000007,1240,62,0.4313681,-0.13017286,0.06285744,-0.02534347,0.072372034,0.0327538,0.0,0.0,0.0,0.008091913,0.08298301,-0.2870721,-0.010411817,-0.20781206,-0.5960261,0.074729,0.12806949,0.19835506,-0.053515837,-0.02393358,0.1626026,0.26578775,-0.09225361,0.15272346,-0.18508883,-0.04463695,-0.02006328,0.15932812,0.028167615,-0.24789771,0.22139469,0.06593175,0.029287837,-0.045500327,-0.95267296,2.0,-2.0,-1.3802788,-1.8529654,2.0,2.0,-0.7019968,2.0,0.12517248,-2.0,1.2937381,-0.6902412,2.0,-2.0,-1.6928865,0.051156938,2.0,2.0,0.25695258,2.0,0.5008018,-2.0,0.8781109
2025-07-18 17:21:54.099,1.2600000000000007,1260,63,0.118252,-0.10910128,0.13294247,-0.038070753,0.11156411,0.013418753,0.0,0.0,0.0,0.005112096,0.06363344,-0.22320028,-0.07721744,-0.2243017,-0.60377157,0.09643618,0.15776488,0.15757757,0.008798222,-0.016551891,0.15939245,0.25468996,-0.07192729,0.17588826,-0.16561377,0.016592948,-0.019717654,-0.0016144997,0.12623651,-0.03150726,0.119521394,0.011447626,-0.033275496,-0.067400254,-0.6902412,2.0,-2.0,-1.6928865,0.051156938,2.0,2.0,0.25695258,2.0,0.5008018,-2.0,0.8781109,0.43453726,2.0,-2.0,-0.146986,1.6050577,2.0,0.56592935,-0.88154876,2.0,-1.0831213,-0.36895132,-2.0
2025-07-18 17:21:54.119,1.2800000000000007,1280,64,-0.17717943,0.081285074,-0.13770498,0.030891847,0.114442445,0.0145737855,0.0,0.0,0.0,0.0035156582,0.06771191,-0.14494005,-0.12175577,-0.20232831,-0.58212924,0.11900288,0.16585095,0.10920636,0.05553102,-0.041280337,0.18845537,0.17386188,0.032519914,0.30357996,-0.12070004,0.08185273,0.027418306,-0.014581315,-0.03408331,-0.20872222,0.11438434,-0.093100525,0.020829074,-0.27310568,0.43453726,2.0,-2.0,-0.146986,1.6050577,2.0,0.56592935,-0.88154876,2.0,-1.0831213,-0.36895132,-2.0,2.0,0.16302054,-2.0,-2.0,2.0,2.0,-0.4264988,0.13451414,2.0,1.9735016,2.0,-2.0
2025-07-18 17:21:54.139,1.3000000000000007,1300,65,-0.4096724,0.077588074,0.09889137,0.037734233,0.0067868875,-0.030564982,0.0,0.0,0.0,0.0042991787,0.11032765,-0.09476239,-0.15405576,-0.22274601,-0.5485825,0.16224715,0.13165475,0.08109338,0.1135485,0.006279433,0.25669813,0.080587365,0.17952013,0.01475354,-0.1439546,-0.051149637,0.09998022,0.12870093,-0.039066892,0.051148396,0.14776884,0.15019096,0.22724025,-0.23768309,2.0,0.16302054,-2.0,-2.0,2.0,2.0,-0.4264988,0.13451414,2.0,1.9735016,2.0,-2.0,2.0,-0.9518545,-2.0,0.41921157,2.0,2.0,-2.0,-2.0,2.0,2.0,-0.13838506,-2.0
2025-07-18 17:21:54.159,1.3200000000000007,1320,66,-0.34071964,0.18306606,0.13948746,-0.015311115,0.038885165,0.049088035,0.0,0.0,0.0,0.0032359948,0.15284139,-0.114627905,-0.18137619,-0.2086095,-0.50779456,0.16734442,0.0784656,0.05689348,0.14446262,0.061116144,0.27169004,0.011792363,0.046121273,-0.0724303,-0.0682869,0.040606115,0.09452404,0.01910159,-0.088205636,-0.14473824,0.06734865,0.17872882,-0.075269215,-0.14993057,2.0,-0.9518545,-2.0,0.41921157,2.0,2.0,-2.0,-2.0,2.0,2.0,-0.13838506,-2.0,2.0,-2.0,-2.0,2.0,2.0,1.9287133,-2.0,-1.9971619,2.0,-0.9040438,-0.61717284,-2.0
2025-07-18 17:21:54.179,1.3400000000000007,1340,67,-0.009131109,0.03552141,0.1248165,-0.033758614,0.050360113,0.017676631,0.0,0.0,0.0,0.00035086458,0.17073026,-0.20772386,-0.19362143,-0.18020023,-0.4632732,0.18104851,0.048851125,0.015771965,0.16627342,0.051763475,0.19995593,-0.032719757,0.12866697,-0.34986943,-0.09727282,0.081765,0.024816195,0.081784815,0.009622449,-0.031042613,0.018542778,-0.07970218,-0.17521203,-0.17589164,2.0,-2.0,-2.0,2.0,2.0,1.9287133,-2.0,-1.9971619,2.0,-0.9040438,-0.61717284,-2.0,2.0,-2.0,-0.12903756,2.0,2.0,-2.0,-2.0,-2.0,2.0,-2.0,-0.36008453,-2.0
2025-07-18 17:21:54.204,1.3600000000000008,1360,68,0.22002272,-0.13853073,-0.02665435,0.028624933,0.011808899,-0.008045341,0.0,0.0,0.0,-0.0014761986,0.2117586,-0.33008033,-0.17756982,-0.17011546,-0.39715746,0.099847004,0.033056185,0.0038020448,0.20588087,-0.026500799,0.13662201,-0.09656796,0.022971166,-0.18711965,0.058250476,0.07236892,0.20617454,-0.28593776,-0.070183896,-0.020131918,0.043992795,-0.18455252,-0.2025546,-0.0748258,2.0,-2.0,-0.12903756,2.0,2.0,-2.0,-2.0,-2.0,2.0,-2.0,-0.36008453,-2.0,2.0,-2.0,2.0,2.0,2.0,-2.0,-2.0,-2.0,2.0,-2.0,0.28454304,1.5027552
2025-07-18 17:21:54.219,1.3800000000000008,1380,69,0.21711665,-0.12839116,0.0059295213,0.00060311524,0.026348324,0.018714545,0.0,0.0,0.0,-0.0020927936,0.23198165,-0.41923767,-0.08667474,-0.14435318,-0.3283997,0.025286505,-0.0073905005,-0.0043538376,0.22061975,-0.08141997,0.11333474,-0.04683227,0.034314387,-0.14952753,0.14056565,0.090892844,0.14753567,-0.22389768,-0.0887973,-0.033305377,0.065646455,-0.19164859,3.7200287e-05,0.19737022,2.0,-2.0,2.0,2.0,2.0,-2.0,-2.0,-2.0,2.0,-2.0,0.28454304,1.5027552,1.7094526,-2.0,2.0,1.8092996,2.0,-2.0,-2.0,-1.1482462,-2.0,-2.0,1.285708,2.0
2025-07-18 17:21:54.239,1.4000000000000008,1400,70,0.116175026,-0.03829019,0.05375242,0.04503323,0.062559955,0.037541497,0.0,0.0,0.0,-0.0020532922,0.24332763,-0.49296114,-0.019280674,-0.12210928,-0.27240008,-0.05402715,-0.04982527,0.011353501,0.15433805,-0.11065428,0.16486496,0.010655771,0.019032173,-0.23580772,0.2091896,0.06281801,0.17967625,-0.1659375,-0.1699224,-0.030964859,-0.14892158,-0.09951295,0.126708,0.09249312,1.7094526,-2.0,2.0,1.8092996,2.0,-2.0,-2.0,-1.1482462,-2.0,-2.0,1.285708,2.0,2.0,-1.6510247,2.0,0.7431294,2.0,-2.0,-2.0,2.0,-2.0,-2.0,0.8699899,2.0
2025-07-18 17:21:54.259,1.4200000000000008,1420,71,-0.1865808,-0.00884558,-0.13547447,-0.015798224,0.038746867,-0.04509252,0.0,0.0,0.0,-0.0021192261,0.25173208,-0.5256289,0.033748146,-0.07599667,-0.19601241,-0.09573755,-0.08350597,0.07680169,0.061796904,-0.16566582,0.20200725,0.07138005,0.0924816,-0.0106537845,0.14482038,0.033114247,0.27047127,-0.13331473,-0.176696,0.21100447,-0.16410053,-0.056914892,0.062807895,0.15543032,2.0,-1.6510247,2.0,0.7431294,2.0,-2.0,-2.0,2.0,-2.0,-2.0,0.8699899,2.0,0.7963164,-2.0,2.0,-0.14187552,-0.10834497,-2.0,-2.0,0.28243893,-2.0,-0.23570348,-1.2506046,2.0
2025-07-18 17:21:54.279,1.4400000000000008,1440,72,0.25020528,0.104115434,-0.15064052,0.022236947,0.054854367,0.020753086,0.0,0.0,0.0,-0.0008988483,0.2329053,-0.5794331,0.09026564,-0.07742356,-0.149566,-0.14781983,-0.1210771,0.118560724,0.0038586452,-0.15160389,0.1799409,0.116292045,-0.05387099,-0.17478852,0.10266216,0.024587773,0.04665765,-0.091945596,-0.13014181,-0.026393315,-0.19195168,0.12369004,-0.1576028,0.051849227,0.7963164,-2.0,2.0,-0.14187552,-0.10834497,-2.0,-2.0,0.28243893,-2.0,-0.23570348,-1.2506046,2.0,0.6946517,1.1975948,2.0,-0.47233152,2.0,-2.0,-2.0,0.66198826,-2.0,-1.9563789,2.0,2.0
2025-07-18 17:21:54.303,1.4600000000000009,1460,73,-0.14216056,-0.18695708,-0.020855704,0.060760397,0.022415483,0.047952123,0.0,0.0,0.0,0.0005957563,0.22067808,-0.5727516,0.12275459,-0.08003647,-0.09643821,-0.17504732,-0.16815305,0.14910157,-0.059129912,-0.16170663,0.16842753,0.1503302,-0.06571934,0.09101514,0.14401244,0.06418778,0.1122047,-0.03444234,-0.015264556,0.104581945,-0.15588331,-0.14189363,0.18901408,0.028945921,0.6946517,1.1975948,2.0,-0.47233152,2.0,-2.0,-2.0,0.66198826,-2.0,-1.9563789,2.0,2.0,1.4027994,-0.03666432,2.0,0.47551352,-2.0,-2.0,-2.0,2.0,-2.0,-0.25050092,-2.0,2.0
2025-07-18 17:21:54.319,1.4800000000000009,1480,74,-0.40131024,0.34096238,-0.20143771,0.0069908346,-0.008699208,-0.014596438,0.0,0.0,0.0,0.0026176677,0.23228791,-0.47612542,0.15929611,-0.053855136,-0.077408955,-0.20143995,-0.19772781,0.22141062,-0.09817604,-0.1642925,0.14689277,0.18211739,-0.039413936,0.18999697,0.14856672,0.08699902,0.0024427057,-0.11842346,-0.033886097,0.29905275,-0.16421424,0.07570054,-0.19603279,0.02038936,1.4027994,-0.03666432,2.0,0.47551352,-2.0,-2.0,-2.0,2.0,-2.0,-0.25050092,-2.0,2.0,-1.737073,-1.8309305,2.0,-0.38503325,-2.0,-2.0,-0.37652913,-1.0254326,-2.0,-1.4719635,0.31129527,2.0
2025-07-18 17:21:54.339,1.5000000000000009,1500,75,0.07820601,-0.10139964,0.05360243,-0.034614943,0.052860897,-0.042665996,0.0,0.0,0.0,0.005941934,0.19862625,-0.44007805,0.17160311,-0.054096248,-0.095372036,-0.21876182,-0.18622833,0.24731153,-0.12812468,-0.17179409,0.14773595,0.19355814,-0.039546583,-0.013313818,0.01999115,-0.08144157,-0.12828146,-0.08674499,0.05972834,0.05958355,-0.016690347,-0.007363278,-0.0009667775,0.04558851,-1.737073,-1.8309305,2.0,-0.38503325,-2.0,-2.0,-0.37652913,-1.0254326,-2.0,-1.4719635,0.31129527,2.0,-0.10736576,2.0,1.5441011,-2.0,-2.0,-2.0,1.4939685,-0.10439415,-2.0,1.351643,-1.7846655,2.0
2025-07-18 17:21:54.360,1.520000000000001,1520,76,0.1866739,-0.0032852876,0.06380623,-0.016013293,0.037184097,-0.039528172,0.0,0.0,0.0,0.0070774294,0.17939462,-0.43151897,0.16815348,-0.11213343,-0.19313133,-0.24762173,-0.118341476,0.22736116,-0.1612307,-0.16539663,0.13230368,0.21580052,-0.017644394,-0.032508954,-0.08595143,-0.12697883,-0.34976017,-0.004178832,0.12395304,-0.15438446,-0.043699488,0.012972361,-0.0871661,0.07602921,-0.10736576,2.0,1.5441011,-2.0,-2.0,-2.0,1.4939685,-0.10439415,-2.0,1.351643,-1.7846655,2.0,-2.0,2.0,1.037316,-2.0,-2.0,2.0,2.0,1.6381024,-2.0,2.0,-2.0,2.0
2025-07-18 17:21:54.379,1.540000000000001,1540,77,-0.05676077,-0.027651055,0.0677376,-0.026145846,0.06465545,-0.0043811174,0.0,0.0,0.0,0.0049322774,0.1782177,-0.4258003,0.17164391,-0.14020257,-0.29435492,-0.15695874,-0.053886507,0.24202481,-0.19206573,-0.15530196,0.10635263,0.24832322,0.023206158,-0.005625666,-0.07631375,-0.1615954,-0.25548354,0.2663527,0.14502521,0.09820799,-0.091630034,-0.0030171804,-0.036139887,0.09853043,-2.0,2.0,1.037316,-2.0,-2.0,2.0,2.0,1.6381024,-2.0,2.0,-2.0,2.0,-2.0,2.0,0.35858333,-2.0,-2.0,2.0,2.0,0.2560899,-1.7859033,1.9896554,-2.0,2.0
2025-07-18 17:21:54.400,1.560000000000001,1560,78,-0.0075960425,-0.020421647,0.057836127,-0.018065786,0.05558868,-0.020774761,0.0,0.0,0.0,0.0031649878,0.1665933,-0.41511598,0.13894054,-0.18703,-0.38945374,-0.07354523,0.020529667,0.22694851,-0.20008968,-0.13393389,0.106132776,0.25017127,-0.02536061,-0.04895247,-0.09679913,-0.15088132,-0.25975785,0.22523943,0.21561523,-0.13165797,-0.09051729,0.027309904,-0.03799787,0.020061115,-2.0,2.0,0.35858333,-2.0,-2.0,2.0,2.0,0.2560899,-1.7859033,1.9896554,-2.0,2.0,-2.0,2.0,-1.5257262,-2.0,-2.0,2.0,2.0,1.423197,0.38249817,2.0,-2.0,2.0
2025-07-18 17:21:54.420,1.580000000000001,1580,79,-0.02025184,0.088590205,0.07081147,-0.021492703,0.0059250277,-0.039231654,0.0,0.0,0.0,0.0012386626,0.1392628,-0.3841249,0.06717547,-0.19780494,-0.46633756,-0.021360911,0.078652814,0.26595643,-0.159029,-0.11968342,0.08289089,0.26748842,-0.10720225,0.09770165,-0.1783523,-0.10955686,-0.13187973,0.121822216,0.074742675,0.11952476,0.05332135,0.05593494,-0.09811261,0.05443689,-2.0,2.0,-1.5257262,-2.0,-2.0,2.0,2.0,1.423197,0.38249817,2.0,-2.0,2.0,-2.0,2.0,-2.0,-0.525801,-2.0,2.0,2.0,-2.0,2.0,0.43149167,-2.0,0.6035714
2025-07-18 17:21:54.440,1.600000000000001,1600,80,0.09960241,0.066078365,0.047764473,0.01614837,0.03658,-0.02354078,0.0,0.0,0.0,-0.0008473183,0.11583752,-0.32943502,-0.016543303,-0.1967184,-0.5399573,0.036916893,0.12290521,0.2420661,-0.079194285,-0.09154721,0.08583476,0.24506743,-0.100720055,0.13617359,-0.13442345,0.049678374,-0.08670231,0.07133815,0.12619345,-0.19844635,0.11771448,0.122659676,-0.10380256,-0.09802984,-2.0,2.0,-2.0,-0.525801,-2.0,2.0,2.0,-2.0,2.0,0.43149167,-2.0,0.6035714,-0.17095092,2.0,-2.0,-1.360381,1.0510845,2.0,2.0,-2.0,2.0,-0.54308,-0.51752996,-2.0
2025-07-18 17:21:54.460,1.620000000000001,1620,81,0.022511126,0.09034855,0.0411187,-0.01410898,0.00482735,0.0042805974,0.0,0.0,0.0,-0.0026738073,0.10521886,-0.26932785,-0.062757224,-0.2029306,-0.566706,0.075465746,0.16399568,0.14555936,-0.0073603173,-0.10808069,0.07249877,0.16373612,-0.08745519,0.1715515,-0.14658578,-0.07071636,-0.017341213,0.04568938,0.016400505,-0.28840783,0.15791403,-0.018874696,0.05783146,-0.25495747,-0.17095092,2.0,-2.0,-1.360381,1.0510845,2.0,2.0,-2.0,2.0,-0.54308,-0.51752996,-2.0,0.9308603,2.0,-2.0,-2.0,2.0,2.0,-0.40698966,2.0,2.0,1.665558,2.0,-2.0
2025-07-18 17:21:54.480,1.640000000000001,1640,82,-0.47913355,0.0516105,0.07799476,-0.03234237,-0.0008782765,-0.028208882,0.0,0.0,0.0,-0.0037147775,0.10330437,-0.17897975,-0.11206587,-0.21422462,-0.5241742,0.121025614,0.12888686,0.115910746,0.036973417,-0.05413005,0.1400087,0.06955629,0.005082243,0.3002659,-0.06504186,-0.09347748,0.18443494,0.10484452,-0.094481155,0.05705359,0.130359,0.116449445,0.26900536,-0.25928852,0.9308603,2.0,-2.0,-2.0,2.0,2.0,-0.40698966,2.0,2.0,1.665558,2.0,-2.0,2.0,-1.0179374,-2.0,0.15960525,2.0,2.0,-1.4414332,-2.0,2.0,2.0,1.6340209,-2.0
2025-07-18 17:21:54.500,1.660000000000001,1660,83,-0.37353364,0.0743478,0.1552336,-0.00464223,0.031401493,0.017680738,0.0,0.0,0.0,-0.005316353,0.1422339,-0.13831598,-0.15136392,-0.20672512,-0.46200764,0.14904098,0.086583324,0.11882882,0.088156514,0.0049376036,0.22400774,0.0009522461,0.13328955,-0.12073293,-0.13893583,0.0383489,0.094498865,0.023104627,-0.10353384,-0.12346982,0.11762023,0.18077272,0.18025628,-0.10038623,2.0,-1.0179374,-2.0,0.15960525,2.0,2.0,-1.4414332,-2.0,2.0,2.0,1.6340209,-2.0,2.0,-1.9855411,-2.0,1.5042611,2.0,2.0,-2.0,-2.0,2.0,0.98810613,-1.4391575,-2.0
2025-07-18 17:21:54.520,1.680000000000001,1680,84,-0.06724194,0.064266235,0.1674411,-0.005368257,-0.05995738,0.027042167,0.0,0.0,0.0,-0.008908632,0.17840518,-0.20852797,-0.18127297,-0.18504137,-0.42371467,0.15703966,0.08537249,0.08936323,0.12741885,0.035094652,0.2372352,-0.03857098,0.04164956,-0.29766634,-0.044675406,0.018411614,0.129155,0.07543107,-0.0046181283,-0.03160059,0.030627793,0.10101333,-0.13727044,-0.17855284,2.0,-1.9855411,-2.0,1.5042611,2.0,2.0,-2.0,-2.0,2.0,0.98810613,-1.4391575,-2.0,2.0,-2.0,-0.40328068,2.0,2.0,-2.0,-2.0,-2.0,2.0,-2.0,-1.8589553,-2.0
2025-07-18 17:21:54.541,1.700000000000001,1700,85,0.23039253,-0.14862618,0.030415667,0.004074767,-0.017380405,-0.021340355,0.0,0.0,0.0,-0.012147573,0.20829564,-0.3210608,-0.15042987,-0.16236018,-0.379672,0.08256369,0.07024873,0.06574762,0.15339847,-0.004586835,0.15069492,-0.0808455,-0.0097392835,-0.28398615,0.057271753,0.05552786,0.106085576,-0.15690133,-0.13962561,-0.055405304,0.022059502,-0.18388432,-0.35457942,-0.08432985,2.0,-2.0,-0.40328068,2.0,2.0,-2.0,-2.0,-2.0,2.0,-2.0,-1.8589553,-2.0,2.0,-2.0,2.0,2.0,2.0,-2.0,-2.0,-2.0,2.0,-2.0,1.9136033,1.339684
2025-07-18 17:21:54.561,1.720000000000001,1720,86,0.17940761,-0.21604307,-0.011418693,-0.0010920649,-0.010228688,0.048489157,0.0,0.0,0.0,-0.013239729,0.23872633,-0.41904593,-0.08728388,-0.15359257,-0.3120192,-0.00020815051,0.041916154,0.044303916,0.18754765,-0.062073663,0.07916503,-0.042503737,0.059789672,-0.15324545,0.24947622,0.031949572,0.10508353,-0.23796186,-0.0066531524,0.013560338,0.059098445,-0.1401194,-0.03688747,0.09966833,2.0,-2.0,2.0,2.0,2.0,-2.0,-2.0,-2.0,2.0,-2.0,1.9136033,1.339684,2.0,-2.0,2.0,1.9495177,2.0,-2.0,-2.0,-1.609754,-2.0,-2.0,2.0,2.0
2025-07-18 17:21:54.580,1.740000000000001,1740,87,0.14478397,-0.12999502,0.05088362,-0.04257435,-0.00092648005,0.042442072,0.0,0.0,0.0,-0.0135252895,0.24366544,-0.49285933,-0.015523017,-0.12215525,-0.24924386,-0.06601647,0.005626706,0.042294223,0.13474996,-0.10449831,0.12973247,0.020477504,0.08079197,-0.22933534,0.1071326,0.058676545,0.19026315,-0.1702661,-0.152611,-0.033565942,-0.20400877,-0.16357102,0.22978663,0.09660301,2.0,-2.0,2.0,1.9495177,2.0,-2.0,-2.0,-1.609754,-2.0,-2.0,2.0,2.0,2.0,-1.1541495,2.0,0.4502039,2.0,-2.0,-2.0,2.0,-2.0,-2.0,0.5521624,2.0
2025-07-18 17:21:54.600,1.7600000000000011,1760,88,-0.13912565,-0.11489317,-0.0898909,0.029694302,0.0825472,-0.016702095,0.0,0.0,0.0,-0.014377725,0.2564175,-0.5047223,0.04860543,-0.09963103,-0.16186923,-0.112322174,-0.050830428,0.09124745,0.04080735,-0.15401265,0.15758851,0.06042776,0.02440299,0.07480778,0.06904114,0.06266986,0.2125041,-0.14561948,-0.06176014,0.16895415,-0.16273221,-0.1584347,0.086006425,0.18956369,2.0,-1.1541495,2.0,0.4502039,2.0,-2.0,-2.0,2.0,-2.0,-2.0,0.5521624,2.0,0.8311055,-2.0,2.0,0.24011846,-0.780821,-2.0,-2.0,1.1837844,-2.0,-0.005696904,-1.1300247,2.0
2025-07-18 17:21:54.621,1.7800000000000011,1780,89,0.05953646,0.10346266,-0.19192073,0.040789906,0.055791944,0.036486357,0.0,0.0,0.0,-0.013401595,0.25474516,-0.5497743,0.09385911,-0.08714871,-0.13559689,-0.14311601,-0.090857275,0.16170178,-0.010641511,-0.14428385,0.11907765,0.11778941,0.012756412,-0.17798685,0.043775342,0.048749033,0.04287241,-0.13082148,-0.06705312,0.13565402,-0.16581751,0.08004067,-0.28489563,0.10605284,0.8311055,-2.0,2.0,0.24011846,-0.780821,-2.0,-2.0,1.1837844,-2.0,-0.005696904,-1.1300247,2.0,0.9414743,1.0318708,2.0,-0.51514465,2.0,-2.0,-2.0,-0.81726915,-2.0,-2.0,2.0,2.0
2025-07-18 17:21:54.643,1.8000000000000012,1800,90,-0.056849234,-0.13319547,-0.09457689,0.030575875,0.008244482,-0.010953062,0.0,0.0,0.0,-0.011131831,0.24176723,-0.53061324,0.12598415,-0.081941515,-0.12022487,-0.18936044,-0.12679274,0.19616316,-0.06643724,-0.15219331,0.08646155,0.13342598,0.027154969,0.16502568,0.05684949,-0.0916241,0.13139093,-0.16165142,-0.06916417,0.0013939969,-0.13053474,-0.12398123,0.09449763,0.031465523,0.9414743,1.0318708,2.0,-0.51514465,2.0,-2.0,-2.0,-0.81726915,-2.0,-2.0,2.0,2.0,2.0,-2.0,2.0,0.6291126,-1.8054285,-2.0,-1.9171053,2.0,-2.0,-0.78823507,0.31115484,2.0
2025-07-18 17:21:54.661,1.8200000000000012,1820,91,-0.09276633,0.31822616,-0.21164754,0.0077691437,0.0027226424,-0.048884943,0.0,0.0,0.0,-0.0083974805,0.2557728,-0.5425213,0.15206222,-0.06702218,-0.13501793,-0.20970634,-0.15580733,0.22360788,-0.11573663,-0.17182867,0.09500214,0.167672,0.0956203,-0.1563912,0.07128892,0.08359758,-0.09537905,-0.10238223,-0.06943053,0.19180323,-0.10194444,-0.059600323,-0.00083005655,0.061292373,2.0,-2.0,2.0,0.6291126,-1.8054285,-2.0,-1.9171053,2.0,-2.0,-0.78823507,0.31115484,2.0,-0.65505695,2.0,2.0,-1.498185,0.947127,-2.0,-1.7306808,-1.6330789,-2.0,-1.5475115,0.97802305,2.0
2025-07-18 17:21:54.681,1.8400000000000012,1840,92,0.09913264,-0.25380564,-0.037395727,-0.013526775,0.06385207,0.014777006,0.0,0.0,0.0,-0.005744428,0.20662591,-0.53781694,0.17561378,-0.08381148,-0.12883654,-0.22996461,-0.17601566,0.22914384,-0.14786953,-0.17865351,0.13538115,0.19548608,-0.19726312,0.05091137,0.020818867,-0.05150008,0.06399567,-0.03261922,-0.11422941,0.032210633,-0.083896704,-0.0691557,0.18981533,0.066644385,-0.65505695,2.0,2.0,-1.498185,0.947127,-2.0,-1.7306808,-1.6330789,-2.0,-1.5475115,0.97802305,2.0,1.4699848,1.5737021,2.0,-0.7100211,-2.0,-2.0,0.6044829,1.351288,-2.0,0.08825557,-2.0,2.0
2025-07-18 17:21:54.701,1.8600000000000012,1860,93,-0.23037364,0.19701423,-0.16468768,0.02640461,0.05122939,0.042712435,0.0,0.0,0.0,-0.0041767894,0.22613372,-0.5083244,0.19911571,-0.08632749,-0.12997073,-0.23480979,-0.15604593,0.28606442,-0.1736155,-0.15698436,0.14554529,0.21108992,0.02293683,0.016955795,0.089728706,-0.05632887,-0.07652965,-0.04073162,0.049866244,0.20530196,-0.05173,-0.0023006,0.06086366,0.12782009,1.4699848,1.5737021,2.0,-0.7100211,-2.0,-2.0,0.6044829,1.351288,-2.0,0.08825557,-2.0,2.0,-2.0,2.0,2.0,-2.0,-2.0,-1.5388851,2.0,0.09340231,-2.0,1.0349246,-2.0,2.0
2025-07-18 17:21:54.721,1.8800000000000012,1880,94,-0.009487649,0.019318119,-0.08005485,-0.053788465,-0.021608176,0.03866756,0.0,0.0,0.0,-0.002098659,0.23530884,-0.50509965,0.1893243,-0.13532212,-0.23402737,-0.25136003,-0.078754045,0.25902143,-0.19255304,-0.14896101,0.12816729,0.22319752,-0.020499922,0.08261018,-0.05144983,-0.057972774,-0.35835847,-0.004681921,0.1943539,-0.11119164,-0.059520632,0.059607923,-0.017033326,0.060404293,-2.0,2.0,2.0,-2.0,-2.0,-1.5388851,2.0,0.09340231,-2.0,1.0349246,-2.0,2.0,-2.0,2.0,0.7387047,-2.0,-2.0,2.0,2.0,0.96078503,-2.0,2.0,-2.0,2.0
2025-07-18 17:21:54.744,1.9000000000000012,1900,95,-0.1329014,0.05499162,-0.04924392,0.024537615,0.018323392,-0.024998667,0.0,0.0,0.0,-5.5790435e-05,0.23880938,-0.46179917,0.17405485,-0.16437398,-0.3362742,-0.16229126,-0.0039003217,0.27104953,-0.22143617,-0.13281018,0.13157439,0.2564991,0.06252346,0.103671566,-0.055437118,-0.10401689,-0.27874947,0.18225864,0.18343532,0.06752613,-0.06622331,0.07860323,0.038826276,-0.010298213,-2.0,2.0,0.7387047,-2.0,-2.0,2.0,2.0,0.96078503,-2.0,2.0,-2.0,2.0,-2.0,2.0,-1.0871557,-2.0,-2.0,2.0,2.0,-0.39452368,-0.6775535,2.0,-2.0,2.0
2025-07-18 17:21:54.761,1.9200000000000013,1920,96,0.090554275,0.06700704,0.016114606,-0.011280606,0.033586536,-0.011745481,0.0,0.0,0.0,0.0013095255,0.23055722,-0.41461954,0.10011683,-0.1999019,-0.4261915,-0.08563094,0.05834432,0.2288796,-0.20876141,-0.12504537,0.11641391,0.25510636,-0.09131238,0.11457851,-0.20736924,-0.026887568,-0.2039867,0.21746597,0.06210771,-0.23060212,0.11970709,0.06615835,0.013653368,0.025164116,-2.0,2.0,-1.0871557,-2.0,-2.0,2.0,2.0,-0.39452368,-0.6775535,2.0,-2.0,2.0,-2.0,2.0,-2.0,-2.0,-2.0,2.0,2.0,1.7592981,2.0,2.0,-2.0,2.0
2025-07-18 17:21:54.781,1.9400000000000013,1940,97,0.064489044,0.1110576,0.060444824,-0.056795258,0.007396095,0.018206289,0.0,0.0,0.0,0.0014232214,0.22022507,-0.35061237,0.029265866,-0.22260581,-0.4975908,-0.0068641836,0.09720677,0.22157156,-0.113390766,-0.10662188,0.09252522,0.28179637,-0.104391724,0.11201331,-0.2513399,-0.09946243,-0.16146673,0.14878313,0.13628417,0.16368598,0.2203116,0.089556955,0.03664151,-0.045351174,-2.0,2.0,-2.0,-2.0,-2.0,2.0,2.0,1.7592981,2.0,2.0,-2.0,2.0,-1.9357297,2.0,-2.0,-0.7351264,-2.0,2.0,2.0,-2.0,2.0,0.024979401,-2.0,-0.7720393
2025-07-18 17:21:54.801,1.9600000000000013,1960,98,0.23364738,-0.069847584,-0.0113366,-0.024514504,-0.0071464293,0.041560784,0.0,0.0,0.0,0.0009913647,0.19510762,-0.28515592,-0.03929747,-0.21202397,-0.56693757,0.048875317,0.14386366,0.18416612,-0.04568966,-0.09298415,0.10825757,0.21922147,-0.0378476,0.074094646,-0.14482825,0.103728585,-0.18438014,0.07033248,0.14897333,-0.19180745,0.23037721,0.035517454,0.0011591659,-0.093954794,-1.9357297,2.0,-2.0,-0.7351264,-2.0,2.0,2.0,-2.0,2.0,0.024979401,-2.0,-0.7720393,-0.2695484,2.0,-2.0,-2.0,2.0,2.0,2.0,-1.9128891,2.0,0.4372586,-1.3842647,-2.0
2025-07-18 17:21:54.821,1.9800000000000013,1980,99,0.10186336,-0.07211161,0.043249615,-0.052568667,-0.013152563,0.008382408,0.0,0.0,0.0,0.0009600122,0.16340667,-0.23421264,-0.09617821,-0.23440103,-0.5647501,0.092660815,0.17682585,0.07994868,0.017863398,-0.08074054,0.11104913,0.12893693,-0.011005259,0.16848426,-0.14767113,-0.104166195,0.09782856,0.11840334,0.05673516,-0.3165407,0.18947963,0.031124026,0.0859613,-0.23376127,-0.2695484,2.0,-2.0,-2.0,2.0,2.0,2.0,-1.9128891,2.0,0.4372586,-1.3842647,-2.0,0.5871775,2.0,-2.0,-1.7080975,2.0,2.0,-0.072478816,2.0,2.0,2.0,1.7026479,-2.0
2025-07-18 17:21:54.841,2.0000000000000013,2000,100,-0.22473241,-0.19132057,0.10636074,-0.076817214,0.038822148,0.002955346,0.0,0.0,0.0,0.00019254006,0.16683911,-0.17022596,-0.13790242,-0.24897145,-0.5430149,0.1098369,0.1660501,0.034981456,0.06098297,-0.026248433,0.16908108,0.04948771,-0.04347775,0.29389763,-0.12024593,-0.09067973,0.120465174,0.0920402,-0.065165386,0.056766655,0.1412128,0.16881207,0.22352755,-0.114118926,0.5871775,2.0,-2.0,-1.7080975,2.0,2.0,-0.072478816,2.0,2.0,2.0,1.7026479,-2.0,2.0,-0.2956782,-2.0,-0.15049966,2.0,2.0,-0.65541947,-1.7650107,2.0,2.0,1.8168035,-2.0
2025-07-18 17:21:54.861,2.0200000000000014,2020,101,-0.15710077,-0.072784655,0.17577635,-0.07276637,-0.013795479,0.030292027,0.0,0.0,0.0,-0.0012879904,0.19421902,-0.13633399,-0.1643558,-0.22962078,-0.49059516,0.14792104,0.17406832,0.04785822,0.11330092,0.027509391,0.2839571,-0.005577106,0.08281173,0.07367193,-0.049549583,-0.004393942,0.14383204,0.018299822,0.042246066,0.053927742,0.06829333,0.1634151,0.21586429,-0.15472995,2.0,-0.2956782,-2.0,-0.15049966,2.0,2.0,-0.65541947,-1.7650107,2.0,2.0,1.8168035,-2.0,2.0,-2.0,-2.0,1.8755615,2.0,2.0,-2.0,-2.0,2.0,1.8160355,-2.0,-2.0
2025-07-18 17:21:54.882,2.0400000000000014,2040,102,-0.024038889,0.108014874,0.20851706,-0.027163923,-0.003467022,0.002913702,0.0,0.0,0.0,-0.003992871,0.21880753,-0.18354219,-0.19283366,-0.23308496,-0.45960462,0.15937479,0.16148935,0.034774464,0.14555773,0.069474444,0.29645568,-0.069312155,0.072488405,-0.22434737,-0.024121292,0.043309327,0.064657174,-0.026929136,0.043935735,-0.0029581944,0.11281829,0.09869335,-0.108749785,-0.12650363,2.0,-2.0,-2.0,1.8755615,2.0,2.0,-2.0,-2.0,2.0,1.8160355,-2.0,-2.0,2.0,-2.0,-0.9653138,2.0,2.0,-2.0,-2.0,-2.0,2.0,-2.0,-2.0,-2.0
2025-07-18 17:21:54.902,2.0600000000000014,2060,103,0.23421408,-0.06906932,0.083324976,-0.06934368,-0.012552472,-0.0254814,0.0,0.0,0.0,-0.0070918766,0.23521581,-0.29810673,-0.19675174,-0.21933389,-0.39655817,0.080390885,0.129485,-0.00686188,0.16919883,0.037565034,0.19024287,-0.09676079,-0.021884602,-0.31661534,0.05618467,0.00078130135,0.14922208,-0.26270658,-0.06249906,-0.10222769,0.058376808,-0.18165158,-0.34558743,-0.13653049,2.0,-2.0,-0.9653138,2.0,2.0,-2.0,-2.0,-2.0,2.0,-2.0,-2.0,-2.0,2.0,-2.0,2.0,2.0,2.0,-2.0,-2.0,-2.0,2.0,-2.0,0.21929073,0.55567384
2025-07-18 17:21:54.921,2.0800000000000014,2080,104,0.20098159,-0.13215682,0.11003458,-0.0656496,-0.017574951,0.04779789,0.0,0.0,0.0,-0.008770338,0.26099607,-0.39027515,-0.10338682,-0.18778631,-0.33162478,0.010344306,0.0873771,-0.028082361,0.21103784,-0.017245093,0.12976073,-0.08236401,0.11485963,-0.26557153,0.21005695,0.055851713,0.15904781,-0.19107328,-0.16683257,0.017832171,0.019180872,-0.11812404,-0.07300386,0.018010542,2.0,-2.0,2.0,2.0,2.0,-2.0,-2.0,-2.0,2.0,-2.0,0.21929073,0.55567384,2.0,-2.0,2.0,2.0,2.0,-2.0,-2.0,-1.5184625,-0.62184316,-2.0,1.4514823,2.0
2025-07-18 17:21:54.942,2.1000000000000014,2100,105,0.14560188,-0.08817224,0.15691838,-0.02722525,0.013446092,-0.024277315,0.0,0.0,0.0,-0.009916374,0.2738286,-0.47276765,-0.028228523,-0.16725394,-0.24849956,-0.064631894,0.052728094,-0.031195914,0.16624838,-0.08293025,0.16998066,-0.004369552,0.043464217,-0.15424319,0.18842098,0.05693462,0.19591954,-0.14815788,-0.044927415,-0.010205886,-0.14003728,-0.17515825,0.17879972,0.15716662,2.0,-2.0,2.0,2.0,2.0,-2.0,-2.0,-1.5184625,-0.62184316,-2.0,1.4514823,2.0,1.6808314,-2.0,2.0,1.6707903,2.0,-2.0,-2.0,2.0,-2.0,-2.0,-0.5346415,2.0
2025-07-18 17:21:54.962,2.1200000000000014,2120,106,-0.13704368,0.03130199,-0.052953415,-0.046327222,0.01859653,0.016354064,0.0,0.0,0.0,-0.0118361795,0.2785771,-0.53638273,0.026416369,-0.12963842,-0.18000986,-0.101820685,-0.00752211,0.032248423,0.079696655,-0.1242147,0.18803662,0.0406222,0.057085287,-0.17348203,0.19613017,0.1314434,0.26165393,-0.16855225,-0.1605655,0.18390472,-0.23166855,-0.12055855,-0.046333723,0.16630751,1.6808314,-2.0,2.0,1.6707903,2.0,-2.0,-2.0,2.0,-2.0,-2.0,-0.5346415,2.0,0.66205823,-1.7137697,2.0,0.4149409,1.7958841,-2.0,-2.0,0.21352051,-2.0,-1.1643454,0.92361116,2.0
2025-07-18 17:21:54.982,2.1400000000000015,2140,107,-0.0028989678,-0.1296805,0.01822452,0.017389946,0.059462026,0.02096993,0.0,0.0,0.0,-0.012142526,0.24003495,-0.5756999,0.0737534,-0.114850454,-0.09971793,-0.14835437,-0.047778837,0.077400856,0.019061083,-0.13253634,0.20508,0.098162755,-0.1281015,-0.114351384,0.10806563,0.036531202,0.15847358,-0.14284435,-0.0989294,0.13801678,-0.1918602,-0.0023386534,0.14429383,0.1722084,0.66205823,-1.7137697,2.0,0.4149409,1.7958841,-2.0,-2.0,0.21352051,-2.0,-1.1643454,0.92361116,2.0,1.4575953,0.48423618,2.0,0.6692337,-0.37599665,-2.0,-2.0,1.795001,-2.0,-1.4058063,-0.90942717,2.0
2025-07-18 17:21:55.002,2.1600000000000015,2160,108,-0.13975316,0.1541744,-0.29986617,-0.0075624743,0.080928266,0.031668153,0.0,0.0,0.0,-0.012201954,0.24795203,-0.53706974,0.12190665,-0.080728814,-0.060102582,-0.17670324,-0.08668056,0.15643224,-0.036530018,-0.15776081,0.17388473,0.1287315,0.0843451,0.17516011,0.14150517,0.09404153,-0.054261766,0.007920192,-0.18938358,0.34533224,-0.102742665,-0.0004155313,-0.2135099,0.129165,1.4575953,0.48423618,2.0,0.6692337,-0.37599665,-2.0,-2.0,1.795001,-2.0,-1.4058063,-0.90942717,2.0,-0.9714223,-2.0,2.0,-0.26705527,-1.3735297,-2.0,-0.89896077,-1.0752325,-2.0,-1.3450948,1.249898,2.0
2025-07-18 17:21:55.022,2.1800000000000015,2180,109,-0.026927086,0.088020876,-0.046796046,-0.049602836,0.08891506,0.04335374,0.0,0.0,0.0,-0.009311843,0.19853628,-0.5442241,0.14766413,-0.06525474,-0.07440006,-0.2046756,-0.10698763,0.18899778,-0.08060423,-0.1587679,0.15937927,0.1707457,-0.18652561,-0.10504283,0.14157227,-0.056309327,-0.047204092,-0.12876487,-0.001145739,-0.109918006,-0.16702482,-0.014328759,0.087606914,0.00085053535,-0.9714223,-2.0,2.0,-0.26705527,-1.3735297,-2.0,-0.89896077,-1.0752325,-2.0,-1.3450948,1.249898,2.0,1.416507,2.0,2.0,-1.858335,-1.5575857,-2.0,-0.53616923,1.2797174,-2.0,0.5235677,0.6392435,2.0
2025-07-18 17:21:55.046,2.2000000000000015,2200,110,-0.28827038,0.06444692,-0.2317465,0.025417808,0.050809912,0.03514978,0.0,0.0,0.0,-0.006712186,0.2014594,-0.5326201,0.16212524,-0.10923978,-0.15245676,-0.22499,-0.1021182,0.21300484,-0.12575768,-0.13867168,0.18125942,0.18675645,-0.0014492968,0.103099085,0.10897932,-0.12066048,-0.2083648,-0.028801685,-0.07516174,0.1776327,-0.11434599,0.15210241,-0.02881236,0.039712362,1.416507,2.0,2.0,-1.858335,-1.5575857,-2.0,-0.53616923,1.2797174,-2.0,0.5235677,0.6392435,2.0,-1.3679183,2.0,2.0,-1.407202,-1.0880013,-0.18778828,0.6300712,1.904507,-2.0,1.8148535,-2.0,2.0
2025-07-18 17:21:55.062,2.2200000000000015,2220,111,-0.25035673,-0.07374262,-0.0647002,0.025655925,-0.009410025,-0.038979214,0.0,0.0,0.0,-0.0036891263,0.20299418,-0.51618946,0.18947452,-0.12503114,-0.21292208,-0.18482614,-0.06696164,0.30325797,-0.15754628,-0.08762609,0.18530022,0.21639894,-0.040627588,0.16125211,0.02526562,-0.12460271,-0.07988731,0.122516036,0.10121109,0.2697237,-0.11035155,0.10161807,0.028795457,0.03074494,-1.3679183,2.0,2.0,-1.407202,-1.0880013,-0.18778828,0.6300712,1.904507,-2.0,1.8148535,-2.0,2.0,-2.0,2.0,2.0,-1.4917222,-2.0,-0.72255445,2.0,-0.8006473,-2.0,2.0,-2.0,2.0
2025-07-18 17:21:55.085,2.2400000000000015,2240,112,-0.06639547,-0.016411556,0.0070845997,-0.03717652,-0.046260554,0.042384464,0.0,0.0,0.0,-0.00077395927,0.21976918,-0.48046294,0.18534859,-0.1494391,-0.29566506,-0.18427634,-0.013252962,0.31473166,-0.19216411,-0.0674253,0.18423179,0.24040924,0.07851417,0.061820436,-0.04253377,-0.0023317994,-0.2998248,-0.040421475,0.15969197,-0.19095528,-0.10360984,-0.07277794,0.085537754,0.10332134,-2.0,2.0,2.0,-1.4917222,-2.0,-0.72255445,2.0,-0.8006473,-2.0,2.0,-2.0,2.0,-2.0,2.0,-0.10830302,-2.0,-2.0,2.0,2.0,0.4040783,-2.0,2.0,-2.0,2.0
2025-07-18 17:21:55.102,2.2600000000000016,2260,113,-0.05333146,0.056600448,0.08471681,0.035886645,0.0102827335,0.039175358,0.0,0.0,0.0,0.0005851345,0.20909858,-0.4267152,0.14375529,-0.175249,-0.39193478,-0.09667628,0.055135272,0.29802206,-0.19932213,-0.05626748,0.19696712,0.24720803,0.020373253,0.04080832,-0.07101237,-0.09832298,-0.20348227,0.12962891,0.06502405,-0.0068206917,-0.07028372,0.09822288,-0.010455276,0.053417686,-2.0,2.0,-0.10830302,-2.0,-2.0,2.0,2.0,0.4040783,-2.0,2.0,-2.0,2.0,-2.0,2.0,-1.5327262,-2.0,-2.0,2.0,2.0,0.19932966,0.37656918,1.6573268,-2.0,2.0
2025-07-18 17:21:55.122,2.2800000000000016,2280,114,0.06685416,0.13862759,0.07572494,-0.00021136324,0.013524504,0.04197048,0.0,0.0,0.0,0.00034835434,0.21046168,-0.3801026,0.08245503,-0.20350951,-0.47050786,-0.028576255,0.10801643,0.25436997,-0.16728622,-0.046926387,0.19949135,0.2656124,-0.08878436,0.17066376,-0.14627492,-0.100951985,-0.15121545,0.12235271,0.086734466,-0.110977136,0.07867517,0.07916875,-0.013095118,-0.0051102713,-2.0,2.0,-1.5327262,-2.0,-2.0,2.0,2.0,0.19932966,0.37656918,1.6573268,-2.0,2.0,-2.0,2.0,-2.0,-1.6267396,-2.0,2.0,2.0,0.6230983,2.0,1.4883367,-2.0,2.0
2025-07-18 17:21:55.142,2.3000000000000016,2300,115,0.072044335,0.12237685,0.14569618,0.013209933,-0.0022782234,-0.003126395,0.0,0.0,0.0,-0.0012676279,0.19094217,-0.33724895,-0.0059897387,-0.22416878,-0.5437099,0.0268315,0.1324039,0.24766149,-0.08179417,-0.027669163,0.19218037,0.280425,0.0002849386,0.06477246,-0.23254815,-0.08976596,-0.12552975,0.15331426,0.14900064,-0.067112975,0.22665174,0.049286667,-0.054698475,0.03280766,-2.0,2.0,-2.0,-1.6267396,-2.0,2.0,2.0,0.6230983,2.0,1.4883367,-2.0,2.0,-0.8225423,2.0,-2.0,-0.8518283,-0.83600897,2.0,2.0,-0.86834735,2.0,-0.53877604,-2.0,-0.09238532
2025-07-18 17:21:55.162,2.3200000000000016,2320,116,0.244902,-0.16965233,0.1256357,-0.005321919,-0.00451079,-0.015282789,0.0,0.0,0.0,-0.0037596421,0.15285084,-0.26712558,-0.06282088,-0.21940851,-0.53102386,0.07523319,0.17522848,0.19925465,-0.009321998,-0.043089967,0.20470297,0.24196492,-0.048827454,0.112862006,-0.11109061,0.096898764,0.041334864,0.15532418,0.05992183,-0.24362093,0.09959164,0.0039300853,0.008425823,-0.095054284,-0.8225423,2.0,-2.0,-0.8518283,-0.83600897,2.0,2.0,-0.86834735,2.0,-0.53877604,-2.0,-0.09238532,1.3092699,2.0,-2.0,-1.0460612,2.0,2.0,0.9110882,-0.41222054,2.0,-1.3640821,-1.1293375,-2.0
2025-07-18 17:21:55.183,2.3400000000000016,2340,117,0.10698198,0.04923288,-0.020733204,-0.059856784,0.044537064,-0.0028039669,0.0,0.0,0.0,-0.006229315,0.15823972,-0.212196,-0.12511419,-0.2174586,-0.50453454,0.11085776,0.17583969,0.14028202,0.032344457,-0.07151736,0.20442498,0.14289354,0.01316186,0.118917435,-0.16818476,0.048232257,0.058632758,-0.001035799,0.0030166996,-0.14079541,0.17217107,-0.114972256,2.3622501e-06,-0.15863268,1.3092699,2.0,-2.0,-1.0460612,2.0,2.0,0.9110882,-0.41222054,2.0,-1.3640821,-1.1293375,-2.0,1.25719,1.1241444,-2.0,-1.7309979,2.0,2.0,-1.860632,0.27898556,2.0,0.91088575,1.4331938,-2.0
2025-07-18 17:21:55.202,2.3600000000000017,2360,118,-0.004752814,-0.24226059,0.03701817,-0.0029146932,-0.0059561366,0.014720992,0.0,0.0,0.0,-0.006255689,0.17093366,-0.11799517,-0.1525417,-0.22384076,-0.46614587,0.1372351,0.16354117,0.11956428,0.08349969,-0.060538266,0.27562517,0.06510481,0.06500491,0.2804552,-0.015457137,-0.009352991,0.1070902,0.041270763,-0.093067564,0.047795676,0.15488784,0.056477822,0.14346679,-0.14473847,1.25719,1.1241444,-2.0,-1.7309979,2.0,2.0,-1.860632,0.27898556,2.0,0.91088575,1.4331938,-2.0,2.0,-2.0,-1.9637849,1.0225492,2.0,2.0,-2.0,-2.0,2.0,1.2837964,0.8193555,-2.0
2025-07-18 17:21:55.227,2.3800000000000017,2380,119,0.009388702,-0.03053809,0.049781937,0.04292118,-0.031171912,-0.0067723235,0.0,0.0,0.0,-0.0069894562,0.19351041,-0.09533313,-0.18298638,-0.2312959,-0.42179623,0.1435025,0.13577384,0.12632906,0.11743526,-0.018189646,0.29600495,-0.0010309919,0.016086008,-0.09843549,-0.015282022,-0.059350293,0.08757234,0.09271989,-0.0111507345,-0.03742926,0.025252178,0.09627485,0.003584544,-0.13335678,2.0,-2.0,-1.9637849,1.0225492,2.0,2.0,-2.0,-2.0,2.0,1.2837964,0.8193555,-2.0,2.0,-2.0,-2.0,2.0,2.0,1.2241975,-2.0,-2.0,2.0,-0.77249694,-2.0,-2.0
2025-07-18 17:21:55.243,2.4000000000000017,2400,120,0.105266675,0.021743024,0.066486895,0.03781713,0.009397991,0.029702334,0.0,0.0,0.0,-0.008147847,0.2263606,-0.16890246,-0.20000748,-0.24454258,-0.3875854,0.15129276,0.12152331,0.10169106,0.15387248,-0.02614824,0.23955263,-0.052974623,0.12618056,-0.20559205,0.021411065,-0.003992148,0.12050357,-0.07556497,-0.10321098,-0.0783658,0.033280153,-0.08590235,-0.31315947,-0.13637985,2.0,-2.0,-2.0,2.0,2.0,1.2241975,-2.0,-2.0,2.0,-0.77249694,-2.0,-2.0,2.0,-2.0,0.5196405,2.0,2.0,-2.0,-2.0,-2.0,2.0,-2.0,-1.0421813,-2.0
2025-07-18 17:21:55.263,2.4200000000000017,2420,121,0.30292058,0.0062705595,0.013993552,-0.015879225,-0.016928576,0.01068253,0.0,0.0,0.0,-0.009240757,0.24407528,-0.27296108,-0.15476292,-0.2300212,-0.35099083,0.073830396,0.06391079,0.07138384,0.18785398,-0.08031984,0.13133997,-0.092174605,0.048557166,-0.24212468,0.14654619,0.10352757,0.1642517,-0.201834,-0.19432275,-0.07904555,0.13105012,-0.19010139,-0.34049702,-0.15804149,2.0,-2.0,0.5196405,2.0,2.0,-2.0,-2.0,-2.0,2.0,-2.0,-1.0421813,-2.0,2.0,-2.0,2.0,2.0,2.0,-2.0,-2.0,-2.0,2.0,-2.0,2.0,2.0
2025-07-18 17:21:55.286,2.4400000000000017,2440,122,0.13863687,-0.023368822,0.036491428,-0.049221843,0.092766955,-0.03187633,0.0,0.0,0.0,-0.008814714,0.26709136,-0.37505084,-0.07759765,-0.20795943,-0.28441483,-0.0032911368,0.01210475,0.04347641,0.22132593,-0.116141476,0.0835733,-0.04185445,0.083554134,-0.19693953,0.1560521,0.07195382,0.21242923,-0.19458516,-0.13554679,-0.052480433,0.028299823,-0.03673637,0.024464197,0.20883319,2.0,-2.0,2.0,2.0,2.0,-2.0,-2.0,-2.0,2.0,-2.0,2.0,2.0,1.6253557,-2.0,2.0,2.0,2.0,-2.0,-2.0,0.2519359,-2.0,-2.0,1.9140279,2.0
2025-07-18 17:21:55.303,2.4600000000000017,2460,123,0.08253132,0.033419378,-0.009391037,-0.032226633,0.072245784,-0.020295095,0.0,0.0,0.0,-0.008509717,0.2686849,-0.45916027,-0.0061724405,-0.17885612,-0.21519102,-0.064192146,-0.039073456,0.07085047,0.13778433,-0.16291569,0.14514531,0.013740619,0.018022262,-0.16573992,0.22663912,0.0748875,0.17968717,-0.1487585,-0.10620843,0.123381816,-0.25427538,-0.03675289,0.18431537,0.17559998,1.6253557,-2.0,2.0,2.0,2.0,-2.0,-2.0,0.2519359,-2.0,-2.0,1.9140279,2.0,1.5802865,-2.0,2.0,0.4670629,1.7349787,-2.0,-2.0,1.2405663,-2.0,-1.3652906,0.54464245,2.0
2025-07-18 17:21:55.323,2.4800000000000018,2480,124,-0.14373204,0.11151882,-0.00948193,-0.052260585,0.012606974,-0.0045188814,0.0,0.0,0.0,-0.008747027,0.26449105,-0.53486806,0.04544719,-0.13593745,-0.119304225,-0.109433144,-0.0784147,0.1284379,0.059724316,-0.17308547,0.16732486,0.081702895,0.060175877,-0.15805921,0.13407926,0.027907653,0.2927551,-0.059252758,-0.123887904,0.18851617,-0.2042776,-0.042788964,0.024765782,0.10634649,1.5802865,-2.0,2.0,0.4670629,1.7349787,-2.0,-2.0,1.2405663,-2.0,-1.3652906,0.54464245,2.0,0.7075771,-0.048553552,2.0,0.7602426,-0.6854636,-2.0,-2.0,0.7793096,-2.0,-1.4636794,0.42283392,2.0
2025-07-18 17:21:55.343,2.5000000000000018,2500,125,-0.016761215,0.26130515,-0.19194217,-0.075032346,-0.0085962145,0.045148093,0.0,0.0,0.0,-0.008319923,0.24539582,-0.53584015,0.081079885,-0.10230738,-0.08790021,-0.15771127,-0.110765174,0.18233296,0.0012526554,-0.18298289,0.17937008,0.11725083,-0.089735165,0.17650211,0.13837819,0.07856899,0.027059255,-0.09800769,-0.131539,0.05648013,-0.07422923,0.029126676,-0.04788214,0.06402096,0.7075771,-0.048553552,2.0,0.7602426,-0.6854636,-2.0,-2.0,0.7793096,-2.0,-1.4636794,0.42283392,2.0,-0.016981035,-2.0,2.0,-0.46500975,-1.342107,-2.0,-1.55271,1.6219534,-2.0,-0.6083883,0.45979285,2.0
2025-07-18 17:21:55.363,2.520000000000002,2520,126,0.042342313,0.101375684,-0.124109864,-0.015647836,0.052462086,0.040233865,0.0,0.0,0.0,-0.005640326,0.20185678,-0.535976,0.121690735,-0.093599446,-0.11030716,-0.18520127,-0.14699611,0.238763,-0.04990902,-0.17389365,0.17978877,0.14517337,-0.06337872,-0.08065841,0.11626731,0.061897244,-0.11825911,0.010294286,-0.0033976578,0.15461476,-0.13323665,0.08171814,-0.063123584,0.08914578,-0.016981035,-2.0,2.0,-0.46500975,-1.342107,-2.0,-1.55271,1.6219534,-2.0,-0.6083883,0.45979285,2.0,-0.20003882,1.7447156,2.0,-1.2935642,-0.08153552,-2.0,-1.9738706,-0.5788907,-2.0,0.23699282,0.908885,2.0
2025-07-18 17:21:55.386,2.540000000000002,2540,127,0.17766932,-0.3633376,-0.023883242,-0.045852106,0.078083165,0.032647245,0.0,0.0,0.0,-0.0026211855,0.17811374,-0.5512375,0.14596266,-0.1235577,-0.10421232,-0.2000145,-0.18983553,0.2554067,-0.10351391,-0.13221349,0.21603158,0.17251341,-0.084630735,-0.0008875553,0.12232989,-0.08006018,0.083948374,-0.057935525,-0.13879761,-0.07290694,-0.075766474,0.0976657,0.101575226,0.008901246,-0.20003882,1.7447156,2.0,-1.2935642,-0.08153552,-2.0,-1.9738706,-0.5788907,-2.0,0.23699282,0.908885,2.0,0.41656628,2.0,2.0,-0.28596836,-2.0,-2.0,0.35000747,2.0,-2.0,-0.23192306,-2.0,2.0
2025-07-18 17:21:55.406,2.560000000000002,2560,128,-0.18200515,-0.48322737,-0.20389353,-0.03488391,0.014780004,-0.019818302,0.0,0.0,0.0,-0.0016018949,0.16311406,-0.5101668,0.17248236,-0.11242829,-0.16081119,-0.21609637,-0.1494595,0.27949786,-0.13739273,-0.13397641,0.18848166,0.2079606,-0.04229406,0.071649104,0.0033473775,0.06991799,-0.22129333,0.027271777,0.081214935,0.108735815,-0.09502042,0.060203664,-0.19869387,0.122001335,0.41656628,2.0,2.0,-0.28596836,-2.0,-2.0,0.35000747,2.0,-2.0,-0.23192306,-2.0,2.0,-2.0,2.0,2.0,-2.0,-2.0,-1.5215394,2.0,-0.70110625,-2.0,0.8133711,-2.0,2.0
2025-07-18 17:21:55.424,2.580000000000002,2580,129,-0.0054982454,-0.303011,-0.07554595,0.06383222,0.088974044,0.010488382,0.0,0.0,0.0,0.002194854,0.15302491,-0.466662,0.18191706,-0.12855814,-0.26041326,-0.22280617,-0.075769976,0.2760524,-0.17053467,-0.12440896,0.15461214,0.23364964,-0.044177864,0.063493066,0.023827357,-0.08753869,-0.25753856,-0.023049418,0.12962255,-0.10945178,-0.07785222,-0.12525125,-0.03877932,0.04106017,-2.0,2.0,2.0,-2.0,-2.0,-1.5215394,2.0,-0.70110625,-2.0,0.8133711,-2.0,2.0,-2.0,2.0,0.79600054,-2.0,-2.0,2.0,2.0,0.24975912,-2.0,2.0,-2.0,2.0
2025-07-18 17:21:55.445,2.600000000000002,2600,130,-0.075159945,-0.06735272,-0.07348189,0.02128543,0.061259616,0.021566601,0.0,0.0,0.0,0.006034114,0.13681056,-0.4391405,0.15624043,-0.1792062,-0.3606565,-0.15001854,-0.015603351,0.24989294,-0.18543513,-0.14812876,0.1481292,0.2356212,-0.004656472,0.16390508,-0.06741295,-0.032354694,-0.30461046,0.20547701,0.13487682,-0.12280475,-0.12915762,-0.0037640594,0.06472833,-0.019755265,-2.0,2.0,0.79600054,-2.0,-2.0,2.0,2.0,0.24975912,-2.0,2.0,-2.0,2.0,-2.0,2.0,-1.8365073,-2.0,-2.0,2.0,2.0,1.1277394,-0.107729524,2.0,-2.0,2.0
2025-07-18 17:21:55.464,2.620000000000002,2620,131,-0.083619885,0.13428515,-0.02578782,0.059252314,0.07200055,-0.046614297,0.0,0.0,0.0,0.007993614,0.11833151,-0.363115,0.076889046,-0.19025189,-0.44047523,-0.067823365,0.0617404,0.25657243,-0.1572811,-0.15625955,0.15240537,0.2623624,0.047803704,0.18647395,-0.13174614,-0.106080994,-0.26412064,0.11862626,0.16433562,0.032179404,0.12075462,0.03860146,-0.048175167,-0.025603257,-2.0,2.0,-1.8365073,-2.0,-2.0,2.0,2.0,1.1277394,-0.107729524,2.0,-2.0,2.0,-2.0,2.0,-2.0,-1.6801335,-2.0,2.0,2.0,-1.4758153,2.0,1.7503012,-2.0,2.0
2025-07-18 17:21:55.484,2.640000000000002,2640,132,0.14673395,0.20972379,0.08381608,0.0068080393,0.06696758,-0.03439458,0.0,0.0,0.0,0.008899034,0.106602356,-0.30524433,0.011283982,-0.21408576,-0.5106175,-0.007776874,0.09870505,0.22395977,-0.07598917,-0.1342345,0.14704666,0.26373604,-0.04954529,0.16689837,-0.22133668,-0.06082726,-0.1569638,0.10681503,0.061343554,-0.20294945,0.14001864,0.079436496,-0.018741038,0.08690241,-2.0,2.0,-2.0,-1.6801335,-2.0,2.0,2.0,-1.4758153,2.0,1.7503012,-2.0,2.0,-1.7754571,2.0,-2.0,-1.8905479,-1.3187864,2.0,2.0,0.116709635,2.0,1.1339396,-2.0,1.627831
2025-07-18 17:21:55.504,2.660000000000002,2660,133,0.030494783,0.14286081,0.14736633,0.0033448918,-0.0077787368,0.041526992,0.0,0.0,0.0,0.008266097,0.09931245,-0.25099936,-0.054217182,-0.22849116,-0.54386336,0.055013716,0.13315842,0.1974694,-0.026231494,-0.12060494,0.15859988,0.26268563,-0.109028615,0.15122639,-0.1500973,-0.019029176,-0.035853133,0.14210801,0.08501414,-0.026280675,0.11702219,0.08687828,0.01696306,0.048404768,-1.7754571,2.0,-2.0,-1.8905479,-1.3187864,2.0,2.0,0.116709635,2.0,1.1339396,-2.0,1.627831,-0.50509477,2.0,-2.0,-0.5475734,-0.99470955,2.0,2.0,-0.9526612,2.0,-0.831553,-2.0,-1.3261275
2025-07-18 17:21:55.523,2.680000000000002,2680,134,-0.2007149,0.12540229,0.028523825,0.002640581,0.033855747,-0.023133155,0.0,0.0,0.0,0.0062617897,0.08579623,-0.19169608,-0.11755928,-0.2372028,-0.53079146,0.09261105,0.16915151,0.119629115,0.03550266,-0.110329725,0.15936422,0.20865044,0.0072022174,0.23173915,-0.13719553,0.049690906,-0.024216285,0.033788066,0.052978013,-0.28779805,0.093420714,-0.06987793,0.02824528,-0.18217334,-0.50509477,2.0,-2.0,-0.5475734,-0.99470955,2.0,2.0,-0.9526612,2.0,-0.831553,-2.0,-1.3261275,0.8907417,2.0,-2.0,-2.0,2.0,2.0,0.8468304,-0.15919586,2.0,-0.1409464,-0.04480546,-2.0
2025-07-18 17:21:55.547,2.700000000000002,2700,135,-0.16216235,0.14263837,-0.017395696,-0.06296349,-0.03862989,-0.004015837,0.0,0.0,0.0,0.0051709167,0.08767296,-0.10311277,-0.15127277,-0.24977146,-0.49742264,0.114997365,0.17515863,0.086319745,0.09041859,-0.10793419,0.17601359,0.12428744,0.0019916538,0.22270854,-0.06258719,-0.10258967,0.085417375,0.064428896,-0.019574028,-0.0009573173,0.15787347,0.025863111,-0.03216873,-0.26561293,0.8907417,2.0,-2.0,-2.0,2.0,2.0,0.8468304,-0.15919586,2.0,-0.1409464,-0.04480546,-2.0,1.76318,-1.5808641,-2.0,-0.10742523,2.0,2.0,-2.0,-1.9503431,2.0,1.2853011,2.0,-2.0
2025-07-18 17:21:55.564,2.720000000000002,2720,136,-0.103956275,0.16231406,0.19815241,-0.07259859,-0.006235806,-0.033993464,0.0,0.0,0.0,0.0050564627,0.12749515,-0.08872624,-0.18779543,-0.2319404,-0.46026066,0.1402495,0.17076011,0.06355845,0.1297349,-0.059308924,0.23435369,0.04035893,0.038530897,-0.051367298,-0.08392625,0.09126573,0.061360378,0.060672574,-0.010687998,-0.13538493,0.038585894,0.07651441,0.23244776,-0.1597065,1.76318,-1.5808641,-2.0,-0.10742523,2.0,2.0,-2.0,-1.9503431,2.0,1.2853011,2.0,-2.0,2.0,-2.0,-2.0,1.0165116,2.0,2.0,-2.0,-1.7712777,2.0,1.1122602,-2.0,-2.0
2025-07-18 17:21:55.588,2.740000000000002,2740,137,0.02749018,0.21866119,0.10536585,-0.030447979,0.025386851,-0.04762917,0.0,0.0,0.0,0.0032475214,0.15193616,-0.13208975,-0.20567605,-0.21036385,-0.42406628,0.1582847,0.1574226,0.021208078,0.16505928,-0.023661353,0.23346943,-0.015415043,0.025584942,-0.17037736,-0.043085244,0.11988077,0.07914754,0.07329236,-0.06394548,-0.057024542,0.110138096,0.07204687,-0.06145409,-0.066175334,2.0,-2.0,-2.0,1.0165116,2.0,2.0,-2.0,-1.7712777,2.0,1.1122602,-2.0,-2.0,2.0,-2.0,-1.4175415,2.0,2.0,-0.93774885,-2.0,-2.0,2.0,-2.0,-2.0,-2.0
2025-07-18 17:21:55.604,2.760000000000002,2760,138,0.21622038,0.120662354,0.09307554,-0.047194585,0.0030666236,0.028502315,0.0,0.0,0.0,0.0005656928,0.18703543,-0.25038505,-0.21083935,-0.18472771,-0.38761508,0.09889548,0.12685153,-0.021515774,0.18237428,-0.04712385,0.15170133,-0.0712915,0.10705883,-0.22440259,0.015146633,0.1203358,0.07762095,-0.11131991,-0.11800851,-0.14950608,0.02676296,-0.15505324,-0.40166545,-0.15973331,2.0,-2.0,-1.4175415,2.0,2.0,-0.93774885,-2.0,-2.0,2.0,-2.0,-2.0,-2.0,2.0,-2.0,1.6778194,2.0,2.0,-2.0,-2.0,-2.0,2.0,-2.0,1.4360204,0.069452256
2025-07-18 17:21:55.624,2.780000000000002,2780,139,0.19562753,-0.005105796,0.05255858,-0.038385075,0.01926145,0.016691316,0.0,0.0,0.0,-0.00094434264,0.21644136,-0.35247928,-0.14025351,-0.1483575,-0.3140988,0.034256373,0.077253856,-0.061636623,0.2181992,-0.09324077,0.07924798,-0.064657144,0.057211116,-0.19470215,0.14741597,-0.005450539,0.14818881,-0.17050447,-0.179787,-0.09635219,-0.0052813445,-0.13353325,-0.02100929,0.10086921,2.0,-2.0,1.6778194,2.0,2.0,-2.0,-2.0,-2.0,2.0,-2.0,1.4360204,0.069452256,2.0,-2.0,2.0,1.9453412,2.0,-2.0,-2.0,-0.105002835,-2.0,-2.0,1.7489634,2.0
2025-07-18 17:21:55.644,2.800000000000002,2800,140,0.06772488,0.027447704,0.1382133,-0.031833515,-0.020025585,-0.008610086,0.0,0.0,0.0,-0.002174935,0.23543496,-0.43365806,-0.049563456,-0.10831489,-0.2553505,-0.03099634,0.035127796,-0.06769413,0.15033594,-0.1361303,0.14681394,-0.0051891077,0.09659202,-0.19858898,0.12886767,0.13349797,0.1238952,-0.20930707,-0.089791484,0.08269813,-0.17324029,-0.12042891,0.25428307,0.15713525,2.0,-2.0,2.0,1.9453412,2.0,-2.0,-2.0,-0.105002835,-2.0,-2.0,1.7489634,2.0,1.828253,-1.7987719,2.0,0.5140783,2.0,-2.0,-2.0,2.0,-2.0,-1.1212188,-1.5113246,2.0
2025-07-18 17:21:55.664,2.820000000000002,2820,141,-0.08703399,0.12765689,-0.04383404,-0.043098573,0.022590902,0.019095926,0.0,0.0,0.0,-0.0037573243,0.2586263,-0.48702186,-0.0038928497,-0.09751319,-0.16362233,-0.09258656,-0.031839527,0.0051516704,0.053521596,-0.15626198,0.14838153,0.04893252,0.07909259,-0.117922105,0.15608609,0.13739805,0.26384875,-0.12398464,-0.06861047,0.22767186,-0.19552554,-0.08989988,-0.006230561,0.14132428,1.828253,-1.7987719,2.0,0.5140783,2.0,-2.0,-2.0,2.0,-2.0,-1.1212188,-1.5113246,2.0,0.027830392,-1.6280158,2.0,0.7030307,0.7690168,-2.0,-2.0,0.40679622,-2.0,-1.1485919,-0.85271883,2.0
2025-07-18 17:21:55.689,2.840000000000002,2840,142,-0.0485747,0.089076534,-0.099585086,-0.09365336,-0.01795343,0.032783337,0.0,0.0,0.0,-0.004099264,0.21046716,-0.52967376,0.066826135,-0.06801049,-0.0697472,-0.12856919,-0.079571426,0.048012763,-0.0013010417,-0.1710818,0.07861644,0.10500195,-0.15612647,-0.052728243,0.10153951,0.06893668,0.23390658,-0.11678221,-0.08283626,0.046338875,-0.1754634,-0.0040598474,-0.19747461,0.055488307,0.027830392,-1.6280158,2.0,0.7030307,0.7690168,-2.0,-2.0,0.40679622,-2.0,-1.1485919,-0.85271883,2.0,1.0981853,-2.0,2.0,0.5626039,0.2798308,-2.0,-2.0,1.2855326,-2.0,-2.0,2.0,2.0
2025-07-18 17:21:55.704,2.860000000000002,2860,143,-0.16652286,0.012032338,-0.0023897844,-0.04849324,0.012095954,0.017145587,0.0,0.0,0.0,-0.0030629619,0.20433244,-0.58068126,0.10965558,-0.032129146,-0.04756816,-0.1748618,-0.120598406,0.104345165,-0.054565284,-0.19839811,0.07031649,0.13844769,-0.012336499,-0.094877854,0.166865,0.014740955,0.0624436,-0.1287778,-0.16323565,0.22133109,-0.098850176,-0.10973828,0.108192705,0.07215086,1.0981853,-2.0,2.0,0.5626039,0.2798308,-2.0,-2.0,1.2855326,-2.0,-2.0,2.0,2.0,1.312298,0.913536,2.0,0.19612966,-0.4957741,-2.0,-2.0,0.45890814,-2.0,-1.2127246,1.4921067,2.0
2025-07-18 17:21:55.724,2.880000000000002,2880,144,-0.13453911,-0.12343844,-0.13655701,-0.050891526,-0.026079396,-0.025669595,0.0,0.0,0.0,-0.0019394368,0.21241927,-0.57664776,0.13531964,-0.010634549,-0.06123462,-0.18810382,-0.1669629,0.14484477,-0.09407071,-0.19862314,0.15286748,0.16401082,-0.021485006,0.0935783,0.03378659,-0.012097318,-0.075918674,-0.12663737,-0.10473914,0.0020785667,-0.10494298,-0.048124343,0.18890005,0.056083437,1.312298,0.913536,2.0,0.19612966,-0.4957741,-2.0,-2.0,0.45890814,-2.0,-1.2127246,1.4921067,2.0,-0.36081693,0.5801214,2.0,-1.1962413,-1.9804592,-2.0,-0.8451978,2.0,-2.0,0.080885395,-2.0,2.0
2025-07-18 17:21:55.745,2.900000000000002,2900,145,-0.008220946,-0.59142125,-0.08955604,-0.015218901,-0.023455668,-0.019309202,0.0,0.0,0.0,-0.00089606724,0.18546897,-0.56141317,0.16079874,-0.046922576,-0.13044043,-0.20021127,-0.17386864,0.21907942,-0.13807157,-0.17063227,0.17017965,0.20395403,-0.12321563,0.111502394,0.08064736,-0.05450295,-0.23533449,-0.090196446,-0.02531758,0.30346468,-0.067572415,0.019269023,-0.05584551,0.014761845,-0.36081693,0.5801214,2.0,-1.1962413,-1.9804592,-2.0,-0.8451978,2.0,-2.0,0.080885395,-2.0,2.0,-2.0,2.0,2.0,-1.8626313,-2.0,-1.2108094,2.0,-0.3038624,-2.0,1.1791779,-2.0,2.0
2025-07-18 17:21:55.765,2.920000000000002,2920,146,0.1472364,-0.3722211,0.112270206,0.027392307,-0.012213295,0.003004339,0.0,0.0,0.0,0.00067221234,0.14554642,-0.51500523,0.16661948,-0.08240317,-0.24781667,-0.20381467,-0.15348329,0.27415195,-0.1756781,-0.114746094,0.14251368,0.21327947,-0.18160063,0.061849307,0.02384354,-0.06318541,-0.24025643,-0.055503573,0.20886093,0.08308715,-0.022424132,0.10896847,-0.07754363,0.08094619,-2.0,2.0,2.0,-1.8626313,-2.0,-1.2108094,2.0,-0.3038624,-2.0,1.1791779,-2.0,2.0,-1.6563219,2.0,2.0,-2.0,-2.0,1.4576879,2.0,0.23577206,-2.0,2.0,-2.0,2.0
2025-07-18 17:21:55.784,2.940000000000002,2940,147,0.09506893,-0.2678373,0.12730692,0.033763498,-0.009683454,-0.047339242,0.0,0.0,0.0,0.00013255546,0.11200119,-0.50521153,0.17406529,-0.1389102,-0.36111313,-0.13380456,-0.056737803,0.24678126,-0.18562335,-0.11000912,0.13047771,0.24518214,-0.1416228,0.04609628,-0.031695664,-0.051004346,-0.24156426,0.15824087,0.15530108,-0.018127533,-0.054063965,0.06046539,0.05177445,0.0131132305,-1.6563219,2.0,2.0,-2.0,-2.0,1.4576879,2.0,0.23577206,-2.0,2.0,-2.0,2.0,-1.0100217,2.0,0.8434494,-2.0,-2.0,2.0,2.0,0.83283603,-2.0,2.0,-2.0,2.0
2025-07-18 17:21:55.809,2.960000000000002,2960,148,0.12326456,-0.13729428,0.18869734,0.0720039,0.012376771,0.0077412054,0.0,0.0,0.0,-0.0027504636,0.096578844,-0.49249378,0.15448497,-0.16392663,-0.43793723,-0.067406856,0.008646025,0.26428947,-0.22287808,-0.102004975,0.13931242,0.26136982,-0.0057114656,0.1007632,-0.019705497,-0.07290758,-0.26698208,0.16535182,0.11100129,0.022804812,-0.038969018,0.024217496,-0.016973197,0.07559128,-1.0100217,2.0,0.8434494,-2.0,-2.0,2.0,2.0,0.83283603,-2.0,2.0,-2.0,2.0,-2.0,2.0,-0.2521903,-2.0,-2.0,2.0,2.0,0.13415502,-0.23530206,0.70986634,-2.0,2.0
2025-07-18 17:21:55.827,2.980000000000002,2980,149,0.047522116,0.10730863,0.22314754,-0.0028652637,0.099826664,0.0011367575,0.0,0.0,0.0,-0.005846984,0.07585339,-0.4676781,0.1154637,-0.20660375,-0.5197738,-0.003649668,0.062193334,0.21888253,-0.18091446,-0.07987465,0.14590989,0.27429968,-0.07458439,0.030502468,-0.04967013,-0.01625363,-0.104404554,0.15841989,0.20043698,-0.024784956,0.09903088,0.08447654,0.024996044,0.048377037,-2.0,2.0,-0.2521903,-2.0,-2.0,2.0,2.0,0.13415502,-0.23530206,0.70986634,-2.0,2.0,-0.5358976,2.0,-2.0,-1.3561314,-2.0,2.0,2.0,0.41381323,2.0,-0.1425596,-2.0,1.8398545
2025-07-18 17:21:55.846,3.000000000000002,3000,150,0.05330934,0.11450754,-0.0012044322,0.029755924,0.016927341,0.030064669,0.0,0.0,0.0,-0.009906376,0.059108343,-0.40925255,0.03227282,-0.20337223,-0.5752781,0.0579342,0.11379958,0.22381571,-0.11116718,-0.0797129,0.14403126,0.28117236,0.028864622,0.15040085,-0.11780797,0.02847677,-0.13189892,0.16593221,0.07889906,-0.012609281,0.2703313,0.006727895,0.027966913,-0.015891746,-0.5358976,2.0,-2.0,-1.3561314,-2.0,2.0,2.0,0.41381323,2.0,-0.1425596,-2.0,1.8398545,-1.4651694,2.0,-2.0,-1.9231571,0.004311621,2.0,2.0,-2.0,2.0,-0.27264106,-2.0,0.39583293
2025-07-18 17:21:55.867,3.0200000000000022,3020,151,0.096385665,-0.07989541,0.09560401,0.016373813,0.10877103,0.025544312,0.0,0.0,0.0,-0.011891121,0.016456207,-0.34401318,-0.040344015,-0.22647473,-0.5813676,0.09658974,0.15089424,0.1558664,-0.039789602,-0.08012518,0.16197498,0.2524795,-0.051636253,0.18929465,-0.19770749,-0.0012334668,0.0750393,0.13344647,0.056475356,-0.27004224,0.13018052,-0.0007251057,0.070929855,-0.08161312,-1.4651694,2.0,-2.0,-1.9231571,0.004311621,2.0,2.0,-2.0,2.0,-0.27264106,-2.0,0.39583293,0.3115984,2.0,-2.0,-1.8169686,0.999893,2.0,1.9643819,1.7479794,2.0,0.82854724,-1.8006456,-1.7674348
2025-07-18 17:21:55.885,3.0400000000000023,3040,152,-0.28893456,0.22777823,0.08424907,0.016637104,0.05112921,0.034411814,0.0,0.0,0.0,-0.013552983,0.026124034,-0.2675323,-0.080054134,-0.24602364,-0.56278026,0.11223854,0.1759357,0.14291209,0.029042784,-0.04408297,0.16982646,0.1667651,0.093634725,0.18774411,-0.07211795,-0.050223716,0.13781138,0.10826578,0.060486514,0.14979792,0.11894987,0.11831786,-0.018704992,-0.18464649,0.3115984,2.0,-2.0,-1.8169686,0.999893,2.0,1.9643819,1.7479794,2.0,0.82854724,-1.8006456,-1.7674348,1.4117656,2.0,-2.0,0.011330681,2.0,2.0,-1.098816,-2.0,2.0,-0.72738385,2.0,-2.0
2025-07-18 17:21:55.905,3.0600000000000023,3060,153,-0.56278664,0.03216876,0.026851036,-0.012765206,0.05467079,0.044908214,0.0,0.0,0.0,-0.01549183,0.05617467,-0.15878798,-0.13292564,-0.21962102,-0.50021046,0.14971672,0.15129094,0.13792272,0.07754409,-0.06234774,0.25037557,0.080180936,0.09284081,0.31747013,-0.1133534,0.0493598,0.11646751,-0.008659242,-0.16985154,-0.040623657,0.08878374,0.027434886,0.25926158,-0.17184243,1.4117656,2.0,-2.0,0.011330681,2.0,2.0,-1.098816,-2.0,2.0,-0.72738385,2.0,-2.0,2.0,-2.0,-2.0,-0.40543297,2.0,2.0,-2.0,-1.8851311,2.0,0.8075522,-0.5491879,-2.0
2025-07-18 17:21:55.925,3.0800000000000023,3080,154,-0.105452545,0.09671288,0.20464219,0.03548426,0.015943326,-0.0034474337,0.0,0.0,0.0,-0.015991297,0.09705268,-0.099264316,-0.14932501,-0.20933233,-0.45453495,0.17571443,0.0836526,0.06279449,0.11452707,-0.034801755,0.27047485,0.023893662,0.040878814,-0.0072684167,-0.091661416,0.033223897,0.08434801,0.031042181,-0.09331636,-0.16650282,0.14994346,0.1475626,-0.107034475,-0.17797382,2.0,-2.0,-2.0,-0.40543297,2.0,2.0,-2.0,-1.8851311,2.0,0.8075522,-0.5491879,-2.0,2.0,-2.0,-2.0,2.0,2.0,1.0280981,-2.0,-1.956234,2.0,-1.1484556,-1.4916387,-2.0
2025-07-18 17:21:55.945,3.1000000000000023,3100,155,0.117665805,-0.040997174,0.12605129,0.014647624,-0.012189719,0.00023714067,0.0,0.0,0.0,-0.018559502,0.13442378,-0.18270427,-0.18250777,-0.2007047,-0.4184791,0.15099932,0.066100694,0.022056824,0.14698344,-0.04068495,0.18386745,-0.04172803,0.11417589,-0.22530626,-0.089690164,0.06462759,0.12241034,-0.09730876,0.0035137404,-0.07009366,0.10809919,-0.08931992,-0.34539357,-0.12884223,2.0,-2.0,-2.0,2.0,2.0,1.0280981,-2.0,-1.956234,2.0,-1.1484556,-1.4916387,-2.0,2.0,-2.0,0.54147196,2.0,2.0,-2.0,-2.0,-2.0,2.0,-2.0,-0.119915955,-2.0
2025-07-18 17:21:55.965,3.1200000000000023,3120,156,0.22944038,-0.17491807,0.0553619,0.014551692,-0.0005498934,0.032319393,0.0,0.0,0.0,-0.021115582,0.18516308,-0.30349234,-0.14146303,-0.1933738,-0.35991764,0.06611963,0.038368933,0.010401086,0.18463968,-0.08937681,0.11618948,-0.089723215,0.13562663,-0.21501599,0.17348833,-0.012377932,0.09857731,-0.20279644,0.0010846658,-0.06697716,0.07769486,-0.08165511,-0.11443641,-0.1312916,2.0,-2.0,0.54147196,2.0,2.0,-2.0,-2.0,-2.0,2.0,-2.0,-0.119915955,-2.0,2.0,-2.0,2.0,2.0,2.0,-2.0,-2.0,-2.0,2.0,-2.0,0.50878143,1.6754388
2025-07-18 17:21:55.985,3.1400000000000023,3140,157,0.27681974,-0.15659922,0.076617196,0.04468079,0.077345125,-0.029271586,0.0,0.0,0.0,-0.023049878,0.20892239,-0.39000508,-0.06284514,-0.17944945,-0.29628012,-0.00074064854,-0.004138619,-0.012763993,0.2073554,-0.13040674,0.12078076,-0.03636123,0.009845626,-0.26008922,0.13125898,0.0038173134,0.16740257,-0.10573676,-0.08893741,-0.09256261,0.048819274,-0.121247664,-0.0026458933,0.08626691,2.0,-2.0,2.0,2.0,2.0,-2.0,-2.0,-2.0,2.0,-2.0,0.50878143,1.6754388,1.8245511,-2.0,2.0,2.0,2.0,-2.0,-2.0,0.24626283,-2.0,-2.0,0.36753893,2.0
2025-07-18 17:21:56.005,3.1600000000000024,3160,158,0.07512399,0.056176763,0.026062645,0.05006148,0.010136534,-0.017246766,0.0,0.0,0.0,-0.024511654,0.234255,-0.47010723,-0.0064905654,-0.16220514,-0.21599385,-0.07266781,-0.0335469,-0.0026899267,0.14006276,-0.17018966,0.13307667,0.026089055,0.025219925,-0.12859093,0.17233266,-0.018115228,0.22690642,-0.12543668,-0.09373169,-0.0067125116,-0.18372397,-0.0919583,0.06705678,0.08517772,1.8245511,-2.0,2.0,2.0,2.0,-2.0,-2.0,0.24626283,-2.0,-2.0,0.36753893,2.0,1.3456298,-2.0,2.0,0.78250706,2.0,-2.0,-2.0,2.0,-2.0,-1.3069485,0.75048876,2.0
2025-07-18 17:21:56.025,3.1800000000000024,3180,159,-0.10513021,0.031175438,-0.11321557,0.00879168,0.06543178,-0.018145949,0.0,0.0,0.0,-0.02469196,0.22598027,-0.53674924,0.04954295,-0.12470898,-0.13272636,-0.116971515,-0.07429142,0.08273498,0.050485753,-0.17700559,0.16051118,0.07566783,-0.052313764,-0.20012553,0.06395729,0.15591368,0.30204627,-0.13034245,-0.05147213,0.24933167,-0.15367207,-0.022415806,0.043500096,0.12411715,1.3456298,-2.0,2.0,0.78250706,2.0,-2.0,-2.0,2.0,-2.0,-1.3069485,0.75048876,2.0,0.7239144,-0.0983672,2.0,0.16625099,-0.61057746,-2.0,-2.0,-0.25910944,-2.0,-0.67754245,0.063518055,2.0
2025-07-18 17:21:56.045,3.2000000000000024,3200,160,0.1774918,0.10605642,-0.2615218,0.010496507,0.10351215,0.018315349,0.0,0.0,0.0,-0.023631431,0.20616114,-0.5365659,0.10462336,-0.10262289,-0.08183859,-0.14201957,-0.12015,0.13676181,-0.0013073516,-0.1657573,0.14961429,0.11524584,-0.07345712,0.17632379,0.118199445,0.041844238,0.10323428,-0.015948275,-0.12454537,0.0015700087,-0.13362725,0.0128348805,-0.014932749,0.1089917,0.7239144,-0.0983672,2.0,0.16625099,-0.61057746,-2.0,-2.0,-0.25910944,-2.0,-0.67754245,0.063518055,2.0,0.04637578,-2.0,2.0,-0.6287758,-1.5560882,-2.0,-0.71535003,2.0,-2.0,-0.10885586,1.41029,2.0
2025-07-18 17:21:56.065,3.2200000000000024,3220,161,0.013922646,0.0928363,-0.14832309,0.024045648,0.09201026,0.03797561,0.0,0.0,0.0,-0.020481199,0.17546836,-0.5474612,0.12837341,-0.10607706,-0.107284024,-0.17300592,-0.12225857,0.19717638,-0.060788646,-0.14977847,0.17559673,0.14478211,-0.04931557,-0.12857887,0.049444623,-0.06502431,-0.10739179,-0.032993928,-0.0014764899,0.29228768,-0.14021643,0.05970296,0.15608245,0.018175017,0.04637578,-2.0,2.0,-0.6287758,-1.5560882,-2.0,-0.71535003,2.0,-2.0,-0.10885586,1.41029,2.0,-0.76110065,2.0,2.0,-1.7332889,-1.1784132,-2.0,-1.4237818,0.013790656,-2.0,2.0,-2.0,2.0
2025-07-18 17:21:56.090,3.2400000000000024,3240,162,0.31448632,-0.043531213,-0.117776714,0.0058732913,0.017214444,0.005159451,0.0,0.0,0.0,-0.01776483,0.13421358,-0.5572949,0.17090294,-0.1397602,-0.17414092,-0.19482042,-0.1432217,0.23356296,-0.112936385,-0.07422872,0.18417549,0.17873783,-0.010843692,-0.033643417,-0.041213274,-0.012693975,-0.08947669,-0.02112675,-0.05508328,-0.12073377,-0.11883223,0.24704564,-0.1034891,0.14171809,-0.76110065,2.0,2.0,-1.7332889,-1.1784132,-2.0,-1.4237818,0.013790656,-2.0,2.0,-2.0,2.0,-2.0,2.0,2.0,-2.0,-1.3595517,-0.7172849,2.0,2.0,-2.0,1.6158243,-2.0,2.0
2025-07-18 17:21:56.106,3.2600000000000025,3260,163,-0.07004251,-0.010335823,-0.07118714,-0.034744836,0.047431428,0.042217262,0.0,0.0,0.0,-0.0152003355,0.12172843,-0.5392734,0.1754321,-0.17417683,-0.22571158,-0.18541677,-0.08731992,0.25774378,-0.13825056,-0.047041442,0.16603467,0.21293573,0.05279729,0.07789029,-0.008879686,-0.052474022,-0.19768362,0.042331938,0.18705301,0.10907887,-0.07565608,0.09220617,-0.054616913,0.092089936,-2.0,2.0,2.0,-2.0,-1.3595517,-0.7172849,2.0,2.0,-2.0,1.6158243,-2.0,2.0,-2.0,2.0,2.0,-2.0,-2.0,0.89959455,2.0,0.48091024,-2.0,2.0,-2.0,2.0
2025-07-18 17:21:56.125,3.2800000000000025,3280,164,-0.094643615,-0.032783728,-0.03178901,0.020981373,0.062232018,-0.004093173,0.0,0.0,0.0,-0.013232861,0.12495855,-0.54031235,0.17826335,-0.20190503,-0.33015728,-0.12876093,-0.026641585,0.2555637,-0.17469569,-0.04733663,0.15281442,0.22369224,-0.026300503,0.032365676,0.058675986,-0.00016004125,-0.31150532,0.18785918,0.20848979,-0.014173473,-0.11037554,-0.06956531,-0.04931887,0.10814153,-2.0,2.0,2.0,-2.0,-2.0,0.89959455,2.0,0.48091024,-2.0,2.0,-2.0,2.0,-2.0,2.0,0.9731024,-2.0,-2.0,2.0,2.0,0.17200778,-2.0,2.0,-2.0,2.0
2025-07-18 17:21:56.146,3.3000000000000025,3300,165,-0.05262128,0.027365498,0.06359763,-0.016561093,0.05778234,0.017829245,0.0,0.0,0.0,-0.012977468,0.10472582,-0.523589,0.17377312,-0.21740574,-0.41370213,-0.055092394,0.049479187,0.21638203,-0.18484832,-0.03978851,0.1491081,0.24117231,-0.052826393,0.028819293,-0.04440591,-0.065934815,-0.17310388,0.1227581,0.13900223,-0.110931516,0.0034144355,0.07720081,0.066712044,-0.016706392,-2.0,2.0,0.9731024,-2.0,-2.0,2.0,2.0,0.17200778,-2.0,2.0,-2.0,2.0,-2.0,2.0,-1.4095259,-2.0,-2.0,2.0,2.0,1.8060471,0.045691643,2.0,-2.0,2.0
2025-07-18 17:21:56.166,3.3200000000000025,3320,166,-0.04574485,0.21390371,0.13443328,0.0061829756,0.01097097,-0.049449738,0.0,0.0,0.0,-0.014451085,0.092370555,-0.4862169,0.099068835,-0.24742708,-0.49664915,0.010423378,0.09340592,0.23573743,-0.15748277,-0.017632851,0.14844418,0.2522452,-0.028131038,0.13130367,-0.15093629,0.015169751,-0.21418972,0.16584899,0.11923256,0.13642874,0.11538655,0.017010307,0.07107021,0.09131158,-2.0,2.0,-1.4095259,-2.0,-2.0,2.0,2.0,1.8060471,0.045691643,2.0,-2.0,2.0,-2.0,2.0,-2.0,-1.5132266,-2.0,2.0,2.0,-1.3255714,2.0,0.43850064,-2.0,1.0189309
