openverse-orca/OrcaGym/log/simulation_log_20250721_142857.csv
timestamp,sim_time,physics_step,control_step,imu_angle_roll,imu_angle_pitch,imu_angle_yaw,imu_angular_velocity_roll,imu_angular_velocity_pitch,imu_angular_velocity_yaw,imu_acc_x,imu_acc_y,imu_acc_z,fl_joint1_pos,fl_joint1_vel,fl_joint1_torque,fl_joint2_pos,fl_joint2_vel,fl_joint2_torque,fl_joint3_pos,fl_joint3_vel,fl_joint3_torque,fr_joint1_pos,fr_joint1_vel,fr_joint1_torque,fr_joint2_pos,fr_joint2_vel,fr_joint2_torque,fr_joint3_pos,fr_joint3_vel,fr_joint3_torque,hl_joint1_pos,hl_joint1_vel,hl_joint1_torque,hl_joint2_pos,hl_joint2_vel,hl_joint2_torque,hl_joint3_pos,hl_joint3_vel,hl_joint3_torque,hr_joint1_pos,hr_joint1_vel,hr_joint1_torque,hr_joint2_pos,hr_joint2_vel,hr_joint2_torque,hr_joint3_pos,hr_joint3_vel,hr_joint3_torque,fl_force_x,fl_force_y,fl_force_z,fr_force_x,fr_force_y,fr_force_z,hl_force_x,hl_force_y,hl_force_z,hr_force_x,hr_force_y,hr_force_z,fl_hip_action,fl_thigh_action,fl_calf_action,fr_hip_action,fr_thigh_action,fr_calf_action,hl_hip_action,hl_thigh_action,hl_calf_action,hr_hip_action,hr_thigh_action,hr_calf_action
2025-07-21 14:28:57.192,0.0,0,0,-0.030147519,0.021928968,-0.03608728,0.03966949,-0.013751053,0.028566062,0.95614743,0.7038238,0.0,0.0,-5.151659e-05,0.005643355,0.0007297968,0.009368429,-0.0024341769,-0.007491197,-0.0065382593,0.008251911,0.0027534803,-0.0073895724,-0.008119842,-0.0074224384,0.065822035,0.030701501,-0.004149087,0.044769544,0.070799634,-0.017857315,-0.058544118,-0.03152277,-0.06934626,-0.055114303,-0.022908833,-0.06346385,0.0,0.0,0.0,0.0,0.0,0.0,0.0,0.0,0.0,0.0,0.0,0.0,-2.0,-2.0,-2.0,2.0,-2.0,-2.0,2.0,2.0,-2.0,-2.0,2.0,-2.0
2025-07-21 14:28:57.207,0.02,20,1,0.018268285,-0.10680086,-0.033697184,-0.04842448,0.023620937,-0.005627848,0.0,0.0,0.0,0.0,-0.012078235,-0.04092165,-0.028579215,0.0064693005,-0.05489444,-0.027588496,0.013497262,0.06436667,-0.050455563,-0.010562128,0.05889631,-0.03945788,0.029349633,-0.262728,-0.08018057,0.027825877,-0.26187935,-0.13776276,0.051227193,0.24664654,-0.17503202,-0.048219174,0.22212575,-0.18205065,-2.0,-2.0,-2.0,2.0,-2.0,-2.0,2.0,2.0,-2.0,-2.0,2.0,-2.0,-2.0,2.0,-2.0,2.0,-0.77287865,-2.0,2.0,-2.0,-2.0,-2.0,2.0,-2.0
2025-07-21 14:28:57.224,0.04,40,2,0.095063634,-0.16619262,-0.11432777,0.006155388,0.012585924,0.03451889,0.0,0.0,0.0,-1.1009574e-05,-0.039693043,-0.043520905,-0.10552827,0.028837131,-0.10408349,-0.08901435,0.032100238,0.06187687,-0.07005716,-0.018566359,0.12795411,-0.09467559,-0.10067605,0.016305938,-0.08478766,0.0895845,-0.13261022,-0.16628002,0.116270795,0.013365146,0.08037014,-0.009101749,0.04540101,-0.008723643,-2.0,2.0,-2.0,2.0,-0.77287865,-2.0,2.0,-2.0,-2.0,-2.0,2.0,-2.0,-2.0,2.0,-2.0,2.0,2.0,-2.0,2.0,0.028582975,-2.0,-2.0,-2.0,-2.0
2025-07-21 14:28:57.244,0.06,60,3,-0.045541346,-0.07299705,-0.007776735,0.006397255,-0.030465672,-0.004772892,0.0,0.0,0.0,0.00076918013,-0.041252863,-0.04262348,-0.10105965,0.03588355,-0.12798539,-0.123824745,0.029172072,0.047985878,-0.052151844,-0.018794393,0.114249036,-0.054034702,-0.024128493,0.043797906,0.105595656,0.06853474,-0.0361791,0.07765459,-0.011967087,0.020705706,0.063865274,0.011560904,-0.06747073,0.108407065,-2.0,2.0,-2.0,2.0,2.0,-2.0,2.0,0.028582975,-2.0,-2.0,-2.0,-2.0,-2.0,-2.0,-2.0,2.0,-2.0,-2.0,2.0,2.0,-2.0,-2.0,-2.0,-2.0
2025-07-21 14:28:57.263,0.08,80,4,-0.19095126,-0.14726435,0.11809021,-0.062298406,0.012127967,0.029523851,0.0,0.0,0.0,0.0018954052,-0.04228278,-0.06020917,-0.053852625,0.051439863,-0.14995696,-0.10064381,0.042422958,0.061087854,-0.036917493,-0.031726595,0.058685746,-0.0061155674,0.021197112,-0.16459997,0.060059268,0.051850412,-0.07001762,0.09231906,0.03734281,0.0029135514,0.08604738,-0.09524931,-0.17133157,0.024456287,-2.0,-2.0,-2.0,2.0,-2.0,-2.0,2.0,2.0,-2.0,-2.0,-2.0,-2.0,-2.0,2.0,-2.0,2.0,-2.0,-2.0,2.0,-2.0,-2.0,-2.0,2.0,-2.0
2025-07-21 14:28:57.289,0.1,100,5,0.003273136,-0.15663499,0.041031625,-0.0637309,-0.05322314,0.018058758,0.0,0.0,0.0,0.0011414691,-0.050959546,-0.090364784,-0.027584463,0.06365013,-0.17327209,-0.066400655,0.0564131,0.026397355,-0.032444004,-0.028233945,0.019879038,-0.0032470315,-0.015818065,-0.06284973,0.013388785,-0.043727342,-0.021204444,0.029505868,0.098739296,-0.21577786,0.023294836,0.04246671,0.05490403,0.0072594187,-2.0,2.0,-2.0,2.0,-2.0,-2.0,2.0,-2.0,-2.0,-2.0,2.0,-2.0,-2.0,-2.0,-2.0,2.0,2.0,-2.0,2.0,0.10205828,-2.0,-2.0,-2.0,-2.0
2025-07-21 14:28:57.306,0.12000000000000001,120,6,0.050560366,-0.016576879,-0.031757697,-0.058062278,-0.026050763,0.017458582,0.0,0.0,0.0,0.00037680008,-0.05041209,-0.09952511,-0.035868097,0.07051574,-0.16968004,-0.05627757,0.043009248,0.003948761,-0.048109647,-0.05298199,-0.006992445,0.009350952,0.011351994,-0.15255275,-0.11397076,0.01989412,-0.0158803,0.045774817,-0.05816077,-0.057507224,-0.013874038,-0.057774194,-0.15714498,0.061481234,-2.0,-2.0,-2.0,2.0,2.0,-2.0,2.0,0.10205828,-2.0,-2.0,-2.0,-2.0,-2.0,2.0,-2.0,2.0,-2.0,-2.0,2.0,-2.0,-2.0,-2.0,2.0,-2.0
2025-07-21 14:28:57.326,0.14,140,7,0.051793892,-0.091029614,-0.0053078122,-0.006014818,-0.05893494,0.030359643,0.0,0.0,0.0,0.0003328272,-0.06884089,-0.12880324,-0.04302234,0.06699892,-0.19237322,-0.053692248,0.041218862,-0.039808314,-0.027233278,-0.04648425,0.0023166046,-0.010866229,-0.07295302,-0.059788294,0.008556798,-0.057478048,-0.026947156,-0.030247714,0.046847526,-0.11214238,-0.00837844,-0.033665784,0.08348716,-0.024883045,-2.0,2.0,-2.0,2.0,-2.0,-2.0,2.0,-2.0,-2.0,-2.0,2.0,-2.0,-2.0,2.0,-2.0,2.0,2.0,-2.0,2.0,0.11404042,-2.0,-2.0,-2.0,-2.0
2025-07-21 14:28:57.346,0.16,160,8,-0.03912426,-0.015618657,0.009785826,-0.041331843,-0.04227149,-0.025243096,0.0,0.0,0.0,0.0008719521,-0.05508208,-0.10737656,-0.057239167,0.06941451,-0.1761076,-0.057050917,0.047974046,-0.04056129,-0.06625031,-0.067024514,-0.025843594,-0.00040102674,0.0030254433,0.0008260246,-0.031802993,0.05972427,0.10297152,0.014959801,0.059268884,0.043823656,-0.035020087,-0.016378894,-0.16544956,-0.05443975,-2.0,2.0,-2.0,2.0,2.0,-2.0,2.0,0.11404042,-2.0,-2.0,-2.0,-2.0,-2.0,-2.0,-2.0,2.0,-2.0,-2.0,2.0,2.0,-2.0,-2.0,-2.0,-2.0
2025-07-21 14:28:57.373,0.18,180,9,-0.21380705,-0.18332341,0.09725406,-0.07709971,-0.029193202,-0.012783818,0.0,0.0,0.0,0.0014900826,-0.07283307,-0.11876047,-0.049068246,0.07207567,-0.18986388,-0.046592485,0.058250707,-0.026280845,-0.102918334,-0.078454986,-0.0875186,-0.031732142,0.034093224,-0.10004669,-0.090607785,-0.027673122,-0.10846622,-0.014291141,-0.05171753,0.12135407,0.009819817,0.036576916,-0.1309902,-0.086940564,-2.0,-2.0,-2.0,2.0,-2.0,-2.0,2.0,2.0,-2.0,-2.0,-2.0,-2.0,-2.0,2.0,-2.0,2.0,-2.0,-2.0,2.0,-2.0,-2.0,-2.0,2.0,-2.0
2025-07-21 14:28:57.390,0.19999999999999998,200,10,0.0244642,-0.23371379,0.04396633,-0.06003912,-0.075630896,-0.02736586,0.0,0.0,0.0,0.00071713916,-0.07339836,-0.10124589,-0.083515085,0.09003644,-0.20193076,-0.019636001,0.080821246,-0.03862916,-0.10987025,-0.088539876,-0.09626752,-0.08371334,-0.0058013992,0.12918803,-0.025727233,0.08524759,-0.05481544,-0.04245478,0.046378344,-0.12465405,0.0057678875,-0.027948193,0.011794506,-0.0792574,-2.0,2.0,-2.0,2.0,-2.0,-2.0,2.0,-2.0,-2.0,-2.0,2.0,-2.0,-2.0,-1.0732052,-2.0,2.0,2.0,-2.0,2.0,-0.32444924,-2.0,-2.0,-2.0,-2.0
2025-07-21 14:28:57.407,0.21999999999999997,220,11,0.12072794,-0.10225551,0.022595322,-0.003066259,-0.03892292,0.037593577,0.0,0.0,0.0,-0.00054695713,-0.08666893,-0.0974048,-0.06529653,0.09475701,-0.19315195,-0.032575577,0.07807229,-0.0855286,-0.134491,-0.10010854,-0.11381274,-0.085585386,-0.07424049,0.0060785348,0.09682377,-0.02436471,0.04430708,-0.026097935,0.062066577,0.0012528511,-0.10050789,-0.101118535,-0.13195468,-0.07215379,-2.0,-1.0732052,-2.0,2.0,2.0,-2.0,2.0,-0.32444924,-2.0,-2.0,-2.0,-2.0,-2.0,-2.0,-2.0,2.0,-2.0,-2.0,2.0,2.0,-2.0,-2.0,-0.6131531,-2.0
2025-07-21 14:28:57.427,0.23999999999999996,240,12,-0.04234046,-0.12351999,0.10192692,-0.07796814,-0.076781005,0.006883675,0.0,0.0,0.0,-0.0010697806,-0.09705604,-0.11543678,-0.05857318,0.08828681,-0.20285247,-0.029118739,0.07481258,-0.04764904,-0.17195717,-0.10072049,-0.14829668,-0.1157029,-0.06738896,-0.07487171,0.012148996,-0.012022796,-0.07816154,0.035709366,-0.03470053,0.1405806,-0.050268527,-0.021032274,-0.098663986,-0.10528012,-2.0,-2.0,-2.0,2.0,-2.0,-2.0,2.0,2.0,-2.0,-2.0,-0.6131531,-2.0,-2.0,2.0,-2.0,2.0,-2.0,-2.0,2.0,-2.0,-2.0,-2.0,2.0,-2.0
2025-07-21 14:28:57.447,0.25999999999999995,260,13,0.058361575,-0.20460449,0.010005822,-0.038324192,-0.08534779,0.03165477,0.0,0.0,0.0,-0.0018416792,-0.10070743,-0.10508143,-0.0696623,0.09150538,-0.2258542,-0.0012715672,0.07569641,-0.06354067,-0.1594273,-0.099402495,-0.1333793,-0.15463617,0.008857432,0.009716435,0.023460008,-0.018295975,-0.017784657,0.030011367,0.08494445,-0.12902981,0.043407414,-0.07450655,0.06775053,-0.0072794505,-2.0,2.0,-2.0,2.0,-2.0,-2.0,2.0,-2.0,-2.0,-2.0,2.0,-2.0,-2.0,-2.0,-2.0,2.0,2.0,-2.0,2.0,-0.081523016,-2.0,-2.0,-2.0,-2.0
2025-07-21 14:28:57.473,0.27999999999999997,280,14,0.13440849,-0.06029848,-0.034651164,-0.07525235,-0.16046965,0.0269059,0.0,0.0,0.0,-0.0026746765,-0.11747886,-0.1260433,-0.038727704,0.104934335,-0.23946168,0.0003594195,0.078689426,-0.08202237,-0.16392784,-0.10808616,-0.16010119,-0.14104468,-0.03275029,-0.015793838,0.014948781,-0.022979038,-0.06495937,0.040038597,-0.009878531,0.04909413,-0.062572196,0.047363944,-0.11410982,-0.02641907,-2.0,-2.0,-2.0,2.0,2.0,-2.0,2.0,-0.081523016,-2.0,-2.0,-2.0,-2.0,-2.0,2.0,-2.0,2.0,-2.0,-2.0,2.0,-2.0,-2.0,-2.0,2.0,-2.0
2025-07-21 14:28:57.490,0.3,300,15,0.09531833,-0.07869652,-0.047948595,-0.07147533,-0.14583337,0.025405593,0.0,0.0,0.0,-0.0029117744,-0.12806079,-0.13595016,-0.034820266,0.089483574,-0.24339174,0.0047774944,0.09352639,-0.12425719,-0.18245102,-0.09828833,-0.12720366,-0.17074467,-0.03931613,-0.06889037,-0.041594855,0.07204782,0.0033463147,0.022862691,0.102168076,-0.106829055,-0.0067475084,0.07435701,0.14180133,-0.025739204,-2.0,2.0,-2.0,2.0,-2.0,-2.0,2.0,-2.0,-2.0,-2.0,2.0,-2.0,-2.0,2.0,-2.0,2.0,2.0,-2.0,2.0,-2.0,-2.0,-2.0,-2.0,-2.0
2025-07-21 14:28:57.507,0.32,320,16,0.013735478,0.13746455,-0.0059507643,-0.07914621,-0.12039836,0.04153153,0.0,0.0,0.0,-0.0028575251,-0.12435726,-0.1474489,-0.028906243,0.09148013,-0.24889055,-0.0033102017,0.11672932,-0.20397209,-0.19874647,-0.10131863,-0.14325327,-0.17339295,-0.07036599,0.024091203,0.022613285,0.059623685,-0.045234744,-0.06484598,0.020387445,-0.19794692,-0.07928971,0.055287924,-0.14569016,-0.013024752,-2.0,2.0,-2.0,2.0,2.0,-2.0,2.0,-2.0,-2.0,-2.0,-2.0,-2.0,-2.0,-2.0,-2.0,2.0,-2.0,-2.0,2.0,2.0,-2.0,-2.0,0.5831192,-2.0
2025-07-21 14:28:57.527,0.34,340,17,0.025206441,-0.040804345,0.034138907,-0.029969731,-0.10074807,-0.006109114,0.0,0.0,0.0,-0.0030115575,-0.13259253,-0.16091803,-0.033697717,0.098982945,-0.25391328,-0.004597114,0.10881737,-0.1654989,-0.231681,-0.10886086,-0.15335163,-0.16240281,-0.051339056,-0.0738923,-0.096540846,-0.01292376,-0.095528856,-0.035014648,-0.061438106,0.31311348,-0.10490561,-0.04721497,-0.03137249,-0.09068749,-2.0,-2.0,-2.0,2.0,-2.0,-2.0,2.0,2.0,-2.0,-2.0,0.5831192,-2.0,-2.0,2.0,-2.0,2.0,-2.0,-2.0,2.0,-2.0,-2.0,-2.0,2.0,-2.0
2025-07-21 14:28:57.548,0.36000000000000004,360,18,0.053019963,-0.20248386,0.052222308,-0.08365298,-0.11949156,-0.032288995,0.0,0.0,0.0,-0.003535978,-0.15442732,-0.1583444,-0.04623183,0.107970916,-0.25485477,-0.0015620246,0.11075185,-0.1190238,-0.24764985,-0.10640929,-0.12726715,-0.19183679,-0.02774598,0.051802706,-0.012171985,-0.048429135,-0.05917666,-0.017127316,0.035228625,-0.06340162,-0.009690156,0.045839086,0.13692357,-0.09997966,-2.0,2.0,-2.0,2.0,-2.0,-2.0,2.0,-2.0,-2.0,-2.0,2.0,-2.0,-2.0,-2.0,-2.0,2.0,2.0,-2.0,2.0,-0.9725191,-2.0,-2.0,-0.56891084,-2.0
2025-07-21 14:28:57.574,0.38000000000000006,380,19,0.17011636,0.034775935,-0.09535893,-0.07962118,-0.16967505,-0.01726389,0.0,0.0,0.0,-0.003788052,-0.17299852,-0.16898988,-0.037354637,0.09552332,-0.2508076,-0.028372094,0.11565771,-0.15067863,-0.24167359,-0.11995486,-0.11674596,-0.19667977,-0.07262536,-0.010979925,0.055884615,-0.090815224,-0.02956553,-0.013046858,0.062765814,-0.103287876,0.0050992765,-0.01734756,0.073846646,-0.06734658,-2.0,-2.0,-2.0,2.0,2.0,-2.0,2.0,-0.9725191,-2.0,-2.0,-0.56891084,-2.0,-2.0,2.0,-2.0,2.0,-2.0,-2.0,2.0,-2.0,-2.0,-2.0,2.0,-2.0
2025-07-21 14:28:57.591,0.4000000000000001,400,20,0.10774578,-0.17716925,-0.07740991,-0.02857974,-0.19777134,0.04122279,0.0,0.0,0.0,-0.0031407785,-0.17770389,-0.172613,-0.010560938,0.096871465,-0.23999713,-0.0106416,0.13099898,-0.18218504,-0.23732655,-0.115153365,-0.09465642,-0.20321845,0.015809052,0.060971312,0.0075666085,-0.05788295,-0.039119456,-0.006007976,0.10688857,-0.05675972,0.016569946,-0.013183326,0.10445945,0.016406013,-2.0,2.0,-2.0,2.0,-2.0,-2.0,2.0,-2.0,-2.0,-2.0,2.0,-2.0,-2.0,-2.0,-2.0,2.0,2.0,-2.0,2.0,-0.48931926,-2.0,-2.0,-2.0,-2.0
2025-07-21 14:28:57.610,0.4200000000000001,420,21,0.134048,0.10801114,-0.1290858,-0.026607169,-0.15562965,0.026409572,0.0,0.0,0.0,-0.001833061,-0.17538945,-0.19933069,-0.016365578,0.107371666,-0.24676286,-0.01729633,0.12745081,-0.1997212,-0.24914126,-0.11243396,-0.11713289,-0.20766138,0.035938635,-0.08562612,0.020370388,-0.07638662,-0.010524072,-0.034645047,-0.07150189,0.03271818,-0.030573359,-0.0010257262,-0.20877472,-0.044672694,-2.0,-2.0,-2.0,2.0,2.0,-2.0,2.0,-0.48931926,-2.0,-2.0,-2.0,-2.0,-2.0,2.0,-2.0,2.0,-2.0,-2.0,2.0,-2.0,-2.0,-2.0,2.0,-2.0
2025-07-21 14:28:57.630,0.4400000000000001,440,22,0.02876483,0.03582726,-0.06117212,0.025980856,-0.19970496,-0.02630635,0.0,0.0,0.0,-0.00038451282,-0.17749146,-0.20405096,-0.025334854,0.09179908,-0.25246513,-0.024511822,0.13974759,-0.23389192,-0.2444128,-0.11227133,-0.09759881,-0.2246478,-0.05710636,-0.03686089,-0.06134188,0.007934173,-0.030511642,0.05884878,0.055187337,-0.107681766,0.03552899,0.056253757,0.14547467,-0.10748075,-2.0,2.0,-2.0,2.0,-2.0,-2.0,2.0,-2.0,-2.0,-2.0,2.0,-2.0,-2.0,-1.2525082,-2.0,2.0,2.0,-2.0,2.0,-1.0662501,-2.0,-2.0,-1.9992524,-2.0
2025-07-21 14:28:57.653,0.46000000000000013,460,23,0.007697586,0.24381238,-0.031451274,-0.023546608,-0.116920605,0.032845244,0.0,0.0,0.0,0.0011143705,-0.19504341,-0.21126905,-0.015051893,0.10982523,-0.24466948,-0.04522938,0.14294305,-0.2508212,-0.24986544,-0.10231043,-0.09910618,-0.21962373,-0.031273328,0.015742464,0.06078489,0.047577612,-0.056043107,-0.10388832,0.028524457,-0.099985234,0.034504514,0.035732713,-0.1789548,0.08453206,-2.0,-1.2525082,-2.0,2.0,2.0,-2.0,2.0,-1.0662501,-2.0,-2.0,-1.9992524,-2.0,-2.0,0.45569217,-2.0,2.0,-2.0,-2.0,2.0,0.14284615,-2.0,-2.0,0.5999907,-2.0
2025-07-21 14:28:57.678,0.48000000000000015,480,24,0.023248222,-0.003959795,-0.027458122,-0.022316862,-0.17992246,-0.011622045,0.0,0.0,0.0,0.0024359003,-0.17842634,-0.22289877,-0.023497732,0.11465949,-0.25715634,-0.043234218,0.1243255,-0.23536794,-0.26861316,-0.10670832,-0.13230363,-0.18614665,0.025073443,0.033807397,0.04281218,0.041269735,-0.09667939,-0.015453925,0.02492557,0.14186773,-0.08012268,0.013405717,-0.010555896,0.042026527,-2.0,0.45569217,-2.0,2.0,-2.0,-2.0,2.0,0.14284615,-2.0,-2.0,0.5999907,-2.0,-2.0,2.0,-2.0,2.0,2.0,-2.0,2.0,-2.0,-2.0,-2.0,0.45328566,-2.0
2025-07-21 14:28:57.711,0.5000000000000001,500,25,0.13778736,0.07690821,-0.12370981,-0.012756136,-0.15680405,0.034594283,0.0,0.0,0.0,0.003920089,-0.19431776,-0.22805485,-0.031170195,0.10053213,-0.24922732,-0.052856136,0.1270072,-0.2178406,-0.25690153,-0.09422849,-0.1339705,-0.19955172,-0.02109855,-0.003539037,-0.05280148,0.014356825,0.1235888,-0.11268719,-0.014962914,-0.062042926,0.10415224,-0.0039961934,0.038490422,0.008176832,-2.0,2.0,-2.0,2.0,2.0,-2.0,2.0,-2.0,-2.0,-2.0,0.45328566,-2.0,-2.0,-2.0,-2.0,2.0,-2.0,-2.0,2.0,2.0,-2.0,-2.0,-2.0,-2.0
2025-07-21 14:28:57.743,0.5200000000000001,520,26,-0.065444104,-0.20307648,0.0084528,0.021210432,-0.13062362,0.04758486,0.0,0.0,0.0,0.0056538894,-0.18232521,-0.22652476,-0.02088041,0.11583487,-0.23892862,-0.047435157,0.14860307,-0.2011256,-0.26257133,-0.08832139,-0.1564778,-0.18864836,-0.050777722,-0.043350536,0.0052294005,0.08758125,0.0037774707,0.09756814,0.06992599,0.117644146,-0.06522574,-0.07709443,-0.05415013,0.016615756,-2.0,-2.0,-2.0,2.0,-2.0,-2.0,2.0,2.0,-2.0,-2.0,-2.0,-2.0,-2.0,2.0,-2.0,2.0,2.0,-2.0,2.0,-2.0,-2.0,-2.0,2.0,-2.0
2025-07-21 14:28:57.764,0.5400000000000001,540,27,0.011117861,-0.17119674,-0.057519507,-0.042979054,-0.1272648,-0.04788378,0.0,0.0,0.0,0.0067254463,-0.18009728,-0.21911411,-0.03353521,0.11962832,-0.24591906,-0.05910302,0.146545,-0.20436083,-0.2602872,-0.092928715,-0.111219354,-0.21250196,0.04760176,-0.017243546,-0.016692853,0.053595293,0.06656247,0.012461318,0.05949687,-0.08403925,-0.0027020224,-0.011573053,0.24789439,-0.051106934,-2.0,2.0,-2.0,2.0,2.0,-2.0,2.0,-2.0,-2.0,-2.0,2.0,-2.0,-2.0,-2.0,-2.0,2.0,-2.0,-2.0,2.0,2.0,-2.0,-2.0,-2.0,-2.0
2025-07-21 14:28:57.809,0.5600000000000002,560,28,-0.135354,0.0067817816,0.047832884,-0.020508206,-0.13611276,0.04542447,0.0,0.0,0.0,0.0071111196,-0.17824177,-0.21806318,-0.024806939,0.12410942,-0.2401074,-0.05417991,0.13489276,-0.1562764,-0.26641163,-0.09040427,-0.08453389,-0.2151078,0.004327908,-0.011246045,-0.004703276,0.08951887,-0.10628725,0.021151612,0.006717615,0.19145581,-0.09683664,0.06183226,-0.10526797,0.14475055,-2.0,-2.0,-2.0,2.0,-2.0,-2.0,2.0,2.0,-2.0,-2.0,-2.0,-2.0,-2.0,2.0,-2.0,2.0,-2.0,-2.0,2.0,-2.0,-2.0,-2.0,2.0,-2.0
2025-07-21 14:28:57.845,0.5800000000000002,580,29,-0.03571485,-0.1600335,0.019769473,-0.05495058,-0.1382584,-0.0056646364,0.0,0.0,0.0,0.007091717,-0.16464502,-0.23720951,-0.03806119,0.12584266,-0.26398098,-0.036661517,0.14710233,-0.13123128,-0.25409433,-0.09027156,-0.09263113,-0.20077674,-0.03219942,-0.048249457,0.0076708253,-0.055230644,-0.11037329,-0.08301516,-0.014997548,-0.038326804,0.08095561,0.030363632,0.058262255,0.04472482,-2.0,2.0,-2.0,2.0,-2.0,-2.0,2.0,-2.0,-2.0,-2.0,2.0,-2.0,-2.0,2.0,-2.0,2.0,2.0,-2.0,2.0,-2.0,-2.0,-2.0,-1.7495543,-2.0
2025-07-21 14:28:57.878,0.6000000000000002,600,30,-0.035750452,0.021488596,0.030036554,-0.024481703,-0.13466813,-0.027958566,0.0,0.0,0.0,0.007013307,-0.15716465,-0.21788102,-0.03372625,0.12982728,-0.24884771,-0.066230126,0.1372793,-0.17938665,-0.24842544,-0.0980808,-0.11974278,-0.20104292,0.030827027,0.06447847,-0.03311811,0.05550113,0.057474054,0.01422832,0.04498472,-0.11359069,0.06565343,-0.0057657147,-0.13490522,-0.05744023,-2.0,2.0,-2.0,2.0,2.0,-2.0,2.0,-2.0,-2.0,-2.0,-1.7495543,-2.0,-2.0,-2.0,-2.0,2.0,-2.0,-2.0,2.0,2.0,-2.0,-2.0,-2.0,-2.0
2025-07-21 14:28:57.897,0.6200000000000002,620,31,-0.14046669,0.044749897,0.013899365,-0.057629462,-0.19332495,0.008625426,0.0,0.0,0.0,0.0073220963,-0.16657613,-0.24049622,-0.03417956,0.14206108,-0.26956242,-0.073684566,0.12379456,-0.13864751,-0.25151742,-0.111335635,-0.19022316,-0.20350824,0.06196958,-0.110660575,0.03931588,0.03248021,-0.098681636,0.05249858,-0.021286085,0.14976417,-0.09333311,0.024365084,-0.19944026,0.038722895,-2.0,-2.0,-2.0,2.0,-2.0,-2.0,2.0,2.0,-2.0,-2.0,-2.0,-2.0,-2.0,2.0,-2.0,2.0,-2.0,-2.0,2.0,-2.0,-2.0,-2.0,2.0,-2.0
2025-07-21 14:28:57.928,0.6400000000000002,640,32,-0.097219415,0.0549919,-0.00588358,-0.09933072,-0.18155113,0.005659658,0.0,0.0,0.0,0.0072479243,-0.1617769,-0.22963275,-0.06460327,0.16049434,-0.28254893,-0.068000995,0.11681222,-0.122598484,-0.24914476,-0.102773845,-0.15218627,-0.24489033,0.07592119,0.055004347,-0.08783842,-0.033439565,-0.073269516,0.018584484,-0.06741209,-0.038548786,0.06393727,0.058472257,0.16326894,-0.11825204,-2.0,2.0,-2.0,2.0,-2.0,-2.0,2.0,-2.0,-2.0,-2.0,2.0,-2.0,-2.0,-1.2762178,-2.0,2.0,2.0,-2.0,2.0,-2.0,-2.0,-2.0,-1.9554511,-2.0
2025-07-21 14:28:57.947,0.6600000000000003,660,33,0.03719733,0.24629368,0.030205175,-0.03916254,-0.14264749,-0.04921888,0.0,0.0,0.0,0.0068429545,-0.1571115,-0.22337191,-0.0698075,0.16714953,-0.3033184,-0.0627324,0.119093195,-0.18317364,-0.2175977,-0.10101874,-0.17612426,-0.21912919,-0.027862681,-0.11520459,-0.038260322,0.037457522,0.033006813,0.00088828016,0.009528228,-0.184752,0.07820805,-0.046619818,-0.085608505,0.15052646,-2.0,-1.2762178,-2.0,2.0,2.0,-2.0,2.0,-2.0,-2.0,-2.0,-1.9554511,-2.0,-2.0,2.0,-2.0,2.0,-2.0,-2.0,2.0,-2.0,-2.0,-2.0,2.0,-2.0
2025-07-21 14:28:57.973,0.6800000000000003,680,34,0.039801337,-0.12431767,-0.037341777,0.0032220613,-0.11699111,-0.007207696,0.0,0.0,0.0,0.0066553117,-0.16407202,-0.23463471,-0.059920836,0.1449432,-0.3006493,-0.075484656,0.11393645,-0.22107834,-0.19923021,-0.10215017,-0.18040806,-0.19825986,-0.002123892,0.058896147,-0.033897355,-0.07026162,0.03798692,0.050305568,-0.009620891,-0.088645995,-0.05234178,-0.07414333,0.03777746,0.0382966,-2.0,2.0,-2.0,2.0,-2.0,-2.0,2.0,-2.0,-2.0,-2.0,2.0,-2.0,-2.0,-2.0,-2.0,2.0,2.0,-2.0,2.0,-0.9884328,-2.0,-2.0,-2.0,-2.0
2025-07-21 14:28:57.990,0.7000000000000003,700,35,0.14453718,0.063091345,-0.021500584,0.0027435203,-0.11698905,0.035489935,0.0,0.0,0.0,0.0073833475,-0.17547256,-0.24296358,-0.058163207,0.13975027,-0.29922813,-0.07240086,0.11318082,-0.24336617,-0.1975406,-0.12004617,-0.20559813,-0.19386324,0.036220785,-0.1163081,0.03429425,0.014742226,0.033874147,-0.014733305,-0.036993045,-0.017556414,-0.012978856,-0.042189937,-0.08342991,0.07375147,-2.0,-2.0,-2.0,2.0,2.0,-2.0,2.0,-0.9884328,-2.0,-2.0,-2.0,-2.0,-2.0,2.0,-2.0,2.0,-2.0,-2.0,2.0,-2.0,-2.0,-2.0,2.0,-2.0
2025-07-21 14:28:58.008,0.7200000000000003,720,36,0.064820856,-0.10536167,-0.11687767,0.00046196562,-0.0983104,0.019446313,0.0,0.0,0.0,0.008571919,-0.18005833,-0.25075504,-0.060353104,0.14352776,-0.29115918,-0.07545903,0.13415307,-0.27581716,-0.22987846,-0.10134113,-0.15909247,-0.21059053,0.016460942,0.06266435,0.037441052,-0.06837997,-0.029991716,0.0422783,0.048043672,-0.13417451,0.0011534586,-0.029532185,0.0917413,-0.020257583,-2.0,2.0,-2.0,2.0,-2.0,-2.0,2.0,-2.0,-2.0,-2.0,2.0,-2.0,-2.0,-2.0,-2.0,2.0,2.0,-2.0,2.0,-1.1839805,-2.0,-2.0,-2.0,-2.0
2025-07-21 14:28:58.028,0.7400000000000003,740,37,0.15144429,0.04102287,-0.12544924,-0.025829531,-0.19224441,-0.0060628895,0.0,0.0,0.0,0.010026808,-0.19939458,-0.2697672,-0.04500346,0.13900492,-0.2911428,-0.06477668,0.1300977,-0.29903865,-0.22431114,-0.09978871,-0.17750125,-0.20405786,0.04746054,0.024455853,0.041983277,-0.05870899,0.05897537,0.0063774507,-0.05477751,0.023354707,0.007771418,0.044949852,-0.1360738,0.00616396,-2.0,-2.0,-2.0,2.0,2.0,-2.0,2.0,-1.1839805,-2.0,-2.0,-2.0,-2.0,-2.0,2.0,-2.0,2.0,-2.0,-2.0,2.0,-2.0,-2.0,-2.0,2.0,-2.0
2025-07-21 14:28:58.048,0.7600000000000003,760,38,0.031097163,-0.16696115,-0.13746127,-0.024012895,-0.116895385,0.021247266,0.0,0.0,0.0,0.011630669,-0.1943469,-0.2660852,-0.044646755,0.12837768,-0.2908689,-0.071823224,0.14179175,-0.31317726,-0.24487919,-0.10475444,-0.14367938,-0.21503559,-0.051409926,-0.06779287,0.06771028,0.029848753,-0.044871964,0.03502173,0.0045838826,-0.041826494,-0.041707322,0.06940371,0.102586694,-0.059878632,-2.0,2.0,-2.0,2.0,-2.0,-2.0,2.0,-2.0,-2.0,-2.0,2.0,-2.0,-2.0,-2.0,-2.0,2.0,2.0,-2.0,2.0,-2.0,-2.0,-2.0,-1.3516687,-2.0
2025-07-21 14:28:58.074,0.7800000000000004,780,39,0.20009717,0.13394022,-0.09153261,-0.010223209,-0.13897371,0.010695333,0.0,0.0,0.0,0.013514071,-0.21232893,-0.27955267,-0.04249061,0.12254463,-0.29138738,-0.06752911,0.14173368,-0.33530265,-0.25179535,-0.110226825,-0.15196891,-0.22007594,-0.021869868,-0.092570305,0.0498558,-0.07090898,0.009029922,-0.0890795,-0.06855641,-0.15508685,0.0361876,-0.024725972,-0.061728764,0.05313453,-2.0,-2.0,-2.0,2.0,2.0,-2.0,2.0,-2.0,-2.0,-2.0,-1.3516687,-2.0,-2.0,2.0,-2.0,2.0,-2.0,-2.0,2.0,-2.0,-2.0,-2.0,1.26015,-2.0
2025-07-21 14:28:58.090,0.8000000000000004,800,40,0.012082207,-0.045386974,-0.10541047,0.033922322,-0.13792011,-0.035185665,0.0,0.0,0.0,0.01559126,-0.2009983,-0.28688967,-0.06475505,0.112773605,-0.28259897,-0.06789144,0.13218473,-0.35324442,-0.23637484,-0.08876868,-0.13915697,-0.22819015,-0.002058097,0.070531145,0.06277694,-0.056638546,-0.0829268,0.009939119,-0.03781161,0.0031444514,0.031536713,-0.015595665,0.037697345,-0.020722128,-2.0,2.0,-2.0,2.0,-2.0,-2.0,2.0,-2.0,-2.0,-2.0,1.26015,-2.0,-2.0,-2.0,-2.0,2.0,2.0,-2.0,2.0,-2.0,-2.0,-2.0,-0.6296695,-2.0
2025-07-21 14:28:58.108,0.8200000000000004,820,41,0.098935105,0.10284402,-0.15231965,-0.032745972,-0.14889298,0.048033092,0.0,0.0,0.0,0.017919963,-0.2106697,-0.29568395,-0.055885483,0.114416786,-0.28396553,-0.07364548,0.13856477,-0.3846167,-0.24849625,-0.08949262,-0.1358051,-0.23015398,0.041782986,0.025039136,0.040144905,0.051799044,0.017436814,-0.008322943,0.038382567,-0.12746526,0.009259189,0.0848668,0.027152173,-0.029473478,-2.0,-2.0,-2.0,2.0,2.0,-2.0,2.0,-2.0,-2.0,-2.0,-0.6296695,-2.0,-2.0,2.0,-2.0,2.0,-2.0,-2.0,2.0,-2.0,-2.0,-2.0,0.033537067,-2.0
2025-07-21 14:28:58.128,0.8400000000000004,840,42,-0.08946241,0.054863155,-0.07772828,0.032064058,-0.12157755,-0.039681714,0.0,0.0,0.0,0.02025337,-0.21332468,-0.3012005,-0.071221456,0.108165115,-0.29772642,-0.07262706,0.14651155,-0.40093946,-0.25570795,-0.083472945,-0.12920338,-0.23185325,0.016598785,0.033517264,-0.05904863,0.04924289,-0.07050581,0.07138945,-0.0069131935,0.034912,0.029520608,-0.005059528,-0.039720036,0.076699525,-2.0,2.0,-2.0,2.0,-2.0,-2.0,2.0,-2.0,-2.0,-2.0,0.033537067,-2.0,-2.0,-2.0,-2.0,2.0,2.0,-2.0,2.0,1.9184587,-2.0,-2.0,-2.0,-2.0
2025-07-21 14:28:58.155,0.8600000000000004,860,43,-0.0383994,-0.0069612507,-0.060992125,0.016321672,-0.14291781,-0.026020782,0.0,0.0,0.0,0.022538178,-0.20407186,-0.32301876,-0.06889543,0.12189008,-0.28328925,-0.08239102,0.12963009,-0.31249025,-0.2672607,-0.072426915,-0.16521025,-0.23623653,-0.016729578,-0.020918157,-0.021424582,0.031238075,0.06967094,-0.09213751,-0.08989084,0.33498195,-0.06696815,-0.006606575,-0.083836965,-0.0015603418,-2.0,-2.0,-2.0,2.0,2.0,-2.0,2.0,1.9184587,-2.0,-2.0,-2.0,-2.0,-2.0,2.0,-2.0,2.0,-2.0,-2.0,2.0,-2.0,-2.0,-2.0,-0.6598486,-2.0
2025-07-21 14:28:58.168,0.8800000000000004,880,44,-0.19259271,0.14774312,-0.06410365,-0.05326108,-0.13643645,0.03805362,0.0,0.0,0.0,0.024509938,-0.18864027,-0.3238649,-0.077847086,0.12277999,-0.29794782,-0.0807468,0.11960892,-0.23944302,-0.25543317,-0.0814001,-0.20171602,-0.23907824,0.10035879,-0.061765846,-0.08918346,0.095971845,-0.0821566,0.0130211795,0.09550408,-0.00043766844,0.08917506,0.0036183526,-0.09383267,-0.08479274,-2.0,2.0,-2.0,2.0,-2.0,-2.0,2.0,-2.0,-2.0,-2.0,-0.6598486,-2.0,-2.0,-2.0,-2.0,2.0,2.0,-2.0,2.0,2.0,-2.0,-2.0,-2.0,-2.0
2025-07-21 14:28:58.188,0.9000000000000005,900,45,-0.09460648,-0.2260833,-0.039452214,-0.041454054,-0.17508437,-0.014434212,0.0,0.0,0.0,0.026348455,-0.18262728,-0.33143666,-0.08586791,0.15448712,-0.29120582,-0.07491648,0.13780066,-0.21100709,-0.2688772,-0.095945925,-0.22627963,-0.24474998,0.035785433,-0.024879735,0.05660388,0.020873185,0.049450755,-0.006949938,0.092967845,0.1043587,0.027275471,-0.1363827,-0.036554605,0.0481831,-2.0,-2.0,-2.0,2.0,2.0,-2.0,2.0,2.0,-2.0,-2.0,-2.0,-2.0,-2.0,2.0,-2.0,2.0,-2.0,-2.0,2.0,-2.0,-2.0,-2.0,-2.0,-2.0
2025-07-21 14:28:58.209,0.9200000000000005,920,46,-0.27391866,-0.044133913,0.02903687,-0.090372354,-0.14906344,-0.0005972345,0.0,0.0,0.0,0.02738832,-0.16130657,-0.3243533,-0.083883815,0.16851373,-0.31153607,-0.074676186,0.13477853,-0.2373219,-0.25365362,-0.1202605,-0.28682312,-0.24018447,0.032808177,0.0483248,-0.023866665,0.05664088,0.004073537,-0.003156011,0.0567678,-0.084981464,-0.04608981,-0.092028916,-0.20676859,-0.010251372,-2.0,2.0,-2.0,2.0,-2.0,-2.0,2.0,-2.0,-2.0,-2.0,-2.0,-2.0,-2.0,-2.0,-2.0,2.0,2.0,-2.0,2.0,2.0,-2.0,-2.0,-2.0,-2.0
2025-07-21 14:28:58.234,0.9400000000000005,940,47,-0.014670972,-0.23940413,0.07419332,-0.028560275,-0.18093026,-0.037190836,0.0,0.0,0.0,0.027689718,-0.15438038,-0.32693365,-0.07664004,0.17967981,-0.30880037,-0.06770248,0.14843446,-0.20831415,-0.28328243,-0.12287011,-0.32004866,-0.25241345,0.029725116,-0.00016509854,0.059585895,0.09595937,0.08942756,0.010771293,0.060626663,0.041445214,-0.09585967,-0.103953734,-0.08489256,0.019764088,-2.0,-2.0,-2.0,2.0,2.0,-2.0,2.0,2.0,-2.0,-2.0,-2.0,-2.0,-2.0,2.0,-2.0,2.0,-2.0,-2.0,2.0,-2.0,-2.0,-2.0,-2.0,-2.0
2025-07-21 14:28:58.249,0.9600000000000005,960,48,-0.19719212,-0.008257862,-0.008735398,-0.0170153,-0.1305944,-0.043496307,0.0,0.0,0.0,0.02755465,-0.14120549,-0.32716644,-0.09108646,0.18012205,-0.3130648,-0.063891776,0.14647882,-0.21950465,-0.27550897,-0.12402128,-0.36215803,-0.25710946,0.035906266,0.064030245,0.044663616,-0.005108985,-0.08995856,0.04944374,0.0639698,-0.101310685,0.011574357,0.055260252,-0.13813607,0.039368648,-2.0,2.0,-2.0,2.0,-2.0,-2.0,2.0,-2.0,-2.0,-2.0,-2.0,-2.0,-2.0,-2.0,-2.0,2.0,2.0,-2.0,2.0,2.0,-2.0,-2.0,-2.0,-2.0
2025-07-21 14:28:58.274,0.9800000000000005,980,49,0.0009383931,-0.17810215,0.057086144,-0.051406153,-0.16643849,0.007960596,0.0,0.0,0.0,0.027040118,-0.13793579,-0.3241449,-0.0898713,0.19561327,-0.32374668,-0.07348618,0.13059855,-0.17257936,-0.2885287,-0.13106628,-0.37799516,-0.24424994,0.039013002,-0.07016362,0.03467157,0.021757558,0.086225584,-0.054516196,0.037396744,0.15486826,0.024916224,-0.069541864,0.013534511,-0.057201356,-2.0,-2.0,-2.0,2.0,2.0,-2.0,2.0,2.0,-2.0,-2.0,-2.0,-2.0,-2.0,2.0,-2.0,2.0,-2.0,-2.0,2.0,-2.0,-2.0,-2.0,-2.0,-2.0
2025-07-21 14:28:58.291,1.0000000000000004,1000,50,-0.14120562,-0.013660148,0.0824806,-0.079988055,-0.13424632,0.009330891,0.0,0.0,0.0,0.026225792,-0.13522601,-0.3201334,-0.09394159,0.19034676,-0.32747358,-0.07706371,0.11844328,-0.17249021,-0.26544255,-0.14523284,-0.41210783,-0.26005232,-0.037259255,0.019342683,0.037896562,0.075219266,-0.029679995,0.052994538,0.040629335,-0.0825055,0.049661487,0.024469499,-0.084721565,0.0097528985,-2.0,2.0,-2.0,2.0,-2.0,-2.0,2.0,-2.0,-2.0,-2.0,-2.0,-2.0,-2.0,-2.0,-2.0,2.0,2.0,-2.0,2.0,1.8619189,-2.0,-2.0,-2.0,-2.0
2025-07-21 14:28:58.310,1.0200000000000005,1020,51,0.07825691,-0.19465977,0.13678184,-0.07556789,-0.113398276,-0.012188115,0.0,0.0,0.0,0.025202151,-0.13900469,-0.3252946,-0.0903046,0.19876,-0.31939504,-0.07078268,0.11635923,-0.15023026,-0.28526592,-0.14625047,-0.41288072,-0.25560457,-0.007766878,-0.0059959227,-0.017035235,0.01818437,0.058434006,0.066057555,-0.059896935,0.043989383,0.0036246632,0.038656246,0.06158212,-0.055811733,-2.0,-2.0,-2.0,2.0,2.0,-2.0,2.0,1.8619189,-2.0,-2.0,-2.0,-2.0,-2.0,2.0,-2.0,2.0,-2.0,-2.0,2.0,-2.0,-2.0,-2.0,2.0,-2.0
2025-07-21 14:28:58.329,1.0400000000000005,1040,52,-0.030598903,-0.15462856,0.13978487,-0.08337192,-0.17318961,0.03287708,0.0,0.0,0.0,0.023801371,-0.1487134,-0.30397126,-0.079734646,0.20118406,-0.3342616,-0.064822234,0.12955159,-0.16374987,-0.27769864,-0.13458109,-0.3016494,-0.26745754,-0.031400464,0.014818542,-0.033493288,0.069120735,-0.083789825,0.021539122,0.08292938,-0.09315808,0.10130931,0.114211105,0.44410434,-0.1212949,-2.0,2.0,-2.0,2.0,-2.0,-2.0,2.0,-2.0,-2.0,-2.0,2.0,-2.0,-2.0,-2.0,-2.0,2.0,2.0,-2.0,2.0,-1.8519876,-2.0,-2.0,-1.3298048,-2.0
2025-07-21 14:28:58.349,1.0600000000000005,1060,53,0.16416228,0.17542076,0.097965255,-0.09960378,-0.18681781,-0.01316882,0.0,0.0,0.0,0.022291405,-0.15918034,-0.3166163,-0.07460933,0.18862493,-0.33997855,-0.075676635,0.11476692,-0.22738855,-0.2673729,-0.12058342,-0.21289024,-0.25791016,-0.049183324,-0.061947405,-0.022415271,-0.051936958,0.0060546594,-0.029784221,-0.08111241,-0.17383039,0.012178704,0.008979682,0.09688094,-0.02137294,-2.0,-2.0,-2.0,2.0,2.0,-2.0,2.0,-1.8519876,-2.0,-2.0,-1.3298048,-2.0,-2.0,2.0,-2.0,2.0,-2.0,-2.0,2.0,-2.0,-2.0,-2.0,-0.7452829,-2.0
2025-07-21 14:28:58.374,1.0800000000000005,1080,54,-0.13077997,0.07822329,0.039159354,-0.08605298,-0.16223954,-0.019974211,0.0,0.0,0.0,0.020646377,-0.1642287,-0.3182211,-0.07939063,0.19224697,-0.3476837,-0.082801536,0.11237264,-0.29517063,-0.2586808,-0.118959755,-0.19243309,-0.26318198,-0.055823162,-0.06004105,-0.08665949,-0.011260595,-0.074074365,-0.04580633,0.006426933,-0.2074004,-0.059937637,-0.041545715,-0.040145893,0.09989045,-2.0,2.0,-2.0,2.0,-2.0,-2.0,2.0,-2.0,-2.0,-2.0,-0.7452829,-2.0,-2.0,-2.0,-2.0,2.0,2.0,-2.0,2.0,0.56150895,-2.0,-2.0,-2.0,-2.0
2025-07-21 14:28:58.391,1.1000000000000005,1100,55,0.038239643,0.14816535,0.04566418,-0.09761516,-0.17695233,0.038465474,0.0,0.0,0.0,0.019065473,-0.1571323,-0.32955298,-0.08602116,0.18286812,-0.34922853,-0.108880825,0.10857212,-0.28112406,-0.27662554,-0.13045332,-0.21647568,-0.2240761,-0.027729,-0.09341927,0.05745923,-0.06809852,0.051219836,0.011116306,-0.071119055,0.16826151,-0.01897729,-0.080078706,-0.024030993,0.041605253,-2.0,-2.0,-2.0,2.0,2.0,-2.0,2.0,0.56150895,-2.0,-2.0,-2.0,-2.0,-2.0,2.0,-2.0,2.0,-2.0,-2.0,2.0,-2.0,-2.0,-2.0,-2.0,-2.0
2025-07-21 14:28:58.409,1.1200000000000006,1120,56,-0.1893232,0.19906749,0.0031975661,-0.04220986,-0.10718253,0.018187016,0.0,0.0,0.0,0.017552814,-0.16541684,-0.3300694,-0.10271307,0.20037322,-0.353702,-0.116543986,0.12088374,-0.26691136,-0.25745246,-0.13103077,-0.26310742,-0.20674136,0.068378255,0.024344658,-0.015309736,-0.03244695,-0.058852345,0.048718117,0.029164165,-0.024487995,-0.00961543,0.013577007,-0.16387112,0.09018774,-2.0,2.0,-2.0,2.0,-2.0,-2.0,2.0,-2.0,-2.0,-2.0,-2.0,-2.0,-2.0,-2.0,-2.0,2.0,2.0,-2.0,2.0,1.8052821,-2.0,-2.0,-2.0,-2.0
2025-07-21 14:28:58.429,1.1400000000000006,1140,57,-0.03287443,-0.04897888,0.09651172,-0.08545278,-0.1792619,0.045921218,0.0,0.0,0.0,0.016216505,-0.15449388,-0.34555915,-0.10429317,0.18519768,-0.37878403,-0.11569138,0.11358226,-0.22406685,-0.27991706,-0.13307208,-0.31514242,-0.19576749,-0.071347214,0.048008423,-0.040663775,0.027010635,0.068277046,-0.020851765,0.0017750657,0.0130047025,-0.07105118,-0.05493796,-0.065534726,-0.05578094,-2.0,-2.0,-2.0,2.0,2.0,-2.0,2.0,1.8052821,-2.0,-2.0,-2.0,-2.0,-2.0,2.0,-2.0,2.0,-2.0,-2.0,2.0,-2.0,-2.0,-2.0,0.74904263,-2.0
2025-07-21 14:28:58.456,1.1600000000000006,1160,58,-0.067920886,-0.1774639,0.05926075,-0.051364377,-0.18988302,0.042716015,0.0,0.0,0.0,0.014740864,-0.16008602,-0.3372846,-0.10301575,0.20138119,-0.38011262,-0.122135684,0.11973394,-0.23980677,-0.25585425,-0.13426617,-0.26769793,-0.22664419,0.076130874,0.09374908,0.0370073,-0.007912876,-0.055117067,0.07184142,0.0022208174,-0.11143046,0.011724864,0.0289023,0.055098567,-0.005761677,-2.0,2.0,-2.0,2.0,-2.0,-2.0,2.0,-2.0,-2.0,-2.0,0.74904263,-2.0,-2.0,-2.0,-2.0,2.0,2.0,-2.0,2.0,-2.0,-2.0,-2.0,-1.2642696,-2.0
2025-07-21 14:28:58.474,1.1800000000000006,1180,59,0.15253182,0.019807123,0.035049498,-0.10930497,-0.15245102,-0.011437041,0.0,0.0,0.0,0.013346817,-0.16918242,-0.35583138,-0.10353238,0.19485877,-0.38467386,-0.123100325,0.112682015,-0.27764687,-0.26121446,-0.14707844,-0.26547953,-0.23165809,-0.027390353,-0.013950215,-0.042099725,0.0062208907,0.073161885,0.0019027214,-0.031404734,-0.12787041,0.080238834,-0.08587818,0.0535005,0.044196904,-2.0,-2.0,-2.0,2.0,2.0,-2.0,2.0,-2.0,-2.0,-2.0,-1.2642696,-2.0,-2.0,2.0,-2.0,2.0,-2.0,-2.0,2.0,-2.0,-2.0,-2.0,1.0803373,-2.0
2025-07-21 14:28:58.498,1.2000000000000006,1200,60,0.028407466,-0.26556733,-0.045292623,-0.094972864,-0.16323021,-0.00886697,0.0,0.0,0.0,0.012470716,-0.17010278,-0.3381065,-0.091745295,0.19570306,-0.38982227,-0.13072471,0.13290516,-0.30991393,-0.24267653,-0.14860894,-0.24995355,-0.24819167,-0.0050572185,0.049792714,0.04750098,0.066801146,-0.07309854,0.026398137,-0.029815411,-0.13786638,-0.05928158,0.06698531,0.022971239,-0.10588643,-2.0,2.0,-2.0,2.0,-2.0,-2.0,2.0,-2.0,-2.0,-2.0,1.0803373,-2.0,-2.0,-2.0,-2.0,2.0,2.0,-2.0,2.0,-2.0,-2.0,-2.0,-0.3481957,-2.0
2025-07-21 14:28:58.546,1.2200000000000006,1220,61,0.25225928,-0.13324074,-0.007874839,-0.020158052,-0.19567987,0.04621168,0.0,0.0,0.0,0.012494622,-0.19008015,-0.3544994,-0.07847462,0.17011325,-0.37909737,-0.120617196,0.1286524,-0.3438509,-0.2573017,-0.15736279,-0.2128383,-0.26850754,-0.101856865,-0.0034933274,0.061955746,-0.009592116,0.08962866,0.013069669,-0.010167584,-0.044879433,-0.025213443,0.06639333,0.028031593,-0.105540425,-2.0,-2.0,-2.0,2.0,2.0,-2.0,2.0,-2.0,-2.0,-2.0,-0.3481957,-2.0,-2.0,2.0,-2.0,2.0,-2.0,-2.0,2.0,-2.0,-2.0,-2.0,-0.8455158,-2.0
2025-07-21 14:28:58.565,1.2400000000000007,1240,62,-0.07048196,-0.13088432,-0.031390045,-0.016671149,-0.17946492,0.022682512,0.0,0.0,0.0,0.013089239,-0.1965283,-0.34305066,-0.080712385,0.18376745,-0.37323797,-0.10723483,0.1294635,-0.37012073,-0.2488236,-0.14458176,-0.20902121,-0.26516834,-0.028769208,0.028997058,-0.033765305,-0.040774323,-0.055699587,0.031088334,-0.015873367,-0.07927118,-0.05469892,0.024559429,0.034370586,-0.034255244,-2.0,2.0,-2.0,2.0,-2.0,-2.0,2.0,-2.0,-2.0,-2.0,-0.8455158,-2.0,-2.0,-2.0,-2.0,2.0,0.8260846,-2.0,2.0,0.7480212,-2.0,-2.0,-2.0,-2.0
2025-07-21 14:28:58.590,1.2600000000000007,1260,63,0.035509586,-0.099673666,-0.047056854,-0.06734069,-0.2219788,0.0485596,0.0,0.0,0.0,0.014009889,-0.17473409,-0.35383412,-0.09259316,0.17543703,-0.38847664,-0.11683121,0.12578194,-0.32162145,-0.26500246,-0.142506,-0.22762783,-0.26211348,0.024911944,-0.08239733,0.06599556,-0.021285111,-0.07101584,-0.032548573,-0.008844986,0.1995186,-0.10542435,0.020219706,-0.108907476,0.0132804075,-2.0,-2.0,-2.0,2.0,0.8260846,-2.0,2.0,0.7480212,-2.0,-2.0,-2.0,-2.0,-2.0,2.0,-2.0,2.0,-2.0,-2.0,2.0,-2.0,-2.0,-2.0,-2.0,-2.0
2025-07-21 14:28:58.607,1.2800000000000007,1280,64,-0.20658691,0.059413873,-0.013885113,-0.040021148,-0.15703933,0.038741466,0.0,0.0,0.0,0.014728369,-0.17574465,-0.3532925,-0.09604824,0.18188977,-0.4046945,-0.113929845,0.12564158,-0.28257394,-0.2612668,-0.1357254,-0.2699648,-0.24538364,-0.03405754,-0.062484212,-0.0063190293,0.020624533,-0.03729379,0.05015251,0.07809762,0.08793718,0.04163,-0.011979234,-0.14223357,0.04253037,-2.0,2.0,-2.0,2.0,-2.0,-2.0,2.0,-2.0,-2.0,-2.0,-2.0,-2.0,-2.0,-2.0,-2.0,2.0,2.0,-2.0,2.0,2.0,-2.0,-2.0,-2.0,-2.0
2025-07-21 14:28:58.626,1.3000000000000007,1300,65,0.039033256,0.0077335928,-0.053531643,-0.04265769,-0.15446037,-0.0011629035,0.0,0.0,0.0,0.015273349,-0.16813424,-0.37336096,-0.1152593,0.19614968,-0.4096302,-0.119447865,0.117933266,-0.19018705,-0.2662784,-0.12336136,-0.31555554,-0.2598991,-0.03439086,0.029585525,0.021414597,-0.05464888,-0.012848044,-0.025256647,0.022149382,0.41355923,-0.08011419,0.008152207,-0.026297586,-0.07147212,-2.0,-2.0,-2.0,2.0,2.0,-2.0,2.0,2.0,-2.0,-2.0,-2.0,-2.0,-2.0,2.0,-2.0,2.0,-2.0,-2.0,2.0,-2.0,-2.0,-2.0,0.54615164,-2.0
2025-07-21 14:28:58.646,1.3200000000000007,1320,66,-0.054604214,0.0280048,0.00907145,-0.09028817,-0.19910693,0.03198472,0.0,0.0,0.0,0.01543917,-0.17959952,-0.38014245,-0.131808,0.1995727,-0.42369527,-0.12244599,0.10743242,-0.13904949,-0.27121034,-0.12994994,-0.2939283,-0.25646085,-0.05350591,-0.029663688,-0.048779897,-0.03845566,-0.010132203,-0.020843996,0.052913498,-0.0033399167,-0.0045922333,0.09292847,0.20629784,-0.100543715,-2.0,2.0,-2.0,2.0,-2.0,-2.0,2.0,-2.0,-2.0,-2.0,0.54615164,-2.0,-2.0,-2.0,-2.0,2.0,2.0,-2.0,2.0,-2.0,-2.0,-2.0,-2.0,-2.0
2025-07-21 14:28:58.666,1.3400000000000007,1340,67,0.044910435,0.22744773,0.011667891,-0.10463142,-0.20910557,0.015036714,0.0,0.0,0.0,0.01575576,-0.17386007,-0.38645372,-0.12817991,0.19573453,-0.42962235,-0.13022383,0.105268314,-0.19117333,-0.2385963,-0.124172896,-0.27382097,-0.26011553,0.0037205168,-0.02121192,-0.059367813,-0.06909391,0.024717275,-0.029526224,0.055981334,-0.20387886,0.08472439,-0.017585104,-0.021990694,-0.012835195,-2.0,-2.0,-2.0,2.0,2.0,-2.0,2.0,-2.0,-2.0,-2.0,-2.0,-2.0,-2.0,2.0,-2.0,2.0,-2.0,-2.0,2.0,-2.0,-2.0,-2.0,1.6267217,-2.0
2025-07-21 14:28:58.690,1.3600000000000008,1360,68,0.10043023,-0.16831973,-0.036222823,-0.0895467,-0.17650414,-0.024720186,0.0,0.0,0.0,0.016031185,-0.18035452,-0.39964357,-0.14347659,0.17472963,-0.44810978,-0.13387911,0.10937365,-0.23117839,-0.21964906,-0.12182635,-0.26694107,-0.26187885,0.03182204,-0.011846421,0.007994945,-0.055730555,-0.041759655,0.03368014,0.0013032024,-0.079656504,0.010817888,-0.042010285,0.13561782,-0.12187027,-2.0,2.0,-2.0,2.0,-2.0,-2.0,2.0,-2.0,-2.0,-2.0,1.6267217,-2.0,-2.0,2.0,-2.0,2.0,2.0,-2.0,2.0,-2.0,-2.0,-2.0,-2.0,-2.0
2025-07-21 14:28:58.709,1.3800000000000008,1380,69,0.03789507,-0.11071851,-0.020346379,-0.09770232,-0.20171021,0.028487999,0.0,0.0,0.0,0.01721212,-0.19459425,-0.39245638,-0.16371252,0.18223073,-0.44852665,-0.14271915,0.13761055,-0.27429414,-0.2199327,-0.12841235,-0.2766959,-0.27224952,0.009865737,0.020485906,-0.044295117,-0.0682564,-0.026979953,-0.10032106,0.066707194,-0.062691614,-0.073352136,-0.044060703,-0.009630278,0.028680805,-2.0,2.0,-2.0,2.0,2.0,-2.0,2.0,-2.0,-2.0,-2.0,-2.0,-2.0,-2.0,-2.0,-2.0,2.0,-2.0,-2.0,2.0,2.0,-2.0,-2.0,-2.0,-2.0
2025-07-21 14:28:58.726,1.4000000000000008,1400,70,-0.057358198,-0.19666082,-0.04188416,-0.08330073,-0.1590616,-0.048999976,0.0,0.0,0.0,0.018751087,-0.1905135,-0.40513605,-0.17604813,0.17105842,-0.4543502,-0.14806782,0.13076624,-0.2245292,-0.24875902,-0.12526757,-0.30628315,-0.25892115,0.059981007,-0.009492556,0.045240507,0.020243602,-0.013439025,0.0006276703,-0.09644244,0.31949866,-0.031331763,-0.044251703,-0.106473975,-0.0108010005,-2.0,-2.0,-2.0,2.0,-2.0,-2.0,2.0,2.0,-2.0,-2.0,-2.0,-2.0,-2.0,2.0,-2.0,2.0,2.0,-2.0,2.0,-2.0,-2.0,-2.0,0.7648722,-2.0
2025-07-21 14:28:58.746,1.4200000000000008,1420,71,0.1045703,-0.18703952,0.021039426,-0.072750874,-0.16646832,0.0052077253,0.0,0.0,0.0,0.01994397,-0.1977244,-0.39672717,-0.17168169,0.17814608,-0.44742328,-0.14013676,0.12731957,-0.1635333,-0.25317758,-0.1263872,-0.25459337,-0.28054622,0.051075652,0.080988996,-0.0092762485,0.01227886,0.016413158,0.012270971,0.08268794,-0.02766743,0.048085973,0.0014722788,0.24867219,0.011427944,-2.0,2.0,-2.0,2.0,2.0,-2.0,2.0,-2.0,-2.0,-2.0,0.7648722,-2.0,-2.0,-2.0,-2.0,2.0,-2.0,-2.0,2.0,2.0,-2.0,-2.0,-2.0,-2.0
2025-07-21 14:28:58.767,1.4400000000000008,1440,72,-0.04088313,-0.2873739,0.07132715,-0.09600275,-0.21943684,-0.02830061,0.0,0.0,0.0,0.021019237,-0.18444555,-0.4086426,-0.17901443,0.18449584,-0.44590914,-0.14687297,0.12975194,-0.13314874,-0.26216644,-0.115484126,-0.23010525,-0.26375803,0.05858296,-0.009136619,0.06718336,-0.022121005,-0.07727332,0.05148426,-0.031161774,0.094508596,-0.06762772,0.048191212,0.03641225,0.042356167,-2.0,-2.0,-2.0,2.0,-2.0,-2.0,2.0,2.0,-2.0,-2.0,-2.0,-2.0,-2.0,2.0,-2.0,2.0,2.0,-2.0,2.0,-2.0,-2.0,-2.0,-0.03270521,-2.0
2025-07-21 14:28:58.790,1.4600000000000009,1460,73,0.12274453,-0.26727283,-0.006611314,-0.12158021,-0.28265715,-0.01965625,0.0,0.0,0.0,0.02172816,-0.18216164,-0.3906568,-0.17556365,0.18603662,-0.4472653,-0.14716801,0.13033266,-0.1323702,-0.25959,-0.13314697,-0.20215568,-0.25558993,0.051634926,0.05291427,0.030574163,0.030189456,0.01149073,0.03613097,0.06830535,-0.085354514,-0.036935374,-0.029515786,0.045202427,-0.00313346,-2.0,2.0,-2.0,2.0,2.0,-2.0,2.0,-2.0,-2.0,-2.0,-0.03270521,-2.0,-2.0,-2.0,-2.0,2.0,-2.0,-2.0,2.0,2.0,-2.0,-2.0,-2.0,-2.0
2025-07-21 14:28:58.807,1.4800000000000009,1480,74,-0.0036676205,-0.2518786,0.03426887,-0.113189414,-0.30697224,-0.027716871,0.0,0.0,0.0,0.021910384,-0.18408549,-0.4076814,-0.17510128,0.17581072,-0.46130323,-0.15056899,0.12727204,-0.08657838,-0.27621672,-0.13355552,-0.20380838,-0.245307,-0.05020311,0.02144082,-0.003329617,0.04089084,-0.09426047,0.060078334,-0.031155678,0.20693026,-0.09975398,-0.03721346,-0.06307161,0.0137043055,-2.0,-2.0,-2.0,2.0,-2.0,-2.0,2.0,2.0,-2.0,-2.0,-2.0,-2.0,-2.0,2.0,-2.0,2.0,2.0,-2.0,2.0,-2.0,-2.0,-2.0,1.7614194,-2.0
2025-07-21 14:28:58.828,1.5000000000000009,1500,75,0.14579518,-0.21552612,0.049984794,-0.09350249,-0.26151863,-0.04615001,0.0,0.0,0.0,0.021778522,-0.1937829,-0.41220668,-0.18056624,0.18777822,-0.45292526,-0.15522346,0.13883969,-0.07792717,-0.25909752,-0.13575657,-0.15477909,-0.25638443,-0.037072428,-0.037941825,-0.04232087,0.0177426,0.08408492,-0.06843681,-0.019982116,-0.12278138,0.070145465,-0.055199347,0.2214459,-0.06774543,-2.0,2.0,-2.0,2.0,2.0,-2.0,2.0,-2.0,-2.0,-2.0,1.7614194,-2.0,-2.0,-2.0,-2.0,2.0,-2.0,-2.0,2.0,2.0,-2.0,-2.0,-2.0,-2.0
2025-07-21 14:28:58.847,1.520000000000001,1520,76,-0.035513163,-0.1502437,0.10832122,-0.09285887,-0.30692592,0.029776556,0.0,0.0,0.0,0.021582933,-0.18401806,-0.40751258,-0.1811241,0.18558575,-0.47123215,-0.16506436,0.12930968,-0.030303162,-0.27303237,-0.13604836,-0.11509374,-0.25598535,0.0017010608,-0.088016465,-0.021857686,0.07113822,-0.091856144,-0.07416154,-0.07195114,0.25292563,-0.00841701,-0.057243116,-0.049689643,0.037606962,-2.0,-2.0,-2.0,2.0,-2.0,-2.0,2.0,2.0,-2.0,-2.0,-2.0,-2.0,-2.0,2.0,-2.0,2.0,2.0,-2.0,2.0,-2.0,-2.0,-2.0,0.9193882,-2.0
2025-07-21 14:28:58.874,1.540000000000001,1540,77,0.10088431,-0.11809769,0.087090924,-0.121073596,-0.28076696,-0.04694406,0.0,0.0,0.0,0.02123736,-0.18509881,-0.41372916,-0.19338757,0.17387895,-0.47384602,-0.18453622,0.1193494,-0.021810282,-0.26208895,-0.117705114,-0.09155974,-0.26136562,-0.06735209,-0.07316095,0.006318493,0.04477474,0.049063224,-0.060935896,0.022514695,-0.14222087,0.090944104,-0.049282942,0.20131361,0.03779421,-2.0,2.0,-2.0,2.0,2.0,-2.0,2.0,-2.0,-2.0,-2.0,0.9193882,-2.0,-2.0,-2.0,-2.0,2.0,-2.0,-2.0,2.0,2.0,-2.0,-2.0,-2.0,-2.0
2025-07-21 14:28:58.892,1.560000000000001,1560,78,-0.038785156,-0.22545643,0.047396135,-0.16678688,-0.33121124,-0.0019678934,0.0,0.0,0.0,0.020765621,-0.19936025,-0.42767295,-0.21800902,0.17504035,-0.4992077,-0.19717585,0.123227805,0.0041332985,-0.26289314,-0.123968124,-0.08821062,-0.25216466,-0.03423406,-0.10149691,-0.029484207,-0.0130772935,0.0024107802,0.01370927,-0.07443502,0.2125681,-0.07479756,0.020517755,-0.072691664,0.106725544,-2.0,-2.0,-2.0,2.0,-2.0,-2.0,2.0,2.0,-2.0,-2.0,-2.0,-2.0,-2.0,2.0,-2.0,2.0,2.0,-2.0,2.0,-2.0,-2.0,-2.0,0.47294387,-2.0
2025-07-21 14:28:58.909,1.580000000000001,1580,79,0.10654952,-0.20045105,0.08595169,-0.1665607,-0.37392846,0.044333816,0.0,0.0,0.0,0.020211987,-0.19932221,-0.43271878,-0.2168489,0.18297812,-0.50205755,-0.2141933,0.13188453,-0.0064789816,-0.24881499,-0.12421076,-0.09997916,-0.2531766,-0.0010883852,0.056819696,-0.124473855,-0.06667115,-0.005169544,-0.06440252,0.053186238,-0.14736688,0.05838179,-0.01380026,0.11240318,-0.013250025,-2.0,2.0,-2.0,2.0,2.0,-2.0,2.0,-2.0,-2.0,-2.0,0.47294387,-2.0,-2.0,-2.0,-2.0,2.0,-2.0,-2.0,2.0,2.0,-2.0,-2.0,-2.0,-2.0
2025-07-21 14:28:58.926,1.600000000000001,1600,80,-0.029251516,-0.3094981,0.11945029,-0.16019154,-0.36572522,-0.007610922,0.0,0.0,0.0,0.019636596,-0.20630129,-0.44985563,-0.238507,0.18202509,-0.5127581,-0.24269065,0.12781805,0.008885045,-0.26346937,-0.12846507,-0.106935695,-0.23969515,0.05285485,-0.04227163,0.015975451,0.06360791,-0.05313412,0.013107045,-0.07108096,0.14551926,0.027096692,-0.017372733,-0.16545416,0.0687199,-2.0,-2.0,-2.0,2.0,-2.0,-2.0,2.0,2.0,-2.0,-2.0,-2.0,-2.0,-2.0,2.0,-2.0,2.0,2.0,-2.0,2.0,-2.0,-2.0,-2.0,-0.30762354,-2.0
2025-07-21 14:28:58.950,1.620000000000001,1620,81,0.095090374,-0.22761875,0.09831185,-0.113213465,-0.3697353,0.023917548,0.0,0.0,0.0,0.019143589,-0.19597706,-0.46845677,-0.26103583,0.18728492,-0.52245194,-0.26165146,0.1258637,-0.018391432,-0.26274908,-0.13615839,-0.12824696,-0.24255253,0.027742857,0.033153582,0.008347985,-0.07977666,-0.070044905,-0.100906715,0.06579924,-0.21476924,0.08289762,-0.01677131,-0.0070449463,-0.03497743,-2.0,2.0,-2.0,2.0,2.0,-2.0,2.0,-2.0,-2.0,-2.0,-0.30762354,-2.0,-2.0,-2.0,-2.0,2.0,-2.0,-2.0,2.0,2.0,-2.0,-2.0,-2.0,-2.0
2025-07-21 14:28:58.974,1.640000000000001,1640,82,-0.013634181,-0.40637842,0.13218144,-0.13462958,-0.4284946,-0.012089541,0.0,0.0,0.0,0.018714605,-0.19922115,-0.47100428,-0.25940612,0.1991094,-0.5317456,-0.28771666,0.122769475,0.005390605,-0.2734734,-0.12373085,-0.1717619,-0.24583845,0.06744076,-0.005211091,0.056354925,0.08233804,-0.056685396,-0.085750036,0.027703444,0.1122941,-0.10278101,-0.057159066,-0.14014974,0.073579036,-2.0,-2.0,-2.0,2.0,-2.0,-2.0,2.0,2.0,-2.0,-2.0,-2.0,-2.0,-2.0,2.0,-2.0,2.0,2.0,-2.0,2.0,-2.0,-2.0,-2.0,-0.5313231,-2.0
2025-07-21 14:28:58.991,1.660000000000001,1660,83,0.02491067,-0.3916943,0.07515996,-0.22534022,-0.4005357,-0.025569772,0.0,0.0,0.0,0.018561121,-0.20081042,-0.48458272,-0.27448142,0.18959078,-0.55422556,-0.30489203,0.13676694,0.00025041946,-0.25232378,-0.13671786,-0.18003325,-0.2539022,-0.08147369,-0.074445374,-0.04820574,-0.002568382,-0.026775653,-0.035212494,-0.03439503,-0.083006665,0.004351776,0.011649308,-0.02085258,0.022530556,-2.0,2.0,-2.0,2.0,2.0,-2.0,2.0,-2.0,-2.0,-2.0,-0.5313231,-2.0,-2.0,-2.0,-2.0,2.0,-2.0,-2.0,2.0,2.0,-2.0,-2.0,-2.0,-2.0
2025-07-21 14:28:59.008,1.680000000000001,1680,84,-0.060358033,-0.5893563,0.14046182,-0.23060974,-0.43482772,0.037150662,0.0,0.0,0.0,0.018673709,-0.21046187,-0.48351574,-0.29817855,0.20430788,-0.5635357,-0.3150158,0.13913631,0.020636754,-0.26519945,-0.1383245,-0.22171731,-0.24888568,0.02236555,-0.057345204,0.0063456944,0.07506925,-0.0075091245,-0.014246084,0.020691501,0.14468807,0.045020748,0.005712598,-0.16094573,-0.0305087,-2.0,-2.0,-2.0,2.0,-2.0,-2.0,2.0,2.0,-2.0,-2.0,-2.0,-2.0,-2.0,2.0,-2.0,2.0,2.0,-2.0,2.0,-2.0,-2.0,-2.0,-1.2841132,-2.0
2025-07-21 14:28:59.028,1.700000000000001,1700,85,0.07948152,-0.5259502,0.15017533,-0.18265966,-0.55843025,-0.04076221,0.0,0.0,0.0,0.019371163,-0.2128217,-0.49509898,-0.3017145,0.18510418,-0.57471246,-0.35661125,0.13906428,0.021121744,-0.2527423,-0.13889128,-0.2434921,-0.25200644,0.030831153,-0.051757105,-0.03449039,-0.046434637,0.0132632945,-0.11240553,0.053361837,-0.17745794,0.018149016,-0.0059178458,0.02299966,-0.07610237,-2.0,2.0,-2.0,2.0,2.0,-2.0,2.0,-2.0,-2.0,-2.0,-1.2841132,-2.0,-2.0,-2.0,-2.0,2.0,-2.0,-2.0,2.0,1.609324,-2.0,-2.0,-2.0,-2.0
2025-07-21 14:28:59.049,1.720000000000001,1720,86,0.08643992,-0.07646739,0.045717586,-0.25619397,-0.4976112,-0.010910339,0.0,0.0,0.0,0.020568736,-0.21140316,-0.4948781,-0.32653978,0.18208095,-0.57767695,-0.36184177,0.12751985,0.03529644,-0.2522856,-0.13093095,-0.27264398,-0.24536349,0.03751686,0.060948897,-0.0014435368,-0.0099844625,0.024784673,-0.07410515,-0.07497402,0.12112409,-0.01082404,-0.015575882,-0.15222225,0.016455702,-2.0,-2.0,-2.0,2.0,-2.0,-2.0,2.0,1.609324,-2.0,-2.0,-2.0,-2.0,-2.0,2.0,-2.0,2.0,2.0,-2.0,2.0,-2.0,-2.0,-2.0,1.5472246,-2.0
2025-07-21 14:28:59.074,1.740000000000001,1740,87,0.12750602,0.013180702,0.11158998,-0.23131289,-0.50023067,0.019258698,0.0,0.0,0.0,0.02119437,-0.21905777,-0.49024823,-0.33614168,0.16114758,-0.5611428,-0.38105786,0.13501908,0.018002206,-0.23303922,-0.11143615,-0.22458915,-0.24791344,0.026344981,0.034451228,-0.10706849,-0.015105685,0.06256706,-0.12007287,0.062925614,-0.12228945,0.089744605,0.010554497,0.31798342,0.014212471,-2.0,2.0,-2.0,2.0,2.0,-2.0,2.0,-2.0,-2.0,-2.0,1.5472246,-2.0,-2.0,2.0,-2.0,2.0,-2.0,-2.0,2.0,-2.0,-2.0,-2.0,-2.0,-2.0
2025-07-21 14:28:59.092,1.7600000000000011,1760,88,-0.15303682,-0.011176298,-0.11884561,-0.17852385,-0.55808324,-0.026117224,0.0,0.0,0.0,0.020042144,-0.2142322,-0.4688897,-0.36296308,0.15868255,-0.55547655,-0.3798069,0.14234039,-0.08122526,-0.22846195,-0.11939653,-0.18061376,-0.24841446,-0.00021010159,0.005294713,-0.09448529,-0.07314083,0.009463016,-0.012303853,0.05394494,-0.17005646,0.025416095,-0.053454146,-0.08684743,0.08197358,-2.0,2.0,-2.0,2.0,-2.0,-2.0,2.0,-2.0,-2.0,-2.0,-2.0,-2.0,-2.0,-0.0030232668,-2.0,2.0,2.0,-2.0,2.0,-2.0,-2.0,-2.0,-0.6749737,-2.0
2025-07-21 14:28:59.107,1.7800000000000011,1780,89,0.015617387,-0.1587003,0.03150437,-0.2278341,-0.55097866,-0.011053223,0.0,0.0,0.0,0.020485224,-0.20851342,-0.45051447,-0.3833719,0.14722896,-0.5377009,-0.38763052,0.14687541,-0.17075963,-0.22987957,-0.12427507,-0.1778067,-0.2347639,0.029700229,0.009115015,-0.028379487,0.056887466,0.08665297,-0.09668953,0.078719184,-0.20404428,-0.05143318,-0.070986845,0.06789845,-0.006604429,-2.0,-0.0030232668,-2.0,2.0,2.0,-2.0,2.0,-2.0,-2.0,-2.0,-0.6749737,-2.0,-2.0,2.0,-2.0,2.0,2.0,-2.0,2.0,-2.0,-2.0,-2.0,-0.7440399,-2.0
2025-07-21 14:28:59.128,1.8000000000000012,1800,90,0.008155034,-0.25857463,0.027991911,-0.24031273,-0.51962954,-0.04419371,0.0,0.0,0.0,0.021090204,-0.2007297,-0.42021015,-0.39925718,0.14770608,-0.5006419,-0.404072,0.14686447,-0.24699128,-0.23782085,-0.1256907,-0.1651883,-0.24986163,0.05930659,0.023455618,-0.103950866,-0.07421464,-0.00080235675,-0.032270122,-0.037633467,-0.09880668,-0.0035834706,-0.07567661,0.12177535,-0.04496316,-2.0,2.0,-2.0,2.0,2.0,-2.0,2.0,-2.0,-2.0,-2.0,-0.7440399,-2.0,-2.0,-2.0,-2.0,2.0,-2.0,-2.0,2.0,2.0,-2.0,-2.0,-2.0,-2.0
2025-07-21 14:28:59.147,1.8200000000000012,1820,91,-0.12239526,-0.18517132,0.00789986,-0.25115725,-0.60859203,0.03983355,0.0,0.0,0.0,0.021717623,-0.18638125,-0.42142165,-0.38316178,0.14827427,-0.5074939,-0.40321028,0.12449875,-0.21450181,-0.25791278,-0.12703128,-0.18815352,-0.24699686,0.008547983,-0.018209433,0.14254008,0.03167686,0.0023026946,0.034168437,0.010787122,0.28559998,0.009850333,0.053310636,-0.13418032,-0.037537735,-2.0,-2.0,-2.0,2.0,-2.0,-2.0,2.0,2.0,-2.0,-2.0,-2.0,-2.0,-2.0,2.0,-2.0,2.0,2.0,-2.0,2.0,-2.0,-2.0,-2.0,1.2906579,-2.0
2025-07-21 14:28:59.173,1.8400000000000012,1840,92,0.059792448,-0.20336021,0.017524438,-0.22283208,-0.54942805,-0.027614765,0.0,0.0,0.0,0.023424707,-0.1899573,-0.3925565,-0.37723976,0.1504969,-0.4796771,-0.39770877,0.11846638,-0.16895175,-0.26040274,-0.11830999,-0.15291378,-0.24322906,0.02774666,0.109385885,-0.0084272735,0.05623715,0.14178206,-0.057501923,0.030685019,0.023137055,0.10498931,0.010503668,0.21079974,-0.11252101,-2.0,2.0,-2.0,2.0,2.0,-2.0,2.0,-2.0,-2.0,-2.0,1.2906579,-2.0,-2.0,2.0,-2.0,2.0,-2.0,-2.0,2.0,-2.0,-2.0,-2.0,-2.0,-2.0
2025-07-21 14:28:59.190,1.8600000000000012,1860,93,-0.15847166,-0.2049426,-0.061982438,-0.23022257,-0.5773773,-0.014738409,0.0,0.0,0.0,0.024624368,-0.18694846,-0.36779863,-0.38020527,0.14436318,-0.4864923,-0.39015755,0.13274899,-0.19933179,-0.25384575,-0.1274797,-0.13762477,-0.24865666,0.09769708,0.06913814,0.021256799,-0.00064354826,0.0063640014,-0.0024529556,-0.0067771943,-0.09985547,-0.02663891,0.056041513,-0.036657177,-0.0052104774,-2.0,2.0,-2.0,2.0,-2.0,-2.0,2.0,-2.0,-2.0,-2.0,-2.0,-2.0,-2.0,-2.0,-2.0,2.0,2.0,-2.0,2.0,-2.0,-2.0,-2.0,0.6297934,-2.0
2025-07-21 14:28:59.208,1.8800000000000012,1880,94,0.14617476,-0.14462191,0.092354104,-0.24081467,-0.6057371,0.02708386,0.0,0.0,0.0,0.026601061,-0.17957988,-0.36418208,-0.3772729,0.1324925,-0.47433499,-0.3938109,0.14271751,-0.2411119,-0.24764097,-0.13101931,-0.11376805,-0.24048842,0.07162109,-0.052055426,0.04931577,0.010741652,0.059467074,0.042720206,-0.055925302,-0.20402533,0.032177728,-0.039229367,0.16208972,-0.046638254,-2.0,-2.0,-2.0,2.0,2.0,-2.0,2.0,-2.0,-2.0,-2.0,0.6297934,-2.0,-2.0,2.0,-2.0,2.0,-2.0,-2.0,2.0,-2.0,-2.0,-2.0,-2.0,-2.0
2025-07-21 14:28:59.227,1.9000000000000012,1900,95,-0.1644324,-0.13236912,-0.02797161,-0.26673943,-0.58712745,0.046839356,0.0,0.0,0.0,0.027402202,-0.1736447,-0.35738212,-0.3671756,0.12696886,-0.4628279,-0.39361748,0.13670109,-0.30799422,-0.24120256,-0.11981406,-0.11370498,-0.23629804,0.052366145,0.082551494,-0.07976222,-0.0125949085,0.009151303,0.0013356624,0.07114769,-0.14804754,0.024545904,-0.041220885,-0.064895436,0.0044681104,-2.0,2.0,-2.0,2.0,-2.0,-2.0,2.0,-2.0,-2.0,-2.0,-2.0,-2.0,-2.0,-2.0,-2.0,2.0,2.0,-2.0,2.0,-2.0,-2.0,-2.0,0.74673516,-2.0
2025-07-21 14:28:59.248,1.9200000000000013,1920,96,0.1171122,-0.13747537,0.078018405,-0.30296007,-0.6465168,0.03649864,0.0,0.0,0.0,0.028482234,-0.16250184,-0.3516273,-0.35871115,0.12106968,-0.45790797,-0.38550848,0.13075086,-0.35603544,-0.2396789,-0.119781196,-0.115913704,-0.24347739,-0.0154943345,-0.07919988,0.008712161,-0.07552174,1.9888304e-05,-0.02181345,-0.07859134,-0.16050063,0.0048614596,0.069190904,0.09922558,-0.0978834,-2.0,-2.0,-2.0,2.0,2.0,-2.0,2.0,-2.0,-2.0,-2.0,0.74673516,-2.0,-2.0,2.0,-2.0,2.0,-2.0,-2.0,2.0,-2.0,-2.0,-2.0,-2.0,-2.0
2025-07-21 14:28:59.274,1.9400000000000013,1940,97,-0.11772003,-0.0561162,-0.049011905,-0.32729277,-0.6779524,-0.0062644593,0.0,0.0,0.0,0.028739663,-0.15041111,-0.33869758,-0.3585438,0.12362572,-0.45220155,-0.38243717,0.12373471,-0.38455433,-0.24827065,-0.12121713,-0.12619713,-0.24268275,0.076084755,-0.025669225,-0.02260459,-0.037195355,-0.07797618,0.099798165,-0.040242497,-0.044408042,0.040589582,-0.018429676,-0.07707035,0.09064236,-2.0,2.0,-2.0,2.0,-2.0,-2.0,2.0,-2.0,-2.0,-2.0,-2.0,-2.0,-2.0,-2.0,-2.0,2.0,2.0,-2.0,2.0,-2.0,-2.0,-2.0,0.9710684,-2.0
2025-07-21 14:28:59.292,1.9600000000000013,1960,98,0.08739964,-0.06541435,0.102499485,-0.27728015,-0.620418,0.0069314204,0.0,0.0,0.0,0.029609473,-0.15981445,-0.33824337,-0.3433033,0.12350954,-0.4490293,-0.38707882,0.11503088,-0.39183572,-0.2542898,-0.11886899,-0.09712358,-0.24617271,0.07431601,-0.10102382,0.07126208,-0.016762199,0.11568433,-0.05901109,0.039065067,-0.10659714,-0.055098556,-0.009037833,0.14222346,0.0019268417,-2.0,-2.0,-2.0,2.0,2.0,-2.0,2.0,-2.0,-2.0,-2.0,0.9710684,-2.0,-2.0,2.0,-2.0,2.0,-2.0,-2.0,2.0,-2.0,-2.0,-2.0,-2.0,-2.0
2025-07-21 14:28:59.309,1.9800000000000013,1980,99,-0.11874402,-0.07715934,-0.08113358,-0.26716542,-0.60813874,0.04881416,0.0,0.0,0.0,0.029754627,-0.15097971,-0.33478352,-0.33169165,0.11207444,-0.4540458,-0.37135047,0.12412456,-0.40483063,-0.25094432,-0.11439025,-0.11268632,-0.2491188,-0.0019068659,-0.003251513,-0.017777363,-0.03165329,-0.034166362,0.03554083,-0.027513074,-0.050402578,-0.034665093,0.005161916,-0.16543728,0.061444636,-2.0,2.0,-2.0,2.0,-2.0,-2.0,2.0,-2.0,-2.0,-2.0,-2.0,-2.0,-2.0,-2.0,-2.0,2.0,2.0,-2.0,2.0,-2.0,-2.0,-2.0,0.85111094,-2.0
2025-07-21 14:28:59.329,2.0000000000000013,2000,100,0.15229622,-0.024017984,0.06626192,-0.32347015,-0.6028342,0.025926866,0.0,0.0,0.0,0.030629287,-0.14026819,-0.3517795,-0.33417812,0.11541113,-0.43255198,-0.37897503,0.12004312,-0.42918497,-0.2505935,-0.11445675,-0.09236292,-0.23859796,0.052564275,-0.10189509,0.039199967,0.023446318,0.06782268,-0.035813496,0.02740541,-0.052314423,-0.008272115,-0.07732621,0.058468558,-0.01599961,-2.0,-2.0,-2.0,2.0,2.0,-2.0,2.0,-2.0,-2.0,-2.0,0.85111094,-2.0,-2.0,2.0,-2.0,2.0,-2.0,-2.0,2.0,-2.0,-2.0,-2.0,-2.0,-2.0
2025-07-21 14:28:59.351,2.0200000000000014,2020,101,-0.09190401,-0.033298366,-0.097770385,-0.29085627,-0.6439005,-0.0022183927,0.0,0.0,0.0,0.030707236,-0.13661905,-0.3270801,-0.32422638,0.09688335,-0.43128702,-0.36366212,0.12404731,-0.41729566,-0.24544784,-0.114985876,-0.10136927,-0.24973716,0.014989359,0.062652394,0.010308355,0.052589335,-0.07785684,0.088976175,-0.006300668,0.025408966,0.043467205,-0.049921837,-0.14439788,0.06632904,-2.0,2.0,-2.0,2.0,-2.0,-2.0,2.0,-2.0,-2.0,-2.0,-2.0,-2.0,-2.0,-2.0,-2.0,2.0,2.0,-2.0,2.0,-2.0,-2.0,-2.0,0.81337035,-2.0
2025-07-21 14:28:59.374,2.0400000000000014,2040,102,0.1076597,-0.017229749,0.10599401,-0.3255276,-0.6963733,-0.017711012,0.0,0.0,0.0,0.031355947,-0.13318352,-0.33410752,-0.32464722,0.11132899,-0.44250432,-0.3767068,0.11441629,-0.42111677,-0.23882315,-0.111055024,-0.10347782,-0.24851358,-0.010949016,-0.10547323,0.0723324,-0.020682728,-0.011462791,-0.058296062,-0.05169896,0.07052268,0.034181476,-0.0429099,0.15583919,-0.06633919,-2.0,-2.0,-2.0,2.0,2.0,-2.0,2.0,-2.0,-2.0,-2.0,0.81337035,-2.0,-2.0,2.0,-2.0,2.0,-2.0,-2.0,2.0,-2.0,-2.0,-2.0,-2.0,-2.0
2025-07-21 14:28:59.393,2.0600000000000014,2060,103,-0.11410926,-0.034344286,-0.06149237,-0.33588678,-0.61826426,-0.021540929,0.0,0.0,0.0,0.03124142,-0.12878688,-0.3381561,-0.31130916,0.09795502,-0.43578944,-0.37381086,0.12114911,-0.42589715,-0.2398943,-0.10941053,-0.107614264,-0.23373634,0.031305175,0.09591859,-0.011750221,0.0054477793,-0.07038936,-0.014251726,-0.049098775,0.036849387,-0.061378002,0.023260683,-0.16606918,0.06426591,-2.0,2.0,-2.0,2.0,-2.0,-2.0,2.0,-2.0,-2.0,-2.0,-2.0,-2.0,-2.0,-1.9293481,-2.0,2.0,2.0,-2.0,2.0,-2.0,-2.0,-2.0,0.8196073,-2.0
2025-07-21 14:28:59.410,2.0800000000000014,2080,104,0.11755003,-0.027056437,0.1191111,-0.30188945,-0.6326561,-0.0017018771,0.0,0.0,0.0,0.031885244,-0.13616617,-0.35557446,-0.32118145,0.10698899,-0.428425,-0.37818193,0.11155681,-0.4205181,-0.23586698,-0.11953265,-0.096917994,-0.24797869,-0.018716712,-0.030390978,0.054471023,-0.06655084,0.059948534,0.025322976,0.021668898,0.01642914,-0.014620391,0.036464002,0.10341772,-0.07962685,-2.0,-1.9293481,-2.0,2.0,2.0,-2.0,2.0,-2.0,-2.0,-2.0,0.8196073,-2.0,-2.0,2.0,-2.0,2.0,-2.0,-2.0,2.0,-2.0,-2.0,-2.0,-2.0,-2.0
2025-07-21 14:28:59.430,2.1000000000000014,2100,105,-0.13218874,0.023179337,-0.12317587,-0.2822149,-0.6315306,0.023910463,0.0,0.0,0.0,0.03162013,-0.13270402,-0.33612418,-0.312056,0.09862139,-0.436489,-0.3589531,0.1304126,-0.42961577,-0.23666051,-0.116125055,-0.10493522,-0.24886614,-0.024614872,0.012074272,-0.054167684,-0.031887352,-0.0068513905,-0.030554438,0.00020223166,0.058384553,-0.031802855,-0.029212968,-0.12651855,0.012543853,-2.0,2.0,-2.0,2.0,-2.0,-2.0,2.0,-2.0,-2.0,-2.0,-2.0,-2.0,-2.0,-2.0,-2.0,2.0,2.0,-2.0,2.0,-2.0,-2.0,-2.0,0.81053483,-2.0
2025-07-21 14:28:59.452,2.1200000000000014,2120,106,0.14897354,-0.005275361,0.045968767,-0.28668854,-0.6739458,0.02752501,0.0,0.0,0.0,0.03195595,-0.13290653,-0.35061967,-0.31383356,0.10041086,-0.4349285,-0.37845916,0.11946719,-0.42137995,-0.24466065,-0.11770402,-0.10151051,-0.2509532,0.04311681,-0.06157305,0.07704638,-0.0026920277,0.06300582,-0.019849826,0.022545332,-0.018471008,-0.0047574877,0.028539106,0.19170676,0.008457513,-2.0,-2.0,-2.0,2.0,2.0,-2.0,2.0,-2.0,-2.0,-2.0,0.81053483,-2.0,-2.0,2.0,-2.0,2.0,-2.0,-2.0,2.0,-2.0,-2.0,-2.0,-2.0,-2.0
2025-07-21 14:28:59.475,2.1400000000000015,2140,107,-0.14521645,0.030621415,-0.053104613,-0.24385406,-0.62108344,-0.02803438,0.0,0.0,0.0,0.03151868,-0.1149521,-0.35743865,-0.31112114,0.09807927,-0.43863532,-0.37481922,0.118182704,-0.41134986,-0.23298638,-0.11618109,-0.11686821,-0.24668632,-0.0023434549,0.05206345,-0.10790365,0.07978045,-0.09816716,0.011870848,0.047384948,-0.039626483,-0.0038043112,0.05883483,-0.1881047,0.0022983963,-2.0,2.0,-2.0,2.0,-2.0,-2.0,2.0,-2.0,-2.0,-2.0,-2.0,-2.0,-2.0,-2.0,-2.0,2.0,2.0,-2.0,2.0,-2.0,-2.0,-2.0,0.78866,-2.0
2025-07-21 14:28:59.493,2.1600000000000015,2160,108,0.1663047,0.03975538,0.047155246,-0.26987734,-0.6925749,-0.021040613,0.0,0.0,0.0,0.031894185,-0.11365349,-0.3745129,-0.30970412,0.089290544,-0.44447383,-0.37547407,0.13008142,-0.4083962,-0.2377306,-0.109307185,-0.10355341,-0.2508278,-0.026199467,-0.11314705,-0.005578849,0.0160873,0.016721608,-0.11031623,-0.07451453,0.03687311,0.067299336,-0.03561097,0.054929677,-0.05828317,-2.0,-2.0,-2.0,2.0,2.0,-2.0,2.0,-2.0,-2.0,-2.0,0.78866,-2.0,-2.0,2.0,-2.0,2.0,-2.0,-2.0,2.0,-2.0,-2.0,-2.0,-2.0,-2.0
2025-07-21 14:28:59.511,2.1800000000000015,2180,109,-0.14009301,0.03568793,-0.0886244,-0.23935442,-0.60025525,-0.035784934,0.0,0.0,0.0,0.031429753,-0.120392896,-0.36861217,-0.301252,0.094513275,-0.45149288,-0.3596334,0.12114116,-0.4077431,-0.23707242,-0.12121146,-0.10757279,-0.25048676,-0.040459394,0.054169517,-0.06926516,0.03436783,-0.06496441,0.014624412,0.011162877,0.053002145,0.021040726,-0.05417573,-0.08263367,0.09964155,-2.0,2.0,-2.0,2.0,-2.0,-2.0,2.0,-2.0,-2.0,-2.0,-2.0,-2.0,-2.0,-1.7784997,-2.0,2.0,2.0,-2.0,2.0,-2.0,-2.0,-2.0,0.6885717,-2.0
2025-07-21 14:28:59.530,2.2000000000000015,2200,110,0.1465498,0.03795416,0.06753613,-0.3072979,-0.67397165,0.0054030684,0.0,0.0,0.0,0.031656288,-0.12812951,-0.37900457,-0.29897112,0.10182544,-0.45799056,-0.3715357,0.1179414,-0.42130765,-0.23311092,-0.11469592,-0.10617912,-0.25293314,-0.04409728,-0.102405794,0.07596851,-0.06730342,-0.029965496,-0.018261636,-0.07019247,0.053861987,0.029605515,0.008297555,0.11438555,-0.06594654,-2.0,-1.7784997,-2.0,2.0,2.0,-2.0,2.0,-2.0,-2.0,-2.0,0.6885717,-2.0,-2.0,2.0,-2.0,2.0,-2.0,-2.0,2.0,-2.0,-2.0,-2.0,-2.0,-2.0
2025-07-21 14:28:59.557,2.2200000000000015,2220,111,-0.14188679,0.05277239,-0.14816684,-0.24424934,-0.6239728,0.03186137,0.0,0.0,0.0,0.03124393,-0.1313959,-0.36910737,-0.30187076,0.10228594,-0.4613905,-0.36975843,0.13287668,-0.41607004,-0.23652875,-0.11787709,-0.118960924,-0.2472561,-0.039424997,-0.013210137,0.023730334,-0.03826402,-0.04145869,0.055331994,-0.045088932,-0.005112043,-0.03726848,-0.015982853,-0.13233453,0.041570038,-2.0,2.0,-2.0,2.0,-2.0,-2.0,2.0,-2.0,-2.0,-2.0,-2.0,-2.0,-2.0,-2.0,-2.0,2.0,2.0,-2.0,2.0,-2.0,-2.0,-2.0,0.87371504,-2.0
2025-07-21 14:28:59.573,2.2400000000000015,2240,112,0.10274301,0.10236251,0.014231999,-0.27026948,-0.5801564,-0.024358012,0.0,0.0,0.0,0.031759214,-0.121532366,-0.39107373,-0.29669994,0.10753334,-0.46854302,-0.37552258,0.120603375,-0.4216884,-0.24314338,-0.1282142,-0.11223175,-0.25367543,-0.0036647914,-0.0009394102,0.044250462,-0.07084641,0.037307743,-0.113221034,-0.043425635,0.022026302,0.074437775,-0.047752496,0.158986,-0.03446682,-2.0,-2.0,-2.0,2.0,2.0,-2.0,2.0,-2.0,-2.0,-2.0,0.87371504,-2.0,-2.0,2.0,-2.0,2.0,-2.0,-2.0,2.0,-2.0,-2.0,-2.0,-1.7770452,-2.0
2025-07-21 14:28:59.593,2.2600000000000016,2260,113,-0.12660715,0.08154081,-0.10607116,-0.31444228,-0.57692075,0.0068799765,0.0,0.0,0.0,0.031404637,-0.13401467,-0.3902398,-0.31142196,0.09716731,-0.46745956,-0.37884918,0.12198813,-0.4114926,-0.23658837,-0.10852125,-0.10192673,-0.2438113,-0.047892667,0.029927595,-0.023253012,-0.019822132,-0.012737214,-0.0042009815,0.010640276,0.07468006,-0.02846999,-0.0014722177,-0.09188584,0.016327491,-2.0,2.0,-2.0,2.0,-2.0,-2.0,2.0,-2.0,-2.0,-2.0,-1.7770452,-2.0,-2.0,1.3380641,-2.0,2.0,2.0,-2.0,2.0,-2.0,-2.0,-2.0,0.7649491,-2.0
2025-07-21 14:28:59.611,2.2800000000000016,2280,114,-0.04116973,-0.014699096,-0.03272,-0.29015702,-0.6100187,-0.026764337,0.0,0.0,0.0,0.031754848,-0.13386843,-0.3895466,-0.31521657,0.097401135,-0.47573468,-0.38689756,0.13276784,-0.39803293,-0.23767322,-0.12542637,-0.087729596,-0.24402091,0.06118415,0.024511086,-0.05854257,0.07344291,-0.026827877,0.001446657,0.07932196,-0.017052125,0.071662635,-0.026606774,0.19527808,-0.09829177,-2.0,1.3380641,-2.0,2.0,2.0,-2.0,2.0,-2.0,-2.0,-2.0,0.7649491,-2.0,-2.0,2.0,-2.0,2.0,-2.0,-2.0,2.0,-2.0,-2.0,-2.0,-2.0,-2.0
2025-07-21 14:28:59.636,2.3000000000000016,2300,115,-0.2115881,0.041163675,-0.084953815,-0.3327623,-0.56166375,0.012419307,0.0,0.0,0.0,0.03250271,-0.11659035,-0.37562922,-0.32258013,0.12208563,-0.47787806,-0.37309796,0.1433116,-0.41216388,-0.24175537,-0.12814422,-0.106053576,-0.2514577,0.08850023,0.033493333,-0.05299782,0.06275265,-0.09567691,0.09986527,0.042461496,0.059708886,-0.06782509,-0.03482072,-0.05430072,0.09134673,-2.0,2.0,-2.0,2.0,-2.0,-2.0,2.0,-2.0,-2.0,-2.0,-2.0,-2.0,-2.0,-2.0,-2.0,2.0,2.0,-2.0,2.0,-2.0,-2.0,-2.0,0.68858075,-2.0
2025-07-21 14:28:59.657,2.3200000000000016,2320,116,0.067901164,0.06315853,0.06516028,-0.2661108,-0.644967,0.01457059,1.5,0.0,0.0,0.033974238,-0.124278955,-0.38319677,-0.32609195,0.121190995,-0.47989252,-0.38957185,0.13948855,-0.40121248,-0.23380093,-0.124519914,-0.09922227,-0.24659754,-0.017177286,-0.018298985,0.10959455,-0.0761265,0.047666486,0.018748218,0.014980155,0.017752407,0.04904064,-0.02101194,0.050109778,-0.07671812,-2.0,-2.0,-2.0,2.0,2.0,-2.0,2.0,-2.0,-2.0,-2.0,0.68858075,-2.0,-2.0,2.0,-2.0,2.0,-2.0,-2.0,2.0,-2.0,-2.0,-2.0,-1.3389046,-2.0
2025-07-21 14:28:59.674,2.3400000000000016,2340,117,-0.21348979,0.05375508,-0.073979594,-0.35136905,-0.62410223,-0.03569762,1.5,0.0,0.0,0.033835683,-0.11339634,-0.37366587,-0.3345016,0.12552842,-0.48377624,-0.38210437,0.13938594,-0.4160668,-0.23830894,-0.11769676,-0.08975986,-0.24354799,0.059519485,0.061534684,-0.059052683,0.0049350485,-0.11863358,0.092903405,0.056398917,0.06004361,0.019445606,-0.019309932,-0.017332984,-0.013930596,-2.0,2.0,-2.0,2.0,-2.0,-2.0,2.0,-2.0,-2.0,-2.0,-1.3389046,-2.0,-2.0,-2.0,-2.0,2.0,-1.2319283,-2.0,2.0,2.0,-2.0,-2.0,-2.0,-2.0
2025-07-21 14:28:59.693,2.3600000000000017,2360,118,-0.18935952,0.0023509816,-0.029393928,-0.35241917,-0.57353467,-0.045024425,1.5,0.0,0.0,0.033795733,-0.11289786,-0.38558078,-0.3094509,0.122628056,-0.5104937,-0.3668541,0.11569126,-0.30618286,-0.25124735,-0.12972665,-0.13308287,-0.23233597,0.09358014,-0.08544864,0.042641375,0.080306545,0.018035356,-0.02293711,-0.013573601,0.39135265,-0.056752633,-0.04475934,-0.10607405,0.0031015468,-2.0,-2.0,-2.0,2.0,-1.2319283,-2.0,2.0,2.0,-2.0,-2.0,-2.0,-2.0,-2.0,2.0,-2.0,2.0,2.0,-2.0,2.0,-2.0,-2.0,-2.0,-1.1213574,-2.0
2025-07-21 14:28:59.712,2.3800000000000017,2380,119,-0.03815014,0.042050324,0.0034719135,-0.33338407,-0.59752727,-0.047973335,1.5,0.0,0.0,0.03464803,-0.11840134,-0.38128722,-0.31880563,0.1251804,-0.5099349,-0.3860338,0.11217554,-0.22657694,-0.24612682,-0.119686075,-0.18633814,-0.24063705,0.046248812,0.05835012,-0.064975865,-0.021007594,0.03334212,0.018465912,-0.045046855,0.11435049,0.0015890963,-0.079460815,-0.1328416,-0.029195787,-2.0,2.0,-2.0,2.0,2.0,-2.0,2.0,-2.0,-2.0,-2.0,-1.1213574,-2.0,-2.0,-2.0,-2.0,2.0,-2.0,-2.0,2.0,2.0,-2.0,-2.0,-2.0,-2.0
2025-07-21 14:28:59.731,2.4000000000000017,2400,120,-0.082387276,0.045012545,-0.036564063,-0.33618182,-0.58110493,-0.024182685,1.5,0.0,0.0,0.034378022,-0.10722143,-0.3728601,-0.32548654,0.13165092,-0.51251817,-0.3788683,0.11962358,-0.12206845,-0.25570273,-0.13064934,-0.23664431,-0.24803616,-0.006352619,-0.04008576,-0.028047701,0.051737286,-0.08212889,0.08986061,-0.08105637,0.41283798,-0.08698079,-0.028947456,-0.19109306,0.07673732,-2.0,-2.0,-2.0,2.0,-2.0,-2.0,2.0,2.0,-2.0,-2.0,-2.0,-2.0,-2.0,2.0,-2.0,2.0,2.0,-2.0,2.0,-2.0,-2.0,-2.0,1.3684983,-2.0
2025-07-21 14:28:59.759,2.4200000000000017,2420,121,0.07778186,0.07605537,0.04785268,-0.3571959,-0.6271951,-0.028870985,1.5,0.0,0.0,0.034020096,-0.13044186,-0.36304194,-0.32160664,0.12616082,-0.52383727,-0.38792062,0.12683083,-0.06517674,-0.2472875,-0.11761835,-0.20169504,-0.2638973,-0.020687029,0.028395472,0.055078592,-0.06304892,-0.0025797246,-0.10306848,0.018133981,-0.034077853,0.090235576,0.0128551405,0.25120637,-0.0869648,-2.0,2.0,-2.0,2.0,2.0,-2.0,2.0,-2.0,-2.0,-2.0,1.3684983,-2.0,-2.0,-2.0,-2.0,2.0,-2.0,-2.0,2.0,2.0,-2.0,-2.0,-2.0,-2.0
2025-07-21 14:28:59.774,2.4400000000000017,2440,122,-0.07806793,0.10582482,0.047921646,-0.37251318,-0.58446527,-0.032784697,1.5,0.0,0.0,0.032183316,-0.13380028,-0.38726354,-0.30609375,0.11574834,-0.53419834,-0.39143035,0.11680321,-0.011165865,-0.24568431,-0.11861331,-0.18184379,-0.24969742,0.06364515,-0.0101932725,0.018134842,-0.018942831,-0.023301387,0.069982275,-0.07974521,0.1981566,0.027913578,-0.017163554,-0.11564973,0.07399148,-2.0,-2.0,-2.0,2.0,-2.0,-2.0,2.0,2.0,-2.0,-2.0,-2.0,-2.0,-2.0,2.0,-2.0,2.0,2.0,-2.0,2.0,-2.0,-2.0,-2.0,-0.48794857,-2.0
2025-07-21 14:28:59.792,2.4600000000000017,2460,123,0.0804808,0.11102104,-0.010799705,-0.32170147,-0.60729486,-0.013699566,1.5,0.0,0.0,0.03053272,-0.13604473,-0.37533787,-0.3027343,0.108712725,-0.5209938,-0.40824986,0.13746491,0.010061652,-0.24583703,-0.11750754,-0.17831194,-0.25070003,0.029822491,-0.0319005,-0.073407196,0.021243293,0.0029957076,-0.024269167,0.06650192,-0.03915882,0.09183441,-0.044147447,0.04148384,0.029497242,-2.0,2.0,-2.0,2.0,2.0,-2.0,2.0,-2.0,-2.0,-2.0,-0.48794857,-2.0,-2.0,-2.0,-2.0,2.0,-2.0,-2.0,2.0,2.0,-2.0,-2.0,-2.0,-2.0
2025-07-21 14:28:59.812,2.4800000000000018,2480,124,-0.017717538,0.08924321,0.0020348239,-0.2869502,-0.60299486,0.016367115,1.5,0.0,0.0,0.029023582,-0.14629,-0.39293966,-0.31110844,0.102540866,-0.54347575,-0.42193818,0.12694894,0.025294423,-0.24483396,-0.1253804,-0.19328873,-0.24188635,0.0417882,-0.061992843,-0.034234904,0.06053777,-0.053215407,-0.03805437,-0.018005066,0.19876625,-0.04710145,-0.0012335713,-0.07018406,-0.053238332,-2.0,-2.0,-2.0,2.0,-2.0,-2.0,2.0,2.0,-2.0,-2.0,-2.0,-2.0,-2.0,2.0,-2.0,2.0,2.0,-2.0,2.0,-2.0,-2.0,-2.0,0.017516589,-2.0
2025-07-21 14:28:59.832,2.5000000000000018,2500,125,0.15176612,0.1380469,0.011774711,-0.32630676,-0.5155905,-0.045315612,1.5,0.0,0.0,0.028225724,-0.1585299,-0.39609793,-0.32053733,0.09383421,-0.5301262,-0.42502668,0.13250534,0.037687846,-0.2468461,-0.11995683,-0.18266997,-0.24892011,0.0269904,-0.06077729,-0.00022954722,-0.04112122,0.03792551,-0.063038856,0.06388615,-0.16562156,0.07654532,-0.0011037496,0.13706914,-0.093649544,-2.0,2.0,-2.0,2.0,2.0,-2.0,2.0,-2.0,-2.0,-2.0,0.017516589,-2.0,-2.0,-2.0,-2.0,2.0,-2.0,-2.0,2.0,2.0,-2.0,-2.0,-2.0,-2.0
2025-07-21 14:28:59.857,2.520000000000002,2520,126,0.016571995,0.15387195,-0.06261416,-0.26823843,-0.5938525,-0.04765359,1.5,0.0,0.0,0.027461667,-0.16378912,-0.4234322,-0.30854332,0.09125545,-0.54516566,-0.42648348,0.14544612,0.040480915,-0.24956952,-0.12605467,-0.19540693,-0.24385439,0.0628676,-0.09841285,0.05987862,0.04910777,-0.052090168,-0.059605792,0.044950716,0.1499977,-0.009010735,-0.030849487,-0.030508084,-0.011178116,-2.0,-2.0,-2.0,2.0,-2.0,-2.0,2.0,2.0,-2.0,-2.0,-2.0,-2.0,-2.0,2.0,-2.0,2.0,2.0,-2.0,2.0,-2.0,-2.0,-2.0,-0.56244874,-2.0
2025-07-21 14:28:59.875,2.540000000000002,2540,127,0.095901385,0.070171304,-0.07402958,-0.26297936,-0.5704787,0.010398843,1.5,0.0,0.0,0.027284678,-0.18017931,-0.42610568,-0.31287956,0.105398014,-0.5387845,-0.4340139,0.13405801,0.042324044,-0.23227517,-0.12679665,-0.20460315,-0.24846408,-0.03999493,-0.07078059,-0.01659759,0.0302019,0.023083454,0.018098066,-0.023205535,-0.08414547,0.048775703,0.057589706,0.054643203,0.059349835,-2.0,2.0,-2.0,2.0,2.0,-2.0,2.0,-2.0,-2.0,-2.0,-0.56244874,-2.0,-2.0,-2.0,-2.0,2.0,-2.0,-2.0,2.0,2.0,-2.0,-2.0,-2.0,-2.0
2025-07-21 14:28:59.892,2.560000000000002,2560,128,0.014236059,0.1341996,-0.03402386,-0.32445768,-0.49117768,-0.035553865,1.5,0.0,0.0,0.026977343,-0.16725305,-0.44004518,-0.32981378,0.09779975,-0.5661504,-0.4323565,0.14883745,0.051943548,-0.25554466,-0.11090849,-0.22012158,-0.23358992,0.0017337295,-0.08098016,0.076775454,0.046663225,-0.0710426,0.08033481,-0.024153642,0.19113079,-0.079389654,-0.02630737,-0.15103123,0.022339342,-2.0,-2.0,-2.0,2.0,-2.0,-2.0,2.0,2.0,-2.0,-2.0,-2.0,-2.0,-2.0,2.0,-2.0,2.0,2.0,-2.0,2.0,-2.0,-2.0,-2.0,-0.47394302,-2.0
2025-07-21 14:28:59.912,2.580000000000002,2580,129,0.022377154,0.107857235,-0.0143515505,-0.24214123,-0.4972821,-0.022603791,1.5,0.0,0.0,0.027595611,-0.17656934,-0.4483614,-0.32276806,0.10402619,-0.55376405,-0.44863757,0.13479382,0.044905674,-0.25025934,-0.11335251,-0.23012467,-0.23638411,-0.06490433,0.029584397,-0.048063505,0.07621424,0.030396296,-0.01371304,-0.038247988,-0.10135942,-0.022488588,0.042353094,0.07672841,-0.039988913,-2.0,2.0,-2.0,2.0,2.0,-2.0,2.0,-2.0,-2.0,-2.0,-0.47394302,-2.0,-2.0,-2.0,-2.0,2.0,-2.0,-2.0,2.0,2.0,-2.0,-2.0,-2.0,-2.0
2025-07-21 14:28:59.932,2.600000000000002,2600,130,-0.053813737,0.13347717,-0.046517972,-0.24542893,-0.55751187,0.013318192,1.5,0.0,0.0,0.0278368,-0.16831054,-0.4464397,-0.32902393,0.10961697,-0.5666146,-0.4460532,0.13687986,0.056717284,-0.2580571,-0.11830064,-0.24789704,-0.23766634,-0.01774611,-0.09582354,0.08610512,0.014313182,-0.042588193,0.09347562,-0.093540035,0.16060454,-0.0026774413,-0.0013574426,-0.03947347,-0.046779756,-2.0,-2.0,-2.0,2.0,-2.0,-2.0,2.0,2.0,-2.0,-2.0,-2.0,-2.0,-2.0,2.0,-2.0,2.0,2.0,-2.0,2.0,-2.0,-2.0,-2.0,0.46534368,-2.0
2025-07-21 14:28:59.957,2.620000000000002,2620,131,0.04458201,0.02023649,-0.061657663,-0.2597383,-0.5536542,-0.0060708113,1.5,0.0,0.0,0.028440861,-0.18823867,-0.45541623,-0.34029186,0.12406918,-0.57098967,-0.4569103,0.14854999,0.036359884,-0.24144161,-0.117509395,-0.22230513,-0.26099327,-0.083753794,-0.0114766015,0.017788015,-0.009926906,0.009303511,-0.09574542,0.0028051115,-0.2016494,0.040584035,0.047091246,0.20865116,-0.06341023,-2.0,2.0,-2.0,2.0,2.0,-2.0,2.0,-2.0,-2.0,-2.0,0.46534368,-2.0,-2.0,-2.0,-2.0,2.0,-2.0,-2.0,2.0,2.0,-2.0,-2.0,-2.0,-2.0
2025-07-21 14:28:59.975,2.640000000000002,2640,132,-0.062039804,0.056177527,-0.08082455,-0.26725528,-0.5168291,-0.020623825,1.5,0.0,0.0,0.028708654,-0.17681338,-0.46518415,-0.32515946,0.12862404,-0.5774844,-0.44093978,0.1442075,0.05095609,-0.25996175,-0.12269042,-0.2021939,-0.23941755,0.011662626,-0.07289815,0.08547571,-0.0047222245,-0.11813983,0.070054725,-0.016607957,0.13189015,0.017664002,0.066842824,-0.05649912,0.028706277,-2.0,-2.0,-2.0,2.0,-2.0,-2.0,2.0,2.0,-2.0,-2.0,-2.0,-2.0,-2.0,2.0,-2.0,2.0,2.0,-2.0,2.0,-2.0,-2.0,-2.0,-0.6690093,-2.0
2025-07-21 14:28:59.993,2.660000000000002,2660,133,0.025285868,0.09922575,-0.080935545,-0.2708701,-0.52677137,0.023986982,1.5,0.0,0.0,0.029257858,-0.1863736,-0.46209532,-0.33470702,0.121526584,-0.5934316,-0.4472075,0.13120414,0.03621466,-0.23768154,-0.11368339,-0.20504978,-0.24457859,0.014751382,-0.047826253,-0.10679303,0.08288002,-0.04477682,-0.021940434,0.07249895,-0.15711641,0.013716862,-0.03418324,0.07299381,-0.07721418,-2.0,2.0,-2.0,2.0,2.0,-2.0,2.0,-2.0,-2.0,-2.0,-0.6690093,-2.0,-2.0,-2.0,-2.0,2.0,-2.0,-2.0,2.0,2.0,-2.0,-2.0,-2.0,-2.0
2025-07-21 14:29:00.013,2.680000000000002,2680,134,-0.042848244,0.068842225,-0.047074627,-0.25225633,-0.49641952,-0.033101622,1.5,0.0,0.0,0.029727062,-0.18626525,-0.47742054,-0.34718645,0.13212234,-0.5988516,-0.45869917,0.13060899,0.046037517,-0.24666981,-0.115696475,-0.21294554,-0.23289871,0.022385614,-0.047601808,0.059969082,0.0009621503,-0.059004594,0.0029168818,-0.021661643,0.10181859,-0.04633866,0.067003705,-0.047339503,-0.0030337684,-2.0,-2.0,-2.0,2.0,-2.0,-2.0,2.0,2.0,-2.0,-2.0,-2.0,-2.0,-2.0,2.0,-2.0,2.0,2.0,-2.0,2.0,-2.0,-2.0,-2.0,-0.74234164,-2.0
2025-07-21 14:29:00.034,2.700000000000002,2700,135,0.016901668,0.07862658,-0.014959693,-0.27260223,-0.43876672,0.0053677536,1.5,0.0,0.0,0.03056419,-0.17906013,-0.47784334,-0.34838656,0.14395656,-0.587629,-0.45022902,0.13080108,0.02538095,-0.24352862,-0.13456263,-0.2382681,-0.24104159,-0.056888126,-0.061030533,0.0033892822,0.05351529,-0.019202666,0.036501937,0.01971539,-0.1750753,0.04014167,-0.05363191,0.015020831,-0.058683634,-2.0,2.0,-2.0,2.0,2.0,-2.0,2.0,-2.0,-2.0,-2.0,-0.74234164,-2.0,-2.0,-2.0,-2.0,2.0,-2.0,-2.0,2.0,2.0,-2.0,-2.0,-2.0,-2.0
2025-07-21 14:29:00.057,2.720000000000002,2720,136,-0.03449224,0.070870444,-0.0024915459,-0.32318413,-0.42622343,0.024184473,0.0,0.0,0.0,0.03081608,-0.18489817,-0.48025644,-0.34337306,0.13648485,-0.61494493,-0.45383042,0.12737952,0.048164,-0.24798268,-0.13633217,-0.24204189,-0.24609645,0.022995263,0.038119342,0.060646344,0.07172255,0.0045979256,0.007813276,-0.030912453,0.09818576,0.021003922,-0.00798947,-0.14911395,0.047494728,-2.0,-2.0,-2.0,2.0,-2.0,-2.0,2.0,2.0,-2.0,-2.0,-2.0,-2.0,-2.0,2.0,-2.0,2.0,2.0,-2.0,2.0,-2.0,-2.0,-2.0,-0.5546726,-2.0
2025-07-21 14:29:00.076,2.740000000000002,2740,137,-0.0030822859,0.046085883,-0.029129267,-0.24145243,-0.4371706,-0.031829085,0.0,0.0,0.0,0.03123035,-0.19299047,-0.47251183,-0.3586514,0.13862555,-0.61153615,-0.45661637,0.13111597,0.03722787,-0.24899407,-0.118786156,-0.2535462,-0.2547,0.051274177,0.07010546,-0.111583106,-0.06789715,0.09085775,0.024834234,0.085010186,-0.15196012,0.044952847,0.06942185,0.06049669,-0.07385875,-2.0,2.0,-2.0,2.0,2.0,-2.0,2.0,-2.0,-2.0,-2.0,-0.5546726,-2.0,-2.0,0.5315598,-2.0,2.0,-2.0,-2.0,2.0,2.0,-2.0,-2.0,-2.0,-2.0
2025-07-21 14:29:00.095,2.760000000000002,2760,138,-0.11695189,-0.0031500715,-0.07254401,-0.28793266,-0.44324994,0.047170483,0.0,0.0,0.0,0.031268176,-0.18453878,-0.48578173,-0.36673057,0.16283089,-0.61776775,-0.45139375,0.13490376,0.043813612,-0.25422323,-0.11734076,-0.25738317,-0.2399167,-0.03470767,0.029502057,0.03761448,-0.03230544,0.0031708074,-0.0029627548,-0.0018981264,0.091860846,-0.07359813,0.043058645,-0.074691586,0.07322717,-2.0,0.5315598,-2.0,2.0,-2.0,-2.0,2.0,2.0,-2.0,-2.0,-2.0,-2.0,-2.0,2.0,-2.0,2.0,2.0,-2.0,2.0,-2.0,-2.0,-2.0,1.9737097,-2.0
2025-07-21 14:29:00.113,2.780000000000002,2780,139,-0.0025006242,-0.051457234,0.04294353,-0.2859977,-0.449775,0.029475972,0.0,0.0,0.0,0.032073017,-0.19099857,-0.46537992,-0.38077286,0.15521339,-0.61583537,-0.47149315,0.13089728,0.03545305,-0.24660058,-0.1282177,-0.1903592,-0.25460887,-0.089704424,-0.027040016,-0.086582065,-0.06509002,0.0947759,-0.071839504,0.0022023814,-0.15816309,0.008820454,0.01117353,0.31011966,-0.0044435114,-2.0,2.0,-2.0,2.0,2.0,-2.0,2.0,-2.0,-2.0,-2.0,1.9737097,-2.0,-2.0,2.0,-2.0,2.0,-2.0,-2.0,2.0,-2.0,-2.0,-2.0,-2.0,-2.0
2025-07-21 14:29:00.134,2.800000000000002,2800,140,-0.23201019,0.0075854915,-0.111275524,-0.2678418,-0.41785762,0.010751962,0.0,0.0,0.0,0.032134805,-0.18766882,-0.4504872,-0.39099142,0.16287361,-0.6194463,-0.4645382,0.15457441,-0.056135394,-0.233876,-0.12017058,-0.12799144,-0.2599317,0.009361375,0.06384284,-0.02578484,0.0019172123,0.040166855,-0.018834578,0.04303091,-0.26946503,0.03193532,-0.05074364,-0.024428077,0.030743495,-2.0,2.0,-2.0,2.0,-2.0,-2.0,2.0,-2.0,-2.0,-2.0,-2.0,-2.0,-2.0,0.77049816,-2.0,2.0,2.0,-2.0,2.0,0.2497273,-2.0,-2.0,-2.0,-2.0
2025-07-21 14:29:00.161,2.820000000000002,2820,141,-0.027759954,-0.086910434,-0.020089652,-0.29934853,-0.47277656,0.045440618,0.0,0.0,0.0,0.03244177,-0.17709148,-0.42885223,-0.414814,0.16296919,-0.6194593,-0.48531494,0.14665781,-0.093700975,-0.25098342,-0.1299309,-0.16968901,-0.24460812,-0.06256435,0.062225007,-0.0017801253,0.057478968,0.013792047,-0.019978976,-0.014503792,-0.00930124,-0.110313214,0.037437532,-0.057642546,0.080539785,-2.0,0.77049816,-2.0,2.0,2.0,-2.0,2.0,0.2497273,-2.0,-2.0,-2.0,-2.0,-2.0,2.0,-2.0,2.0,2.0,-2.0,2.0,-2.0,-2.0,-2.0,-2.0,-2.0
2025-07-21 14:29:00.174,2.840000000000002,2840,142,0.07597319,-0.124378465,0.015230477,-0.2807887,-0.44651794,0.012950086,0.0,0.0,0.0,0.032971054,-0.18440792,-0.42098573,-0.41947624,0.15436642,-0.5861171,-0.4957163,0.14477065,-0.1337739,-0.25280327,-0.13982788,-0.22014548,-0.23672988,-0.009514043,0.04699097,-0.05962923,0.013364992,0.022604082,-0.03558706,0.012536601,-0.18671049,0.003100414,-0.062148254,-0.12848346,0.02376535,-2.0,2.0,-2.0,2.0,2.0,-2.0,2.0,-2.0,-2.0,-2.0,-2.0,-2.0,-2.0,2.0,-2.0,2.0,-2.0,-2.0,2.0,0.094384715,-2.0,-2.0,-2.0,-2.0
2025-07-21 14:29:00.193,2.860000000000002,2860,143,-0.06306272,-0.19936305,-0.00019880265,-0.3352009,-0.4672324,-0.036133785,-1.5,0.0,0.0,0.033731516,-0.19189434,-0.4009918,-0.4408834,0.17271176,-0.5900353,-0.49890256,0.14617813,-0.13906845,-0.25506103,-0.1460142,-0.27340263,-0.2341935,0.031372376,-0.0016011891,-0.046120204,-0.048334904,-0.030715233,0.01845584,-0.031382296,0.09032943,0.029393371,0.0036416613,-0.07377592,0.023012774,-2.0,2.0,-2.0,2.0,-2.0,-2.0,2.0,0.094384715,-2.0,-2.0,-2.0,-2.0,-2.0,1.9109644,-2.0,2.0,2.0,-2.0,2.0,0.52327305,-2.0,-2.0,-2.0,-2.0
2025-07-21 14:29:00.213,2.880000000000002,2880,144,-0.0012060509,-0.24688545,0.040875223,-0.37536892,-0.48224735,-0.038551774,-1.5,0.0,0.0,0.03478425,-0.17452396,-0.38043752,-0.44960213,0.17084067,-0.5695741,-0.4913154,0.13755727,-0.0881753,-0.2652272,-0.13853009,-0.32252926,-0.2382707,-0.0011571293,0.05890376,-0.058012567,0.034391284,0.02063014,0.027681546,0.056399107,0.10162964,-0.057448976,-0.024114462,-0.07757437,0.021484844,-2.0,1.9109644,-2.0,2.0,2.0,-2.0,2.0,0.52327305,-2.0,-2.0,-2.0,-2.0,-2.0,-2.0,-2.0,2.0,2.0,-2.0,2.0,0.46433395,-2.0,-2.0,-1.34397,-2.0
2025-07-21 14:29:00.239,2.900000000000002,2900,145,0.28927347,-0.13891421,0.14554839,-0.30705717,-0.51461625,0.010308655,-1.5,0.0,0.0,0.03572185,-0.18197182,-0.3760508,-0.4138094,0.1644546,-0.54078543,-0.50376695,0.13719867,-0.0393183,-0.26457807,-0.1440314,-0.3300321,-0.24454379,-0.017810538,-0.033759333,0.113745004,-0.04905135,0.030052647,0.03564478,0.021361638,0.19820364,0.013831558,-0.049649723,0.03424836,0.04245444,-2.0,-2.0,-2.0,2.0,2.0,-2.0,2.0,0.46433395,-2.0,-2.0,-1.34397,-2.0,-2.0,2.0,-2.0,2.0,0.82453346,-2.0,2.0,-2.0,-2.0,-2.0,0.46671113,-2.0
2025-07-21 14:29:00.257,2.920000000000002,2920,146,0.18832357,-0.1748771,0.13780789,-0.2968196,-0.49286357,0.011050984,-1.5,0.0,0.0,0.0355525,-0.18381299,-0.36584198,-0.40746167,0.14260556,-0.50861543,-0.5211941,0.1321405,-0.046571657,-0.23818724,-0.12400366,-0.28871372,-0.2690338,0.00025961234,0.119810835,0.071683995,-0.060710303,0.06481387,-0.09517187,0.05396309,-0.14107506,8.566723e-05,-0.014096464,0.14112034,-0.030359808,-2.0,2.0,-2.0,2.0,0.82453346,-2.0,2.0,-2.0,-2.0,-2.0,0.46671113,-2.0,-2.0,2.0,-2.0,2.0,2.0,-2.0,2.0,-2.0,-2.0,-2.0,-1.9912509,-2.0
2025-07-21 14:29:00.276,2.940000000000002,2940,147,0.149853,-0.182865,0.07697764,-0.28557745,-0.53838956,0.025202204,-1.5,0.0,0.0,0.03479124,-0.1794608,-0.3321512,-0.39818454,0.12886788,-0.46396166,-0.54126644,0.15077507,-0.10681365,-0.24392761,-0.13429895,-0.2539395,-0.26184464,0.06121266,0.0689374,-0.014447343,0.04851667,0.102120385,-0.07711529,-0.044964716,-0.22601788,0.024754917,-0.027754178,0.028307047,0.07638169,-2.0,2.0,-2.0,2.0,2.0,-2.0,2.0,-2.0,-2.0,-2.0,-1.9912509,-2.0,-2.0,-2.0,-2.0,2.0,2.0,-2.0,2.0,2.0,-2.0,-2.0,-2.0,-2.0
2025-07-21 14:29:00.296,2.960000000000002,2960,148,0.15440206,-0.2027063,0.15871416,-0.36487043,-0.59359497,-0.024571644,-1.5,0.0,0.0,0.034811217,-0.17604001,-0.3410858,-0.37846816,0.120338775,-0.4354327,-0.5543844,0.13325821,-0.090435624,-0.24452876,-0.12795295,-0.27024117,-0.2435751,0.0029154255,-0.12305947,0.08336033,-0.015548052,0.07231708,0.02032755,-0.05294831,0.23382746,-0.0046833684,0.015192808,-0.13940777,0.0009512475,-2.0,-2.0,-2.0,2.0,2.0,-2.0,2.0,2.0,-2.0,-2.0,-2.0,-2.0,-2.0,2.0,-2.0,2.0,2.0,-2.0,2.0,-2.0,-2.0,-2.0,-0.43664017,-2.0
2025-07-21 14:29:00.315,2.980000000000002,2980,149,0.13208152,-0.19641823,0.0656567,-0.29412684,-0.60663015,0.023789247,-1.5,0.0,0.0,0.035185985,-0.18927823,-0.31734994,-0.3663834,0.117285326,-0.40137756,-0.5750643,0.13084763,-0.08106391,-0.25151184,-0.13569146,-0.2599553,-0.25274387,0.030496191,0.11601397,0.01786493,-0.08480418,0.04022182,-0.05698311,0.034301702,-0.14657634,-0.015129298,0.0120575875,0.027226528,-0.0625988,-2.0,2.0,-2.0,2.0,2.0,-2.0,2.0,-2.0,-2.0,-2.0,-0.43664017,-2.0,-2.0,-2.0,-2.0,2.0,-2.0,-2.0,2.0,0.19619064,-2.0,-2.0,-2.0,-2.0
2025-07-21 14:29:00.340,3.000000000000002,3000,150,0.06861629,-0.19115646,0.0067490567,-0.34533736,-0.6614401,0.033698343,-1.5,0.0,0.0,0.035621136,-0.17915359,-0.32199377,-0.35078147,0.09816653,-0.4027333,-0.5296288,0.14347064,-0.087234125,-0.24295136,-0.12326199,-0.26573935,-0.24379611,-0.028299604,-0.014358838,0.10356407,-0.08945721,-0.018583078,0.09248013,0.013252396,0.018013371,0.045879647,-0.0403163,-0.07467416,-0.019996041,-2.0,-2.0,-2.0,2.0,-2.0,-2.0,2.0,0.19619064,-2.0,-2.0,-2.0,-2.0,-2.0,2.0,-2.0,2.0,2.0,-2.0,2.0,-2.0,-2.0,-2.0,-0.7695345,-2.0
2025-07-21 14:29:00.358,3.0200000000000022,3020,151,0.0836897,-0.21291822,0.09533634,-0.35607564,-0.6468292,0.0435923,-1.5,0.0,0.0,0.036713645,-0.16878428,-0.3092344,-0.34374425,0.09663311,-0.38482994,-0.509671,0.13354921,-0.11717031,-0.24280861,-0.11295962,-0.2703076,-0.23990163,0.024393853,-0.015615871,-0.004257077,0.000712729,0.026354674,0.06988247,-0.04235671,-0.19614081,0.0033143538,0.009061873,0.021229792,-0.068773344,-2.0,2.0,-2.0,2.0,2.0,-2.0,2.0,-2.0,-2.0,-2.0,-0.7695345,-2.0,-2.0,-2.0,-2.0,2.0,-2.0,-2.0,2.0,2.0,-2.0,-2.0,-2.0,-2.0
2025-07-21 14:29:00.378,3.0400000000000023,3040,152,0.014019536,-0.09402191,0.022633277,-0.30918792,-0.67275304,-0.0027187262,-1.5,0.0,0.0,0.037821446,-0.16663864,-0.32691476,-0.33523208,0.10099834,-0.39519176,-0.4780271,0.13370089,-0.08344433,-0.2576222,-0.113020755,-0.27440017,-0.2504981,0.06851326,-0.047230944,0.12193866,0.043742925,0.003995052,0.18550593,-0.07532096,0.1621374,0.00851413,-0.043855336,-0.12326171,0.0015624296,-2.0,-2.0,-2.0,2.0,-2.0,-2.0,2.0,2.0,-2.0,-2.0,-2.0,-2.0,-2.0,2.0,-2.0,2.0,2.0,-2.0,2.0,-2.0,-2.0,-2.0,0.70254666,-2.0
2025-07-21 14:29:00.398,3.0600000000000023,3060,153,0.08491054,-0.2001134,0.0032834185,-0.3243173,-0.7034149,0.022723068,-1.5,0.0,0.0,0.039603706,-0.16192612,-0.2924172,-0.32215473,0.09143484,-0.37941054,-0.4613137,0.13550417,-0.07162038,-0.24342676,-0.09960324,-0.2381556,-0.24316558,-0.011429585,0.050073005,-0.07435708,0.0066198637,0.028553378,0.034418613,0.01997829,-0.10662205,-0.003073002,-0.05131194,0.22719796,-0.011043998,-2.0,2.0,-2.0,2.0,2.0,-2.0,2.0,-2.0,-2.0,-2.0,0.70254666,-2.0,-2.0,-2.0,-2.0,2.0,-2.0,-2.0,2.0,2.0,-2.0,-2.0,-2.0,-2.0
2025-07-21 14:29:00.424,3.0800000000000023,3080,154,0.01112521,-0.081557825,-0.08493237,-0.37767917,-0.6862505,-0.022435978,-1.5,0.0,0.0,0.040857024,-0.13746743,-0.3068147,-0.31021348,0.10314987,-0.3853365,-0.43903697,0.11861177,-0.016125266,-0.2615615,-0.10228171,-0.20885107,-0.2534349,0.07388585,-0.019496923,-0.01989632,0.01164162,-0.07684351,0.03609118,-0.029377976,0.14901517,-0.10258369,0.01593031,-0.057264175,0.036131073,-2.0,-2.0,-2.0,2.0,-2.0,-2.0,2.0,2.0,-2.0,-2.0,-2.0,-2.0,-2.0,2.0,-2.0,2.0,2.0,-2.0,2.0,-2.0,-2.0,-2.0,0.20658734,-2.0
2025-07-21 14:29:00.443,3.1000000000000023,3100,155,0.08435339,-0.107659385,0.03536291,-0.33734927,-0.6480921,0.010178175,0.0,0.0,0.0,0.04262293,-0.14133236,-0.31184533,-0.3238068,0.09037308,-0.37087932,-0.43265232,0.12295086,-0.013840492,-0.24718796,-0.1005248,-0.1855581,-0.25082254,-0.061770294,0.04867022,0.043404043,0.010119367,0.007024132,-0.05448454,-0.049396086,-0.030739073,-0.032357644,-0.008823974,0.061404403,0.017411573,-2.0,2.0,-2.0,2.0,2.0,-2.0,2.0,-2.0,-2.0,-2.0,0.20658734,-2.0,-2.0,-2.0,-2.0,2.0,-2.0,-2.0,2.0,2.0,-2.0,-2.0,-2.0,-2.0
2025-07-21 14:29:00.460,3.1200000000000023,3120,156,-0.05964525,-0.05332738,-0.10224731,-0.3389427,-0.63245255,-0.020515269,0.0,0.0,0.0,0.044142928,-0.12021311,-0.31561232,-0.30668116,0.08784005,-0.39393443,-0.4086053,0.11652706,0.02250979,-0.25593013,-0.10119883,-0.19334719,-0.2309938,0.036351945,-0.08401021,0.008068935,-0.06428454,-0.050514035,0.062356643,0.033305895,0.24894749,0.03753138,0.022866936,-0.14542943,0.07432948,-2.0,-2.0,-2.0,2.0,-2.0,-2.0,2.0,2.0,-2.0,-2.0,-2.0,-2.0,-2.0,2.0,-2.0,2.0,2.0,-2.0,2.0,-2.0,-2.0,-2.0,0.30159733,-2.0
2025-07-21 14:29:00.480,3.1400000000000023,3140,157,0.08261738,-0.07110495,-0.01853135,-0.2933657,-0.68031317,-0.004404575,0.0,0.0,0.0,0.045801956,-0.1306317,-0.28280824,-0.3092729,0.0965292,-0.37445697,-0.412459,0.118719496,0.00768162,-0.23370376,-0.10530143,-0.16990003,-0.23541068,-0.013153293,0.0038145932,-0.035276767,0.017893504,0.06848742,-0.02558486,0.04937441,-0.059460588,0.10286678,0.047287636,0.11688665,0.037300605,-2.0,2.0,-2.0,2.0,2.0,-2.0,2.0,-2.0,-2.0,-2.0,0.30159733,-2.0,-2.0,-2.0,-2.0,2.0,-2.0,-2.0,2.0,0.57799965,-2.0,-2.0,-2.0,-2.0
2025-07-21 14:29:00.498,3.1600000000000024,3160,158,-0.046378065,0.050832357,-0.07524407,-0.29795262,-0.6449904,0.0401564,0.0,0.0,0.0,0.046704337,-0.12972794,-0.30830243,-0.2972271,0.09717853,-0.39302582,-0.39538467,0.12687348,-0.014955285,-0.23924586,-0.11424302,-0.1860799,-0.23670174,0.09110329,0.0026188595,-0.004430364,-0.03409577,-0.08276013,0.005156874,-0.030827176,0.07870102,-0.02678779,0.066839755,-0.050801676,0.08987942,-2.0,-2.0,-2.0,2.0,-2.0,-2.0,2.0,0.57799965,-2.0,-2.0,-2.0,-2.0,-2.0,2.0,-2.0,2.0,2.0,-2.0,2.0,-2.0,-2.0,-2.0,-1.2438898,-2.0
2025-07-21 14:29:00.523,3.1800000000000024,3180,159,0.051780403,0.020491878,-0.0056098695,-0.3603729,-0.6809488,0.016470648,0.0,0.0,0.0,0.047635697,-0.11152346,-0.31061324,-0.29781255,0.088340126,-0.3973876,-0.39615172,0.12812017,-0.040915497,-0.22978744,-0.12388538,-0.20961075,-0.24675404,0.02927963,-0.011763257,-0.04489494,-0.06884203,0.08292982,-0.05839228,-0.010937633,-0.12581547,0.042895917,0.053113423,0.018867098,-0.066276096,-2.0,2.0,-2.0,2.0,2.0,-2.0,2.0,-2.0,-2.0,-2.0,-1.2438898,-2.0,-2.0,-2.0,-2.0,2.0,-2.0,-2.0,2.0,2.0,-2.0,-2.0,-2.0,-2.0
2025-07-21 14:29:00.540,3.2000000000000024,3200,160,-0.050685667,0.023177033,-0.043828983,-0.3664536,-0.6716847,0.008792773,0.0,0.0,0.0,0.0485377,-0.11780184,-0.33716092,-0.2823882,0.10227242,-0.3935837,-0.37433976,0.119199,-0.034804422,-0.24176903,-0.10868244,-0.24142464,-0.23566593,0.016258122,-0.099577256,0.04858414,0.043041557,-0.037383694,0.12688628,-0.016490145,0.23566838,-0.09499681,-0.038505975,-0.088476434,0.059411824,-2.0,-2.0,-2.0,2.0,-2.0,-2.0,2.0,2.0,-2.0,-2.0,-2.0,-2.0,-2.0,2.0,-2.0,2.0,2.0,-2.0,2.0,-2.0,-2.0,-2.0,-0.026866341,-2.0
2025-07-21 14:29:00.559,3.2200000000000024,3220,161,0.0591462,0.06998025,-0.0026330443,-0.3041315,-0.68430024,-0.045012556,0.0,0.0,0.0,0.049786545,-0.10953297,-0.33120954,-0.28905812,0.09870678,-0.40193766,-0.38056457,0.11418435,-0.034800265,-0.23850542,-0.10964419,-0.23294903,-0.25117525,-0.079085045,0.065742485,-0.012024024,-0.064460255,-0.006566758,0.040356,0.079255894,-0.10006783,0.00752939,-0.006418785,0.07452001,-0.00096769916,-2.0,2.0,-2.0,2.0,2.0,-2.0,2.0,-2.0,-2.0,-2.0,-0.026866341,-2.0,-2.0,-2.0,-2.0,2.0,-2.0,-2.0,2.0,2.0,-2.0,-2.0,-2.0,-2.0
2025-07-21 14:29:00.579,3.2400000000000024,3240,162,0.0056150053,0.055201054,-0.11394116,-0.34553587,-0.6974021,-0.045672245,0.0,0.0,0.0,0.050207715,-0.10574542,-0.34357342,-0.2759856,0.09008198,-0.41945714,-0.35765192,0.12670626,-0.007915863,-0.2504566,-0.116431214,-0.24593212,-0.23571292,0.03355323,-0.09970869,-0.025180412,-0.009581637,-0.009025684,0.08343602,-0.03857114,0.1873034,-0.011195458,-0.03657598,-0.00925524,-0.054684576,-2.0,-2.0,-2.0,2.0,-2.0,-2.0,2.0,2.0,-2.0,-2.0,-2.0,-2.0,-2.0,2.0,-2.0,2.0,2.0,-2.0,2.0,-2.0,-2.0,-2.0,-0.32552496,-2.0
2025-07-21 14:29:00.599,3.2600000000000025,3260,163,0.08484477,0.092494085,-0.039075717,-0.3846299,-0.61765516,-0.028515486,0.0,0.0,0.0,0.05090566,-0.12214859,-0.33890074,-0.28847346,0.09103176,-0.40864122,-0.37812796,0.11134828,0.0072394926,-0.23454407,-0.114697956,-0.2304901,-0.25593138,-0.04024637,0.01168345,-0.013277937,-0.034546793,0.042681836,-0.058730118,0.08955845,-0.18182042,0.09724063,-0.056308743,0.0060343803,-0.06397551,-2.0,2.0,-2.0,2.0,2.0,-2.0,2.0,-2.0,-2.0,-2.0,-0.32552496,-2.0,-2.0,-2.0,-2.0,2.0,-2.0,-2.0,2.0,2.0,-2.0,-2.0,-2.0,-2.0
2025-07-21 14:29:00.625,3.2800000000000025,3280,164,0.006983278,0.0420183,-0.100633316,-0.35279158,-0.6909654,0.03410573,0.0,0.0,0.0,0.05118361,-0.1173266,-0.35209528,-0.2882014,0.09492889,-0.41884595,-0.3646901,0.12241269,0.017464979,-0.25436142,-0.11660087,-0.23564404,-0.24941942,-0.044673905,-0.11788629,-0.007881115,-0.003459043,-0.12066652,0.039623275,-0.033135176,0.17409584,-0.07692077,0.0138695715,-0.049852736,0.093632184,-2.0,-2.0,-2.0,2.0,-2.0,-2.0,2.0,2.0,-2.0,-2.0,-2.0,-2.0,-2.0,2.0,-2.0,2.0,2.0,-2.0,2.0,-2.0,-2.0,-2.0,-0.9166868,-2.0
2025-07-21 14:29:00.641,3.3000000000000025,3300,165,0.049437378,0.11258575,-0.03704634,-0.35802343,-0.63972,0.04932055,0.0,0.0,0.0,0.051913593,-0.121797666,-0.35423738,-0.28094187,0.09484603,-0.4306688,-0.36269212,0.122519575,0.015909858,-0.23546523,-0.123280875,-0.255852,-0.2373862,-0.0535998,0.057347413,-0.01768158,-0.02070223,-0.04472658,-0.08981754,-0.048785966,-0.18020914,0.058802795,-0.023519397,-0.0061808107,-0.071919374,-2.0,2.0,-2.0,2.0,2.0,-2.0,2.0,-2.0,-2.0,-2.0,-0.9166868,-2.0,-2.0,-2.0,-2.0,2.0,-2.0,-2.0,2.0,2.0,-2.0,-2.0,-2.0,-2.0
2025-07-21 14:29:00.660,3.3200000000000025,3320,166,-0.05191032,0.10295344,-0.065838195,-0.3693872,-0.6681868,-0.020621512,0.0,0.0,0.0,0.051979955,-0.10603923,-0.36945516,-0.28696337,0.10080257,-0.42707032,-0.35611013,0.12852238,0.036057163,-0.2564729,-0.12849706,-0.2689992,-0.23399477,-0.060198545,-0.11061053,0.042466033,-0.017919356,0.009143925,0.019648654,-0.06910714,0.20708416,-0.037086297,-0.06100387,-0.14666766,0.055256657,-2.0,-2.0,-2.0,2.0,-2.0,-2.0,2.0,2.0,-2.0,-2.0,-2.0,-2.0,-2.0,2.0,-2.0,2.0,2.0,-2.0,2.0,-2.0,-2.0,-2.0,-1.4880797,-2.0
2025-07-21 14:29:00.682,3.3400000000000025,3340,167,0.028525468,0.17939745,-0.06476463,-0.34818375,-0.61829704,0.028472498,0.0,0.0,0.0,0.05253637,-0.11811017,-0.38870943,-0.29996854,0.10505812,-0.42998543,-0.37232712,0.116495185,0.016701635,-0.23780939,-0.11955666,-0.28035834,-0.24216485,0.044403825,-0.064592764,-0.076640055,0.060129322,-0.013435051,0.0061354167,0.021840509,-0.18834293,0.072428785,-0.0057940925,-0.032735214,0.03530021,-2.0,2.0,-2.0,2.0,2.0,-2.0,2.0,-2.0,-2.0,-2.0,-1.4880797,-2.0,-2.0,-2.0,-2.0,2.0,-2.0,-2.0,2.0,2.0,-2.0,-2.0,-2.0,-2.0
2025-07-21 14:29:00.701,3.3600000000000025,3360,168,-0.04214193,0.050325803,-0.05620595,-0.35114032,-0.6464194,-0.013493226,0.0,0.0,0.0,0.05254717,-0.115051076,-0.40444,-0.30137464,0.10932016,-0.45725778,-0.36048108,0.11699505,0.049527273,-0.2476059,-0.12987085,-0.31776783,-0.24590907,-0.030885594,-0.05298578,0.0038878666,-0.04161437,-0.031461064,0.070778124,0.05401579,0.15387094,-0.049160663,0.014540379,-0.044367276,0.0037716783,-2.0,-2.0,-2.0,2.0,-2.0,-2.0,2.0,2.0,-2.0,-2.0,-2.0,-2.0,-2.0,2.0,-2.0,2.0,2.0,-2.0,2.0,-2.0,-2.0,-2.0,0.14814064,-2.0
2025-07-21 14:29:00.729,3.3800000000000026,3380,169,0.056331128,0.0946287,-0.023049925,-0.29117274,-0.5966208,-0.02207654,0.0,0.0,0.0,0.053073715,-0.12436248,-0.4038491,-0.30567753,0.1089504,-0.45391765,-0.3855965,0.12813556,0.035894666,-0.25149393,-0.11798361,-0.28567362,-0.24162436,-0.04356405,-0.005065742,0.04776444,-0.030844893,-0.023785299,-0.07107475,0.09645409,-0.17588858,0.08076498,0.06454377,0.11922713,-0.013552068,-2.0,2.0,-2.0,2.0,2.0,-2.0,2.0,-2.0,-2.0,-2.0,0.14814064,-2.0,-2.0,-2.0,-2.0,2.0,-2.0,-2.0,2.0,2.0,-2.0,-2.0,-2.0,-2.0
2025-07-21 14:29:00.757,3.4000000000000026,3400,170,0.027780386,0.13389036,-0.07307668,-0.354941,-0.59347314,-0.028443707,0.0,0.0,0.0,0.052762114,-0.11652531,-0.42354965,-0.30733252,0.11288952,-0.46445134,-0.38236585,0.13506766,0.039247118,-0.24661651,-0.12328615,-0.2737562,-0.25295752,-0.012732943,-0.10649157,0.058998734,0.057437133,0.020640874,0.057828754,0.047300115,0.08389681,0.027886756,0.053065848,0.03445325,-0.050087076,-2.0,-2.0,-2.0,2.0,-2.0,-2.0,2.0,2.0,-2.0,-2.0,-2.0,-2.0,-2.0,2.0,-2.0,2.0,2.0,-2.0,2.0,-2.0,-2.0,-2.0,1.6165282,-2.0
2025-07-21 14:29:00.777,3.4200000000000026,3420,171,0.08869468,0.009824844,0.022308761,-0.32885566,-0.60996634,-0.019663757,0.0,0.0,0.0,0.052733187,-0.12510477,-0.42660007,-0.30965465,0.11502902,-0.4600843,-0.3725055,0.12027695,0.027519193,-0.24599367,-0.12484393,-0.19485785,-0.25850695,-0.05732399,0.020223947,0.023589406,0.06848483,0.09571147,-0.053394698,0.049549676,-0.112319775,0.057967402,0.02687856,0.31687748,-0.083533175,-2.0,2.0,-2.0,2.0,2.0,-2.0,2.0,-2.0,-2.0,-2.0,1.6165282,-2.0,-2.0,2.0,-2.0,2.0,-2.0,-2.0,2.0,-2.0,-2.0,-2.0,-2.0,-2.0
2025-07-21 14:29:00.797,3.4400000000000026,3440,172,-0.1810271,0.11487377,-0.13629131,-0.35007817,-0.5512634,-0.045628276,0.0,0.0,0.0,0.052562963,-0.13053958,-0.41186938,-0.32998517,0.11788187,-0.46641245,-0.38270578,0.13923578,-0.048808854,-0.24171916,-0.10674327,-0.14140812,-0.25729206,0.05653046,0.06377421,-0.04101641,-0.0036349357,-0.0850402,0.02995227,-0.036871564,-0.21213982,0.058975216,0.020653106,0.03857717,0.028096486,-2.0,2.0,-2.0,2.0,-2.0,-2.0,2.0,-2.0,-2.0,-2.0,-2.0,-2.0,-2.0,-0.98787796,-2.0,2.0,-0.10620114,-2.0,2.0,-1.1362936,-2.0,-2.0,-0.9135502,-2.0
2025-07-21 14:29:00.823,3.4600000000000026,3460,173,-0.030659458,0.117291115,-0.05801434,-0.27809724,-0.6212816,-0.027853644,0.0,0.0,0.0,0.053653196,-0.1291649,-0.42427772,-0.34027144,0.12981014,-0.49902302,-0.3801917,0.1322978,-0.13187501,-0.24601336,-0.12791465,-0.14567977,-0.23851378,-0.054822396,0.04531924,-0.033247724,-0.034011792,-0.09198505,0.0721123,-0.062854014,-0.12183431,0.03249578,0.058420356,0.01690048,0.051722948,-2.0,-0.98787796,-2.0,2.0,-0.10620114,-2.0,2.0,-1.1362936,-2.0,-2.0,-0.9135502,-2.0,-2.0,2.0,-2.0,2.0,2.0,-2.0,2.0,-2.0,-2.0,-2.0,-2.0,-2.0
2025-07-21 14:29:00.842,3.4800000000000026,3480,174,-0.09025589,0.045752082,-0.09906633,-0.29304045,-0.5959593,-0.010660872,0.0,0.0,0.0,0.054283883,-0.13319482,-0.42981133,-0.35348973,0.11695637,-0.48617455,-0.38575727,0.14009471,-0.19519567,-0.24147284,-0.12679927,-0.17587557,-0.24185966,-0.051488142,0.036168974,-0.08823989,0.023138063,-0.02816776,-0.07568782,-0.024667555,-0.23428115,-0.066371694,0.012481355,-0.16932417,0.07873692,-2.0,2.0,-2.0,2.0,2.0,-2.0,2.0,-2.0,-2.0,-2.0,-2.0,-2.0,-2.0,-2.0,-2.0,2.0,-2.0,-2.0,2.0,2.0,-2.0,-2.0,-2.0,-2.0
2025-07-21 14:29:00.865,3.5000000000000027,3500,175,-0.15287754,0.07136082,-0.033124544,-0.3421877,-0.5080231,-0.02393346,0.0,0.0,0.0,0.054528914,-0.12771608,-0.44367433,-0.34763023,0.13598357,-0.50774264,-0.39582327,0.13486251,-0.16346155,-0.26087853,-0.12863459,-0.24255693,-0.22578679,0.017703265,0.038585093,0.06331035,0.019297974,-0.06136065,0.021201145,-0.086601414,0.25216812,-0.068821274,0.0043777316,-0.19295134,-0.044275433,-2.0,-2.0,-2.0,2.0,-2.0,-2.0,2.0,2.0,-2.0,-2.0,-2.0,-2.0,-2.0,2.0,-2.0,2.0,2.0,-2.0,2.0,-2.0,-2.0,-2.0,1.7191672,-2.0
2025-07-21 14:29:00.905,3.5200000000000027,3520,176,0.03427545,0.029286778,0.065981016,-0.3126644,-0.5050262,0.0455839,0.0,0.0,0.0,0.0552143,-0.11870786,-0.43448874,-0.34077227,0.12622079,-0.5029563,-0.39933708,0.116396084,-0.14117329,-0.26029465,-0.1227693,-0.19089037,-0.25870773,-0.022669524,-0.006921918,0.0435748,0.007031316,0.09025484,-0.038199887,-0.019684281,0.027236808,0.033939697,0.085285805,0.2601593,-0.030031122,-2.0,2.0,-2.0,2.0,2.0,-2.0,2.0,-2.0,-2.0,-2.0,1.7191672,-2.0,-2.0,2.0,-2.0,2.0,-2.0,-2.0,2.0,-0.3246662,-2.0,-2.0,-2.0,-2.0
2025-07-21 14:29:00.916,3.5400000000000027,3540,177,-0.21424213,-0.07884613,-0.09614879,-0.33385846,-0.55035406,0.003325263,0.0,0.0,0.0,0.05505838,-0.11654625,-0.42289105,-0.36474317,0.12690283,-0.50312763,-0.38908443,0.13930622,-0.11846192,-0.259021,-0.12833841,-0.15738545,-0.24780022,0.059733704,0.031083813,0.015234385,0.086176455,-0.09437018,0.0085577965,-0.056445133,-0.015606064,-0.0520083,0.043646477,-0.0028655436,0.07954311,-2.0,2.0,-2.0,2.0,-2.0,-2.0,2.0,-0.3246662,-2.0,-2.0,-2.0,-2.0,-2.0,-2.0,-2.0,2.0,2.0,-2.0,2.0,2.0,-2.0,-2.0,-0.71454656,-2.0
