openverse-orca/OrcaGym/log/simulation_log_20250721_155434.csv
timestamp,sim_time,physics_step,control_step,imu_angle_roll,imu_angle_pitch,imu_angle_yaw,imu_angular_velocity_roll,imu_angular_velocity_pitch,imu_angular_velocity_yaw,imu_acc_x,imu_acc_y,imu_acc_z,fl_joint1_pos,fl_joint1_vel,fl_joint1_torque,fl_joint2_pos,fl_joint2_vel,fl_joint2_torque,fl_joint3_pos,fl_joint3_vel,fl_joint3_torque,fr_joint1_pos,fr_joint1_vel,fr_joint1_torque,fr_joint2_pos,fr_joint2_vel,fr_joint2_torque,fr_joint3_pos,fr_joint3_vel,fr_joint3_torque,hl_joint1_pos,hl_joint1_vel,hl_joint1_torque,hl_joint2_pos,hl_joint2_vel,hl_joint2_torque,hl_joint3_pos,hl_joint3_vel,hl_joint3_torque,hr_joint1_pos,hr_joint1_vel,hr_joint1_torque,hr_joint2_pos,hr_joint2_vel,hr_joint2_torque,hr_joint3_pos,hr_joint3_vel,hr_joint3_torque,fl_force_x,fl_force_y,fl_force_z,fr_force_x,fr_force_y,fr_force_z,hl_force_x,hl_force_y,hl_force_z,hr_force_x,hr_force_y,hr_force_z,fl_hip_action,fl_thigh_action,fl_calf_action,fr_hip_action,fr_thigh_action,fr_calf_action,hl_hip_action,hl_thigh_action,hl_calf_action,hr_hip_action,hr_thigh_action,hr_calf_action
2025-07-21 15:54:34.216,0.0,0,0,-0.07547109,-0.11213333,-0.104254074,-0.029097194,-0.02757371,0.011953987,-0.0066606263,-0.01979568,0.043483026,0.0,0.0,0.0,0.0,0.5,0.0,0.0,0.0029080338,0.0047230134,-0.007482529,0.0086686425,0.0068478626,-0.0013546394,-0.0006539818,-0.0033654335,-0.0021791316,0.008596117,0.0040345844,0.009704688,-0.06730443,-0.020148294,0.03037538,0.029855356,0.028178276,0.07092828,-0.06227701,-0.019045603,-0.03906786,0.011986304,0.013902827,0.01750635,0.0,0.0,0.0,0.0,0.0,0.0,0.0,0.0,0.0,0.0,0.0,0.0,-1.0,1.0,-1.0,1.0,-1.0,1.0,-1.0,-1.0,1.0,1.0,-1.0,0.5303345
2025-07-21 15:54:34.280,0.02,20,1,-0.021244636,-0.104531854,0.25329533,0.10554864,-0.07049793,-0.07752248,0.030221673,0.033935618,0.010209712,0.0,0.0,0.0,0.0,0.5,0.0,0.0,-0.010268009,0.033593606,-0.028224707,0.007153875,-0.036423434,0.016432457,-0.028354486,-0.049638733,0.024847293,0.015784634,-0.056307256,0.016743809,0.018968241,0.09250388,-0.014546652,0.02226214,-0.06288122,0.12503745,-0.07688527,-0.06608297,-0.005045592,0.116957955,-0.16995443,-0.026641734,-1.0,1.0,-1.0,1.0,-1.0,1.0,-1.0,-1.0,1.0,1.0,-1.0,0.5303345,0.886724,0.15142965,-1.0,1.0,1.0,1.0,-1.0,-1.0,1.0,1.0,1.0,0.2444993
2025-07-21 15:54:34.296,0.04,40,2,-0.08955706,-0.18023922,0.015046518,0.068429865,-0.07474693,0.029256321,0.04292695,-0.02601818,0.01469343,0.0,0.0,0.0,0.0,0.5,0.0,0.0,-0.0074945176,0.048783664,-0.05037783,0.026533756,-0.038099818,0.037876926,-0.04460559,-0.08410362,0.04509946,0.057213616,-0.06591837,0.0253342,0.027608395,-0.05673027,-0.018542115,0.03804463,0.09475177,0.05822584,-0.10126601,-0.15992747,0.09387634,0.05901071,0.10519996,0.00665144,0.886724,0.15142965,-1.0,1.0,1.0,1.0,-1.0,-1.0,1.0,1.0,1.0,0.2444993,1.0,1.0,-1.0,1.0,-0.682109,1.0,-1.0,-1.0,1.0,1.0,-0.8459353,-1.0
2025-07-21 15:54:34.315,0.06,60,3,-0.4246306,0.004329135,0.15776606,0.2282469,-0.21722639,-0.09330347,-0.03186384,-0.052325483,-0.029749392,0.0,0.0,0.0,0.0,0.5,0.0,0.0,0.03618895,0.0854707,-0.08099337,0.052101456,-0.05872273,0.051957924,-0.05429641,-0.14927886,0.06750835,0.07585864,-0.085332125,-0.020167395,0.07341676,0.17316644,-0.06084508,0.027104804,-0.06032705,0.05903204,0.002909406,-0.059947684,0.09862454,0.09513818,-0.17272,-0.13969716,1.0,1.0,-1.0,1.0,-0.682109,1.0,-1.0,-1.0,1.0,1.0,-0.8459353,-1.0,1.0,-0.18243384,-1.0,1.0,1.0,1.0,-1.0,-1.0,1.0,-1.0,1.0,-1.0
2025-07-21 15:54:34.335,0.08,80,4,-0.4152692,-0.103548266,-0.12223409,0.06765231,-0.045998253,0.015195509,0.020529678,-0.043636154,-0.029136023,0.0,0.0,0.0,0.0,0.5,0.0,0.0,0.05385778,0.10614483,-0.079405725,0.06401691,-0.057240497,0.06089029,-0.06016701,-0.18802768,0.08374625,0.043238938,-0.075555794,-0.03562223,0.013299517,-0.15100329,0.036608912,0.085622005,0.105647214,-0.052045405,-0.016640475,-0.028862746,0.050934598,-0.037320163,0.20308273,0.011742011,1.0,-0.18243384,-1.0,1.0,1.0,1.0,-1.0,-1.0,1.0,-1.0,1.0,-1.0,1.0,0.37521964,-1.0,1.0,1.0,1.0,-1.0,-0.799268,1.0,-0.15696023,-0.8530615,0.21146187
2025-07-21 15:54:34.356,0.1,100,5,0.07054095,0.28001407,-0.12693526,0.08591728,0.02537629,0.056960367,-0.027782995,-0.0625176,-0.017091582,0.0,0.0,0.0,0.0,0.5,0.0,0.0,0.0697526,0.10588646,-0.10599242,0.07666058,-0.02704643,0.07051575,-0.06306961,-0.22029054,0.09264906,0.030899988,-0.071023576,-0.032185167,0.063036464,0.02103785,0.034766536,-0.008482592,0.037008695,0.07200059,0.045408405,-0.07064226,-0.0051766736,0.012271872,-0.15048604,-0.03626875,1.0,0.37521964,-1.0,1.0,1.0,1.0,-1.0,-0.799268,1.0,-0.15696023,-0.8530615,0.21146187,1.0,-1.0,-1.0,1.0,-0.95523036,1.0,-1.0,-1.0,1.0,-0.78220785,1.0,-1.0
2025-07-21 15:54:34.380,0.12000000000000001,120,6,-0.31406644,0.122904666,0.13057657,0.21300052,-0.0760862,0.011775227,0.037270103,-0.022717573,0.019770544,0.0,0.0,0.0,0.0,0.5,0.0,0.0,0.093301065,0.045734294,-0.09908063,0.070795305,-0.03667284,0.081548765,-0.0866553,-0.23885733,0.09713319,-0.0019056548,-0.065171234,-0.051120713,-0.01352628,-0.25689548,-0.066249706,-0.016320588,-0.033993214,0.026216067,-0.07718117,-0.10510731,0.06922969,-0.123520836,0.14285697,0.0005874954,1.0,-1.0,-1.0,1.0,-0.95523036,1.0,-1.0,-1.0,1.0,-0.78220785,1.0,-1.0,1.0,0.8740506,-1.0,1.0,1.0,1.0,-1.0,0.56769824,1.0,1.0,0.132641,-1.0
2025-07-21 15:54:34.397,0.14,140,7,0.137031,0.10783945,-0.06838521,0.17627299,0.18580756,-0.044603772,0.029969959,-0.06268153,0.031889215,0.0,0.0,0.0,0.0,0.5,0.0,0.0,0.10316548,0.04944316,-0.10951139,0.08685774,-0.02339758,0.08338684,-0.089359336,-0.23495418,0.09743384,0.020610627,-0.046844296,-0.063933395,0.0044249855,0.096331075,0.035800494,0.0042946828,0.15178892,0.059998114,0.014844163,0.15911625,0.028037377,0.04661046,0.07364397,-0.00032272638,1.0,0.8740506,-1.0,1.0,1.0,1.0,-1.0,0.56769824,1.0,1.0,0.132641,-1.0,0.8515285,-1.0,-1.0,1.0,-1.0,1.0,-1.0,-1.0,1.0,-1.0,0.9508124,-1.0
2025-07-21 15:54:34.416,0.16,160,8,-0.14160235,0.34706962,-0.04092686,0.15383457,-0.064412564,-0.054653708,0.08020603,-0.05982085,-0.019789055,0.0,0.0,0.0,0.0,0.5,0.0,0.0,0.11326043,0.026123364,-0.12495565,0.08625533,-0.008542663,0.08461505,-0.10284751,-0.21998778,0.107377484,0.012950485,0.018137943,-0.084326066,-0.011704479,-0.21012238,-0.0611926,0.0013154917,0.0035353801,-0.006432571,-0.05982424,-0.0119669195,0.00024137972,-0.023759952,0.2281863,0.024644734,0.8515285,-1.0,-1.0,1.0,-1.0,1.0,-1.0,-1.0,1.0,-1.0,0.9508124,-1.0,0.95018435,-0.47857654,0.82942075,1.0,1.0,1.0,-1.0,-1.0,1.0,0.41619414,-0.79335797,-1.0
2025-07-21 15:54:34.436,0.18,180,9,-0.005921823,0.24752913,0.15289871,0.33277774,-0.04549988,0.018471928,0.023568686,-0.10949374,-0.024158247,0.0,0.0,0.0,0.0,0.5,0.0,0.0,0.11335567,-0.019787775,-0.081484914,0.10949993,-0.005351954,0.09490717,-0.100290164,-0.2473193,0.12850031,0.017458841,0.021278143,-0.091987364,0.057884384,-0.04017101,0.15830639,0.045462474,0.025555274,-0.045802213,-0.06716538,-0.053791173,-0.024093814,-0.02530859,-0.1329873,-0.06695701,0.95018435,-0.47857654,0.82942075,1.0,1.0,1.0,-1.0,-1.0,1.0,0.41619414,-0.79335797,-1.0,-1.0,-1.0,-0.3732859,1.0,1.0,1.0,-1.0,1.0,1.0,-1.0,0.8274241,-0.6620867
2025-07-21 15:54:34.456,0.19999999999999998,200,10,0.0986374,0.2926013,0.09404187,-0.12174126,0.16068141,0.10227224,0.07238341,-0.10727164,-0.011215639,0.0,0.0,0.0,0.0,0.5,0.0,0.0,0.09084822,-0.06407929,-0.08388716,0.10908101,0.041522756,0.1021792,-0.11009479,-0.24357405,0.11348875,-0.0053807506,0.04063714,-0.09163063,-0.14665918,-0.14000413,-0.042669132,-0.042655554,0.17823152,0.031935234,0.027463075,0.029603945,-0.08084765,-0.14394397,0.100044385,-0.065094344,-1.0,-1.0,-0.3732859,1.0,1.0,1.0,-1.0,1.0,1.0,-1.0,0.8274241,-0.6620867,1.0,1.0,-0.2807629,1.0,-1.0,1.0,-1.0,-1.0,1.0,-1.0,-0.79366964,-1.0
2025-07-21 15:54:34.476,0.21999999999999997,220,11,-0.2741338,0.37813354,0.43294072,0.13314159,-0.039694868,-0.112515554,0.036643583,-0.06461814,-0.023214953,0.0,0.0,0.0,0.0,0.5,0.0,0.0,0.088359915,-0.07607124,-0.07324156,0.107495196,0.061772685,0.11362995,-0.12213226,-0.23451182,0.11714213,-0.046568774,0.0293488,-0.09508186,0.009863692,0.024641698,0.034057856,0.010579393,-0.01853606,0.04522708,-0.07533151,-0.12158047,0.008793464,-0.1345441,-0.11751829,-0.031067623,1.0,1.0,-0.2807629,1.0,-1.0,1.0,-1.0,-1.0,1.0,-1.0,-0.79366964,-1.0,0.066730544,-0.5649907,-1.0,1.0,1.0,1.0,-1.0,1.0,1.0,-1.0,1.0,-1.0
2025-07-21 15:54:34.499,0.23999999999999996,240,12,-0.046597112,0.34474662,0.019478932,-0.09387863,0.1946931,0.046536863,0.020631522,-0.14104807,0.01627946,0.0,0.0,0.0,0.0,0.5,0.0,0.0,0.077766135,-0.086491935,-0.089026,0.11582097,0.10835771,0.109939404,-0.13072221,-0.22653806,0.11514379,-0.06769884,0.025780054,-0.12203375,-0.05560257,-2.9347044e-05,0.038636036,0.020172669,0.11809476,0.015568619,-0.08739052,0.15561411,0.03017861,-0.057948954,0.20060967,-0.0074307714,0.066730544,-0.5649907,-1.0,1.0,1.0,1.0,-1.0,1.0,1.0,-1.0,1.0,-1.0,1.0,-0.031054411,1.0,1.0,-0.14703336,1.0,-1.0,-1.0,1.0,-1.0,-0.7857795,-1.0
2025-07-21 15:54:34.516,0.25999999999999995,260,13,-0.17688653,0.27245975,0.20822644,0.12560166,-0.14103326,-0.053219777,0.025563648,-0.090890825,0.009457748,0.0,0.0,0.0,0.0,0.5,0.0,0.0,0.08723439,-0.080696225,-0.04893041,0.12732819,0.11806202,0.12620056,-0.13240458,-0.20908365,0.12703747,-0.08174282,0.024155274,-0.1274532,0.013575263,0.04694135,0.10702785,0.05124258,-0.059887286,-0.018782279,-0.0011964287,-0.044364486,-0.016154742,-0.01738348,-0.15792115,0.024049321,1.0,-0.031054411,1.0,1.0,-0.14703336,1.0,-1.0,-1.0,1.0,-1.0,-0.7857795,-1.0,-1.0,-0.30009925,-0.47863996,1.0,1.0,1.0,-1.0,1.0,1.0,0.42146152,0.69754523,1.0
2025-07-21 15:54:34.536,0.27999999999999997,280,14,0.11664755,0.16291717,0.05393283,-0.23561145,0.016926821,0.1251244,0.008013528,-0.07988201,0.017286535,0.0,0.0,0.0,0.0,0.5,0.0,0.0,0.062213115,-0.080298364,-0.049832586,0.13327362,0.14242055,0.12856407,-0.13615528,-0.19354826,0.12006759,-0.057846043,0.024898017,-0.07944149,-0.035440058,-0.008846237,0.0057003396,-0.012295501,0.13542262,-0.013408015,-0.039278023,0.10759352,-0.029960148,0.00057236146,0.17120245,0.1618414,-1.0,-0.30009925,-0.47863996,1.0,1.0,1.0,-1.0,1.0,1.0,0.42146152,0.69754523,1.0,0.5112512,1.0,1.0,1.0,-1.0,1.0,-1.0,-1.0,1.0,1.0,-1.0,-1.0
2025-07-21 15:54:34.556,0.3,300,15,-0.023194684,0.23021619,0.32581747,-0.115972534,0.017419243,-0.1227641,0.07010628,-0.063695185,0.021176308,0.0,0.0,0.0,0.0,0.5,0.0,0.0,0.075091735,-0.08269646,-0.033911213,0.11965078,0.16656566,0.12311634,-0.14102839,-0.17716308,0.13405311,-0.024983548,-0.0004066559,-0.08751429,0.007961364,0.07099688,0.0059009166,-0.03055622,-0.08920433,0.022180175,0.022679664,-0.0017051472,0.03602761,0.039808586,-0.21470729,0.041234232,0.5112512,1.0,1.0,1.0,-1.0,1.0,-1.0,-1.0,1.0,1.0,-1.0,-1.0,-1.0,-0.6798474,-1.0,1.0,1.0,1.0,-1.0,-1.0,1.0,-1.0,1.0,-1.0
2025-07-21 15:54:34.580,0.32,320,16,-0.062980436,-0.05583485,0.2381746,-0.18464568,-0.06357125,-0.012298634,0.031125017,-0.079372585,-0.024321979,0.0,0.0,0.0,0.0,0.5,0.0,0.0,0.026372414,-0.1169603,-0.05041152,0.13212882,0.19526817,0.12996203,-0.15041347,-0.21012235,0.14711,-0.025772382,-0.0034880806,-0.09845569,-0.15243292,-0.05019966,0.009527608,0.057771184,0.09243354,-0.007966172,0.059660845,-0.13131821,-0.02059312,-0.021057906,0.1205004,0.0076200487,-1.0,-0.6798474,-1.0,1.0,1.0,1.0,-1.0,-1.0,1.0,-1.0,1.0,-1.0,1.0,1.0,-1.0,-0.44137555,-1.0,1.0,-1.0,1.0,1.0,-0.8510386,-0.77759606,1.0
2025-07-21 15:54:34.596,0.34,340,17,0.104245886,0.21087463,-0.25659752,-0.03286955,-0.071158305,-0.10891949,-0.027145227,-0.09082135,-0.045039494,0.0,0.0,0.0,0.0,0.5,0.0,0.0,0.048191007,-0.083428234,-0.06982738,0.1089739,0.17475007,0.12475735,-0.14630587,-0.19961114,0.12545648,-0.049457822,-0.02247461,-0.062291984,0.09856285,0.18878676,0.028676331,-0.013536698,-0.112134494,0.08666414,-0.0422185,0.026840968,0.027130285,-0.05235057,-0.19530106,0.17253132,1.0,1.0,-1.0,-0.44137555,-1.0,1.0,-1.0,1.0,1.0,-0.8510386,-0.77759606,1.0,0.62561893,-1.0,0.7692245,1.0,-1.0,1.0,-1.0,-1.0,1.0,-0.038697705,1.0,-1.0
2025-07-21 15:54:34.616,0.36000000000000004,360,18,0.051346987,0.10125505,-0.018575346,0.19944829,-0.19855982,-0.09499285,0.009691059,-0.13813607,-0.009628533,0.0,0.0,0.0,0.0,0.5,0.0,0.0,0.061000276,-0.09926641,-0.048701696,0.08903962,0.1234532,0.13972878,-0.14957958,-0.20414552,0.14318942,-0.03561533,-0.007272118,-0.07374635,0.018008288,-0.09589943,0.048239004,-0.037700847,-0.09497897,-0.060092323,0.01882516,-0.09540932,0.0334876,-0.050406843,0.047629267,-0.054721456,0.62561893,-1.0,0.7692245,1.0,-1.0,1.0,-1.0,-1.0,1.0,-0.038697705,1.0,-1.0,-1.0,-0.6211984,-0.7471758,1.0,1.0,1.0,-1.0,1.0,1.0,0.8151039,-1.0,1.0
2025-07-21 15:54:34.636,0.38000000000000006,380,19,0.15233645,0.14476152,0.005270581,-0.048229158,-0.17517926,0.027391918,-0.038965035,-0.076658584,-0.0038766444,0.0,0.0,0.0,0.0,0.5,0.0,0.0,0.042880446,-0.12009575,-0.056085102,0.11075848,0.14423236,0.13596351,-0.15177079,-0.18430169,0.13989706,-0.009128023,-0.01935788,-0.029694319,-0.13103992,-0.010446347,-0.057376172,0.009607946,0.16676907,-0.00044803135,0.062911876,0.08216896,-0.07390318,0.091026545,-0.17917928,0.06655834,-1.0,-0.6211984,-0.7471758,1.0,1.0,1.0,-1.0,1.0,1.0,0.8151039,-1.0,1.0,-1.0,1.0,1.0,-0.5651288,-1.0,1.0,-1.0,-1.0,1.0,1.0,0.28152838,-1.0
2025-07-21 15:54:34.657,0.4000000000000001,400,20,0.11459344,-0.1527408,0.20779459,-0.343815,-0.07859338,-0.022322396,0.028179064,-0.07455042,-0.032378998,0.0,0.0,0.0,0.0,0.5,0.0,0.0,0.010662316,-0.12867352,-0.02987732,0.07045492,0.15891851,0.130338,-0.17454813,-0.18533817,0.14845456,0.013564281,-0.02881117,-0.05562033,-0.052067053,-0.013174122,0.13382442,-0.115423225,-0.05354528,0.038038764,0.00855417,-0.117542826,-0.05662733,0.0049655144,0.078361526,-0.07412822,-1.0,1.0,1.0,-0.5651288,-1.0,1.0,-1.0,-1.0,1.0,1.0,0.28152838,-1.0,-1.0,1.0,-1.0,1.0,-1.0,1.0,-0.7159297,1.0,1.0,-1.0,0.8013484,-1.0
2025-07-21 15:54:34.680,0.4200000000000001,420,21,0.27534926,0.066981286,-0.094115525,-0.08268313,0.20169304,-0.11992707,-0.031322595,-0.086319454,-0.036565464,0.0,0.0,0.0,0.0,0.5,0.0,0.0,-0.017005866,-0.079608224,-0.053161692,0.071644835,0.13595541,0.13976306,-0.16125508,-0.1616665,0.13765198,0.005539953,0.028321702,-0.07641282,-0.034242135,0.18694636,-0.056163583,0.06835991,0.032394882,-0.008066118,0.059686504,0.08295902,0.04718596,-0.14336774,0.17343178,0.022520749,-1.0,1.0,-1.0,1.0,-1.0,1.0,-0.7159297,1.0,1.0,-1.0,0.8013484,-1.0,1.0,-1.0,-1.0,1.0,-1.0,1.0,-1.0,-1.0,1.0,-1.0,-0.109803274,-1.0
2025-07-21 15:54:34.697,0.4400000000000001,440,22,-0.12325447,-0.14671955,0.26892853,0.1393714,-0.23127657,-0.13245349,0.033269737,-0.11482958,-0.045754876,0.0,0.0,0.0,0.0,0.5,0.0,0.0,-0.0062852064,-0.070504285,-0.07089332,0.093667336,0.12012212,0.1542371,-0.16407353,-0.17025708,0.14576449,-0.02155708,0.038637396,-0.086105846,0.0034947924,-0.049240127,-0.025766298,0.031586368,-0.077888474,-0.019252865,-0.0034151282,-0.05624599,-0.00044918273,-0.102766186,-0.033324614,-0.043332428,1.0,-1.0,-1.0,1.0,-1.0,1.0,-1.0,-1.0,1.0,-1.0,-0.109803274,-1.0,1.0,-0.025105808,-1.0,0.43407628,1.0,1.0,-1.0,0.5074357,1.0,1.0,0.13975658,0.67660916
2025-07-21 15:54:34.717,0.46000000000000013,460,23,-0.031260934,-0.026587935,-0.24058895,0.09575271,0.089625105,-0.14072953,0.021398237,-0.15628375,0.017943703,0.0,0.0,0.0,0.0,0.5,0.0,0.0,0.022955002,-0.051221445,-0.10015089,0.09368002,0.13022016,0.13860819,-0.16720314,-0.12659897,0.13191785,-0.0128612295,0.04216257,-0.051324252,0.08701952,0.0061147683,-0.0055347495,0.038735326,0.085346095,0.017496992,0.024336927,0.17470522,-0.03642698,0.073952876,0.08053122,0.009062854,1.0,-0.025105808,-1.0,0.43407628,1.0,1.0,-1.0,0.5074357,1.0,1.0,0.13975658,0.67660916,-0.99743426,0.48969883,1.0,-0.5382499,-1.0,1.0,1.0,-1.0,1.0,1.0,-1.0,1.0
2025-07-21 15:54:34.737,0.48000000000000015,480,24,0.029550213,0.002496769,-0.14397597,-0.3263338,0.05350428,-0.16810186,-0.03881584,-0.108179264,-0.03869704,0.0,0.0,0.0,0.0,0.5,0.0,0.0,0.016515898,-0.037226364,-0.0614505,0.063713744,0.14179096,0.15407012,-0.12281104,-0.12559336,0.13758352,0.013287702,-0.007747575,-0.018228384,-0.13112964,0.14414363,0.046989378,-0.028619448,0.0449137,-0.019876102,0.19123717,-0.06894641,-0.019638134,0.048341285,-0.22449888,0.044555433,-0.99743426,0.48969883,1.0,-0.5382499,-1.0,1.0,1.0,-1.0,1.0,1.0,-1.0,1.0,-1.0,-1.0,1.0,-0.38092917,-1.0,-0.40570545,0.84885246,-1.0,1.0,1.0,1.0,1.0
2025-07-21 15:54:34.759,0.5000000000000001,500,25,-0.13190709,-0.0959857,-0.32528314,-0.46058694,-0.09705899,-0.08023519,-0.069745,-0.066492975,-0.017451938,0.0,0.0,0.0,0.0,0.5,0.0,0.0,-0.019571604,-0.03285357,-0.018062467,0.030421441,0.15696073,0.11355238,-0.08743456,-0.18402524,0.14190699,0.05764705,-0.02562902,0.018008092,-0.08470575,-0.12822023,0.019452045,-0.053110715,-0.06101214,-0.042764526,0.13591897,-0.16496383,-0.024883794,0.072917774,0.043155674,0.015626207,-1.0,-1.0,1.0,-0.38092917,-1.0,-0.40570545,0.84885246,-1.0,1.0,1.0,1.0,1.0,-1.0,1.0,1.0,0.899554,1.0,-1.0,0.42536527,1.0,1.0,1.0,-1.0,1.0
2025-07-21 15:54:34.781,0.5200000000000001,520,26,-0.17987506,-0.1842325,-0.3867741,-0.37277314,0.20764253,-0.18669738,-0.006175114,-0.044697627,-0.025410049,0.0,0.0,0.0,0.0,0.5,0.0,0.0,-0.029653467,-0.010901341,0.00493731,0.050044153,0.17947413,0.06545188,-0.049820717,-0.15847015,0.14885345,0.0644388,-0.041408375,0.043310266,-0.07652414,0.06466164,-0.019395169,-0.019754987,0.05657028,-0.03855041,-0.026562074,0.17700103,-0.036946397,0.09113426,-0.07577791,0.09731733,-1.0,1.0,1.0,0.899554,1.0,-1.0,0.42536527,1.0,1.0,1.0,-1.0,1.0,-1.0,0.80528593,1.0,0.37828118,-1.0,-0.43071526,0.57928246,-1.0,-1.0,1.0,-1.0,1.0
2025-07-21 15:54:34.797,0.5400000000000001,540,27,-0.029668799,0.021877058,-0.17812712,-0.21106161,0.029571101,-0.18312219,-0.08902465,0.011493152,0.02223501,0.0,0.0,0.0,0.0,0.5,0.0,0.0,-0.055613764,0.04948691,0.009106792,0.04446054,0.20675866,0.036199607,-0.03520436,-0.13848957,0.10313596,0.08620921,-0.10642619,0.056005735,0.020619141,0.14632024,0.014057718,-0.06511122,-0.044008706,-0.08002163,0.052610017,-0.092858054,-0.06576727,-0.0570081,-0.14335787,-0.021954142,-1.0,0.80528593,1.0,0.37828118,-1.0,-0.43071526,0.57928246,-1.0,-1.0,1.0,-1.0,1.0,-1.0,-1.0,1.0,-1.0,-1.0,-1.0,1.0,1.0,-1.0,1.0,1.0,1.0
2025-07-21 15:54:34.817,0.5600000000000002,560,28,-0.269831,-0.061314262,-0.21333875,-0.12327875,0.08168939,-0.105218455,-0.049794987,-0.039648384,0.035749935,0.0,0.0,0.0,0.0,0.5,0.0,0.0,-0.054757673,0.051453486,0.032938395,0.024183044,0.18434578,0.016515726,0.0006460114,-0.13479291,0.04768136,0.0892915,-0.12086715,0.06851359,-0.050690684,-0.0066101043,0.10389444,-0.13222072,-0.008205771,-0.038453206,0.045682672,0.112281814,-0.15358515,0.07020452,-0.043540746,-0.06385661,-1.0,-1.0,1.0,-1.0,-1.0,-1.0,1.0,1.0,-1.0,1.0,1.0,1.0,-1.0,-0.7736165,1.0,-1.0,-0.65066826,-1.0,1.0,1.0,-0.78978527,1.0,-0.24533983,1.0
2025-07-21 15:54:34.838,0.5800000000000002,580,29,-0.20912078,0.119109586,0.07463888,-0.0050675264,0.010313965,0.06336319,-0.0544424,0.0015338619,0.007233063,0.0,0.0,0.0,0.0,0.5,0.0,0.0,-0.07255637,0.045060787,0.055945463,-0.009619801,0.16270569,-0.0066681816,0.029723708,-0.04496938,0.011860755,0.10069069,-0.120344825,0.0703088,-0.00047672368,0.0073934863,0.060345232,-0.14283791,-0.027904008,-0.123634696,-0.00011831148,0.17040057,-0.11016843,0.0693403,-0.033323523,-0.013763598,-1.0,-0.7736165,1.0,-1.0,-0.65066826,-1.0,1.0,1.0,-0.78978527,1.0,-0.24533983,1.0,-1.0,1.0,1.0,-1.0,-0.23090258,-1.0,1.0,1.0,-0.30154133,1.0,0.83573836,1.0
2025-07-21 15:54:34.955,0.6000000000000002,600,30,0.030311178,0.23647548,0.1617085,-0.09291923,0.24029453,0.107434556,-0.014769909,-0.040867463,0.013646273,0.0,0.0,0.0,0.0,0.5,0.0,0.0,-0.080771044,0.06253383,0.077387534,-0.026550373,0.122408986,-0.03369065,0.057144895,0.03596721,0.009183945,0.10299039,-0.08833214,0.08078944,-0.038964655,0.09315677,0.08674413,-0.057711348,-0.11058451,-0.10593784,0.06376133,0.24664319,-0.04339309,0.070023656,0.13948011,0.041009694,-1.0,1.0,1.0,-1.0,-0.23090258,-1.0,1.0,1.0,-0.30154133,1.0,0.83573836,1.0,-1.0,-1.0,1.0,-1.0,-1.0,-1.0,1.0,-0.2602392,-1.0,-1.0,-1.0,1.0
2025-07-21 15:54:34.975,0.6200000000000002,620,31,-0.4679151,0.24512708,0.26011473,-0.034050666,-0.2262615,-0.01319758,-0.01389994,-0.03202924,0.015841234,0.0,0.0,0.0,0.0,0.5,0.0,0.0,-0.10380513,0.049365863,0.084914975,-0.059574973,0.029550556,-0.04975977,0.061200902,0.04456247,-0.016949296,0.06556642,-0.10352126,0.08693381,-0.007723553,-0.017788244,0.10240941,-0.0970568,-0.28386843,-0.042638086,0.097696885,-0.002597681,-0.068523735,-0.051943723,-0.06790277,0.05134012,-1.0,-1.0,1.0,-1.0,-1.0,-1.0,1.0,-0.2602392,-1.0,-1.0,-1.0,1.0,-1.0,1.0,1.0,-1.0,1.0,-1.0,0.34442633,-0.639238,0.7237389,1.0,1.0,1.0
2025-07-21 15:54:34.997,0.6400000000000002,640,32,0.21561798,-0.079497024,-0.12273655,-0.07102024,0.002630516,0.083374046,-0.040161446,0.006394843,0.039224852,0.0,0.0,0.0,0.0,0.5,0.0,0.0,-0.10210363,0.07447761,0.08959175,-0.081015155,0.017116565,-0.08083039,0.07703691,-0.008853584,0.0070474227,0.06351806,-0.09837172,0.08339558,0.026217202,0.15757056,0.062258832,-0.046743236,0.039962906,-0.092323735,0.05525048,-0.054167576,0.018422078,-0.010773153,0.12934144,-0.007705222,-1.0,1.0,1.0,-1.0,1.0,-1.0,0.34442633,-0.639238,0.7237389,1.0,1.0,1.0,-1.0,-1.0,1.0,0.31489432,-0.22211558,-0.8443476,-1.0,0.16833308,-1.0,1.0,-1.0,1.0
2025-07-21 15:54:35.015,0.6600000000000003,660,33,0.044315178,0.1971632,0.21845607,0.081718355,-0.16318923,-0.0051213275,-0.05289547,0.0074530765,0.005835129,0.0,0.0,0.0,0.0,0.5,0.0,0.0,-0.10314348,0.075875655,0.08997827,-0.059128184,0.009019059,-0.08825117,0.034246217,-0.01273554,-0.013696772,0.077367775,-0.08973083,0.10681165,0.023322133,-0.049904097,-0.03957566,0.045294322,-0.116975114,-0.06576188,-0.16719091,0.05505812,-0.030553538,0.08305919,-0.085080065,-0.010776904,-1.0,-1.0,1.0,0.31489432,-0.22211558,-0.8443476,-1.0,0.16833308,-1.0,1.0,-1.0,1.0,-1.0,-1.0,1.0,-1.0,1.0,-1.0,1.0,1.0,-1.0,-0.6101047,-0.45874307,0.1515486
2025-07-21 15:54:35.035,0.6800000000000003,680,34,-0.21062908,-0.12827215,0.07181861,-0.14719547,-0.20599072,0.006645947,-0.04564252,0.027355434,-0.044668417,0.0,0.0,0.0,0.0,0.5,0.0,0.0,-0.13229446,0.040901892,0.10867396,-0.06843638,0.05013383,-0.10150624,0.049732734,0.054058757,-0.048904546,0.053920534,-0.11796317,0.09362172,0.036869187,-0.093785055,0.03952275,-0.048564415,0.22577427,-0.029683597,0.055340786,0.119096585,-0.07018399,-0.120208845,-0.073541395,0.013477899,-1.0,-1.0,1.0,-1.0,1.0,-1.0,1.0,1.0,-1.0,-0.6101047,-0.45874307,0.1515486,-1.0,1.0,1.0,-1.0,-0.14225525,-0.07941002,1.0,1.0,1.0,1.0,-0.5475604,1.0
2025-07-21 15:54:35.055,0.7000000000000003,700,35,0.065209046,-0.15952772,-0.020468755,0.11896794,-0.012328512,-0.08641748,-0.055080693,-0.012836626,0.013435154,0.0,0.0,0.0,0.0,0.5,0.0,0.0,-0.12390487,0.05175633,0.11110311,-0.089172885,0.049254566,-0.086754024,0.061218724,0.10395881,-0.01331736,0.065399274,-0.13156456,0.10013107,0.06052807,-0.014080741,-0.03628221,-0.08236438,-0.125253,0.087820925,0.007074005,0.14424728,0.12592107,-0.011212111,-0.057810284,-0.00865079,-1.0,1.0,1.0,-1.0,-0.14225525,-0.07941002,1.0,1.0,1.0,1.0,-0.5475604,1.0,-1.0,1.0,1.0,-0.20824009,-0.48224524,-1.0,1.0,-1.0,-1.0,1.0,-0.45357808,1.0
2025-07-21 15:54:35.080,0.7200000000000003,720,36,-0.004406143,-0.10789702,-0.12697387,0.04994762,0.09137659,-0.07967454,-0.098017916,0.03266162,-0.022349719,0.0,0.0,0.0,0.0,0.5,0.0,0.0,-0.1391499,0.093229815,0.094200075,-0.07312611,0.017270574,-0.10030549,0.08534231,0.1199438,-0.036264297,0.08060117,-0.13664435,0.096096,0.046216004,0.17975469,0.015190792,0.005969586,-0.1354391,0.004346811,-0.0020538403,-0.11504969,-0.011923126,0.076598935,0.0037738234,-0.016219074,-1.0,1.0,1.0,-0.20824009,-0.48224524,-1.0,1.0,-1.0,-1.0,1.0,-0.45357808,1.0,-1.0,-1.0,1.0,-0.39045984,0.6537367,-0.051414907,1.0,-1.0,-0.38271266,1.0,-1.0,1.0
2025-07-21 15:54:35.096,0.7400000000000003,740,37,-0.26565,-0.021425895,0.21393031,0.06320458,-0.18452828,0.042387348,-0.083191864,-0.0662035,-0.029058738,0.0,0.0,0.0,0.0,0.5,0.0,0.0,-0.13296324,0.0839623,0.09913095,-0.072010376,0.014331519,-0.08457539,0.1007402,0.026394825,-0.030094765,0.08886651,-0.15975812,0.11295079,0.00044963683,-0.06362933,-0.022686165,0.041247543,0.09717976,0.0819089,0.045648497,-0.18199304,-0.0066427495,0.062701285,-0.15938053,-0.008254856,-1.0,-1.0,1.0,-0.39045984,0.6537367,-0.051414907,1.0,-1.0,-0.38271266,1.0,-1.0,1.0,-1.0,1.0,1.0,-1.0,0.23488596,-1.0,1.0,1.0,-1.0,1.0,1.0,1.0
2025-07-21 15:54:35.115,0.7600000000000003,760,38,0.18952599,-0.28139067,-0.17647837,-0.04757313,0.11019054,-0.06638064,-0.10573253,-0.017310156,-0.029353207,0.0,0.0,0.0,0.0,0.5,0.0,0.0,-0.12650396,0.110367045,0.10664503,-0.08344322,0.048321348,-0.0981337,0.105432115,0.013140817,-0.052268453,0.0849381,-0.15568215,0.10850387,0.022165405,0.0677181,-0.036222033,-0.02197438,0.00074827037,-0.01436661,0.06379671,0.09902368,-0.015510825,0.064450406,0.04557679,-0.03307537,-1.0,1.0,1.0,-1.0,0.23488596,-1.0,1.0,1.0,-1.0,1.0,1.0,1.0,-1.0,-1.0,1.0,0.18924719,-1.0,1.0,1.0,0.8156787,-1.0,1.0,-0.44529244,1.0
2025-07-21 15:54:35.135,0.7800000000000004,780,39,0.101534985,-0.24707352,0.10733985,0.096351735,-0.07239605,-0.12572077,-0.08742448,0.0031533388,0.043904137,0.0,0.0,0.0,0.0,0.5,0.0,0.0,-0.11968791,0.1354684,0.105935454,-0.06654129,-0.0022431163,-0.044117656,0.12568623,0.07034053,-0.0680638,0.09948691,-0.15277855,0.117789954,0.01954096,-0.0579233,-0.05636134,-0.02955857,-0.14686336,0.0689838,0.016437592,0.19940802,-0.08182934,-0.038575277,0.027882963,-0.038794048,-1.0,-1.0,1.0,0.18924719,-1.0,1.0,1.0,0.8156787,-1.0,1.0,-0.44529244,1.0,-1.0,-1.0,-1.0,1.0,0.91480744,1.0,-0.21323508,-1.0,1.0,1.0,1.0,1.0
2025-07-21 15:54:35.155,0.8000000000000004,800,40,-0.044706885,-0.15895303,0.2236414,0.12126019,0.008005389,0.118750535,-0.036098376,-0.071997724,-0.0247088,0.0,0.0,0.0,0.0,0.5,0.0,0.0,-0.12808846,0.1389143,0.06984368,-0.037864238,-0.020170182,-0.016360043,0.09594291,0.061541155,-0.04038822,0.11449498,-0.108708896,0.11728356,-0.043288693,0.029495392,-0.057847425,0.033639044,0.058644883,0.13469991,-0.0017472903,-0.104123004,0.14911942,0.095863484,0.12441693,0.025701996,-1.0,-1.0,-1.0,1.0,0.91480744,1.0,-0.21323508,-1.0,1.0,1.0,1.0,1.0,1.0,1.0,-1.0,0.85349584,0.5119924,1.0,-1.0,-1.0,1.0,-1.0,-0.7003062,1.0
2025-07-21 15:54:35.175,0.8200000000000004,820,41,0.037152927,-0.050434835,0.132631,0.20740399,0.16656336,-0.05606545,-0.09444697,-0.030966831,0.0082857115,0.0,0.0,0.0,0.0,0.5,0.0,0.0,-0.09202887,0.1675873,0.025510222,-0.028182674,-0.005554408,0.003343751,0.051060908,-0.01164756,-0.007981483,0.08891824,-0.106887385,0.126173,0.18672743,0.14623576,-0.02216794,0.06810223,0.14287178,0.10610333,-0.11353905,-0.26429963,0.113698944,-0.04880492,0.012076095,-0.011590546,1.0,1.0,-1.0,0.85349584,0.5119924,1.0,-1.0,-1.0,1.0,-1.0,-0.7003062,1.0,1.0,-1.0,-1.0,1.0,-1.0,1.0,-1.0,-0.8532773,1.0,1.0,1.0,0.49383184
2025-07-21 15:54:35.198,0.8400000000000004,840,42,0.09323814,-0.17844072,-0.03194119,0.31989205,0.20739739,0.029013278,0.0041814777,-0.045685027,0.027096009,0.0,0.0,0.0,0.0,0.5,0.0,0.0,-0.05273181,0.18785025,0.0104382895,0.0013782091,-0.0036697977,0.032147713,0.022935124,-0.079244696,0.019212414,0.10271023,-0.07002259,0.10878035,0.16611895,0.042323593,-0.0139316,0.01998811,0.008019618,0.022111587,-0.07557264,-0.10159214,0.011693402,0.017035725,0.23200187,-0.070961155,1.0,-1.0,-1.0,1.0,-1.0,1.0,-1.0,-0.8532773,1.0,1.0,1.0,0.49383184,1.0,-0.9029261,-1.0,1.0,-0.9164213,1.0,-1.0,-0.15313163,1.0,0.5856668,-0.74135816,-1.0
2025-07-21 15:54:35.216,0.8600000000000004,860,43,-0.2728108,0.018640779,-0.15835127,0.4006609,0.11509887,-0.032075595,-0.062563404,-0.079536796,0.019587932,0.0,0.0,0.0,0.0,0.5,0.0,0.0,-0.012160036,0.17683846,-0.020036386,0.03475756,-0.029217836,0.04735567,-0.026210945,-0.090877265,0.041990798,0.10261293,-0.077071175,0.071251124,0.038703058,-0.035802428,-0.09532156,0.063691944,-0.1415052,-0.017225359,-0.015580583,-0.003024251,0.0027451883,0.04813646,-0.070081376,-0.15055993,1.0,-0.9029261,-1.0,1.0,-0.9164213,1.0,-1.0,-0.15313163,1.0,0.5856668,-0.74135816,-1.0,1.0,1.0,-1.0,1.0,1.0,1.0,-1.0,-1.0,1.0,-1.0,1.0,-1.0
2025-07-21 15:54:35.236,0.8800000000000004,880,44,-0.28072798,-0.104630746,-0.21870972,0.25079793,0.3799546,0.09935692,-0.014215057,-0.10505661,0.043521374,0.0,0.0,0.0,0.0,0.5,0.0,0.0,0.02066391,0.20328958,-0.044879556,0.058665562,-0.017213367,0.05550659,-0.052600123,-0.13162883,0.06717294,0.07435007,-0.054589104,0.02322659,0.11375563,0.0838742,-0.0068676285,0.015204342,0.051568095,0.055275727,-0.12712842,-0.17128615,0.008607925,-0.1583269,0.10761627,-0.1383186,1.0,1.0,-1.0,1.0,1.0,1.0,-1.0,-1.0,1.0,-1.0,1.0,-1.0,1.0,-1.0,-1.0,1.0,-0.5545578,1.0,-1.0,1.0,1.0,0.022259012,0.42332694,1.0
2025-07-21 15:54:35.256,0.9000000000000005,900,45,-0.1326551,0.033911344,-0.29528052,0.1185883,0.14555308,-0.019888895,0.0546743,-0.13253634,-0.034164168,0.0,0.0,0.0,0.0,0.5,0.0,0.0,0.04850971,0.18645665,-0.068540074,0.072321534,-0.012810195,0.072515175,-0.05878265,-0.1253266,0.07007424,0.047109086,-0.0049069626,0.057265338,0.1098977,-0.073679924,-0.021451632,-0.040932946,0.002966828,0.047824647,-0.030128466,0.056554455,0.08002548,0.014794068,0.048681736,0.03672045,1.0,-1.0,-1.0,1.0,-0.5545578,1.0,-1.0,1.0,1.0,0.022259012,0.42332694,1.0,0.0934497,-1.0,-1.0,1.0,1.0,1.0,-1.0,-1.0,1.0,1.0,-1.0,-0.0023048222
2025-07-21 15:54:35.281,0.9200000000000005,920,46,-0.49217921,0.043633338,-0.15303507,-0.022390734,-0.18650648,0.08303532,0.039249264,-0.1308593,0.021297444,0.0,0.0,0.0,0.0,0.5,0.0,0.0,0.049016174,0.16230047,-0.070587434,0.080813184,0.0072312793,0.080987535,-0.064374596,-0.15371606,0.093575664,0.067078866,-0.03920469,0.04590925,0.055239487,-0.077722415,-0.0048447936,-0.0005477979,-0.008349447,0.057314962,-0.097494096,-0.014380815,0.031119687,0.070373185,-0.18747224,-0.032553915,0.0934497,-1.0,-1.0,1.0,1.0,1.0,-1.0,-1.0,1.0,1.0,-1.0,-0.0023048222,1.0,1.0,-1.0,1.0,1.0,1.0,-1.0,-0.4625114,1.0,0.74870956,-0.1070302,0.97550964
2025-07-21 15:54:35.299,0.9400000000000005,940,47,-0.21807957,-0.0657116,0.07384544,-0.065803796,0.061538436,0.05685386,0.018831434,-0.0721332,0.024083376,0.0,0.0,0.0,0.0,0.5,0.0,0.0,0.071349934,0.17224106,-0.09554847,0.07853824,0.04557751,0.07740874,-0.07589771,-0.16144365,0.10322143,0.07762382,-0.04384752,0.051433433,0.09768003,0.12561452,-0.06397541,-0.051891863,0.12311761,-0.022622291,0.01529316,-0.021016845,0.049173675,0.014204687,-0.0025394468,-0.0004635791,1.0,1.0,-1.0,1.0,1.0,1.0,-1.0,-0.4625114,1.0,0.74870956,-0.1070302,0.97550964,1.0,-1.0,-0.40274584,1.0,-1.0,1.0,-1.0,-0.15772507,1.0,1.0,-1.0,1.0
2025-07-21 15:54:35.316,0.9600000000000005,960,48,-0.3429359,0.30976632,0.22123723,0.10050916,0.060451042,-0.04215951,-0.0047219982,-0.050273567,-0.006670937,0.0,0.0,0.0,0.0,0.5,0.0,0.0,0.07840132,0.16511378,-0.08769199,0.09535053,0.054925002,0.096487544,-0.093023956,-0.13787924,0.09576273,0.10188048,-0.09729756,0.08469647,0.117955774,-0.14635266,0.021693137,0.0670058,-0.07221959,0.045472775,-0.05135716,0.011185475,-0.044213682,0.06262325,-0.18802202,0.0620548,1.0,-1.0,-0.40274584,1.0,-1.0,1.0,-1.0,-0.15772507,1.0,1.0,-1.0,1.0,1.0,-0.4531951,-1.0,1.0,1.0,1.0,-1.0,-1.0,1.0,0.6592587,1.0,-1.0
2025-07-21 15:54:35.336,0.9800000000000005,980,49,0.00074711867,0.27569568,-0.18987907,-0.014360096,-0.028081873,0.07274035,0.021188367,-0.080221094,0.024253348,0.0,0.0,0.0,0.0,0.5,0.0,0.0,0.09454533,0.08639192,-0.090435386,0.09435677,0.07630454,0.09682005,-0.09199988,-0.14813587,0.11448373,0.10347568,-0.1012346,0.049314935,-0.044082947,-0.16837277,-0.013345502,0.00843622,0.068730704,-0.050977215,-0.010522009,0.019968238,0.05226826,0.03886704,0.11787957,-0.02578805,1.0,-0.4531951,-1.0,1.0,1.0,1.0,-1.0,-1.0,1.0,0.6592587,1.0,-1.0,1.0,0.41649848,-0.09902048,1.0,-0.68460333,1.0,-1.0,-1.0,1.0,-1.0,1.0,-1.0
2025-07-21 15:54:35.356,1.0000000000000004,1000,50,-0.058938757,0.23317772,-0.14524196,0.13456954,-0.16002321,0.038442593,-0.014141718,-0.05860835,0.04281688,0.0,0.0,0.0,0.0,0.5,0.0,0.0,0.10973477,0.088086374,-0.09485476,0.085543804,0.10087537,0.10504632,-0.10558209,-0.15591908,0.11203335,0.07469673,-0.020343183,0.0048504747,-0.0067146234,-0.0032890115,0.031280596,0.05643655,0.010878065,-0.013259987,-0.046233185,-0.0150656765,0.02895287,-0.12899797,0.21263604,-0.14372888,1.0,0.41649848,-0.09902048,1.0,-0.68460333,1.0,-1.0,-1.0,1.0,-1.0,1.0,-1.0,0.6035028,-0.42056012,-1.0,1.0,1.0,1.0,-1.0,0.48784342,1.0,-1.0,-0.8981719,-1.0
2025-07-21 15:54:35.380,1.0200000000000005,1020,51,-0.2487315,0.30582067,0.19031581,0.13296457,-0.007617505,0.074530154,0.050086055,-0.15645322,0.020947274,0.0,0.0,0.0,0.0,0.5,0.0,0.0,0.1171101,0.07829051,-0.10309732,0.093515486,0.11485023,0.11095629,-0.105891705,-0.13822588,0.11330079,0.01773378,-0.004259357,-0.019815335,-0.03969852,0.010715075,0.00027806888,0.00706139,0.12001274,-0.008157887,-0.08449181,0.027487623,0.053166024,-0.124167904,-0.09731709,-0.08965645,0.6035028,-0.42056012,-1.0,1.0,1.0,1.0,-1.0,0.48784342,1.0,-1.0,-0.8981719,-1.0,1.0,-1.0,-1.0,1.0,-0.30620652,1.0,-1.0,0.26007083,1.0,-1.0,1.0,-1.0
2025-07-21 15:54:35.399,1.0400000000000005,1040,52,-0.3326514,0.2206511,0.175556,0.08109247,-0.0031127993,0.061739013,-0.00941938,-0.12314775,0.02663307,0.0,0.0,0.0,0.0,0.5,0.0,0.0,0.113561764,0.050984003,-0.105453566,0.1034717,0.12719986,0.116041645,-0.11257961,-0.1077451,0.118945934,-0.00047841767,0.018815052,-0.04947058,0.01724464,-0.048425045,-0.027073313,-0.03823624,0.011239338,0.029177792,0.016936354,0.085714296,-0.010991435,-0.015699228,0.1471089,-0.022804031,1.0,-1.0,-1.0,1.0,-0.30620652,1.0,-1.0,0.26007083,1.0,-1.0,1.0,-1.0,1.0,0.6902658,-1.0,1.0,1.0,1.0,-1.0,-1.0,1.0,0.46413326,-1.0,-1.0
2025-07-21 15:54:35.416,1.0600000000000005,1060,53,-0.01232125,0.18528704,-0.052789856,0.17615494,-0.15529372,0.04548822,0.018592432,-0.10462249,0.037762616,0.0,0.0,0.0,0.0,0.5,0.0,0.0,0.12415047,0.06673987,-0.124267936,0.118529625,0.14548776,0.11162169,-0.12347707,-0.112389885,0.12392601,0.0039964863,0.023323,-0.0546084,-0.043061126,0.16209254,-0.0032163488,0.049165267,0.15745366,0.012235059,-0.0007591199,-0.061035432,-0.02399878,0.08472337,-0.13987972,-0.09031811,1.0,0.6902658,-1.0,1.0,1.0,1.0,-1.0,-1.0,1.0,0.46413326,-1.0,-1.0,0.54593587,-1.0,-0.8674612,1.0,-1.0,1.0,-1.0,0.1640425,1.0,-0.35078013,0.4448941,-1.0
2025-07-21 15:54:35.436,1.0800000000000005,1080,54,-0.013754431,0.35723382,-0.077203676,0.07536875,-0.10994916,0.012784137,-0.0013230538,-0.10366198,0.02099244,0.0,0.0,0.0,0.0,0.5,0.0,0.0,0.12592943,0.04395925,-0.12732509,0.11635478,0.16653177,0.11337803,-0.1289063,-0.10261884,0.12913336,-0.009695236,0.036990736,-0.071246944,0.0130525865,-0.04245894,-0.010941038,0.0030328545,0.012273057,0.031162204,-0.019018961,0.06669703,0.058700938,0.033452637,0.12188376,-0.026982037,0.54593587,-1.0,-0.8674612,1.0,-1.0,1.0,-1.0,0.1640425,1.0,-0.35078013,0.4448941,-1.0,-0.68341833,-1.0,1.0,1.0,1.0,1.0,-1.0,-1.0,1.0,-1.0,-0.67235917,-1.0
2025-07-21 15:54:35.456,1.1000000000000005,1100,55,-0.3619397,-0.23933136,0.17734921,-0.22418065,-0.19179983,0.1270363,0.06745362,-0.16138019,-0.0033826272,0.0,0.0,0.0,0.0,0.5,0.0,0.0,0.10515492,0.00732165,-0.08727894,0.10990874,0.19043247,0.11102605,-0.1354,-0.11389749,0.12781595,-0.024844952,0.009320875,-0.094347514,-0.024693662,-0.15146454,0.16487075,0.06451646,0.08605623,0.04137369,-0.036992967,-0.11265406,0.02216388,-0.08226152,-0.15684278,-0.08413067,-0.68341833,-1.0,1.0,1.0,1.0,1.0,-1.0,-1.0,1.0,-1.0,-0.67235917,-1.0,0.38870004,1.0,-1.0,0.46153533,-1.0,1.0,-1.0,1.0,1.0,1.0,-1.0,1.0
2025-07-21 15:54:35.480,1.1200000000000006,1120,56,-0.058275487,0.07664342,0.07860221,-0.08025059,0.04255704,-0.02163411,0.044475995,-0.17271616,-0.044127572,0.0,0.0,0.0,0.0,0.5,0.0,0.0,0.09137285,0.028475268,-0.10429852,0.11388232,0.20890652,0.11998129,-0.15394227,-0.089067176,0.14490351,-0.01452286,-0.060885176,-0.060784467,-0.007316709,0.12200555,0.01656046,0.004951023,-0.09350035,0.04829829,0.025181783,0.18639931,0.045583747,0.07933694,-0.23439524,0.057639807,0.38870004,1.0,-1.0,0.46153533,-1.0,1.0,-1.0,1.0,1.0,1.0,-1.0,1.0,-0.9460918,-1.0,1.0,1.0,-1.0,1.0,-1.0,-1.0,1.0,1.0,0.8984464,0.89727116
2025-07-21 15:54:35.497,1.1400000000000006,1140,57,-0.3780972,0.14831801,0.110849194,-0.1662974,-0.023269977,0.13777733,-0.004893354,-0.1413146,-0.016772604,0.0,0.0,0.0,0.0,0.5,0.0,0.0,0.08162442,0.021403166,-0.06609303,0.09964541,0.18544966,0.1285344,-0.157512,-0.080181375,0.13426295,0.029074421,-0.07861815,-0.025025832,-0.11396906,-0.048602972,0.05721387,0.0025706599,-0.08925851,0.05551188,-0.018131483,-0.1317443,0.02472318,0.13435784,0.16395047,0.051753104,-0.9460918,-1.0,1.0,1.0,-1.0,1.0,-1.0,-1.0,1.0,1.0,0.8984464,0.89727116,-1.0,1.0,1.0,1.0,1.0,-1.0,-1.0,0.9288056,1.0,1.0,-1.0,1.0
2025-07-21 15:54:35.517,1.1600000000000006,1160,58,-0.11246808,0.100158535,-0.04187414,-0.34515518,0.10225739,0.006992522,-0.005487484,-0.08668979,-0.019342136,0.0,0.0,0.0,0.0,0.5,0.0,0.0,0.04016673,0.028592043,-0.037367947,0.116876505,0.22954899,0.081537254,-0.15485957,-0.06736959,0.1349062,0.050608143,-0.07595421,0.021281084,-0.031256955,0.16529292,0.04965043,0.054274734,0.06847554,-0.04523188,-0.02872623,0.13667575,0.074994,0.034278873,-0.07351664,0.13451324,-1.0,1.0,1.0,1.0,1.0,-1.0,-1.0,0.9288056,1.0,1.0,-1.0,1.0,-1.0,0.510447,1.0,-1.0,-1.0,-1.0,-1.0,-1.0,1.0,1.0,-1.0,1.0
2025-07-21 15:54:35.537,1.1800000000000006,1180,59,-0.4545235,-0.046770085,-0.22884823,-0.50083685,-0.04465294,-0.042853177,-0.051565703,-0.12041482,-0.03685608,0.0,0.0,0.0,0.0,0.5,0.0,0.0,0.0033248276,0.05881368,-0.006909377,0.08146006,0.203841,0.03812728,-0.159385,-0.07413524,0.14310251,0.06402573,-0.13952526,0.030253073,-0.09346742,-0.0051400377,0.11255039,-0.14056347,-0.14791158,-0.046846516,-0.076750316,-0.1987326,0.05493811,0.0106328735,-0.18746258,0.024616292,-1.0,0.510447,1.0,-1.0,-1.0,-1.0,-1.0,-1.0,1.0,1.0,-1.0,1.0,-1.0,1.0,1.0,0.27772856,0.2092902,0.7260336,-1.0,1.0,1.0,1.0,1.0,1.0
2025-07-21 15:54:35.604,1.2000000000000006,1200,60,-0.12465041,-0.23699445,-0.33233607,-0.5586815,0.3615359,-0.06874181,0.02473432,-0.03568378,-0.0470359,0.0,0.0,0.0,0.0,0.5,0.0,0.0,-0.018276567,0.11216871,0.014011999,0.055175133,0.1805001,0.048077397,-0.15500419,-0.059569664,0.13165565,0.08159241,-0.13120422,0.06017105,-0.12765889,0.17416836,0.047809813,-0.014951781,-0.03097174,-0.0029465687,0.04405238,0.1356697,-0.07189322,0.0026766716,0.18457057,0.09036869,-1.0,1.0,1.0,0.27772856,0.2092902,0.7260336,-1.0,1.0,1.0,1.0,1.0,1.0,-1.0,1.0,1.0,0.62826574,-0.4707729,1.0,-0.6353887,-1.0,1.0,1.0,-1.0,1.0
2025-07-21 15:54:35.624,1.2200000000000006,1220,61,-0.3240444,0.10398055,-0.06407479,0.065751396,-0.043780115,-0.043420363,-0.06297595,-0.0060027717,-0.0063743354,0.0,0.0,0.0,0.0,0.5,0.0,0.0,-0.029052839,0.15698196,0.036484767,0.06267365,0.15769361,0.0718849,-0.15192556,-0.05748786,0.1514509,0.10982826,-0.1069271,0.073215686,-0.0651441,0.1730217,0.009109206,0.017867643,-0.04648034,0.017370507,0.05105589,-0.06139523,0.040141445,0.026551366,-0.10910779,0.09548234,-1.0,1.0,1.0,0.62826574,-0.4707729,1.0,-0.6353887,-1.0,1.0,1.0,-1.0,1.0,-0.9723773,1.0,-0.29896998,1.0,1.0,1.0,-1.0,-0.08342752,1.0,1.0,1.0,1.0
2025-07-21 15:54:35.649,1.2400000000000007,1240,62,0.06448034,-0.06471934,-0.11080161,0.018615598,0.10449739,-0.028603226,0.011293506,-0.031090662,0.039981414,0.0,0.0,0.0,0.0,0.5,0.0,0.0,-0.06836876,0.21530771,0.012787155,0.08618787,0.16710746,0.08295322,-0.15489359,-0.059542403,0.14769897,0.113094166,-0.105003186,0.08255309,-0.10885055,0.048759162,-0.076197736,0.09708531,0.14551091,0.036749203,-0.050988376,-0.03806202,-0.048493914,0.09566581,0.16407025,-0.019815115,-0.9723773,1.0,-0.29896998,1.0,1.0,1.0,-1.0,-0.08342752,1.0,1.0,1.0,1.0,1.0,-1.0,-1.0,-0.38785517,-1.0,1.0,-1.0,-1.0,1.0,1.0,-1.0,1.0
2025-07-21 15:54:35.664,1.2600000000000007,1260,63,0.0395254,0.14219792,0.045370296,0.22924069,-0.4106113,0.08601657,-0.061099343,-0.090321444,-0.042580683,0.0,0.0,0.0,0.0,0.5,0.0,0.0,-0.042131197,0.17979497,-0.0029896453,0.06722893,0.16251227,0.087102994,-0.1621467,-0.0780867,0.14937231,0.10881476,-0.10757115,0.0932241,0.12016163,-0.13745688,-0.0941324,-0.03852201,-0.02908175,-0.033089235,-0.0010169285,-0.13383886,0.07189688,-0.024596473,-0.05836597,-0.015075393,1.0,-1.0,-1.0,-0.38785517,-1.0,1.0,-1.0,-1.0,1.0,1.0,-1.0,1.0,1.0,-1.0,-1.0,1.0,-1.0,1.0,-1.0,-0.16627106,1.0,0.048651353,1.0,-1.0
2025-07-21 15:54:35.684,1.2800000000000007,1280,64,-0.29770032,0.005506547,0.05363208,0.29885316,-0.07760706,-0.052276958,-0.019812012,-0.109102115,-0.046305623,0.0,0.0,0.0,0.0,0.5,0.0,0.0,0.0043816403,0.07951972,-0.025326356,0.06710626,0.13901053,0.09889006,-0.15346953,-0.1065836,0.13738742,0.11072034,-0.084854975,0.059980463,0.06464016,-0.20387383,0.008902303,-0.009306689,-0.073225304,0.0758076,0.038333748,-0.0006425258,-0.06481573,-0.057450816,0.21844867,-0.10465339,1.0,-1.0,-1.0,1.0,-1.0,1.0,-1.0,-0.16627106,1.0,0.048651353,1.0,-1.0,1.0,1.0,-1.0,1.0,1.0,1.0,-1.0,-1.0,1.0,-1.0,1.0,-1.0
2025-07-21 15:54:35.704,1.3000000000000007,1300,65,-0.057645537,-0.061592773,-0.16258873,0.17522816,0.0021902926,0.035393998,-0.054694742,-0.055507116,0.029127251,0.0,0.0,0.0,0.0,0.5,0.0,0.0,0.03227858,0.081366606,-0.05472722,0.08909825,0.1348902,0.109930225,-0.14730497,-0.11059359,0.15618593,0.061904464,-0.0003841143,0.02602329,0.029289514,0.047055744,-0.048252143,-0.0232384,0.10346142,-0.03683335,-0.0013172748,-0.03320184,-0.0176973,-0.05828369,0.2220718,-0.01934458,1.0,1.0,-1.0,1.0,1.0,1.0,-1.0,-1.0,1.0,-1.0,1.0,-1.0,1.0,-0.7045477,-1.0,1.0,-1.0,1.0,-1.0,-0.9295565,1.0,-0.097463,-1.0,-1.0
2025-07-21 15:54:35.724,1.3200000000000007,1320,66,-0.28872374,-0.04288873,0.2127298,0.31498525,-0.15559067,0.035428494,-0.0036053704,-0.08409277,0.04137969,0.0,0.0,0.0,0.0,0.5,0.0,0.0,0.04227949,0.078925915,-0.07259949,0.10474362,0.13008289,0.11461165,-0.16303618,-0.16028659,0.15246099,0.055189203,-0.004010135,-0.02081475,0.09063155,0.00091126113,-0.102972105,0.0037646717,-0.08930034,-0.009461638,-0.07133158,-0.12204122,0.0111918235,-0.053053193,-0.08248869,-0.07639113,1.0,-0.7045477,-1.0,1.0,-1.0,1.0,-1.0,-0.9295565,1.0,-0.097463,-1.0,-1.0,1.0,-1.0,-1.0,1.0,1.0,1.0,-1.0,1.0,1.0,-0.24363194,0.6178566,-1.0
2025-07-21 15:54:35.748,1.3400000000000007,1340,67,0.013264849,-0.12505291,-0.07790386,0.07970458,0.10062435,0.048519805,-0.019513376,-0.09510295,-0.010218659,0.0,0.0,0.0,0.0,0.5,0.0,0.0,0.06626494,0.030890973,-0.09626918,0.10342621,0.14039914,0.11545085,-0.14317484,-0.1547912,0.14943041,0.032172605,0.023388097,-0.03953162,0.04293749,-0.26308367,-0.0499697,-0.014513593,0.16734509,-0.00030584497,0.033839233,0.110849276,0.051949725,-0.058382582,0.07131097,-0.059506763,1.0,-1.0,-1.0,1.0,1.0,1.0,-1.0,1.0,1.0,-0.24363194,0.6178566,-1.0,1.0,1.0,-0.8878808,1.0,-1.0,1.0,-1.0,-1.0,1.0,-1.0,-1.0,-1.0
2025-07-21 15:54:35.765,1.3600000000000008,1360,68,-0.08894137,0.07099149,-0.18591934,0.26804236,-0.0671149,-0.047956243,-0.00030019294,-0.09578814,0.027201235,0.0,0.0,0.0,0.0,0.5,0.0,0.0,0.08052921,0.016625483,-0.10920389,0.12010155,0.16290374,0.10632223,-0.14613041,-0.15391602,0.15389627,-0.0040764483,-0.0051285294,-0.052042555,0.06571698,0.16139248,-0.028256454,0.0023004967,-0.03380174,-0.00045639713,-0.024474567,-0.047296688,0.013012517,-0.011770015,-0.19438891,-0.0889439,1.0,1.0,-0.8878808,1.0,-1.0,1.0,-1.0,-1.0,1.0,-1.0,-1.0,-1.0,1.0,-1.0,-1.0,1.0,-1.0,1.0,-1.0,-0.9094056,1.0,-1.0,1.0,-1.0
2025-07-21 15:54:35.784,1.3800000000000008,1380,69,-0.31395626,0.19031994,0.031307694,0.17623895,-0.10321417,0.079244114,-0.052440334,-0.19546077,-0.018499147,0.0,0.0,0.0,0.0,0.5,0.0,0.0,0.09971171,-0.0047715944,-0.10044491,0.13122219,0.12343155,0.11369172,-0.15633903,-0.20484993,0.15641178,-0.036822394,-0.010171108,-0.08235681,0.09217796,-0.13161294,0.002017308,-0.011477205,-0.07026954,-0.04659788,0.050445028,-0.09531526,-0.01876773,-0.101589404,0.12388083,0.027333025,1.0,-1.0,-1.0,1.0,-1.0,1.0,-1.0,-0.9094056,1.0,-1.0,1.0,-1.0,0.9718087,-0.3055206,-0.23872769,1.0,1.0,1.0,-1.0,1.0,1.0,1.0,-0.8318414,-1.0
2025-07-21 15:54:35.804,1.4000000000000008,1400,70,-0.33941218,0.32418853,-0.13621606,0.049130127,0.10750102,-0.03451979,0.034279056,-0.14412042,-0.026908498,0.0,0.0,0.0,0.0,0.5,0.0,0.0,0.10564692,-0.024571486,-0.10553863,0.13578534,0.16143858,0.13025506,-0.15079395,-0.18240945,0.14652379,-0.008344549,-0.025509669,-0.080006234,0.009173652,-0.039225493,0.07208466,-0.029525427,0.06529605,-0.039279602,0.022413751,0.06778314,0.06018636,0.079306886,-0.0908973,0.03590106,0.9718087,-0.3055206,-0.23872769,1.0,1.0,1.0,-1.0,1.0,1.0,1.0,-0.8318414,-1.0,0.12997235,-0.5501008,-0.7411983,1.0,1.0,1.0,-1.0,-1.0,1.0,-1.0,0.7028801,-1.0
2025-07-21 15:54:35.824,1.4200000000000008,1420,71,-0.3466756,0.07792376,-0.18360595,-0.16061834,-0.05921164,0.06841058,0.037209656,-0.15654692,0.02002427,0.0,0.0,0.0,0.0,0.5,0.0,0.0,0.106545545,-0.04223754,-0.0974736,0.1251259,0.19130434,0.11888639,-0.15451945,-0.18397422,0.154564,-0.025855789,-0.021019837,-0.098624624,-0.04521579,-0.06708414,0.048792485,-0.034024905,0.045979727,0.030083615,-0.029195078,-0.059074026,-0.038791187,-0.1127096,0.08789455,-0.013932616,0.12997235,-0.5501008,-0.7411983,1.0,1.0,1.0,-1.0,-1.0,1.0,-1.0,0.7028801,-1.0,1.0,0.63578725,-1.0,1.0,-0.0042438135,1.0,-1.0,1.0,1.0,0.997131,-1.0,-1.0
2025-07-21 15:54:35.873,1.4400000000000008,1440,72,-0.22823113,0.32077435,-0.10676994,0.031943582,0.016081197,-0.072677255,-0.014206411,-0.13758817,-0.041365344,0.0,0.0,0.0,0.0,0.5,0.0,0.0,0.10785372,-0.025297994,-0.12426152,0.14278552,0.21309513,0.131,-0.15437265,-0.16267146,0.13759793,0.003624982,-0.023803571,-0.11153559,0.0656436,0.20991214,-0.013044045,-0.018461678,0.03281911,-0.0017563989,0.04057375,0.14475466,0.031592835,0.072139055,-0.22122175,-0.07508743,1.0,0.63578725,-1.0,1.0,-0.0042438135,1.0,-1.0,1.0,1.0,0.997131,-1.0,-1.0,-0.4873201,-1.0,-1.0,1.0,-0.58433944,1.0,-1.0,-1.0,1.0,-1.0,1.0,-1.0
2025-07-21 15:54:35.896,1.4600000000000009,1460,73,-0.1557244,0.24258256,0.059979282,0.022413323,-0.19334543,0.040898584,-0.030033609,-0.103381634,0.043727376,0.0,0.0,0.0,0.0,0.5,0.0,0.0,0.086005755,-0.031895384,-0.11808639,0.12540615,0.18878345,0.14637105,-0.16299655,-0.18245092,0.14478089,-0.010289067,-0.037989523,-0.11627986,-0.0011948677,-0.13043286,-0.07080917,-0.08982321,-0.08176712,-0.003637285,-0.06856292,-0.035834618,-0.03382347,0.006028648,0.06277609,-0.039153337,-0.4873201,-1.0,-1.0,1.0,-0.58433944,1.0,-1.0,-1.0,1.0,-1.0,1.0,-1.0,1.0,0.21071899,-1.0,1.0,1.0,1.0,-1.0,-0.7390052,1.0,-1.0,0.53144073,-1.0
2025-07-21 15:54:35.916,1.4800000000000009,1480,74,-0.041822407,-0.13430245,-0.07367699,0.00830584,0.011299702,0.003740425,-0.008963458,-0.123732105,-0.0180489,0.0,0.0,0.0,0.0,0.5,0.0,0.0,0.10007672,-0.033891667,-0.13114612,0.13777432,0.2065238,0.14330848,-0.16404726,-0.20256394,0.14735538,-0.04310175,0.020887412,-0.12819847,0.045199055,-0.022104539,-0.0488581,0.0379879,0.12754153,-0.06942786,0.04965175,0.0016903712,0.055530205,-0.02072742,0.11487765,-0.05811875,1.0,0.21071899,-1.0,1.0,1.0,1.0,-1.0,-0.7390052,1.0,-1.0,0.53144073,-1.0,1.0,-0.20504051,-0.74024963,1.0,-1.0,1.0,-1.0,0.32370844,1.0,1.0,-1.0,0.47637472
2025-07-21 15:54:35.934,1.5000000000000009,1500,75,-0.42705303,0.09000227,0.17849232,0.09534985,-0.006937751,-0.13445215,0.00053997163,-0.13950805,-0.030080138,0.0,0.0,0.0,0.0,0.5,0.0,0.0,0.10058924,-0.025367664,-0.13026129,0.14082412,0.2273571,0.13080686,-0.16403906,-0.1838957,0.13844235,-0.016291473,-0.011679475,-0.0990744,-0.0075892373,-0.09563325,-0.031791907,0.05879414,-0.09037473,0.04840939,-0.054548524,0.15855677,-0.052170053,0.057703767,-0.17114905,0.12340442,1.0,-0.20504051,-0.74024963,1.0,-1.0,1.0,-1.0,0.32370844,1.0,1.0,-1.0,0.47637472,1.0,1.0,0.22413003,0.8947229,1.0,1.0,-0.32097438,-1.0,1.0,1.0,-1.0,1.0
2025-07-21 15:54:35.953,1.520000000000001,1520,76,-0.1834909,-0.16020092,-0.23996834,-0.0659906,0.12624234,-0.10339964,0.006491983,-0.13752092,0.014979975,0.0,0.0,0.0,0.0,0.5,0.0,0.0,0.120356806,-0.010009174,-0.121751666,0.1557852,0.24016857,0.13647714,-0.15346706,-0.18172237,0.15713416,0.022360926,-0.07652323,-0.04820979,-0.006160338,0.1175708,0.12538214,0.002227449,0.1382269,-0.0622393,0.032263357,-0.1371015,0.06763301,0.13072535,-0.13176377,0.05400586,1.0,1.0,0.22413003,0.8947229,1.0,1.0,-0.32097438,-1.0,1.0,1.0,-1.0,1.0,-1.0,-1.0,1.0,-1.0,-1.0,0.31445324,0.8452607,1.0,1.0,1.0,0.4754788,1.0
2025-07-21 15:54:35.974,1.540000000000001,1540,77,-0.25246313,-0.20608363,-0.0118183615,-0.6406642,-0.05048374,-0.058301415,0.013997365,-0.083541386,-0.021246722,0.0,0.0,0.0,0.0,0.5,0.0,0.0,0.091670945,0.00310276,-0.08183862,0.10150441,0.2517628,0.11860233,-0.11464296,-0.17984949,0.14732921,0.042646132,-0.07456261,-0.02076786,-0.039193384,0.038110286,0.09385034,-0.14024782,0.007766816,-0.0036166597,0.10034617,0.07317426,0.056862578,0.12571831,0.16227336,0.073719464,-1.0,-1.0,1.0,-1.0,-1.0,0.31445324,0.8452607,1.0,1.0,1.0,0.4754788,1.0,-1.0,1.0,1.0,-0.11014557,-0.035987936,-1.0,-1.0,1.0,0.91543055,1.0,-1.0,1.0
2025-07-21 15:54:35.997,1.560000000000001,1560,78,-0.43253264,0.033378795,-0.123944014,-0.46359885,-0.0694813,-0.2983381,-0.09879177,-0.06275517,0.015203061,0.0,0.0,0.0,0.0,0.5,0.0,0.0,0.049499918,0.037230387,-0.034527734,0.06714181,0.265298,0.089928806,-0.10812674,-0.078589074,0.15264416,0.06096304,-0.090659335,0.024996843,-0.056660093,0.17493758,0.0788768,-0.03451732,0.037042964,-0.08155132,-0.04678168,0.23252025,0.026584316,0.07501435,-0.18147163,0.13891561,-1.0,1.0,1.0,-0.11014557,-0.035987936,-1.0,-1.0,1.0,0.91543055,1.0,-1.0,1.0,-1.0,1.0,1.0,0.33379275,-0.6727052,-1.0,-1.0,-1.0,1.0,1.0,1.0,1.0
2025-07-21 15:54:36.014,1.580000000000001,1580,79,-0.13906217,0.013197553,-0.47704262,-0.35834163,0.0374376,-0.23515993,-0.059341084,-0.062470596,-0.030014219,0.0,0.0,0.0,0.0,0.5,0.0,0.0,0.02681831,0.10626902,-0.014063611,0.06409585,0.27575174,0.043845322,-0.12345948,-0.05255996,0.14635175,0.07953285,-0.090810366,0.035619665,-0.019092076,0.16994563,0.010367607,0.019534212,0.022782922,-0.030755226,-0.016578862,-0.091152996,-0.022231998,-0.000961395,0.118275374,0.046341676,-1.0,1.0,1.0,0.33379275,-0.6727052,-1.0,-1.0,-1.0,1.0,1.0,1.0,1.0,-1.0,-1.0,1.0,0.93786126,-0.35488096,-1.0,1.0,0.7843121,1.0,1.0,-0.1932096,1.0
2025-07-21 15:54:36.034,1.600000000000001,1600,80,-0.4199131,0.048409354,-0.15331087,-0.2152346,0.064041354,-0.22506312,-0.03321868,-0.05205116,-0.009248619,0.0,0.0,0.0,0.0,0.5,0.0,0.0,0.006886894,0.1168193,0.011972527,0.07538784,0.28238338,0.015530863,-0.084083185,-0.024134079,0.15680775,0.09905585,-0.081859045,0.06044952,0.030557457,0.009545456,0.07221631,-0.026345694,0.004732933,-0.06438312,0.15121894,0.16838318,-0.0032131788,-0.015480233,-0.061999902,0.019773144,-1.0,-1.0,1.0,0.93786126,-0.35488096,-1.0,1.0,0.7843121,1.0,1.0,-0.1932096,1.0,-1.0,1.0,1.0,-0.29777944,-0.28814933,-1.0,-0.45155385,-1.0,1.0,1.0,1.0,1.0
2025-07-21 15:54:36.054,1.620000000000001,1620,81,-0.41735992,-0.27864355,-0.1609547,-0.18685363,0.059108242,-0.103752986,-0.056103356,-0.036277547,-0.048842955,0.0,0.0,0.0,0.0,0.5,0.0,0.0,-0.014813942,0.15950558,0.04060268,0.050271615,0.26553732,-0.019023865,-0.07548854,-0.02714999,0.14731395,0.09013595,-0.06666011,0.057801515,-0.005794489,0.17269975,0.12461722,-0.02877989,-0.103740245,-0.08197085,-0.05568746,-0.09238083,0.07821967,0.044626426,0.07381659,0.003850296,-1.0,1.0,1.0,-0.29777944,-0.28814933,-1.0,-0.45155385,-1.0,1.0,1.0,1.0,1.0,-1.0,-0.32137036,1.0,-0.8666738,-1.0,-0.016401827,-0.44529137,1.0,1.0,1.0,0.77006024,1.0
2025-07-21 15:54:36.074,1.640000000000001,1640,82,-0.32745272,0.22677542,0.06557806,-0.1392999,0.03701274,-0.039883178,-0.07048535,-0.011734262,-0.034727827,0.0,0.0,0.0,0.0,0.5,0.0,0.0,-0.037074745,0.1669488,0.05421516,0.028431015,0.22627449,-0.005326246,-0.071947135,-0.033414934,0.15100455,0.095239334,-0.011335665,0.069945075,0.02019881,-0.021826848,0.043922544,-0.13666622,-0.08062537,0.010552893,0.013561173,0.1950141,-0.028046006,0.079312906,0.11891823,0.009886207,-1.0,-0.32137036,1.0,-0.8666738,-1.0,-0.016401827,-0.44529137,1.0,1.0,1.0,0.77006024,1.0,-1.0,1.0,1.0,-1.0,1.0,-1.0,-1.0,-1.0,1.0,1.0,-1.0,1.0
2025-07-21 15:54:36.097,1.660000000000001,1660,83,-0.23770946,-0.0902109,0.11892252,-0.034792587,-0.100985,0.049263883,-0.07497618,0.040799774,0.049730957,0.0,0.0,0.0,0.0,0.5,0.0,0.0,-0.049321156,0.17933267,0.055210337,-0.0062001427,0.23424163,-0.034578696,-0.09966624,-0.03643586,0.14744209,0.10032683,-0.00698192,0.07336621,0.030396556,0.13177177,-0.026736036,-0.081712894,0.0465454,-0.027436083,-0.09706186,-0.20216441,0.0005177758,-0.04940071,-0.027598357,0.04930579,-1.0,1.0,1.0,-1.0,1.0,-1.0,-1.0,-1.0,1.0,1.0,-1.0,1.0,-1.0,0.88548744,1.0,-1.0,-1.0,0.08030301,-1.0,0.97003424,-1.0,1.0,-1.0,1.0
2025-07-21 15:54:36.114,1.680000000000001,1680,84,-0.42042834,0.18737581,-0.0043524746,0.11798858,-0.059884526,-0.020350536,-0.12987281,-0.010044694,-0.028693452,0.0,0.0,0.0,0.0,0.5,0.0,0.0,-0.06753466,0.21375681,0.08819763,-0.021112463,0.22823109,-0.044067767,-0.10765269,-0.04719719,0.10606397,0.11046003,-0.013874859,0.09017141,-0.058972225,0.017846137,0.07906698,-0.111876935,-0.12866893,0.07682851,-0.07508711,0.08773408,-0.07545737,0.018086271,-0.091659844,0.09752286,-1.0,0.88548744,1.0,-1.0,-1.0,0.08030301,-1.0,0.97003424,-1.0,1.0,-1.0,1.0,-1.0,-1.0,1.0,-0.23427722,1.0,-1.0,1.0,-0.32447398,-1.0,1.0,0.34114984,1.0
2025-07-21 15:54:36.134,1.700000000000001,1700,85,-0.16868092,0.28770986,-0.11195319,0.024607452,-0.040933378,0.18509243,-0.07787207,-0.0065440927,-0.04671492,0.0,0.0,0.0,0.0,0.5,0.0,0.0,-0.08934163,0.20581265,0.093905404,-0.02924448,0.25007194,-0.05103832,-0.080516234,-0.045127515,0.055394914,0.11817411,-0.014808945,0.09727758,-0.09576711,-0.09278265,0.0077660764,0.0110753225,0.087949544,-0.09654394,0.0533372,-0.09148029,-0.04776146,0.006879888,0.065182045,0.041162957,-1.0,-1.0,1.0,-0.23427722,1.0,-1.0,1.0,-0.32447398,-1.0,1.0,0.34114984,1.0,-1.0,-1.0,1.0,-1.0,-1.0,-1.0,1.0,1.0,-0.6286576,0.3377558,-1.0,1.0
2025-07-21 15:54:36.154,1.720000000000001,1720,86,-0.4116759,0.2789341,0.12113616,0.069094084,-0.30275267,-0.021679314,-0.12813424,-0.057113998,-0.010497425,0.0,0.0,0.0,0.0,0.5,0.0,0.0,-0.088137485,0.17708312,0.1086449,-0.04856837,0.21703264,-0.08125697,-0.040207483,-0.011415216,0.032797106,0.10544438,-0.023965422,0.10650236,-0.011845058,-0.03196488,-0.0426801,-0.016526164,-0.1903164,0.021021558,0.051378343,0.18483625,-0.13276015,-0.042937264,-0.0983572,0.062983625,-1.0,-1.0,1.0,-1.0,-1.0,-1.0,1.0,1.0,-0.6286576,0.3377558,-1.0,1.0,-1.0,0.7813952,1.0,-1.0,0.2065166,-1.0,1.0,-0.3710043,0.4742629,1.0,1.0,1.0
2025-07-21 15:54:36.174,1.740000000000001,1740,87,-0.09832118,-0.056157004,-0.30033854,-0.05075981,-0.16595559,0.082938924,-0.15579256,0.015186908,0.039096117,0.0,0.0,0.0,0.0,0.5,0.0,0.0,-0.113942854,0.19232282,0.0986627,-0.07142502,0.19882144,-0.0942401,-0.008821178,-0.022309335,0.043965917,0.12487372,-0.019718833,0.11558827,0.024073431,0.05608355,-0.026549034,-0.10434132,-0.015424145,-0.00366545,0.13852242,-0.069440484,0.09274865,-0.04248326,0.0700164,0.02848667,-1.0,0.7813952,1.0,-1.0,0.2065166,-1.0,1.0,-0.3710043,0.4742629,1.0,1.0,1.0,-1.0,-1.0,1.0,-1.0,-1.0,-1.0,1.0,1.0,-1.0,1.0,-1.0,1.0
2025-07-21 15:54:36.198,1.7600000000000011,1760,88,-0.41952685,0.021038486,0.06487141,0.08582584,-0.2593381,0.02320955,-0.11580336,-0.056164097,-0.03342781,0.0,0.0,0.0,0.0,0.5,0.0,0.0,-0.11097458,0.18045016,0.115384914,-0.09169794,0.1443172,-0.09613749,0.026687387,0.02346657,-0.004287617,0.12598525,-0.011137386,0.1250524,0.017817656,-0.023740688,-0.04231047,-0.10333012,-0.19372013,-0.09244649,0.043431118,0.20644401,-0.15215717,-0.015513375,-0.10065838,0.030123444,-1.0,-1.0,1.0,-1.0,-1.0,-1.0,1.0,1.0,-1.0,1.0,-1.0,1.0,-1.0,1.0,1.0,-1.0,0.6160419,-1.0,1.0,0.802426,-1.0,1.0,1.0,1.0
2025-07-21 15:54:36.215,1.7800000000000011,1780,89,-0.057683513,0.14324729,-0.38600898,-0.2047622,0.06150081,0.020412179,-0.17112249,-0.0742201,-0.009459849,0.0,0.0,0.0,0.0,0.5,0.0,0.0,-0.124101624,0.20286182,0.1076745,-0.107429765,0.13718733,-0.11420024,0.0481569,0.07526911,-0.013396377,0.13264999,-0.008263424,0.13176651,-0.091054946,0.0672984,-0.0216884,-0.088064685,0.06064501,-0.014380202,0.00386553,0.12827896,-0.001903925,0.067375585,0.14230493,-0.0007130807,-1.0,1.0,1.0,-1.0,0.6160419,-1.0,1.0,0.802426,-1.0,1.0,1.0,1.0,-1.0,-1.0,1.0,-1.0,-1.0,-1.0,1.0,0.37267187,-1.0,1.0,-1.0,1.0
2025-07-21 15:54:36.235,1.8000000000000012,1800,90,-0.1417159,0.18129466,0.03990119,0.09729096,-0.07918129,-0.06926829,-0.15846762,-0.018471789,0.040549967,0.0,0.0,0.0,0.0,0.5,0.0,0.0,-0.12272292,0.19762692,0.109560125,-0.10842317,0.13612758,-0.13081755,0.068358175,0.0987606,-0.053570382,0.13850603,-0.002194924,0.13224459,0.017728887,0.030673908,-0.008662049,-0.0504756,-0.017078161,-0.02828395,0.007231012,0.0062709134,-0.005634277,-0.05227288,-0.10241026,0.059131533,-1.0,-1.0,1.0,-1.0,-1.0,-1.0,1.0,0.37267187,-1.0,1.0,-1.0,1.0,-1.0,-1.0,1.0,-1.0,-0.39678052,-1.0,1.0,-0.042975277,0.39206022,1.0,1.0,1.0
2025-07-21 15:54:36.255,1.8200000000000012,1820,91,-0.6550899,0.076854475,0.056348026,0.018577706,-0.11895631,0.0052041877,-0.13203445,0.0013510406,-0.04369025,0.0,0.0,0.0,0.0,0.5,0.0,0.0,-0.14271504,0.1731395,0.1336345,-0.1285526,0.115808286,-0.11978867,0.08463885,0.06714475,-0.020488268,0.15475205,0.021881359,0.13891327,-0.04025819,-0.08994757,0.07455815,-0.02355819,-0.11119492,-0.059206348,-0.030121842,-0.085993595,0.11372529,-0.010563138,0.0932533,0.046013854,-1.0,-1.0,1.0,-1.0,-0.39678052,-1.0,1.0,-0.042975277,0.39206022,1.0,1.0,1.0,-1.0,1.0,1.0,-1.0,0.80935264,-1.0,1.0,0.04963526,-1.0,1.0,-1.0,1.0
2025-07-21 15:54:36.275,1.8400000000000012,1840,92,-0.38029572,-0.027217953,-0.19029394,-0.07936475,0.043316618,-0.04102731,-0.17022759,-0.059710134,-0.038812358,0.0,0.0,0.0,0.0,0.5,0.0,0.0,-0.14106548,0.2060171,0.12217954,-0.14128417,0.14454038,-0.1419901,0.093407445,0.06868252,-0.046235684,0.1518173,0.025590869,0.14419422,-0.07247866,0.052001502,-0.03866425,-0.049577165,0.1461958,0.015957119,-0.024605911,0.043005552,0.013683464,-0.06316958,-0.03224334,-0.00812081,-1.0,1.0,1.0,-1.0,0.80935264,-1.0,1.0,0.04963526,-1.0,1.0,-1.0,1.0,-1.0,0.86358714,1.0,-1.0,-1.0,-1.0,1.0,0.2139776,-1.0,1.0,-1.0,1.0
2025-07-21 15:54:36.298,1.8600000000000012,1860,93,-0.44583356,-0.117824405,-0.3495192,0.0566501,-0.082868665,-0.18181457,-0.17618605,-0.00088420394,-0.03970839,0.0,0.0,0.0,0.0,0.5,0.0,0.0,-0.15104909,0.22866414,0.12494123,-0.14806163,0.12125993,-0.14959238,0.117125,0.061987843,-0.07331368,0.1468118,-0.019548966,0.13587278,-0.053196378,-0.0025322298,-0.008534044,-0.015665056,-0.12915353,-0.046307966,-0.05140119,0.017657077,0.027776107,0.016463129,-0.15697244,0.06613202,-1.0,0.86358714,1.0,-1.0,-1.0,-1.0,1.0,0.2139776,-1.0,1.0,-1.0,1.0,-1.0,-1.0,1.0,-0.19229305,-0.44605985,1.0,1.0,-0.52923465,1.0,1.0,1.0,1.0
2025-07-21 15:54:36.315,1.8800000000000012,1880,94,-0.3055442,0.27535427,0.29703155,0.035115704,0.20061225,-0.08245674,-0.1268103,-0.0635577,-0.042096622,0.0,0.0,0.0,0.0,0.5,0.0,0.0,-0.1412012,0.22882207,0.122455835,-0.1404647,0.07486321,-0.108675584,0.12802866,0.026673086,-0.027789256,0.16620933,-0.022750817,0.14851795,0.030678859,-0.006146218,-0.047919028,-0.037140206,-0.08005907,0.05069112,-0.039402205,-0.18638177,0.06254588,-0.05925694,0.07850407,0.03678178,-1.0,-1.0,1.0,-0.19229305,-0.44605985,1.0,1.0,-0.52923465,1.0,1.0,1.0,1.0,1.0,1.0,-1.0,1.0,1.0,1.0,-1.0,-1.0,1.0,1.0,1.0,0.26538417
2025-07-21 15:54:36.335,1.9000000000000012,1900,95,-0.13761115,0.3683113,-0.10572564,0.19389108,0.43985474,-0.09672533,-0.052511055,-0.029617272,-0.0057537504,0.0,0.0,0.0,0.0,0.5,0.0,0.0,-0.090620995,0.25187156,0.08557633,-0.09011278,0.06906995,-0.07612216,0.09115054,-0.047892764,0.011162875,0.17450072,0.04170424,0.11355321,0.13642335,0.06751301,-0.10710193,0.097998925,0.0747188,0.025208496,-0.17232354,-0.22826561,0.09926135,0.0073988577,0.20861363,-0.02413178,1.0,1.0,-1.0,1.0,1.0,1.0,-1.0,-1.0,1.0,1.0,1.0,0.26538417,1.0,0.21112972,-1.0,1.0,1.0,1.0,-1.0,-1.0,1.0,-1.0,1.0,-1.0
2025-07-21 15:54:36.355,1.9200000000000013,1920,96,-0.46303907,0.37427515,-0.096613646,0.18404631,0.62395877,-0.038554266,-0.08250143,-0.04264514,-0.038353585,0.0,0.0,0.0,0.0,0.5,0.0,0.0,-0.045593135,0.28277394,0.050496373,-0.049988385,0.113871425,-0.044084135,0.04257642,-0.100857586,0.020880762,0.11196582,0.11853294,0.07328824,0.14610177,-0.0751673,-0.13602574,0.1328432,0.07457774,0.047497105,-0.16070169,-0.10942757,0.02852436,-0.15829408,0.18684243,-0.16296516,1.0,0.21112972,-1.0,1.0,1.0,1.0,-1.0,-1.0,1.0,-1.0,1.0,-1.0,1.0,-0.84650576,-1.0,1.0,1.0,1.0,-1.0,0.6128764,1.0,-1.0,0.25342122,-1.0
2025-07-21 15:54:36.431,1.9400000000000013,1940,97,-0.21834739,0.19337767,-0.30355904,0.04238185,0.5300317,0.004023179,-0.050741896,0.007538938,0.01802185,0.0,0.0,0.0,0.0,0.5,0.0,0.0,-0.019198963,0.26504728,0.019827416,-0.011092911,0.16806613,-0.015654257,0.0136811575,-0.109341614,0.041307382,0.07593377,0.12813011,0.035000347,0.0003471744,-0.03483986,-0.08609862,0.10402977,0.07182902,0.07974703,0.0031011626,0.020220615,0.08942846,-0.123912774,0.04878007,-0.12988204,1.0,-0.84650576,-1.0,1.0,1.0,1.0,-1.0,0.6128764,1.0,-1.0,0.25342122,-1.0,1.0,-0.5135262,-1.0,1.0,1.0,1.0,-1.0,-1.0,1.0,-1.0,-0.5086657,-1.0
2025-07-21 15:54:36.451,1.9600000000000013,1960,98,-0.27710155,0.26558867,-0.024591174,-0.15015256,0.003952964,0.1470489,0.00830221,-0.03294503,0.020447021,0.0,0.0,0.0,0.0,0.5,0.0,0.0,0.010116534,0.22796313,-0.017263815,0.00849695,0.20503393,0.019846626,0.0040563243,-0.11065876,0.05540513,0.023028044,0.07931637,-0.002477776,0.01385013,-0.21439333,-0.050374094,0.016464658,0.15302809,-0.033708848,-0.091399506,-0.09339282,0.01935996,-0.09064997,-0.1827511,-0.034607567,1.0,-0.5135262,-1.0,1.0,1.0,1.0,-1.0,-1.0,1.0,-1.0,-0.5086657,-1.0,1.0,1.0,-1.0,1.0,-1.0,1.0,-1.0,1.0,1.0,-1.0,1.0,-1.0
2025-07-21 15:54:36.475,1.9800000000000013,1980,99,-0.02010892,0.28056803,-0.19580752,0.0062165107,0.24501207,-0.10896889,0.03238257,-0.04485495,-0.016763654,0.0,0.0,0.0,0.0,0.5,0.0,0.0,0.032617915,0.2208904,-0.047413927,0.009529724,0.21173963,0.030222569,-0.009272353,-0.094018064,0.061742797,0.0008441922,0.0829084,-0.030178314,0.03792737,0.07055121,-0.08679965,0.078089386,0.024790473,0.034086168,-0.08023827,0.06458068,-0.04596186,-0.09788316,0.1264648,-0.109073915,1.0,1.0,-1.0,1.0,-1.0,1.0,-1.0,1.0,1.0,-1.0,1.0,-1.0,1.0,-1.0,-1.0,1.0,0.5572635,1.0,-1.0,-1.0,1.0,-1.0,1.0,-1.0
2025-07-21 15:54:36.495,2.0000000000000013,2000,100,-0.2010752,-0.1385666,0.290642,-0.10709435,-0.09189251,0.014432579,0.021712858,0.0030756998,0.029805396,0.0,0.0,0.0,0.0,0.5,0.0,0.0,0.061667092,0.19581851,-0.06424242,0.019604784,0.21239486,0.050099213,-0.033619285,-0.10174234,0.071857154,-0.03341137,0.13464598,-0.052682597,0.08568406,-0.2097516,-0.0036942724,0.03666485,0.040591117,0.07926549,0.0018818211,-0.027512088,0.09151718,-0.0054991306,0.07561982,-0.025976097,1.0,-1.0,-1.0,1.0,0.5572635,1.0,-1.0,-1.0,1.0,-1.0,1.0,-1.0,1.0,-0.83232844,-1.0,1.0,-1.0,1.0,-1.0,1.0,1.0,1.0,-1.0,-1.0
2025-07-21 15:54:36.517,2.0200000000000014,2020,101,-0.29839885,0.17713478,0.3719573,0.25191888,-0.111905664,-0.1695701,-0.02251728,-0.03515627,-0.03950009,0.0,0.0,0.0,0.0,0.5,0.0,0.0,0.092122674,0.103707716,-0.0712957,0.04396647,0.19980362,0.056861766,-0.04974838,-0.07419808,0.082798615,0.002436396,0.11675395,-0.059754316,0.029639823,-0.29573366,-0.071296394,-0.008135918,-0.036047082,0.05863135,0.023438293,0.08525607,-0.04440367,0.07877379,-0.22901133,-0.038513742,1.0,-0.83232844,-1.0,1.0,-1.0,1.0,-1.0,1.0,1.0,1.0,-1.0,-1.0,1.0,0.60193676,-1.0,1.0,1.0,1.0,-1.0,-1.0,1.0,-1.0,1.0,-1.0
2025-07-21 15:54:36.534,2.0400000000000014,2040,102,-0.0023324352,0.18989852,-0.09146798,0.10323649,-0.15113848,-0.048749838,-0.036046408,-0.052455455,0.022044018,0.0,0.0,0.0,0.0,0.5,0.0,0.0,0.09044852,0.078888945,-0.09089093,0.046969585,0.20029986,0.070131846,-0.05513474,-0.069970556,0.102186434,-0.02904771,0.12989612,-0.07695992,0.05572249,0.08508212,-0.0009838354,0.07516792,0.14679253,-0.002883971,-0.051229246,0.032255337,0.011540261,-0.10654549,0.15348464,-0.044177506,1.0,0.60193676,-1.0,1.0,1.0,1.0,-1.0,-1.0,1.0,-1.0,1.0,-1.0,1.0,-1.0,-0.15775776,1.0,-1.0,1.0,-1.0,-1.0,1.0,0.036586657,-1.0,-1.0
2025-07-21 15:54:36.554,2.0600000000000014,2060,103,-0.3050496,-0.064885445,0.11490015,0.37766406,-0.3135927,-0.0341955,-0.0485601,-0.029870199,-0.011903426,0.0,0.0,0.0,0.0,0.5,0.0,0.0,0.116861835,0.058616456,-0.07812371,0.07335035,0.18095411,0.07419892,-0.06682513,-0.12269648,0.10064074,-0.022954188,0.10838814,-0.096401356,0.048082568,-0.16883135,0.022972483,-0.0029862705,-0.035685845,0.020439895,0.013571141,-0.20626485,0.09467637,-0.055163443,-0.2508575,-0.04738045,1.0,-1.0,-0.15775776,1.0,-1.0,1.0,-1.0,-1.0,1.0,0.036586657,-1.0,-1.0,0.1422898,0.94636714,-1.0,1.0,1.0,1.0,-1.0,1.0,1.0,0.9101027,-0.21488138,-1.0
2025-07-21 15:54:36.576,2.0800000000000014,2080,104,0.23377553,-0.002290177,0.036798093,0.19551688,0.055227477,-0.021159995,-0.0056291716,-0.051004224,0.001461577,0.0,0.0,0.0,0.0,0.5,0.0,0.0,0.1049507,0.0386642,-0.09611728,0.08698377,0.19100757,0.094070315,-0.088827364,-0.1120016,0.11339525,0.004166354,0.063044116,-0.10994905,-0.03466129,0.11817998,0.0047065397,0.031994946,0.11135493,0.045976866,-0.06661373,0.01842481,-0.030601377,0.039521426,-0.08497822,-0.016370086,0.1422898,0.94636714,-1.0,1.0,1.0,1.0,-1.0,1.0,1.0,0.9101027,-0.21488138,-1.0,1.0,-1.0,-1.0,1.0,-1.0,1.0,-1.0,-1.0,1.0,-1.0,-0.48749402,-1.0
2025-07-21 15:54:36.594,2.1000000000000014,2100,105,0.06299353,0.06028356,0.19389188,0.2446703,-0.20221534,0.036709443,-0.006295244,-0.11227738,-0.04712585,0.0,0.0,0.0,0.0,0.5,0.0,0.0,0.09830695,0.033231948,-0.103845306,0.08455044,0.18803656,0.08526186,-0.08764468,-0.13540582,0.106093176,-0.014858208,0.02218558,-0.11593274,0.018181577,-0.18171178,-0.036601678,-0.0021184639,-0.0037831075,-0.009638946,-0.01338736,-0.12195704,-0.0060400004,-0.063224874,-0.14542851,-0.049635682,1.0,-1.0,-1.0,1.0,-1.0,1.0,-1.0,-1.0,1.0,-1.0,-0.48749402,-1.0,0.20687376,-1.0,-0.9273462,1.0,-1.0,1.0,-1.0,1.0,1.0,0.6313933,1.0,-1.0
2025-07-21 15:54:36.616,2.1200000000000014,2120,106,-0.14696546,0.34411746,0.19710843,0.14636303,-0.17032586,0.050272185,-0.058057297,-0.10534706,0.016046673,0.0,0.0,0.0,0.0,0.5,0.0,0.0,0.095911,-0.036121614,-0.10659144,0.099461585,0.16836919,0.10109878,-0.09631933,-0.11266546,0.11011833,0.012653112,0.03098357,-0.119246066,0.0054871114,-0.140328,0.028724775,0.06495526,-0.13107651,0.10162599,-0.06666237,0.053690918,0.010715559,0.027260406,0.11828116,-0.0024784624,0.20687376,-1.0,-0.9273462,1.0,-1.0,1.0,-1.0,1.0,1.0,0.6313933,1.0,-1.0,1.0,-0.5536374,-0.06747383,1.0,1.0,1.0,-1.0,-1.0,1.0,-1.0,-0.3150241,-1.0
2025-07-21 15:54:36.634,2.1400000000000015,2140,107,0.139993,0.020371702,0.06130349,0.21614547,-0.043108612,0.008164117,-0.02385656,-0.1545296,0.0010674109,0.0,0.0,0.0,0.0,0.9845701,0.0,0.0,0.10927687,-0.079525515,-0.09941789,0.10841168,0.18002133,0.10130708,-0.116599225,-0.11179056,0.13103737,-0.01866642,0.034650695,-0.12618858,0.044407126,-0.0732569,-0.0109426575,0.0015424881,0.09070942,0.043645464,-0.038124,-0.101901725,0.08908461,-0.059737,-0.12671779,-0.007532628,1.0,-0.5536374,-0.06747383,1.0,1.0,1.0,-1.0,-1.0,1.0,-1.0,-0.3150241,-1.0,-1.0,-0.22018886,1.0,1.0,-1.0,1.0,-1.0,0.61624706,1.0,0.39343596,0.13416247,-0.021697313
2025-07-21 15:54:36.654,2.1600000000000015,2160,108,0.11745887,0.17066947,0.296997,-0.19209805,0.02249165,-0.096388556,0.03070979,-0.15509003,0.028671741,0.0,0.0,0.0,0.0,0.98653656,0.0,0.0,0.093459226,-0.09548149,-0.06261788,0.10282846,0.19920316,0.12508208,-0.122608595,-0.080756634,0.13136396,-0.015009958,0.04716173,-0.106482,0.0019342991,-0.059416395,0.14717309,0.0077370647,-0.03257886,0.037739564,-0.04108671,0.22482893,-0.02352579,-0.017342431,-0.051327918,0.09488158,-1.0,-0.22018886,1.0,1.0,-1.0,1.0,-1.0,0.61624706,1.0,0.39343596,0.13416247,-0.021697313,-1.0,1.0,1.0,0.9888709,1.0,-0.3566131,-0.44531468,-1.0,1.0,1.0,-1.0,1.0
2025-07-21 15:54:36.676,2.1800000000000015,2180,109,-0.069256805,-0.038640276,0.1013511,-0.3797161,-0.0004442458,-0.13955227,-0.07008113,-0.14953592,0.033484377,0.0,0.0,0.0,0.0,0.9879348,0.0,0.0,0.059183493,-0.07455187,-0.027703471,0.12183854,0.2273059,0.079886355,-0.11379696,-0.08446338,0.13604896,0.026181718,-0.012105514,-0.056154482,-0.1546156,0.02722358,0.055147506,-0.050660986,0.057936396,-0.08886802,0.05614963,-0.1628996,0.05523744,0.024002984,-0.2062822,0.08081124,-1.0,1.0,1.0,0.9888709,1.0,-0.3566131,-0.44531468,-1.0,1.0,1.0,-1.0,1.0,-1.0,1.0,1.0,-1.0,0.1559838,-1.0,1.0,-0.0013460815,1.0,1.0,0.2819711,1.0
2025-07-21 15:54:36.699,2.2000000000000015,2200,110,0.115010336,0.12919584,-0.22469398,-0.583104,0.06836098,-0.09953682,-0.069825895,-0.040520582,-0.034735754,0.0,0.0,0.0,0.0,0.9889241,0.0,0.0,0.029185215,-0.00201754,-0.0011281628,0.086639866,0.2622611,0.050174695,-0.08766438,-0.067749254,0.13716239,0.037223026,-0.012628713,-0.027077314,-0.10802203,0.12779717,0.10628352,-0.1387479,0.01970455,-0.107162714,0.11635774,0.046587233,0.040043373,0.01794452,0.05886851,0.05802097,-1.0,1.0,1.0,-1.0,0.1559838,-1.0,1.0,-0.0013460815,1.0,1.0,0.2819711,1.0,-1.0,-1.0,1.0,-0.07742983,-1.0,-1.0,-1.0,-1.0,-0.3552158,1.0,-0.4987187,1.0
2025-07-21 15:54:36.715,2.2200000000000015,2220,111,-0.11672015,-0.017319134,0.03221774,-0.3569546,-0.1919787,-0.099111356,-0.040479604,0.016759166,-0.036386088,0.0,0.0,0.0,0.0,0.98960346,0.0,0.0,-0.011318917,0.010690862,0.022413963,0.052122347,0.2353782,0.025442434,-0.100227535,-0.098058835,0.09960741,0.07764134,-0.050820705,0.00026542094,-0.10033232,-0.11129121,0.09153322,-0.007349692,-0.11810494,-0.074290305,-0.026969522,-0.061073173,-0.042041525,0.06665155,-0.09046794,0.05488832,-1.0,-1.0,1.0,-0.07742983,-1.0,-1.0,-1.0,-1.0,-0.3552158,1.0,-0.4987187,1.0,-1.0,1.0,1.0,-1.0,1.0,-1.0,1.0,1.0,-1.0,1.0,-1.0,1.0
2025-07-21 15:54:36.735,2.2400000000000015,2240,112,-0.17007776,0.06297475,-0.33328933,-0.27679697,-0.0046070246,-0.18019198,-0.029626105,0.028713306,-0.013287778,0.0,0.0,0.0,0.0,0.99003434,0.0,0.0,-0.03408843,0.046556726,0.037273455,0.009994027,0.26082304,-0.013435351,-0.064453565,-0.08347109,0.056469806,0.08441665,-0.10502784,0.042399645,-0.07840747,0.1858432,0.060618937,-0.09870941,0.14974028,-0.11546271,0.12841704,0.11315362,-0.07210118,0.035416,-0.112355635,0.029573876,-1.0,1.0,1.0,-1.0,1.0,-1.0,1.0,1.0,-1.0,1.0,-1.0,1.0,-1.0,-1.0,1.0,-1.0,-1.0,-1.0,1.0,-0.21227439,0.8614327,1.0,1.0,1.0
2025-07-21 15:54:36.755,2.2600000000000016,2260,113,-0.12707867,-0.17169844,-0.11084435,-0.14116594,-0.004310454,0.0297813,-0.10176593,0.011052274,-0.02485302,0.0,0.0,0.0,0.0,0.99025303,0.0,0.0,-0.05098006,0.063768856,0.047707025,-0.016570099,0.23121542,-0.02911334,-0.02980022,-0.06503013,0.07659131,0.0942134,-0.102480255,0.04648997,-0.036000535,-0.07781647,0.07792854,-0.0689011,-0.17988971,-0.11398002,0.09204808,-0.08185088,-0.040765125,-0.025562493,0.05963,0.02574444,-1.0,-1.0,1.0,-1.0,-1.0,-1.0,1.0,-0.21227439,0.8614327,1.0,1.0,1.0,-1.0,1.0,1.0,-1.0,0.45878348,-1.0,0.24512014,1.0,-1.0,1.0,-1.0,1.0
2025-07-21 15:54:36.775,2.2800000000000016,2280,114,0.097946465,0.0048397495,-0.35436016,0.03972027,-0.014429663,-0.15256561,-0.048666965,0.018143706,-0.016335241,0.0,0.0,0.0,0.0,0.99027693,0.0,0.0,-0.05948184,0.09246224,0.064310856,-0.04295493,0.20956735,-0.063151486,-0.009297249,-0.022021905,0.04073116,0.09856482,-0.11303456,0.060118254,-0.084081225,0.03915434,0.015360857,-0.048099685,0.036177397,-0.08794043,0.033766676,0.27586755,-0.018398805,0.072129734,-0.045056608,0.096282616,-1.0,1.0,1.0,-1.0,0.45878348,-1.0,0.24512014,1.0,-1.0,1.0,-1.0,1.0,-1.0,-1.0,1.0,-1.0,-1.0,-1.0,1.0,-1.0,-0.24183106,1.0,1.0,1.0
2025-07-21 15:54:36.797,2.3000000000000016,2300,115,-0.22682872,-0.2621566,-0.011905232,0.010276716,-0.120321944,0.03876943,-0.035989907,0.042955864,0.040906176,0.0,0.0,0.0,0.0,0.99010795,0.0,0.0,-0.06921346,0.091943264,0.07909814,-0.055010896,0.14900564,-0.06948863,0.015183064,-0.010261843,0.033139672,0.09595407,-0.09493467,0.05774415,-0.0064901626,-0.044509202,0.046718568,-0.015402089,-0.16479504,-0.10963011,0.0087141115,-0.1883671,-0.024352346,0.04451423,0.14758727,0.016723461,-1.0,-1.0,1.0,-1.0,-1.0,-1.0,1.0,-1.0,-0.24183106,1.0,1.0,1.0,-1.0,1.0,1.0,-1.0,1.0,-1.0,1.0,1.0,-1.0,1.0,-1.0,1.0
2025-07-21 15:54:36.815,2.3200000000000016,2320,116,0.2943665,0.10901189,-0.006392389,0.08284271,-0.019410778,-0.026354304,-0.07197291,-0.007417974,0.007893527,0.0,0.0,0.0,0.0,0.9897327,0.0,0.0,-0.075859144,0.10500129,0.089824446,-0.0790366,0.13417304,-0.09228713,0.040013753,0.008979103,-0.0008781098,0.10157495,-0.08911982,0.08897771,-0.002387759,0.14966464,-0.06694649,-0.03176225,0.12164333,-0.0023467294,0.08137186,0.15416615,-0.080431245,0.028076118,-0.008282399,0.041685395,-1.0,1.0,1.0,-1.0,1.0,-1.0,1.0,1.0,-1.0,1.0,-1.0,1.0,-1.0,-1.0,1.0,-1.0,-1.0,-1.0,1.0,-0.7512386,-0.34930837,1.0,0.28364375,1.0
2025-07-21 15:54:36.835,2.3400000000000016,2340,117,0.080862544,-0.1868368,0.18804951,0.06412463,-0.16560629,0.05067867,-0.12338781,0.0006127393,-0.021756541,0.0,0.0,0.0,0.0,0.98912007,0.0,0.0,-0.09570643,0.111487105,0.094480515,-0.103817336,0.08966831,-0.09535377,0.059344556,-0.0031074025,-0.020464435,0.106441215,-0.06045525,0.08951418,-0.03060849,0.02826786,-0.02508654,-0.09161279,-0.13785206,0.02303079,0.115860105,-0.13691132,0.0030455685,-0.000250931,0.007503001,0.037921026,-1.0,-1.0,1.0,-1.0,-1.0,-1.0,1.0,-0.7512386,-0.34930837,1.0,0.28364375,1.0,-1.0,0.30321574,1.0,-1.0,0.034667112,1.0,1.0,1.0,-1.0,1.0,-1.0,1.0
2025-07-21 15:54:36.855,2.3600000000000017,2360,118,0.26413518,0.19309896,0.23296754,-0.07998187,-0.0020810831,0.103622675,-0.10758137,0.028573351,0.0057787118,0.0,0.0,0.0,0.0,0.9882158,0.0,0.0,-0.0908725,0.12776577,0.107835494,-0.1021987,0.050791733,-0.07252772,0.0873772,-0.0016337802,-0.035889335,0.122043565,-0.04360128,0.108033925,-0.056839753,0.043729804,-0.028222853,-0.08942035,0.008716659,0.108271025,-1.2345081e-05,0.21078484,-0.057069827,-0.033334047,-0.024785962,0.09525102,-1.0,0.30321574,1.0,-1.0,0.034667112,1.0,1.0,1.0,-1.0,1.0,-1.0,1.0,-1.0,-1.0,1.0,1.0,-1.0,-1.0,1.0,-0.76667726,-0.5393367,-1.0,0.63726574,-1.0
2025-07-21 15:54:36.875,2.3800000000000017,2380,119,0.1617191,-0.053493507,0.39985812,0.059686612,-0.066561565,0.0059401835,-0.06315639,0.020697633,-0.031441096,0.0,0.0,0.0,0.0,0.98693186,0.0,0.0,-0.097282186,0.105281614,0.11976048,-0.10812308,0.04039874,-0.084734954,0.09634607,-0.0046482985,-0.05476658,0.088443935,0.0031562124,0.06449999,0.059987888,-0.032139,0.09567442,0.119394034,-0.09061816,-0.03391591,0.04033757,-0.18629596,0.0011999431,-0.13766551,0.0787729,-0.03713601,-1.0,-1.0,1.0,1.0,-1.0,-1.0,1.0,-0.76667726,-0.5393367,-1.0,0.63726574,-1.0,-1.0,-1.0,1.0,-0.14994848,-1.0,1.0,1.0,0.7354983,-1.0,0.8174188,0.3649328,1.0
2025-07-21 15:54:36.896,2.4000000000000017,2400,120,-0.20059825,0.33994356,0.48070526,0.17866307,0.08201903,0.118910894,-0.06828542,0.020204661,0.04455155,0.0,0.0,0.0,0.0,0.985127,0.0,0.0,-0.09819375,0.100315325,0.12944782,-0.094461344,-0.0060883244,-0.057926074,0.10396683,0.00011047189,-0.07288387,0.09083455,0.015201696,0.05700674,0.053121723,-0.109832786,0.008526473,0.072258756,-0.16175552,0.14570689,0.08569304,0.07104423,0.015323638,-0.013124419,0.1166207,0.021452611,-1.0,-1.0,1.0,-0.14994848,-1.0,1.0,1.0,0.7354983,-1.0,0.8174188,0.3649328,1.0,1.0,-1.0,1.0,1.0,1.0,-1.0,-0.48864022,-1.0,1.0,-1.0,0.4459786,1.0
2025-07-21 15:54:36.916,2.4200000000000017,2420,121,-0.031686474,0.19373609,0.29822484,0.1192904,0.061462432,0.09905632,-0.058482185,-0.06914398,-0.045002174,0.0,0.0,0.0,0.0,0.98257077,0.0,0.0,-0.08931251,0.049067512,0.1356091,-0.049248822,0.009674622,-0.06414484,0.07718464,-0.026893042,-0.038703635,0.052163735,0.04613607,0.07615262,0.087473966,-0.17572439,-0.05054317,0.16741659,0.15936056,-0.10131504,-0.055387415,-0.19278078,0.10943943,-0.11843488,0.027812174,0.049045287,1.0,-1.0,1.0,1.0,1.0,-1.0,-0.48864022,-1.0,1.0,-1.0,0.4459786,1.0,-1.0,1.0,1.0,-0.39203632,-1.0,1.0,-1.0,0.7883216,1.0,1.0,-0.744275,-1.0
2025-07-21 15:54:36.936,2.4400000000000017,2440,122,-0.029866803,0.18049109,0.03271476,-0.009831802,-0.0029483417,-0.029624587,-0.117523186,0.016544502,-0.023598224,0.0,0.0,0.0,0.0,0.97887427,0.0,0.0,-0.08509683,0.046284202,0.13118859,-0.045423586,0.010467386,-0.03665644,0.04662819,-0.01458556,0.009132126,0.05826586,0.041469105,0.041862335,-0.039097343,0.085490845,0.0068818284,-0.008336966,-0.026908368,0.131666,-0.13785216,0.112987354,0.08623315,-0.0018454297,-0.16891903,-0.0493824,-1.0,1.0,1.0,-0.39203632,-1.0,1.0,-1.0,0.7883216,1.0,1.0,-0.744275,-1.0,1.0,1.0,-1.0,1.0,1.0,1.0,-1.0,-1.0,1.0,-1.0,1.0,-1.0
2025-07-21 15:54:36.956,2.4600000000000017,2460,123,0.1442449,-0.075729646,-0.12572142,0.04908391,0.4568533,0.058417764,-0.017619954,-0.020632142,-0.012803582,0.0,0.0,0.0,0.0,0.9733488,0.0,0.0,-0.04182195,0.10490269,0.079090156,-0.019569408,0.009479003,-0.017046446,0.0058280085,-0.029742446,0.02668799,0.028334895,0.033048745,-0.00047065437,0.10407643,0.11854632,-0.12996414,0.095721975,0.10895422,0.111624084,-0.015439826,-0.044874053,0.049013823,-0.08735949,0.09261439,-0.053426016,1.0,1.0,-1.0,1.0,1.0,1.0,-1.0,-1.0,1.0,-1.0,1.0,-1.0,1.0,1.0,-1.0,1.0,-1.0,1.0,-1.0,-1.0,1.0,-0.22754394,0.5861659,-1.0
2025-07-21 15:54:36.976,2.4800000000000018,2480,124,-0.034074593,0.22578652,-0.36899096,0.24773154,0.5183321,0.068136305,-0.02371543,-0.015039159,0.03495859,0.0,0.0,0.0,0.0,0.964698,0.0,0.0,-0.001455435,0.17310488,0.035873897,0.012501785,0.019918906,0.013492966,-0.01568493,-0.08502173,0.04218998,0.025081323,0.07098565,-0.025444107,0.07775229,0.14490634,-0.114602715,0.12022719,-0.049815986,0.00080904085,-0.091162026,-0.14026962,0.055614147,-0.085852295,0.008634441,-0.04061892,1.0,1.0,-1.0,1.0,-1.0,1.0,-1.0,-1.0,1.0,-0.22754394,0.5861659,-1.0,1.0,-1.0,-1.0,1.0,1.0,1.0,-1.0,-1.0,1.0,-1.0,1.0,-1.0
2025-07-21 15:54:36.999,2.5000000000000018,2500,125,-0.28103605,0.23036325,-0.48352176,0.014547215,0.24031489,0.15171981,-0.030511865,-0.0011198297,0.002003092,0.0,0.0,0.0,0.0,0.95029426,0.0,0.0,0.01864873,0.14987011,0.0036356484,0.03704805,0.060926717,0.04207573,-0.035589445,-0.1421948,0.07776304,-0.016507708,0.12477704,-0.04502324,0.059381757,-0.13155985,-0.04384295,0.017081792,0.11748433,0.028142713,0.0077414415,-0.17395534,0.06254953,-0.043074735,0.14092053,-0.043322388,1.0,-1.0,-1.0,1.0,1.0,1.0,-1.0,-1.0,1.0,-1.0,1.0,-1.0,1.0,1.0,0.1795373,1.0,1.0,1.0,-1.0,1.0,1.0,-0.46110594,-1.0,-1.0
2025-07-21 15:54:37.016,2.520000000000002,2520,126,0.22151591,0.24746901,-0.2905794,-0.05250375,0.28031945,0.00614842,0.024714947,-0.016453423,0.017119525,0.0,0.0,0.0,0.0,0.92434925,0.0,0.0,0.05228979,0.14842868,-0.001931457,0.045844696,0.10094308,0.051727217,-0.047884554,-0.12980117,0.071002364,-0.029351244,0.12695321,-0.07066228,0.058055457,0.048949245,0.037341505,0.051044337,0.13353707,-0.0061090565,0.04600633,0.022032728,-0.031604197,0.015494386,-0.20388031,-0.06524506,1.0,1.0,0.1795373,1.0,1.0,1.0,-1.0,1.0,1.0,-0.46110594,-1.0,-1.0,-0.8828777,-1.0,-1.0,1.0,-1.0,1.0,-1.0,-1.0,1.0,-1.0,0.4827475,-1.0
2025-07-21 15:54:37.036,2.540000000000002,2540,127,-0.09461986,0.012707498,-0.08893169,0.049573388,-0.07214586,0.049100485,0.060449623,-0.015838463,-0.037944417,0.0,0.0,0.0,0.0,0.8731686,0.0,0.0,0.019805219,0.14166187,-0.011249182,0.05526619,0.13546985,0.06777816,-0.067490205,-0.13395065,0.08930189,-0.036116436,0.11786007,-0.07367365,-0.077985175,-0.19138902,-0.06447804,-0.06972335,0.035729893,-0.0138258105,0.02863502,0.0171142,0.04580341,-0.06368385,-0.025896035,0.0063886438,-0.8828777,-1.0,-1.0,1.0,-1.0,1.0,-1.0,-1.0,1.0,-1.0,0.4827475,-1.0,1.0,-0.6120046,-1.0,1.0,0.4089277,1.0,-1.0,-1.0,1.0,-0.56084263,-0.71439475,-1.0
2025-07-21 15:54:37.056,2.560000000000002,2560,128,0.018400814,0.09492992,0.25437403,0.24650015,-0.17272916,0.06942299,0.041724287,-0.015899869,-0.021796843,0.0,0.0,0.0,0.0,0.7655069,0.0,0.0,0.036129672,0.06599353,-0.03563027,0.050827533,0.13235323,0.07388704,-0.069650605,-0.14940588,0.088073164,-0.049188416,0.07361089,-0.09439004,0.044656884,-0.1800732,-0.12710261,0.0380117,0.027999096,-0.05791422,-0.010072142,-0.082686566,-0.02653531,0.020650024,-0.20066059,-0.019512936,1.0,-0.6120046,-1.0,1.0,0.4089277,1.0,-1.0,-1.0,1.0,-0.56084263,-0.71439475,-1.0,0.9648367,0.06100535,-1.0,1.0,-1.0,1.0,-1.0,0.4908848,1.0,-0.8243655,1.0,-1.0
2025-07-21 15:54:37.081,2.580000000000002,2580,129,-0.056835115,0.31703186,0.025407288,0.17089981,0.01467887,-0.08964633,0.000107433676,-0.04912147,0.04909171,0.0,0.0,0.0,0.0,0.5623351,0.0,0.0,0.047775805,0.041760765,-0.05334962,0.056668937,0.12269509,0.08985565,-0.06966076,-0.14743726,0.08552322,-0.05605298,0.0752222,-0.101943485,0.043331705,-0.04712563,-0.0817773,0.04301279,-0.101253845,0.04475055,-0.104857296,0.041493587,-0.03415211,0.0041172034,0.054877833,-0.041731015,0.9648367,0.06100535,-1.0,1.0,-1.0,1.0,-1.0,0.4908848,1.0,-0.8243655,1.0,-1.0,1.0,-1.0,-1.0,1.0,1.0,1.0,-1.0,-1.0,1.0,-1.0,1.0,-1.0
2025-07-21 15:54:37.096,2.600000000000002,2600,130,-0.13203107,0.21018119,0.005268138,0.14674944,-0.22671,0.028198343,0.07617478,-0.06513296,0.047402013,0.0,0.0,0.0,0.0,0.32376814,0.0,0.0,0.08210525,-0.008514925,-0.07930024,0.07330591,0.12117475,0.09189112,-0.088809125,-0.16506806,0.106874384,-0.08926034,0.13701528,-0.11010817,0.007180082,-0.27407932,-0.05365519,0.012694155,0.06651824,0.005861962,-0.076249346,0.0013734759,0.09921355,-0.038155943,0.066760354,-0.040893298,1.0,-1.0,-1.0,1.0,1.0,1.0,-1.0,-1.0,1.0,-1.0,1.0,-1.0,1.0,1.0,1.0,1.0,0.54936147,1.0,-1.0,-1.0,1.0,0.82706654,-1.0,-1.0
2025-07-21 15:54:37.117,2.620000000000002,2620,131,0.025693025,0.28423953,0.15093379,0.25275478,-0.20634043,0.04161157,0.05428718,-0.12257981,0.042234823,0.0,0.0,0.0,0.0,0.17072313,0.0,0.0,0.101804055,-0.028009504,-0.038655236,0.07951602,0.15054232,0.08558925,-0.09103149,-0.1988289,0.120504804,-0.054412063,0.11381694,-0.12472073,-0.029326793,-0.045545667,0.08949487,-0.046816107,-0.029340608,-0.05196952,-0.06345327,-0.1431415,0.016606364,0.0796903,-0.17238927,0.059436712,1.0,1.0,1.0,1.0,0.54936147,1.0,-1.0,-1.0,1.0,0.82706654,-1.0,-1.0,-1.0,-1.0,-0.04554975,1.0,1.0,1.0,-1.0,1.0,1.0,-1.0,-1.0,-1.0
2025-07-21 15:54:37.136,2.640000000000002,2640,132,0.07119199,0.33913913,0.32595056,-0.18067744,-0.14874996,0.08867789,0.060661357,-0.06063834,0.0035071713,0.0,0.0,0.0,0.0,0.09668144,0.0,0.0,0.062269706,-0.048730265,-0.041856475,0.086514086,0.18931706,0.094982594,-0.1004566,-0.18963765,0.11999286,-0.07000206,0.029706916,-0.12864752,-0.064604074,-0.078938864,-0.038063966,0.039383456,0.14296833,0.07970707,0.01507704,0.12834911,0.044179834,-0.036124613,-0.28943518,-0.08889459,-1.0,-1.0,-0.04554975,1.0,1.0,1.0,-1.0,1.0,1.0,-1.0,-1.0,-1.0,1.0,1.0,1.0,1.0,-1.0,-1.0,-1.0,-1.0,1.0,-1.0,1.0,1.0
2025-07-21 15:54:37.157,2.660000000000002,2660,133,0.3097455,0.12767069,0.29830298,0.047452938,-0.1382281,0.007883899,0.04870472,-0.049296353,0.030902004,0.0,0.0,0.0,0.0,0.060653854,0.0,0.0,0.080861606,-0.041173022,-0.0125477845,0.08689114,0.20253731,0.05221294,-0.10946253,-0.17449193,0.12894808,-0.088612564,0.002686273,-0.08220367,0.09664821,0.05462017,0.05220107,0.062493246,-0.009799653,-0.12738457,-0.010574945,-0.08593819,0.09716857,-0.04409934,-1.2684877e-05,0.15983385,1.0,1.0,1.0,1.0,-1.0,-1.0,-1.0,-1.0,1.0,-1.0,1.0,1.0,-1.0,-1.0,1.0,-1.0,-1.0,-1.0,-0.17033291,1.0,-1.0,1.0,-1.0,1.0
2025-07-21 15:54:37.180,2.680000000000002,2680,134,0.067672074,-0.041357126,-0.053384062,-0.19666,-0.40692404,0.07629244,-0.052026365,-0.1165113,0.022959972,0.0,0.0,0.0,0.0,0.04153163,0.0,0.0,0.0623033,-0.039265443,0.020844935,0.06225119,0.1574499,0.012126456,-0.111162804,-0.15154707,0.078912035,-0.047665343,-0.017055899,-0.04042789,-0.044447068,-0.024776384,0.11339991,-0.18976167,-0.15417533,-0.053310543,0.05294347,0.104646,-0.12146042,0.14829665,-0.12229265,0.0330229,-1.0,-1.0,1.0,-1.0,-1.0,-1.0,-0.17033291,1.0,-1.0,1.0,-1.0,1.0,-1.0,-0.53123534,1.0,-0.9153539,-0.019118063,-0.93120736,1.0,1.0,-1.0,0.16389574,-1.0,1.0
2025-07-21 15:54:37.198,2.700000000000002,2700,135,-0.2963134,-0.043236393,-0.16542782,-0.314819,-0.34183356,0.0052386355,-0.058602024,-0.045612685,0.030882958,0.0,0.0,0.0,0.0,0.030466205,0.0,0.0,0.022169672,-0.07025794,0.031185167,0.024359055,0.13422056,0.0013233238,-0.05848443,-0.046742484,0.03967394,-0.026240189,-0.09529427,-0.011989229,-0.07629298,0.0064059845,0.072370544,-0.15745877,-0.11519746,-0.12634611,0.098190226,0.24950336,-0.04299085,0.049324602,-0.21166436,0.086213276,-1.0,-0.53123534,1.0,-0.9153539,-0.019118063,-0.93120736,1.0,1.0,-1.0,0.16389574,-1.0,1.0,-1.0,1.0,1.0,-0.84205085,1.0,-1.0,1.0,1.0,1.0,1.0,-1.0,1.0
2025-07-21 15:54:37.218,2.720000000000002,2720,136,-0.04658726,-0.04619821,-0.14267014,-0.4788741,-0.022396369,-0.009983314,-0.1036185,-0.01816884,-0.031067336,0.0,0.0,0.0,0.0,0.023598555,0.0,0.0,-0.0043765535,-0.06044984,0.04552001,-0.012428281,0.16811807,-0.03352146,-0.029419823,0.027330987,0.05879809,0.0008786741,-0.14601338,0.018120455,-0.04894508,0.057641126,-0.035413835,-0.05377674,0.12875499,-0.10438967,0.15337239,0.16682348,0.10009923,0.046924144,-0.19178858,0.11924599,-1.0,1.0,1.0,-0.84205085,1.0,-1.0,1.0,1.0,1.0,1.0,-1.0,1.0,-1.0,1.0,1.0,0.8633686,-1.0,-1.0,-1.0,-1.0,-1.0,1.0,0.72863764,1.0
2025-07-21 15:54:37.238,2.740000000000002,2740,137,0.111518234,-0.011414389,-0.21868253,-0.34904677,0.13755345,-0.14099166,-0.09565469,0.017152544,-0.025262525,0.0,0.0,0.0,0.0,0.019101385,0.0,0.0,-0.031436898,0.006429729,0.06507395,-0.009509885,0.19011644,-0.05970468,-0.04124679,0.051190093,0.0153014315,0.03358907,-0.1439447,0.036098633,-0.025395557,0.16048956,0.06449465,-0.044908144,-0.017598877,-0.09943919,-0.11451856,-0.07533843,-0.12921086,0.058106676,0.2034623,0.09776476,-1.0,1.0,1.0,0.8633686,-1.0,-1.0,-1.0,-1.0,-1.0,1.0,0.72863764,1.0,-1.0,-1.0,1.0,-1.0,-1.0,-1.0,1.0,0.7823136,-1.0,1.0,-1.0,1.0
2025-07-21 15:54:37.260,2.760000000000002,2760,138,-0.06751854,0.111346565,-0.13805296,-0.03415968,-0.011097952,-0.035973437,-0.116966136,0.046911754,0.0038308608,0.0,0.0,0.0,0.0,0.01603778,0.0,0.0,-0.031564943,0.018786961,0.07260831,-0.032103457,0.17037286,-0.07601857,-0.010874683,0.06539408,-0.013789449,0.03844777,-0.13322842,0.057156045,-0.04599298,0.007523109,0.06155692,-0.06511778,-0.10487652,-0.0448189,0.09751172,0.06979815,-0.1388548,0.08726619,-0.037110846,-0.007524623,-1.0,-1.0,1.0,-1.0,-1.0,-1.0,1.0,0.7823136,-1.0,1.0,-1.0,1.0,-1.0,-1.0,1.0,-1.0,-0.42467898,-1.0,1.0,0.9642378,-0.8537657,1.0,0.44633284,1.0
2025-07-21 15:54:37.280,2.780000000000002,2780,139,-0.29094788,0.14109245,0.12270959,-0.07162521,-0.018279772,0.12099621,-0.10604217,0.032524105,0.042988732,0.0,0.0,0.0,0.0,0.013893739,0.0,0.0,-0.051459644,0.006937855,0.08677444,-0.049580954,0.12223964,-0.092808574,0.0201561,0.12860666,-0.037185732,0.04465815,-0.11888755,0.07881976,0.018451214,-0.08603244,0.031162746,0.015484352,-0.09182934,-0.08408863,0.11842267,0.16690639,0.0037178195,0.052253302,0.06614017,0.08668238,-1.0,-1.0,1.0,-1.0,-0.42467898,-1.0,1.0,0.9642378,-0.8537657,1.0,0.44633284,1.0,-1.0,1.0,1.0,-0.7791012,1.0,-1.0,1.0,-0.18060234,-1.0,0.1452371,-1.0,1.0
2025-07-21 15:54:37.298,2.800000000000002,2800,140,-0.17263605,-0.00062550046,0.0964544,-0.07754028,-0.21974897,0.053065922,-0.09267736,0.018295223,0.02873853,0.0,0.0,0.0,0.0,0.0123714525,0.0,0.0,-0.073225714,0.026251161,0.08572407,-0.075923555,0.13996597,-0.09256259,0.044433355,0.120886505,-0.042011157,0.04814771,-0.113207266,0.089526586,-0.020445498,0.069130756,0.05954401,0.031733416,0.10586113,-0.035780225,0.08198367,-0.10296073,0.0046199984,0.0036154108,-0.10825856,0.06643273,-1.0,1.0,1.0,-0.7791012,1.0,-1.0,1.0,-0.18060234,-1.0,0.1452371,-1.0,1.0,-1.0,1.0,1.0,-1.0,-1.0,-1.0,1.0,-0.79445636,0.05076289,1.0,-0.6203541,1.0
2025-07-21 15:54:37.318,2.820000000000002,2820,141,-0.015074959,-0.076859124,-0.1814775,0.046000805,-0.07149313,-0.026508689,-0.0959726,0.0007324164,-0.04636703,0.0,0.0,0.0,0.0,0.011291096,0.0,0.0,-0.07054967,0.06649751,0.098157406,-0.08298689,0.13661438,-0.105221845,0.065230444,0.046009038,-0.04235636,0.06397546,-0.13744219,0.09316135,0.028586525,0.1904957,0.025202908,0.026164303,-0.1919875,-0.020399574,0.051893383,-0.25878054,0.024011232,0.0018422145,-0.049248893,0.051270578,-1.0,1.0,1.0,-1.0,-1.0,-1.0,1.0,-0.79445636,0.05076289,1.0,-0.6203541,1.0,-1.0,-1.0,1.0,-0.88042206,-1.0,-1.0,1.0,1.0,0.22418249,1.0,-1.0,1.0
2025-07-21 15:54:37.338,2.840000000000002,2840,142,-0.23499884,-0.1325293,0.03157647,0.120241165,-0.21141067,-0.01852522,-0.17121208,-0.010111938,0.04401261,0.0,0.0,0.0,0.0,0.010541213,0.0,0.0,-0.082185805,0.076633334,0.1006487,-0.088152185,0.07232841,-0.11706721,0.084145494,0.02911738,-0.035404757,0.062987305,-0.16506147,0.09785821,-0.045975577,-0.026374852,-0.010281575,0.03898287,-0.1454217,0.00090628944,-0.016480299,0.091656916,-0.025300732,-0.04545904,-0.15267275,-0.0306737,-1.0,-1.0,1.0,-0.88042206,-1.0,-1.0,1.0,1.0,0.22418249,1.0,-1.0,1.0,-1.0,1.0,1.0,-1.0,1.0,-1.0,1.0,0.08649245,-1.0,1.0,1.0,1.0
2025-07-21 15:54:37.358,2.860000000000002,2860,143,-0.28690952,0.122399226,0.17514087,-0.117675275,-0.0017511128,0.0012796606,-0.17578946,0.024926536,0.018715525,0.0,0.0,0.0,0.0,0.010052406,0.0,0.0,-0.079302244,0.095925584,0.106186956,-0.10645042,0.0889146,-0.12334811,0.10668127,0.041415337,-0.05668827,0.07815833,-0.16959992,0.109186575,-0.047655314,0.10351581,0.05223411,-0.026593711,0.18208517,-0.016762603,0.06758936,0.07144905,0.023086661,0.097811535,0.023323407,0.055747077,-1.0,1.0,1.0,-1.0,1.0,-1.0,1.0,0.08649245,-1.0,1.0,1.0,1.0,-1.0,-1.0,1.0,-1.0,-1.0,-1.0,1.0,-0.38960373,0.9373335,1.0,-1.0,1.0
2025-07-21 15:54:37.380,2.880000000000002,2880,144,-0.4473332,-0.2017565,0.23963739,0.10674198,-0.24084124,0.0086140195,-0.11006344,-0.03293966,0.00089334726,0.0,0.0,0.0,0.0,0.00978298,0.0,0.0,-0.10312438,0.09447057,0.10938516,-0.12042907,0.08473706,-0.13095212,0.107038625,0.009903698,-0.0105807,0.079938054,-0.18114336,0.11028672,-0.082486175,-0.11203649,0.004040742,-0.045235686,-0.17085285,0.060674675,0.0407976,-0.14172597,0.0728315,0.050820928,-0.04890243,-0.044989202,-1.0,-1.0,1.0,-1.0,-1.0,-1.0,1.0,-0.38960373,0.9373335,1.0,-1.0,1.0,-1.0,1.0,1.0,-0.73015267,-0.5021035,-1.0,-1.0,1.0,-1.0,1.0,0.48909077,1.0
2025-07-21 15:54:37.398,2.900000000000002,2900,145,0.04940703,0.056749307,-0.20632322,-0.07402952,0.0087523945,-0.07634902,-0.14391765,-0.0117138615,0.010979432,0.0,0.0,0.0,0.0,0.009711151,0.0,0.0,-0.11065781,0.10915728,0.108464725,-0.12531263,0.03502661,-0.14126797,0.069791146,0.052446455,-0.03340567,0.0986735,-0.15948336,0.11349506,-0.0686636,0.1484062,-0.031086424,-0.045560215,-0.073240206,-0.05335664,-0.06110576,0.18731496,-0.06007172,-0.0097136665,0.13855718,0.03538249,-1.0,1.0,1.0,-0.73015267,-0.5021035,-1.0,-1.0,1.0,-1.0,1.0,0.48909077,1.0,-1.0,-1.0,1.0,-0.55820954,0.45107093,-1.0,1.0,-0.9849899,-1.0,1.0,-1.0,1.0
2025-07-21 15:54:37.418,2.920000000000002,2920,146,-0.22684318,-0.3127276,0.06230154,0.055239696,-0.17401628,0.087275185,-0.12219651,0.020731172,0.04846159,0.0,0.0,0.0,0.0,0.009831255,0.0,0.0,-0.11591319,0.1188983,0.11340855,-0.118175,0.026226899,-0.14198582,0.070295416,0.044867698,-0.0666566,0.09775587,-0.17051868,0.11517688,-0.055954307,-0.04135014,0.06975602,-0.0016907314,0.005799458,-0.0359607,0.089176714,-0.07938076,-0.07747872,0.08461505,-0.041022044,-0.0066004316,-1.0,-1.0,1.0,-0.55820954,0.45107093,-1.0,1.0,-0.9849899,-1.0,1.0,-1.0,1.0,-1.0,1.0,1.0,-1.0,0.2528486,1.0,1.0,1.0,-1.0,1.0,-0.84758276,1.0
2025-07-21 15:54:37.439,2.940000000000002,2940,147,-0.17388387,0.012243742,0.255192,-0.05949989,0.17508408,0.1538795,-0.10860897,0.0064988667,-0.049888574,0.0,0.0,0.0,0.0,0.010152795,0.0,0.0,-0.12282255,0.16391292,0.11076582,-0.12085669,0.047475923,-0.12551521,0.10004318,0.046671342,-0.07478121,0.1172325,-0.17326759,0.13520044,0.025569942,0.105845466,-0.057681367,0.02128711,0.027758673,0.034751084,0.107943684,0.13729182,-0.09524005,0.022351695,-0.054425817,-0.03673377,-1.0,1.0,1.0,-1.0,0.2528486,1.0,1.0,1.0,-1.0,1.0,-0.84758276,1.0,0.18026279,1.0,0.78269243,1.0,0.54906094,-1.0,1.0,-1.0,0.18145514,-1.0,0.30226526,1.0
2025-07-21 15:54:37.458,2.960000000000002,2960,148,0.22352758,0.30992803,0.13545744,-0.18043159,0.053361867,0.13422486,-0.17661205,0.031128313,-0.030034095,0.0,0.0,0.0,0.0,0.5,0.0,0.0,-0.10192584,0.20076916,0.11948138,-0.07732161,0.080933206,-0.122404195,0.103474855,0.032291804,-0.06151942,0.09168884,-0.14901502,0.12238037,0.10155555,0.10969643,-0.06438446,0.18974596,0.07935961,-0.06489238,0.09931525,-0.15869552,0.008521271,-0.12777717,0.13795389,-0.045994755,0.18026279,1.0,0.78269243,1.0,0.54906094,-1.0,1.0,-1.0,0.18145514,-1.0,0.30226526,1.0,1.0,-1.0,1.0,-0.9078104,-1.0,-1.0,-1.0,0.75550675,1.0,1.0,-1.0,-1.0
2025-07-21 15:54:37.481,2.980000000000002,2980,149,-0.08021202,0.31061745,-0.25388628,0.22743075,-0.14520861,0.08939411,-0.11425289,0.0039056821,0.021590093,0.0,0.0,0.0,0.0,0.7242532,0.0,0.0,-0.05218285,0.18351121,0.13148732,-0.08574879,0.082433335,-0.13589232,0.058017757,0.0426038,-0.0143774375,0.092805885,-0.14388177,0.077909715,0.06440697,-0.119908035,0.008291176,-0.027580498,-0.06023168,0.039339304,-0.18939136,0.14272954,0.07896514,0.09726352,-0.08758017,-0.1048027,1.0,-1.0,1.0,-0.9078104,-1.0,-1.0,-1.0,0.75550675,1.0,1.0,-1.0,-1.0,-0.34106424,-1.0,1.0,0.79485947,0.36780426,0.2877522,-1.0,-1.0,1.0,0.4040059,1.0,1.0
2025-07-21 15:54:37.500,3.000000000000002,3000,150,-0.124067344,0.4915744,-0.079249695,0.19189577,0.13343205,0.24550185,-0.117869005,-0.0035304967,-0.01653278,0.0,0.0,0.0,0.0,0.85329676,0.0,0.0,-0.044177227,0.08534131,0.14249475,-0.06623802,0.0786505,-0.10642036,0.033723403,0.019476522,0.01265482,0.09775462,-0.12626912,0.09126031,0.03346332,-0.15817708,-0.013977177,0.14585078,0.008750225,0.02969127,-0.16815229,-0.2121613,0.020040747,-0.010301082,0.025359498,0.045201395,-0.34106424,-1.0,1.0,0.79485947,0.36780426,0.2877522,-1.0,-1.0,1.0,0.4040059,1.0,1.0,1.0,0.9306245,1.0,-0.70649856,0.51502657,-1.0,-1.0,1.0,1.0,1.0,-0.40671524,-1.0
2025-07-21 15:54:37.519,3.0200000000000022,3020,151,0.33657256,0.3262186,-0.2480888,0.18053915,0.36323184,0.1079156,-0.06547002,-0.020095367,0.02597387,0.0,0.0,0.0,0.0,0.9147498,0.0,0.0,-0.018436259,0.082971364,0.12589058,-0.07128785,0.09052096,-0.11189159,-0.0029394622,0.041242715,0.02987057,0.09870408,-0.13180132,0.039263498,0.07186023,0.0980196,0.057503738,-0.056007832,0.08144596,0.016995322,-0.13651474,0.1062799,0.028724592,0.05939226,-0.07244661,-0.11194945,1.0,0.9306245,1.0,-0.70649856,0.51502657,-1.0,-1.0,1.0,1.0,1.0,-0.40671524,-1.0,-1.0,-1.0,1.0,-0.7887477,-1.0,-0.7463159,0.36038193,-1.0,1.0,0.16011299,-1.0,1.0
2025-07-21 15:54:37.539,3.0400000000000023,3040,152,-0.10344472,0.36782864,-0.497574,-0.033397667,-0.1771673,0.15262374,-0.092843905,-0.06711179,0.033749353,0.0,0.0,0.0,0.0,0.9452337,0.0,0.0,-0.023085687,0.09176216,0.13184927,-0.08250078,0.06348597,-0.117381945,-0.013286258,0.016125966,0.057642974,0.09643906,-0.16362706,0.062032405,-0.07789683,0.04037656,0.055687614,0.006180904,-0.23256674,-0.013650798,-0.004537376,-0.10337418,0.07393308,-0.07121089,-0.160788,0.033766937,-1.0,-1.0,1.0,-0.7887477,-1.0,-0.7463159,0.36038193,-1.0,1.0,0.16011299,-1.0,1.0,-1.0,-1.0,1.0,-0.7675379,-0.55445915,-1.0,-1.0,1.0,1.0,1.0,-0.6124382,1.0
2025-07-21 15:54:37.564,3.0600000000000023,3060,153,-0.19283308,0.053555645,-0.2429954,0.0010468945,-0.048031718,0.2328898,-0.13215894,0.002854419,-0.04858138,0.0,0.0,0.0,0.0,0.96178675,0.0,0.0,-0.02825833,0.07330402,0.13489953,-0.10085735,0.01959276,-0.12042422,-0.03384819,0.009260179,0.06913719,0.09223904,-0.18067029,0.07101577,0.0049270974,-0.05342731,0.0033882828,-0.06144175,-0.1602149,-0.029852632,-0.07245691,0.13554837,0.10455282,0.08373215,-0.102579795,0.054170363,-1.0,-1.0,1.0,-0.7675379,-0.55445915,-1.0,-1.0,1.0,1.0,1.0,-0.6124382,1.0,-1.0,1.0,1.0,-0.35604483,1.0,-1.0,0.8190647,0.5998187,-1.0,-1.0,-1.0,1.0
2025-07-21 15:54:37.580,3.0800000000000023,3080,154,0.11423263,0.35545394,-0.044868704,0.023400256,0.02170212,0.0364955,-0.1421657,-0.044527747,-0.019615257,0.0,0.0,0.0,0.0,0.9715506,0.0,0.0,-0.05370941,0.09043446,0.14021777,-0.09464712,0.010035166,-0.1392673,-0.013627492,0.062742665,0.0319753,0.06437098,-0.20601733,0.09119324,-0.028657692,0.101819955,0.0010350937,-0.079239905,0.11191255,-0.05156543,0.010916942,0.15300445,-0.09447114,-0.037591055,-0.11354466,0.015404425,-1.0,1.0,1.0,-0.35604483,1.0,-1.0,0.8190647,0.5998187,-1.0,-1.0,-1.0,1.0,-1.0,-1.0,1.0,-1.0,0.0036962703,0.038483858,1.0,-1.0,-0.46695185,0.44631994,1.0,1.0
2025-07-21 15:54:37.599,3.1000000000000023,3100,155,0.054598764,0.33922344,0.13567546,-0.052745126,0.06618157,0.21141982,-0.140945,0.007723139,-0.046027917,0.0,0.0,0.0,0.0,0.9777011,0.0,0.0,-0.06815203,0.10747872,0.12930846,-0.10585569,0.028301561,-0.11583974,0.017326701,0.03814906,0.012357014,0.06921587,-0.19794434,0.086390875,0.02437869,-0.001676378,0.0115370825,-0.08644825,0.02778259,0.00022227703,0.060010813,-0.24805002,-0.0120733185,-0.027101494,0.1276776,0.031874325,-1.0,-1.0,1.0,-1.0,0.0036962703,0.038483858,1.0,-1.0,-0.46695185,0.44631994,1.0,1.0,-1.0,-1.0,1.0,-1.0,1.0,-1.0,1.0,1.0,-1.0,-1.0,-0.8802166,0.64460063
2025-07-21 15:54:37.619,3.1200000000000023,3120,156,0.033682223,0.32630575,-0.15090716,-0.11323048,-0.12584986,0.06481311,-0.10868915,-0.03187827,-0.02432677,0.0,0.0,0.0,0.0,0.98177373,0.0,0.0,-0.07839057,0.09864841,0.1458322,-0.12097475,0.07882269,-0.12116775,0.03634885,0.02230943,-0.019755302,0.025291583,-0.19418684,0.09296754,-0.059010893,0.0021057848,-0.027570883,0.04401945,0.18845323,-0.024019277,0.073339835,0.05746201,-0.061811283,-0.03391337,-0.08070752,0.055279527,-1.0,-1.0,1.0,-1.0,1.0,-1.0,1.0,1.0,-1.0,-1.0,-0.8802166,0.64460063,-0.79595625,-1.0,1.0,-1.0,-1.0,0.32025307,1.0,0.788553,1.0,-1.0,1.0,1.0
2025-07-21 15:54:37.639,3.1400000000000023,3140,157,0.00058967335,0.17938302,0.17165942,-0.08368671,-0.06517165,0.05843724,-0.089774415,-0.067795,0.035291936,0.0,0.0,0.0,0.0,0.9845701,0.0,0.0,-0.10484749,0.07928869,0.13513112,-0.13761362,0.062035803,-0.09615586,0.06870145,0.07798125,0.011391379,-0.0038704239,-0.17061391,0.100080185,-0.020982444,-0.054798607,-0.03224408,-0.016654573,-0.043433797,0.12689744,0.035576634,0.088995725,0.11697622,-0.09632282,0.12865695,-0.056645527,-0.79595625,-1.0,1.0,-1.0,-1.0,0.32025307,1.0,0.788553,1.0,-1.0,1.0,1.0,-0.5271621,1.0,1.0,-0.12356967,1.0,-1.0,-0.4612647,-1.0,0.7503202,1.0,-0.16463502,1.0
2025-07-21 15:54:37.663,3.1600000000000024,3160,158,0.05306161,-0.028310494,0.090518944,0.14891286,0.071359664,0.15629673,-0.07035403,-0.0028385236,-0.04941029,0.0,0.0,0.0,0.0,0.98653656,0.0,0.0,-0.103541546,0.089033164,0.14396271,-0.10405188,0.081494406,-0.11339752,0.043607954,0.056645826,0.029557144,0.016734995,-0.14560929,0.10808132,0.04976655,0.15154403,-0.0058749127,0.04197001,0.08816402,-0.021971673,0.008413879,-0.16754605,0.065371506,0.03618541,0.052198905,0.01482193,-0.5271621,1.0,1.0,-0.12356967,1.0,-1.0,-0.4612647,-1.0,0.7503202,1.0,-0.16463502,1.0,-1.0,-1.0,1.0,-1.0,-1.0,1.0,-1.0,1.0,1.0,-0.1493008,-1.0,1.0
2025-07-21 15:54:37.681,3.1800000000000024,3180,159,-0.03041045,0.3467558,0.06837412,0.07800302,-0.09435769,-0.04619692,-0.124491565,-0.04795925,0.006623624,0.0,0.0,0.0,0.0,0.9879348,0.0,0.0,-0.10506379,0.10194222,0.1429596,-0.12474148,0.08081427,-0.07577461,0.002978445,0.061377876,0.044129923,0.0056105014,-0.16781135,0.114955895,-0.0077807,0.038812764,-0.035875715,-0.009599955,-0.062657155,0.14504656,-0.07137749,0.11668118,-0.0085110245,-0.06951589,-0.1631396,0.037296392,-1.0,-1.0,1.0,-1.0,-1.0,1.0,-1.0,1.0,1.0,-0.1493008,-1.0,1.0,0.1678655,-1.0,1.0,0.5774849,0.45321473,-1.0,-0.65455776,-1.0,0.9357846,1.0,1.0,1.0
2025-07-21 15:54:37.699,3.2000000000000024,3200,160,-0.34865224,0.10913712,0.24710657,0.26505622,0.095264874,0.05900872,-0.08052588,-0.045358915,0.044887364,0.0,0.0,0.0,0.0,0.9889241,0.0,0.0,-0.07850829,0.07034538,0.13203736,-0.089201406,0.10128778,-0.074982844,-0.010480346,0.05979946,0.07851736,0.039385714,-0.14886382,0.11006635,0.07029876,-0.07349227,0.056817785,0.14682527,0.11692536,-0.08343038,-0.05530304,-0.22640394,0.0602773,0.11067139,0.11955709,0.033445857,0.1678655,-1.0,1.0,0.5774849,0.45321473,-1.0,-0.65455776,-1.0,0.9357846,1.0,1.0,1.0,-1.0,1.0,1.0,-0.9398613,-0.89587116,-0.8541203,-1.0,0.13601568,1.0,1.0,-1.0,-0.11432031
