openverse-orca/OrcaGym/log/simulation_log_20250606_170423.csv
timestamp,imu_angle_roll,imu_angle_pitch,imu_angle_yaw,imu_angular_velocity_roll,imu_angular_velocity_pitch,imu_angular_velocity_yaw,imu_acc_x,imu_acc_y,imu_acc_z,fl_joint1_pos,fl_joint1_vel,fl_joint1_torque,fl_joint2_pos,fl_joint2_vel,fl_joint2_torque,fl_joint3_pos,fl_joint3_vel,fl_joint3_torque,fr_joint1_pos,fr_joint1_vel,fr_joint1_torque,fr_joint2_pos,fr_joint2_vel,fr_joint2_torque,fr_joint3_pos,fr_joint3_vel,fr_joint3_torque,hl_joint1_pos,hl_joint1_vel,hl_joint1_torque,hl_joint2_pos,hl_joint2_vel,hl_joint2_torque,hl_joint3_pos,hl_joint3_vel,hl_joint3_torque,hr_joint1_pos,hr_joint1_vel,hr_joint1_torque,hr_joint2_pos,hr_joint2_vel,hr_joint2_torque,hr_joint3_pos,hr_joint3_vel,hr_joint3_torque,fl_force_x,fl_force_y,fl_force_z,fr_force_x,fr_force_y,fr_force_z,hl_force_x,hl_force_y,hl_force_z,hr_force_x,hr_force_y,hr_force_z,fl_hip_action,fl_thigh_action,fl_calf_action,fr_hip_action,fr_thigh_action,fr_calf_action,hl_hip_action,hl_thigh_action,hl_calf_action,hr_hip_action,hr_thigh_action,hr_calf_action
2025-06-06 17:04:23.948,-0.027628554,0.027995463,0.022041759,0.026408255,0.010314564,-0.042291347,-0.8048137,-1.3937125,0.0,0.0,-0.00021752826,-0.0016570477,0.008478165,0.0040842765,0.0043362547,-0.005706796,0.0020272275,-0.0012727933,-0.008103926,-0.00096325326,0.0016418984,-0.00097610627,0.0014435264,-0.002311788,-0.017555442,0.049143206,0.06442871,0.0069327517,0.04144465,0.01031609,0.014769143,-0.071490385,-0.0509711,-0.07289658,0.0,0.0,0.0,0.0,0.0,0.0,0.0,0.0,0.0,0.0,0.0,0.0,1.6331058,-0.31376973,-2.0,-2.0,1.8585767,2.0,1.2877753,-2.0,-2.0,2.0,-2.0,-2.0
2025-06-06 17:04:23.955,-0.06278605,-0.18835002,-0.036889937,-0.021956567,-0.007675259,-0.04735756,0.0,0.0,0.0,0.0,0.020646153,-0.018784754,-0.057798658,-0.013883258,0.054934423,0.04665019,0.005730231,-0.07847996,-0.04783156,0.01775188,-0.07056963,-0.03668282,0.035554323,-0.0052656434,-0.15441242,-0.120326094,0.14871939,0.15321057,0.07955785,-0.17925659,-0.1872026,-0.0151491845,-0.2514856,-0.11146865,1.6331058,-0.31376973,-2.0,-2.0,1.8585767,2.0,1.2877753,-2.0,-2.0,2.0,-2.0,-2.0,1.8671153,1.5824515,-2.0,-2.0,-0.8960528,2.0,-2.0,-2.0,2.0,2.0,-1.1277552,-2.0
2025-06-06 17:04:23.977,-0.03625956,-0.20097564,0.0017986819,0.055096474,0.0015304722,-0.015602126,0.0,0.0,0.0,0.00074664265,0.033043277,0.022086207,-0.0995247,-0.04618859,0.05720165,0.10392476,0.013282905,-0.17852814,0.0053799464,0.038152877,-0.14340259,-0.096345656,0.07369691,-0.052406408,-0.08797292,-0.10680887,-0.13664551,0.09060093,-0.10293923,-0.3018953,0.1557329,0.097611226,-0.13736352,0.016013648,1.8671153,1.5824515,-2.0,-2.0,-0.8960528,2.0,-2.0,-2.0,2.0,2.0,-1.1277552,-2.0,2.0,2.0,-2.0,-2.0,0.43301165,-0.83018005,-2.0,-2.0,2.0,2.0,-2.0,-2.0
2025-06-06 17:04:23.996,0.14040163,-0.17518164,0.097842254,0.053090855,-0.027189584,-0.046394516,0.0,0.0,0.0,0.0006053253,0.047598757,0.002054908,-0.102900825,-0.06294639,0.054940596,0.079821445,-0.014187607,-0.25845534,0.05481587,0.058756493,-0.185204,-0.063533746,0.11530871,0.032207,-0.017840948,-0.04491593,-0.022016665,-0.14835837,0.008511582,-0.22018188,0.100769974,-0.015388596,-0.19831926,0.14106482,2.0,2.0,-2.0,-2.0,0.43301165,-0.83018005,-2.0,-2.0,2.0,2.0,-2.0,-2.0,-2.0,-0.25665572,-2.0,-2.0,0.73668045,-2.0,-2.0,-2.0,2.0,2.0,-2.0,-2.0
2025-06-06 17:04:24.016,-0.19516285,-0.05536204,-0.018319013,0.013431393,-0.030653315,0.020647444,0.0,0.0,0.0,-0.00072252034,0.045389604,-0.023126073,-0.06532893,-0.06383327,0.07146743,0.01468755,-0.039332088,-0.30012053,0.12303792,0.06113216,-0.23690262,-0.018896623,-0.052948993,-0.1354316,0.043078702,-0.03714922,0.084024854,-0.14142644,-0.05422249,-0.111484624,0.054186177,0.04485298,-0.17008679,0.14930096,-2.0,-0.25665572,-2.0,-2.0,0.73668045,-2.0,-2.0,-2.0,2.0,2.0,-2.0,-2.0,-2.0,2.0,1.0725986,-2.0,-0.18653858,-2.0,-2.0,-2.0,-2.0,2.0,-2.0,-2.0
2025-06-06 17:04:24.036,-0.20203167,-0.020887472,0.0027600066,0.033283222,-0.048107255,0.02705079,0.0,0.0,0.0,-0.0010658801,0.028420486,-0.029135274,-0.009420959,-0.08139339,0.056290064,-0.0049598203,-0.061203796,-0.33490264,0.048293173,0.054203596,-0.2707083,0.011641252,-0.06358083,0.07636332,0.14602986,0.019140732,-0.013161033,0.079227485,-0.09518937,-0.091831915,-0.18100783,-0.017450197,-0.006509008,0.08588455,-2.0,2.0,1.0725986,-2.0,-0.18653858,-2.0,-2.0,-2.0,-2.0,2.0,-2.0,-2.0,-2.0,2.0,2.0,-2.0,1.4404478,-2.0,-2.0,-2.0,-2.0,2.0,-2.0,-2.0
2025-06-06 17:04:24.056,-0.25979078,0.1348867,0.032710165,0.053460687,-0.106750794,0.035198554,0.0,0.0,0.0,-0.0011787253,-0.0119502,0.03815311,0.06674777,-0.09370953,0.07041721,-0.0034336527,-0.072508775,-0.34560955,-0.02137081,0.042983048,-0.28247178,0.02640984,-0.116791114,0.29489404,0.18964297,-0.097466275,0.06175394,-0.073673144,-0.054609537,-0.0078106294,-0.0715827,-0.019292686,-0.08300114,0.09280332,-2.0,2.0,2.0,-2.0,1.4404478,-2.0,-2.0,-2.0,-2.0,2.0,-2.0,-2.0,-2.0,2.0,2.0,-2.0,0.5730667,-2.0,-2.0,-2.0,-2.0,2.0,-2.0,-2.0
2025-06-06 17:04:24.077,-0.1283358,0.08144721,0.12320927,0.041466694,-0.0833094,0.022948155,0.0,0.0,0.0,-0.0015896861,-0.032828294,0.14870583,0.11165326,-0.10319228,0.07667241,0.00983751,-0.0877553,-0.35795787,-0.032928783,0.03017866,-0.3023039,0.0267216,0.022640709,0.29057693,0.17498,0.04502679,0.06868201,0.043294385,0.006827614,-0.013735211,-0.014168132,0.010299351,-0.04141143,-0.06078105,-2.0,2.0,2.0,-2.0,0.5730667,-2.0,-2.0,-2.0,-2.0,2.0,-2.0,-2.0,-2.0,2.0,2.0,-2.0,1.5332791,-2.0,-1.8677981,-2.0,-2.0,2.0,-2.0,-0.8547843
2025-06-06 17:04:24.098,-0.08183999,0.116599336,0.10103885,-0.00542452,-0.029889073,-0.018834578,0.0,0.0,0.0,-0.0023336038,-0.036548574,0.24300016,0.14964467,-0.11348083,0.07494359,-0.0006221684,-0.09876452,-0.37484026,-0.01869492,0.044792347,-0.2942237,0.03672031,0.053056788,0.24360973,0.08670077,-0.03185435,0.032353032,-0.053542566,-0.046676066,0.008800608,0.049966067,-0.029721517,-0.04861818,-0.057551395,-2.0,2.0,2.0,-2.0,1.5332791,-2.0,-1.8677981,-2.0,-2.0,2.0,-2.0,-0.8547843,-2.0,2.0,-1.2004453,-2.0,1.1360897,-2.0,-2.0,-2.0,-2.0,2.0,-2.0,1.6646595
2025-06-06 17:04:24.117,-0.011941545,0.018568847,0.08027316,-0.02445093,-0.08508066,-0.036237445,0.0,0.0,0.0,-0.0033305914,-0.0502343,0.31753156,0.091287024,-0.10239361,0.09080706,-0.010169834,-0.09309005,-0.36745343,0.015270374,0.03732094,-0.31790257,0.055861033,-0.041277412,0.2132226,-0.2516723,-0.035554077,0.0133022,-0.022786014,0.05712805,-0.0682399,0.025297923,-0.047636185,-0.09794582,0.14985959,-2.0,2.0,-1.2004453,-2.0,1.1360897,-2.0,-2.0,-2.0,-2.0,2.0,-2.0,1.6646595,-2.0,2.0,-2.0,-2.0,2.0,-2.0,-2.0,-2.0,-2.0,-2.0,-2.0,0.8780516
2025-06-06 17:04:24.137,-0.058431678,0.21065122,0.10468485,-0.04002818,-0.118389435,0.0072599794,0.0,0.0,0.0,-0.0045264424,-0.04838946,0.35347104,0.008795871,-0.08959859,0.10571135,-0.014777018,-0.10968718,-0.37557492,0.03208779,0.012953899,-0.34418413,0.06987511,-0.08498657,0.07367543,-0.29688668,0.062395312,0.0118259825,-0.08268995,0.015559232,0.043852594,0.045279317,-0.15536715,-0.024920553,0.02318232,-2.0,2.0,-2.0,-2.0,2.0,-2.0,-2.0,-2.0,-2.0,-2.0,-2.0,0.8780516,-2.0,2.0,-2.0,-2.0,2.0,-2.0,-2.0,-2.0,-2.0,-2.0,-2.0,-2.0
2025-06-06 17:04:24.157,-0.1004936,0.13543752,0.050331943,-0.049180213,-0.13254483,-0.034591697,0.0,0.0,0.0,-0.005559051,-0.05234106,0.36756697,-0.05687959,-0.08503563,0.12390199,-0.019783793,-0.11883737,-0.36329004,0.028405977,-0.026215976,-0.3546326,0.01298,0.015407555,0.09775657,-0.0561039,-0.043592446,0.06424855,-0.073671006,0.063152954,0.060418885,0.048564363,-0.0388938,-0.06428766,-0.20777844,-2.0,2.0,-2.0,-2.0,2.0,-2.0,-2.0,-2.0,-2.0,-2.0,-2.0,-2.0,-2.0,2.0,-2.0,-2.0,2.0,-2.0,-2.0,-2.0,-2.0,-2.0,-2.0,-2.0
2025-06-06 17:04:24.178,-0.048583426,0.05133348,-0.035255447,-0.06262184,-0.08889788,-0.0002669589,0.0,0.0,0.0,-0.006216526,-0.06488947,0.38565904,-0.06951008,-0.09561065,0.14916037,-0.03580164,-0.1124979,-0.3465653,0.04999386,-0.04154272,-0.34564522,-0.05754383,0.07060923,0.08838991,-0.05489397,-0.0070023825,0.099881135,-0.085103035,0.0031757301,-0.054224048,0.065018706,-0.05068443,-0.030267939,-0.087179765,-2.0,2.0,-2.0,-2.0,2.0,-2.0,-2.0,-2.0,-2.0,-2.0,-2.0,-2.0,-2.0,2.0,-2.0,-2.0,2.0,-2.0,-2.0,-2.0,-2.0,-2.0,-2.0,-2.0
2025-06-06 17:04:24.197,-0.05488526,0.015823158,-0.05041215,-0.029786842,-0.09260283,0.03968933,0.0,0.0,0.0,-0.006293981,-0.054334685,0.40103084,-0.07561318,-0.07503024,0.18857688,-0.051751647,-0.10957353,-0.35721904,0.037843306,-0.05008555,-0.34323406,-0.08031898,-0.052035127,0.08885719,-0.07107759,-0.04704202,0.14104812,-0.063600376,-0.02306375,0.028959634,0.052498218,-0.04122361,0.052039094,-0.07107414,-2.0,2.0,-2.0,-2.0,2.0,-2.0,-2.0,-2.0,-2.0,-2.0,-2.0,-2.0,-2.0,2.0,-2.0,-2.0,2.0,-2.0,-2.0,-2.0,-2.0,-2.0,-2.0,-2.0
2025-06-06 17:04:24.217,-0.09520762,0.047517914,-0.0059440574,-0.063239865,-0.10049791,0.030559132,0.0,0.0,0.0,-0.005966998,-0.06541641,0.4042057,-0.06786311,-0.07489856,0.20648137,-0.08947685,-0.10763071,-0.33674404,0.051308595,-0.057133473,-0.33677274,-0.0979993,0.039738867,-0.032417584,-0.07313071,-0.0468265,0.033725765,-0.11322271,-0.028255334,0.0634016,-0.05292909,0.0020767986,-0.060744394,-0.010165201,-2.0,2.0,-2.0,-2.0,2.0,-2.0,-2.0,-2.0,-2.0,-2.0,-2.0,-2.0,-2.0,2.0,-2.0,-2.0,2.0,-2.0,-2.0,-2.0,-2.0,-2.0,-2.0,-2.0
2025-06-06 17:04:24.237,-0.09855995,0.016658869,0.0017299764,-0.060778257,-0.15370972,0.010749218,0.0,0.0,0.0,-0.005424351,-0.060622454,0.41219246,-0.0781498,-0.08533472,0.23808484,-0.09968562,-0.10547672,-0.34790826,0.060614236,-0.04211158,-0.34198254,-0.09405853,-0.011479259,0.035913974,5.7414254e-05,-0.060891595,0.0952064,-0.053526193,-0.061541565,0.07524183,-0.01632618,-0.042266864,-0.029254213,-0.02481924,-2.0,2.0,-2.0,-2.0,2.0,-2.0,-2.0,-2.0,-2.0,-2.0,-2.0,-2.0,-2.0,2.0,-2.0,-2.0,2.0,-2.0,-2.0,-2.0,-2.0,-2.0,-2.0,-2.0
2025-06-06 17:04:24.257,0.02316047,0.012306892,-0.00093258295,-0.019608224,-0.11269374,0.007988247,0.0,0.0,0.0,-0.0047546793,-0.06349065,0.41109875,-0.09809357,-0.07300306,0.25131252,-0.11733662,-0.098854646,-0.34363243,0.04568943,-0.04761404,-0.33942986,-0.11539464,-0.07183842,0.0061466177,-0.0076022604,0.059160084,0.012769241,-0.056043554,-0.026180701,0.023372186,0.0018053529,-0.020416744,0.06435426,-0.005477474,-2.0,2.0,-2.0,-2.0,2.0,-2.0,-2.0,-2.0,-2.0,-2.0,-2.0,-2.0,-2.0,2.0,-2.0,-2.0,2.0,-2.0,-2.0,-2.0,-2.0,-2.0,-2.0,-2.0
2025-06-06 17:04:24.277,0.014707952,-0.03390289,-0.018476024,-0.08491066,-0.09577012,-0.020115511,0.0,0.0,0.0,-0.0040053832,-0.08032205,0.427495,-0.09676051,-0.08578501,0.2627134,-0.14585598,-0.106985934,-0.32367837,0.05401548,-0.046869494,-0.34812364,-0.11548701,-0.0040316097,-0.0130106695,0.051993474,0.042386785,0.013805413,-0.0005442777,-0.011861011,-0.027634952,0.025748825,0.021754906,0.040268168,-0.05812642,-2.0,2.0,-2.0,-2.0,2.0,-2.0,-2.0,-2.0,-2.0,-2.0,-2.0,-2.0,-2.0,2.0,-2.0,-2.0,2.0,-2.0,-2.0,-2.0,-2.0,-2.0,-2.0,-2.0
2025-06-06 17:04:24.298,0.0019479191,-0.0413914,-0.0748983,-0.08963487,-0.0907667,-0.02476669,0.0,0.0,0.0,-0.0032207756,-0.076921776,0.42498314,-0.11104088,-0.0760808,0.28665665,-0.13372177,-0.09870328,-0.32362384,0.041113466,-0.044156104,-0.3504533,-0.117564775,-0.07635869,0.0333318,-0.08808913,0.027159272,0.046855073,-0.08080372,-0.014121689,0.032057334,-0.003477721,-0.03978614,-0.070759,-0.028415196,-2.0,2.0,-2.0,-2.0,2.0,-2.0,-2.0,-2.0,-2.0,-2.0,-2.0,-2.0,-2.0,2.0,-2.0,-2.0,2.0,-2.0,-2.0,-2.0,-2.0,-2.0,-2.0,-2.0
2025-06-06 17:04:24.318,0.027706789,-0.051118173,-0.059778597,-0.038065817,-0.15427925,0.016657302,0.0,0.0,0.0,-0.0025011306,-0.07203495,0.43573356,-0.10883979,-0.07088433,0.29477322,-0.13510126,-0.10101443,-0.33377382,0.04299187,-0.05963719,-0.33699393,-0.1114628,-0.06705758,-0.041598015,-0.0053288075,-0.0053788982,0.021638814,0.037821963,-0.04531488,-0.056724243,-0.06694309,-0.05927474,-0.05083876,0.0800564,-2.0,2.0,-2.0,-2.0,2.0,-2.0,-2.0,-2.0,-2.0,-2.0,-2.0,-2.0,-2.0,2.0,-2.0,-2.0,2.0,-2.0,-2.0,-2.0,-2.0,-2.0,-2.0,-2.0
2025-06-06 17:04:24.338,0.047285765,-0.008667358,-0.061267868,-0.082479745,-0.09287896,-0.04091308,0.0,0.0,0.0,-0.0018798395,-0.083174534,0.4257467,-0.10524197,-0.0746013,0.28873432,-0.13309231,-0.09697127,-0.33296984,0.049187213,-0.047464084,-0.35152873,-0.1256438,0.059766512,0.018159673,0.04703577,-0.044592664,-0.0115969535,-0.026071608,-0.04868474,0.04502799,-0.0558755,0.03685007,-0.033281703,-0.020137776,-2.0,2.0,-2.0,-2.0,2.0,-2.0,-2.0,-2.0,-2.0,-2.0,-2.0,-2.0,-2.0,2.0,-2.0,-2.0,2.0,-2.0,-2.0,-2.0,-2.0,-2.0,-2.0,-2.0
2025-06-06 17:04:24.361,0.016967127,-0.052681796,-0.06158593,-0.049459953,-0.13267119,0.031731322,0.0,0.0,0.0,-0.0013640636,-0.0946501,0.43180373,-0.122029394,-0.07154534,0.29039943,-0.138598,-0.0974308,-0.33375537,0.04758567,-0.056067314,-0.3524681,-0.11980213,-0.054343723,0.032651693,0.044362154,-0.05609751,0.0014767124,0.0641391,-0.017320521,-0.041786008,-0.060807325,0.05145709,0.001124643,-0.025808563,-2.0,2.0,-2.0,-2.0,2.0,-2.0,-2.0,-2.0,-2.0,-2.0,-2.0,-2.0,-2.0,2.0,-2.0,-2.0,2.0,-2.0,-2.0,-2.0,-2.0,-2.0,-2.0,-2.0
2025-06-06 17:04:24.378,0.086260505,-0.0035106142,-0.012331236,-0.06597032,-0.100438885,0.0479304,0.0,0.0,0.0,-0.0009420963,-0.08980983,0.43634892,-0.11547666,-0.07986658,0.2932916,-0.12655394,-0.0884627,-0.327554,0.042712003,-0.04417959,-0.35665774,-0.1086661,0.020169586,0.050328296,0.014649229,0.01040774,0.03433513,-0.044699438,0.014031153,-0.06507898,0.061082013,-0.02266472,0.032629244,0.050911378,-2.0,2.0,-2.0,-2.0,2.0,-2.0,-2.0,-2.0,-2.0,-2.0,-2.0,-2.0,-2.0,2.0,-2.0,-2.0,2.0,-2.0,-2.0,-2.0,-2.0,-2.0,-2.0,-2.0
2025-06-06 17:04:24.398,0.039652336,-0.025056165,-0.018553844,-0.059646398,-0.13211176,-0.04963998,0.0,0.0,0.0,-0.0005817774,-0.08783065,0.4194722,-0.120735474,-0.072780885,0.28670534,-0.12620792,-0.10019011,-0.32562348,0.03542888,-0.049984813,-0.35032156,-0.11531788,-0.016182402,0.012621005,0.052847795,0.034151103,-0.0339729,-0.04209414,-0.048570707,0.017898867,0.044180345,-0.04639501,-0.083357744,-0.060701277,-2.0,2.0,-2.0,-2.0,2.0,-2.0,-2.0,-2.0,-2.0,-2.0,-2.0,-2.0,-2.0,2.0,-2.0,-2.0,2.0,-2.0,-2.0,-2.0,-2.0,-2.0,-2.0,-2.0
2025-06-06 17:04:24.418,0.053022467,0.0039015557,0.002454214,-0.028484497,-0.07854177,0.02578287,0.0,0.0,0.0,-0.00025310405,-0.102820925,0.42240342,-0.11129807,-0.07998769,0.29769704,-0.1190586,-0.1078994,-0.33705884,0.041363664,-0.050954003,-0.35336182,-0.10323798,0.054396532,-0.059474044,-0.019291345,-0.04165227,0.0074364324,-0.029335018,0.021374505,0.006536093,0.013448848,-0.038890813,-0.010957602,0.023215475,-2.0,2.0,-2.0,-2.0,2.0,-2.0,-2.0,-2.0,-2.0,-2.0,-2.0,-2.0,-2.0,2.0,-2.0,-2.0,2.0,-2.0,-2.0,-2.0,-2.0,-2.0,-2.0,-2.0
2025-06-06 17:04:24.438,0.06541053,0.021178856,0.011052992,-0.07922983,-0.07384754,0.016009001,0.0,0.0,0.0,6.7482804e-05,-0.09204753,0.41925108,-0.120163284,-0.08066634,0.29411742,-0.115999356,-0.1041454,-0.31769717,0.030028133,-0.050902613,-0.35348785,-0.09353999,0.021509908,-0.0100997435,-0.014918986,-0.030618224,-0.051357713,0.004442617,0.047131997,-0.007965668,-0.084899746,-0.03904701,0.010002189,0.02634433,-2.0,2.0,-2.0,-2.0,2.0,-2.0,-2.0,-2.0,-2.0,-2.0,-2.0,-2.0,-2.0,2.0,-2.0,-2.0,2.0,-2.0,-2.0,-2.0,-2.0,-2.0,-2.0,-2.0
2025-06-06 17:04:24.461,0.052959457,-0.061573215,-0.028921217,-0.005545628,-0.0691385,-0.029765487,0.0,0.0,0.0,0.00039846147,-0.09425663,0.41274166,-0.10946868,-0.07647314,0.29550877,-0.10372531,-0.09671622,-0.3255098,0.025265343,-0.054883797,-0.3646423,-0.09661235,0.034791496,-0.024332924,0.046813156,-0.054740984,-0.048311133,0.025525175,-0.054476433,-0.04413628,-0.056884278,-0.06398252,0.03852976,0.010606019,-2.0,2.0,-2.0,-2.0,2.0,-2.0,-2.0,-2.0,-2.0,-2.0,-2.0,-2.0,-2.0,2.0,-2.0,-2.0,2.0,-2.0,-2.0,-2.0,-2.0,-2.0,-2.0,-2.0
2025-06-06 17:04:24.478,0.015672572,0.00065077934,-0.05406765,-0.0254715,-0.11138742,-0.024794782,0.0,0.0,0.0,0.00075122924,-0.09990818,0.4109108,-0.1258141,-0.07501164,0.29748785,-0.091066405,-0.108717896,-0.32649022,0.00731913,-0.05590157,-0.37202945,-0.1094888,0.02582638,-0.018566538,0.05750843,0.007470479,0.049685363,0.0051769065,-0.053685755,0.04260631,0.015100892,0.0051337285,0.00372814,-0.014224656,-2.0,2.0,-2.0,-2.0,2.0,-2.0,-2.0,-2.0,-2.0,-2.0,-2.0,-2.0,-2.0,2.0,-2.0,-2.0,2.0,-2.0,-2.0,-2.0,-2.0,-2.0,-2.0,-2.0
2025-06-06 17:04:24.498,0.010195322,-0.0212918,0.021233909,-0.017955719,-0.13170029,-0.0073106494,0.0,0.0,0.0,0.0011283664,-0.10605786,0.40299082,-0.11418142,-0.07935205,0.2850158,-0.09532909,-0.11498769,-0.3342488,0.0066526188,-0.06128859,-0.36207366,-0.09554966,0.021232301,0.051969204,-0.063197054,0.034930054,-0.04937448,0.006989974,-0.06968877,-0.06095681,-0.02111244,-0.058855116,-0.046797752,0.029171707,-2.0,2.0,-2.0,-2.0,2.0,-2.0,-2.0,-2.0,-2.0,-2.0,-2.0,-2.0,-2.0,2.0,-2.0,-2.0,2.0,-2.0,-2.0,-2.0,-2.0,-2.0,-2.0,-2.0
2025-06-06 17:04:24.519,-0.009462366,0.008362382,-0.041805398,-0.06907847,-0.07850055,-0.015408897,0.0,0.0,0.0,0.001524249,-0.111518376,0.39881414,-0.1277873,-0.07151789,0.28688818,-0.10125998,-0.11647942,-0.32332313,-0.002025127,-0.047415223,-0.3666142,-0.09278558,-0.068202466,-0.05887964,0.045184817,0.014224235,-0.064322695,-0.010451232,-0.046498556,-0.054157164,-0.059058554,0.008495836,-0.07518076,-0.026813705,-2.0,2.0,-2.0,-2.0,2.0,-2.0,-2.0,-2.0,-2.0,-2.0,-2.0,-2.0,-2.0,2.0,-2.0,-2.0,2.0,-2.0,-2.0,-2.0,-2.0,-2.0,-2.0,-2.0
2025-06-06 17:04:24.538,0.02335621,0.03128722,-0.009055383,-0.024272934,-0.11532247,0.039913602,0.0,0.0,0.0,0.0019273316,-0.11939305,0.38772273,-0.12692362,-0.0803622,0.29499283,-0.08392711,-0.09897802,-0.32296303,-0.025618365,-0.048293356,-0.38441595,-0.09606383,-0.053605564,0.017803146,0.06453283,-0.0701591,-0.02668078,0.031083044,-0.07131695,-0.07251351,0.03725329,0.009990792,-0.043858618,-0.075676925,-2.0,2.0,-2.0,-2.0,2.0,-2.0,-2.0,-2.0,-2.0,-2.0,-2.0,-2.0,-2.0,2.0,-2.0,-2.0,2.0,-2.0,-2.0,-2.0,-2.0,-2.0,-2.0,-2.0
2025-06-06 17:04:24.561,0.003121008,0.040033523,-0.04662382,-0.03656801,-0.056167882,-0.03515149,0.0,0.0,0.0,0.0023231334,-0.10743438,0.39801553,-0.12054881,-0.08020441,0.3024689,-0.07933622,-0.11825206,-0.34329945,-0.021301743,-0.054045036,-0.38026536,-0.09648568,-0.03211746,-0.08010399,0.04895074,-0.06666853,0.076749176,0.003732303,-0.025292747,0.021090925,0.013362476,-0.057923455,-0.039844163,0.073153965,-2.0,2.0,-2.0,-2.0,2.0,-2.0,-2.0,-2.0,-2.0,-2.0,-2.0,-2.0,-2.0,2.0,-2.0,-2.0,2.0,-2.0,-2.0,-2.0,-2.0,-2.0,-2.0,-2.0
2025-06-06 17:04:24.578,0.022335272,-0.0070806835,0.021044753,-0.0038970693,-0.08778909,-0.026338408,0.0,0.0,0.0,0.0026971528,-0.12068975,0.38859046,-0.12556894,-0.07510897,0.29540813,-0.077228166,-0.11825631,-0.3343959,-0.03248455,-0.060210526,-0.37978455,-0.10278483,-0.030293223,-0.015343067,-0.0006451274,0.038233288,-0.03951431,0.06352794,0.0039533777,0.070712276,-0.054900587,-0.06766488,0.042590022,0.039416403,-2.0,2.0,-2.0,-2.0,2.0,-2.0,-2.0,-2.0,-2.0,-2.0,-2.0,-2.0,-2.0,2.0,-2.0,-2.0,2.0,-2.0,-2.0,-2.0,-2.0,-2.0,-2.0,-2.0
2025-06-06 17:04:24.599,0.0035983382,0.018887922,-0.00440143,-0.0046203034,-0.047100186,-0.03755467,0.0,0.0,0.0,0.0030371677,-0.12515031,0.37441736,-0.118628,-0.071118325,0.30070132,-0.07513739,-0.104366735,-0.32845616,-0.028398676,-0.049289327,-0.38393208,-0.10318476,0.050818007,-0.046007525,-0.05254119,-0.06738492,0.008473225,-0.062198136,0.044225812,-0.06636379,-0.0035542352,0.00039653113,-0.07072437,-0.04882598,-2.0,2.0,-2.0,-2.0,2.0,-2.0,-2.0,-2.0,-2.0,-2.0,-2.0,-2.0,-2.0,2.0,-2.0,-2.0,2.0,-2.0,-2.0,-2.0,-2.0,-2.0,-2.0,-2.0
2025-06-06 17:04:24.619,-0.015835246,-0.030368738,-0.034416065,-0.04740516,-0.055787016,-0.046238817,0.0,0.0,0.0,0.003334675,-0.12855285,0.3831015,-0.11613103,-0.06830084,0.29711956,-0.08422659,-0.11204577,-0.34195238,-0.0297202,-0.058694206,-0.38019475,-0.11093117,-0.01073691,0.055210695,0.02905169,0.025774907,-0.06801104,0.073115945,-0.03133355,-0.0030821713,0.03851836,-0.047543183,-0.008928698,-0.052322302,-2.0,2.0,-2.0,-2.0,2.0,-2.0,-2.0,-2.0,-2.0,-2.0,-2.0,-2.0,-2.0,2.0,-2.0,-2.0,2.0,-2.0,-2.0,-2.0,-2.0,-2.0,-2.0,-2.0
2025-06-06 17:04:24.639,-0.02617947,-0.007448593,0.023419023,0.007053255,-0.031766843,0.0063616326,0.0,0.0,0.0,0.0035854413,-0.13231029,0.38782364,-0.12719105,-0.07300723,0.30998763,-0.0755475,-0.10223025,-0.33517537,-0.04351972,-0.054618847,-0.3748468,-0.10808922,-0.023513127,-0.047129456,0.033885878,0.036740035,-0.06196076,0.045813635,0.0332741,-0.028345816,-0.043047406,-0.016503885,0.061503477,-0.0077591594,-2.0,2.0,-2.0,-2.0,2.0,-2.0,-2.0,-2.0,-2.0,-2.0,-2.0,-2.0,-2.0,2.0,-2.0,-2.0,2.0,-2.0,-2.0,-2.0,-2.0,-2.0,-2.0,-2.0
2025-06-06 17:04:24.661,-0.010487561,-0.0035412929,-0.033488423,-0.048248857,-0.022611989,0.01549266,0.0,0.0,0.0,0.0037893106,-0.12712169,0.38444147,-0.113302335,-0.06020274,0.30057687,-0.08882919,-0.11204556,-0.33897844,-0.044145435,-0.044913262,-0.3944972,-0.110626236,0.05738703,0.011213178,-0.014651183,0.029755717,-0.041437883,-0.021699363,0.059134338,0.05157275,0.018329464,0.007271285,-0.016210044,0.050932102,-2.0,2.0,-2.0,-2.0,2.0,-2.0,-2.0,-2.0,-2.0,-2.0,-2.0,-2.0,-2.0,2.0,-2.0,-2.0,2.0,-2.0,-2.0,-2.0,-2.0,-2.0,-2.0,-2.0
2025-06-06 17:04:24.679,0.003219806,0.018908676,-0.019584822,0.0019125198,-0.043301385,-0.04159988,0.0,0.0,0.0,0.0039494853,-0.13110219,0.36774153,-0.119083434,-0.056562643,0.30430603,-0.07314313,-0.11586121,-0.34101543,-0.052788507,-0.049277116,-0.37885422,-0.10420127,-0.06400647,-0.00051256304,0.037537616,-0.06163195,-0.052456737,0.024072317,0.009066823,0.010509695,0.042806014,-0.014813098,0.025148572,0.043182693,-2.0,2.0,-2.0,-2.0,2.0,-2.0,-2.0,-2.0,-2.0,-2.0,-2.0,-2.0,-2.0,2.0,-2.0,-2.0,2.0,-2.0,-2.0,-2.0,-2.0,-2.0,-2.0,-2.0
2025-06-06 17:04:24.699,-0.044214778,-0.023831245,0.032633483,-0.060173314,-0.038065214,0.0008720911,0.0,0.0,0.0,0.004071531,-0.13103488,0.36587605,-0.1226163,-0.06775956,0.30614126,-0.090470664,-0.11660064,-0.35037,-0.04481236,-0.050082322,-0.38233933,-0.11161558,0.018309638,0.021658381,0.057358216,-0.048606846,0.067185976,-0.058298007,0.01837774,0.049440615,-0.024593748,-0.07131158,0.047960073,0.027371481,-2.0,2.0,-2.0,-2.0,2.0,-2.0,-2.0,-2.0,-2.0,-2.0,-2.0,-2.0,-2.0,2.0,-2.0,-2.0,2.0,-2.0,-2.0,-2.0,-2.0,-2.0,-2.0,-2.0
2025-06-06 17:04:24.719,-0.017985068,0.030981895,-0.03037246,0.012938782,-0.050986174,0.011487237,0.0,0.0,0.0,0.004161587,-0.13124223,0.37637857,-0.12370775,-0.058983352,0.31245857,-0.09255061,-0.12100199,-0.35197112,-0.039021105,-0.056381218,-0.38203248,-0.097884014,0.06997913,-0.07535483,-0.028398443,-0.06449447,-0.055069864,0.018678902,-0.053256985,-0.058279186,0.038625147,0.054402754,0.06523596,0.00012915033,-2.0,2.0,-2.0,-2.0,2.0,-2.0,-2.0,-2.0,-2.0,-2.0,-2.0,-2.0,-2.0,2.0,-2.0,-2.0,2.0,-2.0,-2.0,-2.0,-2.0,-2.0,-2.0,-2.0
2025-06-06 17:04:24.739,0.004832425,-0.027339352,0.037282296,-0.05806036,-0.06473975,0.0049918634,0.0,0.0,0.0,0.004224327,-0.122801326,0.38008803,-0.11670964,-0.05544186,0.32037526,-0.09149507,-0.10937506,-0.3461351,-0.050453585,-0.05847824,-0.3958816,-0.09811453,-0.006524727,0.074216194,0.048676465,0.0033962263,-0.033281118,0.05575599,-0.068008065,-0.016551005,0.07244067,0.04672881,-0.018799795,-0.029374253,-2.0,2.0,-2.0,-2.0,2.0,-2.0,-2.0,-2.0,-2.0,-2.0,-2.0,-2.0,-2.0,2.0,-2.0,-2.0,2.0,-2.0,-2.0,-2.0,-2.0,-2.0,-2.0,-2.0
2025-06-06 17:04:24.761,0.012576751,-0.014832609,0.04105031,-0.041272424,-0.1190633,-0.0070172683,0.0,0.0,0.0,0.004266446,-0.11956823,0.37780985,-0.12177702,-0.06066722,0.31154287,-0.085619174,-0.106772825,-0.3369828,-0.044348262,-0.045809384,-0.39637476,-0.098936215,0.037055038,0.05716404,-0.01863259,-0.053166002,0.009847798,-0.040952485,-0.04788405,0.07131674,0.0487579,-0.05066801,0.009624076,0.067896694,-2.0,2.0,-2.0,-2.0,2.0,-2.0,-2.0,-2.0,-2.0,-2.0,-2.0,-2.0,-2.0,2.0,-2.0,-2.0,2.0,-2.0,-2.0,-2.0,-2.0,-2.0,-2.0,-2.0
2025-06-06 17:04:24.779,0.031167135,-0.00893219,0.045555353,-0.047005024,-0.024615481,-0.021047765,0.0,0.0,0.0,0.0042947433,-0.13516974,0.37451005,-0.11281659,-0.06653094,0.3202017,-0.08909325,-0.1059909,-0.34238824,-0.049766637,-0.04512652,-0.39453664,-0.107123576,-0.070605315,0.015728995,0.0030518342,0.022855798,0.019085528,0.057851348,-0.062071044,-0.053581733,-0.02863127,-0.024195794,-0.06687351,-0.00112978,-2.0,2.0,-2.0,-2.0,2.0,-2.0,-2.0,-2.0,-2.0,-2.0,-2.0,-2.0,-2.0,2.0,-2.0,-2.0,2.0,-2.0,-2.0,-2.0,-2.0,-2.0,-2.0,-2.0
2025-06-06 17:04:24.799,0.043015633,-0.01695736,0.017146667,-0.052269023,-0.11181107,0.031588323,0.0,0.0,0.0,0.0043142913,-0.12283924,0.3702553,-0.12061961,-0.057783302,0.32670617,-0.092101306,-0.10507462,-0.34297577,-0.045367587,-0.054099936,-0.39606872,-0.101157285,0.06721066,0.031747524,0.057571076,-0.07184892,-0.025959654,0.053435873,-0.04689074,0.066037804,0.0011865828,-0.050366722,-0.05577667,0.03542454,-2.0,2.0,-2.0,-2.0,2.0,-2.0,-2.0,-2.0,-2.0,-2.0,-2.0,-2.0,-2.0,2.0,-2.0,-2.0,2.0,-2.0,-2.0,-2.0,-2.0,-2.0,-2.0,-2.0
2025-06-06 17:04:24.819,0.025175104,0.025640592,-0.015873883,-0.04054937,-0.023780249,0.009772581,0.0,0.0,0.0,0.0043289103,-0.116973214,0.36550212,-0.11471585,-0.050350014,0.3142603,-0.0837613,-0.1222904,-0.33505744,-0.04031437,-0.051247247,-0.38636193,-0.107306,0.002008581,-0.06173159,0.002867413,-0.0039101983,0.061321963,-0.02696693,-0.035214823,-0.070813105,0.071315244,-0.021827558,-0.040519375,0.045725968,-2.0,2.0,-2.0,-2.0,2.0,-2.0,-2.0,-2.0,-2.0,-2.0,-2.0,-2.0,-2.0,2.0,-2.0,-2.0,2.0,-2.0,-2.0,-2.0,-2.0,-2.0,-2.0,-2.0
2025-06-06 17:04:24.839,-0.011740048,-0.040648434,-0.044103645,0.018642016,-0.06726318,0.039691027,0.0,0.0,0.0,0.004339121,-0.120745234,0.37388626,-0.114946954,-0.06280441,0.31257334,-0.09311795,-0.123406164,-0.34129277,-0.041056972,-0.056207664,-0.39594954,-0.09283851,-0.055100754,-0.011853175,0.0041668825,0.018271912,0.07709034,-0.05719315,0.05435292,-0.021483256,-0.06672267,0.04194145,-0.071578845,-0.013115199,-2.0,2.0,-2.0,-2.0,2.0,-2.0,-2.0,-2.0,-2.0,-2.0,-2.0,-2.0,-2.0,2.0,-2.0,-2.0,2.0,-2.0,-2.0,-2.0,-2.0,-2.0,-2.0,-2.0
2025-06-06 17:04:24.861,0.0064086714,0.03178353,0.02153496,-0.013006456,-0.070763335,0.036340397,0.0,0.0,0.0,0.0043436303,-0.122823305,0.37283635,-0.113153964,-0.054968376,0.32839713,-0.091759704,-0.10882444,-0.34174195,-0.040275197,-0.054766692,-0.37577662,-0.09738666,0.01853582,-0.01865637,0.02034763,0.06984074,-0.06160353,-0.038872734,-0.018639127,0.026995273,-0.031427365,0.0021905617,0.06619849,-0.018946446,-2.0,2.0,-2.0,-2.0,2.0,-2.0,-2.0,-2.0,-2.0,-2.0,-2.0,-2.0,-2.0,2.0,-2.0,-2.0,2.0,-2.0,-2.0,-2.0,-2.0,-2.0,-2.0,-2.0
2025-06-06 17:04:24.879,0.040425133,0.03143427,-0.0315879,0.00998139,-0.052472275,0.040790655,0.0,0.0,0.0,0.0043413127,-0.121206105,0.37341183,-0.11737703,-0.06811707,0.3250744,-0.08491955,-0.11697986,-0.34563127,-0.0406171,-0.042677358,-0.39023283,-0.09679411,0.022859704,-0.051810134,-0.012713826,0.07348323,-0.06590914,0.036076117,-0.03573297,-0.006924422,-0.04895401,-0.027705593,0.026044553,-0.070081495,-2.0,2.0,-2.0,-2.0,2.0,-2.0,-2.0,-2.0,-2.0,-2.0,-2.0,-2.0,-2.0,2.0,-2.0,-2.0,2.0,-2.0,-2.0,-2.0,-2.0,-2.0,-2.0,-2.0
2025-06-06 17:04:24.900,-0.0071762167,-0.023142248,0.012276417,-0.020106453,-0.024354786,-0.033563163,0.0,0.0,0.0,0.0043317745,-0.13450818,0.3686761,-0.11894621,-0.05189045,0.33096793,-0.08588001,-0.11219389,-0.33686766,-0.045165095,-0.04162768,-0.3881485,-0.08886187,0.059835818,0.05525317,0.012674477,-0.067928605,-0.0105186775,-0.068732634,0.047931,0.02403874,0.049026325,-0.03352242,-0.037579663,0.016746616,-2.0,2.0,-2.0,-2.0,2.0,-2.0,-2.0,-2.0,-2.0,-2.0,-2.0,-2.0,-2.0,2.0,-2.0,-2.0,2.0,-2.0,-2.0,-2.0,-2.0,-2.0,-2.0,-2.0
2025-06-06 17:04:24.919,-0.024207296,-0.023477813,-0.020357635,-0.033729766,-0.024645744,-0.021502392,0.0,0.0,0.0,0.004315377,-0.12232552,0.38521543,-0.116132475,-0.049521253,0.3315919,-0.082712166,-0.122862056,-0.34631857,-0.03365057,-0.051214546,-0.38787836,-0.09956716,-0.054201853,-0.06767412,-0.04334105,0.0049456973,0.0713412,-0.059293464,0.013175264,-0.016234418,0.05643711,0.017428976,0.033081938,-0.06946849,-2.0,2.0,-2.0,-2.0,2.0,-2.0,-2.0,-2.0,-2.0,-2.0,-2.0,-2.0,-2.0,2.0,-2.0,-2.0,2.0,-2.0,-2.0,-2.0,-2.0,-2.0,-2.0,-2.0
2025-06-06 17:04:24.940,-0.036150012,0.04506926,0.024854584,-0.059672978,-0.02520646,-0.04068996,0.0,0.0,0.0,0.0042930753,-0.1264905,0.38258898,-0.11662124,-0.057537153,0.32103717,-0.0778132,-0.120392315,-0.34108123,-0.03888107,-0.050497003,-0.38839692,-0.09261936,-0.020892147,0.056079254,-0.039057333,0.018915473,0.0038515965,-0.063931204,-0.029120049,-0.04086121,-0.04118457,-0.06482418,0.07515477,-0.03649029,-2.0,2.0,-2.0,-2.0,2.0,-2.0,-2.0,-2.0,-2.0,-2.0,-2.0,-2.0,-2.0,2.0,-2.0,-2.0,2.0,-2.0,-2.0,-2.0,-2.0,-2.0,-2.0,-2.0
2025-06-06 17:04:24.961,0.039024998,-0.013919855,-0.00059651356,-0.044952046,-0.10166308,0.035057515,0.0,0.0,0.0,0.0042662234,-0.11637075,0.38212693,-0.10621271,-0.06270814,0.33646733,-0.08109515,-0.113041565,-0.34443313,-0.030424686,-0.037439495,-0.37954068,-0.09354725,0.024914075,0.02827154,0.031920247,-0.0469561,0.070673935,-0.031753074,0.068597846,0.06238821,0.042299267,-0.056289908,0.06580652,-0.06346303,-2.0,2.0,-2.0,-2.0,2.0,-2.0,-2.0,-2.0,-2.0,-2.0,-2.0,-2.0,-2.0,2.0,-2.0,-2.0,2.0,-2.0,-2.0,-2.0,-2.0,-2.0,-2.0,-2.0
2025-06-06 17:04:24.980,0.016068822,-0.00883173,0.010292791,0.023674803,-0.096987054,-0.03662818,0.0,0.0,0.0,0.004236488,-0.12869452,0.3698757,-0.12022613,-0.061767064,0.3217469,-0.09569283,-0.10724987,-0.35412964,-0.04103269,-0.044206336,-0.3880793,-0.08670004,0.016636811,0.06389515,0.0017583095,-0.016821075,0.034969028,-0.07320023,-0.012930512,0.007288049,0.044196714,-0.03211734,0.05470437,0.04783661,-2.0,2.0,-2.0,-2.0,2.0,-2.0,-2.0,-2.0,-2.0,-2.0,-2.0,-2.0,-2.0,2.0,-2.0,-2.0,2.0,-2.0,-2.0,-2.0,-2.0,-2.0,-2.0,-2.0
2025-06-06 17:04:25.000,0.01991617,0.022970561,0.031369302,-0.055384777,-0.067676194,0.012897391,0.0,0.0,0.0,0.0042061023,-0.11973621,0.37321085,-0.10535066,-0.05377971,0.327932,-0.08155537,-0.113454714,-0.34955794,-0.03906256,-0.047900666,-0.381134,-0.09810512,-0.05707021,-0.056363083,-0.0025873124,0.06521505,0.0731503,-0.0526799,0.07489286,0.047154628,-0.014172161,0.023398383,-0.06793223,0.072902225,-2.0,2.0,-2.0,-2.0,2.0,-2.0,-2.0,-2.0,-2.0,-2.0,-2.0,-2.0,-2.0,2.0,-2.0,-2.0,2.0,-2.0,-2.0,-2.0,-2.0,-2.0,-2.0,-2.0
2025-06-06 17:04:25.020,0.04580867,-0.018424515,0.014807342,0.025796542,-0.08571933,0.01347775,0.0,0.0,0.0,0.004177335,-0.11803918,0.3757425,-0.11499135,-0.061110318,0.3297123,-0.0947294,-0.12293218,-0.33474422,-0.02883637,-0.049597174,-0.38594595,-0.099335484,-0.0170077,0.057135046,-0.05429062,-0.039244067,-0.0400199,-0.07177954,0.0094468305,0.05587028,0.06270722,0.05643521,0.058051623,-0.01867478,-2.0,2.0,-2.0,-2.0,2.0,-2.0,-2.0,-2.0,-2.0,-2.0,-2.0,-2.0,-2.0,2.0,-2.0,-2.0,2.0,-2.0,-2.0,-2.0,-2.0,-2.0,-2.0,-2.0
2025-06-06 17:04:25.040,0.029400505,0.036795598,0.0020188957,0.020421986,-0.060471423,-0.031369574,0.0,0.0,0.0,0.0041520125,-0.12841047,0.3896575,-0.11635637,-0.0662225,0.33341253,-0.09065987,-0.12382833,-0.35181582,-0.04158063,-0.05471541,-0.3829336,-0.1017038,0.05260155,-0.009015078,0.066516794,0.071638405,-0.018293304,0.0038450304,0.01830826,-0.06004738,0.055601247,0.037739493,-0.052672755,-0.035549123,-2.0,2.0,-2.0,-2.0,2.0,-2.0,-2.0,-2.0,-2.0,-2.0,-2.0,-2.0,-2.0,2.0,-2.0,-2.0,2.0,-2.0,-2.0,-2.0,-2.0,-2.0,-2.0,-2.0
2025-06-06 17:04:25.061,-0.035907827,-0.020937718,0.015472204,0.008806331,-0.108267136,-0.014250002,0.0,0.0,0.0,0.004131394,-0.13009708,0.37453347,-0.10730392,-0.05517512,0.32413024,-0.095773175,-0.114192344,-0.3410823,-0.035619427,-0.042584635,-0.37760147,-0.09533925,-0.00041053453,-0.032433294,-0.027484613,-0.04650699,0.018459966,-0.012078118,-0.033560127,-0.019390905,0.027735354,-0.043800354,-0.047172718,-0.016507404,-2.0,2.0,-2.0,-2.0,2.0,-2.0,-2.0,-2.0,-2.0,-2.0,-2.0,-2.0,-2.0,2.0,-2.0,-2.0,2.0,-2.0,-2.0,-2.0,-2.0,-2.0,-2.0,-2.0
2025-06-06 17:04:25.080,0.02535391,0.03775012,0.037946727,-0.017439032,-0.09517642,-0.014865138,0.0,0.0,0.0,0.004116168,-0.124489,0.38350543,-0.11143924,-0.05814581,0.33723694,-0.08653927,-0.12485627,-0.35158846,-0.038185026,-0.055242017,-0.38515776,-0.09077437,-0.06032333,-0.07307487,-0.06525286,-0.0116489725,-0.050170165,-0.059312347,0.060191277,0.06825102,-0.028942835,0.021454936,0.05598003,0.013042513,-2.0,2.0,-2.0,-2.0,2.0,-2.0,-2.0,-2.0,-2.0,-2.0,-2.0,-2.0,-2.0,2.0,-2.0,-2.0,2.0,-2.0,-2.0,-2.0,-2.0,-2.0,-2.0,-2.0
2025-06-06 17:04:25.100,0.008903244,-0.015605036,0.017306658,-0.004994246,-0.07699249,0.041335,0.0,0.0,0.0,0.0041065244,-0.12915982,0.37750822,-0.113294564,-0.053109236,0.31894466,-0.08306779,-0.11430093,-0.348232,-0.033972096,-0.04563812,-0.38618895,-0.098720096,-0.013484505,-0.0457526,-0.027074339,-0.016466454,-0.019488879,-0.015517502,-0.06040419,-0.06976168,0.031013932,0.057735875,0.0001320386,-0.006740365,-2.0,2.0,-2.0,-2.0,2.0,-2.0,-2.0,-2.0,-2.0,-2.0,-2.0,-2.0,-2.0,2.0,-2.0,-2.0,2.0,-2.0,-2.0,-2.0,-2.0,-2.0,-2.0,-2.0
2025-06-06 17:04:25.120,-0.045226626,0.009374784,-0.041688096,-0.044159923,-0.12036,-0.04173888,0.0,0.0,0.0,0.0041022534,-0.12838037,0.37636578,-0.113508776,-0.057874385,0.32251894,-0.0956945,-0.12339282,-0.34208354,-0.032089006,-0.05038895,-0.3754171,-0.08892591,0.07232209,0.048895795,-0.06541706,0.049862955,-0.05492182,-0.02580433,0.036994945,0.02129557,0.04683059,0.0042519867,-0.032345813,-0.022599876,-2.0,2.0,-2.0,-2.0,2.0,-2.0,-2.0,-2.0,-2.0,-2.0,-2.0,-2.0,-2.0,2.0,-2.0,-2.0,2.0,-2.0,-2.0,-2.0,-2.0,-2.0,-2.0,-2.0
2025-06-06 17:04:25.140,-0.016050305,0.011735606,0.03653918,0.007323523,-0.068515345,-0.023731174,0.0,0.0,0.0,0.0041028485,-0.12355696,0.37404528,-0.099854864,-0.052366514,0.32515478,-0.086914815,-0.1085654,-0.35249785,-0.040236603,-0.055324767,-0.38724333,-0.09769063,0.014970737,-0.018701473,-0.0738861,0.039688054,-0.02299902,0.03207524,-0.0015554692,0.0053375,-0.02277436,-0.05205093,0.013262233,-0.05907557,-2.0,2.0,-2.0,-2.0,2.0,-2.0,-2.0,-2.0,-2.0,-2.0,-2.0,-2.0,-2.0,2.0,-2.0,-2.0,2.0,-2.0,-2.0,-2.0,-2.0,-2.0,-2.0,-2.0
2025-06-06 17:04:25.161,-0.033685703,0.019651541,-0.03683416,-0.06420436,-0.06629144,-0.014663854,0.0,0.0,0.0,0.004107609,-0.11985933,0.38810182,-0.11404652,-0.04763112,0.32623386,-0.091372564,-0.10989225,-0.353554,-0.03735538,-0.05448735,-0.3923529,-0.10444201,0.03429646,-0.024521856,-0.052642513,0.0458928,-0.03638302,0.0396329,0.061778255,-0.066008724,-0.060762875,0.01018238,-0.018341098,-0.028367056,-2.0,2.0,-2.0,-2.0,2.0,-2.0,-2.0,-2.0,-2.0,-2.0,-2.0,-2.0,-2.0,2.0,-2.0,-2.0,2.0,-2.0,-2.0,-2.0,-2.0,-2.0,-2.0,-2.0
2025-06-06 17:04:25.232,-0.023903297,-0.0020235318,-0.0032717707,0.0051233303,-0.031037005,-0.04797211,0.0,0.0,0.0,0.0041157245,-0.12030525,0.37390387,-0.10452669,-0.04913349,0.32133076,-0.09125496,-0.114643216,-0.34888214,-0.042712595,-0.053215776,-0.38363242,-0.09444596,0.0043332903,0.06777055,-0.07357274,0.030466013,-0.049118556,-0.022825822,-0.05279739,-0.006008563,0.03747671,-0.0024113222,-0.052552573,0.045697425,-2.0,2.0,-2.0,-2.0,2.0,-2.0,-2.0,-2.0,-2.0,-2.0,-2.0,-2.0,-2.0,2.0,-2.0,-2.0,2.0,-2.0,-2.0,-2.0,-2.0,-2.0,-2.0,-2.0
2025-06-06 17:04:25.250,0.012722983,-0.049474142,0.04067183,-0.059925094,-0.027885383,-0.013279902,0.0,0.0,0.0,0.0041263443,-0.13444673,0.38252512,-0.10696617,-0.049704935,0.33599862,-0.09338681,-0.11017299,-0.34823298,-0.046699334,-0.051275354,-0.37938237,-0.09218963,-0.03926059,-0.072385184,-0.031071456,0.054951143,-0.048356462,-0.036017787,-0.06529945,0.03386356,-0.011336847,0.053299304,-0.047284342,-0.05095316,-2.0,2.0,-2.0,-2.0,2.0,-2.0,-2.0,-2.0,-2.0,-2.0,-2.0,-2.0,-2.0,2.0,-2.0,-2.0,2.0,-2.0,-2.0,-2.0,-2.0,-2.0,-2.0,-2.0
2025-06-06 17:04:25.270,0.009656261,0.030511407,0.042140856,0.031173702,-0.100390434,0.0489657,0.0,0.0,0.0,0.004138636,-0.12457629,0.38104862,-0.11622611,-0.05721054,0.32672083,-0.08766583,-0.11269457,-0.35448864,-0.049105518,-0.050474044,-0.38075295,-0.08909858,-0.02762044,0.021457056,0.010662968,0.010983693,-0.0756486,0.017332003,0.030140936,-0.019792397,0.025397284,-0.06458994,-0.0711038,-0.06815934,-2.0,2.0,-2.0,-2.0,2.0,-2.0,-2.0,-2.0,-2.0,-2.0,-2.0,-2.0,-2.0,2.0,-2.0,-2.0,2.0,-2.0,-2.0,-2.0,-2.0,-2.0,-2.0,-2.0
2025-06-06 17:04:25.290,0.037298184,-0.046564262,0.044734024,-0.030148627,-0.077614725,0.032790728,0.0,0.0,0.0,0.0041518225,-0.12896441,0.37991703,-0.1124513,-0.05707364,0.31655365,-0.093785755,-0.10600971,-0.33588254,-0.030932674,-0.039987355,-0.38630754,-0.1063478,-0.024298027,0.064434774,-0.017554665,-0.05270351,-0.05907512,-0.064500816,0.030220386,-0.058906015,-0.04323445,-0.022801872,-0.019708864,-0.04252074,-2.0,2.0,-2.0,-2.0,2.0,-2.0,-2.0,-2.0,-2.0,-2.0,-2.0,-2.0,-2.0,2.0,-2.0,-2.0,2.0,-2.0,-2.0,-2.0,-2.0,-2.0,-2.0,-2.0
2025-06-06 17:04:25.311,-0.025108736,-0.035595167,-0.045690212,-0.06538271,-0.063820906,-0.025212523,0.0,0.0,0.0,0.0041652094,-0.116105065,0.36902547,-0.1086276,-0.06682236,0.32967725,-0.0850278,-0.109351024,-0.35019752,-0.03562326,-0.053579286,-0.3877726,-0.09225676,0.06890516,-0.014826199,0.05794456,-0.043775342,-0.06985744,-0.021848591,0.041831218,0.06442365,-0.034041267,-0.0408925,-0.034671314,-0.022484927,-2.0,2.0,-2.0,-2.0,2.0,-2.0,-2.0,-2.0,-2.0,-2.0,-2.0,-2.0,-2.0,2.0,-2.0,-2.0,2.0,-2.0,-2.0,-2.0,-2.0,-2.0,-2.0,-2.0
2025-06-06 17:04:25.330,-0.015031404,-0.021889314,-0.0014142699,0.0019230323,-0.06507188,0.022005634,0.0,0.0,0.0,0.004178197,-0.12830783,0.37791398,-0.10615194,-0.0636522,0.3201016,-0.09463347,-0.124509536,-0.33868557,-0.03877869,-0.045805603,-0.37937534,-0.104664825,0.020853331,0.058174655,0.008453091,-0.01919704,0.06233374,0.0016791131,0.014938215,-0.04546571,0.07380814,0.028703822,0.015673865,-0.03814,-2.0,2.0,-2.0,-2.0,2.0,-2.0,-2.0,-2.0,-2.0,-2.0,-2.0,-2.0,-2.0,2.0,-2.0,-2.0,2.0,-2.0,-2.0,-2.0,-2.0,-2.0,-2.0,-2.0
2025-06-06 17:04:25.351,0.005557006,0.0015148708,0.01550023,0.01213702,-0.05037609,0.036019873,0.0,0.0,0.0,0.004190295,-0.11780098,0.38359115,-0.11929952,-0.059899397,0.32775345,-0.09078513,-0.11184653,-0.34214807,-0.049195945,-0.037324365,-0.38189965,-0.09452244,-0.0004289762,-0.052809324,0.054431308,0.011934829,-0.028445853,0.032219417,0.06476733,-0.03239772,0.025350599,-0.06880009,-0.031904433,0.022885252,-2.0,2.0,-2.0,-2.0,2.0,-2.0,-2.0,-2.0,-2.0,-2.0,-2.0,-2.0,-2.0,2.0,-2.0,-2.0,2.0,-2.0,-2.0,-2.0,-2.0,-2.0,-2.0,-2.0
2025-06-06 17:04:25.371,-0.031620782,0.04910796,-0.03523403,-0.04253494,-0.03700624,-0.024084775,0.0,0.0,0.0,0.0042011244,-0.120110445,0.38377288,-0.102069736,-0.05396315,0.33367816,-0.095769435,-0.117486246,-0.350781,-0.043953184,-0.054929573,-0.37829772,-0.09095387,0.0021762939,0.05431161,-0.051693484,0.006416587,0.0694658,0.014935915,0.058997557,0.038043275,0.014260524,-0.0745876,-0.059057806,-0.04233009,-2.0,2.0,-2.0,-2.0,2.0,-2.0,-2.0,-2.0,-2.0,-2.0,-2.0,-2.0,-2.0,2.0,-2.0,-2.0,2.0,-2.0,-2.0,-2.0,-2.0,-2.0,-2.0,-2.0
2025-06-06 17:04:25.393,0.043672714,-0.043645497,-0.0038991945,-0.052637294,-0.10149178,0.015536747,0.0,0.0,0.0,0.004210411,-0.13029425,0.3787035,-0.10824639,-0.050475236,0.32122377,-0.09023785,-0.12521654,-0.35352275,-0.04866127,-0.037273303,-0.38870144,-0.101803966,-0.059940565,-0.048520327,0.043088086,0.022126898,-0.05502079,0.03526163,-0.057019446,0.039093964,0.024492936,0.0698253,0.04103456,-0.033223126,-2.0,2.0,-2.0,-2.0,2.0,-2.0,-2.0,-2.0,-2.0,-2.0,-2.0,-2.0,-2.0,2.0,-2.0,-2.0,2.0,-2.0,-2.0,-2.0,-2.0,-2.0,-2.0,-2.0
2025-06-06 17:04:25.411,0.020694798,-0.033544157,0.04633578,-0.008452128,-0.081199676,0.017353462,0.0,0.0,0.0,0.0042179837,-0.1190227,0.36949882,-0.116290696,-0.064487964,0.32945195,-0.083505444,-0.11393398,-0.35027102,-0.037903633,-0.040542535,-0.3819346,-0.0952862,-0.060137358,0.04025699,-0.0065123155,0.017292608,-0.0709262,-0.05306353,-0.04790693,0.004386951,-0.048920386,-0.00215571,0.053243704,0.07072969,-2.0,2.0,-2.0,-2.0,2.0,-2.0,-2.0,-2.0,-2.0,-2.0,-2.0,-2.0,-2.0,2.0,-2.0,-2.0,2.0,-2.0,-2.0,-2.0,-2.0,-2.0,-2.0,-2.0
2025-06-06 17:04:25.431,0.0050642705,0.016770376,0.015741773,-0.009644465,-0.1118858,0.0358433,0.0,0.0,0.0,0.0042237644,-0.1338758,0.36871016,-0.11155197,-0.057456393,0.31987962,-0.080396935,-0.12183685,-0.34289572,-0.04838754,-0.04248456,-0.37606862,-0.095415965,-0.0238969,0.052357394,0.06755524,-0.018684033,0.05551451,0.05041455,0.0059658117,-0.010318809,-0.063013464,-0.059215553,-0.060451142,0.0017344297,-2.0,2.0,-2.0,-2.0,2.0,-2.0,-2.0,-2.0,-2.0,-2.0,-2.0,-2.0,-2.0,2.0,-2.0,-2.0,2.0,-2.0,-2.0,-2.0,-2.0,-2.0,-2.0,-2.0
2025-06-06 17:04:25.451,0.035317436,-0.039551117,0.044840727,-0.04444535,-0.10914987,-0.023344431,0.0,0.0,0.0,0.004227758,-0.12535925,0.37942404,-0.102133885,-0.058104265,0.31709325,-0.087285236,-0.11830193,-0.34990022,-0.05027233,-0.04995969,-0.37838027,-0.105411075,-0.047936156,0.038632758,-0.024863431,0.028662995,-0.018899506,0.027577737,0.026290212,0.027849037,-0.05380829,0.03970911,0.008926654,0.026782284,-2.0,2.0,-2.0,-2.0,2.0,-2.0,-2.0,-2.0,-2.0,-2.0,-2.0,-2.0,-2.0,2.0,-2.0,-2.0,2.0,-2.0,-2.0,-2.0,-2.0,-2.0,-2.0,-2.0
2025-06-06 17:04:25.471,-0.014113005,-0.0042495215,0.02771075,0.02148842,-0.106300995,0.023694495,0.0,0.0,0.0,0.0042300415,-0.11694531,0.36854312,-0.1115346,-0.04957989,0.32775125,-0.089649014,-0.12045835,-0.33852664,-0.051483028,-0.03838162,-0.37825757,-0.10635605,0.02614878,0.056808896,0.039299604,0.027870476,0.01639271,0.030202925,0.061902165,0.03030222,-0.053888835,-0.009195634,-0.003254986,0.038272496,-2.0,2.0,-2.0,-2.0,2.0,-2.0,-2.0,-2.0,-2.0,-2.0,-2.0,-2.0,-2.0,2.0,-2.0,-2.0,2.0,-2.0,-2.0,-2.0,-2.0,-2.0,-2.0,-2.0
2025-06-06 17:04:25.494,-0.011570844,0.026142139,0.031109512,-0.056479655,-0.050312206,0.026907874,0.0,0.0,0.0,0.004230751,-0.13295716,0.3848632,-0.111149244,-0.061443992,0.32484508,-0.08835338,-0.124151856,-0.34561008,-0.049597748,-0.050455898,-0.38671708,-0.08876203,-0.038346473,-0.04933326,-0.073306024,-0.033611942,-0.07236527,-0.02355844,-0.008002315,0.0115468735,-0.00534252,0.016180638,0.00346975,-0.028612796,-2.0,2.0,-2.0,-2.0,2.0,-2.0,-2.0,-2.0,-2.0,-2.0,-2.0,-2.0,-2.0,2.0,-2.0,-2.0,2.0,-2.0,-2.0,-2.0,-2.0,-2.0,-2.0,-2.0
2025-06-06 17:04:25.512,-0.001561947,0.029251078,-0.003436416,-0.002468736,-0.069525085,-0.02481811,0.0,0.0,0.0,0.0042300653,-0.12661,0.37170404,-0.10421147,-0.06424789,0.33388758,-0.07913166,-0.11019987,-0.3408295,-0.031626254,-0.047670964,-0.380005,-0.10630495,0.05103607,0.031499118,-0.061890908,-0.0003065942,-0.054640613,-0.052337468,0.043286506,-0.061906222,0.016964205,0.06227345,0.023834314,0.021172803,-2.0,2.0,-2.0,-2.0,2.0,-2.0,-2.0,-2.0,-2.0,-2.0,-2.0,-2.0,-2.0,2.0,-2.0,-2.0,2.0,-2.0,-2.0,-2.0,-2.0,-2.0,-2.0,-2.0
2025-06-06 17:04:25.531,-0.043671474,-0.01996439,0.029559953,-0.023062885,-0.043262675,0.02445218,0.0,0.0,0.0,0.0042281942,-0.12626703,0.37943918,-0.11090245,-0.060495667,0.3319018,-0.09098771,-0.12020361,-0.33842978,-0.038230766,-0.053550977,-0.3780433,-0.093016684,0.051758986,0.023650588,0.065252826,0.06868088,0.0037475668,-0.041886944,-0.06381729,0.012543045,0.037819862,-0.00020799182,-0.063594304,0.008077974,-2.0,2.0,-2.0,-2.0,2.0,-2.0,-2.0,-2.0,-2.0,-2.0,-2.0,-2.0,-2.0,2.0,-2.0,-2.0,2.0,-2.0,-2.0,-2.0,-2.0,-2.0,-2.0,-2.0
2025-06-06 17:04:25.551,-0.032274924,0.0136187775,-0.008524327,0.0298446,-0.086228065,-0.004653174,0.0,0.0,0.0,0.0042253677,-0.12249701,0.37540096,-0.11749297,-0.06679309,0.3170431,-0.09478958,-0.11372291,-0.34217295,-0.050782915,-0.04283433,-0.3797376,-0.09686984,-0.0488162,-0.05268564,-0.025723642,0.012244098,0.004217048,0.044531245,0.048295237,-0.052996434,-0.009719797,0.063286014,0.06943265,-0.0070185713,-2.0,2.0,-2.0,-2.0,2.0,-2.0,-2.0,-2.0,-2.0,-2.0,-2.0,-2.0,-2.0,2.0,-2.0,-2.0,2.0,-2.0,-2.0,-2.0,-2.0,-2.0,-2.0,-2.0
2025-06-06 17:04:25.571,0.0010797401,-0.005075681,0.034705967,-0.043853458,-0.08584997,-0.019100145,0.0,0.0,0.0,0.0042218245,-0.12062824,0.3767799,-0.10437641,-0.05787034,0.3280642,-0.08012457,-0.10659941,-0.3428634,-0.037750717,-0.042325974,-0.3758392,-0.10026106,0.06742629,-0.044350237,-0.06268357,0.0027039866,-0.04954277,0.03040326,-0.0009816816,-0.060413405,0.049484465,0.03819662,0.047100257,0.039710104,-2.0,2.0,-2.0,-2.0,2.0,-2.0,-2.0,-2.0,-2.0,-2.0,-2.0,-2.0,-2.0,2.0,-2.0,-2.0,2.0,-2.0,-2.0,-2.0,-2.0,-2.0,-2.0,-2.0
2025-06-06 17:04:25.592,-0.0063255657,-0.04216539,-0.020022977,0.00025269025,-0.054613713,0.047286835,0.0,0.0,0.0,0.004217802,-0.11915114,0.37417516,-0.102026984,-0.05594858,0.32391202,-0.08270723,-0.12102554,-0.3426199,-0.04039509,-0.052874904,-0.38841465,-0.09518152,0.05197253,0.0028830564,-0.047516007,-0.04922461,0.06218314,-0.032419354,-0.06590631,-0.05170539,0.031931285,0.019815678,-0.056647655,0.060953047,-2.0,2.0,-2.0,-2.0,2.0,-2.0,-2.0,-2.0,-2.0,-2.0,-2.0,-2.0,-2.0,2.0,-2.0,-2.0,2.0,-2.0,-2.0,-2.0,-2.0,-2.0,-2.0,-2.0
2025-06-06 17:04:25.611,0.036443565,0.047897015,0.047848023,0.00021972122,-0.10175057,-0.015049608,0.0,0.0,0.0,0.004213526,-0.13161317,0.38029328,-0.11567122,-0.06673166,0.32474574,-0.078484565,-0.107082635,-0.35266057,-0.037610434,-0.054459833,-0.39245138,-0.08727068,0.03946308,0.0510868,0.025273604,0.02642018,0.0036077872,-0.02084976,-0.041706342,0.049058367,-0.0031103038,-0.06039804,0.060712524,0.0351767,-2.0,2.0,-2.0,-2.0,2.0,-2.0,-2.0,-2.0,-2.0,-2.0,-2.0,-2.0,-2.0,2.0,-2.0,-2.0,2.0,-2.0,-2.0,-2.0,-2.0,-2.0,-2.0,-2.0
2025-06-06 17:04:25.632,-0.043081664,0.0096856225,0.04740089,-0.008495108,-0.083130546,0.025606297,0.0,0.0,0.0,0.004209201,-0.1301842,0.37926817,-0.11631711,-0.05044507,0.32626554,-0.096857615,-0.12236466,-0.34112683,-0.03766213,-0.04075624,-0.37572536,-0.09720918,0.0035524752,0.0682306,-0.044786144,-0.04326355,-0.029556159,0.007821747,-0.03575251,0.070975296,0.053790346,0.026138239,0.009549276,0.02026896,-2.0,2.0,-2.0,-2.0,2.0,-2.0,-2.0,-2.0,-2.0,-2.0,-2.0,-2.0,-2.0,2.0,-2.0,-2.0,2.0,-2.0,-2.0,-2.0,-2.0,-2.0,-2.0,-2.0
2025-06-06 17:04:25.651,-0.005505458,-0.03376381,0.03810182,-0.06502601,-0.085647844,0.014369832,0.0,0.0,0.0,0.0042050076,-0.122958586,0.38780954,-0.11254593,-0.05888784,0.33443955,-0.080332294,-0.11728934,-0.33615473,-0.0376611,-0.053358585,-0.38559327,-0.09367671,1.0703024e-05,-0.052671127,0.008623832,0.052697185,-0.044007253,-0.023305207,0.048430454,0.00091352407,-0.049387526,-0.06638814,-0.05731715,-0.038416136,-2.0,2.0,-2.0,-2.0,2.0,-2.0,-2.0,-2.0,-2.0,-2.0,-2.0,-2.0,-2.0,2.0,-2.0,-2.0,2.0,-2.0,-2.0,-2.0,-2.0,-2.0,-2.0,-2.0
2025-06-06 17:04:25.672,-0.026964422,0.01692895,-0.02322831,-0.05332845,-0.02081868,-0.010352853,0.0,0.0,0.0,0.0042010997,-0.11792022,0.3852074,-0.106952816,-0.05959942,0.3355955,-0.09642488,-0.11115715,-0.35148346,-0.040487427,-0.05619434,-0.3818278,-0.0943879,0.059237223,-0.044369392,0.056093447,0.054946564,-0.05593319,0.028320579,-0.015920697,0.06390084,0.04861308,0.05828341,0.061758254,0.04660682,-2.0,2.0,-2.0,-2.0,2.0,-2.0,-2.0,-2.0,-2.0,-2.0,-2.0,-2.0,-2.0,2.0,-2.0,-2.0,2.0,-2.0,-2.0,-2.0,-2.0,-2.0,-2.0,-2.0
2025-06-06 17:04:25.694,-0.038598366,0.039904837,-0.004478349,0.011881989,-0.10552515,-0.0073956037,0.0,0.0,0.0,0.0041975994,-0.12920667,0.37354645,-0.10292148,-0.05711003,0.32379192,-0.08679769,-0.11535281,-0.35323882,-0.030589955,-0.039521277,-0.38145873,-0.09337802,-0.058146015,0.025979191,-0.010696981,0.059956063,0.036673475,0.043415193,-0.057576302,-0.042727623,-0.05770901,-0.025743397,-0.03655419,-0.008284412,-2.0,2.0,-2.0,-2.0,2.0,-2.0,-2.0,-2.0,-2.0,-2.0,-2.0,-2.0,-2.0,2.0,-2.0,-2.0,2.0,-2.0,-2.0,-2.0,-2.0,-2.0,-2.0,-2.0
2025-06-06 17:04:25.712,-0.0007146624,-0.006746148,-0.0015527043,0.01502816,-0.09484146,0.010110301,0.0,0.0,0.0,0.004194596,-0.122652896,0.37309307,-0.11558025,-0.05252965,0.3229303,-0.094223306,-0.116925366,-0.3352797,-0.032838605,-0.043816946,-0.37852082,-0.09433867,0.021829959,0.024091052,0.0069207614,-0.06992099,0.006299446,-0.038844567,0.032111667,-0.05226894,0.012929763,-0.025542233,0.014623882,-0.011040413,-2.0,2.0,-2.0,-2.0,2.0,-2.0,-2.0,-2.0,-2.0,-2.0,-2.0,-2.0,-2.0,2.0,-2.0,-2.0,2.0,-2.0,-2.0,-2.0,-2.0,-2.0,-2.0,-2.0
2025-06-06 17:04:25.732,-0.048260998,0.028859442,0.0007996411,-0.04351136,-0.11671785,-0.043801077,0.0,0.0,0.0,0.004192148,-0.12325326,0.38570276,-0.10098456,-0.05294198,0.32923606,-0.09145704,-0.12189136,-0.3352636,-0.037196327,-0.04006486,-0.38459477,-0.09015576,0.07339358,-0.040477704,0.043253683,0.05387207,0.07338646,0.0145397,-0.056732807,-0.0647856,-0.06836575,-0.037045542,0.03895236,0.059956625,-2.0,2.0,-2.0,-2.0,2.0,-2.0,-2.0,-2.0,-2.0,-2.0,-2.0,-2.0,-2.0,2.0,-2.0,-2.0,2.0,-2.0,-2.0,-2.0,-2.0,-2.0,-2.0,-2.0
2025-06-06 17:04:25.752,-9.639032e-06,-0.01431855,0.015959708,0.0013657832,-0.062340755,-0.0060761264,0.0,0.0,0.0,0.004190282,-0.11660402,0.38685173,-0.11349297,-0.06559055,0.3224613,-0.07967944,-0.122570515,-0.35225642,-0.04940705,-0.050009966,-0.38037515,-0.0991881,0.016320437,0.024495058,-0.030797124,-0.03245365,-0.06880323,-0.064495064,-0.025194112,-0.053125024,-0.046143934,-0.0075283917,0.0037408322,0.033270977,-2.0,2.0,-2.0,-2.0,2.0,-2.0,-2.0,-2.0,-2.0,-2.0,-2.0,-2.0,-2.0,2.0,-2.0,-2.0,2.0,-2.0,-2.0,-2.0,-2.0,-2.0,-2.0,-2.0
2025-06-06 17:04:25.772,0.037649095,-0.03855843,0.027960682,0.002248171,-0.025554912,-0.021025715,0.0,0.0,0.0,0.0041889995,-0.12981325,0.38058552,-0.118153825,-0.0549932,0.3232154,-0.08822502,-0.12279016,-0.34127608,-0.038696278,-0.041982595,-0.3759221,-0.092452995,0.027634285,0.05199059,0.041942243,0.05924201,0.032517653,0.014433433,-0.01663998,-0.07270669,0.046530794,0.036611773,-0.018620526,-0.0137911,-2.0,2.0,-2.0,-2.0,2.0,-2.0,-2.0,-2.0,-2.0,-2.0,-2.0,-2.0,-2.0,2.0,-2.0,-2.0,2.0,-2.0,-2.0,-2.0,-2.0,-2.0,-2.0,-2.0
2025-06-06 17:04:25.794,0.030750072,-0.03650423,-0.0007430767,-0.012238775,-0.11906064,-0.026463928,0.0,0.0,0.0,0.0041882764,-0.11963629,0.37078997,-0.11535388,-0.06315094,0.32961348,-0.097853534,-0.10966274,-0.34710792,-0.037336487,-0.04763312,-0.37815994,-0.08837203,-0.051809154,-0.028541066,-0.037558097,0.02699469,-0.068331264,-0.020732827,-0.039615877,-0.013808158,0.021610884,0.025997581,0.011736562,0.018991442,-2.0,2.0,-2.0,-2.0,2.0,-2.0,-2.0,-2.0,-2.0,-2.0,-2.0,-2.0,-2.0,2.0,-2.0,-2.0,2.0,-2.0,-2.0,-2.0,-2.0,-2.0,-2.0,-2.0
2025-06-06 17:04:25.812,0.043351963,0.043713346,0.047558572,-0.012968609,-0.044622187,-0.0019151922,0.0,0.0,0.0,0.004188069,-0.12884396,0.37999114,-0.10555114,-0.0676825,0.3191811,-0.095251374,-0.11252911,-0.33944267,-0.03685434,-0.03822138,-0.39231148,-0.09889213,0.056607652,0.041703895,-0.011050237,-0.070096515,0.06345096,0.031576283,0.04223321,0.02782425,0.03302608,-0.013174366,-0.0326039,0.003042991,-2.0,2.0,-2.0,-2.0,2.0,-2.0,-2.0,-2.0,-2.0,-2.0,-2.0,-2.0,-2.0,2.0,-2.0,-2.0,2.0,-2.0,-2.0,-2.0,-2.0,-2.0,-2.0,-2.0
2025-06-06 17:04:25.832,-0.046758834,0.006924394,-0.036969375,0.017460184,-0.11380676,-0.01686508,0.0,0.0,0.0,0.0041883187,-0.124621324,0.38135186,-0.11562512,-0.06189133,0.32276392,-0.091711335,-0.123620115,-0.35240313,-0.046926524,-0.041139923,-0.37644753,-0.099744454,0.054179713,-0.0030749154,0.0097404625,0.002518213,0.048229188,0.074000135,-0.0047297534,0.055122495,-0.053948414,0.06679647,-0.010591578,-0.06860234,-2.0,2.0,-2.0,-2.0,2.0,-2.0,-2.0,-2.0,-2.0,-2.0,-2.0,-2.0,-2.0,2.0,-2.0,-2.0,2.0,-2.0,-2.0,-2.0,-2.0,-2.0,-2.0,-2.0
2025-06-06 17:04:25.852,0.006332257,0.048159942,0.037491366,0.0024724244,-0.04418883,0.026746975,0.0,0.0,0.0,0.0041889558,-0.11625802,0.38457897,-0.11626533,-0.05132724,0.32986683,-0.09552259,-0.1155642,-0.340244,-0.049541824,-0.051458,-0.3783632,-0.10187911,0.017356334,0.0407955,0.023844723,0.059283935,-0.06761809,0.068681836,0.068403356,9.946843e-06,-0.026597658,0.02721941,-0.06976539,0.009151329,-2.0,2.0,-2.0,-2.0,2.0,-2.0,-2.0,-2.0,-2.0,-2.0,-2.0,-2.0,-2.0,2.0,-2.0,-2.0,2.0,-2.0,-2.0,-2.0,-2.0,-2.0,-2.0,-2.0
2025-06-06 17:04:25.872,-0.027438618,0.036222164,-0.020818867,-0.023514336,-0.11589774,0.04607652,0.0,0.0,0.0,0.004189903,-0.134529,0.3754123,-0.11000626,-0.04901084,0.33201373,-0.087166496,-0.1148247,-0.3515461,-0.031122556,-0.040797558,-0.37407848,-0.101082556,-0.05333902,0.048194032,-0.021166636,-0.033767197,-0.072558284,0.06255623,0.04998942,0.061157107,0.0032862138,-0.035570025,0.043380987,0.073243685,-2.0,2.0,-2.0,-2.0,2.0,-2.0,-2.0,-2.0,-2.0,-2.0,-2.0,-2.0,-2.0,2.0,-2.0,-2.0,2.0,-2.0,-2.0,-2.0,-2.0,-2.0,-2.0,-2.0
2025-06-06 17:04:25.895,0.027037749,0.019021774,0.025797071,-0.036910165,-0.0963717,0.02193288,0.0,0.0,0.0,0.0041910806,-0.13008586,0.37153956,-0.10695741,-0.052115407,0.32190108,-0.089566015,-0.115638115,-0.34881184,-0.03170476,-0.04003865,-0.3772599,-0.092466645,0.0072545544,-0.049917657,0.017598663,0.024127536,-0.073599,-0.059587367,-0.011819833,0.050062828,-0.05932076,0.04715047,0.0053764116,0.06034832,-2.0,2.0,-2.0,-2.0,2.0,-2.0,-2.0,-2.0,-2.0,-2.0,-2.0,-2.0,-2.0,2.0,-2.0,-2.0,2.0,-2.0,-2.0,-2.0,-2.0,-2.0,-2.0,-2.0
2025-06-06 17:04:25.912,0.048938334,-0.019730972,0.022148449,-0.0014462897,-0.064709984,-0.04076882,0.0,0.0,0.0,0.004192411,-0.12331935,0.3868906,-0.1063472,-0.05243411,0.32699236,-0.097818725,-0.108678326,-0.34212252,-0.035955027,-0.050281245,-0.38034147,-0.10662898,-0.043933544,-0.009900334,-0.029206043,-0.028432246,0.0694791,0.05537419,-0.031365175,0.014743106,0.063919365,-0.022378897,0.027213363,0.054196164,-2.0,2.0,-2.0,-2.0,2.0,-2.0,-2.0,-2.0,-2.0,-2.0,-2.0,-2.0,-2.0,2.0,-2.0,-2.0,2.0,-2.0,-2.0,-2.0,-2.0,-2.0,-2.0,-2.0
2025-06-06 17:04:25.932,-0.0051037823,0.04199981,0.045932803,-0.0009324796,-0.06695616,-0.009918815,0.0,0.0,0.0,0.0041938187,-0.123008765,0.3834329,-0.12031842,-0.065985866,0.32925978,-0.079844564,-0.111159176,-0.34016573,-0.03891629,-0.05232518,-0.3889502,-0.09988784,0.043241814,-0.04194968,0.057912357,0.00059240765,0.055893216,0.04184215,-0.04684877,0.020474248,-0.0640337,0.026413431,0.069874436,-0.00068446156,-2.0,2.0,-2.0,-2.0,2.0,-2.0,-2.0,-2.0,-2.0,-2.0,-2.0,-2.0,-2.0,2.0,-2.0,-2.0,2.0,-2.0,-2.0,-2.0,-2.0,-2.0,-2.0,-2.0
2025-06-06 17:04:25.952,-0.04618424,0.03247192,0.047097184,-0.0582153,-0.07688122,-0.035061713,0.0,0.0,0.0,0.0041952366,-0.13134338,0.36900714,-0.119482145,-0.058700938,0.3208438,-0.08096838,-0.106965914,-0.35315984,-0.048243236,-0.038859896,-0.3932704,-0.08791826,-0.033121638,0.00977143,-0.004371358,0.0027729573,-0.05363806,-0.054807194,0.025113465,0.0073426566,-0.037440576,-0.04169075,-0.004178519,-0.0687238,-2.0,2.0,-2.0,-2.0,2.0,-2.0,-2.0,-2.0,-2.0,-2.0,-2.0,-2.0,-2.0,2.0,-2.0,-2.0,2.0,-2.0,-2.0,-2.0,-2.0,-2.0,-2.0,-2.0
2025-06-06 17:04:25.972,-0.019713122,0.017868886,0.011089067,-0.010317543,-0.070909895,-4.0038496e-05,0.0,0.0,0.0,0.0041966042,-0.12953508,0.38766637,-0.10594389,-0.049150575,0.3337511,-0.09520624,-0.11658445,-0.33905396,-0.042607993,-0.0460001,-0.37571087,-0.10204337,0.019938752,-0.018794404,0.020253586,0.067466155,-0.026030995,0.021189839,0.012116267,0.02000288,0.0662364,-0.03688051,-0.03885576,0.008246883,-2.0,2.0,-2.0,-2.0,2.0,-2.0,-2.0,-2.0,-2.0,-2.0,-2.0,-2.0,-2.0,2.0,-2.0,-2.0,2.0,-2.0,-2.0,-2.0,-2.0,-2.0,-2.0,-2.0
2025-06-06 17:04:25.995,0.044302486,0.007952925,-0.033008087,-0.065947965,-0.05714986,0.046674777,0.0,0.0,0.0,0.0041978727,-0.122253865,0.37839955,-0.110637136,-0.050765682,0.31796446,-0.09438439,-0.119268514,-0.34243348,-0.03961714,-0.039956626,-0.38723955,-0.09905452,0.022264061,0.024482442,-0.02064358,-0.035408773,-0.029456925,0.03687486,-0.06836415,0.0093356,-0.009098978,-0.050155673,-0.023698233,0.064173974,-2.0,2.0,-2.0,-2.0,2.0,-2.0,-2.0,-2.0,-2.0,-2.0,-2.0,-2.0,-2.0,2.0,-2.0,-2.0,2.0,-2.0,-2.0,-2.0,-2.0,-2.0,-2.0,-2.0
2025-06-06 17:04:26.013,0.03233592,0.02502671,-0.035425298,-0.050712842,-0.100718215,-0.039693896,0.0,0.0,0.0,0.0041990024,-0.12855563,0.36857724,-0.10349112,-0.066516966,0.33194003,-0.096846364,-0.106612876,-0.34326795,-0.0319797,-0.050480302,-0.38590235,-0.091818795,-0.042059828,-0.009607672,0.07287633,-0.030493349,-0.034340676,0.06324897,0.018216712,-0.050000753,-0.07074541,-0.07464829,-0.033909377,-0.004556182,-2.0,2.0,-2.0,-2.0,2.0,-2.0,-2.0,-2.0,-2.0,-2.0,-2.0,-2.0,-2.0,2.0,-2.0,-2.0,2.0,-2.0,-2.0,-2.0,-2.0,-2.0,-2.0,-2.0
2025-06-06 17:04:26.033,0.026500827,0.04742331,0.04286371,0.024571821,-0.09222581,-0.04529206,0.0,0.0,0.0,0.0041999654,-0.12092087,0.37046188,-0.11711329,-0.06303002,0.3235503,-0.09346039,-0.12526074,-0.3483091,-0.03893608,-0.05542777,-0.38757128,-0.1065622,0.0055240677,0.0016063435,0.047669187,0.0297606,-0.06807705,-0.07171397,-0.027371204,0.05601728,0.010985555,0.06237757,0.046824116,-0.057489954,-2.0,2.0,-2.0,-2.0,2.0,-2.0,-2.0,-2.0,-2.0,-2.0,-2.0,-2.0,-2.0,2.0,-2.0,-2.0,2.0,-2.0,-2.0,-2.0,-2.0,-2.0,-2.0,-2.0
2025-06-06 17:04:26.053,-0.0090749515,-0.032695677,0.036442213,-0.058917448,-0.054550875,0.030616554,0.0,0.0,0.0,0.004200744,-0.11974867,0.3822272,-0.11710988,-0.053603165,0.32177764,-0.08455279,-0.10669841,-0.33760646,-0.0497984,-0.049438693,-0.38471836,-0.10312066,-0.03474092,-0.035985183,-0.031226123,-0.039170656,-0.0068258387,-0.07238038,0.029796613,-0.026835335,0.059999745,-0.065727465,-0.060046665,-0.07391395,-2.0,2.0,-2.0,-2.0,2.0,-2.0,-2.0,-2.0,-2.0,-2.0,-2.0,-2.0,-2.0,2.0,-2.0,-2.0,2.0,-2.0,-2.0,-2.0,-2.0,-2.0,-2.0,-2.0
2025-06-06 17:04:26.073,0.035023693,-0.022624802,-0.007083157,-0.064646885,-0.11001896,0.03413597,0.0,0.0,0.0,0.0042013302,-0.13274428,0.3682374,-0.1094906,-0.04854118,0.33540097,-0.08817418,-0.10866866,-0.34390402,-0.050772812,-0.051320937,-0.38593745,-0.09290625,-0.035562072,-0.03323739,0.05357278,0.034391206,-0.014808216,-0.031672493,0.021996835,-0.043266002,-0.012538645,0.0047557005,-0.0068048043,0.051489774,-2.0,2.0,-2.0,-2.0,2.0,-2.0,-2.0,-2.0,-2.0,-2.0,-2.0,-2.0,-2.0,2.0,-2.0,-2.0,2.0,-2.0,-2.0,-2.0,-2.0,-2.0,-2.0,-2.0
2025-06-06 17:04:26.096,-0.027964028,0.029870644,0.0008498559,0.0013116944,-0.041973002,-0.03943659,0.0,0.0,0.0,0.0042017256,-0.1152936,0.3694429,-0.11846104,-0.056962486,0.3318706,-0.08420781,-0.12430471,-0.35243407,-0.048519436,-0.048862133,-0.39298964,-0.09140087,0.0313732,0.012559675,0.027605522,0.032349933,-0.0051770094,0.044542573,0.058783226,0.060567632,0.07174112,-0.034374196,0.02236899,-0.049584553,-2.0,2.0,-2.0,-2.0,2.0,-2.0,-2.0,-2.0,-2.0,-2.0,-2.0,-2.0,-2.0,2.0,-2.0,-2.0,2.0,-2.0,-2.0,-2.0,-2.0,-2.0,-2.0,-2.0
2025-06-06 17:04:26.113,-0.0029989018,0.016269326,-0.018109689,0.006546218,-0.046173844,0.029675439,0.0,0.0,0.0,0.004201939,-0.13450274,0.37286764,-0.118500374,-0.06574917,0.31847125,-0.09602132,-0.11787367,-0.33917806,-0.050011642,-0.055550672,-0.37564325,-0.101937115,-0.04880835,-0.040991332,-0.04383548,-0.04157474,0.0430132,0.01069065,-0.043109223,0.07393907,-0.021869903,-0.0037774092,0.07029939,0.004704086,-2.0,2.0,-2.0,-2.0,2.0,-2.0,-2.0,-2.0,-2.0,-2.0,-2.0,-2.0,-2.0,2.0,-2.0,-2.0,2.0,-2.0,-2.0,-2.0,-2.0,-2.0,-2.0,-2.0
2025-06-06 17:04:26.133,0.028838972,0.0067439466,0.018940022,0.03156674,-0.055318743,-0.0065749916,0.0,0.0,0.0,0.0042019854,-0.12991978,0.37465245,-0.110973984,-0.048400994,0.31860474,-0.09352148,-0.1240805,-0.35138455,-0.04406527,-0.045081753,-0.39018336,-0.09891909,0.027770765,0.03581672,0.008256177,0.008305577,0.009096975,0.07460541,0.01267081,0.0063008787,-0.01966898,-0.020287883,-0.050265107,0.018978968,-2.0,2.0,-2.0,-2.0,2.0,-2.0,-2.0,-2.0,-2.0,-2.0,-2.0,-2.0,-2.0,2.0,-2.0,-2.0,2.0,-2.0,-2.0,-2.0,-2.0,-2.0,-2.0,-2.0
2025-06-06 17:04:26.153,0.0034860547,0.03344622,0.01945412,-0.01588014,-0.046244558,0.042913493,0.0,0.0,0.0,0.0042018853,-0.1299715,0.3845312,-0.10527342,-0.062468626,0.325177,-0.09766156,-0.1178218,-0.33647943,-0.043141983,-0.055889703,-0.3901368,-0.092199735,0.019044578,-0.014131272,-0.06311083,-0.047255337,0.0128855435,0.06363386,0.060162634,0.02297114,-0.023536514,-0.062983714,-0.062097754,0.000909376,-2.0,2.0,-2.0,-2.0,2.0,-2.0,-2.0,-2.0,-2.0,-2.0,-2.0,-2.0,-2.0,2.0,-2.0,-2.0,2.0,-2.0,-2.0,-2.0,-2.0,-2.0,-2.0,-2.0
2025-06-06 17:04:26.173,-0.00787782,0.0041916166,0.039400075,-0.013165977,-0.113575436,-0.03451511,0.0,0.0,0.0,0.004201662,-0.11732764,0.37063432,-0.112351604,-0.054298323,0.3162901,-0.09251313,-0.1210825,-0.33557144,-0.031245746,-0.047822744,-0.38641426,-0.093762346,-0.06329338,-0.06458434,-0.00018881129,0.04291047,-0.0052901115,0.069733374,0.04650713,-0.0717737,-0.049435366,0.06474172,-0.07456634,0.036034744,-2.0,2.0,-2.0,-2.0,2.0,-2.0,-2.0,-2.0,-2.0,-2.0,-2.0,-2.0,-2.0,2.0,-2.0,-2.0,2.0,-2.0,-2.0,-2.0,-2.0,-2.0,-2.0,-2.0
2025-06-06 17:04:26.195,-0.016983958,0.01646428,-0.025155544,-0.011267443,-0.050659157,-0.01863066,0.0,0.0,0.0,0.004201341,-0.13083687,0.36839157,-0.11590983,-0.049064394,0.32223746,-0.08316865,-0.1194991,-0.3454465,-0.04317378,-0.043499514,-0.3934478,-0.09453503,-0.06241546,-0.056278184,0.016520431,-0.032847084,0.04505934,-0.054838415,-0.055060655,0.054992173,-0.07263666,0.021035725,0.04636508,-0.01869681,-2.0,2.0,-2.0,-2.0,2.0,-2.0,-2.0,-2.0,-2.0,-2.0,-2.0,-2.0,-2.0,2.0,-2.0,-2.0,2.0,-2.0,-2.0,-2.0,-2.0,-2.0,-2.0,-2.0
2025-06-06 17:04:26.214,-0.044125125,0.036560453,0.040629663,0.016974587,-0.06897315,-0.03761843,0.0,0.0,0.0,0.0042009484,-0.12300579,0.38383585,-0.1112254,-0.06017954,0.33397532,-0.08224167,-0.110424854,-0.3489878,-0.042575408,-0.04385963,-0.3826387,-0.10327025,-0.049912773,-0.014679477,-0.06726809,0.032912754,0.064129554,0.0040453873,-0.05404987,0.010304858,-0.06093677,-0.019570269,0.014246708,0.020023063,-2.0,2.0,-2.0,-2.0,2.0,-2.0,-2.0,-2.0,-2.0,-2.0,-2.0,-2.0,-2.0,2.0,-2.0,-2.0,2.0,-2.0,-2.0,-2.0,-2.0,-2.0,-2.0,-2.0
2025-06-06 17:04:26.234,0.039664686,0.019570626,-0.046388973,-0.029331248,-0.03512359,-0.047648374,0.0,0.0,0.0,0.0042005107,-0.11802955,0.37989315,-0.10797279,-0.049608663,0.32595947,-0.097175404,-0.11730163,-0.35018182,-0.040581185,-0.049778353,-0.3811037,-0.09796298,-0.006582182,0.04410516,0.04465568,-0.05552644,-0.011233478,0.03377575,-0.046983793,-0.053746607,0.009125934,-0.005737621,-0.024038492,0.04109016,-2.0,2.0,-2.0,-2.0,2.0,-2.0,-2.0,-2.0,-2.0,-2.0,-2.0,-2.0,-2.0,2.0,-2.0,-2.0,2.0,-2.0,-2.0,-2.0,-2.0,-2.0,-2.0,-2.0
2025-06-06 17:04:26.253,0.027317941,-0.0069314307,-0.007797099,0.01891292,-0.024479399,0.04413902,0.0,0.0,0.0,0.0042000506,-0.11758827,0.3778051,-0.111467674,-0.06469007,0.3288141,-0.07893426,-0.11992154,-0.34496942,-0.04852153,-0.046613324,-0.38450405,-0.098787315,-0.057649884,0.021593353,-0.023828346,-0.041810945,-0.07491269,0.06514193,0.044383332,-0.00021846352,0.063133016,0.06703826,0.060000807,0.015506457,-2.0,2.0,-2.0,-2.0,2.0,-2.0,-2.0,-2.0,-2.0,-2.0,-2.0,-2.0,-2.0,2.0,-2.0,-2.0,2.0,-2.0,-2.0,-2.0,-2.0,-2.0,-2.0,-2.0
2025-06-06 17:04:26.273,0.035258334,0.047853958,0.006894869,-0.014768727,-0.025906302,0.005236772,0.0,0.0,0.0,0.0041995915,-0.1287703,0.368749,-0.10370506,-0.060810357,0.32122645,-0.08123643,-0.1173294,-0.34437954,-0.04619836,-0.041197382,-0.37412107,-0.091326796,0.07412282,0.051478315,-0.028111978,0.045585383,0.059483677,-0.010915934,-0.0478309,-0.05823822,-0.07161567,-0.012550944,-0.051252164,0.0554227,-2.0,2.0,-2.0,-2.0,2.0,-2.0,-2.0,-2.0,-2.0,-2.0,-2.0,-2.0,-2.0,2.0,-2.0,-2.0,2.0,-2.0,-2.0,-2.0,-2.0,-2.0,-2.0,-2.0
2025-06-06 17:04:26.295,-0.0019466621,-0.009631319,-0.027155034,-0.024192644,-0.047821052,0.010025552,0.0,0.0,0.0,0.004199151,-0.12735838,0.37369233,-0.118454516,-0.059356704,0.32810196,-0.098015435,-0.11971321,-0.350318,-0.038722154,-0.043160625,-0.3746481,-0.09186671,-0.02587006,0.008949333,0.05038812,-0.016671516,-0.01871524,0.0314307,0.045954365,-0.06454389,-0.056156635,0.055777777,0.072954655,0.06250491,-2.0,2.0,-2.0,-2.0,2.0,-2.0,-2.0,-2.0,-2.0,-2.0,-2.0,-2.0,-2.0,2.0,-2.0,-2.0,2.0,-2.0,-2.0,-2.0,-2.0,-2.0,-2.0,-2.0
2025-06-06 17:04:26.314,-0.032592934,0.019010251,0.022258524,0.022079874,-0.073946245,-0.023987196,0.0,0.0,0.0,0.004198746,-0.119986326,0.37195894,-0.11896917,-0.064146124,0.31637785,-0.08196699,-0.10577593,-0.35379508,-0.03246521,-0.050854765,-0.3827685,-0.09209977,0.013780863,-0.073535904,0.053370215,-0.06545075,-0.021916961,-0.056362312,0.026914584,0.051560495,-0.042577785,0.007834035,-0.039916404,-0.011347212,-2.0,2.0,-2.0,-2.0,2.0,-2.0,-2.0,-2.0,-2.0,-2.0,-2.0,-2.0,-2.0,2.0,-2.0,-2.0,2.0,-2.0,-2.0,-2.0,-2.0,-2.0,-2.0,-2.0
2025-06-06 17:04:26.334,0.004016981,-0.020077247,0.029456269,-0.023264382,-0.08136656,0.00813544,0.0,0.0,0.0,0.0041983873,-0.123598814,0.3689852,-0.10224572,-0.05008368,0.32551908,-0.08244847,-0.12414174,-0.34665704,-0.032003503,-0.042334765,-0.39023936,-0.103604354,-0.02392254,-0.07410545,-0.004842589,0.019938098,0.065876655,-0.03290984,-0.009542641,0.05202666,0.07025214,0.025372649,-0.047488224,0.044233177,-2.0,2.0,-2.0,-2.0,2.0,-2.0,-2.0,-2.0,-2.0,-2.0,-2.0,-2.0,-2.0,2.0,-2.0,-2.0,2.0,-2.0,-2.0,-2.0,-2.0,-2.0,-2.0,-2.0
2025-06-06 17:04:26.354,-0.022217808,0.015065656,-0.012698116,-0.034701798,-0.05786376,-0.022389844,0.0,0.0,0.0,0.0041980846,-0.13031708,0.3784883,-0.10625835,-0.049376756,0.3309454,-0.08672115,-0.113969,-0.3441374,-0.050649352,-0.044371396,-0.38641906,-0.095206715,0.03957858,0.045810673,0.007122385,-0.016753802,-0.017303571,0.028825177,0.015574079,-0.05854883,-0.025708621,0.040483877,-0.029178975,0.024202308,-2.0,2.0,-2.0,-2.0,2.0,-2.0,-2.0,-2.0,-2.0,-2.0,-2.0,-2.0,-2.0,2.0,-2.0,-2.0,2.0,-2.0,-2.0,-2.0,-2.0,-2.0,-2.0,-2.0
2025-06-06 17:04:26.377,0.009004544,-0.0031008604,-0.021335354,-0.030399578,-0.07724108,-0.0368717,0.0,0.0,0.0,0.0041978424,-0.13247791,0.36834574,-0.11975905,-0.055141266,0.3347561,-0.093510464,-0.11690061,-0.35446852,-0.042540904,-0.03756218,-0.38521662,-0.09058889,0.017041039,0.07050587,-0.062870204,-0.0112934355,0.057750534,-0.020853305,0.056376785,-0.06847443,-0.044704687,0.028600655,0.00089257973,-0.031123701,-2.0,2.0,-2.0,-2.0,2.0,-2.0,-2.0,-2.0,-2.0,-2.0,-2.0,-2.0,-2.0,2.0,-2.0,-2.0,2.0,-2.0,-2.0,-2.0,-2.0,-2.0,-2.0,-2.0
2025-06-06 17:04:26.395,0.022158356,0.04950691,0.04876761,0.013336457,-0.11762589,0.039699648,0.0,0.0,0.0,0.004197663,-0.13349108,0.37462315,-0.11623109,-0.05399667,0.3268802,-0.07971198,-0.11145195,-0.3427907,-0.049315114,-0.037159704,-0.38202226,-0.09865422,0.065535255,0.050285313,0.051922653,0.0012905005,-0.007846869,0.022419976,0.066506654,-0.015511609,0.048959807,0.032199934,-0.0056315297,0.016133092,-2.0,2.0,-2.0,-2.0,2.0,-2.0,-2.0,-2.0,-2.0,-2.0,-2.0,-2.0,-2.0,2.0,-2.0,-2.0,2.0,-2.0,-2.0,-2.0,-2.0,-2.0,-2.0,-2.0
2025-06-06 17:04:26.414,0.033272758,-0.028786216,-0.029996132,-0.0019901406,-0.06726329,0.04524485,0.0,0.0,0.0,0.0041975453,-0.11653519,0.3758587,-0.11136237,-0.059874654,0.3227625,-0.0962757,-0.10752927,-0.336223,-0.039993294,-0.048292004,-0.38917696,-0.09865968,0.010439846,0.022941168,0.031503133,-0.005599099,-0.026608678,-0.052132387,-0.05125235,-0.019849231,0.03472725,-0.014241521,-0.008576671,-0.053142764,-2.0,2.0,-2.0,-2.0,2.0,-2.0,-2.0,-2.0,-2.0,-2.0,-2.0,-2.0,-2.0,2.0,-2.0,-2.0,2.0,-2.0,-2.0,-2.0,-2.0,-2.0,-2.0,-2.0
2025-06-06 17:04:26.434,0.0026200109,0.02964969,0.046640385,-0.05755794,-0.111917704,0.0050530536,0.0,0.0,0.0,0.0041974857,-0.11769834,0.38745132,-0.11179204,-0.05083605,0.32580346,-0.09466312,-0.11210555,-0.34729674,-0.046661537,-0.05506521,-0.38391167,-0.09663169,0.046361502,-0.020136395,0.011492714,-0.00015874972,-0.03840047,-0.03300325,-0.05671448,0.012448382,0.012218039,-0.048982326,0.02004142,-0.059026606,-2.0,2.0,-2.0,-2.0,2.0,-2.0,-2.0,-2.0,-2.0,-2.0,-2.0,-2.0,-2.0,2.0,-2.0,-2.0,2.0,-2.0,-2.0,-2.0,-2.0,-2.0,-2.0,-2.0
2025-06-06 17:04:26.454,0.024068546,0.0073172604,-0.037232917,0.03011596,-0.11664435,0.008522383,0.0,0.0,0.0,0.0041974797,-0.13094208,0.3808037,-0.10216657,-0.05676597,0.33085278,-0.08547163,-0.111748226,-0.3375337,-0.04960295,-0.038062613,-0.3925409,-0.0901882,0.023412596,-0.053844087,0.020062,0.014412378,0.031960428,0.02725906,-0.05622701,-0.055141058,0.0007938943,-0.029478116,-0.00041763956,-0.027651656,-2.0,2.0,-2.0,-2.0,2.0,-2.0,-2.0,-2.0,-2.0,-2.0,-2.0,-2.0,-2.0,2.0,-2.0,-2.0,2.0,-2.0,-2.0,-2.0,-2.0,-2.0,-2.0,-2.0
2025-06-06 17:04:26.478,-0.02049602,-0.046866287,-0.03354859,-0.013015369,-0.06580019,0.0078032766,0.0,0.0,0.0,0.0041975193,-0.115812466,0.37202814,-0.10415599,-0.0562953,0.3237104,-0.09218494,-0.119117804,-0.33561113,-0.04584665,-0.052074652,-0.37945706,-0.09917847,0.036707945,0.059190292,-0.029408583,0.030350564,0.07453003,0.06342884,-0.03755625,-0.008774624,0.059422016,0.071435064,0.05635027,-0.0020404814,-2.0,2.0,-2.0,-2.0,2.0,-2.0,-2.0,-2.0,-2.0,-2.0,-2.0,-2.0,-2.0,2.0,-2.0,-2.0,2.0,-2.0,-2.0,-2.0,-2.0,-2.0,-2.0,-2.0
2025-06-06 17:04:26.495,-0.013193939,0.030855259,0.03809504,0.025790716,-0.047161274,-0.0120736025,0.0,0.0,0.0,0.004197598,-0.1308055,0.37273827,-0.11531735,-0.058422994,0.3287867,-0.09740893,-0.12503327,-0.34559456,-0.043834366,-0.04243928,-0.38366812,-0.10410393,-0.053074185,0.019031866,0.0037853017,0.04979398,0.041762564,0.026186388,-0.002146741,-0.037680928,0.013158637,-0.048835922,-0.034493905,0.06077441,-2.0,2.0,-2.0,-2.0,2.0,-2.0,-2.0,-2.0,-2.0,-2.0,-2.0,-2.0,-2.0,2.0,-2.0,-2.0,2.0,-2.0,-2.0,-2.0,-2.0,-2.0,-2.0,-2.0
2025-06-06 17:04:26.514,0.012029389,-0.04576242,0.016519783,-0.03353521,-0.1054641,-0.027966844,0.0,0.0,0.0,0.004197706,-0.13204435,0.37351567,-0.117911994,-0.060766708,0.32743445,-0.085578315,-0.11167447,-0.34861684,-0.0442366,-0.047387682,-0.39346835,-0.09401275,-0.05072718,0.05974918,0.07342756,-0.056165695,-0.013731236,0.04810168,0.037490074,0.07460157,-0.0008207807,-0.058094755,0.017497145,-0.05093565,-2.0,2.0,-2.0,-2.0,2.0,-2.0,-2.0,-2.0,-2.0,-2.0,-2.0,-2.0,-2.0,2.0,-2.0,-2.0,2.0,-2.0,-2.0,-2.0,-2.0,-2.0,-2.0,-2.0
2025-06-06 17:04:26.534,-0.034757134,0.019254522,-0.04985044,0.00512333,-0.030345019,0.0027493797,0.0,0.0,0.0,0.004197836,-0.122208744,0.3787139,-0.10636633,-0.058824327,0.31849658,-0.08508403,-0.11876285,-0.3364089,-0.05069216,-0.040374834,-0.375503,-0.10089443,-0.06683182,0.060210466,-0.03824854,-0.028579887,-0.024606446,-0.00403807,0.011608297,0.0050325347,0.069223456,-0.020990975,0.070103504,-0.06587666,-2.0,2.0,-2.0,-2.0,2.0,-2.0,-2.0,-2.0,-2.0,-2.0,-2.0,-2.0,-2.0,2.0,-2.0,-2.0,2.0,-2.0,-2.0,-2.0,-2.0,-2.0,-2.0,-2.0
2025-06-06 17:04:26.555,-0.010747113,0.0029291543,0.044871975,0.010016256,-0.11229786,-0.011760755,0.0,0.0,0.0,0.004197979,-0.12371783,0.38649908,-0.11102195,-0.05819466,0.32885888,-0.09829522,-0.12292692,-0.33827904,-0.035700023,-0.052092057,-0.38757896,-0.09052925,0.025362037,0.06260459,0.013180365,-0.030843545,0.057889767,0.010264123,0.0017857407,0.02064034,-0.05081332,-0.04603215,0.06761607,-0.00032891813,-2.0,2.0,-2.0,-2.0,2.0,-2.0,-2.0,-2.0,-2.0,-2.0,-2.0,-2.0,-2.0,2.0,-2.0,-2.0,2.0,-2.0,-2.0,-2.0,-2.0,-2.0,-2.0,-2.0
2025-06-06 17:04:26.578,0.020194765,0.021906521,0.033108033,-0.0433337,-0.049210984,-0.03013656,0.0,0.0,0.0,0.004198128,-0.13032755,0.36869663,-0.108977556,-0.053534668,0.32433712,-0.078396745,-0.1138819,-0.34550136,-0.050653685,-0.049243603,-0.3793503,-0.10455035,-0.06430479,-0.049625672,-0.064863615,-0.0575849,0.03768468,-0.07043383,0.0060737166,-0.008232886,-0.057931818,0.04909217,-0.013152316,-0.010800028,-2.0,2.0,-2.0,-2.0,2.0,-2.0,-2.0,-2.0,-2.0,-2.0,-2.0,-2.0,-2.0,2.0,-2.0,-2.0,2.0,-2.0,-2.0,-2.0,-2.0,-2.0,-2.0,-2.0
2025-06-06 17:04:26.595,-0.020004127,0.024420105,0.024559332,-0.028250577,-0.040813163,-0.029892113,0.0,0.0,0.0,0.004198275,-0.13496421,0.37782434,-0.11398642,-0.056360066,0.33242938,-0.08084636,-0.11632761,-0.35236973,-0.031430643,-0.056009606,-0.3852893,-0.089353636,-0.05181991,0.051086716,-0.044774838,0.038816433,-0.014902744,0.008392292,0.06946103,-0.016093627,0.004615782,-0.06934759,0.025046425,-0.051591225,-2.0,2.0,-2.0,-2.0,2.0,-2.0,-2.0,-2.0,-2.0,-2.0,-2.0,-2.0,-2.0,2.0,-2.0,-2.0,2.0,-2.0,-2.0,-2.0,-2.0,-2.0,-2.0,-2.0
2025-06-06 17:04:26.615,0.04147746,0.025662553,-0.021136304,-0.06644465,-0.10535826,0.01997919,0.0,0.0,0.0,0.004198415,-0.12526792,0.38225055,-0.10956603,-0.06741303,0.3266457,-0.096536204,-0.11627427,-0.3434474,-0.0342624,-0.050515767,-0.39308047,-0.09233356,0.06916824,-0.028653543,-0.010704413,0.06552657,0.006326774,-0.015994698,0.06371594,-0.030066973,0.062915616,0.071218215,-0.030910058,0.058602832,-2.0,2.0,-2.0,-2.0,2.0,-2.0,-2.0,-2.0,-2.0,-2.0,-2.0,-2.0,-2.0,2.0,-2.0,-2.0,2.0,-2.0,-2.0,-2.0,-2.0,-2.0,-2.0,-2.0
2025-06-06 17:04:26.635,0.015368648,-0.04035263,-0.00977573,-0.015910901,-0.077546924,-0.032716148,0.0,0.0,0.0,0.004198543,-0.12153513,0.38396055,-0.10557267,-0.06254355,0.31798145,-0.091706984,-0.11891696,-0.3363925,-0.03924194,-0.040699385,-0.38619566,-0.10128174,-0.07349063,-0.047023363,0.0043762526,0.014511642,0.0052230987,0.05861333,0.04612382,0.035587307,0.040622592,-0.031514548,0.073923446,0.047086556,-2.0,2.0,-2.0,-2.0,2.0,-2.0,-2.0,-2.0,-2.0,-2.0,-2.0,-2.0,-2.0,2.0,-2.0,-2.0,2.0,-2.0,-2.0,-2.0,-2.0,-2.0,-2.0,-2.0
2025-06-06 17:04:26.655,-0.006624792,0.04112411,0.017139595,0.00028719846,-0.09859018,-0.018100938,0.0,0.0,0.0,0.004198655,-0.11710037,0.38774225,-0.1083994,-0.05642483,0.33236194,-0.084265515,-0.12454206,-0.33761555,-0.04991537,-0.052788682,-0.38190225,-0.09373984,0.06259583,-0.019250713,0.03462296,0.046012923,-0.054891713,-0.051321026,-0.03984859,0.045188956,-0.024582706,0.025520366,0.0329437,0.061519068,-2.0,2.0,-2.0,-2.0,2.0,-2.0,-2.0,-2.0,-2.0,-2.0,-2.0,-2.0,-2.0,2.0,-2.0,-2.0,2.0,-2.0,-2.0,-2.0,-2.0,-2.0,-2.0,-2.0
2025-06-06 17:04:26.677,-0.044419743,-0.045810826,0.046992302,-0.003379005,-0.056420427,-0.022226194,0.0,0.0,0.0,0.0041987486,-0.12490225,0.37772274,-0.118853636,-0.049439084,0.33159184,-0.08294675,-0.11745448,-0.34337628,-0.04364282,-0.049684662,-0.37930214,-0.09477082,-0.050652694,-0.037982706,-0.04958658,0.06023866,-0.064612724,-0.052552834,-0.048861034,-0.066922694,0.060670886,-0.0029639064,-0.06495078,-0.07292644,-2.0,2.0,-2.0,-2.0,2.0,-2.0,-2.0,-2.0,-2.0,-2.0,-2.0,-2.0,-2.0,2.0,-2.0,-2.0,2.0,-2.0,-2.0,-2.0,-2.0,-2.0,-2.0,-2.0
2025-06-06 17:04:26.695,-0.01643487,0.036591742,-0.041059382,0.030902157,-0.08606444,0.007530909,0.0,0.0,0.0,0.0041988227,-0.12242213,0.38763735,-0.116628945,-0.0555012,0.3336272,-0.08829523,-0.11038299,-0.33554876,-0.044534758,-0.049448848,-0.39247385,-0.10348396,0.0071975053,0.066527896,0.063766524,-0.06707266,0.03009345,0.011950937,-0.04699887,0.05996049,-0.04504067,0.06538742,-0.060192104,0.022849495,-2.0,2.0,-2.0,-2.0,2.0,-2.0,-2.0,-2.0,-2.0,-2.0,-2.0,-2.0,-2.0,2.0,-2.0,-2.0,2.0,-2.0,-2.0,-2.0,-2.0,-2.0,-2.0,-2.0
2025-06-06 17:04:26.715,0.048187524,0.012745423,0.020461276,-0.025547083,-0.061152104,0.04197275,0.0,0.0,0.0,0.004198876,-0.11664941,0.36838704,-0.11322378,-0.06738129,0.31572688,-0.09077558,-0.114458725,-0.34502214,-0.045995522,-0.053081013,-0.38734233,-0.098937586,-0.05279121,-0.014599889,0.009913404,0.03508088,-0.042304467,-0.017913612,-0.04768135,0.05376112,0.03690039,0.04569313,0.020475479,0.053357497,-2.0,2.0,-2.0,-2.0,2.0,-2.0,-2.0,-2.0,-2.0,-2.0,-2.0,-2.0,-2.0,2.0,-2.0,-2.0,2.0,-2.0,-2.0,-2.0,-2.0,-2.0,-2.0,-2.0
2025-06-06 17:04:26.735,0.01886333,-0.040887225,0.017997999,-0.030622719,-0.027897587,-0.012647669,0.0,0.0,0.0,0.00419891,-0.12386566,0.37518337,-0.10565581,-0.06531158,0.3274628,-0.082663745,-0.11290101,-0.3360933,-0.043771353,-0.05272263,-0.38249823,-0.09897196,0.053280797,0.023425786,-0.005721906,0.05805898,0.0720365,0.03694865,0.018271144,0.029776435,-0.057171695,2.5898089e-05,-0.0037633383,-0.05039388,-2.0,2.0,-2.0,-2.0,2.0,-2.0,-2.0,-2.0,-2.0,-2.0,-2.0,-2.0,-2.0,2.0,-2.0,-2.0,2.0,-2.0,-2.0,-2.0,-2.0,-2.0,-2.0,-2.0
2025-06-06 17:04:26.755,0.027377727,0.014304363,0.0044733128,-0.047991984,-0.10364228,0.031312592,0.0,0.0,0.0,0.004198926,-0.119497456,0.37435,-0.10566762,-0.055275403,0.33095247,-0.07863219,-0.11803929,-0.3404908,-0.046514403,-0.053643953,-0.37477556,-0.10664347,0.060115013,0.024608292,0.008251818,0.044160433,0.053108517,-0.048027556,0.0091652265,-0.05895545,0.060652062,0.006012338,0.038506035,-0.014215426,-2.0,2.0,-2.0,-2.0,2.0,-2.0,-2.0,-2.0,-2.0,-2.0,-2.0,-2.0,-2.0,2.0,-2.0,-2.0,2.0,-2.0,-2.0,-2.0,-2.0,-2.0,-2.0,-2.0
2025-06-06 17:04:26.778,-0.0016063077,-0.025790077,-0.014368089,0.01999674,-0.035451043,-0.032953825,0.0,0.0,0.0,0.0041989246,-0.13105133,0.37406617,-0.11249103,-0.056482103,0.31940407,-0.08996548,-0.117878534,-0.3518954,-0.037624124,-0.0526077,-0.38722897,-0.09809555,0.019243471,-0.06682531,0.0138494205,-0.036196575,-0.043119527,0.026664672,0.020675464,-0.03897066,-0.006897314,0.044027086,-0.055960882,-0.015191182,-2.0,2.0,-2.0,-2.0,2.0,-2.0,-2.0,-2.0,-2.0,-2.0,-2.0,-2.0,-2.0,2.0,-2.0,-2.0,2.0,-2.0,-2.0,-2.0,-2.0,-2.0,-2.0,-2.0
2025-06-06 17:04:26.795,-0.023066884,0.04108012,0.009448219,-0.063397236,-0.104458705,-0.019244365,0.0,0.0,0.0,0.0041989093,-0.13427347,0.3816764,-0.11548934,-0.065854676,0.32593808,-0.085761346,-0.12199729,-0.3415072,-0.032920916,-0.05023522,-0.38117263,-0.10296351,0.05220946,-0.009125546,0.04092715,0.055994518,0.018925732,-0.05620029,-0.0065203584,0.07105533,0.03585336,-0.0036733425,-0.034419645,-0.00637786,-2.0,2.0,-2.0,-2.0,2.0,-2.0,-2.0,-2.0,-2.0,-2.0,-2.0,-2.0,-2.0,2.0,-2.0,-2.0,2.0,-2.0,-2.0,-2.0,-2.0,-2.0,-2.0,-2.0
2025-06-06 17:04:26.815,-0.03572254,-0.014061628,0.001684234,0.006814477,-0.10051461,-0.04914405,0.0,0.0,0.0,0.0041988823,-0.1229776,0.3820955,-0.1096124,-0.061294656,0.31984845,-0.08955692,-0.107121445,-0.34573576,-0.04332511,-0.040113475,-0.3804895,-0.10524089,0.040425897,-0.05591154,0.05088654,-0.017507289,-0.07442413,-0.034467343,0.06829763,-0.010563304,0.026817909,0.03217768,0.022829972,-0.037721325,-2.0,2.0,-2.0,-2.0,2.0,-2.0,-2.0,-2.0,-2.0,-2.0,-2.0,-2.0,-2.0,2.0,-2.0,-2.0,2.0,-2.0,-2.0,-2.0,-2.0,-2.0,-2.0,-2.0
2025-06-06 17:04:26.835,-0.02463478,0.011985393,-0.043749124,-0.047063433,-0.04007603,0.02242303,0.0,0.0,0.0,0.004198846,-0.117305726,0.38714844,-0.10442475,-0.05327389,0.33354962,-0.097894914,-0.1242565,-0.35248533,-0.043793395,-0.05539274,-0.38528588,-0.10539065,-0.06961874,-0.015609848,-0.06410323,0.050970655,-0.041586414,-0.07344228,-0.018052299,0.03331392,-0.06779725,-0.009883534,0.008814251,-0.009561772,-2.0,2.0,-2.0,-2.0,2.0,-2.0,-2.0,-2.0,-2.0,-2.0,-2.0,-2.0,-2.0,2.0,-2.0,-2.0,2.0,-2.0,-2.0,-2.0,-2.0,-2.0,-2.0,-2.0
2025-06-06 17:04:26.856,0.04557549,-0.01797729,-0.011727294,-0.036231045,-0.024831936,0.02787073,0.0,0.0,0.0,0.004198803,-0.13123217,0.3860741,-0.10196922,-0.063185304,0.33210132,-0.088118754,-0.12055486,-0.3358862,-0.03685378,-0.038295247,-0.37726197,-0.093285576,-0.0444363,-0.069977775,-0.02230741,-0.056824885,-0.039678518,0.020476336,-0.06078592,0.0349546,-0.029412683,-0.07148099,0.01323994,-0.07145649,-2.0,2.0,-2.0,-2.0,2.0,-2.0,-2.0,-2.0,-2.0,-2.0,-2.0,-2.0,-2.0,2.0,-2.0,-2.0,2.0,-2.0,-2.0,-2.0,-2.0,-2.0,-2.0,-2.0
2025-06-06 17:04:26.877,0.024092382,-0.009478944,-0.03798455,-0.0546861,-0.08297896,-0.010693344,0.0,0.0,0.0,0.004198757,-0.13068962,0.3836991,-0.111154735,-0.061819922,0.32730576,-0.09712382,-0.107960194,-0.3371798,-0.040658303,-0.038028155,-0.38545746,-0.10630918,-0.05803613,-0.05854776,0.028181314,-0.051430743,0.07480911,-0.024017075,0.053477306,-0.043176368,-0.062585905,-0.022321977,0.018140882,0.05220898,-2.0,2.0,-2.0,-2.0,2.0,-2.0,-2.0,-2.0,-2.0,-2.0,-2.0,-2.0,-2.0,2.0,-2.0,-2.0,2.0,-2.0,-2.0,-2.0,-2.0,-2.0,-2.0,-2.0
2025-06-06 17:04:26.896,-0.03256063,-0.046722107,0.03721812,-0.031070357,-0.07624565,0.035768706,0.0,0.0,0.0,0.004198709,-0.117913455,0.38018647,-0.1078391,-0.059694316,0.3262289,-0.096749015,-0.11032121,-0.34481597,-0.03742086,-0.03898002,-0.3875165,-0.10478883,0.037811402,-0.016927343,-0.068062566,0.0025127316,-0.03851948,0.04550478,-0.05139544,-0.061019696,0.0634238,-0.06785952,0.047037553,-0.023427363,-2.0,2.0,-2.0,-2.0,2.0,-2.0,-2.0,-2.0,-2.0,-2.0,-2.0,-2.0,-2.0,2.0,-2.0,-2.0,2.0,-2.0,-2.0,-2.0,-2.0,-2.0,-2.0,-2.0
2025-06-06 17:04:26.916,0.04561789,-0.017968586,-0.04480546,-0.014794157,-0.0832833,-0.016201414,0.0,0.0,0.0,0.0041986625,-0.12896806,0.37052625,-0.114413016,-0.06774619,0.33030954,-0.07980945,-0.118207894,-0.35096976,-0.030884562,-0.039664067,-0.3795111,-0.09432372,-0.07092122,0.028047081,0.060697425,0.010633529,-0.02827666,-0.05975495,0.06521346,-0.044207588,-0.037478887,-0.014918598,0.05274878,-0.013255043,-2.0,2.0,-2.0,-2.0,2.0,-2.0,-2.0,-2.0,-2.0,-2.0,-2.0,-2.0,-2.0,2.0,-2.0,-2.0,2.0,-2.0,-2.0,-2.0,-2.0,-2.0,-2.0,-2.0
2025-06-06 17:04:26.936,0.041699003,0.020758953,0.011053439,0.020961575,-0.05524878,0.049815234,0.0,0.0,0.0,0.0041986182,-0.116771005,0.37036574,-0.10707038,-0.056482207,0.3329498,-0.093614765,-0.10890188,-0.3455191,-0.0348663,-0.04674722,-0.37417352,-0.104825154,-0.03444965,0.039391868,0.039241806,0.0699973,-0.060088478,0.011350582,-0.038526308,-0.02737072,0.06528263,0.022517258,-0.0459113,0.0071352697,-2.0,2.0,-2.0,-2.0,2.0,-2.0,-2.0,-2.0,-2.0,-2.0,-2.0,-2.0,-2.0,2.0,-2.0,-2.0,2.0,-2.0,-2.0,-2.0,-2.0,-2.0,-2.0,-2.0
2025-06-06 17:04:26.956,0.0044968934,-0.0018070363,0.018341005,-0.005722716,-0.11853523,0.041778423,0.0,0.0,0.0,0.0041985787,-0.11793232,0.37776193,-0.11207899,-0.061671045,0.32596618,-0.09823353,-0.11874686,-0.3442557,-0.04336911,-0.040262643,-0.38453498,-0.10134295,0.036366962,-0.074398786,0.071533196,-0.021504082,-0.062293902,0.022721091,0.06751244,-0.016313067,0.02098965,-0.034674603,-0.019342888,0.030517524,-2.0,2.0,-2.0,-2.0,2.0,-2.0,-2.0,-2.0,-2.0,-2.0,-2.0,-2.0,-2.0,2.0,-2.0,-2.0,2.0,-2.0,-2.0,-2.0,-2.0,-2.0,-2.0,-2.0
2025-06-06 17:04:26.977,-0.019882264,-0.02729677,-0.037165087,-0.01905095,-0.10545264,0.0449506,0.0,0.0,0.0,0.004198544,-0.12985346,0.3728944,-0.10554121,-0.05650574,0.324692,-0.08597687,-0.106119365,-0.3431879,-0.05037216,-0.038837366,-0.38465714,-0.105960146,0.046047945,0.055432305,-0.055809002,0.045699473,0.056647535,0.043323472,0.05488469,-0.029179614,-0.03279453,0.06455949,0.035895582,-0.051410716,-2.0,2.0,-2.0,-2.0,2.0,-2.0,-2.0,-2.0,-2.0,-2.0,-2.0,-2.0,-2.0,2.0,-2.0,-2.0,2.0,-2.0,-2.0,-2.0,-2.0,-2.0,-2.0,-2.0
2025-06-06 17:04:26.997,-0.031654183,-0.014582604,0.016173093,0.0070438734,-0.11709857,-0.036203735,0.0,0.0,0.0,0.0041985153,-0.12715814,0.3775715,-0.1156729,-0.0499224,0.33226278,-0.08646596,-0.12202064,-0.33964843,-0.04555473,-0.049957465,-0.39325133,-0.10616739,0.0368335,-0.060564738,-0.05132179,-0.017661534,0.072806664,-0.029101687,0.034382302,0.06548328,-0.00388125,-0.059071813,-0.05221368,-0.0512191,-2.0,2.0,-2.0,-2.0,2.0,-2.0,-2.0,-2.0,-2.0,-2.0,-2.0,-2.0,-2.0,2.0,-2.0,-2.0,2.0,-2.0,-2.0,-2.0,-2.0,-2.0,-2.0,-2.0
2025-06-06 17:04:27.018,0.0020153543,-0.039491434,-0.04547892,-0.015787592,-0.1072954,0.018908098,0.0,0.0,0.0,0.004198493,-0.11591567,0.37895587,-0.11615341,-0.058451824,0.3234189,-0.08733245,-0.1223571,-0.35008797,-0.04972486,-0.045472432,-0.39326626,-0.10333417,-0.021605596,0.011969376,-0.030661466,-0.061193544,0.071848705,0.06356229,0.021042878,-0.05978971,0.074919194,-0.008904483,-0.023223044,0.06929157,-2.0,2.0,-2.0,-2.0,2.0,-2.0,-2.0,-2.0,-2.0,-2.0,-2.0,-2.0,-2.0,2.0,-2.0,-2.0,2.0,-2.0,-2.0,-2.0,-2.0,-2.0,-2.0,-2.0
2025-06-06 17:04:27.038,-0.016464308,-0.0073743695,-0.021356044,-0.03352635,-0.08930398,-0.041032963,0.0,0.0,0.0,0.0041984776,-0.13006115,0.36827692,-0.10451572,-0.05443495,0.3214329,-0.08489653,-0.12159319,-0.35339466,-0.035557646,-0.04292234,-0.37641445,-0.1010819,0.03658479,0.055865586,-0.05786649,-0.003404284,-0.07360882,0.06918505,-0.027007462,-0.07159299,0.0029292745,0.0054138014,0.049156677,0.062494524,-2.0,2.0,-2.0,-2.0,2.0,-2.0,-2.0,-2.0,-2.0,-2.0,-2.0,-2.0,-2.0,2.0,-2.0,-2.0,2.0,-2.0,-2.0,-2.0,-2.0,-2.0,-2.0,-2.0
2025-06-06 17:04:27.060,0.037325684,0.024824083,-0.039897855,-0.031838484,-0.08339191,-0.0299192,0.0,0.0,0.0,0.004198468,-0.12596098,0.37263817,-0.109555125,-0.063334204,0.33381337,-0.09800226,-0.11820565,-0.35269722,-0.035647586,-0.05021919,-0.38102603,-0.09650145,-0.069357805,-0.04789707,-0.03381556,0.020504504,0.047984365,-0.008547628,0.05136759,0.067593165,-0.055941217,0.07304745,0.02801495,-0.03387611,-2.0,2.0,-2.0,-2.0,2.0,-2.0,-2.0,-2.0,-2.0,-2.0,-2.0,-2.0,-2.0,2.0,-2.0,-2.0,2.0,-2.0,-2.0,-2.0,-2.0,-2.0,-2.0,-2.0
2025-06-06 17:04:27.078,0.0105565125,-0.010773017,-0.046623383,-0.024478147,-0.088014625,-0.016072545,0.0,0.0,0.0,0.004198464,-0.12765561,0.37484363,-0.10726922,-0.06702729,0.31818628,-0.09649137,-0.11726839,-0.34465334,-0.04700452,-0.051278327,-0.37462536,-0.09431565,0.05957406,0.061841786,0.042209927,0.03477563,0.02227875,0.059421092,0.014706748,-0.07075173,0.036903035,0.015468607,0.012075262,-0.03542478,-2.0,2.0,-2.0,-2.0,2.0,-2.0,-2.0,-2.0,-2.0,-2.0,-2.0,-2.0,-2.0,2.0,-2.0,-2.0,2.0,-2.0,-2.0,-2.0,-2.0,-2.0,-2.0,-2.0
2025-06-06 17:04:27.098,-0.00011921653,0.030491054,-0.034939047,-0.04323411,-0.11092988,0.0075108144,0.0,0.0,0.0,0.0041984655,-0.12716039,0.3860893,-0.1061326,-0.054077975,0.32911655,-0.09476656,-0.1227716,-0.34658965,-0.0352031,-0.052113414,-0.3922763,-0.099928826,0.007468383,0.043172065,0.0734903,0.06480356,0.021838846,-0.061938312,-0.050602134,-0.055792507,0.004636421,-0.04635514,0.006622037,-0.07490089,-2.0,2.0,-2.0,-2.0,2.0,-2.0,-2.0,-2.0,-2.0,-2.0,-2.0,-2.0,-2.0,2.0,-2.0,-2.0,2.0,-2.0,-2.0,-2.0,-2.0,-2.0,-2.0,-2.0
2025-06-06 17:04:27.118,-0.03156391,0.0036813214,0.029543128,-0.028944585,-0.068860084,-0.03388755,0.0,0.0,0.0,0.004198471,-0.124384254,0.36992118,-0.11320073,-0.050440904,0.3281772,-0.093838505,-0.120247535,-0.35122675,-0.034966525,-0.039333135,-0.377428,-0.08765904,0.038728848,0.05398337,-0.05061974,-0.054144062,-0.045813102,-0.045024496,-0.023920715,-0.038886085,0.005521936,-0.029993676,0.05568799,-0.066086315,-2.0,2.0,-2.0,-2.0,2.0,-2.0,-2.0,-2.0,-2.0,-2.0,-2.0,-2.0,-2.0,2.0,-2.0,-2.0,2.0,-2.0,-2.0,-2.0,-2.0,-2.0,-2.0,-2.0
2025-06-06 17:04:27.140,-0.012733364,0.028910086,0.014171871,-0.050787076,-0.035436098,0.026892178,0.0,0.0,0.0,0.004198481,-0.12331987,0.371704,-0.10771318,-0.067196704,0.32639015,-0.08990787,-0.1147046,-0.34376407,-0.043620616,-0.04299211,-0.38780093,-0.099257834,0.0426454,-0.013892085,-0.014803744,-0.0132955955,-0.030086275,0.019405307,0.06315443,0.007930334,0.059363965,0.07296888,0.066059366,-0.069682926,-2.0,2.0,-2.0,-2.0,2.0,-2.0,-2.0,-2.0,-2.0,-2.0,-2.0,-2.0,-2.0,2.0,-2.0,-2.0,2.0,-2.0,-2.0,-2.0,-2.0,-2.0,-2.0,-2.0
2025-06-06 17:04:27.161,0.039697435,0.041490033,0.008253262,-0.058627117,-0.048917204,-0.01840655,0.0,0.0,0.0,0.0041984925,-0.11925619,0.387201,-0.10732581,-0.059048407,0.31997237,-0.085238375,-0.122661084,-0.35208973,-0.035467926,-0.049355507,-0.38746762,-0.102395646,-0.06239752,0.061257347,0.04862935,-0.023621412,-0.037859343,-0.00144568,0.031609476,0.07379305,-0.044619277,0.0023770265,0.03780565,0.032116745,-2.0,2.0,-2.0,-2.0,2.0,-2.0,-2.0,-2.0,-2.0,-2.0,-2.0,-2.0,-2.0,2.0,-2.0,-2.0,2.0,-2.0,-2.0,-2.0,-2.0,-2.0,-2.0,-2.0
2025-06-06 17:04:27.178,0.03482811,0.048737247,-0.027481433,-0.04405231,-0.07072436,-0.042978775,0.0,0.0,0.0,0.0041985065,-0.12213315,0.38285643,-0.10453161,-0.0666942,0.3325339,-0.07967071,-0.109387524,-0.34897378,-0.032379474,-0.051300097,-0.38289207,-0.0913839,0.05406981,0.010409941,0.0011939672,0.060999766,-0.042394526,0.038508743,-0.062584095,-0.048901904,0.045293245,-0.067109704,-0.0046377135,-0.002664075,-2.0,2.0,-2.0,-2.0,2.0,-2.0,-2.0,-2.0,-2.0,-2.0,-2.0,-2.0,-2.0,2.0,-2.0,-2.0,2.0,-2.0,-2.0,-2.0,-2.0,-2.0,-2.0,-2.0
2025-06-06 17:04:27.198,0.022087058,-0.01376119,0.030115725,-0.01026371,-0.06711772,-0.0024909799,0.0,0.0,0.0,0.0041985214,-0.12009424,0.38284072,-0.10587586,-0.05706525,0.3197406,-0.09344485,-0.11677477,-0.33812317,-0.048867967,-0.054079365,-0.38682485,-0.09055588,-0.053452954,0.062516354,-0.039114404,0.070979945,-0.043222155,-0.06852049,-0.008808967,-0.00072428386,-0.07474282,0.026216725,-0.043500297,-0.052042168,-2.0,2.0,-2.0,-2.0,2.0,-2.0,-2.0,-2.0,-2.0,-2.0,-2.0,-2.0,-2.0,2.0,-2.0,-2.0,2.0,-2.0,-2.0,-2.0,-2.0,-2.0,-2.0,-2.0
2025-06-06 17:04:27.219,0.04411765,0.032113604,0.035494067,-0.04801474,-0.08129932,0.03689463,0.0,0.0,0.0,0.0041985367,-0.1281272,0.38458976,-0.11581476,-0.06327564,0.33389768,-0.08212914,-0.10537742,-0.3529988,-0.040567633,-0.040742297,-0.38365048,-0.10497961,-0.05495465,-0.020773621,-0.0021111327,-0.045973603,0.052801386,-0.0689341,-0.031805325,-0.051157344,-0.019490892,0.01872105,-0.031076975,-0.012148162,-2.0,2.0,-2.0,-2.0,2.0,-2.0,-2.0,-2.0,-2.0,-2.0,-2.0,-2.0,-2.0,2.0,-2.0,-2.0,2.0,-2.0,-2.0,-2.0,-2.0,-2.0,-2.0,-2.0
2025-06-06 17:04:27.238,-0.0031761262,-0.019975409,-0.022755723,-0.009124797,-0.08592134,0.041112874,0.0,0.0,0.0,0.004198551,-0.11897283,0.37088886,-0.11681686,-0.059951514,0.32877994,-0.09657826,-0.11925986,-0.34280595,-0.04063152,-0.055052143,-0.38352507,-0.09672839,0.039476786,-0.0040765274,-0.07019139,-0.06276024,-0.059291586,0.045190617,0.067939445,-0.04158684,0.0074723056,0.009794266,0.06020219,0.02279626,-2.0,2.0,-2.0,-2.0,2.0,-2.0,-2.0,-2.0,-2.0,-2.0,-2.0,-2.0,-2.0,2.0,-2.0,-2.0,2.0,-2.0,-2.0,-2.0,-2.0,-2.0,-2.0,-2.0
2025-06-06 17:04:27.261,0.01468072,0.007893671,-0.0009832503,0.03204999,-0.06314764,0.024674509,0.0,0.0,0.0,0.0041985647,-0.12714182,0.37961745,-0.102990784,-0.05045516,0.32081258,-0.09536207,-0.1095817,-0.3521731,-0.038447328,-0.05137502,-0.3887396,-0.09904359,0.02803439,-0.017530018,0.047852423,0.06940936,0.018418295,-0.052309413,0.01061999,0.05154024,0.04542064,0.047025543,0.0005947908,-4.8088506e-05,-2.0,2.0,-2.0,-2.0,2.0,-2.0,-2.0,-2.0,-2.0,-2.0,-2.0,-2.0,-2.0,2.0,-2.0,-2.0,2.0,-2.0,-2.0,-2.0,-2.0,-2.0,-2.0,-2.0
2025-06-06 17:04:27.279,0.0317821,0.042588126,0.0003538376,0.0026592459,-0.10211562,-0.03203496,0.0,0.0,0.0,0.0041985773,-0.11518035,0.38620865,-0.10062839,-0.06164272,0.32372206,-0.09765993,-0.10967248,-0.34755024,-0.047176436,-0.03800979,-0.3916086,-0.10479498,-0.011228322,-0.0032884027,-0.04922442,-0.03951216,-0.06421687,-0.05748398,0.054895684,0.047134575,-0.040057514,-0.03472389,-0.03642685,0.00019211996,-2.0,2.0,-2.0,-2.0,2.0,-2.0,-2.0,-2.0,-2.0,-2.0,-2.0,-2.0,-2.0,2.0,-2.0,-2.0,2.0,-2.0,-2.0,-2.0,-2.0,-2.0,-2.0,-2.0
2025-06-06 17:04:27.298,-0.035332482,0.0303276,-0.027410807,0.02592915,-0.090570055,0.029393176,0.0,0.0,0.0,0.004198588,-0.13368195,0.37278205,-0.10136095,-0.056012508,0.32080278,-0.07907237,-0.10821327,-0.33677828,-0.039686963,-0.046047106,-0.37551045,-0.10430621,-0.041661028,0.04851686,0.06656197,0.0055030105,0.05727583,-0.014100926,0.011535317,-0.004594186,0.00958599,-0.03215948,-0.039540928,0.011394395,-2.0,2.0,-2.0,-2.0,2.0,-2.0,-2.0,-2.0,-2.0,-2.0,-2.0,-2.0,-2.0,2.0,-2.0,-2.0,2.0,-2.0,-2.0,-2.0,-2.0,-2.0,-2.0,-2.0
2025-06-06 17:04:27.319,-0.023798605,-0.02333607,-0.03780587,-0.04604618,-0.082998544,0.033737525,0.0,0.0,0.0,0.0041985963,-0.13039325,0.38169903,-0.116561055,-0.062151205,0.31865668,-0.08726725,-0.110412136,-0.3419133,-0.034590133,-0.041246403,-0.38501242,-0.10589854,-0.009156643,0.00019564852,0.008659035,0.0049258713,0.013091922,0.05658633,0.034045346,0.03930701,-0.017082663,-0.02421887,-0.0226596,0.006616853,-2.0,2.0,-2.0,-2.0,2.0,-2.0,-2.0,-2.0,-2.0,-2.0,-2.0,-2.0,-2.0,2.0,-2.0,-2.0,2.0,-2.0,-2.0,-2.0,-2.0,-2.0,-2.0,-2.0
2025-06-06 17:04:27.339,-0.049050596,-0.038458023,0.04220628,-0.027834123,-0.09806049,0.015788794,0.0,0.0,0.0,0.004198603,-0.11753571,0.369084,-0.10113463,-0.0574753,0.31641823,-0.08162339,-0.109272316,-0.34099403,-0.032630093,-0.053035572,-0.38135773,-0.09250443,-0.01332081,0.00769115,0.056561153,-0.012305453,0.040565245,-0.026699917,0.057748012,0.031669322,-0.057492327,-0.06624968,-0.026371071,-0.026291542,-2.0,2.0,-2.0,-2.0,2.0,-2.0,-2.0,-2.0,-2.0,-2.0,-2.0,-2.0,-2.0,2.0,-2.0,-2.0,2.0,-2.0,-2.0,-2.0,-2.0,-2.0,-2.0,-2.0
2025-06-06 17:04:27.361,-0.0008217531,0.014912826,0.042865243,-0.012059944,-0.10062886,-0.0059215203,0.0,0.0,0.0,0.0041986075,-0.12302827,0.38706023,-0.101966955,-0.065956555,0.3257646,-0.08021886,-0.12405035,-0.34640485,-0.047044445,-0.037811745,-0.38581103,-0.10655344,-0.023155166,-0.04978844,0.057074882,-0.005126722,-0.05141318,-0.043345857,-0.041744348,-0.025630392,-0.005381182,-0.006742792,-0.06194136,-0.0064420765,-2.0,2.0,-2.0,-2.0,2.0,-2.0,-2.0,-2.0,-2.0,-2.0,-2.0,-2.0,-2.0,2.0,-2.0,-2.0,2.0,-2.0,-2.0,-2.0,-2.0,-2.0,-2.0,-2.0
2025-06-06 17:04:27.379,0.038548354,0.02790876,-0.021335006,0.0018615602,-0.022471124,0.03948366,0.0,0.0,0.0,0.00419861,-0.11568962,0.37750793,-0.11255863,-0.056746986,0.3221755,-0.092375524,-0.11322058,-0.34408253,-0.045739383,-0.04417203,-0.3885675,-0.10280847,0.051115427,0.035449643,-0.050206713,0.016803434,-0.067257345,-0.018755035,0.039699845,0.029258208,0.05428747,-0.013821197,0.03384862,-0.027836902,-2.0,2.0,-2.0,-2.0,2.0,-2.0,-2.0,-2.0,-2.0,-2.0,-2.0,-2.0,-2.0,2.0,-2.0,-2.0,2.0,-2.0,-2.0,-2.0,-2.0,-2.0,-2.0,-2.0
2025-06-06 17:04:27.399,-0.03755924,-0.028287083,-0.009986428,-0.04367239,-0.042703763,-0.020896295,0.0,0.0,0.0,0.004198611,-0.12142056,0.37701604,-0.11792073,-0.05635528,0.32063082,-0.085879356,-0.113901235,-0.3492097,-0.032931868,-0.045667972,-0.37669122,-0.09659656,-0.027069045,0.042944826,-0.022296356,0.034836184,0.021574792,0.011315512,-0.016872562,-0.047955092,-0.0018625408,-0.040317908,0.07453326,0.068840295,-2.0,2.0,-2.0,-2.0,2.0,-2.0,-2.0,-2.0,-2.0,-2.0,-2.0,-2.0,-2.0,2.0,-2.0,-2.0,2.0,-2.0,-2.0,-2.0,-2.0,-2.0,-2.0,-2.0
2025-06-06 17:04:27.419,0.025583135,0.00766247,-0.030451318,0.023781952,-0.10680441,0.0399625,0.0,0.0,0.0,0.0041986103,-0.11636788,0.37357,-0.11202949,-0.054927815,0.3352398,-0.095600046,-0.10738148,-0.33681005,-0.047313515,-0.052928817,-0.38777164,-0.10378565,-0.0014112425,-0.06024517,-0.007943414,-0.025999038,-0.034757793,0.0037516684,0.014151926,0.0528967,0.027652161,0.018191956,0.07471815,0.06754094,-2.0,2.0,-2.0,-2.0,2.0,-2.0,-2.0,-2.0,-2.0,-2.0,-2.0,-2.0,-2.0,2.0,-2.0,-2.0,2.0,-2.0,-2.0,-2.0,-2.0,-2.0,-2.0,-2.0
2025-06-06 17:04:27.439,0.049218044,-0.03930162,0.007911319,-0.05483511,-0.06969641,0.02611953,0.0,0.0,0.0,0.004198608,-0.116382964,0.37610745,-0.11710276,-0.054980714,0.3211805,-0.07890554,-0.11135374,-0.34957847,-0.046144705,-0.04475298,-0.37792367,-0.09090673,0.07008413,-0.01418603,0.041018233,-0.024244666,-0.07238725,0.06719261,0.04191831,0.024744052,0.011671673,-0.063149065,-0.060303144,-0.014522225,-2.0,2.0,-2.0,-2.0,2.0,-2.0,-2.0,-2.0,-2.0,-2.0,-2.0,-2.0,-2.0,2.0,-2.0,-2.0,2.0,-2.0,-2.0,-2.0,-2.0,-2.0,-2.0,-2.0
2025-06-06 17:04:27.461,0.037868742,0.021170955,-0.039782062,-0.05141712,-0.025725087,0.013223123,0.0,0.0,0.0,0.0041986047,-0.11674036,0.3709728,-0.11299334,-0.061269417,0.3256868,-0.082182914,-0.11831392,-0.33554575,-0.035740025,-0.043241154,-0.37753725,-0.09605558,0.0058026584,-0.006323016,0.03439911,-0.0040924284,0.0019099764,0.059067372,0.0496637,0.016728166,0.059239533,0.054433294,-0.048579372,-0.074052036,-2.0,2.0,-2.0,-2.0,2.0,-2.0,-2.0,-2.0,-2.0,-2.0,-2.0,-2.0,-2.0,2.0,-2.0,-2.0,2.0,-2.0,-2.0,-2.0,-2.0,-2.0,-2.0,-2.0
2025-06-06 17:04:27.479,-0.015433059,0.0026400771,0.044396915,0.00017185831,-0.084831074,0.038433935,0.0,0.0,0.0,0.004198601,-0.12741701,0.38344783,-0.102023445,-0.0562747,0.33176953,-0.08645401,-0.1089228,-0.354553,-0.040825974,-0.04415148,-0.38909647,-0.09450799,0.03722933,0.06691759,-0.07219952,-0.03227939,0.0074774846,0.033701357,0.015185368,0.017161662,0.042379726,-0.024813132,-0.04645696,0.03807852,-2.0,2.0,-2.0,-2.0,2.0,-2.0,-2.0,-2.0,-2.0,-2.0,-2.0,-2.0,-2.0,2.0,-2.0,-2.0,2.0,-2.0,-2.0,-2.0,-2.0,-2.0,-2.0,-2.0
2025-06-06 17:04:27.499,0.031831067,-0.011251572,-0.007292429,-0.056814924,-0.07118206,0.029700216,0.0,0.0,0.0,0.0041985963,-0.11512548,0.37507102,-0.11931269,-0.05991324,0.33075592,-0.09315163,-0.11341863,-0.3496629,-0.04522603,-0.056877192,-0.3826381,-0.0884354,-0.053943466,-0.0046948367,0.044840287,0.041023526,0.06811245,-0.043054115,0.028706705,0.050813317,0.052053243,-0.030766543,0.05420087,0.046387266,-2.0,2.0,-2.0,-2.0,2.0,-2.0,-2.0,-2.0,-2.0,-2.0,-2.0,-2.0,-2.0,2.0,-2.0,-2.0,2.0,-2.0,-2.0,-2.0,-2.0,-2.0,-2.0,-2.0
2025-06-06 17:04:27.519,0.044081528,-0.017392343,0.037419207,0.027675174,-0.115476064,-0.04183663,0.0,0.0,0.0,0.0041985917,-0.1325795,0.3732591,-0.115500346,-0.0625917,0.32479656,-0.097775824,-0.10925895,-0.3444287,-0.050363243,-0.043281224,-0.37428585,-0.09010835,-0.021669324,-0.03807621,0.04989813,0.008235067,0.051185526,0.0457031,-0.069366835,-0.0123858685,0.028575446,-0.039749395,-0.005014863,0.05388915,-2.0,2.0,-2.0,-2.0,2.0,-2.0,-2.0,-2.0,-2.0,-2.0,-2.0,-2.0,-2.0,2.0,-2.0,-2.0,2.0,-2.0,-2.0,-2.0,-2.0,-2.0,-2.0,-2.0
2025-06-06 17:04:27.539,-0.040809743,0.0053217453,0.0039112293,-0.028760074,-0.041064322,0.015368006,0.0,0.0,0.0,0.004198587,-0.122476004,0.37779486,-0.1089376,-0.051263556,0.32391328,-0.08713697,-0.109995455,-0.33845016,-0.042155832,-0.04365972,-0.39237672,-0.09119393,0.016733408,0.06367358,-0.06724267,0.028230887,0.060584597,-0.009045939,0.011938622,0.026532136,0.012925102,0.057457067,-0.07479671,0.0067733885,-2.0,2.0,-2.0,-2.0,2.0,-2.0,-2.0,-2.0,-2.0,-2.0,-2.0,-2.0,-2.0,2.0,-2.0,-2.0,2.0,-2.0,-2.0,-2.0,-2.0,-2.0,-2.0,-2.0
2025-06-06 17:04:27.561,-0.03568481,0.010958771,-0.036067594,-0.0031993936,-0.09162918,0.03396489,0.0,0.0,0.0,0.0041985824,-0.119418,0.38267407,-0.10353957,-0.054625403,0.3184261,-0.095879085,-0.12417231,-0.3389572,-0.03360827,-0.055367537,-0.3747365,-0.09846464,0.061734132,-0.070366435,-0.019185534,0.06511864,0.03632846,0.040807795,-0.04977834,0.060051724,0.053202074,0.06342935,-0.041260548,0.0053219143,-2.0,2.0,-2.0,-2.0,2.0,-2.0,-2.0,-2.0,-2.0,-2.0,-2.0,-2.0,-2.0,2.0,-2.0,-2.0,2.0,-2.0,-2.0,-2.0,-2.0,-2.0,-2.0,-2.0
2025-06-06 17:04:27.579,-0.041367657,-0.03346157,0.011361603,-0.019437267,-0.034253534,0.010733238,0.0,0.0,0.0,0.004198578,-0.11988501,0.37124425,-0.113793604,-0.06571769,0.32657102,-0.098029844,-0.110142894,-0.35252005,-0.03434316,-0.042854924,-0.3913032,-0.094353095,0.05229578,-0.029766578,-0.03229937,0.052361984,0.040710922,0.062360436,-0.03639721,0.01699369,-0.046964444,-0.05663182,0.064840786,-0.031646777,-2.0,2.0,-2.0,-2.0,2.0,-2.0,-2.0,-2.0,-2.0,-2.0,-2.0,-2.0,-2.0,2.0,-2.0,-2.0,2.0,-2.0,-2.0,-2.0,-2.0,-2.0,-2.0,-2.0
2025-06-06 17:04:27.599,-0.025894528,-0.011426514,-0.0074558323,-0.010223976,-0.0784138,0.0010901887,0.0,0.0,0.0,0.0041985745,-0.1246945,0.38646618,-0.11561556,-0.06528247,0.3208623,-0.0940693,-0.1182003,-0.34144974,-0.048686422,-0.04693716,-0.37946874,-0.08750726,0.051107965,0.034466274,0.054644957,0.024940914,-0.00064829877,0.026761215,-0.031741913,0.0746611,0.06703611,-0.010150543,-0.060867894,-0.01121301,-2.0,2.0,-2.0,-2.0,2.0,-2.0,-2.0,-2.0,-2.0,-2.0,-2.0,-2.0,-2.0,2.0,-2.0,-2.0,2.0,-2.0,-2.0,-2.0,-2.0,-2.0,-2.0,-2.0
2025-06-06 17:04:27.620,-0.041848354,0.04520997,0.0013914304,-0.05343277,-0.059897292,0.01598615,0.0,0.0,0.0,0.004198571,-0.11665232,0.38438034,-0.10457594,-0.048881512,0.31593886,-0.07875781,-0.12002928,-0.35471466,-0.043845993,-0.04290075,-0.3754249,-0.09205042,-0.0580477,0.01036136,0.04383941,0.01140168,-0.06782656,0.014189606,-0.07265588,-0.030576745,0.035738852,-0.05774533,-0.021047039,0.06037612,-2.0,2.0,-2.0,-2.0,2.0,-2.0,-2.0,-2.0,-2.0,-2.0,-2.0,-2.0,-2.0,2.0,-2.0,-2.0,2.0,-2.0,-2.0,-2.0,-2.0,-2.0,-2.0,-2.0
2025-06-06 17:04:27.640,-0.025890995,-0.015555678,0.024525544,0.030167425,-0.10838468,-0.019967122,0.0,0.0,0.0,0.004198569,-0.12106957,0.38403445,-0.10526493,-0.05479979,0.3300586,-0.08354739,-0.10807135,-0.33540815,-0.042619202,-0.056028254,-0.3757059,-0.09372045,0.05800318,0.04435498,-0.028521534,0.009828092,0.044896238,-0.007980985,-0.06799303,-0.069673166,0.04990863,0.027525568,-0.0025494136,0.03333385,-2.0,2.0,-2.0,-2.0,2.0,-2.0,-2.0,-2.0,-2.0,-2.0,-2.0,-2.0,-2.0,2.0,-2.0,-2.0,2.0,-2.0,-2.0,-2.0,-2.0,-2.0,-2.0,-2.0
2025-06-06 17:04:27.661,-0.031141795,0.00842845,-0.04981708,-0.039631087,-0.077301554,0.008327527,0.0,0.0,0.0,0.0041985665,-0.117039554,0.37651014,-0.119442225,-0.05716154,0.32884556,-0.084548675,-0.11740761,-0.3503699,-0.04834242,-0.042893667,-0.38414386,-0.09376852,-0.027361033,0.038773157,-0.030044831,-0.054738384,0.038763855,0.026143078,-0.06968939,0.07245447,-0.01430672,-0.010936145,0.004183982,0.06231291,-2.0,2.0,-2.0,-2.0,2.0,-2.0,-2.0,-2.0,-2.0,-2.0,-2.0,-2.0,-2.0,2.0,-2.0,-2.0,2.0,-2.0,-2.0,-2.0,-2.0,-2.0,-2.0,-2.0
2025-06-06 17:04:27.681,0.004449595,0.014561668,0.04221546,0.013442829,-0.047015477,-0.0006505697,0.0,0.0,0.0,0.0041985656,-0.12098137,0.38080412,-0.10869022,-0.061522428,0.31809607,-0.080558054,-0.109574795,-0.3421572,-0.034579214,-0.03952926,-0.37778777,-0.10187283,0.001922613,-0.04313346,-0.003418869,-0.0666005,0.053656895,-0.006874738,0.038768373,0.060983777,-0.045039702,0.0539479,0.07104579,-0.040959775,-2.0,2.0,-2.0,-2.0,2.0,-2.0,-2.0,-2.0,-2.0,-2.0,-2.0,-2.0,-2.0,2.0,-2.0,-2.0,2.0,-2.0,-2.0,-2.0,-2.0,-2.0,-2.0,-2.0
2025-06-06 17:04:27.701,0.024658754,0.015907815,-0.043327205,0.018037274,-0.08559204,-0.01166369,0.0,0.0,0.0,0.0041985647,-0.1314507,0.37801957,-0.117275715,-0.05885689,0.3327333,-0.08714297,-0.11030356,-0.33547282,-0.042734362,-0.04802203,-0.39084116,-0.09143017,-0.018400805,-0.00517036,-0.056441065,0.029762391,0.038430676,-0.0068596127,0.053552013,0.043634165,-0.010208685,-0.018374784,0.056618076,-0.0638179,-2.0,2.0,-2.0,-2.0,2.0,-2.0,-2.0,-2.0,-2.0,-2.0,-2.0,-2.0,-2.0,2.0,-2.0,-2.0,2.0,-2.0,-2.0,-2.0,-2.0,-2.0,-2.0,-2.0
