openverse-orca/OrcaGym/log/simulation_log_20250721_160050.csv
timestamp,sim_time,physics_step,control_step,imu_angle_roll,imu_angle_pitch,imu_angle_yaw,imu_angular_velocity_roll,imu_angular_velocity_pitch,imu_angular_velocity_yaw,imu_acc_x,imu_acc_y,imu_acc_z,fl_joint1_pos,fl_joint1_vel,fl_joint1_torque,fl_joint2_pos,fl_joint2_vel,fl_joint2_torque,fl_joint3_pos,fl_joint3_vel,fl_joint3_torque,fr_joint1_pos,fr_joint1_vel,fr_joint1_torque,fr_joint2_pos,fr_joint2_vel,fr_joint2_torque,fr_joint3_pos,fr_joint3_vel,fr_joint3_torque,hl_joint1_pos,hl_joint1_vel,hl_joint1_torque,hl_joint2_pos,hl_joint2_vel,hl_joint2_torque,hl_joint3_pos,hl_joint3_vel,hl_joint3_torque,hr_joint1_pos,hr_joint1_vel,hr_joint1_torque,hr_joint2_pos,hr_joint2_vel,hr_joint2_torque,hr_joint3_pos,hr_joint3_vel,hr_joint3_torque,fl_force_x,fl_force_y,fl_force_z,fr_force_x,fr_force_y,fr_force_z,hl_force_x,hl_force_y,hl_force_z,hr_force_x,hr_force_y,hr_force_z,fl_hip_action,fl_thigh_action,fl_calf_action,fr_hip_action,fr_thigh_action,fr_calf_action,hl_hip_action,hl_thigh_action,hl_calf_action,hr_hip_action,hr_thigh_action,hr_calf_action
2025-07-21 16:00:50.914,0.0,0,0,-0.05513889,0.17998722,-0.035836857,-0.008051694,-0.03291474,-0.008659851,0.0060697906,0.02783305,0.022159075,3.565703,-0.20926759,0.0,0.0,0.85329676,0.0,0.0,-0.0057368134,0.0004902765,0.0011187143,-0.004218641,-0.0027735012,0.003054843,-0.002416235,0.0054214685,-0.0045500933,-0.0038793741,0.0017095536,-0.00090028596,0.05981599,-0.063112706,0.015066766,-0.0038322683,0.021609413,0.055562586,0.03718353,-0.02081172,-0.047091525,-0.0048962585,0.04744445,-0.00041019658,0.0,0.0,0.0,0.0,0.0,0.0,0.0,0.0,0.0,0.0,0.0,0.0,0.65931296,1.0,-1.0,1.0,-0.77521336,1.0,-1.0,-1.0,-1.0,-1.0,-0.5744933,-0.11332062
2025-07-21 16:00:50.927,0.02,20,1,-0.07527794,-0.022360668,0.0755731,0.10947163,0.14258201,-0.20813105,0.002586873,0.00069280877,0.0022318442,0.0,0.0,0.0,0.0,0.5,0.0,0.0,0.018390229,0.031237679,-0.031442095,0.025382992,-0.01767467,0.022250785,-0.029965207,-0.03594819,-0.03030561,-0.01624262,-0.04601975,-0.00766083,0.08437859,0.19416322,-0.100354984,0.04793098,-0.025131088,0.038603567,0.0020621442,-0.0991855,-0.03134349,-0.09257573,-0.113327526,0.039697595,0.65931296,1.0,-1.0,1.0,-0.77521336,1.0,-1.0,-1.0,-1.0,-1.0,-0.5744933,-0.11332062,1.0,-1.0,-1.0,1.0,1.0,1.0,-1.0,-1.0,1.0,-1.0,1.0,-1.0
2025-07-21 16:00:50.948,0.04,40,2,-0.1383861,0.10132835,0.16225642,0.018372364,-0.030646572,0.06342143,0.025627794,-0.0104021225,0.04456543,0.0,0.0,0.0,0.002036107,0.5,0.0,0.0,0.037171617,0.030186087,-0.06072001,0.025411662,-0.025804635,0.033802193,-0.04441921,-0.09290933,-0.011703636,-0.03925984,-0.016507216,-0.027276607,-0.0111702625,-0.19801925,-0.048965305,-0.034103505,-0.03151474,0.03135137,0.00090995716,-0.08706374,0.07458048,-0.119013205,0.1751089,-0.025563369,1.0,-1.0,-1.0,1.0,1.0,1.0,-1.0,-1.0,1.0,-1.0,1.0,-1.0,1.0,1.0,-1.0,1.0,1.0,1.0,-1.0,-0.32604977,1.0,-0.27364397,-0.3445342,-1.0
2025-07-21 16:00:51.006,0.06,60,3,0.05021496,-0.21545851,0.19046266,-0.09871846,0.065276645,-0.076646484,0.024101648,-0.06439213,-0.015648214,0.0,0.0,0.0,0.0029185845,0.5,0.0,0.0,0.06302712,0.0476889,-0.071204044,0.05729119,-0.0015223502,0.048828844,-0.056612145,-0.11704549,0.009431089,-0.041617822,-0.007962059,-0.04603907,0.07448739,0.1618181,-0.044367027,0.024700293,0.08204134,-0.042226274,-0.02478011,0.029348565,0.10572709,-0.0047215545,-0.016063808,-0.0062593394,1.0,1.0,-1.0,1.0,1.0,1.0,-1.0,-0.32604977,1.0,-0.27364397,-0.3445342,-1.0,1.0,-0.8569534,-1.0,1.0,-1.0,1.0,-1.0,-1.0,1.0,0.8681552,0.75435406,0.8706229
2025-07-21 16:00:51.025,0.08,80,4,-0.1602599,-0.20612627,0.048418988,0.13358308,-0.11686546,-0.02576729,0.04678213,-0.033447064,-0.0015275563,0.0,0.0,0.0,0.0033220828,0.5,0.0,0.0,0.0806107,0.024587419,-0.087468736,0.062155828,0.013263546,0.06843293,-0.052982472,-0.15030825,0.0358129,-0.021840239,0.0067605134,-0.026403598,-0.026260417,-0.20373708,-0.023875363,0.05337324,-0.013105579,0.097194225,-0.08188826,-0.13529345,0.037564993,0.06611249,0.13219042,0.04875618,1.0,-0.8569534,-1.0,1.0,-1.0,1.0,-1.0,-1.0,1.0,0.8681552,0.75435406,0.8706229,1.0,1.0,-1.0,0.20136982,0.40987703,1.0,-1.0,-0.5095384,1.0,1.0,-1.0,1.0
2025-07-21 16:00:51.046,0.1,100,5,0.102701165,-0.08203414,0.084219806,0.033971652,-0.035375416,-0.108270995,-0.0172362,-0.026363796,-0.028430443,0.0,0.0,0.0,0.003464521,0.5,0.0,0.0,0.086015284,0.040331915,-0.10646157,0.056398757,0.02510054,0.07103825,-0.07155104,-0.15544982,0.060439125,0.011193223,0.011832337,0.007373548,-0.041937552,0.08747809,0.007977542,-0.08407107,0.07845892,-0.019663647,-0.0055870577,-0.07074314,0.014405512,0.011042553,-0.106764875,0.118185334,1.0,1.0,-1.0,0.20136982,0.40987703,1.0,-1.0,-0.5095384,1.0,1.0,-1.0,1.0,0.32958278,-0.22736719,-0.13818735,0.78215164,-1.0,1.0,-1.0,-1.0,1.0,1.0,0.2875804,-1.0
2025-07-21 16:00:51.070,0.12000000000000001,120,6,-0.26353815,0.14510117,0.0504484,0.19415598,-0.0653465,-0.07969344,-0.0008717756,0.0109977685,0.0016663423,0.0,0.0,0.0,0.004301137,0.5,0.0,0.0,0.08950598,0.026417792,-0.08080069,0.05572959,0.020454843,0.08029224,-0.080293566,-0.19336565,0.08143849,0.03959473,0.01390931,-0.024272054,-0.0640252,0.006692294,0.029610582,0.08121743,-0.12206894,0.08400544,-0.005916584,-0.07679203,0.026917659,0.14085495,0.023645116,-0.13343433,0.32958278,-0.22736719,-0.13818735,0.78215164,-1.0,1.0,-1.0,-1.0,1.0,1.0,0.2875804,-1.0,1.0,1.0,-1.0,1.0,1.0,1.0,-1.0,-1.0,1.0,0.54887545,0.66970533,-1.0
2025-07-21 16:00:51.089,0.14,140,7,-0.09381345,0.14967553,-0.05238597,0.11798103,0.024151381,0.025200782,-0.004237028,-0.031055264,0.012130581,0.0,0.0,0.0,0.0051653273,0.5,0.0,0.0,0.10406451,0.0579717,-0.106675126,0.07692325,0.029063547,0.075195685,-0.08895469,-0.22165252,0.08492906,0.06445024,0.051669452,-0.03566101,0.03301619,0.17548855,0.036819138,-0.0067232,0.1049933,0.06394933,0.028165346,-0.06828543,0.023078933,0.061958358,0.18727289,-0.058049213,1.0,1.0,-1.0,1.0,1.0,1.0,-1.0,-1.0,1.0,0.54887545,0.66970533,-1.0,1.0,-1.0,-0.55248904,1.0,0.22665861,1.0,-1.0,-0.53732085,1.0,0.27465594,-1.0,-1.0
2025-07-21 16:00:51.106,0.16,160,8,0.18549861,0.20944679,0.14111741,0.10587992,0.023993673,-0.0025250728,-0.0155736655,-0.015515005,-0.019025845,0.0,0.0,0.0,0.005683844,0.5,0.0,0.0,0.12229274,0.06394855,-0.08893346,0.07746442,0.03535276,0.088637464,-0.10677938,-0.22795126,0.09508467,0.048819456,0.033784114,-0.058116235,0.073168315,-0.13190025,0.063569725,0.004362076,0.03735745,-0.028275404,0.014522066,-0.02211848,-0.030610846,-0.073654585,-0.08358242,-0.0007993107,1.0,-1.0,-0.55248904,1.0,0.22665861,1.0,-1.0,-0.53732085,1.0,0.27465594,-1.0,-1.0,-0.9593927,-1.0,-0.5199261,1.0,-0.08412161,1.0,-1.0,-0.79407454,1.0,-1.0,1.0,-1.0
2025-07-21 16:00:51.126,0.18,180,9,-0.20259175,0.034821767,0.28520223,0.15836294,0.07873829,0.016034285,-0.013155635,-0.09598795,0.026705852,0.0,0.0,0.0,0.005884303,0.5,0.0,0.0,0.08106435,-0.02302623,-0.09707824,0.087367065,0.032026373,0.088797435,-0.10289564,-0.23828198,0.101516105,0.014786649,0.03562962,-0.077424504,-0.07999263,-0.1442647,0.017372347,-0.013565246,0.03812188,-0.03295015,0.035548314,-0.074884936,-0.034055613,-0.032045204,0.08442518,0.02091297,-0.9593927,-1.0,-0.5199261,1.0,-0.08412161,1.0,-1.0,-0.79407454,1.0,-1.0,1.0,-1.0,1.0,1.0,-1.0,1.0,1.0,1.0,-1.0,0.4124612,1.0,-0.31401527,-1.0,-0.6689805
2025-07-21 16:00:51.146,0.19999999999999998,200,10,0.38702884,0.17209145,0.1712961,0.030534307,0.2714797,-0.086791374,-0.052053783,-0.045473505,0.042886924,0.0,0.0,0.0,0.005797769,0.5,0.0,0.0,0.08710289,-0.030757565,-0.096695445,0.10228278,0.05248794,0.1080222,-0.11447485,-0.22944717,0.10567003,0.0092331385,0.013611071,-0.07894594,0.07627709,0.10189065,-0.03154459,-0.025544433,0.09829078,-0.055480942,0.052206233,0.16658607,-0.0009937931,-0.03405904,-0.21663728,-0.023385638,1.0,1.0,-1.0,1.0,1.0,1.0,-1.0,0.4124612,1.0,-0.31401527,-1.0,-0.6689805,0.9579408,-1.0,-1.0,1.0,-1.0,1.0,-1.0,-1.0,1.0,-1.0,1.0,-1.0
2025-07-21 16:00:51.270,0.21999999999999997,220,11,-0.061406862,0.19379877,0.113334365,0.22606221,0.012330227,0.03421001,-0.06036857,-0.036389038,0.014002467,0.0,0.0,0.0,0.0073388005,0.5,0.0,0.0,0.08783935,-0.04613663,-0.10307952,0.096282996,0.061156876,0.098668434,-0.10569585,-0.2220104,0.10221697,-0.016691614,0.014779008,-0.08755023,-0.007037445,-0.17415386,-0.031469412,-0.009524421,-0.039142765,-0.0019191331,-0.057129126,-0.022394333,-0.020534415,0.002193338,0.1154634,0.041621737,0.9579408,-1.0,-1.0,1.0,-1.0,1.0,-1.0,-1.0,1.0,-1.0,1.0,-1.0,1.0,0.50370944,1.0,1.0,1.0,1.0,-1.0,-0.94611955,1.0,1.0,-0.7391374,-1.0
2025-07-21 16:00:51.287,0.23999999999999996,240,12,0.36285308,0.18276367,0.10693125,0.2976912,0.013916879,0.015729368,0.0050194487,-0.13770624,-0.03891049,0.0,0.0,0.0,0.008831281,0.5,0.0,0.0,0.10020133,-0.06252725,-0.079414256,0.11512432,0.076681316,0.104689896,-0.10513241,-0.23491916,0.113587424,-0.0015340241,-0.006739603,-0.11144732,0.0068003284,0.1645006,0.085280284,0.058338635,0.13199893,0.009918307,0.06316674,-0.041777674,0.05192186,0.09570928,-0.069779284,-0.07170931,1.0,0.50370944,1.0,1.0,1.0,1.0,-1.0,-0.94611955,1.0,1.0,-0.7391374,-1.0,-1.0,-1.0,0.09871149,1.0,-1.0,1.0,-1.0,1.0,1.0,-1.0,1.0,0.02918765
2025-07-21 16:00:51.307,0.25999999999999995,260,13,0.03737409,0.14641882,0.29357302,-0.13208309,-0.13495854,0.015756428,-0.03652825,-0.12674622,0.02772645,0.0,0.0,0.0,0.00960492,0.5,0.0,0.0,0.07860207,-0.040054627,-0.054161243,0.102342375,0.09529181,0.121924885,-0.13275748,-0.22005606,0.116090745,-0.012236629,0.0033296647,-0.09563534,-0.1250118,-0.05796515,-0.018310849,-0.0303577,0.0014979903,0.03318346,-0.07799556,0.029410658,-0.03843474,-0.11552283,0.13036346,-0.012808085,-1.0,-1.0,0.09871149,1.0,-1.0,1.0,-1.0,1.0,1.0,-1.0,1.0,0.02918765,-0.54426706,1.0,-1.0,1.0,1.0,1.0,-1.0,0.14189509,1.0,-1.0,-1.0,-1.0
2025-07-21 16:00:51.327,0.27999999999999997,280,14,0.16063145,0.2825767,-0.08779655,-0.14552528,-0.042087995,-0.1322908,-0.091864556,-0.13578738,0.03323705,0.0,0.0,0.0,0.009819644,0.5,0.0,0.0,0.050013147,-0.0094397385,-0.0852445,0.117864385,0.12431053,0.11590972,-0.13757789,-0.179544,0.12462954,-0.037870765,0.005309189,-0.09248582,-0.060444057,0.19630599,-0.03631517,0.0060135536,0.12410073,0.0017910358,0.040179145,0.061204854,0.045012627,-0.003164545,-0.18059789,-0.09086175,-0.54426706,1.0,-1.0,1.0,1.0,1.0,-1.0,0.14189509,1.0,-1.0,-1.0,-1.0,0.83122516,-1.0,-1.0,1.0,-1.0,1.0,-1.0,-1.0,1.0,-1.0,1.0,-1.0
2025-07-21 16:00:51.352,0.3,300,15,0.12565017,0.13817573,-0.102774896,0.10982326,-0.03770412,0.010125015,0.0021783973,-0.0427201,0.02676591,0.0,0.0,0.0,0.010369849,0.5,0.0,0.0,0.06329848,-0.01426432,-0.08802454,0.114244044,0.15747973,0.114865474,-0.13737369,-0.17940573,0.12230297,-0.06478656,0.0035750195,-0.1013599,-0.023724135,-0.15985698,0.0134895425,0.059449214,-0.04944271,0.070718005,-0.028544378,0.0002890059,-0.025265524,0.019901507,0.12713364,-0.056765497,0.83122516,-1.0,-1.0,1.0,-1.0,1.0,-1.0,-1.0,1.0,-1.0,1.0,-1.0,0.61263704,0.20220521,0.62948215,1.0,-1.0,1.0,-1.0,-1.0,1.0,1.0,-0.18907125,-1.0
2025-07-21 16:00:51.369,0.32,320,16,0.2950788,0.38666442,0.068203546,0.2611295,-0.020142063,-0.032456312,-0.062685326,-0.09873247,0.042478446,0.0,0.0,0.0,0.010855472,0.5,0.0,0.0,0.08469525,-0.023621269,-0.07267657,0.13019466,0.13892369,0.12451498,-0.1388874,-0.1960479,0.12658656,-0.0309735,-0.00030823078,-0.113886274,0.08426684,0.07122179,0.012164537,0.019276222,-0.08466618,-0.04136174,0.024230748,-0.09881976,-0.021845715,0.1644841,-0.068314,0.027000854,0.61263704,0.20220521,0.62948215,1.0,-1.0,1.0,-1.0,-1.0,1.0,1.0,-0.18907125,-1.0,-1.0,-1.0,1.0,1.0,1.0,1.0,-1.0,1.0,1.0,-1.0,0.75554234,1.0
2025-07-21 16:00:51.388,0.34,340,17,0.104054995,0.08213373,0.26814222,-0.27958727,-0.14240405,0.058477357,-0.06308318,-0.103388034,0.04891803,0.0,0.0,0.0,0.01167195,0.5,0.0,0.0,0.05346791,-0.040293723,-0.033755988,0.12755217,0.16761926,0.13806853,-0.14723384,-0.18635543,0.13308942,-0.038367543,0.034804575,-0.06992035,-0.052358586,-0.00388421,0.15415788,0.0334683,0.17042597,-8.503301e-05,0.012728665,0.1476371,0.029901138,-0.052398328,0.11875729,0.08761076,-1.0,-1.0,1.0,1.0,1.0,1.0,-1.0,1.0,1.0,-1.0,0.75554234,1.0,-1.0,1.0,1.0,0.54441553,-1.0,-1.0,-1.0,-0.9913157,1.0,1.0,-1.0,1.0
2025-07-21 16:00:51.408,0.36000000000000004,360,18,-0.108765304,-0.030944481,0.28212744,0.04919041,-0.30546954,-0.017511463,-0.046437252,-0.05961536,0.0158294,0.0,0.0,0.0,0.011931639,0.5,0.0,0.0,0.02284039,-0.039603304,0.00085668423,0.12335518,0.17120378,0.089778244,-0.16386153,-0.19680436,0.12981865,-0.017830437,0.026056832,-0.029849527,-0.10428337,0.010795949,0.08110767,-0.024699097,-0.050733365,-0.06028367,0.013710142,-0.04334312,0.006506065,0.05049145,-0.16588406,0.15189509,-1.0,1.0,1.0,0.54441553,-1.0,-1.0,-1.0,-0.9913157,1.0,1.0,-1.0,1.0,-1.0,1.0,1.0,-1.0,0.1891438,-1.0,0.715458,1.0,1.0,1.0,-1.0,1.0
2025-07-21 16:00:51.428,0.38000000000000006,380,19,0.22319236,-0.07152557,0.08260899,-0.2612502,-0.27892143,-0.13696985,-0.055893205,-0.041849516,0.03238836,0.0,0.0,0.0,0.011822849,0.5,0.0,0.0,-0.0044766874,-0.0019694453,0.017253285,0.066840634,0.17194262,0.056851815,-0.12483412,-0.1693554,0.14745645,0.00694232,-0.055587426,0.011350854,-0.10037065,0.21183789,0.08218947,-0.08432514,-0.05156857,-0.038120635,0.176454,0.19406284,0.01804192,0.003443556,-0.14233889,0.038187265,-1.0,1.0,1.0,-1.0,0.1891438,-1.0,0.715458,1.0,1.0,1.0,-1.0,1.0,-1.0,-1.0,1.0,0.8779163,-1.0,-0.4419332,-1.0,-1.0,-1.0,1.0,0.5726866,1.0
2025-07-21 16:00:51.453,0.4000000000000001,400,20,0.068845645,0.023980368,0.25421634,-0.06996776,-0.1188557,-0.10856282,-0.08370882,-0.046670217,-0.040748436,0.0,0.0,0.0,0.012984122,0.5,0.0,0.0,-0.023403902,0.015652984,0.0355508,0.05085027,0.14863881,0.038021594,-0.12233737,-0.14481117,0.09548013,0.05292946,-0.0677711,0.029485462,-0.051363215,-0.039143924,-0.015585479,-0.06161985,-0.07244315,-0.00051142444,0.045784753,-0.10804113,-0.11639128,0.11177731,0.15226349,0.12367265,-1.0,-1.0,1.0,0.8779163,-1.0,-0.4419332,-1.0,-1.0,-1.0,1.0,0.5726866,1.0,-1.0,-1.0,1.0,-0.6510729,1.0,-1.0,1.0,1.0,-1.0,1.0,-1.0,1.0
2025-07-21 16:00:51.469,0.4200000000000001,420,21,-0.30311775,-0.055948056,-0.21651345,-0.18257646,-0.18240036,-0.04362853,-0.12247605,-0.0037363048,0.016242886,0.0,0.0,0.0,0.015060453,0.5,0.0,0.0,-0.042169828,0.011346614,0.051541194,0.025801387,0.18565091,-0.011251574,-0.09926812,-0.13792174,0.03993652,0.061740477,-0.09714658,0.050799277,-0.031179588,-0.016597254,0.07459849,-0.094462074,0.15823746,-0.053212665,0.052156713,0.12933826,-0.14135002,0.06155812,-0.13147622,0.10056012,-1.0,-1.0,1.0,-0.6510729,1.0,-1.0,1.0,1.0,-1.0,1.0,-1.0,1.0,-1.0,1.0,1.0,-1.0,-1.0,-1.0,1.0,1.0,-1.0,1.0,-0.493538,1.0
2025-07-21 16:00:51.488,0.4400000000000001,440,22,-0.1820055,-0.007970804,-0.3918454,-0.38235173,-0.1966774,-0.1661924,-0.1128358,0.015580791,-0.0005705575,0.0,0.0,0.0,0.016117433,0.5,0.0,0.0,-0.065235995,0.027545564,0.06055923,0.0035268199,0.17143549,-0.03397927,-0.049225796,-0.052132886,0.016918551,0.0754468,-0.11660689,0.0731207,0.017991241,0.07211054,-0.018274259,-0.10929682,-0.098370194,-0.08380953,0.11892453,0.2731792,-0.14741807,0.059755303,0.010372544,0.10170677,-1.0,1.0,1.0,-1.0,-1.0,-1.0,1.0,1.0,-1.0,1.0,-0.493538,1.0,-1.0,-1.0,1.0,-1.0,-0.7303459,-1.0,1.0,-0.33511135,-1.0,1.0,-0.48683438,1.0
2025-07-21 16:00:51.508,0.46000000000000013,460,23,-0.28144506,-0.23377445,-0.2571382,-0.009028616,-0.14755498,-0.022801738,-0.04066528,0.0048264526,0.047486473,0.0,0.0,0.0,0.017857388,0.5,0.0,0.0,-0.08739403,0.05896578,0.087538786,-0.023557909,0.13678212,-0.058696855,-0.012221018,-0.039566778,-0.020007415,0.09240184,-0.1248611,0.076816775,-0.025485067,0.014499844,0.09296669,-0.12823339,-0.107697934,-0.0899056,0.09360062,-0.10613042,-0.027329553,-0.024447773,0.028802764,0.07950918,-1.0,-1.0,1.0,-1.0,-0.7303459,-1.0,1.0,-0.33511135,-1.0,1.0,-0.48683438,1.0,-1.0,1.0,1.0,-0.84544283,0.3220685,-1.0,1.0,1.0,-1.0,1.0,-1.0,1.0
2025-07-21 16:00:51.528,0.48000000000000015,480,24,-0.17091967,0.11700279,-0.21056968,0.01862138,0.04154423,-0.11638776,-0.09927979,0.073219344,0.049799167,0.0,0.0,0.0,0.020145549,0.5,0.0,0.0,-0.07745071,0.07088682,0.07867072,-0.043388795,0.11516525,-0.071522444,0.020344527,0.009126949,-0.040475175,0.08818495,-0.154333,0.08451968,-0.0146169895,0.046221107,0.054288656,0.039093688,-0.017833825,-0.06908281,0.06177528,0.12653394,-0.04668259,0.058609605,0.029485507,0.08626442,-1.0,1.0,1.0,-0.84544283,0.3220685,-1.0,1.0,1.0,-1.0,1.0,-1.0,1.0,-1.0,-1.0,1.0,-1.0,-1.0,-1.0,1.0,-0.6538398,0.9892796,1.0,0.47520092,1.0
2025-07-21 16:00:51.553,0.5000000000000001,500,25,-0.35909075,-0.10965927,-0.0997768,0.0017555055,-0.13177864,0.033899575,-0.1089167,0.0899483,0.018688833,0.0,0.0,0.0,0.022400495,0.5,0.0,0.0,-0.09526328,0.08976889,0.08997432,-0.07133124,0.10458839,-0.095006116,0.045251943,-0.011619527,-0.015819225,0.09667508,-0.13978194,0.10024439,0.010145215,-0.0889723,-0.014273444,-0.07047469,-0.073518805,-0.011778873,0.0007506137,-0.11174297,0.0669774,0.008830783,0.08783883,0.051799733,-1.0,-1.0,1.0,-1.0,-1.0,-1.0,1.0,-0.6538398,0.9892796,1.0,0.47520092,1.0,-1.0,1.0,1.0,-1.0,0.4786632,-1.0,-1.0,1.0,-1.0,1.0,-1.0,1.0
2025-07-21 16:00:51.569,0.5200000000000001,520,26,-0.078116775,-0.052785866,-0.09843932,0.0701962,0.0125743225,-0.16393621,-0.052423213,0.083401315,-0.022789275,0.0,0.0,0.0,0.023361923,0.5,0.0,0.0,-0.1026716,0.1135703,0.10474164,-0.07481265,0.11144728,-0.09771606,0.021703064,0.008030964,-0.02309174,0.110235974,-0.124564484,0.10069281,-0.061060727,0.08359903,-0.033814922,-0.085423395,0.1085573,-0.011846467,-0.04365353,0.18766063,-0.063642815,0.045943025,-0.009798855,-0.007743417,-1.0,1.0,1.0,-1.0,0.4786632,-1.0,-1.0,1.0,-1.0,1.0,-1.0,1.0,-1.0,-1.0,1.0,-0.6535904,-1.0,0.5575679,1.0,0.18083069,-0.6403128,1.0,0.5910143,1.0
2025-07-21 16:00:51.588,0.5400000000000001,540,27,-0.40131056,-0.16953145,0.21146876,0.0065615405,-0.0072604325,0.013309792,-0.079275504,0.012778227,0.048078947,0.0,0.0,0.0,0.024570582,0.5,0.0,0.0,-0.10026048,0.120195635,0.10580432,-0.091412105,0.0878486,-0.064647816,0.041012842,0.040919557,-0.037211623,0.116031945,-0.11001289,0.10273255,0.0067408103,-0.005279901,0.03772187,0.053660758,-0.20647547,0.052593857,0.095288925,-0.031400457,-0.085835174,0.09538821,0.13676648,0.01007794,-1.0,-1.0,1.0,-0.6535904,-1.0,0.5575679,1.0,0.18083069,-0.6403128,1.0,0.5910143,1.0,-1.0,1.0,0.72454286,-0.39995486,1.0,-1.0,1.0,-0.42742047,0.28561044,1.0,-1.0,1.0
2025-07-21 16:00:51.608,0.5600000000000002,560,28,0.10318209,-0.101513356,0.12097556,0.021227038,0.035040174,-0.031710368,-0.13768376,0.054134935,0.025516769,0.0,0.0,0.0,0.02502398,0.5,0.0,0.0,-0.11301815,0.14998794,0.10046016,-0.07999704,0.08956559,-0.08707175,0.06285225,-0.006749048,-0.03662968,0.12131507,-0.10489533,0.11812638,0.03732894,0.08055885,-0.03938642,0.06797551,0.04718346,-0.0013761432,0.066700526,-0.09050214,0.0153964935,0.026411539,0.038015686,0.024543544,-1.0,1.0,0.72454286,-0.39995486,1.0,-1.0,1.0,-0.42742047,0.28561044,1.0,-1.0,1.0,-1.0,-1.0,1.0,-0.8796466,-0.93214744,-1.0,0.9312706,0.8965436,-1.0,1.0,-1.0,1.0
2025-07-21 16:00:51.628,0.5800000000000002,580,29,-0.15310909,-0.13346799,0.1104698,0.20584823,-0.11588075,-0.040600874,-0.07842283,0.026102073,-0.024740031,0.0,0.0,0.0,0.024805747,0.5,0.0,0.0,-0.10547283,0.15744723,0.09895459,-0.09306075,0.061419483,-0.106137715,0.06894659,0.024161324,-0.057984088,0.12764385,-0.13017558,0.11680802,-0.011964042,-0.043812457,-0.026295627,-0.021604815,-0.14883894,-0.03292856,-0.005474947,0.106206246,-0.12452418,0.07426371,-0.16982797,0.021108946,-1.0,-1.0,1.0,-0.8796466,-0.93214744,-1.0,0.9312706,0.8965436,-1.0,1.0,-1.0,1.0,-1.0,1.0,1.0,-0.74597067,0.51786184,1.0,1.0,0.98559535,-0.79686093,1.0,1.0,1.0
2025-07-21 16:00:51.653,0.6000000000000002,600,30,0.20716897,-0.022020495,-0.05456371,-0.19493839,0.040336404,-0.042786717,-0.09845115,0.039395265,0.023272252,0.0,0.0,0.0,0.026057247,0.5,0.0,0.0,-0.11524705,0.17547448,0.10039296,-0.10944111,0.027993726,-0.061211716,0.09349157,0.08990782,-0.05749476,0.12321534,-0.12727305,0.11855122,-0.03153859,0.1328147,-0.05213958,0.04523007,0.0335458,0.101496235,-0.019493481,0.10778396,0.04601088,-0.04774903,0.10830885,0.06301702,-1.0,1.0,1.0,-0.74597067,0.51786184,1.0,1.0,0.98559535,-0.79686093,1.0,1.0,1.0,-1.0,-1.0,0.37458593,1.0,-1.0,-0.85346025,1.0,-1.0,1.0,1.0,-0.6642094,1.0
2025-07-21 16:00:51.669,0.6200000000000002,620,31,-0.2190639,0.03364642,0.00651466,0.25618866,0.10213504,0.017026346,-0.110392496,-0.01785473,0.012686353,0.0,0.0,0.0,0.026712094,0.5,0.0,0.0,-0.10446777,0.18071459,0.10653027,-0.0773732,0.02937037,-0.07569821,0.11129456,0.07810976,-0.031087149,0.13157418,-0.12753645,0.13780797,0.060678974,0.028971752,-0.033674587,0.00018407476,-0.12369492,-0.068946615,-0.039098855,-0.16441116,0.06667964,0.06321857,-0.07324009,0.016771395,-1.0,-1.0,0.37458593,1.0,-1.0,-0.85346025,1.0,-1.0,1.0,1.0,-0.6642094,1.0,-1.0,-1.0,1.0,-0.2685687,-0.95266855,0.7573907,-1.0,1.0,1.0,1.0,1.0,1.0
2025-07-21 16:00:51.689,0.6400000000000002,640,32,-0.36423928,0.23103748,0.15032516,0.0056013204,0.0284878,-0.053618513,-0.13444012,0.00498949,0.025937429,0.0,0.0,0.0,0.027263233,0.5,0.0,0.0,-0.123610236,0.16256717,0.11162853,-0.0727854,-0.00042515114,-0.05165144,0.07226521,0.06774802,-0.0039033908,0.13901335,-0.112322666,0.12291292,-0.026805945,-0.12802652,-0.03951664,0.045793965,-0.17018515,0.10373602,-0.068938546,0.17254938,0.13654682,0.037478443,0.13744079,-0.0014608286,-1.0,-1.0,1.0,-0.2685687,-0.95266855,0.7573907,-1.0,1.0,1.0,1.0,1.0,1.0,-0.41288307,1.0,1.0,0.98989064,1.0,-1.0,-1.0,-1.0,1.0,1.0,1.0,1.0
2025-07-21 16:00:51.709,0.6600000000000003,660,33,0.094067,-0.13611035,0.15528287,-0.046223227,0.2897662,-0.026418503,-0.12459415,0.016245116,-0.008722753,0.0,0.0,0.0,0.027538909,0.5,0.0,0.0,-0.10302538,0.18832177,0.11786526,-0.04508187,-0.0011232627,-0.063209064,0.021750288,0.058031075,0.040447325,0.14918278,-0.03209977,0.12255098,0.09574069,0.12210386,0.080317646,0.06019385,0.053042486,-0.07499246,-0.113350555,-0.19995344,0.076849885,0.001711677,0.15168367,0.027455699,-0.41288307,1.0,1.0,0.98989064,1.0,-1.0,-1.0,-1.0,1.0,1.0,1.0,1.0,-1.0,-1.0,-1.0,-0.49795008,-0.7492324,1.0,-0.24161008,0.7807753,-0.66083217,1.0,-1.0,1.0
2025-07-21 16:00:51.729,0.6800000000000003,680,34,-0.4789842,0.07061521,0.11150055,-0.069050066,0.18265533,0.08077822,-0.10033802,-0.03464936,0.040615372,0.0,0.0,0.0,0.027390907,0.5,0.0,0.0,-0.12061961,0.2044051,0.081916824,-0.04049649,0.0011392072,-0.032122593,0.0010720069,0.078826964,0.011912657,0.15096928,-0.008563961,0.13577104,0.0570747,-0.034621842,-0.06002027,0.03095702,-0.07446471,0.12465022,0.030471908,0.075810224,-0.023801979,-0.050321996,-0.10704241,0.06328805,-1.0,-1.0,-1.0,-0.49795008,-0.7492324,1.0,-0.24161008,0.7807753,-0.66083217,1.0,-1.0,1.0,1.0,-0.9403767,-1.0,1.0,1.0,1.0,-1.0,-1.0,1.0,-1.0,1.0,1.0
2025-07-21 16:00:51.754,0.7000000000000003,700,35,-0.113403164,-0.064934805,-0.20002517,-0.08535546,0.41105866,0.1352248,-0.019439358,0.037272643,-0.0025624617,0.0,0.0,0.0,0.025087498,0.5,0.0,0.0,-0.09309279,0.20986645,0.043165468,-0.014002186,-0.01777818,-0.00813753,-0.010973071,0.06101672,0.03594924,0.11429518,0.017848022,0.1306299,0.06064381,-0.13762377,-0.09409945,0.022082867,0.12948243,0.032698173,-0.044907708,-0.06872015,0.12245536,-0.14767377,0.2038572,0.022186015,1.0,-0.9403767,-1.0,1.0,1.0,1.0,-1.0,-1.0,1.0,-1.0,1.0,1.0,1.0,1.0,-1.0,1.0,-0.304952,1.0,-1.0,-1.0,1.0,-0.2103747,-1.0,-1.0
2025-07-21 16:00:51.769,0.7200000000000003,720,36,-0.2850038,0.071709335,-0.47071382,0.105387986,0.583947,0.05473753,-0.07273276,-0.022577535,0.04269621,0.0,0.0,0.0,0.023091024,0.5,0.0,0.0,-0.04522609,0.22851373,-0.0030009737,0.009569652,-0.013044603,0.02048152,-0.047205944,-0.022625519,0.052336052,0.09378112,0.015913377,0.100188196,0.10716632,0.13970284,-0.14759043,0.14420758,0.029240113,0.06322295,-0.09464387,-0.17070246,-0.022262143,-0.12548722,-0.08870694,-0.18723409,1.0,1.0,-1.0,1.0,-0.304952,1.0,-1.0,-1.0,1.0,-0.2103747,-1.0,-1.0,1.0,-1.0,-1.0,1.0,1.0,1.0,-1.0,-1.0,1.0,-1.0,1.0,-1.0
2025-07-21 16:00:51.790,0.7400000000000003,740,37,-0.23284917,-0.0011687996,-0.44364917,-0.10863183,0.2543074,0.18552147,0.013674375,-0.032999847,0.043890223,0.0,0.0,0.0,0.021021212,0.5,0.0,0.0,0.0012515804,0.19184041,-0.025525643,0.029654587,0.005072256,0.039895166,-0.046979852,-0.07089546,0.0685259,0.035738166,0.020350767,0.049244784,0.049583852,-0.22388634,-0.08927869,0.08067935,0.032394346,0.021096319,-0.034730595,-0.038442317,0.010691363,-0.13785839,0.07780351,-0.04210706,1.0,-1.0,-1.0,1.0,1.0,1.0,-1.0,-1.0,1.0,-1.0,1.0,-1.0,1.0,1.0,-1.0,1.0,1.0,1.0,-1.0,-1.0,1.0,-0.6115836,-1.0,-1.0
2025-07-21 16:00:51.809,0.7600000000000003,760,38,-0.12382549,0.08978888,-0.2899032,-0.0036980251,0.089980595,0.1555462,0.02012092,-0.10241624,-0.0408809,0.0,0.0,0.0,0.017920917,0.5,0.0,0.0,0.029968755,0.18523245,-0.041351642,0.03837896,0.017997662,0.027856957,-0.049208675,-0.123381615,0.08820384,0.010615575,0.01417481,0.025340011,0.12860069,0.059143025,-0.11160771,0.057050362,0.047886394,0.08525218,-0.009853585,-0.07362317,0.02352329,-0.06681635,-0.12170467,-0.14198756,1.0,1.0,-1.0,1.0,1.0,1.0,-1.0,-1.0,1.0,-0.6115836,-1.0,-1.0,1.0,-1.0,-1.0,1.0,-1.0,1.0,-1.0,-0.52156925,1.0,-1.0,0.058448296,-1.0
2025-07-21 16:00:51.830,0.7800000000000004,780,39,-0.42341217,0.26931268,-0.15556741,0.016925776,-0.038019102,-0.026037093,0.04186723,-0.02535814,-0.030616466,0.0,0.0,0.0,0.014119119,0.5,0.0,0.0,0.039288048,0.16679826,-0.07165256,0.03465669,0.019419234,0.06153484,-0.03857817,-0.13595244,0.08613165,-0.013378244,0.0008102666,-0.0124216685,0.01750686,-0.20147903,-0.11362603,-0.043005954,-0.06996704,0.03127629,-0.045975924,-0.08989235,-0.013902372,-0.110956974,0.01531117,-0.024358844,1.0,-1.0,-1.0,1.0,-1.0,1.0,-1.0,-0.52156925,1.0,-1.0,0.058448296,-1.0,1.0,0.37282613,-1.0,1.0,1.0,1.0,-1.0,-1.0,1.0,0.24062409,1.0,-1.0
2025-07-21 16:00:51.852,0.8000000000000004,800,40,-0.30972236,0.32183933,0.1745195,0.11171194,-0.14934757,0.071898885,-0.018634448,-0.036780886,0.0007992995,0.0,0.0,0.0,0.0120958155,0.5,0.0,0.0,0.057718337,0.15433243,-0.084843144,0.04737234,0.038333762,0.060210064,-0.059544742,-0.16010071,0.0910852,-0.013001155,0.059627254,-0.036471587,0.083472334,0.034719992,-0.07349072,-0.031018471,0.056564976,0.081366144,-0.055579536,-0.041606117,0.070057556,0.07471399,0.24889521,-0.00239115,1.0,0.37282613,-1.0,1.0,1.0,1.0,-1.0,-1.0,1.0,0.24062409,1.0,-1.0,1.0,-1.0,-1.0,1.0,1.0,1.0,-1.0,-0.5065663,1.0,-1.0,-1.0,-1.0
2025-07-21 16:00:51.870,0.8200000000000004,820,41,0.025190413,0.3609206,0.04881935,0.0065175905,-0.09145172,0.05727261,0.03619373,-0.024196988,-0.040899895,0.0,0.0,0.0,0.011096123,0.5,0.0,0.0,0.08450951,0.10986479,-0.08566445,0.06689467,0.07311956,0.06283033,-0.057892468,-0.17152761,0.11024357,-0.040198818,0.053487223,-0.061058592,-0.023545487,-0.23080765,-0.09381957,0.06847844,0.085392945,-0.023798356,-0.00010231176,-0.053522386,-0.022428349,-0.13667335,-0.18547212,-0.025501454,1.0,-1.0,-1.0,1.0,1.0,1.0,-1.0,-0.5065663,1.0,-1.0,-1.0,-1.0,0.54013836,-0.9887966,1.0,1.0,-1.0,1.0,-1.0,0.18346396,1.0,-1.0,1.0,-1.0
2025-07-21 16:00:51.890,0.8400000000000004,840,42,0.033267252,0.35219795,0.0052392515,-0.107435696,-0.016350666,-0.09997245,-0.03102069,-0.024162414,0.04339473,0.0,0.0,0.0,0.010320156,0.5,0.0,0.0,0.0813173,0.021002755,-0.048877142,0.056143407,0.07565226,0.085103475,-0.07883888,-0.14823288,0.09683029,-0.04828812,0.061131682,-0.08400588,-0.043903835,-0.2232506,0.16111444,0.090991564,-0.06893168,0.105511874,-0.048047397,0.056555126,-0.07449469,-0.10660071,0.12639731,-0.037303504,0.54013836,-0.9887966,1.0,1.0,-1.0,1.0,-1.0,0.18346396,1.0,-1.0,1.0,-1.0,-1.0,0.051966306,1.0,1.0,1.0,1.0,-1.0,-1.0,1.0,-0.8543774,-1.0,1.0
2025-07-21 16:00:51.912,0.8600000000000004,860,43,0.076011024,0.278449,0.31471828,0.048192784,-0.16635709,-0.020967143,0.006985026,-0.07832944,0.03383155,0.0,0.0,0.0,0.01120859,0.5,0.0,0.0,0.05121172,-0.017192261,-0.02407018,0.0751558,0.09720122,0.093390234,-0.0895907,-0.14479321,0.112589374,-0.061113358,0.05536624,-0.03443685,-0.057918835,-0.07269296,0.12767684,0.01347221,0.106900826,0.01175631,-0.05895916,0.02995324,-0.022880696,-0.06675022,-0.15745683,0.053397533,-1.0,0.051966306,1.0,1.0,1.0,1.0,-1.0,-1.0,1.0,-0.8543774,-1.0,1.0,0.5673516,1.0,1.0,-1.0,-1.0,-1.0,-1.0,-1.0,1.0,1.0,-1.0,-1.0
2025-07-21 16:00:51.936,0.8800000000000004,880,44,-0.21069917,0.041476473,0.23983812,0.1806771,-0.20554243,-0.11324679,-0.041446168,-0.048328064,0.03580477,0.0,0.0,0.0,0.013073022,0.5,0.0,0.0,0.05853182,0.009015818,0.0061641354,0.050037287,0.10116891,0.040248405,-0.11213868,-0.18841901,0.12635301,-0.030252269,-0.029392032,-0.05726134,-0.01592034,0.071635835,0.081666775,-0.12234665,-0.08405659,-0.050053734,-0.095408715,-0.08924667,0.07918554,0.14915204,-0.1846543,-0.082304485,0.5673516,1.0,1.0,-1.0,-1.0,-1.0,-1.0,-1.0,1.0,1.0,-1.0,-1.0,-0.2434311,1.0,-1.0,0.76988333,-0.82159984,1.0,-1.0,-0.24415407,1.0,1.0,1.0,-0.81508756
2025-07-21 16:00:51.952,0.9000000000000005,900,45,-0.102788396,0.13226652,0.15183,0.04200836,0.13617565,-0.17141545,0.015873542,-0.10451012,0.0020527176,0.0,0.0,0.0,0.015308749,0.5,0.0,0.0,0.038775366,0.07111201,-0.030809175,0.050664455,0.08833934,0.06001267,-0.10686751,-0.16848879,0.12585573,-0.007081675,-0.038362768,-0.07615416,0.0047328654,0.19223045,-0.0710114,-0.020327982,-0.07883912,0.032758825,-0.022198055,-0.010469649,0.054336313,0.035645686,0.10146865,0.014824025,-0.2434311,1.0,-1.0,0.76988333,-0.82159984,1.0,-1.0,-0.24415407,1.0,1.0,1.0,-0.81508756,0.76710343,-1.0,-1.0,1.0,1.0,1.0,-1.0,-1.0,1.0,-1.0,1.0,-0.6957493
2025-07-21 16:00:51.973,0.9200000000000005,920,46,0.03357535,0.19999404,0.03674844,0.07803263,0.052811004,-0.048837304,-0.04064961,-0.079965815,0.02031973,0.0,0.0,0.0,0.018099302,0.5,0.0,0.0,0.05994253,0.06565025,-0.0526115,0.051333316,0.07938786,0.063557856,-0.11023853,-0.18316366,0.11786544,-0.008076867,0.041971337,-0.07065207,0.099196315,-0.13021612,-0.0014204666,0.07406417,0.07948755,0.04099607,0.032189433,-0.072426856,-0.034182057,-0.042494137,0.11946792,-0.08738223,0.76710343,-1.0,-1.0,1.0,1.0,1.0,-1.0,-1.0,1.0,-1.0,1.0,-0.6957493,1.0,-1.0,0.7835883,1.0,0.71439326,1.0,-1.0,-0.48855373,1.0,0.34919703,0.096156046,-1.0
2025-07-21 16:00:51.992,0.9400000000000005,940,47,-0.07424234,-0.025010271,-0.017936023,0.16868344,-0.007974111,-0.016172247,-0.04316672,-0.082948014,-0.013064805,0.0,0.0,0.0,0.020153359,0.5,0.0,0.0,0.0728233,-0.0048780586,-0.024437664,0.07008664,0.11579666,0.08011925,-0.12383374,-0.1883058,0.12703788,-0.008948301,0.062325884,-0.0952026,-0.026170792,-0.26194626,0.032692302,-0.003385416,0.0627069,0.053387433,-0.05462782,-0.017888246,-0.0033257029,0.088898666,-0.0669329,-0.060187224,1.0,-1.0,0.7835883,1.0,0.71439326,1.0,-1.0,-0.48855373,1.0,0.34919703,0.096156046,-1.0,-1.0,1.0,-1.0,1.0,-0.76907206,1.0,-1.0,-1.0,1.0,-0.07294355,-0.96353734,-0.0083192885
2025-07-21 16:00:52.012,0.9600000000000005,960,48,0.18300311,0.386913,0.38097996,0.2293481,-0.03500779,-0.04391784,-0.016027587,-0.056791432,-0.024437143,0.0,0.0,0.0,0.021298192,0.5,0.0,0.0,0.05455608,-0.032887988,-0.047656737,0.08447219,0.12288521,0.09568159,-0.12452972,-0.2103977,0.13025837,0.00023225715,-0.010274083,-0.07632156,-0.091041654,0.04853625,-0.13595824,0.07851708,-0.10269512,-0.0326449,-0.026120638,-0.085814185,0.008974489,0.039032057,-0.16112168,-0.009819389,-1.0,1.0,-1.0,1.0,-0.76907206,1.0,-1.0,-1.0,1.0,-0.07294355,-0.96353734,-0.0083192885,0.9069193,-0.34596425,-1.0,1.0,1.0,1.0,-1.0,-1.0,1.0,-1.0,1.0,-1.0
2025-07-21 16:00:52.036,0.9800000000000005,980,49,-0.07993661,0.12941433,0.17455746,0.09604434,0.08234269,0.05998467,-0.036989443,-0.091134734,-0.049720086,0.0,0.0,0.0,0.022918936,0.5,0.0,0.0,0.059497505,-0.040643454,-0.06731458,0.10169581,0.14015523,0.09346175,-0.1420528,-0.24704222,0.13929924,-0.035753515,-0.009396214,-0.07968451,-0.013711932,-0.029296294,-0.060380463,0.059007723,0.070132375,0.009802593,0.002737311,-0.027126743,0.04834452,-0.008863122,0.055468615,-0.056105267,0.9069193,-0.34596425,-1.0,1.0,1.0,1.0,-1.0,-1.0,1.0,-1.0,1.0,-1.0,1.0,0.10636288,0.4342698,1.0,-1.0,1.0,-1.0,1.0,1.0,0.19885303,0.5337239,-1.0
2025-07-21 16:00:52.053,1.0000000000000004,1000,50,0.080047175,-0.09595142,0.16702436,0.044891518,0.070265606,-0.14516878,-0.04866297,-0.1369159,0.038333796,0.0,0.0,0.0,0.023583995,0.5,0.0,0.0,0.07025598,-0.029006552,-0.050667048,0.10706751,0.13443327,0.099483654,-0.14564832,-0.23462775,0.14131805,-0.024901886,0.034895454,-0.10530544,-0.019145787,0.0744946,0.08880468,0.04244903,-0.11084806,0.015854303,-0.018730512,0.17202441,-0.047206067,0.015922574,0.027826643,-0.080893956,1.0,0.10636288,0.4342698,1.0,-1.0,1.0,-1.0,1.0,1.0,0.19885303,0.5337239,-1.0,-0.83553296,-0.3199576,-1.0,0.56467235,1.0,1.0,0.5666531,-1.0,1.0,-1.0,-0.2122906,-0.52138615
2025-07-21 16:00:52.076,1.0200000000000005,1020,51,0.0036759647,-0.04179657,0.039826054,0.059855085,-0.17340009,0.21247324,-0.08997308,-0.13579421,-0.047040153,0.0,0.0,0.0,0.024576757,0.5,0.0,0.0,0.052042566,-0.037559465,-0.062432364,0.10275469,0.1223272,0.10529776,-0.12194322,-0.22897048,0.13227373,-0.04466147,0.011440391,-0.09875131,0.00884604,-0.039113186,-0.097475074,-0.083606526,0.029043486,0.017087942,0.093038425,-0.12168427,-0.045916516,-0.06347787,-0.09415013,0.052869257,-0.83553296,-0.3199576,-1.0,0.56467235,1.0,1.0,0.5666531,-1.0,1.0,-1.0,-0.2122906,-0.52138615,1.0,1.0,-1.0,1.0,-1.0,1.0,-1.0,1.0,1.0,-1.0,-0.3573716,-1.0
2025-07-21 16:00:52.093,1.0400000000000005,1040,52,0.1394963,0.28475547,0.036248263,0.08412453,0.1351405,-0.08791366,-0.029017914,-0.10242086,0.037200876,0.0,0.0,0.0,0.023873199,0.5,0.0,0.0,0.07813701,0.0019164546,-0.092630714,0.09371466,0.1225032,0.1179887,-0.111526795,-0.22890873,0.12923555,-0.06437466,-0.008504042,-0.10693784,0.111872725,0.13316873,-0.067338556,0.034064796,0.057142388,-0.032472305,-0.0801887,0.17015933,-0.059179954,-0.049042217,-0.0041145566,-0.009030331,1.0,1.0,-1.0,1.0,-1.0,1.0,-1.0,1.0,1.0,-1.0,-0.3573716,-1.0,0.61170745,-1.0,-1.0,1.0,-1.0,1.0,-1.0,-1.0,1.0,-1.0,1.0,-1.0
2025-07-21 16:00:52.113,1.0600000000000005,1060,53,0.06788617,0.03237932,0.1348442,0.2842819,-0.042666193,0.11278862,-0.086038105,-0.090656616,0.004845507,0.0,0.0,0.0,0.023079555,0.5,0.0,0.0,0.087239005,0.009701405,-0.0929345,0.10880062,0.11469624,0.13271067,-0.11662585,-0.22431226,0.14625318,-0.07137757,0.019413976,-0.11863895,0.040160693,-0.083900444,-0.049887206,-0.051205356,-0.023129836,-0.04777566,-0.079425775,-0.14599693,0.048492953,-0.0022573147,0.1471745,-0.01366635,0.61170745,-1.0,-1.0,1.0,-1.0,1.0,-1.0,-1.0,1.0,-1.0,1.0,-1.0,-0.34760234,-1.0,0.1810931,1.0,-0.68353194,1.0,-1.0,1.0,1.0,1.0,-1.0,-0.19826797
2025-07-21 16:00:52.136,1.0800000000000005,1080,54,-0.2937802,0.11487237,0.29038933,0.28275412,-0.08507197,0.05461408,-0.085417666,-0.108118676,-0.01528244,0.0,0.0,0.0,0.023354972,0.5,0.0,0.0,0.06970214,-0.06916058,-0.085162334,0.11542441,0.0861212,0.13496451,-0.13905862,-0.21893378,0.14650005,-0.044041585,0.009103923,-0.103686005,-0.05362816,-0.093107976,0.077969365,-0.014344822,-0.031646457,-0.035414815,-0.002406603,0.0629543,0.019720303,0.0937138,-0.121833734,0.005258875,-0.34760234,-1.0,0.1810931,1.0,-0.68353194,1.0,-1.0,1.0,1.0,1.0,-1.0,-0.19826797,-0.20371558,1.0,-0.39327562,1.0,1.0,1.0,-1.0,-1.0,1.0,-0.19667672,-1.0,1.0
2025-07-21 16:00:52.154,1.1000000000000005,1100,55,-0.11082832,0.25494468,-0.10597183,0.029028155,-0.067366794,0.014551268,-0.0831993,-0.15389381,-0.020429637,0.0,0.0,0.0,0.023527237,0.5,0.0,0.0,0.053410307,-0.07293486,-0.08216488,0.122936964,0.09757177,0.12516208,-0.1294295,-0.22607069,0.13449004,-0.039814893,-0.05954589,-0.06295101,0.035920937,0.04085478,0.034886822,-0.061807465,0.06400063,-0.016571598,-0.00048836874,-0.055900022,0.031400625,-0.042477425,-0.23289067,0.053762145,-0.20371558,1.0,-0.39327562,1.0,1.0,1.0,-1.0,-1.0,1.0,-0.19667672,-1.0,1.0,-0.15892364,1.0,1.0,0.33663398,-1.0,1.0,-1.0,-1.0,1.0,1.0,0.18846829,-1.0
2025-07-21 16:00:52.173,1.1200000000000006,1120,56,0.18005955,0.20362584,-0.18914248,-0.29568937,0.003581585,-0.15720747,-0.120458364,-0.13893,-0.019675657,0.0,0.0,0.0,0.023996975,0.5,0.0,0.0,0.048977055,-0.04311822,-0.05555096,0.11000548,0.11238942,0.14688587,-0.1532767,-0.26094207,0.14726597,-0.0038058464,-0.05372587,-0.07780715,0.053685963,0.11992227,0.059290297,-0.042792577,-0.020786747,-0.028144173,-0.019523859,-0.028102538,-0.0008863636,0.033113193,0.0820587,0.003459283,-0.15892364,1.0,1.0,0.33663398,-1.0,1.0,-1.0,-1.0,1.0,1.0,0.18846829,-1.0,-1.0,-1.0,-1.0,1.0,1.0,1.0,1.0,-1.0,1.0,-1.0,0.043245,1.0
2025-07-21 16:00:52.196,1.1400000000000006,1140,57,0.053046364,-0.10858694,-0.18776849,-0.17760882,0.041657746,0.15524454,-0.0770384,-0.12055159,-0.004600762,0.0,0.0,0.0,0.024514271,0.5,0.0,0.0,0.013219587,-0.021176703,-0.07655132,0.11603953,0.14650664,0.12712342,-0.13471033,-0.2831725,0.14231321,-0.0199042,-0.051593952,-0.03483076,-0.027293403,0.002635209,-0.00812986,-0.04292577,0.19147043,-0.074668616,0.17227857,-0.12353597,0.012663771,-0.059062775,0.082211524,0.13391379,-1.0,-1.0,-1.0,1.0,1.0,1.0,1.0,-1.0,1.0,-1.0,0.043245,1.0,-0.9472009,-0.2690184,-0.011796296,-0.041644067,-1.0,1.0,-1.0,1.0,1.0,1.0,-1.0,-1.0
2025-07-21 16:00:52.214,1.1600000000000006,1160,58,0.05801385,0.09570871,-0.09362282,-0.15160468,-0.18142861,0.03962075,-0.11232147,-0.074297324,0.022789355,0.0,0.0,0.0,0.023074219,0.5,0.0,0.0,-0.0015207548,-0.045024097,-0.07203421,0.09379782,0.17413235,0.13583754,-0.12349438,-0.26223946,0.13722238,0.006598362,-0.08993893,-0.051186517,-0.049052756,-0.10067473,-0.047134183,-0.06244256,0.008810508,0.07677029,-0.042769164,0.16698225,-0.021744097,0.12554836,-0.208551,-0.0008974759,-0.9472009,-0.2690184,-0.011796296,-0.041644067,-1.0,1.0,-1.0,1.0,1.0,1.0,-1.0,-1.0,0.8165487,1.0,-1.0,1.0,-1.0,1.0,-1.0,-1.0,1.0,-1.0,1.0,-1.0
2025-07-21 16:00:52.237,1.1800000000000006,1180,59,-0.21195915,-0.042580865,0.13170834,0.06645538,0.048222207,-0.061116427,-0.05234779,-0.09163264,0.030096084,0.0,0.0,0.0,0.020600876,0.5,0.0,0.0,0.015202497,-0.005102837,-0.08147264,0.09074059,0.16292973,0.14831522,-0.12576105,-0.25185403,0.14204839,-0.0066941357,-0.10064797,-0.07240503,0.064238414,0.188364,-0.09164868,0.05425567,-0.019841092,0.042898282,-0.06402609,-0.050331015,0.04570414,-0.019009525,0.016942395,0.0043099634,0.8165487,1.0,-1.0,1.0,-1.0,1.0,-1.0,-1.0,1.0,-1.0,1.0,-1.0,1.0,-1.0,-1.0,1.0,-1.0,1.0,-1.0,1.0,1.0,-0.43632853,1.0,1.0
2025-07-21 16:00:52.256,1.2000000000000006,1200,60,-0.3087282,-0.25201157,0.14327255,0.13586281,0.07189868,-0.024753876,-0.1113842,-0.09485801,-0.029755117,0.0,0.0,0.0,0.020274365,0.5,0.0,0.0,0.03946178,0.006337553,-0.09841983,0.09236437,0.14478265,0.14402907,-0.13811432,-0.23419791,0.14821361,-0.024869146,-0.0169398,-0.040333286,0.07468067,-0.09269199,0.032707144,0.08113449,-0.09937508,0.051673796,-0.014675094,0.1837476,0.027457973,-0.039010487,0.17060967,0.1514524,1.0,-1.0,-1.0,1.0,-1.0,1.0,-1.0,1.0,1.0,-0.43632853,1.0,1.0,1.0,0.470104,-0.5447875,0.95213044,1.0,1.0,-1.0,-1.0,1.0,1.0,-1.0,1.0
2025-07-21 16:00:52.275,1.2200000000000006,1220,61,-0.28460315,-0.1027041,0.009567025,0.13682981,0.22498155,-0.07711717,-0.05365749,-0.15150104,-0.010471524,0.0,0.0,0.0,0.02144219,0.5,0.0,0.0,0.061088145,0.028744461,-0.10463428,0.11300163,0.16708252,0.14868258,-0.14248687,-0.24262883,0.14730756,0.011587751,-0.01624453,-0.00710473,0.018686438,0.11605049,-0.0027875458,0.056184955,0.12877569,0.036581017,0.04273216,-0.15079194,0.0019233784,0.08627114,-0.07634364,0.10389832,1.0,0.470104,-0.5447875,0.95213044,1.0,1.0,-1.0,-1.0,1.0,1.0,-1.0,1.0,-1.0,-0.6765903,1.0,-1.0,-1.0,-0.387663,1.0,1.0,1.0,1.0,-0.2924324,1.0
2025-07-21 16:00:52.295,1.2400000000000007,1240,62,-0.41539004,-0.42500824,0.12318035,-0.2932064,-0.30223548,-0.027894018,-0.10161437,-0.12730646,-0.041814175,0.0,0.0,0.0,0.023153108,0.5,0.0,0.0,0.042317875,0.024181448,-0.062243085,0.062268622,0.1699551,0.1049337,-0.12227428,-0.2253922,0.14904888,0.033139553,-0.027892057,0.026588202,-0.14046028,-0.115594015,0.17000915,-0.072368056,-0.05932644,-0.062135566,0.08381897,0.1133813,-0.058833152,0.029974764,-0.030008636,0.08469337,-1.0,-0.6765903,1.0,-1.0,-1.0,-0.387663,1.0,1.0,1.0,1.0,-0.2924324,1.0,-1.0,1.0,1.0,-0.7766271,-0.33265397,-1.0,-1.0,1.0,-1.0,1.0,-1.0,1.0
2025-07-21 16:00:52.319,1.2600000000000007,1260,63,-0.17786649,-0.31874433,-0.27361462,-0.5101331,-0.37792265,-0.20196712,-0.0623758,-0.043998826,0.020455923,0.0,0.0,0.0,0.023981212,0.5,0.0,0.0,0.0067412383,0.050757688,-0.035801582,0.026424732,0.10739642,0.07464701,-0.1278185,-0.1311011,0.09938455,0.05093555,-0.0868398,0.057195645,-0.09458825,0.14994045,0.14732419,-0.04146745,-0.086215556,-0.1658172,-0.031368457,0.25151917,-0.107144944,0.1302865,-0.16006964,0.073239475,-1.0,1.0,1.0,-0.7766271,-0.33265397,-1.0,-1.0,1.0,-1.0,1.0,-1.0,1.0,-1.0,-1.0,1.0,-0.9625352,1.0,-0.6774145,1.0,1.0,-1.0,0.6596303,-0.324699,1.0
2025-07-21 16:00:52.336,1.2800000000000007,1280,64,0.07110846,-0.39392182,-0.6767057,-0.5728057,-0.37562335,0.05157997,-0.059460532,-0.03770784,0.0050138626,0.0,0.0,0.0,0.025260527,0.5,0.0,0.0,-0.006591904,0.038899146,-0.0096745305,0.006611828,0.12150987,0.03435239,-0.07751288,-0.031844016,0.040603008,0.072106786,-0.10148486,0.061903264,-0.08992811,-0.04901828,0.022357952,-0.021877453,0.10961967,-0.036618087,0.09388404,0.15257935,-0.059896447,0.06418413,0.032577932,0.015713949,-1.0,-1.0,1.0,-0.9625352,1.0,-0.6774145,1.0,1.0,-1.0,0.6596303,-0.324699,1.0,-1.0,1.0,1.0,-1.0,-1.0,-0.42368,1.0,1.0,-1.0,1.0,-1.0,1.0
2025-07-21 16:00:52.356,1.3000000000000007,1300,65,-0.41650006,-0.17315625,-0.6526761,-0.2849437,-0.07707693,-0.11718617,-0.043700807,0.07281767,0.03813338,0.0,0.0,0.0,0.02522026,0.5,0.0,0.0,-0.029949235,0.03554235,0.008662969,-0.023185663,0.1372666,0.023191597,-0.050122783,0.045225374,0.0060394537,0.08310549,-0.14152925,0.077203974,-0.080911994,0.013470602,0.06528999,-0.022972755,0.08597101,-0.02817817,0.1170444,0.19038488,-0.11916822,-0.06235317,0.005949773,-0.033846095,-1.0,1.0,1.0,-1.0,-1.0,-0.42368,1.0,1.0,-1.0,1.0,-1.0,1.0,-1.0,1.0,1.0,-1.0,-1.0,-1.0,1.0,-0.7995776,1.0,1.0,0.53409225,1.0
2025-07-21 16:00:52.376,1.3200000000000007,1320,66,0.05279649,-0.17329504,-0.25109997,-0.3514587,0.020332891,-0.015446083,-0.014050083,0.010070856,-0.030921495,0.0,0.0,0.0,0.025710488,0.5,0.0,0.0,-0.043965083,0.07294733,0.020823937,-0.044665754,0.13839053,-0.017383631,-0.007352778,0.04556455,0.045372367,0.083023705,-0.1254326,0.09102807,-0.02817264,0.059234798,-0.01328048,-0.027761195,-0.12210114,-0.13155982,0.08979544,-0.11107208,0.06374491,-0.023734,0.15195657,0.052552924,-1.0,1.0,1.0,-1.0,-1.0,-1.0,1.0,-0.7995776,1.0,1.0,0.53409225,1.0,-1.0,-0.7828316,1.0,0.80572045,-0.9891602,-1.0,0.7760908,-0.94321215,-1.0,1.0,-1.0,1.0
2025-07-21 16:00:52.396,1.3400000000000007,1340,67,-0.21886995,-0.28225425,0.048168562,0.05761884,0.07792795,-0.10395087,0.015098029,0.07451784,-0.018028364,0.0,0.0,0.0,0.027277892,0.5,0.0,0.0,-0.060808502,0.08161142,0.052959144,-0.026273211,0.05875569,-0.0386666,0.017082019,-0.031508658,6.752876e-05,0.0878762,-0.1112597,0.101613626,0.042934928,-0.012718319,0.06978937,0.004044031,-0.17503971,-0.1004594,0.0130016655,-0.19218078,-0.058458675,0.046269134,-0.039155986,-0.029664893,-1.0,-0.7828316,1.0,0.80572045,-0.9891602,-1.0,0.7760908,-0.94321215,-1.0,1.0,-1.0,1.0,-1.0,1.0,1.0,-1.0,1.0,-0.27019244,1.0,1.0,-1.0,1.0,-1.0,1.0
2025-07-21 16:00:52.419,1.3600000000000008,1360,68,-0.27566344,-0.22304961,0.2394088,0.049338385,0.10164586,-0.091650404,-0.057955947,0.0059098145,0.046616036,0.0,0.0,0.0,0.028403094,0.5,0.0,0.0,-0.05231139,0.11125649,0.060588703,-0.042917863,0.044003654,-0.034839816,0.033616398,-0.035148032,-0.027099498,0.092125945,-0.12208089,0.10978076,0.033707965,0.051328354,0.09499802,-0.11329349,0.02442856,-0.054951876,0.13752308,0.07459685,-0.051460985,0.04841826,-0.009306208,0.05248972,-1.0,1.0,1.0,-1.0,1.0,-0.27019244,1.0,1.0,-1.0,1.0,-1.0,1.0,-1.0,1.0,1.0,-1.0,-0.76614904,-1.0,1.0,0.77931273,-1.0,1.0,1.0,1.0
2025-07-21 16:00:52.436,1.3800000000000008,1380,69,-0.28033447,0.08020158,0.20926028,0.039018825,0.11758257,-0.0481732,0.010631021,0.03048071,-0.024572875,0.0,0.0,0.0,0.029306185,0.5,0.0,0.0,-0.06631322,0.15128033,0.07537369,-0.05301463,0.03144276,-0.053650636,0.06343955,0.031507935,-0.04739816,0.095965005,-0.105671465,0.10199735,0.016465984,0.1593273,-0.014103918,-0.041902475,-0.21069945,-0.07163182,0.024121638,0.19219655,-0.0020128815,0.027661692,0.08222016,0.045980956,-1.0,1.0,1.0,-1.0,-0.76614904,-1.0,1.0,0.77931273,-1.0,1.0,1.0,1.0,-1.0,-1.0,1.0,-1.0,-0.41335967,-1.0,0.9013416,-1.0,1.0,0.8220333,1.0,1.0
2025-07-21 16:00:52.456,1.4000000000000008,1400,70,-0.007741276,-0.25871673,0.15501197,0.03771015,-0.1131714,0.07049497,0.016335646,0.033504564,0.0056191683,0.0,0.0,0.0,0.030957604,0.5,0.0,0.0,-0.08083669,0.1628932,0.08240204,-0.08679954,-0.0061650346,-0.07256488,0.082667835,0.0070839254,-0.008590614,0.1063919,-0.06375125,0.10681063,-0.041731995,-0.07596846,0.065230675,-0.06997365,-0.06665813,-0.030725216,0.09662296,-0.09003973,0.12467,0.0006515625,0.13851047,-0.035836205,-1.0,-1.0,1.0,-1.0,-0.41335967,-1.0,0.9013416,-1.0,1.0,0.8220333,1.0,1.0,-1.0,0.6974062,1.0,-0.16798833,-0.3296995,0.016413033,-0.62086135,0.8993504,-1.0,1.0,-1.0,1.0
2025-07-21 16:00:52.476,1.4200000000000008,1420,71,0.20767483,-0.2102585,0.15487093,0.16275693,0.025734268,-0.07515586,-0.015483885,0.042541314,-0.04401887,0.0,0.0,0.0,0.030748649,0.5,0.0,0.0,-0.087742776,0.19613539,0.08995069,-0.071594924,-0.035372138,-0.056465175,0.040905535,0.016296353,-0.03557212,0.10142869,-0.035785872,0.112499684,0.029264875,0.08739939,0.07567225,-0.03495249,-0.057390157,0.046741307,-0.0902956,0.11049659,-0.119227365,0.023058828,-0.05880924,0.08448206,-1.0,0.6974062,1.0,-0.16798833,-0.3296995,0.016413033,-0.62086135,0.8993504,-1.0,1.0,-1.0,1.0,-1.0,-1.0,1.0,1.0,-1.0,1.0,1.0,-0.7612263,-1.0,1.0,0.70488316,1.0
2025-07-21 16:00:52.496,1.4400000000000008,1440,72,-0.1978697,-0.054530244,0.25573915,0.062509105,-0.20259613,0.08461501,-0.060509514,0.015448839,-0.031635452,0.0,0.0,0.0,0.030881085,0.5,0.0,0.0,-0.09899645,0.181131,0.10352227,-0.028681308,-0.09663419,-0.030241324,0.06282739,-0.0052296473,-0.060429346,0.117946275,-0.009016578,0.10942777,-0.027972803,-0.013530644,-0.006132426,0.069039345,-0.08534994,0.07300752,-0.011105156,-0.10625104,0.003241646,-0.0036518998,0.19891752,-0.004972022,-1.0,-1.0,1.0,1.0,-1.0,1.0,1.0,-0.7612263,-1.0,1.0,0.70488316,1.0,-1.0,-0.43618965,-1.0,1.0,1.0,1.0,-1.0,-0.9827242,1.0,-0.3194784,-1.0,1.0
2025-07-21 16:00:52.519,1.4600000000000009,1460,73,0.1320465,0.049108297,0.23281309,0.19111298,-0.03336007,0.017765379,-0.029047118,0.078470394,-0.013734617,0.0,0.0,0.0,0.030365223,0.5,0.0,0.0,-0.1125993,0.16130571,0.0651997,-0.012123008,-0.11137579,-0.013501545,0.04254677,-0.06668227,-0.016983632,0.09056563,-0.015740996,0.12929009,-0.0679439,-0.15035917,-0.077115916,0.05435141,-0.025984507,0.06321536,-0.13016406,-0.11098855,0.028833132,-0.019347293,-0.14300694,-0.04167574,-1.0,-0.43618965,-1.0,1.0,1.0,1.0,-1.0,-0.9827242,1.0,-0.3194784,-1.0,1.0,1.0,1.0,-1.0,0.85282457,0.58554053,1.0,-1.0,-1.0,1.0,1.0,1.0,-1.0
2025-07-21 16:00:52.536,1.4800000000000009,1480,74,0.10402706,-0.2018963,-0.33793426,-0.01496936,0.45912713,0.07478379,-0.08590042,0.050716132,-0.047383573,0.0,0.0,0.0,0.02960017,0.5,0.0,0.0,-0.07273793,0.15771115,0.01652376,0.0117104035,-0.0885763,0.0061851423,0.005616658,-0.13226822,0.014472668,0.11619302,0.028471688,0.06783451,0.067814924,0.16061117,-0.02698184,0.09948582,0.13809252,0.11138646,-0.048212398,-0.08119704,0.13622272,0.07147215,0.2495071,-0.14593492,1.0,1.0,-1.0,0.85282457,0.58554053,1.0,-1.0,-1.0,1.0,1.0,1.0,-1.0,1.0,0.22458303,-1.0,1.0,-1.0,1.0,-1.0,-1.0,1.0,0.0037659556,-1.0,-1.0
2025-07-21 16:00:52.556,1.5000000000000009,1500,75,-0.13240834,0.0012936443,-0.497061,0.120804965,0.4956655,-0.041175872,0.016232973,-0.028742312,0.0059711006,0.0,0.0,0.0,0.029309478,0.5,0.0,0.0,-0.030061692,0.16212563,-0.0027240189,0.0478847,-0.09924787,0.037404668,-0.036187626,-0.17843665,0.041125502,0.0886528,0.035328165,0.03290566,0.07498896,0.010126277,-0.120848075,0.08477552,-0.13086373,0.12014534,-0.0871225,-0.16157547,0.05910646,-0.008739817,-0.11025863,-0.027719717,1.0,0.22458303,-1.0,1.0,-1.0,1.0,-1.0,-1.0,1.0,0.0037659556,-1.0,-1.0,1.0,0.70242614,-1.0,1.0,1.0,1.0,-1.0,-1.0,1.0,0.22174825,1.0,-1.0
2025-07-21 16:00:52.588,1.520000000000001,1520,76,-0.14435026,0.22274204,-0.18966411,-0.13337916,0.058272533,0.10741174,-0.011290486,-0.0020192151,-0.020719005,0.0,0.0,0.0,0.029192824,0.5,0.0,0.0,0.0036272914,0.18816318,-0.03760484,0.04724052,-0.06945897,0.04140326,-0.046554614,-0.22229551,0.054902975,0.07645184,0.04952216,0.011731612,0.015288675,0.082427606,-0.08122843,-0.022046955,0.033367105,0.0841701,-0.06483882,-0.06317425,0.07996786,0.020327596,0.12050795,-0.03398825,1.0,0.70242614,-1.0,1.0,1.0,1.0,-1.0,-1.0,1.0,0.22174825,1.0,-1.0,1.0,-1.0,-1.0,1.0,1.0,1.0,-1.0,-0.97744834,1.0,-0.4817115,-0.1479813,-1.0
2025-07-21 16:00:52.608,1.540000000000001,1540,77,0.092098184,0.23276262,-0.071904,-0.01590172,-0.11179293,0.16036563,-0.036483116,0.0042076954,-0.015799578,0.0,0.0,0.0,0.027808694,0.5,0.0,0.0,0.027189171,0.14594148,-0.056685217,0.06470998,-0.031726792,0.053499814,-0.0497159,-0.24442208,0.07180092,0.053055733,0.049179174,-0.019714888,0.09771302,-0.24712671,-0.046297744,-0.030810364,0.17377931,0.065278895,0.047103856,-0.054790474,-0.031742375,-0.1163366,-0.05368602,-0.03016971,1.0,-1.0,-1.0,1.0,1.0,1.0,-1.0,-0.97744834,1.0,-0.4817115,-0.1479813,-1.0,0.9358797,1.0,1.0,1.0,-1.0,1.0,-1.0,0.05789724,1.0,-1.0,1.0,-1.0
2025-07-21 16:00:52.628,1.560000000000001,1560,78,0.053334735,0.036180098,0.077747665,-0.1546863,0.04036969,-0.0973538,-0.011905604,0.010065608,-0.01069667,0.0,0.0,0.0,0.025181046,0.5,0.0,0.0,0.053460803,0.116921954,-0.01711466,0.07117382,-0.01545401,0.07303363,-0.051245235,-0.23354442,0.06239413,0.016810313,0.071365714,-0.039739482,0.084435664,0.16157737,0.021616533,0.053040653,0.06439189,-0.011512102,-0.086999446,-0.015645582,-0.031040592,-0.15387361,0.11617621,0.0071687913,0.9358797,1.0,1.0,1.0,-1.0,1.0,-1.0,0.05789724,1.0,-1.0,1.0,-1.0,-1.0,0.20733035,-1.0,0.42249617,1.0,1.0,-1.0,0.6472913,1.0,-0.97960794,-1.0,-1.0
2025-07-21 16:00:52.653,1.580000000000001,1580,79,0.35322642,0.09033789,0.034479115,-0.27431256,-0.096695684,-0.087143674,0.007820877,-0.013589962,0.028851481,0.0,0.0,0.0,0.02523539,0.5,0.0,0.0,0.013464841,0.13211474,-0.04608242,0.05312284,0.021449352,0.07414263,-0.05954446,-0.2210334,0.07808313,-0.01274428,0.08985892,-0.062874936,-0.07870439,-0.068347126,0.012792549,-0.015824316,0.123217784,-0.01918198,0.0034404527,0.01888268,0.053231843,-0.0010519591,-0.069150105,0.014763045,-1.0,0.20733035,-1.0,0.42249617,1.0,1.0,-1.0,0.6472913,1.0,-0.97960794,-1.0,-1.0,1.0,-1.0,-1.0,1.0,-1.0,1.0,-1.0,-1.0,1.0,-1.0,1.0,-1.0
2025-07-21 16:00:52.771,1.600000000000001,1600,80,0.03315778,0.07240933,0.13518614,0.11147486,-0.08583961,-0.05426227,-0.02889971,0.0066127228,0.026638083,0.0,0.0,0.0,0.027325552,0.5,0.0,0.0,0.027418531,0.058261823,-0.06505669,0.061670188,0.025014494,0.084095776,-0.07141709,-0.20963447,0.07346813,-0.029916622,0.09156875,-0.07245534,0.10103401,-0.25729913,-0.022084655,-0.012992347,0.016363343,0.06391376,-0.073958576,-0.00022260567,0.094773985,-0.0027810486,0.106864884,-0.057659466,1.0,-1.0,-1.0,1.0,-1.0,1.0,-1.0,-1.0,1.0,-1.0,1.0,-1.0,1.0,0.7288776,-1.0,1.0,0.7956991,1.0,-1.0,-1.0,1.0,0.8344186,-0.7169494,-1.0
2025-07-21 16:00:52.803,1.620000000000001,1620,81,0.08106392,0.16505106,0.4608105,0.14778383,-0.049717985,0.0009359261,-0.016418712,-0.0068723327,-0.002877342,0.0,0.0,0.0,0.028868204,0.5,0.0,0.0,0.055942193,0.038978416,-0.0859903,0.07636036,0.044419277,0.08970422,-0.077737704,-0.23596333,0.10105455,-0.007105956,0.056403194,-0.10130057,0.059282474,0.03374864,0.024141558,-0.02213813,0.10317136,0.0031733995,-0.029519068,-0.14345916,0.08400244,0.076063536,-0.16858935,-0.002449344,1.0,0.7288776,-1.0,1.0,0.7956991,1.0,-1.0,-1.0,1.0,0.8344186,-0.7169494,-1.0,0.59999204,-1.0,-1.0,1.0,-1.0,1.0,-1.0,-0.007960409,1.0,-1.0,1.0,-1.0
2025-07-21 16:00:52.821,1.640000000000001,1640,82,0.08276722,0.062040444,0.40612867,-0.059537467,-0.03050664,-0.08495679,0.027595619,0.049541622,-0.0015701092,0.0,0.0,0.0,0.029624991,0.5,0.0,0.0,0.07153308,0.0049885027,-0.08634556,0.07462527,0.039969858,0.09237137,-0.09186777,-0.23183836,0.09556401,-0.03249059,0.055314183,-0.10629059,0.04319818,-0.23817149,-0.059024457,0.064978845,0.057418924,-0.02851892,0.0223424,0.00020379458,0.04902316,-0.00089101994,0.18433687,0.037531096,0.59999204,-1.0,-1.0,1.0,-1.0,1.0,-1.0,-0.007960409,1.0,-1.0,1.0,-1.0,1.0,0.1844647,-1.0,-0.28789288,1.0,1.0,-0.10117808,-1.0,1.0,-1.0,-0.9709882,-1.0
2025-07-21 16:00:52.838,1.660000000000001,1660,83,-0.038446266,-0.068744354,-0.01339356,0.10933666,-0.06258658,0.0041773343,-0.04298673,-0.022958906,-0.02212523,0.0,0.0,0.0,0.031112578,0.5,0.0,0.0,0.076910585,-0.00068132376,-0.11080813,0.06007073,0.06894928,0.09842135,-0.072182566,-0.2383896,0.114444114,-0.049878854,0.044665884,-0.109902866,0.03265907,0.030907143,0.02032388,-0.07393991,0.15403715,-0.033227555,0.09281221,-0.064854965,0.012161379,-0.12564318,-0.19903766,-0.07073389,1.0,0.1844647,-1.0,-0.28789288,1.0,1.0,-0.10117808,-1.0,1.0,-1.0,-0.9709882,-1.0,1.0,-1.0,-1.0,1.0,-1.0,1.0,-1.0,-0.8395829,1.0,-0.0049031824,1.0,-0.95967865
2025-07-21 16:00:52.858,1.680000000000001,1680,84,-0.010604971,0.224349,0.05728293,0.17952868,-0.009270285,-0.021970848,-0.0055422145,0.0024150792,0.0022093484,0.0,0.0,0.0,0.032318566,0.5,0.0,0.0,0.101158015,-0.048148934,-0.11030204,0.061966002,0.083240055,0.11067193,-0.0815172,-0.2571561,0.10402316,-0.04020847,0.035728518,-0.12514228,0.067149766,-0.19091906,-0.06566649,0.08547398,0.0034566205,0.06987897,-0.055884346,-0.09617019,-0.017897135,-0.026212368,0.12851013,-0.017776873,1.0,-1.0,-1.0,1.0,-1.0,1.0,-1.0,-0.8395829,1.0,-0.0049031824,1.0,-0.95967865,1.0,-0.042573515,-1.0,1.0,1.0,1.0,-1.0,-0.5676261,1.0,0.24736978,0.2720392,-1.0
2025-07-21 16:00:52.878,1.700000000000001,1700,85,0.33015266,0.13937958,0.20029113,-0.0051080524,-0.009669073,-0.05875054,0.0047318605,-0.03299946,-0.027348908,0.0,0.0,0.0,0.03249163,0.5,0.0,0.0,0.10234492,-0.06145794,-0.12809534,0.07677338,0.09187987,0.09862338,-0.08529042,-0.2468517,0.11208758,-0.028477814,0.06763342,-0.13543923,0.015668342,0.0021893403,0.0492912,0.08917911,0.17401108,0.02582946,-0.059074957,0.06063746,0.07113835,0.0466296,-0.043126915,0.047435842,1.0,-0.042573515,-1.0,1.0,1.0,1.0,-1.0,-0.5676261,1.0,0.24736978,0.2720392,-1.0,0.8390646,-1.0,1.0,1.0,-1.0,1.0,-1.0,-1.0,1.0,-1.0,1.0,-1.0
2025-07-21 16:00:52.898,1.720000000000001,1720,86,0.073387176,-0.017921625,0.10869174,0.22300473,-0.0097310385,-0.06650098,-0.047565173,-0.0124421865,0.004993043,0.0,0.0,0.0,0.034036368,0.5,0.0,0.0,0.11967347,-0.10990942,-0.08388927,0.0898283,0.11671887,0.10669324,-0.09249591,-0.2763725,0.11930635,-0.048756547,0.116680585,-0.12249963,-0.048888642,-0.14841144,0.050982732,-0.00849514,-0.04961248,-0.048473503,-0.032951258,-0.06862691,-0.002275353,-0.0846485,0.12043781,0.04228566,0.8390646,-1.0,1.0,1.0,-1.0,1.0,-1.0,-1.0,1.0,-1.0,1.0,-1.0,-1.0,1.0,0.14533865,-0.58436376,1.0,1.0,-0.6352548,1.0,1.0,1.0,-1.0,1.0
2025-07-21 16:00:52.921,1.740000000000001,1740,87,0.37266225,0.3273363,0.13706057,0.07455187,0.013501847,-0.09489779,-0.022149064,0.010371154,0.042204916,0.0,0.0,0.0,0.035061322,0.5,0.0,0.0,0.07015706,-0.08995071,-0.055974778,0.06990574,0.13829942,0.12261868,-0.096401505,-0.26420373,0.11928139,-0.02944005,0.09938595,-0.09377209,-0.052953113,0.17905462,0.033422638,-0.12968214,0.16585039,0.07562541,0.076626405,0.045854278,-0.06175639,0.16092041,-0.17930654,0.08673048,-1.0,1.0,0.14533865,-0.58436376,1.0,1.0,-0.6352548,1.0,1.0,1.0,-1.0,1.0,-1.0,-1.0,1.0,-0.9953887,-1.0,-0.67819893,-0.7418996,-1.0,1.0,1.0,0.07509415,-1.0
2025-07-21 16:00:52.938,1.7600000000000011,1760,88,0.013086513,0.30387393,-0.31282872,0.23601745,-0.22650424,0.07526134,-0.011497181,-0.041350197,0.026602391,0.0,0.0,0.0,0.03572777,0.5,0.0,0.0,0.036630426,-0.10749458,-0.02304742,0.026311776,0.14906965,0.07787525,-0.096357726,-0.2563677,0.12296777,0.014741653,0.08249869,-0.09396434,-0.04351571,-0.10291867,0.035327826,-0.15523504,0.04304966,-0.111374006,-0.08762179,-0.012712247,-0.02495154,0.023103694,0.016131692,-0.08140774,-1.0,-1.0,1.0,-0.9953887,-1.0,-0.67819893,-0.7418996,-1.0,1.0,1.0,0.07509415,-1.0,-1.0,0.9221469,1.0,0.45092916,-0.215081,-1.0,0.74194175,1.0,1.0,1.0,-1.0,1.0
2025-07-21 16:00:52.958,1.7800000000000011,1780,89,0.2957152,0.28920403,-0.13318227,0.032326903,-0.04905541,-0.09757901,-0.1164,-0.04463869,-0.006707228,0.0,0.0,0.0,0.03579188,0.5,0.0,0.0,0.010296124,-0.121028535,-0.0028919205,0.01374689,0.13934232,0.047300808,-0.07936282,-0.2507878,0.1336949,0.046374384,0.015924055,-0.04297582,-0.027364075,0.024525214,0.023536263,0.05957425,-0.0020537565,-0.1256835,0.012667,0.06827863,0.006020598,0.046375725,-0.25588784,0.13296652,-1.0,0.9221469,1.0,0.45092916,-0.215081,-1.0,0.74194175,1.0,1.0,1.0,-1.0,1.0,-1.0,-1.0,1.0,-0.0980314,-0.86869574,-1.0,-1.0,-1.0,-1.0,1.0,-0.23482998,0.9665173
2025-07-21 16:00:52.978,1.8000000000000012,1800,90,-0.07787541,-0.048692647,-0.010815432,0.18213657,-0.25183067,-0.059461992,-0.12348465,0.006652457,-0.011306912,0.0,0.0,0.0,0.036884163,0.5,0.0,0.0,-0.007402907,-0.14125817,0.024146855,0.011838863,0.110053055,0.014437328,-0.08878219,-0.25741175,0.07517099,0.07206734,-0.011015975,-0.012744835,-0.0656906,-0.13228907,0.027114855,-0.07425082,-0.094736926,-0.004760521,-0.05088296,-0.08920061,-0.082822986,0.094568305,-0.0063024857,0.073381156,-1.0,-1.0,1.0,-0.0980314,-0.86869574,-1.0,-1.0,-1.0,-1.0,1.0,-0.23482998,0.9665173,-1.0,1.0,1.0,-0.93283856,1.0,-1.0,1.0,1.0,-1.0,1.0,-1.0,1.0
2025-07-21 16:00:53.000,1.8200000000000012,1820,91,0.2462663,0.08508685,-0.31857964,-0.35433885,-0.23693708,-0.1302893,-0.13842396,-0.029212762,0.018913832,0.0,0.0,0.0,0.03880299,0.5,0.0,0.0,-0.043016393,-0.1423372,0.034972392,-0.01955922,0.13701372,-0.025387878,-0.047353186,-0.21637988,0.046734903,0.08185955,-0.052906085,0.019198652,-0.07944911,0.07727987,0.10375126,-0.0069028293,0.121495776,-0.099840544,0.14046587,0.20486823,-0.09125786,0.025227211,-0.20518859,0.07295946,-1.0,1.0,1.0,-0.93283856,1.0,-1.0,1.0,1.0,-1.0,1.0,-1.0,1.0,-1.0,-1.0,1.0,-1.0,-0.30828428,-1.0,1.0,0.73111856,-1.0,1.0,0.04611067,1.0
2025-07-21 16:00:53.020,1.8400000000000012,1840,92,-0.13892134,-0.031386804,-0.35751715,-0.23878162,-0.18749635,-0.13317493,-0.12481162,0.016020363,0.0043904353,0.0,0.0,0.0,0.04049655,0.5,0.0,0.0,-0.061313387,-0.13790525,0.06738091,-0.048948847,0.15263112,-0.046909906,-0.024764786,-0.12833868,0.009415264,0.089050695,-0.074676886,0.041363258,-0.03827108,-0.0031897754,0.10080045,0.0058863196,-0.033662267,-0.0470938,0.09610696,0.20035061,-0.07524616,-0.059172153,0.081985705,0.014972265,-1.0,-1.0,1.0,-1.0,-0.30828428,-1.0,1.0,0.73111856,-1.0,1.0,0.04611067,1.0,-1.0,0.9920609,1.0,-1.0,0.48918405,-1.0,1.0,1.0,-1.0,1.0,-1.0,1.0
2025-07-21 16:00:53.039,1.8600000000000012,1860,93,-0.22425862,-0.038865525,-0.25456566,-0.17122424,-0.012757404,-0.14139795,-0.07991295,0.08465949,0.019286439,0.0,0.0,0.0,0.042328373,0.5,0.0,0.0,-0.06695502,-0.10988171,0.058708075,-0.07833452,0.1600742,-0.06947582,0.024931477,-0.045556933,-0.019891627,0.09599671,-0.07642912,0.05983441,-0.07386888,0.08684044,-0.005835553,-0.0768622,-0.013111416,-0.055315673,0.051998112,0.2500414,-0.057049844,-0.07743304,-0.013593405,0.04630443,-1.0,0.9920609,1.0,-1.0,0.48918405,-1.0,1.0,1.0,-1.0,1.0,-1.0,1.0,-1.0,1.0,1.0,-1.0,-1.0,-1.0,1.0,0.5709044,-1.0,1.0,-0.5386087,1.0
2025-07-21 16:00:53.059,1.8800000000000012,1880,94,-0.29287374,-0.008829762,0.108820826,-0.029473789,-0.04921365,-0.10136897,-0.10839435,0.11153248,-0.04328137,0.0,0.0,0.0,0.044625387,0.5,0.0,0.0,-0.05727363,-0.087705806,0.07583404,-0.08569022,0.16356497,-0.07106632,0.033594858,0.011848197,-0.03541331,0.098876536,-0.08974865,0.06876587,0.041223627,0.12223479,-0.0072470037,0.00398524,-0.049608447,0.009735739,0.0072325068,0.18082802,-0.030706925,-0.02376533,-0.119756125,-0.0047219708,-1.0,1.0,1.0,-1.0,-1.0,-1.0,1.0,0.5709044,-1.0,1.0,-0.5386087,1.0,-1.0,1.0,1.0,-0.63770324,-1.0,-1.0,1.0,-0.114084035,1.0,1.0,1.0,1.0
2025-07-21 16:00:53.079,1.9000000000000012,1900,95,-0.075023994,0.098499745,0.0010850547,-0.18488282,0.055316318,-0.08479525,-0.0310176,0.08694676,0.015323308,0.0,0.0,0.0,0.046845518,0.5,0.0,0.0,-0.06614855,-0.045224678,0.06650021,-0.08692774,0.13019007,-0.09294718,0.056758672,0.013639543,-0.00580204,0.10178281,-0.06868324,0.08643799,0.02437657,0.0781237,0.06850881,0.041851405,-0.1549593,-0.07892429,0.115078166,-0.016372558,0.10692317,0.045276396,0.15019502,-0.018116832,-1.0,1.0,1.0,-0.63770324,-1.0,-1.0,1.0,-0.114084035,1.0,1.0,1.0,1.0,-1.0,-0.70445335,1.0,-0.90511906,-1.0,-1.0,-1.0,-1.0,1.0,1.0,-1.0,1.0
2025-07-21 16:00:53.103,1.9200000000000013,1920,96,-0.16899945,0.054648686,0.2003863,0.2144198,-0.15808484,-0.019259168,-0.072163984,0.1223573,0.035588805,0.0,0.0,0.0,0.049201403,0.5,0.0,0.0,-0.07987412,-0.041827694,0.08436927,-0.098243184,0.030652473,-0.11039973,0.04185069,-0.044109236,0.022962894,0.0990123,-0.06336109,0.08985642,-0.031588294,-0.11525772,-0.022279784,0.042921375,-0.281199,-0.021357646,-0.0385948,-0.11747043,0.013073994,0.07741957,-0.12048388,0.08183077,-1.0,-0.70445335,1.0,-0.90511906,-1.0,-1.0,-1.0,-1.0,1.0,1.0,-1.0,1.0,-1.0,1.0,1.0,0.016896114,0.5117204,-0.8914955,0.011794087,0.37449256,-0.72709036,1.0,-1.0,1.0
2025-07-21 16:00:53.119,1.9400000000000013,1940,97,-0.19773524,-0.17788392,0.043405112,0.04681882,-0.0018007843,-0.051893383,-0.08910081,0.039630894,-0.03739025,0.0,0.0,0.0,0.05068587,0.5,0.0,0.0,-0.08093114,-0.016497537,0.08511744,-0.085581645,0.02869817,-0.10486531,0.018438479,-0.05355182,0.0035822794,0.11104613,-0.10215179,0.09419401,-0.08014981,0.12609753,0.07798743,0.06606538,0.08028534,-0.024958022,0.04836438,0.1174337,-0.07614034,-0.067645594,-0.04097168,-0.014458513,-1.0,1.0,1.0,0.016896114,0.5117204,-0.8914955,0.011794087,0.37449256,-0.72709036,1.0,-1.0,1.0,-1.0,1.0,1.0,-1.0,-1.0,-1.0,1.0,0.69477475,-1.0,1.0,-1.0,1.0
2025-07-21 16:00:53.139,1.9600000000000013,1960,98,0.0114012975,0.02929529,0.12956187,0.0693324,-0.047085404,-0.17125972,-0.063312754,0.06270978,0.04371416,0.0,0.0,0.0,0.052188333,0.5,0.0,0.0,-0.08152902,0.010341825,0.098248854,-0.099599704,0.00061213004,-0.11494508,0.048208013,0.016817346,-0.022340273,0.1020347,-0.13142502,0.1208194,-0.0012930324,0.1272061,-0.0738094,0.008977027,-0.13417868,0.0540349,0.028617432,0.1962918,-0.07963284,0.058903243,-0.04189155,0.040625982,-1.0,1.0,1.0,-1.0,-1.0,-1.0,1.0,0.69477475,-1.0,1.0,-1.0,1.0,-1.0,-1.0,1.0,-0.022860825,-1.0,0.40462464,1.0,-1.0,1.0,1.0,1.0,1.0
2025-07-21 16:00:53.159,1.9800000000000013,1980,99,-0.13994655,0.041749444,0.097987995,0.087847546,-0.0413011,-0.063576415,-0.103267066,0.061088633,-0.043119404,0.0,0.0,0.0,0.05494832,0.5,0.0,0.0,-0.09261159,0.031310186,0.09636433,-0.0874818,-0.07701007,-0.083893396,0.069039926,-0.0042845835,-0.002224718,0.117921144,-0.12672837,0.12509945,0.026328055,-0.09653508,-0.018830983,0.060209677,-0.09054167,0.008243904,0.033441313,-0.23524095,0.05148191,-0.022241563,0.01420076,0.06838162,-1.0,-1.0,1.0,-0.022860825,-1.0,0.40462464,1.0,-1.0,1.0,1.0,1.0,1.0,-1.0,1.0,-1.0,1.0,1.0,1.0,-1.0,-1.0,1.0,1.0,1.0,1.0
2025-07-21 16:00:53.204,2.0000000000000013,2000,100,-0.07469412,0.060966715,0.18297273,-0.12231739,0.29244348,-0.08455486,-0.1116966,0.07521751,-0.02435793,0.0,0.0,0.0,0.057085022,0.5,0.0,0.0,-0.10347914,0.071467504,0.059206143,-0.068561226,-0.09163284,-0.060941514,0.0511863,-0.08163168,0.023100058,0.12108159,-0.061788652,0.122996315,-0.06125867,0.23014769,-0.15119024,0.10731245,-0.013891465,0.06926644,-0.08370106,-0.1812279,0.011472102,0.08339911,0.21915375,-0.070194885,-1.0,1.0,-1.0,1.0,1.0,1.0,-1.0,-1.0,1.0,1.0,1.0,1.0,1.0,1.0,-1.0,0.09892601,1.0,1.0,-1.0,-1.0,1.0,1.0,1.0,0.8283739
2025-07-21 16:00:53.228,2.0200000000000014,2020,101,0.18585694,-0.20052205,-0.15457368,-0.24218796,0.4770979,-0.0047329874,-0.10737889,0.012621974,0.03646335,0.0,0.0,0.0,0.058324397,0.5,0.0,0.0,-0.068835124,0.14084692,0.02890463,-0.046703428,-0.04910944,-0.018705305,0.0015255777,-0.13335799,0.041768722,0.13938244,0.01704979,0.11889513,0.17744155,0.101016164,-0.10514859,0.057558835,0.23667295,0.066778556,-0.14034049,-0.0671784,0.090669885,-0.053955294,0.23798509,-0.062457733,1.0,1.0,-1.0,0.09892601,1.0,1.0,-1.0,-1.0,1.0,1.0,1.0,0.8283739,1.0,-0.6233214,-1.0,0.9954078,-1.0,1.0,-1.0,-1.0,-0.052901745,1.0,-1.0,1.0
2025-07-21 16:00:53.248,2.0400000000000014,2040,102,-0.24903707,0.2646076,-0.10655172,-0.020455724,0.6459467,0.0076830084,-0.059333626,-0.006284355,0.015422499,0.0,0.0,0.0,0.058598824,0.5,0.0,0.0,-0.028372945,0.13138685,-0.01991584,-0.01142441,-0.015511881,0.0122763375,-0.018343264,-0.19126816,0.04036245,0.13875738,0.024444045,0.12562595,0.09035672,-0.079532534,-0.01614707,0.060705062,0.03527964,0.0070740487,-0.10813978,-0.18893388,0.016066104,-0.059329633,-0.10488645,0.033359405,1.0,-0.6233214,-1.0,0.9954078,-1.0,1.0,-1.0,-1.0,-0.052901745,1.0,-1.0,1.0,1.0,-1.0,-1.0,0.8483743,1.0,1.0,-1.0,1.0,1.0,-0.5740162,1.0,-1.0
2025-07-21 16:00:53.270,2.0600000000000014,2060,103,0.26810306,-0.09237059,-0.3565621,-0.380464,0.21097037,-0.035649896,0.014944202,0.014563057,-0.009546007,0.0,0.0,0.0,0.058879882,0.5,0.0,0.0,0.01160237,0.0505105,-0.037576597,0.018542482,0.0078574335,0.02072514,-0.04385423,-0.17997171,0.039868925,0.09920052,0.043590613,0.08112534,0.018918497,-0.2131391,-0.11329862,0.004877804,0.14405276,0.040070795,-0.0010670526,0.020246651,-0.016266525,-0.13481708,0.16028745,-0.1842907,1.0,-1.0,-1.0,0.8483743,1.0,1.0,-1.0,1.0,1.0,-0.5740162,1.0,-1.0,1.0,1.0,-1.0,1.0,-1.0,1.0,-1.0,-1.0,1.0,-1.0,0.020769697,-1.0
2025-07-21 16:00:53.305,2.0800000000000014,2080,104,-0.081355095,-0.04702121,-0.124944486,-0.008955758,0.064955994,-0.18837075,0.046683624,0.008776533,-0.02906707,0.0,0.0,0.0,0.059342347,0.5,0.0,0.0,0.025806095,0.0079270825,-0.053394645,0.018898074,0.03371153,0.035582308,-0.044608824,-0.16737232,0.07336179,0.060858157,0.055675417,0.037145965,0.10140601,0.028551836,-0.11727049,-0.019905051,-0.013699179,0.08145441,-0.043190144,-0.059651084,-0.0131601645,-0.16890272,0.016884541,-0.02412251,1.0,1.0,-1.0,1.0,-1.0,1.0,-1.0,-1.0,1.0,-1.0,0.020769697,-1.0,1.0,0.51925164,-1.0,1.0,1.0,1.0,-1.0,-1.0,1.0,-1.0,1.0,-1.0
2025-07-21 16:00:53.325,2.1000000000000014,2100,105,0.079924345,0.111755624,-0.24771218,0.028803565,-0.07704108,-0.056870602,0.01073401,0.023037009,-0.048369642,0.0,0.0,0.0,0.061351404,0.5,0.0,0.0,0.050862312,0.05259853,-0.07984746,0.03665381,0.048926108,0.052763253,-0.05465722,-0.18024896,0.07712892,0.03250967,0.10085032,0.01033563,0.017901065,0.15275313,0.02162597,-0.047851045,0.08803053,-0.026933983,-0.08685581,-0.026828589,-0.019346183,-0.15729192,0.10658674,-0.08949577,1.0,0.51925164,-1.0,1.0,1.0,1.0,-1.0,-1.0,1.0,-1.0,1.0,-1.0,1.0,-0.84213305,-1.0,1.0,0.15560445,1.0,-1.0,-1.0,1.0,0.40876794,-0.69009,-1.0
2025-07-21 16:00:53.345,2.1200000000000014,2120,106,-0.2006755,0.1522249,0.23748939,0.29415685,-0.06985944,-0.03057799,0.028451918,-0.04340956,0.027397685,0.0,0.0,0.0,0.06285435,0.5,0.0,0.0,0.08643092,0.021253485,-0.08556653,0.046931405,0.046572097,0.055458013,-0.07003328,-0.21610844,0.08879312,0.025079321,0.08495322,-0.030001886,0.11166883,-0.24404365,0.020418372,0.036649715,0.030483754,0.05054929,-0.08769701,-0.067966,-0.04319724,0.049682967,-0.21245687,-0.07712734,1.0,-0.84213305,-1.0,1.0,0.15560445,1.0,-1.0,-1.0,1.0,0.40876794,-0.69009,-1.0,1.0,1.0,-1.0,1.0,1.0,1.0,-1.0,-1.0,1.0,-0.058266863,1.0,-1.0
2025-07-21 16:00:53.370,2.1400000000000015,2140,107,0.17294368,-0.008939484,-0.034392945,0.13040964,-0.01487975,0.08559465,-0.054895587,-0.021812534,-0.041465513,0.0,0.0,0.0,0.063183725,0.5,0.0,0.0,0.08320955,0.01321716,-0.09917972,0.060953163,0.07338452,0.05967095,-0.07818347,-0.2376659,0.10204525,0.033213414,0.09346792,-0.04617705,-0.026571091,0.06431859,-0.095349,-0.0011904337,0.11520316,0.05198799,-0.046377625,-0.0785596,0.06679131,0.0011264873,0.09972144,-0.04947741,1.0,1.0,-1.0,1.0,1.0,1.0,-1.0,-1.0,1.0,-0.058266863,1.0,-1.0,1.0,0.2116427,-1.0,1.0,-1.0,1.0,-1.0,-0.7899873,1.0,0.2805537,-1.0,-1.0
2025-07-21 16:00:53.386,2.1600000000000015,2160,108,-0.06896558,0.121593766,0.15305877,0.3370406,0.05032266,-0.062037997,-0.028046194,-0.08556302,-0.0052506113,0.0,0.0,0.0,0.06327157,0.5,0.0,0.0,0.10245345,0.03427468,-0.10394286,0.05831414,0.08163673,0.083805814,-0.06765802,-0.2676659,0.10595465,0.033731893,0.080928944,-0.061684478,0.011063516,0.05810043,-0.07943706,0.091792814,-0.109321296,-0.014441255,-0.01796545,-0.013598685,-0.0087778,-0.050189175,-0.09259109,-0.039496437,1.0,0.2116427,-1.0,1.0,-1.0,1.0,-1.0,-0.7899873,1.0,0.2805537,-1.0,-1.0,0.95136905,-1.0,-1.0,1.0,1.0,1.0,-1.0,-0.9646032,1.0,-0.745274,1.0,-1.0
2025-07-21 16:00:53.405,2.1800000000000015,2180,109,-0.14345166,0.25234786,-0.14165692,0.16920826,0.005128738,0.056540776,-0.091059595,-0.007828176,0.02195387,0.0,0.0,0.0,0.06407171,0.5,0.0,0.0,0.11569212,-0.005129793,-0.1082323,0.077745974,0.09825033,0.08808461,-0.07798314,-0.28262728,0.122541435,-0.00011833475,0.06768217,-0.08426531,0.06009493,-0.23204923,-0.035710048,0.0055181924,0.10729118,-0.043571968,-0.06525244,-0.042574104,0.001586232,-0.09934477,0.11519647,-0.049035247,0.95136905,-1.0,-1.0,1.0,1.0,1.0,-1.0,-0.9646032,1.0,-0.745274,1.0,-1.0,1.0,0.70396405,1.0,1.0,0.11979339,1.0,-1.0,0.22283247,1.0,-0.33552492,-1.0,-1.0
2025-07-21 16:00:53.425,2.2000000000000015,2200,110,0.0043488173,0.35977656,0.114463024,0.13873854,0.12975341,-0.15808184,-0.043163516,-0.023440095,0.011169638,0.0,0.0,0.0,0.064682834,0.5,0.0,0.0,0.12397626,-0.01759117,-0.078462,0.08908764,0.09210462,0.093931966,-0.09902059,-0.26701748,0.11499661,-0.0055650836,0.06374053,-0.08956371,0.0456676,0.066350386,0.16210811,0.08120568,-0.04156821,0.045406777,-0.03610373,0.0988035,-0.010535048,-0.034744773,-0.21322495,-0.066987045,1.0,0.70396405,1.0,1.0,0.11979339,1.0,-1.0,0.22283247,1.0,-0.33552492,-1.0,-1.0,-1.0,-1.0,-0.80400395,1.0,1.0,1.0,-0.99303573,-1.0,1.0,-1.0,1.0,-0.663579
2025-07-21 16:00:53.445,2.2200000000000015,2220,111,0.27597237,0.029789638,0.17325377,0.062017266,0.05164212,0.11893631,-0.079437494,-0.062401414,0.00661762,0.0,0.0,0.0,0.066464,0.5,0.0,0.0,0.08894645,-0.045913063,-0.07749544,0.09666233,0.118793756,0.09878731,-0.09761823,-0.27125105,0.11609863,-0.023037491,0.07455908,-0.10266686,-0.1761054,-0.16640092,-0.042436257,0.052690506,0.06221186,0.004755323,-0.076918975,-0.086981565,0.056991324,-0.057276316,0.10955164,0.020673972,-1.0,-1.0,-0.80400395,1.0,1.0,1.0,-0.99303573,-1.0,1.0,-1.0,1.0,-0.663579,1.0,1.0,0.22444308,0.2688952,-1.0,1.0,-1.0,0.91806936,1.0,-1.0,-1.0,-1.0
2025-07-21 16:00:53.470,2.2400000000000015,2240,112,0.41805387,0.37935525,0.07180592,0.06343129,0.043674245,-0.18901666,-0.08673873,-0.032931317,0.00022408755,0.0,0.0,0.0,0.06718395,0.5,0.0,0.0,0.07647349,-0.0621619,-0.058096185,0.09440532,0.13170813,0.11134522,-0.10001445,-0.23351876,0.12085355,-0.057063613,0.058792643,-0.112824894,0.07330424,0.08484485,0.060212757,-0.00934452,-0.0073391977,0.09012835,-0.09032291,0.073353045,0.043232664,-0.09230107,-0.15299125,0.05195274,1.0,1.0,0.22444308,0.2688952,-1.0,1.0,-1.0,0.91806936,1.0,-1.0,-1.0,-1.0,-1.0,-1.0,1.0,1.0,-1.0,1.0,0.3967065,-1.0,1.0,-1.0,1.0,-0.87622
2025-07-21 16:00:53.486,2.2600000000000016,2260,113,-0.013048923,0.0584806,0.20791751,0.1346636,-0.084558,0.08288901,-0.08822015,-0.08975235,-0.04753707,0.0,0.0,0.0,0.06895193,0.5,0.0,0.0,0.08078,-0.078118965,-0.0331716,0.080269195,0.12649201,0.108125366,-0.09997854,-0.24551554,0.12163532,-0.07184306,0.052692555,-0.11535311,-0.057792235,-0.056975767,0.15388864,-0.045511402,-0.10635538,0.02051584,-0.012873362,-0.016593264,-0.0047327727,-0.009787052,0.15033753,0.037198354,-1.0,-1.0,1.0,1.0,-1.0,1.0,0.3967065,-1.0,1.0,-1.0,1.0,-0.87622,-1.0,1.0,-1.0,0.4480279,1.0,1.0,-1.0,1.0,1.0,0.91526973,-1.0,1.0
2025-07-21 16:00:53.506,2.2800000000000016,2280,114,0.41213548,0.24120684,0.14297608,-0.11858267,-0.102979444,-0.010326217,-0.05015233,-0.053721152,0.034595583,0.0,0.0,0.0,0.07040412,0.5,0.0,0.0,0.034606554,-0.053558476,-0.047431808,0.08455779,0.14222635,0.11465562,-0.10421268,-0.21493031,0.13244416,-0.042008426,0.036179528,-0.068080045,-0.13490888,0.16874902,0.006488218,0.05332676,0.12090816,-0.06775132,-0.079281956,0.07843923,-0.069583036,0.09807118,-0.09365688,0.04748012,-1.0,1.0,-1.0,0.4480279,1.0,1.0,-1.0,1.0,1.0,0.91526973,-1.0,1.0,0.4251108,1.0,1.0,-1.0,-1.0,1.0,-1.0,-1.0,1.0,1.0,1.0,-1.0
2025-07-21 16:00:53.526,2.3000000000000016,2300,115,0.199753,-0.07632175,0.34019843,-0.1294685,-0.24502006,-0.09411869,-0.04594532,-0.05909112,0.0073541114,0.0,0.0,0.0,0.07031292,0.5,0.0,0.0,0.04627149,0.004586604,-0.04048554,0.058548547,0.15561144,0.13190624,-0.12745985,-0.20324728,0.13882704,-0.013547161,0.043256175,-0.085837744,0.06473355,0.10845529,0.052896187,-0.03426641,-0.031346004,0.06528368,-0.051919393,0.019776117,-0.022884237,0.12629467,0.15819907,0.016130803,0.4251108,1.0,1.0,-1.0,-1.0,1.0,-1.0,-1.0,1.0,1.0,1.0,-1.0,-1.0,-0.54990876,-1.0,1.0,-1.0,1.0,1.0,-1.0,1.0,-1.0,-0.21755286,-1.0
2025-07-21 16:00:53.546,2.3200000000000016,2320,116,0.07833644,-0.039408494,0.2534634,0.17019638,0.1969523,-0.0016099369,-0.03969813,-0.050207894,-0.03728511,0.0,0.0,0.0,0.071363986,0.5,0.0,0.0,0.016361635,0.011746494,-0.05521577,0.040539086,0.13421667,0.1314272,-0.095283225,-0.2276385,0.14012088,-0.015083587,0.05074485,-0.09605825,-0.11633599,-0.1344096,-0.10830452,0.09683154,-0.105769426,0.056910265,0.062710494,-0.058797725,0.0023142986,-0.0061394847,-0.08801225,0.026175793,-1.0,-0.54990876,-1.0,1.0,-1.0,1.0,1.0,-1.0,1.0,-1.0,-0.21755286,-1.0,1.0,-0.62244445,-1.0,-0.40622437,-0.8921982,1.0,-1.0,-0.9977951,1.0,-0.93783796,1.0,-1.0
2025-07-21 16:00:53.570,2.3400000000000016,2340,117,-0.14294156,0.13014819,0.007771756,0.22834103,0.02556271,-0.049450144,-0.083904766,-0.08798011,-0.029130826,0.0,0.0,0.0,0.072004184,0.5,0.0,0.0,0.024030022,-0.04276065,-0.062649384,0.029502908,0.10478669,0.12976244,-0.10252207,-0.2667785,0.13679923,-0.03458694,0.076892115,-0.11215946,0.059425,-0.16033855,-0.08386825,-0.044797026,-0.12801303,0.009171359,-0.08112365,-0.11337506,-0.057653345,-0.085975826,0.10916457,-0.0022703866,1.0,-0.62244445,-1.0,-0.40622437,-0.8921982,1.0,-1.0,-0.9977951,1.0,-0.93783796,1.0,-1.0,1.0,0.7547064,-1.0,1.0,1.0,1.0,-1.0,0.62751603,1.0,0.6364716,0.8272329,-1.0
2025-07-21 16:00:53.587,2.3600000000000017,2360,118,0.20651016,0.15153535,-0.51731944,-0.0035831816,0.4182425,-0.05865915,-0.094549745,-0.04959162,0.01078967,0.0,0.0,0.0,0.07332653,0.5,0.0,0.0,0.048488524,-0.027865088,-0.08553339,0.048135944,0.10330022,0.12706657,-0.10449709,-0.22827522,0.1410658,-0.029806536,0.11547272,-0.106437765,0.01631797,0.17426233,0.023514178,0.06246702,0.13103597,-0.07715995,0.026907029,0.253836,-0.029139712,0.08818367,0.11804318,-0.07306741,1.0,0.7547064,-1.0,1.0,1.0,1.0,-1.0,0.62751603,1.0,0.6364716,0.8272329,-1.0,0.27669117,-1.0,-0.05629766,1.0,-1.0,1.0,-0.33899722,-1.0,1.0,-1.0,-0.7167482,-1.0
2025-07-21 16:00:53.606,2.3800000000000017,2380,119,-0.067252845,-0.26877213,0.0056192246,0.14208797,0.04199237,-0.045897435,-0.1083096,-0.11448866,0.01774809,0.0,0.0,0.0,0.07493,0.5,0.0,0.0,0.056829292,0.0011144466,-0.08722927,0.06689499,0.11556963,0.1483421,-0.1074582,-0.20340443,0.14912798,-0.040199466,0.093668714,-0.11578374,0.027203396,-0.023734113,0.007851505,-0.0028701595,-0.065494314,-0.0259355,0.070614144,0.03841269,0.08030239,-0.06447162,-0.17924336,0.04407758,0.27669117,-1.0,-0.05629766,1.0,-1.0,1.0,-0.33899722,-1.0,1.0,-1.0,-0.7167482,-1.0,-0.5137916,0.21616183,-1.0,0.4862384,-0.74787563,1.0,-1.0,-1.0,1.0,0.92067456,-0.983028,0.9532678
2025-07-21 16:00:53.626,2.4000000000000017,2400,120,-0.29702893,0.040391807,0.28807297,0.20207903,-0.052505005,-0.055453945,-0.13764368,-0.11589402,-0.003876023,0.0,0.0,0.0,0.076206446,0.5,0.0,0.0,0.0333564,0.014343441,-0.10757287,0.07892,0.097112566,0.1509254,-0.11939165,-0.2336968,0.14655922,-0.015337029,0.0022561017,-0.07437232,-0.016605511,0.054139744,-0.0047125556,-0.05471738,-0.062868804,-0.027609788,-0.022267142,-0.11970408,0.04345678,0.043338824,-0.24318057,0.063294485,-0.5137916,0.21616183,-1.0,0.4862384,-0.74787563,1.0,-1.0,-1.0,1.0,0.92067456,-0.983028,0.9532678,1.0,-1.0,1.0,1.0,1.0,1.0,-0.26842526,-0.8141122,1.0,1.0,1.0,1.0
2025-07-21 16:00:53.647,2.4200000000000017,2420,121,-0.08713161,-0.41420048,0.17208588,-0.1753064,0.12951821,-0.0537912,-0.099608935,-0.105834335,-0.021181418,0.0,0.0,0.0,0.07701187,0.5,0.0,0.0,0.057219524,-0.0064098556,-0.0653281,0.087854154,0.12627816,0.13740791,-0.10836496,-0.25574082,0.14064328,0.016549049,-0.004432193,-0.036645584,-0.018272955,0.018191768,0.06299815,-0.015965918,0.13924159,0.012255853,-0.029888883,-0.050488036,0.06566572,0.036567606,0.08195103,0.02405628,1.0,-1.0,1.0,1.0,1.0,1.0,-0.26842526,-0.8141122,1.0,1.0,1.0,1.0,-1.0,1.0,-1.0,-1.0,-1.0,1.0,1.0,-0.42058286,0.07853055,1.0,-0.03890275,1.0
2025-07-21 16:00:53.670,2.4400000000000017,2440,122,-0.3253297,-0.3311012,-0.10351196,-0.26228383,-0.11939877,-0.082284115,-0.13213465,-0.047391195,0.042459305,0.0,0.0,0.0,0.07793084,0.5,0.0,0.0,0.02744946,0.03202892,-0.08974396,0.06821672,0.15368994,0.1533043,-0.06316444,-0.24084151,0.120483294,0.032787196,0.004539417,-0.009620343,-0.16484883,0.109830484,-0.079094075,-0.073787585,0.021116693,-0.009374186,0.068896994,0.016435126,-0.050793618,0.07876328,-0.009958829,0.018392427,-1.0,1.0,-1.0,-1.0,-1.0,1.0,1.0,-0.42058286,0.07853055,1.0,-0.03890275,1.0,-1.0,-1.0,-1.0,-0.94571024,-1.0,1.0,-1.0,1.0,1.0,1.0,-1.0,1.0
2025-07-21 16:00:53.687,2.4600000000000017,2460,123,-0.14671163,0.14317663,-0.21790181,-0.18611217,-0.21611495,-0.07542544,-0.059821863,-0.09071256,0.026067123,0.0,0.0,0.0,0.07769757,0.5,0.0,0.0,-0.01625876,0.036079876,-0.085827485,0.032600865,0.12307339,0.14755842,-0.07157946,-0.20034756,0.13675644,0.0587382,-0.044708174,0.022179028,-0.060382962,-0.098955266,0.00883934,-0.05983058,-0.083859004,-0.051343005,-0.015386846,0.27464092,-0.0088447565,0.118251786,-0.16300723,0.051477175,-1.0,-1.0,-1.0,-0.94571024,-1.0,1.0,-1.0,1.0,1.0,1.0,-1.0,1.0,0.4487197,-0.69122183,1.0,1.0,0.09088192,1.0,-1.0,-1.0,1.0,1.0,1.0,1.0
2025-07-21 16:00:53.707,2.4800000000000018,2480,124,-0.5092121,-0.09488797,-0.13126136,-0.088618934,0.04807083,-0.043165218,-0.10164445,-0.017328097,-0.04253261,0.0,0.0,0.0,0.079067715,0.5,0.0,0.0,-0.0052844738,-0.016770823,-0.060897637,0.033367597,0.12166966,0.14889501,-0.09062065,-0.16059168,0.13080005,0.0965697,-0.05869679,0.048435062,0.036912125,-0.042536836,0.10197726,-0.022606224,0.0016164753,0.071752235,-0.05383901,0.0115149785,0.007709617,0.108372934,0.03053168,0.117876165,0.4487197,-0.69122183,1.0,1.0,0.09088192,1.0,-1.0,-1.0,1.0,1.0,1.0,1.0,-1.0,1.0,-1.0,-0.32592434,0.64164114,1.0,-1.0,-1.0,1.0,1.0,1.0,1.0
2025-07-21 16:00:53.727,2.5000000000000018,2500,125,-0.33681363,0.019613374,-0.48648527,-0.14673282,-0.28322792,0.022447342,-0.0959507,-0.021815553,0.023637816,0.0,0.0,0.0,0.08095984,0.5,0.0,0.0,-0.028387893,-0.009644554,-0.077562615,0.0061572893,0.14008151,0.14116699,-0.09749432,-0.18704735,0.13844222,0.106841415,0.003996233,0.06568689,-0.107233755,0.064898565,-0.114041634,-0.08985338,0.04252382,-0.05006197,-0.092866525,-0.096898675,-0.052213855,0.014355038,0.20887028,0.004583143,-1.0,1.0,-1.0,-0.32592434,0.64164114,1.0,-1.0,-1.0,1.0,1.0,1.0,1.0,0.40473625,1.0,-1.0,1.0,-1.0,1.0,-1.0,-1.0,1.0,1.0,0.7503539,1.0
2025-07-21 16:00:53.750,2.520000000000002,2520,126,-0.3929264,-0.08540105,-0.16904055,0.11218953,0.004705604,-0.052659016,-0.02074366,-0.029476805,-0.003548357,0.0,0.0,0.0,0.080382414,0.5,0.0,0.0,-0.0003590848,0.04059123,-0.10432338,0.012550294,0.14090998,0.141039,-0.0978088,-0.20575719,0.14631578,0.11812172,0.06538288,0.07527045,0.057183255,0.17491008,0.015624139,0.030780112,-0.10250647,0.04145382,-0.0082500195,-0.009279535,0.018648736,-0.023400454,0.12617244,-0.03383387,0.40473625,1.0,-1.0,1.0,-1.0,1.0,-1.0,-1.0,1.0,1.0,0.7503539,1.0,1.0,-0.3829751,-1.0,1.0,1.0,1.0,-1.0,-1.0,1.0,1.0,-1.0,1.0
2025-07-21 16:00:53.770,2.540000000000002,2540,127,-0.44726044,-0.077584304,0.0030179743,0.13907874,-0.03385339,-0.06078568,-0.039496727,-0.05349522,-0.027450154,0.0,0.0,0.0,0.08096781,0.5,0.0,0.0,0.028016608,0.04861431,-0.11077171,0.03039834,0.15870868,0.13545512,-0.10435755,-0.23215955,0.13680372,0.13653393,0.05519592,0.092371225,0.10620152,-0.15500318,-0.06536073,0.030221475,0.0754757,0.043374844,0.067195185,-0.07083739,0.02916768,0.043172713,-0.15394293,-0.02406395,1.0,-0.3829751,-1.0,1.0,1.0,1.0,-1.0,-1.0,1.0,1.0,-1.0,1.0,1.0,1.0,0.94218284,-1.0,-1.0,0.12384921,-0.8932671,0.40897718,1.0,1.0,1.0,1.0
2025-07-21 16:00:53.788,2.560000000000002,2560,128,-0.3458084,-0.0468302,-0.24287382,-0.1428753,-0.24069801,-0.20298117,-0.08202897,0.0309983,0.044766225,2.0,0.0,0.0,0.08268194,0.7655069,0.0,0.0,0.039233055,0.041428413,-0.06652693,0.0056320103,0.16754268,0.11485169,-0.10961672,-0.22718187,0.13377559,0.13804041,0.062917836,0.10883743,0.083648525,0.013839643,0.13273542,-0.025497707,0.055552132,0.020592831,-0.018977078,0.050585605,0.04168073,0.015581183,0.16342178,-0.011839983,1.0,1.0,0.94218284,-1.0,-1.0,0.12384921,-0.8932671,0.40897718,1.0,1.0,1.0,1.0,1.0,1.0,-1.0,0.5746607,-1.0,1.0,-1.0,1.0,1.0,-0.19209413,0.99007696,0.67533696
2025-07-21 16:00:53.808,2.580000000000002,2580,129,-0.26138595,-0.29976815,-0.035986755,-0.17974861,0.08781978,-0.3345084,-0.103549406,0.02973093,0.04895593,2.0,0.0,0.0,0.08468,0.5623351,0.0,0.0,0.06367291,0.100667246,-0.08429302,0.0043504327,0.16794789,0.1303149,-0.12829328,-0.15481971,0.13095929,0.11623712,0.11252673,0.09685096,-0.015198343,0.08160566,-0.058453534,0.011104468,-0.09576027,-0.026146991,0.029826693,0.1546208,0.05162697,-0.12003713,0.13490252,-0.01767393,1.0,1.0,-1.0,0.5746607,-1.0,1.0,-1.0,1.0,1.0,-0.19209413,0.99007696,0.67533696,1.0,-1.0,-1.0,1.0,1.0,1.0,-1.0,-1.0,1.0,-1.0,-1.0,-1.0
2025-07-21 16:00:53.828,2.600000000000002,2600,130,0.007912422,0.019349532,0.023776244,0.12603717,0.09194729,-0.122244366,-0.086810686,0.0115010915,0.036319364,2.0,0.0,0.0,0.0893617,0.32376814,0.0,0.0,0.08808124,0.09656687,-0.103976965,0.0352042,0.1736689,0.11140599,-0.13191193,-0.14661595,0.13181259,0.07592418,0.11583766,0.06249102,0.039640512,-0.084403545,0.034220807,-0.025519526,0.029307675,-0.053934082,-0.03524093,0.035985395,0.0470412,-0.12355362,-0.18552312,-0.10581913,1.0,-1.0,-1.0,1.0,1.0,1.0,-1.0,-1.0,1.0,-1.0,-1.0,-1.0,1.0,-1.0,-1.0,1.0,1.0,1.0,-0.41505912,1.0,1.0,-1.0,-1.0,-1.0
2025-07-21 16:00:53.849,2.620000000000002,2620,131,-0.18477848,-0.25478324,-0.08694026,-0.05024701,0.13074133,-0.17148496,-0.110344395,-0.04513357,-0.014356267,2.0,0.0,0.0,0.094337784,0.17072313,0.0,0.0,0.093624495,0.0056383424,-0.11091275,0.047053546,0.2234348,0.12442443,-0.1259965,-0.10448505,0.13066815,0.024097933,0.028458234,0.019314043,0.09904634,-0.245825,0.047648054,0.035867378,0.13435856,-0.056349155,0.06576854,0.09949016,-0.0830749,-0.14545414,-0.14011244,-0.109800674,1.0,-1.0,-1.0,1.0,1.0,1.0,-0.41505912,1.0,1.0,-1.0,-1.0,-1.0,1.0,-1.0,-1.0,0.7746059,0.2938212,1.0,-1.0,0.9560547,1.0,1.0,-1.0,-1.0
2025-07-21 16:00:53.869,2.640000000000002,2640,132,0.17153871,0.16661589,-0.34568444,-0.034426093,0.087199785,-0.17643793,-0.031279713,-0.056615822,-0.009152791,2.0,0.0,0.0,0.097625874,0.09668144,0.0,0.0,0.11056523,-0.06296607,-0.11919881,0.07808453,0.22522864,0.12624058,-0.11804537,-0.035951585,0.13176602,0.039487723,-0.045964155,-0.004055559,0.09703241,-0.12701648,0.025432972,-0.020385979,0.04502705,-0.014287535,0.049025204,0.24070527,-0.0036599757,-0.00048572416,-0.13603371,-0.04040521,1.0,-1.0,-1.0,0.7746059,0.2938212,1.0,-1.0,0.9560547,1.0,1.0,-1.0,-1.0,-0.4641935,-1.0,-1.0,1.0,1.0,1.0,1.0,-1.0,1.0,1.0,-1.0,-1.0
2025-07-21 16:00:53.888,2.660000000000002,2660,133,0.35305607,-0.0070543303,-0.16126896,0.1409587,0.15379626,0.04919943,-0.03674789,-0.023391083,-0.029721724,2.0,0.0,0.0,0.10129001,0.060653854,0.0,0.0,0.09565651,-0.12005447,-0.12299271,0.08483784,0.24842748,0.122205615,-0.09804902,-0.014482682,0.122081146,0.06367322,-0.11853045,-0.029599588,-0.06466062,-0.16917165,-0.073007435,0.1096747,0.016230391,0.028743308,0.09899954,-0.012731797,0.0057282755,0.07428764,-0.12928616,-0.09105127,-0.4641935,-1.0,-1.0,1.0,1.0,1.0,1.0,-1.0,1.0,1.0,-1.0,-1.0,1.0,-1.0,-1.0,1.0,1.0,1.0,-1.0,0.24094382,1.0,1.0,0.061156314,-1.0
2025-07-21 16:00:53.908,2.680000000000002,2680,134,0.010490329,-0.10217449,-0.38866392,-0.00038303336,-0.096726105,0.040019408,-0.10877301,-0.023712518,-0.043489832,2.0,0.0,0.0,0.1027228,0.04153163,0.0,0.0,0.08755969,-0.16748782,-0.14077114,0.085525155,0.28420547,0.13719554,-0.08891699,0.00079899654,0.13593505,0.09523976,-0.12867668,-0.047635373,0.089883454,-0.12993547,-0.0004933576,0.07400912,0.07567863,0.043204237,0.0038138095,0.0871727,-0.0546622,0.047863897,0.09527266,-0.033972997,1.0,-1.0,-1.0,1.0,1.0,1.0,-1.0,0.24094382,1.0,1.0,0.061156314,-1.0,0.12561487,-1.0,-1.0,1.0,-0.18694153,1.0,-1.0,1.0,1.0,1.0,-1.0,-1.0
2025-07-21 16:00:53.928,2.700000000000002,2700,135,0.24360372,-0.21541816,-0.19977258,0.07072088,-0.032604557,-0.08272582,-0.11485569,-0.060934864,0.011220696,2.0,0.0,0.0,0.10239803,0.030466205,0.0,0.0,0.080992915,-0.2218232,-0.13609326,0.10344553,0.29803774,0.13837607,-0.092715584,0.05923827,0.12596525,0.09501713,-0.15190162,-0.06923213,-0.023472238,-0.029404784,-0.05838616,-0.034930423,0.06408647,-0.0010250434,0.017037548,0.15982462,-0.03876256,-0.022953046,-0.073058344,-0.010609995,0.12561487,-1.0,-1.0,1.0,-0.18694153,1.0,-1.0,1.0,1.0,1.0,-1.0,-1.0,-1.0,-1.0,0.75556064,1.0,1.0,1.0,-1.0,-0.8614973,1.0,1.0,-1.0,1.0
2025-07-21 16:00:53.948,2.720000000000002,2720,136,-0.089311,-0.515056,-0.018612484,-0.07346137,-0.3347137,0.16998221,-0.08487255,-0.055119526,-0.043054096,2.0,0.0,0.0,0.10314004,0.023598555,0.0,0.0,0.06786855,-0.2506261,-0.10307932,0.09443463,0.31763723,0.12342985,-0.11541902,0.065474935,0.13239819,0.11202692,-0.19457215,-0.037980948,-0.062767394,-0.1434614,0.09585792,0.02925099,0.06180577,-0.021021701,0.047527812,-0.08324562,0.08630996,-0.04733415,-0.15850185,0.031990934,-1.0,-1.0,0.75556064,1.0,1.0,1.0,-1.0,-0.8614973,1.0,1.0,-1.0,1.0,-0.46042398,1.0,-0.6089227,-0.10244089,1.0,-1.0,-1.0,1.0,1.0,1.0,1.0,1.0
2025-07-21 16:00:53.969,2.740000000000002,2740,137,0.18427545,-0.18423086,0.14476365,-0.24095774,-0.073653676,0.06132701,-0.042522278,-0.027562303,-0.014327752,2.0,0.0,0.0,0.10183478,0.019101385,0.0,0.0,0.031051349,-0.22982171,-0.09918217,0.07892323,0.3402941,0.08776387,-0.12345737,0.085736446,0.14447078,0.1267426,-0.1938523,-0.003140403,0.0050911843,0.11011653,-0.022076424,-0.046638604,-0.0061981105,-0.09533249,-0.049203783,0.16859151,0.058350578,0.012538659,0.043668218,-0.017957201,-0.46042398,1.0,-0.6089227,-0.10244089,1.0,-1.0,-1.0,1.0,1.0,1.0,1.0,1.0,1.0,0.7066269,-1.0,-1.0,-1.0,-1.0,-1.0,-1.0,1.0,1.0,1.0,1.0
2025-07-21 16:00:53.989,2.760000000000002,2760,138,0.19284077,-0.09284009,-0.14614646,0.06514074,-0.034422312,0.10126389,-0.07878195,0.00403137,0.018212127,2.0,0.0,0.0,0.09988398,0.01603778,0.0,0.0,0.05493786,-0.13956986,-0.11185173,0.05773206,0.34057572,0.052144963,-0.13198349,0.09048163,0.13497698,0.11827017,-0.13914225,0.006083267,-0.0098243095,0.27697995,-0.03052587,-0.059488956,0.007275255,-0.12514414,-0.06533934,-0.03194506,-0.040295724,-0.04446606,0.16366746,-0.018846054,1.0,0.7066269,-1.0,-1.0,-1.0,-1.0,-1.0,-1.0,1.0,1.0,1.0,1.0,-1.0,-1.0,0.3430571,-0.8621264,-1.0,1.0,-1.0,1.0,1.0,1.0,1.0,1.0
2025-07-21 16:00:54.009,2.780000000000002,2780,139,0.26352078,-0.1198684,0.09593425,-0.1491869,-0.13137828,0.22512689,-0.00087741605,0.00049692375,-0.011148128,2.0,0.0,0.0,0.09869982,0.013893739,0.0,0.0,0.023463134,-0.11931241,-0.088874295,0.021475112,0.32339668,0.05277163,-0.13413912,0.11720139,0.15147565,0.13739511,-0.078637615,0.02338572,-0.04961461,-0.019679671,0.111036606,-0.09970152,-0.13076475,0.10911788,0.04432412,0.10413283,-0.019777615,-0.048105408,0.2454273,-0.005970583,-1.0,-1.0,0.3430571,-0.8621264,-1.0,1.0,-1.0,1.0,1.0,1.0,1.0,1.0,-1.0,1.0,1.0,0.98266476,1.0,-1.0,-1.0,1.0,1.0,1.0,0.4531558,1.0
2025-07-21 16:00:54.029,2.800000000000002,2800,140,0.52951145,0.0019977891,0.38766646,-0.24943455,-0.12770273,0.12310319,-0.011773845,0.032041077,0.0038895104,2.0,0.0,0.0,0.0954795,0.0123714525,0.0,0.0,0.010185075,-0.109351516,-0.055384785,0.040872872,0.3303409,0.023053283,-0.15148762,0.161171,0.14373235,0.1322056,-0.03528514,0.033820022,-0.12471908,0.07233165,0.023531627,0.03175334,-0.00041038982,-0.09614678,-0.029434921,0.05132102,0.042241056,-0.07410803,0.15762834,0.0889274,-1.0,1.0,1.0,0.98266476,1.0,-1.0,-1.0,1.0,1.0,1.0,0.4531558,1.0,0.4629952,1.0,1.0,-1.0,1.0,-1.0,-1.0,-0.41076788,1.0,1.0,1.0,1.0
2025-07-21 16:00:54.053,2.820000000000002,2820,141,0.41102785,0.031838153,0.16519785,-0.2831895,-0.0054675294,0.13185234,-0.029143116,-0.0035061527,-0.0044913474,2.0,0.0,0.0,0.09248421,0.011291096,0.0,0.0,0.001664661,-0.058484796,-0.035424937,0.016098307,0.34984103,-0.010950266,-0.15462999,0.16939405,0.14256297,0.14254868,0.022097064,0.04240437,-0.020060956,0.20878178,0.07697817,-0.100812964,0.088866815,-0.104337245,0.06601316,-0.09383412,-0.043125678,-0.0600099,0.14743443,0.09784623,0.4629952,1.0,1.0,-1.0,1.0,-1.0,-1.0,-0.41076788,1.0,1.0,1.0,1.0,-0.91894996,1.0,1.0,-1.0,-1.0,-1.0,-1.0,0.760695,1.0,1.0,1.0,1.0
2025-07-21 16:00:54.071,2.840000000000002,2840,142,0.63183206,0.064022586,-0.2026287,-0.23590435,0.0019558142,0.08602488,-0.016857479,0.06222789,-0.030551065,2.0,0.0,0.0,0.090100884,0.010541213,0.0,0.0,-0.013872531,0.023594653,-0.0019349762,-0.00964218,0.2982592,-0.020840043,-0.151249,0.17486772,0.1527952,0.15070932,0.09892695,0.06779005,-0.027681997,0.17280756,0.12722416,-0.0632694,-0.15789723,-0.11363848,-0.04539919,0.111644804,-0.050651137,-0.017070476,0.15114738,0.08445723,-0.91894996,1.0,1.0,-1.0,-1.0,-1.0,-1.0,0.760695,1.0,1.0,1.0,1.0,-1.0,1.0,1.0,-1.0,-0.0010242686,-1.0,-1.0,-0.38185135,-0.7271974,1.0,-1.0,1.0
2025-07-21 16:00:54.089,2.860000000000002,2860,143,0.68011713,-0.020686561,0.26753125,0.10084255,-0.1984766,0.06697134,0.051634092,0.024042984,-0.010488555,2.0,0.0,0.0,0.08846231,0.010052406,0.0,0.0,-0.024825377,0.08450139,0.009200485,-0.047266014,0.24953745,-0.06163063,-0.1512742,0.1864643,0.11174551,0.14628032,0.114331566,0.076661505,-0.071632326,0.09592238,0.075437956,-0.12473577,-0.18516015,-0.017620781,0.047392357,-0.03426699,-0.079727516,0.027763898,-0.027388625,0.029764656,-1.0,1.0,1.0,-1.0,-0.0010242686,-1.0,-1.0,-0.38185135,-0.7271974,1.0,-1.0,1.0,-1.0,1.0,1.0,-1.0,-0.7443503,-1.0,1.0,0.66232157,-1.0,1.0,1.0,1.0
2025-07-21 16:00:54.109,2.880000000000002,2880,144,0.955509,0.12433761,-0.30877897,-0.08920086,-0.11146806,0.08129468,0.038422827,0.08746053,0.04024177,2.0,0.0,0.0,0.0876939,0.00978298,0.0,0.0,-0.060754813,0.13443038,0.043931596,-0.057071567,0.16937225,-0.07473661,-0.10214586,0.1876959,0.07322448,0.14837694,0.16274948,0.0949543,-0.0848667,0.14619656,0.056145944,0.010416138,-0.30265167,-0.055622444,0.20114797,-0.028508602,-0.169662,-0.028431546,0.12579718,0.09456397,-1.0,1.0,1.0,-1.0,-0.7443503,-1.0,1.0,0.66232157,-1.0,1.0,1.0,1.0,-1.0,1.0,1.0,0.45405006,-0.7259052,-1.0,1.0,-1.0,-1.0,1.0,-1.0,1.0
2025-07-21 16:00:54.129,2.900000000000002,2900,145,0.73933464,0.005895272,-0.20438406,0.12689774,-0.12671077,-0.004718603,-0.016992666,0.060118757,0.040858883,2.0,0.0,0.0,0.08686392,0.009711151,0.0,0.0,-0.0687465,0.17857577,0.047171786,-0.040910635,0.07952431,-0.09322395,-0.07132498,0.1470144,0.019474547,0.14270857,0.18572779,0.09650021,-0.0077747987,0.048838962,-0.054428536,0.06280171,-0.2462614,-0.0391357,0.111305796,-0.17996062,-0.011895734,0.019390335,0.044534616,0.08733822,-1.0,1.0,1.0,0.45405006,-0.7259052,-1.0,1.0,-1.0,-1.0,1.0,-1.0,1.0,-1.0,1.0,1.0,-0.9074165,-0.09004723,-1.0,1.0,-1.0,-1.0,1.0,-1.0,1.0
2025-07-21 16:00:54.153,2.920000000000002,2920,146,1.1076946,-0.29159263,-0.26087087,0.18619063,-0.09858513,0.037570905,0.043561522,0.017718293,-0.047626153,2.0,0.0,0.0,0.086656146,0.009831255,0.0,0.0,-0.0738919,0.22101216,0.049315967,-0.049125023,0.05645488,-0.106957175,-0.02181975,0.0446728,-0.002274111,0.14699316,0.1654088,0.11482184,-0.08470504,0.13108626,-0.049179047,-0.062970586,-0.0077172373,0.013295676,0.082571246,-0.21856482,-0.051165365,-0.022952346,0.036113735,0.07702039,-1.0,1.0,1.0,-0.9074165,-0.09004723,-1.0,1.0,-1.0,-1.0,1.0,-1.0,1.0,-1.0,1.0,1.0,0.6552806,-1.0,-1.0,1.0,-1.0,-1.0,1.0,-1.0,1.0
2025-07-21 16:00:54.170,2.940000000000002,2940,147,0.79516226,-0.045357514,-0.19411041,0.15536085,-0.12651293,-0.112962626,-0.009023844,0.014054519,-0.016648287,2.0,0.0,0.0,0.08641638,0.010152795,0.0,0.0,-0.071829215,0.23750111,0.05693709,-0.036291927,-0.0006449925,-0.10612225,0.0066215945,-0.03206642,-0.034600772,0.14381567,0.15917325,0.12903607,0.03912639,0.046992034,0.07685327,0.13042377,-0.15628275,-0.07894195,0.07974062,-0.1522714,-0.09138722,0.029580588,-0.13562351,0.06472367,-1.0,1.0,1.0,0.6552806,-1.0,-1.0,1.0,-1.0,-1.0,1.0,-1.0,1.0,-1.0,1.0,1.0,-0.7028681,0.30648345,-1.0,-1.0,-1.0,-1.0,1.0,0.6284849,1.0
2025-07-21 16:00:54.263,2.960000000000002,2960,148,0.97923946,-0.14512838,-0.15731466,0.03667627,-0.13554707,0.025248311,-0.05032631,0.03793981,-0.028797043,2.0,0.0,0.0,0.08763264,0.5,0.0,0.0,-0.098877914,0.27099642,0.0660292,-0.037722025,-0.027802907,-0.12574506,-0.009401625,-0.101938665,-0.05260427,0.13583457,0.17251645,0.13103707,-0.06235602,0.06223852,0.101083465,-0.01125278,0.016024511,-0.089414544,-0.06475977,-0.16200568,-0.009522662,0.017621668,-0.0065829093,0.020071816,-1.0,1.0,1.0,-0.7028681,0.30648345,-1.0,-1.0,-1.0,-1.0,1.0,0.6284849,1.0,-1.0,1.0,-0.12352252,1.0,-1.0,1.0,-1.0,-1.0,0.4455366,1.0,-0.45162305,1.0
2025-07-21 16:00:54.371,2.980000000000002,2980,149,0.92404807,-0.08877412,0.012349999,0.2414353,0.18523706,-0.1167918,-0.0024179546,0.06605582,0.0022597457,2.0,0.0,0.0,0.088384114,0.7242532,0.0,0.0,-0.089181155,0.30013728,0.047800075,-0.029929977,-0.028839951,-0.078132145,-0.042661063,-0.16005354,-0.025439005,0.14745389,0.1617418,0.14461951,-0.050094448,0.024664566,-0.017303234,0.09706189,-0.10416141,0.101675846,-0.085549936,-0.10508523,0.026474174,0.0034817657,-0.042392973,0.025716186,-1.0,1.0,-0.12352252,1.0,-1.0,1.0,-1.0,-1.0,0.4455366,1.0,-0.45162305,1.0,1.0,1.0,-1.0,-0.01567936,1.0,1.0,-1.0,1.0,1.0,1.0,0.6911312,1.0
2025-07-21 16:00:54.438,3.000000000000002,3000,150,1.2375252,0.039876614,-0.28086022,-0.08965981,0.038615584,-0.10678671,-0.03716678,0.084060356,-0.0049390187,2.0,0.0,0.0,0.0899803,0.85329676,0.0,0.0,-0.0633565,0.3173258,0.014194833,-0.022122081,-0.0030635796,-0.063473985,-0.055993874,-0.15260758,-0.012976452,0.14460006,0.17797257,0.13305385,0.092055954,0.07578632,-0.01299549,-0.026122449,0.12883772,0.08364845,-0.030179717,0.09867346,0.10189201,0.06076935,0.11472667,0.05311574,1.0,1.0,-1.0,-0.01567936,1.0,1.0,-1.0,1.0,1.0,1.0,0.6911312,1.0,0.779256,-0.39601135,-1.0,1.0,1.0,1.0,-1.0,-0.3681923,1.0,1.0,-1.0,1.0
2025-07-21 16:00:54.458,3.0200000000000022,3020,151,1.1822263,0.36014515,0.1597824,0.19684097,0.24121992,-0.0698348,-0.022373008,0.012330071,-0.0029173798,2.0,0.0,0.0,0.0919894,0.9147498,0.0,0.0,-0.026620897,0.28182903,-0.0068463716,-0.007134092,0.034358878,-0.03437412,-0.06526078,-0.14430754,0.027892258,0.14529651,0.18112911,0.14001498,0.09149556,-0.22809315,-0.081639625,0.023775628,0.14111549,0.1035782,-0.054222677,0.030503726,0.024526186,-0.04292501,-0.029400792,0.08846215,0.779256,-0.39601135,-1.0,1.0,1.0,1.0,-1.0,-0.3681923,1.0,1.0,-1.0,1.0,1.0,0.77779585,-1.0,1.0,1.0,1.0,-1.0,0.3569838,1.0,0.40285838,1.0,-1.0
2025-07-21 16:00:54.489,3.0400000000000023,3040,152,1.1131141,0.33025086,0.18473558,-0.16478914,0.17801623,-0.14909557,-0.040305905,0.04065222,-0.031846046,2.0,0.0,0.0,0.09324662,0.9452337,0.0,0.0,-0.0008805571,0.27259573,-0.031110112,0.012433423,0.08266392,-0.013308067,-0.06467122,-0.10516796,0.034793008,0.14844738,0.20308055,0.10473296,0.07666302,0.056386866,-0.017634207,-0.023149973,0.21916373,0.09966717,0.026556635,0.100382745,0.08656519,-0.097590074,0.06788746,-0.15049185,1.0,0.77779585,-1.0,1.0,1.0,1.0,-1.0,0.3569838,1.0,0.40285838,1.0,-1.0,1.0,-0.5213585,-1.0,1.0,1.0,1.0,-0.9138623,-1.0,1.0,-1.0,0.5302381,-1.0
2025-07-21 16:00:54.509,3.0600000000000023,3060,153,1.061589,0.26420227,-0.063192315,0.07152378,0.17121112,-0.052037727,0.017749567,-0.017671727,0.019256104,2.0,0.0,0.0,0.09603828,0.96178675,0.0,0.0,0.03767039,0.22663748,-0.060753737,0.03477575,0.14073278,0.014619782,-0.07323258,-0.08426218,0.06274902,0.08433989,0.22522007,0.056395713,0.111786395,-0.19730894,0.012573389,0.08417337,0.1547961,0.06278835,0.006435727,0.059066862,0.09149568,-0.18640935,-0.039222464,-0.091005504,1.0,-0.5213585,-1.0,1.0,1.0,1.0,-0.9138623,-1.0,1.0,-1.0,0.5302381,-1.0,1.0,-1.0,-1.0,1.0,1.0,1.0,-1.0,-0.44751558,1.0,-1.0,-0.8163871,-1.0
2025-07-21 16:00:54.554,3.0800000000000023,3080,154,1.2191075,0.2570212,0.31985134,0.31723875,0.14241527,-0.083108485,-0.08830136,-0.007310096,0.006955901,2.0,0.0,0.0,0.0988769,0.9715506,0.0,0.0,0.063059054,0.11620591,-0.068391144,0.044542354,0.18133524,0.033084836,-0.085514724,-0.09650987,0.08042164,0.046074934,0.15267313,0.011875435,-0.007393791,-0.15737592,0.015342736,0.00044619263,0.029433232,-0.0011159325,0.04130628,-0.048296496,-0.031343248,-0.100042865,-0.19330467,-0.13661538,1.0,-1.0,-1.0,1.0,1.0,1.0,-1.0,-0.44751558,1.0,-1.0,-0.8163871,-1.0,1.0,-1.0,-1.0,1.0,1.0,1.0,-1.0,1.0,1.0,-1.0,1.0,-1.0
2025-07-21 16:00:54.574,3.1000000000000023,3100,155,1.3707955,-0.02928012,0.16128218,0.03484067,0.08051993,-0.01681556,-0.046741206,-0.0571222,0.039034933,2.0,0.0,0.0,0.10070773,0.9777011,0.0,0.0,0.08232544,0.056578822,-0.085340984,0.049771745,0.22497416,0.03640933,-0.085014366,-0.057913586,0.0733957,0.014714296,0.14339678,-0.012253077,0.0003526042,-0.081815355,0.024917053,0.025751648,0.02571209,0.02715439,-0.015662877,0.18537463,0.057538763,-0.07774075,0.085956305,-0.1299699,1.0,-1.0,-1.0,1.0,1.0,1.0,-1.0,1.0,1.0,-1.0,1.0,-1.0,1.0,-1.0,-1.0,1.0,1.0,1.0,-1.0,-1.0,1.0,-1.0,-1.0,-1.0
2025-07-21 16:00:54.594,3.1200000000000023,3120,156,0.9438841,0.10095297,0.052286744,0.27029598,0.05194044,-0.04289919,-0.071759015,-0.014810431,-0.006358333,2.0,0.0,0.0,0.101456106,0.98177373,0.0,0.0,0.09335931,-0.022517217,-0.087800264,0.058597803,0.26915303,0.05197548,-0.10562042,-0.05490642,0.09466926,-0.017686224,0.0995092,-0.030866323,0.021010857,-0.22361477,-0.0046156705,0.058313802,0.0289343,0.09844225,0.001109504,0.031341452,0.090582535,-0.12061582,-0.16040006,-0.06106011,1.0,-1.0,-1.0,1.0,1.0,1.0,-1.0,-1.0,1.0,-1.0,-1.0,-1.0,1.0,-1.0,-1.0,1.0,1.0,1.0,-0.948595,0.8184639,1.0,-0.58989036,-1.0,-1.0
2025-07-21 16:00:54.616,3.1400000000000023,3140,157,1.0548372,-0.14843626,-0.023103146,0.19603136,0.021492776,0.059119347,-0.12770706,0.006819859,0.003857542,2.0,0.0,0.0,0.10170027,0.9845701,0.0,0.0,0.122838125,-0.051042687,-0.10658955,0.08274471,0.2856876,0.07505389,-0.100768596,-0.00351145,0.09703375,-0.03970088,0.013684371,-0.05450714,0.023078818,-0.07352842,-0.04945847,0.089485325,0.081698954,0.084350295,0.004068996,0.11441423,-0.015588179,-0.08007016,-0.14728716,-0.102516405,1.0,-1.0,-1.0,1.0,1.0,1.0,-0.948595,0.8184639,1.0,-0.58989036,-1.0,-1.0,0.09302966,-1.0,-1.0,1.0,1.0,1.0,-1.0,0.579242,1.0,0.70868385,-1.0,-1.0
2025-07-21 16:00:54.637,3.1600000000000024,3160,158,0.83219993,0.00773483,0.24648501,0.16294532,-0.1597242,0.22837941,-0.14496677,-0.07090704,0.00088345964,2.0,0.0,0.0,0.10159107,0.98653656,0.0,0.0,0.10739638,-0.0729981,-0.11662693,0.08662834,0.30743292,0.089831755,-0.12054175,0.034530558,0.10700707,-0.01933248,-0.058921482,-0.0671246,-0.06429703,0.0017454723,-0.029085604,0.07564349,0.11701968,0.0995471,0.03172552,0.054733012,0.09179096,0.02983585,-0.20104285,-0.012985276,0.09302966,-1.0,-1.0,1.0,1.0,1.0,-1.0,0.579242,1.0,0.70868385,-1.0,-1.0,1.0,-1.0,1.0,1.0,1.0,-0.55090106,-1.0,1.0,1.0,1.0,-1.0,-1.0
