openverse-orca/OrcaGym/log/simulation_log_20250721_134747.csv
timestamp,sim_time,physics_step,control_step,imu_angle_roll,imu_angle_pitch,imu_angle_yaw,imu_angular_velocity_roll,imu_angular_velocity_pitch,imu_angular_velocity_yaw,imu_acc_x,imu_acc_y,imu_acc_z,fl_joint1_pos,fl_joint1_vel,fl_joint1_torque,fl_joint2_pos,fl_joint2_vel,fl_joint2_torque,fl_joint3_pos,fl_joint3_vel,fl_joint3_torque,fr_joint1_pos,fr_joint1_vel,fr_joint1_torque,fr_joint2_pos,fr_joint2_vel,fr_joint2_torque,fr_joint3_pos,fr_joint3_vel,fr_joint3_torque,hl_joint1_pos,hl_joint1_vel,hl_joint1_torque,hl_joint2_pos,hl_joint2_vel,hl_joint2_torque,hl_joint3_pos,hl_joint3_vel,hl_joint3_torque,hr_joint1_pos,hr_joint1_vel,hr_joint1_torque,hr_joint2_pos,hr_joint2_vel,hr_joint2_torque,hr_joint3_pos,hr_joint3_vel,hr_joint3_torque,fl_force_x,fl_force_y,fl_force_z,fr_force_x,fr_force_y,fr_force_z,hl_force_x,hl_force_y,hl_force_z,hr_force_x,hr_force_y,hr_force_z,fl_hip_action,fl_thigh_action,fl_calf_action,fr_hip_action,fr_thigh_action,fr_calf_action,hl_hip_action,hl_thigh_action,hl_calf_action,hr_hip_action,hr_thigh_action,hr_calf_action
2025-07-21 13:47:48.006,0.0,0,0,-0.030049663,0.03317535,-0.0349474,-0.03320707,0.00021759779,0.049670663,0.0,0.0,0.0,0.0,0.00932761,0.0061665075,0.00798126,0.008659759,0.009780108,0.0027744856,-0.005666345,0.00020154491,0.0004951001,0.008862669,0.00081079826,0.0035713247,-0.031031335,0.050606016,-0.07267679,-0.054406464,0.03847139,-0.038303953,0.053760167,-0.019056575,-0.044771932,0.03417342,-0.061780732,-0.057414953,0.0,0.0,0.0,0.0,0.0,0.0,0.0,0.0,0.0,0.0,0.0,0.0,0.024721406,-0.5213199,-0.15530756,-0.032315042,-0.139512,-0.16258831,0.28131056,0.0057668947,-0.040586047,-0.04385892,0.16893493,0.04099269
2025-07-21 13:47:48.022,0.02,20,1,0.0117167765,-0.021649865,0.0072392765,0.042257335,0.023673462,0.039346006,0.0,0.0,0.0,0.0,0.006025142,-0.023129242,-0.009121652,-0.007003698,-0.0048741624,-0.004380592,0.011983261,0.003545764,-0.0021391686,0.001636171,0.0022134015,0.008234602,0.04969769,-0.13249944,-0.00093126204,-0.01677335,-0.012736102,-0.022213737,-0.027521104,0.07119619,-0.057801697,0.02893127,-0.008182063,0.019657578,0.024721406,-0.5213199,-0.15530756,-0.032315042,-0.139512,-0.16258831,0.28131056,0.0057668947,-0.040586047,-0.04385892,0.16893493,0.04099269,0.12317179,0.03695347,0.15211645,-0.16213234,-0.081835754,-0.24338125,0.092216015,-0.117528796,0.09390264,0.0483665,0.12451628,0.2782782
2025-07-21 13:47:48.040,0.04,40,2,-0.03745746,-0.0853675,-0.016856004,-0.023153095,0.023833834,-0.011930191,0.0,0.0,0.0,0.0,0.008079539,-0.02547684,-0.004854118,-0.010001149,-0.002651998,-0.0029884363,0.0055936784,-0.0066356338,-0.0043262504,-0.008061314,0.01652969,0.0014993419,0.02226928,0.041583367,-0.05338003,0.0137130665,-0.051028937,-0.030540843,0.03164256,-0.031181797,-0.037895795,0.010142956,-0.04345533,-0.059279114,0.12317179,0.03695347,0.15211645,-0.16213234,-0.081835754,-0.24338125,0.092216015,-0.117528796,0.09390264,0.0483665,0.12451628,0.2782782,-0.007089995,-0.31234103,-0.14356387,-0.059692193,0.06430964,-0.086050674,0.23006569,0.09471014,0.014938638,-0.001433346,0.022355901,0.17893977
2025-07-21 13:47:48.061,0.06,60,3,-0.04208155,-0.0022403009,-0.004215594,-0.033299286,0.03751443,-0.032825634,0.0,0.0,0.0,0.0,5.271162e-05,-0.039536234,-0.010701103,-0.00019104854,-0.01225503,-0.027630156,0.016545946,-0.011163759,0.0011733081,0.0012301472,0.012875951,0.0051864376,0.031996578,-0.08301433,0.046042655,0.015739923,0.0058528567,-0.054041095,-0.017871147,0.0709861,-0.07586764,-0.047384802,-0.037392963,0.05825622,-0.007089995,-0.31234103,-0.14356387,-0.059692193,0.06430964,-0.086050674,0.23006569,0.09471014,0.014938638,-0.001433346,0.022355901,0.17893977,0.1793827,0.0010033082,0.09617426,-0.16080128,-0.070373036,-0.274101,0.14727087,-0.1431124,0.08076034,-0.012776013,0.03992926,0.24522792
2025-07-21 13:47:48.083,0.08,80,4,0.026122125,0.035801034,0.060101457,0.026156014,0.0055938177,-0.030253273,0.0,0.0,0.0,0.0,0.0038278159,-0.033026595,-0.010959587,-0.0154616395,0.0001170989,-0.017202357,0.009654108,-0.00184945,0.009090564,-0.0024182335,0.012682328,-0.0002836792,0.04984808,0.04489283,-0.061549872,0.041648958,-0.04581138,0.010660789,0.044591043,-0.07942159,-0.056746114,0.06534627,-0.061560836,-0.0632501,0.1793827,0.0010033082,0.09617426,-0.16080128,-0.070373036,-0.274101,0.14727087,-0.1431124,0.08076034,-0.012776013,0.03992926,0.24522792,0.0696348,-0.14137396,-0.024929203,0.050029304,0.015517502,-0.2710675,0.22365305,0.3781738,-0.01580096,-0.07257421,-0.12590624,0.29821977
2025-07-21 13:47:48.104,0.1,100,5,0.03876045,-0.035632603,-0.082536265,-0.027368056,-0.011079265,-0.014595476,0.0,0.0,0.0,0.0,0.0097984,-0.025210027,-0.0024289251,-0.016683469,-0.013106115,-0.023256052,0.021074677,0.0064669084,-0.0021727732,0.0024026847,0.016702114,0.024566082,0.06500654,0.05507148,-0.02516708,0.06691614,0.04889127,-0.01594185,-0.05855048,0.07648311,0.06007547,0.06982341,0.048744958,-0.05585822,0.0696348,-0.14137396,-0.024929203,0.050029304,0.015517502,-0.2710675,0.22365305,0.3781738,-0.01580096,-0.07257421,-0.12590624,0.29821977,-0.24316584,-0.41245085,-0.014865346,-0.15973935,-0.035930686,-0.20089884,0.30408162,-0.25077322,0.08970619,0.08735193,-0.040655266,0.13809697
2025-07-21 13:47:48.121,0.12000000000000001,120,6,0.014058649,0.02697929,0.14802353,-0.020915985,0.046600863,-0.025566949,0.0,0.0,0.0,0.0,-0.0013921233,-0.04280433,-0.015678134,-0.020957842,-0.006412185,-0.035411544,0.01491968,0.0065316916,-0.006655843,0.012175676,0.0008540134,0.008121663,-0.072302826,-0.0387485,-0.023336813,0.032137025,0.0387799,0.047029532,0.01816241,-0.015344901,-0.0590967,-0.020466542,0.016597299,-0.06389808,-0.24316584,-0.41245085,-0.014865346,-0.15973935,-0.035930686,-0.20089884,0.30408162,-0.25077322,0.08970619,0.08735193,-0.040655266,0.13809697,0.2995814,0.16150767,0.2034654,-0.017032083,-0.13681272,-0.42574328,0.20613997,0.24179503,-0.07160073,-0.12006326,-0.5187571,0.25848702
2025-07-21 13:47:48.141,0.14,140,7,-0.03078965,0.01651333,-0.09259117,0.019850826,-0.0010406867,-0.012836108,0.0,0.0,0.0,0.0,0.01786371,-0.050628174,-0.010988945,-0.017473662,-0.019264562,-0.041378427,0.02561388,0.02259945,0.0009853037,-0.0046086702,-0.026473757,0.025912074,0.092545226,0.008927877,-0.03126618,-0.043557573,-0.04070043,-0.050634935,0.05531336,0.04249057,-0.012575598,0.048076525,-0.063914396,0.06598723,0.2995814,0.16150767,0.2034654,-0.017032083,-0.13681272,-0.42574328,0.20613997,0.24179503,-0.07160073,-0.12006326,-0.5187571,0.25848702,-0.2298348,-0.31937188,0.1309557,-0.30370966,0.27465722,-0.19582058,0.24806492,0.01491883,0.08742676,0.25749505,0.12085405,0.33690232
2025-07-21 13:47:48.161,0.16,160,8,-0.027677676,-0.029669508,0.1500149,-0.04240899,0.058190342,0.028444273,0.0,0.0,0.0,0.0,0.012267023,-0.041794498,0.002381448,-0.028399518,-0.008122756,-0.038768332,0.023108007,0.020871228,-0.0061634406,0.0090520345,-0.012276149,0.017126912,-0.06826072,-0.016098345,-0.060827043,-0.06574287,0.11235143,0.024149023,0.025416285,-0.032680675,-0.028879674,-0.008002443,0.094118305,-0.0027559227,-0.2298348,-0.31937188,0.1309557,-0.30370966,0.27465722,-0.19582058,0.24806492,0.01491883,0.08742676,0.25749505,0.12085405,0.33690232,0.19068797,0.09169682,0.08321167,0.06083562,-0.29738206,-0.3125679,0.23907377,0.20717975,-0.1523945,-0.15384383,-0.7022152,0.10485007
2025-07-21 13:47:48.184,0.18,180,9,-0.101984255,0.0005013154,-0.078142405,-0.035565823,0.041161336,-0.009115634,0.0,0.0,0.0,0.0,0.027089093,-0.033167392,-0.0016614761,-0.024254873,-0.011536229,-0.0438297,0.03059344,0.031000778,-0.013023719,-0.0051361704,-0.04555443,0.022571152,0.06702831,0.06485688,-0.08517188,0.03673083,-0.04901679,-0.020068126,-0.031981938,0.08488292,-0.0064594815,0.005901443,-0.033568196,0.0012748492,0.19068797,0.09169682,0.08321167,0.06083562,-0.29738206,-0.3125679,0.23907377,0.20717975,-0.1523945,-0.15384383,-0.7022152,0.10485007,-0.25328112,-0.33581507,0.17665339,-0.30223167,0.22670835,-0.29343688,0.39986637,0.015051048,0.012219064,0.1985444,-0.055007976,0.22338286
2025-07-21 13:47:48.206,0.19999999999999998,200,10,-0.013642596,-0.05650089,0.032099605,0.026381707,0.032639243,0.026900401,0.0,0.0,0.0,0.0,0.02410385,-0.045046836,-0.008125446,-0.023593394,-0.002521395,-0.048235584,0.026175594,0.020492116,-0.008394209,0.0044941716,-0.040319413,0.019025574,0.030075202,0.015906118,-0.031472635,0.045206312,0.07943011,-0.030654097,0.04509266,0.05934694,-0.03388936,0.018803224,0.045931775,-0.06653212,-0.25328112,-0.33581507,0.17665339,-0.30223167,0.22670835,-0.29343688,0.39986637,0.015051048,0.012219064,0.1985444,-0.055007976,0.22338286,0.035359316,-0.15112093,0.16578773,-0.2243449,-0.14486356,-0.4853516,0.38879406,0.087393045,-0.058462083,0.00060411217,-0.21072927,0.082068786
2025-07-21 13:47:48.221,0.21999999999999997,220,11,-0.075993374,-0.002592627,-0.012094933,-0.0022387826,-0.03219158,-0.04725953,0.0,0.0,0.0,0.0,0.018381048,-0.063664876,-0.008110457,-0.030504033,-0.009777545,-0.0505401,0.029519109,0.03433957,-0.011769157,0.0075780223,-0.04205474,0.014798842,-0.0018065835,0.03299311,-0.05284457,-0.034958206,0.014087291,-0.040319685,0.01103256,0.06275059,-0.019514848,0.06364708,-0.06923117,-0.014462942,0.035359316,-0.15112093,0.16578773,-0.2243449,-0.14486356,-0.4853516,0.38879406,0.087393045,-0.058462083,0.00060411217,-0.21072927,0.082068786,-0.0049451515,-0.23283204,0.15641978,-0.21125008,0.06674422,-0.44335553,0.25713292,0.0975786,0.016740464,0.11519604,0.04640657,0.21921037
2025-07-21 13:47:48.241,0.23999999999999996,240,12,-0.039309446,-0.059690397,0.072718576,-0.040167224,0.009045023,-0.043162674,0.0,0.0,0.0,0.0,0.024131125,-0.066248916,0.00440267,-0.026797771,-0.005839034,-0.052901737,0.039211962,0.023362774,-0.018156104,-0.0034652264,-0.041099228,0.017832102,0.038173087,-0.0062416475,0.016924258,0.0062422017,-0.01852599,-0.027051345,0.011552338,0.016896915,0.014201609,0.009155296,0.042059716,-0.056163117,-0.0049451515,-0.23283204,0.15641978,-0.21125008,0.06674422,-0.44335553,0.25713292,0.0975786,0.016740464,0.11519604,0.04640657,0.21921037,0.10275619,-0.01181812,0.14011335,-0.09779172,0.027954828,-0.47777346,0.24236973,0.27444553,-0.07057207,-0.075080425,-0.42333385,0.21725914
2025-07-21 13:47:48.272,0.25999999999999995,260,13,0.0052807555,-0.0034523262,-0.084574185,0.043057177,-0.027043603,0.023581304,0.0,0.0,0.0,0.0,0.011382485,-0.060765285,-0.014754552,-0.022382796,0.0014410057,-0.056785744,0.041384116,0.043426167,-0.020589752,-0.008998887,-0.055063087,0.02111017,-0.02021529,-0.007835779,-0.055079628,0.028550979,0.07483069,0.037331942,-0.009838554,0.013594146,-0.078296304,-0.06162815,-0.116487324,0.034800123,0.10275619,-0.01181812,0.14011335,-0.09779172,0.027954828,-0.47777346,0.24236973,0.27444553,-0.07057207,-0.075080425,-0.42333385,0.21725914,-0.11670248,-0.31018358,0.15727189,-0.29312235,0.027928043,-0.381987,0.2691701,0.07922083,0.10114352,0.24475427,0.29503438,0.27262112
2025-07-21 13:47:48.295,0.27999999999999997,280,14,0.020225309,-0.057830594,0.07694489,-0.0144498255,0.030861711,-0.011565647,0.0,0.0,0.0,0.0,0.012787554,-0.06696043,-0.010614577,-0.033662207,-0.0016115837,-0.05664769,0.04979857,0.04635645,-0.0019711962,-0.008176927,-0.04399452,0.008053326,0.008759614,-0.017383901,0.06412346,0.023737036,0.026520545,0.0014685516,0.06663993,-0.07179264,0.005870237,0.00015398768,0.10472528,-0.005950395,-0.11670248,-0.31018358,0.15727189,-0.29312235,0.027928043,-0.381987,0.2691701,0.07922083,0.10114352,0.24475427,0.29503438,0.27262112,0.11697242,-0.035675667,0.00020547956,-0.09441756,-0.08629624,-0.32297018,0.2290767,0.20719641,-0.080251075,-0.047481645,-0.47563776,0.17421857
2025-07-21 13:47:48.312,0.3,300,15,-0.011863045,0.054538216,-0.08071617,-0.024463328,0.0054407693,0.01290399,0.0,0.0,0.0,0.0,0.016843779,-0.05226624,-0.015169149,-0.024370117,0.0014058359,-0.058551047,0.046238326,0.04172088,-0.010886079,-0.009839759,-0.045289684,0.0142419385,0.00621834,-0.02426885,0.05236748,0.038465638,-0.029332282,-0.034165636,-0.023086268,-0.054614164,-0.0011156034,-0.083396696,-0.0034841415,0.080833755,0.11697242,-0.035675667,0.00020547956,-0.09441756,-0.08629624,-0.32297018,0.2290767,0.20719641,-0.080251075,-0.047481645,-0.47563776,0.17421857,-0.09412055,-0.19629288,0.009797536,-0.2883974,0.19403481,-0.23627026,0.23005226,0.081414655,0.18010175,0.1688612,0.14124177,0.29502672
2025-07-21 13:47:48.346,0.32,320,16,0.000750494,0.005619859,0.09298078,0.028109118,0.01122748,0.03333871,0.0,0.0,0.0,0.0,0.020859238,-0.06485761,-0.008950358,-0.04235531,0.008714217,-0.063143335,0.036526926,0.042711556,-0.0047617285,-0.010123726,-0.03882464,0.016252164,-0.06959978,0.020709965,0.028750673,-0.059366193,-0.04041345,0.077489406,0.04353468,0.06761337,-0.027023572,0.06285866,-0.012261453,0.026541978,-0.09412055,-0.19629288,0.009797536,-0.2883974,0.19403481,-0.23627026,0.23005226,0.081414655,0.18010175,0.1688612,0.14124177,0.29502672,0.16408747,-0.024823645,0.30072683,-0.15941192,-0.007881531,-0.5510018,0.28002167,0.2918479,-0.16618988,-0.04203819,-0.37692073,0.23202516
2025-07-21 13:47:48.363,0.34,340,17,-0.056511357,0.046737347,-0.10246466,0.019005604,-0.019539298,-0.025389144,0.0,0.0,0.0,0.0,0.025106078,-0.047871493,-0.010260986,-0.037467007,0.011700855,-0.07143557,0.03999924,0.05247778,-0.010117191,-1.9682631e-05,-0.03906453,0.0093509955,-0.01608173,0.060933407,-0.06922059,0.034707647,-0.01715399,-0.0028585629,0.017808195,-0.033466864,0.034749225,-0.057674147,-0.06417587,-0.015678931,0.16408747,-0.024823645,0.30072683,-0.15941192,-0.007881531,-0.5510018,0.28002167,0.2918479,-0.16618988,-0.04203819,-0.37692073,0.23202516,-0.22646472,-0.45043272,0.052617602,-0.2146679,0.20477584,-0.21958967,0.41442063,0.107866645,0.054720066,0.2486093,0.21767275,0.2537591
2025-07-21 13:47:48.388,0.36000000000000004,360,18,0.031975575,0.033486623,0.033848833,-0.03039521,0.03153226,0.03459102,0.0,0.0,0.0,0.0,0.022199882,-0.07061211,-0.013060933,-0.023328278,0.015807755,-0.06083425,0.052994594,0.053749926,-0.0018836362,-0.003881103,-0.019526584,0.016348323,0.017234627,-0.09838286,-0.029914625,0.0016211934,-0.019876657,0.06380814,0.08338162,0.055096347,-0.063698135,0.03578413,-0.022097353,0.04182619,-0.22646472,-0.45043272,0.052617602,-0.2146679,0.20477584,-0.21958967,0.41442063,0.107866645,0.054720066,0.2486093,0.21767275,0.2537591,0.12059669,0.05773554,0.33734715,-0.34973988,0.0048130257,-0.46217927,0.30252007,0.061360937,-0.024743237,0.1614344,0.07006658,0.26576728
2025-07-21 13:47:48.407,0.38000000000000006,380,19,-0.007205694,-0.073966786,-0.049474396,-0.015948877,0.0005397271,0.02443534,0.0,0.0,0.0,0.0,0.013422061,-0.07152672,-0.013828201,-0.03863629,0.010998464,-0.056956008,0.04100544,0.053661585,0.0020759439,0.009147438,-0.012670179,0.02443996,-0.025886584,0.041767847,0.019301735,-0.02555888,-0.0028248103,-0.07211382,-0.0074304347,0.0188165,0.07060517,0.056782585,0.04271531,0.01955099,0.12059669,0.05773554,0.33734715,-0.34973988,0.0048130257,-0.46217927,0.30252007,0.061360937,-0.024743237,0.1614344,0.07006658,0.26576728,-0.22295724,-0.3879364,-0.023674957,-0.20572448,-0.029247444,-0.14511581,0.21515249,-0.08114004,0.06584691,0.18856734,-0.05495016,0.11981502
2025-07-21 13:47:48.423,0.4000000000000001,400,20,-0.01964018,0.012628209,0.108043715,-0.05600497,-0.0063485247,0.0069885855,0.0,0.0,0.0,0.0,0.01630569,-0.060478378,-0.008301136,-0.03985472,0.010474315,-0.06046661,0.047251713,0.041930605,-0.005712803,0.0039206124,-0.021126764,0.011671155,-0.022637112,-0.0339306,0.01963177,-0.003449109,0.056777097,0.07918963,0.002041777,-0.01163133,0.013639008,0.029514423,0.057496216,-0.07199819,-0.22295724,-0.3879364,-0.023674957,-0.20572448,-0.029247444,-0.14511581,0.21515249,-0.08114004,0.06584691,0.18856734,-0.05495016,0.11981502,0.16393594,0.12412334,0.15763047,-0.0814527,-0.1947413,-0.3959526,0.19108649,0.07478425,-0.06528484,-0.16343732,-0.40914991,0.18040843
2025-07-21 13:47:48.443,0.4200000000000001,420,21,0.02888009,0.05657043,-0.14273532,0.035352025,-0.023944095,0.023265548,0.0,0.0,0.0,0.0,0.015851283,-0.06941355,-0.01484674,-0.030861394,0.0011329696,-0.06586074,0.039403185,0.028882403,0.0052007013,-0.006568594,-0.040834755,0.008059082,-0.039958175,0.08156942,0.033819664,-0.026868885,-0.03251718,0.05200235,0.014348205,-0.049896363,0.06026348,-0.032716252,-0.005556077,0.047572263,0.16393594,0.12412334,0.15763047,-0.0814527,-0.1947413,-0.3959526,0.19108649,0.07478425,-0.06528484,-0.16343732,-0.40914991,0.18040843,-0.2882269,-0.5335114,-0.054692112,-0.33789608,0.24674909,0.081486985,0.2538788,-0.10628864,0.18179587,0.39668685,0.26812252,0.31557417
2025-07-21 13:47:48.462,0.4400000000000001,440,22,0.013122222,-0.06903584,0.10060405,0.029467069,0.00015698116,-0.038074464,0.0,0.0,0.0,0.0,0.023327567,-0.063088715,-0.0014666488,-0.04380514,0.009324935,-0.060731903,0.049797997,0.018247359,-0.005621981,0.015002164,-0.018544039,0.008492325,-0.018456243,-0.020793999,0.043872245,-0.08247429,0.013031991,0.043880083,-0.06647488,-0.05043021,-0.016822638,-0.039644875,0.033630274,-0.03738645,-0.2882269,-0.5335114,-0.054692112,-0.33789608,0.24674909,0.081486985,0.2538788,-0.10628864,0.18179587,0.39668685,0.26812252,0.31557417,0.19975783,0.07307318,0.070459194,-0.045173276,-0.25213918,-0.14563502,0.21422431,0.062385347,-0.101760395,-0.16216303,-0.15435825,0.17820016
2025-07-21 13:47:48.488,0.46000000000000013,460,23,-0.011517201,-0.0037481354,-0.06402048,0.036083534,0.026417423,0.008602496,0.0,0.0,0.0,0.0,0.029018806,-0.057058968,-0.0027661351,-0.04310111,0.0011143304,-0.056879375,0.04077251,0.017512888,-0.009781381,0.012062845,-0.024012497,0.023695055,0.076772094,0.10388354,0.01397928,-0.003562796,-0.0973965,0.08454838,-0.007902136,-0.039352346,0.04054184,-0.0025346894,-0.028585793,0.0636181,0.19975783,0.07307318,0.070459194,-0.045173276,-0.25213918,-0.14563502,0.21422431,0.062385347,-0.101760395,-0.16216303,-0.15435825,0.17820016,-0.1445731,-0.3815878,0.0009984598,-0.28292647,0.21955995,-0.05197971,0.15624589,0.084888905,0.07061019,0.22112232,0.12247212,0.3311453
2025-07-21 13:47:48.505,0.48000000000000015,480,24,0.020602947,-0.04930649,0.057045586,-0.022572886,-0.041529916,0.012555418,0.0,0.0,0.0,0.0,0.008611758,-0.082279645,-0.017407015,-0.03691,0.0058488087,-0.038212437,0.050706238,0.032670736,0.00016208694,-0.0034514742,-0.01689703,0.021782126,0.03866142,-0.041034043,-0.044206105,-0.038401186,0.06555495,0.0026811904,0.049409445,-0.068762414,-0.020336837,0.017536065,0.071427785,-0.018663924,-0.1445731,-0.3815878,0.0009984598,-0.28292647,0.21955995,-0.05197971,0.15624589,0.084888905,0.07061019,0.22112232,0.12247212,0.3311453,-0.07548917,-0.030776763,-0.054337867,-0.018526819,-0.22385092,-0.2094012,0.16372184,0.023566019,0.00440602,-0.07105445,-0.10525568,0.20876412
2025-07-21 13:47:48.522,0.5000000000000001,500,25,-0.026048318,0.04564881,-0.1281436,-0.0123216305,0.008706477,-0.042427517,0.0,0.0,0.0,0.0,0.02243083,-0.06199897,-0.018042305,-0.0476098,0.00028792454,-0.0376631,0.033827316,0.0154549815,0.0037373763,0.007364402,-0.019536642,0.02800499,0.070523575,0.029478097,-0.08468149,0.032515805,-0.08559825,-0.0112000955,0.04901565,0.06879026,-0.068101384,0.011424223,0.0013771933,0.032833874,-0.07548917,-0.030776763,-0.054337867,-0.018526819,-0.22385092,-0.2094012,0.16372184,0.023566019,0.00440602,-0.07105445,-0.10525568,0.20876412,-0.22559302,-0.328118,-0.0023080483,-0.32359615,0.38913906,0.0245292,0.28390637,-0.26386684,0.14708424,0.3409735,0.27590755,0.22932231
2025-07-21 13:47:48.542,0.5200000000000001,520,26,0.01305057,0.014334869,0.15035973,-0.04056571,0.02429559,0.02539189,0.0,0.0,0.0,0.0,0.0105428025,-0.08231725,-0.008521609,-0.0402503,0.010152739,-0.032157168,0.032160167,0.0124363685,0.010134875,0.015559091,0.0035047955,0.011973366,-0.053415414,-0.0015914158,-0.062218957,-0.010084602,0.00047743644,-0.054737322,0.0011886884,-0.05164521,-0.021825846,0.08954079,0.07640636,-0.03170618,-0.22559302,-0.328118,-0.0023080483,-0.32359615,0.38913906,0.0245292,0.28390637,-0.26386684,0.14708424,0.3409735,0.27590755,0.22932231,0.24598005,0.10818238,0.017933942,0.0064586885,-0.14664017,-0.3304187,0.16177128,0.20113567,-0.023204923,-0.17510782,-0.384873,0.15220392
2025-07-21 13:47:48.562,0.5400000000000001,540,27,0.025136212,0.018903444,-0.092125885,0.03648898,0.025576347,0.025839439,0.0,0.0,0.0,0.0,0.029508399,-0.07505542,-0.025780499,-0.044113234,0.024200305,-0.049381856,0.043453358,0.018588258,-0.010959603,0.010389597,-0.023047615,0.026158055,0.08282616,0.023602832,0.03920912,-0.052192517,0.030495703,-0.04366881,-0.0759036,0.046584133,-0.06236575,0.047288496,-0.10126859,-0.026086874,0.24598005,0.10818238,0.017933942,0.0064586885,-0.14664017,-0.3304187,0.16177128,0.20113567,-0.023204923,-0.17510782,-0.384873,0.15220392,-0.13232286,-0.31087965,0.1312654,-0.2464511,-0.04099457,-0.23586376,0.1416379,-0.080982625,0.14786655,0.16087636,0.32754865,0.20827161
2025-07-21 13:47:48.588,0.5600000000000002,560,28,-0.025907552,-0.0318545,0.055367604,-0.059030693,-0.003610231,0.033684086,0.0,0.0,0.0,0.0,0.017815342,-0.06607727,-0.01839653,-0.052693386,0.01928541,-0.03276713,0.03137934,0.009366442,0.004665181,-0.0060125147,-0.00096308417,0.01599858,0.060469035,-0.015355284,0.009699462,0.029840596,-0.022437764,-0.065063775,-0.023985986,-0.07441556,-0.06323331,-0.062225852,0.07514209,0.038588323,-0.13232286,-0.31087965,0.1312654,-0.2464511,-0.04099457,-0.23586376,0.1416379,-0.080982625,0.14786655,0.16087636,0.32754865,0.20827161,0.15264805,-0.056524448,-0.040276118,-0.020616572,0.0015340215,-0.26447022,0.15856904,0.17457841,-0.0077996477,-0.060833443,-0.2750384,0.19810866
2025-07-21 13:47:48.611,0.5800000000000002,580,29,-0.024825284,0.010234559,-0.08045691,-0.027862618,-0.0129597625,0.02025428,0.0,0.0,0.0,0.0,0.02563305,-0.074435376,-0.017196098,-0.033701334,0.009329303,-0.05239867,0.034500208,0.01774506,4.049904e-05,0.0053579123,-0.016536808,0.022646815,0.060143866,-0.04621123,0.042664826,0.04839602,-0.058924742,0.052030534,0.05742547,-0.0021926,-0.08359049,0.012658952,0.026669562,-0.014353239,0.15264805,-0.056524448,-0.040276118,-0.020616572,0.0015340215,-0.26447022,0.15856904,0.17457841,-0.0077996477,-0.060833443,-0.2750384,0.19810866,-0.15548396,-0.14573222,0.0457777,-0.3001636,0.19733475,-0.12049045,0.23630476,-0.042855654,0.111874945,0.1785314,0.17783014,0.22015177
2025-07-21 13:47:48.633,0.6000000000000002,600,30,0.029100975,-0.015479063,0.079884715,-0.024513625,0.014561692,-0.038665287,0.0,0.0,0.0,0.0,0.029055297,-0.057389945,-0.013638113,-0.037782162,0.024092117,-0.053436592,0.035548348,0.015318322,-0.0074289828,0.011612694,0.0014799063,0.012467354,0.03658458,0.03453497,-0.041665323,-0.060998816,-0.024123892,0.02047635,-0.00074365025,0.06743142,0.058443256,0.080682024,0.0809986,-0.07438199,-0.15548396,-0.14573222,0.0457777,-0.3001636,0.19733475,-0.12049045,0.23630476,-0.042855654,0.111874945,0.1785314,0.17783014,0.22015177,0.053293854,-0.048757754,0.10608261,-0.048473317,-0.11816121,-0.34518152,0.1849461,0.05158734,-0.09825169,-0.08094423,-0.39556834,0.093600065
2025-07-21 13:47:48.656,0.6200000000000002,620,31,-0.033331327,0.054013487,-0.12192463,0.004275351,-0.006163366,-0.0076551205,0.0,0.0,0.0,0.0,0.027687091,-0.063120894,-0.02106261,-0.05099895,0.004359371,-0.05548237,0.034615286,0.025705332,-0.012150799,-0.0075635714,-0.022569723,0.00871766,0.07444939,-0.04015326,-0.037063655,-0.019281413,-0.06517399,-0.0063619157,-0.07516297,-0.06068184,-0.033760928,0.030554716,-0.010918058,-0.046476927,0.053293854,-0.048757754,0.10608261,-0.048473317,-0.11816121,-0.34518152,0.1849461,0.05158734,-0.09825169,-0.08094423,-0.39556834,0.093600065,-0.2404946,-0.1699507,-0.07094786,-0.2755954,0.32798722,0.023950618,0.24375166,-0.040815685,0.21821314,0.3220946,0.4226461,0.294125
2025-07-21 13:47:48.671,0.6400000000000002,640,32,0.07771721,-0.08159212,0.17373483,0.010349799,0.021667352,0.00079048186,0.0,0.0,0.0,0.0,0.028264178,-0.054729335,-0.028303742,-0.0562326,0.018576372,-0.050381117,0.036692154,0.004448578,0.0082593085,0.011153324,0.0028999518,0.012188075,-0.081023045,-0.014223323,-0.007088904,-0.05483533,0.009794171,0.07173388,0.0073709376,0.018801756,-0.019456442,-0.043933406,0.00571625,0.0016032733,-0.2404946,-0.1699507,-0.07094786,-0.2755954,0.32798722,0.023950618,0.24375166,-0.040815685,0.21821314,0.3220946,0.4226461,0.294125,0.3588714,0.09269071,0.14736244,0.021120824,-0.2847484,-0.32146972,0.18177833,0.31377813,-0.118959196,-0.16407852,-0.5304997,0.17266232
2025-07-21 13:47:48.690,0.6600000000000003,660,33,-0.039968945,0.09895766,-0.1780038,-0.0013964993,-0.017148908,-0.024626141,0.0,0.0,0.0,0.0,0.036087163,-0.045086503,-0.027007557,-0.04225799,0.028483428,-0.043112405,0.04000324,0.038256854,-0.0023613586,0.0057613174,0.0009970089,0.029790537,-0.021949226,0.061749753,-0.0067846477,-0.026450582,-0.087718986,0.003073004,0.035404574,0.047703303,-0.063616365,2.0195454e-05,-0.14745095,0.032598503,0.3588714,0.09269071,0.14736244,0.021120824,-0.2847484,-0.32146972,0.18177833,0.31377813,-0.118959196,-0.16407852,-0.5304997,0.17266232,-0.27255905,-0.5481,0.10211774,-0.34261894,0.37977904,0.035810154,0.33160654,-0.17454912,0.12318916,0.39055866,0.39664927,0.27572104
2025-07-21 13:47:48.712,0.6800000000000003,680,34,0.046714235,-0.050211053,0.078414425,0.0016811638,-0.039281294,0.016086334,0.0,0.0,0.0,0.0,0.01562497,-0.060758293,-0.013853249,-0.053062335,0.03106574,-0.04240348,0.034437183,0.022487348,-0.006728212,0.014267302,0.014958437,0.013394471,-0.06110095,-0.06011482,-0.0002559999,-0.076168306,0.030089896,0.08615341,-0.06536038,-0.08016014,0.06824226,0.006220915,0.1269735,-0.048387405,-0.27255905,-0.5481,0.10211774,-0.34261894,0.37977904,0.035810154,0.33160654,-0.17454912,0.12318916,0.39055866,0.39664927,0.27572104,0.028913118,0.06677779,-0.10204912,0.04288842,-0.41444054,0.05198094,0.12874973,-0.16161282,-0.11467815,-0.002023432,-0.10559602,0.18713658
2025-07-21 13:47:48.738,0.7000000000000003,700,35,-0.0031902767,0.031396277,-0.036610264,-0.024265151,-0.029096432,-0.0017171599,0.0,0.0,0.0,0.0,0.019433482,-0.06552932,-0.025058199,-0.04946032,0.040257268,-0.030891243,0.029686444,0.01363179,0.0065429476,0.01242363,0.0037726779,0.02777622,0.07780965,0.07469358,0.04688059,0.07883074,-0.0144815855,-0.016948236,0.064902954,0.033649135,0.013807468,-0.025191689,0.010025572,0.07706073,0.028913118,0.06677779,-0.10204912,0.04288842,-0.41444054,0.05198094,0.12874973,-0.16161282,-0.11467815,-0.002023432,-0.10559602,0.18713658,-0.011454612,-0.3549155,-0.06550152,-0.17721955,-0.11146698,-0.18834555,0.056213025,-0.15497448,0.07110908,-0.03157964,0.068115935,0.1276219
2025-07-21 13:47:48.754,0.7200000000000003,720,36,0.022046706,0.024100993,-0.011349987,-0.019596038,0.01949416,0.038863473,0.0,0.0,0.0,0.0,0.012878976,-0.06194668,-0.029784814,-0.04487473,0.01576419,-0.03135943,0.035960007,-0.018104184,0.0006158628,0.005073843,0.0020348798,0.022962177,-0.046586577,-0.0057768887,0.05019376,0.051643614,-0.023428155,-0.007866025,0.0076370146,0.026806148,-0.048768684,-0.007649131,-0.057953097,-0.008800492,-0.011454612,-0.3549155,-0.06550152,-0.17721955,-0.11146698,-0.18834555,0.056213025,-0.15497448,0.07110908,-0.03157964,0.068115935,0.1276219,0.09883015,-0.18024,0.05198232,-0.18942711,-0.0059399614,-0.24244358,0.12303193,0.010085832,0.034226246,0.0631292,0.18416268,0.25344205
2025-07-21 13:47:48.776,0.7400000000000003,740,37,0.038460348,-0.06425314,-0.011683021,-0.04986639,-0.035527084,-0.026943441,0.0,0.0,0.0,0.0,0.027011635,-0.08006289,-0.016477633,-0.042827148,0.010896262,-0.027982932,0.04063362,-0.013219514,-0.012338395,0.0024861202,0.023353908,0.021517925,0.06386532,-0.04624065,-0.058673207,-0.062900275,-0.024392758,0.040964566,0.0041079577,0.041289996,-0.023441497,-0.0010912085,0.01464391,0.025175024,0.09883015,-0.18024,0.05198232,-0.18942711,-0.0059399614,-0.24244358,0.12303193,0.010085832,0.034226246,0.0631292,0.18416268,0.25344205,-0.040465686,-0.111950256,-0.068011664,-0.06104252,-0.0025377655,-0.057590295,0.07736094,-0.116590455,0.0904124,0.06392723,0.101089284,0.21631075
2025-07-21 13:47:48.794,0.7600000000000003,760,38,0.015868235,0.006952444,-0.03126285,-0.049220525,0.031203283,0.0073485384,0.0,0.0,0.0,0.0,0.021703945,-0.07225589,-0.025031889,-0.038189985,0.019596351,-0.041980054,0.033377886,-0.018781705,0.0013001143,0.008370833,0.020117996,0.017006367,-0.07410363,-0.0027948855,-0.00038408913,-0.03235837,0.020272726,-0.06858246,-0.023327107,-0.03651839,0.06948524,0.038480744,0.0024008097,0.026950411,-0.040465686,-0.111950256,-0.068011664,-0.06104252,-0.0025377655,-0.057590295,0.07736094,-0.116590455,0.0904124,0.06392723,0.101089284,0.21631075,0.043635614,-0.24174112,-0.32339644,-0.060239334,-0.05793,0.1036794,0.02830391,-0.24487963,0.25030985,0.032028925,0.35002092,0.14227702
2025-07-21 13:47:48.816,0.7800000000000004,780,39,0.01217054,0.06347632,0.057613775,-0.019995425,0.013691141,0.04022755,0.0,0.0,0.0,0.0,0.011887598,-0.07810744,-0.03669553,-0.033342686,0.005252525,-0.022958517,0.038556524,-0.01944275,0.0030445745,0.0041369232,0.03201268,0.0064145857,0.05202008,0.023204932,-0.084092006,0.0628608,-0.08407903,-0.051041406,-0.03345569,-0.08255207,-0.03812857,-0.05588296,-0.00036829468,0.055746865,0.043635614,-0.24174112,-0.32339644,-0.060239334,-0.05793,0.1036794,0.02830391,-0.24487963,0.25030985,0.032028925,0.35002092,0.14227702,0.2195463,-0.051365755,-0.21969488,0.07813333,0.05226499,-0.1214432,-0.010478314,0.12588827,0.25865117,-0.1266558,0.032309536,0.26002574
2025-07-21 13:47:48.838,0.8000000000000004,800,40,-0.040903617,-0.021277837,-0.065976225,0.01569735,-0.03616006,0.047137357,0.0,0.0,0.0,0.0,0.03166733,-0.063886866,-0.042740356,-0.03395413,0.012925673,-0.035495173,0.037000127,-0.01003294,-0.0051064673,-0.0070516653,0.03127365,0.021462543,0.01628132,0.030753156,-0.023357417,0.025557162,-0.058593076,-0.039086886,0.012475766,0.037451487,0.07576931,-0.052582823,0.04931674,0.03726946,0.2195463,-0.051365755,-0.21969488,0.07813333,0.05226499,-0.1214432,-0.010478314,0.12588827,0.25865117,-0.1266558,0.032309536,0.26002574,-0.013727158,-0.23497963,-0.21018139,-0.044307802,0.11275165,0.073868856,0.086014435,-0.23367015,0.19529751,-0.07245998,0.12665203,0.18027475
2025-07-21 13:47:48.854,0.8200000000000004,820,41,0.041324906,-0.03219919,0.046536796,-0.04225003,-0.04539734,-0.047113825,0.0,0.0,0.0,0.0,0.014553098,-0.06157251,-0.033594027,-0.029376257,0.0068479837,-0.01846458,0.024982417,-0.017975582,0.0017294072,-0.0033120408,0.03310394,0.009825778,-0.030249968,-0.013909381,0.038044922,-0.03995218,-0.03530876,-0.054029144,0.026398065,-0.0014736066,0.008147885,-0.01582629,-0.00042024272,0.01784754,-0.013727158,-0.23497963,-0.21018139,-0.044307802,0.11275165,0.073868856,0.086014435,-0.23367015,0.19529751,-0.07245998,0.12665203,0.18027475,0.23837125,-0.07929729,-0.15658486,0.08371472,-0.08240779,-0.099237576,-0.06445305,-0.073495924,0.16885066,-0.1785194,-0.004932655,0.2135381
2025-07-21 13:47:48.874,0.8400000000000004,840,42,0.006064337,0.0107804835,-0.1256113,-0.01337714,0.038721364,-0.005393919,0.0,0.0,0.0,0.0,0.024687873,-0.06298211,-0.03921793,-0.04161387,-0.0011577056,-0.02293994,0.016577426,-0.01544719,0.0077429824,-0.013462012,0.03896491,0.022845585,-0.053142592,0.025910875,-0.04753342,0.017941488,-0.058707554,-0.06781922,-0.05140344,0.004648683,-0.049740393,0.029577844,-0.017244855,-0.000628317,0.23837125,-0.07929729,-0.15658486,0.08371472,-0.08240779,-0.099237576,-0.06445305,-0.073495924,0.16885066,-0.1785194,-0.004932655,0.2135381,-0.003886696,-0.3007712,-0.29341835,-0.09355722,0.28430906,0.29384017,0.13812844,-0.4506295,0.23202813,0.0397291,0.29153702,0.1301784
2025-07-21 13:47:48.894,0.8600000000000004,860,43,0.030710734,-0.00080296665,0.111191675,0.037968304,0.016859546,0.0064829653,0.0,0.0,0.0,0.0,0.014952782,-0.07264505,-0.038238216,-0.03474564,0.019054674,-0.015970614,0.036189485,-0.041306015,0.015946371,-0.0029295906,0.05271775,0.018628582,0.017962165,-0.069104284,0.005412696,-0.054079723,0.0026178719,-0.034174062,0.014452755,-0.0697032,-0.00933134,-0.030993463,-0.018973729,-0.026853174,-0.003886696,-0.3007712,-0.29341835,-0.09355722,0.28430906,0.29384017,0.13812844,-0.4506295,0.23202813,0.0397291,0.29153702,0.1301784,0.31635803,0.032082163,-0.22318509,0.130617,-0.37294686,0.085957974,-0.1249114,0.061487127,0.28598982,-0.17463411,0.04247849,0.15313897
2025-07-21 13:47:48.920,0.8800000000000004,880,44,-0.022352718,0.055441212,-0.081899464,-0.025394218,0.0012061832,-0.03289259,0.0,0.0,0.0,0.0,0.021497233,-0.06306392,-0.05380641,-0.023250742,0.00699677,-0.0153366905,0.029352535,-0.0345405,0.01508627,-0.0048166327,0.049674034,0.0102172755,0.009417551,0.0062000304,-0.076567315,0.005148486,-0.10187566,-0.019424926,-0.058757935,0.034913857,-0.052941546,0.043298338,-0.07017805,-0.023479724,0.31635803,0.032082163,-0.22318509,0.130617,-0.37294686,0.085957974,-0.1249114,0.061487127,0.28598982,-0.17463411,0.04247849,0.15313897,0.07821781,-0.13446689,-0.33401325,-0.055436473,0.2569536,0.23425438,0.074193925,-0.41838184,0.33242026,-0.058848355,0.2954844,0.09502977
2025-07-21 13:47:48.937,0.9000000000000005,900,45,0.018173233,-0.005281498,0.092310786,-0.0009035474,0.026108902,-0.04883012,0.0,0.0,0.0,0.0,0.021412022,-0.061816942,-0.056305166,-0.030827217,0.014256046,-0.019667827,0.02154618,-0.04163105,0.020756913,-0.01622993,0.05238616,0.007857633,-0.04322779,0.0041257725,-0.05458306,0.02535778,0.06402277,-0.023512235,-0.0056946673,0.0038321717,-0.03182084,0.061661918,0.0065155206,-0.0007239143,0.07821781,-0.13446689,-0.33401325,-0.055436473,0.2569536,0.23425438,0.074193925,-0.41838184,0.33242026,-0.058848355,0.2954844,0.09502977,0.2728024,-0.08156266,-0.26762578,0.14799899,-0.42105353,0.031386655,-0.06044563,-0.11172436,0.19632882,-0.13755818,-0.10198502,0.022563484
2025-07-21 13:47:48.957,0.9200000000000005,920,46,-0.03372925,0.028885208,-0.13523722,-0.034457177,0.052220628,0.03458715,0.0,0.0,0.0,0.0,0.030061338,-0.051721506,-0.046305984,-0.032961097,0.0024190089,-0.018642765,0.020402707,-0.060068514,0.019896472,-0.002854816,0.03743219,0.012704539,-0.042105358,0.030560045,-0.08114771,0.032070693,-0.0352163,0.0040986873,-0.024815092,-0.03847569,-0.0061883973,-0.025519226,-0.060862917,0.05201235,0.2728024,-0.08156266,-0.26762578,0.14799899,-0.42105353,0.031386655,-0.06044563,-0.11172436,0.19632882,-0.13755818,-0.10198502,0.022563484,0.057078872,-0.33981377,-0.45264736,-0.1338378,0.2706644,0.44764796,0.03494161,-0.40882894,0.36635527,0.054874416,0.43780482,0.15740135
2025-07-21 13:47:48.977,0.9400000000000005,940,47,-0.013031683,-0.075422734,0.10897958,-0.027398631,-0.013057278,-0.049412165,0.0,0.0,0.0,0.0,0.039613493,-0.07645125,-0.05207952,-0.029383369,-0.0012900844,-0.0032894558,0.020915883,-0.07428509,0.024311984,-0.002546213,0.05221062,0.01701079,-0.006867452,-0.013279635,0.024084382,0.035411853,0.09096599,-0.0049896706,0.007929689,0.027107723,-0.015036888,0.04729619,0.08294316,0.06553031,0.057078872,-0.33981377,-0.45264736,-0.1338378,0.2706644,0.44764796,0.03494161,-0.40882894,0.36635527,0.054874416,0.43780482,0.15740135,0.29288322,-0.024616161,-0.21060634,0.20404722,-0.56923926,0.108630404,-0.112443656,-0.24536589,0.18117064,-0.16785875,-0.2177806,0.014298748
2025-07-21 13:47:48.997,0.9600000000000005,960,48,0.0019311361,-0.012612212,-0.057848684,-0.047729466,0.03570086,-0.042586908,0.0,0.0,0.0,0.0,0.031916577,-0.060010143,-0.05327045,-0.03809499,-0.0032941229,-0.00880831,0.015648786,-0.07679518,0.023284322,-0.008986875,0.04210847,0.00860926,0.060586926,0.057811365,-0.048234683,0.004466606,-0.13095897,0.06632861,-0.06344548,-0.04923318,-0.045498807,-0.054626014,-0.12864557,-0.05053383,0.29288322,-0.024616161,-0.21060634,0.20404722,-0.56923926,0.108630404,-0.112443656,-0.24536589,0.18117064,-0.16785875,-0.2177806,0.014298748,0.15681736,-0.13415602,-0.3299654,-0.12571166,0.17872517,0.24467784,0.0502957,-0.039458293,0.31281653,-0.006885949,0.2964174,0.26524192
2025-07-21 13:47:49.021,0.9800000000000005,980,49,0.018045466,-0.08382384,0.05984618,0.038185935,-0.0015089836,0.032798123,0.0,0.0,0.0,0.0,0.03211993,-0.06953211,-0.05560129,-0.024783345,0.001255706,0.0006514097,0.020334959,-0.061113823,0.015195362,-0.016940406,0.05677059,0.004921709,0.04334644,0.07902129,-0.026761709,0.03322008,0.0735165,-0.039159294,0.07223566,0.023765538,-0.04882479,-0.06560775,0.0062371306,0.045635078,0.15681736,-0.13415602,-0.3299654,-0.12571166,0.17872517,0.24467784,0.0502957,-0.039458293,0.31281653,-0.006885949,0.2964174,0.26524192,0.22459856,-0.18331252,-0.22665527,0.17293857,-0.43543386,-0.02595057,-0.02626355,-0.074892804,0.13398206,-0.16620995,-0.14923523,0.06692979
2025-07-21 13:47:49.038,1.0000000000000004,1000,50,-0.049921826,0.03971595,-0.14474915,-0.002243996,0.034377262,0.014480491,0.0,0.0,0.0,0.0,0.041920062,-0.06628818,-0.054693893,-0.019063702,-0.014308353,0.0027467369,0.031502277,-0.053076718,0.027700908,-0.0117008425,0.03249256,0.01616628,-0.019365752,0.031785615,0.041607615,-0.023677656,0.0057008048,-0.01735707,0.018665688,-0.044770636,-0.02327235,0.048501726,-0.06536011,-0.04863582,0.22459856,-0.18331252,-0.22665527,0.17293857,-0.43543386,-0.02595057,-0.02626355,-0.074892804,0.13398206,-0.16620995,-0.14923523,0.06692979,0.007656671,-0.338548,-0.39290097,-0.11709787,0.15744932,0.39196083,-0.017353807,-0.46093348,0.31924412,-0.010226812,0.42735407,0.10299876
2025-07-21 13:47:49.057,1.0200000000000005,1020,51,0.012998619,-0.0042702714,0.08320593,0.010726979,-0.008548264,-0.04725019,0.0,0.0,0.0,0.0,0.0406139,-0.074881576,-0.06321143,-0.024800627,-0.0051425137,0.002822182,0.025404004,-0.077474,0.03582459,-0.009998593,0.0645204,0.0059606293,0.023742113,0.0022778024,0.03706912,0.054304134,-0.022138303,0.00083057256,-0.07507488,-0.09723383,0.03483838,-0.03188408,0.069441296,-0.06398591,0.007656671,-0.338548,-0.39290097,-0.11709787,0.15744932,0.39196083,-0.017353807,-0.46093348,0.31924412,-0.010226812,0.42735407,0.10299876,0.27874732,-0.08003255,-0.34897777,0.16148363,-0.27482396,0.16620757,-0.14248133,0.0020248108,0.29301354,-0.12796226,-0.1139632,0.0675223
2025-07-21 13:47:49.077,1.0400000000000005,1040,52,-0.039566286,-0.014976945,-0.044811122,0.015342448,-0.012811227,0.04673521,0.0,0.0,0.0,0.0,0.045291416,-0.06452643,-0.06855499,-0.029203335,-0.032165125,-0.0026992064,0.024528172,-0.05944364,0.024075387,-0.01828646,0.044739235,0.014606449,0.05713397,0.065591775,-0.07244136,-0.005004631,-0.01567359,0.0051527563,0.04658751,0.09975268,-0.031215232,0.05072527,-0.06443414,0.06999203,0.27874732,-0.08003255,-0.34897777,0.16148363,-0.27482396,0.16620757,-0.14248133,0.0020248108,0.29301354,-0.12796226,-0.1139632,0.0675223,0.10495639,-0.18399319,-0.18189138,0.03468531,-0.02516412,0.04187293,0.016188294,-0.38803068,0.1548909,-0.15341301,0.10178067,0.16265401
2025-07-21 13:47:49.098,1.0600000000000005,1060,53,-0.041209176,-0.05225624,-0.013662875,-0.053485096,0.021164928,0.011811492,0.0,0.0,0.0,0.0,0.038926616,-0.08057155,-0.052191313,-0.02053229,-0.030685585,-0.0059309313,0.012924109,-0.0649808,0.023675593,-0.01631227,0.046693537,0.023325808,0.036814764,-0.021453783,0.068912126,-0.007239817,0.02707461,-0.07636142,-0.0058044065,-0.031388238,0.02458545,-0.032008052,0.071846195,0.057101507,0.10495639,-0.18399319,-0.18189138,0.03468531,-0.02516412,0.04187293,0.016188294,-0.38803068,0.1548909,-0.15341301,0.10178067,0.16265401,0.24266101,-0.14824393,-0.3698795,0.052338336,-0.09384547,0.13796121,-0.14611527,-0.24371383,0.2848831,-0.15178362,0.01740359,0.13465138
2025-07-21 13:47:49.121,1.0800000000000005,1080,54,0.02047392,-0.036829296,-0.054395642,-0.018347561,0.012362513,0.020567222,0.0,0.0,0.0,0.0,0.039364316,-0.07658592,-0.05861901,-0.03746741,-0.034764685,-0.005803727,0.019984357,-0.079733856,0.030208727,-0.025507513,0.04152781,0.021288132,0.028345155,0.046503395,0.03297607,-0.00068881485,-0.08060807,0.016425483,0.048543956,0.035353925,0.05850145,0.037220947,-0.022407953,0.02486119,0.24266101,-0.14824393,-0.3698795,0.052338336,-0.09384547,0.13796121,-0.14611527,-0.24371383,0.2848831,-0.15178362,0.01740359,0.13465138,0.13561757,-0.16752082,-0.29695162,0.042271797,0.16784604,0.28572565,-0.035417326,-0.3988364,0.29112908,-0.14075609,0.24078336,0.23586592
2025-07-21 13:47:49.137,1.1000000000000005,1100,55,0.0020949517,-0.033354685,0.06529846,0.018899405,0.0036642263,0.03487433,0.0,0.0,0.0,0.0,0.044076703,-0.065653905,-0.05402235,-0.029402198,-0.014604794,0.0012332336,0.022735996,-0.07880253,0.038397014,-0.009965905,0.05369534,0.024203971,0.055150855,-0.048337623,0.06387617,-0.00096180284,-0.03912612,0.0742771,-0.023824481,-0.08258493,0.053557325,-0.0005067739,0.046654448,0.019972099,0.13561757,-0.16752082,-0.29695162,0.042271797,0.16784604,0.28572565,-0.035417326,-0.3988364,0.29112908,-0.14075609,0.24078336,0.23586592,0.2801842,-0.036178105,-0.27371344,0.13273337,-0.2139317,0.20268637,-0.1851849,0.12476072,0.37371913,-0.10906978,-0.04415996,0.1975577
2025-07-21 13:47:49.157,1.1200000000000006,1120,56,-0.01255059,-0.03580879,-0.07431225,0.022668783,-0.04181681,0.007815782,0.0,0.0,0.0,0.0,0.042897433,-0.07391751,-0.05399481,-0.030477216,-0.0186358,0.01048096,0.006215433,-0.06676259,0.029600743,-0.022419844,0.03576757,0.027943708,0.07529752,-0.027740331,-0.012751157,-0.0341484,-0.04945342,-0.026579823,-0.010974438,0.027027735,0.07227865,0.061827037,-0.10026734,0.0595986,0.2801842,-0.036178105,-0.27371344,0.13273337,-0.2139317,0.20268637,-0.1851849,0.12476072,0.37371913,-0.10906978,-0.04415996,0.1975577,0.11804832,-0.06984969,-0.2531427,-0.057956066,0.13419636,0.23687199,-0.009359889,-0.33487773,0.4368512,-0.15135714,0.5500502,0.16504315
2025-07-21 13:47:49.177,1.1400000000000006,1140,57,-0.0069813277,-0.05554004,0.09777038,0.0027791,0.023171408,-0.04182146,0.0,0.0,0.0,0.0,0.039417073,-0.07053619,-0.051678296,-0.028286256,-0.011659944,-0.0002395282,0.010992876,-0.07268252,0.041775297,-0.022219509,0.06846029,0.026529199,-0.082230106,-0.052505113,-0.03446055,0.0018333996,0.07591839,-0.054870214,-0.04521064,-0.048341095,0.084902324,-0.035638336,0.12557365,0.07778823,0.11804832,-0.06984969,-0.2531427,-0.057956066,0.13419636,0.23687199,-0.009359889,-0.33487773,0.4368512,-0.15135714,0.5500502,0.16504315,0.39927703,0.015321976,-0.43485495,0.21357602,-0.38175347,0.14737241,-0.27547315,0.00516304,0.34173366,-0.07514526,-0.3582068,0.061352085
2025-07-21 13:47:49.199,1.1600000000000006,1160,58,-0.04903917,0.04830958,-0.118491605,0.034932606,-0.020975826,0.017244272,0.0,0.0,0.0,0.0,0.05049743,-0.04333181,-0.06594224,-0.024761455,-0.027397582,-0.0039534043,0.0057989857,-0.0651026,0.024498653,-0.02007916,0.043819167,0.016424984,0.034451954,0.053295165,0.032798987,-0.011143236,-0.06592021,-0.0048518158,-0.082806215,0.077461936,-0.024012115,-0.029725462,-0.120432965,-0.026152264,0.39927703,0.015321976,-0.43485495,0.21357602,-0.38175347,0.14737241,-0.27547315,0.00516304,0.34173366,-0.07514526,-0.3582068,0.061352085,0.08229799,-0.24903734,-0.10937936,-0.021371018,0.10492868,0.16517787,0.14307426,-0.5141785,0.16975969,-0.12819614,0.23478945,0.14640225
2025-07-21 13:47:49.221,1.1800000000000006,1180,59,0.029311592,-0.007165474,0.05874352,-0.039994787,-0.013254376,-0.03171924,0.0,0.0,0.0,0.0,0.040240973,-0.051080436,-0.049616355,-0.035701342,-0.023682423,0.004895394,0.01022717,-0.078153275,0.022325864,-0.017181003,0.046117242,0.015585661,0.005913951,-0.0068580694,-0.011631082,-0.05626149,0.05877628,-0.07482443,0.01967258,0.02142901,-0.05245644,0.028089238,0.06506351,0.032883644,0.08229799,-0.24903734,-0.10937936,-0.021371018,0.10492868,0.16517787,0.14307426,-0.5141785,0.16975969,-0.12819614,0.23478945,0.14640225,0.28052568,-0.115344666,-0.2914562,0.1820366,-0.26791748,0.049946886,-0.13207759,-0.13609056,0.15336601,-0.12981494,-0.16637741,0.08316715
2025-07-21 13:47:49.237,1.2000000000000006,1200,60,-0.044051807,0.039972577,-0.036908906,0.02084775,-0.03818436,0.0020405683,0.0,0.0,0.0,0.0,0.051604006,-0.058559842,-0.059211187,-0.025409497,-0.028859405,0.0036606854,0.004530807,-0.078521736,0.025236126,-0.025221244,0.036287073,0.013968876,0.05378174,0.0379383,0.027419578,0.04121991,-0.05134885,0.0024132724,0.0051022694,-0.016557608,-0.034748908,0.011549183,-0.023038995,0.037578885,0.28052568,-0.115344666,-0.2914562,0.1820366,-0.26791748,0.049946886,-0.13207759,-0.13609056,0.15336601,-0.12981494,-0.16637741,0.08316715,0.15202431,-0.13159387,-0.24296448,0.015601072,-0.014234715,0.03391127,-0.0053994358,-0.11646494,0.1673169,-0.095046744,0.043256003,0.22868465
2025-07-21 13:47:49.257,1.2200000000000006,1220,61,0.028390555,-0.04996984,-0.045373105,0.0016894009,-0.029387942,-0.027812297,0.0,0.0,0.0,0.0,0.04089346,-0.063175306,-0.06420798,-0.023312286,-0.029309085,-0.0031867973,0.013184874,-0.06403552,0.028371578,-0.018090626,0.025276994,0.01735238,0.0016865488,0.068496846,0.05804674,0.056907337,0.032860078,0.042597033,0.006627905,-0.03313534,0.00892848,-0.033504702,0.027240584,0.059589744,0.15202431,-0.13159387,-0.24296448,0.015601072,-0.014234715,0.03391127,-0.0053994358,-0.11646494,0.1673169,-0.095046744,0.043256003,0.22868465,0.1355156,-0.25417697,-0.37068143,-0.0010888763,-0.10523745,0.10116406,0.016256146,-0.23420766,0.1710392,-0.10132919,0.11252229,0.13027881
2025-07-21 13:47:49.277,1.2400000000000007,1240,62,0.0045637917,0.065377146,0.07836685,-0.023761956,0.05066878,-0.029576246,0.0,0.0,0.0,0.0,0.04380378,-0.059209876,-0.048937004,-0.032259498,-0.027003706,0.0036273685,0.0018228372,-0.07192044,0.027256375,-0.027349874,0.030382918,0.019487996,-0.0039034872,0.027405811,-0.029056242,-0.005063062,0.03967121,0.054145794,-0.021748682,0.0541714,-0.070499815,0.058929548,-0.036578458,0.060498033,0.1355156,-0.25417697,-0.37068143,-0.0010888763,-0.10523745,0.10116406,0.016256146,-0.23420766,0.1710392,-0.10132919,0.11252229,0.13027881,0.21755752,-0.053890787,-0.11802589,0.15250193,-0.31484756,-0.1171733,-0.05444091,-0.067543715,0.12585607,-0.06636281,-0.17910586,0.20417917
2025-07-21 13:47:49.304,1.2600000000000007,1260,63,-0.051967315,0.07946213,-0.10832111,0.01564026,0.04505626,-0.031045051,0.0,0.0,0.0,0.0,0.046113018,-0.06216046,-0.05089171,-0.021704499,-0.044244375,-0.0076851146,0.010073721,-0.0684339,0.006527206,-0.012049778,0.0065683373,0.02475985,0.067313366,0.019788388,0.01416413,-0.063828,-0.01800853,-0.057044577,-0.001989806,-0.0061657843,-0.08168178,0.040846497,-0.0067242943,0.07243975,0.21755752,-0.053890787,-0.11802589,0.15250193,-0.31484756,-0.1171733,-0.05444091,-0.067543715,0.12585607,-0.06636281,-0.17910586,0.20417917,0.091171905,-0.21690238,-0.3097025,-0.059267733,0.19274175,0.2503375,0.06987186,-0.3702025,0.2636108,-0.05042396,0.1866212,0.12704802
2025-07-21 13:47:49.321,1.2800000000000007,1280,64,0.02500362,-0.016994018,0.13485861,-0.0023930918,0.00066289137,0.048447527,0.0,0.0,0.0,0.0,0.039336853,-0.05853706,-0.051675435,-0.016628189,-0.036215823,-0.018256428,0.001841742,-0.07103007,0.017662184,-0.021008996,0.030956315,0.021590583,0.009088777,-0.08522862,-0.067011,0.065503456,0.02652332,-0.011857463,-0.019600993,-0.0646195,-0.008487079,-0.04480167,0.081068784,0.033755813,0.091171905,-0.21690238,-0.3097025,-0.059267733,0.19274175,0.2503375,0.06987186,-0.3702025,0.2636108,-0.05042396,0.1866212,0.12704802,0.33573103,0.10848007,-0.23631051,0.25743002,-0.34826002,0.040421586,-0.25031617,0.34100077,0.3723331,-0.09749548,-0.34966865,0.2018855
2025-07-21 13:47:49.338,1.3000000000000007,1300,65,-0.0057127457,0.086095445,-0.17975505,0.02477603,-0.0044012554,-0.015800618,0.0,0.0,0.0,0.0,0.06085998,-0.058590997,-0.054500204,-0.008953581,-0.03353955,-0.008129535,0.007903516,-0.04622999,0.024628835,-0.018865835,0.0147695085,0.032018736,-0.029304307,-0.021266038,0.010607191,0.016025273,-0.012021628,-0.049714085,-0.05328827,0.11008828,-0.037553694,-0.0021451057,-0.071325436,-0.008855157,0.33573103,0.10848007,-0.23631051,0.25743002,-0.34826002,0.040421586,-0.25031617,0.34100077,0.3723331,-0.09749548,-0.34966865,0.2018855,-0.0068269297,-0.1537617,-0.13206181,-0.08925842,0.2171109,0.21726434,0.19484663,-0.68331605,0.27788335,-0.113768466,0.3790131,0.01681329
2025-07-21 13:47:49.358,1.3200000000000007,1320,66,0.054903083,-0.07114717,0.101793095,-0.059184033,0.062203035,0.0033795116,0.0,0.0,0.0,0.0,0.05097594,-0.042650692,-0.055498596,-0.021094719,-0.028127471,-0.018943785,0.003170975,-0.06298168,0.018517429,-0.013557256,0.029949613,0.019035831,-0.06719015,-0.054531436,-0.042425964,-0.049297005,0.087812185,-0.0048979134,-0.020858938,-0.1270439,-0.0195739,-0.025040044,0.1308409,0.05283529,-0.0068269297,-0.1537617,-0.13206181,-0.08925842,0.2171109,0.21726434,0.19484663,-0.68331605,0.27788335,-0.113768466,0.3790131,0.01681329,0.3595543,-0.029907102,-0.43739316,0.14634858,-0.35807285,0.16755895,-0.2616386,0.10994211,0.27687198,0.0014715013,-0.28912914,0.07182716
2025-07-21 13:47:49.378,1.3400000000000007,1340,67,-0.024671782,-0.006590699,-0.102052234,-0.031867806,-0.019094229,0.024978975,0.0,0.0,0.0,0.0,0.038162507,-0.039280523,-0.048288904,-0.013092718,-0.041624077,-0.0052091535,-0.0032207225,-0.036584947,0.0204668,-0.009131324,0.0035816384,0.009236965,0.02549471,0.016953373,-0.003254053,0.046316642,-0.012275306,0.03463806,-0.0072785523,-0.025526524,0.04631394,-0.057207692,-0.078972936,0.020555303,0.3595543,-0.029907102,-0.43739316,0.14634858,-0.35807285,0.16755895,-0.2616386,0.10994211,0.27687198,0.0014715013,-0.28912914,0.07182716,0.051623777,-0.2281018,-0.27311164,-0.08429241,0.09191609,0.16412811,0.064603776,-0.2256423,0.3216359,-0.07459696,0.4102265,0.18000321
2025-07-21 13:47:49.404,1.3600000000000008,1360,68,-0.0017692166,-0.028187446,0.11505085,-0.049354557,0.053470414,-0.0014548496,0.0,0.0,0.0,0.0,0.033338998,-0.057238046,-0.049117725,-0.023524387,-0.03692889,-0.0073691867,0.0063468795,-0.052758515,0.034841344,-0.020611478,0.0289544,0.010258113,-0.086068705,-0.06969864,0.0006208946,0.008751722,0.0062494264,-0.02858262,0.076041184,-0.039605405,0.006637397,-0.010041878,0.052629944,-0.02645711,0.051623777,-0.2281018,-0.27311164,-0.08429241,0.09191609,0.16412811,0.064603776,-0.2256423,0.3216359,-0.07459696,0.4102265,0.18000321,0.33917457,0.048909403,-0.26034164,0.20089707,-0.24235831,-0.0021708794,-0.15620689,0.14927818,0.24129546,-0.045326162,-0.25731793,0.18546708
2025-07-21 13:47:49.423,1.3800000000000008,1380,69,-0.01720603,-0.023167819,-0.071458556,-0.0024099634,0.044950087,0.047560547,0.0,0.0,0.0,0.0,0.043856107,-0.038925983,-0.06615804,-0.023310902,-0.028049748,-0.015531708,0.0027453606,-0.021972075,0.015402403,-0.013303727,0.0023202247,0.03067929,0.055970363,0.08949282,0.043250203,0.024815684,-0.028345665,-0.010254949,-0.0021341685,0.053290766,-0.019989748,-0.011619645,-0.025900653,-0.01682301,0.33917457,0.048909403,-0.26034164,0.20089707,-0.24235831,-0.0021708794,-0.15620689,0.14927818,0.24129546,-0.045326162,-0.25731793,0.18546708,-0.023529619,-0.28289023,-0.12546703,-0.034178007,-0.0053621912,-0.05501925,0.14975937,-0.1766488,0.057686843,-0.11128747,-0.012873335,0.15959044
2025-07-21 13:47:49.442,1.4000000000000008,1400,70,0.030360827,-0.015174989,0.103963144,0.023640404,0.036851384,0.005463193,0.0,0.0,0.0,0.0,0.052173316,-0.042943507,-0.047391422,-0.017323121,-0.036676563,-0.0058606956,0.010276785,-0.03640097,0.02002348,-0.018296385,0.007224278,0.012943714,0.039922446,-0.021402964,0.05562564,0.039209772,0.06967579,-0.042104244,0.077916056,0.011848563,-0.044318553,0.005253062,0.026437461,0.07043908,-0.023529619,-0.28289023,-0.12546703,-0.034178007,-0.0053621912,-0.05501925,0.14975937,-0.1766488,0.057686843,-0.11128747,-0.012873335,0.15959044,0.27542084,0.0014498141,0.014920019,0.1267078,-0.32241866,-0.27528685,-0.09561744,0.14221445,0.115291,-0.054462258,-0.2956473,0.30218828
2025-07-21 13:47:49.462,1.4200000000000008,1420,71,-0.020727126,0.010987558,-0.12335578,-0.0033676745,-0.019528246,0.0048892396,0.0,0.0,0.0,0.0,0.04780311,-0.05615921,-0.051689886,-0.0109213125,-0.052845515,-0.020447148,0.017343245,-0.02790411,0.02372358,-0.015919972,-0.016010474,0.030431015,0.016467307,-0.017903335,0.005137399,-0.023944391,-0.004198824,0.058457915,-0.072715,-0.0009409089,0.05816145,0.046927236,-0.053496357,0.058276918,0.27542084,0.0014498141,0.014920019,0.1267078,-0.32241866,-0.27528685,-0.09561744,0.14221445,0.115291,-0.054462258,-0.2956473,0.30218828,-0.11297451,-0.22251143,-0.16113645,-0.19564126,0.2513134,0.1318553,0.11575572,-0.21778166,0.30550075,0.08925074,0.40265024,0.23952363
2025-07-21 13:47:49.487,1.4400000000000008,1440,72,-0.033807077,-0.027523365,0.10036975,-0.0026520926,0.05550957,-0.049332306,0.0,0.0,0.0,0.0,0.037912335,-0.059354194,-0.05071128,-0.028042926,-0.042736407,-0.021695143,0.021747917,-0.028606523,0.016439503,-0.022503037,0.014431866,0.025709087,0.013988709,-0.07681127,0.06327562,0.037911974,0.043136306,0.038035918,0.052754693,0.010184371,0.050672475,-0.014851293,0.11079478,-0.009923459,-0.11297451,-0.22251143,-0.16113645,-0.19564126,0.2513134,0.1318553,0.11575572,-0.21778166,0.30550075,0.08925074,0.40265024,0.23952363,0.3564536,0.13597347,-0.17037004,0.095802635,-0.32290694,0.016046863,-0.09086624,-0.015941825,0.15373608,-0.09998889,-0.40118244,0.119292006
2025-07-21 13:47:49.504,1.4600000000000009,1460,73,-0.06977143,0.006722025,-0.060806468,-0.027053185,0.04571194,-0.016080478,0.0,0.0,0.0,0.0,0.046824593,-0.035734147,-0.04181827,-0.023466362,-0.03020699,-0.01575737,0.010112242,-0.02951753,0.027251843,-0.008862629,-0.0021770273,0.029879771,0.040281277,0.047929328,0.05947206,-0.04847332,-0.0086193085,0.011641653,0.015952399,-0.02172952,-0.049671307,-0.061691266,-0.02389582,-0.051553354,0.3564536,0.13597347,-0.17037004,0.095802635,-0.32290694,0.016046863,-0.09086624,-0.015941825,0.15373608,-0.09998889,-0.40118244,0.119292006,0.056423932,-0.20243526,-0.18942824,-0.05041256,-0.0641688,0.04239608,0.11072183,-0.12742051,0.081206515,-0.091180615,-0.017579509,0.14407577
2025-07-21 13:47:49.523,1.4800000000000009,1480,74,-0.026248889,0.00060746673,0.021209275,-0.00012753943,0.040782955,-0.031483125,0.0,0.0,0.0,0.0,0.053906497,-0.040422022,-0.042183094,-0.024263924,-0.03082958,-0.010298902,0.023380265,-0.025607802,0.02221355,-0.014696233,-0.01764794,0.010445205,-0.026974944,0.046023715,-0.04000046,-0.05752179,0.017089741,0.024987282,0.062412515,0.0033439838,0.034533113,-0.02802134,0.04259171,-0.047753002,0.056423932,-0.20243526,-0.18942824,-0.05041256,-0.0641688,0.04239608,0.11072183,-0.12742051,0.081206515,-0.091180615,-0.017579509,0.14407577,0.108771496,-0.1520331,-0.17987481,0.06039984,-0.08183013,-0.07705684,0.075257584,-0.0064590164,0.04542595,-0.12468575,-0.15571402,0.12384568
2025-07-21 13:47:49.543,1.5000000000000009,1500,75,0.011224905,0.01850078,-0.043033116,0.014979617,0.043956995,-0.01608717,0.0,0.0,0.0,0.0,0.039656285,-0.050656136,-0.054717578,-0.022003528,-0.049415506,-0.014932072,0.006806652,-0.025117235,0.011496262,-0.010913118,-0.02300254,0.017674318,0.028546186,-0.00022229143,-0.034230325,-0.0700763,-0.058474176,-0.07871034,-0.061328806,0.00232366,-0.003943742,0.03585694,0.04324828,-0.024653023,0.108771496,-0.1520331,-0.17987481,0.06039984,-0.08183013,-0.07705684,0.075257584,-0.0064590164,0.04542595,-0.12468575,-0.15571402,0.12384568,0.052136637,-0.10800742,-0.21690026,-0.04090749,0.22531183,0.014829021,0.121932164,-0.13293082,0.18255955,-0.079408795,0.03452461,0.18341242
2025-07-21 13:47:49.563,1.520000000000001,1520,76,-0.035011046,-0.054718696,0.10660773,-0.007204954,0.005025413,0.014206165,0.0,0.0,0.0,0.0,0.04262591,-0.0515751,-0.04004352,-0.03144531,-0.029027583,-0.026439276,0.024497636,-0.0248311,0.014556316,-0.011747958,-0.016151004,0.007974954,-0.005636423,-0.047350757,-0.008593888,-0.029153753,0.11613541,0.019835671,0.024653345,-0.015408047,0.021455215,-0.052315015,-0.052780334,0.014356559,0.052136637,-0.10800742,-0.21690026,-0.04090749,0.22531183,0.014829021,0.121932164,-0.13293082,0.18255955,-0.079408795,0.03452461,0.18341242,0.26380044,0.012793338,-0.030009098,0.09046802,-0.44134897,-0.17717363,-0.037937675,0.1869099,0.21850643,-0.15323018,-0.09639491,0.24252881
2025-07-21 13:47:49.587,1.540000000000001,1540,77,-0.009658959,0.015166505,-0.10441514,-0.028237969,-0.016005956,0.045865297,0.0,0.0,0.0,0.0,0.03890033,-0.0450629,-0.03959245,-0.028142598,-0.037076514,-0.030467648,0.023576649,-0.0018299611,0.005388056,-0.021422539,-0.02267142,0.017903596,0.0027422677,-0.017372413,0.049992368,-0.0348313,0.003305214,-0.067971714,0.062617175,0.08637391,-0.07296711,-0.023097195,-0.008083304,-0.039731253,0.26380044,0.012793338,-0.030009098,0.09046802,-0.44134897,-0.17717363,-0.037937675,0.1869099,0.21850643,-0.15323018,-0.09639491,0.24252881,-0.051954478,-0.24812132,-0.045579873,-0.14863418,0.07483169,-0.080118254,0.16766457,-0.28757498,0.096763074,0.031771746,0.082415506,0.053266596
2025-07-21 13:47:49.604,1.560000000000001,1560,78,0.074375026,-0.027608687,0.13049755,0.00092345715,-0.010726124,-0.027544852,0.0,0.0,0.0,0.0,0.05063672,-0.043519374,-0.0399929,-0.029633233,-0.02868208,-0.029071191,0.007741821,-0.011763286,0.008501291,-0.010169406,-0.0182839,0.023059348,-0.031577546,-0.07167021,0.037556298,0.06311199,0.054443873,0.06423674,0.050101835,-0.052788366,0.05949207,-0.04062874,-0.044628456,-0.04176023,-0.051954478,-0.24812132,-0.045579873,-0.14863418,0.07483169,-0.080118254,0.16766457,-0.28757498,0.096763074,0.031771746,0.082415506,0.053266596,0.30764318,0.10909719,0.057177447,0.038733352,-0.28270516,-0.28440663,-0.0058151223,0.37637103,0.18179604,-0.10298909,-0.13270932,0.34740356
2025-07-21 13:47:49.623,1.580000000000001,1580,79,-0.055861987,-0.009777664,-0.13452303,0.0018870356,0.022376971,-0.0016538092,0.0,0.0,0.0,0.0,0.04089675,-0.033748746,-0.032973897,-0.019744527,-0.03607751,-0.03489361,0.005204518,-0.0015476183,0.017553478,-0.015493578,-0.007115583,0.027642217,-0.015178282,-0.024762101,0.040515497,-0.050557543,-0.0674702,-0.07744146,-0.052583415,0.11890585,-0.0072108367,-0.023481276,-0.03584552,-0.012638372,0.30764318,0.10909719,0.057177447,0.038733352,-0.28270516,-0.28440663,-0.0058151223,0.37637103,0.18179604,-0.10298909,-0.13270932,0.34740356,-0.107624575,-0.23439158,0.0032206103,-0.174527,0.2819037,0.031757873,0.25021303,-0.3611594,0.116223335,0.06569533,0.0905994,0.08072434
2025-07-21 13:47:49.643,1.600000000000001,1600,80,0.03977471,-0.017364612,0.17288256,0.020189812,-0.035221063,-0.045980327,0.0,0.0,0.0,0.0,0.04926126,-0.04035703,-0.04037655,-0.026277151,-0.02624197,-0.029335748,0.025684938,-0.010618796,0.010273912,-0.020742187,-0.013666362,0.009373186,0.014547211,-0.052820157,-0.03435678,-0.0673856,0.047142204,-0.07169808,0.082965024,0.005711528,0.025791392,0.0013325901,0.08786768,-0.019259904,-0.107624575,-0.23439158,0.0032206103,-0.174527,0.2819037,0.031757873,0.25021303,-0.3611594,0.116223335,0.06569533,0.0905994,0.08072434,0.34943253,0.126973,0.107763626,0.21812554,-0.25205275,-0.28045702,-0.115907624,0.27911085,0.10822368,-0.21133378,-0.57515126,0.23826145
2025-07-21 13:47:49.663,1.620000000000001,1620,81,0.0031859921,0.116102315,-0.14594321,-0.0011349833,0.027300619,-0.014755257,0.0,0.0,0.0,0.0,0.04699728,-0.029232645,-0.027101642,-0.018858792,-0.033450723,-0.041548487,0.023248661,0.013008077,0.0033510781,-0.024139117,-0.03922405,0.020983191,0.032064408,0.026055193,-0.042284034,-0.039609984,0.016035477,-0.056096632,-0.011890901,0.10717086,-0.074013874,0.040077474,-0.01980647,-0.022139234,0.34943253,0.126973,0.107763626,0.21812554,-0.25205275,-0.28045702,-0.115907624,0.27911085,0.10822368,-0.21133378,-0.57515126,0.23826145,-0.21033655,-0.35020375,0.06728739,-0.2347854,0.21714748,-0.108924314,0.39380518,-0.27021894,0.056968026,0.13425624,0.040286858,0.07790561
2025-07-21 13:47:49.687,1.640000000000001,1640,82,0.09564792,0.044412646,0.16785239,-0.066461116,0.049506713,0.018985396,0.0,0.0,0.0,0.0,0.050837282,-0.038604174,-0.035572823,-0.027303964,-0.011343195,-0.027649723,0.017311784,-0.0017664564,0.0029268782,-0.011335698,-0.021785975,0.010391993,-0.10380528,-0.0064573204,0.08009902,-0.0046411194,0.04601869,-0.024889024,0.031092571,0.011972978,0.009178633,-0.019923091,-0.020079477,0.04901061,-0.21033655,-0.35020375,0.06728739,-0.2347854,0.21714748,-0.108924314,0.39380518,-0.27021894,0.056968026,0.13425624,0.040286858,0.07790561,0.37542236,0.045537733,0.21798131,0.011337858,-0.20369157,-0.55745566,0.031563465,0.27448338,0.08764074,-0.10470939,-0.37936524,0.348563
2025-07-21 13:47:49.704,1.660000000000001,1660,83,0.03445388,0.02663387,-0.09992112,0.029425412,0.011729533,-0.0059376564,0.0,0.0,0.0,0.0,0.042822532,-0.049567193,-0.021008171,-0.03849774,-0.026397202,-0.04873171,0.023778455,0.018404203,0.004226918,-0.014173929,-0.032691456,0.022192081,0.018966908,0.021870928,0.044908762,0.0035525353,0.030848386,-0.023033423,0.044649996,0.09805055,-0.0099652475,0.059385993,-0.09679425,0.023961665,0.37542236,0.045537733,0.21798131,0.011337858,-0.20369157,-0.55745566,0.031563465,0.27448338,0.08764074,-0.10470939,-0.37936524,0.348563,-0.13706398,-0.3619222,0.16387361,-0.27020183,0.052481484,-0.288772,0.2144975,-0.06752947,0.045066707,0.18225919,0.11999221,0.22434568
2025-07-21 13:47:49.723,1.680000000000001,1680,84,-0.018949773,-0.058502134,0.09385433,-0.06008219,0.011770037,0.032974713,0.0,0.0,0.0,0.0,0.03887435,-0.050588302,-0.023775658,-0.043243285,-0.022139564,-0.051712386,0.029953497,0.013654013,0.01561242,-0.0052155643,-0.027052287,0.012754937,-0.060652502,-0.10873054,0.086560845,-0.065994546,0.011256712,-0.0057260483,0.027269555,-0.06451887,-0.019423524,-0.021726817,0.06955466,0.027094746,-0.13706398,-0.3619222,0.16387361,-0.27020183,0.052481484,-0.288772,0.2144975,-0.06752947,0.045066707,0.18225919,0.11999221,0.22434568,0.245014,0.10342059,0.061875723,-0.025650084,-0.05333522,-0.285992,0.13744086,0.23086576,-0.044681497,-0.0542817,-0.39293343,0.2528381
2025-07-21 13:47:49.744,1.700000000000001,1700,85,-0.04284807,-0.012526405,-0.15663362,-0.027345713,0.017764522,-0.04393412,0.0,0.0,0.0,0.0,0.04760116,-0.037020717,-0.01697583,-0.029791119,-0.013787764,-0.05311209,0.016192824,0.024366992,-0.0011901178,-0.010000586,-0.049417254,0.030765804,0.08362835,0.018263673,-0.08122608,-0.05989818,-0.06214551,-0.07148407,0.057191867,0.07821722,0.04351861,-0.040121876,-0.08808375,0.06404737,0.245014,0.10342059,0.061875723,-0.025650084,-0.05333522,-0.285992,0.13744086,0.23086576,-0.044681497,-0.0542817,-0.39293343,0.2528381,-0.30625612,-0.42337483,0.13092995,-0.32582918,0.42495432,-0.008540619,0.26822868,-0.12605682,0.1669074,0.3679831,0.41040778,0.39510152
2025-07-21 13:47:49.766,1.720000000000001,1720,86,-0.056073554,-0.15131232,0.11665551,0.019507313,0.04408281,-0.027836911,0.0,0.0,0.0,0.0,0.04869112,-0.05911998,-0.020381475,-0.037629753,-0.0020907014,-0.050631013,0.020505928,0.010146626,0.019563114,-0.0018763172,-0.013533458,0.015624071,0.031835735,-0.113978736,-0.036994163,-0.020824395,0.010102366,0.040669527,-0.0024465339,-0.03768339,-0.023697162,-0.050324272,0.14682491,0.051295117,-0.30625612,-0.42337483,0.13092995,-0.32582918,0.42495432,-0.008540619,0.26822868,-0.12605682,0.1669074,0.3679831,0.41040778,0.39510152,0.2985388,0.20056793,0.037622087,-0.036909606,-0.2342187,-0.06519623,0.20798472,0.17441198,-0.14152262,-0.05856115,-0.54931533,0.1594948
2025-07-21 13:47:49.788,1.740000000000001,1740,87,-0.121017665,0.014814974,-0.08143979,0.012114246,0.053914085,-0.022960678,0.0,0.0,0.0,0.0,0.049005594,-0.032003477,-0.014563403,-0.030827086,-0.009170269,-0.032331575,0.02230806,0.022403399,0.009340131,0.0024551526,-0.017024545,0.027609635,0.05270861,0.07071376,0.033230897,-0.038961567,0.027904121,-0.032240294,0.015150859,-0.016018923,0.028991336,0.025357299,-0.039873503,0.018467791,0.2985388,0.20056793,0.037622087,-0.036909606,-0.2342187,-0.06519623,0.20798472,0.17441198,-0.14152262,-0.05856115,-0.54931533,0.1594948,-0.18645178,-0.4356425,-0.019788332,-0.15933336,-0.061311238,-0.062040616,0.26907298,-0.074218586,0.07225111,0.03623951,0.03949571,0.16114034
2025-07-21 13:47:49.804,1.7600000000000011,1760,88,-0.018787649,0.0015044136,0.0533296,-0.07373783,-0.00072248164,-0.016062055,0.0,0.0,0.0,0.0,0.034191415,-0.056222767,-0.006708943,-0.028576305,-0.00992078,-0.04467819,0.033248577,0.0038972797,0.011433798,-0.0107974885,-0.008003452,0.016998127,0.014133964,0.010628659,0.032804795,-0.07767673,-0.0030551292,-0.011108117,0.014309593,0.018898085,0.021952355,-0.062576324,-0.0072533167,-0.01886149,-0.18645178,-0.4356425,-0.019788332,-0.15933336,-0.061311238,-0.062040616,0.26907298,-0.074218586,0.07225111,0.03623951,0.03949571,0.16114034,0.19884503,-0.0514236,0.14035365,-0.060493674,0.0045234924,-0.39442942,0.13180335,0.08365232,-0.0059358105,-0.080568746,-0.15570785,0.2708007
2025-07-21 13:47:49.824,1.7800000000000011,1780,89,-0.073016874,0.028142618,-0.10426222,-0.0041829767,-0.012813753,0.019715142,0.0,0.0,0.0,0.0,0.045241155,-0.040520214,-0.02358319,-0.036834072,0.0037889911,-0.045816697,0.019855319,0.008123984,0.009334744,-0.0065609207,-0.024925655,0.028749922,-0.04060162,0.039706647,0.006456963,0.033578645,0.07011328,-0.039059967,-0.060573693,-0.04311123,-0.03340712,-0.060703184,0.031986427,0.009940042,0.19884503,-0.0514236,0.14035365,-0.060493674,0.0045234924,-0.39442942,0.13180335,0.08365232,-0.0059358105,-0.080568746,-0.15570785,0.2708007,-0.15564343,-0.4325844,-0.09619554,-0.14174229,-0.05972687,-0.12251963,0.33706823,-0.08653277,0.031340472,0.086996004,0.08601847,0.067986116
2025-07-21 13:47:49.844,1.8000000000000012,1800,90,0.008157174,-0.029019909,0.08860481,-0.058638748,0.03722307,-0.038069684,0.0,0.0,0.0,0.0,0.040357903,-0.06507197,-0.01929601,-0.045076378,-0.007182092,-0.051804338,0.034215916,0.0042675366,-0.0042336937,-0.005293209,-0.010754781,0.015975326,-0.078953825,0.01701408,-0.0073281177,0.013619811,-0.0747075,0.05403912,-0.03981639,-0.07159151,0.06653869,0.012538083,0.03138447,-0.03694025,-0.15564343,-0.4325844,-0.09619554,-0.14174229,-0.05972687,-0.12251963,0.33706823,-0.08653277,0.031340472,0.086996004,0.08601847,0.067986116,0.24140878,0.045359485,-0.024556585,-0.033410978,0.14211647,-0.29756227,0.1539099,0.23975396,0.032822885,-0.106259,-0.221271,0.2769613
2025-07-21 13:47:49.869,1.8200000000000012,1820,91,-0.010214703,-0.03531546,-0.13047874,-0.010366266,-0.0055301306,-0.023904223,0.0,0.0,0.0,0.0,0.032852884,-0.050809227,-0.020385522,-0.04323954,-0.009661615,-0.044211134,0.033785574,0.015526625,0.0076676244,-0.006518473,-0.025830733,0.03203822,-0.012732302,-0.009113687,-0.0784009,-0.053174842,0.07387495,-0.038308945,0.006372005,-0.012073721,0.008808923,0.04152757,-0.010123086,-0.059625454,0.24140878,0.045359485,-0.024556585,-0.033410978,0.14211647,-0.29756227,0.1539099,0.23975396,0.032822885,-0.106259,-0.221271,0.2769613,-0.36538017,-0.4205081,-0.09018541,-0.104910284,0.018432543,0.07326518,0.24505074,-0.29041424,0.22777551,0.25125515,0.4605939,0.24256223
2025-07-21 13:47:49.887,1.8400000000000012,1840,92,-0.0025453088,0.024469145,0.09757428,-0.023560097,0.034504227,0.036532704,0.0,0.0,0.0,0.0,0.034822103,-0.074482985,-0.014660736,-0.03493088,0.006349409,-0.044312313,0.025236398,0.01058181,0.010564801,0.005751636,0.003890791,0.012906848,0.01669849,-0.061938256,0.022822276,-0.061482336,0.049336504,0.017232317,0.049000308,-0.1022099,0.026366683,0.07395361,0.07506481,0.00042243765,-0.36538017,-0.4205081,-0.09018541,-0.104910284,0.018432543,0.07326518,0.24505074,-0.29041424,0.22777551,0.25125515,0.4605939,0.24256223,0.23576279,0.05121345,-0.1440916,-0.013157412,-0.27112648,-0.05764826,0.03252345,-0.033099342,0.06915524,-0.08166912,-0.04613563,0.2011351
2025-07-21 13:47:49.904,1.8600000000000012,1860,93,0.024411928,-0.02853904,-0.050736293,0.00015059258,-0.040073335,-0.01827055,0.0,0.0,0.0,0.0,0.033247832,-0.052720457,-0.024682995,-0.026653534,-0.010937235,-0.028549027,0.026489493,0.01062721,0.013762142,0.0033943471,0.009100831,0.02947628,0.0232156,0.06759133,0.028078564,0.0009230672,-0.07563214,-0.042664655,0.03241402,-0.053374846,-0.04287467,-0.014795919,-0.08571317,-0.008295711,0.23576279,0.05121345,-0.1440916,-0.013157412,-0.27112648,-0.05764826,0.03252345,-0.033099342,0.06915524,-0.08166912,-0.04613563,0.2011351,0.02692882,-0.2935891,-0.15623298,-0.10349928,0.14066102,-0.06854434,0.109910965,0.04540385,0.11320218,0.0017560241,0.21713232,0.26392758
2025-07-21 13:47:49.924,1.8800000000000012,1880,94,-0.01866202,-0.09317166,0.0595003,-0.04014333,0.04494742,-0.028264904,0.0,0.0,0.0,0.0,0.030989356,-0.07227175,-0.018051205,-0.03971538,-0.0027616392,-0.045750804,0.030205114,0.011302287,0.0032132808,0.008042653,0.018749522,0.013761624,-0.043975454,-0.067458205,0.026757414,0.014007428,0.020822877,0.015989607,0.022269165,-0.029399669,-0.020340689,-0.0070618982,0.013090102,-0.016241163,0.02692882,-0.2935891,-0.15623298,-0.10349928,0.14066102,-0.06854434,0.109910965,0.04540385,0.11320218,0.0017560241,0.21713232,0.26392758,0.1959228,0.047708273,-0.08627271,-0.025852356,-0.1825033,-0.13437645,0.11670989,0.023399118,0.056580357,-0.08161714,-0.1325947,0.19256185
2025-07-21 13:47:49.944,1.9000000000000012,1900,95,0.053955182,0.05060641,-0.060257293,-0.0113849575,0.011472593,0.010374871,0.0,0.0,0.0,0.0,0.02560045,-0.049840666,-0.025946561,-0.0388793,-0.009636874,-0.035150953,0.02337836,0.0022276728,-0.004051585,-0.0105872,0.012570984,0.021725988,-0.0137058515,-0.04308981,0.04603934,0.013076467,0.008146144,0.009478589,-0.08471769,-0.033624128,0.034780256,-0.07556204,0.04160771,0.008528034,0.1959228,0.047708273,-0.08627271,-0.025852356,-0.1825033,-0.13437645,0.11670989,0.023399118,0.056580357,-0.08161714,-0.1325947,0.19256185,0.028022848,-0.14393465,-0.2386131,-0.11584599,-0.00038129557,-0.001613874,0.09715855,-0.1839081,0.24888393,0.007090692,0.053719196,0.13823439
2025-07-21 13:47:49.971,1.9200000000000013,1920,96,0.03438161,-0.011341546,0.07999333,-0.04374748,-0.012136085,-0.04426237,0.0,0.0,0.0,0.0,0.029704548,-0.04955038,-0.039848126,-0.03439556,-0.015269115,-0.041626044,0.035544205,0.004254241,0.011442172,0.00055361853,0.018928878,0.024362903,-0.07076929,-0.06546177,-0.0071233204,-0.019377673,0.070977025,0.054751772,-0.04721454,-0.027370969,-0.020363733,-0.041206636,-0.070829265,0.0629908,0.028022848,-0.14393465,-0.2386131,-0.11584599,-0.00038129557,-0.001613874,0.09715855,-0.1839081,0.24888393,0.007090692,0.053719196,0.13823439,0.25290263,0.015312707,-0.06610032,0.068091825,-0.25424674,-0.16171364,-0.009852756,0.037573162,0.20787579,-0.10202769,-0.027007816,0.2520351
2025-07-21 13:47:49.988,1.9400000000000013,1940,97,0.022082604,0.043588527,-0.115442514,-0.05063422,-0.00049173116,0.032503728,0.0,0.0,0.0,0.0,0.038830947,-0.05825421,-0.030598862,-0.031813294,-0.01684552,-0.03932718,0.02756821,-0.009692392,0.011388875,-0.01102724,0.008644944,0.030899644,-0.012962032,0.085242696,-0.0021234062,0.0012418026,-0.08278019,0.0020312571,0.016375996,-0.03317844,-0.07270499,-0.0765735,0.05024232,-0.02349623,0.25290263,0.015312707,-0.06610032,0.068091825,-0.25424674,-0.16171364,-0.009852756,0.037573162,0.20787579,-0.10202769,-0.027007816,0.2520351,-0.029330332,-0.28922123,-0.26453087,-0.11205824,0.33014828,0.19807808,0.29611012,-0.23291752,0.09463911,0.07431207,0.03221928,0.08788797
2025-07-21 13:47:50.005,1.9600000000000013,1960,98,0.02807659,-0.03658204,0.14648752,0.033564214,0.012133077,0.04070854,0.0,0.0,0.0,0.0,0.03241062,-0.0651077,-0.044679847,-0.030279364,-0.020402541,-0.039253928,0.029780375,-0.008413232,0.0024547824,-0.0018708584,0.0013562199,0.021712637,0.006691625,-0.085591935,0.0031542554,-0.06342126,0.105026625,0.046568383,0.08787188,-0.030708434,0.033235498,0.0745184,0.028480632,0.0050428966,-0.029330332,-0.28922123,-0.26453087,-0.11205824,0.33014828,0.19807808,0.29611012,-0.23291752,0.09463911,0.07431207,0.03221928,0.08788797,0.3289016,0.10839576,-0.07915405,0.05374581,-0.49100414,-0.08446415,-0.10695253,0.14784116,0.21633506,-0.20645867,-0.18759537,0.18299146
2025-07-21 13:47:50.025,1.9800000000000013,1980,99,0.05526093,0.07601639,-0.17849742,-0.01821424,0.05514941,-0.006116817,0.0,0.0,0.0,0.0,0.040683575,-0.039574724,-0.030258335,-0.028824072,-0.011901869,-0.034255177,0.01586956,-0.0148355765,-0.0002969604,-0.013420515,-0.001180896,0.011195716,0.030510003,0.04695223,0.044742987,0.07878001,-0.053472266,0.016387973,-0.0054626786,0.0036536762,0.049114317,-0.06313647,-0.07865168,-0.0057021324,0.3289016,0.10839576,-0.07915405,0.05374581,-0.49100414,-0.08446415,-0.10695253,0.14784116,0.21633506,-0.20645867,-0.18759537,0.18299146,-0.0749757,-0.42148197,-0.14009279,-0.29505658,0.2851292,0.2466207,0.17659889,-0.33878055,0.28726116,0.22672786,0.3919448,0.20960064
2025-07-21 13:47:50.045,2.0000000000000013,2000,100,0.0746545,-0.054834697,0.14129964,-0.001336081,0.01940958,0.031482913,0.0,0.0,0.0,0.0,0.031293366,-0.05244969,-0.04557039,-0.04706698,-0.026748495,-0.03261365,0.027586984,-0.021204624,0.007574456,0.0058771833,0.022545462,0.026493773,-0.055150304,0.0008284336,0.040200282,0.034366056,0.050705243,-0.042689554,-0.018029405,-0.064004704,0.026067125,-0.05437727,0.0036363553,0.041886624,-0.0749757,-0.42148197,-0.14009279,-0.29505658,0.2851292,0.2466207,0.17659889,-0.33878055,0.28726116,0.22672786,0.3919448,0.20960064,0.37207818,-0.015428374,-0.044943295,0.12297386,-0.35427314,-0.1561004,-0.0147271715,0.19309066,0.16601539,-0.18410009,-0.16361524,0.18871559
2025-07-21 13:47:50.070,2.0200000000000014,2020,101,-0.018995538,-0.030286372,-0.10197257,0.03148851,-0.0041328603,-0.03965578,0.0,0.0,0.0,0.0,0.03950662,-0.052456353,-0.04449345,-0.032906197,-0.013890156,-0.020565944,0.028432282,-0.003848819,0.018521028,-0.010802544,-0.001456627,0.01989976,0.040058203,0.031185701,0.0341306,-0.047455713,-0.056037966,-0.0699683,0.021643842,-0.012043873,0.045596663,-0.038703997,0.0057719117,0.06746451,0.37207818,-0.015428374,-0.044943295,0.12297386,-0.35427314,-0.1561004,-0.0147271715,0.19309066,0.16601539,-0.18410009,-0.16361524,0.18871559,0.022132166,-0.24926133,-0.2707753,-0.09174362,0.17510106,0.17199518,0.06341018,-0.2814429,0.25308013,-0.021738846,0.15017267,0.19946836
2025-07-21 13:47:50.088,2.0400000000000014,2040,102,0.032250583,0.000792829,0.11289342,0.02927621,0.028040962,-0.01789848,0.0,0.0,0.0,0.0,0.045812756,-0.05264814,-0.043893423,-0.03868,-0.02591323,-0.02926779,0.026769955,-0.0054871435,0.009511699,-0.00866936,0.0073012793,0.011877414,-0.027033992,0.0018540052,-0.057466812,0.0033382939,0.0884061,0.014822298,0.04521176,-0.057007175,0.088098876,-0.020922683,0.075637184,-0.069006905,0.022132166,-0.24926133,-0.2707753,-0.09174362,0.17510106,0.17199518,0.06341018,-0.2814429,0.25308013,-0.021738846,0.15017267,0.19946836,0.23384203,0.014998427,-0.17792505,0.19446371,-0.4110134,-0.030817855,-0.07104783,0.095105335,0.15329823,-0.21043374,-0.30384737,0.10455461
2025-07-21 13:47:50.105,2.0600000000000014,2060,103,-0.01763216,0.041899066,-0.09067053,0.03760989,0.0395296,0.043185674,0.0,0.0,0.0,0.0,0.05266633,-0.054032877,-0.0377447,-0.0401014,-0.024441198,-0.010689858,0.010883505,0.0010426108,0.009599871,-0.013637319,0.0037321167,0.021297833,0.028541865,0.02666422,-0.06369462,-0.0081892675,0.0013193812,0.06470743,-0.013374022,-0.02443338,-0.054582417,-0.03633088,-0.11467218,0.006782688,0.23384203,0.014998427,-0.17792505,0.19446371,-0.4110134,-0.030817855,-0.07104783,0.095105335,0.15329823,-0.21043374,-0.30384737,0.10455461,-0.00955303,-0.2387549,-0.10485496,-0.18985751,0.072853826,0.021779936,0.18460408,-0.06904207,0.16557069,0.06046718,0.30002567,0.23488872
2025-07-21 13:47:50.125,2.0800000000000014,2080,104,-0.016188962,-0.06499299,0.085868426,-0.053547256,0.0647296,-0.02484581,0.0,0.0,0.0,0.0,0.043651406,-0.06380872,-0.04834942,-0.041878086,-0.029602563,-0.020655844,0.030153846,-0.0063309106,0.016307784,-0.0038004234,0.00527617,0.01799176,0.010312706,-0.009280048,-0.03694273,0.05090787,0.0027628904,0.031553306,-0.022122037,-0.03547623,0.051333617,-0.023720533,0.03953475,-0.028908739,-0.00955303,-0.2387549,-0.10485496,-0.18985751,0.072853826,0.021779936,0.18460408,-0.06904207,0.16557069,0.06046718,0.30002567,0.23488872,0.22032706,0.036797978,-0.15967229,0.03819483,-0.12167505,-0.15822573,0.05419709,0.1724116,0.14822292,-0.1433357,-0.2666974,0.18869463
2025-07-21 13:47:50.145,2.1000000000000014,2100,105,-0.019920558,0.046052366,-0.10745994,-0.039888166,0.04835218,0.035981253,0.0,0.0,0.0,0.0,0.043053,-0.049331546,-0.043096222,-0.039988235,-0.033806793,-0.02087272,0.012467856,0.013366645,0.017561052,-0.0020418423,0.004893192,0.017746063,0.0613456,0.052168626,-0.006737764,0.07906286,-0.018363656,0.059461925,0.011258091,0.0490127,0.025473677,0.04555435,-0.05193742,-0.0026117517,0.22032706,0.036797978,-0.15967229,0.03819483,-0.12167505,-0.15822573,0.05419709,0.1724116,0.14822292,-0.1433357,-0.2666974,0.18869463,-0.21427204,-0.3372224,0.03350731,-0.25931296,0.20960408,-0.03237887,0.25904903,-0.21088055,0.16986406,0.14343052,0.20113996,0.25003502
2025-07-21 13:47:50.170,2.1200000000000014,2120,106,0.044860683,-0.07924114,0.05351406,-0.018305201,0.014126004,-0.04208706,0.0,0.0,0.0,0.0,0.044703357,-0.051098976,-0.041044313,-0.026913077,-0.020595884,-0.022461196,0.02880314,-0.016256394,0.018885346,-0.010044395,0.008214426,0.02123075,-0.09972332,-0.05695912,0.020636406,0.034768723,0.012853165,0.04471169,-0.030872116,-0.013190458,0.054965124,0.049074534,-0.02234233,0.023204777,-0.21427204,-0.3372224,0.03350731,-0.25931296,0.20960408,-0.03237887,0.25904903,-0.21088055,0.16986406,0.14343052,0.20113996,0.25003502,0.22330315,-0.03355261,-0.044451095,-0.12329741,-0.08226723,-0.15974812,0.16287933,0.04812297,0.10301127,-0.022760097,0.040640432,0.2282052
2025-07-21 13:47:50.188,2.1400000000000015,2140,107,-0.07254281,-0.020657947,-0.077319264,0.007015824,-0.024979223,-0.020239966,0.0,0.0,0.0,0.0,0.039223008,-0.058261238,-0.028295513,-0.030187838,-0.009555664,-0.025846126,0.02036596,-0.009205744,0.009904622,-0.0110031245,0.02501524,0.029881291,-0.027510734,-0.034989975,-0.018955328,-0.015073306,-0.03919635,0.065589,0.042586137,-0.05753617,-0.074625626,0.05298168,-0.0405037,-0.0151527645,0.22330315,-0.03355261,-0.044451095,-0.12329741,-0.08226723,-0.15974812,0.16287933,0.04812297,0.10301127,-0.022760097,0.040640432,0.2282052,-0.018514927,-0.22093064,-0.25370142,-0.13987109,0.21937902,0.2112314,0.13785405,-0.15428574,0.21443042,0.13021092,0.35945734,0.1823283
2025-07-21 13:47:50.205,2.1600000000000015,2160,108,0.044980027,-0.06360468,0.14289886,-0.007949043,0.062196266,0.0031816391,0.0,0.0,0.0,0.0,0.039525945,-0.05841665,-0.03567861,-0.032356698,-0.0072198017,-0.030584786,0.027891105,-0.009860347,0.024620663,0.00041035173,0.029475411,0.023164336,-0.06071411,-0.00815984,-0.03527037,-0.03189913,-0.0073711793,-0.03202094,0.023033291,0.022963412,0.02172576,0.06213978,0.12403283,-0.028477449,-0.018514927,-0.22093064,-0.25370142,-0.13987109,0.21937902,0.2112314,0.13785405,-0.15428574,0.21443042,0.13021092,0.35945734,0.1823283,0.36066073,0.05881197,-0.0766417,0.19422998,-0.23062529,-0.12461962,-0.05848561,0.08056846,0.044371523,-0.1493757,-0.5186874,0.09162499
2025-07-21 13:47:50.225,2.1800000000000015,2180,109,0.009868017,0.09014149,-0.11063004,-0.05978386,0.044384226,-0.01727908,0.0,0.0,0.0,0.0,0.043549735,-0.056565262,-0.048213795,-0.036824495,-0.0024360255,-0.013767921,0.035524957,-0.011944989,0.0057747094,-0.013672394,0.016148442,0.012235591,0.051424008,0.04738256,-0.015927428,0.04955277,-0.07601037,-0.012934232,0.008618989,-0.017366547,0.029067146,-0.02751485,-0.09393043,-0.057155292,0.36066073,0.05881197,-0.0766417,0.19422998,-0.23062529,-0.12461962,-0.05848561,0.08056846,0.044371523,-0.1493757,-0.5186874,0.09162499,-0.048700865,-0.2560161,-0.11788326,-0.16864699,0.27114245,0.07125212,0.1948048,-0.102244586,0.20878568,0.03661337,0.28428403,0.25019616
2025-07-21 13:47:50.245,2.2000000000000015,2200,110,0.0067978217,-0.029740278,0.062434655,0.028116167,0.046092976,0.022986991,0.0,0.0,0.0,0.0,0.04131815,-0.05813509,-0.045416683,-0.038230874,0.013681755,-0.020799482,0.030471042,-0.0102479765,0.013387828,-0.014058195,0.02415187,0.01834034,0.015894134,0.05531419,-0.062451538,0.006755161,-0.023687217,0.011802795,0.07715231,0.059272066,-0.0029646072,-0.0053654537,-0.008275074,0.038706925,-0.048700865,-0.2560161,-0.11788326,-0.16864699,0.27114245,0.07125212,0.1948048,-0.102244586,0.20878568,0.03661337,0.28428403,0.25019616,0.201478,-0.108813874,0.07121951,-0.039388996,-0.11871707,-0.3215051,0.15045725,0.12640788,-0.007182069,-0.077547625,-0.1681504,0.22354035
2025-07-21 13:47:50.271,2.2200000000000015,2220,111,0.009819849,-0.009585829,-0.0768895,0.0051484634,-0.023041649,0.03655039,0.0,0.0,0.0,0.0,0.045247566,-0.05991757,-0.031692658,-0.039977398,-0.0014167558,-0.036030535,0.023199154,-0.004274723,0.017859146,-0.0069441763,0.010572766,0.018098878,0.059818916,-0.045484487,-0.057496607,0.023358181,-0.027589304,-0.008614888,-0.027810987,0.08278738,-0.020286158,0.0053516454,-0.08908835,0.079242356,0.201478,-0.108813874,0.07121951,-0.039388996,-0.11871707,-0.3215051,0.15045725,0.12640788,-0.007182069,-0.077547625,-0.1681504,0.22354035,-0.061111197,-0.14845541,0.15325892,-0.2618572,0.14970475,-0.21482031,0.16708216,-0.057570804,0.1146928,0.169659,0.29204985,0.3263609
2025-07-21 13:47:50.288,2.2400000000000015,2240,112,0.045074247,-0.054170918,0.0903259,-0.0037926591,0.00623061,0.048589874,0.0,0.0,0.0,0.0,0.045626648,-0.065306894,-0.033769,-0.03377778,0.019103687,-0.025922257,0.032656163,-0.0022762206,0.016266445,-0.0012859106,0.025638841,0.025050612,-0.07954563,-0.030490922,-0.03579623,0.051172655,0.07786697,-0.028734006,0.001157945,0.04671342,-0.03149005,0.021481106,-0.01931254,-0.056354214,-0.061111197,-0.14845541,0.15325892,-0.2618572,0.14970475,-0.21482031,0.16708216,-0.057570804,0.1146928,0.169659,0.29204985,0.3263609,0.20248856,-0.029905746,0.05235345,-0.058603,-0.2910544,-0.39857808,0.28535786,0.15268162,-0.08163004,-0.086293206,-0.3012701,0.112629354
2025-07-21 13:47:50.305,2.2600000000000016,2260,113,-0.023082051,0.024484413,-0.13696085,-0.026298095,0.06345696,0.022429777,0.0,0.0,0.0,0.0,0.05134508,-0.04940382,-0.022105975,-0.04588751,-0.00024579174,-0.043990105,0.03391008,0.019574178,0.016325917,-0.006006818,0.018605974,0.022897694,-0.053030416,0.03746847,-0.07384757,0.055597242,-0.08713651,0.0479125,0.021624403,0.07945613,-0.01831957,0.009929291,-0.018921282,-0.0693093,0.20248856,-0.029905746,0.05235345,-0.058603,-0.2910544,-0.39857808,0.28535786,0.15268162,-0.08163004,-0.086293206,-0.3012701,0.112629354,-0.25937164,-0.3674568,0.021106325,-0.3165038,0.37436455,0.061508875,0.44703853,-0.30828932,0.046003573,0.33532268,0.065163136,0.16166216
2025-07-21 13:47:50.326,2.2800000000000016,2280,114,-0.038585596,-0.046717152,0.083348334,0.007683649,0.043195672,0.0490102,0.0,0.0,0.0,0.0,0.037607066,-0.06632928,-0.023839049,-0.047186814,0.012825882,-0.03130461,0.04363119,-0.01383825,0.012911113,0.003931337,0.018534334,0.029313073,0.03663292,-0.07969639,0.07886479,0.0106830895,0.004273476,0.025206866,-0.046469245,-0.12554452,0.0315839,0.0367294,0.044501398,-0.056335717,-0.25937164,-0.3674568,0.021106325,-0.3165038,0.37436455,0.061508875,0.44703853,-0.30828932,0.046003573,0.33532268,0.065163136,0.16166216,0.15323974,0.1016312,-0.11835236,-0.1179755,-0.23330683,-0.0022086091,0.12462546,0.14903633,0.14150688,-0.10086413,0.028801398,0.18727021
2025-07-21 13:47:50.346,2.3000000000000016,2300,115,-0.01903841,-0.0057652616,-0.06601153,0.0037426446,-0.0036372973,0.0030189243,0.0,0.0,0.0,0.0,0.042167302,-0.050430328,-0.027436052,-0.050595876,-0.0068023186,-0.023718553,0.026740717,-0.0057343035,-0.0016572393,0.0011562674,0.016052512,0.02095669,-0.036013585,0.04504524,-0.044884987,0.053434588,-0.03493932,0.031339902,-0.0658967,0.046160024,-0.06511746,-0.036878206,-0.05134396,-0.035312872,0.15323974,0.1016312,-0.11835236,-0.1179755,-0.23330683,-0.0022086091,0.12462546,0.14903633,0.14150688,-0.10086413,0.028801398,0.18727021,-0.009743974,-0.29283968,-0.08821835,-0.18075262,0.08399312,-0.06496532,0.26815665,-0.11472365,0.0910799,0.0585203,0.10232496,0.0981887
2025-07-21 13:47:50.371,2.3200000000000016,2320,116,0.026765767,-0.013886128,0.044647053,-0.030413864,-0.004431941,-0.028042262,0.0,0.0,0.0,0.0,0.04425619,-0.054347865,-0.028050859,-0.03902566,0.009578623,-0.034826793,0.044618573,-0.0025150594,-0.0010372269,-0.006393015,0.011549377,0.01085078,0.0029850337,-0.08733417,0.060878906,-0.026179288,0.02375695,0.054970454,0.016891982,-0.05428645,0.058302615,0.061275225,0.051807005,-0.048221506,-0.009743974,-0.29283968,-0.08821835,-0.18075262,0.08399312,-0.06496532,0.26815665,-0.11472365,0.0910799,0.0585203,0.10232496,0.0981887,0.115843415,0.008474236,-0.18779266,-0.012875859,-0.21621846,-0.01789536,-0.012117799,-0.09794879,0.1773546,-0.070305355,0.041406203,0.19728155
2025-07-21 13:47:50.388,2.3400000000000016,2340,117,0.050251205,0.054075945,-0.07820351,-0.024133358,-0.036709998,-0.0070071714,0.0,0.0,0.0,0.0,0.030464692,-0.053871486,-0.030874483,-0.04374628,-0.0060153217,-0.034194767,0.044292662,-0.019672168,0.015041838,-0.013453431,0.017997168,0.014677125,-0.058396053,0.019456666,-0.01876036,-0.06297937,0.02127787,0.04106055,0.023094987,0.0045534074,-0.018197332,0.011014235,-0.07130635,0.015595197,0.115843415,0.008474236,-0.18779266,-0.012875859,-0.21621846,-0.01789536,-0.012117799,-0.09794879,0.1773546,-0.070305355,0.041406203,0.19728155,0.0061586015,-0.33859807,-0.26162842,-0.11224046,0.05191303,0.15691273,0.06612474,-0.30404732,0.22426388,0.11121678,0.42321634,0.14695083
2025-07-21 13:47:50.406,2.3600000000000017,2360,118,0.0927296,-0.0046547763,0.06251039,-0.012123676,-0.033134464,-0.00085223134,0.0,0.0,0.0,0.0,0.031244352,-0.06529355,-0.03490755,-0.039333787,-0.011544805,-0.031057183,0.043986972,-0.03138441,0.0138767455,-0.008386731,0.036281962,0.0069689364,-0.06994006,-0.027508155,0.0609101,0.056255657,-0.0012446577,-0.04774564,0.08119951,-0.11216158,-0.026111657,-0.011443886,0.0018010177,0.046073627,0.0061586015,-0.33859807,-0.26162842,-0.11224046,0.05191303,0.15691273,0.06612474,-0.30404732,0.22426388,0.11121678,0.42321634,0.14695083,0.2816339,-0.12406451,-0.28421783,0.102487594,-0.12493225,-0.019619275,-0.043688882,0.032905307,0.19970694,-0.042671118,0.12604533,0.18859388
2025-07-21 13:47:50.426,2.3800000000000017,2380,119,0.04886744,-0.0700743,-0.07788265,0.018409505,0.0012105606,-0.0059693414,0.0,0.0,0.0,0.0,0.025214598,-0.05696969,-0.04731666,-0.047318973,-0.003923241,-0.02663997,0.03229647,-0.019192403,0.0026006906,0.004288417,0.040258907,0.019661179,0.073811375,0.06740432,-0.043339055,-0.035981093,-0.06292774,-0.01908289,0.013955342,-0.046406735,0.032821413,0.051779505,0.017138755,-0.012169611,0.2816339,-0.12406451,-0.28421783,0.102487594,-0.12493225,-0.019619275,-0.043688882,0.032905307,0.19970694,-0.042671118,0.12604533,0.18859388,-0.027079038,-0.2947239,-0.45813245,0.0070343055,0.16238655,0.36340544,0.012598224,-0.34166494,0.3207316,-0.017576586,0.3905512,0.18207093
2025-07-21 13:47:50.446,2.4000000000000017,2400,120,0.10207403,-0.039811984,0.10181025,-0.0037285443,0.007881932,-0.016767329,0.0,0.0,0.0,0.0,0.023141509,-0.060087614,-0.04037995,-0.045448165,0.0072784363,-0.01064207,0.037416946,-0.03646384,0.02734484,0.005849233,0.056424286,0.027765578,-0.03248824,-0.028443307,-0.04794099,-0.06664485,0.08618683,0.031726938,-0.028955119,-0.05669216,-0.058070716,-0.060909014,0.117764026,-0.022063449,-0.027079038,-0.2947239,-0.45813245,0.0070343055,0.16238655,0.36340544,0.012598224,-0.34166494,0.3207316,-0.017576586,0.3905512,0.18207093,0.22909679,-0.012647504,-0.3655905,0.2519943,-0.5349765,0.15783837,-0.17790268,-0.21027985,0.10619692,-0.12135063,-0.23263231,-0.00012837723
2025-07-21 13:47:50.471,2.4200000000000017,2420,121,0.04482325,0.045108322,-0.12943983,0.019402202,0.051644962,0.01988365,0.0,0.0,0.0,0.0,0.03919591,-0.05673753,-0.046506565,-0.040385645,-0.015484411,-0.01553304,0.025885323,-0.05091642,0.019204944,-0.0056225793,0.0358291,0.019439755,-0.041037526,0.03256011,0.01974308,-0.021459224,-0.004524923,0.02331766,-0.0101495925,0.011662535,0.03340622,-0.01184954,-0.03466475,0.037109014,0.22909679,-0.012647504,-0.3655905,0.2519943,-0.5349765,0.15783837,-0.17790268,-0.21027985,0.10619692,-0.12135063,-0.23263231,-0.00012837723,0.08782793,-0.29286027,-0.38676926,-0.12605396,0.1682631,0.3960624,0.011571385,-0.55451983,0.29294768,-0.03879619,0.3245636,0.119935155
2025-07-21 13:47:50.488,2.4400000000000017,2440,122,-0.0032897496,-0.05334694,0.18272415,0.014998756,0.033570465,0.0053363875,0.0,0.0,0.0,0.0,0.033206265,-0.06826015,-0.061908726,-0.041605037,-0.010774559,0.0020213197,0.034573745,-0.058391158,0.016311128,-0.0012211907,0.05446849,0.02079343,0.012613214,0.030721283,0.04094913,-0.04491343,0.04465315,0.04857126,0.00066840905,-0.008614444,0.060259867,0.069355406,0.10333528,0.063781045,0.08782793,-0.29286027,-0.38676926,-0.12605396,0.1682631,0.3960624,0.011571385,-0.55451983,0.29294768,-0.03879619,0.3245636,0.119935155,0.35040224,-0.026993463,-0.12801766,0.32832542,-0.5878771,0.12346499,-0.36174276,0.1010309,0.25160697,-0.18601193,-0.4662287,0.124215394
2025-07-21 13:47:50.506,2.4600000000000017,2460,123,-0.09713797,0.08733593,-0.18572551,-0.031689372,0.04482432,-0.032172795,0.0,0.0,0.0,0.0,0.042230528,-0.061716333,-0.06395259,-0.038236674,-0.023849227,-0.010699974,0.024072101,-0.055911627,0.02831389,-0.002326649,0.02893768,0.021735601,0.01441743,-0.0041671805,-0.06794311,0.0326252,-0.107618496,-0.04965582,-0.05043144,0.10021447,-0.044503644,0.034720067,-0.13659586,0.009738458,0.35040224,-0.026993463,-0.12801766,0.32832542,-0.5878771,0.12346499,-0.36174276,0.1010309,0.25160697,-0.18601193,-0.4662287,0.124215394,0.004991073,-0.11199813,-0.17794889,-0.14164878,0.48357075,0.37244892,0.16926889,-0.64547515,0.30042014,-0.022645783,0.50120914,0.13107768
2025-07-21 13:47:50.527,2.4800000000000018,2480,124,0.03223006,-0.07253495,0.07732095,-0.0027170286,0.066895306,-0.03814655,0.0,0.0,0.0,0.0,0.037553627,-0.05593583,-0.05761112,-0.037745554,-0.012459434,0.004543147,0.014805116,-0.07166628,0.026216162,-0.009443668,0.03229802,0.0071167084,0.022682117,0.0376673,0.07289309,0.061285455,0.076260306,0.059645247,-0.06223711,0.0010942441,-0.027018877,0.04622005,0.10806985,0.07688058,0.004991073,-0.11199813,-0.17794889,-0.14164878,0.48357075,0.37244892,0.16926889,-0.64547515,0.30042014,-0.022645783,0.50120914,0.13107768,0.29262906,-0.034031533,-0.26787207,0.099169984,-0.49747404,0.20784348,-0.09046443,-0.19380268,0.1678397,-0.031631682,-0.16857852,0.010105055
2025-07-21 13:47:50.546,2.5000000000000018,2500,125,0.00039514323,0.024950106,-0.05524617,-0.027467795,0.043315165,0.03411401,0.0,0.0,0.0,0.0,0.050409243,-0.06259806,-0.051607292,-0.03654538,-0.02436101,0.011196564,0.02365418,-0.08193786,0.025584675,-0.00663754,0.027486537,0.017830256,0.02213102,-0.0526054,-0.0104300985,-0.0036337185,-0.050338782,0.030079326,0.041443236,0.028404694,-0.060812004,0.03083975,-0.06632038,-0.06917508,0.29262906,-0.034031533,-0.26787207,0.099169984,-0.49747404,0.20784348,-0.09046443,-0.19380268,0.1678397,-0.031631682,-0.16857852,0.010105055,0.12686422,-0.05661922,-0.21158269,-0.103973284,0.06050708,0.2094925,0.0425936,-0.30969962,0.2569289,-0.06136887,0.31509677,0.12353605
2025-07-21 13:47:50.571,2.520000000000002,2520,126,-0.031531602,-0.08668181,0.06622294,0.022727506,-0.032082915,-0.018261965,0.0,0.0,0.0,0.0,0.034434047,-0.050554145,-0.04801307,-0.040390108,-0.02578762,-0.00566035,0.018962482,-0.08536106,0.019363098,-0.019383628,0.049062133,0.0051167067,-0.024485437,-0.060408007,0.04388468,-0.011571097,-0.030080315,-0.04465467,0.06286528,0.032037083,-0.03899724,0.069380485,-0.02897472,-0.044337608,0.12686422,-0.05661922,-0.21158269,-0.103973284,0.06050708,0.2094925,0.0425936,-0.30969962,0.2569289,-0.06136887,0.31509677,0.12353605,0.2751096,-0.022914449,-0.16712594,0.1293832,-0.23289083,-0.0030773468,-0.057636753,-0.010767702,0.17103338,-0.09205556,0.00064335973,0.17248912
2025-07-21 13:47:50.588,2.540000000000002,2540,127,-0.001086904,-0.033454664,-0.104697414,-0.024521077,0.0055869757,0.03363736,0.0,0.0,0.0,0.0,0.04382268,-0.039234724,-0.042314168,-0.033673614,-0.022489702,0.0010015481,0.01254973,-0.073596336,0.016499113,-0.0064855935,0.031814497,0.020297235,0.034808025,0.0077412273,-0.04265142,-0.04721965,-0.07859892,-0.011498471,-0.02446754,-0.02663564,-0.029814662,-0.051282894,0.056664888,-0.05402119,0.2751096,-0.022914449,-0.16712594,0.1293832,-0.23289083,-0.0030773468,-0.057636753,-0.010767702,0.17103338,-0.09205556,0.00064335973,0.17248912,0.099055246,-0.2690866,-0.44620234,-0.034206126,0.32391495,0.42314592,0.06622574,-0.37287346,0.30395955,-0.052934147,0.177482,0.10099588
2025-07-21 13:47:50.607,2.560000000000002,2560,128,-0.04402777,-0.06963402,0.07092385,-0.0154442135,0.04382309,0.041600093,0.0,0.0,0.0,0.0,0.040909916,-0.046174433,-0.063888215,-0.026807621,-0.0122863855,-0.005143101,0.018077975,-0.0788516,0.027611395,-0.004664805,0.037801668,0.015864018,-0.056653026,-0.045096826,-0.053977415,0.00850419,0.022567056,0.015944475,-0.00068142416,-0.030566795,-0.017771397,-0.032456726,0.0042791436,0.042299226,0.099055246,-0.2690866,-0.44620234,-0.034206126,0.32391495,0.42314592,0.06622574,-0.37287346,0.30395955,-0.052934147,0.177482,0.10099588,0.22659867,-0.085485674,-0.20462844,0.08479564,-0.3892912,0.13542256,-0.04231364,-0.066472664,0.24552241,-0.076001786,-0.0007535347,0.06800641
2025-07-21 13:47:50.627,2.580000000000002,2580,129,-0.05783335,-0.024304701,-0.100684024,0.0099397,-0.01251236,0.04754384,0.0,0.0,0.0,0.0,0.04565043,-0.049978573,-0.062144816,-0.021489277,-0.013400865,0.014332442,0.02865182,-0.06151977,0.017572073,-0.014654235,0.04190599,0.017653905,-0.05631252,-0.040910695,0.03290145,0.009955184,-0.07239232,-0.04769426,0.03812287,-0.025817329,-0.05049218,-0.031181568,-0.06449305,0.057492763,0.22659867,-0.085485674,-0.20462844,0.08479564,-0.3892912,0.13542256,-0.04231364,-0.066472664,0.24552241,-0.076001786,-0.0007535347,0.06800641,0.13567787,-0.186088,-0.34012446,-0.12401499,0.24545063,0.3365725,-0.005028613,-0.38502353,0.33953866,-0.03356011,0.3611009,0.1531465
2025-07-21 13:47:50.647,2.600000000000002,2600,130,-0.03565136,-0.0425235,0.10724043,0.004020147,0.02611985,0.0026394296,0.0,0.0,0.0,0.0,0.0424967,-0.06610438,-0.057725843,-0.03512015,-0.020821923,0.00010441436,0.028466564,-0.0753098,0.030512832,-0.0029703134,0.062109217,0.013564476,-0.016447885,-0.0280157,-0.043026783,-0.042289987,-0.013102174,-0.030496936,-0.058292493,0.024605045,-0.027099459,0.046395857,0.10817478,0.06863081,0.13567787,-0.186088,-0.34012446,-0.12401499,0.24545063,0.3365725,-0.005028613,-0.38502353,0.33953866,-0.03356011,0.3611009,0.1531465,0.3494507,0.035674192,-0.23473647,0.24835972,-0.30631784,0.103965476,-0.15886863,-0.03707919,0.24046826,-0.13323978,-0.3674488,0.1152506
2025-07-21 13:47:50.671,2.620000000000002,2620,131,-0.0932627,0.10915321,-0.13272549,0.014432106,0.015504647,0.029394284,0.0,0.0,0.0,0.0,0.053641208,-0.05207151,-0.060194407,-0.020138312,-0.013627928,0.013142415,0.008652696,-0.0684469,0.017899798,-0.012112119,0.033503473,0.00898357,0.06898426,0.066145584,-0.055571094,0.05562976,-0.022695629,0.06992005,-0.032866314,0.0007700095,-0.019516928,-0.034832507,-0.09177836,0.06826183,0.3494507,0.035674192,-0.23473647,0.24835972,-0.30631784,0.103965476,-0.15886863,-0.03707919,0.24046826,-0.13323978,-0.3674488,0.1152506,0.01944679,-0.29489493,-0.22063187,-0.13459118,0.12782913,0.27702403,0.1637656,-0.39282176,0.24427894,-0.0461133,0.32823315,0.16900997
2025-07-21 13:47:50.687,2.640000000000002,2640,132,-0.0005971688,0.038494207,0.11470358,-0.037184697,-0.017339798,-0.028388152,0.0,0.0,0.0,0.0,0.04663361,-0.06560541,-0.0634037,-0.030785644,-0.005320098,-0.0007430249,0.021969128,-0.07691027,0.032092772,-0.015979549,0.030739458,0.0054743495,-0.011458456,-0.099858254,-0.06638455,-0.045702837,-0.028582359,0.040297933,0.08107381,0.010535595,0.026616143,0.05578953,0.11431457,-0.06793306,0.01944679,-0.29489493,-0.22063187,-0.13459118,0.12782913,0.27702403,0.1637656,-0.39282176,0.24427894,-0.0461133,0.32823315,0.16900997,0.34622568,0.10231378,-0.3287403,0.20116046,-0.20936964,0.12105174,-0.22887172,0.010853898,0.23489141,-0.18931596,-0.26442677,0.11582646
2025-07-21 13:47:50.707,2.660000000000002,2660,133,-0.0046964814,-0.041201912,-0.09320636,-0.004039503,0.038345587,0.013058886,0.0,0.0,0.0,0.0,0.04715464,-0.049911216,-0.057226457,-0.019862996,-0.025127918,0.009083931,0.021001054,-0.07178339,0.02132437,-0.016110135,0.0141573055,0.009319442,0.0069402386,0.04217604,-0.07960359,-0.060268268,-0.079609156,0.036984768,-0.07306728,0.103744544,-0.0063000214,-0.055150047,-0.08733544,0.075880066,0.34622568,0.10231378,-0.3287403,0.20116046,-0.20936964,0.12105174,-0.22887172,0.010853898,0.23489141,-0.18931596,-0.26442677,0.11582646,0.07865636,-0.14816241,-0.18940064,-0.018495355,0.21913944,0.21466406,0.06849682,-0.5007204,0.23471493,-0.11149575,0.23440877,0.22867173
2025-07-21 13:47:50.727,2.680000000000002,2680,134,0.0104100825,0.02102579,0.14428477,-0.02912755,-0.03101703,-0.030386528,0.0,0.0,0.0,0.0,0.041167594,-0.05167949,-0.05339753,-0.03105475,-0.008602398,0.015096377,0.023742495,-0.08752588,0.023995828,-0.01632435,0.025409034,0.014154648,-0.028531956,-0.028612146,0.07225655,0.035207365,0.017653383,0.0101504605,-0.013134386,-0.094169736,0.018414127,-0.00200245,0.09964997,0.053551428,0.07865636,-0.14816241,-0.18940064,-0.018495355,0.21913944,0.21466406,0.06849682,-0.5007204,0.23471493,-0.11149575,0.23440877,0.22867173,0.34670854,0.031040912,-0.28155422,0.27171323,-0.39149216,0.10181628,-0.344967,0.29138842,0.33395752,-0.121727765,-0.36525163,0.19109775
2025-07-21 13:47:50.749,2.700000000000002,2700,135,-0.06871334,0.01572334,-0.18850443,0.026921341,-0.007895321,-0.011877162,0.0,0.0,0.0,0.0,0.040517814,-0.035332367,-0.054933805,-0.02261659,-0.022027966,0.01463433,0.021136682,-0.070566736,0.019250885,-0.031010369,0.008858212,0.01892362,-0.022648005,0.054651,0.016229885,-0.011905939,-0.06913638,0.060751885,-0.0064217118,0.15210669,0.014273223,0.045667466,-0.09427612,0.047236416,0.34670854,0.031040912,-0.28155422,0.27171323,-0.39149216,0.10181628,-0.344967,0.29138842,0.33395752,-0.121727765,-0.36525163,0.19109775,-0.09042835,-0.30168885,-0.13008073,-0.106364414,0.32323873,0.35778624,0.21202062,-0.81984127,0.23984304,-0.088179424,0.42576775,0.11025253
2025-07-21 13:47:50.771,2.720000000000002,2720,136,0.045724414,0.01976473,0.14011708,-0.012218495,0.00453351,-0.033916876,0.0,0.0,0.0,0.0,0.042571995,-0.04214757,-0.058091007,-0.026850123,-0.0027645829,0.0033738937,0.011581177,-0.064354375,0.023539567,-0.025592798,0.017454578,0.008200867,-0.069927774,-0.083535545,0.056289546,-0.038326003,0.033735678,0.043711957,0.06390201,-0.018763958,0.025830328,0.07488299,0.08086186,-0.0020548292,-0.09042835,-0.30168885,-0.13008073,-0.106364414,0.32323873,0.35778624,0.21202062,-0.81984127,0.23984304,-0.088179424,0.42576775,0.11025253,0.39653015,0.059337936,-0.2331824,0.16739535,-0.4692894,0.15256305,-0.2820548,-0.0123859085,0.23512432,-0.115617424,-0.18817453,0.10067223
2025-07-21 13:47:50.788,2.740000000000002,2740,137,0.025412153,-0.035009105,-0.11572796,-0.019726083,-0.0073843393,0.033708077,0.0,0.0,0.0,0.0,0.053556114,-0.043088313,-0.058102306,-0.022191111,-0.015529914,0.008798754,0.018167619,-0.055922903,0.021608347,-0.024109172,0.01407712,0.0125794755,0.046537627,-0.02923028,-0.046854343,0.030155024,-0.08941957,-0.024004057,-0.07081852,0.043408822,-0.04340269,-0.0038358872,-0.06531406,-0.04953989,0.39653015,0.059337936,-0.2331824,0.16739535,-0.4692894,0.15256305,-0.2820548,-0.0123859085,0.23512432,-0.115617424,-0.18817453,0.10067223,0.045967076,-0.14300908,-0.2155278,-0.09454583,0.25786743,0.23292086,0.09255555,-0.4176435,0.29276192,-0.06847904,0.37812808,0.13011184
2025-07-21 13:47:50.808,2.760000000000002,2760,138,0.014414072,-0.061314657,0.15562323,0.026826236,-0.024948064,-0.013437657,0.0,0.0,0.0,0.0,0.038191635,-0.03852527,-0.048369437,-0.023397677,-0.0058704265,0.0071227667,0.022285406,-0.0695952,0.025870314,-0.012776264,0.030457938,0.024327623,-0.06738884,-0.06260474,-0.0062287264,-0.06052928,0.11832889,0.06539133,0.03175704,0.009515192,-0.01398602,-0.01730575,-0.007964267,0.06118448,0.045967076,-0.14300908,-0.2155278,-0.09454583,0.25786743,0.23292086,0.09255555,-0.4176435,0.29276192,-0.06847904,0.37812808,0.13011184,0.3509224,0.022007784,-0.1447806,0.30721143,-0.6595062,0.064654276,-0.24010925,0.10760033,0.1913513,-0.13127801,-0.24787714,0.10188034
