openverse-orca/OrcaGym/log/simulation_log_20250606_105113.csv
timestamp,imu_angle_roll,imu_angle_pitch,imu_angle_yaw,imu_angular_velocity_roll,imu_angular_velocity_pitch,imu_angular_velocity_yaw,imu_acc_x,imu_acc_y,imu_acc_z,fl_joint1_pos,fl_joint1_vel,fl_joint1_torque,fl_joint2_pos,fl_joint2_vel,fl_joint2_torque,fl_joint3_pos,fl_joint3_vel,fl_joint3_torque,fr_joint1_pos,fr_joint1_vel,fr_joint1_torque,fr_joint2_pos,fr_joint2_vel,fr_joint2_torque,fr_joint3_pos,fr_joint3_vel,fr_joint3_torque,hl_joint1_pos,hl_joint1_vel,hl_joint1_torque,hl_joint2_pos,hl_joint2_vel,hl_joint2_torque,hl_joint3_pos,hl_joint3_vel,hl_joint3_torque,hr_joint1_pos,hr_joint1_vel,hr_joint1_torque,hr_joint2_pos,hr_joint2_vel,hr_joint2_torque,hr_joint3_pos,hr_joint3_vel,hr_joint3_torque,fl_force_x,fl_force_y,fl_force_z,fr_force_x,fr_force_y,fr_force_z,hl_force_x,hl_force_y,hl_force_z,hr_force_x,hr_force_y,hr_force_z,fl_hip_action,fl_thigh_action,fl_calf_action,fr_hip_action,fr_thigh_action,fr_calf_action,hl_hip_action,hl_thigh_action,hl_calf_action,hr_hip_action,hr_thigh_action,hr_calf_action
2025-06-06 10:51:13.321,-0.013506807,0.0029764003,-0.049676545,-0.044069692,0.011824079,-0.03963424,0.85275,-0.66392237,0.0,0.0,-0.008479794,-0.0059385994,0.00092441513,-0.0011608506,6.49732e-06,-0.009056257,0.008988939,-0.0090969885,-0.00773251,-0.0018692918,0.008016457,-0.009086398,0.07281142,0.054631613,-0.011316118,-0.06680848,0.049789406,-0.074878044,-0.031269897,-0.0350808,0.0050060283,0.04431892,0.072775386,-0.055179972,0.0,0.0,0.0,0.0,0.0,0.0,0.0,0.0,0.0,0.0,0.0,0.0,3.0,0.20762508,2.3967564,3.0,-1.0493995,0.25561997,3.0,-1.5632619,-3.0,-3.0,-0.7881694,3.0
2025-06-06 10:51:13.325,0.19710417,0.0637766,-0.0069510196,0.033851165,-0.055959366,-0.006310299,0.0,0.0,0.0,0.0,0.02828571,0.011317951,0.04853812,0.02026244,-0.042981636,0.016571078,0.027116012,-0.044196155,-0.07250065,-0.011177346,-0.028185934,0.07340316,0.10054493,0.023315081,0.16419056,0.10170514,-0.11959646,0.0031841474,0.08935125,-0.115161896,-0.24078162,-0.124234185,-0.14644724,0.18327262,3.0,0.20762508,2.3967564,3.0,-1.0493995,0.25561997,3.0,-1.5632619,-3.0,-3.0,-0.7881694,3.0,3.0,-0.37039086,-3.0,3.0,3.0,-3.0,3.0,-0.5783496,-3.0,-3.0,-0.60912913,3.0
2025-06-06 10:51:13.345,0.1508916,0.18786626,-0.025066122,0.04951352,-0.008143892,-0.038863514,0.0,0.0,0.0,-0.00013583062,0.05856264,-0.0022463154,1.6738262e-05,0.06894797,0.054774556,-0.0815912,0.046431124,-0.08084077,-0.11227638,-0.052039113,-0.05841935,0.16865264,0.041985158,-0.07037816,-0.28593,0.073049076,0.4101047,-0.21780258,0.11209774,-0.030940734,-0.093806066,-0.11814353,-0.04253445,0.13130464,3.0,-0.37039086,-3.0,3.0,3.0,-3.0,3.0,-0.5783496,-3.0,-3.0,-0.60912913,3.0,3.0,0.096385226,-3.0,3.0,2.0484655,-3.0,3.0,-1.3399417,-3.0,-3.0,-0.2628851,-3.0
2025-06-06 10:51:13.365,0.15961818,0.13858612,-0.024847042,0.051200163,-0.03796333,-0.017464994,0.0,0.0,0.0,0.00031305646,0.07129592,0.0020032807,-0.07080847,0.090538085,0.113453634,-0.112446606,0.07250121,-0.11523584,-0.10605613,-0.089354575,-0.06812533,0.0760029,-0.0066231797,-0.07250937,-0.004378042,0.028548306,0.08237395,-0.045614604,0.016207121,-0.046376232,-0.00450416,-0.013702107,0.051226523,-0.365289,3.0,0.096385226,-3.0,3.0,2.0484655,-3.0,3.0,-1.3399417,-3.0,-3.0,-0.2628851,-3.0,3.0,-0.1617593,-3.0,3.0,3.0,-3.0,3.0,-2.086307,-3.0,-3.0,-0.4229003,-3.0
2025-06-06 10:51:13.389,0.06353959,-0.113976724,-0.1815038,0.007116399,-0.023169704,-0.035791643,0.0,0.0,0.0,0.001247841,0.09453447,-0.017914386,-0.07627769,0.12155314,0.11965377,-0.10713319,0.09245398,-0.1436656,-0.07801485,-0.084717855,-0.061416145,-0.00085409137,-0.043055642,-0.04538154,-0.09238573,-0.04327214,0.06435448,-0.019923188,0.059303906,-0.10996112,0.079090156,0.056006465,0.058907103,-0.013056627,3.0,-0.1617593,-3.0,3.0,3.0,-3.0,3.0,-2.086307,-3.0,-3.0,-0.4229003,-3.0,3.0,0.5980691,-3.0,3.0,2.9843893,-3.0,3.0,-1.5955206,-3.0,-3.0,-0.96464235,-3.0
2025-06-06 10:51:13.406,0.05672762,-0.19278027,-0.13390547,0.044004373,-0.081806704,-0.040720414,0.0,0.0,0.0,0.0036793558,0.076456435,-0.016747767,-0.107167915,0.112235226,0.15729398,-0.11860996,0.09335393,-0.15897626,-0.060941834,-0.07784524,-0.07644272,-0.025089517,-0.016368851,-0.012444088,-0.05786259,-0.010541779,0.15302262,-0.045635223,-0.024813866,0.01659046,0.05515067,0.044763878,-0.044491943,0.051578086,3.0,0.5980691,-3.0,3.0,2.9843893,-3.0,3.0,-1.5955206,-3.0,-3.0,-0.96464235,-3.0,3.0,0.34936756,-3.0,3.0,2.8668826,-3.0,3.0,-1.6408348,-3.0,-3.0,-0.67956847,-3.0
2025-06-06 10:51:13.426,-0.0028264672,-0.20932396,-0.1439123,0.023856103,-0.078726776,0.037265003,0.0,0.0,0.0,0.007183696,0.066117324,0.0054881736,-0.12755378,0.10603046,0.1857721,-0.16068438,0.10884863,-0.17764688,-0.07172091,-0.06841688,-0.06075495,-0.028011564,-0.08213999,0.046638492,-0.11023228,-0.018364226,0.107995056,-0.15267949,0.0628004,-0.060822967,-0.012015829,-0.025183946,0.05147477,-0.019178776,3.0,0.34936756,-3.0,3.0,2.8668826,-3.0,3.0,-1.6408348,-3.0,-3.0,-0.67956847,-3.0,3.0,0.16372992,-3.0,3.0,3.0,-3.0,3.0,-1.5017343,-3.0,-3.0,-0.884882,-3.0
2025-06-06 10:51:13.446,0.016314093,-0.15436424,-0.16585216,-0.019295309,-0.07947269,0.048622087,0.0,0.0,0.0,0.011038068,0.062094815,0.01025867,-0.16514865,0.11178803,0.25705343,-0.21264616,0.10692585,-0.1649199,-0.096195355,-0.06727417,-0.041816913,-0.053166997,0.045119315,0.043027185,-0.16130318,-0.03310883,0.15772758,-0.11175647,-0.017008495,0.02418097,-0.07872817,0.05376686,0.054357138,-0.12324823,3.0,0.16372992,-3.0,3.0,3.0,-3.0,3.0,-1.5017343,-3.0,-3.0,-0.884882,-3.0,3.0,0.59092724,-3.0,3.0,2.8649504,-3.0,3.0,-1.455587,-3.0,-3.0,-0.7088364,-3.0
2025-06-06 10:51:13.466,0.00088403537,-0.095254384,-0.10292663,0.012527355,-0.08137428,-0.045615967,0.0,0.0,0.0,0.014701002,0.055896126,0.030347409,-0.21101348,0.11471009,0.3285732,-0.2399974,0.11359854,-0.18537195,-0.10277407,-0.061846923,-0.034057274,-0.080238596,-0.017174173,0.017364835,-0.14081438,-0.051005885,0.23143396,-0.1456507,0.06686938,-0.014471738,-0.11853728,0.0346259,0.026268048,-0.010631854,3.0,0.59092724,-3.0,3.0,2.8649504,-3.0,3.0,-1.455587,-3.0,-3.0,-0.7088364,-3.0,3.0,0.16339432,-3.0,3.0,3.0,-3.0,3.0,-1.617723,-3.0,-3.0,-0.22202335,-3.0
2025-06-06 10:51:13.489,-0.00057327,-0.11657545,-0.053653043,-0.036686685,-0.057399552,-0.0016831163,0.0,0.0,0.0,0.017543465,0.055776816,0.03246636,-0.23215613,0.11117712,0.4153256,-0.28720787,0.11606477,-0.17554864,-0.12148118,-0.046764597,-0.023206662,-0.08624578,-0.058362316,-0.0066420357,-0.055882458,-0.0267857,0.24358585,-0.014494279,-0.05579847,0.008178238,-0.013109002,-0.021454988,0.012899754,-0.017566606,3.0,0.16339432,-3.0,3.0,3.0,-3.0,3.0,-1.617723,-3.0,-3.0,-0.22202335,-3.0,3.0,-0.20378186,-3.0,3.0,3.0,-3.0,3.0,-1.7526764,-3.0,-3.0,0.12493248,-3.0
2025-06-06 10:51:13.510,-0.06507792,-0.061336804,-0.064215936,-0.02624541,-0.04706369,-0.016146077,0.0,0.0,0.0,0.019691221,0.05296373,0.023515867,-0.24673818,0.11515046,0.47898543,-0.2863401,0.122700825,-0.19347323,-0.1394267,-0.036853228,-0.009071178,-0.11009982,0.008094959,-0.062813446,-0.0130854985,0.004036172,0.14215986,0.042467363,0.014639137,-0.06831323,0.020068593,-0.025834763,0.097727135,0.0134227015,3.0,-0.20378186,-3.0,3.0,3.0,-3.0,3.0,-1.7526764,-3.0,-3.0,0.12493248,-3.0,3.0,-0.25428,-3.0,3.0,3.0,-3.0,3.0,-1.7021667,-3.0,-3.0,0.46997502,-3.0
2025-06-06 10:51:13.529,-0.17626397,-0.031212859,-0.11794825,-0.050326232,-0.024626903,-0.0014809581,0.0,0.0,0.0,0.021614445,0.039984994,0.019694017,-0.23364373,0.101285286,0.53044087,-0.30535114,0.13754046,-0.20729849,-0.13421792,-0.04188802,-0.0006720769,-0.12650299,-0.046907935,-0.09855332,0.06528057,0.024213707,0.09728034,-0.010686818,0.0005975978,-0.017685559,0.03527997,0.07539762,-0.020938236,-0.050561626,3.0,-0.25428,-3.0,3.0,3.0,-3.0,3.0,-1.7021667,-3.0,-3.0,0.46997502,-3.0,3.0,-0.053472836,-3.0,3.0,3.0,-3.0,3.0,-1.6731467,-3.0,-3.0,0.36858508,-3.0
2025-06-06 10:51:13.549,-0.16163051,0.020938972,-0.07252268,-0.008705128,-0.01904414,0.045079943,0.0,0.0,0.0,0.023602935,0.044793583,-0.0019071755,-0.21989052,0.10398033,0.5504639,-0.31476465,0.14018993,-0.21459547,-0.15999176,-0.034111075,0.00883222,-0.16040704,-0.023701053,0.036328,0.014650362,0.012136383,0.10850856,0.026357608,-0.030933682,0.002812267,-0.014329786,0.063604824,0.06958007,-0.054171268,3.0,-0.053472836,-3.0,3.0,3.0,-3.0,3.0,-1.6731467,-3.0,-3.0,0.36858508,-3.0,3.0,-0.43086055,-3.0,3.0,3.0,-3.0,3.0,-1.8451177,-3.0,-3.0,0.45917568,-3.0
2025-06-06 10:51:13.573,-0.18250653,-0.018979903,-0.05350021,-0.007057286,-0.0076991874,-0.018542677,0.0,0.0,0.0,0.025557332,0.031054316,-0.02512142,-0.19443646,0.115457326,0.5636362,-0.31949222,0.14942671,-0.22359103,-0.17425174,-0.016915029,0.022838226,-0.15436359,-0.016855646,-0.1055874,-0.0009006484,-0.06529191,0.042562563,-0.007638812,-0.04684138,-0.05447317,-0.068341665,-0.026765458,0.07946681,-0.032739613,3.0,-0.43086055,-3.0,3.0,3.0,-3.0,3.0,-1.8451177,-3.0,-3.0,0.45917568,-3.0,3.0,-0.17128362,-3.0,3.0,3.0,-3.0,3.0,-1.8401343,-3.0,-3.0,0.8159705,-3.0
2025-06-06 10:51:13.589,-0.13618997,0.07380556,-0.09151212,-0.014460149,0.013342967,-0.04603022,0.0,0.0,0.0,0.027561858,0.024036575,-0.047696162,-0.18844374,0.102822386,0.58233243,-0.32184777,0.1493481,-0.2478833,-0.20396404,-0.028060932,0.04778403,-0.17011285,0.00045848137,-0.10746063,0.06735794,0.011437005,-0.005363963,-0.05229636,0.0707156,-0.096733354,-0.13510744,-0.051263966,0.0085367225,-0.016321817,3.0,-0.17128362,-3.0,3.0,3.0,-3.0,3.0,-1.8401343,-3.0,-3.0,0.8159705,-3.0,3.0,-0.18968756,-3.0,3.0,3.0,-3.0,2.2775528,-1.8266808,-3.0,-3.0,0.8818583,-3.0
2025-06-06 10:51:13.609,-0.19445683,0.051447935,-0.085948326,-0.0048441053,-0.021353722,-0.0017988042,0.0,0.0,0.0,0.029833956,0.020099608,-0.05399915,-0.15422101,0.11382105,0.5769442,-0.31633422,0.13313569,-0.27250236,-0.22342551,-0.0064504077,0.04222103,-0.17697914,-0.002165899,-0.03226432,0.013360147,0.06493617,0.08103203,0.04277614,0.016404526,-0.06977255,-0.04826548,-0.009880824,0.004043039,-0.031026252,3.0,-0.18968756,-3.0,3.0,3.0,-3.0,2.2775528,-1.8266808,-3.0,-3.0,0.8818583,-3.0,3.0,-0.46668434,-3.0,3.0,3.0,-3.0,-3.0,-1.9074403,-3.0,-3.0,0.9730863,-3.0
2025-06-06 10:51:13.629,-0.21475047,0.039022136,-0.1526571,0.023915667,0.059714157,-0.0037192653,0.0,0.0,0.0,0.032339677,0.012444626,-0.082726285,-0.12832576,0.10269003,0.57240325,-0.31453437,0.10065139,-0.302054,-0.2739857,-0.012994925,0.06823446,-0.19082478,-0.011405955,-0.1309595,0.10619056,-0.014034846,-0.07021196,-0.055489942,-0.22494535,-0.09617521,-0.121461004,0.058666248,0.03832427,-0.03777485,3.0,-0.46668434,-3.0,3.0,3.0,-3.0,-3.0,-1.9074403,-3.0,-3.0,0.9730863,-3.0,3.0,-0.07686354,-3.0,3.0,3.0,-3.0,-3.0,-1.198153,-3.0,-3.0,0.56350785,-3.0
2025-06-06 10:51:13.649,-0.11323097,0.120726354,-0.090438016,-0.0189892,-0.0028746529,-0.027865868,0.0,0.0,0.0,0.034855966,0.02181979,-0.11840172,-0.09147152,0.09943388,0.5815307,-0.31352437,0.025412789,-0.29329565,-0.28236756,-0.0019410307,0.07335521,-0.20083815,0.057657532,-0.11216709,-0.021482272,0.076395676,-0.035851635,0.00367654,-0.10546161,0.05323034,-0.021752061,0.026849434,0.004002971,0.016902264,3.0,-0.07686354,-3.0,3.0,3.0,-3.0,-3.0,-1.198153,-3.0,-3.0,0.56350785,-3.0,3.0,-0.35461614,-3.0,3.0,3.0,-3.0,-3.0,-1.6150504,-3.0,-3.0,0.7907527,-3.0
2025-06-06 10:51:13.672,-0.024978256,0.007919686,-0.15093523,-0.03712139,0.05716462,-0.041387286,0.0,0.0,0.0,0.03734057,0.025632974,-0.1238499,-0.085381314,0.11479078,0.56659096,-0.303071,-0.017544003,-0.28135744,-0.29638413,0.0030843487,0.063901216,-0.1911136,0.04488096,-0.042774133,0.06912941,0.034029655,0.0043679723,0.06553431,-0.15961242,-0.013290201,0.041158494,0.015665038,0.025136562,0.045405943,3.0,-0.35461614,-3.0,3.0,3.0,-3.0,-3.0,-1.6150504,-3.0,-3.0,0.7907527,-3.0,3.0,0.03780399,-3.0,3.0,3.0,-3.0,-3.0,-1.4720562,-3.0,-3.0,0.4682078,-3.0
2025-06-06 10:51:13.690,0.028837867,0.012969684,-0.11779738,0.012339778,0.09340713,-0.003995683,0.0,0.0,0.0,0.040032376,0.024044497,-0.13356411,-0.083567545,0.105015926,0.5680212,-0.29345727,-0.050291747,-0.27691224,-0.30307212,0.015600025,0.06397739,-0.1956964,0.037617438,-0.038339064,0.012409135,0.028964063,0.031954337,-0.021257378,-0.079945244,0.07184937,0.0057483045,0.029598147,0.045662392,-0.06582026,3.0,0.03780399,-3.0,3.0,3.0,-3.0,-3.0,-1.4720562,-3.0,-3.0,0.4682078,-3.0,3.0,-0.014723439,-3.0,3.0,3.0,-3.0,-3.0,-1.5766066,-3.0,-3.0,0.37879083,-3.0
2025-06-06 10:51:13.709,0.024905445,-0.045146078,-0.099747375,0.033050455,0.08230901,-0.03187384,0.0,0.0,0.0,0.042582415,0.017046457,-0.14383721,-0.08704494,0.105526745,0.56722474,-0.27368113,-0.08862624,-0.2759691,-0.31048793,0.025301501,0.06624192,-0.18626538,0.02797589,-0.028390657,-0.08984736,-0.016270407,-0.040872034,0.036517672,-0.02749862,0.05459468,0.038466245,0.06784359,0.020037614,0.0026135133,3.0,-0.014723439,-3.0,3.0,3.0,-3.0,-3.0,-1.5766066,-3.0,-3.0,0.37879083,-3.0,3.0,-0.1788084,-3.0,3.0,3.0,-3.0,-3.0,-1.6389349,-3.0,-3.0,0.5767221,-3.0
2025-06-06 10:51:13.729,0.046290487,-0.08151467,-0.13982011,0.040698398,0.072687075,0.01238521,0.0,0.0,0.0,0.044721317,0.017495146,-0.1642265,-0.08225136,0.107517034,0.5609309,-0.28164235,-0.08468021,-0.29502514,-0.31143543,0.03500656,0.064450406,-0.19623315,0.025747065,-0.059986137,-0.0459447,0.028620418,0.0036321217,-0.0650066,-0.060522255,-0.0011413296,0.010893345,0.0035017042,-0.070326686,0.039039828,3.0,-0.1788084,-3.0,3.0,3.0,-3.0,-3.0,-1.6389349,-3.0,-3.0,0.5767221,-3.0,3.0,0.23349164,-3.0,3.0,3.0,-3.0,-3.0,-1.4561696,-3.0,-3.0,0.32707855,-3.0
2025-06-06 10:51:13.750,0.03335304,0.0059575615,-0.08338859,-0.010892132,0.082761936,-0.008961635,0.0,0.0,0.0,0.046585146,0.022849526,-0.1718652,-0.09500948,0.0882954,0.56390804,-0.2797381,-0.098258585,-0.2834789,-0.32633424,0.030465752,0.0558476,-0.19197397,0.028232645,0.0015798087,-0.0742588,-0.07687448,-0.002178038,-0.02348093,-0.007167446,0.06029553,-0.0665304,0.07382013,-0.027526513,-0.00026791895,3.0,0.23349164,-3.0,3.0,3.0,-3.0,-3.0,-1.4561696,-3.0,-3.0,0.32707855,-3.0,3.0,-0.19980152,-3.0,3.0,3.0,-3.0,-3.0,-1.6066656,-3.0,-3.0,0.55551344,-3.0
2025-06-06 10:51:13.773,-0.03667592,0.008488226,-0.04904499,0.036485683,0.024350187,0.024566175,0.0,0.0,0.0,0.047889967,0.015189332,-0.1780899,-0.10900469,0.08935142,0.56633914,-0.27772552,-0.10809363,-0.27431506,-0.31364602,0.05086987,0.04653378,-0.19295302,-0.018723702,-0.031094516,-0.03235553,-0.0068240343,-0.047379218,0.009954003,0.02785999,-0.059841745,0.05840692,0.016608559,-0.047385633,0.027595164,3.0,-0.19980152,-3.0,3.0,3.0,-3.0,-3.0,-1.6066656,-3.0,-3.0,0.55551344,-3.0,3.0,-0.50207233,-3.0,3.0,3.0,-3.0,-3.0,-1.5319506,-3.0,-3.0,0.8064563,-3.0
2025-06-06 10:51:13.790,-0.07840676,0.0010902507,-0.06978114,-0.022095539,0.048271894,0.007820326,0.0,0.0,0.0,0.048838526,0.018362692,-0.17338714,-0.106674746,0.08636047,0.5758762,-0.29023117,-0.09484974,-0.2852331,-0.31808576,0.040595602,0.0437761,-0.19525556,-0.025736263,-0.08135957,0.06995716,0.020677853,0.055794086,-0.025900666,0.053336035,0.04516624,-0.033613928,0.06499749,-0.06541113,-0.022556435,3.0,-0.50207233,-3.0,3.0,3.0,-3.0,-3.0,-1.5319506,-3.0,-3.0,0.8064563,-3.0,3.0,-0.37059662,-3.0,3.0,3.0,-3.0,-3.0,-1.5076665,-3.0,-3.0,0.78331846,-3.0
2025-06-06 10:51:13.810,0.006533665,0.0015521161,-0.018423177,-0.023221185,0.019969262,-0.019769015,0.0,0.0,0.0,0.04982009,0.0044403505,-0.17901856,-0.10346172,0.10359187,0.5670417,-0.28962865,-0.097081766,-0.26921478,-0.32079223,0.034214612,0.060034927,-0.19234009,0.06177897,0.04270798,-0.068291105,0.05365371,0.07852066,0.04275259,0.07090671,0.023650067,0.06683968,0.058459163,0.08346161,0.046848267,3.0,-0.37059662,-3.0,3.0,3.0,-3.0,-3.0,-1.5076665,-3.0,-3.0,0.78331846,-3.0,3.0,-0.63245934,-3.0,3.0,3.0,-3.0,-3.0,-1.5543561,-3.0,-3.0,0.86469656,-3.0
2025-06-06 10:51:13.830,-0.019426635,-0.0058646454,-0.09476291,0.021745747,0.028592855,0.01140939,0.0,0.0,0.0,0.050855044,0.0069867927,-0.19399528,-0.11113211,0.104411505,0.57975507,-0.3021219,-0.09532512,-0.27136698,-0.32510233,0.044368092,0.052867353,-0.1963411,0.05014413,-0.02996037,0.01150092,-0.0411957,-0.018340621,0.027300403,-0.034882493,0.0025759537,0.031967632,-0.031475727,-0.014654847,-0.08146794,3.0,-0.63245934,-3.0,3.0,3.0,-3.0,-3.0,-1.5543561,-3.0,-3.0,0.86469656,-3.0,3.0,-0.32306716,-3.0,3.0,3.0,-3.0,-3.0,-1.5393482,-3.0,-3.0,0.7457002,-3.0
2025-06-06 10:51:13.850,-0.036794525,-0.033212133,-0.058177598,-0.027623227,0.085724,0.013242186,0.0,0.0,0.0,0.05198153,-0.008435139,-0.1945746,-0.10051589,0.09164733,0.58685666,-0.29358536,-0.09310538,-0.27135664,-0.31282365,0.03346511,0.052970756,-0.21605307,-0.023928111,-0.03397104,0.017813688,-0.062678754,-0.062741615,-0.070980966,-0.032919925,0.0035174647,-0.025052618,-0.04226482,0.06850944,0.060127493,3.0,-0.32306716,-3.0,3.0,3.0,-3.0,-3.0,-1.5393482,-3.0,-3.0,0.7457002,-3.0,3.0,-0.4665639,-3.0,3.0,3.0,-3.0,-3.0,-1.5666974,-3.0,-3.0,0.7717351,-3.0
2025-06-06 10:51:13.872,-0.05986265,0.022233164,0.0025306896,-0.056247175,0.10633274,-0.008967093,0.0,0.0,0.0,0.053068288,-0.002023242,-0.19377056,-0.0979689,0.100368224,0.5732156,-0.28524822,-0.104474716,-0.26886857,-0.31353307,0.044184193,0.06390076,-0.21466401,0.066888034,-0.06126431,-0.0192961,0.0028936705,0.03015201,0.05184747,0.064935274,0.056400508,0.029806146,0.023758328,-0.036694195,0.042939615,3.0,-0.4665639,-3.0,3.0,3.0,-3.0,-3.0,-1.5666974,-3.0,-3.0,0.7717351,-3.0,3.0,-0.5417261,-3.0,3.0,3.0,-3.0,-3.0,-1.494942,-3.0,-3.0,0.9534238,-3.0
2025-06-06 10:51:13.945,-0.04114252,0.023060163,-0.093159676,0.011319217,0.059470914,0.02381333,0.0,0.0,0.0,0.054048028,-0.0050862655,-0.19966294,-0.10753311,0.09821696,0.5770437,-0.2823188,-0.10128539,-0.27244657,-0.31438938,0.0473748,0.06204101,-0.2133861,-0.010571535,0.04521718,-0.029704312,-0.052131087,0.010943806,0.023002494,-0.014658919,-0.0336261,0.019488044,0.052012354,0.055090982,0.061630785,3.0,-0.5417261,-3.0,3.0,3.0,-3.0,-3.0,-1.494942,-3.0,-3.0,0.9534238,-3.0,3.0,-0.52511144,-3.0,3.0,3.0,-3.0,-3.0,-1.5723479,-3.0,-3.0,0.7433038,-3.0
2025-06-06 10:51:13.964,0.032178942,0.0043706866,-0.07954559,0.037047952,0.026363917,-0.015165264,0.0,0.0,0.0,0.055048168,-0.013716242,-0.19387124,-0.09701189,0.092461914,0.58986026,-0.27970386,-0.103238516,-0.2764322,-0.3275296,0.046178218,0.07455935,-0.21183118,-0.044268236,-0.00096383365,0.017859055,0.012942697,-0.04378879,0.06772349,0.029459832,-0.018232606,0.028455481,-0.0034242587,-0.011271064,0.04616912,3.0,-0.52511144,-3.0,3.0,3.0,-3.0,-3.0,-1.5723479,-3.0,-3.0,0.7433038,-3.0,3.0,-0.49860308,-3.0,3.0,3.0,-3.0,-3.0,-1.583572,-3.0,-3.0,0.8016096,-3.0
2025-06-06 10:51:13.983,-0.03236375,0.0142215155,-0.01771236,-0.029510384,0.04240074,0.04481298,0.0,0.0,0.0,0.055953696,-0.010654661,-0.21354616,-0.09510989,0.085324176,0.59091467,-0.28471637,-0.11117923,-0.286428,-0.3163362,0.043072157,0.057737052,-0.20958868,0.06508044,0.05892631,-0.03692551,0.022303795,-0.023672916,0.06867381,0.015047555,0.018839175,0.038395587,-0.040260497,-0.07423453,0.05954604,3.0,-0.49860308,-3.0,3.0,3.0,-3.0,-3.0,-1.583572,-3.0,-3.0,0.8016096,-3.0,3.0,-0.6252563,-3.0,3.0,3.0,-3.0,-3.0,-1.5393345,-3.0,-3.0,0.9065994,-3.0
2025-06-06 10:51:14.007,-0.015082195,0.02252231,0.0076329433,-0.0260905,0.034624644,-0.018871684,0.0,0.0,0.0,0.056741603,-0.015128207,-0.21399105,-0.09843681,0.0865555,0.5964281,-0.28388384,-0.10241556,-0.28707573,-0.3140605,0.057428952,0.07354406,-0.21219422,0.03239284,-0.05030697,0.041511904,-0.034977607,0.07280618,0.017143628,0.036565963,-0.025645293,0.020876946,0.024083914,-0.050931375,0.008982791,3.0,-0.6252563,-3.0,3.0,3.0,-3.0,-3.0,-1.5393345,-3.0,-3.0,0.9065994,-3.0,3.0,-0.6582181,-3.0,3.0,3.0,-3.0,-3.0,-1.4465607,-3.0,-3.0,1.0473392,-3.0
2025-06-06 10:51:14.024,-0.02540796,-0.044591464,-0.07537479,0.029173568,0.0765465,-0.03495214,0.0,0.0,0.0,0.057513814,-0.0048441766,-0.2088952,-0.09034893,0.096678786,0.5962368,-0.2899308,-0.092661925,-0.2655622,-0.3139406,0.046870615,0.06835926,-0.21140379,-0.06585196,-0.004120305,-0.060283303,0.034232497,0.05812156,0.04070204,0.06533648,0.023774935,0.0331503,-0.03887435,0.036496684,-0.08207115,3.0,-0.6582181,-3.0,3.0,3.0,-3.0,-3.0,-1.4465607,-3.0,-3.0,1.0473392,-3.0,3.0,-0.55275965,-3.0,3.0,3.0,-3.0,-3.0,-1.5988284,-3.0,-3.0,0.8094819,-3.0
2025-06-06 10:51:14.043,-0.024336798,0.040827855,-0.002847682,0.036042295,0.07541976,0.021857467,0.0,0.0,0.0,0.058359183,-0.013114198,-0.21099658,-0.09603892,0.08850889,0.5985552,-0.28441426,-0.10982201,-0.2841092,-0.31414297,0.046659097,0.0731008,-0.2090023,-0.07484706,-0.027641943,-0.008049502,0.024507027,-0.02188858,0.010963313,0.043715894,-0.05477141,0.035092764,-0.022221606,0.043753438,-0.006186268,3.0,-0.55275965,-3.0,3.0,3.0,-3.0,-3.0,-1.5988284,-3.0,-3.0,0.8094819,-3.0,3.0,-0.6746774,-3.0,3.0,3.0,-3.0,-3.0,-1.5494729,-3.0,-3.0,0.89519984,-3.0
2025-06-06 10:51:14.064,-0.009479403,0.00204374,-0.007905406,0.0008722604,0.019085277,0.02377671,0.0,0.0,0.0,0.059118263,-0.014190112,-0.21873,-0.104825124,0.097311035,0.59311265,-0.27247128,-0.09544909,-0.28338435,-0.32583693,0.06317619,0.07812854,-0.21367452,-0.041156176,0.05262544,0.01819012,0.018250057,0.058591783,0.07364389,-0.047294993,0.021237541,0.0322692,-0.04948559,0.046379663,0.0020467674,3.0,-0.6746774,-3.0,3.0,3.0,-3.0,-3.0,-1.5494729,-3.0,-3.0,0.89519984,-3.0,3.0,-0.76757866,-3.0,3.0,3.0,-3.0,-3.0,-1.5895219,-3.0,-3.0,0.8803616,-3.0
2025-06-06 10:51:14.083,-0.021134606,0.029561464,-0.07847004,-0.042881716,0.042888407,-0.016833348,0.0,0.0,0.0,0.059797212,-0.005866176,-0.22102326,-0.089101896,0.090583995,0.59012985,-0.28592026,-0.10500761,-0.27478147,-0.31741074,0.065736696,0.06805288,-0.21273799,-0.07311691,-0.051188488,-0.009959168,0.022728538,0.05316996,0.04459291,0.037526026,0.050343692,0.06500805,-0.03219101,0.042777263,0.022783473,3.0,-0.76757866,-3.0,3.0,3.0,-3.0,-3.0,-1.5895219,-3.0,-3.0,0.8803616,-3.0,3.0,-0.47019562,-3.0,3.0,3.0,-3.0,-3.0,-1.5999441,-3.0,-3.0,0.7953023,-3.0
2025-06-06 10:51:14.107,0.0016883569,-0.013840607,-0.015488037,0.036091816,0.04966114,0.016768795,0.0,0.0,0.0,0.06047537,-0.023624577,-0.21509476,-0.104005665,0.095152505,0.6025409,-0.28124005,-0.092743084,-0.2910465,-0.31458896,0.04841117,0.0821239,-0.20358633,0.06897923,0.00814849,-0.00468042,-0.055192158,-0.023886234,0.026095051,-0.06115851,0.051335208,-0.022439752,-0.066396356,-0.046112165,0.07670028,3.0,-0.47019562,-3.0,3.0,3.0,-3.0,-3.0,-1.5999441,-3.0,-3.0,0.7953023,-3.0,3.0,-0.6541601,-3.0,3.0,3.0,-3.0,-3.0,-1.5118974,-3.0,-3.0,0.91318816,-3.0
2025-06-06 10:51:14.123,0.04127503,0.03946345,0.010649108,0.016374586,0.09319522,0.0059593846,0.0,0.0,0.0,0.061047602,-0.023658877,-0.21606801,-0.10164465,0.09069126,0.5904783,-0.27725244,-0.09408205,-0.2807911,-0.32883748,0.06406355,0.07195208,-0.20344809,-0.051925335,0.0027687356,-0.0600055,-0.050541792,-0.014930253,0.0268327,0.004821972,-0.022252401,0.0077891634,-0.030669065,-0.030847155,-0.030952848,3.0,-0.6541601,-3.0,3.0,3.0,-3.0,-3.0,-1.5118974,-3.0,-3.0,0.91318816,-3.0,3.0,-0.68579704,-3.0,3.0,3.0,-3.0,-3.0,-1.5679997,-3.0,-3.0,0.97244614,-3.0
2025-06-06 10:51:14.144,0.0003781555,0.010766989,-0.009928546,-0.046686433,0.07821003,-0.006997918,0.0,0.0,0.0,0.061555978,-0.025136042,-0.22289497,-0.103084356,0.084284164,0.59244126,-0.27863988,-0.09437728,-0.28840432,-0.32111427,0.06730649,0.074268416,-0.20882784,0.015934026,-0.058531664,0.014080505,0.06670787,-0.057928577,0.067992866,-0.041296843,-0.0015371506,0.058924854,-0.050153647,-0.03170529,-0.07379017,3.0,-0.68579704,-3.0,3.0,3.0,-3.0,-3.0,-1.5679997,-3.0,-3.0,0.97244614,-3.0,3.0,-0.60047066,-3.0,3.0,3.0,-3.0,-3.0,-1.512595,-3.0,-3.0,0.99499816,-3.0
2025-06-06 10:51:14.163,-0.02108274,0.017227048,-0.051654596,0.015814025,0.10419295,0.0052916473,0.0,0.0,0.0,0.06211373,-0.023632076,-0.23111413,-0.09023781,0.09718373,0.6059247,-0.2889049,-0.09244073,-0.2839256,-0.31860277,0.060051963,0.07073616,-0.21537001,-0.03392287,0.043376673,-0.017476495,0.06926141,0.04546333,-0.06548184,-0.058397315,0.023422144,-0.044745002,-0.028320339,0.011694935,0.054301117,3.0,-0.60047066,-3.0,3.0,3.0,-3.0,-3.0,-1.512595,-3.0,-3.0,0.99499816,-3.0,3.0,-0.6255271,-3.0,3.0,3.0,-3.0,-3.0,-1.5692972,-3.0,-3.0,0.83506376,-3.0
2025-06-06 10:51:14.183,0.006863919,0.02939228,-0.00028547482,0.020627007,0.048615735,0.03237218,0.0,0.0,0.0,0.062687546,-0.012454791,-0.2302009,-0.09366388,0.09266443,0.5873984,-0.27505723,-0.09234911,-0.27243924,-0.31105894,0.05660817,0.07963111,-0.20903882,-0.0007343141,-0.023752837,-0.072779976,0.073057406,-0.053971373,0.012360853,-0.048124332,-0.022603331,0.049741786,0.033034097,-0.055859327,-0.021018261,3.0,-0.6255271,-3.0,3.0,3.0,-3.0,-3.0,-1.5692972,-3.0,-3.0,0.83506376,-3.0,3.0,-0.627692,-3.0,3.0,3.0,-3.0,-3.0,-1.5442652,-3.0,-3.0,0.96602136,-3.0
2025-06-06 10:51:14.207,-0.054231793,-0.011435135,0.004701421,0.0064437757,0.028476218,0.002443393,0.0,0.0,0.0,0.06314487,-0.024300728,-0.23569246,-0.10034419,0.09607797,0.58836406,-0.2775558,-0.09983948,-0.2858197,-0.31594962,0.05870704,0.075438246,-0.20661955,0.0040474776,-0.06717804,0.060838584,-0.054053694,-0.025727049,0.0027407117,-0.037240636,-0.019877406,-0.048236735,0.026338317,0.07273079,-0.01308442,3.0,-0.627692,-3.0,3.0,3.0,-3.0,-3.0,-1.5442652,-3.0,-3.0,0.96602136,-3.0,3.0,-0.6897655,-3.0,3.0,3.0,-3.0,-3.0,-1.4545575,-3.0,-3.0,0.9663784,-3.0
2025-06-06 10:51:14.224,0.033812474,-0.021316089,0.028010076,-0.032199424,0.049772143,-0.045360956,0.0,0.0,0.0,0.06355326,-0.029314341,-0.23929888,-0.086658254,0.07983188,0.5914047,-0.27618536,-0.09988712,-0.26967973,-0.32001668,0.055704635,0.07520996,-0.21834971,-0.006493944,-0.00057221676,-0.059261344,-0.064282104,0.008144617,0.007940375,-0.047086187,0.06556756,0.0473973,-0.041134324,0.02842886,0.02813414,3.0,-0.6897655,-3.0,3.0,3.0,-3.0,-3.0,-1.4545575,-3.0,-3.0,0.9663784,-3.0,3.0,-0.68532753,-3.0,3.0,3.0,-3.0,-3.0,-1.6163644,-3.0,-3.0,0.9886046,-3.0
2025-06-06 10:51:14.243,-0.0024137998,0.02556416,-0.068028726,-0.02996207,0.11114424,-0.0069668563,0.0,0.0,0.0,0.06393574,-0.02884942,-0.22641844,-0.099961594,0.08275033,0.5956094,-0.28755414,-0.100911,-0.26750854,-0.31315508,0.0565919,0.080484495,-0.21390925,-0.05972482,-0.055641215,0.074088976,0.00922196,0.0365423,0.059771802,-0.029820675,-0.060290102,-0.02934239,0.04537435,0.02277235,0.017777817,3.0,-0.68532753,-3.0,3.0,3.0,-3.0,-3.0,-1.6163644,-3.0,-3.0,0.9886046,-3.0,3.0,-0.54979324,-3.0,3.0,3.0,-3.0,-3.0,-1.486001,-3.0,-3.0,0.9281971,-3.0
2025-06-06 10:51:14.263,0.0247388,0.050629146,0.025191216,0.02214111,0.042375658,0.016744597,0.0,0.0,0.0,0.064342506,-0.016868727,-0.22786754,-0.10038829,0.09661239,0.6051248,-0.27410227,-0.09253731,-0.26602983,-0.31299135,0.0751418,0.08766867,-0.21914355,0.040596966,0.07378576,0.066613264,0.062050067,-0.050674733,-0.023195991,-0.020985719,-0.023245787,0.015965067,0.0765303,0.05130687,0.042435013,3.0,-0.54979324,-3.0,3.0,3.0,-3.0,-3.0,-1.486001,-3.0,-3.0,0.9281971,-3.0,3.0,-0.7723593,-3.0,3.0,3.0,-3.0,-3.0,-1.5455201,-3.0,-3.0,0.9883006,-3.0
2025-06-06 10:51:14.283,0.007831718,-0.008102853,-0.01357604,-0.011802494,0.030240435,-0.04111663,0.0,0.0,0.0,0.064663224,-0.021070993,-0.24302784,-0.08870837,0.08267387,0.5908074,-0.2775452,-0.11102538,-0.2721792,-0.31369498,0.06315832,0.08047426,-0.21437326,-0.025825089,-0.031078087,0.018225828,-0.0604005,-0.018065032,-0.046653893,-0.04491813,0.0091143595,-0.044514395,-0.016727386,-0.047333322,-0.06391461,3.0,-0.7723593,-3.0,3.0,3.0,-3.0,-3.0,-1.5455201,-3.0,-3.0,0.9883006,-3.0,3.0,-0.5911329,-3.0,3.0,3.0,-3.0,-3.0,-1.5187892,-3.0,-3.0,0.97147566,-3.0
2025-06-06 10:51:14.308,-0.053473208,-0.013426702,0.036523968,-0.01129557,0.11640347,-0.018838694,0.0,0.0,0.0,0.0649642,-0.022802943,-0.24817248,-0.08801462,0.091219544,0.59667057,-0.2890332,-0.097048335,-0.26729086,-0.3215386,0.06547478,0.092481226,-0.21715158,-0.025222974,-0.00845825,-0.046273872,0.06434828,-0.074208125,0.0024971967,0.006522609,0.051431913,-0.004487436,0.026501538,0.037590086,0.0121441195,3.0,-0.5911329,-3.0,3.0,3.0,-3.0,-3.0,-1.5187892,-3.0,-3.0,0.97147566,-3.0,3.0,-0.67551666,-3.0,3.0,3.0,-3.0,-3.0,-1.5453383,-3.0,-3.0,1.0026379,-3.0
2025-06-06 10:51:14.324,-0.035150446,-0.049056478,-0.00952974,0.0022104247,0.086789906,0.007301565,0.0,0.0,0.0,0.06524529,-0.019415943,-0.24735259,-0.09090665,0.09236652,0.5914903,-0.28216642,-0.10971944,-0.26663128,-0.32605213,0.0774387,0.084882535,-0.22337721,-0.026817633,0.057676863,0.039873786,0.02848364,0.07399091,-0.05095318,-0.029332697,-0.01735181,-0.07346003,0.03899042,0.045744576,0.026060013,3.0,-0.67551666,-3.0,3.0,3.0,-3.0,-3.0,-1.5453383,-3.0,-3.0,1.0026379,-3.0,3.0,-0.7215976,-3.0,3.0,3.0,-3.0,-3.0,-1.5024525,-3.0,-3.0,0.93238336,-3.0
2025-06-06 10:51:14.344,0.024792694,-0.044882685,-0.038649,-0.04433543,0.059253585,-0.007653982,0.0,0.0,0.0,0.065513305,-0.02611283,-0.24071693,-0.09341255,0.098684184,0.60339206,-0.273838,-0.10292841,-0.27391273,-0.32711202,0.07092232,0.089722164,-0.22735056,-0.010319868,-0.00015923155,-0.029591108,-0.017604658,0.008444131,-0.037638158,-0.071346425,-0.0599845,-0.020328488,-0.06075902,-0.017217606,0.014641443,3.0,-0.7215976,-3.0,3.0,3.0,-3.0,-3.0,-1.5024525,-3.0,-3.0,0.93238336,-3.0,3.0,-0.56924695,-3.0,3.0,3.0,-3.0,-3.0,-1.538409,-3.0,-3.0,0.96183175,-3.0
2025-06-06 10:51:14.364,-0.027605416,-0.040244263,0.026419539,0.010001183,0.12046235,0.03369661,0.0,0.0,0.0,0.065734275,-0.023312917,-0.24506566,-0.10446094,0.086503364,0.58512944,-0.27270156,-0.11108445,-0.2833062,-0.31123587,0.07634654,0.086222574,-0.22906847,-0.008680677,-0.056758355,0.06790284,0.050175484,0.0028193116,0.07269118,0.017210113,0.046995696,0.04803954,-0.0031207285,0.023566986,-0.017012278,3.0,-0.56924695,-3.0,3.0,3.0,-3.0,-3.0,-1.538409,-3.0,-3.0,0.96183175,-3.0,3.0,-0.7487035,-3.0,3.0,3.0,-3.0,-3.0,-1.5302867,-3.0,-3.0,0.993246,-3.0
2025-06-06 10:51:14.384,-0.0029784394,-0.04551531,-0.041881226,-0.059642065,0.08136348,-0.02580314,0.0,0.0,0.0,0.06591098,-0.027050646,-0.239811,-0.102003366,0.0908322,0.60153127,-0.28669873,-0.104857124,-0.27389783,-0.3258977,0.060517833,0.08619709,-0.21137959,0.028134432,0.01636392,-0.03968064,-0.0743323,-0.025053395,-0.0039249305,0.04116394,-0.01782283,0.02236928,-0.045562655,-0.051029865,-0.030015841,3.0,-0.7487035,-3.0,3.0,3.0,-3.0,-3.0,-1.5302867,-3.0,-3.0,0.993246,-3.0,3.0,-0.513309,-3.0,3.0,3.0,-3.0,-3.0,-1.5244887,-3.0,-3.0,0.97632605,-3.0
2025-06-06 10:51:14.406,-0.0378617,-0.0056801056,-0.024482803,-0.0050560976,0.11018879,-0.0040317224,0.0,0.0,0.0,0.06609708,-0.033021323,-0.24904029,-0.10518981,0.08993813,0.59232557,-0.28819564,-0.09722504,-0.2734453,-0.32923466,0.06996291,0.08576318,-0.21827455,-0.021614274,0.008419793,0.0022937953,-0.049711276,0.060605258,-0.065889046,-0.07046866,0.028263988,0.039937254,-0.024120152,0.05621049,-0.0740978,3.0,-0.513309,-3.0,3.0,3.0,-3.0,-3.0,-1.5244887,-3.0,-3.0,0.97632605,-3.0,3.0,-0.7008312,-3.0,3.0,3.0,-3.0,-3.0,-1.5720843,-3.0,-3.0,0.8783774,-3.0
2025-06-06 10:51:14.424,0.0037235979,0.019909551,-0.0033689751,-0.060895942,0.041995455,0.020120228,0.0,0.0,0.0,0.066255026,-0.028522942,-0.2331999,-0.09517326,0.09201329,0.5840416,-0.27683794,-0.109539025,-0.26975992,-0.3182595,0.07737039,0.08861866,-0.21251039,-0.026640372,0.06148665,0.0038917214,0.020495038,-0.0061199893,0.047809865,-0.03566683,0.024013417,0.03100791,-0.037941806,-0.057032596,-0.019372255,3.0,-0.7008312,-3.0,3.0,3.0,-3.0,-3.0,-1.5720843,-3.0,-3.0,0.8783774,-3.0,3.0,-0.67290753,-3.0,3.0,3.0,-3.0,-3.0,-1.5701523,-3.0,-3.0,0.92999226,-3.0
2025-06-06 10:51:14.444,0.0038067873,-0.043674998,-0.01976921,-0.0011536231,0.11054667,0.0076362477,0.0,0.0,0.0,0.06632779,-0.03428941,-0.23863894,-0.0927634,0.08319803,0.587763,-0.28218132,-0.09506859,-0.27035037,-0.32640058,0.06683591,0.077414535,-0.22193395,0.04818474,0.037995435,0.01509091,-0.03199819,-0.07511708,-0.03502632,0.06575173,-0.01594943,0.044021945,0.06441195,0.014937157,-0.009960999,3.0,-0.67290753,-3.0,3.0,3.0,-3.0,-3.0,-1.5701523,-3.0,-3.0,0.92999226,-3.0,3.0,-0.58630306,-3.0,3.0,3.0,-3.0,-3.0,-1.5128716,-3.0,-3.0,0.94219667,-3.0
2025-06-06 10:51:14.464,-0.008423626,-0.016507855,-0.03777563,0.00043054766,0.07251814,-0.0034776458,0.0,0.0,0.0,0.06637587,-0.02070203,-0.23715913,-0.09335374,0.091873266,0.5926383,-0.28962913,-0.093012385,-0.2817701,-0.31969845,0.07544184,0.08130855,-0.22780944,-0.0633572,-0.034606613,-0.07234787,0.03313144,0.027002743,-0.008256434,0.03513506,0.04178755,0.063347876,0.020499006,-0.036756724,0.04853895,3.0,-0.58630306,-3.0,3.0,3.0,-3.0,-3.0,-1.5128716,-3.0,-3.0,0.94219667,-3.0,3.0,-0.59654844,-3.0,3.0,3.0,-3.0,-3.0,-1.5844239,-3.0,-3.0,0.91856223,-3.0
2025-06-06 10:51:14.484,0.047555115,-0.0021138887,-0.036385376,-0.018672237,0.027340043,0.0012501366,0.0,0.0,0.0,0.06639861,-0.033934966,-0.24731849,-0.095230974,0.08892802,0.59605175,-0.27152506,-0.09839729,-0.28810027,-0.31094244,0.06989476,0.08644705,-0.21097983,-0.051055204,-0.0023091275,-0.04879841,-0.04636775,-0.04486084,0.02070689,0.050925907,0.010728969,0.036013618,0.0073254984,-0.020809107,0.021232177,3.0,-0.59654844,-3.0,3.0,3.0,-3.0,-3.0,-1.5844239,-3.0,-3.0,0.91856223,-3.0,3.0,-0.6491987,-3.0,3.0,3.0,-3.0,-3.0,-1.538803,-3.0,-3.0,0.9227875,-3.0
2025-06-06 10:51:14.506,-0.0036710817,-0.0014772489,-0.027270732,-0.021523798,0.052281,-0.038538452,0.0,0.0,0.0,0.06637968,-0.015806435,-0.24822898,-0.096815065,0.09768773,0.5853623,-0.27649093,-0.10631823,-0.28780425,-0.3167605,0.066718966,0.07949636,-0.21334139,-0.0346641,-0.024798151,-0.0666699,-0.04241839,0.056822263,-0.034738682,0.019892525,0.07323863,0.0643812,0.056040272,-0.07135381,0.021290382,3.0,-0.6491987,-3.0,3.0,3.0,-3.0,-3.0,-1.538803,-3.0,-3.0,0.9227875,-3.0,3.0,-0.5954363,-3.0,3.0,3.0,-3.0,-3.0,-1.5866848,-3.0,-3.0,0.91360104,-3.0
2025-06-06 10:51:14.524,-0.043022677,0.02929016,0.055047266,0.026842173,0.081389375,-0.0025303685,0.0,0.0,0.0,0.06632055,-0.032730862,-0.24165176,-0.09362545,0.0855293,0.6008823,-0.28678656,-0.09473433,-0.27460575,-0.3237675,0.060876474,0.090611465,-0.22195105,-0.04161204,0.0656314,0.052744452,0.037413538,0.027938483,-0.073526315,-0.02662164,0.057769272,-0.00867273,-0.0077755637,-0.06342262,-0.053325888,3.0,-0.5954363,-3.0,3.0,3.0,-3.0,-3.0,-1.5866848,-3.0,-3.0,0.91360104,-3.0,3.0,-0.822815,-3.0,3.0,3.0,-3.0,-3.0,-1.5514871,-3.0,-3.0,0.9412642,-3.0
2025-06-06 10:51:14.544,-0.020494599,-0.03303034,0.029181715,-0.04052359,0.026136708,-0.02629709,0.0,0.0,0.0,0.066232346,-0.030518452,-0.24961837,-0.108298935,0.09980997,0.600841,-0.28549594,-0.09388599,-0.2896842,-0.3256899,0.07476294,0.07507705,-0.20987965,-0.054678377,0.017285466,0.022406168,-0.045341756,-0.040893845,0.00638642,0.062349744,-0.03418036,0.06295246,0.045263514,-0.05477459,0.03442723,3.0,-0.822815,-3.0,3.0,3.0,-3.0,-3.0,-1.5514871,-3.0,-3.0,0.9412642,-3.0,3.0,-0.66296047,-3.0,3.0,3.0,-3.0,-3.0,-1.5169821,-3.0,-3.0,1.0386401,-3.0
2025-06-06 10:51:14.564,0.025117386,0.033895023,-0.0013891181,0.00015732188,0.121520996,0.03014872,0.0,0.0,0.0,0.0661726,-0.018130792,-0.23499875,-0.09463577,0.094179995,0.59011286,-0.28271928,-0.10830197,-0.28144652,-0.3282502,0.062623315,0.091351114,-0.21557157,0.017366996,0.061304037,-0.012851453,-0.045260955,0.028093887,0.0042070714,-0.035770096,0.05754661,-0.07306,-0.02704371,0.02892027,-0.051469196,3.0,-0.66296047,-3.0,3.0,3.0,-3.0,-3.0,-1.5169821,-3.0,-3.0,1.0386401,-3.0,3.0,-0.6995748,-3.0,3.0,3.0,-3.0,-3.0,-1.5678071,-3.0,-3.0,0.93586093,-3.0
2025-06-06 10:51:14.584,-0.0067593157,-0.045880854,-0.0476389,-0.061758336,0.086590916,0.049395986,0.0,0.0,0.0,0.06621036,-0.030129654,-0.23533311,-0.09796098,0.08569723,0.6005702,-0.27734533,-0.10099582,-0.28464264,-0.31744903,0.07460163,0.079563975,-0.225741,0.04637033,-0.03724156,0.05408715,0.06454084,0.020182049,0.06628582,-0.06865677,0.013004638,-0.041256417,-0.024255032,-0.059459615,-0.074722394,3.0,-0.6995748,-3.0,3.0,3.0,-3.0,-3.0,-1.5678071,-3.0,-3.0,0.93586093,-3.0,3.0,-0.55724186,-3.0,3.0,3.0,-3.0,-3.0,-1.4892734,-3.0,-3.0,0.9785802,-3.0
2025-06-06 10:51:14.606,0.019784426,0.038866643,-0.00027313884,0.033015415,0.030260399,-0.023860954,0.0,0.0,0.0,0.06626875,-0.020515298,-0.24280092,-0.107941605,0.08875098,0.5871762,-0.2797832,-0.10432262,-0.28167963,-0.31291386,0.068245254,0.080233924,-0.227795,-0.06502914,-0.05952112,0.06344689,-0.04949198,0.010694689,0.01800507,-0.031731635,0.07326501,-0.058103662,0.015223673,-0.00070030184,0.035946555,3.0,-0.55724186,-3.0,3.0,3.0,-3.0,-3.0,-1.4892734,-3.0,-3.0,0.9785802,-3.0,3.0,-0.7264836,-3.0,3.0,3.0,-3.0,-3.0,-1.5395417,-3.0,-3.0,0.9487272,-3.0
2025-06-06 10:51:14.625,-0.039794736,0.030115038,-0.045859747,0.019234998,0.108692445,-0.0107346,0.0,0.0,0.0,0.066294335,-0.020017967,-0.24858324,-0.09715132,0.08688555,0.58735657,-0.27123734,-0.10808192,-0.27190688,-0.32456407,0.065065935,0.09501149,-0.21170242,0.06263124,0.07163061,0.03845006,0.003613616,-0.060021024,0.056887705,-0.04170665,-0.07269287,-0.026770037,-0.03239867,0.020001577,0.026209194,3.0,-0.7264836,-3.0,3.0,3.0,-3.0,-3.0,-1.5395417,-3.0,-3.0,0.9487272,-3.0,3.0,-0.6024265,-3.0,3.0,3.0,-3.0,-3.0,-1.5340711,-3.0,-3.0,0.9453498,-3.0
2025-06-06 10:51:14.645,0.050914343,0.032868434,-0.043783545,0.031818397,0.12101514,-0.013718126,0.0,0.0,0.0,0.06630946,-0.016495727,-0.23563676,-0.10504271,0.091400266,0.5883884,-0.27055112,-0.0986562,-0.27452126,-0.3208471,0.05861332,0.0786548,-0.22736746,-0.027455565,0.069558784,-0.027736235,-0.06533418,-0.01120644,0.059136383,0.031156262,0.073984765,-0.00453625,0.0677597,0.073343344,-0.026162712,3.0,-0.6024265,-3.0,3.0,3.0,-3.0,-3.0,-1.5340711,-3.0,-3.0,0.9453498,-3.0,3.0,-0.66446,-3.0,3.0,3.0,-3.0,-3.0,-1.625281,-3.0,-3.0,0.8146177,-3.0
2025-06-06 10:51:14.665,0.03952661,-0.04632724,-0.04495276,-0.017263874,0.07350286,-0.030597983,0.0,0.0,0.0,0.06631292,-0.027430082,-0.23269406,-0.096958786,0.0829198,0.5976068,-0.27858862,-0.09585644,-0.28011635,-0.3204735,0.065797105,0.07948139,-0.21362858,-0.0656122,0.032662883,0.02911358,-0.06070961,-0.028527452,0.06310503,-0.07534117,-0.015947348,0.057080973,-0.0035348367,-0.0788446,0.01076309,3.0,-0.66446,-3.0,3.0,3.0,-3.0,-3.0,-1.625281,-3.0,-3.0,0.8146177,-3.0,3.0,-0.60503954,-3.0,3.0,3.0,-3.0,-3.0,-1.5658883,-3.0,-3.0,0.8732141,-3.0
2025-06-06 10:51:14.689,-0.031874344,0.013553185,0.00670691,-0.050432935,0.06711085,-0.0186961,0.0,0.0,0.0,0.06624154,-0.02764533,-0.23570031,-0.09682003,0.08952511,0.59355295,-0.27452224,-0.110296406,-0.28622872,-0.32163227,0.07446014,0.07846014,-0.21596204,0.042296823,-0.068657,0.028125046,-0.005014585,0.049567327,-0.002039151,0.050784923,0.018297236,-0.008486752,0.045659922,0.017997557,0.019459954,3.0,-0.60503954,-3.0,3.0,3.0,-3.0,-3.0,-1.5658883,-3.0,-3.0,0.8732141,-3.0,3.0,-0.6229562,-3.0,3.0,3.0,-3.0,-3.0,-1.4614941,-3.0,-3.0,1.0151821,-3.0
2025-06-06 10:51:14.705,-0.03197416,-0.014472035,-0.03142322,0.0008741002,0.0472871,0.04653726,0.0,0.0,0.0,0.066120036,-0.020438544,-0.23025426,-0.106194615,0.10219682,0.58562833,-0.29081506,-0.10691111,-0.26941296,-0.32371843,0.06553177,0.076207995,-0.20706941,0.011132341,0.017042052,0.003941998,-0.03569147,-0.03128878,0.057229422,0.060338173,0.060069207,-0.05099158,0.016261145,0.024709247,0.02721424,3.0,-0.6229562,-3.0,3.0,3.0,-3.0,-3.0,-1.4614941,-3.0,-3.0,1.0151821,-3.0,3.0,-0.6234407,-3.0,3.0,3.0,-3.0,-3.0,-1.548585,-3.0,-3.0,0.919544,-3.0
2025-06-06 10:51:14.725,0.007042549,0.0028914695,-0.030563707,-0.00903458,0.037429273,0.02887368,0.0,0.0,0.0,0.066047385,-0.027850686,-0.24157625,-0.10451383,0.09331333,0.58974284,-0.28316095,-0.10613251,-0.27737632,-0.323385,0.074924015,0.085215755,-0.22366843,-0.026464218,-0.005034667,0.041633602,-0.03689035,0.031409133,-0.04853046,-0.06720923,0.044229995,0.04892994,0.017692912,-0.06245086,-0.06545134,3.0,-0.6234407,-3.0,3.0,3.0,-3.0,-3.0,-1.548585,-3.0,-3.0,0.919544,-3.0,3.0,-0.6472544,-3.0,3.0,3.0,-3.0,-3.0,-1.5549029,-3.0,-3.0,0.88790935,-3.0
2025-06-06 10:51:14.745,-0.018102173,-0.048542146,-0.0006425929,0.0035009563,0.09967342,0.010286001,0.0,0.0,0.0,0.06599219,-0.031355914,-0.23760718,-0.10925562,0.102545105,0.59932756,-0.29138392,-0.10739096,-0.27720872,-0.32768616,0.07253739,0.08597103,-0.21402472,0.07115114,-0.018471826,-0.06248714,0.015320203,-0.030412635,0.05659285,0.05271987,0.070966765,-0.00034771205,-0.006711456,0.072745286,0.050197374,3.0,-0.6472544,-3.0,3.0,3.0,-3.0,-3.0,-1.5549029,-3.0,-3.0,0.88790935,-3.0,3.0,-0.5858157,-3.0,3.0,3.0,-3.0,-3.0,-1.535484,-3.0,-3.0,0.9915622,-3.0
2025-06-06 10:51:14.765,-0.03206112,-0.0048330124,-0.022929542,-0.003976242,0.06055223,-0.005977846,0.0,0.0,0.0,0.06590893,-0.03569422,-0.24029966,-0.10773052,0.092589274,0.59652895,-0.28136927,-0.09507473,-0.27451387,-0.32262465,0.06962229,0.07852841,-0.2220032,-0.010586744,0.027491398,-0.049596388,-0.0038045098,-0.0057811267,-0.06646899,0.0027660166,0.0058345604,-0.02770939,0.014129635,-0.048746746,0.018250372,3.0,-0.5858157,-3.0,3.0,3.0,-3.0,-3.0,-1.535484,-3.0,-3.0,0.9915622,-3.0,3.0,-0.64437366,-3.0,3.0,3.0,-3.0,-3.0,-1.5139343,-3.0,-3.0,0.93379456,-3.0
2025-06-06 10:51:14.789,-0.027626308,-0.035098042,0.015584776,0.008703977,0.026010502,-0.013006619,0.0,0.0,0.0,0.06585998,-0.020438442,-0.22675277,-0.09203176,0.09086642,0.5902478,-0.28515226,-0.09186627,-0.2802852,-0.32873973,0.06366251,0.07803309,-0.21115266,-0.017128777,0.010200472,0.07142558,-0.060342588,-0.06971823,-0.03197282,0.06439234,-0.037043255,0.041668806,0.060292684,0.033851817,-0.056085486,3.0,-0.64437366,-3.0,3.0,3.0,-3.0,-3.0,-1.5139343,-3.0,-3.0,0.93379456,-3.0,3.0,-0.68486947,-3.0,3.0,3.0,-3.0,-3.0,-1.4939939,-3.0,-3.0,0.9426258,-3.0
2025-06-06 10:51:14.808,-0.015321335,-0.025191315,0.017920231,0.028675409,0.09990118,0.025751632,0.0,0.0,0.0,0.06581471,-0.018104864,-0.23307192,-0.09988096,0.098097034,0.5995105,-0.27098215,-0.10234445,-0.27573225,-0.32410777,0.070175394,0.085421525,-0.22252072,0.06644194,0.049685765,0.043806374,0.045001503,0.0074602496,0.063354574,-0.041093845,-0.026322154,0.016448101,-0.011094108,-0.06550302,-0.066036016,3.0,-0.68486947,-3.0,3.0,3.0,-3.0,-3.0,-1.4939939,-3.0,-3.0,0.9426258,-3.0,3.0,-0.7234982,-3.0,3.0,3.0,-3.0,-3.0,-1.5432414,-3.0,-3.0,1.0183702,-3.0
2025-06-06 10:51:14.825,-0.04666977,0.03119076,0.023422556,-0.017438384,0.08632969,-0.04816472,0.0,0.0,0.0,0.06576899,-0.018300207,-0.23674202,-0.09991258,0.091747046,0.58520955,-0.27487212,-0.11187145,-0.26966092,-0.31348273,0.05588864,0.0899144,-0.21431491,-0.056927044,0.046274457,-0.044586014,-0.036422096,-0.039803874,0.05544209,-0.041263796,0.038364194,0.043165967,0.043740667,-0.04999349,0.0118184425,3.0,-0.7234982,-3.0,3.0,3.0,-3.0,-3.0,-1.5432414,-3.0,-3.0,1.0183702,-3.0,3.0,-0.7002569,-3.0,3.0,3.0,-3.0,-3.0,-1.5856501,-3.0,-3.0,0.9514564,-3.0
2025-06-06 10:51:14.845,-0.029757462,-0.002221745,0.042775538,-0.037430543,0.08965188,0.024506757,0.0,0.0,0.0,0.065820776,-0.037069093,-0.24338067,-0.10504908,0.09319914,0.5912466,-0.2738322,-0.09632202,-0.28115243,-0.3179598,0.05545563,0.09503308,-0.2093444,-0.06434788,0.037146244,-0.037646078,-0.052292883,0.057917986,-0.0015403858,0.03183999,-0.04498209,-0.06919008,-0.0054094265,0.049665917,-0.016191559,3.0,-0.7002569,-3.0,3.0,3.0,-3.0,-3.0,-1.5856501,-3.0,-3.0,0.9514564,-3.0,3.0,-0.75931925,-3.0,3.0,3.0,-3.0,-3.0,-1.493021,-3.0,-3.0,0.9945381,-3.0
2025-06-06 10:51:14.865,0.010503253,-0.036231373,-0.048833355,-0.0067544086,0.09381632,0.0341,0.0,0.0,0.0,0.06594285,-0.035864856,-0.24650963,-0.091348015,0.09992651,0.5951397,-0.27485824,-0.09412074,-0.28206405,-0.32610145,0.056317903,0.09010807,-0.2098108,-0.05142839,0.049674533,0.038491867,0.050308686,0.017784951,-0.03551714,-0.022309225,-0.0484178,0.07333388,0.013559837,0.052815206,-0.021263048,3.0,-0.75931925,-3.0,3.0,3.0,-3.0,-3.0,-1.493021,-3.0,-3.0,0.9945381,-3.0,3.0,-0.6749864,-3.0,3.0,3.0,-3.0,-3.0,-1.5795844,-3.0,-3.0,0.86922556,-3.0
2025-06-06 10:51:14.890,0.04799699,-0.0075640646,-0.02169529,-0.039097592,0.034611467,0.002074181,0.0,0.0,0.0,0.0661159,-0.03524026,-0.23938704,-0.10410002,0.10087726,0.5990855,-0.28191015,-0.09492706,-0.27286834,-0.3294078,0.07133318,0.08604043,-0.20375362,0.025000464,0.03843572,-0.040851183,-0.07482157,-0.064227544,0.035013713,-0.037399694,-0.011027869,0.050482757,-0.033896767,0.014535253,0.01898092,3.0,-0.6749864,-3.0,3.0,3.0,-3.0,-3.0,-1.5795844,-3.0,-3.0,0.86922556,-3.0,3.0,-0.6139434,-3.0,3.0,3.0,-3.0,-3.0,-1.551009,-3.0,-3.0,0.9433058,-3.0
2025-06-06 10:51:14.907,-0.041489918,0.007907215,-0.0049955584,0.025652144,0.088674456,-0.04592723,0.0,0.0,0.0,0.0662659,-0.025454758,-0.2423813,-0.104372434,0.08508489,0.5907049,-0.28059366,-0.09590669,-0.28484273,-0.32754254,0.06939381,0.094908334,-0.21075608,0.06285044,0.052644107,0.009675126,-0.05648292,0.02835301,0.025887283,0.04081632,0.0647395,-0.06566162,-0.043745738,0.027921574,0.05853914,3.0,-0.6139434,-3.0,3.0,3.0,-3.0,-3.0,-1.551009,-3.0,-3.0,0.9433058,-3.0,3.0,-0.68488723,-3.0,3.0,3.0,-3.0,-3.0,-1.5124264,-3.0,-3.0,0.9546029,-3.0
2025-06-06 10:51:14.925,-0.04323467,0.023269938,0.015855594,0.023801386,0.11153028,-0.03838423,0.0,0.0,0.0,0.06639359,-0.024052035,-0.24146676,-0.10306908,0.082541265,0.60034835,-0.2713434,-0.10676521,-0.28237265,-0.3274546,0.063441925,0.08194664,-0.2115144,0.010940779,0.029709594,-0.059618622,0.04101843,-0.008794058,0.05092911,0.053944636,0.068605565,-0.0703868,0.0035705345,-0.059275605,-0.06918507,3.0,-0.68488723,-3.0,3.0,3.0,-3.0,-3.0,-1.5124264,-3.0,-3.0,0.9546029,-3.0,3.0,-0.66469127,-3.0,3.0,3.0,-3.0,-3.0,-1.5576068,-3.0,-3.0,1.0020217,-3.0
2025-06-06 10:51:14.946,0.005631967,-0.0022202248,0.03710426,-0.06008215,0.035584252,-0.031824056,0.0,0.0,0.0,0.06652783,-0.02226867,-0.24152662,-0.09495739,0.1023854,0.59578097,-0.284213,-0.0935831,-0.2854964,-0.31847927,0.07339817,0.081593886,-0.21167059,0.0386383,-0.0028024283,0.004386548,0.027734734,-0.023186421,0.006489295,0.066995315,0.06023482,-0.072291054,-0.0068621826,0.042434976,-0.07266826,3.0,-0.66469127,-3.0,3.0,3.0,-3.0,-3.0,-1.5576068,-3.0,-3.0,1.0020217,-3.0,3.0,-0.653045,-3.0,3.0,3.0,-3.0,-3.0,-1.4787928,-3.0,-3.0,1.0316347,-3.0
2025-06-06 10:51:14.966,-0.048797727,-0.042540427,-0.03359981,-0.013840247,0.10332664,-0.015354241,0.0,0.0,0.0,0.06671831,-0.0299436,-0.23817721,-0.08871868,0.086071156,0.59810585,-0.2771347,-0.1071388,-0.27937856,-0.3159139,0.06963539,0.08468515,-0.22157077,-0.014231874,-0.058069773,-0.0137408925,-0.015285181,-0.0029716706,-0.035006467,0.06780369,0.04828147,-0.026947081,0.070636466,-0.042765837,0.06270934,3.0,-0.653045,-3.0,3.0,3.0,-3.0,-3.0,-1.4787928,-3.0,-3.0,1.0316347,-3.0,3.0,-0.5610537,-3.0,3.0,3.0,-3.0,-3.0,-1.5120084,-3.0,-3.0,0.985561,-3.0
2025-06-06 10:51:14.986,-0.009163728,-0.018694308,0.0357519,-0.003755363,0.08022457,0.026163608,0.0,0.0,0.0,0.06695211,-0.027288858,-0.23343645,-0.09727728,0.101091996,0.59888196,-0.28696176,-0.095876984,-0.27793205,-0.32729778,0.06172511,0.099628985,-0.22082251,0.05013755,-0.0030724462,0.04533231,0.0010906847,-0.055572424,-2.422254e-05,-0.03226858,0.070195295,-0.02440374,0.03009664,-0.067033626,-0.028447922,3.0,-0.5610537,-3.0,3.0,3.0,-3.0,-3.0,-1.5120084,-3.0,-3.0,0.985561,-3.0,3.0,-0.7039174,-3.0,3.0,3.0,-3.0,-3.0,-1.4819487,-3.0,-3.0,1.022923,-3.0
2025-06-06 10:51:15.006,-0.029533874,0.03659643,-0.014174801,-0.031011054,0.12040733,-0.007822321,0.0,0.0,0.0,0.06716365,-0.037823476,-0.2461703,-0.09790868,0.08789077,0.593919,-0.28656325,-0.09288564,-0.27710858,-0.32797438,0.06972339,0.08373189,-0.21358332,-0.029017888,0.001057334,-0.014602007,-0.06179913,0.02821486,-0.0565208,-0.002101299,0.07071043,-0.030793605,0.03350157,-0.061665248,-0.00971349,3.0,-0.7039174,-3.0,3.0,3.0,-3.0,-3.0,-1.4819487,-3.0,-3.0,1.022923,-3.0,3.0,-0.63304675,-3.0,3.0,3.0,-3.0,-3.0,-1.5644408,-3.0,-3.0,0.9634033,-3.0
2025-06-06 10:51:15.026,0.021054285,-0.007206363,0.0021325331,0.00150136,0.12125511,0.0062701707,0.0,0.0,0.0,0.06737404,-0.031234525,-0.23808634,-0.09115493,0.08912194,0.5971267,-0.2819572,-0.094622485,-0.26875147,-0.3202013,0.059687026,0.08469238,-0.21823637,0.0674786,0.018767012,0.046204086,0.075454414,-0.05651075,0.044640984,-0.032843724,0.069049865,-0.016252449,0.05436632,0.0543759,0.0661861,3.0,-0.63304675,-3.0,3.0,3.0,-3.0,-3.0,-1.5644408,-3.0,-3.0,0.9634033,-3.0,3.0,-0.65855825,-3.0,3.0,3.0,-3.0,-3.0,-1.5383132,-3.0,-3.0,0.96752346,-3.0
2025-06-06 10:51:15.046,0.00033958803,-0.045897927,-0.020246636,-0.0061563235,0.12128393,-0.033254564,0.0,0.0,0.0,0.06757781,-0.026387671,-0.23020473,-0.09014141,0.09115932,0.58773744,-0.288488,-0.10456786,-0.2689769,-0.31759673,0.064255096,0.09108441,-0.20940134,-0.013542501,-0.037141558,0.042911775,0.026912365,0.007914403,-0.008858482,0.073307075,-0.024682334,-0.035424717,0.07070958,-0.049917467,-0.029449236,3.0,-0.65855825,-3.0,3.0,3.0,-3.0,-3.0,-1.5383132,-3.0,-3.0,0.96752346,-3.0,3.0,-0.558561,-3.0,3.0,3.0,-3.0,-3.0,-1.4600416,-3.0,-3.0,1.0094267,-3.0
2025-06-06 10:51:15.066,0.0104475655,-0.035914347,0.018434165,0.021857139,0.048563395,0.011566224,0.0,0.0,0.0,0.06775798,-0.031328343,-0.23487532,-0.099253945,0.095924914,0.58783424,-0.28539357,-0.09815269,-0.27186188,-0.32406777,0.0778473,0.100594446,-0.21098736,0.0013813967,-0.0020231234,-0.06523112,0.061292917,-0.022115074,-0.049100168,-0.022772508,-0.06727057,0.05370335,-0.019320766,0.05701631,-0.072983846,3.0,-0.558561,-3.0,3.0,3.0,-3.0,-3.0,-1.4600416,-3.0,-3.0,1.0094267,-3.0,3.0,-0.71239036,-3.0,3.0,3.0,-3.0,-3.0,-1.5052636,-3.0,-3.0,1.0089356,-3.0
2025-06-06 10:51:15.090,0.043122914,-0.020223163,-0.0025717344,-0.025198935,0.028508008,-0.027450688,0.0,0.0,0.0,0.06791275,-0.025709892,-0.24575719,-0.09896781,0.10095663,0.6061818,-0.2803783,-0.09453936,-0.2644512,-0.32236698,0.076121114,0.09096073,-0.21961105,-0.064987175,-0.035817094,0.031727295,-0.01739994,0.07513675,-0.023874404,0.0080956975,0.05811675,0.011430916,-0.048196677,-0.049058665,0.01007384,3.0,-0.71239036,-3.0,3.0,3.0,-3.0,-3.0,-1.5052636,-3.0,-3.0,1.0089356,-3.0,3.0,-0.6849213,-3.0,3.0,3.0,-3.0,-3.0,-1.5501729,-3.0,-3.0,0.9891409,-3.0
2025-06-06 10:51:15.107,0.047376186,-0.043392915,-0.01638038,0.037968565,0.08153403,0.009181203,0.0,0.0,0.0,0.06807981,-0.031989798,-0.24022084,-0.09729301,0.09434626,0.5881126,-0.28469637,-0.09453478,-0.26317185,-0.32399246,0.06987078,0.09133444,-0.20983928,-0.0064059524,-0.04717294,-0.043535266,-0.0724821,-0.064194135,-0.02739852,0.07043245,0.029751198,0.061811496,-0.048215277,-0.03756099,0.024251917,3.0,-0.6849213,-3.0,3.0,3.0,-3.0,-3.0,-1.5501729,-3.0,-3.0,0.9891409,-3.0,3.0,-0.57461584,-3.0,3.0,3.0,-3.0,-3.0,-1.5358157,-3.0,-3.0,0.98620063,-3.0
2025-06-06 10:51:15.126,0.008973685,-0.042550858,-0.045315117,-0.05517559,0.092731535,-0.0030539192,0.0,0.0,0.0,0.06827201,-0.036107715,-0.24462137,-0.092418194,0.086976595,0.59528726,-0.27330497,-0.10228235,-0.2718967,-0.31793198,0.06450955,0.08834361,-0.21712404,-0.07119501,0.06311195,-0.012014154,-0.020064889,-0.03815723,0.0020331806,0.066634774,0.017546311,-0.04005245,-0.00078057166,-0.01774958,-0.047607437,3.0,-0.57461584,-3.0,3.0,3.0,-3.0,-3.0,-1.5358157,-3.0,-3.0,0.98620063,-3.0,3.0,-0.6334614,-3.0,3.0,3.0,-3.0,-3.0,-1.5462447,-3.0,-3.0,0.8802102,-3.0
2025-06-06 10:51:15.146,0.0294611,0.014624051,-0.043649048,-0.03181418,0.08543889,-0.006419004,0.0,0.0,0.0,0.06844798,-0.035150804,-0.2325234,-0.10599376,0.09327001,0.5911106,-0.2752891,-0.09657131,-0.26808107,-0.31472555,0.08062733,0.09045456,-0.21325837,0.072410904,0.016945887,0.061912168,0.072190516,0.0009104269,-0.033989254,-0.011342848,0.06568084,-0.072327435,-0.0148556065,-0.06657404,0.07089697,3.0,-0.6334614,-3.0,3.0,3.0,-3.0,-3.0,-1.5462447,-3.0,-3.0,0.8802102,-3.0,3.0,-0.5265322,-3.0,3.0,3.0,-3.0,-3.0,-1.5228426,-3.0,-3.0,0.94487566,-3.0
2025-06-06 10:51:15.166,-0.02812773,0.028780295,0.005383619,0.0069131223,0.098471716,0.004791067,0.0,0.0,0.0,0.06852557,-0.030615367,-0.24119605,-0.09851775,0.099426955,0.60446465,-0.28980377,-0.09933175,-0.2684398,-0.3213161,0.06723992,0.08999788,-0.22088209,0.0026965186,0.05049069,-0.028433284,-0.03835325,0.06369336,-0.04818547,0.018360354,-0.030117676,0.028254405,0.008765506,0.04058065,-0.062684506,3.0,-0.5265322,-3.0,3.0,3.0,-3.0,-3.0,-1.5228426,-3.0,-3.0,0.94487566,-3.0,3.0,-0.74198884,-3.0,3.0,3.0,-3.0,-3.0,-1.5546606,-3.0,-3.0,0.9344159,-3.0
2025-06-06 10:51:15.190,0.02790926,-0.004702925,0.0018255202,-0.039117318,0.108108595,0.018420458,0.0,0.0,0.0,0.06852402,-0.036555443,-0.24681962,-0.1108521,0.08976102,0.591754,-0.28863114,-0.09858666,-0.26881585,-0.32578918,0.06877317,0.08713971,-0.2070528,-0.056357965,0.021967985,-0.064406656,0.0506566,0.0008248038,0.04075077,-0.002963852,-0.06656685,0.022705272,-0.026688091,0.026093153,-0.06964619,3.0,-0.74198884,-3.0,3.0,3.0,-3.0,-3.0,-1.5546606,-3.0,-3.0,0.9344159,-3.0,3.0,-0.65255016,-3.0,3.0,3.0,-3.0,-3.0,-1.5435461,-3.0,-3.0,0.98521036,-3.0
2025-06-06 10:51:15.207,-0.048060093,-0.038950924,-0.050628472,0.012050694,0.036242403,0.016156923,0.0,0.0,0.0,0.06851098,-0.04025361,-0.23132177,-0.09654315,0.08559856,0.6038981,-0.28024864,-0.099318296,-0.2767144,-0.3191044,0.061508168,0.082377896,-0.21359833,-0.06226855,-0.027016984,0.0018575115,-0.054764427,0.02916566,-0.06428342,-0.011839707,0.04274804,0.017425679,-0.049138226,-0.017076088,0.045801073,3.0,-0.65255016,-3.0,3.0,3.0,-3.0,-3.0,-1.5435461,-3.0,-3.0,0.98521036,-3.0,3.0,-0.60869783,-3.0,3.0,3.0,-3.0,-3.0,-1.5581211,-3.0,-3.0,0.8419519,-3.0
2025-06-06 10:51:15.227,0.00020559851,0.029118244,0.030756963,-0.048893716,0.024480423,-0.03985375,0.0,0.0,0.0,0.06853776,-0.03538225,-0.22902755,-0.11137124,0.10241077,0.5865195,-0.27896777,-0.10371765,-0.27153108,-0.31149215,0.06220199,0.09603557,-0.21786363,0.040759873,-0.025602361,0.007932727,-0.06053383,-0.03204371,-0.061801087,-0.036280952,-0.02763093,0.05612673,-0.038456146,0.040008888,0.031246116,3.0,-0.60869783,-3.0,3.0,3.0,-3.0,-3.0,-1.5581211,-3.0,-3.0,0.8419519,-3.0,3.0,-0.6289986,-3.0,3.0,3.0,-3.0,-3.0,-1.5030907,-3.0,-3.0,0.9874957,-3.0
2025-06-06 10:51:15.247,-0.04219072,0.051243097,0.026131988,0.028263068,0.08671768,0.038984425,0.0,0.0,0.0,0.06848748,-0.032173246,-0.24827166,-0.104348324,0.093308635,0.58787096,-0.2793015,-0.10937829,-0.27996972,-0.3234293,0.0729234,0.085877135,-0.20672777,0.04439759,0.03596939,-0.006401003,-0.04234118,0.019613136,-0.048206113,-0.032412857,0.07012166,-0.042751048,-0.07331873,-0.009741971,0.002802709,3.0,-0.6289986,-3.0,3.0,3.0,-3.0,-3.0,-1.5030907,-3.0,-3.0,0.9874957,-3.0,3.0,-0.74571985,-3.0,3.0,3.0,-3.0,-3.0,-1.5606983,-3.0,-3.0,0.9636639,-3.0
2025-06-06 10:51:15.267,0.016106008,0.008936033,0.019871367,-0.049657606,0.048159473,-0.0030730977,0.0,0.0,0.0,0.068427965,-0.0407943,-0.22987933,-0.09620323,0.10187863,0.6022308,-0.28901294,-0.101025246,-0.27014437,-0.3129764,0.069137394,0.08167144,-0.20967352,-0.056975786,0.06603297,0.04441553,0.027041463,-0.054350745,0.047593728,0.045370333,0.055666905,-0.013995946,-0.06628157,-0.019627154,0.0060098805,3.0,-0.74571985,-3.0,3.0,3.0,-3.0,-3.0,-1.5606983,-3.0,-3.0,0.9636639,-3.0,3.0,-0.6851817,-3.0,3.0,3.0,-3.0,-3.0,-1.5746809,-3.0,-3.0,0.9502018,-3.0
2025-06-06 10:51:15.291,0.043020234,-0.047487453,0.031740714,-0.024241086,0.04001142,-0.02754899,0.0,0.0,0.0,0.06842192,-0.02862989,-0.2364736,-0.09776199,0.09340993,0.60299706,-0.28184128,-0.110609435,-0.28254217,-0.31888244,0.06306639,0.09004854,-0.21780331,-0.038402505,0.030360738,-0.05501681,-0.034838084,-0.009041226,-0.0075580594,-0.03252952,-0.021116558,-0.013963632,-0.06255646,-0.03693602,0.036187638,3.0,-0.6851817,-3.0,3.0,3.0,-3.0,-3.0,-1.5746809,-3.0,-3.0,0.9502018,-3.0,3.0,-0.6795355,-3.0,3.0,3.0,-3.0,-3.0,-1.514728,-3.0,-3.0,1.0072191,-3.0
2025-06-06 10:51:15.307,0.017881049,0.050606605,-0.027622467,0.0147743765,0.096833296,-0.0023185667,0.0,0.0,0.0,0.06844579,-0.03731883,-0.23150657,-0.10727497,0.093468755,0.59927785,-0.2837115,-0.0920506,-0.2844066,-0.3237092,0.06477281,0.098376796,-0.20347051,-0.05971003,-0.059051193,0.018396005,0.024990791,0.046781793,0.03394777,-0.06463776,0.04071387,-0.026010718,-0.035992306,-0.024548754,-0.045750022,3.0,-0.6795355,-3.0,3.0,3.0,-3.0,-3.0,-1.514728,-3.0,-3.0,1.0072191,-3.0,3.0,-0.66145384,-3.0,3.0,3.0,-3.0,-3.0,-1.5559299,-3.0,-3.0,0.96004826,-3.0
2025-06-06 10:51:15.327,-0.0069784513,-0.0051008114,0.022193378,-0.02795037,0.04599308,-0.049417954,0.0,0.0,0.0,0.06850033,-0.027260624,-0.23912112,-0.09815844,0.09061782,0.5963366,-0.27686834,-0.10105627,-0.28134963,-0.32679242,0.07020521,0.09096855,-0.2108185,-0.045261968,-0.07178241,0.01593896,0.029843302,-0.031164818,0.06534454,-0.024914198,0.04867506,-0.004010618,0.060930092,-0.00090219907,0.061185155,3.0,-0.66145384,-3.0,3.0,3.0,-3.0,-3.0,-1.5559299,-3.0,-3.0,0.96004826,-3.0,3.0,-0.66935974,-3.0,3.0,3.0,-3.0,-3.0,-1.4998533,-3.0,-3.0,1.0290352,-3.0
2025-06-06 10:51:15.347,0.021911807,0.031093528,-0.012937797,0.023349134,0.09779286,0.020977607,0.0,0.0,0.0,0.06855738,-0.025288915,-0.24608535,-0.09064235,0.08555113,0.5917702,-0.27835453,-0.093501374,-0.27739072,-0.32742795,0.06186286,0.09183817,-0.21678157,-0.057414155,0.043297466,-0.05332643,-0.008853556,-0.058277823,0.07278364,-0.049345255,0.07732844,0.05959652,-0.060143694,0.029031906,0.04137239,3.0,-0.66935974,-3.0,3.0,3.0,-3.0,-3.0,-1.4998533,-3.0,-3.0,1.0290352,-3.0,3.0,-0.7206814,-3.0,3.0,3.0,-3.0,-3.0,-1.6407856,-3.0,-3.0,0.8833052,-3.0
2025-06-06 10:51:15.367,0.023163313,-0.054253712,0.008372051,-0.03573583,0.035313055,0.01926709,0.0,0.0,0.0,0.06863584,-0.039381936,-0.24650677,-0.1071383,0.089248694,0.60265577,-0.26930737,-0.10775667,-0.28141746,-0.3225821,0.07167263,0.10018279,-0.21968527,0.058884427,-0.04184491,-0.04402581,0.064700715,0.014780181,-0.05771866,0.020206014,-0.06701775,0.06959789,-0.054819126,0.029356329,-0.029553061,3.0,-0.7206814,-3.0,3.0,3.0,-3.0,-3.0,-1.6407856,-3.0,-3.0,0.8833052,-3.0,3.0,-0.60775477,-3.0,3.0,3.0,-3.0,-3.0,-1.4478015,-3.0,-3.0,1.0359296,-3.0
2025-06-06 10:51:15.391,-0.040634695,-0.0042711245,0.020278895,-0.012935947,0.089942984,0.0060980646,0.0,0.0,0.0,0.06869015,-0.03634041,-0.23805848,-0.10689322,0.09405107,0.59301734,-0.2891979,-0.09879266,-0.2753957,-0.3243942,0.07176221,0.09748074,-0.2018553,0.04467424,0.03205102,-0.039108064,-0.035755344,0.06780701,0.010483162,0.014468114,-0.051447853,-0.005643429,-0.056396086,-0.0035580148,0.042247258,3.0,-0.60775477,-3.0,3.0,3.0,-3.0,-3.0,-1.4478015,-3.0,-3.0,1.0359296,-3.0,3.0,-0.7184924,-3.0,3.0,3.0,-3.0,-3.0,-1.4735302,-3.0,-3.0,1.0660136,-3.0
2025-06-06 10:51:15.407,-0.027077826,0.02467422,-0.047018312,-0.05238258,0.03229264,0.0055412455,0.0,0.0,0.0,0.06874183,-0.036840033,-0.24170625,-0.09319875,0.09407169,0.5877527,-0.28765893,-0.096581616,-0.26912323,-0.3152731,0.07405874,0.100187145,-0.20825401,0.03345651,-0.07213473,-0.006286203,-0.0003838768,0.0743238,-0.006950042,-0.036778364,0.00812188,0.012718123,0.05229857,0.008432656,0.057830922,3.0,-0.7184924,-3.0,3.0,3.0,-3.0,-3.0,-1.4735302,-3.0,-3.0,1.0660136,-3.0,3.0,-0.5624539,-3.0,3.0,3.0,-3.0,-3.0,-1.4930094,-3.0,-3.0,1.0212984,-3.0
2025-06-06 10:51:15.427,-0.038425747,0.014899285,-0.017316861,0.025201296,0.0951493,-0.007070187,0.0,0.0,0.0,0.06886189,-0.024686286,-0.23044038,-0.09070454,0.10172251,0.59735715,-0.27264008,-0.10422898,-0.26788482,-0.31991705,0.07007374,0.09254423,-0.20446742,-0.06954077,0.01935801,0.03735768,0.04171032,-0.052452847,0.036836598,-0.051715355,0.07120821,0.051640384,0.03752641,-0.0099903075,-0.05829448,3.0,-0.5624539,-3.0,3.0,3.0,-3.0,-3.0,-1.4930094,-3.0,-3.0,1.0212984,-3.0,3.0,-0.730643,-3.0,3.0,3.0,-3.0,-3.0,-1.6077646,-3.0,-3.0,0.8663702,-3.0
2025-06-06 10:51:15.447,-0.025114546,-0.0068821977,-0.04173434,-0.04338303,0.047678936,0.028628197,0.0,0.0,0.0,0.06899936,-0.04029259,-0.2428258,-0.09813049,0.09278794,0.6047542,-0.28212595,-0.100101106,-0.26581538,-0.3096014,0.06254935,0.09531939,-0.21802641,-0.0019091762,-0.06302718,-0.05483919,0.05156284,-0.06986679,-0.06594385,-0.07333357,0.059619565,-0.035723474,-0.029285656,-0.05364046,0.06495204,3.0,-0.730643,-3.0,3.0,3.0,-3.0,-3.0,-1.6077646,-3.0,-3.0,0.8663702,-3.0,3.0,-0.45879528,-3.0,3.0,3.0,-3.0,-3.0,-1.5345572,-3.0,-3.0,0.93226033,-3.0
2025-06-06 10:51:15.467,-0.017218295,0.01652205,0.00944603,-0.051872287,0.06442577,-0.033520423,0.0,0.0,0.0,0.06906225,-0.03165655,-0.23964192,-0.10160366,0.088617116,0.5910665,-0.28687945,-0.107664034,-0.2797612,-0.32370248,0.06323305,0.10158079,-0.22007845,0.00066175405,0.06814244,-0.0004033237,-0.004816226,-0.014377238,0.05196716,-0.057480242,0.020519769,-0.056784384,0.022070387,-0.0069140834,0.056083698,3.0,-0.45879528,-3.0,3.0,3.0,-3.0,-3.0,-1.5345572,-3.0,-3.0,0.93226033,-3.0,3.0,-0.7310672,-3.0,3.0,3.0,-3.0,-3.0,-1.490411,-3.0,-3.0,0.9495658,-3.0
2025-06-06 10:51:15.490,-0.0420994,-0.01671296,-0.006085921,0.020802245,0.07551356,-0.013208843,0.0,0.0,0.0,0.06903841,-0.023952883,-0.24114732,-0.10615868,0.095517896,0.5942902,-0.27900654,-0.0952506,-0.26488084,-0.321159,0.071600534,0.09701256,-0.22003366,-0.021977497,0.07362955,0.054281887,-0.020218667,-0.0743952,-0.030808385,-0.064679675,0.00086479617,-0.012587366,-0.06311573,-0.020850364,0.035276968,3.0,-0.7310672,-3.0,3.0,3.0,-3.0,-3.0,-1.490411,-3.0,-3.0,0.9495658,-3.0,3.0,-0.6666172,-3.0,3.0,3.0,-3.0,-3.0,-1.5779277,-3.0,-3.0,0.9118876,-3.0
2025-06-06 10:51:15.508,0.039518066,-0.037172318,0.002502307,0.019631637,0.034782026,-0.049270723,0.0,0.0,0.0,0.06898411,-0.026447305,-0.23490414,-0.10003454,0.0976377,0.5919447,-0.27984506,-0.10059967,-0.26993307,-0.32016134,0.06361393,0.081883416,-0.21203771,-0.063523516,0.054830115,-0.032853793,0.009990853,0.026083969,0.023570564,-0.03139427,0.035601724,-0.051594947,0.04390493,-0.04975903,-0.028166922,3.0,-0.6666172,-3.0,3.0,3.0,-3.0,-3.0,-1.5779277,-3.0,-3.0,0.9118876,-3.0,3.0,-0.6985196,-3.0,3.0,3.0,-3.0,-3.0,-1.5470289,-3.0,-3.0,0.9234682,-3.0
2025-06-06 10:51:15.528,-0.033831682,-0.014253389,-0.0154808825,-0.009036949,0.02835537,0.013155376,0.0,0.0,0.0,0.068935744,-0.027084963,-0.23192954,-0.09647557,0.09887965,0.5994042,-0.290572,-0.09604901,-0.27291548,-0.32549858,0.0666548,0.09862203,-0.2146747,-0.05254921,0.01592777,-0.046767164,-0.048683006,-0.06543046,-0.0584438,0.025273738,-0.067006916,-0.008049989,0.04052222,-0.009014238,-0.040815994,3.0,-0.6985196,-3.0,3.0,3.0,-3.0,-3.0,-1.5470289,-3.0,-3.0,0.9234682,-3.0,3.0,-0.59480995,-3.0,3.0,3.0,-3.0,-3.0,-1.4996933,-3.0,-3.0,0.9421877,-3.0
2025-06-06 10:51:15.547,-0.022326585,-0.012966444,0.029871527,-0.033846244,0.106380366,0.012622292,0.0,0.0,0.0,0.06889424,-0.03346005,-0.24057357,-0.09950867,0.08814864,0.59432447,-0.28558263,-0.10509006,-0.28553492,-0.31478593,0.07279422,0.09270813,-0.21448338,-0.02494378,0.052914873,0.011119639,-0.058735974,-0.062435396,-0.012771588,0.019604905,0.077503175,0.051622987,-0.048816852,0.01091493,-0.042490344,3.0,-0.59480995,-3.0,3.0,3.0,-3.0,-3.0,-1.4996933,-3.0,-3.0,0.9421877,-3.0,3.0,-0.72123367,-3.0,3.0,3.0,-3.0,-3.0,-1.6037326,-3.0,-3.0,0.92317265,-3.0
2025-06-06 10:51:15.568,0.038699586,-0.002468648,-0.046169158,0.031753786,0.027743606,-0.048967406,0.0,0.0,0.0,0.06884856,-0.04103617,-0.23597012,-0.10060963,0.092559196,0.5920328,-0.27926362,-0.1043027,-0.28314596,-0.31024468,0.07989151,0.0893078,-0.1993405,-0.0702646,-0.065214306,-0.02075821,-0.06656867,-0.010422106,-0.073683605,-0.06819454,0.009735889,-0.031031642,0.006763496,-0.06603828,-0.031308636,3.0,-0.72123367,-3.0,3.0,3.0,-3.0,-3.0,-1.6037326,-3.0,-3.0,0.92317265,-3.0,3.0,-0.5315074,-3.0,3.0,3.0,-3.0,-3.0,-1.5272679,-3.0,-3.0,0.92316633,-3.0
2025-06-06 10:51:15.591,-0.009095839,0.0014063809,0.03531175,-0.0025309923,0.08121436,0.012864817,0.0,0.0,0.0,0.068825826,-0.029208327,-0.24644412,-0.11045317,0.09204797,0.59512514,-0.28720343,-0.10055651,-0.28316426,-0.32305053,0.064192094,0.093223155,-0.20357983,-0.057293154,-0.024247946,0.033942077,0.068491854,-0.058684036,0.042345326,-0.032083955,-0.027908592,0.05255357,0.07510674,0.042188983,0.073594,3.0,-0.5315074,-3.0,3.0,3.0,-3.0,-3.0,-1.5272679,-3.0,-3.0,0.92316633,-3.0,3.0,-0.7619427,-3.0,3.0,3.0,-3.0,-3.0,-1.510646,-3.0,-3.0,1.0063983,-3.0
2025-06-06 10:51:15.608,0.026612828,0.012986968,-0.03533766,-0.054504145,0.048089676,0.01635962,0.0,0.0,0.0,0.06877917,-0.038482644,-0.24279693,-0.10413694,0.09980929,0.58729285,-0.2748663,-0.09517778,-0.26822516,-0.320381,0.06610259,0.08465707,-0.20376773,-0.05178645,-0.04279497,0.0163672,-0.02384262,-0.054455414,-0.0021013385,0.057811808,0.051271565,-0.070017695,-0.04887231,0.06558133,-0.028158918,3.0,-0.7619427,-3.0,3.0,3.0,-3.0,-3.0,-1.510646,-3.0,-3.0,1.0063983,-3.0,3.0,-0.5688769,-3.0,3.0,3.0,-3.0,-3.0,-1.5452241,-3.0,-3.0,0.92468923,-3.0
2025-06-06 10:51:15.629,-0.03646376,0.018815031,0.01516539,-0.018858813,0.11513158,0.03752144,0.0,0.0,0.0,0.06877432,-0.025995351,-0.24102215,-0.10281021,0.09606365,0.59293455,-0.2740856,-0.10492178,-0.27353448,-0.31979588,0.0657429,0.09101482,-0.21379064,-0.037501246,0.047615048,-0.053732134,0.051064353,0.060010165,-0.07137058,0.009333838,-0.05124024,-0.0016739906,0.06710683,-0.03855899,-0.047643524,3.0,-0.5688769,-3.0,3.0,3.0,-3.0,-3.0,-1.5452241,-3.0,-3.0,0.92468923,-3.0,3.0,-0.7385447,-3.0,3.0,3.0,-3.0,-3.0,-1.5181904,-3.0,-3.0,0.94918984,-3.0
2025-06-06 10:51:15.649,-0.03194741,-0.0337939,0.020853972,0.037537225,0.05100988,-0.013888256,0.0,0.0,0.0,0.068766065,-0.025961578,-0.23725197,-0.09528023,0.10054763,0.59761596,-0.27733973,-0.10463279,-0.268688,-0.32794032,0.063865885,0.08916366,-0.2022418,0.057376888,0.013286353,-0.04387961,0.042893343,-0.06948264,-0.015682263,0.03457008,0.03800754,-0.025064772,-0.06776276,0.023355419,-0.06745799,3.0,-0.7385447,-3.0,3.0,3.0,-3.0,-3.0,-1.5181904,-3.0,-3.0,0.94918984,-3.0,3.0,-0.6139681,-3.0,3.0,3.0,-3.0,-3.0,-1.5511044,-3.0,-3.0,0.98882705,-3.0
2025-06-06 10:51:15.668,-0.04400648,-0.03154145,-0.015389626,-0.0151626095,0.08360003,0.044933036,0.0,0.0,0.0,0.06875163,-0.025692584,-0.23218292,-0.10302407,0.08573366,0.5842362,-0.27900657,-0.09466686,-0.28027004,-0.32123387,0.06097313,0.08302295,-0.20857386,0.021488585,-0.041157637,0.05468819,-0.042262327,0.048966095,0.06438319,0.040205114,0.057576127,0.007944235,0.06981555,0.060123168,-0.06625677,3.0,-0.6139681,-3.0,3.0,3.0,-3.0,-3.0,-1.5511044,-3.0,-3.0,0.98882705,-3.0,3.0,-0.69216996,-3.0,3.0,3.0,-3.0,-3.0,-1.5067097,-3.0,-3.0,0.9217873,-3.0
2025-06-06 10:51:15.690,0.00035186426,-0.017478919,-0.013635212,0.014592495,0.11592897,-0.045765653,0.0,0.0,0.0,0.06877498,-0.027043836,-0.23522979,-0.09745026,0.08972165,0.5947047,-0.27764216,-0.097761944,-0.27291727,-0.32533178,0.072462045,0.093433835,-0.20617321,0.0648096,0.07187024,0.04726038,0.0689016,0.053717665,-0.050873004,0.06372759,-0.06418245,-0.07182206,-0.048407584,-0.07421549,0.0106177265,3.0,-0.69216996,-3.0,3.0,3.0,-3.0,-3.0,-1.5067097,-3.0,-3.0,0.9217873,-3.0,3.0,-0.61293906,-3.0,3.0,3.0,-3.0,-3.0,-1.4837291,-3.0,-3.0,1.0221742,-3.0
2025-06-06 10:51:15.708,-0.008603718,-0.014199096,-0.034782004,-0.052739717,0.03516766,0.015962852,0.0,0.0,0.0,0.0687767,-0.038493246,-0.23071234,-0.10164021,0.09749868,0.594909,-0.27305675,-0.10624481,-0.2803062,-0.31547076,0.060873173,0.098195024,-0.20797819,-0.013643052,-0.05860321,0.04940612,0.016737875,0.04052075,-0.062102478,-0.011259924,-0.06312664,-0.06875963,-0.06532128,-0.0004665563,0.07221699,3.0,-0.61293906,-3.0,3.0,3.0,-3.0,-3.0,-1.4837291,-3.0,-3.0,1.0221742,-3.0,3.0,-0.6094863,-3.0,3.0,3.0,-3.0,-3.0,-1.4412313,-3.0,-3.0,0.98269314,-3.0
2025-06-06 10:51:15.729,-0.02460025,0.019830894,0.025961028,-0.022287477,0.06837977,0.0006296942,0.0,0.0,0.0,0.068800636,-0.032994386,-0.23295452,-0.09963292,0.09989209,0.5930781,-0.28279752,-0.103620954,-0.27351636,-0.31346768,0.07925328,0.09491587,-0.2097629,-0.037184834,-0.02054913,0.03616263,-0.050614424,-0.07118964,0.017306905,0.035770167,0.0512047,0.04247248,0.021526447,-0.060050316,-0.034081466,3.0,-0.6094863,-3.0,3.0,3.0,-3.0,-3.0,-1.4412313,-3.0,-3.0,0.98269314,-3.0,3.0,-0.6938669,-3.0,3.0,3.0,-3.0,-3.0,-1.5537151,-3.0,-3.0,1.0114001,-3.0
2025-06-06 10:51:15.748,-0.006161998,0.030953106,-0.00871586,-0.034655545,0.12043186,0.03968173,0.0,0.0,0.0,0.068815336,-0.037277456,-0.23291297,-0.09365569,0.09146753,0.59503835,-0.28390604,-0.10800478,-0.2669335,-0.32828858,0.07472618,0.09002368,-0.21618626,-0.049667586,-0.012472607,0.017225277,-0.040054746,-0.046369456,0.0040817517,-0.009556596,0.03259738,-0.0044435933,-0.020710863,0.018886086,-0.05260554,3.0,-0.6938669,-3.0,3.0,3.0,-3.0,-3.0,-1.5537151,-3.0,-3.0,1.0114001,-3.0,3.0,-0.64041173,-3.0,3.0,3.0,-3.0,-3.0,-1.5602747,-3.0,-3.0,0.93642527,-3.0
2025-06-06 10:51:15.771,-0.018644292,-0.022664644,-0.018312672,-0.020946514,0.1195714,0.0136244595,0.0,0.0,0.0,0.06886715,-0.025017435,-0.23138207,-0.09597002,0.10464145,0.59003216,-0.2781869,-0.10048515,-0.26462108,-0.32507297,0.075254634,0.10222036,-0.21786994,0.018072836,0.01128563,0.06063962,-0.020740002,0.028524488,-0.023968292,-0.0111632785,-0.0075025605,0.014104192,-0.07111163,0.041116368,-0.062345278,3.0,-0.64041173,-3.0,3.0,3.0,-3.0,-3.0,-1.5602747,-3.0,-3.0,0.93642527,-3.0,3.0,-0.6317093,-3.0,3.0,3.0,-3.0,-3.0,-1.5395674,-3.0,-3.0,0.9195103,-3.0
2025-06-06 10:51:15.789,-0.0065020607,0.0062403483,-0.03648043,0.0076510534,0.06593012,-0.041007865,0.0,0.0,0.0,0.06890689,-0.040620666,-0.24116175,-0.10741566,0.086819604,0.60211575,-0.284666,-0.10934938,-0.26467997,-0.3145092,0.08037736,0.094041854,-0.21709727,-0.055602368,-0.012332059,0.0585871,0.06654515,0.062167406,-0.02052423,-0.0056642103,0.02717139,0.067020796,0.034648135,0.022868702,0.05170429,3.0,-0.6317093,-3.0,3.0,3.0,-3.0,-3.0,-1.5395674,-3.0,-3.0,0.9195103,-3.0,3.0,-0.669082,-3.0,3.0,3.0,-3.0,-3.0,-1.5798546,-3.0,-3.0,0.91211057,-3.0
2025-06-06 10:51:15.809,-0.008789738,0.0038553958,0.0031096374,-0.050734416,0.08152259,0.014424275,0.0,0.0,0.0,0.0688905,-0.034382366,-0.24974467,-0.10359564,0.10169594,0.6035862,-0.29022664,-0.108949,-0.28273043,-0.31794682,0.06604329,0.08847541,-0.21103492,0.060557183,-0.033867817,-0.045857057,-0.0128997,0.07255005,0.027325021,-0.0029315618,-0.020629885,-0.017972099,-0.014897175,0.030725796,0.046598267,3.0,-0.669082,-3.0,3.0,3.0,-3.0,-3.0,-1.5798546,-3.0,-3.0,0.91211057,-3.0,3.0,-0.6197422,-3.0,3.0,3.0,-3.0,-3.0,-1.4659443,-3.0,-3.0,1.0429549,-3.0
2025-06-06 10:51:15.828,-0.022551557,0.051973503,0.034158017,0.0005362927,0.10922261,-0.007843689,0.0,0.0,0.0,0.06884766,-0.031847477,-0.23330995,-0.100171074,0.09783582,0.6012098,-0.2711219,-0.10628921,-0.27611428,-0.31125978,0.068544775,0.092133544,-0.21638915,0.05952459,-0.033118546,0.061881308,-0.057123497,0.050912093,0.03762399,-0.022590615,-0.007461097,0.012044011,-0.015833497,0.054708146,-0.02802442,3.0,-0.6197422,-3.0,3.0,3.0,-3.0,-3.0,-1.4659443,-3.0,-3.0,1.0429549,-3.0,3.0,-0.7513135,-3.0,3.0,3.0,-3.0,-3.0,-1.527934,-3.0,-3.0,1.0589834,-3.0
2025-06-06 10:51:15.849,-0.055849027,-0.048136685,-0.024080968,-0.00037695357,0.0752333,-0.03763103,0.0,0.0,0.0,0.06884383,-0.02946141,-0.2337337,-0.10862908,0.09687839,0.59152883,-0.2807474,-0.109934114,-0.27051482,-0.3289914,0.06413561,0.09617877,-0.21363004,0.00214217,0.03882984,-0.03863944,0.003453978,0.049950566,-0.039528854,-0.039356697,-0.022839962,0.06555228,0.060840268,0.06769173,-0.04417172,3.0,-0.7513135,-3.0,3.0,3.0,-3.0,-3.0,-1.527934,-3.0,-3.0,1.0589834,-3.0,3.0,-0.6453331,-3.0,3.0,3.0,-3.0,-3.0,-1.5568465,-3.0,-3.0,0.9156118,-3.0
2025-06-06 10:51:15.872,-0.00258685,-0.010462885,0.046097673,-0.057621308,0.048502035,0.021019869,0.0,0.0,0.0,0.068935245,-0.02993383,-0.23095489,-0.092173964,0.10209956,0.5939805,-0.28777665,-0.099273585,-0.2779608,-0.32829404,0.07547711,0.0899613,-0.21899284,0.07366657,-0.019210232,0.049843002,0.0088194655,-0.056172267,0.04373937,0.038714986,0.028270595,0.042735066,0.04036205,-0.07114902,-0.05147038,3.0,-0.6453331,-3.0,3.0,3.0,-3.0,-3.0,-1.5568465,-3.0,-3.0,0.9156118,-3.0,3.0,-0.64525175,-3.0,3.0,3.0,-3.0,-3.0,-1.4730228,-3.0,-3.0,1.0852417,-3.0
2025-06-06 10:51:15.889,0.023760986,-0.022243582,-0.03183007,0.016379748,0.06419675,-0.0055422434,0.0,0.0,0.0,0.06900197,-0.04046388,-0.23921207,-0.09222433,0.08772987,0.5966001,-0.28162995,-0.10914818,-0.28176236,-0.3291087,0.067802005,0.09601253,-0.22040536,0.059342805,-0.042992953,-0.0025961136,-0.058391184,0.053886343,-0.028343854,0.052778263,0.036231615,0.033461016,0.07032024,0.0042198086,-0.02864183,3.0,-0.64525175,-3.0,3.0,3.0,-3.0,-3.0,-1.4730228,-3.0,-3.0,1.0852417,-3.0,3.0,-0.6208889,-3.0,3.0,3.0,-3.0,-3.0,-1.5053546,-3.0,-3.0,1.0074652,-3.0
2025-06-06 10:51:15.909,-0.034831434,0.032067884,0.00034346024,0.032755252,0.08877787,0.0141322855,0.0,0.0,0.0,0.06909635,-0.025069688,-0.24921273,-0.106351316,0.09259243,0.5956746,-0.27677917,-0.10606298,-0.27058023,-0.32060567,0.08054278,0.0926185,-0.21986347,-0.010287099,-0.058021877,-0.018567275,0.06565608,0.06397271,-0.031654418,0.044102855,0.02845242,-0.022722235,0.06711378,0.0677007,-0.038692493,3.0,-0.6208889,-3.0,3.0,3.0,-3.0,-3.0,-1.5053546,-3.0,-3.0,1.0074652,-3.0,3.0,-0.6976893,-3.0,3.0,3.0,-3.0,-3.0,-1.525907,-3.0,-3.0,0.99434,-3.0
2025-06-06 10:51:15.929,0.013592377,0.0051481505,-0.025809973,-0.04355927,0.045848876,-0.03173581,0.0,0.0,0.0,0.06919855,-0.026459498,-0.23741533,-0.105182,0.10448615,0.60137,-0.283407,-0.10774264,-0.27751893,-0.31918395,0.074180655,0.09928398,-0.20496936,-0.030301856,0.048079662,0.014003112,-0.052368194,0.026055856,-0.071056545,0.028818289,0.04726584,0.046175744,0.0072601247,0.059853833,0.047251612,3.0,-0.6976893,-3.0,3.0,3.0,-3.0,-3.0,-1.525907,-3.0,-3.0,0.99434,-3.0,3.0,-0.65173393,-3.0,3.0,3.0,-3.0,-3.0,-1.5976893,-3.0,-3.0,0.8874751,-3.0
2025-06-06 10:51:15.950,0.062423427,0.027045216,0.024089528,-0.028489832,0.117768824,-0.026752502,0.0,0.0,0.0,0.06928613,-0.03426253,-0.24146947,-0.10233668,0.0983007,0.60326034,-0.2798541,-0.09951168,-0.27750877,-0.3096219,0.06389169,0.09261497,-0.22075528,-0.05923541,0.018802293,0.068115026,0.007043385,0.0057254215,0.026113339,-0.0369322,0.03701537,0.06294132,-0.009788014,-0.052376594,0.04786776,3.0,-0.65173393,-3.0,3.0,3.0,-3.0,-3.0,-1.5976893,-3.0,-3.0,0.8874751,-3.0,3.0,-0.7300161,-3.0,3.0,3.0,-3.0,-3.0,-1.584592,-3.0,-3.0,0.9582884,-3.0
2025-06-06 10:51:15.973,0.0501801,-0.050942745,-0.007697505,-0.0047431174,0.06254271,-0.015016009,0.0,0.0,0.0,0.06931311,-0.025318995,-0.23839585,-0.097219914,0.08702948,0.6010835,-0.27142385,-0.102838464,-0.26922533,-0.31616536,0.07627359,0.0917084,-0.20674333,-0.040106274,-0.0297118,0.031745557,0.012148132,0.032089557,0.05143757,-0.01582717,0.008073113,-0.0076654605,-0.058810946,0.0115630515,0.044036377,3.0,-0.7300161,-3.0,3.0,3.0,-3.0,-3.0,-1.584592,-3.0,-3.0,0.9582884,-3.0,3.0,-0.67277735,-3.0,3.0,3.0,-3.0,-3.0,-1.5193859,-3.0,-3.0,0.9849773,-3.0
2025-06-06 10:51:15.989,0.008824121,0.016077781,0.018732069,0.010334038,0.10590155,-0.016078914,0.0,0.0,0.0,0.069337696,-0.030650651,-0.23739965,-0.10608839,0.08449552,0.6029872,-0.2800497,-0.09664984,-0.28357184,-0.32359624,0.06331564,0.09647636,-0.21380205,-0.05548915,0.039746087,0.012755321,0.0640718,0.048482858,-0.06777315,0.015779417,-0.06925205,0.039469566,-0.046443857,-0.0677089,0.014932766,3.0,-0.67277735,-3.0,3.0,3.0,-3.0,-3.0,-1.5193859,-3.0,-3.0,0.9849773,-3.0,3.0,-0.73499566,-3.0,3.0,3.0,-3.0,-3.0,-1.5260824,-3.0,-3.0,0.9963259,-3.0
2025-06-06 10:51:16.009,-0.024261609,0.039540045,-0.018269865,0.035648886,0.11267493,0.0027497262,0.0,0.0,0.0,0.06938972,-0.03767901,-0.25032136,-0.098185726,0.08891334,0.59934765,-0.27335966,-0.111478396,-0.28352904,-0.31888103,0.071868524,0.08536366,-0.20933712,-0.07339374,0.0697451,0.006696241,-0.0014002376,-0.0128380135,0.044702724,-0.051204175,-0.065411374,-0.06884576,0.068497375,-0.06668314,-0.028473414,3.0,-0.73499566,-3.0,3.0,3.0,-3.0,-3.0,-1.5260824,-3.0,-3.0,0.9963259,-3.0,3.0,-0.73163885,-3.0,3.0,3.0,-3.0,-3.0,-1.5407501,-3.0,-3.0,0.96677357,-3.0
2025-06-06 10:51:16.029,0.043749444,-0.003959321,-0.009434577,0.024822298,0.08894889,0.04034987,0.0,0.0,0.0,0.06947896,-0.038401276,-0.2488666,-0.106310315,0.086040296,0.5912433,-0.28199443,-0.10426427,-0.2712252,-0.315804,0.08210691,0.08649959,-0.20201345,0.052843645,0.031166617,-0.032565523,0.034129914,-0.028919099,-0.046351198,0.008997305,0.0028073294,-0.017939426,0.04840221,0.04946173,0.067918964,3.0,-0.73163885,-3.0,3.0,3.0,-3.0,-3.0,-1.5407501,-3.0,-3.0,0.96677357,-3.0,3.0,-0.6374277,-3.0,3.0,3.0,-3.0,-3.0,-1.5261288,-3.0,-3.0,1.0043343,-3.0
2025-06-06 10:51:16.050,-0.021619344,0.026576458,0.01176543,0.0062506003,0.10726356,-0.027149161,0.0,0.0,0.0,0.069594696,-0.038544927,-0.24124558,-0.106351785,0.08362468,0.59890705,-0.27656803,-0.09598037,-0.27322042,-0.32603514,0.071474046,0.09042253,-0.21031694,-0.068296894,-0.007152223,-0.056896515,-0.032070357,0.025086347,-0.0052296333,-0.055345677,0.03410182,0.025331216,0.06284371,-0.00080848276,-0.05468471,3.0,-0.6374277,-3.0,3.0,3.0,-3.0,-3.0,-1.5261288,-3.0,-3.0,1.0043343,-3.0,3.0,-0.7444968,-3.0,3.0,3.0,-3.0,-3.0,-1.5779243,-3.0,-3.0,0.95440775,-3.0
2025-06-06 10:51:16.073,-0.0396135,-0.017820455,-0.001068906,0.021961555,0.11509685,-0.029855069,0.0,0.0,0.0,0.069730386,-0.045166638,-0.23988147,-0.09506634,0.08558944,0.594778,-0.28481817,-0.10284387,-0.27968565,-0.31811064,0.07953743,0.10054066,-0.21624744,0.037789572,0.03187562,-0.01642771,0.036922995,-0.0069642435,0.05042612,-0.027370391,0.06780638,-0.014381217,0.027150795,-0.02929296,-0.052840307,3.0,-0.7444968,-3.0,3.0,3.0,-3.0,-3.0,-1.5779243,-3.0,-3.0,0.95440775,-3.0,3.0,-0.65065795,-3.0,3.0,3.0,-3.0,-3.0,-1.5513481,-3.0,-3.0,0.98885435,-3.0
2025-06-06 10:51:16.090,-0.015429675,0.022459686,-0.034951217,0.014747008,0.07011282,0.0077013434,0.0,0.0,0.0,0.06987491,-0.036925476,-0.24223813,-0.09007171,0.08965855,0.5966982,-0.27774757,-0.099168174,-0.2742767,-0.31204322,0.07706135,0.085316904,-0.20243624,0.016987327,-0.04129496,-0.001119547,-0.0395808,0.04473035,-0.071330965,-0.06362134,-0.041008648,0.059544593,-0.022510363,-0.037400417,-0.0018723862,3.0,-0.65065795,-3.0,3.0,3.0,-3.0,-3.0,-1.5513481,-3.0,-3.0,0.98885435,-3.0,3.0,-0.6220558,-3.0,3.0,3.0,-3.0,-3.0,-1.5313133,-3.0,-3.0,0.963124,-3.0
2025-06-06 10:51:16.110,-0.006817884,0.03330056,-0.043099362,0.013644582,0.10919122,-0.044067953,0.0,0.0,0.0,0.0700301,-0.039264034,-0.2484294,-0.09704987,0.102428466,0.60188997,-0.27297738,-0.095377736,-0.2803524,-0.32853624,0.066291265,0.09739648,-0.20921238,0.049781084,-0.006224819,0.04184662,0.049969796,0.060399547,-0.060650457,-0.0687946,-0.07054512,0.055114873,-0.030141063,-0.0012821747,-0.036710445,3.0,-0.6220558,-3.0,3.0,3.0,-3.0,-3.0,-1.5313133,-3.0,-3.0,0.963124,-3.0,3.0,-0.6189388,-3.0,3.0,3.0,-3.0,-3.0,-1.5403492,-3.0,-3.0,0.95581406,-3.0
2025-06-06 10:51:16.130,0.011614579,0.025658792,0.03544958,-0.00019555594,0.113094,-0.049134992,0.0,0.0,0.0,0.07015377,-0.024904428,-0.23887758,-0.101899706,0.08615467,0.6021189,-0.28359503,-0.09918554,-0.28206748,-0.3109179,0.07677673,0.08707361,-0.21735619,-0.04060826,-0.017422574,-0.03424477,-0.014354917,0.006841392,0.055743758,0.046690855,-0.0050912923,-0.074169375,-0.045618806,-0.030667901,0.031882964,3.0,-0.6189388,-3.0,3.0,3.0,-3.0,-3.0,-1.5403492,-3.0,-3.0,0.95581406,-3.0,3.0,-0.6754434,-3.0,3.0,3.0,-3.0,-3.0,-1.503118,-3.0,-3.0,1.0747347,-3.0
2025-06-06 10:51:16.150,-0.051087853,-0.028576363,-0.009293535,0.02750399,0.12244526,-0.03368993,0.0,0.0,0.0,0.07022662,-0.041044176,-0.2516937,-0.10422509,0.09623412,0.59546846,-0.27240133,-0.104347974,-0.27668735,-0.3235367,0.07076731,0.08860149,-0.2208271,-0.07116382,0.059599906,-0.0054238504,0.034587983,-0.021559779,-0.06363546,-0.008631212,3.449487e-05,-0.061361607,-0.020115582,-0.027123353,0.04231018,3.0,-0.6754434,-3.0,3.0,3.0,-3.0,-3.0,-1.503118,-3.0,-3.0,1.0747347,-3.0,3.0,-0.70308644,-3.0,3.0,3.0,-3.0,-3.0,-1.5428414,-3.0,-3.0,0.9284393,-3.0
2025-06-06 10:51:16.172,0.0045175413,0.024721622,-0.037321437,-0.026220804,0.07131009,-0.022841562,0.0,0.0,0.0,0.07034519,-0.041279014,-0.25380778,-0.0911381,0.09200126,0.5866999,-0.28865847,-0.10859205,-0.28095067,-0.31398416,0.07590755,0.10253152,-0.20709196,0.033861093,0.036090344,0.022211317,-0.046275597,0.0154662365,-0.06368258,0.010550494,-0.008959798,-0.005107672,-0.027845982,-0.01884572,0.07013869,3.0,-0.70308644,-3.0,3.0,3.0,-3.0,-3.0,-1.5428414,-3.0,-3.0,0.9284393,-3.0,3.0,-0.57600975,-3.0,3.0,3.0,-3.0,-3.0,-1.5328578,-3.0,-3.0,0.96316344,-3.0
2025-06-06 10:51:16.190,-0.04073188,0.04685429,-0.027744245,-0.02798837,0.05439906,0.042382292,0.0,0.0,0.0,0.070443526,-0.036354568,-0.23978329,-0.10117082,0.09927471,0.5925345,-0.28067628,-0.107962444,-0.2678193,-0.31370074,0.071674205,0.09265947,-0.20993017,-0.06244437,-0.05892874,0.027782334,0.057175282,-0.002029022,0.06021623,-0.002579721,0.011452396,0.024273844,-0.039289996,-0.06680432,-0.0628768,3.0,-0.57600975,-3.0,3.0,3.0,-3.0,-3.0,-1.5328578,-3.0,-3.0,0.96316344,-3.0,3.0,-0.6516254,-3.0,3.0,3.0,-3.0,-3.0,-1.5313152,-3.0,-3.0,0.9469132,-3.0
2025-06-06 10:51:16.210,-0.0036702834,0.03069884,0.046078373,0.004232111,0.11976714,0.034595985,0.0,0.0,0.0,0.07048504,-0.02907635,-0.24414004,-0.111851476,0.09742843,0.58504015,-0.28978613,-0.105834015,-0.27718967,-0.32692206,0.07074664,0.0924361,-0.20582563,0.035917465,-0.046414856,-0.06222269,0.07278819,-0.06701139,-0.0030963863,-0.021049647,-0.057173554,-0.060786337,-0.030619947,-0.052766226,0.02815262,3.0,-0.6516254,-3.0,3.0,3.0,-3.0,-3.0,-1.5313152,-3.0,-3.0,0.9469132,-3.0,3.0,-0.61177766,-3.0,3.0,3.0,-3.0,-3.0,-1.4422609,-3.0,-3.0,1.1293081,-3.0
2025-06-06 10:51:16.306,-0.060892217,0.024700934,-0.033250824,0.03559601,0.024993462,-0.013962633,0.0,0.0,0.0,0.07047824,-0.030023353,-0.23536284,-0.11082298,0.08939672,0.5877303,-0.27704352,-0.11008916,-0.27017444,-0.32818815,0.08318259,0.09203183,-0.21882044,0.03139545,-0.060296036,0.07574993,-0.011625197,0.0747642,0.017184958,-0.003075881,-0.005046014,0.0054382547,-0.0064374097,0.07114642,0.04395002,3.0,-0.61177766,-3.0,3.0,3.0,-3.0,-3.0,-1.4422609,-3.0,-3.0,1.1293081,-3.0,3.0,-0.6897354,-3.0,3.0,3.0,-3.0,-3.0,-1.4992077,-3.0,-3.0,0.981921,-3.0
2025-06-06 10:51:16.329,0.0054840664,0.038057864,-0.022200827,-0.040462174,0.025950877,-0.03133648,0.0,0.0,0.0,0.07053906,-0.030115727,-0.24869429,-0.09851507,0.10209543,0.60312694,-0.2892342,-0.105045445,-0.26515642,-0.3293164,0.07200302,0.1039235,-0.21307321,0.06501107,-0.055608675,0.051874395,0.015289888,-0.029446224,0.0682833,-0.01597622,-0.048231293,0.062670246,-0.041714743,0.050364893,0.055177588,3.0,-0.6897354,-3.0,3.0,3.0,-3.0,-3.0,-1.4992077,-3.0,-3.0,0.981921,-3.0,3.0,-0.57575834,-3.0,3.0,3.0,-3.0,-3.0,-1.4912993,-3.0,-3.0,1.0580224,-3.0
2025-06-06 10:51:16.383,-0.02640505,0.05176302,-0.042825393,0.01630683,0.063405134,-0.039240185,0.0,0.0,0.0,0.0705991,-0.03647995,-0.2344538,-0.097284645,0.0855166,0.6054276,-0.27558684,-0.094849125,-0.2693581,-0.3293509,0.07060858,0.09255604,-0.20723592,-0.01739335,-0.000837193,0.0128417,-0.049581133,0.0266041,0.051286016,0.003800161,0.07058279,0.058366966,0.0046557337,-0.0060061035,-0.05504463,3.0,-0.57575834,-3.0,3.0,3.0,-3.0,-3.0,-1.4912993,-3.0,-3.0,1.0580224,-3.0,3.0,-0.6944973,-3.0,3.0,3.0,-3.0,-3.0,-1.5953616,-3.0,-3.0,0.8975794,-3.0
2025-06-06 10:51:16.406,-0.013404622,0.016848981,-0.045573868,0.0014765845,0.1151703,0.040233094,0.0,0.0,0.0,0.070649825,-0.029385995,-0.23573548,-0.10634242,0.087878324,0.60609674,-0.28395644,-0.09943524,-0.27116653,-0.31508625,0.07531911,0.09447887,-0.21563438,0.064321466,-0.022147458,0.017567744,0.024807433,0.0017584972,-0.030859442,0.013627508,0.055379186,-0.030261893,-0.063527375,-0.06904371,0.032771707,3.0,-0.6944973,-3.0,3.0,3.0,-3.0,-3.0,-1.5953616,-3.0,-3.0,0.8975794,-3.0,3.0,-0.49692687,-3.0,3.0,3.0,-3.0,-3.0,-1.5324919,-3.0,-3.0,0.948014,-3.0
2025-06-06 10:51:16.423,0.041464668,0.024375012,0.050752416,0.012868975,0.11922817,-0.049463946,0.0,0.0,0.0,0.07063289,-0.041444525,-0.24815413,-0.1036177,0.09426671,0.60475665,-0.27814478,-0.09876352,-0.26829794,-0.3284039,0.08332412,0.10608208,-0.21223623,-0.01662352,-0.061406665,0.04514361,-0.05492657,-0.07451314,0.006320106,-0.027153937,-0.033555266,-0.05292044,0.02437436,-0.020433672,-0.00050921517,3.0,-0.49692687,-3.0,3.0,3.0,-3.0,-3.0,-1.5324919,-3.0,-3.0,0.948014,-3.0,3.0,-0.727636,-3.0,3.0,3.0,-3.0,-3.0,-1.4522878,-3.0,-3.0,1.1351675,-3.0
2025-06-06 10:51:16.443,0.024887191,-0.008330471,0.043869138,0.03757538,0.025539123,0.015128392,0.0,0.0,0.0,0.070530936,-0.03215596,-0.24373959,-0.10633563,0.0967985,0.60158074,-0.28648785,-0.09726151,-0.2788749,-0.3278428,0.07649743,0.10041904,-0.21321326,-0.01227839,0.024122303,-0.001920614,-0.056944326,0.0749543,-0.036854837,-0.040112223,-0.001975093,-0.0492963,0.055537093,0.058149002,0.010358959,3.0,-0.727636,-3.0,3.0,3.0,-3.0,-3.0,-1.4522878,-3.0,-3.0,1.1351675,-3.0,3.0,-0.80809104,-3.0,3.0,3.0,-3.0,-3.0,-1.5066124,-3.0,-3.0,1.066718,-3.0
2025-06-06 10:51:16.463,0.0060766535,0.005275016,-0.02167887,-0.02041492,0.07529769,-0.036416013,0.0,0.0,0.0,0.07050871,-0.03332863,-0.24294992,-0.099080235,0.093966536,0.60143965,-0.28782618,-0.099890575,-0.27304143,-0.3293211,0.06399464,0.093016095,-0.22376609,-0.04189925,0.07295487,-0.05944069,-0.07237439,-0.042891733,0.044150002,0.023317898,0.07239027,-0.024200287,-0.06537523,0.07622376,-0.015836064,3.0,-0.80809104,-3.0,3.0,3.0,-3.0,-3.0,-1.5066124,-3.0,-3.0,1.066718,-3.0,3.0,-0.6268113,-3.0,3.0,3.0,-3.0,-3.0,-1.621148,-3.0,-3.0,0.8962768,-3.0
2025-06-06 10:51:16.483,0.050608717,-0.008374594,-0.03069032,0.024895145,0.07792119,-0.010417547,0.0,0.0,0.0,0.07060362,-0.030641558,-0.23830205,-0.103255026,0.09418813,0.5937456,-0.2700306,-0.10188646,-0.26512134,-0.31593958,0.075539835,0.10845974,-0.21156733,-0.012981479,0.073557965,-0.029952409,-0.040250167,-0.026148215,0.00034815667,-0.05110053,0.041232146,0.028203774,0.047369733,-0.018355886,0.029810755,3.0,-0.6268113,-3.0,3.0,3.0,-3.0,-3.0,-1.621148,-3.0,-3.0,0.8962768,-3.0,3.0,-0.6646962,-3.0,3.0,3.0,-3.0,-3.0,-1.5814239,-3.0,-3.0,0.8832592,-3.0
2025-06-06 10:51:16.506,-0.019605491,-0.027506527,0.006302729,-0.05163464,0.05817776,0.03812024,0.0,0.0,0.0,0.07065115,-0.040108055,-0.23671447,-0.09389556,0.103270546,0.59183633,-0.27590528,-0.10084668,-0.28361276,-0.3283648,0.065976195,0.08839476,-0.20679016,-0.014109177,-0.05301886,0.028252237,-0.041228518,0.0038320015,0.059806436,0.044260487,-0.07671099,0.03962081,-0.040977176,-0.011622998,0.04814698,3.0,-0.6646962,-3.0,3.0,3.0,-3.0,-3.0,-1.5814239,-3.0,-3.0,0.8832592,-3.0,3.0,-0.6495519,-3.0,3.0,3.0,-3.0,-3.0,-1.4450493,-3.0,-3.0,1.0092181,-3.0
2025-06-06 10:51:16.524,0.02371166,-0.0025551931,-0.0015189421,-0.032849193,0.066738434,-0.012856348,0.0,0.0,0.0,0.070601076,-0.04059116,-0.23240621,-0.09393566,0.096991204,0.60442615,-0.28468144,-0.10391572,-0.28194535,-0.31401256,0.07439713,0.09052897,-0.21740828,-2.2216725e-05,-0.012377691,-0.03526891,-0.041451823,-0.06657807,0.04615773,0.004138557,0.02383988,0.00031059553,-0.06657624,0.06516958,0.036056653,3.0,-0.6495519,-3.0,3.0,3.0,-3.0,-3.0,-1.4450493,-3.0,-3.0,1.0092181,-3.0,3.0,-0.63238275,-3.0,3.0,3.0,-3.0,-3.0,-1.5776454,-3.0,-3.0,0.99735194,-3.0
2025-06-06 10:51:16.544,0.0098349415,0.04858597,-0.04903457,-0.0059321616,0.09731603,-0.039057188,0.0,0.0,0.0,0.07054655,-0.036903847,-0.2469817,-0.10564946,0.09447481,0.6019246,-0.27811036,-0.10638453,-0.26900202,-0.327915,0.08000706,0.08860191,-0.21321426,0.006699858,0.050224952,-0.016654896,-0.01963932,0.03968743,0.037599005,0.04633088,-0.07133137,-0.042821866,-0.04022876,0.038340703,0.015188826,3.0,-0.63238275,-3.0,3.0,3.0,-3.0,-3.0,-1.5776454,-3.0,-3.0,0.99735194,-3.0,3.0,-0.63208044,-3.0,3.0,3.0,-3.0,-3.0,-1.5178717,-3.0,-3.0,0.95681983,-3.0
2025-06-06 10:51:16.564,0.048900668,0.022394102,-0.0133891385,0.0071590077,0.02479293,-0.039036475,0.0,0.0,0.0,0.07053796,-0.04557332,-0.23894674,-0.107398674,0.08653684,0.59302354,-0.27819115,-0.103057496,-0.2685679,-0.31819668,0.07770519,0.09156239,-0.20873229,0.059651095,-0.06545996,0.06500807,0.021893768,-0.019892205,0.042457793,-0.025000982,-0.0093408795,-0.074633814,-0.038486246,-0.044739608,-0.028476529,3.0,-0.63208044,-3.0,3.0,3.0,-3.0,-3.0,-1.5178717,-3.0,-3.0,0.95681983,-3.0,3.0,-0.5993815,-3.0,3.0,3.0,-3.0,-3.0,-1.4414307,-3.0,-3.0,1.0790262,-3.0
2025-06-06 10:51:16.584,0.023606732,0.000110411886,0.019015873,-0.035570953,0.09704155,0.024267314,0.0,0.0,0.0,0.07050951,-0.031214084,-0.23854952,-0.107027575,0.10502647,0.6020734,-0.27560878,-0.10324674,-0.2791934,-0.31048316,0.068397716,0.090794735,-0.204108,-0.021778014,-0.036163997,-0.055840287,0.060270373,0.06324504,0.040179897,0.058578186,-0.05633276,-0.05579815,0.0045708693,-0.036357224,-0.026727805,3.0,-0.5993815,-3.0,3.0,3.0,-3.0,-3.0,-1.4414307,-3.0,-3.0,1.0790262,-3.0,3.0,-0.6999286,-3.0,3.0,3.0,-3.0,-3.0,-1.4589299,-3.0,-3.0,1.1056299,-3.0
2025-06-06 10:51:16.606,0.0034495404,0.0415189,-0.03294725,0.017898848,0.05713363,-0.037255567,0.0,0.0,0.0,0.070501186,-0.0478644,-0.23749171,-0.10249725,0.08797934,0.59989154,-0.27222577,-0.09306312,-0.26072368,-0.31232497,0.06462977,0.09966718,-0.2058411,-0.013908174,0.0031381918,0.027892176,-0.06586999,0.0778395,0.03794962,0.048372738,0.06421867,0.04990864,0.06823164,-0.046895735,-0.07667853,3.0,-0.6999286,-3.0,3.0,3.0,-3.0,-3.0,-1.4589299,-3.0,-3.0,1.1056299,-3.0,3.0,-0.721914,-3.0,3.0,3.0,-3.0,-3.0,-1.5796031,-3.0,-3.0,0.96955234,-3.0
2025-06-06 10:51:16.624,-0.02981374,0.028084619,0.0034035323,-0.03182321,0.06323813,0.034679703,0.0,0.0,0.0,0.07056824,-0.03177577,-0.23584819,-0.09514452,0.087714225,0.5999583,-0.27184755,-0.111216016,-0.26582965,-0.31604397,0.066439465,0.10415668,-0.2206597,0.016691143,-0.015035516,-0.054409742,0.006644831,-0.0719487,-0.012287972,-0.075252,-0.05835521,0.012872366,-0.0137213515,0.02072707,-0.024669876,3.0,-0.721914,-3.0,3.0,3.0,-3.0,-3.0,-1.5796031,-3.0,-3.0,0.96955234,-3.0,3.0,-0.6153361,-3.0,3.0,3.0,-3.0,-3.0,-1.5007744,-3.0,-3.0,0.99484974,-3.0
2025-06-06 10:51:16.644,-0.037956163,-0.0096390005,0.032922644,0.011527179,0.032755468,0.046452276,0.0,0.0,0.0,0.07064713,-0.040372845,-0.2436351,-0.09650442,0.08766141,0.59862244,-0.28502923,-0.094343625,-0.27326715,-0.31757945,0.06551689,0.09828459,-0.2184249,-0.067852005,0.04305713,-0.056478657,0.072416075,0.009323811,-0.02431553,-0.00677843,0.054039218,-0.0016184124,-0.010033481,0.035192672,-0.00017368614,3.0,-0.6153361,-3.0,3.0,3.0,-3.0,-3.0,-1.5007744,-3.0,-3.0,0.99484974,-3.0,3.0,-0.79500747,-3.0,3.0,3.0,-3.0,-3.0,-1.5766946,-3.0,-3.0,0.94033414,-3.0
2025-06-06 10:51:16.664,0.058905195,-0.054255415,0.029892124,-0.013593892,0.12053566,0.049943462,0.0,0.0,0.0,0.07068542,-0.03860947,-0.23077548,-0.09898477,0.10524778,0.59332967,-0.27860248,-0.10174567,-0.27656963,-0.32763213,0.0719867,0.10697883,-0.20946467,-0.062412247,0.022903457,0.0399926,0.0435422,0.02600211,-0.065729015,-0.053823564,0.05173424,0.033290863,0.062259857,0.0692717,-0.049768217,3.0,-0.79500747,-3.0,3.0,3.0,-3.0,-3.0,-1.5766946,-3.0,-3.0,0.94033414,-3.0,3.0,-0.7304598,-3.0,3.0,3.0,-3.0,-3.0,-1.5901743,-3.0,-3.0,0.92911106,-3.0
2025-06-06 10:51:16.684,0.039919842,-0.0044055656,0.024530796,0.020784173,0.065555,0.027107464,0.0,0.0,0.0,0.07070786,-0.031159386,-0.23660533,-0.09520159,0.09650812,0.6005537,-0.2746935,-0.10485317,-0.2739894,-0.31458074,0.079014614,0.09544602,-0.20875445,0.053393938,0.034674805,-0.026715018,0.03588395,0.048948824,-0.047461383,-0.067230165,-0.01797972,0.05485919,0.045087542,0.016763795,-0.05701223,3.0,-0.7304598,-3.0,3.0,3.0,-3.0,-3.0,-1.5901743,-3.0,-3.0,0.92911106,-3.0,3.0,-0.7228598,-3.0,3.0,3.0,-3.0,-3.0,-1.5509013,-3.0,-3.0,0.99750835,-3.0
2025-06-06 10:51:16.706,0.018432181,0.003032935,-0.0034929477,0.023505367,0.11947845,0.014094068,0.0,0.0,0.0,0.07073372,-0.0373247,-0.24256307,-0.10737916,0.08483155,0.6044633,-0.28130457,-0.10020863,-0.27324575,-0.31949463,0.07346009,0.08834819,-0.19988006,-0.025782088,0.04190148,0.050838616,0.06438415,-0.049766507,0.060671467,0.075198375,0.01601763,-0.045568425,-0.004070996,-0.06747756,0.04190031,3.0,-0.7228598,-3.0,3.0,3.0,-3.0,-3.0,-1.5509013,-3.0,-3.0,0.99750835,-3.0,3.0,-0.6791721,-3.0,3.0,3.0,-3.0,-3.0,-1.5179975,-3.0,-3.0,1.0139362,-3.0
2025-06-06 10:51:16.724,-0.011194192,-0.05005184,0.033642717,0.00010697697,0.097903065,0.04511091,0.0,0.0,0.0,0.070799746,-0.04702857,-0.24360299,-0.094197154,0.08981259,0.5890854,-0.2876837,-0.09442301,-0.2692184,-0.32799947,0.07158626,0.09931717,-0.21586141,-0.07290097,0.031592153,0.06307659,-0.057830933,-0.061221372,-0.052260242,-0.033057738,0.041000742,-0.063569576,0.05302887,-0.006293159,0.058839217,3.0,-0.6791721,-3.0,3.0,3.0,-3.0,-3.0,-1.5179975,-3.0,-3.0,1.0139362,-3.0,3.0,-0.75418633,-3.0,3.0,3.0,-3.0,-3.0,-1.5068378,-3.0,-3.0,0.9657796,-3.0
2025-06-06 10:51:16.744,-0.04056192,0.030171707,0.0038754235,-0.019177847,0.02812429,-0.0074966927,0.0,0.0,0.0,0.070903294,-0.041475594,-0.24785261,-0.09152192,0.09075407,0.5979249,-0.2872105,-0.10978317,-0.28165096,-0.3226867,0.06578074,0.103890516,-0.2112501,0.0658323,-0.034880422,-0.02939333,0.056435782,-0.032302313,-0.047412034,0.06359894,-0.005485518,0.06109082,0.055331264,-0.047868665,0.055192623,3.0,-0.75418633,-3.0,3.0,3.0,-3.0,-3.0,-1.5068378,-3.0,-3.0,0.9657796,-3.0,3.0,-0.5630748,-3.0,3.0,3.0,-3.0,-3.0,-1.4811099,-3.0,-3.0,1.0840591,-3.0
2025-06-06 10:51:16.764,0.009919172,0.045635913,0.03940001,0.0339022,0.035936996,-0.047134947,0.0,0.0,0.0,0.07100322,-0.031396303,-0.24375488,-0.10856632,0.10238896,0.59083766,-0.28351945,-0.098658904,-0.2656006,-0.31341025,0.06683741,0.09663682,-0.21698765,-0.048522133,-0.05685433,-0.04620479,-0.038738288,0.053561084,0.011231202,-0.0598185,-0.0013253664,-0.074497744,0.043734048,-0.039837636,0.005023454,3.0,-0.5630748,-3.0,3.0,3.0,-3.0,-3.0,-1.4811099,-3.0,-3.0,1.0840591,-3.0,3.0,-0.75873095,-3.0,3.0,3.0,-3.0,-3.0,-1.4642591,-3.0,-3.0,1.0794764,-3.0
2025-06-06 10:51:16.784,0.0099007115,-0.035656806,0.009564419,0.015802825,0.073527075,0.018378437,0.0,0.0,0.0,0.0711273,-0.048335787,-0.23962034,-0.10237208,0.094718896,0.59107137,-0.27203214,-0.10932791,-0.26370794,-0.3285255,0.08047153,0.09895446,-0.21989763,0.021630753,0.0125236465,-0.017723128,-0.040914807,-0.01996732,-0.005957344,-0.05280572,-0.050635464,0.017557532,0.03526115,-0.025149079,-0.07232835,3.0,-0.75873095,-3.0,3.0,3.0,-3.0,-3.0,-1.4642591,-3.0,-3.0,1.0794764,-3.0,3.0,-0.6896096,-3.0,3.0,3.0,-3.0,-3.0,-1.5088906,-3.0,-3.0,1.0477546,-3.0
2025-06-06 10:51:16.806,-0.029271273,-0.040503565,-0.0015915665,0.015480569,0.0820746,0.04236143,0.0,0.0,0.0,0.07126039,-0.041340202,-0.24774604,-0.099355884,0.08718752,0.5954401,-0.28019303,-0.10516431,-0.27459207,-0.3214793,0.07200657,0.112704776,-0.21063824,0.06186349,0.0147228865,0.014456734,-0.008546612,0.04982322,0.023053123,0.004633724,-0.06882302,-0.05862037,0.0005238166,0.012900683,-0.0035249053,3.0,-0.6896096,-3.0,3.0,3.0,-3.0,-3.0,-1.5088906,-3.0,-3.0,1.0477546,-3.0,3.0,-0.703658,-3.0,3.0,3.0,-3.0,-3.0,-1.4207814,-3.0,-3.0,1.0704836,-3.0
2025-06-06 10:51:16.824,0.0020925957,-0.011173978,0.038271908,-0.028580591,0.07010566,0.023741115,0.0,0.0,0.0,0.07139194,-0.03927817,-0.23633617,-0.09286789,0.105214246,0.6070659,-0.27487442,-0.09306825,-0.26820633,-0.3215622,0.06914335,0.098369084,-0.2115592,-0.041946314,0.07005397,-0.034969207,-0.026391717,-0.070975825,-0.02505761,0.03902291,-0.058711708,-0.014423979,-0.038842216,0.008501219,-0.033679906,3.0,-0.703658,-3.0,3.0,3.0,-3.0,-3.0,-1.4207814,-3.0,-3.0,1.0704836,-3.0,3.0,-0.70684105,-3.0,3.0,3.0,-3.0,-3.0,-1.5599996,-3.0,-3.0,1.0355135,-3.0
2025-06-06 10:51:16.845,0.005694676,-0.008949373,0.03385071,-0.019574968,0.08046273,-0.03573047,0.0,0.0,0.0,0.07151615,-0.03659974,-0.24542956,-0.09216951,0.08714664,0.60513365,-0.2777481,-0.102140315,-0.2736031,-0.31441212,0.07966274,0.098444805,-0.21716586,0.05704828,-0.016308667,0.07007037,0.06038953,0.016950354,-0.04216517,0.060839765,0.004806369,-0.036080334,0.060406025,0.016513683,0.05239285,3.0,-0.70684105,-3.0,3.0,3.0,-3.0,-3.0,-1.5599996,-3.0,-3.0,1.0355135,-3.0,3.0,-0.6669384,-3.0,3.0,3.0,-3.0,-3.0,-1.4386876,-3.0,-3.0,1.1130778,-3.0
2025-06-06 10:51:16.865,0.03109572,-0.028484251,-0.04174512,-0.014136654,0.04928268,0.046116203,0.0,0.0,0.0,0.07164061,-0.034350075,-0.23786663,-0.10772724,0.08953274,0.5981192,-0.272005,-0.104522035,-0.27616176,-0.3248083,0.07111825,0.11142143,-0.2119196,-0.020629354,0.011643978,-0.017986443,-0.016056197,-0.0066825203,-0.025558867,-0.044806708,-0.013308061,-0.02761026,0.04860383,0.050253324,-0.046874486,3.0,-0.6669384,-3.0,3.0,3.0,-3.0,-3.0,-1.4386876,-3.0,-3.0,1.1130778,-3.0,3.0,-0.6741901,-3.0,3.0,3.0,-3.0,-3.0,-1.5280207,-3.0,-3.0,0.9458899,-3.0
2025-06-06 10:51:16.885,0.0077638393,0.0125424,-0.013339216,0.020989424,0.12093904,-0.033019226,0.0,0.0,0.0,0.07180778,-0.04035702,-0.24409716,-0.10459063,0.08819924,0.5985057,-0.2889353,-0.11001313,-0.2756617,-0.32933578,0.076437294,0.098056905,-0.2148439,-0.009477807,0.0285936,-0.04544854,-0.009015838,0.03730769,-0.026914349,0.04238991,0.05080923,0.070507884,-0.056464206,-0.0067330445,0.017870646,3.0,-0.6741901,-3.0,3.0,3.0,-3.0,-3.0,-1.5280207,-3.0,-3.0,0.9458899,-3.0,3.0,-0.6409936,-3.0,3.0,3.0,-3.0,-3.0,-1.617857,-3.0,-3.0,0.9406645,-3.0
2025-06-06 10:51:16.906,0.019044638,-0.054337878,0.018578645,-0.049351428,0.05139527,0.026235314,0.0,0.0,0.0,0.07190905,-0.029797474,-0.24281701,-0.0918671,0.095316775,0.60183334,-0.28031746,-0.11085982,-0.27349642,-0.3091713,0.069193356,0.09386623,-0.2219046,-0.05941551,-0.05983641,0.0113128135,-0.053935282,0.032975744,0.019872092,-0.0076753446,-0.00352612,0.0070065088,0.015140376,0.03559601,0.07044593,3.0,-0.6409936,-3.0,3.0,3.0,-3.0,-3.0,-1.617857,-3.0,-3.0,0.9406645,-3.0,3.0,-0.6935982,-3.0,3.0,3.0,-3.0,-3.0,-1.4718765,-3.0,-3.0,0.98625046,-3.0
2025-06-06 10:51:16.925,0.014544734,0.020220788,0.021907592,-0.04922978,0.046490863,0.04922527,0.0,0.0,0.0,0.0719341,-0.03431636,-0.24209239,-0.10841616,0.10517879,0.58839476,-0.28920442,-0.09633063,-0.27891198,-0.3158872,0.075559385,0.10470916,-0.22016385,0.009062603,0.023099093,0.017327478,0.051827036,-0.03557369,0.048062783,0.069403835,0.044314936,-0.009769748,-0.05063137,0.048164427,-0.06245315,3.0,-0.6935982,-3.0,3.0,3.0,-3.0,-3.0,-1.4718765,-3.0,-3.0,0.98625046,-3.0,3.0,-0.67334634,-3.0,3.0,3.0,-3.0,-3.0,-1.5486001,-3.0,-3.0,1.0005292,-3.0
2025-06-06 10:51:16.945,-0.041517396,-0.00474191,-0.04461639,-0.060522906,0.09410343,-0.010018708,0.0,0.0,0.0,0.0719273,-0.03284514,-0.24558838,-0.10533328,0.099478126,0.6035305,-0.27382034,-0.1105421,-0.2654887,-0.31004396,0.07680928,0.094041534,-0.21384932,0.05105625,0.054203995,0.015431183,0.032349527,-0.06674359,0.07262365,0.07103491,-0.0331382,0.015062115,-0.0050225677,0.06439921,-0.02274976,3.0,-0.67334634,-3.0,3.0,3.0,-3.0,-3.0,-1.5486001,-3.0,-3.0,1.0005292,-3.0,3.0,-0.58449244,-3.0,3.0,3.0,-3.0,-3.0,-1.5334393,-3.0,-3.0,0.9480257,-3.0
2025-06-06 10:51:16.965,-0.012163979,-0.013318392,0.037816055,0.013440495,0.09963174,0.026392424,0.0,0.0,0.0,0.07193293,-0.043984726,-0.24829276,-0.09954582,0.09770309,0.5940841,-0.29020154,-0.103550725,-0.27226517,-0.3289244,0.06940262,0.09013926,-0.21533196,0.04413954,0.027144885,0.06315684,0.05113271,0.05852203,0.022501541,-0.060687903,0.034277078,0.06913203,0.042227253,0.06760691,0.02622676,3.0,-0.58449244,-3.0,3.0,3.0,-3.0,-3.0,-1.5334393,-3.0,-3.0,0.9480257,-3.0,3.0,-0.8086937,-3.0,3.0,3.0,-3.0,-3.0,-1.563978,-3.0,-3.0,0.9756097,-3.0
2025-06-06 10:51:16.985,0.04852638,-0.007015987,0.042849068,-0.0013415354,0.07940073,-0.004144893,0.0,0.0,0.0,0.071901724,-0.032004584,-0.25535893,-0.0981156,0.09426942,0.5843624,-0.27416733,-0.11090054,-0.28518933,-0.3231061,0.07315437,0.09315323,-0.20797946,-0.011952738,-0.05221836,-0.071852915,-0.047680102,0.011266245,0.0617188,0.06617893,-0.023009634,-0.0473859,0.06379833,0.044061303,0.03278163,3.0,-0.8086937,-3.0,3.0,3.0,-3.0,-3.0,-1.563978,-3.0,-3.0,0.9756097,-3.0,3.0,-0.65330607,-3.0,3.0,3.0,-3.0,-3.0,-1.5080129,-3.0,-3.0,1.1335568,-3.0
2025-06-06 10:51:17.006,-0.06513849,-0.007975393,-0.045912765,-0.041732334,0.05814709,0.018523052,0.0,0.0,0.0,0.07188245,-0.044155706,-0.24034758,-0.10830291,0.0954377,0.5892307,-0.2864143,-0.10854621,-0.28244126,-0.32091242,0.08347643,0.0916295,-0.20898,-0.068807974,0.07331208,0.051203717,-0.05293542,0.00838316,-0.033032116,0.06364677,0.060469735,0.05493847,0.034331482,0.027467813,0.026173389,3.0,-0.65330607,-3.0,3.0,3.0,-3.0,-3.0,-1.5080129,-3.0,-3.0,1.1335568,-3.0,3.0,-0.7040883,-3.0,3.0,3.0,-3.0,-3.0,-1.5684665,-3.0,-3.0,0.8379114,-3.0
