openverse-orca/OrcaGym/log/simulation_log_20250605_102956.csv
timestamp,imu_angle_roll,imu_angle_pitch,imu_angle_yaw,imu_angular_velocity_roll,imu_angular_velocity_pitch,imu_angular_velocity_yaw,imu_acc_x,imu_acc_y,imu_acc_z,fl_joint1_pos,fl_joint1_vel,fl_joint1_torque,fl_joint2_pos,fl_joint2_vel,fl_joint2_torque,fl_joint3_pos,fl_joint3_vel,fl_joint3_torque,fr_joint1_pos,fr_joint1_vel,fr_joint1_torque,fr_joint2_pos,fr_joint2_vel,fr_joint2_torque,fr_joint3_pos,fr_joint3_vel,fr_joint3_torque,hl_joint1_pos,hl_joint1_vel,hl_joint1_torque,hl_joint2_pos,hl_joint2_vel,hl_joint2_torque,hl_joint3_pos,hl_joint3_vel,hl_joint3_torque,hr_joint1_pos,hr_joint1_vel,hr_joint1_torque,hr_joint2_pos,hr_joint2_vel,hr_joint2_torque,hr_joint3_pos,hr_joint3_vel,hr_joint3_torque,fl_force_x,fl_force_y,fl_force_z,fr_force_x,fr_force_y,fr_force_z,hl_force_x,hl_force_y,hl_force_z,hr_force_x,hr_force_y,hr_force_z,fl_hip_action,fl_thigh_action,fl_calf_action,fr_hip_action,fr_thigh_action,fr_calf_action,hl_hip_action,hl_thigh_action,hl_calf_action,hr_hip_action,hr_thigh_action,hr_calf_action
2025-06-05 10:29:56.211,0.029283049,0.03676076,-0.03518348,-0.030557478,0.012785582,0.0060524843,2.302269,1.2763014,0.0,0.0,-0.0012938017,-0.0053232387,-0.00015520961,-0.008856247,0.0077332594,5.5250257e-05,0.004735607,-0.0075200205,-0.0024440624,0.001759732,-0.006856997,-0.0086527,-0.01807104,-0.074005075,-0.015999164,0.009827255,0.061983444,-0.059333477,-0.018466255,-0.027007103,-0.016816052,-0.042279713,0.050757036,0.025365338,0.0,0.0,0.0,0.0,0.0,0.0,0.0,0.0,0.0,0.0,0.0,0.0,-2.0,2.0,1.5306665,2.0,2.0,-2.0,2.0,-2.0,-2.0,2.0,2.0,-2.0
2025-06-05 10:29:56.215,0.07509212,-0.14279516,-0.058070272,-0.021757621,0.008006196,-0.027111907,0.0,0.0,0.0,0.0,-0.025436742,0.12619658,0.060894728,0.034323636,0.1228436,-0.07962717,0.027267043,-0.11675708,-0.08276961,0.02702215,0.13280453,-0.078896545,-0.056130268,0.38461047,0.20960921,0.15111792,0.3733534,-0.19977932,0.12159855,-0.3109339,-0.14233552,0.13092838,0.42250076,-0.16605303,-2.0,2.0,1.5306665,2.0,2.0,-2.0,2.0,-2.0,-2.0,2.0,2.0,-2.0,-2.0,2.0,-2.0,-2.0,2.0,-2.0,2.0,-2.0,-2.0,2.0,-2.0,-2.0
2025-06-05 10:29:56.237,0.5052902,0.09542383,-0.06301271,0.008156062,0.018293835,-0.017829161,0.0,0.0,0.0,0.0016118934,-0.06594908,0.26182148,-0.02420872,0.0099451095,0.2409317,-0.15209776,0.06445912,-0.2702341,-0.14013284,0.06494716,0.029820992,-0.12679058,-0.14138342,0.3826587,-0.2336892,-0.026056321,0.104657754,-0.14470574,0.06524075,-0.30807886,-0.09825015,0.116249956,-0.31277838,0.01692922,-2.0,2.0,-2.0,-2.0,2.0,-2.0,2.0,-2.0,-2.0,2.0,-2.0,-2.0,2.0,2.0,-2.0,-2.0,2.0,-2.0,2.0,-2.0,-2.0,2.0,-2.0,-2.0
2025-06-05 10:29:56.256,0.45433912,0.08050683,-0.22094598,0.042350393,-0.0047900947,0.04407579,0.0,0.0,0.0,0.0031338774,-0.033348396,0.3988591,-0.10491752,-0.0060739676,0.28969243,-0.18414961,0.05686737,-0.36960873,-0.16084464,0.07468546,-0.097292066,-0.14777566,0.17232461,0.29575765,-0.18377316,-0.11084226,0.12588286,-0.14977899,0.055929814,-0.16909234,0.007855342,0.0632833,-0.2911482,-0.15747999,2.0,2.0,-2.0,-2.0,2.0,-2.0,2.0,-2.0,-2.0,2.0,-2.0,-2.0,2.0,2.0,-2.0,-2.0,2.0,-2.0,2.0,-2.0,-2.0,2.0,-2.0,-2.0
2025-06-05 10:29:56.277,0.19677587,0.16049543,-0.20765391,0.0645613,0.0005823283,-0.020023245,0.0,0.0,0.0,0.0067714653,-0.008265199,0.46558964,-0.16839787,-0.023936518,0.34443015,-0.22692345,0.08968772,-0.4453847,-0.18041825,0.11179241,-0.2368709,-0.21404499,0.052484397,0.0762463,-0.14762814,-0.06588886,0.07111437,-0.030856868,0.01826955,-0.25168326,-0.2037163,0.03663252,-0.34603924,-0.17373414,2.0,2.0,-2.0,-2.0,2.0,-2.0,2.0,-2.0,-2.0,2.0,-2.0,-2.0,2.0,2.0,-2.0,-2.0,2.0,-2.0,2.0,-2.0,-2.0,2.0,-2.0,-2.0
2025-06-05 10:29:56.296,0.074252516,0.19338386,-0.12686907,0.033955883,0.07483015,0.031404436,0.0,0.0,0.0,0.01138179,0.00096412236,0.5036996,-0.20004523,-0.046288356,0.39165,-0.26942256,0.11440483,-0.53639144,-0.24017292,0.12032916,-0.35607207,-0.2640601,0.02532219,0.19840372,-0.057697896,-0.0016221111,0.20326567,-0.15560846,0.11506081,-0.14070244,-0.21110086,0.049673725,-0.29830903,-0.12792526,2.0,2.0,-2.0,-2.0,2.0,-2.0,2.0,-2.0,-2.0,2.0,-2.0,-2.0,2.0,2.0,-2.0,-2.0,2.0,-2.0,2.0,-2.0,-2.0,2.0,-2.0,-2.0
2025-06-05 10:29:56.316,0.1129317,0.20144285,-0.17729302,0.086993925,0.12906864,-0.04295285,0.0,0.0,0.0,0.014984008,0.011381793,0.56542236,-0.24869972,-0.049361076,0.46727598,-0.30609325,0.13555224,-0.612622,-0.29243407,0.13752857,-0.462961,-0.31781763,0.11065426,0.15039243,-0.15822756,0.019506669,0.19601285,-0.069238625,-0.020238573,-0.15193857,-0.060950797,-0.029424353,-0.25327268,-0.05784438,2.0,2.0,-2.0,-2.0,2.0,-2.0,2.0,-2.0,-2.0,2.0,-2.0,-2.0,2.0,2.0,-2.0,-2.0,2.0,-2.0,2.0,-2.0,-2.0,2.0,-2.0,-2.0
2025-06-05 10:29:56.338,0.12930694,0.14741902,-0.17628436,0.08075147,0.07441896,0.02882338,0.0,0.0,0.0,0.018144147,0.05136762,0.63509166,-0.29724085,-0.07924371,0.5353017,-0.34193832,0.14342025,-0.67408925,-0.32593763,0.15556085,-0.5471398,-0.35413736,0.05875328,0.11283491,-0.121146135,-0.042429462,0.1610675,-0.15744062,0.103393964,-0.20500599,-0.17070997,0.09270949,-0.25549835,-0.13290808,2.0,2.0,-2.0,-2.0,2.0,-2.0,2.0,-2.0,-2.0,2.0,-2.0,-2.0,2.0,2.0,-2.0,-2.0,2.0,-2.0,2.0,-2.0,-2.0,2.0,-2.0,-2.0
2025-06-05 10:29:56.356,0.077665016,0.18124078,-0.09624003,0.1152005,0.07738583,-0.00854563,0.0,0.0,0.0,0.021415954,0.076761946,0.6974033,-0.34106812,-0.09991992,0.60860604,-0.38500836,0.16337402,-0.71187186,-0.3759459,0.15855123,-0.62726474,-0.37621838,0.0031419885,0.08198106,-0.09826039,-0.116024025,0.11882606,-0.09466869,0.0068821744,-0.18793574,-0.016901469,0.06265363,-0.2263108,-0.08981843,2.0,2.0,-2.0,-2.0,2.0,-2.0,2.0,-2.0,-2.0,2.0,-2.0,-2.0,2.0,2.0,-2.0,-2.0,2.0,-2.0,2.0,-2.0,-2.0,2.0,-2.0,-2.0
2025-06-05 10:29:56.377,-0.038978167,0.23673084,-0.03392424,0.11855615,0.085717715,0.01838041,0.0,0.0,0.0,0.024636408,0.07943799,0.7420295,-0.36192366,-0.12583694,0.66860425,-0.39723742,0.1678013,-0.7636258,-0.38531107,0.1680909,-0.67766595,-0.4044838,-0.017182805,0.027873045,0.01923258,0.015979448,0.12198881,-0.13222547,0.06832549,-0.114799425,-0.07725393,0.03580985,-0.18896522,-0.09174149,2.0,2.0,-2.0,-2.0,2.0,-2.0,2.0,-2.0,-2.0,2.0,-2.0,-2.0,2.0,2.0,-2.0,-2.0,2.0,-2.0,2.0,-2.0,-2.0,2.0,-2.0,-2.0
2025-06-05 10:29:56.397,-0.17831902,0.282086,-0.033516176,0.12916876,0.118316896,-0.047002465,0.0,0.0,0.0,0.027026827,0.10580898,0.7723983,-0.36899966,-0.12780525,0.732766,-0.42368603,0.18271764,-0.79336613,-0.42302948,0.18312006,-0.7272174,-0.43421066,0.11561812,0.12825005,-0.024427917,-0.019675668,0.12437882,-0.025146537,0.0039594616,-0.051176574,-0.08365952,-0.008023129,-0.19180992,-0.025539627,2.0,2.0,-2.0,-2.0,2.0,-2.0,2.0,-2.0,-2.0,2.0,-2.0,-2.0,2.0,2.0,-2.0,-2.0,2.0,-2.0,2.0,-2.0,-2.0,2.0,-2.0,-2.0
2025-06-05 10:29:56.417,-0.102900855,0.20271306,-0.058770783,0.08440946,0.13765934,-0.020725308,0.0,0.0,0.0,0.028594203,0.13106418,0.80596656,-0.3733611,-0.1355303,0.7623672,-0.442913,0.18000147,-0.8280199,-0.42154446,0.18334682,-0.7673971,-0.45467904,-0.009090263,0.14757037,-0.009047795,0.055632852,0.04612279,-0.07574848,0.10460999,-0.1001435,0.11643447,0.02880153,-0.08993202,0.020536346,2.0,2.0,-2.0,-2.0,2.0,-2.0,2.0,-2.0,-2.0,2.0,-2.0,-2.0,2.0,2.0,-2.0,-2.0,2.0,-2.0,2.0,-2.0,-2.0,2.0,-2.0,-2.0
2025-06-05 10:29:56.437,-0.10883594,-0.05083765,0.026440078,0.04671796,0.13972053,0.034316614,0.0,0.0,0.0,0.02988632,0.14683974,0.83951145,-0.38623378,-0.14058451,0.8022635,-0.4232956,0.19617559,-0.8894974,-0.39412957,0.17787081,-0.8013491,-0.4597887,-0.014536506,0.11239626,0.05051075,0.037940368,0.17036825,-0.0004397662,0.0802111,-0.12427336,0.07787047,0.015961785,-0.03042045,-0.07102312,2.0,2.0,-2.0,-2.0,2.0,-2.0,2.0,-2.0,-2.0,2.0,-2.0,-2.0,2.0,2.0,-2.0,-2.0,2.0,-2.0,2.0,-2.0,-2.0,2.0,-2.0,-2.0
2025-06-05 10:29:56.457,-0.31949335,0.046666626,-0.08628723,-0.007314514,0.17924502,0.04425386,0.0,0.0,0.0,0.030190278,0.16358557,0.8747011,-0.37914264,-0.12380366,0.8456484,-0.4107227,0.20123899,-0.94351214,-0.35694873,0.18251093,-0.8262389,-0.47852466,0.106313504,0.040886067,-0.016210463,0.0658514,0.121248744,0.06867906,-0.033073448,-0.10419326,0.07902476,0.006611298,-0.032849185,-0.09726219,2.0,2.0,-2.0,-2.0,2.0,-2.0,2.0,-2.0,-2.0,2.0,-2.0,-2.0,2.0,2.0,-2.0,-2.0,2.0,-2.0,2.0,-2.0,-2.0,2.0,-2.0,-2.0
2025-06-05 10:29:56.476,-0.2904355,0.24301939,-0.11523866,0.015658576,0.16528703,-0.028461343,0.0,0.0,0.0,0.030809488,0.17577733,0.9007644,-0.39852667,-0.121600434,0.8670353,-0.40951577,0.20919926,-0.9750632,-0.38212195,0.18199022,-0.84849864,-0.48364466,0.009352307,0.11001478,-0.06027865,0.02694997,0.0075518824,0.029159633,0.061059628,-0.07369554,-0.002105988,-0.04144565,-0.12375687,-0.008693734,2.0,2.0,-2.0,-2.0,2.0,-2.0,2.0,-2.0,-2.0,2.0,-2.0,-2.0,2.0,2.0,-2.0,-2.0,2.0,-2.0,2.0,-2.0,-2.0,2.0,-2.0,-2.0
2025-06-05 10:29:56.497,-0.39331552,0.20855911,-0.08523234,0.012864945,0.22508304,-0.030745722,0.0,0.0,0.0,0.032947052,0.16852513,0.90792376,-0.4275066,-0.14034405,0.8901937,-0.43355787,0.22125706,-0.9796877,-0.40495577,0.19242807,-0.8750243,-0.48440075,-0.01392087,0.06603605,-0.015472418,0.044440754,0.06369628,-0.009882177,0.08037821,-0.10178282,-0.05417081,0.04906093,-0.06455432,-0.003956236,2.0,2.0,-2.0,-2.0,2.0,-2.0,2.0,-2.0,-2.0,2.0,-2.0,-2.0,2.0,2.0,-2.0,-2.0,2.0,-2.0,2.0,-2.0,-2.0,2.0,-2.0,-2.0
2025-06-05 10:29:56.519,-0.07593296,0.20241562,-0.038531706,-0.028020035,0.24170619,0.036618337,0.0,0.0,0.0,0.035390858,0.17179963,0.9085876,-0.44395494,-0.14072748,0.9136652,-0.43688273,0.19870286,-1.0265576,-0.39364266,0.17777954,-0.8920078,-0.5069922,-0.039056275,-0.048930064,-0.069022804,-0.05755705,0.02347585,-0.054047994,-0.03828408,-0.028657105,0.030857423,0.0060006795,-0.0015778219,0.034527898,2.0,2.0,-2.0,-2.0,2.0,-2.0,2.0,-2.0,-2.0,2.0,-2.0,-2.0,2.0,2.0,-2.0,-2.0,2.0,-2.0,2.0,-2.0,-2.0,2.0,-2.0,-2.0
2025-06-05 10:29:56.537,-0.047442682,0.11395618,-0.0043763677,-0.04620422,0.2353139,-0.039122228,0.0,0.0,0.0,0.035836533,0.17848383,0.9320738,-0.46607748,-0.14298066,0.9232998,-0.44880763,0.19535229,-1.0303884,-0.40236172,0.19856851,-0.90944785,-0.49715215,-0.05638989,0.060638025,-0.033891916,-0.074424416,0.07967266,-0.074227765,0.023580719,-0.065618224,-0.08572384,0.08325963,-0.048710216,0.032299872,2.0,2.0,-2.0,-2.0,2.0,-2.0,2.0,-2.0,-2.0,2.0,-2.0,-2.0,2.0,2.0,-2.0,-2.0,2.0,-2.0,2.0,-2.0,-2.0,2.0,-2.0,-2.0
2025-06-05 10:29:56.557,0.0876776,0.013274942,-0.009222631,0.011672589,0.2254532,0.032977745,0.0,0.0,0.0,0.03613895,0.18505685,0.9352281,-0.4609766,-0.15797673,0.91614586,-0.47211516,0.18593511,-1.038114,-0.414687,0.1963586,-0.9104813,-0.49442402,0.080793545,0.05152883,0.039911468,0.024310282,-0.026733046,-0.0061574355,-0.055384133,-0.036403216,0.0075625335,0.010319578,-0.048108064,0.04546568,2.0,2.0,-2.0,-2.0,2.0,-2.0,2.0,-2.0,-2.0,2.0,-2.0,-2.0,2.0,2.0,-2.0,-2.0,2.0,-2.0,2.0,-2.0,-2.0,2.0,-2.0,-2.0
2025-06-05 10:29:56.577,0.0062614,0.079456925,-0.035867676,-0.030848851,0.18661663,0.049536657,0.0,0.0,0.0,0.036831643,0.1890482,0.933492,-0.48057044,-0.170712,0.92582047,-0.47797903,0.18235193,-1.0523514,-0.43708676,0.1890458,-0.91598505,-0.4991305,0.0020422079,0.005358337,-0.011112783,-0.08732972,-0.007190433,0.026110573,-0.055497263,-0.013170144,-0.0072486373,0.029608667,-0.0017212708,0.054239642,2.0,2.0,-2.0,-2.0,2.0,-2.0,2.0,-2.0,-2.0,2.0,-2.0,-2.0,2.0,2.0,-2.0,-2.0,2.0,-2.0,2.0,-2.0,-2.0,2.0,-2.0,-2.0
2025-06-05 10:29:56.598,0.02409676,0.028448118,-0.06317202,-0.017063038,0.25844878,-0.04500872,0.0,0.0,0.0,0.037625648,0.19816361,0.9427068,-0.48411277,-0.19307737,0.92564744,-0.49897867,0.17873332,-1.0571697,-0.42876077,0.19606759,-0.9344253,-0.50819355,0.061483778,-0.060648702,-0.04993832,0.013775121,-0.03388815,0.0031770593,0.036463685,-0.0002376154,0.0053245113,-0.047735773,0.050980423,-0.058099993,2.0,2.0,-2.0,-2.0,2.0,-2.0,2.0,-2.0,-2.0,2.0,-2.0,-2.0,2.0,2.0,-2.0,-2.0,2.0,-2.0,2.0,-2.0,-2.0,2.0,-2.0,-2.0
2025-06-05 10:29:56.619,0.116283864,0.03848857,0.02657102,-0.044405513,0.24716793,-0.027384626,0.0,0.0,0.0,0.03820261,0.20891762,0.9403293,-0.50286263,-0.18730491,0.9355677,-0.49402323,0.18827337,-1.058469,-0.4446526,0.20342113,-0.94067234,-0.50145847,0.02440303,-0.019458752,-0.058585517,0.046547964,0.017926725,0.031107325,0.008485695,-0.0673456,-0.044983193,0.0052324925,0.05054932,-0.006672401,2.0,2.0,-2.0,-2.0,2.0,-2.0,2.0,-2.0,-2.0,2.0,-2.0,-2.0,2.0,2.0,-2.0,-2.0,2.0,-2.0,2.0,-2.0,-2.0,2.0,-2.0,-2.0
2025-06-05 10:29:56.638,0.11387432,0.06600884,-0.023800302,0.005639374,0.25942856,-0.021019747,0.0,0.0,0.0,0.038639575,0.198975,0.93863404,-0.494695,-0.19648032,0.9210934,-0.494739,0.18025967,-1.0733457,-0.45827627,0.19801149,-0.93394345,-0.51681787,-0.016762234,-0.026363872,0.04105249,-0.06408687,0.022303995,-0.036721986,-0.015471624,-0.07331234,-0.06519344,0.043290548,0.027257051,-0.024568737,2.0,2.0,-2.0,-2.0,2.0,-2.0,2.0,-2.0,-2.0,2.0,-2.0,-2.0,2.0,2.0,-2.0,-2.0,2.0,-2.0,2.0,-2.0,-2.0,2.0,-2.0,-2.0
2025-06-05 10:29:56.658,-0.015677115,0.07290778,0.046351466,-0.039813064,0.2319648,0.036064602,0.0,0.0,0.0,0.03898989,0.20897092,0.9417009,-0.5203107,-0.1917277,0.91710037,-0.5059078,0.18762954,-1.0668751,-0.46195284,0.18828985,-0.93618876,-0.50546616,-0.0583531,-0.026525678,-0.029357448,-0.04410812,0.033779457,0.038338352,-0.023097731,0.05443702,-0.04990328,0.020790238,0.017250435,-0.039486423,2.0,2.0,-2.0,-2.0,2.0,-2.0,2.0,-2.0,-2.0,2.0,-2.0,-2.0,2.0,2.0,-2.0,-2.0,2.0,-2.0,2.0,-2.0,-2.0,2.0,-2.0,-2.0
2025-06-05 10:29:56.678,-0.04537695,0.0004220318,0.053923957,0.038083162,0.23539424,0.0012329686,0.0,0.0,0.0,0.03903061,0.21044655,0.9388556,-0.5120441,-0.20503905,0.92366374,-0.5204224,0.18849944,-1.0823629,-0.4768508,0.19318356,-0.9350982,-0.517864,-0.031842127,-0.060884643,0.04743337,-0.036839392,-0.011400298,-0.08265282,-0.064398766,-0.028644089,-0.0907909,-0.017657526,0.05145823,0.0044389935,2.0,2.0,-2.0,-2.0,2.0,-2.0,2.0,-2.0,-2.0,2.0,-2.0,-2.0,2.0,2.0,-2.0,-2.0,2.0,-2.0,2.0,-2.0,-2.0,2.0,-2.0,-2.0
2025-06-05 10:29:56.698,0.026601374,0.06689304,-0.03770829,0.020061322,0.2697203,-0.035026822,0.0,0.0,0.0,0.038721975,0.21944328,0.9285824,-0.5254936,-0.1905713,0.91072947,-0.5279444,0.1921346,-1.0787659,-0.4851317,0.20492253,-0.94657207,-0.51319313,0.05900335,-0.05395917,0.008991769,-0.0030680276,0.03411955,-0.0617904,0.017847653,0.017907416,-0.0765311,-0.067476325,0.035393722,0.009353567,2.0,2.0,-2.0,-2.0,2.0,-2.0,2.0,-2.0,-2.0,2.0,-2.0,-2.0,2.0,2.0,-2.0,-2.0,2.0,-2.0,2.0,-2.0,-2.0,2.0,-2.0,-2.0
2025-06-05 10:29:56.721,-0.042428646,-0.005744665,0.03358457,-0.057173707,0.29702678,-0.028464986,0.0,0.0,0.0,0.038503256,0.2195592,0.94278467,-0.5172514,-0.1903591,0.9203801,-0.5242834,0.18782401,-1.074519,-0.47637144,0.20693307,-0.947533,-0.5219499,0.0077975923,-0.066944025,-0.044799924,-0.041268665,0.03895812,-0.05930715,-0.05919253,-0.043122526,-0.0066038356,-0.017562933,0.04392232,-0.0603581,2.0,2.0,-2.0,-2.0,2.0,-2.0,2.0,-2.0,-2.0,2.0,-2.0,-2.0,2.0,2.0,-2.0,-2.0,2.0,-2.0,2.0,-2.0,-2.0,2.0,-2.0,-2.0
2025-06-05 10:29:56.738,0.007983972,0.008933627,-0.007901052,-0.0071772826,0.28840134,-0.035827506,0.0,0.0,0.0,0.038416903,0.21551856,0.9391754,-0.5183416,-0.19634475,0.91279835,-0.5259594,0.1864327,-1.0792484,-0.48922303,0.18988489,-0.94059724,-0.5158381,-0.052300464,-0.051736087,0.018626072,-0.066554755,0.04736982,-0.020928072,-0.070304886,-0.028775219,-0.04939414,0.03472738,0.016203497,-0.044890456,2.0,2.0,-2.0,-2.0,2.0,-2.0,2.0,-2.0,-2.0,2.0,-2.0,-2.0,2.0,2.0,-2.0,-2.0,2.0,-2.0,2.0,-2.0,-2.0,2.0,-2.0,-2.0
2025-06-05 10:29:56.758,-0.039543767,0.041877337,-0.044348393,-0.051199958,0.26745984,-0.0012344404,0.0,0.0,0.0,0.03838466,0.20953543,0.929054,-0.53588927,-0.20387577,0.91954994,-0.5231366,0.18621366,-1.0786502,-0.4971203,0.19563858,-0.95956635,-0.5159477,-0.031887427,0.03392979,-0.07272387,-0.03151556,0.037532333,-0.011947285,-0.06451759,-0.06559943,-0.040998377,0.03835698,-0.061872188,0.030367237,2.0,2.0,-2.0,-2.0,2.0,-2.0,2.0,-2.0,-2.0,2.0,-2.0,-2.0,2.0,2.0,-2.0,-2.0,2.0,-2.0,2.0,-2.0,-2.0,2.0,-2.0,-2.0
2025-06-05 10:29:56.778,0.042905796,0.038893692,-0.010003214,0.0030339174,0.25300148,-0.021339009,0.0,0.0,0.0,0.038354762,0.21860425,0.9310907,-0.5239759,-0.20265472,0.9100751,-0.526954,0.1840745,-1.0843211,-0.49662685,0.20087712,-0.9558513,-0.5279307,-0.004973073,0.0040056496,-0.06971977,-0.018318973,-0.005014983,0.021592425,-0.045672815,0.016180957,-0.060875665,-0.03494012,-0.0058467225,-0.06801247,2.0,2.0,-2.0,-2.0,2.0,-2.0,2.0,-2.0,-2.0,2.0,-2.0,-2.0,2.0,2.0,-2.0,-2.0,2.0,-2.0,2.0,-2.0,-2.0,2.0,-2.0,-2.0
2025-06-05 10:29:56.799,0.011410049,0.04409596,0.0051798904,-0.019363338,0.24957196,-0.035240702,0.0,0.0,0.0,0.038319338,0.22203106,0.9270609,-0.5341459,-0.19051597,0.9129513,-0.5211085,0.18138812,-1.0886667,-0.5001931,0.19801454,-0.9586309,-0.5261079,-0.072985984,-0.06722857,0.033648778,-0.06659496,0.04243068,-0.04622939,0.013862603,-0.040288024,-0.014759756,0.05286493,0.02218451,-0.053687956,2.0,2.0,-2.0,-2.0,2.0,-2.0,2.0,-2.0,-2.0,2.0,-2.0,-2.0,2.0,2.0,-2.0,-2.0,2.0,-2.0,2.0,-2.0,-2.0,2.0,-2.0,-2.0
2025-06-05 10:29:56.820,0.03563571,0.032491565,-0.019225236,0.026441857,0.26758394,0.00027363413,0.0,0.0,0.0,0.03828094,0.21743196,0.936905,-0.52328694,-0.20018253,0.91255933,-0.522377,0.17909129,-1.0857769,-0.49833244,0.20472774,-0.96908116,-0.5301552,0.055852197,-0.033669256,-0.06974377,0.069896564,-0.06135727,0.055033106,-0.018314654,0.05559148,-0.06356204,0.0047577564,-0.025740014,-0.008372277,2.0,2.0,-2.0,-2.0,2.0,-2.0,2.0,-2.0,-2.0,2.0,-2.0,-2.0,2.0,2.0,-2.0,-2.0,2.0,-2.0,2.0,-2.0,-2.0,2.0,-2.0,-2.0
2025-06-05 10:29:56.838,0.026612068,0.049231693,0.025449438,0.025240583,0.21832304,-0.004402662,0.0,0.0,0.0,0.038236316,0.20725349,0.9327399,-0.526712,-0.20554511,0.91911733,-0.5269422,0.18998739,-1.0759789,-0.51512116,0.19651133,-0.96039087,-0.519293,0.029450113,0.074680574,-0.07198586,0.025909193,0.0088591855,-0.054657694,-0.0039690677,-0.06389648,0.01916511,0.038202893,-0.06912823,-0.02056352,2.0,2.0,-2.0,-2.0,2.0,-2.0,2.0,-2.0,-2.0,2.0,-2.0,-2.0,2.0,2.0,-2.0,-2.0,2.0,-2.0,2.0,-2.0,-2.0,2.0,-2.0,-2.0
2025-06-05 10:29:56.859,0.005131923,-0.034280956,-0.03991974,0.03598196,0.23461494,-0.02100755,0.0,0.0,0.0,0.038183644,0.22209086,0.9305008,-0.5392456,-0.20203096,0.92174137,-0.52323943,0.18138176,-1.0862062,-0.5234925,0.20290302,-0.969881,-0.52911186,0.0461062,0.01007469,-0.04011321,-0.032415092,0.04525815,0.02009638,0.03592457,-0.061628483,-0.0032803148,-0.019157352,0.054865643,-0.0687795,2.0,2.0,-2.0,-2.0,2.0,-2.0,2.0,-2.0,-2.0,2.0,-2.0,-2.0,2.0,2.0,-2.0,-2.0,2.0,-2.0,2.0,-2.0,-2.0,2.0,-2.0,-2.0
2025-06-05 10:29:56.879,0.022618582,0.024742037,0.028541848,-0.0598116,0.22828521,-0.03249009,0.0,0.0,0.0,0.038128767,0.20669001,0.9325164,-0.52827036,-0.19975823,0.9173004,-0.51971024,0.19185272,-1.0832992,-0.5203039,0.20550339,-0.9678252,-0.5193712,-0.0557335,-0.071873896,0.049299005,-0.033795204,0.0083508175,0.058711547,0.00595585,-0.052468274,-0.016686706,-0.074392356,-0.01692449,0.060943965,2.0,2.0,-2.0,-2.0,2.0,-2.0,2.0,-2.0,-2.0,2.0,-2.0,-2.0,2.0,2.0,-2.0,-2.0,2.0,-2.0,2.0,-2.0,-2.0,2.0,-2.0,-2.0
2025-06-05 10:29:56.899,0.004344155,-0.017053816,0.040965483,0.026466908,0.21877855,0.03714897,0.0,0.0,0.0,0.0380788,0.21540512,0.94282734,-0.533197,-0.193991,0.91272247,-0.5203558,0.1907652,-1.0850317,-0.51853675,0.21099076,-0.9624824,-0.51529074,-0.05109498,-0.037631758,-0.024998846,-0.006367576,0.0035137306,0.03683627,0.010491917,0.0116028,0.04410092,0.06406798,-0.01628667,-0.06856464,2.0,2.0,-2.0,-2.0,2.0,-2.0,2.0,-2.0,-2.0,2.0,-2.0,-2.0,2.0,2.0,-2.0,-2.0,2.0,-2.0,2.0,-2.0,-2.0,2.0,-2.0,-2.0
2025-06-05 10:29:56.921,-0.015533713,0.04703846,-0.015257933,0.038764022,0.26484197,-0.03853693,0.0,0.0,0.0,0.038035654,0.21147178,0.9343285,-0.52826643,-0.20039372,0.91340065,-0.53800017,0.19577324,-1.084639,-0.5231103,0.20802225,-0.9723069,-0.53378284,0.023410778,-0.017318076,-0.05958246,-0.06798603,0.037717495,-0.04697422,0.051578745,0.04760438,-0.030179748,-0.009113209,0.038543984,-0.07388622,2.0,2.0,-2.0,-2.0,2.0,-2.0,2.0,-2.0,-2.0,2.0,-2.0,-2.0,2.0,2.0,-2.0,-2.0,2.0,-2.0,2.0,-2.0,-2.0,2.0,-2.0,-2.0
2025-06-05 10:29:56.939,0.031735204,0.005686742,-0.023456369,0.005022169,0.26208916,-0.027683252,0.0,0.0,0.0,0.03799965,0.21775761,0.9355729,-0.5358743,-0.18780643,0.920163,-0.52533656,0.19232209,-1.0787206,-0.52357733,0.21063821,-0.96367586,-0.52361625,0.071924165,0.0015346567,-0.07046955,-0.0055469344,-0.07236536,-0.04257134,-0.06818264,-0.00043225512,0.06464317,-0.07298106,-0.0054036626,0.040433783,2.0,2.0,-2.0,-2.0,2.0,-2.0,2.0,-2.0,-2.0,2.0,-2.0,-2.0,2.0,2.0,-2.0,-2.0,2.0,-2.0,2.0,-2.0,-2.0,2.0,-2.0,-2.0
2025-06-05 10:29:56.959,0.01020361,-0.022795571,0.050231088,-0.041070297,0.31334743,-0.048427533,0.0,0.0,0.0,0.03797014,0.2125986,0.9390423,-0.53006715,-0.19334872,0.9190941,-0.5402514,0.18789399,-1.0758855,-0.5295844,0.21198277,-0.9754271,-0.5154644,0.016712232,0.06988948,0.061014563,0.0056882715,0.01770021,0.04533799,0.027060091,-0.059625123,0.06786239,0.024983024,-0.0663336,-0.051911082,2.0,2.0,-2.0,-2.0,2.0,-2.0,2.0,-2.0,-2.0,2.0,-2.0,-2.0,2.0,2.0,-2.0,-2.0,2.0,-2.0,2.0,-2.0,-2.0,2.0,-2.0,-2.0
2025-06-05 10:29:56.979,-0.0035782354,0.046821244,-0.046993434,0.02085714,0.27967224,0.019750891,0.0,0.0,0.0,0.037946217,0.21547098,0.9383524,-0.52892965,-0.19457649,0.9195788,-0.5386959,0.18026775,-1.081148,-0.51827025,0.20522706,-0.9761837,-0.51824594,0.045566812,0.01611506,0.06742892,0.033393327,-0.051887177,-0.059264153,0.023439908,-0.0642908,0.008068283,-0.026612649,-0.024746248,-0.06169343,2.0,2.0,-2.0,-2.0,2.0,-2.0,2.0,-2.0,-2.0,2.0,-2.0,-2.0,2.0,2.0,-2.0,-2.0,2.0,-2.0,2.0,-2.0,-2.0,2.0,-2.0,-2.0
2025-06-05 10:29:56.999,-0.0408303,-0.0034543076,-0.045419775,-0.032037035,0.2989382,-0.020133,0.0,0.0,0.0,0.037926916,0.21618257,0.9465392,-0.53136754,-0.19106051,0.91479367,-0.52489984,0.19447504,-1.0905524,-0.51635396,0.1947366,-0.9680226,-0.5326562,0.056377575,-0.07217291,-0.0028250974,-0.024568092,0.04250392,-0.019735172,-0.07104886,-0.0265909,-0.0030276023,0.039688535,-0.004212661,0.0070414906,2.0,2.0,-2.0,-2.0,2.0,-2.0,2.0,-2.0,-2.0,2.0,-2.0,-2.0,2.0,2.0,-2.0,-2.0,2.0,-2.0,2.0,-2.0,-2.0,2.0,-2.0,-2.0
2025-06-05 10:29:57.021,-0.010373458,0.0045494726,-0.027505089,0.0017080697,0.2880577,-0.030003682,0.0,0.0,0.0,0.03791135,0.21449989,0.9409909,-0.53337574,-0.18789542,0.92679095,-0.5299275,0.19234931,-1.0811933,-0.52276874,0.20808132,-0.97128844,-0.52154297,0.029008254,0.051519588,0.057040893,-0.06473597,0.0041733994,0.043447442,-0.03531479,-0.011454216,-0.01159443,-0.031306945,0.06240755,0.016451573,2.0,2.0,-2.0,-2.0,2.0,-2.0,2.0,-2.0,-2.0,2.0,-2.0,-2.0,2.0,2.0,-2.0,-2.0,2.0,-2.0,2.0,-2.0,-2.0,2.0,-2.0,-2.0
2025-06-05 10:29:57.039,0.025369642,-0.032790035,0.012919613,-0.022396525,0.23824593,-0.033844043,0.0,0.0,0.0,0.037898798,0.21429983,0.935769,-0.54339725,-0.19052196,0.92281884,-0.5345303,0.18699954,-1.0944191,-0.53054816,0.2041306,-0.96310973,-0.52748924,0.00038713973,0.0041185003,0.003969197,0.07197834,0.015727516,0.025123091,0.0071055945,-0.025892671,0.012186473,0.047660813,0.05090426,-0.009713473,2.0,2.0,-2.0,-2.0,2.0,-2.0,2.0,-2.0,-2.0,2.0,-2.0,-2.0,2.0,2.0,-2.0,-2.0,2.0,-2.0,2.0,-2.0,-2.0,2.0,-2.0,-2.0
2025-06-05 10:29:57.059,-0.042689014,0.01697025,0.039650492,-0.048399445,0.25423238,-0.034993052,0.0,0.0,0.0,0.037888747,0.21153137,0.94375885,-0.5389363,-0.1945524,0.91253597,-0.53647536,0.18475066,-1.0906414,-0.5209764,0.21101713,-0.9651809,-0.51873004,-0.056110248,-0.018000208,-0.035965987,-0.06540609,0.042847697,0.0704551,0.011078209,-0.061077453,0.017870642,0.04871082,-0.022133004,-0.025180038,2.0,2.0,-2.0,-2.0,2.0,-2.0,2.0,-2.0,-2.0,2.0,-2.0,-2.0,2.0,2.0,-2.0,-2.0,2.0,-2.0,2.0,-2.0,-2.0,2.0,-2.0,-2.0
2025-06-05 10:29:57.079,-0.03684865,-0.012302906,0.046946455,0.006095503,0.30484518,-0.008228736,0.0,0.0,0.0,0.037880547,0.20960067,0.9366412,-0.5364268,-0.19559412,0.91779405,-0.5316801,0.18768923,-1.0957721,-0.53051466,0.20301077,-0.9628678,-0.5309109,0.057364542,-0.03293687,0.0685147,-0.050834317,-0.06434662,-0.036102798,0.07102695,0.019087147,0.03172014,-0.05317862,-0.06905056,-0.052704558,2.0,2.0,-2.0,-2.0,2.0,-2.0,2.0,-2.0,-2.0,2.0,-2.0,-2.0,2.0,2.0,-2.0,-2.0,2.0,-2.0,2.0,-2.0,-2.0,2.0,-2.0,-2.0
2025-06-05 10:29:57.100,0.018857008,0.044417936,0.024808003,0.007898036,0.22308505,-0.012499844,0.0,0.0,0.0,0.03787397,0.21961343,0.94133645,-0.5331098,-0.19427486,0.91949624,-0.53519285,0.18509153,-1.0772198,-0.5360837,0.20645185,-0.9769892,-0.53523713,-0.017762782,0.028992997,-0.004932941,-0.015975699,0.06388274,-0.008762529,0.06693534,-0.0010274898,-0.058651324,0.025753226,0.055285554,0.07221454,2.0,2.0,-2.0,-2.0,2.0,-2.0,2.0,-2.0,-2.0,2.0,-2.0,-2.0,2.0,2.0,-2.0,-2.0,2.0,-2.0,2.0,-2.0,-2.0,2.0,-2.0,-2.0
2025-06-05 10:29:57.121,0.0018051666,0.005942138,-0.013356612,-0.018651763,0.22216153,0.022106178,0.0,0.0,0.0,0.03786906,0.21373959,0.94749504,-0.5447406,-0.19368486,0.91347873,-0.5326934,0.17902151,-1.0873388,-0.522087,0.20667863,-0.9702739,-0.52777845,0.05869937,0.0008523146,-0.005358698,0.008507273,0.02940562,-0.032801054,0.0019488411,0.05864771,0.030166024,0.01574738,0.053103797,0.03757012,2.0,2.0,-2.0,-2.0,2.0,-2.0,2.0,-2.0,-2.0,2.0,-2.0,-2.0,2.0,2.0,-2.0,-2.0,2.0,-2.0,2.0,-2.0,-2.0,2.0,-2.0,-2.0
2025-06-05 10:29:57.139,-0.0077433437,-0.039621368,-0.03888841,-0.0055045583,0.24229018,0.0071781217,0.0,0.0,0.0,0.037865516,0.21490455,0.9428658,-0.54119694,-0.19106486,0.92693,-0.53468347,0.1819433,-1.0839322,-0.5213592,0.19498172,-0.966114,-0.53039044,-0.06890808,-0.030673295,0.028479824,0.027995927,-0.018223023,0.04325577,0.038698662,-0.06542395,0.0024453935,-0.07422895,0.029329427,-0.009048453,2.0,2.0,-2.0,-2.0,2.0,-2.0,2.0,-2.0,-2.0,2.0,-2.0,-2.0,2.0,2.0,-2.0,-2.0,2.0,-2.0,2.0,-2.0,-2.0,2.0,-2.0,-2.0
2025-06-05 10:29:57.160,0.016082145,0.0020440707,-0.0457406,-0.05682631,0.28186512,0.016146796,0.0,0.0,0.0,0.037862927,0.20911881,0.93475986,-0.5365825,-0.2043827,0.9207784,-0.5392302,0.18362446,-1.0770543,-0.53704476,0.20293526,-0.98110235,-0.5210295,-0.04544383,0.07149222,-0.054585814,0.045121685,-0.04187129,-0.042191863,0.027848179,-0.045983166,0.027912457,-0.008601948,-0.06449215,0.049875952,2.0,2.0,-2.0,-2.0,2.0,-2.0,2.0,-2.0,-2.0,2.0,-2.0,-2.0,2.0,2.0,-2.0,-2.0,2.0,-2.0,2.0,-2.0,-2.0,2.0,-2.0,-2.0
2025-06-05 10:29:57.180,-0.03831905,-0.039887447,-0.016241327,-0.032745548,0.25518847,0.0075365948,0.0,0.0,0.0,0.037861068,0.21137798,0.9317678,-0.5404429,-0.2049807,0.92757505,-0.5291531,0.18894115,-1.0788167,-0.5301615,0.2019106,-0.98156434,-0.52089113,0.05258295,-0.037828967,-0.07140764,-0.017629523,-0.06451824,0.01015799,0.038965978,-0.028069288,-0.018299896,-0.0061891275,0.06693384,-0.0708427,2.0,2.0,-2.0,-2.0,2.0,-2.0,2.0,-2.0,-2.0,2.0,-2.0,-2.0,2.0,2.0,-2.0,-2.0,2.0,-2.0,2.0,-2.0,-2.0,2.0,-2.0,-2.0
2025-06-05 10:29:57.200,0.025485765,-0.036330696,0.029580213,-0.026943367,0.30889845,-0.005917636,0.0,0.0,0.0,0.03785964,0.21494539,0.9358413,-0.54048556,-0.1923157,0.91455173,-0.5283788,0.18769503,-1.0844665,-0.5197395,0.19312432,-0.98224974,-0.519095,0.05935979,0.014645816,-0.03352072,0.018815964,-0.044505727,0.007707923,0.03386353,0.050449625,0.060436934,-0.03746508,-0.045982465,0.06332467,2.0,2.0,-2.0,-2.0,2.0,-2.0,2.0,-2.0,-2.0,2.0,-2.0,-2.0,2.0,2.0,-2.0,-2.0,2.0,-2.0,2.0,-2.0,-2.0,2.0,-2.0,-2.0
2025-06-05 10:29:57.221,-0.018130057,0.03798829,0.030128058,0.018227393,0.22177881,0.01044073,0.0,0.0,0.0,0.037858672,0.22550921,0.9410785,-0.53043264,-0.20144852,0.92458373,-0.5357094,0.193703,-1.083658,-0.5201097,0.21003775,-0.9661284,-0.5320184,0.020174671,-0.0029892768,-0.069775745,0.055666786,-0.068192355,-0.032774754,-0.0042069503,-0.031735033,-0.063097216,0.00026280349,-0.003439499,-0.060185824,2.0,2.0,-2.0,-2.0,2.0,-2.0,2.0,-2.0,-2.0,2.0,-2.0,-2.0,2.0,2.0,-2.0,-2.0,2.0,-2.0,2.0,-2.0,-2.0,2.0,-2.0,-2.0
2025-06-05 10:29:57.240,0.04066989,0.04203,0.03146908,0.024134528,0.31056073,-0.04425842,0.0,0.0,0.0,0.037857894,0.2245471,0.95026827,-0.5408815,-0.2001591,0.92061776,-0.54290205,0.18438062,-1.0802195,-0.52938914,0.20532867,-0.9684873,-0.5196546,-0.065639295,-0.017434148,0.02118258,-0.048813052,-0.056428198,0.0618566,-0.046031937,0.0059537105,0.016288206,0.056458637,0.014778364,0.0034122136,2.0,2.0,-2.0,-2.0,2.0,-2.0,2.0,-2.0,-2.0,2.0,-2.0,-2.0,2.0,2.0,-2.0,-2.0,2.0,-2.0,2.0,-2.0,-2.0,2.0,-2.0,-2.0
2025-06-05 10:29:57.261,-0.009338551,-0.040491693,-0.040028214,-0.038832743,0.23139584,-0.011246343,0.0,0.0,0.0,0.03785731,0.21322107,0.9491345,-0.5390101,-0.1985094,0.9250165,-0.53832126,0.19143237,-1.0872082,-0.53302515,0.19832437,-0.97043204,-0.53487986,0.06394502,-0.063152246,-0.050932236,0.024630656,0.046144538,0.0652312,-0.019741962,0.02965174,-0.06795702,-0.05725811,-0.013655794,0.027122915,2.0,2.0,-2.0,-2.0,2.0,-2.0,2.0,-2.0,-2.0,2.0,-2.0,-2.0,2.0,2.0,-2.0,-2.0,2.0,-2.0,2.0,-2.0,-2.0,2.0,-2.0,-2.0
2025-06-05 10:29:57.280,-0.0042881984,0.03977962,-0.041549522,0.02878055,0.2699887,0.0074168867,0.0,0.0,0.0,0.03785688,0.21635656,0.9394141,-0.535453,-0.19135536,0.91597176,-0.5302443,0.1805673,-1.0940804,-0.52090317,0.2106328,-0.9647105,-0.517454,-0.010224335,-0.04849961,-0.07398313,0.033598404,-0.012634329,0.045951717,-0.047843486,0.04291844,0.047216814,0.029053124,-0.07302758,-0.025642017,2.0,2.0,-2.0,-2.0,2.0,-2.0,2.0,-2.0,-2.0,2.0,-2.0,-2.0,2.0,2.0,-2.0,-2.0,2.0,-2.0,2.0,-2.0,-2.0,2.0,-2.0,-2.0
2025-06-05 10:29:57.303,-0.036175348,-0.0091815675,0.02328008,0.035260145,0.2245849,-0.040045753,0.0,0.0,0.0,0.03785656,0.21039549,0.9463655,-0.5393044,-0.20249365,0.90938723,-0.53137964,0.18641381,-1.0859642,-0.5216054,0.21032995,-0.9737692,-0.5183009,0.052463282,0.05595053,0.0074888626,-0.0042913514,-0.060268946,0.07035436,-0.011507782,0.06053341,0.014539789,-0.053938907,-0.003252795,0.064845905,2.0,2.0,-2.0,-2.0,2.0,-2.0,2.0,-2.0,-2.0,2.0,-2.0,-2.0,2.0,2.0,-2.0,-2.0,2.0,-2.0,2.0,-2.0,-2.0,2.0,-2.0,-2.0
2025-06-05 10:29:57.321,0.0062491535,-0.025020635,0.03113603,0.014037606,0.21812364,0.035402723,0.0,0.0,0.0,0.03785632,0.22043388,0.9421982,-0.5316634,-0.20267272,0.92328507,-0.53199726,0.18011001,-1.0778528,-0.5201092,0.20190878,-0.9813716,-0.53497493,-0.01951292,-0.019873625,0.0444062,-0.016639637,0.036998127,0.030539684,0.018417949,-0.038460966,-0.026461815,-0.007760851,-0.02787615,-0.036798324,2.0,2.0,-2.0,-2.0,2.0,-2.0,2.0,-2.0,-2.0,2.0,-2.0,-2.0,2.0,2.0,-2.0,-2.0,2.0,-2.0,2.0,-2.0,-2.0,2.0,-2.0,-2.0
2025-06-05 10:29:57.340,-0.0035165532,0.032702383,0.021472523,0.015507996,0.26070777,-0.011406282,0.0,0.0,0.0,0.03785615,0.214854,0.9355776,-0.5297545,-0.19405703,0.90980375,-0.54407436,0.19864322,-1.0838832,-0.53441256,0.20800513,-0.97305167,-0.5321788,0.0146952635,0.018951803,0.021504594,-0.022807684,-0.025374228,-0.033794496,-0.013221953,0.02511698,-0.02140976,0.050440732,-0.00999912,-0.06648361,2.0,2.0,-2.0,-2.0,2.0,-2.0,2.0,-2.0,-2.0,2.0,-2.0,-2.0,2.0,2.0,-2.0,-2.0,2.0,-2.0,2.0,-2.0,-2.0,2.0,-2.0,-2.0
2025-06-05 10:29:57.360,-0.007858681,0.034200538,0.04262556,0.027039114,0.28061932,0.019694269,0.0,0.0,0.0,0.03785604,0.21130857,0.9468151,-0.5392164,-0.19511153,0.9125927,-0.52970254,0.19545527,-1.0854952,-0.5198386,0.20327282,-0.96511716,-0.5338354,0.063125804,0.032964323,-0.047131673,-0.044532336,0.014864038,0.020030836,0.05316152,-0.045744687,-0.057554953,0.002634104,-0.04147295,-0.02584762,2.0,2.0,-2.0,-2.0,2.0,-2.0,2.0,-2.0,-2.0,2.0,-2.0,-2.0,2.0,2.0,-2.0,-2.0,2.0,-2.0,2.0,-2.0,-2.0,2.0,-2.0,-2.0
2025-06-05 10:29:57.380,0.017021505,0.034996442,-0.008958391,0.028659664,0.29110172,0.034170818,0.0,0.0,0.0,0.037855975,0.21682397,0.94571185,-0.52786535,-0.20007773,0.9292812,-0.53999203,0.18735823,-1.0852034,-0.5241005,0.2059919,-0.9677661,-0.52931416,-0.07359289,0.019600112,0.06784976,0.074913956,0.01559068,0.04460571,0.008940748,-0.008847328,0.040596295,-0.0013866764,0.053429168,0.03990277,2.0,2.0,-2.0,-2.0,2.0,-2.0,2.0,-2.0,-2.0,2.0,-2.0,-2.0,2.0,2.0,-2.0,-2.0,2.0,-2.0,2.0,-2.0,-2.0,2.0,-2.0,-2.0
2025-06-05 10:29:57.403,0.006673538,-0.0052221576,0.023725891,-0.052957647,0.28327453,0.03902494,0.0,0.0,0.0,0.037855953,0.22450504,0.9331033,-0.5275769,-0.19121535,0.917337,-0.53945637,0.18144137,-1.0886681,-0.52699095,0.19352703,-0.9777545,-0.52925444,0.060092825,-0.05778838,-0.015715342,-0.07175134,-0.016649542,0.040093616,-0.06554749,0.0352151,-0.06400843,-0.046973612,0.047691684,0.02607276,2.0,2.0,-2.0,-2.0,2.0,-2.0,2.0,-2.0,-2.0,2.0,-2.0,-2.0,2.0,2.0,-2.0,-2.0,2.0,-2.0,2.0,-2.0,-2.0,2.0,-2.0,-2.0
2025-06-05 10:29:57.420,0.03984197,-0.049909048,-0.012021467,-0.02214158,0.22222088,-0.0057233465,0.0,0.0,0.0,0.037855964,0.22698481,0.94300157,-0.5330807,-0.19445413,0.92458963,-0.5334097,0.18771544,-1.082495,-0.5321515,0.19786645,-0.9676959,-0.5271666,-0.013391348,-0.021455212,0.000580252,-0.05802766,0.0071083643,0.05961625,0.030947,0.034757186,-0.0045273877,0.012350971,0.03288678,0.0035962085,2.0,2.0,-2.0,-2.0,2.0,-2.0,2.0,-2.0,-2.0,2.0,-2.0,-2.0,2.0,2.0,-2.0,-2.0,2.0,-2.0,2.0,-2.0,-2.0,2.0,-2.0,-2.0
2025-06-05 10:29:57.440,0.019619172,0.02901283,0.047948956,-0.030407824,0.28118378,0.037211873,0.0,0.0,0.0,0.03785597,0.21183881,0.9469434,-0.52857196,-0.20472218,0.9144405,-0.52963614,0.19415599,-1.0833501,-0.53519505,0.20953742,-0.96551377,-0.5265191,-0.017084714,-0.072046705,-0.060009032,-0.036661193,-0.012656149,-0.023850305,0.060651258,0.022225121,-0.009533365,-0.040845253,-0.043018565,-0.008103851,2.0,2.0,-2.0,-2.0,2.0,-2.0,2.0,-2.0,-2.0,2.0,-2.0,-2.0,2.0,2.0,-2.0,-2.0,2.0,-2.0,2.0,-2.0,-2.0,2.0,-2.0,-2.0
2025-06-05 10:29:57.460,-0.0006194752,-0.0038690984,0.021956114,0.0012229305,0.2284212,-0.042610653,0.0,0.0,0.0,0.037855912,0.21920815,0.94178826,-0.5340542,-0.20010246,0.91899884,-0.5268734,0.18653224,-1.0764337,-0.52747405,0.2095024,-0.9726268,-0.52837354,0.072438836,0.0553393,0.0411145,0.030209411,-0.04135209,-0.027237903,0.045946307,0.02138309,-0.026638873,-0.057454467,-0.06368654,-0.031087736,2.0,2.0,-2.0,-2.0,2.0,-2.0,2.0,-2.0,-2.0,2.0,-2.0,-2.0,2.0,2.0,-2.0,-2.0,2.0,-2.0,2.0,-2.0,-2.0,2.0,-2.0,-2.0
2025-06-05 10:29:57.480,0.044714104,-0.0008237683,0.016355932,0.010708045,0.24523386,-0.016801775,0.0,0.0,0.0,0.03785588,0.224353,0.9451282,-0.5370767,-0.19106211,0.9163895,-0.54324216,0.187655,-1.0792428,-0.5213752,0.20635028,-0.96848166,-0.53623897,-0.021918368,-0.03133179,-0.015867349,0.0040925406,0.01625854,0.04346419,-0.056674678,0.03131257,-0.039768167,-0.06543192,-0.011701213,-0.073459394,2.0,2.0,-2.0,-2.0,2.0,-2.0,2.0,-2.0,-2.0,2.0,-2.0,-2.0,2.0,2.0,-2.0,-2.0,2.0,-2.0,2.0,-2.0,-2.0,2.0,-2.0,-2.0
2025-06-05 10:29:57.503,-0.008600785,0.041984726,-0.019524721,6.802845e-05,0.25379387,0.010794118,0.0,0.0,0.0,0.03785588,0.22032154,0.93459594,-0.52609396,-0.19380295,0.91026896,-0.5327972,0.18935294,-1.0901281,-0.5223607,0.21035576,-0.97939956,-0.53439933,0.03978344,0.024678404,-0.028231855,-0.04524303,-0.037847474,-0.0008975781,0.070916414,0.048622906,0.046632122,-0.06461968,-0.04651061,0.016605485,2.0,2.0,-2.0,-2.0,2.0,-2.0,2.0,-2.0,-2.0,2.0,-2.0,-2.0,2.0,2.0,-2.0,-2.0,2.0,-2.0,2.0,-2.0,-2.0,2.0,-2.0,-2.0
2025-06-05 10:29:57.521,-0.04152279,-0.008783111,0.04459066,-0.0497377,0.28497827,-0.03152912,0.0,0.0,0.0,0.037855845,0.2225143,0.9364679,-0.5282369,-0.19773544,0.9200105,-0.53437126,0.18499419,-1.0820297,-0.5242914,0.21210295,-0.9748816,-0.5277273,0.041483328,0.028772948,-0.0041114343,0.02741385,0.0042199655,0.056749053,-0.026878329,-0.060933135,-0.048507392,-0.04380092,-0.056805056,0.0015978086,2.0,2.0,-2.0,-2.0,2.0,-2.0,2.0,-2.0,-2.0,2.0,-2.0,-2.0,2.0,2.0,-2.0,-2.0,2.0,-2.0,2.0,-2.0,-2.0,2.0,-2.0,-2.0
2025-06-05 10:29:57.541,-0.022388453,0.001966193,0.024301363,0.03514772,0.2617321,0.007931969,0.0,0.0,0.0,0.037855797,0.21885568,0.9494525,-0.5373104,-0.18828893,0.92235744,-0.54432786,0.19477455,-1.0929018,-0.5336722,0.20875041,-0.9794271,-0.5246193,-0.032179773,-0.05029505,0.068731666,-0.007441313,0.0022431007,-0.041194603,-0.03693652,0.07349935,0.043218978,-0.05299253,0.013780496,-0.029029308,2.0,2.0,-2.0,-2.0,2.0,-2.0,2.0,-2.0,-2.0,2.0,-2.0,-2.0,2.0,2.0,-2.0,-2.0,2.0,-2.0,2.0,-2.0,-2.0,2.0,-2.0,-2.0
2025-06-05 10:29:57.562,0.02512662,-0.04806879,-0.02495252,-0.046617247,0.29407734,0.040707737,0.0,0.0,0.0,0.03785575,0.2177087,0.9345327,-0.5320312,-0.20271018,0.911577,-0.52746236,0.18104348,-1.0907233,-0.52147317,0.21244884,-0.96599793,-0.5348074,0.030404203,-0.056886755,0.047426283,0.010092296,0.06587059,-0.0054064905,-0.0368381,0.004055025,0.01835911,-0.027843598,0.0013639838,0.06959388,2.0,2.0,-2.0,-2.0,2.0,-2.0,2.0,-2.0,-2.0,2.0,-2.0,-2.0,2.0,2.0,-2.0,-2.0,2.0,-2.0,2.0,-2.0,-2.0,2.0,-2.0,-2.0
2025-06-05 10:29:57.582,-0.04516006,-0.018495873,-0.028723575,0.02294269,0.27451035,0.032970272,0.0,0.0,0.0,0.037855748,0.21820307,0.9435365,-0.53704643,-0.19846515,0.9259723,-0.5334219,0.1839399,-1.0874786,-0.5250241,0.19530764,-0.96519774,-0.5267967,-0.013532652,0.066285536,-0.05844802,0.057274498,-0.0299069,-0.012432426,-0.028270107,-0.006061758,-0.0060515474,-0.010511812,-0.024473622,-0.06642975,2.0,2.0,-2.0,-2.0,2.0,-2.0,2.0,-2.0,-2.0,2.0,-2.0,-2.0,2.0,2.0,-2.0,-2.0,2.0,-2.0,2.0,-2.0,-2.0,2.0,-2.0,-2.0
2025-06-05 10:29:57.604,0.044877067,0.019663332,-0.0020704535,0.020647472,0.29002115,-0.046277054,0.0,0.0,0.0,0.03785572,0.213064,0.9337057,-0.536121,-0.18869078,0.9275933,-0.5435717,0.19156265,-1.0818686,-0.5364499,0.19789015,-0.97684944,-0.53094107,0.008836239,0.013474659,0.006530414,-0.06446816,0.050413117,0.04865739,0.04220024,0.050861575,0.058583543,-0.056941953,-0.05628891,-0.0477311,2.0,2.0,-2.0,-2.0,2.0,-2.0,2.0,-2.0,-2.0,2.0,-2.0,-2.0,2.0,2.0,-2.0,-2.0,2.0,-2.0,2.0,-2.0,-2.0,2.0,-2.0,-2.0
2025-06-05 10:29:57.622,-0.02687132,0.008929888,-0.039152853,0.037318252,0.29440668,-0.03602262,0.0,0.0,0.0,0.03785569,0.21824157,0.9338242,-0.5414049,-0.18720204,0.9247615,-0.54196596,0.18948717,-1.0948771,-0.53050894,0.20208862,-0.9708424,-0.5191088,0.07117193,-0.009728519,-0.012111395,-0.0022298906,0.060544573,0.029754398,0.05637011,-0.07435947,0.030696228,-0.06530975,0.035797797,-0.052071765,2.0,2.0,-2.0,-2.0,2.0,-2.0,2.0,-2.0,-2.0,2.0,-2.0,-2.0,2.0,2.0,-2.0,-2.0,2.0,-2.0,2.0,-2.0,-2.0,2.0,-2.0,-2.0
2025-06-05 10:29:57.642,0.03654871,0.00765124,-0.009275003,-0.014535824,0.22681592,-0.005396624,0.0,0.0,0.0,0.037855666,0.20908049,0.9505436,-0.5388771,-0.18944772,0.9253838,-0.5361001,0.18092847,-1.0826811,-0.52330947,0.20353304,-0.979678,-0.52472097,0.028360061,0.024169924,0.014687419,-0.029724011,-0.064089164,-0.055808496,0.05798831,0.05566431,0.04068339,0.050631113,-0.056552064,-0.03975865,2.0,2.0,-2.0,-2.0,2.0,-2.0,2.0,-2.0,-2.0,2.0,-2.0,-2.0,2.0,2.0,-2.0,-2.0,2.0,-2.0,2.0,-2.0,-2.0,2.0,-2.0,-2.0
2025-06-05 10:29:57.662,-0.0116723105,0.022249103,-0.029910982,-0.06095814,0.26955146,-0.022801584,0.0,0.0,0.0,0.037855648,0.21419044,0.9329742,-0.5356669,-0.18723783,0.911915,-0.54077893,0.1904087,-1.0933069,-0.5356195,0.20343164,-0.97675574,-0.5183627,-0.069088526,0.054137364,0.061724305,-0.039205667,0.0064631603,0.005267481,-0.063144095,-0.022652008,-0.017706405,-0.037439007,-0.010200461,0.0067023938,2.0,2.0,-2.0,-2.0,2.0,-2.0,2.0,-2.0,-2.0,2.0,-2.0,-2.0,2.0,2.0,-2.0,-2.0,2.0,-2.0,2.0,-2.0,-2.0,2.0,-2.0,-2.0
2025-06-05 10:29:57.682,0.045391623,-0.045630533,-0.008121904,-0.015384282,0.26932633,0.0132312225,0.0,0.0,0.0,0.03785563,0.2268981,0.94502443,-0.54011816,-0.20200528,0.9249988,-0.53394336,0.17993306,-1.0931567,-0.53857636,0.21221098,-0.9747205,-0.51958,0.066374384,-0.024861395,0.031053847,-0.06579945,-0.009305139,-0.027728114,-0.06739269,-0.04577138,-0.014178989,0.011618038,0.061438132,0.024414884,2.0,2.0,-2.0,-2.0,2.0,-2.0,2.0,-2.0,-2.0,2.0,-2.0,-2.0,2.0,2.0,-2.0,-2.0,2.0,-2.0,2.0,-2.0,-2.0,2.0,-2.0,-2.0
2025-06-05 10:29:57.704,-0.009766026,-0.018259404,-0.00028641443,-0.03440013,0.22005035,0.039941877,0.0,0.0,0.0,0.037855614,0.21501018,0.9405441,-0.5349562,-0.19064954,0.9274839,-0.5345183,0.18895629,-1.0801713,-0.5359358,0.19797762,-0.970061,-0.52233213,0.04649678,0.040839754,0.05519849,-0.052565932,0.033242494,-0.0045859693,-0.06357078,-0.04121881,0.060135886,-0.025392443,-0.020204967,0.073070966,2.0,2.0,-2.0,-2.0,2.0,-2.0,2.0,-2.0,-2.0,2.0,-2.0,-2.0,2.0,2.0,-2.0,-2.0,2.0,-2.0,2.0,-2.0,-2.0,2.0,-2.0,-2.0
2025-06-05 10:29:57.722,-0.004890437,0.040746164,0.02036813,0.001539831,0.2192818,-0.014379513,0.0,0.0,0.0,0.037855603,0.21341154,0.9322178,-0.5444622,-0.1960551,0.9254591,-0.52616715,0.19222389,-1.0942347,-0.52542865,0.20701191,-0.9692183,-0.5270599,0.05447157,0.012997462,0.014095042,-0.049333036,0.050078377,-0.0741566,0.057570394,0.016922822,0.07227214,-0.0605876,0.06539926,-0.013649384,2.0,2.0,-2.0,-2.0,2.0,-2.0,2.0,-2.0,-2.0,2.0,-2.0,-2.0,2.0,2.0,-2.0,-2.0,2.0,-2.0,2.0,-2.0,-2.0,2.0,-2.0,-2.0
2025-06-05 10:29:57.742,0.03606656,-0.025000265,0.015462443,-0.0069992864,0.22795998,-0.0033786003,0.0,0.0,0.0,0.037855595,0.20713618,0.94195235,-0.54386383,-0.19908994,0.91529053,-0.5305036,0.19344875,-1.0823414,-0.53551126,0.19747676,-0.97513825,-0.5290089,0.047928806,-0.032223262,-0.014539695,0.013266504,0.010467431,0.044472784,-0.0068884464,0.031801254,0.06176989,0.0021976377,0.06664492,0.065315455,2.0,2.0,-2.0,-2.0,2.0,-2.0,2.0,-2.0,-2.0,2.0,-2.0,-2.0,2.0,2.0,-2.0,-2.0,2.0,-2.0,2.0,-2.0,-2.0,2.0,-2.0,-2.0
2025-06-05 10:29:57.762,0.033694744,0.0074158083,0.0039428165,0.015658218,0.2579106,0.04438757,0.0,0.0,0.0,0.037855588,0.21628334,0.9398317,-0.5384448,-0.19009043,0.9170267,-0.5384118,0.19369563,-1.0785899,-0.5379548,0.195394,-0.975192,-0.5332266,0.053934436,-0.06618442,0.046387747,-0.04420697,0.06925794,-0.03587217,-0.0151794385,0.053243287,0.011329809,0.047222827,-0.041170362,0.036608875,2.0,2.0,-2.0,-2.0,2.0,-2.0,2.0,-2.0,-2.0,2.0,-2.0,-2.0,2.0,2.0,-2.0,-2.0,2.0,-2.0,2.0,-2.0,-2.0,2.0,-2.0,-2.0
2025-06-05 10:29:57.782,0.01470585,-0.014633393,0.0024333408,-0.058131117,0.2610984,-0.013126432,0.0,0.0,0.0,0.037855648,0.2199745,0.9358248,-0.53525305,-0.19458765,0.9202835,-0.53924674,0.196442,-1.0773233,-0.5366237,0.19621001,-0.9713877,-0.52279323,-0.042999893,-0.023276893,-0.017216744,-0.040598355,0.06603198,-0.07372941,0.0048728185,-0.006235392,0.01731095,0.018553803,0.03285399,0.016543612,2.0,2.0,-2.0,-2.0,2.0,-2.0,2.0,-2.0,-2.0,2.0,-2.0,-2.0,2.0,2.0,-2.0,-2.0,2.0,-2.0,2.0,-2.0,-2.0,2.0,-2.0,-2.0
2025-06-05 10:29:57.804,0.015293084,-0.024090175,-0.0067919977,0.038236447,0.23457153,-0.00046841704,0.0,0.0,0.0,0.037855793,0.22593427,0.9388472,-0.5427162,-0.1962984,0.9204452,-0.5350991,0.18911935,-1.0769184,-0.52988625,0.20542865,-0.9761865,-0.5203217,0.069283776,0.055355594,-0.061966434,0.034752324,-0.00569003,0.013931606,0.051584553,-0.04517146,0.015226293,-0.047208395,-0.0061376775,0.008986513,2.0,2.0,-2.0,-2.0,2.0,-2.0,2.0,-2.0,-2.0,2.0,-2.0,-2.0,2.0,2.0,-2.0,-2.0,2.0,-2.0,2.0,-2.0,-2.0,2.0,-2.0,-2.0
2025-06-05 10:29:57.822,-0.03965678,-0.033804733,-0.0008342186,0.023619005,0.26949412,-0.048799515,0.0,0.0,0.0,0.03785595,0.21217805,0.9436958,-0.54188067,-0.19176273,0.91133815,-0.5454735,0.1862666,-1.0886992,-0.53558916,0.20431547,-0.9632616,-0.5269902,-0.05313285,-0.064222805,0.06380421,0.030962542,0.048610266,0.07124701,-0.0045574848,-0.070446186,-0.040168837,-0.013741065,0.0028743776,0.0006262702,2.0,2.0,-2.0,-2.0,2.0,-2.0,2.0,-2.0,-2.0,2.0,-2.0,-2.0,2.0,2.0,-2.0,-2.0,2.0,-2.0,2.0,-2.0,-2.0,2.0,-2.0,-2.0
2025-06-05 10:29:57.843,0.019062094,-0.028028361,-0.040242903,0.03426642,0.24140081,-0.0049534314,0.0,0.0,0.0,0.03785599,0.2082866,0.9347248,-0.53698534,-0.18701465,0.91841155,-0.54183555,0.19417113,-1.0819665,-0.5330927,0.21262206,-0.969,-0.53383875,-0.04251722,0.011629409,-0.064817585,-0.01648352,0.024145175,-0.012038698,-0.034765165,-0.065769926,0.072501324,-0.039039325,-0.0068073063,-0.0019693852,2.0,2.0,-2.0,-2.0,2.0,-2.0,2.0,-2.0,-2.0,2.0,-2.0,-2.0,2.0,2.0,-2.0,-2.0,2.0,-2.0,2.0,-2.0,-2.0,2.0,-2.0,-2.0
2025-06-05 10:29:57.863,-0.026851894,-0.04764024,-0.0021349634,-0.034063447,0.30808803,-0.026320657,0.0,0.0,0.0,0.03785601,0.21792768,0.94235164,-0.5353958,-0.19397007,0.91089123,-0.5411763,0.1869581,-1.0776459,-0.5257791,0.20419298,-0.96450233,-0.51657283,-0.045923464,-0.073146425,0.07147215,0.027093187,0.05068302,0.042102996,-0.007252295,0.06541939,0.07130786,-0.03200401,-0.06532739,-0.028505487,2.0,2.0,-2.0,-2.0,2.0,-2.0,2.0,-2.0,-2.0,2.0,-2.0,-2.0,2.0,2.0,-2.0,-2.0,2.0,-2.0,2.0,-2.0,-2.0,2.0,-2.0,-2.0
2025-06-05 10:29:57.883,0.045457073,-0.023874233,-0.014249456,-0.058747116,0.22697334,-0.0025212946,0.0,0.0,0.0,0.037856024,0.22491886,0.93470055,-0.53904045,-0.20555086,0.9252723,-0.5343759,0.18733197,-1.0777073,-0.5253513,0.21209073,-0.9629167,-0.51775545,0.07446354,0.07179504,0.027104614,0.041794278,-0.06536774,-0.058085945,0.04238834,-0.04365297,-0.014183032,0.0040403097,-0.07070575,-0.050612386,2.0,2.0,-2.0,-2.0,2.0,-2.0,2.0,-2.0,-2.0,2.0,-2.0,-2.0,2.0,2.0,-2.0,-2.0,2.0,-2.0,2.0,-2.0,-2.0,2.0,-2.0,-2.0
2025-06-05 10:29:57.904,0.0070118015,0.036592145,0.0025477349,0.001596947,0.241836,-0.04943066,0.0,0.0,0.0,0.037856035,0.21105985,0.94091016,-0.5377107,-0.19131503,0.9149544,-0.5409367,0.18335685,-1.088763,-0.52829677,0.19781421,-0.9652743,-0.5298483,-0.059468888,-0.046820696,0.00029946282,-0.060989078,-0.0008899091,-0.051996272,-0.042731054,0.051874362,-0.032206226,0.06289345,0.027536066,-0.04220674,2.0,2.0,-2.0,-2.0,2.0,-2.0,2.0,-2.0,-2.0,2.0,-2.0,-2.0,2.0,2.0,-2.0,-2.0,2.0,-2.0,2.0,-2.0,-2.0,2.0,-2.0,-2.0
2025-06-05 10:29:57.923,-0.015818784,-0.02702798,0.020475488,-0.024799015,0.23952688,0.037038803,0.0,0.0,0.0,0.037856042,0.2237045,0.9340394,-0.52687305,-0.20584393,0.9274079,-0.5309361,0.1814602,-1.0791984,-0.53074,0.20627068,-0.9812809,-0.5188616,-0.056368735,-0.01984943,0.058036387,0.07390528,-0.034593888,0.016317347,0.020213712,0.031493973,0.0050726277,-0.00076641137,0.014785596,-0.00754839,2.0,2.0,-2.0,-2.0,2.0,-2.0,2.0,-2.0,-2.0,2.0,-2.0,-2.0,2.0,2.0,-2.0,-2.0,2.0,-2.0,2.0,-2.0,-2.0,2.0,-2.0,-2.0
2025-06-05 10:29:57.944,-0.024560878,0.033509035,0.014133904,-0.0016455377,0.2982774,-0.040280424,0.0,0.0,0.0,0.037856046,0.21151505,0.95042914,-0.5399949,-0.20661207,0.921299,-0.5349084,0.18213342,-1.0770595,-0.53433466,0.20353323,-0.9706217,-0.52650976,0.05873706,-0.028705038,-0.049892996,0.034039207,0.06553095,-0.06259876,0.045279752,-0.07243414,-0.058804244,-0.015200898,0.0112607805,0.009218297,2.0,2.0,-2.0,-2.0,2.0,-2.0,2.0,-2.0,-2.0,2.0,-2.0,-2.0,2.0,2.0,-2.0,-2.0,2.0,-2.0,2.0,-2.0,-2.0,2.0,-2.0,-2.0
2025-06-05 10:29:57.964,0.034046225,-0.0341653,0.031415086,-0.058739692,0.26743796,0.019634722,0.0,0.0,0.0,0.03785605,0.21087305,0.9444664,-0.5427295,-0.19807138,0.913588,-0.53833556,0.19366147,-1.0926834,-0.5248877,0.19648793,-0.97812563,-0.52817446,-0.023234727,-0.052566204,-0.05085081,0.037509758,0.03437721,-0.061812714,-0.05528199,0.058387283,0.031787813,0.0680529,0.071880676,0.051457416,2.0,2.0,-2.0,-2.0,2.0,-2.0,2.0,-2.0,-2.0,2.0,-2.0,-2.0,2.0,2.0,-2.0,-2.0,2.0,-2.0,2.0,-2.0,-2.0,2.0,-2.0,-2.0
2025-06-05 10:29:57.983,0.029720098,-0.015440362,-0.0015921685,0.026182976,0.22786224,0.0027172402,0.0,0.0,0.0,0.037856054,0.20958728,0.93560326,-0.544988,-0.19115636,0.9113939,-0.5358287,0.18673244,-1.0864009,-0.5206187,0.1954449,-0.9654111,-0.53583604,-0.056560032,-0.014994909,0.007022258,-0.016366605,-0.052183505,0.007512203,0.022518534,0.03577752,-0.073117755,0.05545217,0.0014671573,0.057482503,2.0,2.0,-2.0,-2.0,2.0,-2.0,2.0,-2.0,-2.0,2.0,-2.0,-2.0,2.0,2.0,-2.0,-2.0,2.0,-2.0,2.0,-2.0,-2.0,2.0,-2.0,-2.0
2025-06-05 10:29:58.004,-0.04156355,0.037579343,-0.039176248,-0.004799687,0.2632097,-0.044186387,0.0,0.0,0.0,0.037856057,0.2121584,0.9389893,-0.54586357,-0.19859566,0.92726547,-0.53912836,0.18918587,-1.0870018,-0.52765495,0.19900672,-0.981284,-0.5279071,-0.026013725,-0.028222697,-0.03360913,-0.0042974553,0.0178897,0.0069900285,0.055159252,0.01765474,-0.009248896,0.0054192813,-0.0016411928,0.017350966,2.0,2.0,-2.0,-2.0,2.0,-2.0,2.0,-2.0,-2.0,2.0,-2.0,-2.0,2.0,2.0,-2.0,-2.0,2.0,-2.0,2.0,-2.0,-2.0,2.0,-2.0,-2.0
2025-06-05 10:29:58.023,-0.02998792,-0.0079344,-0.0008055005,-0.050602082,0.2363873,-0.027040372,0.0,0.0,0.0,0.037856057,0.21986909,0.9425234,-0.5334514,-0.20587182,0.9289547,-0.52776617,0.19767095,-1.0808442,-0.52126545,0.21101494,-0.97873867,-0.523532,0.047138896,-0.036747966,-0.0721698,0.045723546,-0.040712163,-0.0527463,0.0640628,-0.02608242,-0.030217974,-0.062813655,0.046921603,0.03150335,2.0,2.0,-2.0,-2.0,2.0,-2.0,2.0,-2.0,-2.0,2.0,-2.0,-2.0,2.0,2.0,-2.0,-2.0,2.0,-2.0,2.0,-2.0,-2.0,2.0,-2.0,-2.0
2025-06-05 10:29:58.043,0.040418487,0.018099321,0.006112113,0.011303691,0.26681685,-0.030072838,0.0,0.0,0.0,0.037856072,0.21417513,0.93593985,-0.5317003,-0.19359732,0.92922217,-0.5309763,0.19549634,-1.084048,-0.52196753,0.20749746,-0.9673644,-0.5348455,0.021354174,0.03306183,0.05385833,-0.055548426,-0.047067095,0.03064401,-0.060886692,0.031243924,-0.04821649,0.035519745,-0.030065035,0.058888614,2.0,2.0,-2.0,-2.0,2.0,-2.0,2.0,-2.0,-2.0,2.0,-2.0,-2.0,2.0,2.0,-2.0,-2.0,2.0,-2.0,2.0,-2.0,-2.0,2.0,-2.0,-2.0
2025-06-05 10:29:58.063,-0.04512725,-0.01844145,-0.039171573,-0.04549872,0.2666544,0.049419343,0.0,0.0,0.0,0.037856087,0.21253376,0.9451891,-0.54509526,-0.19318222,0.91638666,-0.53294724,0.1908061,-1.0948652,-0.5311079,0.19351779,-0.97481805,-0.52302194,-0.019134087,-0.0002685103,0.00088061043,0.045226518,-0.050839238,-0.016578568,0.031917863,0.0618338,-0.045626402,0.026563907,0.018050238,-0.040962864,2.0,2.0,-2.0,-2.0,2.0,-2.0,2.0,-2.0,-2.0,2.0,-2.0,-2.0,2.0,2.0,-2.0,-2.0,2.0,-2.0,2.0,-2.0,-2.0,2.0,-2.0,-2.0
2025-06-05 10:29:58.083,-0.01770532,0.040317204,0.011825269,0.017344788,0.2731899,-0.017664682,0.0,0.0,0.0,0.03785609,0.22113013,0.9455218,-0.5387911,-0.20560767,0.9276327,-0.5288305,0.18845595,-1.0807306,-0.5388836,0.21256466,-0.963058,-0.5221386,0.0562435,-0.026340716,0.026076782,-0.056400392,-0.026069047,-0.036322065,-0.05777614,-0.033078127,-0.005745211,0.044747572,0.05179974,0.039514292,2.0,2.0,-2.0,-2.0,2.0,-2.0,2.0,-2.0,-2.0,2.0,-2.0,-2.0,2.0,2.0,-2.0,-2.0,2.0,-2.0,2.0,-2.0,-2.0,2.0,-2.0,-2.0
2025-06-05 10:29:58.104,-0.028430413,0.031474702,-0.03758137,-0.019248415,0.29483262,0.014558508,0.0,0.0,0.0,0.037856095,0.2185809,0.9496019,-0.5309077,-0.196359,0.91537535,-0.5394622,0.19487198,-1.0951146,-0.5237951,0.19504194,-0.98203903,-0.53341013,-0.05397138,0.024491027,-0.042681556,0.050447416,-0.06811019,0.02667288,-0.04319246,0.04544696,-0.0090102265,-0.011549118,0.0370184,-0.026342275,2.0,2.0,-2.0,-2.0,2.0,-2.0,2.0,-2.0,-2.0,2.0,-2.0,-2.0,2.0,2.0,-2.0,-2.0,2.0,-2.0,2.0,-2.0,-2.0,2.0,-2.0,-2.0
2025-06-05 10:29:58.123,-0.03402335,0.04021429,0.034250546,0.03820043,0.26199237,0.033430636,0.0,0.0,0.0,0.037856102,0.22202453,0.93663806,-0.5379918,-0.19618997,0.92315465,-0.5283116,0.18660337,-1.0811204,-0.53530407,0.20708236,-0.96450794,-0.5251899,0.06703212,0.034627277,0.04680562,0.03644389,0.05199579,-0.01593124,0.0017535497,-0.04633677,-0.040930916,-0.012751483,0.019967575,0.059014283,2.0,2.0,-2.0,-2.0,2.0,-2.0,2.0,-2.0,-2.0,2.0,-2.0,-2.0,2.0,2.0,-2.0,-2.0,2.0,-2.0,2.0,-2.0,-2.0,2.0,-2.0,-2.0
2025-06-05 10:29:58.145,0.04021455,0.016436886,-0.027445206,-0.029477656,0.2927226,-0.019858418,0.0,0.0,0.0,0.037856106,0.22265334,0.9409341,-0.527024,-0.1947957,0.9196954,-0.53356946,0.18106909,-1.0945438,-0.52492654,0.21214294,-0.9686656,-0.5352042,0.06991823,-0.03625861,-0.030571282,-0.051989682,-0.021763822,-0.07248063,-0.0110456,-0.04341052,0.031290617,0.045958504,-0.030646296,-0.02398817,2.0,2.0,-2.0,-2.0,2.0,-2.0,2.0,-2.0,-2.0,2.0,-2.0,-2.0,2.0,2.0,-2.0,-2.0,2.0,-2.0,2.0,-2.0,-2.0,2.0,-2.0,-2.0
2025-06-05 10:29:58.164,-0.036778055,0.04063676,-0.0051340894,-0.02239752,0.27662522,0.035290185,0.0,0.0,0.0,0.037856113,0.21804798,0.9354854,-0.5405973,-0.19711266,0.9133848,-0.52597266,0.1918757,-1.0814128,-0.53595495,0.19990514,-0.97240514,-0.53599364,-0.03854892,-0.06818296,0.06339524,0.020858431,-0.03467348,0.07295958,0.030248752,0.02918326,0.048191573,0.019803926,0.038632307,-0.008303294,2.0,2.0,-2.0,-2.0,2.0,-2.0,2.0,-2.0,-2.0,2.0,-2.0,-2.0,2.0,2.0,-2.0,-2.0,2.0,-2.0,2.0,-2.0,-2.0,2.0,-2.0,-2.0
2025-06-05 10:29:58.186,-0.02741957,0.02101709,0.031218242,0.036299873,0.24152836,-0.024853807,0.0,0.0,0.0,0.037856117,0.22177158,0.9331377,-0.5450943,-0.19235133,0.9162254,-0.53025895,0.18823658,-1.0871413,-0.5354059,0.2090122,-0.97428733,-0.52688277,0.07021445,0.019971158,0.016671704,-0.01955154,0.028476303,0.06462922,0.047680724,0.058746517,-0.028511021,-0.034210335,0.05384783,0.059657533,2.0,2.0,-2.0,-2.0,2.0,-2.0,2.0,-2.0,-2.0,2.0,-2.0,-2.0,2.0,2.0,-2.0,-2.0,2.0,-2.0,2.0,-2.0,-2.0,2.0,-2.0,-2.0
2025-06-05 10:29:58.204,0.047082387,-0.04154422,0.014423073,0.02304295,0.27569595,-0.024733346,0.0,0.0,0.0,0.03785612,0.21609381,0.9447241,-0.5272308,-0.18820032,0.92368776,-0.54445314,0.18347609,-1.093229,-0.52507174,0.20665357,-0.9795263,-0.5362248,0.05826441,-0.068540394,-0.044702437,-0.027446054,-0.059558257,-0.07250947,-0.0118990475,0.0058043795,0.036153566,-0.053750087,-0.053225726,-0.020636989,2.0,2.0,-2.0,-2.0,2.0,-2.0,2.0,-2.0,-2.0,2.0,-2.0,-2.0,2.0,2.0,-2.0,-2.0,2.0,-2.0,2.0,-2.0,-2.0,2.0,-2.0,-2.0
2025-06-05 10:29:58.224,-0.04904836,0.011766333,-0.014287834,-0.05525839,0.2710571,0.04088069,0.0,0.0,0.0,0.037856128,0.21548995,0.93774766,-0.5444309,-0.18803667,0.9277014,-0.5379577,0.18902384,-1.0816172,-0.5332465,0.19663188,-0.96272177,-0.5276591,0.039274,0.02438277,0.04343356,0.028917406,-0.0080345655,0.027456969,-0.07085082,-0.06018744,0.04058571,0.056030087,0.017762326,0.046037648,2.0,2.0,-2.0,-2.0,2.0,-2.0,2.0,-2.0,-2.0,2.0,-2.0,-2.0,2.0,2.0,-2.0,-2.0,2.0,-2.0,2.0,-2.0,-2.0,2.0,-2.0,-2.0
2025-06-05 10:29:58.245,0.046328947,-0.02327427,0.012752322,0.020550013,0.25292745,0.01927602,0.0,0.0,0.0,0.03785613,0.21880747,0.93899983,-0.5333536,-0.20218103,0.92651427,-0.5447107,0.19643171,-1.0902054,-0.52202934,0.1994934,-0.9655661,-0.517526,0.015894154,0.057775024,-0.05597902,-0.024372865,-0.024825104,-0.022974338,-0.002763376,-0.04724579,0.003509564,-0.023476988,-0.005665848,0.06770199,2.0,2.0,-2.0,-2.0,2.0,-2.0,2.0,-2.0,-2.0,2.0,-2.0,-2.0,2.0,2.0,-2.0,-2.0,2.0,-2.0,2.0,-2.0,-2.0,2.0,-2.0,-2.0
2025-06-05 10:29:58.264,0.03943052,-0.038547873,-0.009858498,-0.053794626,0.2445323,-0.04256473,0.0,0.0,0.0,0.037856136,0.21258552,0.9502091,-0.544974,-0.19047251,0.92832613,-0.5384756,0.19265762,-1.0932248,-0.5230924,0.20368396,-0.97708625,-0.51634777,-0.047948837,-0.022890965,0.013462195,0.008312852,-0.060411565,-0.0069822245,0.06919224,-0.06801346,0.03484588,-0.07335704,-0.053406786,-0.000553299,2.0,2.0,-2.0,-2.0,2.0,-2.0,2.0,-2.0,-2.0,2.0,-2.0,-2.0,2.0,2.0,-2.0,-2.0,2.0,-2.0,2.0,-2.0,-2.0,2.0,-2.0,-2.0
2025-06-05 10:29:58.286,0.023659132,0.020465406,0.012050707,0.026770296,0.2895066,0.017223835,0.0,0.0,0.0,0.03785614,0.21781056,0.93770546,-0.5317261,-0.20569895,0.91740036,-0.5325372,0.19746377,-1.0932691,-0.52494705,0.20337895,-0.9688894,-0.5252101,0.04315868,0.06624918,-0.048291452,0.01957461,0.06999774,-0.07303822,0.05141644,0.024970936,-0.032198466,0.038385265,0.0093331775,0.07404925,2.0,2.0,-2.0,-2.0,2.0,-2.0,2.0,-2.0,-2.0,2.0,-2.0,-2.0,2.0,2.0,-2.0,-2.0,2.0,-2.0,2.0,-2.0,-2.0,2.0,-2.0,-2.0
2025-06-05 10:29:58.304,0.0050679315,0.025881179,0.029942023,-0.050421868,0.31327027,-0.02043,0.0,0.0,0.0,0.037856143,0.21347137,0.9458528,-0.54586184,-0.18873088,0.9232206,-0.5267206,0.18519567,-1.0795768,-0.5213305,0.20068792,-0.96478605,-0.53598267,0.005995145,-0.06709664,0.07370906,-0.07122704,-0.0010728961,0.024867805,0.057045095,0.01833088,0.008775523,-0.072387196,0.070231676,0.024978759,2.0,2.0,-2.0,-2.0,2.0,-2.0,2.0,-2.0,-2.0,2.0,-2.0,-2.0,2.0,2.0,-2.0,-2.0,2.0,-2.0,2.0,-2.0,-2.0,2.0,-2.0,-2.0
2025-06-05 10:29:58.324,0.026074428,-0.013854304,0.044420738,0.02024404,0.21711057,-0.029898059,0.0,0.0,0.0,0.037856147,0.2181292,0.94179505,-0.5284223,-0.1996077,0.9129621,-0.53174996,0.19870292,-1.0775841,-0.52940917,0.20467912,-0.96656704,-0.5246781,-0.06954052,-0.017663531,0.023548538,0.009844488,0.03417051,-0.006184591,-0.004694102,0.027141191,0.033373985,0.07095288,-0.004167762,0.0128506925,2.0,2.0,-2.0,-2.0,2.0,-2.0,2.0,-2.0,-2.0,2.0,-2.0,-2.0,2.0,2.0,-2.0,-2.0,2.0,-2.0,2.0,-2.0,-2.0,2.0,-2.0,-2.0
2025-06-05 10:29:58.345,0.005752278,-0.01448576,-0.037212823,0.037718616,0.3153113,-0.028704716,0.0,0.0,0.0,0.03785615,0.22467545,0.9357593,-0.53730625,-0.19548114,0.91165376,-0.53392917,0.18826038,-1.089254,-0.5274839,0.20952372,-0.9633586,-0.5198486,-0.008617686,-0.022712264,0.03857327,-0.022020712,-0.06982904,0.030100446,-0.056127883,0.056480765,-0.042691436,-0.062800296,0.046520926,-0.01054238,2.0,2.0,-2.0,-2.0,2.0,-2.0,2.0,-2.0,-2.0,2.0,-2.0,-2.0,2.0,2.0,-2.0,-2.0,2.0,-2.0,2.0,-2.0,-2.0,2.0,-2.0,-2.0
2025-06-05 10:29:58.365,0.033883244,-0.03355326,0.011007899,0.0035497304,0.24574474,-0.00208872,0.0,0.0,0.0,0.037856154,0.21738036,0.9462163,-0.53229076,-0.19980584,0.92209464,-0.52743876,0.1918737,-1.0851837,-0.5233172,0.19437781,-0.97248626,-0.52305275,0.044781245,0.04958946,0.0017303551,-0.05427137,0.01764171,-0.036948163,0.023595026,0.053582504,-0.056649603,-0.048427444,0.062886015,-0.055024106,2.0,2.0,-2.0,-2.0,2.0,-2.0,2.0,-2.0,-2.0,2.0,-2.0,-2.0,2.0,2.0,-2.0,-2.0,2.0,-2.0,2.0,-2.0,-2.0,2.0,-2.0,-2.0
2025-06-05 10:29:58.387,-0.013453199,-0.006194645,-0.0077859806,-0.0189629,0.24353682,-0.0031120225,0.0,0.0,0.0,0.037856158,0.22316188,0.9363855,-0.5322161,-0.20122948,0.9195376,-0.539354,0.19501129,-1.0953175,-0.5275863,0.20445742,-0.97081107,-0.52083665,0.058569346,-0.055153772,-0.035602715,0.03144654,-0.04160088,0.0011675201,0.011986833,0.032177426,0.039074924,0.04587442,0.025284098,0.002962348,2.0,2.0,-2.0,-2.0,2.0,-2.0,2.0,-2.0,-2.0,2.0,-2.0,-2.0,2.0,2.0,-2.0,-2.0,2.0,-2.0,2.0,-2.0,-2.0,2.0,-2.0,-2.0
2025-06-05 10:29:58.405,0.01180095,0.008014537,-0.0029325823,-0.020425055,0.31430346,-0.016543826,0.0,0.0,0.0,0.03785616,0.21406217,0.9320271,-0.52803,-0.19438955,0.92430484,-0.53785586,0.19559649,-1.0898278,-0.5362716,0.19869386,-0.97549146,-0.5349154,0.044792823,-0.06133038,0.0015055125,0.071856484,-0.030096088,-0.033642128,-0.024382938,0.06264963,0.04495903,0.00831004,-0.026839834,-0.0112505285,2.0,2.0,-2.0,-2.0,2.0,-2.0,2.0,-2.0,-2.0,2.0,-2.0,-2.0,2.0,2.0,-2.0,-2.0,2.0,-2.0,2.0,-2.0,-2.0,2.0,-2.0,-2.0
2025-06-05 10:29:58.425,0.04636776,-0.017979776,0.024706367,0.012463746,0.27415857,-0.021852987,0.0,0.0,0.0,0.037856165,0.21257956,0.9424898,-0.5453264,-0.1962664,0.9278316,-0.5346616,0.19716969,-1.0774367,-0.52639353,0.19919127,-0.9628955,-0.5326475,0.02433302,-0.0015059216,0.014314964,0.061678566,0.06374221,0.032080185,-0.04275871,0.014941385,-0.057804003,0.024198713,-0.02021358,-0.025357075,2.0,2.0,-2.0,-2.0,2.0,-2.0,2.0,-2.0,-2.0,2.0,-2.0,-2.0,2.0,2.0,-2.0,-2.0,2.0,-2.0,2.0,-2.0,-2.0,2.0,-2.0,-2.0
2025-06-05 10:29:58.445,-0.04005467,-0.027806167,0.017891217,-0.045411713,0.21736242,0.049764413,0.0,0.0,0.0,0.03785617,0.22442742,0.9356497,-0.54531443,-0.19901142,0.92173445,-0.53692317,0.18236996,-1.0849755,-0.5339832,0.19469579,-0.96798795,-0.53317183,-0.07214127,-0.047017995,-0.06992833,-0.009812585,-0.034192882,0.062022336,0.038818974,-0.046903633,0.031744845,0.01431415,0.0065988423,-0.017814549,2.0,2.0,-2.0,-2.0,2.0,-2.0,2.0,-2.0,-2.0,2.0,-2.0,-2.0,2.0,2.0,-2.0,-2.0,2.0,-2.0,2.0,-2.0,-2.0,2.0,-2.0,-2.0
2025-06-05 10:29:58.464,-0.0051078973,-0.030040558,0.010195944,-0.035068378,0.28801978,-0.045078944,0.0,0.0,0.0,0.037856173,0.22646771,0.94730556,-0.53623825,-0.20661183,0.91731095,-0.53600854,0.19032438,-1.0806198,-0.52447325,0.20070031,-0.970437,-0.522864,-0.021637402,0.03937789,0.02108028,-0.027348548,0.07074479,-0.022921715,0.04417058,0.06549813,0.017735597,-0.012640158,0.0038393463,0.0019979586,2.0,2.0,-2.0,-2.0,2.0,-2.0,2.0,-2.0,-2.0,2.0,-2.0,-2.0,2.0,2.0,-2.0,-2.0,2.0,-2.0,2.0,-2.0,-2.0,2.0,-2.0,-2.0
2025-06-05 10:29:58.487,-0.013731697,0.026973728,0.030582916,-0.028315337,0.2230876,0.045989193,0.0,0.0,0.0,0.037856176,0.20985733,0.951154,-0.53679246,-0.19937722,0.92571276,-0.53092647,0.19001663,-1.087879,-0.52032083,0.20997617,-0.96579796,-0.5183912,-0.026243206,0.027522719,-0.057197914,0.028636752,0.048097562,-0.06305626,-0.016262086,0.037432767,0.015594499,0.0063018133,-0.041998506,-0.018888839,2.0,2.0,-2.0,-2.0,2.0,-2.0,2.0,-2.0,-2.0,2.0,-2.0,-2.0,2.0,2.0,-2.0,-2.0,2.0,-2.0,2.0,-2.0,-2.0,2.0,-2.0,-2.0
2025-06-05 10:29:58.505,0.025919642,-0.0011655871,-0.046712182,0.022406219,0.3052958,0.013407494,0.0,0.0,0.0,0.03785618,0.2119929,0.93470836,-0.52665156,-0.19408737,0.92112523,-0.5393601,0.18064763,-1.0914565,-0.53477854,0.20938787,-0.9814848,-0.53333414,-0.016959582,0.07101566,0.03118585,0.050926305,-0.043952618,0.0090163415,-0.010311928,0.04228997,0.023105945,0.013879989,0.045783736,0.011739819,2.0,2.0,-2.0,-2.0,2.0,-2.0,2.0,-2.0,-2.0,2.0,-2.0,-2.0,2.0,2.0,-2.0,-2.0,2.0,-2.0,2.0,-2.0,-2.0,2.0,-2.0,-2.0
2025-06-05 10:29:58.525,0.04768457,0.025574328,-0.01134518,0.03808474,0.22887357,-0.040931575,0.0,0.0,0.0,0.037856184,0.22566652,0.9407043,-0.5323736,-0.18714072,0.9168046,-0.541203,0.18964534,-1.0852863,-0.53387755,0.19541769,-0.97664076,-0.524203,0.05306346,-0.072253525,0.060525414,-0.0551436,0.045736965,-0.04933315,-0.04737392,-0.03781283,-0.007154384,0.061331984,0.042816132,-0.008493693,2.0,2.0,-2.0,-2.0,2.0,-2.0,2.0,-2.0,-2.0,2.0,-2.0,-2.0,2.0,2.0,-2.0,-2.0,2.0,-2.0,2.0,-2.0,-2.0,2.0,-2.0,-2.0
2025-06-05 10:29:58.545,0.017584085,-0.019485645,-0.02032208,-0.04626489,0.31596607,-0.04611909,0.0,0.0,0.0,0.03785619,0.20867373,0.9431904,-0.5338402,-0.19276468,0.9278037,-0.5332105,0.19484313,-1.0939584,-0.5237485,0.2106168,-0.97670645,-0.52576137,-0.0067713917,-0.04961687,-0.039673805,-0.061447907,0.008586312,-0.016392598,0.011958071,-0.04876763,-0.050663017,-0.012198743,0.018842313,0.017331852,2.0,2.0,-2.0,-2.0,2.0,-2.0,2.0,-2.0,-2.0,2.0,-2.0,-2.0,2.0,2.0,-2.0,-2.0,2.0,-2.0,2.0,-2.0,-2.0,2.0,-2.0,-2.0
2025-06-05 10:29:58.565,0.035672072,-0.04711118,-0.044441853,-0.0357318,0.286803,-0.038844164,0.0,0.0,0.0,0.037856195,0.22230683,0.9321785,-0.52646816,-0.20065743,0.9200557,-0.53803515,0.1816826,-1.0859929,-0.5318377,0.21049495,-0.9747741,-0.5223831,-0.0030308645,-0.035980184,0.07193938,0.043218266,0.0104085235,-0.021487994,0.07466048,0.0004566716,0.010318505,0.07254584,0.022538299,-0.04822769,2.0,2.0,-2.0,-2.0,2.0,-2.0,2.0,-2.0,-2.0,2.0,-2.0,-2.0,2.0,2.0,-2.0,-2.0,2.0,-2.0,2.0,-2.0,-2.0,2.0,-2.0,-2.0
2025-06-05 10:29:58.587,-0.016333416,0.021381486,0.0019211787,-0.042902347,0.22656329,0.019089913,0.0,0.0,0.0,0.0378562,0.21037859,0.9392527,-0.526163,-0.19291192,0.9209368,-0.5328485,0.18877311,-1.0771123,-0.5372399,0.20353593,-0.97405785,-0.52903455,-0.021737432,0.00017899058,0.037772313,-0.06859141,0.030618642,0.04243315,0.00998789,-0.019919094,0.030380202,0.073532164,-0.0712921,0.009882913,2.0,2.0,-2.0,-2.0,2.0,-2.0,2.0,-2.0,-2.0,2.0,-2.0,-2.0,2.0,2.0,-2.0,-2.0,2.0,-2.0,2.0,-2.0,-2.0,2.0,-2.0,-2.0
2025-06-05 10:29:58.605,0.008267181,-0.017451376,0.04356179,-0.04997175,0.30451596,-0.03895444,0.0,0.0,0.0,0.037856203,0.21758373,0.945761,-0.5344064,-0.1894542,0.92655694,-0.53725785,0.18147424,-1.0892553,-0.5362395,0.20670384,-0.97333485,-0.5285778,-0.04641475,-0.009857781,-0.008487102,0.044685587,0.0066828537,-0.02572577,0.031320695,-0.020010058,-0.059909396,0.006205505,-0.02541884,0.06712191,2.0,2.0,-2.0,-2.0,2.0,-2.0,2.0,-2.0,-2.0,2.0,-2.0,-2.0,2.0,2.0,-2.0,-2.0,2.0,-2.0,2.0,-2.0,-2.0,2.0,-2.0,-2.0
2025-06-05 10:29:58.625,-0.048206106,-0.049910724,-0.035618987,0.028219787,0.2331877,-0.02492702,0.0,0.0,0.0,0.037856206,0.21090268,0.9365226,-0.52985173,-0.20064184,0.9132868,-0.5436656,0.1974878,-1.0797395,-0.5368322,0.20721075,-0.97631305,-0.53275275,0.038696475,-0.05992662,0.051363964,0.053030796,0.003782484,0.051949635,0.0009572716,0.03876129,-0.04328578,0.015344279,-0.032910604,-0.02587648,2.0,2.0,-2.0,-2.0,2.0,-2.0,2.0,-2.0,-2.0,2.0,-2.0,-2.0,2.0,2.0,-2.0,-2.0,2.0,-2.0,2.0,-2.0,-2.0,2.0,-2.0,-2.0
2025-06-05 10:29:58.646,4.339938e-05,0.0123067135,0.010355579,-0.019977916,0.27147093,0.0478616,0.0,0.0,0.0,0.03785621,0.2149871,0.94773287,-0.54418933,-0.20404087,0.9167782,-0.5393813,0.190657,-1.095397,-0.5220952,0.21007878,-0.96688914,-0.5353449,-0.043086216,-0.023466963,0.05847223,0.03340876,0.061496373,0.029368373,0.06380971,-0.06335258,-0.064471185,-0.0053512296,0.0048048613,0.06378571,2.0,2.0,-2.0,-2.0,2.0,-2.0,2.0,-2.0,-2.0,2.0,-2.0,-2.0,2.0,2.0,-2.0,-2.0,2.0,-2.0,2.0,-2.0,-2.0,2.0,-2.0,-2.0
2025-06-05 10:29:58.666,-0.022391327,-0.008151829,0.049013853,-0.01655073,0.28938204,0.037330434,0.0,0.0,0.0,0.037856214,0.21221861,0.9358842,-0.5288109,-0.19976178,0.91622496,-0.5392873,0.1976078,-1.093686,-0.5214898,0.20731199,-0.9650408,-0.5213485,-0.07287841,-0.024638955,-0.06198258,-0.008318474,0.06352242,0.042954694,0.04905115,0.043613408,0.060474895,-0.048634753,-0.05193538,-0.01017423,2.0,2.0,-2.0,-2.0,2.0,-2.0,2.0,-2.0,-2.0,2.0,-2.0,-2.0,2.0,2.0,-2.0,-2.0,2.0,-2.0,2.0,-2.0,-2.0,2.0,-2.0,-2.0
2025-06-05 10:29:58.687,0.008336766,0.04780222,-0.007900573,-0.056911416,0.3094129,0.021585036,0.0,0.0,0.0,0.037856217,0.21193856,0.9351212,-0.53763086,-0.19177908,0.926363,-0.5270737,0.1877593,-1.0768132,-0.52313465,0.20208117,-0.9756288,-0.53027236,0.023241006,0.010364399,-0.06662561,0.057410948,-0.032584284,0.02369341,-0.06659518,-0.031023363,0.06201596,0.0064115245,0.026234807,-0.05787531,2.0,2.0,-2.0,-2.0,2.0,-2.0,2.0,-2.0,-2.0,2.0,-2.0,-2.0,2.0,2.0,-2.0,-2.0,2.0,-2.0,2.0,-2.0,-2.0,2.0,-2.0,-2.0
2025-06-05 10:29:58.706,0.020069905,0.029453097,-0.04814817,0.031139592,0.29772726,0.0051379725,0.0,0.0,0.0,0.03785622,0.21034954,0.9315585,-0.53962046,-0.20208941,0.92088556,-0.5342758,0.18334691,-1.0801495,-0.5351385,0.21056575,-0.97226334,-0.5182498,0.037084047,0.053524695,-0.05120861,0.06825509,0.013551887,0.00039568054,-0.024098495,0.04792523,0.021292496,0.05836002,0.03227999,-0.0036091942,2.0,2.0,-2.0,-2.0,2.0,-2.0,2.0,-2.0,-2.0,2.0,-2.0,-2.0,2.0,2.0,-2.0,-2.0,2.0,-2.0,2.0,-2.0,-2.0,2.0,-2.0,-2.0
2025-06-05 10:29:58.726,0.018463597,0.02458464,0.010908234,0.033347443,0.27801636,-0.0390125,0.0,0.0,0.0,0.037856225,0.21940404,0.9417436,-0.5285263,-0.19500302,0.9195704,-0.5295331,0.19241041,-1.0923607,-0.53572303,0.19570296,-0.9676477,-0.52242815,-0.06172579,-0.009023232,-0.0269091,-0.06049965,-0.011978652,0.06308991,-0.05251166,0.05111945,-0.007664897,0.034679305,0.027274663,0.0027331999,2.0,2.0,-2.0,-2.0,2.0,-2.0,2.0,-2.0,-2.0,2.0,-2.0,-2.0,2.0,2.0,-2.0,-2.0,2.0,-2.0,2.0,-2.0,-2.0,2.0,-2.0,-2.0
2025-06-05 10:29:58.745,0.011156356,-0.025546193,0.036454726,0.031310163,0.30167845,0.001931579,0.0,0.0,0.0,0.03785623,0.22490658,0.9429764,-0.5434681,-0.2030557,0.9234492,-0.531519,0.18133055,-1.0833391,-0.52960503,0.20919046,-0.96721596,-0.5284993,-0.021093315,-0.04212436,0.06186783,0.030888284,-0.047052424,-0.06424547,0.021308402,0.02212503,-0.028398339,-0.042558786,-0.0037089586,0.07078426,2.0,2.0,-2.0,-2.0,2.0,-2.0,2.0,-2.0,-2.0,2.0,-2.0,-2.0,2.0,2.0,-2.0,-2.0,2.0,-2.0,2.0,-2.0,-2.0,2.0,-2.0,-2.0
2025-06-05 10:29:58.766,0.03690268,-0.03920129,-0.047314696,-0.0024123546,0.2550191,-0.014149073,0.0,0.0,0.0,0.037856232,0.21835476,0.93519497,-0.53623015,-0.19366321,0.91050893,-0.54245615,0.19659556,-1.0782781,-0.52313614,0.20884782,-0.9709554,-0.52574587,-0.02058289,0.018444335,0.033315726,0.039938938,-0.051034734,-0.051798895,-0.067564815,-0.013041115,0.02421426,0.0005448271,0.02745063,-0.04892205,2.0,2.0,-2.0,-2.0,2.0,-2.0,2.0,-2.0,-2.0,2.0,-2.0,-2.0,2.0,2.0,-2.0,-2.0,2.0,-2.0,2.0,-2.0,-2.0,2.0,-2.0,-2.0
2025-06-05 10:29:58.788,0.011915643,-0.047414403,0.037931513,0.0041221264,0.29315132,-0.019175401,0.0,0.0,0.0,0.037856236,0.22444123,0.9372745,-0.5437004,-0.1984391,0.92691404,-0.53618413,0.19609775,-1.0869828,-0.529776,0.19904016,-0.96319246,-0.51768965,-0.07341517,-0.06859875,-0.021315865,0.06606676,-0.004987448,0.03574037,0.06981129,-0.064534806,0.071046166,0.05970705,0.044364385,0.06764992,2.0,2.0,-2.0,-2.0,2.0,-2.0,2.0,-2.0,-2.0,2.0,-2.0,-2.0,2.0,2.0,-2.0,-2.0,2.0,-2.0,2.0,-2.0,-2.0,2.0,-2.0,-2.0
2025-06-05 10:29:58.807,-0.04528828,-0.014784405,0.03341152,0.028316595,0.22778723,-0.003289425,0.0,0.0,0.0,0.03785624,0.21125928,0.94281906,-0.5305043,-0.19977403,0.92842495,-0.5408607,0.18093905,-1.0960436,-0.53192157,0.20420918,-0.9791662,-0.5234194,0.0749123,-0.07064896,0.0114826765,0.024669101,-0.023960076,0.051836245,-0.0057413694,0.05874085,0.009105286,-0.049689233,0.05950459,-0.065966524,2.0,2.0,-2.0,-2.0,2.0,-2.0,2.0,-2.0,-2.0,2.0,-2.0,-2.0,2.0,2.0,-2.0,-2.0,2.0,-2.0,2.0,-2.0,-2.0,2.0,-2.0,-2.0
2025-06-05 10:29:58.827,0.015452877,0.0014309072,-0.0063477913,0.0102566965,0.28455237,0.03968239,0.0,0.0,0.0,0.037856244,0.21693088,0.94250137,-0.53898996,-0.20440646,0.92412734,-0.54343563,0.18140778,-1.0888637,-0.5251988,0.20949599,-0.9701988,-0.5207559,-0.024806274,-0.030703766,0.04176427,-0.055073857,0.067756385,-0.037543193,0.050683707,0.0356458,-0.06211769,-0.025614936,-0.024429511,-0.06171837,2.0,2.0,-2.0,-2.0,2.0,-2.0,2.0,-2.0,-2.0,2.0,-2.0,-2.0,2.0,2.0,-2.0,-2.0,2.0,-2.0,2.0,-2.0,-2.0,2.0,-2.0,-2.0
2025-06-05 10:29:58.846,0.019107586,0.0043292893,0.012775278,0.025597977,0.2389141,0.037834372,0.0,0.0,0.0,0.03785625,0.21588778,0.9512292,-0.54582137,-0.20523322,0.92318976,-0.5264618,0.19762996,-1.0866053,-0.52482665,0.20545802,-0.97483075,-0.5189454,0.0072223423,-0.02674731,0.073427446,0.03685545,-0.061653692,-0.008164069,0.049419142,0.016864747,0.036210787,-0.0343973,0.0030773105,0.0053026825,2.0,2.0,-2.0,-2.0,2.0,-2.0,2.0,-2.0,-2.0,2.0,-2.0,-2.0,2.0,2.0,-2.0,-2.0,2.0,-2.0,2.0,-2.0,-2.0,2.0,-2.0,-2.0
2025-06-05 10:29:58.867,-0.031289607,-0.024052227,0.021708155,-0.0029474006,0.24625283,-0.034259014,0.0,0.0,0.0,0.037856255,0.20945695,0.9391734,-0.5456592,-0.20218216,0.90985954,-0.5344627,0.18016307,-1.0881411,-0.5396312,0.21115433,-0.9819378,-0.52789533,-0.010747411,0.053698633,-0.006234651,-0.004415573,0.01807643,0.03129603,0.02478692,0.053133916,-0.047132526,-0.044884864,-0.024334764,-0.04884311,2.0,2.0,-2.0,-2.0,2.0,-2.0,2.0,-2.0,-2.0,2.0,-2.0,-2.0,2.0,2.0,-2.0,-2.0,2.0,-2.0,2.0,-2.0,-2.0,2.0,-2.0,-2.0
2025-06-05 10:29:58.887,0.027689762,-0.025394373,-0.023712814,-0.0053745676,0.30629033,0.009109411,0.0,0.0,0.0,0.03785626,0.21592483,0.94393045,-0.5341708,-0.19204405,0.9289701,-0.5295853,0.19621426,-1.0935283,-0.53248906,0.20085968,-0.97012424,-0.51922107,-0.02931809,0.054756865,0.050819814,0.016269267,-0.025371376,-0.06004532,0.01911592,0.029997045,-0.038076866,0.041507397,-0.015385252,0.0707332,2.0,2.0,-2.0,-2.0,2.0,-2.0,2.0,-2.0,-2.0,2.0,-2.0,-2.0,2.0,2.0,-2.0,-2.0,2.0,-2.0,2.0,-2.0,-2.0,2.0,-2.0,-2.0
2025-06-05 10:29:58.906,0.044067014,0.010804882,-0.018296245,0.012695792,0.25900537,0.018685887,0.0,0.0,0.0,0.037856262,0.22411436,0.9436247,-0.5279817,-0.19876602,0.9153525,-0.54101384,0.19289052,-1.0899955,-0.5245517,0.20342414,-0.9782544,-0.5339222,-0.007664648,0.07158983,-0.06410167,0.037000597,-0.07397759,-0.011701472,-0.024901552,-0.03909195,0.0046519274,0.021208983,0.054196518,0.012353793,2.0,2.0,-2.0,-2.0,2.0,-2.0,2.0,-2.0,-2.0,2.0,-2.0,-2.0,2.0,2.0,-2.0,-2.0,2.0,-2.0,2.0,-2.0,-2.0,2.0,-2.0,-2.0
2025-06-05 10:29:58.927,0.027094789,0.04539674,0.0015743917,0.024622004,0.22394636,-0.041037127,0.0,0.0,0.0,0.037856266,0.22292058,0.9395325,-0.52975714,-0.19388911,0.91472393,-0.5401075,0.18279508,-1.088735,-0.52607477,0.21243946,-0.9774633,-0.5322098,0.063910015,-0.035063356,0.021767477,0.031691775,-0.022263015,-0.023071928,0.030027568,-0.05249864,0.04850661,0.036751717,-0.025432944,-0.059801232,2.0,2.0,-2.0,-2.0,2.0,-2.0,2.0,-2.0,-2.0,2.0,-2.0,-2.0,2.0,2.0,-2.0,-2.0,2.0,-2.0,2.0,-2.0,-2.0,2.0,-2.0,-2.0
2025-06-05 10:29:58.946,0.03730281,-0.035450704,-0.011537366,0.01406862,0.21764672,-0.0014810552,0.0,0.0,0.0,0.03785627,0.22692437,0.9366845,-0.54392123,-0.19915193,0.9291698,-0.5446339,0.19189517,-1.0844606,-0.5211869,0.20588826,-0.97473574,-0.5265267,-0.06883098,-0.05632772,-0.011818182,0.055491716,-0.010782357,-0.009706869,-0.0704928,0.0068138964,0.007506489,0.059053894,-0.03953863,-0.0049976953,2.0,2.0,-2.0,-2.0,2.0,-2.0,2.0,-2.0,-2.0,2.0,-2.0,-2.0,2.0,2.0,-2.0,-2.0,2.0,-2.0,2.0,-2.0,-2.0,2.0,-2.0,-2.0
2025-06-05 10:29:58.967,-0.017677337,0.014637236,-0.043975692,-0.019596314,0.2935138,0.031383306,0.0,0.0,0.0,0.037856273,0.21490069,0.95033497,-0.5426872,-0.20655677,0.9095301,-0.52638024,0.19647197,-1.0942063,-0.53286934,0.19536167,-0.97823894,-0.5169692,0.07089842,-0.0037948638,0.054448023,0.07273898,0.002446226,-0.055396676,0.067537434,0.011707268,0.011101337,0.04348883,-0.06501779,-0.022466876,2.0,2.0,-2.0,-2.0,2.0,-2.0,2.0,-2.0,-2.0,2.0,-2.0,-2.0,2.0,2.0,-2.0,-2.0,2.0,-2.0,2.0,-2.0,-2.0,2.0,-2.0,-2.0
2025-06-05 10:29:58.987,-0.036974162,-0.030776449,0.030636005,-0.049297247,0.22155945,-0.022580361,0.0,0.0,0.0,0.037856277,0.21334022,0.93436027,-0.53784144,-0.19151405,0.91425633,-0.5391363,0.17979062,-1.0823797,-0.53048426,0.2019632,-0.98220295,-0.53264827,-0.004467681,-0.07008963,-0.06019353,0.02036181,0.019129409,-0.018327694,0.034228995,-0.0052703596,0.007690141,-0.016507918,0.04704519,-0.021864235,2.0,2.0,-2.0,-2.0,2.0,-2.0,2.0,-2.0,-2.0,2.0,-2.0,-2.0,2.0,2.0,-2.0,-2.0,2.0,-2.0,2.0,-2.0,-2.0,2.0,-2.0,-2.0
2025-06-05 10:29:59.007,-0.013906148,0.0061159777,-0.017134998,0.0022922545,0.28693783,0.013402044,0.0,0.0,0.0,0.03785628,0.22174929,0.9402084,-0.53369975,-0.19246377,0.9289522,-0.53094536,0.18609193,-1.0953729,-0.52033365,0.20961165,-0.9665292,-0.5244419,-0.032957524,-0.06978369,0.06284734,0.0088802045,-0.07044241,0.02358028,0.022519685,0.07153373,-0.011696744,-0.01115854,-0.0015493933,-0.03170051,2.0,2.0,-2.0,-2.0,2.0,-2.0,2.0,-2.0,-2.0,2.0,-2.0,-2.0,2.0,2.0,-2.0,-2.0,2.0,-2.0,2.0,-2.0,-2.0,2.0,-2.0,-2.0
2025-06-05 10:29:59.028,-0.040755015,0.016965613,0.011599955,-0.013923989,0.22841942,0.018864566,0.0,0.0,0.0,0.037856285,0.20963503,0.93826705,-0.54493827,-0.19650243,0.9176216,-0.53269887,0.19384407,-1.0916357,-0.5267276,0.19784479,-0.96306586,-0.5269836,0.03987882,0.06679645,-0.031891886,-0.05638104,0.04505078,-0.01708948,-0.055044767,-0.00586638,0.07115256,-0.0022985397,-0.04073639,-0.023180783,2.0,2.0,-2.0,-2.0,2.0,-2.0,2.0,-2.0,-2.0,2.0,-2.0,-2.0,2.0,2.0,-2.0,-2.0,2.0,-2.0,2.0,-2.0,-2.0,2.0,-2.0,-2.0
2025-06-05 10:29:59.047,-0.013611181,0.024569439,-0.0067375125,-0.016890792,0.21689649,-0.048069365,0.0,0.0,0.0,0.03785629,0.2073011,0.93187207,-0.54560244,-0.19540656,0.92170817,-0.53550816,0.18797281,-1.0850528,-0.5248673,0.1945292,-0.98040396,-0.51801586,-0.004218516,-0.0023025693,0.041653946,-0.044406727,0.050453473,0.035095513,-0.023314,0.061364032,0.065745756,0.040774535,0.064770885,-0.07029626,2.0,2.0,-2.0,-2.0,2.0,-2.0,2.0,-2.0,-2.0,2.0,-2.0,-2.0,2.0,2.0,-2.0,-2.0,2.0,-2.0,2.0,-2.0,-2.0,2.0,-2.0,-2.0
2025-06-05 10:29:59.066,0.014057423,-0.048198182,0.020982545,-0.014198632,0.2279329,-0.0033399076,0.0,0.0,0.0,0.037856292,0.2141958,0.9508112,-0.5342335,-0.19361125,0.92801297,-0.54121614,0.18359783,-1.0859735,-0.53507876,0.20053525,-0.9722991,-0.53511906,0.025289955,0.06826719,0.031620186,-0.07191365,-0.018091386,-0.012415195,-0.020424366,-0.01500201,0.054734815,-0.030838184,-0.011452455,-0.039736595,2.0,2.0,-2.0,-2.0,2.0,-2.0,2.0,-2.0,-2.0,2.0,-2.0,-2.0,2.0,2.0,-2.0,-2.0,2.0,-2.0,2.0,-2.0,-2.0,2.0,-2.0,-2.0
2025-06-05 10:29:59.088,-0.021778695,0.006045996,-0.021698175,-0.041764993,0.27112347,-0.041509323,0.0,0.0,0.0,0.037856296,0.21109463,0.9435567,-0.5425039,-0.19671407,0.91209555,-0.5258886,0.18036664,-1.0940883,-0.5291928,0.19445148,-0.9760458,-0.5282672,0.073188655,0.073092595,-0.032762334,-0.05274567,0.023553168,-0.022896543,-0.06518822,-0.06316711,-0.06688229,-0.03311068,-0.046868954,-0.067206725,2.0,2.0,-2.0,-2.0,2.0,-2.0,2.0,-2.0,-2.0,2.0,-2.0,-2.0,2.0,2.0,-2.0,-2.0,2.0,-2.0,2.0,-2.0,-2.0,2.0,-2.0,-2.0
2025-06-05 10:29:59.108,-0.027808858,-0.022301948,0.037881512,-0.032904685,0.27591088,0.033338986,0.0,0.0,0.0,0.0378563,0.21155553,0.94859356,-0.52696735,-0.19386275,0.9099673,-0.5305965,0.18694545,-1.0823616,-0.53867406,0.20591971,-0.96316093,-0.53157926,0.025438078,-0.058923166,0.058905344,-0.002735995,-0.04734715,-0.07251609,-0.019784825,-0.06989643,0.0031072588,-0.0141845755,0.06317059,-0.017085213,2.0,2.0,-2.0,-2.0,2.0,-2.0,2.0,-2.0,-2.0,2.0,-2.0,-2.0,2.0,2.0,-2.0,-2.0,2.0,-2.0,2.0,-2.0,-2.0,2.0,-2.0,-2.0
2025-06-05 10:29:59.128,-0.016732756,-0.026349626,0.007680807,-0.042108115,0.24775442,0.018421033,0.0,0.0,0.0,0.037856303,0.21107419,0.9411622,-0.52653986,-0.19660468,0.92789793,-0.53624487,0.18998857,-1.0957098,-0.53660804,0.20192628,-0.96616375,-0.5264938,-0.072613366,-0.035460602,0.05971375,0.04533348,0.0329725,-0.030814536,0.005619675,0.04753339,0.061879862,0.045337085,-0.015871523,0.06982418,2.0,2.0,-2.0,-2.0,2.0,-2.0,2.0,-2.0,-2.0,2.0,-2.0,-2.0,2.0,2.0,-2.0,-2.0,2.0,-2.0,2.0,-2.0,-2.0,2.0,-2.0,-2.0
2025-06-05 10:29:59.148,0.039168876,0.022873469,0.015754173,0.02459826,0.2565646,-0.037212517,0.0,0.0,0.0,0.037856307,0.22517161,0.9478217,-0.53570354,-0.19517024,0.92545897,-0.5419202,0.1823056,-1.0889394,-0.5271119,0.20312665,-0.9727402,-0.5360827,-0.039475527,0.04768334,-0.010562752,-0.04673822,0.023511766,0.053632382,0.06758774,-0.038486872,-0.06083225,0.025213363,-0.019105013,0.02264903,2.0,2.0,-2.0,-2.0,2.0,-2.0,2.0,-2.0,-2.0,2.0,-2.0,-2.0,2.0,2.0,-2.0,-2.0,2.0,-2.0,2.0,-2.0,-2.0,2.0,-2.0,-2.0
2025-06-05 10:29:59.169,-0.033407822,-0.04940796,0.0051253666,0.012080324,0.26264203,0.010716949,0.0,0.0,0.0,0.037856314,0.22166875,0.9369774,-0.5269524,-0.19340858,0.9287308,-0.535297,0.1878691,-1.0765657,-0.52846605,0.21210755,-0.9808752,-0.5178881,0.022047713,0.0013062612,0.0375227,-0.058560397,-0.011441415,-0.0028846085,-0.002731149,-0.058689218,-0.07203036,-0.016223364,0.016810331,0.0010064248,2.0,2.0,-2.0,-2.0,2.0,-2.0,2.0,-2.0,-2.0,2.0,-2.0,-2.0,2.0,2.0,-2.0,-2.0,2.0,-2.0,2.0,-2.0,-2.0,2.0,-2.0,-2.0
2025-06-05 10:29:59.187,0.03383928,-0.016866792,-0.03612138,-0.0016981318,0.28212643,-0.019029325,0.0,0.0,0.0,0.037856318,0.22491744,0.9353671,-0.5340078,-0.1888555,0.9272842,-0.54503566,0.19555442,-1.0831478,-0.5356126,0.20519492,-0.9708541,-0.53533745,-0.041916512,-0.05198621,0.024946254,-0.007025079,0.05597469,-0.03960691,-0.06630926,0.015492545,0.06735781,0.025712775,-0.06016499,-0.034725357,2.0,2.0,-2.0,-2.0,2.0,-2.0,2.0,-2.0,-2.0,2.0,-2.0,-2.0,2.0,2.0,-2.0,-2.0,2.0,-2.0,2.0,-2.0,-2.0,2.0,-2.0,-2.0
2025-06-05 10:29:59.208,-0.0064641773,-0.026810434,0.03215629,-0.041124403,0.2789448,0.042460155,0.0,0.0,0.0,0.03785632,0.21657404,0.9407539,-0.52688414,-0.20311993,0.92386335,-0.53075564,0.18402827,-1.0902361,-0.52624106,0.20822033,-0.970071,-0.5288279,-0.011446062,-0.037258204,0.046186294,0.02011531,0.055111036,0.054069944,-0.0697543,0.010576907,-0.034285046,-0.007705788,0.049971595,0.040953584,2.0,2.0,-2.0,-2.0,2.0,-2.0,2.0,-2.0,-2.0,2.0,-2.0,-2.0,2.0,2.0,-2.0,-2.0,2.0,-2.0,2.0,-2.0,-2.0,2.0,-2.0,-2.0
2025-06-05 10:29:59.228,0.010938799,0.021391083,0.017869685,-0.0075786044,0.2715578,-0.007577491,0.0,0.0,0.0,0.037856326,0.20892657,0.94492096,-0.5315889,-0.20501639,0.9142368,-0.5404721,0.18005115,-1.0854688,-0.53100955,0.19798689,-0.96598154,-0.51743853,0.029890584,-0.042555183,-0.02808734,-0.06924857,0.043039564,0.05648749,-0.06394489,-0.00044533526,-0.048989728,-0.0060266796,-0.025151618,-0.0008838416,2.0,2.0,-2.0,-2.0,2.0,-2.0,2.0,-2.0,-2.0,2.0,-2.0,-2.0,2.0,2.0,-2.0,-2.0,2.0,-2.0,2.0,-2.0,-2.0,2.0,-2.0,-2.0
2025-06-05 10:29:59.248,0.0034995037,0.021098403,0.03246504,0.00337784,0.30293784,-0.019315602,0.0,0.0,0.0,0.03785633,0.21420561,0.93831635,-0.53353196,-0.19469348,0.9245167,-0.53564626,0.19478498,-1.0959858,-0.5233777,0.21114962,-0.9779781,-0.5229999,-0.026314398,-0.06252244,-0.037238333,0.00801543,-0.010115802,0.017401755,-0.0038558596,-0.045510624,0.020540416,0.0059658964,0.019727848,0.030761855,2.0,2.0,-2.0,-2.0,2.0,-2.0,2.0,-2.0,-2.0,2.0,-2.0,-2.0,2.0,2.0,-2.0,-2.0,2.0,-2.0,2.0,-2.0,-2.0,2.0,-2.0,-2.0
2025-06-05 10:29:59.271,0.020146806,-0.046050854,-0.046348628,0.021813182,0.24503943,-0.04038713,0.0,0.0,0.0,0.037856333,0.2196921,0.93388903,-0.5413422,-0.19699681,0.9192287,-0.54271567,0.19568376,-1.0884522,-0.53670657,0.20875664,-0.9771994,-0.5244061,0.062930636,0.010859061,0.019139318,-0.044762,0.042006686,-0.007913078,0.054951787,-0.0035784834,0.041596796,-0.04504329,0.071823806,-0.01917052,2.0,2.0,-2.0,-2.0,2.0,-2.0,2.0,-2.0,-2.0,2.0,-2.0,-2.0,2.0,2.0,-2.0,-2.0,2.0,-2.0,2.0,-2.0,-2.0,2.0,-2.0,-2.0
2025-06-05 10:29:59.288,0.031042716,0.004684058,-0.0022271103,-0.015904738,0.26911646,0.035472795,0.0,0.0,0.0,0.037856337,0.21726476,0.93740284,-0.52771956,-0.19994594,0.9287584,-0.5374182,0.18675533,-1.0957248,-0.5325085,0.19773929,-0.97522444,-0.5345629,-0.06713016,0.052531585,0.038553473,-0.013685906,-0.040112082,-0.028666804,-0.030325985,-0.01496638,0.051355552,0.0358634,-0.04284272,0.0208163,2.0,2.0,-2.0,-2.0,2.0,-2.0,2.0,-2.0,-2.0,2.0,-2.0,-2.0,2.0,2.0,-2.0,-2.0,2.0,-2.0,2.0,-2.0,-2.0,2.0,-2.0,-2.0
2025-06-05 10:29:59.308,0.021357646,5.0557122e-05,-0.011434854,-0.03322759,0.27535242,-0.015701387,0.0,0.0,0.0,0.03785634,0.21138413,0.93479705,-0.5414211,-0.20449345,0.92626274,-0.5310856,0.19060758,-1.0853271,-0.5338593,0.20949927,-0.9820073,-0.5272137,0.033104595,-0.0381837,-0.011034838,-0.017815275,0.053409085,0.005186084,-0.06521662,0.07283087,0.009007876,0.019240288,-0.018116241,0.03138559,2.0,2.0,-2.0,-2.0,2.0,-2.0,2.0,-2.0,-2.0,2.0,-2.0,-2.0,2.0,2.0,-2.0,-2.0,2.0,-2.0,2.0,-2.0,-2.0,2.0,-2.0,-2.0
2025-06-05 10:29:59.329,-0.049142443,-0.016504344,0.045619365,-0.010296094,0.2254311,0.013658755,0.0,0.0,0.0,0.037856344,0.20982635,0.94253653,-0.5273257,-0.19605327,0.9183713,-0.53739595,0.18726912,-1.0780263,-0.5273168,0.20136239,-0.9814644,-0.53059363,-0.013293205,-0.0742974,-0.01407869,0.03187796,0.043320227,-0.039535034,0.042599343,-0.0628994,-0.038802262,-0.010180634,0.01613885,-0.05447294,2.0,2.0,-2.0,-2.0,2.0,-2.0,2.0,-2.0,-2.0,2.0,-2.0,-2.0,2.0,2.0,-2.0,-2.0,2.0,-2.0,2.0,-2.0,-2.0,2.0,-2.0,-2.0
2025-06-05 10:29:59.348,0.045464635,-0.008388434,0.009155538,-0.03815984,0.22991183,0.027584027,0.0,0.0,0.0,0.037856348,0.21653701,0.9341085,-0.5297041,-0.20683995,0.9136714,-0.5453387,0.18572392,-1.080468,-0.5203668,0.19327211,-0.97279626,-0.52819943,0.027360247,-0.042453483,0.0009801772,0.04174829,-0.05913642,-0.014920051,-0.002743432,0.06961391,0.047827933,-0.002626304,0.07093513,-0.004364342,2.0,2.0,-2.0,-2.0,2.0,-2.0,2.0,-2.0,-2.0,2.0,-2.0,-2.0,2.0,2.0,-2.0,-2.0,2.0,-2.0,2.0,-2.0,-2.0,2.0,-2.0,-2.0
2025-06-05 10:29:59.371,-0.037400793,-0.042792518,-0.00993533,0.017698726,0.26787737,0.047951292,0.0,0.0,0.0,0.03785635,0.21498302,0.94538766,-0.52831334,-0.19345352,0.91181403,-0.532662,0.1923332,-1.0883081,-0.52826744,0.20479746,-0.96779984,-0.5303503,0.068442464,-0.0636961,-0.024716882,-0.008900752,-0.070906214,-0.0034590058,0.056829963,0.017384747,-0.054176815,-0.038484193,0.062204562,-0.036656134,2.0,2.0,-2.0,-2.0,2.0,-2.0,2.0,-2.0,-2.0,2.0,-2.0,-2.0,2.0,2.0,-2.0,-2.0,2.0,-2.0,2.0,-2.0,-2.0,2.0,-2.0,-2.0
2025-06-05 10:29:59.388,0.015218417,0.040591374,-0.01692292,-0.029501878,0.22730093,0.012961203,0.0,0.0,0.0,0.037856355,0.21811712,0.9364886,-0.53987205,-0.19137691,0.9290015,-0.5270812,0.19822834,-1.0891869,-0.523312,0.20549397,-0.9670903,-0.5262354,-0.046409816,-0.0010020914,0.0048538097,0.049840517,-0.053745195,0.06657726,0.07401277,-0.023153959,0.008694249,0.046927903,-0.040105272,-0.00056249986,2.0,2.0,-2.0,-2.0,2.0,-2.0,2.0,-2.0,-2.0,2.0,-2.0,-2.0,2.0,2.0,-2.0,-2.0,2.0,-2.0,2.0,-2.0,-2.0,2.0,-2.0,-2.0
2025-06-05 10:29:59.409,-0.031452727,-0.025705444,0.024115197,-0.021022413,0.30836105,0.014040256,0.0,0.0,0.0,0.03785636,0.20972657,0.9373004,-0.53287035,-0.19666757,0.92551273,-0.54470146,0.18554933,-1.0833914,-0.5276307,0.21283749,-0.9639162,-0.5256711,0.071181975,0.06505056,-0.073275834,0.06659701,0.014908069,-0.045855425,-0.048593268,0.0022317732,0.0666646,-0.061316475,-0.072028354,-0.01028208,2.0,2.0,-2.0,-2.0,2.0,-2.0,2.0,-2.0,-2.0,2.0,-2.0,-2.0,2.0,2.0,-2.0,-2.0,2.0,-2.0,2.0,-2.0,-2.0,2.0,-2.0,-2.0
2025-06-05 10:29:59.429,0.006176627,0.022158567,0.0023021537,-0.050565355,0.2409119,0.02011046,0.0,0.0,0.0,0.037856363,0.22674692,0.9504225,-0.5302655,-0.18974817,0.9256538,-0.535161,0.18949659,-1.0787392,-0.5378025,0.20206839,-0.9772099,-0.5286184,0.026101276,-0.029844772,0.06627964,-0.045219146,-0.044129893,0.02071555,0.048241872,-0.07175329,-0.014622068,-0.059967402,0.02219572,-0.037185885,2.0,2.0,-2.0,-2.0,2.0,-2.0,2.0,-2.0,-2.0,2.0,-2.0,-2.0,2.0,2.0,-2.0,-2.0,2.0,-2.0,2.0,-2.0,-2.0,2.0,-2.0,-2.0
2025-06-05 10:29:59.449,-0.023884222,0.036460236,0.0012846919,0.014407376,0.2420259,-0.0046962104,0.0,0.0,0.0,0.037856366,0.22454087,0.9386132,-0.54314,-0.19194631,0.926047,-0.5439019,0.19845784,-1.0872674,-0.5284712,0.20809546,-0.97270656,-0.52924,-0.027930869,-0.04981641,-0.055787683,0.04624584,-0.07058671,0.051115412,-0.05143962,0.02173227,-0.06877634,0.048055556,0.016018044,0.007233246,2.0,2.0,-2.0,-2.0,2.0,-2.0,2.0,-2.0,-2.0,2.0,-2.0,-2.0,2.0,2.0,-2.0,-2.0,2.0,-2.0,2.0,-2.0,-2.0,2.0,-2.0,-2.0
2025-06-05 10:29:59.472,-0.042443737,0.039047763,0.013879934,-0.019349964,0.297854,-0.009732818,0.0,0.0,0.0,0.03785637,0.22143237,0.9449872,-0.54532474,-0.19458745,0.9146345,-0.5453445,0.19251949,-1.0948012,-0.5225542,0.2093989,-0.97209644,-0.5258036,-0.06091158,-0.018025322,-0.045443177,0.017594976,-0.035094436,-0.019323915,-0.07336936,-0.0052700653,-0.039652247,0.073949195,-0.018458584,-0.05643168,2.0,2.0,-2.0,-2.0,2.0,-2.0,2.0,-2.0,-2.0,2.0,-2.0,-2.0,2.0,2.0,-2.0,-2.0,2.0,-2.0,2.0,-2.0,-2.0,2.0,-2.0,-2.0
2025-06-05 10:29:59.488,0.030312149,-0.0069175977,0.049909666,-0.037979774,0.22689751,-0.02399024,0.0,0.0,0.0,0.037856378,0.2249656,0.9423698,-0.5302128,-0.19530874,0.9112651,-0.54313827,0.18378732,-1.0785555,-0.53359985,0.19779564,-0.9768058,-0.5339996,-0.05319965,0.012393503,-0.028565893,-0.06793281,-0.008980257,0.0010706485,0.06386764,-0.055733822,-0.020369057,0.057417143,-0.047118355,0.048733957,2.0,2.0,-2.0,-2.0,2.0,-2.0,2.0,-2.0,-2.0,2.0,-2.0,-2.0,2.0,2.0,-2.0,-2.0,2.0,-2.0,2.0,-2.0,-2.0,2.0,-2.0,-2.0
2025-06-05 10:29:59.509,0.026433187,0.033208422,0.035350896,-0.060422786,0.26385403,-0.0115788495,0.0,0.0,0.0,0.03785638,0.2188711,0.94936943,-0.5298082,-0.2017966,0.92038697,-0.5347832,0.18623734,-1.08101,-0.5302284,0.20645007,-0.9788697,-0.5200382,0.05399281,0.025226615,-0.03241682,0.06978492,0.0457942,-0.014919917,0.033783156,-0.04475599,-0.006841023,0.00234953,0.003386646,-0.0070378766,2.0,2.0,-2.0,-2.0,2.0,-2.0,2.0,-2.0,-2.0,2.0,-2.0,-2.0,2.0,2.0,-2.0,-2.0,2.0,-2.0,2.0,-2.0,-2.0,2.0,-2.0,-2.0
2025-06-05 10:29:59.528,-0.0070132664,-0.012276733,-0.014422546,-0.014762528,0.25918016,0.0497063,0.0,0.0,0.0,0.037856385,0.2230588,0.95043117,-0.52819264,-0.18791007,0.92780393,-0.53813493,0.1872034,-1.096077,-0.5250868,0.210059,-0.9708793,-0.52315754,-0.06076967,-0.07095239,-0.020864757,-0.061810523,-0.019492472,-0.059928834,0.00069480634,0.02787017,0.050027084,-0.0019760295,-0.07076168,-0.05562512,2.0,2.0,-2.0,-2.0,2.0,-2.0,2.0,-2.0,-2.0,2.0,-2.0,-2.0,2.0,2.0,-2.0,-2.0,2.0,-2.0,2.0,-2.0,-2.0,2.0,-2.0,-2.0
2025-06-05 10:29:59.548,-0.02485978,-0.005980874,0.031359676,-0.024111584,0.2686985,0.0051202546,0.0,0.0,0.0,0.03785639,0.2148274,0.9476601,-0.5338465,-0.18934438,0.9269175,-0.53965604,0.18558283,-1.0822866,-0.5396077,0.20038806,-0.9642697,-0.5296239,-0.04743476,-0.070137575,-0.01959771,-0.012465287,-0.07191001,-0.06172653,-0.011961595,0.0019555565,0.0090113925,0.05616191,0.069056354,-0.03747504,2.0,2.0,-2.0,-2.0,2.0,-2.0,2.0,-2.0,-2.0,2.0,-2.0,-2.0,2.0,2.0,-2.0,-2.0,2.0,-2.0,2.0,-2.0,-2.0,2.0,-2.0,-2.0
2025-06-05 10:29:59.570,0.00035057167,-0.020644002,-0.023237063,-0.056275256,0.2999534,0.023474658,0.0,0.0,0.0,0.037856393,0.22624882,0.942696,-0.540539,-0.18939482,0.91410905,-0.54102373,0.1981904,-1.07739,-0.53010774,0.19315362,-0.9647167,-0.51724434,-0.025656017,-0.02426361,-0.005354097,-0.019907793,-0.011614211,-0.008366128,0.030732863,0.04209594,-0.059655525,0.054905716,-0.047253065,-0.05442576,2.0,2.0,-2.0,-2.0,2.0,-2.0,2.0,-2.0,-2.0,2.0,-2.0,-2.0,2.0,2.0,-2.0,-2.0,2.0,-2.0,2.0,-2.0,-2.0,2.0,-2.0,-2.0
2025-06-05 10:29:59.589,-0.005575213,-0.03658282,0.030935837,-0.01962065,0.22750118,0.019046899,0.0,0.0,0.0,0.037856396,0.22507595,0.9440878,-0.52969253,-0.20477258,0.92399937,-0.5268151,0.19359416,-1.0802547,-0.5370382,0.21078613,-0.97761077,-0.5351822,0.03948217,-0.009472764,-0.03541955,0.006407373,-0.037587006,0.06472938,0.06941831,-0.017378585,-0.031393714,0.036572766,-0.03991435,0.013142878,2.0,2.0,-2.0,-2.0,2.0,-2.0,2.0,-2.0,-2.0,2.0,-2.0,-2.0,2.0,2.0,-2.0,-2.0,2.0,-2.0,2.0,-2.0,-2.0,2.0,-2.0,-2.0
2025-06-05 10:29:59.609,0.035241783,0.022717174,-0.04287066,-0.05961688,0.25290886,-0.032363687,0.0,0.0,0.0,0.0378564,0.22695613,0.94229096,-0.52656627,-0.19003943,0.9233868,-0.54448575,0.17959362,-1.0772821,-0.5211891,0.20147695,-0.96611655,-0.53108966,-0.03994643,-0.041025903,0.035452697,0.05175423,-0.056457847,-0.0315688,-0.034775704,0.039612968,0.061409846,-0.021362288,-0.060837064,0.011462912,2.0,2.0,-2.0,-2.0,2.0,-2.0,2.0,-2.0,-2.0,2.0,-2.0,-2.0,2.0,2.0,-2.0,-2.0,2.0,-2.0,2.0,-2.0,-2.0,2.0,-2.0,-2.0
2025-06-05 10:29:59.629,-0.021326803,-0.0008787878,0.04869271,-0.0041821757,0.22448164,0.04812601,0.0,0.0,0.0,0.037856404,0.21679549,0.940428,-0.5372143,-0.1929267,0.9228556,-0.54083836,0.189062,-1.0766041,-0.52933836,0.1941607,-0.98190045,-0.53152376,-0.07081148,0.036954436,-0.031928495,0.05207983,0.014525873,-0.00740748,0.028262809,0.06310743,0.005880515,0.00064084295,0.055097915,0.07137237,2.0,2.0,-2.0,-2.0,2.0,-2.0,2.0,-2.0,-2.0,2.0,-2.0,-2.0,2.0,2.0,-2.0,-2.0,2.0,-2.0,2.0,-2.0,-2.0,2.0,-2.0,-2.0
2025-06-05 10:29:59.649,0.009215984,-0.023746911,-0.034912568,-0.04641893,0.2522883,-0.033464737,0.0,0.0,0.0,0.037856407,0.22666843,0.944378,-0.53248805,-0.19129905,0.9289877,-0.5396125,0.182349,-1.093648,-0.5329583,0.20753622,-0.9732272,-0.5301705,-0.04808008,-0.030879216,-0.007881566,-0.054659273,0.06014897,0.021458805,-0.025167089,0.058312636,0.063569404,-0.011366086,-0.046439953,-0.025445975,2.0,2.0,-2.0,-2.0,2.0,-2.0,2.0,-2.0,-2.0,2.0,-2.0,-2.0,2.0,2.0,-2.0,-2.0,2.0,-2.0,2.0,-2.0,-2.0,2.0,-2.0,-2.0
2025-06-05 10:29:59.670,0.017510487,0.03558188,0.012593646,-0.019517176,0.2463878,-0.007458609,0.0,0.0,0.0,0.03785641,0.2149688,0.93737686,-0.5352073,-0.20571913,0.92580223,-0.5416928,0.19222559,-1.0930337,-0.52411026,0.21126054,-0.96960926,-0.5204243,-0.02968722,0.038456444,0.037272315,-0.073604815,-0.022814862,0.01567392,-0.058577217,-0.05018551,0.01677973,0.07154799,-0.019727472,-0.011385435,2.0,2.0,-2.0,-2.0,2.0,-2.0,2.0,-2.0,-2.0,2.0,-2.0,-2.0,2.0,2.0,-2.0,-2.0,2.0,-2.0,2.0,-2.0,-2.0,2.0,-2.0,-2.0
2025-06-05 10:29:59.690,0.016001752,0.023265826,-0.035141677,-0.024683367,0.26813853,0.03038758,0.0,0.0,0.0,0.037856415,0.22689605,0.9477087,-0.52716607,-0.20603353,0.9200282,-0.5276549,0.18851651,-1.0944905,-0.5366041,0.19803883,-0.96343154,-0.5173742,-0.059684157,0.0046024034,0.0289578,-0.016134785,0.015835103,0.06878873,0.066837884,0.03651636,0.032139745,0.049815666,0.06094828,-0.07393902,2.0,2.0,-2.0,-2.0,2.0,-2.0,2.0,-2.0,-2.0,2.0,-2.0,-2.0,2.0,2.0,-2.0,-2.0,2.0,-2.0,2.0,-2.0,-2.0,2.0,-2.0,-2.0
2025-06-05 10:29:59.711,0.027327657,0.018939536,-0.049772765,-0.028356474,0.2598606,-0.0006439475,0.0,0.0,0.0,0.03785642,0.21612488,0.9435418,-0.5353177,-0.19542062,0.9178661,-0.53606534,0.19305539,-1.0854409,-0.5351645,0.20323963,-0.9801857,-0.52987754,-0.053741667,-0.026190538,-0.033194225,-0.036089838,-0.029104639,0.009279973,0.034306586,0.033446558,-0.073767565,0.05636207,-0.06606416,-0.013674047,2.0,2.0,-2.0,-2.0,2.0,-2.0,2.0,-2.0,-2.0,2.0,-2.0,-2.0,2.0,2.0,-2.0,-2.0,2.0,-2.0,2.0,-2.0,-2.0,2.0,-2.0,-2.0
2025-06-05 10:29:59.731,-0.00043688554,0.022507833,-0.0014444414,-0.026733074,0.31450832,0.017174028,0.0,0.0,0.0,0.037856422,0.21941449,0.94576234,-0.5344736,-0.1939298,0.9206589,-0.54414636,0.18685055,-1.090628,-0.5292729,0.20741636,-0.9691863,-0.5269712,-0.051403925,0.0029128636,0.0058183875,0.035494354,-0.053222857,0.0224123,0.03580507,-0.039863158,-0.07039332,0.015046773,-0.0077095595,-0.043061502,2.0,2.0,-2.0,-2.0,2.0,-2.0,2.0,-2.0,-2.0,2.0,-2.0,-2.0,2.0,2.0,-2.0,-2.0,2.0,-2.0,2.0,-2.0,-2.0,2.0,-2.0,-2.0
2025-06-05 10:29:59.754,-0.04471991,0.04142315,-0.017626237,-0.02445842,0.2791695,0.024583759,0.0,0.0,0.0,0.037856426,0.2208929,0.9484197,-0.5381074,-0.19663261,0.91876924,-0.53807026,0.19793764,-1.0946062,-0.5321535,0.19492283,-0.972092,-0.51756275,0.015432862,0.02284071,-0.017259356,0.018490503,-0.030349743,-0.064668804,-0.05014539,0.027725313,-0.05970786,-0.028784713,-0.03920708,0.013689676,2.0,2.0,-2.0,-2.0,2.0,-2.0,2.0,-2.0,-2.0,2.0,-2.0,-2.0,2.0,2.0,-2.0,-2.0,2.0,-2.0,2.0,-2.0,-2.0,2.0,-2.0,-2.0
2025-06-05 10:29:59.772,-0.014540295,-0.03327538,0.042664163,-0.058001097,0.24119498,-0.047435112,0.0,0.0,0.0,0.03785643,0.20716986,0.93783796,-0.5391288,-0.20195423,0.92646194,-0.5297107,0.18404107,-1.0905753,-0.5271745,0.2064278,-0.97507465,-0.5174508,0.012707416,-0.05135104,-0.046821423,0.04304284,-0.025083508,0.03877352,0.041812457,0.059271164,0.00038238973,0.05339676,-0.01867821,-0.073445894,2.0,2.0,-2.0,-2.0,2.0,-2.0,2.0,-2.0,-2.0,2.0,-2.0,-2.0,2.0,2.0,-2.0,-2.0,2.0,-2.0,2.0,-2.0,-2.0,2.0,-2.0,-2.0
2025-06-05 10:29:59.792,0.039718706,-0.03755532,0.04636739,-0.034359217,0.2591224,0.015351591,0.0,0.0,0.0,0.037856434,0.21747972,0.9380812,-0.53516483,-0.18862212,0.9232251,-0.53510153,0.18529372,-1.0942596,-0.52382636,0.20190208,-0.97744995,-0.5359602,0.04691125,-0.03752598,0.04704969,-0.057809006,0.045214437,0.047393758,0.018882684,0.027443426,-0.018913861,0.029962063,-0.029479949,-0.05097561,2.0,2.0,-2.0,-2.0,2.0,-2.0,2.0,-2.0,-2.0,2.0,-2.0,-2.0,2.0,2.0,-2.0,-2.0,2.0,-2.0,2.0,-2.0,-2.0,2.0,-2.0,-2.0
2025-06-05 10:29:59.812,-0.01210936,0.030326763,0.029948223,-0.059710175,0.25954032,0.049899798,0.0,0.0,0.0,0.03785644,0.20835571,0.9384264,-0.5365598,-0.20530556,0.9187101,-0.5314748,0.1950314,-1.0781006,-0.525605,0.20170482,-0.9803928,-0.53357434,-0.040140573,0.02418567,0.013842203,-0.011466,-0.040947113,0.0049506426,-0.037647173,-0.046882417,0.03258569,-0.06338277,0.0013040921,0.0017168453,2.0,2.0,-2.0,-2.0,2.0,-2.0,2.0,-2.0,-2.0,2.0,-2.0,-2.0,2.0,2.0,-2.0,-2.0,2.0,-2.0,2.0,-2.0,-2.0,2.0,-2.0,-2.0
2025-06-05 10:29:59.832,-0.0224638,0.039545786,-0.02363539,-0.051669974,0.31581897,0.027173888,0.0,0.0,0.0,0.037856445,0.2110709,0.9353194,-0.5395742,-0.19898148,0.92927074,-0.53266525,0.18871722,-1.0862203,-0.5210248,0.19819987,-0.9683396,-0.52153033,0.04080156,-0.0029460804,0.019619511,-0.06815219,-0.030099245,-0.06756049,0.00439692,-0.067845225,-0.048028983,0.05321859,0.055369727,-0.022995727,2.0,2.0,-2.0,-2.0,2.0,-2.0,2.0,-2.0,-2.0,2.0,-2.0,-2.0,2.0,2.0,-2.0,-2.0,2.0,-2.0,2.0,-2.0,-2.0,2.0,-2.0,-2.0
2025-06-05 10:29:59.854,0.04645552,-0.03156461,-0.038657557,-0.027383877,0.29327646,0.0068946816,0.0,0.0,0.0,0.03785645,0.22116087,0.93789196,-0.5396256,-0.20000453,0.9174664,-0.5432749,0.18724325,-1.0855967,-0.5233999,0.19726056,-0.96970224,-0.53205246,-0.067409866,-0.009223984,-0.06689191,-0.020189913,-0.027086237,-0.04231249,0.033811353,-0.007864248,0.06683564,0.027644845,0.02140208,-0.061975956,2.0,2.0,-2.0,-2.0,2.0,-2.0,2.0,-2.0,-2.0,2.0,-2.0,-2.0,2.0,2.0,-2.0,-2.0,2.0,-2.0,2.0,-2.0,-2.0,2.0,-2.0,-2.0
2025-06-05 10:29:59.872,0.000885023,0.01652141,-0.02963807,0.033648435,0.2459556,-0.010373937,0.0,0.0,0.0,0.037856452,0.22471863,0.94514686,-0.52785045,-0.19909592,0.92748,-0.5327244,0.19796161,-1.0794606,-0.5332728,0.19611366,-0.9704151,-0.5223022,-0.03021605,-0.048899032,-0.035272673,-0.052669447,-0.040560078,-0.03163594,0.052779462,-0.059922844,-0.0058036717,-0.051879324,0.016929619,0.020384422,2.0,2.0,-2.0,-2.0,2.0,-2.0,2.0,-2.0,-2.0,2.0,-2.0,-2.0,2.0,2.0,-2.0,-2.0,2.0,-2.0,2.0,-2.0,-2.0,2.0,-2.0,-2.0
2025-06-05 10:29:59.893,0.0076399213,-0.045459334,0.043611024,-0.036161687,0.29279003,-0.009862547,0.0,0.0,0.0,0.037856456,0.22429532,0.9421351,-0.53586215,-0.1947115,0.92783505,-0.53499144,0.18189223,-1.076676,-0.52043813,0.2125919,-0.97224814,-0.5220537,-0.0051396578,0.034730017,0.006921276,-0.03412835,-0.041023243,0.013799739,-0.04478222,-0.028587889,-0.044043727,0.037581928,0.014854425,-0.00040387886,2.0,2.0,-2.0,-2.0,2.0,-2.0,2.0,-2.0,-2.0,2.0,-2.0,-2.0,2.0,2.0,-2.0,-2.0,2.0,-2.0,2.0,-2.0,-2.0,2.0,-2.0,-2.0
2025-06-05 10:29:59.913,0.04817145,0.009900466,-0.031463973,-0.006373442,0.25915232,-0.0103627555,0.0,0.0,0.0,0.03785646,0.21858297,0.9396358,-0.5287601,-0.19748902,0.926437,-0.53076106,0.18278697,-1.0960944,-0.53260446,0.20017023,-0.96409005,-0.5342651,0.03978994,-0.024803618,-0.06441001,-0.06106654,0.070257306,0.020794075,0.07198655,0.012056686,0.06450635,0.05947555,0.0057084938,-0.014236364,2.0,2.0,-2.0,-2.0,2.0,-2.0,2.0,-2.0,-2.0,2.0,-2.0,-2.0,2.0,2.0,-2.0,-2.0,2.0,-2.0,2.0,-2.0,-2.0,2.0,-2.0,-2.0
2025-06-05 10:29:59.933,-0.03542768,0.03367781,0.029703725,-0.03171552,0.29113412,0.044319645,0.0,0.0,0.0,0.037856463,0.21852677,0.94260937,-0.5363951,-0.19582085,0.9115209,-0.5305503,0.19798937,-1.0836945,-0.52173567,0.20360343,-0.97163695,-0.5242254,-0.0699204,0.014466278,-0.029494906,0.04205074,-0.03794525,-0.052296165,-0.07376295,0.036272734,-0.03146286,-0.0086550405,-0.059980504,-0.07232763,2.0,2.0,-2.0,-2.0,2.0,-2.0,2.0,-2.0,-2.0,2.0,-2.0,-2.0,2.0,2.0,-2.0,-2.0,2.0,-2.0,2.0,-2.0,-2.0,2.0,-2.0,-2.0
2025-06-05 10:29:59.954,0.028244626,-0.038188413,-0.028981622,0.021988407,0.29897755,0.041325863,0.0,0.0,0.0,0.037856467,0.22287801,0.94640785,-0.5316344,-0.19496539,0.9164844,-0.5261937,0.1893339,-1.0812253,-0.5297664,0.19550261,-0.9778785,-0.51798487,0.06789835,-0.073509276,0.029386302,-0.031657133,-0.06986823,0.034567967,0.057211287,0.05450867,-0.038822263,-0.021862667,-0.024539422,-0.037837274,2.0,2.0,-2.0,-2.0,2.0,-2.0,2.0,-2.0,-2.0,2.0,-2.0,-2.0,2.0,2.0,-2.0,-2.0,2.0,-2.0,2.0,-2.0,-2.0,2.0,-2.0,-2.0
2025-06-05 10:29:59.973,0.016103638,-0.02786018,0.02609044,-0.00047427652,0.29348248,0.023035085,0.0,0.0,0.0,0.03785647,0.20837395,0.9374781,-0.5263938,-0.19271994,0.91220236,-0.53594875,0.19050728,-1.0942402,-0.5228591,0.2004947,-0.9683669,-0.5291437,0.046008017,-0.039487433,-0.0014583998,0.04224986,0.039422907,-0.00619333,-0.022895949,-0.010699388,0.06647545,0.025555966,0.011722047,-0.019012459,2.0,2.0,-2.0,-2.0,2.0,-2.0,2.0,-2.0,-2.0,2.0,-2.0,-2.0,2.0,2.0,-2.0,-2.0,2.0,-2.0,2.0,-2.0,-2.0,2.0,-2.0,-2.0
2025-06-05 10:29:59.993,-0.00013397541,0.018124627,-0.040705808,-0.022288634,0.29487428,-0.016434006,0.0,0.0,0.0,0.037856475,0.21642458,0.9384527,-0.52927476,-0.19243856,0.9230026,-0.54478145,0.19822481,-1.0865147,-0.5320285,0.1933808,-0.96687204,-0.52518356,0.06569098,0.011886009,-0.007620297,-0.07073052,0.059161764,-0.00022376295,0.0037230577,-0.001372345,0.03352027,-0.047453437,0.044403274,-0.040158473,2.0,2.0,-2.0,-2.0,2.0,-2.0,2.0,-2.0,-2.0,2.0,-2.0,-2.0,2.0,2.0,-2.0,-2.0,2.0,-2.0,2.0,-2.0,-2.0,2.0,-2.0,-2.0
2025-06-05 10:30:00.013,-0.038266465,-0.018822173,-0.048563596,-0.056403257,0.2518936,0.022678876,0.0,0.0,0.0,0.03785648,0.22378667,0.93999994,-0.53369325,-0.19827309,0.92395467,-0.53991187,0.18098503,-1.0950553,-0.5342664,0.20808734,-0.97517425,-0.5334583,-0.032739647,0.04656067,-0.015807543,0.06753296,0.051245052,0.02493203,-0.07025112,0.055265322,-0.034867495,-0.043542795,-0.025417624,0.07396343,2.0,2.0,-2.0,-2.0,2.0,-2.0,2.0,-2.0,-2.0,2.0,-2.0,-2.0,2.0,2.0,-2.0,-2.0,2.0,-2.0,2.0,-2.0,-2.0,2.0,-2.0,-2.0
2025-06-05 10:30:00.033,0.02494055,0.047466867,-0.0342334,-0.044760354,0.22812061,-0.017699702,0.0,0.0,0.0,0.037856482,0.22620799,0.93495226,-0.53998214,-0.18985137,0.91425693,-0.53239346,0.18701728,-1.0817323,-0.5315485,0.20814568,-0.98192716,-0.5343512,-0.052947734,0.07136251,0.06937256,0.043896977,-0.05194231,-0.06406929,-0.020980729,-0.0690188,-0.041792747,-0.02373283,-0.001142849,-0.0044278423,2.0,2.0,-2.0,-2.0,2.0,-2.0,2.0,-2.0,-2.0,2.0,-2.0,-2.0,2.0,2.0,-2.0,-2.0,2.0,-2.0,2.0,-2.0,-2.0,2.0,-2.0,-2.0
2025-06-05 10:30:00.054,-0.03498951,-0.032485608,-0.035599478,-0.05461224,0.31622118,0.046350505,0.0,0.0,0.0,0.037856486,0.22260596,0.94978654,-0.53555936,-0.20532548,0.9174257,-0.53550416,0.19272466,-1.0955532,-0.5382492,0.21112248,-0.97883725,-0.52136666,-0.048386473,0.022267317,0.07316967,0.0059910594,-0.02250434,-3.8441587e-05,0.063264,0.048068777,0.04307311,-3.5873225e-05,-0.065423936,-0.062354937,2.0,2.0,-2.0,-2.0,2.0,-2.0,2.0,-2.0,-2.0,2.0,-2.0,-2.0,2.0,2.0,-2.0,-2.0,2.0,-2.0,2.0,-2.0,-2.0,2.0,-2.0,-2.0
