openverse-orca/OrcaGym/log/simulation_log_20250605_115454.csv
timestamp,imu_angle_roll,imu_angle_pitch,imu_angle_yaw,imu_angular_velocity_roll,imu_angular_velocity_pitch,imu_angular_velocity_yaw,imu_acc_x,imu_acc_y,imu_acc_z,fl_joint1_pos,fl_joint1_vel,fl_joint1_torque,fl_joint2_pos,fl_joint2_vel,fl_joint2_torque,fl_joint3_pos,fl_joint3_vel,fl_joint3_torque,fr_joint1_pos,fr_joint1_vel,fr_joint1_torque,fr_joint2_pos,fr_joint2_vel,fr_joint2_torque,fr_joint3_pos,fr_joint3_vel,fr_joint3_torque,hl_joint1_pos,hl_joint1_vel,hl_joint1_torque,hl_joint2_pos,hl_joint2_vel,hl_joint2_torque,hl_joint3_pos,hl_joint3_vel,hl_joint3_torque,hr_joint1_pos,hr_joint1_vel,hr_joint1_torque,hr_joint2_pos,hr_joint2_vel,hr_joint2_torque,hr_joint3_pos,hr_joint3_vel,hr_joint3_torque,fl_force_x,fl_force_y,fl_force_z,fr_force_x,fr_force_y,fr_force_z,hl_force_x,hl_force_y,hl_force_z,hr_force_x,hr_force_y,hr_force_z,fl_hip_action,fl_thigh_action,fl_calf_action,fr_hip_action,fr_thigh_action,fr_calf_action,hl_hip_action,hl_thigh_action,hl_calf_action,hr_hip_action,hr_thigh_action,hr_calf_action
2025-06-05 11:54:54.846,0.038255382,0.048582457,0.036427535,-0.021331467,-0.0005046101,0.025208244,1.6738595,-0.5459684,0.0,0.0,-0.0066817217,0.009015923,-0.005892737,-0.0026143566,-0.0010485051,0.008783137,0.00490896,-0.0052827303,-0.0065545426,-0.00047499506,0.0011889637,0.0078896135,-0.04505712,0.064176366,-0.017607436,0.058884032,0.073653884,-0.015065661,0.064281166,0.007328536,-0.04800275,0.045117013,-0.052490517,0.008426285,0.0,0.0,0.0,0.0,0.0,0.0,0.0,0.0,0.0,0.0,0.0,0.0,-2.0,-0.32453856,-0.8577455,2.0,2.0,2.0,-2.0,-1.5254737,-2.0,2.0,0.62137085,-2.0
2025-06-05 11:54:54.850,-0.008913968,-0.096298054,-0.08831289,0.036705088,-0.03873683,0.008461241,0.0,0.0,0.0,0.0,-0.008742996,-0.0027055151,-0.02425003,0.008034593,0.06852893,0.032099597,-0.0053660646,-0.044135354,-0.037899572,0.023098502,0.017463062,-0.031838574,-0.06767289,-0.08640377,-0.010681543,0.092534825,0.17182854,0.07609117,-0.10334624,-0.17122893,-0.1125717,0.078510575,0.013268846,-0.118941866,-2.0,-0.32453856,-0.8577455,2.0,2.0,2.0,-2.0,-1.5254737,-2.0,2.0,0.62137085,-2.0,-2.0,2.0,-2.0,2.0,0.5160883,2.0,-2.0,-2.0,-2.0,2.0,-0.35064575,-2.0
2025-06-05 11:54:54.870,0.04310503,0.010846803,-0.051519487,0.032805923,-0.020682972,-0.029255401,0.0,0.0,0.0,0.0008905335,-0.038253885,0.06220106,-0.06854752,0.024253342,0.08203742,0.08550757,-0.026728252,-0.118358575,-0.07570393,0.034374062,0.003322413,-0.07391611,-0.010069438,0.1935777,-0.045233056,0.023528172,0.10274864,0.14532495,-0.080193155,-0.10350347,-0.12822537,0.022479648,-0.03429742,-0.094042994,-2.0,2.0,-2.0,2.0,0.5160883,2.0,-2.0,-2.0,-2.0,2.0,-0.35064575,-2.0,-2.0,2.0,-2.0,2.0,-0.7216949,2.0,-2.0,-2.0,-2.0,2.0,-1.1671991,-2.0
2025-06-05 11:54:54.891,0.017040893,0.12298051,0.0070240344,-0.011958634,-0.013084799,-0.039288525,0.0,0.0,0.0,0.0011853116,-0.0330365,0.07577412,-0.07851553,0.04800509,0.06603518,0.11072842,-0.040171765,-0.16395111,-0.09484369,0.03135228,-0.008465368,-0.06700714,0.012156553,0.0037657009,-0.046791628,-0.024649374,-0.054673098,0.10855761,0.033254396,-0.13441071,0.011690284,0.036097467,-0.06574365,0.0074016447,-2.0,2.0,-2.0,2.0,-0.7216949,2.0,-2.0,-2.0,-2.0,2.0,-1.1671991,-2.0,-2.0,2.0,-2.0,2.0,-0.9169895,2.0,-2.0,-2.0,-2.0,2.0,-0.5156124,-2.0
2025-06-05 11:54:54.913,-0.05472644,0.278381,-0.02119233,-0.002932634,-0.015118866,0.0074809133,0.0,0.0,0.0,0.000750159,-0.03907925,0.1046715,-0.07997476,0.044738755,0.011278046,0.13511443,-0.03744295,-0.19337456,-0.09025187,0.060579475,-0.023712976,-0.041220143,-0.007279663,0.03538492,0.007331006,0.039356824,-0.10574012,0.03821365,0.0115491515,-0.0790679,0.056002665,0.09566227,-0.013798888,0.11615258,-2.0,2.0,-2.0,2.0,-0.9169895,2.0,-2.0,-2.0,-2.0,2.0,-0.5156124,-2.0,-2.0,2.0,-2.0,2.0,-1.6613096,2.0,-2.0,-2.0,-2.0,2.0,-0.51678646,-2.0
2025-06-05 11:54:54.931,-0.072569035,0.22185317,-0.034220845,0.043824267,-0.010341235,0.016275527,0.0,0.0,0.0,0.0010642298,-0.047799785,0.10895267,-0.06770977,0.060329396,-0.054387175,0.15563805,-0.04281785,-0.22849679,-0.11011812,0.07298641,-0.022302326,-0.016695838,0.021144748,0.066743284,-0.056866497,-0.050650857,-0.15830049,0.03322856,-0.026972327,-0.14133802,-0.08673697,-0.04213406,-0.053042747,0.09383171,-2.0,2.0,-2.0,2.0,-1.6613096,2.0,-2.0,-2.0,-2.0,2.0,-0.51678646,-2.0,-2.0,2.0,-2.0,2.0,-1.4439808,2.0,-2.0,-2.0,-2.0,2.0,-0.8419608,-2.0
2025-06-05 11:54:54.952,-0.0058549554,0.26136786,0.028864969,0.00035033334,0.0036860113,-0.022837378,0.0,0.0,0.0,0.0020287442,-0.049561493,0.11780235,-0.079372525,0.06662518,-0.10255669,0.16925465,-0.048192523,-0.27130944,-0.12900095,0.06355328,-0.023736969,-0.01942533,-0.04794554,0.07135679,0.006020624,-0.051516622,-0.066646315,0.00018840248,-0.03528022,-0.026919791,-0.13402288,0.014882121,-0.016653206,0.0047830446,-2.0,2.0,-2.0,2.0,-1.4439808,2.0,-2.0,-2.0,-2.0,2.0,-0.8419608,-2.0,-2.0,2.0,-2.0,2.0,-1.5648519,1.025356,-2.0,-2.0,-2.0,2.0,-0.092585884,-2.0
2025-06-05 11:54:54.972,-0.03874478,0.22538956,-0.042495325,0.077886514,-0.076312065,0.00980512,0.0,0.0,0.0,0.0023803269,-0.0666571,0.1428525,-0.08512674,0.054808132,-0.15346828,0.16770287,-0.050980277,-0.3022289,-0.15048069,0.08525739,-0.02280745,-0.0055450136,0.0013344199,0.1293436,0.01123785,0.012166151,-0.06312333,0.02340952,-0.064567715,-0.13271847,-0.032139212,-0.05761666,0.09707978,-0.060429867,-2.0,2.0,-2.0,2.0,-1.5648519,1.025356,-2.0,-2.0,-2.0,2.0,-0.092585884,-2.0,-2.0,2.0,-2.0,2.0,-1.5106884,0.7940089,-2.0,-2.0,-2.0,2.0,-1.0478902,-2.0
2025-06-05 11:54:54.992,-0.032553364,0.16099265,0.06065774,0.042704374,-0.040029585,0.0029692892,0.0,0.0,0.0,0.002455091,-0.06409415,0.1674748,-0.11083959,0.06329034,-0.18168595,0.15719195,-0.056723148,-0.33346134,-0.16929808,0.090828575,-0.02619987,-0.012867518,-0.074878596,0.04571918,-0.07144445,0.06626022,-0.1567329,-0.0048832647,-0.009601651,-0.007243539,0.018336918,0.09187297,-0.011283856,0.07133005,-2.0,2.0,-2.0,2.0,-1.5106884,0.7940089,-2.0,-2.0,-2.0,2.0,-1.0478902,-2.0,-2.0,2.0,-2.0,2.0,-1.4316667,-0.17519167,-2.0,-2.0,-2.0,2.0,-0.11597916,-2.0
2025-06-05 11:54:55.013,-0.08658221,0.20841752,0.035256285,0.11512594,-0.12370365,-0.03661441,0.0,0.0,0.0,0.001694564,-0.076668814,0.19336188,-0.11262735,0.067741886,-0.21073197,0.12592177,-0.079984635,-0.36549374,-0.19476125,0.08651858,-0.018089836,-0.010306623,-0.030653616,0.07592193,-0.00522403,-0.051380377,-0.09926865,-0.13333131,0.017073093,-0.028839618,-0.10125183,0.025271427,0.06363754,0.04914241,-2.0,2.0,-2.0,2.0,-1.4316667,-0.17519167,-2.0,-2.0,-2.0,2.0,-0.11597916,-2.0,-2.0,2.0,-2.0,2.0,-1.8247846,-2.0,-2.0,-2.0,-2.0,2.0,-0.15751335,-2.0
2025-06-05 11:54:55.032,-0.0351375,0.23213424,0.02575682,0.0525977,-0.04699726,0.047146183,0.0,0.0,0.0,0.0005877648,-0.07532087,0.23235728,-0.12265658,0.08408623,-0.23699866,0.06883486,-0.07832911,-0.37098122,-0.211561,0.07998824,0.0022331444,-0.024500208,0.0141970655,0.104954235,-0.015910275,0.017492918,-0.08887659,-0.10021147,-0.05853409,-0.056678936,0.027644517,0.04648961,0.036672767,-0.018012734,-2.0,2.0,-2.0,2.0,-1.8247846,-2.0,-2.0,-2.0,-2.0,2.0,-0.15751335,-2.0,-2.0,2.0,-2.0,2.0,-1.2532845,-2.0,-2.0,-2.0,-2.0,2.0,-1.5866935,-2.0
2025-06-05 11:54:55.052,-0.013172809,0.09142981,0.15996635,0.08502528,-0.058142405,-0.03635739,0.0,0.0,0.0,-0.0008583034,-0.086385876,0.25535673,-0.13817392,0.072854996,-0.2541461,0.014814868,-0.080134384,-0.38634446,-0.21072063,0.08442596,-0.027295977,-0.013335866,0.0281878,0.119831055,0.04615331,-0.057816207,-0.03448335,-0.05567966,-0.008896832,-0.028352302,-0.05511779,-0.03027461,-0.07501678,0.009102946,-2.0,2.0,-2.0,2.0,-1.2532845,-2.0,-2.0,-2.0,-2.0,2.0,-1.5866935,-2.0,-2.0,2.0,-2.0,2.0,0.04884953,-2.0,-2.0,-2.0,-2.0,2.0,-1.134834,-2.0
2025-06-05 11:54:55.072,0.019843465,-0.060997672,0.1751188,0.13643326,-0.1454323,-0.041611545,0.0,0.0,0.0,-0.0032026805,-0.08904244,0.2661629,-0.1590244,0.080369145,-0.25512603,-0.008226051,-0.087811746,-0.41797003,-0.22793923,0.09109092,-0.04881751,-0.014110893,-0.06310988,0.022117747,0.025904955,-0.076521546,-0.0481774,-0.1281317,-0.014904489,-0.010597891,0.048619244,-0.0079188375,-0.13327321,0.0084823165,-2.0,2.0,-2.0,2.0,0.04884953,-2.0,-2.0,-2.0,-2.0,2.0,-1.134834,-2.0,-2.0,2.0,-2.0,2.0,0.29570425,-2.0,-2.0,-2.0,-2.0,2.0,-1.267184,-2.0
2025-06-05 11:54:55.092,-0.0066727046,-0.08354178,0.23758586,0.08057244,-0.12008159,-0.04933194,0.0,0.0,0.0,-0.00653062,-0.089841485,0.29183534,-0.17491436,0.060738247,-0.25057626,-0.030327786,-0.0882562,-0.42727154,-0.22794381,0.07188138,-0.07071852,-0.030914927,-0.038501408,0.080824696,-0.08071653,0.05364055,0.0906475,-0.1342445,0.06672164,0.017975481,-0.050624385,0.004890428,-0.073811755,-0.048616845,-2.0,2.0,-2.0,2.0,0.29570425,-2.0,-2.0,-2.0,-2.0,2.0,-1.267184,-2.0,-2.0,2.0,-2.0,2.0,1.6125149,-2.0,-2.0,-2.0,-2.0,2.0,-0.7675502,-2.0
2025-06-05 11:54:55.113,-0.030988002,-0.1973818,0.18402572,0.07158627,-0.039485134,0.0074247005,0.0,0.0,0.0,-0.010321291,-0.08221166,0.3292653,-0.18876584,0.06599012,-0.2231703,-0.065379515,-0.07918556,-0.4282551,-0.2351267,0.079588704,-0.085097715,-0.059466064,0.060823627,0.09173661,-0.072863206,0.015890371,0.1282009,-0.022699546,0.053852323,-0.049680587,0.024995204,0.022277264,-0.08532587,-0.05708143,-2.0,2.0,-2.0,2.0,1.6125149,-2.0,-2.0,-2.0,-2.0,2.0,-0.7675502,-2.0,-2.0,2.0,-2.0,2.0,1.8559486,-2.0,-2.0,-2.0,-2.0,2.0,-1.9386947,-2.0
2025-06-05 11:54:55.132,0.00085237087,-0.29322678,0.12506822,0.09125443,-0.023617862,-0.02428215,0.0,0.0,0.0,-0.0136377355,-0.096342675,0.34782603,-0.1985856,0.048009858,-0.19354872,-0.09828266,-0.09080841,-0.44530812,-0.2407808,0.080001086,-0.1387606,-0.08760788,-0.023750307,0.1024183,-0.06439057,-0.01621462,0.055356797,-0.14466354,0.052784752,-0.04903061,0.063457735,-0.045457445,-0.13172074,-0.06406283,-2.0,2.0,-2.0,2.0,1.8559486,-2.0,-2.0,-2.0,-2.0,2.0,-1.9386947,-2.0,-2.0,2.0,-2.0,2.0,0.64119023,-2.0,-2.0,-2.0,-2.0,2.0,-2.0,-2.0
2025-06-05 11:54:55.152,0.025108019,-0.24571362,0.20413765,0.021222616,-0.055938415,-0.034958404,0.0,0.0,0.0,-0.016512634,-0.09991001,0.37076962,-0.19446816,0.042141426,-0.17585272,-0.11979756,-0.09036511,-0.44101828,-0.24216796,0.087555975,-0.19953382,-0.11827967,-0.004319962,0.08371276,0.0033975546,0.054552298,0.028555283,-0.094461635,-0.06473467,-0.02463327,0.009798471,-0.009585613,-0.16742904,-0.016937781,-2.0,2.0,-2.0,2.0,0.64119023,-2.0,-2.0,-2.0,-2.0,2.0,-2.0,-2.0,-2.0,2.0,-2.0,2.0,1.5670177,-2.0,-2.0,-2.0,-2.0,2.0,-2.0,-2.0
2025-06-05 11:54:55.173,-0.0009874965,-0.3352228,0.15010525,0.013048779,0.011068813,0.007427169,0.0,0.0,0.0,-0.019256862,-0.090813465,0.38735628,-0.19503862,0.046434525,-0.14301284,-0.145611,-0.087214515,-0.44523636,-0.25696695,0.07849345,-0.2523314,-0.14134708,-0.0027071785,0.050077677,-0.046455964,-0.0014350681,0.061750628,-0.10746753,0.0015254191,-0.06168882,-0.00076890626,0.045034878,-0.061628602,-0.004824835,-2.0,2.0,-2.0,2.0,1.5670177,-2.0,-2.0,-2.0,-2.0,2.0,-2.0,-2.0,-2.0,2.0,-2.0,2.0,1.2474405,-2.0,-2.0,-2.0,-2.0,2.0,-2.0,-2.0
2025-06-05 11:54:55.192,0.069848806,-0.35466918,0.058575563,-0.0021247072,-0.036889497,-0.013012325,0.0,0.0,0.0,-0.021505248,-0.099968635,0.4148101,-0.20212053,0.03744032,-0.10821909,-0.1533251,-0.09474031,-0.44287893,-0.24685784,0.079742745,-0.29138404,-0.15988699,0.047635324,-0.0018787219,-0.06817018,0.05346909,0.11000785,0.0024617817,-0.04821752,-0.0132509945,-0.0014896598,0.07547196,-0.10981181,0.016352221,-2.0,2.0,-2.0,2.0,1.2474405,-2.0,-2.0,-2.0,-2.0,2.0,-2.0,-2.0,-2.0,2.0,-2.0,2.0,-0.39892453,-2.0,-2.0,-2.0,-2.0,2.0,-2.0,-2.0
2025-06-05 11:54:55.213,0.21924579,-0.29080114,0.08998242,-0.014401043,-0.04716354,0.041893326,0.0,0.0,0.0,-0.023194913,-0.093738526,0.41402462,-0.2078061,0.043801952,-0.10312256,-0.1789465,-0.098161854,-0.45650858,-0.26031584,0.09177366,-0.31400904,-0.18404493,0.04548296,0.038664464,0.011568066,-0.059499227,-0.005581298,-0.080855004,-0.0437462,0.04892696,-0.052315034,0.06274156,-0.10070886,-0.09915667,-2.0,2.0,-2.0,2.0,-0.39892453,-2.0,-2.0,-2.0,-2.0,2.0,-2.0,-2.0,-2.0,2.0,-2.0,2.0,-0.42371398,-2.0,-2.0,-2.0,-2.0,2.0,-2.0,-2.0
2025-06-05 11:54:55.232,0.28127062,-0.32925764,0.081103384,-0.099560186,-0.037991054,-0.0346765,0.0,0.0,0.0,-0.024767784,-0.08606977,0.4156167,-0.19805785,0.054560646,-0.08668457,-0.17667115,-0.0902026,-0.47159442,-0.2600185,0.094578125,-0.34952256,-0.19927947,0.01730528,0.03502475,0.053632688,-0.04404071,0.042230606,0.0407204,-0.032474224,0.02097161,-0.061161138,-0.02984846,-0.00023493539,-0.00059257477,-2.0,2.0,-2.0,2.0,-0.42371398,-2.0,-2.0,-2.0,-2.0,2.0,-2.0,-2.0,-2.0,2.0,-2.0,2.0,-0.44091165,-2.0,-2.0,-2.0,-2.0,2.0,-2.0,-2.0
2025-06-05 11:54:55.252,0.33565685,-0.37470654,0.07600041,-0.04949123,-0.039725006,-0.009891912,0.0,0.0,0.0,-0.026411543,-0.08515176,0.41601294,-0.19431093,0.0545916,-0.10218712,-0.17799161,-0.09255888,-0.4662886,-0.25828353,0.08838238,-0.38550755,-0.2038221,-0.008631714,-0.05543092,0.07660809,0.06382655,-0.07951223,0.03770845,-0.033194542,0.04996977,0.009311139,-0.0010976195,-0.032359593,0.06361229,-2.0,2.0,-2.0,2.0,-0.44091165,-2.0,-2.0,-2.0,-2.0,2.0,-2.0,-2.0,-2.0,2.0,-2.0,2.0,-0.8246106,-2.0,-2.0,-2.0,-2.0,2.0,-2.0,-1.3881327
2025-06-05 11:54:55.272,0.046591792,-0.08953936,0.13748507,-0.081964076,0.007266442,-0.044480678,0.0,0.0,0.0,-0.028016347,-0.09113743,0.43365344,-0.1927791,0.06376371,-0.10176452,-0.17866813,-0.09954481,-0.49758488,-0.22353585,0.097404264,-0.4127298,-0.19314946,-0.00361159,0.06006614,-0.03779955,0.062325925,-0.008632196,0.053801358,-0.0011402662,-0.081282526,0.1086056,0.051479116,0.0134755485,0.047148425,-2.0,2.0,-2.0,2.0,-0.8246106,-2.0,-2.0,-2.0,-2.0,2.0,-2.0,-1.3881327,-2.0,2.0,-2.0,2.0,1.0371879,-2.0,-2.0,-2.0,-2.0,2.0,-2.0,0.025908787
2025-06-05 11:54:55.292,-0.07188936,-0.04002566,0.05086068,-0.11600148,0.017301846,-0.022729328,0.0,0.0,0.0,-0.029665347,-0.0744808,0.45692185,-0.17432779,0.075915284,-0.08508204,-0.1689778,-0.11411423,-0.5072992,-0.19074227,0.09881907,-0.42200485,-0.14657815,0.0027201197,0.12264727,0.044307757,0.055639286,0.10337727,-0.03003531,-0.036703944,0.017433867,0.027787352,0.056925524,-0.047392193,0.11491063,-2.0,2.0,-2.0,2.0,1.0371879,-2.0,-2.0,-2.0,-2.0,2.0,-2.0,0.025908787,-2.0,2.0,-2.0,2.0,-0.094652526,-2.0,-2.0,-2.0,-2.0,2.0,-2.0,2.0
2025-06-05 11:54:55.313,0.0054893773,0.0061882306,0.053565748,-0.15060395,-0.0036331278,0.0010507163,0.0,0.0,0.0,-0.031294126,-0.0645653,0.47599876,-0.16785282,0.09007917,-0.073886,-0.1689907,-0.098157786,-0.5086395,-0.14682248,0.10735184,-0.42029595,-0.09220243,0.050843246,0.1303669,0.07753287,0.017140334,0.08349415,0.08698403,-0.006645156,0.04659783,0.10448015,-0.016622387,0.03787476,0.18041365,-2.0,2.0,-2.0,2.0,-0.094652526,-2.0,-2.0,-2.0,-2.0,2.0,-2.0,2.0,-2.0,2.0,-2.0,2.0,0.7953723,-2.0,-2.0,-2.0,-2.0,2.0,-2.0,2.0
2025-06-05 11:54:55.334,-0.06285865,0.016252255,-0.005534584,-0.05001788,0.054102663,-0.029712206,0.0,0.0,0.0,-0.03225838,-0.07292834,0.50810754,-0.16689482,0.09534478,-0.059470546,-0.15931122,-0.10183917,-0.50339895,-0.12839663,0.10085334,-0.44225284,-0.027560119,0.0029795629,0.053140614,0.0038834806,0.06409766,0.003132918,-0.00943349,0.034919154,-0.028116163,-0.018928329,0.00810066,0.022545977,0.20164336,-2.0,2.0,-2.0,2.0,0.7953723,-2.0,-2.0,-2.0,-2.0,2.0,-2.0,2.0,-2.0,2.0,-2.0,2.0,0.53350645,-2.0,-2.0,-2.0,-2.0,2.0,-2.0,2.0
2025-06-05 11:54:55.353,0.00091395725,-0.022808531,0.036997728,-0.049701814,0.05939322,-0.04094189,0.0,0.0,0.0,-0.032536216,-0.060689613,0.5237776,-0.16343091,0.0854129,-0.0297014,-0.1770615,-0.10738549,-0.5057286,-0.13250169,0.09457341,-0.4382432,0.018439703,0.060670644,0.06549187,0.016498331,-0.036130928,0.0928711,0.039664384,0.060462173,-0.03371181,-0.036521453,-0.060027454,0.02114919,0.08981791,-2.0,2.0,-2.0,2.0,0.53350645,-2.0,-2.0,-2.0,-2.0,2.0,-2.0,2.0,-2.0,2.0,-2.0,2.0,1.1606865,-2.0,-2.0,-2.0,-2.0,2.0,-2.0,2.0
2025-06-05 11:54:55.374,-0.072501875,-0.069442876,0.010593121,-0.10060423,0.0511415,0.0033450415,0.0,0.0,0.0,-0.03232986,-0.058669597,0.52982944,-0.16450018,0.09289717,-0.0040685437,-0.17259939,-0.11595115,-0.51266176,-0.12230056,0.10374557,-0.44641107,0.07082844,-0.027347254,-0.05223136,0.034896843,-0.010887831,0.109873794,-0.06527732,0.07455021,-0.056373347,0.06964862,0.023915295,-0.016299402,0.16585724,-2.0,2.0,-2.0,2.0,1.1606865,-2.0,-2.0,-2.0,-2.0,2.0,-2.0,2.0,-2.0,2.0,-2.0,2.0,1.1334502,-2.0,-2.0,-2.0,-2.0,2.0,-2.0,2.0
2025-06-05 11:54:55.396,0.0038958509,-0.06903004,-0.071771435,-0.09544086,0.06218527,-0.010195386,0.0,0.0,0.0,-0.031772137,-0.07842835,0.53290576,-0.17947762,0.10195268,0.00039436898,-0.16720042,-0.096097715,-0.5108913,-0.11517567,0.09518025,-0.44028077,0.1015833,-0.06245598,0.035103887,-0.03768842,0.049551815,0.015126517,-0.026516078,0.06300271,0.007972441,0.044402372,-0.015567257,-0.018530743,0.14201002,-2.0,2.0,-2.0,2.0,1.1334502,-2.0,-2.0,-2.0,-2.0,2.0,-2.0,2.0,-2.0,2.0,-2.0,2.0,-0.49230987,-2.0,-2.0,-2.0,-2.0,2.0,-2.0,2.0
2025-06-05 11:54:55.414,0.026647897,-0.004746828,0.042555872,-0.108125314,0.048826143,-0.037847057,0.0,0.0,0.0,-0.031007031,-0.074374735,0.5363275,-0.18258238,0.10745101,0.015916977,-0.16567236,-0.10796844,-0.517779,-0.11680568,0.09530742,-0.45779973,0.12173851,0.018205682,0.024540137,0.0009173152,-0.003498225,0.011809213,-0.04058217,-0.042545117,0.052928,0.030677011,0.06317753,-0.06893583,0.018402109,-2.0,2.0,-2.0,2.0,-0.49230987,-2.0,-2.0,-2.0,-2.0,2.0,-2.0,2.0,-2.0,2.0,-2.0,2.0,1.1484433,-2.0,-2.0,-2.0,-2.0,2.0,-2.0,2.0
2025-06-05 11:54:55.433,-0.014892106,-0.025455516,-0.0620227,-0.13409269,0.029677207,0.019018047,0.0,0.0,0.0,-0.03077379,-0.07095431,0.5449791,-0.18834817,0.108243994,0.021843368,-0.17240399,-0.1132896,-0.511148,-0.11675146,0.09432013,-0.4650755,0.14687033,0.05683038,-0.033398196,0.07134455,-0.024582524,0.010482284,-0.057849646,-0.016272776,0.01474057,-0.05358852,0.040157694,0.059670478,-0.0046244864,-2.0,2.0,-2.0,2.0,1.1484433,-2.0,-2.0,-2.0,-2.0,2.0,-2.0,2.0,-2.0,2.0,-2.0,2.0,-0.09988778,-2.0,-2.0,-2.0,-2.0,2.0,-2.0,2.0
2025-06-05 11:54:55.453,0.07141085,-0.012851073,0.006856879,-0.06389316,-0.024242526,0.03361287,0.0,0.0,0.0,-0.030638998,-0.06757497,0.5464118,-0.17143966,0.103190474,0.009002618,-0.16461149,-0.109820604,-0.50782454,-0.115799844,0.08754253,-0.4624826,0.16191955,-0.019637926,-0.06482143,-0.061215434,-0.048199456,0.054255452,-0.037431303,0.053149085,-0.08286693,0.07169732,0.049713127,-0.010183138,0.100088224,-2.0,2.0,-2.0,2.0,-0.09988778,-2.0,-2.0,-2.0,-2.0,2.0,-2.0,2.0,-2.0,2.0,-2.0,2.0,0.86972064,-2.0,-2.0,-2.0,-2.0,2.0,-2.0,2.0
2025-06-05 11:54:55.474,0.007901246,-0.008053563,0.007960939,-0.05135427,0.0058463933,0.02633322,0.0,0.0,0.0,-0.030722585,-0.07142563,0.5480612,-0.17258687,0.11721957,0.0105280755,-0.15997398,-0.10142382,-0.5123861,-0.10567973,0.0946482,-0.4596292,0.19000679,0.056242123,0.04707126,0.057331827,0.0481706,-0.03107467,0.07237115,0.05248224,-0.012443863,0.013277754,0.054008763,0.0578952,0.029991621,-2.0,2.0,-2.0,2.0,0.86972064,-2.0,-2.0,-2.0,-2.0,2.0,-2.0,2.0,-2.0,2.0,-2.0,2.0,0.58416885,-2.0,-2.0,-2.0,-2.0,2.0,-2.0,2.0
2025-06-05 11:54:55.497,0.05088094,0.01592809,-0.023109924,-0.12327285,0.0025797065,-0.039039697,0.0,0.0,0.0,-0.03079861,-0.08282619,0.5322165,-0.19045728,0.12151119,0.013612113,-0.16582671,-0.11565058,-0.52314645,-0.108880945,0.08566848,-0.46198982,0.1916491,-0.009455318,-0.002298695,-0.008699929,-0.050352126,-0.046865337,0.075224794,-0.031158682,-0.024268035,-0.0674531,-0.008462445,-0.059589516,0.029869335,-2.0,2.0,-2.0,2.0,0.58416885,-2.0,-2.0,-2.0,-2.0,2.0,-2.0,2.0,-2.0,2.0,-2.0,2.0,0.15355831,-2.0,-2.0,-2.0,-2.0,2.0,-2.0,2.0
2025-06-05 11:54:55.514,0.005197906,0.06044768,0.013674175,-0.08116962,-0.025403189,-0.041976415,0.0,0.0,0.0,-0.03076254,-0.07401692,0.53076816,-0.17518803,0.11152304,0.018552994,-0.16989037,-0.10528005,-0.5168961,-0.100100614,0.09817755,-0.4678272,0.20949993,0.013493235,0.024001848,-0.07555332,0.033787273,-0.04504396,0.08354332,0.056980047,0.0012224552,-0.048365355,0.056904554,0.03069898,0.03063402,-2.0,2.0,-2.0,2.0,0.15355831,-2.0,-2.0,-2.0,-2.0,2.0,-2.0,2.0,-2.0,2.0,-2.0,2.0,0.89884144,-2.0,-2.0,-2.0,-2.0,2.0,-2.0,2.0
2025-06-05 11:54:55.535,0.06412443,0.0024940702,-0.04510207,-0.08703002,0.0083101215,-0.021291094,0.0,0.0,0.0,-0.030886512,-0.07505623,0.53114116,-0.17810766,0.117502354,0.015755808,-0.1587586,-0.10965474,-0.5204934,-0.10726126,0.09419478,-0.47171563,0.21736096,0.052873462,0.0076556923,-0.015693743,0.062083643,0.050991617,-0.06211346,0.04477437,0.05415246,-0.009818016,0.0063858335,-0.05277642,0.07804163,-2.0,2.0,-2.0,2.0,0.89884144,-2.0,-2.0,-2.0,-2.0,2.0,-2.0,2.0,-2.0,2.0,-2.0,2.0,-0.21017265,-2.0,-2.0,-2.0,-2.0,2.0,-2.0,2.0
2025-06-05 11:54:55.555,0.045457434,0.010217109,-0.023674231,-0.13979672,0.0010487343,0.019936008,0.0,0.0,0.0,-0.030929593,-0.07711756,0.5445614,-0.18279661,0.114592336,0.010285119,-0.1655657,-0.104277,-0.5311841,-0.11479642,0.091044076,-0.45909283,0.22565195,0.016282395,0.055219274,0.04319172,0.021324528,-0.02849034,0.070684806,0.048820484,-0.007994725,0.05950118,-0.04392768,-0.029862462,0.047316417,-2.0,2.0,-2.0,2.0,-0.21017265,-2.0,-2.0,-2.0,-2.0,2.0,-2.0,2.0,-2.0,2.0,-2.0,2.0,-0.061826997,-2.0,-2.0,-2.0,-2.0,2.0,-2.0,2.0
2025-06-05 11:54:55.574,0.07540104,0.07867835,0.0027648304,-0.09502069,0.024290927,0.044808045,0.0,0.0,0.0,-0.03125739,-0.070924856,0.53536844,-0.18706511,0.11455517,0.01001435,-0.14932826,-0.12285503,-0.52801263,-0.10970503,0.090162486,-0.47185194,0.23385346,-0.026637726,0.019649003,0.05048309,0.040829487,-0.07007987,0.00729563,-0.029171657,-0.040486682,0.033250988,0.016306143,0.06742968,0.041663665,-2.0,2.0,-2.0,2.0,-0.061826997,-2.0,-2.0,-2.0,-2.0,2.0,-2.0,2.0,-2.0,2.0,-2.0,2.0,0.64578015,-2.0,-2.0,-2.0,-2.0,2.0,-2.0,2.0
2025-06-05 11:54:55.597,0.005423292,0.046026662,-0.021507626,-0.0799786,0.0104328245,0.0075397356,0.0,0.0,0.0,-0.03194365,-0.0745805,0.53150403,-0.18978257,0.11274606,0.0021812555,-0.15101804,-0.11248116,-0.5240396,-0.11715105,0.08771711,-0.47177336,0.2424637,0.008053423,0.051859386,-0.06231866,0.07523835,-0.023169812,-0.060400344,-0.08403032,-0.05105995,-0.035438687,-0.01130021,-0.029792009,-0.033577237,-2.0,2.0,-2.0,2.0,0.64578015,-2.0,-2.0,-2.0,-2.0,2.0,-2.0,2.0,-2.0,2.0,-2.0,2.0,0.09281633,-2.0,-2.0,-2.0,-2.0,2.0,-2.0,2.0
2025-06-05 11:54:55.614,0.041240305,0.090385556,0.0517039,-0.09728873,-0.028326258,-0.0120951,0.0,0.0,0.0,-0.032441743,-0.07506715,0.5304509,-0.19221114,0.11458275,-0.008958986,-0.15545976,-0.12789564,-0.5207985,-0.118194245,0.08083282,-0.46461117,0.23468651,0.023366868,-0.04555455,0.06007072,-0.062107835,-0.03201398,-0.05861465,-0.010494051,0.058783885,0.014543598,-0.0061638895,-0.006202955,0.026146444,-2.0,2.0,-2.0,2.0,0.09281633,-2.0,-2.0,-2.0,-2.0,2.0,-2.0,2.0,-2.0,2.0,-2.0,2.0,1.1694764,-2.0,-2.0,-2.0,-2.0,2.0,-2.0,2.0
2025-06-05 11:54:55.635,0.0051580747,-0.021611584,0.035089675,-0.12852852,-0.0010300102,-0.013510667,0.0,0.0,0.0,-0.032824483,-0.08116881,0.5169526,-0.19111331,0.11357546,-0.016790705,-0.1533606,-0.13311642,-0.5181741,-0.12051111,0.08734692,-0.4604778,0.24737585,-0.03253543,-0.067662984,0.04104884,-0.070847355,0.07773117,-0.022505106,0.019986497,-0.018341107,0.028379127,0.05825566,-0.041995443,-0.02404465,-2.0,2.0,-2.0,2.0,1.1694764,-2.0,-2.0,-2.0,-2.0,2.0,-2.0,2.0,-2.0,2.0,-2.0,2.0,1.0784149,-2.0,-2.0,-2.0,-2.0,2.0,-2.0,2.0
2025-06-05 11:54:55.657,0.022914438,-0.048031207,0.019552143,-0.05426936,0.029915001,-0.007604222,0.0,0.0,0.0,-0.0328093,-0.08044346,0.5180896,-0.19895011,0.1217885,-0.001964567,-0.1394819,-0.12450662,-0.52385974,-0.12863126,0.095159225,-0.4775639,0.25703964,0.059731897,-0.013778483,-0.029462125,0.013906685,0.10246409,-0.071334556,0.02590478,0.0007102978,-0.04431291,-0.02152789,-0.011946263,-0.0013828136,-2.0,2.0,-2.0,2.0,1.0784149,-2.0,-2.0,-2.0,-2.0,2.0,-2.0,2.0,-2.0,2.0,-2.0,2.0,1.0420169,-2.0,-2.0,-2.0,-2.0,2.0,-2.0,2.0
2025-06-05 11:54:55.674,0.01639297,-0.035412915,-0.006491158,-0.05487011,-0.00022311036,0.007721541,0.0,0.0,0.0,-0.032397386,-0.08959372,0.53141177,-0.20928875,0.1142298,0.0070109083,-0.15252905,-0.12832144,-0.5307865,-0.12267086,0.08022779,-0.46231994,0.25082853,-0.056202464,-0.012520826,0.0675072,0.06653706,0.07875445,-0.04854283,0.021815702,-0.06449875,0.0652795,-0.026622685,0.03603113,-0.02214213,-2.0,2.0,-2.0,2.0,1.0420169,-2.0,-2.0,-2.0,-2.0,2.0,-2.0,2.0,-2.0,2.0,-2.0,2.0,0.5541162,-2.0,-2.0,-2.0,-2.0,2.0,-2.0,2.0
2025-06-05 11:54:55.696,0.018836504,-0.034618977,-0.03186032,-0.059234515,0.020283751,-0.009931752,0.0,0.0,0.0,-0.03183195,-0.075197875,0.5315024,-0.20177314,0.12893894,0.023178048,-0.15573566,-0.121604756,-0.5329939,-0.12692145,0.091829985,-0.47624737,0.25077337,0.031901833,0.023230307,0.043254822,-0.05988585,-0.026466496,0.027927212,-0.01033859,0.015003004,-0.025542382,-0.024356943,0.010291564,-0.0651744,-2.0,2.0,-2.0,2.0,0.5541162,-2.0,-2.0,-2.0,-2.0,2.0,-2.0,2.0,-2.0,2.0,-2.0,2.0,0.0392927,-2.0,-2.0,-2.0,-2.0,2.0,-2.0,2.0
2025-06-05 11:54:55.715,0.057821237,-0.026910331,-0.022420537,-0.08261193,0.0066592703,-0.0276084,0.0,0.0,0.0,-0.031441614,-0.07595164,0.51961434,-0.20503883,0.123049885,0.012648336,-0.14653677,-0.1220022,-0.52331805,-0.12324256,0.086938374,-0.4761722,0.24639404,0.03976444,-0.058038253,-0.056990564,0.042855505,0.024759548,0.03586079,0.055850424,0.052285343,-0.06372524,0.060898256,0.068987556,0.063659206,-2.0,2.0,-2.0,2.0,0.0392927,-2.0,-2.0,-2.0,-2.0,2.0,-2.0,2.0,-2.0,2.0,-2.0,2.0,0.704384,-2.0,-2.0,-2.0,-2.0,2.0,-2.0,2.0
2025-06-05 11:54:55.735,0.045397047,0.03703182,0.03212072,-0.0942371,0.015704727,-0.03431064,0.0,0.0,0.0,-0.031515975,-0.08329592,0.5232344,-0.20961131,0.12035387,0.023196198,-0.1467384,-0.13535127,-0.52591896,-0.123657994,0.08552736,-0.4634953,0.24752875,0.05504342,-0.01335991,-0.05332522,0.03356575,-0.061874002,-0.01736507,-0.031905178,-0.07559501,-0.0033122692,0.020794557,-0.014067328,-0.061023604,-2.0,2.0,-2.0,2.0,0.704384,-2.0,-2.0,-2.0,-2.0,2.0,-2.0,2.0,-2.0,2.0,-2.0,2.0,1.1005855,-2.0,-2.0,-2.0,-2.0,2.0,-2.0,2.0
2025-06-05 11:54:55.756,-0.04545364,-0.02263114,0.007989202,-0.12679936,-0.050546426,-0.0029010347,0.0,0.0,0.0,-0.03168921,-0.0856966,0.5161452,-0.19935548,0.13025838,0.020711115,-0.15276614,-0.13139217,-0.5199251,-0.13140805,0.08355596,-0.46404907,0.25730193,0.005190418,-0.06576706,-0.016804919,0.00043745822,-0.014955672,-0.038514085,-0.018342195,-0.048252355,-0.035155497,-0.06764839,-0.06738105,-0.038623344,-2.0,2.0,-2.0,2.0,1.1005855,-2.0,-2.0,-2.0,-2.0,2.0,-2.0,2.0,-2.0,2.0,-2.0,2.0,0.56328493,-2.0,-2.0,-2.0,-2.0,2.0,-2.0,2.0
2025-06-05 11:54:55.775,0.0007221065,0.0264518,0.017256472,-0.108067736,-0.046104867,-0.04181936,0.0,0.0,0.0,-0.031561427,-0.07625778,0.5321675,-0.1991592,0.12045838,0.021554243,-0.14101315,-0.13223001,-0.52545476,-0.12489852,0.078605525,-0.47161967,0.257888,-0.06950148,-0.009190598,0.0412504,0.03568342,0.07207676,-0.022679863,0.0031277202,0.04066797,-0.028350476,-0.024757285,0.019321062,0.035947073,-2.0,2.0,-2.0,2.0,0.56328493,-2.0,-2.0,-2.0,-2.0,2.0,-2.0,2.0,-2.0,2.0,-2.0,2.0,0.79060787,-2.0,-2.0,-2.0,-2.0,2.0,-2.0,2.0
2025-06-05 11:54:55.797,-0.04405561,-0.009992434,-0.0053640064,-0.09525881,-0.0017019977,0.0014696177,0.0,0.0,0.0,-0.031414673,-0.09005593,0.527472,-0.20537217,0.13629833,0.028962633,-0.14919488,-0.12631926,-0.52301604,-0.13575745,0.082851715,-0.46132657,0.2538446,0.052581474,0.02604358,0.02842246,0.07433934,-0.004964571,0.024804533,-0.039396796,0.06495952,0.015974786,-0.02295072,0.03986765,0.0038174768,-2.0,2.0,-2.0,2.0,0.79060787,-2.0,-2.0,-2.0,-2.0,2.0,-2.0,2.0,-2.0,2.0,-2.0,2.0,0.28694826,-2.0,-2.0,-2.0,-2.0,2.0,-2.0,2.0
2025-06-05 11:54:55.815,0.049340792,0.0030574414,0.004322864,-0.108908124,-0.0087545095,0.01431231,0.0,0.0,0.0,-0.03126681,-0.08651526,0.5240501,-0.1908988,0.119544216,0.038051315,-0.14405738,-0.12175506,-0.5215444,-0.13158058,0.08881534,-0.46420258,0.24923554,0.0069011436,0.01112169,-0.031792745,-0.043133263,-0.0012799547,0.042450603,0.07027704,0.025908865,-0.013350996,0.07485838,-0.039098486,-0.030424783,-2.0,2.0,-2.0,2.0,0.28694826,-2.0,-2.0,-2.0,-2.0,2.0,-2.0,2.0,-2.0,2.0,-2.0,2.0,0.6689678,-2.0,-2.0,-2.0,-2.0,2.0,-2.0,2.0
2025-06-05 11:54:55.836,-0.0053554713,0.03291281,-0.0035613386,-0.09064619,0.039997503,0.039963555,0.0,0.0,0.0,-0.03130603,-0.084434666,0.5172455,-0.20173685,0.12687363,0.020540679,-0.15325671,-0.13517578,-0.52049446,-0.12351816,0.09448446,-0.4748285,0.26328075,-0.0485415,0.009688389,0.067320965,-0.033740178,0.011355408,-0.01625936,0.030648163,-0.07065379,0.07436773,-0.064275496,-0.019274442,0.06803942,-2.0,2.0,-2.0,2.0,0.6689678,-2.0,-2.0,-2.0,-2.0,2.0,-2.0,2.0,-2.0,2.0,-2.0,2.0,0.6262657,-2.0,-2.0,-2.0,-2.0,2.0,-2.0,2.0
2025-06-05 11:54:55.856,0.018658811,0.032643903,-0.008561154,-0.09796075,0.017846076,0.006458554,0.0,0.0,0.0,-0.031411942,-0.07506879,0.51596814,-0.20324293,0.13181819,0.019888638,-0.15288745,-0.13388532,-0.52345073,-0.13429052,0.08467025,-0.47089827,0.24927919,0.043455806,0.06359497,0.058595266,0.04309743,-0.058124665,-0.035672188,0.015886597,-0.0090534305,0.057318274,0.011848738,0.07215782,0.07239054,-2.0,2.0,-2.0,2.0,0.6262657,-2.0,-2.0,-2.0,-2.0,2.0,-2.0,2.0,-2.0,2.0,-2.0,2.0,0.25339016,-2.0,-2.0,-2.0,-2.0,2.0,-2.0,2.0
2025-06-05 11:54:55.876,0.072761446,0.030157583,0.045825772,-0.11694428,-0.0229608,-0.028533384,0.0,0.0,0.0,-0.03145905,-0.09087214,0.51774216,-0.20000142,0.13498344,0.025078433,-0.14885221,-0.13535815,-0.5373523,-0.12998553,0.09282785,-0.47846955,0.2637717,-0.055644423,-0.06260201,-0.04032559,0.04334859,0.03496214,0.034596097,0.030315848,-0.06828993,-0.05454165,0.046980444,0.009585381,-0.047800712,-2.0,2.0,-2.0,2.0,0.25339016,-2.0,-2.0,-2.0,-2.0,2.0,-2.0,2.0,-2.0,2.0,-2.0,2.0,1.4460571,-2.0,-2.0,-2.0,-2.0,2.0,-2.0,2.0
2025-06-05 11:54:55.897,0.009160111,0.020413298,0.03389198,-0.065476805,-0.05468454,-0.035413925,0.0,0.0,0.0,-0.031639475,-0.08275727,0.52466774,-0.20625427,0.13579224,0.041092973,-0.14323452,-0.13595015,-0.53649545,-0.124871254,0.085500225,-0.46994916,0.255106,0.061737273,0.0031939968,-0.032654345,0.038199447,0.08392447,0.029448435,-0.063482866,-0.06617217,0.00060577685,-0.027916826,0.01740412,-0.03028696,-2.0,2.0,-2.0,2.0,1.4460571,-2.0,-2.0,-2.0,-2.0,2.0,-2.0,2.0,-2.0,2.0,-2.0,2.0,1.1004121,-2.0,-2.0,-2.0,-2.0,2.0,-2.0,2.0
2025-06-05 11:54:55.916,-0.0060293283,-0.017307917,-0.02863061,-0.06692966,0.015198961,0.025646066,0.0,0.0,0.0,-0.03149624,-0.09621085,0.5342324,-0.20435217,0.1264637,0.044973712,-0.14073639,-0.13559845,-0.5194393,-0.12426315,0.08670641,-0.47269922,0.25276783,0.0026919092,0.047514636,-0.07098725,-0.005308435,0.02304069,0.0474119,-0.018865759,-0.041300647,0.053683523,0.01272168,0.024413204,-0.0070219017,-2.0,2.0,-2.0,2.0,1.1004121,-2.0,-2.0,-2.0,-2.0,2.0,-2.0,2.0,-2.0,2.0,-2.0,2.0,0.18057135,-2.0,-2.0,-2.0,-2.0,2.0,-2.0,2.0
2025-06-05 11:54:55.936,-0.008706961,-0.025619272,0.045393042,-0.11053186,-0.031549305,-0.043766376,0.0,0.0,0.0,-0.031084215,-0.0867146,0.5186461,-0.19412257,0.12760045,0.048382025,-0.1548174,-0.13150764,-0.5352069,-0.12750189,0.07891068,-0.4621034,0.2698262,0.042100422,-0.07428648,0.03480813,-0.027022565,0.011422719,0.00729679,-0.009532065,0.019438973,0.069214806,-0.054377947,0.0044751987,-0.017956804,-2.0,2.0,-2.0,2.0,0.18057135,-2.0,-2.0,-2.0,-2.0,2.0,-2.0,2.0,-2.0,2.0,-2.0,2.0,1.2987708,-2.0,-2.0,-2.0,-2.0,2.0,-2.0,2.0
2025-06-05 11:54:55.956,-0.052328672,-0.019051949,0.025145872,-0.11052274,-0.01454539,-0.008922232,0.0,0.0,0.0,-0.031012712,-0.093174376,0.51716036,-0.20877793,0.12523654,0.067148834,-0.14827372,-0.13297915,-0.5338714,-0.11720614,0.08528376,-0.4795003,0.25185773,0.01149839,0.015226689,-0.0315964,0.0067294594,-0.02225259,-0.0503411,-0.07454097,0.06020912,-0.03957195,-0.0058068614,-0.01923929,0.052019235,-2.0,2.0,-2.0,2.0,1.2987708,-2.0,-2.0,-2.0,-2.0,2.0,-2.0,2.0,-2.0,2.0,-2.0,2.0,1.143079,-2.0,-2.0,-2.0,-2.0,2.0,-2.0,2.0
2025-06-05 11:54:55.979,-0.02361675,0.031950545,-0.046706498,-0.11635978,0.0011812997,0.0021433649,0.0,0.0,0.0,-0.030877374,-0.08284755,0.5305521,-0.2018808,0.13174972,0.060745027,-0.1527887,-0.12627307,-0.5248368,-0.11645744,0.09233417,-0.4628458,0.25227737,-0.06619858,0.05789679,-0.055827886,-0.0321686,0.0064998446,-0.04746285,-0.048506245,0.039921578,0.06625261,0.031599436,0.009275571,0.054362163,-2.0,2.0,-2.0,2.0,1.143079,-2.0,-2.0,-2.0,-2.0,2.0,-2.0,2.0,-2.0,2.0,-2.0,2.0,-0.10904979,-2.0,-2.0,-2.0,-2.0,2.0,-2.0,2.0
2025-06-05 11:54:55.997,0.0043073366,0.07489286,0.06809038,-0.111754514,0.035524447,-0.021469142,0.0,0.0,0.0,-0.03054001,-0.0880538,0.532684,-0.20515496,0.13649805,0.077877015,-0.14394216,-0.13035548,-0.5181256,-0.124051064,0.08344116,-0.4732156,0.25134534,-0.021286376,0.029770728,-0.044964537,-0.00056321436,0.004811654,0.012261668,0.060219403,-0.03418959,0.047961425,-0.027145978,0.062298436,0.06958609,-2.0,2.0,-2.0,2.0,-0.10904979,-2.0,-2.0,-2.0,-2.0,2.0,-2.0,2.0,-2.0,2.0,-2.0,2.0,2.0,-2.0,-2.0,-2.0,-2.0,2.0,-2.0,2.0
2025-06-05 11:54:56.016,-0.02401474,-0.071495034,0.0020082768,-0.09700115,0.039017227,0.016026825,0.0,0.0,0.0,-0.030706715,-0.090556,0.5333985,-0.19329295,0.13479675,0.073772095,-0.14863846,-0.13247925,-0.52880037,-0.1288797,0.088543236,-0.47329676,0.25480786,-0.04205977,0.033041306,-0.04006894,0.03591188,0.08110398,-0.019836413,0.026827104,-0.030397456,-0.038270287,-0.035600405,-0.0054400438,0.046660397,-2.0,2.0,-2.0,2.0,2.0,-2.0,-2.0,-2.0,-2.0,2.0,-2.0,2.0,-2.0,2.0,-2.0,2.0,0.80405563,-2.0,-2.0,-2.0,-2.0,2.0,-2.0,2.0
2025-06-05 11:54:56.036,0.038075805,0.045365505,-0.023982396,-0.07422127,0.034199648,0.00033333234,0.0,0.0,0.0,-0.030519517,-0.09474827,0.53683215,-0.19104595,0.14734219,0.0950268,-0.14480142,-0.13127886,-0.5332685,-0.11718997,0.07837689,-0.46153978,0.25641462,-0.027362403,-0.005412206,0.022820521,0.040469386,0.079833485,0.0025383534,0.0042640395,0.052547745,-0.031011099,-0.04732419,-0.0065230094,0.0433326,-2.0,2.0,-2.0,2.0,0.80405563,-2.0,-2.0,-2.0,-2.0,2.0,-2.0,2.0,-2.0,2.0,-2.0,2.0,0.56792414,-2.0,-2.0,-2.0,-2.0,2.0,-2.0,2.0
2025-06-05 11:54:56.057,0.058088988,0.028167572,0.029086929,-0.1328804,-0.008244038,-0.017020412,0.0,0.0,0.0,-0.030189414,-0.09841979,0.5288295,-0.20765309,0.13636449,0.10476439,-0.16000253,-0.13109343,-0.52036566,-0.12908149,0.09625576,-0.47497386,0.27035084,0.03663707,0.028591715,0.053186856,-0.03357105,0.0683404,-0.013692572,0.04241556,-0.015874565,-0.051278055,-0.04559539,-0.022582257,-0.0033209238,-2.0,2.0,-2.0,2.0,0.56792414,-2.0,-2.0,-2.0,-2.0,2.0,-2.0,2.0,-2.0,2.0,-2.0,2.0,1.3367962,-2.0,-2.0,-2.0,-2.0,2.0,-2.0,2.0
2025-06-05 11:54:56.077,0.03522297,0.043520525,-0.021298053,-0.048098713,-0.04321376,-0.021816602,0.0,0.0,0.0,-0.030129967,-0.09500263,0.5332678,-0.19143158,0.14438127,0.110877074,-0.14680435,-0.12006469,-0.53367317,-0.11362966,0.096210726,-0.4700883,0.25786978,-0.025364773,-0.023541506,-0.032410175,0.004855531,-0.004711503,-0.023352766,-0.009131676,0.039878454,0.02108434,0.010122496,0.009478388,0.055709828,-2.0,2.0,-2.0,2.0,1.3367962,-2.0,-2.0,-2.0,-2.0,2.0,-2.0,2.0,-2.0,2.0,-2.0,2.0,0.61534137,-2.0,-2.0,-2.0,-2.0,2.0,-2.0,2.0
2025-06-05 11:54:56.097,-0.00091308897,-0.019576313,0.007974196,-0.054017935,0.03924952,0.04859409,0.0,0.0,0.0,-0.029961292,-0.09153009,0.52326024,-0.20564163,0.13593169,0.10865232,-0.1531883,-0.13433187,-0.5233432,-0.13196146,0.09539433,-0.47275552,0.2677375,-0.041404072,-0.010835908,0.005823067,-0.06367627,0.0687691,-0.008284696,0.07373878,0.045637008,-0.034933425,0.051780723,0.027386624,-0.0075579514,-2.0,2.0,-2.0,2.0,0.61534137,-2.0,-2.0,-2.0,-2.0,2.0,-2.0,2.0,-2.0,2.0,-2.0,2.0,1.493668,-2.0,-2.0,-2.0,-2.0,2.0,-2.0,2.0
2025-06-05 11:54:56.116,0.021192055,-0.011565689,0.012510779,-0.055865336,0.004982608,0.03273191,0.0,0.0,0.0,-0.029929547,-0.109659664,0.5252942,-0.20017186,0.15034874,0.110675015,-0.14678966,-0.13566433,-0.5223487,-0.12973231,0.09727605,-0.46586186,0.26548988,0.026120301,-0.035757143,0.03574259,0.044084605,0.07476786,0.067743935,0.0034061687,-0.06622422,0.05613439,0.033708815,-0.035279546,0.04422304,-2.0,2.0,-2.0,2.0,1.493668,-2.0,-2.0,-2.0,-2.0,2.0,-2.0,2.0,-2.0,2.0,-2.0,2.0,1.315196,-2.0,-2.0,-2.0,-2.0,2.0,-2.0,2.0
2025-06-05 11:54:56.136,-0.008647248,-0.0003051076,-0.024994679,-0.090615064,-0.009930139,0.022942472,0.0,0.0,0.0,-0.02973162,-0.1084288,0.52228487,-0.19494164,0.1437281,0.115072116,-0.14423269,-0.13342805,-0.5358697,-0.113148324,0.09442972,-0.47652653,0.2685862,0.053980585,-0.013445137,0.06654456,-0.032340743,0.07639338,0.00892755,0.028818214,0.07346365,0.05281477,0.024264425,-0.025805576,-0.042396683,-2.0,2.0,-2.0,2.0,1.315196,-2.0,-2.0,-2.0,-2.0,2.0,-2.0,2.0,-2.0,2.0,-2.0,2.0,0.5316338,-2.0,-2.0,-2.0,-2.0,2.0,-2.0,2.0
2025-06-05 11:54:56.157,0.07612138,-0.020817544,-0.04289728,-0.073432155,-0.015052712,0.04358978,0.0,0.0,0.0,-0.02935731,-0.10428952,0.53021884,-0.19734398,0.15188098,0.12014412,-0.14849499,-0.12727334,-0.5204519,-0.111679345,0.08903219,-0.4746953,0.26675457,0.05073193,-0.04137026,-0.0008800545,0.049923755,0.0051330705,0.05175932,-0.05257398,-0.012305344,0.07135275,-0.043785725,0.017654352,0.020700563,-2.0,2.0,-2.0,2.0,0.5316338,-2.0,-2.0,-2.0,-2.0,2.0,-2.0,2.0,-2.0,2.0,-2.0,2.0,0.25411507,-2.0,-2.0,-2.0,-2.0,2.0,-2.0,2.0
2025-06-05 11:54:56.178,0.09155233,0.04691804,-0.0054021706,-0.056566514,-0.020369897,-0.027723698,0.0,0.0,0.0,-0.029328333,-0.09594073,0.52678424,-0.19787829,0.14497298,0.11883575,-0.14934891,-0.13421994,-0.533636,-0.117972545,0.09304953,-0.46825525,0.2539173,0.066934116,0.050949056,-0.008640937,-0.06345337,0.01006526,-0.04884535,0.057041094,-0.040891197,0.051908724,-0.070487656,0.03680396,-0.052036826,-2.0,2.0,-2.0,2.0,0.25411507,-2.0,-2.0,-2.0,-2.0,2.0,-2.0,2.0,-2.0,2.0,-2.0,2.0,0.74518555,-2.0,-2.0,-2.0,-2.0,2.0,-2.0,2.0
2025-06-05 11:54:56.197,-0.0034553576,0.03215703,0.056181688,-0.08786685,-0.013878887,0.048763614,0.0,0.0,0.0,-0.029813128,-0.09704364,0.53298026,-0.20731425,0.16263069,0.10611685,-0.1297416,-0.14004879,-0.52551156,-0.12661907,0.09444714,-0.46466407,0.25443926,-0.009155092,0.03499047,-0.055263534,-0.059098113,0.04873053,0.018831247,0.015612307,-0.036719237,-0.049838025,0.0059134886,-0.04563413,0.074306466,-2.0,2.0,-2.0,2.0,0.74518555,-2.0,-2.0,-2.0,-2.0,2.0,-2.0,2.0,-2.0,2.0,-2.0,2.0,1.8698086,-2.0,-2.0,-2.0,-2.0,2.0,-2.0,2.0
2025-06-05 11:54:56.217,-0.03529685,0.024020415,-0.027025988,-0.061833385,0.012783081,0.005319055,0.0,0.0,0.0,-0.03034566,-0.09951748,0.52628094,-0.20927435,0.15987088,0.12176437,-0.14000347,-0.1312835,-0.53016037,-0.11367518,0.09225119,-0.4745771,0.25335407,-0.054150395,-0.046873286,-0.01792079,0.039529845,-0.008639947,-0.00087394385,0.06533973,0.004815402,-0.06989189,-0.058269124,0.07632609,0.07019064,-2.0,2.0,-2.0,2.0,1.8698086,-2.0,-2.0,-2.0,-2.0,2.0,-2.0,2.0,-2.0,2.0,-2.0,2.0,1.0589415,-2.0,-2.0,-2.0,-2.0,2.0,-2.0,2.0
2025-06-05 11:54:56.237,-0.034276135,0.0360764,-0.051254917,-0.092426464,-0.047405835,0.007916967,0.0,0.0,0.0,-0.030180838,-0.099122584,0.5203756,-0.20236221,0.14669825,0.122554794,-0.13323313,-0.14596464,-0.5353716,-0.12523828,0.086213164,-0.46811205,0.2518459,0.052194946,-0.026760468,-0.05865079,-0.032002646,-0.006263906,-0.047087587,0.07266433,0.059919085,-0.037045673,0.023861496,-0.029919347,-0.008154752,-2.0,2.0,-2.0,2.0,1.0589415,-2.0,-2.0,-2.0,-2.0,2.0,-2.0,2.0,-2.0,2.0,-2.0,2.0,0.24606758,-2.0,-2.0,-2.0,-2.0,2.0,-2.0,2.0
2025-06-05 11:54:56.257,0.02124449,0.05982335,-0.01820977,-0.12266323,-0.056537904,0.01974154,0.0,0.0,0.0,-0.029795239,-0.100885004,0.5312476,-0.1982172,0.16632046,0.1293521,-0.124946825,-0.13451211,-0.5396211,-0.12497175,0.09353142,-0.47683084,0.26385632,0.041523594,0.039146535,-0.067239165,0.068238534,-0.066776484,-0.064630084,0.012470945,0.019585943,-0.04848434,0.044229105,-0.016723052,0.046903804,-2.0,2.0,-2.0,2.0,0.24606758,-2.0,-2.0,-2.0,-2.0,2.0,-2.0,2.0,-2.0,2.0,-2.0,2.0,0.5143008,-2.0,-2.0,-2.0,-2.0,2.0,-2.0,2.0
2025-06-05 11:54:56.280,0.010805485,-0.013433023,-0.011021429,-0.11766443,-0.015652608,-0.0136811,0.0,0.0,0.0,-0.029901937,-0.09620748,0.5153757,-0.19828849,0.16982776,0.11683095,-0.13366403,-0.14690946,-0.525411,-0.12239239,0.09247162,-0.46863782,0.26935166,-0.012463156,-0.033177696,-0.023079848,-0.023049628,-0.020128198,-0.045872614,-0.031797707,0.066807054,-0.046880227,-0.025982505,0.05228144,0.06509751,-2.0,2.0,-2.0,2.0,0.5143008,-2.0,-2.0,-2.0,-2.0,2.0,-2.0,2.0,-2.0,2.0,-2.0,2.0,0.87685615,-2.0,-2.0,-2.0,-2.0,2.0,-2.0,2.0
2025-06-05 11:54:56.297,0.05409827,0.013639769,0.049457286,-0.048588622,-0.06378814,-0.009071668,0.0,0.0,0.0,-0.030370973,-0.0982391,0.5184554,-0.21295963,0.1704912,0.11092353,-0.12764741,-0.15212205,-0.53737503,-0.11735474,0.09704457,-0.4614795,0.26258686,-0.054149963,0.028497057,0.031606838,0.011338506,0.00030088928,0.0024523134,0.053563647,0.035195965,0.035660833,-0.009863969,0.035014443,0.06273125,-2.0,2.0,-2.0,2.0,0.87685615,-2.0,-2.0,-2.0,-2.0,2.0,-2.0,2.0,-2.0,2.0,-2.0,2.0,1.6315157,-2.0,-2.0,-2.0,-2.0,2.0,-2.0,2.0
2025-06-05 11:54:56.317,0.005823531,0.004743163,-0.06398118,-0.1115235,-0.018402293,0.032696206,0.0,0.0,0.0,-0.030718125,-0.09131956,0.527726,-0.20715682,0.16090286,0.13261536,-0.12492917,-0.13700446,-0.5265111,-0.13215733,0.09500521,-0.47459808,0.2635117,-0.069261074,-0.0328572,0.02671773,-0.043412276,0.07753954,-0.052155904,-0.051212598,0.062178005,-0.013692974,-0.010512823,-0.0672924,-0.014382873,-2.0,2.0,-2.0,2.0,1.6315157,-2.0,-2.0,-2.0,-2.0,2.0,-2.0,2.0,-2.0,2.0,-2.0,2.0,0.022802478,-2.0,-2.0,-2.0,-2.0,2.0,-2.0,2.0
2025-06-05 11:54:56.337,0.055255245,0.030090291,-0.0033146185,-0.05459332,0.013617432,-0.03402372,0.0,0.0,0.0,-0.030500881,-0.091528885,0.5210713,-0.21885465,0.1589271,0.117686,-0.1176095,-0.15071318,-0.5364783,-0.13032255,0.0951341,-0.4766633,0.27113917,-0.047636624,-0.042457,-0.04121625,-0.019346446,-0.041295987,0.03761784,0.04993822,-0.04747015,0.026447773,-0.065426126,0.066527024,-0.0040930295,-2.0,2.0,-2.0,2.0,0.022802478,-2.0,-2.0,-2.0,-2.0,2.0,-2.0,2.0,-2.0,2.0,-2.0,2.0,1.2726152,-2.0,-2.0,-2.0,-2.0,2.0,-2.0,2.0
2025-06-05 11:54:56.358,0.038742535,0.04416546,0.010208095,-0.10620105,-0.008639264,0.005855064,0.0,0.0,0.0,-0.030658986,-0.09805407,0.5231307,-0.21554519,0.17086367,0.12031222,-0.11320278,-0.15349834,-0.5446109,-0.12936677,0.07969079,-0.47382954,0.2695167,0.005004575,-0.0388247,0.01328905,-0.06877517,-0.006449698,0.05748265,0.06397525,-0.042748578,-0.038224153,0.064797744,0.044970695,-0.040708274,-2.0,2.0,-2.0,2.0,1.2726152,-2.0,-2.0,-2.0,-2.0,2.0,-2.0,2.0,-2.0,2.0,-2.0,2.0,1.3799454,-2.0,-2.0,-2.0,-2.0,2.0,-2.0,2.0
2025-06-05 11:54:56.380,-0.043888994,-0.009933425,-0.01040149,-0.064657524,-0.020061249,0.013742879,0.0,0.0,0.0,-0.030800464,-0.10116055,0.52330124,-0.2109879,0.16893604,0.12902804,-0.12714118,-0.14576061,-0.54212224,-0.11558315,0.09446925,-0.46329024,0.26731881,-0.048660517,-0.0342623,-0.04167629,0.037950426,0.009356565,-0.060036413,0.023678353,0.0025244253,0.013270017,-0.045960303,-0.07348798,0.053839054,-2.0,2.0,-2.0,2.0,1.3799454,-2.0,-2.0,-2.0,-2.0,2.0,-2.0,2.0,-2.0,2.0,-2.0,2.0,0.97644365,-2.0,-2.0,-2.0,-2.0,2.0,-2.0,2.0
2025-06-05 11:54:56.398,0.04132863,0.004823557,-0.027288973,-0.10954121,-0.08087221,0.020010622,0.0,0.0,0.0,-0.030551016,-0.10112465,0.5258945,-0.2089592,0.16402902,0.14969958,-0.12822574,-0.15661694,-0.53975,-0.13260762,0.08902768,-0.47344562,0.25388438,-0.038935024,-0.073102534,0.06182534,0.047814578,-0.0011770467,0.03487058,0.070195675,0.053753503,0.003971471,-0.045389663,-0.014026732,-0.014466925,-2.0,2.0,-2.0,2.0,0.97644365,-2.0,-2.0,-2.0,-2.0,2.0,-2.0,2.0,-2.0,2.0,-2.0,2.0,0.45546043,-2.0,-2.0,-2.0,-2.0,2.0,-2.0,2.0
2025-06-05 11:54:56.418,0.02585367,0.0058896868,0.03477549,-0.09149476,-0.0559524,-0.034013078,0.0,0.0,0.0,-0.030263945,-0.10581265,0.5125076,-0.21546932,0.168035,0.13511615,-0.119158216,-0.14750648,-0.5409367,-0.12886083,0.09369376,-0.47250265,0.2622928,-0.021143543,0.0031564822,0.015994983,0.030455347,-0.045958698,-0.043855283,0.03204301,0.038247287,0.0184033,-0.029562943,-0.0742941,0.02618381,-2.0,2.0,-2.0,2.0,0.45546043,-2.0,-2.0,-2.0,-2.0,2.0,-2.0,2.0,-2.0,2.0,-2.0,2.0,1.3462214,-2.0,-2.0,-2.0,-2.0,2.0,-2.0,2.0
2025-06-05 11:54:56.438,0.009701397,-0.0053450116,-0.024067668,-0.09884526,0.0009462659,0.030565394,0.0,0.0,0.0,-0.030335229,-0.09668907,0.52877593,-0.22391267,0.17336668,0.13314913,-0.12695333,-0.15694818,-0.53450394,-0.12059846,0.082734525,-0.4719441,0.25808594,0.059598885,-0.04855915,-0.066803835,-0.026239334,0.082554065,0.048130717,0.045296516,-0.07300979,-0.06334357,-0.03409213,-0.062267944,-0.04124346,-2.0,2.0,-2.0,2.0,1.3462214,-2.0,-2.0,-2.0,-2.0,2.0,-2.0,2.0,-2.0,2.0,-2.0,2.0,0.8357333,-2.0,-2.0,-2.0,-2.0,2.0,-2.0,2.0
2025-06-05 11:54:56.458,-0.034108043,-0.0050801695,0.021619292,-0.058904756,-0.010261355,-0.031779345,0.0,0.0,0.0,-0.030315679,-0.106007926,0.5243222,-0.2174005,0.17936523,0.13601726,-0.11674321,-0.15252164,-0.5412012,-0.13063146,0.09766535,-0.47436854,0.2707193,-0.016735919,0.013205018,0.04688891,-0.054673556,0.033078924,-0.017808245,-0.007720248,-0.0010827645,0.023501044,-0.036431547,0.041161843,0.069444366,-2.0,2.0,-2.0,2.0,0.8357333,-2.0,-2.0,-2.0,-2.0,2.0,-2.0,2.0,-2.0,2.0,-2.0,2.0,1.5815691,-2.0,-2.0,-2.0,-2.0,2.0,-2.0,2.0
2025-06-05 11:54:56.480,-0.04697828,-0.030820372,-0.02787155,-0.122979455,-0.031323638,-0.02973458,0.0,0.0,0.0,-0.030289244,-0.108389825,0.5180118,-0.22102691,0.16652681,0.162198,-0.12050785,-0.1451256,-0.52842724,-0.12385672,0.08406847,-0.4781113,0.25461808,-0.01383221,-0.057258848,0.062021967,0.048291888,-0.0010766957,0.04456307,-0.025430005,-0.002015145,-0.065276675,0.03538667,-0.056422383,0.00848888,-2.0,2.0,-2.0,2.0,1.5815691,-2.0,-2.0,-2.0,-2.0,2.0,-2.0,2.0,-2.0,2.0,-2.0,2.0,0.865286,-2.0,-2.0,-2.0,-2.0,2.0,-2.0,2.0
2025-06-05 11:54:56.498,0.043263596,-0.010329942,0.020152576,-0.075793535,-0.019927034,-0.032385778,0.0,0.0,0.0,-0.029996272,-0.1169373,0.52709526,-0.20792758,0.17342478,0.16960292,-0.108267434,-0.15161534,-0.5408526,-0.11644894,0.09363271,-0.4743152,0.2691557,-0.035374474,-0.014412421,0.0025666952,-0.047354084,0.0037828644,0.067392305,0.038422633,0.02144451,-0.05645796,0.023363233,0.053943556,-0.018299345,-2.0,2.0,-2.0,2.0,0.865286,-2.0,-2.0,-2.0,-2.0,2.0,-2.0,2.0,-2.0,2.0,-2.0,2.0,1.8131348,-2.0,-2.0,-2.0,-2.0,2.0,-2.0,2.0
2025-06-05 11:54:56.518,0.009135893,-0.013518294,-0.075357944,-0.055515468,-0.026569258,-0.025136156,0.0,0.0,0.0,-0.029791344,-0.11313407,0.528937,-0.22192761,0.18298249,0.16753319,-0.12681355,-0.15441273,-0.5376371,-0.11429882,0.087939784,-0.47882998,0.26893538,-0.079781495,-0.006647569,0.071284026,0.0013269349,0.037587337,-0.022041343,0.077947035,-0.0076595847,-0.01561537,0.044988263,-0.036253795,0.055539094,-2.0,2.0,-2.0,2.0,1.8131348,-2.0,-2.0,-2.0,-2.0,2.0,-2.0,2.0,-2.0,2.0,-2.0,2.0,0.2584867,-2.0,-2.0,-1.9834315,-2.0,2.0,-2.0,2.0
2025-06-05 11:54:56.538,0.046686154,0.06353381,-0.017655812,-0.10011461,-0.09172868,-0.0007260513,0.0,0.0,0.0,-0.029350128,-0.11279076,0.52828807,-0.22469701,0.18584839,0.17351376,-0.11422864,-0.1526124,-0.542593,-0.11258174,0.08962865,-0.4773055,0.2543526,0.013361845,0.04513451,-0.023329174,-0.0024066311,-0.014150925,-0.022796055,0.056600425,0.041006777,0.041487373,0.06090077,-0.07357029,-0.022252548,-2.0,2.0,-2.0,2.0,0.2584867,-2.0,-2.0,-1.9834315,-2.0,2.0,-2.0,2.0,-2.0,2.0,-2.0,2.0,0.63649184,-2.0,-2.0,-2.0,-2.0,2.0,-2.0,2.0
2025-06-05 11:54:56.558,0.014384271,0.024298964,-0.014840769,-0.11417041,-0.08727296,-0.026184957,0.0,0.0,0.0,-0.029439745,-0.10598552,0.5176727,-0.22656518,0.17132264,0.17989409,-0.10620394,-0.15149151,-0.5447479,-0.123897605,0.09668268,-0.4667274,0.26367697,-0.04601712,-0.046148296,0.025223581,-0.062046587,-0.0061109653,-0.055695184,-0.037037905,-0.02918534,0.051268302,0.039640475,0.06149651,0.07338495,-2.0,2.0,-2.0,2.0,0.63649184,-2.0,-2.0,-2.0,-2.0,2.0,-2.0,2.0,-2.0,2.0,-2.0,2.0,1.4199908,-2.0,-2.0,-2.0,-2.0,2.0,-2.0,2.0
2025-06-05 11:54:56.580,0.050977297,0.04814944,0.0049412353,-0.072274216,-0.020032974,-0.0005314462,0.0,0.0,0.0,-0.029963085,-0.11188247,0.51240116,-0.21226695,0.17551588,0.18133283,-0.110694714,-0.16015428,-0.54114234,-0.13021322,0.09166471,-0.4806194,0.2610714,-0.066983074,0.033031795,-0.05477192,0.0013260051,-0.050070245,0.07014591,0.02827737,-0.023353498,0.05926034,-0.002543551,-0.033571187,0.027815742,-2.0,2.0,-2.0,2.0,1.4199908,-2.0,-2.0,-2.0,-2.0,2.0,-2.0,2.0,-2.0,2.0,-2.0,1.8694501,1.0676736,-2.0,-2.0,-2.0,-2.0,2.0,-2.0,2.0
2025-06-05 11:54:56.599,-0.0318793,0.03718954,-0.017195033,-0.13634108,-0.061237585,-0.03246797,0.0,0.0,0.0,-0.030115888,-0.10274694,0.5133946,-0.22577901,0.18037552,0.17225799,-0.10767535,-0.15696467,-0.54358333,-0.11812359,0.09526271,-0.47044054,0.26007852,-0.035668746,-0.04623746,-0.011478865,-0.072814666,-0.0056732907,0.0028751583,-0.024413737,0.052305225,0.04302302,0.04306508,-0.00045015803,0.034294337,-2.0,2.0,-2.0,1.8694501,1.0676736,-2.0,-2.0,-2.0,-2.0,2.0,-2.0,2.0,-2.0,2.0,-2.0,2.0,1.11954,-2.0,-2.0,-2.0,-2.0,2.0,-2.0,2.0
2025-06-05 11:54:56.619,-0.040393595,0.00038208734,-0.009238249,-0.12539673,-0.026098214,-0.011445887,0.0,0.0,0.0,-0.030006777,-0.10302563,0.5196425,-0.20977649,0.18441272,0.17036253,-0.1138703,-0.15905318,-0.5319171,-0.11571535,0.07993335,-0.47171196,0.25407583,-0.02783802,0.05281293,0.055187233,-0.05494576,0.05837248,0.016824659,-0.052030835,-0.024005663,-0.0183697,0.07391912,-0.056990147,0.0018831053,-2.0,2.0,-2.0,2.0,1.11954,-2.0,-2.0,-2.0,-2.0,2.0,-2.0,2.0,-2.0,2.0,-2.0,2.0,0.9351954,-2.0,-2.0,-2.0,-2.0,2.0,-2.0,2.0
2025-06-05 11:54:56.639,0.03809133,-0.0012473509,0.019118235,-0.1265741,-0.0764575,-0.044138476,0.0,0.0,0.0,-0.02982535,-0.1043091,0.5115465,-0.22712083,0.17170374,0.1854229,-0.10614359,-0.15567786,-0.5365329,-0.12104706,0.08945379,-0.479211,0.26915276,-0.07162564,0.053244308,-0.03865241,0.07445543,0.04452787,0.044390354,0.013654885,-0.071532324,-0.01273154,-0.0057023517,-0.056840852,-0.03546811,-2.0,2.0,-2.0,2.0,0.9351954,-2.0,-2.0,-2.0,-2.0,2.0,-2.0,2.0,-2.0,2.0,-2.0,2.0,1.4165851,-2.0,-2.0,-2.0,-2.0,2.0,-2.0,2.0
2025-06-05 11:54:56.659,-0.042162023,-0.015366838,-0.028337069,-0.063693844,-0.097920775,-0.03789993,0.0,0.0,0.0,-0.029728603,-0.105949916,0.5253959,-0.22389798,0.18895602,0.17515934,-0.11141577,-0.14916098,-0.5377117,-0.118180804,0.09108898,-0.46179307,0.25193375,-0.049604878,-0.020141367,-0.038946807,0.05579946,0.024323113,-0.0655605,-0.048510645,0.07270093,0.025705282,-0.04303263,-0.02375009,-0.0395507,-2.0,2.0,-2.0,2.0,1.4165851,-2.0,-2.0,-2.0,-2.0,2.0,-2.0,2.0,-2.0,2.0,-2.0,2.0,0.4621686,-2.0,-2.0,-2.0,-2.0,2.0,-2.0,2.0
2025-06-05 11:54:56.680,0.046230864,0.0035010756,0.008275895,-0.13685973,-0.016148746,-0.03366295,0.0,0.0,0.0,-0.02952644,-0.11772146,0.524431,-0.22990322,0.18517365,0.17382263,-0.11226869,-0.16608433,-0.54552984,-0.11783368,0.0946908,-0.47269467,0.26961976,0.003385203,0.05466895,0.0012332862,0.013506384,-0.07898297,-0.007327165,-0.051231485,0.019480934,-0.030942278,0.021344671,-0.019268498,-0.031186413,-2.0,2.0,-2.0,2.0,0.4621686,-2.0,-2.0,-2.0,-2.0,2.0,-2.0,2.0,-2.0,2.0,-2.0,2.0,1.0991994,-2.0,-2.0,-2.0,-2.0,2.0,-2.0,2.0
2025-06-05 11:54:56.700,-0.030226989,-0.024540544,0.0153123755,-0.12871732,-0.07806908,0.004872695,0.0,0.0,0.0,-0.029708952,-0.11933889,0.52061784,-0.21563077,0.19285245,0.1723771,-0.113495134,-0.16532367,-0.5352511,-0.13180101,0.089821145,-0.477682,0.2614764,-0.0014715961,-0.06947352,0.044899307,-0.024580996,-0.06707198,-0.02720766,0.06485408,0.049962167,-0.008118432,-0.06481508,-0.06381131,0.06277897,-2.0,2.0,-2.0,2.0,1.0991994,-2.0,-2.0,-2.0,-2.0,2.0,-2.0,2.0,-2.0,2.0,-2.0,2.0,1.3146869,-2.0,-2.0,-2.0,-2.0,2.0,-2.0,2.0
2025-06-05 11:54:56.719,-0.03630664,-0.022399496,0.0035844943,-0.06588641,-0.049915582,0.01786861,0.0,0.0,0.0,-0.029956194,-0.11562518,0.51758504,-0.22982962,0.17856815,0.18775237,-0.10203369,-0.16868831,-0.5518808,-0.117944375,0.08694148,-0.4728314,0.252834,0.04618103,-0.061006606,-0.019767364,-0.0062948223,-0.03606167,0.064735524,0.04019538,-0.027905576,-0.028515894,0.034188498,-0.0040727546,-0.07114675,-2.0,2.0,-2.0,2.0,1.3146869,-2.0,-2.0,-2.0,-2.0,2.0,-2.0,2.0,-2.0,2.0,-2.0,-0.061800033,1.588054,-2.0,-2.0,-2.0,-2.0,2.0,-2.0,2.0
2025-06-05 11:54:56.739,-0.07617951,-0.10135834,-0.004763304,-0.12755165,-0.01586905,-0.031033924,0.0,0.0,0.0,-0.029892266,-0.12648186,0.5150088,-0.23074318,0.183025,0.18537614,-0.105746225,-0.15927875,-0.55236584,-0.12775084,0.09379991,-0.46393713,0.25689048,0.017708946,-0.07034167,-0.008230823,0.03955875,0.058946587,-0.023985237,-0.03983351,-0.05883647,-0.011570934,0.030136399,-0.0384624,-0.057184447,-2.0,2.0,-2.0,-0.061800033,1.588054,-2.0,-2.0,-2.0,-2.0,2.0,-2.0,2.0,-2.0,2.0,-2.0,-2.0,1.1477736,-2.0,-2.0,-2.0,-2.0,2.0,-2.0,2.0
2025-06-05 11:54:56.762,-0.07270832,-0.110840075,-0.039246395,-0.14597505,-0.03372535,-0.03863301,0.0,0.0,0.0,-0.029133027,-0.13874678,0.51507586,-0.22943391,0.16626088,0.2005205,-0.10006598,-0.16765124,-0.53644615,-0.11644267,0.07997316,-0.47899503,0.25442034,-0.019795807,-0.042899016,0.034383856,-0.10490705,-0.053378455,-0.06558009,-0.0804233,0.017677031,0.011271425,0.023105131,0.01644526,-0.06263962,-2.0,2.0,-2.0,-2.0,1.1477736,-2.0,-2.0,-2.0,-2.0,2.0,-2.0,2.0,-2.0,2.0,-2.0,-2.0,0.53259164,-2.0,-2.0,-2.0,-2.0,2.0,-2.0,2.0
2025-06-05 11:54:56.780,0.022193152,-0.028813388,-0.07135925,-0.13651769,-0.022694442,-0.021539915,0.0,0.0,0.0,-0.02781631,-0.13835318,0.5238178,-0.22471473,0.16621917,0.2012356,-0.10936851,-0.18052803,-0.53957397,-0.12034,0.08085357,-0.46627724,0.2516085,-0.00070743484,-0.0010754716,-0.043732923,-0.0032630558,-0.0056927027,0.047758713,-0.02432241,-0.0066419947,0.061351422,0.03652779,0.047433645,-0.020224351,-2.0,2.0,-2.0,-2.0,0.53259164,-2.0,-2.0,-2.0,-2.0,2.0,-2.0,2.0,-2.0,2.0,-2.0,-2.0,-0.17695501,-2.0,-2.0,-2.0,-2.0,2.0,-2.0,2.0
2025-06-05 11:54:56.799,0.047830448,-0.0011534259,0.0028078111,-0.07786326,-0.072860315,-0.003694697,0.0,0.0,0.0,-0.026639199,-0.1374797,0.5214711,-0.22515155,0.15339205,0.20007083,-0.10735964,-0.18721156,-0.5609671,-0.12354445,0.07874964,-0.47287813,0.27041525,0.04485518,-0.05067359,-0.06969599,-0.01506713,-0.033470336,0.0061966362,-0.02003279,0.05251425,-0.04729135,-0.016955672,0.035469532,0.014416903,-2.0,2.0,-2.0,-2.0,-0.17695501,-2.0,-2.0,-2.0,-2.0,2.0,-2.0,2.0,-2.0,2.0,-2.0,-2.0,0.8662006,-2.0,-2.0,-2.0,-2.0,2.0,-2.0,2.0
2025-06-05 11:54:56.819,-0.0009188253,-0.06632843,-0.065078974,-0.07429135,-0.0180462,0.035607275,0.0,0.0,0.0,-0.026059026,-0.15112083,0.5006822,-0.2192354,0.12383391,0.19104515,-0.087710895,-0.17902711,-0.5673739,-0.12306189,0.08771412,-0.4787173,0.25648078,0.033924237,-0.023977533,-0.043737855,-0.053252667,-0.005725225,-0.052681908,-0.005172125,-0.0033823594,0.018336464,-0.027495349,-0.0061146664,-0.01843877,-2.0,2.0,-2.0,-2.0,0.8662006,-2.0,-2.0,-2.0,-2.0,2.0,-2.0,2.0,-2.0,2.0,-2.0,-2.0,0.28122002,-2.0,-2.0,-2.0,-2.0,2.0,-2.0,2.0
2025-06-05 11:54:56.839,0.0034490782,-0.019515429,-0.055614877,-0.089506365,-0.01384404,-0.0064637493,0.0,0.0,0.0,-0.025332885,-0.14851081,0.5032088,-0.22360039,0.12034585,0.16880591,-0.0887666,-0.18863253,-0.55944777,-0.12585552,0.09771114,-0.46392784,0.2556019,0.075014554,-0.00045238613,0.04351804,0.00055049115,-0.035884634,0.06509923,-0.050345227,0.014406616,-0.058161497,0.03980524,0.0009195136,0.036541503,-2.0,2.0,-2.0,-2.0,0.28122002,-2.0,-2.0,-2.0,-2.0,2.0,-2.0,2.0,-2.0,2.0,-2.0,-2.0,0.3173306,-2.0,-2.0,-2.0,-2.0,2.0,-2.0,2.0
2025-06-05 11:54:56.862,0.082914874,-0.032512918,-0.00087273814,-0.10294114,-0.08587613,0.046543486,0.0,0.0,0.0,-0.02450331,-0.14458483,0.5037266,-0.23301664,0.11332019,0.17670704,-0.08254548,-0.19377807,-0.55891126,-0.13081856,0.086673364,-0.47224313,0.2573144,0.0043792445,0.028592175,0.06488304,-0.029413573,-0.06745732,-0.054325078,0.0092459135,0.000838434,-0.074435525,-0.0560398,-0.04289237,0.028555928,-2.0,2.0,-2.0,-2.0,0.3173306,-2.0,-2.0,-2.0,-2.0,2.0,-2.0,2.0,-2.0,2.0,-2.0,-2.0,0.71242076,-2.0,-2.0,-2.0,-2.0,2.0,-2.0,2.0
2025-06-05 11:54:56.880,-0.0324539,0.01948861,-0.03959058,-0.11637854,-0.0366169,-0.02685082,0.0,0.0,0.0,-0.02368656,-0.14016388,0.500655,-0.24001765,0.10428052,0.16944592,-0.08687276,-0.20554064,-0.5637065,-0.14232378,0.09413178,-0.4652466,0.25225088,0.04272838,-0.07367056,-0.032957178,-0.009153995,0.016463602,-0.049987968,-0.021268146,-0.057077467,-0.04686063,-0.048285224,0.057786338,-0.0056622494,-2.0,2.0,-2.0,-2.0,0.71242076,-2.0,-2.0,-2.0,-2.0,2.0,-2.0,2.0,-2.0,2.0,-2.0,-2.0,0.7496974,-2.0,-2.0,-2.0,-2.0,2.0,-2.0,2.0
2025-06-05 11:54:56.899,-0.0065981713,-0.009020054,-0.09980226,-0.12175461,-0.06576604,0.033147473,0.0,0.0,0.0,-0.022666184,-0.14980425,0.49810624,-0.23741698,0.0889402,0.15351368,-0.07273039,-0.2040169,-0.57314104,-0.14439581,0.08873381,-0.4699775,0.25747356,0.049709413,0.009440957,-0.02736442,-0.06696204,0.056267146,-0.037003446,0.024030128,0.026960159,0.03177011,-0.064654894,0.044125944,0.051866688,-2.0,2.0,-2.0,-2.0,0.7496974,-2.0,-2.0,-2.0,-2.0,2.0,-2.0,2.0,-2.0,2.0,-2.0,-2.0,-0.43852293,-2.0,-2.0,-2.0,-2.0,2.0,-2.0,2.0
2025-06-05 11:54:56.919,0.028898431,0.033251118,-0.07234056,-0.10265502,-0.032066733,0.039310645,0.0,0.0,0.0,-0.02138804,-0.13291375,0.48424092,-0.24635118,0.089233205,0.15922232,-0.08024731,-0.20190087,-0.5712941,-0.1640751,0.09524313,-0.46615016,0.27017677,0.008433157,0.040621348,-0.01895806,-0.072351344,0.02595324,-0.022559302,-0.078654364,-0.032202676,-0.07096025,-0.06834944,-0.07342767,0.06642273,-2.0,2.0,-2.0,-2.0,-0.43852293,-2.0,-2.0,-2.0,-2.0,2.0,-2.0,2.0,-2.0,2.0,-2.0,-2.0,-0.17168146,-2.0,-2.0,-2.0,-2.0,2.0,-2.0,2.0
2025-06-05 11:54:56.940,0.08031702,0.054561026,0.01822889,-0.08960252,-0.028681893,-0.0032283296,0.0,0.0,0.0,-0.020627994,-0.12770864,0.49184838,-0.2352186,0.07597978,0.14395545,-0.06455141,-0.21001364,-0.5889347,-0.1586159,0.0974529,-0.48125288,0.25140768,-0.022920687,-0.08201813,-0.078811616,0.039890748,0.028191727,0.07269494,0.021511944,-0.06438622,-0.06811719,0.043471605,-0.0046209046,-0.07273452,-2.0,2.0,-2.0,-2.0,-0.17168146,-2.0,-2.0,-2.0,-2.0,2.0,-2.0,2.0,-2.0,2.0,-2.0,-2.0,1.310907,-2.0,-2.0,-2.0,-2.0,2.0,-2.0,2.0
2025-06-05 11:54:56.962,-0.0006949095,0.026342005,-0.03444296,-0.14398506,-0.07458385,0.043214202,0.0,0.0,0.0,-0.020281529,-0.12899469,0.4957501,-0.24938601,0.08025102,0.13152191,-0.049676213,-0.2242467,-0.58718467,-0.17923145,0.07792073,-0.46414635,0.25920904,-0.063446656,0.030072257,0.06323391,0.010792307,0.015796417,-0.028744286,0.048482094,-0.034731586,0.025046181,-0.074645564,0.050239574,-0.0433907,-2.0,2.0,-2.0,-2.0,1.310907,-2.0,-2.0,-2.0,-2.0,2.0,-2.0,2.0,-2.0,2.0,-2.0,-2.0,0.10916857,-2.0,-2.0,-2.0,-2.0,2.0,-2.0,2.0
2025-06-05 11:54:56.980,0.06734573,0.008166283,-0.09357829,-0.10130859,-0.010737827,0.01880765,0.0,0.0,0.0,-0.019331772,-0.1290877,0.48682854,-0.24318472,0.06625294,0.13804674,-0.04601645,-0.21273406,-0.5789856,-0.17713416,0.08063861,-0.4784892,0.25268766,-0.028452173,0.04010241,-0.032508366,-0.061077904,-0.08110739,0.08226775,-0.006666777,0.037384897,-0.07224863,-0.0017798615,-0.0028118382,-0.055529714,-2.0,2.0,-2.0,-2.0,0.10916857,-2.0,-2.0,-2.0,-2.0,2.0,-2.0,2.0,-2.0,2.0,-2.0,-2.0,-0.6013414,-2.0,-2.0,-2.0,-2.0,2.0,-2.0,2.0
2025-06-05 11:54:57.000,0.10438656,0.04699495,0.033162855,-0.09310095,-0.06595933,0.02000607,0.0,0.0,0.0,-0.01832166,-0.12884673,0.49085572,-0.25511643,0.050520636,0.12574181,-0.04293205,-0.20907909,-0.6003309,-0.18476717,0.09743951,-0.4635102,0.2657037,0.033125777,0.03664004,0.02201587,0.041394066,0.0068330355,-0.04109756,0.0006556555,-0.05844148,0.057368208,0.026081366,-0.03612143,0.028986178,-2.0,2.0,-2.0,-2.0,-0.6013414,-2.0,-2.0,-2.0,-2.0,2.0,-2.0,2.0,-2.0,2.0,-2.0,-2.0,0.989568,-2.0,-2.0,-2.0,-2.0,2.0,-2.0,2.0
2025-06-05 11:54:57.020,0.0024546552,0.009926342,-0.029213216,-0.12317074,-0.055950996,-0.0444666,0.0,0.0,0.0,-0.017892892,-0.13493736,0.47500265,-0.24142939,0.046987385,0.10775979,-0.049968883,-0.22939159,-0.5918427,-0.18948132,0.097403295,-0.46944773,0.26264432,-0.022683516,-0.048228685,0.058420133,0.02946682,0.04996137,0.06075925,0.033488404,-0.071440145,0.026714403,-0.032393537,0.039676454,0.029071646,-2.0,2.0,-2.0,-2.0,0.989568,-2.0,-2.0,-2.0,-2.0,2.0,-2.0,2.0,-2.0,2.0,-2.0,-2.0,0.52112085,-2.0,-2.0,-2.0,-2.0,2.0,-2.0,2.0
2025-06-05 11:54:57.040,0.027627295,-0.039075762,-0.037981126,-0.16885017,-0.02772926,-0.027414666,0.0,0.0,0.0,-0.017167315,-0.12906118,0.47431615,-0.24534188,0.05315034,0.1062458,-0.036728326,-0.22150268,-0.6048957,-0.18815552,0.07918875,-0.4660784,0.26192576,-0.06459112,-0.0715233,0.009142095,-0.025660424,-0.053511497,-0.029385693,-0.044851724,0.023916295,0.0028435863,-0.06654243,-0.04318032,0.01875854,-2.0,2.0,-2.0,-2.0,0.52112085,-2.0,-2.0,-2.0,-2.0,2.0,-2.0,2.0,-2.0,2.0,-2.0,-2.0,0.021094715,-2.0,-2.0,-2.0,-2.0,2.0,-2.0,2.0
2025-06-05 11:54:57.063,-0.024424685,-0.04924541,-0.07881467,-0.16368814,-0.06545096,0.04864122,0.0,0.0,0.0,-0.016208073,-0.12801592,0.48175636,-0.2605217,0.04384527,0.10615523,-0.04937506,-0.22609931,-0.59516704,-0.20137532,0.09376133,-0.46760708,0.2570513,-0.009337325,-0.015121751,-0.054551724,-6.6221405e-06,0.0429896,-0.01674413,0.005181691,0.012592043,0.0030084506,0.05580245,0.0007194244,0.005324174,-2.0,2.0,-2.0,-2.0,0.021094715,-2.0,-2.0,-2.0,-2.0,2.0,-2.0,2.0,-2.0,2.0,-2.0,-2.0,-0.5403393,-2.0,-2.0,-2.0,-2.0,2.0,-2.0,2.0
2025-06-05 11:54:57.080,0.06373251,0.007847068,0.034604914,-0.1708932,-0.05822779,0.02634201,0.0,0.0,0.0,-0.015527307,-0.110785924,0.47741288,-0.24364422,0.048755728,0.0975846,-0.031637687,-0.21598835,-0.6066903,-0.1865462,0.08583785,-0.47317904,0.26067135,0.02383459,0.04229331,-0.007371303,0.016856331,-0.008553241,0.056061424,-0.0073788157,-0.02721743,-0.0627113,-0.06457516,-0.07650079,0.050111808,-2.0,2.0,-2.0,-2.0,-0.5403393,-2.0,-2.0,-2.0,-2.0,2.0,-2.0,2.0,-2.0,2.0,-2.0,-2.0,0.7268284,-2.0,-2.0,-2.0,-2.0,2.0,-2.0,2.0
2025-06-05 11:54:57.101,0.014689173,-0.0020247865,-0.028659742,-0.17615807,-0.018931618,-0.008090575,0.0,0.0,0.0,-0.015424731,-0.12042346,0.4873172,-0.24968038,0.028527347,0.099254854,-0.028158583,-0.2274498,-0.6048306,-0.19906864,0.09428685,-0.4660876,0.26062396,0.04418081,-0.032020714,-0.032949626,0.00970332,0.02108072,0.074311644,0.0452388,-0.05740957,-0.040938936,0.0071715824,-0.023226438,0.0014899509,-2.0,2.0,-2.0,-2.0,0.7268284,-2.0,-2.0,-2.0,-2.0,2.0,-2.0,2.0,-2.0,2.0,-2.0,-2.0,0.38549408,-2.0,-2.0,-2.0,-2.0,2.0,-2.0,2.0
2025-06-05 11:54:57.120,0.04013046,-0.022831436,0.0120159155,-0.17271532,-0.019867955,0.007010628,0.0,0.0,0.0,-0.015100074,-0.11116908,0.4719897,-0.2569106,0.03366204,0.10794637,-0.023959342,-0.23406722,-0.6032,-0.19163208,0.084766254,-0.47879905,0.25995266,-0.019401792,-0.054534495,-0.070494734,0.039087243,-0.029312724,0.075750284,-0.049882993,0.07291956,-0.045949586,-0.034551803,-0.044585474,0.011431143,-2.0,2.0,-2.0,-2.0,0.38549408,-2.0,-2.0,-2.0,-2.0,2.0,-2.0,2.0,-2.0,2.0,-2.0,-2.0,0.788351,-2.0,-2.0,-2.0,-2.0,2.0,-2.0,2.0
2025-06-05 11:54:57.140,0.014597956,-0.0031455995,-0.08661016,-0.09654041,-0.09987965,0.04076998,0.0,0.0,0.0,-0.014525743,-0.12078015,0.47682968,-0.26323894,0.028431823,0.11138456,-0.022118784,-0.23205769,-0.59845793,-0.19873391,0.0841799,-0.47638687,0.26785892,-0.04876492,0.06507237,-0.039702795,-0.011673998,0.03192985,0.05340675,0.059767723,0.07284604,0.06794584,0.016370237,-0.02869191,-0.04690304,-2.0,2.0,-2.0,-2.0,0.788351,-2.0,-2.0,-2.0,-2.0,2.0,-2.0,2.0,-2.0,2.0,-2.0,-2.0,-0.9453218,-2.0,-2.0,-2.0,-2.0,2.0,-2.0,2.0
2025-06-05 11:54:57.163,0.05551844,-0.00040968356,-0.020161714,-0.12992266,-0.017636735,0.016373567,0.0,0.0,0.0,-0.013743157,-0.111798756,0.48961028,-0.25014433,0.022469992,0.09421492,-0.020664865,-0.21846467,-0.61046034,-0.19872956,0.08992575,-0.47898802,0.25618234,0.05148955,-0.04227837,0.016912542,-0.06949045,-0.045786284,0.02353048,0.03171313,-0.021943921,0.06776543,0.047096044,-0.07862862,0.018721756,-2.0,2.0,-2.0,-2.0,-0.9453218,-2.0,-2.0,-2.0,-2.0,2.0,-2.0,2.0,-2.0,2.0,-2.0,-2.0,0.22716713,-2.0,-2.0,-2.0,-2.0,2.0,-2.0,2.0
2025-06-05 11:54:57.181,0.027509106,-0.03250644,0.04359391,-0.16864076,-0.018789303,0.049802024,0.0,0.0,0.0,-0.0136168,-0.102824986,0.48504767,-0.2585565,0.02453553,0.082080856,-0.015668059,-0.23493718,-0.6189332,-0.21016708,0.08744447,-0.47978562,0.25834957,-0.065089226,0.07055153,-0.037508372,-0.013573211,0.01979516,0.010050754,0.021818953,-0.0022886589,-0.03732002,0.03459866,-0.0646066,-0.007355088,-2.0,2.0,-2.0,-2.0,0.22716713,-2.0,-2.0,-2.0,-2.0,2.0,-2.0,2.0,-2.0,2.0,-2.0,-2.0,0.81166655,-2.0,-2.0,-2.0,-2.0,2.0,-2.0,2.0
2025-06-05 11:54:57.201,-0.06106372,0.016688004,-0.06975351,-0.1396536,-0.098040566,-0.038855016,0.0,0.0,0.0,-0.013631084,-0.11828329,0.48239225,-0.26095957,0.022929003,0.079803504,-0.02048353,-0.23356672,-0.59995776,-0.1997477,0.082494475,-0.47932175,0.25257838,0.03490013,-0.035711013,0.071048796,0.01881071,0.051466927,0.013536986,-0.029046787,0.06783416,-0.07483879,0.008346925,0.030626852,0.05165598,-2.0,2.0,-2.0,-2.0,0.81166655,-2.0,-2.0,-2.0,-2.0,2.0,-2.0,2.0,-2.0,2.0,-2.0,-2.0,-0.29241845,-2.0,-2.0,-2.0,-2.0,2.0,-2.0,2.0
2025-06-05 11:54:57.221,0.005331528,0.0014991225,-0.0045802933,-0.16740672,-0.022311404,-0.044991612,0.0,0.0,0.0,-0.013191435,-0.11277197,0.48833653,-0.2501517,0.025642723,0.08206226,-0.018495966,-0.22912948,-0.60109454,-0.21183348,0.09792097,-0.47083065,0.2551461,0.06634957,-0.059209913,-0.013927356,0.041240945,0.06164226,0.074565455,0.013517697,-0.014977681,0.04275216,0.037763562,0.02493854,0.009467318,-2.0,2.0,-2.0,-2.0,-0.29241845,-2.0,-2.0,-2.0,-2.0,2.0,-2.0,2.0,-2.0,2.0,-2.0,-2.0,0.5145351,-2.0,-2.0,-2.0,-2.0,2.0,-2.0,2.0
2025-06-05 11:54:57.241,-0.012719028,0.001820483,-0.052296776,-0.1758136,-0.099858485,0.0021996093,0.0,0.0,0.0,-0.012973651,-0.10738347,0.47693446,-0.25281376,0.014726051,0.08034852,-0.020326886,-0.22811082,-0.6160556,-0.19943142,0.090698175,-0.47815332,0.2581491,0.059772883,0.047697518,-0.001341493,0.050635077,0.020818127,0.059576552,0.04025781,-0.068187654,0.06871807,0.045054812,0.051068626,0.053034727,-2.0,2.0,-2.0,-2.0,0.5145351,-2.0,-2.0,-2.0,-2.0,2.0,-2.0,2.0,-2.0,2.0,-2.0,-2.0,-0.34458727,-2.0,-2.0,-2.0,-2.0,2.0,-2.0,2.0
2025-06-05 11:54:57.263,0.06348764,0.016111605,0.0021892176,-0.11023397,-0.06392675,-0.0391444,0.0,0.0,0.0,-0.012808608,-0.10826227,0.4816041,-0.26492885,0.022746589,0.07629742,-0.014393108,-0.23332675,-0.60768306,-0.20981088,0.081919,-0.4783505,0.2648682,0.01677755,0.00080424873,-0.058572598,0.037979577,0.0054448876,-0.014956761,-0.074979246,-0.011212481,-0.022426922,-0.041810405,0.019762032,0.061355907,-2.0,2.0,-2.0,-2.0,-0.34458727,-2.0,-2.0,-2.0,-2.0,2.0,-2.0,2.0,-2.0,2.0,-2.0,-2.0,0.33897138,-2.0,-2.0,-2.0,-2.0,2.0,-2.0,2.0
2025-06-05 11:54:57.281,-0.0349644,0.019246722,0.043671034,-0.122080505,-0.022362944,-0.027585702,0.0,0.0,0.0,-0.012887358,-0.10863134,0.47488937,-0.25412327,0.011490369,0.0900907,-0.025202814,-0.22209376,-0.6199869,-0.21494298,0.0877135,-0.4812573,0.26045954,-0.02985599,-0.0024967005,0.046224985,0.00896717,-0.07066022,-0.07317483,0.045506578,0.05793263,0.044011887,0.05807224,0.017034076,0.020853944,-2.0,2.0,-2.0,-2.0,0.33897138,-2.0,-2.0,-2.0,-2.0,2.0,-2.0,2.0,-2.0,2.0,-2.0,-2.0,1.117445,-2.0,-2.0,-2.0,-2.0,2.0,-2.0,2.0
2025-06-05 11:54:57.301,-0.075602815,-0.007753459,-0.058250718,-0.13175268,-0.019724376,0.0017166273,0.0,0.0,0.0,-0.012958139,-0.10949011,0.49444562,-0.24832587,0.016216863,0.08587346,-0.02578652,-0.2178909,-0.61460644,-0.20821396,0.085944764,-0.47524294,0.2517782,0.0032673657,0.026187249,0.0050907196,-0.01754897,0.053260703,0.02518748,-0.05317404,-0.034537673,-0.0645728,-0.044204716,0.04786735,0.02702361,-2.0,2.0,-2.0,-2.0,1.117445,-2.0,-2.0,-2.0,-2.0,2.0,-2.0,2.0,-2.0,2.0,-2.0,-2.0,-0.11787119,-2.0,-2.0,-2.0,-2.0,2.0,-2.0,2.0
2025-06-05 11:54:57.322,0.04255967,0.027798109,-0.024335558,-0.09424454,-0.06663401,-0.026346697,0.0,0.0,0.0,-0.0124985175,-0.112147644,0.48297146,-0.25750795,0.005357507,0.08203924,-0.032800578,-0.22750051,-0.6091079,-0.20651796,0.09686608,-0.47130546,0.25850442,-0.022627743,0.032253765,-0.067725,-0.050328936,-0.06670419,-0.06610866,0.0008695286,0.016110104,-0.016122792,0.022132192,-0.04877881,-0.045626454,-2.0,2.0,-2.0,-2.0,-0.11787119,-2.0,-2.0,-2.0,-2.0,2.0,-2.0,2.0,-2.0,2.0,-2.0,-2.0,-0.16512674,-2.0,-2.0,-2.0,-2.0,2.0,-2.0,2.0
2025-06-05 11:54:57.342,0.06686303,0.01981303,-0.024171392,-0.16570911,-0.09500387,-0.029152926,0.0,0.0,0.0,-0.0121953,-0.117731325,0.48161682,-0.2509746,0.0071456726,0.08622472,-0.0318601,-0.22780433,-0.6081584,-0.20347951,0.09351823,-0.47527912,0.256136,0.043140844,-0.035705622,-0.016288983,0.027212244,0.032535177,-0.009641495,0.052957267,0.031714704,-0.007225686,0.038075212,0.013678981,-0.06959235,-2.0,2.0,-2.0,-2.0,-0.16512674,-2.0,-2.0,-2.0,-2.0,2.0,-2.0,2.0,-2.0,2.0,-2.0,-2.0,-0.03993758,-2.0,-2.0,-2.0,-2.0,2.0,-2.0,2.0
2025-06-05 11:54:57.363,0.0068207905,0.0054762815,0.03914385,-0.14058462,-0.07636832,0.047089685,0.0,0.0,0.0,-0.012361803,-0.11105369,0.47810113,-0.25327924,0.021405036,0.08075548,-0.025986345,-0.21447901,-0.61521834,-0.20774283,0.08975086,-0.48186007,0.26350218,0.06307388,0.058053523,0.05646623,0.0466126,-0.061187606,0.005475053,0.06658267,-0.06659167,0.07508928,-0.070450544,0.067054644,-0.02226538,-2.0,2.0,-2.0,-2.0,-0.03993758,-2.0,-2.0,-2.0,-2.0,2.0,-2.0,2.0,-2.0,2.0,-2.0,-2.0,0.77035606,-2.0,-2.0,-2.0,-2.0,2.0,-2.0,2.0
2025-06-05 11:54:57.383,-0.01874653,0.036407795,-0.025870934,-0.17661552,-0.022680143,-0.026966317,0.0,0.0,0.0,-0.012685888,-0.11038516,0.4896758,-0.26281875,0.015535018,0.085227504,-0.022559876,-0.22131655,-0.60569715,-0.21057543,0.08296342,-0.46790257,0.25397676,-0.04680381,0.044250418,-0.06585455,-0.059779525,0.030773083,-0.0055403356,-0.05078684,0.043254178,0.029108454,0.037104912,0.051229116,0.019007973,-2.0,2.0,-2.0,-2.0,0.77035606,-2.0,-2.0,-2.0,-2.0,2.0,-2.0,2.0,-2.0,2.0,-2.0,-2.0,0.15265325,-2.0,-2.0,-2.0,-2.0,2.0,-2.0,2.0
2025-06-05 11:54:57.402,0.027323924,0.03381204,-0.04806822,-0.14505805,-0.07141451,-0.0013218647,0.0,0.0,0.0,-0.012621893,-0.11452674,0.47660676,-0.26467177,0.011819426,0.07980271,-0.018900722,-0.22071938,-0.61028576,-0.20854948,0.096118815,-0.47566622,0.2659315,-0.022564858,-0.0141896,0.030558204,-0.042630553,0.034877185,0.045221955,0.009470824,-0.020335492,-0.067335114,0.006189813,-0.035563804,-0.028675329,-2.0,2.0,-2.0,-2.0,0.15265325,-2.0,-2.0,-2.0,-2.0,2.0,-2.0,2.0,-2.0,2.0,-2.0,-2.0,-0.03170561,-2.0,-2.0,-2.0,-2.0,2.0,-2.0,2.0
2025-06-05 11:54:57.423,-0.004768048,-0.013652715,0.014244176,-0.10573163,-0.10131164,0.015545259,0.0,0.0,0.0,-0.012453072,-0.116434194,0.4794483,-0.2617355,0.016040454,0.0903764,-0.022675712,-0.21473873,-0.60105705,-0.20010458,0.088295825,-0.46611083,0.25802264,0.03660776,-0.06487398,0.050728057,0.065712646,0.004841622,-0.0033429125,0.04911742,0.008966697,-0.058560766,-0.012011021,-0.0036300444,-0.034291256,-2.0,2.0,-2.0,-2.0,-0.03170561,-2.0,-2.0,-2.0,-2.0,2.0,-2.0,2.0,-2.0,2.0,-2.0,-2.0,0.8585548,-2.0,-2.0,-2.0,-2.0,2.0,-2.0,2.0
2025-06-05 11:54:57.444,-0.0735411,0.0127954185,-0.03514821,-0.18801776,-0.10600546,-0.031386662,0.0,0.0,0.0,-0.012496535,-0.10780887,0.49145558,-0.25195596,0.008362771,0.09016398,-0.02010885,-0.21976852,-0.6183597,-0.20290196,0.085369706,-0.47312284,0.26369548,0.022202913,-0.030428756,-0.028337175,0.05215174,0.08096968,-0.04558979,0.03272494,0.009783555,-0.03824938,0.033321757,-0.024570707,0.07153382,-2.0,2.0,-2.0,-2.0,0.8585548,-2.0,-2.0,-2.0,-2.0,2.0,-2.0,2.0,-2.0,2.0,-2.0,-2.0,0.07751096,-2.0,-2.0,-2.0,-2.0,2.0,-2.0,2.0
2025-06-05 11:54:57.463,-0.030932125,0.004237225,0.016639424,-0.107682735,-0.04364246,0.004771373,0.0,0.0,0.0,-0.012299746,-0.1017133,0.4797596,-0.2517368,0.01660266,0.10070308,-0.022517215,-0.22374994,-0.61558044,-0.20811641,0.07994644,-0.47691032,0.26225477,0.023570247,0.070845015,0.014990388,0.056981582,0.013610733,-0.005073352,-0.0074236207,0.024870887,0.051460125,-0.011857922,0.032434743,0.03254308,-2.0,2.0,-2.0,-2.0,0.07751096,-2.0,-2.0,-2.0,-2.0,2.0,-2.0,2.0,-2.0,2.0,-2.0,-2.0,0.5440703,-2.0,-2.0,-2.0,-2.0,2.0,-2.0,2.0
2025-06-05 11:54:57.483,-0.014290865,0.029953059,-0.048924692,-0.18276636,-0.03121464,0.0035088533,0.0,0.0,0.0,-0.012138414,-0.10440712,0.4781404,-0.2588607,0.0019382652,0.08722926,-0.035675593,-0.2233744,-0.6013576,-0.21185769,0.08945798,-0.46792185,0.26005444,0.04976544,0.03462993,0.0665669,-0.012961704,-0.032707196,-0.012209486,-0.029150326,0.06360241,0.052072227,-0.04772158,0.062464867,0.048137322,-2.0,2.0,-2.0,-2.0,0.5440703,-2.0,-2.0,-2.0,-2.0,2.0,-2.0,2.0,-2.0,2.0,-2.0,-2.0,-0.2566027,-2.0,-2.0,-2.0,-2.0,2.0,-2.0,2.0
2025-06-05 11:54:57.502,0.06767036,0.045750592,0.025980193,-0.09405199,-0.08722802,0.0314026,0.0,0.0,0.0,-0.011998337,-0.11073947,0.49266827,-0.26178384,0.011405513,0.10481207,-0.017237987,-0.22183193,-0.6179839,-0.20249666,0.08605513,-0.47321218,0.2652316,0.06781858,-0.027064042,0.07050755,0.07184299,-0.007080402,-0.042676996,-0.07504848,-0.07512375,0.051426336,0.046411823,0.011619715,-0.059799667,-2.0,2.0,-2.0,-2.0,-0.2566027,-2.0,-2.0,-2.0,-2.0,2.0,-2.0,2.0,-2.0,2.0,-2.0,-2.0,0.82579476,-2.0,-2.0,-2.0,-2.0,2.0,-2.0,2.0
2025-06-05 11:54:57.522,-0.03274888,0.01939795,0.026014345,-0.16384889,-0.088955946,-0.014368857,0.0,0.0,0.0,-0.012139761,-0.11964078,0.48080614,-0.25663343,0.011532761,0.08780044,-0.019926429,-0.21519177,-0.60569704,-0.20854263,0.09710461,-0.467821,0.27049178,0.037320588,0.047729395,0.03828173,0.0529106,-0.036885988,-0.024032297,0.007004127,-0.012325495,-0.06912887,-0.009336836,0.051688403,0.052236084,-2.0,2.0,-2.0,-2.0,0.82579476,-2.0,-2.0,-2.0,-2.0,2.0,-2.0,2.0,-2.0,2.0,-2.0,-2.0,0.91897583,-2.0,-2.0,-2.0,-2.0,2.0,-2.0,2.0
2025-06-05 11:54:57.542,-0.022014843,-0.054046758,0.0046995627,-0.105115496,-0.05091795,-0.027102401,0.0,0.0,0.0,-0.012099206,-0.10712526,0.4962692,-0.24703194,0.0040936014,0.10238486,-0.037872806,-0.20906493,-0.6016371,-0.19403037,0.093799844,-0.47327474,0.25462013,-0.059331868,-0.03245692,0.021851555,0.018962642,0.06453222,-0.017751023,0.024748659,0.021323314,-0.07124763,-0.05843903,0.038967527,0.05370617,-2.0,2.0,-2.0,-2.0,0.91897583,-2.0,-2.0,-2.0,-2.0,2.0,-2.0,2.0,-2.0,2.0,-2.0,-2.0,0.9628528,-2.0,-2.0,-2.0,-2.0,2.0,-2.0,2.0
2025-06-05 11:54:57.563,-0.07933277,-0.020136707,-0.019491699,-0.17088895,0.00096547,-0.02413321,0.0,0.0,0.0,-0.011645896,-0.12110954,0.5024549,-0.25283068,0.008889429,0.12010438,-0.033922754,-0.210052,-0.59463406,-0.19909391,0.082743034,-0.47621033,0.2594451,-0.012058119,0.024755647,0.0020939203,0.017006915,0.06579808,-0.012511084,0.06575843,-0.049895674,-0.0043502226,0.030834239,-0.050569627,-0.05598643,-2.0,2.0,-2.0,-2.0,0.9628528,-2.0,-2.0,-2.0,-2.0,2.0,-2.0,2.0,-2.0,2.0,-2.0,-2.0,0.480059,-2.0,-2.0,-2.0,-2.0,2.0,-2.0,2.0
2025-06-05 11:54:57.583,-0.01411777,0.024032133,0.014021689,-0.17144363,-0.045200925,0.026085792,0.0,0.0,0.0,-0.010980986,-0.11160375,0.50188893,-0.2448849,-0.00393065,0.13166665,-0.04013915,-0.20113164,-0.59742874,-0.20193057,0.096376516,-0.4710861,0.2697783,0.055792622,-0.054420415,-0.05511772,-0.029421436,0.08002534,0.07078066,-0.05864838,0.061537057,-0.05924284,-0.006464493,0.07088943,-0.028694343,-2.0,2.0,-2.0,-2.0,0.480059,-2.0,-2.0,-2.0,-2.0,2.0,-2.0,2.0,-2.0,2.0,-2.0,-2.0,1.2364609,-2.0,-2.0,-2.0,-2.0,2.0,-2.0,2.0
2025-06-05 11:54:57.603,-0.10113047,-0.0039930115,-0.056174014,-0.17222217,-0.08901788,-0.039962616,0.0,0.0,0.0,-0.010509482,-0.12456606,0.49351433,-0.2555959,-0.0062920437,0.13558413,-0.04705396,-0.21357486,-0.5918325,-0.19067408,0.079209484,-0.46082795,0.2540939,0.06999942,-0.034638256,0.06966463,0.03659708,0.0009873485,-0.044291396,-0.022542216,0.03607701,0.026984194,-0.012105441,0.047658436,-0.07280656,-2.0,2.0,-2.0,-2.0,1.2364609,-2.0,-2.0,-2.0,-2.0,2.0,-2.0,2.0,-2.0,2.0,-2.0,-2.0,0.038604327,-2.0,-2.0,-2.0,-2.0,2.0,-2.0,2.0
2025-06-05 11:54:57.623,0.030865418,0.01045426,-0.030937038,-0.097968675,-0.031899713,0.020572577,0.0,0.0,0.0,-0.00995941,-0.121668324,0.49702618,-0.24108212,-0.005839101,0.1472803,-0.052767523,-0.21048316,-0.5910563,-0.19496563,0.08677627,-0.47579384,0.26882833,0.06715069,0.037828192,0.008165298,-0.04201262,0.038152654,0.04347895,-0.05011499,-0.03264726,0.08090968,0.049124416,0.05779825,0.049438816,-2.0,2.0,-2.0,-2.0,0.038604327,-2.0,-2.0,-2.0,-2.0,2.0,-2.0,2.0,-2.0,2.0,-2.0,-2.0,0.38934144,-2.0,-2.0,-2.0,-2.0,2.0,-2.0,2.0
2025-06-05 11:54:57.645,-0.029743737,0.009010692,0.025688313,-0.16146939,-0.0675223,-0.043103475,0.0,0.0,0.0,-0.0097914,-0.117043644,0.5037657,-0.24505243,7.1049435e-05,0.13709763,-0.045524497,-0.2017716,-0.5911156,-0.19392896,0.08351304,-0.47994253,0.26235265,0.01919378,-0.0566263,-0.006719462,-0.018069202,0.06055839,0.012797812,0.07223149,-0.008704592,0.05019262,-0.029149335,0.009427454,0.05393067,-2.0,2.0,-2.0,-2.0,0.38934144,-2.0,-2.0,-2.0,-2.0,2.0,-2.0,2.0,-2.0,2.0,-2.0,-2.0,1.3054458,-2.0,-2.0,-2.0,-2.0,2.0,-2.0,2.0
2025-06-05 11:54:57.663,-0.015654737,-0.01559116,-0.03113614,-0.09155557,-0.07516294,0.015474517,0.0,0.0,0.0,-0.009949916,-0.12094732,0.503199,-0.2375869,0.0035047706,0.14763057,-0.050278064,-0.20813242,-0.5951272,-0.18515183,0.084442206,-0.46378624,0.2654829,-0.010583271,-0.058879625,-0.03888712,-0.0025950128,-0.008598761,0.027340049,0.059767306,-0.012694535,-0.06276949,-0.06252771,0.031182498,-0.037881006,-2.0,2.0,-2.0,-2.0,1.3054458,-2.0,-2.0,-2.0,-2.0,2.0,-2.0,2.0,-2.0,2.0,-2.0,-2.0,0.640258,-2.0,-2.0,-2.0,-2.0,2.0,-2.0,2.0
2025-06-05 11:54:57.683,-0.048258286,0.0028218757,0.024378652,-0.10718615,-0.044493303,-0.00054507726,0.0,0.0,0.0,-0.009705176,-0.11670728,0.5044622,-0.25496748,0.0035180056,0.14298032,-0.056169704,-0.20656079,-0.58952683,-0.18168323,0.08571308,-0.47513175,0.2708493,-0.07190486,0.0756425,-0.0500314,0.043211095,-0.028690908,-0.013100169,0.014013809,0.047873054,0.05495131,-0.0685593,-0.009427821,-0.043271903,-2.0,2.0,-2.0,-2.0,0.640258,-2.0,-2.0,-2.0,-2.0,2.0,-2.0,2.0,-2.0,2.0,-2.0,-2.0,0.854547,-2.0,-2.0,-2.0,-2.0,2.0,-2.0,2.0
2025-06-05 11:54:57.704,0.015289725,-0.04449132,-0.014406867,-0.16155793,-0.03858117,-0.023343204,0.0,0.0,0.0,-0.009329487,-0.11773133,0.50322145,-0.2535536,-0.0054549556,0.16424333,-0.042548954,-0.20433676,-0.58990026,-0.17787291,0.08673904,-0.46656272,0.2694774,-0.005434514,-0.006907595,0.01928995,-0.019099,-0.034831587,0.010515309,-0.021732826,0.01756601,-0.064119406,0.020406505,-0.008613418,-0.05816568,-2.0,2.0,-2.0,-2.0,0.854547,-2.0,-2.0,-2.0,-2.0,2.0,-2.0,2.0,-2.0,2.0,-2.0,-2.0,0.8258235,-2.0,-2.0,-2.0,-2.0,2.0,-2.0,2.0
2025-06-05 11:54:57.723,0.0016965747,0.015713427,0.034215465,-0.094172314,-0.03094524,-0.021111686,0.0,0.0,0.0,-0.008988639,-0.11449093,0.50049216,-0.23762052,-0.0087360125,0.17056945,-0.04442933,-0.19225222,-0.5935725,-0.18935318,0.08405611,-0.47104543,0.25280932,0.022768117,0.00014380306,0.03210462,0.008391395,0.0043211584,0.01614409,0.06015639,0.043782078,-0.06243867,0.053261854,-0.0011138245,-0.05182102,-2.0,2.0,-2.0,-2.0,0.8258235,-2.0,-2.0,-2.0,-2.0,2.0,-2.0,2.0,-2.0,2.0,-2.0,-2.0,1.6154135,-2.0,-2.0,-2.0,-2.0,2.0,-2.0,2.0
2025-06-05 11:54:57.747,-0.046312515,-0.055354588,-0.041639224,-0.1534754,-0.035344012,-0.049696367,0.0,0.0,0.0,-0.008675123,-0.11250756,0.51350784,-0.24025652,-0.009043142,0.18352151,-0.052199606,-0.1838592,-0.59063077,-0.1702193,0.09230201,-0.474379,0.25789708,-0.0008244376,-0.017429547,0.07882679,-0.03984072,0.07637329,-0.00011732682,-0.046119407,0.050337322,-0.019007454,-0.07383271,0.00048202436,0.043288212,-2.0,2.0,-2.0,-2.0,1.6154135,-2.0,-2.0,-2.0,-2.0,2.0,-2.0,2.0,-2.0,2.0,-2.0,-2.0,0.7590786,-2.0,-2.0,-2.0,-2.0,2.0,-2.0,2.0
2025-06-05 11:54:57.764,0.025770415,-0.011757689,0.027026193,-0.12158853,0.01310402,-0.018864127,0.0,0.0,0.0,-0.008048957,-0.109665245,0.51190543,-0.24792622,-0.0048507387,0.19134016,-0.05075563,-0.19291306,-0.5839048,-0.16637744,0.094206534,-0.47555456,0.25193653,0.025559753,-0.0635976,-0.036632106,-0.074163154,0.020112323,-0.002413111,-0.060819063,0.009348211,-0.0057948786,0.05287029,0.04713418,0.070760265,-2.0,2.0,-2.0,-2.0,0.7590786,-2.0,-2.0,-2.0,-2.0,2.0,-2.0,2.0,-2.0,2.0,-2.0,-2.0,2.0,-2.0,-2.0,-2.0,-2.0,2.0,-2.0,2.0
2025-06-05 11:54:57.784,-0.048856277,-0.04320672,0.0069749993,-0.13232197,-0.026394127,0.02921067,0.0,0.0,0.0,-0.0075436695,-0.12838234,0.5176316,-0.2445684,-0.022062102,0.19973278,-0.06927458,-0.19285662,-0.5784793,-0.16738391,0.09432542,-0.47765023,0.2670106,0.021623729,-0.018054992,-0.011473267,0.03129862,0.09964844,-0.056238327,0.034351327,0.03261162,-0.004152771,-0.071371056,-0.070856154,0.061258152,-2.0,2.0,-2.0,-2.0,2.0,-2.0,-2.0,-2.0,-2.0,2.0,-2.0,2.0,-2.0,2.0,-2.0,-2.0,1.5514827,-2.0,-2.0,-2.0,-2.0,2.0,-2.0,2.0
2025-06-05 11:54:57.804,-0.035644922,-0.056615498,-0.020282261,-0.1578541,0.0033532106,-0.009684214,0.0,0.0,0.0,-0.006759754,-0.11419112,0.5255491,-0.2311941,-0.010333879,0.22445293,-0.072200425,-0.1873939,-0.5862288,-0.17381833,0.07940562,-0.47068068,0.26598012,-0.013559176,0.05852829,-0.015852591,-0.019518387,0.009545202,0.008780251,-0.05210874,0.04991089,0.030533088,-0.013855586,-0.008160769,0.022248317,-2.0,2.0,-2.0,-2.0,1.5514827,-2.0,-2.0,-2.0,-2.0,2.0,-2.0,2.0,-2.0,2.0,-2.0,-2.0,0.8587037,-2.0,-2.0,-2.0,-2.0,2.0,-2.0,2.0
2025-06-05 11:54:57.824,0.024570225,-0.0031880003,-0.011251862,-0.081950516,-0.0034655714,-0.012182245,0.0,0.0,0.0,-0.005801437,-0.12400989,0.5140374,-0.24711351,-0.024184378,0.23604164,-0.077698655,-0.18226548,-0.58132684,-0.17230184,0.09175706,-0.4705707,0.2652196,-0.012640696,0.04057845,-0.021606283,-0.06273501,0.09436472,0.03210694,0.032744333,0.051866326,0.045691106,-0.05112668,-0.0077010985,-0.05827078,-2.0,2.0,-2.0,-2.0,0.8587037,-2.0,-2.0,-2.0,-2.0,2.0,-2.0,2.0,-2.0,2.0,-2.0,-2.0,1.3465178,-2.0,-2.0,-2.0,-2.0,2.0,-2.0,2.0
2025-06-05 11:54:57.846,-0.00084612955,-0.010377432,0.006817805,-0.16978647,0.023986107,-0.01703987,0.0,0.0,0.0,-0.005263566,-0.1210088,0.5178146,-0.24024856,-0.012814658,0.24309617,-0.07664489,-0.17834018,-0.5722926,-0.16212627,0.079054,-0.46593818,0.2691075,0.0367448,0.057536434,-0.048654094,-0.0067949714,0.06465184,-0.054927897,-0.014680699,-0.012460734,0.07138666,0.032180134,0.03976638,0.01772844,-2.0,2.0,-2.0,-2.0,1.3465178,-2.0,-2.0,-2.0,-2.0,2.0,-2.0,2.0,-2.0,2.0,-2.0,-2.0,1.6321019,-2.0,-2.0,-2.0,-2.0,2.0,-2.0,2.0
2025-06-05 11:54:57.864,0.030529156,0.019531976,-0.07443775,-0.12522344,0.00083510176,-0.0122448765,0.0,0.0,0.0,-0.004917739,-0.11840745,0.5253393,-0.24096324,-0.026773257,0.24585281,-0.06398592,-0.16156575,-0.5681383,-0.14970326,0.09206414,-0.47744,0.25173363,0.0024639543,0.032804154,0.0020328586,0.035131037,-0.01148365,0.0633262,0.021422302,0.048583172,0.040164985,-0.03802754,-0.019949177,0.059682366,-2.0,2.0,-2.0,-2.0,1.6321019,-2.0,-2.0,-2.0,-2.0,2.0,-2.0,2.0,-2.0,2.0,-2.0,-2.0,0.5756836,-2.0,-2.0,-2.0,-2.0,2.0,-2.0,2.0
2025-06-05 11:54:57.885,0.076675765,-0.014382339,0.008570137,-0.15578203,-0.0065153735,-0.00209777,0.0,0.0,0.0,-0.0043812604,-0.12278295,0.51150024,-0.24481678,-0.013196103,0.26320344,-0.06270809,-0.16436511,-0.56754744,-0.15502152,0.086824715,-0.47408542,0.2529624,0.0602416,-0.07077812,0.04806788,0.02445175,-0.0039300728,0.014486934,-0.026645042,0.03920269,-0.017217197,0.015817,-0.03919744,0.06964985,-2.0,2.0,-2.0,-2.0,0.5756836,-2.0,-2.0,-2.0,-2.0,2.0,-2.0,2.0,-2.0,2.0,-2.0,-2.0,1.9412799,-2.0,-2.0,-2.0,-2.0,2.0,-2.0,2.0
2025-06-05 11:54:57.904,-0.011647884,0.025482478,-0.0466209,-0.14831772,-0.00082822103,-0.03623685,0.0,0.0,0.0,-0.0042460314,-0.113371156,0.5094979,-0.23243004,-0.029482584,0.26138115,-0.060276538,-0.1660987,-0.5681946,-0.1418709,0.09336144,-0.47437534,0.26938933,-0.0014183575,0.07218441,0.010937238,0.018095795,0.0025361704,0.009487339,-0.05503757,0.028098203,-0.02021947,-0.046029955,0.03592617,-0.06552798,-2.0,2.0,-2.0,-2.0,1.9412799,-2.0,-2.0,-2.0,-2.0,2.0,-2.0,2.0,-2.0,2.0,-2.0,-2.0,1.094538,-2.0,-2.0,-2.0,-2.0,2.0,-2.0,2.0
2025-06-05 11:54:57.925,0.05819113,-0.0072345263,-0.021144936,-0.15583077,-0.020410983,-0.020950314,0.0,0.0,0.0,-0.0039358074,-0.122581325,0.5096175,-0.24461417,-0.02124068,0.2746737,-0.07286263,-0.16739091,-0.5793878,-0.14712195,0.09276556,-0.47682613,0.2529621,-0.029801866,0.061101794,-0.020141283,0.071692616,-0.04009377,-0.06518806,0.044400293,0.07158234,0.032325633,0.049695347,0.04308626,-0.051161427,-2.0,2.0,-2.0,-2.0,1.094538,-2.0,-2.0,-2.0,-2.0,2.0,-2.0,2.0,-2.0,2.0,-2.0,-2.0,1.2770412,-2.0,-2.0,-2.0,-2.0,2.0,-2.0,2.0
2025-06-05 11:54:57.947,0.013256775,0.084311694,-0.021704875,-0.09166118,-0.07586196,-0.009838584,0.0,0.0,0.0,-0.0035965159,-0.118123725,0.51094925,-0.23766434,-0.01698112,0.27283594,-0.06975617,-0.16238108,-0.57293326,-0.14277183,0.094938226,-0.4795151,0.2546336,-0.05637788,0.007409093,-0.013004989,0.009373298,0.022579849,0.0050977957,0.051344205,-0.04651542,0.055418745,-0.045464743,-0.070082724,0.021127952,-2.0,2.0,-2.0,-2.0,1.2770412,-2.0,-2.0,-2.0,-2.0,2.0,-2.0,2.0,-2.0,2.0,-2.0,-2.0,1.4943318,-2.0,-2.0,-2.0,-2.0,2.0,-2.0,2.0
2025-06-05 11:54:57.965,0.0065480922,0.0707082,-0.013453434,-0.12996767,-0.063888565,0.046777274,0.0,0.0,0.0,-0.0033409558,-0.115918554,0.5034195,-0.239901,-0.03272696,0.29378816,-0.07080638,-0.17640203,-0.5612572,-0.13459378,0.09697189,-0.47226927,0.26924148,0.051978607,0.010607189,0.052711066,0.048708532,0.018048571,0.03321579,0.03150513,0.042181335,0.06480637,0.015606606,0.047360424,0.055765852,-2.0,2.0,-2.0,-2.0,1.4943318,-2.0,-2.0,-2.0,-2.0,2.0,-2.0,2.0,-2.0,2.0,-2.0,-2.0,2.0,-2.0,-2.0,-2.0,-2.0,2.0,-2.0,2.0
2025-06-05 11:54:57.985,-0.038021315,-0.009116274,-0.019111045,-0.1364651,-0.0067606773,-0.010067602,0.0,0.0,0.0,-0.0029350265,-0.12305754,0.5196286,-0.2463452,-0.03517222,0.3087478,-0.07612424,-0.170223,-0.57057375,-0.14925575,0.08899472,-0.47441038,0.2604717,-0.029059513,0.0063004247,-0.028126176,0.057481494,0.03203639,-0.018079657,0.049105983,-0.001364257,0.05594203,-0.007319997,0.06887524,-0.010955381,-2.0,2.0,-2.0,-2.0,2.0,-2.0,-2.0,-2.0,-2.0,2.0,-2.0,2.0,-2.0,2.0,-2.0,-2.0,2.0,-2.0,-2.0,-2.0,-2.0,2.0,-2.0,2.0
2025-06-05 11:54:58.005,0.010084893,0.014173255,-0.07781447,-0.07461093,-0.010455492,0.013134005,0.0,0.0,0.0,-0.002172138,-0.12023365,0.49986252,-0.25340593,-0.039555192,0.3099698,-0.06260901,-0.17655887,-0.5603396,-0.13049784,0.095511734,-0.470888,0.26610178,0.018106598,0.061157532,-0.06219559,0.0120369885,0.0802538,-0.033961784,0.05859047,-0.044534434,0.02228085,0.022977745,0.0721459,0.0664595,-2.0,2.0,-2.0,-2.0,2.0,-2.0,-2.0,-2.0,-2.0,2.0,-2.0,2.0,-2.0,2.0,-2.0,-2.0,1.5594351,-2.0,-2.0,-2.0,-2.0,2.0,-2.0,2.0
2025-06-05 11:54:58.025,0.038313057,0.026190815,-0.037075374,-0.13200195,-0.017633658,0.008748812,0.0,0.0,0.0,-0.0011791711,-0.10754138,0.50397825,-0.25564075,-0.040871397,0.34194097,-0.076252654,-0.1659377,-0.5599151,-0.12896368,0.09060883,-0.46934423,0.2701536,0.008100762,-0.053849325,-0.05259907,-0.07000249,-0.04460373,0.0195667,0.035909075,0.011167909,-0.03431053,0.074482255,0.019525575,0.057098858,-2.0,2.0,-2.0,-2.0,1.5594351,-2.0,-2.0,-2.0,-2.0,2.0,-2.0,2.0,-2.0,2.0,-2.0,-2.0,2.0,-2.0,-2.0,-2.0,-2.0,2.0,-2.0,2.0
2025-06-05 11:54:58.047,0.052748118,0.050428543,-0.06986185,-0.112790026,-0.08489068,-0.031028213,0.0,0.0,0.0,-0.00038599127,-0.10496334,0.5025798,-0.25616333,-0.035374865,0.35358515,-0.06314887,-0.16775873,-0.56119597,-0.1248267,0.09234796,-0.4756635,0.25692672,0.041245423,0.06061304,0.02258472,0.055267088,-0.02242137,-0.06971891,0.01651083,-0.042370595,-0.0039277626,0.002025231,0.007013555,0.05467406,-2.0,2.0,-2.0,-2.0,2.0,-2.0,-2.0,-2.0,-2.0,2.0,-2.0,2.0,-2.0,2.0,-2.0,-2.0,1.362014,-2.0,-2.0,-2.0,-2.0,2.0,-2.0,2.0
2025-06-05 11:54:58.065,0.1029017,0.05168632,-0.04054246,-0.12445533,-0.012240379,0.03242217,0.0,0.0,0.0,0.00038915005,-0.11525919,0.49422237,-0.258469,-0.04765144,0.3573253,-0.059695117,-0.15374148,-0.5403195,-0.12553662,0.09482989,-0.47113347,0.2683342,-0.035354383,-0.022673681,0.0016591151,-0.037540287,-0.022648279,-0.035521366,-0.06520167,-0.05529995,0.004784958,-0.026163304,-0.07010109,0.050554067,-2.0,2.0,-2.0,-2.0,1.362014,-2.0,-2.0,-2.0,-2.0,2.0,-2.0,2.0,-2.0,2.0,-2.0,-2.0,2.0,-2.0,-2.0,-2.0,-2.0,2.0,-2.0,2.0
2025-06-05 11:54:58.085,0.015705554,0.03416124,-0.046845626,-0.14223558,-0.0712505,-0.018241756,0.0,0.0,0.0,0.0008867918,-0.09918438,0.5097379,-0.25682172,-0.04251333,0.36803687,-0.06654544,-0.163543,-0.55221903,-0.121631876,0.089009985,-0.4748554,0.26658756,-0.014067957,0.04750738,0.052027497,0.04618621,0.017612409,0.0521836,-0.017709965,0.026299778,0.079733685,-0.03551131,-0.007632639,-0.06010715,-2.0,2.0,-2.0,-2.0,2.0,-2.0,-2.0,-2.0,-2.0,2.0,-2.0,2.0,-2.0,2.0,-2.0,-2.0,1.7340065,-2.0,-2.0,-2.0,-2.0,2.0,-2.0,2.0
2025-06-05 11:54:58.106,0.091629475,0.10280295,0.0008633139,-0.13875696,-0.07174953,-0.023250198,0.0,0.0,0.0,0.0014079392,-0.09446785,0.5041114,-0.2622585,-0.040471863,0.3810178,-0.05499713,-0.17137958,-0.55251473,-0.11797682,0.08321002,-0.46245185,0.26134866,0.04695911,0.05763944,-0.0054056332,0.04513052,-0.028284067,0.016235556,0.014672439,-0.017057592,0.026700445,-0.07174396,-0.027449407,0.03718162,-2.0,2.0,-2.0,-2.0,1.7340065,-2.0,-2.0,-2.0,-2.0,2.0,-2.0,2.0,-2.0,2.0,-2.0,-2.0,2.0,-2.0,-2.0,-2.0,-2.0,2.0,-2.0,2.0
2025-06-05 11:54:58.125,0.05098729,0.08166983,-0.07920216,-0.07683345,-0.08788723,0.0169318,0.0,0.0,0.0,0.0019908098,-0.09410478,0.49029332,-0.2512631,-0.04652444,0.38915846,-0.064315684,-0.15744215,-0.5340544,-0.1106114,0.08659508,-0.46969754,0.2532902,0.02851045,-0.07025904,-0.05300628,-0.05492614,0.018324004,0.02592069,0.03757157,0.035736706,0.021400098,0.027860917,-0.04587056,0.049767334,-2.0,2.0,-2.0,-2.0,2.0,-2.0,-2.0,-2.0,-2.0,2.0,-2.0,2.0,-2.0,2.0,-2.0,-2.0,1.957043,-2.0,-2.0,-2.0,-2.0,2.0,-2.0,2.0
2025-06-05 11:54:58.146,-0.017493922,0.101813324,-0.038610443,-0.15304907,-0.07002813,-0.04066534,0.0,0.0,0.0,0.002687659,-0.10624463,0.50180477,-0.2676531,-0.055082466,0.41333658,-0.06756776,-0.17313337,-0.5328817,-0.10213318,0.085348465,-0.47673318,0.27230892,0.06933338,-0.0034312767,0.032235958,-0.06634662,0.059396658,0.04899568,0.057626557,0.00043534578,0.009826779,-0.021773526,-0.02618583,0.064124644,-2.0,2.0,-2.0,-2.0,1.957043,-2.0,-2.0,-2.0,-2.0,2.0,-2.0,2.0,-2.0,2.0,-2.0,-2.0,2.0,-2.0,-2.0,-2.0,-2.0,2.0,-2.0,2.0
2025-06-05 11:54:58.165,-0.024285534,0.09210089,-0.061700687,-0.14928645,-0.09266404,0.044521544,0.0,0.0,0.0,0.003553588,-0.10269103,0.49336627,-0.27056763,-0.056474965,0.40741867,-0.048867643,-0.15370147,-0.53664947,-0.1158892,0.09435168,-0.46240377,0.28190362,-0.0076070456,-0.037774824,0.05518512,-0.008742902,-0.043013863,0.06462545,-0.045421366,-0.054646794,0.07642552,0.034893945,0.023893723,0.065865576,-2.0,2.0,-2.0,-2.0,2.0,-2.0,-2.0,-2.0,-2.0,2.0,-2.0,2.0,-2.0,2.0,-2.0,-2.0,2.0,-2.0,-2.0,-2.0,-2.0,2.0,-2.0,2.0
2025-06-05 11:54:58.185,0.028999558,0.07029882,-0.067157246,-0.073365465,-0.09994026,0.04265281,0.0,0.0,0.0,0.0045907213,-0.08523107,0.48700997,-0.25963923,-0.06355111,0.43620425,-0.061562058,-0.15686148,-0.5167092,-0.116459005,0.08090881,-0.46600202,0.29182947,0.07811707,-0.039702445,-0.015096532,-0.030060008,0.040142052,-0.017641626,-0.013388657,0.058124088,0.026727766,0.03407663,-0.050979976,0.007055202,-2.0,2.0,-2.0,-2.0,2.0,-2.0,-2.0,-2.0,-2.0,2.0,-2.0,2.0,-2.0,2.0,-2.0,-2.0,2.0,-2.0,-2.0,-2.0,-2.0,2.0,-2.0,2.0
2025-06-05 11:54:58.206,0.0585587,0.07114403,-0.10685288,-0.12012344,-0.11414784,-0.023404524,0.0,0.0,0.0,0.0056686164,-0.08283709,0.492798,-0.2726957,-0.08504979,0.44115147,-0.049984224,-0.15444456,-0.5139034,-0.109477766,0.08554061,-0.46562994,0.31207585,-0.06102672,-0.037577093,-0.026046356,-0.06497388,0.06257626,0.0050395834,0.053861823,0.047746047,-0.015569645,0.014480389,-0.02269756,0.07172893,-2.0,2.0,-2.0,-2.0,2.0,-2.0,-2.0,-2.0,-2.0,2.0,-2.0,2.0,-2.0,2.0,-2.0,-2.0,2.0,-2.0,-2.0,-2.0,-2.0,2.0,-2.0,2.0
2025-06-05 11:54:58.225,-0.009342676,0.01583659,-0.077748306,-0.12318044,-0.0759603,-0.033249013,0.0,0.0,0.0,0.0066855894,-0.09263238,0.48289433,-0.2726389,-0.08224866,0.45062882,-0.05438058,-0.16177762,-0.51114285,-0.11948444,0.09410539,-0.4624058,0.32709998,0.04416653,0.06830186,-0.0063068406,0.057570893,0.07355851,-0.06356314,0.06029434,0.06005267,0.025027797,-0.044590067,0.0024423322,0.015563347,-2.0,2.0,-2.0,-2.0,2.0,-2.0,-2.0,-2.0,-2.0,2.0,-2.0,2.0,-2.0,2.0,-2.0,-2.0,2.0,-2.0,-2.0,-2.0,-2.0,2.0,-2.0,2.0
2025-06-05 11:54:58.246,0.020555643,0.09610779,-0.08888362,-0.15156758,-0.09276731,0.03733572,0.0,0.0,0.0,0.0076073,-0.08801544,0.48823825,-0.26459584,-0.09259818,0.45269877,-0.07002353,-0.15949933,-0.5146775,-0.10356602,0.09112756,-0.45441923,0.31988895,0.072171696,-0.04330782,-0.022038868,0.04141202,-0.029822156,-0.06075627,-0.045787033,-0.008270651,-0.0116402395,-0.06702765,0.07044154,0.05307227,-2.0,2.0,-2.0,-2.0,2.0,-2.0,-2.0,-2.0,-2.0,2.0,-2.0,2.0,-2.0,2.0,-2.0,-2.0,2.0,-2.0,-2.0,-2.0,-2.0,2.0,-2.0,2.0
2025-06-05 11:54:58.265,0.068014145,0.027150266,-0.024515834,-0.15357573,-0.11134195,-0.0075769345,0.0,0.0,0.0,0.008434198,-0.087977454,0.48114944,-0.27557868,-0.09618941,0.45798367,-0.0720517,-0.15041065,-0.50880665,-0.119561054,0.08153171,-0.45434383,0.34051606,-0.01571554,-0.03199132,-0.061409347,0.03200827,-0.026067443,0.036041897,0.0005857898,0.039995976,-0.026456963,0.019765478,-0.020089487,-0.02382882,-2.0,2.0,-2.0,-2.0,2.0,-2.0,-2.0,-2.0,-2.0,2.0,-2.0,2.0,-2.0,2.0,-2.0,-2.0,2.0,-2.0,-2.0,-2.0,-2.0,2.0,-2.0,2.0
2025-06-05 11:54:58.285,0.01376841,0.0499086,-0.015937572,-0.1622187,-0.11777367,-0.03848686,0.0,0.0,0.0,0.009174805,-0.08793517,0.48738548,-0.26731035,-0.090943255,0.4749432,-0.069382794,-0.15400581,-0.50291115,-0.10972363,0.088598914,-0.46376923,0.3548645,0.0055594244,-0.071083225,0.04297033,0.0074884444,-0.008131025,-0.05693308,-0.027752217,0.027294755,0.0658448,-0.010251319,-0.058672417,0.0674668,-2.0,2.0,-2.0,-2.0,2.0,-2.0,-2.0,-2.0,-2.0,2.0,-2.0,2.0,-2.0,2.0,-2.0,-2.0,2.0,-2.0,-2.0,-2.0,-2.0,2.0,-2.0,2.0
2025-06-05 11:54:58.306,0.012705942,0.0712465,0.010644474,-0.08372866,-0.13847294,0.048112787,0.0,0.0,0.0,0.00984194,-0.079562716,0.4736641,-0.27490515,-0.0958697,0.4814807,-0.07755261,-0.14749908,-0.49481478,-0.10434433,0.09117857,-0.453965,0.346227,0.03412238,0.03962099,0.054629948,-0.016965082,0.051916096,0.012372544,0.02990639,-0.0121568125,-0.020631583,0.034885615,-0.03490916,-0.038065843,-2.0,2.0,-2.0,-2.0,2.0,-2.0,-2.0,-2.0,-2.0,2.0,-2.0,2.0,-2.0,2.0,-2.0,-2.0,2.0,-2.0,-2.0,-2.0,-2.0,2.0,-2.0,2.0
2025-06-05 11:54:58.326,0.0005697035,0.086326025,-0.07207192,-0.06718236,-0.13132045,0.005186439,0.0,0.0,0.0,0.0104461815,-0.090598255,0.47470793,-0.2765337,-0.111655734,0.49256566,-0.08328902,-0.16186331,-0.49976385,-0.11221974,0.09265079,-0.4492325,0.3533644,0.032316327,-0.009384463,0.041400183,-0.0041667805,-0.05272037,-0.06782396,0.034219198,0.036600463,-0.049252566,0.025523663,0.06855815,-0.05912163,-2.0,2.0,-2.0,-2.0,2.0,-2.0,-2.0,-2.0,-2.0,2.0,-2.0,2.0,-2.0,2.0,-2.0,-2.0,2.0,-2.0,-2.0,-2.0,-2.0,2.0,-2.0,2.0
2025-06-05 11:54:58.347,0.01712164,0.08076331,0.0064968015,-0.1004848,-0.11661726,-0.04623284,0.0,0.0,0.0,0.01099328,-0.08175757,0.49031293,-0.27778634,-0.113412306,0.4832492,-0.07276631,-0.14398737,-0.49753663,-0.112523854,0.08976258,-0.4506076,0.37028491,-0.065110035,-0.038640875,0.036603726,0.06703107,0.0027941652,-0.07145944,0.073437974,-0.017172841,-0.045534205,-0.0052655824,0.057303503,-0.050573863,-2.0,2.0,-2.0,-2.0,2.0,-2.0,-2.0,-2.0,-2.0,2.0,-2.0,2.0,-2.0,2.0,-2.0,-2.0,2.0,-2.0,-2.0,-2.0,-2.0,2.0,-2.0,1.5094837
2025-06-05 11:54:58.366,0.048455093,-0.0094083715,-0.035146832,-0.097570226,-0.11769987,0.04085144,0.0,0.0,0.0,0.011485446,-0.08813503,0.47248903,-0.26733372,-0.11485386,0.48259336,-0.088438325,-0.1500183,-0.5021159,-0.11386705,0.09502352,-0.45950532,0.36400765,0.033146467,-0.052249633,-0.058755886,-0.05791921,0.035478506,0.045293953,-0.042728428,0.07101778,-0.061259147,0.04221587,-0.007959432,0.00629103,-2.0,2.0,-2.0,-2.0,2.0,-2.0,-2.0,-2.0,-2.0,2.0,-2.0,1.5094837,-2.0,2.0,-2.0,-2.0,2.0,-2.0,-2.0,-2.0,-2.0,2.0,-2.0,0.17417605
2025-06-05 11:54:58.386,-0.025134789,0.0011808864,-0.0028736698,-0.12344301,-0.10360471,0.035265878,0.0,0.0,0.0,0.011952688,-0.094268695,0.47460592,-0.27215078,-0.11686611,0.48675632,-0.07156246,-0.14833945,-0.49334133,-0.13012874,0.094281144,-0.44501847,0.37169763,0.021728331,-0.0080385115,0.061039574,-0.05893981,0.038180716,-0.07251814,-0.05292789,0.03908158,0.0582677,0.069332264,0.05585714,-0.016179256,-2.0,2.0,-2.0,-2.0,2.0,-2.0,-2.0,-2.0,-2.0,2.0,-2.0,0.17417605,-2.0,2.0,-2.0,-2.0,2.0,-2.0,-2.0,-2.0,-2.0,2.0,-2.0,-2.0
2025-06-05 11:54:58.406,-0.103468515,-0.13930574,0.007554478,-0.14009733,-0.147333,0.03310611,0.0,0.0,0.0,0.012415839,-0.09023,0.48354626,-0.26732352,-0.124406084,0.4967059,-0.0855471,-0.15504701,-0.4901203,-0.120257355,0.097426504,-0.41526636,0.34644994,0.024156485,-0.0041216244,-0.01827681,0.046043366,-0.058520116,-0.00302791,0.00946859,0.054495696,0.002271106,-0.026019914,-0.0103868665,-0.029378906,-2.0,2.0,-2.0,-2.0,2.0,-2.0,-2.0,-2.0,-2.0,2.0,-2.0,-2.0,-2.0,2.0,-2.0,-2.0,2.0,2.0,-2.0,-2.0,-2.0,2.0,-2.0,-2.0
2025-06-05 11:54:58.428,-0.18431768,-0.14113685,-0.010084331,-0.057582654,-0.16055901,0.022655072,0.0,0.0,0.0,0.012796309,-0.08903696,0.47696078,-0.2773958,-0.11363495,0.50225496,-0.04061037,-0.15029265,-0.48992258,-0.14011808,0.09607734,-0.40575352,0.29399234,-0.05839299,0.023116969,-0.041359127,0.06852001,-0.07056147,0.09681949,-0.030001909,0.066392995,-0.01640989,0.03069587,-0.015755493,-0.122807205,-2.0,2.0,-2.0,-2.0,2.0,2.0,-2.0,-2.0,-2.0,2.0,-2.0,-2.0,-2.0,2.0,-2.0,2.0,-0.7775517,2.0,-2.0,-2.0,-2.0,2.0,-1.9640734,-2.0
2025-06-05 11:54:58.446,-0.27000237,-0.12130318,0.02153211,-0.045782436,-0.13210428,0.0349051,0.0,0.0,0.0,0.012924028,-0.09047826,0.48525146,-0.2621203,-0.09443317,0.41145143,0.016361587,-0.14598434,-0.47325647,-0.15170564,0.09816885,-0.3874467,0.27069232,-0.04987921,-0.031661037,0.06783401,0.13197927,-0.21340765,0.09725911,-0.028150257,-0.021691585,0.008445755,0.010598667,-0.0062652887,-0.12871815,-2.0,2.0,-2.0,2.0,-0.7775517,2.0,-2.0,-2.0,-2.0,2.0,-1.9640734,-2.0,-2.0,2.0,-2.0,2.0,-2.0,2.0,-2.0,-2.0,-2.0,2.0,-0.60448426,-2.0
2025-06-05 11:54:58.466,-0.39434943,-0.12613606,-0.0058381082,-0.049451344,-0.04803776,0.027176753,0.0,0.0,0.0,0.012530827,-0.09920141,0.46613228,-0.25946233,-0.07084302,0.25947955,0.06100042,-0.13655804,-0.4645332,-0.1754364,0.097403586,-0.35882068,0.22961259,-0.08688992,0.006814048,0.011032719,0.0039837295,-0.33636805,0.10519547,-0.0040738457,0.028799929,-0.10729348,-0.012467304,0.0329948,-0.08470963,-2.0,2.0,-2.0,2.0,-2.0,2.0,-2.0,-2.0,-2.0,2.0,-0.60448426,-2.0,-2.0,2.0,-2.0,2.0,-2.0,2.0,-2.0,-2.0,-2.0,2.0,-0.60252947,-2.0
2025-06-05 11:54:58.486,-0.16490506,-0.16274753,-0.023803156,-0.054545883,-0.029564742,0.031865906,0.0,0.0,0.0,0.0130745685,-0.10746857,0.45298532,-0.22712311,-0.025821107,0.16546847,0.11837312,-0.1347646,-0.4661525,-0.1835467,0.10251215,-0.32235962,0.18255669,-0.0782256,-0.084986374,0.12130481,0.02438382,-0.21763888,0.13725391,0.028277084,0.06359876,-0.082054265,-0.0045743957,0.040522065,-0.12200543,-2.0,2.0,-2.0,2.0,-2.0,2.0,-2.0,-2.0,-2.0,2.0,-0.60252947,-2.0,-2.0,2.0,-2.0,2.0,-2.0,1.4879897,-2.0,-2.0,-2.0,2.0,-1.086165,-2.0
2025-06-05 11:54:58.507,-0.05286226,-0.03872427,-0.014056403,-0.04402469,-0.059426498,-0.029945483,0.0,0.0,0.0,0.013743688,-0.11077841,0.44244993,-0.19367112,-0.006843242,0.04412342,0.1453976,-0.12795621,-0.46288088,-0.19505315,0.11175809,-0.30742514,0.14226209,0.050832417,-0.08819517,0.038558185,0.039046593,-0.2080535,-0.045308843,-0.0022895425,-0.027121246,-0.051180575,0.07912354,0.0038733254,-0.15381584,-2.0,2.0,-2.0,2.0,-2.0,1.4879897,-2.0,-2.0,-2.0,2.0,-1.086165,-2.0,-2.0,2.0,-2.0,2.0,-2.0,-1.6689436,-2.0,-2.0,-2.0,2.0,-1.4245238,-2.0
2025-06-05 11:54:58.530,0.069928184,-0.12403366,0.030700302,-0.09030424,-0.0430899,-0.042195294,0.0,0.0,0.0,0.014233825,-0.1056259,0.43885827,-0.17984326,0.0015313792,-0.041860048,0.08515374,-0.124416895,-0.48152527,-0.2104085,0.11306101,-0.28798464,0.10346627,0.06287036,0.0076123094,0.06137005,-0.01333607,-0.119746454,-0.10988747,-0.054032527,-0.0035019126,0.022326834,0.044669803,-0.053110223,-0.11835733,-2.0,2.0,-2.0,2.0,-2.0,-1.6689436,-2.0,-2.0,-2.0,2.0,-1.4245238,-2.0,-2.0,2.0,-2.0,2.0,-1.4300369,-2.0,-2.0,-2.0,-2.0,2.0,-2.0,-2.0
