openverse-orca/OrcaGym/log/simulation_log_20250606_141033.csv
timestamp,imu_angle_roll,imu_angle_pitch,imu_angle_yaw,imu_angular_velocity_roll,imu_angular_velocity_pitch,imu_angular_velocity_yaw,imu_acc_x,imu_acc_y,imu_acc_z,fl_joint1_pos,fl_joint1_vel,fl_joint1_torque,fl_joint2_pos,fl_joint2_vel,fl_joint2_torque,fl_joint3_pos,fl_joint3_vel,fl_joint3_torque,fr_joint1_pos,fr_joint1_vel,fr_joint1_torque,fr_joint2_pos,fr_joint2_vel,fr_joint2_torque,fr_joint3_pos,fr_joint3_vel,fr_joint3_torque,hl_joint1_pos,hl_joint1_vel,hl_joint1_torque,hl_joint2_pos,hl_joint2_vel,hl_joint2_torque,hl_joint3_pos,hl_joint3_vel,hl_joint3_torque,hr_joint1_pos,hr_joint1_vel,hr_joint1_torque,hr_joint2_pos,hr_joint2_vel,hr_joint2_torque,hr_joint3_pos,hr_joint3_vel,hr_joint3_torque,fl_force_x,fl_force_y,fl_force_z,fr_force_x,fr_force_y,fr_force_z,hl_force_x,hl_force_y,hl_force_z,hr_force_x,hr_force_y,hr_force_z,fl_hip_action,fl_thigh_action,fl_calf_action,fr_hip_action,fr_thigh_action,fr_calf_action,hl_hip_action,hl_thigh_action,hl_calf_action,hr_hip_action,hr_thigh_action,hr_calf_action
2025-06-06 14:10:33.482,-0.04409086,-0.04655446,-0.032778233,-0.009838696,0.002162555,0.017628651,-2.901227,0.6719964,0.0,0.0,0.00012811647,0.0075054085,0.008855956,-0.0012582759,0.002402698,0.0082952,-0.008111668,0.0036601925,0.007837702,0.009993695,-0.008576757,-0.008524119,-0.014739355,0.024331894,-0.03827025,-0.047397006,-0.035963353,0.011577511,0.008779393,0.045103963,-0.005121342,-0.059135374,0.07022685,-0.010584414,0.0,0.0,0.0,0.0,0.0,0.0,0.0,0.0,0.0,0.0,0.0,0.0,3.0,2.6765442,0.4968008,1.7740993,1.1396437,-2.058203,-3.0,-1.6470028,-1.8666487,3.0,1.1631647,-1.1731308
2025-06-06 14:10:33.487,0.063974544,0.01847908,-0.03583054,-0.030860448,-0.043822307,0.002384391,0.0,0.0,0.0,0.0,0.026700195,0.08976178,-0.0006371747,0.01985409,0.048594456,-0.04486946,-0.018441906,-0.053944334,-0.035736002,0.032579202,0.04052557,-0.042231966,0.121986456,0.31186426,0.034743987,0.06610283,0.14235507,-0.08930488,-0.038856752,-0.119737126,-0.13686813,0.13557479,0.1914846,-0.14025187,3.0,2.6765442,0.4968008,1.7740993,1.1396437,-2.058203,-3.0,-1.6470028,-1.8666487,3.0,1.1631647,-1.1731308,3.0,-0.72430664,-1.8196099,1.3895417,0.8480334,-0.8765939,-3.0,-0.16649824,-3.0,3.0,-1.2296427,-3.0
2025-06-06 14:10:33.506,0.0133771375,-0.08414481,0.0012419884,-0.0053178826,0.018539537,-0.03757321,0.0,0.0,0.0,2.0394482e-05,0.064790845,0.10473517,-0.03788157,0.031506952,0.082344905,-0.08810648,-0.051231213,-0.08073364,-0.1321477,0.06369555,0.019877082,-0.082833365,0.14545047,-0.11097501,-0.18012016,0.08829408,0.077439345,-0.03041224,-0.13191986,0.037436236,-0.17573434,0.08688081,-0.15348849,-0.14093031,3.0,-0.72430664,-1.8196099,1.3895417,0.8480334,-0.8765939,-3.0,-0.16649824,-3.0,3.0,-1.2296427,-3.0,3.0,0.66488624,-1.1851546,1.1906797,0.58395445,-0.173893,-3.0,-1.7660247,-3.0,3.0,-0.5465813,-3.0
2025-06-06 14:10:33.527,0.03576547,0.057535738,-0.070969775,0.01795074,-0.031884808,-0.047280878,0.0,0.0,0.0,-0.00011220563,0.07016848,0.08654967,-0.033991568,0.04088841,0.08050137,-0.05679872,-0.07759052,-0.11085097,-0.12903592,0.06851748,-0.011352697,-0.08709005,-0.030620169,-0.11529192,0.1046291,0.009453698,-0.11105804,0.15574335,-0.057260633,-0.13023452,-0.007143574,0.008921326,-0.08655043,0.023621382,3.0,0.66488624,-1.1851546,1.1906797,0.58395445,-0.173893,-3.0,-1.7660247,-3.0,3.0,-0.5465813,-3.0,3.0,0.57797784,-1.0278741,0.89188254,0.34878004,-0.6394926,-3.0,-0.8941782,-3.0,1.8706329,-0.8320026,-3.0
2025-06-06 14:10:33.546,0.059201963,0.074891455,-0.017362509,0.043572042,-0.050795406,-0.011091697,0.0,0.0,0.0,0.00042936273,0.082467236,0.071668535,0.0038109059,0.04029274,0.05031717,-0.018044272,-0.06960793,-0.13889644,-0.12687765,0.09089834,-0.03294004,-0.05668329,0.046100985,-0.03390028,0.12202061,0.032693725,-0.095142215,0.10944846,-0.034182888,-0.016717993,0.026057944,0.081245966,0.026956549,0.01701774,3.0,0.57797784,-1.0278741,0.89188254,0.34878004,-0.6394926,-3.0,-0.8941782,-3.0,1.8706329,-0.8320026,-3.0,3.0,0.257061,-1.2657881,0.24224651,0.3814671,-0.5973727,-3.0,-1.5514556,-3.0,1.1628016,-0.8975478,-3.0
2025-06-06 14:10:33.570,-0.07768949,-0.0035271798,0.046673205,-0.0032580965,0.01942514,0.04364418,0.0,0.0,0.0,0.0006287341,0.08532671,0.040493008,0.031555917,0.038632482,0.04755718,0.008748782,-0.083991826,-0.15559399,-0.1047897,0.071806185,-0.043745685,-0.04129993,0.010098446,-0.052137453,-0.010166751,0.05178358,0.025411895,0.078870475,0.010704089,0.013829969,-0.05111084,0.052374333,-0.018478047,0.052291222,3.0,0.257061,-1.2657881,0.24224651,0.3814671,-0.5973727,-3.0,-1.5514556,-3.0,1.1628016,-0.8975478,-3.0,3.0,0.20698598,-1.9371448,0.43328682,0.8428067,-0.50172913,-3.0,-1.9378024,-3.0,0.65727234,-0.4127509,-3.0
2025-06-06 14:10:33.587,-0.06286875,-0.071436554,-0.07298134,-0.01542029,0.031206205,0.035127793,0.0,0.0,0.0,0.0005567217,0.083000064,0.043110214,0.033345524,0.031795356,0.044986423,0.004125895,-0.089687295,-0.1809997,-0.09768464,0.07412199,-0.04135942,-0.031962473,-0.017388826,-0.09062089,-0.04558426,-0.013162843,0.021106098,0.013031135,-0.053746745,-0.036242753,0.014848105,-0.060119174,0.037325207,-0.079428986,3.0,0.20698598,-1.9371448,0.43328682,0.8428067,-0.50172913,-3.0,-1.9378024,-3.0,0.65727234,-0.4127509,-3.0,3.0,0.52907866,-2.9909668,3.0,0.9613504,-1.3642825,-3.0,-0.9457708,-3.0,-2.9789925,-0.6770026,-3.0
2025-06-06 14:10:33.607,-0.0838061,-0.09903578,-0.017072229,0.007115653,-0.0105741555,0.043203883,0.0,0.0,0.0,0.0013954368,0.06157963,0.030640412,0.028978202,0.031241562,0.05592224,-0.009148059,-0.10429049,-0.18895853,-0.14440109,0.08211663,-0.038860884,-0.05004705,0.0471006,0.06350903,-0.09170889,-0.014725135,-0.033933546,-0.037394244,-0.053959846,-0.03553014,-0.035994425,0.01476661,0.029930862,-0.019903876,3.0,0.52907866,-2.9909668,3.0,0.9613504,-1.3642825,-3.0,-0.9457708,-3.0,-2.9789925,-0.6770026,-3.0,3.0,-0.4155005,-3.0,3.0,2.777473,-2.8159454,-3.0,-1.7080795,-3.0,-3.0,-0.41755712,-3.0
2025-06-06 14:10:33.627,-0.25697413,-0.22936939,-0.074962005,0.02826713,-0.054490633,-0.048340514,0.0,0.0,0.0,0.0018053656,0.05444312,0.024045778,-0.006194705,0.050457913,0.10714621,-0.08761769,-0.108476736,-0.19388707,-0.15715832,0.06610724,-0.051642593,-0.06901729,0.031366687,0.0055235974,-0.014054268,0.06131202,0.077603355,-0.22173972,-0.047690067,-0.031081373,-0.006584217,-0.058004767,0.011612826,-0.10041538,3.0,-0.4155005,-3.0,3.0,2.777473,-2.8159454,-3.0,-1.7080795,-3.0,-3.0,-0.41755712,-3.0,3.0,-0.06278914,-3.0,3.0,2.7374945,-3.0,-3.0,-1.6334893,-3.0,-3.0,-0.41227716,-3.0
2025-06-06 14:10:33.647,-0.16066886,-0.17304026,-0.058784377,-0.009861375,-0.013408478,-0.0033020114,0.0,0.0,0.0,0.0022353607,0.039711595,0.03649665,-0.041453663,0.06926776,0.2100296,-0.15023643,-0.12147864,-0.22466467,-0.16166717,0.06319391,-0.043883737,-0.09420571,-0.052965052,0.028071322,-0.07458485,0.04324451,0.21717541,-0.13714886,-0.04372777,-0.08565872,0.024109203,0.039945576,0.060378615,-0.027534073,3.0,-0.06278914,-3.0,3.0,2.7374945,-3.0,-3.0,-1.6334893,-3.0,-3.0,-0.41227716,-3.0,3.0,-0.30535412,-3.0,3.0,3.0,-3.0,-3.0,-1.8742254,-3.0,-3.0,-0.3324511,-3.0
2025-06-06 14:10:33.670,-0.11396372,-0.15584189,-0.0549715,-0.048602436,-0.07153296,-0.006757992,0.0,0.0,0.0,0.0030151184,0.040847313,0.014823437,-0.0729267,0.074913576,0.32546234,-0.21516798,-0.1402851,-0.24745524,-0.18584289,0.04537749,-0.05754133,-0.10376687,-0.040023822,0.006691558,-0.0020170766,0.01035337,0.21409494,-0.15719916,-0.0064787343,-0.012978166,0.052274276,0.055690773,-0.01890628,-0.054682415,3.0,-0.30535412,-3.0,3.0,3.0,-3.0,-3.0,-1.8742254,-3.0,-3.0,-0.3324511,-3.0,3.0,-0.17554277,-3.0,3.0,3.0,-3.0,-3.0,-1.8294156,-3.0,-3.0,-0.19510384,-3.0
2025-06-06 14:10:33.687,-0.10352194,-0.13269019,-0.077076145,-0.02983098,-0.070275284,0.04966525,0.0,0.0,0.0,0.0039061836,0.03083609,0.016275488,-0.09589948,0.09746497,0.41220587,-0.26389015,-0.14145793,-0.26184726,-0.1823794,0.051732905,-0.06809817,-0.12200958,0.0047231647,0.020937042,-0.11444642,0.07868787,0.25865936,-0.051391244,-0.07359976,-0.043727424,-0.095205635,0.058342535,-0.07173642,0.00044099163,3.0,-0.17554277,-3.0,3.0,3.0,-3.0,-3.0,-1.8294156,-3.0,-3.0,-0.19510384,-3.0,3.0,-0.23093468,-3.0,3.0,3.0,-3.0,-3.0,-1.6864063,-3.0,-3.0,-0.19089074,-3.0
2025-06-06 14:10:33.707,-0.091490775,-0.04032705,0.008985147,-0.07064925,-0.031291787,0.046194248,0.0,0.0,0.0,0.0047572167,0.014835863,0.015176151,-0.10631935,0.105514094,0.4855957,-0.27059036,-0.14543559,-0.2776438,-0.19131699,0.0524323,-0.079448305,-0.14193714,-0.0077118436,-0.09243136,0.01333132,0.07504564,0.17683646,-0.009894006,-0.012308672,-0.044504173,-0.096427515,-0.05278743,-0.068570636,-0.031976644,3.0,-0.23093468,-3.0,3.0,3.0,-3.0,-3.0,-1.6864063,-3.0,-3.0,-0.19089074,-3.0,3.0,-0.44734478,-3.0,3.0,3.0,-3.0,-3.0,-2.16098,-3.0,-3.0,0.13564105,-3.0
2025-06-06 14:10:33.727,-0.10620396,0.0035687273,0.0009793054,-0.09054066,-0.1042028,-0.039298907,0.0,0.0,0.0,0.005309364,0.011096918,-0.005049907,-0.12777051,0.11360909,0.5325922,-0.2897831,-0.13667075,-0.28283682,-0.2170691,0.03889767,-0.07524164,-0.1586191,-0.08030014,-0.029868536,-0.069332756,-0.058067787,0.1569673,0.012131555,0.06121767,-0.017812954,0.034795586,-0.0708813,-0.02734179,0.0123614,3.0,-0.44734478,-3.0,3.0,3.0,-3.0,-3.0,-2.16098,-3.0,-3.0,0.13564105,-3.0,3.0,-0.6912804,-3.0,3.0,3.0,-3.0,-3.0,-2.0655339,-3.0,-3.0,0.030021206,-3.0
2025-06-06 14:10:33.747,-0.10588344,-0.016853401,-0.05983632,-0.099693716,-0.00806921,-0.034618333,0.0,0.0,0.0,0.006159941,0.0034912517,-0.015986042,-0.12728696,0.101483375,0.5626659,-0.29218182,-0.13612662,-0.30482808,-0.22018015,0.048107937,-0.08808324,-0.18358907,-0.011780735,-0.06896924,-0.05816719,0.06970278,0.046368983,-0.07985562,-0.024762455,-0.026862735,-0.015400628,-0.009032869,0.034145672,-0.057572536,3.0,-0.6912804,-3.0,3.0,3.0,-3.0,-3.0,-2.0655339,-3.0,-3.0,0.030021206,-3.0,3.0,-0.4679013,-3.0,3.0,3.0,-3.0,-3.0,-1.8490187,-3.0,-3.0,0.057880446,-3.0
2025-06-06 14:10:33.770,-0.064729646,0.10557745,-0.013154598,-0.081785716,-0.09094612,-0.004263905,0.0,0.0,0.0,0.0073864292,-0.0018997121,-0.047305137,-0.123531684,0.09898275,0.5713491,-0.30277875,-0.12937228,-0.32708824,-0.23956986,0.05066224,-0.07486114,-0.19481383,-0.003547112,-0.09071115,0.092906915,-0.0588526,0.077435985,0.03996863,-0.025386367,0.0367531,-0.07923452,0.040373802,0.012061078,-0.062900916,3.0,-0.4679013,-3.0,3.0,3.0,-3.0,-3.0,-1.8490187,-3.0,-3.0,0.057880446,-3.0,3.0,-0.5431695,-3.0,3.0,3.0,-3.0,-3.0,-1.9697176,-3.0,-3.0,0.20005168,-3.0
2025-06-06 14:10:33.787,-0.027007574,0.11023539,-0.08649317,-0.110465944,-0.017810846,0.016063392,0.0,0.0,0.0,0.0085661085,-0.002595472,-0.073071554,-0.11564304,0.10994087,0.57286495,-0.3077497,-0.12566452,-0.3313382,-0.24917592,0.050750587,-0.07465234,-0.19799626,0.039905824,0.0037549995,0.056701124,-0.037358627,0.05963892,-0.065795444,0.0688343,-0.065999396,0.025922881,0.06367551,0.010816405,0.03307124,3.0,-0.5431695,-3.0,3.0,3.0,-3.0,-3.0,-1.9697176,-3.0,-3.0,0.20005168,-3.0,3.0,-0.5419486,-3.0,3.0,3.0,-3.0,-3.0,-1.6800404,-3.0,-3.0,-0.061195478,-3.0
2025-06-06 14:10:33.807,0.005406542,0.08521571,-0.05616099,-0.07020176,-0.0572056,-0.034550115,0.0,0.0,0.0,0.009769081,-0.011645883,-0.08230606,-0.09402614,0.10123172,0.5770868,-0.31155047,-0.13067771,-0.34126034,-0.27578697,0.044645466,-0.077285126,-0.22521871,-0.012730679,-0.06861613,0.10719013,-0.0117388405,-0.042355936,-0.0134801,0.07013053,0.03279249,-0.08554141,0.022850629,-0.052095506,0.032959443,3.0,-0.5419486,-3.0,3.0,3.0,-3.0,-3.0,-1.6800404,-3.0,-3.0,-0.061195478,-3.0,3.0,-0.41380948,-3.0,3.0,3.0,-3.0,-3.0,-1.5888186,-3.0,-3.0,0.04040806,-3.0
2025-06-06 14:10:33.827,0.013462413,0.119199835,-0.036044482,-0.051236294,-0.062185053,0.047736466,0.0,0.0,0.0,0.010618245,0.0025045495,-0.10136618,-0.08748843,0.11625252,0.5791809,-0.31680384,-0.12255818,-0.3362677,-0.27587396,0.043159347,-0.081709035,-0.21658784,-0.030849462,-0.07324848,-0.03060659,0.011857989,-0.05389109,0.037896927,0.007547745,0.0012274316,-0.08327444,0.06124445,-0.0027663317,-0.077321306,3.0,-0.41380948,-3.0,3.0,3.0,-3.0,-3.0,-1.5888186,-3.0,-3.0,0.04040806,-3.0,3.0,-0.5293656,-3.0,3.0,3.0,-3.0,-3.0,-1.8010206,-3.0,-3.0,0.21144728,-3.0
2025-06-06 14:10:33.848,-0.002258502,0.11106027,0.0215296,-0.09415813,-0.0382187,0.01592503,0.0,0.0,0.0,0.010961797,-0.010018865,-0.12964544,-0.07045322,0.11212491,0.577722,-0.3221367,-0.11258834,-0.3382404,-0.30759773,0.056885146,-0.07664975,-0.23695676,0.012643534,-0.09607033,0.09397763,-0.011360653,0.036288712,0.04097481,0.061237033,0.047013737,-0.078888275,-0.063774124,0.030398902,0.02613065,3.0,-0.5293656,-3.0,3.0,3.0,-3.0,-3.0,-1.8010206,-3.0,-3.0,0.21144728,-3.0,3.0,-0.68193954,-3.0,3.0,3.0,-3.0,-3.0,-2.0646596,-3.0,-3.0,0.21765585,-3.0
2025-06-06 14:10:33.870,0.004884106,0.14023443,-0.07072822,-0.050236844,0.018245328,-0.0055745337,0.0,0.0,0.0,0.01125615,-0.0077636014,-0.14797476,-0.058650114,0.11476019,0.5787922,-0.32714275,-0.111041486,-0.34514734,-0.29793653,0.062202703,-0.08794291,-0.2484918,0.016235355,-0.01564259,0.007477228,-0.044751815,-0.033165082,0.05271438,-0.033269685,-0.047095593,-0.059724193,-0.03373932,-0.048821263,-0.046488587,3.0,-0.68193954,-3.0,3.0,3.0,-3.0,-3.0,-2.0646596,-3.0,-3.0,0.21765585,-3.0,3.0,-0.581737,-3.0,3.0,3.0,-3.0,-3.0,-1.5311887,-3.0,-3.0,0.05818613,-3.0
2025-06-06 14:10:33.888,0.023180986,0.10021461,0.032328315,-0.025003305,0.045013953,0.018632561,0.0,0.0,0.0,0.011810289,0.0021741693,-0.16760117,-0.04122281,0.11207498,0.5751165,-0.31850713,-0.11157895,-0.3361975,-0.31539565,0.05417488,-0.09653357,-0.24555017,-0.063258305,-0.08442412,0.09572911,-0.009468551,0.07210335,0.068933055,-0.049290247,-0.022009369,-0.07508439,-0.05238652,0.033742577,-0.046001323,3.0,-0.581737,-3.0,3.0,3.0,-3.0,-3.0,-1.5311887,-3.0,-3.0,0.05818613,-3.0,3.0,-0.59469897,-3.0,3.0,3.0,-3.0,-3.0,-2.1253643,-3.0,-3.0,0.32484728,-3.0
2025-06-06 14:10:33.908,0.021374118,0.10502423,-0.07175096,-0.0627229,0.005862045,-0.040562894,0.0,0.0,0.0,0.012333597,0.006815457,-0.18432905,-0.03621456,0.11149632,0.57320946,-0.31622732,-0.09686445,-0.3348576,-0.30703193,0.06638375,-0.08672728,-0.25474495,0.05872102,-0.030313985,0.06690145,0.013601149,0.020750104,0.047184374,-0.045469504,-0.08651385,-0.021389782,0.023175664,-0.044234864,0.042178363,3.0,-0.59469897,-3.0,3.0,3.0,-3.0,-3.0,-2.1253643,-3.0,-3.0,0.32484728,-3.0,3.0,-0.64683837,-3.0,3.0,3.0,-3.0,-3.0,-1.5352474,-3.0,-3.0,-0.0514984,-3.0
2025-06-06 14:10:33.928,0.029874621,0.033959594,0.007778138,-0.08872169,0.06103148,-0.042842172,0.0,0.0,0.0,0.013133965,-0.014943225,-0.1886629,-0.032792803,0.10695594,0.5595857,-0.28998184,-0.110710636,-0.34162772,-0.315133,0.06757042,-0.0984667,-0.25454453,0.02560759,-0.07652077,-0.039724004,-0.0041225124,0.020663628,0.10407589,0.002060647,0.007063194,0.020551134,0.066338964,0.04607927,0.058780704,3.0,-0.64683837,-3.0,3.0,3.0,-3.0,-3.0,-1.5352474,-3.0,-3.0,-0.0514984,-3.0,3.0,-0.55504304,-3.0,3.0,3.0,-3.0,-3.0,-2.1026816,-3.0,-3.0,0.28840303,-3.0
2025-06-06 14:10:33.948,-0.018522287,-0.032548353,-0.018032243,-0.035599977,0.061194845,0.022334408,0.0,0.0,0.0,0.013834395,-0.00840639,-0.19289936,-0.048721537,0.09679396,0.5505184,-0.28493196,-0.0959386,-0.33325043,-0.3245299,0.056525603,-0.09818259,-0.25948796,0.040746704,-0.0075559053,0.028471656,0.014884448,-0.031262893,0.060662348,-0.013378786,-0.0012943125,0.007663809,-0.028281055,-0.06408033,0.043408975,3.0,-0.55504304,-3.0,3.0,3.0,-3.0,-3.0,-2.1026816,-3.0,-3.0,0.28840303,-3.0,3.0,-0.7761344,-3.0,3.0,3.0,-3.0,-3.0,-1.7026831,-3.0,-3.0,0.035093263,-3.0
2025-06-06 14:10:33.970,-0.021767635,0.06416966,-0.025544416,-0.10849215,-0.0067852093,0.03563991,0.0,0.0,0.0,0.014637042,-0.015687468,-0.21127005,-0.05274961,0.100876175,0.5519958,-0.2791341,-0.10083099,-0.33341217,-0.31237406,0.050475463,-0.10020226,-0.26133746,-0.029784748,-0.04145463,0.046216644,0.03371385,0.022271177,0.03945072,-0.035897937,0.070661314,0.029132847,0.042806327,-0.03628392,-0.06340225,3.0,-0.7761344,-3.0,3.0,3.0,-3.0,-3.0,-1.7026831,-3.0,-3.0,0.035093263,-3.0,3.0,-0.54217094,-3.0,3.0,3.0,-3.0,-3.0,-1.6751765,-3.0,-3.0,0.18678655,-3.0
2025-06-06 14:10:33.988,0.0102734035,0.04362954,-0.037979666,-0.11098632,-0.026983464,0.0046791355,0.0,0.0,0.0,0.015392614,-0.018512158,-0.22698691,-0.050320428,0.10768302,0.5623533,-0.285716,-0.1114022,-0.31841958,-0.32348275,0.054782793,-0.10917485,-0.2741904,-0.043973166,0.046102613,-0.026896646,-0.029678946,0.048734426,0.061396442,0.0017073096,-0.00387998,0.036582798,0.012856185,-0.06360868,-0.059569348,3.0,-0.54217094,-3.0,3.0,3.0,-3.0,-3.0,-1.6751765,-3.0,-3.0,0.18678655,-3.0,3.0,-0.7262581,-3.0,3.0,3.0,-3.0,-3.0,-1.5466499,-3.0,-3.0,0.06805007,-3.0
2025-06-06 14:10:34.008,-0.035628844,-0.018701514,-0.012421461,-0.073510975,0.06455051,0.011598404,0.0,0.0,0.0,0.016061326,-0.014703089,-0.2321675,-0.062156055,0.10646901,0.54191464,-0.27838534,-0.096402094,-0.31279972,-0.31395084,0.055269122,-0.11360836,-0.2755911,0.061109576,-0.013764613,-0.027267212,0.04368787,-0.07318821,-0.03484943,-0.0050537693,0.044947952,-0.07464851,0.034811333,0.03682384,0.020168617,3.0,-0.7262581,-3.0,3.0,3.0,-3.0,-3.0,-1.5466499,-3.0,-3.0,0.06805007,-3.0,3.0,-0.61093146,-3.0,3.0,3.0,-3.0,-3.0,-1.6371608,-3.0,-3.0,0.12690766,-3.0
2025-06-06 14:10:34.028,-4.035719e-05,-0.0096767945,0.026932716,-0.08774601,-0.008555046,-0.02787863,0.0,0.0,0.0,0.01659667,-0.026029319,-0.23006892,-0.06939071,0.11820676,0.5610629,-0.26993883,-0.100919686,-0.30612814,-0.32117313,0.05639318,-0.119238906,-0.28398207,0.006523253,0.0198977,-0.08306197,0.0032212047,0.05943094,0.00070730876,-0.019298622,-0.03953946,0.017008351,0.047789942,-0.033499055,0.00062643987,3.0,-0.61093146,-3.0,3.0,3.0,-3.0,-3.0,-1.6371608,-3.0,-3.0,0.12690766,-3.0,3.0,-0.69906145,-3.0,3.0,3.0,-3.0,-3.0,-1.8970513,-3.0,-3.0,0.17148466,-3.0
2025-06-06 14:10:34.048,0.0496908,-0.02520806,-0.02710994,-0.020591926,-0.0042773373,-0.03127053,0.0,0.0,0.0,0.017058829,-0.030671144,-0.23568526,-0.076826036,0.11164507,0.5586225,-0.26662585,-0.10490424,-0.3111367,-0.32400832,0.06498715,-0.12512983,-0.2885374,0.04852188,-0.03706066,0.019066574,-0.05079788,0.06819676,0.07531981,-0.011046758,0.020945223,-0.06907109,-0.03591386,-0.035047706,-0.08005156,3.0,-0.69906145,-3.0,3.0,3.0,-3.0,-3.0,-1.8970513,-3.0,-3.0,0.17148466,-3.0,3.0,-0.6668877,-3.0,3.0,3.0,-3.0,-3.0,-1.4949998,-3.0,-3.0,0.13223173,-3.0
2025-06-06 14:10:34.070,0.049457803,0.008846395,-0.04719958,-0.034452494,0.059903797,0.02038339,0.0,0.0,0.0,0.017564036,-0.03148875,-0.22945404,-0.09335426,0.119547,0.5533158,-0.26317877,-0.098857865,-0.31159234,-0.3283343,0.052249506,-0.12386556,-0.29306552,0.022710094,0.06257812,-0.049495477,0.0509246,0.05088485,-0.036595725,-0.0036369876,0.007097445,0.043241147,-0.05943222,-0.030728916,0.05724217,3.0,-0.6668877,-3.0,3.0,3.0,-3.0,-3.0,-1.4949998,-3.0,-3.0,0.13223173,-3.0,3.0,-0.6331559,-3.0,3.0,3.0,-3.0,-3.0,-1.3718579,-3.0,-3.0,-0.0168152,-3.0
2025-06-06 14:10:34.088,0.015224225,0.06333407,-0.02527553,-0.057306048,-0.02000588,-0.027366722,0.0,0.0,0.0,0.017922513,-0.03403178,-0.2371856,-0.0990908,0.11886647,0.5421683,-0.2736684,-0.103936695,-0.28889063,-0.31995112,0.061911162,-0.12730388,-0.28501377,0.030460369,-0.001432715,0.015476634,0.016087018,-0.0700094,-0.010302948,-0.03030538,0.011001506,0.03183102,0.044940896,-0.044345908,0.013222978,3.0,-0.6331559,-3.0,3.0,3.0,-3.0,-3.0,-1.3718579,-3.0,-3.0,-0.0168152,-3.0,3.0,-0.5537272,-3.0,3.0,3.0,-3.0,-3.0,-1.4429767,-3.0,-3.0,0.079949245,-3.0
2025-06-06 14:10:34.109,0.07677486,0.010937703,-0.004871217,-0.018399827,0.028165378,0.0084993625,0.0,0.0,0.0,0.017995762,-0.038413435,-0.2417051,-0.09604631,0.119873144,0.55146277,-0.25727415,-0.11248729,-0.28406304,-0.3186387,0.055295326,-0.13456619,-0.28494957,-0.036809247,-0.056809332,0.045792844,-0.017306482,-0.060913164,-0.046618175,0.05742809,-0.029742379,-0.04994128,0.030133015,0.0033222877,-0.07048857,3.0,-0.5537272,-3.0,3.0,3.0,-3.0,-3.0,-1.4429767,-3.0,-3.0,0.079949245,-3.0,3.0,-0.64834243,-3.0,3.0,3.0,-3.0,-3.0,-1.5876555,-3.0,-3.0,0.13249455,-3.0
2025-06-06 14:10:34.128,-0.0042562215,-0.0014167874,-0.019523833,-0.033296,-0.01780605,0.041621257,0.0,0.0,0.0,0.017906483,-0.030766238,-0.22566068,-0.090914115,0.11808971,0.54018515,-0.25428528,-0.09991751,-0.27515644,-0.3210615,0.047253106,-0.124633476,-0.2878922,0.0033447994,-0.023341384,0.03136871,0.026667273,-0.043472234,-0.028129777,-0.021710066,0.06085391,0.026279403,-0.011072579,-0.027526235,-0.010968733,3.0,-0.64834243,-3.0,3.0,3.0,-3.0,-3.0,-1.5876555,-3.0,-3.0,0.13249455,-3.0,3.0,-0.6327649,-3.0,3.0,3.0,-3.0,-3.0,-1.4388407,-3.0,-3.0,0.033279344,-3.0
2025-06-06 14:10:34.149,0.024741147,0.024419347,-0.0049850442,-0.02235332,0.070615746,0.026909309,0.0,0.0,0.0,0.017816715,-0.043013398,-0.22471392,-0.09781024,0.10671814,0.54512274,-0.25668994,-0.10522539,-0.27350187,-0.31561312,0.04926168,-0.11959935,-0.30485228,-0.013220344,0.008052621,-0.056467354,-0.07041005,0.0008826591,0.07291528,0.053804826,0.042136785,0.049322974,-0.018816391,-0.013658378,0.05771277,3.0,-0.6327649,-3.0,3.0,3.0,-3.0,-3.0,-1.4388407,-3.0,-3.0,0.033279344,-3.0,3.0,-0.5876016,-3.0,3.0,3.0,-3.0,-3.0,-1.6301887,-3.0,-3.0,0.08675183,-3.0
2025-06-06 14:10:34.170,0.06135567,0.037086457,-0.030334752,-0.041579634,0.066534914,0.0222638,0.0,0.0,0.0,0.017632889,-0.048462097,-0.23663692,-0.11338232,0.11459692,0.5332861,-0.25802094,-0.09899649,-0.278456,-0.3252292,0.04350142,-0.13476172,-0.29070875,-0.051328924,0.022565752,-0.02661414,-0.028567081,0.06733417,0.028760113,-0.0050550518,0.062237747,0.046611473,-0.009887823,0.05933797,0.030574504,3.0,-0.5876016,-3.0,3.0,3.0,-3.0,-3.0,-1.6301887,-3.0,-3.0,0.08675183,-3.0,3.0,-0.71376705,-3.0,3.0,3.0,-3.0,-3.0,-1.4326667,-3.0,-3.0,-0.04524173,-3.0
2025-06-06 14:10:34.189,-0.015674492,-0.03136459,0.008972641,-0.06095436,0.056064077,0.0054486333,0.0,0.0,0.0,0.017399423,-0.04351574,-0.22865333,-0.09667929,0.10517051,0.5358207,-0.24973476,-0.10547815,-0.26441395,-0.32739726,0.047128595,-0.12928542,-0.298841,0.06090349,0.017312638,0.03747966,-0.052422117,0.042452715,-0.053153764,0.068089366,-0.0641478,0.06704826,0.012591004,0.05564321,0.010343307,3.0,-0.71376705,-3.0,3.0,3.0,-3.0,-3.0,-1.4326667,-3.0,-3.0,-0.04524173,-3.0,3.0,-0.5769461,-3.0,3.0,3.0,-3.0,-3.0,-1.8518833,-3.0,-3.0,0.13187285,-3.0
2025-06-06 14:10:34.209,-0.027261365,0.030817812,-0.012594366,-0.02113797,0.003841639,-0.048899774,0.0,0.0,0.0,0.017038349,-0.04503252,-0.21393706,-0.10990462,0.11520447,0.5318768,-0.25220397,-0.10162214,-0.27568343,-0.31812942,0.051666394,-0.124920785,-0.28910962,0.055547927,0.07456532,0.018028662,-0.018411249,0.04083173,0.040459406,-0.069777615,-0.09620017,-0.024320899,-0.04623811,-0.038227174,-0.035634898,3.0,-0.5769461,-3.0,3.0,3.0,-3.0,-3.0,-1.8518833,-3.0,-3.0,0.13187285,-3.0,3.0,-0.7865736,-3.0,3.0,3.0,-3.0,-3.0,-1.4870046,-3.0,-3.0,-0.013003036,-3.0
2025-06-06 14:10:34.229,0.060560435,-0.01022337,0.030888526,-0.041368794,0.012739856,-0.038757958,0.0,0.0,0.0,0.016752947,-0.033373848,-0.21457079,-0.11104986,0.11452202,0.5494395,-0.25956985,-0.10504462,-0.28068364,-0.3196057,0.04135462,-0.13791752,-0.29834569,0.045487117,-0.014250458,0.058104366,-0.046989832,0.0045366227,0.06706616,0.045553897,-0.0035561968,0.030361349,0.028602222,-0.0688471,0.0040449053,3.0,-0.7865736,-3.0,3.0,3.0,-3.0,-3.0,-1.4870046,-3.0,-3.0,-0.013003036,-3.0,3.0,-0.49933976,-3.0,3.0,3.0,-3.0,-3.0,-1.7697707,-3.0,-3.0,0.19203539,-3.0
2025-06-06 14:10:34.249,0.05775137,0.032644037,0.031143958,-0.06938029,0.07196391,0.024983188,0.0,0.0,0.0,0.016409246,-0.03984079,-0.21613835,-0.103115395,0.11709031,0.53813577,-0.2572221,-0.100543514,-0.2909775,-0.3265595,0.04225761,-0.13853729,-0.28054336,0.06012325,-0.013802143,-0.007921075,-0.004666331,0.02579664,-0.0068064155,0.06536553,-0.03044617,0.025800336,-0.040417094,-0.04936553,-0.05141039,3.0,-0.49933976,-3.0,3.0,3.0,-3.0,-3.0,-1.7697707,-3.0,-3.0,0.19203539,-3.0,3.0,-0.7435769,-3.0,3.0,3.0,-3.0,-3.0,-1.8218701,-3.0,-3.0,0.15315808,-3.0
2025-06-06 14:10:34.270,0.033728343,-0.020162795,-0.0047077285,-0.0062541715,-0.011443902,0.04738956,0.0,0.0,0.0,0.01613079,-0.0333179,-0.21607977,-0.09278655,0.11948193,0.5495713,-0.25730658,-0.10589225,-0.310088,-0.31566146,0.045442637,-0.12507835,-0.2884515,-0.024219265,-0.04615057,-0.033171576,0.017013919,-0.03537929,0.02870846,-0.043416154,0.036769327,-0.014204656,-0.015112633,0.057159625,-0.058160845,3.0,-0.7435769,-3.0,3.0,3.0,-3.0,-3.0,-1.8218701,-3.0,-3.0,0.15315808,-3.0,3.0,-0.6836324,-3.0,3.0,3.0,-3.0,-3.0,-1.7071166,-3.0,-3.0,0.1289507,-3.0
2025-06-06 14:10:34.289,0.039390724,0.046288766,0.022396209,-0.029613193,0.06226112,-0.032250453,0.0,0.0,0.0,0.015954135,-0.03753314,-0.21611212,-0.09009147,0.11910537,0.5466065,-0.25458935,-0.10546324,-0.31440705,-0.32351118,0.031409454,-0.13119121,-0.27612564,0.0066175335,-0.027865171,-0.06424718,0.00844371,-0.023878291,-0.012206894,-0.01510557,0.04065798,0.043619312,0.012358201,0.01845372,-0.046233837,3.0,-0.6836324,-3.0,3.0,3.0,-3.0,-3.0,-1.7071166,-3.0,-3.0,0.1289507,-3.0,3.0,-0.6498289,-3.0,3.0,3.0,-3.0,-3.0,-1.7858684,-3.0,-3.0,0.1635506,-3.0
2025-06-06 14:10:34.309,-0.025835378,-0.024674045,-0.031485457,-0.07848802,0.038815107,-0.023166094,0.0,0.0,0.0,0.01579436,-0.04050359,-0.20291325,-0.0942375,0.111766756,0.552813,-0.24811131,-0.096577674,-0.30796024,-0.31234735,0.036874957,-0.1202053,-0.27899113,-0.04165975,0.0662535,0.059092063,0.011404321,0.015255657,0.056484804,-0.062290754,-0.06332783,-0.020474581,0.045498848,0.024101384,-0.055993058,3.0,-0.6498289,-3.0,3.0,3.0,-3.0,-3.0,-1.7858684,-3.0,-3.0,0.1635506,-3.0,3.0,-0.7966101,-3.0,3.0,3.0,-3.0,-3.0,-1.5496641,-3.0,-3.0,-0.010620818,-3.0
2025-06-06 14:10:34.329,0.042941697,0.039315246,-0.024857143,-0.048150595,0.027868588,0.04510564,0.0,0.0,0.0,0.015675142,-0.03139599,-0.20587748,-0.09085164,0.11230655,0.55127186,-0.25798672,-0.11311457,-0.31917515,-0.31265235,0.030949907,-0.12172126,-0.27977836,-0.06202595,-0.016096253,0.059205625,0.009128317,0.0677705,0.04424856,-0.027275763,-0.029198475,0.060547985,-0.04562992,0.03822762,0.07101946,3.0,-0.7966101,-3.0,3.0,3.0,-3.0,-3.0,-1.5496641,-3.0,-3.0,-0.010620818,-3.0,3.0,-0.57428473,-3.0,3.0,3.0,-3.0,-3.0,-1.6487811,-3.0,-3.0,0.025556937,-3.0
2025-06-06 14:10:34.349,0.0030480023,-0.053078692,0.05438869,-0.05113232,0.080736935,-0.040783305,0.0,0.0,0.0,0.01550162,-0.035375386,-0.19781502,-0.10183099,0.12570198,0.55591583,-0.26222143,-0.10180061,-0.29879904,-0.3239934,0.04023045,-0.11386135,-0.26759008,0.075400434,-0.04042282,-0.008090694,-0.012868844,-0.06068754,0.0016923955,-0.062787585,-0.03584054,-0.055015154,0.009695796,-0.020993885,0.0008629081,3.0,-0.57428473,-3.0,3.0,3.0,-3.0,-3.0,-1.6487811,-3.0,-3.0,0.025556937,-3.0,3.0,-0.6435111,-3.0,3.0,3.0,-3.0,-3.0,-1.9928285,-3.0,-3.0,0.2406229,-3.0
2025-06-06 14:10:34.370,0.028705405,-0.014847904,0.008317356,-0.01055948,-0.0016662752,0.011438871,0.0,0.0,0.0,0.015323414,-0.048814617,-0.19402896,-0.09895552,0.1124175,0.5611752,-0.25815782,-0.10564069,-0.3064594,-0.3137598,0.031645928,-0.13048887,-0.25929144,0.03474602,-0.046279542,0.031509954,0.052565604,-0.06116981,-0.030168,-0.060503334,-0.027982753,0.02964063,-0.03381583,0.055327695,-0.02271567,3.0,-0.6435111,-3.0,3.0,3.0,-3.0,-3.0,-1.9928285,-3.0,-3.0,0.2406229,-3.0,3.0,-0.78160745,-3.0,3.0,3.0,-3.0,-3.0,-1.830218,-3.0,-3.0,0.06487806,-3.0
2025-06-06 14:10:34.389,-0.014781561,-0.0069533037,0.025600797,-0.07551988,0.07016874,-0.017518887,0.0,0.0,0.0,0.015370329,-0.04770798,-0.19023852,-0.08364819,0.12213031,0.562804,-0.2696054,-0.10361554,-0.32904696,-0.3266894,0.03685494,-0.11693399,-0.26309466,-0.057816636,-0.023395373,0.023558619,0.005226931,-0.04003134,-0.032452084,-0.06257368,0.04008193,-0.025102321,-0.012630923,0.0027094271,0.014070549,3.0,-0.78160745,-3.0,3.0,3.0,-3.0,-3.0,-1.830218,-3.0,-3.0,0.06487806,-3.0,3.0,-0.6707858,-3.0,3.0,3.0,-3.0,-3.0,-1.8066208,-3.0,-3.0,0.10455848,-3.0
2025-06-06 14:10:34.409,0.0014768734,0.03297009,-0.036156483,-0.02961906,0.03822319,0.020689748,0.0,0.0,0.0,0.015496814,-0.036636483,-0.19066678,-0.09073505,0.12055283,0.5797469,-0.25327975,-0.09246183,-0.32164466,-0.3136203,0.042621102,-0.11655858,-0.25460202,0.044622157,-0.046372328,0.07265571,-0.07327947,-0.051960178,-0.04442571,0.05560453,-0.0020952933,0.01706868,-0.015630923,0.07003701,0.0504644,3.0,-0.6707858,-3.0,3.0,3.0,-3.0,-3.0,-1.8066208,-3.0,-3.0,0.10455848,-3.0,3.0,-0.66597646,-3.0,3.0,3.0,-3.0,-3.0,-1.6394106,-3.0,-3.0,0.011407033,-3.0
2025-06-06 14:10:34.430,-0.027603444,-0.055810742,0.010854133,-0.04849731,0.061949864,-0.04608742,0.0,0.0,0.0,0.015627837,-0.042656075,-0.18633045,-0.09089005,0.110737495,0.57632434,-0.26548427,-0.09993926,-0.32233614,-0.31078136,0.033085864,-0.11600193,-0.26389214,-0.041057654,0.024179738,-0.05965554,-0.030866869,0.06884478,0.018679898,0.056542814,0.07939204,-0.07265785,0.026028115,-0.04518512,0.054189704,3.0,-0.66597646,-3.0,3.0,3.0,-3.0,-3.0,-1.6394106,-3.0,-3.0,0.011407033,-3.0,3.0,-0.6465085,-3.0,3.0,3.0,-3.0,-3.0,-1.681056,-3.0,-3.0,0.111695126,-3.0
2025-06-06 14:10:34.452,0.01511054,-0.007538298,-0.03767886,-0.07743491,0.013747114,0.033994224,0.0,0.0,0.0,0.01568814,-0.03564634,-0.20342945,-0.08828126,0.123989545,0.5848681,-0.2728259,-0.104164496,-0.3125785,-0.3130462,0.04216251,-0.12422927,-0.25966597,-0.037026744,0.015371728,-0.070095904,0.008422211,-0.0017737392,0.037543837,-0.004423206,0.025088878,0.062836446,0.0525107,-0.035615675,0.06749948,3.0,-0.6465085,-3.0,3.0,3.0,-3.0,-3.0,-1.681056,-3.0,-3.0,0.111695126,-3.0,3.0,-0.67533153,-3.0,3.0,3.0,-3.0,-3.0,-1.5373355,-3.0,-3.0,0.008023068,-3.0
2025-06-06 14:10:34.470,0.0246153,0.025858503,-0.024194993,-0.016086424,0.05811456,0.026061332,0.0,0.0,0.0,0.015763737,-0.04490294,-0.1910831,-0.079093635,0.12161686,0.57858855,-0.2732583,-0.100183085,-0.31466588,-0.31689027,0.046947382,-0.119620614,-0.25481752,0.03438459,0.05155928,-0.030389443,0.008913719,-0.0477865,0.032766692,0.014770738,0.07078823,-0.03204512,0.048212122,-0.008842794,-0.036747135,3.0,-0.67533153,-3.0,3.0,3.0,-3.0,-3.0,-1.5373355,-3.0,-3.0,0.008023068,-3.0,3.0,-0.5920568,-3.0,3.0,3.0,-3.0,-3.0,-1.5936395,-3.0,-3.0,0.1807382,-3.0
2025-06-06 14:10:34.490,-0.048931386,-0.03354816,0.032137357,-0.043592222,0.012878614,0.032759614,0.0,0.0,0.0,0.015813569,-0.03426122,-0.18529159,-0.082695246,0.10981665,0.58462745,-0.2706894,-0.097058214,-0.3025944,-0.3288343,0.049312398,-0.11846882,-0.24514878,0.02513428,-0.015436364,-0.046127647,0.015930526,0.000850265,-0.05417836,-0.017585536,0.0015673547,0.048171405,-0.000152417,0.058718413,0.05213234,3.0,-0.5920568,-3.0,3.0,3.0,-3.0,-3.0,-1.5936395,-3.0,-3.0,0.1807382,-3.0,3.0,-0.70165867,-3.0,3.0,3.0,-3.0,-3.0,-2.1172516,-3.0,-3.0,0.16221069,-3.0
2025-06-06 14:10:34.510,0.02098795,-0.034006998,-0.024829926,-0.08489967,0.027903242,0.049692195,0.0,0.0,0.0,0.015926268,-0.04851368,-0.1895336,-0.07422621,0.12034554,0.5846654,-0.27892822,-0.09045284,-0.306593,-0.32682776,0.03857769,-0.12006389,-0.24577616,0.019046323,-0.07260884,0.043724187,0.0009179876,0.07839963,0.023778332,-0.04773092,-0.025107056,-0.041617732,-0.008983867,-0.050469458,-0.04390199,3.0,-0.70165867,-3.0,3.0,3.0,-3.0,-3.0,-2.1172516,-3.0,-3.0,0.16221069,-3.0,3.0,-0.6900222,-3.0,3.0,3.0,-3.0,-3.0,-1.6446368,-3.0,-3.0,0.0953861,-3.0
2025-06-06 14:10:34.530,0.0067278175,0.030020764,-0.029135302,-0.07886891,-0.020989405,0.0010538273,0.0,0.0,0.0,0.016250525,-0.03359087,-0.20085697,-0.081405036,0.12191733,0.5829074,-0.27079353,-0.103352435,-0.3118774,-0.32495922,0.052055303,-0.11589909,-0.24930838,0.014181536,-0.049019203,-0.016570158,0.070659354,-0.035052683,0.05077685,0.0049905702,0.031785786,0.023864215,0.016563077,0.06123225,-0.03195486,3.0,-0.6900222,-3.0,3.0,3.0,-3.0,-3.0,-1.6446368,-3.0,-3.0,0.0953861,-3.0,3.0,-0.6544151,-3.0,3.0,3.0,-3.0,-3.0,-1.7293248,-3.0,-3.0,0.1368001,-3.0
2025-06-06 14:10:34.552,0.044494435,-0.019514093,-0.041873246,-0.091757014,0.047272254,-0.04542028,0.0,0.0,0.0,0.016511736,-0.03419107,-0.19110759,-0.069727525,0.12325414,0.5959344,-0.26008567,-0.10559397,-0.31384572,-0.32111102,0.038052857,-0.12452589,-0.24701265,-0.023773782,-0.0052333763,0.012771787,0.021634324,-0.02648439,0.0496347,-0.05437608,-0.056524236,0.05200442,-0.06706676,-0.06624845,-0.03590864,3.0,-0.6544151,-3.0,3.0,3.0,-3.0,-3.0,-1.7293248,-3.0,-3.0,0.1368001,-3.0,3.0,-0.66513044,-3.0,3.0,3.0,-3.0,-3.0,-1.5380576,-3.0,-3.0,0.027744457,-3.0
2025-06-06 14:10:34.570,0.017822469,-0.028054956,-0.034341414,-0.022010272,-0.004644563,0.03514268,0.0,0.0,0.0,0.01670686,-0.042581886,-0.1917938,-0.07806213,0.11410725,0.5950695,-0.2620499,-0.10127961,-0.31637716,-0.32963336,0.037117932,-0.1132551,-0.23886369,0.034214076,0.019221045,-0.064014114,-0.04376256,0.031746246,-0.0445692,0.017155029,-0.0052122865,-0.007885989,0.009133497,-0.05416432,0.05267766,3.0,-0.66513044,-3.0,3.0,3.0,-3.0,-3.0,-1.5380576,-3.0,-3.0,0.027744457,-3.0,3.0,-0.5803614,-3.0,3.0,3.0,-3.0,-3.0,-1.5584594,-3.0,-3.0,0.090127304,-3.0
2025-06-06 14:10:34.590,-0.01048536,0.034908645,-0.035467584,-0.033210088,0.04554929,-0.021499313,0.0,0.0,0.0,0.016781814,-0.03488618,-0.19208494,-0.07059766,0.11429961,0.584426,-0.2717938,-0.11088784,-0.30939606,-0.330272,0.056170925,-0.12360128,-0.24918257,0.049891558,0.007777627,0.00020915999,-0.05286536,-0.036956392,-0.045390017,-0.0005434331,0.079013824,-0.06887241,0.046382714,0.017824529,-0.04417791,3.0,-0.5803614,-3.0,3.0,3.0,-3.0,-3.0,-1.5584594,-3.0,-3.0,0.090127304,-3.0,3.0,-0.6254733,-3.0,3.0,3.0,-3.0,-3.0,-1.4683155,-3.0,-3.0,0.09356518,-3.0
2025-06-06 14:10:34.610,0.049171258,-0.047456607,-0.037510216,-0.009147356,-0.006888632,-0.01239365,0.0,0.0,0.0,0.01678722,-0.039736047,-0.18748237,-0.07386292,0.10999933,0.5996426,-0.27638212,-0.111436136,-0.27920735,-0.31965202,0.052843496,-0.12161959,-0.2541353,0.047800094,-0.040481787,0.07137144,0.03450755,0.0737108,0.05800121,-0.026282672,-0.044766758,-0.019231621,0.07044981,-0.027237976,0.065059625,3.0,-0.6254733,-3.0,3.0,3.0,-3.0,-3.0,-1.4683155,-3.0,-3.0,0.09356518,-3.0,3.0,-0.57579786,-3.0,3.0,3.0,-3.0,-3.0,-1.5857337,-3.0,-3.0,0.09681548,-3.0
2025-06-06 14:10:34.630,-0.03245572,-0.013326694,0.021525333,0.0060107936,0.014557923,0.044123814,0.0,0.0,0.0,0.01675554,-0.04895018,-0.20082529,-0.07608192,0.108353436,0.58891505,-0.2704597,-0.10841971,-0.2913559,-0.31764957,0.050401352,-0.12164309,-0.25345454,-0.07422582,-0.006288994,-0.07663735,-0.0077431677,-0.06265002,-0.04323353,0.061217472,-0.036573287,-0.007875265,-0.029474791,0.062186167,0.024332337,3.0,-0.57579786,-3.0,3.0,3.0,-3.0,-3.0,-1.5857337,-3.0,-3.0,0.09681548,-3.0,3.0,-0.7317871,-3.0,3.0,3.0,-3.0,-3.0,-2.0214665,-3.0,-3.0,0.13287516,-3.0
2025-06-06 14:10:34.654,-0.016937101,0.014500208,-0.060561977,-0.008325634,0.030600902,0.035409976,0.0,0.0,0.0,0.016730683,-0.03581795,-0.19123554,-0.074401975,0.11320263,0.59882367,-0.2806221,-0.090849236,-0.306099,-0.31344938,0.05554239,-0.11740415,-0.23664828,0.046692584,-0.07394369,-0.04953548,-0.044824786,-0.0374383,-0.018284854,-0.034334034,-0.032709844,0.027961047,0.027850129,-0.07763004,-0.06577316,3.0,-0.7317871,-3.0,3.0,3.0,-3.0,-3.0,-2.0214665,-3.0,-3.0,0.13287516,-3.0,3.0,-0.56912,-3.0,3.0,3.0,-3.0,-3.0,-1.5240704,-3.0,-3.0,0.14019276,-3.0
2025-06-06 14:10:34.670,0.051662795,-0.02587569,-0.04584935,-0.081142925,-0.019620365,-0.00033396605,0.0,0.0,0.0,0.016861696,-0.04374522,-0.18800242,-0.073463425,0.12388136,0.5974464,-0.2712325,-0.108981185,-0.29219535,-0.3234384,0.055374786,-0.11879402,-0.24070396,-0.008655675,0.00025682876,0.028226396,0.017325835,0.015901778,-0.015218071,-0.07065908,0.03002637,-0.014002337,-0.051673915,-0.010684746,-0.0013704022,3.0,-0.56912,-3.0,3.0,3.0,-3.0,-3.0,-1.5240704,-3.0,-3.0,0.14019276,-3.0,3.0,-0.6466742,-3.0,3.0,3.0,-3.0,-3.0,-1.4967326,-3.0,-3.0,0.00621669,-3.0
2025-06-06 14:10:34.691,0.030601691,0.01681655,0.005802062,0.0052283495,-0.00716537,0.041841473,0.0,0.0,0.0,0.016911848,-0.04861453,-0.19682737,-0.07649045,0.10735743,0.59681726,-0.2777406,-0.10575649,-0.3019893,-0.32735536,0.03789452,-0.1226961,-0.2570831,0.026628766,0.056615826,-0.067936204,-0.05943214,-0.046313133,0.021282064,-0.051832885,0.04296078,0.04581781,0.046222016,-0.059050716,0.059433527,3.0,-0.6466742,-3.0,3.0,3.0,-3.0,-3.0,-1.4967326,-3.0,-3.0,0.00621669,-3.0,3.0,-0.57039577,-3.0,3.0,3.0,-3.0,-3.0,-1.7277025,-3.0,-3.0,0.15010206,-3.0
2025-06-06 14:10:34.711,0.04580895,-0.005614438,0.00565126,-0.028310996,0.06092485,-0.03373735,0.0,0.0,0.0,0.016796695,-0.033335336,-0.19696182,-0.08551849,0.10776476,0.59675485,-0.2772975,-0.09782108,-0.29081887,-0.30981535,0.05280624,-0.114235714,-0.25301453,0.023496328,-0.05128957,-0.0726814,-0.018345961,-0.033460725,-0.020941332,-0.021368116,0.023553025,-0.0637236,0.051230446,-0.058756836,-0.011222956,3.0,-0.57039577,-3.0,3.0,3.0,-3.0,-3.0,-1.7277025,-3.0,-3.0,0.15010206,-3.0,3.0,-0.6359772,-3.0,3.0,3.0,-3.0,-3.0,-1.6773764,-3.0,-3.0,0.17551072,-3.0
2025-06-06 14:10:34.731,-0.005611085,-0.006187563,0.020525767,-0.06993027,0.02042011,-0.04278101,0.0,0.0,0.0,0.016711688,-0.040053114,-0.18574429,-0.07471363,0.108357,0.58344257,-0.26021895,-0.10419137,-0.29457265,-0.32635045,0.048121247,-0.12629658,-0.25815043,-0.040518716,0.020022575,-0.053543363,-0.06393288,-0.06459459,0.041072,-0.045742832,-0.044563014,-0.020474697,0.010618031,0.039730694,0.007992598,3.0,-0.6359772,-3.0,3.0,3.0,-3.0,-3.0,-1.6773764,-3.0,-3.0,0.17551072,-3.0,3.0,-0.74976903,-3.0,3.0,3.0,-3.0,-3.0,-1.8998779,-3.0,-3.0,0.077515915,-3.0
2025-06-06 14:10:34.753,0.0038658946,-0.00045448792,-0.009190135,-0.055562902,-0.002179696,-0.00064262556,0.0,0.0,0.0,0.016677296,-0.039456863,-0.1862877,-0.086282365,0.12422591,0.58370036,-0.2771233,-0.094307326,-0.31253767,-0.3281405,0.038876887,-0.1124268,-0.2514759,0.0312962,-0.013998199,0.056027215,0.021372,-0.015867604,0.019185333,0.019314893,-0.08158839,0.018138519,-0.06835362,0.06635265,0.063391455,3.0,-0.74976903,-3.0,3.0,3.0,-3.0,-3.0,-1.8998779,-3.0,-3.0,0.077515915,-3.0,3.0,-0.71731174,-3.0,3.0,3.0,-3.0,-3.0,-1.8549322,-3.0,-3.0,0.039276555,-3.0
2025-06-06 14:10:34.771,0.0162149,-0.044793505,0.010034373,-0.048827216,0.028650343,-0.0061548846,0.0,0.0,0.0,0.016694035,-0.037191253,-0.19344933,-0.076130085,0.10989758,0.58666074,-0.26569504,-0.099167906,-0.30880362,-0.31985855,0.04337901,-0.121064045,-0.24404663,-0.021518027,-0.022228261,0.012961265,-0.020469509,0.06057172,-0.06422546,0.024672166,-0.019903803,-0.04934043,0.010670041,-0.06897894,-0.05112157,3.0,-0.71731174,-3.0,3.0,3.0,-3.0,-3.0,-1.8549322,-3.0,-3.0,0.039276555,-3.0,3.0,-0.63839144,-3.0,3.0,3.0,-3.0,-3.0,-1.7531374,-3.0,-3.0,0.17604502,-3.0
2025-06-06 14:10:34.791,0.008135531,0.0071371715,0.0141862,-0.019496776,0.07118272,0.037236772,0.0,0.0,0.0,0.016693858,-0.050432082,-0.20614593,-0.07726952,0.12400921,0.5920735,-0.27471724,-0.11011167,-0.31859115,-0.31397372,0.051757894,-0.12208297,-0.2612936,-0.0053523234,-0.048673663,0.030483194,0.02868028,0.05682156,-0.036175948,0.049629834,0.021259826,0.06466149,0.06543658,-0.024757339,-0.031850882,3.0,-0.63839144,-3.0,3.0,3.0,-3.0,-3.0,-1.7531374,-3.0,-3.0,0.17604502,-3.0,3.0,-0.6665812,-3.0,3.0,3.0,-3.0,-3.0,-1.9218328,-3.0,-3.0,0.23394598,-3.0
2025-06-06 14:10:34.811,0.025848832,0.062553085,-0.049360696,0.00084798445,0.027221702,-0.02992344,0.0,0.0,0.0,0.016682705,-0.03321524,-0.20776077,-0.08505597,0.11149395,0.5741698,-0.26851544,-0.107103124,-0.32655331,-0.3287107,0.053558685,-0.112262554,-0.26611483,0.020508552,0.04334753,0.008853492,-0.0035602064,0.043968424,-0.055104345,-0.035985317,-0.025892317,0.011190973,0.00026746132,0.07989952,0.03180847,3.0,-0.6665812,-3.0,3.0,3.0,-3.0,-3.0,-1.9218328,-3.0,-3.0,0.23394598,-3.0,3.0,-0.7633944,-3.0,3.0,3.0,-3.0,-3.0,-1.5051666,-3.0,-3.0,-0.064111635,-3.0
2025-06-06 14:10:34.831,0.0020076714,-0.017472489,-0.023376212,-0.081502706,0.07506979,0.04136223,0.0,0.0,0.0,0.016751569,-0.041657124,-0.20499073,-0.07933292,0.118690275,0.5808894,-0.26811358,-0.09573465,-0.32614437,-0.32040477,0.04295244,-0.11992071,-0.2630146,-0.015438786,-0.026538296,-0.024402304,0.053790167,-0.056131195,0.071847215,-0.0052517224,-0.03749653,-0.07285778,0.03593601,-0.048074584,0.073893435,3.0,-0.7633944,-3.0,3.0,3.0,-3.0,-3.0,-1.5051666,-3.0,-3.0,-0.064111635,-3.0,3.0,-0.57274157,-3.0,3.0,3.0,-3.0,-3.0,-1.6179782,-3.0,-3.0,0.10677491,-3.0
2025-06-06 14:10:34.854,0.015843853,0.019214885,0.006104831,-0.0026159799,0.02333606,0.0039408808,0.0,0.0,0.0,0.016653912,-0.028796956,-0.20163907,-0.081393115,0.11956547,0.5794675,-0.2634484,-0.11096585,-0.31630102,-0.32522154,0.037095025,-0.12249608,-0.2529376,-0.067311876,0.07287258,0.024153393,-0.049557526,0.010955052,0.012369492,-0.073461264,0.0025094196,-0.022746626,-0.017788047,-0.029263018,-0.050566643,3.0,-0.57274157,-3.0,3.0,3.0,-3.0,-3.0,-1.6179782,-3.0,-3.0,0.10677491,-3.0,3.0,-0.71654445,-3.0,3.0,3.0,-3.0,-3.0,-1.6382293,-3.0,-3.0,0.08419664,-3.0
2025-06-06 14:10:34.871,-0.05449987,0.0071791005,0.022587888,-0.063402794,0.027611336,-0.01742616,0.0,0.0,0.0,0.016504789,-0.037816457,-0.19780204,-0.08644919,0.11063621,0.58266795,-0.2614731,-0.106444016,-0.30644062,-0.3212503,0.039918132,-0.11221387,-0.25843713,-0.02712037,-0.03754967,0.038846906,-0.060461145,-0.0048093298,0.04145591,0.03848082,0.020821316,-0.03330941,0.025044572,-0.0698392,-0.009951239,3.0,-0.71654445,-3.0,3.0,3.0,-3.0,-3.0,-1.6382293,-3.0,-3.0,0.08419664,-3.0,3.0,-0.61571807,-3.0,3.0,3.0,-3.0,-3.0,-1.790464,-3.0,-3.0,0.16804238,-3.0
2025-06-06 14:10:34.891,0.022750715,0.02810827,-0.03305923,-0.094313,-0.008911693,0.034352787,0.0,0.0,0.0,0.016410757,-0.041684855,-0.19773799,-0.07511797,0.11071755,0.57735693,-0.25434303,-0.09664504,-0.31055006,-0.30907318,0.035375144,-0.11730143,-0.26045474,-0.032642104,-0.0070184125,-0.038441833,0.06559926,-0.05103721,-0.005128148,0.07633314,-0.06513866,-0.0068001677,0.060645916,-0.05193729,0.04901109,3.0,-0.61571807,-3.0,3.0,3.0,-3.0,-3.0,-1.790464,-3.0,-3.0,0.16804238,-3.0,3.0,-0.751626,-3.0,3.0,3.0,-3.0,-3.0,-1.5612133,-3.0,-3.0,-0.021972284,-3.0
2025-06-06 14:10:34.911,0.026756423,0.009028561,-0.0414225,-0.07963457,0.043965973,-0.045562755,0.0,0.0,0.0,0.016431166,-0.042752095,-0.19750656,-0.082174465,0.12748657,0.583571,-0.2561593,-0.1089451,-0.30981448,-0.31502464,0.054715514,-0.13097866,-0.2587826,0.059326272,0.06931948,0.052962128,0.06808551,-0.06705318,-0.029780872,-0.025673207,0.06532888,0.04918585,-0.011797993,0.012505298,0.032344364,3.0,-0.751626,-3.0,3.0,3.0,-3.0,-3.0,-1.5612133,-3.0,-3.0,-0.021972284,-3.0,3.0,-0.5839049,-3.0,3.0,3.0,-3.0,-3.0,-1.4677681,-3.0,-3.0,0.0076681525,-3.0
2025-06-06 14:10:34.931,-0.034741547,0.036328916,-0.01103284,-0.01354739,-0.0001337165,0.025788825,0.0,0.0,0.0,0.016397597,-0.03940889,-0.20883343,-0.082763396,0.11226313,0.56459206,-0.2597422,-0.11246762,-0.30219194,-0.3200727,0.03766039,-0.11578264,-0.2682296,-0.067384645,0.035830256,-0.037858956,0.058391638,0.05482341,-0.056053076,0.073829785,0.08710285,0.01241198,0.028298011,-0.076118246,0.026893212,3.0,-0.5839049,-3.0,3.0,3.0,-3.0,-3.0,-1.4677681,-3.0,-3.0,0.0076681525,-3.0,3.0,-0.630904,-3.0,3.0,3.0,-3.0,-3.0,-1.4843699,-3.0,-3.0,0.0672404,-3.0
2025-06-06 14:10:34.953,-0.052631613,-0.044434268,0.005456715,-0.072431944,0.03402265,0.023791831,0.0,0.0,0.0,0.016274389,-0.02878143,-0.19715895,-0.083629556,0.113419406,0.5676754,-0.25853828,-0.09271386,-0.27408278,-0.3143338,0.041224938,-0.12805435,-0.26248637,0.013182344,0.04524924,0.02047065,-0.050506867,-0.049428627,0.017863348,-0.003947322,0.049992073,-0.0038952897,-0.01598095,-0.01083412,-0.06978088,3.0,-0.630904,-3.0,3.0,3.0,-3.0,-3.0,-1.4843699,-3.0,-3.0,0.0672404,-3.0,3.0,-0.6503425,-3.0,3.0,3.0,-3.0,-3.0,-1.6938983,-3.0,-3.0,0.1473055,-3.0
2025-06-06 14:10:34.971,-0.05206201,0.012805327,0.02310424,-0.004827477,0.013469771,0.041402414,0.0,0.0,0.0,0.0161616,-0.03206681,-0.19572222,-0.09366395,0.12379219,0.5769031,-0.27590722,-0.105912864,-0.28364128,-0.31426156,0.05133053,-0.12817606,-0.25817993,-0.025438635,-0.056517567,0.007099611,-0.034215488,0.03077946,-0.015516225,-0.014955828,-0.07904646,-0.057890013,-0.006468028,-0.04035555,0.001959681,3.0,-0.6503425,-3.0,3.0,3.0,-3.0,-3.0,-1.6938983,-3.0,-3.0,0.1473055,-3.0,3.0,-0.67576534,-3.0,3.0,3.0,-3.0,-3.0,-1.8329402,-3.0,-3.0,0.1356722,-3.0
2025-06-06 14:10:34.992,0.0009035183,0.032219328,-0.04626406,-0.0011266577,-0.019970289,0.019009056,0.0,0.0,0.0,0.01619004,-0.0400969,-0.19620736,-0.07811373,0.10727671,0.5730132,-0.2669597,-0.10155044,-0.285771,-0.32687277,0.046530034,-0.13133824,-0.2533141,0.036303226,0.005105925,-0.02186095,-0.064114556,0.045100834,-0.02056121,0.01922132,-0.06301722,0.07451848,-0.049956813,-0.036854986,0.008683289,3.0,-0.67576534,-3.0,3.0,3.0,-3.0,-3.0,-1.8329402,-3.0,-3.0,0.1356722,-3.0,3.0,-0.6641177,-3.0,3.0,3.0,-3.0,-3.0,-1.5235339,-3.0,-3.0,0.0115443915,-3.0
2025-06-06 14:10:35.011,-0.042293984,-0.046840936,0.01281297,-0.04076844,0.0005105795,0.034879465,0.0,0.0,0.0,0.016343733,-0.045530815,-0.21141723,-0.08334709,0.108277,0.57012147,-0.27334887,-0.094804674,-0.29860982,-0.32433835,0.04823934,-0.13137439,-0.26436263,-0.0071292785,0.023964709,0.07287615,-0.06200885,0.06038118,-0.04128356,0.046973065,0.049281623,-0.039225947,0.03576095,-0.07194664,0.0032412135,3.0,-0.6641177,-3.0,3.0,3.0,-3.0,-3.0,-1.5235339,-3.0,-3.0,0.0115443915,-3.0,3.0,-0.61968416,-3.0,3.0,3.0,-3.0,-3.0,-1.6946597,-3.0,-3.0,0.15155198,-3.0
2025-06-06 14:10:35.032,0.04722175,-0.026485212,-0.007974309,-0.04930098,0.030327825,-0.015753007,0.0,0.0,0.0,0.016392916,-0.035569727,-0.19809291,-0.09527897,0.11890014,0.5773352,-0.2696763,-0.11029616,-0.29307505,-0.31642297,0.04853605,-0.12242015,-0.27138898,0.005908957,0.016787993,0.073239036,-0.056106735,-0.04641184,-0.061704792,-0.012180467,0.02170967,0.03986709,-0.050058067,0.007935364,-0.073937416,3.0,-0.61968416,-3.0,3.0,3.0,-3.0,-3.0,-1.6946597,-3.0,-3.0,0.15155198,-3.0,3.0,-0.67467207,-3.0,3.0,3.0,-3.0,-3.0,-1.642363,-3.0,-3.0,0.10299809,-3.0
2025-06-06 14:10:35.053,0.006683616,0.035411905,0.002060541,-0.028388552,-0.012798675,0.04951521,0.0,0.0,0.0,0.016443983,-0.043965045,-0.21074766,-0.07915779,0.12324622,0.5751386,-0.258381,-0.10437416,-0.30561358,-0.31569555,0.039329913,-0.11521494,-0.26707584,-0.06366588,-0.010321193,-0.018869417,0.027363751,-0.010289402,0.008069787,-0.05224702,-0.033386942,0.061380815,-0.03543878,-0.052542794,-0.044921953,3.0,-0.67467207,-3.0,3.0,3.0,-3.0,-3.0,-1.642363,-3.0,-3.0,0.10299809,-3.0,3.0,-0.6558474,-3.0,3.0,3.0,-3.0,-3.0,-1.7628008,-3.0,-3.0,0.14972608,-3.0
2025-06-06 14:10:35.072,-0.04375054,0.013625272,0.024827989,-0.04255844,0.05120559,-0.0064052544,0.0,0.0,0.0,0.016504139,-0.040716805,-0.20236897,-0.08498446,0.124223165,0.57562125,-0.25804797,-0.10216635,-0.29321232,-0.31932935,0.04475809,-0.122393444,-0.27407488,-0.0038162305,0.07454756,-0.009415762,-0.022122892,0.0024874997,0.059809428,0.03499184,-0.05762732,0.046703488,0.009514067,-0.05802029,-0.04853222,3.0,-0.6558474,-3.0,3.0,3.0,-3.0,-3.0,-1.7628008,-3.0,-3.0,0.14972608,-3.0,3.0,-0.7352186,-3.0,3.0,3.0,-3.0,-3.0,-1.8669924,-3.0,-3.0,0.15440716,-3.0
2025-06-06 14:10:35.092,-0.020751907,0.006601179,-0.004791638,-0.08102144,0.07759935,0.031141376,0.0,0.0,0.0,0.01660193,-0.044148825,-0.20108809,-0.08692783,0.11962155,0.5661859,-0.25641868,-0.093352124,-0.3041666,-0.32475585,0.03966077,-0.1244006,-0.26907384,-0.053375646,0.002259842,-0.0022953157,-0.002855476,0.032737844,0.046106264,-0.058005586,-0.053227175,0.023593651,0.0033712573,0.0019012403,-0.019238692,3.0,-0.7352186,-3.0,3.0,3.0,-3.0,-3.0,-1.8669924,-3.0,-3.0,0.15440716,-3.0,3.0,-0.7341851,-3.0,3.0,3.0,-3.0,-3.0,-1.7391199,-3.0,-3.0,0.061847284,-3.0
2025-06-06 14:10:35.112,-0.004716696,-0.0034934592,-0.012479161,-0.00057486875,0.062260892,0.044213716,0.0,0.0,0.0,0.016763957,-0.04215146,-0.19952902,-0.08600431,0.111683086,0.580112,-0.26642254,-0.099115275,-0.31691664,-0.31595057,0.05672083,-0.12751667,-0.25998455,0.0028397292,0.030169236,-0.069708146,0.061074015,-0.016453879,0.006275766,-0.07283841,0.059863016,-0.072786495,0.023349771,0.0065450026,0.030437296,3.0,-0.7341851,-3.0,3.0,3.0,-3.0,-3.0,-1.7391199,-3.0,-3.0,0.061847284,-3.0,3.0,-0.6618354,-3.0,3.0,3.0,-3.0,-3.0,-1.6044247,-3.0,-3.0,0.08866657,-3.0
2025-06-06 14:10:35.132,-0.010051938,-0.013783683,0.009278303,-0.00592474,0.07382745,0.024427684,0.0,0.0,0.0,0.016877739,-0.031818338,-0.21434624,-0.07602414,0.11594282,0.584065,-0.26896343,-0.10963182,-0.32024002,-0.316886,0.049353134,-0.12397691,-0.26026177,0.044367526,0.066296324,-0.036997657,0.04763131,0.044557944,-0.017324848,0.046300504,-0.017399315,-0.013273477,0.00063826004,0.073602244,-0.018432807,3.0,-0.6618354,-3.0,3.0,3.0,-3.0,-3.0,-1.6044247,-3.0,-3.0,0.08866657,-3.0,3.0,-0.69809145,-3.0,3.0,3.0,-3.0,-3.0,-1.9271221,-3.0,-3.0,0.1853189,-3.0
2025-06-06 14:10:35.153,0.024519663,0.0101746395,0.0014502716,-0.024240015,0.07594635,0.012073814,0.0,0.0,0.0,0.016902758,-0.034313876,-0.20306966,-0.09164545,0.11941005,0.5760536,-0.26815426,-0.10288408,-0.31047752,-0.3146191,0.042615082,-0.1219189,-0.26531297,-0.0027465932,-0.0016357589,0.03364115,-0.023090607,-0.04197733,-0.043584604,0.023766445,-0.07918279,0.07083977,0.034850225,-0.073335275,0.03326523,3.0,-0.69809145,-3.0,3.0,3.0,-3.0,-3.0,-1.9271221,-3.0,-3.0,0.1853189,-3.0,3.0,-0.68193907,-3.0,3.0,3.0,-3.0,-3.0,-1.7177057,-3.0,-3.0,0.06111951,-3.0
2025-06-06 14:10:35.172,-0.04428954,0.00975736,-0.001825695,-0.02847375,0.04474255,-0.010026309,0.0,0.0,0.0,0.01702109,-0.041705206,-0.21175568,-0.08039129,0.11079294,0.5689869,-0.2711619,-0.09720187,-0.327427,-0.31606942,0.04340191,-0.12468304,-0.25438052,0.015896061,-0.0044841184,-0.065368816,-0.0029019285,0.030514996,-0.0048760534,0.014300389,-0.006357961,0.024109563,-0.028100377,0.00363281,0.045345943,3.0,-0.68193907,-3.0,3.0,3.0,-3.0,-3.0,-1.7177057,-3.0,-3.0,0.06111951,-3.0,3.0,-0.6722581,-3.0,3.0,3.0,-3.0,-3.0,-1.8029255,-3.0,-3.0,0.10970394,-3.0
2025-06-06 14:10:35.192,0.033293728,-0.035975244,-0.025316758,-0.04469884,0.029096955,-0.027692804,0.0,0.0,0.0,0.017099133,-0.046438333,-0.19933116,-0.07291247,0.11073466,0.5713792,-0.26765126,-0.09288219,-0.3114774,-0.32437906,0.04558104,-0.11354051,-0.27306148,0.03612954,-0.07274787,-0.028936492,-0.053225067,-0.06678447,-0.056802902,-0.04430466,0.031472526,-0.07231861,-0.035271987,-0.039569635,-0.044990726,3.0,-0.6722581,-3.0,3.0,3.0,-3.0,-3.0,-1.8029255,-3.0,-3.0,0.10970394,-3.0,3.0,-0.6133662,-3.0,3.0,3.0,-3.0,-3.0,-1.500806,-3.0,-3.0,0.11919625,-3.0
2025-06-06 14:10:35.212,0.004730763,-0.010464007,0.017510606,-0.071806,0.037888084,0.02203984,0.0,0.0,0.0,0.01714631,-0.044414073,-0.20852938,-0.08986146,0.124737404,0.5692027,-0.25866994,-0.10402936,-0.3088945,-0.31826138,0.04265745,-0.109046735,-0.2565521,0.03748546,-0.06750462,-0.03989124,0.056912962,-0.028370634,-0.014264895,-0.03885105,-0.011223404,0.036976445,0.06943105,-0.0041534924,-0.050851118,3.0,-0.6133662,-3.0,3.0,3.0,-3.0,-3.0,-1.500806,-3.0,-3.0,0.11919625,-3.0,3.0,-0.6158753,-3.0,3.0,3.0,-3.0,-3.0,-1.9498614,-3.0,-3.0,0.27047896,-3.0
2025-06-06 14:10:35.232,-0.008865823,-0.022427764,0.032451753,-0.027981002,-0.004779407,0.017989567,0.0,0.0,0.0,0.017106555,-0.04847835,-0.21289888,-0.08688096,0.10905497,0.58559644,-0.2569845,-0.111283064,-0.31213143,-0.31304455,0.056517776,-0.1154154,-0.26869246,-0.022625048,-0.047359724,-0.052110326,0.029023953,0.033459667,0.05495483,0.05966023,-0.036366135,-0.028470883,0.06359633,-0.00075727946,0.032812893,3.0,-0.6158753,-3.0,3.0,3.0,-3.0,-3.0,-1.9498614,-3.0,-3.0,0.27047896,-3.0,3.0,-0.79646224,-3.0,3.0,3.0,-3.0,-3.0,-2.0450025,-3.0,-3.0,0.16851641,-3.0
2025-06-06 14:10:35.254,0.030310096,-0.00075030787,0.033065178,-0.08938752,0.034717243,-0.01995498,0.0,0.0,0.0,0.017194826,-0.0424365,-0.2143965,-0.07956104,0.11720483,0.5781168,-0.2756344,-0.09864313,-0.33401036,-0.3213553,0.058045797,-0.11892801,-0.26526937,-0.03258862,-0.0036167586,-0.0064864582,-0.009797516,0.010603886,0.03815003,0.026434688,0.017517835,-0.03895429,0.041923735,0.038541663,0.023869228,3.0,-0.79646224,-3.0,3.0,3.0,-3.0,-3.0,-2.0450025,-3.0,-3.0,0.16851641,-3.0,3.0,-0.742662,-3.0,3.0,3.0,-3.0,-3.0,-2.0011399,-3.0,-3.0,0.14524002,-3.0
2025-06-06 14:10:35.273,-0.03744025,0.020808924,0.019512823,-0.003281958,0.056545965,0.038598023,0.0,0.0,0.0,0.0173935,-0.031189123,-0.20019877,-0.07327767,0.121373475,0.5711162,-0.2738989,-0.10614896,-0.3326554,-0.31919223,0.05610621,-0.11251975,-0.26123184,0.01556471,0.06946471,0.030339418,0.06898607,-0.014151612,-0.0056573455,-0.06382546,-0.055785894,0.017916054,0.054522835,-0.033018194,0.06999141,3.0,-0.742662,-3.0,3.0,3.0,-3.0,-3.0,-2.0011399,-3.0,-3.0,0.14524002,-3.0,3.0,-0.741,-3.0,3.0,3.0,-3.0,-3.0,-1.8541871,-3.0,-3.0,0.07160236,-3.0
2025-06-06 14:10:35.292,0.04225755,-0.010506465,0.041640505,-0.024329511,0.020663735,-0.04489134,0.0,0.0,0.0,0.017577529,-0.033759113,-0.20559454,-0.07090392,0.11452783,0.5888217,-0.26610982,-0.10373664,-0.3563558,-0.31039262,0.046823155,-0.11115472,-0.25473878,0.045533277,0.059559423,0.05720549,-0.062830396,0.004806168,-0.038181823,0.03886493,0.03765021,-0.04161308,-0.0318857,-0.028700355,0.063619554,3.0,-0.741,-3.0,3.0,3.0,-3.0,-3.0,-1.8541871,-3.0,-3.0,0.07160236,-3.0,3.0,-0.6492863,-3.0,3.0,3.0,-3.0,-3.0,-1.9417046,-3.0,-3.0,0.15225045,-3.0
2025-06-06 14:10:35.312,0.029265925,0.0057539535,0.0016519969,-0.039168376,0.019989984,0.0059913322,0.0,0.0,0.0,0.017648302,-0.040000968,-0.21520293,-0.08631886,0.114921354,0.5722476,-0.27630326,-0.10351154,-0.34693265,-0.311447,0.05762323,-0.123610705,-0.27075535,0.059172254,0.023547813,-0.0384071,0.0753463,0.03001519,0.007834839,0.06444826,0.02527904,0.0746782,0.02919691,-0.028703192,0.023235766,3.0,-0.6492863,-3.0,3.0,3.0,-3.0,-3.0,-1.9417046,-3.0,-3.0,0.15225045,-3.0,3.0,-0.72627527,-3.0,3.0,3.0,-3.0,-3.0,-1.8474072,-3.0,-3.0,0.14863308,-3.0
2025-06-06 14:10:35.332,-0.03885155,-0.013138056,-0.040824924,-0.012681103,-0.008235391,0.026627835,0.0,0.0,0.0,0.0176808,-0.045022786,-0.20164321,-0.082523845,0.112990975,0.583453,-0.27333647,-0.09485676,-0.35347334,-0.32081994,0.060354438,-0.10962368,-0.261603,0.07076756,0.037140798,0.0724815,-0.060718898,0.009309598,-0.05622667,-0.018135462,0.05319864,-0.05175636,0.020822853,-0.060026683,-0.04076631,3.0,-0.72627527,-3.0,3.0,3.0,-3.0,-3.0,-1.8474072,-3.0,-3.0,0.14863308,-3.0,3.0,-0.6358983,-3.0,3.0,3.0,-3.0,-3.0,-1.4885353,-3.0,-3.0,0.11053108,-3.0
2025-06-06 14:10:35.353,0.003672922,0.013544935,-0.0036497407,-0.029807098,0.05947659,-0.024400473,0.0,0.0,0.0,0.017692061,-0.046137735,-0.19900638,-0.07417829,0.11237539,0.57372665,-0.26975554,-0.094428785,-0.33247295,-0.31575158,0.048906982,-0.120680496,-0.2730004,-0.0073232856,-0.008257136,0.0012974367,0.045857307,0.055822484,0.026918486,0.02686408,0.12212059,-0.016511252,-0.03659691,-0.06377656,0.02924973,3.0,-0.6358983,-3.0,3.0,3.0,-3.0,-3.0,-1.4885353,-3.0,-3.0,0.11053108,-3.0,3.0,-0.61088955,-3.0,3.0,3.0,-3.0,-3.0,-1.6136171,-3.0,-3.0,0.14523973,-3.0
2025-06-06 14:10:35.372,-0.03344756,-0.017486176,-0.009564767,-0.04795369,0.0036113106,-0.004992132,0.0,0.0,0.0,0.017574165,-0.037483204,-0.21185027,-0.07830516,0.12142658,0.5780756,-0.26945573,-0.09992551,-0.31053847,-0.31963068,0.05700445,-0.11009805,-0.25537488,-0.05618787,-0.031391174,0.03343754,-0.010424265,-0.0022678103,-0.0036067157,-0.0041577257,-0.03843005,-0.02708259,0.0012222292,-0.012091658,0.02025933,3.0,-0.61088955,-3.0,3.0,3.0,-3.0,-3.0,-1.6136171,-3.0,-3.0,0.14523973,-3.0,3.0,-0.71846455,-3.0,3.0,3.0,-3.0,-3.0,-1.7131363,-3.0,-3.0,0.07696672,-3.0
2025-06-06 14:10:35.393,-0.04695972,-0.043614652,-0.022381438,-0.04348608,0.076183654,0.009971898,0.0,0.0,0.0,0.017429454,-0.029066786,-0.20802933,-0.086299635,0.11337282,0.5744699,-0.27569395,-0.1000163,-0.31351107,-0.31782678,0.04607673,-0.12614927,-0.25933066,0.05319679,0.053464446,0.06323725,-0.032268256,-0.06933973,-0.019897956,-0.0322186,-0.017523281,-0.015626617,0.050685782,0.061055303,-0.022859007,3.0,-0.71846455,-3.0,3.0,3.0,-3.0,-3.0,-1.7131363,-3.0,-3.0,0.07696672,-3.0,3.0,-0.6852783,-3.0,3.0,3.0,-3.0,-3.0,-1.6608084,-3.0,-3.0,0.07887964,-3.0
2025-06-06 14:10:35.413,0.014639029,-0.049777154,-0.039382912,-0.08037907,0.043237045,0.046947666,0.0,0.0,0.0,0.017329099,-0.04625393,-0.20486042,-0.073804975,0.12382119,0.5799526,-0.27269343,-0.110263295,-0.29510784,-0.3107848,0.054663464,-0.11609878,-0.2568258,-0.023194429,0.031030122,-0.013235288,-0.042600475,0.011735374,-0.032622565,-0.041763965,0.054037433,-0.045709036,-0.026462883,0.024325848,0.05787706,3.0,-0.6852783,-3.0,3.0,3.0,-3.0,-3.0,-1.6608084,-3.0,-3.0,0.07887964,-3.0,3.0,-0.67540365,-3.0,3.0,3.0,-3.0,-3.0,-1.4764096,-3.0,-3.0,-0.019412354,-3.0
2025-06-06 14:10:35.433,-0.016265329,-0.005852323,0.015417178,-0.029556202,0.075424634,0.027095806,0.0,0.0,0.0,0.017248657,-0.046470635,-0.196912,-0.087590925,0.10829306,0.572057,-0.259028,-0.11089368,-0.29804176,-0.31199405,0.042797748,-0.11205113,-0.26677465,-0.024456095,-0.024327785,-0.014167632,0.0032516818,-0.033197507,0.012378674,0.046023425,0.078586586,-0.04829186,0.014848383,-0.015635304,0.020787442,3.0,-0.67540365,-3.0,3.0,3.0,-3.0,-3.0,-1.4764096,-3.0,-3.0,-0.019412354,-3.0,3.0,-0.5764678,-3.0,3.0,3.0,-3.0,-3.0,-1.7517353,-3.0,-3.0,0.17929323,-3.0
2025-06-06 14:10:35.453,-0.05224176,0.0442349,-0.037696928,-0.07616671,0.0372337,0.0062339134,0.0,0.0,0.0,0.017086921,-0.032995153,-0.20643148,-0.07886863,0.11226968,0.57782096,-0.2743441,-0.10691628,-0.2916101,-0.3223932,0.04040849,-0.127755,-0.26398405,-0.02445335,-0.028971672,-0.035567317,0.039661463,-0.06686721,0.07261499,0.016223866,-0.051746015,-0.06581424,-0.056856833,-0.06196023,-0.055354953,3.0,-0.5764678,-3.0,3.0,3.0,-3.0,-3.0,-1.7517353,-3.0,-3.0,0.17929323,-3.0,3.0,-0.75466144,-3.0,3.0,3.0,-3.0,-3.0,-1.4374566,-3.0,-3.0,0.009437159,-3.0
2025-06-06 14:10:35.474,-0.003921906,-0.013281737,-0.032492694,-0.07505816,-0.0018678767,-0.0016720083,0.0,0.0,0.0,0.01702149,-0.032568783,-0.20713212,-0.084394835,0.110208035,0.5746339,-0.27173457,-0.110176556,-0.28893757,-0.31197155,0.05317862,-0.12840334,-0.2625312,-0.023507375,0.072283134,-0.055941492,0.03317149,-0.03092205,-0.059852283,0.014171796,-0.039418973,0.037155584,-0.034456775,0.0063148146,0.02145072,3.0,-0.75466144,-3.0,3.0,3.0,-3.0,-3.0,-1.4374566,-3.0,-3.0,0.009437159,-3.0,3.0,-0.6172429,-3.0,3.0,3.0,-3.0,-3.0,-1.5688331,-3.0,-3.0,0.03396021,-3.0
2025-06-06 14:10:35.493,-0.026550436,0.04085408,-0.018903198,-0.06254966,-0.0033970892,0.025435051,0.0,0.0,0.0,0.016920546,-0.044820137,-0.19983366,-0.08124705,0.1221187,0.585457,-0.27269316,-0.095268734,-0.28722462,-0.32865933,0.056701016,-0.12713288,-0.25029603,-0.05856252,-0.01962175,-0.015951721,-0.0013070429,0.018439328,-0.008609336,-0.030891718,0.040205423,0.021375468,-0.0068561067,-0.07212737,0.074110016,3.0,-0.6172429,-3.0,3.0,3.0,-3.0,-3.0,-1.5688331,-3.0,-3.0,0.03396021,-3.0,3.0,-0.63914055,-3.0,3.0,3.0,-3.0,-3.0,-1.5206069,-3.0,-3.0,0.0155735165,-3.0
2025-06-06 14:10:35.513,-0.020883646,-0.0040724007,0.013414867,-0.09757243,0.018615048,-0.03791923,0.0,0.0,0.0,0.016802484,-0.040775266,-0.21170826,-0.0769291,0.114470355,0.5854738,-0.27565968,-0.1086143,-0.27430764,-0.3133428,0.04125916,-0.1202592,-0.2602299,0.006978377,-0.0062709237,-0.07321356,-0.009484664,0.031507958,0.0037515922,-0.0067450106,0.059157766,-0.0089143105,0.0024424782,0.01124516,-0.05360549,3.0,-0.63914055,-3.0,3.0,3.0,-3.0,-3.0,-1.5206069,-3.0,-3.0,0.0155735165,-3.0,3.0,-0.6265138,-3.0,3.0,3.0,-3.0,-3.0,-1.769439,-3.0,-3.0,0.19834079,-3.0
2025-06-06 14:10:35.534,-0.0001877853,0.037253723,-0.021273483,-0.015120761,0.044685833,-0.0380982,0.0,0.0,0.0,0.016673408,-0.041489106,-0.2093026,-0.07730293,0.107628874,0.5860626,-0.26549098,-0.10785942,-0.28183964,-0.31392124,0.051453974,-0.12157105,-0.2521928,-0.05665932,0.03736948,-0.005926471,-0.039015494,-0.020289637,-0.025621234,0.049413938,-0.07649419,0.028558783,-0.036301594,-0.012548422,-0.07116361,3.0,-0.6265138,-3.0,3.0,3.0,-3.0,-3.0,-1.769439,-3.0,-3.0,0.19834079,-3.0,3.0,-0.7582046,-3.0,3.0,3.0,-3.0,-3.0,-1.6282475,-3.0,-3.0,0.056822404,-3.0
2025-06-06 14:10:35.553,-0.046217043,-0.02161711,0.04561736,-0.09090956,0.0650522,0.0483,0.0,0.0,0.0,0.016683606,-0.04629436,-0.20662099,-0.08303375,0.11885087,0.58544344,-0.27466235,-0.0946553,-0.28202134,-0.31410262,0.048806842,-0.1309968,-0.26099133,-0.038399883,-0.07248995,-0.0440045,-0.0029926696,0.014931465,-0.037730724,0.06339273,0.062115327,0.03045653,0.02651814,-0.027480505,0.0519058,3.0,-0.7582046,-3.0,3.0,3.0,-3.0,-3.0,-1.6282475,-3.0,-3.0,0.056822404,-3.0,3.0,-0.58281296,-3.0,3.0,3.0,-3.0,-3.0,-2.0312533,-3.0,-3.0,0.20119311,-3.0
2025-06-06 14:10:35.573,-0.033452448,-0.017013019,-0.0069235065,-0.011347397,0.0353283,-0.009168556,0.0,0.0,0.0,0.016714254,-0.03283566,-0.20814575,-0.082669355,0.11430971,0.58592796,-0.27361482,-0.095057994,-0.30512935,-0.3265102,0.041663002,-0.120775886,-0.25266966,-0.04107155,-0.020390771,0.05826061,-0.018935975,-0.0171829,-0.04191437,-0.053648032,-0.07830211,0.07297897,0.06473075,0.054890424,-0.012438742,3.0,-0.58281296,-3.0,3.0,3.0,-3.0,-3.0,-2.0312533,-3.0,-3.0,0.20119311,-3.0,3.0,-0.8150789,-3.0,3.0,3.0,-3.0,-3.0,-1.8183432,-3.0,-3.0,0.033434644,-3.0
2025-06-06 14:10:35.593,0.007844581,-0.013336612,-0.011889423,-0.06780049,-0.020041177,0.030280434,0.0,0.0,0.0,0.016851012,-0.04571114,-0.20703362,-0.07489359,0.12378418,0.5838764,-0.26296204,-0.10374211,-0.3221491,-0.3121775,0.04857782,-0.1316944,-0.25768757,0.070595585,0.0005379547,0.017333515,-0.039643425,-0.07532359,0.035664022,0.019675577,-0.067552365,0.008055067,-0.03159479,-0.06306186,-0.040723417,3.0,-0.8150789,-3.0,3.0,3.0,-3.0,-3.0,-1.8183432,-3.0,-3.0,0.033434644,-3.0,3.0,-0.6204627,-3.0,3.0,3.0,-3.0,-3.0,-1.7446315,-3.0,-3.0,0.1600674,-3.0
2025-06-06 14:10:35.613,0.029421488,0.0036740724,-0.0061415075,-0.025519265,0.005943442,0.033718128,0.0,0.0,0.0,0.016940277,-0.037300337,-0.21324047,-0.085271634,0.11156711,0.5754446,-0.25909787,-0.096026294,-0.33259684,-0.31218535,0.039266076,-0.124417,-0.25623864,-0.041210175,0.0670306,0.038274255,-0.033474118,-0.011042598,0.049921054,-0.06822022,-0.025127955,-0.06662871,0.055352114,-0.010239304,-0.0029570935,3.0,-0.6204627,-3.0,3.0,3.0,-3.0,-3.0,-1.7446315,-3.0,-3.0,0.1600674,-3.0,3.0,-0.7639281,-3.0,3.0,3.0,-3.0,-3.0,-1.6451259,-3.0,-3.0,0.039969042,-3.0
2025-06-06 14:10:35.635,0.046735715,-0.033429764,0.03182694,-0.021707857,0.07614178,-0.04807557,0.0,0.0,0.0,0.016965147,-0.03556714,-0.20092519,-0.071945,0.109830596,0.579095,-0.25740847,-0.09427562,-0.32698202,-0.32923377,0.040915653,-0.12869292,-0.25282228,0.025897525,0.034998268,-0.009113897,0.009225166,-0.058672354,0.06594732,0.013131177,0.033901308,-0.06174578,0.0043604453,0.058595516,0.05495329,3.0,-0.7639281,-3.0,3.0,3.0,-3.0,-3.0,-1.6451259,-3.0,-3.0,0.039969042,-3.0,3.0,-0.6465537,-3.0,3.0,3.0,-3.0,-3.0,-1.9420725,-3.0,-3.0,0.14869092,-3.0
2025-06-06 14:10:35.654,0.027226178,0.04186404,-0.0006389744,-0.068743415,0.051527053,0.011324386,0.0,0.0,0.0,0.016911043,-0.044156935,-0.20975672,-0.08172278,0.11863448,0.56909484,-0.26972136,-0.103395276,-0.31517673,-0.32818156,0.037660956,-0.12860008,-0.26309803,0.07228582,-0.020413017,0.04043757,0.030794071,0.033311386,0.016948855,-0.036298733,-0.025537759,0.067134984,0.05265082,0.06912034,0.017093442,3.0,-0.6465537,-3.0,3.0,3.0,-3.0,-3.0,-1.9420725,-3.0,-3.0,0.14869092,-3.0,3.0,-0.7405903,-3.0,3.0,3.0,-3.0,-3.0,-1.8425472,-3.0,-3.0,0.08111288,-3.0
2025-06-06 14:10:35.674,0.02327597,-0.011491651,-0.029808778,-0.006579713,0.03163618,0.016855855,0.0,0.0,0.0,0.016926993,-0.03415427,-0.20007485,-0.0855513,0.106594205,0.5830751,-0.2643544,-0.10126489,-0.33300838,-0.3143583,0.04391879,-0.11865864,-0.26957038,0.022404753,0.03614252,0.034688424,-0.03015859,0.056975447,-0.022335488,0.0555656,0.027079653,0.06502951,-0.0340616,0.046787724,0.019686207,3.0,-0.7405903,-3.0,3.0,3.0,-3.0,-3.0,-1.8425472,-3.0,-3.0,0.08111288,-3.0,3.0,-0.65835154,-3.0,3.0,3.0,-3.0,-3.0,-1.6910146,-3.0,-3.0,0.06933619,-3.0
2025-06-06 14:10:35.694,0.03695974,0.03768495,-0.039775893,-0.057424307,0.033022754,0.008630191,0.0,0.0,0.0,0.016957559,-0.035238888,-0.20045014,-0.082962915,0.112559,0.5736286,-0.26089755,-0.10537575,-0.32934776,-0.31140047,0.040160224,-0.11568038,-0.26799858,-0.065778725,-0.026999917,0.067842714,0.009706482,-0.009512861,-0.025902418,-0.057230942,0.07033112,0.016987316,-0.03066721,0.00166892,-0.058952827,3.0,-0.65835154,-3.0,3.0,3.0,-3.0,-3.0,-1.6910146,-3.0,-3.0,0.06933619,-3.0,3.0,-0.6071928,-3.0,3.0,3.0,-3.0,-3.0,-1.4827274,-3.0,-3.0,0.050575927,-3.0
2025-06-06 14:10:35.714,0.0118662575,0.019394208,-0.030484648,-0.034002077,0.033110492,-0.034601007,0.0,0.0,0.0,0.016915735,-0.039234117,-0.19922622,-0.08625273,0.111776195,0.5741874,-0.26722503,-0.096346445,-0.31368726,-0.31801102,0.05385248,-0.1245514,-0.25251696,0.041404642,-0.025772005,0.06752034,-0.017455352,-0.06598397,-0.0063875793,-0.024351448,0.034416504,-0.04216959,0.067347884,-0.02209358,0.0030462076,3.0,-0.6071928,-3.0,3.0,3.0,-3.0,-3.0,-1.4827274,-3.0,-3.0,0.050575927,-3.0,3.0,-0.5823696,-3.0,3.0,3.0,-3.0,-3.0,-1.506252,-3.0,-3.0,0.101081625,-3.0
2025-06-06 14:10:35.737,-0.03917231,-0.010819694,0.023878625,-0.07835339,0.07532781,-0.025026537,0.0,0.0,0.0,0.016759785,-0.041825525,-0.21234737,-0.089454494,0.11696872,0.5818917,-0.25808424,-0.09729724,-0.30115068,-0.31242606,0.042002,-0.117470264,-0.26704666,-0.033748794,0.052706603,0.021325931,0.029007165,-0.036601964,0.05773251,-0.019327661,0.10510265,0.073462866,-0.010509652,0.00021562586,0.050208356,3.0,-0.5823696,-3.0,3.0,3.0,-3.0,-3.0,-1.506252,-3.0,-3.0,0.101081625,-3.0,3.0,-0.70182866,-3.0,3.0,3.0,-3.0,-3.0,-1.8190137,-3.0,-3.0,0.08392851,-3.0
2025-06-06 14:10:35.755,0.026082627,-0.037966356,-0.049517427,-0.071561165,0.049910266,0.0003413427,0.0,0.0,0.0,0.016581513,-0.043039206,-0.20391572,-0.0752553,0.12136115,0.5740235,-0.25938365,-0.100846805,-0.2981986,-0.32841015,0.037703115,-0.13068035,-0.25289515,-0.009229371,0.04852287,-0.035632115,0.06295357,-0.0015944716,0.06096276,-0.002615157,0.05698864,-0.010739868,0.0074024256,0.028369818,0.06679573,3.0,-0.70182866,-3.0,3.0,3.0,-3.0,-3.0,-1.8190137,-3.0,-3.0,0.08392851,-3.0,3.0,-0.72207636,-3.0,3.0,3.0,-3.0,-3.0,-1.4291555,-3.0,-3.0,-0.091215864,-3.0
2025-06-06 14:10:35.775,0.03467095,0.018576134,0.023474596,-0.0016707728,0.0078014033,0.018808682,0.0,0.0,0.0,0.016526898,-0.040276412,-0.19554643,-0.08759261,0.12508604,0.56832063,-0.25904575,-0.09357975,-0.29313806,-0.3145465,0.04281079,-0.1272564,-0.25161088,0.06631474,-0.006857892,-0.032510977,0.026319467,-0.055654176,-0.027469153,-0.07303264,-0.015208334,0.0034294792,-0.050128277,-0.038233906,-0.040136266,3.0,-0.72207636,-3.0,3.0,3.0,-3.0,-3.0,-1.4291555,-3.0,-3.0,-0.091215864,-3.0,3.0,-0.499193,-3.0,3.0,3.0,-3.0,-3.0,-1.8554306,-3.0,-3.0,0.2635275,-3.0
2025-06-06 14:10:35.794,0.026487276,-0.031587582,0.022271143,-0.0070053637,-0.0011261929,-0.026445556,0.0,0.0,0.0,0.016386291,-0.039918162,-0.20471644,-0.091976956,0.11063425,0.5841813,-0.27599362,-0.1023312,-0.28752956,-0.3095067,0.04905997,-0.12682968,-0.25893262,-0.051423095,-0.06414267,-0.0027143727,-0.07372319,-0.005390862,-0.062252063,-0.021554468,-0.08119328,0.04321186,0.039641898,-0.046486776,-0.0011389037,3.0,-0.499193,-3.0,3.0,3.0,-3.0,-3.0,-1.8554306,-3.0,-3.0,0.2635275,-3.0,3.0,-0.756187,-3.0,3.0,3.0,-3.0,-3.0,-1.8814315,-3.0,-3.0,0.11269213,-3.0
2025-06-06 14:10:35.814,0.026101109,-0.04188199,0.04186569,-0.0705343,0.015352608,-0.018834783,0.0,0.0,0.0,0.016398411,-0.044805806,-0.1960315,-0.091367304,0.109217174,0.5751665,-0.27460623,-0.09424925,-0.31164667,-0.31063005,0.04236723,-0.13319877,-0.25705686,-0.036792226,0.013561327,0.029095018,-0.018112184,0.033495728,0.031770766,0.017979223,-0.031554505,-0.06348392,-0.05656491,0.015630405,0.04573654,3.0,-0.756187,-3.0,3.0,3.0,-3.0,-3.0,-1.8814315,-3.0,-3.0,0.11269213,-3.0,3.0,-0.72594357,-3.0,3.0,3.0,-3.0,-3.0,-2.0125897,-3.0,-3.0,0.10568394,-3.0
2025-06-06 14:10:35.837,-0.039460927,0.043340277,-0.051218305,-0.049704142,-0.020174935,-0.024623325,0.0,0.0,0.0,0.016524429,-0.036133327,-0.21289341,-0.08746204,0.11987218,0.57849866,-0.26253107,-0.106634855,-0.33183017,-0.31930533,0.034886915,-0.1191839,-0.2508101,-0.013881469,-0.011506999,0.023140913,-0.033768315,0.0752146,-0.06580284,0.07131876,-0.040961422,0.05092675,0.041923903,-0.03969712,-0.061401714,3.0,-0.72594357,-3.0,3.0,3.0,-3.0,-3.0,-2.0125897,-3.0,-3.0,0.10568394,-3.0,3.0,-0.68059164,-3.0,3.0,3.0,-3.0,-3.0,-1.4777986,-3.0,-3.0,0.027260855,-3.0
2025-06-06 14:10:35.854,-0.012541703,0.005042463,0.013717995,-0.07167073,0.049617972,0.009900424,0.0,0.0,0.0,0.016690822,-0.037181437,-0.2016074,-0.08547849,0.10869355,0.5745208,-0.25854596,-0.09181051,-0.323142,-0.32243508,0.039813425,-0.11602349,-0.25597754,0.009824394,0.04145789,-0.008451765,-0.05666835,-0.06294851,0.014795137,0.06330833,0.08445703,0.0064389664,-0.0382229,0.07411339,0.014198415,3.0,-0.68059164,-3.0,3.0,3.0,-3.0,-3.0,-1.4777986,-3.0,-3.0,0.027260855,-3.0,3.0,-0.63324803,-3.0,3.0,3.0,-3.0,-3.0,-1.9116235,-3.0,-3.0,0.14726849,-3.0
2025-06-06 14:10:35.875,-0.023614863,0.050845668,-0.0055851713,-0.0643981,0.01818405,0.049136,0.0,0.0,0.0,0.016675351,-0.045628656,-0.19998832,-0.079702824,0.12425995,0.58388126,-0.25858316,-0.097990036,-0.32168442,-0.32624096,0.05366796,-0.11503957,-0.26642475,-0.047836486,0.0151272,-0.029900214,0.015892541,0.072131686,0.06865111,-0.010976533,0.042575505,-0.062150843,-0.033924166,0.0509406,-0.0007256143,3.0,-0.63324803,-3.0,3.0,3.0,-3.0,-3.0,-1.9116235,-3.0,-3.0,0.14726849,-3.0,3.0,-0.80961454,-3.0,3.0,3.0,-3.0,-3.0,-1.7270652,-3.0,-3.0,0.049221233,-3.0
2025-06-06 14:10:35.894,0.0344516,0.030258847,0.033118997,-0.09202692,-0.008622356,0.043160357,0.0,0.0,0.0,0.016692739,-0.044830963,-0.19952413,-0.07924273,0.11475877,0.5695428,-0.27364895,-0.11079772,-0.32365337,-0.32195583,0.043585926,-0.119447455,-0.26981547,-0.07183547,0.025503363,0.053435776,-0.03193793,0.015073537,-0.014122347,-0.0037151556,-0.04365319,0.045263495,0.06956031,-0.028714849,-0.044166148,3.0,-0.80961454,-3.0,3.0,3.0,-3.0,-3.0,-1.7270652,-3.0,-3.0,0.049221233,-3.0,3.0,-0.6213713,-3.0,3.0,3.0,-3.0,-3.0,-2.006846,-3.0,-3.0,0.21119131,-3.0
2025-06-06 14:10:35.915,0.016246753,0.025661381,-0.026384883,-0.011117459,0.029169139,0.009358259,0.0,0.0,0.0,0.016722146,-0.04563659,-0.21406832,-0.075715415,0.12173833,0.581191,-0.2658003,-0.106117815,-0.33798233,-0.31322178,0.047986995,-0.12122858,-0.25350684,-0.00054096704,0.04925329,0.06798022,-0.023697022,0.013870628,0.040511966,0.023188729,0.03608117,-0.002799344,0.05709803,-0.04003723,0.058054216,3.0,-0.6213713,-3.0,3.0,3.0,-3.0,-3.0,-2.006846,-3.0,-3.0,0.21119131,-3.0,3.0,-0.7898237,-3.0,3.0,3.0,-3.0,-3.0,-1.5151961,-3.0,-3.0,-0.03565161,-3.0
2025-06-06 14:10:35.937,0.036706407,0.01841368,0.04467125,-0.040831547,0.06046873,0.012711528,0.0,0.0,0.0,0.016856235,-0.0402105,-0.19924521,-0.08858116,0.11253983,0.57743216,-0.26343408,-0.096108235,-0.3211894,-0.31583887,0.05276749,-0.118912295,-0.25579754,-0.044786934,0.042748455,-0.047773417,-0.054616462,-0.015353075,-0.021432133,-0.067430586,0.08251949,-0.045240264,0.072528906,0.03216155,-0.018344697,3.0,-0.7898237,-3.0,3.0,3.0,-3.0,-3.0,-1.5151961,-3.0,-3.0,-0.03565161,-3.0,3.0,-0.53839,-3.0,3.0,3.0,-3.0,-3.0,-2.0035336,-3.0,-3.0,0.2579692,-3.0
2025-06-06 14:10:35.955,0.01681518,0.027156387,0.025832519,-0.07345208,0.002647477,0.004170993,0.0,0.0,0.0,0.016848302,-0.04197003,-0.19659589,-0.08891618,0.11951484,0.5875768,-0.2579475,-0.09228516,-0.32665804,-0.31451628,0.051945776,-0.12305465,-0.26287284,-0.04935368,0.044498637,-0.016453614,-0.058316026,0.0070183272,0.04938278,-0.026409976,-0.07918707,0.029294811,-0.05810743,-0.02897883,-0.0415868,3.0,-0.53839,-3.0,3.0,3.0,-3.0,-3.0,-2.0035336,-3.0,-3.0,0.2579692,-3.0,3.0,-0.85437435,-3.0,3.0,3.0,-3.0,-3.0,-1.9825852,-3.0,-3.0,0.1097544,-3.0
2025-06-06 14:10:35.975,0.016747197,-0.019220892,-0.05713827,-0.06698194,-0.0044576614,-0.043626983,0.0,0.0,0.0,0.016936155,-0.039739102,-0.20751934,-0.08397312,0.10550387,0.5728632,-0.26639196,-0.10085836,-0.34078163,-0.31407344,0.039250046,-0.11960624,-0.25900033,0.011590426,-0.06840183,-0.014655006,0.054717056,0.07022399,-0.06592941,-0.06556525,0.045574166,-0.033440042,-0.06493241,-0.02934161,0.0039735124,3.0,-0.85437435,-3.0,3.0,3.0,-3.0,-3.0,-1.9825852,-3.0,-3.0,0.1097544,-3.0,3.0,-0.57840925,-3.0,3.0,3.0,-3.0,-3.0,-1.3820739,-3.0,-3.0,-0.005460426,-3.0
2025-06-06 14:10:35.995,0.06026819,0.0054998477,-0.021679724,-0.03418877,0.05495198,0.008455047,0.0,0.0,0.0,0.017105807,-0.037031766,-0.211442,-0.07613605,0.11394498,0.58791006,-0.2589314,-0.10799773,-0.31574947,-0.32900345,0.044916295,-0.11465874,-0.25944972,0.037509933,-0.032454707,-0.010360877,0.07045265,0.05487753,0.006905353,-0.036099132,0.054859973,-0.04934298,0.0064135003,0.06973581,-0.035240803,3.0,-0.57840925,-3.0,3.0,3.0,-3.0,-3.0,-1.3820739,-3.0,-3.0,-0.005460426,-3.0,3.0,-0.5834419,-3.0,3.0,3.0,-3.0,-3.0,-1.6830131,-3.0,-3.0,0.19545473,-3.0
2025-06-06 14:10:36.015,0.011638094,0.0054264534,0.02574578,-0.09099924,0.03962413,-0.03285756,0.0,0.0,0.0,0.017035458,-0.032747753,-0.20196961,-0.07961376,0.12428009,0.5808752,-0.26155066,-0.109352574,-0.31713164,-0.3217887,0.043326445,-0.11680301,-0.26026738,0.05706008,0.031682137,-0.06006089,-0.025196442,0.025094338,0.052799754,0.06288799,-0.010208719,0.03524839,-0.02546801,0.04585467,-0.01142369,3.0,-0.5834419,-3.0,3.0,3.0,-3.0,-3.0,-1.6830131,-3.0,-3.0,0.19545473,-3.0,3.0,-0.74624157,-3.0,3.0,3.0,-3.0,-3.0,-2.0163934,-3.0,-3.0,0.17172511,-3.0
2025-06-06 14:10:36.037,-0.042546578,-0.049440384,0.0067747203,-0.069769055,0.04621075,0.019816607,0.0,0.0,0.0,0.01695472,-0.031246532,-0.20465823,-0.072016604,0.11455757,0.58170944,-0.25738752,-0.09626355,-0.32185668,-0.30931252,0.04052865,-0.12502107,-0.2699194,0.022131622,-0.008258607,-0.0052943523,-0.010911927,-0.066642046,0.054272763,-0.053579837,0.037206456,-0.022327408,0.065992855,0.0022233303,0.06768974,3.0,-0.74624157,-3.0,3.0,3.0,-3.0,-3.0,-2.0163934,-3.0,-3.0,0.17172511,-3.0,3.0,-0.73913103,-3.0,3.0,3.0,-3.0,-3.0,-1.7294232,-3.0,-3.0,0.026584223,-3.0
2025-06-06 14:10:36.056,0.01930394,0.03149767,-0.012018238,-0.02418601,0.010223403,0.005526705,0.0,0.0,0.0,0.017054781,-0.031397842,-0.20918046,-0.07798056,0.11202797,0.5802157,-0.267786,-0.10714879,-0.3290854,-0.32555637,0.05302132,-0.113975145,-0.2554029,-0.0037141726,0.071892306,-0.06169768,0.009465301,0.0303855,-0.06395736,0.02641705,-0.015467166,-0.035254784,-0.059751324,-0.047731046,0.05987557,3.0,-0.73913103,-3.0,3.0,3.0,-3.0,-3.0,-1.7294232,-3.0,-3.0,0.026584223,-3.0,3.0,-0.64975494,-3.0,3.0,3.0,-3.0,-3.0,-1.592316,-3.0,-3.0,0.03800656,-3.0
2025-06-06 14:10:36.075,-0.02938122,0.0049891314,0.020298215,-0.052317344,0.042931836,0.010119466,0.0,0.0,0.0,0.017107625,-0.03829186,-0.19693792,-0.07650678,0.12101484,0.5763601,-0.26986516,-0.11064841,-0.32307196,-0.31367224,0.044415336,-0.12698545,-0.26422217,0.010811892,-0.034647305,0.03690338,-0.008594701,0.0076930514,0.053032886,0.018401152,0.01483502,-0.036315642,0.03785292,-0.022377372,0.06567135,3.0,-0.64975494,-3.0,3.0,3.0,-3.0,-3.0,-1.592316,-3.0,-3.0,0.03800656,-3.0,3.0,-0.64076436,-3.0,3.0,3.0,-3.0,-3.0,-1.8345308,-3.0,-3.0,0.13806699,-3.0
2025-06-06 14:10:36.096,-0.007563947,0.022108564,-0.013955284,-0.09425083,0.044694565,0.014711235,0.0,0.0,0.0,0.01703836,-0.034877285,-0.20124172,-0.09022405,0.12337631,0.57072645,-0.26341,-0.0948768,-0.30962482,-0.32309714,0.050063267,-0.11960976,-0.26709303,0.02381335,0.04828306,-0.03970447,-0.056885805,0.012061282,-0.061581735,0.035469048,-0.036364038,-0.012966366,0.065546066,-0.0075647505,-0.010885505,3.0,-0.64076436,-3.0,3.0,3.0,-3.0,-3.0,-1.8345308,-3.0,-3.0,0.13806699,-3.0,3.0,-0.73072964,-3.0,3.0,3.0,-3.0,-3.0,-1.6318594,-3.0,-3.0,0.05091037,-3.0
2025-06-06 14:10:36.115,0.039872024,0.036261223,0.038993254,-0.06727933,-0.02133231,-0.04348262,0.0,0.0,0.0,0.017022252,-0.036057945,-0.1981673,-0.08656581,0.11208477,0.58635056,-0.2724312,-0.10653777,-0.3147253,-0.3243585,0.05061853,-0.12473306,-0.26896223,-0.052645538,-0.04939739,-0.044869795,-0.05087702,0.07229376,0.02883935,-0.011089007,0.07954562,-0.05848195,-0.04515734,-0.063595004,-0.059614595,3.0,-0.73072964,-3.0,3.0,3.0,-3.0,-3.0,-1.6318594,-3.0,-3.0,0.05091037,-3.0,3.0,-0.5775104,-3.0,3.0,3.0,-3.0,-3.0,-1.8327304,-3.0,-3.0,0.2449571,-3.0
2025-06-06 14:10:36.137,0.020357767,0.00788339,-0.04890218,-0.09421676,0.032402452,-0.006821986,0.0,0.0,0.0,0.016990643,-0.042990185,-0.20217198,-0.08502957,0.106138974,0.5736479,-0.27137867,-0.09349486,-0.30777076,-0.32095757,0.04169787,-0.115609035,-0.25948602,0.049089473,-0.039557025,0.041966088,-0.037381504,-0.006519889,0.0047445577,-0.0044995868,0.022143114,-0.02855889,-0.006750902,0.044664282,-0.06580208,3.0,-0.5775104,-3.0,3.0,3.0,-3.0,-3.0,-1.8327304,-3.0,-3.0,0.2449571,-3.0,3.0,-0.7232873,-3.0,3.0,3.0,-3.0,-3.0,-1.5293131,-3.0,-3.0,0.037191674,-3.0
2025-06-06 14:10:36.156,-0.041297354,0.01673569,0.038677655,-0.08768214,0.06499095,0.012641737,0.0,0.0,0.0,0.0170464,-0.029865304,-0.19588906,-0.08588309,0.11494631,0.58256656,-0.2618496,-0.09738153,-0.30787468,-0.323871,0.049292233,-0.11175955,-0.27028295,0.062346943,-0.02196786,-0.015761018,-0.030739557,0.06663023,0.024501085,0.0048621106,0.05031341,0.045549028,-0.019469617,-0.043676104,0.015371843,3.0,-0.7232873,-3.0,3.0,3.0,-3.0,-3.0,-1.5293131,-3.0,-3.0,0.037191674,-3.0,3.0,-0.533184,-3.0,3.0,3.0,-3.0,-3.0,-2.0112283,-3.0,-3.0,0.25575393,-3.0
2025-06-06 14:10:36.175,0.03713117,0.009895078,0.0324465,-0.025571138,-0.0026879436,0.038061325,0.0,0.0,0.0,0.017021338,-0.04093459,-0.19553801,-0.0748194,0.1130564,0.5862377,-0.25978893,-0.107378475,-0.31612113,-0.3257862,0.039622165,-0.11872166,-0.2608705,0.01641467,0.05398649,-0.031623896,0.07041912,0.045226917,-0.06745289,-0.06423767,-0.03212975,0.022146538,0.05021353,0.054738183,0.056100193,3.0,-0.533184,-3.0,3.0,3.0,-3.0,-3.0,-2.0112283,-3.0,-3.0,0.25575393,-3.0,3.0,-0.85252875,-3.0,3.0,3.0,-3.0,-3.0,-1.970868,-3.0,-3.0,0.04491426,-3.0
2025-06-06 14:10:36.196,-0.0438474,0.027915802,-0.011868749,-0.017530473,-0.008596733,0.0067895525,0.0,0.0,0.0,0.0171018,-0.030858597,-0.2106246,-0.078258194,0.11810996,0.58338284,-0.26205307,-0.099082276,-0.32177225,-0.32401153,0.054388918,-0.12842803,-0.25512326,-0.037271645,-0.053959824,0.056155227,0.0155491745,0.07065613,-0.043372966,0.01133662,-0.010713363,0.056440946,0.056022253,0.0032563473,-0.041922655,3.0,-0.85252875,-3.0,3.0,3.0,-3.0,-3.0,-1.970868,-3.0,-3.0,0.04491426,-3.0,3.0,-0.6276141,-3.0,3.0,3.0,-3.0,-3.0,-1.7541872,-3.0,-3.0,0.13059063,-3.0
2025-06-06 14:10:36.216,-0.016202152,-0.042378098,0.036789607,-0.060962465,0.019287987,0.027428906,0.0,0.0,0.0,0.01720925,-0.047269884,-0.20998134,-0.07485788,0.111925416,0.57391936,-0.27479172,-0.10695357,-0.3374962,-0.3170649,0.041232485,-0.11993367,-0.25329664,0.028580861,-0.016641093,-0.025391785,-0.00020827129,0.07233844,0.03432747,0.020031717,0.06648946,-0.0050152605,-0.06415535,0.008263621,-0.021745156,3.0,-0.6276141,-3.0,3.0,3.0,-3.0,-3.0,-1.7541872,-3.0,-3.0,0.13059063,-3.0,3.0,-0.7183395,-3.0,3.0,3.0,-3.0,-3.0,-2.0532763,-3.0,-3.0,0.24880166,-3.0
2025-06-06 14:10:36.237,-0.017879749,0.041812025,-0.02435081,-0.07746608,0.024978353,-0.008385403,0.0,0.0,0.0,0.017232725,-0.04087856,-0.19910209,-0.086723424,0.119523875,0.5886473,-0.26115754,-0.10969474,-0.3470281,-0.3265865,0.04990221,-0.11325474,-0.26202354,-0.04468289,0.032494057,-0.0632971,0.04711592,0.010240454,0.015348033,-0.019662509,-0.045172367,-0.025358742,0.05692969,-0.06762654,-0.009540131,3.0,-0.7183395,-3.0,3.0,3.0,-3.0,-3.0,-2.0532763,-3.0,-3.0,0.24880166,-3.0,3.0,-0.7953134,-3.0,3.0,3.0,-3.0,-3.0,-1.555533,-3.0,-3.0,0.0016985089,-3.0
2025-06-06 14:10:36.256,0.041079387,0.045474146,-0.03438512,-0.060990073,0.05845758,-0.022370623,0.0,0.0,0.0,0.017341746,-0.030159988,-0.20509386,-0.08998505,0.1087091,0.5795395,-0.25963324,-0.1025889,-0.34390086,-0.3282986,0.05047933,-0.123297565,-0.26110974,0.069695204,0.057555124,0.010302112,0.021676345,-0.06683867,0.05189596,-0.052572172,0.09474308,0.0004997798,0.026253933,0.00091688737,-0.035740696,3.0,-0.7953134,-3.0,3.0,3.0,-3.0,-3.0,-1.555533,-3.0,-3.0,0.0016985089,-3.0,3.0,-0.53626853,-3.0,3.0,3.0,-3.0,-3.0,-1.5016105,-3.0,-3.0,0.1358061,-3.0
2025-06-06 14:10:36.276,-0.036029413,0.047171433,0.026941875,-0.042631187,0.030832542,-0.0179483,0.0,0.0,0.0,0.017311199,-0.041604307,-0.21013825,-0.08519549,0.11483769,0.58328843,-0.25620428,-0.10194759,-0.3211927,-0.3238154,0.04827302,-0.1089692,-0.26934135,-0.05692728,-0.030266644,-0.054110255,-0.04511607,-0.01712258,-0.007811056,-0.04740003,-0.021849217,0.0518185,0.03608671,-0.046873823,0.06988586,3.0,-0.53626853,-3.0,3.0,3.0,-3.0,-3.0,-1.5016105,-3.0,-3.0,0.1358061,-3.0,3.0,-0.66082895,-3.0,3.0,3.0,-3.0,-3.0,-1.9255499,-3.0,-3.0,0.117277876,-3.0
2025-06-06 14:10:36.296,0.007057667,-0.050476376,0.020134687,0.0012459508,0.040145226,0.036712777,0.0,0.0,0.0,0.017165529,-0.03553023,-0.2095678,-0.08712613,0.11504905,0.574065,-0.26585805,-0.10101234,-0.30858982,-0.32475513,0.054155212,-0.108345516,-0.25395814,-0.058668606,0.03747268,0.030131288,0.011811596,-0.012678749,0.019758344,0.017025094,-0.07641069,0.06990487,0.028045416,0.038225662,0.047840882,3.0,-0.66082895,-3.0,3.0,3.0,-3.0,-3.0,-1.9255499,-3.0,-3.0,0.117277876,-3.0,3.0,-0.75724524,-3.0,3.0,3.0,-3.0,-3.0,-2.049693,-3.0,-3.0,0.11176653,-3.0
2025-06-06 14:10:36.316,0.0011610119,0.02127956,-0.050982065,-0.08092321,0.04279731,-0.01972234,0.0,0.0,0.0,0.017117808,-0.04197587,-0.19732465,-0.083065115,0.120745875,0.58756316,-0.26635784,-0.0929493,-0.3348985,-0.32221347,0.048939034,-0.12903206,-0.25243148,-0.049117308,0.013526344,0.0018013406,0.026761364,-0.007316184,-0.0740758,-0.0009557856,0.032683216,0.012645012,-0.04717675,-0.01665771,-0.008252457,3.0,-0.75724524,-3.0,3.0,3.0,-3.0,-3.0,-2.049693,-3.0,-3.0,0.11176653,-3.0,3.0,-0.7086112,-3.0,3.0,3.0,-3.0,-3.0,-1.4350439,-3.0,-3.0,-0.06390007,-3.0
2025-06-06 14:10:36.337,-0.0058444547,-0.045669325,-0.010751236,-0.076117404,-0.0020006387,-0.045086846,0.0,0.0,0.0,0.017190272,-0.037811562,-0.19694942,-0.07491759,0.110726416,0.58284503,-0.2669684,-0.10009367,-0.31476182,-0.3182894,0.049095485,-0.119321465,-0.26526964,0.04511808,0.049195755,-0.059428357,-0.045598347,-0.0267909,-0.021161243,-0.0055594426,0.026990797,0.02540604,-0.04822399,-0.031701423,-0.028940767,3.0,-0.7086112,-3.0,3.0,3.0,-3.0,-3.0,-1.4350439,-3.0,-3.0,-0.06390007,-3.0,3.0,-0.5517519,-3.0,3.0,3.0,-3.0,-3.0,-1.7069731,-3.0,-3.0,0.18864264,-3.0
2025-06-06 14:10:36.356,-0.0033452315,-0.025662601,0.051852714,-0.09136173,0.029233286,-0.028026685,0.0,0.0,0.0,0.017063698,-0.034496505,-0.20156221,-0.082943834,0.12426544,0.57017183,-0.2600863,-0.09388574,-0.31432885,-0.32354078,0.04905591,-0.124276645,-0.25479823,0.029489703,0.025707094,0.040637445,0.026265206,-0.06464045,-0.03880672,-0.043958046,-0.012805534,0.043217596,-0.012314047,-0.05663367,0.048157822,3.0,-0.5517519,-3.0,3.0,3.0,-3.0,-3.0,-1.7069731,-3.0,-3.0,0.18864264,-3.0,3.0,-0.74860734,-3.0,3.0,3.0,-3.0,-3.0,-1.979075,-3.0,-3.0,0.10863556,-3.0
2025-06-06 14:10:36.376,0.016673883,0.030480387,0.02063618,-0.0921384,0.034000486,-0.031059993,0.0,0.0,0.0,0.016947526,-0.037677445,-0.20503135,-0.08887611,0.11062726,0.586012,-0.2589087,-0.1072011,-0.30947214,-0.31125742,0.037889104,-0.11949566,-0.25584203,0.018259067,0.060691986,-0.027303455,0.026434168,-0.038929354,0.027273497,0.05681377,0.028123552,-0.03934433,0.008294893,0.051833645,-0.016036596,3.0,-0.74860734,-3.0,3.0,3.0,-3.0,-3.0,-1.979075,-3.0,-3.0,0.10863556,-3.0,3.0,-0.7499822,-3.0,3.0,3.0,-3.0,-3.0,-1.8279694,-3.0,-3.0,0.08298577,-3.0
2025-06-06 14:10:36.396,-0.043684464,0.04060884,0.023844887,-0.08136692,0.037095625,-0.002023274,0.0,0.0,0.0,0.016978951,-0.044958517,-0.19997714,-0.07503979,0.113854796,0.58167845,-0.2693263,-0.093775555,-0.32450554,-0.3132869,0.05568902,-0.11760652,-0.2511993,0.06564515,-0.05500931,-0.04654511,0.0053826496,0.035613917,0.0117460145,0.06094173,-0.07398509,-0.013655293,-0.050052047,-0.031483494,0.031156989,3.0,-0.7499822,-3.0,3.0,3.0,-3.0,-3.0,-1.8279694,-3.0,-3.0,0.08298577,-3.0,3.0,-0.64693755,-3.0,3.0,3.0,-3.0,-3.0,-2.06453,-3.0,-3.0,0.21412136,-3.0
2025-06-06 14:10:36.419,0.024385197,0.047249153,0.025472015,-0.021736724,-0.0075962013,-0.0075409343,0.0,0.0,0.0,0.017033273,-0.048856895,-0.21250223,-0.09055123,0.118455864,0.569061,-0.26783234,-0.09989123,-0.32794574,-0.31531313,0.03989037,-0.11267397,-0.25834587,0.01846476,-0.032210678,0.017967552,-0.024266165,-0.0640147,-0.071300775,-0.014108881,0.026693283,-0.0728813,-0.026843814,0.0009003145,0.018084543,3.0,-0.64693755,-3.0,3.0,3.0,-3.0,-3.0,-2.06453,-3.0,-3.0,0.21412136,-3.0,3.0,-0.772474,-3.0,3.0,3.0,-3.0,-3.0,-1.7440931,-3.0,-3.0,0.05942811,-3.0
2025-06-06 14:10:36.437,-0.040200908,-0.026938498,-0.027270898,-0.029909067,0.05895589,0.042655308,0.0,0.0,0.0,0.017172001,-0.031457618,-0.20842855,-0.07442548,0.1100444,0.57756585,-0.26243114,-0.11101827,-0.34000775,-0.3250963,0.040352054,-0.122876726,-0.25805634,0.04182163,-0.03335968,0.019606048,0.07096911,-0.05926335,0.06933216,0.004571741,0.043910794,0.006945879,0.03800468,-0.023517674,-0.026046092,3.0,-0.772474,-3.0,3.0,3.0,-3.0,-3.0,-1.7440931,-3.0,-3.0,0.05942811,-3.0,3.0,-0.60396487,-3.0,3.0,3.0,-3.0,-3.0,-1.6403598,-3.0,-3.0,0.15506397,-3.0
2025-06-06 14:10:36.457,0.0035788377,0.020644385,0.014602705,-0.030759173,-0.021413026,0.03449397,0.0,0.0,0.0,0.017227259,-0.049079027,-0.21058092,-0.08899326,0.12088669,0.56870013,-0.2628375,-0.107788235,-0.32628,-0.32338154,0.055393267,-0.12055783,-0.26019788,0.027979193,-0.025340151,0.02480437,-0.06838521,-0.05435896,-0.057123303,0.0035187115,0.08932869,-0.07394371,-0.0171037,-0.027823502,0.0025566125,3.0,-0.60396487,-3.0,3.0,3.0,-3.0,-3.0,-1.6403598,-3.0,-3.0,0.15506397,-3.0,3.0,-0.67861956,-3.0,3.0,3.0,-3.0,-3.0,-1.6780386,-3.0,-3.0,0.11903633,-3.0
2025-06-06 14:10:36.477,-0.029860571,0.007893491,0.018612752,-0.030018901,0.023982285,-0.004701173,0.0,0.0,0.0,0.017192526,-0.030855643,-0.20975168,-0.08645264,0.11696494,0.5824181,-0.2553428,-0.10807043,-0.32535243,-0.31782955,0.044156916,-0.11736714,-0.25417307,0.0146312285,0.035267636,-0.07014725,-0.030888857,-0.018892331,0.07184013,0.0077392966,0.072968535,-0.07066526,0.0061350535,-0.016172105,-0.030808898,3.0,-0.67861956,-3.0,3.0,3.0,-3.0,-3.0,-1.6780386,-3.0,-3.0,0.11903633,-3.0,3.0,-0.6820583,-3.0,3.0,3.0,-3.0,-3.0,-1.7539257,-3.0,-3.0,0.16806261,-3.0
2025-06-06 14:10:36.497,0.012465219,0.04635122,-0.033584647,-0.07398067,0.0015109251,-0.023952797,0.0,0.0,0.0,0.017137818,-0.028761506,-0.19733992,-0.07247051,0.113626905,0.569558,-0.2682164,-0.093730405,-0.3076347,-0.325585,0.05074787,-0.12358699,-0.27200207,0.0004980239,-0.07396217,-0.06767351,0.044060472,0.03813093,0.06845456,-0.04008004,0.024087863,0.03418493,-0.06377618,0.023446208,-0.07079109,3.0,-0.6820583,-3.0,3.0,3.0,-3.0,-3.0,-1.7539257,-3.0,-3.0,0.16806261,-3.0,3.0,-0.6544426,-3.0,3.0,3.0,-3.0,-3.0,-1.6424252,-3.0,-3.0,0.122881666,-3.0
2025-06-06 14:10:36.519,0.03600691,-0.024232304,-0.013032106,-0.088495895,0.044964958,-0.013255176,0.0,0.0,0.0,0.017135898,-0.04435469,-0.21308467,-0.07936983,0.10734657,0.5732522,-0.25614068,-0.110279255,-0.31423372,-0.32351243,0.041224048,-0.10884775,-0.27137485,0.056501973,0.007585596,-0.050989974,0.031958897,-0.017148482,-0.0688997,-0.0683032,-0.060421105,-0.047916338,-0.05162275,0.049107213,0.038404107,3.0,-0.6544426,-3.0,3.0,3.0,-3.0,-3.0,-1.6424252,-3.0,-3.0,0.122881666,-3.0,3.0,-0.7013028,-3.0,3.0,3.0,-3.0,-3.0,-1.6878328,-3.0,-3.0,0.037311867,-3.0
2025-06-06 14:10:36.537,0.0511871,0.014133017,-0.03469107,-0.07573803,0.0034468407,0.0075934487,0.0,0.0,0.0,0.017123194,-0.03519926,-0.20606129,-0.08396435,0.12018812,0.57738996,-0.26537734,-0.09618255,-0.31607997,-0.31195572,0.04216133,-0.12269029,-0.2697023,0.058048274,-0.068560235,0.028728276,0.05181978,-0.059202377,-0.003060311,-0.0113418205,-0.025603764,0.043169048,-0.02974498,0.052379966,0.04295101,3.0,-0.7013028,-3.0,3.0,3.0,-3.0,-3.0,-1.6878328,-3.0,-3.0,0.037311867,-3.0,3.0,-0.6137106,-3.0,3.0,3.0,-3.0,-3.0,-1.6707418,-3.0,-3.0,0.06252448,-3.0
2025-06-06 14:10:36.557,0.026032912,0.037826955,0.04963382,-0.024002016,0.010403196,0.02525445,0.0,0.0,0.0,0.01707145,-0.033651758,-0.20316865,-0.084443845,0.12615652,0.58120173,-0.26084128,-0.09506495,-0.2982037,-0.32563967,0.04800409,-0.119818345,-0.25248736,0.021957802,-0.010331716,0.056398638,-0.022998465,-0.05151153,-0.014662944,-0.07087487,-0.04003457,0.06770903,0.04915186,0.038417194,-0.055942822,3.0,-0.6137106,-3.0,3.0,3.0,-3.0,-3.0,-1.6707418,-3.0,-3.0,0.06252448,-3.0,3.0,-0.64991826,-3.0,3.0,3.0,-3.0,-3.0,-2.1553428,-3.0,-3.0,0.2693054,-3.0
2025-06-06 14:10:36.577,0.0172902,-0.007247933,0.0048700753,-0.08425487,-0.02099561,-0.018858634,0.0,0.0,0.0,0.016991112,-0.037813444,-0.20451139,-0.07960842,0.109696135,0.5813347,-0.26506743,-0.100872844,-0.31282282,-0.3134221,0.055999514,-0.12923297,-0.26843226,0.0011710284,-0.026688797,0.06523977,-0.069575466,-0.020841202,-0.00078631914,0.055110414,-0.06154428,0.0017681054,0.01104777,-0.021943027,0.020397248,3.0,-0.64991826,-3.0,3.0,3.0,-3.0,-3.0,-2.1553428,-3.0,-3.0,0.2693054,-3.0,3.0,-0.8193308,-3.0,3.0,3.0,-3.0,-3.0,-1.7802669,-3.0,-3.0,0.00906755,-3.0
2025-06-06 14:10:36.597,0.010170998,0.03142676,0.038075432,-0.05318008,0.0048575257,0.028792055,0.0,0.0,0.0,0.017114716,-0.047206275,-0.20634733,-0.08078922,0.12277295,0.5829083,-0.26062635,-0.0910934,-0.32664534,-0.32303548,0.044063766,-0.1208007,-0.26316032,-0.07420568,0.053601436,0.038307365,0.04452975,-0.0007745199,-0.034210816,-0.037210252,0.059150163,0.03617539,-0.073054835,-0.04350858,0.024262974,3.0,-0.8193308,-3.0,3.0,3.0,-3.0,-3.0,-1.7802669,-3.0,-3.0,0.00906755,-3.0,3.0,-0.6385104,-3.0,3.0,3.0,-3.0,-3.0,-1.8780683,-3.0,-3.0,0.11783843,-3.0
2025-06-06 14:10:36.620,0.018117933,-0.025235236,0.037174117,-0.03934088,0.0135975825,0.03121865,0.0,0.0,0.0,0.017183648,-0.032361496,-0.19692251,-0.08934345,0.12293348,0.5857238,-0.2757604,-0.09874034,-0.3418384,-0.31097054,0.042872585,-0.117319375,-0.252251,-0.00082526566,-0.055326957,0.07235168,0.014850977,-0.033527277,-0.0027932692,-0.027880551,-0.06270245,-0.039426662,0.024836956,-0.04029982,0.024091555,3.0,-0.6385104,-3.0,3.0,3.0,-3.0,-3.0,-1.8780683,-3.0,-3.0,0.11783843,-3.0,3.0,-0.69724697,-3.0,3.0,3.0,-3.0,-3.0,-2.0128863,-3.0,-3.0,0.19178511,-3.0
2025-06-06 14:10:36.637,0.01925873,0.022508787,0.034984577,-0.075952545,0.07036919,0.03988859,0.0,0.0,0.0,0.017196849,-0.03320178,-0.21611376,-0.08565661,0.12154273,0.57956576,-0.26687565,-0.10342506,-0.33465523,-0.31198066,0.051527116,-0.11449458,-0.26680243,0.0628685,0.010504512,0.031287298,-0.069571696,-0.068194024,-0.022153242,-0.03308539,0.0001687956,-0.029678898,0.04470751,-0.02901389,-0.006545228,3.0,-0.69724697,-3.0,3.0,3.0,-3.0,-3.0,-2.0128863,-3.0,-3.0,0.19178511,-3.0,3.0,-0.7053439,-3.0,3.0,3.0,-3.0,-3.0,-1.9003594,-3.0,-3.0,0.16330989,-3.0
2025-06-06 14:10:36.657,-0.011612649,0.002967581,-0.0037634752,-0.016868109,0.007940909,0.03854618,0.0,0.0,0.0,0.017272329,-0.035993706,-0.19892782,-0.08402789,0.111936525,0.5863959,-0.26839057,-0.092694774,-0.33912194,-0.31302357,0.058200177,-0.1161689,-0.2556278,-0.069504514,0.05452423,0.0036547158,-0.05238259,0.03024312,0.0349627,0.05621662,-0.0029470085,-0.017796852,0.053992964,0.0619994,-0.042877663,3.0,-0.7053439,-3.0,3.0,3.0,-3.0,-3.0,-1.9003594,-3.0,-3.0,0.16330989,-3.0,3.0,-0.76834744,-3.0,3.0,3.0,-3.0,-3.0,-1.904056,-3.0,-3.0,0.14293839,-3.0
2025-06-06 14:10:36.677,-0.0072969655,0.008586422,0.014950166,-0.053248636,0.020736,0.044091463,0.0,0.0,0.0,0.017346745,-0.048226193,-0.20936172,-0.07640641,0.105779774,0.58570427,-0.25698563,-0.10918956,-0.34582496,-0.32656285,0.048146956,-0.11910801,-0.26838472,0.018116558,0.05229809,0.042368203,0.009746087,0.037235435,0.030872647,-0.021150442,0.020548454,0.061560232,-0.0005591692,0.039472476,-0.046131004,3.0,-0.76834744,-3.0,3.0,3.0,-3.0,-3.0,-1.904056,-3.0,-3.0,0.14293839,-3.0,3.0,-0.7194764,-3.0,3.0,3.0,-3.0,-3.0,-1.9904577,-3.0,-3.0,0.17983766,-3.0
2025-06-06 14:10:36.697,-0.0026816346,0.03336334,0.007236045,-0.010681538,0.02458135,0.00061265763,0.0,0.0,0.0,0.017405136,-0.036422994,-0.20410347,-0.07553813,0.1139087,0.5832426,-0.26569057,-0.11117898,-0.3553587,-0.3113045,0.04822356,-0.116601914,-0.26036793,0.020049302,0.07333819,-0.034797855,-0.024202533,0.06372671,0.07007942,0.04966207,-0.049368564,-0.043034803,0.07033958,-0.01495905,0.011241085,3.0,-0.7194764,-3.0,3.0,3.0,-3.0,-3.0,-1.9904577,-3.0,-3.0,0.17983766,-3.0,3.0,-0.7596189,-3.0,3.0,3.0,-3.0,-3.0,-1.8503492,-3.0,-3.0,0.128927,-3.0
2025-06-06 14:10:36.720,0.006554673,0.042356875,-0.022691173,-0.06058227,0.002878607,-0.03783693,0.0,0.0,0.0,0.017496068,-0.04558757,-0.20373431,-0.07377638,0.1089526,0.5831828,-0.25603437,-0.10793728,-0.35299808,-0.3173252,0.05653374,-0.10764023,-0.27365837,0.007661825,-0.027452944,-0.067312725,0.07175665,0.0008508441,-0.06656186,-0.050714172,0.004163776,0.024670493,0.055613473,0.009090289,0.033997346,3.0,-0.7596189,-3.0,3.0,3.0,-3.0,-3.0,-1.8503492,-3.0,-3.0,0.128927,-3.0,3.0,-0.6616836,-3.0,3.0,3.0,-3.0,-3.0,-1.6859239,-3.0,-3.0,0.07704349,-3.0
2025-06-06 14:10:36.738,-0.00801977,-0.04245035,0.028281908,-0.065720364,-0.014630981,0.0077664177,0.0,0.0,0.0,0.01755779,-0.044554904,-0.21413232,-0.08496037,0.11465189,0.5706395,-0.2673983,-0.10672886,-0.33872467,-0.31448302,0.05077345,-0.11041028,-0.26136672,0.0658417,0.022374561,-0.06481315,-0.057087667,0.02688993,-0.07448133,0.03049702,0.05532464,-0.030252274,-0.0016931476,0.011874018,0.05249614,3.0,-0.6616836,-3.0,3.0,3.0,-3.0,-3.0,-1.6859239,-3.0,-3.0,0.07704349,-3.0,3.0,-0.6599907,-3.0,3.0,3.0,-3.0,-3.0,-1.9459302,-3.0,-3.0,0.17249958,-3.0
2025-06-06 14:10:36.758,0.039433535,0.029758053,-0.011725319,-0.09261764,-0.0038415468,0.04327886,0.0,0.0,0.0,0.017514363,-0.03202006,-0.21041955,-0.07580139,0.12158329,0.5721394,-0.27095336,-0.095874004,-0.3345435,-0.31202614,0.04286017,-0.11599708,-0.26783,0.054768126,0.07304877,0.069506705,-0.018357005,0.034905847,-0.047667794,0.04554249,-0.0005360088,-0.051773384,0.016398119,-0.029432427,0.021223007,3.0,-0.6599907,-3.0,3.0,3.0,-3.0,-3.0,-1.9459302,-3.0,-3.0,0.17249958,-3.0,3.0,-0.754179,-3.0,3.0,3.0,-3.0,-3.0,-1.5796518,-3.0,-3.0,0.0065913945,-3.0
2025-06-06 14:10:36.778,0.019998137,-0.05610972,0.044879477,-0.015862392,0.034174725,-0.013650743,0.0,0.0,0.0,0.017517094,-0.03139755,-0.2008892,-0.07816821,0.11025596,0.575634,-0.2740178,-0.11270031,-0.33200163,-0.32438335,0.051941253,-0.114617474,-0.26937497,-0.03319145,0.040779583,0.04041417,0.06036617,-0.050605245,0.04520407,0.055644836,-0.007135103,-0.022334887,0.0583773,-0.05551726,-0.0617039,3.0,-0.754179,-3.0,3.0,3.0,-3.0,-3.0,-1.5796518,-3.0,-3.0,0.0065913945,-3.0,3.0,-0.6103026,-3.0,3.0,3.0,-3.0,-3.0,-2.0293803,-3.0,-3.0,0.32409972,-3.0
2025-06-06 14:10:36.798,-0.059051413,-0.03441149,-0.037865467,-0.060075555,-0.010054403,-0.024701668,0.0,0.0,0.0,0.017428724,-0.041688453,-0.21551247,-0.089681685,0.12323862,0.58775395,-0.2623887,-0.10703551,-0.32687354,-0.32653844,0.046079233,-0.123342715,-0.2700507,-0.057391237,0.06982257,0.004799779,-0.010727567,-0.03697149,-0.02695519,0.034976702,-0.0610041,-0.026157094,-0.0317561,0.006948951,-0.026308984,3.0,-0.6103026,-3.0,3.0,3.0,-3.0,-3.0,-2.0293803,-3.0,-3.0,0.32409972,-3.0,3.0,-0.9381107,-3.0,3.0,3.0,-3.0,-3.0,-1.4907602,-3.0,-3.0,-0.12243034,-3.0
2025-06-06 14:10:36.821,-0.008088411,-0.002674023,-0.016772322,-0.011380709,0.07146923,-0.041907232,0.0,0.0,0.0,0.017504517,-0.031841427,-0.2008528,-0.08185324,0.11019685,0.5872317,-0.26170853,-0.11153559,-0.32592538,-0.31045887,0.044170555,-0.11947366,-0.26045924,-0.023660414,-0.048244353,0.05351595,-0.068125576,-0.061010864,-0.06440236,-0.020205192,0.09556621,0.06723227,0.06869015,-0.02769498,0.019474167,3.0,-0.9381107,-3.0,3.0,3.0,-3.0,-3.0,-1.4907602,-3.0,-3.0,-0.12243034,-3.0,3.0,-0.37366384,-3.0,3.0,3.0,-3.0,-3.0,-1.573275,-3.0,-3.0,0.18175639,-3.0
2025-06-06 14:10:36.839,0.038257416,0.039424635,0.04796711,-0.081283204,-0.0088598775,-0.0011137448,0.0,0.0,0.0,0.017453838,-0.0348008,-0.20004638,-0.07109411,0.10651094,0.5801727,-0.27064052,-0.10486838,-0.3047303,-0.32034364,0.05751724,-0.112142526,-0.26718375,0.052086074,0.011024019,0.06759239,0.026649041,0.03740429,0.055534236,0.020809557,0.016483799,-0.052274458,0.06299868,0.069403484,0.053249266,3.0,-0.37366384,-3.0,3.0,3.0,-3.0,-3.0,-1.573275,-3.0,-3.0,0.18175639,-3.0,3.0,-0.8005262,-3.0,3.0,3.0,-3.0,-3.0,-2.095642,-3.0,-3.0,0.17000093,-3.0
2025-06-06 14:10:36.858,-0.03239376,0.021164427,-0.008979482,-0.013362296,0.012311608,-0.030621452,0.0,0.0,0.0,0.017334566,-0.04079789,-0.20063722,-0.08623786,0.12077812,0.56914115,-0.27590594,-0.10636378,-0.3133599,-0.31050378,0.056248784,-0.12715709,-0.25761434,0.04497834,0.055923782,-0.011149072,-0.07112644,0.02607373,-0.0595302,0.024484938,-0.010453978,0.055801246,0.02958973,0.04940895,0.020095797,3.0,-0.8005262,-3.0,3.0,3.0,-3.0,-3.0,-2.095642,-3.0,-3.0,0.17000093,-3.0,3.0,-0.73767143,-3.0,3.0,3.0,-3.0,-3.0,-1.7355269,-3.0,-3.0,0.031147376,-3.0
2025-06-06 14:10:36.878,0.004908473,0.0017940501,0.025864044,-0.055088565,-0.006775091,-0.0047621503,0.0,0.0,0.0,0.01741194,-0.041025985,-0.20147929,-0.07799151,0.11505605,0.57706255,-0.26500097,-0.109147936,-0.31790325,-0.3156208,0.050675806,-0.112319864,-0.25379696,0.059291825,0.024230389,0.014205722,0.0638289,0.034757223,0.030665213,-0.040704492,-0.033897962,0.031900316,0.06932258,-0.058166977,-0.023004677,3.0,-0.73767143,-3.0,3.0,3.0,-3.0,-3.0,-1.7355269,-3.0,-3.0,0.031147376,-3.0,3.0,-0.6167639,-3.0,3.0,3.0,-3.0,-3.0,-1.9540781,-3.0,-3.0,0.24806188,-3.0
2025-06-06 14:10:36.898,0.039920636,-0.011199845,-0.039351627,-0.060397886,0.04891839,0.026436383,0.0,0.0,0.0,0.017458716,-0.042248104,-0.21582174,-0.08876926,0.10841817,0.5816336,-0.2686353,-0.09896487,-0.330404,-0.3279311,0.044314593,-0.11456023,-0.2628892,0.07194648,-0.049701825,0.07490601,0.064732224,0.017673055,0.00891539,-0.020489065,-0.025872149,0.061343342,-0.06414822,-0.059027236,0.035834618,3.0,-0.6167639,-3.0,3.0,3.0,-3.0,-3.0,-1.9540781,-3.0,-3.0,0.24806188,-3.0,3.0,-0.70426434,-3.0,3.0,3.0,-3.0,-3.0,-1.576997,-3.0,-3.0,0.011107758,-3.0
2025-06-06 14:10:36.920,0.034778427,0.040699035,-0.033338316,-0.06416855,0.031930245,-0.0019287961,0.0,0.0,0.0,0.017549086,-0.039358955,-0.21899816,-0.075347595,0.11243547,0.57739186,-0.2744735,-0.09451522,-0.32535282,-0.32880536,0.054346003,-0.11546313,-0.25924197,-0.02279412,-0.032417677,0.045766965,0.07358972,-0.051982146,-0.0052971817,0.027737344,0.062139172,0.02815692,0.06567896,0.032965958,-0.023672277,3.0,-0.70426434,-3.0,3.0,3.0,-3.0,-3.0,-1.576997,-3.0,-3.0,0.011107758,-3.0,3.0,-0.59854645,-3.0,3.0,3.0,-3.0,-3.0,-1.633296,-3.0,-3.0,0.14274715,-3.0
2025-06-06 14:10:36.939,0.009700684,0.05948177,0.009216603,-0.008429286,0.03109709,-0.045220707,0.0,0.0,0.0,0.017497081,-0.040044826,-0.21635514,-0.08877321,0.116554454,0.5697118,-0.27546015,-0.09299447,-0.32490554,-0.31655803,0.042651616,-0.12171276,-0.27120143,-0.038555194,-0.05315185,-0.046924505,-0.06156347,-0.0434035,0.06932371,0.05147405,-0.041531835,0.01936479,-0.04145477,-0.055083267,-0.0501478,3.0,-0.59854645,-3.0,3.0,3.0,-3.0,-3.0,-1.633296,-3.0,-3.0,0.14274715,-3.0,3.0,-0.6687453,-3.0,3.0,3.0,-3.0,-3.0,-1.82067,-3.0,-3.0,0.20273913,-3.0
2025-06-06 14:10:36.958,0.008583151,-0.033589736,0.016896904,-0.046427272,0.047461804,-0.041925184,0.0,0.0,0.0,0.017376019,-0.02911698,-0.20032999,-0.0884395,0.106546395,0.5779931,-0.25857353,-0.09964595,-0.31396273,-0.3189443,0.04336246,-0.111280724,-0.27424625,0.036263198,-0.051790446,0.07008034,0.03444141,-0.03200897,-0.016562553,0.008061588,0.004029327,-0.021561192,-0.013422566,-0.034605302,0.030536553,3.0,-0.6687453,-3.0,3.0,3.0,-3.0,-3.0,-1.82067,-3.0,-3.0,0.20273913,-3.0,3.0,-0.68152833,-3.0,3.0,3.0,-3.0,-3.0,-1.750714,-3.0,-3.0,0.09451093,-3.0
