openverse-orca/OrcaGym/log/simulation_log_20250721_142337.csv
timestamp,sim_time,physics_step,control_step,imu_angle_roll,imu_angle_pitch,imu_angle_yaw,imu_angular_velocity_roll,imu_angular_velocity_pitch,imu_angular_velocity_yaw,imu_acc_x,imu_acc_y,imu_acc_z,fl_joint1_pos,fl_joint1_vel,fl_joint1_torque,fl_joint2_pos,fl_joint2_vel,fl_joint2_torque,fl_joint3_pos,fl_joint3_vel,fl_joint3_torque,fr_joint1_pos,fr_joint1_vel,fr_joint1_torque,fr_joint2_pos,fr_joint2_vel,fr_joint2_torque,fr_joint3_pos,fr_joint3_vel,fr_joint3_torque,hl_joint1_pos,hl_joint1_vel,hl_joint1_torque,hl_joint2_pos,hl_joint2_vel,hl_joint2_torque,hl_joint3_pos,hl_joint3_vel,hl_joint3_torque,hr_joint1_pos,hr_joint1_vel,hr_joint1_torque,hr_joint2_pos,hr_joint2_vel,hr_joint2_torque,hr_joint3_pos,hr_joint3_vel,hr_joint3_torque,fl_force_x,fl_force_y,fl_force_z,fr_force_x,fr_force_y,fr_force_z,hl_force_x,hl_force_y,hl_force_z,hr_force_x,hr_force_y,hr_force_z,fl_hip_action,fl_thigh_action,fl_calf_action,fr_hip_action,fr_thigh_action,fr_calf_action,hl_hip_action,hl_thigh_action,hl_calf_action,hr_hip_action,hr_thigh_action,hr_calf_action
2025-07-21 14:23:37.347,0.0,0,0,0.03053957,-0.007351121,-0.00339216,0.008597734,0.019733943,0.020587146,2.533225,1.1250898,0.0,0.0,-0.001271218,-0.0025469786,0.0070961374,-0.0035427685,-0.00863768,0.003684608,-0.007073556,-0.0081591485,0.0047296784,-0.0039075813,-0.004851308,-0.0054320088,0.019146817,0.07391631,0.015614059,-0.008164152,-0.03283207,0.0067607667,0.0073546334,0.06209732,-0.073097095,-0.038297597,0.039883487,0.01271063,0.0,0.0,0.0,0.0,0.0,0.0,0.0,0.0,0.0,0.0,0.0,0.0,2.0,2.0,-2.0,-2.0,2.0,-2.0,2.0,0.60590774,-0.6953431,-2.0,0.15331446,2.0
2025-07-21 14:23:37.358,0.02,20,1,0.03577971,0.05905047,-0.022694688,-0.013040303,0.031952646,-0.02318,0.0,0.0,0.0,0.0,0.013141305,0.05628849,-0.056921463,0.00050958316,0.059180863,-0.043205723,0.0038973377,0.022779463,-0.014382216,-0.007604638,-0.0058524637,0.04939733,0.05297068,0.23089205,-0.21149746,-0.05096801,0.25511122,-0.18320085,0.013863635,0.027517641,-0.058278956,-0.098423846,0.03192221,0.1666096,2.0,2.0,-2.0,-2.0,2.0,-2.0,2.0,0.60590774,-0.6953431,-2.0,0.15331446,2.0,2.0,0.2307849,-2.0,-2.0,-1.0589483,-2.0,2.0,-1.6233282,-2.0,-2.0,1.5921617,-2.0
2025-07-21 14:23:37.382,0.04,40,2,0.014664818,-0.092716806,-0.022200992,-0.024772028,0.010176545,-0.00034459642,0.0,0.0,0.0,-5.7910805e-05,0.01738631,0.09551712,-0.07880716,-0.015260937,0.088730335,-0.07165381,0.023764454,0.00045479953,-0.047503725,-0.025819872,0.042186394,0.010520351,0.040434565,0.04510875,0.06143447,-0.048353508,-0.039893527,0.08443725,0.042457134,-0.1266669,-0.103063874,0.010697823,0.1876223,-0.19431265,2.0,0.2307849,-2.0,-2.0,-1.0589483,-2.0,2.0,-1.6233282,-2.0,-2.0,1.5921617,-2.0,2.0,2.0,-2.0,-2.0,0.71599877,2.0,2.0,-0.44517818,-2.0,-2.0,0.88899344,-2.0
2025-07-21 14:23:37.399,0.06,60,3,0.21788242,0.06605044,-0.017314894,0.055252153,-0.0033830842,0.025162214,0.0,0.0,0.0,0.0001734563,0.025405016,0.08416617,-0.06537027,-0.009736326,0.05087485,-0.020006364,0.057431124,-0.033962063,-0.056544144,-0.038179997,0.10093563,-0.03489189,0.06428217,-0.06457118,0.07912095,-0.042046156,-0.10135216,0.16752213,0.09890596,-0.033279836,0.0722673,0.0899389,0.10273712,-0.048761707,2.0,2.0,-2.0,-2.0,0.71599877,2.0,2.0,-0.44517818,-2.0,-2.0,0.88899344,-2.0,2.0,-1.2433788,-2.0,-2.0,-0.79849935,2.0,2.0,-1.171876,2.0,-2.0,0.6039167,-2.0
2025-07-21 14:23:37.418,0.08,80,4,-0.034954198,0.01822722,-0.11650451,-0.0022590733,-0.045178194,-0.033291787,0.0,0.0,0.0,0.0004079071,0.019404456,0.06729469,-0.013165148,-0.04485581,0.016068893,0.06342384,0.061685625,-0.08270335,0.0034245208,-0.034012724,0.08623074,-0.0042061424,0.029651966,-0.019746248,0.05398621,-0.07088048,-0.070792034,0.25882208,-0.017477414,-0.0574169,0.16740449,-0.03355768,-0.026219118,0.18820956,2.0,-1.2433788,-2.0,-2.0,-0.79849935,2.0,2.0,-1.171876,2.0,-2.0,0.6039167,-2.0,2.0,1.302779,-2.0,-2.0,2.0,2.0,2.0,0.78850454,2.0,-2.0,-0.04299523,-2.0
2025-07-21 14:23:37.438,0.1,100,5,0.063214086,0.11983395,-0.0789563,-0.02325043,0.021871306,0.0069367173,0.0,0.0,0.0,0.0019995417,0.012674738,0.045361128,0.019749643,-0.059868388,0.040701877,0.12173057,0.08823699,-0.07439772,0.07249941,-0.023835026,0.08553818,0.0502169,-0.058431778,-0.023057241,0.15919124,-0.10886069,0.14567338,0.040414177,0.071551636,0.10665767,0.1328142,0.023328885,-0.01742739,0.15701456,2.0,1.302779,-2.0,-2.0,2.0,2.0,2.0,0.78850454,2.0,-2.0,-0.04299523,-2.0,2.0,-1.2981521,-2.0,-2.0,2.0,1.59848,2.0,-1.1422246,2.0,-2.0,-1.6803305,-2.0
2025-07-21 14:23:37.461,0.12000000000000001,120,6,0.047814254,-0.10250604,-0.109095186,0.005815803,-0.008893064,0.010065765,0.0,0.0,0.0,0.0042902804,0.008089685,0.024942586,0.072817296,-0.07726366,0.14131966,0.1382791,0.105783515,-0.08658174,0.12741773,-0.024854627,0.07207881,0.09032147,-0.030043678,-0.11995374,0.09426681,-0.06187812,0.14118369,-0.005707589,0.08189638,-0.08795502,0.12606536,0.017207645,-0.1394893,0.17335638,2.0,-1.2981521,-2.0,-2.0,2.0,1.59848,2.0,-1.1422246,2.0,-2.0,-1.6803305,-2.0,2.0,2.0,-2.0,1.8060015,2.0,-2.0,2.0,-1.0400724,2.0,-2.0,-0.010280088,-2.0
2025-07-21 14:23:37.482,0.14,140,7,0.053657237,-0.14561827,-0.05868514,0.0030238295,-0.020831726,0.04955606,0.0,0.0,0.0,0.006649171,0.005741848,-0.001830089,0.08287935,-0.08242057,0.18859556,0.15398873,0.10463298,-0.10271007,0.17515503,-0.017928338,0.051951975,0.14479928,-0.06758975,-0.028862894,0.071663305,0.0473379,0.04263599,-0.037091263,0.01200393,-0.13686948,0.1418369,0.047508847,0.014884804,0.16454275,2.0,2.0,-2.0,1.8060015,2.0,-2.0,2.0,-1.0400724,2.0,-2.0,-0.010280088,-2.0,2.0,1.7157166,-2.0,2.0,2.0,-2.0,2.0,-2.0,0.89777464,-2.0,-1.740393,-2.0
2025-07-21 14:23:37.498,0.16,160,8,0.0014733908,-0.38039193,0.0033557937,0.027302913,-0.012030447,0.017943949,0.0,0.0,0.0,0.008851511,0.019473484,-0.00093411613,0.0676449,-0.094938435,0.20142305,0.12706517,0.12812445,-0.16136894,0.18378663,-0.01530527,0.022070592,0.18941881,-0.033152457,-0.058631852,-0.08908922,0.023604695,-0.023769384,-0.041551974,0.04399847,-0.2293084,0.012670429,0.063221924,-0.049778987,0.105875075,2.0,1.7157166,-2.0,2.0,2.0,-2.0,2.0,-2.0,0.89777464,-2.0,-1.740393,-2.0,2.0,2.0,-2.0,0.94222677,2.0,-2.0,2.0,-1.3381417,-2.0,-2.0,-0.84799916,-2.0
2025-07-21 14:23:37.519,0.18,180,9,0.10541357,-0.23385154,0.11074431,0.016342482,-0.08732886,0.0069571687,0.0,0.0,0.0,0.009730313,0.02586395,0.016051948,0.039073005,-0.06473082,0.2278008,0.11274967,0.13460608,-0.19307078,0.18658312,-0.011040677,-0.008297403,0.22062783,-0.044513144,0.017207129,-0.096855186,0.061256804,0.08817577,-0.11230026,-0.042738635,0.0020610122,0.09737538,0.016677696,-0.034102023,-0.013262722,2.0,2.0,-2.0,0.94222677,2.0,-2.0,2.0,-1.3381417,-2.0,-2.0,-0.84799916,-2.0,2.0,-0.51600134,-2.0,-2.0,1.2711214,-2.0,2.0,-1.2733853,-2.0,-2.0,0.6927578,-2.0
2025-07-21 14:23:37.539,0.19999999999999998,200,10,-0.07919726,-0.11880151,-0.005623667,0.005070625,-0.06354595,-0.014014407,0.0,0.0,0.0,0.009050218,0.030566704,0.044898484,0.030300653,-0.06485648,0.2565489,0.06891942,0.13449945,-0.19292177,0.20328292,-0.0029550504,0.018058607,0.21650104,0.048292052,0.0314206,-0.043195758,-0.0678324,0.016532402,-0.10808376,-0.0765527,-0.039550483,0.0096264165,-0.060320895,0.04451011,0.044742055,2.0,-0.51600134,-2.0,-2.0,1.2711214,-2.0,2.0,-1.2733853,-2.0,-2.0,0.6927578,-2.0,2.0,2.0,-0.93382925,-2.0,2.0,-2.0,2.0,-1.3130994,-2.0,2.0,-0.32379752,-2.0
2025-07-21 14:23:37.559,0.21999999999999997,220,11,0.05953354,-0.027558988,-0.016431551,0.04066828,-0.10947841,0.032808203,0.0,0.0,0.0,0.008578279,0.021883171,0.07164015,0.008847383,-0.07528813,0.28204185,0.049089786,0.12211126,-0.17724134,0.18921992,-0.006253214,0.044197008,0.20835492,-0.0565499,0.055943586,-0.07846206,-0.01523978,0.10861754,-0.06610486,-0.050965346,0.0029294146,-0.014829892,0.055168338,0.035192847,-0.01979064,2.0,2.0,-0.93382925,-2.0,2.0,-2.0,2.0,-1.3130994,-2.0,2.0,-0.32379752,-2.0,2.0,0.97245383,-2.0,-2.0,2.0,-2.0,2.0,-0.6634066,-2.0,2.0,0.46354443,-2.0
2025-07-21 14:23:37.587,0.23999999999999996,240,12,0.1189331,0.023571437,-0.044456992,0.045566153,-0.067761876,0.017410502,0.0,0.0,0.0,0.008621561,0.019608209,0.10764007,-0.025187695,-0.058052566,0.31173417,0.004911575,0.12354033,-0.14411004,0.17388685,-0.0038000615,0.06830931,0.18299569,0.0660171,0.13861151,-0.041373942,0.012909568,0.042931974,-0.122996375,-0.033467233,0.07643258,-0.06692289,-0.0067304177,0.1722973,-0.054739412,2.0,0.97245383,-2.0,-2.0,2.0,-2.0,2.0,-0.6634066,-2.0,2.0,0.46354443,-2.0,2.0,0.77538604,0.85849625,-2.0,2.0,-2.0,2.0,-0.7436094,-2.0,2.0,-0.5895975,-2.0
2025-07-21 14:23:37.601,0.25999999999999995,260,13,-0.0327788,-0.04664371,-0.015686957,0.09383887,-0.07525503,-0.00031481904,0.0,0.0,0.0,0.008902592,0.040541634,0.13842714,-0.007384375,-0.057597604,0.3576217,-0.007953397,0.1406875,-0.111352235,0.15135445,0.003143924,0.11614143,0.17141704,0.012139605,-0.020028608,0.09446473,0.05781696,0.02858392,-0.0968204,0.031734988,0.03987185,-0.07828643,0.032294042,0.05611308,-0.024883248,2.0,0.77538604,0.85849625,-2.0,2.0,-2.0,2.0,-0.7436094,-2.0,2.0,-0.5895975,-2.0,-2.0,1.2600195,-2.0,-2.0,1.8412125,-2.0,2.0,-0.121548116,-2.0,2.0,0.54382557,-2.0
2025-07-21 14:23:37.621,0.27999999999999997,280,14,-0.06264977,0.037291195,-0.0445935,0.039658323,-0.020193642,-0.011132887,0.0,0.0,0.0,0.009271231,0.03951083,0.16612509,-0.036939215,-0.06345778,0.38610342,-0.030490257,0.13177046,-0.06521412,0.15324497,0.0064290883,0.13368478,0.1364501,-0.016126879,0.04766652,-0.18778448,-0.06385265,0.11236525,-0.002896607,-0.02188891,0.03217758,-0.0016591167,-0.05818088,0.17651828,-0.1394305,-2.0,1.2600195,-2.0,-2.0,1.8412125,-2.0,2.0,-0.121548116,-2.0,2.0,0.54382557,-2.0,-2.0,2.0,-2.0,-2.0,2.0,-2.0,2.0,-0.20963842,-2.0,2.0,0.7055853,-2.0
2025-07-21 14:23:37.656,0.3,300,15,-0.0046897894,0.043360405,-0.041020848,0.08971109,-0.068836525,-0.010585497,0.0,0.0,0.0,0.009625263,0.017318824,0.20100617,-0.067296155,-0.062361505,0.41856068,-0.04527717,0.13240637,-0.036528286,0.13730447,0.00041273094,0.18806073,0.1181872,-0.09310749,0.13489677,-0.019640828,-0.06763692,0.088064715,-0.063076355,3.999201e-05,0.13021562,-0.0917772,-0.06684485,0.10230618,0.0060434625,-2.0,2.0,-2.0,-2.0,2.0,-2.0,2.0,-0.20963842,-2.0,2.0,0.7055853,-2.0,-2.0,2.0,-2.0,-2.0,2.0,-2.0,2.0,-0.026082605,-2.0,2.0,0.34782976,-2.0
2025-07-21 14:23:37.670,0.32,320,16,-0.025039667,0.011767114,0.011050464,0.0014691226,-0.03652478,0.012990938,0.0,0.0,0.0,0.010120574,0.021960443,0.24174504,-0.08810249,-0.068426326,0.44458786,-0.06345004,0.115774356,-0.004145296,0.11385007,0.00937859,0.23012042,0.0852849,-0.09008621,0.10235448,0.023609081,0.033796184,0.1140373,-0.023012267,0.06948026,0.14184102,-0.001209603,0.07015343,0.08634833,0.024768796,-2.0,2.0,-2.0,-2.0,2.0,-2.0,2.0,-0.026082605,-2.0,2.0,0.34782976,-2.0,-2.0,2.0,-2.0,-2.0,2.0,-2.0,2.0,-0.25228333,-2.0,2.0,0.56023365,-2.0
2025-07-21 14:23:37.690,0.34,340,17,0.031147245,-0.005892075,-0.05439526,0.002400413,-0.07574351,-0.038569305,0.0,0.0,0.0,0.010555922,0.0015338905,0.27197096,-0.09246682,-0.0776761,0.4777299,-0.08242026,0.13412954,0.031380635,0.11464737,0.012002508,0.25722384,0.0664696,0.034005463,0.044731673,-0.029337328,0.061098304,0.07281843,-0.050210964,-0.042160198,0.08310826,-0.08473285,-0.05013019,0.07902594,-0.018029492,-2.0,2.0,-2.0,-2.0,2.0,-2.0,2.0,-0.25228333,-2.0,2.0,0.56023365,-2.0,-2.0,2.0,-2.0,-2.0,2.0,-2.0,2.0,0.35604241,-2.0,2.0,1.136203,-2.0
2025-07-21 14:23:37.716,0.36000000000000004,360,18,0.04913565,0.04648292,0.024843946,0.009463196,-0.095950894,-0.03159155,0.0,0.0,0.0,0.010882298,-0.0063774595,0.31518617,-0.11380653,-0.08206944,0.5029209,-0.08717714,0.12686689,0.042529844,0.10377084,0.02282039,0.28097323,0.067813136,-0.02473821,0.016826112,-0.015625374,-0.011912432,0.14222546,-0.035454486,0.014967421,0.11227259,0.028059617,0.016010344,0.10184155,-0.02571749,-2.0,2.0,-2.0,-2.0,2.0,-2.0,2.0,0.35604241,-2.0,2.0,1.136203,-2.0,-2.0,2.0,-2.0,-2.0,2.0,-2.0,2.0,-0.27443248,-2.0,2.0,0.910265,-2.0
2025-07-21 14:23:37.736,0.38000000000000006,380,19,0.054532275,-0.012093674,-0.00090168073,0.050373834,-0.04923387,0.0028772564,0.0,0.0,0.0,0.0112080015,-0.019231217,0.3332898,-0.13458909,-0.08552945,0.5403086,-0.09811239,0.11600063,0.065687835,0.1031802,0.010760272,0.31351346,0.050780956,0.043318566,0.07959669,-0.092703335,0.043019075,0.06407692,-0.04956183,-0.037447978,0.007607532,0.03381599,0.061852008,0.05401687,-0.060047824,-2.0,2.0,-2.0,-2.0,2.0,-2.0,2.0,-0.27443248,-2.0,2.0,0.910265,-2.0,-2.0,2.0,-2.0,-2.0,2.0,-2.0,2.0,0.3115122,-2.0,2.0,1.878211,-2.0
2025-07-21 14:23:37.750,0.4000000000000001,400,20,0.06634054,0.0047121043,-0.0783796,0.08254574,-0.07279836,-0.014110567,0.0,0.0,0.0,0.011662816,-0.015082708,0.35739714,-0.13986082,-0.079346485,0.567598,-0.10318263,0.13291429,0.105603404,0.1051923,0.015092776,0.33491537,0.05486679,0.0034363738,0.10785032,-0.053436425,-0.07853921,0.09883734,-0.041179,0.06305805,0.039369725,0.05272351,-0.03566239,0.07916438,0.02338486,-2.0,2.0,-2.0,-2.0,2.0,-2.0,2.0,0.3115122,-2.0,2.0,1.878211,-2.0,-2.0,2.0,-2.0,-2.0,2.0,-2.0,2.0,0.51886666,-2.0,2.0,0.90594536,-2.0
2025-07-21 14:23:37.771,0.4200000000000001,420,21,0.079256155,0.03806503,-0.028469326,0.06951291,-0.0020455476,-0.014689594,0.0,0.0,0.0,0.0125071965,-0.01621265,0.38345352,-0.1415154,-0.0893318,0.59082276,-0.09647579,0.13008009,0.12332344,0.09858752,0.015771592,0.35806635,0.061973188,0.04563447,0.08470064,-0.04080242,0.020940587,-0.007161991,0.083336316,0.0021473828,0.024284326,-0.0068404046,0.02276073,0.030538987,0.03386952,-2.0,2.0,-2.0,-2.0,2.0,-2.0,2.0,0.51886666,-2.0,2.0,0.90594536,-2.0,-2.0,2.0,-2.0,-2.0,2.0,-2.0,2.0,0.31619066,-2.0,2.0,1.293679,-2.0
2025-07-21 14:23:37.790,0.4400000000000001,440,22,0.028229672,0.025834348,-0.04192096,0.1079823,-0.023574365,0.029132286,0.0,0.0,0.0,0.013249447,-0.024619084,0.4157585,-0.14199401,-0.099931784,0.60445005,-0.08565401,0.13417785,0.13152789,0.09306132,0.018366698,0.38229442,0.05600983,-0.03236369,0.035701714,-0.026328104,-0.075077616,0.07944952,-0.0019394219,-0.048629228,-0.0018843046,0.0853835,-0.0678905,-0.012428178,0.029828671,-2.0,2.0,-2.0,-2.0,2.0,-2.0,2.0,0.31619066,-2.0,2.0,1.293679,-2.0,-2.0,2.0,-2.0,-2.0,2.0,-2.0,2.0,0.509496,-2.0,2.0,1.4905891,-2.0
2025-07-21 14:23:37.817,0.46000000000000013,460,23,0.12162895,0.025331985,-0.04481525,0.05156985,-0.04623433,-0.001974579,0.0,0.0,0.0,0.013674148,-0.021937167,0.43351066,-0.14466467,-0.10219132,0.61660326,-0.09066261,0.13481654,0.15731516,0.109548695,0.02541548,0.40127656,0.062196765,-0.02498987,0.10071912,0.011875365,0.06263424,0.023421679,0.0023108467,-0.04521415,-0.0104435,0.018765885,-0.02624138,0.017291652,0.0264973,-2.0,2.0,-2.0,-2.0,2.0,-2.0,2.0,0.509496,-2.0,2.0,1.4905891,-2.0,-2.0,2.0,-2.0,-2.0,2.0,-2.0,2.0,0.49508828,-2.0,2.0,1.4076724,-2.0
2025-07-21 14:23:37.833,0.48000000000000015,480,24,0.051491324,0.0141825965,0.014688867,0.09010764,-0.068408936,0.02772481,0.0,0.0,0.0,0.014029525,-0.033360813,0.44201392,-0.16080806,-0.0906709,0.6296649,-0.085768394,0.13345654,0.16931343,0.1214935,0.015662612,0.41519392,0.074533366,0.05057445,0.08970889,-0.038770843,0.066522844,0.09936919,0.0046442896,-0.017142313,0.056389533,0.09472273,0.042816773,0.08117653,-0.023045914,-2.0,2.0,-2.0,-2.0,2.0,-2.0,2.0,0.49508828,-2.0,2.0,1.4076724,-2.0,-2.0,2.0,-2.0,-2.0,2.0,-2.0,2.0,0.17464924,-2.0,2.0,1.6916511,-2.0
2025-07-21 14:23:37.853,0.5000000000000001,500,25,0.04634734,-0.0027208817,0.002930776,0.13800526,-0.07162473,-0.03037907,0.0,0.0,0.0,0.014259961,-0.0435359,0.46282992,-0.16243936,-0.106194414,0.64747167,-0.06984498,0.14346203,0.17532998,0.117981106,0.005011139,0.43072557,0.08786929,-0.052511215,0.053782295,-0.022419512,0.025481502,-0.033259574,0.072592124,0.06852823,0.08499703,0.020511521,0.05578819,0.05795999,0.014853471,-2.0,2.0,-2.0,-2.0,2.0,-2.0,2.0,0.17464924,-2.0,2.0,1.6916511,-2.0,-2.0,2.0,-2.0,-2.0,2.0,-2.0,2.0,0.25434792,-2.0,2.0,1.7057328,-2.0
2025-07-21 14:23:37.871,0.5200000000000001,520,26,0.11554089,-0.032492645,-0.017431036,0.13833521,-0.06786649,-0.014105574,0.0,0.0,0.0,0.014564612,-0.0412818,0.47672668,-0.16706568,-0.10986315,0.6642043,-0.07915643,0.14227127,0.18553087,0.14165816,0.009296579,0.44746354,0.10252545,-0.07769996,0.10799613,0.04249887,-0.07826987,0.066177204,0.049095288,-0.028963529,0.052218363,0.02883943,-0.005255414,0.034291994,0.011329387,-2.0,2.0,-2.0,-2.0,2.0,-2.0,2.0,0.25434792,-2.0,2.0,1.7057328,-2.0,-2.0,2.0,-2.0,-2.0,2.0,-2.0,2.0,0.56542045,-2.0,2.0,1.7719023,-2.0
2025-07-21 14:23:37.893,0.5400000000000001,540,27,-0.07765392,-0.20384501,0.0056053693,0.12520888,-0.0964742,-0.010409357,0.0,0.0,0.0,0.015041079,-0.047029473,0.49427807,-0.1705827,-0.11613008,0.6640664,-0.08277088,0.13949056,0.19143558,0.14902669,0.0032046142,0.46253797,0.12476303,0.025916835,-5.93965e-05,-0.077131525,0.05635364,-0.00976997,-0.07170256,0.028243126,0.07182798,0.06419456,-0.004894848,-0.02171717,0.07858353,-2.0,2.0,-2.0,-2.0,2.0,-2.0,2.0,0.56542045,-2.0,2.0,1.7719023,-2.0,-2.0,2.0,-2.0,-2.0,2.0,-2.0,2.0,0.46489614,-2.0,2.0,1.8254912,-2.0
2025-07-21 14:23:37.917,0.5600000000000002,560,28,-0.1890505,-0.033748426,0.03658207,0.0770975,-0.02131496,0.00049273827,0.0,0.0,0.0,0.014946954,-0.048264842,0.50173986,-0.18846358,-0.11413655,0.66917396,-0.08898213,0.11940741,0.2043596,0.15534686,-0.0024237272,0.46379313,0.12055471,0.030278075,0.051269107,0.014759851,0.047603108,0.006248516,0.011746102,-0.08711977,0.037701607,-0.014488158,-0.09695204,-0.0013490118,-0.07978769,-2.0,2.0,-2.0,-2.0,2.0,-2.0,2.0,0.46489614,-2.0,2.0,1.8254912,-2.0,-2.0,2.0,-2.0,-2.0,2.0,-2.0,2.0,0.37058443,-2.0,2.0,2.0,-2.0
2025-07-21 14:23:37.934,0.5800000000000002,580,29,-0.0815249,-0.038912512,-0.01151393,0.06315406,-0.028049517,-0.017250514,0.0,0.0,0.0,0.01463534,-0.050682552,0.51311696,-0.17755377,-0.13219994,0.6914287,-0.112565994,0.11143715,0.21293654,0.16795926,-9.550795e-05,0.48598218,0.10372724,0.055043127,-0.017284775,-0.07280427,0.030140314,0.0612124,-0.080967866,-0.06257667,0.07633842,0.0065260516,-0.05093014,0.026158009,-0.030094203,-2.0,2.0,-2.0,-2.0,2.0,-2.0,2.0,0.37058443,-2.0,2.0,2.0,-2.0,-2.0,2.0,-2.0,-2.0,2.0,-2.0,2.0,0.6842772,-2.0,2.0,2.0,-2.0
2025-07-21 14:23:37.952,0.6000000000000002,600,30,-0.07061083,0.038663015,0.004290209,0.04584301,-0.0950937,0.032032963,0.0,0.0,0.0,0.014992618,-0.06616172,0.51103646,-0.19026586,-0.12844606,0.68472534,-0.12026253,0.11734616,0.22210601,0.16737516,-0.0027717797,0.50499827,0.09278592,-0.0056626843,0.04472127,0.05675861,-0.033179257,-0.074634075,0.060442075,0.013121526,0.0776228,0.06024799,0.0639472,0.11703318,-0.05791697,-2.0,2.0,-2.0,-2.0,2.0,-2.0,2.0,0.6842772,-2.0,2.0,2.0,-2.0,-2.0,2.0,-2.0,-2.0,2.0,-2.0,2.0,0.22903666,-2.0,2.0,1.6395783,-2.0
2025-07-21 14:23:37.972,0.6200000000000002,620,31,-0.027907558,0.03866077,-0.037838124,0.025555983,-0.028873362,-0.0038994492,0.0,0.0,0.0,0.015421273,-0.06793458,0.52714854,-0.18964377,-0.124100596,0.69139344,-0.12064625,0.11926117,0.2287852,0.16230541,0.0051878574,0.50940526,0.08049231,0.0709536,0.03969238,0.02861768,0.038326137,0.020020993,-0.028220445,0.048830684,0.036024004,-0.0639099,0.04751016,-0.019528246,-0.03868606,-2.0,2.0,-2.0,-2.0,2.0,-2.0,2.0,0.22903666,-2.0,2.0,1.6395783,-2.0,-2.0,2.0,-2.0,-2.0,2.0,-2.0,2.0,1.060128,-2.0,2.0,2.0,-2.0
2025-07-21 14:23:37.992,0.6400000000000002,640,32,-0.046716634,0.029660087,-0.02625636,0.058007568,-0.024673857,-0.020066664,0.0,0.0,0.0,0.015854456,-0.04992588,0.5387014,-0.17958106,-0.12194901,0.6886407,-0.1128881,0.13361526,0.23968418,0.16328323,0.004080523,0.5244499,0.06564205,-0.020495564,-0.016503673,-0.040160432,-0.018247554,-0.05835981,0.017369945,0.04228693,6.372592e-05,-0.018583413,-0.028660318,0.05007886,0.022566512,-2.0,2.0,-2.0,-2.0,2.0,-2.0,2.0,1.060128,-2.0,2.0,2.0,-2.0,-2.0,2.0,-2.0,-2.0,2.0,-2.0,2.0,0.6387997,-2.0,2.0,1.4988629,-2.0
2025-07-21 14:23:38.017,0.6600000000000003,660,33,-0.04393844,-0.010384269,0.007864943,0.063969865,-0.09165975,0.00632195,0.0,0.0,0.0,0.01610411,-0.056802303,0.53549933,-0.16725862,-0.11463586,0.6766456,-0.09937691,0.13192387,0.24764733,0.1580576,0.020389393,0.5395193,0.0641159,-0.03615316,-0.06379141,-0.03191911,0.005401404,-0.049915113,0.08011477,0.03451914,-0.022571515,-0.034162972,0.020632735,-0.054810714,0.05316053,-2.0,2.0,-2.0,-2.0,2.0,-2.0,2.0,0.6387997,-2.0,2.0,1.4988629,-2.0,-2.0,2.0,-2.0,-2.0,2.0,-2.0,2.0,0.62255746,-2.0,2.0,1.9632034,-2.0
2025-07-21 14:23:38.032,0.6800000000000003,680,34,-0.037175093,-0.019340418,-0.0072754784,0.10756714,-0.08770522,-0.042404328,0.0,0.0,0.0,0.016112912,-0.055392005,0.5327062,-0.15845522,-0.10108019,0.676778,-0.09177105,0.13381977,0.25167227,0.16434643,0.009913519,0.5473957,0.05252567,0.07031184,-0.017233543,0.053667337,-0.04988293,0.052598845,0.010527649,0.020972643,-0.011760771,0.08522162,-0.015554376,0.05721671,-0.060404412,-2.0,2.0,-2.0,-2.0,2.0,-2.0,2.0,0.62255746,-2.0,2.0,1.9632034,-2.0,-2.0,2.0,-2.0,-2.0,2.0,-2.0,2.0,0.54259115,-2.0,2.0,1.9347045,-2.0
2025-07-21 14:23:38.052,0.7000000000000003,700,35,-0.08097895,0.010575521,0.003252631,0.041556023,-0.107665844,-0.010937203,0.0,0.0,0.0,0.016139705,-0.046760127,0.52703005,-0.15844649,-0.101408176,0.66948277,-0.09554986,0.142028,0.25678432,0.170486,0.013004565,0.54243314,0.052156217,-0.0067862244,0.05901593,0.021067804,0.0033346724,0.024683215,0.068547785,0.0043824143,0.014643711,0.017952155,0.025761418,0.0617246,-0.038077828,-2.0,2.0,-2.0,-2.0,2.0,-2.0,2.0,0.54259115,-2.0,2.0,1.9347045,-2.0,-2.0,2.0,-2.0,-2.0,2.0,-2.0,2.0,0.44031405,-2.0,2.0,1.850872,-2.0
2025-07-21 14:23:38.072,0.7200000000000003,720,36,-0.075702496,-0.023950037,-0.006832293,0.043978333,-0.10545672,0.030286849,0.0,0.0,0.0,0.016231239,-0.04246361,0.538686,-0.14911312,-0.09924786,0.68344337,-0.103745356,0.13518381,0.26543275,0.1806464,0.016953314,0.54242903,0.051799867,-0.0250984,-0.049525794,-0.017567206,0.07208877,0.04344978,0.043926116,-0.018749613,0.014509855,0.07906075,0.040879358,-0.016836049,0.05815769,-2.0,2.0,-2.0,-2.0,2.0,-2.0,2.0,0.44031405,-2.0,2.0,1.850872,-2.0,-2.0,2.0,-2.0,-2.0,2.0,-2.0,2.0,0.6634218,-2.0,2.0,1.9354532,-2.0
2025-07-21 14:23:38.099,0.7400000000000003,740,37,-0.06415955,0.0030627411,-0.030636547,0.0019831832,-0.058207363,-0.010570173,0.0,0.0,0.0,0.016382923,-0.043534692,0.5258803,-0.14567338,-0.11251502,0.677948,-0.09228239,0.13570125,0.25278956,0.1821466,0.022573436,0.54357946,0.03848763,0.056060772,-0.010868795,0.065898545,0.025903357,-0.07426094,-0.0075216372,0.059312444,0.0527251,0.015249186,0.009110318,0.03888579,-0.007043801,-2.0,2.0,-2.0,-2.0,2.0,-2.0,2.0,0.6634218,-2.0,2.0,1.9354532,-2.0,-2.0,2.0,-2.0,-2.0,2.0,-2.0,2.0,0.7650147,-2.0,2.0,1.6448486,-2.0
2025-07-21 14:23:38.117,0.7600000000000003,760,38,0.0043536634,-0.0289857,-0.013679323,-0.0011593497,-0.038222186,-0.00476924,0.0,0.0,0.0,0.016491711,-0.053959608,0.5357115,-0.13157173,-0.09986419,0.6784141,-0.092381015,0.15475133,0.2536309,0.20144989,0.032081496,0.5535498,0.05211424,-0.0006552167,-0.03942169,0.035135794,-0.005779151,-0.028469369,0.058280893,-0.013229415,-0.050432365,-0.014455542,-0.0385506,-0.03502343,-0.068231106,-2.0,2.0,-2.0,-2.0,2.0,-2.0,2.0,0.7650147,-2.0,2.0,1.6448486,-2.0,-2.0,2.0,-2.0,-2.0,2.0,-2.0,2.0,0.75500554,-2.0,2.0,1.9946291,-2.0
2025-07-21 14:23:38.136,0.7800000000000004,780,39,-0.0751398,-0.008278116,0.030893033,0.026888434,-0.09931048,0.033831373,0.0,0.0,0.0,0.016500458,-0.056140374,0.5404783,-0.12281276,-0.099606074,0.6732544,-0.095808834,0.13824764,0.2621681,0.20502238,0.031576112,0.5594233,0.048741434,-0.032984372,0.071395464,0.033047426,0.042789277,-0.011493205,-0.04622218,0.04034364,-0.067292355,-0.00025244703,-0.04064417,-0.022027008,0.041495286,-2.0,2.0,-2.0,-2.0,2.0,-2.0,2.0,0.75500554,-2.0,2.0,1.9946291,-2.0,-2.0,2.0,-2.0,-2.0,2.0,-2.0,2.0,0.49801546,-2.0,2.0,1.8839896,-2.0
2025-07-21 14:23:38.153,0.8000000000000004,800,40,-0.026553169,-0.040934324,-0.0016381894,0.09206843,-0.08794457,0.04572364,0.0,0.0,0.0,0.016490165,-0.05261524,0.5330108,-0.12923683,-0.098805495,0.6717224,-0.08708371,0.14833423,0.25007048,0.21565016,0.034362648,0.55166554,0.034369636,0.046182785,0.06287471,0.013116194,-0.07256534,0.03915681,0.045801986,-0.031427074,-0.017329866,0.0164034,0.07318111,-0.02495095,0.035339817,-2.0,2.0,-2.0,-2.0,2.0,-2.0,2.0,0.49801546,-2.0,2.0,1.8839896,-2.0,-2.0,2.0,-2.0,-2.0,2.0,-2.0,2.0,0.72530216,-2.0,2.0,2.0,-2.0
2025-07-21 14:23:38.173,0.8200000000000004,820,41,0.0017590104,-0.049007166,0.0076157004,0.02414887,-0.035952006,-0.0021255424,0.0,0.0,0.0,0.01652632,-0.040032428,0.5353396,-0.11838823,-0.101554215,0.65721637,-0.08420978,0.14528978,0.2649576,0.20551538,0.040236667,0.5601287,0.034329396,-0.060153827,0.017600017,0.056270264,-0.06232695,0.039776124,-0.0714327,0.032556556,0.065393046,-0.010336297,-0.03666347,-0.05543804,0.027165754,-2.0,2.0,-2.0,-2.0,2.0,-2.0,2.0,0.72530216,-2.0,2.0,2.0,-2.0,-2.0,2.0,-2.0,-2.0,2.0,-2.0,2.0,0.7142474,-2.0,2.0,1.6423829,-2.0
2025-07-21 14:23:38.199,0.8400000000000004,840,42,-0.03824682,-0.003189446,-0.006960449,0.0062426175,-0.081216305,0.048033867,0.0,0.0,0.0,0.016569862,-0.03630156,0.5293365,-0.12676877,-0.100923106,0.66191834,-0.096734844,0.14320238,0.26089272,0.22087672,0.043017257,0.57089853,0.03559235,0.0074338648,0.004996932,-0.061307427,-0.010900939,0.057237934,-0.020396112,-0.018840045,-0.042400472,0.029901894,0.056233935,0.01901486,0.0061646514,-2.0,2.0,-2.0,-2.0,2.0,-2.0,2.0,0.7142474,-2.0,2.0,1.6423829,-2.0,-2.0,2.0,-2.0,-2.0,2.0,-2.0,2.0,0.67758685,-2.0,2.0,1.9592519,-2.0
2025-07-21 14:23:38.216,0.8600000000000004,860,43,0.019281192,-0.026462495,-0.005364719,0.007657482,-0.10845682,0.042124085,0.0,0.0,0.0,0.016571186,-0.040020652,0.53653115,-0.11097666,-0.089840256,0.67231923,-0.08424992,0.14941098,0.2632115,0.21208648,0.024116565,0.5702925,0.023543954,0.036887337,0.04086142,0.03636928,-0.07071824,0.026972998,0.022654772,0.05628375,-0.04093854,0.070528366,0.058126073,0.008090357,-0.013003266,-2.0,2.0,-2.0,-2.0,2.0,-2.0,2.0,0.67758685,-2.0,2.0,1.9592519,-2.0,-2.0,2.0,-2.0,-2.0,2.0,-2.0,2.0,0.6856863,-2.0,2.0,1.8162396,-2.0
2025-07-21 14:23:38.234,0.8800000000000004,880,44,0.019442463,0.00655424,-0.0013524287,0.0046424316,-0.059991915,-0.037829254,0.0,0.0,0.0,0.016582573,-0.0446778,0.52749425,-0.12054655,-0.10221908,0.6604653,-0.09433474,0.14481103,0.2678191,0.21393831,0.024033632,0.57027316,0.02353639,-0.038896095,0.020502629,0.019422812,0.070894405,0.013312324,0.007905094,0.012263229,-0.05764136,0.03014116,-0.029825917,0.02542763,-0.021706091,-2.0,2.0,-2.0,-2.0,2.0,-2.0,2.0,0.6856863,-2.0,2.0,1.8162396,-2.0,-2.0,2.0,-2.0,-2.0,2.0,-2.0,2.0,0.57664865,-2.0,2.0,1.8924892,-2.0
2025-07-21 14:23:38.253,0.9000000000000005,900,45,0.024205115,-0.036766425,-0.039334856,0.027994173,-0.056061815,0.0068199304,0.0,0.0,0.0,0.016601268,-0.05164072,0.53332853,-0.11487959,-0.10176192,0.65590715,-0.09271534,0.14856175,0.2564065,0.21928866,0.025613999,0.5635536,0.026443997,-0.024399597,-0.04385542,-0.033730034,-0.042099487,-0.045895025,-0.04325665,-0.044054754,-0.05222329,0.061060555,-0.066505946,0.04217273,0.018132582,-2.0,2.0,-2.0,-2.0,2.0,-2.0,2.0,0.57664865,-2.0,2.0,1.8924892,-2.0,-2.0,2.0,-2.0,-2.0,2.0,-2.0,2.0,0.8893908,-2.0,2.0,2.0,-2.0
2025-07-21 14:23:38.273,0.9200000000000005,920,46,0.0007054275,-0.03828378,0.0029542446,0.0015778667,-0.08762228,0.019800058,0.0,0.0,0.0,0.016638644,-0.053753853,0.5299999,-0.120807275,-0.09338017,0.6498234,-0.08310133,0.15084846,0.2562347,0.21829641,0.024815628,0.57137096,0.022010535,0.066474065,-0.037557278,0.04384347,0.045117218,-0.008592237,0.032926377,-0.016305963,-0.04166019,-0.059194684,-0.050663963,0.08191669,-0.06276339,-2.0,2.0,-2.0,-2.0,2.0,-2.0,2.0,0.8893908,-2.0,2.0,2.0,-2.0,-2.0,2.0,-2.0,-2.0,2.0,-2.0,2.0,0.4029032,-2.0,2.0,1.8547881,-2.0
2025-07-21 14:23:38.299,0.9400000000000005,940,47,-0.012918253,0.034249987,-0.0061064865,0.0010326313,-0.017665818,-0.03854495,0.0,0.0,0.0,0.016644033,-0.03914423,0.53789467,-0.1126775,-0.092455685,0.64657325,-0.08559301,0.14881185,0.27022755,0.21163274,0.033452988,0.57562536,0.026658105,0.04373919,0.04177736,-0.030011076,0.053634983,-0.029703485,-0.034038935,0.05835216,0.07030532,0.0064245886,-0.04134725,0.03782086,0.06048138,-2.0,2.0,-2.0,-2.0,2.0,-2.0,2.0,0.4029032,-2.0,2.0,1.8547881,-2.0,-2.0,2.0,-2.0,-2.0,2.0,-2.0,2.0,0.707647,-2.0,2.0,1.9322526,-2.0
2025-07-21 14:23:38.317,0.9600000000000005,960,48,0.02403745,-0.05276159,-0.021868693,0.035598,-0.044382405,-0.044130113,0.0,0.0,0.0,0.016677389,-0.043424066,0.5313905,-0.13222246,-0.09608641,0.6603458,-0.09697371,0.15574461,0.25545412,0.21273257,0.03758988,0.5704561,0.029461073,-0.045397695,0.06205901,0.022018462,0.03363478,-0.071065605,-0.020996405,0.037438225,0.07294851,-0.024633229,-0.003949281,0.012160145,0.06781944,-2.0,2.0,-2.0,-2.0,2.0,-2.0,2.0,0.707647,-2.0,2.0,1.9322526,-2.0,-2.0,2.0,-2.0,-2.0,2.0,-2.0,2.0,0.7486405,-2.0,2.0,1.5942142,-2.0
2025-07-21 14:23:38.335,0.9800000000000005,980,49,-0.011996888,0.034680896,-0.031889893,0.052207913,-0.057515956,0.046850115,0.0,0.0,0.0,0.016725382,-0.043231964,0.54440176,-0.12649183,-0.09399231,0.64636445,-0.09577553,0.14149831,0.25810555,0.22213063,0.026828155,0.56223446,0.022582328,-0.07285969,0.026891347,0.035017896,0.013213961,0.032177955,0.02889934,-0.02634313,-0.051696263,-0.0306685,-0.0053818123,-0.05204469,0.03963806,-2.0,2.0,-2.0,-2.0,2.0,-2.0,2.0,0.7486405,-2.0,2.0,1.5942142,-2.0,-2.0,2.0,-2.0,-2.0,2.0,-2.0,2.0,0.89004105,-2.0,2.0,1.693492,-2.0
2025-07-21 14:23:38.354,1.0000000000000004,1000,50,0.05761788,-0.047893316,0.014616281,0.04466173,-0.06501021,0.046160262,0.0,0.0,0.0,0.016688028,-0.044426918,0.5480545,-0.12487651,-0.108088806,0.6504224,-0.082884595,0.14497362,0.26700062,0.20628053,0.025848832,0.56497055,0.01742371,0.059662465,0.051062834,0.038288582,-0.04016478,-0.040523525,0.04864632,0.045971654,-0.0063981456,0.029810218,-0.0065714987,0.00481071,0.07131678,-2.0,2.0,-2.0,-2.0,2.0,-2.0,2.0,0.89004105,-2.0,2.0,1.693492,-2.0,-2.0,2.0,-2.0,-2.0,2.0,-2.0,2.0,0.5671083,-2.0,2.0,1.7461743,-2.0
2025-07-21 14:23:38.373,1.0200000000000005,1020,51,-0.038731996,-0.03990774,-0.023506025,0.048139226,-0.06287851,0.04846059,0.0,0.0,0.0,0.016530477,-0.055921163,0.53404504,-0.123739794,-0.10134688,0.63824975,-0.09954649,0.14725934,0.2542207,0.22030848,0.026512988,0.5736897,0.0231918,0.06711688,-0.0036092547,0.052218776,-0.046770822,0.013735064,-0.029329868,-0.07393361,0.028848678,-0.016973479,0.0700877,0.012702374,-0.069954686,-2.0,2.0,-2.0,-2.0,2.0,-2.0,2.0,0.5671083,-2.0,2.0,1.7461743,-2.0,-2.0,2.0,-2.0,-2.0,2.0,-2.0,2.0,0.7950724,-2.0,2.0,2.0,-2.0
2025-07-21 14:23:38.399,1.0400000000000005,1040,52,-0.0043723476,0.0023318764,-0.044782687,0.048857752,-0.07321069,0.034087658,0.0,0.0,0.0,0.016430434,-0.04598928,0.5479445,-0.12526797,-0.09925399,0.653713,-0.08666424,0.13936837,0.26128918,0.2143215,0.028289067,0.5670993,0.030777698,0.017626917,-0.058798928,0.043782987,-0.06041483,0.0321476,0.07535379,-0.042796142,-0.06244689,0.011604823,-0.01123661,-0.02318709,-0.029835444,-2.0,2.0,-2.0,-2.0,2.0,-2.0,2.0,0.7950724,-2.0,2.0,2.0,-2.0,-2.0,2.0,-2.0,-2.0,2.0,-2.0,2.0,0.8802701,-2.0,2.0,1.8442286,-2.0
2025-07-21 14:23:38.416,1.0600000000000005,1060,53,-0.007386004,0.05100347,-0.042557467,-0.0075509725,-0.08585455,0.007795283,0.0,0.0,0.0,0.016446296,-0.038445745,0.5345027,-0.13773322,-0.107332684,0.65324503,-0.09317086,0.15610014,0.258906,0.2011465,0.039686784,0.563447,0.031164704,-0.03330413,-0.056342162,0.037888046,0.022115368,-0.03856708,-0.013115076,0.050192,-0.065094404,0.015763173,-0.015845485,-0.045301154,-0.038109858,-2.0,2.0,-2.0,-2.0,2.0,-2.0,2.0,0.8802701,-2.0,2.0,1.8442286,-2.0,-2.0,2.0,-2.0,-2.0,2.0,-2.0,2.0,0.8451363,-2.0,2.0,1.6854913,-2.0
2025-07-21 14:23:38.434,1.0800000000000005,1080,54,-0.0053024343,-0.017191734,-0.03235933,0.05648851,-0.054194298,0.0020991727,0.0,0.0,0.0,0.016471352,-0.04665381,0.5511686,-0.13044742,-0.11039922,0.655874,-0.08983179,0.15393704,0.2653546,0.20636228,0.032456003,0.56698996,0.014618267,0.048106503,0.0049301507,0.022354396,-0.02989795,-0.031948466,-0.043895468,0.05896635,0.021896062,-0.009071507,-0.041607074,-0.025164796,-0.061684653,-2.0,2.0,-2.0,-2.0,2.0,-2.0,2.0,0.8451363,-2.0,2.0,1.6854913,-2.0,-2.0,2.0,-2.0,-2.0,2.0,-2.0,2.0,0.91398686,-2.0,2.0,1.7958775,-2.0
2025-07-21 14:23:38.455,1.1000000000000005,1100,55,0.04544198,0.028383415,0.024219912,0.07797402,-0.07512025,-0.049856246,0.0,0.0,0.0,0.01644586,-0.048787594,0.5453785,-0.13151678,-0.09188646,0.643586,-0.0903953,0.13893473,0.266295,0.19036335,0.02204775,0.56735563,0.030524857,0.0118849855,0.020991497,-0.02287919,-0.011127767,0.057459053,0.0639952,-0.030784018,0.011300255,-0.043830406,0.06479647,0.060058467,-0.010132471,-2.0,2.0,-2.0,-2.0,2.0,-2.0,2.0,0.91398686,-2.0,2.0,1.7958775,-2.0,-2.0,2.0,-2.0,-2.0,2.0,-2.0,2.0,0.36373174,-2.0,2.0,1.755803,-2.0
2025-07-21 14:23:38.473,1.1200000000000006,1120,56,-0.038720753,0.0018370118,-0.015663132,0.017540034,-0.041811444,-0.048925593,0.0,0.0,0.0,0.016390368,-0.05582412,0.54216045,-0.1287136,-0.10986107,0.64434695,-0.08966863,0.15573895,0.27280208,0.20846051,0.03575086,0.5757295,0.018922308,-0.054008704,-0.05964603,-0.04695387,-0.0052271117,0.04641497,0.02047788,-0.07153349,-0.066556126,0.07032307,-0.04382918,0.015211451,-0.035251006,-2.0,2.0,-2.0,-2.0,2.0,-2.0,2.0,0.36373174,-2.0,2.0,1.755803,-2.0,-2.0,2.0,-2.0,-2.0,2.0,-2.0,2.0,0.75827837,-2.0,2.0,2.0,-2.0
2025-07-21 14:23:38.499,1.1400000000000006,1140,57,-0.013039557,-0.004155955,0.029356424,0.056625675,-0.0886026,0.030406311,0.0,0.0,0.0,0.016434884,-0.052849356,0.53898567,-0.13621315,-0.094682306,0.6441817,-0.09060165,0.15355007,0.26427412,0.2075815,0.021137247,0.5795781,0.02237768,-0.012510128,-0.07099278,-0.018806389,0.04851874,0.02546201,-0.023360498,0.0007155472,-0.04195265,0.07170958,0.054798793,-0.062147897,0.024960237,-2.0,2.0,-2.0,-2.0,2.0,-2.0,2.0,0.75827837,-2.0,2.0,2.0,-2.0,-2.0,2.0,-2.0,-2.0,2.0,-2.0,2.0,0.41384372,-2.0,2.0,1.9111092,-2.0
2025-07-21 14:23:38.516,1.1600000000000006,1160,58,-0.008015989,0.027670717,0.006506871,0.049110394,-0.026616039,0.02309199,0.0,0.0,0.0,0.016522644,-0.055459596,0.54168284,-0.1452208,-0.09667142,0.64505243,-0.08315476,0.14261317,0.26379633,0.19860503,0.027914496,0.5750806,0.023878923,0.016814863,-0.06519736,-0.050036103,-0.053944238,0.008195377,0.07482547,-0.008060181,-0.057372507,-0.06768928,0.029151913,0.02704315,0.051097706,-2.0,2.0,-2.0,-2.0,2.0,-2.0,2.0,0.41384372,-2.0,2.0,1.9111092,-2.0,-2.0,2.0,-2.0,-2.0,2.0,-2.0,2.0,0.5857017,-2.0,2.0,2.0,-2.0
2025-07-21 14:23:38.535,1.1800000000000006,1180,59,-0.029936144,-0.017338065,-0.054950126,0.04358096,-0.044869795,-0.039728172,0.0,0.0,0.0,0.016679188,-0.055354334,0.5437302,-0.14101493,-0.113558345,0.6426861,-0.07852578,0.15194857,0.27127087,0.19179887,0.034559105,0.5611897,0.026071597,0.013991282,0.028352026,-0.019943023,-0.061904028,-0.00236623,-0.042634033,0.013531298,0.06972931,-0.011148858,-0.055860575,-0.029603487,0.02304614,-2.0,2.0,-2.0,-2.0,2.0,-2.0,2.0,0.5857017,-2.0,2.0,2.0,-2.0,-2.0,2.0,-2.0,-2.0,2.0,-2.0,2.0,1.0794759,-2.0,2.0,1.7525164,-2.0
2025-07-21 14:23:38.553,1.2000000000000006,1200,60,0.03981919,0.065834805,-0.01100754,0.08949319,-0.037155554,-0.042663466,0.0,0.0,0.0,0.016882526,-0.054610953,0.5369182,-0.14854944,-0.0971021,0.6506781,-0.088638306,0.15449035,0.26810095,0.2061332,0.03074772,0.569894,0.034812484,-0.0081990855,-0.025180783,0.03057866,0.06442177,-0.039587554,0.048951454,-0.07405307,0.051455367,0.021421613,0.044981465,-0.020507718,-0.0021587817,-2.0,2.0,-2.0,-2.0,2.0,-2.0,2.0,1.0794759,-2.0,2.0,1.7525164,-2.0,-2.0,2.0,-2.0,-2.0,2.0,-2.0,2.0,0.54205626,-2.0,2.0,1.5369213,-2.0
2025-07-21 14:23:38.573,1.2200000000000006,1220,61,-2.4388962e-06,-0.030046655,-0.022443729,0.033230558,-0.06120036,-0.026530556,0.0,0.0,0.0,0.01690152,-0.046056572,0.54218954,-0.13467315,-0.11165973,0.6425886,-0.084153526,0.1396262,0.25785148,0.20113987,0.03741727,0.5679403,0.03398751,-0.017777743,0.01943312,-0.06566747,0.052476127,-0.011401585,0.009639002,0.07222429,0.0029973288,-0.02701217,-0.066194564,0.0650987,-0.014040939,-2.0,2.0,-2.0,-2.0,2.0,-2.0,2.0,0.54205626,-2.0,2.0,1.5369213,-2.0,-2.0,2.0,-2.0,-2.0,2.0,-2.0,2.0,0.75433844,-2.0,2.0,2.0,-2.0
2025-07-21 14:23:38.600,1.2400000000000007,1240,62,0.017038422,0.0015664316,-0.01772259,0.027958304,-0.04125624,-0.04741955,0.0,0.0,0.0,0.01681414,-0.053537298,0.53200185,-0.13050564,-0.11234326,0.6469109,-0.07830688,0.14279905,0.26102516,0.19138384,0.03746658,0.5754344,0.03799934,-0.0352832,0.043014485,-0.009929599,0.05385922,-0.051003516,-0.023071002,-0.050313678,0.046415158,-0.014735625,0.032285888,0.026717339,-0.01401247,-2.0,2.0,-2.0,-2.0,2.0,-2.0,2.0,0.75433844,-2.0,2.0,2.0,-2.0,-2.0,2.0,-2.0,-2.0,2.0,-2.0,2.0,0.5470546,-2.0,2.0,1.7420166,-2.0
2025-07-21 14:23:38.617,1.2600000000000007,1260,63,-0.036378577,0.013756855,-0.046363078,0.0034359356,-0.022108356,-0.0064358558,0.0,0.0,0.0,0.016795088,-0.05619975,0.5367387,-0.13689242,-0.11154215,0.63759345,-0.07892645,0.15064423,0.26294038,0.1960519,0.022027055,0.5697926,0.022678133,-0.013927015,-0.051726542,0.057608314,0.007624753,0.013848105,-0.0709246,-0.032414794,-0.07992761,-0.020784056,-0.038388506,-0.07833655,0.04708343,-2.0,2.0,-2.0,-2.0,2.0,-2.0,2.0,0.5470546,-2.0,2.0,1.7420166,-2.0,-2.0,2.0,-2.0,-2.0,2.0,-2.0,2.0,1.0672839,-2.0,2.0,1.9093542,-2.0
2025-07-21 14:23:38.635,1.2800000000000007,1280,64,0.04633646,0.02526641,-0.037467483,-0.0023754057,-0.09225879,-0.049385842,0.0,0.0,0.0,0.016832914,-0.05628575,0.53193647,-0.13103497,-0.09751897,0.6385798,-0.085598804,0.15213762,0.26649833,0.20345157,0.023315515,0.5628506,0.037366882,-0.046486586,-0.018646652,0.012602817,-0.011009217,0.0417851,-0.028665025,0.041596644,0.046045892,-0.051687192,-0.02112047,0.04063593,-0.057216898,-2.0,2.0,-2.0,-2.0,2.0,-2.0,2.0,1.0672839,-2.0,2.0,1.9093542,-2.0,-2.0,2.0,-2.0,-2.0,2.0,-2.0,2.0,0.6952777,-2.0,2.0,1.3355255,-2.0
2025-07-21 14:23:38.654,1.3000000000000007,1300,65,-0.004574348,0.011056894,0.0025400927,0.043681845,-0.024335327,0.027645372,0.0,0.0,0.0,0.016792115,-0.04312339,0.5455331,-0.14959168,-0.105312645,0.6420109,-0.06965971,0.1501123,0.2611334,0.19213511,0.036495734,0.5737665,0.022536146,-0.056072686,0.06893812,0.0666128,0.016605698,0.051347077,-0.028629404,0.0065607503,-0.03488992,-0.030542735,0.020702839,0.01404426,0.031788144,-2.0,2.0,-2.0,-2.0,2.0,-2.0,2.0,0.6952777,-2.0,2.0,1.3355255,-2.0,-2.0,2.0,-2.0,-2.0,2.0,-2.0,2.0,0.6843586,-2.0,2.0,1.8242582,-2.0
2025-07-21 14:23:38.674,1.3200000000000007,1320,66,0.021756059,0.0017918486,-0.008784525,0.039225306,-0.051680315,0.012769154,0.0,0.0,0.0,0.016588382,-0.058755092,0.53613466,-0.14241599,-0.10746569,0.64429253,-0.08405714,0.14156057,0.27056152,0.18708222,0.027182888,0.55821615,0.04007417,-0.031125238,0.022140417,0.032631,-0.03674866,-0.045307048,0.052280057,0.06679993,-0.006404023,-0.06486382,0.014749308,0.015464043,-0.027515203,-2.0,2.0,-2.0,-2.0,2.0,-2.0,2.0,0.6843586,-2.0,2.0,1.8242582,-2.0,-2.0,2.0,-2.0,-2.0,2.0,-2.0,2.0,0.59574544,-2.0,2.0,1.8005211,-2.0
2025-07-21 14:23:38.699,1.3400000000000007,1340,67,-0.010501924,0.00589019,-0.02458718,0.012092097,-0.036212385,0.04540727,0.0,0.0,0.0,0.016412428,-0.04981103,0.5328649,-0.14760341,-0.10380636,0.63043666,-0.07099255,0.14061034,0.2598865,0.19075146,0.022201292,0.56768596,0.03924435,-0.048354905,0.043018408,-0.007947288,-0.008982832,-0.06415205,-0.057945464,0.060011674,0.0092037795,-0.023436908,0.019386355,0.031181663,0.0020955838,-2.0,2.0,-2.0,-2.0,2.0,-2.0,2.0,0.59574544,-2.0,2.0,1.8005211,-2.0,-2.0,2.0,-2.0,-2.0,2.0,-2.0,2.0,0.72442406,-2.0,2.0,1.7485981,-2.0
2025-07-21 14:23:38.717,1.3600000000000008,1360,68,0.015773622,-0.030052552,0.041902307,0.028727135,-0.07998095,0.04210067,0.0,0.0,0.0,0.01641304,-0.049089488,0.5365302,-0.13546589,-0.09549641,0.6423797,-0.08583849,0.14715515,0.26081884,0.18708959,0.037576858,0.56756556,0.023907037,-0.010125351,-0.001385338,0.06974348,-0.04112392,-0.024336377,-0.0241447,0.07243667,0.0016507574,-0.05314111,-0.052195847,-0.01991229,0.008944374,-2.0,2.0,-2.0,-2.0,2.0,-2.0,2.0,0.72442406,-2.0,2.0,1.7485981,-2.0,-2.0,2.0,-2.0,-2.0,2.0,-2.0,2.0,0.45115727,-2.0,2.0,1.8937992,-2.0
2025-07-21 14:23:38.734,1.3800000000000008,1380,69,0.031965587,0.023981439,-0.012064303,0.04573965,-0.022663398,-0.043467943,0.0,0.0,0.0,0.016440736,-0.041744757,0.53835917,-0.13547444,-0.1050512,0.6361284,-0.086131185,0.15030085,0.25606808,0.20233096,0.029218743,0.56206775,0.03448349,-0.017254744,0.011619674,0.03502054,0.010277458,-0.015962107,0.049523056,-0.0033838777,-0.01568477,-0.02897831,-0.00992651,-0.07332224,-0.07442592,-2.0,2.0,-2.0,-2.0,2.0,-2.0,2.0,0.45115727,-2.0,2.0,1.8937992,-2.0,-2.0,2.0,-2.0,-2.0,2.0,-2.0,2.0,0.7825044,-2.0,2.0,2.0,-2.0
2025-07-21 14:23:38.754,1.4000000000000008,1400,70,0.02112023,-0.0021713783,-0.036143295,0.010834123,-0.035260018,0.046821322,0.0,0.0,0.0,0.016527021,-0.0530599,0.5362821,-0.14813603,-0.10290977,0.6274074,-0.082329944,0.15107436,0.24915685,0.19511864,0.029247064,0.55340165,0.027848125,0.066968106,-0.018790767,0.06938842,-0.040032536,-0.027322711,0.07340199,-0.06404258,-0.049923908,-0.009706944,-0.053930644,-0.066588044,-0.014228713,-2.0,2.0,-2.0,-2.0,2.0,-2.0,2.0,0.7825044,-2.0,2.0,2.0,-2.0,-2.0,2.0,-2.0,-2.0,2.0,-2.0,2.0,0.7879318,-2.0,2.0,1.8610365,-2.0
2025-07-21 14:23:38.774,1.4200000000000008,1420,71,0.008617658,0.0132967215,0.024765303,0.053950764,-0.080779575,0.03429532,1.5,0.0,0.0,0.016617814,-0.045787964,0.5361795,-0.13971667,-0.09662439,0.6281354,-0.08250606,0.13561775,0.268501,0.20597307,0.038099516,0.5674026,0.03984749,-0.027205167,-0.05418856,-0.032802112,0.04649683,0.058829334,-0.04724549,-0.054819304,0.017529024,0.033471476,-0.034715652,0.07936799,-0.060239088,-2.0,2.0,-2.0,-2.0,2.0,-2.0,2.0,0.7879318,-2.0,2.0,1.8610365,-2.0,-2.0,2.0,-2.0,-2.0,2.0,-2.0,2.0,0.5187131,-2.0,2.0,0.7087192,-2.0
2025-07-21 14:23:38.800,1.4400000000000008,1440,72,0.026605558,-0.06749205,-0.008583971,0.06804537,-0.082516685,-0.018441211,1.5,0.0,0.0,0.016666781,-0.056205653,0.5340805,-0.14001444,-0.10568224,0.64122444,-0.081170715,0.13613594,0.26098263,0.19685186,0.021134786,0.55665386,0.030082291,-0.06929029,-0.06109825,0.035279416,0.04504561,-0.019590959,-0.046985477,0.013853513,-0.047668435,0.052986138,0.06828553,0.0017661832,0.08590828,-2.0,2.0,-2.0,-2.0,2.0,-2.0,2.0,0.5187131,-2.0,2.0,0.7087192,-2.0,-2.0,2.0,-2.0,-2.0,2.0,-2.0,2.0,0.50376415,-2.0,2.0,0.69029665,-2.0
2025-07-21 14:23:38.816,1.4600000000000009,1460,73,0.007944109,-0.066214494,0.06591252,0.08683091,-0.08765467,-0.049792092,1.5,0.0,0.0,0.016409013,-0.04767526,0.5378927,-0.15176333,-0.104032524,0.6305833,-0.077192806,0.14261128,0.252146,0.20274438,0.035891674,0.54332674,0.044349756,0.07834226,-0.037436977,0.0075797616,-0.025715364,-0.06413909,-0.07234816,-0.078008056,-0.04492613,0.014245195,-0.031899508,-0.04943529,-0.024352422,-2.0,2.0,-2.0,-2.0,2.0,-2.0,2.0,0.50376415,-2.0,2.0,0.69029665,-2.0,-2.0,2.0,-2.0,-2.0,2.0,-2.0,2.0,0.49360222,-2.0,2.0,1.30391,-2.0
2025-07-21 14:23:38.835,1.4800000000000009,1480,74,0.036814578,-0.022070993,0.04868837,0.043356683,-0.07664561,-0.03544888,1.5,0.0,0.0,0.01555062,-0.052559353,0.528719,-0.15608688,-0.105880566,0.6161154,-0.08112688,0.14785965,0.23934394,0.2151601,0.024433384,0.52749413,0.050831813,0.0033958396,0.033742063,-0.06850996,-0.02911888,-0.073967956,-0.07626645,-0.025309235,-0.058103047,0.07094162,0.009146024,0.03889868,-0.04778723,-2.0,2.0,-2.0,-2.0,2.0,-2.0,2.0,0.49360222,-2.0,2.0,1.30391,-2.0,-2.0,2.0,-2.0,-2.0,2.0,-2.0,2.0,0.37989247,-2.0,2.0,1.0276349,-2.0
2025-07-21 14:23:38.856,1.5000000000000009,1500,75,0.03594438,-0.08905752,0.012566024,0.03704782,-0.0630489,-0.035955686,1.5,0.0,0.0,0.014517965,-0.03941513,0.531066,-0.1524299,-0.09360842,0.6133178,-0.08945113,0.12661296,0.23692735,0.2071031,0.032531347,0.5237036,0.068875566,-0.00042823626,0.044750858,0.06335289,0.05898165,0.033462603,-0.053040057,-0.051175598,-0.06167406,-0.01632298,0.00743808,-0.09655907,-0.03678423,-2.0,2.0,-2.0,-2.0,2.0,-2.0,2.0,0.37989247,-2.0,2.0,1.0276349,-2.0,-2.0,2.0,-2.0,-2.0,2.0,-2.0,2.0,0.65477127,-2.0,2.0,0.89150876,-2.0
2025-07-21 14:23:38.876,1.520000000000001,1520,76,-0.007894072,-0.005129323,0.03261326,-0.00112873,-0.08426319,0.025744893,1.5,0.0,0.0,0.013575301,-0.047714666,0.522952,-0.15360168,-0.0849336,0.6029268,-0.0865086,0.12385401,0.23033617,0.20882194,0.018459737,0.5050083,0.07934587,-0.04156304,0.00083513965,0.009551413,0.043443155,0.024481246,0.0651743,0.01794759,-0.066474356,-0.025182115,0.042586923,0.040604077,0.041283384,-2.0,2.0,-2.0,-2.0,2.0,-2.0,2.0,0.65477127,-2.0,2.0,0.89150876,-2.0,-2.0,2.0,-2.0,-2.0,2.0,-2.0,2.0,0.34397528,-2.0,2.0,0.74361503,-2.0
2025-07-21 14:23:38.899,1.540000000000001,1540,77,-0.04531162,-0.030159878,0.06533313,0.006498354,-0.091849,0.035149403,1.5,0.0,0.0,0.012464196,-0.042317484,0.5192266,-0.15109998,-0.08844381,0.59306055,-0.09900552,0.13835831,0.22087422,0.2089489,0.025323823,0.48509252,0.06900053,-0.0597022,-0.022494022,-0.0798098,0.0324246,-0.08183043,-0.018505173,-0.056495205,-0.05645881,-0.064119235,-0.078490786,-0.008726448,0.025759768,-2.0,2.0,-2.0,-2.0,2.0,-2.0,2.0,0.34397528,-2.0,2.0,0.74361503,-2.0,-2.0,2.0,-2.0,-2.0,2.0,-2.0,2.0,0.21360177,-2.0,2.0,1.0483469,-2.0
2025-07-21 14:23:38.918,1.560000000000001,1560,78,-0.027181325,-0.040395234,0.057022337,0.056602035,-0.124224626,0.013594285,1.5,0.0,0.0,0.011204724,-0.042641938,0.5159636,-0.14638649,-0.08427506,0.58169234,-0.102294475,0.12900598,0.20278493,0.2253413,0.02195095,0.4758068,0.095335886,-0.010414329,0.004400936,-0.059408817,-0.057663925,0.02609474,-0.03880821,-0.018965745,0.0022792034,0.0332356,0.048923623,-0.04974189,-0.04257989,-2.0,2.0,-2.0,-2.0,2.0,-2.0,2.0,0.21360177,-2.0,2.0,1.0483469,-2.0,-2.0,2.0,-2.0,-2.0,2.0,-2.0,2.0,0.319796,-2.0,2.0,0.8787437,-2.0
2025-07-21 14:23:38.937,1.580000000000001,1580,79,0.0054814504,-0.0001814995,0.036245752,-0.008462626,-0.07475522,0.0073931697,1.5,0.0,0.0,0.010166269,-0.027768694,0.5126151,-0.15076433,-0.084474385,0.5666828,-0.09117708,0.114505544,0.20952061,0.21507435,0.01204388,0.46836302,0.09653144,0.022554435,0.022598498,-0.074630626,-0.017186137,-0.060975302,0.04273395,-0.01643761,-0.06509469,0.022977015,-0.04974124,-0.0110103525,0.08438101,-2.0,2.0,-2.0,-2.0,2.0,-2.0,2.0,0.319796,-2.0,2.0,0.8787437,-2.0,-2.0,2.0,-2.0,-2.0,2.0,-2.0,2.0,0.21040988,-2.0,2.0,0.7361587,-2.0
2025-07-21 14:23:38.956,1.600000000000001,1600,80,0.028288726,-0.06575646,0.025723414,-0.0055936365,-0.1370644,-0.019133944,1.5,0.0,0.0,0.0093466835,-0.030556984,0.4990349,-0.16403478,-0.07131763,0.57370543,-0.098970234,0.11604346,0.21222652,0.23095332,0.013938473,0.4569862,0.09858789,0.043729678,-0.07180674,-0.036254596,0.07156207,0.03840682,0.041388072,-0.05936602,0.019148711,0.07973967,-0.063486055,-0.026994476,0.0040748566,-2.0,2.0,-2.0,-2.0,2.0,-2.0,2.0,0.21040988,-2.0,2.0,0.7361587,-2.0,-2.0,2.0,-2.0,-2.0,2.0,-2.0,2.0,0.25958487,-2.0,2.0,0.6883019,-2.0
2025-07-21 14:23:38.984,1.620000000000001,1620,81,-0.0037436155,-0.03411971,-0.002062924,0.0121248085,-0.094249055,0.031154031,1.5,0.0,0.0,0.008669239,-0.032760553,0.5001842,-0.16966206,-0.08054217,0.5653158,-0.089572154,0.11575993,0.19566983,0.22574985,0.010775628,0.4577581,0.097863995,0.030030137,-0.039324015,-0.04680501,0.045674466,-0.03709371,-0.032430794,-0.067255564,0.063071355,-0.030931821,-0.04117197,0.016070923,0.008489167,-2.0,2.0,-2.0,-2.0,2.0,-2.0,2.0,0.25958487,-2.0,2.0,0.6883019,-2.0,-2.0,2.0,-2.0,-2.0,2.0,-2.0,2.0,0.3132866,-2.0,2.0,0.3249095,-2.0
2025-07-21 14:23:38.999,1.640000000000001,1640,82,0.020092491,-0.018752469,0.022063538,-0.004637131,-0.12003058,0.0065302737,1.5,0.0,0.0,0.008085527,-0.02638231,0.4969636,-0.16842027,-0.062942915,0.551872,-0.09643457,0.11038125,0.20389596,0.23313159,0.0202212,0.4444609,0.10269015,0.03010054,-0.025484344,0.0015518233,-0.0073805754,0.005153785,-0.06070158,-0.07975519,0.042800013,0.060377013,0.03725564,0.020499516,0.06336328,-2.0,2.0,-2.0,-2.0,2.0,-2.0,2.0,0.3132866,-2.0,2.0,0.3249095,-2.0,-2.0,2.0,-1.2000186,-2.0,2.0,-2.0,2.0,0.1595816,-2.0,2.0,0.2766468,-2.0
2025-07-21 14:23:39.019,1.660000000000001,1660,83,-0.000971738,0.016364345,0.040738158,0.012502021,-0.12550174,0.028237691,1.5,0.0,0.0,0.0073711984,-0.02466094,0.4974886,-0.16625956,-0.06572647,0.55077153,-0.0923353,0.121608116,0.18990874,0.23018798,0.021550676,0.42687997,0.11850399,-0.044079907,-0.033664383,0.06800098,-0.020074764,-0.016275026,0.060971465,0.027471555,0.01017617,-0.047983143,-0.038630962,-0.07641139,0.08080555,-2.0,2.0,-1.2000186,-2.0,2.0,-2.0,2.0,0.1595816,-2.0,2.0,0.2766468,-2.0,-2.0,2.0,-2.0,-2.0,2.0,-2.0,2.0,-0.128046,-2.0,2.0,0.68743306,-2.0
2025-07-21 14:23:39.037,1.680000000000001,1680,84,0.039254777,-0.024580495,0.093557894,0.06453095,-0.12562487,-0.0030674783,1.5,0.0,0.0,0.006306027,-0.031697463,0.4994245,-0.16856512,-0.058543827,0.5309969,-0.092610665,0.10618121,0.19330898,0.23286015,0.017767409,0.41107023,0.120178066,-0.048977766,-0.06877015,0.017657433,-0.008137231,-0.0930475,0.034751583,0.022879226,0.000762118,-0.022746228,-0.07095039,0.018408718,0.042379156,-2.0,2.0,-2.0,-2.0,2.0,-2.0,2.0,-0.128046,-2.0,2.0,0.68743306,-2.0,-2.0,2.0,-2.0,-2.0,2.0,-2.0,2.0,-0.0979564,-2.0,2.0,0.85296136,-2.0
2025-07-21 14:23:39.056,1.700000000000001,1700,85,0.025951086,-0.01931686,0.028327122,0.0889685,-0.13663521,-0.0046385997,1.5,0.0,0.0,0.0052202363,-0.04173926,0.49631986,-0.16984814,-0.0635704,0.5274031,-0.091403976,0.1043991,0.17273869,0.23254664,0.004906068,0.41116697,0.14173798,0.034629196,-0.0012158878,-0.071547,-0.0147715695,-0.07120992,-0.040925674,-0.077724636,-0.009615487,-0.06826877,-0.024430119,0.01977575,-0.010988967,-2.0,2.0,-2.0,-2.0,2.0,-2.0,2.0,-0.0979564,-2.0,2.0,0.85296136,-2.0,-2.0,2.0,-2.0,-2.0,2.0,-2.0,2.0,0.13373381,-2.0,2.0,0.59742004,-2.0
2025-07-21 14:23:39.082,1.720000000000001,1720,86,0.053760786,0.048345827,0.047264062,0.014324409,-0.08829498,-0.03372979,1.5,0.0,0.0,0.0046772356,-0.040657986,0.49235004,-0.15244368,-0.05562258,0.53666407,-0.08326847,0.11381873,0.18165886,0.23706356,0.01739551,0.40310818,0.13367008,0.06078541,-0.03797832,0.035345722,0.043957323,-0.028175099,-0.06494519,0.0625291,-0.023533562,0.0251214,-0.072489694,-0.06609847,-0.016289445,-2.0,2.0,-2.0,-2.0,2.0,-2.0,2.0,0.13373381,-2.0,2.0,0.59742004,-2.0,-2.0,2.0,-2.0,-2.0,2.0,-2.0,2.0,0.16066168,-2.0,2.0,0.5474878,-2.0
2025-07-21 14:23:39.099,1.740000000000001,1740,87,-0.0120741315,-0.023130152,-0.04163451,0.028359365,-0.1199445,-0.0029034144,1.5,0.0,0.0,0.0046081813,-0.03295582,0.47933537,-0.15784363,-0.06867546,0.52115035,-0.09009797,0.105411984,0.17975219,0.23074345,0.013938441,0.4151151,0.14009593,0.0645782,-0.040315546,0.02144943,0.059695225,-0.0637886,-0.023045102,-0.056719124,-0.0021762736,0.06641277,0.031547662,-0.02317744,0.00029079986,-2.0,2.0,-2.0,-2.0,2.0,-2.0,2.0,0.16066168,-2.0,2.0,0.5474878,-2.0,-2.0,2.0,-1.9218512,-2.0,2.0,-2.0,2.0,0.28794664,-2.0,2.0,-0.0071148425,-2.0
2025-07-21 14:23:39.120,1.7600000000000011,1760,88,0.013558233,0.0185593,0.0437829,0.0014246552,-0.14057182,-0.04021165,1.5,0.0,0.0,0.004582336,-0.046190653,0.49052596,-0.16800718,-0.06495873,0.5335444,-0.08384401,0.10437566,0.17243057,0.24735011,0.010535993,0.40875855,0.14044686,-0.04551844,-0.048746727,0.00067649485,0.06272642,-0.019338263,-0.017677367,0.016935289,-0.029411301,-0.071452975,-0.033948544,-0.06295673,0.027868113,-2.0,2.0,-1.9218512,-2.0,2.0,-2.0,2.0,0.28794664,-2.0,2.0,-0.0071148425,-2.0,-2.0,2.0,-1.4860873,-2.0,2.0,-2.0,2.0,-0.011641547,-2.0,2.0,0.4771586,-2.0
2025-07-21 14:23:39.137,1.7800000000000011,1780,89,-0.013860718,-0.03524333,-0.01284646,0.06838525,-0.14021751,-0.040330406,1.5,0.0,0.0,0.0041900002,-0.039917424,0.48778805,-0.16235131,-0.06405026,0.5254982,-0.08883621,0.09263879,0.17208616,0.23242247,0.018875968,0.39470437,0.14749005,-0.011608138,0.05724348,0.052605603,0.0039817765,-0.031163188,0.0051576584,-0.059230596,0.026471762,-0.026615545,0.06419697,0.03089233,-0.05491341,-2.0,2.0,-1.4860873,-2.0,2.0,-2.0,2.0,-0.011641547,-2.0,2.0,0.4771586,-2.0,-2.0,2.0,-1.7890067,-2.0,2.0,-2.0,2.0,-0.0056715608,-2.0,2.0,0.25912076,-2.0
2025-07-21 14:23:39.161,1.8000000000000012,1800,90,-0.04183806,-0.05843409,-0.00035536513,0.036810786,-0.070505485,0.021496413,1.5,0.0,0.0,0.0036016954,-0.03361741,0.47607645,-0.16282316,-0.062374167,0.5092419,-0.09406528,0.09352459,0.17564155,0.24701168,0.010709334,0.3841871,0.15407604,0.06572476,-0.07258595,0.013695733,0.031161468,0.044516075,0.050188325,-0.02850385,0.044193115,-0.038407274,-0.009468708,-0.01239704,0.0022212847,-2.0,2.0,-1.7890067,-2.0,2.0,-2.0,2.0,-0.0056715608,-2.0,2.0,0.25912076,-2.0,-2.0,2.0,-1.0284212,-2.0,2.0,-2.0,2.0,0.043277398,-2.0,2.0,0.26059192,-2.0
2025-07-21 14:23:39.182,1.8200000000000012,1820,91,0.029327866,-0.0005377049,0.02102018,0.045179766,-0.063490644,0.007941964,1.5,0.0,0.0,0.0030112183,-0.04735199,0.48211384,-0.1576886,-0.064833045,0.507352,-0.08527869,0.09814785,0.17870319,0.24908839,0.010566351,0.39034072,0.15927438,-0.002990391,0.04876319,0.067045495,0.034794725,0.018581297,0.0076421886,0.05193925,-0.029532755,-0.0462918,0.006284353,0.05212709,-0.0093263835,-2.0,2.0,-1.0284212,-2.0,2.0,-2.0,2.0,0.043277398,-2.0,2.0,0.26059192,-2.0,-2.0,2.0,-2.0,-2.0,2.0,-2.0,2.0,-0.34044212,-2.0,2.0,0.6556755,-2.0
2025-07-21 14:23:39.200,1.8400000000000012,1840,92,0.0364106,-0.047206737,0.030099064,0.052271407,-0.14283171,-0.041581452,1.5,0.0,0.0,0.0022629604,-0.03772459,0.47248223,-0.16179623,-0.06655239,0.50300807,-0.09154602,0.090645686,0.17095785,0.24917115,0.0043013883,0.38544813,0.16222738,0.038493086,-0.020605337,-0.015945166,-0.0044887317,-0.021366581,0.023180904,0.05029808,-0.08054772,0.07958544,-0.058970336,-0.012936744,0.044443134,-2.0,2.0,-2.0,-2.0,2.0,-2.0,2.0,-0.34044212,-2.0,2.0,0.6556755,-2.0,-2.0,2.0,-2.0,-2.0,2.0,-2.0,2.0,-0.05206821,-2.0,2.0,0.60932004,-2.0
2025-07-21 14:23:39.220,1.8600000000000012,1860,93,-0.03980238,-0.05533743,-0.044701684,-0.004850998,-0.14015688,0.04803418,1.5,0.0,0.0,0.0017163408,-0.04834255,0.47511965,-0.16154893,-0.0650439,0.5064274,-0.07849595,0.09941617,0.16882604,0.25712812,0.007897675,0.37637845,0.16734901,-0.07440286,-0.03383526,-0.071718656,-0.0625267,0.011709368,0.0757612,0.073375426,-0.06263787,-0.035920504,0.02779665,0.01406134,-0.04179649,-2.0,2.0,-2.0,-2.0,2.0,-2.0,2.0,-0.05206821,-2.0,2.0,0.60932004,-2.0,-2.0,2.0,-1.6894093,-2.0,2.0,-2.0,2.0,0.12547399,-2.0,2.0,-0.12167187,-2.0
2025-07-21 14:23:39.249,1.8800000000000012,1880,94,-0.025850622,-0.053829398,0.06031815,0.006362632,-0.10400325,-0.0050745565,1.5,0.0,0.0,0.0016093495,-0.039720643,0.4738442,-0.14961177,-0.059854906,0.5075286,-0.09211224,0.085058674,0.1632747,0.24838544,0.008319277,0.38138646,0.15864307,0.033229616,-0.017690098,0.055067416,-0.05149118,0.03287433,-0.030637639,0.052974593,0.026172716,0.021159679,0.047127612,-0.06288772,0.06501743,-2.0,2.0,-1.6894093,-2.0,2.0,-2.0,2.0,0.12547399,-2.0,2.0,-0.12167187,-2.0,-2.0,2.0,-0.27343318,-2.0,2.0,-2.0,2.0,-0.1961896,-2.0,2.0,0.41854537,-2.0
2025-07-21 14:23:39.270,1.9000000000000012,1900,95,-0.06863416,-0.027135734,0.014693774,0.05523072,-0.08615851,-0.047745045,1.5,0.0,0.0,0.001447648,-0.048933618,0.4670646,-0.13266282,-0.057047147,0.5046851,-0.090981655,0.098070934,0.17103551,0.2418274,0.007817531,0.37690747,0.17051043,-0.03613586,0.009053644,0.09472939,-0.07450306,-0.013182347,0.06698121,0.043011982,-0.0025589995,-0.015775308,0.04623712,0.056691833,-0.0475874,-2.0,2.0,-0.27343318,-2.0,2.0,-2.0,2.0,-0.1961896,-2.0,2.0,0.41854537,-2.0,-2.0,2.0,-2.0,-2.0,2.0,-2.0,2.0,-0.6454281,-2.0,2.0,0.69977236,-2.0
2025-07-21 14:23:39.290,1.9200000000000013,1920,96,0.0027630604,0.05244301,0.02615405,0.018675217,-0.11620519,0.029982138,1.5,0.0,0.0,0.0012202465,-0.043857876,0.46843076,-0.14143687,-0.05828696,0.50440717,-0.09224813,0.093987755,0.15897785,0.25666055,0.0144088445,0.3760325,0.15493833,-0.07176589,0.031634014,-0.11690368,0.0047770482,-0.029883007,0.07221,0.04180095,-0.07524063,-0.052062854,-0.032975323,-0.01843317,0.06422997,-2.0,2.0,-2.0,-2.0,2.0,-2.0,2.0,-0.6454281,-2.0,2.0,0.69977236,-2.0,-2.0,2.0,-1.6847713,-2.0,2.0,-2.0,2.0,-0.28913307,-2.0,2.0,0.5176309,-2.0
2025-07-21 14:23:39.316,1.9400000000000013,1940,97,0.029349977,0.007870487,-0.008290407,0.06802155,-0.15052104,-0.016648252,1.5,0.0,0.0,0.0013543409,-0.04888315,0.45456213,-0.14927897,-0.061296698,0.5097513,-0.08481126,0.084596135,0.16841076,0.2553245,0.0055970736,0.3819487,0.16502419,0.068051234,-0.051483616,-0.010814049,0.039988346,0.049769692,-0.06196941,0.05233512,-0.05922194,-0.04692902,-0.008698623,0.030809231,0.058364876,-2.0,2.0,-1.6847713,-2.0,2.0,-2.0,2.0,-0.28913307,-2.0,2.0,0.5176309,-2.0,-2.0,2.0,-1.1212637,-2.0,2.0,-2.0,2.0,-0.0007521957,-2.0,2.0,0.39314085,-2.0
2025-07-21 14:23:39.334,1.9600000000000013,1960,98,-0.010244728,-0.004072533,0.007280616,0.0034708416,-0.1037204,-0.0044564256,1.5,0.0,0.0,0.0018007074,-0.05729726,0.46363738,-0.14323176,-0.05769086,0.5084228,-0.074052244,0.08674571,0.17008674,0.26965,0.016412914,0.38676587,0.1616209,0.049331855,-0.05980305,0.006751811,0.015496566,0.016357591,-0.034056153,0.009504462,-0.042665206,-0.007989351,0.047535334,-0.01925521,-0.009547119,-2.0,2.0,-1.1212637,-2.0,2.0,-2.0,2.0,-0.0007521957,-2.0,2.0,0.39314085,-2.0,-2.0,2.0,-1.193331,-2.0,2.0,-2.0,2.0,-0.17076956,-2.0,2.0,0.48401064,-2.0
2025-07-21 14:23:39.356,1.9800000000000013,1980,99,0.0070526917,0.063390866,0.042792637,-0.0028514683,-0.1445198,-0.03545294,1.5,0.0,0.0,0.0020776503,-0.058515176,0.45530862,-0.1387531,-0.05363911,0.51175207,-0.08558238,0.10382029,0.1636404,0.2732181,0.025445236,0.3905046,0.16226909,-0.06734845,0.056013677,0.051878784,-0.023068381,0.044402685,0.0078098457,0.06005168,-0.037526324,-0.04683819,-0.030356245,-0.052213263,0.017634405,-2.0,2.0,-1.193331,-2.0,2.0,-2.0,2.0,-0.17076956,-2.0,2.0,0.48401064,-2.0,-2.0,2.0,-1.3047788,-2.0,2.0,-2.0,2.0,-0.29751903,-2.0,2.0,0.6917964,-2.0
2025-07-21 14:23:39.374,2.0000000000000013,2000,100,-0.030899823,0.013747895,-0.010370924,0.06344022,-0.0695212,0.00825647,1.5,0.0,0.0,0.0021559473,-0.048727687,0.4535273,-0.12822035,-0.05160603,0.50476587,-0.07272429,0.08846431,0.16884524,0.26061937,0.02722639,0.38016975,0.16111039,-0.070492715,-0.07032709,0.06976407,0.022928666,0.0036783305,0.028903877,-0.004777545,-0.031501494,0.0075105242,-0.01442008,0.052631192,0.0033182802,-2.0,2.0,-1.3047788,-2.0,2.0,-2.0,2.0,-0.29751903,-2.0,2.0,0.6917964,-2.0,-2.0,2.0,-1.6734898,-2.0,2.0,-2.0,2.0,-0.22109263,-2.0,2.0,0.364348,-2.0
2025-07-21 14:23:39.399,2.0200000000000014,2020,101,-0.043543424,-0.061244026,0.035547562,0.03502659,-0.080203116,-0.047087733,1.5,0.0,0.0,0.0023233064,-0.055137277,0.46380767,-0.12839292,-0.05887342,0.5020707,-0.07208811,0.103150636,0.15195227,0.27081177,0.016110353,0.37593514,0.14469826,0.01625211,-0.06509206,-0.067614146,-0.00890304,-0.0030353044,0.036776662,0.010049947,0.057539776,0.079082526,-0.02936955,-0.01932048,0.0336154,-2.0,2.0,-1.6734898,-2.0,2.0,-2.0,2.0,-0.22109263,-2.0,2.0,0.364348,-2.0,-2.0,2.0,-0.531414,-2.0,2.0,-2.0,2.0,-0.3166139,-2.0,2.0,0.47155708,-2.0
2025-07-21 14:23:39.416,2.0400000000000014,2040,102,-0.02641341,0.034452107,0.00043746358,0.076653555,-0.06016753,0.024173226,1.5,0.0,0.0,0.0024917007,-0.048388187,0.45556647,-0.117475584,-0.05785271,0.515873,-0.07463221,0.101836756,0.16031797,0.26348838,0.023117948,0.39419457,0.16051786,-0.0027990644,0.0052726115,0.04084486,0.06742459,-0.014874811,0.051065076,-0.025360607,-0.022337258,-0.005242914,0.025112389,-8.771795e-05,0.053470287,-2.0,2.0,-0.531414,-2.0,2.0,-2.0,2.0,-0.3166139,-2.0,2.0,0.47155708,-2.0,-2.0,2.0,-2.0,-2.0,2.0,-2.0,2.0,-0.57737905,-2.0,2.0,0.8043953,-2.0
2025-07-21 14:23:39.435,2.0600000000000014,2060,103,-0.0071852566,-0.043930758,0.02526647,0.06526641,-0.0633356,-0.041117974,0.0,0.0,0.0,0.0025483423,-0.059785437,0.460732,-0.13290995,-0.06281409,0.50756764,-0.08313014,0.091698706,0.15541805,0.27740213,0.021961095,0.3834224,0.15508948,0.07124335,-0.07663246,-0.00075828214,-0.070177406,-0.0017671695,-0.029405313,0.037989274,-0.074136496,-0.060970295,0.050661225,-0.032231625,-0.0061139846,-2.0,2.0,-2.0,-2.0,2.0,-2.0,2.0,-0.57737905,-2.0,2.0,0.8043953,-2.0,-2.0,2.0,-2.0,-2.0,2.0,-2.0,2.0,1.2101381,-2.0,2.0,2.0,-2.0
2025-07-21 14:23:39.455,2.0800000000000014,2080,104,0.05390181,0.10131395,-0.06348515,0.017300561,-0.07949661,0.02271252,0.0,0.0,0.0,0.0028107092,-0.0486278,0.4607486,-0.1176418,-0.057307974,0.5152811,-0.0773453,0.109084226,0.17484252,0.2796973,0.019797202,0.3992792,0.14251246,-0.0477865,0.04122731,0.05702257,-0.029992692,0.07931993,-0.03986098,0.030167362,0.0012855926,-0.005078463,0.02492192,0.060910765,-0.06705848,-2.0,2.0,-2.0,-2.0,2.0,-2.0,2.0,1.2101381,-2.0,2.0,2.0,-2.0,-2.0,1.777754,-2.0,-2.0,2.0,-2.0,2.0,0.54040235,-2.0,2.0,0.68987244,-2.0
2025-07-21 14:23:39.474,2.1000000000000014,2100,105,0.060144525,0.018297397,-0.04102597,0.05049539,-0.046545573,-0.037017077,0.0,0.0,0.0,0.0033127577,-0.06002674,0.46482578,-0.11690258,-0.05653731,0.53187084,-0.07298859,0.10733286,0.18722649,0.2569355,0.037544902,0.42232725,0.12969762,-0.0012225457,0.031025203,0.0084503,0.07786098,-0.014119796,0.047270015,-0.04549012,-0.031127663,0.037606582,-0.060695942,0.07578488,-0.09241277,-2.0,1.777754,-2.0,-2.0,2.0,-2.0,2.0,0.54040235,-2.0,2.0,0.68987244,-2.0,-2.0,2.0,-2.0,-2.0,2.0,-2.0,2.0,0.65325123,-2.0,2.0,1.6235611,-2.0
2025-07-21 14:23:39.500,2.1200000000000014,2120,106,0.023087664,0.034348726,-0.024299912,0.07340744,-0.054722495,-0.04085438,0.0,0.0,0.0,0.0035733888,-0.046985958,0.47975993,-0.1221094,-0.057563417,0.54732996,-0.069592044,0.10399089,0.2112761,0.2403669,0.024154434,0.4351387,0.107971326,0.06763256,0.045308404,0.013523602,-0.059116606,0.04563503,-0.011549553,0.047949728,0.08483151,-0.06482913,-0.032304402,0.0652239,-0.07400519,-2.0,2.0,-2.0,-2.0,2.0,-2.0,2.0,0.65325123,-2.0,2.0,1.6235611,-2.0,-2.0,2.0,-2.0,-2.0,2.0,-2.0,2.0,0.5532713,-2.0,2.0,1.3598504,-2.0
2025-07-21 14:23:39.517,2.1400000000000015,2140,107,-0.0045312885,0.0065890686,0.020506088,0.048780236,-0.058583353,-0.043545064,0.0,0.0,0.0,0.003760978,-0.04864828,0.49613756,-0.1259927,-0.055161297,0.56765425,-0.067630276,0.11161051,0.22501706,0.2400527,0.032162998,0.46538386,0.09588474,0.056252327,-0.004387607,-0.021554142,0.032719415,0.032024853,-0.06537526,-0.0124363005,0.0303614,-0.07083225,-0.052294046,-0.020088207,0.022721054,-2.0,2.0,-2.0,-2.0,2.0,-2.0,2.0,0.5532713,-2.0,2.0,1.3598504,-2.0,-2.0,2.0,-2.0,-2.0,2.0,-2.0,2.0,0.5424903,-2.0,2.0,1.7759856,-2.0
2025-07-21 14:23:39.537,2.1600000000000015,2160,108,-0.009723882,-0.02977964,-0.032473374,0.066575915,-0.051013142,-0.03616428,0.0,0.0,0.0,0.0040531363,-0.054922964,0.51033956,-0.12536253,-0.06303586,0.57841575,-0.06861619,0.11882643,0.24261138,0.23707266,0.032343473,0.4804546,0.094500855,-0.03299691,0.051319614,-0.07967302,0.058031328,0.10553212,-0.080016986,0.06915426,-0.013346076,-0.06646372,0.022992942,0.04716908,-0.035502877,-2.0,2.0,-2.0,-2.0,2.0,-2.0,2.0,0.5424903,-2.0,2.0,1.7759856,-2.0,-2.0,2.0,-2.0,-2.0,2.0,-2.0,2.0,0.676357,-2.0,2.0,1.672803,-2.0
2025-07-21 14:23:39.555,2.1800000000000015,2180,109,-0.00073561945,0.015449382,-0.03623895,-0.005696259,-0.07510922,-0.04771543,0.0,0.0,0.0,0.0045215227,-0.05248676,0.5143676,-0.12222897,-0.05717654,0.58223397,-0.07228354,0.10348025,0.24927135,0.2285642,0.042895775,0.49495244,0.08087547,0.02308696,-0.011683044,0.0023932639,-0.08289235,0.09924927,-0.043552805,-0.029325746,-0.023348764,-0.062344942,0.040668864,0.058259588,-0.05668655,-2.0,2.0,-2.0,-2.0,2.0,-2.0,2.0,0.676357,-2.0,2.0,1.672803,-2.0,-2.0,2.0,-2.0,-2.0,2.0,-2.0,2.0,0.7608307,-2.0,2.0,1.5791626,-2.0
2025-07-21 14:23:39.575,2.2000000000000015,2200,110,0.012890831,0.011318478,-0.050621297,-0.010840926,-0.05185769,-0.036356255,0.0,0.0,0.0,0.0051497454,-0.054608088,0.52928954,-0.12536415,-0.064264014,0.6063971,-0.0790076,0.119068004,0.26683348,0.21573023,0.04059833,0.5036116,0.06509666,0.0076611573,-0.036725093,-0.0011651828,0.010362255,0.049907446,-0.061023924,-0.061916728,0.08740308,-0.043128714,-0.010371412,0.10302972,-0.0346765,-2.0,2.0,-2.0,-2.0,2.0,-2.0,2.0,0.7608307,-2.0,2.0,1.5791626,-2.0,-2.0,2.0,-2.0,-2.0,2.0,-2.0,2.0,0.75568384,-2.0,2.0,1.4291544,-2.0
2025-07-21 14:23:39.599,2.2200000000000015,2220,111,0.034732394,0.06615434,0.009939035,0.030662464,-0.11683732,0.010032398,0.0,0.0,0.0,0.005722954,-0.07230102,0.54104525,-0.14318913,-0.07311445,0.62283367,-0.0864672,0.10965144,0.2779393,0.20221294,0.029073726,0.5086307,0.063222654,0.040556706,-0.018327482,-0.07279713,-0.057403125,0.0028860115,0.053441662,0.014669697,-0.014705102,0.03947307,-0.050275855,-0.02326798,0.045601558,-2.0,2.0,-2.0,-2.0,2.0,-2.0,2.0,0.75568384,-2.0,2.0,1.4291544,-2.0,-2.0,2.0,-2.0,-2.0,2.0,-2.0,2.0,0.5498397,-2.0,2.0,1.7712002,-2.0
2025-07-21 14:23:39.616,2.2400000000000015,2240,112,0.020072322,0.022865834,-0.03972753,0.071084335,-0.06462317,0.012282221,0.0,0.0,0.0,0.00607676,-0.058812894,0.55568457,-0.13397248,-0.06798687,0.6249026,-0.09620143,0.11514472,0.28637293,0.21332964,0.032190967,0.5300606,0.058137864,-0.0708644,0.04235601,0.0027345174,-0.040009674,0.0010409183,0.02034102,-0.07529142,0.0035735935,-0.027151704,-0.027514126,-0.015642105,0.055872437,-2.0,2.0,-2.0,-2.0,2.0,-2.0,2.0,0.5498397,-2.0,2.0,1.7712002,-2.0,-2.0,2.0,-2.0,-2.0,2.0,-2.0,2.0,0.96394473,-2.0,2.0,1.7364721,-2.0
2025-07-21 14:23:39.636,2.2600000000000016,2260,113,-0.0054065925,0.033904113,-0.021295028,0.06561235,-0.09787049,-0.033831224,0.0,0.0,0.0,0.00638263,-0.056652214,0.557155,-0.1392722,-0.08323632,0.6330308,-0.093029186,0.10513124,0.2950302,0.19998668,0.042124785,0.5331844,0.05524607,0.011562277,0.009939699,-0.04142843,0.050045345,0.07719896,-0.0501983,0.050534543,0.04544853,0.004321014,-0.011410286,-0.03313157,-0.038320027,-2.0,2.0,-2.0,-2.0,2.0,-2.0,2.0,0.96394473,-2.0,2.0,1.7364721,-2.0,-2.0,2.0,-2.0,-2.0,2.0,-2.0,2.0,0.7452969,-2.0,2.0,1.5615172,-2.0
2025-07-21 14:23:39.655,2.2800000000000016,2280,114,0.013292065,-0.03953627,0.04274582,0.029982306,-0.06960489,0.012368542,0.0,0.0,0.0,0.006607171,-0.06159164,0.54775155,-0.14429364,-0.07615172,0.63167316,-0.09262435,0.101170994,0.30644658,0.20353165,0.031794738,0.53855836,0.05869257,0.008302074,-0.044434335,0.039126437,0.012554048,-0.060559526,0.008142321,-0.026146324,-0.016164025,0.046994857,0.073170014,-0.009925946,-0.022180485,-2.0,2.0,-2.0,-2.0,2.0,-2.0,2.0,0.7452969,-2.0,2.0,1.5615172,-2.0,-2.0,2.0,-2.0,-2.0,2.0,-2.0,2.0,0.44146433,-2.0,2.0,1.9131446,-2.0
2025-07-21 14:23:39.689,2.3000000000000016,2300,115,-0.017487602,-0.024288055,0.019447124,0.061994158,-0.046646733,0.029330917,0.0,0.0,0.0,0.0067234654,-0.066964656,0.54619175,-0.1359042,-0.07778476,0.6298402,-0.08082565,0.11928884,0.30122557,0.20803955,0.046655763,0.54783833,0.051628307,-0.015274857,-0.03406741,0.0598711,-0.020660127,-0.0351598,0.06332022,-0.015040393,-0.052912496,0.07393715,0.05688315,0.031266853,0.025775833,-2.0,2.0,-2.0,-2.0,2.0,-2.0,2.0,0.44146433,-2.0,2.0,1.9131446,-2.0,-2.0,2.0,-2.0,-2.0,2.0,-2.0,2.0,0.4362163,-2.0,2.0,2.0,-2.0
2025-07-21 14:23:39.716,2.3200000000000016,2320,116,0.0030506838,-0.0133716995,-0.055327963,0.0054546203,-0.112548955,-0.012376519,0.0,0.0,0.0,0.0069869817,-0.071297586,0.56194264,-0.13131887,-0.07754674,0.63791037,-0.09746204,0.106245145,0.29458663,0.20064868,0.039047524,0.5402422,0.039006993,0.031069253,0.011801768,-0.034181044,0.006394747,0.013456055,-0.020697583,0.060755614,0.010872639,-0.061414566,-0.019268388,-0.007890701,-0.025394822,-2.0,2.0,-2.0,-2.0,2.0,-2.0,2.0,0.4362163,-2.0,2.0,2.0,-2.0,-2.0,2.0,-2.0,-2.0,2.0,-2.0,2.0,1.1684508,-2.0,2.0,1.897602,-2.0
2025-07-21 14:23:39.737,2.3400000000000016,2340,117,-0.022556432,0.045840338,0.029606193,0.034910403,-0.060318112,-0.035389077,0.0,0.0,0.0,0.0074843275,-0.063391365,0.5594127,-0.14614427,-0.07890983,0.6440957,-0.08612314,0.10760364,0.2953088,0.20061724,0.050240632,0.5383726,0.050546687,-0.0271868,-0.03569734,0.030053802,-0.0463159,0.054956995,-0.054426465,0.010873969,0.024696695,0.045475177,-0.030768048,0.020925567,-0.07436135,-2.0,2.0,-2.0,-2.0,2.0,-2.0,2.0,1.1684508,-2.0,2.0,1.897602,-2.0,-2.0,2.0,-2.0,-2.0,2.0,-2.0,2.0,0.39723098,-2.0,2.0,1.4556621,-2.0
2025-07-21 14:23:39.758,2.3600000000000017,2360,118,-0.0357781,-0.028231453,0.0050966637,0.01887923,-0.04236514,-0.008504695,0.0,0.0,0.0,0.0077898856,-0.064005636,0.5454261,-0.12842292,-0.07582707,0.63247633,-0.082337305,0.12139705,0.29413942,0.20103124,0.055839982,0.55316,0.046890512,0.039121326,0.044281512,-0.062551394,-0.05345777,0.028168062,0.05067461,0.07463347,-0.022639465,-0.06327888,-0.010618015,0.048349977,0.0033401686,-2.0,2.0,-2.0,-2.0,2.0,-2.0,2.0,0.39723098,-2.0,2.0,1.4556621,-2.0,-2.0,2.0,-2.0,-2.0,2.0,-2.0,2.0,0.7237831,-2.0,2.0,2.0,-2.0
2025-07-21 14:23:39.782,2.3800000000000017,2380,119,-0.0054797716,-0.024034081,-0.009210602,0.040481865,-0.099150345,0.023212995,0.0,0.0,0.0,0.007921883,-0.06215243,0.55291414,-0.14154541,-0.08199215,0.64333224,-0.08546472,0.11115706,0.29905963,0.2053189,0.052372273,0.5453828,0.036714744,0.061759587,-0.009078072,-0.043567147,-0.032958154,0.023780264,0.024451397,0.0655134,0.028623777,0.015720395,0.068911724,0.04937126,0.048207615,-2.0,2.0,-2.0,-2.0,2.0,-2.0,2.0,0.7237831,-2.0,2.0,2.0,-2.0,-2.0,2.0,-2.0,-2.0,2.0,-2.0,2.0,0.6019163,-2.0,2.0,1.7053157,-2.0
2025-07-21 14:23:39.799,2.4000000000000017,2400,120,-0.004396524,0.0123402,-0.005257286,0.051679425,-0.081311375,-0.013265688,0.0,0.0,0.0,0.008050259,-0.07866239,0.54442483,-0.13037819,-0.087755114,0.6442309,-0.095278256,0.11294231,0.2956111,0.21524476,0.055652067,0.53626925,0.044772938,-0.06771405,-0.06018699,0.0067614666,0.06351336,-0.050660383,-0.0649638,0.0402689,0.039310485,-0.0045791375,0.07598016,0.03423259,-0.049966615,-2.0,2.0,-2.0,-2.0,2.0,-2.0,2.0,0.6019163,-2.0,2.0,1.7053157,-2.0,-2.0,2.0,-2.0,-2.0,2.0,-2.0,2.0,0.5914739,-2.0,2.0,1.8094676,-2.0
2025-07-21 14:23:39.818,2.4200000000000017,2420,121,-0.019841615,-0.014453238,0.007521752,0.052101456,-0.05088866,0.023753759,0.0,0.0,0.0,0.008160828,-0.08038483,0.54882926,-0.13312875,-0.07008207,0.63320714,-0.09796514,0.11006949,0.29720655,0.21597292,0.05165616,0.5446412,0.03474713,0.009927321,-0.033187047,-0.0684813,-0.004293117,0.040462863,-0.046658874,0.0478543,-0.0056233807,-0.06989971,-0.07088649,-0.061420884,-0.06629862,-2.0,2.0,-2.0,-2.0,2.0,-2.0,2.0,0.5914739,-2.0,2.0,1.8094676,-2.0,-2.0,2.0,-2.0,-2.0,2.0,-2.0,2.0,0.7361819,-2.0,2.0,2.0,-2.0
2025-07-21 14:23:39.838,2.4400000000000017,2440,122,0.0026795163,0.04503925,-0.015111364,0.034908894,-0.074605644,-0.01985644,1.5,0.0,0.0,0.008261983,-0.072474234,0.547033,-0.12783529,-0.083286814,0.63782,-0.09536102,0.11194358,0.2849838,0.21900329,0.05898486,0.55146295,0.04015699,0.06880795,-0.045289908,0.050837893,0.047249176,0.053296693,0.0008490063,0.039373524,-0.06002312,0.034502015,-0.025844473,-0.006116941,-0.05200502,-2.0,2.0,-2.0,-2.0,2.0,-2.0,2.0,0.7361819,-2.0,2.0,2.0,-2.0,-2.0,2.0,-2.0,-2.0,2.0,-2.0,2.0,0.7522038,-2.0,2.0,0.56993896,-2.0
2025-07-21 14:23:39.858,2.4600000000000017,2460,123,-0.031364314,-0.037911605,0.04444517,0.071567975,-0.09608255,-0.0007579217,1.5,0.0,0.0,0.008364444,-0.068770014,0.54649484,-0.1271264,-0.069490016,0.63393843,-0.08262404,0.111173466,0.29008,0.2141481,0.059189867,0.5462332,0.035022423,0.01614144,-0.019937642,-0.06590378,-0.030388515,0.047306657,-0.033836048,-0.034742195,0.048241727,-0.05233504,-0.019345254,-0.08369162,-0.057864796,-2.0,2.0,-2.0,-2.0,2.0,-2.0,2.0,0.7522038,-2.0,2.0,0.56993896,-2.0,-2.0,2.0,-2.0,-2.0,2.0,-2.0,2.0,0.58974177,-2.0,2.0,0.8989005,-2.0
2025-07-21 14:23:39.882,2.4800000000000018,2480,124,0.029505495,-0.08725561,0.011845352,0.03642005,-0.06572194,-0.0436843,1.5,0.0,0.0,0.0080858935,-0.07517133,0.53663844,-0.13538787,-0.06624222,0.6134611,-0.08780864,0.1184315,0.27547175,0.21422698,0.046922054,0.5342481,0.05828905,0.002926568,-0.05090575,-0.069041476,-0.010522803,-0.034586016,0.008342892,0.05367015,0.014861119,0.004428037,-0.014283184,-0.0061713816,-0.024567362,-2.0,2.0,-2.0,-2.0,2.0,-2.0,2.0,0.58974177,-2.0,2.0,0.8989005,-2.0,-2.0,2.0,-2.0,-2.0,2.0,-2.0,2.0,0.4768479,-2.0,2.0,0.72463274,-2.0
2025-07-21 14:23:39.899,2.5000000000000018,2500,125,-0.052108213,-0.110680304,0.09658513,-0.014695529,-0.03743746,-0.03336418,1.5,0.0,0.0,0.00726085,-0.06252143,0.5334387,-0.1306982,-0.060771715,0.6076561,-0.09347738,0.11588629,0.26827115,0.21363382,0.054339454,0.51660097,0.054907136,0.019608038,-0.08466238,-0.05784245,0.025868768,-0.04954346,-0.066929705,0.03731711,-0.038752735,-0.03193022,0.04215999,-0.08403072,-0.012526675,-2.0,2.0,-2.0,-2.0,2.0,-2.0,2.0,0.4768479,-2.0,2.0,0.72463274,-2.0,-2.0,2.0,-2.0,-2.0,2.0,-2.0,2.0,0.35880867,-2.0,2.0,1.2890383,-2.0
2025-07-21 14:23:39.918,2.520000000000002,2520,126,-0.053481292,-0.06255706,0.06813697,0.003602188,-0.054959867,0.032640673,1.5,0.0,0.0,0.006340613,-0.056896392,0.5338718,-0.14523248,-0.07179482,0.5984205,-0.096377045,0.10981479,0.2546959,0.22674243,0.03651587,0.48787987,0.07749505,0.00029713087,0.04908707,0.0666233,0.05303492,-0.013746005,-0.052389126,-0.07797663,0.039593253,0.023073092,0.056961264,0.037733797,-0.00800403,-2.0,2.0,-2.0,-2.0,2.0,-2.0,2.0,0.35880867,-2.0,2.0,1.2890383,-2.0,-2.0,2.0,-2.0,-2.0,2.0,-2.0,2.0,0.3604818,-2.0,2.0,0.89202994,-2.0
2025-07-21 14:23:39.939,2.540000000000002,2540,127,0.022622857,-0.07898757,0.036371678,0.0072133467,-0.10842588,-0.03898544,1.5,0.0,0.0,0.005573699,-0.064900145,0.5229474,-0.14242485,-0.06733074,0.60004026,-0.09696157,0.109481715,0.2551356,0.23491316,0.037766088,0.48587105,0.06939478,-0.031404786,-0.0671965,-0.010482824,0.03232742,-0.03965065,-0.03523881,0.051971003,0.046622157,0.028575638,0.052745815,0.0271687,0.041993514,-2.0,2.0,-2.0,-2.0,2.0,-2.0,2.0,0.3604818,-2.0,2.0,0.89202994,-2.0,-2.0,2.0,-2.0,-2.0,2.0,-2.0,2.0,0.32868654,-2.0,2.0,0.6492019,-2.0
2025-07-21 14:23:39.964,2.560000000000002,2560,128,0.036154352,-0.087449335,0.01259599,-0.018012788,-0.06972255,0.014079661,1.5,0.0,0.0,0.0050238827,-0.047516823,0.5263593,-0.15678698,-0.07019697,0.5948259,-0.11048754,0.09919475,0.24597266,0.22937499,0.03793704,0.47486663,0.08552249,0.05697405,-0.031473793,-0.08071649,0.010705938,-0.028290963,-0.039574623,0.006706517,-0.050583057,-0.031218164,0.031476617,-0.093093425,0.02918779,-2.0,2.0,-2.0,-2.0,2.0,-2.0,2.0,0.32868654,-2.0,2.0,0.6492019,-2.0,-2.0,2.0,-2.0,-2.0,2.0,-2.0,2.0,0.47433943,-2.0,2.0,0.676902,-2.0
2025-07-21 14:23:39.982,2.580000000000002,2580,129,0.04030688,0.0025704838,0.021426845,-0.010019601,-0.075106554,-0.03883705,1.5,0.0,0.0,0.0044165645,-0.056306187,0.5143677,-0.14928989,-0.06810233,0.5831329,-0.10366412,0.10929878,0.22517864,0.24145375,0.036889717,0.45493257,0.084417686,0.06892266,-0.017662039,0.061810847,0.02148727,-0.07170194,0.061117686,-0.0017356874,-0.05214374,0.020924663,-0.07364799,-0.08874005,-0.030215763,-2.0,2.0,-2.0,-2.0,2.0,-2.0,2.0,0.47433943,-2.0,2.0,0.676902,-2.0,-2.0,2.0,-2.0,-2.0,2.0,-2.0,2.0,0.38054365,-2.0,2.0,0.6457763,-2.0
2025-07-21 14:23:39.999,2.600000000000002,2600,130,0.02678455,-0.065863326,-0.0028187102,0.016730314,-0.118699126,-0.02161936,1.5,0.0,0.0,0.003638412,-0.045248672,0.50545865,-0.15974933,-0.05180147,0.57799184,-0.10366387,0.11178594,0.22322394,0.2417958,0.03696674,0.44261885,0.11251231,-0.0026613045,0.019927775,-0.018335687,0.00898656,-0.058730043,-0.04783003,-0.06775049,0.0344742,0.06989941,0.006552956,-0.06793842,-0.043570373,-2.0,2.0,-2.0,-2.0,2.0,-2.0,2.0,0.38054365,-2.0,2.0,0.6457763,-2.0,-2.0,2.0,-2.0,-2.0,2.0,-2.0,2.0,0.4147013,-2.0,2.0,0.25443524,-2.0
2025-07-21 14:23:40.019,2.620000000000002,2620,131,-0.00011422463,-0.039686777,0.097499095,0.009971962,-0.09616712,-0.03449762,0.0,0.0,0.0,0.002781059,-0.04003875,0.5064452,-0.14854527,-0.044868596,0.56720704,-0.11159333,0.10878819,0.22380935,0.2466626,0.032890316,0.44476208,0.116403535,-0.027065307,0.025171366,-0.06047915,-0.052909173,-0.092694454,0.034504663,0.035978626,0.056327242,-1.2570076e-05,0.034342322,-0.07118133,0.0035807772,-2.0,2.0,-2.0,-2.0,2.0,-2.0,2.0,0.4147013,-2.0,2.0,0.25443524,-2.0,-2.0,2.0,-2.0,-2.0,2.0,-2.0,2.0,0.36022627,-2.0,2.0,2.0,-2.0
2025-07-21 14:23:40.040,2.640000000000002,2640,132,0.000623073,0.0011375331,0.015323931,0.014479879,-0.05673325,-0.042240027,0.0,0.0,0.0,0.00175415,-0.050792802,0.5062204,-0.15170135,-0.05235006,0.54991436,-0.106974356,0.100513496,0.23076725,0.23074897,0.028573312,0.42712757,0.11247762,0.018414948,-0.015868777,0.064090185,0.034551334,-0.0033438078,-0.00017134265,0.010257282,0.01941284,-0.06483558,0.025647445,-0.028488103,0.011204062,-2.0,2.0,-2.0,-2.0,2.0,-2.0,2.0,0.36022627,-2.0,2.0,2.0,-2.0,-2.0,2.0,-2.0,-2.0,2.0,-2.0,2.0,0.4565465,-2.0,2.0,1.6693869,-2.0
2025-07-21 14:23:40.070,2.660000000000002,2660,133,0.07908016,0.07907144,-0.017246323,0.05452706,-0.11384339,-0.014687903,0.0,0.0,0.0,0.0012536449,-0.042564984,0.5075014,-0.15854397,-0.04734207,0.55515176,-0.10077793,0.10181551,0.23079783,0.22915043,0.03662933,0.44181404,0.11327547,-0.050201975,0.067969106,-0.06441949,-0.018962895,0.07370428,0.011385652,-0.054408845,0.040629696,0.014389321,-0.05129237,-0.013292557,0.011360973,-2.0,2.0,-2.0,-2.0,2.0,-2.0,2.0,0.4565465,-2.0,2.0,1.6693869,-2.0,-2.0,2.0,-2.0,-2.0,2.0,-2.0,2.0,0.62574714,-2.0,2.0,1.6438231,-2.0
2025-07-21 14:23:40.091,2.680000000000002,2680,134,0.006465522,0.0919771,-0.06537844,0.027083889,-0.05735325,0.025766846,0.0,0.0,0.0,0.0015984998,-0.055967193,0.51872677,-0.15164852,-0.05577846,0.5709368,-0.086959936,0.10103311,0.24922009,0.21815465,0.044176105,0.4553605,0.10424611,-0.054049633,0.074959405,-0.039841566,0.023379356,-0.030339578,0.0153529355,0.043206684,0.062327527,-0.018643279,-0.05578474,0.038893625,0.016957175,-2.0,2.0,-2.0,-2.0,2.0,-2.0,2.0,0.62574714,-2.0,2.0,1.6438231,-2.0,-2.0,2.0,-2.0,-2.0,2.0,-2.0,2.0,0.8756203,-2.0,2.0,1.330848,-2.0
2025-07-21 14:23:40.121,2.700000000000002,2700,135,-0.010703277,0.050145432,0.009322955,0.057220902,-0.09488849,0.015387641,0.0,0.0,0.0,0.010151322,-0.050386608,0.52988386,-0.15444347,-0.06942741,0.5826808,-0.07701254,0.09470381,0.25117522,0.22275731,0.03440668,0.47156462,0.10464525,0.021703376,0.002506384,0.07222946,-0.045525145,-0.03376467,0.017262392,-0.023809824,0.10065051,-0.04963341,-0.0077403793,0.089967094,0.042807832,-2.0,2.0,-2.0,-2.0,2.0,-2.0,2.0,0.8756203,-2.0,2.0,1.330848,-2.0,-2.0,2.0,-2.0,-2.0,2.0,-2.0,2.0,0.4477972,-2.0,2.0,1.251312,-2.0
2025-07-21 14:23:40.154,2.720000000000002,2720,136,-0.025938312,0.08608145,0.018167874,0.027455982,-0.04021183,-0.029163416,0.0,0.0,0.0,0.01855216,-0.056909025,0.53058183,-0.14509144,-0.057671066,0.5884092,-0.08323877,0.10309092,0.2719756,0.21352759,0.046722922,0.48656785,0.096044615,0.026101356,-0.017333781,-0.05995258,-0.055836342,0.0520775,0.04692601,-0.0014228778,-0.034006827,-0.054544702,-0.070621744,-0.011764887,0.026403528,-2.0,2.0,-2.0,-2.0,2.0,-2.0,2.0,0.4477972,-2.0,2.0,1.251312,-2.0,-2.0,2.0,-2.0,-2.0,2.0,-2.0,2.0,0.7755204,-2.0,2.0,1.9812114,-2.0
2025-07-21 14:23:40.174,2.740000000000002,2740,137,-0.018296205,0.046421863,-0.060980793,0.07402049,-0.103683956,0.0076883608,0.0,0.0,0.0,0.026844105,-0.055146206,0.5460416,-0.146847,-0.0642048,0.5923157,-0.081621654,0.10611784,0.26548374,0.19797213,0.042905893,0.48562196,0.086950436,-0.06702118,-0.039374627,-0.030572562,-0.07502128,0.017259207,0.008154666,0.052404705,-0.009276374,-0.008278484,0.07257197,0.04950251,0.0054883165,-2.0,2.0,-2.0,-2.0,2.0,-2.0,2.0,0.7755204,-2.0,2.0,1.9812114,-2.0,-2.0,2.0,-2.0,-2.0,2.0,-2.0,2.0,1.1428244,-2.0,2.0,1.275706,-2.0
2025-07-21 14:23:40.204,2.760000000000002,2760,138,0.03577443,0.094973534,0.03041588,-0.004242481,-0.033414517,-0.042709403,0.0,0.0,0.0,0.035224523,-0.05797568,0.5442254,-0.14790568,-0.06645633,0.59918916,-0.061826136,0.09091,0.28848255,0.2089025,0.04578521,0.5046923,0.0758077,0.008142462,0.02018153,-0.0074095167,-0.049794618,-0.034660462,0.0585364,-0.027029075,0.05581807,0.027470646,0.023457127,0.023282254,-0.07676126,-2.0,2.0,-2.0,-2.0,2.0,-2.0,2.0,1.1428244,-2.0,2.0,1.275706,-2.0,-2.0,2.0,-2.0,-2.0,2.0,-2.0,2.0,0.5551873,-2.0,2.0,1.2568767,-2.0
2025-07-21 14:23:40.223,2.780000000000002,2780,139,-0.012188789,-0.012875331,-0.029500814,0.06738745,-0.056956675,-0.04320214,0.0,0.0,0.0,0.043370362,-0.072042204,0.55282927,-0.15314169,-0.079184,0.60078317,-0.06582646,0.10007469,0.28838095,0.19888027,0.037631344,0.50272226,0.070083484,0.052599944,-0.0073453537,0.06287099,0.06604312,-0.057212528,0.029773442,-0.043145455,-0.037669845,-0.060093615,-0.028266892,0.00051332393,0.03278944,-2.0,2.0,-2.0,-2.0,2.0,-2.0,2.0,0.5551873,-2.0,2.0,1.2568767,-2.0,-2.0,2.0,-2.0,-2.0,2.0,-2.0,2.0,1.3647356,-2.0,2.0,1.6996,-2.0
2025-07-21 14:23:40.254,2.800000000000002,2800,140,-0.0021080165,0.087577686,0.007991722,0.024769647,-0.03600531,0.028104804,0.0,0.0,0.0,0.051369634,-0.07193692,0.5489002,-0.14972822,-0.07822979,0.6191293,-0.060774248,0.08675409,0.29577133,0.1987862,0.047040988,0.5235647,0.07218007,-0.033517696,0.043345105,-0.037690558,0.057971597,0.045725282,0.058685143,0.027585883,0.07278023,-0.0008287822,-6.946184e-05,-0.00015407377,-0.07580032,-2.0,2.0,-2.0,-2.0,2.0,-2.0,2.0,1.3647356,-2.0,2.0,1.6996,-2.0,-2.0,1.978407,-2.0,-2.0,2.0,-2.0,2.0,0.72540677,-2.0,2.0,1.1924896,-2.0
2025-07-21 14:23:40.274,2.820000000000002,2820,141,-0.04636307,0.040938683,-0.013559979,-0.0016208419,-0.07439924,0.013196251,0.0,0.0,0.0,0.059270345,-0.060163025,0.5565362,-0.13586392,-0.07647908,0.6220788,-0.0743154,0.104045756,0.30003312,0.18664293,0.0429764,0.52887315,0.07619697,-0.040335722,0.054739684,0.030098798,-0.04759275,0.05889129,-0.004225276,-0.0010347845,-0.00999367,-0.038509768,-0.038603637,0.058965016,-0.05154457,-2.0,1.978407,-2.0,-2.0,2.0,-2.0,2.0,0.72540677,-2.0,2.0,1.1924896,-2.0,-2.0,2.0,-2.0,-2.0,2.0,-2.0,2.0,1.3557706,-2.0,2.0,1.5708758,-2.0
2025-07-21 14:23:40.304,2.840000000000002,2840,142,-0.038068276,0.04974823,0.04375186,0.06585586,-0.09274696,0.021729257,0.0,0.0,0.0,0.06714391,-0.073368736,0.54819113,-0.13650364,-0.07263885,0.62090826,-0.07378103,0.09404568,0.30369535,0.19045885,0.04400712,0.5248566,0.05858159,0.009943481,-0.058561698,0.04122511,0.072185546,-0.036279872,0.058535356,-0.024143402,0.04781783,0.05818206,0.06005236,0.02306142,-0.038876787,-2.0,2.0,-2.0,-2.0,2.0,-2.0,2.0,1.3557706,-2.0,2.0,1.5708758,-2.0,-2.0,2.0,-2.0,-2.0,2.0,-2.0,2.0,0.56330043,-2.0,2.0,1.2219949,-2.0
2025-07-21 14:23:40.323,2.860000000000002,2860,143,-0.037274223,-0.012414656,-0.006126832,0.07794724,-0.078095034,-0.036881376,0.0,0.0,0.0,0.07496324,-0.06427874,0.56567526,-0.14486842,-0.06984532,0.6146978,-0.0713681,0.10369086,0.29579705,0.18703333,0.04017086,0.5209638,0.07298124,-0.034850314,0.047993388,0.029766362,0.0017042035,0.024283351,0.039178893,0.044188466,0.020835675,0.06409011,0.059289183,0.050670918,0.043776233,-2.0,2.0,-2.0,-2.0,2.0,-2.0,2.0,0.56330043,-2.0,2.0,1.2219949,-2.0,-2.0,2.0,-2.0,-2.0,2.0,-2.0,2.0,1.5035563,-2.0,2.0,1.386775,-2.0
2025-07-21 14:23:40.349,2.880000000000002,2880,144,0.03772915,0.004679821,-0.032837357,0.013798004,-0.035278298,-0.039448712,0.0,0.0,0.0,0.08282295,-0.059230633,0.56399477,-0.1529555,-0.07918534,0.6148718,-0.07928406,0.09768965,0.31482095,0.18390784,0.03459691,0.5183203,0.0618726,-0.016294848,-0.06187864,0.008686801,0.07411352,-0.034160335,-0.0684849,0.060904056,0.04244452,-0.07965796,0.032486994,-0.014876591,-0.020375349,-2.0,2.0,-2.0,-2.0,2.0,-2.0,2.0,1.5035563,-2.0,2.0,1.386775,-2.0,-2.0,1.0289384,-2.0,-2.0,2.0,-2.0,2.0,1.8070018,-2.0,2.0,0.8718078,-2.0
2025-07-21 14:23:40.368,2.900000000000002,2900,145,-0.018754387,0.02255597,0.012153174,0.0831958,-0.07900284,-0.031986237,0.0,0.0,0.0,0.09052824,-0.07087393,0.5529104,-0.14108086,-0.07483951,0.610444,-0.07127393,0.091178685,0.31750298,0.19097558,0.044577163,0.5331117,0.06210266,-0.011862192,-0.028071385,0.0006115844,-0.0038172894,0.02054848,-0.024132408,-0.06345424,-0.0019693533,-0.07304403,0.055508092,-0.073686294,-0.011359362,-2.0,1.0289384,-2.0,-2.0,2.0,-2.0,2.0,1.8070018,-2.0,2.0,0.8718078,-2.0,-2.0,1.1931512,-2.0,-2.0,2.0,-2.0,2.0,1.6421213,-2.0,2.0,0.84622234,-2.0
2025-07-21 14:23:40.388,2.920000000000002,2920,146,0.038760036,-0.023821732,0.07848282,0.056662038,-0.10693875,-0.028306926,0.0,0.0,0.0,0.09771411,-0.075495616,0.5264901,-0.13295306,-0.06706357,0.612041,-0.06591763,0.10160495,0.32067776,0.18113331,0.03572728,0.51588994,0.060109004,0.015161401,-0.00081432454,0.06606801,0.0917639,-0.0006217034,-0.0030424162,0.052615657,0.025840059,0.048251815,-0.0032570227,-0.047996525,-0.029100195,-2.0,1.1931512,-2.0,-2.0,2.0,-2.0,2.0,1.6421213,-2.0,2.0,0.84622234,-2.0,-2.0,1.6245434,-2.0,-2.0,2.0,-2.0,2.0,1.0202732,-2.0,2.0,0.891344,-2.0
2025-07-21 14:23:40.409,2.940000000000002,2940,147,0.040402338,-0.029716583,0.101248145,0.07650335,-0.045808125,-0.029371157,0.0,0.0,0.0,0.104367204,-0.07799869,0.51666284,-0.118336044,-0.058443595,0.6180792,-0.08309091,0.09631674,0.30945405,0.18555632,0.046688586,0.5161448,0.06653108,-0.03895097,0.020106068,-0.024551664,0.061081048,0.017825395,0.003864535,-0.038877457,0.0070848856,-0.053681225,0.029908005,-0.065488204,-0.02394967,-2.0,1.6245434,-2.0,-2.0,2.0,-2.0,2.0,1.0202732,-2.0,2.0,0.891344,-2.0,-2.0,2.0,-2.0,-2.0,2.0,-2.0,2.0,0.95439297,-2.0,2.0,1.4324164,-2.0
2025-07-21 14:23:40.432,2.960000000000002,2960,148,0.03729256,-0.054951597,0.039823566,0.07045533,-0.105158925,0.027543042,0.0,0.0,0.0,0.111016996,-0.08033926,0.50593853,-0.13002358,-0.05414887,0.5988446,-0.08013425,0.091739826,0.30692774,0.18225189,0.031209262,0.500458,0.080314994,0.024404794,-0.06326269,-0.043557994,-0.0052925684,0.069405146,-0.0153784705,0.03575606,-0.015588437,-0.05153885,-0.057617422,-0.08169884,-0.0542619,-2.0,2.0,-2.0,-2.0,2.0,-2.0,2.0,0.95439297,-2.0,2.0,1.4324164,-2.0,-2.0,1.7332627,-2.0,-2.0,2.0,-2.0,2.0,1.5360267,-2.0,2.0,1.4136906,-2.0
2025-07-21 14:23:40.449,2.980000000000002,2980,149,0.017905429,0.039715603,0.028192544,0.02759985,-0.07889261,0.030887218,0.0,0.0,0.0,0.118066825,-0.061226718,0.5123874,-0.14157538,-0.04168896,0.6152013,-0.07592637,0.09263497,0.31872913,0.16720334,0.043329265,0.51314425,0.07150446,0.00045030596,0.039256275,-0.0030036995,0.0015235563,0.032383777,-0.07554569,-0.039067943,0.05004296,0.027176538,-0.02450273,0.07641653,0.026953889,-2.0,1.7332627,-2.0,-2.0,2.0,-2.0,2.0,1.5360267,-2.0,2.0,1.4136906,-2.0,-2.0,1.1643552,-2.0,-2.0,2.0,-2.0,2.0,1.462251,-2.0,2.0,0.8283965,-2.0
2025-07-21 14:23:40.469,3.000000000000002,3000,150,0.022868996,0.0048266095,-0.011341796,0.023680735,-0.120140485,-0.0054085404,0.0,0.0,0.0,0.1252802,-0.06336061,0.5049308,-0.13452959,-0.039524782,0.605456,-0.09407645,0.081455335,0.31820056,0.17188393,0.03275013,0.5109784,0.07548383,-0.059405908,-0.00020091447,-0.020846507,0.035277184,-0.03335022,-0.07499662,-0.051389735,-0.0088619925,0.060628112,0.044183824,0.0028358372,-0.040106468,-2.0,1.1643552,-2.0,-2.0,2.0,-2.0,2.0,1.462251,-2.0,2.0,0.8283965,-2.0,-2.0,0.8963545,-2.0,-2.0,2.0,-2.0,2.0,2.0,-2.0,2.0,0.80998737,-2.0
2025-07-21 14:23:40.488,3.0200000000000022,3020,151,0.03771595,0.046479214,0.066978335,0.03381531,-0.061682317,-0.01255851,0.0,0.0,0.0,0.13247706,-0.080954365,0.48988178,-0.120097056,-0.03125687,0.600781,-0.07842736,0.097158335,0.3188362,0.1658206,0.039054286,0.49331743,0.08821697,0.05068391,0.020468945,-0.009107665,0.06536286,0.047709946,-0.053388406,0.052992012,0.050089046,0.018027794,0.031813618,-0.08136084,-0.009451331,-2.0,0.8963545,-2.0,-2.0,2.0,-2.0,2.0,2.0,-2.0,2.0,0.80998737,-2.0,-2.0,1.03029,-2.0,-2.0,2.0,-2.0,2.0,1.5016093,-2.0,2.0,0.59194916,-2.0
2025-07-21 14:23:40.511,3.0400000000000023,3040,152,4.0706764e-05,0.002007736,0.11316053,0.05451413,-0.09707599,-0.012584996,0.0,0.0,0.0,0.13936187,-0.083516225,0.47480908,-0.12546246,-0.043049887,0.6056831,-0.08815767,0.084759936,0.31988412,0.16130103,0.034421727,0.50000167,0.08420972,-0.07705882,-0.014823176,0.014712024,0.029814376,-0.0072603184,0.010881652,0.010313221,0.008116193,-0.0071418276,-0.010057663,0.03542591,-0.036137246,-2.0,1.03029,-2.0,-2.0,2.0,-2.0,2.0,1.5016093,-2.0,2.0,0.59194916,-2.0,-2.0,1.7200214,-2.0,-2.0,2.0,-2.0,2.0,1.0433965,-2.0,2.0,0.8289304,-2.0
2025-07-21 14:23:40.532,3.0600000000000023,3060,153,0.012631433,-0.0158661,0.035462514,-0.0024992407,-0.04066316,0.01475077,0.0,0.0,0.0,0.14595851,-0.080973744,0.47181207,-0.11919159,-0.021737374,0.59055644,-0.08342213,0.0926903,0.33309278,0.17760684,0.032872904,0.47581512,0.09272091,-0.022278126,0.040675007,0.024315327,-0.013787362,0.039682496,-0.085031085,0.0154489055,0.024541052,0.027359515,-0.060359962,-0.029042687,-0.05393898,-2.0,1.7200214,-2.0,-2.0,2.0,-2.0,2.0,1.0433965,-2.0,2.0,0.8289304,-2.0,-2.0,1.2315749,-2.0,-2.0,2.0,-2.0,2.0,2.0,-2.0,2.0,0.8213102,-2.0
2025-07-21 14:23:40.549,3.0800000000000023,3080,154,0.045570105,0.011404776,0.040226158,0.025869112,-0.08465199,-0.012496416,0.0,0.0,0.0,0.15276052,-0.07449477,0.45580658,-0.122211695,-0.031723034,0.59606266,-0.09321608,0.08656785,0.33431664,0.16272542,0.027503382,0.47292334,0.103216685,-0.04844967,0.0380323,0.06807346,0.08048933,-0.04021741,-0.05862953,-0.06522471,-0.050804067,0.032466434,-0.0016678653,0.040053297,-0.019078866,-2.0,1.2315749,-2.0,-2.0,2.0,-2.0,2.0,2.0,-2.0,2.0,0.8213102,-2.0,-2.0,1.0474186,-2.0,-2.0,2.0,-2.0,2.0,1.7039859,-2.0,2.0,0.62208694,-2.0
2025-07-21 14:23:40.569,3.1000000000000023,3100,155,0.004267026,0.009191436,0.040058702,0.046340372,-0.06939299,-0.0040309336,0.0,0.0,0.0,0.15953022,-0.06860142,0.4559394,-0.110372856,-0.028193418,0.59808975,-0.098455645,0.08466428,0.33166444,0.15925333,0.027327074,0.47350806,0.10539129,-0.07013296,-0.011947064,-0.06387201,0.008088642,0.006986718,0.05130372,0.04179795,-0.05579614,0.0063875685,-0.047740243,0.001615649,-0.041833803,-2.0,1.0474186,-2.0,-2.0,2.0,-2.0,2.0,1.7039859,-2.0,2.0,0.62208694,-2.0,-2.0,1.0115917,-2.0,-2.0,2.0,-2.0,2.0,1.988483,-2.0,2.0,0.7420899,-2.0
2025-07-21 14:23:40.589,3.1200000000000023,3120,156,0.030626107,0.042238206,0.08737841,0.04018646,-0.06536228,0.030629175,0.0,0.0,0.0,0.16608898,-0.080941975,0.45610252,-0.1192717,-0.016861223,0.5951948,-0.10349648,0.08111304,0.3396074,0.15905504,0.038561866,0.47463515,0.10045397,0.033803683,-0.066129126,0.04092372,0.028736534,-0.06963246,0.06319993,0.009868951,0.010018159,-0.00882757,0.034746177,0.056559704,0.010682721,-2.0,1.0115917,-2.0,-2.0,2.0,-2.0,2.0,1.988483,-2.0,2.0,0.7420899,-2.0,-2.0,1.22028,-2.0,-2.0,2.0,-2.0,2.0,1.4718983,-2.0,2.0,0.58330667,-2.0
2025-07-21 14:23:40.615,3.1400000000000023,3140,157,-0.04795604,-0.017583678,0.02311977,0.010265747,-0.08465586,0.04297554,0.0,0.0,0.0,0.17258513,-0.08524455,0.451435,-0.11745127,-0.009129894,0.5965599,-0.099374525,0.072732754,0.3486211,0.15558594,0.026567362,0.46885058,0.105282195,0.014353996,-0.05464323,-0.014910858,0.037845235,-0.03660013,-0.050155062,-0.02284196,0.02223462,-0.06256696,0.024116695,0.05428231,0.03615464,-2.0,1.22028,-2.0,-2.0,2.0,-2.0,2.0,1.4718983,-2.0,2.0,0.58330667,-2.0,-2.0,0.9196895,-2.0,-2.0,2.0,-2.0,2.0,2.0,-2.0,2.0,0.6104272,-2.0
2025-07-21 14:23:40.638,3.1600000000000024,3160,158,-0.0006203819,0.035098046,0.030660653,-0.0027027396,-0.111472726,0.026455222,0.0,0.0,0.0,0.17928942,-0.07091494,0.4291178,-0.097801976,-0.009306954,0.5870308,-0.10844696,0.07314704,0.3506281,0.158143,0.021439191,0.4600487,0.10428326,0.009029291,-0.07868955,0.019803101,0.027086481,0.01873186,-0.0021556825,0.055423286,-0.013205271,-0.028671326,0.042266686,-0.06023303,-0.014346613,-2.0,0.9196895,-2.0,-2.0,2.0,-2.0,2.0,2.0,-2.0,2.0,0.6104272,-2.0,-2.0,0.82682794,-2.0,-2.0,2.0,-2.0,2.0,2.0,-2.0,2.0,0.49086374,-2.0
2025-07-21 14:23:40.664,3.1800000000000024,3180,159,-0.040975112,-0.013754885,0.087816834,0.08522269,-0.084577166,-0.018992819,0.0,0.0,0.0,0.18615167,-0.0758527,0.4250232,-0.09845326,0.0015076565,0.588008,-0.10696761,0.062769964,0.3695016,0.1524024,0.021127012,0.45192584,0.12157099,-0.020151015,-0.029117275,-0.003811718,0.06851321,-0.058688965,0.018357033,0.040930483,-0.038830202,0.03899486,-0.026216222,-0.030525135,0.07638743,-2.0,0.82682794,-2.0,-2.0,2.0,-2.0,2.0,2.0,-2.0,2.0,0.49086374,-2.0,-2.0,0.8515607,-2.0,-2.0,2.0,-2.0,2.0,1.9928849,-2.0,2.0,0.54583937,-2.0
2025-07-21 14:23:40.688,3.2000000000000024,3200,160,-0.021414751,-0.034675978,0.07699316,0.013617372,-0.049688287,-0.028227674,0.0,0.0,0.0,0.18505742,-0.07386512,0.4158736,-0.09271523,0.0106478,0.58288395,-0.11088785,0.060820147,0.36867332,0.14845413,0.03354434,0.44406018,0.1235783,0.06413131,-0.01766155,0.030138163,0.043732017,-0.024545675,0.055873953,-0.026809337,0.0682706,-0.03497314,0.04213757,0.038363356,0.072192796,-2.0,0.8515607,-2.0,-2.0,2.0,-2.0,2.0,1.9928849,-2.0,2.0,0.54583937,-2.0,-2.0,0.88433963,-2.0,-2.0,2.0,-2.0,2.0,1.8949347,-2.0,2.0,0.39570767,-2.0
2025-07-21 14:23:40.716,3.2200000000000024,3220,161,-0.05514186,-0.045085102,0.06400077,0.064033836,-0.09893094,0.027642723,0.0,0.0,0.0,0.18396269,-0.07341222,0.4092441,-0.09235056,0.012545735,0.58751076,-0.106793195,0.060874626,0.37981004,0.15278344,0.023649005,0.4512101,0.11828666,-0.06011276,-0.030868547,-0.031313628,0.06377065,-0.03838514,0.060223382,0.021584908,-0.037853662,0.06343471,-0.050278928,-0.0076400046,0.033376522,-2.0,0.88433963,-2.0,-2.0,2.0,-2.0,2.0,1.8949347,-2.0,2.0,0.39570767,-2.0,-2.0,0.9135328,-2.0,-2.0,2.0,-2.0,2.0,2.0,-2.0,2.0,0.5945955,-2.0
2025-07-21 14:23:40.740,3.2400000000000024,3240,162,-0.056943275,-0.045311067,0.03303007,0.09186823,-0.059464145,-0.0008004005,0.0,0.0,0.0,0.18299249,-0.0897314,0.40619427,-0.09660433,0.012429062,0.5727246,-0.10441821,0.071410306,0.3848706,0.14432001,0.02338758,0.444839,0.12377948,0.034745265,-0.023288734,0.0778976,0.0001964579,0.011898974,0.02133296,0.0021346302,0.059181586,0.0042856755,0.0072454764,-0.07634278,0.0719105,-2.0,0.9135328,-2.0,-2.0,2.0,-2.0,2.0,2.0,-2.0,2.0,0.5945955,-2.0,-2.0,0.73696804,-2.0,-2.0,2.0,-2.0,2.0,2.0,-2.0,2.0,0.33462316,-2.0
2025-07-21 14:23:40.771,3.2600000000000025,3260,163,0.018960282,-0.026227871,0.01511225,0.0017466663,-0.13133998,0.007287093,0.0,0.0,0.0,0.18220954,-0.08079473,0.40633106,-0.09040594,0.008685566,0.5776979,-0.112489015,0.07162153,0.38140368,0.1519481,0.033950444,0.43349642,0.12113936,-0.033670615,0.03470964,0.06830063,0.027484288,-0.043899853,0.012828108,0.041030508,0.045341473,-0.04139179,-0.049597915,0.061069064,-0.03298749,-2.0,0.73696804,-2.0,-2.0,2.0,-2.0,2.0,2.0,-2.0,2.0,0.33462316,-2.0,-2.0,0.80670255,-2.0,-2.0,1.8477241,-2.0,2.0,2.0,-2.0,2.0,0.4802125,-2.0
2025-07-21 14:23:40.790,3.2800000000000025,3280,164,0.01107795,0.020303452,0.019193247,0.034171928,-0.13351029,0.02096443,0.0,0.0,0.0,0.18155594,-0.085878395,0.39707083,-0.086714,0.018373366,0.5822434,-0.109950766,0.060823273,0.37670332,0.14902636,0.0307841,0.44473433,0.11994114,0.012734946,0.017622653,-0.031110825,-0.028131653,0.041768637,0.058143415,0.031927127,0.000101635145,-0.04265621,0.008538698,-0.07214681,0.06156109,-2.0,0.80670255,-2.0,-2.0,1.8477241,-2.0,2.0,2.0,-2.0,2.0,0.4802125,-2.0,-2.0,0.80003214,-2.0,-2.0,2.0,-2.0,2.0,2.0,-2.0,2.0,0.45284098,-2.0
2025-07-21 14:23:40.820,3.3000000000000025,3300,165,-0.037541725,-0.021373847,0.019149307,0.0098345345,-0.05385539,0.0017604923,0.0,0.0,0.0,0.18099633,-0.08915803,0.39212254,-0.08028374,0.013137917,0.5737399,-0.10694935,0.06748146,0.39269993,0.14141537,0.018135,0.43506315,0.13691711,0.06643272,0.05507832,-0.007899128,0.05286507,0.0485078,-0.005086133,0.067164905,-0.015634773,0.012827768,-0.04854928,0.04859278,-0.0283726,-2.0,0.80003214,-2.0,-2.0,2.0,-2.0,2.0,2.0,-2.0,2.0,0.45284098,-2.0,-2.0,0.5982109,-2.0,-2.0,1.9593967,-2.0,2.0,2.0,-2.0,2.0,0.47487742,-2.0
2025-07-21 14:23:40.840,3.3200000000000025,3320,166,-0.025060516,0.022423184,0.0047258968,0.06556851,-0.08892712,0.02200817,0.0,0.0,0.0,0.18057361,-0.07839345,0.38652888,-0.09408149,0.018954884,0.5735011,-0.107643254,0.06373861,0.39502054,0.15508096,0.03169453,0.4402135,0.13063915,-0.06291556,-0.029374229,-0.038547866,0.023287898,-0.043690477,-0.056005016,0.07003066,0.05201473,-0.062118974,-0.029146988,-0.04789818,-0.047908474,-2.0,0.5982109,-2.0,-2.0,1.9593967,-2.0,2.0,2.0,-2.0,2.0,0.47487742,-2.0,-2.0,0.66259146,-2.0,-2.0,2.0,-2.0,2.0,2.0,-2.0,2.0,0.49150604,-2.0
2025-07-21 14:23:40.871,3.3400000000000025,3340,167,-0.032682423,-0.028629031,-0.03619632,0.04244923,-0.11454249,-0.0388784,0.0,0.0,0.0,0.18035817,-0.09039299,0.38268918,-0.08698379,0.016740233,0.57529837,-0.12305193,0.069850944,0.40094826,0.1568972,0.023321334,0.4375023,0.13349494,0.034820337,0.03914959,0.0452703,0.0047528986,0.014805354,0.009598099,0.06753822,-0.012241601,-0.050667163,0.020950004,-0.049256217,0.029786548,-2.0,0.66259146,-2.0,-2.0,2.0,-2.0,2.0,2.0,-2.0,2.0,0.49150604,-2.0,-2.0,0.28067058,-2.0,-2.0,1.9011768,-2.0,2.0,2.0,-2.0,2.0,0.35754716,-2.0
2025-07-21 14:23:40.890,3.3600000000000025,3360,168,-0.036974434,-0.047178976,0.05187424,0.014010283,-0.08004983,-0.0077455887,0.0,0.0,0.0,0.18029203,-0.08570627,0.3755583,-0.08212976,0.019105092,0.5655054,-0.121834725,0.06605367,0.39014274,0.15693328,0.023597414,0.42062345,0.12620896,0.061878514,-0.055749606,0.062731825,-0.027782027,0.06868534,-0.036464777,0.0024987685,-0.059251465,0.07605873,-0.051445346,-0.03683501,0.045331977,-2.0,0.28067058,-2.0,-2.0,1.9011768,-2.0,2.0,2.0,-2.0,2.0,0.35754716,-2.0,-2.0,0.70301646,-2.0,-2.0,2.0,-2.0,2.0,2.0,-2.0,2.0,0.41125745,-2.0
2025-07-21 14:23:40.923,3.3800000000000026,3380,169,-0.037503667,-0.020537108,0.05482902,-0.009251681,-0.06536408,-0.020438066,0.0,0.0,0.0,0.18027258,-0.07835103,0.36970252,-0.0743223,0.010255513,0.56715554,-0.11518862,0.056632333,0.38517514,0.1475709,0.01671045,0.42806804,0.13966829,-0.053901937,0.0112216575,0.03198918,-0.009762035,0.061333355,0.030269379,-0.014913607,-0.06731607,0.014365345,0.006925716,0.024231441,0.06735205,-2.0,0.70301646,-2.0,-2.0,2.0,-2.0,2.0,2.0,-2.0,2.0,0.41125745,-2.0,-2.0,0.8102314,-2.0,-2.0,1.9705232,-2.0,2.0,1.9933238,-2.0,2.0,0.3544466,-2.0
2025-07-21 14:23:40.938,3.4000000000000026,3400,170,0.046206154,0.012763114,0.040566612,0.030260606,-0.050465234,-0.02886667,3.0,0.0,0.0,0.18016888,-0.08461251,0.35657567,-0.07416814,0.021876272,0.57533526,-0.11499812,0.059370656,0.38635883,0.16069919,0.021490471,0.41686442,0.13413875,0.05239566,0.025417624,-0.06706022,0.045697387,-0.061443955,0.014371652,-0.06924806,-0.04042506,0.049200337,0.046837125,0.004073854,-0.029075095,-2.0,0.8102314,-2.0,-2.0,1.9705232,-2.0,2.0,1.9933238,-2.0,2.0,0.3544466,-2.0,2.0,2.0,-2.0,-2.0,2.0,-2.0,2.0,1.3195188,-2.0,-2.0,-0.43208438,-2.0
2025-07-21 14:23:40.960,3.4200000000000026,3420,171,0.029470308,-0.06321332,0.031147435,0.036315754,-0.13230787,0.009515237,3.0,0.0,0.0,0.17995007,-0.08740602,0.36291865,-0.09224787,0.021910686,0.56510866,-0.12685454,0.061933,0.40452757,0.15345427,0.033420056,0.41327432,0.14853728,0.0063637723,-0.015486528,-0.056828227,-0.0007256527,0.025574291,0.010698185,0.02646048,-0.035620254,-0.055884242,0.044768605,-0.031235006,-0.009699804,2.0,2.0,-2.0,-2.0,2.0,-2.0,2.0,1.3195188,-2.0,-2.0,-0.43208438,-2.0,2.0,2.0,-2.0,-2.0,2.0,-2.0,2.0,0.71833223,-2.0,-2.0,-0.642039,-2.0
2025-07-21 14:23:40.982,3.4400000000000026,3440,172,0.06080162,-0.11550359,0.094912894,0.041495185,-0.14720108,-0.036128726,3.0,0.0,0.0,0.1787671,-0.0640643,0.36270103,-0.09907165,0.022328926,0.5492293,-0.12818836,0.0615592,0.39527312,0.14905842,0.031144824,0.39166427,0.15737757,0.053980507,0.043668643,-0.11482832,0.036668137,0.0037080874,0.013639881,-0.032305043,-0.059585653,-0.021215446,0.010612628,-0.119486205,-0.013967061,2.0,2.0,-2.0,-2.0,2.0,-2.0,2.0,0.71833223,-2.0,-2.0,-0.642039,-2.0,2.0,2.0,-2.0,-2.0,2.0,-2.0,2.0,0.5319248,-2.0,-2.0,-0.5712982,-2.0
2025-07-21 14:23:40.999,3.4600000000000026,3460,173,0.013263738,-0.10310614,0.120742895,0.021600198,-0.15290265,-0.020998636,3.0,0.0,0.0,0.17698154,-0.0586243,0.3666192,-0.1194667,0.02779645,0.5380495,-0.14090966,0.05178808,0.37468702,0.14452755,0.01972524,0.3689519,0.1638542,0.0014122423,0.054585632,0.029098032,-0.051747225,-0.011858464,-0.07436846,0.016581997,-0.052349385,-0.0070116105,-0.048086014,-0.020707393,0.02017402,2.0,2.0,-2.0,-2.0,2.0,-2.0,2.0,0.5319248,-2.0,-2.0,-0.5712982,-2.0,2.0,2.0,-2.0,-2.0,2.0,-2.0,2.0,0.39510235,-2.0,-2.0,-0.45419735,-2.0
