openverse-orca/OrcaGym/log/simulation_log_20250721_095026.csv
timestamp,sim_time,physics_step,control_step,imu_angle_roll,imu_angle_pitch,imu_angle_yaw,imu_angular_velocity_roll,imu_angular_velocity_pitch,imu_angular_velocity_yaw,imu_acc_x,imu_acc_y,imu_acc_z,fl_joint1_pos,fl_joint1_vel,fl_joint1_torque,fl_joint2_pos,fl_joint2_vel,fl_joint2_torque,fl_joint3_pos,fl_joint3_vel,fl_joint3_torque,fr_joint1_pos,fr_joint1_vel,fr_joint1_torque,fr_joint2_pos,fr_joint2_vel,fr_joint2_torque,fr_joint3_pos,fr_joint3_vel,fr_joint3_torque,hl_joint1_pos,hl_joint1_vel,hl_joint1_torque,hl_joint2_pos,hl_joint2_vel,hl_joint2_torque,hl_joint3_pos,hl_joint3_vel,hl_joint3_torque,hr_joint1_pos,hr_joint1_vel,hr_joint1_torque,hr_joint2_pos,hr_joint2_vel,hr_joint2_torque,hr_joint3_pos,hr_joint3_vel,hr_joint3_torque,fl_force_x,fl_force_y,fl_force_z,fr_force_x,fr_force_y,fr_force_z,hl_force_x,hl_force_y,hl_force_z,hr_force_x,hr_force_y,hr_force_z,fl_hip_action,fl_thigh_action,fl_calf_action,fr_hip_action,fr_thigh_action,fr_calf_action,hl_hip_action,hl_thigh_action,hl_calf_action,hr_hip_action,hr_thigh_action,hr_calf_action
2025-07-21 09:50:27.041,0.0,0,0,-0.014217499,-0.000994342,-0.022188911,-0.038095772,-0.043552786,-0.019335546,1.7907697,-0.5771294,0.0,0.0,0.0009350774,0.0061285654,-0.0023860924,0.00937085,0.0056283833,-0.0053893365,-0.0013551892,-0.009215407,-0.0052075023,0.008579601,0.0047560316,0.009290598,-0.060620125,0.009556196,-0.0009835807,-0.04844684,0.050666895,0.029576901,-0.016315041,0.069620974,0.025219146,-0.064189374,-0.047967143,0.063177615,0.0,0.0,0.0,0.0,0.0,0.0,0.0,0.0,0.0,0.0,0.0,0.0,2.0,2.0,0.88826674,-2.0,2.0,1.2363262,-0.046421845,-2.0,-0.23877428,1.5513047,2.0,-0.057911098
2025-07-21 09:50:27.053,0.02,20,1,0.23071335,0.042282235,0.15684055,-0.013991156,-0.04260998,0.0046518375,0.0,0.0,0.0,0.0,0.043363195,0.0230264,0.01888003,-0.038126152,0.021005424,0.026326243,-0.0032048938,-0.039673172,0.0021496732,0.04403104,0.06726988,-0.007663368,0.056296416,0.18094592,-0.04297318,-0.21229993,0.10024543,0.12743835,-0.00493808,-0.10535491,-0.083555005,0.15668194,0.29977039,0.042464536,2.0,2.0,0.88826674,-2.0,2.0,1.2363262,-0.046421845,-2.0,-0.23877428,1.5513047,2.0,-0.057911098,-2.0,-0.3346877,-2.0,2.0,-2.0,-0.8023948,1.2401209,2.0,2.0,1.9594296,-1.2483504,2.0
2025-07-21 09:50:27.072,0.04,40,2,-0.13996118,-0.37163085,-0.006628899,-0.032791927,0.05398985,-0.003113372,0.0,0.0,0.0,-0.0015560184,0.03827029,0.026768902,-0.04152328,-0.0069897478,0.025076376,-0.004475706,0.026031833,-0.05044028,0.02256149,0.084468514,0.08181433,0.050328955,-0.22145548,-0.10245187,-0.07969152,0.17067492,-0.06407055,-0.05199889,0.097945444,-0.04843852,0.10694289,0.17503195,-0.12553062,0.14366649,-2.0,-0.3346877,-2.0,2.0,-2.0,-0.8023948,1.2401209,2.0,2.0,1.9594296,-1.2483504,2.0,-2.0,-0.37439403,-2.0,-0.9725967,-2.0,-2.0,2.0,2.0,2.0,0.61626565,2.0,1.9218369
2025-07-21 09:50:27.092,0.06,60,3,-0.09041781,-0.071981676,0.03593539,0.012426192,0.051064096,0.041658245,0.0,0.0,0.0,-0.0034480344,-0.036245227,0.0025913245,-0.08064079,-0.024973508,-0.054978173,-0.046000306,0.07239686,-0.02957244,0.06768352,0.09639545,0.09974433,0.08427593,-0.20129459,-0.05631905,-0.03604043,-0.035231054,-0.29537997,-0.09754152,0.1575197,0.14601655,0.08073822,-0.053979237,0.22319536,0.17335579,-2.0,-0.37439403,-2.0,-0.9725967,-2.0,-2.0,2.0,2.0,2.0,0.61626565,2.0,1.9218369,0.21327482,-2.0,-2.0,0.43877146,-0.82866037,1.0302454,2.0,-1.8706268,2.0,-0.7906983,-1.0820273,2.0
2025-07-21 09:50:27.112,0.08,80,4,-0.27234015,-0.17155096,0.06906047,-0.022996495,0.07533835,0.03394993,0.0,0.0,0.0,-0.004153142,-0.04261201,-0.0721326,-0.11379938,-0.0130569795,-0.12915134,-0.025891574,0.13282278,-0.023943521,0.115470596,0.0583903,0.09508717,0.12404745,0.044651333,-0.24165401,-0.15220542,0.042202037,-0.06951234,0.10563453,0.045132995,-0.100767076,0.09173045,-0.14855461,-0.15174621,0.06996815,0.21327482,-2.0,-2.0,0.43877146,-0.82866037,1.0302454,2.0,-1.8706268,2.0,-0.7906983,-1.0820273,2.0,-0.19139479,-0.05266127,-2.0,-1.007547,-0.2376387,-2.0,1.058497,-0.1668768,2.0,-2.0,1.651391,2.0
2025-07-21 09:50:27.132,0.1,100,5,-0.07246416,0.18430994,-0.027262013,0.011550757,0.04565401,0.0022554428,0.0,0.0,0.0,-0.004486327,-0.042074833,-0.11246246,-0.15610678,-0.026231848,-0.13317011,-0.05989187,0.13092873,-0.040329758,0.15523572,-0.004649193,0.102091424,0.14881603,-0.07536565,0.0064707124,-0.0706191,-0.039780535,0.07749507,-0.17488292,-0.032706145,0.06435907,0.09039469,-0.10936508,0.10630012,0.058292612,-0.19139479,-0.05266127,-2.0,-1.007547,-0.2376387,-2.0,1.058497,-0.1668768,2.0,-2.0,1.651391,2.0,0.96367484,-2.0,-2.0,-0.0034079854,-2.0,-0.8531333,1.2007952,-2.0,2.0,-1.8484131,0.13564207,2.0
2025-07-21 09:50:27.155,0.12000000000000001,120,6,-0.30692562,0.035956644,0.05897514,0.03539716,0.037003186,0.019524654,0.0,0.0,0.0,-0.004666465,-0.010193731,-0.1265063,-0.19553688,-0.023721363,-0.17285417,-0.08371276,0.14080231,-0.06502299,0.1767211,-0.054404903,0.10296576,0.18761995,0.076229945,-0.05174513,-0.075986,0.08055857,-0.1342337,-0.09364933,0.0063940505,-0.14464642,0.13668397,-0.15363812,0.021764427,0.058065794,0.96367484,-2.0,-2.0,-0.0034079854,-2.0,-0.8531333,1.2007952,-2.0,2.0,-1.8484131,0.13564207,2.0,1.4587995,-2.0,-2.0,0.06132993,1.9350843,-1.5306718,0.5473545,2.0,2.0,-1.8907353,-2.0,2.0
2025-07-21 09:50:27.173,0.14,140,7,-0.08354835,0.11383594,-0.08957506,0.027963411,0.06454501,-0.009184816,0.0,0.0,0.0,-0.0047186106,0.021883989,-0.17504562,-0.21694018,-0.018714238,-0.18073176,-0.105915956,0.1441317,-0.0661967,0.19286083,-0.09946925,0.04637619,0.21751617,0.062139638,-0.18422817,-0.06809665,0.08178991,-0.026405348,-0.15660645,-0.019834293,0.0352322,-0.031056805,-0.08989045,-0.1919703,0.12366591,1.4587995,-2.0,-2.0,0.06132993,1.9350843,-1.5306718,0.5473545,2.0,2.0,-1.8907353,-2.0,2.0,-0.622463,-2.0,-2.0,0.58316237,1.0669751,-0.77714175,2.0,0.75738645,2.0,-2.0,0.17067035,2.0
2025-07-21 09:50:27.197,0.16,160,8,0.258625,-0.12084307,0.08775324,0.009647657,0.043944012,0.04678366,0.0,0.0,0.0,-0.0040236986,0.025519228,-0.2690874,-0.23672752,-0.02187223,-0.15137598,-0.1328715,0.18987891,-0.008854712,0.20587221,-0.14633143,0.027001351,0.21649757,0.0034551467,-0.3309641,-0.09588539,0.009124187,0.087759726,0.053536475,0.1336877,0.18311511,0.05512229,-0.026063388,0.053130925,0.063912526,-0.622463,-2.0,-2.0,0.58316237,1.0669751,-0.77714175,2.0,0.75738645,2.0,-2.0,0.17067035,2.0,-1.3167372,1.6766999,-2.0,0.6243964,-2.0,-1.8287897,1.4442927,-2.0,2.0,-2.0,-2.0,1.0965486
2025-07-21 09:50:27.213,0.18,180,9,-0.0778777,-0.027439889,-0.021908563,-0.013039921,0.04858732,-0.035048205,0.0,0.0,0.0,-0.0048561394,-0.024190914,-0.29086292,-0.25027794,-0.0055836793,-0.15728103,-0.14777482,0.20524536,0.016310995,0.23331338,-0.18242803,-0.01254155,0.22062123,-0.13267958,0.042057946,-0.07410781,-0.0062805433,-0.11419063,-0.03074875,0.027554378,0.035556227,0.004170957,-0.097840376,-0.28952593,-0.080152564,-1.3167372,1.6766999,-2.0,0.6243964,-2.0,-1.8287897,1.4442927,-2.0,2.0,-2.0,-2.0,1.0965486,-0.40791696,2.0,-2.0,-0.8703013,-2.0,-2.0,2.0,-1.4165413,2.0,-2.0,2.0,0.7110395
2025-07-21 09:50:27.233,0.19999999999999998,200,10,-0.054621235,0.12371265,0.115536764,0.09211842,0.06858149,0.0015173776,0.0,0.0,0.0,-0.005187119,-0.036947194,-0.25208914,-0.26261407,-0.016338263,-0.19059317,-0.18570524,0.2216037,-0.0044297813,0.2405817,-0.19746779,-0.03554128,0.19174553,-0.0799772,0.09354873,-0.07540108,-0.0821021,-0.11051573,-0.01681965,0.047587365,-0.15076166,0.053818677,-0.08033106,0.12846892,-0.047182266,-0.40791696,2.0,-2.0,-0.8703013,-2.0,-2.0,2.0,-1.4165413,2.0,-2.0,2.0,0.7110395,2.0,2.0,-2.0,0.48707756,-1.045879,-2.0,1.58374,-0.6287578,2.0,-2.0,1.1837008,2.0
2025-07-21 09:50:27.253,0.21999999999999997,220,11,0.021352934,0.14378758,-0.037591998,0.018714547,0.0073897108,0.046251595,0.0,0.0,0.0,-0.0071572936,0.0079591535,-0.18995641,-0.28922647,-0.004247637,-0.23348619,-0.21742362,0.23291408,-0.031077,0.25329655,-0.22430363,0.029677061,0.22153853,0.088568114,0.1114079,-0.013960295,0.013401019,-0.040666346,-0.059633374,0.067012094,-0.026480677,0.020245016,-0.09706421,0.18358392,0.0045825206,2.0,2.0,-2.0,0.48707756,-1.045879,-2.0,1.58374,-0.6287578,2.0,-2.0,1.1837008,2.0,2.0,0.24625328,-2.0,-0.42640534,-0.5467422,-2.0,0.99781376,-1.7984068,2.0,-2.0,-2.0,2.0
2025-07-21 09:50:27.273,0.23999999999999996,240,12,-0.03833221,0.39499068,-0.0020426237,0.067919165,-0.03373797,-0.016708588,0.0,0.0,0.0,-0.008263177,0.06077088,-0.14080104,-0.29761928,-0.027141826,-0.23467815,-0.22891113,0.22913855,-0.08156833,0.2733404,-0.24553771,0.052624173,0.23452708,0.1906108,0.07165125,0.027886821,-0.09577164,-0.008397554,-0.1081153,-0.077839285,-0.028831022,0.03450156,-0.025310786,-0.14104046,0.0034920024,2.0,0.24625328,-2.0,-0.42640534,-0.5467422,-2.0,0.99781376,-1.7984068,2.0,-2.0,-2.0,2.0,2.0,-1.8929842,-2.0,1.8330733,1.3165357,-2.0,2.0,-0.51829755,2.0,-2.0,-0.28805488,2.0
2025-07-21 09:50:27.293,0.25999999999999995,260,13,0.06502172,-0.07323855,0.088864304,0.025357407,0.03810047,0.03434969,0.0,0.0,0.0,-0.008473902,0.103464305,-0.16400912,-0.29301465,-0.0074831024,-0.22878619,-0.26199922,0.25960043,-0.09736016,0.28338674,-0.26357016,0.015714953,0.2505869,0.11797745,-0.14810678,-0.07497961,0.08289106,0.03786591,-0.041121982,0.15118454,-0.08089683,0.07486138,-0.10426227,-0.11295851,-0.023927458,2.0,-1.8929842,-2.0,1.8330733,1.3165357,-2.0,2.0,-0.51829755,2.0,-2.0,-0.28805488,2.0,1.0467017,-2.0,-2.0,0.5764641,0.83232534,-2.0,1.9179525,2.0,2.0,-2.0,0.4005084,2.0
2025-07-21 09:50:27.313,0.27999999999999997,280,14,0.22183727,-0.018153364,0.063425235,0.075525,-0.03218147,0.019004129,0.0,0.0,0.0,-0.009944335,0.12667227,-0.25296867,-0.29878387,0.01763972,-0.18070444,-0.27626756,0.29117537,-0.059302196,0.27229345,-0.28050637,0.04199421,0.24519695,-0.052213497,-0.24478067,0.064445116,0.0672624,0.07689452,-0.1058503,0.03827234,0.079768375,0.04688422,-0.08856286,0.036261532,-0.027394773,1.0467017,-2.0,-2.0,0.5764641,0.83232534,-2.0,1.9179525,2.0,2.0,-2.0,0.4005084,2.0,-0.33038104,-1.451587,-2.0,0.7207995,-1.3762674,-2.0,2.0,1.2388284,2.0,-2.0,-1.2470123,2.0
2025-07-21 09:50:27.333,0.3,300,15,0.017298538,-0.03537925,-0.28644615,0.00051227363,-0.04666196,-0.014594865,0.0,0.0,0.0,-0.011735002,0.09547759,-0.3291276,-0.301722,0.037962276,-0.1853818,-0.29151228,0.2965582,0.017849796,0.28153068,-0.29050946,0.026388798,0.27046254,-0.12393003,-0.20424081,-0.025720924,0.10314313,-0.052800942,-0.0517067,0.0894207,0.15074262,0.04272837,-0.07202423,-0.09244541,-0.008988734,-0.33038104,-1.451587,-2.0,0.7207995,-1.3762674,-2.0,2.0,1.2388284,2.0,-2.0,-1.2470123,2.0,-1.7187889,2.0,-2.0,-1.6355367,1.2711105,-2.0,2.0,-2.0,2.0,-2.0,0.7347283,2.0
2025-07-21 09:50:27.353,0.32,320,16,0.12665847,0.120591074,0.04148251,0.051076315,-0.050443515,0.008466631,0.0,0.0,0.0,-0.009362168,0.029848352,-0.30838805,-0.3086662,-0.009055274,-0.1684799,-0.29792735,0.30098245,0.032549154,0.27988535,-0.30431268,0.06050492,0.2589782,-0.10418728,0.21342947,-0.05244442,-0.079202615,0.14760426,0.018737411,0.083252914,-0.057992425,0.07760561,-0.06859221,0.17476492,-0.042996384,-1.7187889,2.0,-2.0,-1.6355367,1.2711105,-2.0,2.0,-2.0,2.0,-2.0,0.7347283,2.0,1.7369088,1.7724042,-2.0,0.6931137,-2.0,-2.0,2.0,-2.0,2.0,-2.0,-2.0,0.7329616
2025-07-21 09:50:27.373,0.34,340,17,-0.3428251,-0.2290826,-0.098730795,-0.0041885944,0.042118073,0.020936744,0.0,0.0,0.0,-0.008513818,0.046566766,-0.2190649,-0.30386034,0.0007795469,-0.18977316,-0.31140187,0.3173948,0.011833073,0.30171463,-0.3080214,0.07416652,0.24503303,0.084189154,0.27788025,-0.0072793514,0.08263168,-0.20327185,0.009888258,-0.046355657,-0.10440749,-0.004804172,-0.0073155127,-0.10455211,-0.04435721,1.7369088,1.7724042,-2.0,0.6931137,-2.0,-2.0,2.0,-2.0,2.0,-2.0,-2.0,0.7329616,2.0,-1.4858932,-2.0,-0.5012812,0.78856605,-2.0,2.0,-2.0,2.0,-2.0,-0.4937554,2.0
2025-07-21 09:50:27.394,0.36000000000000004,360,18,-0.32879096,-0.00054504815,0.0839566,0.030024298,-0.01619366,-0.022294885,0.0,0.0,0.0,-0.0075817034,0.1088319,-0.17459725,-0.31426534,-0.009891929,-0.21132557,-0.32543862,0.33120158,-0.049973402,0.31040737,-0.31711173,0.013013605,0.24639578,0.08993135,-0.110286795,0.0040458622,-0.026193127,0.0075524915,0.034083057,0.08076474,-0.111689195,0.06139488,0.051656883,-0.1394423,-0.024166152,2.0,-1.4858932,-2.0,-0.5012812,0.78856605,-2.0,2.0,-2.0,2.0,-2.0,-0.4937554,2.0,1.1976854,-1.3498483,-2.0,1.2340068,1.9193027,-2.0,2.0,0.52518964,2.0,-2.0,0.59363824,2.0
2025-07-21 09:50:27.414,0.38000000000000006,380,19,0.11743335,-0.15138717,0.16502595,0.08716098,0.0034145375,-0.043521073,0.0,0.0,0.0,-0.007796599,0.11684519,-0.2255353,-0.30404437,0.0052651977,-0.18492588,-0.3257212,0.33799726,-0.04028685,0.30605987,-0.3335617,0.04126056,0.25697836,0.091455735,-0.09217331,0.035845086,0.10635509,0.057312846,-0.051183756,0.093964554,0.035477333,-0.033009604,-0.03817499,0.15414111,0.0060330783,1.1976854,-1.3498483,-2.0,1.2340068,1.9193027,-2.0,2.0,0.52518964,2.0,-2.0,0.59363824,2.0,1.4608227,-2.0,-2.0,1.1837245,0.35288325,-2.0,2.0,1.7989123,2.0,-2.0,-2.0,2.0
2025-07-21 09:50:27.433,0.4000000000000001,400,20,0.29111654,-0.31689906,0.04162984,0.08279853,0.015227901,-0.04613827,0.0,0.0,0.0,-0.010706752,0.15324289,-0.3033644,-0.31916037,0.034760594,-0.1327106,-0.33923832,0.3515542,0.05013663,0.29361513,-0.33491522,0.030898795,0.27621016,0.12247261,-0.29445133,0.038911186,0.1502266,0.178721,-0.078860566,-0.044691235,0.24194169,-0.031666104,0.0619746,-0.17968865,0.03255954,1.4608227,-2.0,-2.0,1.1837245,0.35288325,-2.0,2.0,1.7989123,2.0,-2.0,-2.0,2.0,-1.5744339,1.6201369,-2.0,-0.24472442,-2.0,-2.0,2.0,-1.7322602,2.0,-2.0,-1.235501,2.0
2025-07-21 09:50:27.453,0.4200000000000001,420,21,-0.11480161,-0.12487213,-0.016524669,0.064681664,-0.006115458,-0.046260767,0.0,0.0,0.0,-0.012342224,0.0965961,-0.33728558,-0.312527,0.026969658,-0.13143617,-0.3400539,0.3409679,0.07750508,0.30526215,-0.3263191,-0.046802185,0.29415897,-0.23321746,0.010680307,0.04954092,-0.093650304,-0.074223064,-0.043328505,-0.04193231,0.016115861,-0.04275675,0.0603373,-0.13917837,0.07198057,-1.5744339,1.6201369,-2.0,-0.24472442,-2.0,-2.0,2.0,-1.7322602,2.0,-2.0,-1.235501,2.0,0.07932262,2.0,-2.0,-0.24955729,-2.0,-2.0,2.0,-2.0,2.0,-2.0,1.8605163,0.024558246
2025-07-21 09:50:27.474,0.4400000000000001,440,22,-0.04103305,0.079323374,0.105568156,0.02608929,0.04027946,-0.049051207,0.0,0.0,0.0,-0.013319781,0.080933034,-0.28710908,-0.328644,0.007830868,-0.20558743,-0.33983883,0.35467228,0.06024187,0.3073199,-0.3320302,-0.046930425,0.24632865,-0.051421013,0.12103972,-0.09848009,-0.08195225,-0.13409647,0.07238752,0.045734964,-0.06556331,0.017871099,-0.051181994,0.10278755,-0.19906749,0.07932262,2.0,-2.0,-0.24955729,-2.0,-2.0,2.0,-2.0,2.0,-2.0,1.8605163,0.024558246,2.0,2.0,-2.0,0.8348503,0.0034121461,-2.0,1.740207,-2.0,2.0,-2.0,1.529768,2.0
2025-07-21 09:50:27.495,0.46000000000000013,460,23,0.13149884,0.16717863,0.03947661,0.079186484,0.02183691,-0.01896239,0.0,0.0,0.0,-0.014190066,0.11435532,-0.2290866,-0.32946214,0.014882745,-0.22512196,-0.3308197,0.35530052,0.050846018,0.32245573,-0.34927523,0.023129363,0.23607183,0.06838818,0.18465406,-0.03289266,0.101025194,0.035213422,0.020138392,-0.0102091655,-0.04502778,0.041364633,-0.04619842,0.25798753,-0.028145816,2.0,2.0,-2.0,0.8348503,0.0034121461,-2.0,1.740207,-2.0,2.0,-2.0,1.529768,2.0,2.0,-0.43082455,-2.0,-0.0032387082,0.19986011,-2.0,1.2135235,-2.0,2.0,-2.0,-2.0,2.0
2025-07-21 09:50:27.514,0.48000000000000015,480,24,-0.0032855014,0.35763925,0.030191269,0.08232745,0.014995442,-0.021870805,0.0,0.0,0.0,-0.014962049,0.14915413,-0.21180682,-0.32339904,7.067995e-05,-0.20548108,-0.3475679,0.34020188,0.023661485,0.31008327,-0.34357417,0.06201796,0.2628816,0.0442539,-0.014643628,-0.06682446,-0.06036143,0.025404407,0.0047827032,-0.07213655,-0.059101596,0.052358937,-0.013853155,-0.042770486,0.0686158,2.0,-0.43082455,-2.0,-0.0032387082,0.19986011,-2.0,1.2135235,-2.0,2.0,-2.0,-2.0,2.0,1.7566633,-0.7614881,-2.0,1.4686854,1.5990713,-2.0,2.0,-1.4382997,2.0,-2.0,-2.0,2.0
2025-07-21 09:50:27.534,0.5000000000000001,500,25,-0.1765591,-0.16894564,0.025870668,-0.0036293056,-0.038923606,-0.012154628,0.0,0.0,0.0,-0.016018886,0.17491817,-0.23998955,-0.3350937,0.016383251,-0.17798193,-0.3488891,0.36211225,0.0034911868,0.32023582,-0.33341447,0.001425355,0.26453176,0.13755411,-0.019195033,0.019542305,0.085161686,0.02771013,-0.059109714,0.06940159,-0.06805584,0.03932452,-0.0022986233,-0.17291512,0.065479524,1.7566633,-0.7614881,-2.0,1.4686854,1.5990713,-2.0,2.0,-1.4382997,2.0,-2.0,-2.0,2.0,0.8938063,-0.3036001,-2.0,0.34593517,1.1892731,-2.0,2.0,0.64581776,2.0,-2.0,-0.5571903,2.0
2025-07-21 09:50:27.554,0.5200000000000001,520,26,0.034704186,-0.24100195,-0.067954406,0.060125247,0.059419163,0.029358018,0.0,0.0,0.0,-0.017169712,0.18798672,-0.22513726,-0.31663194,0.01865458,-0.13875422,-0.35568622,0.36249405,0.01589065,0.3131567,-0.33739176,-0.03226529,0.28560707,0.035056,-0.007515342,0.04417177,-0.039949555,0.0640542,0.0367824,-0.06580031,0.055290665,-0.010921423,-0.03092449,-0.075937025,0.09180954,0.8938063,-0.3036001,-2.0,0.34593517,1.1892731,-2.0,2.0,0.64581776,2.0,-2.0,-0.5571903,2.0,0.16876628,-0.60667706,-2.0,0.25778636,-1.595081,-2.0,2.0,-0.90115786,2.0,-2.0,2.0,2.0
2025-07-21 09:50:27.574,0.5400000000000001,540,27,-0.13716008,-0.06813747,0.055086736,0.029763453,0.067710795,-0.046918463,0.0,0.0,0.0,-0.016238887,0.15255143,-0.2241528,-0.31972036,0.031971745,-0.13705297,-0.34852216,0.36465064,0.030543275,0.32555547,-0.3493144,-0.012401614,0.29054004,-0.12808916,0.0526724,-0.054946087,0.04485068,-0.027416427,0.061207928,0.025824696,-0.094342634,-0.057464708,0.04258985,0.14022788,0.03779907,0.16876628,-0.60667706,-2.0,0.25778636,-1.595081,-2.0,2.0,-0.90115786,2.0,-2.0,2.0,2.0,1.8857393,-0.08379641,-2.0,0.51988095,0.58439374,-2.0,2.0,-0.9608954,2.0,-2.0,-0.8200566,2.0
2025-07-21 09:50:27.598,0.5600000000000002,560,28,-0.05022026,0.03554262,0.01617046,0.020505952,0.045821574,-0.011941664,0.0,0.0,0.0,-0.016969368,0.16682854,-0.20813651,-0.33452725,0.039484616,-0.14522319,-0.3500104,0.3715767,-0.013349482,0.3252427,-0.3539948,-0.01983154,0.28439066,0.027087037,-0.006269648,-0.077258855,-0.05227988,0.06043923,-0.068825945,0.06954237,-0.0055237277,-0.031178039,-0.078266375,-0.13403714,-0.009964898,1.8857393,-0.08379641,-2.0,0.51988095,0.58439374,-2.0,2.0,-0.9608954,2.0,-2.0,-0.8200566,2.0,1.0774443,0.37215647,-2.0,0.8409149,0.03960635,-2.0,2.0,-0.71320534,2.0,-2.0,1.7621844,2.0
2025-07-21 09:50:27.614,0.5800000000000002,580,29,0.17036276,0.06963588,0.12357432,0.01696748,0.027115973,-0.028992452,0.0,0.0,0.0,-0.01842843,0.17397363,-0.14023077,-0.3224558,0.035416603,-0.11965467,-0.3656542,0.379722,-0.041333225,0.33054432,-0.34688094,-0.006164952,0.2831233,-0.017143285,0.07547491,-0.035824824,0.028195934,0.011553404,-0.038207427,0.038006593,-0.119335115,0.04406043,0.0159148,0.106372476,-0.03643633,1.0774443,0.37215647,-2.0,0.8409149,0.03960635,-2.0,2.0,-0.71320534,2.0,-2.0,1.7621844,2.0,2.0,-1.5207473,-2.0,0.97171754,-0.2175517,-2.0,1.5415692,1.5055826,2.0,-2.0,0.2761227,2.0
2025-07-21 09:50:27.634,0.6000000000000002,600,30,0.13573512,0.017124565,-0.04646627,0.040057078,0.02888978,-0.006476417,0.0,0.0,0.0,-0.020895587,0.20732585,-0.15520348,-0.31449145,0.0548654,-0.11053671,-0.35679722,0.36845815,-0.0049027037,0.3205925,-0.35679564,0.004961688,0.2874865,0.099340454,-0.07763648,-0.052103538,0.011766071,0.072264016,-0.047492307,-0.07413592,0.15878193,0.00083483197,0.04143205,0.029429732,-0.04031909,2.0,-1.5207473,-2.0,0.97171754,-0.2175517,-2.0,1.5415692,1.5055826,2.0,-2.0,0.2761227,2.0,-0.3526619,-2.0,-2.0,0.20548221,-2.0,-2.0,2.0,-1.8499999,2.0,-2.0,-0.8402194,2.0
2025-07-21 09:50:27.654,0.6200000000000002,620,31,-0.22122465,0.14942484,-0.08140112,0.023980547,-0.0063180192,0.045403372,0.0,0.0,0.0,-0.021000827,0.17322499,-0.2527022,-0.3301553,0.050246365,-0.15505712,-0.35952443,0.37653956,-0.018860549,0.3298289,-0.35288566,-0.0050065327,0.3057841,-0.113393255,-0.27042234,-0.02815186,0.04129031,-0.2506636,0.029492827,0.008795548,-0.14881226,0.010958876,-0.021135867,-0.08286667,0.08917091,-0.3526619,-2.0,-2.0,0.20548221,-2.0,-2.0,2.0,-1.8499999,2.0,-2.0,-0.8402194,2.0,-0.5678222,2.0,-2.0,0.81083196,2.0,-2.0,2.0,1.7134466,2.0,-2.0,0.38673848,2.0
2025-07-21 09:50:27.675,0.6400000000000002,640,32,0.18398921,-0.17384787,-0.054575548,0.014774462,-0.009796455,-0.004885786,0.0,0.0,0.0,-0.02020551,0.12517333,-0.27704233,-0.3188706,0.05305396,-0.17666426,-0.36329383,0.3725393,0.012157324,0.32209092,-0.3600307,0.0017392421,0.29807627,-0.107175864,0.02278252,0.058445606,0.051429227,0.023786595,-0.028803054,-0.04972757,0.20313501,0.04345038,-0.05483094,0.15003136,0.013740613,-0.5678222,2.0,-2.0,0.81083196,2.0,-2.0,2.0,1.7134466,2.0,-2.0,0.38673848,2.0,1.644076,2.0,-2.0,0.5163565,-0.70068425,-2.0,2.0,-2.0,2.0,-2.0,-1.2640289,2.0
2025-07-21 09:50:27.694,0.6600000000000003,660,33,-0.08975023,0.031413525,-0.16602992,0.034762427,0.054147176,-0.00865016,0.0,0.0,0.0,-0.018821264,0.1388835,-0.21842344,-0.33121404,0.06490423,-0.18452734,-0.36107075,0.37276456,0.037658613,0.30678797,-0.35698155,-0.020261012,0.31231266,0.10708354,0.13778777,-0.10069241,0.0825634,-0.021005847,0.044085402,0.03741379,-0.06277439,0.04615952,0.021588318,-0.12243983,0.0012861349,1.644076,2.0,-2.0,0.5163565,-0.70068425,-2.0,2.0,-2.0,2.0,-2.0,-1.2640289,2.0,1.8432289,1.8294799,-2.0,-1.013842,-1.1292312,-2.0,2.0,-2.0,2.0,-2.0,2.0,2.0
2025-07-21 09:50:27.715,0.6800000000000003,680,34,-0.08181931,0.048002988,0.12013449,-0.007904159,0.042429183,0.01873819,0.0,0.0,0.0,-0.016506381,0.16559877,-0.16718945,-0.33158615,0.026675338,-0.23108232,-0.34246263,0.37431034,0.0068547525,0.319471,-0.36083296,-0.026383018,0.30660343,0.1017568,0.18992016,0.02404444,-0.058959875,-0.12655531,0.047615167,0.043606505,-0.15136068,0.0659869,-0.04022226,0.07923748,-0.060895305,1.8432289,1.8294799,-2.0,-1.013842,-1.1292312,-2.0,2.0,-2.0,2.0,-2.0,2.0,2.0,2.0,-0.6921774,-2.0,0.8836346,2.0,-2.0,0.8243037,-1.2861242,2.0,-2.0,-0.8262531,2.0
2025-07-21 09:50:27.738,0.7000000000000003,700,35,-0.22263594,0.02186292,-0.03441399,0.039942525,0.030836068,0.03859955,0.0,0.0,0.0,-0.015865529,0.19326769,-0.15300521,-0.31711075,0.02392597,-0.24976474,-0.364882,0.37214452,-0.021508947,0.31286603,-0.35969588,-0.058175348,0.3021538,0.0335172,-0.093827434,0.06628249,-0.015645508,-0.034304574,-0.042945907,-0.06488272,-0.16604051,-0.041792423,-0.048617013,-0.19054323,0.049854856,2.0,-0.6921774,-2.0,0.8836346,2.0,-2.0,0.8243037,-1.2861242,2.0,-2.0,-0.8262531,2.0,1.5962869,-0.49485222,-2.0,0.6051778,2.0,-2.0,2.0,1.8341799,2.0,-2.0,2.0,2.0
2025-07-21 09:50:27.755,0.7200000000000003,720,36,0.24129224,-0.061110426,0.04103785,0.008363031,0.0023037838,-0.042796474,0.0,0.0,0.0,-0.016561553,0.21771838,-0.16782598,-0.31940487,0.037666906,-0.21409836,-0.35983256,0.37171862,-0.021174083,0.3131412,-0.3574976,-0.062479157,0.2981723,-0.032637205,-0.073315196,0.05645405,0.049673244,0.10509547,0.05132726,0.037748147,0.09070902,-0.010451688,0.037056345,0.082220785,-0.0703016,1.5962869,-0.49485222,-2.0,0.6051778,2.0,-2.0,2.0,1.8341799,2.0,-2.0,2.0,2.0,1.0236106,-0.50498736,-2.0,1.1094726,-0.6056875,-2.0,1.6506375,0.83188844,2.0,-2.0,2.0,2.0
2025-07-21 09:50:27.775,0.7400000000000003,740,37,0.23761934,0.104201496,-0.16517864,-0.009927796,0.0033231745,-0.04195719,0.0,0.0,0.0,-0.017083272,0.20111866,-0.17113872,-0.3234474,0.060975637,-0.20579226,-0.35113984,0.36778256,0.039186504,0.30229124,-0.3488014,0.023883678,0.29772687,0.004911097,-0.04725608,0.06802365,0.06262309,-0.06423996,0.030993616,-0.049288914,0.20953952,0.0078596985,-0.036237,0.33882236,-0.041550267,1.0236106,-0.50498736,-2.0,1.1094726,-0.6056875,-2.0,1.6506375,0.83188844,2.0,-2.0,2.0,2.0,1.6966066,-0.9930533,-2.0,-0.98987603,2.0,-1.2215555,2.0,-2.0,2.0,-2.0,-2.0,2.0
2025-07-21 09:50:27.795,0.7600000000000003,760,38,0.11025163,0.123910405,0.06276108,0.000477451,-0.005560695,-0.034294687,0.0,0.0,0.0,-0.01565717,0.22435765,-0.20974429,-0.316299,0.018945022,-0.20722498,-0.33530012,0.37662196,0.07178241,0.31924924,-0.35316953,0.07514194,0.3048956,0.042975783,-0.148566,-0.064680636,-0.15863852,0.040052526,0.0576879,0.03479798,0.053487703,0.012220919,-0.058943853,0.052314416,0.056899678,1.6966066,-0.9930533,-2.0,-0.98987603,2.0,-1.2215555,2.0,-2.0,2.0,-2.0,-2.0,2.0,1.2717494,-0.37902048,-2.0,1.760614,1.8409265,-2.0,2.0,-2.0,2.0,-2.0,-2.0,0.08993918
2025-07-21 09:50:27.815,0.7800000000000004,780,39,-0.098299645,-0.28348517,0.0029295422,-0.029498637,0.05979777,0.033267956,0.0,0.0,0.0,-0.015468649,0.22007228,-0.2089835,-0.32227525,0.026522925,-0.18262897,-0.3528535,0.38313726,0.063440636,0.32589105,-0.3528338,0.08302909,0.27059677,0.009831649,0.025060602,0.0452713,-0.006115419,0.057198606,-0.016906848,0.10479561,-0.089725055,0.022732966,0.01180834,-0.120650016,-0.14973147,1.2717494,-0.37902048,-2.0,1.760614,1.8409265,-2.0,2.0,-2.0,2.0,-2.0,-2.0,0.08993918,0.1754448,0.14774498,-2.0,-0.16320786,0.48984197,-2.0,2.0,-1.2548134,2.0,-2.0,-2.0,0.104611695
2025-07-21 09:50:27.835,0.8000000000000004,800,40,-0.19122767,-0.062380508,0.142374,0.01569284,0.066228844,-0.044139635,0.0,0.0,0.0,-0.015495963,0.1860835,-0.16310765,-0.32412687,0.028116073,-0.13560274,-0.3579148,0.3701126,0.023020875,0.32177696,-0.36021268,0.013839702,0.23265943,-0.11130887,0.1035481,-0.07581414,-0.014309486,0.11705634,0.052384205,0.005052826,-0.09826014,3.067033e-05,-0.058187347,-0.15952925,-0.021946251,0.1754448,0.14774498,-2.0,-0.16320786,0.48984197,-2.0,2.0,-1.2548134,2.0,-2.0,-2.0,0.104611695,1.4936131,-1.5212227,-2.0,1.2307107,-2.0,-2.0,2.0,1.7849407,2.0,-2.0,0.8133135,-0.71534353
2025-07-21 09:50:27.855,0.8200000000000004,820,41,-0.00813844,-0.16021727,-0.084154755,0.05815274,0.094308406,0.018215463,0.0,0.0,0.0,-0.01668524,0.19868481,-0.18079859,-0.3262934,0.031553872,-0.13153842,-0.35102367,0.3858207,0.037959665,0.31532064,-0.35874873,0.010309052,0.16575857,0.06918735,-0.15067784,-0.002384693,0.042813797,-0.06873008,0.079632394,-0.046502285,0.1324609,-0.051724512,0.060392004,0.14115822,-0.20991199,1.4936131,-1.5212227,-2.0,1.2307107,-2.0,-2.0,2.0,1.7849407,2.0,-2.0,0.8133135,-0.71534353,-0.29332882,-1.4274915,-2.0,-0.017601162,-1.9004545,-2.0,2.0,-2.0,2.0,-2.0,-1.3651431,2.0
2025-07-21 09:50:27.875,0.8400000000000004,840,42,-0.20977809,0.20051067,0.058251996,0.071962945,0.012815401,0.0231796,0.0,0.0,0.0,-0.016828699,0.18845576,-0.23572253,-0.3229979,0.028519772,-0.1994108,-0.34941193,0.37591308,0.033014465,0.31833604,-0.3508461,-0.0034514861,0.19465756,-0.052192286,-0.20268045,-0.073730916,-0.091861896,-0.28993753,0.034480777,0.01057447,-0.08835057,-0.004543007,-0.01607902,-0.13689213,0.08088499,-0.29332882,-1.4274915,-2.0,-0.017601162,-1.9004545,-2.0,2.0,-2.0,2.0,-2.0,-1.3651431,2.0,0.0026534647,2.0,-2.0,1.5520189,2.0,-2.0,2.0,0.5926449,2.0,-2.0,0.095173314,2.0
2025-07-21 09:50:27.896,0.8600000000000004,860,43,0.32135254,-0.030028807,-0.02661451,0.08659009,0.042372916,0.025826886,0.0,0.0,0.0,-0.017375356,0.16629031,-0.24008729,-0.32292703,0.042553563,-0.24217348,-0.3600435,0.38256276,0.045155533,0.30727628,-0.3643578,-0.019146143,0.21618629,-0.028957896,0.08095566,0.07208476,0.054006096,0.066497006,0.07058062,-0.016842242,0.12709568,0.039029237,0.017043877,0.07288513,0.09831797,0.0026534647,2.0,-2.0,1.5520189,2.0,-2.0,2.0,0.5926449,2.0,-2.0,0.095173314,2.0,2.0,1.965794,-2.0,0.4746746,-0.7432625,-2.0,2.0,-2.0,2.0,-2.0,-0.09845857,2.0
2025-07-21 09:50:27.915,0.8800000000000004,880,44,-0.03536479,-0.04190671,0.057680633,0.03471667,0.013766821,-0.0033514441,0.0,0.0,0.0,-0.0175038,0.18342082,-0.17632462,-0.331416,0.0452915,-0.23931907,-0.35048798,0.3772468,0.0566151,0.30701086,-0.3515665,-0.032074098,0.22194715,0.0136485975,0.25271347,0.05182733,0.058904562,-0.08010533,-0.012005546,0.022773175,-0.050740212,0.065501444,-0.061639857,0.04163281,0.030265953,2.0,1.965794,-2.0,0.4746746,-0.7432625,-2.0,2.0,-2.0,2.0,-2.0,-0.09845857,2.0,2.0,-1.1577604,-2.0,0.5268894,1.4211545,-2.0,1.6046013,-2.0,2.0,-2.0,-1.3007888,2.0
2025-07-21 09:50:27.936,0.9000000000000005,900,45,-0.27523065,-0.005497236,0.055534825,0.018116921,0.000396471,0.03680579,0.0,0.0,0.0,-0.01745219,0.20179936,-0.14723627,-0.31437662,0.057605114,-0.2457622,-0.3520365,0.3710136,0.037763633,0.31422272,-0.35079923,-0.052604005,0.24313302,0.0636901,-0.091592446,-0.05661656,0.0048625446,0.086778544,-0.029377345,0.04295838,-0.13683186,0.00472096,0.038269226,-0.06207162,0.106981166,2.0,-1.1577604,-2.0,0.5268894,1.4211545,-2.0,1.6046013,-2.0,2.0,-2.0,-1.3007888,2.0,1.1463917,-1.7448463,-2.0,0.8264843,1.5028734,-2.0,2.0,0.009995695,2.0,-2.0,-0.11573224,2.0
2025-07-21 09:50:27.956,0.9200000000000005,920,46,0.029775437,-0.084721334,0.102046154,0.041438058,0.01252364,0.00082946377,0.0,0.0,0.0,-0.018318728,0.2088489,-0.2169365,-0.32602486,0.06568668,-0.21813726,-0.35087192,0.38564172,0.02923798,0.31507695,-0.36171234,-0.058955353,0.25564513,-0.07273554,-0.25973895,-0.063542165,0.079121135,0.1015631,0.011064748,0.07870737,-0.04411894,0.04969931,-0.028242946,-0.05909427,-0.04104795,1.1463917,-1.7448463,-2.0,0.8264843,1.5028734,-2.0,2.0,0.009995695,2.0,-2.0,-0.11573224,2.0,-0.08951773,0.26019225,-2.0,0.8424342,0.4438267,-2.0,2.0,2.0,2.0,-2.0,1.2186457,2.0
2025-07-21 09:50:27.981,0.9400000000000005,940,47,0.456782,0.06348549,-0.07256479,-0.0031644008,0.030117208,-0.010059338,0.0,0.0,0.0,-0.019648861,0.16425735,-0.21894743,-0.3146369,0.06269474,-0.17162009,-0.35376835,0.37846,0.05233034,0.31383967,-0.35810152,-0.012327735,0.2648029,-0.050705317,0.046398338,0.032206476,0.057325035,0.08758808,0.015502489,0.00974981,0.12730318,-0.011943496,0.016767995,0.30524322,-0.036742184,-0.08951773,0.26019225,-2.0,0.8424342,0.4438267,-2.0,2.0,2.0,2.0,-2.0,1.2186457,2.0,0.6701444,-0.67095757,-2.0,-0.050883383,-2.0,-2.0,2.0,-2.0,2.0,-2.0,-2.0,2.0
2025-07-21 09:50:27.995,0.9600000000000005,960,48,-0.13656098,0.044027705,-0.069635354,-0.016257599,0.05536512,0.03350996,0.0,0.0,0.0,-0.019416984,0.14988133,-0.23267567,-0.31552854,0.051435083,-0.16840896,-0.356158,0.3787424,0.073260814,0.3043736,-0.34894213,0.019079017,0.27695125,0.0036942635,-0.06536053,-0.048062462,-0.006616623,-0.11117112,-0.028723674,-0.060374316,-0.10437785,0.07435625,0.027169826,-5.655423e-05,0.09067927,0.6701444,-0.67095757,-2.0,-0.050883383,-2.0,-2.0,2.0,-2.0,2.0,-2.0,-2.0,2.0,0.35904235,2.0,-2.0,0.3391249,1.5719527,-2.0,2.0,-1.537225,2.0,-2.0,-2.0,2.0
2025-07-21 09:50:28.015,0.9800000000000005,980,49,-0.07082037,0.030643646,-0.04760919,0.07984822,0.035079595,-0.044342086,0.0,0.0,0.0,-0.018270193,0.14546476,-0.19512177,-0.3182738,0.04497035,-0.16757946,-0.36321357,0.37778777,0.053525716,0.30834728,-0.3545227,-0.004467333,0.2884776,-0.07468965,0.113676645,0.027084345,0.046756424,-0.025260804,-0.00949423,-0.07526037,-0.043516673,0.0047135623,-0.071422875,-0.11349172,0.019059863,0.35904235,2.0,-2.0,0.3391249,1.5719527,-2.0,2.0,-1.537225,2.0,-2.0,-2.0,2.0,2.0,1.5891925,-2.0,-0.29411423,0.3362312,-2.0,2.0,-2.0,2.0,-2.0,-0.661874,2.0
2025-07-21 09:50:28.036,1.0000000000000004,1000,50,-0.0536967,0.01887625,-0.06300166,0.08598747,0.056481864,-0.020370753,0.0,0.0,0.0,-0.017259395,0.18036622,-0.13592155,-0.32723865,0.041346613,-0.16166021,-0.35344154,0.3766956,0.0013255068,0.3238082,-0.35066107,-0.05184988,0.301989,0.0911401,0.11877143,0.0501665,-0.08393333,0.038159125,0.012016001,0.058905587,-0.113007225,-0.05725066,-0.012560426,-0.07876898,-0.042954277,2.0,1.5891925,-2.0,-0.29411423,0.3362312,-2.0,2.0,-2.0,2.0,-2.0,-0.661874,2.0,2.0,-0.3502312,-2.0,0.65104085,-1.453084,-2.0,2.0,-2.0,2.0,-2.0,2.0,2.0
2025-07-21 09:50:28.056,1.0200000000000005,1020,51,-0.2632306,-0.056345303,0.05266698,0.032198098,0.010313284,0.0015605657,0.0,0.0,0.0,-0.016567266,0.20689352,-0.13885094,-0.33336625,0.039204318,-0.15484998,-0.35085595,0.38502684,-0.03380798,0.32038802,-0.3484951,-0.034594778,0.28427404,0.13696994,-0.06456445,-0.041633613,-0.02028631,-0.1094474,0.07086916,0.02075047,-0.050363477,0.08206935,-0.031053249,0.07201848,-0.0663847,2.0,-0.3502312,-2.0,0.65104085,-1.453084,-2.0,2.0,-2.0,2.0,-2.0,2.0,2.0,2.0,0.14370152,-2.0,0.25610003,2.0,-2.0,1.2315867,-0.80591303,2.0,-2.0,-0.14569585,2.0
2025-07-21 09:50:28.076,1.0400000000000005,1040,52,-0.22913855,0.07521188,0.07090524,0.030714372,-0.0112313405,-0.04406272,0.0,0.0,0.0,-0.016584698,0.23100895,-0.101973124,-0.32816237,0.034864422,-0.18064095,-0.361282,0.36600012,-0.068020314,0.31444284,-0.35302162,-0.028920632,0.2917368,0.10931354,0.053732976,-0.05572466,-0.009909881,0.08358939,0.03590224,-0.0092707025,-0.11000942,0.07187129,0.020023443,0.027731648,-0.043059442,2.0,0.14370152,-2.0,0.25610003,2.0,-2.0,1.2315867,-0.80591303,2.0,-2.0,-0.14569585,2.0,1.8182691,-2.0,-2.0,1.9519069,0.56937736,-2.0,1.5429994,2.0,2.0,-2.0,1.0060867,2.0
2025-07-21 09:50:28.099,1.0600000000000005,1060,53,0.13416436,-0.03462223,0.0037322058,0.070037745,0.0069196266,0.00408365,0.0,0.0,0.0,-0.017257368,0.24657848,-0.1316191,-0.32042605,0.055711705,-0.14831093,-0.3724607,0.36921117,-0.07236247,0.31992063,-0.3610729,0.02642148,0.29107693,-0.019937608,-0.17733416,-0.027714208,0.096767664,0.12402331,0.04440155,0.08099024,0.16956298,-0.023639377,-0.011863572,0.13286793,0.068098076,1.8182691,-2.0,-2.0,1.9519069,0.56937736,-2.0,1.5429994,2.0,2.0,-2.0,1.0060867,2.0,0.44434637,-2.0,-2.0,0.5567389,-2.0,-2.0,2.0,-0.8243313,2.0,-2.0,-2.0,2.0
2025-07-21 09:50:28.116,1.0800000000000005,1080,54,-0.10183662,-0.004097822,0.032837052,0.11149443,0.04467072,-0.00044785303,0.0,0.0,0.0,-0.017796483,0.2215942,-0.2237721,-0.31216633,0.06261,-0.16263674,-0.36115512,0.37314755,-0.07499798,0.324567,-0.3479411,0.03557642,0.29628956,-0.012841185,-0.223562,-0.06282417,0.033846583,-0.18621618,-0.042432867,0.05056539,-0.13959098,0.064339645,-0.04211407,-0.07329064,0.04593354,0.44434637,-2.0,-2.0,0.5567389,-2.0,-2.0,2.0,-0.8243313,2.0,-2.0,-2.0,2.0,0.08711569,1.6615236,-2.0,1.5807472,2.0,-2.0,2.0,2.0,2.0,-2.0,-2.0,2.0
2025-07-21 09:50:28.136,1.1000000000000005,1100,55,0.17209327,-0.15752888,-0.21294667,0.10499166,0.01923821,0.016601427,0.0,0.0,0.0,-0.017720737,0.18985556,-0.26825586,-0.32666984,0.08092606,-0.17427096,-0.360079,0.3602599,-0.07303541,0.30350274,-0.34458047,-0.054704797,0.3143487,-0.08369681,0.07611134,-0.037991155,0.08868749,0.12609932,0.050508518,-0.049928606,0.12176405,-0.05424579,0.042329464,-0.21388261,0.061330233,0.08711569,1.6615236,-2.0,1.5807472,2.0,-2.0,2.0,2.0,2.0,-2.0,-2.0,2.0,0.39257312,2.0,-2.0,-1.1847197,-2.0,-2.0,2.0,-0.9750321,2.0,-2.0,2.0,2.0
2025-07-21 09:50:28.156,1.1200000000000006,1120,56,0.0552852,0.21267661,0.079067014,0.09434748,0.019659368,-0.026308488,0.0,0.0,0.0,-0.01500209,0.15621005,-0.18220542,-0.3228174,0.044548485,-0.19012265,-0.36273968,0.3588098,-0.051412627,0.30725843,-0.34261027,-0.09034495,0.30543232,-0.033016328,0.23921517,-0.018028585,-0.14570366,-0.16641249,-0.017381595,-0.04224159,-0.08399656,0.063804395,0.054157462,-0.035115525,0.04709161,0.39257312,2.0,-2.0,-1.1847197,-2.0,-2.0,2.0,-0.9750321,2.0,-2.0,2.0,2.0,2.0,-0.14014402,-2.0,0.8085161,0.8431945,-2.0,2.0,-1.3690939,2.0,-2.0,2.0,2.0
2025-07-21 09:50:28.176,1.1400000000000006,1140,57,0.097438805,0.11030799,0.159998,0.043241292,0.026640106,-0.029053433,0.0,0.0,0.0,-0.013730873,0.19038776,-0.15745912,-0.32157028,0.048269864,-0.2042338,-0.35319772,0.38676885,-0.075942576,0.3071695,-0.33705235,-0.03990316,0.31423286,0.06115354,0.08517764,0.050753016,0.050154,0.06459888,-0.07045096,-0.026745932,-0.023389429,0.037943374,-0.064544685,0.24905528,-0.053992696,2.0,-0.14014402,-2.0,0.8085161,0.8431945,-2.0,2.0,-1.3690939,2.0,-2.0,2.0,2.0,2.0,-2.0,-2.0,0.8367973,1.5879612,-2.0,0.88802063,1.2156162,2.0,-2.0,-2.0,2.0
2025-07-21 09:50:28.196,1.1600000000000006,1160,58,0.20885189,0.17711072,-0.09207106,0.0233102,-0.0117270015,0.012306749,0.0,0.0,0.0,-0.015430236,0.20840846,-0.18151535,-0.3162343,0.054368835,-0.1621515,-0.35494295,0.37222856,-0.055180594,0.30752853,-0.3561816,-0.0006226461,0.30717716,0.010275576,-0.25171873,0.053654708,0.019053916,0.089581035,0.008396792,-0.0011866277,0.06148822,-0.013009817,-0.04071956,-0.052465428,-0.0021259561,2.0,-2.0,-2.0,0.8367973,1.5879612,-2.0,0.88802063,1.2156162,2.0,-2.0,-2.0,2.0,-0.592195,-1.6695279,-1.7231703,0.18349358,0.37467387,-2.0,2.0,-0.71745014,2.0,-2.0,-1.5774641,2.0
2025-07-21 09:50:28.217,1.1800000000000006,1180,59,0.046070356,0.10506902,-0.025381401,0.011872905,-0.02187543,-0.034985967,0.0,0.0,0.0,-0.015339854,0.17451945,-0.2754425,-0.3102176,0.05623619,-0.11933537,-0.3634743,0.37173498,-0.058903772,0.3128409,-0.3477078,-0.036946673,0.30481702,-0.20157234,-0.25370222,0.06811064,0.0067068595,0.0729428,0.045251787,0.025747731,-0.15674685,-0.025950195,0.025234718,-0.032254133,0.04251391,-0.592195,-1.6695279,-1.7231703,0.18349358,0.37467387,-2.0,2.0,-0.71745014,2.0,-2.0,-1.5774641,2.0,-1.3049852,2.0,-2.0,0.26168922,-0.16103564,-2.0,2.0,2.0,2.0,-2.0,-0.3822822,2.0
2025-07-21 09:50:28.241,1.2000000000000006,1200,60,0.09776326,-0.067618735,-0.21386293,0.08011829,0.0036967692,0.033190876,0.0,0.0,0.0,-0.015076459,0.10746152,-0.2773889,-0.3160362,0.045791492,-0.119257234,-0.357397,0.37262663,-0.031174764,0.29869962,-0.35595933,-0.055528376,0.31528583,-0.1819695,0.065541096,0.027236637,0.03556298,-0.030780213,-0.038633563,-0.07296184,0.13412601,0.055281136,-0.06881621,-0.060518675,0.05052432,-1.3049852,2.0,-2.0,0.26168922,-0.16103564,-2.0,2.0,2.0,2.0,-2.0,-0.3822822,2.0,-0.3639282,2.0,-2.0,-0.8013595,-2.0,-2.0,2.0,-2.0,2.0,-2.0,2.0,2.0
2025-07-21 09:50:28.257,1.2200000000000006,1220,61,-0.06397436,-0.08850368,-0.0071778963,0.038757768,-0.050634187,0.0005076208,0.0,0.0,0.0,-0.013253524,0.078003995,-0.19546837,-0.31460693,0.028872166,-0.14475055,-0.35702297,0.36792186,-0.030532189,0.30803424,-0.361653,-0.034295503,0.31341362,-0.0003136839,0.2378811,-0.0881241,-0.023906028,-0.138509,-0.05987757,-0.031937577,0.027969906,-0.025325047,-0.08240977,0.08858186,0.03122909,-0.3639282,2.0,-2.0,-0.8013595,-2.0,-2.0,2.0,-2.0,2.0,-2.0,2.0,2.0,2.0,0.35080567,-2.0,0.16723213,-0.7628114,-2.0,2.0,-2.0,2.0,-2.0,-0.6329033,2.0
2025-07-21 09:50:28.718,1.2400000000000007,1240,62,-0.24570523,-0.009422171,-0.051342636,0.06466922,-0.006201018,0.028477687,0.0,0.0,0.0,-0.012027524,0.114616364,-0.1501035,-0.31903392,0.030512208,-0.18287319,-0.36035866,0.38052234,-0.053181868,0.3113433,-0.3598122,-0.022393629,0.3036919,0.05481811,0.1896465,0.013888115,-0.0056889,-0.14679724,0.007935412,-0.034028146,-0.09574217,-0.015514545,-0.0013076772,-0.12468604,-0.04942777,2.0,0.35080567,-2.0,0.16723213,-0.7628114,-2.0,2.0,-2.0,2.0,-2.0,-0.6329033,2.0,2.0,-1.5964255,-2.0,0.57705986,2.0,-2.0,2.0,-2.0,2.0,-2.0,1.6986248,2.0
2025-07-21 09:50:28.738,1.2600000000000007,1260,63,-0.06942145,0.01037759,0.12118545,0.0044187917,-0.015934756,0.041419916,0.0,0.0,0.0,-0.011282379,0.15757143,-0.13892856,-0.33085236,0.03221054,-0.16989969,-0.36353886,0.3753972,-0.07656935,0.31916046,-0.3532191,-0.0020769797,0.30651549,0.12961408,-0.12631983,-0.059747618,0.04849541,0.025448672,-0.08078965,-0.051439207,-0.15564375,0.07911784,0.05242465,0.15922123,0.055246744,2.0,-1.5964255,-2.0,0.57705986,2.0,-2.0,2.0,-2.0,2.0,-2.0,1.6986248,2.0,1.5631418,-2.0,-2.0,0.48089787,1.9582324,-2.0,2.0,2.0,2.0,-2.0,-1.7930068,2.0
2025-07-21 09:50:28.758,1.2800000000000007,1280,64,0.08485974,-0.13940504,0.0003190122,0.029360777,-0.004844965,-0.020183124,0.0,0.0,0.0,-0.012275646,0.17444839,-0.24317293,-0.3165044,0.03714269,-0.14582793,-0.37189755,0.38366866,-0.061328392,0.32176286,-0.35985178,0.027973032,0.3196561,0.040425364,-0.21736363,0.0055367094,0.056369882,0.16397923,-0.0022109668,-0.08084012,0.110134274,-0.0135245435,-0.06482932,-0.0062050917,0.039574046,1.5631418,-2.0,-2.0,0.48089787,1.9582324,-2.0,2.0,2.0,2.0,-2.0,-1.7930068,2.0,-0.92808276,-2.0,-2.0,0.12858,-2.0,-2.0,2.0,1.2531316,2.0,-2.0,-2.0,2.0
2025-07-21 09:50:28.778,1.3000000000000007,1300,65,0.042750478,-0.18023351,-0.0485605,0.018529955,-0.028858515,0.0008510882,0.0,0.0,0.0,-0.0137025,0.13471244,-0.33232722,-0.3281646,0.031993963,-0.14814177,-0.35195914,0.37677678,0.040770855,0.3103775,-0.35002542,-0.048306193,0.3134079,-0.14269944,-0.17097521,0.049236,-0.0427735,-0.061798196,0.04411004,0.006233981,0.16894856,-0.04084496,0.01708611,-0.15818189,-0.019136703,-0.92808276,-2.0,-2.0,0.12858,-2.0,-2.0,2.0,1.2531316,2.0,-2.0,-2.0,2.0,-2.0,2.0,-2.0,-0.0045978134,-0.5007591,-2.0,2.0,-2.0,2.0,-2.0,0.7443237,0.9872295
2025-07-21 09:50:28.798,1.3200000000000007,1320,66,0.10793019,-0.13599202,0.13280797,0.052670643,0.028756436,-0.036918182,0.0,0.0,0.0,-0.013506072,0.04865628,-0.37087482,-0.32195857,0.021214128,-0.16102847,-0.35830894,0.36805043,0.07059661,0.32255083,-0.3489993,-0.05497665,0.27786988,-0.16277589,0.045936886,-0.06612366,-0.044812188,-0.038879313,0.07676733,-0.012632888,0.015007876,0.031035464,-0.0642614,0.08178175,-0.097581685,-2.0,2.0,-2.0,-0.0045978134,-0.5007591,-2.0,2.0,-2.0,2.0,-2.0,0.7443237,0.9872295,1.3057007,2.0,-2.0,0.22810003,-1.5629759,-2.0,2.0,-2.0,2.0,-2.0,0.632132,-1.2221982
2025-07-21 09:50:28.818,1.3400000000000007,1340,67,0.014316783,0.06315284,-0.03161807,-0.018181324,0.029641284,-0.034669213,0.0,0.0,0.0,-0.014147186,0.04595039,-0.32104382,-0.3295676,0.013808558,-0.19812831,-0.35030246,0.37856165,0.05932268,0.32685554,-0.34795803,-0.012033102,0.2140265,0.12735662,0.1477104,-0.022231229,0.061383095,-0.25136283,0.004426946,-0.05126242,-0.04240086,-0.05795832,-0.028287634,0.15552555,-0.16612373,1.3057007,2.0,-2.0,0.22810003,-1.5629759,-2.0,2.0,-2.0,2.0,-2.0,0.632132,-1.2221982,1.817931,1.6509153,-2.0,0.19594976,1.909892,-2.0,1.9379559,-1.5731313,2.0,-2.0,-0.029895708,2.0
2025-07-21 09:50:28.838,1.3600000000000008,1360,68,0.06368749,0.077472985,0.059736267,0.042489678,-0.0028191614,0.037799142,0.0,0.0,0.0,-0.015324893,0.088021,-0.2567564,-0.33007392,0.027079599,-0.23139265,-0.34152207,0.3848327,0.04135551,0.31992444,-0.34787932,-0.002105074,0.19989316,0.06760505,0.08637122,0.036925185,-0.056370445,-0.0094400495,0.0014663201,0.018213205,-0.05007122,0.0038933218,-0.03422464,-0.007936411,0.07833277,1.817931,1.6509153,-2.0,0.19594976,1.909892,-2.0,1.9379559,-1.5731313,2.0,-2.0,-0.029895708,2.0,2.0,1.2708098,-2.0,1.0203147,2.0,-2.0,2.0,-1.5319682,2.0,-2.0,0.6071884,2.0
2025-07-21 09:50:28.859,1.3800000000000008,1380,69,0.1474329,-0.026572645,0.11347233,0.04845955,0.02306856,0.046478342,0.0,0.0,0.0,-0.015018487,0.14214921,-0.21212356,-0.33008087,0.031504266,-0.19446313,-0.34795454,0.39358705,0.027666204,0.3228685,-0.36058202,0.026318498,0.21413215,0.14397353,0.2089055,-0.06308023,0.008488538,0.067638814,-0.06886556,0.0058641476,0.042570285,-0.053714756,-0.0014541611,0.16059199,-0.0072947834,2.0,1.2708098,-2.0,1.0203147,2.0,-2.0,2.0,-1.5319682,2.0,-2.0,0.6071884,2.0,2.0,-1.4167193,-2.0,1.6013347,0.5638257,-2.0,1.516011,-2.0,2.0,-2.0,-2.0,2.0
2025-07-21 09:50:28.878,1.4000000000000008,1400,70,-0.1673052,-0.028810374,0.002635235,0.011107612,-0.014907306,0.049763,0.0,0.0,0.0,-0.016374987,0.1701995,-0.19618857,-0.3316273,0.068095595,-0.14644758,-0.35213065,0.38902715,0.010617102,0.33540428,-0.36208573,0.009381881,0.23720181,0.13261938,-0.19585091,-0.06004743,0.1071194,0.1347307,0.04011857,0.009299738,-0.052159064,-0.05776698,0.071690224,-0.03009267,-0.016601717,2.0,-1.4167193,-2.0,1.6013347,0.5638257,-2.0,1.516011,-2.0,2.0,-2.0,-2.0,2.0,-0.5637067,-0.13713637,-2.0,0.011638194,-1.0388172,-2.0,2.0,-1.2011149,2.0,-2.0,-2.0,2.0
2025-07-21 09:50:28.899,1.4200000000000008,1420,71,-0.425434,0.19053458,0.009375229,0.039820317,-0.023976715,0.01859131,1.5,0.0,0.0,-0.017265154,0.1497503,-0.19119594,-0.33413723,0.04916282,-0.15341738,-0.36265016,0.38032073,-0.04187252,0.3277498,-0.3683815,-0.049003817,0.24736941,-0.09578521,0.106124945,0.017699815,0.032874975,-0.110312745,-0.023095716,0.04435534,-0.23257332,-0.032957874,0.04530868,-0.22789103,0.024856588,-0.5637067,-0.13713637,-2.0,0.011638194,-1.0388172,-2.0,2.0,-1.2011149,2.0,-2.0,-2.0,2.0,2.0,2.0,-2.0,-1.2954378,2.0,-0.12852034,0.4305797,2.0,2.0,-1.9754522,2.0,2.0
2025-07-21 09:50:28.919,1.4400000000000008,1440,72,0.20566687,0.36453918,0.020338729,0.023439169,0.026655626,-0.014151967,1.5,0.0,0.0,-0.017199878,0.14842153,-0.1335242,-0.32850394,0.009488479,-0.17899477,-0.31864986,0.35109374,-0.04515732,0.32890436,-0.3724036,-0.026861273,0.25783232,0.030948816,0.26589707,0.0012784061,-0.11439375,-0.081183486,0.05575683,-0.13726941,0.1169094,0.0052729887,-0.02990956,0.2018585,-0.040046368,2.0,2.0,-2.0,-1.2954378,2.0,-0.12852034,0.4305797,2.0,2.0,-1.9754522,2.0,2.0,2.0,-2.0,-2.0,0.42591056,2.0,2.0,-2.0,0.73218495,2.0,-2.0,0.8026412,2.0
2025-07-21 09:50:28.939,1.4600000000000009,1460,73,0.507778,-0.07284771,0.028659767,-0.009703965,0.003761574,-0.0066488744,1.5,0.0,0.0,-0.017634815,0.18985753,-0.08826783,-0.33172128,-0.009159441,-0.18606383,-0.2403914,0.33112076,0.020759638,0.30657613,-0.36065385,0.0319183,0.27024934,0.1392679,-0.0794756,-0.054881137,-0.03872973,-0.024183728,0.22121842,0.017982349,0.14664188,0.033228755,0.03780678,0.18971418,0.06961192,2.0,-2.0,-2.0,0.42591056,2.0,2.0,-2.0,0.73218495,2.0,-2.0,0.8026412,2.0,2.0,-2.0,0.5767942,0.75506085,2.0,2.0,-2.0,-2.0,2.0,-2.0,-1.1179672,-2.0
2025-07-21 09:50:28.959,1.4800000000000009,1480,74,0.37155923,-0.0017435134,-0.029385846,-0.05616038,-0.04142793,0.0064573716,1.5,0.0,0.0,-0.018024078,0.21188973,-0.1721789,-0.2534481,-0.0051554875,-0.17849827,-0.1598431,0.32734564,0.044414382,0.31107327,-0.36995715,0.04581593,0.19717932,0.107351944,-0.32972106,0.21937159,0.047260504,-0.028781684,0.13707453,0.03907562,0.027745973,0.08080414,-0.040429484,-0.04181794,-0.18135846,2.0,-2.0,0.5767942,0.75506085,2.0,2.0,-2.0,-2.0,2.0,-2.0,-1.1179672,-2.0,2.0,-1.9628518,2.0,-0.9651633,2.0,0.070242405,-2.0,-1.7277697,2.0,-2.0,-0.4431836,-2.0
2025-07-21 09:50:28.979,1.5000000000000009,1500,75,0.11510562,0.4169745,0.016871257,-0.06655721,-0.050674267,0.0005383143,1.5,0.0,0.0,-0.017050982,0.23293836,-0.28935748,-0.15334903,-0.022800913,-0.15424854,-0.14238988,0.29753497,0.02643591,0.31935024,-0.3669936,0.0154393455,0.10496377,0.00097085576,-0.20316401,0.15372148,-0.14801095,0.07435249,-0.031131594,-0.060530633,-0.11136311,-0.032842916,-0.014332757,-0.13838537,-0.21425264,2.0,-1.9628518,2.0,-0.9651633,2.0,0.070242405,-2.0,-1.7277697,2.0,-2.0,-0.4431836,-2.0,2.0,-0.46794024,2.0,0.69534904,2.0,-2.0,-2.0,2.0,2.0,-2.0,2.0,0.40828174
2025-07-21 09:50:28.999,1.520000000000001,1520,76,0.3740215,0.14466281,-0.14474681,-0.02217223,-0.07487841,0.02303522,1.5,0.0,0.0,-0.016101005,0.24346317,-0.30875206,-0.08349711,-0.018665444,-0.07713081,-0.17232165,0.23681639,0.06136764,0.31179664,-0.36634794,0.025567312,0.07849725,0.0006874559,0.10682056,0.19858576,0.049285207,0.21923509,-0.010951575,-0.18858837,0.15194973,-0.04662526,0.019094221,0.0491111,-0.103495665,2.0,-0.46794024,2.0,0.69534904,2.0,-2.0,-2.0,2.0,2.0,-2.0,2.0,0.40828174,2.0,1.6758465,2.0,-1.1625773,2.0,-2.0,-1.2446066,-1.0318995,-1.41132,-0.8172457,1.8138623,1.9988604
2025-07-21 09:50:29.019,1.540000000000001,1540,77,0.016882665,0.15509622,0.14470854,-0.011047556,-0.11741685,0.032369006,1.5,0.0,0.0,-0.014210601,0.26665196,-0.24815787,-0.004636777,-0.0413309,0.030192018,-0.20997922,0.17964417,0.12245106,0.23220299,-0.3615789,0.06619801,0.11642756,-0.03907262,0.2825917,0.18003184,-0.14144295,0.30482143,-0.05109678,-0.15630722,0.09570394,-0.24964751,0.09472487,0.10819443,0.13172884,2.0,1.6758465,2.0,-1.1625773,2.0,-2.0,-1.2446066,-1.0318995,-1.41132,-0.8172457,1.8138623,1.9988604,-0.23813666,2.0,2.0,-1.3792046,-2.0,-2.0,0.017961543,0.4233808,-2.0,1.5167186,-2.0,2.0
2025-07-21 09:50:29.039,1.560000000000001,1560,78,-0.37971976,-0.21783818,0.095287845,-0.04007656,-0.054579906,-0.04427021,1.5,0.0,0.0,-0.014700911,0.24395622,-0.13573901,0.04530857,-0.0743262,0.0581033,-0.21954547,0.16294974,0.13815127,0.13627008,-0.31660727,0.06709065,0.1494063,-0.04729151,0.33335233,0.12643543,-0.09914994,-0.05076699,-0.080459364,-0.027473971,-0.011154791,-0.17590971,0.15966038,-0.10697198,0.08125781,-0.23813666,2.0,2.0,-1.3792046,-2.0,-2.0,0.017961543,0.4233808,-2.0,1.5167186,-2.0,2.0,-0.5883695,2.0,2.0,-2.0,-2.0,-0.2989125,2.0,-2.0,-2.0,1.0060097,-2.0,2.0
2025-07-21 09:50:29.059,1.580000000000001,1580,79,-0.62312084,-0.38076195,0.124599665,0.0028017825,-0.06744412,-0.02569305,1.5,0.0,0.0,-0.017306246,0.18630154,0.0156196775,0.08444944,-0.12262774,-0.026285982,-0.19873013,0.18095192,0.084230304,0.057979744,-0.23241107,-0.0033256016,0.17015691,-0.12108965,0.31313738,0.11217091,-0.08973543,-0.24490419,0.07003893,0.13332662,-0.29129815,-0.24728727,0.1572462,-0.28000677,0.12796554,-0.5883695,2.0,2.0,-2.0,-2.0,-0.2989125,2.0,-2.0,-2.0,1.0060097,-2.0,2.0,2.0,2.0,2.0,-2.0,-2.0,-0.054006133,2.0,-1.5207258,-2.0,-0.50945914,2.0,2.0
2025-07-21 09:50:29.079,1.600000000000001,1600,80,-0.15842213,-0.08391105,-0.0629915,0.06184683,-0.033745043,0.012264092,1.5,0.0,0.0,-0.01963205,0.19855656,0.13754942,0.1219437,-0.1633221,-0.15643689,-0.15063184,0.21695937,-0.029377576,0.0074117444,-0.19469383,-0.0319625,0.20738883,0.018290104,0.28703517,0.004647428,-0.1255353,-0.38187394,0.11991397,0.055168737,-0.33540002,-0.2195374,0.09987593,0.111942075,0.007514096,2.0,2.0,2.0,-2.0,-2.0,-0.054006133,2.0,-1.5207258,-2.0,-0.50945914,2.0,2.0,2.0,-0.37354347,-2.0,-2.0,-2.0,2.0,0.9403749,-1.9013133,2.0,-2.0,2.0,2.0
2025-07-21 09:50:29.100,1.620000000000001,1620,81,-0.045703355,0.15242413,0.10910524,0.0695333,0.01372824,0.03134653,1.5,0.0,0.0,-0.01987977,0.22683175,0.17899582,0.050433002,-0.19881085,-0.27329078,-0.082506545,0.20413716,-0.17125012,0.0524367,-0.22665913,0.04386616,0.21384469,0.11238942,0.045613483,-0.1708894,-0.033016156,-0.25146812,0.25679508,-0.009906502,-0.37887654,0.061607935,-0.016338576,0.33794135,0.07365055,2.0,-0.37354347,-2.0,-2.0,-2.0,2.0,0.9403749,-1.9013133,2.0,-2.0,2.0,2.0,2.0,-2.0,-2.0,-2.0,2.0,2.0,-2.0,2.0,2.0,-2.0,-0.21836452,2.0
2025-07-21 09:50:29.119,1.640000000000001,1640,82,-0.08499014,0.457901,-0.018798156,0.0225689,0.015325916,0.000863673,1.5,0.0,0.0,-0.020801872,0.25167155,0.11978512,-0.005010756,-0.21082895,-0.32756522,-0.016977135,0.13706715,-0.22309473,0.07653534,-0.25003493,0.093177006,0.2313845,0.10950461,-0.30009052,-0.1960683,-0.020048574,-0.025505267,0.15184909,-0.21168624,0.03855654,0.12346831,-0.10817023,0.037728168,0.016577622,2.0,-2.0,-2.0,-2.0,2.0,2.0,-2.0,2.0,2.0,-2.0,-0.21836452,2.0,2.0,-2.0,-1.1096705,0.9079655,2.0,2.0,-2.0,0.9753232,2.0,-2.0,-2.0,-2.0
2025-07-21 09:50:29.139,1.660000000000001,1660,83,0.21557446,0.118366815,-0.10509194,0.03453913,-0.055253807,0.017521106,1.5,0.0,0.0,-0.021301754,0.2698896,-0.009201132,-0.042751588,-0.24209262,-0.31639138,0.025079316,0.101607345,-0.1987661,0.108092636,-0.2739833,0.05859384,0.16474837,0.029567273,-0.43262067,-0.13354279,-0.0259757,0.10272078,0.038114227,-0.055482868,0.13938977,0.014237097,-0.04870193,-0.14781876,-0.23061794,2.0,-2.0,-1.1096705,0.9079655,2.0,2.0,-2.0,0.9753232,2.0,-2.0,-2.0,-2.0,2.0,-2.0,2.0,-0.01861146,2.0,1.8210262,-1.9900045,-2.0,2.0,-2.0,-1.0650144,-2.0
2025-07-21 09:50:29.160,1.680000000000001,1680,84,-0.071692094,-0.020702824,-0.1308086,0.051822577,-0.049560845,0.007248127,1.5,0.0,0.0,-0.019117234,0.27089438,-0.14205956,0.026682124,-0.2426207,-0.30875802,0.04320057,0.08845797,-0.1777892,0.1478657,-0.2826767,-0.019232439,0.07966717,0.004321427,-0.37281874,0.18811573,0.08577162,0.025595177,0.08453283,-0.054535877,-0.043271564,0.076171786,-0.0489889,-0.07441415,-0.14381096,2.0,-2.0,2.0,-0.01861146,2.0,1.8210262,-1.9900045,-2.0,2.0,-2.0,-1.0650144,-2.0,2.0,-2.0,2.0,-1.9880631,2.0,2.0,0.18527322,2.0,2.0,-2.0,0.7249816,-2.0
2025-07-21 09:50:29.180,1.700000000000001,1700,85,0.2803381,0.019044863,0.11435545,0.041146833,-0.028564766,0.03858989,1.5,0.0,0.0,-0.016395504,0.2864404,-0.26639265,0.060052924,-0.24637964,-0.28593788,0.082860224,0.07883708,-0.14961475,0.15331697,-0.29717997,-0.0023236806,0.015585853,0.024927163,-0.2947895,0.17780133,-0.04608398,0.02613166,0.13620225,0.03196648,0.16132708,0.053829916,-0.014631234,0.14745948,-0.17399947,2.0,-2.0,2.0,-1.9880631,2.0,2.0,0.18527322,2.0,2.0,-2.0,0.7249816,-2.0,2.0,-1.400746,2.0,-0.54710466,2.0,-0.7822041,-2.0,1.8501308,2.0,-2.0,-0.31926674,-1.4595017
2025-07-21 09:50:29.200,1.720000000000001,1720,86,0.30799994,0.15706427,-0.17245433,-0.011432618,-0.056427754,0.015646914,1.5,0.0,0.0,-0.016348526,0.28987545,-0.33954427,0.10851129,-0.24142544,-0.2150561,0.052011065,0.06542679,-0.06704394,0.18207696,-0.29928267,0.009269361,-0.029737825,0.015409345,-0.14223051,0.16727053,0.07543445,0.14026159,-0.10818636,-0.11507234,0.19056618,0.0031551705,-0.0092559755,-0.04653735,-0.08847387,2.0,-1.400746,2.0,-0.54710466,2.0,-0.7822041,-2.0,1.8501308,2.0,-2.0,-0.31926674,-1.4595017,2.0,1.6223518,2.0,0.4466907,2.0,-1.960122,-1.0353708,-1.2748775,-0.12134616,-1.2096688,1.5114954,0.2788521
2025-07-21 09:50:29.220,1.740000000000001,1740,87,0.17391326,0.04525179,-0.12625016,-0.009296513,-0.06724649,-0.019985834,1.5,0.0,0.0,-0.0146074295,0.3066508,-0.3166882,0.1448935,-0.20979515,-0.11015153,-0.017882945,0.045152865,0.0025388203,0.13994698,-0.29292268,0.011579657,-0.022557408,-0.0065771625,0.05815803,0.09689158,0.02585466,0.26323244,-0.19655964,-0.1051918,0.06788081,-0.09370343,0.022180995,0.073970765,0.009048838,2.0,1.6223518,2.0,0.4466907,2.0,-1.960122,-1.0353708,-1.2748775,-0.12134616,-1.2096688,1.5114954,0.2788521,1.60508,2.0,2.0,-2.0,-0.7660306,-2.0,1.1902931,1.0184363,-2.0,2.0,-2.0,2.0
2025-07-21 09:50:29.240,1.7600000000000011,1760,88,-0.25163594,-0.6872231,-0.14125986,-0.02131447,-0.087369,0.009709897,1.5,0.0,0.0,-0.011834879,0.30737406,-0.2405139,0.17422444,-0.2112774,-0.07632923,-0.0674219,0.0649992,0.07316181,0.06327891,-0.2519354,0.015260086,0.020332757,0.010797002,0.3272775,0.019185252,-0.06820632,-0.056647934,-0.09501326,0.039678216,0.2183091,-0.23884486,0.15171918,-0.10943334,0.10604942,1.60508,2.0,2.0,-2.0,-0.7660306,-2.0,1.1902931,1.0184363,-2.0,2.0,-2.0,2.0,-1.7437032,2.0,2.0,-2.0,-2.0,-0.034846816,2.0,-2.0,-2.0,2.0,0.7729625,2.0
2025-07-21 09:50:29.260,1.7800000000000011,1780,89,-0.35453072,-0.4599459,-0.015759213,0.009381876,-0.042511933,-0.028939057,1.5,0.0,0.0,-0.00873121,0.2631382,-0.11682149,0.19057317,-0.2362877,-0.15799057,-0.057933584,0.10933293,0.10281536,0.000479751,-0.18638586,0.023449413,0.07707693,-0.1021723,0.22308496,0.056863386,0.011057572,-0.33731732,0.066527545,0.09566562,-0.0037108501,-0.07956884,0.103826545,0.14294288,0.1594467,-1.7437032,2.0,2.0,-2.0,-2.0,-0.034846816,2.0,-2.0,-2.0,2.0,0.7729625,2.0,2.0,2.0,-1.6394516,-2.0,-2.0,2.0,2.0,-2.0,-0.9319962,0.48287952,1.211618,2.0
2025-07-21 09:50:29.280,1.8000000000000012,1800,90,-0.21381296,-0.33114043,0.014018328,-0.0035310362,-0.01409432,-0.029579388,1.5,0.0,0.0,-0.007466733,0.2733484,0.006728265,0.109716885,-0.2713836,-0.28151187,-0.002549087,0.15901168,0.050635748,-0.013766674,-0.13776802,0.10155084,0.102371335,-0.0062995795,0.25544444,-0.15815349,-0.06956276,-0.3252503,0.11010869,0.08789292,-0.27043283,0.0057520433,0.11958727,0.26007497,0.09802864,2.0,2.0,-1.6394516,-2.0,-2.0,2.0,2.0,-2.0,-0.9319962,0.48287952,1.211618,2.0,2.0,-2.0,-2.0,-2.0,-0.85014856,2.0,-1.4824412,-2.0,2.0,-2.0,2.0,2.0
2025-07-21 09:50:29.300,1.8200000000000012,1820,91,-0.3677023,0.5817801,0.10514636,0.0024183919,0.0461913,-0.017553115,1.5,0.0,0.0,-0.0083383,0.27355877,0.06679055,0.053056013,-0.28105673,-0.3143056,0.0557952,0.13208865,-0.05622132,0.03119564,-0.16356784,0.19622603,0.14738165,0.01241703,0.10530063,-0.15913577,-0.034192454,0.028387085,0.09964881,-0.17696813,-0.21746503,0.09595434,-0.09549151,0.28446397,0.08992331,2.0,-2.0,-2.0,-2.0,-0.85014856,2.0,-1.4824412,-2.0,2.0,-2.0,2.0,2.0,2.0,-2.0,-1.3762631,-1.3210288,2.0,2.0,-2.0,2.0,2.0,-1.8445642,-2.0,-2.0
2025-07-21 09:50:29.320,1.8400000000000012,1840,92,-0.1347173,0.28950402,0.012279174,0.058855027,-0.027282113,0.027211055,1.5,0.0,0.0,-0.010300782,0.28561646,0.039644357,0.00928148,-0.30180797,-0.29643977,0.09663368,0.0806349,-0.07863315,0.07069836,-0.18861522,0.26287603,0.086010076,0.050600164,-0.13325702,-0.023171218,-0.009164562,0.07676989,0.13816173,-0.060597107,2.445049e-05,0.13557772,-0.045873724,0.051028863,-0.15004568,2.0,-2.0,-1.3762631,-1.3210288,2.0,2.0,-2.0,2.0,2.0,-1.8445642,-2.0,-2.0,2.0,-2.0,2.0,-0.18983164,2.0,2.0,-1.0972701,2.0,2.0,-2.0,-2.0,-2.0
2025-07-21 09:50:29.340,1.8600000000000012,1860,93,0.12458545,-0.17933062,-0.09766868,0.108282216,-0.04213147,-0.004020347,1.5,0.0,0.0,-0.011375463,0.29510388,-0.076529264,0.04496183,-0.2878651,-0.2735508,0.110661246,0.043947417,-0.030009478,0.09922375,-0.22168158,0.22730486,0.021450534,0.013957551,-0.32603404,0.12793198,0.017591437,0.062272858,0.014537959,-0.07468383,0.2254992,0.02201399,-0.110273175,-0.28235936,-0.1582544,2.0,-2.0,2.0,-0.18983164,2.0,2.0,-1.0972701,2.0,2.0,-2.0,-2.0,-2.0,2.0,-2.0,2.0,-1.6861004,2.0,-0.30791894,-0.1947201,-1.6853299,2.0,-2.0,-1.0528088,-1.9173586
2025-07-21 09:50:29.361,1.8800000000000012,1880,94,-0.04917547,0.16026324,0.13923234,0.10372689,-0.013000382,-0.012140815,1.5,0.0,0.0,-0.010007611,0.31171167,-0.19533175,0.09858354,-0.29325426,-0.22468503,0.07884804,0.021717636,-0.012047283,0.14205559,-0.22960725,0.103393726,-0.041687325,0.055409316,-0.17703982,0.15980908,-0.06549387,0.23507263,-0.13514154,-0.08495269,-0.028169708,0.08380129,-0.049450725,-0.3248029,-0.1206734,2.0,-2.0,2.0,-1.6861004,2.0,-0.30791894,-0.1947201,-1.6853299,2.0,-2.0,-1.0528088,-1.9173586,2.0,-1.0765866,2.0,0.29989472,2.0,-2.0,-1.75627,2.0,1.9587686,-1.9080404,2.0,-0.38750225
2025-07-21 09:50:29.381,1.9000000000000012,1900,95,0.28542447,0.10639416,0.054063104,0.054450072,-0.014851059,0.035068747,1.5,0.0,0.0,-0.010541087,0.33043566,-0.22349097,0.119997576,-0.30016205,-0.10220139,0.013467871,0.00058681995,0.042873617,0.15752572,-0.25197467,0.0800121,-0.040461358,-0.062388476,-0.048723612,0.029849086,0.040583737,0.2936513,-0.120277084,-0.037557967,0.27316403,0.077530675,0.0053806584,0.0033928636,-0.038124435,2.0,-1.0765866,2.0,0.29989472,2.0,-2.0,-1.75627,2.0,1.9587686,-1.9080404,2.0,-0.38750225,2.0,1.2483784,2.0,0.23589846,-0.13615607,-2.0,-2.0,2.0,-2.0,-1.2162449,0.026493624,0.11827725
2025-07-21 09:50:29.401,1.9200000000000013,1920,96,0.16084255,-0.23082979,-0.1806882,0.042340726,-0.00735589,-0.007807427,1.5,0.0,0.0,-0.012567321,0.32781205,-0.22199894,0.16682999,-0.2515361,-0.035922613,-0.034813583,-0.04340613,0.17827015,0.09483383,-0.25232834,0.0575645,-0.035770502,0.05261913,0.1840796,0.06310333,0.07081442,0.14815617,-0.096924424,-0.048686117,0.31269625,-0.14021109,0.0918408,-0.10018033,0.014388379,2.0,1.2483784,2.0,0.23589846,-0.13615607,-2.0,-2.0,2.0,-2.0,-1.2162449,0.026493624,0.11827725,-1.0867449,2.0,2.0,-1.4524814,-1.5089961,-2.0,1.722187,-2.0,-2.0,1.8116137,1.0753846,2.0
2025-07-21 09:50:29.421,1.9400000000000013,1940,97,0.26071116,0.09819797,-0.07476081,0.046468496,-0.05371322,0.014821478,1.5,0.0,0.0,-0.010108511,0.3251141,-0.14454101,0.18097845,-0.24950805,-0.03548606,-0.079595014,-0.027858524,0.24559925,0.034375288,-0.18741794,0.09417515,0.015929192,-0.046567686,0.2247651,0.11141122,-0.07422844,-0.012770726,-0.04465914,0.17745884,0.027454812,-0.16526374,0.21415319,0.15702383,0.20932518,-1.0867449,2.0,2.0,-1.4524814,-1.5089961,-2.0,1.722187,-2.0,-2.0,1.8116137,1.0753846,2.0,0.28803915,2.0,2.0,-2.0,-2.0,0.18406436,2.0,-2.0,-2.0,2.0,-1.0059192,2.0
2025-07-21 09:50:29.441,1.9600000000000013,1960,98,0.032429665,0.14828224,-0.1256269,0.009758874,0.009194237,0.03922166,1.5,0.0,0.0,-0.007546008,0.29945746,-0.06667355,0.19809242,-0.26647753,-0.12510186,-0.07362662,0.03963746,0.18343683,-0.023426313,-0.1283148,0.12647395,0.076768294,-0.013581782,0.17071643,-0.015525715,0.03480347,-0.29851797,0.056032237,0.14249144,-0.27291435,-0.18870573,0.14587846,0.0003922472,0.113839366,0.28803915,2.0,2.0,-2.0,-2.0,0.18406436,2.0,-2.0,-2.0,2.0,-1.0059192,2.0,2.0,2.0,-1.7060009,-2.0,-2.0,2.0,2.0,-2.0,-1.5266057,2.0,2.0,2.0
2025-07-21 09:50:29.461,1.9800000000000013,1980,99,-0.0916396,-0.26378822,0.030227752,-0.025623191,0.026303306,0.029348118,1.5,0.0,0.0,-0.005228429,0.30967954,0.035652984,0.120210834,-0.2739088,-0.22955671,-0.007279455,0.09871369,0.056315403,-0.07025871,-0.059768412,0.18459259,0.10635746,0.064847104,0.34439227,-0.21383609,-0.08718141,-0.23342109,0.13519856,0.12176033,-0.30010453,-0.01737306,0.19125545,0.14678921,0.011402223,2.0,2.0,-1.7060009,-2.0,-2.0,2.0,2.0,-2.0,-1.5266057,2.0,2.0,2.0,2.0,-2.0,-2.0,-2.0,-2.0,2.0,-0.07054098,-2.0,2.0,-1.0161077,2.0,2.0
2025-07-21 09:50:29.481,2.0000000000000013,2000,100,-0.5009097,0.15279554,0.100889474,0.0621996,0.012258329,-0.0014829516,1.5,0.0,0.0,-0.004097874,0.31980562,0.06115227,0.040430944,-0.30359524,-0.3197033,0.039436065,0.084223166,-0.029627856,-0.02530199,-0.066743,0.25949427,0.14926606,-0.032172125,-0.05363834,-0.12236986,-0.112554476,-0.19869004,0.17988707,-0.078708656,-0.2770322,0.14102568,-0.0622768,0.3185228,0.07201014,2.0,-2.0,-2.0,-2.0,-2.0,2.0,-0.07054098,-2.0,2.0,-1.0161077,2.0,2.0,2.0,-2.0,-2.0,-2.0,2.0,2.0,-2.0,2.0,2.0,-1.7299849,-2.0,-2.0
2025-07-21 09:50:29.501,2.0200000000000014,2020,101,-0.32978615,0.12344037,-0.02826661,0.0935231,0.014544656,0.03642967,1.5,0.0,0.0,-0.005540571,0.33219397,-0.011293275,-0.019736785,-0.32053423,-0.3679748,0.08255028,0.064686075,-0.042953912,0.030304927,-0.09410162,0.31465456,0.07790929,-0.019327646,-0.19867782,-0.15268737,0.031234475,-0.07303506,0.05842107,-0.08659274,-0.0040291427,0.16298458,-0.12711881,-0.083100595,-0.21746159,2.0,-2.0,-2.0,-2.0,2.0,2.0,-2.0,2.0,2.0,-1.7299849,-2.0,-2.0,2.0,-2.0,2.0,-0.4050962,2.0,2.0,-1.8573931,0.3373196,2.0,-2.0,-2.0,-2.0
2025-07-21 09:50:29.521,2.0400000000000014,2040,102,-0.060347136,-0.25524738,-0.08487911,0.06440047,-0.020203296,-0.03912142,1.5,0.0,0.0,-0.006106161,0.33582222,-0.13328685,0.033171196,-0.32680014,-0.35821527,0.10702679,0.015944889,-0.015803978,0.06414242,-0.14024833,0.25244248,0.019781044,-0.03359193,-0.34843966,0.15015276,0.0045089023,-0.049674913,0.017334733,-0.09898408,0.088102005,0.12593104,-0.12753057,-0.17546488,-0.10280429,2.0,-2.0,2.0,-0.4050962,2.0,2.0,-1.8573931,0.3373196,2.0,-2.0,-2.0,-2.0,2.0,-2.0,2.0,-1.3628438,2.0,1.9711895,-0.29088125,-0.25201595,2.0,-2.0,-1.2227423,-2.0
2025-07-21 09:50:29.541,2.0600000000000014,2060,103,-0.16436651,-0.09051278,0.09187026,0.11171252,0.039042037,0.009197188,1.5,0.0,0.0,-0.0051417337,0.33833355,-0.25531825,0.078908704,-0.31100687,-0.33808154,0.13006443,0.006995288,-0.014992054,0.10641674,-0.1817867,0.13008678,-0.039888043,0.0660468,-0.15958117,0.16538201,0.030162225,0.15015279,0.10901965,-0.029657928,-0.03084884,0.09017482,-0.12304007,-0.33599162,-0.10018337,2.0,-2.0,2.0,-1.3628438,2.0,1.9711895,-0.29088125,-0.25201595,2.0,-2.0,-1.2227423,-2.0,2.0,-2.0,2.0,-1.6496148,2.0,-0.5329061,-0.19659187,2.0,2.0,-2.0,2.0,-0.46612412
2025-07-21 09:50:29.567,2.0800000000000014,2080,104,0.264474,0.028020315,0.32508618,0.08207165,-0.0503521,0.038043845,1.5,0.0,0.0,-0.005887016,0.34548953,-0.32556167,0.1275525,-0.32237396,-0.24837369,0.1014565,0.0087028,0.024403604,0.15053286,-0.20807116,0.099266715,-0.042148013,0.07721118,-0.18329117,0.048113003,0.040283304,0.20468524,-0.14482127,0.04719228,0.26039156,0.013448713,-0.03773439,-0.020523973,0.006001409,2.0,-2.0,2.0,-1.6496148,2.0,-0.5329061,-0.19659187,2.0,2.0,-2.0,2.0,-0.46612412,2.0,1.7395306,2.0,0.8066779,2.0,-2.0,-2.0,2.0,-1.2811859,-0.766063,-1.1609687,1.0749519
2025-07-21 09:50:29.582,2.1000000000000014,2100,105,0.25824422,-0.53477293,0.12577768,0.12263902,-0.005362331,-0.008328106,1.5,0.0,0.0,-0.010390535,0.33751228,-0.35292283,0.15509883,-0.2632147,-0.12856595,0.013918026,-0.042565808,0.16080499,0.092567034,-0.20153214,0.04507824,-0.009163567,0.050138265,0.028919104,0.08733628,0.12865202,0.30758384,-0.20395088,-0.13079594,0.34705627,-0.1820056,0.06880225,-0.2328999,0.035000037,2.0,1.7395306,2.0,0.8066779,2.0,-2.0,-2.0,2.0,-1.2811859,-0.766063,-1.1609687,1.0749519,-0.7730523,2.0,2.0,-1.0267571,0.024037857,-2.0,-0.64971524,2.0,-2.0,2.0,-2.0,2.0
2025-07-21 09:50:29.601,2.1200000000000014,2120,106,0.47278765,-0.07457496,0.12521969,0.04022296,0.07038652,0.047226705,1.5,0.0,0.0,-0.013900832,0.3523616,-0.30933443,0.17052796,-0.24327013,-0.07395195,-0.024265572,-0.05993684,0.27858725,0.031680517,-0.13255782,-0.06576302,0.0381239,-0.055015475,0.115629815,-0.009802593,0.012894945,-0.00454932,-0.085073575,-0.04697938,0.2818251,-0.120892346,0.16960292,-0.34412545,0.13703413,-0.7730523,2.0,2.0,-1.0267571,0.024037857,-2.0,-0.64971524,2.0,-2.0,2.0,-2.0,2.0,-2.0,2.0,2.0,-2.0,1.1574675,-2.0,2.0,-2.0,-2.0,2.0,-2.0,2.0
2025-07-21 09:50:29.621,2.1400000000000015,2140,107,0.18036287,-0.10378241,0.19579132,0.03681856,0.06404178,0.024372907,1.5,0.0,0.0,-0.016544672,0.31375366,-0.25783917,0.19606958,-0.25194737,0.0012709661,-0.08892389,-0.008991618,0.30047843,-0.026086124,-0.08221109,-0.15010081,0.09884049,0.029727452,0.16034785,0.06457334,-0.056234118,0.28026623,-0.17448871,0.1495998,-0.17223127,-0.12825267,0.11671132,-0.1019142,0.04572303,-2.0,2.0,2.0,-2.0,1.1574675,-2.0,2.0,-2.0,-2.0,2.0,-2.0,2.0,0.22574429,2.0,2.0,-2.0,-2.0,-2.0,2.0,-2.0,-2.0,2.0,-1.9527917,2.0
2025-07-21 09:50:29.642,2.1600000000000015,2160,108,-0.026298115,-0.10679662,-0.02909943,0.043869793,0.046176612,0.005068468,1.5,0.0,0.0,-0.019913098,0.3062552,-0.19499168,0.20043786,-0.27877626,0.018876111,-0.11442679,0.04369977,0.20450231,-0.071984336,-0.08204037,-0.20270936,0.1314949,0.03571033,0.15736124,0.052520603,-0.08411677,-0.039381593,-0.05628764,0.12540625,-0.2766415,-0.13316682,0.03408494,-0.076153085,0.05350408,0.22574429,2.0,2.0,-2.0,-2.0,-2.0,2.0,-2.0,-2.0,2.0,-1.9527917,2.0,0.81727105,2.0,2.0,-2.0,-2.0,-0.43916586,2.0,-2.0,-2.0,2.0,2.0,2.0
2025-07-21 09:50:29.667,2.1800000000000015,2180,109,0.15766822,-0.15524447,0.115965225,0.02558667,0.08021353,0.0018877756,1.5,0.0,0.0,-0.021355484,0.31175974,-0.1430714,0.21063946,-0.2813503,-0.08718382,-0.11460819,0.089353725,0.055309117,-0.10644498,-0.07003584,-0.18240112,0.14369525,-0.015831087,0.20411979,0.070232145,-0.024799705,-0.25670952,0.059989978,0.07688373,-0.35964513,-0.13398568,0.0015135782,0.052278355,-0.017240481,0.81727105,2.0,2.0,-2.0,-2.0,-0.43916586,2.0,-2.0,-2.0,2.0,2.0,2.0,2.0,2.0,-0.043369118,-2.0,-2.0,2.0,2.0,-0.8853935,-2.0,-2.0,2.0,2.0
2025-07-21 09:50:29.682,2.2000000000000015,2200,110,0.21977712,-0.042427205,-0.0157381,-0.009257009,0.095081314,-0.02902588,1.5,0.0,0.0,-0.022452453,0.32447535,-0.039945364,0.17163883,-0.29852954,-0.21143997,-0.05138831,0.12780376,-0.03192767,-0.15264772,-0.106701456,-0.13230944,0.16194372,0.058846064,0.28245822,-0.11980874,0.028750211,-0.32133216,0.20377947,0.14135985,-0.21448894,-0.016985437,-0.11984797,0.13330369,0.030323321,2.0,2.0,-0.043369118,-2.0,-2.0,2.0,2.0,-0.8853935,-2.0,-2.0,2.0,2.0,2.0,-1.4743836,-2.0,-1.9184989,-2.0,2.0,-0.4434239,-2.0,2.0,-2.0,2.0,2.0
2025-07-21 09:50:29.702,2.2200000000000015,2220,111,-0.2511404,0.5416693,0.33126986,-0.043147217,0.0119138975,0.030774308,1.5,0.0,0.0,-0.022983426,0.33457682,-0.007525808,0.093047544,-0.30015743,-0.32838792,0.018968767,0.12480482,-0.10570224,-0.08848711,-0.14580427,-0.04379182,0.18806134,0.06745732,-0.0065125045,-0.1639115,-0.01722868,-0.32025862,0.2024637,-0.09266502,-0.21510562,0.2013052,-0.09592389,0.2817625,0.09431767,2.0,-1.4743836,-2.0,-1.9184989,-2.0,2.0,-0.4434239,-2.0,2.0,-2.0,2.0,2.0,2.0,-2.0,-1.9673256,-1.0758696,2.0,2.0,-2.0,2.0,2.0,-2.0,0.18460383,-1.2170353
2025-07-21 09:50:29.722,2.2400000000000015,2240,112,-0.37448624,0.682345,0.08149386,0.0067243758,-0.06038144,-0.009038922,1.5,0.0,0.0,-0.02605592,0.32572705,-0.06375978,0.016003074,-0.29589888,-0.36333144,0.0754419,0.07195629,-0.13126038,-0.0383027,-0.1890501,-0.0056078495,0.13619915,0.033502236,-0.23376082,-0.21952724,0.030508073,0.10208674,0.11577568,-0.10200638,0.06138277,0.20145607,-0.06259377,0.08355562,-0.19204886,2.0,-2.0,-1.9673256,-1.0758696,2.0,2.0,-2.0,2.0,2.0,-2.0,0.18460383,-1.2170353,2.0,-2.0,1.9288789,0.6079288,2.0,2.0,-2.0,2.0,2.0,-2.0,-2.0,-2.0
2025-07-21 09:50:29.742,2.2600000000000016,2260,113,-0.08468552,0.13840711,-0.100321405,0.053672493,-0.02750722,0.033869307,1.5,0.0,0.0,-0.03009279,0.3386115,-0.18821944,0.051740684,-0.27417824,-0.32174727,0.09869052,0.015145327,-0.09015408,0.012152687,-0.2173074,-0.022205817,0.051915504,-0.015861824,-0.2770629,0.066146255,0.030017538,0.00041335638,0.11872503,-0.0750488,0.18515939,0.08532136,-0.04788196,-0.13905801,-0.13105364,2.0,-2.0,1.9288789,0.6079288,2.0,2.0,-2.0,2.0,2.0,-2.0,-2.0,-2.0,2.0,-2.0,2.0,-1.1397384,2.0,0.43355462,-1.4537867,-1.4969465,2.0,-1.9025751,0.81581074,-2.0
2025-07-21 09:50:29.762,2.2800000000000016,2280,114,-0.004057016,0.113867804,0.032448202,0.0871053,-0.06381776,0.024901444,1.5,0.0,0.0,-0.031011375,0.33179376,-0.30407304,0.11377265,-0.27027932,-0.2756891,0.0883125,-0.02718017,-0.073865175,0.07446488,-0.22604895,-0.031747732,-0.0062336875,0.06922761,-0.1853713,0.14529106,0.041916832,0.17456217,-0.054920953,0.021033462,0.07438004,0.16315418,-0.09700373,0.07430704,-0.13752972,2.0,-2.0,2.0,-1.1397384,2.0,0.43355462,-1.4537867,-1.4969465,2.0,-1.9025751,0.81581074,-2.0,2.0,-2.0,2.0,-0.045036465,2.0,-0.29985365,-2.0,2.0,2.0,-2.0,-0.24821083,-2.0
2025-07-21 09:50:29.782,2.3000000000000016,2300,115,0.10205712,-0.11092286,-0.09434438,0.07159458,-0.0055722543,0.0042190836,1.5,0.0,0.0,-0.03167133,0.34362048,-0.39163768,0.14273328,-0.26538417,-0.1985421,0.050942063,-0.047575682,-0.018756721,0.109590925,-0.25587526,-0.032593165,-0.052454915,-0.07225101,-0.22770482,0.05810913,0.008913825,0.17024025,-0.1213789,-0.025076548,0.26576066,0.09989364,-0.047930982,-0.03173772,-0.18861622,2.0,-2.0,2.0,-0.045036465,2.0,-0.29985365,-2.0,2.0,2.0,-2.0,-0.24821083,-2.0,2.0,1.9853176,2.0,0.823659,2.0,-2.0,-2.0,-0.9195516,-0.87334853,-1.5182922,0.99165726,-0.44641703
2025-07-21 09:50:29.802,2.3200000000000016,2320,116,0.026012108,-0.14432552,-0.13059591,0.0752389,-0.02725422,0.0068570315,1.5,0.0,0.0,-0.03051615,0.3329271,-0.41471654,0.16069178,-0.2373865,-0.09887967,-0.0051561077,-0.07606349,0.04303127,0.068895005,-0.2547113,-0.0045934864,-0.05678478,0.04692234,0.092395164,0.026032891,0.16313575,0.29273182,-0.1269573,-0.011236887,0.106676705,-0.025536332,0.050972924,0.13261849,-0.07423879,2.0,1.9853176,2.0,0.823659,2.0,-2.0,-2.0,-0.9195516,-0.87334853,-1.5182922,0.99165726,-0.44641703,1.0112487,2.0,2.0,-1.7672914,-0.43126997,-2.0,-0.12247975,1.6714219,-2.0,1.3243897,-2.0,2.0
2025-07-21 09:50:29.822,2.3400000000000016,2340,117,-0.004292661,-0.45368615,-0.23962586,0.012342534,0.00823887,-0.020932756,1.5,0.0,0.0,-0.027579814,0.31261945,-0.34896404,0.18730523,-0.2226664,-0.03938808,-0.06886845,-0.081292674,0.14138108,0.0031626439,-0.19044636,0.0064607924,-0.0013353337,-0.016727744,0.30585128,0.051248264,-0.081478715,0.019395953,-0.15466723,0.03156803,0.31841174,-0.14472903,0.17640758,-0.16810356,0.088077426,1.0112487,2.0,2.0,-1.7672914,-0.43126997,-2.0,-0.12247975,1.6714219,-2.0,1.3243897,-2.0,2.0,-2.0,2.0,2.0,-2.0,-2.0,-1.689415,2.0,-2.0,-2.0,2.0,1.2134721,2.0
2025-07-21 09:50:29.843,2.3600000000000017,2360,118,0.2932831,0.103153326,-0.091347605,0.032577388,-0.03219856,-0.0033694897,1.5,0.0,0.0,-0.023757262,0.29692814,-0.26482785,0.21338008,-0.24760397,-0.055354197,-0.10087211,-0.010940444,0.17953993,-0.05475402,-0.11624056,0.022015795,0.057468623,0.029281817,0.14124729,-0.011202422,0.0059993784,-0.14146446,-0.09339987,0.1290597,-0.0311199,-0.05925785,0.16076422,0.1036639,0.034199215,-2.0,2.0,2.0,-2.0,-2.0,-1.689415,2.0,-2.0,-2.0,2.0,1.2134721,2.0,2.0,2.0,0.57892936,-2.0,-2.0,2.0,2.0,-2.0,-2.0,2.0,1.9868217,2.0
2025-07-21 09:50:29.865,2.3800000000000017,2380,119,0.18031996,-0.26245236,-0.04638349,0.023520702,-0.012281453,0.027012633,1.5,0.0,0.0,-0.020159766,0.31444618,-0.17589037,0.18895826,-0.27374208,-0.16900411,-0.03263019,0.03523776,0.101865076,-0.081542075,-0.064362116,0.09550336,0.08663525,0.10578813,0.20368922,-0.057173006,-0.0026834733,-0.33246428,0.21366292,0.12617992,-0.17512819,-0.11681998,0.16399144,0.22498377,0.14818062,2.0,2.0,0.57892936,-2.0,-2.0,2.0,2.0,-2.0,-2.0,2.0,1.9868217,2.0,2.0,2.0,-2.0,-2.0,-2.0,2.0,0.35118428,-2.0,0.4503883,0.24067324,2.0,2.0
2025-07-21 09:50:29.883,2.4000000000000017,2400,120,-0.2271655,0.27829662,0.112610504,0.042719714,-0.011778872,-0.04834986,1.5,0.0,0.0,-0.01877208,0.31357974,-0.040272817,0.10034599,-0.28189728,-0.29492772,0.026577055,0.060772143,0.03185935,-0.077153385,-0.04050874,0.21043332,0.124532476,0.084904626,0.24577379,-0.20845847,-0.06541653,-0.19935554,0.08458843,0.025049817,-0.1805152,0.11469139,0.069959186,0.2684652,0.016394472,2.0,2.0,-2.0,-2.0,-2.0,2.0,0.35118428,-2.0,0.4503883,0.24067324,2.0,2.0,2.0,-2.0,-2.0,-2.0,0.61029387,2.0,-2.0,1.1491456,2.0,-2.0,-0.8814722,2.0
2025-07-21 09:50:29.903,2.4200000000000017,2420,121,-0.076068796,0.25127995,-0.016104199,0.027988903,0.014717393,-0.0013000707,1.5,0.0,0.0,-0.020572348,0.31777135,0.0059750946,0.026965374,-0.31494927,-0.31435847,0.06336613,0.035535276,0.040349822,-0.011689176,-0.08641054,0.23931132,0.14902015,-0.0025534579,-0.06374493,-0.12064269,-0.07269312,0.053559527,0.12860818,-0.122764535,0.04191603,0.18833554,-0.06426276,-0.020509308,0.09090502,2.0,-2.0,-2.0,-2.0,0.61029387,2.0,-2.0,1.1491456,2.0,-2.0,-0.8814722,2.0,2.0,-2.0,-0.5809081,0.91153747,2.0,2.0,-1.8972125,0.9510175,2.0,-2.0,-1.3050648,-2.0
2025-07-21 09:50:29.926,2.4400000000000017,2440,122,0.079555415,-0.105121545,-0.143923,0.010607082,-0.08036784,-0.018320465,1.5,0.0,0.0,-0.021216689,0.3219629,-0.048006807,0.0059319315,-0.3221677,-0.27861583,0.097776346,-0.0066917315,0.10223917,0.028575629,-0.11791916,0.1944681,0.10055287,-0.06163415,-0.29450232,0.009440918,0.0794356,0.105262116,-0.0034165597,-0.15267105,0.12836848,0.15969764,-0.1097923,-0.20231214,-0.14073741,2.0,-2.0,-0.5809081,0.91153747,2.0,2.0,-1.8972125,0.9510175,2.0,-2.0,-1.3050648,-2.0,2.0,-2.0,2.0,-1.1552542,2.0,2.0,-1.8885295,-2.0,2.0,-2.0,-0.5603011,-2.0
2025-07-21 09:50:29.943,2.4600000000000017,2460,123,0.028580949,-0.049594417,-0.011449149,0.039691016,-0.008012017,0.03804383,1.5,0.0,0.0,-0.019592475,0.32913965,-0.17654695,0.051013097,-0.30646607,-0.23460923,0.1237074,-0.052161753,0.13136888,0.08180892,-0.17225626,0.122126006,0.030793674,-0.0007298138,-0.32622236,0.19380043,0.0034477373,0.056766637,-0.009045203,-0.08503769,0.075823225,0.18207645,-0.11464233,-0.18996824,-0.22637549,2.0,-2.0,2.0,-1.1552542,2.0,2.0,-1.8885295,-2.0,2.0,-2.0,-0.5603011,-2.0,2.0,-2.0,2.0,-1.8113534,2.0,-0.3965176,-1.4963683,2.0,2.0,-2.0,1.5171208,-2.0
2025-07-21 09:50:29.963,2.4800000000000018,2480,124,0.26580572,-0.038872227,-0.05751818,0.0313846,0.0063281665,-0.025804168,1.5,0.0,0.0,-0.018210273,0.3427697,-0.29164776,0.104628794,-0.31331608,-0.13842915,0.08144482,-0.072394334,0.20912348,0.11765074,-0.18836568,0.12863198,-0.04055766,-0.020042753,-0.23091644,0.124195054,-0.028174274,0.26751944,-0.033505782,-0.029645253,0.25024134,0.051670276,-0.057989236,0.0962118,-0.18678573,2.0,-2.0,2.0,-1.8113534,2.0,-0.3965176,-1.4963683,2.0,2.0,-2.0,1.5171208,-2.0,2.0,-1.0682424,2.0,-0.15331075,0.6643897,-1.1989375,-2.0,-0.43559933,-0.47278583,-2.0,-2.0,-2.0
2025-07-21 09:50:29.983,2.5000000000000018,2500,125,-0.15377198,-0.26656544,-0.29752034,-0.023589894,-0.03229269,0.0071489178,1.5,0.0,0.0,-0.017321657,0.32998216,-0.3323827,0.12783991,-0.29105204,-0.0729364,0.036204398,-0.110931665,0.2934798,0.09684648,-0.22575511,0.09476492,-0.08918273,-0.027015515,-0.051841352,0.044041406,0.051197138,0.13680057,-0.18396668,-0.05130696,0.18427971,-0.004305502,-0.018191107,-0.20383438,-0.08792758,2.0,-1.0682424,2.0,-0.15331075,0.6643897,-1.1989375,-2.0,-0.43559933,-0.47278583,-2.0,-2.0,-2.0,-0.102916405,2.0,2.0,-1.8050972,2.0,-1.7112639,1.5812705,-1.8569686,-2.0,1.2199347,2.0,1.473299
2025-07-21 09:50:30.003,2.520000000000002,2520,126,0.0037871182,0.16567087,0.02375447,0.052556,0.00077085843,-0.008715978,1.5,0.0,0.0,-0.013825207,0.31914794,-0.31164044,0.16132855,-0.29792494,0.034827877,-0.009304013,-0.07363162,0.31450057,0.03925093,-0.18230353,0.090410955,-0.04985306,-0.12668008,0.061080176,-0.003710744,-0.042732224,0.28777352,-0.056476466,0.09456256,0.001708491,-0.1741938,0.15473062,0.14512123,0.11985778,-0.102916405,2.0,2.0,-1.8050972,2.0,-1.7112639,1.5812705,-1.8569686,-2.0,1.2199347,2.0,1.473299,-1.8282031,2.0,2.0,-1.1042106,-2.0,-2.0,2.0,-2.0,-2.0,1.9830321,-2.0,2.0
2025-07-21 09:50:30.023,2.540000000000002,2540,127,-0.058577664,-0.10598344,-0.087098576,0.041490078,0.022417475,-0.037092064,1.5,0.0,0.0,-0.012940838,0.31573287,-0.26638466,0.17536305,-0.29507077,0.115585074,-0.07024856,-0.007633065,0.26246205,-0.02590353,-0.11822357,0.10021098,0.026768254,0.0006248108,0.08557257,0.013174593,-0.00971532,0.044355635,-0.095537975,0.096614845,-0.23654008,-0.20798421,0.17781134,-0.036678664,0.092171595,-1.8282031,2.0,2.0,-1.1042106,-2.0,-2.0,2.0,-2.0,-2.0,1.9830321,-2.0,2.0,-0.5861511,2.0,2.0,-2.0,-2.0,-1.3122681,2.0,-1.1734383,-2.0,2.0,2.0,2.0
2025-07-21 09:50:30.043,2.560000000000002,2560,128,0.14986737,0.16497038,-0.018636521,0.0780158,0.00024558223,-0.022391072,1.5,0.0,0.0,-0.012108223,0.29751718,-0.21199971,0.18316054,-0.30419043,0.07128686,-0.08078279,0.043642864,0.14005984,-0.07942423,-0.08507183,0.1555303,0.062386718,-0.078917,0.20486598,0.10974341,-0.034624152,-0.19943511,-0.08237741,0.17774864,-0.32477954,-0.17218624,0.0860681,0.21254419,0.11702942,-0.5861511,2.0,2.0,-2.0,-2.0,-1.3122681,2.0,-1.1734383,-2.0,2.0,2.0,2.0,2.0,2.0,-1.4981326,-2.0,-2.0,2.0,2.0,-2.0,-2.0,0.964525,2.0,2.0
2025-07-21 09:50:30.229,2.580000000000002,2580,129,0.05902335,-0.1316008,0.0023702334,0.03503763,-0.06706027,-0.009769825,1.5,0.0,0.0,-0.010782474,0.30086297,-0.1124996,0.120040566,-0.30825883,-0.030245941,-0.017352143,0.113308385,0.013889314,-0.10991695,-0.052414604,0.2522997,0.10621108,0.07412049,0.33043155,-0.15438849,-0.045653183,-0.1968712,0.19621572,0.04659741,-0.3883881,-0.09641792,0.026248898,0.20999393,0.13376714,2.0,2.0,-1.4981326,-2.0,-2.0,2.0,2.0,-2.0,-2.0,0.964525,2.0,2.0,2.0,-1.123396,-2.0,-2.0,-2.0,2.0,-0.2878671,-2.0,2.0,-0.652994,2.0,2.0
2025-07-21 09:50:30.301,2.600000000000002,2600,130,-0.41226593,0.18845606,0.013800317,0.012823213,-0.029664861,-0.008895034,0.0,0.0,0.0,-0.011142457,0.31754503,-0.05733389,0.04545819,-0.3423013,-0.080938555,0.02819352,0.096941814,-0.0856175,-0.0576795,-0.038884502,0.35748944,0.13453509,-0.006565173,0.014231558,-0.21460275,-0.04754174,-0.20617297,0.15076293,-0.11417108,-0.16187873,0.2349572,-0.08955804,0.3010336,0.07768762,2.0,-1.123396,-2.0,-2.0,-2.0,2.0,-0.2878671,-2.0,2.0,-0.652994,2.0,2.0,2.0,-2.0,-0.8062404,-2.0,-2.0,1.6906791,1.5161344,2.0,2.0,2.0,-2.0,1.6570601
2025-07-21 09:50:30.316,2.620000000000002,2620,131,-0.5581516,-0.29564154,-0.057387833,0.11956412,-0.038109407,-0.011920277,0.0,0.0,0.0,-0.0120434845,0.327337,-0.102318205,0.011684113,-0.33521828,-0.13515869,0.07840928,0.12233075,-0.105736695,0.0060108625,-0.0012958907,0.37841266,0.1539992,-0.00095901504,-0.2218265,-0.017441632,-0.085328445,-0.2163509,0.12016522,0.0010381172,0.047049943,0.10407003,0.08781546,-0.12751421,-0.019985799,2.0,-2.0,-0.8062404,-2.0,-2.0,1.6906791,1.5161344,2.0,2.0,2.0,-2.0,1.6570601,0.28781098,-0.5863365,-0.19098097,-1.1763324,-2.0,0.5676463,1.8330892,-2.0,2.0,-0.028741248,0.045594648,2.0
2025-07-21 09:50:30.336,2.640000000000002,2640,132,-0.49971697,-0.14606363,-0.13084897,0.10285426,-0.035815254,-0.02369467,0.0,0.0,0.0,-0.012583542,0.33356592,-0.12571523,0.004079626,-0.33116457,-0.19892438,0.069616705,0.1613091,-0.15346232,0.066402696,0.0030602382,0.31441882,0.19406681,0.065155506,0.0011591142,-0.06660386,-0.04784938,-0.14907247,-0.0520451,0.030224688,-0.23262312,0.11650922,-0.030244298,-0.12638557,0.045951184,0.28781098,-0.5863365,-0.19098097,-1.1763324,-2.0,0.5676463,1.8330892,-2.0,2.0,-0.028741248,0.045594648,2.0,-0.6874178,0.28875354,-2.0,-0.4744613,-0.76658654,1.5596077,2.0,1.4070313,2.0,1.1758335,2.0,2.0
2025-07-21 09:50:30.356,2.660000000000002,2660,133,0.034530148,-0.29625213,-0.091481775,0.14329025,-0.012527328,-0.015817534,0.0,0.0,0.0,-0.011056193,0.32048246,-0.09138951,-0.04050917,-0.32418635,-0.21738353,0.09987918,0.1885082,-0.14193992,0.10815901,0.032381672,0.3304243,0.20006503,-0.119195275,0.17625107,-0.14266177,-0.007503946,-0.09476665,0.1436442,0.10790654,0.10307501,0.042801905,0.13177359,0.13744013,0.061746463,-0.6874178,0.28875354,-2.0,-0.4744613,-0.76658654,1.5596077,2.0,1.4070313,2.0,1.1758335,2.0,2.0,-1.4091309,-0.54795563,-2.0,0.030987471,-2.0,-0.33739597,2.0,-2.0,2.0,2.0,1.6541244,2.0
2025-07-21 09:50:30.376,2.680000000000002,2680,134,-0.14245619,-0.1521065,-0.046115246,0.10060277,0.07512067,0.03776596,0.0,0.0,0.0,-0.010151746,0.3066516,-0.073008046,-0.098411255,-0.29378632,-0.2424366,0.069270134,0.20303506,-0.16282201,0.1339178,0.10017562,0.3990802,0.2229131,-0.036632784,-0.080375694,-0.1757102,0.0248936,-0.0211246,-0.13242045,0.013094164,-0.13283612,0.12951571,0.18465793,0.16731462,0.034251202,-1.4091309,-0.54795563,-2.0,0.030987471,-2.0,-0.33739597,2.0,-2.0,2.0,2.0,1.6541244,2.0,-2.0,-0.9019803,-2.0,0.9156744,0.24555029,1.4768255,1.3234442,0.92173606,2.0,1.9367934,-1.277961,2.0
2025-07-21 09:50:30.400,2.700000000000002,2700,135,0.09414797,-0.28720722,0.12784865,0.13771962,0.041831203,-0.042511307,0.0,0.0,0.0,-0.009478668,0.28103274,-0.0912926,-0.1214729,-0.27482647,-0.2433361,0.09838742,0.21039152,-0.1645802,0.16110447,0.13495222,0.40412104,0.25280753,-0.07896246,-0.054003887,-0.15982705,0.1635691,0.08142693,0.018401457,0.013295247,0.14961237,-0.0004956903,0.083505385,-0.07193596,-0.018928401,-2.0,-0.9019803,-2.0,0.9156744,0.24555029,1.4768255,1.3234442,0.92173606,2.0,1.9367934,-1.277961,2.0,-0.436027,0.9231267,-2.0,1.2752622,-2.0,-1.1405427,1.2745976,-0.08504236,2.0,-1.4992704,0.112741426,-2.0
2025-07-21 09:50:30.416,2.720000000000002,2720,136,0.21509884,-0.1845344,-0.080680884,0.15807128,0.104307614,0.004709398,0.0,0.0,0.0,-0.010843992,0.21942455,-0.05926862,-0.17695458,-0.22146869,-0.23055208,0.05192551,0.20763151,-0.13839728,0.18767408,0.09098216,0.3354167,0.15852298,-0.09829367,0.16652218,-0.122381166,0.13870333,0.039480917,-0.13571708,-0.033456407,0.07574401,0.03696887,-0.12398416,-0.18330318,-0.17617704,-0.436027,0.9231267,-2.0,1.2752622,-2.0,-1.1405427,1.2745976,-0.08504236,2.0,-1.4992704,0.112741426,-2.0,0.6803291,-2.0,-2.0,0.10354373,-1.5209682,-0.05733684,2.0,1.2281009,2.0,-1.2004911,0.7599262,-0.43260163
2025-07-21 09:50:30.436,2.740000000000002,2740,137,0.27982926,-0.21140747,-0.12410168,0.116175346,0.049082775,0.0131973615,0.0,0.0,0.0,-0.010375174,0.20861681,-0.031798698,-0.18941744,-0.20328467,-0.2418937,0.03855479,0.24650525,-0.075098135,0.20748153,0.040316433,0.31934717,0.111632094,-0.020871632,-0.025322495,-0.12021889,0.038716886,-0.057182524,-0.047947425,0.027649447,0.20921281,-0.018447524,-0.1676,0.053305436,-0.121582136,0.6803291,-2.0,-2.0,0.10354373,-1.5209682,-0.05733684,2.0,1.2281009,2.0,-1.2004911,0.7599262,-0.43260163,0.8194129,-2.0,-2.0,-0.20250478,1.0768361,-0.039386366,1.5886137,-2.0,2.0,-0.9730952,-2.0,-0.7813454
2025-07-21 09:50:30.456,2.760000000000002,2760,138,0.037865847,-0.045221847,0.13075805,0.13815632,0.08346185,-0.00802824,0.0,0.0,0.0,-0.008343803,0.19778268,-0.03283832,-0.21237512,-0.1744083,-0.2175696,0.036864962,0.24515642,-0.050092507,0.24018516,0.003575081,0.26625896,0.072111614,-0.04100641,-0.11597241,-0.09689358,0.02635134,0.098648615,-0.05741965,-0.027281163,-0.049017105,0.001882882,-0.056300603,-0.22232975,-0.05177913,0.8194129,-2.0,-2.0,-0.20250478,1.0768361,-0.039386366,1.5886137,-2.0,2.0,-0.9730952,-2.0,-0.7813454,1.3575197,-2.0,-0.9485682,1.5304979,-0.7299231,-1.262665,1.1926928,2.0,2.0,-2.0,0.4734435,-0.90507567
2025-07-21 09:50:30.476,2.780000000000002,2780,139,0.13147143,-0.25458303,-0.09553167,0.051077675,0.15543588,-0.01793407,0.0,0.0,0.0,-0.008582168,0.21833977,-0.10057783,-0.19290134,-0.13155183,-0.1840457,-0.013758758,0.23117429,-0.025156299,0.25239816,-0.049805243,0.23967591,0.04320837,0.019618493,-0.10050419,0.07819746,0.09960745,0.08433928,-0.09782723,0.041861594,0.12056014,0.04532037,-0.124138586,0.011554365,-0.10016448,1.3575197,-2.0,-0.9485682,1.5304979,-0.7299231,-1.262665,1.1926928,2.0,2.0,-2.0,0.4734435,-0.90507567,0.94067067,-2.0,-1.0212185,0.33965847,-2.0,-1.7671597,2.0,-1.9801359,2.0,-2.0,-2.0,0.8213372
2025-07-21 09:50:30.501,2.800000000000002,2800,140,-0.023160998,0.060351826,0.0771033,0.061905853,0.15639777,-0.038655356,0.0,0.0,0.0,-0.008403011,0.21994404,-0.15536459,-0.19416791,-0.10301526,-0.23239006,-0.052115645,0.25436428,-0.029006824,0.26110289,-0.09783575,0.17418557,0.06360223,0.025938584,-0.13336782,-0.05433419,0.1188231,-0.15515845,-0.03065188,0.002845855,-0.1637227,0.10101658,-0.17175213,-0.3297274,-0.025884656,0.94067067,-2.0,-1.0212185,0.33965847,-2.0,-1.7671597,2.0,-1.9801359,2.0,-2.0,-2.0,0.8213372,0.40014106,-0.044218928,-2.0,1.6486138,1.276849,-2.0,2.0,2.0,2.0,-2.0,0.43814558,2.0
2025-07-21 09:50:30.517,2.820000000000002,2820,141,0.37491864,-0.058234308,0.06987289,0.11957576,0.10367243,-0.034268487,0.0,0.0,0.0,-0.008999969,0.19723801,-0.13604616,-0.2279813,-0.035106264,-0.2547311,-0.100887924,0.26582727,-0.030990653,0.26159313,-0.15114805,0.13786525,0.102036364,-0.07187663,0.0022826344,-0.01664887,0.10259703,0.061454315,-0.1692777,0.07005011,0.145057,0.050738182,-0.14838955,0.014601374,0.17461053,0.40014106,-0.044218928,-2.0,1.6486138,1.276849,-2.0,2.0,2.0,2.0,-2.0,0.43814558,2.0,1.4960898,-2.0,-2.0,1.1983863,-2.0,-2.0,2.0,0.5693395,2.0,-2.0,-0.97835845,2.0
2025-07-21 09:50:30.537,2.840000000000002,2840,142,0.10981,-0.069780104,-0.053334802,0.0861595,0.14611325,-0.013362461,0.0,0.0,0.0,-0.010517511,0.21648146,-0.16771564,-0.24197848,-0.001385848,-0.2684755,-0.13751769,0.2745441,0.009537296,0.26513696,-0.18059497,0.09162833,0.13215873,0.010056418,-0.15364578,-0.045980696,0.102205575,-0.18179931,-0.14196248,0.033211492,0.12875544,0.016614992,-0.086563036,-0.16629972,0.13484886,1.4960898,-2.0,-2.0,1.1983863,-2.0,-2.0,2.0,0.5693395,2.0,-2.0,-0.97835845,2.0,-0.06475733,-1.1224449,-2.0,0.063678354,2.0,-2.0,2.0,-2.0,2.0,-2.0,-0.6795887,2.0
2025-07-21 09:50:30.557,2.860000000000002,2860,143,0.05269925,0.18918124,0.26257354,0.08749491,0.08826403,-0.028796013,0.0,0.0,0.0,-0.010466659,0.16661535,-0.22647437,-0.24421042,-0.0056958417,-0.2631437,-0.17511742,0.28912097,0.02839471,0.27807996,-0.21093173,0.020632418,0.16792959,-0.031216558,-0.1500008,-0.11245445,-0.031550836,0.10521708,-0.08215257,0.09861637,0.025130978,0.009109079,-0.04982807,-0.16281855,0.11313889,-0.06475733,-1.1224449,-2.0,0.063678354,2.0,-2.0,2.0,-2.0,2.0,-2.0,-0.6795887,2.0,0.757807,2.0,-2.0,1.6520494,0.5375992,-2.0,1.6224403,0.64854,2.0,-2.0,-0.10607712,0.031217635
2025-07-21 09:50:30.577,2.880000000000002,2880,144,0.4214574,0.08303169,-0.0038436083,0.057682563,0.07379125,0.002114768,0.0,0.0,0.0,-0.013137876,0.16441484,-0.21478553,-0.27744728,0.016961183,-0.21210463,-0.21274522,0.3143904,0.05252863,0.27024594,-0.23093642,0.0013836651,0.14259624,-0.0010661639,0.067696415,-0.083183356,0.004066719,0.11663401,-0.0043752016,-0.052415937,0.15102963,0.017222065,-0.12543066,-0.056976415,-0.07062099,0.757807,2.0,-2.0,1.6520494,0.5375992,-2.0,1.6224403,0.64854,2.0,-2.0,-0.10607712,0.031217635,0.83033365,2.0,-2.0,0.2836021,-2.0,-2.0,1.4578013,-1.8890616,2.0,-2.0,2.0,0.5870727
2025-07-21 09:50:30.598,2.900000000000002,2900,145,0.19235508,0.27247483,0.0680181,-0.0022308438,0.054077223,0.006112286,0.0,0.0,0.0,-0.015154472,0.17100708,-0.1521312,-0.28756502,0.015150622,-0.18783236,-0.2325593,0.29692042,0.071149625,0.28455994,-0.25118202,0.049008094,0.1332411,0.0035692446,0.12217674,-0.11315903,-0.008119047,0.032613214,-0.09662989,0.052163128,-0.0234238,0.0011843,-0.10220413,0.19564652,0.05276542,0.83033365,2.0,-2.0,0.2836021,-2.0,-2.0,1.4578013,-1.8890616,2.0,-2.0,2.0,0.5870727,2.0,-0.25736955,-2.0,1.0256356,-2.0,-2.0,0.8989575,-2.0,2.0,-2.0,-1.3395865,2.0
2025-07-21 09:50:30.617,2.920000000000002,2920,146,-0.3105985,0.161634,-0.16021386,0.013090079,0.10072197,0.008571409,0.0,0.0,0.0,-0.016193481,0.18525368,-0.13028777,-0.27913487,0.012346482,-0.23933461,-0.2412792,0.28779507,0.07856476,0.3005903,-0.25357118,0.018634705,0.16124327,0.0049108607,-0.016359784,0.060468603,0.010489189,-0.11551485,-0.011221049,-0.00015813798,-0.067199744,0.01851889,-0.08311777,-0.24012409,0.11831284,2.0,-0.25736955,-2.0,1.0256356,-2.0,-2.0,0.8989575,-2.0,2.0,-2.0,-1.3395865,2.0,0.5237079,0.2817575,-2.0,-0.101044446,2.0,-2.0,2.0,-2.0,2.0,-2.0,2.0,2.0
2025-07-21 09:50:30.637,2.940000000000002,2940,147,0.0057654507,0.12080957,0.13070706,-0.009274642,0.06337447,0.03971905,0.0,0.0,0.0,-0.014776385,0.1859707,-0.098793976,-0.2938336,0.011433084,-0.27122328,-0.26773873,0.30761883,0.052771166,0.30586776,-0.28649148,0.024459919,0.18075642,0.051297575,0.03686655,0.027802404,-0.10486448,-0.045742318,0.028937882,0.031249672,-0.062630296,-0.000531367,-0.085417666,0.13160941,0.047004435,0.5237079,0.2817575,-2.0,-0.101044446,2.0,-2.0,2.0,-2.0,2.0,-2.0,2.0,2.0,2.0,-1.7136728,-2.0,0.79958534,2.0,-2.0,1.8589096,-1.5653555,2.0,-2.0,0.21972819,2.0
2025-07-21 09:50:30.657,2.960000000000002,2960,148,-0.0423146,0.049903676,0.11193064,0.056870807,-0.0076274383,-0.022944083,0.0,0.0,0.0,-0.015278806,0.2007147,-0.11777384,-0.3130897,0.017323038,-0.25071132,-0.29423857,0.31858957,0.030953784,0.30300796,-0.28523326,0.026141832,0.20493874,0.12983419,-0.14016452,0.030599153,0.007022466,0.065580994,-0.022063809,0.04835345,-0.07315605,0.079960205,0.023773769,0.07222675,0.017178752,2.0,-1.7136728,-2.0,0.79958534,2.0,-2.0,1.8589096,-1.5653555,2.0,-2.0,0.21972819,2.0,1.0224205,-2.0,-2.0,0.75886935,1.7719411,-2.0,1.659243,0.90772927,2.0,-2.0,-1.9650846,2.0
2025-07-21 09:50:30.677,2.980000000000002,2980,149,0.0078765955,0.024410527,-0.042473037,0.07981321,0.08161123,0.014756761,0.0,0.0,0.0,-0.017230922,0.2108448,-0.1897007,-0.31019235,0.024866689,-0.21687981,-0.29778704,0.32594436,0.038186885,0.30535206,-0.3011041,0.008546529,0.22096913,-0.014392247,-0.26708364,0.025841882,0.07183639,0.16582265,-0.09740278,-0.013844392,0.11508625,-0.044476498,0.028953144,-0.087853394,0.024520379,1.0224205,-2.0,-2.0,0.75886935,1.7719411,-2.0,1.659243,0.90772927,2.0,-2.0,-1.9650846,2.0,-1.2343072,-0.6519948,-2.0,-0.02864185,-1.5536733,-2.0,2.0,-0.50739145,2.0,-2.0,-1.0449396,2.0
2025-07-21 09:50:30.703,3.000000000000002,3000,150,-0.32147235,0.05128669,-0.093474835,0.075712115,0.025055002,0.04439569,0.0,0.0,0.0,-0.01779353,0.14082506,-0.23567604,-0.30852976,0.013750033,-0.22310969,-0.30197328,0.31704682,0.04053707,0.30994877,-0.3147,-0.05198001,0.23983549,-0.1747026,-0.08917602,0.050744865,-0.06537426,-0.18937576,-0.08336512,0.023997094,-0.10283803,-0.039464403,-0.062245026,-0.14756313,-0.028475186,-1.2343072,-0.6519948,-2.0,-0.02864185,-1.5536733,-2.0,2.0,-0.50739145,2.0,-2.0,-1.0449396,2.0,-0.59255373,2.0,-2.0,0.3943629,2.0,-2.0,2.0,0.26979625,2.0,-2.0,2.0,1.8203237
2025-07-21 09:50:30.718,3.0200000000000022,3020,151,0.19726278,-0.018623557,0.051669627,0.07240861,0.053465594,0.020206882,0.0,0.0,0.0,-0.016380703,0.1082228,-0.21999566,-0.31017172,0.033191264,-0.23518407,-0.30925906,0.3261505,0.06434669,0.30927506,-0.32131514,-0.058966156,0.23630933,-0.014760125,0.1814266,-0.05812279,-0.0037773284,0.123148166,0.043995682,0.02389672,0.006574202,-0.038944617,-0.030968003,0.0678285,0.024060447,-0.59255373,2.0,-2.0,0.3943629,2.0,-2.0,2.0,0.26979625,2.0,-2.0,2.0,1.8203237,2.0,1.4455205,-2.0,0.68758434,-1.9051208,-2.0,2.0,-1.3810984,2.0,-2.0,2.0,2.0
2025-07-21 09:50:30.737,3.0400000000000023,3040,152,0.10726451,0.079149604,-0.032151718,0.025439212,0.07915245,0.034523465,0.0,0.0,0.0,-0.015524146,0.14980957,-0.1488025,-0.3267857,0.024737785,-0.23464935,-0.31642166,0.34156272,0.06464396,0.31353128,-0.32732445,0.028278152,0.26286557,0.0297613,0.22059835,-0.06180628,-0.02696863,-0.1383664,-0.0450528,0.07061298,0.061541654,-0.01853988,-0.0142889675,0.31468254,-0.032661244,2.0,1.4455205,-2.0,0.68758434,-1.9051208,-2.0,2.0,-1.3810984,2.0,-2.0,2.0,2.0,2.0,-1.1513458,-2.0,-0.53715044,1.2226639,-2.0,0.9925337,-2.0,2.0,-2.0,-2.0,2.0
2025-07-21 09:50:30.758,3.0600000000000023,3060,153,-0.052616026,0.41963708,0.13356148,0.04430009,0.003502503,-0.005324425,0.0,0.0,0.0,-0.015537468,0.16683275,-0.14783835,-0.31362608,0.008871384,-0.25425836,-0.33125982,0.32529697,0.0332769,0.3197085,-0.32745302,0.058931094,0.27279988,0.13737744,-0.1595396,0.066718034,-0.044514835,0.032239843,-0.06318509,-0.056412775,-0.04462747,0.036517218,0.033863854,-0.08989966,0.06948364,2.0,-1.1513458,-2.0,-0.53715044,1.2226639,-2.0,0.9925337,-2.0,2.0,-2.0,-2.0,2.0,1.3691525,-1.4259048,-2.0,2.0,1.8200979,-2.0,1.8791788,-0.25347292,2.0,-2.0,-1.6365445,2.0
2025-07-21 09:50:30.777,3.0800000000000023,3080,154,-0.09084223,-0.20208424,-0.04995164,0.027240502,0.006461075,0.027428176,0.0,0.0,0.0,-0.016248947,0.19069664,-0.23880589,-0.32582584,0.033813037,-0.22277708,-0.340942,0.338216,0.029010825,0.32143646,-0.33511493,0.0004686757,0.2699985,-0.033384066,-0.21076879,-0.06364894,0.08382632,0.075740784,0.046719316,0.0033822027,-0.018181056,0.007599738,0.047776636,-0.18335092,0.019133138,1.3691525,-1.4259048,-2.0,2.0,1.8200979,-2.0,1.8791788,-0.25347292,2.0,-2.0,-1.6365445,2.0,-0.21792866,-0.013214499,-2.0,-0.28887776,0.766068,-2.0,2.0,0.5412717,2.0,-2.0,0.71812963,2.0
2025-07-21 09:50:30.803,3.1000000000000023,3100,155,0.25774395,-0.012160589,0.058049962,0.047778215,0.004610852,0.028665628,0.0,0.0,0.0,-0.016987743,0.14931811,-0.23568861,-0.32640043,0.022468561,-0.17838477,-0.3401876,0.34769693,0.042934,0.31057054,-0.33158508,0.0143790385,0.28121245,-0.035562515,0.13418804,0.036095332,-0.09857422,0.15768772,-0.0653618,0.004277496,0.03010404,0.015390791,-0.0077167703,0.060099427,0.019271927,-0.21792866,-0.013214499,-2.0,-0.28887776,0.766068,-2.0,2.0,0.5412717,2.0,-2.0,0.71812963,2.0,1.0217642,-0.72429,-2.0,1.3905147,-2.0,-2.0,2.0,-1.202853,2.0,-2.0,0.09314002,1.588151
2025-07-21 09:50:30.817,3.1200000000000023,3120,156,-0.19880746,-0.1895305,-0.059884977,0.004676367,-0.005227634,0.02225338,0.0,0.0,0.0,-0.017252281,0.16268694,-0.22627296,-0.32036793,0.039794557,-0.16211466,-0.34037757,0.35425732,0.046392184,0.32547608,-0.33224308,0.03818704,0.26803675,-0.039769456,-0.07227784,-0.008986101,0.010638792,-0.06416406,-0.0069659613,0.023887344,-0.07043518,0.0684645,-0.03268338,-0.051993404,-0.071544036,1.0217642,-0.72429,-2.0,1.3905147,-2.0,-2.0,2.0,-1.202853,2.0,-2.0,0.09314002,1.588151,0.09686336,1.7879571,-2.0,0.11615786,0.14316179,-2.0,2.0,-1.5118722,2.0,-2.0,0.814416,2.0
2025-07-21 09:50:30.838,3.1400000000000023,3140,157,-0.027423505,0.037264656,0.11006808,0.0700557,0.042596597,0.04799106,0.0,0.0,0.0,-0.016561126,0.12977731,-0.19510481,-0.3251336,0.026088078,-0.15452588,-0.33708212,0.36581302,0.0410171,0.326761,-0.3361096,0.08079203,0.27764562,-0.09633554,0.20084894,-0.013779199,-0.044497546,0.09708741,-0.00032192402,0.051656157,-0.110753804,-0.055173416,-0.05980454,0.18464652,-0.00049847225,0.09686336,1.7879571,-2.0,0.11615786,0.14316179,-2.0,2.0,-1.5118722,2.0,-2.0,0.814416,2.0,2.0,-1.0776712,-2.0,0.758969,-2.0,-2.0,1.86289,-2.0,2.0,-2.0,-2.0,2.0
2025-07-21 09:50:30.858,3.1600000000000024,3160,158,-0.25638294,0.030761708,-0.037749648,0.054299667,0.03749533,0.045212507,0.0,0.0,0.0,-0.0177419,0.1657256,-0.182643,-0.31985712,0.03602713,-0.18805665,-0.3495952,0.36080173,-0.004642454,0.31562805,-0.34532645,0.060787003,0.28672412,0.16955948,-0.02518361,0.0023931186,0.08732904,-0.10103975,0.026676247,-0.028616568,-0.21071218,-0.036079038,-0.061505254,-0.14617988,0.0059764194,2.0,-1.0776712,-2.0,0.758969,-2.0,-2.0,1.86289,-2.0,2.0,-2.0,-2.0,2.0,0.90511656,-0.5402709,-2.0,0.61324245,2.0,-2.0,2.0,0.985137,2.0,-2.0,-1.9049995,2.0
2025-07-21 09:50:30.878,3.1800000000000024,3180,159,0.053958606,-0.0330478,-0.0553863,0.09331064,-0.018920815,-0.035442106,0.0,0.0,0.0,-0.018664774,0.1699444,-0.1849696,-0.32489917,0.045904495,-0.20645133,-0.3526885,0.36075556,0.00055230904,0.32403645,-0.339312,-0.0472278,0.30011186,-0.037996817,-0.028938824,-0.0059543103,0.0064718938,0.0062943245,-0.0014177852,0.028061712,0.15596147,-0.006445123,-0.059975114,-0.19109835,-0.01681454,0.90511656,-0.5402709,-2.0,0.61324245,2.0,-2.0,2.0,0.985137,2.0,-2.0,-1.9049995,2.0,0.7766438,-0.33267084,-2.0,-0.035584837,1.5103955,-2.0,2.0,-2.0,2.0,-2.0,1.643633,2.0
2025-07-21 09:50:30.898,3.2000000000000024,3200,160,0.15798755,-0.021259192,0.24467939,0.08570849,0.035801064,0.025426857,0.0,0.0,0.0,-0.01840971,0.16734232,-0.18813516,-0.32592043,0.04669968,-0.1798617,-0.353798,0.35815394,0.010007468,0.31852025,-0.35159045,-0.06693967,0.29728022,-0.0371056,0.038047615,0.07273116,-0.04899099,0.06757818,-0.032906607,0.006934919,-0.01897352,-0.05089131,0.008389769,0.032902446,-0.045879558,0.7766438,-0.33267084,-2.0,-0.035584837,1.5103955,-2.0,2.0,-2.0,2.0,-2.0,1.643633,2.0,2.0,-0.24022236,-2.0,2.0,0.3967227,-2.0,1.5973114,-0.5443127,2.0,-2.0,1.455941,1.5838761
2025-07-21 09:50:30.918,3.2200000000000024,3220,161,0.14522456,-0.078899615,0.23659372,0.017365128,-0.010054573,-0.00296043,0.0,0.0,0.0,-0.021366656,0.18164665,-0.17146693,-0.31207913,0.033146217,-0.11577627,-0.35413513,0.3828006,0.005589559,0.3155692,-0.3566914,-0.005545447,0.27216095,0.11249898,0.024351044,0.00036254452,-0.041204367,0.07851348,-0.031203933,0.1222062,-0.015172594,0.050758004,0.036262564,0.13512152,-0.015931346,2.0,-0.24022236,-2.0,2.0,0.3967227,-2.0,1.5973114,-0.5443127,2.0,-2.0,1.455941,1.5838761,1.6099538,-1.5195237,-2.0,2.0,-1.7564209,-2.0,0.16490929,2.0,2.0,-2.0,-0.52965426,2.0
2025-07-21 09:50:30.938,3.2400000000000024,3240,162,-0.14659375,-0.19685616,-0.22526588,0.003454549,0.016808413,-0.003051158,0.0,0.0,0.0,-0.026525985,0.20163062,-0.22073583,-0.31268147,0.063939996,-0.12954327,-0.36537662,0.39526862,0.015242503,0.32368952,-0.36187768,0.0033050387,0.2840595,0.031137526,-0.27674553,0.033081006,0.1332721,-0.08042058,0.05874579,0.021276843,0.0713696,0.00995743,-0.012737367,-0.15038197,0.04274169,1.6099538,-1.5195237,-2.0,2.0,-1.7564209,-2.0,0.16490929,2.0,2.0,-2.0,-0.52965426,2.0,-0.011141315,-0.011226684,-2.0,-0.53960747,0.17619683,-2.0,2.0,-2.0,2.0,-2.0,2.0,2.0
2025-07-21 09:50:30.958,3.2600000000000025,3260,163,0.08986916,0.047097776,0.14924982,-0.023986982,0.025146786,-0.037356816,0.0,0.0,0.0,-0.026457967,0.17791352,-0.22007269,-0.30943233,0.043442547,-0.12951252,-0.36750767,0.39030772,0.03523237,0.3241337,-0.35184044,0.02923909,0.28579265,-0.073596895,0.025493653,0.048552487,-0.0063574133,0.0029790225,-0.080711536,-0.06649776,-0.08963674,0.048552487,0.0068636006,0.2458351,-0.0369897,-0.011141315,-0.011226684,-2.0,-0.53960747,0.17619683,-2.0,2.0,-2.0,2.0,-2.0,2.0,2.0,2.0,-0.18797055,-2.0,0.83733946,0.7829795,-2.0,1.829991,-1.8112706,2.0,-2.0,-2.0,2.0
2025-07-21 09:50:30.978,3.2800000000000025,3280,164,-0.13179941,-0.074495636,0.083225824,0.051625263,0.04778294,-0.040853187,0.0,0.0,0.0,-0.026075073,0.18362923,-0.19017628,-0.31630832,0.05401019,-0.08576724,-0.3540598,0.38805783,0.020993555,0.33131796,-0.3589095,0.045115966,0.29190966,0.015598331,0.04825072,0.04126638,0.053377595,0.07359747,-0.0856535,-0.020572485,-0.10163554,0.012418291,-0.0075445795,-0.059094124,-0.038623653,2.0,-0.18797055,-2.0,0.83733946,0.7829795,-2.0,1.829991,-1.8112706,2.0,-2.0,-2.0,2.0,1.5780615,-1.7953985,-2.0,1.1289291,-1.3628359,-2.0,2.0,-0.049791817,2.0,-2.0,-2.0,2.0
2025-07-21 09:50:31.000,3.3000000000000025,3300,165,-0.22234625,-0.16418444,-0.097098865,0.05145137,0.06666232,-0.0114038605,0.0,0.0,0.0,-0.027431723,0.20557845,-0.22841975,-0.31474793,0.061200358,-0.113557816,-0.3699739,0.39921695,0.0058102664,0.30886185,-0.3595565,-0.062352847,0.29602897,0.015694601,-0.19247551,-0.01385423,0.036859337,-0.043807067,0.03979796,-0.05576579,-0.06997844,-0.04134596,-0.015353069,-0.3642422,0.08083023,1.5780615,-1.7953985,-2.0,1.1289291,-1.3628359,-2.0,2.0,-0.049791817,2.0,-2.0,-2.0,2.0,-1.4232532,1.4932909,-2.0,-0.2830259,-0.6518276,-2.0,2.0,1.2894201,2.0,-2.0,2.0,2.0
