openverse-orca/OrcaGym/log/simulation_log_20250721_142925.csv
timestamp,sim_time,physics_step,control_step,imu_angle_roll,imu_angle_pitch,imu_angle_yaw,imu_angular_velocity_roll,imu_angular_velocity_pitch,imu_angular_velocity_yaw,imu_acc_x,imu_acc_y,imu_acc_z,fl_joint1_pos,fl_joint1_vel,fl_joint1_torque,fl_joint2_pos,fl_joint2_vel,fl_joint2_torque,fl_joint3_pos,fl_joint3_vel,fl_joint3_torque,fr_joint1_pos,fr_joint1_vel,fr_joint1_torque,fr_joint2_pos,fr_joint2_vel,fr_joint2_torque,fr_joint3_pos,fr_joint3_vel,fr_joint3_torque,hl_joint1_pos,hl_joint1_vel,hl_joint1_torque,hl_joint2_pos,hl_joint2_vel,hl_joint2_torque,hl_joint3_pos,hl_joint3_vel,hl_joint3_torque,hr_joint1_pos,hr_joint1_vel,hr_joint1_torque,hr_joint2_pos,hr_joint2_vel,hr_joint2_torque,hr_joint3_pos,hr_joint3_vel,hr_joint3_torque,fl_force_x,fl_force_y,fl_force_z,fr_force_x,fr_force_y,fr_force_z,hl_force_x,hl_force_y,hl_force_z,hr_force_x,hr_force_y,hr_force_z,fl_hip_action,fl_thigh_action,fl_calf_action,fr_hip_action,fr_thigh_action,fr_calf_action,hl_hip_action,hl_thigh_action,hl_calf_action,hr_hip_action,hr_thigh_action,hr_calf_action
2025-07-21 14:29:26.056,0.0,0,0,0.0018674764,0.01638272,0.022605091,0.0072180945,0.033394787,-0.029889122,1.6485863,0.94874364,0.0,0.0,0.0019347015,0.005430474,0.002131203,-0.006816504,-0.008613771,-0.00599887,0.0033046613,0.0038252722,0.00041296578,0.0065329433,-0.0033382308,-0.0032971415,0.013460598,-0.06602259,-0.051429577,-0.06782541,-0.034386206,-0.06575847,-0.05765657,0.041262835,-0.06022769,0.0040457826,0.060510322,0.018724138,0.0,0.0,0.0,0.0,0.0,0.0,0.0,0.0,0.0,0.0,0.0,0.0,-2.0,1.2721921,-2.0,2.0,2.0,-2.0,2.0,2.0,-2.0,-2.0,-2.0,-2.0
2025-07-21 14:29:26.065,0.02,20,1,0.16177706,0.00044417958,0.08661552,-0.032511164,0.05018538,0.028770179,0.0,0.0,0.0,0.0,-0.017826017,0.031971242,-0.051872727,0.012733671,0.0564955,-0.04149416,0.00045554087,0.054120358,-0.054386076,-0.013272594,-0.043652456,-0.026003191,0.023417544,0.18360491,-0.23603511,0.13623084,0.18823487,-0.12812048,0.096925184,0.251257,-0.13415648,0.014648795,-0.2622169,-0.0550599,-2.0,1.2721921,-2.0,2.0,2.0,-2.0,2.0,2.0,-2.0,-2.0,-2.0,-2.0,-2.0,2.0,-2.0,2.0,-1.0997427,-2.0,2.0,-2.0,-2.0,-2.0,2.0,-2.0
2025-07-21 14:29:26.091,0.04,40,2,0.004611938,0.03680056,-0.058590043,0.039239388,-0.035515334,0.041954685,0.0,0.0,0.0,-0.0005805223,-0.028809724,0.10705273,-0.09722739,0.027567526,0.0758369,-0.08295117,0.021074047,0.06960004,-0.08125073,-0.023288814,-0.046153054,-0.09369497,-0.109604046,0.022474289,0.015937034,-0.0037921357,-0.07209763,0.058909845,0.079840966,-0.026617194,0.08231735,-0.021076445,0.04812191,-0.1129592,-2.0,2.0,-2.0,2.0,-1.0997427,-2.0,2.0,-2.0,-2.0,-2.0,2.0,-2.0,-2.0,0.8959769,-2.0,2.0,2.0,-2.0,2.0,2.0,-2.0,-2.0,-2.0,-2.0
2025-07-21 14:29:26.108,0.06,60,3,0.13532324,0.057163525,0.02181396,0.031682953,-0.011426976,0.028085679,0.0,0.0,0.0,-0.0007492199,-0.034385882,0.1143135,-0.082558624,0.042912494,0.073791675,-0.057464898,0.03150163,0.056198556,-0.051509503,-0.03093298,-0.06190255,-0.07257567,-0.04498903,-0.010279634,0.06866463,0.058903974,-0.044842668,0.07879913,-0.00018207435,0.09220438,0.00022377887,-0.04716195,-0.14701729,0.12049934,-2.0,0.8959769,-2.0,2.0,2.0,-2.0,2.0,2.0,-2.0,-2.0,-2.0,-2.0,-2.0,2.0,-2.0,2.0,-2.0,-2.0,2.0,-2.0,-2.0,-2.0,2.0,-2.0
2025-07-21 14:29:26.126,0.08,80,4,0.110138975,0.18600799,-0.016603542,0.02612006,0.020827621,0.041841164,0.0,0.0,0.0,-0.0012909312,-0.03495133,0.11619315,-0.04948547,0.04722206,0.05015153,-0.0081015695,0.03797785,0.034682512,-0.040929757,-0.028168185,-0.07703421,-0.069978155,-0.0067484,-0.054985825,0.14266902,-0.027567623,-0.043092757,0.12187855,-0.0020772412,-0.19277677,0.08501185,0.022681545,0.039774798,0.008178536,-2.0,2.0,-2.0,2.0,-2.0,-2.0,2.0,-2.0,-2.0,-2.0,2.0,-2.0,-2.0,-1.5618643,-2.0,2.0,1.5706129,-2.0,2.0,1.1089187,-2.0,-2.0,-2.0,-2.0
2025-07-21 14:29:26.146,0.1,100,5,-0.009620737,0.015006869,0.022209695,-0.021270985,-0.010158018,0.025639841,0.0,0.0,0.0,-0.0019378556,-0.043238793,0.08955325,-0.006828098,0.049869962,0.040450953,-0.0139319105,0.03038978,0.008894567,-0.050927117,-0.03469443,-0.100643165,-0.058272887,0.0645419,-0.15034875,0.123869576,-0.05875325,0.074768774,-0.023816388,0.04107106,-0.024612356,-0.047093797,0.012713908,-0.07061189,-0.0030048878,-2.0,-1.5618643,-2.0,2.0,1.5706129,-2.0,2.0,1.1089187,-2.0,-2.0,-2.0,-2.0,-2.0,-2.0,-2.0,2.0,-2.0,-2.0,2.0,-2.0,-2.0,-2.0,2.0,-2.0
2025-07-21 14:29:26.166,0.12000000000000001,120,6,-0.046409648,0.09706488,-0.09978605,-0.059672378,0.070471644,-0.025941908,0.0,0.0,0.0,-0.0020338104,-0.062070873,0.019843139,0.0022196078,0.05522508,0.010722615,-0.00012149059,0.02613143,-0.010044602,-0.026650183,-0.042788155,-0.104081236,-0.07136875,-0.07584499,-0.18415858,0.042312957,-0.030538032,-0.08896853,0.019598015,0.02384244,-0.10777765,0.042054415,-0.023457995,0.044521958,0.04129526,-2.0,-2.0,-2.0,2.0,-2.0,-2.0,2.0,-2.0,-2.0,-2.0,2.0,-2.0,-2.0,-0.018527359,-2.0,2.0,2.0,-2.0,2.0,2.0,-2.0,-2.0,-2.0,-2.0
2025-07-21 14:29:26.191,0.14,140,7,0.117985494,0.1256199,-0.00727934,-0.0089851925,0.042643785,0.024653818,0.0,0.0,0.0,-0.00113723,-0.06366221,-0.01077717,0.0070683663,0.0568891,0.010677162,-0.0006057115,0.027013896,-0.022779573,-0.05336816,-0.044588324,-0.11339899,-0.07744851,-0.036136825,-0.034964044,0.0768419,-0.0423721,0.050334647,-0.038886596,0.08090127,0.07940757,0.016937787,-0.07976289,-0.123821504,0.06478863,-2.0,-0.018527359,-2.0,2.0,2.0,-2.0,2.0,2.0,-2.0,-2.0,-2.0,-2.0,-2.0,2.0,-2.0,2.0,-2.0,-2.0,2.0,-2.0,-2.0,-2.0,2.0,-2.0
2025-07-21 14:29:26.208,0.16,160,8,0.08179156,0.06862312,-0.05309972,-0.061800905,0.029085064,-0.007628339,0.0,0.0,0.0,0.00017752755,-0.060414266,-0.016446812,0.018044386,0.060218986,-0.0018626649,0.016361602,0.046482723,-0.023814544,-0.04636819,-0.035768244,-0.08990931,-0.09852441,-0.055473875,0.07313147,0.029925795,0.059899334,-0.07407638,0.03825063,-0.039504174,-0.18316355,-0.021022916,-0.032283098,0.091008596,-0.07141543,-2.0,2.0,-2.0,2.0,-2.0,-2.0,2.0,-2.0,-2.0,-2.0,2.0,-2.0,-2.0,0.93162024,-2.0,2.0,2.0,1.0096498,2.0,2.0,-2.0,-2.0,-2.0,-2.0
2025-07-21 14:29:26.226,0.18,180,9,0.3251144,0.027905703,-0.015470313,-0.0054575964,0.10192765,0.033771228,0.0,0.0,0.0,0.00090360024,-0.07303363,0.002548665,0.017859861,0.07692261,0.02186735,0.04532054,0.04762063,-0.018685553,-0.08225457,-0.04125599,-0.11258331,-0.10539667,0.047061875,0.031021712,0.09243771,0.10032825,0.24397188,0.06922917,-0.027683903,0.06006328,-0.022259327,-0.0039586504,-0.052553713,0.048310436,-2.0,0.93162024,-2.0,2.0,2.0,1.0096498,2.0,2.0,-2.0,-2.0,-2.0,-2.0,-2.0,-1.5917579,-2.0,2.0,2.0,-2.0,2.0,-2.0,-2.0,-2.0,2.0,-2.0
2025-07-21 14:29:26.246,0.19999999999999998,200,10,0.03203363,0.14522547,-0.11887933,-0.057936892,0.019097643,-0.04487873,0.0,0.0,0.0,0.0014030073,-0.0727466,-0.009245632,0.03574944,0.09042945,0.08066704,0.040641226,0.052004155,-0.040314883,-0.08740925,-0.045104273,-0.07827365,-0.12911123,-0.083550334,-0.01999914,0.00965446,-0.06554851,0.032932017,-0.025746536,0.07675939,-0.16744587,0.05646756,-0.08256823,0.14630474,-0.08155222,-2.0,-1.5917579,-2.0,2.0,2.0,-2.0,2.0,-2.0,-2.0,-2.0,2.0,-2.0,-2.0,2.0,2.0,2.0,-1.3929026,2.0,2.0,2.0,-2.0,-2.0,-2.0,-2.0
2025-07-21 14:29:26.266,0.21999999999999997,220,11,0.24935393,0.1264338,0.054053325,-0.022066727,0.073687576,0.03417306,0.0,0.0,0.0,0.002880298,-0.0939717,0.03718537,0.07131194,0.08699936,0.06272177,0.084592134,0.052443713,-0.024915718,-0.1094506,-0.030451361,-0.07313516,-0.12806343,-0.05475756,0.23542427,0.16927363,0.019689431,-0.22097386,0.22571135,-0.0015426297,0.12828499,0.0023389969,0.019121336,-0.112602144,-0.032380525,-2.0,2.0,2.0,2.0,-1.3929026,2.0,2.0,2.0,-2.0,-2.0,-2.0,-2.0,-2.0,2.0,-2.0,2.0,2.0,-2.0,2.0,-2.0,-2.0,-2.0,2.0,-2.0
2025-07-21 14:29:26.291,0.23999999999999996,240,12,0.09905477,0.16601734,-0.035887063,-0.087278694,0.11006974,0.048544865,0.0,0.0,0.0,0.0038687564,-0.101285025,0.08289576,0.080739796,0.08478274,0.056761827,0.09045715,0.06619666,-0.040139977,-0.0969927,-0.03126511,-0.04911283,-0.13468426,-0.07607201,0.01959929,0.019235391,0.023184247,0.021713527,0.04718252,0.060430013,-0.114682935,-0.060587093,0.00806722,0.11070245,-0.12402601,-2.0,2.0,-2.0,2.0,2.0,-2.0,2.0,-2.0,-2.0,-2.0,2.0,-2.0,-2.0,2.0,-2.0,2.0,0.7010514,-2.0,2.0,0.17675015,-2.0,-2.0,-2.0,-2.0
2025-07-21 14:29:26.308,0.25999999999999995,260,13,-0.025129668,-0.034074508,0.007550301,-0.0256484,0.07898424,-0.0005158012,0.0,0.0,0.0,0.004165771,-0.09871477,0.10340131,0.08611928,0.087553486,0.07271064,0.10480696,0.06202907,-0.06380679,-0.13689433,-0.048117034,-0.05921205,-0.12826093,-0.04205318,0.016318275,-0.058776062,-0.01974248,-0.06795237,0.059460104,0.051180273,-0.053929932,-0.1151515,0.011628506,-0.17395921,0.10260196,-2.0,2.0,-2.0,2.0,0.7010514,-2.0,2.0,0.17675015,-2.0,-2.0,-2.0,-2.0,-2.0,-2.0,-2.0,2.0,0.11673087,-2.0,2.0,-2.0,-2.0,-2.0,2.0,-2.0
2025-07-21 14:29:26.326,0.27999999999999997,280,14,-0.18053293,0.028127624,-0.080254465,-0.06494499,0.09296127,-0.02082632,0.0,0.0,0.0,0.004233793,-0.12618521,0.07948686,0.101734616,0.08229145,0.061949592,0.1230107,0.07182976,-0.10130119,-0.12704651,-0.050878048,-0.064515896,-0.12663008,-0.03792336,-0.16672227,0.04279555,-0.04283643,-0.06638815,0.024252115,0.07290385,-0.20450157,0.0877067,-0.022449186,0.06743155,0.03922303,-2.0,-2.0,-2.0,2.0,0.11673087,-2.0,2.0,-2.0,-2.0,-2.0,2.0,-2.0,-2.0,1.8935152,-2.0,2.0,2.0,-2.0,2.0,2.0,-2.0,-2.0,-2.0,-2.0
2025-07-21 14:29:26.346,0.3,300,15,0.05890714,0.030887298,0.043781195,-0.08678199,0.12369999,0.002049805,0.0,0.0,0.0,0.0048667244,-0.11359287,0.08163503,0.09399094,0.08073871,0.093483806,0.11448864,0.064894035,-0.09590509,-0.1331144,-0.04895209,-0.089967735,-0.112656444,-0.010850366,0.051001363,0.027961213,-0.02790165,-0.015155851,-0.08149202,-0.006836549,0.03530696,0.026759394,-0.08451002,-0.09122083,0.08850189,-2.0,1.8935152,-2.0,2.0,2.0,-2.0,2.0,2.0,-2.0,-2.0,-2.0,-2.0,-2.0,-0.15164313,-1.5763882,2.0,-2.0,-2.0,2.0,-2.0,-2.0,-2.0,2.0,-2.0
2025-07-21 14:29:26.366,0.32,320,16,-0.16613379,-0.048600186,-0.043482717,-0.058020033,0.04987766,-0.044912733,0.0,0.0,0.0,0.0053474572,-0.1189472,0.079708815,0.07914904,0.08094599,0.05519256,0.11838526,0.07733266,-0.12904692,-0.11960706,-0.054239806,-0.08160019,-0.13152513,0.026800323,0.041416377,-0.06946448,-0.009917669,-0.18377493,0.056674883,-0.048634455,-0.14848527,0.035948776,0.018657297,0.024240477,0.017670179,-2.0,-0.15164313,-1.5763882,2.0,-2.0,-2.0,2.0,-2.0,-2.0,-2.0,2.0,-2.0,-2.0,-1.5677232,-2.0,2.0,2.0,-2.0,2.0,2.0,-2.0,-2.0,-2.0,-2.0
2025-07-21 14:29:26.392,0.34,340,17,0.02457744,0.033532966,0.005900832,-0.04094784,0.056543842,0.017599419,0.0,0.0,0.0,0.0051212097,-0.13402648,0.07307755,0.08269574,0.09903678,0.07752222,0.09003666,0.059411377,-0.10771197,-0.14412661,-0.051399954,-0.10357596,-0.112640224,-0.045821346,-0.041719493,-0.03325998,-0.017746134,0.123931155,-0.022418723,-0.014373637,-0.020668507,-0.07308017,0.020628922,-0.080674075,0.07327258,-2.0,-1.5677232,-2.0,2.0,2.0,-2.0,2.0,2.0,-2.0,-2.0,-2.0,-2.0,-2.0,-2.0,-2.0,2.0,-2.0,-2.0,2.0,-2.0,-2.0,-2.0,2.0,-2.0
2025-07-21 14:29:26.413,0.36000000000000004,360,18,-0.11547079,0.05102376,-0.022338254,-0.029439317,0.01886641,0.02962136,0.0,0.0,0.0,0.0052249203,-0.13536887,-0.009535008,0.06944548,0.10396115,0.04754795,0.091196276,0.069553316,-0.13891953,-0.122567825,-0.044427678,-0.08408627,-0.13865036,-0.034888722,-0.26224744,-0.05927663,0.050394777,-0.18668969,0.057838578,-0.028996998,-0.122809716,0.12134225,-0.0224578,0.04208438,-0.069588356,-2.0,-2.0,-2.0,2.0,-2.0,-2.0,2.0,-2.0,-2.0,-2.0,2.0,-2.0,-2.0,2.0,-2.0,2.0,2.0,-2.0,2.0,1.0718591,-2.0,-2.0,-2.0,-2.0
2025-07-21 14:29:26.441,0.38000000000000006,380,19,0.070398025,0.01866263,-0.016405994,-0.09302346,0.08532698,-0.04137681,0.0,0.0,0.0,0.005515797,-0.12364478,-0.023797825,0.053439308,0.1036191,0.047520537,0.05619206,0.06965235,-0.14308226,-0.12700991,-0.054162033,-0.11057003,-0.13405037,0.051843237,-0.0012670294,0.043479677,-0.005767651,-0.009764225,0.00071313616,-0.067375116,0.010038998,-0.055449158,0.02961335,-0.07360757,0.07161127,-2.0,2.0,-2.0,2.0,2.0,-2.0,2.0,1.0718591,-2.0,-2.0,-2.0,-2.0,-2.0,0.6873592,-2.0,2.0,-2.0,-2.0,2.0,-2.0,-2.0,-2.0,2.0,-2.0
2025-07-21 14:29:26.458,0.4000000000000001,400,20,-0.022187216,-0.027629262,0.021624947,-0.09822775,0.09450774,0.02271193,0.0,0.0,0.0,0.005756289,-0.11924288,-0.00073275296,0.04221895,0.103938095,0.026287386,0.05773872,0.07417325,-0.14620048,-0.12962101,-0.0510378,-0.10276108,-0.15305501,0.023402406,-0.04086842,-0.016710537,0.010795212,-0.18551196,-0.046840403,0.04925045,-0.07216865,-0.009175182,0.031564172,0.044546083,-0.02852016,-2.0,0.6873592,-2.0,2.0,-2.0,-2.0,2.0,-2.0,-2.0,-2.0,2.0,-2.0,-2.0,-1.3573991,-2.0,2.0,2.0,-2.0,2.0,2.0,-2.0,-2.0,-2.0,-2.0
2025-07-21 14:29:26.475,0.4200000000000001,420,21,0.07405018,0.027820721,0.06422037,-0.048100077,0.02419439,-0.010137708,0.0,0.0,0.0,0.005501636,-0.13658985,-0.0093712555,0.051778357,0.115886874,0.033292774,0.032897092,0.08029532,-0.13467734,-0.15449852,-0.052185994,-0.12030057,-0.13377756,-0.013740823,0.026053343,0.050646998,0.074804455,0.05176421,-0.014901285,-0.020799005,0.1301721,0.01366965,-0.057270505,-0.038845286,0.0019652676,-2.0,-1.3573991,-2.0,2.0,2.0,-2.0,2.0,2.0,-2.0,-2.0,-2.0,-2.0,-2.0,2.0,-2.0,2.0,0.0062023997,-2.0,2.0,-2.0,-2.0,-2.0,2.0,-2.0
2025-07-21 14:29:26.496,0.4400000000000001,440,22,0.049368408,0.09622515,-0.040117018,-0.04586597,0.041442893,0.049595855,0.0,0.0,0.0,0.005447313,-0.12637384,-0.003236395,0.0221128,0.124204434,0.033982277,0.031742617,0.0707401,-0.14854145,-0.15024878,-0.04268433,-0.07857741,-0.15125822,-0.0039979084,0.0019511577,0.019063227,-0.06699376,0.044399086,-0.008581323,-0.015998645,-0.070231795,0.062117733,0.027130306,0.1277297,-0.038850315,-2.0,2.0,-2.0,2.0,0.0062023997,-2.0,2.0,-2.0,-2.0,-2.0,2.0,-2.0,-2.0,2.0,-2.0,2.0,-0.57651883,-2.0,2.0,2.0,-2.0,-2.0,-2.0,-2.0
2025-07-21 14:29:26.524,0.46000000000000013,460,23,0.09697578,-0.061108705,0.14670162,-0.108951434,0.024321616,0.03903392,0.0,0.0,0.0,0.0051860944,-0.11676946,0.023295032,0.018184468,0.12315719,0.053020377,0.032518048,0.077461556,-0.10957517,-0.17705056,-0.04005642,-0.10601795,-0.15518363,0.09060829,0.078999564,-0.0664693,0.013885735,-0.06152947,-0.050509702,-0.0563602,0.0696865,-0.018101636,-0.06847977,-0.13378671,0.03756866,-2.0,2.0,-2.0,2.0,-0.57651883,-2.0,2.0,2.0,-2.0,-2.0,-2.0,-2.0,-2.0,1.8441192,-0.16359603,2.0,2.0,-2.0,2.0,-2.0,-2.0,-2.0,2.0,-2.0
2025-07-21 14:29:26.543,0.48000000000000015,480,24,-0.02884201,0.12074978,0.023705553,-0.114763945,0.10404696,0.04413779,0.0,0.0,0.0,0.0039433367,-0.11780352,0.04551277,0.013533979,0.14267172,0.06371049,0.021178195,0.069841675,-0.097053595,-0.16537592,-0.050050497,-0.06764564,-0.17305186,-0.037935283,0.075172246,0.059958037,-0.050352663,0.048142612,-0.062639564,-0.07852969,-0.098140515,0.076323465,0.019263852,0.15872417,-0.051481698,-2.0,1.8441192,-0.16359603,2.0,2.0,-2.0,2.0,-2.0,-2.0,-2.0,2.0,-2.0,-2.0,2.0,-2.0,2.0,2.0,-2.0,2.0,2.0,-2.0,-2.0,-2.0,-2.0
2025-07-21 14:29:26.563,0.5000000000000001,500,25,0.07122884,0.043548573,0.15384029,-0.05545521,0.1133227,-0.046798408,0.0,0.0,0.0,0.002071124,-0.12455456,0.06968705,0.01688382,0.14386612,0.09981792,0.004631904,0.06304443,-0.06410715,-0.1844776,-0.06982591,-0.07955254,-0.16438001,0.026182871,0.13283972,0.037093475,-0.00089054415,0.0687958,-0.09031105,0.01113639,0.22285444,-0.118603885,-0.03002836,-0.13496561,-0.038634747,-2.0,2.0,-2.0,2.0,2.0,-2.0,2.0,2.0,-2.0,-2.0,-2.0,-2.0,-2.0,-1.245792,-2.0,2.0,-2.0,-2.0,2.0,-2.0,-2.0,-2.0,2.0,-2.0
2025-07-21 14:29:26.583,0.5200000000000001,520,26,-0.11698711,0.033484403,-0.038558554,-0.046445683,0.04398955,-0.016804826,0.0,0.0,0.0,0.00020429326,-0.1198569,0.06927639,0.028340511,0.13209468,0.067872435,0.023948012,0.055120375,-0.066099174,-0.16893041,-0.07335881,-0.0610938,-0.19628313,-0.012226909,-0.04252821,-0.011156446,-0.029164,-0.153276,-0.0064104,0.05300079,-0.030947113,0.027636398,0.05507827,0.042023607,-0.087997645,-2.0,-1.245792,-2.0,2.0,-2.0,-2.0,2.0,-2.0,-2.0,-2.0,2.0,-2.0,-2.0,-2.0,-2.0,2.0,2.0,-2.0,2.0,2.0,-2.0,-2.0,-2.0,-2.0
2025-07-21 14:29:26.603,0.5400000000000001,540,27,0.030656112,-0.031313904,0.06254016,-0.10362773,0.0958319,0.0016858527,0.0,0.0,0.0,-0.0011202485,-0.11530292,0.012861571,0.011590529,0.15265198,0.064088665,-0.0069924337,0.045293503,-0.067427665,-0.16596968,-0.070512764,-0.084697396,-0.16542397,0.051675588,-0.24844703,0.024305502,0.054523394,-0.038583856,-0.028155332,0.039587032,0.10310327,0.007820786,0.012634761,-0.057642825,0.027795523,-2.0,-2.0,-2.0,2.0,2.0,-2.0,2.0,2.0,-2.0,-2.0,-2.0,-2.0,-2.0,-0.9928788,-0.018778682,2.0,-0.23323375,-2.0,2.0,-2.0,-2.0,-2.0,2.0,-2.0
2025-07-21 14:29:26.631,0.5600000000000002,560,28,-0.074535824,0.18929522,-0.012824012,-0.025148172,0.07231613,-0.036892284,0.0,0.0,0.0,-0.0017347621,-0.12243174,-0.05258164,0.016045842,0.14410736,0.07891785,-0.0002703653,0.044020396,-0.07729567,-0.14498088,-0.07029663,-0.076237336,-0.17007354,-0.011497684,-0.1722038,0.018520936,-0.087127455,-0.022760037,-0.036325146,-0.02461286,-0.085739,-0.002673969,-0.06107172,0.0396352,-0.025316704,-2.0,-0.9928788,-0.018778682,2.0,-0.23323375,-2.0,2.0,-2.0,-2.0,-2.0,2.0,-2.0,-2.0,2.0,-2.0,2.0,2.0,-2.0,2.0,2.0,-2.0,-2.0,-2.0,-2.0
2025-07-21 14:29:26.696,0.5800000000000002,580,29,0.12974726,0.052853663,0.113709696,-0.07056412,0.025618998,-0.038753595,0.0,0.0,0.0,-0.0022273962,-0.12105675,-0.06450981,0.021946441,0.13068186,0.07487115,-0.0075702826,0.044188153,-0.06650968,-0.17891617,-0.07580728,-0.08435273,-0.15564653,-0.029061202,0.06471484,0.050267912,0.025623973,0.07680549,0.04154681,0.04144133,0.045202266,-0.11964685,0.04809383,-0.06748007,0.04243738,-2.0,2.0,-2.0,2.0,2.0,-2.0,2.0,2.0,-2.0,-2.0,-2.0,-2.0,-2.0,0.6415249,-2.0,2.0,-2.0,-2.0,2.0,-2.0,-2.0,-2.0,2.0,-2.0
2025-07-21 14:29:26.729,0.6000000000000002,600,30,-0.0041916943,-0.06643224,0.011388795,-0.10313769,0.09239223,-0.041655827,0.0,0.0,0.0,-0.003022117,-0.12483372,-0.06455087,0.024786582,0.14547135,0.059538268,0.033941466,0.05159866,-0.07342687,-0.15265918,-0.08714895,-0.073560335,-0.172784,-0.010460234,0.0915113,0.001757675,0.058915943,-0.17830864,-0.015731474,-0.06412346,-0.10828772,0.005166771,-0.074021816,0.1065212,-0.040085934,-2.0,0.6415249,-2.0,2.0,-2.0,-2.0,2.0,-2.0,-2.0,-2.0,2.0,-2.0,-2.0,2.0,-2.0,2.0,2.0,-2.0,2.0,2.0,-2.0,-2.0,-2.0,-2.0
2025-07-21 14:29:26.764,0.6200000000000002,620,31,0.07922161,-0.016982626,0.05749906,-0.083768055,0.100556925,-0.04305412,0.0,0.0,0.0,-0.0040732995,-0.12069031,-0.03956612,0.02649838,0.1549955,0.052318744,0.0062385467,0.060833104,-0.055392176,-0.1622475,-0.07979594,-0.07935115,-0.1684273,0.0936122,0.0649876,0.06049883,0.00067230756,0.043999683,-0.059145957,-0.041218475,0.17568171,0.016925232,-0.054913446,-0.100962095,0.08659012,-2.0,2.0,-2.0,2.0,2.0,-2.0,2.0,2.0,-2.0,-2.0,-2.0,-2.0,-2.0,2.0,-2.0,2.0,-2.0,-2.0,2.0,-2.0,-2.0,-2.0,2.0,-2.0
2025-07-21 14:29:26.796,0.6400000000000002,640,32,0.008458099,-0.00036580482,0.01432781,-0.06855242,0.08443739,0.0011346579,0.0,0.0,0.0,-0.0052020797,-0.099764265,-0.009722263,0.02359871,0.17081411,0.042684466,0.009180304,0.06342666,-0.07077288,-0.14941241,-0.08520651,-0.06994685,-0.15293273,0.049173586,0.0012170079,-0.050611235,0.014531839,-0.0811727,0.041537564,0.018495733,-0.059605688,0.05041165,-0.061399803,-0.005080503,-0.04915425,-2.0,2.0,-2.0,2.0,-2.0,-2.0,2.0,-2.0,-2.0,-2.0,2.0,-2.0,-2.0,0.090066105,-2.0,2.0,2.0,-2.0,2.0,2.0,-2.0,-2.0,-2.0,-2.0
2025-07-21 14:29:26.830,0.6600000000000003,660,33,-0.019527778,-0.0268762,0.05916228,-0.11881255,0.1338674,0.026429925,0.0,0.0,0.0,-0.006635625,-0.10015147,0.028355947,0.025975892,0.16856705,0.04765597,-0.0082608005,0.058098253,-0.04811829,-0.18940458,-0.08520164,-0.09165853,-0.1336367,-0.020757645,0.098194286,-0.01856635,0.04749225,0.03656907,-0.08201174,0.00050472136,0.18174411,-0.04475674,-0.045496944,-0.17097113,-0.008704629,-2.0,0.090066105,-2.0,2.0,2.0,-2.0,2.0,2.0,-2.0,-2.0,-2.0,-2.0,-2.0,2.0,-2.0,2.0,-1.0049694,-2.0,2.0,-2.0,-2.0,-2.0,2.0,-2.0
2025-07-21 14:29:26.883,0.6800000000000003,680,34,-0.03768482,-0.013322823,0.045076557,-0.031678047,0.107302465,-0.021032298,0.0,0.0,0.0,-0.0077263964,-0.10176467,0.04754841,0.025106203,0.16265938,0.040685,-0.0045919977,0.05817251,-0.04779878,-0.15899089,-0.086911686,-0.07893606,-0.16258636,-0.007922481,0.094839424,0.05031712,0.030159414,0.04322669,0.0024610201,-0.0011950305,-0.06729904,0.11421182,0.049545772,0.07728338,-0.070732914,-2.0,2.0,-2.0,2.0,-1.0049694,-2.0,2.0,-2.0,-2.0,-2.0,2.0,-2.0,-2.0,-0.64358985,-2.0,2.0,2.0,-2.0,2.0,2.0,-2.0,-2.0,-2.0,-2.0
2025-07-21 14:29:26.931,0.7000000000000003,700,35,0.0111642275,-0.07788337,0.046100773,-0.098342076,0.113374956,0.0076697646,0.0,0.0,0.0,-0.008443776,-0.12021771,0.052729033,0.02064377,0.1610314,0.056279138,0.0027930732,0.05972199,-0.02891297,-0.1752989,-0.10028927,-0.084928565,-0.14229141,-0.078382425,0.044615757,0.06789703,0.033113483,-0.018475028,-0.0019679784,-0.046843532,0.04851813,-0.07071938,-0.07095807,-0.11833931,0.15663974,-2.0,-0.64358985,-2.0,2.0,2.0,-2.0,2.0,2.0,-2.0,-2.0,-2.0,-2.0,-2.0,2.0,-2.0,2.0,-2.0,-2.0,2.0,-2.0,-2.0,-2.0,2.0,-2.0
2025-07-21 14:29:26.999,0.7200000000000003,720,36,0.03579769,-0.024917437,-0.0046510412,-0.080694966,0.11453848,0.018640498,0.0,0.0,0.0,-0.008720731,-0.1229035,0.088176675,0.0038447834,0.16285317,0.02011844,0.003439409,0.052592866,-0.048746765,-0.14819634,-0.090897866,-0.07686851,-0.14355434,0.0104332855,0.02524344,-0.057673194,-9.7078686e-05,-0.15368612,-0.028163508,0.03412992,-0.1290491,-0.024471166,-0.020860111,0.09228426,0.047752064,-2.0,2.0,-2.0,2.0,-2.0,-2.0,2.0,-2.0,-2.0,-2.0,2.0,-2.0,-2.0,-2.0,-2.0,2.0,2.0,-2.0,2.0,2.0,-2.0,-2.0,-2.0,-2.0
2025-07-21 14:29:27.046,0.7400000000000003,740,37,-0.021952387,0.055167317,-0.025212705,-0.026417559,0.07357194,0.019389648,0.0,0.0,0.0,-0.00890597,-0.11379922,0.057649303,0.007159465,0.15895659,0.011556064,-0.028414477,0.051424697,-0.029295137,-0.16835365,-0.10467173,-0.09441017,-0.119785555,0.03817698,-0.22240987,-0.097922705,0.029672915,0.10557104,0.03983443,0.050411243,0.15120828,-0.0850976,-0.042663325,-0.03229761,0.06661446,-2.0,-2.0,-2.0,2.0,2.0,-2.0,2.0,2.0,-2.0,-2.0,-2.0,-2.0,-2.0,-1.5479845,-2.0,2.0,-0.40058237,-2.0,2.0,-2.0,-2.0,-2.0,2.0,-2.0
2025-07-21 14:29:27.081,0.7600000000000003,760,38,-0.03780766,0.094641805,-0.1383244,-0.039113548,0.027525838,-0.044264402,0.0,0.0,0.0,-0.00839225,-0.12360984,-0.012946017,-0.008295941,0.15462878,0.03233256,-0.02585729,0.037746947,-0.057533473,-0.14359437,-0.09552323,-0.0816316,-0.13402487,-0.087642185,-0.10762237,-0.08311734,-0.085668415,0.031591,-0.015717177,-0.0018498469,-0.18047938,0.14479387,0.001212088,-0.0040545277,-0.06187404,-2.0,-1.5479845,-2.0,2.0,-0.40058237,-2.0,2.0,-2.0,-2.0,-2.0,2.0,-2.0,-2.0,1.5728074,-2.0,2.0,2.0,-2.0,2.0,2.0,-2.0,-2.0,-2.0,-2.0
2025-07-21 14:29:27.132,0.7800000000000004,780,39,0.1454261,0.026742803,-0.0011334592,-0.09423232,0.05819088,0.028792411,0.0,0.0,0.0,-0.0070851413,-0.1297846,-0.024579134,-0.0262921,0.13688079,0.04817509,-0.01304906,0.04143917,-0.034599982,-0.1344185,-0.08842377,-0.08392775,-0.10724249,0.05581283,-0.008718719,0.06317145,-0.0033534146,0.06809927,0.020193635,0.057191808,0.11010218,0.018832339,0.021988487,-0.13170469,0.07971042,-2.0,1.5728074,-2.0,2.0,2.0,-2.0,2.0,2.0,-2.0,-2.0,-2.0,-2.0,-2.0,2.0,2.0,2.0,-2.0,-2.0,2.0,-2.0,-2.0,-2.0,2.0,-2.0
2025-07-21 14:29:27.183,0.8000000000000004,800,40,-0.010292466,0.16451065,-0.028844504,-0.04673245,0.049279295,-0.00015143327,0.0,0.0,0.0,-0.0058865827,-0.13331887,0.008361451,0.026209053,0.13853607,0.03159865,0.027047949,0.053690705,-0.0593682,-0.13076,-0.0910465,-0.06448962,-0.13857748,-0.05051579,0.19216155,0.16300562,0.04196471,-0.07112276,0.0054200278,0.08187797,-0.19121827,-0.06561512,-0.021976454,0.08706838,-0.013455206,-2.0,2.0,2.0,2.0,-2.0,-2.0,2.0,-2.0,-2.0,-2.0,2.0,-2.0,-2.0,2.0,-2.0,2.0,2.0,-2.0,2.0,2.0,-2.0,-2.0,-2.0,-2.0
2025-07-21 14:29:27.232,0.8200000000000004,820,41,0.10548495,0.11200689,0.10153391,-0.026562331,0.08737351,-0.0103912195,0.0,0.0,0.0,-0.0060511916,-0.13313031,0.077184424,0.011505698,0.16121967,0.04170584,0.011952798,0.048060767,-0.03468252,-0.16282752,-0.09453327,-0.07606593,-0.11395023,0.03324944,0.084037855,-0.053579353,-0.03255351,0.06216912,-0.020852786,0.052139476,0.17514,-0.07196039,0.030606104,-0.05443114,0.0980462,-2.0,2.0,-2.0,2.0,2.0,-2.0,2.0,2.0,-2.0,-2.0,-2.0,-2.0,-2.0,1.1973063,-2.0,2.0,-2.0,-2.0,2.0,-2.0,-2.0,-2.0,2.0,-2.0
2025-07-21 14:29:27.266,0.8400000000000004,840,42,-0.057779193,0.053659435,0.008460382,-0.08814976,0.05925043,0.022105673,0.0,0.0,0.0,-0.0070392215,-0.1331972,0.11338789,0.0390892,0.16335015,0.013819821,0.027660593,0.043830607,-0.050785776,-0.13014211,-0.08910122,-0.04719223,-0.136485,-0.07958017,0.059347555,0.024791386,0.02537063,-0.1332447,0.055159427,0.023666749,-0.108967856,0.12833199,0.020820653,0.06612306,0.03942958,-2.0,1.1973063,-2.0,2.0,-2.0,-2.0,2.0,-2.0,-2.0,-2.0,2.0,-2.0,-2.0,-2.0,-2.0,2.0,2.0,-2.0,2.0,2.0,-2.0,-2.0,-2.0,-2.0
2025-07-21 14:29:27.291,0.8600000000000004,860,43,-0.044252712,-0.011138472,-0.033013135,-0.10789188,0.10576593,-0.020436348,0.0,0.0,0.0,-0.0082589835,-0.14136302,0.08213268,0.04832059,0.16324927,0.026565999,0.010970853,0.054546285,-0.03912528,-0.15027326,-0.08637764,-0.074159145,-0.113477364,-0.056664523,-0.18257049,0.049158376,0.053435367,0.10696872,-0.035823386,-0.06843117,-0.005925806,-0.03144966,0.045265786,-0.17131461,0.08361172,-2.0,-2.0,-2.0,2.0,2.0,-2.0,2.0,2.0,-2.0,-2.0,-2.0,-2.0,-2.0,-2.0,-2.0,2.0,-1.2972839,-2.0,2.0,-2.0,-2.0,-2.0,2.0,-2.0
2025-07-21 14:29:27.310,0.8800000000000004,880,44,-0.107704945,0.09715375,-0.09826193,-0.11806457,0.12097023,0.0049099117,0.0,0.0,0.0,-0.008584017,-0.145429,0.016369661,0.05573374,0.15983917,0.028674228,0.026809862,0.055495195,-0.057827953,-0.11513994,-0.09296353,-0.057730597,-0.10428593,0.018586311,-0.18228923,0.023379821,-0.03843504,-0.09856886,0.004817247,-0.011338444,-0.090723924,0.09072544,0.060628325,-0.011610483,-0.06228327,-2.0,-2.0,-2.0,2.0,-1.2972839,-2.0,2.0,-2.0,-2.0,-2.0,2.0,-2.0,-2.0,0.64266133,-2.0,2.0,2.0,-2.0,2.0,2.0,-2.0,-2.0,-2.0,-2.0
2025-07-21 14:29:27.327,0.9000000000000005,900,45,0.118396826,-0.035296183,0.019393815,-0.047085874,0.041977305,-0.029141339,0.0,0.0,0.0,-0.008023743,-0.14995673,-0.0081836805,0.044094913,0.15441751,0.035690192,0.035444837,0.041836567,-0.047437955,-0.11165169,-0.10063496,-0.0746409,-0.08808851,-0.05087774,0.026432587,0.061769348,0.051267266,-0.015345178,-0.0067930776,-0.02913788,0.023159595,-0.061389323,-0.02393897,-0.18641464,-0.03388036,-2.0,0.64266133,-2.0,2.0,2.0,-2.0,2.0,2.0,-2.0,-2.0,-2.0,-2.0,-2.0,2.0,-2.0,2.0,-2.0,-2.0,2.0,-2.0,-2.0,-2.0,2.0,-2.0
2025-07-21 14:29:27.347,0.9200000000000005,920,46,0.08652286,0.025788216,-0.063081786,-0.11801767,0.043812454,-0.034352463,0.0,0.0,0.0,-0.0073017804,-0.14780371,-0.012524058,0.030860242,0.15700719,0.0053585,0.036001038,0.06511938,-0.055878162,-0.092856206,-0.08375218,-0.05962109,-0.11873015,-0.012074635,0.057522725,0.04280239,-0.07954778,-0.12026507,-0.05659938,0.0692255,-0.07318015,0.044996284,0.083760805,0.08598222,-0.06439445,-2.0,2.0,-2.0,2.0,-2.0,-2.0,2.0,-2.0,-2.0,-2.0,2.0,-2.0,-2.0,0.466571,-2.0,2.0,2.0,2.0,2.0,2.0,-2.0,-2.0,-2.0,-2.0
2025-07-21 14:29:27.368,0.9400000000000005,940,47,0.23396319,-0.013861345,-0.0017084545,-0.11577271,0.075818636,0.027944414,0.0,0.0,0.0,-0.0070561646,-0.1453924,0.017040132,0.033691872,0.16734704,0.011460019,0.052197464,0.06226623,-0.03178453,-0.1401212,-0.08069715,-0.07348668,-0.1039342,-0.026860643,0.06408979,0.024192704,0.0715352,0.15249611,0.08927661,0.101307474,0.17936742,-0.017454566,-0.042756077,-0.10274703,0.06550304,-2.0,0.466571,-2.0,2.0,2.0,2.0,2.0,2.0,-2.0,-2.0,-2.0,-2.0,-2.0,0.54233086,-2.0,2.0,2.0,-2.0,2.0,-2.0,-2.0,-2.0,2.0,-2.0
2025-07-21 14:29:27.391,0.9600000000000005,960,48,-0.0046180384,0.03699823,-0.08621077,-0.025807576,0.057498578,0.020566924,0.0,0.0,0.0,-0.006378534,-0.14993195,0.023054555,0.05258722,0.15430808,0.059913028,0.05331462,0.077759884,-0.045349028,-0.13264158,-0.07598407,-0.058290206,-0.12680838,-0.038483117,0.0862889,-0.05690074,-0.017993782,0.15760884,-0.016933095,0.06266288,-0.049182232,0.024125868,0.0043373397,0.17692165,-0.049056467,-2.0,0.54233086,-2.0,2.0,2.0,-2.0,2.0,-2.0,-2.0,-2.0,2.0,-2.0,-2.0,2.0,2.0,2.0,-0.80336267,-2.0,2.0,2.0,-2.0,-2.0,-2.0,-2.0
2025-07-21 14:29:27.408,0.9800000000000005,980,49,0.060651995,-0.00993483,0.07934886,-0.06520616,0.084562555,-0.025359683,0.0,0.0,0.0,-0.0047601853,-0.15638103,0.060676806,0.07538818,0.14755067,0.078153275,0.076012425,0.07229793,-0.015182284,-0.15145552,-0.066751555,-0.06293017,-0.11348623,-0.03718846,0.10233885,0.091775395,0.016034648,-0.015240806,0.024484074,-0.080453314,0.17601664,-0.021052694,-0.07548929,-0.10499164,-0.00010781693,-2.0,2.0,2.0,2.0,-0.80336267,-2.0,2.0,2.0,-2.0,-2.0,-2.0,-2.0,-2.0,2.0,-2.0,2.0,2.0,-2.0,2.0,-2.0,-2.0,-2.0,-2.0,-2.0
2025-07-21 14:29:27.427,1.0000000000000004,1000,50,-0.122257315,-0.12679325,0.063491605,-0.049937207,0.0789754,-0.028871302,0.0,0.0,0.0,-0.0042432076,-0.14001957,0.13944532,0.052960966,0.1495116,0.08376858,0.07626133,0.07304993,-0.041145016,-0.111142345,-0.07630584,-0.14595488,-0.13556956,0.040951252,0.048108175,-0.016624143,0.045910567,0.034800246,-0.09595126,-0.04801661,-0.0801961,0.1920066,-0.041709654,-0.26427963,-0.045575656,-2.0,2.0,-2.0,2.0,2.0,-2.0,2.0,-2.0,-2.0,-2.0,-2.0,-2.0,-2.0,-2.0,-2.0,2.0,-2.0,-2.0,2.0,-0.08899453,-2.0,-2.0,2.0,-2.0
2025-07-21 14:29:27.447,1.0200000000000005,1020,51,-0.06043018,-0.028642679,-0.07225107,-0.027035067,0.09849708,0.031337775,0.0,0.0,0.0,-0.004949513,-0.15717062,0.12832828,0.07276306,0.15476081,0.056499038,0.08806799,0.058596145,-0.066151276,-0.098453246,-0.08058865,-0.14261635,-0.16550735,-0.023317084,-0.15587273,0.0758431,0.025580285,-0.19048843,-0.027360441,-0.076696776,-0.08462752,0.12166332,-0.031818956,0.041066032,0.008280116,-2.0,-2.0,-2.0,2.0,-2.0,-2.0,2.0,-0.08899453,-2.0,-2.0,2.0,-2.0,-2.0,-0.72755384,-2.0,2.0,2.0,-2.0,2.0,1.635364,-2.0,-2.0,-2.0,-2.0
2025-07-21 14:29:27.470,1.0400000000000005,1040,52,0.03599279,-0.011790288,0.027662348,-0.044142783,0.12792502,-0.02139943,1.5,0.0,0.0,-0.00489347,-0.15178797,0.107378826,0.07715707,0.16386193,0.06373979,0.063702434,0.07743982,-0.067167774,-0.083181486,-0.088013835,-0.16326994,-0.15229402,-0.04281755,-0.096114926,0.085708596,0.029140364,0.042126995,0.0476425,0.011025617,-0.017310262,0.08124756,-0.031606086,-0.052962545,0.14747311,-2.0,-0.72755384,-2.0,2.0,2.0,-2.0,2.0,1.635364,-2.0,-2.0,-2.0,-2.0,-2.0,0.8883672,-2.0,2.0,-2.0,-2.0,2.0,-2.0,-2.0,-2.0,2.0,-2.0
2025-07-21 14:29:27.491,1.0600000000000005,1060,53,-0.014833097,0.15121399,-0.044414263,-0.07161597,0.097757086,-0.00077576307,1.5,0.0,0.0,-0.004653468,-0.16344249,0.10918204,0.079929456,0.17224504,0.043274697,0.072295055,0.071176186,-0.092447236,-0.07755889,-0.07378739,-0.16289917,-0.14179063,-0.009977655,-0.00070972124,0.013486295,0.006168992,-0.0905419,0.07524702,0.05310992,-0.1177387,0.019828113,0.030894062,-0.016205473,-0.0784879,-2.0,0.8883672,-2.0,2.0,-2.0,-2.0,2.0,-2.0,-2.0,-2.0,2.0,-2.0,-2.0,-2.0,-2.0,2.0,1.3398504,-2.0,2.0,2.0,-2.0,-2.0,-2.0,-2.0
2025-07-21 14:29:27.524,1.0800000000000005,1080,54,0.059699256,0.004738567,-0.013708909,-0.116860636,0.06566555,-0.04129685,1.5,0.0,0.0,-0.004226998,-0.16968371,0.06511283,0.068721026,0.17456082,0.047185816,0.05563709,0.081861995,-0.08814,-0.09669394,-0.092260264,-0.1841232,-0.1328614,0.06595481,-0.14160457,0.04428278,-0.017523075,0.057908084,0.02038546,-0.059662744,0.017897336,0.034970798,0.038451966,-0.07680671,-0.06985052,-2.0,-2.0,-2.0,2.0,1.3398504,-2.0,2.0,2.0,-2.0,-2.0,-2.0,-2.0,-2.0,0.8873819,-2.0,2.0,-2.0,-2.0,2.0,-2.0,-2.0,-2.0,2.0,-2.0
2025-07-21 14:29:27.559,1.1000000000000005,1100,55,0.01593703,0.037192307,-0.047559857,-0.059063528,0.09745438,0.04558458,1.5,0.0,0.0,-0.0034091563,-0.16719598,0.043646127,0.07149219,0.16177614,0.019685617,0.067503296,0.0739366,-0.1082107,-0.08405546,-0.08058282,-0.14588822,-0.18183063,0.04203322,0.034028877,0.007567298,-0.01800417,-0.07807792,0.00027905876,0.05531918,-0.06662796,-0.02562644,-0.010367692,0.11151233,0.014871382,-2.0,0.8873819,-2.0,2.0,-2.0,-2.0,2.0,-2.0,-2.0,-2.0,2.0,-2.0,-2.0,-2.0,-2.0,2.0,1.6225002,-2.0,2.0,2.0,-2.0,-2.0,-2.0,-2.0
2025-07-21 14:29:27.592,1.1200000000000006,1120,56,0.062312722,0.08239663,0.027370008,-0.098131835,0.1174098,0.0022625688,1.5,0.0,0.0,-0.002782018,-0.15688483,0.009015306,0.07054643,0.17223215,0.035848513,0.053739775,0.07155122,-0.10069829,-0.11499925,-0.07604667,-0.15831108,-0.16804926,0.010054501,-0.20704466,-0.064226545,-0.006478182,0.032325137,0.032092635,0.045094628,0.112495296,-0.09295114,0.04489196,-0.11500259,-0.00843764,-2.0,-2.0,-2.0,2.0,1.6225002,-2.0,2.0,2.0,-2.0,-2.0,-2.0,-2.0,-2.0,2.0,-2.0,2.0,-2.0,-2.0,2.0,-2.0,-2.0,-2.0,2.0,-2.0
2025-07-21 14:29:27.609,1.1400000000000006,1140,57,-0.011415547,0.08572425,0.016371392,-0.02960065,0.06143242,-0.034525793,1.5,0.0,0.0,-0.0019203624,-0.17399946,0.010078293,0.054101244,0.17240249,0.0049261716,0.06750852,0.074709125,-0.10124529,-0.10303475,-0.07341709,-0.14897996,-0.17116544,-0.06047289,0.056770258,-0.07160206,0.076613784,-0.039558556,0.08803141,0.013475455,-0.05274968,-0.019726457,-0.015350121,0.023278616,-0.09670267,-2.0,2.0,-2.0,2.0,-2.0,-2.0,2.0,-2.0,-2.0,-2.0,2.0,-2.0,-2.0,-1.431018,-2.0,2.0,1.0283108,-2.0,2.0,2.0,-2.0,-2.0,-2.0,-2.0
2025-07-21 14:29:27.630,1.1600000000000006,1160,58,0.04811582,-0.060571246,-0.036221847,-0.09339963,0.1045274,-0.0086543355,1.5,0.0,0.0,-0.0016339372,-0.16482498,-0.0040207556,0.054496236,0.18162882,-0.0017730565,0.04853581,0.07404941,-0.090210535,-0.13376974,-0.07804456,-0.16086496,-0.16676775,-0.035721082,-0.037225436,-0.028069684,0.05099011,-0.0086286105,-0.035686675,0.0034374963,0.010551818,-0.08444148,-0.0035706188,-0.16250756,0.038603976,-2.0,-1.431018,-2.0,2.0,1.0283108,-2.0,2.0,2.0,-2.0,-2.0,-2.0,-2.0,-2.0,2.0,-2.0,2.0,-2.0,-2.0,2.0,-2.0,-2.0,-2.0,2.0,-2.0
2025-07-21 14:29:27.650,1.1800000000000006,1180,59,-0.016696746,0.028480409,-0.024775684,-0.095380165,0.111329466,-0.016473861,1.5,0.0,0.0,-0.0013563713,-0.16316517,-0.0077476096,0.058934823,0.17389666,-0.018162867,0.059109952,0.083355874,-0.10045798,-0.13099675,-0.07742837,-0.13479438,-0.18750049,-0.016380101,-0.022785028,-0.037724264,-0.0018423322,-0.05645877,0.04364725,-0.042425692,-0.11543861,0.07904009,0.009017314,0.111380056,-0.08650792,-2.0,2.0,-2.0,2.0,-2.0,-2.0,2.0,-2.0,-2.0,-2.0,2.0,-2.0,-2.0,-2.0,-2.0,2.0,0.97036,-2.0,2.0,2.0,-2.0,-2.0,-2.0,-2.0
2025-07-21 14:29:27.675,1.2000000000000006,1200,60,0.101087265,0.03690944,0.0025488108,-0.027503725,0.050107725,-0.031690426,1.5,0.0,0.0,-0.0014078198,-0.1663284,-0.02685145,0.041864015,0.18330105,-0.029712936,0.048914094,0.08068054,-0.071120866,-0.14419349,-0.08656608,-0.14070456,-0.17613402,-0.0028976907,-0.1442379,-0.1595069,-0.0065222746,0.056344967,-0.051392324,-0.011066985,0.12915838,-0.03439433,0.06638897,-0.058294434,0.02519236,-2.0,-2.0,-2.0,2.0,0.97036,-2.0,2.0,2.0,-2.0,-2.0,-2.0,-2.0,-2.0,2.0,-2.0,2.0,-2.0,-2.0,2.0,-2.0,-2.0,-2.0,2.0,-2.0
2025-07-21 14:29:27.693,1.2200000000000006,1220,61,0.02518402,0.05595987,0.007305091,-0.06086337,0.121538624,-0.035750497,1.5,0.0,0.0,-0.0014926085,-0.16665871,-0.03935056,0.032881543,0.19428572,-0.04978363,0.061134994,0.08370806,-0.09473823,-0.14396355,-0.071601555,-0.1423589,-0.1880861,-0.057422236,0.065647036,0.011688487,-0.011221687,-0.16039611,0.060495984,0.08165967,-0.059254035,-0.015068717,-0.024386318,0.10906818,-0.08074901,-2.0,2.0,-2.0,2.0,-2.0,-2.0,2.0,-2.0,-2.0,-2.0,2.0,-2.0,-2.0,-1.2313637,-2.0,2.0,1.3798926,-2.0,2.0,2.0,-2.0,-2.0,-2.0,-2.0
2025-07-21 14:29:27.712,1.2400000000000007,1240,62,0.032507624,0.0049294503,0.028523695,-0.05921441,0.069937475,0.041015517,1.5,0.0,0.0,-0.0019801331,-0.16932818,-0.047803998,0.042437073,0.18918459,-0.056522086,0.04232005,0.08293005,-0.0650707,-0.17537571,-0.07781463,-0.16135769,-0.17357114,0.0038721866,-0.046446864,-0.004019056,0.068466686,-0.04082722,-0.07798972,-0.014541845,0.08032216,-0.10649074,-0.029905817,-0.16205391,-0.036970086,-2.0,-1.2313637,-2.0,2.0,1.3798926,-2.0,2.0,2.0,-2.0,-2.0,-2.0,-2.0,-2.0,2.0,-2.0,2.0,-2.0,-2.0,2.0,-2.0,-2.0,-2.0,2.0,-2.0
2025-07-21 14:29:27.729,1.2600000000000007,1260,63,-0.006197079,0.015024242,0.061786406,-0.11452074,0.067631684,0.009652925,1.5,0.0,0.0,-0.0022860663,-0.1632206,-0.032924972,0.020688906,0.19599107,-0.069921695,0.04484048,0.07799073,-0.0792475,-0.17226934,-0.09053922,-0.1340128,-0.20610826,0.05624538,0.019903602,-0.06837051,0.0718812,-0.061040327,0.081211135,-0.042273264,-0.03504615,0.050471675,-0.0770853,0.055169217,-0.05368641,-2.0,2.0,-2.0,2.0,-2.0,-2.0,2.0,-2.0,-2.0,-2.0,2.0,-2.0,-2.0,-1.8328999,-2.0,2.0,1.785397,-2.0,2.0,2.0,-2.0,-2.0,-2.0,-2.0
2025-07-21 14:29:27.749,1.2800000000000007,1280,64,0.013381788,-0.017047185,-0.012778,-0.057116196,0.11570775,0.029274398,1.5,0.0,0.0,-0.0025986622,-0.17766216,-0.05397573,0.013911052,0.1828863,-0.06234876,0.020520458,0.06390193,-0.06924199,-0.18109758,-0.07546673,-0.14148813,-0.19074088,0.046903472,-0.12022821,-0.01647219,0.053536914,0.09798799,-0.060064927,-0.045739036,0.0050775153,-0.058043085,-0.052128654,-0.048169177,0.06877942,-2.0,-1.8328999,-2.0,2.0,1.785397,-2.0,2.0,2.0,-2.0,-2.0,-2.0,-2.0,-2.0,2.0,-2.0,2.0,-2.0,-2.0,2.0,-2.0,-2.0,-2.0,2.0,-2.0
2025-07-21 14:29:27.774,1.3000000000000007,1300,65,0.03578224,0.077772334,-0.004829222,-0.0540389,0.12832965,0.018106204,1.5,0.0,0.0,-0.002860059,-0.15993941,-0.051120397,0.006614357,0.18663225,-0.08661113,0.03662195,0.05826819,-0.08575228,-0.16735826,-0.090043694,-0.137861,-0.19220756,-0.069164224,0.093376294,-0.021894345,-0.005360339,-0.1207782,0.026998159,-0.019045396,-0.112320416,-0.05763034,-0.009397582,0.038889937,-0.010495699,-2.0,2.0,-2.0,2.0,-2.0,-2.0,2.0,-2.0,-2.0,-2.0,2.0,-2.0,-2.0,-0.35971817,-2.0,2.0,1.7495909,-2.0,2.0,2.0,-2.0,-2.0,-2.0,-2.0
2025-07-21 14:29:27.792,1.3200000000000007,1320,66,0.072420925,0.021711396,-0.0067973076,-0.04956091,0.091398895,0.043709353,1.5,0.0,0.0,-0.003243153,-0.16506538,-0.047956202,-0.0011401231,0.18267581,-0.075480506,0.025913494,0.07414475,-0.050628167,-0.20253877,-0.09708235,-0.1549272,-0.20249115,0.04053822,-0.0009301572,0.015293061,-0.04557605,0.0041641463,0.035156384,0.002982535,0.21038517,-0.06911083,0.049970962,-0.076049395,0.049373146,-2.0,-0.35971817,-2.0,2.0,1.7495909,-2.0,2.0,2.0,-2.0,-2.0,-2.0,-2.0,-2.0,2.0,-2.0,2.0,-2.0,-2.0,2.0,-2.0,-2.0,-2.0,2.0,-2.0
2025-07-21 14:29:27.811,1.3400000000000007,1340,67,-0.0029476744,-0.04884233,-0.034298826,-0.059033513,0.07672664,0.0074489326,1.5,0.0,0.0,-0.003595343,-0.17795728,-0.046071343,0.00893684,0.1961309,-0.09179336,0.022872435,0.06338454,-0.049898468,-0.18711145,-0.080631115,-0.12241856,-0.22157055,0.035779655,0.06241129,0.03631016,-0.067331634,-0.11345626,-0.024196252,0.06515271,-0.05190903,-0.005448328,-0.0004809653,0.080151595,-0.099934585,-2.0,2.0,-2.0,2.0,-2.0,-2.0,2.0,-2.0,-2.0,-2.0,2.0,-2.0,-2.0,-2.0,-2.0,2.0,1.5699232,-2.0,2.0,2.0,-2.0,-2.0,-2.0,-2.0
2025-07-21 14:29:27.830,1.3600000000000008,1360,68,0.07568362,-0.0034993517,0.03315144,-0.060139023,0.087386146,-0.043856446,1.5,0.0,0.0,-0.0037964152,-0.16395044,-0.06386091,0.0026339383,0.1832806,-0.09162598,0.026124839,0.062307335,-0.051201124,-0.19082837,-0.0848633,-0.1336179,-0.20604508,-0.009903631,-0.11401194,-0.100460224,0.057577047,0.06545332,0.034812145,-0.070983745,0.120589264,-0.08945436,0.024084719,-0.052046776,0.079548076,-2.0,-2.0,-2.0,2.0,1.5699232,-2.0,2.0,2.0,-2.0,-2.0,-2.0,-2.0,-2.0,2.0,-2.0,2.0,-2.0,-2.0,2.0,-2.0,-2.0,-2.0,2.0,-2.0
2025-07-21 14:29:27.850,1.3800000000000008,1380,69,0.035573285,0.10781168,-0.025457788,-0.117226146,0.14192759,0.04520978,1.5,0.0,0.0,-0.0041044285,-0.17308289,-0.063437104,-0.024019273,0.1837118,-0.11162387,0.03898253,0.065693945,-0.068004474,-0.19166476,-0.09793979,-0.11698233,-0.21169025,0.031875227,0.015006038,-0.07269134,-0.06726878,-0.03061793,0.057566646,-0.034420475,-0.10949434,-0.027087582,-0.00037698183,0.1151191,-0.013673664,-2.0,2.0,-2.0,2.0,-2.0,-2.0,2.0,-2.0,-2.0,-2.0,2.0,-2.0,-2.0,-2.0,-2.0,2.0,1.6341085,-2.0,2.0,2.0,-2.0,-2.0,-2.0,-2.0
2025-07-21 14:29:27.874,1.4000000000000008,1400,70,-0.05801727,-0.005477164,-0.0018121027,-0.03701561,0.08813196,0.03232375,1.5,0.0,0.0,-0.0047116876,-0.17883745,-0.09793479,-0.01085696,0.19510448,-0.09661979,0.012142957,0.06718239,-0.041544095,-0.21789555,-0.10096355,-0.14252056,-0.19857648,-0.04924277,-0.10740485,-0.03601038,0.031971887,-0.011642667,0.00016304025,0.0028913987,0.12636141,-0.056659196,-0.07560217,-0.15545553,0.049997505,-2.0,-2.0,-2.0,2.0,1.6341085,-2.0,2.0,2.0,-2.0,-2.0,-2.0,-2.0,-2.0,2.0,-2.0,2.0,-2.0,-2.0,2.0,-2.0,-2.0,-2.0,2.0,-2.0
2025-07-21 14:29:27.891,1.4200000000000008,1420,71,-0.006764673,0.033164334,0.043167192,-0.07481721,0.09039281,0.029919922,1.5,0.0,0.0,-0.005072865,-0.17449798,-0.08621414,-0.046193384,0.18737048,-0.1153922,0.017636703,0.063022934,-0.045769457,-0.2010931,-0.10250783,-0.113241866,-0.21918388,-0.021767268,-0.054411136,0.020713825,-0.06450939,-0.12349615,0.0028513453,-0.03431879,-0.031069016,0.0059447484,0.01018468,0.1102012,0.04541457,-2.0,2.0,-2.0,2.0,-2.0,-2.0,2.0,-2.0,-2.0,-2.0,2.0,-2.0,-2.0,-0.33767757,-2.0,2.0,1.997338,-2.0,2.0,2.0,-2.0,-2.0,-2.0,-2.0
2025-07-21 14:29:27.910,1.4400000000000008,1440,72,0.04041999,0.0006815995,0.015915839,-0.06587075,0.10771051,0.008443861,1.5,0.0,0.0,-0.0052358382,-0.18729752,-0.07342877,-0.033802208,0.19539157,-0.1342063,0.02147286,0.06797018,-0.04401325,-0.20109749,-0.09370175,-0.13978826,-0.212257,0.017658522,0.09616519,0.020671546,0.031606942,-0.0033352994,0.047323428,0.02833204,0.12184282,-0.038112663,-0.06386301,-0.12464922,0.0024537132,-2.0,-0.33767757,-2.0,2.0,1.997338,-2.0,2.0,2.0,-2.0,-2.0,-2.0,-2.0,-2.0,2.0,-2.0,2.0,-2.0,-2.0,2.0,-2.0,-2.0,-2.0,2.0,-2.0
2025-07-21 14:29:27.930,1.4600000000000009,1460,73,0.051674675,0.03892931,-0.0049499725,-0.104937494,0.08097977,0.0025608882,1.5,0.0,0.0,-0.005835093,-0.18282714,-0.076501176,-0.027795961,0.17990378,-0.14311683,0.036441885,0.07827702,-0.09075853,-0.19578736,-0.104829475,-0.116424695,-0.21007057,0.014051845,0.05385071,0.059266422,-0.06297183,-0.006508578,0.03232914,0.088179514,-0.18232709,0.010770941,-0.076565824,0.1114796,-0.09393945,-2.0,2.0,-2.0,2.0,-2.0,-2.0,2.0,-2.0,-2.0,-2.0,2.0,-2.0,-2.0,-2.0,-2.0,2.0,2.0,-2.0,2.0,2.0,-2.0,-2.0,-2.0,-2.0
2025-07-21 14:29:27.952,1.4800000000000009,1480,74,-0.058091257,0.0704537,-0.036933243,-0.11846102,0.12899804,-0.030725315,1.5,0.0,0.0,-0.0067119487,-0.17569074,-0.09436669,-0.014214259,0.19274417,-0.12574807,0.010960603,0.09054955,-0.062036883,-0.224656,-0.10564686,-0.1335288,-0.21012135,-0.04987382,-0.094613135,-0.059230015,-0.0773112,0.03788622,-0.10257602,-0.029646909,0.2350546,-0.06870666,-0.04347978,-0.05567678,0.082574785,-2.0,-2.0,-2.0,2.0,2.0,-2.0,2.0,2.0,-2.0,-2.0,-2.0,-2.0,-2.0,2.0,-2.0,2.0,-2.0,-2.0,2.0,-2.0,-2.0,-2.0,2.0,-2.0
2025-07-21 14:29:27.975,1.5000000000000009,1500,75,-0.07583859,0.043519873,-0.014647473,-0.051880468,0.12307976,-0.010191868,1.5,0.0,0.0,-0.007348085,-0.18195567,-0.09448816,-0.0477942,0.17500088,-0.135427,0.008936001,0.081088535,-0.056553848,-0.21510527,-0.10855347,-0.100034244,-0.22265138,-0.027806802,-0.03173084,-0.008292037,-0.06398124,-0.017071418,0.065299086,-0.047241878,-0.07060517,0.08104552,0.075860344,0.06301477,0.011941155,-2.0,2.0,-2.0,2.0,-2.0,-2.0,2.0,-2.0,-2.0,-2.0,2.0,-2.0,-2.0,0.2555317,-2.0,2.0,2.0,-2.0,2.0,2.0,-2.0,-2.0,-2.0,-2.0
2025-07-21 14:29:27.994,1.520000000000001,1520,76,0.039635167,-0.013069659,0.122508064,-0.12987426,0.16734642,0.019698584,1.5,0.0,0.0,-0.0077715223,-0.17627075,-0.07986704,-0.027664775,0.18979059,-0.13877976,0.019526968,0.08401861,-0.058689915,-0.21743141,-0.09312376,-0.11881465,-0.20485303,-0.062597536,-0.017302442,-0.011941635,0.059582263,0.111868754,-0.0606826,-0.06726508,0.030680882,-0.07292432,-0.012359532,-0.058479346,0.0035027072,-2.0,0.2555317,-2.0,2.0,2.0,-2.0,2.0,2.0,-2.0,-2.0,-2.0,-2.0,-2.0,2.0,-2.0,2.0,-2.0,-2.0,2.0,-2.0,-2.0,-2.0,2.0,-2.0
2025-07-21 14:29:28.011,1.540000000000001,1540,77,0.021536702,-0.011614871,0.031214597,-0.06971317,0.16715452,-0.015706051,1.5,0.0,0.0,-0.008678553,-0.17367327,-0.07544948,-0.026627934,0.19389232,-0.1557291,0.022401169,0.08793176,-0.08674436,-0.20102507,-0.10261923,-0.09475179,-0.22365524,0.06444531,-0.03340695,0.06536634,-0.011951187,-0.010741563,-0.05667824,0.038795963,-0.10327745,0.06731438,-0.0427834,0.13146542,-0.08120483,-2.0,2.0,-2.0,2.0,-2.0,-2.0,2.0,-2.0,-2.0,-2.0,2.0,-2.0,-2.0,-2.0,-2.0,2.0,2.0,-2.0,2.0,2.0,-2.0,-2.0,-2.0,-2.0
2025-07-21 14:29:28.035,1.560000000000001,1560,78,-0.02806071,-0.016000284,0.065728396,-0.13582142,0.14981249,0.049470715,1.5,0.0,0.0,-0.009936013,-0.18303522,-0.088163756,-0.008396809,0.18883248,-0.15165122,0.000864116,0.09643138,-0.05279815,-0.23825677,-0.10982376,-0.123404875,-0.21461648,-0.0068152864,-0.12819739,0.05367066,-0.05624918,0.032233633,-0.00896862,0.03865237,0.13233796,-0.12232768,-0.03711114,-0.09963081,0.073817015,-2.0,-2.0,-2.0,2.0,2.0,-2.0,2.0,2.0,-2.0,-2.0,-2.0,-2.0,-2.0,2.0,-2.0,2.0,-2.0,-2.0,2.0,-2.0,-2.0,-2.0,2.0,-2.0
2025-07-21 14:29:28.057,1.580000000000001,1580,79,-0.009394488,-0.025367307,-0.01861772,-0.060342718,0.17121132,-0.027897025,1.5,0.0,0.0,-0.010854546,-0.18295376,-0.079115406,-0.047961958,0.17735505,-0.15255031,-0.008906496,0.08937515,-0.048176836,-0.21103902,-0.103967965,-0.095642276,-0.21792382,0.020515485,0.049517155,-0.020318413,0.03502459,-0.008322796,-0.023381189,-0.036644038,-0.06643437,0.11550463,-0.020160737,0.1320898,-0.05322577,-2.0,2.0,-2.0,2.0,-2.0,-2.0,2.0,-2.0,-2.0,-2.0,2.0,-2.0,-2.0,1.1284083,-2.0,2.0,2.0,-2.0,2.0,2.0,-2.0,-2.0,-2.0,-2.0
2025-07-21 14:29:28.076,1.600000000000001,1600,80,0.10780383,0.045894288,0.048347116,-0.08111787,0.12623608,-0.046188716,1.5,0.0,0.0,-0.011506861,-0.18339396,-0.067720175,-0.045280896,0.1841973,-0.16443452,-0.0053159185,0.07693326,-0.048949007,-0.20909432,-0.10752875,-0.1071665,-0.20041391,0.05882126,-0.02949376,-0.027742632,-0.028511664,0.0035864578,0.023148106,-0.079480186,0.012873392,-0.096490584,-0.008363901,-0.060800556,0.12004732,-2.0,1.1284083,-2.0,2.0,2.0,-2.0,2.0,2.0,-2.0,-2.0,-2.0,-2.0,-2.0,2.0,-2.0,2.0,-2.0,-2.0,2.0,-2.0,-2.0,-2.0,2.0,-2.0
2025-07-21 14:29:28.092,1.620000000000001,1620,81,0.036196724,-0.00196923,0.06481741,-0.112363875,0.14159301,-0.03105621,1.5,0.0,0.0,-0.012610918,-0.17403875,-0.06074177,-0.033536524,0.19632499,-0.16161172,0.009700222,0.076635115,-0.053679995,-0.21649867,-0.10713995,-0.09090307,-0.21437682,0.07120444,0.016664738,-0.05096239,-0.042490304,-0.12343303,-0.0078085624,0.07994714,-0.0791094,-0.036856424,0.019565921,0.058441754,-0.057806008,-2.0,2.0,-2.0,2.0,-2.0,-2.0,2.0,-2.0,-2.0,-2.0,2.0,-2.0,-2.0,-2.0,-2.0,2.0,2.0,-2.0,2.0,2.0,-2.0,-2.0,-2.0,-2.0
2025-07-21 14:29:28.112,1.640000000000001,1640,82,-0.0948053,-0.01681105,0.07763263,-0.037647635,0.124610536,0.007614199,1.5,0.0,0.0,-0.014030579,-0.1803391,-0.06484662,-0.029191533,0.17955363,-0.1608475,-0.01927401,0.094633125,-0.049536925,-0.2326351,-0.11254644,-0.09655891,-0.20359491,-0.006815042,-0.17160445,-0.0113879815,0.056219045,0.048245165,-0.09719359,0.0008426685,0.22512361,-0.027656041,0.046459254,-0.12375437,0.034052003,-2.0,-2.0,-2.0,2.0,2.0,-2.0,2.0,2.0,-2.0,-2.0,-2.0,-2.0,-2.0,2.0,-2.0,2.0,-2.0,-2.0,2.0,-2.0,-2.0,-2.0,2.0,-2.0
2025-07-21 14:29:28.131,1.660000000000001,1660,83,-0.04192506,0.029257441,-0.01084331,-0.08636699,0.09224535,0.036460068,1.5,0.0,0.0,-0.015020124,-0.18775505,-0.059123166,-0.054486815,0.18667594,-0.16766046,-0.015045081,0.07850387,-0.035305735,-0.22851388,-0.101762444,-0.09515046,-0.1957002,0.0061331457,0.07571015,-0.025591675,0.02520297,-0.1349745,0.05082791,-0.017088393,-0.11224918,0.12065737,-0.0057949177,-0.01988528,0.051502496,-2.0,2.0,-2.0,2.0,-2.0,-2.0,2.0,-2.0,-2.0,-2.0,2.0,-2.0,-2.0,0.07172647,-2.0,2.0,2.0,-2.0,2.0,2.0,-2.0,-2.0,-2.0,-2.0
2025-07-21 14:29:28.157,1.680000000000001,1680,84,-0.010106944,-0.0324601,0.014483562,-0.10139205,0.080157846,0.03159981,1.5,0.0,0.0,-0.015702024,-0.18295705,-0.06755167,-0.047593143,0.18534772,-0.17198272,-0.012989051,0.06884691,-0.02811259,-0.22196683,-0.10971665,-0.11620003,-0.17748643,0.041825447,-0.022270143,-0.0311192,-0.028671613,-0.023860238,-0.0007478505,0.05984494,0.14894807,0.033490904,-0.08183876,-0.14356151,0.0061355457,-2.0,0.07172647,-2.0,2.0,2.0,-2.0,2.0,2.0,-2.0,-2.0,-2.0,-2.0,-2.0,2.0,-2.0,2.0,-2.0,-2.0,2.0,-2.0,-2.0,-2.0,2.0,-2.0
2025-07-21 14:29:28.175,1.700000000000001,1700,85,0.019460993,0.01925335,0.007937991,-0.08815196,0.13951278,0.013205575,1.5,0.0,0.0,-0.0164625,-0.17243472,-0.042977545,-0.032067273,0.1794137,-0.18905172,-0.016873447,0.07192659,-0.04512617,-0.20826861,-0.10635956,-0.086170174,-0.1915134,-0.0023809497,0.08084948,0.08550529,0.03989967,-0.0038066597,0.055960085,-0.041858725,-0.07406223,0.022014009,-0.054792088,0.11286946,-0.062121604,-2.0,2.0,-2.0,2.0,-2.0,-2.0,2.0,-2.0,-2.0,-2.0,2.0,-2.0,-2.0,-0.72083795,-2.0,2.0,2.0,-2.0,2.0,2.0,-2.0,-2.0,-2.0,-2.0
2025-07-21 14:29:28.193,1.720000000000001,1720,86,-0.05747164,0.01591486,0.026811188,-0.08072421,0.08943354,0.022478377,1.5,0.0,0.0,-0.017275035,-0.17481859,-0.026570084,-0.022082863,0.18994674,-0.15722714,-0.039608408,0.08604285,-0.018528288,-0.22625427,-0.10858854,-0.09876994,-0.17732398,0.031100621,0.09045224,0.06542374,-0.07076287,0.10094317,0.026436161,-0.0081414,0.14632411,-0.04846334,-0.07128634,-0.068360746,0.028055195,-2.0,-0.72083795,-2.0,2.0,2.0,-2.0,2.0,2.0,-2.0,-2.0,-2.0,-2.0,-2.0,2.0,-2.0,2.0,-2.0,-2.0,2.0,-2.0,-2.0,-2.0,2.0,-2.0
2025-07-21 14:29:28.212,1.740000000000001,1740,87,-0.018338317,0.033422563,0.021899536,-0.047909927,0.15694483,0.008663345,1.5,0.0,0.0,-0.017823901,-0.17919391,-0.033571146,-0.028585136,0.18066207,-0.17914884,-0.020868547,0.07472686,-0.030090244,-0.19773656,-0.10389398,-0.08908664,-0.17384036,0.05629864,0.09094521,0.0044913143,0.012352926,0.006068976,0.047645435,-0.044999924,-0.14521678,0.02090635,0.034537584,0.06260668,0.06166776,-2.0,2.0,-2.0,2.0,-2.0,-2.0,2.0,-2.0,-2.0,-2.0,2.0,-2.0,-2.0,-1.4683319,-2.0,2.0,2.0,-2.0,2.0,2.0,-2.0,-2.0,-2.0,-2.0
2025-07-21 14:29:28.231,1.7600000000000011,1760,88,-0.005632142,0.029658219,0.025826618,-0.039881945,0.104998134,0.0021735234,0.0,0.0,0.0,-0.017822515,-0.18094686,-0.04204741,-0.014318519,0.18997213,-0.17282829,-0.019014928,0.08038103,-0.018345164,-0.20576087,-0.12110851,-0.11730126,-0.17342316,-0.023954837,-0.13909407,-0.040884964,-0.029977096,0.011932026,-0.046005256,-0.06306638,0.040471066,-0.052600168,0.0030540966,-0.1473809,0.016729781,-2.0,-1.4683319,-2.0,2.0,2.0,-2.0,2.0,2.0,-2.0,-2.0,-2.0,-2.0,-2.0,2.0,2.0,2.0,2.0,2.0,2.0,-2.0,-2.0,-2.0,2.0,-2.0
2025-07-21 14:29:28.257,1.7800000000000011,1780,89,0.071671754,0.257439,-0.06243209,-0.08259054,0.16001447,-0.0039930544,0.0,0.0,0.0,-0.017665181,-0.18989055,-0.02384881,0.00021459804,0.18794619,-0.15092216,0.0022449545,0.08464863,-0.040233586,-0.19849645,-0.116823904,-0.059816625,-0.1863096,0.018889144,0.11438671,0.06306842,-0.059272226,0.13435915,0.07254103,0.01979287,-0.19335078,-0.05136268,-0.030849135,0.2487447,-0.154854,-2.0,2.0,2.0,2.0,2.0,2.0,2.0,-2.0,-2.0,-2.0,2.0,-2.0,-2.0,-2.0,-2.0,2.0,2.0,-2.0,2.0,2.0,-2.0,-2.0,-2.0,-2.0
2025-07-21 14:29:28.274,1.8000000000000012,1800,90,-0.072370954,0.10668349,-0.083866075,-0.108187385,0.14979737,-0.016915414,0.0,0.0,0.0,-0.017067792,-0.191554,-0.022389507,0.03677341,0.17014554,-0.12344024,0.020334542,0.079112396,-0.012220488,-0.20169106,-0.11921316,-0.06457457,-0.18679681,0.030730996,-0.14563188,0.025797078,0.0038477029,0.10534783,0.04099858,-0.037150405,0.14588457,-0.09514996,0.024855757,-0.03611437,0.0584227,-2.0,-2.0,-2.0,2.0,2.0,-2.0,2.0,2.0,-2.0,-2.0,-2.0,-2.0,-2.0,-1.169737,2.0,2.0,0.8925615,2.0,2.0,-2.0,-2.0,-2.0,2.0,-2.0
2025-07-21 14:29:28.293,1.8200000000000012,1820,91,-0.016226364,0.25259385,-0.1996633,-0.14743766,0.10854249,0.026680797,0.0,0.0,0.0,-0.015769407,-0.19680539,-0.0639919,0.08225624,0.16032335,-0.105607755,0.06116461,0.072988555,-0.01975872,-0.18752012,-0.10117875,-0.02980342,-0.1916613,0.030151844,-0.14090629,0.08475005,-0.07467459,0.07201957,0.18539287,0.065606385,-0.030562367,0.10642946,0.064047985,0.056452468,-0.027940637,-2.0,-1.169737,2.0,2.0,0.8925615,2.0,2.0,-2.0,-2.0,-2.0,2.0,-2.0,-2.0,-0.1492463,-2.0,2.0,2.0,-2.0,2.0,2.0,-2.0,-2.0,-2.0,-2.0
2025-07-21 14:29:28.312,1.8400000000000012,1840,92,0.14066394,0.182167,-0.14133027,-0.09473869,0.12423182,-0.03813063,0.0,0.0,0.0,-0.01299085,-0.18750805,-0.09378498,0.1225729,0.15033169,-0.072638184,0.08953722,0.09457685,-0.02855026,-0.14679956,-0.10216897,-0.027302284,-0.18686412,0.030313715,0.033546563,0.0042733015,0.054456826,0.10966565,-0.016012864,0.08614181,0.08409844,0.013175364,0.0091785425,-0.16909136,0.1021615,-2.0,-0.1492463,-2.0,2.0,2.0,-2.0,2.0,2.0,-2.0,-2.0,-2.0,-2.0,-2.0,2.0,-2.0,2.0,-1.1067474,-2.0,2.0,-2.0,-2.0,-2.0,2.0,-2.0
2025-07-21 14:29:28.331,1.8600000000000012,1860,93,-0.024543162,-0.1209219,-0.14166266,-0.19177552,0.09289153,-0.010927422,0.0,0.0,0.0,-0.010162377,-0.17655149,-0.09854799,0.13098331,0.16336869,-0.056317538,0.09957275,0.10736688,-0.06014745,-0.13848722,-0.08926462,-0.0050741863,-0.20718466,-0.016014991,0.07772573,0.06086334,-0.0270464,0.051536452,0.025379129,0.040916897,-0.1520383,-0.047362607,0.044558264,0.17051567,-0.099110134,-2.0,2.0,-2.0,2.0,-1.1067474,-2.0,2.0,-2.0,-2.0,-2.0,2.0,-2.0,-2.0,2.0,2.0,2.0,2.0,-2.0,2.0,2.0,-2.0,-2.0,-2.0,-2.0
2025-07-21 14:29:28.357,1.8800000000000012,1880,94,0.0235474,0.0052872878,0.0594733,-0.14038046,0.09725718,0.021211179,0.0,0.0,0.0,-0.007898629,-0.17318836,-0.08349487,0.1495206,0.16481344,-0.033560116,0.08854702,0.10083539,-0.055108372,-0.17564964,-0.090698555,-0.007967695,-0.18525456,0.011749014,0.015393106,0.0779784,0.0043117027,0.1083063,-0.074963234,-0.07375537,0.16152976,-0.05668688,-0.03277196,-0.04529239,0.13506998,-2.0,2.0,2.0,2.0,2.0,-2.0,2.0,2.0,-2.0,-2.0,-2.0,-2.0,-2.0,2.0,-2.0,2.0,0.07411033,-2.0,2.0,-2.0,-2.0,-2.0,2.0,-2.0
2025-07-21 14:29:28.374,1.9000000000000012,1900,95,-0.072957985,-0.00030119886,0.027061772,-0.16715015,0.13166761,-0.020798486,0.0,0.0,0.0,-0.0075030243,-0.16457416,-0.03715169,0.15763828,0.16819115,0.00025511955,0.09019626,0.10812558,-0.07174642,-0.14170557,-0.081002384,-0.0011930802,-0.19789979,-0.046290196,0.11387667,0.0021480464,0.03152286,0.015242548,-0.08914788,0.07810244,-0.04793626,0.047198925,-0.021733006,0.02582037,-0.061339676,-2.0,2.0,-2.0,2.0,0.07411033,-2.0,2.0,-2.0,-2.0,-2.0,2.0,-2.0,-2.0,2.0,-2.0,2.0,2.0,-2.0,2.0,2.0,-2.0,-2.0,-2.0,-2.0
2025-07-21 14:29:28.392,1.9200000000000013,1920,96,-0.01929674,-0.12387384,0.09329176,-0.13371743,0.11153285,-0.030764157,0.0,0.0,0.0,-0.0082393605,-0.1576455,-0.0060767583,0.1516346,0.17205265,0.014465211,0.07040489,0.10500152,-0.044389926,-0.15695617,-0.08005618,-0.02146105,-0.17092605,0.07762886,0.055110116,-0.00351585,0.08321988,0.15017655,-0.116282776,0.0067313467,0.16039455,0.0007816466,0.054234162,-0.15286554,0.09236418,-2.0,2.0,-2.0,2.0,2.0,-2.0,2.0,2.0,-2.0,-2.0,-2.0,-2.0,-2.0,-0.48376068,-2.0,2.0,-2.0,-2.0,2.0,-2.0,-2.0,-2.0,2.0,-2.0
2025-07-21 14:29:28.412,1.9400000000000013,1940,97,-0.2366679,-0.16836275,0.025144171,-0.13446902,0.14196186,-0.027631922,0.0,0.0,0.0,-0.009142822,-0.16493475,0.022574889,0.13646942,0.1800041,0.014602915,0.06436781,0.095799886,-0.05307158,-0.13286193,-0.07452386,-0.008671437,-0.18880379,-0.0071732067,0.04105817,-0.0674663,-0.026774742,-0.18257454,-0.07276513,0.018322652,-0.065137066,0.13587657,-0.022382451,0.114095524,-0.08595904,-2.0,-0.48376068,-2.0,2.0,-2.0,-2.0,2.0,-2.0,-2.0,-2.0,2.0,-2.0,-2.0,-1.2257165,-2.0,2.0,2.0,-2.0,2.0,2.0,-2.0,-2.0,-2.0,-2.0
2025-07-21 14:29:28.432,1.9600000000000013,1960,98,-0.1245047,-0.12537584,-0.012795801,-0.08462777,0.10342413,0.019170653,0.0,0.0,0.0,-0.009851002,-0.1472439,0.015904404,0.122325525,0.1810919,0.013943812,0.007377351,0.09546059,-0.06703833,-0.13431652,-0.07078375,-0.037071586,-0.16195205,-0.029022593,-0.048688605,-0.074758485,0.06803278,0.09354999,-0.15983486,-0.015900014,-0.036555666,0.059466735,0.04217238,-0.17547801,0.023706142,-2.0,-1.2257165,-2.0,2.0,2.0,-2.0,2.0,2.0,-2.0,-2.0,-2.0,-2.0,-2.0,-2.0,-2.0,2.0,-2.0,-2.0,2.0,-2.0,-2.0,-2.0,2.0,-2.0
2025-07-21 14:29:28.458,1.9800000000000013,1980,99,-0.1803063,0.03469326,-0.097736746,-0.066844314,0.06447861,0.047189623,0.0,0.0,0.0,-0.009869879,-0.15361929,-0.012473497,0.09722069,0.1831106,-0.00025265216,0.0019105927,0.09216215,-0.08912306,-0.097852826,-0.0728327,-0.032331795,-0.16455753,-0.07214389,-0.124874845,-0.10802933,0.007543787,-0.06930071,-0.06489347,-0.03605714,-0.19923,0.07836522,-0.028403778,0.07360071,0.06532569,-2.0,-2.0,-2.0,2.0,-2.0,-2.0,2.0,-2.0,-2.0,-2.0,2.0,-2.0,-2.0,0.35248068,-2.0,2.0,2.0,-2.0,2.0,2.0,-2.0,-2.0,-2.0,-2.0
2025-07-21 14:29:28.475,2.0000000000000013,2000,100,0.07308681,-0.060332045,-0.031531636,-0.13372451,0.10951146,0.030106472,0.0,0.0,0.0,-0.009349361,-0.15974195,-0.03679606,0.078043334,0.16919585,0.011924376,-0.029785352,0.091261044,-0.0860227,-0.11041189,-0.07647992,-0.06201497,-0.14972684,0.019532382,0.04022592,-0.0049557067,-0.049605478,0.06750666,-0.07214633,-0.01700915,0.1256942,-0.0526107,-0.033560373,-0.11611785,0.064693965,-2.0,0.35248068,-2.0,2.0,2.0,-2.0,2.0,2.0,-2.0,-2.0,-2.0,-2.0,-2.0,2.0,-2.0,2.0,-0.3299144,-2.0,2.0,-2.0,-2.0,-2.0,2.0,-2.0
2025-07-21 14:29:28.492,2.0200000000000014,2020,101,0.011696207,-0.009593088,-0.07194993,-0.122198276,0.088831566,0.03270682,0.0,0.0,0.0,-0.008440514,-0.1456522,-0.016800757,0.072091736,0.18415993,0.027827397,-0.028044056,0.10227878,-0.089955285,-0.09277357,-0.07625066,-0.05470517,-0.17548847,0.01377832,0.004628967,0.037666887,-0.06064473,0.048942763,0.055096257,0.089316346,-0.0745325,0.034582984,-0.05692724,0.15473898,-0.089192644,-2.0,2.0,-2.0,2.0,-0.3299144,-2.0,2.0,-2.0,-2.0,-2.0,2.0,-2.0,-2.0,2.0,-2.0,2.0,0.17872924,-2.0,2.0,2.0,-2.0,-2.0,-2.0,-2.0
2025-07-21 14:29:28.514,2.0400000000000014,2040,102,0.105843484,-0.15269169,0.13594225,-0.10054671,0.114860855,-0.008994123,0.0,0.0,0.0,-0.007833468,-0.1540618,0.01765007,0.06232419,0.17817628,0.049275346,-0.035032324,0.099662244,-0.07356096,-0.1321223,-0.07623624,-0.051476758,-0.1465219,-0.019555941,0.1611074,0.020634416,0.0048248265,0.1030844,-0.0039798035,0.028906045,0.15881647,-0.040161032,-0.045992028,-0.11690809,0.09270009,-2.0,2.0,-2.0,2.0,0.17872924,-2.0,2.0,2.0,-2.0,-2.0,-2.0,-2.0,-2.0,2.0,2.0,2.0,2.0,-2.0,2.0,-2.0,-2.0,-2.0,2.0,-2.0
2025-07-21 14:29:28.541,2.0600000000000014,2060,103,-0.0644978,0.16891314,0.010028818,-0.061799128,0.07739635,0.046175882,0.0,0.0,0.0,-0.008160568,-0.14224353,0.081304856,0.07563208,0.18924065,0.06963911,-0.03611377,0.086852565,-0.07335832,-0.11357353,-0.08254517,-0.022619301,-0.15338403,0.036228094,0.17379391,0.06885243,0.005670925,0.09828774,0.01664545,0.0032813386,-0.02277888,0.0637915,-0.06297429,0.048631527,-0.10611426,-2.0,2.0,2.0,2.0,2.0,-2.0,2.0,-2.0,-2.0,-2.0,2.0,-2.0,-2.0,2.0,-2.0,2.0,2.0,-2.0,2.0,2.0,-2.0,-2.0,-2.0,-2.0
2025-07-21 14:29:28.559,2.0800000000000014,2080,104,-0.019027444,0.052735917,0.0657252,-0.13474225,0.117484376,0.00937864,0.0,0.0,0.0,-0.009333638,-0.14158201,0.15628405,0.065927096,0.17535266,0.100500755,-0.029759534,0.09123783,-0.050998446,-0.13855916,-0.0984243,-0.04309491,-0.14758992,0.038028196,0.1768457,0.023804052,0.064874016,0.03627727,-0.008049397,-0.04665992,0.1916565,-0.09106636,-0.03476767,-0.19187479,0.071481876,-2.0,2.0,-2.0,2.0,2.0,-2.0,2.0,2.0,-2.0,-2.0,-2.0,-2.0,-2.0,-2.0,-2.0,2.0,-2.0,-2.0,2.0,-2.0,-2.0,-2.0,2.0,-2.0
2025-07-21 14:29:28.577,2.1000000000000014,2100,105,-0.17674673,-0.04660692,-0.030958064,-0.116671525,0.085805655,0.021979604,0.0,0.0,0.0,-0.010508958,-0.15824555,0.15653716,0.066705145,0.189189,0.08413654,-0.014741074,0.06980254,-0.06117523,-0.11631119,-0.09851462,-0.03566063,-0.1646805,-0.0905405,-0.1561944,0.08969817,0.02145668,-0.1930799,-0.040941548,0.0069721877,-0.14207417,0.16633472,0.0026307194,0.1337545,-0.027706094,-2.0,-2.0,-2.0,2.0,-2.0,-2.0,2.0,-2.0,-2.0,-2.0,2.0,-2.0,-2.0,-2.0,-2.0,2.0,2.0,-2.0,2.0,2.0,-2.0,-2.0,-2.0,-2.0
2025-07-21 14:29:28.595,2.1200000000000014,2120,106,0.011012465,-0.010465828,0.020947907,-0.055762857,0.049759075,-0.001717298,0.0,0.0,0.0,-0.011028568,-0.1517467,0.08463626,0.08273168,0.17461036,0.07822692,-0.042044647,0.074651934,-0.0638392,-0.09961961,-0.08263165,-0.0526903,-0.14535742,0.06637772,-0.20443727,0.02068103,0.04230759,-0.018106773,0.025499195,0.065489344,-0.009899018,-0.037622917,-0.06138891,-0.15546449,0.058025,-2.0,-2.0,-2.0,2.0,2.0,-2.0,2.0,2.0,-2.0,-2.0,-2.0,-2.0,-2.0,-2.0,-2.0,2.0,-2.0,-2.0,2.0,-2.0,-2.0,-2.0,2.0,-2.0
2025-07-21 14:29:28.615,2.1400000000000015,2140,107,-0.15004836,0.1059503,-0.10482921,-0.12248055,0.053591534,0.037449293,0.0,0.0,0.0,-0.010738463,-0.15430678,-0.015157956,0.06676574,0.18094262,0.040781345,-0.02024056,0.07987758,-0.09901409,-0.0783603,-0.08673151,-0.052463137,-0.13689949,-0.017235849,-0.2249405,-0.027037075,0.034009576,-0.14733082,0.019920625,-0.004378568,-0.1780815,-0.085245416,-0.025414402,0.04994409,0.03988585,-2.0,-2.0,-2.0,2.0,-2.0,-2.0,2.0,-2.0,-2.0,-2.0,2.0,-2.0,-2.0,0.23921517,-2.0,2.0,2.0,-2.0,2.0,2.0,-2.0,-2.0,-2.0,-2.0
2025-07-21 14:29:28.641,2.1600000000000015,2160,108,0.13551769,0.019851582,-0.038874988,-0.14356281,0.08456523,0.036708992,0.0,0.0,0.0,-0.010034399,-0.15235059,-0.046720594,0.058588058,0.17585225,0.046004985,-0.048173267,0.09010419,-0.10420647,-0.10278465,-0.09327353,-0.06469505,-0.12829569,-0.00911985,-0.04337473,0.06783605,-0.024165923,0.08171655,0.009201311,0.06641057,0.035256546,-0.087451175,0.042030785,-0.16024502,0.000906306,-2.0,0.23921517,-2.0,2.0,2.0,-2.0,2.0,2.0,-2.0,-2.0,-2.0,-2.0,-2.0,2.0,-2.0,2.0,-2.0,-2.0,2.0,-2.0,-2.0,-2.0,2.0,-2.0
2025-07-21 14:29:28.658,2.1800000000000015,2180,109,0.026113158,-0.05163468,0.03445719,-0.081951514,0.05156559,0.0320656,1.5,0.0,0.0,-0.009301872,-0.14701399,-0.031984255,0.055568,0.17785643,0.030709555,-0.025068799,0.09755458,-0.11919351,-0.1013431,-0.07941728,-0.051270194,-0.143214,4.584194e-05,-0.004001136,-0.009897316,0.023433175,-0.14145091,0.080834344,0.046015643,-0.13926208,0.02050287,-0.06400124,0.11146639,0.021225045,-2.0,2.0,-2.0,2.0,-2.0,-2.0,2.0,-2.0,-2.0,-2.0,2.0,-2.0,-2.0,-2.0,-2.0,2.0,0.2304346,-2.0,2.0,2.0,-2.0,-2.0,-2.0,-2.0
2025-07-21 14:29:28.677,2.2000000000000015,2200,110,0.12630469,-0.047271352,0.007740701,-0.04240825,0.025571385,-0.007215795,1.5,0.0,0.0,-0.009165804,-0.15490481,-0.050763927,0.05768996,0.18148965,0.009887707,-0.027417174,0.09507779,-0.09404717,-0.12702496,-0.084988005,-0.05859456,-0.1348628,0.04396532,-0.13164842,-0.072223194,0.0025754631,0.059381705,0.045944083,-0.07157596,0.026066931,0.0042179716,-0.053775728,-0.072476774,0.12555136,-2.0,-2.0,-2.0,2.0,0.2304346,-2.0,2.0,2.0,-2.0,-2.0,-2.0,-2.0,-2.0,2.0,-2.0,2.0,-2.0,-2.0,2.0,-2.0,-2.0,-2.0,2.0,-2.0
2025-07-21 14:29:28.696,2.2200000000000015,2220,111,0.12155136,-0.019493265,-0.021817809,-0.13805175,0.039551884,0.008816036,1.5,0.0,0.0,-0.00919793,-0.15319861,-0.054077428,0.039708123,0.18343991,-0.029688224,-0.01279043,0.09883541,-0.11287521,-0.12413906,-0.09029827,-0.052100927,-0.13658488,-0.011563732,-0.041999586,-0.0037474255,0.059997667,-0.15908408,0.060898717,-0.018788872,-0.057705343,-0.014310208,-0.06387256,0.0068428824,-0.064431295,-2.0,2.0,-2.0,2.0,-2.0,-2.0,2.0,-2.0,-2.0,-2.0,2.0,-2.0,-2.0,-0.5517,-2.0,2.0,1.169251,-2.0,2.0,2.0,-2.0,-2.0,-2.0,-2.0
2025-07-21 14:29:28.715,2.2400000000000015,2240,112,0.10068136,-0.04513814,0.054024987,-0.09870148,0.090896755,0.0057906224,1.5,0.0,0.0,-0.009756717,-0.15693362,-0.02688207,0.058375128,0.20162682,-0.03585799,-0.015826177,0.09099644,-0.07981288,-0.1316315,-0.09395186,-0.067534484,-0.1230779,0.013379722,0.08984755,0.03321775,0.0035986793,0.04001881,0.04516476,0.064389564,0.1057395,-0.098912604,0.039813686,-0.14446111,0.06560798,-2.0,-0.5517,-2.0,2.0,1.169251,-2.0,2.0,2.0,-2.0,-2.0,-2.0,-2.0,-2.0,2.0,-2.0,2.0,-2.0,-2.0,2.0,-2.0,-2.0,-2.0,2.0,-2.0
2025-07-21 14:29:28.741,2.2600000000000016,2260,113,0.024572548,0.031147612,0.0424382,-0.09356593,0.1278527,-0.04131854,1.5,0.0,0.0,-0.010172731,-0.15492155,-0.008946569,0.04402468,0.19823407,-0.05209396,-0.000489553,0.093303114,-0.08442376,-0.12984522,-0.0893012,-0.058316384,-0.14345,-0.07331498,0.03077711,-0.029703397,0.05949782,-0.061639108,0.047390915,0.024041088,-0.09385348,0.04880349,-0.005612551,0.100173235,-0.100990474,-2.0,2.0,-2.0,2.0,-2.0,-2.0,2.0,-2.0,-2.0,-2.0,2.0,-2.0,-2.0,-1.1116546,-2.0,2.0,2.0,-2.0,2.0,2.0,-2.0,-2.0,-2.0,-2.0
2025-07-21 14:29:28.758,2.2800000000000016,2280,114,0.038581163,0.007382337,0.05318891,-0.07026111,0.06289301,0.048731886,1.5,0.0,0.0,-0.0107355295,-0.16281864,-0.018649455,0.042577308,0.19920331,-0.044844847,0.0011427661,0.08761108,-0.068521455,-0.1540788,-0.08413815,-0.09184409,-0.120509,-0.0055074412,0.033980045,0.012388522,0.0003990783,0.05139926,-0.05628478,-0.02763822,0.10552874,-0.11376209,-0.0043154764,-0.1492881,0.09023987,-2.0,-1.1116546,-2.0,2.0,2.0,-2.0,2.0,2.0,-2.0,-2.0,-2.0,-2.0,-2.0,2.0,-2.0,2.0,-2.0,-2.0,2.0,-2.0,-2.0,-2.0,2.0,-2.0
2025-07-21 14:29:28.776,2.3000000000000016,2300,115,0.024369258,-0.022685178,-0.021066515,-0.12406536,0.1114405,0.04593788,1.5,0.0,0.0,-0.010977439,-0.16164173,0.0057208715,0.043977965,0.20326808,-0.06967112,0.008908905,0.081982754,-0.07706914,-0.1343097,-0.09372416,-0.060641814,-0.13121055,-0.007248935,-0.015958533,-0.07384818,0.0057546054,-0.03916688,0.099314734,-0.0075520976,-0.07446948,0.034853566,-0.074343935,0.057582855,0.03398612,-2.0,2.0,-2.0,2.0,-2.0,-2.0,2.0,-2.0,-2.0,-2.0,2.0,-2.0,-2.0,-2.0,-2.0,2.0,1.2896352,-2.0,2.0,2.0,-2.0,-2.0,-2.0,-2.0
2025-07-21 14:29:28.796,2.3200000000000016,2320,116,0.008117706,-0.009678297,0.053477194,-0.12592268,0.1195355,-0.026513744,1.5,0.0,0.0,-0.011141526,-0.17133047,-0.012862148,0.029464979,0.19458793,-0.055376504,0.0038153874,0.06647897,-0.05320524,-0.15599714,-0.09529548,-0.08321844,-0.11163956,0.07348763,-0.17328824,-0.08069627,-0.072579116,0.09929412,-0.028890427,0.018920748,0.09165424,-0.04666579,-6.7536115e-05,-0.09678061,0.043810986,-2.0,-2.0,-2.0,2.0,1.2896352,-2.0,2.0,2.0,-2.0,-2.0,-2.0,-2.0,-2.0,2.0,-2.0,2.0,-2.0,-2.0,2.0,-2.0,-2.0,-2.0,2.0,-2.0
2025-07-21 14:29:28.816,2.3400000000000016,2340,117,0.08036024,0.011539258,-0.029361218,-0.103052735,0.121037915,-0.030789983,1.5,0.0,0.0,-0.011020866,-0.15495445,-0.02321481,0.021631943,0.19142488,-0.08867301,0.0051651574,0.065319166,-0.067561075,-0.14844815,-0.10153919,-0.08409981,-0.12780155,-0.012552298,0.024329612,0.02448354,-0.010681656,-0.021473853,0.069460794,-0.04875256,-0.1212912,-0.029792136,0.042717114,0.011727727,0.03449909,-2.0,2.0,-2.0,2.0,-2.0,-2.0,2.0,-2.0,-2.0,-2.0,2.0,-2.0,-2.0,-1.0514811,-2.0,2.0,1.7168822,-2.0,2.0,2.0,-2.0,-2.0,-2.0,-2.0
2025-07-21 14:29:28.841,2.3600000000000017,2360,118,0.051197004,-0.016160168,0.052392203,-0.10772909,0.077945314,-0.010819452,1.5,0.0,0.0,-0.011040134,-0.16599709,-0.025795577,0.007979492,0.19311734,-0.07850358,-0.0032091085,0.064802535,-0.04778423,-0.17262724,-0.10126065,-0.09075511,-0.12001024,0.0002703045,0.01677581,0.06100515,-0.027036887,0.059310414,-0.051743347,-0.0075677484,0.12233267,-0.023327436,0.028962662,-0.16483638,0.07312052,-2.0,-1.0514811,-2.0,2.0,1.7168822,-2.0,2.0,2.0,-2.0,-2.0,-2.0,-2.0,-2.0,2.0,-2.0,2.0,-2.0,-2.0,2.0,-2.0,-2.0,-2.0,2.0,-2.0
2025-07-21 14:29:28.858,2.3800000000000017,2380,119,-0.0032465989,0.02117729,-0.03850895,-0.09193716,0.13585693,-0.0040308377,1.5,0.0,0.0,-0.010880001,-0.18064728,0.002525519,-0.010625104,0.19364998,-0.10080877,0.017691357,0.065675035,-0.054229837,-0.16029215,-0.08674049,-0.07662319,-0.13633883,-0.08659503,0.069056585,-0.03172412,-0.06705698,-0.1546782,0.07430034,-0.005815118,-0.10248092,0.0044080555,0.02115578,0.040948793,0.010423993,-2.0,2.0,-2.0,2.0,-2.0,-2.0,2.0,-2.0,-2.0,-2.0,2.0,-2.0,-2.0,-0.5408026,-2.0,2.0,2.0,-2.0,2.0,2.0,-2.0,-2.0,-2.0,-2.0
2025-07-21 14:29:28.876,2.4000000000000017,2400,120,0.010371471,-0.009821186,-0.015977966,-0.12156203,0.07463451,0.026143124,1.5,0.0,0.0,-0.010782222,-0.18107574,0.005754188,-0.0071671377,0.1800974,-0.08494291,-0.0032354412,0.063063845,-0.029100692,-0.18547831,-0.09109989,-0.10053289,-0.12509479,-0.009042394,0.0050633713,-0.0035061147,-0.06159799,0.009849128,0.049602725,0.03686179,0.033388436,-0.015319558,0.01622953,-0.08642573,0.057360772,-2.0,-0.5408026,-2.0,2.0,2.0,-2.0,2.0,2.0,-2.0,-2.0,-2.0,-2.0,-2.0,2.0,-2.0,2.0,-2.0,-2.0,2.0,-2.0,-2.0,-2.0,2.0,-2.0
2025-07-21 14:29:28.896,2.4200000000000017,2420,121,0.06956175,-0.037537556,0.02539151,-0.019657405,0.081966795,0.015585409,1.5,0.0,0.0,-0.010553603,-0.18270954,0.028586645,-0.0051212003,0.19325674,-0.09747892,0.0136208115,0.05481982,-0.043753985,-0.17263019,-0.10107556,-0.07112633,-0.1406987,-0.06990388,0.1035054,0.022808826,-0.0072091166,-0.06474435,0.10359164,0.057878517,-0.121093735,0.063871615,0.025726803,0.049130317,-0.08533011,-2.0,2.0,-2.0,2.0,-2.0,-2.0,2.0,-2.0,-2.0,-2.0,2.0,-2.0,-2.0,-2.0,-2.0,2.0,1.6176271,-2.0,2.0,2.0,-2.0,-2.0,-2.0,-2.0
2025-07-21 14:29:28.916,2.4400000000000017,2440,122,-0.019523403,0.048581496,0.032611664,-0.056947444,0.09498465,0.0059970138,1.5,0.0,0.0,-0.010330929,-0.1861242,-0.0009459932,-0.018589526,0.17592376,-0.09878225,-0.0021144853,0.061815597,-0.030937271,-0.19077644,-0.091308355,-0.104410395,-0.1297156,0.0032913596,-0.10827515,-0.0038365684,0.025297951,0.102199465,0.014133013,-0.065697104,0.029126871,-0.060867384,-0.013928763,-0.14765745,0.07854881,-2.0,-2.0,-2.0,2.0,1.6176271,-2.0,2.0,2.0,-2.0,-2.0,-2.0,-2.0,-2.0,2.0,-2.0,2.0,-2.0,-2.0,2.0,-2.0,-2.0,-2.0,2.0,-2.0
2025-07-21 14:29:28.941,2.4600000000000017,2460,123,0.075958766,0.025360648,-0.064544424,-0.06348977,0.11009699,-0.04877349,1.5,0.0,0.0,-0.009883841,-0.18105802,-0.017953271,-0.044061482,0.1866583,-0.10122011,0.006091232,0.05075011,-0.048261978,-0.1598197,-0.10073475,-0.07662316,-0.12858738,0.043065686,-0.014568321,-0.022824673,-0.07544185,-0.04707426,0.019093296,-0.00029612883,-0.063910015,0.03953066,-0.0551585,0.05427628,-0.082741894,-2.0,2.0,-2.0,2.0,-2.0,-2.0,2.0,-2.0,-2.0,-2.0,2.0,-2.0,-2.0,-1.290625,-2.0,2.0,1.6392889,-2.0,2.0,2.0,-2.0,-2.0,-2.0,-2.0
2025-07-21 14:29:28.958,2.4800000000000018,2480,124,0.02884295,-0.0022192197,-0.049829304,-0.115544446,0.11461418,-0.03973935,1.5,0.0,0.0,-0.009675933,-0.18606971,-0.028082436,-0.023574322,0.1733252,-0.10191114,0.009362079,0.054712597,-0.030803446,-0.17632791,-0.09236608,-0.098451346,-0.12507375,0.066914625,-0.008049909,-0.015776813,0.030078454,0.01995246,0.036040068,-0.042968053,0.15167876,-0.059211534,-0.081877805,-0.04894052,-0.038680367,-2.0,-1.290625,-2.0,2.0,1.6392889,-2.0,2.0,2.0,-2.0,-2.0,-2.0,-2.0,-2.0,2.0,-2.0,2.0,-2.0,-2.0,2.0,-2.0,-2.0,-2.0,2.0,-2.0
2025-07-21 14:29:28.976,2.5000000000000018,2500,125,0.008319086,-0.012106824,-0.056012936,-0.0543625,0.085632995,-0.035131402,1.5,0.0,0.0,-0.009357833,-0.18572974,-0.03047495,-0.026826225,0.1714091,-0.12651673,0.022022467,0.048453927,-0.045403168,-0.16449383,-0.09992175,-0.082944974,-0.13916887,0.041934904,0.086141475,-0.020567657,-0.033230454,-0.0072970744,0.001924164,-0.062291898,-0.15730216,-0.007104856,-0.068000965,0.03361179,-0.04878661,-2.0,2.0,-2.0,2.0,-2.0,-2.0,2.0,-2.0,-2.0,-2.0,2.0,-2.0,-2.0,-1.8193535,-2.0,2.0,2.0,-2.0,2.0,2.0,-2.0,-2.0,-2.0,-2.0
2025-07-21 14:29:28.996,2.520000000000002,2520,126,0.032770846,0.025608798,-0.024866732,-0.09121448,0.1586536,-0.04713281,1.5,0.0,0.0,-0.009073013,-0.18463622,-0.041324846,-0.035841454,0.16961533,-0.11436707,0.00771925,0.064619154,-0.03032432,-0.1842394,-0.08467758,-0.10959657,-0.12852778,0.051836696,-0.10588697,-0.07506002,0.022691192,-0.0023181085,0.05345986,0.065765284,0.07226925,-0.069222234,-0.0044195303,-0.07338871,0.032224055,-2.0,-1.8193535,-2.0,2.0,2.0,-2.0,2.0,2.0,-2.0,-2.0,-2.0,-2.0,-2.0,2.0,-2.0,2.0,-2.0,-2.0,2.0,-2.0,-2.0,-2.0,2.0,-2.0
2025-07-21 14:29:29.016,2.540000000000002,2540,127,0.048819773,0.078000546,-0.05886049,-0.02854434,0.09122702,-0.0064777615,1.5,0.0,0.0,-0.008614088,-0.1831688,-0.045039244,-0.053419337,0.18224202,-0.12528864,0.019252654,0.058626086,-0.05320323,-0.16998084,-0.09375398,-0.0879369,-0.13879888,0.058361944,-0.02909887,0.011740825,-0.04059295,-0.007053661,0.04179232,-0.010277004,-0.10416922,0.099487305,0.002232284,0.124930516,0.004006353,-2.0,2.0,-2.0,2.0,-2.0,-2.0,2.0,-2.0,-2.0,-2.0,2.0,-2.0,-2.0,-0.9117185,-2.0,2.0,1.8973994,-2.0,2.0,2.0,-2.0,-2.0,-2.0,-2.0
2025-07-21 14:29:29.041,2.560000000000002,2560,128,-0.015397886,0.048262652,-0.0070308964,-0.038654964,0.12455868,0.028079368,1.5,0.0,0.0,-0.008371976,-0.19232017,-0.049791463,-0.037302583,0.18276308,-0.10808353,0.014776329,0.06521275,-0.033448793,-0.1787475,-0.082287125,-0.10820798,-0.1346436,0.008615676,0.028649012,0.03654799,0.008511135,0.07287196,0.013465244,0.055377018,0.057471033,-0.08126184,0.05546165,-0.10520813,0.07179218,-2.0,-0.9117185,-2.0,2.0,1.8973994,-2.0,2.0,2.0,-2.0,-2.0,-2.0,-2.0,-2.0,2.0,-2.0,2.0,-2.0,-2.0,2.0,-2.0,-2.0,-2.0,2.0,-2.0
2025-07-21 14:29:29.059,2.580000000000002,2580,129,0.04740335,-0.01923048,-0.050275896,-0.032989733,0.09852086,-0.036671337,3.0,0.0,0.0,-0.008144418,-0.19550122,-0.04278349,-0.03904023,0.18130958,-0.12054859,0.01531385,0.058308072,-0.053853374,-0.16258582,-0.08483728,-0.085170165,-0.16326,-0.022168897,0.07961602,0.036362763,-0.022577222,-0.062335957,-0.009044733,-0.045948327,-0.0551719,0.10172377,-0.013015937,0.14257595,-0.043994814,-2.0,2.0,-2.0,2.0,-2.0,-2.0,2.0,-2.0,-2.0,-2.0,2.0,-2.0,-2.0,-2.0,-2.0,2.0,0.17632335,-2.0,2.0,2.0,-2.0,-2.0,-2.0,-2.0
2025-07-21 14:29:29.079,2.600000000000002,2600,130,-0.0035649748,0.026666632,0.07500744,-0.08344074,0.094647564,0.042030104,3.0,0.0,0.0,-0.007920161,-0.1812626,-0.069419265,-0.03746122,0.17277853,-0.1330754,-0.0017195788,0.05342867,-0.025084078,-0.17650494,-0.07693863,-0.11213163,-0.14127713,0.09644361,-0.15124588,-0.0035690197,0.04357334,0.047721967,0.035601795,0.042848453,0.029834209,-0.027205838,0.033953287,-0.14322262,0.061210558,-2.0,-2.0,-2.0,2.0,0.17632335,-2.0,2.0,2.0,-2.0,-2.0,-2.0,-2.0,-2.0,-2.0,-2.0,2.0,-2.0,-2.0,2.0,-0.16244033,-2.0,-2.0,2.0,-2.0
2025-07-21 14:29:29.106,2.620000000000002,2620,131,-0.03490506,0.17038684,0.018122138,-0.119561255,0.10661401,-0.03931271,3.0,0.0,0.0,-0.0077585913,-0.1729783,-0.14672938,-0.051773965,0.1909485,-0.15253612,0.023818323,0.055522367,-0.017405264,-0.17974693,-0.08309057,-0.08522354,-0.1611292,0.083886266,-0.15482439,-0.13177094,-0.033924017,-0.08818471,0.07616706,-0.05256677,0.023967443,0.01901453,-0.014354974,0.079637036,-0.028546821,-2.0,-2.0,-2.0,2.0,-2.0,-2.0,2.0,-0.16244033,-2.0,-2.0,2.0,-2.0,-2.0,1.1878552,-2.0,2.0,1.7583761,-2.0,2.0,2.0,-2.0,-2.0,-2.0,-2.0
2025-07-21 14:29:29.124,2.640000000000002,2640,132,0.20274644,0.10105565,0.13860746,-0.14050636,0.10922874,-0.014733309,3.0,0.0,0.0,-0.008121487,-0.17440368,-0.16069104,-0.041089732,0.17647392,-0.14865758,0.019016257,0.05144,2.6622687e-05,-0.18176563,-0.07766603,-0.10339635,-0.1543187,-0.045024585,-0.044492874,-0.02853476,0.043886047,0.005489898,-0.013250385,0.03405132,0.06713409,-0.03583471,-0.040986754,-0.16380632,-0.030771162,-2.0,1.1878552,-2.0,2.0,1.7583761,-2.0,2.0,2.0,-2.0,-2.0,-2.0,-2.0,-2.0,-2.0,-2.0,2.0,-1.9666915,-2.0,2.0,-2.0,-2.0,-2.0,2.0,-2.0
2025-07-21 14:29:29.141,2.660000000000002,2660,133,-0.08034646,0.057641264,-0.05418376,-0.14755657,0.15816142,0.007925976,3.0,0.0,0.0,-0.009140051,-0.17379911,-0.1821558,-0.03695907,0.19376484,-0.15224482,0.035547182,0.04693863,-0.01873131,-0.16953525,-0.083458744,-0.06901073,-0.17739034,0.019136667,-0.13846575,0.008328894,0.009200226,-0.06734648,-0.015194454,0.0012670188,-0.25918722,-0.005351462,0.06462267,0.09447779,-0.056170054,-2.0,-2.0,-2.0,2.0,-1.9666915,-2.0,2.0,-2.0,-2.0,-2.0,2.0,-2.0,-2.0,0.18781105,-2.0,2.0,2.0,-2.0,2.0,2.0,-2.0,-2.0,-2.0,-2.0
2025-07-21 14:29:29.160,2.680000000000002,2680,134,0.0042842254,0.0374335,0.05381528,-0.10280351,0.14206015,-0.04121321,3.0,0.0,0.0,-0.00990564,-0.1770496,-0.19410957,-0.03677112,0.18441425,-0.15600827,0.030859651,0.050372142,-0.016224159,-0.19020458,-0.09572137,-0.06526305,-0.17454483,0.028563548,0.024715353,-0.023104772,0.058386672,0.08523389,-0.08813851,-0.071774326,0.044737592,-0.066049166,0.061630093,-0.14967997,0.12729548,-2.0,0.18781105,-2.0,2.0,2.0,-2.0,2.0,2.0,-2.0,-2.0,-2.0,-2.0,-2.0,-1.5453357,-2.0,2.0,-2.0,-2.0,2.0,-2.0,-2.0,-2.0,2.0,-2.0
2025-07-21 14:29:29.180,2.700000000000002,2700,135,-0.033314858,0.15070204,-0.05192403,-0.1008861,0.1253358,-0.011745,3.0,0.0,0.0,-0.010740086,-0.1824184,-0.19692498,-0.020827133,0.18010093,-0.18136841,0.037768804,0.053835757,-0.056609217,-0.18376933,-0.10360489,-0.07887369,-0.1836756,-0.060664818,-0.048952926,0.008791662,0.052880775,-0.07165816,0.013884846,-0.01170479,-0.20672043,0.0353818,0.055113167,-0.013531966,0.0074336,-2.0,-1.5453357,-2.0,2.0,-2.0,-2.0,2.0,-2.0,-2.0,-2.0,2.0,-2.0,-2.0,0.6193243,-2.0,2.0,2.0,-2.0,2.0,2.0,-2.0,-2.0,-2.0,-2.0
2025-07-21 14:29:29.200,2.720000000000002,2720,136,0.12665771,-0.0031189984,0.026096828,-0.09963092,0.15427437,0.036271017,3.0,0.0,0.0,-0.010892673,-0.18437913,-0.21029994,-0.017774604,0.18679087,-0.16488388,0.01494398,0.054155085,-0.028359197,-0.19543399,-0.105745524,-0.09830547,-0.18356846,0.08721244,0.056755967,0.012266812,-0.011279264,-0.012997059,-0.06324334,-0.04084877,0.012371098,-0.08467336,0.04687216,-0.15811074,-0.0062514115,-2.0,0.6193243,-2.0,2.0,2.0,-2.0,2.0,2.0,-2.0,-2.0,-2.0,-2.0,-2.0,-2.0,-2.0,2.0,-2.0,-2.0,2.0,-2.0,-2.0,-2.0,2.0,-2.0
2025-07-21 14:29:29.224,2.740000000000002,2740,137,-0.10886708,-0.01757201,-0.057822205,-0.11775322,0.16438302,0.029485326,3.0,0.0,0.0,-0.010460907,-0.17177536,-0.23010403,-0.007501909,0.20101866,-0.17854476,0.016131403,0.059266824,-0.054082498,-0.168853,-0.10300699,-0.075973734,-0.22111337,-0.050309476,-0.13317245,0.044649262,-0.043814767,-0.10835958,0.07452181,0.032569032,-0.16457605,0.056098,-0.013988755,0.21880925,-0.05942503,-2.0,-2.0,-2.0,2.0,-2.0,-2.0,2.0,-2.0,-2.0,-2.0,2.0,-2.0,-2.0,0.92584383,-2.0,2.0,2.0,-2.0,2.0,2.0,-2.0,-2.0,-2.0,-2.0
2025-07-21 14:29:29.241,2.760000000000002,2760,138,0.09321063,0.004054709,0.05419933,-0.13750589,0.10038263,-0.0138386255,3.0,0.0,0.0,-0.009588615,-0.17312898,-0.24398553,-0.013966851,0.19360863,-0.19018309,0.0075687333,0.066773504,-0.059912156,-0.18926474,-0.09538155,-0.08906057,-0.20281368,-0.027182443,-0.048368417,-0.03650842,0.016181935,-0.02787109,-0.07941736,-0.0093148695,-0.014609644,-0.083925575,0.0068573356,-0.068605974,-0.019929836,-2.0,0.92584383,-2.0,2.0,2.0,-2.0,2.0,2.0,-2.0,-2.0,-2.0,-2.0,-2.0,-1.0665113,-2.0,2.0,-2.0,-2.0,2.0,-2.0,-2.0,-2.0,2.0,-2.0
2025-07-21 14:29:29.260,2.780000000000002,2780,139,0.008617739,0.17070407,-0.046167597,-0.12815017,0.14723262,0.035791177,3.0,0.0,0.0,-0.00883124,-0.17480648,-0.23538415,0.0059273257,0.19861606,-0.18684934,0.0064682,0.07645946,-0.08509762,-0.17192614,-0.09164364,-0.083245166,-0.21273835,-0.08184357,0.04410291,0.0020291149,-0.0671529,-0.07527483,0.037483882,-0.02075928,-0.115762316,0.05211529,0.023594793,0.009406416,-0.037952635,-2.0,-1.0665113,-2.0,2.0,-2.0,-2.0,2.0,-2.0,-2.0,-2.0,2.0,-2.0,-2.0,-0.32054624,-2.0,2.0,1.8963962,-2.0,2.0,2.0,-2.0,-2.0,-2.0,-2.0
2025-07-21 14:29:29.280,2.800000000000002,2800,140,0.03716658,0.035659846,-0.073923856,-0.1582322,0.122974105,0.024407387,3.0,0.0,0.0,-0.008024577,-0.18047449,-0.24463604,-0.0020083438,0.19064537,-0.18664476,-0.021369345,0.064986944,-0.06273483,-0.19117823,-0.09023051,-0.1135359,-0.21403874,-0.025757074,-0.06422458,0.014236487,0.033735808,-0.014552255,-0.104145326,0.032577265,0.108311236,-0.02120764,0.031211752,-0.1957753,-0.048491668,-2.0,-0.32054624,-2.0,2.0,1.8963962,-2.0,2.0,2.0,-2.0,-2.0,-2.0,-2.0,-2.0,0.7250911,-2.0,2.0,-2.0,-2.0,2.0,-2.0,-2.0,-2.0,2.0,-2.0
2025-07-21 14:29:29.307,2.820000000000002,2820,141,0.0022267255,-0.037869357,-0.118125595,-0.12574616,0.14310353,-0.03272491,3.0,0.0,0.0,-0.0066752178,-0.17054419,-0.26048312,0.00762228,0.20415442,-0.19220917,-0.02199619,0.08211223,-0.074474685,-0.20053925,-0.09576957,-0.0749348,-0.24449086,-0.0318418,0.03275443,0.010549065,0.083936505,-0.044175696,0.08469767,-0.00756701,-0.15196331,0.011971082,0.004159442,0.21259162,-0.0463027,-2.0,0.7250911,-2.0,2.0,-2.0,-2.0,2.0,-2.0,-2.0,-2.0,2.0,-2.0,-2.0,-2.0,-2.0,2.0,0.74211353,-2.0,2.0,2.0,-2.0,-2.0,-2.0,-2.0
2025-07-21 14:29:29.324,2.840000000000002,2840,142,0.09118066,0.0065879826,-0.04494267,-0.11836093,0.17340808,-0.02252655,3.0,0.0,0.0,-0.005137379,-0.16668767,-0.2737067,-0.0076539326,0.20081009,-0.21008185,-0.013205889,0.09021525,-0.074348465,-0.20573816,-0.09033865,-0.0732202,-0.22385766,0.05585664,-0.06649814,-0.0055813985,0.076067545,0.060801033,0.0026184856,-0.05286028,0.041531496,0.005996933,-0.040232353,-0.124585554,0.11687065,-2.0,-2.0,-2.0,2.0,0.74211353,-2.0,2.0,2.0,-2.0,-2.0,-2.0,-2.0,-2.0,2.0,-2.0,2.0,-2.0,-2.0,2.0,-2.0,-2.0,-2.0,2.0,-2.0
2025-07-21 14:29:29.341,2.860000000000002,2860,143,0.13110177,0.05763872,-0.005564627,-0.12278284,0.17299883,-0.001756394,3.0,0.0,0.0,-0.003944999,-0.17241468,-0.2545556,-0.015220025,0.20520093,-0.21130414,-0.014638748,0.09723562,-0.109160475,-0.20372346,-0.088401034,-0.082348645,-0.22701503,-0.05349878,0.07958697,0.04957519,0.03165868,-0.068575725,-0.07033683,0.07146964,-0.19440435,0.043538183,0.037110664,0.097113706,0.003847721,-2.0,2.0,-2.0,2.0,-2.0,-2.0,2.0,-2.0,-2.0,-2.0,2.0,-2.0,-2.0,-2.0,-2.0,2.0,0.8451825,-2.0,2.0,2.0,-2.0,-2.0,-2.0,-2.0
2025-07-21 14:29:29.361,2.880000000000002,2880,144,0.058612235,0.027785929,-0.05759541,-0.18419541,0.15501979,0.019026691,3.0,0.0,0.0,-0.0031983203,-0.17047025,-0.27872694,-0.014251429,0.21015616,-0.2146468,-0.046910513,0.10225978,-0.07047124,-0.21922326,-0.08743606,-0.108619064,-0.22108307,-0.007747522,-0.060365055,-0.0057383655,-0.049056325,-0.0016794081,-0.041636534,-0.021481657,0.24810693,-0.14634387,-0.04689824,-0.13536166,-0.04446021,-2.0,-2.0,-2.0,2.0,0.8451825,-2.0,2.0,2.0,-2.0,-2.0,-2.0,-2.0,-2.0,2.0,-2.0,2.0,-2.0,-2.0,2.0,-2.0,-2.0,-2.0,2.0,-2.0
2025-07-21 14:29:29.380,2.900000000000002,2900,145,0.0065469616,-0.08608256,-0.02688527,-0.12276051,0.14121148,0.013271647,3.0,0.0,0.0,-0.0022963653,-0.16920976,-0.27628922,-0.00988434,0.20282134,-0.2442169,-0.047405597,0.09650186,-0.077019684,-0.21753937,-0.09278939,-0.0842878,-0.23691812,8.6486856e-05,-0.009417088,-0.10057268,-0.040543262,-0.13997522,-0.013558791,0.021230772,-0.06790029,0.049520057,-0.047661923,0.18664998,-0.027392711,-2.0,2.0,-2.0,2.0,-2.0,-2.0,2.0,-2.0,-2.0,-2.0,2.0,-2.0,-2.0,-2.0,-2.0,2.0,1.0723774,-2.0,2.0,2.0,-2.0,-2.0,-2.0,-2.0
2025-07-21 14:29:29.407,2.920000000000002,2920,146,0.060834218,-0.00057247106,0.051326256,-0.15634634,0.17899613,-0.023225605,3.0,0.0,0.0,-0.0010684767,-0.17501758,-0.29933536,-0.033624336,0.19952682,-0.24967194,-0.028617816,0.11398059,-0.07968823,-0.22401625,-0.10082955,-0.072270066,-0.24504478,-0.06504257,-0.05985202,0.037640072,-0.042120256,-0.030148728,-0.05638121,-0.017025702,-0.056499664,-0.077007815,-0.029386772,-0.08121873,0.09361234,-2.0,-2.0,-2.0,2.0,1.0723774,-2.0,2.0,2.0,-2.0,-2.0,-2.0,-2.0,-2.0,2.0,-2.0,2.0,-2.0,-2.0,2.0,-2.0,-2.0,-2.0,2.0,-2.0
2025-07-21 14:29:29.424,2.940000000000002,2940,147,0.10619343,0.097815715,0.007976357,-0.10512386,0.19230354,0.0041242125,3.0,0.0,0.0,-0.00066422415,-0.1735524,-0.28962588,-0.03928521,0.21603633,-0.25860846,-0.030200075,0.112566,-0.1211039,-0.22385034,-0.103087634,-0.0708268,-0.23018442,-0.016424814,0.011247156,-0.08350144,0.037152056,0.004014305,0.058598906,-0.019811261,-0.15365124,0.05729064,-0.0042020367,0.07811613,0.004144189,-2.0,2.0,-2.0,2.0,-2.0,-2.0,2.0,-2.0,-2.0,-2.0,2.0,-2.0,-2.0,-2.0,-2.0,2.0,1.2587461,-2.0,2.0,2.0,-2.0,-2.0,-2.0,-2.0
2025-07-21 14:29:29.441,2.960000000000002,2960,148,0.08568282,0.09233618,0.0032208608,-0.09847562,0.19503377,-0.020815635,3.0,0.0,0.0,0.006954269,-0.17227137,-0.28284112,-0.032728065,0.20933259,-0.25996384,-0.044755995,0.108454295,-0.07484037,-0.2502092,-0.11309653,-0.113951765,-0.24726723,-0.01430971,-0.105676286,0.07274508,-0.032336187,0.036547527,-0.05791246,0.039909735,0.15590765,-0.053717032,0.03044046,-0.16381687,-0.03341195,-2.0,-2.0,-2.0,2.0,1.2587461,-2.0,2.0,2.0,-2.0,-2.0,-2.0,-2.0,-2.0,2.0,-2.0,2.0,-2.0,-2.0,2.0,-2.0,-2.0,-2.0,2.0,-2.0
2025-07-21 14:29:29.461,2.980000000000002,2980,149,0.028647313,-0.047848973,0.043557502,-0.17034706,0.14826421,-0.025636952,3.0,0.0,0.0,0.014583529,-0.17807972,-0.3006945,-0.04923816,0.19751646,-0.28577107,-0.04447206,0.11753702,-0.06926742,-0.23698488,-0.111515544,-0.075790316,-0.25958723,0.052181445,0.015634406,0.029759405,0.0013141263,-0.007000761,0.014708216,0.06265526,-0.023989752,0.050501924,-0.04603819,0.26766297,-0.07016244,-2.0,2.0,-2.0,2.0,-2.0,-2.0,2.0,-2.0,-2.0,-2.0,2.0,-2.0,-2.0,-2.0,-2.0,2.0,1.4030933,-2.0,2.0,2.0,-2.0,-2.0,-2.0,-2.0
2025-07-21 14:29:29.481,3.000000000000002,3000,150,-0.04342004,-0.022859072,-5.6873458e-05,-0.09465319,0.1502275,-0.047378782,3.0,0.0,0.0,0.022608008,-0.18512093,-0.3173402,-0.043109808,0.21230716,-0.28083652,-0.038479432,0.11445115,-0.05683824,-0.25375924,-0.10614626,-0.07306728,-0.248182,-0.064305335,-0.05102971,-0.052824173,-0.044803075,-0.026198553,-0.036294844,-0.016498167,0.107699126,-0.06610985,-0.08907521,-0.14877015,0.11934422,-2.0,-2.0,-2.0,2.0,1.4030933,-2.0,2.0,2.0,-2.0,-2.0,-2.0,-2.0,-2.0,2.0,-2.0,2.0,-2.0,-2.0,2.0,-2.0,-2.0,-2.0,2.0,-2.0
2025-07-21 14:29:29.507,3.0200000000000022,3020,151,0.097934976,0.0651026,0.05473789,-0.12567505,0.1685734,-0.005877856,1.5,0.0,0.0,0.03036883,-0.19742994,-0.29489735,-0.06232803,0.20161937,-0.30872884,-0.03480925,0.12160257,-0.0790806,-0.24996449,-0.11608431,-0.08547705,-0.24465917,-0.064425886,-0.037721675,0.0126033,0.058069438,-0.07084841,-0.036273163,0.0617059,-0.14322156,-0.02542961,-0.050337918,0.039465137,-0.0063964687,-2.0,2.0,-2.0,2.0,-2.0,-2.0,2.0,-2.0,-2.0,-2.0,2.0,-2.0,-2.0,2.0,-2.0,2.0,2.0,-2.0,2.0,-0.9362391,-2.0,-2.0,-2.0,-2.0
2025-07-21 14:29:29.524,3.0400000000000023,3040,152,-0.008105563,-0.025368681,0.061351836,-0.102311485,0.20309849,-0.028960647,1.5,0.0,0.0,0.037889216,-0.18418983,-0.29178277,-0.084996425,0.19105926,-0.30476502,-0.044086944,0.115213566,-0.11941418,-0.24129596,-0.12463976,-0.10798242,-0.2426647,-0.005373574,-0.0037904806,-0.06076574,0.06567591,0.034729067,-0.09290361,0.08499133,-0.047233187,-0.039632328,-0.037737902,-0.17378679,0.0798951,-2.0,2.0,-2.0,2.0,2.0,-2.0,2.0,-0.9362391,-2.0,-2.0,-2.0,-2.0,-2.0,-1.8644196,-2.0,2.0,-1.4292965,-2.0,2.0,-2.0,-2.0,-2.0,2.0,-2.0
2025-07-21 14:29:29.541,3.0600000000000023,3060,153,-0.013911619,-0.0059281653,-0.011533392,-0.14873052,0.16988356,0.01570876,1.5,0.0,0.0,0.045505226,-0.19894254,-0.2984906,-0.100059174,0.2017631,-0.3046373,-0.05149827,0.115273006,-0.17524005,-0.23890811,-0.11846583,-0.08377583,-0.25817457,-0.053711973,-0.054763537,-0.03248235,0.009389767,0.0023105254,-0.08063114,-0.019337831,-0.17121135,-0.06508572,-0.012568628,0.18672204,-0.0053642755,-2.0,-1.8644196,-2.0,2.0,-1.4292965,-2.0,2.0,-2.0,-2.0,-2.0,2.0,-2.0,-2.0,1.8077189,-2.0,2.0,2.0,-2.0,2.0,2.0,-2.0,-2.0,-2.0,-2.0
2025-07-21 14:29:29.561,3.0800000000000023,3080,154,0.08658998,-0.011718587,0.044169106,-0.14251657,0.14181489,0.015648015,1.5,0.0,0.0,0.053292047,-0.18594185,-0.30332074,-0.10787054,0.20260434,-0.3192058,-0.0683193,0.12670867,-0.1513042,-0.2568844,-0.124800205,-0.0731745,-0.25325206,0.00610876,0.08503294,0.021109164,0.013150193,0.03292068,0.015554678,0.0009753524,0.22565489,0.012156845,-0.05300667,-0.11629537,-0.012490369,-2.0,1.8077189,-2.0,2.0,2.0,-2.0,2.0,2.0,-2.0,-2.0,-2.0,-2.0,-2.0,-2.0,-2.0,2.0,-2.0,-2.0,2.0,-2.0,-2.0,-2.0,2.0,-2.0
2025-07-21 14:29:29.581,3.1000000000000023,3100,155,-0.021724392,0.12153256,-0.04831703,-0.13066845,0.1462109,0.0051354766,1.5,0.0,0.0,0.060675327,-0.19370362,-0.31207538,-0.12026493,0.18115607,-0.32550701,-0.06575792,0.11735977,-0.12774634,-0.24751444,-0.13248077,-0.085600376,-0.25545585,-0.060420297,-0.09559582,-0.077095844,-0.07144948,-0.0076805456,0.055647045,0.06713003,-0.011306464,0.021566758,-0.013136101,-0.0011042174,-0.07095399,-2.0,-2.0,-2.0,2.0,-2.0,-2.0,2.0,-2.0,-2.0,-2.0,2.0,-2.0,-2.0,1.6536247,-2.0,2.0,1.3838046,-2.0,2.0,2.0,-2.0,-2.0,-2.0,-2.0
2025-07-21 14:29:29.607,3.1200000000000023,3120,156,0.1382117,0.007982798,0.08422942,-0.13856551,0.13924333,0.04467426,1.5,0.0,0.0,0.06828943,-0.20344286,-0.3118409,-0.12226591,0.17511633,-0.3306958,-0.07505231,0.12016196,-0.050332185,-0.2555245,-0.14131153,-0.11002301,-0.24269533,-0.024919804,-0.034590404,-0.017436825,-0.04969372,0.024368875,-0.02459285,-0.042607807,0.20776443,-0.06837342,0.045871627,-0.1847478,0.022239374,-2.0,1.6536247,-2.0,2.0,1.3838046,-2.0,2.0,2.0,-2.0,-2.0,-2.0,-2.0,-2.0,1.0687913,-2.0,2.0,-1.3805592,-2.0,2.0,-2.0,-2.0,-2.0,2.0,-2.0
2025-07-21 14:29:29.624,3.1400000000000023,3140,157,0.05204847,-0.002351257,0.015330749,-0.20359774,0.17652573,-0.025248868,1.5,0.0,0.0,0.075923316,-0.19937898,-0.31844798,-0.12820083,0.1918086,-0.34667087,-0.07091089,0.13369608,-0.028884513,-0.25008717,-0.13413385,-0.10149129,-0.26529643,-0.07813529,0.051992543,-0.024676306,-0.024730608,0.03930822,-0.043930974,-0.037188187,-0.14399756,0.0026625886,0.0216502,0.18469091,-0.08308099,-2.0,1.0687913,-2.0,2.0,-1.3805592,-2.0,2.0,-2.0,-2.0,-2.0,2.0,-2.0,-2.0,2.0,-2.0,2.0,0.9679715,-2.0,2.0,-0.7320546,-2.0,-2.0,-2.0,-2.0
2025-07-21 14:29:29.641,3.1600000000000024,3160,158,0.025126742,-0.21425703,-0.0007382426,-0.13378926,0.18736012,-0.036011413,1.5,0.0,0.0,0.083688706,-0.19736545,-0.32037196,-0.1628973,0.17583403,-0.34949514,-0.08774531,0.122805476,-0.07393002,-0.23297246,-0.132344,-0.07477417,-0.25027075,0.00033388418,0.058634393,-0.025242003,-0.008985325,-0.048223954,-0.07633066,0.062357403,-0.048884153,0.056743585,0.04254033,-0.09793626,0.057151828,-2.0,2.0,-2.0,2.0,0.9679715,-2.0,2.0,-0.7320546,-2.0,-2.0,-2.0,-2.0,-2.0,0.21378341,-2.0,2.0,0.022437751,-2.0,2.0,-2.0,-2.0,-2.0,2.0,-2.0
2025-07-21 14:29:29.661,3.1800000000000024,3180,159,-0.03096022,0.092826895,0.006370906,-0.107673004,0.22122523,0.018511223,1.5,0.0,0.0,0.091415174,-0.20059931,-0.30674437,-0.16164497,0.16969223,-0.3468152,-0.100449346,0.12854731,-0.12676708,-0.24323168,-0.1261835,-0.085531965,-0.26091114,0.042594187,0.0676067,0.014102017,-0.02733432,-0.049263585,0.042862974,-0.05107223,-0.20848626,0.051094588,-0.084474,0.034058936,-0.007558436,-2.0,0.21378341,-2.0,2.0,0.022437751,-2.0,2.0,-2.0,-2.0,-2.0,2.0,-2.0,-2.0,-2.0,-2.0,2.0,0.3004076,-2.0,2.0,2.0,-2.0,-2.0,-2.0,-2.0
2025-07-21 14:29:29.681,3.2000000000000024,3200,160,0.064877145,0.12657079,0.034159455,-0.15259114,0.15314227,-0.008562009,1.5,0.0,0.0,0.09906331,-0.20011108,-0.32215792,-0.15672697,0.17673114,-0.35328364,-0.10458874,0.12835668,-0.10222768,-0.2495836,-0.13587524,-0.114267975,-0.25293535,-0.06414743,-0.094662175,0.005937976,0.052260406,0.050328534,-0.062184963,0.032755367,0.24085072,-0.031433962,-0.07171258,-0.10110032,0.084129676,-2.0,-2.0,-2.0,2.0,0.3004076,-2.0,2.0,2.0,-2.0,-2.0,-2.0,-2.0,-2.0,2.0,-2.0,2.0,2.0,-2.0,2.0,-2.0,-2.0,-2.0,2.0,-2.0
2025-07-21 14:29:29.708,3.2200000000000024,3220,161,0.009090523,0.117041014,-0.06551984,-0.21005559,0.20107539,-0.04071341,1.5,0.0,0.0,0.10649313,-0.21937275,-0.32688117,-0.16528785,0.16316353,-0.35390833,-0.10204683,0.13456626,-0.07604074,-0.25000766,-0.1405967,-0.080708064,-0.2727906,0.043521997,0.04727414,-0.061446335,-0.042466287,0.044784937,-0.028575221,0.025027726,-0.061781358,0.00056155765,-0.05676948,0.15656535,-0.030835556,-2.0,2.0,-2.0,2.0,2.0,-2.0,2.0,-2.0,-2.0,-2.0,2.0,-2.0,-2.0,-2.0,-2.0,2.0,-0.2080012,-2.0,2.0,2.0,-2.0,-2.0,-2.0,-2.0
2025-07-21 14:29:29.724,3.2400000000000024,3240,162,0.016397644,0.07012597,-0.02106678,-0.19065198,0.14737253,0.028718183,1.5,0.0,0.0,0.11406354,-0.21789765,-0.3260135,-0.17734423,0.16356583,-0.34847334,-0.11486356,0.13127092,-0.034895703,-0.25896642,-0.1309704,-0.07522711,-0.26876792,0.057662815,-0.08385779,0.07717399,-0.048196018,-0.00869306,-0.0279293,-0.036840446,0.1497304,0.002100465,-0.023131277,-0.037284758,-0.0227648,-2.0,-2.0,-2.0,2.0,-0.2080012,-2.0,2.0,2.0,-2.0,-2.0,-2.0,-2.0,-2.0,2.0,-2.0,2.0,2.0,-2.0,2.0,-2.0,-2.0,-2.0,2.0,-2.0
2025-07-21 14:29:29.742,3.2600000000000025,3260,163,-0.053929165,0.13606751,-0.009362188,-0.17076571,0.13993552,-0.02603541,1.5,0.0,0.0,0.12160892,-0.21366125,-0.33579335,-0.18245639,0.16439016,-0.3522217,-0.12555452,0.1265325,-0.033726554,-0.25089163,-0.13000116,-0.03455785,-0.2587954,0.06588013,-0.05623397,-0.07395934,-0.06465047,0.009374899,-0.08081212,0.006410182,-0.11912595,-0.020694641,0.022650652,0.21742553,-0.049272753,-2.0,2.0,-2.0,2.0,2.0,-2.0,2.0,-2.0,-2.0,-2.0,2.0,-2.0,-2.0,-2.0,-2.0,2.0,0.4995908,-2.0,2.0,2.0,-2.0,-2.0,-2.0,-2.0
2025-07-21 14:29:29.762,3.2800000000000025,3280,164,0.08641935,0.124461286,0.071144216,-0.20302027,0.22133353,0.013648975,1.5,0.0,0.0,0.1294443,-0.21455617,-0.35609153,-0.1822212,0.15776768,-0.3476574,-0.1305916,0.12240973,-0.032963064,-0.26002645,-0.1312217,-0.031147948,-0.24732886,0.021599412,0.017943798,-0.023662183,0.01991689,-0.03904681,0.025007317,-0.04786739,0.06912647,-0.10123801,0.024483686,-0.04313395,0.10790421,-2.0,-2.0,-2.0,2.0,0.4995908,-2.0,2.0,2.0,-2.0,-2.0,-2.0,-2.0,-2.0,2.0,-2.0,2.0,1.834641,-2.0,2.0,-2.0,-2.0,-2.0,2.0,-2.0
2025-07-21 14:29:29.782,3.3000000000000025,3300,165,0.01264769,0.19376256,-0.007889575,-0.23663014,0.21968614,-0.043491077,1.5,0.0,0.0,0.13685992,-0.22322184,-0.36522353,-0.1874574,0.16039859,-0.34549537,-0.14773816,0.12843838,-0.07802508,-0.24720846,-0.12828422,0.0051617497,-0.26491177,0.01921294,-0.065609045,-0.042962827,-0.01926345,0.020287583,-0.10283846,0.09511421,-0.20037462,0.03710937,0.022394933,0.15873066,0.021985523,-2.0,2.0,-2.0,2.0,1.834641,-2.0,2.0,-2.0,-2.0,-2.0,2.0,-2.0,-2.0,-2.0,-2.0,2.0,0.80744785,-2.0,2.0,2.0,-2.0,-2.0,-2.0,-2.0
2025-07-21 14:29:29.808,3.3200000000000025,3320,166,0.070802696,0.18760566,0.019624362,-0.16696928,0.20935583,0.015775999,1.5,0.0,0.0,0.14399831,-0.2062103,-0.36765906,-0.17189948,0.17272888,-0.32648957,-0.15329312,0.12707004,-0.054860428,-0.25801173,-0.13802913,-0.0066723493,-0.25122458,-0.0632373,-0.08794815,0.00031283367,0.08474549,-0.011274673,0.04055282,-0.09249173,0.222675,-0.10313519,-0.024401482,-0.20308182,-0.03635436,-2.0,-2.0,-2.0,2.0,0.80744785,-2.0,2.0,2.0,-2.0,-2.0,-2.0,-2.0,-2.0,2.0,-2.0,2.0,0.9488556,-2.0,2.0,-2.0,-2.0,-2.0,2.0,-2.0
2025-07-21 14:29:29.824,3.3400000000000025,3340,167,0.0475111,0.19910464,0.009944591,-0.24913713,0.1881578,-0.03789578,1.5,0.0,0.0,0.15109582,-0.20643266,-0.3725393,-0.17135312,0.17342566,-0.31965694,-0.18246193,0.14043696,-0.03716414,-0.26289096,-0.13747948,0.0048993854,-0.26931533,0.07062285,-0.04696124,-0.002150388,0.056581385,-0.04332599,-0.06535652,0.044937477,-0.15418027,0.026068447,0.013420374,0.20094186,0.029110648,-2.0,2.0,-2.0,2.0,0.9488556,-2.0,2.0,-2.0,-2.0,-2.0,2.0,-2.0,-2.0,-2.0,-2.0,2.0,0.8250962,-2.0,2.0,2.0,-2.0,-2.0,-2.0,-2.0
2025-07-21 14:29:29.842,3.3600000000000025,3360,168,0.03297285,0.15268205,-0.05943497,-0.2155198,0.17821364,-0.036243644,1.5,0.0,0.0,0.15872934,-0.19459991,-0.397106,-0.17195326,0.17076094,-0.32352212,-0.19190717,0.122596964,-0.01585184,-0.27023208,-0.121241696,-0.0016665744,-0.2534536,-0.037996847,-0.07400521,-0.044329017,0.0009865483,0.048009515,-0.07611755,-0.028072156,0.12452735,-0.100818604,0.024715723,-0.13405259,0.02817592,-2.0,-2.0,-2.0,2.0,0.8250962,-2.0,2.0,2.0,-2.0,-2.0,-2.0,-2.0,-2.0,2.0,-2.0,2.0,1.8948724,-2.0,2.0,-2.0,-2.0,-2.0,2.0,-2.0
2025-07-21 14:29:29.862,3.3800000000000026,3380,169,0.0062109903,0.2088136,-0.094800785,-0.25071856,0.15652622,0.026461793,1.5,0.0,0.0,0.16650891,-0.20040992,-0.40163082,-0.18038188,0.17867193,-0.31467173,-0.20403571,0.12855342,-0.013165155,-0.24447021,-0.13266775,0.016904779,-0.26805973,-0.048602078,0.05141131,0.05344099,0.05008258,0.056129325,-0.07605956,-0.026479952,-0.18521753,0.050942257,0.047305275,0.14801094,-0.06930546,-2.0,2.0,-2.0,2.0,1.8948724,-2.0,2.0,-2.0,-2.0,-2.0,2.0,-2.0,-2.0,-2.0,-2.0,2.0,0.7037727,-2.0,2.0,2.0,-2.0,-2.0,-2.0,-2.0
2025-07-21 14:29:29.882,3.4000000000000026,3400,170,0.03191788,0.17787956,-0.087780476,-0.25151128,0.20106484,0.006872704,1.5,0.0,0.0,0.17499338,-0.20084682,-0.42104298,-0.17220357,0.17259766,-0.31171843,-0.2279506,0.13912013,0.005289076,-0.24837731,-0.12450348,0.011765363,-0.24465178,-0.054873623,-0.07943517,-0.058948863,0.0793191,0.01686795,0.017653788,0.0072650793,0.13677111,-0.01215142,0.02768867,-0.11981235,-0.028968656,-2.0,-2.0,-2.0,2.0,0.7037727,-2.0,2.0,2.0,-2.0,-2.0,-2.0,-2.0,-2.0,2.0,-2.0,2.0,2.0,-2.0,2.0,-2.0,-2.0,-2.0,2.0,-2.0
2025-07-21 14:29:29.908,3.4200000000000026,3420,171,0.04481898,0.24693948,-0.11983836,-0.2401449,0.1870999,-0.04648465,1.5,0.0,0.0,0.18375185,-0.19919263,-0.431938,-0.18379243,0.17425537,-0.29929966,-0.23968399,0.13729547,-0.0042810957,-0.25846204,-0.1273107,0.021290597,-0.25730944,-0.054720588,0.009871202,-0.06330319,0.06576258,0.071769305,-0.065993935,0.085254826,-0.09334436,-0.03440149,-0.06595807,0.113163546,-0.09250805,-2.0,2.0,-2.0,2.0,2.0,-2.0,2.0,-2.0,-2.0,-2.0,2.0,-2.0,-2.0,-2.0,-2.0,2.0,2.0,-2.0,2.0,2.0,-2.0,-2.0,-2.0,-2.0
2025-07-21 14:29:29.924,3.4400000000000026,3440,172,0.08024293,0.2881682,-0.082291074,-0.2646115,0.15497525,-0.009308028,1.5,0.0,0.0,0.1930801,-0.19963652,-0.4575828,-0.17921089,0.18648507,-0.28802073,-0.24882281,0.12502444,0.014835833,-0.26640555,-0.13121949,0.017268473,-0.24009156,-0.00081791665,-0.09687126,-0.01859517,-0.069953114,0.011656078,0.0124079175,0.031293117,0.12342908,0.02272386,0.040024325,-0.08392295,0.022833861,-2.0,-2.0,-2.0,2.0,2.0,-2.0,2.0,2.0,-2.0,-2.0,-2.0,-2.0,-2.0,2.0,-2.0,2.0,1.6016641,-2.0,2.0,-2.0,-2.0,-2.0,2.0,-2.0
2025-07-21 14:29:29.942,3.4600000000000026,3460,173,0.062911466,0.2807608,-0.10773024,-0.29738852,0.17073822,-0.014413415,1.5,0.0,0.0,0.20265344,-0.19427714,-0.46882626,-0.19290921,0.17255494,-0.28695667,-0.27174217,0.14481476,-0.0137911765,-0.25497884,-0.13185106,0.03349168,-0.26348,0.012297405,0.03839577,-0.022627095,0.00095534907,-0.03354486,-0.033198316,0.039663024,-0.15600139,0.06908478,0.06832937,0.15398404,0.02765421,-2.0,2.0,-2.0,2.0,1.6016641,-2.0,2.0,-2.0,-2.0,-2.0,2.0,-2.0,-2.0,-2.0,-2.0,2.0,1.2657115,-2.0,2.0,2.0,-2.0,-2.0,-2.0,-2.0
2025-07-21 14:29:29.962,3.4800000000000026,3480,174,0.119404905,0.3120407,-0.06671002,-0.37882265,0.2170514,-0.044562384,1.5,0.0,0.0,0.2128019,-0.18429509,-0.49143156,-0.19334398,0.18369648,-0.272388,-0.28898376,0.14739628,0.000439633,-0.2564356,-0.13447897,0.031021524,-0.23813707,0.061778486,0.00988593,-0.06301863,0.070301265,0.07117295,-0.039805684,-0.04075288,0.09233883,-0.042548165,-0.00054978504,-0.1182553,-0.0033395644,-2.0,-2.0,-2.0,2.0,1.2657115,-2.0,2.0,2.0,-2.0,-2.0,-2.0,-2.0,-2.0,2.0,-2.0,2.0,2.0,-2.0,2.0,-2.0,-2.0,-2.0,2.0,-2.0
2025-07-21 14:29:29.982,3.5000000000000027,3500,175,0.1582622,0.30887204,-0.18671648,-0.312364,0.22569083,-0.027304579,1.5,0.0,0.0,0.22311881,-0.1807849,-0.5020083,-0.20086902,0.18748023,-0.25395215,-0.28662944,0.1403832,0.0059705395,-0.24889903,-0.12220413,0.03686093,-0.25896427,0.05506073,-0.041298863,-0.05692663,0.057453748,-0.0063488716,0.026759261,0.0070362566,-0.18119726,0.002580746,0.0075590927,0.09694915,-0.057009004,-2.0,2.0,-2.0,2.0,2.0,-2.0,2.0,-2.0,-2.0,-2.0,2.0,-2.0,-2.0,-2.0,-2.0,2.0,2.0,-2.0,2.0,2.0,-2.0,-2.0,-2.0,-2.0
2025-07-21 14:29:30.007,3.5200000000000027,3520,176,0.097249754,0.35302114,-0.10182564,-0.3562024,0.19959559,0.0074485503,1.5,0.0,0.0,0.23412526,-0.17808887,-0.5166486,-0.21638528,0.18822779,-0.24457364,-0.29215428,0.12892465,0.030521259,-0.26889545,-0.14058983,0.016788555,-0.2465733,0.07035928,-0.106714524,-0.043521337,0.015337637,0.01448442,-0.06131757,0.0131122945,0.12664513,-0.10130136,-0.03315401,-0.12149361,0.039193112,-2.0,-2.0,-2.0,2.0,2.0,-2.0,2.0,2.0,-2.0,-2.0,-2.0,-2.0,-2.0,2.0,-2.0,2.0,2.0,-2.0,2.0,-2.0,-2.0,-2.0,2.0,-2.0
