openverse-orca/OrcaGym/log/simulation_log_20250609_175143.csv
timestamp,imu_angle_roll,imu_angle_pitch,imu_angle_yaw,imu_angular_velocity_roll,imu_angular_velocity_pitch,imu_angular_velocity_yaw,imu_acc_x,imu_acc_y,imu_acc_z,fl_joint1_pos,fl_joint1_vel,fl_joint1_torque,fl_joint2_pos,fl_joint2_vel,fl_joint2_torque,fl_joint3_pos,fl_joint3_vel,fl_joint3_torque,fr_joint1_pos,fr_joint1_vel,fr_joint1_torque,fr_joint2_pos,fr_joint2_vel,fr_joint2_torque,fr_joint3_pos,fr_joint3_vel,fr_joint3_torque,hl_joint1_pos,hl_joint1_vel,hl_joint1_torque,hl_joint2_pos,hl_joint2_vel,hl_joint2_torque,hl_joint3_pos,hl_joint3_vel,hl_joint3_torque,hr_joint1_pos,hr_joint1_vel,hr_joint1_torque,hr_joint2_pos,hr_joint2_vel,hr_joint2_torque,hr_joint3_pos,hr_joint3_vel,hr_joint3_torque,fl_force_x,fl_force_y,fl_force_z,fr_force_x,fr_force_y,fr_force_z,hl_force_x,hl_force_y,hl_force_z,hr_force_x,hr_force_y,hr_force_z,fl_hip_action,fl_thigh_action,fl_calf_action,fr_hip_action,fr_thigh_action,fr_calf_action,hl_hip_action,hl_thigh_action,hl_calf_action,hr_hip_action,hr_thigh_action,hr_calf_action
2025-06-09 17:51:43.147,0.03163897,-0.02518594,0.046489403,-0.008332715,-0.023064006,-0.04799427,2.1560934,0.5462842,0.0,0.0,-0.007951143,0.0013488483,-0.0013269122,-0.0039802515,-0.009293226,0.006620886,-0.0065673473,0.0073524793,0.000973982,-0.008822655,-0.003642349,0.005275627,0.071493685,-0.029114062,-0.05145682,0.012428237,-0.028613282,0.02676957,-0.051316682,-0.0049218694,0.057708353,0.029470732,-0.020920387,-0.04664319,0.0,0.0,0.0,0.0,0.0,0.0,0.0,0.0,0.0,0.0,0.0,0.0,-2.0,-2.0,2.0,2.0,-2.0,2.0,2.0,-0.9388183,-2.0,2.0,0.22574596,-2.0
2025-06-09 17:51:43.151,-0.05825742,0.056056354,-0.026667343,-0.04039056,-0.039926216,0.049603563,0.0,0.0,0.0,0.0,-0.0034961484,-0.118931524,0.09658159,0.019615568,-0.13171121,0.09502953,0.01996271,-0.06427084,-0.08004031,0.028069941,0.024806568,-0.09213821,-0.014487412,-0.44285578,0.28400815,0.12553121,-0.46641877,0.2283498,0.058893498,-0.17006223,-0.16674533,0.08985812,0.057988398,-0.26246354,-2.0,-2.0,2.0,2.0,-2.0,2.0,2.0,-0.9388183,-2.0,2.0,0.22574596,-2.0,-2.0,2.0,-2.0,2.0,2.0,2.0,2.0,1.7609547,2.0,-2.0,0.44499147,-2.0
2025-06-09 17:51:43.171,-0.1865361,-0.6133318,0.09688249,-0.02413826,-0.014317229,0.0190791,0.0,0.0,0.0,0.00086018,-0.06393799,-0.03036445,0.0068362704,0.0806128,-0.031580396,0.17327729,0.04117616,-0.021797378,-0.024472877,0.031176459,0.06275375,-0.1539186,-0.1576646,0.41773918,-0.35317546,0.121815145,0.46166223,0.17095344,-0.04555691,0.1683781,0.24397245,0.062406447,0.103723556,-0.14142512,-2.0,2.0,-2.0,2.0,2.0,2.0,2.0,1.7609547,2.0,-2.0,0.44499147,-2.0,-2.0,-2.0,-2.0,2.0,2.0,2.0,2.0,2.0,2.0,-2.0,-0.2605129,-2.0
2025-06-09 17:51:43.191,0.074783824,-0.400239,0.07616606,0.039071266,-0.028794704,-0.019675381,0.0,0.0,0.0,0.00013649433,-0.10623349,-0.039892435,-0.058539767,0.09218507,0.1537705,0.21958612,0.05768591,0.1337345,0.079543345,0.03399823,0.0965373,-0.14763883,-0.058569763,-0.234742,0.06528606,-0.037196178,0.51075566,0.078000024,0.010180768,0.40686476,0.25587407,-0.04205712,0.085593134,0.11238688,-2.0,-2.0,-2.0,2.0,2.0,2.0,2.0,2.0,2.0,-2.0,-0.2605129,-2.0,-2.0,2.0,-2.0,2.0,2.0,-2.0,2.0,2.0,-2.0,-2.0,0.9313231,-2.0
2025-06-09 17:51:43.214,-0.15389001,-0.36342403,-0.044361986,0.04180934,-0.12958364,-0.0009139839,0.0,0.0,0.0,-0.0013234392,-0.13224514,-0.058163494,-0.02905956,0.108040914,0.35966197,0.09778152,0.08719543,0.31051117,0.015534999,0.011277108,0.12886848,-0.15139455,0.035638757,-0.0034549544,0.07642988,-0.026489494,0.41354403,-0.47989124,0.1062615,0.399531,-0.35242814,-0.06962332,0.10896393,0.0012174933,-2.0,2.0,-2.0,2.0,2.0,-2.0,2.0,2.0,-2.0,-2.0,0.9313231,-2.0,-2.0,-1.1966003,-2.0,2.0,2.0,-2.0,2.0,2.0,-2.0,-2.0,-1.274026,-2.0
2025-06-09 17:51:43.232,-0.008508171,0.012752604,-0.009960515,0.07568923,-0.089274436,0.036442228,0.0,0.0,0.0,-0.0019689645,-0.13913126,-0.07963966,-0.010164674,0.11805561,0.45673963,-0.021464312,0.10489937,0.4253081,-0.086305246,0.006088483,0.06832014,-0.102360345,-0.10449393,-0.029398821,0.09361617,-0.031650595,0.088109106,-0.1341835,-0.036097173,0.10188317,-0.13196404,0.05606355,-0.24301308,0.14887016,-2.0,-1.1966003,-2.0,2.0,2.0,-2.0,2.0,2.0,-2.0,-2.0,-1.274026,-2.0,-2.0,2.0,2.0,2.0,2.0,-2.0,2.0,0.3919465,-2.0,-2.0,-0.28050774,-2.0
2025-06-09 17:51:43.252,-0.052215826,0.038803227,0.16149613,0.0825053,-0.13244182,-0.012820257,0.0,0.0,0.0,-0.0024196752,-0.1872488,-0.048904754,0.060550977,0.12615097,0.48105824,-0.045879334,0.10171966,0.44666523,-0.10745428,-0.009725995,0.046952244,-0.11628947,-0.066345416,0.21669453,0.17327753,0.029124381,0.06509479,-0.06850292,-0.054424945,-0.008753634,0.005678684,-0.07081155,-0.024949055,-0.024055088,-2.0,2.0,2.0,2.0,2.0,-2.0,2.0,0.3919465,-2.0,-2.0,-0.28050774,-2.0,-2.0,2.0,-2.0,2.0,2.0,-2.0,2.0,-2.0,-2.0,-2.0,-0.35898685,-2.0
2025-06-09 17:51:43.272,0.12861714,0.2918747,0.07890016,0.08324602,-0.07639945,-0.04526276,0.0,0.0,0.0,-0.0049084,-0.18167366,0.13015917,-0.02589597,0.13635886,0.4907442,-0.07386156,0.090909146,0.3425882,-0.03342775,-0.011067832,0.011217994,-0.10087355,-0.032196578,0.5459352,-0.25172496,-0.07235129,-0.055905983,-0.009828605,-0.030043244,-0.26466647,0.3108429,-0.06331818,-0.07172297,0.072049566,-2.0,2.0,-2.0,2.0,2.0,-2.0,2.0,-2.0,-2.0,-2.0,-0.35898685,-2.0,-2.0,2.0,-2.0,2.0,2.0,-2.0,2.0,-0.53195196,-2.0,-2.0,0.13068874,-2.0
2025-06-09 17:51:43.292,0.1240826,0.1751442,0.046276018,0.030631702,-0.06197445,-0.010532938,0.0,0.0,0.0,-0.0064944606,-0.18662357,0.22277965,-0.10086371,0.11997657,0.50318927,-0.12021411,0.093673766,0.2363036,-0.03689661,-0.022873577,-0.0031986667,-0.10931409,0.005660873,0.18001401,-0.18838513,-0.015501927,0.10980907,-0.15261316,0.046965867,-0.28264552,-0.03176643,0.0019862377,0.01708965,0.017767396,-2.0,2.0,-2.0,2.0,2.0,-2.0,2.0,-0.53195196,-2.0,-2.0,0.13068874,-2.0,-2.0,2.0,-2.0,2.0,2.0,-2.0,2.0,0.16055746,-2.0,-2.0,0.29668885,-2.0
2025-06-09 17:51:43.314,-0.05790977,0.111136526,0.09657242,-0.019140627,-0.04407898,-0.03354119,0.0,0.0,0.0,-0.007827914,-0.1866334,0.2865072,-0.15876251,0.12969911,0.5283043,-0.17544404,0.09684371,0.20250906,-0.06936286,-0.044013515,0.009020732,-0.13103531,-0.059524845,0.13227397,-0.056872886,-0.057179607,0.11662967,-0.10841976,0.02039772,-0.061223242,-0.09415665,0.054422535,0.10650454,-0.115228005,-2.0,2.0,-2.0,2.0,2.0,-2.0,2.0,0.16055746,-2.0,-2.0,0.29668885,-2.0,-2.0,2.0,-2.0,2.0,2.0,-2.0,2.0,0.06426342,-2.0,-2.0,0.5568628,-2.0
2025-06-09 17:51:43.332,-0.06820902,-0.039668217,0.059213772,0.056920126,-0.0126753105,-0.03429013,0.0,0.0,0.0,-0.009716322,-0.18674321,0.34256405,-0.2020271,0.13235335,0.5376301,-0.20694548,0.09883899,0.19846287,-0.10550044,-0.04537299,0.050958373,-0.1730038,-0.021863468,0.15262379,-0.17714229,0.05055628,0.021160731,-0.11518526,-0.055441145,-0.12238338,-0.121208735,-0.06494152,0.092655994,-0.098306,-2.0,2.0,-2.0,2.0,2.0,-2.0,2.0,0.06426342,-2.0,-2.0,0.5568628,-2.0,-2.0,2.0,-2.0,2.0,2.0,-2.0,2.0,0.26914746,-2.0,-2.0,0.38428217,-2.0
2025-06-09 17:51:43.352,-0.05061602,-0.024327038,0.12158625,-0.015163457,-0.05681167,-0.03498331,0.0,0.0,0.0,-0.011715167,-0.19160806,0.41964158,-0.2395716,0.13659868,0.5780762,-0.2577853,0.120507225,0.1809063,-0.14347214,-0.047569722,0.07568338,-0.21157967,0.054812297,0.15623324,-0.1924028,0.065802015,0.094765455,-0.038938947,0.060060658,0.026379045,-0.15753655,-0.08407308,0.0071015963,-0.026332911,-2.0,2.0,-2.0,2.0,2.0,-2.0,2.0,0.26914746,-2.0,-2.0,0.38428217,-2.0,-2.0,2.0,-2.0,2.0,2.0,-2.0,2.0,-0.1101598,-2.0,-2.0,0.79243034,-2.0
2025-06-09 17:51:43.373,-0.025775908,-0.09889398,0.09654205,0.047024522,-0.10220536,0.017312076,0.0,0.0,0.0,-0.014048512,-0.18597315,0.47680828,-0.28231212,0.1491259,0.5916778,-0.28582662,0.108659595,0.16458601,-0.197088,-0.07276227,0.108937405,-0.2405771,0.015393987,0.073618166,-0.12817438,0.012863615,-0.007891492,-0.1073356,-0.060905933,-0.06475922,0.00079618976,-0.103103004,0.024423655,-0.13749836,-2.0,2.0,-2.0,2.0,2.0,-2.0,2.0,-0.1101598,-2.0,-2.0,0.79243034,-2.0,-2.0,2.0,-2.0,2.0,2.0,-2.0,2.0,0.31986123,-2.0,-2.0,0.47964507,-2.0
2025-06-09 17:51:43.393,-0.0061558574,-0.052515075,0.1508835,-0.012027358,-0.079513945,-0.0050530327,0.0,0.0,0.0,-0.016383307,-0.1819721,0.51514167,-0.29437795,0.15410553,0.6247879,-0.29084566,0.12662546,0.14048284,-0.22486311,-0.07631192,0.13099872,-0.251809,-0.03509331,0.104219854,0.013810918,0.00672113,0.111878775,-0.023436563,-0.016663738,-0.09401284,-0.046608422,-0.07435131,0.012361744,0.03365273,-2.0,2.0,-2.0,2.0,2.0,-2.0,2.0,0.31986123,-2.0,-2.0,0.47964507,-2.0,-2.0,2.0,-2.0,2.0,2.0,-2.0,2.0,-0.046811987,-2.0,-2.0,0.868563,-2.0
2025-06-09 17:51:43.414,-0.06151795,-0.13868271,0.1045038,0.07457343,-0.061592087,0.012607954,0.0,0.0,0.0,-0.01909903,-0.18236615,0.5436798,-0.29393443,0.14569214,0.62360317,-0.29109535,0.11100419,0.11611339,-0.24031605,-0.09037966,0.14925644,-0.2530159,0.036094427,0.013967796,-0.04360973,0.06935845,0.1019315,0.045299727,-0.03193796,-0.029717462,-0.065074325,0.017887225,0.10923842,-0.0027366718,-2.0,2.0,-2.0,2.0,2.0,-2.0,2.0,-0.046811987,-2.0,-2.0,0.868563,-2.0,-2.0,2.0,-2.0,2.0,2.0,-2.0,2.0,0.09920843,-2.0,-2.0,0.5606939,-2.0
2025-06-09 17:51:43.433,-0.036902625,-0.038729027,0.11810463,0.065019906,-0.059398174,0.046085987,0.0,0.0,0.0,-0.021758629,-0.18812831,0.56598866,-0.27793595,0.14988425,0.6394939,-0.2821961,0.12189501,0.10834026,-0.26261944,-0.09793971,0.16972406,-0.2543153,0.01054096,0.007953987,0.005166775,0.048704118,0.0045926175,0.03794279,0.016861482,0.02433649,-0.073568925,0.036079008,0.09085195,-0.045194253,-2.0,2.0,-2.0,2.0,2.0,-2.0,2.0,0.09920843,-2.0,-2.0,0.5606939,-2.0,-2.0,2.0,-2.0,2.0,2.0,-2.0,2.0,-0.03809731,-2.0,-2.0,0.83523995,-2.0
2025-06-09 17:51:43.453,-0.017828427,-0.056381505,0.11615287,0.047083218,-0.10666616,0.0074909497,0.0,0.0,0.0,-0.024387423,-0.18149446,0.58721817,-0.2710312,0.16847406,0.66437274,-0.26771352,0.12121816,0.08995475,-0.2585684,-0.11265487,0.18749611,-0.24301066,-0.078600414,0.10768864,0.03469231,0.04224852,0.043804385,-0.033912826,0.042647105,0.009063938,-0.044718403,0.040653426,0.06817367,0.0363228,-2.0,2.0,-2.0,2.0,2.0,-2.0,2.0,-0.03809731,-2.0,-2.0,0.83523995,-2.0,-2.0,2.0,-2.0,2.0,2.0,-2.0,2.0,0.15228565,-2.0,-2.0,0.4664505,-2.0
2025-06-09 17:51:43.473,-0.043239918,-0.05275852,0.09921246,0.074494906,-0.14169587,-0.0032486087,0.0,0.0,0.0,-0.026615396,-0.18805423,0.612341,-0.26340234,0.17596051,0.6597911,-0.27317816,0.11355495,0.08091715,-0.26421493,-0.12623096,0.18828343,-0.23024271,0.017025406,0.028921638,-0.023681352,0.009518357,-0.038284525,-0.030843535,0.021109302,0.07144309,0.012570849,0.017591206,0.026331406,-0.011283667,-2.0,2.0,-2.0,2.0,2.0,-2.0,2.0,0.15228565,-2.0,-2.0,0.4664505,-2.0,-2.0,2.0,-2.0,2.0,2.0,-2.0,2.0,0.18477614,-2.0,-2.0,0.6819225,-2.0
2025-06-09 17:51:43.493,0.0005040488,0.0011495547,0.090945706,0.08485141,-0.15107091,0.009565338,0.0,0.0,0.0,-0.028491465,-0.17873183,0.6236114,-0.26374817,0.18023026,0.6816637,-0.25037178,0.10604075,0.08137937,-0.2532931,-0.13636829,0.18141817,-0.20588991,0.04121814,-0.026596252,0.019754225,0.0452038,0.080837354,0.04217016,-0.011352548,0.059623435,0.05559881,0.029648185,-0.04697208,0.0055924137,-2.0,2.0,-2.0,2.0,2.0,-2.0,2.0,0.18477614,-2.0,-2.0,0.6819225,-2.0,-2.0,2.0,-2.0,2.0,2.0,-2.0,2.0,0.474752,-2.0,-2.0,0.63699347,-2.0
2025-06-09 17:51:43.514,-0.05533398,-0.00867793,0.049113117,0.075584844,-0.08323292,0.017420948,0.0,0.0,0.0,-0.029828077,-0.18197176,0.63630027,-0.24678233,0.17235698,0.69292915,-0.24482709,0.11553493,0.11496918,-0.2423151,-0.14184645,0.19405605,-0.1931462,0.013102194,0.020986697,0.06626404,-0.038022358,-0.0062143765,-0.0359415,-0.07074807,0.06084389,-0.02442726,-0.070876725,-0.026216162,-0.012333894,-2.0,2.0,-2.0,2.0,2.0,-2.0,2.0,0.474752,-2.0,-2.0,0.63699347,-2.0,-2.0,2.0,-2.0,2.0,2.0,-2.0,2.0,0.97455865,-2.0,-2.0,0.36925048,-2.0
2025-06-09 17:51:43.534,-0.117888376,-0.06458105,0.079467654,0.054410934,-0.11256918,-0.022808362,0.0,0.0,0.0,-0.030828385,-0.18547115,0.6557645,-0.23714405,0.18369934,0.6944385,-0.23804748,0.11928362,0.11952804,-0.24449256,-0.13859561,0.19963357,-0.17754568,0.08623617,0.03189725,0.01694873,0.058363996,-0.022415284,0.055539038,0.008339911,0.024358036,-0.06390287,-0.061687477,0.010487043,0.050433792,-2.0,2.0,-2.0,2.0,2.0,-2.0,2.0,0.97455865,-2.0,-2.0,0.36925048,-2.0,-2.0,2.0,-2.0,2.0,2.0,-2.0,2.0,0.31421906,-2.0,-2.0,0.6211099,-2.0
2025-06-09 17:51:43.554,-0.044344537,0.038072124,-0.0067499056,0.05891807,-0.12933218,0.038138855,0.0,0.0,0.0,-0.032107316,-0.17512181,0.6771482,-0.2481494,0.20274922,0.70858645,-0.24415337,0.0991176,0.14649235,-0.23552191,-0.1329129,0.20987272,-0.16932055,-0.01871652,0.058991116,0.07452023,0.052440617,0.008830006,-0.027449539,-0.063908525,0.044489652,0.06272801,-0.057619095,0.08332618,-0.009312084,-2.0,2.0,-2.0,2.0,2.0,-2.0,2.0,0.31421906,-2.0,-2.0,0.6211099,-2.0,-2.0,2.0,-2.0,2.0,2.0,-2.0,2.0,1.0282341,-2.0,-2.0,0.075139835,-2.0
2025-06-09 17:51:43.574,-0.04369665,0.01862217,0.08239393,0.05083757,-0.07508358,0.03563819,0.0,0.0,0.0,-0.033098914,-0.18300456,0.68541855,-0.23254545,0.19956496,0.71163183,-0.2374078,0.09779473,0.13973692,-0.23095676,-0.13318029,0.21958266,-0.17009471,-0.022112679,0.029872429,0.05225415,0.07575682,0.05281689,-0.03345641,0.016850304,-0.018575989,-0.0020922304,-0.014101868,0.0581919,0.09410123,-2.0,2.0,-2.0,2.0,2.0,-2.0,2.0,1.0282341,-2.0,-2.0,0.075139835,-2.0,-2.0,2.0,-2.0,2.0,2.0,-2.0,2.0,0.33765155,-2.0,-2.0,0.6628215,-2.0
2025-06-09 17:51:43.595,0.042627424,0.04497058,0.02157473,0.043870986,-0.121740885,0.026202472,0.0,0.0,0.0,-0.03428052,-0.17360975,0.69837976,-0.23804379,0.20618482,0.7218382,-0.23874097,0.095338166,0.1585126,-0.22621521,-0.15354426,0.21970217,-0.14499982,-0.016973069,0.019241644,-0.021777272,-0.0032350149,-0.02941521,-0.043588027,-0.012342587,-0.055495184,-0.0238745,-0.04361982,-0.013326961,0.031538144,-2.0,2.0,-2.0,2.0,2.0,-2.0,2.0,0.33765155,-2.0,-2.0,0.6628215,-2.0,-2.0,2.0,-2.0,2.0,2.0,-2.0,2.0,0.9322346,-2.0,-2.0,0.260176,-2.0
2025-06-09 17:51:43.614,-0.040466778,0.015082513,-0.010413124,-0.0016981965,-0.14770722,-0.0016557688,0.0,0.0,0.0,-0.035092436,-0.17207935,0.7043289,-0.25004143,0.2071556,0.7312604,-0.24061908,0.1003744,0.16505337,-0.22759773,-0.14506932,0.21403559,-0.15292048,-0.036950335,-0.024852134,-0.03304722,0.030667754,-0.033711296,-0.020315595,-0.011862066,0.038837142,0.0325244,-0.071155675,0.020791367,0.01265985,-2.0,2.0,-2.0,2.0,2.0,-2.0,2.0,0.9322346,-2.0,-2.0,0.260176,-2.0,-2.0,2.0,-2.0,2.0,2.0,-2.0,2.0,1.041951,-2.0,-2.0,0.34566277,-2.0
2025-06-09 17:51:43.634,-0.025860928,-0.069257155,0.08338161,0.046319503,-0.11203855,-0.01987862,0.0,0.0,0.0,-0.035810765,-0.17165317,0.7249096,-0.24408722,0.21561104,0.7352959,-0.23869736,0.09611767,0.16666329,-0.23169415,-0.14874284,0.21769227,-0.14363474,0.077340506,-0.005695096,0.05406227,0.040883593,-0.015353327,-0.055795934,-0.04016234,-0.011558233,-0.025967302,-0.01853031,0.07704282,-0.026048481,-2.0,2.0,-2.0,2.0,2.0,-2.0,2.0,1.041951,-2.0,-2.0,0.34566277,-2.0,-2.0,2.0,-2.0,2.0,2.0,-2.0,2.0,0.5818942,-2.0,-2.0,0.5786949,-2.0
2025-06-09 17:51:43.654,-0.006253397,-0.017897164,-0.028818268,-0.008393248,-0.09584431,-0.02032974,0.0,0.0,0.0,-0.0367451,-0.1699957,0.73754716,-0.24644198,0.21278411,0.7285607,-0.23728922,0.084757924,0.17843354,-0.24107498,-0.14229669,0.23040727,-0.14595237,0.06454593,0.045421924,0.06068955,-0.048607737,-0.06959074,0.060872443,0.06646142,0.043649152,-0.035765875,0.01846033,0.068042025,0.026650375,-2.0,2.0,-2.0,2.0,2.0,-2.0,2.0,0.5818942,-2.0,-2.0,0.5786949,-2.0,-2.0,2.0,-2.0,2.0,2.0,-2.0,2.0,1.192505,-2.0,-2.0,0.12766917,-2.0
2025-06-09 17:51:43.674,-0.041691985,-0.0035918348,0.064541325,0.018546073,-0.16882797,-0.018451298,0.0,0.0,0.0,-0.03728461,-0.15681161,0.73997456,-0.2585637,0.22424878,0.7241496,-0.23092711,0.09770375,0.19276719,-0.23127355,-0.15309821,0.22033717,-0.14901426,0.023012735,-0.017883748,0.06653115,-0.029252538,0.06488957,0.050351765,0.029755112,-0.04426528,-0.047488637,-0.05118395,0.042211816,-0.05031167,-2.0,2.0,-2.0,2.0,2.0,-2.0,2.0,1.192505,-2.0,-2.0,0.12766917,-2.0,-2.0,2.0,-2.0,2.0,2.0,-2.0,2.0,0.58925277,-2.0,-2.0,0.71415204,-2.0
2025-06-09 17:51:43.694,-0.024654651,0.014217692,0.024341604,0.009373609,-0.17213114,0.043669395,0.0,0.0,0.0,-0.037919153,-0.1639715,0.7302339,-0.24926339,0.21049276,0.7224031,-0.22572498,0.0911103,0.1851947,-0.23906834,-0.16012545,0.22891966,-0.14743382,0.044496074,-0.003102379,0.018368164,0.021565542,0.019724967,0.041489583,0.06739971,0.03385211,0.06735669,0.016938059,0.0424511,0.052687597,-2.0,2.0,-2.0,2.0,2.0,-2.0,2.0,0.58925277,-2.0,-2.0,0.71415204,-2.0,-2.0,2.0,-2.0,2.0,2.0,-2.0,2.0,0.868208,-2.0,-2.0,0.3393032,-2.0
2025-06-09 17:51:43.714,0.0286989,-0.024179982,0.026352784,0.014290661,-0.15760478,0.010546171,0.0,0.0,0.0,-0.03815992,-0.16838479,0.72500074,-0.24759851,0.22557366,0.72023237,-0.21793164,0.0843415,0.18676779,-0.25702265,-0.15582237,0.21353032,-0.14297406,-0.008338712,0.0050647077,-0.03737945,0.017305804,-0.07062755,-0.0096230935,0.07198619,-0.033979762,-0.066778466,-0.049823716,0.039905,0.043766633,-2.0,2.0,-2.0,2.0,2.0,-2.0,2.0,0.868208,-2.0,-2.0,0.3393032,-2.0,-2.0,2.0,-2.0,2.0,2.0,-2.0,2.0,0.812584,-2.0,-2.0,0.4166941,-2.0
2025-06-09 17:51:43.735,-0.0014358376,0.0472232,0.038696054,-0.00664656,-0.1533791,0.015841966,0.0,0.0,0.0,-0.038128573,-0.1634088,0.72155875,-0.24823405,0.22048515,0.7167996,-0.22115517,0.081471935,0.19007131,-0.24398123,-0.1628335,0.2242084,-0.15659183,-0.07424757,-0.020242928,-0.07796063,-0.05648686,-0.051476058,0.036193117,-0.028819462,0.040282447,0.049895503,0.04825687,-0.062397007,0.0017210486,-2.0,2.0,-2.0,2.0,2.0,-2.0,2.0,0.812584,-2.0,-2.0,0.4166941,-2.0,-2.0,2.0,-2.0,2.0,2.0,-2.0,2.0,0.7528108,-2.0,-2.0,0.56838995,-2.0
2025-06-09 17:51:43.755,-0.025883254,0.002908331,-0.06561041,0.029685939,-0.17761688,-0.028960079,0.0,0.0,0.0,-0.038038507,-0.16624784,0.71994483,-0.25894433,0.21973902,0.713237,-0.21365617,0.083572544,0.17632695,-0.2557835,-0.16171859,0.2093249,-0.16212696,0.03912977,-0.07871931,-0.06574295,0.00095143286,0.04684504,0.024981016,0.07235199,0.042454146,0.059697475,-0.0641021,0.038316224,-0.04526819,-2.0,2.0,-2.0,2.0,2.0,-2.0,2.0,0.7528108,-2.0,-2.0,0.56838995,-2.0,-2.0,2.0,-2.0,2.0,2.0,-2.0,2.0,1.4935912,-2.0,-2.0,0.17050858,-2.0
2025-06-09 17:51:43.775,-0.04692424,-0.038828958,0.065407895,0.024631608,-0.117826685,0.007826212,0.0,0.0,0.0,-0.03776577,-0.17375374,0.72383195,-0.24578896,0.21766405,0.72494006,-0.225254,0.089312404,0.19225581,-0.27226537,-0.14990105,0.22375003,-0.16065809,0.032386392,-0.0020724984,-0.041088033,-0.0051310994,0.05979842,-0.002218821,0.008551124,0.10666704,-0.045201987,-0.035439488,0.030373903,-0.055689335,-2.0,2.0,-2.0,2.0,2.0,-2.0,2.0,1.4935912,-2.0,-2.0,0.17050858,-2.0,-2.0,2.0,-2.0,2.0,2.0,-2.0,2.0,0.6303783,-2.0,-2.0,0.7062426,-2.0
2025-06-09 17:51:43.798,0.06373408,0.024878412,-0.009136848,0.022808975,-0.14280209,0.022597212,0.0,0.0,0.0,-0.03803546,-0.1614559,0.7237975,-0.2599416,0.22696629,0.7245386,-0.20732647,0.08705766,0.20101131,-0.28590176,-0.16336824,0.21292648,-0.16205953,0.019266533,-0.025039325,-0.03829695,-0.058966894,-0.038839936,-0.05477973,-0.014866579,0.023381181,0.017217971,-0.030140046,0.0391062,0.027133659,-2.0,2.0,-2.0,2.0,2.0,-2.0,2.0,0.6303783,-2.0,-2.0,0.7062426,-2.0,-2.0,2.0,-2.0,2.0,2.0,-2.0,2.0,1.3811585,-2.0,-2.0,0.13141806,-2.0
2025-06-09 17:51:43.815,-0.05577852,0.019771157,0.018957525,-0.0120177455,-0.19299397,0.019434333,0.0,0.0,0.0,-0.03811316,-0.17060693,0.7156672,-0.24172242,0.21675329,0.7102985,-0.22089319,0.084193595,0.20894037,-0.2773333,-0.15340671,0.21927406,-0.17314534,-0.050423697,-0.042746034,0.024373807,0.0051779286,-0.010603851,0.05820662,0.01947752,0.00072016753,0.0346998,0.033124216,0.041449003,0.043834645,-2.0,2.0,-2.0,2.0,2.0,-2.0,2.0,1.3811585,-2.0,-2.0,0.13141806,-2.0,-2.0,2.0,-2.0,2.0,2.0,-2.0,2.0,0.744078,-2.0,-2.0,0.5470235,-2.0
2025-06-09 17:51:43.835,0.029929742,0.023903523,-0.035218526,0.022648996,-0.122892454,-0.03236074,0.0,0.0,0.0,-0.038396217,-0.17061834,0.728571,-0.24876973,0.22892015,0.7171591,-0.2214848,0.08879906,0.20886818,-0.2838285,-0.16120902,0.20305207,-0.17499043,-0.014518528,-0.06272868,-0.06718533,0.060470928,-0.010770064,0.038341306,-0.00408928,-0.08258105,0.030790072,0.003963637,-0.05844368,0.055968504,-2.0,2.0,-2.0,2.0,2.0,-2.0,2.0,0.744078,-2.0,-2.0,0.5470235,-2.0,-2.0,2.0,-2.0,2.0,2.0,-2.0,2.0,1.332885,-2.0,-2.0,0.21218534,-2.0
2025-06-09 17:51:43.855,-0.04161709,0.016067911,0.04232154,0.08087166,-0.12939483,-0.049295545,0.0,0.0,0.0,-0.038560763,-0.15369478,0.72483176,-0.24689633,0.23042968,0.6962509,-0.20687768,0.08208225,0.20594229,-0.3000078,-0.14927684,0.20425463,-0.17387761,-0.03703141,-0.076708175,0.024558892,-0.03177009,-0.061588403,0.022965224,-0.054655075,-0.056451317,-0.037335664,0.02374673,-0.05430176,0.057397425,-2.0,2.0,-2.0,2.0,2.0,-2.0,2.0,1.332885,-2.0,-2.0,0.21218534,-2.0,-2.0,2.0,-2.0,2.0,2.0,-2.0,2.0,0.9111033,-2.0,-2.0,0.46523625,-2.0
2025-06-09 17:51:43.875,0.05344654,0.005338021,0.01428974,-0.010387544,-0.17248882,0.04979594,0.0,0.0,0.0,-0.038873713,-0.15979612,0.7257105,-0.24618186,0.22485502,0.6923513,-0.22030376,0.08177431,0.20817614,-0.2919784,-0.15358739,0.20600034,-0.18182115,-0.04863193,-0.017186666,-0.0030778851,-0.05911939,-0.047999762,-0.057331257,0.06028255,-0.006686429,-0.06054488,0.03407167,0.069508985,-0.013055714,-2.0,2.0,-2.0,2.0,2.0,-2.0,2.0,0.9111033,-2.0,-2.0,0.46523625,-2.0,-2.0,2.0,-2.0,2.0,2.0,-2.0,2.0,1.1155989,-2.0,-2.0,0.38889986,-2.0
2025-06-09 17:51:43.897,-0.044744063,0.0063252696,0.00486558,0.08385714,-0.10305346,-0.004653878,0.0,0.0,0.0,-0.039128114,-0.16089562,0.7094976,-0.24251406,0.2289751,0.70469654,-0.21420594,0.07924838,0.2117042,-0.30672657,-0.15036137,0.20177364,-0.18483888,0.018547308,0.050105043,-0.056990772,-0.008083435,0.028354807,0.071997285,-0.0691434,0.056076963,-0.039860528,0.014356662,0.03121631,-0.0072765825,-2.0,2.0,-2.0,2.0,2.0,-2.0,2.0,1.1155989,-2.0,-2.0,0.38889986,-2.0,-2.0,2.0,-2.0,2.0,2.0,-2.0,2.0,1.0700821,-2.0,-2.0,0.33717996,-2.0
2025-06-09 17:51:43.915,-0.014781376,0.044403512,-0.034759253,0.00498512,-0.16478236,-0.009271558,0.0,0.0,0.0,-0.03929907,-0.15124293,0.7040027,-0.23888622,0.21614575,0.68762976,-0.21586107,0.093613446,0.19622312,-0.29901382,-0.16307823,0.19995543,-0.18812731,-0.008934953,0.05660871,0.019290034,0.038175255,0.013999983,0.03215235,-0.055149667,0.060260102,-0.039854128,-0.061937775,0.010724952,0.00090635003,-2.0,2.0,-2.0,2.0,2.0,-2.0,2.0,1.0700821,-2.0,-2.0,0.33717996,-2.0,-2.0,2.0,-2.0,2.0,2.0,-2.0,2.0,1.5062604,-2.0,-2.0,0.15338023,-2.0
2025-06-09 17:51:43.936,0.0084652575,0.005008503,0.06428123,0.0050324234,-0.17817158,-0.03914023,0.0,0.0,0.0,-0.039473824,-0.16553946,0.7074421,-0.2503767,0.21935108,0.6950459,-0.2172025,0.0736771,0.20798655,-0.30718622,-0.15592165,0.20336382,-0.18833368,0.044097237,0.021143958,-0.041544665,-0.011900303,0.018623443,-0.016688928,-0.05795893,0.07918126,0.021576012,-0.06915916,-0.004356761,-0.05854544,-2.0,2.0,-2.0,2.0,2.0,-2.0,2.0,1.5062604,-2.0,-2.0,0.15338023,-2.0,-2.0,2.0,-2.0,2.0,2.0,-2.0,2.0,0.70213455,-2.0,-2.0,0.57815903,-2.0
2025-06-09 17:51:43.955,0.030627526,-0.03163428,0.036254592,0.08363625,-0.1186745,0.027802123,0.0,0.0,0.0,-0.040014025,-0.15051328,0.71430886,-0.23940504,0.21600404,0.6883315,-0.21275324,0.07150863,0.21288075,-0.3042093,-0.16277675,0.20606391,-0.19335802,-0.020168392,0.051649883,-0.040194362,-0.0011888278,-0.0051610996,0.034927305,-0.061130527,-0.02381405,-0.0090051815,0.008874874,0.018602433,0.03737875,-2.0,2.0,-2.0,2.0,2.0,-2.0,2.0,0.70213455,-2.0,-2.0,0.57815903,-2.0,-2.0,2.0,-2.0,2.0,2.0,-2.0,2.0,0.8248661,-2.0,-2.0,0.3497191,-2.0
2025-06-09 17:51:43.976,0.05117043,0.072916724,-0.012426692,0.017776337,-0.17523192,0.022962827,0.0,0.0,0.0,-0.04017355,-0.15814279,0.7153283,-0.24515785,0.22493136,0.68560535,-0.20266372,0.07929097,0.19814877,-0.3138253,-0.1594537,0.19104555,-0.1847373,0.017066102,-0.07458439,-0.043633122,0.022760902,-0.070466645,-0.009140707,-0.026564842,-0.021173593,0.025113499,-0.040758822,0.020390915,0.077340364,-2.0,2.0,-2.0,2.0,2.0,-2.0,2.0,0.8248661,-2.0,-2.0,0.3497191,-2.0,-2.0,2.0,-2.0,2.0,2.0,-2.0,2.0,1.1846305,-2.0,-2.0,0.21190198,-2.0
2025-06-09 17:51:43.997,-0.04065667,0.019297576,0.042151302,-0.0029863408,-0.101552494,-0.0470706,0.0,0.0,0.0,-0.0398615,-0.16972905,0.71620834,-0.24886845,0.22009973,0.680515,-0.20645414,0.077411525,0.1940549,-0.30521423,-0.1480576,0.1930906,-0.19897029,-0.028270965,-0.068250805,-0.04499987,0.0637396,0.039475475,0.030176673,0.021560095,0.06890625,-0.03374685,0.06325792,0.027284821,-0.025886467,-2.0,2.0,-2.0,2.0,2.0,-2.0,2.0,1.1846305,-2.0,-2.0,0.21190198,-2.0,-2.0,2.0,-2.0,2.0,2.0,-2.0,2.0,0.63626844,-2.0,-2.0,0.71093947,-2.0
2025-06-09 17:51:44.016,0.080501944,-0.032531537,-0.01174931,0.080911085,-0.094590425,-0.040316828,0.0,0.0,0.0,-0.039711893,-0.16311027,0.69773686,-0.23500557,0.21891043,0.6992358,-0.21736857,0.07697293,0.20029983,-0.2902002,-0.1470746,0.1901366,-0.19968042,-0.07558997,0.011252139,0.038890436,-0.030965796,0.008850345,-0.020361412,-0.0037208977,0.022387488,-0.0063867294,-0.031072779,0.062036175,0.028741367,-2.0,2.0,-2.0,2.0,2.0,-2.0,2.0,0.63626844,-2.0,-2.0,0.71093947,-2.0,-2.0,2.0,-2.0,2.0,2.0,-2.0,2.0,1.3102387,-2.0,-2.0,0.10612424,-2.0
2025-06-09 17:51:44.036,-0.043148052,-0.0334642,0.010797345,-0.0144192185,-0.1445876,-0.010980232,0.0,0.0,0.0,-0.03923902,-0.16645063,0.70980364,-0.2360339,0.21435824,0.6825104,-0.21412049,0.08523762,0.18677177,-0.30487144,-0.15767391,0.18761419,-0.18310465,-0.055561204,0.009375004,0.03626773,-0.020020258,0.009149317,0.009937229,0.077417254,0.07437155,-0.0077917557,0.054717645,0.0040323497,0.07548214,-2.0,2.0,-2.0,2.0,2.0,-2.0,2.0,1.3102387,-2.0,-2.0,0.10612424,-2.0,-2.0,2.0,-2.0,2.0,2.0,-2.0,2.0,0.9811552,-2.0,-2.0,0.44663292,-2.0
2025-06-09 17:51:44.056,0.01863754,-0.021306397,0.040780313,-0.013256089,-0.1452977,-0.049965464,0.0,0.0,0.0,-0.03899294,-0.17044517,0.71346486,-0.23283942,0.22623833,0.69224143,-0.203405,0.07668139,0.19560659,-0.31012455,-0.1431197,0.19609879,-0.19732533,0.048746362,-0.052896757,-0.011637231,-0.021635326,-0.022587292,0.07504153,-0.015515544,-0.017056104,-0.056953274,0.058980104,0.010887363,0.061401192,-2.0,2.0,-2.0,2.0,2.0,-2.0,2.0,0.9811552,-2.0,-2.0,0.44663292,-2.0,-2.0,2.0,-2.0,2.0,2.0,-2.0,2.0,0.7370258,-2.0,-2.0,0.52958924,-2.0
2025-06-09 17:51:44.076,0.07312887,0.04474217,0.002157564,-0.0070152883,-0.14137337,-0.019192994,0.0,0.0,0.0,-0.038928036,-0.16534421,0.71284574,-0.24621812,0.20836742,0.7039562,-0.21279246,0.0759014,0.19181763,-0.29764396,-0.15024251,0.19476596,-0.18722148,0.05054683,-0.05099203,-0.021051051,0.067706995,0.0445277,0.0220456,-0.04770986,0.0074831294,0.08600513,0.06782424,0.050238583,0.01636471,-2.0,2.0,-2.0,2.0,2.0,-2.0,2.0,0.7370258,-2.0,-2.0,0.52958924,-2.0,-2.0,2.0,-2.0,2.0,2.0,-2.0,2.0,0.8995715,-2.0,-2.0,0.39167327,-2.0
2025-06-09 17:51:44.097,0.057591703,0.040032443,-0.0054852706,-0.002524458,-0.14759745,6.0069655e-05,0.0,0.0,0.0,-0.038582526,-0.17600867,0.7059587,-0.24439378,0.20778215,0.69950503,-0.22280143,0.078883685,0.19460498,-0.2843794,-0.14772117,0.19470957,-0.20340939,0.044750255,0.037497457,-0.052469973,-0.0012141283,0.023081604,0.036091004,-0.06890764,0.063251816,0.0061020176,-0.03716122,0.04883257,0.0018737327,-2.0,2.0,-2.0,2.0,2.0,-2.0,2.0,0.8995715,-2.0,-2.0,0.39167327,-2.0,-2.0,2.0,-2.0,2.0,2.0,-2.0,2.0,1.0473138,-2.0,-2.0,0.32173783,-2.0
2025-06-09 17:51:44.116,-0.01632834,0.0017028988,-0.03487613,0.02287505,-0.10784039,0.030625628,0.0,0.0,0.0,-0.038157918,-0.15645833,0.7007192,-0.23235843,0.21756823,0.6942043,-0.2092376,0.08087078,0.19958667,-0.2834006,-0.15667386,0.18946984,-0.19440776,-0.024333721,-0.03401059,0.071479894,0.06944763,0.027448228,0.029561035,-0.03514189,0.06261944,-0.008612019,0.006066749,-0.058387283,-0.0425656,-2.0,2.0,-2.0,2.0,2.0,-2.0,2.0,1.0473138,-2.0,-2.0,0.32173783,-2.0,-2.0,2.0,-2.0,2.0,2.0,-2.0,2.0,1.5308611,-2.0,-2.0,0.2726677,-2.0
2025-06-09 17:51:44.136,-0.083289415,-0.07185039,-0.011329214,0.025569597,-0.17264056,-0.042933114,0.0,0.0,0.0,-0.03796279,-0.15541516,0.7213621,-0.24500178,0.21583703,0.6994744,-0.20577355,0.08610694,0.20529456,-0.30246472,-0.15824375,0.1859903,-0.19731385,0.073807165,0.04661803,-0.01584676,-0.042434007,0.02265445,-0.06278474,-0.040985215,0.08560934,-0.009728049,0.07532065,0.037417192,0.041411478,-2.0,2.0,-2.0,2.0,2.0,-2.0,2.0,1.5308611,-2.0,-2.0,0.2726677,-2.0,-2.0,2.0,-2.0,2.0,2.0,-2.0,2.0,1.4342132,-2.0,-2.0,0.16802092,-2.0
2025-06-09 17:51:44.156,0.0010979817,-0.009535068,0.05822905,0.052714705,-0.14421247,-0.0031368705,0.0,0.0,0.0,-0.03837089,-0.15151748,0.7273509,-0.23529284,0.22992818,0.71409225,-0.2159903,0.08581986,0.21465303,-0.3003546,-0.15085424,0.18843746,-0.19921596,0.05776074,-0.01285548,0.0071480554,0.009190678,0.043397892,0.07007989,0.02966088,0.09296191,-0.072369,-0.032383136,-0.045702137,0.051040486,-2.0,2.0,-2.0,2.0,2.0,-2.0,2.0,1.4342132,-2.0,-2.0,0.16802092,-2.0,-2.0,2.0,-2.0,2.0,2.0,-2.0,2.0,0.8796218,-2.0,-2.0,0.57357615,-2.0
2025-06-09 17:51:44.176,0.010619854,0.013933141,-0.02845837,0.051492643,-0.19570069,0.021532975,0.0,0.0,0.0,-0.039253466,-0.15462632,0.7210029,-0.22563107,0.22159196,0.70690966,-0.20634721,0.083064534,0.22026396,-0.31446195,-0.15274239,0.19345288,-0.20435531,0.028612882,-0.021337952,0.027315658,0.05299252,0.027460774,-0.045888606,-0.08103725,-0.03146613,-0.015909545,-0.0060945246,0.022446087,-0.050839715,-2.0,2.0,-2.0,2.0,2.0,-2.0,2.0,0.8796218,-2.0,-2.0,0.57357615,-2.0,-2.0,2.0,-2.0,2.0,2.0,-2.0,2.0,1.6449065,-2.0,-2.0,0.16336365,-2.0
2025-06-09 17:51:44.198,-0.027142826,-0.049085148,0.0602172,-0.008714304,-0.14484839,-0.028969146,0.0,0.0,0.0,-0.039794557,-0.14789666,0.7341564,-0.23112191,0.23103942,0.70251685,-0.21190599,0.07353918,0.23146746,-0.31521305,-0.14813106,0.19942024,-0.19510095,0.03569869,-0.030768378,-0.006976939,0.04600976,-0.013099314,-0.029285368,0.069056116,0.068092786,0.015209686,-0.007128166,-0.07556485,0.0018727343,-2.0,2.0,-2.0,2.0,2.0,-2.0,2.0,1.6449065,-2.0,-2.0,0.16336365,-2.0,-2.0,2.0,-2.0,2.0,2.0,-2.0,2.0,0.82099,-2.0,-2.0,0.6410629,-2.0
2025-06-09 17:51:44.217,0.063889965,0.016365465,0.0018871151,0.09000925,-0.20205472,0.00403069,0.0,0.0,0.0,-0.040476076,-0.15959102,0.7413646,-0.23519482,0.23806949,0.70344764,-0.20605792,0.08922393,0.22303274,-0.3176539,-0.1450038,0.1937881,-0.19527037,-0.035438206,0.032534834,-0.06708579,-0.03318319,-0.059067238,0.0074858447,0.0029754653,0.06693188,0.03625938,0.029851034,0.013554865,-0.030770024,-2.0,2.0,-2.0,2.0,2.0,-2.0,2.0,0.82099,-2.0,-2.0,0.6410629,-2.0,-2.0,2.0,-2.0,2.0,2.0,-2.0,2.0,1.2100714,-2.0,-2.0,0.27600652,-2.0
2025-06-09 17:51:44.237,-0.0046854448,0.062491924,-0.0010552531,0.00035533996,-0.17351998,-0.048490368,0.0,0.0,0.0,-0.040753648,-0.15670945,0.7251907,-0.23836736,0.22338457,0.70270205,-0.21540412,0.072616115,0.23373072,-0.30935022,-0.16137281,0.18430333,-0.19034708,-0.026029857,0.0013355871,-0.022388233,-0.059634592,0.05493578,0.040630914,0.039702754,-0.014536365,-0.028944636,-0.06581447,-0.07142268,-0.04700831,-2.0,2.0,-2.0,2.0,2.0,-2.0,2.0,1.2100714,-2.0,-2.0,0.27600652,-2.0,-2.0,2.0,-2.0,2.0,2.0,-2.0,2.0,1.2736022,-2.0,-2.0,0.44418532,-2.0
2025-06-09 17:51:44.257,-0.04808411,-0.053323563,-0.0010569041,0.0638628,-0.16130283,0.043093674,0.0,0.0,0.0,-0.040766347,-0.1635648,0.7392322,-0.23112814,0.22603661,0.72326356,-0.2130421,0.07955602,0.21976793,-0.3132635,-0.15386775,0.2014813,-0.18927057,-0.07295719,0.031761374,0.00030698252,-0.04174369,-0.047758598,-0.03126401,-0.014663101,-0.055442344,-0.0013744395,-0.042733695,-0.056912795,0.028106462,-2.0,2.0,-2.0,2.0,2.0,-2.0,2.0,1.2736022,-2.0,-2.0,0.44418532,-2.0,-2.0,2.0,-2.0,2.0,2.0,-2.0,2.0,1.4900126,-2.0,-2.0,0.24095424,-2.0
2025-06-09 17:51:44.277,0.007904614,-0.014134535,0.033454906,0.07783942,-0.17298464,-0.011636307,0.0,0.0,0.0,-0.040823527,-0.1567381,0.75168043,-0.24360774,0.22357032,0.71097803,-0.20162396,0.08243737,0.22865815,-0.29888484,-0.16495287,0.20006172,-0.2033499,-0.0530962,-0.03385532,0.01510266,0.0051388824,0.06942693,-0.042161226,0.0021373436,0.07320527,0.054002978,0.020004928,-0.044816364,0.066314176,-2.0,2.0,-2.0,2.0,2.0,-2.0,2.0,1.4900126,-2.0,-2.0,0.24095424,-2.0,-2.0,2.0,-2.0,2.0,2.0,-2.0,2.0,1.0894998,-2.0,-2.0,0.4742673,-2.0
2025-06-09 17:51:44.297,0.0366549,0.029278442,0.04234026,0.060503043,-0.18120156,0.004618542,0.0,0.0,0.0,-0.041105535,-0.15918928,0.73671585,-0.22972181,0.22867873,0.7206038,-0.20137821,0.07771754,0.24208507,-0.30722767,-0.15614703,0.19990897,-0.2014617,-0.003999987,0.009278699,-0.025357122,-0.011204669,0.0729224,-0.06590568,-0.008059159,0.05546551,-0.05235209,-0.06844056,-0.053645432,0.047653276,-2.0,2.0,-2.0,2.0,2.0,-2.0,2.0,1.0894998,-2.0,-2.0,0.4742673,-2.0,-2.0,2.0,-2.0,2.0,2.0,-2.0,2.0,1.2351596,-2.0,-2.0,0.36499363,-2.0
2025-06-09 17:51:44.317,0.001177534,-0.009552094,-0.032246165,0.004409115,-0.12639366,0.027443228,0.0,0.0,0.0,-0.04123249,-0.16504811,0.73834854,-0.23062123,0.22683945,0.72237796,-0.21320553,0.08618855,0.24058303,-0.31402588,-0.151939,0.20305227,-0.19084534,-0.07518648,-0.04675137,-0.04671161,0.051059835,-0.020702928,-0.021961467,-0.05292396,-0.029067665,0.014842644,-0.0011508925,0.026081415,0.057756077,-2.0,2.0,-2.0,2.0,2.0,-2.0,2.0,1.2351596,-2.0,-2.0,0.36499363,-2.0,-2.0,2.0,-2.0,2.0,2.0,-2.0,2.0,1.4492594,-2.0,-2.0,0.18940432,-2.0
2025-06-09 17:51:44.337,-0.06274424,0.003264605,-0.013947648,0.055291384,-0.15401798,-0.017396044,0.0,0.0,0.0,-0.041208386,-0.15185764,0.7519806,-0.24166562,0.23007391,0.71139216,-0.20653352,0.072247714,0.2441542,-0.31462651,-0.15473263,0.18477209,-0.20008567,-0.019744027,-0.015534846,-0.06417198,-0.016253524,-0.059225257,0.06856189,0.02224205,-0.05129474,0.06045958,0.0602551,0.007922756,0.0064329086,-2.0,2.0,-2.0,2.0,2.0,-2.0,2.0,1.4492594,-2.0,-2.0,0.18940432,-2.0,-2.0,2.0,-2.0,2.0,2.0,-2.0,2.0,1.1532233,-2.0,-2.0,0.4008711,-2.0
2025-06-09 17:51:44.357,-0.034889996,-0.00041374876,-0.03735462,0.03236237,-0.11711897,0.041108746,0.0,0.0,0.0,-0.041379105,-0.16651055,0.7494292,-0.234775,0.2305866,0.7119308,-0.20721248,0.07650121,0.2306701,-0.30679727,-0.15310359,0.19344743,-0.19481826,-0.020998184,0.048623387,-0.044288836,-0.00090761145,-0.012588241,-0.02138899,-0.06826105,-0.061733365,0.06537922,-0.010035505,0.069300376,-0.021138316,-2.0,2.0,-2.0,2.0,2.0,-2.0,2.0,1.1532233,-2.0,-2.0,0.4008711,-2.0,-2.0,2.0,-2.0,2.0,2.0,-2.0,2.0,1.4907008,-2.0,-2.0,0.2061636,-2.0
2025-06-09 17:51:44.378,-0.07699841,0.04786701,-0.01477177,0.01735343,-0.16671869,-0.021145618,0.0,0.0,0.0,-0.041479632,-0.16418916,0.7535215,-0.24046929,0.22922091,0.71339035,-0.19109859,0.07803353,0.23072457,-0.3051661,-0.16875103,0.19890103,-0.18406792,0.033722423,0.03102932,0.06416673,0.014245798,-0.02469063,-0.06275073,-0.03163413,0.0018754647,0.031457994,-0.027158722,0.0217923,-0.034881786,-2.0,2.0,-2.0,2.0,2.0,-2.0,2.0,1.4907008,-2.0,-2.0,0.2061636,-2.0,-2.0,2.0,-2.0,2.0,2.0,-2.0,2.0,1.5465605,-2.0,-2.0,0.20279737,-2.0
2025-06-09 17:51:44.397,-0.039630923,-0.007676778,0.014901173,0.06606858,-0.13617146,-0.028017003,0.0,0.0,0.0,-0.041704793,-0.15719835,0.7453598,-0.2429981,0.23524566,0.71234095,-0.19185865,0.07441961,0.25075275,-0.3064038,-0.1541833,0.20050272,-0.1876475,-0.06436961,-0.026124347,-0.026171241,0.06418066,0.013061654,0.062693655,-0.06350694,0.050988052,0.0051036705,0.04286857,-0.033950076,-0.04581669,-2.0,2.0,-2.0,2.0,2.0,-2.0,2.0,1.5465605,-2.0,-2.0,0.20279737,-2.0,-2.0,2.0,-2.0,2.0,2.0,-2.0,2.0,1.0599388,-2.0,-2.0,0.4847631,-2.0
2025-06-09 17:51:44.417,0.011684759,-0.028607702,-0.03648977,-0.011687147,-0.18535596,0.0055211936,0.0,0.0,0.0,-0.042202506,-0.154215,0.7489612,-0.24049556,0.23566008,0.72210896,-0.19034207,0.07434826,0.24928209,-0.3052441,-0.1582774,0.19046499,-0.18210287,-0.07881011,-0.025324555,-0.03610957,-0.010713863,0.02692394,-0.056787368,0.0034323554,-0.0694824,0.016674345,0.011574928,0.06062259,-0.051424943,-2.0,2.0,-2.0,2.0,2.0,-2.0,2.0,1.0599388,-2.0,-2.0,0.4847631,-2.0,-2.0,2.0,-2.0,2.0,2.0,-2.0,2.0,1.5319785,-2.0,-2.0,0.26118308,-2.0
2025-06-09 17:51:44.438,0.005781725,0.02030972,-0.036576934,0.06596045,-0.12149334,0.018385593,0.0,0.0,0.0,-0.042366922,-0.14761655,0.7532322,-0.2419744,0.24708305,0.70927155,-0.19248657,0.07775821,0.25230977,-0.3122369,-0.16194591,0.19691859,-0.19409765,-0.055140402,0.06642687,-0.07013668,-0.04120635,0.050670687,0.016844165,0.06079971,-0.064706154,-0.028793603,-0.01784128,0.030683903,-0.072554596,-2.0,2.0,-2.0,2.0,2.0,-2.0,2.0,1.5319785,-2.0,-2.0,0.26118308,-2.0,-2.0,2.0,-2.0,2.0,2.0,-2.0,2.0,1.566027,-2.0,-2.0,0.29332882,-2.0
2025-06-09 17:51:44.457,-0.076293565,-0.024961123,-0.007845366,-0.015630199,-0.19257185,0.0103028165,0.0,0.0,0.0,-0.042493064,-0.1476275,0.7514114,-0.24664278,0.23099229,0.7066423,-0.18501754,0.075637184,0.26083118,-0.32583746,-0.16501062,0.19178027,-0.19635838,0.018153757,0.059446268,-0.056850318,0.080295384,-0.06794113,-0.010415807,0.005399293,-0.032705992,-0.04507015,0.0311585,0.056665592,0.03454239,-2.0,2.0,-2.0,2.0,2.0,-2.0,2.0,1.566027,-2.0,-2.0,0.29332882,-2.0,-2.0,2.0,-2.0,2.0,2.0,-2.0,2.0,1.3921878,-2.0,-2.0,0.27542347,-2.0
2025-06-09 17:51:44.480,-0.03379253,0.011558814,-0.031901713,0.028545892,-0.21098688,-0.018764932,0.0,0.0,0.0,-0.04283755,-0.14946522,0.75371194,-0.25489622,0.24723579,0.72087675,-0.19006303,0.08054897,0.24870071,-0.3209149,-0.17057993,0.1911814,-0.19445424,-0.02365647,0.030991802,-0.0431557,-0.012403886,-0.039849527,0.05846907,0.020153856,-0.0029426694,-0.02854513,-0.028616654,-0.048882335,-0.02650424,-2.0,2.0,-2.0,2.0,2.0,-2.0,2.0,1.3921878,-2.0,-2.0,0.27542347,-2.0,-2.0,2.0,-2.0,2.0,2.0,-2.0,2.0,1.6863202,-2.0,-2.0,0.27626902,-2.0
2025-06-09 17:51:44.498,-0.06820536,0.02038586,0.030960605,0.05525759,-0.124033034,0.0021367504,0.0,0.0,0.0,-0.043171953,-0.15097038,0.7569803,-0.24516556,0.23950896,0.72490984,-0.19229053,0.075603366,0.26506978,-0.33095378,-0.17724307,0.19938092,-0.18308678,0.029725324,0.04355029,0.031511404,0.04280293,0.01850385,0.076515995,0.03617181,-0.036583707,-0.0159915,0.059725314,0.03475359,0.060627393,-2.0,2.0,-2.0,2.0,2.0,-2.0,2.0,1.6863202,-2.0,-2.0,0.27626902,-2.0,-2.0,2.0,-2.0,2.0,2.0,-2.0,2.0,0.91302305,-2.0,-2.0,0.414684,-2.0
2025-06-09 17:51:44.517,0.029308215,0.07118581,-0.0429016,-0.010560778,-0.1996212,0.005945708,0.0,0.0,0.0,-0.043646686,-0.15150934,0.7616869,-0.24859469,0.24540934,0.71746916,-0.18677986,0.077588886,0.26619303,-0.33112952,-0.17054577,0.19119124,-0.18248367,0.01625019,0.029221175,-0.042580143,0.0011993665,0.010523315,-0.028377345,0.05116336,-0.07867573,-0.021974768,0.0028440899,0.020851247,-0.06308435,-2.0,2.0,-2.0,2.0,2.0,-2.0,2.0,0.91302305,-2.0,-2.0,0.414684,-2.0,-2.0,2.0,-2.0,2.0,2.0,-2.0,2.0,1.7027421,-2.0,-2.0,0.26443404,-2.0
2025-06-09 17:51:44.537,-0.013296794,0.008378842,0.0026920068,0.067732275,-0.11725924,-0.013182259,0.0,0.0,0.0,-0.04361856,-0.1642293,0.7456107,-0.25216103,0.23350202,0.7138414,-0.19079107,0.06298801,0.2490077,-0.3258496,-0.17767508,0.19834307,-0.18844697,-0.009572007,0.06528105,-0.025745034,0.05768954,0.02749999,0.0732827,-0.01849318,0.03785154,-0.021291586,0.023199664,-0.019559978,-0.0365861,-2.0,2.0,-2.0,2.0,2.0,-2.0,2.0,1.7027421,-2.0,-2.0,0.26443404,-2.0,-2.0,2.0,-2.0,2.0,2.0,-2.0,2.0,1.3108351,-2.0,-2.0,0.34087986,-2.0
2025-06-09 17:51:44.557,0.003711635,0.022503443,0.020580018,0.0053872587,-0.17006662,-0.030878136,0.0,0.0,0.0,-0.04362945,-0.15244398,0.7468124,-0.24096265,0.24063924,0.716005,-0.1892125,0.064372376,0.25990698,-0.31748784,-0.16035782,0.18964282,-0.17939223,0.05937412,-0.030716918,0.018087035,-0.022311686,-0.034342945,0.048992317,-0.034324642,-0.048546556,-0.074052215,-0.012210673,-0.012906599,-0.05253535,-2.0,2.0,-2.0,2.0,2.0,-2.0,2.0,1.3108351,-2.0,-2.0,0.34087986,-2.0,-2.0,2.0,-2.0,2.0,2.0,-2.0,2.0,1.2641636,-2.0,-2.0,0.43142527,-2.0
2025-06-09 17:51:44.578,0.03908686,0.0009309548,0.004914939,0.011445826,-0.15667535,-0.0034780118,0.0,0.0,0.0,-0.043661702,-0.14928515,0.7491358,-0.25118777,0.24449047,0.7064824,-0.19089352,0.07000086,0.25206834,-0.3176443,-0.17354724,0.18444192,-0.18438697,-0.064472064,0.052106008,0.07332907,-0.009220895,-0.027438965,-0.034418847,-0.0065737413,-0.029749474,-0.013475454,0.052022632,-0.01801024,0.022788573,-2.0,2.0,-2.0,2.0,2.0,-2.0,2.0,1.2641636,-2.0,-2.0,0.43142527,-2.0,-2.0,2.0,-2.0,2.0,2.0,-2.0,2.0,1.4525783,-2.0,-2.0,0.25196522,-2.0
2025-06-09 17:51:44.599,-0.008506745,0.003159584,0.01932482,0.050918363,-0.16878802,0.031052884,0.0,0.0,0.0,-0.04345581,-0.15120912,0.7484836,-0.24874583,0.2427178,0.7197849,-0.20126873,0.0691099,0.26602918,-0.32057977,-0.16324258,0.1970623,-0.19206111,0.025138624,0.05370778,-0.015633134,-0.01493839,0.013825081,0.06868073,0.012652102,-0.05122913,-0.07288941,0.0022353178,0.054988537,0.049029563,-2.0,2.0,-2.0,2.0,2.0,-2.0,2.0,1.4525783,-2.0,-2.0,0.25196522,-2.0,-2.0,2.0,-2.0,2.0,2.0,-2.0,2.0,1.0860808,-2.0,-2.0,0.37402576,-2.0
2025-06-09 17:51:44.618,0.061099913,-0.024262777,-0.056338616,0.038556132,-0.15908624,-0.030826468,0.0,0.0,0.0,-0.04328355,-0.15742956,0.75102293,-0.24464148,0.24682137,0.7149692,-0.18865699,0.072264776,0.25761732,-0.31043035,-0.16952562,0.18503141,-0.19659653,-0.06972071,0.009088963,-0.06205262,-0.07170172,0.004719125,-0.05514887,0.05619047,-0.05117526,-0.054235864,0.016076744,-0.06013758,-0.027654193,-2.0,2.0,-2.0,2.0,2.0,-2.0,2.0,1.0860808,-2.0,-2.0,0.37402576,-2.0,-2.0,2.0,-2.0,2.0,2.0,-2.0,2.0,1.9443811,-2.0,-2.0,0.18232878,-2.0
2025-06-09 17:51:44.638,-0.02510585,-0.01917943,-0.014567317,0.061761692,-0.15132846,-0.021354148,0.0,0.0,0.0,-0.042943418,-0.15405394,0.74359953,-0.25484508,0.24117148,0.7101323,-0.19934447,0.065303124,0.25042182,-0.32896426,-0.1579665,0.19061908,-0.19117737,-0.014036446,0.025547445,0.012200824,0.047136635,0.007824468,-0.02754669,-0.06241282,0.10539439,0.028667517,-0.054577947,-0.030838287,-0.07242225,-2.0,2.0,-2.0,2.0,2.0,-2.0,2.0,1.9443811,-2.0,-2.0,0.18232878,-2.0,-2.0,2.0,-2.0,2.0,2.0,-2.0,2.0,1.698115,-2.0,-2.0,0.15120538,-2.0
2025-06-09 17:51:44.658,-0.020551203,0.009205983,0.049803384,0.06245879,-0.17629834,-0.035180755,0.0,0.0,0.0,-0.04310272,-0.15589345,0.76436484,-0.23968887,0.24856819,0.71188956,-0.18907577,0.068330854,0.26971036,-0.329613,-0.16189288,0.19407897,-0.1893843,0.062396623,0.027913928,0.057829875,0.052365966,0.01977904,0.07680756,-0.03488645,0.09283443,-0.055709448,-0.043790285,0.024862897,-0.018634114,-2.0,2.0,-2.0,2.0,2.0,-2.0,2.0,1.698115,-2.0,-2.0,0.15120538,-2.0,-2.0,2.0,-2.0,2.0,2.0,-2.0,2.0,1.0236794,-2.0,-2.0,0.3961603,-2.0
2025-06-09 17:51:44.681,0.01545143,0.027704854,0.001351403,0.0054344176,-0.1637411,-0.004533338,0.0,0.0,0.0,-0.043742154,-0.1546656,0.7483184,-0.23735617,0.2521315,0.71789485,-0.18930836,0.07341522,0.26536688,-0.3273893,-0.16640946,0.18744527,-0.18819162,-0.0002010917,-0.078472674,0.06028887,-0.055387333,0.053576905,0.04753586,-0.036215022,-0.05909233,0.060151614,-0.031839516,-0.064780295,-0.046950955,-2.0,2.0,-2.0,2.0,2.0,-2.0,2.0,1.0236794,-2.0,-2.0,0.3961603,-2.0,-2.0,2.0,-2.0,2.0,2.0,-2.0,2.0,1.3573526,-2.0,-2.0,0.43915576,-2.0
2025-06-09 17:51:44.698,-0.0062978147,0.0050619347,0.039718416,0.001647799,-0.1440591,0.0107187005,0.0,0.0,0.0,-0.043940492,-0.1555636,0.74635524,-0.24332714,0.2371483,0.7119008,-0.19582804,0.07513439,0.26340914,-0.32077798,-0.17307958,0.19207649,-0.19641179,-0.047306415,0.049928844,0.022895806,-0.056596424,-0.017015621,-0.0041433363,-0.04044955,-0.05612941,-0.002756973,0.005179807,-0.008888009,-0.016709838,-2.0,2.0,-2.0,2.0,2.0,-2.0,2.0,1.3573526,-2.0,-2.0,0.43915576,-2.0,-2.0,2.0,-2.0,2.0,2.0,-2.0,2.0,1.0938824,-2.0,-2.0,0.4458472,-2.0
2025-06-09 17:51:44.718,0.04747305,0.026325269,-0.023254456,0.060942937,-0.18657124,-0.042591356,0.0,0.0,0.0,-0.04379312,-0.16312528,0.75797546,-0.253764,0.24488692,0.7230598,-0.19256368,0.06409171,0.24759027,-0.31720355,-0.17361647,0.17648606,-0.19599801,-0.005335509,0.06651724,0.03335343,0.04050938,0.023838945,0.04916482,-0.0602979,-0.009791935,-0.056844335,0.07590038,-0.075083554,-0.06533367,-2.0,2.0,-2.0,2.0,2.0,-2.0,2.0,1.0938824,-2.0,-2.0,0.4458472,-2.0,-2.0,2.0,-2.0,2.0,2.0,-2.0,2.0,1.7046629,-2.0,-2.0,0.27184075,-2.0
2025-06-09 17:51:44.739,-0.06387481,0.020638138,0.029226324,0.010923301,-0.14229438,-0.013598993,0.0,0.0,0.0,-0.043340154,-0.16979091,0.758387,-0.24610482,0.24827905,0.72392523,-0.2048119,0.06559405,0.26035428,-0.31296226,-0.1585357,0.18365476,-0.19562392,-0.06192093,-0.055793058,-0.039122574,0.020148013,0.06673978,-0.010568146,-0.010538998,-0.04375768,0.048137132,-0.012578356,-0.03759992,-0.06124095,-2.0,2.0,-2.0,2.0,2.0,-2.0,2.0,1.7046629,-2.0,-2.0,0.27184075,-2.0,-2.0,2.0,-2.0,2.0,2.0,-2.0,2.0,0.97968394,-2.0,-2.0,0.63504106,-2.0
2025-06-09 17:51:44.759,0.056370836,-0.019659221,-0.034413762,0.0052945805,-0.16789247,-0.012079431,0.0,0.0,0.0,-0.043156296,-0.16397074,0.7449252,-0.24020556,0.24720079,0.7230435,-0.20065983,0.070873685,0.24988586,-0.31012034,-0.16854347,0.19309916,-0.20424819,-0.004272421,0.056860782,0.018655553,0.043079935,-0.028345332,-0.023572305,0.02307758,-0.07861036,0.018020952,-0.05234411,0.06257746,0.016605424,-2.0,2.0,-2.0,2.0,2.0,-2.0,2.0,0.97968394,-2.0,-2.0,0.63504106,-2.0,-2.0,2.0,-2.0,2.0,2.0,-2.0,2.0,1.6562437,-2.0,-2.0,0.099150494,-2.0
2025-06-09 17:51:44.780,-0.06849455,-0.02966657,0.0033374606,-0.007007587,-0.1808642,-0.026283385,0.0,0.0,0.0,-0.042731974,-0.1579992,0.75836563,-0.24845353,0.23437206,0.7293857,-0.18841876,0.073033445,0.258763,-0.32874334,-0.1618955,0.18327105,-0.19031355,0.0006171452,0.020876367,-0.0010803728,0.025769778,0.0114230905,0.06121704,-0.05024714,0.07842396,0.029135592,-0.054868005,-0.03732472,0.0042915596,-2.0,2.0,-2.0,2.0,2.0,-2.0,2.0,1.6562437,-2.0,-2.0,0.099150494,-2.0,-2.0,2.0,-2.0,2.0,2.0,-2.0,2.0,1.3407037,-2.0,-2.0,0.34630734,-2.0
2025-06-09 17:51:44.799,-0.025338149,0.023714636,0.009386352,0.027001843,-0.19212355,0.04254,0.0,0.0,0.0,-0.042529732,-0.15638445,0.7583967,-0.2486324,0.23170047,0.7244994,-0.18778718,0.07049414,0.26885042,-0.329431,-0.15925823,0.18077834,-0.19654919,-0.011991519,-0.017401652,0.06940784,0.014835713,0.042988256,-0.03274551,0.06635478,-0.032032385,0.033974882,0.0010795421,-0.026985975,-0.058265053,-2.0,2.0,-2.0,2.0,2.0,-2.0,2.0,1.3407037,-2.0,-2.0,0.34630734,-2.0,-2.0,2.0,-2.0,2.0,2.0,-2.0,2.0,1.3348845,-2.0,-2.0,0.45874983,-2.0
2025-06-09 17:51:44.819,0.03645469,-0.060124293,0.02987091,-0.01085152,-0.114456885,0.04156525,0.0,0.0,0.0,-0.042544167,-0.1728597,0.74296534,-0.23538347,0.23131675,0.73509955,-0.19162002,0.065169856,0.25182748,-0.32248026,-0.16996138,0.18044735,-0.19997199,-0.031356078,-0.02685989,0.05696744,-0.008539775,0.032330412,-0.07513003,0.02775528,0.0308843,-0.00043289,0.05753705,-0.037854534,0.0070274486,-2.0,2.0,-2.0,2.0,2.0,-2.0,2.0,1.3348845,-2.0,-2.0,0.45874983,-2.0,-2.0,2.0,-2.0,2.0,2.0,-2.0,2.0,1.305354,-2.0,-2.0,0.5779572,-2.0
2025-06-09 17:51:44.839,0.0046459655,-0.030008134,-0.0104676075,-0.002162077,-0.12119337,0.024000028,0.0,0.0,0.0,-0.042500693,-0.15820199,0.7575168,-0.2317776,0.24039772,0.7226278,-0.1865875,0.08291935,0.2573002,-0.3258053,-0.16823998,0.19461897,-0.19715701,-0.03533279,-0.04515658,0.017624924,0.07026655,-0.04045041,0.030022277,-0.018376894,0.007976492,-0.00068647903,-0.07289718,0.081027925,0.032781247,-2.0,2.0,-2.0,2.0,2.0,-2.0,2.0,1.305354,-2.0,-2.0,0.5779572,-2.0,-2.0,2.0,-2.0,2.0,2.0,-2.0,2.0,1.4093271,-2.0,-2.0,0.14173229,-2.0
2025-06-09 17:51:44.859,0.01887578,-0.012851591,0.015279629,0.05900377,-0.17696981,0.026908252,0.0,0.0,0.0,-0.04232336,-0.15836886,0.74636024,-0.2411849,0.24499932,0.72501177,-0.20598605,0.08104478,0.26200095,-0.32392678,-0.1629993,0.17465256,-0.21005714,-0.024994422,-0.0631416,-0.070673905,-0.06563879,-0.03853063,-0.01169762,0.014507633,0.035133887,0.038712222,0.0062048137,-0.069552116,0.035831783,-2.0,2.0,-2.0,2.0,2.0,-2.0,2.0,1.4093271,-2.0,-2.0,0.14173229,-2.0,-2.0,2.0,-2.0,2.0,2.0,-2.0,2.0,1.2432917,-2.0,-2.0,0.41920418,-2.0
2025-06-09 17:51:44.881,0.05703457,0.0020101552,-0.034791075,0.07393058,-0.123594254,-0.0372199,0.0,0.0,0.0,-0.042246502,-0.17012355,0.75063384,-0.24529791,0.24476813,0.7310812,-0.1899684,0.083490536,0.24817678,-0.31925526,-0.1651118,0.17702954,-0.20130429,-0.021327734,-0.051935926,0.01023091,0.005514137,-0.073213,-0.03064979,-0.010654985,-0.05122394,-0.0016285822,-0.031362325,0.04632818,0.0076847267,-2.0,2.0,-2.0,2.0,2.0,-2.0,2.0,1.2432917,-2.0,-2.0,0.41920418,-2.0,-2.0,2.0,-2.0,2.0,2.0,-2.0,2.0,1.7433575,-2.0,-2.0,0.11140795,-2.0
2025-06-09 17:51:44.899,0.010159273,-0.012892536,-0.02690724,-0.0049986634,-0.1497912,0.0084908595,0.0,0.0,0.0,-0.042184047,-0.16338181,0.7474263,-0.24608837,0.2312082,0.72629386,-0.1996377,0.07174118,0.2564997,-0.31322417,-0.15416773,0.17190883,-0.2086929,0.08191094,-0.0077864123,0.034675322,0.004843253,0.016110415,-0.012900316,-0.01619795,-0.053853285,-0.04726847,-0.00071541173,-0.023675969,-0.06906108,-2.0,2.0,-2.0,2.0,2.0,-2.0,2.0,1.7433575,-2.0,-2.0,0.11140795,-2.0,-2.0,2.0,-2.0,2.0,2.0,-2.0,2.0,1.7228901,-2.0,-2.0,0.29626197,-2.0
2025-06-09 17:51:44.919,-0.025986206,-0.032271296,0.030264603,0.03847084,-0.20746866,-0.00054683856,0.0,0.0,0.0,-0.042505603,-0.16847251,0.7550769,-0.23158371,0.2406741,0.71937835,-0.1931298,0.08235803,0.2646035,-0.33173302,-0.15791735,0.18211034,-0.1962416,-0.02897721,0.03621952,0.04600827,0.024029588,-0.031372447,-0.0022921918,0.027562266,-0.04631703,-0.06482924,-0.007684551,0.07429932,0.05923875,-2.0,2.0,-2.0,2.0,2.0,-2.0,2.0,1.7228901,-2.0,-2.0,0.29626197,-2.0,-2.0,2.0,-2.0,2.0,2.0,-2.0,2.0,1.0854594,-2.0,-2.0,0.3106473,-2.0
2025-06-09 17:51:44.940,-0.011821332,0.08030179,-0.027430391,0.0126283895,-0.20982745,-0.0046313396,0.0,0.0,0.0,-0.043215808,-0.14969002,0.75577223,-0.22899744,0.2480813,0.7182335,-0.18799697,0.06548093,0.26596892,-0.3245651,-0.16696246,0.17952088,-0.20262344,0.029904073,0.01905508,0.044717625,-0.00033894455,0.065671936,-0.076738484,0.02277489,0.025153106,0.073500894,0.043882936,-0.018324522,0.007701753,-2.0,2.0,-2.0,2.0,2.0,-2.0,2.0,1.0854594,-2.0,-2.0,0.3106473,-2.0,-2.0,2.0,-2.0,2.0,2.0,-2.0,2.0,1.597997,-2.0,-2.0,0.20574589,-2.0
2025-06-09 17:51:44.960,-0.054351963,0.04616057,0.058981456,-0.0066698347,-0.13195157,-0.04383136,0.0,0.0,0.0,-0.043563697,-0.1615394,0.7493941,-0.23631303,0.23596291,0.7338019,-0.19778107,0.08099657,0.27293792,-0.31563127,-0.15639572,0.17860013,-0.19370125,-0.022242973,-0.05942089,-0.06922935,0.075342596,-0.025388807,-0.063458346,-0.025605682,-0.021153871,0.019089032,0.020177916,0.031884126,0.06792943,-2.0,2.0,-2.0,2.0,2.0,-2.0,2.0,1.597997,-2.0,-2.0,0.20574589,-2.0,-2.0,2.0,-2.0,2.0,2.0,-2.0,2.0,0.6843417,-2.0,-2.0,0.6055154,-2.0
2025-06-09 17:51:44.980,0.110627525,0.024216587,-0.062028304,0.014945425,-0.14093824,0.030424295,0.0,0.0,0.0,-0.043854337,-0.16323456,0.75584817,-0.24985214,0.25060478,0.724852,-0.1982753,0.07399939,0.259275,-0.30758095,-0.15608306,0.1750432,-0.19122376,0.042281836,-0.0809705,-0.03055802,0.050063875,-0.067505375,-0.045307633,-0.07359343,-0.09360142,0.023450214,-0.02610639,0.016840369,-0.043934878,-2.0,2.0,-2.0,2.0,2.0,-2.0,2.0,0.6843417,-2.0,-2.0,0.6055154,-2.0,-2.0,2.0,-2.0,2.0,2.0,-2.0,2.0,2.0,-2.0,-2.0,0.08227594,-2.0
2025-06-09 17:51:45.000,-0.050661806,-0.06523598,-0.012872836,0.010045095,-0.18266417,-0.016054532,0.0,0.0,0.0,-0.043466873,-0.16380143,0.75828934,-0.23953177,0.24658062,0.7183456,-0.19517653,0.06280865,0.260098,-0.31303447,-0.1628438,0.15996714,-0.19308645,-0.008295435,0.07002825,0.029942757,0.0008809188,0.015032882,0.0738193,-0.0070763687,0.082023226,-0.06847237,0.011231561,-0.042551912,-0.0052863755,-2.0,2.0,-2.0,2.0,2.0,-2.0,2.0,2.0,-2.0,-2.0,0.08227594,-2.0,-2.0,2.0,-2.0,2.0,2.0,-2.0,2.0,1.607536,-2.0,-2.0,0.2784267,-2.0
2025-06-09 17:51:45.020,-0.03284507,0.016216055,-0.027633943,0.01886229,-0.1857586,0.037281144,0.0,0.0,0.0,-0.043430995,-0.15027264,0.751971,-0.24403164,0.25006318,0.7296318,-0.19444866,0.071056634,0.261788,-0.33119634,-0.15489459,0.16518942,-0.19291732,-0.028627088,-0.020104568,0.011838087,-0.034937862,0.0038766852,-0.02133771,0.071976714,-0.010285726,-0.010932668,-0.010805611,0.07811232,0.040234912,-2.0,2.0,-2.0,2.0,2.0,-2.0,2.0,1.607536,-2.0,-2.0,0.2784267,-2.0,-2.0,2.0,-2.0,2.0,2.0,-2.0,2.0,1.5554799,-2.0,-2.0,0.18464799,-2.0
2025-06-09 17:51:45.040,-0.047809463,0.055395216,0.028276144,-0.008222514,-0.17483519,0.03322608,0.0,0.0,0.0,-0.043840747,-0.1581159,0.7589578,-0.22963713,0.25507212,0.72886807,-0.19455335,0.07234388,0.27409,-0.32119527,-0.16102512,0.16559191,-0.21006279,0.032453585,0.055520426,0.05726747,0.037986927,0.031321686,0.058596816,0.024554068,0.04216161,-0.042264387,0.058744233,-0.01272558,0.049439095,-2.0,2.0,-2.0,2.0,2.0,-2.0,2.0,1.5554799,-2.0,-2.0,0.18464799,-2.0,-2.0,2.0,-2.0,2.0,2.0,-2.0,2.0,1.1148839,-2.0,-2.0,0.5117124,-2.0
2025-06-09 17:51:45.060,0.038097255,0.038220778,-0.028899109,0.056929227,-0.20937946,-0.03394574,0.0,0.0,0.0,-0.044293594,-0.16960901,0.76777804,-0.23214343,0.2535242,0.7294444,-0.20091087,0.07671036,0.263507,-0.32950157,-0.15910484,0.15912886,-0.213337,-0.06484316,-0.010027775,0.0034508826,-0.078395024,-0.0005047501,0.064266846,-0.050649587,0.05828453,-0.03417033,0.0698188,-0.054193996,-0.027106464,-2.0,2.0,-2.0,2.0,2.0,-2.0,2.0,1.1148839,-2.0,-2.0,0.5117124,-2.0,-2.0,2.0,-2.0,2.0,2.0,-2.0,2.0,1.6813248,-2.0,-2.0,0.25708467,-2.0
2025-06-09 17:51:45.080,0.010532447,0.03163464,-0.010324381,0.028977925,-0.17412585,-0.03220688,0.0,0.0,0.0,-0.044297203,-0.16297333,0.7685609,-0.23480481,0.24037108,0.72505116,-0.19244084,0.05947971,0.2673897,-0.33409166,-0.15664998,0.16641778,-0.20515165,-0.004885194,-0.03874515,-0.0485936,-0.060080957,0.024393419,0.04768408,0.06410211,0.054213475,0.0043913685,0.001845725,-0.050880477,0.055959605,-2.0,2.0,-2.0,2.0,2.0,-2.0,2.0,1.6813248,-2.0,-2.0,0.25708467,-2.0,-2.0,2.0,-2.0,2.0,2.0,-2.0,2.0,1.3980324,-2.0,-2.0,0.30047208,-2.0
2025-06-09 17:51:45.100,0.017511705,0.055801064,-0.0054553463,0.0739468,-0.2025292,0.030036738,0.0,0.0,0.0,-0.044304296,-0.16996774,0.7587131,-0.23177914,0.23815954,0.72574425,-0.18617289,0.07034136,0.26865786,-0.32499462,-0.15786058,0.1620188,-0.21188377,0.014123688,0.04998148,-0.008986901,0.024282314,-0.060221903,0.0070495484,-0.049222328,-0.07160025,0.066253744,-0.07151838,-0.028280728,0.00054703245,-2.0,2.0,-2.0,2.0,2.0,-2.0,2.0,1.3980324,-2.0,-2.0,0.30047208,-2.0,-2.0,2.0,-2.0,2.0,2.0,-2.0,2.0,1.5891621,-2.0,-2.0,0.2450424,-2.0
2025-06-09 17:51:45.120,-0.003727587,-0.026112925,-0.013742089,-0.0025089534,-0.19473413,-0.027145183,0.0,0.0,0.0,-0.044339713,-0.15553331,0.7662781,-0.24895246,0.253734,0.7344917,-0.19574025,0.058594152,0.2825992,-0.3208512,-0.17152458,0.16485426,-0.20374519,0.013244425,-0.030506087,-1.26922005e-05,0.020507997,0.068661526,-0.02455436,-0.035469033,-0.022162955,0.06834832,-0.037768498,-0.028046107,-0.054829508,-2.0,2.0,-2.0,2.0,2.0,-2.0,2.0,1.5891621,-2.0,-2.0,0.2450424,-2.0,-2.0,2.0,-2.0,2.0,2.0,-2.0,2.0,1.6139917,-2.0,-2.0,0.301107,-2.0
2025-06-09 17:51:45.141,-0.062280513,-0.009183468,0.060021367,0.07222476,-0.1913587,-0.042037737,0.0,0.0,0.0,-0.04445472,-0.15921238,0.7558377,-0.2525519,0.24517438,0.71870035,-0.184811,0.06846915,0.26947764,-0.32491753,-0.16454022,0.16407698,-0.20100476,-0.07371103,0.0011313345,0.014076382,0.028736116,0.0148633905,-0.01556049,0.066532135,0.04324509,-0.0473164,-0.060582772,-0.063320674,0.0021035243,-2.0,2.0,-2.0,2.0,2.0,-2.0,2.0,1.6139917,-2.0,-2.0,0.301107,-2.0,-2.0,2.0,-2.0,2.0,2.0,-2.0,2.0,0.9918242,-2.0,-2.0,0.60496897,-2.0
2025-06-09 17:51:45.161,0.07650826,0.0013091692,-0.06925491,0.057457455,-0.18519998,-0.03882909,0.0,0.0,0.0,-0.044719618,-0.16260149,0.75283223,-0.23713748,0.23704064,0.71948826,-0.18331315,0.06436935,0.2818682,-0.3156825,-0.16683315,0.17618744,-0.2065927,0.017401272,-0.07251235,0.038464297,0.00086784567,-0.005061527,-0.03493429,-0.024469195,0.0062491777,-0.0426078,-0.05082995,0.01602221,-0.06641636,-2.0,2.0,-2.0,2.0,2.0,-2.0,2.0,0.9918242,-2.0,-2.0,0.60496897,-2.0,-2.0,2.0,-2.0,2.0,2.0,-2.0,2.0,2.0,-2.0,-2.0,-0.02508657,-2.0
2025-06-09 17:51:45.181,-0.02901364,-0.059012495,0.061465397,0.08366608,-0.18917847,-0.041914377,0.0,0.0,0.0,-0.04444956,-0.16408537,0.75983673,-0.23552142,0.2545925,0.7354141,-0.19305402,0.05853393,0.27121598,-0.3303172,-0.16370831,0.16382115,-0.19501248,-0.039286755,-0.021070234,-0.02570581,-0.018136468,-0.03595937,0.0035423776,0.019719731,0.07688381,-0.0655609,0.06355007,-0.07411739,-0.020006798,-2.0,2.0,-2.0,2.0,2.0,-2.0,2.0,2.0,-2.0,-2.0,-0.02508657,-2.0,-2.0,2.0,-2.0,2.0,2.0,-2.0,2.0,0.8321261,-2.0,-2.0,0.740807,-2.0
2025-06-09 17:51:45.201,0.06361277,0.044756044,-0.07310858,0.07708664,-0.1700111,-0.0072841947,0.0,0.0,0.0,-0.044534627,-0.15794931,0.7698248,-0.24295467,0.25263584,0.7354889,-0.19122203,0.07436915,0.26970035,-0.33060905,-0.1592112,0.16492717,-0.2035121,0.015112617,0.02714035,-0.036573227,-0.03744803,-0.05679841,-0.0023249798,0.05141399,-0.040487792,0.08132952,-0.06728552,-0.008349637,-0.07696679,-2.0,2.0,-2.0,2.0,2.0,-2.0,2.0,0.8321261,-2.0,-2.0,0.740807,-2.0,-2.0,2.0,-2.0,2.0,2.0,-2.0,2.0,2.0,-2.0,-2.0,0.03982682,-2.0
2025-06-09 17:51:45.221,-0.057382397,-0.067098565,0.040938023,0.030324593,-0.1299325,-0.025653996,0.0,0.0,0.0,-0.044207696,-0.1759247,0.77013993,-0.24943253,0.24053673,0.7291038,-0.18615669,0.06405982,0.28164822,-0.33691385,-0.16646907,0.14894699,-0.20249565,0.06098757,0.06432177,0.0055789566,-0.05524048,-0.013561721,-0.061638363,-0.06439539,-0.040566895,-0.033938266,0.08060305,-0.0781191,-0.056382634,-2.0,2.0,-2.0,2.0,2.0,-2.0,2.0,2.0,-2.0,-2.0,0.03982682,-2.0,-2.0,2.0,-2.0,2.0,2.0,-2.0,2.0,1.3210119,-2.0,-2.0,0.54917413,-2.0
2025-06-09 17:51:45.241,-0.024721239,-0.036252566,0.0142892655,0.06119702,-0.13341737,0.03904853,0.0,0.0,0.0,-0.0441714,-0.1601884,0.75299793,-0.24224415,0.24823143,0.7367806,-0.18736175,0.071363635,0.2781029,-0.3326377,-0.15687813,0.15094468,-0.21134941,-0.0057693846,0.00710796,0.07186597,-0.023739604,-0.052089326,-0.012118936,-0.069304876,-0.0007828329,-0.030141247,-0.01848058,0.08577739,-0.052208517,-2.0,2.0,-2.0,2.0,2.0,-2.0,2.0,1.3210119,-2.0,-2.0,0.54917413,-2.0,-2.0,2.0,-2.0,2.0,2.0,-2.0,2.0,1.5692543,-2.0,-2.0,0.25368518,-2.0
2025-06-09 17:51:45.263,-0.012677047,-0.0017382815,-0.0060562477,0.07869434,-0.17824526,-0.03846021,0.0,0.0,0.0,-0.044225305,-0.16137788,0.7564376,-0.2345233,0.2553901,0.736982,-0.18697,0.066474125,0.29561806,-0.33876622,-0.15176512,0.17022528,-0.21793136,-0.07194609,-0.022065058,0.02678345,0.06282026,0.027844947,0.025203718,0.01956757,-0.011596497,0.046210866,0.03767009,-0.05970323,-0.07194321,-2.0,2.0,-2.0,2.0,2.0,-2.0,2.0,1.5692543,-2.0,-2.0,0.25368518,-2.0,-2.0,2.0,-2.0,2.0,2.0,-2.0,2.0,1.3672553,-2.0,-2.0,0.43798918,-2.0
2025-06-09 17:51:45.281,0.0032376037,0.05013922,0.018596584,0.07875341,-0.20516612,0.040542968,0.0,0.0,0.0,-0.04425097,-0.16674109,0.7622038,-0.23068446,0.24266282,0.74534124,-0.19160041,0.073899284,0.28473848,-0.3174554,-0.16306208,0.17186671,-0.22380945,0.03874017,0.010553907,0.019036205,-0.031448953,-0.06573778,0.06526111,0.06814992,-0.043254662,-0.06142436,-0.050809495,-0.07076197,-0.046518188,-2.0,2.0,-2.0,2.0,2.0,-2.0,2.0,1.3672553,-2.0,-2.0,0.43798918,-2.0,-2.0,2.0,-2.0,2.0,2.0,-2.0,2.0,1.4930831,-2.0,-2.0,0.41937858,-2.0
2025-06-09 17:51:45.301,-0.03719809,-0.016915884,-0.02040683,0.08405552,-0.14167856,-0.035036862,0.0,0.0,0.0,-0.044214383,-0.17258923,0.76678044,-0.23015748,0.2496106,0.73360753,-0.19220011,0.0765521,0.28116414,-0.33001462,-0.15819557,0.16751225,-0.2186479,-0.03339061,0.00791128,0.021139782,0.034102198,0.066012755,-0.05137784,0.010673623,-0.03045473,0.021924311,0.036684893,0.0061962777,-0.030589186,-2.0,2.0,-2.0,2.0,2.0,-2.0,2.0,1.4930831,-2.0,-2.0,0.41937858,-2.0,-2.0,2.0,-2.0,2.0,2.0,-2.0,2.0,1.5969375,-2.0,-2.0,0.22446246,-2.0
2025-06-09 17:51:45.321,-0.039871313,0.050146714,0.023992442,-0.004891433,-0.12559243,-0.021912647,0.0,0.0,0.0,-0.044136185,-0.16085231,0.75934887,-0.23054512,0.25751132,0.7412025,-0.18897934,0.07409818,0.28414243,-0.33010638,-0.15254153,0.1605834,-0.20538047,0.038484808,-0.026348768,0.0025961006,-0.015578818,-0.049244203,-0.021267291,0.03366367,0.0291949,0.0491429,-0.037801452,-0.041491423,-0.0059893136,-2.0,2.0,-2.0,2.0,2.0,-2.0,2.0,1.5969375,-2.0,-2.0,0.22446246,-2.0,-2.0,2.0,-2.0,2.0,2.0,-2.0,2.0,1.2574831,-2.0,-2.0,0.44249874,-2.0
2025-06-09 17:51:45.341,0.015783483,0.020774644,-0.044215713,0.060329515,-0.15443827,0.04889051,0.0,0.0,0.0,-0.04422442,-0.1692658,0.76295114,-0.2467885,0.251832,0.74526787,-0.19814062,0.06727518,0.27415732,-0.3120555,-0.16256712,0.16965333,-0.21784492,0.0008630764,0.0003589848,-0.014155011,-0.014658601,0.02362914,0.0012430745,-0.042196974,0.017295316,0.07170721,-0.0752235,-0.05393094,-0.049708065,-2.0,2.0,-2.0,2.0,2.0,-2.0,2.0,1.2574831,-2.0,-2.0,0.44249874,-2.0,-2.0,2.0,-2.0,2.0,2.0,-2.0,2.0,1.9958866,-2.0,-2.0,0.15011771,-2.0
2025-06-09 17:51:45.363,-0.049166642,0.013331398,-0.020860417,0.05135154,-0.15587893,0.033112433,0.0,0.0,0.0,-0.04417358,-0.16759542,0.76106393,-0.2448283,0.24791707,0.7497761,-0.18539074,0.060474332,0.2815958,-0.3198296,-0.16627602,0.1709498,-0.2019547,-0.026202915,-0.0010131147,-0.035256766,0.06513505,0.002929289,0.011772929,0.05959319,0.027125949,-0.032186758,0.023086503,-0.075146176,0.003664398,-2.0,2.0,-2.0,2.0,2.0,-2.0,2.0,1.9958866,-2.0,-2.0,0.15011771,-2.0,-2.0,2.0,-2.0,2.0,2.0,-2.0,2.0,1.6197721,-2.0,-2.0,0.35328656,-2.0
2025-06-09 17:51:45.381,-0.019887382,-0.0053161285,-0.02241857,0.0096172895,-0.18297325,-0.028748605,0.0,0.0,0.0,-0.04454554,-0.16174637,0.7686964,-0.24383558,0.2559041,0.74502754,-0.17774308,0.07108507,0.2916412,-0.33286992,-0.15382402,0.15539606,-0.22098309,0.074572384,0.07202802,-0.011840702,0.0069793584,-0.036337145,-0.03608461,-0.06932265,-0.015889738,0.058989696,0.027520364,0.076646455,0.043802314,-2.0,2.0,-2.0,2.0,2.0,-2.0,2.0,1.6197721,-2.0,-2.0,0.35328656,-2.0,-2.0,2.0,-2.0,2.0,2.0,-2.0,2.0,1.7170779,-2.0,-2.0,0.105803445,-2.0
2025-06-09 17:51:45.402,-0.01598017,-0.009740384,0.014542185,0.08356863,-0.16730876,0.011124001,0.0,0.0,0.0,-0.045137722,-0.16825679,0.77649105,-0.23186642,0.26103404,0.74964726,-0.18802401,0.07229274,0.30626675,-0.3348191,-0.15937805,0.15204367,-0.21770458,0.047326483,-0.065387145,-0.053610206,-0.013438907,0.05235359,0.0022583844,-0.05462406,0.03945777,0.009684144,0.02944915,0.024179926,0.048097186,-2.0,2.0,-2.0,2.0,2.0,-2.0,2.0,1.7170779,-2.0,-2.0,0.105803445,-2.0,-2.0,2.0,-2.0,2.0,2.0,-2.0,2.0,1.2640773,-2.0,-2.0,0.3714096,-2.0
2025-06-09 17:51:45.422,0.035412088,0.017747914,-0.018270247,0.042198565,-0.14590867,0.035974655,0.0,0.0,0.0,-0.045787077,-0.16018067,0.761858,-0.23840226,0.26479366,0.7370574,-0.18900986,0.05609894,0.28960758,-0.33652997,-0.16697659,0.14890908,-0.20348147,-0.06680538,-0.0025416745,0.033977445,-0.0110401735,0.0075381803,0.053033452,0.040054347,-0.044680897,0.067305915,0.042287417,-0.08354962,-0.035002213,-2.0,2.0,-2.0,2.0,2.0,-2.0,2.0,1.2640773,-2.0,-2.0,0.3714096,-2.0,-2.0,2.0,-2.0,2.0,2.0,-2.0,2.0,1.5911943,-2.0,-2.0,0.3644721,-2.0
2025-06-09 17:51:45.441,-0.03017845,-0.028451376,-0.010635665,0.07771356,-0.16407454,0.0016717612,0.0,0.0,0.0,-0.046087567,-0.17274684,0.76804036,-0.23619696,0.25208664,0.73911464,-0.1803048,0.06747381,0.2916682,-0.32455838,-0.16920131,0.14678727,-0.19924289,0.06356498,-0.05620643,0.0064799655,0.013475993,0.013453288,-0.054077245,-0.019692533,0.016304715,-0.06306363,0.0148228435,0.044898108,-0.028791426,-2.0,2.0,-2.0,2.0,2.0,-2.0,2.0,1.5911943,-2.0,-2.0,0.3644721,-2.0,-2.0,2.0,-2.0,2.0,2.0,-2.0,2.0,1.7279203,-2.0,-2.0,0.18420215,-2.0
2025-06-09 17:51:45.464,0.02285388,-0.014920579,-0.03337078,0.013447817,-0.13397397,0.0259503,0.0,0.0,0.0,-0.04618649,-0.15593281,0.75857747,-0.2482471,0.24868071,0.7458463,-0.18949717,0.053626914,0.30634293,-0.33020905,-0.16169149,0.14977998,-0.21239519,-0.0059433603,0.0047040717,-0.032411076,-0.05822361,0.059277643,-0.03777857,-0.01459381,0.03160953,-0.07642522,0.06228192,0.0638988,0.06263423,-2.0,2.0,-2.0,2.0,2.0,-2.0,2.0,1.7279203,-2.0,-2.0,0.18420215,-2.0,-2.0,2.0,-2.0,2.0,2.0,-2.0,2.0,1.7524623,-2.0,-2.0,0.21400256,-2.0
2025-06-09 17:51:45.482,-0.030565323,-0.046249904,0.009026693,0.05207954,-0.21555507,0.044312585,0.0,0.0,0.0,-0.046435837,-0.15745616,0.7643186,-0.23773956,0.25958496,0.7395157,-0.19496171,0.06641533,0.29279196,-0.3229327,-0.16050826,0.16083755,-0.21383795,0.049910404,-0.063394,0.00080081413,0.040984195,-0.009513707,-0.02674634,0.025730738,0.034013078,-0.031422827,-0.009960614,-0.04405202,0.06221856,-2.0,2.0,-2.0,2.0,2.0,-2.0,2.0,1.7524623,-2.0,-2.0,0.21400256,-2.0,-2.0,2.0,-2.0,2.0,2.0,-2.0,2.0,1.4664569,-2.0,-2.0,0.32646817,-2.0
2025-06-09 17:51:45.502,-0.0066709616,-0.029283186,0.006148974,0.034092136,-0.18288378,0.046389926,0.0,0.0,0.0,-0.046862613,-0.17320286,0.77337915,-0.24293992,0.26580927,0.7489224,-0.19034064,0.065603346,0.29737395,-0.33940646,-0.17719488,0.14440428,-0.21356928,-0.03327737,0.026256071,0.03907084,0.06089941,0.0019110247,-0.031901386,-0.06548596,0.02013795,0.06038648,-0.064605415,-0.015844166,-0.044670787,-2.0,2.0,-2.0,2.0,2.0,-2.0,2.0,1.4664569,-2.0,-2.0,0.32646817,-2.0,-2.0,2.0,-2.0,2.0,2.0,-2.0,2.0,1.6654538,-2.0,-2.0,0.25001186,-2.0
2025-06-09 17:51:45.522,-0.059932068,-0.027210217,-0.011846353,0.06904499,-0.19734944,-0.020712636,0.0,0.0,0.0,-0.04711676,-0.1653712,0.75945365,-0.24238998,0.2619576,0.7368733,-0.18685259,0.05931164,0.31209806,-0.34047955,-0.16978504,0.14722623,-0.20970836,-0.022980079,0.0027750006,0.041628264,0.030707328,0.0583579,0.009496001,-0.058946297,0.014073393,-0.07114617,0.05659698,0.033823952,0.05647145,-2.0,2.0,-2.0,2.0,2.0,-2.0,2.0,1.6654538,-2.0,-2.0,0.25001186,-2.0,-2.0,2.0,-2.0,2.0,2.0,-2.0,2.0,1.608708,-2.0,-2.0,0.22744794,-2.0
2025-06-09 17:51:45.542,-0.046176407,0.025120161,0.025464067,0.044055548,-0.13197525,0.016369512,0.0,0.0,0.0,-0.047297187,-0.1691564,0.7573325,-0.24394199,0.26785427,0.7475056,-0.18942992,0.058873676,0.29630652,-0.32417744,-0.17312963,0.14651452,-0.20630987,0.0144169135,0.0569353,0.057735227,-0.06012524,0.067189544,-0.07275329,0.07137947,-0.025211735,-0.028633347,-0.07292854,-0.05283111,0.0059798965,-2.0,2.0,-2.0,2.0,2.0,-2.0,2.0,1.608708,-2.0,-2.0,0.22744794,-2.0,-2.0,2.0,-2.0,2.0,2.0,-2.0,2.0,1.4117683,-2.0,-2.0,0.44337338,-2.0
2025-06-09 17:51:45.564,0.049018074,-0.040501233,0.011496865,-0.008534878,-0.13018349,0.008238836,0.0,0.0,0.0,-0.04747445,-0.16853172,0.76475954,-0.24967864,0.26323587,0.7383664,-0.18635587,0.054071818,0.30878785,-0.33905086,-0.1768787,0.15991792,-0.2016955,0.05784209,-0.008143774,-0.022352245,-0.053400274,0.016424946,-0.010724464,0.03316097,-0.007537915,-0.052652575,0.06189979,0.025807189,0.03624136,-2.0,2.0,-2.0,2.0,2.0,-2.0,2.0,1.4117683,-2.0,-2.0,0.44337338,-2.0,-2.0,2.0,-2.0,2.0,2.0,-2.0,2.0,1.45664,-2.0,-2.0,0.3592642,-2.0
2025-06-09 17:51:45.582,-0.009932161,-0.016662853,0.027156517,0.012581859,-0.1917071,0.028402891,0.0,0.0,0.0,-0.04740078,-0.17789821,0.7637315,-0.24989814,0.25219598,0.74548566,-0.18829249,0.05381487,0.30005667,-0.3336513,-0.1667999,0.15965605,-0.19538999,-0.027269283,0.0025376293,-0.008573596,0.02873835,0.070217244,-0.009276197,-0.019696517,0.04364896,0.019120857,0.05378811,-0.06815313,-0.055563837,-2.0,2.0,-2.0,2.0,2.0,-2.0,2.0,1.45664,-2.0,-2.0,0.3592642,-2.0,-2.0,2.0,-2.0,2.0,2.0,-2.0,2.0,1.2500198,-2.0,-2.0,0.63900775,-2.0
2025-06-09 17:51:45.602,-0.009590871,0.0052277152,-0.050405353,0.032904495,-0.15139388,0.028365877,0.0,0.0,0.0,-0.04708566,-0.17700289,0.757538,-0.24707653,0.25033614,0.73664546,-0.18046543,0.06749472,0.30522507,-0.31792733,-0.16992867,0.14641051,-0.20949818,-0.039876215,-0.06320495,0.020011993,0.004309187,0.019840475,-0.056560468,-0.055888794,0.04946255,-0.0037630147,0.070718296,0.065554515,-0.05001976,-2.0,2.0,-2.0,2.0,2.0,-2.0,2.0,1.2500198,-2.0,-2.0,0.63900775,-2.0,-2.0,2.0,-2.0,2.0,2.0,-2.0,2.0,1.950149,-2.0,-2.0,0.12267585,-2.0
2025-06-09 17:51:45.622,-0.0049072737,-0.044721656,0.034601808,0.07652481,-0.21426953,0.048474878,0.0,0.0,0.0,-0.046424754,-0.16393194,0.7596663,-0.24442495,0.2640017,0.75448644,-0.17921352,0.05208952,0.29772133,-0.33539882,-0.15884435,0.16200884,-0.206498,-0.059053633,-0.046929494,-0.011999644,-0.015468827,0.060394723,0.0046553677,0.032166008,0.011564174,0.030020928,0.07072574,-0.040430754,-0.011364526,-2.0,2.0,-2.0,2.0,2.0,-2.0,2.0,1.950149,-2.0,-2.0,0.12267585,-2.0,-2.0,2.0,-2.0,2.0,2.0,-2.0,2.0,0.9357446,-2.0,-2.0,0.76329786,-2.0
2025-06-09 17:51:45.642,0.006848176,-0.038793754,-0.023993772,-0.014589012,-0.22079882,-0.0253984,0.0,0.0,0.0,-0.046165645,-0.17762059,0.76508343,-0.24894282,0.24899149,0.74128586,-0.19279616,0.05855637,0.30014607,-0.3331414,-0.17112002,0.16074748,-0.21086393,0.042779773,0.0056310534,-0.06272585,-0.089466326,-0.061912082,0.028873265,0.052837986,0.050657146,0.05256257,-0.03592654,0.02863021,0.013318225,-2.0,2.0,-2.0,2.0,2.0,-2.0,2.0,0.9357446,-2.0,-2.0,0.76329786,-2.0,-2.0,2.0,-2.0,2.0,2.0,-2.0,2.0,1.7894822,-2.0,-2.0,0.16354878,-2.0
2025-06-09 17:51:45.664,0.018690083,0.0011826346,-0.025607552,-0.00012066527,-0.15186857,-0.04758852,0.0,0.0,0.0,-0.045567546,-0.17631243,0.76377475,-0.24065202,0.261097,0.75700426,-0.19330609,0.066444494,0.2900752,-0.31758907,-0.17180927,0.15141088,-0.20571071,0.068172924,-0.040876586,0.029212344,0.06349146,0.054270975,-0.02289531,0.03142526,-0.065864705,-0.041308537,0.051558476,0.04922865,0.0015606146,-2.0,2.0,-2.0,2.0,2.0,-2.0,2.0,1.7894822,-2.0,-2.0,0.16354878,-2.0,-2.0,2.0,-2.0,2.0,2.0,-2.0,2.0,1.5336397,-2.0,-2.0,0.2883281,-2.0
2025-06-09 17:51:45.682,0.040761087,-0.0061526536,0.033625323,-0.013190574,-0.1510503,0.03072616,0.0,0.0,0.0,-0.045132358,-0.17560041,0.7644748,-0.24911907,0.2467244,0.7440495,-0.18660979,0.056930784,0.30041718,-0.3357007,-0.16635346,0.15104084,-0.20536025,-0.031581093,0.038142078,0.02900795,0.04195914,-0.020603478,-0.012348049,0.024277559,-0.0006398678,0.07035186,-0.007195144,-0.010772839,-0.029884178,-2.0,2.0,-2.0,2.0,2.0,-2.0,2.0,1.5336397,-2.0,-2.0,0.2883281,-2.0,-2.0,2.0,-2.0,2.0,2.0,-2.0,2.0,1.2130289,-2.0,-2.0,0.47306365,-2.0
2025-06-09 17:51:45.702,0.06123375,0.04036478,-0.020597652,0.07624972,-0.22150908,0.045001533,0.0,0.0,0.0,-0.04505699,-0.181693,0.7480183,-0.23903356,0.25001475,0.7583426,-0.18734835,0.05780398,0.30073163,-0.31752032,-0.16221611,0.15368089,-0.2050153,0.010553621,-0.014261166,0.023460675,-0.0724833,-0.058059353,-0.046838604,0.04125371,-0.005061264,-0.0348359,-0.03155665,0.056361724,0.06543261,-2.0,2.0,-2.0,2.0,2.0,-2.0,2.0,1.2130289,-2.0,-2.0,0.47306365,-2.0,-2.0,2.0,-2.0,2.0,2.0,-2.0,2.0,1.8130232,-2.0,-2.0,0.07855423,-2.0
2025-06-09 17:51:45.722,0.002051327,-0.002123182,0.014793909,0.047681212,-0.21589468,-0.04856411,0.0,0.0,0.0,-0.044829994,-0.17847484,0.74984497,-0.2497071,0.25189462,0.7522354,-0.19113415,0.075070225,0.29318404,-0.31286752,-0.15852585,0.15327583,-0.20238087,-0.043578807,-0.0062734927,0.023504946,-0.05548386,0.046477783,-0.017791735,-0.048563257,0.05915838,0.009111501,-0.041560657,0.028429162,-0.012760863,-2.0,2.0,-2.0,2.0,2.0,-2.0,2.0,1.8130232,-2.0,-2.0,0.07855423,-2.0,-2.0,2.0,-2.0,2.0,2.0,-2.0,2.0,1.2202412,-2.0,-2.0,0.4362195,-2.0
2025-06-09 17:51:45.742,-0.0073919143,-0.0036593475,0.03223339,0.060819592,-0.14670275,-0.04279516,0.0,0.0,0.0,-0.044954356,-0.18190318,0.75560594,-0.24428938,0.25564033,0.74999285,-0.18761663,0.07109136,0.28492934,-0.31141993,-0.15433057,0.1540089,-0.21263471,0.022679878,0.012422217,0.0014485287,-0.01015134,-0.015673652,-0.07848892,-0.040870197,0.01744089,-0.04938391,-0.048664257,-0.01415592,-0.056847494,-2.0,2.0,-2.0,2.0,2.0,-2.0,2.0,1.2202412,-2.0,-2.0,0.4362195,-2.0,-2.0,2.0,-2.0,2.0,2.0,-2.0,2.0,1.4372501,-2.0,-2.0,0.4019063,-2.0
2025-06-09 17:51:45.764,0.03109905,0.01449543,-0.05223954,0.0771487,-0.12890738,-0.018735688,0.0,0.0,0.0,-0.04503486,-0.18238749,0.74525344,-0.23346151,0.2493587,0.74824893,-0.19036375,0.06907409,0.29798734,-0.32686126,-0.16469647,0.14436916,-0.2189086,0.017506035,0.006402733,-0.064663306,-0.025312556,-0.032042842,0.0147224,0.046744686,-0.028463827,0.035695396,-0.00869434,-0.07203369,-0.04763311,-2.0,2.0,-2.0,2.0,2.0,-2.0,2.0,1.4372501,-2.0,-2.0,0.4019063,-2.0,-2.0,2.0,-2.0,2.0,2.0,-2.0,2.0,2.0,-2.0,-2.0,0.15771051,-2.0
2025-06-09 17:51:45.783,-0.05981841,0.008654635,0.00696662,0.07083994,-0.21600132,0.0016032628,0.0,0.0,0.0,-0.044971652,-0.16427153,0.7487589,-0.2349302,0.25647828,0.7391281,-0.19897002,0.060059626,0.28939804,-0.32382792,-0.160968,0.14498617,-0.21445428,-0.014073877,-0.015225829,0.006966853,-0.050632134,0.025868656,-0.0023805974,0.027304864,0.06059596,-0.02115599,-0.054174308,-0.05567141,-0.054101672,-2.0,2.0,-2.0,2.0,2.0,-2.0,2.0,2.0,-2.0,-2.0,0.15771051,-2.0,-2.0,2.0,-2.0,2.0,2.0,-2.0,2.0,1.5036297,-2.0,-2.0,0.43333513,-2.0
2025-06-09 17:51:45.803,0.0010796802,-0.0015140496,0.033740573,0.06439018,-0.18640035,-0.039220516,0.0,0.0,0.0,-0.045394234,-0.17745818,0.76796645,-0.23790346,0.24890436,0.74584603,-0.18286647,0.0573894,0.30529037,-0.32833782,-0.15510651,0.1516981,-0.20720305,0.04544335,0.023231147,0.06584371,0.076602995,0.03686604,-0.06628837,-0.027284417,0.017794326,0.023075365,0.056016855,-0.05519331,0.021064626,-2.0,2.0,-2.0,2.0,2.0,-2.0,2.0,1.5036297,-2.0,-2.0,0.43333513,-2.0,-2.0,2.0,-2.0,2.0,2.0,-2.0,2.0,1.3395907,-2.0,-2.0,0.37466222,-2.0
2025-06-09 17:51:45.823,0.012879039,0.008512228,-0.04186759,0.039127134,-0.14468193,-0.019263037,0.0,0.0,0.0,-0.04586283,-0.16326545,0.7574891,-0.2464998,0.25361383,0.74766535,-0.19989671,0.063145645,0.2984923,-0.31882995,-0.16673706,0.15193726,-0.2098581,0.042987674,-0.055248544,-0.037317976,0.056881793,-0.058248453,0.04093548,0.06688379,-0.018056894,-0.056360528,-0.020226251,-0.034816258,0.014492909,-2.0,2.0,-2.0,2.0,2.0,-2.0,2.0,1.3395907,-2.0,-2.0,0.37466222,-2.0,-2.0,2.0,-2.0,2.0,2.0,-2.0,2.0,1.9298755,-2.0,-2.0,0.18726547,-2.0
2025-06-09 17:51:45.843,-0.010537603,-0.052036848,0.05387174,0.0037173266,-0.16370595,0.010594714,0.0,0.0,0.0,-0.04595904,-0.1699405,0.76700824,-0.23014252,0.25881624,0.7462211,-0.1954337,0.060150933,0.30407444,-0.33034116,-0.15390334,0.14258148,-0.21533808,-0.052561235,-0.035989497,0.017645393,0.06219249,-0.07207957,0.018268768,-0.006614471,-0.05750374,-0.06554081,-0.038107086,0.02634127,0.027948381,-2.0,2.0,-2.0,2.0,2.0,-2.0,2.0,1.9298755,-2.0,-2.0,0.18726547,-2.0,-2.0,2.0,-2.0,2.0,2.0,-2.0,2.0,1.0101677,-2.0,-2.0,0.53625745,-2.0
2025-06-09 17:51:45.864,0.036891405,0.072044276,0.017934527,-0.011067571,-0.1800171,-0.033360064,0.0,0.0,0.0,-0.04629622,-0.17660062,0.76701,-0.2291091,0.25868616,0.73800635,-0.18961449,0.055454507,0.29634416,-0.33264995,-0.17278731,0.1581101,-0.21024902,0.06076073,-0.070170574,-0.028040506,-0.023275308,-0.022396326,0.014810527,0.059091363,0.003819544,0.0070821987,0.06528514,-0.060980767,-0.069280796,-2.0,2.0,-2.0,2.0,2.0,-2.0,2.0,1.0101677,-2.0,-2.0,0.53625745,-2.0,-2.0,2.0,-2.0,2.0,2.0,-2.0,2.0,1.3335782,-2.0,-2.0,0.55188257,-2.0
2025-06-09 17:51:45.883,0.0319162,-0.00384402,-0.06842686,0.08265953,-0.18380293,0.046229806,0.0,0.0,0.0,-0.046195835,-0.17983271,0.7634624,-0.23627149,0.25813758,0.7429393,-0.18738027,0.07263225,0.28505343,-0.31937617,-0.17426331,0.15024564,-0.22230962,-0.05656127,-0.022140412,-0.05858094,-0.055276632,0.012826979,-0.00062445126,0.07164523,-0.013070549,-0.061001632,0.061022185,-0.025502717,-0.07629674,-2.0,2.0,-2.0,2.0,2.0,-2.0,2.0,1.3335782,-2.0,-2.0,0.55188257,-2.0,-2.0,2.0,-2.0,2.0,2.0,-2.0,2.0,2.0,-2.0,-2.0,0.17096289,-2.0
2025-06-09 17:51:45.903,-0.054464813,0.01276587,-0.02643122,0.060674876,-0.198492,0.033524677,0.0,0.0,0.0,-0.0456624,-0.17976938,0.7614288,-0.23204172,0.26340875,0.74667585,-0.18570495,0.058287494,0.30656427,-0.3241925,-0.17268895,0.14281909,-0.21383908,-0.045475308,0.081676684,-0.057962686,0.055328697,0.01407655,-0.058667887,0.045163643,-0.038618524,0.044008873,0.055186864,0.076366104,-0.021623014,-2.0,2.0,-2.0,2.0,2.0,-2.0,2.0,2.0,-2.0,-2.0,0.17096289,-2.0,-2.0,2.0,-2.0,2.0,2.0,-2.0,2.0,1.6196486,-2.0,-2.0,0.17386515,-2.0
2025-06-09 17:51:45.923,-0.038692188,0.05042773,-0.0216279,0.026452081,-0.22211204,-0.03640973,0.0,0.0,0.0,-0.04561983,-0.16658263,0.7518852,-0.2326414,0.25526103,0.74087733,-0.19863243,0.06412392,0.30512637,-0.32092375,-0.16457996,0.15210748,-0.2155495,-0.06754601,0.012568037,-0.005324829,0.027862892,0.060154673,0.012620942,-0.04062958,0.07526267,-0.024175674,-0.06970419,-0.023052419,0.04210461,-2.0,2.0,-2.0,2.0,2.0,-2.0,2.0,1.6196486,-2.0,-2.0,0.17386515,-2.0,-2.0,2.0,-2.0,2.0,2.0,-2.0,2.0,1.6696905,-2.0,-2.0,0.2194298,-2.0
2025-06-09 17:51:45.943,0.039112363,0.04846479,0.018747022,0.02336973,-0.20905395,0.038849417,0.0,0.0,0.0,-0.045905206,-0.17246479,0.7673466,-0.2485093,0.26971248,0.73915774,-0.18295762,0.058912136,0.29677808,-0.3382118,-0.16440035,0.14235169,-0.21659918,0.01029445,-0.045611035,0.045462083,0.042414606,0.030166412,-0.0314426,0.006763073,0.047360804,0.03724347,-0.0068828715,-0.030553183,-0.046348672,-2.0,2.0,-2.0,2.0,2.0,-2.0,2.0,1.6696905,-2.0,-2.0,0.2194298,-2.0,-2.0,2.0,-2.0,2.0,2.0,-2.0,2.0,1.323044,-2.0,-2.0,0.48493677,-2.0
2025-06-09 17:51:45.964,0.029676395,-0.040901814,-0.005450242,0.027556332,-0.176491,0.048105933,0.0,0.0,0.0,-0.046295233,-0.17829691,0.7702322,-0.24589077,0.25898546,0.7543957,-0.18371357,0.05729594,0.30067474,-0.33369586,-0.158956,0.153828,-0.20670645,0.045859836,0.02013473,0.0059644147,-0.07437352,-0.054136943,0.014400969,-0.056964323,-0.009227388,0.057017293,-0.028164791,0.07052062,-0.017669667,-2.0,2.0,-2.0,2.0,2.0,-2.0,2.0,1.323044,-2.0,-2.0,0.48493677,-2.0,-2.0,2.0,-2.0,2.0,2.0,-2.0,2.0,1.6980349,-2.0,-2.0,0.21539791,-2.0
2025-06-09 17:51:45.983,-0.033870183,-0.03031587,0.04146695,0.070760965,-0.1294635,0.013721902,0.0,0.0,0.0,-0.04639571,-0.16640826,0.7556787,-0.2409972,0.26719275,0.75397503,-0.18586601,0.0706412,0.30746862,-0.32362953,-0.16252458,0.14983171,-0.20649342,-0.038801994,0.039691925,0.064379044,0.033565126,0.039132092,-0.03449125,-0.06419357,0.042053364,0.055492844,0.03795755,0.030382218,-0.036650885,-2.0,2.0,-2.0,2.0,2.0,-2.0,2.0,1.6980349,-2.0,-2.0,0.21539791,-2.0,-2.0,2.0,-2.0,2.0,2.0,-2.0,2.0,1.0965892,-2.0,-2.0,0.55571693,-2.0
2025-06-09 17:51:46.003,0.017272932,0.047537882,0.015484585,-0.0007868676,-0.1906019,0.04900504,0.0,0.0,0.0,-0.04647583,-0.18041456,0.76343095,-0.24965113,0.26638404,0.74008113,-0.19677338,0.059778553,0.30439624,-0.3200387,-0.17562124,0.13801835,-0.21645723,0.04493595,0.05666268,-0.0007548132,-0.010786813,-0.06634689,0.00026261774,-0.043510634,-0.057192232,0.079593465,0.0025681427,-0.016790213,0.020758625,-2.0,2.0,-2.0,2.0,2.0,-2.0,2.0,1.0965892,-2.0,-2.0,0.55571693,-2.0,-2.0,2.0,-2.0,2.0,2.0,-2.0,2.0,1.5663427,-2.0,-2.0,0.2897163,-2.0
2025-06-09 17:51:46.023,-0.036065165,-0.010929774,0.01099369,0.004952771,-0.16491841,0.030505229,0.0,0.0,0.0,-0.046156455,-0.17680854,0.75831556,-0.24792796,0.26067898,0.7428022,-0.18162751,0.05836535,0.2929719,-0.31215724,-0.17573331,0.15317835,-0.21990326,0.03210519,-0.05304,0.04156797,0.040085297,0.0056163436,0.06663177,-0.06177861,-0.02765416,0.006898955,-0.04206143,-0.039110232,-0.02857136,-2.0,2.0,-2.0,2.0,2.0,-2.0,2.0,1.5663427,-2.0,-2.0,0.2897163,-2.0,-2.0,2.0,-2.0,2.0,2.0,-2.0,2.0,1.4223975,-2.0,-2.0,0.45436102,-2.0
2025-06-09 17:51:46.084,0.02689816,-0.034066785,0.027286218,0.060085557,-0.16650546,-0.023232346,0.0,0.0,0.0,-0.04576625,-0.18389738,0.7638725,-0.24577962,0.25717714,0.7458671,-0.18585117,0.057022627,0.29461876,-0.32476276,-0.17233711,0.14731964,-0.21738493,-0.06097902,-0.072710305,0.008080419,-0.04246256,0.030698719,0.036234617,-0.022917578,-0.068496116,-0.019699907,0.0709783,-0.029023333,-0.028812446,-2.0,2.0,-2.0,2.0,2.0,-2.0,2.0,1.4223975,-2.0,-2.0,0.45436102,-2.0,-2.0,2.0,-2.0,2.0,2.0,-2.0,2.0,1.206208,-2.0,-2.0,0.6414972,-2.0
2025-06-09 17:51:46.104,0.027478259,0.018215306,0.013247917,0.016196245,-0.1517887,0.03114371,0.0,0.0,0.0,-0.04542977,-0.182727,0.7650287,-0.24840663,0.25754136,0.7531353,-0.18705723,0.0745658,0.30270463,-0.32178786,-0.16336806,0.1521763,-0.22254607,0.034525655,0.00900775,-0.07205209,-0.025660375,0.033431176,0.06584776,0.07654497,-0.012061609,0.013753355,-0.029068615,-0.044039045,-0.061320905,-2.0,2.0,-2.0,2.0,2.0,-2.0,2.0,1.206208,-2.0,-2.0,0.6414972,-2.0,-2.0,2.0,-2.0,2.0,2.0,-2.0,2.0,1.3939971,-2.0,-2.0,0.4804662,-2.0
2025-06-09 17:51:46.124,-0.03286928,0.03127168,-0.009545584,0.08373488,-0.19567244,-0.039511863,0.0,0.0,0.0,-0.044838574,-0.19109745,0.7487501,-0.23789632,0.23791653,0.7585559,-0.18381758,0.059756342,0.29791924,-0.31576222,-0.15342064,0.14852569,-0.22513147,-0.03249224,-0.07544221,0.046033755,-0.045063443,0.03691494,0.018997366,-0.049935278,-0.053358335,0.04862047,0.028377099,-0.0045877895,0.029291237,-2.0,2.0,-2.0,2.0,2.0,-2.0,2.0,1.3939971,-2.0,-2.0,0.4804662,-2.0,-2.0,2.0,-2.0,2.0,2.0,-2.0,2.0,1.4275194,-2.0,-2.0,0.35852677,-2.0
2025-06-09 17:51:46.144,-0.005837434,0.0068398216,-0.024991523,0.04242382,-0.18935227,0.031718917,0.0,0.0,0.0,-0.04419774,-0.1826352,0.75919366,-0.23212218,0.2455318,0.7593337,-0.18075302,0.06799907,0.29471076,-0.31412157,-0.15487686,0.15683226,-0.21396565,0.034407802,0.045239702,0.07059236,-0.025553621,0.04839634,0.0708445,-0.05092927,0.018264655,0.06250297,-0.03584533,0.019118827,0.010874137,-2.0,2.0,-2.0,2.0,2.0,-2.0,2.0,1.4275194,-2.0,-2.0,0.35852677,-2.0,-2.0,2.0,-2.0,2.0,2.0,-2.0,2.0,1.6662873,-2.0,-2.0,0.18744357,-2.0
2025-06-09 17:51:46.164,-0.0064374497,0.04962681,-0.0061266874,0.028295683,-0.13445368,0.036040656,0.0,0.0,0.0,-0.043750875,-0.18553017,0.75230527,-0.2341396,0.2466903,0.7533112,-0.18423985,0.06379027,0.29417792,-0.32948914,-0.1553729,0.14602852,-0.21263182,-0.052993223,0.009424874,0.07277182,0.07318621,-0.051751386,-0.02843067,0.022875462,0.044690866,-0.029992886,-0.027024075,0.04637029,0.045726426,-2.0,2.0,-2.0,2.0,2.0,-2.0,2.0,1.6662873,-2.0,-2.0,0.18744357,-2.0,-2.0,2.0,-2.0,2.0,2.0,-2.0,2.0,1.5293021,-2.0,-2.0,0.20970292,-2.0
2025-06-09 17:51:46.185,0.013660588,0.02888762,0.06563541,0.04321087,-0.14396209,-0.012031639,0.0,0.0,0.0,-0.0437698,-0.18273838,0.75137675,-0.24997833,0.24516942,0.74832,-0.19092558,0.06774587,0.3019836,-0.32899442,-0.15801331,0.14617689,-0.21050805,0.03187143,-0.0041249907,0.025028178,0.024981624,0.0433739,0.010465548,-0.057777297,-0.03356599,-0.05285451,-0.061339222,0.030029925,0.03779503,-2.0,2.0,-2.0,2.0,2.0,-2.0,2.0,1.5293021,-2.0,-2.0,0.20970292,-2.0,-2.0,2.0,-2.0,2.0,2.0,-2.0,2.0,0.9840296,-2.0,-2.0,0.5431884,-2.0
2025-06-09 17:51:46.204,0.097955175,0.0149611235,-0.017779255,0.030759545,-0.1594689,-0.046022866,0.0,0.0,0.0,-0.04412347,-0.18547194,0.7479765,-0.23762916,0.24116984,0.74700445,-0.20233482,0.07800366,0.29288095,-0.30654165,-0.149625,0.13943462,-0.21523708,-0.07834007,-0.06014805,-0.06205292,0.047053803,-0.026709225,0.027689552,-0.045776892,0.041713465,0.09337201,0.06133764,0.061820544,-0.033402488,-2.0,2.0,-2.0,2.0,2.0,-2.0,2.0,0.9840296,-2.0,-2.0,0.5431884,-2.0,-2.0,2.0,-2.0,2.0,2.0,-2.0,2.0,1.33645,-2.0,-2.0,0.33154052,-2.0
2025-06-09 17:51:46.224,0.058963858,0.0046065594,-0.017723035,0.036663685,-0.16981758,-0.025624093,0.0,0.0,0.0,-0.044102713,-0.1707886,0.7421957,-0.24047886,0.2517029,0.75344825,-0.20474991,0.07392013,0.2797498,-0.30044535,-0.15448165,0.13399172,-0.2059613,0.0637518,0.065278664,-0.052773215,0.015611061,-0.036406793,0.05685605,0.075190604,0.05598278,-0.05631229,-0.034665205,0.042214625,0.039571423,-2.0,2.0,-2.0,2.0,2.0,-2.0,2.0,1.33645,-2.0,-2.0,0.33154052,-2.0,-2.0,2.0,-2.0,2.0,2.0,-2.0,2.0,1.6225146,-2.0,-2.0,0.21680506,-2.0
2025-06-09 17:51:46.247,0.017450083,-0.0015345124,0.047023736,0.045615993,-0.21810198,-0.025660463,0.0,0.0,0.0,-0.043912128,-0.18276766,0.74311566,-0.24995975,0.25462374,0.75704247,-0.1983963,0.076538846,0.2887053,-0.30599147,-0.153802,0.14048366,-0.20473208,-0.053014606,-0.06638092,0.011697439,-0.05370609,-0.059076417,0.039132886,-0.02926902,0.073627986,0.017576864,0.012064212,-0.0007408334,-0.041603636,-2.0,2.0,-2.0,2.0,2.0,-2.0,2.0,1.6225146,-2.0,-2.0,0.21680506,-2.0,-2.0,2.0,-2.0,2.0,2.0,-2.0,2.0,0.95172125,-2.0,-2.0,0.67013973,-2.0
2025-06-09 17:51:46.264,0.0626702,-0.03013198,0.013178816,0.017811187,-0.2061627,0.029251223,0.0,0.0,0.0,-0.044054706,-0.18921454,0.7379411,-0.2337221,0.2544639,0.74303156,-0.19978793,0.06562299,0.28072533,-0.30332938,-0.15009287,0.14173667,-0.22046465,-0.08029818,-0.03969495,0.0610462,0.035078246,-0.04339945,-0.024894746,0.05119121,-0.04757338,0.08375004,-0.07412095,-0.05037897,-0.03220651,-2.0,2.0,-2.0,2.0,2.0,-2.0,2.0,0.95172125,-2.0,-2.0,0.67013973,-2.0,-2.0,2.0,-2.0,2.0,2.0,-2.0,2.0,1.4529642,-2.0,-2.0,0.36326653,-2.0
2025-06-09 17:51:46.284,-0.0468848,-0.012993775,-0.039122935,0.053552136,-0.19362454,-0.027965264,0.0,0.0,0.0,-0.043860048,-0.17968914,0.7409229,-0.2314831,0.2381709,0.75211996,-0.1878475,0.069712184,0.27751133,-0.31684956,-0.15583333,0.13465454,-0.22646537,-0.022609908,0.022801291,0.028765155,0.06702862,-0.016688459,-0.019766772,-0.017515639,-0.06764336,0.015128573,0.0014902486,-0.05075194,0.032149862,-2.0,2.0,-2.0,2.0,2.0,-2.0,2.0,1.4529642,-2.0,-2.0,0.36326653,-2.0,-2.0,2.0,-2.0,2.0,2.0,-2.0,2.0,1.8524168,-2.0,-2.0,0.14806409,-2.0
2025-06-09 17:51:46.305,-0.049718503,-0.028090516,0.054860763,0.07637973,-0.1569802,0.03023918,0.0,0.0,0.0,-0.043592613,-0.17047219,0.7434844,-0.23864827,0.24980916,0.74319315,-0.19474572,0.076206766,0.28128675,-0.30727553,-0.15438116,0.15447615,-0.21733654,0.08416542,-0.02529828,0.009441078,0.025302973,-0.06776291,0.032782562,-0.052980125,0.086301036,-0.01832522,-0.023125097,0.01989625,-0.051663063,-2.0,2.0,-2.0,2.0,2.0,-2.0,2.0,1.8524168,-2.0,-2.0,0.14806409,-2.0,-2.0,2.0,-2.0,2.0,2.0,-2.0,2.0,1.0450842,-2.0,-2.0,0.5300543,-2.0
2025-06-09 17:51:46.325,-0.0040747975,0.040819008,-0.04638292,0.048240785,-0.15006799,0.008804805,0.0,0.0,0.0,-0.04390032,-0.17823832,0.74246264,-0.22733848,0.24405949,0.7480455,-0.185927,0.08147249,0.27609345,-0.30902186,-0.15424712,0.14236726,-0.21217135,-0.07247366,-0.07772281,-0.06528715,0.039231915,0.020626683,-0.01679493,-0.041100066,-0.06905188,-0.011299662,-0.048697762,-0.0720675,0.051373303,-2.0,2.0,-2.0,2.0,2.0,-2.0,2.0,1.0450842,-2.0,-2.0,0.5300543,-2.0,-2.0,2.0,-2.0,2.0,2.0,-2.0,2.0,1.848807,-2.0,-2.0,0.19311114,-2.0
2025-06-09 17:51:46.348,-0.07456432,-0.0070496104,0.019545203,-0.010200503,-0.18541238,-0.03852901,0.0,0.0,0.0,-0.04400666,-0.1726465,0.73742586,-0.24463132,0.2556896,0.7558107,-0.19947854,0.080367714,0.29115412,-0.3107396,-0.1517816,0.15498763,-0.22482051,0.067457266,0.05033618,-0.043711096,-0.012963562,0.015481426,-0.04148611,-0.011675912,-0.00078552606,-0.021916904,0.017645894,0.048218146,-0.05241346,-2.0,2.0,-2.0,2.0,2.0,-2.0,2.0,1.848807,-2.0,-2.0,0.19311114,-2.0,-2.0,2.0,-2.0,2.0,2.0,-2.0,2.0,1.2143048,-2.0,-2.0,0.5060968,-2.0
2025-06-09 17:51:46.365,0.06693156,-0.01470676,-0.010309206,-0.0063923397,-0.2133465,0.011056565,0.0,0.0,0.0,-0.044334743,-0.17886104,0.7400466,-0.2398247,0.25357538,0.7583874,-0.18566641,0.065404214,0.28470758,-0.31989864,-0.16122389,0.15066689,-0.22894219,-0.0016998838,-0.020422699,-0.026677884,-0.030416187,-0.000506543,-0.029278032,-0.043962438,-0.0025574272,0.027195035,0.030781604,-0.0099252025,0.04966079,-2.0,2.0,-2.0,2.0,2.0,-2.0,2.0,1.2143048,-2.0,-2.0,0.5060968,-2.0,-2.0,2.0,-2.0,2.0,2.0,-2.0,2.0,1.5461582,-2.0,-2.0,0.27706987,-2.0
2025-06-09 17:51:46.385,0.017960718,0.008427748,0.05801642,0.048623726,-0.13737439,-0.011118987,0.0,0.0,0.0,-0.044544104,-0.17691785,0.7488413,-0.23837219,0.24789949,0.74816203,-0.19606857,0.07163402,0.29872158,-0.3197854,-0.14987125,0.13888948,-0.21831053,-0.018020183,-0.043409146,0.003407689,0.015491897,-0.030088313,-0.04750093,-0.07339989,0.051749133,-0.011218898,0.050279323,-0.006189445,-0.0030638468,-2.0,2.0,-2.0,2.0,2.0,-2.0,2.0,1.5461582,-2.0,-2.0,0.27706987,-2.0,-2.0,2.0,-2.0,2.0,2.0,-2.0,2.0,1.0375295,-2.0,-2.0,0.6411291,-2.0
2025-06-09 17:51:46.405,0.028574612,0.0399417,-0.048309155,0.062810235,-0.19765852,-0.016516022,0.0,0.0,0.0,-0.044685815,-0.18586136,0.75162256,-0.23823363,0.25621507,0.75676805,-0.20153038,0.067201585,0.28751734,-0.31179747,-0.15698504,0.15038599,-0.22595005,-0.034528814,0.027232677,0.020050578,0.034246966,0.06415015,0.038637113,0.025044072,0.05862753,-0.024581822,-0.018490013,-0.052312437,0.0067790826,-2.0,2.0,-2.0,2.0,2.0,-2.0,2.0,1.0375295,-2.0,-2.0,0.6411291,-2.0,-2.0,2.0,-2.0,2.0,2.0,-2.0,2.0,1.9199482,-2.0,-2.0,0.13566442,-2.0
2025-06-09 17:51:46.425,-0.020592256,0.018546045,-0.0137334755,0.076003626,-0.1850459,-0.040609103,0.0,0.0,0.0,-0.044439867,-0.18325175,0.7451089,-0.23188308,0.26216775,0.7521762,-0.18399534,0.06317566,0.29724324,-0.3167483,-0.1514547,0.15187128,-0.22915605,0.034859717,0.054342736,0.0038096735,0.010920106,-0.053533945,-0.060720786,0.07669801,-0.013460467,-0.067320645,0.061242968,0.05613398,0.03350133,-2.0,2.0,-2.0,2.0,2.0,-2.0,2.0,1.9199482,-2.0,-2.0,0.13566442,-2.0,-2.0,2.0,-2.0,2.0,2.0,-2.0,2.0,1.5465466,-2.0,-2.0,0.18988831,-2.0
2025-06-09 17:51:46.447,0.03513395,0.060277205,0.038373634,0.07687059,-0.15936041,0.028087307,0.0,0.0,0.0,-0.04451866,-0.17502083,0.747653,-0.23742346,0.25825843,0.7568995,-0.18917392,0.061356112,0.29405445,-0.31715623,-0.14944872,0.15018557,-0.21128345,-0.032701492,0.050138876,0.04699857,0.046945907,-0.02028098,-0.0021691883,-0.023090672,-0.044243548,-0.07152152,0.04668628,0.035034325,0.022721063,-2.0,2.0,-2.0,2.0,2.0,-2.0,2.0,1.5465466,-2.0,-2.0,0.18988831,-2.0,-2.0,2.0,-2.0,2.0,2.0,-2.0,2.0,1.1118649,-2.0,-2.0,0.4780602,-2.0
2025-06-09 17:51:46.465,-0.011575552,0.046024933,-0.008165865,0.0319752,-0.204609,0.03734846,0.0,0.0,0.0,-0.04491434,-0.18354936,0.7452505,-0.23590015,0.25255805,0.75143385,-0.18401569,0.06542852,0.2846247,-0.31793833,-0.1706052,0.14435612,-0.21555147,0.022310568,0.014688819,-0.070036836,-0.0032386603,-0.046068463,-0.07078116,-0.065876454,-0.0071124164,0.02006248,-0.030837992,-0.0373611,-0.046296723,-2.0,2.0,-2.0,2.0,2.0,-2.0,2.0,1.1118649,-2.0,-2.0,0.4780602,-2.0,-2.0,2.0,-2.0,2.0,2.0,-2.0,2.0,1.8001885,-2.0,-2.0,0.27733618,-2.0
2025-06-09 17:51:46.485,-0.03502011,0.0064939866,0.044298183,0.0779911,-0.20166947,0.033544194,0.0,0.0,0.0,-0.04494059,-0.17672114,0.75710195,-0.22970821,0.25388917,0.753176,-0.19824253,0.062011346,0.30064154,-0.3163513,-0.16291991,0.13920622,-0.22001645,-0.04814169,-0.044460107,0.009991477,0.05994347,-0.04110812,0.055063006,0.0454761,0.009508815,-0.05883695,-0.057590608,0.031688537,-0.052168664,-2.0,2.0,-2.0,2.0,2.0,-2.0,2.0,1.8001885,-2.0,-2.0,0.27733618,-2.0,-2.0,2.0,-2.0,2.0,2.0,-2.0,2.0,1.0897565,-2.0,-2.0,0.5408415,-2.0
2025-06-09 17:51:46.505,0.040948078,-0.011637928,-0.017905967,0.012788743,-0.16393015,0.007389002,0.0,0.0,0.0,-0.04510671,-0.166465,0.74238735,-0.23902608,0.24930759,0.7504529,-0.1940051,0.074414104,0.28891438,-0.3219332,-0.15918122,0.14444053,-0.20888658,-0.06482244,0.014890077,0.0050009503,-0.059581984,-0.0012492224,0.012781553,0.05716372,0.021055713,-0.042542774,-0.01611737,-0.008047095,-0.04717777,-2.0,2.0,-2.0,2.0,2.0,-2.0,2.0,1.0897565,-2.0,-2.0,0.5408415,-2.0,-2.0,2.0,-2.0,2.0,2.0,-2.0,2.0,1.6559783,-2.0,-2.0,0.3321324,-2.0
2025-06-09 17:51:46.525,-0.017505893,-0.010541825,-0.0028232036,0.08085794,-0.16540548,0.035989102,0.0,0.0,0.0,-0.044985063,-0.1702136,0.7581054,-0.23728974,0.26015422,0.75139177,-0.19896261,0.07047378,0.29979,-0.3282101,-0.16981106,0.14937358,-0.22171941,0.061041556,-0.024463221,-0.022628957,-0.046825655,-0.007531254,0.025563376,-0.07071113,0.07827472,0.052370016,-0.04216911,0.014401066,0.0080325855,-2.0,2.0,-2.0,2.0,2.0,-2.0,2.0,1.6559783,-2.0,-2.0,0.3321324,-2.0,-2.0,2.0,-2.0,2.0,2.0,-2.0,2.0,1.6739963,-2.0,-2.0,0.18003733,-2.0
2025-06-09 17:51:46.547,0.00823843,-0.022556387,-0.028250774,0.02500848,-0.13095737,0.047254592,0.0,0.0,0.0,-0.044871215,-0.1850989,0.7459552,-0.23349291,0.253575,0.75120366,-0.19526437,0.07012275,0.30632687,-0.32945344,-0.15790191,0.14238115,-0.22065173,0.046924613,0.018918248,-0.03229943,0.02710798,-0.030539738,-0.030133422,0.02150739,-0.021295274,-0.03525546,-0.008007842,-0.06598771,0.045942463,-2.0,2.0,-2.0,2.0,2.0,-2.0,2.0,1.6739963,-2.0,-2.0,0.18003733,-2.0,-2.0,2.0,-2.0,2.0,2.0,-2.0,2.0,1.9335781,-2.0,-2.0,0.19170912,-2.0
2025-06-09 17:51:46.566,-0.07772439,-0.022901615,0.05331289,0.025263933,-0.22133373,0.00941466,0.0,0.0,0.0,-0.04507423,-0.18016444,0.75985175,-0.24324194,0.26848096,0.746993,-0.18343762,0.06834725,0.30777153,-0.32812384,-0.15281093,0.14711416,-0.21367764,0.036429103,-0.04526958,-0.004523403,-0.018567376,0.051746104,-0.004116082,-0.0518197,-0.029727262,-0.006507557,-0.04899271,-0.00890849,0.031462323,-2.0,2.0,-2.0,2.0,2.0,-2.0,2.0,1.9335781,-2.0,-2.0,0.19170912,-2.0,-2.0,2.0,-2.0,2.0,2.0,-2.0,2.0,1.0355673,-2.0,-2.0,0.6014809,-2.0
2025-06-09 17:51:46.586,0.01851493,-0.012393893,0.019384766,0.054397084,-0.14256315,-0.048076488,0.0,0.0,0.0,-0.04573055,-0.17835517,0.7683709,-0.23498927,0.24899468,0.7414328,-0.19710626,0.05622848,0.31146944,-0.33267626,-0.1663613,0.14806569,-0.21874535,0.025287574,-0.04294448,-0.03866299,-0.04559389,-0.0014390327,-0.042177662,-0.05141297,0.054298844,-0.026514808,-0.08058196,-0.02619558,-0.030368203,-2.0,2.0,-2.0,2.0,2.0,-2.0,2.0,1.0355673,-2.0,-2.0,0.6014809,-2.0,-2.0,2.0,-2.0,2.0,2.0,-2.0,2.0,1.6848013,-2.0,-2.0,0.27367538,-2.0
2025-06-09 17:51:46.606,0.023387603,0.045306403,0.0037859695,0.06698606,-0.14768879,0.0049201148,0.0,0.0,0.0,-0.045889385,-0.18495317,0.7517258,-0.24439085,0.2501695,0.75083786,-0.18146636,0.064794876,0.29814485,-0.3166568,-0.16615121,0.13990548,-0.21668167,0.0339077,0.062518135,-0.049699962,-0.031846277,0.023926353,0.032180812,0.05303137,0.00012548133,0.049418397,0.057388645,-0.020648355,0.028771147,-2.0,2.0,-2.0,2.0,2.0,-2.0,2.0,1.6848013,-2.0,-2.0,0.27367538,-2.0,-2.0,2.0,-2.0,2.0,2.0,-2.0,2.0,1.3268455,-2.0,-2.0,0.36086208,-2.0
2025-06-09 17:51:46.626,-0.011676334,0.03737857,-0.024529161,0.07940346,-0.17820868,0.04025018,0.0,0.0,0.0,-0.045884714,-0.16893835,0.751012,-0.25101623,0.249031,0.74497515,-0.18901318,0.060645636,0.3100842,-0.32363352,-0.15827328,0.1342938,-0.20412491,-0.04280419,0.06161009,0.02996225,0.043102305,-0.07334296,0.072838515,0.03828388,0.06027661,-0.044322085,0.012140714,-0.03253986,0.03564112,-2.0,2.0,-2.0,2.0,2.0,-2.0,2.0,1.3268455,-2.0,-2.0,0.36086208,-2.0,-2.0,2.0,-2.0,2.0,2.0,-2.0,2.0,1.8430939,-2.0,-2.0,0.1693141,-2.0
2025-06-09 17:51:46.647,-0.07447125,-0.01007192,0.0001130571,-0.013180078,-0.17956866,-0.005628986,0.0,0.0,0.0,-0.04577453,-0.16582583,0.76354223,-0.2495134,0.25158367,0.7450601,-0.19658229,0.059351735,0.30621535,-0.3243372,-0.16996646,0.1448509,-0.21479446,0.06042178,-0.034476876,-0.0546498,0.058317814,-0.030236356,-0.029788153,0.06935834,0.00055656023,-0.0771913,0.004091963,-0.0737976,-0.04039187,-2.0,2.0,-2.0,2.0,2.0,-2.0,2.0,1.8430939,-2.0,-2.0,0.1693141,-2.0,-2.0,2.0,-2.0,2.0,2.0,-2.0,2.0,1.6363739,-2.0,-2.0,0.46476322,-2.0
2025-06-09 17:51:46.666,0.009072483,0.007888077,0.0050905836,-0.0066394745,-0.19355828,-0.025948208,0.0,0.0,0.0,-0.045939628,-0.17275856,0.7531723,-0.24398944,0.26849923,0.7473963,-0.19444746,0.05468468,0.30023393,-0.32476202,-0.17414846,0.14552268,-0.2101811,-0.010259506,0.068866745,0.06750005,0.041918956,-0.036294036,0.008772446,0.04636777,0.01103635,0.03868378,0.021987325,0.056403812,-0.0063895453,-2.0,2.0,-2.0,2.0,2.0,-2.0,2.0,1.6363739,-2.0,-2.0,0.46476322,-2.0,-2.0,2.0,-2.0,2.0,2.0,-2.0,2.0,1.4666678,-2.0,-2.0,0.2502684,-2.0
2025-06-09 17:51:46.686,-0.039364286,0.015995005,-0.0058062025,-0.007203187,-0.19410025,-0.02689106,0.0,0.0,0.0,-0.046260342,-0.17050268,0.76421505,-0.24291292,0.2573087,0.7541749,-0.17781046,0.05477398,0.31239223,-0.32496154,-0.17114359,0.15547301,-0.20724827,0.016271824,-0.07302262,0.025862841,0.057342473,-0.058396004,-0.015161304,-0.014041474,-0.005259404,0.007176773,0.044543736,0.060196564,0.068576045,-2.0,2.0,-2.0,2.0,2.0,-2.0,2.0,1.4666678,-2.0,-2.0,0.2502684,-2.0,-2.0,2.0,-2.0,2.0,2.0,-2.0,2.0,1.4276896,-2.0,-2.0,0.2832529,-2.0
2025-06-09 17:51:46.706,0.058577262,0.05668519,0.01483717,0.015410711,-0.16318895,-0.02360762,0.0,0.0,0.0,-0.046397995,-0.16448687,0.75272447,-0.23696372,0.2583128,0.7578382,-0.17928427,0.07119978,0.31158927,-0.32151535,-0.15890959,0.14359353,-0.21733938,0.06255885,-0.07976962,0.016771542,0.06569188,0.021752708,-0.06399931,0.06622593,-0.019784141,-0.0018156308,-0.050198935,-0.022600481,-0.0055729174,-2.0,2.0,-2.0,2.0,2.0,-2.0,2.0,1.4276896,-2.0,-2.0,0.2832529,-2.0,-2.0,2.0,-2.0,2.0,2.0,-2.0,2.0,1.3069409,-2.0,-2.0,0.43794924,-2.0
2025-06-09 17:51:46.726,0.036845308,0.05592307,-0.011959192,0.053459484,-0.20631333,-0.00024924925,0.0,0.0,0.0,-0.046364497,-0.16967714,0.7586952,-0.24325281,0.24684787,0.7502354,-0.17956407,0.056438304,0.30651215,-0.32838535,-0.16728006,0.12990347,-0.21891287,-0.0063219187,-0.07092605,-0.059108485,0.035063423,-0.07106254,-0.03219202,-0.067937225,-0.071038,0.0070544765,0.03740345,0.012964413,-0.032864075,-2.0,2.0,-2.0,2.0,2.0,-2.0,2.0,1.3069409,-2.0,-2.0,0.43794924,-2.0,-2.0,2.0,-2.0,2.0,2.0,-2.0,2.0,1.6920688,-2.0,-2.0,0.28166658,-2.0
2025-06-09 17:51:46.747,0.012105989,0.010480439,0.035918094,0.052434932,-0.17389733,0.03834374,0.0,0.0,0.0,-0.04609373,-0.16584037,0.75421697,-0.25186214,0.26042452,0.7458,-0.1957343,0.06809482,0.30085152,-0.3126934,-0.17584516,0.1333852,-0.205101,-0.0727832,0.03463749,-0.047781438,0.056089923,-0.06595931,0.025450269,0.012041285,0.0217196,0.012477301,0.06881632,0.055658396,0.014073536,-2.0,2.0,-2.0,2.0,2.0,-2.0,2.0,1.6920688,-2.0,-2.0,0.28166658,-2.0,-2.0,2.0,-2.0,2.0,2.0,-2.0,2.0,1.062428,-2.0,-2.0,0.46659786,-2.0
2025-06-09 17:51:46.766,-0.008215244,0.061730333,-0.02030524,0.055267874,-0.15735263,0.010448702,0.0,0.0,0.0,-0.045958575,-0.17212947,0.7651476,-0.24568781,0.2539547,0.7515414,-0.19222407,0.06712059,0.30109304,-0.31777704,-0.17378135,0.13250072,-0.2030603,0.005138201,0.017150592,0.041693017,-0.019249953,0.01790474,0.055908937,0.022762202,-0.07823579,0.076148905,0.07566817,0.055375922,0.05724885,-2.0,2.0,-2.0,2.0,2.0,-2.0,2.0,1.062428,-2.0,-2.0,0.46659786,-2.0,-2.0,2.0,-2.0,2.0,2.0,-2.0,2.0,1.4686798,-2.0,-2.0,0.25684863,-2.0
2025-06-09 17:51:46.786,-0.0026294298,0.056144003,0.024099939,0.021286065,-0.20681608,-0.002648814,0.0,0.0,0.0,-0.045534305,-0.18364932,0.75266933,-0.24303849,0.24350868,0.7456318,-0.1962649,0.070491165,0.29687053,-0.30729046,-0.17420653,0.1388031,-0.21287328,-0.047734592,0.028572908,-0.0012762364,0.04708158,0.07080992,0.021255359,0.017600363,-0.05964327,0.04500169,-0.04236734,0.011227732,0.017983288,-2.0,2.0,-2.0,2.0,2.0,-2.0,2.0,1.4686798,-2.0,-2.0,0.25684863,-2.0,-2.0,2.0,-2.0,2.0,2.0,-2.0,2.0,1.0990069,-2.0,-2.0,0.47159475,-2.0
2025-06-09 17:51:46.806,-0.010513974,0.015875766,-0.018150818,0.03956294,-0.19340575,0.04270665,0.0,0.0,0.0,-0.045088984,-0.17174858,0.7542834,-0.23581247,0.24747372,0.75175,-0.19417429,0.07285935,0.29061884,-0.31335267,-0.16047265,0.14017534,-0.21128309,0.068133526,-0.056381613,-0.05228811,-0.05424973,-0.008417177,-0.0044259294,-0.061916355,-0.017520638,0.058753777,0.029559486,-0.01883059,-0.019024264,-2.0,2.0,-2.0,2.0,2.0,-2.0,2.0,1.0990069,-2.0,-2.0,0.47159475,-2.0,-2.0,2.0,-2.0,2.0,2.0,-2.0,2.0,1.6845851,-2.0,-2.0,0.30078143,-2.0
2025-06-09 17:51:46.826,-0.006388536,0.017624095,-0.0490992,0.06569794,-0.16770996,0.0024742954,0.0,0.0,0.0,-0.044526353,-0.17435761,0.741764,-0.23746236,0.25637996,0.75761676,-0.18022567,0.06482574,0.28650922,-0.31624547,-0.15497665,0.14441283,-0.20511188,0.036848962,-0.05784894,0.036001373,-0.016705666,-0.068083376,0.04482675,-0.011606921,0.053458523,-0.079053685,-0.037358914,0.0046329224,-0.012033317,-2.0,2.0,-2.0,2.0,2.0,-2.0,2.0,1.6845851,-2.0,-2.0,0.30078143,-2.0,-2.0,2.0,-2.0,2.0,2.0,-2.0,2.0,2.0,-2.0,-2.0,0.10661502,-2.0
2025-06-09 17:51:46.848,-0.024290213,-0.06505089,0.031847052,0.03339202,-0.19595037,0.039067715,0.0,0.0,0.0,-0.04426871,-0.1865961,0.7455691,-0.24011423,0.26344094,0.74133223,-0.19405887,0.07876614,0.29154292,-0.33359265,-0.15529887,0.12965862,-0.20915194,-0.062799826,0.006995135,0.02168547,-0.028100759,0.061267007,0.061603967,0.0111123845,0.08716067,-0.060161557,0.007232558,-0.031867504,0.053887144,-2.0,2.0,-2.0,2.0,2.0,-2.0,2.0,2.0,-2.0,-2.0,0.10661502,-2.0,-2.0,2.0,-2.0,2.0,2.0,-2.0,2.0,1.0776917,-2.0,-2.0,0.61800283,-2.0
