openverse-orca/OrcaGym/log/simulation_log_20250609_091404.csv
timestamp,imu_angle_roll,imu_angle_pitch,imu_angle_yaw,imu_angular_velocity_roll,imu_angular_velocity_pitch,imu_angular_velocity_yaw,imu_acc_x,imu_acc_y,imu_acc_z,fl_joint1_pos,fl_joint1_vel,fl_joint1_torque,fl_joint2_pos,fl_joint2_vel,fl_joint2_torque,fl_joint3_pos,fl_joint3_vel,fl_joint3_torque,fr_joint1_pos,fr_joint1_vel,fr_joint1_torque,fr_joint2_pos,fr_joint2_vel,fr_joint2_torque,fr_joint3_pos,fr_joint3_vel,fr_joint3_torque,hl_joint1_pos,hl_joint1_vel,hl_joint1_torque,hl_joint2_pos,hl_joint2_vel,hl_joint2_torque,hl_joint3_pos,hl_joint3_vel,hl_joint3_torque,hr_joint1_pos,hr_joint1_vel,hr_joint1_torque,hr_joint2_pos,hr_joint2_vel,hr_joint2_torque,hr_joint3_pos,hr_joint3_vel,hr_joint3_torque,fl_force_x,fl_force_y,fl_force_z,fr_force_x,fr_force_y,fr_force_z,hl_force_x,hl_force_y,hl_force_z,hr_force_x,hr_force_y,hr_force_z,fl_hip_action,fl_thigh_action,fl_calf_action,fr_hip_action,fr_thigh_action,fr_calf_action,hl_hip_action,hl_thigh_action,hl_calf_action,hr_hip_action,hr_thigh_action,hr_calf_action
2025-06-09 09:14:04.847,0.04719561,-0.018469965,0.041204397,0.019856872,0.04114347,-0.011897739,1.9406023,0.6803206,0.0,0.0,-0.0055880975,-0.0029003245,-0.0023514633,0.0091677,0.005862292,0.0070945085,0.008521924,0.00883343,-0.0055141826,-0.0023178789,0.009523272,0.0044364766,0.026739422,0.011509258,-0.056590002,0.038604874,0.055582207,-0.03292629,-0.011420134,-0.068980604,-0.02269726,-0.027126547,0.012152209,-0.047518082,0.0,0.0,0.0,0.0,0.0,0.0,0.0,0.0,0.0,0.0,0.0,0.0,-2.0,2.0,-2.0,2.0,2.0,-2.0,2.0,-2.0,-2.0,-2.0,2.0,-2.0
2025-06-09 09:14:04.851,0.022087822,-0.12709467,-0.022283178,0.03396726,-0.02333283,0.022509053,0.0,0.0,0.0,0.0,-0.032891322,0.06506581,-0.053370107,0.0200875,0.07614293,-0.051321227,0.027420048,-0.074080706,-0.03503786,-0.006515973,0.08387115,-0.057832435,-0.05274098,0.2544075,-0.17295808,0.1179322,0.22374366,-0.16106734,0.062375557,-0.2691603,-0.15290055,-0.014361719,0.26903376,-0.13181713,-2.0,2.0,-2.0,2.0,2.0,-2.0,2.0,-2.0,-2.0,-2.0,2.0,-2.0,-2.0,2.0,-2.0,2.0,2.0,-2.0,2.0,-2.0,2.0,-2.0,-2.0,-2.0
2025-06-09 09:14:04.878,0.18968949,0.04344692,0.03514075,0.024106361,0.0070091067,0.028086573,0.0,0.0,0.0,0.0008336816,-0.045107406,0.15490848,-0.100006856,0.031148646,0.14985679,-0.11392565,0.050133094,-0.16962802,-0.0045906696,-0.035467267,0.035176687,-0.0747137,-0.06928182,0.07962118,-0.00525836,-0.024774637,0.037644923,-0.008818134,0.07361771,-0.28155786,0.21940166,-0.028750515,-0.1387562,-0.012327463,-2.0,2.0,-2.0,2.0,2.0,-2.0,2.0,-2.0,2.0,-2.0,-2.0,-2.0,-2.0,2.0,-2.0,2.0,2.0,-2.0,2.0,-2.0,-2.0,-2.0,-2.0,-2.0
2025-06-09 09:14:04.892,0.23579764,0.11333139,0.043886505,-0.039199863,0.0022507897,-0.0052934135,0.0,0.0,0.0,0.0008230179,-0.059931405,0.15023018,-0.09869142,0.038255267,0.15612474,-0.11871843,0.049158413,-0.2563662,-0.033139694,-0.03514491,-0.028925898,-0.028488744,-0.075646475,-0.07594864,-0.010419151,0.020508783,0.08066185,0.041257598,-0.0322087,-0.19170488,-0.21357214,-0.0013754799,-0.22206596,0.17015763,-2.0,2.0,-2.0,2.0,2.0,-2.0,2.0,-2.0,-2.0,-2.0,-2.0,-2.0,-2.0,2.0,-2.0,2.0,2.0,-2.0,2.0,-2.0,-2.0,-2.0,-2.0,-2.0
2025-06-09 09:14:04.912,0.11151974,0.12664284,0.058457207,-0.040866412,-0.0014733776,0.0004349329,0.0,0.0,0.0,-0.0004119123,-0.07425405,0.14890978,-0.0954115,0.047594305,0.16646113,-0.12882318,0.053801704,-0.29158732,-0.03091053,-0.046308532,-0.08705636,0.022382418,-0.07848049,0.08075286,-0.045818593,-0.016252855,-0.040294204,-0.060424194,-0.06503491,-0.018087089,-0.046010766,-0.062053725,-0.12494218,0.11105072,-2.0,2.0,-2.0,2.0,2.0,-2.0,2.0,-2.0,-2.0,-2.0,-2.0,-2.0,-2.0,2.0,-2.0,2.0,2.0,-2.0,2.0,-2.0,-2.0,-2.0,-2.0,-2.0
2025-06-09 09:14:04.932,0.008656988,0.075265184,0.070771046,0.020620547,0.018516859,0.007234192,0.0,0.0,0.0,-0.0022717777,-0.06158637,0.1619045,-0.09683977,0.070279695,0.18773025,-0.12997186,0.06106569,-0.3092961,-0.023066632,-0.04679621,-0.1233929,0.027511457,-0.00059846486,0.067677476,-0.040362187,0.042659212,0.022051178,-0.019820437,-0.017822081,0.025501834,-0.016521897,-0.038007647,-0.049623318,0.004257534,-2.0,2.0,-2.0,2.0,2.0,-2.0,2.0,-2.0,-2.0,-2.0,-2.0,-2.0,-2.0,2.0,-2.0,2.0,2.0,-2.0,2.0,-2.0,-2.0,-2.0,-2.0,-2.0
2025-06-09 09:14:04.952,-0.016947314,0.059837043,0.088449255,-0.020183131,0.06950161,0.039899472,0.0,0.0,0.0,-0.0043184864,-0.062865466,0.17595774,-0.10843963,0.07678111,0.20175202,-0.13997398,0.04975664,-0.312149,-0.014936427,-0.041851424,-0.15632932,0.032302607,0.072874434,0.04470359,0.025894977,-0.02788103,-0.021969786,0.023966732,0.03407816,-0.05462145,0.03389978,0.04585972,-0.07278594,0.022727756,-2.0,2.0,-2.0,2.0,2.0,-2.0,2.0,-2.0,-2.0,-2.0,-2.0,-2.0,-2.0,2.0,-2.0,2.0,2.0,-2.0,2.0,-2.0,-2.0,-2.0,-2.0,-2.0
2025-06-09 09:14:04.975,0.03476631,0.033752576,0.10598824,-0.033941254,0.008454361,0.00048946054,0.0,0.0,0.0,-0.0061541162,-0.05459055,0.20556769,-0.105374284,0.083522364,0.22056034,-0.1702736,0.049013074,-0.29718277,0.0005023872,-0.0418745,-0.19704315,0.01844037,-0.06751033,0.037184574,0.030201267,0.08625862,0.11569987,0.044177704,0.038850043,0.03962801,0.04630591,-0.002235332,-0.04285169,-0.081710584,-2.0,2.0,-2.0,2.0,2.0,-2.0,2.0,-2.0,-2.0,-2.0,-2.0,-2.0,-2.0,2.0,-2.0,2.0,2.0,-2.0,2.0,-2.0,-2.0,-2.0,-2.0,-2.0
2025-06-09 09:14:04.992,-0.019523207,0.06870919,0.04192592,-0.014903249,0.036898684,0.0449236,0.0,0.0,0.0,-0.00759784,-0.05644946,0.2290183,-0.13435675,0.08869914,0.24692781,-0.18118234,0.034734447,-0.29746953,-0.011064384,-0.05353829,-0.21158928,0.009012249,0.01457836,0.055922136,0.014028539,-0.057237513,0.09924221,-0.03579508,-0.010602738,0.052332997,-0.010947052,-0.027018083,-0.074802265,0.07186476,-2.0,2.0,-2.0,2.0,2.0,-2.0,2.0,-2.0,-2.0,-2.0,-2.0,-2.0,-2.0,2.0,-2.0,2.0,2.0,-2.0,2.0,-2.0,-2.0,-2.0,-2.0,-2.0
2025-06-09 09:14:05.012,-0.070245355,0.07448382,0.037537813,-0.03151324,0.0249378,0.029728785,0.0,0.0,0.0,-0.008582949,-0.07386197,0.22999041,-0.13494632,0.08973501,0.26603216,-0.18850811,0.03922919,-0.27990797,-0.00998864,-0.055463042,-0.24069314,0.0007254288,-0.0753253,0.034199588,0.03985834,0.05490266,0.014530228,-0.04085784,0.0025573315,-0.028717002,0.06360864,-0.06160756,-0.063348584,0.0653677,-2.0,2.0,-2.0,2.0,2.0,-2.0,2.0,-2.0,-2.0,-2.0,-2.0,-2.0,-2.0,2.0,-2.0,2.0,2.0,-2.0,2.0,-2.0,-2.0,-2.0,-2.0,-2.0
2025-06-09 09:14:05.032,-0.0032971147,0.00042251666,0.040945493,-0.021879958,0.0657139,0.01072103,0.0,0.0,0.0,-0.009209364,-0.056730032,0.25810546,-0.13919185,0.09706531,0.29370004,-0.19089733,0.03566698,-0.27360898,-0.005740307,-0.039678257,-0.25714517,-0.00066156976,-0.018264601,0.023206739,0.045018584,0.041080568,0.061167724,-0.0071605807,-0.08101529,0.05669688,0.0083485395,0.025163906,-0.090732366,0.06311978,-2.0,2.0,-2.0,2.0,2.0,-2.0,2.0,-2.0,-2.0,-2.0,-2.0,-2.0,-2.0,2.0,-2.0,2.0,2.0,-2.0,2.0,-2.0,-2.0,-2.0,-2.0,-2.0
2025-06-09 09:14:05.052,-0.059540223,-0.031251658,0.017440345,-0.06312587,0.05637061,-0.019265788,0.0,0.0,0.0,-0.00944374,-0.068475544,0.26354405,-0.14976457,0.09314857,0.29876623,-0.18045813,0.02819705,-0.28833246,-0.008948818,-0.039624084,-0.2509388,0.019943027,-0.0031356555,0.0623196,0.06858997,0.017310262,0.04393748,0.05938115,-0.05982878,-0.0057552927,-0.030398479,0.038239554,-0.050871342,0.08630021,-2.0,2.0,-2.0,2.0,2.0,-2.0,2.0,-2.0,-2.0,-2.0,-2.0,-2.0,-2.0,2.0,-2.0,2.0,2.0,-2.0,2.0,-2.0,-2.0,-2.0,-2.0,-2.0
2025-06-09 09:14:05.076,-0.019808762,-0.0135486275,-0.061179414,0.012323526,0.04765104,-0.02261123,0.0,0.0,0.0,-0.009367867,-0.07944441,0.27160472,-0.13478395,0.09960533,0.2958045,-0.1748531,0.033055257,-0.28609827,0.0015909604,-0.038558178,-0.25937805,0.019545574,-0.04216628,0.02571867,-0.076321736,0.03437719,-0.035316322,0.0069568423,-0.0071755876,0.030384606,-0.0022315031,-0.07165361,-0.021029051,-0.010721321,-2.0,2.0,-2.0,2.0,2.0,-2.0,2.0,-2.0,-2.0,-2.0,-2.0,-2.0,-2.0,2.0,-2.0,2.0,2.0,-2.0,2.0,-2.0,-2.0,-2.0,-2.0,-2.0
2025-06-09 09:14:05.095,-0.08115721,0.02907914,-0.056993227,0.00951201,0.08703291,0.004210797,0.0,0.0,0.0,-0.0091006765,-0.07434229,0.27328673,-0.14409508,0.10632996,0.3132717,-0.17261702,0.028515099,-0.28726646,0.0010305243,-0.051776156,-0.26493743,0.013727093,-0.08271632,0.048091546,-0.0139550585,-0.0444713,-0.058981955,0.09078925,0.02971023,0.040617157,0.016300015,0.035886046,0.07148993,0.014141203,-2.0,2.0,-2.0,2.0,2.0,-2.0,2.0,-2.0,-2.0,-2.0,-2.0,-2.0,-2.0,2.0,-2.0,2.0,2.0,-2.0,2.0,-2.0,-2.0,-2.0,-2.0,-2.0
2025-06-09 09:14:05.114,-0.014890778,0.018141534,-0.04615206,-0.010714291,0.038900282,-0.023816379,0.0,0.0,0.0,-0.008730633,-0.09000963,0.27498,-0.15052328,0.10201776,0.30196676,-0.1617933,0.0268177,-0.2875187,0.008578239,-0.050639823,-0.2551621,0.031085739,0.038561057,0.008865572,0.037006292,0.06652304,0.06820954,-0.039571952,0.018321054,0.021979088,0.06552517,-0.05610705,0.06746247,-0.040281117,-2.0,2.0,-2.0,2.0,2.0,-2.0,2.0,-2.0,-2.0,-2.0,-2.0,-2.0,-2.0,2.0,-2.0,2.0,2.0,-2.0,2.0,-2.0,-2.0,-2.0,-2.0,-2.0
2025-06-09 09:14:05.133,-0.029722681,0.039631784,-0.04178438,0.00365959,0.011526222,-0.00588716,0.0,0.0,0.0,-0.008316743,-0.09116255,0.28818765,-0.1445946,0.11106723,0.30799502,-0.14404896,0.023970546,-0.2831267,-0.0017454181,-0.036447573,-0.27192345,0.028627925,-0.07255633,0.020607127,0.06253818,0.0046972353,-0.017064217,0.090895504,-0.07577736,-0.06501445,0.037295,0.003782653,-0.072671376,-0.045490265,-2.0,2.0,-2.0,2.0,2.0,-2.0,2.0,-2.0,-2.0,-2.0,-2.0,-2.0,-2.0,2.0,-2.0,2.0,2.0,-2.0,2.0,-2.0,-2.0,-2.0,-2.0,-2.0
2025-06-09 09:14:05.161,-0.07824998,0.006693921,0.027318995,0.017225498,0.028562088,-0.0030884289,0.0,0.0,0.0,-0.007902717,-0.1012896,0.28654096,-0.15661682,0.10714624,0.31856355,-0.13982038,0.04079104,-0.28775,-0.0037430697,-0.038147777,-0.27061,0.026497856,-0.07459895,-0.049051642,0.0035238927,-0.0049647023,0.062930726,-0.047036536,0.024458924,0.043982197,-0.021696689,-0.009333504,0.008205241,-0.037092727,-2.0,2.0,-2.0,2.0,2.0,-2.0,2.0,-2.0,-2.0,-2.0,-2.0,-2.0,-2.0,2.0,-2.0,2.0,2.0,-2.0,2.0,-2.0,-2.0,-2.0,-2.0,-2.0
2025-06-09 09:14:05.174,-0.02064719,0.010070481,-0.008465557,-0.024484782,0.027564285,-0.006424003,0.0,0.0,0.0,-0.0075201564,-0.09074196,0.27946827,-0.14410447,0.11314769,0.3129032,-0.1394754,0.02431397,-0.29539177,-0.015539794,-0.053235475,-0.26380146,0.036988135,0.0066966536,0.036918722,-0.042082343,0.052980807,-0.03372082,-0.0063128606,0.071291596,0.054134607,-0.06013559,-0.065960914,0.022373626,-0.03462976,-2.0,2.0,-2.0,2.0,2.0,-2.0,2.0,-2.0,-2.0,-2.0,-2.0,-2.0,-2.0,2.0,-2.0,2.0,2.0,-2.0,2.0,-2.0,-2.0,-2.0,-2.0,-2.0
2025-06-09 09:14:05.194,-0.007929536,-0.015454309,-0.0087018,-0.0014631536,0.006348149,0.003190563,0.0,0.0,0.0,-0.0071890303,-0.11285815,0.27649748,-0.15533867,0.10473093,0.31181213,-0.1298304,0.028815806,-0.2831944,-0.0063594133,-0.051125202,-0.26350453,0.029928366,0.03552681,-0.07525376,0.014906783,-0.021255732,-0.040756848,0.002945118,0.024134321,-0.027753444,-0.050917603,-0.023720969,-0.005224643,-0.019847402,-2.0,2.0,-2.0,2.0,2.0,-2.0,2.0,-2.0,-2.0,-2.0,-2.0,-2.0,-2.0,2.0,-2.0,2.0,2.0,-2.0,2.0,-2.0,-2.0,-2.0,-2.0,-2.0
2025-06-09 09:14:05.214,-0.051876668,0.0132166,0.029444322,-0.032390557,0.0254516,-0.046642255,0.0,0.0,0.0,-0.00691949,-0.10499658,0.27224177,-0.15741497,0.11610881,0.31694856,-0.12866242,0.023283536,-0.29242134,-0.014732823,-0.04627303,-0.2715482,0.027371839,-0.05040562,-0.06109419,0.012514518,0.025153745,-0.06706965,0.052107293,-0.009732027,-0.02324529,-0.01995305,0.07039352,-0.046516404,-0.044122502,-2.0,2.0,-2.0,2.0,2.0,-2.0,2.0,-2.0,-2.0,-2.0,-2.0,-2.0,-2.0,2.0,-2.0,2.0,2.0,-2.0,2.0,-2.0,-2.0,-2.0,-2.0,-2.0
2025-06-09 09:14:05.235,-0.02968463,-0.058963053,-0.047941823,-0.031657003,-0.020828335,-0.033314776,0.0,0.0,0.0,-0.006714161,-0.11185423,0.28418213,-0.14669816,0.121959925,0.30070162,-0.13222925,0.018658586,-0.30352342,-0.015652755,-0.035933964,-0.27729923,0.028971348,-0.055612866,-0.018869122,-0.047500063,0.044821564,-0.04631928,0.01935347,-0.010665166,-0.027012903,0.035555363,-0.06267266,-0.002665037,-0.07216902,-2.0,2.0,-2.0,2.0,2.0,-2.0,2.0,-2.0,-2.0,-2.0,-2.0,-2.0,-2.0,2.0,-2.0,2.0,2.0,-2.0,2.0,-2.0,-2.0,-2.0,-2.0,-2.0
2025-06-09 09:14:05.261,0.0009852933,0.020989817,0.04377089,-0.005566711,0.038732484,0.0063551622,0.0,0.0,0.0,-0.0065712095,-0.120777234,0.27928752,-0.15498991,0.10938693,0.3082856,-0.1351789,0.03560813,-0.30479237,-0.032998048,-0.03507253,-0.27908385,0.030494522,0.009616443,-0.048834912,0.05147762,-0.059829406,-0.052735403,0.023255982,-0.057005055,0.00086361717,0.007180037,0.047687277,-0.022748962,-0.042786766,-2.0,2.0,-2.0,2.0,2.0,-2.0,2.0,-2.0,-2.0,-2.0,-2.0,-2.0,-2.0,2.0,-2.0,2.0,2.0,-2.0,2.0,-2.0,-2.0,-2.0,-2.0,-2.0
2025-06-09 09:14:05.275,-0.056401808,-0.0026471165,0.024848146,0.012622643,0.01455179,0.021899937,0.0,0.0,0.0,-0.0064889654,-0.11091309,0.2709955,-0.14105627,0.115667045,0.3093596,-0.122596435,0.018840773,-0.30096322,-0.03785136,-0.05100441,-0.27378976,0.018214794,-0.06740572,-0.040903434,0.035520446,0.077655606,0.036715604,-0.022949273,0.037073836,-0.025452938,0.018095842,-0.04126277,-0.036091615,-0.018739691,-2.0,2.0,-2.0,2.0,2.0,-2.0,2.0,-2.0,-2.0,-2.0,-2.0,-2.0,-2.0,2.0,-2.0,2.0,2.0,-2.0,2.0,-2.0,-2.0,-2.0,-2.0,-2.0
2025-06-09 09:14:05.295,0.042580362,-0.060758136,-0.037005585,-0.004252962,8.86925e-05,-0.012520589,0.0,0.0,0.0,-0.0064654923,-0.114659145,0.25892982,-0.13968953,0.11210834,0.2995593,-0.125323,0.032670304,-0.30983675,-0.038989667,-0.040507447,-0.29042348,0.018424405,0.027352136,-0.026997766,-0.01843924,-0.027122388,0.063446775,0.056149375,-0.0076328446,-0.056832794,-0.014821868,0.002122716,0.050942227,0.063335195,-2.0,2.0,-2.0,2.0,2.0,-2.0,2.0,-2.0,-2.0,-2.0,-2.0,-2.0,-2.0,2.0,-2.0,2.0,2.0,-2.0,2.0,-2.0,-2.0,-2.0,-2.0,-2.0
2025-06-09 09:14:05.315,-0.009589321,0.0260774,0.029168388,0.0015230621,-0.004031606,-0.045699928,0.0,0.0,0.0,-0.0064959833,-0.1259552,0.26359242,-0.13791277,0.12738568,0.29725495,-0.13587376,0.035866905,-0.29863095,-0.04555908,-0.035460994,-0.29271144,0.013318901,0.061525077,0.038681157,0.049466655,-0.023248348,-0.008933521,-0.041282818,-0.022359341,-0.039236996,0.004232809,0.0619358,-0.08077787,-0.05165556,-2.0,2.0,-2.0,2.0,2.0,-2.0,2.0,-2.0,-2.0,-2.0,-2.0,-2.0,-2.0,2.0,-2.0,2.0,2.0,-2.0,2.0,-2.0,-2.0,-2.0,-2.0,-2.0
2025-06-09 09:14:05.335,0.0037449324,0.006146311,0.035748966,-0.06688893,0.063881755,0.015658826,0.0,0.0,0.0,-0.006569757,-0.1329522,0.26085943,-0.14323658,0.13597389,0.30342746,-0.14020713,0.0233081,-0.31560037,-0.052781016,-0.035078894,-0.28117675,0.009689086,-0.0013980524,-0.052198138,0.03974497,-0.060022797,-0.06867254,-0.07508052,0.029970389,0.039991785,0.058359083,-0.04763502,0.001015153,-0.05328024,-2.0,2.0,-2.0,2.0,2.0,-2.0,2.0,-2.0,-2.0,-2.0,-2.0,-2.0,-2.0,2.0,-2.0,2.0,2.0,-2.0,2.0,-2.0,-2.0,-2.0,-2.0,-2.0
2025-06-09 09:14:05.358,-0.049445804,0.025128018,-0.023378063,-0.06351188,-0.015188629,0.005724108,0.0,0.0,0.0,-0.006674551,-0.12968846,0.25166935,-0.1398632,0.12900734,0.3045001,-0.12828293,0.03661355,-0.3159231,-0.049894094,-0.042973753,-0.2859874,-0.003914541,0.044682946,0.06654198,-0.054724406,0.017653288,-0.056184933,0.024143001,0.021598153,-0.024694497,0.057087976,-0.016460849,-0.018975774,0.0017161148,-2.0,2.0,-2.0,2.0,2.0,-2.0,2.0,-2.0,-2.0,-2.0,-2.0,-2.0,-2.0,2.0,-2.0,2.0,2.0,-2.0,2.0,-2.0,-2.0,-2.0,-2.0,-2.0
2025-06-09 09:14:05.376,0.042602904,-0.01433909,0.05307996,-0.035407327,0.06331812,-0.024171276,0.0,0.0,0.0,-0.006798198,-0.11977771,0.2620137,-0.13605537,0.1315507,0.29704845,-0.14366414,0.021438738,-0.3131254,-0.053641252,-0.045713335,-0.29987955,-0.008069401,-0.0028731117,-0.08052711,0.061915662,-0.02533959,-0.02977892,0.043858644,0.055060457,0.037718035,0.061132938,0.05760251,-0.058971446,0.035539974,-2.0,2.0,-2.0,2.0,2.0,-2.0,2.0,-2.0,-2.0,-2.0,-2.0,-2.0,-2.0,2.0,-2.0,2.0,2.0,-2.0,2.0,-2.0,-2.0,-2.0,-2.0,-2.0
2025-06-09 09:14:05.396,0.021503061,-0.043497752,0.022506747,0.016902745,-0.0005799456,-0.040821765,0.0,0.0,0.0,-0.0069252816,-0.12282529,0.24445051,-0.14927588,0.14715119,0.29517555,-0.13878989,0.021081185,-0.31748646,-0.06265751,-0.049321786,-0.29291224,-0.0009683888,-0.07465556,0.00549108,-0.0049065426,0.07335492,0.0493431,0.013492492,0.050204232,0.023324976,0.040548462,0.0042464025,-0.011561405,0.04059333,-2.0,2.0,-2.0,2.0,2.0,-2.0,2.0,-2.0,-2.0,-2.0,-2.0,-2.0,-2.0,2.0,-2.0,2.0,2.0,-2.0,2.0,-2.0,-2.0,-2.0,-2.0,-2.0
2025-06-09 09:14:05.416,-0.014434184,-0.002303259,-0.019102529,-0.066878535,0.066321395,0.028592678,0.0,0.0,0.0,-0.0070412057,-0.1299972,0.25218868,-0.13369343,0.14453307,0.294693,-0.13672045,0.028766356,-0.3120761,-0.06134174,-0.03684395,-0.2939977,-0.003812245,0.0465904,0.0006016891,-0.0557544,-0.021675805,-0.017413422,0.039776977,-0.0059565995,-0.04542981,-0.06438065,-0.042789236,-0.020453341,0.06474858,-2.0,2.0,-2.0,2.0,2.0,-2.0,2.0,-2.0,-2.0,-2.0,-2.0,-2.0,-2.0,2.0,-2.0,2.0,2.0,-2.0,2.0,-2.0,-2.0,-2.0,-2.0,-2.0
2025-06-09 09:14:05.439,0.04457281,-0.00408611,-0.017931174,-0.07098031,0.024890916,0.028801456,0.0,0.0,0.0,-0.0071365302,-0.1374035,0.24443221,-0.13282575,0.1538929,0.29793757,-0.137596,0.034834377,-0.3148242,-0.051230423,-0.034727,-0.29522318,-0.018694077,-0.031637594,-0.019909166,0.044777792,0.015068445,-0.044668615,0.052350063,-0.02834478,0.034483004,0.0001978242,0.00051009137,0.030524367,-0.051785093,-2.0,2.0,-2.0,2.0,2.0,-2.0,2.0,-2.0,-2.0,-2.0,-2.0,-2.0,-2.0,2.0,-2.0,2.0,2.0,-2.0,2.0,-2.0,-2.0,-2.0,-2.0,-2.0
2025-06-09 09:14:05.458,-0.0055509554,-0.0042965054,-0.012680225,0.016579477,-0.0053742006,-0.038670145,0.0,0.0,0.0,-0.007207484,-0.12904394,0.24145228,-0.13617577,0.14492224,0.29610622,-0.14546216,0.034612045,-0.32744217,-0.060204025,-0.043289687,-0.29458362,-0.014515009,0.01714416,-0.012647923,0.02655805,0.011583417,0.01775072,-0.035318784,0.056305256,0.062118147,0.029088387,-0.045028485,-0.0021270993,0.027908571,-2.0,2.0,-2.0,2.0,2.0,-2.0,2.0,-2.0,-2.0,-2.0,-2.0,-2.0,-2.0,2.0,-2.0,2.0,2.0,-2.0,2.0,-2.0,-2.0,-2.0,-2.0,-2.0
2025-06-09 09:14:05.476,-0.026307356,0.022738202,0.023640204,0.009711352,0.003896302,0.025380423,0.0,0.0,0.0,-0.007255121,-0.13849817,0.24450792,-0.13774174,0.14297058,0.2840492,-0.12601337,0.028792104,-0.31619504,-0.06930089,-0.037796546,-0.2946841,-0.025453525,-0.022013642,0.0006645666,0.019277005,0.04357953,0.002551501,0.02495666,-0.044412524,0.04204321,-0.03754513,-0.010099507,-0.0041499967,0.023716446,-2.0,2.0,-2.0,2.0,2.0,-2.0,2.0,-2.0,-2.0,-2.0,-2.0,-2.0,-2.0,2.0,-2.0,2.0,2.0,-2.0,2.0,-2.0,-2.0,-2.0,-2.0,-2.0
2025-06-09 09:14:05.496,0.032683864,-0.037945107,0.01670902,-0.01449227,-0.027090086,0.04990511,0.0,0.0,0.0,-0.007284028,-0.13439357,0.24293336,-0.14526372,0.15717803,0.287613,-0.13137853,0.029721508,-0.32080597,-0.07047266,-0.040996026,-0.2937685,-0.019175876,0.055126995,-0.04638869,0.04940712,0.021595923,-0.07037493,-0.044110004,0.029441282,-0.074918285,0.008679322,-0.011972954,-0.014470545,-0.07816787,-2.0,2.0,-2.0,2.0,2.0,-2.0,2.0,-2.0,-2.0,-2.0,-2.0,-2.0,-2.0,2.0,-2.0,2.0,2.0,-2.0,2.0,-2.0,-2.0,-2.0,-2.0,-2.0
2025-06-09 09:14:05.516,0.0031488908,-0.033130903,0.03567256,-0.05898822,0.028360551,-0.04368092,0.0,0.0,0.0,-0.00730096,-0.13911697,0.24770114,-0.14411208,0.15346172,0.2939703,-0.13973919,0.02681122,-0.33204478,-0.06738462,-0.04840309,-0.30499855,-0.021990852,-0.015573227,0.0082459,0.03871905,0.05677181,0.00488254,-0.060009703,0.051450565,-0.06427004,-0.03437917,-0.01097796,-0.032617807,0.069096215,-2.0,2.0,-2.0,2.0,2.0,-2.0,2.0,-2.0,-2.0,-2.0,-2.0,-2.0,-2.0,2.0,-2.0,2.0,2.0,-2.0,2.0,-2.0,-2.0,-2.0,-2.0,-2.0
2025-06-09 09:14:05.541,-0.04549817,0.023685036,-0.008107164,0.010845469,0.06384526,0.04033494,0.0,0.0,0.0,-0.0073105125,-0.1508089,0.25269613,-0.13862193,0.1565008,0.28705478,-0.13149804,0.037678983,-0.32692328,-0.07351874,-0.04777681,-0.29960436,-0.015027395,-0.05830832,0.013952076,-0.046943348,0.009781849,-0.024863789,-0.0594438,0.06557061,-0.032599166,-0.07390448,0.03429787,-0.051790904,0.05011969,-2.0,2.0,-2.0,2.0,2.0,-2.0,2.0,-2.0,-2.0,-2.0,-2.0,-2.0,-2.0,2.0,-2.0,2.0,2.0,-2.0,2.0,-2.0,-2.0,-2.0,-2.0,-2.0
2025-06-09 09:14:05.558,-0.041383013,-0.0334884,-0.015329645,0.0058119316,-0.020930566,0.0020175148,0.0,0.0,0.0,-0.007313523,-0.1403447,0.24659285,-0.13377963,0.15760735,0.30170387,-0.14392905,0.041012548,-0.32646433,-0.069795415,-0.05015487,-0.29970574,-0.01685129,0.016789164,0.040692464,-0.04652053,0.045760106,-0.05183335,-0.035948817,0.002383175,0.029106565,-0.024177058,-0.07140101,-0.040794495,0.050563835,-2.0,2.0,-2.0,2.0,2.0,-2.0,2.0,-2.0,-2.0,-2.0,-2.0,-2.0,-2.0,2.0,-2.0,2.0,2.0,-2.0,2.0,-2.0,-2.0,-2.0,-2.0,-2.0
2025-06-09 09:14:05.576,-0.025723526,-0.050169032,0.027904648,-0.006878768,0.013169405,0.02466533,0.0,0.0,0.0,-0.007309719,-0.14536521,0.25857872,-0.1399168,0.16425863,0.28430495,-0.13520417,0.03000262,-0.32367992,-0.056251064,-0.03330755,-0.31536406,-0.01752622,0.04964946,-0.010089574,0.0014104795,0.020996558,0.0034186167,-0.06532914,-0.004712391,-0.034106284,0.041318897,0.02529024,-0.044272445,-0.052296165,-2.0,2.0,-2.0,2.0,2.0,-2.0,2.0,-2.0,-2.0,-2.0,-2.0,-2.0,-2.0,2.0,-2.0,2.0,2.0,-2.0,2.0,-2.0,-2.0,-2.0,-2.0,-2.0
2025-06-09 09:14:05.596,-0.028558943,0.005242875,-0.03184398,0.0017389582,0.010492627,-0.034893513,0.0,0.0,0.0,-0.00729896,-0.13829327,0.24596824,-0.123957336,0.16599306,0.29706553,-0.1277125,0.03595391,-0.32923704,-0.056529503,-0.043784168,-0.3148808,-0.025404118,0.03050341,-0.021002216,-0.07259378,0.0059659625,0.049540307,-0.06165896,-0.055318885,0.008558557,0.040651843,-0.06001719,-0.0003565502,-0.019349676,-2.0,2.0,-2.0,2.0,2.0,-2.0,2.0,-2.0,-2.0,-2.0,-2.0,-2.0,-2.0,2.0,-2.0,2.0,2.0,-2.0,2.0,-2.0,-2.0,-2.0,-2.0,-2.0
2025-06-09 09:14:05.616,0.02783235,-0.03611592,0.015695553,0.0026759505,0.040695947,-0.029819412,0.0,0.0,0.0,-0.007281319,-0.1465518,0.24546748,-0.1270008,0.14704734,0.29778042,-0.13477999,0.03657278,-0.3156784,-0.06068555,-0.037506193,-0.3076795,-0.017527554,0.020272192,-0.04370947,-0.046347544,-0.043955006,-0.072889425,-0.0067632925,-0.04780329,-0.016084112,0.010779524,-0.01616768,-0.046320003,0.048429295,-2.0,2.0,-2.0,2.0,2.0,-2.0,2.0,-2.0,-2.0,-2.0,-2.0,-2.0,-2.0,2.0,-2.0,2.0,2.0,-2.0,2.0,-2.0,-2.0,-2.0,-2.0,-2.0
2025-06-09 09:14:05.641,0.02927492,-0.003670079,0.02806412,-0.036711406,-1.9700567e-05,-0.011433635,0.0,0.0,0.0,-0.0072590336,-0.14297119,0.25090498,-0.13113107,0.14706735,0.2986259,-0.12865444,0.026402414,-0.3189639,-0.058583107,-0.051951963,-0.3132465,-0.017309608,-0.027117202,-0.004347842,0.012087921,0.0595467,0.07015621,-0.042780925,-0.055720814,0.0016108812,-0.01748564,0.07064321,-0.023573698,-0.016047064,-2.0,2.0,-2.0,2.0,2.0,-2.0,2.0,-2.0,-2.0,-2.0,-2.0,-2.0,-2.0,2.0,-2.0,2.0,2.0,-2.0,2.0,-2.0,-2.0,-2.0,-2.0,-2.0
2025-06-09 09:14:05.657,-0.031305682,0.044587806,-0.015254542,0.030703517,0.008615808,0.019687932,0.0,0.0,0.0,-0.0072372393,-0.14021721,0.24574429,-0.14090498,0.15198727,0.28919142,-0.12751772,0.04196369,-0.32370633,-0.06605314,-0.033011712,-0.31244925,-0.020987488,-0.019507512,-0.04967543,-0.07071299,-0.07258547,0.020119008,0.003674461,-0.0012764167,0.022356639,0.041097175,-0.017657125,0.0073193344,0.052675918,-2.0,2.0,-2.0,2.0,2.0,-2.0,2.0,-2.0,-2.0,-2.0,-2.0,-2.0,-2.0,2.0,-2.0,2.0,2.0,-2.0,2.0,-2.0,-2.0,-2.0,-2.0,-2.0
2025-06-09 09:14:05.677,-0.008063185,-0.021213122,0.010987972,-0.048172478,0.010911797,-0.042380285,0.0,0.0,0.0,-0.0072196056,-0.13944605,0.25434345,-0.1383315,0.16171657,0.30600438,-0.1304216,0.025708197,-0.32520068,-0.060938336,-0.05052609,-0.302372,-0.01865249,-0.014233869,-0.06423669,0.06442933,-0.05150941,-0.036791105,0.046571203,-0.060500376,-0.051756114,-0.06366637,0.011300475,0.0108142635,0.0011424371,-2.0,2.0,-2.0,2.0,2.0,-2.0,2.0,-2.0,-2.0,-2.0,-2.0,-2.0,-2.0,2.0,-2.0,2.0,2.0,-2.0,2.0,-2.0,-2.0,-2.0,-2.0,-2.0
2025-06-09 09:14:05.697,-0.023434013,0.0037085407,0.04316281,0.018182632,0.062259708,-0.049001552,0.0,0.0,0.0,-0.007206156,-0.13779156,0.26077175,-0.13983981,0.1486204,0.30312583,-0.12534222,0.03835565,-0.3209413,-0.064053915,-0.040027335,-0.3034384,-0.018544737,0.033491038,-0.04443027,-0.043431144,-0.06910362,0.016583616,-0.07434858,-0.012214425,-0.030263819,0.07205635,-0.04585813,0.07317776,0.05001428,-2.0,2.0,-2.0,2.0,2.0,-2.0,2.0,-2.0,-2.0,-2.0,-2.0,-2.0,-2.0,2.0,-2.0,2.0,2.0,-2.0,2.0,-2.0,-2.0,-2.0,-2.0,-2.0
2025-06-09 09:14:05.717,-0.03593011,-0.014845213,0.0015029908,-0.03655478,0.04531992,0.0037809487,0.0,0.0,0.0,-0.007195871,-0.14095178,0.24661525,-0.13250601,0.15959373,0.2945008,-0.12589218,0.032243084,-0.31631964,-0.0593482,-0.040362395,-0.31354168,-0.015579234,0.008128449,0.068553746,-0.010975481,0.03198959,0.022046605,-0.0063989568,-0.0065240418,0.061226457,-0.008198714,0.049693923,-0.07304182,0.00889241,-2.0,2.0,-2.0,2.0,2.0,-2.0,2.0,-2.0,-2.0,-2.0,-2.0,-2.0,-2.0,2.0,-2.0,2.0,2.0,-2.0,2.0,-2.0,-2.0,-2.0,-2.0,-2.0
2025-06-09 09:14:05.740,-0.01944301,-0.024367075,-0.03513332,-0.048782792,0.06135312,-0.037161365,0.0,0.0,0.0,-0.0071876515,-0.14683703,0.24796095,-0.1298131,0.15803444,0.30270138,-0.12644069,0.025580509,-0.31870124,-0.06858363,-0.04807961,-0.29637402,-0.014904347,-0.030252704,-0.030994024,7.845137e-05,-0.05427419,0.012670116,0.051897395,0.021569679,-0.018024271,-0.015557989,0.02374653,0.060502533,-0.01064528,-2.0,2.0,-2.0,2.0,2.0,-2.0,2.0,-2.0,-2.0,-2.0,-2.0,-2.0,-2.0,2.0,-2.0,2.0,2.0,-2.0,2.0,-2.0,-2.0,-2.0,-2.0,-2.0
2025-06-09 09:14:05.757,0.024332298,-0.0040320177,-0.032821026,-0.063914984,0.03423793,0.009315432,0.0,0.0,0.0,-0.00718055,-0.14577271,0.24813138,-0.14567976,0.15788996,0.29505417,-0.13249195,0.03229035,-0.31959206,-0.053001877,-0.03313774,-0.3119509,-0.004268713,0.052556083,-0.06087356,0.05029033,0.047481477,0.055085905,0.025565237,-0.021862408,0.074639,-0.04547913,0.06416806,-0.064223856,0.009369531,-2.0,2.0,-2.0,2.0,2.0,-2.0,2.0,-2.0,-2.0,-2.0,-2.0,-2.0,-2.0,2.0,-2.0,2.0,2.0,-2.0,2.0,-2.0,-2.0,-2.0,-2.0,-2.0
2025-06-09 09:14:05.779,0.029460443,0.03585883,0.028102979,0.009638492,0.0017344694,-0.004447806,0.0,0.0,0.0,-0.0071738902,-0.14746618,0.2523431,-0.14303483,0.16397895,0.29388672,-0.13597907,0.028174024,-0.32131177,-0.0619883,-0.039366964,-0.29446474,-0.02148233,-0.06711437,-0.059860006,0.05899732,-0.07028093,0.05553626,-0.04488302,0.070609465,0.012931007,-0.025209138,-0.04418681,0.029643383,0.023896614,-2.0,2.0,-2.0,2.0,2.0,-2.0,2.0,-2.0,-2.0,-2.0,-2.0,-2.0,-2.0,2.0,-2.0,2.0,2.0,-2.0,2.0,-2.0,-2.0,-2.0,-2.0,-2.0
2025-06-09 09:14:05.807,-0.019142833,0.033069227,0.02616157,-0.018428585,0.0042148074,0.036793783,0.0,0.0,0.0,-0.0071673044,-0.15107717,0.26967198,-0.13049951,0.1572311,0.31132028,-0.13304356,0.039817315,-0.32700682,-0.06052948,-0.039015137,-0.2957706,-0.003273245,0.012251819,0.06869259,-0.006551726,-0.054482058,0.013862016,0.049221825,0.054370366,0.010101649,0.01158117,-0.06465019,0.06784324,-0.060671642,-2.0,2.0,-2.0,2.0,2.0,-2.0,2.0,-2.0,-2.0,-2.0,-2.0,-2.0,-2.0,2.0,-2.0,2.0,2.0,-2.0,2.0,-2.0,-2.0,-2.0,-2.0,-2.0
2025-06-09 09:14:05.818,-0.00654475,0.022815935,0.0075894,-0.057535104,0.051715158,-0.045977835,0.0,0.0,0.0,-0.0071607423,-0.13964799,0.26699972,-0.13861838,0.15334022,0.31053808,-0.14017235,0.032499604,-0.31728557,-0.048310984,-0.05144963,-0.29744688,-0.00981929,-0.001768971,-0.04627773,0.028336946,0.049133524,-0.04255706,0.026427394,-0.04115499,0.045146056,0.06747666,-0.041144256,-0.062280376,-0.004475354,-2.0,2.0,-2.0,2.0,2.0,-2.0,2.0,-2.0,-2.0,-2.0,-2.0,-2.0,-2.0,2.0,-2.0,2.0,2.0,-2.0,2.0,-2.0,-2.0,-2.0,-2.0,-2.0
2025-06-09 09:14:05.841,-0.012694524,-0.041086584,0.0097170435,-0.06781885,0.007021893,-0.010426177,0.0,0.0,0.0,-0.0071543176,-0.1444566,0.2531448,-0.14536947,0.15277022,0.30784938,-0.14166404,0.039392844,-0.3218573,-0.051578633,-0.04624773,-0.3048806,-0.0045735426,-0.015691541,-0.001132895,0.06877947,0.011354177,0.025329683,-0.0042088614,-0.015447631,0.019355914,0.026993992,0.00033483238,0.0073001096,-0.034769904,-2.0,2.0,-2.0,2.0,2.0,-2.0,2.0,-2.0,-2.0,-2.0,-2.0,-2.0,-2.0,2.0,-2.0,2.0,2.0,-2.0,2.0,-2.0,-2.0,-2.0,-2.0,-2.0
2025-06-09 09:14:05.858,-0.035086475,-0.038784064,-0.009189309,-0.005322769,-0.013793215,0.011107479,0.0,0.0,0.0,-0.007148248,-0.1558162,0.26957747,-0.13103169,0.15947095,0.30201006,-0.13666545,0.042058475,-0.31332517,-0.06419987,-0.03412684,-0.29957774,0.00026481488,-0.05270849,0.06935546,-0.020822695,-0.03902501,-0.044532005,-0.002279737,-0.06642043,-0.048445832,-0.060267996,-0.048547614,0.07062171,-0.063967645,-2.0,2.0,-2.0,2.0,2.0,-2.0,2.0,-2.0,-2.0,-2.0,-2.0,-2.0,-2.0,2.0,-2.0,2.0,2.0,-2.0,2.0,-2.0,-2.0,-2.0,-2.0,-2.0
2025-06-09 09:14:05.878,-0.027629904,0.0022699474,0.011723926,-0.015568602,-0.013281332,-0.010105974,0.0,0.0,0.0,-0.007142799,-0.14706486,0.26512867,-0.14292939,0.16089916,0.30332345,-0.14094085,0.02952349,-0.3211941,-0.05078027,-0.04141207,-0.29555333,0.0015151851,-0.073422015,0.074104704,0.029033082,-0.046198327,0.031297456,0.020754078,0.026709631,-0.026360163,0.041893378,0.019570643,0.03274812,-0.021053405,-2.0,2.0,-2.0,2.0,2.0,-2.0,2.0,-2.0,-2.0,-2.0,-2.0,-2.0,-2.0,2.0,-2.0,2.0,2.0,-2.0,2.0,-2.0,-2.0,-2.0,-2.0,-2.0
2025-06-09 09:14:05.898,-0.008649786,0.029369934,-8.481944e-05,-0.008080059,0.026937585,0.012199632,0.0,0.0,0.0,-0.00713822,-0.1421618,0.26758862,-0.14226842,0.15330781,0.3112133,-0.1274521,0.0289707,-0.32640523,-0.05353929,-0.043075547,-0.3077788,-0.005351383,-0.00028683527,0.012571229,-0.055532895,-0.025195103,0.020949323,-0.011502486,-0.028813627,-0.009382774,0.07420823,0.014870353,-0.013067029,0.0731532,-2.0,2.0,-2.0,2.0,2.0,-2.0,2.0,-2.0,-2.0,-2.0,-2.0,-2.0,-2.0,2.0,-2.0,2.0,2.0,-2.0,2.0,-2.0,-2.0,-2.0,-2.0,-2.0
2025-06-09 09:14:05.918,-0.019749489,-0.044812664,0.01530979,-0.038538508,-0.0187214,-0.047790367,0.0,0.0,0.0,-0.0071347062,-0.15827021,0.26664847,-0.12758113,0.14843029,0.31627026,-0.13683943,0.03071123,-0.31349427,-0.062243417,-0.037465956,-0.29742104,-0.011477727,-0.05722943,0.004497416,0.032774035,0.030447714,-0.049997173,-0.06648771,-0.061212283,0.04467414,0.034469336,0.012332639,0.011401883,-0.0016701762,-2.0,2.0,-2.0,2.0,2.0,-2.0,2.0,-2.0,-2.0,-2.0,-2.0,-2.0,-2.0,2.0,-2.0,2.0,2.0,-2.0,2.0,-2.0,-2.0,-2.0,-2.0,-2.0
2025-06-09 09:14:05.941,-0.046279173,0.008005323,0.025175024,-0.04680112,-0.009341234,-0.04918125,0.0,0.0,0.0,-0.007132373,-0.14725384,0.26642776,-0.13229682,0.15009506,0.30233222,-0.13581553,0.028451763,-0.32331523,-0.058478914,-0.048569616,-0.3079159,-0.016966058,-0.0052679284,0.072650716,-0.0344926,0.0049491255,-0.0100940615,0.029524224,0.03464404,-0.044462144,-0.04699432,-0.017341318,-0.06958265,-0.065853,-2.0,2.0,-2.0,2.0,2.0,-2.0,2.0,-2.0,-2.0,-2.0,-2.0,-2.0,-2.0,2.0,-2.0,2.0,2.0,-2.0,2.0,-2.0,-2.0,-2.0,-2.0,-2.0
2025-06-09 09:14:05.958,-0.04190701,-0.010766114,0.026542723,0.0147352945,0.03416549,-0.02143992,0.0,0.0,0.0,-0.0071312236,-0.14279829,0.27037713,-0.13670588,0.15370248,0.310126,-0.12555899,0.03821934,-0.3213319,-0.049387626,-0.041158177,-0.2970081,-0.011327544,-0.008733315,0.0021958083,0.05006796,0.052304924,0.06114634,-0.013843736,-0.005931739,0.057622142,-0.050920557,0.06216272,0.04226686,0.0062849065,-2.0,2.0,-2.0,2.0,2.0,-2.0,2.0,-2.0,-2.0,-2.0,-2.0,-2.0,-2.0,2.0,-2.0,2.0,2.0,-2.0,2.0,-2.0,-2.0,-2.0,-2.0,-2.0
2025-06-09 09:14:05.978,0.023897955,0.040973417,-0.0021331953,-0.05993697,0.014443243,0.036772143,0.0,0.0,0.0,-0.0071311663,-0.15625972,0.2608767,-0.14143717,0.15417577,0.29964757,-0.13393351,0.030060174,-0.31237358,-0.06301469,-0.03739199,-0.31300402,-0.017826557,0.022300333,0.06530526,-0.0440749,0.06590185,-0.00231282,-0.04256104,0.062321942,0.03316419,0.029131973,-0.041922677,-0.0145883,-0.03634812,-2.0,2.0,-2.0,2.0,2.0,-2.0,2.0,-2.0,-2.0,-2.0,-2.0,-2.0,-2.0,2.0,-2.0,2.0,2.0,-2.0,2.0,-2.0,-2.0,-2.0,-2.0,-2.0
2025-06-09 09:14:05.999,-0.03510863,0.011305496,0.018391887,-0.050793204,0.054645862,-0.038943753,0.0,0.0,0.0,-0.007132085,-0.15208411,0.25269166,-0.14230669,0.14870024,0.31390226,-0.129026,0.04045141,-0.32726586,-0.04899562,-0.047470026,-0.31236577,-0.010721012,-0.015492806,0.035290718,-0.05728501,-0.057000536,0.014632605,-0.002464413,-0.020705005,0.044464696,-0.016122507,-0.022319961,0.0016913579,0.015265335,-2.0,2.0,-2.0,2.0,2.0,-2.0,2.0,-2.0,-2.0,-2.0,-2.0,-2.0,-2.0,2.0,-2.0,2.0,2.0,-2.0,2.0,-2.0,-2.0,-2.0,-2.0,-2.0
2025-06-09 09:14:06.018,0.038026348,-0.03307482,-0.01904202,-0.0067850393,-0.020884998,0.013142906,0.0,0.0,0.0,-0.0071338187,-0.14765668,0.26288453,-0.12726519,0.16339035,0.30510488,-0.13072501,0.038144097,-0.31348607,-0.04628098,-0.033566296,-0.31217122,-0.018414922,0.035665713,-0.043162204,0.06921496,0.03590304,0.02577784,0.033901684,-0.012243383,-0.014390541,0.009636127,-0.0688673,-0.008966163,0.04254727,-2.0,2.0,-2.0,2.0,2.0,-2.0,2.0,-2.0,-2.0,-2.0,-2.0,-2.0,-2.0,2.0,-2.0,2.0,2.0,-2.0,2.0,-2.0,-2.0,-2.0,-2.0,-2.0
2025-06-09 09:14:06.041,0.017011978,0.040672444,0.0075920955,0.013836072,-0.028044507,0.010109884,0.0,0.0,0.0,-0.007136176,-0.14316188,0.26935077,-0.14378475,0.15514462,0.31345057,-0.13386382,0.032100074,-0.31509373,-0.056321036,-0.04244305,-0.3047397,-0.00033180972,0.066950984,-0.06816782,-0.034013487,-0.042038146,-0.032766946,-0.05803986,-0.0038930073,0.06521815,0.057977177,-0.06514192,-0.06686633,0.0013193118,-2.0,2.0,-2.0,2.0,2.0,-2.0,2.0,-2.0,-2.0,-2.0,-2.0,-2.0,-2.0,2.0,-2.0,2.0,2.0,-2.0,2.0,-2.0,-2.0,-2.0,-2.0,-2.0
2025-06-09 09:14:06.058,0.018319806,0.040687837,0.028191846,0.014230442,0.019780295,0.0497131,0.0,0.0,0.0,-0.007138951,-0.14743172,0.2641166,-0.14528593,0.16286643,0.3093696,-0.13089825,0.032372072,-0.32362032,-0.047290813,-0.040079232,-0.2953701,-0.0055329334,0.010614668,-0.07190292,-0.05790832,-0.05214938,0.06693893,-0.03521323,0.05207195,-0.0027387782,-0.03385852,-0.013038496,-0.04921377,0.016748754,-2.0,2.0,-2.0,2.0,2.0,-2.0,2.0,-2.0,-2.0,-2.0,-2.0,-2.0,-2.0,2.0,-2.0,2.0,2.0,-2.0,2.0,-2.0,-2.0,-2.0,-2.0,-2.0
2025-06-09 09:14:06.079,-0.008870298,-0.016671855,0.003418985,-0.020164883,0.057000745,-0.038888942,0.0,0.0,0.0,-0.007141967,-0.14162457,0.25849077,-0.13048017,0.16477646,0.30139124,-0.13925412,0.033232216,-0.31482655,-0.060681805,-0.033953346,-0.306822,-0.009942321,-0.070731565,-0.018131007,-0.034015045,0.06456585,-0.02046884,0.03423418,0.056479026,-0.034150477,0.052445892,-0.04596115,0.037877988,0.0219225,-2.0,2.0,-2.0,2.0,2.0,-2.0,2.0,-2.0,-2.0,-2.0,-2.0,-2.0,-2.0,2.0,-2.0,2.0,2.0,-2.0,2.0,-2.0,-2.0,-2.0,-2.0,-2.0
2025-06-09 09:14:06.099,-0.008435403,0.023953468,0.005364622,-0.06641548,-0.012197366,-0.040035926,0.0,0.0,0.0,-0.007145076,-0.15090992,0.26460457,-0.12878455,0.15825592,0.30867222,-0.13873293,0.03168751,-0.32758245,-0.058926035,-0.04916121,-0.298332,-0.015767142,0.038765132,0.071157865,0.05803547,0.006128974,0.018801713,0.036601644,-0.066996165,-0.0578754,0.041795675,0.028535372,0.047094136,0.0730546,-2.0,2.0,-2.0,2.0,2.0,-2.0,2.0,-2.0,-2.0,-2.0,-2.0,-2.0,-2.0,2.0,-2.0,2.0,2.0,-2.0,2.0,-2.0,-2.0,-2.0,-2.0,-2.0
2025-06-09 09:14:06.119,-0.03456174,-0.029171417,0.0358625,0.019160932,0.013670187,0.03401252,0.0,0.0,0.0,-0.0071481024,-0.14914976,0.25245997,-0.141244,0.15568297,0.30673164,-0.12568954,0.034722026,-0.32144195,-0.06086462,-0.044137247,-0.29974645,-0.015390497,0.053349685,0.0024403988,0.02117984,0.031023616,-0.038385123,-0.01471437,-0.07437841,0.0038196987,-0.019919975,0.027903069,-0.0730728,0.052508555,-2.0,2.0,-2.0,2.0,2.0,-2.0,2.0,-2.0,-2.0,-2.0,-2.0,-2.0,-2.0,2.0,-2.0,2.0,2.0,-2.0,2.0,-2.0,-2.0,-2.0,-2.0,-2.0
2025-06-09 09:14:06.141,0.03146414,-0.02205528,-0.012389611,-0.03656642,-0.03182567,0.03687156,0.0,0.0,0.0,-0.0071508484,-0.14217962,0.25136387,-0.13420346,0.15683135,0.30876547,-0.13146114,0.03219619,-0.3132968,-0.051179532,-0.047440417,-0.31302768,-0.0047139074,0.007599688,-0.060363688,0.041601572,-0.0008966628,-0.05274364,0.06250136,-0.064223446,0.05610917,-0.018643662,0.019710988,0.05369199,0.018059338,-2.0,2.0,-2.0,2.0,2.0,-2.0,2.0,-2.0,-2.0,-2.0,-2.0,-2.0,-2.0,2.0,-2.0,2.0,2.0,-2.0,2.0,-2.0,-2.0,-2.0,-2.0,-2.0
2025-06-09 09:14:06.159,0.016045878,0.024705268,0.013444391,-0.037416864,0.056283485,0.021168973,0.0,0.0,0.0,-0.0071532354,-0.15616249,0.2538352,-0.14158428,0.15713677,0.29772505,-0.12594928,0.038649272,-0.3164977,-0.06650638,-0.044998575,-0.313496,-0.008361348,-0.018734349,0.02564106,-0.013832157,-0.036680028,0.008323781,0.058963,0.002250623,0.044748537,0.062194776,-0.03380314,0.016557552,0.023830356,-2.0,2.0,-2.0,2.0,2.0,-2.0,2.0,-2.0,-2.0,-2.0,-2.0,-2.0,-2.0,2.0,-2.0,2.0,2.0,-2.0,2.0,-2.0,-2.0,-2.0,-2.0,-2.0
2025-06-09 09:14:06.179,-0.04412489,-0.047525596,0.036548734,0.02451806,-0.0356645,-0.028402984,0.0,0.0,0.0,-0.0071552186,-0.15343076,0.2601336,-0.12798776,0.1612307,0.310072,-0.1416958,0.040595867,-0.31962097,-0.06383246,-0.04466432,-0.3079067,-0.0148474295,-0.0016163943,-0.0075394907,0.029167607,-0.06783609,-0.07197742,0.0023976911,0.03666152,-0.022667404,0.0014981196,0.03365371,-0.032472692,0.0518438,-2.0,2.0,-2.0,2.0,2.0,-2.0,2.0,-2.0,-2.0,-2.0,-2.0,-2.0,-2.0,2.0,-2.0,2.0,2.0,-2.0,2.0,-2.0,-2.0,-2.0,-2.0,-2.0
2025-06-09 09:14:06.200,0.024991585,-0.031085335,-0.039390393,-0.035133623,0.04138822,0.011091176,0.0,0.0,0.0,-0.0071567553,-0.14625683,0.25262272,-0.13790135,0.14905174,0.31112882,-0.12456137,0.032261737,-0.31670138,-0.05879217,-0.039938394,-0.31183726,-0.009594087,0.014580426,0.07237276,-0.016001351,0.012949947,-0.012761461,0.040411588,0.04768643,-0.046735045,-0.06640555,0.008128434,-0.03448415,-0.0512346,-2.0,2.0,-2.0,2.0,2.0,-2.0,2.0,-2.0,-2.0,-2.0,-2.0,-2.0,-2.0,2.0,-2.0,2.0,2.0,-2.0,2.0,-2.0,-2.0,-2.0,-2.0,-2.0
2025-06-09 09:14:06.219,0.029473523,-0.040923774,-0.0005953901,0.020354496,0.025589434,-0.04651439,0.0,0.0,0.0,-0.0071578235,-0.14291699,0.25509953,-0.13612646,0.1486967,0.31169978,-0.13472842,0.030099612,-0.32145914,-0.066985145,-0.037127838,-0.29604638,-0.008056956,0.013116248,0.028366718,-0.048976544,0.055989467,-0.059748556,0.030922605,0.020658616,0.027738562,-0.05657447,-0.012036863,-0.055230055,0.03554187,-2.0,2.0,-2.0,2.0,2.0,-2.0,2.0,-2.0,-2.0,-2.0,-2.0,-2.0,-2.0,2.0,-2.0,2.0,2.0,-2.0,2.0,-2.0,-2.0,-2.0,-2.0,-2.0
2025-06-09 09:14:06.241,0.003616991,0.039625727,0.049515996,-0.05841192,-0.029900895,-0.027513092,0.0,0.0,0.0,-0.0071584526,-0.14252724,0.25356787,-0.1348749,0.15663432,0.3119762,-0.12742276,0.022964574,-0.31202403,-0.06530047,-0.034345675,-0.29922864,-0.011649749,0.05224509,-0.014776641,0.028841348,-0.027327383,0.0015083434,-0.011479891,-0.009654545,0.05484933,0.01883096,0.022791203,-0.018751904,-0.017038228,-2.0,2.0,-2.0,2.0,2.0,-2.0,2.0,-2.0,-2.0,-2.0,-2.0,-2.0,-2.0,2.0,-2.0,2.0,2.0,-2.0,2.0,-2.0,-2.0,-2.0,-2.0,-2.0
2025-06-09 09:14:06.259,-0.005085371,0.040005237,0.033973213,-0.017684141,-0.020419372,-0.014393904,0.0,0.0,0.0,-0.007158678,-0.14066209,0.261238,-0.14179648,0.14708373,0.29861483,-0.1293211,0.026151286,-0.32933173,-0.05536047,-0.04352542,-0.29441407,-0.0022613502,-0.0057122153,0.037044786,-0.041540172,0.019851198,0.041145276,-0.05522469,-0.016937114,-0.037020005,-0.0062272237,-2.9741419e-05,-0.039502967,-0.070920154,-2.0,2.0,-2.0,2.0,2.0,-2.0,2.0,-2.0,-2.0,-2.0,-2.0,-2.0,-2.0,2.0,-2.0,2.0,2.0,-2.0,2.0,-2.0,-2.0,-2.0,-2.0,-2.0
2025-06-09 09:14:06.279,-0.0060571968,0.03256093,0.045483544,-0.025560874,0.04593831,-0.028783888,0.0,0.0,0.0,-0.007158549,-0.15538809,0.26673672,-0.13627715,0.16411547,0.30258033,-0.13622338,0.040987168,-0.3126035,-0.061112564,-0.040206067,-0.30836228,-0.008899156,-0.004194393,0.059177678,0.026972076,-0.019724153,0.001934711,0.069448195,0.035148025,0.067263454,0.01228057,0.00827943,0.009581308,-0.07339019,-2.0,2.0,-2.0,2.0,2.0,-2.0,2.0,-2.0,-2.0,-2.0,-2.0,-2.0,-2.0,2.0,-2.0,2.0,2.0,-2.0,2.0,-2.0,-2.0,-2.0,-2.0,-2.0
2025-06-09 09:14:06.299,-0.04321422,0.0289776,-0.03712037,0.030184701,6.8378875e-05,-0.03593346,0.0,0.0,0.0,-0.007158125,-0.1438298,0.25698024,-0.13085733,0.14737405,0.2983939,-0.14201969,0.038516074,-0.31909645,-0.06012478,-0.037892584,-0.30615872,-0.019119877,0.030763993,0.05256736,0.038369223,0.0144400075,0.0044499235,-0.05556966,-0.069387965,-0.072759435,0.05031527,-0.033961874,-0.027989753,-0.062939525,-2.0,2.0,-2.0,2.0,2.0,-2.0,2.0,-2.0,-2.0,-2.0,-2.0,-2.0,-2.0,2.0,-2.0,2.0,2.0,-2.0,2.0,-2.0,-2.0,-2.0,-2.0,-2.0
2025-06-09 09:14:06.322,-0.025527107,0.015022737,0.005031256,-0.05864373,-0.012035333,0.046055555,0.0,0.0,0.0,-0.007157468,-0.14541273,0.26582086,-0.12791134,0.16159873,0.3090237,-0.13192886,0.03450221,-0.32547322,-0.060310524,-0.047244336,-0.29535797,-0.0038414411,-0.05814959,-0.020386484,-0.071193375,-0.05417338,0.022784907,0.07333521,0.056184478,0.009145502,-0.06960091,-0.06819685,0.07095564,-0.0618383,-2.0,2.0,-2.0,2.0,2.0,-2.0,2.0,-2.0,-2.0,-2.0,-2.0,-2.0,-2.0,2.0,-2.0,2.0,2.0,-2.0,2.0,-2.0,-2.0,-2.0,-2.0,-2.0
2025-06-09 09:14:06.341,-0.014319948,-0.031522814,-0.03146549,-0.00948013,-0.0030760395,-0.02509809,0.0,0.0,0.0,-0.0071566436,-0.14391781,0.2506593,-0.14360666,0.15793207,0.3025634,-0.13774519,0.024070585,-0.312293,-0.0535411,-0.04475108,-0.30303052,-0.0065377494,0.060426235,-0.07158938,0.039237477,-0.019221839,0.021532465,-0.009250037,0.027558161,-0.068732604,0.037589684,0.018071063,-0.06938556,0.07093958,-2.0,2.0,-2.0,2.0,2.0,-2.0,2.0,-2.0,-2.0,-2.0,-2.0,-2.0,-2.0,2.0,-2.0,2.0,2.0,-2.0,2.0,-2.0,-2.0,-2.0,-2.0,-2.0
2025-06-09 09:14:06.360,0.043765526,-0.024078319,-0.011372027,-0.06865803,0.06284947,-0.0012307117,0.0,0.0,0.0,-0.0071557164,-0.14241122,0.25417063,-0.12916109,0.14849913,0.2960492,-0.12365598,0.02706246,-0.327092,-0.062218502,-0.04933574,-0.29944012,-0.01526889,0.060997184,0.036140166,-0.05591097,-0.044118535,-0.003644684,-0.024502436,0.044342883,-0.010890089,0.046792846,-0.06845077,0.018788012,-0.012965049,-2.0,2.0,-2.0,2.0,2.0,-2.0,2.0,-2.0,-2.0,-2.0,-2.0,-2.0,-2.0,2.0,-2.0,2.0,2.0,-2.0,2.0,-2.0,-2.0,-2.0,-2.0,-2.0
2025-06-09 09:14:06.380,-0.004086654,-0.028894013,0.018002082,0.0036883885,-0.017951028,-0.022376614,0.0,0.0,0.0,-0.0071547427,-0.15157124,0.26003304,-0.12903675,0.1514115,0.29589826,-0.14243974,0.029879475,-0.3119735,-0.062132753,-0.03408323,-0.3050799,-0.010580084,0.05387829,0.060996175,-0.0068685245,0.063453704,0.047649857,-0.014936002,0.049585685,0.048856687,0.03187156,0.019129962,0.06488009,0.030669035,-2.0,2.0,-2.0,2.0,2.0,-2.0,2.0,-2.0,-2.0,-2.0,-2.0,-2.0,-2.0,2.0,-2.0,2.0,2.0,-2.0,2.0,-2.0,-2.0,-2.0,-2.0,-2.0
2025-06-09 09:14:06.400,0.013797643,0.014388624,0.043387394,-0.049335565,0.04850008,0.025458274,0.0,0.0,0.0,-0.0071537676,-0.14015399,0.25367922,-0.13603923,0.15720823,0.312451,-0.13859843,0.030224552,-0.3290593,-0.049262114,-0.03884331,-0.29557025,-0.011274748,-0.049780875,-0.005890483,0.04188281,-0.07456683,-0.037447937,0.0059025465,0.03980151,0.014802193,-0.03904467,-0.039833646,-0.017145071,0.04724204,-2.0,2.0,-2.0,2.0,2.0,-2.0,2.0,-2.0,-2.0,-2.0,-2.0,-2.0,-2.0,2.0,-2.0,2.0,2.0,-2.0,2.0,-2.0,-2.0,-2.0,-2.0,-2.0
2025-06-09 09:14:06.424,0.0007707536,0.027129048,-0.0072791586,0.015291972,-0.019418836,0.007389174,0.0,0.0,0.0,-0.0071528484,-0.1510079,0.26688716,-0.14182495,0.14927034,0.2958188,-0.13589299,0.027974937,-0.32433558,-0.049394995,-0.03979689,-0.31084302,-0.020768702,-0.04552994,-0.00566965,-0.06703161,-0.029862665,-0.02536292,0.01978354,0.061212637,0.064119965,0.023397945,0.004746294,0.07077652,-0.015485758,-2.0,2.0,-2.0,2.0,2.0,-2.0,2.0,-2.0,-2.0,-2.0,-2.0,-2.0,-2.0,2.0,-2.0,2.0,2.0,-2.0,2.0,-2.0,-2.0,-2.0,-2.0,-2.0
2025-06-09 09:14:06.441,-0.047370423,0.0080668125,-0.027173016,0.005298457,0.021746121,-0.0438784,0.0,0.0,0.0,-0.0071520186,-0.15033533,0.2502717,-0.1349895,0.1496682,0.29705998,-0.1276676,0.023116866,-0.31760204,-0.05032382,-0.035827827,-0.29590595,-0.006434354,-0.07422258,-0.030644909,0.00825983,-0.047997512,0.021824766,0.00800035,0.030394696,0.016707057,0.031522334,-0.04126303,0.015723163,-0.050766036,-2.0,2.0,-2.0,2.0,2.0,-2.0,2.0,-2.0,-2.0,-2.0,-2.0,-2.0,-2.0,2.0,-2.0,2.0,2.0,-2.0,2.0,-2.0,-2.0,-2.0,-2.0,-2.0
2025-06-09 09:14:06.460,-0.032790653,0.016461452,-0.0067154425,-0.011311505,0.0615441,-0.013990415,0.0,0.0,0.0,-0.0071513033,-0.13836789,0.26623747,-0.14295314,0.16331165,0.30655432,-0.13623002,0.024851086,-0.32740095,-0.053406887,-0.051813576,-0.3035279,-0.01918288,-0.0030669165,-0.0670174,-0.066624045,0.016467893,-0.056702577,-0.074654385,-0.003016802,0.040342696,-0.031986877,-0.07166653,-0.0557112,0.0050519304,-2.0,2.0,-2.0,2.0,2.0,-2.0,2.0,-2.0,-2.0,-2.0,-2.0,-2.0,-2.0,2.0,-2.0,2.0,2.0,-2.0,2.0,-2.0,-2.0,-2.0,-2.0,-2.0
2025-06-09 09:14:06.480,0.037874144,-0.021463836,-0.02617252,0.01464175,-0.033095017,0.045269743,0.0,0.0,0.0,-0.007150721,-0.15495083,0.26566952,-0.13109557,0.1606633,0.3016666,-0.1407691,0.040346086,-0.30972102,-0.0624026,-0.044007204,-0.3000017,-0.019413656,-0.037007835,-0.06385286,-0.03082866,0.04865378,0.05528989,0.02982245,0.0025964687,0.014480205,0.070709094,0.056152247,-0.030302698,-0.013691455,-2.0,2.0,-2.0,2.0,2.0,-2.0,2.0,-2.0,-2.0,-2.0,-2.0,-2.0,-2.0,2.0,-2.0,2.0,2.0,-2.0,2.0,-2.0,-2.0,-2.0,-2.0,-2.0
2025-06-09 09:14:06.500,-0.049022947,-0.015361614,0.03911384,0.0004869583,0.005279964,0.030011682,0.0,0.0,0.0,-0.0071502766,-0.14164154,0.2676846,-0.13711396,0.15290873,0.31184798,-0.13732955,0.024849616,-0.3107665,-0.057958864,-0.03503854,-0.30811206,-0.0055055954,-0.017300187,0.0018804008,-0.030225625,-0.05234032,-0.020241955,-0.039228257,-0.035501186,0.06662181,0.048645418,-0.032457408,-0.05806467,-0.047235418,-2.0,2.0,-2.0,2.0,2.0,-2.0,2.0,-2.0,-2.0,-2.0,-2.0,-2.0,-2.0,2.0,-2.0,2.0,2.0,-2.0,2.0,-2.0,-2.0,-2.0,-2.0,-2.0
2025-06-09 09:14:06.524,0.008024684,0.0035215179,-0.04557965,0.023065757,-0.026112115,0.0032457442,0.0,0.0,0.0,-0.007149969,-0.14932683,0.25590923,-0.13720527,0.16020814,0.30075222,-0.13522458,0.04197113,-0.32391757,-0.054236975,-0.03645164,-0.30146894,-0.009587035,0.07063256,0.03725979,-0.023204813,0.034145687,0.06779759,-0.07301573,-0.032375384,0.05983895,-0.016522212,-0.0031526093,-0.061913405,-0.051854584,-2.0,2.0,-2.0,2.0,2.0,-2.0,2.0,-2.0,-2.0,-2.0,-2.0,-2.0,-2.0,2.0,-2.0,2.0,2.0,-2.0,2.0,-2.0,-2.0,-2.0,-2.0,-2.0
2025-06-09 09:14:06.541,0.04945931,-0.006939462,-0.034188844,-0.009565665,0.015450271,0.035934974,0.0,0.0,0.0,-0.00714979,-0.14817616,0.25043282,-0.12803371,0.15771002,0.30687445,-0.13717468,0.03395334,-0.31151596,-0.04904001,-0.03529385,-0.31227568,-0.009737057,0.006282484,0.00087835407,0.040824383,0.072691664,0.061890874,-0.036526676,0.07182971,-0.039584152,0.056892212,-0.06480634,0.0065937154,0.01755561,-2.0,2.0,-2.0,2.0,2.0,-2.0,2.0,-2.0,-2.0,-2.0,-2.0,-2.0,-2.0,2.0,-2.0,2.0,2.0,-2.0,2.0,-2.0,-2.0,-2.0,-2.0,-2.0
2025-06-09 09:14:06.560,-0.03977328,0.011463126,-0.027833447,-0.03019799,0.060024515,0.0059124203,0.0,0.0,0.0,-0.007149727,-0.1424186,0.26030406,-0.12994267,0.15680465,0.30784872,-0.13761544,0.04082853,-0.31518778,-0.06414996,-0.04339103,-0.29510897,-0.017277233,-0.01871306,-0.031445533,0.045141056,0.016835513,-0.064194694,-0.03978323,0.018759953,-0.06270406,-0.036660045,-0.068505816,0.05279147,0.05773413,-2.0,2.0,-2.0,2.0,2.0,-2.0,2.0,-2.0,-2.0,-2.0,-2.0,-2.0,-2.0,2.0,-2.0,2.0,2.0,-2.0,2.0,-2.0,-2.0,-2.0,-2.0,-2.0
2025-06-09 09:14:06.581,0.03431614,-0.04817729,0.014807611,-0.04065761,0.04687352,0.03287291,0.0,0.0,0.0,-0.0071497643,-0.14850737,0.25991547,-0.12850961,0.1516023,0.30434394,-0.13054204,0.04262168,-0.3210857,-0.046192527,-0.05251778,-0.31382722,-0.012964346,-0.042705804,-0.028935276,-0.07035973,-0.01600696,-0.013535481,-0.027693704,0.014002291,-0.038255077,-0.06802592,0.0031325438,-0.016063,0.063451946,-2.0,2.0,-2.0,2.0,2.0,-2.0,2.0,-2.0,-2.0,-2.0,-2.0,-2.0,-2.0,2.0,-2.0,2.0,2.0,-2.0,2.0,-2.0,-2.0,-2.0,-2.0,-2.0
2025-06-09 09:14:06.600,-0.045316633,-0.017030286,0.004171865,-0.0048684427,-0.012412869,-0.0038576664,0.0,0.0,0.0,-0.0071498845,-0.14634846,0.2682854,-0.12814862,0.15651396,0.30088565,-0.13781296,0.0345839,-0.31573552,-0.05726081,-0.041941233,-0.2943486,-0.00658497,0.04464412,-0.028267195,0.010677814,0.027681958,0.07136529,0.070064805,-0.07051722,-0.0724271,0.072967194,0.033349626,-0.027887786,-0.0643098,-2.0,2.0,-2.0,2.0,2.0,-2.0,2.0,-2.0,-2.0,-2.0,-2.0,-2.0,-2.0,2.0,-2.0,2.0,2.0,-2.0,2.0,-2.0,-2.0,-2.0,-2.0,-2.0
2025-06-09 09:14:06.624,-0.01916579,0.0075687426,0.045793183,0.020551337,0.017587852,-0.04458004,0.0,0.0,0.0,-0.0071500684,-0.15180086,0.26847538,-0.13021648,0.16009614,0.30067793,-0.12336654,0.034592204,-0.3208651,-0.049959622,-0.037890688,-0.3123724,-0.013252226,0.016344663,-0.017240046,-0.026558962,-0.04851587,0.016824137,-0.03811944,0.023743011,0.03139508,-0.058901228,0.01995018,-0.01830401,-0.046293534,-2.0,2.0,-2.0,2.0,2.0,-2.0,2.0,-2.0,-2.0,-2.0,-2.0,-2.0,-2.0,2.0,-2.0,2.0,2.0,-2.0,2.0,-2.0,-2.0,-2.0,-2.0,-2.0
2025-06-09 09:14:06.641,0.043737877,-0.009527284,0.016841946,0.0053521716,0.024594376,-0.025236271,0.0,0.0,0.0,-0.007150298,-0.1452485,0.2570696,-0.12672186,0.15475243,0.31068835,-0.12954827,0.04151091,-0.31586087,-0.058350075,-0.036437746,-0.30944866,-0.01520061,0.07439749,0.05262646,0.014824988,-0.04582897,0.011326365,0.06239007,-0.054874003,-0.056271486,-0.060199857,-0.0694735,-0.0015303184,0.047278572,-2.0,2.0,-2.0,2.0,2.0,-2.0,2.0,-2.0,-2.0,-2.0,-2.0,-2.0,-2.0,2.0,-2.0,2.0,2.0,-2.0,2.0,-2.0,-2.0,-2.0,-2.0,-2.0
2025-06-09 09:14:06.661,-0.03336917,-0.038313467,0.009009161,-0.06149626,0.023789672,0.048017863,0.0,0.0,0.0,-0.0071505555,-0.1432778,0.2633278,-0.12860088,0.15585494,0.3036214,-0.124255985,0.040394574,-0.31231514,-0.058338866,-0.03695921,-0.29671514,-0.009235849,0.0058750533,-0.06894193,-0.0073269126,-0.03565702,-0.074891336,-0.056262195,-0.026188364,-0.0701719,-0.013307635,0.022179674,0.0025574435,-0.04035073,-2.0,2.0,-2.0,2.0,2.0,-2.0,2.0,-2.0,-2.0,-2.0,-2.0,-2.0,-2.0,2.0,-2.0,2.0,2.0,-2.0,2.0,-2.0,-2.0,-2.0,-2.0,-2.0
2025-06-09 09:14:06.681,-0.043296367,-0.007356547,0.0374306,0.013233492,0.063063025,0.032655537,0.0,0.0,0.0,-0.007150825,-0.15561037,0.26236236,-0.12798673,0.14908957,0.29529113,-0.13863772,0.024623403,-0.31625453,-0.046660826,-0.046315875,-0.30638918,-0.01822345,-0.015066312,0.0009940695,0.06892862,-0.05140023,-0.011667522,-0.052823287,0.013230773,-0.041732695,0.029329874,-0.061999176,-0.023671696,-0.032562125,-2.0,2.0,-2.0,2.0,2.0,-2.0,2.0,-2.0,-2.0,-2.0,-2.0,-2.0,-2.0,2.0,-2.0,2.0,2.0,-2.0,2.0,-2.0,-2.0,-2.0,-2.0,-2.0
2025-06-09 09:14:06.701,0.00952304,-0.00020376059,0.019468471,-0.036673777,0.025574341,0.02711391,0.0,0.0,0.0,-0.0071510924,-0.14628412,0.2550401,-0.12674269,0.1590297,0.31071055,-0.12373303,0.039188873,-0.31298885,-0.055030923,-0.034486454,-0.29491773,-0.002610385,-0.059850886,0.05667795,-0.028224109,0.046805568,-0.02146967,-0.023842001,-0.041296825,0.0025161353,-0.03346705,0.00065488985,0.015342609,-0.025886782,-2.0,2.0,-2.0,2.0,2.0,-2.0,2.0,-2.0,-2.0,-2.0,-2.0,-2.0,-2.0,2.0,-2.0,2.0,2.0,-2.0,2.0,-2.0,-2.0,-2.0,-2.0,-2.0
2025-06-09 09:14:06.724,-0.019090835,0.04440759,0.024626562,0.026424274,0.0358411,-0.011347441,0.0,0.0,0.0,-0.0071513467,-0.15370362,0.26634884,-0.13790579,0.16330487,0.3096147,-0.13943473,0.023287736,-0.32637534,-0.06131981,-0.0462103,-0.3074708,-0.005246441,-0.006540902,0.0510871,-0.0018047409,0.042212326,-0.0342431,-0.01742763,-0.04537531,0.07303215,0.04998622,0.044378016,-0.009051465,-0.02962484,-2.0,2.0,-2.0,2.0,2.0,-2.0,2.0,-2.0,-2.0,-2.0,-2.0,-2.0,-2.0,2.0,-2.0,2.0,2.0,-2.0,2.0,-2.0,-2.0,-2.0,-2.0,-2.0
2025-06-09 09:14:06.741,0.033268876,-0.024754643,0.033087213,-0.049435433,-0.03306445,0.0026269972,0.0,0.0,0.0,-0.007151578,-0.15424433,0.26462036,-0.13430361,0.15214643,0.311491,-0.13813676,0.03443641,-0.32150772,-0.0563182,-0.045164626,-0.30608857,-0.008600371,0.059528604,0.05528467,-0.024292374,-0.03520328,-0.05545496,-0.05067318,-0.07175955,-0.014362515,0.0605873,-0.06180307,-0.036648132,0.021381548,-2.0,2.0,-2.0,2.0,2.0,-2.0,2.0,-2.0,-2.0,-2.0,-2.0,-2.0,-2.0,2.0,-2.0,2.0,2.0,-2.0,2.0,-2.0,-2.0,-2.0,-2.0,-2.0
2025-06-09 09:14:06.761,-0.033204604,-0.03539571,0.037060123,-0.06722862,0.054697994,-0.04133683,0.0,0.0,0.0,-0.0071517797,-0.14460622,0.25051448,-0.13888153,0.16364248,0.3126075,-0.13746609,0.04218352,-0.31021965,-0.06499528,-0.042475525,-0.30213845,-0.019431917,-0.06608809,-0.002418642,0.050727062,0.023070307,0.049766455,0.046136525,0.034304444,0.02392074,-0.005897043,0.06550211,-0.07307515,-0.0030661882,-2.0,2.0,-2.0,2.0,2.0,-2.0,2.0,-2.0,-2.0,-2.0,-2.0,-2.0,-2.0,2.0,-2.0,2.0,2.0,-2.0,2.0,-2.0,-2.0,-2.0,-2.0,-2.0
2025-06-09 09:14:06.781,0.009843134,0.03132465,0.014294227,-0.016845694,-0.02589974,-0.02716605,0.0,0.0,0.0,-0.0071519474,-0.13842902,0.2568091,-0.12788059,0.15206121,0.31349224,-0.1426096,0.031572387,-0.3183707,-0.049997784,-0.039532073,-0.29919368,-0.011302577,-0.042964045,0.054425824,-0.00077412353,-0.04255239,-0.038595244,-0.019415403,0.028564135,0.060790144,0.017909532,-0.010979717,-0.070437275,-0.010043987,-2.0,2.0,-2.0,2.0,2.0,-2.0,2.0,-2.0,-2.0,-2.0,-2.0,-2.0,-2.0,2.0,-2.0,2.0,2.0,-2.0,2.0,-2.0,-2.0,-2.0,-2.0,-2.0
2025-06-09 09:14:06.801,-0.038761787,-0.003068552,0.0495118,0.005017239,0.043139357,-0.020679561,0.0,0.0,0.0,-0.007152079,-0.15630126,0.26192796,-0.13491035,0.15676515,0.30854574,-0.1336666,0.038651347,-0.31660366,-0.06533323,-0.045465495,-0.30246618,-0.009144015,0.024328662,-0.06040737,0.06452997,-0.0063630384,-0.011702712,0.07260662,-0.030373262,0.04322945,0.038370587,-0.023145648,-0.035093613,-0.007571593,-2.0,2.0,-2.0,2.0,2.0,-2.0,2.0,-2.0,-2.0,-2.0,-2.0,-2.0,-2.0,2.0,-2.0,2.0,2.0,-2.0,2.0,-2.0,-2.0,-2.0,-2.0,-2.0
2025-06-09 09:14:06.824,-0.011931734,-0.04073576,-0.03992671,-0.061576877,0.055312075,0.008427416,0.0,0.0,0.0,-0.007152174,-0.15525633,0.26275313,-0.12943281,0.15736683,0.30186978,-0.13735647,0.04037085,-0.3234153,-0.04653607,-0.04128151,-0.30865917,-0.0028591736,-0.055119406,0.06821516,-0.069678836,-0.012283872,0.04886284,-0.057415854,0.032738302,-0.058622736,-0.0011433068,-0.069651864,-0.028503696,-0.05627432,-2.0,2.0,-2.0,2.0,2.0,-2.0,2.0,-2.0,-2.0,-2.0,-2.0,-2.0,-2.0,2.0,-2.0,2.0,2.0,-2.0,2.0,-2.0,-2.0,-2.0,-2.0,-2.0
2025-06-09 09:14:06.841,0.018066032,-0.013056478,0.031894077,-0.051496074,0.0082184365,0.034782678,0.0,0.0,0.0,-0.0071522347,-0.1559241,0.26763728,-0.14492266,0.14978121,0.3001303,-0.12790999,0.036162168,-0.31359464,-0.063458204,-0.034075446,-0.30825794,-0.019434769,-0.045745067,0.02193338,-0.04665753,-0.042511143,-0.0009905931,-0.064559214,0.016562216,-0.06789401,-0.05624365,-0.07426385,-0.015898291,0.055393234,-2.0,2.0,-2.0,2.0,2.0,-2.0,2.0,-2.0,-2.0,-2.0,-2.0,-2.0,-2.0,2.0,-2.0,2.0,2.0,-2.0,2.0,-2.0,-2.0,-2.0,-2.0,-2.0
2025-06-09 09:14:06.861,-0.013323904,-0.022514002,-0.041082934,-0.013799754,-0.010152223,-0.026962195,0.0,0.0,0.0,-0.0071522626,-0.14044994,0.25491676,-0.14417899,0.15003061,0.30537707,-0.13747661,0.034207717,-0.3288816,-0.049635373,-0.035252765,-0.30670068,-0.009887141,-0.0144068645,-0.051133208,0.017301824,-0.0018738369,-0.0455289,-0.067304455,-0.00974432,-0.06917287,0.028552808,0.07240598,-0.028702538,0.07278325,-2.0,2.0,-2.0,2.0,2.0,-2.0,2.0,-2.0,-2.0,-2.0,-2.0,-2.0,-2.0,2.0,-2.0,2.0,2.0,-2.0,2.0,-2.0,-2.0,-2.0,-2.0,-2.0
2025-06-09 09:14:06.881,0.022712665,0.037456427,0.029351378,-0.014510286,0.010294639,-0.021614656,0.0,0.0,0.0,-0.007152262,-0.14690427,0.26127347,-0.14315103,0.15488797,0.2995504,-0.12801872,0.025591558,-0.32534635,-0.052680355,-0.05075457,-0.30224627,-0.01858768,-0.059962314,-0.0070155617,0.07083192,-0.073015556,0.051955156,-0.011471241,0.027466966,0.010779046,-0.060482476,0.070915766,0.015697518,0.024686318,-2.0,2.0,-2.0,2.0,2.0,-2.0,2.0,-2.0,-2.0,-2.0,-2.0,-2.0,-2.0,2.0,-2.0,2.0,2.0,-2.0,2.0,-2.0,-2.0,-2.0,-2.0,-2.0
2025-06-09 09:14:06.901,0.017800577,0.019040473,0.0067553585,0.01008617,0.007143253,0.007964127,0.0,0.0,0.0,-0.007152238,-0.15435036,0.2632447,-0.14446802,0.15789185,0.31326905,-0.13286346,0.027372325,-0.3147718,-0.05999729,-0.04210711,-0.30465552,-0.005983617,0.028929604,-0.0716765,0.0055221114,0.024361247,-0.054608826,0.039159942,0.06626509,-0.008097428,0.044450417,-0.04900699,0.051918134,0.059730083,-2.0,2.0,-2.0,2.0,2.0,-2.0,2.0,-2.0,-2.0,-2.0,-2.0,-2.0,-2.0,2.0,-2.0,2.0,2.0,-2.0,2.0,-2.0,-2.0,-2.0,-2.0,-2.0
2025-06-09 09:14:06.924,0.02906991,-0.03378831,-6.9070855e-05,-0.0045465427,-0.03633297,0.0128470585,0.0,0.0,0.0,-0.007152194,-0.1535045,0.25973818,-0.14390542,0.16537648,0.29514882,-0.13854061,0.026801154,-0.3281746,-0.05467724,-0.05054792,-0.3111514,-0.004401502,-0.028707108,0.067264386,-0.008865566,0.00575467,-0.06606945,0.06195407,0.067851335,0.031378064,0.07143681,0.004789275,0.021673653,-0.04443952,-2.0,2.0,-2.0,2.0,2.0,-2.0,2.0,-2.0,-2.0,-2.0,-2.0,-2.0,-2.0,2.0,-2.0,2.0,2.0,-2.0,2.0,-2.0,-2.0,-2.0,-2.0,-2.0
2025-06-09 09:14:06.941,0.015283899,0.041573588,-0.014877023,-0.050674193,-0.024264365,-0.0048361123,0.0,0.0,0.0,-0.0071521364,-0.15353486,0.26104075,-0.13070191,0.15053564,0.29833832,-0.13724884,0.030467331,-0.3144651,-0.047447555,-0.047576223,-0.30820107,-0.008336585,0.027517024,0.036898192,-0.029824657,0.027142445,-0.006758326,-0.06284144,0.059320867,0.026179627,0.025745146,-0.031665277,-0.049687438,0.044137865,-2.0,2.0,-2.0,2.0,2.0,-2.0,2.0,-2.0,-2.0,-2.0,-2.0,-2.0,-2.0,2.0,-2.0,2.0,2.0,-2.0,2.0,-2.0,-2.0,-2.0,-2.0,-2.0
2025-06-09 09:14:06.962,-0.014143802,-0.03664944,-0.03328567,-0.050387345,0.05029742,0.03077455,0.0,0.0,0.0,-0.007152069,-0.15597886,0.26186767,-0.14225218,0.15780304,0.29583973,-0.13151534,0.03148802,-0.32776874,-0.058556814,-0.036154218,-0.31035545,-0.008979267,0.04322248,-0.01010015,0.03719042,-0.0036557303,-0.031238971,-0.035233222,-0.066935286,0.036871407,-0.005408096,-0.06712864,-0.016040472,0.004258449,-2.0,2.0,-2.0,2.0,2.0,-2.0,2.0,-2.0,-2.0,-2.0,-2.0,-2.0,-2.0,2.0,-2.0,2.0,2.0,-2.0,2.0,-2.0,-2.0,-2.0,-2.0,-2.0
2025-06-09 09:14:06.982,-0.030987896,-0.04276895,0.004669698,0.012356756,0.043564785,-0.017100107,0.0,0.0,0.0,-0.0071519963,-0.14155224,0.25423527,-0.132201,0.14923751,0.30172667,-0.14078684,0.035151258,-0.3235355,-0.0662174,-0.04585321,-0.3012419,-0.008475785,0.059307676,0.006695186,-0.033820257,-0.06675263,0.043772295,-0.00018469531,0.01948228,0.03055471,0.03916135,0.013530424,-0.050329898,0.06090382,-2.0,2.0,-2.0,2.0,2.0,-2.0,2.0,-2.0,-2.0,-2.0,-2.0,-2.0,-2.0,2.0,-2.0,2.0,2.0,-2.0,2.0,-2.0,-2.0,-2.0,-2.0,-2.0
2025-06-09 09:14:07.002,-0.0381146,0.039529853,-0.0059820646,0.014224968,0.016821243,-0.023897264,0.0,0.0,0.0,-0.0071519227,-0.15369326,0.2571103,-0.13958268,0.15358487,0.3103713,-0.13057816,0.02896466,-0.31669948,-0.058572873,-0.03896877,-0.31266683,-0.0127749955,0.024215953,0.002307522,0.021781623,-0.0056790384,-0.029037356,0.026057756,0.028927486,-0.017105468,0.022774268,-0.07489365,0.02592804,0.05740433,-2.0,2.0,-2.0,2.0,2.0,-2.0,2.0,-2.0,-2.0,-2.0,-2.0,-2.0,-2.0,2.0,-2.0,2.0,2.0,-2.0,2.0,-2.0,-2.0,-2.0,-2.0,-2.0
2025-06-09 09:14:07.024,-0.049280144,-0.029823508,-0.008664064,-0.062623456,-0.0007391423,-0.039211016,0.0,0.0,0.0,-0.0071518514,-0.13958617,0.26917693,-0.13345806,0.15443519,0.295867,-0.13743123,0.029451862,-0.31439015,-0.053260367,-0.041380722,-0.30977628,-0.015482669,0.029107217,0.00301007,-0.049043655,-0.07177091,-0.047814026,0.0072402186,0.05040898,0.0130116595,-0.0054031177,-0.01194821,0.03485908,-0.0015936049,-2.0,2.0,-2.0,2.0,2.0,-2.0,2.0,-2.0,-2.0,-2.0,-2.0,-2.0,-2.0,2.0,-2.0,2.0,2.0,-2.0,2.0,-2.0,-2.0,-2.0,-2.0,-2.0
2025-06-09 09:14:07.042,0.024259334,0.040261775,-0.024671895,-0.00033294765,-0.0016116265,-0.015333135,0.0,0.0,0.0,-0.0071517853,-0.14695959,0.25404456,-0.14247513,0.14939535,0.30748928,-0.12536812,0.0362891,-0.31411076,-0.04699433,-0.041448165,-0.30378416,-0.014710345,0.037817676,-0.03422382,-0.043717377,-0.052367542,-0.067531824,0.034783542,-0.015801502,0.057185683,0.0155481715,-0.069399096,-0.0020388835,0.010167623,-2.0,2.0,-2.0,2.0,2.0,-2.0,2.0,-2.0,-2.0,-2.0,-2.0,-2.0,-2.0,2.0,-2.0,2.0,2.0,-2.0,2.0,-2.0,-2.0,-2.0,-2.0,-2.0
2025-06-09 09:14:07.062,-0.03852762,0.02219338,-0.035244428,-0.060068537,0.001578165,-0.015100574,0.0,0.0,0.0,-0.007151726,-0.14953005,0.2551333,-0.14000359,0.16132517,0.30961114,-0.12720178,0.04244718,-0.3246952,-0.065479755,-0.047250506,-0.30281553,-0.013412179,0.037783086,0.0056952033,0.013329212,0.023907637,-0.04228044,-0.04891911,-0.008626029,0.034569457,-0.028795995,0.017011682,-0.044875044,0.0368541,-2.0,2.0,-2.0,2.0,2.0,-2.0,2.0,-2.0,-2.0,-2.0,-2.0,-2.0,-2.0,2.0,-2.0,2.0,2.0,-2.0,2.0,-2.0,-2.0,-2.0,-2.0,-2.0
2025-06-09 09:14:07.082,-0.0042177183,-0.030884521,-0.011527791,0.021369971,0.04672849,0.04400917,0.0,0.0,0.0,-0.007151676,-0.14861096,0.26134232,-0.13981049,0.16016434,0.30142576,-0.13351673,0.04150314,-0.32095122,-0.062288433,-0.040229164,-0.30541068,-0.006875728,-0.061937314,0.018389147,0.06149598,-0.073290005,0.027805457,0.026837243,0.06047481,-0.018463945,0.002163179,0.06653039,0.01958259,-0.070918955,-2.0,2.0,-2.0,2.0,2.0,-2.0,2.0,-2.0,-2.0,-2.0,-2.0,-2.0,-2.0,2.0,-2.0,2.0,2.0,-2.0,2.0,-2.0,-2.0,-2.0,-2.0,-2.0
2025-06-09 09:14:07.102,-0.02799853,-0.0014850261,-0.012754635,-0.014374306,-0.0009184489,0.018989328,0.0,0.0,0.0,-0.007151635,-0.15308872,0.2517016,-0.13960703,0.15231593,0.30049533,-0.12522544,0.02938377,-0.31296974,-0.061425634,-0.036723353,-0.30576923,-0.014857798,0.049509402,0.059898205,-0.054648448,-0.034548443,0.040580247,0.0055870404,-0.003479294,0.036069337,-0.014946189,0.042253703,-0.038553044,0.031121524,-2.0,2.0,-2.0,2.0,2.0,-2.0,2.0,-2.0,-2.0,-2.0,-2.0,-2.0,-2.0,2.0,-2.0,2.0,2.0,-2.0,2.0,-2.0,-2.0,-2.0,-2.0,-2.0
2025-06-09 09:14:07.124,-0.0029287739,0.00020214006,0.019356163,-0.048515577,-0.0011281134,0.041496202,0.0,0.0,0.0,-0.0071516037,-0.14962862,0.26425967,-0.13732761,0.14931378,0.3083418,-0.13134365,0.032164935,-0.31139392,-0.047703262,-0.04810029,-0.31284818,-0.01787769,-0.040434565,-0.027577443,0.05264623,0.07108702,-0.01372713,0.063152015,-0.037208255,-0.06642152,-0.045775123,0.019494576,-0.005890632,0.062443625,-2.0,2.0,-2.0,2.0,2.0,-2.0,2.0,-2.0,-2.0,-2.0,-2.0,-2.0,-2.0,2.0,-2.0,2.0,2.0,-2.0,2.0,-2.0,-2.0,-2.0,-2.0,-2.0
2025-06-09 09:14:07.142,-0.03523405,0.04883923,0.001719881,0.022955308,0.048424948,-0.0011338897,0.0,0.0,0.0,-0.007151582,-0.14391556,0.26462772,-0.14160953,0.15293063,0.30982402,-0.1261555,0.031396475,-0.3188687,-0.06417405,-0.04967445,-0.31366685,-0.0033567352,-0.04339185,0.05469211,-0.06893408,0.048325103,0.06892885,-0.0382535,-0.018229242,-0.07392127,0.058412142,-0.04192583,-0.06621306,0.032610938,-2.0,2.0,-2.0,2.0,2.0,-2.0,2.0,-2.0,-2.0,-2.0,-2.0,-2.0,-2.0,2.0,-2.0,2.0,2.0,-2.0,2.0,-2.0,-2.0,-2.0,-2.0,-2.0
2025-06-09 09:14:07.163,-0.044356167,-0.047241293,0.017347917,-0.0015451841,-0.035999063,0.010127235,0.0,0.0,0.0,-0.0071515692,-0.14937566,0.2632054,-0.13828915,0.16537233,0.29635406,-0.123217404,0.035508156,-0.3238109,-0.061463084,-0.052218396,-0.29605892,-0.015478494,-0.051454034,-0.02692294,-0.045898754,0.06503807,0.030309292,-0.015484771,-0.06604651,0.049002167,-0.052206356,0.02342943,-0.004311426,0.051612183,-2.0,2.0,-2.0,2.0,2.0,-2.0,2.0,-2.0,-2.0,-2.0,-2.0,-2.0,-2.0,2.0,-2.0,2.0,2.0,-2.0,2.0,-2.0,-2.0,-2.0,-2.0,-2.0
2025-06-09 09:14:07.182,-0.02675971,0.019608565,0.004901278,-0.045024246,0.035998557,0.027352817,0.0,0.0,0.0,-0.007151565,-0.15317911,0.25534648,-0.13849048,0.15437746,0.30592617,-0.13119832,0.039875027,-0.30996364,-0.059910074,-0.044322845,-0.31086096,-0.018940121,-0.034523416,-0.030518983,-0.065879315,0.0017351131,-0.022882778,0.037847806,-0.05755751,-0.029548759,0.058737792,0.037674572,-0.058447186,-0.07124601,-2.0,2.0,-2.0,2.0,2.0,-2.0,2.0,-2.0,-2.0,-2.0,-2.0,-2.0,-2.0,2.0,-2.0,2.0,2.0,-2.0,2.0,-2.0,-2.0,-2.0,-2.0,-2.0
2025-06-09 09:14:07.203,0.036456328,0.030183438,-0.044895478,-0.00209133,-0.024246357,0.008866536,0.0,0.0,0.0,-0.007151568,-0.15583014,0.26097918,-0.14371748,0.16457899,0.2954831,-0.13182516,0.029976826,-0.32307118,-0.06543052,-0.03388681,-0.30984953,-0.012828003,-0.050895106,-0.029153602,0.06792491,-0.0368991,-0.04164073,0.021983676,0.04180244,-0.0051435204,0.027978377,-0.024784146,-0.032670975,0.03484333,-2.0,2.0,-2.0,2.0,2.0,-2.0,2.0,-2.0,-2.0,-2.0,-2.0,-2.0,-2.0,2.0,-2.0,2.0,2.0,-2.0,2.0,-2.0,-2.0,-2.0,-2.0,-2.0
2025-06-09 09:14:07.224,-0.024692463,0.004338476,-0.048276596,-0.006394269,0.034177974,0.029230226,0.0,0.0,0.0,-0.007151576,-0.14414749,0.25410867,-0.1372904,0.14635056,0.30710867,-0.13103595,0.04093183,-0.32076705,-0.046475887,-0.040215183,-0.2993068,-0.014910952,-0.01054196,-0.054629587,0.0595864,0.053078923,-0.002605322,-0.01981057,0.04280158,-0.046942774,-0.027864968,0.00303806,0.07070789,-0.024578663,-2.0,2.0,-2.0,2.0,2.0,-2.0,2.0,-2.0,-2.0,-2.0,-2.0,-2.0,-2.0,2.0,-2.0,2.0,2.0,-2.0,2.0,-2.0,-2.0,-2.0,-2.0,-2.0
2025-06-09 09:14:07.243,-0.03735029,0.0069540134,-0.00076545373,0.022369599,-0.025001885,-0.017679956,0.0,0.0,0.0,-0.0071515893,-0.15032955,0.25651002,-0.13942383,0.14608109,0.2986091,-0.12483031,0.033085078,-0.32138273,-0.05331571,-0.033964608,-0.29705626,-0.0093259,-0.061857063,0.06761628,0.02709222,-0.010415161,-0.061900232,0.01325312,-0.06328416,-0.039987113,-0.053556234,0.0053382665,-0.020623688,-0.0698832,-2.0,2.0,-2.0,2.0,2.0,-2.0,2.0,-2.0,-2.0,-2.0,-2.0,-2.0,-2.0,2.0,-2.0,2.0,2.0,-2.0,2.0,-2.0,-2.0,-2.0,-2.0,-2.0
2025-06-09 09:14:07.264,-0.00033526332,-0.049134918,0.0027631556,-0.04493519,-0.025981357,0.025518682,0.0,0.0,0.0,-0.007151606,-0.13964203,0.26378956,-0.1426384,0.15036358,0.30989942,-0.1329538,0.031800367,-0.31679034,-0.057394013,-0.034144726,-0.31347808,-0.0075165676,0.004624464,0.026392683,-0.063382685,0.050978787,0.047985848,0.06706716,-0.05797476,0.0098432135,-0.058656283,-0.00834495,-0.05223128,-0.041035667,-2.0,2.0,-2.0,2.0,2.0,-2.0,2.0,-2.0,-2.0,-2.0,-2.0,-2.0,-2.0,2.0,-2.0,2.0,2.0,-2.0,2.0,-2.0,-2.0,-2.0,-2.0,-2.0
2025-06-09 09:14:07.283,0.0065444172,-0.037785284,-0.014913757,0.016807571,-0.032550234,-0.03003059,0.0,0.0,0.0,-0.007151624,-0.13978277,0.25796482,-0.13367365,0.15994543,0.3067465,-0.13486482,0.0270501,-0.32071805,-0.048897497,-0.041987706,-0.31182802,-0.01124025,-0.024969133,-0.019758051,-0.070738785,-0.07014726,0.06866337,0.0062311008,0.009867986,-0.015880408,0.00704404,0.026958745,0.058538858,0.019011665,-2.0,2.0,-2.0,2.0,2.0,-2.0,2.0,-2.0,-2.0,-2.0,-2.0,-2.0,-2.0,2.0,-2.0,2.0,2.0,-2.0,2.0,-2.0,-2.0,-2.0,-2.0,-2.0
2025-06-09 09:14:07.305,-0.0007627881,-0.004830882,0.049486596,0.0036456871,0.044334006,-0.029095888,0.0,0.0,0.0,-0.0071516437,-0.14636612,0.25065976,-0.13273114,0.16473144,0.3106523,-0.13019511,0.037452362,-0.3181401,-0.061588496,-0.047177322,-0.30089322,-0.011328227,0.020024436,-0.06758136,-0.059747268,-0.06404641,-0.026273225,0.06313975,0.02847234,2.1997119e-05,0.017025575,-0.018392837,0.073188774,-0.04576711,-2.0,2.0,-2.0,2.0,2.0,-2.0,2.0,-2.0,-2.0,-2.0,-2.0,-2.0,-2.0,2.0,-2.0,2.0,2.0,-2.0,2.0,-2.0,-2.0,-2.0,-2.0,-2.0
2025-06-09 09:14:07.324,0.026989086,0.035833757,0.030052805,0.024610339,0.023453638,-0.04899934,0.0,0.0,0.0,-0.0071516633,-0.14925772,0.26933008,-0.12863943,0.15198296,0.29989928,-0.14039347,0.03938738,-0.31471178,-0.055654366,-0.036638178,-0.30897963,-0.0120186005,0.064576365,0.047725644,-0.014048152,0.07066828,-0.054213893,0.027642556,0.013842604,0.048805755,-0.011071699,0.040637393,0.06720908,-0.0047811433,-2.0,2.0,-2.0,2.0,2.0,-2.0,2.0,-2.0,-2.0,-2.0,-2.0,-2.0,-2.0,2.0,-2.0,2.0,2.0,-2.0,2.0,-2.0,-2.0,-2.0,-2.0,-2.0
2025-06-09 09:14:07.343,-0.03406063,0.005286428,-0.019362396,-0.0026798185,0.028099386,0.04020227,0.0,0.0,0.0,-0.0071516815,-0.15220156,0.26949525,-0.13606958,0.15203297,0.30445492,-0.13184196,0.03196104,-0.31481865,-0.05625252,-0.045223158,-0.30469838,-0.01996155,0.048618786,0.032144897,0.039251227,-0.031198474,-0.056087058,0.05452951,-0.070696495,-0.055723377,-0.01814563,-0.058867812,-0.015567053,-0.045559555,-2.0,2.0,-2.0,2.0,2.0,-2.0,2.0,-2.0,-2.0,-2.0,-2.0,-2.0,-2.0,2.0,-2.0,2.0,2.0,-2.0,2.0,-2.0,-2.0,-2.0,-2.0,-2.0
2025-06-09 09:14:07.363,-0.0429841,0.048734765,-0.021911463,-0.040468164,0.047716614,0.0053410395,0.0,0.0,0.0,-0.0071516987,-0.15228923,0.25798786,-0.12910347,0.15031072,0.30363604,-0.13993302,0.03462528,-0.327687,-0.053539842,-0.037379973,-0.29766494,-0.01577653,1.8381239e-05,-0.06408746,-0.074041806,-0.02973485,0.02171992,-0.029623628,0.07262443,0.013887237,-0.017494285,-0.055381455,0.03853161,0.026678788,-2.0,2.0,-2.0,2.0,2.0,-2.0,2.0,-2.0,-2.0,-2.0,-2.0,-2.0,-2.0,2.0,-2.0,2.0,2.0,-2.0,2.0,-2.0,-2.0,-2.0,-2.0,-2.0
2025-06-09 09:14:07.383,-0.0033984808,-0.0031491597,-0.029606506,-0.054636985,-0.015210289,0.04347718,0.0,0.0,0.0,-0.0071517136,-0.14609873,0.25485575,-0.14019307,0.15756212,0.29766014,-0.13645214,0.03826378,-0.3274489,-0.04849938,-0.040257238,-0.30679792,-0.013977214,-0.069069676,-0.062922776,-0.025943264,0.068683125,0.0022811894,-0.022857258,-0.06049326,-0.014293711,0.035487007,0.053791605,0.028005905,-0.05799576,-2.0,2.0,-2.0,2.0,2.0,-2.0,2.0,-2.0,-2.0,-2.0,-2.0,-2.0,-2.0,2.0,-2.0,2.0,2.0,-2.0,2.0,-2.0,-2.0,-2.0,-2.0,-2.0
2025-06-09 09:14:07.407,0.045990117,-0.040904764,0.043195214,0.01824493,0.04697246,-0.027640596,0.0,0.0,0.0,-0.007151726,-0.13819326,0.26614943,-0.12977405,0.1510411,0.29813144,-0.1271962,0.029872343,-0.31218404,-0.06561243,-0.04076256,-0.30853486,-0.011227867,0.05579481,-0.0646537,0.06628367,0.003484945,-0.018936224,-0.0053940336,0.06994382,-0.0519866,-0.029193636,0.037173226,0.002347768,0.041594014,-2.0,2.0,-2.0,2.0,2.0,-2.0,2.0,-2.0,-2.0,-2.0,-2.0,-2.0,-2.0,2.0,-2.0,2.0,2.0,-2.0,2.0,-2.0,-2.0,-2.0,-2.0,-2.0
2025-06-09 09:14:07.459,-0.015652524,0.042169143,-0.046833288,0.017184414,-0.026699707,0.004468861,0.0,0.0,0.0,-0.0071517364,-0.14907074,0.25850207,-0.12843604,0.15820913,0.2987835,-0.13577823,0.034728333,-0.3105984,-0.06363479,-0.04398496,-0.30533195,-0.002435167,0.073573306,0.008678232,-0.029089753,-0.07127164,0.004598729,-0.024996256,0.014466458,-0.033214424,0.056267276,-0.011716914,-0.055777375,-0.066878125,-2.0,2.0,-2.0,2.0,2.0,-2.0,2.0,-2.0,-2.0,-2.0,-2.0,-2.0,-2.0,2.0,-2.0,2.0,2.0,-2.0,2.0,-2.0,-2.0,-2.0,-2.0,-2.0
2025-06-09 09:14:07.480,0.03132569,0.016052736,0.03692216,0.02963114,0.04624,0.011737508,0.0,0.0,0.0,-0.0071517443,-0.14383721,0.25101003,-0.1270373,0.16563772,0.29860488,-0.13490614,0.03606058,-0.31306633,-0.05915333,-0.038541865,-0.31195292,-0.012217431,-0.039975263,0.020117465,0.025990777,-0.050463825,0.03074336,0.02223537,0.041908942,0.028089171,0.018418983,0.050146103,0.060698397,-0.060109463,-2.0,2.0,-2.0,2.0,2.0,-2.0,2.0,-2.0,-2.0,-2.0,-2.0,-2.0,-2.0,2.0,-2.0,2.0,2.0,-2.0,2.0,-2.0,-2.0,-2.0,-2.0,-2.0
2025-06-09 09:14:07.499,-0.017847376,0.0014812223,0.0051740594,0.026806088,0.036373265,0.00824021,0.0,0.0,0.0,-0.0071517495,-0.14591576,0.26564118,-0.13150938,0.14688824,0.3109184,-0.13482599,0.03222873,-0.3224699,-0.053649228,-0.051664174,-0.29823342,-0.0039763344,-0.07368589,0.05547865,0.008129459,-0.07188701,-0.033379223,0.015788525,-0.007615457,-0.028433166,-0.031461928,0.030532042,0.025642326,0.0048602037,-2.0,2.0,-2.0,2.0,2.0,-2.0,2.0,-2.0,-2.0,-2.0,-2.0,-2.0,-2.0,2.0,-2.0,2.0,2.0,-2.0,2.0,-2.0,-2.0,-2.0,-2.0,-2.0
2025-06-09 09:14:07.521,0.041871287,-0.019676974,-0.046768494,-0.03330085,0.059113108,-0.029261181,0.0,0.0,0.0,-0.0071517527,-0.14058258,0.26214772,-0.13595317,0.16064778,0.29793805,-0.14097705,0.0376092,-0.32861292,-0.054814856,-0.051564097,-0.29847208,-0.018698672,-0.06228891,-0.053513203,-0.039393734,-0.031877328,0.016378395,-0.06335112,-0.020012282,-0.04665436,-0.06904503,0.037276316,0.026927043,-0.05341654,-2.0,2.0,-2.0,2.0,2.0,-2.0,2.0,-2.0,-2.0,-2.0,-2.0,-2.0,-2.0,2.0,-2.0,2.0,2.0,-2.0,2.0,-2.0,-2.0,-2.0,-2.0,-2.0
2025-06-09 09:14:07.542,-0.027772829,-0.015537358,0.0012878218,-0.047411896,-0.004681436,-0.035339363,0.0,0.0,0.0,-0.0071517536,-0.13983601,0.26057056,-0.12765053,0.16600356,0.313086,-0.13173811,0.024483843,-0.31865194,-0.05884507,-0.049360614,-0.3007212,-0.0110792415,0.03248846,0.022369646,-0.04742302,0.044992432,-0.020186834,-0.058885336,-0.019908078,-0.030436968,0.00025525328,-0.01754333,0.05683672,0.049055118,-2.0,2.0,-2.0,2.0,2.0,-2.0,2.0,-2.0,-2.0,-2.0,-2.0,-2.0,-2.0,2.0,-2.0,2.0,2.0,-2.0,2.0,-2.0,-2.0,-2.0,-2.0,-2.0
2025-06-09 09:14:07.559,-0.00979086,0.034110606,0.0024291053,0.011794927,-0.00092228653,-0.04555061,0.0,0.0,0.0,-0.0071517527,-0.13978234,0.25194553,-0.14543417,0.1642811,0.30253398,-0.12741439,0.029098978,-0.32346684,-0.062319797,-0.039978858,-0.31078708,-0.018300401,-0.060836934,0.050255764,-0.0019772218,0.071312346,0.041593216,0.016683504,0.046947584,0.03272055,-0.051760666,-0.010171264,0.041103393,-0.059753217,-2.0,2.0,-2.0,2.0,2.0,-2.0,2.0,-2.0,-2.0,-2.0,-2.0,-2.0,-2.0,2.0,-2.0,2.0,2.0,-2.0,2.0,-2.0,-2.0,-2.0,-2.0,-2.0
2025-06-09 09:14:07.579,0.0013864946,0.0043984144,0.019610254,-0.008271323,-0.031760473,-0.043069884,0.0,0.0,0.0,-0.007151751,-0.14866398,0.25230625,-0.14486259,0.16112211,0.30715796,-0.123151235,0.027265536,-0.30948383,-0.04956038,-0.03688663,-0.30844796,-0.013194679,-0.036168925,-0.062683165,0.017785195,0.0101040155,-0.0023611775,0.04311092,-0.00654496,-0.049150053,0.07018919,0.010614719,-0.007460513,0.028196411,-2.0,2.0,-2.0,2.0,2.0,-2.0,2.0,-2.0,-2.0,-2.0,-2.0,-2.0,-2.0,2.0,-2.0,2.0,2.0,-2.0,2.0,-2.0,-2.0,-2.0,-2.0,-2.0
2025-06-09 09:14:07.599,-0.03913955,-0.048971336,0.04816124,-0.061767854,-0.034385324,0.019224172,0.0,0.0,0.0,-0.007151747,-0.1402768,0.2657741,-0.13090938,0.15981723,0.29821286,-0.12708236,0.03102865,-0.30992168,-0.059006814,-0.052641306,-0.30474594,-0.019669589,0.04618983,-0.03735005,-0.051029958,-0.03258203,0.06591514,0.043462947,-0.02115788,-0.036501102,0.065897666,0.048088484,-0.07418566,-0.07056374,-2.0,2.0,-2.0,2.0,2.0,-2.0,2.0,-2.0,-2.0,-2.0,-2.0,-2.0,-2.0,2.0,-2.0,2.0,2.0,-2.0,2.0,-2.0,-2.0,-2.0,-2.0,-2.0
2025-06-09 09:14:07.619,-0.0023964061,0.029612876,-0.029818516,0.013090271,0.013560018,-0.033170607,0.0,0.0,0.0,-0.0071517434,-0.14451613,0.26678374,-0.131873,0.15422383,0.2983314,-0.13830428,0.036358103,-0.31074265,-0.05980321,-0.046505723,-0.2942673,-0.01740314,0.025573367,-0.015881756,0.011882064,-0.015208107,0.048229206,0.07364285,-0.049232263,0.029753963,-0.06729363,-0.054118816,0.006980756,0.048725363,-2.0,2.0,-2.0,2.0,2.0,-2.0,2.0,-2.0,-2.0,-2.0,-2.0,-2.0,-2.0,2.0,-2.0,2.0,2.0,-2.0,2.0,-2.0,-2.0,-2.0,-2.0,-2.0
2025-06-09 09:14:07.641,0.022321198,-0.047640424,-0.038108237,0.016744694,0.04599892,-0.016131556,0.0,0.0,0.0,-0.0071517387,-0.13902238,0.26722327,-0.1323507,0.15804784,0.3030418,-0.1409597,0.027548227,-0.32773426,-0.050173834,-0.035183106,-0.29843897,-0.006155864,-0.024999214,-0.021944994,-0.06800132,0.028793307,-0.0018471923,-0.016809015,-0.06877499,-0.012951204,-0.0028050945,0.025388177,0.023002623,0.05953917,-2.0,2.0,-2.0,2.0,2.0,-2.0,2.0,-2.0,-2.0,-2.0,-2.0,-2.0,-2.0,2.0,-2.0,2.0,2.0,-2.0,2.0,-2.0,-2.0,-2.0,-2.0,-2.0
2025-06-09 09:14:07.660,-0.020463504,-0.029464692,0.046119068,0.00041968958,-0.02541244,0.005140882,0.0,0.0,0.0,-0.0071517336,-0.1403433,0.2551819,-0.14526707,0.14778388,0.30497715,-0.14003132,0.02834933,-0.32305837,-0.062254697,-0.0483226,-0.3085347,-0.019903822,0.003973034,0.027817851,0.04315572,0.05928015,-0.07422476,-0.03854932,0.053129267,0.004075269,0.009390822,-0.07127428,0.030514555,-0.021453861,-2.0,2.0,-2.0,2.0,2.0,-2.0,2.0,-2.0,-2.0,-2.0,-2.0,-2.0,-2.0,2.0,-2.0,2.0,2.0,-2.0,2.0,-2.0,-2.0,-2.0,-2.0,-2.0
2025-06-09 09:14:07.679,-0.0151028335,-0.027515937,0.045036487,0.008201709,0.033350557,0.005780232,0.0,0.0,0.0,-0.007151729,-0.14336869,0.25635305,-0.12956615,0.16079609,0.29943198,-0.13044828,0.040493425,-0.32877073,-0.048998207,-0.042009532,-0.3077482,-0.007728205,-0.016592855,0.048205983,0.016770039,0.020867132,0.034098487,0.00036656432,0.043019604,-0.03071671,-0.030703368,0.022580896,0.026761439,-0.021068476,-2.0,2.0,-2.0,2.0,2.0,-2.0,2.0,-2.0,-2.0,-2.0,-2.0,-2.0,-2.0,2.0,-2.0,2.0,2.0,-2.0,2.0,-2.0,-2.0,-2.0,-2.0,-2.0
2025-06-09 09:14:07.700,-0.030081758,-0.002567856,-0.020538382,-0.008973105,0.04258805,0.01651216,0.0,0.0,0.0,-0.007151724,-0.14255276,0.25914696,-0.12648137,0.15238689,0.30618292,-0.14085132,0.039228696,-0.32446367,-0.05971273,-0.035014518,-0.29949018,-0.020780506,0.047928043,0.023272118,0.012958181,0.026410604,-0.0066992254,0.024605762,0.042663667,0.07243418,0.03381704,-0.0030796404,-0.071030885,0.06219519,-2.0,2.0,-2.0,2.0,2.0,-2.0,2.0,-2.0,-2.0,-2.0,-2.0,-2.0,-2.0,2.0,-2.0,2.0,2.0,-2.0,2.0,-2.0,-2.0,-2.0,-2.0,-2.0
2025-06-09 09:14:07.724,0.03798783,0.030871114,-0.027227223,0.015412453,0.019157024,0.044185966,0.0,0.0,0.0,-0.0071517196,-0.1577453,0.25583166,-0.12689184,0.15801115,0.30760112,-0.14035699,0.036141984,-0.31760815,-0.061374806,-0.0405414,-0.3124586,-0.020800779,0.052307222,0.028415794,0.065246604,0.03335005,-0.06623941,0.02905882,-0.063243605,-0.020138802,0.03249988,-0.06889998,0.025881246,0.007868815,-2.0,2.0,-2.0,2.0,2.0,-2.0,2.0,-2.0,-2.0,-2.0,-2.0,-2.0,-2.0,2.0,-2.0,2.0,2.0,-2.0,2.0,-2.0,-2.0,-2.0,-2.0,-2.0
2025-06-09 09:14:07.741,-0.033104494,0.031722154,0.04918338,-0.06373178,0.03904918,0.003129677,0.0,0.0,0.0,-0.007151716,-0.14371397,0.25357658,-0.13645393,0.16543482,0.3048644,-0.123260364,0.023178091,-0.3142894,-0.04652282,-0.05042578,-0.30522907,-0.018601373,0.07365771,-0.009087246,-0.058218535,0.0045299926,0.022293337,-0.063435294,-0.05241204,0.011561042,-0.07282352,-0.059253834,0.04948083,0.018360063,-2.0,2.0,-2.0,2.0,2.0,-2.0,2.0,-2.0,-2.0,-2.0,-2.0,-2.0,-2.0,2.0,-2.0,2.0,2.0,-2.0,2.0,-2.0,-2.0,-2.0,-2.0,-2.0
2025-06-09 09:14:07.760,-0.029935753,0.01785258,-0.018073367,0.010902721,0.017373845,-0.011165143,0.0,0.0,0.0,-0.0071517127,-0.14239621,0.26416105,-0.13148594,0.15631516,0.31223077,-0.13621803,0.027356751,-0.32018328,-0.056043126,-0.05139828,-0.31084988,-0.013677919,-0.064716734,-0.06375796,0.023652116,0.04476339,-0.03274328,-0.05364031,0.016044442,-0.012846687,0.06463222,-0.06282661,-0.06711798,-0.023413464,-2.0,2.0,-2.0,2.0,2.0,-2.0,2.0,-2.0,-2.0,-2.0,-2.0,-2.0,-2.0,2.0,-2.0,2.0,2.0,-2.0,2.0,-2.0,-2.0,-2.0,-2.0,-2.0
2025-06-09 09:14:07.780,-0.013363371,0.0042881113,-0.005036041,-0.063161545,-0.0007551313,-0.026390053,0.0,0.0,0.0,-0.00715171,-0.14686854,0.25178924,-0.13793568,0.14870387,0.2996951,-0.13764472,0.04184719,-0.31896293,-0.052970514,-0.041028257,-0.2942332,-0.015005156,0.003516918,0.012599492,0.057608265,-0.061513625,0.005362764,0.01958442,0.018461263,-0.048188154,0.058357656,-0.058821443,0.0059296926,-0.035254624,-2.0,2.0,-2.0,2.0,2.0,-2.0,2.0,-2.0,-2.0,-2.0,-2.0,-2.0,-2.0,2.0,-2.0,2.0,2.0,-2.0,2.0,-2.0,-2.0,-2.0,-2.0,-2.0
2025-06-09 09:14:07.800,0.028595505,0.025206335,0.04829582,0.0063639074,-0.006320407,0.00633408,0.0,0.0,0.0,-0.0071517075,-0.14500281,0.26525047,-0.14370033,0.15024771,0.2968958,-0.1409571,0.033004716,-0.31017324,-0.04920286,-0.042560544,-0.2977301,-0.014153796,0.07390476,0.070171446,-0.0026274768,0.04922669,0.010141026,0.02823718,-0.04100575,0.016177714,0.059997786,-0.045185063,0.012139315,0.040368706,-2.0,2.0,-2.0,2.0,2.0,-2.0,2.0,-2.0,-2.0,-2.0,-2.0,-2.0,-2.0,2.0,-2.0,2.0,2.0,-2.0,2.0,-2.0,-2.0,-2.0,-2.0,-2.0
2025-06-09 09:14:07.824,-0.039261505,-0.024501462,-0.042417828,0.014770256,0.051613364,-0.016144253,0.0,0.0,0.0,-0.007151706,-0.15263195,0.26080886,-0.12741944,0.14735164,0.30985045,-0.1332534,0.040670536,-0.323434,-0.05483978,-0.04372748,-0.302527,-0.0074715354,0.050210826,0.052936256,-0.04447725,-0.029257137,-0.03349097,-0.054452267,-0.0583611,-0.0025108,0.042277023,0.044732172,-0.0073517174,0.04168637,-2.0,2.0,-2.0,2.0,2.0,-2.0,2.0,-2.0,-2.0,-2.0,-2.0,-2.0,-2.0,2.0,-2.0,2.0,2.0,-2.0,2.0,-2.0,-2.0,-2.0,-2.0,-2.0
2025-06-09 09:14:07.841,0.0072840475,-0.008696066,-0.0027253476,-0.016411198,0.01837446,-0.011603135,0.0,0.0,0.0,-0.007151705,-0.15538378,0.2539551,-0.14614742,0.1557941,0.29948056,-0.12296396,0.039339192,-0.31826147,-0.056958515,-0.036688033,-0.30509284,-0.005108897,-0.036514685,-0.057600457,0.00988986,0.027502615,-0.07337077,0.0019753387,-0.031630393,0.03124704,0.05074566,-0.023647787,-0.014254094,-0.027025072,-2.0,2.0,-2.0,2.0,2.0,-2.0,2.0,-2.0,-2.0,-2.0,-2.0,-2.0,-2.0,2.0,-2.0,2.0,2.0,-2.0,2.0,-2.0,-2.0,-2.0,-2.0,-2.0
2025-06-09 09:14:07.860,-0.01804935,-0.013872287,-0.009833741,-0.011650557,0.026201641,0.022046795,0.0,0.0,0.0,-0.0071517047,-0.13978012,0.25264382,-0.13260345,0.14649956,0.30259284,-0.13310084,0.027757846,-0.3108205,-0.05263621,-0.034156308,-0.3036181,-0.0028258516,0.015598836,-0.044725068,-0.0021527798,0.05825678,-0.030539457,0.031770214,-0.003181975,0.015913237,-0.016454604,0.049153928,0.052642047,-0.05864458,-2.0,2.0,-2.0,2.0,2.0,-2.0,2.0,-2.0,-2.0,-2.0,-2.0,-2.0,-2.0,2.0,-2.0,2.0,2.0,-2.0,2.0,-2.0,-2.0,-2.0,-2.0,-2.0
2025-06-09 09:14:07.880,-0.020924808,-0.019530773,0.031673048,0.020486208,-0.020531403,-0.030817622,0.0,0.0,0.0,-0.0071517047,-0.14907399,0.25957108,-0.14054658,0.14802295,0.3019485,-0.1318684,0.029190043,-0.31324223,-0.05936865,-0.03421579,-0.2966339,-0.013647169,-0.06876111,0.039688103,0.06877701,-0.042376883,0.074677035,0.03733305,-0.016450543,-0.022753354,0.06125576,-0.030485699,0.042578496,0.020789132,-2.0,2.0,-2.0,2.0,2.0,-2.0,2.0,-2.0,-2.0,-2.0,-2.0,-2.0,-2.0,2.0,-2.0,2.0,2.0,-2.0,2.0,-2.0,-2.0,-2.0,-2.0,-2.0
2025-06-09 09:14:07.900,-0.004228899,-0.004668958,0.024639193,0.0036261107,0.037801195,-0.035877444,0.0,0.0,0.0,-0.007151705,-0.15209208,0.2551565,-0.12764929,0.15051477,0.29762548,-0.13548832,0.03394575,-0.3155853,-0.05416009,-0.05203497,-0.30870605,-0.019214159,0.067465216,-0.0052350294,0.020594178,-0.015075647,-0.041110642,0.04351361,0.034587387,-0.07456671,0.034997698,0.015011341,0.038404122,0.032088976,-2.0,2.0,-2.0,2.0,2.0,-2.0,2.0,-2.0,-2.0,-2.0,-2.0,-2.0,-2.0,2.0,-2.0,2.0,2.0,-2.0,2.0,-2.0,-2.0,-2.0,-2.0,-2.0
2025-06-09 09:14:07.924,0.012942402,0.022196138,0.015883952,0.010395313,-0.031807993,-0.0442755,0.0,0.0,0.0,-0.007151706,-0.14337493,0.2579611,-0.14518405,0.15941189,0.3071913,-0.12786666,0.036811557,-0.31347594,-0.06336317,-0.034255195,-0.30948022,-0.012001602,-0.043543093,0.03863291,0.018639473,-0.015036577,0.062649414,-0.06496928,0.03525477,-0.032996707,-0.012411533,0.026093557,0.035511456,0.07280984,-2.0,2.0,-2.0,2.0,2.0,-2.0,2.0,-2.0,-2.0,-2.0,-2.0,-2.0,-2.0,2.0,-2.0,2.0,2.0,-2.0,2.0,-2.0,-2.0,-2.0,-2.0,-2.0
2025-06-09 09:14:07.940,0.04839847,-0.040545173,0.012178016,-0.004363699,0.045877744,0.019472633,0.0,0.0,0.0,-0.007151707,-0.1428438,0.2627102,-0.13407499,0.15726942,0.30955294,-0.14068794,0.02483651,-0.31433657,-0.05591035,-0.045723997,-0.2943468,-0.004452719,-0.06513186,-0.0105104195,-0.0673332,0.0031111757,0.010703654,0.07461901,0.05479031,0.002159195,0.055313002,-0.054861404,0.061226655,-0.033766415,-2.0,2.0,-2.0,2.0,2.0,-2.0,2.0,-2.0,-2.0,-2.0,-2.0,-2.0,-2.0,2.0,-2.0,2.0,2.0,-2.0,2.0,-2.0,-2.0,-2.0,-2.0,-2.0
2025-06-09 09:14:07.961,0.04204255,0.011029865,-0.032824032,-0.04344331,0.049549427,0.039300874,0.0,0.0,0.0,-0.007151708,-0.1503577,0.26989704,-0.1394071,0.15062883,0.30738968,-0.12594515,0.02933596,-0.32489136,-0.053017728,-0.033529002,-0.29721648,-0.0124727255,0.04020848,-0.040839296,-0.0069373185,0.02010955,0.03286722,0.026628403,0.023735145,0.047634322,-0.03921481,-0.039912548,-0.041957915,0.0497796,-2.0,2.0,-2.0,2.0,2.0,-2.0,2.0,-2.0,-2.0,-2.0,-2.0,-2.0,-2.0,2.0,-2.0,2.0,2.0,-2.0,2.0,-2.0,-2.0,-2.0,-2.0,-2.0
2025-06-09 09:14:07.980,0.032946296,0.041092668,0.04978549,-0.048766006,0.055773705,0.049223892,0.0,0.0,0.0,-0.007151709,-0.14657299,0.25103828,-0.13149273,0.15054321,0.30179417,-0.13604233,0.024291178,-0.3121272,-0.052401934,-0.037068285,-0.3032276,-0.010607848,-0.009056643,0.006117034,-0.00639498,0.07319441,-0.06820921,0.05544894,0.03149666,-0.037559733,0.007818528,0.057383753,0.034568697,0.042430677,-2.0,2.0,-2.0,2.0,2.0,-2.0,2.0,-2.0,-2.0,-2.0,-2.0,-2.0,-2.0,2.0,-2.0,2.0,2.0,-2.0,2.0,-2.0,-2.0,-2.0,-2.0,-2.0
2025-06-09 09:14:08.001,0.047188293,-0.04581702,0.018695736,0.021232208,0.035465594,-0.036273737,0.0,0.0,0.0,-0.0071517103,-0.13990034,0.25258103,-0.14551581,0.16273762,0.311638,-0.12377768,0.037312575,-0.31511104,-0.06038071,-0.038961325,-0.31374148,-0.013658253,0.0567448,0.004906922,0.026249671,-0.023975594,-0.02545552,0.03852598,-0.051814314,0.034984834,-0.016496219,0.035432782,0.026407147,-0.025705887,-2.0,2.0,-2.0,2.0,2.0,-2.0,2.0,-2.0,-2.0,-2.0,-2.0,-2.0,-2.0,2.0,-2.0,2.0,2.0,-2.0,2.0,-2.0,-2.0,-2.0,-2.0,-2.0
2025-06-09 09:14:08.024,0.010198734,0.019822532,0.025065765,-0.019949334,0.020797532,0.03290916,0.0,0.0,0.0,-0.0071517113,-0.13945614,0.25344753,-0.13690789,0.16488418,0.30508357,-0.14207801,0.031118229,-0.31367305,-0.054108795,-0.039375726,-0.30096325,-0.009985974,0.025728086,-0.052548233,-0.051107127,0.036363997,0.037089147,0.018408952,-0.06618875,0.069385216,0.029602436,0.018536706,-0.029193593,-0.03993044,-2.0,2.0,-2.0,2.0,2.0,-2.0,2.0,-2.0,-2.0,-2.0,-2.0,-2.0,-2.0,2.0,-2.0,2.0,2.0,-2.0,2.0,-2.0,-2.0,-2.0,-2.0,-2.0
2025-06-09 09:14:08.041,-0.017554754,-0.017196964,0.006817195,-0.024059854,0.020908305,0.042004332,0.0,0.0,0.0,-0.0071517127,-0.14704274,0.26372814,-0.13738966,0.16048916,0.30370164,-0.1366497,0.026738167,-0.31250033,-0.050971027,-0.03686346,-0.29801217,-0.015451764,0.035596095,0.006766764,0.03460071,0.011769194,0.045186836,-0.026396222,-0.01802948,-0.05535843,-0.010994896,-0.050323274,0.03499097,0.04071431,-2.0,2.0,-2.0,2.0,2.0,-2.0,2.0,-2.0,-2.0,-2.0,-2.0,-2.0,-2.0,2.0,-2.0,2.0,2.0,-2.0,2.0,-2.0,-2.0,-2.0,-2.0,-2.0
2025-06-09 09:14:08.061,-0.009467525,0.013418324,-0.027071383,0.015327952,-0.03324259,-0.048547078,0.0,0.0,0.0,-0.0071517136,-0.1409169,0.26668635,-0.12946266,0.1470047,0.31287932,-0.12805621,0.029713752,-0.31644624,-0.053484194,-0.04837607,-0.3020226,-0.003391419,0.0732084,-0.011141921,-0.006818097,0.039408207,-0.001427284,0.03752151,0.06568365,-0.016507652,0.03414787,-0.06839686,-0.055986423,0.06331868,-2.0,2.0,-2.0,2.0,2.0,-2.0,2.0,-2.0,-2.0,-2.0,-2.0,-2.0,-2.0,2.0,-2.0,2.0,2.0,-2.0,2.0,-2.0,-2.0,-2.0,-2.0,-2.0
2025-06-09 09:14:08.081,0.021791443,-0.0060475897,-0.0053574997,0.0038365198,0.020979406,-0.019766437,0.0,0.0,0.0,-0.0071517145,-0.15346773,0.2642245,-0.13428383,0.14668444,0.31372297,-0.13500519,0.025501182,-0.3235993,-0.05865917,-0.036693823,-0.3135022,-0.015406488,-0.01655951,-0.035624508,0.02954911,-0.05917016,-0.041200243,0.032426294,0.05471074,0.0070737246,-0.01845934,-0.05524656,-0.063698485,0.007297492,-2.0,2.0,-2.0,2.0,2.0,-2.0,2.0,-2.0,-2.0,-2.0,-2.0,-2.0,-2.0,2.0,-2.0,2.0,2.0,-2.0,2.0,-2.0,-2.0,-2.0,-2.0,-2.0
2025-06-09 09:14:08.101,-0.010018514,0.04871674,0.04933623,-0.028892154,0.03611512,-0.04316285,0.0,0.0,0.0,-0.0071517155,-0.13946266,0.26024845,-0.12891895,0.14767519,0.308316,-0.12396279,0.041613795,-0.3199943,-0.053868618,-0.05102797,-0.30165386,-0.005749129,0.06556585,0.059863124,0.05897944,-0.054960623,0.033958673,0.014284936,-0.0085901525,0.020279009,0.063336916,0.010166751,0.029953163,0.005794584,-2.0,2.0,-2.0,2.0,2.0,-2.0,2.0,-2.0,-2.0,-2.0,-2.0,-2.0,-2.0,2.0,-2.0,2.0,2.0,-2.0,2.0,-2.0,-2.0,-2.0,-2.0,-2.0
2025-06-09 09:14:08.125,0.041027844,0.015406739,-0.016629111,0.00641505,-0.0017999507,-0.025660373,0.0,0.0,0.0,-0.007151716,-0.1536765,0.26234707,-0.13787812,0.16255607,0.29633826,-0.12790495,0.042039115,-0.3261936,-0.046389427,-0.035079237,-0.29789805,-0.016846752,0.010348005,0.06960119,-0.05352843,0.05403977,0.00835412,0.053306725,-0.003874381,-0.04606684,-0.072381474,-0.06887178,0.02914527,0.066666625,-2.0,2.0,-2.0,2.0,2.0,-2.0,2.0,-2.0,-2.0,-2.0,-2.0,-2.0,-2.0,2.0,-2.0,2.0,2.0,-2.0,2.0,-2.0,-2.0,-2.0,-2.0,-2.0
2025-06-09 09:14:08.141,0.039717592,0.012580738,0.037087813,0.012528382,-0.033344917,0.030336255,0.0,0.0,0.0,-0.0071517164,-0.14784777,0.25797504,-0.14480752,0.15550724,0.30808347,-0.1296707,0.034632497,-0.30935505,-0.05452349,-0.05077362,-0.29718813,-0.0058552707,0.058676075,0.059184484,0.047197655,0.0013430341,0.060014013,-0.025503267,-0.020142555,0.032354385,-0.01464506,0.022903044,-0.032524694,-0.037080172,-2.0,2.0,-2.0,2.0,2.0,-2.0,2.0,-2.0,-2.0,-2.0,-2.0,-2.0,-2.0,2.0,-2.0,2.0,2.0,-2.0,2.0,-2.0,-2.0,-2.0,-2.0,-2.0
2025-06-09 09:14:08.161,0.032538008,0.021827146,0.024365995,0.027348261,0.036920313,0.0073898537,0.0,0.0,0.0,-0.007151717,-0.14959925,0.2621674,-0.14279087,0.15072286,0.29923683,-0.14216352,0.035334542,-0.31592134,-0.04644553,-0.036671106,-0.29664087,-0.007170738,3.755628e-06,0.060994413,0.011831459,-0.043320816,0.043627676,0.062307104,-0.054244988,0.042636797,0.061015908,0.021737855,0.04478777,0.05164629,-2.0,2.0,-2.0,2.0,2.0,-2.0,2.0,-2.0,-2.0,-2.0,-2.0,-2.0,-2.0,2.0,-2.0,2.0,2.0,-2.0,2.0,-2.0,-2.0,-2.0,-2.0,-2.0
2025-06-09 09:14:08.181,0.02924987,0.03306286,-0.006388947,-0.024345782,0.04973931,-0.013397993,0.0,0.0,0.0,-0.007151717,-0.15473062,0.2671457,-0.13297172,0.15857968,0.31333625,-0.12987024,0.026058549,-0.32846594,-0.051001098,-0.049855977,-0.2981976,-0.021009302,0.018936334,0.027634356,0.057545908,0.059560925,0.013967614,0.026410231,-0.073766276,0.043030113,0.03643554,-0.018176747,-0.0012773508,0.0076777353,-2.0,2.0,-2.0,2.0,2.0,-2.0,2.0,-2.0,-2.0,-2.0,-2.0,-2.0,-2.0,2.0,-2.0,2.0,2.0,-2.0,2.0,-2.0,-2.0,-2.0,-2.0,-2.0
2025-06-09 09:14:08.201,0.042781215,-0.014636078,0.03253053,0.02097003,0.009721318,0.029246338,0.0,0.0,0.0,-0.007151717,-0.15428707,0.2536296,-0.1361384,0.16174704,0.30356017,-0.13333851,0.035759117,-0.3263728,-0.055140957,-0.044552255,-0.30565333,-0.0027329044,-0.07295714,-0.06444019,-0.071308866,-0.0320898,-0.013997558,0.025386626,-0.023854848,-0.027399205,0.06432509,0.0546056,-0.028130319,-0.02119857,-2.0,2.0,-2.0,2.0,2.0,-2.0,2.0,-2.0,-2.0,-2.0,-2.0,-2.0,-2.0,2.0,-2.0,2.0,2.0,-2.0,2.0,-2.0,-2.0,-2.0,-2.0,-2.0
2025-06-09 09:14:08.225,-0.023166422,-0.03585078,0.0064583044,0.022962892,-0.003229426,-0.012949829,0.0,0.0,0.0,-0.007151717,-0.14715195,0.26195213,-0.14545378,0.14941686,0.29418325,-0.14031887,0.026319738,-0.3148154,-0.059767883,-0.0462856,-0.29536784,-0.009997397,-0.027474776,0.008792657,0.030002315,0.07013658,0.068350874,0.006451766,-0.019575123,0.017080404,-0.06257641,0.062228553,0.07228893,0.0025032258,-2.0,2.0,-2.0,2.0,2.0,-2.0,2.0,-2.0,-2.0,-2.0,-2.0,-2.0,-2.0,2.0,-2.0,2.0,2.0,-2.0,2.0,-2.0,-2.0,-2.0,-2.0,-2.0
2025-06-09 09:14:08.241,-0.012645763,0.029699553,-0.011003034,-0.033289645,0.049521513,-0.031209182,0.0,0.0,0.0,-0.007151717,-0.15000468,0.25987664,-0.14342095,0.15883085,0.30294284,-0.14208287,0.03773844,-0.3166767,-0.050400876,-0.048247,-0.30307314,-0.018508729,-0.06359847,0.06070438,0.0716575,-0.063253745,-0.0492581,0.015269521,-0.025096169,-0.06262268,-0.0076913023,-0.030473718,-0.0014075888,0.035296068,-2.0,2.0,-2.0,2.0,2.0,-2.0,2.0,-2.0,-2.0,-2.0,-2.0,-2.0,-2.0,2.0,-2.0,2.0,2.0,-2.0,2.0,-2.0,-2.0,-2.0,-2.0,-2.0
2025-06-09 09:14:08.261,0.004249077,-0.045099583,0.032129053,-0.019537466,-0.027003726,-0.02995745,0.0,0.0,0.0,-0.007151717,-0.14099546,0.2562046,-0.13144064,0.15792106,0.29814938,-0.12780972,0.03295296,-0.32621604,-0.05363475,-0.034924682,-0.30358288,-0.016297853,0.011627007,0.04787443,0.043417502,-0.022418946,0.0073029287,-0.013767121,-0.016121838,0.021016303,-0.017423898,0.053162243,0.07284729,-0.016154835,-2.0,2.0,-2.0,2.0,2.0,-2.0,2.0,-2.0,-2.0,-2.0,-2.0,-2.0,-2.0,2.0,-2.0,2.0,2.0,-2.0,2.0,-2.0,-2.0,-2.0,-2.0,-2.0
2025-06-09 09:14:08.281,-0.0472728,0.026885733,-0.034930717,0.010758179,-0.019759309,0.038186662,0.0,0.0,0.0,-0.0071517164,-0.15546784,0.26310357,-0.1342422,0.16074772,0.2988131,-0.12366238,0.030908896,-0.32384118,-0.05566119,-0.040695064,-0.29921684,-0.00642386,0.020567888,-0.027469683,-0.035586745,0.050670814,0.03521582,0.015434645,-0.054833014,0.028738465,0.020186976,-0.037443902,-0.032706685,-0.030344957,-2.0,2.0,-2.0,2.0,2.0,-2.0,2.0,-2.0,-2.0,-2.0,-2.0,-2.0,-2.0,2.0,-2.0,2.0,2.0,-2.0,2.0,-2.0,-2.0,-2.0,-2.0,-2.0
2025-06-09 09:14:08.302,0.035612665,-0.017581118,-0.044078864,-0.04443404,0.056182753,-0.049454033,0.0,0.0,0.0,-0.0071517164,-0.15152736,0.26519924,-0.13465995,0.16188723,0.29890543,-0.1385298,0.0302843,-0.31731093,-0.05238229,-0.036613826,-0.31303638,-0.016829694,-0.033688083,-0.034986336,-0.06909008,0.014169082,0.054839954,0.0007131789,-0.04416059,-0.06493134,-0.022589972,-0.021398477,0.07194018,0.038362402,-2.0,2.0,-2.0,2.0,2.0,-2.0,2.0,-2.0,-2.0,-2.0,-2.0,-2.0,-2.0,2.0,-2.0,2.0,2.0,-2.0,2.0,-2.0,-2.0,-2.0,-2.0,-2.0
2025-06-09 09:14:08.325,-0.028108737,0.0026526363,0.024508446,-0.022435622,0.009730618,0.009003146,0.0,0.0,0.0,-0.007151716,-0.14327885,0.26007676,-0.12953176,0.16447803,0.2976072,-0.13904046,0.034502298,-0.31156847,-0.05979352,-0.04758675,-0.30240536,-0.020066386,0.0039326395,-0.017322997,-0.06016099,0.06458709,-0.0736124,0.018003399,0.006624066,0.0011189772,0.03800643,-0.037669245,0.02033237,-0.0120430775,-2.0,2.0,-2.0,2.0,2.0,-2.0,2.0,-2.0,-2.0,-2.0,-2.0,-2.0,-2.0,2.0,-2.0,2.0,2.0,-2.0,2.0,-2.0,-2.0,-2.0,-2.0,-2.0
2025-06-09 09:14:08.342,0.035964973,0.031962257,0.013313867,-0.013704337,-0.02920091,-0.014765063,0.0,0.0,0.0,-0.007151716,-0.13968341,0.25125906,-0.1380623,0.14956467,0.3002239,-0.14025083,0.04248142,-0.3156573,-0.060341805,-0.040198386,-0.3063765,-0.017891191,0.011413287,0.0071634925,-0.014269774,0.027174773,0.07256608,-0.013048178,-0.03370574,-0.035467714,0.013265041,0.058045696,-0.06984438,0.0025545885,-2.0,2.0,-2.0,2.0,2.0,-2.0,2.0,-2.0,-2.0,-2.0,-2.0,-2.0,-2.0,2.0,-2.0,2.0,2.0,-2.0,2.0,-2.0,-2.0,-2.0,-2.0,-2.0
2025-06-09 09:14:08.362,0.034564957,0.043083914,-0.03373648,-0.038265362,0.059923794,-0.03683571,0.0,0.0,0.0,-0.0071517155,-0.15196577,0.26773563,-0.14251317,0.15692082,0.29720047,-0.12386837,0.02832644,-0.32387137,-0.0484457,-0.047355365,-0.3036095,-0.013584799,0.043303438,0.030564796,-0.015211677,-0.04841348,-0.06339555,-0.00673103,0.03918518,-0.030048119,0.062843606,-0.02152533,-0.013776109,0.06298798,-2.0,2.0,-2.0,2.0,2.0,-2.0,2.0,-2.0,-2.0,-2.0,-2.0,-2.0,-2.0,2.0,-2.0,2.0,2.0,-2.0,2.0,-2.0,-2.0,-2.0,-2.0,-2.0
2025-06-09 09:14:08.382,-0.046808362,0.01869982,0.039953027,-0.016463954,0.02846911,-0.036775574,0.0,0.0,0.0,-0.0071517155,-0.1429884,0.2578657,-0.14490628,0.15392397,0.30039057,-0.13420741,0.023087477,-0.32147124,-0.0567757,-0.039250873,-0.3082715,-0.015860235,-0.055883728,0.032548964,0.017804805,0.011786409,0.0033804383,-0.0029642733,-0.012769798,0.057255186,0.0265965,0.0018122883,0.06748546,0.018474445,-2.0,2.0,-2.0,2.0,2.0,-2.0,2.0,-2.0,-2.0,-2.0,-2.0,-2.0,-2.0,2.0,-2.0,2.0,2.0,-2.0,2.0,-2.0,-2.0,-2.0,-2.0,-2.0
2025-06-09 09:14:08.402,0.03157859,0.04839746,0.006304182,-0.018665036,0.046053592,0.045492087,0.0,0.0,0.0,-0.007151715,-0.14038841,0.26359096,-0.14029638,0.16271614,0.29607037,-0.1304171,0.03586404,-0.32106066,-0.04825863,-0.053001076,-0.3041975,-0.011940363,0.04816814,0.021299412,0.032242835,-0.035237793,-0.033989213,0.017516978,0.042710032,0.026476227,0.07262531,-0.06368114,0.016602177,-0.029128943,-2.0,2.0,-2.0,2.0,2.0,-2.0,2.0,-2.0,-2.0,-2.0,-2.0,-2.0,-2.0,2.0,-2.0,2.0,2.0,-2.0,2.0,-2.0,-2.0,-2.0,-2.0,-2.0
2025-06-09 09:14:08.425,0.016078623,0.035941996,0.014244692,0.018044101,-0.009398412,-0.013598921,0.0,0.0,0.0,-0.007151715,-0.15580265,0.26622784,-0.13069738,0.15354048,0.31210175,-0.13110077,0.030324718,-0.312333,-0.065606214,-0.03585313,-0.29756132,-0.0016148606,-0.0685526,0.038473852,-0.06589394,-0.059262402,0.06690649,-0.039340872,0.051942457,-0.073668785,-0.01906087,0.01031454,-0.06458123,-0.06562238,-2.0,2.0,-2.0,2.0,2.0,-2.0,2.0,-2.0,-2.0,-2.0,-2.0,-2.0,-2.0,2.0,-2.0,2.0,2.0,-2.0,2.0,-2.0,-2.0,-2.0,-2.0,-2.0
2025-06-09 09:14:08.442,-0.021975966,0.017889429,0.048168313,-0.004150917,0.023250215,-0.047036573,0.0,0.0,0.0,-0.0071517145,-0.14545251,0.26188412,-0.13312544,0.15874301,0.30524987,-0.1326067,0.035372116,-0.31643447,-0.06461303,-0.05235606,-0.29845807,-0.015722215,-0.07025077,-0.013232395,-0.009086747,-0.003135352,0.058877897,0.054968875,0.019548183,-0.060470123,-0.004656207,-0.049206827,0.017025443,0.01663516,-2.0,2.0,-2.0,2.0,2.0,-2.0,2.0,-2.0,-2.0,-2.0,-2.0,-2.0,-2.0,2.0,-2.0,2.0,2.0,-2.0,2.0,-2.0,-2.0,-2.0,-2.0,-2.0
2025-06-09 09:14:08.462,0.0031409406,0.02987539,-0.036995802,-0.019853959,0.039695278,-0.047235973,0.0,0.0,0.0,-0.0071517145,-0.15618777,0.2512651,-0.14003527,0.14982165,0.30178726,-0.1405618,0.029185668,-0.31966838,-0.05329594,-0.03807386,-0.30786395,-0.0016430971,-0.04707879,-0.0549593,-0.047692236,0.011138301,0.039681055,-0.050269846,-0.074892335,-0.07483057,0.0170491,-0.0060001253,-0.011453387,-0.013999202,-2.0,2.0,-2.0,2.0,2.0,-2.0,2.0,-2.0,-2.0,-2.0,-2.0,-2.0,-2.0,2.0,-2.0,2.0,2.0,-2.0,2.0,-2.0,-2.0,-2.0,-2.0,-2.0
2025-06-09 09:14:08.482,-0.0069272597,-0.04828531,0.009646408,-0.009268453,3.7828246e-05,-0.012924065,0.0,0.0,0.0,-0.007151714,-0.14597587,0.2615503,-0.14561863,0.15541196,0.31303233,-0.12737356,0.03782893,-0.3271265,-0.060750782,-0.042940542,-0.30835,-0.010670423,0.061422404,-0.033116087,-0.02073791,0.046736784,-0.0046077357,0.024201382,0.0543826,-0.00087896147,0.008349271,-0.067392595,-0.027366778,0.04893853,-2.0,2.0,-2.0,2.0,2.0,-2.0,2.0,-2.0,-2.0,-2.0,-2.0,-2.0,-2.0,2.0,-2.0,2.0,2.0,-2.0,2.0,-2.0,-2.0,-2.0,-2.0,-2.0
2025-06-09 09:14:08.502,0.045701828,-0.044941593,0.036417313,0.011673092,-0.011491682,0.0033473477,0.0,0.0,0.0,-0.007151714,-0.14974238,0.26039994,-0.12699816,0.15231122,0.29934058,-0.12995435,0.027656563,-0.32346332,-0.058378715,-0.04323454,-0.31070733,-0.008034323,0.016512852,0.028215723,0.06606619,0.06572695,0.02930075,-0.047687564,-0.066658966,-0.044504277,0.008746014,-0.032945514,-0.03430456,-0.046350326,-2.0,2.0,-2.0,2.0,2.0,-2.0,2.0,-2.0,-2.0,-2.0,-2.0,-2.0,-2.0,2.0,-2.0,2.0,2.0,-2.0,2.0,-2.0,-2.0,-2.0,-2.0,-2.0
2025-06-09 09:14:08.525,-0.006593221,-0.025667043,0.028535755,0.015035383,0.024964482,-0.01796856,0.0,0.0,0.0,-0.007151714,-0.15044181,0.2599767,-0.12979406,0.16473903,0.2948165,-0.14262642,0.027080942,-0.31302756,-0.05391116,-0.04985068,-0.29456994,-0.0057418114,0.019835062,0.023051545,-0.023280066,-0.01010601,0.024545677,0.026179558,0.020180093,0.007934656,-0.041116152,-0.027151568,0.028255848,0.038581498,-2.0,2.0,-2.0,2.0,2.0,-2.0,2.0,-2.0,-2.0,-2.0,-2.0,-2.0,-2.0,2.0,-2.0,2.0,2.0,-2.0,2.0,-2.0,-2.0,-2.0,-2.0,-2.0
2025-06-09 09:14:08.542,0.0014832626,0.033538286,-0.020088578,-0.0351119,-0.02014629,-0.045851525,0.0,0.0,0.0,-0.007151714,-0.14603426,0.2679675,-0.13388625,0.15102784,0.29806226,-0.13103154,0.0411587,-0.31247577,-0.057995245,-0.05251814,-0.2991821,-0.006695376,0.028048832,-0.05459636,-0.035905477,6.847077e-05,-0.0002762804,0.02357147,-0.059482165,-0.03821624,-0.063395165,0.007994672,-0.026841987,-0.0017755973,-2.0,2.0,-2.0,2.0,2.0,-2.0,2.0,-2.0,-2.0,-2.0,-2.0,-2.0,-2.0,2.0,-2.0,2.0,2.0,-2.0,2.0,-2.0,-2.0,-2.0,-2.0,-2.0
2025-06-09 09:14:08.563,0.048650794,-0.038568627,-0.028192459,-0.02970551,0.027938448,0.025725199,0.0,0.0,0.0,-0.007151714,-0.1503766,0.2652681,-0.12970619,0.14695378,0.2985094,-0.14127289,0.031777907,-0.31248328,-0.046534214,-0.03411685,-0.31073728,-0.0033683467,-0.0007760977,-0.06717656,0.040253684,-0.03584657,0.009785755,-0.022610122,0.010815028,-0.04293206,0.05442768,-0.033302817,-0.019674486,-0.02549626,-2.0,2.0,-2.0,2.0,2.0,-2.0,2.0,-2.0,-2.0,-2.0,-2.0,-2.0,-2.0,2.0,-2.0,2.0,2.0,-2.0,2.0,-2.0,-2.0,-2.0,-2.0,-2.0
2025-06-09 09:14:08.582,-0.036715288,-0.03081167,0.010095174,-0.003534333,0.061527845,0.038404282,0.0,0.0,0.0,-0.007151714,-0.13981083,0.2544414,-0.14065397,0.15851533,0.29917037,-0.13390402,0.026174296,-0.32153198,-0.04974305,-0.05011928,-0.30780846,-0.0029684643,-0.050848056,-0.060715098,0.007062424,0.070569575,-0.052959327,0.0009413029,-0.0010318136,-0.039209712,0.015129158,-0.048986167,-0.021088097,-0.0019771296,-2.0,2.0,-2.0,2.0,2.0,-2.0,2.0,-2.0,-2.0,-2.0,-2.0,-2.0,-2.0,2.0,-2.0,2.0,2.0,-2.0,2.0,-2.0,-2.0,-2.0,-2.0,-2.0
2025-06-09 09:14:08.603,0.026498158,-0.038109925,0.049525496,0.012916595,0.04323478,-0.041373927,0.0,0.0,0.0,-0.007151714,-0.15224117,0.26921737,-0.13423215,0.15873826,0.3113924,-0.12926528,0.03509814,-0.3179809,-0.058453698,-0.041227184,-0.31397483,-0.011467861,0.014059943,-0.014117591,-0.06953747,-0.016387641,-0.06941123,-0.06696027,0.013097383,0.031056864,0.058231845,0.048422813,-0.021865278,0.05367589,-2.0,2.0,-2.0,2.0,2.0,-2.0,2.0,-2.0,-2.0,-2.0,-2.0,-2.0,-2.0,2.0,-2.0,2.0,2.0,-2.0,2.0,-2.0,-2.0,-2.0,-2.0,-2.0
2025-06-09 09:14:08.625,0.0011752159,-0.0059123375,-0.029389985,-0.057200536,0.0320404,0.02726708,0.0,0.0,0.0,-0.007151714,-0.15226857,0.26212782,-0.12820004,0.16511384,0.29703292,-0.13006377,0.040689647,-0.3157826,-0.04772519,-0.053065415,-0.3119796,-0.015626295,0.05123346,-0.051838476,0.034232046,-0.051316,0.048604798,0.017958881,0.004829763,0.07069232,-0.065664776,-0.062485725,0.053724747,-0.023406146,-2.0,2.0,-2.0,2.0,2.0,-2.0,2.0,-2.0,-2.0,-2.0,-2.0,-2.0,-2.0,2.0,-2.0,2.0,2.0,-2.0,2.0,-2.0,-2.0,-2.0,-2.0,-2.0
