openverse-orca/OrcaGym/log/simulation_log_20250721_142527.csv
timestamp,sim_time,physics_step,control_step,imu_angle_roll,imu_angle_pitch,imu_angle_yaw,imu_angular_velocity_roll,imu_angular_velocity_pitch,imu_angular_velocity_yaw,imu_acc_x,imu_acc_y,imu_acc_z,fl_joint1_pos,fl_joint1_vel,fl_joint1_torque,fl_joint2_pos,fl_joint2_vel,fl_joint2_torque,fl_joint3_pos,fl_joint3_vel,fl_joint3_torque,fr_joint1_pos,fr_joint1_vel,fr_joint1_torque,fr_joint2_pos,fr_joint2_vel,fr_joint2_torque,fr_joint3_pos,fr_joint3_vel,fr_joint3_torque,hl_joint1_pos,hl_joint1_vel,hl_joint1_torque,hl_joint2_pos,hl_joint2_vel,hl_joint2_torque,hl_joint3_pos,hl_joint3_vel,hl_joint3_torque,hr_joint1_pos,hr_joint1_vel,hr_joint1_torque,hr_joint2_pos,hr_joint2_vel,hr_joint2_torque,hr_joint3_pos,hr_joint3_vel,hr_joint3_torque,fl_force_x,fl_force_y,fl_force_z,fr_force_x,fr_force_y,fr_force_z,hl_force_x,hl_force_y,hl_force_z,hr_force_x,hr_force_y,hr_force_z,fl_hip_action,fl_thigh_action,fl_calf_action,fr_hip_action,fr_thigh_action,fr_calf_action,hl_hip_action,hl_thigh_action,hl_calf_action,hr_hip_action,hr_thigh_action,hr_calf_action
2025-07-21 14:25:27.233,0.0,0,0,-0.01065176,0.015529764,-0.00030265114,-0.024143146,0.04041275,0.02142395,2.7706077,-1.0369449,0.0,0.0,0.001441525,-0.00048780045,0.0073605664,0.0046639857,0.0008609233,0.009192186,0.001086712,0.0011858228,0.0038760642,-0.00605565,0.008101404,0.00915403,0.028896691,-0.06539616,-0.000981651,-0.070368975,0.06109296,0.050965052,-0.03536835,0.065765135,-0.02913028,-0.06787659,-0.0548836,0.04273841,0.0,0.0,0.0,0.0,0.0,0.0,0.0,0.0,0.0,0.0,0.0,0.0,2.0,2.0,-1.9123532,0.28016505,2.0,-2.0,2.0,0.28565425,-2.0,-2.0,1.2675151,0.3218646
2025-07-21 14:25:27.243,0.02,20,1,0.09585864,-0.13807899,-0.028635686,-0.051311087,-0.022707522,-0.032035716,0.0,0.0,0.0,0.0,0.012368118,0.050430983,-0.03706427,0.018335037,0.06817417,-0.04996107,0.02135845,0.022437064,-0.049933545,-0.0031273607,0.04381859,0.011408777,0.056755435,0.18701772,-0.13256416,-0.03794609,0.2127591,-0.18107687,0.09218942,0.049382616,-0.16285516,-0.09830646,0.090083405,0.03488959,2.0,2.0,-1.9123532,0.28016505,2.0,-2.0,2.0,0.28565425,-2.0,-2.0,1.2675151,0.3218646,2.0,2.0,-1.7485813,0.87144214,0.42636985,-2.0,2.0,-1.7987888,-2.0,-2.0,-0.7150623,-2.0
2025-07-21 14:25:27.268,0.04,40,2,-0.17539483,-0.045967337,0.047476377,-0.05022812,-0.032512713,-0.029504728,0.0,0.0,0.0,0.00010972433,0.027892273,0.12528989,-0.076778665,0.018937802,0.09602307,-0.087319836,0.036439214,-0.022126675,-0.07844908,-0.021155994,0.042649847,-0.028865611,0.05847654,0.025477841,0.039575003,-0.0355312,0.057388894,-0.0064486032,0.05569475,-0.09596358,0.03947055,0.016702842,-0.12800728,-0.083689734,2.0,2.0,-1.7485813,0.87144214,0.42636985,-2.0,2.0,-1.7987888,-2.0,-2.0,-0.7150623,-2.0,2.0,1.7248595,-2.0,2.0,0.49724454,-2.0,2.0,-0.8393703,-2.0,-2.0,0.41526273,-2.0
2025-07-21 14:25:27.285,0.06,60,3,-0.14753015,-0.06867565,0.022424178,-0.054663926,-0.014192685,-0.039874632,0.0,0.0,0.0,-9.6210846e-05,0.03527783,0.120986305,-0.07632709,0.030081687,0.09622616,-0.0695805,0.05960673,-0.05296304,-0.062562115,-0.024078948,0.021166911,-0.02587849,0.032620978,-0.0456336,0.041956164,0.033292808,0.026623433,-0.0043139486,0.049513344,-0.04319722,-0.013805453,0.0072800578,0.022947347,0.11766524,2.0,1.7248595,-2.0,2.0,0.49724454,-2.0,2.0,-0.8393703,-2.0,-2.0,0.41526273,-2.0,2.0,1.8835359,-2.0,2.0,0.2314067,-2.0,2.0,-0.90957624,-2.0,-2.0,0.85609406,-2.0
2025-07-21 14:25:27.304,0.08,80,4,-0.010369733,-0.12874389,-0.02567689,0.0013326523,0.01111555,-0.04666376,0.0,0.0,0.0,-0.0007954935,0.04441926,0.11303317,-0.054281063,0.04124797,0.08566729,-0.047462806,0.0645155,-0.06657403,-0.054314952,-0.030616885,0.019058138,-0.004632239,0.044512946,-0.0012359376,-0.02704642,-0.015449989,0.020990567,0.130376,0.026941027,-0.018381506,-0.021824466,0.02087334,0.06315173,-0.007158656,2.0,1.8835359,-2.0,2.0,0.2314067,-2.0,2.0,-0.90957624,-2.0,-2.0,0.85609406,-2.0,2.0,2.0,-2.0,2.0,-0.5172976,-2.0,2.0,-1.0621486,-2.0,-2.0,1.0873224,-2.0
2025-07-21 14:25:27.324,0.1,100,5,-0.00939445,-0.04151327,-0.022764362,-0.0682363,0.03603735,0.03897242,0.0,0.0,0.0,-0.0012923625,0.04615823,0.12117791,-0.03953415,0.052950423,0.090610884,-0.022035189,0.06261211,-0.051652476,-0.025359668,-0.016792873,0.02625641,0.005138481,-0.042275935,-0.005170737,-0.01260694,0.06313412,0.029244205,-0.013327205,0.06383102,0.05071536,0.046995863,0.021256464,0.09223421,-0.04938677,2.0,2.0,-2.0,2.0,-0.5172976,-2.0,2.0,-1.0621486,-2.0,-2.0,1.0873224,-2.0,2.0,2.0,-2.0,2.0,-1.2824328,-2.0,2.0,-0.9374238,-2.0,-2.0,1.3554611,-2.0
2025-07-21 14:25:27.346,0.12000000000000001,120,6,0.02916375,-0.038378794,0.06959663,-0.011191428,0.032540534,-0.04784533,0.0,0.0,0.0,-0.0016009102,0.055570316,0.123877876,-0.026647028,0.056917597,0.076121405,-0.0076743932,0.06976278,-0.050492823,-0.044661865,-0.026333664,0.038069375,0.0051091886,0.027836934,0.108709306,0.061383232,0.014263431,-0.09541878,0.11126825,0.034638163,0.058038842,0.04144547,-0.030032314,0.049941607,0.02955712,2.0,2.0,-2.0,2.0,-1.2824328,-2.0,2.0,-0.9374238,-2.0,-2.0,1.3554611,-2.0,2.0,1.464778,-2.0,2.0,-1.784799,-2.0,2.0,-0.99546087,-2.0,-2.0,1.9391778,-2.0
2025-07-21 14:25:27.368,0.14,140,7,0.07597026,-0.03321069,0.023782838,-0.059309315,0.05730095,0.036341067,0.0,0.0,0.0,-0.001953751,0.06431319,0.15213205,-0.0074670725,0.05997612,0.022129392,0.0010174658,0.075035505,-0.065639004,-0.049708694,-0.010965673,0.05747915,0.011367994,0.006628214,0.0236404,0.044686012,0.042756524,-0.18293594,-0.019361975,0.052152622,0.044769567,-0.10716603,-0.022925645,0.09828374,-0.09627157,2.0,1.464778,-2.0,2.0,-1.784799,-2.0,2.0,-0.99546087,-2.0,-2.0,1.9391778,-2.0,2.0,1.4255922,-2.0,2.0,-1.9079754,-2.0,2.0,-0.71946746,-2.0,-2.0,1.566055,-2.0
2025-07-21 14:25:27.385,0.16,160,8,0.13372886,-0.016032265,-0.079424664,-0.007823325,0.04671407,-0.0054846643,0.0,0.0,0.0,-0.001933441,0.047860127,0.15515904,-0.011627294,0.06961352,-0.05976226,-0.011133692,0.06939263,-0.073765844,-0.061533313,-0.01636784,0.09178268,-0.011038574,-0.06826973,0.018929433,0.05811732,-0.016912768,-0.25870547,-0.10609734,0.0016231921,-0.003911006,-0.06664454,0.025095446,0.077991985,0.010737288,2.0,1.4255922,-2.0,2.0,-1.9079754,-2.0,2.0,-0.71946746,-2.0,-2.0,1.566055,-2.0,2.0,2.0,-2.0,2.0,-0.90919995,-2.0,2.0,-0.580301,-2.0,-2.0,0.36801553,-2.0
2025-07-21 14:25:27.404,0.18,180,9,0.03840922,0.0031258622,-0.03056873,-0.042027067,-0.037797317,-0.03697868,0.0,0.0,0.0,-0.0014164622,0.0516315,0.18517664,-0.0065665888,0.083236374,-0.11361726,-0.047959328,0.08098433,-0.058012597,-0.07112143,-0.020411799,0.107801795,-0.016588803,-0.05335757,0.0761259,-0.054100744,0.0054686423,-0.023739012,-0.054119993,0.037452944,0.057916023,-0.037198834,-0.068066455,0.01824222,-0.048461173,2.0,2.0,-2.0,2.0,-0.90919995,-2.0,2.0,-0.580301,-2.0,-2.0,0.36801553,-2.0,2.0,2.0,-2.0,2.0,-0.46991092,-2.0,2.0,-0.7560159,-2.0,-2.0,0.42881116,-2.0
2025-07-21 14:25:27.424,0.19999999999999998,200,10,-0.08608523,0.025122399,-0.014109209,-0.029583333,0.058449484,0.02969607,0.0,0.0,0.0,-0.0011229359,0.06309202,0.19800371,0.0017234252,0.097181715,-0.116698645,-0.044903472,0.07447459,-0.054230005,-0.084982045,-0.020489298,0.12902358,-0.00071917224,-0.053429328,0.010013218,-0.0057344036,-0.057780784,0.08286701,0.022036588,-0.044665515,0.05890502,-0.020373307,0.025655571,0.020172352,-0.048276164,2.0,2.0,-2.0,2.0,-0.46991092,-2.0,2.0,-0.7560159,-2.0,-2.0,0.42881116,-2.0,2.0,2.0,-2.0,2.0,-0.5341018,-2.0,2.0,-0.7958815,-2.0,-2.0,0.6387825,-2.0
2025-07-21 14:25:27.450,0.21999999999999997,220,11,-0.05461622,0.08033852,0.00535758,-0.008094644,0.031239633,-0.02463463,0.0,0.0,0.0,-0.0015017057,0.06211825,0.21053864,-0.011593483,0.085846,-0.11097798,-0.06153997,0.076117456,-0.056376737,-0.06487939,-0.028609129,0.1396371,-0.009671904,0.0629773,-0.024341552,-0.071731836,-0.028237035,0.078381605,-0.051195625,-0.033850726,0.0045784074,0.014380357,0.06770475,0.036694538,0.0020522366,2.0,2.0,-2.0,2.0,-0.5341018,-2.0,2.0,-0.7958815,-2.0,-2.0,0.6387825,-2.0,2.0,2.0,-2.0,2.0,-0.9150059,-2.0,2.0,-0.88268995,-2.0,-2.0,1.0028332,-2.0
2025-07-21 14:25:27.468,0.23999999999999996,240,12,-0.054269116,0.01085207,0.02056907,-0.06849665,0.04935589,0.028834933,0.0,0.0,0.0,-0.002285265,0.0575622,0.23250586,-0.012019512,0.09283872,-0.096671134,-0.06131473,0.079239964,-0.05059051,-0.06299936,-0.027545422,0.12525773,0.013764007,-0.045435976,-0.030475788,0.033934373,0.0020293926,0.0137003455,0.066879295,0.06440712,0.054436564,0.005968821,-0.01731985,0.0049694893,0.024621112,2.0,2.0,-2.0,2.0,-0.9150059,-2.0,2.0,-0.88268995,-2.0,-2.0,1.0028332,-2.0,2.0,2.0,-2.0,2.0,-1.2246448,-2.0,2.0,-0.8285911,-2.0,-2.0,1.1037216,-2.0
2025-07-21 14:25:27.485,0.25999999999999995,260,13,-0.01586154,0.01259084,0.030734241,0.009404325,-0.003090242,-0.027165484,0.0,0.0,0.0,-0.0031464067,0.05996995,0.24932086,-0.014307374,0.09528467,-0.110402174,-0.042604882,0.0729867,-0.050186124,-0.052619603,-0.033326495,0.13170148,0.0027433166,-0.010201995,0.059425674,0.010332351,0.012743208,0.042374786,0.08151281,0.017423142,-0.024142323,0.051212993,0.029736908,0.058365352,-0.0051814914,2.0,2.0,-2.0,2.0,-1.2246448,-2.0,2.0,-0.8285911,-2.0,-2.0,1.1037216,-2.0,2.0,2.0,-2.0,2.0,-1.5800278,-2.0,2.0,-0.8904515,-2.0,-2.0,1.3533223,-2.0
2025-07-21 14:25:27.505,0.27999999999999997,280,14,-0.04742617,-0.002377235,-0.016411591,-0.07599982,-0.02747217,-0.040098496,0.0,0.0,0.0,-0.0039413963,0.058721814,0.25121346,-0.02569669,0.10101934,-0.12712651,-0.064157344,0.07326143,-0.034577534,-0.032116774,-0.03645154,0.14855589,0.00883749,-0.025803661,0.09054528,-0.04146212,0.05099197,-0.06860622,-0.060041685,-0.060591187,-0.021930894,0.07766516,-0.036668837,0.009517191,-0.057851862,2.0,2.0,-2.0,2.0,-1.5800278,-2.0,2.0,-0.8904515,-2.0,-2.0,1.3533223,-2.0,2.0,2.0,-2.0,2.0,-1.7884105,-2.0,2.0,-0.765714,-2.0,-2.0,1.0809706,-2.0
2025-07-21 14:25:27.525,0.3,300,15,0.027956672,-0.0085609,0.024823403,-0.086807676,-0.017901268,-0.036056027,0.0,0.0,0.0,-0.004437848,0.05342583,0.27038684,-0.017864475,0.102208346,-0.15889911,-0.08693027,0.06223197,-0.039118838,-0.032077957,-0.021443874,0.16388847,0.030534575,0.05838322,0.07284632,-0.06296585,0.057668813,-0.100427896,-0.11284787,-0.032109383,0.06565004,-0.04982451,0.0008735621,0.091795936,0.079749905,2.0,2.0,-2.0,2.0,-1.7884105,-2.0,2.0,-0.765714,-2.0,-2.0,1.0809706,-2.0,2.0,2.0,-2.0,2.0,-1.4921541,-2.0,2.0,-0.76241684,-2.0,-2.0,1.046937,-2.0
2025-07-21 14:25:27.551,0.32,320,16,0.021994216,-0.010628868,-0.061174754,-0.07910495,0.07026108,0.0025167123,0.0,0.0,0.0,-0.004575736,0.06867658,0.30042955,-0.025730452,0.10938798,-0.20062639,-0.105083525,0.071868576,-0.010654595,-0.034602266,-0.020944515,0.16861527,0.041079532,0.069688305,0.046682775,-0.05114051,0.01620254,-0.109250575,-0.08204417,-0.048007984,0.09777146,0.06628684,0.006480573,0.06687583,0.054512136,2.0,2.0,-2.0,2.0,-1.4921541,-2.0,2.0,-0.76241684,-2.0,-2.0,1.046937,-2.0,2.0,2.0,-2.0,2.0,-1.244256,-2.0,2.0,-0.5037207,-2.0,-2.0,0.45520252,-2.0
2025-07-21 14:25:27.568,0.34,340,17,-0.09254518,0.006707779,0.054970082,-0.03247353,0.037731554,-0.045653455,0.0,0.0,0.0,-0.0043904674,0.051545896,0.3174567,-0.017202033,0.09979115,-0.22968222,-0.09326774,0.07120457,-0.0074452544,-0.009104003,-0.024604453,0.17955247,0.04172875,0.0347192,0.109888725,0.009946627,0.06144499,-0.071927406,0.07409439,0.047637127,-0.04494857,0.024653671,0.014304526,0.022090595,-0.019790143,2.0,2.0,-2.0,2.0,-1.244256,-2.0,2.0,-0.5037207,-2.0,-2.0,0.45520252,-2.0,2.0,2.0,-2.0,2.0,-1.1082886,-2.0,2.0,-0.751599,-2.0,-2.0,1.0423075,-2.0
2025-07-21 14:25:27.586,0.36000000000000004,360,18,-0.04752139,0.011914624,0.014190416,-0.05718621,0.07896912,-0.019167589,0.0,0.0,0.0,-0.00434441,0.06986144,0.3154269,-0.019629175,0.1154219,-0.21424018,-0.089865305,0.060272805,-0.009704478,-0.0028547298,-0.033571728,0.18688476,0.04999908,0.0017701864,0.07081642,0.03204114,0.042768203,-0.04769557,0.055808146,-0.04465141,0.022153577,-0.021956358,-0.07202586,-0.041162852,0.08435391,2.0,2.0,-2.0,2.0,-1.1082886,-2.0,2.0,-0.751599,-2.0,-2.0,1.0423075,-2.0,2.0,2.0,-2.0,2.0,-1.3215142,-2.0,2.0,-0.67751884,-2.0,-2.0,0.87780887,-2.0
2025-07-21 14:25:27.606,0.38000000000000006,380,19,-0.040594358,0.04534821,0.009298849,-0.0059235087,0.057831824,0.047157597,0.0,0.0,0.0,-0.0044777347,0.06826447,0.34581554,-0.037298445,0.11085691,-0.22709925,-0.08195914,0.06083485,-0.00039074745,0.01831096,-0.030762622,0.19769187,0.06493432,0.037346076,-0.0017848646,0.009857952,0.016651528,-0.0057865097,0.08780587,-0.061569475,-0.024907239,0.04321066,-0.0040277746,0.065506056,0.0032010137,2.0,2.0,-2.0,2.0,-1.3215142,-2.0,2.0,-0.67751884,-2.0,-2.0,0.87780887,-2.0,2.0,2.0,-2.0,2.0,-1.4194119,-2.0,2.0,-0.7121271,-2.0,-2.0,1.0395758,-2.0
2025-07-21 14:25:27.626,0.4000000000000001,400,20,-0.056262743,0.014116316,0.044804867,-0.011262464,0.05876923,-0.032734375,0.0,0.0,0.0,-0.004649152,0.06686444,0.3527267,-0.040189568,0.110987164,-0.21969691,-0.07631822,0.061487217,-0.005227189,0.015237414,-0.040991478,0.21461447,0.06866899,-0.06445455,-0.011008922,0.0046436726,0.06335703,-0.045994725,0.0077378685,-0.0040426664,0.0028809372,0.001316095,0.018491732,-0.02961296,-0.023648325,2.0,2.0,-2.0,2.0,-1.4194119,-2.0,2.0,-0.7121271,-2.0,-2.0,1.0395758,-2.0,2.0,2.0,-2.0,2.0,-1.5707022,-2.0,2.0,-0.70659417,-2.0,-2.0,1.0901406,-2.0
2025-07-21 14:25:27.651,0.4200000000000001,420,21,-0.032899667,-0.00806112,0.0076649645,-0.061606966,0.02400513,-0.0018282541,0.0,0.0,0.0,-0.0049063996,0.05771604,0.37433168,-0.039394785,0.11328875,-0.22669129,-0.05158579,0.07219459,0.015368963,0.038039677,-0.026643937,0.21710971,0.0777531,0.009138342,0.018690454,-0.056248482,-0.033262804,0.0672005,0.0012549992,0.011922363,0.043122794,-0.039325364,-0.028472314,0.08519506,-0.011122385,2.0,2.0,-2.0,2.0,-1.5707022,-2.0,2.0,-0.70659417,-2.0,-2.0,1.0901406,-2.0,2.0,2.0,-2.0,2.0,-1.6500007,-2.0,2.0,-0.6857911,-2.0,-2.0,0.94654906,-2.0
2025-07-21 14:25:27.668,0.4400000000000001,440,22,-0.03476548,0.07615178,0.059676446,-0.051879022,0.03824068,0.0068453415,0.0,0.0,0.0,-0.0051741377,0.055730943,0.3734235,-0.044748064,0.11776892,-0.22196385,-0.04610058,0.056079246,0.0053852974,0.04802803,-0.039694373,0.23359449,0.092317306,0.041463427,0.08767094,-0.025634646,0.078628674,0.02838188,-0.06740633,-0.0089334985,-0.06363763,0.028209038,-0.030318214,-0.029240593,0.018323427,2.0,2.0,-2.0,2.0,-1.6500007,-2.0,2.0,-0.6857911,-2.0,-2.0,0.94654906,-2.0,2.0,2.0,-2.0,2.0,-1.8320066,-2.0,2.0,-0.743699,-2.0,-2.0,1.3272057,-2.0
2025-07-21 14:25:27.686,0.46000000000000013,460,23,0.020553917,-0.016940879,0.016270166,-0.0039225426,0.013854362,0.028461415,0.0,0.0,0.0,-0.0055048373,0.06449219,0.39556944,-0.044259883,0.10552582,-0.24463817,-0.04898145,0.051035076,0.009463405,0.06454338,-0.041959394,0.22907393,0.10054361,0.041731074,-0.033403266,0.05494326,0.0011991948,-0.08020515,-0.06875831,-0.05947345,-0.031274185,0.008760903,-0.054959327,-0.023432788,-0.02187599,2.0,2.0,-2.0,2.0,-1.8320066,-2.0,2.0,-0.743699,-2.0,-2.0,1.3272057,-2.0,2.0,2.0,-2.0,2.0,-1.7988205,-2.0,2.0,-0.6571616,-2.0,-2.0,0.98405266,-2.0
2025-07-21 14:25:27.706,0.48000000000000015,480,24,-0.007613111,0.0426818,-0.039035678,-0.05510424,0.033027984,-0.02324731,0.0,0.0,0.0,-0.005648473,0.056373633,0.39838654,-0.060985416,0.107059695,-0.2540951,-0.060298376,0.063507035,0.029323945,0.060352404,-0.032032784,0.24528866,0.1028851,0.05303235,0.033274397,0.06552753,-0.005665812,-0.060705487,-0.023913248,0.0048687523,0.046456475,-0.037560217,0.0005320669,0.043247204,-0.032890532,2.0,2.0,-2.0,2.0,-1.7988205,-2.0,2.0,-0.6571616,-2.0,-2.0,0.98405266,-2.0,2.0,2.0,-2.0,2.0,-1.4460492,-2.0,2.0,-0.42033613,-2.0,-2.0,0.48000586,-2.0
2025-07-21 14:25:27.726,0.5000000000000001,500,25,-0.0657406,-0.020336892,0.003993198,0.003550416,0.08809962,0.008532657,0.0,0.0,0.0,-0.005597535,0.054005038,0.4109218,-0.05195436,0.114679374,-0.2732269,-0.07389409,0.05609288,0.030322438,0.07821109,-0.04325189,0.25896695,0.120359294,0.07266705,-0.0038932103,0.011144754,0.04670849,-0.06788938,-0.0060253805,-0.07657102,0.04578805,0.047117997,-0.04397415,-0.012711027,-0.03962115,2.0,2.0,-2.0,2.0,-1.4460492,-2.0,2.0,-0.42033613,-2.0,-2.0,0.48000586,-2.0,2.0,2.0,-2.0,2.0,-1.2170626,-2.0,2.0,-0.55688465,-2.0,-2.0,0.7736627,-2.0
2025-07-21 14:25:27.752,0.5200000000000001,520,26,-0.019983664,0.0449589,0.046140067,-0.018202947,0.024112819,0.048115246,0.0,0.0,0.0,-0.0058581945,0.0619941,0.42337304,-0.06267847,0.124207124,-0.27381182,-0.0683453,0.05050363,0.038020242,0.08942128,-0.040055864,0.257319,0.12825073,-0.034905344,0.035809364,0.05868148,-0.019266551,0.07970349,-0.04477857,-0.021530874,0.033325978,0.026884332,-0.060361847,0.057228092,-0.050839934,2.0,2.0,-2.0,2.0,-1.2170626,-2.0,2.0,-0.55688465,-2.0,-2.0,0.7736627,-2.0,2.0,2.0,-2.0,2.0,-1.4807335,-2.0,2.0,-0.67372286,-2.0,-2.0,0.98519266,-2.0
2025-07-21 14:25:27.768,0.5400000000000001,540,27,0.009578896,0.04354791,-0.012377302,0.03440169,0.056989133,0.03489003,0.0,0.0,0.0,-0.006455748,0.06310373,0.43955263,-0.058568884,0.11305159,-0.26962554,-0.049265955,0.04946856,0.03126717,0.0870489,-0.053113744,0.2572872,0.12704049,0.06703127,0.025678841,-0.08659272,0.057922922,0.057383254,-0.06258717,-0.054905195,-0.013698045,0.028154086,0.011729087,-0.031550534,0.0060249846,2.0,2.0,-2.0,2.0,-1.4807335,-2.0,2.0,-0.67372286,-2.0,-2.0,0.98519266,-2.0,2.0,2.0,-2.0,2.0,-1.6852568,-2.0,2.0,-0.52504593,-2.0,-2.0,0.8150413,-2.0
2025-07-21 14:25:27.786,0.5600000000000002,560,28,0.0024188608,-0.0029775463,-0.011098839,-0.005010823,0.07313461,-0.0129133435,0.0,0.0,0.0,-0.007043995,0.070627265,0.4575496,-0.07676533,0.108934656,-0.26619548,-0.059788812,0.04977357,0.046839472,0.105104364,-0.05154365,0.25734755,0.13479505,-0.014133845,0.0101112565,-0.02665338,0.058580216,-0.05480715,-0.067619026,0.020555265,0.03248616,0.013538666,-0.05976251,-0.06689372,-0.015919594,2.0,2.0,-2.0,2.0,-1.6852568,-2.0,2.0,-0.52504593,-2.0,-2.0,0.8150413,-2.0,2.0,2.0,-2.0,2.0,-1.4570686,-2.0,2.0,-0.41076386,-2.0,-2.0,0.44177186,-2.0
2025-07-21 14:25:27.806,0.5800000000000002,580,29,-0.06432076,0.038655937,0.04159183,0.03720572,0.06303463,-0.047119148,0.0,0.0,0.0,-0.0076790135,0.059731625,0.44883722,-0.08613764,0.1172311,-0.2618856,-0.047940403,0.046530027,0.047708172,0.11435717,-0.05463407,0.26881355,0.13580538,-0.06372915,-0.005881181,-0.04635882,-0.034738675,-0.06324596,-0.054315686,-0.029611608,0.018454308,-0.037728366,0.014328804,0.025721531,0.07659877,2.0,2.0,-2.0,2.0,-1.4570686,-2.0,2.0,-0.41076386,-2.0,-2.0,0.44177186,-2.0,2.0,2.0,-2.0,2.0,-1.1077142,-2.0,2.0,-0.55908906,-2.0,-2.0,0.65457946,-2.0
2025-07-21 14:25:27.827,0.6000000000000002,600,30,-0.07053235,0.10836631,0.052473687,0.036907736,0.09673564,0.013588605,0.0,0.0,0.0,-0.0086407,0.068407334,0.47473496,-0.090286225,0.120229006,-0.25362286,-0.061255194,0.043007582,0.055733673,0.12233176,-0.0456669,0.25399634,0.13947795,-0.02302437,0.05470108,0.05484868,-0.063786,-0.037292287,0.030271677,0.053144548,-0.04823607,-0.008846058,-0.011481072,0.011490244,0.034332227,2.0,2.0,-2.0,2.0,-1.1077142,-2.0,2.0,-0.55908906,-2.0,-2.0,0.65457946,-2.0,2.0,2.0,-2.0,2.0,-1.3093944,-2.0,2.0,-0.52030164,-2.0,-2.0,0.8848365,-2.0
2025-07-21 14:25:27.851,0.6200000000000002,620,31,-0.019136934,0.065967225,0.017664561,0.035274133,0.056202915,-0.003466479,0.0,0.0,0.0,-0.009756045,0.068744205,0.46781766,-0.0778985,0.114977,-0.26108608,-0.05368616,0.03449793,0.05093187,0.11407912,-0.059638496,0.2619364,0.1568467,-0.06637201,-0.025936065,-0.060227815,0.07372704,0.044442877,0.021204704,-0.05811099,0.04043625,0.006209429,0.044978127,0.00066485745,-0.012556277,2.0,2.0,-2.0,2.0,-1.3093944,-2.0,2.0,-0.52030164,-2.0,-2.0,0.8848365,-2.0,2.0,2.0,-2.0,2.0,-1.5648409,-2.0,2.0,-0.5358877,-2.0,-2.0,0.85448575,-2.0
2025-07-21 14:25:27.869,0.6400000000000002,640,32,0.048368987,0.01586069,0.06826658,-0.0028239593,0.068372786,0.012169057,0.0,0.0,0.0,-0.010722278,0.06850568,0.47572044,-0.087407105,0.11624054,-0.24900949,-0.06209085,0.035954636,0.05451695,0.1350156,-0.06879815,0.25476268,0.1574821,0.06782204,-0.01459068,0.00610501,-0.04052094,-0.04548424,-0.064078264,-0.04008769,-0.033726383,0.047030173,0.036606662,-0.05619502,0.0329588,2.0,2.0,-2.0,2.0,-1.5648409,-2.0,2.0,-0.5358877,-2.0,-2.0,0.85448575,-2.0,2.0,2.0,-2.0,2.0,-1.6804961,-2.0,2.0,-0.6228241,-2.0,-2.0,1.0872612,-2.0
2025-07-21 14:25:27.891,0.6600000000000003,660,33,0.046407703,-0.0033628053,-0.018056694,0.051221013,0.050263915,-0.025089754,0.0,0.0,0.0,-0.011525272,0.083391875,0.4900532,-0.08110562,0.12540014,-0.2504623,-0.053167082,0.043744598,0.0573101,0.1251045,-0.060580134,0.26108906,0.15409157,0.043440193,0.0048117666,-0.06396235,0.07332462,0.037641168,0.07552026,0.015804328,0.022867445,-0.0645991,-0.060799766,0.043920733,-0.041251194,2.0,2.0,-2.0,2.0,-1.6804961,-2.0,2.0,-0.6228241,-2.0,-2.0,1.0872612,-2.0,2.0,2.0,-2.0,2.0,-1.6295562,-2.0,2.0,-0.44793862,-2.0,-2.0,0.6368467,-2.0
2025-07-21 14:25:27.922,0.6800000000000003,680,34,0.04314656,0.024528177,0.029258588,0.005673482,0.04628703,0.012376698,0.0,0.0,0.0,-0.0120617645,0.0718397,0.48289937,-0.09945315,0.120991185,-0.2589462,-0.06740742,0.030157268,0.066626154,0.1385642,-0.058942784,0.26823753,0.15650317,-0.011813442,0.051471822,0.017821273,-0.062542416,0.02852401,0.031730406,0.009815023,0.008512403,-0.0009759233,-0.006992622,0.040906858,-0.032364264,2.0,2.0,-2.0,2.0,-1.6295562,-2.0,2.0,-0.44793862,-2.0,-2.0,0.6368467,-2.0,2.0,2.0,-2.0,2.0,-1.4360013,-2.0,2.0,-0.485277,-2.0,-2.0,0.68580604,-2.0
2025-07-21 14:25:27.946,0.7000000000000003,700,35,-0.039407067,0.0036304665,0.037854984,-0.009739619,0.04932419,0.016559504,0.0,0.0,0.0,-0.012523395,0.079363,0.48759755,-0.099787965,0.12811467,-0.2657141,-0.06512888,0.026141595,0.07101389,0.1326249,-0.067889094,0.26622814,0.1465675,-0.061348077,-0.033213686,-0.0069910274,-0.009096734,-0.0681873,-0.05988757,0.014619435,-0.054536987,-0.04325937,0.021801509,-0.031434376,-0.03312383,2.0,2.0,-2.0,2.0,-1.4360013,-2.0,2.0,-0.485277,-2.0,-2.0,0.68580604,-2.0,2.0,2.0,-2.0,2.0,-1.424824,-2.0,2.0,-0.43174636,-2.0,-2.0,0.60486203,-2.0
2025-07-21 14:25:27.969,0.7200000000000003,720,36,-0.042092565,0.036252137,-0.0012919041,0.029343942,0.064953595,-0.023313852,0.0,0.0,0.0,-0.01305895,0.08316181,0.48547724,-0.09198008,0.11802912,-0.25576523,-0.07165118,0.033854615,0.059069023,0.13445951,-0.06032742,0.26062182,0.14626029,-0.009842475,0.040148698,-0.03237032,0.060700115,-0.0672327,0.05426921,-0.010013672,0.06736231,0.081234515,0.06717949,-0.0721297,-0.058821104,2.0,2.0,-2.0,2.0,-1.424824,-2.0,2.0,-0.43174636,-2.0,-2.0,0.60486203,-2.0,2.0,2.0,-2.0,2.0,-1.4434088,-2.0,2.0,-0.3502308,-2.0,-2.0,0.5752403,-2.0
2025-07-21 14:25:27.986,0.7400000000000003,740,37,0.04269403,-0.015072616,0.015572446,0.048039157,0.081690125,-0.04191101,0.0,0.0,0.0,-0.0136409,0.09175425,0.4924766,-0.09258376,0.12841484,-0.24629998,-0.06579519,0.04321212,0.06899361,0.14220324,-0.054997846,0.26302895,0.16103342,-0.055323187,-0.058247607,0.040294405,0.022205355,-0.034681868,-0.020263439,0.022648275,0.06631355,-0.03126863,0.018308036,0.057827853,0.06185084,2.0,2.0,-2.0,2.0,-1.4434088,-2.0,2.0,-0.3502308,-2.0,-2.0,0.5752403,-2.0,2.0,2.0,-2.0,2.0,-1.1997181,-2.0,2.0,-0.41710317,-2.0,-2.0,0.47366548,-2.0
2025-07-21 14:25:28.006,0.7600000000000003,760,38,0.028225865,-0.0047496543,0.028458755,-0.0242932,0.016940167,0.03882898,0.0,0.0,0.0,-0.014334886,0.096165314,0.5046688,-0.09247718,0.12890412,-0.2613214,-0.067574814,0.036766328,0.07464059,0.1467035,-0.06281135,0.27377352,0.15351954,0.07464663,-0.07077791,0.07482409,0.0017611622,0.020057693,0.05106081,0.054530613,-0.003432138,0.05194611,-0.028992422,-0.05084472,0.045353863,2.0,2.0,-2.0,2.0,-1.1997181,-2.0,2.0,-0.41710317,-2.0,-2.0,0.47366548,-2.0,2.0,2.0,-2.0,2.0,-1.2978632,-2.0,2.0,-0.34181553,-2.0,-2.0,0.6577901,-2.0
2025-07-21 14:25:28.026,0.7800000000000004,780,39,0.06690921,0.03590697,0.075144015,-0.021318456,0.06702298,0.019073766,0.0,0.0,0.0,-0.015101489,0.1038466,0.5055619,-0.079033546,0.12739673,-0.24874157,-0.080936976,0.026513627,0.068333715,0.13871133,-0.074357316,0.26679143,0.15743172,0.061016694,0.022667693,-0.06454857,0.06603612,-0.047938246,0.00061722513,-0.023382211,-0.025012376,-0.0006594545,-0.029636377,-0.0016869724,-0.034632012,2.0,2.0,-2.0,2.0,-1.2978632,-2.0,2.0,-0.34181553,-2.0,-2.0,0.6577901,-2.0,2.0,2.0,-2.0,2.0,-1.4940315,-2.0,2.0,-0.611931,-2.0,-2.0,1.0651731,-2.0
2025-07-21 14:25:28.051,0.8000000000000004,800,40,-0.010099896,0.014487712,0.020804754,0.016735753,0.025351781,-0.032487303,0.0,0.0,0.0,-0.015839403,0.08832033,0.5049901,-0.078421764,0.13098209,-0.2508254,-0.091114014,0.04003638,0.06689729,0.14187272,-0.06919949,0.2705392,0.14204507,-0.023257447,0.015051281,-0.034772288,0.012662576,0.05673866,0.041439,0.06566688,0.0063864095,0.0029204104,-0.051678587,0.039141443,-0.008309731,2.0,2.0,-2.0,2.0,-1.4940315,-2.0,2.0,-0.611931,-2.0,-2.0,1.0651731,-2.0,2.0,2.0,-2.0,2.0,-1.6712776,-2.0,2.0,-0.4476602,-2.0,-2.0,0.72087204,-2.0
2025-07-21 14:25:28.068,0.8200000000000004,820,41,0.005109399,0.009157931,-0.046612635,0.022631977,0.0256987,0.032749265,0.0,0.0,0.0,-0.016220618,0.09895947,0.50142354,-0.083439685,0.13252552,-0.25324354,-0.09164407,0.030738713,0.061469115,0.15219222,-0.06773108,0.2564763,0.14173824,0.07049016,0.015047065,0.010630236,0.008457419,-0.0026431212,0.025956864,0.06697275,-0.045260385,-0.07401287,0.06471226,0.039264854,-0.05856338,2.0,2.0,-2.0,2.0,-1.6712776,-2.0,2.0,-0.4476602,-2.0,-2.0,0.72087204,-2.0,2.0,2.0,-2.0,2.0,-1.6209999,-2.0,2.0,-0.2587675,-2.0,-2.0,0.19448237,-2.0
2025-07-21 14:25:28.086,0.8400000000000004,840,42,0.02514443,-0.026947312,0.059254095,0.049227513,0.02257333,-0.028632099,0.0,0.0,0.0,-0.016321769,0.108128674,0.50530106,-0.07818214,0.1232201,-0.2585852,-0.09750734,0.03872617,0.06737784,0.14637356,-0.073297694,0.25552908,0.15579928,-0.064424425,-0.039172806,-0.01919299,-0.058011454,0.0022374983,-0.039623175,-0.011087381,0.06873101,0.023253756,0.07571009,0.037987757,0.06091556,2.0,2.0,-2.0,2.0,-1.6209999,-2.0,2.0,-0.2587675,-2.0,-2.0,0.19448237,-2.0,2.0,2.0,-2.0,2.0,-1.0874527,-2.0,2.0,-0.4682387,-2.0,-2.0,0.43451,-2.0
2025-07-21 14:25:28.106,0.8600000000000004,860,43,-0.03541622,-0.039921537,0.023711689,0.04898699,0.077573396,-0.0146038905,0.0,0.0,0.0,-0.016682092,0.10991194,0.48511016,-0.07246158,0.12994006,-0.26340666,-0.091909416,0.023992736,0.07195181,0.14986788,-0.05745471,0.264192,0.14307262,0.019980546,-0.060830284,0.059530444,-0.00020311661,0.066922605,0.047697704,0.0057484247,0.048149165,-0.008516954,-0.036237046,0.038310234,-0.050093252,2.0,2.0,-2.0,2.0,-1.0874527,-2.0,2.0,-0.4682387,-2.0,-2.0,0.43451,-2.0,2.0,2.0,-2.0,2.0,-1.2449676,-2.0,2.0,-0.3550167,-2.0,-2.0,0.61689556,-2.0
2025-07-21 14:25:28.127,0.8800000000000004,880,44,0.013048316,-0.04951753,0.0005908235,-0.017559072,0.022634655,0.04231865,0.0,0.0,0.0,-0.017178576,0.106595345,0.4828336,-0.064871825,0.13253881,-0.2527024,-0.095323354,0.025379017,0.06515466,0.13562462,-0.07428679,0.24556607,0.15228957,0.040093094,0.007687367,0.062997,0.01873818,0.014448205,0.0020703438,0.013939868,0.028453773,-0.035607934,-0.046746824,-0.00901072,0.021863883,2.0,2.0,-2.0,2.0,-1.2449676,-2.0,2.0,-0.3550167,-2.0,-2.0,0.61689556,-2.0,2.0,2.0,-2.0,2.0,-1.3959372,-2.0,2.0,-0.28660285,-2.0,-2.0,0.3579399,-2.0
2025-07-21 14:25:28.151,0.9000000000000005,900,45,0.026233964,-0.048937656,0.029978836,0.059178304,0.015544969,-0.045018695,0.0,0.0,0.0,-0.017532805,0.116054006,0.4963276,-0.07579898,0.12543851,-0.25956237,-0.115725346,0.034442443,0.06018187,0.14503963,-0.05514354,0.24534513,0.15538909,0.07611927,-0.06014981,0.055686504,0.022658728,-0.07265509,0.045797963,0.04402269,0.042961992,0.037965458,-0.024488512,-0.072187304,-0.036494214,2.0,2.0,-2.0,2.0,-1.3959372,-2.0,2.0,-0.28660285,-2.0,-2.0,0.3579399,-2.0,2.0,2.0,-2.0,2.0,-1.2298371,-2.0,2.0,-0.3805806,-2.0,-2.0,0.5154656,-2.0
2025-07-21 14:25:28.168,0.9200000000000005,920,46,-0.018176563,0.021337392,0.053227983,0.00552836,0.07031226,0.005268251,0.0,0.0,0.0,-0.017919619,0.09975978,0.48965815,-0.06068976,0.12968601,-0.25123227,-0.11618445,0.027048433,0.06014462,0.1424079,-0.063464165,0.25312832,0.15060513,-0.0075433594,0.06616743,0.0076694447,0.04270854,-0.033655923,0.062410213,0.050756767,0.04531797,0.019202724,0.06552481,-0.020693809,0.03111947,2.0,2.0,-2.0,2.0,-1.2298371,-2.0,2.0,-0.3805806,-2.0,-2.0,0.5154656,-2.0,2.0,2.0,-2.0,2.0,-1.3366158,-2.0,2.0,-0.41782218,-2.0,-2.0,0.7492448,-2.0
2025-07-21 14:25:28.186,0.9400000000000005,940,47,0.043068245,-0.02912366,-0.0027814724,0.017370539,0.06990813,0.032761883,0.0,0.0,0.0,-0.018298669,0.11977217,0.4897068,-0.05793265,0.14180695,-0.267928,-0.10511654,0.033608723,0.061829634,0.13864134,-0.063855305,0.24294467,0.14709617,-0.058327135,0.040661663,0.033715814,0.0009721173,-0.060381427,-0.051677804,0.05013957,-0.0011612218,0.032341424,0.029410804,-0.020367747,-0.020491073,2.0,2.0,-2.0,2.0,-1.3366158,-2.0,2.0,-0.41782218,-2.0,-2.0,0.7492448,-2.0,2.0,2.0,-2.0,2.0,-1.4900358,-2.0,2.0,-0.29692215,-2.0,-2.0,0.27656972,-2.0
2025-07-21 14:25:28.207,0.9600000000000005,960,48,0.04904621,0.017764812,0.05441477,0.039073773,0.018824209,0.02054815,0.0,0.0,0.0,-0.018429546,0.116723076,0.4732932,-0.065292194,0.14379989,-0.26812205,-0.11321232,0.03794287,0.06617431,0.1330707,-0.06238357,0.25380638,0.14611053,0.07126876,-0.009938563,0.07847766,-0.06434409,0.018894281,0.0044832965,-0.019994961,0.014913376,-0.05083823,0.00016827771,-0.0027361847,0.04465822,2.0,2.0,-2.0,2.0,-1.4900358,-2.0,2.0,-0.29692215,-2.0,-2.0,0.27656972,-2.0,2.0,2.0,-2.0,2.0,-1.1300887,-2.0,2.0,-0.4625646,-2.0,-2.0,0.5249923,-2.0
2025-07-21 14:25:28.227,0.9800000000000005,980,49,0.03627209,-0.047559235,-0.015145726,0.008964814,0.022205506,0.023870094,0.0,0.0,0.0,-0.018544186,0.11657644,0.47030526,-0.057639275,0.14219001,-0.2509943,-0.120289676,0.024323415,0.073423386,0.12537009,-0.060020663,0.2472434,0.13386172,-0.06561956,-0.044709094,-0.053294875,-0.03624529,0.07230088,-0.023569377,-0.010818381,-0.078749284,-0.028401341,-0.06835672,-0.014899284,-0.003362085,2.0,2.0,-2.0,2.0,-1.1300887,-2.0,2.0,-0.4625646,-2.0,-2.0,0.5249923,-2.0,2.0,2.0,-2.0,2.0,-1.4267424,-2.0,2.0,-0.24904157,-2.0,-2.0,0.24573652,-2.0
2025-07-21 14:25:28.251,1.0000000000000004,1000,50,0.023916973,0.010341982,-0.0091914665,-0.025740191,0.009085317,0.03088337,0.0,0.0,0.0,-0.018620966,0.111691095,0.47164828,-0.050575368,0.14059305,-0.26676485,-0.11788526,0.029087996,0.06797073,0.122428745,-0.061810385,0.23085326,0.13191509,0.06827096,-0.04032239,0.034674935,-0.039083764,-0.039338425,-0.022244276,-0.022837978,-0.050613843,0.06197971,0.018238174,-0.074187644,-0.06428495,2.0,2.0,-2.0,2.0,-1.4267424,-2.0,2.0,-0.24904157,-2.0,-2.0,0.24573652,-2.0,2.0,2.0,-2.0,2.0,-1.4012679,-2.0,2.0,-0.2967022,-2.0,-2.0,0.24557944,-2.0
2025-07-21 14:25:28.268,1.0200000000000005,1020,51,-0.046536006,-0.007537221,0.031168668,-0.015200951,0.057809785,-0.04374048,0.0,0.0,0.0,-0.0187195,0.12356232,0.47473988,-0.06481579,0.14442925,-0.27213585,-0.12023788,0.019752065,0.07179592,0.110865474,-0.056413233,0.22520043,0.13912316,0.01641622,-0.05060121,0.06472734,0.03435851,-0.018392589,0.040598307,0.07407059,-0.05235008,-0.06263135,-0.041488577,0.038613524,-0.03879382,2.0,2.0,-2.0,2.0,-1.4012679,-2.0,2.0,-0.2967022,-2.0,-2.0,0.24557944,-2.0,2.0,2.0,-2.0,2.0,-1.1962322,-2.0,2.0,-0.38247472,-2.0,-2.0,0.38396814,-2.0
2025-07-21 14:25:28.288,1.0400000000000005,1040,52,-0.036512997,-0.020351632,0.05486274,-0.028252361,0.07100646,0.027042393,0.0,0.0,0.0,-0.018992927,0.1189762,0.45711148,-0.061218746,0.12998484,-0.27604622,-0.1328811,0.034979697,0.06781972,0.10694227,-0.07361818,0.23311669,0.14528084,-0.018966112,-0.0483905,-0.025055572,0.035170283,0.0024864224,-0.06024595,0.0060717277,0.008642914,-0.008922565,0.024083842,-0.032951497,-0.054388016,2.0,2.0,-2.0,2.0,-1.1962322,-2.0,2.0,-0.38247472,-2.0,-2.0,0.38396814,-2.0,2.0,2.0,-2.0,2.0,-1.2627467,-2.0,2.0,-0.4350115,-2.0,-2.0,0.59191626,-2.0
2025-07-21 14:25:28.307,1.0600000000000005,1060,53,-0.008012516,-0.025142904,-0.022206338,-0.0036971902,0.0366683,0.028855665,0.0,0.0,0.0,-0.019220542,0.11396584,0.46975642,-0.049005568,0.14648108,-0.27508503,-0.12985216,0.02915696,0.066646665,0.09902186,-0.058141325,0.21631023,0.14086188,-0.0055452003,-0.07053417,0.038066354,-0.0018327291,-0.051421177,-0.065340824,0.009437617,0.031632233,-0.0777308,-0.07532994,-0.034196675,-0.045599703,2.0,2.0,-2.0,2.0,-1.2627467,-2.0,2.0,-0.4350115,-2.0,-2.0,0.59191626,-2.0,2.0,2.0,-2.0,2.0,-1.4260278,-2.0,2.0,-0.2327962,-2.0,-2.0,0.067485794,-2.0
2025-07-21 14:25:28.327,1.0800000000000005,1080,54,-0.0072453823,-0.086031005,0.004987522,-0.037689444,0.044565037,-7.2150186e-05,0.0,0.0,0.0,-0.019179968,0.11490184,0.44723022,-0.054516297,0.14265734,-0.2686794,-0.121972285,0.029293755,0.055901714,0.10558312,-0.06871278,0.21975449,0.13618241,-0.06807815,-0.06931329,-0.06903952,-0.022043737,-0.064607985,0.04279202,-0.03205066,-0.041146427,-0.0091697555,-0.052399337,0.03428606,0.045345616,2.0,2.0,-2.0,2.0,-1.4260278,-2.0,2.0,-0.2327962,-2.0,-2.0,0.067485794,-2.0,2.0,2.0,-2.0,2.0,-1.0872246,-2.0,2.0,-0.3998075,-2.0,-2.0,0.21670006,-2.0
2025-07-21 14:25:28.351,1.1000000000000005,1100,55,-0.039821405,-0.07172769,-0.025244528,-0.035405938,0.019268647,-0.022621065,0.0,0.0,0.0,-0.019169783,0.12219193,0.45811048,-0.048305336,0.132084,-0.28261015,-0.12496403,0.02933371,0.064286605,0.09574113,-0.06446806,0.21885127,0.14409761,0.029306753,-0.06343623,0.05237664,-0.032640904,-0.07770568,-0.05022577,0.058992926,0.027555551,-0.055690393,-0.052829444,-0.06004551,-0.00019728272,2.0,2.0,-2.0,2.0,-1.0872246,-2.0,2.0,-0.3998075,-2.0,-2.0,0.21670006,-2.0,2.0,2.0,-2.0,2.0,-1.3349907,-2.0,2.0,-0.12692104,-2.0,-2.0,-0.05829103,-2.0
2025-07-21 14:25:28.368,1.1200000000000006,1120,56,0.006535488,-0.03458229,0.010454929,0.01968047,0.016354505,-0.026896136,0.0,0.0,0.0,-0.019253172,0.1121945,0.4486608,-0.04112376,0.13884066,-0.28538573,-0.12864421,0.02294026,0.051214606,0.0872966,-0.06107953,0.21814871,0.13398792,-0.06676245,-0.01814842,-0.020868588,-0.04070057,0.040514752,-0.075254515,0.062088635,-0.053156897,-0.03645395,0.007891947,-0.029167943,0.04292471,2.0,2.0,-2.0,2.0,-1.3349907,-2.0,2.0,-0.12692104,-2.0,-2.0,-0.05829103,-2.0,2.0,2.0,-2.0,2.0,-1.170159,-2.0,2.0,-0.3818919,-2.0,-2.0,0.058149684,-2.0
2025-07-21 14:25:28.387,1.1400000000000006,1140,57,-0.063735284,-0.02120378,-0.004989275,0.01065576,0.06652137,0.012867108,0.0,0.0,0.0,-0.019505965,0.11220291,0.43383875,-0.04509153,0.13280927,-0.2775372,-0.14371796,0.021537352,0.046956666,0.086900756,-0.068958536,0.2089869,0.1506395,-0.025115151,-0.046693496,0.06656708,0.013961308,-0.037440848,-0.069567494,0.047704183,0.024473755,0.05960225,-0.04765604,0.032664344,0.003903436,2.0,2.0,-2.0,2.0,-1.170159,-2.0,2.0,-0.3818919,-2.0,-2.0,0.058149684,-2.0,2.0,2.0,-2.0,2.0,-1.1362473,-2.0,2.0,-0.28937382,-2.0,-2.0,0.17749022,-2.0
2025-07-21 14:25:28.407,1.1600000000000006,1160,58,-0.050434683,-0.06043798,-0.035775047,-0.044861585,0.0979831,0.0077094566,0.0,0.0,0.0,-0.019886801,0.113461435,0.4354853,-0.056545835,0.13274653,-0.2772971,-0.14891936,0.033074073,0.05276756,0.07584887,-0.07220353,0.19991323,0.14795665,0.026533708,-0.052293945,0.05442639,-0.027439082,0.023582783,0.06274689,0.027904581,0.04895731,-0.0738545,-0.04594857,0.01746929,0.021780858,2.0,2.0,-2.0,2.0,-1.1362473,-2.0,2.0,-0.28937382,-2.0,-2.0,0.17749022,-2.0,2.0,2.0,-2.0,2.0,-1.2523931,-2.0,2.0,-0.194108,-2.0,-2.0,-0.0019344203,-2.0
2025-07-21 14:25:28.427,1.1800000000000006,1180,59,-0.03845508,-0.06469467,0.061381448,0.032077093,0.058177587,0.027042134,0.0,0.0,0.0,-0.020158175,0.11079463,0.4426747,-0.057397842,0.14252946,-0.29404384,-0.13814259,0.026912266,0.055002652,0.061200615,-0.06295216,0.19831178,0.14006396,-0.03431142,-0.027693631,-0.021714386,0.051327694,0.025400288,0.061291214,-0.042253967,0.03861304,0.01385122,0.044711668,0.0330898,0.046178777,2.0,2.0,-2.0,2.0,-1.2523931,-2.0,2.0,-0.194108,-2.0,-2.0,-0.0019344203,-2.0,2.0,2.0,-2.0,2.0,-0.9006551,-2.0,2.0,-0.52328086,-2.0,-2.0,0.5169502,-2.0
2025-07-21 14:25:28.451,1.2000000000000006,1200,60,0.053569835,-0.0732424,0.007204578,0.026132813,0.063415624,-0.04433856,0.0,0.0,0.0,-0.020431772,0.12095615,0.4302304,-0.051485512,0.13269615,-0.28207597,-0.14605115,0.021339232,0.046966866,0.056699134,-0.06696219,0.18588358,0.13966586,-0.02834654,-0.043724503,0.033340733,-0.068427384,-0.054465875,0.06311862,-0.055015877,0.041540265,0.037317276,-0.06087064,-0.043440823,0.031580947,2.0,2.0,-2.0,2.0,-0.9006551,-2.0,2.0,-0.52328086,-2.0,-2.0,0.5169502,-2.0,2.0,2.0,-2.0,2.0,-1.1408508,-2.0,2.0,-0.2756955,-2.0,-2.0,0.23147826,-2.0
2025-07-21 14:25:28.468,1.2200000000000006,1220,61,0.056572977,-0.0696877,-0.01603448,0.0067781606,0.057775315,0.00058913085,0.0,0.0,0.0,-0.020366002,0.10364587,0.4358422,-0.055679645,0.13636485,-0.2957105,-0.14442888,0.027769826,0.050348252,0.045461737,-0.07938183,0.17876498,0.13443819,-0.033254776,0.015453962,-0.055722363,-0.037092235,-0.01885029,0.02611975,0.02143681,-0.053543955,-0.040177725,0.061987165,-0.059736665,-0.037275344,2.0,2.0,-2.0,2.0,-1.1408508,-2.0,2.0,-0.2756955,-2.0,-2.0,0.23147826,-2.0,2.0,2.0,-2.0,2.0,-1.3261197,-2.0,2.0,-0.29110563,-2.0,-2.0,0.06364356,-2.0
2025-07-21 14:25:28.488,1.2400000000000007,1240,62,0.01517486,-0.025380703,0.021902878,-0.040127326,0.03755575,0.022192892,0.0,0.0,0.0,-0.019952195,0.10625467,0.4284186,-0.04017423,0.12532732,-0.29635873,-0.14962696,0.020528203,0.05546697,0.052764628,-0.06751119,0.18808603,0.12836677,0.053233027,0.033397034,0.05759566,-0.0196661,-0.033984948,0.062216844,0.02952127,0.023025677,0.016726993,-0.038367033,0.011915828,0.055999435,2.0,2.0,-2.0,2.0,-1.3261197,-2.0,2.0,-0.29110563,-2.0,-2.0,0.06364356,-2.0,2.0,2.0,-2.0,2.0,-1.0924543,-2.0,2.0,-0.3903041,-2.0,-2.0,0.26871687,-2.0
2025-07-21 14:25:28.508,1.2600000000000007,1260,63,-0.029539889,-0.031861775,-0.026739107,-0.0061368872,0.01406923,0.018865662,0.0,0.0,0.0,-0.019571817,0.09889708,0.42245102,-0.0401523,0.13054067,-0.29480815,-0.15100662,0.032045223,0.048670202,0.033300094,-0.064508244,0.18793654,0.13234486,0.00079593324,0.055096813,0.025893046,0.009621448,-0.077867515,-0.054835137,0.07701485,-0.009893825,-0.025386974,-0.03825301,0.04944493,0.0663774,2.0,2.0,-2.0,2.0,-1.0924543,-2.0,2.0,-0.3903041,-2.0,-2.0,0.26871687,-2.0,2.0,2.0,-2.0,2.0,-1.2574311,-2.0,2.0,-0.26414758,-2.0,-2.0,0.060100723,-2.0
2025-07-21 14:25:28.529,1.2800000000000007,1280,64,0.036453065,-0.015517897,-0.046806425,0.013664213,0.06467551,0.013955404,0.0,0.0,0.0,-0.019125782,0.10996079,0.42132568,-0.038537715,0.1333282,-0.2963696,-0.13650818,0.03347883,0.055691842,0.041214444,-0.06863471,0.18870778,0.14071698,0.013047336,-0.055842504,0.001866534,-0.065923356,0.039815288,0.031442787,-0.065729015,0.055797454,-0.05418855,0.026837071,-0.074355,0.0456989,2.0,2.0,-2.0,2.0,-1.2574311,-2.0,2.0,-0.26414758,-2.0,-2.0,0.060100723,-2.0,2.0,2.0,-2.0,2.0,-1.2734187,-2.0,2.0,-0.2439733,-2.0,-2.0,-0.18242116,-2.0
2025-07-21 14:25:28.551,1.3000000000000007,1300,65,-0.042246796,-0.006802063,0.042069644,-0.063312344,0.03764378,0.039884377,0.0,0.0,0.0,-0.01867046,0.10459607,0.41659132,-0.038919013,0.12592234,-0.29570687,-0.13542649,0.03264655,0.04574576,0.034903087,-0.06070463,0.17792708,0.14498341,0.029685693,0.02138651,0.009524432,0.065325275,0.0583438,0.029223248,-0.0024647112,-0.0050034705,-0.015009894,0.067194425,0.0252001,0.0017736846,2.0,2.0,-2.0,2.0,-1.2734187,-2.0,2.0,-0.2439733,-2.0,-2.0,-0.18242116,-2.0,2.0,2.0,-2.0,2.0,-0.9798949,-2.0,2.0,-0.4742865,-2.0,-2.0,0.43049094,-2.0
2025-07-21 14:25:28.568,1.3200000000000007,1320,66,0.0016237686,-0.044546943,-0.05769853,-0.019515267,0.05363637,-0.03371111,0.0,0.0,0.0,-0.018461382,0.11231963,0.40432665,-0.046073306,0.13025634,-0.3115775,-0.15063988,0.03194196,0.040251378,0.03383638,-0.068946175,0.17059125,0.13448401,0.048904307,0.05884279,-0.037845563,0.015921641,0.027683103,-0.03732578,-0.0052737677,-0.066643886,0.022122616,-0.06261255,-0.034187637,0.031588957,2.0,2.0,-2.0,2.0,-0.9798949,-2.0,2.0,-0.4742865,-2.0,-2.0,0.43049094,-2.0,2.0,2.0,-2.0,2.0,-1.4556456,-2.0,2.0,-0.16006924,-2.0,-2.0,0.015815485,-2.0
2025-07-21 14:25:28.588,1.3400000000000007,1340,67,-0.045948103,-0.02704873,-0.03962988,-0.013264485,0.05562302,-0.01969861,0.0,0.0,0.0,-0.018131463,0.108658664,0.39335924,-0.044862363,0.12036807,-0.31508568,-0.1352458,0.026893537,0.052576315,0.019900449,-0.075326264,0.16360271,0.14625767,0.05916696,0.057991885,0.05493499,-0.02872525,0.0076643615,0.013675255,-0.020925106,0.00021281805,-0.051956844,0.047271386,0.054289203,-0.006396639,2.0,2.0,-2.0,2.0,-1.4556456,-2.0,2.0,-0.16006924,-2.0,-2.0,0.015815485,-2.0,2.0,2.0,-2.0,2.0,-1.2593621,-2.0,2.0,-0.37406713,-2.0,-2.0,-0.13642414,-2.0
2025-07-21 14:25:28.608,1.3600000000000008,1360,68,-0.03222968,-0.023993427,0.033591043,-0.017755242,0.100646414,-0.0040016486,0.0,0.0,0.0,-0.01776057,0.09258216,0.38577738,-0.035546575,0.13739805,-0.31519228,-0.13988408,0.025811918,0.05479749,0.0092490055,-0.072795145,0.15527079,0.14527456,-0.006478794,-0.08429899,0.01598859,-0.04035019,0.013397531,0.011364714,-0.051683743,-0.03411534,-0.036320608,0.022739151,0.049442086,0.04862168,2.0,2.0,-2.0,2.0,-1.2593621,-2.0,2.0,-0.37406713,-2.0,-2.0,-0.13642414,-2.0,2.0,2.0,-2.0,2.0,-0.89542407,-2.0,2.0,-0.47767943,-2.0,-2.0,0.23407929,-2.0
2025-07-21 14:25:28.630,1.3800000000000008,1380,69,0.027523328,-0.024281522,0.0057213316,-0.06977773,0.058536507,-0.022841884,0.0,0.0,0.0,-0.017608255,0.099893406,0.39447793,-0.052899458,0.119485594,-0.31573182,-0.14457814,0.031193059,0.04070494,0.018418439,-0.06305344,0.15657322,0.13947949,-0.042527113,0.051467028,-0.07427085,-0.06246282,0.0069921906,0.008493931,0.050334744,-0.02698385,0.021022456,-0.063404866,-0.014490309,0.071525276,2.0,2.0,-2.0,2.0,-0.89542407,-2.0,2.0,-0.47767943,-2.0,-2.0,0.23407929,-2.0,2.0,2.0,-2.0,2.0,-1.19441,-2.0,2.0,-0.30993134,-2.0,-2.0,0.17658179,-2.0
2025-07-21 14:25:28.651,1.4000000000000008,1400,70,0.001210149,-0.07547113,-0.03936239,-0.09334029,0.03679681,0.047693502,0.0,0.0,0.0,-0.017326985,0.089049086,0.3752675,-0.04717601,0.12937954,-0.32336506,-0.14657083,0.027034778,0.03295713,-0.003728524,-0.07032078,0.15189637,0.1382312,0.025832113,-0.010678844,0.029876167,-0.0030622822,0.06478649,0.038600095,-0.05045041,-0.020079851,-0.08281885,0.05759101,-0.0179815,0.022146262,2.0,2.0,-2.0,2.0,-1.19441,-2.0,2.0,-0.30993134,-2.0,-2.0,0.17658179,-2.0,2.0,2.0,-2.0,2.0,-1.283743,-2.0,2.0,-0.29092842,-2.0,-2.0,-0.01489104,-2.0
2025-07-21 14:25:28.668,1.4200000000000008,1420,71,-0.03724155,-0.021338345,0.023467086,-0.06662214,0.09462399,-0.025386894,0.0,0.0,0.0,-0.016885089,0.09334212,0.37764567,-0.042275526,0.12095189,-0.3192535,-0.1460739,0.03599659,0.03847691,-0.010580701,-0.074642584,0.16295423,0.13615783,0.0065432317,-0.08328232,0.03848923,-0.038737938,-0.036490813,-0.005646881,-0.052581124,0.052632336,0.06018134,0.028214842,-0.047677156,0.052064262,2.0,2.0,-2.0,2.0,-1.283743,-2.0,2.0,-0.29092842,-2.0,-2.0,-0.01489104,-2.0,2.0,2.0,-2.0,2.0,-0.9387998,-2.0,2.0,-0.44488275,-2.0,-2.0,0.19559221,-2.0
2025-07-21 14:25:28.688,1.4400000000000008,1440,72,0.007497831,-0.0410727,-0.03389475,-0.019457603,0.05305392,0.04214705,0.0,0.0,0.0,-0.016536564,0.08458645,0.37319976,-0.052026596,0.121714756,-0.31671497,-0.13835959,0.019148458,0.047196645,0.0023941686,-0.067802675,0.15337707,0.14470787,0.05729885,-0.07501063,-0.029515514,-0.074640244,-0.03603898,0.041837182,0.056306902,-0.065710165,-0.014413441,-0.0412267,-0.03487077,-0.059162695,2.0,2.0,-2.0,2.0,-0.9387998,-2.0,2.0,-0.44488275,-2.0,-2.0,0.19559221,-2.0,2.0,2.0,-2.0,2.0,-1.2400823,-2.0,2.0,-0.29784077,-2.0,-2.0,0.12433867,-2.0
2025-07-21 14:25:28.708,1.4600000000000009,1460,73,0.051639892,-0.007827339,0.015686307,-0.046691813,0.052217394,-0.014583673,0.0,0.0,0.0,-0.016147144,0.083183125,0.36524096,-0.04295428,0.12864019,-0.32694975,-0.14873514,0.02992002,0.046696205,-0.0019631,-0.060200244,0.1420484,0.13377921,-0.05450236,-0.044267934,0.015565925,0.054312635,-0.016630216,0.025249982,-0.052526385,-0.005297829,-0.067486614,-0.023816157,-0.07501012,-0.029470341,2.0,2.0,-2.0,2.0,-1.2400823,-2.0,2.0,-0.29784077,-2.0,-2.0,0.12433867,-2.0,2.0,2.0,-2.0,2.0,-1.0686721,-2.0,2.0,-0.47047698,-2.0,-2.0,0.2058299,-2.0
2025-07-21 14:25:28.734,1.4800000000000009,1480,74,-0.026167115,-0.00057142833,-0.045899794,-0.10391178,0.029873822,0.034563657,0.0,0.0,0.0,-0.015706403,0.07995955,0.37586352,-0.03966718,0.11382377,-0.32663035,-0.1327894,0.024616715,0.0331123,-0.01594237,-0.07399621,0.15379472,0.1398976,-0.011126564,-0.0655279,0.051767964,0.017403692,0.042832278,0.046446677,-0.014041033,0.06880031,0.025684282,-0.007194938,0.045805186,-0.0595876,2.0,2.0,-2.0,2.0,-1.0686721,-2.0,2.0,-0.47047698,-2.0,-2.0,0.2058299,-2.0,2.0,2.0,-2.0,2.0,-1.2360183,-2.0,2.0,-0.26211256,-2.0,-2.0,0.0646389,-2.0
2025-07-21 14:25:28.751,1.5000000000000009,1500,75,0.027671512,-0.049684644,-0.059885357,-0.06514408,0.030521084,-0.040611953,0.0,0.0,0.0,-0.015213973,0.07703204,0.3607615,-0.04103558,0.121673845,-0.32184756,-0.14124435,0.039366286,0.037407167,-0.01740942,-0.07335386,0.15137862,0.13020034,0.066231444,-0.054732,-0.021326637,0.049298376,0.05379585,-0.03343616,0.07746812,0.05400951,0.042564534,0.021616459,-0.06715812,0.040856816,2.0,2.0,-2.0,2.0,-1.2360183,-2.0,2.0,-0.26211256,-2.0,-2.0,0.0646389,-2.0,2.0,2.0,-2.0,2.0,-1.2905796,-2.0,2.0,-0.30229133,-2.0,-2.0,-0.15979482,-2.0
2025-07-21 14:25:28.769,1.520000000000001,1520,76,0.016687937,0.011431275,-0.037226472,-0.05257571,0.10889333,0.0022675048,0.0,0.0,0.0,-0.014762442,0.08027489,0.3622597,-0.042720433,0.115936264,-0.33967128,-0.15081021,0.029724043,0.04399813,-0.03143504,-0.068742275,0.14690073,0.14331399,0.05213483,0.034914415,0.07099546,0.07650788,-0.013511476,-0.04405335,0.06470708,-0.0016788521,0.043891005,-0.051200904,0.056103338,0.045417037,2.0,2.0,-2.0,2.0,-1.2905796,-2.0,2.0,-0.30229133,-2.0,-2.0,-0.15979482,-2.0,2.0,2.0,-2.0,2.0,-1.0955087,-2.0,2.0,-0.3811623,-2.0,-2.0,-0.023591708,-2.0
2025-07-21 14:25:28.789,1.540000000000001,1540,77,-0.019313045,-0.057348195,0.042003397,-0.10314738,0.04615523,-0.04360237,0.0,0.0,0.0,-0.014579104,0.0777593,0.36631376,-0.043977506,0.123041704,-0.3254942,-0.13376483,0.028512035,0.02732251,-0.030878378,-0.057905212,0.14764868,0.12878168,-0.05849491,-0.032774176,-0.055397533,0.033191375,-0.06316525,0.05902377,-0.0034116292,-0.020820873,0.02122156,-0.056794636,-0.06626772,0.075743936,2.0,2.0,-2.0,2.0,-1.0955087,-2.0,2.0,-0.3811623,-2.0,-2.0,-0.023591708,-2.0,2.0,2.0,-2.0,2.0,-0.8845091,-2.0,2.0,-0.50037044,-2.0,-2.0,0.31771937,-2.0
2025-07-21 14:25:28.809,1.560000000000001,1560,78,-0.0048915925,0.0044137468,-0.012791562,-0.01812714,0.102813914,0.023413237,0.0,0.0,0.0,-0.014558944,0.09138603,0.3610461,-0.04556249,0.12953788,-0.3388367,-0.14028002,0.022340048,0.024219127,-0.021371523,-0.058140554,0.14149359,0.13236251,0.0046871775,0.026360711,-0.0737193,-0.034557234,-0.0134740155,0.019205194,0.07141296,0.065109976,-0.074582465,0.039569587,0.032114953,-0.056029584,2.0,2.0,-2.0,2.0,-0.8845091,-2.0,2.0,-0.50037044,-2.0,-2.0,0.31771937,-2.0,2.0,2.0,-2.0,2.0,-1.1988567,-2.0,2.0,-0.38713735,-2.0,-2.0,0.15632527,-2.0
2025-07-21 14:25:28.834,1.580000000000001,1580,79,-0.008863755,-0.011654051,0.00094646076,-0.053120047,0.017535811,0.02061511,0.0,0.0,0.0,-0.014344683,0.08023784,0.36106107,-0.035208505,0.12645261,-0.32663456,-0.13443227,0.025456289,0.0356849,-0.038840823,-0.055308763,0.13722011,0.13316622,-0.045697726,0.030905824,-0.0020173718,0.040520746,0.010381189,0.06730706,-0.058832575,0.041963395,-0.040166706,-0.044081748,0.009022723,-0.027037341,2.0,2.0,-2.0,2.0,-1.1988567,-2.0,2.0,-0.38713735,-2.0,-2.0,0.15632527,-2.0,2.0,2.0,-2.0,2.0,-1.0991508,-2.0,2.0,-0.45908803,-2.0,-2.0,0.21401076,-2.0
2025-07-21 14:25:28.852,1.600000000000001,1600,80,0.05692089,-0.017728694,-0.056159303,-0.1002523,0.013152608,-0.040530626,0.0,0.0,0.0,-0.013963481,0.06933499,0.3458977,-0.052324764,0.1267165,-0.32806292,-0.13650647,0.03342945,0.025296656,-0.027966201,-0.05686567,0.14392056,0.12407089,-0.057147793,-0.064288095,-0.0519037,-0.035928383,0.045304917,0.015090004,-0.0059329174,-0.017013397,0.063404255,0.05017021,-0.030770624,0.059534684,2.0,2.0,-2.0,2.0,-1.0991508,-2.0,2.0,-0.45908803,-2.0,-2.0,0.21401076,-2.0,2.0,2.0,-2.0,2.0,-1.2561884,-2.0,2.0,-0.2761261,-2.0,-2.0,-0.06284876,-2.0
2025-07-21 14:25:28.869,1.620000000000001,1620,81,-0.00084030756,0.011598902,0.008658217,-0.093798734,0.08648422,0.04044767,0.0,0.0,0.0,-0.013526448,0.07652629,0.3604794,-0.03880998,0.12529495,-0.3375496,-0.139288,0.041593216,0.030754536,-0.0265594,-0.07148436,0.14729178,0.13233179,0.057826243,-0.0028207782,-0.01099461,0.049106285,0.055121597,-0.070187755,0.002589014,-1.9586741e-05,-0.008551942,0.00673181,-0.06520557,0.04301327,2.0,2.0,-2.0,2.0,-1.2561884,-2.0,2.0,-0.2761261,-2.0,-2.0,-0.06284876,-2.0,2.0,2.0,-2.0,2.0,-1.0712996,-2.0,2.0,-0.4705189,-2.0,-2.0,0.18146084,-2.0
2025-07-21 14:25:28.889,1.640000000000001,1640,82,0.040742457,-0.044884715,-0.034456734,-0.10196051,0.10957195,-0.013139409,0.0,0.0,0.0,-0.013223437,0.07947096,0.3548789,-0.037879486,0.11221267,-0.34459913,-0.14502087,0.039795537,0.03816696,-0.02685888,-0.06177784,0.14706236,0.12976329,0.07172551,0.015155467,-0.04469654,0.064588,-0.038438726,-0.05521739,-0.013750201,0.010363785,-0.055056307,-0.008365846,0.056343824,-0.031903934,2.0,2.0,-2.0,2.0,-1.0712996,-2.0,2.0,-0.4705189,-2.0,-2.0,0.18146084,-2.0,2.0,2.0,-2.0,2.0,-1.2240075,-2.0,2.0,-0.37267655,-2.0,-2.0,0.15981661,-2.0
2025-07-21 14:25:28.909,1.660000000000001,1660,83,0.007895159,-0.059695754,-0.047182202,-0.035057843,0.04562045,-0.030984867,0.0,0.0,0.0,-0.013002625,0.075698696,0.3569447,-0.042071927,0.12716572,-0.34201,-0.15246487,0.036684446,0.03774494,-0.044271305,-0.052998476,0.13945764,0.12853713,0.025484834,-0.039988063,-0.017032897,0.06881744,0.02075148,0.0030132844,0.013855196,0.014616855,-0.010922817,0.011452862,0.050223023,0.031135203,2.0,2.0,-2.0,2.0,-1.2240075,-2.0,2.0,-0.37267655,-2.0,-2.0,0.15981661,-2.0,2.0,2.0,-2.0,2.0,-1.1946818,-2.0,2.0,-0.37392622,-2.0,-2.0,0.011683691,-2.0
2025-07-21 14:25:28.934,1.680000000000001,1680,84,-0.05380262,-0.050712723,0.042480573,-0.030633394,0.0635652,-0.03222819,0.0,0.0,0.0,-0.012755245,0.07007233,0.34810972,-0.044545546,0.11839225,-0.3346524,-0.14599685,0.034762062,0.02577316,-0.043051604,-0.061652694,0.13400738,0.12549654,0.054688953,0.02072043,-0.0418395,-0.049822345,-0.030925527,-0.046632793,0.004359464,0.034224812,0.055551935,0.06100157,-0.066627294,-0.067385554,2.0,2.0,-2.0,2.0,-1.1946818,-2.0,2.0,-0.37392622,-2.0,-2.0,0.011683691,-2.0,2.0,2.0,-2.0,2.0,-0.9950837,-2.0,2.0,-0.55098337,-2.0,-2.0,0.34439793,-2.0
2025-07-21 14:25:28.951,1.700000000000001,1700,85,-0.0016816994,-0.030875832,-0.0481531,-0.04118594,0.051762562,0.031334676,0.0,0.0,0.0,-0.012615025,0.07005605,0.33999678,-0.05128597,0.11449508,-0.32835466,-0.14189929,0.028577631,0.030046757,-0.030204436,-0.06085946,0.13919179,0.1183862,-0.021628171,0.06463837,0.009398327,-0.048199773,0.02288254,-0.048580196,0.045526687,0.003939921,-0.06278828,0.0085363155,-0.06720798,-0.03535126,2.0,2.0,-2.0,2.0,-0.9950837,-2.0,2.0,-0.55098337,-2.0,-2.0,0.34439793,-2.0,2.0,2.0,-2.0,2.0,-1.319847,-2.0,2.0,-0.27210337,-2.0,-2.0,-0.092537954,-2.0
2025-07-21 14:25:28.970,1.720000000000001,1720,86,-0.011569414,-0.03564206,0.0021377567,-0.042797215,0.10724782,0.0018528481,0.0,0.0,0.0,-0.012373653,0.07060192,0.34784222,-0.05057997,0.11146511,-0.3363108,-0.14977176,0.036651663,0.024546236,-0.031370968,-0.06194852,0.1359182,0.13699149,0.032884546,0.05643257,-0.031675715,-0.04281976,-0.049287368,0.04678119,-0.061529,0.043634843,0.010510502,0.04594468,0.0104915295,-0.034447353,2.0,2.0,-2.0,2.0,-1.319847,-2.0,2.0,-0.27210337,-2.0,-2.0,-0.092537954,-2.0,2.0,2.0,-2.0,2.0,-0.9866173,-2.0,2.0,-0.52249026,-2.0,-2.0,0.22606145,-2.0
2025-07-21 14:25:28.989,1.740000000000001,1740,87,0.02073244,-0.011158171,0.03620915,-0.07269519,0.059178285,-0.04695965,0.0,0.0,0.0,-0.012215496,0.07656923,0.35061455,-0.036935277,0.122694485,-0.33081502,-0.1373444,0.030611161,0.032064524,-0.039613493,-0.054401796,0.14803906,0.13466866,-0.005226122,0.028481929,0.008927929,-0.07486628,0.005492667,-0.059164975,0.005960312,0.072341874,-0.011096648,0.05013462,-0.00766056,-0.019503204,2.0,2.0,-2.0,2.0,-0.9866173,-2.0,2.0,-0.52249026,-2.0,-2.0,0.22606145,-2.0,2.0,2.0,-2.0,2.0,-1.0852293,-2.0,2.0,-0.46778047,-2.0,-2.0,0.29707015,-2.0
2025-07-21 14:25:29.009,1.7600000000000011,1760,88,0.055790897,0.02976511,-0.064065196,-0.020062504,0.099929996,-0.040050745,0.0,0.0,0.0,-0.012128878,0.08033891,0.33520463,-0.04690285,0.11939594,-0.3363504,-0.14001468,0.043047104,0.032000214,-0.035383772,-0.06260851,0.14913647,0.13389033,-0.06563822,-0.048680242,-0.0732487,0.05547407,-0.06286781,0.02146798,-0.036986202,-0.06108528,-0.074135795,0.036812343,-0.0041831196,0.047808845,2.0,2.0,-2.0,2.0,-1.0852293,-2.0,2.0,-0.46778047,-2.0,-2.0,0.29707015,-2.0,2.0,2.0,-2.0,2.0,-1.2111177,-2.0,2.0,-0.325715,-2.0,-2.0,-0.038340997,-2.0
2025-07-21 14:25:29.035,1.7800000000000011,1780,89,0.0392527,-0.038075082,-0.04816986,-0.100682184,0.08452844,0.009793894,0.0,0.0,0.0,-0.011881565,0.07958917,0.3339082,-0.0503843,0.12241835,-0.33935028,-0.13427557,0.034358043,0.017912328,-0.03901132,-0.054244272,0.1397937,0.12671924,0.07574742,-0.0537497,-0.06340326,-0.032096833,-0.05813162,-0.004595256,-0.0006948602,-0.025790608,-0.03380459,-0.029294021,-0.030823153,-0.020903934,2.0,2.0,-2.0,2.0,-1.2111177,-2.0,2.0,-0.325715,-2.0,-2.0,-0.038340997,-2.0,2.0,2.0,-2.0,2.0,-1.1299722,-2.0,2.0,-0.41356498,-2.0,-2.0,-0.026083421,-2.0
2025-07-21 14:25:29.052,1.8000000000000012,1800,90,-0.05526379,-0.031216986,0.044682883,-0.033240538,0.06375851,0.033181943,0.0,0.0,0.0,-0.011748335,0.06463986,0.35107994,-0.043621514,0.1273225,-0.33706543,-0.13298777,0.03743888,0.028063146,-0.029845944,-0.06251421,0.13931681,0.12683952,-0.012299122,0.0066737896,0.03342177,-0.037330598,0.028781168,0.030321484,0.054393556,0.0053988015,0.02395621,0.03721966,-0.05494058,0.070601664,2.0,2.0,-2.0,2.0,-1.1299722,-2.0,2.0,-0.41356498,-2.0,-2.0,-0.026083421,-2.0,2.0,2.0,-2.0,2.0,-0.8941118,-2.0,2.0,-0.5090551,-2.0,-2.0,0.2869649,-2.0
2025-07-21 14:25:29.070,1.8200000000000012,1820,91,0.055685513,0.062211238,0.029766425,-0.063996345,0.06028835,0.034552727,0.0,0.0,0.0,-0.0118362745,0.07961834,0.33424008,-0.040635422,0.11264258,-0.3448957,-0.14636461,0.029959528,0.018605273,-0.04052418,-0.051207893,0.13771652,0.13376608,-0.056927167,-0.043647576,0.0145397065,-0.003430976,0.033936422,0.013493799,0.046507522,-0.0021283848,-0.06574722,-0.045733593,0.039063938,0.03872455,2.0,2.0,-2.0,2.0,-0.8941118,-2.0,2.0,-0.5090551,-2.0,-2.0,0.2869649,-2.0,2.0,2.0,-2.0,2.0,-0.9886006,-2.0,2.0,-0.5379063,-2.0,-2.0,0.34537354,-2.0
2025-07-21 14:25:29.090,1.8400000000000012,1840,92,0.009810852,-0.00023797128,0.01842212,-0.061564464,0.013036785,-0.030856868,0.0,0.0,0.0,-0.011851412,0.06954797,0.33739385,-0.048187617,0.10881202,-0.33999515,-0.13545763,0.040771376,0.028708253,-0.035968177,-0.060922153,0.14602177,0.12546188,0.05713716,-0.05355175,-0.021270506,-0.06681502,0.004760188,0.016398834,0.07291516,-0.023733791,-0.013332117,0.013189236,-0.00065592193,-0.075324416,2.0,2.0,-2.0,2.0,-0.9886006,-2.0,2.0,-0.5379063,-2.0,-2.0,0.34537354,-2.0,2.0,2.0,-2.0,2.0,-1.154146,-2.0,2.0,-0.5187563,-2.0,-2.0,0.41408122,-2.0
2025-07-21 14:25:29.110,1.8600000000000012,1860,93,0.04825075,0.007848659,-0.05760642,-0.04229929,0.060876492,-0.030583411,0.0,0.0,0.0,-0.011628332,0.0639291,0.33799526,-0.04875062,0.1218765,-0.32846344,-0.14739946,0.03054357,0.027725328,-0.036801968,-0.068237916,0.15285191,0.11413346,-0.05491842,0.0018247764,0.07123365,0.03745457,0.050146084,0.041424446,0.061618745,0.04754265,-0.063509606,0.041021496,-0.029776428,0.022224782,2.0,2.0,-2.0,2.0,-1.154146,-2.0,2.0,-0.5187563,-2.0,-2.0,0.41408122,-2.0,2.0,2.0,-2.0,2.0,-1.2509178,-2.0,2.0,-0.27600873,-2.0,-2.0,-0.13085403,-2.0
2025-07-21 14:25:29.135,1.8800000000000012,1880,94,-0.048605546,0.008440649,-0.038734782,-0.06005249,0.012038303,-0.010752328,0.0,0.0,0.0,-0.0112167075,0.07437288,0.3507663,-0.041273426,0.121481046,-0.32450005,-0.14737296,0.041242417,0.01704872,-0.025419595,-0.050636116,0.1557627,0.1246179,0.014382925,-0.0053268387,-0.014211455,0.021454329,-0.04841179,-0.005822684,0.06096771,0.033890747,0.048942644,-0.069905914,0.007915603,-0.033567537,2.0,2.0,-2.0,2.0,-1.2509178,-2.0,2.0,-0.27600873,-2.0,-2.0,-0.13085403,-2.0,2.0,2.0,-2.0,2.0,-1.0767237,-2.0,2.0,-0.4262159,-2.0,-2.0,0.025398124,-2.0
2025-07-21 14:25:29.151,1.9000000000000012,1900,95,9.083404e-05,0.02658839,0.026775185,-0.057177,0.0943569,0.043470893,0.0,0.0,0.0,-0.011028707,0.07569328,0.3356887,-0.051773496,0.11410989,-0.32505217,-0.14552934,0.03357752,0.02865745,-0.029543605,-0.059546713,0.14602606,0.124632634,-0.04146551,0.05394319,0.017384522,-0.0060375594,0.016037868,-0.064982004,0.029164989,-0.05249544,0.07009684,0.0059330524,-0.026556104,-0.03208095,2.0,2.0,-2.0,2.0,-1.0767237,-2.0,2.0,-0.4262159,-2.0,-2.0,0.025398124,-2.0,2.0,2.0,-2.0,2.0,-1.0184474,-2.0,2.0,-0.51445407,-2.0,-2.0,0.33630276,-2.0
2025-07-21 14:25:29.170,1.9200000000000013,1920,96,0.020708457,0.061044052,-0.046737455,-0.038130295,0.07801151,0.04092466,0.0,0.0,0.0,-0.01116024,0.0799244,0.35121325,-0.051943775,0.11305111,-0.33040333,-0.15318066,0.044825602,0.030116353,-0.023669733,-0.05730229,0.13976312,0.12457339,0.06903678,0.022626152,-0.053043835,-0.0147092715,0.013902334,0.019634115,0.0030441692,0.045406338,-0.059114598,0.066663936,0.0075180707,-0.064049736,2.0,2.0,-2.0,2.0,-1.0184474,-2.0,2.0,-0.51445407,-2.0,-2.0,0.33630276,-2.0,2.0,2.0,-2.0,2.0,-1.2886871,-2.0,2.0,-0.3320288,-2.0,-2.0,0.1302061,-2.0
2025-07-21 14:25:29.190,1.9400000000000013,1940,97,-0.05043388,-0.032705743,-0.02730365,-0.05751989,0.056536295,-0.014800798,0.0,0.0,0.0,-0.011241521,0.06783163,0.34201694,-0.040057275,0.11194381,-0.33629087,-0.1451178,0.0436491,0.02351858,-0.036649436,-0.054234628,0.14386396,0.11780133,-0.06829426,-0.029084682,0.068606935,0.034011565,-0.048173822,0.057448138,-0.05105992,-0.052821144,0.076691374,-0.018047394,-0.013385153,0.033727206,2.0,2.0,-2.0,2.0,-1.2886871,-2.0,2.0,-0.3320288,-2.0,-2.0,0.1302061,-2.0,2.0,2.0,-2.0,2.0,-1.0515565,-2.0,2.0,-0.42833692,-2.0,-2.0,0.12708811,-2.0
2025-07-21 14:25:29.210,1.9600000000000013,1960,98,0.042530373,0.007356715,0.008283264,-0.06351645,0.10571426,0.020661563,0.0,0.0,0.0,-0.011343125,0.08236003,0.35298038,-0.03923187,0.11236593,-0.32974875,-0.13696785,0.03143015,0.031487714,-0.027520534,-0.049339805,0.14078768,0.12970857,-0.048185445,-0.022134848,-0.034057096,-0.0164062,-0.02754023,-0.022712534,0.042671077,-0.051878,-0.06332942,-0.01756761,0.013572619,0.06326702,2.0,2.0,-2.0,2.0,-1.0515565,-2.0,2.0,-0.42833692,-2.0,-2.0,0.12708811,-2.0,2.0,2.0,-2.0,2.0,-1.0309736,-2.0,2.0,-0.47637272,-2.0,-2.0,0.17636608,-2.0
2025-07-21 14:25:29.235,1.9800000000000013,1980,99,0.04748137,0.031332064,-0.02834403,-0.09263536,0.06978937,-0.043665715,0.0,0.0,0.0,-0.011556026,0.081680566,0.35451213,-0.044575218,0.118468,-0.3247615,-0.15177646,0.039042376,0.021729797,-0.033275764,-0.06195215,0.14072745,0.12770705,0.052222993,-0.012173824,-0.06376162,-0.06546012,-0.011896324,-0.047420315,-0.06965956,0.0319602,-0.06476732,-0.014973927,0.008512872,-0.03779127,2.0,2.0,-2.0,2.0,-1.0309736,-2.0,2.0,-0.47637272,-2.0,-2.0,0.17636608,-2.0,2.0,2.0,-2.0,2.0,-1.1919525,-2.0,2.0,-0.33912224,-2.0,-2.0,0.06585424,-2.0
2025-07-21 14:25:29.251,2.0000000000000013,2000,100,-0.03944468,0.019644946,-0.0147432415,-0.039551876,0.086125575,-0.005049738,0.0,0.0,0.0,-0.011753889,0.07536747,0.34483492,-0.04940865,0.11434349,-0.32349017,-0.14887586,0.03126072,0.018024463,-0.02628017,-0.061575256,0.15014476,0.11681329,0.043290194,-0.05822438,-0.050610606,0.06451027,-0.007284778,-0.05636035,0.035660148,-0.055260472,0.001804128,-0.019237105,-0.009148966,0.06486762,2.0,2.0,-2.0,2.0,-1.1919525,-2.0,2.0,-0.33912224,-2.0,-2.0,0.06585424,-2.0,2.0,2.0,-2.0,2.0,-1.0450929,-2.0,2.0,-0.4715386,-2.0,-2.0,0.18687873,-2.0
2025-07-21 14:25:29.270,2.0200000000000014,2020,101,-0.02722022,-0.0045459014,0.003920901,-0.10620773,0.01608234,-0.00026772282,0.0,0.0,0.0,-0.012027198,0.07160041,0.36079234,-0.042853646,0.12607588,-0.33452344,-0.14956848,0.034688905,0.031714354,-0.021948878,-0.058371197,0.14148515,0.13050295,0.023135453,0.06655668,0.049040582,-0.031282306,-0.029641578,-0.0054136766,0.06807844,0.025348553,0.05589113,-0.035019144,0.02752788,0.06312791,2.0,2.0,-2.0,2.0,-1.0450929,-2.0,2.0,-0.4715386,-2.0,-2.0,0.18687873,-2.0,2.0,2.0,-2.0,2.0,-1.1383321,-2.0,2.0,-0.360062,-2.0,-2.0,0.18617575,-2.0
2025-07-21 14:25:29.291,2.0400000000000014,2040,102,0.024991995,0.0014811311,0.0010291782,-0.069243595,0.017517224,-0.0016638188,0.0,0.0,0.0,-0.01232743,0.079751074,0.35445938,-0.05147495,0.13078704,-0.32475102,-0.13558422,0.03760563,0.029636165,-0.024021182,-0.0576552,0.15589176,0.13039334,-0.0028586548,0.07052872,-0.03685845,0.06842399,-0.039852045,0.006234988,-0.013777799,0.007284448,-0.0351096,0.012442422,0.056693982,-0.062925585,2.0,2.0,-2.0,2.0,-1.1383321,-2.0,2.0,-0.360062,-2.0,-2.0,0.18617575,-2.0,2.0,2.0,-2.0,2.0,-1.1332495,-2.0,2.0,-0.5033292,-2.0,-2.0,0.34040618,-2.0
2025-07-21 14:25:29.311,2.0600000000000014,2060,103,-0.024534691,0.060534533,-0.028193397,-0.08983664,0.055289388,-0.00931589,0.0,0.0,0.0,-0.0125973,0.07459869,0.36222678,-0.051690485,0.12068888,-0.31910565,-0.15092707,0.045684397,0.026464574,-0.013094708,-0.05340103,0.16198604,0.12617832,0.013067026,-0.026113253,0.020300701,-0.06752261,0.012883681,-0.053240266,0.020549225,0.0029629015,-0.0043015843,0.015844863,-0.028602954,-0.03330936,2.0,2.0,-2.0,2.0,-1.1332495,-2.0,2.0,-0.5033292,-2.0,-2.0,0.34040618,-2.0,2.0,2.0,-2.0,2.0,-1.2804147,-2.0,2.0,-0.32291818,-2.0,-2.0,0.113833055,-2.0
2025-07-21 14:25:29.335,2.0800000000000014,2080,104,0.024788195,-0.043119352,-0.033211827,-0.07216568,0.046078514,0.0100456085,0.0,0.0,0.0,-0.012757901,0.08845985,0.3671827,-0.037099764,0.118276946,-0.31704384,-0.13606073,0.032700192,0.02617694,-0.024266912,-0.05566137,0.15056135,0.119680695,-0.03368448,0.026224274,0.028686237,0.025353082,0.0134992,-0.058835816,0.015782716,-0.016433204,-0.016231202,-0.023294648,0.023214255,0.034380566,2.0,2.0,-2.0,2.0,-1.2804147,-2.0,2.0,-0.32291818,-2.0,-2.0,0.113833055,-2.0,2.0,2.0,-2.0,2.0,-1.180941,-2.0,2.0,-0.38510078,-2.0,-2.0,-0.04254223,-2.0
2025-07-21 14:25:29.351,2.1000000000000014,2100,105,0.024696123,-0.02272933,0.0028080826,-0.034727428,0.03322113,-0.025227105,0.0,0.0,0.0,-0.012919027,0.07076386,0.36558783,-0.042505138,0.12952973,-0.32474023,-0.15122403,0.039704666,0.024354998,-0.018610632,-0.06750106,0.16297674,0.119202904,-0.02665113,-0.041750412,-0.014928974,-0.035025522,-0.012158752,-0.0075794,-0.068656474,0.0288076,0.0646601,-0.07557794,0.050353236,0.07720673,2.0,2.0,-2.0,2.0,-1.180941,-2.0,2.0,-0.38510078,-2.0,-2.0,-0.04254223,-2.0,2.0,2.0,-2.0,2.0,-0.91542244,-2.0,2.0,-0.4696495,-2.0,-2.0,0.19807963,-2.0
2025-07-21 14:25:29.371,2.1200000000000014,2120,106,0.010243808,0.014234216,-0.015768753,-0.052931584,0.03801232,-0.024662122,0.0,0.0,0.0,-0.013261226,0.088691704,0.36065418,-0.03313691,0.131063,-0.3252609,-0.14797066,0.044037092,0.037510622,-0.0016596225,-0.057607938,0.15512283,0.1370895,0.0532648,-0.0050921342,0.009159623,0.026841689,0.037428036,-0.0064681396,-0.019061705,0.039557382,-0.012540959,0.0536547,0.069333896,0.07430693,2.0,2.0,-2.0,2.0,-0.91542244,-2.0,2.0,-0.4696495,-2.0,-2.0,0.19807963,-2.0,2.0,2.0,-2.0,2.0,-1.1407056,-2.0,2.0,-0.33367163,-2.0,-2.0,0.22725405,-2.0
2025-07-21 14:25:29.391,2.1400000000000015,2140,107,-0.030732747,-0.030993605,-0.022259174,-0.029695246,0.009626554,0.015470213,0.0,0.0,0.0,-0.01358479,0.07285113,0.35960808,-0.038616218,0.1193019,-0.3273341,-0.15285392,0.036473155,0.022088606,-0.0097558815,-0.07086612,0.15073632,0.13680002,0.06951816,0.027858434,-0.012568588,0.07371654,-0.016436797,0.024556981,-0.050576426,-0.05814923,0.019230288,0.02569563,0.04205898,0.054728206,2.0,2.0,-2.0,2.0,-1.1407056,-2.0,2.0,-0.33367163,-2.0,-2.0,0.22725405,-2.0,2.0,2.0,-2.0,2.0,-1.1873243,-2.0,2.0,-0.426988,-2.0,-2.0,0.32019016,-2.0
2025-07-21 14:25:29.414,2.1600000000000015,2160,108,0.0120420465,-0.015265142,0.038249336,-0.099666655,0.03564117,-0.043161508,0.0,0.0,0.0,-0.013821185,0.07862809,0.36717063,-0.045740254,0.12726577,-0.31471452,-0.13533011,0.038174752,0.025322983,-0.013870941,-0.0721008,0.15617175,0.13523939,0.032651376,0.0643675,-0.033158857,0.04209366,-0.00940696,0.07652154,0.053665183,-0.0077828313,-0.031860612,0.03490536,-0.03273586,0.021803124,2.0,2.0,-2.0,2.0,-1.1873243,-2.0,2.0,-0.426988,-2.0,-2.0,0.32019016,-2.0,2.0,2.0,-2.0,2.0,-1.1612978,-2.0,2.0,-0.49644226,-2.0,-2.0,0.46424448,-2.0
2025-07-21 14:25:29.438,2.1800000000000015,2180,109,0.04803852,0.00016143917,0.008656525,-0.024318533,0.10288232,0.007563116,0.0,0.0,0.0,-0.013969269,0.082962275,0.36663607,-0.03838482,0.12577245,-0.32363337,-0.13533202,0.042137697,0.029182386,-0.012505328,-0.052484952,0.1599303,0.1254353,0.039139617,-0.061724916,-0.02410157,-0.05143388,-0.026524127,0.066656575,0.048149873,0.0672207,-0.029825814,-0.060839232,-0.054545734,0.020253314,2.0,2.0,-2.0,2.0,-1.1612978,-2.0,2.0,-0.49644226,-2.0,-2.0,0.46424448,-2.0,2.0,2.0,-2.0,2.0,-1.1148372,-2.0,2.0,-0.4833567,-2.0,-2.0,0.3161867,-2.0
2025-07-21 14:25:29.455,2.2000000000000015,2200,110,-0.023156505,-0.007880674,-0.0018359098,-0.053347513,0.06984231,-0.043450847,0.0,0.0,0.0,-0.013892008,0.08645072,0.37772128,-0.045758642,0.121750675,-0.32257527,-0.14435251,0.036876567,0.032056503,0.004532747,-0.0640507,0.1626669,0.12927529,-0.05767986,-0.048724618,-0.020075949,0.036243245,-0.015442829,0.07508673,0.02154194,0.00078784494,0.03163968,-0.032703564,0.02241709,-0.063382246,2.0,2.0,-2.0,2.0,-1.1148372,-2.0,2.0,-0.4833567,-2.0,-2.0,0.3161867,-2.0,2.0,2.0,-2.0,2.0,-1.1811324,-2.0,2.0,-0.41176993,-2.0,-2.0,0.31681868,-2.0
2025-07-21 14:25:29.475,2.2200000000000015,2220,111,-0.022819437,0.02561086,0.01186875,-0.02241546,0.04263126,0.02830317,0.0,0.0,0.0,-0.013639232,0.08425226,0.3809455,-0.032379877,0.12695287,-0.30823064,-0.14189085,0.039686553,0.03919304,-0.0038232584,-0.066433646,0.1657249,0.12169797,-0.07329436,0.04276891,-0.009432615,-0.0020372611,-0.012182716,-0.0058739632,0.05837343,0.015899917,0.003737704,0.034387477,-0.051351875,0.011159766,2.0,2.0,-2.0,2.0,-1.1811324,-2.0,2.0,-0.41176993,-2.0,-2.0,0.31681868,-2.0,2.0,2.0,-2.0,2.0,-1.1908712,-2.0,2.0,-0.41452396,-2.0,-2.0,0.1988201,-2.0
2025-07-21 14:25:29.504,2.2400000000000015,2240,112,-0.052676897,0.05318081,0.025412394,-0.03574642,0.043946832,0.00029735212,0.0,0.0,0.0,-0.013362553,0.07504096,0.37035587,-0.0474722,0.11723751,-0.3145191,-0.13625316,0.03447165,0.042982604,0.004636717,-0.06896693,0.1689257,0.117303744,0.027343506,0.022489237,0.027219953,-0.05479211,-0.026814278,0.050123442,-0.00041403907,0.07245612,0.07168972,0.025277762,0.036006235,0.05223082,2.0,2.0,-2.0,2.0,-1.1908712,-2.0,2.0,-0.41452396,-2.0,-2.0,0.1988201,-2.0,2.0,2.0,-2.0,2.0,-1.0071167,-2.0,2.0,-0.47193682,-2.0,-2.0,0.38039532,-2.0
2025-07-21 14:25:29.521,2.2600000000000016,2260,113,0.030336194,0.0093695475,-0.038244624,0.0035970677,0.03514803,-0.027053805,0.0,0.0,0.0,-0.013170395,0.082979806,0.38702282,-0.047889628,0.115848124,-0.32184064,-0.1293466,0.042332046,0.03469847,-0.0013109982,-0.06945716,0.16605523,0.12618673,-0.00919571,0.057466876,-0.023093272,-0.04412989,-0.04058378,0.054650147,0.000772198,-0.016094832,0.018004125,-0.03868522,0.04279674,-0.040125653,2.0,2.0,-2.0,2.0,-1.0071167,-2.0,2.0,-0.47193682,-2.0,-2.0,0.38039532,-2.0,2.0,2.0,-2.0,2.0,-1.2551576,-2.0,2.0,-0.33684117,-2.0,-2.0,0.15841351,-2.0
2025-07-21 14:25:29.538,2.2800000000000016,2280,114,0.034712724,-0.004320778,-0.00057135546,-0.0037058138,0.0948,-0.024814801,0.0,0.0,0.0,-0.012978966,0.08371967,0.38665652,-0.045752432,0.13018228,-0.31612965,-0.1408984,0.035057265,0.040894605,0.008359041,-0.064598374,0.17660944,0.12598568,0.07096652,0.043768294,0.066178955,-0.003508487,0.06538521,0.049522858,-0.013027344,0.0235489,0.022892429,-0.03600188,0.044056132,-0.018685779,2.0,2.0,-2.0,2.0,-1.2551576,-2.0,2.0,-0.33684117,-2.0,-2.0,0.15841351,-2.0,2.0,2.0,-2.0,2.0,-1.1181644,-2.0,2.0,-0.44754815,-2.0,-2.0,0.3285309,-2.0
2025-07-21 14:25:29.558,2.3000000000000016,2300,115,-0.01714624,0.030702103,0.046127047,-0.051738393,0.034611512,0.0031632625,0.0,0.0,0.0,-0.012888946,0.08112761,0.38913798,-0.05279083,0.1282403,-0.31597075,-0.12944168,0.04337478,0.03569814,0.012350474,-0.05050241,0.18277186,0.12282919,0.059486385,-0.033792578,-0.006032184,-0.022017611,0.008706678,0.064620726,-0.035974275,0.023536537,0.0063446723,0.046997428,-0.014829555,0.03158593,2.0,2.0,-2.0,2.0,-1.1181644,-2.0,2.0,-0.44754815,-2.0,-2.0,0.3285309,-2.0,2.0,2.0,-2.0,2.0,-1.0879302,-2.0,2.0,-0.52649826,-2.0,-2.0,0.61076444,-2.0
2025-07-21 14:25:29.584,2.3200000000000016,2320,116,0.015879063,0.026018439,-0.036588497,-0.023157742,0.01173034,-0.04003454,0.0,0.0,0.0,-0.012900832,0.080842994,0.3869691,-0.045103546,0.12894525,-0.31177157,-0.12514839,0.038535785,0.027549522,0.008695362,-0.060228653,0.17335057,0.12048165,-0.026415098,-0.0043642856,-0.038711376,-0.04481129,0.019877732,-0.046577517,-0.06288412,0.05406447,-0.029230805,0.046552178,-0.01634217,-0.025344813,2.0,2.0,-2.0,2.0,-1.0879302,-2.0,2.0,-0.52649826,-2.0,-2.0,0.61076444,-2.0,2.0,2.0,-2.0,2.0,-1.3438728,-2.0,2.0,-0.3270883,-2.0,-2.0,0.07543878,-2.0
2025-07-21 14:25:29.601,2.3400000000000016,2340,117,-0.041815564,0.053531855,0.04136412,-0.08735189,0.07925245,0.031936556,0.0,0.0,0.0,-0.0127303125,0.08332215,0.37769574,-0.037471574,0.124684274,-0.3043475,-0.13959245,0.046178058,0.041686997,0.021610618,-0.054499865,0.1757165,0.116303466,-0.06779575,0.01942991,-0.04837809,0.03288739,-0.018163156,-0.03717862,-0.050521176,-0.073319346,0.037577335,0.014146947,-0.06396982,-0.03318846,2.0,2.0,-2.0,2.0,-1.3438728,-2.0,2.0,-0.3270883,-2.0,-2.0,0.07543878,-2.0,2.0,2.0,-2.0,2.0,-1.0740911,-2.0,2.0,-0.5443569,-2.0,-2.0,0.45638508,-2.0
2025-07-21 14:25:29.618,2.3600000000000017,2360,118,0.016874868,0.000257251,-0.044464502,-0.041001096,0.035903715,0.0040786257,0.0,0.0,0.0,-0.012653453,0.08037133,0.37799212,-0.053149756,0.13184515,-0.30616447,-0.13434629,0.034942787,0.04232996,0.024389494,-0.06339662,0.18070927,0.12891717,0.05177242,-0.031623907,-0.007839221,0.024511704,-0.020030987,0.0641253,0.028451968,-0.003398803,0.0162263,0.042703398,0.0061527947,0.048801005,2.0,2.0,-2.0,2.0,-1.0740911,-2.0,2.0,-0.5443569,-2.0,-2.0,0.45638508,-2.0,2.0,2.0,-2.0,2.0,-1.3047179,-2.0,2.0,-0.2635889,-2.0,-2.0,0.19181328,-2.0
2025-07-21 14:25:29.639,2.3800000000000017,2380,119,0.018498866,-0.0073972475,0.0016733655,-0.022396665,0.045274194,-0.045478906,0.0,0.0,0.0,-0.012650855,0.07973134,0.39596578,-0.052971896,0.12980852,-0.3051959,-0.12941991,0.041505843,0.02667529,0.012166236,-0.055198926,0.19350861,0.11914823,0.026241282,-0.05539353,-0.056590248,-0.04796074,0.035155855,0.040338274,0.03089406,0.069393985,0.075692415,-0.045096166,0.013734306,-0.050521277,2.0,2.0,-2.0,2.0,-1.3047179,-2.0,2.0,-0.2635889,-2.0,-2.0,0.19181328,-2.0,2.0,2.0,-2.0,2.0,-1.0964609,-2.0,2.0,-0.5156461,-2.0,-2.0,0.35452926,-2.0
2025-07-21 14:25:29.659,2.4000000000000017,2400,120,-0.010585101,0.034242935,-0.014248502,-0.009808645,0.07463589,0.013977947,0.0,0.0,0.0,-0.0127394255,0.07742485,0.39628115,-0.04550965,0.13055909,-0.29734793,-0.13286713,0.038463704,0.03195438,0.028300807,-0.061773896,0.1866414,0.11726935,-0.013069417,-0.04694505,0.06836079,-0.033995617,-0.045724753,-0.008742433,-0.020021193,0.048419356,0.028003488,0.019058729,0.050766792,0.046447217,2.0,2.0,-2.0,2.0,-1.0964609,-2.0,2.0,-0.5156461,-2.0,-2.0,0.35452926,-2.0,2.0,2.0,-2.0,2.0,-1.1028737,-2.0,2.0,-0.34991312,-2.0,-2.0,0.23073928,-2.0
2025-07-21 14:25:29.684,2.4200000000000017,2420,121,0.042242926,0.042533148,-0.0039412123,-0.005582538,0.04699212,0.044849277,0.0,0.0,0.0,-0.012910472,0.08556732,0.4012741,-0.04042134,0.12089457,-0.29344383,-0.13180153,0.029199291,0.026654059,0.022652656,-0.05893423,0.17893825,0.12181298,0.0722323,-0.0023797164,0.02616457,0.07378818,0.06713553,0.029591473,0.01925461,0.07581539,-0.0383198,0.039019305,-0.05550794,-0.013345075,2.0,2.0,-2.0,2.0,-1.1028737,-2.0,2.0,-0.34991312,-2.0,-2.0,0.23073928,-2.0,2.0,2.0,-2.0,2.0,-1.1758083,-2.0,2.0,-0.39240575,-2.0,-2.0,0.3288252,-2.0
2025-07-21 14:25:29.701,2.4400000000000017,2440,122,0.03914479,0.056761976,-0.017395932,-0.07764447,0.00882348,0.023894701,0.0,0.0,0.0,-0.0131020155,0.09265234,0.38519907,-0.051541973,0.12536085,-0.31204367,-0.12859061,0.040151563,0.046230838,0.019564018,-0.049861796,0.1804099,0.122261755,-0.037686013,0.036137525,-0.040592313,0.0052836104,0.02229908,0.009091823,0.07047715,-0.054405704,-0.039504036,0.063172534,0.07687706,0.04307969,2.0,2.0,-2.0,2.0,-1.1758083,-2.0,2.0,-0.39240575,-2.0,-2.0,0.3288252,-2.0,2.0,2.0,-2.0,2.0,-1.2797222,-2.0,2.0,-0.38441128,-2.0,-2.0,0.20871727,-2.0
2025-07-21 14:25:29.719,2.4600000000000017,2460,123,0.0042608986,0.0020626474,0.018380063,-0.07138463,0.08017147,0.02721882,0.0,0.0,0.0,-0.0133568,0.07992421,0.40217566,-0.040537186,0.12905428,-0.29338866,-0.13937978,0.027973482,0.037504278,0.026585706,-0.05066662,0.19062842,0.1295583,-0.019958591,-0.027888115,-0.071758956,0.015254992,-0.031095969,0.06444015,0.004803568,-0.06255847,-0.03552034,-0.05639349,0.03571476,0.07128541,2.0,2.0,-2.0,2.0,-1.2797222,-2.0,2.0,-0.38441128,-2.0,-2.0,0.20871727,-2.0,2.0,2.0,-2.0,2.0,-1.0935116,-2.0,2.0,-0.49521238,-2.0,-2.0,0.4313834,-2.0
2025-07-21 14:25:29.739,2.4800000000000018,2480,124,-0.036097847,-0.012027768,0.010022408,-0.028352592,0.101138875,0.010974782,0.0,0.0,0.0,-0.013674879,0.08696635,0.3890027,-0.04017608,0.1320108,-0.31145296,-0.13935034,0.030559871,0.041963495,0.02376742,-0.06087008,0.18726325,0.119519785,0.07125137,-0.06947149,-0.034061927,-0.0060359263,-0.0037452814,0.032400817,0.025565036,0.027517224,-0.043882966,-5.0497143e-05,-0.04068348,-0.03771342,2.0,2.0,-2.0,2.0,-1.0935116,-2.0,2.0,-0.49521238,-2.0,-2.0,0.4313834,-2.0,2.0,2.0,-2.0,2.0,-1.2286862,-2.0,2.0,-0.42424685,-2.0,-2.0,0.40951785,-2.0
2025-07-21 14:25:29.759,2.5000000000000018,2500,125,-0.0122737195,0.055289634,-0.027529484,-0.065189466,0.037260998,-0.0047146417,0.0,0.0,0.0,-0.013916542,0.082484916,0.4068699,-0.04264284,0.12643401,-0.29542089,-0.13949436,0.0288367,0.047622815,0.022602512,-0.062271465,0.19735369,0.12869813,0.01047838,-0.026370335,0.048888147,-0.042876627,-0.030879365,-0.019517485,0.06486113,-0.046409868,-0.023494191,0.020512525,-0.007614792,0.051579367,2.0,2.0,-2.0,2.0,-1.2286862,-2.0,2.0,-0.42424685,-2.0,-2.0,0.40951785,-2.0,2.0,2.0,-2.0,2.0,-1.3298547,-2.0,2.0,-0.26533693,-2.0,-2.0,0.07561652,-2.0
2025-07-21 14:25:29.784,2.520000000000002,2520,126,0.018143753,-0.010967642,0.059517886,-0.07269291,0.021359468,0.033132125,0.0,0.0,0.0,-0.014012886,0.07946431,0.40385994,-0.052285876,0.12745956,-0.29453292,-0.12792318,0.038532894,0.04121901,0.033061862,-0.060530275,0.19276884,0.12948993,-0.0164545,-0.054866035,-0.06148135,-0.06895836,-0.04140578,0.05250425,-0.02211471,0.00874468,0.052743565,-0.015153642,-0.027091615,0.051546548,2.0,2.0,-2.0,2.0,-1.3298547,-2.0,2.0,-0.26533693,-2.0,-2.0,0.07561652,-2.0,2.0,2.0,-2.0,2.0,-0.92032444,-2.0,2.0,-0.5804638,-2.0,-2.0,0.51940775,-2.0
2025-07-21 14:25:29.801,2.540000000000002,2540,127,0.0006006875,0.015757551,-0.03235679,-0.020781744,0.059440684,0.045977574,0.0,0.0,0.0,-0.014264638,0.09577222,0.4072639,-0.04648568,0.12996693,-0.30524948,-0.12348359,0.029649435,0.03831176,0.033557247,-0.054592855,0.19248216,0.11935496,0.046476126,0.06863324,-0.05295477,-0.007180656,-0.04643141,0.02012859,-0.04055057,-0.0075206063,0.05909783,-0.048479892,0.07559875,-0.019048449,2.0,2.0,-2.0,2.0,-0.92032444,-2.0,2.0,-0.5804638,-2.0,-2.0,0.51940775,-2.0,2.0,2.0,-2.0,2.0,-1.3269339,-2.0,2.0,-0.34096342,-2.0,-2.0,0.37725455,-2.0
2025-07-21 14:25:29.819,2.560000000000002,2560,128,-0.0037394806,-0.012735259,0.027790135,-0.04564644,0.03696997,0.011242276,0.0,0.0,0.0,-0.014429914,0.08867368,0.39821154,-0.037427325,0.13130556,-0.30373186,-0.13852099,0.034155328,0.036343765,0.04009248,-0.05420149,0.2009536,0.12738149,-0.05999232,-0.03533453,-0.017894777,-0.044790737,-0.014867696,0.03303534,0.065822616,-0.020141324,0.0079968255,0.012318716,-0.06305222,-0.06291885,2.0,2.0,-2.0,2.0,-1.3269339,-2.0,2.0,-0.34096342,-2.0,-2.0,0.37725455,-2.0,2.0,2.0,-2.0,2.0,-1.2389611,-2.0,2.0,-0.48490983,-2.0,-2.0,0.3877537,-2.0
2025-07-21 14:25:29.839,2.580000000000002,2580,129,0.01089644,-0.034190334,-0.008944932,-0.054116618,0.024995288,0.04757238,0.0,0.0,0.0,-0.014432993,0.09725216,0.407034,-0.037885103,0.13572554,-0.3054706,-0.1361087,0.031551193,0.031960987,0.028133344,-0.06956526,0.18415232,0.13109618,0.050988723,-0.05952328,-0.06496513,0.032333005,-0.030317914,-0.002404428,0.073894225,0.0628962,0.038666487,0.057781372,0.058505777,-0.047223933,2.0,2.0,-2.0,2.0,-1.2389611,-2.0,2.0,-0.48490983,-2.0,-2.0,0.3877537,-2.0,2.0,2.0,-2.0,2.0,-1.3032839,-2.0,2.0,-0.38963294,-2.0,-2.0,0.30618393,-2.0
2025-07-21 14:25:29.859,2.600000000000002,2600,130,-0.004812559,-0.022776961,-0.01128245,-0.01064703,0.086484745,-0.016304988,0.0,0.0,0.0,-0.014409406,0.095865466,0.40820444,-0.036558136,0.12410133,-0.29650745,-0.13387373,0.032788724,0.051814727,0.03570744,-0.06896934,0.18344337,0.13418843,-0.056185264,0.055777695,-0.0028941836,-0.04511272,-0.018935425,-0.029646426,-0.05652496,-0.0052153445,-0.04302496,0.010582875,0.06294692,0.07280424,2.0,2.0,-2.0,2.0,-1.3032839,-2.0,2.0,-0.38963294,-2.0,-2.0,0.30618393,-2.0,2.0,2.0,-2.0,2.0,-1.2213515,-2.0,2.0,-0.3567822,-2.0,-2.0,0.079841,-2.0
2025-07-21 14:25:29.885,2.620000000000002,2620,131,-0.013694371,-0.030772986,-0.023811532,-0.015912844,0.059738263,0.032944705,0.0,0.0,0.0,-0.01438682,0.09301681,0.39558503,-0.052421637,0.11962378,-0.29763794,-0.1298568,0.027161406,0.031503785,0.03062974,-0.065796226,0.19176294,0.12356566,-0.0068947542,-0.01866312,-0.018951276,0.06014818,0.020911757,-0.06944314,0.019576496,-0.07371222,0.057761427,0.034086064,0.025417304,0.034169782,2.0,2.0,-2.0,2.0,-1.2213515,-2.0,2.0,-0.3567822,-2.0,-2.0,0.079841,-2.0,2.0,2.0,-2.0,2.0,-1.1841915,-2.0,2.0,-0.37424147,-2.0,-2.0,0.20847549,-2.0
2025-07-21 14:25:29.901,2.640000000000002,2640,132,-0.042926565,-0.030359166,0.0066123023,-0.023902478,0.008691822,-0.048491836,0.0,0.0,0.0,-0.014535895,0.09675767,0.40830204,-0.04998861,0.1337446,-0.30323002,-0.12930624,0.042789634,0.03210898,0.04060025,-0.0708006,0.19771017,0.13679723,0.04643125,-0.049938872,-0.0041736895,-0.036744457,-0.052464675,-0.03516678,0.07096555,0.07326368,0.03586503,0.069894515,0.045454424,0.043252286,2.0,2.0,-2.0,2.0,-1.1841915,-2.0,2.0,-0.37424147,-2.0,-2.0,0.20847549,-2.0,2.0,2.0,-2.0,2.0,-1.1306195,-2.0,2.0,-0.38279957,-2.0,-2.0,0.23112352,-2.0
2025-07-21 14:25:29.921,2.660000000000002,2660,133,-0.04658636,0.0026737696,0.0040978384,-0.051614415,0.06636102,0.023084566,0.0,0.0,0.0,-0.0148239145,0.099084854,0.41397497,-0.05618166,0.12622395,-0.31020203,-0.12361247,0.028290002,0.042333387,0.048939116,-0.06470798,0.19616327,0.13629264,0.07236436,0.03770316,-0.034717545,0.036981866,0.003275334,0.063108616,0.023248013,0.054658752,-0.0066837114,-0.020829154,-0.07361285,-0.051445756,2.0,2.0,-2.0,2.0,-1.1306195,-2.0,2.0,-0.38279957,-2.0,-2.0,0.23112352,-2.0,2.0,2.0,-2.0,2.0,-1.2695613,-2.0,2.0,-0.35200626,-2.0,-2.0,0.3636776,-2.0
2025-07-21 14:25:29.941,2.680000000000002,2680,134,-0.03698575,0.021082468,-0.019067448,0.009733038,0.09923801,-0.016375797,0.0,0.0,0.0,-0.015128995,0.09478035,0.41353,-0.056246478,0.13034783,-0.29252255,-0.12999018,0.033657506,0.040068656,0.038467567,-0.05477028,0.19332105,0.1293524,-0.032610465,0.076214775,0.0009607434,0.07222472,-0.04417145,-0.07329138,-0.071770065,0.04752588,-0.035327338,-0.025253206,-0.033786785,0.06262745,2.0,2.0,-2.0,2.0,-1.2695613,-2.0,2.0,-0.35200626,-2.0,-2.0,0.3636776,-2.0,2.0,2.0,-2.0,2.0,-1.2306812,-2.0,2.0,-0.3416341,-2.0,-2.0,0.13107006,-2.0
2025-07-21 14:25:29.967,2.700000000000002,2700,135,-0.041560702,0.032816797,0.048975565,-0.022927076,0.105100065,0.03958943,0.0,0.0,0.0,-0.015388721,0.1023406,0.41099045,-0.053078186,0.13871638,-0.30615672,-0.13997161,0.03357704,0.034957577,0.029780209,-0.058613416,0.1819457,0.14022544,0.07162471,-0.035181534,0.064491116,0.03035812,0.0038763967,-0.06741709,0.06467343,-0.058943387,0.04022036,-0.07177583,-0.029581934,0.056031607,2.0,2.0,-2.0,2.0,-1.2306812,-2.0,2.0,-0.3416341,-2.0,-2.0,0.13107006,-2.0,2.0,2.0,-2.0,2.0,-0.999719,-2.0,2.0,-0.4975248,-2.0,-2.0,0.463664,-2.0
2025-07-21 14:25:29.988,2.720000000000002,2720,136,0.04241362,0.030576926,-0.00049036194,-0.048069373,0.037573703,-0.045325883,0.0,0.0,0.0,-0.015674556,0.087511726,0.4000525,-0.05197225,0.136837,-0.29491988,-0.13001151,0.033241395,0.05030257,0.029729195,-0.06710849,0.19092616,0.13590106,0.0320899,-0.07142324,-0.054334983,0.06985192,-0.03680054,0.04205052,-0.019802433,0.052148618,-0.023288442,0.066655695,0.056851126,-0.009517639,2.0,2.0,-2.0,2.0,-0.999719,-2.0,2.0,-0.4975248,-2.0,-2.0,0.463664,-2.0,2.0,2.0,-2.0,2.0,-1.2200583,-2.0,2.0,-0.39771962,-2.0,-2.0,0.4596966,-2.0
2025-07-21 14:25:30.005,2.740000000000002,2740,137,0.03968342,-0.049367066,-0.011263701,-0.050465334,0.052521963,0.0037545327,0.0,0.0,0.0,-0.015805433,0.096960165,0.40460315,-0.03895435,0.13538986,-0.29188523,-0.13421857,0.038385767,0.04283599,0.04309365,-0.060384233,0.19267318,0.13692087,-0.039393347,-0.0022531117,-0.068789184,-0.07435968,-0.00028780973,-0.04129824,-0.03224932,0.072780035,-0.035654597,0.01974836,-0.036177713,-0.04094425,2.0,2.0,-2.0,2.0,-1.2200583,-2.0,2.0,-0.39771962,-2.0,-2.0,0.4596966,-2.0,2.0,2.0,-2.0,2.0,-1.337648,-2.0,2.0,-0.36287177,-2.0,-2.0,0.13541727,-2.0
2025-07-21 14:25:30.025,2.760000000000002,2760,138,-0.019704273,-0.03866438,0.0012473526,-0.061953492,0.07430766,-0.019440973,0.0,0.0,0.0,-0.015689254,0.091607526,0.40969124,-0.05524799,0.13321698,-0.2977775,-0.13346958,0.028700002,0.045648135,0.04055808,-0.072070405,0.19236016,0.12339914,0.03402988,-0.073020466,0.06444614,-0.023227187,-0.07280146,0.00087693275,-0.009115663,0.028721401,-0.051756434,0.026104277,-0.077797085,-0.0615713,2.0,2.0,-2.0,2.0,-1.337648,-2.0,2.0,-0.36287177,-2.0,-2.0,0.13541727,-2.0,2.0,2.0,-2.0,2.0,-1.1543304,-2.0,2.0,-0.34436023,-2.0,-2.0,0.11102565,-2.0
2025-07-21 14:25:30.052,2.780000000000002,2780,139,-0.015022592,0.02485419,0.015889011,-0.05823754,0.08776026,0.036434367,0.0,0.0,0.0,-0.015612678,0.08887405,0.40406775,-0.041361593,0.13528155,-0.2935298,-0.13675965,0.023394668,0.046781488,0.038130753,-0.05568208,0.19076924,0.14114112,0.011124198,-0.064245164,0.054960486,0.046577226,-0.0595734,0.044844244,-0.031661723,0.016639808,-0.020985156,-0.045829277,-0.031987086,0.026404276,2.0,2.0,-2.0,2.0,-1.1543304,-2.0,2.0,-0.34436023,-2.0,-2.0,0.11102565,-2.0,2.0,2.0,-2.0,2.0,-1.0226567,-2.0,2.0,-0.40756065,-2.0,-2.0,0.36861947,-2.0
2025-07-21 14:25:30.068,2.800000000000002,2800,140,-0.022504654,0.0035325948,-0.03360707,-0.009368809,0.08831591,-0.040529873,0.0,0.0,0.0,-0.01569758,0.09280078,0.4114133,-0.039511595,0.1234616,-0.30636188,-0.13474034,0.036768675,0.035229173,0.044768658,-0.05467013,0.19327053,0.14012553,-0.07285377,-0.029924108,-0.016332116,-0.011750329,0.009302903,-0.07602455,0.01903797,0.020792542,-0.05601709,0.047519222,-0.022203764,0.039947864,2.0,2.0,-2.0,2.0,-1.0226567,-2.0,2.0,-0.40756065,-2.0,-2.0,0.36861947,-2.0,2.0,2.0,-2.0,2.0,-1.308946,-2.0,2.0,-0.24439614,-2.0,-2.0,0.01923417,-2.0
2025-07-21 14:25:30.085,2.820000000000002,2820,141,-0.0335799,-0.0255876,0.028985737,-0.021337235,0.053105105,0.0011357357,0.0,0.0,0.0,-0.015744014,0.08658086,0.4002528,-0.0555045,0.12309562,-0.2924109,-0.13488288,0.0321373,0.047991153,0.038379353,-0.06123015,0.17804278,0.13949871,0.03535543,-0.06562019,-0.072958305,0.058475193,0.023550551,0.0047466164,-0.066648744,-0.030056162,-0.0068799946,-0.039642304,0.058921557,-0.007754825,2.0,2.0,-2.0,2.0,-1.308946,-2.0,2.0,-0.24439614,-2.0,-2.0,0.01923417,-2.0,2.0,2.0,-2.0,2.0,-0.978121,-2.0,2.0,-0.56070375,-2.0,-2.0,0.51285285,-2.0
2025-07-21 14:25:30.105,2.840000000000002,2840,142,0.051639937,0.033837155,0.035712767,-0.011962978,0.08920689,-0.028173875,0.0,0.0,0.0,-0.015887812,0.0888749,0.4075772,-0.038909614,0.12131594,-0.30905503,-0.13380662,0.019997925,0.04326041,0.041002866,-0.065991566,0.18979149,0.13371378,0.006879019,0.05100067,0.030876745,-0.017476207,-0.015358336,0.009882352,0.06359378,-0.053997654,0.054844126,-0.060443174,0.030939775,-0.06774627,2.0,2.0,-2.0,2.0,-0.978121,-2.0,2.0,-0.56070375,-2.0,-2.0,0.51285285,-2.0,2.0,2.0,-2.0,2.0,-1.2854434,-2.0,2.0,-0.48392218,-2.0,-2.0,0.6162461,-2.0
2025-07-21 14:25:30.125,2.860000000000002,2860,143,0.049299847,-0.026205176,-0.037548892,0.017714934,0.04739739,0.0062424224,0.0,0.0,0.0,-0.015913555,0.100286335,0.41538632,-0.04902453,0.12956583,-0.29328334,-0.12671715,0.037204374,0.03979834,0.03529587,-0.06552766,0.19736208,0.13132769,0.009217855,-0.055956732,0.021214003,-0.022280175,0.016775822,0.0044139167,-0.035940338,0.01757296,0.026142325,-0.01739844,-0.027610136,-0.018550662,2.0,2.0,-2.0,2.0,-1.2854434,-2.0,2.0,-0.48392218,-2.0,-2.0,0.6162461,-2.0,2.0,2.0,-2.0,2.0,-1.3406147,-2.0,2.0,-0.32146472,-2.0,-2.0,0.14614199,-2.0
2025-07-21 14:25:30.151,2.880000000000002,2880,144,0.043026216,0.038362496,-0.012039105,0.0064929924,0.05105141,-0.04582997,0.0,0.0,0.0,-0.015557061,0.09498139,0.39848083,-0.046571627,0.13130349,-0.30687112,-0.12603897,0.024848843,0.040298443,0.039616324,-0.06387985,0.18798855,0.13436839,0.044447754,0.0053404197,0.018566607,-0.04463542,0.05420296,-0.051569004,-0.0032697956,-0.038378175,0.004298089,0.0014533082,0.028982358,0.05299921,2.0,2.0,-2.0,2.0,-1.3406147,-2.0,2.0,-0.32146472,-2.0,-2.0,0.14614199,-2.0,2.0,2.0,-2.0,2.0,-1.2084266,-2.0,2.0,-0.391712,-2.0,-2.0,0.14468436,-2.0
2025-07-21 14:25:30.168,2.900000000000002,2900,145,-0.024134887,-0.00046545957,0.014638458,-0.04691276,0.045710392,-0.02384271,0.0,0.0,0.0,-0.015223539,0.08644423,0.40826553,-0.049829077,0.13222784,-0.29503357,-0.13482422,0.033001445,0.034362268,0.036049012,-0.06716791,0.18973075,0.12669444,0.039779615,0.019592192,-0.017738234,0.053065866,0.033018656,-0.02831744,-0.072085276,0.037018586,0.067974314,0.059343353,0.06472088,0.019523751,2.0,2.0,-2.0,2.0,-1.2084266,-2.0,2.0,-0.391712,-2.0,-2.0,0.14468436,-2.0,2.0,2.0,-2.0,2.0,-1.1337365,-2.0,2.0,-0.43218207,-2.0,-2.0,0.46391916,-2.0
2025-07-21 14:25:30.185,2.920000000000002,2920,146,0.008457683,0.032805145,0.0074627236,-0.05604182,0.09532483,-0.021953557,0.0,0.0,0.0,-0.015100799,0.09783277,0.40804294,-0.04904728,0.13724233,-0.31115904,-0.14057739,0.026824996,0.036922522,0.037361857,-0.0695584,0.18528807,0.12715009,0.009260649,-0.027289117,-0.021472834,-0.054330863,0.043005787,0.005651851,-0.007908758,-0.031430956,-0.02083771,0.0013405081,-0.06912345,-0.07278785,2.0,2.0,-2.0,2.0,-1.1337365,-2.0,2.0,-0.43218207,-2.0,-2.0,0.46391916,-2.0,2.0,2.0,-2.0,2.0,-1.3513144,-2.0,2.0,-0.3551318,-2.0,-2.0,0.29146782,-2.0
2025-07-21 14:25:30.205,2.940000000000002,2940,147,0.035472684,-0.0036648796,-0.05353156,-0.007991481,0.0923488,0.020776039,0.0,0.0,0.0,-0.014944739,0.090737596,0.40872166,-0.042530805,0.1265479,-0.29221243,-0.12441123,0.04253431,0.033785995,0.030245632,-0.067940585,0.18142737,0.13699363,0.010132013,-0.028921533,0.03789033,0.060853597,-0.06228167,0.04846907,-0.029991915,-0.021940347,0.009675087,-0.038412407,0.04729557,-0.012506078,2.0,2.0,-2.0,2.0,-1.3513144,-2.0,2.0,-0.3551318,-2.0,-2.0,0.29146782,-2.0,2.0,2.0,-2.0,2.0,-1.2248555,-2.0,2.0,-0.35406995,-2.0,-2.0,0.14209698,-2.0
2025-07-21 14:25:30.225,2.960000000000002,2960,148,-0.002952633,-0.039633926,-0.016128082,-0.070199996,0.08712332,0.009339644,0.0,0.0,0.0,-0.0147727905,0.08309785,0.40631095,-0.048469108,0.13659057,-0.30513066,-0.13761601,0.039655935,0.04930576,0.03832045,-0.053273905,0.18687087,0.13241702,0.038863767,0.01817952,0.042355947,0.073435836,0.045805257,-0.043594636,-0.0016449934,0.009593208,0.013487986,-0.033090055,-0.0049478943,0.041018333,2.0,2.0,-2.0,2.0,-1.2248555,-2.0,2.0,-0.35406995,-2.0,-2.0,0.14209698,-2.0,2.0,2.0,-2.0,2.0,-1.2225822,-2.0,2.0,-0.33191973,-2.0,-2.0,0.22711636,-2.0
2025-07-21 14:25:30.251,2.980000000000002,2980,149,-0.004984046,0.01758438,-0.024845876,-0.033393055,0.03958333,-0.037393406,0.0,0.0,0.0,-0.014752439,0.09700242,0.3918712,-0.04754634,0.1291882,-0.29653186,-0.1347166,0.03881259,0.04648247,0.025608737,-0.05981132,0.18143754,0.13039605,-0.018448444,-0.012240917,-0.050103847,0.018890532,0.015030692,-0.07382046,-0.010681586,-0.074152276,0.010834429,-0.06398033,0.0145386,0.06417357,2.0,2.0,-2.0,2.0,-1.2225822,-2.0,2.0,-0.33191973,-2.0,-2.0,0.22711636,-2.0,2.0,2.0,-2.0,2.0,-1.2350699,-2.0,2.0,-0.35938102,-2.0,-2.0,0.12765251,-2.0
2025-07-21 14:25:30.268,3.000000000000002,3000,150,0.013110012,-0.05123392,0.009323676,-0.067194834,0.030610325,-0.04684347,0.0,0.0,0.0,-0.014859525,0.096567355,0.40182844,-0.044445038,0.1373913,-0.30437806,-0.13681054,0.042832397,0.031320676,0.020974508,-0.06824963,0.19271368,0.13871454,0.052421644,0.009056537,0.05945329,-0.02514026,0.041882634,-0.07302708,-0.036562614,-0.009400828,-0.04366471,-0.005435575,-0.051157527,-0.048133932,2.0,2.0,-2.0,2.0,-1.2350699,-2.0,2.0,-0.35938102,-2.0,-2.0,0.12765251,-2.0,2.0,2.0,-2.0,2.0,-1.2171586,-2.0,2.0,-0.36920518,-2.0,-2.0,0.21525376,-2.0
2025-07-21 14:25:30.289,3.0200000000000022,3020,151,0.045151617,0.026190812,0.0032339743,0.001958907,0.07102645,0.017395567,0.0,0.0,0.0,-0.015065532,0.083960846,0.39476702,-0.043107577,0.1202913,-0.30810735,-0.13592766,0.023670107,0.04000885,0.022250444,-0.05466868,0.17661324,0.13255091,-0.049250495,-0.039201133,-0.07124583,-0.03500635,-0.03050262,0.04459703,0.00803243,-0.03506175,-0.060719527,0.009727278,0.0056251474,0.033551324,2.0,2.0,-2.0,2.0,-1.2171586,-2.0,2.0,-0.36920518,-2.0,-2.0,0.21525376,-2.0,2.0,2.0,-2.0,2.0,-1.1276493,-2.0,2.0,-0.46118253,-2.0,-2.0,0.2551028,-2.0
2025-07-21 14:25:30.307,3.0400000000000023,3040,152,0.022058042,0.031924922,0.0052121156,-0.0015944197,0.02395972,0.041968126,0.0,0.0,0.0,-0.01531435,0.09534015,0.40808845,-0.055966828,0.13380769,-0.31340775,-0.13446994,0.025573362,0.04231389,0.027869768,-0.059718885,0.17876144,0.12950127,0.04266804,0.041488353,-0.009328507,0.06623704,-0.01714781,0.06993371,0.028000763,-0.01841729,-0.0077023352,0.028512895,0.051338147,0.035481896,2.0,2.0,-2.0,2.0,-1.1276493,-2.0,2.0,-0.46118253,-2.0,-2.0,0.2551028,-2.0,2.0,2.0,-2.0,2.0,-1.18305,-2.0,2.0,-0.4034971,-2.0,-2.0,0.3998258,-2.0
2025-07-21 14:25:30.333,3.0600000000000023,3060,153,0.054123838,0.027921088,-0.006810288,-0.027907392,0.026094072,0.041112874,0.0,0.0,0.0,-0.015474122,0.08932123,0.39600405,-0.041483935,0.12087436,-0.30277956,-0.12685435,0.032977648,0.032137066,0.020988299,-0.07139909,0.1753698,0.13171092,0.059184488,0.059107117,-0.051661752,0.046600796,-0.060076516,0.006541614,-0.049971573,-0.0052496255,0.0011854051,-0.040994838,0.019673038,0.014688152,2.0,2.0,-2.0,2.0,-1.18305,-2.0,2.0,-0.4034971,-2.0,-2.0,0.3998258,-2.0,2.0,2.0,-2.0,2.0,-1.2345388,-2.0,2.0,-0.45196098,-2.0,-2.0,0.39906275,-2.0
2025-07-21 14:25:30.352,3.0800000000000023,3080,154,0.010143312,-0.01452403,-0.060797542,-0.01921707,0.024624666,-0.049123395,0.0,0.0,0.0,-0.015468227,0.09360273,0.38864982,-0.04405819,0.1281779,-0.31205118,-0.12234949,0.021161491,0.04661711,0.021954633,-0.073121056,0.17159845,0.13001764,-0.07833396,-0.02578374,-0.07273566,0.060814973,-0.054427367,-0.0043884446,0.03022467,-0.060331523,0.012607614,0.063088275,0.07636853,0.055607367,2.0,2.0,-2.0,2.0,-1.2345388,-2.0,2.0,-0.45196098,-2.0,-2.0,0.39906275,-2.0,2.0,2.0,-2.0,2.0,-1.3469182,-2.0,2.0,-0.2742967,-2.0,-2.0,-0.05677856,-2.0
2025-07-21 14:25:30.369,3.1000000000000023,3100,155,-0.06589457,0.0034018243,0.019950395,-0.03129673,0.02660873,-0.022683017,0.0,0.0,0.0,-0.01529199,0.09549797,0.39946717,-0.044814575,0.11998087,-0.30416572,-0.13707332,0.021883843,0.04923852,0.029277347,-0.06639341,0.18432744,0.13280728,0.010510637,-0.007222998,-0.042529505,0.0733103,-0.07193054,-0.01684929,-0.037419017,-0.036148846,0.030362997,0.004632112,0.034951907,-0.025348248,2.0,2.0,-2.0,2.0,-1.3469182,-2.0,2.0,-0.2742967,-2.0,-2.0,-0.05677856,-2.0,2.0,2.0,-2.0,2.0,-1.0363225,-2.0,2.0,-0.48186702,-2.0,-2.0,0.35295105,-2.0
2025-07-21 14:25:30.388,3.1200000000000023,3120,156,-0.04471032,0.041534875,-0.042267166,-0.00037248892,0.06217306,0.02418512,0.0,0.0,0.0,-0.01526053,0.09265463,0.38926518,-0.03910711,0.12567717,-0.3075778,-0.13874452,0.023452187,0.03780485,0.020622937,-0.06483792,0.17989735,0.14374033,-0.058655445,0.063412085,-0.049445335,0.013934725,-0.040630512,-0.008561132,-0.06028808,0.05832933,-0.04987584,0.02535309,-0.019557357,0.0732897,2.0,2.0,-2.0,2.0,-1.0363225,-2.0,2.0,-0.48186702,-2.0,-2.0,0.35295105,-2.0,2.0,2.0,-2.0,2.0,-1.3018776,-2.0,2.0,-0.22324012,-2.0,-2.0,-0.0036942475,-2.0
2025-07-21 14:25:30.409,3.1400000000000023,3140,157,0.033324774,-0.029894277,-0.011846707,-0.056407295,0.0731895,-0.0032616896,0.0,0.0,0.0,-0.015265571,0.0912882,0.39560908,-0.052429542,0.12345211,-0.30408958,-0.13902478,0.03838171,0.03329863,0.028480107,-0.061646845,0.18219939,0.13830267,0.047014564,0.06562167,-0.05081706,-0.043398444,-0.01033861,0.059443474,0.06777983,0.048131946,-0.0029827063,-0.0067455173,0.048032705,0.06682058,2.0,2.0,-2.0,2.0,-1.3018776,-2.0,2.0,-0.22324012,-2.0,-2.0,-0.0036942475,-2.0,2.0,2.0,-2.0,2.0,-1.1117353,-2.0,2.0,-0.42421353,-2.0,-2.0,0.16691534,-2.0
2025-07-21 14:25:30.435,3.1600000000000024,3160,158,0.0032889291,-0.012805726,-0.011523726,0.0024614604,0.06203849,0.01843427,0.0,0.0,0.0,-0.015345404,0.081906654,0.397351,-0.040759977,0.12432741,-0.31704852,-0.13849394,0.023585362,0.04665341,0.027487483,-0.071675986,0.17311716,0.1321709,-0.05660431,0.004142246,-0.04029763,0.016344672,0.05715073,-0.023806464,-0.040821366,0.042519975,0.028324857,-0.005612622,0.061530955,0.024636073,2.0,2.0,-2.0,2.0,-1.1117353,-2.0,2.0,-0.42421353,-2.0,-2.0,0.16691534,-2.0,2.0,2.0,-2.0,2.0,-1.1774824,-2.0,2.0,-0.36638474,-2.0,-2.0,0.18796645,-2.0
2025-07-21 14:25:30.453,3.1800000000000024,3180,159,0.039234474,-0.036099385,-0.029484583,-0.02878811,0.09853612,0.019522773,0.0,0.0,0.0,-0.015531707,0.0900473,0.39736158,-0.050639335,0.12386985,-0.32159233,-0.13398296,0.03839597,0.039430816,0.0168536,-0.06474658,0.1685441,0.13421728,-0.07407258,0.012089222,-0.030830204,0.058081064,0.0316184,-0.04215702,0.053070202,0.0074089817,-0.054894473,0.013203912,0.06729053,0.04961721,2.0,2.0,-2.0,2.0,-1.1774824,-2.0,2.0,-0.36638474,-2.0,-2.0,0.18796645,-2.0,2.0,2.0,-2.0,2.0,-1.2097855,-2.0,2.0,-0.3574409,-2.0,-2.0,0.03817748,-2.0
2025-07-21 14:25:30.470,3.2000000000000024,3200,160,0.012560459,-0.021236273,-0.017887661,-0.08121838,0.023290172,-0.04016386,0.0,0.0,0.0,-0.015659502,0.09601696,0.3951037,-0.038975798,0.122933395,-0.31921676,-0.12930085,0.021887857,0.046723,0.013205171,-0.074199215,0.16618358,0.14460327,0.0069805165,-0.03487164,0.025692606,0.006299752,-0.07393617,0.027340446,0.01540209,-0.042998184,0.017417848,-0.01430027,0.0015220857,-0.032797072,2.0,2.0,-2.0,2.0,-1.2097855,-2.0,2.0,-0.3574409,-2.0,-2.0,0.03817748,-2.0,2.0,2.0,-2.0,2.0,-1.1984197,-2.0,2.0,-0.30722666,-2.0,-2.0,0.06600253,-2.0
2025-07-21 14:25:30.490,3.2200000000000024,3220,161,0.03033055,-0.054340813,-0.011337317,-0.042119086,0.058138214,-0.0054145036,0.0,0.0,0.0,-0.015821796,0.09469697,0.3849249,-0.05336848,0.13393527,-0.31324816,-0.13060498,0.030399835,0.047076035,0.019077813,-0.070087954,0.16285121,0.14638841,-0.009692073,-0.06488012,-0.065520935,0.030348962,0.04186109,-0.029175881,-0.064257465,-0.039142065,-0.029811786,-0.011687934,-0.02137939,-0.06125819,2.0,2.0,-2.0,2.0,-1.1984197,-2.0,2.0,-0.30722666,-2.0,-2.0,0.06600253,-2.0,2.0,2.0,-2.0,2.0,-1.1967278,-2.0,2.0,-0.40605497,-2.0,-2.0,0.17960434,-2.0
2025-07-21 14:25:30.510,3.2400000000000024,3240,162,0.04826507,0.032056518,-0.006854768,-0.008227349,0.024415849,-0.008125226,0.0,0.0,0.0,-0.016062405,0.0854185,0.39381754,-0.047732633,0.12112121,-0.3147728,-0.13353878,0.0265806,0.034642152,0.016200155,-0.06134595,0.15937008,0.14406428,-0.07225827,-0.057602566,-0.015628591,-0.06702062,0.038048197,-0.046150807,-0.058078974,0.044067647,-0.030312397,-0.04804433,0.042775955,-0.039180487,2.0,2.0,-2.0,2.0,-1.1967278,-2.0,2.0,-0.40605497,-2.0,-2.0,0.17960434,-2.0,2.0,2.0,-2.0,2.0,-1.1431354,-2.0,2.0,-0.41400278,-2.0,-2.0,0.1176344,-2.0
2025-07-21 14:25:30.536,3.2600000000000025,3260,163,-0.0053798864,-0.035201475,-0.008523511,-0.029499093,0.04033945,0.04648663,0.0,0.0,0.0,-0.016259417,0.0952726,0.38524747,-0.04167613,0.12712239,-0.3110745,-0.12989722,0.018641159,0.046927102,0.020251852,-0.060257006,0.15324286,0.12915194,0.04100154,0.06131502,0.02514551,0.05392018,0.06528399,-0.020185519,-0.054129537,-0.04654078,-0.07571392,0.050522644,-0.07887322,-0.034664232,2.0,2.0,-2.0,2.0,-1.1431354,-2.0,2.0,-0.41400278,-2.0,-2.0,0.1176344,-2.0,2.0,2.0,-2.0,2.0,-1.2797903,-2.0,2.0,-0.32156712,-2.0,-2.0,0.1733887,-2.0
2025-07-21 14:25:30.553,3.2800000000000025,3280,164,0.008309197,0.017845793,-0.032888703,-0.06932906,0.04607626,0.026232516,0.0,0.0,0.0,-0.016348144,0.08639867,0.37908778,-0.037305012,0.12034028,-0.32605493,-0.14799124,0.019337168,0.04716083,0.0016371865,-0.06658018,0.16155158,0.13555251,-0.023015661,-0.011712918,0.054550417,0.031959146,-0.071783625,0.024812147,-0.02816772,-0.0071097775,-0.07014578,-0.019046888,-0.03233381,0.06086862,2.0,2.0,-2.0,2.0,-1.2797903,-2.0,2.0,-0.32156712,-2.0,-2.0,0.1733887,-2.0,2.0,2.0,-2.0,2.0,-1.2097111,-2.0,2.0,-0.30422896,-2.0,-2.0,-0.07723577,-2.0
2025-07-21 14:25:30.571,3.3000000000000025,3300,165,-0.014080591,0.028994353,0.050049156,-0.08052819,0.058037266,-0.04171103,0.0,0.0,0.0,-0.016390827,0.095853455,0.37957948,-0.044600952,0.13375394,-0.32505578,-0.1443803,0.033811316,0.037739683,0.01587345,-0.0691407,0.15032886,0.14390713,-0.0022104455,-0.019995894,0.07069866,0.009628671,-0.031024398,-0.075075984,-0.047618292,0.015969068,0.027756875,-0.044421695,0.03149047,-0.041292127,2.0,2.0,-2.0,2.0,-1.2097111,-2.0,2.0,-0.30422896,-2.0,-2.0,-0.07723577,-2.0,2.0,2.0,-2.0,2.0,-0.91131014,-2.0,2.0,-0.50768954,-2.0,-2.0,0.34043837,-2.0
2025-07-21 14:25:30.591,3.3200000000000025,3320,166,0.040950574,-0.038195137,0.025642104,-0.07210588,0.044530153,0.039044905,0.0,0.0,0.0,-0.016521249,0.09796382,0.39252615,-0.04062001,0.13634634,-0.32242677,-0.13536839,0.0324796,0.036480255,-0.0016327132,-0.06994956,0.15146378,0.14693947,-0.047635347,-0.041603643,-0.0607399,0.014594976,0.0011180122,-0.021760408,0.015402331,-0.010440761,0.057835974,0.041657433,-0.00889581,0.023548413,2.0,2.0,-2.0,2.0,-0.91131014,-2.0,2.0,-0.50768954,-2.0,-2.0,0.34043837,-2.0,2.0,2.0,-2.0,2.0,-1.1995636,-2.0,2.0,-0.41694105,-2.0,-2.0,0.3537792,-2.0
2025-07-21 14:25:30.611,3.3400000000000025,3340,167,0.033338115,-0.050053403,-0.013429478,-0.05816923,0.10418246,0.025723476,0.0,0.0,0.0,-0.016491765,0.09293617,0.37804314,-0.037263397,0.13042703,-0.32003877,-0.13785261,0.020892242,0.036303837,0.012475436,-0.07545951,0.16819036,0.13886632,0.010341373,0.05971522,0.040870223,0.009071078,0.03270875,-0.060367383,-0.018643536,0.02162165,-0.050334506,0.0038651915,-0.048032884,0.043286104,2.0,2.0,-2.0,2.0,-1.1995636,-2.0,2.0,-0.41694105,-2.0,-2.0,0.3537792,-2.0,2.0,2.0,-2.0,2.0,-1.2992128,-2.0,2.0,-0.320284,-2.0,-2.0,0.058222104,-2.0
2025-07-21 14:25:30.636,3.3600000000000025,3360,168,0.020092988,-0.012686385,0.011644046,-0.040947206,0.06385467,0.02005723,0.0,0.0,0.0,-0.016162686,0.099080525,0.3807769,-0.045774806,0.129657,-0.31282943,-0.13900304,0.027323382,0.04686544,0.011262569,-0.06621757,0.16871238,0.13441585,0.047613088,-0.061852437,-0.0076064966,-0.057285298,0.01235806,0.05451083,0.029018583,-0.049352307,0.032307435,-0.030707028,0.06259417,-0.07490233,2.0,2.0,-2.0,2.0,-1.2992128,-2.0,2.0,-0.320284,-2.0,-2.0,0.058222104,-2.0,2.0,2.0,-2.0,2.0,-1.09383,-2.0,2.0,-0.5086608,-2.0,-2.0,0.34848693,-2.0
