openverse-orca/OrcaGym/log/simulation_log_20250718_164047.csv
timestamp,sim_time,physics_step,control_step,imu_angle_roll,imu_angle_pitch,imu_angle_yaw,imu_angular_velocity_roll,imu_angular_velocity_pitch,imu_angular_velocity_yaw,imu_acc_x,imu_acc_y,imu_acc_z,fl_joint1_pos,fl_joint1_vel,fl_joint1_torque,fl_joint2_pos,fl_joint2_vel,fl_joint2_torque,fl_joint3_pos,fl_joint3_vel,fl_joint3_torque,fr_joint1_pos,fr_joint1_vel,fr_joint1_torque,fr_joint2_pos,fr_joint2_vel,fr_joint2_torque,fr_joint3_pos,fr_joint3_vel,fr_joint3_torque,hl_joint1_pos,hl_joint1_vel,hl_joint1_torque,hl_joint2_pos,hl_joint2_vel,hl_joint2_torque,hl_joint3_pos,hl_joint3_vel,hl_joint3_torque,hr_joint1_pos,hr_joint1_vel,hr_joint1_torque,hr_joint2_pos,hr_joint2_vel,hr_joint2_torque,hr_joint3_pos,hr_joint3_vel,hr_joint3_torque,fl_force_x,fl_force_y,fl_force_z,fr_force_x,fr_force_y,fr_force_z,hl_force_x,hl_force_y,hl_force_z,hr_force_x,hr_force_y,hr_force_z,fl_hip_action,fl_thigh_action,fl_calf_action,fr_hip_action,fr_thigh_action,fr_calf_action,hl_hip_action,hl_thigh_action,hl_calf_action,hr_hip_action,hr_thigh_action,hr_calf_action
2025-07-18 16:40:47.588,0.0,0,0,-0.049034376,-0.024542492,0.0217769,-0.028524071,0.039155062,-0.046150483,1.3466492,0.30356282,0.0,0.0,0.0001248133,0.0046175886,0.003401561,-0.0072211963,-0.0077864253,-0.002482834,0.009577311,0.0026708066,-0.009557078,0.0040515866,-0.0046530263,0.0054305964,0.028796973,0.07104861,0.0043649236,-0.018000873,-0.036324885,0.014677813,-0.024558648,0.068022706,-0.0659636,-0.02659731,-0.032715376,-0.006321228,0.0,0.0,0.0,0.0,0.0,0.0,0.0,0.0,0.0,0.0,0.0,0.0,2.0,2.0,-2.0,-2.0,-0.46464413,1.5723137,-2.0,-2.0,2.0,2.0,2.0,2.0
2025-07-18 16:40:47.598,0.02,20,1,0.21118647,0.15792228,0.14059089,0.04734567,-0.03720562,-0.0065610665,0.0,0.0,0.0,0.0,0.044974048,0.056499448,-0.045028396,-0.047104016,-0.02063305,0.029382143,-0.041318737,-0.03608292,0.047889058,0.039038397,0.033598237,0.052114986,0.10418777,0.19837087,-0.08242959,-0.16364703,-0.038907267,0.10894186,-0.15491913,-0.19230454,0.11376289,0.1680888,0.13452633,0.06674668,2.0,2.0,-2.0,-2.0,-0.46464413,1.5723137,-2.0,-2.0,2.0,2.0,2.0,2.0,2.0,-2.0,-2.0,-2.0,-2.0,1.0457472,2.0,2.0,2.0,2.0,2.0,-2.0
2025-07-18 16:40:47.618,0.04,40,2,-0.03114848,0.0794245,0.15580879,-0.009688273,-0.019517716,-0.024671571,0.0,0.0,0.0,-0.0011129874,0.08373549,0.0701472,-0.09039598,-0.094755694,-0.065448225,0.059216805,-0.004397532,-0.038167838,0.095250376,0.09023322,0.14980485,-0.00023024245,0.1867425,-0.15407419,-0.15750925,-0.14963362,-0.1195082,0.10089878,0.15136722,0.073815465,0.027830752,0.13495246,0.370618,-0.095370226,2.0,-2.0,-2.0,-2.0,-2.0,1.0457472,2.0,2.0,2.0,2.0,2.0,-2.0,2.0,-2.0,-2.0,-2.0,-2.0,2.0,2.0,2.0,2.0,2.0,2.0,-2.0
2025-07-18 16:40:47.638,0.06,60,3,-0.040676486,0.035638954,0.11522906,0.047585513,0.025521452,-0.0120245535,0.0,0.0,0.0,-0.0038631698,0.1432912,-0.016854797,-0.13871317,-0.1290623,-0.13660924,0.089637086,0.057012387,0.014826005,0.11269772,0.1341423,0.26167458,-0.059315953,0.0408926,-0.26578933,-0.10429212,-0.13939348,-0.20415343,0.08364847,0.11473568,0.17260706,0.032620244,0.025596743,0.30632213,-0.104115166,2.0,-2.0,-2.0,-2.0,-2.0,2.0,2.0,2.0,2.0,2.0,2.0,-2.0,2.0,-2.0,-2.0,2.0,-2.0,2.0,2.0,1.5374373,2.0,2.0,2.0,-2.0
2025-07-18 16:40:47.658,0.08,80,4,-0.66869783,-0.029696124,-0.07262852,0.014258162,-0.027376339,-0.042913314,0.0,0.0,0.0,-0.006618212,0.1786442,-0.14877622,-0.16458793,-0.11572309,-0.19865327,0.13420008,0.09918992,0.12191725,0.16165641,0.17357899,0.37731427,-0.10559965,0.16014566,-0.4071715,-0.049428448,0.095881484,-0.13418981,0.023705408,0.16315664,0.24342322,0.018113382,0.07806447,0.25415182,-0.1484449,2.0,-2.0,-2.0,2.0,-2.0,2.0,2.0,1.5374373,2.0,2.0,2.0,-2.0,2.0,-2.0,2.0,-1.5532562,2.0,2.0,2.0,-2.0,2.0,-2.0,2.0,-2.0
2025-07-18 16:40:47.679,0.1,100,5,-0.26206914,-0.1435263,0.07014413,-0.035471387,0.0138187865,0.030301804,0.0,0.0,0.0,-0.0070508397,0.2077622,-0.26972327,-0.096575186,-0.13947359,-0.22473387,0.15250362,0.14813125,0.1657158,0.17794347,0.12399443,0.45553955,-0.13096988,0.03916957,-0.21694034,0.15168743,-0.058395106,0.03120636,0.112034924,0.049438722,-0.119606,0.025319304,-0.22245698,0.18810393,-0.03382193,2.0,-2.0,2.0,-1.5532562,2.0,2.0,2.0,-2.0,2.0,-2.0,2.0,-2.0,2.0,-2.0,2.0,2.0,2.0,2.0,2.0,-2.0,2.0,-2.0,-2.0,2.0
2025-07-18 16:40:47.699,0.12000000000000001,120,6,-0.6840996,-0.1111215,0.1424257,-0.14001468,-0.034286145,-0.042253055,0.0,0.0,0.0,-0.0071694595,0.22594707,-0.38168812,-0.027282402,-0.1260046,-0.18109006,0.17802364,0.19903107,0.11268249,0.21861424,0.03714814,0.4493642,-0.06319389,0.08990253,-0.29704475,0.12784499,0.070410155,0.018503774,0.099394,0.085175805,-0.09240001,-0.020273268,-0.20991822,-0.0882279,0.12717143,2.0,-2.0,2.0,2.0,2.0,2.0,2.0,-2.0,2.0,-2.0,-2.0,2.0,2.0,-2.0,2.0,1.4856976,2.0,-2.0,2.0,-2.0,2.0,-2.0,-2.0,2.0
2025-07-18 16:40:47.719,0.14,140,7,-0.4252009,0.17957819,0.14022383,-0.14479381,0.049337123,0.014713393,0.0,0.0,0.0,-0.009289382,0.24815407,-0.45793885,0.019445304,-0.08025647,-0.117184944,0.08702352,0.23887786,0.06097499,0.22692634,-0.020459473,0.33030146,-0.00046143567,0.119083025,-0.13412888,0.10356123,0.034895033,0.20684673,-0.2033056,0.050891634,-0.12655367,0.01792302,-0.124520704,-0.34427202,0.20955716,2.0,-2.0,2.0,1.4856976,2.0,-2.0,2.0,-2.0,2.0,-2.0,-2.0,2.0,2.0,2.0,2.0,-2.0,2.0,-2.0,-1.8253236,2.0,2.0,-2.0,-2.0,2.0
2025-07-18 16:40:47.743,0.16,160,8,0.45308653,0.066024795,-0.19652142,-0.13472375,0.03398979,-0.04882416,0.0,0.0,0.0,-0.011696112,0.2674596,-0.4985572,0.0723566,-0.10162823,-0.034409802,0.027872343,0.21089116,0.06798237,0.24164684,-0.09030687,0.18074435,0.04785172,0.030922046,-0.077907,0.14027774,-0.106744856,0.25500178,-0.08918267,-0.081371896,0.19513503,0.0035242161,-0.12566899,-0.3310976,0.07384773,2.0,2.0,2.0,-2.0,2.0,-2.0,-1.8253236,2.0,2.0,-2.0,-2.0,2.0,2.0,-1.423229,2.0,-2.0,2.0,-2.0,2.0,-1.1156436,-2.0,-2.0,-2.0,2.0
2025-07-18 16:40:47.760,0.18,180,9,0.40091926,0.067721,0.006805805,-0.111081585,-0.010958061,0.025259135,0.0,0.0,0.0,-0.010657813,0.27142966,-0.5139768,0.10255121,-0.13971934,0.097959645,-0.044641785,0.23306543,0.10377887,0.15044458,-0.120751396,0.019151166,0.08835701,0.015234773,-0.03823463,0.090218775,-0.067766145,0.310994,-0.18019801,0.07328023,0.10301059,-0.21683256,-0.03437479,-0.3691472,0.12305047,2.0,-1.423229,2.0,-2.0,2.0,-2.0,2.0,-1.1156436,-2.0,-2.0,-2.0,2.0,2.0,2.0,2.0,-2.0,-2.0,-2.0,2.0,2.0,-2.0,-2.0,2.0,2.0
2025-07-18 16:40:47.781,0.19999999999999998,200,10,0.27842936,-0.23639858,-0.3022209,-0.046742324,-0.017360056,0.010327728,0.0,0.0,0.0,-0.008002325,0.284217,-0.5086323,0.13199008,-0.17892198,0.17382501,-0.07219303,0.24388593,0.1735264,0.074343786,-0.17613398,-0.06682279,0.1320035,0.050994236,-0.0077375877,0.13325725,-0.106697254,-0.024652103,-0.03797268,0.1197264,0.26721296,-0.18863346,-0.10418334,-0.07618596,0.047222134,2.0,2.0,2.0,-2.0,-2.0,-2.0,2.0,2.0,-2.0,-2.0,2.0,2.0,-2.0,2.0,2.0,-2.0,-2.0,-2.0,2.0,1.8911637,-2.0,2.0,2.0,2.0
2025-07-18 16:40:47.801,0.21999999999999997,220,11,0.13849032,-0.47317782,-0.15974742,-0.029833391,0.024693215,-0.004885967,0.0,0.0,0.0,-0.004287306,0.27997255,-0.47183546,0.16092743,-0.20646319,0.11839557,-0.11383365,0.26850364,0.28517324,0.008149955,-0.19789244,-0.06500781,0.14350012,-0.004175495,0.15409705,0.02118978,-0.007855234,-0.21752754,-0.116507426,0.0027276159,0.19877116,-0.17832284,-0.0870737,0.07292362,-0.034375347,-2.0,2.0,2.0,-2.0,-2.0,-2.0,2.0,1.8911637,-2.0,2.0,2.0,2.0,-2.0,2.0,-2.0,-2.0,-2.0,-2.0,2.0,-2.0,2.0,2.0,-2.0,2.0
2025-07-18 16:40:47.821,0.23999999999999996,240,12,-0.10369787,0.04536827,-0.06755374,-0.07341547,-0.020947969,0.009267981,0.0,0.0,0.0,-0.0003042136,0.27911106,-0.40836465,0.08499738,-0.2186965,-0.0028401692,-0.14737682,0.27902946,0.3023396,0.04615539,-0.21700726,-0.06242315,0.16410959,0.037178576,0.121717915,-0.1642542,-0.081499465,-0.42251995,-0.11198093,0.028279653,-0.16903238,0.090259366,0.005197498,-0.028265074,0.014802822,-2.0,2.0,-2.0,-2.0,-2.0,-2.0,2.0,-2.0,2.0,2.0,-2.0,2.0,-2.0,2.0,-2.0,-2.0,-2.0,2.0,2.0,-2.0,2.0,2.0,-2.0,2.0
2025-07-18 16:40:47.841,0.25999999999999995,260,13,-0.090152994,0.2694078,0.08485239,-0.03163724,-0.055421676,-0.014680467,0.0,0.0,0.0,0.0022016321,0.26377484,-0.35645887,0.0017055521,-0.24974266,-0.1434888,-0.082983665,0.28583062,0.2305508,0.09672824,-0.20867492,-0.08341211,0.19056481,-0.06275123,0.16189153,-0.21989004,-0.12123739,-0.30354518,0.12030499,0.022674063,-0.24024175,0.050642658,0.007992832,-0.07711058,-0.011828774,-2.0,2.0,-2.0,-2.0,-2.0,2.0,2.0,-2.0,2.0,2.0,-2.0,2.0,-2.0,2.0,-2.0,-2.0,-2.0,2.0,2.0,-0.095174015,2.0,2.0,2.0,-2.0
2025-07-18 16:40:47.861,0.27999999999999997,280,14,0.14320059,0.028974704,0.27407503,-0.10223615,-0.03845126,0.017980432,0.0,0.0,0.0,0.0030627737,0.24042962,-0.29424983,-0.05607916,-0.26750764,-0.27118757,-0.017122153,0.29071587,0.17224272,0.13294084,-0.1871331,-0.022359218,0.10906994,-0.14689824,0.10878244,-0.15474692,-0.077602096,-0.3003651,0.12099475,0.023576856,-0.07896243,0.072569214,0.048890997,0.16288304,-0.24262704,-2.0,2.0,-2.0,-2.0,-2.0,2.0,2.0,-0.095174015,2.0,2.0,2.0,-2.0,2.0,2.0,-2.0,-2.0,-2.0,2.0,2.0,2.0,2.0,2.0,2.0,-2.0
2025-07-18 16:40:47.881,0.3,300,15,-0.13250224,-0.13203223,0.08298551,-0.041748475,-0.004677313,0.042694904,0.0,0.0,0.0,0.0006672485,0.2510318,-0.23168707,-0.11973474,-0.27115348,-0.3670487,0.04198143,0.3202997,0.18658195,0.16094534,-0.13978183,0.08788314,0.044391148,-0.008845122,0.13042904,-0.18476115,-0.05910393,-0.29391474,0.18025419,0.035804357,0.18168621,0.07926537,0.16137728,0.34917206,-0.14190905,2.0,2.0,-2.0,-2.0,-2.0,2.0,2.0,2.0,2.0,2.0,2.0,-2.0,2.0,2.0,-2.0,-2.0,2.0,2.0,2.0,-2.0,2.0,2.0,2.0,-2.0
2025-07-18 16:40:47.901,0.32,320,16,0.02371669,-0.03867129,0.27073005,-0.11851756,-0.017452516,-0.044743095,0.0,0.0,0.0,-0.0023659924,0.26625505,-0.1549954,-0.15142907,-0.29376772,-0.39433777,0.09542413,0.342646,0.21123548,0.18913579,-0.098689325,0.21203257,-0.03422194,0.025445431,0.17076708,-0.09063497,-0.028572826,0.064928256,0.08484452,0.026157096,0.026543656,0.06120631,0.18423022,0.28657642,-0.09687137,2.0,2.0,-2.0,-2.0,2.0,2.0,2.0,-2.0,2.0,2.0,2.0,-2.0,2.0,-2.0,-2.0,2.0,-2.0,2.0,-2.0,-2.0,2.0,2.0,2.0,-2.0
2025-07-18 16:40:47.921,0.34,340,17,0.18408473,0.37537977,0.21260318,-0.10405216,-0.01052788,-0.0067570126,0.0,0.0,0.0,-0.006207346,0.28781343,-0.14721157,-0.19218846,-0.2522745,-0.41090035,0.11607424,0.32127842,0.1794395,0.21086405,-0.01565615,0.3090622,-0.07170632,0.028741892,-0.01878344,-0.098612905,0.034756675,-0.20605741,0.091451086,-0.12050563,-0.1858515,0.054755777,0.1652395,0.2659994,-0.06941854,2.0,-2.0,-2.0,2.0,-2.0,2.0,-2.0,-2.0,2.0,2.0,2.0,-2.0,2.0,-2.0,-2.0,-2.0,2.0,2.0,2.0,2.0,2.0,2.0,2.0,-2.0
2025-07-18 16:40:47.941,0.36000000000000004,360,18,0.0915257,0.010600604,0.29591078,-0.07174351,0.025851663,0.0187378,0.0,0.0,0.0,-0.010751198,0.30934224,-0.20014411,-0.19845358,-0.26264682,-0.43415055,0.15801868,0.32205072,0.17423454,0.23587072,0.03435837,0.40405884,-0.110054374,0.038237646,-0.28902265,-0.036917314,0.0049545355,-0.00012715223,0.07018994,0.048512492,0.13490579,0.10746037,0.21869005,0.14625274,-0.06145586,2.0,-2.0,-2.0,-2.0,2.0,2.0,2.0,2.0,2.0,2.0,2.0,-2.0,2.0,-2.0,2.0,2.0,2.0,-2.0,-2.0,-2.0,2.0,-2.0,2.0,2.0
2025-07-18 16:40:47.961,0.38000000000000006,380,19,0.14320935,-0.076248586,0.20791912,-0.06952258,0.027529065,-0.0125182895,0.0,0.0,0.0,-0.015305557,0.3146378,-0.30335912,-0.1396978,-0.27011618,-0.3854939,0.07620142,0.28282222,0.18965012,0.24338414,-2.6331123e-05,0.47660583,-0.05707559,0.012348756,-0.3087311,0.22882184,-0.056971047,0.18608616,-0.1952448,-0.047932357,0.01690276,0.112303756,-0.23667328,0.20022412,0.22406629,2.0,-2.0,2.0,2.0,2.0,-2.0,-2.0,-2.0,2.0,-2.0,2.0,2.0,2.0,-2.0,2.0,2.0,2.0,-2.0,-2.0,-2.0,2.0,-2.0,-2.0,2.0
2025-07-18 16:40:47.981,0.4000000000000001,400,20,0.2754737,0.040813185,0.07574609,-0.03284506,0.04907459,0.04306956,0.0,0.0,0.0,-0.019266116,0.31463802,-0.39819467,-0.056678254,-0.26743788,-0.31996685,0.004771482,0.24742019,0.17749494,0.2716174,-0.058453236,0.48542973,0.0147634335,0.06302222,-0.26662952,0.10063413,-0.058685914,0.18559308,-0.20706926,-0.10943873,-0.0094583845,0.038674995,-0.11637405,-0.1514226,0.12896106,2.0,-2.0,2.0,2.0,2.0,-2.0,-2.0,-2.0,2.0,-2.0,-2.0,2.0,2.0,-2.0,2.0,2.0,2.0,-2.0,-2.0,-2.0,2.0,-2.0,-2.0,2.0
2025-07-18 16:40:48.005,0.4200000000000001,420,21,0.21941169,0.11327679,0.052441023,0.04382924,0.049017657,0.0070092366,0.0,0.0,0.0,-0.021841174,0.33603966,-0.4672572,-0.0036420645,-0.28247848,-0.26030976,-0.058553807,0.19222671,0.15211523,0.28364858,-0.096872546,0.38560787,0.06799084,0.08037283,-0.2171526,0.09728035,0.012942199,0.1919603,-0.07763895,-0.16425796,-0.00017531191,0.10124604,-0.09033921,-0.3153946,0.17714997,2.0,-2.0,2.0,2.0,2.0,-2.0,-2.0,-2.0,2.0,-2.0,-2.0,2.0,2.0,-2.0,2.0,2.0,2.0,-2.0,-2.0,-2.0,2.0,-2.0,-2.0,2.0
2025-07-18 16:40:48.021,0.4400000000000001,440,22,0.22417128,0.25298312,-0.029184831,0.052423842,0.085244656,-0.03161572,0.0,0.0,0.0,-0.023363024,0.33438396,-0.54339534,0.047120184,-0.28548503,-0.19534412,-0.11178679,0.16892064,0.11809584,0.29196095,-0.14294192,0.22068365,0.10910087,0.04079642,-0.09119186,0.11227029,-0.048952185,0.20186552,-0.13204801,-0.14515123,-0.033216048,0.05574447,-0.11418375,-0.4439962,0.1518019,2.0,-2.0,2.0,2.0,2.0,-2.0,-2.0,-2.0,2.0,-2.0,-2.0,2.0,2.0,2.0,2.0,1.9204286,2.0,-2.0,-1.119462,-2.0,-2.0,-2.0,0.003652066,2.0
2025-07-18 16:40:48.042,0.46000000000000013,460,23,0.21133958,0.0029590104,-0.017416509,0.038017347,0.08650241,0.04900753,0.0,0.0,0.0,-0.023531865,0.32750714,-0.5462048,0.09205977,-0.28691292,-0.13610068,-0.15266012,0.110455245,0.13228267,0.21848261,-0.17391355,0.15496123,0.14107336,0.08535547,0.09744562,0.16013305,0.0858948,0.15117529,-0.10479722,-0.04849409,0.054662876,-0.23937526,-0.04600749,-0.13289386,0.008324848,2.0,2.0,2.0,1.9204286,2.0,-2.0,-1.119462,-2.0,-2.0,-2.0,0.003652066,2.0,2.0,2.0,2.0,-2.0,2.0,-2.0,2.0,2.0,-2.0,-2.0,-2.0,2.0
2025-07-18 16:40:48.062,0.48000000000000015,480,24,-0.0009688702,-0.26545683,-0.1938134,0.021139486,0.055791937,0.010177544,0.0,0.0,0.0,-0.023044521,0.34879714,-0.5168974,0.13142128,-0.29860675,-0.060099117,-0.20073135,0.1487555,0.19343582,0.12800963,-0.21396385,0.14148185,0.17998068,0.010336471,0.05556558,0.14375813,-0.072998255,0.18122184,-0.02500407,0.07151087,0.26058912,-0.26075926,-0.09207619,0.00089600205,0.08769972,2.0,2.0,2.0,-2.0,2.0,-2.0,2.0,2.0,-2.0,-2.0,-2.0,2.0,-2.0,2.0,2.0,-2.0,-1.0070444,-2.0,2.0,2.0,-2.0,2.0,-2.0,2.0
2025-07-18 16:40:48.082,0.5000000000000001,500,25,-0.09561351,-0.1269296,-0.29417327,0.03884595,0.0030511029,0.01920268,0.0,0.0,0.0,-0.02058325,0.35974422,-0.47599816,0.15292673,-0.29415578,-0.029405976,-0.20881356,0.16605854,0.30583537,0.039385054,-0.21931753,0.12584293,0.2104969,0.043584768,0.14838104,-0.0037425682,0.011058496,-0.112538576,0.012981807,0.11227183,0.18435565,-0.17837475,0.04069589,-0.07304241,0.07298459,-2.0,2.0,2.0,-2.0,-1.0070444,-2.0,2.0,2.0,-2.0,2.0,-2.0,2.0,-2.0,2.0,2.0,-2.0,-2.0,-2.0,2.0,-2.0,-2.0,2.0,2.0,2.0
2025-07-18 16:40:48.102,0.5200000000000001,520,26,0.089005604,-0.17060028,-0.011811172,0.063913085,-0.027420562,-0.03788129,0.0,0.0,0.0,-0.015963208,0.35588816,-0.4461939,0.17363194,-0.31800672,-0.09344545,-0.23790377,0.21033664,0.3370056,-0.008793129,-0.20926905,0.16306764,0.21960194,0.03031179,0.1012151,0.063898325,-0.015093026,-0.27831674,-0.044798136,0.026027914,-0.13584964,-0.10932527,0.07394301,0.13683493,0.09605495,-2.0,2.0,2.0,-2.0,-2.0,-2.0,2.0,-2.0,-2.0,2.0,2.0,2.0,-2.0,2.0,-2.0,-2.0,-2.0,2.0,2.0,-2.0,2.0,2.0,-2.0,2.0
2025-07-18 16:40:48.122,0.5400000000000001,540,27,-0.037778515,0.10319819,0.06413665,0.0036027988,-0.030882576,0.009085215,0.0,0.0,0.0,-0.013335417,0.32724956,-0.35950074,0.09048876,-0.32413888,-0.2109802,-0.15948461,0.22753489,0.24213913,0.019859605,-0.19146577,0.19205077,0.2425412,-0.12426311,0.17114672,-0.19663936,-0.08537398,-0.23047419,0.25908345,0.030800525,-0.36101747,0.18617113,0.1664614,0.07470535,0.09919102,-2.0,2.0,-2.0,-2.0,-2.0,2.0,2.0,-2.0,2.0,2.0,-2.0,2.0,-2.0,2.0,-2.0,-2.0,-2.0,2.0,2.0,2.0,2.0,2.0,2.0,-2.0
2025-07-18 16:40:48.142,0.5600000000000002,560,28,0.063164756,-0.22021264,0.118997134,0.017218702,0.041966796,-0.04701158,0.0,0.0,0.0,-0.014015137,0.2820412,-0.2790888,0.018124208,-0.31343088,-0.33520448,-0.06554099,0.23990637,0.20004837,0.07882127,-0.12860973,0.2750514,0.15024744,-0.19162953,0.20285739,-0.11619975,-0.08058925,-0.28092015,0.21389896,0.11681581,-0.019763814,0.050343193,0.0893569,0.32698843,-0.24520114,-2.0,2.0,-2.0,-2.0,-2.0,2.0,2.0,2.0,2.0,2.0,2.0,-2.0,2.0,2.0,-2.0,-2.0,-2.0,2.0,2.0,2.0,2.0,2.0,2.0,-2.0
2025-07-18 16:40:48.162,0.5800000000000002,580,29,-0.3291614,-0.18070544,0.023896117,-0.029345185,-0.012078796,-0.018304104,0.0,0.0,0.0,-0.015900264,0.29168013,-0.14227839,-0.05171476,-0.31566674,-0.4283048,-0.0009772338,0.25710207,0.2630963,0.10642357,-0.057208523,0.37951288,0.08296627,-0.002816663,0.35535908,-0.17412704,-0.076194845,-0.24918455,0.2116021,-0.038444415,0.32286987,0.091319084,0.1443149,0.18382157,-0.1981776,2.0,2.0,-2.0,-2.0,-2.0,2.0,2.0,2.0,2.0,2.0,2.0,-2.0,2.0,-2.0,-2.0,1.5175756,2.0,2.0,2.0,-2.0,2.0,2.0,2.0,-2.0
2025-07-18 16:40:48.182,0.6000000000000002,600,30,-0.26954505,-0.1052883,0.30490533,0.020727051,-0.010389241,-0.0028176382,0.0,0.0,0.0,-0.017600402,0.30469656,-0.069893286,-0.09651822,-0.26051393,-0.4366942,0.0520566,0.27901903,0.27285868,0.14771935,0.02058085,0.45786855,0.01604406,0.040185254,0.104263715,-0.09391769,0.1853784,0.03536418,0.19528334,0.07423099,-0.074769475,0.08291885,0.16729154,0.24759392,-0.10955597,2.0,-2.0,-2.0,1.5175756,2.0,2.0,2.0,-2.0,2.0,2.0,2.0,-2.0,2.0,-2.0,-2.0,2.0,2.0,2.0,-2.0,-2.0,2.0,2.0,2.0,-2.0
2025-07-18 16:40:48.202,0.6200000000000002,620,31,-0.15288427,-0.097587444,0.3106779,-0.019855475,-0.015270968,0.028462982,0.0,0.0,0.0,-0.020753926,0.31498036,-0.06688151,-0.11914347,-0.22119406,-0.39000246,0.087021194,0.2748372,0.24220301,0.19086179,0.07455093,0.51979977,-0.04559621,0.0668162,-0.21809165,-0.07206917,0.08767684,0.120575234,0.083680354,-0.009820366,-0.038699474,0.11509146,0.08775042,0.17245792,-0.1465622,2.0,-2.0,-2.0,2.0,2.0,2.0,-2.0,-2.0,2.0,2.0,2.0,-2.0,2.0,-2.0,-0.3681059,2.0,2.0,-2.0,-2.0,1.4970134,2.0,-2.0,-2.0,0.32733387
2025-07-18 16:40:48.222,0.6400000000000002,640,32,-0.035422213,-0.059693158,-0.121478744,-0.027130617,-0.07818652,-0.02408189,0.0,0.0,0.0,-0.025936626,0.3044026,-0.17311713,-0.10447672,-0.18870896,-0.33488157,0.008122065,0.25494555,0.27014396,0.20872183,0.029380964,0.50532174,-0.037205175,0.086167954,-0.32486588,0.07199849,0.102613196,0.16107793,-0.11460871,0.009138729,0.11658319,0.01493694,-0.19822231,-0.15887666,-0.018228516,2.0,-2.0,-0.3681059,2.0,2.0,-2.0,-2.0,1.4970134,2.0,-2.0,-2.0,0.32733387,2.0,-2.0,2.0,2.0,2.0,-2.0,-2.0,-2.0,2.0,-2.0,-2.0,2.0
2025-07-18 16:40:48.242,0.6600000000000003,660,33,0.2324128,0.25007746,-0.19127056,0.013440378,0.0052253325,-0.029724604,0.0,0.0,0.0,-0.027296476,0.33172503,-0.27412626,-0.037674394,-0.17887315,-0.2881477,-0.045753773,0.23346074,0.2957886,0.2198918,-0.024621567,0.43271023,0.012571291,0.05071111,-0.16862433,0.10259694,0.022923514,0.079476096,-0.11104919,-0.07114149,0.02063933,0.009803568,-0.2168611,-0.12974545,0.17660908,2.0,-2.0,2.0,2.0,2.0,-2.0,-2.0,-2.0,2.0,-2.0,-2.0,2.0,2.0,-2.0,2.0,2.0,2.0,-2.0,-2.0,-2.0,2.0,-2.0,-2.0,2.0
2025-07-18 16:40:48.263,0.6800000000000003,680,34,0.28395057,0.38226083,-0.23932807,-0.0018239964,-0.0073036207,0.020747973,0.0,0.0,0.0,-0.023764899,0.34297377,-0.36644113,0.022421679,-0.19463527,-0.26769197,-0.114672326,0.17223006,0.2877479,0.2519162,-0.078915335,0.3705146,0.0676081,-0.02848873,-0.297885,0.12964533,0.02290492,0.0586181,-0.12586041,-0.1898396,-0.031415418,0.07413521,-0.0664345,-0.19393219,0.1371921,2.0,-2.0,2.0,2.0,2.0,-2.0,-2.0,-2.0,2.0,-2.0,-2.0,2.0,2.0,-2.0,2.0,2.0,2.0,-2.0,1.5697088,-2.0,2.0,-2.0,-2.0,2.0
2025-07-18 16:40:48.282,0.7000000000000003,700,35,-0.113908455,0.4032523,-0.14044023,0.008839726,0.028184664,-0.014656733,0.0,0.0,0.0,-0.019692013,0.3580291,-0.45367652,0.055319563,-0.1715384,-0.23357286,-0.15367435,0.1770239,0.23660508,0.26718363,-0.12292691,0.27594313,0.11809619,0.04171115,-0.1159629,0.05239613,0.053943638,0.049476054,-0.048906997,0.0058441763,-0.14029045,0.08070349,-0.1254106,-0.1855294,0.054130092,2.0,-2.0,2.0,2.0,2.0,-2.0,1.5697088,-2.0,2.0,-2.0,-2.0,2.0,2.0,1.1649694,2.0,-2.0,2.0,-2.0,2.0,-2.0,1.1986539,-2.0,-2.0,2.0
2025-07-18 16:40:48.302,0.7200000000000003,720,36,0.1532626,0.19146484,-0.035687406,-0.012313934,0.019747196,-0.044182662,0.0,0.0,0.0,-0.016149465,0.34953856,-0.48426557,0.09580668,-0.18091585,-0.20431212,-0.19301298,0.19133282,0.17410836,0.2487442,-0.17172743,0.18037996,0.14822876,-0.0020018474,0.039149463,0.15374489,-0.052367624,0.17418487,-0.12563403,0.026104372,-0.23719299,-0.025313947,-0.1264465,-0.23514299,0.1007592,2.0,1.1649694,2.0,-2.0,2.0,-2.0,2.0,-2.0,1.1986539,-2.0,-2.0,2.0,2.0,2.0,2.0,-2.0,2.0,-2.0,2.0,2.0,-2.0,-2.0,-2.0,2.0
2025-07-18 16:40:48.323,0.7400000000000003,740,37,0.033097796,-0.068547934,-0.23579581,0.044117037,0.08663907,0.032044224,0.0,0.0,0.0,-0.014861724,0.36408728,-0.45043916,0.12650384,-0.2258996,-0.11554279,-0.21863428,0.22763312,0.17275107,0.15058827,-0.18978445,0.093804955,0.18332261,0.03275154,0.09473883,0.026915656,-0.14121296,0.22445416,-0.106763706,0.0020538622,0.06645112,-0.18677332,-0.097527094,-0.068540126,0.10562613,2.0,2.0,2.0,-2.0,2.0,-2.0,2.0,2.0,-2.0,-2.0,-2.0,2.0,-2.0,2.0,2.0,-2.0,-1.0120498,-2.0,2.0,2.0,-2.0,2.0,2.0,2.0
2025-07-18 16:40:48.343,0.7600000000000003,760,38,-0.0026001637,-0.27470714,-0.17062408,0.04310075,0.052310523,0.049056448,0.0,0.0,0.0,-0.011554102,0.35678998,-0.39347196,0.14682218,-0.23956354,-0.1088819,-0.22390212,0.24226469,0.24435201,0.08046525,-0.20346837,0.10298367,0.2018005,-0.014857708,0.1467606,-0.010222416,0.0025700354,-0.1362621,-0.034672022,0.031475924,0.25526336,-0.23753788,0.08648658,0.11814977,0.10243937,-2.0,2.0,2.0,-2.0,-1.0120498,-2.0,2.0,2.0,-2.0,2.0,2.0,2.0,-2.0,2.0,-2.0,-2.0,-2.0,-2.0,2.0,-2.0,2.0,2.0,-2.0,2.0
2025-07-18 16:40:48.363,0.7800000000000004,780,39,-0.017148878,0.086063296,-0.025604142,0.021874724,0.025384443,-0.022394862,0.0,0.0,0.0,-0.0076681497,0.3202808,-0.30816606,0.081034124,-0.2665716,-0.19470645,-0.25088683,0.2599329,0.2654799,0.10564072,-0.18808755,0.1250333,0.231754,-0.10076146,0.16287196,-0.28126445,-0.09779716,-0.24343179,-0.09425355,0.09386093,-0.037134502,0.06581914,0.07579397,0.059777834,0.009114894,-2.0,2.0,-2.0,-2.0,-2.0,-2.0,2.0,-2.0,2.0,2.0,-2.0,2.0,-2.0,2.0,-2.0,-2.0,-2.0,2.0,2.0,-2.0,2.0,2.0,-2.0,2.0
2025-07-18 16:40:48.385,0.8000000000000004,800,40,-0.02839893,0.21758471,0.01998807,0.026102751,0.044457916,-0.047660127,0.0,0.0,0.0,-0.005913139,0.29669595,-0.22199495,0.007854315,-0.28171787,-0.30547404,-0.16952132,0.28318265,0.17859496,0.15169664,-0.16172367,0.098224394,0.24992464,-0.118555255,0.20354283,-0.13103792,-0.07016148,-0.319018,0.1553768,-0.027631292,-0.23363489,0.026444973,0.031452816,-0.061171558,0.075122595,-2.0,2.0,-2.0,-2.0,-2.0,2.0,2.0,-2.0,2.0,2.0,-2.0,2.0,-2.0,2.0,-2.0,-2.0,-2.0,2.0,2.0,2.0,2.0,2.0,2.0,-2.0
2025-07-18 16:40:48.405,0.8200000000000004,820,41,0.30733496,-0.2190414,0.074624136,-0.03152458,0.014363933,-0.0492751,0.0,0.0,0.0,-0.006010917,0.26135504,-0.1324999,-0.05941891,-0.28424743,-0.40300366,-0.085126005,0.27712187,0.1358243,0.1807063,-0.092590496,0.15347251,0.16532089,-0.14962184,0.23164174,-0.19879277,-0.06242136,-0.23335949,0.19275525,0.08404729,0.110278115,0.12157677,0.13736679,0.25394678,-0.19025262,-2.0,2.0,-2.0,-2.0,-2.0,2.0,2.0,2.0,2.0,2.0,2.0,-2.0,2.0,2.0,-2.0,-2.0,0.9586442,2.0,2.0,-2.0,2.0,2.0,2.0,-2.0
2025-07-18 16:40:48.425,0.8400000000000004,840,42,0.15559731,-0.13369347,0.10010709,0.06207514,-0.00970225,-0.04936049,0.0,0.0,0.0,-0.006468856,0.24495418,0.009495857,-0.10945423,-0.28978476,-0.4139701,-0.0053195376,0.2971747,0.11388901,0.20644912,-0.017934527,0.27372506,0.0761096,0.059686575,0.35446396,-0.07443223,0.04291405,0.05804508,0.10066448,0.09131518,-0.23399808,-0.0044572894,0.2054084,0.34410423,-0.12510152,2.0,2.0,-2.0,-2.0,0.9586442,2.0,2.0,-2.0,2.0,2.0,2.0,-2.0,2.0,-2.0,-2.0,2.0,-2.0,2.0,1.6581202,2.0,2.0,2.0,2.0,-2.0
2025-07-18 16:40:48.446,0.8600000000000004,860,43,-0.27909955,-0.1888646,-0.11259683,-0.010696221,0.04208624,0.045971986,0.0,0.0,0.0,-0.008064808,0.2766337,0.08356835,-0.12970656,-0.24636582,-0.43086436,0.047149174,0.29562804,0.10677317,0.21862698,0.040446144,0.37305638,0.009160832,-0.00014153396,-0.046486955,-0.012577696,0.17150454,-0.08524123,0.11343745,-0.0435079,0.066572845,0.10912987,0.20839699,0.17798299,-0.22449064,2.0,-2.0,-2.0,2.0,-2.0,2.0,1.6581202,2.0,2.0,2.0,2.0,-2.0,2.0,-2.0,-2.0,-2.0,2.0,2.0,2.0,-2.0,2.0,2.0,2.0,-2.0
2025-07-18 16:40:48.465,0.8800000000000004,880,44,-0.005582801,-0.2200254,0.25914764,0.03582053,-0.011506414,-0.043292925,0.0,0.0,0.0,-0.008624607,0.2823525,0.03696645,-0.16226892,-0.24246056,-0.4394425,0.0846194,0.30135036,0.09370273,0.22951062,0.10558871,0.45466974,-0.042887375,0.045253918,-0.25100875,-0.05038305,-0.10465151,0.01041858,0.014396039,-0.038840048,-0.077587806,0.014210811,0.08530087,0.23516914,-0.11324033,2.0,-2.0,-2.0,-2.0,2.0,2.0,2.0,-2.0,2.0,2.0,2.0,-2.0,2.0,-2.0,-2.0,2.0,2.0,2.0,-2.0,2.0,2.0,-2.0,2.0,-2.0
2025-07-18 16:40:48.485,0.9000000000000005,900,45,0.06325638,-0.56667244,0.0029624712,-0.007808207,-0.09361196,-0.037586566,0.0,0.0,0.0,-0.010636935,0.29297554,-0.087515965,-0.18324617,-0.2585147,-0.40717855,0.10682377,0.3250923,0.10466775,0.23700547,0.050886415,0.5282183,-0.09114984,0.025546946,-0.35267183,-0.1161019,0.031228738,0.06436452,0.055933446,0.058105182,0.12364527,0.0015381587,-0.24795842,0.13331164,-0.03966925,2.0,-2.0,-2.0,2.0,2.0,2.0,-2.0,2.0,2.0,-2.0,2.0,-2.0,2.0,-2.0,2.0,2.0,2.0,-2.0,-2.0,-2.0,2.0,-2.0,-2.0,2.0
2025-07-18 16:40:48.506,0.9200000000000005,920,46,0.0619226,0.18194106,-0.25099733,-0.001881291,-0.08215626,-0.028157648,0.0,0.0,0.0,-0.01253691,0.30376047,-0.22887523,-0.12343156,-0.2520897,-0.34139007,0.043323696,0.30343437,0.13794346,0.25705191,-0.0066807703,0.5285779,-0.08039062,0.0863654,-0.31903833,0.2678114,0.05634812,0.06944204,-0.16938943,-0.051413182,0.103930086,0.10862294,-0.15604517,-0.15095401,0.24519941,2.0,-2.0,2.0,2.0,2.0,-2.0,-2.0,-2.0,2.0,-2.0,-2.0,2.0,2.0,-2.0,2.0,2.0,2.0,-2.0,-2.0,-2.0,2.0,-2.0,-2.0,2.0
2025-07-18 16:40:48.526,0.9400000000000005,940,47,-0.17726178,0.35863927,-0.21016222,0.0077764615,-0.04322493,-0.03332551,0.0,0.0,0.0,-0.00953564,0.31214744,-0.3385858,-0.044598345,-0.24423216,-0.3022931,-0.034218114,0.27616468,0.13243279,0.27214226,-0.069666095,0.45282438,0.0052368026,-0.041262507,-0.1818161,0.124570124,-0.001826404,0.04766427,-0.19040334,-0.02213198,0.008065736,0.10574162,-0.1764858,-0.2988358,0.1108086,2.0,-2.0,2.0,2.0,2.0,-2.0,-2.0,-2.0,2.0,-2.0,-2.0,2.0,2.0,-2.0,2.0,2.0,2.0,-2.0,-1.7494645,-2.0,2.0,-2.0,-2.0,2.0
2025-07-18 16:40:48.545,0.9600000000000005,960,48,-0.31910026,0.44700027,-0.33098426,-0.030161623,-0.025140231,0.00016096477,0.0,0.0,0.0,-0.004817096,0.32141948,-0.41321212,0.0239236,-0.22149046,-0.28480852,-0.099483766,0.23662691,0.11871221,0.28758046,-0.099197194,0.34832367,0.050661527,0.062426914,-0.1602247,0.06764464,0.053084355,0.07337143,-0.1534744,-0.020406114,-0.026479298,0.029822616,-0.044961218,-0.39843237,0.12745738,2.0,-2.0,2.0,2.0,2.0,-2.0,-1.7494645,-2.0,2.0,-2.0,-2.0,2.0,2.0,-2.0,2.0,-2.0,2.0,-2.0,2.0,-2.0,-1.8199496,-2.0,0.4620032,2.0
2025-07-18 16:40:48.565,0.9800000000000005,980,49,0.14871708,0.26485103,-0.013084894,-0.00880584,0.015760023,0.031458896,0.0,0.0,0.0,0.00074774685,0.32919753,-0.48724878,0.07142956,-0.2518054,-0.23214945,-0.14167686,0.2570155,0.12114569,0.21607172,-0.13822272,0.28370208,0.099057965,-0.018772233,-0.18294945,0.14115942,-0.09844752,0.10410875,-0.08746508,-0.010539955,-0.10181483,-0.17910974,-0.1073,0.008478707,0.16124842,2.0,-2.0,2.0,-2.0,2.0,-2.0,2.0,-2.0,-1.8199496,-2.0,0.4620032,2.0,2.0,1.4673121,2.0,-2.0,2.0,-2.0,2.0,2.0,-2.0,-2.0,-2.0,2.0
2025-07-18 16:40:48.587,1.0000000000000004,1000,50,0.047981657,-0.14650226,-0.1451058,0.017818585,0.0341972,-0.04245231,0.0,0.0,0.0,0.0023898205,0.32827583,-0.50008655,0.09831225,-0.25431678,-0.15026048,-0.17938596,0.26967895,0.16655664,0.10872321,-0.18329424,0.22113189,0.14464656,0.06523201,-0.009261398,0.15279831,-0.10492073,0.24942009,-0.06803373,-0.020191083,0.30051425,-0.25162002,-0.07629146,-0.15412822,0.07354432,2.0,1.4673121,2.0,-2.0,2.0,-2.0,2.0,2.0,-2.0,-2.0,-2.0,2.0,-2.0,2.0,2.0,-2.0,2.0,-2.0,2.0,1.3492516,-2.0,2.0,-2.0,2.0
2025-07-18 16:40:48.606,1.0200000000000005,1020,51,-0.1216004,-0.17231964,-0.050294917,-0.032671414,0.012705752,-0.041180406,0.0,0.0,0.0,0.0036068365,0.32266343,-0.4795211,0.12748209,-0.2897124,-0.06096248,-0.21355264,0.28081298,0.23813361,0.039906975,-0.1889733,0.16977336,0.18078664,0.0107476665,0.07854582,0.07464463,0.015297661,0.22473031,-0.036417585,0.060546696,0.13148625,-0.17616478,-0.049655173,-0.12039164,0.14633788,-2.0,2.0,2.0,-2.0,2.0,-2.0,2.0,1.3492516,-2.0,2.0,-2.0,2.0,-2.0,2.0,2.0,-2.0,-2.0,-2.0,2.0,-2.0,-2.0,2.0,-2.0,2.0
2025-07-18 16:40:48.628,1.0400000000000005,1040,52,-0.09266693,-0.024172412,-0.03504513,-0.018352881,-0.025125263,0.038678374,0.0,0.0,0.0,0.00528149,0.32413077,-0.4536015,0.13995749,-0.29401132,-0.029366223,-0.2231596,0.2866585,0.2318071,-0.011043207,-0.18853992,0.13349243,0.19288392,-0.03479002,0.010146056,-0.014944285,-0.05925279,-0.021581216,-0.105543055,0.0077910502,-0.08263447,-0.19829294,0.0050166203,-0.0536375,0.06946887,-2.0,2.0,2.0,-2.0,-2.0,-2.0,2.0,-2.0,-2.0,2.0,-2.0,2.0,-2.0,2.0,-2.0,-2.0,-2.0,-2.0,2.0,-2.0,-0.42712444,2.0,-2.0,2.0
2025-07-18 16:40:48.646,1.0600000000000005,1060,53,-0.18355618,0.15497486,-0.00985043,-0.044171665,-0.0059251175,-0.0028612218,0.0,0.0,0.0,0.00630664,0.30731428,-0.3815457,0.060279056,-0.30896974,-0.101806164,-0.24028213,0.2994118,0.12979409,-0.021800539,-0.1837819,0.109562986,0.22761363,0.016495818,0.2376582,-0.20638146,-0.08636743,-0.27674708,-0.07870201,0.05514818,-0.31009772,0.052603733,0.05634819,-0.09261253,0.11432031,-2.0,2.0,-2.0,-2.0,-2.0,-2.0,2.0,-2.0,-0.42712444,2.0,-2.0,2.0,-2.0,2.0,-2.0,-2.0,-2.0,2.0,2.0,2.0,2.0,2.0,-2.0,2.0
2025-07-18 16:40:48.666,1.0800000000000005,1080,54,-0.23510228,0.055355296,-0.06145458,-0.052481804,0.0045145764,0.045166522,0.0,0.0,0.0,0.006388462,0.2985191,-0.30161482,-0.006580176,-0.3159462,-0.22252381,-0.16340753,0.30274916,0.053889923,0.03003083,-0.15593742,0.07056617,0.24086607,-0.027343132,0.19895545,-0.1290275,-0.032134358,-0.35708338,0.20175163,0.06242632,-0.021253657,0.07889457,0.06480647,-0.046007678,0.054801367,-2.0,2.0,-2.0,-2.0,-2.0,2.0,2.0,2.0,2.0,2.0,-2.0,2.0,-2.0,2.0,-2.0,-2.0,-2.0,2.0,2.0,2.0,2.0,2.0,2.0,-2.0
2025-07-18 16:40:48.686,1.1000000000000005,1100,55,0.038953867,-0.19911903,0.098663725,0.022797536,0.0801211,0.043342743,0.0,0.0,0.0,0.006405269,0.26306832,-0.22093116,-0.05650258,-0.3162201,-0.34092143,-0.06637991,0.30977866,0.109758355,0.08334687,-0.12375549,0.13773602,0.16230969,-0.13459069,0.21805437,-0.118408345,-0.03822032,-0.1745265,0.23361465,0.00023406083,0.22519796,0.05259047,0.049966242,0.29827747,-0.28643876,-2.0,2.0,-2.0,-2.0,-2.0,2.0,2.0,2.0,2.0,2.0,2.0,-2.0,2.0,2.0,-2.0,-2.0,-2.0,2.0,2.0,-2.0,2.0,2.0,2.0,-2.0
2025-07-18 16:40:48.706,1.1200000000000006,1120,56,-0.14583454,-0.17346863,0.10798526,-0.0628462,0.017293928,-0.036608376,0.0,0.0,0.0,0.006062961,0.29265943,-0.12711991,-0.12140542,-0.30860874,-0.43030202,0.002917406,0.32001,0.115666516,0.12329467,-0.05226666,0.27296948,0.07634216,-0.020497128,0.25741422,-0.09723947,-0.0007144008,-0.17444804,0.1609374,0.035486113,-0.1362511,0.0695847,0.14554389,0.28846797,-0.1391066,2.0,2.0,-2.0,-2.0,-2.0,2.0,2.0,-2.0,2.0,2.0,2.0,-2.0,2.0,-2.0,-2.0,-2.0,2.0,2.0,2.0,2.0,2.0,2.0,2.0,-2.0
2025-07-18 16:40:48.726,1.1400000000000006,1140,57,0.067145765,-0.19579007,0.2156491,0.003061917,-0.03608079,0.00021324983,0.0,0.0,0.0,0.0038715822,0.30083984,-0.089654036,-0.1457063,-0.322464,-0.4442029,0.041899763,0.31915918,0.14054444,0.14434147,0.007523405,0.36532074,0.01701141,0.08948061,0.012489523,-0.05041978,-0.06615354,0.13783224,0.17789114,0.04965016,0.11264253,0.118322395,0.19552499,0.20691416,-0.1413519,2.0,-2.0,-2.0,-2.0,2.0,2.0,2.0,2.0,2.0,2.0,2.0,-2.0,2.0,-2.0,-2.0,2.0,2.0,2.0,-2.0,-2.0,2.0,2.0,2.0,-2.0
2025-07-18 16:40:48.746,1.1600000000000006,1160,58,0.4201188,-0.038726524,0.21756409,-0.06291833,0.025955616,-0.021955257,0.0,0.0,0.0,0.0005064214,0.31401575,-0.11534394,-0.16740924,-0.3110212,-0.37403882,0.07808216,0.3164916,0.16006078,0.18366377,0.07247998,0.44695812,-0.042667173,0.015906433,-0.21068618,-0.06844455,0.009906909,0.15101716,0.04076642,-0.079518475,0.02425312,0.1123349,0.12440352,0.16032796,-0.06899429,2.0,-2.0,-2.0,2.0,2.0,2.0,-2.0,-2.0,2.0,2.0,2.0,-2.0,2.0,-2.0,2.0,2.0,2.0,-1.9718636,-2.0,-2.0,2.0,-2.0,-2.0,-1.5825611
2025-07-18 16:40:48.766,1.1800000000000006,1180,59,0.4068898,0.16226272,0.096250825,-0.017757574,-0.01718181,-0.046862952,0.0,0.0,0.0,-0.0041554878,0.32105914,-0.23246793,-0.11292746,-0.31951118,-0.28062868,0.026420955,0.2931227,0.13643664,0.21397938,0.031835526,0.4457452,-0.06880397,0.027631974,-0.24853954,0.1969633,-0.043076336,0.22658567,-0.23004793,-0.11525844,-0.06268005,0.047898803,-0.19012716,-0.047739908,-0.07174067,2.0,-2.0,2.0,2.0,2.0,-1.9718636,-2.0,-2.0,2.0,-2.0,-2.0,-1.5825611,2.0,-2.0,2.0,2.0,2.0,-2.0,-2.0,-2.0,2.0,-2.0,-2.0,2.0
2025-07-18 16:40:48.786,1.2000000000000006,1200,60,0.012682834,0.43676963,-0.025036909,0.03148578,0.058345914,0.030399302,0.0,0.0,0.0,-0.007101112,0.32831064,-0.331437,-0.03930813,-0.33165792,-0.24614194,-0.056863576,0.239698,0.11390896,0.22734845,-0.020612745,0.3855397,-0.031191781,-0.03296178,-0.22775766,0.21940891,-0.031626634,0.1420096,-0.16258945,-0.0711825,-0.05134093,0.03770703,-0.13097091,-0.19748338,0.15302514,2.0,-2.0,2.0,2.0,2.0,-2.0,-2.0,-2.0,2.0,-2.0,-2.0,2.0,2.0,-2.0,2.0,2.0,2.0,-2.0,-2.0,-2.0,2.0,-2.0,-2.0,2.0
2025-07-18 16:40:48.806,1.2200000000000006,1220,61,0.13726659,0.50157726,-0.12152925,0.04353015,0.11402263,0.017781168,0.0,0.0,0.0,-0.006740523,0.33271965,-0.42656276,0.018769156,-0.358127,-0.20268375,-0.09689742,0.18585634,0.07019254,0.24104196,-0.07376017,0.26279417,0.032337565,0.033586808,-0.18675576,0.09105754,-0.09708749,0.17970902,-0.06205101,-0.2168103,-0.13028726,0.030506456,-0.13634609,-0.31463677,0.11811999,2.0,-2.0,2.0,2.0,2.0,-2.0,-2.0,-2.0,2.0,-2.0,-2.0,2.0,2.0,-2.0,2.0,2.0,2.0,-2.0,2.0,-1.2460407,-2.0,-2.0,-2.0,2.0
2025-07-18 16:40:48.826,1.2400000000000007,1240,62,-0.20272155,0.28342438,0.07055948,0.016500665,0.079243645,-0.011459978,0.0,0.0,0.0,-0.005375167,0.3394128,-0.50001276,0.06806206,-0.3392508,-0.14209671,-0.15511712,0.20777108,0.014425437,0.1745132,-0.12921885,0.12733759,0.0730365,-0.03380936,-0.18519287,0.096951716,0.09212489,0.19275288,-0.15485154,0.10695761,-0.22714822,-0.2531516,-0.1285803,-0.34863457,0.11253666,2.0,-2.0,2.0,2.0,2.0,-2.0,2.0,-1.2460407,-2.0,-2.0,-2.0,2.0,2.0,2.0,2.0,-2.0,2.0,-2.0,2.0,2.0,-2.0,-2.0,2.0,2.0
2025-07-18 16:40:48.847,1.2600000000000007,1260,63,0.021235842,-0.2975109,0.0086401915,-0.00022620767,0.13304818,-0.0017564107,0.0,0.0,0.0,-0.006000626,0.35794207,-0.51253194,0.1098984,-0.33620092,-0.051554635,-0.17687526,0.22393554,-0.011007304,0.07976518,-0.15405998,0.09453637,0.113455854,0.02132236,-0.00015317106,0.08544344,0.042564347,0.33655265,-0.12203073,0.12080238,0.092916325,-0.25397864,-0.13990979,0.14233828,0.086600006,2.0,2.0,2.0,-2.0,2.0,-2.0,2.0,2.0,-2.0,-2.0,2.0,2.0,-2.0,2.0,2.0,-2.0,-2.0,-2.0,2.0,2.0,-2.0,2.0,-2.0,2.0
2025-07-18 16:40:48.867,1.2800000000000007,1280,64,-0.0968081,-0.28623614,-0.07415129,-0.006783687,0.044403184,0.0116226915,0.0,0.0,0.0,-0.007281663,0.36252126,-0.4781989,0.13324359,-0.33594006,-0.0040693176,-0.20981534,0.24187508,0.05720972,0.009780472,-0.15882078,0.10259336,0.15942964,-0.04002228,0.120958865,0.07856427,0.06658898,-0.042148728,-0.002807479,0.107569374,0.24054374,-0.23403509,0.059225,0.04457631,0.15405315,-2.0,2.0,2.0,-2.0,-2.0,-2.0,2.0,2.0,-2.0,2.0,-2.0,2.0,-2.0,2.0,2.0,-2.0,-2.0,-2.0,2.0,-2.0,-2.0,2.0,-2.0,2.0
2025-07-18 16:40:48.887,1.3000000000000007,1300,65,0.026158443,-0.039437804,-0.08244486,0.032350127,0.041311704,0.034770567,0.0,0.0,0.0,-0.0063346312,0.35537905,-0.42425972,0.15167482,-0.34733954,-0.056560364,-0.21516128,0.2698927,0.087434776,-0.04580074,-0.16668466,0.104951836,0.19102238,0.042917684,0.15102977,0.11252359,0.02867198,-0.22993359,-0.09683272,0.0031225851,-0.08602838,-0.11451815,0.02607339,-0.02610434,0.11425153,-2.0,2.0,2.0,-2.0,-2.0,-2.0,2.0,-2.0,-2.0,2.0,-2.0,2.0,-2.0,2.0,-2.0,-2.0,-2.0,2.0,2.0,-2.0,2.0,2.0,-2.0,2.0
2025-07-18 16:40:48.907,1.3200000000000007,1320,66,-0.0043249945,0.17132394,0.060331125,-0.0028550562,0.05909604,-0.034583725,0.0,0.0,0.0,-0.004687898,0.34377962,-0.3692387,0.079269275,-0.3350122,-0.18028395,-0.13542998,0.27572963,0.0049708746,0.012573963,-0.1360213,0.096361555,0.20689313,-0.0027715159,0.18998438,-0.21997288,0.02246399,-0.38928458,0.29110715,-0.01653723,-0.3612357,0.19753398,0.09045899,-0.049335025,0.13054816,-2.0,2.0,-2.0,-2.0,-2.0,2.0,2.0,-2.0,2.0,2.0,-2.0,2.0,-2.0,2.0,-2.0,-2.0,-2.0,2.0,2.0,2.0,2.0,2.0,2.0,-2.0
2025-07-18 16:40:48.929,1.3400000000000007,1340,67,0.13149075,-0.21960999,0.0839024,-0.007728942,0.073113814,0.021221653,0.0,0.0,0.0,-0.0046372535,0.31516647,-0.26569963,-0.0033536092,-0.35117304,-0.31137177,-0.058577374,0.2869073,-0.05471514,0.05280661,-0.06575307,0.16481082,0.13051441,-0.18380345,0.27737007,-0.20589925,-0.030858051,-0.28808773,0.24556778,-0.011018167,-0.035098135,0.048332192,0.078020826,0.3220918,-0.21715301,-2.0,2.0,-2.0,-2.0,-2.0,2.0,2.0,2.0,2.0,2.0,2.0,-2.0,2.0,2.0,-2.0,-2.0,-2.0,2.0,2.0,2.0,2.0,2.0,2.0,-2.0
2025-07-18 16:40:48.947,1.3600000000000008,1360,68,-0.05316101,-0.26915497,0.035514556,-0.018846119,0.016299425,-0.017164389,0.0,0.0,0.0,-0.005643993,0.3074633,-0.1640073,-0.05757792,-0.3476718,-0.3898905,0.008978821,0.3074428,0.01956342,0.109694056,-0.010514426,0.2881263,0.06575756,0.010603464,0.26483172,-0.13556574,0.05097844,-0.16179484,0.098004445,-0.02458231,0.19642597,0.13208877,0.2302046,0.22347532,-0.15961473,2.0,2.0,-2.0,-2.0,-2.0,2.0,2.0,2.0,2.0,2.0,2.0,-2.0,2.0,-2.0,-2.0,2.0,2.0,2.0,2.0,-2.0,2.0,2.0,2.0,-2.0
2025-07-18 16:40:48.976,1.3800000000000008,1380,69,-0.3810499,-0.2866088,0.09708728,-0.049307514,-0.024508618,0.045082245,0.0,0.0,0.0,-0.006629418,0.32052755,-0.13174538,-0.09660168,-0.28039405,-0.41785172,0.042828027,0.30172834,0.04918789,0.13572566,0.043083563,0.3785356,0.00027027167,0.0933125,-0.061968796,-0.11330089,0.20290208,-0.016135594,0.1605639,-0.0012802312,-0.102094375,0.11876649,0.1736409,0.22044829,-0.1622734,2.0,-2.0,-2.0,2.0,2.0,2.0,2.0,-2.0,2.0,2.0,2.0,-2.0,2.0,-2.0,-2.0,2.0,2.0,2.0,-2.0,2.0,2.0,2.0,2.0,-2.0
2025-07-18 16:40:49.010,1.4000000000000008,1400,70,-0.1787664,-0.46142805,-0.03551626,0.00705187,-0.04944334,0.02037813,0.0,0.0,0.0,-0.0085963225,0.33409443,-0.1908382,-0.13827564,-0.24053039,-0.37402374,0.08903224,0.3458439,0.07630619,0.16872865,0.101292334,0.45882177,-0.05898377,0.0067339246,-0.29929078,-0.09399368,0.091068886,0.09831986,0.06931044,0.05619258,0.18584102,0.004470995,0.13326652,0.24637753,-0.11592481,2.0,-2.0,-2.0,2.0,2.0,2.0,-2.0,2.0,2.0,2.0,2.0,-2.0,2.0,-2.0,2.0,2.0,2.0,2.0,-2.0,-2.0,2.0,-2.0,-2.0,-2.0
2025-07-18 16:40:49.041,1.4200000000000008,1420,71,0.09389478,-0.11419712,-0.15348847,-0.076088026,-0.08302232,0.023403963,0.0,0.0,0.0,-0.009295417,0.33437854,-0.3000637,-0.06298283,-0.22778012,-0.3394757,0.110383354,0.3363202,0.12319601,0.18893614,0.072911195,0.49415937,-0.10877263,0.0253993,-0.31620803,0.16650936,-0.02759573,0.061674125,0.07050928,-0.0010509306,0.09139251,0.09890784,-0.1565265,-0.036945757,-0.12215886,2.0,-2.0,2.0,2.0,2.0,2.0,-2.0,-2.0,2.0,-2.0,-2.0,-2.0,2.0,-2.0,2.0,2.0,2.0,-2.0,2.0,-2.0,2.0,-2.0,-2.0,2.0
2025-07-18 16:40:49.070,1.4400000000000008,1440,72,-0.31288883,0.1365561,-0.09144152,-0.025523888,0.0010341126,-0.0042803437,0.0,0.0,0.0,-0.0072442647,0.3251975,-0.40026605,-0.007719152,-0.18099615,-0.2789433,0.04130362,0.3548375,0.1473341,0.2240457,0.004136552,0.44250306,-0.049184445,0.01133334,-0.1610782,0.13618198,0.07591222,0.10914582,-0.13730627,0.039560594,-0.001985719,0.055666417,-0.06765106,-0.26052856,0.24564232,2.0,-2.0,2.0,2.0,2.0,-2.0,2.0,-2.0,2.0,-2.0,-2.0,2.0,2.0,-2.0,2.0,-2.0,2.0,-2.0,-1.3586054,-2.0,2.0,-2.0,-2.0,2.0
2025-07-18 16:40:49.095,1.4600000000000009,1460,73,0.29121968,0.4984853,-0.054424368,-0.028733915,0.034965836,0.03397494,0.0,0.0,0.0,-0.005341586,0.3260782,-0.47659856,0.057482373,-0.20663796,-0.22480573,-0.025251608,0.31431583,0.12038011,0.24533112,-0.053389415,0.34856394,0.022547275,-0.05780719,-0.16805342,0.07233998,-0.036160145,0.09697773,-0.1363609,-0.18168072,-0.065147795,0.027944764,-0.20771334,-0.26943696,0.17448604,2.0,-2.0,2.0,-2.0,2.0,-2.0,-1.3586054,-2.0,2.0,-2.0,-2.0,2.0,2.0,-2.0,2.0,-1.9762207,2.0,-2.0,-2.0,-2.0,0.7983559,-2.0,-2.0,2.0
2025-07-18 16:40:49.115,1.4800000000000009,1480,74,0.33474874,0.5281821,-0.028280996,-0.044339675,0.030684378,0.0072824634,0.0,0.0,0.0,-0.0038317,0.34302336,-0.54436404,0.08668474,-0.24121886,-0.15259539,-0.09496298,0.24790874,0.08372353,0.21992253,-0.10628729,0.259154,0.07238266,-0.04099407,-0.15306436,0.13037004,-0.07794269,0.065802276,-0.061002973,-0.1359115,-0.05201491,0.016204884,-0.050865248,-0.33854938,0.16864622,2.0,-2.0,2.0,-1.9762207,2.0,-2.0,-2.0,-2.0,0.7983559,-2.0,-2.0,2.0,2.0,2.0,2.0,-2.0,2.0,-2.0,2.0,2.0,-2.0,-2.0,1.1602163,2.0
2025-07-18 16:40:49.135,1.5000000000000009,1500,75,0.11243376,-0.18159631,-0.050017603,0.058000356,0.0766293,-0.008416274,0.0,0.0,0.0,-0.0029385062,0.3338486,-0.5468122,0.1124339,-0.25967914,-0.08356424,-0.13958843,0.24829066,0.11384919,0.13612495,-0.13809794,0.23245598,0.11689622,-0.060847335,0.122306734,0.08244755,-0.08993699,0.26305628,-0.0727219,0.015316613,0.20767678,-0.28860718,-0.074594215,0.17166519,0.15315804,2.0,2.0,2.0,-2.0,2.0,-2.0,2.0,2.0,-2.0,-2.0,1.1602163,2.0,-2.0,2.0,2.0,-2.0,-2.0,-2.0,2.0,2.0,-2.0,2.0,-2.0,2.0
2025-07-18 16:40:49.156,1.520000000000001,1520,76,0.0420258,-0.21846499,-0.16363141,-0.028327055,0.027231282,-0.019212062,0.0,0.0,0.0,-0.0019285822,0.33347696,-0.5058112,0.150932,-0.28900304,-0.042109597,-0.16038373,0.25773528,0.23030326,0.06259081,-0.12390912,0.23347905,0.14572883,-0.062551804,0.1002097,0.111479305,0.009565882,0.08217939,-0.10498055,-0.017580252,0.2547751,-0.23900265,0.054291867,-0.085086055,0.1498204,-2.0,2.0,2.0,-2.0,-2.0,-2.0,2.0,2.0,-2.0,2.0,-2.0,2.0,-2.0,2.0,2.0,-2.0,-2.0,-2.0,2.0,-2.0,-2.0,2.0,-2.0,2.0
2025-07-18 16:40:49.175,1.540000000000001,1540,77,0.07247999,0.021662561,-0.099149294,0.04606554,-0.02926967,-0.018071372,0.0,0.0,0.0,0.00062561245,0.32767743,-0.4765575,0.16755015,-0.3045067,-0.102865994,-0.1886405,0.27145496,0.2788485,-0.011625716,-0.10046774,0.23334551,0.19201934,0.031741243,0.053868394,0.06515441,0.0072617726,-0.3012555,-0.051571913,0.008154365,-0.050528202,-0.19683899,0.11065952,-0.039117478,0.090310626,-2.0,2.0,2.0,-2.0,-2.0,-2.0,2.0,-2.0,-2.0,2.0,-2.0,2.0,-2.0,2.0,-2.0,-2.0,-2.0,2.0,2.0,-2.0,2.0,2.0,-2.0,2.0
2025-07-18 16:40:49.196,1.560000000000001,1560,78,0.03253009,0.25339073,0.0127206,0.06806316,0.017757451,-0.021581143,0.0,0.0,0.0,0.0030414974,0.31592414,-0.40940818,0.08985927,-0.3085879,-0.21005517,-0.12158289,0.29209813,0.18134995,0.044237036,-0.061086077,0.19342995,0.21038724,-0.12737995,0.1483008,-0.2610994,-0.002924612,-0.28340465,0.15473701,-0.025932668,-0.3189425,0.18994686,0.1276787,-0.08433755,0.047112193,-2.0,2.0,-2.0,-2.0,-2.0,2.0,2.0,-2.0,2.0,2.0,-2.0,2.0,-2.0,2.0,-2.0,-2.0,-2.0,2.0,2.0,2.0,2.0,2.0,2.0,-2.0
2025-07-18 16:40:49.215,1.580000000000001,1580,79,0.11807562,-0.13153231,0.018834429,-0.0033105065,0.027434798,0.0045661344,0.0,0.0,0.0,0.0031471113,0.26537457,-0.33754084,0.019274807,-0.30840853,-0.32406217,-0.03878538,0.2972791,0.13692789,0.07493471,-0.011059269,0.26505116,0.13010103,-0.12088285,0.26305404,-0.23443955,-0.0746618,-0.2741244,0.15802962,0.03322319,0.046147242,0.10452083,0.11980903,0.328856,-0.1961265,-2.0,2.0,-2.0,-2.0,-2.0,2.0,2.0,2.0,2.0,2.0,2.0,-2.0,2.0,2.0,-2.0,-2.0,-2.0,2.0,2.0,-0.70143145,2.0,2.0,2.0,-2.0
2025-07-18 16:40:49.235,1.600000000000001,1600,80,-0.14934029,-0.08348614,0.025902985,0.07066754,0.03824475,-0.031923458,0.0,0.0,0.0,0.0020336427,0.27884796,-0.22913991,-0.042994574,-0.3190323,-0.4107904,0.009020832,0.30089563,0.10465651,0.13309638,0.039438747,0.36261663,0.0626009,0.014961291,0.35605797,-0.19653335,-0.050309286,-0.19230603,0.070152864,0.052514803,-0.25006256,0.14376561,0.17108318,0.23689012,-0.24177204,2.0,2.0,-2.0,-2.0,-2.0,2.0,2.0,-0.70143145,2.0,2.0,2.0,-2.0,2.0,-2.0,-2.0,-2.0,2.0,2.0,2.0,2.0,2.0,2.0,2.0,-2.0
2025-07-18 16:40:49.256,1.620000000000001,1620,81,-0.20878899,-0.15175381,0.070122816,0.050042186,0.009174845,0.028909214,0.0,0.0,0.0,0.0020398358,0.29179984,-0.15300462,-0.09573773,-0.3335602,-0.41217676,0.06818815,0.31543684,0.09266362,0.15831752,0.090958804,0.46210593,-0.0054884935,0.06448394,-0.070670895,-0.036486357,0.029971585,0.018035443,0.15789495,-0.051636726,0.158358,0.09333062,0.17466529,0.26282182,-0.10595874,2.0,-2.0,-2.0,-2.0,2.0,2.0,2.0,2.0,2.0,2.0,2.0,-2.0,2.0,-2.0,-2.0,2.0,2.0,2.0,-2.0,-2.0,2.0,2.0,2.0,-2.0
2025-07-18 16:40:49.276,1.640000000000001,1640,82,-0.24371542,-0.24083085,0.19331321,-0.04673257,0.041840937,-0.01769013,0.0,0.0,0.0,0.0015608651,0.29602182,-0.20853563,-0.12913722,-0.3091384,-0.37726134,0.10514705,0.3023922,0.08376586,0.18654248,0.1469878,0.53148913,-0.052914787,-0.022238625,-0.19896789,-0.109608136,0.05806749,0.13675925,0.050189745,0.07252859,0.0559804,0.0009884753,0.12071867,0.10268866,-0.10368623,2.0,-2.0,-2.0,2.0,2.0,2.0,-2.0,-2.0,2.0,2.0,2.0,-2.0,2.0,-2.0,2.0,2.0,2.0,-2.0,-2.0,-2.0,2.0,-2.0,-2.0,2.0
2025-07-18 16:40:49.296,1.660000000000001,1660,83,0.13048892,0.041359905,0.10913696,0.03630399,-0.041409533,-0.00308219,0.0,0.0,0.0,-0.00066770514,0.31420565,-0.32004076,-0.06906063,-0.3064957,-0.31990263,0.03966824,0.2947065,0.0853802,0.20343746,0.086830795,0.50315464,0.0031701808,0.07258439,-0.29179162,0.23926918,-0.029972257,0.232291,-0.25030518,-0.0034893171,-0.01663987,0.06499447,-0.16568612,-0.2127487,0.08493102,2.0,-2.0,2.0,2.0,2.0,-2.0,-2.0,-2.0,2.0,-2.0,-2.0,2.0,2.0,-2.0,2.0,2.0,2.0,-2.0,-2.0,-2.0,2.0,-2.0,-2.0,2.0
2025-07-18 16:40:49.316,1.680000000000001,1680,84,0.29041943,0.33579394,-0.0023103983,-0.017758805,-0.014501025,0.003596493,0.0,0.0,0.0,-0.0023488363,0.31887385,-0.41589403,0.0011413604,-0.29517728,-0.2559651,-0.03920002,0.28591377,0.08919896,0.23122175,0.016709985,0.40033844,0.05808865,-0.02852928,-0.16671538,0.10533669,0.005773646,0.11274744,-0.14972304,-0.06843435,-0.05040222,0.067527786,-0.1735836,-0.18893737,0.19756056,2.0,-2.0,2.0,2.0,2.0,-2.0,-2.0,-2.0,2.0,-2.0,-2.0,2.0,2.0,-2.0,2.0,2.0,2.0,-2.0,-2.0,-2.0,2.0,-2.0,-2.0,2.0
2025-07-18 16:40:49.336,1.700000000000001,1700,85,0.48191345,0.43803623,-0.1205289,0.08059719,-0.0010130546,0.0026793776,0.0,0.0,0.0,-0.0029802897,0.32839912,-0.47548962,0.045295168,-0.33564126,-0.20958388,-0.106704086,0.22683008,0.06072318,0.25936085,-0.03705322,0.31777942,0.10448691,0.08069271,-0.16456261,0.046635624,-0.04657121,0.11862678,-0.10557154,-0.07435999,-0.04428122,0.1032666,-0.07679478,-0.23760095,0.057699617,2.0,-2.0,2.0,2.0,2.0,-2.0,-2.0,-2.0,2.0,-2.0,-2.0,2.0,2.0,-2.0,2.0,2.0,2.0,-2.0,-2.0,-2.0,2.0,-2.0,-2.0,2.0
2025-07-18 16:40:49.356,1.720000000000001,1720,86,0.24161486,0.4798216,-0.15923667,0.030500388,0.058390547,0.022793986,0.0,0.0,0.0,-0.001687855,0.3329106,-0.54428726,0.08326767,-0.352002,-0.17800415,-0.15297401,0.16675717,0.006781515,0.26838148,-0.095584676,0.21206488,0.14413963,0.08769408,-0.14384153,0.10570877,0.03195799,0.15810993,-0.15366884,-0.15933652,-0.13843781,0.10240617,-0.098407686,-0.18224001,0.14153226,2.0,-2.0,2.0,2.0,2.0,-2.0,-2.0,-2.0,2.0,-2.0,-2.0,2.0,2.0,-2.0,2.0,2.0,2.0,-2.0,2.0,2.0,-2.0,-2.0,-2.0,2.0
2025-07-18 16:40:49.376,1.740000000000001,1740,87,-0.14542137,0.14011277,-0.13472466,0.094497316,0.092977345,-0.026565049,0.0,0.0,0.0,0.0012227254,0.35441187,-0.59826565,0.1307105,-0.32074517,-0.12773089,-0.18202525,0.18057157,0.013506263,0.17005365,-0.123989284,0.13919997,0.18031587,0.030758379,-0.054724485,0.049709294,0.13275811,0.17931896,-0.14888173,0.053300668,0.19396012,-0.25666586,-0.031801388,-0.13091868,0.07829755,2.0,-2.0,2.0,2.0,2.0,-2.0,2.0,2.0,-2.0,-2.0,-2.0,2.0,2.0,2.0,2.0,-2.0,2.0,-2.0,2.0,2.0,-2.0,-2.0,0.097108334,2.0
2025-07-18 16:40:49.396,1.7600000000000011,1760,88,0.019451223,-0.17260787,-0.15959188,0.028806483,0.042997785,0.02127352,0.0,0.0,0.0,0.0031828869,0.35411978,-0.5839145,0.1489242,-0.3349583,-0.03798194,-0.21342546,0.21252467,0.12076637,0.09508127,-0.16961998,0.12119299,0.1950222,0.014026036,-0.0050416444,0.04361026,0.022075674,0.25899866,-0.02677605,-0.005014688,0.28460675,-0.16928971,-0.027042465,-0.020716155,0.12691277,2.0,2.0,2.0,-2.0,2.0,-2.0,2.0,2.0,-2.0,-2.0,0.097108334,2.0,-2.0,2.0,2.0,-2.0,-2.0,-2.0,2.0,2.0,-2.0,2.0,-2.0,2.0
2025-07-18 16:40:49.416,1.7800000000000011,1780,89,-0.049204096,-0.11816219,-0.17498356,0.0673827,0.04896496,-6.909107e-05,0.0,0.0,0.0,0.0047094394,0.37215337,-0.5648572,0.18068568,-0.32578212,-0.022269165,-0.23033535,0.22307323,0.2505658,0.020263769,-0.18593407,0.109082386,0.22310805,0.01649521,0.047296945,0.08986913,-0.03454169,-0.0545123,-0.011824084,0.047883246,0.22470002,-0.19850017,-0.05848426,0.0071976315,0.037229747,-2.0,2.0,2.0,-2.0,-2.0,-2.0,2.0,2.0,-2.0,2.0,-2.0,2.0,-2.0,2.0,2.0,-2.0,-2.0,-2.0,2.0,-2.0,-2.0,2.0,-2.0,2.0
2025-07-18 16:40:49.436,1.8000000000000012,1800,90,0.07844964,0.12908426,-0.12526038,0.045190778,0.057065308,0.009700793,0.0,0.0,0.0,0.007582076,0.35299534,-0.5437208,0.18334505,-0.33246017,-0.09795457,-0.24987221,0.2584793,0.29050708,-0.037522048,-0.18464881,0.07699659,0.24010761,-0.013326659,0.02128574,0.039940353,0.048742667,-0.2520439,-0.021573177,-0.012541798,-0.022177521,-0.16945139,0.075421564,-0.12079112,0.04154973,-2.0,2.0,2.0,-2.0,-2.0,-2.0,2.0,-2.0,-2.0,2.0,-2.0,2.0,-2.0,2.0,-2.0,-2.0,-2.0,-1.681409,2.0,-2.0,2.0,2.0,-2.0,2.0
2025-07-18 16:40:49.456,1.8200000000000012,1820,91,-0.017982928,0.32167065,-0.042662956,0.035481703,0.080425136,-0.013115279,0.0,0.0,0.0,0.0099387765,0.35139078,-0.4889349,0.09941061,-0.34236473,-0.222692,-0.2452889,0.2679144,0.20020436,0.017601265,-0.16430184,0.046095636,0.2530685,-0.051919688,0.13810489,-0.19545269,0.033223268,-0.33417553,-0.06364638,0.03759048,-0.3308204,0.19421536,3.8791688e-05,-0.15994005,0.041169245,-2.0,2.0,-2.0,-2.0,-2.0,-1.681409,2.0,-2.0,2.0,2.0,-2.0,2.0,-2.0,2.0,-2.0,-2.0,-2.0,2.0,2.0,2.0,2.0,2.0,-2.0,2.0
2025-07-18 16:40:49.476,1.8400000000000012,1840,92,-0.12153055,0.11336952,0.007515256,0.088097095,0.1549507,-0.019099222,0.0,0.0,0.0,0.01069762,0.32015243,-0.39908037,0.03299619,-0.33038202,-0.34559047,-0.1613199,0.2818026,0.13963631,0.06694705,-0.12424589,0.02186663,0.2678595,-0.0011233868,0.21923767,-0.11803133,0.049757175,-0.20231204,0.1938941,0.015051193,0.04821736,0.09905781,0.11919302,-0.048593108,0.036188196,-2.0,2.0,-2.0,-2.0,-2.0,2.0,2.0,2.0,2.0,2.0,-2.0,2.0,-2.0,2.0,-2.0,-2.0,-2.0,2.0,2.0,-2.0,2.0,2.0,2.0,-2.0
2025-07-18 16:40:49.496,1.8600000000000012,1860,93,0.43915138,0.0060284007,0.20479488,0.08928938,0.08301967,-0.0070311683,0.0,0.0,0.0,0.010709532,0.260092,-0.3390436,-0.046757873,-0.34518787,-0.42878422,-0.08462663,0.29011375,0.10151312,0.09989571,-0.07309472,0.07481836,0.188912,-0.22029512,0.2611117,-0.16196121,-0.040747628,-0.26223806,0.13263759,0.07730482,-0.23841943,0.050686732,0.2490694,0.21839674,-0.22504386,-2.0,2.0,-2.0,-2.0,-2.0,2.0,2.0,-2.0,2.0,2.0,2.0,-2.0,2.0,2.0,-2.0,-2.0,0.007682152,2.0,2.0,2.0,2.0,2.0,2.0,-2.0
2025-07-18 16:40:49.517,1.8800000000000012,1880,94,0.04893831,-0.40352017,0.10323481,0.10283714,0.12669165,-0.027987057,0.0,0.0,0.0,0.009773422,0.2633852,-0.20871659,-0.08002633,-0.33579215,-0.44198662,-0.015939679,0.29518673,0.10744936,0.14399888,-1.5608924e-06,0.20823763,0.09164461,0.09060554,0.36428705,-0.15506248,-0.035342276,0.069178894,0.07664713,0.092824176,0.17177889,0.013531887,0.210788,0.35552362,-0.24568123,2.0,2.0,-2.0,-2.0,0.007682152,2.0,2.0,2.0,2.0,2.0,2.0,-2.0,2.0,-2.0,-2.0,2.0,-2.0,2.0,-1.0129166,-2.0,2.0,2.0,2.0,-2.0
2025-07-18 16:40:49.536,1.9000000000000012,1900,95,-0.24058825,-0.20642726,-0.012314596,0.109030455,0.06435557,-0.04089182,0.0,0.0,0.0,0.008122752,0.26878023,-0.14920513,-0.11671466,-0.32058245,-0.46727917,0.041366123,0.2649278,0.10080794,0.17289829,0.07016918,0.30969343,0.03074808,0.098928966,0.048796736,-0.14798978,0.0540861,-0.14963932,0.17377652,-0.19763194,-0.15570694,0.027717369,0.19237989,0.30760625,-0.2314008,2.0,-2.0,-2.0,2.0,-2.0,2.0,-1.0129166,-2.0,2.0,2.0,2.0,-2.0,2.0,-2.0,-2.0,-2.0,2.0,2.0,2.0,-2.0,2.0,2.0,2.0,-2.0
2025-07-18 16:40:49.557,1.9200000000000013,1920,96,-0.40332642,-0.34677684,0.24051227,0.0062447535,0.07826345,0.04058204,0.0,0.0,0.0,0.0069919326,0.2909513,-0.20247251,-0.15319787,-0.32499483,-0.46428868,0.078042045,0.2514588,-0.0043502017,0.19831255,0.11444705,0.39664668,-0.029027432,-0.0023434127,-0.27132288,-0.10843055,-0.06663963,0.06169392,0.14500469,-0.008635269,-0.35042638,0.10220836,0.08680679,0.15032122,-0.06799049,2.0,-2.0,-2.0,-2.0,2.0,2.0,2.0,-2.0,2.0,2.0,2.0,-2.0,2.0,2.0,-2.0,0.98798144,2.0,2.0,2.0,2.0,2.0,-2.0,2.0,-2.0
2025-07-18 16:40:49.577,1.9400000000000013,1940,97,-0.34702435,-0.6911377,-0.015957607,0.037234705,0.06315409,0.010855144,0.0,0.0,0.0,0.003736216,0.2891838,-0.21123023,-0.17747918,-0.3097315,-0.4354506,0.116769426,0.27508765,-0.03673841,0.21020876,0.074545845,0.47958532,-0.0704824,-0.0124165965,0.14897504,-0.055783644,0.05606078,0.07158628,0.05347961,0.07325196,0.028494902,-0.035257522,-0.25202686,0.15073514,-0.09769737,2.0,2.0,-2.0,0.98798144,2.0,2.0,2.0,2.0,2.0,-2.0,2.0,-2.0,2.0,-2.0,-2.0,2.0,2.0,2.0,0.21598917,-2.0,2.0,-2.0,2.0,-2.0
2025-07-18 16:40:49.597,1.9600000000000013,1960,98,-0.0043083145,-0.33490095,0.19055043,-0.0034238487,-0.018002123,-0.027454633,0.0,0.0,0.0,0.0012718418,0.3073715,-0.22801666,-0.2101095,-0.2842294,-0.379688,0.13880688,0.31194213,-0.007254122,0.22101466,-0.004477958,0.55074435,-0.11105808,-0.050976098,-0.18248858,-0.04112815,-0.014998055,0.16064121,0.040725626,0.037825104,0.051789038,-0.031136438,-0.1681229,0.15319039,-0.11435401,2.0,-2.0,-2.0,2.0,2.0,2.0,0.21598917,-2.0,2.0,-2.0,2.0,-2.0,2.0,-2.0,2.0,2.0,2.0,-2.0,-2.0,-2.0,2.0,-2.0,-2.0,2.0
2025-07-18 16:40:49.617,1.9800000000000013,1980,99,0.19468339,0.035773095,0.18682685,-0.051267363,-0.043946385,-0.02438951,0.0,0.0,0.0,-0.00135114,0.30889043,-0.33384094,-0.12769736,-0.26549894,-0.3150228,0.06303985,0.3322949,0.00052881264,0.24891034,-0.06562806,0.52568847,-0.055521324,0.020196686,-0.23437119,0.1394402,-0.017378466,0.18149947,-0.27099398,0.0033424057,-0.08752168,0.08058977,-0.17452247,-0.14279407,0.2503674,2.0,-2.0,2.0,2.0,2.0,-2.0,-2.0,-2.0,2.0,-2.0,-2.0,2.0,2.0,-2.0,2.0,2.0,2.0,-2.0,-2.0,1.9938048,2.0,-2.0,-2.0,2.0
2025-07-18 16:40:49.639,2.0000000000000013,2000,100,0.046434604,-0.014647472,-0.061002105,0.047875598,-0.0776402,0.011843365,0.0,0.0,0.0,-0.0056207217,0.3212017,-0.43305203,-0.046599526,-0.24961944,-0.24588414,-0.012004631,0.3461221,0.038059045,0.2538067,-0.11461839,0.4170309,0.0094114635,0.030201457,-0.2014643,0.11427792,0.011596554,0.12985289,-0.20879306,-0.029195948,0.17475443,0.065779544,-0.10354806,-0.28509784,0.15917331,2.0,-2.0,2.0,2.0,2.0,-2.0,-2.0,1.9938048,2.0,-2.0,-2.0,2.0,2.0,-2.0,2.0,2.0,2.0,-2.0,-2.0,-2.0,2.0,-2.0,-2.0,2.0
2025-07-18 16:40:49.657,2.0200000000000014,2020,101,0.04861898,0.36320594,-0.17776841,-0.015793923,-0.035414215,-0.034784403,0.0,0.0,0.0,-0.00714638,0.32225642,-0.50012565,0.012070186,-0.24298847,-0.184866,-0.06579798,0.32094783,0.041640125,0.2684064,-0.15105437,0.32120532,0.06989852,-0.0003145176,-0.22361417,0.082516626,0.071844295,0.1380576,-0.16663668,-0.103738524,0.06293251,0.09031682,-0.13910083,-0.14877364,0.077936806,2.0,-2.0,2.0,2.0,2.0,-2.0,-2.0,-2.0,2.0,-2.0,-2.0,2.0,2.0,-2.0,2.0,2.0,2.0,-2.0,-2.0,-2.0,2.0,-2.0,-2.0,2.0
2025-07-18 16:40:49.678,2.0400000000000014,2040,102,-0.15876429,0.49574646,-0.18807985,-0.029978795,0.037653722,-0.01711508,0.0,0.0,0.0,-0.004676331,0.33562198,-0.5551837,0.06341727,-0.22612523,-0.13064994,-0.13028261,0.30352563,0.031367183,0.26350138,-0.17904341,0.22777705,0.11466578,-0.061090317,-0.084587194,0.08096663,-0.011482442,0.14429326,-0.12595348,-0.122055605,-0.06638594,0.016989566,-0.07835777,-0.24365404,0.032011572,2.0,-2.0,2.0,2.0,2.0,-2.0,-2.0,-2.0,2.0,-2.0,-2.0,2.0,2.0,-2.0,2.0,-0.3157464,2.0,-2.0,2.0,-2.0,-2.0,-2.0,-2.0,2.0
2025-07-18 16:40:49.697,2.0600000000000014,2060,103,-0.28463185,0.51731026,-0.04541009,0.018384108,0.10114645,0.044546355,0.0,0.0,0.0,-0.0006356717,0.33056465,-0.6127342,0.105985455,-0.20578167,-0.08843923,-0.17381133,0.3166627,0.005714913,0.20038196,-0.20573045,0.12756994,0.155739,0.012519143,-0.13595784,0.022015266,0.0025173505,0.040568724,-0.058027763,-0.007484398,-0.016041843,-0.20694573,-0.010682014,-0.25035545,0.12801296,2.0,-2.0,2.0,-0.3157464,2.0,-2.0,2.0,-2.0,-2.0,-2.0,-2.0,2.0,2.0,2.0,2.0,-2.0,2.0,-2.0,2.0,2.0,-2.0,-2.0,2.0,2.0
2025-07-18 16:40:49.718,2.0800000000000014,2080,104,0.015635038,-0.15229452,-0.08027795,-0.051218584,0.07351315,-0.016601222,0.0,0.0,0.0,0.0017974679,0.34041336,-0.6242439,0.12324709,-0.24019538,-0.019149743,-0.20506828,0.3124187,0.047180906,0.10568206,-0.22613865,0.100694,0.16937658,-0.053558428,0.0029780436,0.112392925,-0.017410064,0.26971057,-0.09499463,0.052292135,0.19782528,-0.14791694,-0.09308675,0.06850874,0.053510714,2.0,2.0,2.0,-2.0,2.0,-2.0,2.0,2.0,-2.0,-2.0,2.0,2.0,-2.0,2.0,2.0,-2.0,-2.0,-2.0,2.0,2.0,-2.0,2.0,-2.0,2.0
2025-07-18 16:40:49.738,2.1000000000000014,2100,105,0.08655653,-0.20869976,-0.1861289,0.029115032,0.010456906,-0.040170226,0.0,0.0,0.0,0.0028488615,0.34524426,-0.5876943,0.15952095,-0.2666239,0.0187188,-0.21254529,0.3221729,0.16242321,0.032164045,-0.20149793,0.11605066,0.2000424,-0.036165915,0.1263828,0.020240713,-0.063645184,0.0015386344,-0.0034315696,0.019709809,0.3896209,-0.11014032,0.0902925,-0.025525741,0.013667576,-2.0,2.0,2.0,-2.0,-2.0,-2.0,2.0,2.0,-2.0,2.0,-2.0,2.0,-2.0,2.0,2.0,-2.0,-2.0,-2.0,2.0,-2.0,-2.0,2.0,-2.0,2.0
2025-07-18 16:40:49.757,2.1200000000000014,2120,106,0.108045876,-0.03363765,-0.09620991,-0.01995306,0.03834655,0.0086270785,0.0,0.0,0.0,0.00565308,0.33872646,-0.55246973,0.16746388,-0.27171925,-0.037810788,-0.2298354,0.33601433,0.21743765,-0.025874367,-0.18744466,0.091772534,0.2304363,0.027692383,0.025877992,0.07034596,0.027287181,-0.18263249,-0.018159311,-0.038421895,-0.030717093,-0.19279824,0.074097574,-0.054923676,0.07249903,-2.0,2.0,2.0,-2.0,-2.0,-2.0,2.0,-2.0,-2.0,2.0,-2.0,2.0,-2.0,2.0,-2.0,-2.0,-2.0,-2.0,2.0,-2.0,2.0,2.0,-2.0,2.0
2025-07-18 16:40:49.777,2.1400000000000015,2140,107,-0.038644005,0.1984121,0.055832542,0.01669604,0.00038456335,-0.024163006,0.0,0.0,0.0,0.008171647,0.32158947,-0.51152647,0.08919941,-0.2894403,-0.16478133,-0.24465214,0.33626023,0.12011589,0.017840717,-0.17114204,0.052862518,0.24074347,-0.11596467,0.14316402,-0.19302914,0.026882157,-0.29501432,-0.02636071,0.027115386,-0.24185488,0.11572583,0.089795746,-0.078428626,0.07749661,-2.0,2.0,-2.0,-2.0,-2.0,-2.0,2.0,-2.0,2.0,2.0,-2.0,2.0,-2.0,2.0,-2.0,-2.0,-2.0,2.0,2.0,2.0,2.0,2.0,-2.0,2.0
2025-07-18 16:40:49.798,2.1600000000000015,2160,108,-0.11755956,0.029598404,0.009688982,-0.036675785,0.07897934,-0.032496866,0.0,0.0,0.0,0.00880666,0.2859344,-0.42828938,0.007382535,-0.28574803,-0.2851047,-0.15899639,0.33040652,0.0812956,0.07566156,-0.14954829,0.027346639,0.25244823,-0.053336244,0.1065839,-0.23750155,-0.041600123,-0.21653578,0.20511119,0.0684772,0.10889735,0.075835764,-0.015369875,-0.02414774,0.10796921,-2.0,2.0,-2.0,-2.0,-2.0,2.0,2.0,2.0,2.0,2.0,-2.0,2.0,-2.0,2.0,-2.0,-2.0,-2.0,2.0,2.0,-2.0,2.0,2.0,2.0,-2.0
2025-07-18 16:40:49.818,2.1800000000000015,2180,109,0.16040315,-0.041199766,0.22281954,-0.03734639,0.06390997,0.032186277,0.0,0.0,0.0,0.008529436,0.2550172,-0.36511272,-0.040432334,-0.29703403,-0.38720906,-0.08153116,0.33782315,0.04514186,0.12038802,-0.10318407,0.10824596,0.17219202,-0.05660051,0.12417581,-0.20220444,-0.08544468,-0.1510407,0.256974,0.07654744,-0.27182502,0.15270427,0.11975356,0.30019176,-0.2797762,-2.0,2.0,-2.0,-2.0,-2.0,2.0,2.0,-2.0,2.0,2.0,2.0,-2.0,2.0,2.0,-2.0,-2.0,-2.0,2.0,2.0,2.0,2.0,2.0,2.0,-2.0
2025-07-18 16:40:49.838,2.2000000000000015,2200,110,-0.1815417,-0.28715122,0.07840137,-0.03565452,0.021186903,-0.017980779,0.0,0.0,0.0,0.0063848365,0.26094446,-0.27125046,-0.09634924,-0.31580293,-0.4734566,-0.007439514,0.33464354,0.04103912,0.14196067,-0.044791676,0.2383487,0.09793457,0.118927516,0.17582288,-0.08115312,0.0044811964,-0.2097942,0.15086918,0.035986688,0.1162358,0.12038007,0.2156068,0.2336177,-0.14981936,2.0,2.0,-2.0,-2.0,-2.0,2.0,2.0,2.0,2.0,2.0,2.0,-2.0,2.0,2.0,-2.0,-2.0,2.0,2.0,2.0,-2.0,2.0,2.0,2.0,-2.0
2025-07-18 16:40:49.858,2.2200000000000015,2220,111,0.07341639,-0.2627024,0.17069943,-0.062831536,-0.020852994,-0.024290232,0.0,0.0,0.0,0.0033365113,0.28236592,-0.1705372,-0.14981872,-0.316631,-0.47915557,0.035096496,0.34743032,0.039912585,0.17429686,0.027015278,0.33288658,0.025843224,0.016366813,0.28157175,-0.16045702,0.018143939,0.065425426,0.08015191,-0.030343033,-0.012277264,0.033609856,0.07895989,0.17101173,-0.08595427,2.0,2.0,-2.0,-2.0,2.0,2.0,2.0,-2.0,2.0,2.0,2.0,-2.0,2.0,-2.0,-2.0,2.0,2.0,2.0,-2.0,2.0,2.0,2.0,2.0,-2.0
2025-07-18 16:40:49.878,2.2400000000000015,2240,112,-0.010391327,-0.24721384,0.096760824,-0.05205716,-0.0072776866,-0.007732089,0.0,0.0,0.0,0.00022046514,0.29425484,-0.14239001,-0.17475739,-0.29043022,-0.39026302,0.089092165,0.34060135,0.057907075,0.1883538,0.05802232,0.42258674,-0.028976703,0.09735221,-0.0028407897,-0.12111841,0.08260746,0.11998207,0.051776752,-0.061485633,0.18936227,0.045872767,0.15335788,0.22993642,-0.17724879,2.0,-2.0,-2.0,2.0,2.0,2.0,-2.0,2.0,2.0,2.0,2.0,-2.0,2.0,-2.0,-2.0,2.0,2.0,2.0,-2.0,-2.0,2.0,-2.0,2.0,-2.0
2025-07-18 16:40:49.898,2.2600000000000016,2260,113,0.19041966,-0.19703534,0.11954279,0.029337795,-0.026672931,-0.010370128,0.0,0.0,0.0,-0.0023460942,0.30433822,-0.2277358,-0.1952115,-0.27889073,-0.341117,0.109681,0.3204857,0.09277305,0.22775665,0.042723168,0.4933982,-0.07989214,0.055842444,-0.3405327,-0.07212658,0.0059253997,0.18146028,0.058652047,0.04166772,0.032493006,-0.0047178436,-0.16294716,0.21430768,-0.09624472,2.0,-2.0,-2.0,2.0,2.0,2.0,-2.0,-2.0,2.0,-2.0,2.0,-2.0,2.0,-2.0,2.0,2.0,2.0,-2.0,-2.0,-2.0,2.0,-2.0,-2.0,2.0
2025-07-18 16:40:49.918,2.2800000000000016,2280,114,0.16292769,0.040302973,0.06289765,-0.020130938,-0.0311174,0.002661756,0.0,0.0,0.0,-0.0040478962,0.3124169,-0.33471617,-0.12891266,-0.27667865,-0.27777138,0.031088663,0.3281357,0.10015748,0.23539807,-0.02062005,0.49234486,-0.03337222,-0.014028121,-0.18821321,0.13241267,0.017218389,0.18047383,-0.119694196,-0.01883837,-0.022890558,0.009862362,-0.13239408,-0.16042742,0.14804463,2.0,-2.0,2.0,2.0,2.0,-2.0,-2.0,-2.0,2.0,-2.0,-2.0,2.0,2.0,-2.0,2.0,2.0,2.0,-2.0,-2.0,-2.0,2.0,-2.0,-2.0,2.0
2025-07-18 16:40:49.939,2.3000000000000016,2300,115,0.046343084,0.28187174,-0.13987596,0.032419704,-0.04711354,0.004969712,0.0,0.0,0.0,-0.0055567054,0.32429212,-0.4265921,-0.042070422,-0.27427074,-0.21622485,-0.025918998,0.30923614,0.092521116,0.2561186,-0.077270836,0.4080604,0.033673916,-0.005366924,-0.25181395,0.16630492,-0.046887573,0.15404765,-0.18138075,-0.016343838,-0.06423376,0.09761956,-0.14521424,-0.2007547,0.071821034,2.0,-2.0,2.0,2.0,2.0,-2.0,-2.0,-2.0,2.0,-2.0,-2.0,2.0,2.0,-2.0,2.0,2.0,2.0,-2.0,-2.0,-2.0,2.0,-2.0,-2.0,2.0
2025-07-18 16:40:49.958,2.3200000000000016,2320,116,-0.11308824,0.5313632,-0.20247613,0.036375526,0.026000535,0.0362384,0.0,0.0,0.0,-0.004981775,0.31754977,-0.4927271,0.019887006,-0.27465618,-0.18652277,-0.09046856,0.2792819,0.0432927,0.2693716,-0.13020746,0.32581377,0.08000103,0.053682525,-0.102477595,0.21623267,0.093367964,0.09707527,-0.12261546,-0.11659876,-0.09502076,0.021635277,-0.08222176,-0.26412165,0.08430382,2.0,-2.0,2.0,2.0,2.0,-2.0,-2.0,-2.0,2.0,-2.0,-2.0,2.0,2.0,-2.0,2.0,-0.58126795,2.0,-2.0,2.0,-2.0,-2.0,-2.0,-2.0,2.0
2025-07-18 16:40:49.978,2.3400000000000016,2340,117,-0.34460202,0.4276094,0.047139786,-0.010333917,0.09556081,-0.01602114,0.0,0.0,0.0,-0.00213507,0.3211425,-0.5608165,0.06669669,-0.2537889,-0.12560669,-0.14214398,0.29376283,0.02779405,0.1860004,-0.1569091,0.21562764,0.12795095,0.005443068,-0.08001859,0.09074849,0.02120044,0.13319647,-0.122034065,0.043814562,-0.0047255782,-0.21675786,-0.12245613,-0.3475419,0.09854805,2.0,-2.0,2.0,-0.58126795,2.0,-2.0,2.0,-2.0,-2.0,-2.0,-2.0,2.0,2.0,2.0,2.0,-2.0,2.0,-2.0,2.0,2.0,-2.0,-2.0,2.0,2.0
2025-07-18 16:40:50.000,2.3600000000000017,2360,118,-0.012437129,-0.22192216,-0.071768366,-0.041852824,0.065842226,0.0021376854,0.0,0.0,0.0,-0.0008984138,0.33675885,-0.5808528,0.10026863,-0.25646126,-0.056314122,-0.17210488,0.30600578,0.06442001,0.1039569,-0.19487324,0.15564069,0.1608417,0.043981824,0.11543071,0.08652803,-0.012162555,0.26136765,-0.016331559,0.06498012,0.1808967,-0.16094585,-0.038120482,0.052013554,0.09589296,2.0,2.0,2.0,-2.0,2.0,-2.0,2.0,2.0,-2.0,-2.0,2.0,2.0,-2.0,2.0,2.0,-2.0,-2.0,-2.0,2.0,2.0,-2.0,2.0,-2.0,2.0
2025-07-18 16:40:50.018,2.3800000000000017,2380,119,-0.05784258,-0.25333616,-0.15865989,0.009359168,-0.0008963961,0.01831008,0.0,0.0,0.0,-0.0010962344,0.32677495,-0.53068423,0.13285905,-0.27816296,-0.014952432,-0.20670727,0.30688804,0.17827699,0.027862087,-0.16916953,0.14149517,0.18429689,0.074707404,0.12703343,0.070539236,-0.1028858,0.019173468,-0.00064925203,0.012433657,0.37435427,-0.12024059,0.10422764,-0.086795315,0.005948963,-2.0,2.0,2.0,-2.0,-2.0,-2.0,2.0,2.0,-2.0,2.0,-2.0,2.0,-2.0,2.0,2.0,-2.0,-2.0,-2.0,2.0,-2.0,-2.0,2.0,-2.0,2.0
2025-07-18 16:40:50.038,2.4000000000000017,2400,120,0.012294271,-0.028124504,-0.06972107,-0.05194747,-0.016418135,-0.043929756,0.0,0.0,0.0,0.00050536596,0.3294252,-0.5035693,0.14900167,-0.29636532,-0.071427725,-0.22279444,0.3047932,0.22047666,-0.034442358,-0.15940188,0.12606089,0.21049812,-0.044035077,-0.01077067,0.09735475,-0.00846019,-0.27726126,0.0053845616,0.029062785,-0.095437855,-0.11264517,-0.061676126,-0.006279588,0.028266897,-2.0,2.0,2.0,-2.0,-2.0,-2.0,2.0,-2.0,-2.0,2.0,-2.0,2.0,-2.0,2.0,-2.0,-2.0,-2.0,2.0,2.0,-2.0,2.0,2.0,-2.0,2.0
2025-07-18 16:40:50.064,2.4200000000000017,2420,121,-0.06783661,0.13621706,0.069932334,-0.068868555,0.060340017,0.019429313,0.0,0.0,0.0,0.0019377486,0.31491807,-0.44790614,0.06906454,-0.3014766,-0.20146635,-0.13782755,0.31471217,0.14459729,0.030321263,-0.14931998,0.10728388,0.23099016,0.006134051,0.13317789,-0.18254046,-0.078875884,-0.27492234,0.1484775,-0.053379513,-0.27051303,0.20265546,0.0038061822,0.0042887577,0.06193502,-2.0,2.0,-2.0,-2.0,-2.0,2.0,2.0,-2.0,2.0,2.0,-2.0,2.0,-2.0,2.0,-2.0,-2.0,-2.0,2.0,2.0,2.0,2.0,2.0,2.0,-2.0
2025-07-18 16:40:50.079,2.4400000000000017,2440,122,0.09160014,-0.23445457,0.15266028,-0.013487265,0.0017909519,-0.0113279745,0.0,0.0,0.0,0.0012891538,0.2937044,-0.36811972,-0.0055396585,-0.30354416,-0.3208899,-0.059617855,0.320295,0.09979409,0.07781533,-0.112426445,0.1854447,0.15381165,-0.1209322,0.13855179,-0.092397556,-0.0068574245,-0.24116932,0.12481984,0.0041448697,0.08919231,0.14364573,0.050772864,0.33663666,-0.18613243,-2.0,2.0,-2.0,-2.0,-2.0,2.0,2.0,2.0,2.0,2.0,2.0,-2.0,2.0,2.0,-2.0,-2.0,-2.0,2.0,2.0,2.0,2.0,2.0,2.0,-2.0
2025-07-18 16:40:50.099,2.4600000000000017,2460,123,-0.22664657,-0.31956095,0.07057538,-0.03937542,0.01758091,-0.035062764,0.0,0.0,0.0,-0.0007677968,0.3023416,-0.28349352,-0.063913375,-0.3116781,-0.40497097,0.006016171,0.33290395,0.17483605,0.1160408,-0.04449382,0.3008509,0.082250535,0.03572922,0.26461583,-0.12300761,0.037319705,-0.20969324,0.118414484,0.07125481,0.24617562,0.052227333,0.10947718,0.29827568,-0.252944,2.0,2.0,-2.0,-2.0,-2.0,2.0,2.0,2.0,2.0,2.0,2.0,-2.0,2.0,2.0,-2.0,-1.3993994,2.0,2.0,2.0,-2.0,2.0,2.0,2.0,-2.0
2025-07-18 16:40:50.119,2.4800000000000018,2480,124,-0.11834456,-0.24667834,0.17277317,-0.023100905,0.017669914,0.033531208,0.0,0.0,0.0,-0.0027958795,0.3020921,-0.17864318,-0.101955324,-0.3117483,-0.42414656,0.06457687,0.33965763,0.19188766,0.14875534,0.012114683,0.3953734,0.004261129,0.02836915,0.2200249,-0.10268299,-0.055310562,0.07721519,0.10142165,0.055916138,0.02498189,0.016033957,0.14271332,0.2158725,-0.1662322,2.0,2.0,-2.0,-1.3993994,2.0,2.0,2.0,-2.0,2.0,2.0,2.0,-2.0,2.0,-2.0,-2.0,2.0,1.1322082,2.0,-2.0,-2.0,2.0,2.0,2.0,-2.0
2025-07-18 16:40:50.139,2.5000000000000018,2500,125,0.15139632,-0.047836952,0.31753662,-0.06421498,0.032907955,0.03737758,0.0,0.0,0.0,-0.0053709806,0.31970546,-0.1334386,-0.15407704,-0.2714506,-0.3611964,0.09255682,0.3355238,0.18496813,0.18560337,0.062377766,0.4727611,-0.03870386,0.030059341,0.0478923,-0.08474279,0.029179556,0.10826677,0.11542772,0.03356632,-0.037222926,0.13918227,0.096521854,0.1792514,-0.19051121,2.0,-2.0,-2.0,2.0,1.1322082,2.0,-2.0,-2.0,2.0,2.0,2.0,-2.0,2.0,-2.0,-2.0,2.0,2.0,2.0,-2.0,2.0,2.0,-2.0,2.0,-2.0
2025-07-18 16:40:50.159,2.520000000000002,2520,126,0.119604275,-0.35840273,0.11723303,-0.06815577,-0.039055884,0.04457958,0.0,0.0,0.0,-0.009884823,0.31785825,-0.18245703,-0.1814246,-0.27402565,-0.31691584,0.12353855,0.31357723,0.22417995,0.19083987,0.040162705,0.5353736,-0.0861493,0.05118787,-0.22124644,-0.019707786,0.0077939336,0.1505007,0.07265006,-0.09802141,0.13793933,-0.0029172348,-0.15274869,0.09471147,-0.14398721,2.0,-2.0,-2.0,2.0,2.0,2.0,-2.0,2.0,2.0,-2.0,2.0,-2.0,2.0,-2.0,2.0,2.0,2.0,-2.0,-2.0,-2.0,2.0,-2.0,-2.0,2.0
2025-07-18 16:40:50.179,2.540000000000002,2540,127,0.19834916,-0.09242875,0.02546675,-0.0024988817,-0.04360737,-0.027997905,0.0,0.0,0.0,-0.013210369,0.32318398,-0.30586818,-0.09515554,-0.27249566,-0.24679175,0.04855897,0.3061432,0.26143634,0.21420348,-0.027490338,0.5103982,-0.037403174,0.030559896,-0.29111877,0.12789172,0.047232904,0.11514857,-0.21107209,-0.07052458,-0.012699216,0.09528477,-0.096282,-0.17076941,0.18645379,2.0,-2.0,2.0,2.0,2.0,-2.0,-2.0,-2.0,2.0,-2.0,-2.0,2.0,2.0,-2.0,2.0,2.0,2.0,-2.0,-2.0,-2.0,2.0,-2.0,-2.0,2.0
2025-07-18 16:40:50.199,2.560000000000002,2560,128,0.0029586726,0.27186656,-0.10092271,-0.01635516,-0.07187018,-0.034318812,0.0,0.0,0.0,-0.014132537,0.33152607,-0.38992175,-0.02503411,-0.27051377,-0.17639512,-0.018755153,0.27498406,0.2646966,0.2339103,-0.08162519,0.4343149,0.03590903,-0.0051428215,-0.25111225,0.13289343,-0.0064974464,0.1144184,-0.13516735,-0.15775742,-0.061797608,0.08110382,-0.17329514,-0.21069553,0.18617645,2.0,-2.0,2.0,2.0,2.0,-2.0,-2.0,-2.0,2.0,-2.0,-2.0,2.0,2.0,-2.0,2.0,2.0,2.0,-2.0,-2.0,-2.0,2.0,-2.0,-2.0,2.0
2025-07-18 16:40:50.224,2.580000000000002,2580,129,-0.14784904,0.48485965,-0.21248548,0.006153753,0.047488306,-0.045486685,0.0,0.0,0.0,-0.012660537,0.3406467,-0.47551036,0.021900298,-0.24343385,-0.12178685,-0.09518766,0.23849212,0.24035989,0.26399225,-0.123070724,0.3466224,0.072081774,0.06340989,-0.22497523,0.18210278,0.09850216,0.050523274,-0.10911448,-0.13192052,-0.11157872,0.040135633,-0.10338401,-0.26192945,0.099977374,2.0,-2.0,2.0,2.0,2.0,-2.0,-2.0,-2.0,2.0,-2.0,-2.0,2.0,2.0,-2.0,2.0,-0.602965,2.0,-2.0,1.6014707,-2.0,-2.0,-2.0,-2.0,2.0
2025-07-18 16:40:50.240,2.600000000000002,2600,130,-0.044505462,0.39737588,0.009886938,0.00541602,0.011075301,-0.016460678,0.0,0.0,0.0,-0.008840302,0.355238,-0.5330858,0.07093821,-0.24225117,-0.07645038,-0.14488693,0.23700672,0.22294691,0.19383313,-0.16419418,0.23644723,0.1164288,-0.035534356,-0.18892097,0.093421824,-0.054559857,0.19436274,-0.09171434,-0.032310273,-0.0662705,-0.1492295,-0.12210877,-0.32810003,0.05294593,2.0,-2.0,2.0,-0.602965,2.0,-2.0,1.6014707,-2.0,-2.0,-2.0,-2.0,2.0,2.0,2.0,2.0,-2.0,2.0,-2.0,2.0,2.0,-2.0,-2.0,2.0,2.0
2025-07-18 16:40:50.259,2.620000000000002,2620,131,0.11932562,-0.2349806,-0.05308211,0.007608671,-0.0013122992,0.04532126,0.0,0.0,0.0,-0.007040145,0.35609624,-0.5487787,0.105106845,-0.2546586,8.811662e-05,-0.17553993,0.25951138,0.256704,0.10438001,-0.20262536,0.2031292,0.14630409,0.008315912,0.013799769,0.03904576,0.02229185,0.24004674,-0.12337418,0.10475869,0.21844561,-0.14890108,-0.010796644,0.035351597,0.077782944,2.0,2.0,2.0,-2.0,2.0,-2.0,2.0,2.0,-2.0,-2.0,2.0,2.0,-2.0,2.0,2.0,-2.0,-2.0,-2.0,2.0,2.0,-2.0,2.0,-2.0,2.0
2025-07-18 16:40:50.279,2.640000000000002,2640,132,0.007911815,-0.19394803,-0.13548258,-0.019587887,-0.0072302097,-0.03572724,0.0,0.0,0.0,-0.0067444,0.34820762,-0.5263725,0.1376715,-0.27551773,0.04466569,-0.20010656,0.27732098,0.36764017,0.036319733,-0.18224576,0.19476819,0.19235109,0.03472794,0.12669612,0.018905547,-0.039456006,0.03724452,-0.08258215,0.06511245,0.20246708,-0.12572013,0.0131453695,-0.00094372453,0.0387047,-2.0,2.0,2.0,-2.0,-2.0,-2.0,2.0,2.0,-2.0,2.0,-2.0,2.0,-2.0,2.0,2.0,-2.0,-2.0,-2.0,2.0,-2.0,-2.0,2.0,-2.0,2.0
2025-07-18 16:40:50.299,2.660000000000002,2660,133,0.09393931,-0.028611623,-0.06732633,-0.029887557,-0.004614681,0.049224608,0.0,0.0,0.0,-0.0050962996,0.34570318,-0.5021399,0.14392288,-0.28817707,-0.0147266975,-0.21646848,0.29401794,0.3837075,-0.027894404,-0.17558184,0.18418665,0.21787949,0.0047748233,0.04093384,0.08858052,0.028782416,-0.20161769,-0.01707764,-0.0022423184,-0.08240411,-0.06871119,-0.005041549,-0.021060009,-0.0021357196,-2.0,2.0,2.0,-2.0,-2.0,-2.0,2.0,-2.0,-2.0,2.0,-2.0,2.0,-2.0,2.0,-2.0,-2.0,-2.0,-2.0,2.0,-2.0,2.0,2.0,-2.0,2.0
2025-07-18 16:40:50.320,2.680000000000002,2680,134,0.043582074,0.20429593,0.09171263,-0.01065554,0.047596134,-0.026892034,0.0,0.0,0.0,-0.003714539,0.33542213,-0.43423098,0.07865406,-0.3007242,-0.13897519,-0.22463505,0.29464415,0.272647,0.011191347,-0.16069008,0.16120793,0.23478438,-0.090857774,0.13539225,-0.19782923,-0.06531791,-0.30300143,0.033867806,0.05704201,-0.40860316,0.16649202,0.07127109,-0.020463252,-0.02252042,-2.0,2.0,-2.0,-2.0,-2.0,-2.0,2.0,-2.0,2.0,2.0,-2.0,2.0,-2.0,2.0,-2.0,-2.0,-2.0,2.0,2.0,2.0,2.0,2.0,-2.0,2.0
2025-07-18 16:40:50.340,2.700000000000002,2700,135,-0.050461277,0.04674209,0.047637694,-0.029414173,0.056102693,0.0034986956,0.0,0.0,0.0,-0.0037798944,0.30778086,-0.3801649,0.0046904082,-0.30548593,-0.2717644,-0.16202074,0.31078032,0.21032369,0.06483469,-0.12678817,0.130796,0.25557137,0.023982085,0.13801582,-0.16994336,0.004216069,-0.3179306,0.23343779,0.060395077,0.014270836,0.06648816,0.055850442,-0.064378634,-0.0025716121,-2.0,2.0,-2.0,-2.0,-2.0,2.0,2.0,2.0,2.0,2.0,-2.0,2.0,-2.0,2.0,-2.0,-2.0,-2.0,2.0,2.0,-2.0,2.0,2.0,2.0,-2.0
2025-07-18 16:40:50.360,2.720000000000002,2720,136,0.26310268,-0.046273064,0.22286698,-0.044762097,0.09040067,0.03070223,0.0,0.0,0.0,-0.0047663613,0.26736164,-0.30756178,-0.05810704,-0.30626258,-0.37300447,-0.072017446,0.30261484,0.15953712,0.11531232,-0.080547325,0.2012886,0.1687654,-0.17264251,0.12210013,-0.21437633,-0.0347632,-0.22106242,0.23625976,-0.0002639583,-0.22625686,0.1462972,0.15177242,0.33410138,-0.26202023,-2.0,2.0,-2.0,-2.0,-2.0,2.0,2.0,-2.0,2.0,2.0,2.0,-2.0,2.0,2.0,-2.0,-2.0,-2.0,2.0,2.0,2.0,2.0,2.0,2.0,-2.0
2025-07-18 16:40:50.380,2.740000000000002,2740,137,-0.101940066,-0.1700802,0.08720364,-0.005523913,0.07872111,0.0104790935,0.0,0.0,0.0,-0.007586006,0.2709031,-0.21889445,-0.11785489,-0.3167555,-0.45448813,-0.012980831,0.31244087,0.15271229,0.14071035,-0.022264697,0.32511678,0.0809208,0.003899073,0.23554721,-0.07859492,-0.019808004,-0.19716386,0.22395648,0.03550844,0.04681182,0.04511601,0.20967019,0.32502913,-0.21931845,2.0,2.0,-2.0,-2.0,-2.0,2.0,2.0,2.0,2.0,2.0,2.0,-2.0,2.0,1.6880465,-2.0,-1.6366707,2.0,2.0,2.0,-2.0,2.0,2.0,2.0,-2.0
2025-07-18 16:40:50.400,2.760000000000002,2760,138,0.055948444,-0.27205476,0.14644589,-0.049540285,0.003057337,0.011859846,0.0,0.0,0.0,-0.010705533,0.28640968,-0.11168909,-0.14131792,-0.3174746,-0.4500895,0.05541228,0.3224818,0.13542238,0.1827314,0.049822014,0.4052025,0.01296406,-0.011218606,0.33321515,-0.015218934,0.026922502,0.08491686,0.08520702,0.0006152595,-0.103269026,0.026697818,0.20803808,0.18814419,-0.12998255,2.0,1.6880465,-2.0,-1.6366707,2.0,2.0,2.0,-2.0,2.0,2.0,2.0,-2.0,2.0,-2.0,-2.0,2.0,2.0,2.0,-2.0,2.0,2.0,2.0,2.0,-2.0
2025-07-18 16:40:50.420,2.780000000000002,2780,139,-0.2163518,-0.2474968,0.013296866,-0.03521175,0.030879138,-0.004496865,0.0,0.0,0.0,-0.013513391,0.3005767,-0.07732634,-0.1815372,-0.28521377,-0.41949832,0.088506274,0.31089538,0.14223585,0.2024274,0.086572595,0.5029324,-0.039175417,0.013108818,-0.06254485,-0.017259683,0.01523272,0.14951941,0.13820301,-0.04437429,0.05589518,-0.010488876,0.067529365,0.12528718,-0.18147406,2.0,-2.0,-2.0,2.0,2.0,2.0,-2.0,2.0,2.0,2.0,2.0,-2.0,2.0,-2.0,-2.0,2.0,2.0,2.0,-2.0,-2.0,2.0,-2.0,2.0,-2.0
2025-07-18 16:40:50.441,2.800000000000002,2800,140,0.06488189,-0.1869902,0.012041139,0.02872404,-0.055930994,-0.011140478,0.0,0.0,0.0,-0.015627274,0.3091034,-0.14330795,-0.2051599,-0.26614782,-0.38758865,0.10557165,0.3208672,0.16969122,0.22172196,0.0634948,0.5486677,-0.0838114,0.03652214,-0.22426067,-0.06816335,-0.002688907,0.1541269,0.08917405,-0.024940765,0.03699489,0.1313612,-0.16471599,0.12667373,-0.11960085,2.0,-2.0,-2.0,2.0,2.0,2.0,-2.0,-2.0,2.0,-2.0,2.0,-2.0,2.0,-2.0,2.0,2.0,2.0,0.8331464,-2.0,-2.0,2.0,-2.0,-2.0,0.9622788
2025-07-18 16:40:50.460,2.820000000000002,2820,141,-0.020953955,-0.022519331,0.0052139377,0.009994625,-0.068120904,0.0053950907,0.0,0.0,0.0,-0.016253216,0.31854132,-0.26347774,-0.11820271,-0.26053238,-0.3448089,0.101461194,0.3122269,0.1962524,0.24194698,-0.020270927,0.54007643,-0.04327341,0.045746975,-0.22012763,0.26372877,-0.050372466,0.109958544,-0.013213466,-0.03615034,0.017351028,0.097817615,-0.17548127,-0.23118919,0.06513827,2.0,-2.0,2.0,2.0,2.0,0.8331464,-2.0,-2.0,2.0,-2.0,-2.0,0.9622788,2.0,-2.0,2.0,2.0,2.0,-2.0,-2.0,-2.0,2.0,-2.0,-2.0,2.0
2025-07-18 16:40:50.480,2.840000000000002,2840,142,-0.0032760182,0.3300901,-0.11224858,0.016208258,-0.062148377,0.020303594,0.0,0.0,0.0,-0.01715297,0.32930037,-0.37042415,-0.057933062,-0.2538435,-0.28154573,0.027081208,0.30836818,0.18850929,0.2590532,-0.05875992,0.44383502,0.016371338,0.04749496,-0.22350483,0.22908726,0.077420235,0.1723412,-0.19634984,-0.032599874,0.012561264,0.07647814,-0.18410556,-0.2056613,0.15082933,2.0,-2.0,2.0,2.0,2.0,-2.0,-2.0,-2.0,2.0,-2.0,-2.0,2.0,2.0,-2.0,2.0,2.0,2.0,-2.0,-2.0,-2.0,2.0,-2.0,-2.0,2.0
2025-07-18 16:40:50.501,2.860000000000002,2860,143,-0.11220992,0.47560486,-0.22967394,-0.04354639,0.03921314,-0.025402686,0.0,0.0,0.0,-0.016506921,0.33135304,-0.44196814,0.0038454384,-0.25597817,-0.24357496,-0.05372902,0.28047028,0.15346025,0.26481465,-0.120440245,0.33143237,0.07079223,-0.020831553,-0.23991661,0.13537021,0.09393751,0.12013018,-0.19474751,-0.05971177,-0.13735364,-0.018305339,-0.054125443,-0.26198813,0.15339749,2.0,-2.0,2.0,2.0,2.0,-2.0,-2.0,-2.0,2.0,-2.0,-2.0,2.0,2.0,-2.0,2.0,-1.2790366,2.0,-2.0,0.14264971,-2.0,-0.2734527,-2.0,-2.0,2.0
2025-07-18 16:40:50.520,2.880000000000002,2880,144,0.057972793,0.40438294,-0.010197941,-0.01492004,0.04727952,0.017026844,0.0,0.0,0.0,-0.013328461,0.32492772,-0.5156225,0.06416025,-0.25215948,-0.1969214,-0.10717025,0.23924525,0.122278966,0.22381447,-0.1432249,0.20637207,0.11759615,0.007756545,-0.17070383,0.049862456,-0.025063498,0.07159211,-0.097063236,-0.033134792,-0.111802034,-0.099137716,-0.10752303,-0.35381868,0.09311812,2.0,-2.0,2.0,-1.2790366,2.0,-2.0,0.14264971,-2.0,-0.2734527,-2.0,-2.0,2.0,2.0,2.0,2.0,-2.0,2.0,-2.0,2.0,2.0,-2.0,-2.0,2.0,2.0
2025-07-18 16:40:50.542,2.900000000000002,2900,145,0.04955842,-0.29092488,-0.06893384,-0.025058156,0.010426594,-0.03955677,0.0,0.0,0.0,-0.011618629,0.3281126,-0.5427819,0.08708587,-0.26152816,-0.11055587,-0.13650323,0.25212383,0.15546224,0.1281976,-0.18878943,0.16223516,0.14716624,0.076146975,-0.02711566,0.012856517,-0.08420748,0.25793037,-0.05436654,-0.015996637,0.16525152,-0.19322863,-0.015832802,0.0927572,0.11949556,2.0,2.0,2.0,-2.0,2.0,-2.0,2.0,2.0,-2.0,-2.0,2.0,2.0,-2.0,2.0,2.0,-2.0,-2.0,-2.0,2.0,2.0,-2.0,2.0,-2.0,2.0
2025-07-18 16:40:50.560,2.920000000000002,2920,146,-0.06745936,-0.22135973,-0.08739353,-0.021795908,0.029043624,0.0015210364,0.0,0.0,0.0,-0.01098148,0.35002118,-0.5048335,0.13410623,-0.27457568,-0.08944502,-0.16775224,0.26647595,0.27317753,0.067076914,-0.18810634,0.16687801,0.1814729,0.046279825,0.089133315,-0.006891394,0.017431157,0.013537879,-0.029432543,0.058193445,0.3336796,-0.1229805,0.032991517,0.05127207,0.036023866,-2.0,2.0,2.0,-2.0,-2.0,-2.0,2.0,2.0,-2.0,2.0,-2.0,2.0,-2.0,2.0,2.0,-2.0,-2.0,-2.0,2.0,-2.0,-2.0,2.0,-2.0,2.0
2025-07-18 16:40:50.580,2.940000000000002,2940,147,0.026997207,-0.024059933,-0.069323435,0.029833863,-0.0038524936,0.008099261,0.0,0.0,0.0,-0.008904617,0.35039368,-0.4706057,0.14419924,-0.2910412,-0.15669096,-0.18399614,0.28417978,0.3105411,-0.0094045345,-0.19182968,0.14880282,0.2117701,-0.024334826,-0.010456383,0.11200273,0.014572084,-0.20992789,-0.043793947,0.07743143,-0.022829864,-0.110806145,0.024573026,-0.11146702,0.065419726,-2.0,2.0,2.0,-2.0,-2.0,-2.0,2.0,-2.0,-2.0,2.0,-2.0,2.0,-2.0,2.0,-2.0,-2.0,-2.0,-1.3701411,2.0,-2.0,2.0,2.0,-2.0,2.0
2025-07-18 16:40:50.603,2.960000000000002,2960,148,0.00024300069,0.16942896,0.018954603,-0.042849254,0.080281995,0.0014909056,0.0,0.0,0.0,-0.006942868,0.33380735,-0.43021965,0.07727107,-0.3056055,-0.27604595,-0.1970129,0.2909714,0.20046315,0.029168189,-0.16219462,0.12318983,0.23248471,-0.06340082,0.19233556,-0.20718965,-0.08983239,-0.28885666,0.0029691632,-0.032661166,-0.29882008,0.13853186,0.089280166,-0.13711533,0.02201925,-2.0,2.0,-2.0,-2.0,-2.0,-1.3701411,2.0,-2.0,2.0,2.0,-2.0,2.0,-2.0,2.0,-2.0,-2.0,-2.0,2.0,2.0,2.0,2.0,2.0,-2.0,2.0
2025-07-18 16:40:50.621,2.980000000000002,2980,149,-0.10026691,0.027663201,-0.014102797,0.011177032,0.0062994766,-0.002525298,0.0,0.0,0.0,-0.0065302746,0.31070125,-0.36034167,-0.008696842,-0.2999708,-0.3784098,-0.12820078,0.30213505,0.14729993,0.08907772,-0.1264733,0.09450904,0.24543646,-0.067369245,0.1740784,-0.1873979,-0.0696112,-0.2951979,0.23255344,0.023299828,-0.009289163,0.09061143,0.12104187,-0.106132865,-0.015551886,-2.0,2.0,-2.0,-2.0,-2.0,2.0,2.0,2.0,2.0,2.0,-2.0,2.0,-2.0,2.0,-2.0,-2.0,-2.0,2.0,2.0,2.0,2.0,2.0,2.0,-2.0
2025-07-18 16:40:50.641,3.000000000000002,3000,150,0.112728335,-0.24795674,0.08978687,-0.05992534,-0.01106995,0.008920853,0.0,0.0,0.0,-0.0070107533,0.26669762,-0.26625967,-0.057888728,-0.3226,-0.44390473,-0.04808423,0.31085098,0.21002,0.12047102,-0.09183974,0.1657504,0.17380048,-0.037025902,0.27550521,-0.15630761,-0.0044128657,-0.21021666,0.09934129,0.051995832,0.31093392,0.019609846,0.1944152,0.32696566,-0.16436483,-2.0,2.0,-2.0,-2.0,-2.0,2.0,2.0,2.0,2.0,2.0,2.0,-2.0,2.0,2.0,-2.0,-2.0,-2.0,2.0,2.0,-2.0,2.0,2.0,2.0,-2.0
2025-07-18 16:40:50.664,3.0200000000000022,3020,151,-0.043472707,-0.17822424,0.10711436,0.005451299,0.038801666,-0.025948685,0.0,0.0,0.0,-0.008027145,0.27566662,-0.17136058,-0.11123496,-0.31168926,-0.5190263,0.011205921,0.31957996,0.24865878,0.16116065,-0.029721988,0.2910646,0.08972096,0.05086673,0.2205106,-0.113286324,-0.06018627,-0.15170757,0.11536639,0.083088875,-0.062169727,0.0131414905,0.2095635,0.20056872,-0.12193396,2.0,2.0,-2.0,-2.0,-2.0,2.0,2.0,-2.0,2.0,2.0,2.0,-2.0,2.0,2.0,-2.0,-2.0,2.0,2.0,2.0,-2.0,2.0,2.0,2.0,-2.0
2025-07-18 16:40:50.681,3.0400000000000023,3040,152,0.13397627,-0.20283864,0.20702949,-0.0052353563,0.021890346,0.022576677,0.0,0.0,0.0,-0.010688145,0.2864296,-0.07468642,-0.1455878,-0.3189754,-0.5144905,0.0692783,0.3295853,0.17460111,0.18890548,0.036397237,0.38542256,0.0047358773,0.036504515,0.23918988,-0.056901835,-0.07659003,0.19349457,0.05450971,0.06595725,-0.25284246,0.09260863,0.20090379,0.14899363,-0.11681435,2.0,2.0,-2.0,-2.0,2.0,2.0,2.0,-2.0,2.0,2.0,2.0,-2.0,2.0,-2.0,-2.0,2.0,-2.0,2.0,-2.0,2.0,2.0,2.0,2.0,-2.0
2025-07-18 16:40:50.701,3.0600000000000023,3060,153,0.069757394,-0.09341062,-0.10000534,0.025919002,-0.039531417,0.045801945,0.0,0.0,0.0,-0.014308577,0.30959558,-0.04950068,-0.17739272,-0.2705177,-0.52792716,0.115493044,0.286874,0.15315127,0.1939354,0.08545061,0.47378957,-0.04076693,0.06248582,-0.12074934,-0.06912281,0.17976233,-0.17154443,0.015814684,-0.018956063,0.06244565,0.07720818,0.07181862,0.14779758,-0.15084113,2.0,-2.0,-2.0,2.0,-2.0,2.0,-2.0,2.0,2.0,2.0,2.0,-2.0,2.0,-2.0,-2.0,0.4927527,2.0,2.0,2.0,-2.0,2.0,2.0,2.0,-2.0
2025-07-18 16:40:50.722,3.0800000000000023,3080,154,-0.14242046,-0.040608585,0.038689204,-0.057751507,0.030059388,-0.04016363,0.0,0.0,0.0,-0.015741436,0.31713364,-0.10787167,-0.21040101,-0.22716846,-0.5227076,0.13171966,0.30615127,0.16840638,0.21999794,0.124905914,0.5293578,-0.079615004,0.0034401289,-0.34439978,-0.03801952,0.12107344,-0.0201217,0.09192252,0.025153888,0.079779334,0.026027583,0.16021678,0.16467524,-0.1791673,2.0,-2.0,-2.0,0.4927527,2.0,2.0,2.0,-2.0,2.0,2.0,2.0,-2.0,2.0,-2.0,-2.0,2.0,2.0,2.0,-2.0,-2.0,2.0,-2.0,2.0,-2.0
2025-07-18 16:40:50.741,3.1000000000000023,3100,155,0.03000136,-0.15450293,0.11270411,-0.03095487,0.0069671744,-0.0016586354,0.0,0.0,0.0,-0.016558217,0.3129107,-0.23538867,-0.22125967,-0.21571128,-0.51802367,0.15448852,0.3326685,0.17469448,0.2355803,0.08790413,0.58973145,-0.13208525,0.012487554,-0.30871436,0.02795467,0.0037772881,0.10637725,0.10690949,0.08899724,0.06919196,0.08356497,-0.16850074,0.11357621,-0.029400695,2.0,-2.0,-2.0,2.0,2.0,2.0,-2.0,-2.0,2.0,-2.0,2.0,-2.0,2.0,-2.0,2.0,2.0,2.0,-2.0,-2.0,-2.0,2.0,-2.0,-2.0,2.0
2025-07-18 16:40:50.761,3.1200000000000023,3120,156,-0.012866181,0.1026981,0.010046777,0.015481855,-0.05306539,-0.006641072,0.0,0.0,0.0,-0.017953316,0.31368837,-0.33918574,-0.15255748,-0.21664013,-0.4694009,0.07407644,0.34810328,0.1718447,0.25604102,0.015215591,0.5576009,-0.06318821,0.020913163,-0.30782208,0.20750985,0.043261778,0.076629385,-0.23986757,0.02090894,-0.0010468494,0.028359583,-0.21666321,-0.2557957,0.1724881,2.0,-2.0,2.0,2.0,2.0,-2.0,-2.0,-2.0,2.0,-2.0,-2.0,2.0,2.0,-2.0,2.0,2.0,2.0,-2.0,-2.0,-2.0,2.0,-2.0,-2.0,2.0
2025-07-18 16:40:50.783,3.1400000000000023,3140,157,-0.060664117,0.21025346,-0.060753398,0.012832266,0.028058432,-0.013725207,0.0,0.0,0.0,-0.018214658,0.31625026,-0.434375,-0.071319625,-0.20090516,-0.41194814,-0.007344355,0.3462932,0.16827425,0.26567847,-0.054209244,0.42840877,0.009934206,-0.032053743,-0.18333417,0.24063854,0.03445155,0.118605204,-0.11955196,0.010325456,-0.080188975,0.060478732,-0.14269933,-0.33593607,0.1773808,2.0,-2.0,2.0,2.0,2.0,-2.0,-2.0,-2.0,2.0,-2.0,-2.0,2.0,2.0,-2.0,2.0,2.0,2.0,-2.0,-2.0,-2.0,2.0,-2.0,-2.0,2.0
2025-07-18 16:40:50.801,3.1600000000000024,3160,158,0.1725327,0.35213032,-0.16794528,0.017623046,-0.02635362,0.04643695,0.0,0.0,0.0,-0.017155347,0.33549798,-0.5030325,-0.007961505,-0.19775657,-0.41122672,-0.069103114,0.32466292,0.15659186,0.2858861,-0.10537968,0.3344286,0.055345785,0.003395274,-0.11600329,0.21175092,-0.05698706,0.098641835,-0.16204397,-0.12794638,-0.13666128,0.0622039,-0.10858151,-0.27196714,0.091001466,2.0,-2.0,2.0,2.0,2.0,-2.0,-2.0,-2.0,2.0,-2.0,-2.0,2.0,2.0,-2.0,2.0,1.3119038,2.0,-2.0,-1.5524895,-2.0,2.0,-2.0,-2.0,2.0
2025-07-18 16:40:50.821,3.1800000000000024,3180,159,0.21506093,0.40200272,-0.18823946,0.02260708,0.012219807,-0.01820061,0.0,0.0,0.0,-0.014379264,0.3411426,-0.55542535,0.043409433,-0.20371178,-0.38687423,-0.11995591,0.26952702,0.1077845,0.30120587,-0.13501002,0.21956457,0.10427653,-0.014217521,-0.15413138,0.090079255,0.06162231,0.102860905,-0.09266319,-0.22556789,-0.055647332,-0.0039271805,-0.03004428,-0.19397838,0.1417657,2.0,-2.0,2.0,1.3119038,2.0,-2.0,-1.5524895,-2.0,2.0,-2.0,-2.0,2.0,2.0,-0.5935676,2.0,-2.0,2.0,-2.0,2.0,-2.0,-2.0,-2.0,-2.0,2.0
2025-07-18 16:40:50.846,3.2000000000000024,3200,160,0.222152,0.28207114,-0.19259763,0.042875234,0.06279101,0.0011939815,0.0,0.0,0.0,-0.010501037,0.34624842,-0.5864424,0.088122375,-0.22645824,-0.3704962,-0.1733916,0.27935696,0.07916345,0.20771456,-0.168156,0.14323771,0.136027,-0.019971456,-0.08580493,0.02437459,-0.0897531,0.089629345,-0.16563407,0.007911872,-0.15388866,-0.22659458,-0.031077858,-0.15638338,0.16295514,2.0,-0.5935676,2.0,-2.0,2.0,-2.0,2.0,-2.0,-2.0,-2.0,-2.0,2.0,2.0,2.0,2.0,-2.0,2.0,-2.0,2.0,2.0,-2.0,-2.0,-2.0,2.0
2025-07-18 16:40:50.862,3.2200000000000024,3220,161,0.07611515,-0.04872601,-0.3709776,-0.009949753,0.03508471,0.02209238,0.0,0.0,0.0,-0.0072285803,0.3604674,-0.570309,0.109942965,-0.24300997,-0.30696183,-0.2051338,0.2875688,0.11495758,0.12589344,-0.20202263,0.057924215,0.17528036,0.08477822,0.079822816,0.055606145,-0.0223748,0.12238895,-0.03840539,0.08311818,0.19889875,-0.1474056,-0.07025201,-0.15237421,0.0074992366,2.0,2.0,2.0,-2.0,2.0,-2.0,2.0,2.0,-2.0,-2.0,-2.0,2.0,-2.0,2.0,2.0,-2.0,2.0,-2.0,2.0,2.0,-2.0,2.0,2.0,2.0
2025-07-18 16:40:50.881,3.2400000000000024,3240,162,0.14203194,-0.49022636,-0.073421866,0.041877177,0.05818713,-0.007887055,0.0,0.0,0.0,-0.0018640701,0.35074946,-0.49955344,0.14311427,-0.2531295,-0.22372374,-0.21094784,0.29234216,0.20844738,0.046924323,-0.21036005,0.074245065,0.18976742,-0.0908067,0.19742952,0.12194872,0.02407657,0.3734148,0.007793989,-0.041402638,0.37087223,-0.1821607,0.0724472,0.22854547,0.06107571,-2.0,2.0,2.0,-2.0,2.0,-2.0,2.0,2.0,-2.0,2.0,2.0,2.0,-2.0,2.0,2.0,-2.0,-2.0,-2.0,2.0,-2.0,-2.0,2.0,-2.0,2.0
2025-07-18 16:40:50.901,3.2600000000000025,3260,163,0.09633081,-0.11738701,-0.09676967,0.044767383,0.018960193,0.008332188,0.0,0.0,0.0,0.0023296112,0.32407522,-0.4499815,0.17293333,-0.2810579,-0.17469406,-0.22608125,0.30251405,0.24797669,-0.012933401,-0.19818099,0.09205263,0.21767376,-0.043702513,0.08336301,0.033855878,-0.07423232,-0.036699183,-0.02497437,-0.057147868,-0.0013418529,-0.07006055,0.044376276,-0.014564672,0.043558452,-2.0,2.0,2.0,-2.0,-2.0,-2.0,2.0,-2.0,-2.0,2.0,-2.0,2.0,-2.0,2.0,-2.0,-2.0,-2.0,2.0,2.0,-2.0,2.0,2.0,-2.0,2.0
2025-07-18 16:40:50.922,3.2800000000000025,3280,164,-0.07127142,0.0831193,0.033973124,0.040240597,0.02929801,0.037422694,0.0,0.0,0.0,0.0038403498,0.28388265,-0.35549796,0.09525301,-0.29498172,-0.26336303,-0.1474865,0.32405367,0.17028084,0.027788745,-0.17781644,0.098067686,0.23656942,-0.06793945,0.19545694,-0.2195034,0.011339952,-0.26802444,0.1595418,-0.060924724,-0.38639858,0.1808142,0.08243501,-0.089579806,0.120602585,-2.0,2.0,-2.0,-2.0,-2.0,2.0,2.0,-2.0,2.0,2.0,-2.0,2.0,-2.0,2.0,-2.0,-2.0,-2.0,2.0,2.0,2.0,2.0,2.0,2.0,-2.0
2025-07-18 16:40:50.942,3.3000000000000025,3300,165,0.08886489,-0.22542815,0.05221747,-0.032686267,0.034075405,-0.007125625,0.0,0.0,0.0,0.0040480997,0.24281037,-0.27025425,0.0049851793,-0.29973525,-0.35241276,-0.078797095,0.32459977,0.10890281,0.08452454,-0.12103284,0.15278164,0.15319818,-0.098261625,0.18288226,-0.105909325,-0.026114509,-0.22253722,0.20765288,-0.050479956,-0.014897962,0.071108095,0.06340137,0.34383866,-0.23967767,-2.0,2.0,-2.0,-2.0,-2.0,2.0,2.0,2.0,2.0,2.0,2.0,-2.0,2.0,2.0,-2.0,-2.0,-2.0,2.0,2.0,2.0,2.0,2.0,2.0,-2.0
2025-07-18 16:40:50.962,3.3200000000000025,3320,166,-0.21467428,-0.27322128,-0.030898118,0.039707944,-0.030709023,-0.0488086,0.0,0.0,0.0,0.0034486768,0.26868194,-0.15857556,-0.047953118,-0.30356905,-0.44380116,-0.012298924,0.31839094,0.17446083,0.12509261,-0.064215735,0.27492458,0.07313651,0.014183312,0.35121137,-0.059767373,0.011692241,-0.15669036,0.19336142,0.04703378,0.19148773,0.12949143,0.18458258,0.20733671,-0.18288712,2.0,2.0,-2.0,-2.0,-2.0,2.0,2.0,2.0,2.0,2.0,2.0,-2.0,2.0,-2.0,-2.0,-2.0,2.0,2.0,2.0,-2.0,2.0,2.0,2.0,-2.0
2025-07-18 16:40:50.982,3.3400000000000025,3340,167,-0.09431228,-0.21928301,0.25123,-0.05699921,-0.059289057,0.0037493552,0.0,0.0,0.0,0.002766218,0.27838203,-0.098421715,-0.09884405,-0.32199112,-0.45406714,0.048016198,0.32984945,0.2078882,0.163568,0.01883563,0.3794611,0.013114672,-0.0359079,-0.081186235,-0.077096365,-0.025202574,0.10587259,0.07878929,-0.042667497,-0.09610544,0.0340086,0.21425037,0.22154315,-0.16623785,2.0,-2.0,-2.0,-2.0,2.0,2.0,2.0,-2.0,2.0,2.0,2.0,-2.0,2.0,-2.0,-2.0,2.0,2.0,2.0,-2.0,2.0,2.0,2.0,2.0,-2.0
2025-07-18 16:40:51.006,3.3600000000000025,3360,168,-0.19967858,-0.29870486,0.081242226,0.016389476,-0.0089001395,-0.009463507,0.0,0.0,0.0,0.00047651277,0.28172576,-0.148498,-0.13400039,-0.24785864,-0.36565712,0.09646908,0.25749844,0.2336517,0.18237953,0.06438916,0.4675436,-0.046179976,-0.0029730848,-0.19148266,-0.059322316,0.22050202,0.22852258,0.056883715,-0.24816523,0.23719977,0.018367156,0.12722684,0.22741464,-0.056670826,2.0,-2.0,-2.0,2.0,2.0,2.0,-2.0,2.0,2.0,2.0,2.0,-2.0,2.0,-2.0,2.0,2.0,2.0,-2.0,-2.0,-2.0,2.0,-2.0,-2.0,2.0
2025-07-18 16:40:51.022,3.3800000000000026,3380,169,0.11545451,0.014785844,-0.054811187,-0.025041843,-0.068759985,0.029143672,0.0,0.0,0.0,-0.0024970172,0.28983188,-0.2833226,-0.05851343,-0.20300336,-0.2663489,0.031265117,0.19331838,0.28168193,0.20818193,0.021681057,0.43522114,0.0036519575,0.051077846,-0.24333124,0.19697747,0.07408709,0.17013681,-0.12882899,-0.1025442,0.11835138,0.056492057,-0.18603158,-0.12955904,0.2011378,2.0,-2.0,2.0,2.0,2.0,-2.0,-2.0,-2.0,2.0,-2.0,-2.0,2.0,2.0,-2.0,2.0,2.0,2.0,-2.0,-2.0,-2.0,2.0,-2.0,-2.0,2.0
2025-07-18 16:40:51.042,3.4000000000000026,3400,170,-0.13452592,0.34784353,-0.24401678,-0.06302906,-0.011016749,-0.023453064,0.0,0.0,0.0,-0.002557188,0.3146058,-0.37751797,-0.0035224112,-0.19260827,-0.19475593,-0.046212528,0.15858504,0.29541686,0.2228273,-0.03627523,0.3958513,0.06560478,-0.0003087048,-0.2763889,0.19174142,0.04254316,0.08145018,-0.1162734,-0.021436501,0.031671524,0.07712254,-0.2040858,-0.12323648,0.19752063,2.0,-2.0,2.0,2.0,2.0,-2.0,-2.0,-2.0,2.0,-2.0,-2.0,2.0,2.0,-2.0,2.0,2.0,2.0,-2.0,-2.0,-2.0,2.0,-2.0,-2.0,2.0
2025-07-18 16:40:51.067,3.4200000000000026,3420,171,0.11641024,0.40572527,-0.23869032,-0.049461152,0.020348594,-0.03611197,0.0,0.0,0.0,0.00092549395,0.32122657,-0.44747448,0.050520092,-0.1849924,-0.17771922,-0.1106234,0.10364714,0.28823006,0.25638944,-0.082140744,0.3013861,0.10456677,-0.006626437,-0.20172043,0.120574825,0.012223956,0.03140562,-0.19739892,-0.19369501,-0.10441015,0.027314726,-0.14253183,-0.27040532,0.043164045,2.0,-2.0,2.0,2.0,2.0,-2.0,-2.0,-2.0,2.0,-2.0,-2.0,2.0,2.0,-2.0,2.0,-2.0,2.0,-2.0,2.0,-2.0,-2.0,-2.0,-2.0,2.0
2025-07-18 16:40:51.086,3.4400000000000026,3440,172,0.09632945,0.40413275,-0.06971822,0.011690533,0.08985639,-0.019256128,0.0,0.0,0.0,0.005537743,0.33353516,-0.51652116,0.08571672,-0.21188314,-0.13948227,-0.14943819,0.13633338,0.2621267,0.18398742,-0.1352583,0.22093546,0.13847534,0.082574874,-0.15687086,0.11352976,-0.08400965,0.1601613,-0.14188287,0.16663697,-0.11786498,-0.22575785,-0.062498763,-0.13740967,0.15699755,2.0,-2.0,2.0,-2.0,2.0,-2.0,2.0,-2.0,-2.0,-2.0,-2.0,2.0,2.0,2.0,2.0,-2.0,2.0,-2.0,2.0,2.0,-2.0,-2.0,-1.2325263,2.0
2025-07-18 16:40:51.110,3.4600000000000026,3460,173,0.028250862,0.005628283,-0.23836544,-0.041647024,0.068499826,-0.03949441,0.0,0.0,0.0,0.007930868,0.34136793,-0.55050844,0.11853698,-0.22819155,-0.09845522,-0.19783416,0.1595608,0.2974557,0.083948575,-0.16636012,0.13990964,0.18699458,0.030914897,0.010075334,0.1205374,-0.13140915,0.13547306,-0.1428806,0.13233943,0.22332025,-0.12672608,-0.16404694,-0.18332627,0.020347578,2.0,2.0,2.0,-2.0,2.0,-2.0,2.0,2.0,-2.0,-2.0,-1.2325263,2.0,-2.0,2.0,2.0,-2.0,2.0,-2.0,2.0,-2.0,-2.0,2.0,2.0,2.0
2025-07-18 16:40:51.127,3.4800000000000026,3480,174,0.13508241,-0.2786207,0.051984712,-0.029681468,0.064521335,-0.044414565,0.0,0.0,0.0,0.011348688,0.32644138,-0.52861685,0.15093096,-0.24769208,0.0052881055,-0.21257792,0.20357274,0.31631172,0.024252005,-0.17760189,0.15898103,0.19939536,-0.03859034,-0.012110851,0.08568514,0.025470937,0.30502498,-0.0751181,0.1483034,-0.12570548,-0.1396731,0.05120356,0.19555755,0.09122079,-2.0,2.0,2.0,-2.0,2.0,-2.0,2.0,-2.0,-2.0,2.0,2.0,2.0,-2.0,2.0,2.0,-2.0,-2.0,-2.0,2.0,-2.0,-2.0,2.0,-2.0,2.0
2025-07-18 16:40:51.159,3.5000000000000027,3500,175,0.13697422,-0.08166824,0.010767011,-0.036329787,0.040099308,-0.04280727,0.0,0.0,0.0,0.013011821,0.29510397,-0.5106139,0.15591086,-0.27782977,0.03415873,-0.23987046,0.22105475,0.2410661,-0.035292268,-0.16825517,0.19931553,0.21767849,-0.0029714957,-0.009106815,0.051718365,-0.08962078,-0.119459495,-0.060651444,0.07173965,-0.25436875,-0.10079699,-0.043043207,-0.027949434,0.033712465,-2.0,2.0,2.0,-2.0,-2.0,-2.0,2.0,-2.0,-2.0,2.0,-2.0,2.0,-2.0,2.0,-2.0,-2.0,-2.0,-2.0,2.0,-2.0,2.0,2.0,-2.0,2.0
2025-07-18 16:40:51.184,3.5200000000000027,3520,176,-0.010679573,0.16239998,0.14711101,-0.03172593,0.032653797,0.006824499,0.0,0.0,0.0,0.0121129835,0.26733568,-0.4483549,0.07518092,-0.29027694,-0.036923192,-0.23848434,0.25228855,0.06889377,0.023608394,-0.13509771,0.18476476,0.24050115,-0.034675106,0.22711217,-0.25449792,-0.004754137,-0.23764104,-0.02333477,0.03546764,-0.41145808,0.09412583,0.14884852,-0.08392787,-0.011764073,-2.0,2.0,-2.0,-2.0,-2.0,-2.0,2.0,-2.0,2.0,2.0,-2.0,2.0,1.7062653,2.0,-2.0,-2.0,-2.0,2.0,2.0,2.0,2.0,2.0,-2.0,2.0
2025-07-18 16:40:51.202,3.5400000000000027,3540,177,-0.44819957,0.06785999,0.016441228,-0.019547109,0.038785186,-0.0467852,0.0,0.0,0.0,0.0104243485,0.2842316,-0.381335,0.008108119,-0.30081445,-0.17817913,-0.15487376,0.26051393,-0.017488334,0.05559759,-0.08001403,0.17141527,0.25770122,0.0066824276,0.21588445,-0.23170187,0.035092175,-0.3238197,0.20518188,-0.010693132,-0.015862204,0.060081206,0.15530153,0.009176192,0.0026690983,1.7062653,2.0,-2.0,-2.0,-2.0,2.0,2.0,2.0,2.0,2.0,-2.0,2.0,-2.0,2.0,-2.0,-2.0,-2.0,2.0,2.0,2.0,2.0,2.0,2.0,-2.0
2025-07-18 16:40:51.222,3.5600000000000027,3560,178,0.21635193,-0.34055433,0.054422148,0.019129375,0.017915182,-0.0010978197,0.0,0.0,0.0,0.009553596,0.26431888,-0.29049024,-0.05254665,-0.30651373,-0.28538853,-0.08429413,0.2680094,0.033058543,0.10273859,-0.024557548,0.23699775,0.16711007,-0.13845924,0.18418634,-0.14776842,0.036655974,-0.25640655,0.23348784,0.024080181,0.269018,0.10563471,0.20345935,0.26892114,-0.17389064,-2.0,2.0,-2.0,-2.0,-2.0,2.0,2.0,2.0,2.0,2.0,2.0,-2.0,2.0,2.0,-2.0,-2.0,-2.0,2.0,2.0,-2.0,2.0,2.0,2.0,-2.0
2025-07-18 16:40:51.244,3.5800000000000027,3580,179,0.27190092,-0.14779486,0.055490587,-0.012030938,0.0525937,0.011872987,0.0,0.0,0.0,0.009273125,0.27611768,-0.18613097,-0.10655388,-0.3206803,-0.40044948,-0.0014204722,0.29019913,0.056996346,0.13641573,0.048889175,0.34747878,0.09744733,0.013611313,0.28640547,-0.16654295,-0.05470721,-0.21293114,0.14471526,-0.042757977,-0.02284383,0.14525767,0.10620076,0.23768006,-0.21242136,2.0,2.0,-2.0,-2.0,-2.0,2.0,2.0,-2.0,2.0,2.0,2.0,-2.0,2.0,-2.0,-2.0,-2.0,2.0,2.0,2.0,2.0,2.0,2.0,2.0,-2.0
2025-07-18 16:40:51.263,3.6000000000000028,3600,180,0.43628046,-0.21148717,0.1128744,0.02733202,-0.04140031,0.031304073,0.0,0.0,0.0,0.00904404,0.2814503,-0.13946812,-0.13819182,-0.31675947,-0.40842533,0.036081515,0.29776374,0.10885358,0.17017603,0.08719349,0.4437987,0.031315878,0.01765979,-0.06036788,-0.015006184,-0.046285983,0.017290631,0.07975858,0.046786018,0.23816408,0.07913074,0.16915123,0.1883508,-0.116470456,2.0,-2.0,-2.0,-2.0,2.0,2.0,2.0,2.0,2.0,2.0,2.0,-2.0,2.0,-2.0,-2.0,2.0,2.0,2.0,-2.0,-2.0,2.0,2.0,2.0,-2.0
2025-07-18 16:40:51.282,3.6200000000000028,3620,181,0.065392435,-0.05981448,0.185262,0.06761264,0.029073866,-0.041533105,0.0,0.0,0.0,0.0072601335,0.293282,-0.19842122,-0.17237666,-0.31081188,-0.35582137,0.08372384,0.2734874,0.13139679,0.19867347,0.14398691,0.5023075,-0.035248592,0.060996134,-0.19919328,0.003309929,-0.05970168,0.13492738,0.06829482,-0.07578346,-0.028643636,-0.003624249,0.11579591,0.14459912,-0.074886575,2.0,-2.0,-2.0,2.0,2.0,2.0,-2.0,-2.0,2.0,2.0,2.0,-2.0,2.0,-2.0,2.0,2.0,2.0,-1.997195,-2.0,-2.0,2.0,-2.0,-2.0,0.54470867
2025-07-18 16:40:51.302,3.640000000000003,3640,182,0.2834122,0.29891816,-0.14061537,0.0454745,-0.02714758,0.02735002,0.0,0.0,0.0,0.0040758816,0.29862595,-0.31389663,-0.09830708,-0.3121672,-0.29573336,0.014812515,0.24913242,0.11637537,0.22613241,0.10128671,0.5235736,-0.0062145,0.002020863,-0.3241799,0.22174497,-0.0985281,0.07936701,-0.18643151,-0.092885114,-0.068168595,0.011483439,-0.12209638,-0.061122037,0.026924998,2.0,-2.0,2.0,2.0,2.0,-1.997195,-2.0,-2.0,2.0,-2.0,-2.0,0.54470867,2.0,-2.0,2.0,2.0,2.0,-2.0,-2.0,-2.0,2.0,-2.0,-2.0,2.0
2025-07-18 16:40:51.323,3.660000000000003,3660,183,0.047964662,0.40129372,-0.19065797,0.05054953,-0.023881009,0.03424563,0.0,0.0,0.0,0.003018335,0.30515942,-0.40574044,-0.020073205,-0.32131046,-0.2641035,-0.049584944,0.22822624,0.090623364,0.24451345,0.030407831,0.4455644,0.04145249,0.06357044,-0.18134381,0.1482785,-0.06768811,0.0028997776,-0.21859801,-0.096449435,-0.12888765,0.03941028,-0.18653761,-0.24547237,0.15960081,2.0,-2.0,2.0,2.0,2.0,-2.0,-2.0,-2.0,2.0,-2.0,-2.0,2.0,2.0,-2.0,2.0,2.0,2.0,-2.0,-2.0,-2.0,2.0,-2.0,-2.0,2.0
