openverse-orca/OrcaGym/log/simulation_log_20250604_142246.csv
timestamp,imu_angle_roll,imu_angle_pitch,imu_angle_yaw,imu_angular_velocity_roll,imu_angular_velocity_pitch,imu_angular_velocity_yaw,imu_acc_x,imu_acc_y,imu_acc_z,fl_joint1_pos,fl_joint1_vel,fl_joint1_torque,fl_joint2_pos,fl_joint2_vel,fl_joint2_torque,fl_joint3_pos,fl_joint3_vel,fl_joint3_torque,fr_joint1_pos,fr_joint1_vel,fr_joint1_torque,fr_joint2_pos,fr_joint2_vel,fr_joint2_torque,fr_joint3_pos,fr_joint3_vel,fr_joint3_torque,hl_joint1_pos,hl_joint1_vel,hl_joint1_torque,hl_joint2_pos,hl_joint2_vel,hl_joint2_torque,hl_joint3_pos,hl_joint3_vel,hl_joint3_torque,hr_joint1_pos,hr_joint1_vel,hr_joint1_torque,hr_joint2_pos,hr_joint2_vel,hr_joint2_torque,hr_joint3_pos,hr_joint3_vel,hr_joint3_torque,fl_force_x,fl_force_y,fl_force_z,fr_force_x,fr_force_y,fr_force_z,hl_force_x,hl_force_y,hl_force_z,hr_force_x,hr_force_y,hr_force_z,fl_hip_action,fl_thigh_action,fl_calf_action,fr_hip_action,fr_thigh_action,fr_calf_action,hl_hip_action,hl_thigh_action,hl_calf_action,hr_hip_action,hr_thigh_action,hr_calf_action
2025-06-04 14:22:46.833,0.049091987,-0.01601265,-0.0018988277,0.029001022,0.0068318644,0.013384917,2.3359332,0.93072957,0.0,0.0,-0.0047140624,0.0061252844,-0.009504147,0.009393292,-0.00863635,-0.0034587486,0.009235036,-0.0069089965,-0.008355771,-0.004914662,0.006620022,0.0047355946,-0.051282812,-0.04899857,-0.010127166,0.028545568,0.06838202,0.0001679773,0.07012956,-0.024549806,0.07297057,0.021882512,-0.011351231,-0.052431118,0.0,0.0,0.0,0.0,0.0,0.0,0.0,0.0,0.0,0.0,0.0,0.0,1.0,-1.0,-1.0,1.0,1.0,-1.0,-1.0,-1.0,-1.0,1.0,-1.0,-1.0
2025-06-04 14:22:46.837,0.03661645,0.15609898,-0.008547175,0.003715223,-0.007189164,0.036260374,0.0,0.0,0.0,0.0,0.020217642,-0.058584567,-0.033438113,0.009981436,0.066676535,-0.0467833,-0.0076784086,-0.05711408,-0.042113706,0.010278693,-0.058441773,-0.044018235,0.042885724,-0.2257669,-0.050267298,0.068339825,0.21698631,-0.06808945,-0.08557727,-0.21577954,-0.12577438,0.04245796,-0.24976872,-0.045278784,1.0,-1.0,-1.0,1.0,1.0,-1.0,-1.0,-1.0,-1.0,1.0,-1.0,-1.0,1.0,-1.0,-1.0,1.0,1.0,-1.0,-1.0,-1.0,-1.0,1.0,-1.0,-1.0
2025-06-04 14:22:46.858,0.004829394,0.15068217,-0.00044959,-0.008041785,0.07524948,-0.006229145,0.0,0.0,0.0,0.0005847905,0.024956759,-0.13905813,-0.07847403,0.029923849,0.14188763,-0.077523045,-0.02072577,-0.1398763,-0.07537669,0.032820653,-0.13372634,-0.07327033,-0.004113277,-0.20378594,-0.025699414,0.057715148,0.17462116,-0.14279793,-0.08053066,-0.17760952,-0.10928341,0.085831866,-0.22849907,-0.13075177,1.0,-1.0,-1.0,1.0,1.0,-1.0,-1.0,-1.0,-1.0,1.0,-1.0,-1.0,1.0,-1.0,-1.0,1.0,1.0,-1.0,-1.0,-1.0,-1.0,1.0,-1.0,-1.0
2025-06-04 14:22:46.878,-0.021665813,0.12723917,-0.05813343,-0.008385695,0.05915023,0.046575703,0.0,0.0,0.0,0.0012469467,0.04752266,-0.17734858,-0.078333646,0.031967714,0.17381935,-0.101173475,-0.04196013,-0.19166219,-0.06437068,0.036344133,-0.18596368,-0.08297901,-0.033702254,-0.0359742,-0.05436877,-0.027678777,0.028609598,0.030248893,0.009002716,-0.04197535,0.09342914,-0.04720595,-0.13307337,0.013882456,1.0,-1.0,-1.0,1.0,1.0,-1.0,-1.0,-1.0,-1.0,1.0,-1.0,-1.0,1.0,1.0,-1.0,1.0,1.0,-1.0,-1.0,-1.0,-1.0,1.0,-1.0,-1.0
2025-06-04 14:22:46.902,-0.15949774,0.0050751725,0.08610539,0.0047516134,0.018026613,-0.028551374,0.0,0.0,0.0,0.0019106397,0.04653793,-0.18122625,-0.09721007,0.052688394,0.17662989,-0.10771648,-0.041937537,-0.22228484,-0.05282087,0.044409662,-0.21470304,-0.07286983,0.07458142,-0.030960178,-0.016087128,-0.02379535,0.009168624,-0.029149547,0.024875829,-0.026629448,-0.046901233,-0.0188843,-0.022973351,0.0149431,1.0,1.0,-1.0,1.0,1.0,-1.0,-1.0,-1.0,-1.0,1.0,-1.0,-1.0,1.0,-1.0,-1.0,1.0,1.0,-1.0,-1.0,-1.0,-1.0,1.0,-1.0,-1.0
2025-06-04 14:22:46.919,0.0272459,0.20303023,-0.048298024,-0.046414696,0.023222495,-0.046122406,0.0,0.0,0.0,0.0015910713,0.06415919,-0.21405569,-0.110262185,0.0636565,0.19835131,-0.11066481,-0.03932181,-0.24389848,-0.06720238,0.05205376,-0.23492123,-0.06602467,0.07645499,-0.12912054,-0.09088009,-0.027359072,0.118658476,-0.009396807,-0.04700233,-0.04098194,-0.14234881,0.09182857,0.005083025,-0.058388304,1.0,-1.0,-1.0,1.0,1.0,-1.0,-1.0,-1.0,-1.0,1.0,-1.0,-1.0,1.0,-1.0,-1.0,1.0,1.0,-1.0,-1.0,-1.0,-1.0,1.0,-1.0,-1.0
2025-06-04 14:22:46.939,0.1083372,0.11398478,-0.094873436,-0.037476894,0.025307402,-0.0014555941,0.0,0.0,0.0,0.0017440851,0.07389924,-0.265526,-0.1354785,0.057168532,0.22907798,-0.14395604,-0.06364946,-0.29284084,-0.09193606,0.06903258,-0.26977488,-0.0774087,0.068391375,-0.15216953,-0.11180793,-0.017526524,0.12262917,-0.10803805,0.035214465,-0.035327263,-0.07881866,-0.03355326,-0.13546744,-0.10788158,1.0,-1.0,-1.0,1.0,1.0,-1.0,-1.0,-1.0,-1.0,1.0,-1.0,-1.0,1.0,1.0,-1.0,1.0,1.0,-1.0,-1.0,-1.0,-1.0,1.0,-1.0,-1.0
2025-06-04 14:22:46.959,-0.09834105,0.019251555,0.061975077,-0.026158886,0.11666143,-0.030577598,0.0,0.0,0.0,0.0027297959,0.06602367,-0.19403644,-0.16420616,0.064895645,0.26270193,-0.15763712,-0.067730725,-0.29801038,-0.09815978,0.07906587,-0.3051644,-0.11505526,0.02492806,0.091578655,-0.054460857,0.003940342,0.1439175,-0.05472445,-0.066075735,-0.005828979,0.0050360183,0.021811562,-0.13503088,-0.11693453,1.0,1.0,-1.0,1.0,1.0,-1.0,-1.0,-1.0,-1.0,1.0,-1.0,-1.0,1.0,-1.0,-1.0,1.0,1.0,-1.0,-1.0,-1.0,-1.0,1.0,-1.0,-1.0
2025-06-04 14:22:46.980,-0.114259996,0.039551724,-0.058601618,-0.049399752,0.06429122,0.0075044306,0.0,0.0,0.0,0.0029326666,0.07215893,-0.21025036,-0.1664312,0.086566046,0.30595165,-0.18384264,-0.061580174,-0.33922333,-0.098271,0.079112954,-0.33525082,-0.1078728,-0.011501872,-0.104856364,0.046142258,0.07491645,0.11096059,-0.09208486,-0.08308918,-0.08817895,-0.030274263,-0.03474412,-0.10290995,-0.056078836,1.0,-1.0,-1.0,1.0,1.0,-1.0,-1.0,-1.0,-1.0,1.0,-1.0,-1.0,1.0,-1.0,-1.0,1.0,1.0,-1.0,-1.0,-1.0,-1.0,1.0,-1.0,-1.0
2025-06-04 14:22:47.002,0.032380495,0.044472847,-0.01763452,-0.01072681,0.040394917,-0.029230071,0.0,0.0,0.0,0.0030362853,0.06941697,-0.24286373,-0.14210868,0.07500802,0.32064822,-0.18778077,-0.068793885,-0.35750908,-0.11629793,0.08700034,-0.34461892,-0.1234136,0.071781814,-0.041982453,0.056571208,-0.040603034,0.045749545,-0.06959121,0.056208465,-0.09327234,0.06121963,0.030718723,-0.08809704,-0.012902592,1.0,-1.0,-1.0,1.0,1.0,-1.0,-1.0,-1.0,-1.0,1.0,-1.0,-1.0,1.0,-1.0,-1.0,1.0,1.0,-1.0,-1.0,-1.0,-1.0,1.0,-1.0,-1.0
2025-06-04 14:22:47.019,0.06415877,0.07518917,-0.11456447,0.013460517,0.041849412,-0.033403087,0.0,0.0,0.0,0.0039593684,0.07600583,-0.2588133,-0.14462368,0.079299346,0.3212983,-0.18883188,-0.06234515,-0.36812803,-0.110894255,0.0914241,-0.36653653,-0.11677334,-0.008062225,0.0074044783,0.054349855,0.055717405,-0.05249213,0.06711418,0.06265703,-0.09595716,-0.010152689,-0.019890483,-0.1055944,0.04082443,1.0,-1.0,-1.0,1.0,1.0,-1.0,-1.0,-1.0,-1.0,1.0,-1.0,-1.0,-1.0,1.0,-1.0,1.0,-1.0,-1.0,-1.0,-1.0,-1.0,1.0,-1.0,-1.0
2025-06-04 14:22:47.040,-0.04175409,0.059410762,0.04270503,0.034081448,0.123634204,0.017899552,0.0,0.0,0.0,0.005414586,0.07537143,-0.26358894,-0.16082731,0.08179897,0.2534249,-0.17855847,-0.065098956,-0.3817864,-0.115327165,0.093361184,-0.37353086,-0.12739722,-0.01882957,0.046653222,-0.063842066,0.054349374,-0.18964855,0.0032399436,-0.042303693,-0.02449137,0.021254763,0.026269754,-0.07333891,0.04536428,-1.0,1.0,-1.0,1.0,-1.0,-1.0,-1.0,-1.0,-1.0,1.0,-1.0,-1.0,1.0,-1.0,-1.0,1.0,1.0,-1.0,-1.0,-1.0,-1.0,1.0,-1.0,-1.0
2025-06-04 14:22:47.060,0.055378787,0.055241786,-0.10235047,-0.031163724,0.051585007,0.0339345,0.0,0.0,0.0,0.0052351863,0.0765801,-0.28939113,-0.1849061,0.100982495,0.24210942,-0.18669276,-0.08834067,-0.38672698,-0.1433181,0.090543665,-0.3940681,-0.14309813,0.079111226,-0.09170772,0.0022531769,0.085399576,0.08204187,-0.070340626,0.00578351,-0.08363451,-0.032219645,0.055571374,-0.009183766,-0.036194783,1.0,-1.0,-1.0,1.0,1.0,-1.0,-1.0,-1.0,-1.0,1.0,-1.0,-1.0,1.0,1.0,-1.0,1.0,1.0,-1.0,-1.0,-1.0,-1.0,1.0,-1.0,-1.0
2025-06-04 14:22:47.079,-0.1860952,-0.036854886,-0.015503379,-0.05518429,0.04869628,-0.03958941,0.0,0.0,0.0,0.005955456,0.07453585,-0.24297011,-0.20696388,0.10525093,0.2811684,-0.2018962,-0.08116142,-0.39668587,-0.15463021,0.08722176,-0.4145018,-0.15404293,-0.0016715364,0.085648075,-0.11566351,0.06681001,0.10645868,0.05169654,-0.019573353,0.0038870145,0.016572114,0.0044257683,-0.0066417987,-0.10541152,1.0,1.0,-1.0,1.0,1.0,-1.0,-1.0,-1.0,-1.0,1.0,-1.0,-1.0,-1.0,-1.0,-1.0,1.0,1.0,-1.0,-1.0,-1.0,-1.0,1.0,-1.0,-1.0
2025-06-04 14:22:47.102,0.07743075,-0.004917869,-0.03967699,-0.030504197,0.081425,0.0058905915,0.0,0.0,0.0,0.0061053582,0.06059972,-0.26859504,-0.20718469,0.10381616,0.2966826,-0.20863555,-0.07876088,-0.4250103,-0.18126659,0.09500565,-0.41931772,-0.1534877,-0.028519874,-0.02241172,0.08337371,0.011958146,0.07493831,-0.00087180594,-0.0100714,-0.036508467,-0.060641967,-0.033960674,-0.04384154,-0.0232523,-1.0,-1.0,-1.0,1.0,1.0,-1.0,-1.0,-1.0,-1.0,1.0,-1.0,-1.0,1.0,-1.0,-1.0,1.0,1.0,-1.0,-1.0,-1.0,-1.0,1.0,-1.0,-1.0
2025-06-04 14:22:47.119,0.039558813,0.030647693,-0.12293671,0.0014354581,0.11934579,0.047578547,0.0,0.0,0.0,0.006942107,0.04115912,-0.2983127,-0.18251662,0.0956679,0.3021969,-0.19726017,-0.07717818,-0.42773485,-0.17735124,0.10500807,-0.4267487,-0.16070344,-0.07486892,-0.08816398,0.04889342,0.02606691,-0.011007287,0.059205938,-0.03533672,-0.014215264,-0.08693877,-0.035842434,-0.02641873,0.04210023,1.0,-1.0,-1.0,1.0,1.0,-1.0,-1.0,-1.0,-1.0,1.0,-1.0,-1.0,-1.0,1.0,-1.0,1.0,-1.0,-1.0,-1.0,-1.0,-1.0,1.0,-1.0,-1.0
2025-06-04 14:22:47.139,-0.005478057,0.06657934,0.07519725,-0.00536491,0.14083008,0.03946185,0.0,0.0,0.0,0.008602669,0.04300369,-0.27950072,-0.22003935,0.09561236,0.24050342,-0.1691124,-0.08919975,-0.4390657,-0.18613648,0.0894047,-0.43172738,-0.16093728,-0.0048945756,-0.027922196,-0.01891109,0.07854726,-0.17976418,0.13280469,-0.029046131,0.06287573,-0.07376922,0.03878177,-0.0905442,-0.02224307,-1.0,1.0,-1.0,1.0,-1.0,-1.0,-1.0,-1.0,-1.0,1.0,-1.0,-1.0,1.0,-1.0,-1.0,1.0,1.0,-1.0,-1.0,-1.0,-1.0,1.0,-1.0,-1.0
2025-06-04 14:22:47.159,-0.033011816,-0.042899944,-0.029233942,0.013396045,0.108628854,0.042748827,0.0,0.0,0.0,0.0085339,0.04853151,-0.30238575,-0.20875645,0.0996241,0.25391576,-0.19011614,-0.09108026,-0.44033122,-0.19729741,0.08941852,-0.45295203,-0.16564924,0.0634052,0.010009929,0.038502526,-0.010565302,0.08082921,-0.11164808,0.023854734,-0.008754689,-0.0047178227,-0.0018760036,0.0060714036,-0.047047615,1.0,-1.0,-1.0,1.0,1.0,-1.0,-1.0,-1.0,-1.0,1.0,-1.0,-1.0,1.0,-1.0,-1.0,1.0,1.0,-1.0,-1.0,-1.0,-1.0,1.0,-1.0,-1.0
2025-06-04 14:22:47.179,0.032307614,-0.09541749,-0.0893121,0.0052574053,0.099374995,-0.0154979145,0.0,0.0,0.0,0.009009447,0.04613065,-0.3291337,-0.22314282,0.11802296,0.27659303,-0.19433379,-0.08491355,-0.45760772,-0.19451277,0.09766821,-0.44733313,-0.16792777,0.06856477,-0.1322922,-0.012877915,-0.069248855,0.105169706,0.066646315,0.06563901,0.03965733,0.043982606,0.045764085,0.02440089,0.058799583,1.0,-1.0,-1.0,1.0,1.0,-1.0,-1.0,-1.0,-1.0,1.0,-1.0,-1.0,1.0,-1.0,-1.0,1.0,1.0,-1.0,-1.0,-1.0,-1.0,1.0,-1.0,-1.0
2025-06-04 14:22:47.202,0.029945819,-0.053292975,-0.09987981,0.0067125326,0.09853007,-0.027172701,0.0,0.0,0.0,0.010417502,0.055589557,-0.36191508,-0.20524052,0.106375396,0.28822404,-0.1849444,-0.10336449,-0.45491663,-0.20537142,0.09257467,-0.4535243,-0.16739571,-0.043945473,0.004131413,-0.048958905,0.053497154,-0.025615374,0.050091833,-0.0074749603,0.009170157,0.05351847,0.044673707,-0.013028259,0.06821346,1.0,-1.0,-1.0,1.0,1.0,-1.0,-1.0,-1.0,-1.0,1.0,-1.0,-1.0,-1.0,1.0,-1.0,1.0,-1.0,-1.0,-1.0,-1.0,-1.0,1.0,-1.0,-1.0
2025-06-04 14:22:47.220,-0.10133317,-0.05788479,0.0014238372,0.042709496,0.06536412,-0.009197216,0.0,0.0,0.0,0.012006523,0.05928189,-0.34919104,-0.22695541,0.11244414,0.20501949,-0.16103245,-0.09566089,-0.4706555,-0.20407715,0.08440023,-0.46251836,-0.16249153,0.066606194,0.018057503,-0.07217993,-0.01920591,-0.3239906,-0.019216966,0.019571768,-0.07187095,-0.07609692,0.031206744,-0.061667852,-0.044300955,-1.0,1.0,-1.0,1.0,-1.0,-1.0,-1.0,-1.0,-1.0,1.0,-1.0,-1.0,-1.0,-1.0,-1.0,1.0,1.0,-1.0,-1.0,-1.0,-1.0,1.0,-1.0,-1.0
2025-06-04 14:22:47.239,0.23226936,-0.046030037,-0.06472783,0.037106756,0.085188344,0.002311235,0.0,0.0,0.0,0.011597803,0.032141246,-0.3584224,-0.23574579,0.114454284,0.2006599,-0.17164159,-0.112325735,-0.47010067,-0.20374638,0.079558775,-0.4578295,-0.18338603,-0.102647215,-0.08441795,0.019587073,-0.015025022,0.07133558,-0.08681643,0.0048355516,0.057898983,-0.005387379,-0.059908286,-0.076535895,0.012033031,-1.0,-1.0,-1.0,1.0,1.0,-1.0,-1.0,-1.0,-1.0,1.0,-1.0,-1.0,1.0,1.0,-1.0,1.0,1.0,-1.0,-1.0,-1.0,-1.0,1.0,-1.0,-1.0
2025-06-04 14:22:47.259,-0.21728295,-0.07628906,-0.013381578,-0.005409565,0.083796814,0.040462207,0.0,0.0,0.0,0.012464316,0.028323455,-0.31872877,-0.2482635,0.119240135,0.22123115,-0.19332314,-0.09853718,-0.45716035,-0.21671166,0.10093057,-0.45929843,-0.19230507,0.046351142,0.066958606,0.0004335252,-0.027915357,0.1042374,-0.07951427,-0.039428,-0.052196912,-0.031228065,-0.06038495,-0.05504117,-0.033377502,1.0,1.0,-1.0,1.0,1.0,-1.0,-1.0,-1.0,-1.0,1.0,-1.0,-1.0,-1.0,-1.0,-1.0,1.0,1.0,-1.0,-1.0,-1.0,-1.0,1.0,-1.0,-1.0
2025-06-04 14:22:47.280,-0.010957033,0.08707223,-0.08922575,-0.01848559,0.04375652,-0.037829638,0.0,0.0,0.0,0.013050345,0.013098386,-0.326602,-0.24226864,0.12874761,0.25234744,-0.18914999,-0.10608753,-0.47015965,-0.22763735,0.084335044,-0.4553084,-0.2024116,-0.024132608,-0.025056273,0.04895585,0.01549689,0.012731439,-0.02683754,-0.00031185042,0.04616462,-0.072801456,0.07007776,-0.029933855,0.022453902,-1.0,-1.0,-1.0,1.0,1.0,-1.0,-1.0,-1.0,-1.0,1.0,-1.0,-1.0,1.0,1.0,-1.0,1.0,1.0,-1.0,-1.0,-1.0,-1.0,1.0,-1.0,-1.0
2025-06-04 14:22:47.301,-0.21356416,0.027160753,-0.026060048,-0.050272077,0.090165436,-0.004838655,0.0,0.0,0.0,0.01420337,0.016892944,-0.30819216,-0.23785457,0.11862089,0.27567264,-0.17795153,-0.09882009,-0.47058365,-0.23657337,0.10002079,-0.4558021,-0.20121615,-0.0076269307,0.014105498,-0.02013297,0.07611819,0.04995479,0.043130983,-0.046652373,0.02701529,0.049373437,0.051227693,0.04407322,0.07727644,1.0,1.0,-1.0,1.0,1.0,-1.0,-1.0,-1.0,-1.0,1.0,-1.0,-1.0,1.0,-1.0,-1.0,1.0,1.0,-1.0,-1.0,-1.0,-1.0,1.0,-1.0,-1.0
2025-06-04 14:22:47.320,0.0033080212,0.094491586,-0.023959462,-0.047097072,0.11817226,-0.010162695,0.0,0.0,0.0,0.014657463,0.01782834,-0.3210272,-0.23321721,0.13192184,0.30072933,-0.17657164,-0.09184467,-0.46781206,-0.23719005,0.10139629,-0.4758712,-0.19575028,0.074253604,-0.04854747,0.02236972,-0.07278925,0.048223585,-0.041404385,-0.06803076,-0.044694487,0.030396342,0.0652037,0.0375038,0.011445247,1.0,-1.0,-1.0,1.0,1.0,-1.0,-1.0,-1.0,-1.0,1.0,-1.0,-1.0,1.0,-1.0,-1.0,1.0,1.0,-1.0,-1.0,-1.0,-1.0,1.0,-1.0,-1.0
2025-06-04 14:22:47.341,0.12696026,-0.0067308904,-0.08037208,0.029257283,0.13914508,0.043805175,0.0,0.0,0.0,0.015307912,0.03618755,-0.3486225,-0.24098065,0.12685257,0.3132829,-0.18142706,-0.10207654,-0.47400263,-0.24277706,0.09750282,-0.47481304,-0.17766584,0.03227251,-0.056289535,0.0066977763,-0.016325055,0.05012786,-0.025467433,-0.05645868,-0.043530237,-0.034315474,-0.025971062,-0.01688885,0.07145233,1.0,-1.0,-1.0,1.0,1.0,-1.0,-1.0,-1.0,-1.0,1.0,-1.0,-1.0,1.0,1.0,-1.0,1.0,1.0,-1.0,-1.0,-1.0,-1.0,1.0,-1.0,-1.0
2025-06-04 14:22:47.361,-0.13272443,-0.08802715,-0.00070795417,-0.023107313,0.08047119,-0.049691625,0.0,0.0,0.0,0.016728668,0.04704008,-0.32474917,-0.25581962,0.12324947,0.33286193,-0.18705809,-0.096503794,-0.46981224,-0.24962416,0.11364839,-0.4708871,-0.18680198,-0.026216706,0.13594684,-0.028661855,-0.022734724,0.09641101,-0.0075926716,0.06264713,0.011006798,-0.06360698,0.06806855,0.08452222,0.036099732,1.0,1.0,-1.0,1.0,1.0,-1.0,-1.0,-1.0,-1.0,1.0,-1.0,-1.0,1.0,-1.0,-1.0,1.0,1.0,-1.0,-1.0,-1.0,-1.0,1.0,-1.0,-1.0
2025-06-04 14:22:47.381,0.042628374,0.042037293,-0.05492654,-0.055098634,0.059166674,-0.01826612,0.0,0.0,0.0,0.017039055,0.053657148,-0.34202012,-0.25013843,0.12363459,0.36510104,-0.19475041,-0.097788185,-0.46707267,-0.25326723,0.1043138,-0.45754066,-0.1735913,0.07812291,-0.07017226,0.09260582,-0.05660804,0.1066776,0.030913062,-0.042319782,0.0055784485,0.020015545,-0.040694226,0.023101807,0.033885084,1.0,-1.0,-1.0,1.0,1.0,-1.0,-1.0,-1.0,-1.0,1.0,-1.0,-1.0,1.0,-1.0,-1.0,1.0,1.0,-1.0,-1.0,-1.0,-1.0,1.0,-1.0,-1.0
2025-06-04 14:22:47.403,0.026201982,0.0148446765,-0.0030076562,-0.058525372,0.054741852,-0.028107481,0.0,0.0,0.0,0.017097916,0.062577456,-0.35462657,-0.21999048,0.119273566,0.3813194,-0.20215134,-0.09481743,-0.47192106,-0.25648528,0.109080516,-0.46706137,-0.17065962,0.006669597,-0.095863685,-0.02759373,0.019709697,-0.02276808,-0.011837843,0.05169522,-0.048531566,-0.024428025,-0.011662799,0.0518212,-0.00395646,1.0,-1.0,-1.0,1.0,1.0,-1.0,-1.0,-1.0,-1.0,1.0,-1.0,-1.0,1.0,-1.0,-1.0,1.0,1.0,-1.0,-1.0,-1.0,-1.0,1.0,-1.0,-1.0
2025-06-04 14:22:47.421,0.025636131,0.0074595255,-0.02549694,0.019821659,0.10069219,-0.04366144,0.0,0.0,0.0,0.017634712,0.055890348,-0.37740707,-0.21187836,0.10039199,0.38941443,-0.20196913,-0.1060292,-0.48103744,-0.24790016,0.11456422,-0.45441896,-0.15177049,-0.019478187,0.025706196,0.028518362,-0.07645729,0.018592281,-0.065715484,-0.025941918,0.051394027,0.050555523,0.075882085,-0.02173569,0.007866578,1.0,-1.0,-1.0,1.0,1.0,-1.0,-1.0,-1.0,-1.0,1.0,-1.0,-1.0,1.0,-1.0,-1.0,1.0,1.0,-1.0,-1.0,-1.0,-1.0,1.0,-1.0,-1.0
2025-06-04 14:22:47.440,0.028810358,-0.04351294,-0.03836966,0.01601861,0.078910574,-0.017594766,0.0,0.0,0.0,0.018409722,0.05127292,-0.37522307,-0.21003316,0.116663285,0.39069694,-0.19471848,-0.08588804,-0.47935387,-0.24071623,0.118070126,-0.4664808,-0.13554738,0.044132747,-0.013381535,0.036206275,-0.07235024,-0.030921824,0.023028273,0.04662571,-0.06842046,-0.0424721,-0.023581216,0.05561974,-0.03934787,1.0,-1.0,-1.0,1.0,1.0,-1.0,-1.0,-1.0,-1.0,1.0,-1.0,-1.0,1.0,-1.0,-1.0,1.0,1.0,-1.0,-1.0,-1.0,-1.0,1.0,-1.0,-1.0
2025-06-04 14:22:47.460,0.04738732,-0.017632434,-0.048773486,0.0015213832,0.039279435,-0.04256587,0.0,0.0,0.0,0.018924216,0.059956938,-0.38650674,-0.19210376,0.11130204,0.3930282,-0.17980354,-0.097508445,-0.4771234,-0.22609012,0.112249635,-0.46746036,-0.15382774,-0.035323985,-0.016393159,0.0073805307,-0.05697941,-0.059214372,0.0784478,-0.009062718,-0.07793456,0.08719267,-0.008493331,0.047847357,0.06816588,1.0,-1.0,-1.0,1.0,1.0,-1.0,-1.0,-1.0,-1.0,1.0,-1.0,-1.0,1.0,-1.0,-1.0,1.0,1.0,-1.0,-1.0,-1.0,-1.0,1.0,-1.0,-1.0
2025-06-04 14:22:47.481,0.098692454,0.01936985,0.030489098,-0.002385015,0.046717204,-0.033418726,0.0,0.0,0.0,0.01911637,0.056012362,-0.3935781,-0.18427294,0.11478039,0.4032994,-0.17549127,-0.10192109,-0.48840165,-0.21530966,0.11925572,-0.4554297,-0.13836934,0.024454307,0.033398665,0.034493104,0.066159934,0.03746942,-0.0040530306,0.011453688,0.025845688,0.0866549,-0.07286877,-0.03546674,0.002304174,1.0,-1.0,-1.0,1.0,1.0,-1.0,-1.0,-1.0,-1.0,1.0,-1.0,-1.0,1.0,-1.0,-1.0,1.0,1.0,-1.0,-1.0,-1.0,-1.0,1.0,-1.0,-1.0
2025-06-04 14:22:47.501,0.08079422,-0.03423602,-0.02731834,-0.00093078165,0.039200116,-0.046406697,0.0,0.0,0.0,0.01904498,0.06782461,-0.40953162,-0.16829287,0.11041039,0.405165,-0.18359508,-0.09704782,-0.49778196,-0.21528529,0.11821426,-0.4678516,-0.16272065,0.022002986,-0.058777615,-0.00040484156,0.061976466,0.026149638,-0.011304311,-0.016409518,-0.082966484,-0.027583439,0.071078636,0.013857634,-0.01217191,1.0,-1.0,-1.0,1.0,1.0,-1.0,-1.0,-1.0,-1.0,1.0,-1.0,-1.0,1.0,-1.0,-1.0,1.0,1.0,-1.0,-1.0,-1.0,-1.0,1.0,-1.0,-1.0
2025-06-04 14:22:47.521,0.05077137,-0.043317463,0.056291614,0.048302833,0.06843045,-0.020556824,0.0,0.0,0.0,0.018797282,0.058150444,-0.413338,-0.1642151,0.1080169,0.40086105,-0.17437871,-0.092730165,-0.50826603,-0.20164081,0.11116018,-0.46413696,-0.16581354,0.005746965,-0.059807304,-0.030383108,0.042372376,0.03967892,0.035558466,0.07251868,0.030881882,0.06272896,0.02239634,-0.05463124,-0.07657909,1.0,-1.0,-1.0,1.0,1.0,-1.0,-1.0,-1.0,-1.0,1.0,-1.0,-1.0,1.0,-1.0,-1.0,1.0,1.0,-1.0,-1.0,-1.0,-1.0,1.0,-1.0,-1.0
2025-06-04 14:22:47.543,0.06620103,-0.008733072,-0.026731268,-0.03762209,0.07412413,0.009389915,0.0,0.0,0.0,0.018452208,0.055445142,-0.43645564,-0.17489722,0.11551631,0.4024903,-0.17715175,-0.08938413,-0.5137764,-0.19454868,0.115076765,-0.46524823,-0.1785971,0.028576229,0.011830194,-0.054103684,0.0387816,0.059261646,-0.039408058,-0.047507223,-0.062707074,-0.05807316,-0.04632471,-0.01887322,-0.0893239,1.0,-1.0,-1.0,1.0,1.0,-1.0,-1.0,-1.0,-1.0,1.0,-1.0,-1.0,1.0,-1.0,-1.0,1.0,1.0,-1.0,-1.0,-1.0,-1.0,1.0,-1.0,-1.0
2025-06-04 14:22:47.564,0.065996505,-0.012485073,0.060059153,0.01039215,0.09556624,0.046487,0.0,0.0,0.0,0.018080099,0.06799019,-0.43412513,-0.16811982,0.11983454,0.40218458,-0.18017788,-0.102060676,-0.5090558,-0.20603946,0.11840114,-0.4641405,-0.17012414,0.06337763,-0.037190534,0.06824229,0.043727636,-0.058165643,-0.012854165,0.069846086,-0.050265573,-0.047426462,0.021172678,0.035048205,-0.08208769,1.0,-1.0,-1.0,1.0,1.0,-1.0,-1.0,-1.0,-1.0,1.0,-1.0,-1.0,1.0,-1.0,-1.0,1.0,1.0,-1.0,-1.0,-1.0,-1.0,1.0,-1.0,-1.0
2025-06-04 14:22:47.583,0.008409188,-0.0019351796,-0.007989122,0.03215454,0.045656417,-0.01153931,0.0,0.0,0.0,0.017705822,0.066127226,-0.45275816,-0.16048305,0.120766304,0.39777595,-0.16268122,-0.08650765,-0.52057654,-0.20473026,0.119527414,-0.4758242,-0.18453097,-0.014635476,-0.0062864916,0.0040240884,-0.03669177,-0.06468036,-0.032135382,-0.01970497,-0.067009024,-0.060381968,0.065045826,-0.0069296584,-0.08461987,1.0,-1.0,-1.0,1.0,1.0,-1.0,-1.0,-1.0,-1.0,1.0,-1.0,-1.0,1.0,-1.0,-1.0,1.0,1.0,-1.0,-1.0,-1.0,-1.0,1.0,-1.0,-1.0
2025-06-04 14:22:47.602,0.034651037,-0.042233642,0.02120217,-0.024883695,0.07878438,-0.027698336,0.0,0.0,0.0,0.017335847,0.07892499,-0.45130917,-0.15668392,0.12500651,0.39612138,-0.17892024,-0.09222964,-0.5130415,-0.20023304,0.117654845,-0.4724534,-0.18671297,0.03395237,0.02569727,-0.06605356,0.030666897,-0.07004851,0.06317988,0.0039563393,-0.06411763,-0.022051815,0.02157112,-0.0070753912,0.03136749,1.0,-1.0,-1.0,1.0,1.0,-1.0,-1.0,-1.0,-1.0,1.0,-1.0,-1.0,1.0,-1.0,-1.0,1.0,1.0,-1.0,-1.0,-1.0,-1.0,1.0,-1.0,-1.0
2025-06-04 14:22:47.622,0.06491772,-0.037358176,0.03321838,0.06472526,0.09879214,0.04490544,0.0,0.0,0.0,0.016982121,0.08241124,-0.45558232,-0.14940757,0.12734526,0.39989012,-0.15877551,-0.09734886,-0.52759624,-0.21412225,0.12302103,-0.4812878,-0.1959265,-0.010752221,-0.085962,0.006281995,-0.017090924,0.04736644,0.042799816,-0.06985246,0.05922759,0.060032044,-0.07161272,-0.005570647,0.02432246,1.0,-1.0,-1.0,1.0,1.0,-1.0,-1.0,-1.0,-1.0,1.0,-1.0,-1.0,1.0,-1.0,-1.0,1.0,1.0,-1.0,-1.0,-1.0,-1.0,1.0,-1.0,-1.0
2025-06-04 14:22:47.642,0.07307172,-0.004420589,0.055903792,0.016659023,0.0767583,-0.03315204,0.0,0.0,0.0,0.01665306,0.06733383,-0.47794703,-0.16269575,0.12120488,0.4013796,-0.16107662,-0.09464664,-0.5397093,-0.19803065,0.11954385,-0.46533212,-0.20716755,-0.053014126,-0.07089706,-0.027552323,0.053222675,-0.059757438,0.01185972,-0.027773103,0.011475731,-0.07693822,0.065620884,-0.059620854,-0.011303257,1.0,-1.0,-1.0,1.0,1.0,-1.0,-1.0,-1.0,-1.0,1.0,-1.0,-1.0,1.0,-1.0,-1.0,1.0,1.0,-1.0,-1.0,-1.0,-1.0,1.0,-1.0,-1.0
2025-06-04 14:22:47.662,0.017294075,0.018073961,0.008863492,0.00027697627,0.10918143,-0.043729216,0.0,0.0,0.0,0.016351536,0.07607877,-0.48340505,-0.1525898,0.13208394,0.40889195,-0.1736238,-0.08993353,-0.53835773,-0.21782774,0.12017479,-0.4792004,-0.2278732,-0.02229931,-0.018601755,-0.03682662,-0.024886575,-0.044563953,-0.03673193,0.012333054,0.043565687,-0.00828338,0.04693453,0.01984177,-0.008419471,1.0,-1.0,-1.0,1.0,1.0,-1.0,-1.0,-1.0,-1.0,1.0,-1.0,-1.0,1.0,-1.0,-1.0,1.0,1.0,-1.0,-1.0,-1.0,-1.0,1.0,-1.0,-1.0
2025-06-04 14:22:47.685,0.05705961,0.035819616,-0.036081713,0.048597824,0.08642033,0.034891713,0.0,0.0,0.0,0.01607835,0.070303775,-0.49167326,-0.16169402,0.12859534,0.4135351,-0.15471211,-0.0956248,-0.54592556,-0.21973813,0.11298814,-0.4849164,-0.23271205,-0.024154268,0.046949998,-0.06920595,0.031373195,0.018012999,-0.017357925,-0.03426584,0.04323377,0.020981915,0.055589147,-0.0069741984,-0.07955026,1.0,-1.0,-1.0,1.0,1.0,-1.0,-1.0,-1.0,-1.0,1.0,-1.0,-1.0,1.0,-1.0,-1.0,1.0,1.0,-1.0,-1.0,-1.0,-1.0,1.0,-1.0,-1.0
2025-06-04 14:22:47.702,-0.0034285611,0.010040141,0.05618849,0.040340886,0.040319066,0.040440034,0.0,0.0,0.0,0.015834058,0.08025515,-0.48473826,-0.15685079,0.13317929,0.41133934,-0.16305104,-0.09939416,-0.5416955,-0.21987922,0.10553897,-0.48776698,-0.22445068,0.034144323,0.05773335,0.029550312,-0.015637223,0.01826368,0.011796796,0.04469682,-0.070907004,0.01245282,-0.020624336,0.06142118,0.052657317,1.0,-1.0,-1.0,1.0,1.0,-1.0,-1.0,-1.0,-1.0,1.0,-1.0,-1.0,1.0,-1.0,-1.0,1.0,1.0,-1.0,-1.0,-1.0,-1.0,1.0,-1.0,-1.0
2025-06-04 14:22:47.723,-0.0018843024,0.01854974,0.03381455,0.077743955,0.071914606,0.0075723655,0.0,0.0,0.0,0.015619033,0.08715142,-0.48890606,-0.14730585,0.1314842,0.40438136,-0.16051179,-0.10333249,-0.54392576,-0.20898496,0.12159629,-0.4728696,-0.23041223,-0.017818421,-0.04574699,0.05182621,-0.044737298,-0.07115832,0.05471768,0.06728956,-0.06150926,-0.006926548,0.040450264,-0.0570134,0.051499806,1.0,-1.0,-1.0,1.0,1.0,-1.0,-1.0,-1.0,-1.0,1.0,-1.0,-1.0,1.0,-1.0,-1.0,1.0,1.0,-1.0,-1.0,-1.0,-1.0,1.0,-1.0,-1.0
2025-06-04 14:22:47.743,-0.0152567765,-0.03910692,0.023162033,0.035690937,0.0498971,0.0027417613,0.0,0.0,0.0,0.015433114,0.08908,-0.49452186,-0.15998587,0.12550049,0.41409156,-0.15105645,-0.109285295,-0.54648334,-0.21599333,0.115592755,-0.47879523,-0.24854556,0.0008737968,-0.0054560206,0.050225217,0.0688873,-0.027653966,-0.06813183,-0.0037494712,0.046700634,-0.015048999,0.012827438,-0.047551733,-0.025274787,1.0,-1.0,-1.0,1.0,1.0,-1.0,-1.0,-1.0,-1.0,1.0,-1.0,-1.0,1.0,-1.0,-1.0,1.0,1.0,-1.0,-1.0,-1.0,-1.0,1.0,-1.0,-1.0
2025-06-04 14:22:47.763,-0.04177725,-0.027963234,0.0025375832,0.02913241,0.08710494,0.037166942,0.0,0.0,0.0,0.015275415,0.08107161,-0.5001466,-0.14966188,0.14472444,0.40605336,-0.15368877,-0.10882579,-0.5440194,-0.21496081,0.11741012,-0.4826363,-0.23904794,0.06577127,-0.03660019,0.041030522,-0.0028419902,-0.058888715,-0.03373492,-0.009611015,0.025855057,-0.074970506,0.02973898,-0.06839667,-0.06937777,1.0,-1.0,-1.0,1.0,1.0,-1.0,-1.0,-1.0,-1.0,1.0,-1.0,-1.0,1.0,-1.0,-1.0,1.0,1.0,-1.0,-1.0,-1.0,-1.0,1.0,-1.0,-1.0
2025-06-04 14:22:47.782,0.027886078,-0.034850117,0.050660696,0.058749437,0.07414595,0.034916736,0.0,0.0,0.0,0.0151443705,0.08801166,-0.5145686,-0.14973135,0.13752571,0.40797698,-0.14801282,-0.10025621,-0.5468616,-0.22621432,0.106630266,-0.493222,-0.2538912,-0.021212438,0.047227558,-0.013847022,0.026778715,0.017303785,0.060758557,0.052021854,0.06088404,-0.058939226,0.009667153,-0.005975507,0.046305735,1.0,-1.0,-1.0,1.0,1.0,-1.0,-1.0,-1.0,-1.0,1.0,-1.0,-1.0,1.0,-1.0,-1.0,1.0,1.0,-1.0,-1.0,-1.0,-1.0,1.0,-1.0,-1.0
2025-06-04 14:22:47.801,0.043051723,-0.047317147,-0.0108857835,0.06306196,0.049541455,-0.042578343,0.0,0.0,0.0,0.015037864,0.08287542,-0.5043572,-0.14854535,0.13130566,0.42227182,-0.15175922,-0.10926254,-0.5432105,-0.21703409,0.11816333,-0.4946256,-0.24314839,0.050987117,0.03558155,-0.047658525,-0.04026111,0.06900687,0.031157771,0.04393314,-0.026811766,-0.041202903,0.05093218,-0.003321889,-0.067522,1.0,-1.0,-1.0,1.0,1.0,-1.0,-1.0,-1.0,-1.0,1.0,-1.0,-1.0,1.0,-1.0,-1.0,1.0,1.0,-1.0,-1.0,-1.0,-1.0,1.0,-1.0,-1.0
2025-06-04 14:22:47.821,0.013946032,0.03316525,0.03259413,-0.0011612359,0.028847968,0.017365485,0.0,0.0,0.0,0.014953376,0.07655535,-0.5053927,-0.16290961,0.12857737,0.40935817,-0.15678851,-0.09950255,-0.5479047,-0.23739417,0.1075454,-0.49400276,-0.24597234,0.015951356,0.058301296,-0.040725917,0.06989673,0.054670602,0.00478072,0.041728035,0.041952122,-0.065328725,-0.048191976,0.042223163,-0.04835612,1.0,-1.0,-1.0,1.0,1.0,-1.0,-1.0,-1.0,-1.0,1.0,-1.0,-1.0,1.0,-1.0,-1.0,1.0,1.0,-1.0,-1.0,-1.0,-1.0,1.0,-1.0,-1.0
2025-06-04 14:22:47.842,0.023069302,0.033062246,0.041435823,-0.0072081145,0.0592123,0.014015405,0.0,0.0,0.0,0.014888126,0.079538606,-0.5143737,-0.16431752,0.13518848,0.41677052,-0.14921018,-0.11149141,-0.56211346,-0.23216666,0.11157406,-0.4868583,-0.256865,0.027545452,0.028988477,-0.060992707,0.00035782505,-0.044445775,0.04255579,-0.037242614,0.007101761,-0.029335799,0.011432606,0.033306472,-0.03338472,1.0,-1.0,-1.0,1.0,1.0,-1.0,-1.0,-1.0,-1.0,1.0,-1.0,-1.0,1.0,-1.0,-1.0,1.0,1.0,-1.0,-1.0,-1.0,-1.0,1.0,-1.0,-1.0
2025-06-04 14:22:47.862,-0.005898122,-0.02647417,0.022045374,0.06961978,0.04404022,-0.0014283577,0.0,0.0,0.0,0.014839233,0.083290935,-0.5284376,-0.16023609,0.13758776,0.4158723,-0.14954777,-0.10206743,-0.54755306,-0.23159663,0.117803134,-0.4937959,-0.25422797,-0.013191601,0.06439412,-0.056417093,0.045340493,0.0771901,-0.036580563,0.010017605,-0.06297582,0.06837569,-0.002450382,0.00023388941,0.021468088,1.0,-1.0,-1.0,1.0,1.0,-1.0,-1.0,-1.0,-1.0,1.0,-1.0,-1.0,1.0,-1.0,-1.0,1.0,1.0,-1.0,-1.0,-1.0,-1.0,1.0,-1.0,-1.0
2025-06-04 14:22:47.885,4.0413204e-05,-0.024813559,0.024890188,0.06902948,0.10072988,-0.023726828,0.0,0.0,0.0,0.0148038445,0.08969551,-0.52467114,-0.14575256,0.13608928,0.43414342,-0.14726718,-0.11089192,-0.5583088,-0.23344731,0.11931455,-0.49649173,-0.25742048,0.05415556,-0.07306626,0.023904067,0.06378433,-0.063690074,-0.051194146,0.017903842,-0.0540878,-0.01028175,0.03302933,0.0106292125,-0.040415965,1.0,-1.0,-1.0,1.0,1.0,-1.0,-1.0,-1.0,-1.0,1.0,-1.0,-1.0,1.0,-1.0,-1.0,1.0,1.0,-1.0,-1.0,-1.0,-1.0,1.0,-1.0,-1.0
2025-06-04 14:22:47.902,-0.045087483,0.023779502,-0.042744387,0.023012342,0.020112216,-0.030654373,0.0,0.0,0.0,0.014779447,0.08980733,-0.5154341,-0.1531411,0.1460823,0.42637712,-0.15591943,-0.09944911,-0.5650717,-0.2358994,0.1213985,-0.4873105,-0.2552072,-0.044235975,0.047589142,0.038211115,-0.032243885,-0.031163625,0.0063604657,0.0505245,0.017727295,-0.021657914,0.07066988,-0.00859164,-0.030646622,1.0,-1.0,-1.0,1.0,1.0,-1.0,-1.0,-1.0,-1.0,1.0,-1.0,-1.0,1.0,-1.0,-1.0,1.0,1.0,-1.0,-1.0,-1.0,-1.0,1.0,-1.0,-1.0
2025-06-04 14:22:47.922,0.031805333,0.007939413,-0.0073605897,0.019950792,0.0289705,0.018735033,0.0,0.0,0.0,0.014767022,0.09270994,-0.524625,-0.155006,0.1314701,0.43716446,-0.15391184,-0.109169625,-0.5536476,-0.23097205,0.112689726,-0.48734573,-0.2502642,-0.027817596,0.014001272,-0.06341929,-0.03140889,0.01680211,0.0633222,0.028552344,-0.02013036,-0.057027504,0.06099426,-0.018057875,-0.031807184,1.0,-1.0,-1.0,1.0,1.0,-1.0,-1.0,-1.0,-1.0,1.0,-1.0,-1.0,1.0,-1.0,-1.0,1.0,1.0,-1.0,-1.0,-1.0,-1.0,1.0,-1.0,-1.0
2025-06-04 14:22:47.942,0.006564914,0.04098846,-0.007803706,-0.011947276,0.07291352,0.030921714,0.0,0.0,0.0,0.014768457,0.0918998,-0.515407,-0.16257788,0.14069974,0.42470998,-0.14076702,-0.11186528,-0.5516899,-0.2434832,0.11379644,-0.49433997,-0.24775045,-0.013588176,0.012578726,0.014080498,-0.04823521,-0.011992744,0.0013548275,0.03516753,-0.02954178,0.065675616,0.022827227,-0.021812005,0.037691783,1.0,-1.0,-1.0,1.0,1.0,-1.0,-1.0,-1.0,-1.0,1.0,-1.0,-1.0,1.0,-1.0,-1.0,1.0,1.0,-1.0,-1.0,-1.0,-1.0,1.0,-1.0,-1.0
2025-06-04 14:22:47.962,0.036075406,-0.019620633,-0.0366057,0.061466537,0.043944646,0.029608632,0.0,0.0,0.0,0.014782126,0.08789194,-0.5305663,-0.1477291,0.12896268,0.43367368,-0.14270772,-0.11441751,-0.5478716,-0.2289903,0.11042194,-0.49673703,-0.26159924,-0.061473656,0.004762971,-0.050041843,0.025022812,-0.025220104,-0.010028383,-0.0628558,0.022550259,0.0022119288,0.018502776,-0.058993008,0.039518334,1.0,-1.0,-1.0,1.0,1.0,-1.0,-1.0,-1.0,-1.0,1.0,-1.0,-1.0,1.0,-1.0,-1.0,1.0,1.0,-1.0,-1.0,-1.0,-1.0,1.0,-1.0,-1.0
2025-06-04 14:22:47.985,-0.01159328,-0.039851345,0.018573983,0.028498538,0.022447323,0.03569111,0.0,0.0,0.0,0.014804476,0.09312575,-0.53363055,-0.1641425,0.13867766,0.43375853,-0.1515175,-0.105888836,-0.56283444,-0.23406051,0.109737135,-0.5013313,-0.24776198,-0.064363204,-0.077014774,-0.017393846,-0.050514642,0.044694323,0.047440846,-0.033125233,-0.01979992,-0.008665287,0.06690489,0.0720593,-0.04677479,1.0,-1.0,-1.0,1.0,1.0,-1.0,-1.0,-1.0,-1.0,1.0,-1.0,-1.0,1.0,-1.0,-1.0,1.0,1.0,-1.0,-1.0,-1.0,-1.0,1.0,-1.0,-1.0
2025-06-04 14:22:48.003,0.018511277,-0.04098061,0.010648279,0.031615786,0.037581418,0.0040435996,0.0,0.0,0.0,0.014831767,0.0814597,-0.53523517,-0.16210972,0.13532896,0.42723933,-0.14094119,-0.09505514,-0.5665655,-0.23149124,0.108627565,-0.4916385,-0.25065777,0.07053352,0.023547275,0.051760133,0.01640721,0.07623939,0.046712983,0.01486656,0.069063194,-0.031846,-0.05067297,-0.030665178,-0.05669381,1.0,-1.0,-1.0,1.0,1.0,-1.0,-1.0,-1.0,-1.0,1.0,-1.0,-1.0,1.0,-1.0,-1.0,1.0,1.0,-1.0,-1.0,-1.0,-1.0,1.0,-1.0,-1.0
2025-06-04 14:22:48.022,-0.0034208552,-0.044268936,0.033223968,0.058671612,0.08971497,0.031350292,0.0,0.0,0.0,0.01486098,0.0839846,-0.5375729,-0.14835586,0.1459262,0.43078932,-0.15162036,-0.109355,-0.56664354,-0.23352382,0.121985994,-0.5036779,-0.25764596,0.016082283,-0.05552225,-0.03313065,-0.036868956,-0.05918854,0.052161388,0.06433475,0.06985178,-0.0548449,-0.008987087,0.013981168,0.05777975,1.0,-1.0,-1.0,1.0,1.0,-1.0,-1.0,-1.0,-1.0,1.0,-1.0,-1.0,1.0,-1.0,-1.0,1.0,1.0,-1.0,-1.0,-1.0,-1.0,1.0,-1.0,-1.0
2025-06-04 14:22:48.042,-0.023076879,-0.044806357,-0.027824944,0.068398155,0.09218587,-0.03554191,0.0,0.0,0.0,0.014890088,0.07378859,-0.5335537,-0.1561217,0.14113052,0.44615856,-0.13618284,-0.10536401,-0.5480146,-0.23959105,0.114932805,-0.5081475,-0.26431012,-0.017927608,0.054683466,-0.008326914,-0.044803515,0.030904733,-0.034128346,0.048288807,0.0007019872,0.018375782,-0.059567336,0.0015195207,-0.054945342,1.0,-1.0,-1.0,1.0,1.0,-1.0,-1.0,-1.0,-1.0,1.0,-1.0,-1.0,1.0,-1.0,-1.0,1.0,1.0,-1.0,-1.0,-1.0,-1.0,1.0,-1.0,-1.0
2025-06-04 14:22:48.062,0.031052146,-0.0060209837,0.03928572,0.02678857,0.0438393,0.01838236,0.0,0.0,0.0,0.014917951,0.08387369,-0.52446705,-0.15726791,0.1341706,0.441974,-0.14497711,-0.09456189,-0.55974203,-0.2512349,0.11558306,-0.49285764,-0.25451255,-0.03369635,-0.013795687,0.025366036,-0.009353891,-0.029175995,-0.013386798,0.048902996,0.06472985,-0.075844474,-0.012006721,-0.011611723,0.00041907417,1.0,-1.0,-1.0,1.0,1.0,-1.0,-1.0,-1.0,-1.0,1.0,-1.0,-1.0,1.0,-1.0,-1.0,1.0,1.0,-1.0,-1.0,-1.0,-1.0,1.0,-1.0,-1.0
2025-06-04 14:22:48.085,0.030969575,0.0027362595,-0.040587317,-0.009128434,0.06658732,-0.040331878,0.0,0.0,0.0,0.014944058,0.08089538,-0.5311201,-0.1546926,0.13502593,0.43965897,-0.1486514,-0.10554358,-0.5585162,-0.24063225,0.118380696,-0.49191168,-0.26255518,0.0038626734,-0.060323488,0.05046146,-0.060248133,0.022033848,-0.032722343,0.041901987,0.013823452,-0.025015835,-0.002137817,-0.051283162,0.01606899,1.0,-1.0,-1.0,1.0,1.0,-1.0,-1.0,-1.0,-1.0,1.0,-1.0,-1.0,1.0,-1.0,-1.0,1.0,1.0,-1.0,-1.0,-1.0,-1.0,1.0,-1.0,-1.0
2025-06-04 14:22:48.102,0.00263564,-0.0047510103,0.03870076,-0.0076537807,0.076443285,0.02732018,0.0,0.0,0.0,0.014968247,0.07732047,-0.5284856,-0.14754787,0.12975392,0.43967226,-0.1452505,-0.11277891,-0.56439024,-0.23829125,0.1161798,-0.49649855,-0.25077197,-0.0521247,0.017360054,-0.036651164,-0.030692387,-0.010865354,0.042495355,0.06138458,0.06663169,-0.03460113,-0.060033802,0.014758582,-0.0599059,1.0,-1.0,-1.0,1.0,1.0,-1.0,-1.0,-1.0,-1.0,1.0,-1.0,-1.0,1.0,-1.0,-1.0,1.0,1.0,-1.0,-1.0,-1.0,-1.0,1.0,-1.0,-1.0
2025-06-04 14:22:48.122,0.045767915,0.02759132,-0.0025527992,0.064613245,0.02632371,-0.018369984,0.0,0.0,0.0,0.014990518,0.08548676,-0.5320129,-0.15769964,0.12916589,0.43876037,-0.144452,-0.099152386,-0.5615673,-0.24111618,0.10796666,-0.5002795,-0.2501155,0.06447876,0.019918831,-0.040958304,0.014035805,-0.022330895,0.02979892,0.018311754,-0.0035427317,-0.06358025,0.04821306,-0.008229169,-0.017711999,1.0,-1.0,-1.0,1.0,1.0,-1.0,-1.0,-1.0,-1.0,1.0,-1.0,-1.0,1.0,-1.0,-1.0,1.0,1.0,-1.0,-1.0,-1.0,-1.0,1.0,-1.0,-1.0
2025-06-04 14:22:48.143,-0.026304195,0.026042985,-0.028274344,-0.008573556,0.09006156,-0.049244527,0.0,0.0,0.0,0.015010918,0.07962585,-0.5213687,-0.15815052,0.13813403,0.4408802,-0.13922736,-0.10148311,-0.5558248,-0.24919869,0.118243635,-0.4971395,-0.26469952,0.049833637,0.047253564,-0.023037696,0.057877842,0.037257478,0.058664173,-0.06460656,-0.021330485,-0.00016011167,-0.033337343,0.04489779,-0.06077337,1.0,-1.0,-1.0,1.0,1.0,-1.0,-1.0,-1.0,-1.0,1.0,-1.0,-1.0,1.0,-1.0,-1.0,1.0,1.0,-1.0,-1.0,-1.0,-1.0,1.0,-1.0,-1.0
2025-06-04 14:22:48.163,0.02334522,0.032444976,-0.0043912358,0.06246353,0.09581822,-0.031629954,0.0,0.0,0.0,0.015029507,0.08763375,-0.5368204,-0.15514919,0.13552462,0.43975702,-0.13965982,-0.10130916,-0.55615515,-0.23653182,0.11614379,-0.51076543,-0.26091716,-0.019350184,0.03907464,-0.049480326,0.06035009,0.034129612,-0.017082874,-0.060109537,0.07280422,0.06466528,-0.012806748,0.07410587,0.047873843,1.0,-1.0,-1.0,1.0,1.0,-1.0,-1.0,-1.0,-1.0,1.0,-1.0,-1.0,1.0,-1.0,-1.0,1.0,1.0,-1.0,-1.0,-1.0,-1.0,1.0,-1.0,-1.0
2025-06-04 14:22:48.185,-0.01047418,-0.0016656019,0.019390248,0.011385881,0.09147434,0.02247183,0.0,0.0,0.0,0.015046351,0.077359125,-0.53004503,-0.15113744,0.1418666,0.4443298,-0.1322699,-0.109361306,-0.558005,-0.24588281,0.1054942,-0.49368495,-0.26001254,0.014727211,-0.05504188,0.07273627,0.03477759,-0.07379823,-0.019823998,0.047754128,0.022960331,-0.030420315,0.028291281,-0.055109657,-0.03759606,1.0,-1.0,-1.0,1.0,1.0,-1.0,-1.0,-1.0,-1.0,1.0,-1.0,-1.0,1.0,-1.0,-1.0,1.0,1.0,-1.0,-1.0,-1.0,-1.0,1.0,-1.0,-1.0
2025-06-04 14:22:48.204,0.033876304,0.011024348,-0.019227529,0.0025757938,0.059570774,0.021013413,0.0,0.0,0.0,0.015061522,0.08694428,-0.5302604,-0.16234618,0.12910719,0.43750194,-0.15015484,-0.09984442,-0.54758763,-0.23761924,0.119909436,-0.49561706,-0.2620856,-0.04399997,0.011431109,-0.011413724,0.025062177,-0.016369458,-0.058497906,0.05590661,0.06997708,0.017752312,0.009727577,0.05101658,-0.028800461,1.0,-1.0,-1.0,1.0,1.0,-1.0,-1.0,-1.0,-1.0,1.0,-1.0,-1.0,1.0,-1.0,-1.0,1.0,1.0,-1.0,-1.0,-1.0,-1.0,1.0,-1.0,-1.0
2025-06-04 14:22:48.223,-0.02850975,-0.045278702,-0.027339462,0.008763694,0.031234406,-0.039163865,0.0,0.0,0.0,0.015075103,0.07701805,-0.5353086,-0.14736821,0.14385346,0.43970203,-0.13848004,-0.10355485,-0.56293243,-0.24526697,0.10844845,-0.49575976,-0.26151824,0.05334946,-0.02782648,0.06607114,0.04097966,-0.035400633,-0.040116325,-0.035510305,-0.021004084,0.0055993753,0.06559176,-0.03117336,0.069431484,1.0,-1.0,-1.0,1.0,1.0,-1.0,-1.0,-1.0,-1.0,1.0,-1.0,-1.0,1.0,-1.0,-1.0,1.0,1.0,-1.0,-1.0,-1.0,-1.0,1.0,-1.0,-1.0
2025-06-04 14:22:48.243,0.029414294,-0.007954365,-0.039450392,0.04231409,0.085830696,0.042615384,0.0,0.0,0.0,0.015087187,0.08794182,-0.525043,-0.15751137,0.13888451,0.4525047,-0.14587797,-0.09534792,-0.5616223,-0.23411459,0.120303854,-0.49286684,-0.25395367,0.031979404,0.029563751,-0.055729467,-0.061575882,0.024909372,-0.059109736,-0.07192439,-0.03241154,-0.058698166,-0.011234444,0.052778993,-0.016060526,1.0,-1.0,-1.0,1.0,1.0,-1.0,-1.0,-1.0,-1.0,1.0,-1.0,-1.0,1.0,-1.0,-1.0,1.0,1.0,-1.0,-1.0,-1.0,-1.0,1.0,-1.0,-1.0
2025-06-04 14:22:48.263,-0.0070556714,-0.04060197,0.02036711,0.0522704,0.03513168,0.047015984,0.0,0.0,0.0,0.015097867,0.09173081,-0.5284081,-0.15604514,0.12910202,0.440761,-0.14681163,-0.09662742,-0.55360293,-0.2481866,0.11782086,-0.50459784,-0.26205346,0.05858347,-0.008204887,-0.025087016,-0.039232317,0.053607356,-0.057676353,-0.07177801,0.059554312,0.062968165,-0.056708537,0.0741448,-0.031235624,1.0,-1.0,-1.0,1.0,1.0,-1.0,-1.0,-1.0,-1.0,1.0,-1.0,-1.0,1.0,-1.0,-1.0,1.0,1.0,-1.0,-1.0,-1.0,-1.0,1.0,-1.0,-1.0
2025-06-04 14:22:48.285,0.039696485,0.0072889216,-0.035342373,0.011056356,0.01784094,-0.047191493,0.0,0.0,0.0,0.015107238,0.084899314,-0.53183013,-0.16343352,0.14174299,0.435725,-0.14072315,-0.09574161,-0.5608119,-0.25291184,0.116775975,-0.4959038,-0.24859181,0.048618972,-0.06286284,0.00937131,-0.013678908,-0.053684372,-0.02082867,0.0048235366,-0.0043822154,0.014072998,0.022571677,0.043927975,-0.006044652,1.0,-1.0,-1.0,1.0,1.0,-1.0,-1.0,-1.0,-1.0,1.0,-1.0,-1.0,1.0,-1.0,-1.0,1.0,1.0,-1.0,-1.0,-1.0,-1.0,1.0,-1.0,-1.0
2025-06-04 14:22:48.304,-0.023922617,-0.01729781,-0.019907566,0.06088376,0.06883015,0.016146999,0.0,0.0,0.0,0.015115396,0.079879,-0.5265475,-0.15685226,0.14095822,0.44507006,-0.14148107,-0.10113793,-0.56652355,-0.24958077,0.10994514,-0.49985516,-0.24455863,-0.065824494,-0.02459495,0.006287231,-0.033674467,0.024828278,-0.03538463,0.0675751,0.013742401,-0.035310257,0.07254645,-0.01576337,0.02845738,1.0,-1.0,-1.0,1.0,1.0,-1.0,-1.0,-1.0,-1.0,1.0,-1.0,-1.0,1.0,-1.0,-1.0,1.0,1.0,-1.0,-1.0,-1.0,-1.0,1.0,-1.0,-1.0
2025-06-04 14:22:48.325,-0.0089195855,-0.0045071295,-0.02899166,0.06446025,0.043939445,-0.009283974,0.0,0.0,0.0,0.015122438,0.08759632,-0.525494,-0.15269946,0.12745579,0.45275652,-0.13607247,-0.09708283,-0.5484902,-0.25082994,0.11283094,-0.5060437,-0.26045457,0.052814115,0.024422234,-0.010305941,0.057659425,-0.0109036155,-0.0166072,0.044546418,0.00637601,-0.01557374,0.0587665,-0.06263632,0.03960307,1.0,-1.0,-1.0,1.0,1.0,-1.0,-1.0,-1.0,-1.0,1.0,-1.0,-1.0,1.0,-1.0,-1.0,1.0,1.0,-1.0,-1.0,-1.0,-1.0,1.0,-1.0,-1.0
2025-06-04 14:22:48.344,0.022529997,-0.04974604,-0.03163303,0.037300993,0.011805529,0.03938673,0.0,0.0,0.0,0.015128458,0.08696182,-0.5346607,-0.14781915,0.14122973,0.43880957,-0.1497289,-0.10903883,-0.5610829,-0.23359178,0.11021526,-0.49601498,-0.2504473,0.008058365,0.0646957,-0.028674517,-0.032278202,-0.044593267,-0.016260559,0.00058105483,0.027431417,0.066260725,-0.00051354343,-0.06101975,0.0068927794,1.0,-1.0,-1.0,1.0,1.0,-1.0,-1.0,-1.0,-1.0,1.0,-1.0,-1.0,1.0,-1.0,-1.0,1.0,1.0,-1.0,-1.0,-1.0,-1.0,1.0,-1.0,-1.0
2025-06-04 14:22:48.364,-0.03669366,0.0032357175,-0.044560153,-0.0013808277,0.097919755,-0.038944837,0.0,0.0,0.0,0.015133551,0.07963578,-0.53422695,-0.15285149,0.14041513,0.4423806,-0.13557623,-0.09515356,-0.54768246,-0.25214374,0.11767134,-0.51230913,-0.24769562,0.06959241,-0.0011584153,0.05345827,-0.06992033,0.06194166,-0.06660853,-0.06431486,0.0012598045,-0.066380836,-0.04039204,-0.055467453,-0.04984481,1.0,-1.0,-1.0,1.0,1.0,-1.0,-1.0,-1.0,-1.0,1.0,-1.0,-1.0,1.0,-1.0,-1.0,1.0,1.0,-1.0,-1.0,-1.0,-1.0,1.0,-1.0,-1.0
2025-06-04 14:22:48.386,0.003616381,0.023402188,0.011752119,0.066746265,0.10411712,-0.048322532,0.0,0.0,0.0,0.015137809,0.08251455,-0.53555673,-0.147957,0.14072755,0.43605807,-0.13661416,-0.11211323,-0.5577726,-0.2394664,0.11163473,-0.5069234,-0.25760612,-0.012688711,0.035280675,0.039490007,-0.053414654,-0.052142322,-0.064431846,-0.007824036,0.06258324,-0.070658036,-0.056989484,-0.01793467,0.01158971,1.0,-1.0,-1.0,1.0,1.0,-1.0,-1.0,-1.0,-1.0,1.0,-1.0,-1.0,1.0,-1.0,-1.0,1.0,1.0,-1.0,-1.0,-1.0,-1.0,1.0,-1.0,-1.0
2025-06-04 14:22:48.405,-0.047504343,0.006797424,-0.030301265,0.0045007365,0.04955116,0.048492245,0.0,0.0,0.0,0.015141324,0.074001364,-0.5228815,-0.15847097,0.14273816,0.44276932,-0.13862096,-0.102224134,-0.5499113,-0.25106266,0.1086661,-0.50239724,-0.26069942,-0.067800604,0.06676565,-0.06853023,0.005673308,0.053493686,0.051993046,0.07173386,0.074078634,0.071636006,0.01468299,0.06689309,0.059248418,1.0,-1.0,-1.0,1.0,1.0,-1.0,-1.0,-1.0,-1.0,1.0,-1.0,-1.0,1.0,-1.0,-1.0,1.0,1.0,-1.0,-1.0,-1.0,-1.0,1.0,-1.0,-1.0
2025-06-04 14:22:48.424,0.03981806,-0.01606801,-0.03453819,0.041790538,0.095529184,-0.025900418,0.0,0.0,0.0,0.015144183,0.091208935,-0.5320267,-0.15359744,0.13402961,0.43598542,-0.14980626,-0.110996,-0.5630289,-0.24024975,0.11770542,-0.4962799,-0.24785978,-0.025871113,-0.007051189,0.034724098,-0.01016008,-0.034728486,-0.06186563,0.071828365,0.055606417,0.037776325,-0.035254866,0.06440194,0.008057757,1.0,-1.0,-1.0,1.0,1.0,-1.0,-1.0,-1.0,-1.0,1.0,-1.0,-1.0,1.0,-1.0,-1.0,1.0,1.0,-1.0,-1.0,-1.0,-1.0,1.0,-1.0,-1.0
2025-06-04 14:22:48.445,0.039850213,0.03601004,-0.03372124,0.06302824,0.021185381,-0.04188239,0.0,0.0,0.0,0.015146471,0.077573,-0.5373473,-0.15049006,0.13166045,0.43734655,-0.14922692,-0.09665268,-0.5588475,-0.25169712,0.11262858,-0.49944347,-0.24741754,-0.066241145,0.010320501,0.052457023,-0.051085696,0.03335766,0.054962773,-0.04313062,-0.022091165,-0.041577715,-0.006570546,-0.071941406,0.07427375,1.0,-1.0,-1.0,1.0,1.0,-1.0,-1.0,-1.0,-1.0,1.0,-1.0,-1.0,1.0,-1.0,-1.0,1.0,1.0,-1.0,-1.0,-1.0,-1.0,1.0,-1.0,-1.0
2025-06-04 14:22:48.464,0.03728651,-0.020268025,0.026180066,0.057942446,0.032743245,-0.036523134,0.0,0.0,0.0,0.015148265,0.08510912,-0.5267717,-0.15131083,0.14038742,0.4410657,-0.1354209,-0.09552765,-0.5639941,-0.23908296,0.11482758,-0.49621394,-0.2618391,-0.038983293,0.016041663,0.0566549,0.0052809683,-0.07273506,0.0231561,-0.019341292,0.011627255,-0.012324774,0.04824047,0.05663648,0.036820095,1.0,-1.0,-1.0,1.0,1.0,-1.0,-1.0,-1.0,-1.0,1.0,-1.0,-1.0,1.0,-1.0,-1.0,1.0,1.0,-1.0,-1.0,-1.0,-1.0,1.0,-1.0,-1.0
2025-06-04 14:22:48.485,0.0017411802,0.008593306,0.019350456,-0.0077175754,0.06264451,-0.0069220825,0.0,0.0,0.0,0.015149641,0.083787724,-0.52494234,-0.16445571,0.13769443,0.45047107,-0.14520894,-0.10268888,-0.5488671,-0.23563948,0.11075102,-0.507006,-0.24841751,0.0072783995,0.06033199,0.010775067,-0.003719495,0.016818507,-0.07432339,-0.043859743,-0.06447076,-0.0021197184,-0.039725836,0.058703404,0.05847976,1.0,-1.0,-1.0,1.0,1.0,-1.0,-1.0,-1.0,-1.0,1.0,-1.0,-1.0,1.0,-1.0,-1.0,1.0,1.0,-1.0,-1.0,-1.0,-1.0,1.0,-1.0,-1.0
2025-06-04 14:22:48.504,-0.017376315,-0.0162328,-0.0122109875,-0.019777419,0.047135692,-0.008161101,0.0,0.0,0.0,0.015150664,0.091046624,-0.5241482,-0.16495961,0.13590902,0.4501601,-0.13334371,-0.09456896,-0.55151075,-0.2339876,0.1110229,-0.50487345,-0.25380227,0.031940598,0.061542735,-0.064834684,0.05469286,-0.025138563,-0.035832882,-0.0072040437,0.071428835,0.014736602,0.036575746,-0.041210912,0.00041355303,1.0,-1.0,-1.0,1.0,1.0,-1.0,-1.0,-1.0,-1.0,1.0,-1.0,-1.0,1.0,-1.0,-1.0,1.0,1.0,-1.0,-1.0,-1.0,-1.0,1.0,-1.0,-1.0
2025-06-04 14:22:48.524,-0.0145767685,0.025779188,-0.002198023,0.029881332,0.096554786,-0.045063768,0.0,0.0,0.0,0.015151396,0.08898238,-0.5222776,-0.15169686,0.12932408,0.4453248,-0.1467463,-0.10708957,-0.56063277,-0.23798986,0.11085006,-0.5097674,-0.25398922,0.059330378,0.011943487,0.070196606,-0.06277983,-0.04191898,-0.016222829,-0.034590546,-0.01585749,0.04603713,0.00039994618,-0.029581295,-0.025257437,1.0,-1.0,-1.0,1.0,1.0,-1.0,-1.0,-1.0,-1.0,1.0,-1.0,-1.0,1.0,-1.0,-1.0,1.0,1.0,-1.0,-1.0,-1.0,-1.0,1.0,-1.0,-1.0
2025-06-04 14:22:48.544,-0.039797664,0.036737695,0.003644134,0.052776095,0.081307076,-0.0067170565,0.0,0.0,0.0,0.015151892,0.087973684,-0.5222663,-0.14822976,0.13573253,0.45182306,-0.13778418,-0.097205564,-0.5652629,-0.2502378,0.11561285,-0.4968815,-0.25982118,0.014818609,-0.049581446,-0.072155274,0.039413832,-0.047692355,-0.056610513,0.04078,0.05028707,0.060648046,-0.070094,0.016688306,-0.058903202,1.0,-1.0,-1.0,1.0,1.0,-1.0,-1.0,-1.0,-1.0,1.0,-1.0,-1.0,1.0,-1.0,-1.0,1.0,1.0,-1.0,-1.0,-1.0,-1.0,1.0,-1.0,-1.0
2025-06-04 14:22:48.570,0.014433309,-0.0013256173,-0.00050960516,-0.019475387,0.03940107,0.029011553,0.0,0.0,0.0,0.015152198,0.08831275,-0.5259471,-0.15299882,0.13761021,0.45129028,-0.14501593,-0.098471634,-0.56509125,-0.24090974,0.11515479,-0.49915084,-0.24843559,-0.07041114,-0.051777802,0.07325871,-0.06109277,0.034697916,-0.02417388,-0.05713233,0.046488903,-0.07360583,-0.017315403,0.031946603,0.051345896,1.0,-1.0,-1.0,1.0,1.0,-1.0,-1.0,-1.0,-1.0,1.0,-1.0,-1.0,1.0,-1.0,-1.0,1.0,1.0,-1.0,-1.0,-1.0,-1.0,1.0,-1.0,-1.0
2025-06-04 14:22:48.585,0.01104743,-0.0020630362,-0.031058714,0.07490072,0.065781675,0.0157301,0.0,0.0,0.0,0.015152358,0.07632456,-0.5270563,-0.14729749,0.13686605,0.4544372,-0.13628685,-0.10155153,-0.5473924,-0.2389548,0.113369174,-0.50806755,-0.2491637,0.06516943,0.044633888,-0.0632388,0.05175022,-0.03723621,-0.032321647,0.013327436,0.038499463,0.057764698,-0.029028684,-0.03135476,0.010027908,1.0,-1.0,-1.0,1.0,1.0,-1.0,-1.0,-1.0,-1.0,1.0,-1.0,-1.0,1.0,-1.0,-1.0,1.0,1.0,-1.0,-1.0,-1.0,-1.0,1.0,-1.0,-1.0
2025-06-04 14:22:48.605,0.020882241,-0.024430132,-0.03338731,0.014746144,0.05337252,-0.014502804,0.0,0.0,0.0,0.015152408,0.08142128,-0.535525,-0.15825026,0.14628038,0.45041466,-0.14744933,-0.097319365,-0.55186343,-0.24212343,0.10506211,-0.5024429,-0.24552819,-0.07335787,0.023348147,0.05813912,0.021592319,0.018210491,-0.06840955,0.050053228,0.072308645,-0.06481115,0.061733376,0.0045706676,-0.0075796866,1.0,-1.0,-1.0,1.0,1.0,-1.0,-1.0,-1.0,-1.0,1.0,-1.0,-1.0,1.0,-1.0,-1.0,1.0,1.0,-1.0,-1.0,-1.0,-1.0,1.0,-1.0,-1.0
2025-06-04 14:22:48.625,0.035064563,-0.03335031,0.01897274,0.06244752,0.012689604,-0.012451917,0.0,0.0,0.0,0.015152376,0.0782281,-0.52515686,-0.16403525,0.14407693,0.44136268,-0.14479479,-0.099945016,-0.5494681,-0.24035855,0.117411084,-0.4958615,-0.2506935,-0.04420838,0.043125317,-0.031492736,-0.030359989,-0.014112045,0.022164311,0.071901344,-0.03229841,0.062151946,-0.063235305,0.03111884,-0.038798224,1.0,-1.0,-1.0,1.0,1.0,-1.0,-1.0,-1.0,-1.0,1.0,-1.0,-1.0,1.0,-1.0,-1.0,1.0,1.0,-1.0,-1.0,-1.0,-1.0,1.0,-1.0,-1.0
2025-06-04 14:22:48.644,-0.0023757294,0.034472562,-0.03799743,0.020910524,0.06600134,-0.034097694,0.0,0.0,0.0,0.0151522895,0.08963749,-0.52329016,-0.1499761,0.12829791,0.44718918,-0.1399506,-0.1049226,-0.56349295,-0.2379879,0.10635948,-0.4963758,-0.24686383,0.023259241,0.013247405,0.04645865,-0.020828277,0.038618464,0.0015572164,0.03279095,0.018479155,0.009385482,-0.021797806,-0.07447947,0.02618516,1.0,-1.0,-1.0,1.0,1.0,-1.0,-1.0,-1.0,-1.0,1.0,-1.0,-1.0,1.0,-1.0,-1.0,1.0,1.0,-1.0,-1.0,-1.0,-1.0,1.0,-1.0,-1.0
2025-06-04 14:22:48.670,-0.016625917,-0.035484698,0.001500832,0.034025222,0.05371132,-0.016798835,0.0,0.0,0.0,0.015152168,0.07403377,-0.52062416,-0.1659957,0.12774661,0.43839654,-0.1403664,-0.10935287,-0.55918765,-0.24238247,0.10456828,-0.5031497,-0.25848642,-0.061851908,0.02817932,0.0063450565,-0.074328244,0.05482399,-0.05088618,0.051576477,-0.03554272,0.074838676,0.031562418,-0.06492734,-0.04435708,1.0,-1.0,-1.0,1.0,1.0,-1.0,-1.0,-1.0,-1.0,1.0,-1.0,-1.0,1.0,-1.0,-1.0,1.0,1.0,-1.0,-1.0,-1.0,-1.0,1.0,-1.0,-1.0
2025-06-04 14:22:48.685,-0.0184,0.023489244,-0.0014194718,0.018731358,0.02214426,0.04662171,0.0,0.0,0.0,0.01515203,0.09212632,-0.5329652,-0.16536027,0.13938922,0.44940153,-0.13926333,-0.106706776,-0.5541927,-0.24296841,0.1195954,-0.5093191,-0.2616859,-0.052937202,0.029528577,-0.009991091,-0.0725053,0.020274052,0.036746703,-0.034779508,0.0306449,0.012449778,-0.012401303,-0.030510454,-0.013761205,1.0,-1.0,-1.0,1.0,1.0,-1.0,-1.0,-1.0,-1.0,1.0,-1.0,-1.0,1.0,-1.0,-1.0,1.0,1.0,-1.0,-1.0,-1.0,-1.0,1.0,-1.0,-1.0
2025-06-04 14:22:48.705,-0.019068647,0.015925635,0.030926488,0.053944696,0.08127929,-0.01732997,0.0,0.0,0.0,0.015151886,0.07488555,-0.53669685,-0.1655418,0.13068981,0.45242497,-0.13265148,-0.10121568,-0.5634147,-0.24894233,0.12182212,-0.5069143,-0.2474153,-0.0133219,-0.0053596906,0.06444994,0.03061104,0.03431657,0.018934328,0.0075291744,0.05388176,0.031235402,0.041627433,0.02212625,-0.02445904,1.0,-1.0,-1.0,1.0,1.0,-1.0,-1.0,-1.0,-1.0,1.0,-1.0,-1.0,1.0,-1.0,-1.0,1.0,1.0,-1.0,-1.0,-1.0,-1.0,1.0,-1.0,-1.0
2025-06-04 14:22:48.725,-0.018319065,-0.01645254,-0.011800189,0.014103485,0.078536116,0.017554587,0.0,0.0,0.0,0.015151747,0.077833414,-0.5211871,-0.15284167,0.14412734,0.45252672,-0.15096128,-0.109731235,-0.55144435,-0.24650064,0.115965314,-0.5109301,-0.2440662,0.017231094,0.05382946,-0.035922263,0.04800967,-0.024754094,-0.029131398,0.03613544,0.07424298,-0.040879533,-0.03766765,-0.06653113,-0.04814859,1.0,-1.0,-1.0,1.0,1.0,-1.0,-1.0,-1.0,-1.0,1.0,-1.0,-1.0,1.0,-1.0,-1.0,1.0,1.0,-1.0,-1.0,-1.0,-1.0,1.0,-1.0,-1.0
2025-06-04 14:22:48.745,-0.012040788,-0.02642138,-0.03588449,0.019588266,0.07114659,-0.01790149,0.0,0.0,0.0,0.015151619,0.07614924,-0.5300353,-0.14853854,0.14150605,0.44200847,-0.14688268,-0.10763752,-0.5615294,-0.2436941,0.105060525,-0.51075864,-0.24633557,-0.06970581,-0.012569363,0.06557371,-0.02313394,-0.021522004,-0.067620724,-0.027867088,0.042786177,-0.0019325597,0.0059150066,-0.0481127,-0.06911091,1.0,-1.0,-1.0,1.0,1.0,-1.0,-1.0,-1.0,-1.0,1.0,-1.0,-1.0,1.0,-1.0,-1.0,1.0,1.0,-1.0,-1.0,-1.0,-1.0,1.0,-1.0,-1.0
2025-06-04 14:22:48.768,0.03753586,-0.02082776,0.016882898,0.0642803,0.08936393,0.020621339,0.0,0.0,0.0,0.015151507,0.077745564,-0.52186495,-0.16245568,0.13123089,0.43951726,-0.14430754,-0.096961126,-0.55984986,-0.24255283,0.10804857,-0.49613333,-0.2517701,-0.019223712,-0.00041818863,0.06867234,0.058098923,-0.034913357,-0.045639407,0.052809346,-0.047450565,0.013491881,-0.037264023,0.019098114,-0.054473367,1.0,-1.0,-1.0,1.0,1.0,-1.0,-1.0,-1.0,-1.0,1.0,-1.0,-1.0,1.0,-1.0,-1.0,1.0,1.0,-1.0,-1.0,-1.0,-1.0,1.0,-1.0,-1.0
2025-06-04 14:22:48.785,-0.040144183,-0.029845357,0.041363966,0.030799132,0.022808278,-0.030683074,0.0,0.0,0.0,0.015151415,0.090699464,-0.5345689,-0.16316472,0.14288332,0.45060235,-0.14463024,-0.10108034,-0.5474399,-0.23353873,0.121768564,-0.49352682,-0.24379316,-0.03475815,0.037787948,-0.03228207,-0.0470361,-0.008376145,0.031165041,-0.030052863,-0.06767944,-0.037346214,0.00947922,0.022686424,0.005461912,1.0,-1.0,-1.0,1.0,1.0,-1.0,-1.0,-1.0,-1.0,1.0,-1.0,-1.0,1.0,-1.0,-1.0,1.0,1.0,-1.0,-1.0,-1.0,-1.0,1.0,-1.0,-1.0
2025-06-04 14:22:48.806,0.029119277,0.03430254,-0.027095266,0.06361791,0.09485773,-0.012244718,0.0,0.0,0.0,0.015151342,0.080973655,-0.52544725,-0.15806046,0.14354879,0.4515084,-0.14590947,-0.09558791,-0.5519894,-0.25010553,0.111488454,-0.5071143,-0.2559171,0.0030283136,-0.032736994,-0.046779394,-0.04924679,0.06704343,0.04972238,-0.01493577,0.052272994,-0.018187637,0.074828364,0.037576977,0.048891637,1.0,-1.0,-1.0,1.0,1.0,-1.0,-1.0,-1.0,-1.0,1.0,-1.0,-1.0,1.0,-1.0,-1.0,1.0,1.0,-1.0,-1.0,-1.0,-1.0,1.0,-1.0,-1.0
2025-06-04 14:22:48.825,0.03485533,-0.03639491,0.0011921171,-0.0064244093,0.06518124,0.04567798,0.0,0.0,0.0,0.015151289,0.084074914,-0.52417994,-0.14985014,0.1377264,0.43578804,-0.1370539,-0.11295397,-0.55169535,-0.24246643,0.10883099,-0.50412816,-0.2463898,0.014955164,-0.018737251,-0.027321452,0.017106831,-0.03304342,-0.047250196,0.044379786,0.04463863,-0.051227793,-0.053705495,0.033126708,-0.040701784,1.0,-1.0,-1.0,1.0,1.0,-1.0,-1.0,-1.0,-1.0,1.0,-1.0,-1.0,1.0,-1.0,-1.0,1.0,1.0,-1.0,-1.0,-1.0,-1.0,1.0,-1.0,-1.0
2025-06-04 14:22:48.845,0.0016753593,-0.026013454,0.022232225,0.029998634,0.08537088,0.025116008,0.0,0.0,0.0,0.015151256,0.076630645,-0.52789456,-0.16383415,0.13564654,0.45437956,-0.14291026,-0.09454404,-0.55689454,-0.25304157,0.121314734,-0.5032801,-0.26136282,0.046490934,-0.020961078,-0.024061548,0.008048888,-0.041707907,-0.028066056,-0.0430069,0.052077968,-0.05226262,-0.0459354,-0.042876583,-0.06316546,1.0,-1.0,-1.0,1.0,1.0,-1.0,-1.0,-1.0,-1.0,1.0,-1.0,-1.0,1.0,-1.0,-1.0,1.0,1.0,-1.0,-1.0,-1.0,-1.0,1.0,-1.0,-1.0
2025-06-04 14:22:48.868,-0.034205496,-0.003294136,0.010105268,0.043949503,0.043690685,-0.027892055,0.0,0.0,0.0,0.015151241,0.0776346,-0.5325385,-0.14661266,0.13677372,0.43546772,-0.14285547,-0.10881485,-0.5542449,-0.25138757,0.114640675,-0.5084256,-0.26177555,-0.06167855,-0.055261523,-0.03585081,-0.030409725,0.016228115,0.048197143,-0.03418163,0.026761526,0.01131949,0.002960027,0.07296038,0.040668573,1.0,-1.0,-1.0,1.0,1.0,-1.0,-1.0,-1.0,-1.0,1.0,-1.0,-1.0,1.0,-1.0,-1.0,1.0,1.0,-1.0,-1.0,-1.0,-1.0,1.0,-1.0,-1.0
2025-06-04 14:22:48.885,0.0011624089,-0.02257579,0.04578549,-0.01888863,0.013486517,-0.017440652,0.0,0.0,0.0,0.015151241,0.074143246,-0.5317519,-0.15657167,0.13438866,0.44196445,-0.13611263,-0.111161515,-0.5643186,-0.23785211,0.10987783,-0.5023996,-0.24506007,-0.018651918,0.049724765,0.026771724,-0.044856224,-0.04914059,-0.012864338,-0.05657438,-0.045678757,0.008002039,0.02546222,0.020665178,0.041777406,1.0,-1.0,-1.0,1.0,1.0,-1.0,-1.0,-1.0,-1.0,1.0,-1.0,-1.0,1.0,-1.0,-1.0,1.0,1.0,-1.0,-1.0,-1.0,-1.0,1.0,-1.0,-1.0
2025-06-04 14:22:48.907,0.045015767,-0.0006537408,0.032641154,0.023691854,0.016804488,-0.034476243,0.0,0.0,0.0,0.015151255,0.0800934,-0.5260506,-0.15946665,0.13986929,0.44672206,-0.13627654,-0.10816771,-0.5530574,-0.24667522,0.111703314,-0.5060065,-0.258119,-0.06554701,-0.05438152,-0.008890163,0.03893474,0.072111204,0.045232113,0.0028510364,-0.07378564,0.023601456,-0.009062915,-0.013739805,0.022862498,1.0,-1.0,-1.0,1.0,1.0,-1.0,-1.0,-1.0,-1.0,1.0,-1.0,-1.0,1.0,-1.0,-1.0,1.0,1.0,-1.0,-1.0,-1.0,-1.0,1.0,-1.0,-1.0
2025-06-04 14:22:48.927,-0.02370871,0.014550805,-0.00846545,-0.006926628,0.015583798,0.038606707,0.0,0.0,0.0,0.01515128,0.090706095,-0.52350116,-0.15449001,0.1361076,0.4487118,-0.13502619,-0.10008592,-0.5494382,-0.24739216,0.11121517,-0.50286365,-0.2562434,0.07310855,-0.011919674,0.048787348,0.052002154,-0.014196573,-0.05745449,0.008852292,-0.059146494,0.015574174,0.06793218,0.010855263,0.038377017,1.0,-1.0,-1.0,1.0,1.0,-1.0,-1.0,-1.0,-1.0,1.0,-1.0,-1.0,1.0,-1.0,-1.0,1.0,1.0,-1.0,-1.0,-1.0,-1.0,1.0,-1.0,-1.0
2025-06-04 14:22:48.946,0.046604626,0.04378276,-0.038805775,0.0102207735,0.043459345,-0.009042273,0.0,0.0,0.0,0.015151314,0.08076674,-0.53655344,-0.14961505,0.14625318,0.44538915,-0.13999575,-0.10612125,-0.5504777,-0.2459657,0.10517558,-0.508783,-0.26071632,-0.0091602495,-0.023594756,0.07439433,0.07194693,0.0315629,0.056994766,0.048097543,0.024923855,-0.054201428,0.041611508,-0.06687062,-0.01682293,1.0,-1.0,-1.0,1.0,1.0,-1.0,-1.0,-1.0,-1.0,1.0,-1.0,-1.0,1.0,-1.0,-1.0,1.0,1.0,-1.0,-1.0,-1.0,-1.0,1.0,-1.0,-1.0
2025-06-04 14:22:48.968,0.028606601,0.0056383633,0.03459954,0.03867832,0.07146313,0.009076715,0.0,0.0,0.0,0.015151356,0.08019923,-0.52446926,-0.1535642,0.13915946,0.45300254,-0.13408752,-0.10205772,-0.56490046,-0.24810427,0.10947171,-0.5106783,-0.25959867,0.018663075,-0.040498577,-0.013264636,-0.05023515,0.027831798,-0.059317846,-0.051562514,-0.06281423,-0.015381057,0.018417152,-0.005526086,-0.04840794,1.0,-1.0,-1.0,1.0,1.0,-1.0,-1.0,-1.0,-1.0,1.0,-1.0,-1.0,1.0,-1.0,-1.0,1.0,1.0,-1.0,-1.0,-1.0,-1.0,1.0,-1.0,-1.0
2025-06-04 14:22:48.986,-0.00600742,-0.045620967,0.03866625,0.008551577,0.019454334,-0.04623999,0.0,0.0,0.0,0.015151403,0.08460492,-0.52770597,-0.15648107,0.13251153,0.44220242,-0.14005491,-0.09840031,-0.5563561,-0.24616504,0.11964699,-0.5028691,-0.25397372,-0.07029821,-0.07179358,0.07166117,0.059527457,0.01601979,0.04974443,-0.056158144,-0.013288977,0.031128682,0.067787975,0.054935645,0.0032742412,1.0,-1.0,-1.0,1.0,1.0,-1.0,-1.0,-1.0,-1.0,1.0,-1.0,-1.0,1.0,-1.0,-1.0,1.0,1.0,-1.0,-1.0,-1.0,-1.0,1.0,-1.0,-1.0
2025-06-04 14:22:49.006,-0.013981041,0.042101465,0.039283715,-0.0023579162,0.0821198,-0.027272312,0.0,0.0,0.0,0.015151452,0.08718603,-0.53576964,-0.16313925,0.13464527,0.44054368,-0.14123237,-0.10742531,-0.56459814,-0.25210416,0.1061017,-0.5023911,-0.24810335,0.06630457,-0.045684367,-0.039921544,-0.058519144,0.04191581,0.05548665,0.040067494,0.053126983,-0.04000354,-0.030634388,0.010488917,-0.026844975,1.0,-1.0,-1.0,1.0,1.0,-1.0,-1.0,-1.0,-1.0,1.0,-1.0,-1.0,1.0,-1.0,-1.0,1.0,1.0,-1.0,-1.0,-1.0,-1.0,1.0,-1.0,-1.0
2025-06-04 14:22:49.026,0.044138514,-0.02887414,0.04843572,-0.016680777,0.03421172,0.03386913,0.0,0.0,0.0,0.0151515035,0.07551271,-0.5275242,-0.16311081,0.13307814,0.44597512,-0.14113675,-0.10026966,-0.5578646,-0.24857593,0.10674562,-0.4953034,-0.25486392,-0.05633046,-0.009912555,-0.007950949,0.06838956,0.0005881304,-0.0009436438,0.05467463,-0.004587907,-0.004447508,-0.006100477,0.06957643,0.05025026,1.0,-1.0,-1.0,1.0,1.0,-1.0,-1.0,-1.0,-1.0,1.0,-1.0,-1.0,1.0,-1.0,-1.0,1.0,1.0,-1.0,-1.0,-1.0,-1.0,1.0,-1.0,-1.0
2025-06-04 14:22:49.047,-0.033080332,-0.009950294,0.03149634,-0.007726247,0.09262004,-0.047284625,0.0,0.0,0.0,0.015151554,0.08699186,-0.5240053,-0.14827172,0.12782216,0.45186952,-0.13404638,-0.10551277,-0.558424,-0.23377293,0.1134531,-0.49924478,-0.2577723,0.07471043,0.008743767,0.07308419,0.009841563,0.051783003,0.042400874,0.047599204,-0.006600198,0.0033935106,-0.05750223,0.04366636,0.04392942,1.0,-1.0,-1.0,1.0,1.0,-1.0,-1.0,-1.0,-1.0,1.0,-1.0,-1.0,1.0,-1.0,-1.0,1.0,1.0,-1.0,-1.0,-1.0,-1.0,1.0,-1.0,-1.0
2025-06-04 14:22:49.070,-0.015131167,-0.003885464,-0.004622185,0.048800834,0.07799966,-0.04414569,0.0,0.0,0.0,0.015151604,0.08189804,-0.53087854,-0.16230081,0.1270364,0.4462144,-0.1353272,-0.09834002,-0.5483401,-0.23369339,0.12105383,-0.4959792,-0.2520116,0.071046874,0.06791159,-0.014793843,0.022459151,-0.062656164,0.062371477,-0.023104126,0.021761134,-0.0009302572,-0.015881838,-0.028655298,-0.030256853,1.0,-1.0,-1.0,1.0,1.0,-1.0,-1.0,-1.0,-1.0,1.0,-1.0,-1.0,1.0,-1.0,-1.0,1.0,1.0,-1.0,-1.0,-1.0,-1.0,1.0,-1.0,-1.0
2025-06-04 14:22:49.086,-0.044794712,-0.02584567,0.031453602,0.046370395,0.10177207,-0.03146108,0.0,0.0,0.0,0.015151652,0.09124018,-0.5235376,-0.15364489,0.14341262,0.4533457,-0.13392782,-0.11259425,-0.5496039,-0.24890164,0.105514266,-0.50358695,-0.24540079,-0.059589494,-0.05595593,-0.04217015,0.035255816,0.03496928,-0.019290896,-0.0004026018,-0.07266825,0.044980854,0.03719119,0.053778227,0.01749341,1.0,-1.0,-1.0,1.0,1.0,-1.0,-1.0,-1.0,-1.0,1.0,-1.0,-1.0,1.0,-1.0,-1.0,1.0,1.0,-1.0,-1.0,-1.0,-1.0,1.0,-1.0,-1.0
2025-06-04 14:22:49.106,0.031617478,0.047681272,0.008326907,-0.0022770662,0.054011803,-0.030180814,0.0,0.0,0.0,0.015151696,0.087358266,-0.52410144,-0.15120661,0.13147199,0.4418243,-0.14489512,-0.11284629,-0.55211437,-0.23942646,0.108977355,-0.4988672,-0.26232758,-0.0107579855,-0.0723684,0.036349945,0.052691706,-0.04356263,-0.050383255,0.023407577,-0.07466291,0.0046088765,0.072504,-0.011111649,-0.037267964,1.0,-1.0,-1.0,1.0,1.0,-1.0,-1.0,-1.0,-1.0,1.0,-1.0,-1.0,1.0,-1.0,-1.0,1.0,1.0,-1.0,-1.0,-1.0,-1.0,1.0,-1.0,-1.0
2025-06-04 14:22:49.127,0.018865444,-0.02520296,0.023455167,0.06761134,0.0071837883,0.020433474,0.0,0.0,0.0,0.015151738,0.08669605,-0.538805,-0.15721369,0.13496095,0.4435599,-0.13472542,-0.09923351,-0.54746616,-0.24484676,0.1186847,-0.5002298,-0.26045617,0.06355044,-0.019540276,0.038127687,-0.006777296,0.041449655,0.011827062,0.024293633,0.016978614,-0.06423927,0.0599927,-0.0068863775,-0.030400526,1.0,-1.0,-1.0,1.0,1.0,-1.0,-1.0,-1.0,-1.0,1.0,-1.0,-1.0,1.0,-1.0,-1.0,1.0,1.0,-1.0,-1.0,-1.0,-1.0,1.0,-1.0,-1.0
2025-06-04 14:22:49.147,0.011148216,0.040621407,-0.041290008,0.016671475,0.033309728,-0.012056439,0.0,0.0,0.0,0.015151776,0.081569836,-0.53065455,-0.15015474,0.13813528,0.4357635,-0.13344374,-0.100391075,-0.5605949,-0.24235898,0.10848939,-0.49741524,-0.24843694,-0.032279693,-0.010878528,-0.007919621,0.043642696,0.00702267,-0.05278982,0.037364647,0.00890029,0.050564185,0.016700204,-0.013164671,0.036515504,1.0,-1.0,-1.0,1.0,1.0,-1.0,-1.0,-1.0,-1.0,1.0,-1.0,-1.0,1.0,-1.0,-1.0,1.0,1.0,-1.0,-1.0,-1.0,-1.0,1.0,-1.0,-1.0
2025-06-04 14:22:49.169,0.013867068,0.045537442,-0.0063936124,0.07252075,0.029775603,-0.0034100197,0.0,0.0,0.0,0.015151809,0.08368738,-0.5283163,-0.15530716,0.14585224,0.44663313,-0.13175051,-0.10470852,-0.5631572,-0.24886075,0.10719211,-0.50016004,-0.24774468,0.05582731,-0.06994009,-0.018076962,0.023409506,0.034255907,0.037838213,-0.03721286,-0.015290335,-0.0063454737,0.03759175,0.032781,-0.006180183,1.0,-1.0,-1.0,1.0,1.0,-1.0,-1.0,-1.0,-1.0,1.0,-1.0,-1.0,1.0,-1.0,-1.0,1.0,1.0,-1.0,-1.0,-1.0,-1.0,1.0,-1.0,-1.0
2025-06-04 14:22:49.187,0.006431909,0.035986274,0.027813355,0.043126285,0.04557037,0.020833336,0.0,0.0,0.0,0.015151837,0.089519806,-0.5276142,-0.1580982,0.1265549,0.45082924,-0.1481352,-0.1020864,-0.5565853,-0.23379971,0.10615688,-0.49570537,-0.2442868,-0.07019605,-0.02198657,-0.008065604,-0.034956213,-0.030499307,0.049347352,0.055113725,0.024053933,0.0053806845,-0.03317427,0.046734754,-0.057019398,1.0,-1.0,-1.0,1.0,1.0,-1.0,-1.0,-1.0,-1.0,1.0,-1.0,-1.0,1.0,-1.0,-1.0,1.0,1.0,-1.0,-1.0,-1.0,-1.0,1.0,-1.0,-1.0
2025-06-04 14:22:49.207,-0.02461717,0.04789911,-0.027499398,-0.02035084,0.08313708,0.001254247,0.0,0.0,0.0,0.01515186,0.09112136,-0.5208897,-0.15909246,0.14346601,0.43587014,-0.14824072,-0.09745667,-0.5567353,-0.24893007,0.113083184,-0.50158256,-0.24485953,0.006234195,0.02474438,0.07218068,-0.008292061,0.022049759,0.058139216,-0.054718222,0.0004841534,0.02709501,0.010140299,0.06901868,0.024365384,1.0,-1.0,-1.0,1.0,1.0,-1.0,-1.0,-1.0,-1.0,1.0,-1.0,-1.0,1.0,-1.0,-1.0,1.0,1.0,-1.0,-1.0,-1.0,-1.0,1.0,-1.0,-1.0
2025-06-04 14:22:49.229,-0.045816023,-0.031086367,0.043095145,-0.021972356,0.041648947,-0.022790233,0.0,0.0,0.0,0.01515188,0.08951212,-0.53205276,-0.15204142,0.12755439,0.45448855,-0.13451204,-0.10705495,-0.56553555,-0.24964736,0.11125435,-0.49303383,-0.26275387,-0.042827263,-0.026221158,0.053977177,0.056200344,0.043174736,-0.05391202,0.018708065,-0.013287141,0.07050096,0.021826971,-0.068053514,-0.062307753,1.0,-1.0,-1.0,1.0,1.0,-1.0,-1.0,-1.0,-1.0,1.0,-1.0,-1.0,1.0,-1.0,-1.0,1.0,1.0,-1.0,-1.0,-1.0,-1.0,1.0,-1.0,-1.0
2025-06-04 14:22:49.247,-0.0043118205,0.041131638,0.00838497,-0.0019871248,0.09938498,0.048501164,0.0,0.0,0.0,0.015151896,0.09224933,-0.5236336,-0.15293701,0.13363485,0.43964228,-0.13636877,-0.10127634,-0.5532438,-0.2342352,0.111209065,-0.50712717,-0.256621,0.06617783,0.008477453,-0.046530247,-0.055469975,0.02024091,-0.0538475,0.0020564573,-0.026917756,-0.022714674,0.031315967,-0.03433243,-0.0035183188,1.0,-1.0,-1.0,1.0,1.0,-1.0,-1.0,-1.0,-1.0,1.0,-1.0,-1.0,1.0,-1.0,-1.0,1.0,1.0,-1.0,-1.0,-1.0,-1.0,1.0,-1.0,-1.0
2025-06-04 14:22:49.269,-0.011500114,-0.04567576,-0.0037397936,0.034182474,0.038741756,0.03871149,0.0,0.0,0.0,0.01515191,0.08673539,-0.5240501,-0.15824912,0.12865788,0.45171377,-0.15096049,-0.106500365,-0.56023735,-0.239745,0.1051956,-0.51074797,-0.24496034,-0.035292726,0.05014865,-0.009321275,-0.046535302,0.018543022,0.012979697,-0.020599615,-0.022773858,0.0141990855,0.00306838,0.0048564286,0.066239744,1.0,-1.0,-1.0,1.0,1.0,-1.0,-1.0,-1.0,-1.0,1.0,-1.0,-1.0,1.0,-1.0,-1.0,1.0,1.0,-1.0,-1.0,-1.0,-1.0,1.0,-1.0,-1.0
2025-06-04 14:22:49.287,-0.027599711,0.015088467,0.0069678696,0.01091774,0.049880873,0.046459395,0.0,0.0,0.0,0.015151921,0.07711719,-0.52170545,-0.16083741,0.1420346,0.44546673,-0.1377263,-0.10799732,-0.55633974,-0.24713804,0.105195895,-0.5111948,-0.24972816,0.037466884,0.023728365,0.041953,0.0060234927,0.016128747,0.008030204,-0.035959553,0.018049797,0.06861751,-0.0039867833,0.023872117,0.0053621847,1.0,-1.0,-1.0,1.0,1.0,-1.0,-1.0,-1.0,-1.0,1.0,-1.0,-1.0,1.0,-1.0,-1.0,1.0,1.0,-1.0,-1.0,-1.0,-1.0,1.0,-1.0,-1.0
2025-06-04 14:22:49.307,-0.017979851,-0.019341534,0.042880837,0.019785786,0.01998789,0.0414451,0.0,0.0,0.0,0.015151931,0.09180039,-0.51983136,-0.15313692,0.14559335,0.45221627,-0.15031599,-0.10295224,-0.55972195,-0.24799089,0.10570103,-0.512219,-0.24872808,0.025214106,-0.012153203,0.0412902,-0.06370374,0.03345464,0.066567205,-0.07210231,-0.0159237,0.032538563,-0.018927287,-0.019411553,-0.031779565,1.0,-1.0,-1.0,1.0,1.0,-1.0,-1.0,-1.0,-1.0,1.0,-1.0,-1.0,1.0,-1.0,-1.0,1.0,1.0,-1.0,-1.0,-1.0,-1.0,1.0,-1.0,-1.0
2025-06-04 14:22:49.327,-0.010193531,-0.013333321,-0.04565094,0.007971838,0.09164666,-0.0006026993,0.0,0.0,0.0,0.015151939,0.07346655,-0.53874475,-0.15705211,0.1286871,0.44080818,-0.13736938,-0.10817704,-0.5623621,-0.23862888,0.1120103,-0.50660443,-0.2571718,0.029537782,-0.020589437,0.060024064,0.040356286,-0.043787755,-0.007393902,-0.024846492,0.05099866,-0.074464776,0.019435763,-0.07311154,0.017148783,1.0,-1.0,-1.0,1.0,1.0,-1.0,-1.0,-1.0,-1.0,1.0,-1.0,-1.0,1.0,-1.0,-1.0,1.0,1.0,-1.0,-1.0,-1.0,-1.0,1.0,-1.0,-1.0
2025-06-04 14:22:49.347,-0.013132656,-0.027774187,-0.035638135,0.0037603814,0.046354048,-0.008499711,0.0,0.0,0.0,0.015151946,0.082334734,-0.5207157,-0.1627684,0.14294289,0.45175993,-0.14930709,-0.112457514,-0.55650246,-0.2508262,0.1150348,-0.50065273,-0.24414648,-0.007384934,0.044886906,-0.06176173,-0.02045159,0.07258017,-0.052347567,-0.05146858,-0.072129026,0.072122134,-0.018884884,0.060458038,0.07215604,1.0,-1.0,-1.0,1.0,1.0,-1.0,-1.0,-1.0,-1.0,1.0,-1.0,-1.0,1.0,-1.0,-1.0,1.0,1.0,-1.0,-1.0,-1.0,-1.0,1.0,-1.0,-1.0
2025-06-04 14:22:49.368,0.027010424,0.007408,-0.015545177,0.036390133,0.060559228,0.01286668,0.0,0.0,0.0,0.0151519505,0.0729793,-0.52143425,-0.16135083,0.14497356,0.44790196,-0.13559322,-0.10705627,-0.5629657,-0.25245437,0.106157795,-0.50345504,-0.25957274,-0.05354537,-0.024240464,-0.05156135,0.06496501,0.04995157,-0.04418066,0.014450497,0.009669264,0.02737372,0.06809637,0.049741074,0.048979864,1.0,-1.0,-1.0,1.0,1.0,-1.0,-1.0,-1.0,-1.0,1.0,-1.0,-1.0,1.0,-1.0,-1.0,1.0,1.0,-1.0,-1.0,-1.0,-1.0,1.0,-1.0,-1.0
2025-06-04 14:22:49.388,0.018775038,-0.0048125503,-0.01628716,0.045467168,0.08866865,-0.049478598,0.0,0.0,0.0,0.015151955,0.08547344,-0.5338078,-0.1578324,0.14263496,0.44213912,-0.14731719,-0.10867124,-0.54741424,-0.234731,0.119018905,-0.49723765,-0.25389943,-0.016588345,0.023298394,-0.0069956556,0.067627914,-0.024266925,-0.04182985,-0.042221323,-0.04319298,-0.033810847,-0.014932817,0.059186187,-0.03367901,1.0,-1.0,-1.0,1.0,1.0,-1.0,-1.0,-1.0,-1.0,1.0,-1.0,-1.0,1.0,-1.0,-1.0,1.0,1.0,-1.0,-1.0,-1.0,-1.0,1.0,-1.0,-1.0
2025-06-04 14:22:49.407,-0.025802705,0.028598612,0.027439855,0.006013361,0.0841008,0.00480186,0.0,0.0,0.0,0.015151958,0.082043745,-0.5259368,-0.14749993,0.14573006,0.4431819,-0.13663973,-0.09813949,-0.5617338,-0.24678336,0.10472199,-0.50184333,-0.25482225,-0.04554408,0.0051538716,0.010896323,0.071973786,-0.04954173,0.04599173,0.0392229,-0.040234115,-0.0126114795,0.013779744,0.06063132,0.02643374,1.0,-1.0,-1.0,1.0,1.0,-1.0,-1.0,-1.0,-1.0,1.0,-1.0,-1.0,1.0,-1.0,-1.0,1.0,1.0,-1.0,-1.0,-1.0,-1.0,1.0,-1.0,-1.0
2025-06-04 14:22:49.428,-0.044802148,-0.013513211,0.046844244,0.027119227,0.0960748,3.2374413e-05,0.0,0.0,0.0,0.01515196,0.081425056,-0.5271106,-0.15643816,0.14182284,0.44430998,-0.145143,-0.10514028,-0.55558205,-0.23759015,0.119029626,-0.5000302,-0.2559925,0.025405338,0.00078476634,-0.015689991,0.053804092,0.05182883,0.07186974,-0.003886799,-0.048018076,0.05111506,0.01761821,-0.06617726,-0.05777239,1.0,-1.0,-1.0,1.0,1.0,-1.0,-1.0,-1.0,-1.0,1.0,-1.0,-1.0,1.0,-1.0,-1.0,1.0,1.0,-1.0,-1.0,-1.0,-1.0,1.0,-1.0,-1.0
2025-06-04 14:22:49.451,0.019825615,-0.022578329,0.02662848,0.0026027698,0.007920168,0.038653523,0.0,0.0,0.0,0.015151962,0.07817417,-0.5374124,-0.16270235,0.1284841,0.4413394,-0.14310636,-0.10526458,-0.55602866,-0.23943342,0.1051043,-0.49992412,-0.2440149,0.074340515,0.042915337,-0.0024197875,0.018225314,-0.050405152,0.0014455487,0.049538385,0.0389957,0.07206756,-0.04524554,0.03167203,0.068193056,1.0,-1.0,-1.0,1.0,1.0,-1.0,-1.0,-1.0,-1.0,1.0,-1.0,-1.0,1.0,-1.0,-1.0,1.0,1.0,-1.0,-1.0,-1.0,-1.0,1.0,-1.0,-1.0
2025-06-04 14:22:49.468,0.027555756,-0.030058218,-0.02383064,0.024351494,0.10117738,0.009830467,0.0,0.0,0.0,0.015151962,0.08849989,-0.535234,-0.15432124,0.14054382,0.4349736,-0.14133768,-0.094822995,-0.55750877,-0.2379023,0.11404803,-0.5059347,-0.24367172,0.018326622,0.020432126,-0.007293193,-0.00077939976,0.039374016,-0.018072728,-0.04725304,-0.03170062,0.07308104,0.02889597,0.030779328,-0.02195057,1.0,-1.0,-1.0,1.0,1.0,-1.0,-1.0,-1.0,-1.0,1.0,-1.0,-1.0,1.0,-1.0,-1.0,1.0,1.0,-1.0,-1.0,-1.0,-1.0,1.0,-1.0,-1.0
2025-06-04 14:22:49.488,-0.043898936,-0.030268319,0.028141875,-0.0028901333,0.032709368,0.01590768,0.0,0.0,0.0,0.015151963,0.08402004,-0.52049154,-0.15577632,0.13568959,0.43738073,-0.13815378,-0.09792207,-0.5519049,-0.24055843,0.106606625,-0.5065132,-0.24859756,0.013545043,0.061574616,-0.037655357,0.03167591,-0.059197705,0.071384065,0.002563664,-0.028265653,0.06716324,0.007529115,-0.033550758,0.052062403,1.0,-1.0,-1.0,1.0,1.0,-1.0,-1.0,-1.0,-1.0,1.0,-1.0,-1.0,1.0,-1.0,-1.0,1.0,1.0,-1.0,-1.0,-1.0,-1.0,1.0,-1.0,-1.0
2025-06-04 14:22:49.507,0.010107796,-0.028528841,0.016470574,0.011871069,0.08329864,-0.015894866,0.0,0.0,0.0,0.015151962,0.085092515,-0.5250544,-0.16305493,0.1330659,0.43862316,-0.1384599,-0.10940066,-0.55324167,-0.23619832,0.10822493,-0.5054476,-0.24581598,-0.03852326,0.058156718,-0.074314676,-0.031723708,-0.018287737,0.05680701,-0.06784175,0.052638747,-0.0025127556,0.061528686,0.020341108,-0.0017772972,1.0,-1.0,-1.0,1.0,1.0,-1.0,-1.0,-1.0,-1.0,1.0,-1.0,-1.0,1.0,-1.0,-1.0,1.0,1.0,-1.0,-1.0,-1.0,-1.0,1.0,-1.0,-1.0
2025-06-04 14:22:49.528,0.018879,-0.02901864,0.04712695,-0.005455356,0.09831562,-0.035138942,0.0,0.0,0.0,0.015151962,0.08922239,-0.5315855,-0.16305037,0.14225942,0.44584054,-0.13166195,-0.10336596,-0.56091905,-0.25053248,0.120344944,-0.51125395,-0.259291,0.059770595,0.024754347,0.013168817,0.063317224,0.03830451,0.00074961537,0.06137814,-0.01876594,-0.030987147,0.034168158,-0.07243841,-0.059155088,1.0,-1.0,-1.0,1.0,1.0,-1.0,-1.0,-1.0,-1.0,1.0,-1.0,-1.0,1.0,-1.0,-1.0,1.0,1.0,-1.0,-1.0,-1.0,-1.0,1.0,-1.0,-1.0
2025-06-04 14:22:49.551,-0.01540872,0.03716673,0.023382857,0.009891324,0.012893337,-0.026606586,0.0,0.0,0.0,0.015151961,0.0837893,-0.52547514,-0.16457936,0.13670295,0.4445825,-0.14586273,-0.113559365,-0.56509984,-0.24973132,0.1131032,-0.5013054,-0.24812089,-0.05103011,-0.020939758,0.031359557,-0.017552154,-0.06597001,0.04122238,0.038872126,0.07009466,-0.038954016,0.012290971,-0.04565131,0.046674304,1.0,-1.0,-1.0,1.0,1.0,-1.0,-1.0,-1.0,-1.0,1.0,-1.0,-1.0,1.0,-1.0,-1.0,1.0,1.0,-1.0,-1.0,-1.0,-1.0,1.0,-1.0,-1.0
2025-06-04 14:22:49.568,-0.049929775,0.037940133,0.01045632,0.06502706,0.051639523,0.020605475,0.0,0.0,0.0,0.015151961,0.08654724,-0.5382417,-0.1601782,0.13217817,0.45229208,-0.13629772,-0.109333225,-0.5489995,-0.247515,0.11079531,-0.501097,-0.24311033,0.0066658165,0.06410313,0.07264004,0.007377672,-0.021867782,-0.02579592,-0.012337685,0.0527871,0.0092384815,-0.041333623,0.0057668053,-0.015323274,1.0,-1.0,-1.0,1.0,1.0,-1.0,-1.0,-1.0,-1.0,1.0,-1.0,-1.0,1.0,-1.0,-1.0,1.0,1.0,-1.0,-1.0,-1.0,-1.0,1.0,-1.0,-1.0
2025-06-04 14:22:49.588,0.014294458,-0.0350794,0.033026215,0.063553825,0.028047595,-0.04809661,0.0,0.0,0.0,0.01515196,0.082162105,-0.5384135,-0.15302253,0.13495356,0.43545732,-0.13317841,-0.1061377,-0.56216854,-0.24962057,0.10706619,-0.5007179,-0.24616174,-0.0013947219,-0.057224553,0.021927867,0.0055570616,-0.04133893,-0.045806598,-0.041020524,0.032209203,-0.025585957,0.04784043,-0.051270366,-0.022346046,1.0,-1.0,-1.0,1.0,1.0,-1.0,-1.0,-1.0,-1.0,1.0,-1.0,-1.0,1.0,-1.0,-1.0,1.0,1.0,-1.0,-1.0,-1.0,-1.0,1.0,-1.0,-1.0
2025-06-04 14:22:49.609,-0.031571854,-0.006137523,-0.010544001,-0.0076447753,0.06759569,0.029695945,0.0,0.0,0.0,0.015151959,0.09058758,-0.5212404,-0.16439345,0.12864713,0.43703172,-0.14417537,-0.09927685,-0.5501885,-0.24971944,0.11962793,-0.51126915,-0.2526692,-0.029059432,0.05611385,0.0060344483,-0.03972584,-0.03805291,-0.07231568,0.03765436,0.06431929,0.015904183,0.03954278,0.05154622,-0.030076487,1.0,-1.0,-1.0,1.0,1.0,-1.0,-1.0,-1.0,-1.0,1.0,-1.0,-1.0,1.0,-1.0,-1.0,1.0,1.0,-1.0,-1.0,-1.0,-1.0,1.0,-1.0,-1.0
2025-06-04 14:22:49.630,-0.009107552,-0.03546674,0.040805213,0.05832945,0.07620084,-0.013385472,0.0,0.0,0.0,0.015151959,0.08631764,-0.5206397,-0.1487235,0.13827518,0.43962368,-0.14024971,-0.09685171,-0.560647,-0.24005981,0.106614634,-0.4969,-0.25741976,-0.004624524,-0.050003733,0.054917283,-0.052945457,0.06797657,0.061288238,-0.07189846,-0.01234997,-0.05671357,-0.045952663,0.02627416,-0.05327903,1.0,-1.0,-1.0,1.0,1.0,-1.0,-1.0,-1.0,-1.0,1.0,-1.0,-1.0,1.0,-1.0,-1.0,1.0,1.0,-1.0,-1.0,-1.0,-1.0,1.0,-1.0,-1.0
2025-06-04 14:22:49.652,0.009706702,-0.037805237,-0.005179383,0.03161639,0.04650053,0.04095555,0.0,0.0,0.0,0.015151958,0.07766543,-0.536072,-0.14728002,0.13354477,0.44688657,-0.13306196,-0.10259198,-0.54735917,-0.24147601,0.108856864,-0.49326372,-0.24548396,0.056813587,-0.045385085,0.015927512,-0.019181227,0.056104183,-0.06683395,-0.0434784,0.065333,-0.021641713,0.02750936,0.043344818,0.06618826,1.0,-1.0,-1.0,1.0,1.0,-1.0,-1.0,-1.0,-1.0,1.0,-1.0,-1.0,1.0,-1.0,-1.0,1.0,1.0,-1.0,-1.0,-1.0,-1.0,1.0,-1.0,-1.0
2025-06-04 14:22:49.669,0.041720767,0.010276085,0.014839686,-0.018855594,0.03728317,0.044702563,0.0,0.0,0.0,0.015151958,0.09220123,-0.5260127,-0.14626412,0.13311216,0.44022095,-0.14295761,-0.09396845,-0.5472682,-0.24013503,0.11260397,-0.5057802,-0.25776738,0.02850301,0.050565597,-0.071648754,0.020083418,-0.06663914,-0.055874616,-0.00010391845,0.03275201,0.041212507,0.066229105,-0.06107878,-0.010880476,1.0,-1.0,-1.0,1.0,1.0,-1.0,-1.0,-1.0,-1.0,1.0,-1.0,-1.0,1.0,-1.0,-1.0,1.0,1.0,-1.0,-1.0,-1.0,-1.0,1.0,-1.0,-1.0
2025-06-04 14:22:49.689,-0.042335797,-0.032140184,0.040874075,0.0133701265,0.029867224,0.037308216,0.0,0.0,0.0,0.015151957,0.09208982,-0.5235398,-0.15930055,0.13994095,0.45394307,-0.14935966,-0.10950262,-0.56559825,-0.24963197,0.120022684,-0.5024001,-0.25336424,0.05618562,0.04298898,-0.053072613,0.014592555,-0.03603349,-0.02955605,-0.014546993,0.071521774,0.061550967,-0.06537323,0.010569615,0.0481168,1.0,-1.0,-1.0,1.0,1.0,-1.0,-1.0,-1.0,-1.0,1.0,-1.0,-1.0,1.0,-1.0,-1.0,1.0,1.0,-1.0,-1.0,-1.0,-1.0,1.0,-1.0,-1.0
2025-06-04 14:22:49.709,0.010377946,-0.023573449,-0.0023113969,0.009199111,0.016341193,0.03690016,0.0,0.0,0.0,0.015151957,0.092572026,-0.522315,-0.1471382,0.14490448,0.4493712,-0.14316183,-0.11239674,-0.5552127,-0.2354607,0.11553771,-0.50441086,-0.24627015,0.0240068,0.045160722,0.027756033,0.04355336,0.058018725,-0.029431902,0.059792947,0.07467434,0.04804242,-0.04921953,0.04113357,-0.020686314,1.0,-1.0,-1.0,1.0,1.0,-1.0,-1.0,-1.0,-1.0,1.0,-1.0,-1.0,1.0,-1.0,-1.0,1.0,1.0,-1.0,-1.0,-1.0,-1.0,1.0,-1.0,-1.0
2025-06-04 14:22:49.729,0.027369969,0.03153727,0.0051083798,0.05084902,0.08870164,0.034795977,0.0,0.0,0.0,0.015151957,0.0780695,-0.5221259,-0.1510557,0.13635223,0.4532537,-0.14225857,-0.0960526,-0.5580116,-0.24478912,0.11132985,-0.51091653,-0.2576603,0.044130944,0.0673718,0.041899387,0.059082232,-0.033117034,0.028701259,0.0051164585,-0.027394654,0.042283755,0.062141664,0.03335079,0.057189904,1.0,-1.0,-1.0,1.0,1.0,-1.0,-1.0,-1.0,-1.0,1.0,-1.0,-1.0,1.0,-1.0,-1.0,1.0,1.0,-1.0,-1.0,-1.0,-1.0,1.0,-1.0,-1.0
2025-06-04 14:22:49.752,-0.015046311,-0.03796521,0.008361313,0.009077424,0.070036136,0.0038662208,0.0,0.0,0.0,0.015151956,0.08554576,-0.5220088,-0.15553325,0.1307835,0.44867745,-0.13162519,-0.09826068,-0.5587962,-0.24760649,0.11959127,-0.5033276,-0.249433,0.00914879,0.014585695,0.0424372,0.0016886847,0.008036167,-0.061968215,-0.046895243,0.033094488,0.003417399,-0.06323014,0.025181735,0.064128004,1.0,-1.0,-1.0,1.0,1.0,-1.0,-1.0,-1.0,-1.0,1.0,-1.0,-1.0,1.0,-1.0,-1.0,1.0,1.0,-1.0,-1.0,-1.0,-1.0,1.0,-1.0,-1.0
2025-06-04 14:22:49.769,-0.018217709,-0.04907465,0.03473664,0.017806925,0.04911447,0.02733465,0.0,0.0,0.0,0.015151956,0.084179536,-0.52687734,-0.14944619,0.13950635,0.45474562,-0.13587698,-0.10107666,-0.55199045,-0.2462134,0.10964091,-0.49886942,-0.25361553,-0.028636333,-0.06909676,-0.025832543,0.07115081,-0.034771424,0.05087314,-0.06983866,0.028393993,-0.018012628,0.06836326,0.0004744309,0.036013093,1.0,-1.0,-1.0,1.0,1.0,-1.0,-1.0,-1.0,-1.0,1.0,-1.0,-1.0,1.0,-1.0,-1.0,1.0,1.0,-1.0,-1.0,-1.0,-1.0,1.0,-1.0,-1.0
2025-06-04 14:22:49.790,-0.012468494,0.022028888,0.04919542,0.05355155,0.083013356,-0.021986725,0.0,0.0,0.0,0.015151956,0.08227495,-0.53535724,-0.15162817,0.13190804,0.44351915,-0.13778593,-0.10677237,-0.554749,-0.24545512,0.10361816,-0.5024448,-0.24421285,0.02259428,0.03518702,0.0541971,-0.016273605,-0.03793427,0.047864676,0.059151076,-0.0627302,0.027779073,-0.04552084,-0.06108092,0.03106781,1.0,-1.0,-1.0,1.0,1.0,-1.0,-1.0,-1.0,-1.0,1.0,-1.0,-1.0,1.0,-1.0,-1.0,1.0,1.0,-1.0,-1.0,-1.0,-1.0,1.0,-1.0,-1.0
2025-06-04 14:22:49.809,-0.00084103015,0.037666958,-0.025501942,0.018066932,0.09149499,-0.033489116,0.0,0.0,0.0,0.015151956,0.076354265,-0.5281632,-0.15139632,0.14457196,0.4515913,-0.14737855,-0.11200592,-0.55200136,-0.2488005,0.11322868,-0.50180274,-0.2523405,0.061447468,3.6562597e-05,0.06366275,0.06101937,0.07267578,-0.0609727,-0.055158876,-0.04600756,0.06732124,-0.0072052497,0.011069803,0.014920049,1.0,-1.0,-1.0,1.0,1.0,-1.0,-1.0,-1.0,-1.0,1.0,-1.0,-1.0,1.0,-1.0,-1.0,1.0,1.0,-1.0,-1.0,-1.0,-1.0,1.0,-1.0,-1.0
2025-06-04 14:22:49.829,-0.021241657,0.01511303,0.0321209,0.058824647,0.103474975,-0.038692735,0.0,0.0,0.0,0.015151956,0.07870146,-0.5330425,-0.14752361,0.1393111,0.45017478,-0.13940364,-0.09532822,-0.55447406,-0.2354098,0.122329205,-0.49862367,-0.26242375,-0.043128654,0.037289117,-0.015539754,0.053036388,0.011789281,-0.05736829,0.063415594,-0.018078301,-0.011050449,0.032136384,0.03061183,-0.058412496,1.0,-1.0,-1.0,1.0,1.0,-1.0,-1.0,-1.0,-1.0,1.0,-1.0,-1.0,1.0,-1.0,-1.0,1.0,1.0,-1.0,-1.0,-1.0,-1.0,1.0,-1.0,-1.0
2025-06-04 14:22:49.852,0.01398544,0.00044393193,0.018707976,0.06421639,0.00533604,0.012073495,0.0,0.0,0.0,0.015151956,0.09011956,-0.52145046,-0.16460545,0.12803768,0.45312917,-0.13901076,-0.1051771,-0.5511108,-0.23933414,0.11617828,-0.5058719,-0.25515187,-0.0522235,0.0060721417,-0.022774303,-0.044219166,0.007008397,-0.0098911375,0.073120214,0.03357822,-0.050207067,0.04584498,-0.05134671,-0.054426968,1.0,-1.0,-1.0,1.0,1.0,-1.0,-1.0,-1.0,-1.0,1.0,-1.0,-1.0,1.0,-1.0,-1.0,1.0,1.0,-1.0,-1.0,-1.0,-1.0,1.0,-1.0,-1.0
2025-06-04 14:22:49.869,0.00052103854,3.1341784e-05,0.039275475,-0.0135779325,0.090995945,0.0033061428,0.0,0.0,0.0,0.015151956,0.08067434,-0.5266217,-0.1518579,0.1351055,0.44192988,-0.14985843,-0.09981099,-0.54760355,-0.25134987,0.11661826,-0.49395663,-0.24315523,-0.06508424,-0.016466122,-0.06973748,0.06003412,-0.04319934,0.03414362,-0.035708386,-0.03495032,-0.0205661,-0.031912383,-0.06932072,0.05644386,1.0,-1.0,-1.0,1.0,1.0,-1.0,-1.0,-1.0,-1.0,1.0,-1.0,-1.0,1.0,-1.0,-1.0,1.0,1.0,-1.0,-1.0,-1.0,-1.0,1.0,-1.0,-1.0
2025-06-04 14:22:49.889,-0.027828684,0.0019460184,-0.04874692,0.03753029,0.038364097,0.046648394,0.0,0.0,0.0,0.015151956,0.07531389,-0.53351504,-0.15284406,0.13477278,0.44617546,-0.1499519,-0.09602291,-0.56321746,-0.23848395,0.115142785,-0.50115687,-0.25099602,-0.055577166,0.019627921,-0.049401864,0.050366662,0.0014727453,0.012534348,0.057691447,0.03142754,0.014340314,-0.05640308,0.027740777,0.05420086,1.0,-1.0,-1.0,1.0,1.0,-1.0,-1.0,-1.0,-1.0,1.0,-1.0,-1.0,1.0,-1.0,-1.0,1.0,1.0,-1.0,-1.0,-1.0,-1.0,1.0,-1.0,-1.0
2025-06-04 14:22:49.909,0.036184568,0.027478911,-0.0041984795,0.059428692,0.042277485,-0.0064488747,0.0,0.0,0.0,0.015151956,0.08552268,-0.5378417,-0.15729071,0.1440231,0.443387,-0.15063946,-0.10267415,-0.5664111,-0.25310102,0.107113846,-0.50673276,-0.24922203,0.00011917717,-0.050608046,-0.05748896,-0.026697816,0.02018424,0.06656683,-0.067953475,0.0089372,0.071387246,-0.064598896,0.0005102779,-0.0033820048,1.0,-1.0,-1.0,1.0,1.0,-1.0,-1.0,-1.0,-1.0,1.0,-1.0,-1.0,1.0,-1.0,-1.0,1.0,1.0,-1.0,-1.0,-1.0,-1.0,1.0,-1.0,-1.0
2025-06-04 14:22:49.929,0.028554123,0.0076977927,-0.03771967,0.06955551,0.027615773,-0.04451213,0.0,0.0,0.0,0.015151956,0.08928169,-0.52281636,-0.15681125,0.14000972,0.44102892,-0.1415793,-0.110874,-0.55661654,-0.25033045,0.10622591,-0.51008475,-0.2578906,-0.018883217,0.048528213,-0.049271066,0.034504026,0.046069823,0.049620636,-0.040103365,-0.053189017,0.050334048,0.03556117,0.00914743,-0.015209258,1.0,-1.0,-1.0,1.0,1.0,-1.0,-1.0,-1.0,-1.0,1.0,-1.0,-1.0,1.0,-1.0,-1.0,1.0,1.0,-1.0,-1.0,-1.0,-1.0,1.0,-1.0,-1.0
2025-06-04 14:22:49.952,-0.011797802,0.029284755,0.019012759,0.018944798,0.06741033,-0.0038184128,0.0,0.0,0.0,0.015151956,0.082779765,-0.5334408,-0.15618375,0.14179677,0.44164908,-0.14262088,-0.1015254,-0.55953676,-0.23461461,0.119932726,-0.50821763,-0.25494426,0.042748358,-0.005111675,-0.033790473,-0.07025354,-0.06126243,-0.02073591,-0.017694121,0.06408517,-0.058775965,0.050037198,-0.007959552,0.05869281,1.0,-1.0,-1.0,1.0,1.0,-1.0,-1.0,-1.0,-1.0,1.0,-1.0,-1.0,1.0,-1.0,-1.0,1.0,1.0,-1.0,-1.0,-1.0,-1.0,1.0,-1.0,-1.0
2025-06-04 14:22:49.969,0.023571504,0.029217653,-0.04975259,0.0046415697,0.082460724,0.01203014,0.0,0.0,0.0,0.015151956,0.09048829,-0.5301022,-0.15100051,0.1417445,0.4351247,-0.13993795,-0.10067457,-0.559466,-0.24025342,0.11592861,-0.4959957,-0.25424773,-0.072482,0.044514697,0.057697594,-0.054614045,0.05180046,-0.025464837,0.03509293,0.015853135,0.055744957,0.012717199,-0.033896673,0.017178595,1.0,-1.0,-1.0,1.0,1.0,-1.0,-1.0,-1.0,-1.0,1.0,-1.0,-1.0,1.0,-1.0,-1.0,1.0,1.0,-1.0,-1.0,-1.0,-1.0,1.0,-1.0,-1.0
2025-06-04 14:22:49.989,-0.026282443,-0.019018913,0.027027456,0.04949552,0.03167973,-0.047214575,0.0,0.0,0.0,0.015151956,0.08194813,-0.5365378,-0.14962602,0.131506,0.453083,-0.14869735,-0.10662375,-0.5549606,-0.23591395,0.10765974,-0.5119463,-0.25661257,0.032280717,-0.022080591,0.00058882724,-0.020263128,0.026583675,0.052597534,-0.06539289,0.054619256,0.05444747,0.07005973,0.045080163,0.044447564,1.0,-1.0,-1.0,1.0,1.0,-1.0,-1.0,-1.0,-1.0,1.0,-1.0,-1.0,1.0,-1.0,-1.0,1.0,1.0,-1.0,-1.0,-1.0,-1.0,1.0,-1.0,-1.0
2025-06-04 14:22:50.009,0.02168559,0.047659256,-0.035028316,-0.018600542,0.006608089,-0.009318685,0.0,0.0,0.0,0.015151956,0.084224164,-0.52680695,-0.15433879,0.14465714,0.44320983,-0.13959306,-0.095956914,-0.547761,-0.24331751,0.10456741,-0.49644428,-0.24722312,0.027794695,0.065750085,0.053474482,0.008983223,-0.007570032,0.041187357,0.0132725835,0.003950611,-0.06869728,0.018102517,0.045173567,0.050594077,1.0,-1.0,-1.0,1.0,1.0,-1.0,-1.0,-1.0,-1.0,1.0,-1.0,-1.0,1.0,-1.0,-1.0,1.0,1.0,-1.0,-1.0,-1.0,-1.0,1.0,-1.0,-1.0
2025-06-04 14:22:50.029,-0.015857214,-0.033992156,-0.042338647,0.020292662,0.09625247,-0.021328311,0.0,0.0,0.0,0.015151956,0.073047504,-0.5384844,-0.1610971,0.13710274,0.43851438,-0.13761309,-0.11367778,-0.56178236,-0.24279489,0.11270141,-0.4961003,-0.25572237,0.022254165,-0.01381422,-0.07192753,-0.032339387,-0.00752623,-0.044265874,-0.045106836,0.070243225,-0.0006652872,-0.07041859,-0.049663115,-0.012655935,1.0,-1.0,-1.0,1.0,1.0,-1.0,-1.0,-1.0,-1.0,1.0,-1.0,-1.0,1.0,-1.0,-1.0,1.0,1.0,-1.0,-1.0,-1.0,-1.0,1.0,-1.0,-1.0
2025-06-04 14:22:50.052,-0.01956323,-0.023352303,-0.009647314,0.018208234,0.08494448,-0.0075768004,0.0,0.0,0.0,0.015151956,0.07413117,-0.5211809,-0.16367951,0.13186452,0.44268036,-0.14495149,-0.108077295,-0.5582469,-0.25307587,0.1156301,-0.49721888,-0.24602361,-0.04667584,0.017552244,-0.073363654,-0.043876406,0.023890724,0.044738475,-0.022320895,0.06700302,0.05585348,0.0007400635,-0.014632142,0.015920272,1.0,-1.0,-1.0,1.0,1.0,-1.0,-1.0,-1.0,-1.0,1.0,-1.0,-1.0,1.0,-1.0,-1.0,1.0,1.0,-1.0,-1.0,-1.0,-1.0,1.0,-1.0,-1.0
2025-06-04 14:22:50.073,-0.03253113,0.042355344,0.044163518,0.02129758,0.028401908,-0.017394708,0.0,0.0,0.0,0.015151956,0.07502491,-0.5345388,-0.14663538,0.1330643,0.4499475,-0.13296294,-0.09661229,-0.5578178,-0.24541286,0.1108506,-0.5047343,-0.2599933,-0.07350509,0.05642878,-0.0071269185,0.049422,0.05999556,-0.006415312,-0.034455832,0.027196813,-0.02723353,0.008058561,0.029323285,0.032173134,1.0,-1.0,-1.0,1.0,1.0,-1.0,-1.0,-1.0,-1.0,1.0,-1.0,-1.0,1.0,-1.0,-1.0,1.0,1.0,-1.0,-1.0,-1.0,-1.0,1.0,-1.0,-1.0
2025-06-04 14:22:50.090,-0.02136754,0.029324092,-0.016501583,-0.0155177275,0.06030918,-0.021109339,0.0,0.0,0.0,0.015151956,0.08826426,-0.5329274,-0.15063281,0.14262898,0.43660435,-0.1455186,-0.100258,-0.558044,-0.23960954,0.11015428,-0.50183785,-0.2611168,0.073648065,0.06092923,-0.05928248,-0.062140383,-0.06521668,0.032097187,-0.06063921,-0.05451415,0.05713626,0.009962873,-0.0059949923,0.03335062,1.0,-1.0,-1.0,1.0,1.0,-1.0,-1.0,-1.0,-1.0,1.0,-1.0,-1.0,1.0,-1.0,-1.0,1.0,1.0,-1.0,-1.0,-1.0,-1.0,1.0,-1.0,-1.0
2025-06-04 14:22:50.110,0.017647121,-0.046140887,-0.041712064,0.00052160345,0.08518901,0.041618817,0.0,0.0,0.0,0.015151956,0.08943923,-0.5203766,-0.15042473,0.13780068,0.43976676,-0.14574935,-0.10143014,-0.5538237,-0.24674475,0.116417065,-0.49934438,-0.24389729,0.05260367,0.06250835,0.0061104237,-0.02155282,0.050735664,-0.07185105,0.04412172,0.039849363,0.019343024,-0.049625453,0.0014545069,-0.015473404,1.0,-1.0,-1.0,1.0,1.0,-1.0,-1.0,-1.0,-1.0,1.0,-1.0,-1.0,1.0,-1.0,-1.0,1.0,1.0,-1.0,-1.0,-1.0,-1.0,1.0,-1.0,-1.0
2025-06-04 14:22:50.130,-0.004724437,0.013259665,-0.0011266283,0.020420222,0.09556065,-0.020359807,0.0,0.0,0.0,0.015151956,0.07357187,-0.53414655,-0.1588425,0.13135454,0.45199683,-0.14204842,-0.09813228,-0.546629,-0.23820889,0.1161653,-0.49839368,-0.260711,0.0037289883,-0.044903684,0.04609764,0.041341625,0.038921867,0.0060694274,0.03036525,0.045206208,-0.052864924,-0.012144156,-0.055493016,0.06057229,1.0,-1.0,-1.0,1.0,1.0,-1.0,-1.0,-1.0,-1.0,1.0,-1.0,-1.0,1.0,-1.0,-1.0,1.0,1.0,-1.0,-1.0,-1.0,-1.0,1.0,-1.0,-1.0
2025-06-04 14:22:50.151,-0.046777237,-0.047302656,0.039741173,0.009757253,0.084839344,-0.0116562415,0.0,0.0,0.0,0.015151956,0.07495418,-0.53639233,-0.1570683,0.14385113,0.44773692,-0.139976,-0.104816094,-0.54999113,-0.24693124,0.1048235,-0.49718744,-0.2474992,0.04427008,0.015374712,0.069970965,-0.03396847,0.042421136,0.028930467,-0.04677123,0.071002744,-0.058725905,-0.024472538,0.05789209,0.010512721,1.0,-1.0,-1.0,1.0,1.0,-1.0,-1.0,-1.0,-1.0,1.0,-1.0,-1.0,1.0,-1.0,-1.0,1.0,1.0,-1.0,-1.0,-1.0,-1.0,1.0,-1.0,-1.0
2025-06-04 14:22:50.170,0.017599853,-0.020957254,0.005187722,0.064547114,0.03098278,0.03889445,0.0,0.0,0.0,0.015151956,0.083549164,-0.5289463,-0.14978835,0.14531891,0.4544972,-0.13514909,-0.10572,-0.5598332,-0.25200763,0.118174076,-0.5093882,-0.2545889,-0.051888555,0.006546661,0.052015223,0.0011179518,-0.021202791,0.023986258,-0.06755456,0.067014925,-0.0016357405,-0.02927835,0.06405193,0.026751772,1.0,-1.0,-1.0,1.0,1.0,-1.0,-1.0,-1.0,-1.0,1.0,-1.0,-1.0,1.0,-1.0,-1.0,1.0,1.0,-1.0,-1.0,-1.0,-1.0,1.0,-1.0,-1.0
2025-06-04 14:22:50.190,0.036988683,-0.014133754,0.022709055,0.0049534757,0.08321022,-0.033416875,0.0,0.0,0.0,0.015151956,0.08279266,-0.53480136,-0.15171461,0.13131481,0.4358327,-0.13522716,-0.10772331,-0.5558021,-0.25210512,0.107434265,-0.49522227,-0.24852885,-0.02164625,0.06460272,0.07212637,-0.013585261,-0.07449126,-0.030372128,-0.0721942,-0.017498653,-0.061808877,-0.04282743,0.0030410488,0.051730864,1.0,-1.0,-1.0,1.0,1.0,-1.0,-1.0,-1.0,-1.0,1.0,-1.0,-1.0,1.0,-1.0,-1.0,1.0,1.0,-1.0,-1.0,-1.0,-1.0,1.0,-1.0,-1.0
2025-06-04 14:22:50.210,-0.007257125,-0.0063089165,0.008153187,-0.00979463,0.01801878,-0.0007255651,0.0,0.0,0.0,0.015151956,0.083049685,-0.52382225,-0.16381936,0.14229324,0.4524378,-0.1398479,-0.10417474,-0.56176066,-0.24334304,0.10628277,-0.50094926,-0.25132683,-0.02147983,-0.013173565,-0.061484996,-0.037339125,0.06730662,0.015257808,-0.04223638,0.04910562,0.04807201,-0.021383224,-0.006581896,-0.030524958,1.0,-1.0,-1.0,1.0,1.0,-1.0,-1.0,-1.0,-1.0,1.0,-1.0,-1.0,1.0,-1.0,-1.0,1.0,1.0,-1.0,-1.0,-1.0,-1.0,1.0,-1.0,-1.0
2025-06-04 14:22:50.230,0.0027706183,-0.035324674,-0.048199717,0.04878878,0.041397806,-0.00664306,0.0,0.0,0.0,0.015151956,0.075096816,-0.52042544,-0.15375121,0.12902643,0.44617492,-0.13862593,-0.09655232,-0.5546405,-0.24909115,0.104575105,-0.4929514,-0.24432932,0.05984824,-0.022707192,-0.0024223472,-0.06889804,-0.044443075,-0.0134669645,-0.0017551902,-0.038261358,0.042280927,-0.03675606,-0.014319244,0.020696787,1.0,-1.0,-1.0,1.0,1.0,-1.0,-1.0,-1.0,-1.0,1.0,-1.0,-1.0,1.0,-1.0,-1.0,1.0,1.0,-1.0,-1.0,-1.0,-1.0,1.0,-1.0,-1.0
2025-06-04 14:22:50.251,0.0014138778,-0.01880749,-0.041881822,0.06262104,0.06356106,0.0037969195,0.0,0.0,0.0,0.015151956,0.08961404,-0.5202244,-0.15017599,0.13935512,0.43824175,-0.1425145,-0.10247074,-0.56600535,-0.25257903,0.11130706,-0.50752693,-0.25724545,-0.06823453,-0.004634884,-0.048629135,-0.058770392,-0.060573712,0.010719642,0.053287793,0.004043386,0.051718295,-0.026835848,0.028828798,0.0011191673,1.0,-1.0,-1.0,1.0,1.0,-1.0,-1.0,-1.0,-1.0,1.0,-1.0,-1.0,1.0,-1.0,-1.0,1.0,1.0,-1.0,-1.0,-1.0,-1.0,1.0,-1.0,-1.0
2025-06-04 14:22:50.270,0.0021057082,0.034557234,-0.04265751,-0.010404104,0.073618494,0.0012374463,0.0,0.0,0.0,0.015151956,0.07667715,-0.5349109,-0.16053931,0.1414478,0.4548654,-0.14339577,-0.10187696,-0.55632824,-0.25269613,0.11237349,-0.511635,-0.26216823,-0.051051036,-0.041430682,-0.059920963,-0.037237316,0.0050067306,0.05785376,0.010271172,0.02991442,-0.024038885,-0.0033209117,0.05127131,-0.02402213,1.0,-1.0,-1.0,1.0,1.0,-1.0,-1.0,-1.0,-1.0,1.0,-1.0,-1.0,1.0,-1.0,-1.0,1.0,1.0,-1.0,-1.0,-1.0,-1.0,1.0,-1.0,-1.0
2025-06-04 14:22:50.290,-0.020361712,0.017209794,-0.020650519,0.048325665,0.015250331,-0.027777867,0.0,0.0,0.0,0.015151956,0.07471505,-0.523436,-0.15019792,0.14219327,0.45279565,-0.15057535,-0.10158637,-0.56345224,-0.23635389,0.10796826,-0.49688402,-0.2455308,-0.027808664,-0.029403321,-0.027830763,-0.010547056,-0.009112782,-0.061460882,-0.006754342,-0.07362534,0.010635714,0.04767305,0.07395544,-0.025428304,1.0,-1.0,-1.0,1.0,1.0,-1.0,-1.0,-1.0,-1.0,1.0,-1.0,-1.0,1.0,-1.0,-1.0,1.0,1.0,-1.0,-1.0,-1.0,-1.0,1.0,-1.0,-1.0
2025-06-04 14:22:50.310,0.004042012,-0.04230947,-0.018183108,-0.0034155224,0.036603764,-0.045421883,0.0,0.0,0.0,0.015151956,0.08856539,-0.5360096,-0.16453642,0.1408081,0.44767708,-0.15007368,-0.111500405,-0.56603247,-0.24367322,0.10886714,-0.50499535,-0.24381046,-0.059364222,0.035218447,0.019896464,0.059911493,-0.009919551,0.01333607,0.016202739,-0.0029524276,0.0500567,-0.0024243803,-0.053654276,-0.063559316,1.0,-1.0,-1.0,1.0,1.0,-1.0,-1.0,-1.0,-1.0,1.0,-1.0,-1.0,1.0,-1.0,-1.0,1.0,1.0,-1.0,-1.0,-1.0,-1.0,1.0,-1.0,-1.0
2025-06-04 14:22:50.330,0.03525052,0.03350616,0.048498303,-0.003726514,0.09414472,0.035973836,0.0,0.0,0.0,0.015151956,0.08307975,-0.5296522,-0.15344132,0.13152637,0.44661483,-0.13317676,-0.09710526,-0.55270314,-0.24088478,0.112970784,-0.49603736,-0.26063514,-0.05636601,-0.027403245,0.023888143,0.038438343,0.0105607305,0.003456185,0.0050575687,0.047609843,-0.014687353,0.024095206,-0.02825454,-0.0510509,1.0,-1.0,-1.0,1.0,1.0,-1.0,-1.0,-1.0,-1.0,1.0,-1.0,-1.0,1.0,-1.0,-1.0,1.0,1.0,-1.0,-1.0,-1.0,-1.0,1.0,-1.0,-1.0
2025-06-04 14:22:50.351,-0.026307244,-0.03143898,0.0427683,0.016989449,0.025700657,0.021147806,0.0,0.0,0.0,0.015151956,0.08620924,-0.52848953,-0.16228417,0.13498183,0.44794738,-0.14072944,-0.11197626,-0.5515987,-0.24934037,0.12247737,-0.4963179,-0.25140548,-0.0033960354,-0.046214882,0.01937137,-0.04789857,0.049955353,0.006648689,-0.018344002,-0.023954839,0.04517135,0.030254388,0.0683143,0.0060977293,1.0,-1.0,-1.0,1.0,1.0,-1.0,-1.0,-1.0,-1.0,1.0,-1.0,-1.0,1.0,-1.0,-1.0,1.0,1.0,-1.0,-1.0,-1.0,-1.0,1.0,-1.0,-1.0
2025-06-04 14:22:50.370,0.0040742317,0.02908793,-0.046308074,-0.011572481,0.02651778,-0.0069292947,0.0,0.0,0.0,0.015151956,0.079846926,-0.5329922,-0.16093408,0.13128757,0.4436215,-0.13155007,-0.10305917,-0.54843825,-0.2431968,0.114547,-0.4933569,-0.2556581,0.043529294,-0.02162363,-0.05767373,-0.0051904814,0.017874643,-0.011177842,-0.065823,-0.009128667,0.028578317,-0.031041186,0.048327528,0.073867194,1.0,-1.0,-1.0,1.0,1.0,-1.0,-1.0,-1.0,-1.0,1.0,-1.0,-1.0,1.0,-1.0,-1.0,1.0,1.0,-1.0,-1.0,-1.0,-1.0,1.0,-1.0,-1.0
2025-06-04 14:22:50.390,-0.04027288,0.032560077,0.02386887,0.022198064,0.08702441,0.032743897,0.0,0.0,0.0,0.015151956,0.08379014,-0.5196253,-0.16077709,0.13456208,0.44240218,-0.1367405,-0.10449988,-0.5607161,-0.24482468,0.118568115,-0.5058582,-0.24747166,0.068342686,-0.03181539,0.008436928,-0.054737102,0.012327499,0.037311118,-0.035721313,-0.04402219,0.029627116,-0.062912434,-0.00724617,0.050801273,1.0,-1.0,-1.0,1.0,1.0,-1.0,-1.0,-1.0,-1.0,1.0,-1.0,-1.0,1.0,-1.0,-1.0,1.0,1.0,-1.0,-1.0,-1.0,-1.0,1.0,-1.0,-1.0
2025-06-04 14:22:50.410,0.017691137,0.039576307,0.040532023,0.029411953,0.064048626,0.028426044,0.0,0.0,0.0,0.015151956,0.079384945,-0.523742,-0.16052704,0.1440517,0.44959372,-0.14971846,-0.09646066,-0.5556906,-0.2385978,0.10613846,-0.504716,-0.259067,0.0616016,0.050885998,-0.0059899483,-0.05605654,0.018525505,0.072398454,0.032749046,-0.015298704,-0.06696881,-0.06988557,-0.0699781,0.06464793,1.0,-1.0,-1.0,1.0,1.0,-1.0,-1.0,-1.0,-1.0,1.0,-1.0,-1.0,1.0,-1.0,-1.0,1.0,1.0,-1.0,-1.0,-1.0,-1.0,1.0,-1.0,-1.0
2025-06-04 14:22:50.434,-0.017257929,-0.022673884,-0.012970587,-0.018428117,0.094818205,0.016682008,0.0,0.0,0.0,0.015151956,0.08179139,-0.5227992,-0.15822525,0.1310572,0.44098094,-0.13956654,-0.10282198,-0.5484805,-0.24092859,0.10439413,-0.5036261,-0.26171112,-0.046684127,0.03457092,0.029313961,-0.04073341,-0.05594511,0.018167559,0.03648611,-0.04586858,0.0521357,0.033456173,0.07485786,-0.0010012188,1.0,-1.0,-1.0,1.0,1.0,-1.0,-1.0,-1.0,-1.0,1.0,-1.0,-1.0,1.0,-1.0,-1.0,1.0,1.0,-1.0,-1.0,-1.0,-1.0,1.0,-1.0,-1.0
2025-06-04 14:22:50.452,-0.04172288,-0.0028391287,0.006081322,0.0060912035,0.05441186,0.012459255,0.0,0.0,0.0,0.015151956,0.07388843,-0.5290869,-0.16529149,0.14229026,0.45182782,-0.13255352,-0.09738133,-0.5615606,-0.24172275,0.11798965,-0.4942202,-0.25223476,-0.044976328,0.06747715,-0.031177482,-0.0299301,0.045743402,-0.036633395,-0.01824782,0.045791253,0.03846713,0.022918543,-0.014434333,0.037812207,1.0,-1.0,-1.0,1.0,1.0,-1.0,-1.0,-1.0,-1.0,1.0,-1.0,-1.0,1.0,-1.0,-1.0,1.0,1.0,-1.0,-1.0,-1.0,-1.0,1.0,-1.0,-1.0
2025-06-04 14:22:50.472,0.010281287,-0.0018019348,0.027662732,-0.007897233,0.09791254,-0.015124627,0.0,0.0,0.0,0.015151956,0.088446446,-0.5271861,-0.14654323,0.1434976,0.4362211,-0.14226528,-0.11336258,-0.56458116,-0.23872298,0.11173631,-0.50633156,-0.24549611,0.017608332,0.07337867,-0.066263944,-0.027657947,0.017649941,-0.06720443,-0.008737171,-0.071660504,0.019325798,-0.06047895,-0.0469389,0.07304038,1.0,-1.0,-1.0,1.0,1.0,-1.0,-1.0,-1.0,-1.0,1.0,-1.0,-1.0,1.0,-1.0,-1.0,1.0,1.0,-1.0,-1.0,-1.0,-1.0,1.0,-1.0,-1.0
2025-06-04 14:22:50.491,0.015758261,0.00072185026,0.01604096,0.02491028,0.019141736,-0.037157543,0.0,0.0,0.0,0.015151956,0.08861171,-0.5301857,-0.16411427,0.12989195,0.43668115,-0.14069608,-0.10542551,-0.5640249,-0.24942192,0.11581382,-0.5112653,-0.25801086,-0.060505077,-0.0052349293,0.05392834,-0.056596898,0.06633121,-0.023425452,-0.010491669,0.04519748,-0.047565293,-0.028497612,0.01012497,0.025298946,1.0,-1.0,-1.0,1.0,1.0,-1.0,-1.0,-1.0,-1.0,1.0,-1.0,-1.0,1.0,-1.0,-1.0,1.0,1.0,-1.0,-1.0,-1.0,-1.0,1.0,-1.0,-1.0
2025-06-04 14:22:50.511,-0.021994771,0.0036889038,-0.023068147,-0.015986232,0.09781748,-0.031901207,0.0,0.0,0.0,0.015151956,0.08355293,-0.52501863,-0.15695196,0.13637477,0.4533368,-0.15050548,-0.107696116,-0.5549167,-0.24949974,0.120604195,-0.5089275,-0.25905043,-0.003317522,-0.027854422,0.029866535,0.048487727,-0.036916934,0.0007176381,-0.07497917,-0.02393255,0.023121666,-0.05563242,-0.06173146,0.018941801,1.0,-1.0,-1.0,1.0,1.0,-1.0,-1.0,-1.0,-1.0,1.0,-1.0,-1.0,1.0,-1.0,-1.0,1.0,1.0,-1.0,-1.0,-1.0,-1.0,1.0,-1.0,-1.0
2025-06-04 14:22:50.535,-0.024087,0.034998395,-0.047187503,-0.0028565438,0.035115223,-0.006754658,0.0,0.0,0.0,0.015151956,0.092623405,-0.53385645,-0.15540259,0.13491307,0.44501215,-0.1478452,-0.108394876,-0.5534376,-0.24516648,0.11626991,-0.4960127,-0.24979654,-0.013252146,0.013129173,-0.031785768,0.0043782727,0.05758838,0.017325908,-0.0746671,0.063620806,-0.031590886,0.038963713,-0.016399408,-0.0457189,1.0,-1.0,-1.0,1.0,1.0,-1.0,-1.0,-1.0,-1.0,1.0,-1.0,-1.0,1.0,-1.0,-1.0,1.0,1.0,-1.0,-1.0,-1.0,-1.0,1.0,-1.0,-1.0
2025-06-04 14:22:50.551,0.039921142,0.048925657,0.004647994,0.041899342,0.03510385,0.005208605,0.0,0.0,0.0,0.015151956,0.08912066,-0.5364191,-0.15898274,0.14268698,0.4526518,-0.14180847,-0.0964011,-0.55767256,-0.24361224,0.11451282,-0.5119577,-0.25619206,-0.06732316,0.042831916,-0.051388238,-0.021782594,0.00028437845,0.00014394184,-0.058290225,-0.02922022,0.048485167,-0.029622175,-0.017911145,-0.027617965,1.0,-1.0,-1.0,1.0,1.0,-1.0,-1.0,-1.0,-1.0,1.0,-1.0,-1.0,1.0,-1.0,-1.0,1.0,1.0,-1.0,-1.0,-1.0,-1.0,1.0,-1.0,-1.0
2025-06-04 14:22:50.571,0.046678025,-0.017759131,0.021175215,0.058856692,0.027213098,-0.031852003,0.0,0.0,0.0,0.015151956,0.0907729,-0.53331035,-0.16106948,0.14535584,0.449398,-0.14967209,-0.10246487,-0.55702406,-0.24925828,0.11846914,-0.50834125,-0.25023228,0.014611482,-0.002768738,-0.047959395,0.056928534,0.06192505,-0.0075725135,-0.053015906,-0.02136291,0.016259825,-0.0537671,-0.046090756,-0.01884692,1.0,-1.0,-1.0,1.0,1.0,-1.0,-1.0,-1.0,-1.0,1.0,-1.0,-1.0,1.0,-1.0,-1.0,1.0,1.0,-1.0,-1.0,-1.0,-1.0,1.0,-1.0,-1.0
2025-06-04 14:22:50.591,0.00995262,0.02765203,0.0303072,0.00829977,0.08188593,0.010387238,0.0,0.0,0.0,0.015151956,0.08461422,-0.5226347,-0.15634954,0.13070571,0.45189214,-0.13752627,-0.100574434,-0.55072534,-0.24337886,0.11897876,-0.50219345,-0.25050768,0.009064353,0.07231313,0.043758627,-0.025912134,-0.009580617,0.018329129,-0.02369759,0.042771693,0.02876816,0.0105841635,0.03500612,0.06258459,1.0,-1.0,-1.0,1.0,1.0,-1.0,-1.0,-1.0,-1.0,1.0,-1.0,-1.0,1.0,-1.0,-1.0,1.0,1.0,-1.0,-1.0,-1.0,-1.0,1.0,-1.0,-1.0
2025-06-04 14:22:50.611,0.027524633,-0.040921845,-0.0076089157,0.00376043,0.061252076,-0.032784726,0.0,0.0,0.0,0.015151956,0.08935655,-0.53427905,-0.16330598,0.13845585,0.44662017,-0.14192641,-0.103770904,-0.5486632,-0.24913351,0.12174508,-0.5097188,-0.24625462,-0.033793677,0.04736406,-0.06445479,-0.040474646,0.07373375,0.04893311,-0.00444255,-0.025273584,-0.032991786,-0.007295372,0.035113152,0.054409914,1.0,-1.0,-1.0,1.0,1.0,-1.0,-1.0,-1.0,-1.0,1.0,-1.0,-1.0,1.0,-1.0,-1.0,1.0,1.0,-1.0,-1.0,-1.0,-1.0,1.0,-1.0,-1.0
2025-06-04 14:22:50.635,-0.0047796257,-0.031205485,-0.045941442,0.0777276,0.078829065,0.0015278469,0.0,0.0,0.0,0.015151956,0.091034904,-0.52968985,-0.16401123,0.13293406,0.43612716,-0.13717046,-0.09641539,-0.54848075,-0.24000607,0.11570205,-0.5054343,-0.25984251,0.06374129,-0.046637695,-0.073886745,-0.006505156,-0.011011466,-0.07376917,-0.06088962,0.027967855,-0.05047323,-0.015846958,0.0174259,0.044638064,1.0,-1.0,-1.0,1.0,1.0,-1.0,-1.0,-1.0,-1.0,1.0,-1.0,-1.0,1.0,-1.0,-1.0,1.0,1.0,-1.0,-1.0,-1.0,-1.0,1.0,-1.0,-1.0
