openverse-orca/OrcaGym/log/simulation_log_20250605_141429.csv
timestamp,imu_angle_roll,imu_angle_pitch,imu_angle_yaw,imu_angular_velocity_roll,imu_angular_velocity_pitch,imu_angular_velocity_yaw,imu_acc_x,imu_acc_y,imu_acc_z,fl_joint1_pos,fl_joint1_vel,fl_joint1_torque,fl_joint2_pos,fl_joint2_vel,fl_joint2_torque,fl_joint3_pos,fl_joint3_vel,fl_joint3_torque,fr_joint1_pos,fr_joint1_vel,fr_joint1_torque,fr_joint2_pos,fr_joint2_vel,fr_joint2_torque,fr_joint3_pos,fr_joint3_vel,fr_joint3_torque,hl_joint1_pos,hl_joint1_vel,hl_joint1_torque,hl_joint2_pos,hl_joint2_vel,hl_joint2_torque,hl_joint3_pos,hl_joint3_vel,hl_joint3_torque,hr_joint1_pos,hr_joint1_vel,hr_joint1_torque,hr_joint2_pos,hr_joint2_vel,hr_joint2_torque,hr_joint3_pos,hr_joint3_vel,hr_joint3_torque,fl_force_x,fl_force_y,fl_force_z,fr_force_x,fr_force_y,fr_force_z,hl_force_x,hl_force_y,hl_force_z,hr_force_x,hr_force_y,hr_force_z,fl_hip_action,fl_thigh_action,fl_calf_action,fr_hip_action,fr_thigh_action,fr_calf_action,hl_hip_action,hl_thigh_action,hl_calf_action,hr_hip_action,hr_thigh_action,hr_calf_action
2025-06-05 14:14:29.378,0.021987827,-0.03258024,0.003542964,0.0037064543,0.049536835,-0.045065403,2.9597023,1.3398595,0.0,0.0,-0.00045782316,-0.0068809567,0.0015087334,-0.004748389,-0.0012636089,-0.007146961,-0.0086687505,-0.0054966966,0.0075354944,0.005996612,-0.0056580016,0.002646459,0.06781719,-0.011897685,-0.040281188,0.028957576,-0.009073186,0.024384854,0.009654403,0.042325635,0.03140556,0.015964648,0.069785826,0.062471267,0.0,0.0,0.0,0.0,0.0,0.0,0.0,0.0,0.0,0.0,0.0,0.0,-2.0,1.9210795,2.0,2.0,1.7372218,1.4128542,2.0,-1.253416,-2.0,2.0,-0.23002878,-2.0
2025-06-05 14:14:29.386,-0.034615017,-0.040645782,-0.05189163,0.026268374,0.030640325,-0.049910232,0.0,0.0,0.0,0.0,-0.013805114,0.06022704,0.045680866,0.014760308,0.052357335,0.023369806,0.019648729,-0.03496481,-0.03323765,0.0048637865,8.265833e-05,-0.04197437,-0.077542946,0.1849537,0.08513052,0.06957343,0.16261707,0.07117107,0.0759813,-0.1589243,-0.11067633,0.014318534,-0.018928243,-0.08124217,-2.0,1.9210795,2.0,2.0,1.7372218,1.4128542,2.0,-1.253416,-2.0,2.0,-0.23002878,-2.0,-2.0,2.0,-1.8751459,-2.0,2.0,-2.0,2.0,-1.882919,-2.0,2.0,-2.0,-2.0
2025-06-05 14:14:29.404,-0.11786437,0.08318177,-0.016070483,-0.008517142,0.048709955,-0.020228093,0.0,0.0,0.0,0.00032105853,-0.03156427,0.1392778,0.0027545025,-0.0039404673,0.12869486,-0.021388402,0.03829595,-0.101763025,-0.08036034,0.020402174,-0.0720688,-0.07024808,-0.046188924,0.14144878,-0.09380474,0.01771892,0.21906336,-0.07330245,0.09165769,-0.098330304,-0.032859154,0.0878226,-0.22283591,-0.122761644,-2.0,2.0,-1.8751459,-2.0,2.0,-2.0,2.0,-1.882919,-2.0,2.0,-2.0,-2.0,2.0,2.0,-2.0,-2.0,1.9469786,-2.0,2.0,-2.0,-2.0,2.0,-2.0,-2.0
2025-06-05 14:14:29.424,9.76577e-05,0.022958675,-0.0676484,-0.02718081,0.0002643279,-0.048307993,0.0,0.0,0.0,0.00060322956,-0.0052222176,0.19959313,-0.044273786,-0.0016016387,0.16953076,-0.048139233,0.03653461,-0.14356284,-0.07219825,0.04261396,-0.12507558,-0.07192265,0.0020515556,0.13707316,-0.14964035,0.044010445,0.031621445,-0.09249839,0.06061519,-0.103278376,0.1142771,-0.035269164,-0.09560715,0.015967838,2.0,2.0,-2.0,-2.0,1.9469786,-2.0,2.0,-2.0,-2.0,2.0,-2.0,-2.0,2.0,2.0,-2.0,-2.0,1.4211223,-2.0,2.0,-2.0,-2.0,2.0,-2.0,-2.0
2025-06-05 14:14:29.444,-0.08165489,0.025313389,-0.039675146,-0.029654102,0.0038182472,-0.044162206,0.0,0.0,0.0,0.0009839678,0.0022289231,0.21555349,-0.07103058,-0.013639018,0.18492146,-0.046736564,0.043579336,-0.17657128,-0.042530738,0.052135903,-0.15875891,-0.059781596,0.015401805,0.08054041,-0.05388428,0.041771773,-0.010409696,-0.044584457,-0.039766457,-0.010735596,0.0080750985,0.08011253,-0.15348238,-0.005604345,2.0,2.0,-2.0,-2.0,1.4211223,-2.0,2.0,-2.0,-2.0,2.0,-2.0,-2.0,2.0,2.0,-2.0,-2.0,1.5124649,-2.0,2.0,-2.0,-2.0,2.0,-2.0,-2.0
2025-06-05 14:14:29.464,-0.122540146,0.06450601,0.014495752,-0.01985304,0.00074184965,0.0009433014,0.0,0.0,0.0,0.0011992662,-6.167936e-05,0.21645638,-0.08859447,-0.016525049,0.1715407,-0.052055866,0.03953777,-0.21069467,-0.032726225,0.0645863,-0.19739832,-0.050739907,-0.02972653,0.08436113,-0.11519586,0.0728926,0.023588251,-0.029915217,-0.033426154,-0.11962514,0.027306335,-0.04222413,-0.058551718,0.02041793,2.0,2.0,-2.0,-2.0,1.5124649,-2.0,2.0,-2.0,-2.0,2.0,-2.0,-2.0,2.0,2.0,-2.0,-2.0,2.0,-2.0,2.0,-2.0,-2.0,2.0,-2.0,-2.0
2025-06-05 14:14:29.488,-0.19994235,0.06316179,-0.012029189,-0.01559866,0.06119156,-0.046436623,0.0,0.0,0.0,0.0010668697,0.0011175458,0.23708998,-0.09909439,-0.0024288045,0.17316297,-0.07150889,0.056874532,-0.23207198,-0.017587405,0.081087604,-0.22199288,-0.08619352,-0.023259733,0.045922894,-0.12186179,0.025205718,-0.0075881933,-0.041674986,0.08756157,-0.04388919,-0.049383268,0.03316484,-0.05392598,-0.08587707,2.0,2.0,-2.0,-2.0,2.0,-2.0,2.0,-2.0,-2.0,2.0,-2.0,-2.0,2.0,2.0,-2.0,-2.0,1.9654086,-2.0,2.0,-2.0,-2.0,2.0,-2.0,-2.0
2025-06-05 14:14:29.504,-0.090630926,0.18785712,-0.03793926,0.018485244,0.032150444,-0.0033250968,0.0,0.0,0.0,0.0015204472,0.004089893,0.27277824,-0.12723535,-0.010220516,0.20925963,-0.08632258,0.06669426,-0.27094704,-0.06039398,0.07347927,-0.26456147,-0.110539526,0.066236936,0.117791586,0.0009173031,0.041492503,0.061987776,-0.0848822,0.002287421,-0.16481373,-0.06520656,0.0059210444,-0.03544852,-0.015031319,2.0,2.0,-2.0,-2.0,1.9654086,-2.0,2.0,-2.0,-2.0,2.0,-2.0,-2.0,2.0,2.0,-2.0,-2.0,2.0,-2.0,2.0,-2.0,-2.0,2.0,-2.0,-2.0
2025-06-05 14:14:29.524,-0.02793825,0.15354724,-0.09971687,0.020506652,0.0025855498,0.005341148,0.0,0.0,0.0,0.0028810743,0.018254086,0.29923266,-0.1409388,-0.0148994075,0.2352301,-0.111602485,0.07130354,-0.2921995,-0.077632256,0.075839795,-0.30920404,-0.1368076,-0.031747334,0.15765564,-0.06268303,0.03757475,0.046982937,-0.059428513,0.04744803,-0.115560114,-0.033393633,0.012914503,-0.08479856,-0.06711423,2.0,2.0,-2.0,-2.0,2.0,-2.0,2.0,-2.0,-2.0,2.0,-2.0,-2.0,2.0,2.0,-2.0,-2.0,1.320414,-2.0,2.0,-2.0,-2.0,2.0,-2.0,-2.0
2025-06-05 14:14:29.544,-0.10414388,0.048629858,-0.12598093,-0.003500844,0.073632,-0.012255223,0.0,0.0,0.0,0.0052016736,0.037662666,0.32727376,-0.17448287,-0.03435437,0.2509831,-0.14025436,0.07353959,-0.32289588,-0.077095196,0.08791039,-0.33707654,-0.15132858,0.034032065,0.14921516,-0.049996573,-0.0071580936,0.11040117,-0.015574652,0.075911686,0.008959995,0.01668316,-0.015892383,-0.12383347,-0.062905416,2.0,2.0,-2.0,-2.0,1.320414,-2.0,2.0,-2.0,-2.0,2.0,-2.0,-2.0,2.0,2.0,-2.0,-2.0,0.9579121,-2.0,2.0,-2.0,-2.0,2.0,-2.0,-2.0
2025-06-05 14:14:29.564,-0.1229069,0.03842889,-0.10517133,0.052826528,0.032866232,-0.036373448,0.0,0.0,0.0,0.007832217,0.053716537,0.34457928,-0.18629277,-0.0333193,0.25603068,-0.1398988,0.08357377,-0.33079368,-0.059203222,0.07563352,-0.3610474,-0.17363693,0.08704095,0.038095295,0.02800921,0.044015393,0.07583306,-0.012756625,0.052535478,-0.08144684,0.07518938,-0.050610587,-0.11976049,-0.10966207,2.0,2.0,-2.0,-2.0,0.9579121,-2.0,2.0,-2.0,-2.0,2.0,-2.0,-2.0,2.0,2.0,-2.0,-2.0,1.1147856,-2.0,2.0,-2.0,-2.0,2.0,-2.0,-2.0
2025-06-05 14:14:29.587,-0.14525014,0.028540207,-0.029603124,0.03563347,0.07321305,-0.0036848446,0.0,0.0,0.0,0.0101049235,0.04291215,0.3681965,-0.1934058,-0.031128664,0.26203826,-0.14306045,0.094721794,-0.35211554,-0.06590121,0.09220997,-0.3747059,-0.17874667,-0.03463699,0.046515647,0.018257426,-0.01449828,-0.06256477,-0.008361339,-0.010747494,-0.024385804,-0.030106073,-0.020343212,-0.06687404,0.0035484405,2.0,2.0,-2.0,-2.0,1.1147856,-2.0,2.0,-2.0,-2.0,2.0,-2.0,-2.0,2.0,2.0,-2.0,-2.0,1.6875842,-2.0,2.0,-2.0,-2.0,2.0,-2.0,-2.0
2025-06-05 14:14:29.604,-0.061701503,-0.010813775,-0.055305295,0.02902234,0.09446747,-0.039957836,0.0,0.0,0.0,0.011500761,0.05747291,0.37776425,-0.18820514,-0.042642172,0.26103288,-0.12914665,0.079014465,-0.36944938,-0.059391476,0.08325695,-0.39805618,-0.18013309,0.08256985,0.05896042,-0.100312,-0.064492874,0.050541043,0.021839371,-0.033316806,-0.073704906,-0.048050117,0.033669453,0.0144112045,0.017482238,2.0,2.0,-2.0,-2.0,1.6875842,-2.0,2.0,-2.0,-2.0,2.0,-2.0,-2.0,2.0,2.0,-2.0,-2.0,1.5892485,-2.0,2.0,-2.0,-2.0,2.0,-2.0,-2.0
2025-06-05 14:14:29.627,-0.05264764,0.030874487,-0.06541906,0.07444295,0.03436347,-0.035523377,0.0,0.0,0.0,0.012490725,0.061551616,0.38654694,-0.20112,-0.03725426,0.27287865,-0.14577857,0.095224746,-0.36487386,-0.05265419,0.102165215,-0.4004897,-0.1827124,0.07388992,0.00060455577,0.02469563,0.03243616,-0.0056104357,0.032024413,0.049440425,0.058597073,-0.068378,0.051892105,-0.015288359,0.0031035994,2.0,2.0,-2.0,-2.0,1.5892485,-2.0,2.0,-2.0,-2.0,2.0,-2.0,-2.0,2.0,2.0,-2.0,-2.0,1.5299933,-2.0,2.0,-2.0,-2.0,2.0,-2.0,-2.0
2025-06-05 14:14:29.647,-0.021696795,0.054133628,-0.024723826,0.079130135,0.04021,0.043005444,0.0,0.0,0.0,0.013569809,0.05856283,0.40669268,-0.21153304,-0.051182207,0.2641673,-0.13297366,0.09430823,-0.36964524,-0.0598083,0.10548763,-0.40922287,-0.18435355,0.022248896,0.062486857,-0.049269956,-0.05277234,0.063391045,0.006649608,-0.04400829,0.005294674,0.014825103,-0.0027829772,-0.0319792,-0.10600714,2.0,2.0,-2.0,-2.0,1.5299933,-2.0,2.0,-2.0,-2.0,2.0,-2.0,-2.0,2.0,2.0,-2.0,-2.0,1.5397187,-2.0,2.0,-2.0,-2.0,2.0,-2.0,-2.0
2025-06-05 14:14:29.669,0.006265393,-0.023649862,-0.020425458,0.028268225,0.10398769,-0.03332749,0.0,0.0,0.0,0.014841248,0.06219262,0.40657762,-0.21068022,-0.05208503,0.2666818,-0.13485427,0.07805714,-0.386665,-0.04618712,0.096623145,-0.41757208,-0.19212207,-0.0075785713,-0.04906558,0.05511327,-0.04329439,-0.026709516,0.04198745,0.017048392,-5.139829e-05,-0.056827657,0.07351933,-0.05734097,-0.036320843,2.0,2.0,-2.0,-2.0,1.5397187,-2.0,2.0,-2.0,-2.0,2.0,-2.0,-2.0,2.0,2.0,-2.0,-2.0,1.7561507,-2.0,2.0,-2.0,-2.0,2.0,-2.0,-2.0
2025-06-05 14:14:29.687,-0.016568452,0.0055455826,-0.10898526,-0.004601267,0.04546487,-0.0302985,0.0,0.0,0.0,0.016254032,0.060921103,0.4256389,-0.21652222,-0.048582833,0.2652881,-0.14514314,0.09263172,-0.39458615,-0.052718002,0.11249714,-0.42376694,-0.19186088,0.052827455,-0.032822903,-0.04882831,-0.07766755,0.054515954,-0.022027496,0.06042594,0.037914734,0.067781545,0.028970143,-0.050477352,0.025152087,2.0,2.0,-2.0,-2.0,1.7561507,-2.0,2.0,-2.0,-2.0,2.0,-2.0,-2.0,2.0,2.0,-2.0,-2.0,1.0857072,-2.0,2.0,-2.0,-2.0,2.0,-2.0,-2.0
2025-06-05 14:14:29.707,-0.07564422,0.026632724,-0.052151125,0.054057136,0.051646166,0.007991072,0.0,0.0,0.0,0.017560212,0.07006069,0.42244375,-0.2380516,-0.05763692,0.2650312,-0.14508037,0.09827525,-0.40627244,-0.054952815,0.114238285,-0.43198648,-0.2088627,0.0698196,0.059925117,0.049703166,-0.045657095,-0.055421785,-0.02498771,0.058355786,0.05519359,0.047090914,0.015137624,0.040032957,0.06984514,2.0,2.0,-2.0,-2.0,1.0857072,-2.0,2.0,-2.0,-2.0,2.0,-2.0,-2.0,2.0,2.0,-2.0,-2.0,1.526558,-2.0,2.0,-2.0,-2.0,2.0,-2.0,-2.0
2025-06-05 14:14:29.727,0.03690014,-0.00031706624,0.020411339,0.07137028,0.071777694,0.024140747,0.0,0.0,0.0,0.018432429,0.060016487,0.44575444,-0.24026975,-0.06470843,0.27985066,-0.13871893,0.09156655,-0.39757907,-0.040541798,0.098347,-0.44032657,-0.21283975,0.020814603,-0.0030894428,0.047653455,-0.060124718,0.050438564,-0.04377477,0.06758389,0.05264243,-0.038855683,0.06750585,-0.05319597,0.054480936,2.0,2.0,-2.0,-2.0,1.526558,-2.0,2.0,-2.0,-2.0,2.0,-2.0,-2.0,2.0,2.0,-2.0,-2.0,2.0,-2.0,2.0,-2.0,-2.0,2.0,-2.0,-2.0
2025-06-05 14:14:29.747,0.039524347,-0.02690527,0.0005209165,0.06869323,0.07609351,0.026578693,0.0,0.0,0.0,0.019016087,0.060216565,0.44314918,-0.24456985,-0.06826268,0.27726507,-0.14480542,0.09598329,-0.41606686,-0.048355874,0.11453993,-0.42999795,-0.20105775,-0.049131215,-0.020759461,-0.050717536,0.07123353,-0.03013387,0.0317413,-0.007299057,-0.02948099,-0.03149422,0.07001359,0.00391142,-0.016979055,2.0,2.0,-2.0,-2.0,2.0,-2.0,2.0,-2.0,-2.0,2.0,-2.0,-2.0,2.0,2.0,-2.0,-2.0,2.0,-2.0,2.0,-2.0,-2.0,2.0,-2.0,-2.0
2025-06-05 14:14:29.769,-0.06066167,0.02461017,-0.029410837,0.025102349,0.11189443,-0.030230151,0.0,0.0,0.0,0.019769542,0.06670126,0.4450637,-0.23039432,-0.06495004,0.27752241,-0.13540234,0.091250926,-0.41227803,-0.059216496,0.10883531,-0.4384277,-0.20821062,0.05703875,-0.0020227833,-0.031295944,-0.018785961,0.05044485,-0.06712445,0.07832765,0.062551126,-0.010068482,-0.074143834,-0.07653866,-0.09669425,2.0,2.0,-2.0,-2.0,2.0,-2.0,2.0,-2.0,-2.0,2.0,-2.0,-2.0,2.0,2.0,-2.0,-2.0,1.707912,-2.0,2.0,-2.0,-2.0,2.0,-2.0,-2.0
2025-06-05 14:14:29.787,-0.010924888,-0.040495545,-0.096107356,0.051579725,0.08571549,0.042172506,0.0,0.0,0.0,0.021003822,0.06132813,0.45989573,-0.23572457,-0.061750762,0.30025104,-0.14230837,0.09413065,-0.40474877,-0.052831624,0.098348565,-0.43889543,-0.21573947,-0.038825892,0.060530238,0.01189248,-0.078807995,0.03610877,-0.062948115,-0.029573744,-0.027580753,-0.06699891,0.049161963,-0.049443055,0.03803485,2.0,2.0,-2.0,-2.0,1.707912,-2.0,2.0,-2.0,-2.0,2.0,-2.0,-2.0,2.0,2.0,-2.0,-2.0,1.3036695,-2.0,2.0,-2.0,-2.0,2.0,-2.0,-2.0
2025-06-05 14:14:29.807,-0.063989684,0.04846236,0.009807792,0.014043506,0.13733305,0.002741242,0.0,0.0,0.0,0.022409782,0.058678187,0.46073973,-0.24984166,-0.066882126,0.28870004,-0.13478921,0.08478982,-0.40864128,-0.047853608,0.10459427,-0.4412663,-0.22770993,0.0271688,-0.043120075,0.009304684,0.0030512451,0.07154598,-0.041703485,0.058345176,-0.084179014,0.023616243,0.0349117,0.05049768,0.014205917,2.0,2.0,-2.0,-2.0,1.3036695,-2.0,2.0,-2.0,-2.0,2.0,-2.0,-2.0,2.0,2.0,-2.0,-2.0,2.0,-2.0,2.0,-2.0,-2.0,2.0,-2.0,-2.0
2025-06-05 14:14:29.827,0.064620174,0.005283864,-0.035441972,0.06364606,0.10084497,0.015645247,0.0,0.0,0.0,0.023274481,0.076936945,0.4582412,-0.23592988,-0.06596495,0.29790288,-0.14467603,0.10138358,-0.42255023,-0.050980642,0.10074622,-0.44426438,-0.22491664,0.04574868,0.03587186,-0.054936156,0.06507017,0.06822365,-0.025126902,0.054114573,-0.0023764241,0.03629522,0.05198541,-0.03176521,0.015342586,2.0,2.0,-2.0,-2.0,2.0,-2.0,2.0,-2.0,-2.0,2.0,-2.0,-2.0,2.0,2.0,-2.0,-2.0,1.6861264,-2.0,2.0,-2.0,-2.0,2.0,-2.0,-2.0
2025-06-05 14:14:29.847,-0.029108437,0.009472822,-0.014330274,0.07871371,0.07205576,-0.03558814,0.0,0.0,0.0,0.02398104,0.06326778,0.46889332,-0.2400135,-0.07030193,0.29579592,-0.14663513,0.08975015,-0.42369476,-0.049386844,0.103036076,-0.45660037,-0.21186627,0.01568366,0.081625976,-0.013092801,-0.073903315,0.006809604,-0.012605557,-0.060226213,0.009809255,-0.024672432,0.047887474,-0.07351203,0.027217854,2.0,2.0,-2.0,-2.0,1.6861264,-2.0,2.0,-2.0,-2.0,2.0,-2.0,-2.0,2.0,2.0,-2.0,-2.0,1.7149028,-2.0,2.0,-2.0,-2.0,2.0,-2.0,-2.0
2025-06-05 14:14:29.867,0.008549285,0.044051338,-0.05797158,-0.0058789584,0.13032298,0.04441255,0.0,0.0,0.0,0.0246072,0.06006528,0.45599797,-0.24525937,-0.06614707,0.31343216,-0.13064684,0.09902565,-0.41715372,-0.059418652,0.11334314,-0.4543747,-0.22908445,0.035655912,0.035210494,-0.0607277,-0.006088697,-0.03316448,0.07334496,0.029731657,-0.05593404,0.0126955835,-0.0013485608,0.059017293,-0.04906681,2.0,2.0,-2.0,-2.0,1.7149028,-2.0,2.0,-2.0,-2.0,2.0,-2.0,-2.0,2.0,2.0,-2.0,-2.0,1.5586023,-2.0,2.0,-2.0,-2.0,2.0,-2.0,-2.0
2025-06-05 14:14:29.890,0.021937827,-0.006954863,-0.060491424,0.0394,0.048804976,-0.024588175,0.0,0.0,0.0,0.025119837,0.068455756,0.4599922,-0.23990996,-0.07761899,0.31774658,-0.14368626,0.089044124,-0.42993027,-0.054718863,0.103721,-0.4652551,-0.21885987,0.023825165,-0.014589962,0.045998745,0.0024017498,-0.0074850605,-0.06510042,0.004023443,-0.03717153,-0.05485949,0.018719202,0.04783094,0.061637413,2.0,2.0,-2.0,-2.0,1.5586023,-2.0,2.0,-2.0,-2.0,2.0,-2.0,-2.0,2.0,2.0,-2.0,-2.0,1.7671374,-2.0,2.0,-2.0,-2.0,2.0,-2.0,-2.0
2025-06-05 14:14:29.907,-0.024309963,0.010759191,0.023460286,0.043893903,0.1391221,0.029471368,0.0,0.0,0.0,0.025488997,0.06911002,0.46078616,-0.24155256,-0.07552086,0.31139058,-0.14060707,0.08975232,-0.42989078,-0.059618693,0.1094006,-0.45868614,-0.2140146,0.03837793,0.06812768,-0.019689217,-0.018774293,-0.042828005,-0.055746857,0.066156425,-0.044795536,-0.012623676,-0.045295693,-0.04533979,-0.07274575,2.0,2.0,-2.0,-2.0,1.7671374,-2.0,2.0,-2.0,-2.0,2.0,-2.0,-2.0,2.0,2.0,-2.0,-2.0,2.0,-2.0,2.0,-2.0,-2.0,2.0,-2.0,-2.0
2025-06-05 14:14:29.928,0.021284379,0.015215552,-0.034477435,0.057013884,0.11681568,0.013383493,0.0,0.0,0.0,0.025809791,0.077934854,0.47923663,-0.24619608,-0.06945047,0.32365635,-0.12715262,0.09397469,-0.43321416,-0.058855753,0.118717045,-0.46315056,-0.2135831,0.02257946,-0.06714527,0.05555193,-0.06727328,0.057066053,0.006883968,0.048192017,0.02354422,-0.04309635,-0.03629849,-0.03972387,-0.06731489,2.0,2.0,-2.0,-2.0,2.0,-2.0,2.0,-2.0,-2.0,2.0,-2.0,-2.0,2.0,2.0,-2.0,-2.0,1.7831211,-2.0,2.0,-2.0,-2.0,2.0,-2.0,-2.0
2025-06-05 14:14:29.948,0.042195555,-0.0006448427,-0.027714731,0.014552196,0.0763008,0.043998417,0.0,0.0,0.0,0.0263101,0.0692054,0.46691847,-0.24407274,-0.08444799,0.31080478,-0.12937658,0.090244904,-0.4263791,-0.06421594,0.121128246,-0.44853944,-0.22621913,0.07494275,0.066956386,-0.013721649,-0.06970714,-0.048490006,-0.043133374,-0.02541923,0.034576472,0.06061768,-0.018067032,-0.018278938,-0.044479,2.0,2.0,-2.0,-2.0,1.7831211,-2.0,2.0,-2.0,-2.0,2.0,-2.0,-2.0,2.0,2.0,-2.0,-2.0,1.6253979,-2.0,2.0,-2.0,-2.0,2.0,-2.0,-2.0
2025-06-05 14:14:29.970,-0.040464837,-0.018637145,0.0010654896,0.012779543,0.10289884,-0.01118255,0.0,0.0,0.0,0.026846534,0.0647364,0.48368204,-0.24697918,-0.08475936,0.32612717,-0.14498527,0.09352271,-0.4316151,-0.056276187,0.12177594,-0.45210242,-0.21551523,-0.047281455,-0.06029343,0.019219145,0.038317982,0.043883085,0.008964361,-0.032639805,-0.015874548,0.029703014,0.0068023787,-0.039351437,0.010457681,2.0,2.0,-2.0,-2.0,1.6253979,-2.0,2.0,-2.0,-2.0,2.0,-2.0,-2.0,2.0,2.0,-2.0,-2.0,2.0,-2.0,2.0,-2.0,-2.0,2.0,-2.0,-2.0
2025-06-05 14:14:29.990,0.03649197,0.0442323,-0.017711425,0.059394136,0.12752242,0.01162474,0.0,0.0,0.0,0.027231261,0.0789415,0.47610635,-0.23309726,-0.07440628,0.3247694,-0.13696256,0.079376906,-0.4288567,-0.061342195,0.108079344,-0.4486868,-0.21528243,-0.0042382674,-0.06293767,-0.048795763,0.02310327,-0.049418148,0.0040134243,0.057150226,-0.040078882,-0.062422868,0.021584546,-0.0590559,0.008649507,2.0,2.0,-2.0,-2.0,2.0,-2.0,2.0,-2.0,-2.0,2.0,-2.0,-2.0,2.0,2.0,-2.0,-2.0,1.7979151,-2.0,2.0,-2.0,-2.0,2.0,-2.0,-2.0
2025-06-05 14:14:30.008,-0.019583007,-0.0012741358,0.0052278014,0.04702287,0.048620585,-0.03470538,0.0,0.0,0.0,0.02769057,0.07792267,0.48167664,-0.24413276,-0.08218871,0.33662796,-0.14432617,0.085181154,-0.43364027,-0.049598448,0.110881954,-0.4637541,-0.22795375,-0.027927259,0.035633158,-0.0020806773,-0.037548963,-0.051512927,0.025076512,-0.015879411,0.06263727,0.022007305,-0.012458058,0.00058506004,-0.020868642,2.0,2.0,-2.0,-2.0,1.7979151,-2.0,2.0,-2.0,-2.0,2.0,-2.0,-2.0,2.0,2.0,-2.0,-2.0,1.9351689,-2.0,2.0,-2.0,-2.0,2.0,-2.0,-2.0
2025-06-05 14:14:30.027,-0.041904286,-0.03358596,-0.0021429406,0.03317455,0.07738101,-0.011369924,0.0,0.0,0.0,0.028135918,0.072819054,0.47598407,-0.24869427,-0.07012427,0.33912292,-0.13708268,0.095343076,-0.4392309,-0.055036385,0.11161897,-0.4533271,-0.21875174,0.07104569,0.057610292,0.025793646,-0.04597912,-0.042179875,-0.018622056,0.00084026734,-0.042469308,-0.036928803,0.06784518,0.025888748,0.056468084,2.0,2.0,-2.0,-2.0,1.9351689,-2.0,2.0,-2.0,-2.0,2.0,-2.0,-2.0,2.0,2.0,-2.0,-2.0,2.0,-2.0,2.0,-2.0,-2.0,2.0,-2.0,-2.0
2025-06-05 14:14:30.047,-0.018230656,0.010249613,-0.049673416,0.05423942,0.07453099,-0.04140405,0.0,0.0,0.0,0.028587941,0.07470399,0.48967302,-0.22989257,-0.070406176,0.33545348,-0.12948458,0.08632219,-0.4301927,-0.05909116,0.10915871,-0.4567096,-0.2306846,-0.05141143,-0.032803982,0.02821273,0.008250636,-0.007900428,-0.045742754,0.055831525,-0.05131915,0.06768076,-0.04679383,0.062600285,-0.009991862,2.0,2.0,-2.0,-2.0,2.0,-2.0,2.0,-2.0,-2.0,2.0,-2.0,-2.0,2.0,2.0,-2.0,-2.0,1.7930522,-2.0,2.0,-2.0,-2.0,2.0,-2.0,-2.0
2025-06-05 14:14:30.070,0.013007927,0.025644416,-0.027512344,0.08330475,0.10768282,0.03506439,0.0,0.0,0.0,0.029128656,0.07842814,0.48755807,-0.24009274,-0.073294245,0.3412533,-0.13509537,0.09313464,-0.43662226,-0.068072654,0.12575363,-0.45774958,-0.23472905,-0.016594276,-0.05794527,0.0043625124,-0.019184276,0.05395633,0.059730537,-0.020418445,0.065161295,-0.015858617,0.06814975,0.025998108,0.040923957,2.0,2.0,-2.0,-2.0,1.7930522,-2.0,2.0,-2.0,-2.0,2.0,-2.0,-2.0,2.0,2.0,-2.0,-2.0,1.7337544,-2.0,2.0,-2.0,-2.0,2.0,-2.0,-2.0
2025-06-05 14:14:30.087,-0.031489577,0.0065884884,0.03584178,0.091486804,0.07952156,-0.037440624,0.0,0.0,0.0,0.029579896,0.07848885,0.48096633,-0.24758215,-0.06949064,0.34479395,-0.1286616,0.09733275,-0.4392139,-0.050404888,0.12662785,-0.45940244,-0.22124337,-0.013648472,0.034569383,-0.061153863,0.017861923,-0.0062368764,0.059471983,0.009965043,0.018648906,-0.062172297,0.07122478,0.04238245,0.034317292,2.0,2.0,-2.0,-2.0,1.7337544,-2.0,2.0,-2.0,-2.0,2.0,-2.0,-2.0,2.0,2.0,-2.0,-2.0,2.0,-2.0,2.0,-2.0,-2.0,2.0,-2.0,-2.0
2025-06-05 14:14:30.108,-0.0104560675,0.03574878,0.015730884,0.08030241,0.11274432,-0.02462729,0.0,0.0,0.0,0.029861305,0.07125891,0.48627988,-0.2414061,-0.07613754,0.35959616,-0.13275772,0.08008325,-0.44914865,-0.060333587,0.118531995,-0.4540895,-0.218525,0.054368764,0.06406728,-0.018250925,-0.021295775,0.023148136,0.048663575,-0.0023466574,0.061247867,-0.041827995,0.0026955558,0.01369959,0.0070178625,2.0,2.0,-2.0,-2.0,2.0,-2.0,2.0,-2.0,-2.0,2.0,-2.0,-2.0,2.0,2.0,-2.0,-2.0,2.0,-2.0,2.0,-2.0,-2.0,2.0,-2.0,-2.0
2025-06-05 14:14:30.128,0.055083144,-0.030009521,-0.0055930777,0.078111775,0.0899474,0.024919089,0.0,0.0,0.0,0.030189728,0.077127814,0.48112553,-0.23723729,-0.07851425,0.3556412,-0.13189921,0.085467905,-0.44810042,-0.06884091,0.10902277,-0.468625,-0.23036778,-0.022229457,-0.0204179,-0.05876224,-0.03683648,-0.022384465,-0.03587863,0.027012762,0.051576484,0.028123872,0.042716272,-0.041150946,0.04049367,2.0,2.0,-2.0,-2.0,2.0,-2.0,2.0,-2.0,-2.0,2.0,-2.0,-2.0,2.0,2.0,-2.0,-2.0,1.8321403,-2.0,2.0,-2.0,-2.0,2.0,-2.0,-2.0
2025-06-05 14:14:30.148,-0.003455549,0.009154099,0.02177072,0.080052786,0.09174817,0.043993365,0.0,0.0,0.0,0.03060399,0.062708154,0.4950236,-0.2264454,-0.08302473,0.36002818,-0.14175819,0.08824217,-0.449145,-0.063387826,0.110618465,-0.46132392,-0.22676699,-0.07408967,0.07061073,0.042361233,0.017264249,-0.0041079116,0.05958763,-0.027493915,0.007129546,0.033951543,-0.07351656,-0.037957855,0.07308931,2.0,2.0,-2.0,-2.0,1.8321403,-2.0,2.0,-2.0,-2.0,2.0,-2.0,-2.0,2.0,2.0,-2.0,-2.0,2.0,-2.0,2.0,-2.0,-2.0,2.0,-2.0,-2.0
2025-06-05 14:14:30.171,-0.013175364,-0.012663777,-0.06919953,0.06495564,0.038225282,-0.008029381,0.0,0.0,0.0,0.03094633,0.05947009,0.4967751,-0.22786969,-0.083867915,0.35950914,-0.1405521,0.07826613,-0.43968546,-0.053254243,0.115395196,-0.4665402,-0.2303457,0.022018569,-0.056294486,0.029950703,0.018629935,0.055223387,-0.06922407,-0.004895989,0.021702575,0.038529765,0.029666897,0.06700399,0.006461839,2.0,2.0,-2.0,-2.0,2.0,-2.0,2.0,-2.0,-2.0,2.0,-2.0,-2.0,2.0,2.0,-2.0,-2.0,1.6788269,-2.0,2.0,-2.0,-2.0,2.0,-2.0,-2.0
2025-06-05 14:14:30.188,0.038619783,0.009840699,0.02474884,0.080763206,0.11228283,-0.046116896,0.0,0.0,0.0,0.031308282,0.062204815,0.48264563,-0.23026058,-0.071964815,0.35853943,-0.13743271,0.07922044,-0.4505541,-0.06843802,0.1220371,-0.4560495,-0.22866257,-0.06485549,-0.036438737,-0.0686152,-0.002258908,0.021249468,-0.0064540245,0.013907938,-0.070933126,0.01924377,-0.06922369,0.049517132,-0.02083272,2.0,2.0,-2.0,-2.0,1.6788269,-2.0,2.0,-2.0,-2.0,2.0,-2.0,-2.0,2.0,2.0,-2.0,-2.0,2.0,-2.0,2.0,-2.0,-2.0,2.0,-2.0,-2.0
2025-06-05 14:14:30.208,-0.014739074,-0.0044507724,0.018730583,0.066524565,0.057231024,0.006702678,0.0,0.0,0.0,0.031525437,0.059070412,0.48425478,-0.22740595,-0.07527099,0.36051482,-0.14142223,0.08756413,-0.43552837,-0.06336828,0.12560728,-0.46181428,-0.22012231,0.05606659,0.04142461,0.06546014,0.06875689,0.061267763,0.04591621,-0.0024145553,0.032486428,-0.07506813,-0.046405863,-0.04682429,-0.046134226,2.0,2.0,-2.0,-2.0,2.0,-2.0,2.0,-2.0,-2.0,2.0,-2.0,-2.0,2.0,2.0,-2.0,-2.0,2.0,-2.0,2.0,-2.0,-2.0,2.0,-2.0,-2.0
2025-06-05 14:14:30.229,0.024108848,-0.017866237,-0.010335643,0.04651745,0.07932979,-0.043555755,0.0,0.0,0.0,0.03174683,0.0747532,0.50301987,-0.24039416,-0.075640075,0.35819095,-0.13243143,0.08238269,-0.445982,-0.05426751,0.113232054,-0.45294923,-0.22182363,0.04341692,-0.013310229,0.056111176,-0.02810337,0.07503167,-0.049782343,-0.059164785,0.033374727,-0.058727246,0.0651387,0.05110463,-0.008082218,2.0,2.0,-2.0,-2.0,2.0,-2.0,2.0,-2.0,-2.0,2.0,-2.0,-2.0,2.0,2.0,-2.0,-2.0,2.0,-2.0,2.0,-2.0,-2.0,2.0,-2.0,-2.0
2025-06-05 14:14:30.249,-0.019485762,-0.02789359,0.013393337,0.011298446,0.13486305,0.02290215,0.0,0.0,0.0,0.03206769,0.059462756,0.5033558,-0.22859843,-0.07753387,0.3786385,-0.14338197,0.07857677,-0.43856448,-0.06032623,0.12680148,-0.46200123,-0.23049036,0.02758379,-0.041134942,0.0222046,0.021857364,-0.062723964,0.06762578,0.013382546,0.024130724,-0.0648593,-0.019218612,0.005162466,0.031569757,2.0,2.0,-2.0,-2.0,2.0,-2.0,2.0,-2.0,-2.0,2.0,-2.0,-2.0,2.0,2.0,-2.0,-2.0,2.0,-2.0,2.0,-2.0,-2.0,2.0,-2.0,-2.0
2025-06-05 14:14:30.272,0.041263547,0.041280072,0.016958395,0.062735945,0.06943469,0.007962984,0.0,0.0,0.0,0.032439504,0.059968907,0.48959568,-0.22294705,-0.0696802,0.38253474,-0.13728222,0.088679925,-0.45051953,-0.059070174,0.12885971,-0.4668784,-0.21627001,0.027709141,-0.059413545,0.023702497,-0.023305776,0.032406326,0.0282815,0.008653226,-0.055609934,0.04042783,-0.025210235,0.015116177,0.055878073,2.0,2.0,-2.0,-2.0,2.0,-2.0,2.0,-2.0,-2.0,2.0,-2.0,-2.0,2.0,2.0,-2.0,-2.0,2.0,-2.0,2.0,-2.0,-2.0,2.0,-2.0,-2.0
2025-06-05 14:14:30.289,-0.025033364,0.0056820186,-0.06404482,0.06562943,0.10597659,-0.036863744,0.0,0.0,0.0,0.03282515,0.07547818,0.48732683,-0.22855386,-0.07915081,0.374252,-0.13682178,0.08967395,-0.45243594,-0.07194847,0.11890057,-0.4625242,-0.21910843,0.027156271,0.032222454,-0.07023884,0.017441506,0.07833672,0.022598635,0.0047792373,-0.052633386,-0.0067879613,-0.024814809,-0.0032451015,-0.056366574,2.0,2.0,-2.0,-2.0,2.0,-2.0,2.0,-2.0,-2.0,2.0,-2.0,-2.0,2.0,2.0,-2.0,-2.0,1.6945525,-2.0,2.0,-2.0,-2.0,2.0,-2.0,-2.0
2025-06-05 14:14:30.309,-0.010835424,-0.041570652,-0.0023206638,0.06823928,0.111095466,0.027186468,0.0,0.0,0.0,0.033197593,0.07008467,0.4950789,-0.23562331,-0.073912576,0.37462744,-0.12741016,0.0811756,-0.44516364,-0.06585312,0.12265068,-0.46117556,-0.23338151,-0.023301587,0.014436831,0.05795854,0.015289665,0.045748767,0.048045844,0.034146056,-0.009112051,0.015600424,0.019332144,0.05673649,-0.06292489,2.0,2.0,-2.0,-2.0,1.6945525,-2.0,2.0,-2.0,-2.0,2.0,-2.0,-2.0,2.0,2.0,-2.0,-2.0,2.0,-2.0,2.0,-2.0,-2.0,2.0,-2.0,-2.0
2025-06-05 14:14:30.329,0.042842194,-0.042752475,0.02487128,0.024891187,0.068422526,0.040366177,0.0,0.0,0.0,0.033367086,0.060372975,0.50184435,-0.23076253,-0.0650957,0.38862848,-0.13034615,0.08694489,-0.45640936,-0.06740131,0.11552156,-0.4554811,-0.23134094,0.051243793,-0.004625245,-0.048316356,0.0711424,0.0341319,-0.005449135,0.025369998,0.053035256,0.0026343986,0.039980493,-0.06435951,-0.017335046,2.0,2.0,-2.0,-2.0,2.0,-2.0,2.0,-2.0,-2.0,2.0,-2.0,-2.0,2.0,2.0,-2.0,-2.0,2.0,-2.0,2.0,-2.0,-2.0,2.0,-2.0,-2.0
2025-06-05 14:14:30.353,-0.04986051,0.027694741,-0.018419633,0.006487012,0.11759136,-0.037817188,0.0,0.0,0.0,0.033511862,0.05515742,0.48901498,-0.22170871,-0.06751894,0.37250614,-0.1242566,0.077843405,-0.45592943,-0.07258467,0.11032924,-0.4570946,-0.22162807,0.05731131,-0.056413922,0.038169846,0.02398939,0.012649779,0.0041730343,0.028272342,0.0045311544,-0.06521044,0.05607089,0.012675286,-0.016633777,2.0,2.0,-2.0,-2.0,2.0,-2.0,2.0,-2.0,-2.0,2.0,-2.0,-2.0,2.0,2.0,-2.0,-2.0,2.0,-2.0,2.0,-2.0,-2.0,2.0,-2.0,-2.0
2025-06-05 14:14:30.370,-0.007117711,-0.018334283,-0.034735005,0.05714069,0.09406952,-0.017990401,0.0,0.0,0.0,0.03373198,0.072557844,0.48823574,-0.22410373,-0.07528875,0.3777227,-0.13564877,0.08542592,-0.4438312,-0.07313786,0.110610865,-0.4720304,-0.21426721,-0.023346392,-0.026134867,0.018258428,-0.060015667,-0.029087787,0.07394584,-0.051339388,-0.071360506,-0.041619804,-0.030815598,0.07301812,0.051281124,2.0,2.0,-2.0,-2.0,2.0,-2.0,2.0,-2.0,-2.0,2.0,-2.0,-2.0,2.0,2.0,-2.0,-2.0,1.9678209,-2.0,2.0,-2.0,-2.0,2.0,-2.0,-2.0
2025-06-05 14:14:30.390,0.0044141174,-0.0136117535,-0.034401525,0.0234768,0.077164434,-0.0014952102,0.0,0.0,0.0,0.033997905,0.07303465,0.50456977,-0.22092184,-0.07742915,0.37734997,-0.13155803,0.09431673,-0.44205567,-0.072336584,0.12718679,-0.45552936,-0.21868196,0.044298634,0.009491449,0.040350754,0.0055739665,0.007956371,-0.026082115,-0.07147282,0.020632917,0.027629644,-0.07148785,-0.033158474,-0.06797983,2.0,2.0,-2.0,-2.0,1.9678209,-2.0,2.0,-2.0,-2.0,2.0,-2.0,-2.0,2.0,2.0,-2.0,-2.0,1.814999,-2.0,2.0,-2.0,-2.0,2.0,-2.0,-2.0
2025-06-05 14:14:30.410,-0.04549132,0.026099391,-0.01890181,0.022812482,0.09942302,-0.044460535,0.0,0.0,0.0,0.03425007,0.059475124,0.49098203,-0.23639314,-0.08107776,0.3889436,-0.13679862,0.085473076,-0.4460869,-0.06696836,0.118876606,-0.4602015,-0.21361423,0.04744248,-0.06862281,0.03330863,0.02993292,0.03480052,0.054935474,-0.030243643,-0.012775079,-0.008705616,0.004618049,-0.0020879968,0.047362357,2.0,2.0,-2.0,-2.0,1.814999,-2.0,2.0,-2.0,-2.0,2.0,-2.0,-2.0,2.0,2.0,-2.0,-2.0,2.0,-2.0,2.0,-2.0,-2.0,2.0,-2.0,-2.0
2025-06-05 14:14:30.430,-0.004678065,-0.016326502,-0.032770336,0.03255032,0.10363157,0.010693777,0.0,0.0,0.0,0.034376305,0.060244642,0.4998039,-0.23312496,-0.07759259,0.39057064,-0.1379879,0.09542331,-0.4552095,-0.06492081,0.120683245,-0.4649883,-0.22054401,0.066845074,0.027255606,-0.038541123,0.07277804,-0.02423088,-0.05373118,-0.001066754,-0.041182723,-0.0055061867,-0.020263556,0.073531024,-0.06652972,2.0,2.0,-2.0,-2.0,2.0,-2.0,2.0,-2.0,-2.0,2.0,-2.0,-2.0,2.0,2.0,-2.0,-2.0,1.9955817,-2.0,2.0,-2.0,-2.0,2.0,-2.0,-2.0
2025-06-05 14:14:30.453,0.036266394,-0.021756012,0.0056839157,0.078495145,0.13153848,0.009568301,0.0,0.0,0.0,0.03448771,0.055606347,0.49355087,-0.23356022,-0.0646781,0.37704659,-0.14187445,0.08042903,-0.44545656,-0.07740664,0.12072851,-0.45710286,-0.21473826,0.050375775,-0.012189465,0.019447032,0.03385201,0.048574053,-0.0521742,-0.002901521,-0.062466625,0.072728455,-0.039900932,0.058260605,-0.028969994,2.0,2.0,-2.0,-2.0,1.9955817,-2.0,2.0,-2.0,-2.0,2.0,-2.0,-2.0,2.0,2.0,-2.0,-2.0,2.0,-2.0,2.0,-2.0,-2.0,2.0,-2.0,-2.0
2025-06-05 14:14:30.470,0.03869542,0.014057504,-0.036194667,0.07642369,0.03786801,-0.043878123,0.0,0.0,0.0,0.03463738,0.07276286,0.4913953,-0.22969759,-0.06175918,0.38282904,-0.12984988,0.09098493,-0.44303113,-0.06954281,0.120704964,-0.47562534,-0.22639242,-0.0028125453,0.053305224,0.025002614,-0.037431993,0.03813917,0.057514712,0.027133057,-0.038156454,-0.015729317,0.0030300573,-0.05677486,0.026123479,2.0,2.0,-2.0,-2.0,2.0,-2.0,2.0,-2.0,-2.0,2.0,-2.0,-2.0,2.0,2.0,-2.0,-2.0,1.8586847,-2.0,2.0,-2.0,-2.0,2.0,-2.0,-2.0
2025-06-05 14:14:30.490,0.043902412,-0.007014646,0.042174503,0.052184563,0.13635464,-0.0280581,0.0,0.0,0.0,0.034818515,0.06370159,0.5018189,-0.22615938,-0.08093869,0.38176167,-0.13541532,0.081266955,-0.45039055,-0.08438256,0.12510067,-0.47404253,-0.2192804,0.0016370413,-0.06829825,0.06600964,0.0010557031,0.059348073,-0.0067434143,-0.06518264,-0.056488335,-0.06700559,0.051970568,-0.066827424,0.023963429,2.0,2.0,-2.0,-2.0,1.8586847,-2.0,2.0,-2.0,-2.0,2.0,-2.0,-2.0,2.0,2.0,-2.0,-2.0,2.0,-2.0,2.0,-2.0,-2.0,2.0,-2.0,-2.0
2025-06-05 14:14:30.511,-0.023981282,0.030319499,0.00502725,0.025522755,0.052542523,0.048410166,0.0,0.0,0.0,0.034922708,0.06132704,0.49952385,-0.23629788,-0.070259064,0.39136562,-0.14168786,0.08576194,-0.4454402,-0.06903552,0.12555444,-0.4641929,-0.2206553,0.036824938,-0.0067485697,0.04893693,-0.006441188,-0.024706507,0.004683432,0.035532966,0.06562293,0.060314123,-0.069312304,-0.06403672,0.07540579,2.0,2.0,-2.0,-2.0,2.0,-2.0,2.0,-2.0,-2.0,2.0,-2.0,-2.0,2.0,2.0,-2.0,-2.0,2.0,-2.0,2.0,-2.0,-2.0,2.0,-2.0,-2.0
2025-06-05 14:14:30.532,-0.009704793,-0.037800487,0.014940887,0.011202674,0.11448724,0.03754719,0.0,0.0,0.0,0.035004072,0.06426214,0.48879611,-0.23176654,-0.067417294,0.38548017,-0.13481869,0.078641534,-0.461619,-0.078756794,0.12794359,-0.47245696,-0.22940917,0.0019424201,-0.022814631,0.06582312,0.038814146,0.06910018,0.042953033,0.037171375,0.009336463,0.030476708,-0.01300817,-0.013691858,-0.01061663,2.0,2.0,-2.0,-2.0,2.0,-2.0,2.0,-2.0,-2.0,2.0,-2.0,-2.0,2.0,2.0,-2.0,-2.0,2.0,-2.0,2.0,-2.0,-2.0,2.0,-2.0,-2.0
2025-06-05 14:14:30.553,-0.01001043,0.008375722,-0.056940116,0.011841063,0.12666562,-0.007152041,0.0,0.0,0.0,0.03511187,0.07107966,0.49863562,-0.22187859,-0.07481536,0.39091027,-0.12664025,0.08786817,-0.45641556,-0.067601316,0.114331916,-0.47304013,-0.22954018,0.021109238,0.03541696,-0.057864517,-0.024599588,0.06360612,0.042152267,0.06833913,-0.05048075,0.04335568,-0.030560048,-0.0047737663,-0.06926135,2.0,2.0,-2.0,-2.0,2.0,-2.0,2.0,-2.0,-2.0,2.0,-2.0,-2.0,2.0,2.0,-2.0,-2.0,1.673772,-2.0,2.0,-2.0,-2.0,2.0,-2.0,-2.0
2025-06-05 14:14:30.572,-0.0573169,0.00046206286,-0.020277156,-0.0036252348,0.124239154,-0.0038074513,0.0,0.0,0.0,0.03524705,0.071818076,0.49869567,-0.23239295,-0.061018333,0.3967471,-0.13350357,0.09113843,-0.44669116,-0.082534164,0.13005553,-0.46161705,-0.22880346,0.059025448,0.016742302,-0.011096541,0.06390357,-0.021303333,0.05487633,0.024113946,-0.031622387,0.05575258,0.049791593,0.0012298712,0.047505166,2.0,2.0,-2.0,-2.0,1.673772,-2.0,2.0,-2.0,-2.0,2.0,-2.0,-2.0,2.0,2.0,-2.0,-2.0,1.9583348,-2.0,2.0,-2.0,-2.0,2.0,-2.0,-2.0
2025-06-05 14:14:30.592,0.017860768,0.023835007,-0.031773303,0.029025037,0.094753586,-0.032870397,0.0,0.0,0.0,0.03523069,0.06194237,0.4969438,-0.21879214,-0.06590825,0.39843884,-0.12799776,0.08224653,-0.44588658,-0.077284485,0.12042114,-0.46362013,-0.22343546,-0.0749852,0.010740456,-0.059010636,-0.0025927103,0.020031843,0.04092376,-0.020378262,0.04650156,0.06481182,-0.07073179,0.035238065,0.006223634,2.0,2.0,-2.0,-2.0,1.9583348,-2.0,2.0,-2.0,-2.0,2.0,-2.0,-2.0,2.0,2.0,-2.0,-2.0,1.8394188,-2.0,2.0,-2.0,-2.0,2.0,-2.0,-2.0
2025-06-05 14:14:30.613,-0.009424804,0.016000314,-0.031789273,0.04267444,0.10961779,-0.037289865,0.0,0.0,0.0,0.035205707,0.063935496,0.49581552,-0.21785769,-0.0743061,0.38668662,-0.13887693,0.07919362,-0.44917226,-0.08208366,0.12373892,-0.4670172,-0.22673343,-0.06778377,0.028406018,0.018152114,0.019799044,0.020034315,-0.052953336,0.01253214,-0.018142255,0.016188446,0.014189952,0.01146284,0.06295556,2.0,2.0,-2.0,-2.0,1.8394188,-2.0,2.0,-2.0,-2.0,2.0,-2.0,-2.0,2.0,2.0,-2.0,-2.0,1.9631236,-2.0,2.0,-2.0,-2.0,2.0,-2.0,-2.0
2025-06-05 14:14:30.632,0.04713414,0.014606709,0.024383958,0.036667004,0.041853007,0.046011172,0.0,0.0,0.0,0.035175618,0.066024296,0.48559883,-0.22022523,-0.0798767,0.37986472,-0.12710744,0.09028215,-0.4517798,-0.07020448,0.1303028,-0.46879414,-0.21605253,0.029709533,-0.033121902,0.054498013,-0.015115073,0.07481912,0.045162395,0.05361398,-0.043345433,-0.045583747,-0.05027862,-0.021775,-0.034688544,2.0,2.0,-2.0,-2.0,1.9631236,-2.0,2.0,-2.0,-2.0,2.0,-2.0,-2.0,2.0,2.0,-2.0,-2.0,2.0,-2.0,2.0,-2.0,-2.0,2.0,-2.0,-2.0
2025-06-05 14:14:30.654,-0.0147106,-0.0132019445,-0.033399053,0.047146942,0.0578892,-0.012353759,0.0,0.0,0.0,0.03517712,0.0553767,0.4871123,-0.23382184,-0.0672129,0.39772677,-0.13553885,0.080971465,-0.44582832,-0.08435779,0.12261238,-0.47288403,-0.22740002,-0.007808829,0.008721604,-0.008525205,0.06810902,0.07077412,0.0085323285,0.010825864,0.05948598,0.030754654,0.005079424,0.004441204,-0.010341669,2.0,2.0,-2.0,-2.0,2.0,-2.0,2.0,-2.0,-2.0,2.0,-2.0,-2.0,2.0,2.0,-2.0,-2.0,1.8726553,-2.0,2.0,-2.0,-2.0,2.0,-2.0,-2.0
2025-06-05 14:14:30.674,0.032568324,0.018324725,0.008914494,0.0017692505,0.116904475,0.016944615,0.0,0.0,0.0,0.035251174,0.059567656,0.49041083,-0.2322975,-0.07882024,0.39327562,-0.12425625,0.08184532,-0.4608678,-0.087699644,0.11318388,-0.47686633,-0.22445108,0.010697909,0.04532207,-0.031058634,-0.036141727,-0.064785026,-0.07431543,-0.027338557,-0.050356053,0.027556295,0.05964919,-0.04687208,0.02606137,2.0,2.0,-2.0,-2.0,1.8726553,-2.0,2.0,-2.0,-2.0,2.0,-2.0,-2.0,2.0,2.0,-2.0,-2.0,2.0,-2.0,2.0,-2.0,-2.0,2.0,-2.0,-2.0
2025-06-05 14:14:30.693,0.010733101,0.039388616,0.036368925,0.03601193,0.04268942,0.023651958,0.0,0.0,0.0,0.035299912,0.062980205,0.49659675,-0.23248947,-0.07881096,0.3836726,-0.123614006,0.08539241,-0.4517543,-0.08798237,0.1257565,-0.46721917,-0.2318957,-0.02560803,-0.022174507,-0.066352546,0.00029994943,0.0068601654,0.0041550496,0.018665247,-0.032396313,0.025483657,-0.013305464,0.010013619,-0.06964702,2.0,2.0,-2.0,-2.0,2.0,-2.0,2.0,-2.0,-2.0,2.0,-2.0,-2.0,2.0,2.0,-2.0,-2.0,2.0,-2.0,2.0,-2.0,-2.0,2.0,-2.0,-2.0
2025-06-05 14:14:30.713,0.023792855,-0.040478326,0.026763102,0.047599085,0.053732347,-0.014820002,0.0,0.0,0.0,0.035352822,0.058066793,0.49941468,-0.2239195,-0.07355961,0.39700857,-0.13275693,0.08492289,-0.4573435,-0.07607296,0.13077818,-0.4612519,-0.22298595,-0.02577377,0.016078949,0.06580844,0.056422204,0.02184329,-0.03279906,0.014847823,0.04513665,-0.07409644,-0.036918245,-0.006254015,0.026535666,2.0,2.0,-2.0,-2.0,2.0,-2.0,2.0,-2.0,-2.0,2.0,-2.0,-2.0,2.0,2.0,-2.0,-2.0,2.0,-2.0,2.0,-2.0,-2.0,2.0,-2.0,-2.0
2025-06-05 14:14:30.736,-0.021724008,-0.01171819,-0.005037851,0.08116815,0.114111766,-0.0030672776,0.0,0.0,0.0,0.035442382,0.053377006,0.4979423,-0.22262105,-0.06410815,0.39366755,-0.126567,0.0911189,-0.4532172,-0.08402314,0.13093711,-0.47607732,-0.22819388,0.057521928,-0.03309864,0.053083584,0.0028928085,0.051104717,-0.028800463,-0.023510039,-0.06355843,0.051715076,-0.033548597,0.07099503,0.059708916,2.0,2.0,-2.0,-2.0,2.0,-2.0,2.0,-2.0,-2.0,2.0,-2.0,-2.0,2.0,2.0,-2.0,-2.0,2.0,-2.0,2.0,-2.0,-2.0,2.0,-2.0,-2.0
2025-06-05 14:14:30.753,-0.00087340275,-0.038341865,-0.038760874,-0.0031767578,0.11560684,0.04534902,0.0,0.0,0.0,0.035566356,0.06461661,0.49631062,-0.22772093,-0.06471236,0.40003687,-0.1257527,0.07918468,-0.44557863,-0.08677169,0.12427613,-0.478597,-0.22590259,0.062206745,0.0031938348,-0.04638774,0.040319636,-0.022008028,-0.02317681,0.07080365,-0.012854631,0.042595867,0.009905025,0.040515896,0.0032714636,2.0,2.0,-2.0,-2.0,2.0,-2.0,2.0,-2.0,-2.0,2.0,-2.0,-2.0,2.0,2.0,-2.0,-2.0,1.8372217,-2.0,2.0,-2.0,-2.0,2.0,-2.0,-2.0
2025-06-05 14:14:30.826,0.02156958,-0.0018810855,0.035821453,0.036589194,0.07230387,-0.041466646,0.0,0.0,0.0,0.035705753,0.058836423,0.491443,-0.23531896,-0.06415186,0.39413935,-0.1369668,0.07615399,-0.45973483,-0.084252425,0.12388109,-0.47914118,-0.22006129,0.022302793,-0.010549549,0.022687515,-0.05680287,0.017304057,-0.033985604,0.05574192,-0.009647055,-0.023986863,0.037176594,0.015181132,-0.029715128,2.0,2.0,-2.0,-2.0,1.8372217,-2.0,2.0,-2.0,-2.0,2.0,-2.0,-2.0,2.0,2.0,-2.0,-2.0,2.0,-2.0,2.0,-2.0,-2.0,2.0,-2.0,-2.0
2025-06-05 14:14:30.844,0.050990112,-0.02307838,0.038451917,0.07848991,0.11218045,0.03734525,0.0,0.0,0.0,0.035748415,0.052832577,0.49763468,-0.2192412,-0.07979741,0.3938916,-0.13034421,0.08411518,-0.4529857,-0.077730276,0.12650475,-0.4662575,-0.21868308,0.013504125,-0.01533457,-0.017123017,-0.058717586,0.022104995,-0.0367165,0.025361823,-0.010915633,0.018142054,0.06339945,0.050248533,-0.021756206,2.0,2.0,-2.0,-2.0,2.0,-2.0,2.0,-2.0,-2.0,2.0,-2.0,-2.0,2.0,2.0,-2.0,-2.0,2.0,-2.0,2.0,-2.0,-2.0,2.0,-2.0,-2.0
2025-06-05 14:14:30.862,0.044829864,-0.020244833,0.02382241,-0.011643436,0.13591051,0.011824026,0.0,0.0,0.0,0.035767693,0.06545448,0.4882602,-0.21764609,-0.068021774,0.4057575,-0.12265475,0.075446196,-0.45964098,-0.083891064,0.11776117,-0.4605644,-0.22492987,-0.028335067,-0.0067384904,-0.045778215,-0.067490175,0.035204083,-0.05450063,-0.06449245,0.070908904,0.054201625,-0.03354772,-0.053602915,0.07259466,2.0,2.0,-2.0,-2.0,2.0,-2.0,2.0,-2.0,-2.0,2.0,-2.0,-2.0,2.0,2.0,-2.0,-2.0,2.0,-2.0,2.0,-2.0,-2.0,2.0,-2.0,-2.0
2025-06-05 14:14:30.882,0.009080304,-0.0009903334,0.019775588,0.038190544,0.072718956,0.025142638,0.0,0.0,0.0,0.03581685,0.07015226,0.4930445,-0.21601662,-0.07059632,0.38960502,-0.13562995,0.087877914,-0.45968577,-0.07663637,0.123503454,-0.46873417,-0.2298021,0.024560357,-0.036580767,-0.02776423,0.07455814,-0.039743926,0.027235871,0.048880037,0.0030808405,-0.03511001,0.037079997,0.063358836,-0.062178247,2.0,2.0,-2.0,-2.0,2.0,-2.0,2.0,-2.0,-2.0,2.0,-2.0,-2.0,2.0,2.0,-2.0,-2.0,2.0,-2.0,2.0,-2.0,-2.0,2.0,-2.0,-2.0
2025-06-05 14:14:30.904,0.01620315,0.023151971,-0.038766183,0.005217213,0.10360729,-0.019189712,0.0,0.0,0.0,0.035904534,0.06806016,0.4984928,-0.221047,-0.07516875,0.39269465,-0.13467483,0.08752032,-0.45525366,-0.082901046,0.12687944,-0.46685058,-0.21749945,0.017074654,0.06667858,0.013606548,-0.021720013,-0.04165208,-0.04131175,0.05182101,-0.062284928,0.03737728,0.039215915,0.07235622,0.06711585,2.0,2.0,-2.0,-2.0,2.0,-2.0,2.0,-2.0,-2.0,2.0,-2.0,-2.0,2.0,2.0,-2.0,-2.0,2.0,-2.0,2.0,-2.0,-2.0,2.0,-2.0,-2.0
2025-06-05 14:14:30.922,0.047123544,-0.023215372,-0.017544262,0.018868852,0.065344356,-0.03641262,0.0,0.0,0.0,0.036012646,0.064177275,0.49633327,-0.23258868,-0.06943751,0.39138305,-0.13601397,0.08349331,-0.45916346,-0.08015726,0.12798823,-0.47448772,-0.21539852,0.020627625,0.0025403085,-0.03828782,-0.066737264,-0.036888804,0.030863393,-0.069470614,-0.07549073,-0.036538742,0.03572296,0.0055710934,-0.030135969,2.0,2.0,-2.0,-2.0,2.0,-2.0,2.0,-2.0,-2.0,2.0,-2.0,-2.0,2.0,2.0,-2.0,-2.0,1.9634367,-2.0,2.0,-2.0,-2.0,2.0,-2.0,-2.0
2025-06-05 14:14:30.942,-0.011871117,-0.027252747,-0.03410298,0.04942796,0.03935924,0.031146536,0.0,0.0,0.0,0.036120247,0.052232534,0.49515206,-0.22205359,-0.060924802,0.38995147,-0.13774294,0.089699954,-0.4635474,-0.07924666,0.13054547,-0.47453046,-0.22533302,-0.051567502,0.07326702,-0.046947066,-0.056815002,-0.046178874,0.06982495,-0.026629582,0.030080538,-0.0397479,0.018928906,0.061059352,0.052257895,2.0,2.0,-2.0,-2.0,1.9634367,-2.0,2.0,-2.0,-2.0,2.0,-2.0,-2.0,2.0,2.0,-2.0,-2.0,1.7767303,-2.0,2.0,-2.0,-2.0,2.0,-2.0,-2.0
2025-06-05 14:14:30.962,-0.031950835,0.027092408,-0.033822592,0.013873281,0.12328829,0.014274693,0.0,0.0,0.0,0.03619007,0.070997044,0.50444704,-0.21662557,-0.072324455,0.3999574,-0.13186792,0.08313225,-0.46436936,-0.07349606,0.11887027,-0.47008473,-0.22183195,0.03506077,0.0104429135,0.0012051498,0.023478575,0.040834676,-0.035377324,0.04670062,0.055239715,-0.06778198,-0.030987782,-0.076234855,-0.0016388602,2.0,2.0,-2.0,-2.0,1.7767303,-2.0,2.0,-2.0,-2.0,2.0,-2.0,-2.0,2.0,2.0,-2.0,-2.0,1.7960016,-2.0,2.0,-2.0,-2.0,2.0,-2.0,-2.0
2025-06-05 14:14:30.982,0.036346275,-0.04637968,0.010407174,0.0043159085,0.07558671,0.0047985734,0.0,0.0,0.0,0.036129855,0.05898142,0.49636528,-0.22810413,-0.065992415,0.40301055,-0.12171312,0.07875981,-0.45670947,-0.07923558,0.121910974,-0.47033802,-0.21039473,-0.067482896,-0.029922884,-0.034343302,-0.007340138,-0.07548891,-0.051359802,-0.053057704,-0.0014321283,0.030452542,-0.06270452,0.0160197,-0.01042804,2.0,2.0,-2.0,-2.0,1.7960016,-2.0,2.0,-2.0,-2.0,2.0,-2.0,-2.0,2.0,2.0,-2.0,-2.0,2.0,-2.0,2.0,-2.0,-2.0,2.0,-2.0,-2.0
2025-06-05 14:14:31.004,0.050020255,0.01560201,-0.02132182,0.027561232,0.12080798,0.008630773,0.0,0.0,0.0,0.036009166,0.06426502,0.4975203,-0.21514459,-0.06810635,0.39003822,-0.1273249,0.080970086,-0.45195606,-0.09123691,0.13267218,-0.46066725,-0.21517314,0.0017456692,0.007185964,-0.003890989,-0.055893,0.067821905,-0.0050374987,0.056358572,-0.051840637,0.06519124,-0.03446259,-0.019711532,0.03826258,2.0,2.0,-2.0,-2.0,2.0,-2.0,2.0,-2.0,-2.0,2.0,-2.0,-2.0,2.0,2.0,-2.0,-2.0,1.9546986,-2.0,2.0,-2.0,-2.0,2.0,-2.0,-2.0
2025-06-05 14:14:31.022,0.031959582,0.03210263,-0.036540333,0.035266157,0.0754703,0.02614471,0.0,0.0,0.0,0.0359866,0.066723146,0.5035076,-0.22217289,-0.075564355,0.3943938,-0.12460883,0.08435877,-0.46251538,-0.08851413,0.13196611,-0.46712652,-0.22903416,-0.026519427,0.038151536,0.046374757,0.014334706,0.03478672,0.03210028,0.035421517,0.041314427,-0.025905052,0.07276979,-0.07059192,-0.01969293,2.0,2.0,-2.0,-2.0,1.9546986,-2.0,2.0,-2.0,-2.0,2.0,-2.0,-2.0,2.0,2.0,-2.0,-2.0,1.7328936,-2.0,2.0,-2.0,-2.0,2.0,-2.0,-2.0
2025-06-05 14:14:31.042,-0.010915631,-0.0327683,-0.01256245,0.0638518,0.11640982,-0.027754884,0.0,0.0,0.0,0.036011808,0.05532612,0.4908852,-0.22366133,-0.069796674,0.39569807,-0.1244517,0.0857345,-0.46011773,-0.08649178,0.13070971,-0.46385753,-0.21774115,-0.062986284,0.060906496,-0.030090151,0.029336987,-0.008994825,0.04436021,-0.0015601851,0.05292007,-0.05412955,-0.021219663,0.04880606,-0.0052463096,2.0,2.0,-2.0,-2.0,1.7328936,-2.0,2.0,-2.0,-2.0,2.0,-2.0,-2.0,2.0,2.0,-2.0,-2.0,2.0,-2.0,2.0,-2.0,-2.0,2.0,-2.0,-2.0
2025-06-05 14:14:31.063,-0.04599585,0.008202815,0.0058072573,0.06505444,0.05378195,0.030066846,0.0,0.0,0.0,0.035942905,0.059510257,0.49264455,-0.22164991,-0.064527705,0.39041293,-0.13635947,0.083554916,-0.4615054,-0.08576551,0.11524433,-0.47674367,-0.2281052,0.067275725,0.0059982003,0.026722226,0.03046052,0.03660102,-0.07382478,0.0006340367,0.023963956,-0.019423971,-0.018293168,0.010503958,0.07059259,2.0,2.0,-2.0,-2.0,2.0,-2.0,2.0,-2.0,-2.0,2.0,-2.0,-2.0,2.0,2.0,-2.0,-2.0,2.0,-2.0,2.0,-2.0,-2.0,2.0,-2.0,-2.0
2025-06-05 14:14:31.086,-0.039992366,-0.0073132976,0.017528454,0.0726403,0.10292861,0.037746992,0.0,0.0,0.0,0.035942204,0.059840627,0.49453837,-0.23412412,-0.06834868,0.4060351,-0.12565842,0.07905282,-0.45998305,-0.08128149,0.1326735,-0.47502154,-0.21888715,0.029467668,0.019970272,-0.03309091,0.00938542,-0.027627781,0.012236688,-0.070896916,0.058727853,0.008736933,-0.046182856,0.034766722,-0.048209228,2.0,2.0,-2.0,-2.0,2.0,-2.0,2.0,-2.0,-2.0,2.0,-2.0,-2.0,2.0,2.0,-2.0,-2.0,2.0,-2.0,2.0,-2.0,-2.0,2.0,-2.0,-2.0
2025-06-05 14:14:31.104,-0.0041603656,-0.0025693995,-0.009478938,0.08085627,0.10346925,0.013344899,0.0,0.0,0.0,0.036012467,0.055232182,0.5028807,-0.22414398,-0.07002606,0.39024767,-0.13826413,0.08133851,-0.45986292,-0.09257514,0.11384948,-0.47632498,-0.22772822,-0.0016715592,-0.010542224,-0.005573734,-0.008907343,0.0087547,0.01357379,-0.00692192,0.0010685837,0.068900175,-0.042449836,-0.056899343,-0.0043751844,2.0,2.0,-2.0,-2.0,2.0,-2.0,2.0,-2.0,-2.0,2.0,-2.0,-2.0,2.0,2.0,-2.0,-2.0,1.8723744,-2.0,2.0,-2.0,-2.0,2.0,-2.0,-2.0
2025-06-05 14:14:31.124,-0.031206917,0.02566101,0.032105062,0.080019265,0.10081651,0.023511147,0.0,0.0,0.0,0.036109574,0.052998886,0.49970895,-0.22393438,-0.06347163,0.3963951,-0.13772416,0.08936538,-0.4595216,-0.081474856,0.12714626,-0.4805508,-0.2142216,0.033838503,0.02462886,-0.022288743,-0.05735153,0.04166462,-0.026591573,0.04129483,0.052096575,0.05513771,0.00694732,0.043591887,0.026081534,2.0,2.0,-2.0,-2.0,1.8723744,-2.0,2.0,-2.0,-2.0,2.0,-2.0,-2.0,2.0,2.0,-2.0,-2.0,2.0,-2.0,2.0,-2.0,-2.0,2.0,-2.0,-2.0
2025-06-05 14:14:31.143,-0.025722409,0.03250065,-0.026697285,0.056773227,0.055126783,0.021677993,0.0,0.0,0.0,0.036147535,0.06457457,0.48819643,-0.21517734,-0.06823668,0.3913641,-0.13783948,0.08522937,-0.4639859,-0.08422138,0.115418725,-0.4748303,-0.23035923,-0.041211717,-0.0323637,-0.020014323,0.0023565183,-0.04985124,0.06795647,0.022125125,-0.032143217,0.061808158,0.051136993,0.004995701,0.028878538,2.0,2.0,-2.0,-2.0,2.0,-2.0,2.0,-2.0,-2.0,2.0,-2.0,-2.0,2.0,2.0,-2.0,-2.0,1.7791718,-2.0,2.0,-2.0,-2.0,2.0,-2.0,-2.0
2025-06-05 14:14:31.164,0.03588427,0.047743604,-0.026944242,0.070235856,0.13641982,0.0014056657,0.0,0.0,0.0,0.03618532,0.053042945,0.50222784,-0.21504794,-0.06784503,0.38716954,-0.12531403,0.080267645,-0.46856767,-0.08942875,0.11947021,-0.4786447,-0.23160934,-0.058316182,-0.04225818,0.028730039,-0.015052163,0.037311815,0.03691795,0.067824796,-0.004517964,0.055926505,-0.062789015,-0.0047601615,0.044281535,2.0,2.0,-2.0,-2.0,1.7791718,-2.0,2.0,-2.0,-2.0,2.0,-2.0,-2.0,2.0,2.0,-2.0,-2.0,1.8638488,-2.0,2.0,-2.0,-2.0,2.0,-2.0,-2.0
2025-06-05 14:14:31.186,-0.012582167,-0.032703448,0.042420972,0.068353124,0.099839434,0.02927149,0.0,0.0,0.0,0.036147814,0.056750543,0.5000689,-0.2175527,-0.07555602,0.39813718,-0.12484675,0.0773339,-0.46869352,-0.078805014,0.120914854,-0.4730704,-0.22928743,-0.029505938,0.00976864,0.05281945,0.022378692,-0.014784159,0.022712061,0.00154327,0.01926295,-0.008694674,-0.025982784,-0.013197429,-0.0661786,2.0,2.0,-2.0,-2.0,1.8638488,-2.0,2.0,-2.0,-2.0,2.0,-2.0,-2.0,2.0,2.0,-2.0,-2.0,2.0,-2.0,2.0,-2.0,-2.0,2.0,-2.0,-2.0
2025-06-05 14:14:31.204,0.020000055,-0.024971884,-0.019903887,0.05421476,0.051708285,-0.046601668,0.0,0.0,0.0,0.036093496,0.052922826,0.48431247,-0.22183087,-0.068342194,0.40052107,-0.13087139,0.07519477,-0.4626358,-0.08430132,0.11476325,-0.47027615,-0.22820167,-0.07358418,0.037119314,0.040628325,0.060145263,-0.034524012,-0.05684386,0.005669008,0.022352431,-0.068549946,0.050194044,0.065472215,-0.06865884,2.0,2.0,-2.0,-2.0,2.0,-2.0,2.0,-2.0,-2.0,2.0,-2.0,-2.0,2.0,2.0,-2.0,-2.0,2.0,-2.0,2.0,-2.0,-2.0,2.0,-2.0,-2.0
2025-06-05 14:14:31.224,0.017785825,0.0037102778,-0.029634874,0.066856414,0.053420838,-0.0066946237,0.0,0.0,0.0,0.03611879,0.071074314,0.4880019,-0.22917649,-0.074220985,0.403236,-0.121328615,0.07913565,-0.46409854,-0.08202547,0.12447963,-0.4661166,-0.22172667,0.057064254,-0.0028540432,0.04801311,-0.056146786,0.047117207,-0.041418128,-0.04473233,-0.00039243815,0.06573671,0.069941275,0.069073424,0.049518283,2.0,2.0,-2.0,-2.0,2.0,-2.0,2.0,-2.0,-2.0,2.0,-2.0,-2.0,2.0,2.0,-2.0,-2.0,2.0,-2.0,2.0,-2.0,-2.0,2.0,-2.0,-2.0
2025-06-05 14:14:31.243,0.029320665,0.03447702,-0.038930785,0.057437945,0.118478626,-0.040625192,0.0,0.0,0.0,0.03618829,0.062684104,0.50172937,-0.23107617,-0.064034,0.40703335,-0.13607249,0.0891209,-0.45571318,-0.09144199,0.11428182,-0.46440288,-0.2126902,0.045453735,-0.046917494,0.005211955,-0.075505845,-0.05978938,0.049759198,0.04467406,0.038926464,-0.017738286,-0.055929728,-0.002748065,0.032696255,2.0,2.0,-2.0,-2.0,2.0,-2.0,2.0,-2.0,-2.0,2.0,-2.0,-2.0,2.0,2.0,-2.0,-2.0,1.8480862,-2.0,2.0,-2.0,-2.0,2.0,-2.0,-2.0
2025-06-05 14:14:31.263,-0.018380612,0.041020334,-0.04086576,0.007900055,0.03861052,-0.04568344,0.0,0.0,0.0,0.036272153,0.061912812,0.48741326,-0.222859,-0.07322178,0.39912602,-0.12979414,0.08693785,-0.46664256,-0.086372696,0.12498846,-0.4730821,-0.21900998,0.036363214,0.0018707336,0.007290842,0.032165017,-0.028110337,0.053836312,-0.0316158,0.04970008,0.023944411,0.060199775,0.00059126306,0.041408777,2.0,2.0,-2.0,-2.0,1.8480862,-2.0,2.0,-2.0,-2.0,2.0,-2.0,-2.0,2.0,2.0,-2.0,-2.0,1.8159345,-2.0,2.0,-2.0,-2.0,2.0,-2.0,-2.0
2025-06-05 14:14:31.287,0.032235757,0.028663544,0.011680016,0.0010378654,0.114612974,-0.039627295,0.0,0.0,0.0,0.036281414,0.06549669,0.49891058,-0.22027826,-0.060156833,0.3994353,-0.13530861,0.08470613,-0.45243463,-0.084640354,0.1174637,-0.46672478,-0.22333519,-0.020618116,0.07121897,-0.008225629,0.07271699,0.008588901,0.01115239,-0.035040885,-0.023696546,-0.04310832,-0.024261529,-0.0073689357,0.0026254163,2.0,2.0,-2.0,-2.0,1.8159345,-2.0,2.0,-2.0,-2.0,2.0,-2.0,-2.0,2.0,2.0,-2.0,-2.0,2.0,-2.0,2.0,-2.0,-2.0,2.0,-2.0,-2.0
2025-06-05 14:14:31.304,-0.038155667,-0.036283776,-0.014844865,0.08553138,0.107708745,-0.007391871,0.0,0.0,0.0,0.036221486,0.071179315,0.50269747,-0.2191103,-0.06274858,0.40258765,-0.12723054,0.093324006,-0.45726115,-0.09163934,0.12814511,-0.47722894,-0.22132996,-0.01398015,-0.044931263,-0.00740045,-0.0022652019,0.067009136,-0.03320053,0.06129044,0.002328858,0.07075934,-0.036214422,0.010589453,0.026516527,2.0,2.0,-2.0,-2.0,2.0,-2.0,2.0,-2.0,-2.0,2.0,-2.0,-2.0,2.0,2.0,-2.0,-2.0,2.0,-2.0,2.0,-2.0,-2.0,2.0,-2.0,-2.0
2025-06-05 14:14:31.325,-0.02366875,-0.0018247959,0.015303526,0.036216963,0.12165183,0.015846103,0.0,0.0,0.0,0.03622579,0.054731585,0.4950904,-0.23213631,-0.073037475,0.39233708,-0.13006261,0.07798621,-0.4554264,-0.088567846,0.12284565,-0.47995222,-0.22195388,-0.071693935,-0.03930886,0.04090013,0.036609568,-0.037194777,-0.038271762,-0.034572784,-0.012208178,-0.035105143,0.050903495,-0.024144514,-0.023842596,2.0,2.0,-2.0,-2.0,2.0,-2.0,2.0,-2.0,-2.0,2.0,-2.0,-2.0,2.0,2.0,-2.0,-2.0,2.0,-2.0,2.0,-2.0,-2.0,2.0,-2.0,-2.0
2025-06-05 14:14:31.345,-0.022666033,0.010160781,-0.028595796,0.060643937,0.13303421,-0.012690913,0.0,0.0,0.0,0.036281325,0.059896026,0.49420345,-0.21472114,-0.07226752,0.3971234,-0.13164566,0.08596216,-0.46737504,-0.088041686,0.12435142,-0.46857274,-0.22099721,-0.057981525,-0.04747781,-0.020106783,0.021984844,-0.07066247,-0.006107397,-0.030570274,0.014898326,0.023440782,-0.07154104,-0.043180693,0.03191467,2.0,2.0,-2.0,-2.0,2.0,-2.0,2.0,-2.0,-2.0,2.0,-2.0,-2.0,2.0,2.0,-2.0,-2.0,1.8813105,-2.0,2.0,-2.0,-2.0,2.0,-2.0,-2.0
2025-06-05 14:14:31.365,-0.017513102,0.050221138,-0.004505765,0.03427434,0.043021772,-0.039741922,0.0,0.0,0.0,0.036355063,0.06540646,0.503186,-0.22518554,-0.066854425,0.40654686,-0.13189928,0.089723796,-0.46480888,-0.07668653,0.12634826,-0.4659276,-0.23089157,0.038991526,0.036830768,-0.07200852,-0.059687216,0.073053524,-0.044251945,-0.01348005,0.017068405,-0.0011959899,0.03357215,0.036450196,-0.03336762,2.0,2.0,-2.0,-2.0,1.8813105,-2.0,2.0,-2.0,-2.0,2.0,-2.0,-2.0,2.0,2.0,-2.0,-2.0,2.0,-2.0,2.0,-2.0,-2.0,2.0,-2.0,-2.0
2025-06-05 14:14:31.387,0.022907358,0.033025414,-0.018713461,0.036291733,0.11010919,-0.018576518,0.0,0.0,0.0,0.036370628,0.067596816,0.50154334,-0.21478179,-0.06727387,0.39964458,-0.122035906,0.08709857,-0.46192127,-0.08137074,0.11433704,-0.46982697,-0.22708882,-0.01846159,0.06639712,0.023774514,0.038107295,0.046232495,0.06001278,0.05909113,0.020643074,-0.06494988,-0.012566316,-0.07298322,-0.060840867,2.0,2.0,-2.0,-2.0,2.0,-2.0,2.0,-2.0,-2.0,2.0,-2.0,-2.0,2.0,2.0,-2.0,-2.0,1.9231914,-2.0,2.0,-2.0,-2.0,2.0,-2.0,-2.0
2025-06-05 14:14:31.405,-0.015588807,0.04879274,0.0037530377,0.044949457,0.09245904,-0.032177895,0.0,0.0,0.0,0.036387805,0.059194222,0.4884932,-0.22577012,-0.07227513,0.39824185,-0.12368801,0.08237299,-0.46419755,-0.078144,0.118532196,-0.47015956,-0.2230182,-0.06898676,0.030414091,0.030553274,-0.037707478,0.05750911,-0.034418095,-0.021124275,0.008226224,0.019796114,-0.027725473,0.05731093,0.020187654,2.0,2.0,-2.0,-2.0,1.9231914,-2.0,2.0,-2.0,-2.0,2.0,-2.0,-2.0,2.0,2.0,-2.0,-2.0,2.0,-2.0,2.0,-2.0,-2.0,2.0,-2.0,-2.0
2025-06-05 14:14:31.426,0.00528311,-0.008661133,-0.049598746,0.02367214,0.07755784,-0.041663468,0.0,0.0,0.0,0.03639039,0.06332741,0.48741037,-0.21773645,-0.07233458,0.39483792,-0.123203784,0.08002379,-0.46595696,-0.093402855,0.116821274,-0.4616178,-0.2162568,0.03675959,0.0015273575,0.07178365,-0.019083753,0.0124898935,0.06709002,0.007779779,-0.043511465,0.021577926,0.021934187,0.0406701,0.039399218,2.0,2.0,-2.0,-2.0,2.0,-2.0,2.0,-2.0,-2.0,2.0,-2.0,-2.0,2.0,2.0,-2.0,-2.0,1.9176143,-2.0,2.0,-2.0,-2.0,2.0,-2.0,-2.0
2025-06-05 14:14:31.446,-0.024312407,-0.034169108,-0.04179934,0.08020057,0.07247854,0.004360043,0.0,0.0,0.0,0.036406055,0.05614235,0.5003995,-0.21809463,-0.058712833,0.3916921,-0.13952468,0.08507574,-0.44913134,-0.08389856,0.12418754,-0.477948,-0.22797929,0.044894148,0.04013091,-0.0027962911,0.019461058,-0.04930197,0.030422417,-0.019689796,0.054011326,0.016238006,-0.01110104,-0.03358869,-0.051615138,2.0,2.0,-2.0,-2.0,1.9176143,-2.0,2.0,-2.0,-2.0,2.0,-2.0,-2.0,2.0,2.0,-2.0,-2.0,1.6390492,-2.0,2.0,-2.0,-2.0,2.0,-2.0,-2.0
2025-06-05 14:14:31.468,-0.010849373,-0.008884933,0.0133697,0.047758527,0.06085599,-0.04359851,0.0,0.0,0.0,0.036401983,0.06299844,0.4928522,-0.22914581,-0.062505394,0.3893902,-0.13143232,0.08827252,-0.4669878,-0.08912435,0.12264804,-0.46503815,-0.21772157,0.0006197909,0.053105604,-0.015240337,-0.017777845,-0.05929446,-0.036460135,-0.013739647,-0.06256601,0.022262255,-0.061049618,0.006404568,0.011225885,2.0,2.0,-2.0,-2.0,1.6390492,-2.0,2.0,-2.0,-2.0,2.0,-2.0,-2.0,2.0,2.0,-2.0,-2.0,2.0,-2.0,2.0,-2.0,-2.0,2.0,-2.0,-2.0
2025-06-05 14:14:31.488,0.0024426165,-0.013726704,-0.0011669978,-0.011094641,0.054085348,0.047822755,0.0,0.0,0.0,0.03626336,0.06929692,0.49620065,-0.2310126,-0.05992748,0.40681687,-0.13701996,0.075745575,-0.45635292,-0.08835158,0.13228247,-0.47080144,-0.21609686,0.04526415,-0.07258027,0.070212536,0.07086526,0.030637123,-0.015625574,-0.02636413,-0.005554974,0.00023342003,-0.051819626,-0.016573464,-0.07215902,2.0,2.0,-2.0,-2.0,2.0,-2.0,2.0,-2.0,-2.0,2.0,-2.0,-2.0,2.0,2.0,-2.0,-2.0,2.0,-2.0,2.0,-2.0,-2.0,2.0,-2.0,-2.0
2025-06-05 14:14:31.506,0.045375872,0.017421095,0.00054438086,0.02120121,0.08551722,-0.046796013,0.0,0.0,0.0,0.036223445,0.0655151,0.4915623,-0.23214737,-0.06231538,0.4043765,-0.14053042,0.080263935,-0.4657808,-0.080956124,0.12747106,-0.4816038,-0.22151476,-0.027755385,0.055865653,-0.0027711762,-0.0016715118,-0.04659806,-0.022130275,0.05724215,0.056042828,0.04943185,0.0063047954,0.065573774,-0.00666392,2.0,2.0,-2.0,-2.0,2.0,-2.0,2.0,-2.0,-2.0,2.0,-2.0,-2.0,2.0,2.0,-2.0,-2.0,2.0,-2.0,2.0,-2.0,-2.0,2.0,-2.0,-2.0
2025-06-05 14:14:31.526,0.011815098,-0.038065996,0.031694602,0.01423503,0.06265475,-0.019590305,0.0,0.0,0.0,0.03627986,0.052705873,0.49452177,-0.22620195,-0.06672951,0.39727932,-0.1269527,0.08655426,-0.46413738,-0.084279224,0.11651131,-0.4733344,-0.2241596,-0.051876996,-0.013411724,-0.053023815,-0.026799517,0.0512874,-0.026612937,-0.01405839,0.018650997,0.040205497,0.043210804,-0.018814163,0.055506032,2.0,2.0,-2.0,-2.0,2.0,-2.0,2.0,-2.0,-2.0,2.0,-2.0,-2.0,2.0,2.0,-2.0,-2.0,2.0,-2.0,2.0,-2.0,-2.0,2.0,-2.0,-2.0
2025-06-05 14:14:31.545,-0.039081633,-0.025601232,0.005463041,0.03812819,0.09035457,0.047746934,0.0,0.0,0.0,0.036365956,0.06958553,0.5004976,-0.23117751,-0.06109666,0.39852345,-0.13810101,0.09370912,-0.457203,-0.082924284,0.12228795,-0.47949463,-0.21709467,-0.040983293,-0.00421134,0.02894967,-0.03051905,0.07196071,0.010765499,0.07510705,0.055893082,0.012770025,0.052660014,-0.06756029,0.023289103,2.0,2.0,-2.0,-2.0,2.0,-2.0,2.0,-2.0,-2.0,2.0,-2.0,-2.0,2.0,2.0,-2.0,-2.0,1.9984308,-2.0,2.0,-2.0,-2.0,2.0,-2.0,-2.0
2025-06-05 14:14:31.568,-0.04052178,-0.050452884,0.01813936,0.049099315,0.0404978,-0.0063788025,0.0,0.0,0.0,0.036450464,0.058965612,0.48957402,-0.22369641,-0.070601225,0.40782943,-0.13711612,0.08757327,-0.46750435,-0.080916025,0.131375,-0.46781614,-0.2307001,-0.05550692,0.016885746,-0.025651207,-0.04376632,0.011953416,-0.0002487781,-0.06948495,0.03500234,-0.04495465,-0.004831177,0.0077384086,-0.004513077,2.0,2.0,-2.0,-2.0,1.9984308,-2.0,2.0,-2.0,-2.0,2.0,-2.0,-2.0,2.0,2.0,-2.0,-2.0,2.0,-2.0,2.0,-2.0,-2.0,2.0,-2.0,-2.0
2025-06-05 14:14:31.587,0.010357364,-0.027949242,0.041467797,-0.008096612,0.07396874,-7.872321e-05,0.0,0.0,0.0,0.036515463,0.06576411,0.49443212,-0.22872618,-0.06157647,0.4063581,-0.13598225,0.082778916,-0.45889953,-0.07842267,0.121612504,-0.46270368,-0.21306226,-0.050195858,-0.06716759,0.0470458,0.06807613,0.018628499,-0.0114700915,-0.012012078,0.034578476,-0.06127581,0.018916529,0.064363085,-0.0020455893,2.0,2.0,-2.0,-2.0,2.0,-2.0,2.0,-2.0,-2.0,2.0,-2.0,-2.0,2.0,2.0,-2.0,-2.0,2.0,-2.0,2.0,-2.0,-2.0,2.0,-2.0,-2.0
2025-06-05 14:14:31.607,0.029553505,-0.039846506,0.0019211302,0.057757244,0.11582987,0.013477842,0.0,0.0,0.0,0.03656382,0.06322493,0.5001548,-0.22301273,-0.075652465,0.41157052,-0.125911,0.084856786,-0.4679098,-0.09047672,0.123030424,-0.47638914,-0.2184466,0.054707743,-0.062163044,-0.038756736,-0.04950635,0.06032979,-0.034698833,-0.017760765,0.01418816,0.027186148,-0.026940115,-0.010891345,0.021278644,2.0,2.0,-2.0,-2.0,2.0,-2.0,2.0,-2.0,-2.0,2.0,-2.0,-2.0,2.0,2.0,-2.0,-2.0,2.0,-2.0,2.0,-2.0,-2.0,2.0,-2.0,-2.0
2025-06-05 14:14:31.627,-0.030384539,-0.02460393,-0.041637473,-0.009442628,0.096506186,-0.0016194914,0.0,0.0,0.0,0.036601108,0.06290827,0.5004424,-0.22775583,-0.07102379,0.41155207,-0.12311055,0.077241324,-0.46825767,-0.08759883,0.12079265,-0.46198624,-0.21599767,0.04443011,0.03201856,-0.021157065,0.025896022,-0.040959872,-0.060813963,-0.0020577027,-0.058147337,-0.017980045,0.006699672,-0.043614488,-0.06844556,2.0,2.0,-2.0,-2.0,2.0,-2.0,2.0,-2.0,-2.0,2.0,-2.0,-2.0,2.0,2.0,-2.0,-2.0,1.8371491,-2.0,2.0,-2.0,-2.0,2.0,-2.0,-2.0
2025-06-05 14:14:31.646,0.04149526,0.014266772,0.038551707,0.03587856,0.08853101,-0.04235085,0.0,0.0,0.0,0.036629535,0.06560738,0.49004883,-0.22762324,-0.06991936,0.40793052,-0.13853818,0.08135051,-0.45595512,-0.08407085,0.124482475,-0.46549964,-0.22307989,-0.009543912,-0.063493624,-0.049493145,0.020776963,0.028338987,-0.030665,-0.05449705,-0.05036433,-0.029895771,-0.04705548,-0.008980262,-0.037640538,2.0,2.0,-2.0,-2.0,1.8371491,-2.0,2.0,-2.0,-2.0,2.0,-2.0,-2.0,2.0,2.0,-2.0,-2.0,2.0,-2.0,2.0,-2.0,-2.0,2.0,-2.0,-2.0
2025-06-05 14:14:31.669,-0.046061296,0.03746065,0.01906562,-0.009140994,0.12744117,0.02329589,0.0,0.0,0.0,0.036581557,0.067948006,0.50330484,-0.22123462,-0.062638335,0.40059552,-0.1274633,0.07633669,-0.46372694,-0.089539856,0.12800907,-0.47390246,-0.2238091,-0.012324629,0.0031281214,-0.061885122,0.06009307,0.048859518,-0.03110259,-0.068051286,0.05688989,-0.038236536,0.0024015976,-0.033036344,-0.06981216,2.0,2.0,-2.0,-2.0,2.0,-2.0,2.0,-2.0,-2.0,2.0,-2.0,-2.0,2.0,2.0,-2.0,-2.0,2.0,-2.0,2.0,-2.0,-2.0,2.0,-2.0,-2.0
2025-06-05 14:14:31.687,-0.030938989,0.012798835,0.03901151,0.05067081,0.11432531,0.034714773,0.0,0.0,0.0,0.036558554,0.06893076,0.48875728,-0.22139823,-0.06406394,0.40512344,-0.13950476,0.07630859,-0.4615774,-0.09412451,0.12102159,-0.46579075,-0.21100189,-0.012401705,-0.04532194,-0.03909432,0.02586921,-0.0077204728,0.01952286,0.022948105,0.065200455,-0.01741475,0.03266618,-0.007982521,-0.01944435,2.0,2.0,-2.0,-2.0,2.0,-2.0,2.0,-2.0,-2.0,2.0,-2.0,-2.0,2.0,2.0,-2.0,-2.0,2.0,-2.0,2.0,-2.0,-2.0,2.0,-2.0,-2.0
2025-06-05 14:14:31.755,0.049491003,-0.012003905,-0.01776005,0.0062605827,0.09488109,0.0016849942,0.0,0.0,0.0,0.036574315,0.06643191,0.5010473,-0.21962932,-0.07785907,0.41041693,-0.13112234,0.07887089,-0.46270725,-0.077652015,0.121166565,-0.47589096,-0.22075348,0.0099053485,-0.05583989,-0.0039727753,0.010500404,-0.052886423,-0.06424373,-0.018767498,-0.05910775,-0.039729945,0.07017412,-0.031989045,-0.04757844,2.0,2.0,-2.0,-2.0,2.0,-2.0,2.0,-2.0,-2.0,2.0,-2.0,-2.0,2.0,2.0,-2.0,-2.0,2.0,-2.0,2.0,-2.0,-2.0,2.0,-2.0,-2.0
2025-06-05 14:14:31.775,0.017437778,-0.016593078,0.038831547,0.047740262,0.080344565,-0.019174319,0.0,0.0,0.0,0.036602724,0.06285349,0.49253172,-0.22469172,-0.064977415,0.39674056,-0.12559053,0.086021565,-0.46832854,-0.09304398,0.11945638,-0.46596143,-0.21322373,-0.0043776114,0.026394809,-0.025910664,-0.052530102,-0.004900817,0.008466696,-0.031865507,0.024457676,0.056438163,-0.0596823,0.022898851,-0.06547797,2.0,2.0,-2.0,-2.0,2.0,-2.0,2.0,-2.0,-2.0,2.0,-2.0,-2.0,2.0,2.0,-2.0,-2.0,2.0,-2.0,2.0,-2.0,-2.0,2.0,-2.0,-2.0
2025-06-05 14:14:31.795,-0.043773077,-0.036043417,-0.03988897,0.018152704,0.095231764,0.010457007,0.0,0.0,0.0,0.036631048,0.057435136,0.49378577,-0.21741655,-0.07734684,0.41364002,-0.13790624,0.088762656,-0.45429385,-0.09183598,0.1294959,-0.46617737,-0.22452463,-0.027308838,-0.04210409,0.050062373,-0.04304808,-0.072410144,0.044534206,0.03173402,0.06625162,-0.05288599,0.063850276,-0.01747766,-0.030026717,2.0,2.0,-2.0,-2.0,2.0,-2.0,2.0,-2.0,-2.0,2.0,-2.0,-2.0,2.0,2.0,-2.0,-2.0,1.7724526,-2.0,2.0,-2.0,-2.0,2.0,-2.0,-2.0
2025-06-05 14:14:31.815,-0.03168028,-0.017592778,-0.012290406,0.0005470766,0.06358476,-0.011947971,0.0,0.0,0.0,0.036652125,0.067073174,0.496207,-0.21643925,-0.06126209,0.39625683,-0.14121185,0.093709,-0.45194146,-0.08754468,0.12983377,-0.47090343,-0.22549069,0.047071856,-0.039399263,-0.01268145,-0.0023773503,0.06934532,0.041797,0.015076804,-0.07341156,0.024829544,-0.04943932,0.033108372,-0.034180995,2.0,2.0,-2.0,-2.0,1.7724526,-2.0,2.0,-2.0,-2.0,2.0,-2.0,-2.0,2.0,2.0,-2.0,-2.0,2.0,-2.0,2.0,-2.0,-2.0,2.0,-2.0,-2.0
2025-06-05 14:14:31.837,0.01172769,0.019577166,-0.025766585,0.049528826,0.051550515,0.0366002,0.0,0.0,0.0,0.036571916,0.067388915,0.48797008,-0.21517585,-0.070708334,0.4101412,-0.12919232,0.077374466,-0.45509085,-0.07623017,0.1325686,-0.46503586,-0.22563097,0.065680996,-0.0701927,0.0010909279,-0.020084988,-0.012852292,0.043225326,0.061944097,-0.010050754,-0.043887127,-0.046815757,0.002429719,0.0019841176,2.0,2.0,-2.0,-2.0,2.0,-2.0,2.0,-2.0,-2.0,2.0,-2.0,-2.0,2.0,2.0,-2.0,-2.0,1.9410268,-2.0,2.0,-2.0,-2.0,2.0,-2.0,-2.0
2025-06-05 14:14:31.856,0.024054397,0.04758333,-0.01926674,-0.0028164464,0.08995094,0.031935766,0.0,0.0,0.0,0.036535244,0.053178035,0.50108147,-0.23330502,-0.06380447,0.40659365,-0.14165041,0.07671102,-0.46483722,-0.08608674,0.11473594,-0.47960737,-0.21662627,0.0066868593,-0.047552858,-0.009302803,-0.00071339804,-0.023626177,0.057671867,-0.022518616,-0.01912074,-0.054280538,-0.05884364,0.052673977,0.04179024,2.0,2.0,-2.0,-2.0,1.9410268,-2.0,2.0,-2.0,-2.0,2.0,-2.0,-2.0,2.0,2.0,-2.0,-2.0,2.0,-2.0,2.0,-2.0,-2.0,2.0,-2.0,-2.0
2025-06-05 14:14:31.876,-0.0247129,0.028736115,-0.024723442,0.029218236,0.11405827,-0.009815221,0.0,0.0,0.0,0.0365321,0.06604159,0.48842627,-0.23151629,-0.07161072,0.41071758,-0.13939333,0.08778252,-0.46594113,-0.09439597,0.13351366,-0.47998047,-0.2160133,-0.05897922,-0.017887082,0.04740613,-0.0012237148,0.045983564,-0.044189014,-0.034399293,-0.06307883,-0.05474484,0.037896167,-0.05416128,-0.023442077,2.0,2.0,-2.0,-2.0,2.0,-2.0,2.0,-2.0,-2.0,2.0,-2.0,-2.0,2.0,2.0,-2.0,-2.0,2.0,-2.0,2.0,-2.0,-2.0,2.0,-2.0,-2.0
2025-06-05 14:14:31.895,-0.03872872,0.041974723,-0.033574603,-0.009478121,0.07449299,0.034573454,0.0,0.0,0.0,0.03655137,0.05987926,0.4891485,-0.23330449,-0.058791924,0.41026554,-0.13338168,0.08904952,-0.46691895,-0.08924827,0.121438436,-0.469196,-0.22184809,-0.05994508,-0.048105225,-0.046923008,0.039515886,-0.059903495,-0.06306703,0.057321597,-0.029111424,-0.050260562,-0.002029667,-0.053072758,-0.06711985,2.0,2.0,-2.0,-2.0,2.0,-2.0,2.0,-2.0,-2.0,2.0,-2.0,-2.0,2.0,2.0,-2.0,-2.0,1.7997502,-2.0,2.0,-2.0,-2.0,2.0,-2.0,-2.0
2025-06-05 14:14:31.916,-0.021908183,-0.02227927,-0.007440929,0.070522904,0.039030187,-0.047056902,0.0,0.0,0.0,0.03658319,0.06372677,0.5011507,-0.23301578,-0.07001634,0.3972534,-0.12978858,0.082321405,-0.46261087,-0.07749994,0.13222255,-0.46205544,-0.21543558,0.040498126,0.005120039,0.03705645,0.044832364,0.06274296,0.0024791681,0.03954821,0.053416856,-0.040763672,-0.028413141,-0.036654573,0.041393407,2.0,2.0,-2.0,-2.0,1.7997502,-2.0,2.0,-2.0,-2.0,2.0,-2.0,-2.0,2.0,2.0,-2.0,-2.0,2.0,-2.0,2.0,-2.0,-2.0,2.0,-2.0,-2.0
2025-06-05 14:14:31.937,0.034542955,0.03459758,0.035084635,0.046294846,0.12608525,0.010115947,0.0,0.0,0.0,0.03653065,0.056045994,0.49640596,-0.2150069,-0.062137857,0.4075921,-0.13523996,0.07828881,-0.45460477,-0.08383263,0.13357006,-0.46254984,-0.21904826,-0.0058554825,-0.04865575,0.06304872,-0.04710953,-0.0008128675,-0.043148484,0.007278513,0.0083873365,-0.07535157,-0.029058727,-0.0005952803,0.034826756,2.0,2.0,-2.0,-2.0,2.0,-2.0,2.0,-2.0,-2.0,2.0,-2.0,-2.0,2.0,2.0,-2.0,-2.0,2.0,-2.0,2.0,-2.0,-2.0,2.0,-2.0,-2.0
2025-06-05 14:14:31.956,-0.012222561,-0.023770336,0.0069924034,0.07694226,0.072322145,-0.016994536,0.0,0.0,0.0,0.036515255,0.0592351,0.49559712,-0.2326719,-0.07248418,0.41131964,-0.13441516,0.09245191,-0.4542364,-0.07593864,0.11788904,-0.46592855,-0.22692376,-0.01505027,0.040503703,0.028637886,-0.06402389,0.06646399,-0.0064893267,0.011163536,0.071141966,0.019891756,-0.06581955,0.072039984,0.058699097,2.0,2.0,-2.0,-2.0,2.0,-2.0,2.0,-2.0,-2.0,2.0,-2.0,-2.0,2.0,2.0,-2.0,-2.0,2.0,-2.0,2.0,-2.0,-2.0,2.0,-2.0,-2.0
2025-06-05 14:14:31.976,0.022014644,-0.03015234,0.0382871,0.068361185,0.057593964,0.017394539,0.0,0.0,0.0,0.036548264,0.06714607,0.4889363,-0.22976606,-0.061321445,0.40950257,-0.12906827,0.080323145,-0.45544454,-0.08228395,0.13229015,-0.47691777,-0.22124736,-0.0216318,0.026250431,0.040272597,-0.0746814,-0.06667851,0.04260966,0.031872723,-0.03956637,-0.03490539,-0.049377434,-0.04380918,0.015246504,2.0,2.0,-2.0,-2.0,2.0,-2.0,2.0,-2.0,-2.0,2.0,-2.0,-2.0,2.0,2.0,-2.0,-2.0,2.0,-2.0,2.0,-2.0,-2.0,2.0,-2.0,-2.0
2025-06-05 14:14:31.996,0.011278911,-0.029641127,-0.014376647,-0.011622471,0.09480872,0.014568498,0.0,0.0,0.0,0.036589526,0.063900515,0.48582202,-0.22836624,-0.07799009,0.39693326,-0.12919414,0.088058,-0.46583417,-0.07868945,0.1277197,-0.47163573,-0.21857631,-0.021746121,0.0610135,-0.012731139,0.008925736,-0.015633198,-0.07330985,-0.03253591,0.029101323,-0.03256627,0.06286412,-0.054487444,0.06435757,2.0,2.0,-2.0,-2.0,2.0,-2.0,2.0,-2.0,-2.0,2.0,-2.0,-2.0,2.0,2.0,-2.0,-2.0,2.0,-2.0,2.0,-2.0,-2.0,2.0,-2.0,-2.0
2025-06-05 14:14:32.019,0.046494152,7.152019e-05,0.038843233,0.036751118,0.13252918,0.0040379767,0.0,0.0,0.0,0.036624778,0.0699376,0.4955282,-0.22015412,-0.06980883,0.39719737,-0.12286881,0.08584764,-0.46334785,-0.07645689,0.123816095,-0.4617941,-0.22368807,0.020967271,0.022177253,-0.05090406,0.013780335,0.0039060703,-0.06323413,-0.06499077,-0.039619993,-0.07236811,0.023815064,0.026998626,0.044010337,2.0,2.0,-2.0,-2.0,2.0,-2.0,2.0,-2.0,-2.0,2.0,-2.0,-2.0,2.0,2.0,-2.0,-2.0,2.0,-2.0,2.0,-2.0,-2.0,2.0,-2.0,-2.0
2025-06-05 14:14:32.037,0.04453519,-0.010542899,0.0022318747,0.0020962185,0.12726372,0.025365584,0.0,0.0,0.0,0.03665222,0.051018644,0.4933965,-0.23197655,-0.071671546,0.3953002,-0.13027722,0.08134386,-0.45016167,-0.090649374,0.118695006,-0.47279215,-0.21886323,0.06730079,-0.06921975,-0.022327157,0.038189787,-0.02272304,0.01489654,-0.05678087,-0.039340127,-0.017677343,0.05280895,0.009192825,-0.046822336,2.0,2.0,-2.0,-2.0,2.0,-2.0,2.0,-2.0,-2.0,2.0,-2.0,-2.0,2.0,2.0,-2.0,-2.0,2.0,-2.0,2.0,-2.0,-2.0,2.0,-2.0,-2.0
2025-06-05 14:14:32.057,0.00741584,0.021449113,-0.031480998,0.021590045,0.13572045,0.010475318,0.0,0.0,0.0,0.036673833,0.06598776,0.502299,-0.21966176,-0.0712042,0.3950218,-0.13653715,0.075275116,-0.4637723,-0.077277936,0.13099131,-0.47594625,-0.21234027,0.03653928,-0.06710898,0.048643347,-0.02713738,-0.071809396,0.06119061,-0.07170232,-0.033945188,-0.0017293716,0.03738649,0.0014141501,-0.03577357,2.0,2.0,-2.0,-2.0,2.0,-2.0,2.0,-2.0,-2.0,2.0,-2.0,-2.0,2.0,2.0,-2.0,-2.0,1.8261307,-2.0,2.0,-2.0,-2.0,2.0,-2.0,-2.0
2025-06-05 14:14:32.079,-0.028100692,-0.023462709,-0.019371392,0.020745594,0.07048763,0.016621783,0.0,0.0,0.0,0.036690794,0.06731515,0.4907362,-0.2192637,-0.07481157,0.40085313,-0.13109526,0.087263465,-0.46754324,-0.091424316,0.13072331,-0.47828943,-0.22382224,-0.019525843,0.01577911,-0.062882096,0.05295389,0.012014237,-0.07148784,0.051394474,0.032831453,0.020143786,-0.013981799,-0.050299402,-0.0023933807,2.0,2.0,-2.0,-2.0,1.8261307,-2.0,2.0,-2.0,-2.0,2.0,-2.0,-2.0,2.0,2.0,-2.0,-2.0,1.8625938,-2.0,2.0,-2.0,-2.0,2.0,-2.0,-2.0
2025-06-05 14:14:32.097,-0.02752986,-0.009198615,0.024639867,0.07365705,0.11799858,-0.044722784,0.0,0.0,0.0,0.036631133,0.07038225,0.49927273,-0.229241,-0.06571598,0.3980049,-0.13007835,0.07614296,-0.4594447,-0.09437035,0.13099888,-0.47596166,-0.21423593,-0.050434854,-0.025900686,-0.034368195,0.061494816,0.057732537,0.003222771,-0.004685222,0.05259847,-0.06973686,0.063845046,0.04007429,-0.028333968,2.0,2.0,-2.0,-2.0,1.8625938,-2.0,2.0,-2.0,-2.0,2.0,-2.0,-2.0,2.0,2.0,-2.0,-2.0,2.0,-2.0,2.0,-2.0,-2.0,2.0,-2.0,-2.0
2025-06-05 14:14:32.119,0.024400555,-0.028099876,0.029930742,0.059327785,0.099974275,0.030904494,0.0,0.0,0.0,0.036546633,0.060025048,0.48994583,-0.22546403,-0.058313638,0.4015772,-0.13276817,0.08473073,-0.45283157,-0.08349005,0.119214684,-0.46367452,-0.2243316,-0.03958648,-0.0022617695,0.06876134,0.023677487,0.0019524272,0.03732459,-0.0702175,-0.062255505,-0.01103865,-0.018796906,-0.04991968,-0.0013901757,2.0,2.0,-2.0,-2.0,2.0,-2.0,2.0,-2.0,-2.0,2.0,-2.0,-2.0,2.0,2.0,-2.0,-2.0,2.0,-2.0,2.0,-2.0,-2.0,2.0,-2.0,-2.0
2025-06-05 14:14:32.137,0.0006432679,0.017177615,-0.050772924,0.07718467,0.04979125,-0.030382255,0.0,0.0,0.0,0.036534596,0.058855973,0.49630153,-0.22933841,-0.074261285,0.4083702,-0.13886282,0.092721954,-0.46858278,-0.0848338,0.12069836,-0.46308783,-0.22472589,0.014757623,-0.0041372622,0.05040703,0.019278543,-0.015046468,-0.0036656205,0.06836859,0.06423635,0.05622791,0.0248902,-0.020231517,0.05687535,2.0,2.0,-2.0,-2.0,2.0,-2.0,2.0,-2.0,-2.0,2.0,-2.0,-2.0,2.0,2.0,-2.0,-2.0,1.8460222,-2.0,2.0,-2.0,-2.0,2.0,-2.0,-2.0
2025-06-05 14:14:32.157,0.018601112,0.011211267,-0.029229755,0.027093314,0.046837848,0.039132398,0.0,0.0,0.0,0.036568597,0.052035887,0.49186966,-0.22788984,-0.06485968,0.39447254,-0.13301359,0.08187569,-0.4615931,-0.09221579,0.12241149,-0.46431515,-0.21437036,-0.05405231,0.057118908,-0.041428056,0.0041136397,-0.010376997,0.05816813,-0.053938556,0.0034645898,-0.002919597,0.07302618,0.0701367,0.06825853,2.0,2.0,-2.0,-2.0,1.8460222,-2.0,2.0,-2.0,-2.0,2.0,-2.0,-2.0,2.0,2.0,-2.0,-2.0,1.8374251,-2.0,2.0,-2.0,-2.0,2.0,-2.0,-2.0
2025-06-05 14:14:32.178,-0.03772367,0.031712893,0.018664,0.06132222,0.07659184,0.020452203,0.0,0.0,0.0,0.036545325,0.0713585,0.48714274,-0.2241616,-0.07107452,0.40487972,-0.13419507,0.0758459,-0.4620774,-0.08609957,0.12905888,-0.47529477,-0.22204764,0.06733126,-0.024459679,0.038098883,0.025324304,-0.064844064,0.05044914,0.058366902,0.018905494,0.012070555,0.032471888,-0.0138596315,0.041927885,2.0,2.0,-2.0,-2.0,1.8374251,-2.0,2.0,-2.0,-2.0,2.0,-2.0,-2.0,2.0,2.0,-2.0,-2.0,2.0,-2.0,2.0,-2.0,-2.0,2.0,-2.0,-2.0
2025-06-05 14:14:32.198,-0.019545788,0.039875623,0.04464293,0.031146897,0.13332453,0.0305135,0.0,0.0,0.0,0.036478974,0.055493876,0.490519,-0.22524147,-0.07337764,0.392558,-0.13549873,0.07585938,-0.4640204,-0.085269086,0.11886767,-0.46488145,-0.23037118,-0.06203969,0.009666229,-0.03391763,0.06887854,0.071379416,-0.023717936,0.057598207,0.014352445,-0.05619011,0.052487686,0.018133754,0.05343577,2.0,2.0,-2.0,-2.0,2.0,-2.0,2.0,-2.0,-2.0,2.0,-2.0,-2.0,2.0,2.0,-2.0,-2.0,2.0,-2.0,2.0,-2.0,-2.0,2.0,-2.0,-2.0
2025-06-05 14:14:32.220,-0.0041143415,-0.036301702,0.044878036,-0.0068381364,0.12037043,0.021510571,0.0,0.0,0.0,0.03648215,0.05680778,0.48739704,-0.21400657,-0.073907174,0.39116934,-0.12758373,0.08785113,-0.46727496,-0.09553977,0.11964684,-0.4672828,-0.22632773,0.009743655,-0.042792205,-0.0629472,0.060622603,-0.06706234,-0.030419972,0.031216055,-0.019437402,0.05827684,-0.06322002,-0.0052712034,0.004761762,2.0,2.0,-2.0,-2.0,2.0,-2.0,2.0,-2.0,-2.0,2.0,-2.0,-2.0,2.0,2.0,-2.0,-2.0,2.0,-2.0,2.0,-2.0,-2.0,2.0,-2.0,-2.0
2025-06-05 14:14:32.237,-0.03879184,0.017313762,0.018034605,0.05185192,0.11271083,-0.0073109115,0.0,0.0,0.0,0.0365315,0.06772544,0.4871073,-0.22088693,-0.07593137,0.39535293,-0.14081843,0.09143663,-0.46201193,-0.09090767,0.13044629,-0.47338462,-0.22447267,0.018597042,-0.02270606,0.020852674,0.05739074,0.04287883,0.03758093,0.066211775,-0.017438091,-0.029219741,0.07334808,0.056257185,-0.02617698,2.0,2.0,-2.0,-2.0,2.0,-2.0,2.0,-2.0,-2.0,2.0,-2.0,-2.0,2.0,2.0,-2.0,-2.0,2.0,-2.0,2.0,-2.0,-2.0,2.0,-2.0,-2.0
2025-06-05 14:14:32.257,0.019191856,-0.032280352,-0.02935145,0.0074754143,0.09355779,0.0005370671,0.0,0.0,0.0,0.03658549,0.063971125,0.4994909,-0.21359925,-0.061217982,0.4101859,-0.124649145,0.087955646,-0.46738225,-0.08394483,0.11715303,-0.4686892,-0.22554488,0.0070587196,-0.07254943,-0.033250395,0.047793135,-0.065044925,-0.033944305,-0.061463375,-0.038746532,0.02506017,-0.0054357257,-0.038749855,0.007861681,2.0,2.0,-2.0,-2.0,2.0,-2.0,2.0,-2.0,-2.0,2.0,-2.0,-2.0,2.0,2.0,-2.0,-2.0,1.8869126,-2.0,2.0,-2.0,-2.0,2.0,-2.0,-2.0
2025-06-05 14:14:32.278,0.00033727885,0.023098083,-0.021815313,0.011576852,0.13137089,0.023665717,0.0,0.0,0.0,0.036630273,0.060496155,0.4998286,-0.2215807,-0.06666209,0.39907765,-0.1267392,0.0748635,-0.46776003,-0.09223851,0.13139096,-0.46608633,-0.215167,-0.009042986,0.046405137,-0.043623313,0.008886375,-0.03943169,-0.041098747,0.05743998,0.026231268,0.07436429,-0.040959682,-0.015708594,-0.021536225,2.0,2.0,-2.0,-2.0,1.8869126,-2.0,2.0,-2.0,-2.0,2.0,-2.0,-2.0,2.0,2.0,-2.0,-2.0,1.8248612,-2.0,2.0,-2.0,-2.0,2.0,-2.0,-2.0
2025-06-05 14:14:32.297,-0.03777765,0.0098068165,-0.0006041895,0.026132273,0.06426388,-0.018565325,0.0,0.0,0.0,0.03661847,0.061686914,0.49834996,-0.2192006,-0.064628795,0.40080342,-0.13479167,0.090509415,-0.45915523,-0.08074809,0.11430925,-0.47798288,-0.2188324,0.016326169,0.058926854,-0.012458577,0.07436864,-0.0015800215,-0.022082007,0.010322978,0.07193368,0.038972702,0.0011382158,0.04550638,-0.03340507,2.0,2.0,-2.0,-2.0,1.8248612,-2.0,2.0,-2.0,-2.0,2.0,-2.0,-2.0,2.0,2.0,-2.0,-2.0,2.0,-2.0,2.0,-2.0,-2.0,2.0,-2.0,-2.0
2025-06-05 14:14:32.320,0.013359478,-0.027653672,-0.033486534,0.01100717,0.07684639,0.013029009,0.0,0.0,0.0,0.036549594,0.06440976,0.50105494,-0.2187325,-0.06451703,0.4018225,-0.12781997,0.08385176,-0.46417084,-0.09526185,0.12675616,-0.48167074,-0.22011553,0.015900912,0.024761071,-0.023308769,0.038840145,-0.002879991,-0.04798403,-0.005440086,0.0009753662,-0.043794923,0.054732323,-0.0015824438,-0.031168394,2.0,2.0,-2.0,-2.0,2.0,-2.0,2.0,-2.0,-2.0,2.0,-2.0,-2.0,2.0,2.0,-2.0,-2.0,1.8278428,-2.0,2.0,-2.0,-2.0,2.0,-2.0,-2.0
2025-06-05 14:14:32.338,0.020518469,0.014288749,-0.032837994,0.070278734,0.058234747,0.003208227,0.0,0.0,0.0,0.036541052,0.06927104,0.48729554,-0.22077255,-0.075198025,0.3950553,-0.13921288,0.08507499,-0.45788282,-0.09184526,0.114553526,-0.46535888,-0.22868566,-0.00062574854,-0.013962431,0.046453785,-0.00280311,0.020899286,0.044509403,0.040710952,0.00435137,-0.022455052,0.022768306,0.033939946,0.0587509,2.0,2.0,-2.0,-2.0,1.8278428,-2.0,2.0,-2.0,-2.0,2.0,-2.0,-2.0,2.0,2.0,-2.0,-2.0,1.9071175,-2.0,2.0,-2.0,-2.0,2.0,-2.0,-2.0
2025-06-05 14:14:32.358,-0.030029817,-0.0106367925,-0.0070113894,0.04730964,0.04475954,-0.04166128,0.0,0.0,0.0,0.036508318,0.070911616,0.48686635,-0.22767605,-0.07244127,0.40188175,-0.12825349,0.07636611,-0.46760827,-0.08385255,0.120997295,-0.47704905,-0.21843903,0.021046536,0.059230637,-0.05269164,0.023419019,0.029056901,-0.03283052,0.007381893,-0.073460445,0.019129306,-0.038229626,0.027036032,-0.06579315,2.0,2.0,-2.0,-2.0,1.9071175,-2.0,2.0,-2.0,-2.0,2.0,-2.0,-2.0,2.0,2.0,-2.0,-2.0,2.0,-2.0,2.0,-2.0,-2.0,2.0,-2.0,-2.0
2025-06-05 14:14:32.378,0.0064608944,-0.045908105,-0.05210379,0.076894894,0.06567306,-0.039511293,0.0,0.0,0.0,0.0364764,0.066592105,0.50108576,-0.22101395,-0.07630902,0.40699738,-0.13166821,0.07716764,-0.4617548,-0.08445618,0.12903136,-0.47182682,-0.2292266,0.06856173,0.028755652,0.072223775,0.016457163,-0.0110798,0.0431333,0.02366927,0.028745519,-0.04327925,-0.013337289,-0.0077981264,-0.051082734,2.0,2.0,-2.0,-2.0,2.0,-2.0,2.0,-2.0,-2.0,2.0,-2.0,-2.0,2.0,2.0,-2.0,-2.0,1.8238173,-2.0,2.0,-2.0,-2.0,2.0,-2.0,-2.0
2025-06-05 14:14:32.398,0.0014902549,-0.015362358,-0.044037554,0.03198396,0.05562184,0.034726292,0.0,0.0,0.0,0.036502365,0.05605339,0.50117934,-0.21785331,-0.060525116,0.3993969,-0.13608305,0.086540505,-0.45586765,-0.087189525,0.12007766,-0.48171037,-0.21604438,-0.024205815,-0.025431428,0.055216093,-0.069534436,-0.0634273,0.06505235,0.068440355,0.016909577,-0.06379563,0.062195763,-0.023259921,-0.06211259,2.0,2.0,-2.0,-2.0,1.8238173,-2.0,2.0,-2.0,-2.0,2.0,-2.0,-2.0,2.0,2.0,-2.0,-2.0,1.5792751,-2.0,2.0,-2.0,-2.0,2.0,-2.0,-2.0
2025-06-05 14:14:32.421,-0.038071666,-0.041255478,0.014652884,0.049833793,0.055085883,0.04205628,0.0,0.0,0.0,0.036481693,0.05436345,0.48319668,-0.21466747,-0.060678575,0.3994993,-0.12811348,0.07527364,-0.45190626,-0.08684943,0.13297713,-0.47738823,-0.21166122,-0.022317873,0.00428422,-0.011227205,0.0035907747,-0.06826418,-0.024149802,-0.056572333,-0.061869208,0.03238025,0.067831054,-0.03800245,0.0064539313,2.0,2.0,-2.0,-2.0,1.5792751,-2.0,2.0,-2.0,-2.0,2.0,-2.0,-2.0,2.0,2.0,-2.0,-2.0,2.0,-2.0,2.0,-2.0,-2.0,2.0,-2.0,-2.0
2025-06-05 14:14:32.438,-0.013707867,0.013426369,-0.050252967,0.03499707,0.13571139,0.04135812,0.0,0.0,0.0,0.036321256,0.056678317,0.49676394,-0.23093925,-0.06232826,0.39464253,-0.13145553,0.085368045,-0.45289564,-0.095585294,0.12183174,-0.48199126,-0.22601578,0.025647946,0.062829465,0.074787624,0.002049965,-0.070797086,0.052052204,0.040918346,0.033905663,0.064221166,0.067634515,0.026615709,-0.042759296,2.0,2.0,-2.0,-2.0,2.0,-2.0,2.0,-2.0,-2.0,2.0,-2.0,-2.0,2.0,2.0,-2.0,-2.0,1.6860429,-2.0,2.0,-2.0,-2.0,2.0,-2.0,-2.0
2025-06-05 14:14:32.459,0.009592461,0.04696195,0.029126462,0.04662154,0.12813133,0.049578324,0.0,0.0,0.0,0.036297712,0.06011976,0.48426408,-0.23250176,-0.064721875,0.39845833,-0.1310256,0.077189356,-0.46586227,-0.08116342,0.12732598,-0.4827087,-0.22196834,-0.06050578,0.058723442,0.03244982,0.0536859,0.057531603,0.019993173,-0.025675798,-0.005429704,-0.012944628,-0.0038169485,-0.01561948,-0.051298182,2.0,2.0,-2.0,-2.0,1.6860429,-2.0,2.0,-2.0,-2.0,2.0,-2.0,-2.0,2.0,2.0,-2.0,-2.0,2.0,-2.0,2.0,-2.0,-2.0,2.0,-2.0,-2.0
2025-06-05 14:14:32.479,0.03469864,0.0045878724,-0.011680822,0.008037468,0.087610774,0.023382789,0.0,0.0,0.0,0.036255468,0.057680942,0.48916632,-0.22005627,-0.06398937,0.3901216,-0.11851267,0.07892956,-0.4547566,-0.0911593,0.114136025,-0.47460902,-0.21793094,0.05343609,-0.05358342,0.026667299,-0.011044953,0.06587346,0.057646662,-0.009239862,0.044581745,0.047081042,-0.041777097,-0.032364804,-0.048530415,2.0,2.0,-2.0,-2.0,2.0,-2.0,2.0,-2.0,-2.0,2.0,-2.0,-2.0,2.0,2.0,-2.0,-2.0,1.90235,-2.0,2.0,-2.0,-2.0,2.0,-2.0,-2.0
2025-06-05 14:14:32.498,0.019937601,-0.0052238284,0.007597796,0.05526029,0.13961355,-0.0014735047,0.0,0.0,0.0,0.03629573,0.055453353,0.49132454,-0.23004656,-0.056518797,0.39764917,-0.13058142,0.07569608,-0.4610735,-0.08313296,0.12635516,-0.4671086,-0.22761256,-0.01437934,-0.07327101,-0.029459627,-0.008696061,-0.0343971,0.03904487,-0.0013146102,-0.033426132,0.028221259,-0.023053424,0.02020731,0.06994662,2.0,2.0,-2.0,-2.0,1.90235,-2.0,2.0,-2.0,-2.0,2.0,-2.0,-2.0,2.0,2.0,-2.0,-2.0,2.0,-2.0,2.0,-2.0,-2.0,2.0,-2.0,-2.0
2025-06-05 14:14:32.520,-0.027635926,-0.042495694,0.021685291,0.0838089,0.08667469,0.040790938,0.0,0.0,0.0,0.036361106,0.06857823,0.49497563,-0.21845679,-0.07385324,0.40283,-0.13424218,0.07437344,-0.46999714,-0.09448261,0.11800183,-0.48490062,-0.23366717,0.072700106,0.01698528,-0.067497335,-0.05555539,0.063078865,-0.028064672,0.02964255,0.04267218,-0.06668473,-0.036170617,0.019281998,-0.03238265,2.0,2.0,-2.0,-2.0,2.0,-2.0,2.0,-2.0,-2.0,2.0,-2.0,-2.0,2.0,2.0,-2.0,-2.0,2.0,-2.0,2.0,-2.0,-2.0,2.0,-2.0,-2.0
2025-06-05 14:14:32.538,-0.04602835,-0.048832778,-0.032630246,0.06836665,0.05644117,-0.035932098,0.0,0.0,0.0,0.03644438,0.053971082,0.49339402,-0.22190648,-0.066744916,0.40067557,-0.13264005,0.08150741,-0.45621246,-0.099654615,0.13231206,-0.48031482,-0.21879473,-0.012415382,-0.05234344,-0.03383961,-0.026230838,-0.019129913,-0.02379398,-0.025369108,-0.048605565,-0.013010269,0.009264586,-0.057572007,0.072456285,2.0,2.0,-2.0,-2.0,2.0,-2.0,2.0,-2.0,-2.0,2.0,-2.0,-2.0,2.0,2.0,-2.0,-2.0,1.899764,-2.0,2.0,-2.0,-2.0,2.0,-2.0,-2.0
2025-06-05 14:14:32.558,-0.019799924,-0.035475522,0.017796423,0.010920236,0.1264764,0.04564209,0.0,0.0,0.0,0.036537584,0.0572669,0.49392188,-0.21535076,-0.059535537,0.39532018,-0.12982598,0.09144863,-0.4546383,-0.083601534,0.12490307,-0.47176543,-0.21350205,-0.016415877,-0.019465763,-0.05119348,0.014067288,0.01433137,0.020840446,0.0285628,0.06647201,0.05064322,0.022277178,-0.044482533,-0.07106935,2.0,2.0,-2.0,-2.0,1.899764,-2.0,2.0,-2.0,-2.0,2.0,-2.0,-2.0,2.0,2.0,-2.0,-2.0,1.9776167,-2.0,2.0,-2.0,-2.0,2.0,-2.0,-2.0
2025-06-05 14:14:32.578,-0.037959307,-0.040502787,0.045724504,0.031557858,0.121828675,0.0084809745,0.0,0.0,0.0,0.03657982,0.0552301,0.48424193,-0.21411149,-0.069838695,0.4067823,-0.1286003,0.08613669,-0.45564848,-0.08272852,0.11810846,-0.46981192,-0.23005763,-0.046754375,0.032119576,-0.006190492,0.003621229,-0.052036557,0.045637913,-0.024857482,0.03277171,0.041868996,0.0074027833,0.019811388,0.05983186,2.0,2.0,-2.0,-2.0,1.9776167,-2.0,2.0,-2.0,-2.0,2.0,-2.0,-2.0,2.0,2.0,-2.0,-2.0,2.0,-2.0,2.0,-2.0,-2.0,2.0,-2.0,-2.0
2025-06-05 14:14:32.598,-0.033661064,-0.024750257,-0.052400183,-0.0064382367,0.050595444,0.040213358,0.0,0.0,0.0,0.036616705,0.052431762,0.48440364,-0.21350773,-0.06357939,0.40699834,-0.12530504,0.07850133,-0.46555567,-0.08251615,0.11982171,-0.47666386,-0.22184592,-0.066807285,0.0077241077,0.06296787,-0.044195622,0.0039126207,-0.03540184,-0.049103342,-0.011422357,-0.0028875982,0.037705656,0.047439415,-0.023061177,2.0,2.0,-2.0,-2.0,2.0,-2.0,2.0,-2.0,-2.0,2.0,-2.0,-2.0,2.0,2.0,-2.0,-2.0,1.773983,-2.0,2.0,-2.0,-2.0,2.0,-2.0,-2.0
2025-06-05 14:14:32.620,-0.02757706,-0.018694723,-0.03601324,0.016377285,0.06394675,0.04027798,0.0,0.0,0.0,0.03667013,0.061108496,0.5003065,-0.21709229,-0.065966055,0.39204127,-0.13026993,0.07919121,-0.46018633,-0.094417594,0.13034853,-0.48210984,-0.21127535,-0.01141624,0.034540065,0.053949863,0.008085194,0.0151198385,-0.009387623,0.02654798,-0.0750131,0.062699646,-0.057780042,0.052710444,-0.072199345,2.0,2.0,-2.0,-2.0,1.773983,-2.0,2.0,-2.0,-2.0,2.0,-2.0,-2.0,2.0,2.0,-2.0,-2.0,1.8307333,-2.0,2.0,-2.0,-2.0,2.0,-2.0,-2.0
2025-06-05 14:14:32.638,0.028057346,0.023103192,0.025377762,0.060036726,0.10381913,0.0057501043,0.0,0.0,0.0,0.03663008,0.07010412,0.49233192,-0.22538105,-0.07686918,0.4048665,-0.13234206,0.08218524,-0.4525804,-0.088704765,0.12853272,-0.4697896,-0.22220021,0.042688172,0.05593323,0.065592006,0.048566025,-0.07038797,-0.037825037,-0.020160394,-0.026508342,-0.056742813,0.039789613,0.028488107,-0.03208243,2.0,2.0,-2.0,-2.0,1.8307333,-2.0,2.0,-2.0,-2.0,2.0,-2.0,-2.0,2.0,2.0,-2.0,-2.0,2.0,-2.0,2.0,-2.0,-2.0,2.0,-2.0,-2.0
2025-06-05 14:14:32.660,0.036515772,0.044715993,-0.022872016,0.054244537,0.09578588,0.0033753805,0.0,0.0,0.0,0.036554042,0.058326952,0.5000841,-0.2174968,-0.07184306,0.4059236,-0.1371906,0.081624895,-0.46212113,-0.094464906,0.12687951,-0.48081836,-0.21730886,0.042149432,-0.021737754,0.029598543,-0.045572713,0.042943962,0.008718364,0.059562705,-0.038377844,0.049524512,0.051276505,-0.041392643,-0.011957954,2.0,2.0,-2.0,-2.0,2.0,-2.0,2.0,-2.0,-2.0,2.0,-2.0,-2.0,2.0,2.0,-2.0,-2.0,1.8994733,-2.0,2.0,-2.0,-2.0,2.0,-2.0,-2.0
2025-06-05 14:14:32.679,-0.039866902,-0.037553802,-0.028664421,0.053388108,0.045124635,0.0046839514,0.0,0.0,0.0,0.036561016,0.06546122,0.49192142,-0.22027887,-0.05778289,0.39493784,-0.13655159,0.0827747,-0.45266634,-0.08991602,0.118360475,-0.46642682,-0.21780145,-0.0017164053,-0.05040658,-0.055681277,0.05305504,0.031223087,-0.062844746,-0.07234004,0.03284588,-0.014977776,-0.023084767,0.047230434,-0.016334964,2.0,2.0,-2.0,-2.0,1.8994733,-2.0,2.0,-2.0,-2.0,2.0,-2.0,-2.0,2.0,2.0,-2.0,-2.0,1.8485316,-2.0,2.0,-2.0,-2.0,2.0,-2.0,-2.0
2025-06-05 14:14:32.699,-0.048780452,-0.045162003,-0.046049245,0.03631994,0.13139854,0.024903392,0.0,0.0,0.0,0.036574237,0.066225424,0.5006131,-0.21780996,-0.07237686,0.39544168,-0.12708963,0.077115275,-0.46361548,-0.08302778,0.12540936,-0.48138723,-0.21940707,0.074001096,0.012000015,0.010907608,-0.026835907,0.062735945,-0.06327194,0.06506392,0.05877025,-0.051140845,0.06297904,0.055706766,0.027994016,2.0,2.0,-2.0,-2.0,1.8485316,-2.0,2.0,-2.0,-2.0,2.0,-2.0,-2.0,2.0,2.0,-2.0,-2.0,1.8143954,-2.0,2.0,-2.0,-2.0,2.0,-2.0,-2.0
2025-06-05 14:14:32.720,0.008540621,0.01776803,-0.042512383,0.07118116,0.046001863,0.022517102,0.0,0.0,0.0,0.03654541,0.057372984,0.49530476,-0.23111896,-0.065044574,0.40076083,-0.13554819,0.077627115,-0.46217632,-0.0825836,0.1238937,-0.48375565,-0.22179426,-0.024718482,-0.060943335,-0.07252395,-0.036355235,-0.0064513455,-0.005364114,-0.03903171,0.044187278,-0.0016592242,-0.0028745856,-0.058293704,0.012016159,2.0,2.0,-2.0,-2.0,1.8143954,-2.0,2.0,-2.0,-2.0,2.0,-2.0,-2.0,2.0,2.0,-2.0,-2.0,1.5886834,-2.0,2.0,-2.0,-2.0,2.0,-2.0,-2.0
2025-06-05 14:14:32.739,-0.0011854834,0.022203013,0.052598212,0.062442895,0.07109482,0.012205859,0.0,0.0,0.0,0.036487713,0.06606238,0.49329558,-0.23179439,-0.06305279,0.40397716,-0.1325877,0.08033146,-0.4700586,-0.08777435,0.13263153,-0.46769717,-0.22349054,-0.045901023,0.03676782,0.042610366,0.010979098,-0.020970175,0.040883776,0.022982618,-0.03471869,-0.064532906,-0.0047930665,-0.029113213,0.0074852407,2.0,2.0,-2.0,-2.0,1.5886834,-2.0,2.0,-2.0,-2.0,2.0,-2.0,-2.0,2.0,2.0,-2.0,-2.0,2.0,-2.0,2.0,-2.0,-2.0,2.0,-2.0,-2.0
2025-06-05 14:14:32.759,-0.03187235,0.03496958,-0.03404821,0.034216642,0.111818455,-0.028981283,0.0,0.0,0.0,0.036335345,0.061214585,0.48354772,-0.22477567,-0.06953861,0.38872895,-0.12833907,0.07442205,-0.45871425,-0.09583921,0.11625178,-0.48610538,-0.22386256,0.03717446,-0.03381298,0.022716211,-0.039038695,-0.04617989,-0.009482768,0.06209891,-0.025358042,-0.008595641,-0.016324809,-0.055287242,0.028087461,2.0,2.0,-2.0,-2.0,2.0,-2.0,2.0,-2.0,-2.0,2.0,-2.0,-2.0,2.0,2.0,-2.0,-2.0,1.8542608,-2.0,2.0,-2.0,-2.0,2.0,-2.0,-2.0
2025-06-05 14:14:32.779,-0.026341783,-0.01855549,-0.0036835254,0.02864428,0.04843183,0.009194018,0.0,0.0,0.0,0.036327586,0.06442362,0.48370224,-0.21619275,-0.07363634,0.40491244,-0.13524902,0.0811777,-0.46480918,-0.08319125,0.12852487,-0.4704135,-0.23066352,-0.027542299,0.04326299,0.015760753,-0.03787089,0.072994694,0.06059552,0.057156652,0.056915343,-0.02021137,-0.027202306,-0.049575806,-0.0032985471,2.0,2.0,-2.0,-2.0,1.8542608,-2.0,2.0,-2.0,-2.0,2.0,-2.0,-2.0,2.0,2.0,-2.0,-2.0,2.0,-2.0,2.0,-2.0,-2.0,2.0,-2.0,-2.0
2025-06-05 14:14:32.799,0.02946551,0.0009856815,0.015090808,0.050380893,0.12321448,-0.046617627,0.0,0.0,0.0,0.03636639,0.062006664,0.4838036,-0.21885364,-0.06738933,0.39633396,-0.13208325,0.07451291,-0.4575503,-0.09629635,0.13207635,-0.47916144,-0.21511197,-0.058319885,0.029972818,-0.01286962,0.07003212,0.060964916,-0.053730447,0.06686661,-0.06752656,-0.032988206,0.037235487,0.061692525,0.027782355,2.0,2.0,-2.0,-2.0,2.0,-2.0,2.0,-2.0,-2.0,2.0,-2.0,-2.0,2.0,2.0,-2.0,-2.0,2.0,-2.0,2.0,-2.0,-2.0,2.0,-2.0,-2.0
2025-06-05 14:14:32.820,-0.036647707,-0.023045124,0.0016380538,0.043846373,0.0567845,-0.030706532,0.0,0.0,0.0,0.036441647,0.05614617,0.48122498,-0.22087991,-0.05640774,0.39971313,-0.13964793,0.07288049,-0.45467705,-0.091512784,0.11451188,-0.4751478,-0.22828837,-0.04126744,0.026637899,0.040429216,0.033093482,-0.040261943,0.005084792,0.013224943,0.05554869,0.028810322,0.013659143,-0.055951685,0.07440024,2.0,2.0,-2.0,-2.0,2.0,-2.0,2.0,-2.0,-2.0,2.0,-2.0,-2.0,2.0,2.0,-2.0,-2.0,2.0,-2.0,2.0,-2.0,-2.0,2.0,-2.0,-2.0
2025-06-05 14:14:32.840,0.029859679,-0.014803835,-0.00500212,0.072609626,0.13656855,-0.03947088,0.0,0.0,0.0,0.036537923,0.06640267,0.49769086,-0.21851835,-0.06006352,0.4065895,-0.121699065,0.090865195,-0.45866194,-0.08604966,0.11797838,-0.47305742,-0.23281993,-0.060819466,0.0042523723,-0.053949896,0.020677911,0.038248602,1.7859003e-05,-0.01580734,-0.0575734,0.018800484,0.0123562245,-0.07153232,0.06548753,2.0,2.0,-2.0,-2.0,2.0,-2.0,2.0,-2.0,-2.0,2.0,-2.0,-2.0,2.0,2.0,-2.0,-2.0,2.0,-2.0,2.0,-2.0,-2.0,2.0,-2.0,-2.0
2025-06-05 14:14:32.860,-0.022271259,-0.027984796,-0.04771481,0.007856835,0.045591906,-0.041353095,0.0,0.0,0.0,0.036626246,0.052481882,0.48013684,-0.23077005,-0.06331697,0.4086076,-0.12331083,0.083867095,-0.46691862,-0.09047833,0.12318618,-0.48185095,-0.22400753,-0.06474414,-0.005512926,0.012267153,-0.0068146465,0.012138052,0.058640182,-0.068462685,-0.06912104,0.010341471,0.028034901,-0.042362373,0.02489217,2.0,2.0,-2.0,-2.0,2.0,-2.0,2.0,-2.0,-2.0,2.0,-2.0,-2.0,2.0,2.0,-2.0,-2.0,1.8612143,-2.0,2.0,-2.0,-2.0,2.0,-2.0,-2.0
2025-06-05 14:14:32.880,0.01014666,-0.00020688999,-0.04656723,0.033154953,0.08001379,-0.043706745,0.0,0.0,0.0,0.036701653,0.0680315,0.49555776,-0.22169127,-0.063111484,0.3930808,-0.123173945,0.08086513,-0.4683182,-0.09472284,0.13074857,-0.479682,-0.22450583,0.044831544,-0.061802294,-0.07141572,0.07450446,-0.0567729,-0.057020288,-0.022266483,0.01977023,0.07237921,-0.002626319,-0.0451202,0.03196687,2.0,2.0,-2.0,-2.0,1.8612143,-2.0,2.0,-2.0,-2.0,2.0,-2.0,-2.0,2.0,2.0,-2.0,-2.0,1.721436,-2.0,2.0,-2.0,-2.0,2.0,-2.0,-2.0
2025-06-05 14:14:32.903,0.000517383,-0.0029291927,-0.004580737,-0.00020524197,0.063330054,-0.014606165,0.0,0.0,0.0,0.036705524,0.053248618,0.4936703,-0.2166567,-0.075447544,0.40763086,-0.12608738,0.085238524,-0.4592497,-0.09847072,0.12702294,-0.4773406,-0.22363138,0.05394301,-0.03815449,0.018775841,0.021818252,-0.06544161,0.05118054,0.07092189,0.046254184,0.031995945,-0.04748549,-0.03653057,-0.018925967,2.0,2.0,-2.0,-2.0,1.721436,-2.0,2.0,-2.0,-2.0,2.0,-2.0,-2.0,2.0,2.0,-2.0,-2.0,1.9925499,-2.0,2.0,-2.0,-2.0,2.0,-2.0,-2.0
2025-06-05 14:14:32.920,-0.030617587,0.03348416,0.02303095,-0.011233195,0.10485892,-0.0124843195,0.0,0.0,0.0,0.036607172,0.052331764,0.49746913,-0.22501081,-0.07329843,0.39272332,-0.1368601,0.08843834,-0.46629605,-0.08230645,0.11872632,-0.47093368,-0.21907358,0.07221571,-0.017750889,-0.02389679,-0.0415202,0.0334901,-0.011003436,-0.056845497,-0.06764002,0.0019364143,-0.04168891,0.03482693,-0.007185214,2.0,2.0,-2.0,-2.0,1.9925499,-2.0,2.0,-2.0,-2.0,2.0,-2.0,-2.0,2.0,2.0,-2.0,-2.0,2.0,-2.0,2.0,-2.0,-2.0,2.0,-2.0,-2.0
2025-06-05 14:14:32.941,0.045883562,-0.033047885,-0.04613913,0.010993874,0.054645795,-0.032412916,0.0,0.0,0.0,0.036587283,0.056924444,0.4950848,-0.22010201,-0.07173002,0.39874887,-0.1388409,0.09201216,-0.4546336,-0.08541088,0.13107036,-0.47974643,-0.22385468,-0.05945162,-0.0720081,0.055289898,-0.008049923,-0.06676558,-0.047370672,-0.062749855,-0.060268614,0.019746859,-0.025826747,-0.05731469,0.010431533,2.0,2.0,-2.0,-2.0,2.0,-2.0,2.0,-2.0,-2.0,2.0,-2.0,-2.0,2.0,2.0,-2.0,-2.0,1.8566302,-2.0,2.0,-2.0,-2.0,2.0,-2.0,-2.0
2025-06-05 14:14:32.961,-0.030874947,-0.003409615,-0.030749684,0.045736264,0.10679775,-0.028206358,0.0,0.0,0.0,0.03664045,0.06565218,0.4842035,-0.22295424,-0.07186112,0.39354602,-0.1359247,0.07478947,-0.46147704,-0.088143826,0.115583226,-0.47486752,-0.225077,0.027485006,0.016039256,-0.06997153,0.070026755,0.067107745,0.06708702,-0.051994957,-0.041792296,-0.06327912,-0.0115476195,-0.027484989,0.026349936,2.0,2.0,-2.0,-2.0,1.8566302,-2.0,2.0,-2.0,-2.0,2.0,-2.0,-2.0,2.0,2.0,-2.0,-2.0,1.9065276,-2.0,2.0,-2.0,-2.0,2.0,-2.0,-2.0
2025-06-05 14:14:32.980,-0.044398457,-0.047497462,-0.01972431,0.074618615,0.06804418,0.036920417,0.0,0.0,0.0,0.036641844,0.05683349,0.4922899,-0.21687806,-0.05657011,0.40554172,-0.13932167,0.07754784,-0.45579684,-0.08668296,0.11606984,-0.47802344,-0.22710505,-0.05290073,0.03923595,0.029360054,-0.00714121,0.038220823,-0.0558051,0.056664877,-0.033301055,0.028580885,-0.060202327,-0.04799776,-0.047420174,2.0,2.0,-2.0,-2.0,1.9065276,-2.0,2.0,-2.0,-2.0,2.0,-2.0,-2.0,2.0,2.0,-2.0,-2.0,1.8744192,-2.0,2.0,-2.0,-2.0,2.0,-2.0,-2.0
2025-06-05 14:14:33.003,0.02961417,-0.028749336,0.027017524,0.030891187,0.12843181,-0.021972349,0.0,0.0,0.0,0.036622994,0.05689086,0.4955923,-0.23228937,-0.06400271,0.39070675,-0.11999952,0.080798805,-0.4645362,-0.09525227,0.13316101,-0.47210774,-0.21294928,0.058808036,0.018577706,-0.05638086,0.07007097,-0.07438391,0.023339132,-0.05137362,0.07278527,-0.033284754,0.041429795,0.004276027,0.033077367,2.0,2.0,-2.0,-2.0,1.8744192,-2.0,2.0,-2.0,-2.0,2.0,-2.0,-2.0,2.0,2.0,-2.0,-2.0,2.0,-2.0,2.0,-2.0,-2.0,2.0,-2.0,-2.0
2025-06-05 14:14:33.021,0.018396799,0.011210537,-0.032924853,-0.0010211479,0.10340742,-0.040389247,0.0,0.0,0.0,0.036598828,0.056753535,0.4841737,-0.21810552,-0.07601554,0.3993669,-0.13130894,0.08501363,-0.4664626,-0.09797775,0.13107164,-0.46644285,-0.21482658,-0.06757664,-0.013747361,-0.046651203,-0.034079157,-0.066293925,-0.07010688,0.0166602,-0.013525037,-0.015315146,-0.0517316,-0.013234071,0.02053365,2.0,2.0,-2.0,-2.0,2.0,-2.0,2.0,-2.0,-2.0,2.0,-2.0,-2.0,2.0,2.0,-2.0,-2.0,1.9391346,-2.0,2.0,-2.0,-2.0,2.0,-2.0,-2.0
2025-06-05 14:14:33.041,0.03139494,-0.011899487,0.03380992,0.0493198,0.104871444,-0.04312099,0.0,0.0,0.0,0.03662493,0.052674927,0.48583654,-0.22227578,-0.06458906,0.40251133,-0.121729515,0.07814748,-0.45726648,-0.08727895,0.1287632,-0.4815792,-0.22671619,0.0484667,-0.06284659,0.034556966,0.013471109,0.035880882,-0.019996434,-0.06169645,-0.050704084,-0.017874295,-0.06328176,-0.055555124,-0.054244503,2.0,2.0,-2.0,-2.0,1.9391346,-2.0,2.0,-2.0,-2.0,2.0,-2.0,-2.0,2.0,2.0,-2.0,-2.0,2.0,-2.0,2.0,-2.0,-2.0,2.0,-2.0,-2.0
2025-06-05 14:14:33.061,-0.030687297,0.035411824,0.010949827,-0.008803636,0.0945349,-0.030850578,0.0,0.0,0.0,0.036655568,0.06448332,0.5009899,-0.22212295,-0.06256359,0.40357786,-0.1399183,0.08529716,-0.46058342,-0.09560497,0.13408035,-0.48248562,-0.22151966,-0.071295395,-0.062136862,0.05521206,0.068131864,0.020253878,0.061604157,0.07422063,0.02701773,-0.06742932,0.03928579,0.004304088,0.06847313,2.0,2.0,-2.0,-2.0,2.0,-2.0,2.0,-2.0,-2.0,2.0,-2.0,-2.0,2.0,2.0,-2.0,-2.0,2.0,-2.0,2.0,-2.0,-2.0,2.0,-2.0,-2.0
2025-06-05 14:14:33.081,0.021353688,0.019635178,-0.023200408,0.017647775,0.059110925,0.03619899,0.0,0.0,0.0,0.036695614,0.056027085,0.48630017,-0.22955681,-0.059224565,0.40553427,-0.13164519,0.07563512,-0.46941975,-0.08326439,0.123848036,-0.4668852,-0.23042955,0.017835336,0.048648085,-0.0553448,-0.06911124,0.020643195,-0.07176218,0.012037411,-0.008353663,-0.044999167,-0.02921369,-0.010043328,-0.0006939123,2.0,2.0,-2.0,-2.0,2.0,-2.0,2.0,-2.0,-2.0,2.0,-2.0,-2.0,2.0,2.0,-2.0,-2.0,1.8853317,-2.0,2.0,-2.0,-2.0,2.0,-2.0,-2.0
2025-06-05 14:14:33.104,-0.0066106627,0.015264275,0.040279318,0.08410875,0.07813111,0.048991024,0.0,0.0,0.0,0.03674162,0.062053826,0.49389464,-0.22457097,-0.07250028,0.39566147,-0.13987988,0.077667095,-0.46683508,-0.089875184,0.13289697,-0.4701684,-0.21267112,-0.069623396,0.04228483,-0.04442103,0.06234162,0.022886008,0.07247019,-0.06825078,0.035629246,-0.062560506,-0.020780342,0.0075253863,0.0012959939,2.0,2.0,-2.0,-2.0,1.8853317,-2.0,2.0,-2.0,-2.0,2.0,-2.0,-2.0,2.0,2.0,-2.0,-2.0,2.0,-2.0,2.0,-2.0,-2.0,2.0,-2.0,-2.0
2025-06-05 14:14:33.121,0.046517983,0.032025095,-0.031014552,0.0048322463,0.07357739,0.0012698042,0.0,0.0,0.0,0.03673428,0.05126718,0.49827045,-0.22552018,-0.06516093,0.41002363,-0.13000791,0.07802495,-0.4649425,-0.081111155,0.117058545,-0.47426683,-0.21257539,-0.06393679,-0.0141405985,-0.04868707,-0.054940883,-0.0087525165,-0.0019012038,-0.00960388,0.073483236,-0.05564829,0.03522179,0.006114889,0.037681997,2.0,2.0,-2.0,-2.0,2.0,-2.0,2.0,-2.0,-2.0,2.0,-2.0,-2.0,2.0,2.0,-2.0,-2.0,1.8039949,-2.0,2.0,-2.0,-2.0,2.0,-2.0,-2.0
2025-06-05 14:14:33.142,-0.025822092,0.028054163,-0.039877225,0.07597548,0.09713093,0.01004161,0.0,0.0,0.0,0.036742255,0.063216254,0.48439598,-0.22338371,-0.063600734,0.39464167,-0.13540736,0.09131988,-0.46938443,-0.08657774,0.13191955,-0.4713297,-0.21065207,0.022521429,-0.010888977,0.057403076,-0.03235288,-0.0079651745,0.0680501,0.038581133,0.06331514,0.06888303,-0.06514595,0.045605045,-0.019847965,2.0,2.0,-2.0,-2.0,1.8039949,-2.0,2.0,-2.0,-2.0,2.0,-2.0,-2.0,2.0,2.0,-2.0,-2.0,1.7786883,-2.0,2.0,-2.0,-2.0,2.0,-2.0,-2.0
2025-06-05 14:14:33.162,0.040013857,0.0149348555,-0.015179309,0.031276308,0.0734477,0.005696318,0.0,0.0,0.0,0.0366921,0.061760854,0.48480454,-0.22254278,-0.065258004,0.39541996,-0.1375511,0.090209804,-0.4563678,-0.08186189,0.12960935,-0.47120127,-0.22838031,-0.03228394,-0.06744869,0.06708671,-0.034078352,-0.0051821386,0.033483416,-0.026358958,-0.024658356,-0.008462334,-0.05684161,0.06182511,0.06265558,2.0,2.0,-2.0,-2.0,1.7786883,-2.0,2.0,-2.0,-2.0,2.0,-2.0,-2.0,2.0,2.0,-2.0,-2.0,2.0,-2.0,2.0,-2.0,-2.0,2.0,-2.0,-2.0
2025-06-05 14:14:33.181,0.0059737586,0.025919804,0.020414544,0.038583394,0.09857036,-0.008080387,0.0,0.0,0.0,0.036591325,0.063213736,0.49567133,-0.22227238,-0.07247439,0.4049353,-0.13492791,0.08592523,-0.45136106,-0.08583371,0.11453001,-0.4753115,-0.22760311,0.06939909,-0.012790415,0.016596673,-0.03005635,-0.0060475464,0.02657752,-0.041349616,-0.01976852,0.013277139,-0.027394539,-0.020374862,0.031198075,2.0,2.0,-2.0,-2.0,2.0,-2.0,2.0,-2.0,-2.0,2.0,-2.0,-2.0,2.0,2.0,-2.0,-2.0,2.0,-2.0,2.0,-2.0,-2.0,2.0,-2.0,-2.0
2025-06-05 14:14:33.204,0.013723077,-0.04579366,0.030261476,0.020769265,0.054337736,0.025885062,0.0,0.0,0.0,0.036583778,0.05362228,0.48736024,-0.22699794,-0.06496923,0.39854494,-0.13411152,0.08035091,-0.45263118,-0.09441296,0.1283697,-0.46506593,-0.21211085,0.036146317,0.06087429,-0.02006911,0.06864594,-0.0161927,-0.005309948,-0.06811956,0.05024112,-0.04608426,0.030149922,-0.021672385,-0.019883398,2.0,2.0,-2.0,-2.0,2.0,-2.0,2.0,-2.0,-2.0,2.0,-2.0,-2.0,2.0,2.0,-2.0,-2.0,2.0,-2.0,2.0,-2.0,-2.0,2.0,-2.0,-2.0
2025-06-05 14:14:33.221,0.009903437,0.03476048,0.032701977,0.084417775,0.05346613,-0.042469084,0.0,0.0,0.0,0.036639284,0.066356726,0.49499524,-0.22606173,-0.067673706,0.39254272,-0.12726666,0.090474226,-0.46865097,-0.08483061,0.12665574,-0.47746414,-0.21447636,0.028879311,0.0043430505,0.013833026,0.0018892355,0.02136719,0.059028212,0.07547155,-0.06464949,-0.007586001,-0.065825686,-0.048245613,-0.03249412,2.0,2.0,-2.0,-2.0,2.0,-2.0,2.0,-2.0,-2.0,2.0,-2.0,-2.0,2.0,2.0,-2.0,-2.0,2.0,-2.0,2.0,-2.0,-2.0,2.0,-2.0,-2.0
2025-06-05 14:14:33.242,0.0077949665,0.01338899,-0.04195588,-0.008937504,0.050957777,-0.0031098414,0.0,0.0,0.0,0.036699124,0.061134163,0.48605597,-0.21643269,-0.06091737,0.3957512,-0.13423298,0.08761841,-0.4519724,-0.0964353,0.1342608,-0.47011572,-0.21208102,0.06893788,-0.030499317,-0.013371237,0.033256177,-0.07276386,0.01300232,0.02701365,0.0536795,-0.0055862362,0.058746185,-0.05767287,-0.043929864,2.0,2.0,-2.0,-2.0,2.0,-2.0,2.0,-2.0,-2.0,2.0,-2.0,-2.0,2.0,2.0,-2.0,-2.0,1.6440288,-2.0,2.0,-2.0,-2.0,2.0,-2.0,-2.0
