openverse-orca/OrcaGym/log/simulation_log_20250605_172210.csv
timestamp,imu_angle_roll,imu_angle_pitch,imu_angle_yaw,imu_angular_velocity_roll,imu_angular_velocity_pitch,imu_angular_velocity_yaw,imu_acc_x,imu_acc_y,imu_acc_z,fl_joint1_pos,fl_joint1_vel,fl_joint1_torque,fl_joint2_pos,fl_joint2_vel,fl_joint2_torque,fl_joint3_pos,fl_joint3_vel,fl_joint3_torque,fr_joint1_pos,fr_joint1_vel,fr_joint1_torque,fr_joint2_pos,fr_joint2_vel,fr_joint2_torque,fr_joint3_pos,fr_joint3_vel,fr_joint3_torque,hl_joint1_pos,hl_joint1_vel,hl_joint1_torque,hl_joint2_pos,hl_joint2_vel,hl_joint2_torque,hl_joint3_pos,hl_joint3_vel,hl_joint3_torque,hr_joint1_pos,hr_joint1_vel,hr_joint1_torque,hr_joint2_pos,hr_joint2_vel,hr_joint2_torque,hr_joint3_pos,hr_joint3_vel,hr_joint3_torque,fl_force_x,fl_force_y,fl_force_z,fr_force_x,fr_force_y,fr_force_z,hl_force_x,hl_force_y,hl_force_z,hr_force_x,hr_force_y,hr_force_z,fl_hip_action,fl_thigh_action,fl_calf_action,fr_hip_action,fr_thigh_action,fr_calf_action,hl_hip_action,hl_thigh_action,hl_calf_action,hr_hip_action,hr_thigh_action,hr_calf_action
2025-06-05 17:22:10.797,0.03221435,0.030115392,-0.027043298,-0.01845079,-0.046019226,0.02238804,0.0,0.0,0.0,0.0,0.0014074703,-0.0086288685,0.0017895327,-0.009352347,-0.0061711753,0.00840399,-0.006720619,0.0017739142,0.006749315,0.0044900277,-0.005815427,0.008268734,0.01049063,0.0013495806,-0.023300499,-0.05172697,-0.030913863,-0.03070486,0.012491508,0.07477815,0.0049206587,-0.062238384,0.04547385,0.06060826,0.0,0.0,0.0,0.0,0.0,0.0,0.0,0.0,0.0,0.0,0.0,0.0,2.6826634,0.7993422,2.768645,-3.0,0.37172404,-2.545146,-1.3066882,-0.4921016,-3.0,2.6736066,-0.50194716,-1.1920543
2025-06-05 17:22:10.801,-0.15985209,-0.042675093,0.003411455,0.008406218,-0.049327966,-0.012319103,0.0,0.0,0.0,0.0,0.03960831,0.0412694,0.12246709,-0.025592042,0.027290432,-0.1199874,-0.027989736,-0.014971591,-0.14129625,0.030564798,-0.030696226,-0.052922513,0.17651685,0.07051921,0.43760157,-0.19562078,0.14455847,-0.36369997,-0.015826883,-0.014752161,-0.5064601,0.1151071,-0.15070839,-0.16362391,2.6826634,0.7993422,2.768645,-3.0,0.37172404,-2.545146,-1.3066882,-0.4921016,-3.0,2.6736066,-0.50194716,-1.1920543,3.0,3.0,3.0,-3.0,2.1725957,-3.0,-3.0,-0.18884821,-3.0,3.0,-1.3973742,3.0
2025-06-05 17:22:10.821,-0.087190084,0.38016537,0.0981573,0.031053718,0.017189538,0.0455004,0.0,0.0,0.0,0.0,0.090730704,0.25804073,0.28981215,-0.05338398,0.05181401,-0.1911686,-0.057041466,-0.027290488,-0.18556838,0.0713662,-0.14864548,0.07168113,0.21789026,0.7626133,0.37893558,-0.06416569,0.09036655,-0.061043695,-0.06414821,0.0031066986,-0.03686151,0.08786344,-0.31444854,0.41914114,3.0,3.0,3.0,-3.0,2.1725957,-3.0,-3.0,-0.18884821,-3.0,3.0,-1.3973742,3.0,3.0,3.0,-3.0,3.0,3.0,-3.0,-3.0,-2.0893369,-3.0,3.0,-0.89421374,-0.045346186
2025-06-05 17:22:10.842,-0.26203424,0.34136254,0.05336792,0.045449436,-0.06606299,-0.023065612,0.0,0.0,0.0,0.0,0.16630958,0.56342465,0.16139194,-0.08316247,0.07152119,-0.24322648,-0.09902974,-0.09222109,-0.162218,0.10958553,-0.25633556,0.12893048,0.19563492,0.77896225,-0.5825482,-0.025416514,-0.00052375114,-0.1361752,-0.15998834,-0.20133357,0.13703719,0.1688654,-0.18320546,0.042482708,3.0,3.0,-3.0,3.0,3.0,-3.0,-3.0,-2.0893369,-3.0,3.0,-0.89421374,-0.045346186,3.0,2.2177672,-3.0,3.0,2.2302673,-3.0,-3.0,-0.4607334,-3.0,3.0,-0.02247366,-3.0
2025-06-05 17:22:10.862,-0.118821636,0.38155243,0.1463734,0.015376409,-0.08647671,0.033879448,0.0,0.0,0.0,0.0,0.23641054,0.82255185,-0.12391699,-0.09076157,0.09482556,-0.3117914,-0.16219732,-0.11734991,-0.1707101,0.18437865,-0.2428355,-0.0495228,0.14234374,0.46868667,-0.72600526,-0.009116508,0.06428603,-0.1865545,-0.1405608,0.036550954,-0.1369479,0.20066275,0.04271109,-0.6250221,3.0,2.2177672,-3.0,3.0,2.2302673,-3.0,-3.0,-0.4607334,-3.0,3.0,-0.02247366,-3.0,3.0,1.4299917,-3.0,3.0,2.4910753,-3.0,-3.0,-0.2827415,-3.0,3.0,0.06724766,-3.0
2025-06-05 17:22:10.881,-0.088362075,0.34407878,0.12755093,0.008376594,-0.066655345,-0.010464736,0.0,0.0,0.0,0.0,0.2838054,0.9233599,-0.3494496,-0.09525229,0.1503179,-0.3834381,-0.18924442,-0.09255916,-0.19892082,0.21266721,-0.16873872,-0.28267252,0.10478868,0.19745046,-0.49275234,0.036949586,0.11911508,-0.1752537,0.011347446,0.029772462,-0.1596816,0.07054018,0.24769878,-0.48527333,3.0,1.4299917,-3.0,3.0,2.4910753,-3.0,-3.0,-0.2827415,-3.0,3.0,0.06724766,-3.0,3.0,0.9688193,-3.0,3.0,3.0,-3.0,-3.0,0.06690298,-3.0,3.0,-0.124495,-3.0
2025-06-05 17:22:10.902,-0.012259135,0.23848358,0.19837576,0.07849858,-0.1250436,0.009743304,0.0,0.0,0.0,0.0,0.3425022,0.8934758,-0.4861664,-0.08756148,0.2185614,-0.46581972,-0.2037562,-0.057810806,-0.24809344,0.2504833,-0.1235105,-0.45475,0.03714044,-0.14533237,-0.36118215,-0.015114843,0.20134425,-0.22641757,-0.075921476,0.08694003,-0.10662204,0.044997964,0.086453944,-0.42598605,3.0,0.9688193,-3.0,3.0,3.0,-3.0,-3.0,0.06690298,-3.0,3.0,-0.124495,-3.0,3.0,1.0486193,-3.0,3.0,3.0,-3.0,-3.0,0.15884523,-3.0,3.0,0.38484958,-3.0
2025-06-05 17:22:10.922,0.11267484,0.24305438,0.12035315,0.060049687,-0.09967379,-0.04571322,0.0,0.0,0.0,0.0,0.36908174,0.8265009,-0.5829858,-0.0807772,0.2971247,-0.55146044,-0.19640796,0.01252712,-0.3045943,0.25170484,-0.048306234,-0.5909737,0.12866226,-0.10279937,-0.14647795,0.066437826,0.24874711,-0.11487816,0.013524973,0.1436753,-0.09244873,0.03994969,0.25490797,-0.34555927,3.0,1.0486193,-3.0,3.0,3.0,-3.0,-3.0,0.15884523,-3.0,3.0,0.38484958,-3.0,3.0,1.5404361,-3.0,3.0,3.0,-3.0,-3.0,0.3650279,-3.0,3.0,-0.058359828,-3.0
2025-06-05 17:22:10.942,0.08301482,0.12065303,0.10606088,0.0979671,-0.16590567,0.030119823,0.0,0.0,0.0,0.0,0.3738946,0.8134843,-0.62998545,-0.029783612,0.4121189,-0.6179865,-0.20062809,0.0800143,-0.3471305,0.25164923,-0.014357368,-0.6624897,0.062181465,0.020985458,0.00077230425,0.12979075,0.46056035,-0.29932383,-0.060211744,0.22877234,-0.1621003,0.028973877,0.15686044,-0.0883398,3.0,1.5404361,-3.0,3.0,3.0,-3.0,-3.0,0.3650279,-3.0,3.0,-0.058359828,-3.0,3.0,1.5085961,-3.0,3.0,3.0,-3.0,-3.0,0.2487313,-3.0,3.0,-0.5314149,-3.0
2025-06-05 17:22:10.962,0.17116085,0.019575542,0.19537395,0.08822848,-0.20345894,0.014318714,0.0,0.0,0.0,0.0,0.3994405,0.8117878,-0.664875,0.0526642,0.617847,-0.7173372,-0.20028076,0.13124543,-0.39681035,0.26079485,-0.016873132,-0.70570743,-0.010970077,0.07404512,-0.048754614,0.13000481,0.4764617,-0.245095,0.001407361,0.17653048,-0.16258605,0.03164337,-0.10579938,-0.13179292,3.0,1.5085961,-3.0,3.0,3.0,-3.0,-3.0,0.2487313,-3.0,3.0,-0.5314149,-3.0,3.0,1.1436731,-3.0,3.0,3.0,-3.0,-3.0,0.28971577,-3.0,3.0,0.22951081,-3.0
2025-06-05 17:22:10.982,0.087916546,0.061182447,0.10265691,-0.014106095,-0.21936284,0.02770204,0.0,0.0,0.0,0.0,0.3984492,0.81863266,-0.6646396,0.118884735,0.83070266,-0.7529152,-0.20358852,0.19468409,-0.42997706,0.27133748,-0.009384591,-0.7363616,0.053324666,0.038847763,0.07516718,0.14554861,0.45536315,-0.16827986,-0.031081893,0.11808865,-0.030376535,0.08939903,0.064107895,-0.16008286,3.0,1.1436731,-3.0,3.0,3.0,-3.0,-3.0,0.28971577,-3.0,3.0,0.22951081,-3.0,3.0,1.4424787,-3.0,3.0,3.0,-3.0,-3.0,0.5740922,-3.0,3.0,-0.1110284,-3.0
2025-06-05 17:22:11.002,0.1290786,0.11616705,0.13449322,0.046245117,-0.14063935,0.045154437,0.0,0.0,0.0,0.0,0.40146387,0.82239527,-0.67140913,0.17529042,1.0108674,-0.78527653,-0.2148794,0.22786202,-0.4586981,0.27824044,-0.019095143,-0.76524067,0.0369761,-0.037810996,-0.056151368,0.20524177,0.46093842,-0.08874207,0.009862948,0.041427538,-0.0006215002,0.052397393,-0.06396154,-0.11105112,3.0,1.4424787,-3.0,3.0,3.0,-3.0,-3.0,0.5740922,-3.0,3.0,-0.1110284,-3.0,3.0,1.4466966,-3.0,3.0,3.0,-3.0,-3.0,0.32622474,-3.0,3.0,0.061853204,-3.0
2025-06-05 17:22:11.022,0.088566065,0.07798979,0.20414324,0.02440033,-0.1706426,-0.007581851,0.0,0.0,0.0,0.0,0.3956841,0.841035,-0.67609394,0.23892553,1.1577439,-0.7778994,-0.21877398,0.24924837,-0.45526096,0.28479013,-0.02324111,-0.7866928,0.04666213,0.06201232,-0.031568736,0.05044325,0.34168017,0.04907236,-0.080469094,0.0050401604,-0.014409715,-0.00031787195,0.03199587,-0.051350754,3.0,1.4466966,-3.0,3.0,3.0,-3.0,-3.0,0.32622474,-3.0,3.0,0.061853204,-3.0,3.0,1.213339,-3.0,3.0,3.0,-3.0,-3.0,0.18657522,-3.0,3.0,0.26052383,-3.0
2025-06-05 17:22:11.042,-0.05397303,0.15299901,0.1404565,-0.010138741,-0.17075323,-0.024658585,0.0,0.0,0.0,0.0,0.39838797,0.8401715,-0.66942513,0.27703846,1.2562102,-0.7829318,-0.23714069,0.25165775,-0.44324332,0.29095948,-0.00094668637,-0.8002192,-0.0033878381,-0.00015416981,0.066826805,0.10439894,0.14768846,-0.030968761,0.028080681,0.04236425,0.05554744,0.06776575,-0.0045298883,-0.05134107,3.0,1.213339,-3.0,3.0,3.0,-3.0,-3.0,0.18657522,-3.0,3.0,0.26052383,-3.0,3.0,1.5604181,-3.0,3.0,2.9158962,-3.0,-3.0,0.25207514,-3.0,3.0,0.022207294,-3.0
2025-06-05 17:22:11.062,-0.023666972,0.10472427,0.23044913,-0.008933881,-0.23582001,8.6869935e-05,0.0,0.0,0.0,0.0,0.4105166,0.83874005,-0.65292174,0.28894085,1.31868,-0.77693367,-0.24373718,0.25074765,-0.40348732,0.29494974,0.006140516,-0.79466873,-0.00468944,0.049187828,-0.024220705,0.09190204,0.109051414,0.042557426,-0.05572567,0.05401009,0.06637876,0.065463014,0.008429935,-0.019604167,3.0,1.5604181,-3.0,3.0,2.9158962,-3.0,-3.0,0.25207514,-3.0,3.0,0.022207294,-3.0,3.0,1.3327144,-3.0,3.0,3.0,-3.0,-3.0,-0.07755466,-3.0,3.0,0.2729011,-3.0
2025-06-05 17:22:11.082,-0.1310696,0.17343922,0.20589638,0.05770811,-0.25770894,-0.0108694285,0.0,0.0,0.0,0.0,0.43348786,0.83385205,-0.6559522,0.30347192,1.340618,-0.7875008,-0.25795168,0.2352601,-0.36714152,0.30616543,0.036048166,-0.8045267,0.01783644,0.007338261,-0.028846826,0.0076203747,-0.009007481,0.02831954,-0.09744098,-0.09996398,0.080614634,0.034230463,0.024980122,-0.043155216,3.0,1.3327144,-3.0,3.0,3.0,-3.0,-3.0,-0.07755466,-3.0,3.0,0.2729011,-3.0,3.0,1.4391145,-3.0,3.0,2.8742132,-3.0,-3.0,0.095629856,-3.0,3.0,0.27024558,-3.0
2025-06-05 17:22:11.103,-0.15414533,0.11168294,0.20634744,0.09640657,-0.26906383,-2.9165998e-05,0.0,0.0,0.0,0.0,0.42029658,0.820934,-0.6486601,0.30916393,1.3623639,-0.7738033,-0.28913194,0.22114514,-0.32646197,0.29506966,0.0480568,-0.7940938,-0.041987814,0.039377857,0.049139075,-0.031529993,-0.021427402,-0.031243727,0.008864495,-0.017239666,0.09951599,-0.01788869,0.13363229,0.027527438,3.0,1.4391145,-3.0,3.0,2.8742132,-3.0,-3.0,0.095629856,-3.0,3.0,0.27024558,-3.0,3.0,1.5186247,-3.0,3.0,2.7797306,-3.0,-3.0,-0.17474397,-3.0,3.0,0.21647504,-3.0
2025-06-05 17:22:11.125,-0.19582453,0.04863105,0.14228006,0.03305773,-0.28159818,-0.007899745,0.0,0.0,0.0,0.0,0.41492763,0.81145006,-0.62597156,0.28747138,1.3594853,-0.78783834,-0.2986813,0.19279921,-0.28563398,0.29833838,0.07270455,-0.79618716,-0.020941524,0.028943706,-0.035813257,0.0062288097,-0.07320695,-0.06137576,-0.034476355,-0.10667329,0.1371796,-0.053385593,0.09986497,0.050630406,3.0,1.5186247,-3.0,3.0,2.7797306,-3.0,-3.0,-0.17474397,-3.0,3.0,0.21647504,-3.0,3.0,1.6776838,-3.0,3.0,2.536402,-3.0,-3.0,0.06603782,-3.0,3.0,0.047991786,-3.0
2025-06-05 17:22:11.143,-0.19121614,-0.0025501393,0.15624218,0.057146493,-0.28142467,0.046590168,0.0,0.0,0.0,0.0,0.4146978,0.7960461,-0.63638294,0.28371894,1.3380573,-0.7796645,-0.32087088,0.17684226,-0.25391284,0.2932892,0.07850964,-0.79826444,-0.069636256,-0.10249908,-0.072570734,0.02204867,0.0027695727,0.057802998,0.017387701,-0.056707177,0.14643814,0.008387426,0.034137167,0.067930326,3.0,1.6776838,-3.0,3.0,2.536402,-3.0,-3.0,0.06603782,-3.0,3.0,0.047991786,-3.0,3.0,1.7807345,-3.0,3.0,2.3026817,-3.0,-3.0,-0.14650567,-3.0,3.0,0.18746546,-3.0
2025-06-05 17:22:11.162,-0.18460588,0.01748142,0.17052862,0.15047513,-0.21187647,-0.0036952063,0.0,0.0,0.0,0.0,0.42569327,0.7744567,-0.63279086,0.2895574,1.2896626,-0.78261715,-0.34479308,0.16032073,-0.22461888,0.2825394,0.08384983,-0.7999917,-0.05260378,0.028946128,-0.040376905,-0.06575729,-0.11793151,0.015854552,-0.100461245,-0.07870507,0.0071605784,-0.0061612986,-0.0093014715,-0.06762219,3.0,1.7807345,-3.0,3.0,2.3026817,-3.0,-3.0,-0.14650567,-3.0,3.0,0.18746546,-3.0,3.0,1.738764,-3.0,3.0,2.3360384,-3.0,-3.0,-0.068553284,-3.0,3.0,0.29887202,-3.0
2025-06-05 17:22:11.183,-0.15395117,-0.08781672,0.121539086,0.16468811,-0.22418638,-0.009415608,0.0,0.0,0.0,0.0,0.43049195,0.7747853,-0.6295773,0.28097102,1.2424467,-0.7901172,-0.36206478,0.15328634,-0.21070603,0.2879019,0.10398401,-0.7954382,0.042601872,-0.06676333,-0.058429528,-0.013594379,-0.099681646,0.0629487,-0.10874202,0.051857747,-0.031114887,0.006396113,0.055669412,0.008646426,3.0,1.738764,-3.0,3.0,2.3360384,-3.0,-3.0,-0.068553284,-3.0,3.0,0.29887202,-3.0,3.0,2.069274,-3.0,3.0,2.0789464,-3.0,-3.0,-0.055992674,-3.0,3.0,0.027619634,-3.0
2025-06-05 17:22:11.203,-0.25311017,-0.114545114,0.096163556,0.1351911,-0.1943112,-0.008409965,0.0,0.0,0.0,0.0,0.4331469,0.76644075,-0.6437222,0.2754331,1.1918778,-0.7884957,-0.38108686,0.15077455,-0.19481787,0.26958075,0.097504154,-0.80091465,0.019466145,-0.031649254,-0.03093337,-0.020526499,-0.10352939,0.018572824,0.028209243,0.01474275,0.09561699,0.023123274,-0.009319221,0.030681724,3.0,2.069274,-3.0,3.0,2.0789464,-3.0,-3.0,-0.055992674,-3.0,3.0,0.027619634,-3.0,3.0,2.1380918,-3.0,3.0,1.9596305,-3.0,-3.0,-0.051976275,-3.0,3.0,-0.025145736,-3.0
2025-06-05 17:22:11.226,-0.21659975,-0.18473847,-0.0090735005,0.17257518,-0.17047477,-0.044450875,0.0,0.0,0.0,0.0,0.43041816,0.7835688,-0.6499641,0.2884235,1.1272693,-0.79785997,-0.38424742,0.13885711,-0.186809,0.27213696,0.09933882,-0.7836852,-0.041431256,0.030323084,-0.048491832,-0.0099757975,-0.12187524,-0.06670755,-0.061666857,0.009947335,0.004746169,-0.019224538,-0.104411654,-0.03541423,3.0,2.1380918,-3.0,3.0,1.9596305,-3.0,-3.0,-0.051976275,-3.0,3.0,-0.025145736,-3.0,3.0,2.3973856,-3.0,3.0,1.4359862,-3.0,-3.0,0.2117595,-3.0,3.0,-0.44689795,-3.0
2025-06-05 17:22:11.243,-0.17800966,-0.13884284,0.03563897,0.18579444,-0.19633056,-0.024210297,0.0,0.0,0.0,0.0,0.41838133,0.7844609,-0.6743283,0.27000636,1.0233289,-0.78320116,-0.3997054,0.15923233,-0.19471566,0.27209896,0.043928057,-0.77797854,0.009159996,-0.01979416,-0.11387529,-0.02671436,-0.1782628,0.03718275,-0.051140845,0.053545494,-0.061012097,0.029128507,-0.1362024,-0.037405934,3.0,2.3973856,-3.0,3.0,1.4359862,-3.0,-3.0,0.2117595,-3.0,3.0,-0.44689795,-3.0,3.0,2.3694158,-3.0,3.0,1.2255625,-3.0,-3.0,-0.065183476,-3.0,3.0,-0.34656653,-3.0
2025-06-05 17:22:11.263,-0.25412524,-0.2893776,0.010324078,0.21179424,-0.16440564,0.035007387,0.0,0.0,0.0,0.0,0.4205018,0.81000155,-0.69209284,0.28157592,0.9177379,-0.7870712,-0.40594548,0.17027028,-0.21542227,0.2638609,-0.006471161,-0.7820335,-0.02360987,0.009133047,0.008249779,-0.068454854,-0.28967834,-0.06907166,-0.039214205,0.10621596,-0.08562573,-0.0635164,-0.18533683,-0.07112492,3.0,2.3694158,-3.0,3.0,1.2255625,-3.0,-3.0,-0.065183476,-3.0,3.0,-0.34656653,-3.0,3.0,2.5702333,-3.0,3.0,1.1511757,-3.0,-3.0,0.05355077,-3.0,3.0,-0.41206548,-3.0
2025-06-05 17:22:11.283,-0.227487,-0.37881157,-0.02289869,0.19287391,-0.12155863,0.02762528,0.0,0.0,0.0,0.0,0.42802805,0.8491789,-0.70095456,0.27880526,0.8006333,-0.7901996,-0.41787165,0.18935366,-0.23292062,0.2813806,-0.06320206,-0.7921374,-0.0774271,0.14912409,-0.046571493,0.017160878,-0.24178469,-0.051616505,-0.06786425,0.10556967,-0.04327493,0.06561371,-0.10128801,-0.027814314,3.0,2.5702333,-3.0,3.0,1.1511757,-3.0,-3.0,0.05355077,-3.0,3.0,-0.41206548,-3.0,3.0,2.2514343,-3.0,3.0,1.0247407,-3.0,-3.0,0.09190051,-3.0,3.0,-0.7793011,-3.0
2025-06-05 17:22:11.303,-0.20229554,-0.5940544,-0.1058058,0.18077457,-0.1378703,0.01808022,0.0,0.0,0.0,0.0,0.42405924,0.90965164,-0.7344801,0.28512868,0.7188361,-0.7891524,-0.3992988,0.22333118,-0.2506855,0.2744063,-0.11440743,-0.79217666,-0.038275603,0.19805114,-0.10021504,-0.013080016,-0.22608714,-0.045905307,0.026673425,0.04809916,0.0010352094,0.04965456,-0.12524061,0.06253092,3.0,2.2514343,-3.0,3.0,1.0247407,-3.0,-3.0,0.09190051,-3.0,3.0,-0.7793011,-3.0,3.0,1.5044492,-3.0,3.0,0.7741005,-3.0,-3.0,0.78637826,-3.0,3.0,-1.1190732,-3.0
2025-06-05 17:22:11.326,-0.114767574,-0.7319765,0.06281053,0.12122572,0.007597403,0.048519354,0.0,0.0,0.0,0.0,0.403833,0.9436784,-0.7324041,0.30599448,0.59935105,-0.799977,-0.3895928,0.26721907,-0.2765816,0.28525227,-0.21164076,-0.7748316,0.03615874,-0.025165929,0.059535764,-0.023115192,-0.31750634,0.029485239,0.057526954,0.06554035,-0.040787823,-0.004878795,-0.2928314,0.047115818,3.0,1.5044492,-3.0,3.0,0.7741005,-3.0,-3.0,0.78637826,-3.0,3.0,-1.1190732,-3.0,3.0,1.6927252,-3.0,3.0,1.163042,-3.0,-3.0,0.45584643,-3.0,3.0,-0.3066437,-3.0
2025-06-05 17:22:11.344,0.032794446,-0.4783969,-0.096913725,0.108705394,0.0047630775,-0.037232008,0.0,0.0,0.0,0.0,0.42429388,0.9463247,-0.7144548,0.3026319,0.55496645,-0.7992925,-0.37787613,0.3164331,-0.33010525,0.3159224,-0.2631957,-0.70166975,0.024576154,0.05009578,0.11165509,0.01834168,-0.07314507,0.042969327,0.03064021,0.15181291,-0.16582961,-0.014297256,-0.15191902,0.15838045,3.0,1.6927252,-3.0,3.0,1.163042,-3.0,-3.0,0.45584643,-3.0,3.0,-0.3066437,-3.0,3.0,2.0156703,-3.0,3.0,0.9088104,-3.0,-3.0,0.90183663,-3.0,3.0,-1.0602833,-3.0
2025-06-05 17:22:11.364,-0.042455446,-0.2041552,0.053948108,0.08527499,0.026674999,-0.0059212623,0.0,0.0,0.0,0.0,0.42829403,0.97027844,-0.68824816,0.304144,0.51192886,-0.69925946,-0.3935389,0.36326542,-0.36582112,0.32970425,-0.33592182,-0.63674116,-0.027700856,0.023715958,0.10115356,-0.054002922,-0.17439513,0.1666517,-0.11120583,0.05321253,-0.102060385,0.07062862,-0.18476197,0.0031390567,3.0,2.0156703,-3.0,3.0,0.9088104,-3.0,-3.0,0.90183663,-3.0,3.0,-1.0602833,-3.0,3.0,1.5102485,-3.0,3.0,1.2354379,-3.0,-3.0,0.57914746,-3.0,3.0,-0.64681906,-3.0
2025-06-05 17:22:11.383,-0.19578248,-0.07368213,0.10903925,0.17424592,0.0384707,-0.015929637,0.0,0.0,0.0,0.0,0.41759023,0.96006507,-0.67932534,0.29657733,0.46466538,-0.62178314,-0.41346171,0.40060136,-0.39617842,0.33067822,-0.3622208,-0.6664756,-0.002263437,0.037596624,-0.0007122502,-0.057710603,-0.0151686715,0.10348553,-0.08191906,0.054149646,-0.101982586,0.06917523,-0.092024185,-0.030382022,3.0,1.5102485,-3.0,3.0,1.2354379,-3.0,-3.0,0.57914746,-3.0,3.0,-0.64681906,-3.0,3.0,1.5919132,-3.0,3.0,1.804731,-3.0,-3.0,0.31221676,-3.0,3.0,-0.44363698,-3.0
2025-06-05 17:22:11.404,-0.07215366,-0.17916244,-0.055978436,0.122429274,0.08833402,-0.048904087,0.0,0.0,0.0,0.0,0.41441628,0.9665289,-0.67711204,0.3121302,0.46318236,-0.5779724,-0.42930758,0.41726705,-0.40773532,0.3407991,-0.40815175,-0.63869476,-0.012694444,0.041117415,-0.07414009,0.10678581,0.08105268,0.07404794,0.048187323,0.08347293,0.015756112,0.07151202,-0.14039831,0.12786388,3.0,1.5919132,-3.0,3.0,1.804731,-3.0,-3.0,0.31221676,-3.0,3.0,-0.44363698,-3.0,3.0,1.9370346,-3.0,3.0,1.3509455,-3.0,-3.0,0.86218125,-3.0,3.0,-1.0492752,-3.0
2025-06-05 17:22:11.426,-0.10555155,-0.16497901,0.0015811909,0.13630773,0.07934581,0.0015655577,0.0,0.0,0.0,0.0,0.40012524,0.9840638,-0.7002246,0.33356023,0.48241204,-0.5612922,-0.43915248,0.45657986,-0.44703224,0.36623254,-0.43632603,-0.5904888,-0.06992915,-0.008206929,0.031232502,0.061136767,-0.02189187,0.025843963,-0.04961263,0.026910005,-0.0797607,0.04165034,-0.12633666,0.013019261,3.0,1.9370346,-3.0,3.0,1.3509455,-3.0,-3.0,0.86218125,-3.0,3.0,-1.0492752,-3.0,3.0,1.582911,-3.0,3.0,1.2219998,-3.0,-3.0,0.89605093,-3.0,3.0,-0.8656222,-3.0
2025-06-05 17:22:11.444,-0.14440578,-0.14010401,0.085602716,0.1627373,0.07957449,0.025003407,0.0,0.0,0.0,0.0,0.4045284,0.96959114,-0.70329714,0.33654663,0.49868286,-0.53903186,-0.43178093,0.47508812,-0.47067425,0.36201292,-0.46051753,-0.61361927,0.034634385,0.0063510947,-0.041933604,-0.0356314,0.082002185,0.030927213,0.019168632,0.111623876,-0.1415748,-0.016609425,-0.06075601,0.08505016,3.0,1.582911,-3.0,3.0,1.2219998,-3.0,-3.0,0.89605093,-3.0,3.0,-0.8656222,-3.0,3.0,1.8624157,-3.0,3.0,1.5026786,-3.0,-3.0,0.456268,-3.0,3.0,-0.529622,-3.0
2025-06-05 17:22:11.464,-0.05131909,-0.034959283,-0.08340028,0.18183279,0.11836571,-0.02249033,0.0,0.0,0.0,0.0,0.3894242,0.9775253,-0.70726365,0.3406397,0.5015578,-0.54325134,-0.4272789,0.4972974,-0.4947888,0.3848309,-0.45555803,-0.5976447,-0.07169752,0.029194478,-0.02218454,0.017191814,0.11386622,0.030634766,-0.0075147785,-0.017378734,-0.040280193,-0.023200214,-0.054222822,-0.0075386125,3.0,1.8624157,-3.0,3.0,1.5026786,-3.0,-3.0,0.456268,-3.0,3.0,-0.529622,-3.0,3.0,1.8645488,-3.0,3.0,1.1698524,-3.0,-3.0,1.0164438,-3.0,3.0,-1.1289587,-3.0
2025-06-05 17:22:11.484,-0.040567473,-0.044322837,0.06286776,0.17154276,0.08999094,-0.046629857,0.0,0.0,0.0,0.0,0.38295192,0.98092353,-0.72543144,0.33852234,0.53388715,-0.5614309,-0.41285357,0.5229263,-0.5114356,0.3951147,-0.47290263,-0.576083,-0.040231276,0.044772606,0.033287846,0.05085938,0.042720772,-0.023917696,0.070326015,0.049385663,-0.08598217,-0.021179413,-0.028634712,0.0872285,3.0,1.8645488,-3.0,3.0,1.1698524,-3.0,-3.0,1.0164438,-3.0,3.0,-1.1289587,-3.0,3.0,1.5310621,-3.0,3.0,1.3561615,-3.0,-3.0,0.6594506,-3.0,3.0,-0.6665618,-3.0
2025-06-05 17:22:11.505,-0.069814384,0.014937574,0.020406045,0.18539436,0.13975321,-0.005099064,0.0,0.0,0.0,0.0,0.37987423,0.9700039,-0.7132137,0.3402813,0.54355186,-0.5699765,-0.4180828,0.53243166,-0.5233604,0.4088752,-0.46443284,-0.58039427,0.03476102,-0.09479038,0.036887728,-0.061563488,0.10481225,0.018468862,-0.016091913,-0.042440902,0.0027739306,-0.042676408,-0.071527235,-0.05535887,3.0,1.5310621,-3.0,3.0,1.3561615,-3.0,-3.0,0.6594506,-3.0,3.0,-0.6665618,-3.0,3.0,1.8350669,-3.0,3.0,1.7648472,-3.0,-3.0,0.65927297,-3.0,3.0,-0.6417267,-3.0
2025-06-05 17:22:11.526,-0.022270968,0.06352905,-0.031870596,0.117881335,0.061512243,-0.04735457,0.0,0.0,0.0,0.0,0.37601653,0.9794584,-0.72155637,0.3493912,0.5713992,-0.5821513,-0.4308235,0.52781504,-0.5168388,0.412246,-0.46238664,-0.579532,0.014039843,-0.026920177,-0.062308863,-0.038290564,0.1031094,-0.029205818,0.021897538,0.014193917,0.069240026,0.06145269,0.10097922,-0.033673614,3.0,1.8350669,-3.0,3.0,1.7648472,-3.0,-3.0,0.65927297,-3.0,3.0,-0.6417267,-3.0,3.0,1.8768173,-3.0,3.0,1.5040091,-3.0,-3.0,0.7216574,-3.0,3.0,-1.0210353,-3.0
2025-06-05 17:22:11.545,0.06934995,0.006423759,-0.03941059,0.18802138,0.056955956,0.02282635,0.0,0.0,0.0,0.0,0.38345668,0.9886538,-0.70986974,0.3455448,0.5896541,-0.60209996,-0.42045736,0.54454315,-0.5055685,0.4137478,-0.45937663,-0.5675701,0.014437736,0.042390235,-0.06792401,0.064375795,0.0066536935,-0.054953955,-0.015786003,0.030215159,0.06652304,-0.028570078,-0.0034980567,0.04491034,3.0,1.8768173,-3.0,3.0,1.5040091,-3.0,-3.0,0.7216574,-3.0,3.0,-1.0210353,-3.0,3.0,1.4440298,-3.0,3.0,1.19819,-3.0,-3.0,0.96001244,-3.0,3.0,-1.1029074,-3.0
2025-06-05 17:22:11.565,-0.05452848,-0.02120264,0.05208666,0.14159547,0.1483841,0.0222611,0.0,0.0,0.0,0.0,0.3866559,0.9910469,-0.69859695,0.35850102,0.6023035,-0.6128452,-0.4202598,0.5575149,-0.51945424,0.42517957,-0.47687045,-0.56322485,0.0795786,-0.008688402,0.057104155,-0.012825392,0.07906767,0.032447312,0.019468369,0.06525826,0.064992234,0.033871587,0.0015421477,-0.01973743,3.0,1.4440298,-3.0,3.0,1.19819,-3.0,-3.0,0.96001244,-3.0,3.0,-1.1029074,-3.0,3.0,1.4797468,-3.0,3.0,1.6756294,-3.0,-3.0,0.63273495,-3.0,3.0,-0.65536064,-3.0
2025-06-05 17:22:11.584,0.083379135,0.08691211,0.037469387,0.19406867,0.109924726,0.00035567136,0.0,0.0,0.0,0.0,0.39491,0.974511,-0.6987521,0.363802,0.6213002,-0.62535363,-0.42694932,0.55116004,-0.5096753,0.42766523,-0.47821328,-0.5667278,0.040598605,-0.059400506,0.03689175,0.018845186,-0.006482544,-0.018945524,-0.018889416,-0.004646739,-0.03337196,-0.034155004,0.08494609,0.02133136,3.0,1.4797468,-3.0,3.0,1.6756294,-3.0,-3.0,0.63273495,-3.0,3.0,-0.65536064,-3.0,3.0,1.7507356,-3.0,3.0,1.7082826,-3.0,-3.0,0.5975041,-3.0,3.0,-0.771898,-3.0
2025-06-05 17:22:11.604,0.06819587,0.05630146,-0.032311123,0.13098483,0.058524378,-0.009309732,0.0,0.0,0.0,0.0,0.3991358,0.9797736,-0.6826623,0.37613577,0.6516149,-0.6490498,-0.43012536,0.56413305,-0.48938602,0.42719975,-0.4671925,-0.5599082,-0.016058788,0.032480318,0.050124176,-0.033515587,0.055139314,-0.112038,0.04877729,0.05701966,0.0014359496,-0.018864064,-0.022167016,0.006758715,3.0,1.7507356,-3.0,3.0,1.7082826,-3.0,-3.0,0.5975041,-3.0,3.0,-0.771898,-3.0,3.0,2.0059538,-3.0,3.0,1.376061,-3.0,-3.0,0.80526966,-3.0,3.0,-0.978646,-3.0
2025-06-05 17:22:11.625,0.050433263,-0.002046096,0.03038321,0.15665972,0.045909945,-0.0108577395,0.0,0.0,0.0,0.0,0.40060017,0.99242824,-0.67747307,0.36979234,0.66132605,-0.6532789,-0.41847885,0.5703444,-0.47790676,0.42578402,-0.4575584,-0.5614403,-0.03449262,0.04735674,-0.018167818,0.05807098,0.026935928,0.030525675,0.005171787,0.036775775,-0.0342118,0.060807552,-0.0011227037,0.028260635,3.0,2.0059538,-3.0,3.0,1.376061,-3.0,-3.0,0.80526966,-3.0,3.0,-0.978646,-3.0,3.0,1.5327009,-3.0,3.0,1.2668182,-3.0,-3.0,0.7139555,-3.0,3.0,-0.8950178,-3.0
2025-06-05 17:22:11.647,-0.012148878,0.032351725,0.08567064,0.19268064,0.12811747,-0.0074199936,0.0,0.0,0.0,0.0,0.42108366,0.98915935,-0.6636589,0.38702023,0.66050786,-0.6700427,-0.4162361,0.5625528,-0.46528226,0.42288136,-0.45490846,-0.5587421,-0.007883723,0.036992937,0.08890919,0.019832611,-0.05222476,0.041780192,0.070721604,-0.03447903,-0.015479853,-0.053083118,-0.0108102085,0.056508493,3.0,1.5327009,-3.0,3.0,1.2668182,-3.0,-3.0,0.7139555,-3.0,3.0,-0.8950178,-3.0,3.0,1.5686283,-3.0,3.0,1.5621098,-3.0,-3.0,0.51774365,-3.0,3.0,-0.57118744,-3.0
2025-06-05 17:22:11.667,0.04635601,0.026012216,0.046159077,0.14572187,0.10485145,-0.037031576,0.0,0.0,0.0,0.0,0.42005053,0.9807284,-0.65873027,0.38501522,0.67589456,-0.67586875,-0.41507336,0.56353974,-0.45461905,0.42614865,-0.44624588,-0.56605816,-0.044127386,-0.062093973,0.08771584,0.0072846115,0.030851655,-0.073384255,0.050169997,-0.035055596,-0.008344492,0.073824085,0.049982354,-0.096921876,3.0,1.5686283,-3.0,3.0,1.5621098,-3.0,-3.0,0.51774365,-3.0,3.0,-0.57118744,-3.0,3.0,1.8524783,-3.0,3.0,1.7929527,-3.0,-3.0,0.54911023,-3.0,3.0,-0.6844012,-3.0
2025-06-05 17:22:11.687,0.07964916,0.05023008,-0.00658416,0.14335883,0.029134043,-0.028423822,0.0,0.0,0.0,0.0,0.4203636,0.99428284,-0.65456223,0.3876647,0.69315046,-0.6961442,-0.42190734,0.55694085,-0.43731898,0.41443476,-0.4449903,-0.5720532,0.021998538,0.03853842,-0.0045488714,-0.06663181,-0.025561294,-0.09121263,-0.044865355,0.007526045,-0.00012619789,0.0514258,0.03312133,-0.074398704,3.0,1.8524783,-3.0,3.0,1.7929527,-3.0,-3.0,0.54911023,-3.0,3.0,-0.6844012,-3.0,3.0,1.8716297,-3.0,3.0,1.4325899,-3.0,-3.0,0.6888147,-3.0,3.0,-0.9742443,-3.0
2025-06-05 17:22:11.709,0.050360154,0.034759305,0.041061547,0.13538823,0.08373264,0.0024369275,0.0,0.0,0.0,0.0,0.41671038,0.9942047,-0.6400344,0.38494563,0.70477885,-0.6991698,-0.41372856,0.5592966,-0.42437592,0.42888877,-0.42565286,-0.5892126,-0.04768747,-0.050537743,0.029187093,0.07528333,0.08267307,0.028190194,0.03516421,-0.02608375,0.033582795,-0.030776713,-0.061719265,0.012363088,3.0,1.8716297,-3.0,3.0,1.4325899,-3.0,-3.0,0.6888147,-3.0,3.0,-0.9742443,-3.0,3.0,1.838445,-3.0,3.0,1.4947933,-3.0,-3.0,0.5258756,-3.0,3.0,-0.6249251,-3.0
2025-06-05 17:22:11.728,0.05060361,0.02918306,0.020793865,0.1265869,0.06619239,-0.046681695,0.0,0.0,0.0,0.0,0.4169206,0.9914329,-0.6390425,0.38189438,0.70679694,-0.7090888,-0.41368678,0.5602405,-0.42274338,0.41779426,-0.4198545,-0.6055752,0.030426618,0.07785296,-0.058010895,0.034895673,0.050115626,-0.017213516,-0.050989952,0.05500202,0.082156815,0.05386594,0.08485239,-0.0063740225,3.0,1.838445,-3.0,3.0,1.4947933,-3.0,-3.0,0.5258756,-3.0,3.0,-0.6249251,-3.0,3.0,1.7319968,-3.0,3.0,1.4469413,-3.0,-3.0,0.45957416,-3.0,3.0,-0.9178211,-3.0
2025-06-05 17:22:11.749,0.0110952305,0.031005086,-0.020187462,0.18728869,0.062251132,-0.01995335,0.0,0.0,0.0,0.0,0.4208101,0.9904551,-0.63844764,0.38936993,0.70380926,-0.71436095,-0.4241097,0.55879325,-0.3975316,0.42640498,-0.41562063,-0.60748315,0.059632108,-0.016743004,-0.019502355,-0.012119171,0.06046609,0.010122432,0.030091781,0.012971489,0.09284568,-0.028901141,0.0047104936,-0.083811566,3.0,1.7319968,-3.0,3.0,1.4469413,-3.0,-3.0,0.45957416,-3.0,3.0,-0.9178211,-3.0,3.0,1.8747399,-3.0,3.0,1.3885707,-3.0,-3.0,0.6384682,-3.0,3.0,-0.8393392,-3.0
2025-06-05 17:22:11.768,0.034470566,-0.014537359,0.007961389,0.11643065,0.02354192,0.049912978,0.0,0.0,0.0,0.0,0.42042643,0.9877419,-0.62857276,0.3794587,0.7002783,-0.7199907,-0.41828066,0.56172556,-0.39874095,0.43010643,-0.4162195,-0.61478347,0.010582089,0.07396013,-0.07332876,-0.021177005,-0.045657597,-0.04993269,-0.013606368,0.052041378,-0.03961314,0.003533631,-0.012742938,0.05373518,3.0,1.8747399,-3.0,3.0,1.3885707,-3.0,-3.0,0.6384682,-3.0,3.0,-0.8393392,-3.0,3.0,1.8805667,-3.0,3.0,1.1471864,-3.0,-3.0,0.5715804,-3.0,3.0,-0.9193564,-3.0
2025-06-05 17:22:11.788,-0.04627605,0.029118817,0.05014963,0.18740244,0.077612124,0.01193684,0.0,0.0,0.0,0.0,0.41777027,0.97964406,-0.6310501,0.39194608,0.69515634,-0.7110786,-0.42796627,0.54281855,-0.3900433,0.42861918,-0.42772484,-0.6125989,-0.072252594,0.0049424125,-0.055079114,-0.045474336,0.003541867,0.059285577,0.05030262,-0.006707116,-0.06234792,-0.048972666,-0.009819268,-0.035767492,3.0,1.8805667,-3.0,3.0,1.1471864,-3.0,-3.0,0.5715804,-3.0,3.0,-0.9193564,-3.0,3.0,1.981433,-3.0,3.0,1.2478012,-3.0,-3.0,0.41728508,-3.0,3.0,-0.6023908,-3.0
2025-06-05 17:22:11.809,0.013038851,-0.04356917,0.027460707,0.11796971,0.07151774,0.037375066,0.0,0.0,0.0,0.0,0.41417846,0.9841022,-0.6325526,0.402197,0.6915555,-0.7066233,-0.4181868,0.5432135,-0.39612472,0.41876182,-0.43461582,-0.6219852,0.045605727,-0.076664105,0.019511849,-0.0050002825,-0.008865119,0.07429801,0.07496468,-0.022445865,-0.0305591,-0.013191208,0.06176636,0.013044652,3.0,1.981433,-3.0,3.0,1.2478012,-3.0,-3.0,0.41728508,-3.0,3.0,-0.6023908,-3.0,3.0,2.1884425,-3.0,3.0,1.4018003,-3.0,-3.0,0.41946465,-3.0,3.0,-0.667162,-3.0
2025-06-05 17:22:11.828,0.021020656,-0.06677538,-0.0043728496,0.1193429,0.0938219,-0.0357534,0.0,0.0,0.0,0.0,0.4165204,0.9820398,-0.6467856,0.3884818,0.68992287,-0.7207789,-0.41250646,0.55156624,-0.4063851,0.4290169,-0.4247814,-0.6187007,0.024284657,-0.022823814,0.01785928,0.026270377,0.028122084,-0.035940822,0.007805861,-0.04321335,0.06376651,-0.023739059,-0.04781557,-0.023097506,3.0,2.1884425,-3.0,3.0,1.4018003,-3.0,-3.0,0.41946465,-3.0,3.0,-0.667162,-3.0,3.0,2.1069417,-3.0,3.0,1.4044946,-3.0,-3.0,0.5220178,-3.0,3.0,-0.7765593,-3.0
2025-06-05 17:22:11.848,0.022048794,0.016536204,-0.0054223402,0.1575623,0.08250954,0.049283493,0.0,0.0,0.0,0.0,0.42343646,0.9970335,-0.6421394,0.38771024,0.697127,-0.7156247,-0.4292145,0.54072434,-0.40042952,0.41083276,-0.4258018,-0.6145381,-0.0048451805,-0.027785262,0.027651079,0.00077807374,-0.067337595,0.07686412,-0.046133645,-0.031108774,-0.022002107,0.068526536,0.058822323,-0.041406255,3.0,2.1069417,-3.0,3.0,1.4044946,-3.0,-3.0,0.5220178,-3.0,3.0,-0.7765593,-3.0,3.0,1.8528662,-3.0,3.0,1.2231865,-3.0,-3.0,0.61340517,-3.0,3.0,-0.90708715,-3.0
2025-06-05 17:22:11.869,-0.038695537,-0.04939408,-0.0046380768,0.103831984,0.054325536,0.015746346,0.0,0.0,0.0,0.0,0.41851932,1.002905,-0.6548091,0.40383786,0.6758539,-0.7136713,-0.41216177,0.5496441,-0.40143877,0.41607028,-0.44007888,-0.630274,-0.050586443,-0.026757132,-0.049617086,0.01529436,0.045307312,0.008402961,0.050002616,-0.06999548,0.02735186,0.02067578,-0.022282686,-0.06702211,3.0,1.8528662,-3.0,3.0,1.2231865,-3.0,-3.0,0.61340517,-3.0,3.0,-0.90708715,-3.0,3.0,1.9580451,-3.0,3.0,1.2131356,-3.0,-3.0,0.6673035,-3.0,3.0,-0.77094144,-3.0
2025-06-05 17:22:11.892,-0.05332163,0.0062000495,-0.010503343,0.11395611,0.10948543,0.03041142,0.0,0.0,0.0,0.0,0.42718905,1.006643,-0.6589786,0.40214404,0.6879918,-0.7017046,-0.42207065,0.54711884,-0.40043864,0.4109384,-0.44860455,-0.62476265,0.023519747,-0.057927415,0.013637957,-0.068108104,-0.0344769,0.0140734725,0.024137283,0.05199364,0.027106423,0.06555685,-0.024919976,-0.044600874,3.0,1.9580451,-3.0,3.0,1.2131356,-3.0,-3.0,0.6673035,-3.0,3.0,-0.77094144,-3.0,3.0,2.1427658,-3.0,3.0,1.2347356,-3.0,-3.0,0.5575665,-3.0,3.0,-0.8259788,-3.0
2025-06-05 17:22:11.909,0.011864412,-0.023719603,0.06448629,0.18356255,0.12389883,-0.007663748,0.0,0.0,0.0,0.0,0.41741982,0.99063134,-0.66528994,0.39579242,0.67941177,-0.69195414,-0.41122922,0.53802377,-0.40581298,0.41947293,-0.44750845,-0.6290722,-0.036835942,0.008100971,0.036716234,0.03163148,-0.050612163,-0.018990431,-0.03606514,-0.033424284,-0.055824023,-0.0102983555,-0.022096729,0.03534433,3.0,2.1427658,-3.0,3.0,1.2347356,-3.0,-3.0,0.5575665,-3.0,3.0,-0.8259788,-3.0,3.0,1.879368,-3.0,3.0,1.3890694,-3.0,-3.0,0.3921631,-3.0,3.0,-0.59771687,-3.0
2025-06-05 17:22:11.931,-0.030014995,0.031325486,-0.03131922,0.1521857,0.078822985,-0.02926343,0.0,0.0,0.0,0.0,0.41541532,1.0017755,-0.6519955,0.40118426,0.66440064,-0.6900447,-0.4195677,0.53404415,-0.40142003,0.40977243,-0.4542993,-0.6150852,0.0112543,-0.04155919,0.039204698,-0.06127404,0.055268846,-0.0008116832,0.010367703,0.026590975,-0.05033382,0.026741762,0.0081139235,0.027715696,3.0,1.879368,-3.0,3.0,1.3890694,-3.0,-3.0,0.3921631,-3.0,3.0,-0.59771687,-3.0,3.0,2.1888905,-3.0,3.0,1.2555197,-3.0,-3.0,0.6630376,-3.0,3.0,-0.90816957,-3.0
2025-06-05 17:22:11.949,-0.01764891,-0.029631326,-0.02556877,0.09286815,0.10925792,0.03754409,0.0,0.0,0.0,0.0,0.42626494,1.0128394,-0.6643303,0.40393215,0.663725,-0.6786761,-0.4267425,0.53741574,-0.40363368,0.4280987,-0.45108846,-0.619175,0.045346446,0.059775747,0.024658374,-0.0154441185,-0.009443902,0.032070216,0.028557073,0.06479314,-0.0798954,0.03510046,-0.05335545,-0.036848146,3.0,2.1888905,-3.0,3.0,1.2555197,-3.0,-3.0,0.6630376,-3.0,3.0,-0.90816957,-3.0,3.0,1.8911023,-3.0,3.0,1.0712048,-3.0,-3.0,0.74623436,-3.0,3.0,-0.91823405,-3.0
2025-06-05 17:22:11.969,-0.02333809,0.0041320734,-0.0027514894,0.13640262,0.07036832,-0.043246664,0.0,0.0,0.0,0.0,0.4259932,0.9974051,-0.66070336,0.40528002,0.66401225,-0.66467595,-0.41823322,0.5400523,-0.42493197,0.42128807,-0.46168384,-0.6203165,-0.07237876,0.038941085,-0.049098354,-0.045104302,-0.033815227,0.06338408,0.00582831,0.0532375,0.011414914,0.019409254,0.012849886,-0.027059257,3.0,1.8911023,-3.0,3.0,1.0712048,-3.0,-3.0,0.74623436,-3.0,3.0,-0.91823405,-3.0,3.0,1.7476951,-3.0,3.0,1.0214453,-3.0,-3.0,0.70213866,-3.0,3.0,-0.9115209,-3.0
2025-06-05 17:22:11.992,-0.03488645,-0.0077068666,0.02021517,0.12853286,0.073055476,0.008059824,0.0,0.0,0.0,0.0,0.42014867,1.0054624,-0.6647718,0.4095114,0.6334593,-0.6714745,-0.4201514,0.5459969,-0.42352816,0.42658526,-0.47545412,-0.6326716,0.04860091,-0.07802443,-0.049480546,0.04838169,0.0022221303,0.0414049,-0.019107077,0.0020841556,0.056299277,-0.06848,-0.008523325,-0.011288922,3.0,1.7476951,-3.0,3.0,1.0214453,-3.0,-3.0,0.70213866,-3.0,3.0,-0.9115209,-3.0,3.0,1.9445051,-3.0,3.0,1.2803494,-3.0,-3.0,0.54136604,-3.0,3.0,-0.71633667,-3.0
2025-06-05 17:22:12.010,-0.04426751,0.008440365,0.055883173,0.19395621,0.07730504,-0.004077677,0.0,0.0,0.0,0.0,0.42377535,0.9924719,-0.6562315,0.41627523,0.624174,-0.658241,-0.42753226,0.54411227,-0.4171879,0.41656795,-0.48452374,-0.6276751,-0.05463664,-0.06377486,0.0013044617,-0.012780858,-0.035625536,0.03677292,0.008020066,-0.07704835,0.049937457,-0.00430343,-0.017635608,0.06434215,3.0,1.9445051,-3.0,3.0,1.2803494,-3.0,-3.0,0.54136604,-3.0,3.0,-0.71633667,-3.0,3.0,1.9618267,-3.0,3.0,1.4458784,-3.0,-3.0,0.43386215,-3.0,3.0,-0.6442916,-3.0
2025-06-05 17:22:12.030,-0.018226108,0.019190367,-0.018464511,0.10584152,0.050853267,0.048123304,0.0,0.0,0.0,0.0,0.42630586,0.99353343,-0.6698404,0.41572013,0.63260317,-0.66420615,-0.42616868,0.53594756,-0.42025605,0.4152678,-0.48995334,-0.63824695,-0.03516993,-0.061972044,0.028801719,-0.04315463,-0.028809913,0.03717557,0.06348381,-0.022155566,-0.06407857,-0.030142736,0.03262233,-0.06327347,3.0,1.9618267,-3.0,3.0,1.4458784,-3.0,-3.0,0.43386215,-3.0,3.0,-0.6442916,-3.0,3.0,2.3754458,-3.0,3.0,1.202587,-3.0,-3.0,0.6370201,-3.0,3.0,-0.7763321,-3.0
2025-06-05 17:22:12.050,0.059008718,-0.072959945,-0.0036742536,0.18038872,0.058401074,0.012725629,0.0,0.0,0.0,0.0,0.4090054,1.0090648,-0.66348827,0.4169454,0.6351887,-0.6471015,-0.422631,0.5293262,-0.42544416,0.4251849,-0.47414544,-0.6432932,-0.066387594,0.04944619,-0.0021920602,0.056202147,0.06396336,0.05507894,-0.05807969,-0.01840949,-0.03541674,0.020390885,-0.0357252,-0.048909076,3.0,2.3754458,-3.0,3.0,1.202587,-3.0,-3.0,0.6370201,-3.0,3.0,-0.7763321,-3.0,3.0,1.7325897,-3.0,3.0,1.1461954,-3.0,-3.0,0.68114096,-3.0,3.0,-0.88611096,-3.0
2025-06-05 17:22:12.070,-0.0001862395,-0.015200952,-0.012700092,0.17318022,0.12914921,0.00843222,0.0,0.0,0.0,0.0,0.4194966,0.999112,-0.68400383,0.403843,0.63236266,-0.6494761,-0.42572087,0.5361769,-0.4262478,0.4197293,-0.4869869,-0.6487699,-0.050162524,0.043362934,0.011638761,0.01656588,0.048994344,-0.0331399,0.0482225,-0.0010386249,0.014388561,0.06891532,-0.07976864,0.010945329,3.0,1.7325897,-3.0,3.0,1.1461954,-3.0,-3.0,0.68114096,-3.0,3.0,-0.88611096,-3.0,3.0,1.7854394,-3.0,3.0,1.2008086,-3.0,-3.0,0.7986416,-3.0,3.0,-0.8257635,-3.0
2025-06-05 17:22:12.092,-0.04221027,-0.052247353,0.051598113,0.09403372,0.08501362,0.035762664,0.0,0.0,0.0,0.0,0.41576186,0.99638814,-0.68428606,0.4217041,0.61346924,-0.64951664,-0.4089455,0.54611105,-0.42581028,0.4199968,-0.48237568,-0.6408672,0.04299598,-0.0791638,0.008564919,0.05837993,-0.048184343,-0.017923003,0.021884216,-0.071440175,0.030954372,0.027104128,-0.025772186,0.0011320178,3.0,1.7854394,-3.0,3.0,1.2008086,-3.0,-3.0,0.7986416,-3.0,3.0,-0.8257635,-3.0,3.0,1.9582,-3.0,3.0,1.4917887,-3.0,-3.0,0.48162872,-3.0,3.0,-0.5745668,-3.0
2025-06-05 17:22:12.110,0.037091408,-0.052582566,0.0011140815,0.106478535,0.073590964,-0.0035910723,0.0,0.0,0.0,0.0,0.41384506,0.9975021,-0.66230214,0.4120137,0.62475973,-0.6398735,-0.41614473,0.53019524,-0.42829508,0.40500343,-0.49011967,-0.65299535,-0.002970704,0.023325697,0.07978258,0.07633026,0.052352913,-0.015301691,0.05130795,-0.010012524,0.03598048,-0.062841386,-0.021768264,-0.078778856,3.0,1.9582,-3.0,3.0,1.4917887,-3.0,-3.0,0.48162872,-3.0,3.0,-0.5745668,-3.0,3.0,2.111473,-3.0,3.0,1.485387,-3.0,-3.0,0.587525,-3.0,3.0,-0.6696444,-3.0
2025-06-05 17:22:12.131,0.023031393,-0.023939362,-0.02834134,0.118478306,0.11153598,-0.03413521,0.0,0.0,0.0,0.0,0.41605023,1.0086188,-0.6583379,0.41145873,0.6339822,-0.6478649,-0.41986883,0.5445342,-0.43428466,0.42083472,-0.46476245,-0.65300053,0.045032013,0.055735637,0.030067654,-0.006970182,-0.013387833,-0.043106236,-0.05833276,0.0028235656,-0.030518701,0.05082528,0.05300397,-0.06284138,3.0,2.111473,-3.0,3.0,1.485387,-3.0,-3.0,0.587525,-3.0,3.0,-0.6696444,-3.0,3.0,1.8983518,-3.0,3.0,1.2355665,-3.0,-3.0,0.6964621,-3.0,3.0,-0.94037384,-3.0
2025-06-05 17:22:12.150,-0.042636648,0.028468758,0.03770333,0.13927497,0.102382705,0.045429774,0.0,0.0,0.0,0.0,0.41171965,0.9968285,-0.6547242,0.4044565,0.62711465,-0.6571841,-0.41841924,0.5353817,-0.43187636,0.41329315,-0.47516605,-0.6590854,0.039148066,0.008902608,0.017952153,-0.029330619,-0.04970386,0.04958973,0.062152915,-0.024351316,-0.027686363,-0.0061017526,0.043867003,0.06159773,3.0,1.8983518,-3.0,3.0,1.2355665,-3.0,-3.0,0.6964621,-3.0,3.0,-0.94037384,-3.0,3.0,1.8798016,-3.0,3.0,1.3079073,-3.0,-3.0,0.5172915,-3.0,3.0,-0.6448756,-3.0
2025-06-05 17:22:12.170,0.038075976,0.030419901,-0.019436514,0.1475106,0.053264398,-0.02616855,0.0,0.0,0.0,0.0,0.4127645,0.992218,-0.66926706,0.41775134,0.62846667,-0.6453855,-0.41424116,0.54096115,-0.438967,0.41015202,-0.47857493,-0.6711143,-0.0033006587,-0.011116564,0.035904855,-0.0015434878,-0.056483403,0.058999714,0.0017792841,0.013123267,0.072205916,-0.04836307,0.05654687,-0.0061700023,3.0,1.8798016,-3.0,3.0,1.3079073,-3.0,-3.0,0.5172915,-3.0,3.0,-0.6448756,-3.0,3.0,2.0515518,-3.0,3.0,1.2375853,-3.0,-3.0,0.6049792,-3.0,3.0,-0.847882,-3.0
2025-06-05 17:22:12.192,0.0035064712,0.007767412,0.04674309,0.17631127,0.07280581,-0.039854787,0.0,0.0,0.0,0.0,0.41044664,0.99197674,-0.66717494,0.4217193,0.63859767,-0.65214854,-0.43006027,0.5347189,-0.42020273,0.4189688,-0.46387443,-0.6678068,-0.020392794,-0.018263048,-0.030910932,-0.07091349,0.022061922,0.05302307,-0.056874465,-0.031102236,-0.010123433,-0.006858725,-0.023360448,0.042726144,3.0,2.0515518,-3.0,3.0,1.2375853,-3.0,-3.0,0.6049792,-3.0,3.0,-0.847882,-3.0,3.0,1.9104887,-3.0,3.0,1.3261381,-3.0,-3.0,0.47275716,-3.0,3.0,-0.62813383,-3.0
2025-06-05 17:22:12.210,-0.016802458,-0.02331334,-0.030302102,0.1780093,0.063459724,0.011863724,0.0,0.0,0.0,0.0,0.41387677,1.0018744,-0.6705219,0.41656116,0.6250164,-0.66225356,-0.42271647,0.52656764,-0.43216878,0.42611468,-0.46716762,-0.6656698,-0.069164544,0.057126943,0.040652603,0.013829304,0.01978794,0.002839367,-0.0017771806,-0.018176032,0.017793154,0.037924416,-0.05933111,-0.0017812602,3.0,1.9104887,-3.0,3.0,1.3261381,-3.0,-3.0,0.47275716,-3.0,3.0,-0.62813383,-3.0,3.0,1.921703,-3.0,3.0,1.2241296,-3.0,-3.0,0.75559473,-3.0,3.0,-0.9024183,-3.0
2025-06-05 17:22:12.231,0.017402882,-0.020120615,0.006339136,0.14238572,0.0692164,0.0027106407,0.0,0.0,0.0,0.0,0.4188527,0.996506,-0.66720766,0.41121802,0.63888526,-0.6480579,-0.42108884,0.5199568,-0.4160256,0.42499804,-0.4797043,-0.6596204,-0.051239464,0.07348172,0.012282663,-0.055424076,-0.054777734,-0.01561753,-0.006143465,-0.058473513,-0.047599576,0.062288683,-0.042591073,0.050060272,3.0,1.921703,-3.0,3.0,1.2241296,-3.0,-3.0,0.75559473,-3.0,3.0,-0.9024183,-3.0,3.0,1.7108163,-3.0,3.0,1.1188761,-3.0,-3.0,0.75223625,-3.0,3.0,-0.814804,-3.0
2025-06-05 17:22:12.251,-0.0037767857,-0.06794896,0.047241,0.11779161,0.10616039,0.00587158,0.0,0.0,0.0,0.0,0.41780597,0.9949441,-0.65372026,0.41945356,0.6310758,-0.65519506,-0.4198452,0.5290958,-0.43057698,0.4079549,-0.48999453,-0.6632192,-0.030974174,-0.011349222,0.025077157,0.016196243,0.041714236,0.055654384,0.043503456,-0.040241085,0.03799754,-0.04572951,-0.090014525,-0.032260224,3.0,1.7108163,-3.0,3.0,1.1188761,-3.0,-3.0,0.75223625,-3.0,3.0,-0.814804,-3.0,3.0,1.939546,-3.0,3.0,1.4289407,-3.0,-3.0,0.54768854,-3.0,3.0,-0.48796448,-3.0
2025-06-05 17:22:12.271,-0.01240468,-0.013570431,-0.014168594,0.1799202,0.11161024,0.0056449124,0.0,0.0,0.0,0.0,0.42806122,0.99297327,-0.65990525,0.4254229,0.6338105,-0.6465242,-0.42228985,0.52025336,-0.42833853,0.4126235,-0.47590768,-0.6688252,-0.039258257,0.035909157,0.07072315,-0.037356757,0.08909855,-0.031770606,-0.017742125,0.036424253,0.07535794,0.06623483,-0.009403306,0.01512962,3.0,1.939546,-3.0,3.0,1.4289407,-3.0,-3.0,0.54768854,-3.0,3.0,-0.48796448,-3.0,3.0,2.0401976,-3.0,3.0,1.4184514,-3.0,-3.0,0.5686162,-3.0,3.0,-0.8451268,-3.0
2025-06-05 17:22:12.293,0.017793024,-0.006996595,-0.04538087,0.17224376,0.045537915,-0.031774893,0.0,0.0,0.0,0.0,0.41064,1.000214,-0.669828,0.42052594,0.6414306,-0.651209,-0.41216305,0.5297377,-0.41407806,0.4260209,-0.47070712,-0.67308736,0.060596354,-0.017586345,0.06297169,0.059536155,-0.018138686,-0.031031232,-0.020933116,0.06665108,-0.067323685,0.0062785726,0.045098793,-0.04326862,3.0,2.0401976,-3.0,3.0,1.4184514,-3.0,-3.0,0.5686162,-3.0,3.0,-0.8451268,-3.0,3.0,2.0440323,-3.0,3.0,1.1254767,-3.0,-3.0,0.75455797,-3.0,3.0,-0.9043177,-3.0
2025-06-05 17:22:12.311,0.008182198,0.043488715,-0.013629169,0.17777985,0.101142675,0.0018249796,0.0,0.0,0.0,0.0,0.41618875,0.996987,-0.6612855,0.42184952,0.6449071,-0.6576627,-0.42789567,0.5350475,-0.42055425,0.41491157,-0.4667834,-0.67079806,0.011887497,-0.03710744,-0.06812879,0.03414549,-0.044734832,0.04887346,0.001282399,-0.056206845,-0.011714979,-0.043709174,-0.07909446,-0.03458239,3.0,2.0440323,-3.0,3.0,1.1254767,-3.0,-3.0,0.75455797,-3.0,3.0,-0.9043177,-3.0,3.0,1.9336747,-3.0,3.0,1.0496522,-3.0,-3.0,0.6980311,-3.0,3.0,-0.7518485,-3.0
2025-06-05 17:22:12.331,0.032772914,-0.0014689185,-0.041585423,0.11904842,0.11841721,0.012296977,0.0,0.0,0.0,0.0,0.42176658,1.0112386,-0.6699102,0.42356855,0.63349456,-0.6587656,-0.4268986,0.5343517,-0.4315745,0.40845817,-0.4881781,-0.65947485,-0.060675077,0.07546141,0.06361917,-0.06654623,0.030823994,0.05422452,-0.0077261883,-0.03892655,-0.03492061,0.038408693,-0.07155195,0.077769,3.0,1.9336747,-3.0,3.0,1.0496522,-3.0,-3.0,0.6980311,-3.0,3.0,-0.7518485,-3.0,3.0,1.7717949,-3.0,3.0,0.9662705,-3.0,-3.0,0.9248554,-3.0,3.0,-0.98233324,-3.0
2025-06-05 17:22:12.351,-0.057262536,0.006916803,0.058358964,0.17361493,0.07156769,0.025722671,0.0,0.0,0.0,0.0,0.42497206,1.0045646,-0.6607608,0.42277277,0.62970686,-0.65118414,-0.41746446,0.5287104,-0.43475714,0.4199131,-0.48603293,-0.6565211,0.015619162,0.016020723,0.023737608,0.0701278,-0.06948464,0.008387194,-0.017448014,-0.06344274,-0.031825144,0.061010014,0.03580174,0.07888796,3.0,1.7717949,-3.0,3.0,0.9662705,-3.0,-3.0,0.9248554,-3.0,3.0,-0.98233324,-3.0,3.0,1.6101891,-3.0,3.0,1.2419204,-3.0,-3.0,0.54616696,-3.0,3.0,-0.6708314,-3.0
2025-06-05 17:22:12.372,-0.032381922,-0.06572714,-0.060671978,0.13437979,0.051084206,-0.027932538,0.0,0.0,0.0,0.0,0.41651788,1.0124054,-0.6594337,0.41263434,0.6358686,-0.6403025,-0.42105806,0.52685875,-0.4178671,0.4263688,-0.49180505,-0.662107,-0.074666016,0.029589687,0.07200142,-0.06675347,-0.08116319,-0.007528212,-0.056506336,-0.036581006,0.0580344,-0.0018448982,0.03590656,0.005607071,3.0,1.6101891,-3.0,3.0,1.2419204,-3.0,-3.0,0.54616696,-3.0,3.0,-0.6708314,-3.0,3.0,1.8163617,-3.0,3.0,1.066806,-3.0,-3.0,0.9088474,-3.0,3.0,-1.0505466,-3.0
2025-06-05 17:22:12.392,-0.0029254542,-0.002948019,0.06568146,0.10204503,0.1492506,-0.011892695,0.0,0.0,0.0,0.0,0.42436197,1.0089931,-0.666853,0.42735142,0.6226264,-0.6359111,-0.42497483,0.5230405,-0.43155518,0.41405013,-0.5060431,-0.6602669,0.04791103,-0.0074846623,0.03171372,0.062584974,0.0033730408,-0.05773241,0.049723238,-0.07127784,0.00718152,0.034132507,-0.032905623,-0.020394707,3.0,1.8163617,-3.0,3.0,1.066806,-3.0,-3.0,0.9088474,-3.0,3.0,-1.0505466,-3.0,3.0,1.7264985,-3.0,3.0,1.4955834,-3.0,-3.0,0.55683917,-3.0,3.0,-0.46526477,-3.0
2025-06-05 17:22:12.411,0.006061007,-0.061370075,-0.04616944,0.17688681,0.064452805,-0.014027679,0.0,0.0,0.0,0.0,0.41074067,0.9980262,-0.6725329,0.4140524,0.62387085,-0.6438158,-0.42591426,0.522118,-0.42154768,0.41665226,-0.49328995,-0.67024165,-0.038762048,0.040447257,0.07199198,-0.02441489,-0.017847344,0.064870276,0.028856223,-0.06206445,0.056463126,-0.013087855,-0.018676756,0.03928848,3.0,1.7264985,-3.0,3.0,1.4955834,-3.0,-3.0,0.55683917,-3.0,3.0,-0.46526477,-3.0,3.0,1.9280216,-3.0,3.0,1.198609,-3.0,-3.0,0.79001176,-3.0,3.0,-0.92522424,-3.0
2025-06-05 17:22:12.431,0.028508611,-0.05120669,-0.025133466,0.1482454,0.10759585,0.020511597,0.0,0.0,0.0,0.0,0.4202857,1.005316,-0.65479445,0.42814693,0.6382621,-0.6343798,-0.4190069,0.5390089,-0.44397765,0.4118243,-0.508183,-0.66425115,-0.040985025,-0.04179869,0.0076336674,-0.054488033,-0.064423986,0.06779365,-0.04659412,0.023685917,-0.073828116,-0.078328446,-0.050444417,0.041084085,3.0,1.9280216,-3.0,3.0,1.198609,-3.0,-3.0,0.79001176,-3.0,3.0,-0.92522424,-3.0,3.0,1.9702243,-3.0,3.0,0.9062546,-3.0,-3.0,0.86778075,-3.0,3.0,-0.8441939,-3.0
2025-06-05 17:22:12.451,-0.022209229,-0.0021347494,0.040237606,0.14433658,0.112309575,-0.046954256,0.0,0.0,0.0,0.0,0.4161997,0.9989999,-0.6776236,0.4136756,0.6363222,-0.6371514,-0.42781785,0.5295467,-0.43932,0.40508473,-0.50556886,-0.6760864,0.045779,0.034129914,-0.062414147,0.030619696,-0.010362226,0.0051657087,0.073782325,0.0320794,-0.008680985,-0.030322138,-0.04303324,-0.014982966,3.0,1.9702243,-3.0,3.0,0.9062546,-3.0,-3.0,0.86778075,-3.0,3.0,-0.8441939,-3.0,3.0,1.9694635,-3.0,3.0,1.1797613,-3.0,-3.0,0.47559196,-3.0,3.0,-0.58807844,-3.0
2025-06-05 17:22:12.472,0.03624081,-0.06403091,-0.039659332,0.09546034,0.062624656,-0.022993552,0.0,0.0,0.0,0.0,0.42307776,0.9910466,-0.66833663,0.4267638,0.616825,-0.63130707,-0.4180107,0.53009605,-0.43785205,0.4173736,-0.50536996,-0.6725579,-0.007729379,0.02704541,0.032349132,-0.01747655,0.013490558,0.07140594,0.029177055,-0.05567399,0.0299367,0.042107128,0.0787983,-0.047442194,3.0,1.9694635,-3.0,3.0,1.1797613,-3.0,-3.0,0.47559196,-3.0,3.0,-0.58807844,-3.0,3.0,2.0399294,-3.0,3.0,1.1233801,-3.0,-3.0,0.75157875,-3.0,3.0,-0.9029078,-3.0
2025-06-05 17:22:12.492,0.028844902,-0.0092269825,-0.025647763,0.096291706,0.13524485,-0.027262535,0.0,0.0,0.0,0.0,0.42304,0.98887104,-0.6791857,0.4238638,0.6249025,-0.62413865,-0.41190603,0.52995193,-0.4423715,0.41731802,-0.5077606,-0.6831725,0.014609709,0.015522237,-0.068750225,0.054211438,0.050307304,-0.026744636,0.05275607,-0.0019184423,-0.072221585,-0.04987438,-0.07816665,0.06790834,3.0,2.0399294,-3.0,3.0,1.1233801,-3.0,-3.0,0.75157875,-3.0,3.0,-0.9029078,-3.0,3.0,2.1004753,-3.0,3.0,0.9431146,-3.0,-3.0,0.7789124,-3.0,3.0,-0.76436967,-3.0
2025-06-05 17:22:12.512,-0.025802696,-0.0060381712,0.004676572,0.14355212,0.11695699,0.04767898,0.0,0.0,0.0,0.0,0.41785145,1.0050989,-0.6647299,0.41703674,0.6206237,-0.6166849,-0.41948023,0.5438346,-0.45321822,0.40468338,-0.50450426,-0.6680109,-0.03254321,-0.021409059,-0.07587536,-0.043209434,-0.024081152,-0.017855708,-0.003614307,-0.0060137324,-0.025569528,-0.0663131,0.052530136,0.027549958,3.0,2.1004753,-3.0,3.0,0.9431146,-3.0,-3.0,0.7789124,-3.0,3.0,-0.76436967,-3.0,3.0,2.08017,-3.0,3.0,1.0211568,-3.0,-3.0,0.54172534,-3.0,3.0,-0.8125456,-3.0
2025-06-05 17:22:12.532,-0.027565546,-0.05702289,0.044524785,0.17018652,0.06405965,-0.021492945,0.0,0.0,0.0,0.0,0.4122999,0.9950171,-0.6713883,0.41603157,0.6164322,-0.61146724,-0.41592288,0.54277956,-0.46213594,0.4163627,-0.5117526,-0.66898113,-0.025450222,-0.007836541,-0.069175236,-0.063297845,-0.0106065385,0.007161703,-0.07564809,-0.07799412,-0.013495289,0.043566316,-0.019081088,-0.0690987,3.0,2.08017,-3.0,3.0,1.0211568,-3.0,-3.0,0.54172534,-3.0,3.0,-0.8125456,-3.0,3.0,1.9360566,-3.0,3.0,1.3213853,-3.0,-3.0,0.56009334,-3.0,3.0,-0.62741417,-3.0
2025-06-05 17:22:12.551,0.03797412,0.02990849,-0.039998624,0.11548924,0.09055632,0.046748456,0.0,0.0,0.0,0.0,0.4049172,1.0019624,-0.68872577,0.4160612,0.6193593,-0.6179727,-0.4243125,0.5347074,-0.461644,0.41927907,-0.49841043,-0.6780385,-0.061961066,-0.058195207,0.0010219148,0.014177693,0.046836026,-0.06251162,-0.030843599,0.059077475,0.008718226,-0.0042999014,0.027479906,0.0024925042,3.0,1.9360566,-3.0,3.0,1.3213853,-3.0,-3.0,0.56009334,-3.0,3.0,-0.62741417,-3.0,3.0,2.2802594,-3.0,3.0,1.2069901,-3.0,-3.0,0.672963,-3.0,3.0,-0.9032232,-3.0
2025-06-05 17:22:12.572,0.003743909,-0.016358366,0.045892175,0.11389903,0.14336863,0.025497314,0.0,0.0,0.0,0.0,0.40690675,1.0163498,-0.6890098,0.4121707,0.62125444,-0.6229086,-0.41707018,0.53509104,-0.46527714,0.41957548,-0.502802,-0.6824278,0.047311217,-0.03254602,0.039971884,0.037253022,0.019815098,0.02683171,-0.064147085,-0.061871205,-0.009068405,0.061341554,-0.036331158,0.006273866,3.0,2.2802594,-3.0,3.0,1.2069901,-3.0,-3.0,0.672963,-3.0,3.0,-0.9032232,-3.0,3.0,1.8201609,-3.0,3.0,1.4780374,-3.0,-3.0,0.5524828,-3.0,3.0,-0.5769679,-3.0
2025-06-05 17:22:12.592,0.052897986,-0.038466852,-0.033462625,0.12511936,0.10461904,0.02661873,0.0,0.0,0.0,0.0,0.40875006,1.0175993,-0.6943592,0.41073173,0.6209356,-0.6250629,-0.4236014,0.52482194,-0.46146253,0.40961096,-0.49054307,-0.68420213,0.043843366,-0.0048850104,-0.021651994,-0.069414005,-0.051177617,0.017592907,0.046904687,0.029449312,-0.014977029,-0.062639885,0.016483553,-0.021104654,3.0,1.8201609,-3.0,3.0,1.4780374,-3.0,-3.0,0.5524828,-3.0,3.0,-0.5769679,-3.0,3.0,2.12836,-3.0,3.0,1.2201897,-3.0,-3.0,0.73800087,-3.0,3.0,-0.8224811,-3.0
2025-06-05 17:22:12.613,0.065699354,-0.052450538,-0.0026451289,0.13472787,0.1382641,-0.03836535,0.0,0.0,0.0,0.0,0.39913017,1.0113474,-0.67936325,0.41109207,0.62494606,-0.6156826,-0.41735068,0.5290638,-0.46301606,0.41281188,-0.4892026,-0.68240064,-0.0207109,0.032740284,0.016756713,-0.018845834,0.072660215,0.031358868,-0.0008663196,-0.016191285,0.009891544,0.020887334,-0.06415216,0.025710844,3.0,2.12836,-3.0,3.0,1.2201897,-3.0,-3.0,0.73800087,-3.0,3.0,-0.8224811,-3.0,3.0,1.8154867,-3.0,3.0,1.236072,-3.0,-3.0,0.7225507,-3.0,3.0,-0.73333377,-3.0
2025-06-05 17:22:12.632,-0.007196182,-0.035850804,-0.032086454,0.16622294,0.10257733,-0.014209382,0.0,0.0,0.0,0.0,0.41002116,1.0125618,-0.6783732,0.42625168,0.62526906,-0.6288509,-0.4127393,0.53050536,-0.44768494,0.42164627,-0.49125233,-0.68517214,0.004725037,-0.036934055,-0.044349093,-0.013967564,-0.04857953,0.026341897,-0.033953857,-0.04827518,0.015389437,-0.073768035,0.07810648,-0.03496926,3.0,1.8154867,-3.0,3.0,1.236072,-3.0,-3.0,0.7225507,-3.0,3.0,-0.73333377,-3.0,3.0,1.8897841,-3.0,3.0,1.0825595,-3.0,-3.0,0.7451559,-3.0,3.0,-0.8541811,-3.0
2025-06-05 17:22:12.652,-0.052823298,-0.013822286,0.011634966,0.16240402,0.14753339,0.035632227,0.0,0.0,0.0,0.0,0.41872412,1.0216421,-0.6778867,0.42335126,0.6329545,-0.6186133,-0.4168128,0.53335685,-0.44349915,0.42060453,-0.4843011,-0.68268085,-0.014171023,0.067874104,-0.067189716,0.023003291,-0.05060388,-0.059980217,-0.015029343,-0.06729149,0.02490567,-0.01322452,-0.018993592,0.03310843,3.0,1.8897841,-3.0,3.0,1.0825595,-3.0,-3.0,0.7451559,-3.0,3.0,-0.8541811,-3.0,3.0,1.6943153,-3.0,3.0,1.1726495,-3.0,-3.0,0.641448,-3.0,3.0,-0.76797837,-3.0
2025-06-05 17:22:12.672,-0.055011053,0.031639457,-0.01734254,0.17250167,0.090605475,0.049876973,0.0,0.0,0.0,0.0,0.40990874,1.017541,-0.68507105,0.41636583,0.6326028,-0.62487036,-0.42139137,0.5221307,-0.4534285,0.41229263,-0.4989249,-0.67740107,-0.015317564,0.06103459,0.020307325,0.01750368,-0.04948867,0.030365465,0.017066866,0.018469485,0.04131543,-0.028853746,0.050209563,0.07316936,3.0,1.6943153,-3.0,3.0,1.1726495,-3.0,-3.0,0.641448,-3.0,3.0,-0.76797837,-3.0,3.0,1.7438898,-3.0,3.0,1.1409346,-3.0,-3.0,0.7251622,-3.0,3.0,-0.90050334,-3.0
2025-06-05 17:22:12.692,-0.06356165,0.031778738,0.04081148,0.15183029,0.088372156,-0.033406176,0.0,0.0,0.0,0.0,0.4199255,1.0064931,-0.6784667,0.42660162,0.6195863,-0.62425286,-0.41709232,0.5153204,-0.439107,0.42779967,-0.5111959,-0.67777175,0.06632852,-0.077898644,0.015105201,-0.0069356994,-0.0067012417,0.0024445811,-0.030280316,0.009100205,-0.04885301,-0.01696038,-0.041497137,-0.044047337,3.0,1.7438898,-3.0,3.0,1.1409346,-3.0,-3.0,0.7251622,-3.0,3.0,-0.90050334,-3.0,3.0,1.9955456,-3.0,3.0,1.4350901,-3.0,-3.0,0.561799,-3.0,3.0,-0.50664014,-3.0
2025-06-05 17:22:12.712,0.06984236,0.06035136,-0.02503985,0.14957434,0.091738865,0.0154010635,0.0,0.0,0.0,0.0,0.40143973,1.0182688,-0.6689122,0.4249365,0.6317213,-0.62630916,-0.42717883,0.52632886,-0.43419275,0.4148723,-0.4882837,-0.6952943,-0.04865382,-0.061812542,0.055395696,0.053310197,0.0037367854,0.051480386,-0.0064429627,-0.042895656,0.0036010821,0.046008054,0.09291337,0.046398748,3.0,1.9955456,-3.0,3.0,1.4350901,-3.0,-3.0,0.561799,-3.0,3.0,-0.50664014,-3.0,3.0,2.045305,-3.0,3.0,1.2588649,-3.0,-3.0,0.62368685,-3.0,3.0,-0.8567043,-3.0
2025-06-05 17:22:12.732,0.0016794078,0.006869616,-0.0309563,0.12088015,0.09086119,-0.0017182254,0.0,0.0,0.0,0.0,0.41769996,1.0121098,-0.66625184,0.42721727,0.6262036,-0.6211946,-0.42244887,0.52610886,-0.42899004,0.42075685,-0.48851538,-0.6851241,-0.050871808,-0.035189763,0.042543568,0.0032061124,0.0046582483,-0.019757275,0.04253857,-0.04759574,-0.062324114,-0.051520232,-0.012870642,0.043655924,3.0,2.045305,-3.0,3.0,1.2588649,-3.0,-3.0,0.62368685,-3.0,3.0,-0.8567043,-3.0,3.0,2.118764,-3.0,3.0,1.0529436,-3.0,-3.0,0.7692494,-3.0,3.0,-0.78101665,-3.0
2025-06-05 17:22:12.753,0.012559536,-0.03506753,-0.009813992,0.11497197,0.120246686,0.028800493,0.0,0.0,0.0,0.0,0.41025984,1.0170265,-0.67485315,0.4213811,0.6310314,-0.6336629,-0.4262835,0.5294637,-0.4322247,0.42790172,-0.48918328,-0.6999373,0.052528095,-0.051187064,-0.053760823,-0.05048846,-0.012855535,-0.03295943,-0.0019766034,-0.037277233,-0.061351504,0.023078347,-0.029845856,0.016934004,3.0,2.118764,-3.0,3.0,1.0529436,-3.0,-3.0,0.7692494,-3.0,3.0,-0.78101665,-3.0,3.0,2.1092112,-3.0,3.0,1.1074063,-3.0,-3.0,0.64093655,-3.0,3.0,-0.73683685,-3.0
2025-06-05 17:22:12.774,0.014933289,0.012113775,-0.05319368,0.09754575,0.11767514,0.042546794,0.0,0.0,0.0,0.0,0.41550702,1.0186276,-0.6781337,0.41318354,0.6438389,-0.62345713,-0.41374344,0.5349813,-0.44436285,0.41548315,-0.4893012,-0.7028946,0.02913427,0.08710156,0.0322583,-0.074766375,0.071900606,-0.061548796,-0.04289714,-0.027870124,-0.06296037,0.011092819,0.055328585,-0.0033653711,3.0,2.1092112,-3.0,3.0,1.1074063,-3.0,-3.0,0.64093655,-3.0,3.0,-0.73683685,-3.0,3.0,1.9301356,-3.0,3.0,1.0250051,-3.0,-3.0,0.78527015,-3.0,3.0,-0.9533672,-3.0
2025-06-05 17:22:12.792,-0.03830489,0.01200742,0.06281041,0.16853483,0.089178115,-0.0063575925,0.0,0.0,0.0,0.0,0.41601533,1.0159028,-0.6934441,0.41188857,0.6360207,-0.6195993,-0.4119638,0.5388921,-0.44333822,0.40756404,-0.490093,-0.6985608,0.0021738405,-0.007610212,0.037468407,0.018781302,0.047426566,0.07326865,0.058833893,-0.06072871,-0.065711655,0.012052408,0.053342182,-0.017254235,3.0,1.9301356,-3.0,3.0,1.0250051,-3.0,-3.0,0.78527015,-3.0,3.0,-0.9533672,-3.0,3.0,1.7829843,-3.0,3.0,1.3430127,-3.0,-3.0,0.49768192,-3.0,3.0,-0.46635458,-3.0
2025-06-05 17:22:12.813,0.018595314,-0.040334452,-0.003829823,0.1158516,0.10268835,-0.036406662,0.0,0.0,0.0,0.0,0.40028754,1.0208024,-0.6765865,0.42668328,0.62608373,-0.6223826,-0.42975697,0.5196933,-0.4367325,0.4230893,-0.48894143,-0.6925464,0.02385023,0.034920014,-0.031888958,-0.009015549,0.027245566,0.045187607,-0.027613696,-0.045981593,0.05682958,0.015406705,-0.050327305,-0.07189607,3.0,1.7829843,-3.0,3.0,1.3430127,-3.0,-3.0,0.49768192,-3.0,3.0,-0.46635458,-3.0,3.0,1.8986374,-3.0,3.0,1.4298754,-3.0,-3.0,0.6693017,-3.0,3.0,-0.70904845,-3.0
2025-06-05 17:22:12.833,0.015758973,-0.030965036,0.01404421,0.1488493,0.102576904,-0.0048171706,0.0,0.0,0.0,0.0,0.40802383,1.0318503,-0.669261,0.41773167,0.63382435,-0.61495113,-0.42748785,0.5184463,-0.4420984,0.42582488,-0.4766111,-0.7007651,0.025955807,0.036753993,0.008562061,-0.042097017,0.05059473,0.022135524,-0.025110578,-0.020807952,0.06173513,0.027911022,0.035994947,-0.05089827,3.0,1.8986374,-3.0,3.0,1.4298754,-3.0,-3.0,0.6693017,-3.0,3.0,-0.70904845,-3.0,3.0,1.7088746,-3.0,3.0,1.4884868,-3.0,-3.0,0.610336,-3.0,3.0,-0.6974254,-3.0
2025-06-05 17:22:12.853,-0.004348566,-0.026774382,-0.035963964,0.123863265,0.06385708,-0.011012408,0.0,0.0,0.0,0.0,0.41012362,1.0233148,-0.67746776,0.4113784,0.6531868,-0.6273951,-0.41247463,0.53739923,-0.43346897,0.4175426,-0.46842495,-0.69947153,0.07477416,-0.03922292,0.08122501,-0.058578953,0.047199804,-0.071050875,0.014239176,-0.014467919,-0.011792058,-0.06891253,0.007877416,-0.037307106,3.0,1.7088746,-3.0,3.0,1.4884868,-3.0,-3.0,0.610336,-3.0,3.0,-0.6974254,-3.0,3.0,2.1243677,-3.0,3.0,1.3713583,-3.0,-3.0,0.72647965,-3.0,3.0,-0.73113936,-3.0
2025-06-05 17:22:12.875,-0.0013570023,0.006381275,-0.039052945,0.16254379,0.12505145,0.026629027,0.0,0.0,0.0,0.0,0.40704727,1.0246295,-0.6672196,0.41065466,0.65730697,-0.63940984,-0.41548097,0.53830016,-0.43817136,0.41736865,-0.4693913,-0.696402,0.009005745,-0.04248902,0.020767827,-0.034503788,-0.015977478,0.0269083,-0.05383983,-0.024317631,-0.05936207,0.05915524,-0.008301265,0.0022509883,3.0,2.1243677,-3.0,3.0,1.3713583,-3.0,-3.0,0.72647965,-3.0,3.0,-0.73113936,-3.0,3.0,1.956957,-3.0,3.0,1.1013561,-3.0,-3.0,0.7579275,-3.0,3.0,-0.8731176,-3.0
2025-06-05 17:22:12.893,-0.036206633,0.019935278,-0.026546637,0.13030992,0.122285336,0.043661375,0.0,0.0,0.0,0.0,0.41104755,1.0291722,-0.67952365,0.42372623,0.6574845,-0.6287559,-0.41127414,0.52915114,-0.44843364,0.41967407,-0.48104873,-0.6957183,0.03163591,0.07261238,0.054454315,-0.016098628,0.040585157,-0.0027977375,-0.046654772,0.03803617,-0.02733746,0.014828844,0.055305164,-0.04169243,3.0,1.956957,-3.0,3.0,1.1013561,-3.0,-3.0,0.7579275,-3.0,3.0,-0.8731176,-3.0,3.0,1.7690958,-3.0,3.0,1.1358396,-3.0,-3.0,0.72707564,-3.0,3.0,-0.851829,-3.0
2025-06-05 17:22:12.913,-0.014911607,0.034816436,0.061021112,0.086386286,0.1276715,0.018059513,0.0,0.0,0.0,0.0,0.40888578,1.0303562,-0.6756169,0.42106354,0.65889096,-0.6345356,-0.41462338,0.52284145,-0.4496337,0.42663887,-0.47271264,-0.70243746,-0.033780705,-0.015238005,-0.06398976,0.07132451,-0.029813124,-0.026505202,0.019899607,-0.043803565,0.07772428,0.0060682436,0.0491051,-0.043395013,3.0,1.7690958,-3.0,3.0,1.1358396,-3.0,-3.0,0.72707564,-3.0,3.0,-0.851829,-3.0,3.0,1.7480791,-3.0,3.0,1.5196102,-3.0,-3.0,0.44055265,-3.0,3.0,-0.5125398,-3.0
2025-06-05 17:22:12.933,0.04241607,0.049314704,-0.002078757,0.17545456,0.13627417,0.013746134,0.0,0.0,0.0,0.0,0.40076098,1.0380996,-0.68233734,0.42537737,0.64637595,-0.63326585,-0.4138705,0.52682126,-0.43689197,0.41187242,-0.4818775,-0.69569296,0.018270139,-0.056136165,9.676008e-05,0.070928186,-0.036569618,-0.060270585,-0.003996214,0.0072375135,-0.053916395,-0.008527889,-0.055475134,0.0679429,3.0,1.7480791,-3.0,3.0,1.5196102,-3.0,-3.0,0.44055265,-3.0,3.0,-0.5125398,-3.0,3.0,2.0917773,-3.0,3.0,1.4319814,-3.0,-3.0,0.64341426,-3.0,3.0,-0.71121484,-3.0
2025-06-05 17:22:12.953,0.050281346,0.031795982,-0.025013931,0.14792824,0.10536306,0.048155226,0.0,0.0,0.0,0.0,0.41204408,1.0233641,-0.66866803,0.40957814,0.6634852,-0.6371617,-0.42771116,0.5352809,-0.43016765,0.4140037,-0.48261827,-0.70551735,-0.013564442,0.031936422,0.06024578,0.037357237,0.04365695,-0.05421773,-0.03855469,0.028246855,-0.01855642,0.016092578,0.05542494,0.024162155,3.0,2.0917773,-3.0,3.0,1.4319814,-3.0,-3.0,0.64341426,-3.0,3.0,-0.71121484,-3.0,3.0,1.942037,-3.0,3.0,1.2145938,-3.0,-3.0,0.63234293,-3.0,3.0,-0.8779389,-3.0
2025-06-05 17:22:12.976,-0.014906835,0.017886918,-0.02934902,0.14926739,0.15053405,0.011884644,0.0,0.0,0.0,0.0,0.40287483,1.0401071,-0.6793552,0.41735086,0.65933806,-0.62365985,-0.43118858,0.5258308,-0.440946,0.42678073,-0.47958907,-0.7045336,0.032552153,0.019448616,0.036158316,0.050832078,-0.036588937,-0.05996227,-0.018435797,-0.065279715,-0.004245729,-0.05299728,0.06065246,0.04857612,3.0,1.942037,-3.0,3.0,1.2145938,-3.0,-3.0,0.63234293,-3.0,3.0,-0.8779389,-3.0,3.0,1.7245077,-3.0,3.0,1.145538,-3.0,-3.0,0.75959307,-3.0,3.0,-0.8393664,-3.0
2025-06-05 17:22:12.993,0.013711974,0.035483263,0.06590769,0.13195147,0.09925501,-0.009173965,0.0,0.0,0.0,0.0,0.40902197,1.034022,-0.6726983,0.42409816,0.6528985,-0.6390034,-0.43104956,0.52860284,-0.43444738,0.4280832,-0.47898147,-0.7057829,0.034185823,0.0018857283,-0.019481352,-0.045968443,-0.058425795,0.002886109,-0.018833434,-0.029550139,-0.068749174,-0.03773767,-0.041682586,-0.015088734,3.0,1.7245077,-3.0,3.0,1.145538,-3.0,-3.0,0.75959307,-3.0,3.0,-0.8393664,-3.0,3.0,1.8078064,-3.0,3.0,1.4147992,-3.0,-3.0,0.518086,-3.0,3.0,-0.46143255,-3.0
2025-06-05 17:22:13.014,-0.012878545,0.026329774,-0.030731175,0.17282423,0.06444863,0.03228306,0.0,0.0,0.0,0.0,0.4108636,1.0270758,-0.6621884,0.4233535,0.65831184,-0.637003,-0.42562005,0.52433556,-0.43397662,0.4110704,-0.4815371,-0.6941142,0.01648779,0.06502613,0.025646724,0.0054128408,0.053566474,-0.057301447,0.030806275,0.024516428,-0.034154356,-0.05017773,0.0118111735,0.045895375,3.0,1.8078064,-3.0,3.0,1.4147992,-3.0,-3.0,0.518086,-3.0,3.0,-0.46143255,-3.0,3.0,2.0695314,-3.0,3.0,1.24644,-3.0,-3.0,0.65266275,-3.0,3.0,-0.8600969,-3.0
2025-06-05 17:22:13.033,0.038072746,-0.029286824,-0.017634533,0.11993728,0.10311386,0.025561571,0.0,0.0,0.0,0.0,0.39874414,1.0327582,-0.6683354,0.41015553,0.6576279,-0.6313228,-0.4248239,0.520126,-0.4305375,0.42345792,-0.48531702,-0.70341754,0.06431487,0.04441237,-0.068717234,-0.014415094,0.035769574,0.03259337,-0.054648284,-0.042490277,0.0033784066,-0.01886128,0.043804605,0.06916699,3.0,2.0695314,-3.0,3.0,1.24644,-3.0,-3.0,0.65266275,-3.0,3.0,-0.8600969,-3.0,3.0,1.6522244,-3.0,3.0,1.1218041,-3.0,-3.0,0.7279894,-3.0,3.0,-0.8765611,-3.0
2025-06-05 17:22:13.054,-0.022558667,-0.04376026,0.032747258,0.11171267,0.12434422,-0.026629014,0.0,0.0,0.0,0.0,0.40810588,1.0315822,-0.6639101,0.4279381,0.6640236,-0.62312365,-0.41790506,0.51943934,-0.43598238,0.41466445,-0.49226776,-0.6931244,-0.0026488572,0.04475252,0.053041205,0.019865075,0.03608069,-0.06739133,0.030577684,-0.03641034,0.04814239,0.06795273,-0.05425564,-0.06605937,3.0,1.6522244,-3.0,3.0,1.1218041,-3.0,-3.0,0.7279894,-3.0,3.0,-0.8765611,-3.0,3.0,1.6958588,-3.0,3.0,1.5141469,-3.0,-3.0,0.6691807,-3.0,3.0,-0.5407979,-3.0
2025-06-05 17:22:13.076,-0.025996678,-0.004103899,-0.01709066,0.10411769,0.15595064,-0.026882935,0.0,0.0,0.0,0.0,0.40821064,1.0228242,-0.66629285,0.42499086,0.6597524,-0.62338614,-0.4278702,0.52812564,-0.4480827,0.42160305,-0.494268,-0.71252257,0.057692792,-0.03139563,-0.03963744,0.053487774,0.023465756,-0.011700456,0.04712696,-0.055374425,0.033694975,0.054395545,-0.002794363,0.05319111,3.0,1.6958588,-3.0,3.0,1.5141469,-3.0,-3.0,0.6691807,-3.0,3.0,-0.5407979,-3.0,3.0,1.9798826,-3.0,3.0,1.3667742,-3.0,-3.0,0.69487363,-3.0,3.0,-0.731682,-3.0
2025-06-05 17:22:13.094,0.05151813,0.019349866,-0.04654931,0.13505934,0.094588764,0.036555964,0.0,0.0,0.0,0.0,0.40724298,1.0280378,-0.6625332,0.42295435,0.6569173,-0.6329892,-0.4147287,0.51974183,-0.4380016,0.42200303,-0.4861744,-0.7033602,0.009982327,0.05320365,-0.007437893,0.01868157,0.018245563,-0.028176043,-0.019212542,0.008606336,-0.021701373,0.026094908,6.6669716e-05,-0.0816845,3.0,1.9798826,-3.0,3.0,1.3667742,-3.0,-3.0,0.69487363,-3.0,3.0,-0.731682,-3.0,3.0,1.9028453,-3.0,3.0,1.1479939,-3.0,-3.0,0.7913957,-3.0,3.0,-0.87222093,-3.0
2025-06-05 17:22:13.114,0.02742148,-0.036452733,-0.021924183,0.10653051,0.100120656,-0.035590153,0.0,0.0,0.0,0.0,0.40382907,1.0312614,-0.66175973,0.41837737,0.65679693,-0.6314779,-0.41814202,0.5260328,-0.44668183,0.40829837,-0.4813557,-0.703415,0.05398292,0.034774244,0.050308127,-0.0014336979,-0.07350325,-0.0553499,0.05467214,0.034177087,0.016508913,0.050699517,-0.07325592,-0.024734616,3.0,1.9028453,-3.0,3.0,1.1479939,-3.0,-3.0,0.7913957,-3.0,3.0,-0.87222093,-3.0,3.0,1.9074376,-3.0,3.0,1.1944913,-3.0,-3.0,0.77935934,-3.0,3.0,-0.7550594,-3.0
2025-06-05 17:22:13.134,0.02045736,-0.04818795,0.0474587,0.17796251,0.12793066,0.00028447376,0.0,0.0,0.0,0.0,0.40169644,1.0290447,-0.6808894,0.42311,0.6481005,-0.6298324,-0.42038885,0.5232626,-0.44642314,0.42691475,-0.48904952,-0.7003118,0.03446635,-0.04348664,-0.07622328,0.045158546,0.019275516,-0.05826661,0.054845434,-0.07200224,-0.07981151,-0.035651863,0.04619021,0.0026745694,3.0,1.9074376,-3.0,3.0,1.1944913,-3.0,-3.0,0.77935934,-3.0,3.0,-0.7550594,-3.0,3.0,1.9035325,-3.0,3.0,1.3704726,-3.0,-3.0,0.51098543,-3.0,3.0,-0.50427026,-3.0
2025-06-05 17:22:13.154,-0.021031056,-0.055150975,-0.07629705,0.08833907,0.07787394,0.006776869,0.0,0.0,0.0,0.0,0.4117896,1.0208161,-0.66370386,0.42005044,0.66370654,-0.63197565,-0.41118613,0.5284014,-0.44701615,0.411631,-0.4829043,-0.70847964,0.053200535,0.045824554,-0.027597453,-0.070021465,-0.010465812,0.025849497,0.06842419,-0.034642562,0.028235741,-0.009480133,0.0015132247,0.025866356,3.0,1.9035325,-3.0,3.0,1.3704726,-3.0,-3.0,0.51098543,-3.0,3.0,-0.50427026,-3.0,3.0,2.125935,-3.0,3.0,1.043033,-3.0,-3.0,0.83042973,-3.0,3.0,-0.9563268,-3.0
2025-06-05 17:22:13.176,0.031293176,-0.04204423,0.07739383,0.09202208,0.07431569,0.017812027,0.0,0.0,0.0,0.0,0.40246174,1.0156647,-0.681032,0.41692013,0.65702355,-0.6276745,-0.4280545,0.53326815,-0.44633982,0.4151458,-0.49247694,-0.70834965,-0.018815417,0.064776026,-0.009622328,0.025174685,-0.082025945,-0.03904139,0.012510542,0.07249598,-0.0056255856,-0.011570826,-0.027838811,0.050985724,3.0,2.125935,-3.0,3.0,1.043033,-3.0,-3.0,0.83042973,-3.0,3.0,-0.9563268,-3.0,3.0,1.878769,-3.0,3.0,1.3148377,-3.0,-3.0,0.3629666,-3.0,3.0,-0.5375578,-3.0
2025-06-05 17:22:13.194,-0.021113144,-0.027286865,-0.059996933,0.10971254,0.10284631,0.040092655,0.0,0.0,0.0,0.0,0.40222993,1.0133724,-0.6812922,0.425468,0.6471665,-0.6299259,-0.41983506,0.5247205,-0.45478144,0.4173648,-0.48771346,-0.70710653,0.016672874,0.020303534,0.07155688,0.022671718,-0.043876763,-0.062148795,0.046362054,-0.0028118328,-0.03791038,0.012444711,0.07084681,-0.06909751,3.0,1.878769,-3.0,3.0,1.3148377,-3.0,-3.0,0.3629666,-3.0,3.0,-0.5375578,-3.0,3.0,2.2509763,-3.0,3.0,1.1819216,-3.0,-3.0,0.75929135,-3.0,3.0,-0.85661477,-3.0
2025-06-05 17:22:13.214,-0.03125255,-0.022790067,-0.008241353,0.13556598,0.14984684,-0.030560136,0.0,0.0,0.0,0.0,0.4094779,1.0243729,-0.6718319,0.42395577,0.65628356,-0.60966873,-0.42895514,0.5227885,-0.44429138,0.4127158,-0.48489815,-0.71143717,-0.05733852,0.022793464,-0.022307666,0.0048926147,0.06248065,0.046414673,-0.044761747,-0.031503312,-0.039546136,-0.05997833,-0.043606203,0.061575133,3.0,2.2509763,-3.0,3.0,1.1819216,-3.0,-3.0,0.75929135,-3.0,3.0,-0.85661477,-3.0,3.0,1.8353418,-3.0,3.0,1.0144154,-3.0,-3.0,0.68026483,-3.0,3.0,-0.7455737,-3.0
2025-06-05 17:22:13.235,-0.033074137,0.04153038,0.009544213,0.08047099,0.06749951,0.027755318,0.0,0.0,0.0,0.0,0.41006142,1.0423803,-0.6762992,0.42097384,0.64692897,-0.62022614,-0.4221381,0.53034306,-0.457651,0.42542234,-0.48612282,-0.6960649,0.021381347,-0.04151582,-0.062380783,0.03325624,-0.016253926,0.0826406,0.033797007,-0.04107683,0.0347894,-0.05598459,-0.05270546,0.047194246,3.0,1.8353418,-3.0,3.0,1.0144154,-3.0,-3.0,0.68026483,-3.0,3.0,-0.7455737,-3.0,3.0,1.9683386,-3.0,3.0,1.2235309,-3.0,-3.0,0.612283,-3.0,3.0,-0.6762883,-3.0
2025-06-05 17:22:13.255,0.035599906,0.008402894,0.019033639,0.15896371,0.15999426,0.023099404,0.0,0.0,0.0,0.0,0.40109178,1.0393937,-0.68950754,0.42694178,0.6550399,-0.61110586,-0.42554742,0.53082836,-0.4576434,0.42041668,-0.50124717,-0.69249773,-0.056471862,-0.052347522,-0.06864478,-0.025273513,-0.05009233,0.04634712,0.039771922,-0.06106661,0.074823,0.022857083,-0.0027400702,0.04530971,3.0,1.9683386,-3.0,3.0,1.2235309,-3.0,-3.0,0.612283,-3.0,3.0,-0.6762883,-3.0,3.0,1.8969975,-3.0,3.0,1.3234375,-3.0,-3.0,0.57604617,-3.0,3.0,-0.6775622,-3.0
2025-06-05 17:22:13.277,-0.02457107,0.02127059,0.008987736,0.12769236,0.12153721,-0.04956497,0.0,0.0,0.0,0.0,0.39388338,1.0224379,-0.6823101,0.42272243,0.64910364,-0.6164253,-0.41988117,0.5136575,-0.46041772,0.4122061,-0.49471283,-0.6973651,0.04406059,0.013964637,-0.055910785,-0.0344862,0.06916888,0.05849364,-0.036024958,0.02387488,0.001397767,0.053870995,0.057952948,-0.005371582,3.0,1.8969975,-3.0,3.0,1.3234375,-3.0,-3.0,0.57604617,-3.0,3.0,-0.6775622,-3.0,3.0,1.8574249,-3.0,3.0,1.3602628,-3.0,-3.0,0.60777575,-3.0,3.0,-0.7127704,-3.0
2025-06-05 17:22:13.294,0.013361116,-0.009316321,-0.041905206,0.16743477,0.1317251,-0.011485727,0.0,0.0,0.0,0.0,0.39611217,1.0331722,-0.6767082,0.4217099,0.64803326,-0.6161296,-0.41655746,0.52757657,-0.4582328,0.4199486,-0.4983513,-0.7087715,-0.063105546,-0.011833713,-0.05949695,0.031080535,0.02805415,0.03332107,0.043266293,0.055023123,-0.018905964,0.058353886,-0.031181337,-0.0050753616,3.0,1.8574249,-3.0,3.0,1.3602628,-3.0,-3.0,0.60777575,-3.0,3.0,-0.7127704,-3.0,3.0,1.9601349,-3.0,3.0,1.1015774,-3.0,-3.0,0.8409482,-3.0,3.0,-0.84685045,-3.0
2025-06-05 17:22:13.315,0.028837852,0.0071905483,0.0504881,0.17610724,0.10620591,0.032358672,0.0,0.0,0.0,0.0,0.40469286,1.0238466,-0.6798964,0.42723426,0.6525048,-0.60691947,-0.417977,0.522673,-0.46159074,0.42079422,-0.48957172,-0.7065495,0.02094128,-0.013247873,0.050890416,0.057242483,-0.0018312283,0.05285611,-0.059231568,-0.023822177,0.036459316,0.038784076,0.016502734,0.05638191,3.0,1.9601349,-3.0,3.0,1.1015774,-3.0,-3.0,0.8409482,-3.0,3.0,-0.84685045,-3.0,3.0,1.6536771,-3.0,3.0,1.4312861,-3.0,-3.0,0.50431424,-3.0,3.0,-0.60100263,-3.0
2025-06-05 17:22:13.334,0.009081869,0.014789523,-0.05184618,0.09975513,0.14448106,0.022187809,0.0,0.0,0.0,0.0,0.40628684,1.0228678,-0.6825135,0.41054332,0.6479109,-0.6043853,-0.42198777,0.5154152,-0.44775328,0.41281077,-0.49276426,-0.71112496,-0.06497632,-0.00978298,-0.010809301,-0.033361584,-0.05560783,0.027503341,0.029459361,-0.06122537,0.006166325,0.0020544599,-0.0023422742,-0.063597485,3.0,1.6536771,-3.0,3.0,1.4312861,-3.0,-3.0,0.50431424,-3.0,3.0,-0.60100263,-3.0,3.0,2.0782015,-3.0,3.0,1.1739478,-3.0,-3.0,0.8349067,-3.0,3.0,-0.78900796,-3.0
2025-06-05 17:22:13.358,-0.011069404,0.025645696,-0.019231109,0.11407057,0.14692818,0.006652233,0.0,0.0,0.0,0.0,0.39670953,1.0313138,-0.67365986,0.4156737,0.6412546,-0.6092409,-0.42848969,0.5114993,-0.44493333,0.41703996,-0.48736486,-0.70928943,0.072953746,-0.027906846,-0.07159696,0.05475717,0.0064379782,-0.054165207,-0.0006320972,-0.0680554,-0.021070123,0.032889552,0.059687957,0.040579807,3.0,2.0782015,-3.0,3.0,1.1739478,-3.0,-3.0,0.8349067,-3.0,3.0,-0.78900796,-3.0,3.0,1.874235,-3.0,3.0,1.1481594,-3.0,-3.0,0.65437204,-3.0,3.0,-0.79445165,-3.0
2025-06-05 17:22:13.376,0.0280893,-0.009793106,-0.023408337,0.17931432,0.14443555,0.016461974,0.0,0.0,0.0,0.0,0.39190564,1.0300089,-0.6679663,0.425143,0.64525586,-0.6105047,-0.41981158,0.51266825,-0.45232353,0.42562538,-0.48911774,-0.70274186,-0.05970907,0.050736904,0.039127126,-0.005852012,-0.015941931,0.009244044,0.0674778,-0.021674633,-0.00872254,0.06400794,-0.069073945,0.04754578,3.0,1.874235,-3.0,3.0,1.1481594,-3.0,-3.0,0.65437204,-3.0,3.0,-0.79445165,-3.0,3.0,1.7815539,-3.0,3.0,1.1783038,-3.0,-3.0,0.8333323,-3.0,3.0,-0.77317137,-3.0
2025-06-05 17:22:13.395,0.013039902,-0.0059204963,0.038974427,0.10520795,0.14361861,0.0016968648,0.0,0.0,0.0,0.0,0.3924829,1.0205542,-0.66730005,0.41641682,0.6450925,-0.603665,-0.41969267,0.5114297,-0.44978914,0.4163399,-0.4951351,-0.71842945,-0.0048725093,-0.012437884,0.0329445,0.0074639516,-0.056837026,-0.0610185,0.06251694,0.010180966,0.063871264,0.039103396,0.0143732475,-0.042173166,3.0,1.7815539,-3.0,3.0,1.1783038,-3.0,-3.0,0.8333323,-3.0,3.0,-0.77317137,-3.0,3.0,1.8978215,-3.0,3.0,1.5327594,-3.0,-3.0,0.4930218,-3.0,3.0,-0.5035221,-3.0
2025-06-05 17:22:13.415,0.0076803425,0.022932826,-0.063733585,0.10397198,0.09109804,0.039967455,0.0,0.0,0.0,0.0,0.3971175,1.014409,-0.66743416,0.41277424,0.64492285,-0.6147525,-0.41118073,0.50992656,-0.4620189,0.41805464,-0.49345118,-0.71776825,0.031806145,0.026417984,0.04310319,0.00799532,0.019412084,-0.0120587805,0.03982051,-0.04742224,-0.011003791,0.004045676,0.09097451,0.061664175,3.0,1.8978215,-3.0,3.0,1.5327594,-3.0,-3.0,0.4930218,-3.0,3.0,-0.5035221,-3.0,3.0,2.09453,-3.0,3.0,1.2046207,-3.0,-3.0,0.766406,-3.0,3.0,-0.90993935,-3.0
2025-06-05 17:22:13.435,0.029216385,0.021161329,0.03391463,0.13387208,0.08620829,0.044893436,0.0,0.0,0.0,0.0,0.39423528,1.0203915,-0.671361,0.42400938,0.65816605,-0.6207148,-0.4269006,0.52992165,-0.4635197,0.4216856,-0.48844942,-0.7209056,0.05518653,0.039284997,-0.0043609072,-0.034395903,0.01386315,0.008338318,0.033953868,-0.032211274,-0.027847566,-0.014875686,0.045273166,-0.02268129,3.0,2.09453,-3.0,3.0,1.2046207,-3.0,-3.0,0.766406,-3.0,3.0,-0.90993935,-3.0,3.0,1.8426691,-3.0,3.0,1.3477921,-3.0,-3.0,0.5386354,-3.0,3.0,-0.55570227,-3.0
2025-06-05 17:22:13.455,-0.021848673,0.05197094,0.020698046,0.13948974,0.11197453,-0.036531076,0.0,0.0,0.0,0.0,0.38600048,1.0297134,-0.68154794,0.41011906,0.6610349,-0.615511,-0.4162831,0.5148471,-0.45119286,0.4190901,-0.47998735,-0.7256406,0.04793699,-0.012619911,-0.0646862,-0.04206539,0.025941292,-0.01413376,0.004978107,0.03620056,-0.06937138,0.023524666,0.00731537,0.0015406586,3.0,1.8426691,-3.0,3.0,1.3477921,-3.0,-3.0,0.5386354,-3.0,3.0,-0.55570227,-3.0,3.0,2.0385568,-3.0,3.0,1.4372927,-3.0,-3.0,0.5354644,-3.0,3.0,-0.5820058,-3.0
2025-06-05 17:22:13.476,0.012616456,-0.026785921,0.004200437,0.16489267,0.113947816,0.006763439,0.0,0.0,0.0,0.0,0.38760605,1.0227253,-0.6744168,0.42409182,0.6649517,-0.6254727,-0.41159275,0.52844924,-0.44820282,0.42329267,-0.4737911,-0.72003967,-0.046428666,0.07450306,0.06553116,-0.04781521,0.0071523143,0.022022383,0.041700803,-0.059830513,-0.009483432,-0.024303593,0.00712911,-0.0697089,3.0,2.0385568,-3.0,3.0,1.4372927,-3.0,-3.0,0.5354644,-3.0,3.0,-0.5820058,-3.0,3.0,1.9232279,-3.0,3.0,1.3909429,-3.0,-3.0,0.6024547,-3.0,3.0,-0.5929381,-3.0
2025-06-05 17:22:13.495,0.07665013,-0.013020693,-0.05313687,0.17230587,0.080273,-0.018072508,0.0,0.0,0.0,0.0,0.3972193,1.036212,-0.67837524,0.41698143,0.67820996,-0.6135737,-0.41426557,0.5177088,-0.45633352,0.4112368,-0.464194,-0.7178114,-0.029095013,0.03480644,-0.03957305,0.018790089,-0.007990127,-0.013265966,0.00077853655,0.061738633,-0.03987295,-0.005044587,0.089418024,0.0073137446,3.0,1.9232279,-3.0,3.0,1.3909429,-3.0,-3.0,0.6024547,-3.0,3.0,-0.5929381,-3.0,3.0,1.8583547,-3.0,3.0,1.0444587,-3.0,-3.0,0.7935328,-3.0,3.0,-0.97398144,-3.0
2025-06-05 17:22:13.515,-0.0010872502,0.013580498,0.04027439,0.08722006,0.15538915,0.020087596,0.0,0.0,0.0,0.0,0.40188017,1.0250103,-0.6804187,0.42092314,0.677499,-0.6295149,-0.41820183,0.5241272,-0.44949877,0.42612344,-0.4848972,-0.7206502,-0.0055080936,0.045137074,-0.007873592,0.06266667,0.048852876,0.022530876,-0.05126916,0.01434706,0.021565145,-0.01619149,-0.008520319,0.022692407,3.0,1.8583547,-3.0,3.0,1.0444587,-3.0,-3.0,0.7935328,-3.0,3.0,-0.97398144,-3.0,3.0,1.7249733,-3.0,3.0,1.3188957,-3.0,-3.0,0.5172594,-3.0,3.0,-0.5601763,-3.0
2025-06-05 17:22:13.535,0.0038681868,0.019483322,-0.04971126,0.11138578,0.09189003,-0.002453545,0.0,0.0,0.0,0.0,0.40012628,1.0373944,-0.67683285,0.41270763,0.66464365,-0.62493193,-0.42638347,0.5170088,-0.45156074,0.42509338,-0.47839618,-0.7144442,-0.057931557,-0.0428391,-0.012159394,0.010818284,0.03351063,-0.044406846,-0.022330362,-0.052923378,0.032284584,-0.029137177,-0.067012675,-0.01831001,3.0,1.7249733,-3.0,3.0,1.3188957,-3.0,-3.0,0.5172594,-3.0,3.0,-0.5601763,-3.0,3.0,2.105813,-3.0,3.0,1.2474238,-3.0,-3.0,0.7952358,-3.0,3.0,-0.7970485,-3.0
2025-06-05 17:22:13.555,0.0036168024,0.011845035,-0.006509674,0.1400138,0.118755475,-0.03568786,0.0,0.0,0.0,0.0,0.40425095,1.0406524,-0.6670967,0.4240524,0.6666686,-0.6126715,-0.42938566,0.5308976,-0.44581816,0.4184566,-0.47382784,-0.7246364,-0.015044284,0.052457295,0.013455272,0.020768933,0.017767642,-0.055866957,-0.021800369,-0.04688982,-0.019749051,-0.041705932,-0.05805632,-0.037500545,3.0,2.105813,-3.0,3.0,1.2474238,-3.0,-3.0,0.7952358,-3.0,3.0,-0.7970485,-3.0,3.0,1.8534728,-3.0,3.0,1.1915971,-3.0,-3.0,0.6617404,-3.0,3.0,-0.67528576,-3.0
2025-06-05 17:22:13.576,0.02331189,-0.010302509,-0.04831537,0.089386,0.13777821,-0.03219777,0.0,0.0,0.0,0.0,0.4036883,1.0298938,-0.68044406,0.4262478,0.6610323,-0.62795544,-0.42583638,0.5173068,-0.45744896,0.42634323,-0.48366776,-0.71130073,-0.041005027,-0.059688672,-0.040527143,-0.026290974,-0.021027682,-0.021956285,0.022571066,-0.043401428,-0.0463464,-0.04310398,-0.06727216,0.01765985,3.0,1.8534728,-3.0,3.0,1.1915971,-3.0,-3.0,0.6617404,-3.0,3.0,-0.67528576,-3.0,3.0,2.1751251,-3.0,3.0,1.0256194,-3.0,-3.0,0.83934045,-3.0,3.0,-0.7656757,-3.0
2025-06-05 17:22:13.595,0.05054297,-0.063046224,-0.0004655783,0.15467021,0.10034886,0.034641936,0.0,0.0,0.0,0.0,0.39411375,1.0308695,-0.66636586,0.42871764,0.6608635,-0.61707777,-0.41290978,0.5355664,-0.45373964,0.4236524,-0.48596632,-0.707266,-0.025502063,-0.059135124,-0.021636749,-0.04890335,-0.04584063,0.032810804,0.008530219,-0.06096886,-0.03299316,-0.07596231,0.06488762,0.05184244,3.0,2.1751251,-3.0,3.0,1.0256194,-3.0,-3.0,0.83934045,-3.0,3.0,-0.7656757,-3.0,3.0,1.9580908,-3.0,3.0,1.0436853,-3.0,-3.0,0.5939831,-3.0,3.0,-0.7283284,-3.0
2025-06-05 17:22:13.616,-0.018318614,0.028717771,-0.024450509,0.14007531,0.13633499,-0.029555675,0.0,0.0,0.0,0.0,0.39643207,1.027728,-0.68668526,0.42945918,0.6686174,-0.6129296,-0.4275661,0.5264523,-0.45761612,0.41006672,-0.48329645,-0.7022193,-0.06280759,-0.015246972,0.049491968,0.0736744,-0.00026138566,0.046994474,0.0023064201,-0.04014183,0.033452835,-0.041841518,0.007955876,0.08199254,3.0,1.9580908,-3.0,3.0,1.0436853,-3.0,-3.0,0.5939831,-3.0,3.0,-0.7283284,-3.0,3.0,1.8895615,-3.0,3.0,1.1008497,-3.0,-3.0,0.7095669,-3.0,3.0,-0.80364007,-3.0
2025-06-05 17:22:13.636,-0.043617845,0.032988425,0.016542735,0.14026383,0.15042615,-0.013392549,0.0,0.0,0.0,0.0,0.4070262,1.0296379,-0.67680365,0.41263616,0.6660191,-0.6160188,-0.42132643,0.52631736,-0.45974556,0.4220849,-0.48601222,-0.7148941,-0.014262136,0.03358117,-0.023698514,-0.035373647,0.06537084,0.049450584,0.026865855,0.020361599,-0.046315808,-0.040137038,0.053112905,-0.023180773,3.0,1.8895615,-3.0,3.0,1.1008497,-3.0,-3.0,0.7095669,-3.0,3.0,-0.80364007,-3.0,3.0,1.8954495,-3.0,3.0,1.2145584,-3.0,-3.0,0.56205887,-3.0,3.0,-0.6028244,-3.0
2025-06-05 17:22:13.658,0.027424544,-0.0324063,0.015263743,0.15079488,0.14700635,-0.041511837,0.0,0.0,0.0,0.0,0.39371207,1.0310277,-0.67975473,0.41188014,0.664023,-0.61335635,-0.42401624,0.5143074,-0.45939267,0.4188006,-0.493604,-0.708087,0.0039822552,-0.056416735,0.028048066,0.029448984,0.016419604,-0.04021232,0.0122435605,0.031304546,0.05802319,0.035174444,0.028716203,0.05908152,3.0,1.8954495,-3.0,3.0,1.2145584,-3.0,-3.0,0.56205887,-3.0,3.0,-0.6028244,-3.0,3.0,1.9583973,-3.0,3.0,1.4804002,-3.0,-3.0,0.54416215,-3.0,3.0,-0.66047114,-3.0
2025-06-05 17:22:13.676,-0.0060436623,-0.03401745,-0.03871307,0.08864044,0.07823558,-0.0058377176,0.0,0.0,0.0,0.0,0.3946174,1.0325162,-0.6826724,0.41547516,0.66316116,-0.6073003,-0.4200721,0.52191097,-0.4451684,0.41908145,-0.49619314,-0.7108619,0.061242577,-0.010905511,-0.02224506,-0.015366645,0.052527536,0.03554992,-0.059720807,-0.015175884,0.025494961,0.06053489,0.037767768,-0.07243446,3.0,1.9583973,-3.0,3.0,1.4804002,-3.0,-3.0,0.54416215,-3.0,3.0,-0.66047114,-3.0,3.0,1.9590467,-3.0,3.0,1.3013177,-3.0,-3.0,0.74521565,-3.0,3.0,-0.8242871,-3.0
2025-06-05 17:22:13.696,-0.037616722,0.03436189,-0.024470976,0.09779411,0.09388439,-0.032834888,0.0,0.0,0.0,0.0,0.39440426,1.0231234,-0.67987096,0.41476986,0.66998917,-0.61128217,-0.4192909,0.5146295,-0.45296165,0.42540765,-0.4887686,-0.71874386,-0.07424112,0.011222732,0.04690043,0.0054426356,-0.0130571695,0.061497804,-0.07061851,0.038356464,-0.028863622,0.05537141,0.011992383,-0.062937304,3.0,1.9590467,-3.0,3.0,1.3013177,-3.0,-3.0,0.74521565,-3.0,3.0,-0.8242871,-3.0,3.0,1.8933947,-3.0,3.0,1.1249167,-3.0,-3.0,0.7338535,-3.0,3.0,-0.7666587,-3.0
2025-06-05 17:22:13.716,-0.06545236,0.031250305,-0.021648714,0.10049446,0.14587343,-0.025177365,0.0,0.0,0.0,0.0,0.39670232,1.0254409,-0.6868548,0.42485994,0.66867745,-0.60252047,-0.43104544,0.5265296,-0.46818128,0.41111746,-0.49283442,-0.7018965,0.046944223,0.0041458947,-0.06686436,-0.040355947,-0.017810246,-0.0013625388,-0.06911462,-0.003569645,-0.022851458,-0.04802723,0.0039828373,0.06076486,3.0,1.8933947,-3.0,3.0,1.1249167,-3.0,-3.0,0.7338535,-3.0,3.0,-0.7666587,-3.0,3.0,1.9191278,-3.0,3.0,1.0589243,-3.0,-3.0,0.7087813,-3.0,3.0,-0.81456393,-3.0
2025-06-05 17:22:13.736,-0.044921406,-0.0075503793,0.060922913,0.09239906,0.101023585,-0.048586022,0.0,0.0,0.0,0.0,0.38640866,1.0268589,-0.68241996,0.4265793,0.6495399,-0.60047024,-0.41688544,0.51583725,-0.4616914,0.4253457,-0.5025549,-0.7149516,-0.03593027,0.0006978632,0.041855752,0.0022277355,-0.009313292,0.0032530634,0.01739175,0.046861414,0.028406566,-0.041771375,-0.034006752,0.021710938,3.0,1.9191278,-3.0,3.0,1.0589243,-3.0,-3.0,0.7087813,-3.0,3.0,-0.81456393,-3.0,3.0,1.9474217,-3.0,3.0,1.4735597,-3.0,-3.0,0.43339044,-3.0,3.0,-0.43388805,-3.0
2025-06-05 17:22:13.758,-0.0064914688,0.005383467,0.0034484419,0.17079909,0.14205393,-0.01675891,0.0,0.0,0.0,0.0,0.39685875,1.0183116,-0.6771052,0.4231122,0.6523712,-0.5981953,-0.41381627,0.52348614,-0.45344752,0.4172908,-0.48724273,-0.7193759,-0.05341437,-0.035838306,0.029133564,0.06824332,-0.015506594,-0.032911632,0.022598429,-0.016501974,-0.00251324,0.0028339054,-0.030832397,0.057272997,3.0,1.9474217,-3.0,3.0,1.4735597,-3.0,-3.0,0.43339044,-3.0,3.0,-0.43388805,-3.0,3.0,2.1427846,-3.0,3.0,1.4397131,-3.0,-3.0,0.55723614,-3.0,3.0,-0.6299414,-3.0
2025-06-05 17:22:13.776,0.083532415,0.04840392,5.0170922e-05,0.16222024,0.11931598,-0.03894252,0.0,0.0,0.0,0.0,0.3903269,1.0385219,-0.68157274,0.41879067,0.6658209,-0.6080051,-0.41296858,0.51983875,-0.45636988,0.42546538,-0.48429498,-0.72251976,0.05031213,-0.055258542,0.04587894,-0.0433243,0.014993102,-0.062337007,0.06488923,-0.008432981,-0.051876016,0.019435667,-0.019927468,0.05136317,3.0,2.1427846,-3.0,3.0,1.4397131,-3.0,-3.0,0.55723614,-3.0,3.0,-0.6299414,-3.0,3.0,2.1052928,-3.0,3.0,1.4437636,-3.0,-3.0,0.61777526,-3.0,3.0,-0.59653753,-3.0
2025-06-05 17:22:13.796,0.05939867,0.0065357583,-0.021230154,0.11214641,0.10824943,0.021408979,0.0,0.0,0.0,0.0,0.38617983,1.0307727,-0.68684274,0.42068183,0.6684444,-0.6116372,-0.4136471,0.52360505,-0.45453262,0.40933183,-0.4696191,-0.7312073,0.023587542,-0.022163907,-0.04020845,-0.01648791,0.03394883,-0.031858955,-0.011670177,0.001628378,-0.021906925,-0.002530728,0.00091786357,-0.0614876,3.0,2.1052928,-3.0,3.0,1.4437636,-3.0,-3.0,0.61777526,-3.0,3.0,-0.59653753,-3.0,3.0,2.1510038,-3.0,3.0,1.3102455,-3.0,-3.0,0.60539967,-3.0,3.0,-0.68061286,-3.0
2025-06-05 17:22:13.816,0.045769718,-0.01802103,0.0019466492,0.14503708,0.11596479,-0.036658578,0.0,0.0,0.0,0.0,0.3962969,1.0509304,-0.6717897,0.41177642,0.68315905,-0.61814326,-0.4266168,0.5256767,-0.45586538,0.42727205,-0.46869943,-0.7321613,0.05206674,0.061707098,0.06628315,0.050264943,0.029404651,0.032765012,-0.020058768,-0.060466208,-0.040085904,-0.059753906,-0.035519484,0.068665825,3.0,2.1510038,-3.0,3.0,1.3102455,-3.0,-3.0,0.60539967,-3.0,3.0,-0.68061286,-3.0,3.0,1.737434,-3.0,3.0,1.2815802,-3.0,-3.0,0.6714762,-3.0,3.0,-0.67727274,-3.0
2025-06-05 17:22:13.836,0.0341829,0.024821565,-0.001374092,0.10089008,0.12488871,-0.041127276,0.0,0.0,0.0,0.0,0.39601108,1.0472181,-0.6775137,0.41923416,0.68847936,-0.6255844,-0.41772527,0.5295409,-0.46163404,0.41766903,-0.46313608,-0.7153059,0.052540973,0.05110932,0.043778148,0.069547325,0.01955505,-0.035541505,-0.001979446,0.021155113,0.07587604,0.02151295,-0.005344772,-0.014841616,3.0,1.737434,-3.0,3.0,1.2815802,-3.0,-3.0,0.6714762,-3.0,3.0,-0.67727274,-3.0,3.0,1.7165828,-3.0,3.0,1.4608985,-3.0,-3.0,0.66051596,-3.0,3.0,-0.7094503,-3.0
2025-06-05 17:22:13.860,-0.027815575,0.020856252,-0.010402921,0.079104275,0.06491892,0.044818882,0.0,0.0,0.0,0.0,0.3930521,1.043406,-0.6712133,0.4108869,0.6944681,-0.62828547,-0.41632462,0.5350906,-0.4702708,0.41157684,-0.47200415,-0.72380674,-0.0333492,-0.07599255,-0.03507863,0.053091053,-0.0008952793,-0.08289204,0.024209073,0.011504052,0.07812397,-0.0069535263,0.057360586,0.05199791,3.0,1.7165828,-3.0,3.0,1.4608985,-3.0,-3.0,0.66051596,-3.0,3.0,-0.7094503,-3.0,3.0,2.0696735,-3.0,3.0,1.3851948,-3.0,-3.0,0.60206765,-3.0,3.0,-0.7567634,-3.0
2025-06-05 17:22:13.877,-0.0025942083,-0.019616082,-0.0041666883,0.1641444,0.09003782,0.023146994,0.0,0.0,0.0,0.0,0.3889701,1.0444067,-0.6786144,0.42351863,0.68442297,-0.61496943,-0.4228579,0.5260066,-0.45941156,0.4249982,-0.46549922,-0.71445674,0.067298554,-0.033071447,-0.044099316,0.008937501,-0.018086487,0.06905962,0.041677997,-0.050392773,0.043998826,-0.007405218,0.040699214,0.020152086,3.0,2.0696735,-3.0,3.0,1.3851948,-3.0,-3.0,0.60206765,-3.0,3.0,-0.7567634,-3.0,3.0,1.825587,-3.0,3.0,1.3277252,-3.0,-3.0,0.62879854,-3.0,3.0,-0.71115404,-3.0
2025-06-05 17:22:13.897,-0.01723653,-0.022133926,-0.004510438,0.11079708,0.14810662,-0.03119658,0.0,0.0,0.0,0.0,0.3908735,1.0383718,-0.66601586,0.41930887,0.6829446,-0.6263933,-0.41971365,0.52274144,-0.4546766,0.42878562,-0.47809532,-0.7097057,0.046450138,-0.06431622,-0.03829718,-0.045808826,0.061654206,0.0010577656,0.05980544,0.022848774,-0.048358157,-0.050752833,0.06735117,-0.0010733905,3.0,1.825587,-3.0,3.0,1.3277252,-3.0,-3.0,0.62879854,-3.0,3.0,-0.71115404,-3.0,3.0,2.107272,-3.0,3.0,1.3145068,-3.0,-3.0,0.60956264,-3.0,3.0,-0.6048433,-3.0
2025-06-05 17:22:13.917,-0.0094831,0.013337909,0.038339574,0.075264454,0.07391747,-0.01839301,0.0,0.0,0.0,0.0,0.4048482,1.0514015,-0.6754788,0.42719835,0.6952148,-0.6244966,-0.42712986,0.531223,-0.44336617,0.4199001,-0.48042676,-0.72169536,0.05941127,-0.05082324,-0.056663144,-0.028690286,0.05324107,-0.0041946704,0.014319926,-0.06241341,0.005352127,0.06791634,0.041463155,-0.0014025553,3.0,2.107272,-3.0,3.0,1.3145068,-3.0,-3.0,0.60956264,-3.0,3.0,-0.6048433,-3.0,3.0,1.9279641,-3.0,3.0,1.5021861,-3.0,-3.0,0.5097959,-3.0,3.0,-0.57941073,-3.0
2025-06-05 17:22:13.937,0.047261517,-0.039292417,-0.008976581,0.0997296,0.11673965,0.0397818,0.0,0.0,0.0,0.0,0.3911399,1.0514673,-0.66734064,0.41078246,0.68468803,-0.630264,-0.4177983,0.52125823,-0.4527373,0.42864725,-0.46392363,-0.72027534,0.016334185,-0.016855085,-0.028039219,0.038957827,0.034918647,-0.04640264,-0.031278778,0.033517417,-0.059643887,0.021032687,-0.024076842,-0.018774621,3.0,1.9279641,-3.0,3.0,1.5021861,-3.0,-3.0,0.5097959,-3.0,3.0,-0.57941073,-3.0,3.0,2.0467317,-3.0,3.0,1.4034857,-3.0,-3.0,0.6584386,-3.0,3.0,-0.6962431,-3.0
2025-06-05 17:22:13.959,0.07157491,-0.005728821,-0.017969567,0.12537633,0.07438873,0.008201325,0.0,0.0,0.0,0.0,0.39639115,1.0439938,-0.6640885,0.41334948,0.70291275,-0.6278795,-0.41418815,0.53052026,-0.4418846,0.41360533,-0.45496982,-0.7208268,-0.05407099,0.07865705,-0.0543293,0.039849646,0.009427876,0.03960122,0.051916838,0.053600546,-0.0037410234,-0.030316133,-0.024401803,0.048485164,3.0,2.0467317,-3.0,3.0,1.4034857,-3.0,-3.0,0.6584386,-3.0,3.0,-0.6962431,-3.0,3.0,1.8374642,-3.0,3.0,1.1080636,-3.0,-3.0,0.66868216,-3.0,3.0,-0.82112235,-3.0
2025-06-05 17:22:13.977,-0.060702376,0.03997429,0.064653106,0.078203425,0.06964325,0.0054166075,0.0,0.0,0.0,0.0,0.3981845,1.044885,-0.68078876,0.41800833,0.6907473,-0.6244905,-0.42294273,0.533452,-0.44385684,0.4188631,-0.4685165,-0.7150576,0.009298127,0.01321165,0.003479423,-0.04428664,-0.06029326,0.07393052,-0.005506519,0.029693985,-0.008354624,-0.044779323,0.048780352,0.022628581,3.0,1.8374642,-3.0,3.0,1.1080636,-3.0,-3.0,0.66868216,-3.0,3.0,-0.82112235,-3.0,3.0,1.8342795,-3.0,3.0,1.3890456,-3.0,-3.0,0.40750033,-3.0,3.0,-0.5188293,-3.0
2025-06-05 17:22:13.997,-0.050126515,0.02190638,-0.017445281,0.13512385,0.09047974,0.012727885,0.0,0.0,0.0,0.0,0.39061162,1.0525309,-0.6720207,0.42111692,0.68811756,-0.6297981,-0.42759082,0.51687753,-0.4476378,0.41071066,-0.46527696,-0.72037905,0.049236838,-0.07173253,0.07678672,-0.018648053,-0.006550687,0.041113757,-0.013911459,-0.017878512,-0.050193295,-0.039167963,0.031457063,0.040613864,3.0,1.8342795,-3.0,3.0,1.3890456,-3.0,-3.0,0.40750033,-3.0,3.0,-0.5188293,-3.0,3.0,2.0639877,-3.0,3.0,1.3729895,-3.0,-3.0,0.67422885,-3.0,3.0,-0.69992214,-3.0
2025-06-05 17:22:14.018,0.042575058,0.015062847,0.00718868,0.1502886,0.1334108,-0.03602693,0.0,0.0,0.0,0.0,0.39638492,1.0601127,-0.67509174,0.42623708,0.68687195,-0.6259148,-0.4279326,0.5172262,-0.4362983,0.41080412,-0.4608917,-0.7251412,0.07479641,0.0067454,-0.06358786,0.0065214317,0.004353938,-0.06587902,-0.007447545,-0.06368217,0.030709231,-0.06340217,0.06070793,0.056021165,3.0,2.0639877,-3.0,3.0,1.3729895,-3.0,-3.0,0.67422885,-3.0,3.0,-0.69992214,-3.0,3.0,1.754396,-3.0,3.0,1.3384796,-3.0,-3.0,0.5599885,-3.0,3.0,-0.71828943,-3.0
2025-06-05 17:22:14.038,0.0083368085,-0.0010762264,0.036847994,0.118006945,0.06747617,-0.024140732,0.0,0.0,0.0,0.0,0.38858557,1.0430995,-0.6646603,0.42558724,0.70243365,-0.6260848,-0.4221821,0.5170955,-0.44170398,0.42430907,-0.4748306,-0.7284454,-0.06019514,0.0308844,0.0379041,0.0017643952,0.026955903,-0.021047592,0.07380109,0.0025666694,0.019173468,0.03249148,0.045330487,0.010488855,3.0,1.754396,-3.0,3.0,1.3384796,-3.0,-3.0,0.5599885,-3.0,3.0,-0.71828943,-3.0,3.0,1.8253932,-3.0,3.0,1.5033478,-3.0,-3.0,0.55683774,-3.0,3.0,-0.54467386,-3.0
2025-06-05 17:22:14.059,0.01922243,-0.0066157826,0.0074841753,0.11047088,0.09851137,-0.015193572,0.0,0.0,0.0,0.0,0.3910267,1.0490593,-0.66280055,0.42529407,0.6916152,-0.62562597,-0.42318863,0.52222645,-0.43844423,0.4247512,-0.46186244,-0.7221216,-0.013641605,0.054769788,0.05725948,-0.061332323,0.030645402,0.053885728,-0.02157782,-0.011623395,0.025038734,-0.029576952,-0.014701883,-0.0048129354,3.0,1.8253932,-3.0,3.0,1.5033478,-3.0,-3.0,0.55683774,-3.0,3.0,-0.54467386,-3.0,3.0,1.8277001,-3.0,3.0,1.4567219,-3.0,-3.0,0.62318397,-3.0,3.0,-0.6429432,-3.0
2025-06-05 17:22:14.077,0.028040668,0.036759578,0.017782202,0.122667365,0.15379263,-0.002337023,0.0,0.0,0.0,0.0,0.39907745,1.050231,-0.6647023,0.41246912,0.6946744,-0.6307124,-0.42677194,0.5191055,-0.43858013,0.42612487,-0.46488833,-0.7290211,-0.012966878,-0.016768731,0.004743325,-0.045566294,-0.070848435,0.04643795,-0.04402965,-0.045617722,-0.03569201,0.024502315,0.05614879,0.014965353,3.0,1.8277001,-3.0,3.0,1.4567219,-3.0,-3.0,0.62318397,-3.0,3.0,-0.6429432,-3.0,3.0,1.800455,-3.0,3.0,1.3651198,-3.0,-3.0,0.60259485,-3.0,3.0,-0.64612716,-3.0
2025-06-05 17:22:14.098,0.026782017,0.013143546,-0.020260422,0.090655506,0.1335226,-0.012995699,0.0,0.0,0.0,0.0,0.38595927,1.0476172,-0.670196,0.42165092,0.6961884,-0.636742,-0.42777568,0.51940966,-0.45199287,0.42373034,-0.45991775,-0.72402644,-0.06621684,-0.07906753,0.039296567,-0.02052389,-0.06452052,0.04734901,0.05093262,-0.048490345,-0.0012104823,0.015414556,0.069706164,-0.032299995,3.0,1.800455,-3.0,3.0,1.3651198,-3.0,-3.0,0.60259485,-3.0,3.0,-0.64612716,-3.0,3.0,2.0295994,-3.0,3.0,1.2703243,-3.0,-3.0,0.6933623,-3.0,3.0,-0.67189544,-3.0
2025-06-05 17:22:14.118,-0.03864148,0.010678682,-0.03736448,0.096852005,0.11359377,-0.04941466,0.0,0.0,0.0,0.0,0.39637327,1.0478739,-0.6628624,0.4263727,0.68762976,-0.63932145,-0.4287736,0.53085697,-0.43989334,0.41977417,-0.46200997,-0.73758686,0.0130138025,0.01898657,-0.041525908,0.039001733,0.026884275,0.046640813,0.051455405,0.0001659994,0.06196046,0.031482644,-0.07463397,0.06945615,3.0,2.0295994,-3.0,3.0,1.2703243,-3.0,-3.0,0.6933623,-3.0,3.0,-0.67189544,-3.0,3.0,1.9328272,-3.0,3.0,1.1178533,-3.0,-3.0,0.6989413,-3.0,3.0,-0.81224555,-3.0
2025-06-05 17:22:14.138,-0.038752306,-0.04877399,0.005484681,0.12423425,0.09382081,0.010002385,0.0,0.0,0.0,0.0,0.3976934,1.0467442,-0.65874106,0.41456276,0.6903274,-0.6359991,-0.42877966,0.5259364,-0.44535184,0.414335,-0.46911088,-0.73619926,0.018532796,0.024332143,-0.010028886,-0.0464418,-0.020844433,0.057846032,-0.03988161,-0.06437866,-0.066031,0.02946335,-0.013192965,0.023315385,3.0,1.9328272,-3.0,3.0,1.1178533,-3.0,-3.0,0.6989413,-3.0,3.0,-0.81224555,-3.0,3.0,1.7618953,-3.0,3.0,1.1418381,-3.0,-3.0,0.7112524,-3.0,3.0,-0.6885248,-3.0
2025-06-05 17:22:14.159,-0.043698974,-0.06320453,0.0004232496,0.09477442,0.14155582,0.008035489,0.0,0.0,0.0,0.0,0.40490463,1.0474458,-0.67703354,0.4313719,0.68734556,-0.6191261,-0.4272692,0.5156626,-0.46112534,0.41084513,-0.4789465,-0.7343718,-0.061223317,-0.06906775,0.03275616,-0.04589494,-0.0450448,0.019440548,0.0038129175,-0.039872147,0.058408834,0.05735009,0.010579501,0.0070413915,3.0,1.7618953,-3.0,3.0,1.1418381,-3.0,-3.0,0.7112524,-3.0,3.0,-0.6885248,-3.0,3.0,1.9604806,-3.0,3.0,1.2967947,-3.0,-3.0,0.6578352,-3.0,3.0,-0.64975995,-3.0
2025-06-05 17:22:14.178,-0.00876045,-0.06859821,-0.0002014884,0.11423181,0.06333604,0.024029134,0.0,0.0,0.0,0.0,0.40053806,1.025912,-0.6765573,0.4158298,0.67559683,-0.62841445,-0.42823735,0.5249151,-0.45305452,0.40941784,-0.47158054,-0.7332115,-0.04660583,-0.023257628,-0.055818,0.0067231595,-0.033349995,0.029187853,-0.01584444,-0.056653887,-0.021521227,-0.0010711285,-0.06850695,-0.022923624,3.0,1.9604806,-3.0,3.0,1.2967947,-3.0,-3.0,0.6578352,-3.0,3.0,-0.64975995,-3.0,3.0,2.0606182,-3.0,3.0,1.1880424,-3.0,-3.0,0.6503464,-3.0,3.0,-0.6493971,-3.0
2025-06-05 17:22:14.200,-0.050471097,-0.036029354,0.042391527,0.118123055,0.09580465,0.03646942,0.0,0.0,0.0,0.0,0.39004835,1.0413258,-0.68088025,0.41941974,0.6792027,-0.60955083,-0.43018842,0.51726216,-0.45568043,0.41738394,-0.4738915,-0.72936165,0.04909526,0.045167442,-0.0063997163,-0.053616244,0.05383004,0.046242643,-0.06649295,0.044164337,0.012258672,0.044447318,-0.07615124,0.043684166,3.0,2.0606182,-3.0,3.0,1.1880424,-3.0,-3.0,0.6503464,-3.0,3.0,-0.6493971,-3.0,3.0,1.829655,-3.0,3.0,1.4664563,-3.0,-3.0,0.48648822,-3.0,3.0,-0.58863825,-3.0
2025-06-05 17:22:14.218,-0.038975228,-0.003986562,0.007307645,0.12683848,0.15837826,0.047729764,0.0,0.0,0.0,0.0,0.38689697,1.0401886,-0.66320986,0.4250586,0.67821664,-0.6232929,-0.43184018,0.5076599,-0.4661623,0.4117756,-0.4673773,-0.72769964,0.015183599,-0.05524547,0.07583619,0.06612458,0.018670676,0.06998196,-0.030263921,0.070078686,0.061204433,-0.039394915,0.07821347,-0.078911506,3.0,1.829655,-3.0,3.0,1.4664563,-3.0,-3.0,0.48648822,-3.0,3.0,-0.58863825,-3.0,3.0,1.9308003,-3.0,3.0,1.6054054,-3.0,-3.0,0.5372773,-3.0,3.0,-0.5934549,-3.0
2025-06-05 17:22:14.238,-0.013934168,0.013589649,-0.0062329383,0.07450734,0.11382635,-0.005049513,0.0,0.0,0.0,0.0,0.387817,1.0330422,-0.6669249,0.41687605,0.68774956,-0.61714137,-0.42218196,0.513364,-0.4518061,0.4102413,-0.46823537,-0.72270715,-0.06076025,-0.040138308,0.05003356,0.009580851,0.013744872,-0.027152725,-0.07033998,-0.048459735,0.020578748,0.055357095,0.032745034,0.025404282,3.0,1.9308003,-3.0,3.0,1.6054054,-3.0,-3.0,0.5372773,-3.0,3.0,-0.5934549,-3.0,3.0,1.9769672,-3.0,3.0,1.456224,-3.0,-3.0,0.64010715,-3.0,3.0,-0.71093637,-3.0
2025-06-05 17:22:14.259,0.057183944,-0.015974995,-0.03757971,0.07200786,0.16067602,-0.004415808,0.0,0.0,0.0,0.0,0.37949294,1.0426849,-0.659394,0.42190108,0.686265,-0.62360203,-0.43159992,0.51505333,-0.46668833,0.41406232,-0.47392496,-0.72828484,0.068474494,0.014699005,-0.07267948,0.061981935,-0.05191276,0.018397307,-0.016578527,0.08097267,-0.021635156,-0.03249781,0.069518805,0.013551687,3.0,1.9769672,-3.0,3.0,1.456224,-3.0,-3.0,0.64010715,-3.0,3.0,-0.71093637,-3.0,3.0,1.9369324,-3.0,3.0,1.1208309,-3.0,-3.0,0.71411526,-3.0,3.0,-0.8381085,-3.0
2025-06-05 17:22:14.279,-0.046583664,0.008648663,-0.019848963,0.07787602,0.11354118,0.028854825,0.0,0.0,0.0,0.0,0.39769694,1.0427437,-0.6655872,0.42351213,0.69583863,-0.6264216,-0.41786548,0.5246166,-0.46133894,0.42571107,-0.46876562,-0.7266466,-0.0038644958,-0.068580665,-0.07644153,-0.011628843,-0.071632095,-0.0715775,-0.057814542,-0.056233417,-0.003408001,0.06452601,-0.03155742,0.08581891,3.0,1.9369324,-3.0,3.0,1.1208309,-3.0,-3.0,0.71411526,-3.0,3.0,-0.8381085,-3.0,3.0,1.9881362,-3.0,3.0,1.1251067,-3.0,-3.0,0.71878284,-3.0,3.0,-0.79586905,-3.0
2025-06-05 17:22:14.298,-0.03158338,0.013781398,0.050742254,0.0897614,0.13254854,-0.046933584,0.0,0.0,0.0,0.0,0.38698733,1.0331562,-0.67893636,0.42361036,0.680175,-0.61463445,-0.42758968,0.52746415,-0.47112083,0.41840538,-0.4826984,-0.72072315,-0.03759865,-0.005065927,-0.062340483,0.054207485,-0.012468094,-0.06322505,-0.07389257,0.04666294,0.025854483,0.036483653,-0.058397423,0.0263035,3.0,1.9881362,-3.0,3.0,1.1251067,-3.0,-3.0,0.71878284,-3.0,3.0,-0.79586905,-3.0,3.0,1.9141976,-3.0,3.0,1.3991851,-3.0,-3.0,0.45348495,-3.0,3.0,-0.55705494,-3.0
2025-06-05 17:22:14.318,-0.02271249,-0.029691264,-0.03120674,0.1440352,0.098473914,-0.03575947,0.0,0.0,0.0,0.0,0.3830137,1.0352502,-0.6802441,0.42037126,0.6864216,-0.6198923,-0.42373616,0.512049,-0.4728612,0.41309097,-0.48485467,-0.72789884,-0.0009939967,-0.016529018,0.05388633,-0.051158722,-0.030388286,0.0030597234,0.0070724497,0.05034304,-0.05099574,-0.05127915,-0.067457385,-0.05855527,3.0,1.9141976,-3.0,3.0,1.3991851,-3.0,-3.0,0.45348495,-3.0,3.0,-0.55705494,-3.0,3.0,2.2270868,-3.0,3.0,1.2629913,-3.0,-3.0,0.73119086,-3.0,3.0,-0.63929194,-3.0
2025-06-05 17:22:14.339,0.06619842,-0.009410104,-0.05195174,0.17012267,0.16458061,0.045972742,0.0,0.0,0.0,0.0,0.393548,1.0409924,-0.6686761,0.42545703,0.69238013,-0.6091228,-0.41345993,0.5107631,-0.4756953,0.41614518,-0.49327794,-0.71394235,-0.0054565775,0.04675164,0.01009729,-0.03925826,-0.058576096,0.006572641,0.015603428,0.058114544,-0.032490313,0.013897899,0.06040539,0.048393093,3.0,2.2270868,-3.0,3.0,1.2629913,-3.0,-3.0,0.73119086,-3.0,3.0,-0.63929194,-3.0,3.0,1.8600215,-3.0,3.0,0.98178935,-3.0,-3.0,0.76044774,-3.0,3.0,-0.9432997,-3.0
2025-06-05 17:22:14.359,-0.019752389,-0.06281462,0.05409283,0.12795062,0.16289984,-0.014655903,0.0,0.0,0.0,0.0,0.3796172,1.0304393,-0.6696512,0.42105204,0.676887,-0.6121804,-0.42127526,0.5267257,-0.48139566,0.41501138,-0.49972194,-0.7185802,-0.032445088,-0.052971,0.06135573,0.056599118,-0.0554211,0.058126822,0.034154665,-0.013661998,0.067982756,0.031646747,-0.072073616,0.021465266,3.0,1.8600215,-3.0,3.0,0.98178935,-3.0,-3.0,0.76044774,-3.0,3.0,-0.9432997,-3.0,3.0,1.7953049,-3.0,3.0,1.4531597,-3.0,-3.0,0.5632007,-3.0,3.0,-0.42098293,-3.0
2025-06-05 17:22:14.379,0.030004416,0.040236637,-0.012379393,0.16884401,0.1219936,0.00047202135,0.0,0.0,0.0,0.0,0.39229605,1.0395015,-0.6801117,0.42814577,0.6938232,-0.6052096,-0.42614123,0.51130086,-0.47815567,0.41451973,-0.49368945,-0.7291165,-0.044382855,-0.028414115,0.07469958,0.04746175,0.0750914,0.008669344,0.07091698,0.049230892,0.06779956,0.04805339,0.07435139,0.019561676,3.0,1.7953049,-3.0,3.0,1.4531597,-3.0,-3.0,0.5632007,-3.0,3.0,-0.42098293,-3.0,3.0,1.9735801,-3.0,3.0,1.4926009,-3.0,-3.0,0.609932,-3.0,3.0,-0.70224196,-3.0
