openverse-orca/OrcaGym/log/simulation_log_20250604_115320.csv
timestamp,imu_angle_roll,imu_angle_pitch,imu_angle_yaw,imu_angular_velocity_roll,imu_angular_velocity_pitch,imu_angular_velocity_yaw,imu_acc_x,imu_acc_y,imu_acc_z,fl_joint1_pos,fl_joint1_vel,fl_joint1_torque,fl_joint2_pos,fl_joint2_vel,fl_joint2_torque,fl_joint3_pos,fl_joint3_vel,fl_joint3_torque,fr_joint1_pos,fr_joint1_vel,fr_joint1_torque,fr_joint2_pos,fr_joint2_vel,fr_joint2_torque,fr_joint3_pos,fr_joint3_vel,fr_joint3_torque,hl_joint1_pos,hl_joint1_vel,hl_joint1_torque,hl_joint2_pos,hl_joint2_vel,hl_joint2_torque,hl_joint3_pos,hl_joint3_vel,hl_joint3_torque,hr_joint1_pos,hr_joint1_vel,hr_joint1_torque,hr_joint2_pos,hr_joint2_vel,hr_joint2_torque,hr_joint3_pos,hr_joint3_vel,hr_joint3_torque,fl_force_x,fl_force_y,fl_force_z,fr_force_x,fr_force_y,fr_force_z,hl_force_x,hl_force_y,hl_force_z,hr_force_x,hr_force_y,hr_force_z,fl_hip_action,fl_thigh_action,fl_calf_action,fr_hip_action,fr_thigh_action,fr_calf_action,hl_hip_action,hl_thigh_action,hl_calf_action,hr_hip_action,hr_thigh_action,hr_calf_action
2025-06-04 11:53:20.742,-0.015252537,-0.020399401,-0.012084197,-0.0036500397,0.035226107,-0.011631211,0.0,0.0,0.0,0.0,-0.0049207113,0.0017857832,-0.009447792,0.0097666895,0.00018911065,0.0030994758,0.005193599,-0.0093979,0.0023561784,-0.008332088,-0.004833001,-0.0013628983,0.068600774,-0.059858955,0.065547824,-0.06255578,-0.06972693,-0.06304474,0.06294072,-0.003626352,0.06501506,-0.07385316,-0.03437164,0.036249682,0.0,0.0,0.0,0.0,0.0,0.0,0.0,0.0,0.0,0.0,0.0,0.0,-1.0,1.0,-1.0,-1.0,-1.0,-1.0,-1.0,-1.0,-1.0,1.0,-1.0,1.0
2025-06-04 11:53:20.745,0.08761219,0.1944572,0.023644093,0.011829445,-0.013562468,-0.032424096,0.0,0.0,0.0,0.0,-0.012888476,0.070147105,-0.050398152,-0.009623302,-0.05845084,-0.034917943,-0.012297993,-0.057925884,-0.042710837,0.020698393,-0.0628466,0.04027879,-0.05576575,0.23233287,-0.10659979,-0.05610393,-0.17108767,-0.17549948,-0.0983922,-0.14635861,-0.104032256,0.019894868,-0.21221864,0.08817121,-1.0,1.0,-1.0,-1.0,-1.0,-1.0,-1.0,-1.0,-1.0,1.0,-1.0,1.0,-1.0,1.0,1.0,-1.0,1.0,-1.0,-1.0,-1.0,-1.0,1.0,-1.0,1.0
2025-06-04 11:53:20.770,0.13717084,-0.018364409,-0.022239337,-0.008268663,-0.028720705,-0.02942248,0.0,0.0,0.0,-0.0004506464,-0.040877406,0.1229245,0.0070357677,-0.020549497,-0.020767141,-0.0764688,-0.033081707,-0.14362507,-0.07646277,0.03427072,-0.13842365,0.0876258,-0.00071337837,0.14085145,0.13070539,0.022213144,0.14252003,-0.008903746,-0.0284272,-0.12842257,-0.12765193,0.013079538,-0.17510125,0.064980865,-1.0,1.0,1.0,-1.0,1.0,-1.0,-1.0,-1.0,-1.0,1.0,-1.0,1.0,-1.0,1.0,-1.0,-1.0,1.0,-1.0,-1.0,-1.0,-1.0,1.0,-1.0,1.0
2025-06-04 11:53:20.786,0.21757591,-0.16737285,-0.038608715,-0.025468852,0.04450163,0.020800691,0.0,0.0,0.0,-0.00038955157,-0.03578113,0.19514678,-0.04404787,-0.03053433,0.01414742,-0.08513014,-0.041479025,-0.1919197,-0.07688636,0.035747383,-0.19878446,0.11625218,0.0025585152,0.15519124,-0.07035041,-0.003339339,0.005524137,0.04590111,0.005530891,-0.11094744,0.06453666,0.026881011,-0.095672324,0.008856439,-1.0,1.0,-1.0,-1.0,1.0,-1.0,-1.0,-1.0,-1.0,1.0,-1.0,1.0,-1.0,1.0,-1.0,-1.0,-1.0,-1.0,-1.0,-1.0,-1.0,1.0,-1.0,1.0
2025-06-04 11:53:20.807,0.09639963,0.14144082,0.031068698,0.023669919,0.02083988,0.018719211,0.0,0.0,0.0,0.0008060061,-0.05112681,0.23861231,-0.056871522,-0.041120797,-0.030345518,-0.07092257,-0.05821103,-0.23213802,-0.048403107,0.043112297,-0.24663597,0.14482825,-0.060483217,0.112715974,0.023122713,0.018522138,-0.09669313,0.13002704,-0.09765143,-0.14826491,0.048492678,-0.027036002,-0.099029094,0.044073567,-1.0,1.0,-1.0,-1.0,-1.0,-1.0,-1.0,-1.0,-1.0,1.0,-1.0,1.0,-1.0,1.0,-1.0,-1.0,1.0,-1.0,-1.0,-1.0,-1.0,1.0,-1.0,1.0
2025-06-04 11:53:20.827,0.1900647,-0.0067640347,0.003900675,0.009754563,0.0110422205,-0.047736034,0.0,0.0,0.0,0.0003619413,-0.06413197,0.25162384,-0.08916351,-0.04397051,-0.038477656,-0.06044374,-0.06514865,-0.25958446,-0.02590247,0.046502054,-0.28304794,0.16523503,-0.09449139,0.037438422,-0.025032574,-0.00888589,-0.029348996,0.027266,-0.08432082,-0.065784045,0.013737869,-0.06008443,-0.1463073,-0.020130178,-1.0,1.0,-1.0,-1.0,1.0,-1.0,-1.0,-1.0,-1.0,1.0,-1.0,1.0,-1.0,1.0,-1.0,-1.0,-1.0,-1.0,-1.0,-1.0,-1.0,1.0,-1.0,1.0
2025-06-04 11:53:20.847,0.12243782,0.23085564,0.022678915,-0.009762775,0.096449606,-0.00906738,0.0,0.0,0.0,-0.0006980456,-0.07098152,0.26133034,-0.108471304,-0.035330564,-0.08057777,-0.06270584,-0.09175333,-0.2766921,-0.0120106265,0.056724776,-0.3162028,0.17142877,0.043659966,0.12253766,-0.012397193,0.023102155,-0.17612886,-2.2474691e-05,-0.035993237,-0.008536267,0.056076303,0.07646184,-0.094190404,0.05416726,-1.0,1.0,-1.0,-1.0,-1.0,-1.0,-1.0,-1.0,-1.0,1.0,-1.0,1.0,-1.0,1.0,-1.0,-1.0,1.0,-1.0,-1.0,-1.0,-1.0,1.0,-1.0,1.0
2025-06-04 11:53:20.870,0.01294912,0.17501983,-0.032986004,-0.0070148273,0.1131334,-0.0030090671,0.0,0.0,0.0,-0.0019710746,-0.07369894,0.29166427,-0.12288109,-0.046620898,-0.019265313,-0.103940554,-0.08886002,-0.28739706,-0.017095821,0.06203056,-0.33414555,0.1955317,0.03487732,0.04282906,0.0055209,-0.033020332,0.16815981,-0.047243316,0.050082326,-0.086654805,0.044069845,0.005468357,-0.008373622,0.10792559,-1.0,1.0,-1.0,-1.0,1.0,-1.0,-1.0,-1.0,-1.0,1.0,-1.0,1.0,-1.0,1.0,-1.0,-1.0,1.0,-1.0,-1.0,-1.0,-1.0,1.0,-1.0,1.0
2025-06-04 11:53:20.887,0.12119304,0.14323272,-0.09242348,-0.08114624,0.067425035,-0.008503271,0.0,0.0,0.0,-0.0025094936,-0.08522496,0.3258745,-0.14172448,-0.042577103,0.03759717,-0.11973592,-0.09660935,-0.2921791,-0.021293381,0.059381727,-0.37277225,0.20131521,0.012302936,0.039108045,-0.119855575,-0.022869015,0.07323254,-0.013259622,-0.08618715,0.021101534,-0.03788041,0.03371234,-0.09262403,0.031141605,-1.0,1.0,-1.0,-1.0,1.0,-1.0,-1.0,-1.0,-1.0,1.0,-1.0,1.0,-1.0,1.0,-1.0,-1.0,-1.0,-1.0,-1.0,-1.0,-1.0,1.0,-1.0,1.0
2025-06-04 11:53:20.908,0.11391742,0.17737983,-0.062664926,-0.042057987,0.044920035,-0.03707575,0.0,0.0,0.0,-0.0012867594,-0.07569903,0.36236322,-0.17436364,-0.048551746,-0.01940283,-0.12755856,-0.10539946,-0.32027644,-0.015793381,0.07027972,-0.38271293,0.22031623,0.001121898,0.100721344,-0.11538392,0.004556133,-0.1616855,-0.052483793,-0.04549889,-0.12540507,0.044181596,0.06503717,-0.044824846,0.005122506,-1.0,1.0,-1.0,-1.0,-1.0,-1.0,-1.0,-1.0,-1.0,1.0,-1.0,1.0,-1.0,1.0,-1.0,-1.0,-1.0,-1.0,-1.0,-1.0,-1.0,1.0,-1.0,1.0
2025-06-04 11:53:20.927,0.014034286,0.20318343,-0.05000651,-0.06882168,0.08449505,0.043058284,0.0,0.0,0.0,-0.00019412671,-0.08287885,0.37903994,-0.18387781,-0.045151692,-0.08741407,-0.11904418,-0.103736855,-0.33933645,-0.012756365,0.0758123,-0.39452162,0.22856882,0.02851367,0.05119521,0.005834038,-0.00788756,-0.12985703,0.05572814,0.036557786,-0.0065286076,0.0629053,0.016875867,-0.05603799,-0.04450955,-1.0,1.0,-1.0,-1.0,-1.0,-1.0,-1.0,-1.0,-1.0,1.0,-1.0,1.0,-1.0,1.0,-1.0,-1.0,-1.0,-1.0,-1.0,-1.0,-1.0,1.0,-1.0,1.0
2025-06-04 11:53:20.947,-0.06349152,0.2619711,-0.007013178,-0.099483185,0.09789327,-0.03838297,0.0,0.0,0.0,9.472821e-05,-0.08091007,0.38776684,-0.19797102,-0.05992366,-0.123195976,-0.1213289,-0.10708633,-0.3589021,-0.004099777,0.07702575,-0.41870558,0.23344123,-0.03802537,0.03626835,-0.105892375,-0.026667185,-0.17996761,0.03540119,0.041994385,-0.0017393372,0.0093327705,0.080812335,0.0412808,0.08185068,-1.0,1.0,-1.0,-1.0,-1.0,-1.0,-1.0,-1.0,-1.0,1.0,-1.0,1.0,-1.0,1.0,-1.0,-1.0,1.0,-1.0,-1.0,-1.0,-1.0,1.0,-1.0,1.0
2025-06-04 11:53:20.970,0.03320481,0.034511104,-0.041656785,-0.094807886,0.08690423,-0.012269132,0.0,0.0,0.0,-0.0007200159,-0.085842215,0.41403237,-0.21280709,-0.04681183,-0.13376154,-0.13042061,-0.12211272,-0.36793163,-0.018697523,0.07249876,-0.42709228,0.2273946,-0.07226673,0.11053008,-0.03268236,-0.073401876,0.0527812,-0.0023607095,-0.039659165,0.015916348,-0.08237399,-0.05146378,-0.005832112,0.008594163,-1.0,1.0,-1.0,-1.0,1.0,-1.0,-1.0,-1.0,-1.0,1.0,-1.0,1.0,-1.0,1.0,-1.0,-1.0,-1.0,-1.0,-1.0,-1.0,-1.0,1.0,-1.0,1.0
2025-06-04 11:53:20.987,0.009569778,0.1305732,-0.0149988355,-0.06698096,0.10777543,0.047401544,0.0,0.0,0.0,-0.00043141804,-0.077228986,0.42749426,-0.2312016,-0.06160324,-0.17430454,-0.12995122,-0.13710615,-0.38466772,-0.0133119365,0.08865088,-0.42395988,0.23477024,0.03507157,0.06396615,0.0027564142,-0.0014327507,-0.13068053,-0.038674824,-0.055868898,-0.08405888,0.014264893,-0.05722994,-0.07146667,0.08325617,-1.0,1.0,-1.0,-1.0,-1.0,-1.0,-1.0,-1.0,-1.0,1.0,-1.0,1.0,-1.0,1.0,-1.0,-1.0,-1.0,-1.0,-1.0,-1.0,-1.0,1.0,-1.0,1.0
2025-06-04 11:53:21.008,-0.05289499,0.16502434,0.03652195,-0.14421757,0.107731804,-0.013480379,0.0,0.0,0.0,0.0002898736,-0.09053203,0.43925008,-0.22498456,-0.058099005,-0.21249083,-0.12066337,-0.13208231,-0.39367935,-0.024831116,0.07919707,-0.44071928,0.24655345,-0.057286616,0.07900399,-0.02968284,-0.03657853,-0.16017084,-0.033215754,-0.07256846,-0.01453667,-0.086385086,-0.013219203,0.034033127,0.02878492,-1.0,1.0,-1.0,-1.0,-1.0,-1.0,-1.0,-1.0,-1.0,1.0,-1.0,1.0,-1.0,1.0,-1.0,-1.0,1.0,-1.0,-1.0,-1.0,-1.0,1.0,-1.0,1.0
2025-06-04 11:53:21.027,0.012113753,-0.022057291,-0.076296635,-0.112048805,0.09684587,0.006039382,0.0,0.0,0.0,0.00050412246,-0.080730416,0.44090283,-0.24161042,-0.0766825,-0.20997326,-0.1273439,-0.14474843,-0.4074706,-0.047009062,0.07577497,-0.44123742,0.24181058,0.040605184,0.053987667,0.059609164,-0.022927016,-0.043024383,-0.097475134,-0.08154583,-0.070222184,0.002754125,-0.041973915,0.009354227,0.02036818,-1.0,1.0,-1.0,-1.0,1.0,-1.0,-1.0,-1.0,-1.0,1.0,-1.0,1.0,-1.0,1.0,-1.0,-1.0,-1.0,-1.0,-1.0,-1.0,-1.0,1.0,-1.0,1.0
2025-06-04 11:53:21.048,-0.04625381,0.09074452,-0.08364892,-0.120704934,0.0648699,-0.04134668,0.0,0.0,0.0,0.0019576838,-0.086670585,0.44341177,-0.23366976,-0.08258415,-0.24233563,-0.12211863,-0.14459147,-0.41905552,-0.03929637,0.07825458,-0.44736114,0.24139662,0.018040847,0.07159247,0.001391119,-0.07310375,0.0046814075,0.083503775,-0.045283448,-0.027027117,-0.04737056,0.05363316,-0.024237871,-0.055598665,-1.0,1.0,-1.0,-1.0,-1.0,-1.0,-1.0,-1.0,-1.0,1.0,-1.0,1.0,-1.0,1.0,1.0,-1.0,-1.0,-1.0,-1.0,-1.0,-1.0,1.0,-1.0,1.0
2025-06-04 11:53:21.070,-0.097179316,0.13896213,-0.05822066,-0.1823192,0.048179105,-0.011761448,0.0,0.0,0.0,0.003769115,-0.08006823,0.45474526,-0.176334,-0.07050455,-0.25508755,-0.11789699,-0.14727286,-0.4162073,-0.062342696,0.07949501,-0.45744857,0.25531992,0.034730002,0.011413304,0.22712308,-0.031291585,-0.13619854,-0.022747327,-0.011413377,-0.059743054,-0.089628845,-0.060013246,-0.07815304,-0.0659095,-1.0,1.0,1.0,-1.0,-1.0,-1.0,-1.0,-1.0,-1.0,1.0,-1.0,1.0,-1.0,1.0,1.0,-1.0,-1.0,-1.0,-1.0,-1.0,-1.0,1.0,-1.0,1.0
2025-06-04 11:53:21.090,-0.06779455,0.17192943,0.04577463,-0.14085151,0.08489063,-0.014767822,0.0,0.0,0.0,0.0045163403,-0.073525876,0.46409157,-0.090536594,-0.080125526,-0.29837707,-0.10244333,-0.14208128,-0.438231,-0.062417425,0.09823382,-0.46286765,0.2490274,-0.010827584,-0.004076511,0.20266218,-0.006244725,-0.09986921,0.02234279,0.021010878,-0.0845701,-0.02172602,0.07412486,-0.035054117,0.020382417,-1.0,1.0,1.0,-1.0,-1.0,-1.0,-1.0,-1.0,-1.0,1.0,-1.0,1.0,-1.0,1.0,-1.0,-1.0,1.0,-1.0,-1.0,-1.0,-1.0,1.0,-1.0,1.0
2025-06-04 11:53:21.108,0.0051474436,-0.0457466,-0.116861284,-0.15457496,0.042123895,0.002161944,0.0,0.0,0.0,0.0041378727,-0.0872515,0.45850897,-0.11209002,-0.076828554,-0.30172333,-0.1167279,-0.1577875,-0.4425038,-0.07759643,0.07451181,-0.44671726,0.25019762,0.026008548,-0.04330079,-0.11924019,0.037310507,0.04010261,-0.010306302,-0.048888452,-0.060294207,0.011069232,-0.047416043,0.03703945,0.07366323,-1.0,1.0,-1.0,-1.0,1.0,-1.0,-1.0,-1.0,-1.0,1.0,-1.0,1.0,-1.0,1.0,-1.0,-1.0,-1.0,-1.0,-1.0,-1.0,-1.0,1.0,-1.0,1.0
2025-06-04 11:53:21.129,-0.056209605,0.07180757,-0.048112035,-0.14474684,0.117334366,-0.029666979,0.0,0.0,0.0,0.0047114682,-0.07974765,0.46055415,-0.139025,-0.08852939,-0.3126254,-0.119860604,-0.15989582,-0.4504614,-0.09635784,0.088053115,-0.4664495,0.26412237,-0.0062413956,-0.017837329,-0.13001388,-0.01932996,-0.09090582,0.044617288,-0.05308458,0.0076188403,-0.1022442,-0.0156101715,0.005805498,0.02696512,-1.0,1.0,-1.0,-1.0,-1.0,-1.0,-1.0,-1.0,-1.0,1.0,-1.0,1.0,-1.0,1.0,-1.0,-1.0,-1.0,-1.0,-1.0,-1.0,-1.0,1.0,-1.0,1.0
2025-06-04 11:53:21.148,-0.0983598,0.12894885,-0.0029258176,-0.19457786,0.100285,0.019404454,0.0,0.0,0.0,0.005818179,-0.08443239,0.47299376,-0.16506521,-0.08689943,-0.34388584,-0.12318082,-0.14817043,-0.46552816,-0.09616941,0.08841485,-0.46357837,0.25487232,0.022717902,0.049380697,-0.0077875527,0.026763426,-0.07649469,0.07794267,0.033117577,0.021619264,-0.012913084,-0.05129591,-0.0518221,0.059591614,-1.0,1.0,-1.0,-1.0,-1.0,-1.0,-1.0,-1.0,-1.0,1.0,-1.0,1.0,-1.0,1.0,-1.0,-1.0,-1.0,-1.0,-1.0,-1.0,-1.0,1.0,-1.0,1.0
2025-06-04 11:53:21.170,-0.045127388,0.19772844,0.024099391,-0.18819164,0.1056823,0.048296135,0.0,0.0,0.0,0.006138175,-0.08222616,0.4776321,-0.18616146,-0.09574941,-0.36138064,-0.107659705,-0.15536089,-0.47830707,-0.112144925,0.090152316,-0.46852922,0.24722187,0.020803878,0.07441646,-0.10726161,0.011023123,-0.07657292,0.093923196,0.03822366,-0.037514664,-0.044206895,-0.06548154,-0.037281387,-0.009394651,-1.0,1.0,-1.0,-1.0,-1.0,-1.0,-1.0,-1.0,-1.0,1.0,-1.0,1.0,-1.0,1.0,-1.0,-1.0,1.0,-1.0,-1.0,-1.0,-1.0,1.0,-1.0,1.0
2025-06-04 11:53:21.189,0.008526864,-0.15227243,-0.010630742,-0.13475966,0.09070943,0.013840987,0.0,0.0,0.0,0.0055579357,-0.07634975,0.47740918,-0.2054557,-0.092471585,-0.365273,-0.114454515,-0.1543053,-0.46653444,-0.12276974,0.07741363,-0.46902916,0.262219,-0.031620868,0.034234263,0.036942195,-0.07755544,0.095467344,-0.09593845,-0.04402631,0.03134206,-0.00887098,-0.026371973,-0.05850943,-0.053462863,-1.0,1.0,-1.0,-1.0,1.0,-1.0,-1.0,-1.0,-1.0,1.0,-1.0,1.0,-1.0,1.0,-1.0,-1.0,-1.0,-1.0,-1.0,-1.0,-1.0,1.0,-1.0,1.0
2025-06-04 11:53:21.208,0.0013946991,0.030001821,0.0037516132,-0.13563864,0.035701744,0.048589535,0.0,0.0,0.0,0.006131407,-0.08833177,0.48051232,-0.21090162,-0.0945516,-0.36419216,-0.12699485,-0.15911649,-0.48012653,-0.13892022,0.09336726,-0.45857665,0.2678176,-0.012196195,-0.064357206,0.032036744,-0.049857374,-0.036957026,-0.06014389,0.028414305,0.008051703,-0.096723415,-0.047276616,0.03899916,0.06325525,-1.0,1.0,-1.0,-1.0,-1.0,-1.0,-1.0,-1.0,-1.0,1.0,-1.0,1.0,-1.0,1.0,-1.0,-1.0,1.0,-1.0,-1.0,-1.0,-1.0,1.0,-1.0,1.0
2025-06-04 11:53:21.229,0.061971072,-0.22666094,-0.15362138,-0.2097234,0.108741134,0.0060818647,0.0,0.0,0.0,0.007398247,-0.09436712,0.47406882,-0.22000864,-0.111616544,-0.360004,-0.14239325,-0.16896315,-0.4838049,-0.14390497,0.086694025,-0.47174838,0.24917932,-0.014080026,-0.042900432,0.031058175,0.007971919,0.07267986,0.02774726,-0.003498758,-0.04220951,0.0021133486,0.025113268,0.011112099,0.054449033,-1.0,1.0,-1.0,-1.0,1.0,-1.0,-1.0,-1.0,-1.0,1.0,-1.0,1.0,-1.0,1.0,1.0,-1.0,-1.0,-1.0,-1.0,-1.0,-1.0,1.0,-1.0,1.0
2025-06-04 11:53:21.248,0.005767521,-0.1387396,-0.11236107,-0.18238534,0.09265084,0.01178885,0.0,0.0,0.0,0.009621041,-0.08601016,0.4842701,-0.14948137,-0.11968654,-0.36860412,-0.14410378,-0.15894791,-0.4788381,-0.152693,0.09554082,-0.45787156,0.2576574,0.0032164939,-0.040311277,0.23559846,0.008611099,-0.0435115,0.033700567,-0.024577625,-0.009983639,-0.0023042457,0.013283191,0.05418256,0.0577578,-1.0,1.0,1.0,-1.0,-1.0,-1.0,-1.0,-1.0,-1.0,1.0,-1.0,1.0,-1.0,1.0,1.0,-1.0,-1.0,-1.0,-1.0,-1.0,-1.0,1.0,-1.0,1.0
2025-06-04 11:53:21.270,-0.017013451,-0.10476254,-0.015372634,-0.14255692,0.044087082,0.045336097,0.0,0.0,0.0,0.0120972935,-0.08364385,0.48038524,-0.08789363,-0.117749214,-0.3770461,-0.14168115,-0.15320499,-0.47540876,-0.15390226,0.09401311,-0.47472262,0.26200363,-0.044121854,0.007130846,0.11864983,-0.061222024,-0.10032729,-0.008983591,0.058204047,0.021560438,0.044392575,0.0023268757,-0.05821058,-0.065265946,-1.0,1.0,1.0,-1.0,-1.0,-1.0,-1.0,-1.0,-1.0,1.0,-1.0,1.0,-1.0,1.0,1.0,-1.0,-1.0,-1.0,-1.0,-1.0,-1.0,1.0,-1.0,1.0
2025-06-04 11:53:21.289,0.016634896,-0.0053043296,0.016493136,-0.09010147,0.10325776,-0.032729283,0.0,0.0,0.0,0.0134890815,-0.08086828,0.48552933,-0.024721727,-0.12556484,-0.3864993,-0.1243951,-0.1476117,-0.48662254,-0.1689153,0.09788867,-0.46736357,0.25700307,0.07466677,0.007442899,0.17776641,0.049329024,0.01616273,0.09251668,-0.0034630306,-0.06042386,-0.06276757,0.047503628,0.0045401813,-0.06462897,-1.0,1.0,1.0,-1.0,-1.0,-1.0,-1.0,-1.0,-1.0,1.0,-1.0,1.0,-1.0,1.0,-1.0,-1.0,1.0,-1.0,-1.0,-1.0,-1.0,1.0,-1.0,1.0
2025-06-04 11:53:21.309,0.10329273,-0.30619442,-0.016306031,-0.09430129,0.074217185,-0.0018517048,0.0,0.0,0.0,0.013526522,-0.08569624,0.47302634,-0.04050995,-0.13314037,-0.39101496,-0.14435919,-0.16151641,-0.4930424,-0.15387478,0.08041295,-0.47272334,0.26287407,0.03487864,-0.010574706,-0.0689568,0.05202789,0.031133745,-0.066636056,4.91082e-05,-0.054433294,0.06129031,0.0059432792,0.030058479,-0.03466347,-1.0,1.0,-1.0,-1.0,1.0,-1.0,-1.0,-1.0,-1.0,1.0,-1.0,1.0,-1.0,1.0,-1.0,-1.0,-1.0,-1.0,-1.0,-1.0,-1.0,1.0,-1.0,1.0
2025-06-04 11:53:21.329,0.050569743,-0.12842043,0.010501671,-0.11603022,0.10384468,-0.009674871,0.0,0.0,0.0,0.014009852,-0.08147528,0.47859746,-0.08487372,-0.12255213,-0.39683336,-0.13588333,-0.14029847,-0.48383147,-0.1683778,0.07748762,-0.47702554,0.25488544,-0.0033568977,0.015421794,-0.06998745,-0.039514624,-0.0019967365,0.060095694,0.026603414,0.05428025,0.0072430028,0.026917454,-0.0029427246,0.0013395757,-1.0,1.0,-1.0,-1.0,-1.0,-1.0,-1.0,-1.0,-1.0,1.0,-1.0,1.0,-1.0,1.0,-1.0,-1.0,-1.0,-1.0,-1.0,-1.0,-1.0,1.0,-1.0,1.0
2025-06-04 11:53:21.348,0.012172002,-0.13070494,0.004695888,-0.05733283,0.051565208,-0.025999412,0.0,0.0,0.0,0.014821965,-0.09280232,0.47219852,-0.11301414,-0.120309845,-0.397781,-0.14343359,-0.1520328,-0.48506013,-0.15952882,0.091235064,-0.46150836,0.267458,-0.023133488,0.032759424,-0.10501929,-0.038773455,-0.05397393,0.030857053,-0.044155855,0.0049994355,0.058740582,0.031634632,-0.020263659,-0.013030087,-1.0,1.0,-1.0,-1.0,-1.0,-1.0,-1.0,-1.0,-1.0,1.0,-1.0,1.0,-1.0,1.0,-1.0,-1.0,-1.0,-1.0,-1.0,-1.0,-1.0,1.0,-1.0,1.0
2025-06-04 11:53:21.369,0.0002802476,-0.13814574,0.08117849,-0.042792827,0.025210602,0.042067185,0.0,0.0,0.0,0.014830541,-0.085576504,0.47591013,-0.154607,-0.12172659,-0.41317508,-0.12225426,-0.14273961,-0.50496197,-0.15935682,0.09406872,-0.4648245,0.26221982,0.0012792631,0.05351023,-0.068788156,0.06728867,-0.07277654,0.09143005,-0.053823717,-0.022153312,-0.02751829,0.07149694,0.037287366,0.04528502,-1.0,1.0,-1.0,-1.0,-1.0,-1.0,-1.0,-1.0,-1.0,1.0,-1.0,1.0,-1.0,1.0,-1.0,-1.0,1.0,-1.0,-1.0,-1.0,-1.0,1.0,-1.0,1.0
2025-06-04 11:53:21.388,0.104070686,-0.35004383,-0.0007074383,-0.048981357,0.041773256,-0.02195025,0.0,0.0,0.0,0.013865798,-0.09544157,0.48753753,-0.16434094,-0.12684867,-0.41254443,-0.14052257,-0.16179097,-0.5062209,-0.1638144,0.08845528,-0.4652743,0.26389238,0.050971493,0.03884265,-0.0028677098,-0.08187927,0.06445011,-0.06938993,0.01151957,0.06823975,0.035332114,0.022987725,0.06899444,0.041897126,-1.0,1.0,-1.0,-1.0,1.0,-1.0,-1.0,-1.0,-1.0,1.0,-1.0,1.0,-1.0,1.0,-1.0,-1.0,-1.0,-1.0,-1.0,-1.0,-1.0,1.0,-1.0,1.0
2025-06-04 11:53:21.408,-0.024885803,-0.18941575,0.009531768,0.009658733,0.07284085,6.028459e-05,0.0,0.0,0.0,0.01365743,-0.079052754,0.48778585,-0.17498021,-0.1272161,-0.4156287,-0.15014581,-0.14203292,-0.49389625,-0.18107182,0.08641233,-0.4732701,0.25350145,-0.052138258,0.05809154,0.06345022,-0.0016443166,-0.053705774,0.0009417047,-0.040628728,0.057743113,0.0066461214,0.06620035,0.036929283,0.011433017,-1.0,1.0,-1.0,-1.0,-1.0,-1.0,-1.0,-1.0,-1.0,1.0,-1.0,1.0,-1.0,1.0,-1.0,-1.0,-1.0,-1.0,-1.0,-1.0,-1.0,1.0,-1.0,1.0
2025-06-04 11:53:21.429,0.0072332136,-0.04965787,-0.0029139032,-0.011600712,0.11045342,0.04364718,0.0,0.0,0.0,0.014014227,-0.08385729,0.46926808,-0.1548861,-0.10894441,-0.42612532,-0.14543776,-0.14051567,-0.49474496,-0.17591064,0.0894888,-0.47887602,0.26587388,0.055440716,-0.051296633,0.06505405,0.00583102,-0.067769215,0.041898698,0.0046523316,0.030743755,-0.060040254,-0.0019332985,-0.063772745,-0.06834439,-1.0,1.0,-1.0,-1.0,-1.0,-1.0,-1.0,-1.0,-1.0,1.0,-1.0,1.0,-1.0,1.0,-1.0,-1.0,-1.0,-1.0,-1.0,-1.0,-1.0,1.0,-1.0,1.0
2025-06-04 11:53:21.452,0.0043301545,0.04922341,0.09271827,-0.008895909,0.039287366,0.0338967,0.0,0.0,0.0,0.013673331,-0.09097283,0.45565116,-0.14546461,-0.10536158,-0.4273847,-0.15224922,-0.13044265,-0.5046294,-0.17868459,0.08987057,-0.4802047,0.26627454,-0.043706357,-0.064435825,-0.025005432,0.042417042,-0.08873722,0.013132467,-0.013984511,0.021776177,-0.06661123,0.018738031,-0.004232457,0.073891096,-1.0,1.0,-1.0,-1.0,-1.0,-1.0,-1.0,-1.0,-1.0,1.0,-1.0,1.0,-1.0,1.0,-1.0,-1.0,1.0,-1.0,-1.0,-1.0,-1.0,1.0,-1.0,1.0
2025-06-04 11:53:21.470,0.14053088,-0.092819914,-0.046282664,-0.06408643,0.032667972,-0.0075513814,0.0,0.0,0.0,0.012631101,-0.09220113,0.4637768,-0.13913442,-0.09481988,-0.42574665,-0.17127985,-0.14439577,-0.51923394,-0.17576656,0.09530724,-0.46521372,0.264415,-0.052413773,0.0501856,-0.004328462,0.05044387,0.01367115,-0.040227767,0.06195492,0.07682992,0.03205841,-0.048444163,0.06673943,-0.04085672,-1.0,1.0,-1.0,-1.0,1.0,-1.0,-1.0,-1.0,-1.0,1.0,-1.0,1.0,-1.0,1.0,-1.0,-1.0,-1.0,-1.0,-1.0,-1.0,-1.0,1.0,-1.0,1.0
2025-06-04 11:53:21.489,0.009084018,0.04586036,-0.042429436,-0.061336853,0.08369668,-0.04527191,0.0,0.0,0.0,0.012463672,-0.09608324,0.46777844,-0.13546877,-0.106078535,-0.4223657,-0.18523714,-0.12331327,-0.51548237,-0.18476944,0.092911355,-0.48037818,0.25618908,0.054885957,0.07020874,0.037845336,0.022861132,-0.035204753,0.040070456,0.053775888,-0.047056846,-0.05831546,0.03845651,-0.043096133,0.012083741,-1.0,1.0,-1.0,-1.0,-1.0,-1.0,-1.0,-1.0,-1.0,1.0,-1.0,1.0,-1.0,1.0,-1.0,-1.0,-1.0,-1.0,-1.0,-1.0,-1.0,1.0,-1.0,1.0
2025-06-04 11:53:21.510,-0.06520156,0.046410855,0.03174542,-0.057509024,0.037674133,-0.03582535,0.0,0.0,0.0,0.012768024,-0.08417535,0.46712464,-0.14777057,-0.10664345,-0.42319363,-0.20965739,-0.12474442,-0.51359206,-0.19830804,0.097103044,-0.46975446,0.2664302,-0.040789556,-0.028681876,0.01967828,-0.0318087,0.027326737,-0.09029797,-0.0114596,0.024978925,-0.07710114,0.0038364283,-0.01875425,-0.0024013966,-1.0,1.0,-1.0,-1.0,-1.0,-1.0,-1.0,-1.0,-1.0,1.0,-1.0,1.0,-1.0,1.0,-1.0,-1.0,1.0,-1.0,-1.0,-1.0,-1.0,1.0,-1.0,1.0
2025-06-04 11:53:21.530,0.050458673,-0.07917163,-0.08128673,-0.040473092,0.10033251,0.004920878,0.0,0.0,0.0,0.012849453,-0.09380335,0.46155238,-0.14115645,-0.10783169,-0.36193746,-0.22896795,-0.12949498,-0.519334,-0.18948346,0.09509557,-0.47271913,0.26187095,-0.006119266,0.054049842,-0.05997069,0.04955739,0.0648413,-0.063558064,-0.049391888,0.04254493,-0.03426863,0.026184864,-0.014418457,0.0052806702,-1.0,1.0,-1.0,-1.0,1.0,-1.0,-1.0,-1.0,-1.0,1.0,-1.0,1.0,-1.0,1.0,-1.0,-1.0,-1.0,-1.0,-1.0,-1.0,-1.0,1.0,-1.0,1.0
2025-06-04 11:53:21.553,-0.042997442,0.05836281,0.02754194,-0.0045190197,0.04296104,-0.02737063,0.0,0.0,0.0,0.013683614,-0.09935705,0.4840042,-0.14429954,-0.087706424,-0.381345,-0.21964343,-0.11582798,-0.5114577,-0.19495821,0.09150781,-0.4654029,0.26977673,-0.023860378,0.04764915,-0.034666352,0.017964775,-0.018348636,0.08636229,-0.0063997265,0.050193015,-0.04513483,0.025569854,0.02340446,0.018698663,-1.0,1.0,-1.0,-1.0,-1.0,-1.0,-1.0,-1.0,-1.0,1.0,-1.0,1.0,-1.0,1.0,-1.0,-1.0,1.0,-1.0,-1.0,-1.0,-1.0,1.0,-1.0,1.0
2025-06-04 11:53:21.569,0.08023798,-0.0980834,-0.09792335,-0.044130586,0.07273115,0.033283852,0.0,0.0,0.0,0.014364705,-0.09155897,0.48630017,-0.1455994,-0.095979795,-0.35557452,-0.22162507,-0.11719174,-0.51755005,-0.19586244,0.09078063,-0.46338966,0.2679453,0.043732088,0.058965284,0.02071098,0.04231554,0.08206176,-0.08930773,-0.06006433,-0.018671466,0.014314984,-0.043106157,0.07706923,-0.031152857,-1.0,1.0,-1.0,-1.0,1.0,-1.0,-1.0,-1.0,-1.0,1.0,-1.0,1.0,-1.0,1.0,-1.0,-1.0,-1.0,-1.0,-1.0,-1.0,-1.0,1.0,-1.0,1.0
2025-06-04 11:53:21.590,0.043635078,0.042223208,0.008865816,-0.024812313,0.07431306,-0.045418482,0.0,0.0,0.0,0.01529183,-0.10737067,0.48579454,-0.15901554,-0.10662427,-0.36641818,-0.22276099,-0.10685418,-0.5121145,-0.18576497,0.079902746,-0.47221476,0.2696481,0.026824197,0.054258768,-0.051746536,-0.028230513,-0.08081985,-0.04234699,0.0171782,0.019591182,-0.012055396,-0.01913071,0.014758279,0.037644513,-1.0,1.0,-1.0,-1.0,-1.0,-1.0,-1.0,-1.0,-1.0,1.0,-1.0,1.0,-1.0,1.0,-1.0,-1.0,-1.0,-1.0,-1.0,-1.0,-1.0,1.0,-1.0,1.0
2025-06-04 11:53:21.610,0.044621553,0.03357656,-0.03351194,-0.019316051,0.077881634,0.021956138,0.0,0.0,0.0,0.016089361,-0.1073954,0.497316,-0.17024112,-0.09749451,-0.39698744,-0.22262754,-0.1166468,-0.5186017,-0.20048688,0.096662685,-0.47650835,0.25674102,0.03888513,0.023599856,-0.081144445,0.049635556,-0.045601416,0.035923436,-0.01057902,-0.03406409,0.036789358,-0.018100137,-0.034900475,0.026111284,-1.0,1.0,-1.0,-1.0,-1.0,-1.0,-1.0,-1.0,-1.0,1.0,-1.0,1.0,-1.0,1.0,-1.0,-1.0,-1.0,-1.0,-1.0,-1.0,-1.0,1.0,-1.0,1.0
2025-06-04 11:53:21.634,-0.0038466319,0.069894746,0.06469189,0.02696239,0.065073855,0.003305437,0.0,0.0,0.0,0.016229475,-0.096470445,0.5016576,-0.16351697,-0.091011755,-0.40405473,-0.20627789,-0.10461192,-0.5097268,-0.19110514,0.08319699,-0.46624604,0.25598168,0.024203703,-0.0571859,0.04002548,0.035017803,-0.03203339,-0.049804874,0.009549553,-0.08429497,0.04194722,0.05788859,-0.014670266,-0.07035499,-1.0,1.0,-1.0,-1.0,-1.0,-1.0,-1.0,-1.0,-1.0,1.0,-1.0,1.0,-1.0,1.0,-1.0,-1.0,1.0,-1.0,-1.0,-1.0,-1.0,1.0,-1.0,1.0
2025-06-04 11:53:21.653,0.08465095,-0.07288392,-0.0815054,0.017997187,0.11579922,-0.0041529313,0.0,0.0,0.0,0.01571966,-0.10593123,0.50253147,-0.15812194,-0.1014691,-0.37526068,-0.23294845,-0.11427488,-0.51635367,-0.1844296,0.082426,-0.46995232,0.2680941,0.024727315,0.05798983,0.060732864,-0.07413103,0.005455336,0.00873699,0.021006944,-0.03441347,-0.04906652,-0.05607495,0.07603882,0.059521504,-1.0,1.0,-1.0,-1.0,1.0,-1.0,-1.0,-1.0,-1.0,1.0,-1.0,1.0,-1.0,1.0,-1.0,-1.0,-1.0,-1.0,-1.0,-1.0,-1.0,1.0,-1.0,1.0
2025-06-04 11:53:21.671,-0.021112807,-0.014907126,-0.00093108095,0.010372542,0.1282943,-0.022336157,0.0,0.0,0.0,0.015939888,-0.10062617,0.4935446,-0.16157813,-0.09732696,-0.38465884,-0.22059278,-0.10638897,-0.50544494,-0.17968652,0.08493546,-0.47072944,0.2543017,-0.0043254015,-0.045708004,0.06904896,0.0074432674,-0.09588934,0.0038101769,-0.06749269,0.038898982,-0.012656396,0.05861464,0.007626255,-0.015015915,-1.0,1.0,-1.0,-1.0,-1.0,-1.0,-1.0,-1.0,-1.0,1.0,-1.0,1.0,-1.0,1.0,-1.0,-1.0,-1.0,-1.0,-1.0,-1.0,-1.0,1.0,-1.0,1.0
2025-06-04 11:53:21.691,-0.071387134,0.09260234,-0.028606879,-0.0621048,0.12059954,-0.03646382,0.0,0.0,0.0,0.01645088,-0.09143609,0.50865656,-0.16048336,-0.102036625,-0.41045317,-0.21804029,-0.10741781,-0.52096915,-0.1748002,0.0808767,-0.47246304,0.25485408,0.05332546,0.03251662,-0.054328673,0.06320133,-0.003925112,-0.0032633292,0.042584762,0.019285344,0.038323227,0.06266544,-0.053910572,-0.06573359,-1.0,1.0,-1.0,-1.0,-1.0,-1.0,-1.0,-1.0,-1.0,1.0,-1.0,1.0,-1.0,1.0,-1.0,-1.0,-1.0,-1.0,-1.0,-1.0,-1.0,1.0,-1.0,1.0
2025-06-04 11:53:21.711,-0.057662826,0.08223733,0.008693037,0.006286441,0.04953801,-0.025528701,0.0,0.0,0.0,0.016549356,-0.09326673,0.49546215,-0.16300571,-0.09600119,-0.41577846,-0.2080223,-0.10478654,-0.52925223,-0.18180062,0.08339319,-0.46439183,0.27095723,0.08167371,0.0036142801,-0.03344123,-0.048950236,0.013781828,0.048682295,0.0006599205,0.03640417,0.054382674,0.024539137,0.06940066,-0.058696426,-1.0,1.0,-1.0,-1.0,-1.0,-1.0,-1.0,-1.0,-1.0,1.0,-1.0,1.0,-1.0,1.0,-1.0,-1.0,-1.0,-1.0,-1.0,-1.0,-1.0,1.0,-1.0,1.0
2025-06-04 11:53:21.731,-0.03268515,0.117019504,0.08796932,0.0018760988,0.05057027,0.027587445,0.0,0.0,0.0,0.016054088,-0.09962585,0.49937645,-0.15849967,-0.09531201,-0.42447227,-0.2110251,-0.11468019,-0.5176666,-0.17282595,0.084590875,-0.46599138,0.259596,0.03130724,-0.06878763,0.07225896,0.06769898,-0.066127405,0.084803425,-0.034707803,-0.00017714017,0.07663993,-0.050222553,0.016402962,0.015925003,-1.0,1.0,-1.0,-1.0,-1.0,-1.0,-1.0,-1.0,-1.0,1.0,-1.0,1.0,-1.0,1.0,-1.0,-1.0,1.0,-1.0,-1.0,-1.0,-1.0,1.0,-1.0,1.0
2025-06-04 11:53:21.753,0.04627662,-0.08313995,-0.004360315,-0.063009396,0.08401307,-0.04197742,0.0,0.0,0.0,0.014979015,-0.09838967,0.5022265,-0.15800893,-0.10087212,-0.4169764,-0.21370621,-0.124265574,-0.5354569,-0.18210356,0.07805581,-0.46696946,0.25127685,0.05130025,-0.027669514,-0.07922803,-0.015101562,0.01742766,-0.07115573,-0.06927188,-0.016938623,0.005310893,-0.019615347,0.044763893,-0.049313143,-1.0,1.0,-1.0,-1.0,1.0,-1.0,-1.0,-1.0,-1.0,1.0,-1.0,1.0,-1.0,1.0,-1.0,-1.0,-1.0,-1.0,-1.0,-1.0,-1.0,1.0,-1.0,1.0
2025-06-04 11:53:21.772,-0.08989095,0.027987925,-0.011527272,-0.06859624,0.035646576,-0.009430883,0.0,0.0,0.0,0.014767473,-0.090569824,0.51234084,-0.17175783,-0.10235837,-0.42783228,-0.21043552,-0.124525614,-0.5249384,-0.17838268,0.096519284,-0.4769266,0.2595194,0.035899542,-0.029234212,0.03921788,0.06131787,-0.056198567,-0.040456366,0.065268256,-0.0054897503,0.026291486,-0.0149113685,-0.007757043,0.04723202,-1.0,1.0,-1.0,-1.0,-1.0,-1.0,-1.0,-1.0,-1.0,1.0,-1.0,1.0,-1.0,1.0,-1.0,-1.0,-1.0,-1.0,-1.0,-1.0,-1.0,1.0,-1.0,1.0
2025-06-04 11:53:21.792,-0.038741693,0.049382545,0.045032967,-0.08187411,0.102919176,-0.025383886,0.0,0.0,0.0,0.015077071,-0.088957556,0.5072283,-0.17633651,-0.09368485,-0.44294962,-0.21029365,-0.115190685,-0.514048,-0.18317503,0.08900629,-0.47496435,0.27063105,-0.03713611,-0.024019904,0.004852047,-0.023883492,-0.064343214,0.016862884,-0.041320596,0.065246485,-0.0060794535,0.039640516,-0.026699595,-0.016394729,-1.0,1.0,-1.0,-1.0,-1.0,-1.0,-1.0,-1.0,-1.0,1.0,-1.0,1.0,-1.0,1.0,-1.0,-1.0,1.0,-1.0,-1.0,-1.0,-1.0,1.0,-1.0,1.0
2025-06-04 11:53:21.812,0.09648348,-0.12223342,-0.08708877,-0.077542394,0.06783739,0.014489361,0.0,0.0,0.0,0.01500041,-0.09685607,0.50167316,-0.17609762,-0.10363965,-0.43069714,-0.21948427,-0.10987844,-0.5166384,-0.17722654,0.093432605,-0.4668151,0.25314066,-0.011449926,-0.04885701,-0.02865964,-0.014365072,0.021445999,0.03313597,0.054346852,-0.050161652,0.017530221,-0.002800964,-0.0038577642,-0.00072975626,-1.0,1.0,-1.0,-1.0,1.0,-1.0,-1.0,-1.0,-1.0,1.0,-1.0,1.0,-1.0,1.0,-1.0,-1.0,-1.0,-1.0,-1.0,-1.0,-1.0,1.0,-1.0,1.0
2025-06-04 11:53:21.832,-0.023464974,0.034759793,-0.010392069,-0.056753144,0.059258983,0.024178434,0.0,0.0,0.0,0.015477072,-0.096385546,0.5059381,-0.18655823,-0.10489456,-0.43179145,-0.22970618,-0.1077189,-0.52574396,-0.19283396,0.087465055,-0.4799766,0.2545366,-0.0080957785,-0.024391623,0.02583626,0.003414169,-0.08485187,0.048373494,-0.06327644,-0.000665989,-0.052145228,-0.010008193,0.05913914,-0.04681632,-1.0,1.0,-1.0,-1.0,-1.0,-1.0,-1.0,-1.0,-1.0,1.0,-1.0,1.0,-1.0,1.0,-1.0,-1.0,-1.0,-1.0,-1.0,-1.0,-1.0,1.0,-1.0,1.0
2025-06-04 11:53:21.853,-0.07921729,0.07519774,0.0139095085,-0.047409553,0.024723085,0.033007186,0.0,0.0,0.0,0.016127907,-0.094828025,0.507362,-0.18465404,-0.10325144,-0.43800896,-0.20910639,-0.1112063,-0.5174186,-0.19633588,0.089952745,-0.4745344,0.25285184,0.06887767,0.034432672,-0.06088266,-0.025709627,-0.033579174,0.029139144,0.07224336,0.05670062,0.06289827,0.06408966,-0.06283329,0.047957707,-1.0,1.0,-1.0,-1.0,-1.0,-1.0,-1.0,-1.0,-1.0,1.0,-1.0,1.0,-1.0,1.0,-1.0,-1.0,-1.0,-1.0,-1.0,-1.0,-1.0,1.0,-1.0,1.0
2025-06-04 11:53:21.872,-0.042815663,0.0912451,0.043425914,-0.08514137,0.07667051,0.043468136,0.0,0.0,0.0,0.016196609,-0.091468714,0.510728,-0.18127324,-0.095608905,-0.45243123,-0.2019186,-0.109787874,-0.5298333,-0.1935603,0.08122307,-0.47241545,0.27152067,0.035971414,-0.034386225,-0.027069837,0.059907988,-0.056128055,0.050923534,0.0075456067,0.041681852,-0.021453388,0.06402394,0.0691597,0.042720336,-1.0,1.0,-1.0,-1.0,-1.0,-1.0,-1.0,-1.0,-1.0,1.0,-1.0,1.0,-1.0,1.0,-1.0,-1.0,1.0,-1.0,-1.0,-1.0,-1.0,1.0,-1.0,1.0
2025-06-04 11:53:21.892,0.098946206,-0.11830328,-0.027951479,-0.03742231,0.08421678,-0.040585317,0.0,0.0,0.0,0.015545532,-0.10839042,0.50451094,-0.17779051,-0.10660776,-0.4398927,-0.2094744,-0.112609796,-0.5219531,-0.19787382,0.090800144,-0.46345574,0.26111445,-0.08735798,0.042571556,0.0007259606,-0.06589375,0.12775464,0.029517904,0.016355028,0.024034278,-0.057811588,-0.06538147,0.07758702,0.0548593,-1.0,1.0,-1.0,-1.0,1.0,-1.0,-1.0,-1.0,-1.0,1.0,-1.0,1.0,-1.0,1.0,-1.0,-1.0,-1.0,-1.0,-1.0,-1.0,-1.0,1.0,-1.0,1.0
2025-06-04 11:53:21.913,0.0005237844,0.009652031,-0.050995734,-0.05785953,0.09467662,-0.048927046,0.0,0.0,0.0,0.0155228535,-0.09371587,0.5043177,-0.18113244,-0.09413893,-0.44638988,-0.22349325,-0.12300878,-0.51885086,-0.19044977,0.07893773,-0.47338876,0.25581264,-0.039769936,0.026784925,-0.028642286,-0.011943684,0.011561418,-0.047435094,0.06690916,0.023949534,-0.038606055,0.036802735,-0.07438699,-0.0016634668,-1.0,1.0,-1.0,-1.0,-1.0,-1.0,-1.0,-1.0,-1.0,1.0,-1.0,1.0,-1.0,1.0,-1.0,-1.0,-1.0,-1.0,-1.0,-1.0,-1.0,1.0,-1.0,1.0
2025-06-04 11:53:21.935,-0.06640448,0.05972212,0.003586403,-0.05065877,0.0720235,0.04052341,0.0,0.0,0.0,0.015896542,-0.10794731,0.5136597,-0.17580876,-0.10183918,-0.46010187,-0.21841061,-0.11210818,-0.5205038,-0.20014273,0.0881538,-0.4794328,0.26159745,0.038916226,0.0359125,-0.038496424,0.06443005,-0.06426593,0.0131435655,0.0011739243,-0.024331342,0.012674516,0.07247064,-0.036853258,-0.005109362,-1.0,1.0,-1.0,-1.0,-1.0,-1.0,-1.0,-1.0,-1.0,1.0,-1.0,1.0,-1.0,1.0,-1.0,-1.0,-1.0,-1.0,-1.0,-1.0,-1.0,1.0,-1.0,1.0
2025-06-04 11:53:21.953,-0.024824847,0.12022336,0.036374647,-0.07407531,0.024749337,0.025369639,0.0,0.0,0.0,0.015861554,-0.09167359,0.4990684,-0.17138244,-0.09682659,-0.4648924,-0.2066735,-0.11388142,-0.53397435,-0.19242783,0.09593948,-0.46518752,0.269582,-0.046521258,0.06613148,0.024462536,-0.051763847,-0.010750613,0.09010183,-0.01185875,-0.026450897,0.0009583106,0.06854015,0.062683225,0.047241,-1.0,1.0,-1.0,-1.0,-1.0,-1.0,-1.0,-1.0,-1.0,1.0,-1.0,1.0,-1.0,1.0,-1.0,-1.0,1.0,-1.0,-1.0,-1.0,-1.0,1.0,-1.0,1.0
2025-06-04 11:53:21.972,0.030302629,-0.08561995,-0.060937114,-0.022292102,0.080952264,0.0038924206,0.0,0.0,0.0,0.015213543,-0.10591025,0.50065374,-0.17635976,-0.08882035,-0.46193293,-0.2128157,-0.11353679,-0.51466906,-0.18790928,0.093561694,-0.46380085,0.2510236,-0.035750337,-0.0013888244,0.016669422,-0.072264686,-0.015767926,-0.08476169,-0.07891777,0.0005271064,0.0017703782,-0.030592058,0.051310584,-0.07064916,-1.0,1.0,-1.0,-1.0,1.0,-1.0,-1.0,-1.0,-1.0,1.0,-1.0,1.0,-1.0,1.0,-1.0,-1.0,-1.0,-1.0,-1.0,-1.0,-1.0,1.0,-1.0,1.0
2025-06-04 11:53:21.993,-0.07761517,0.057823747,0.010197261,-0.033728812,0.109790236,0.035839796,0.0,0.0,0.0,0.01522378,-0.11276728,0.5022748,-0.17960481,-0.10718512,-0.44607425,-0.22889464,-0.11547984,-0.5192854,-0.2046394,0.08190779,-0.4764178,0.25930235,0.020456648,-0.03914155,0.03405426,-0.059362058,-0.03852184,0.041632,-0.06761757,0.027670141,-0.016645255,0.0073625804,-0.045566313,-0.05291332,-1.0,1.0,-1.0,-1.0,-1.0,-1.0,-1.0,-1.0,-1.0,1.0,-1.0,1.0,-1.0,1.0,-1.0,-1.0,-1.0,-1.0,-1.0,-1.0,-1.0,1.0,-1.0,1.0
2025-06-04 11:53:22.013,-0.07478826,0.026840705,0.054314718,0.002153494,0.10934753,0.04705614,0.0,0.0,0.0,0.015637325,-0.111088164,0.50299406,-0.18975921,-0.09600764,-0.46336088,-0.22374701,-0.11193764,-0.53149444,-0.20676959,0.08708201,-0.47040126,0.26699394,-0.022927789,-0.00711561,-0.00623232,-0.026945291,0.003371974,-0.012733754,0.063741475,-0.048718303,-0.07287847,-0.0059934244,-0.046397783,0.043035828,-1.0,1.0,-1.0,-1.0,-1.0,-1.0,-1.0,-1.0,-1.0,1.0,-1.0,1.0,-1.0,1.0,-1.0,-1.0,1.0,-1.0,-1.0,-1.0,-1.0,1.0,-1.0,1.0
2025-06-04 11:53:22.036,0.04226179,-0.13305643,-0.034060262,-0.05452891,0.11268233,0.0066710548,0.0,0.0,0.0,0.015640186,-0.1075716,0.5045891,-0.18701574,-0.10412358,-0.44183686,-0.22882496,-0.1280172,-0.5116472,-0.19757842,0.093852565,-0.47123992,0.25335205,-0.054938227,-0.0009825763,-0.054344527,-0.033559784,0.010841167,-0.09250806,-0.029596336,-0.026766317,0.05633574,0.023424609,0.012134332,-0.07368945,-1.0,1.0,-1.0,-1.0,1.0,-1.0,-1.0,-1.0,-1.0,1.0,-1.0,1.0,-1.0,1.0,-1.0,-1.0,-1.0,-1.0,-1.0,-1.0,-1.0,1.0,-1.0,1.0
2025-06-04 11:53:22.120,-0.003512918,-0.04546753,-0.043354742,-0.013346441,0.07706447,-0.0042335917,0.0,0.0,0.0,0.016129958,-0.108326204,0.5080763,-0.17535089,-0.095418155,-0.43690553,-0.2278341,-0.11054057,-0.50812286,-0.20803992,0.089839,-0.4732592,0.26855835,-0.0075883046,-0.03129034,-0.031554133,-0.055466328,-0.077899165,0.0638086,0.08030521,0.059564535,0.022320582,0.047179304,0.049862657,0.0058858,-1.0,1.0,-1.0,-1.0,-1.0,-1.0,-1.0,-1.0,-1.0,1.0,-1.0,1.0,-1.0,1.0,-1.0,-1.0,-1.0,-1.0,-1.0,-1.0,-1.0,1.0,-1.0,1.0
2025-06-04 11:53:22.138,-0.058475275,0.038193785,-0.024361061,-0.07145428,0.08070085,0.008260668,0.0,0.0,0.0,0.016768347,-0.11085829,0.518141,-0.1726248,-0.10548201,-0.44396266,-0.23479432,-0.11098123,-0.51675266,-0.20683916,0.088155866,-0.46400103,0.2581623,-0.024684286,-0.053098973,0.074709244,-0.007609081,-0.04879952,-0.03872698,0.0435553,-0.08516957,0.05688799,0.0051831584,-0.068234116,0.057716273,-1.0,1.0,-1.0,-1.0,-1.0,-1.0,-1.0,-1.0,-1.0,1.0,-1.0,1.0,-1.0,1.0,-1.0,-1.0,-1.0,-1.0,-1.0,-1.0,-1.0,1.0,-1.0,1.0
2025-06-04 11:53:22.190,-0.06838237,0.0985956,0.03845056,-0.029815448,0.04955884,-0.048022218,0.0,0.0,0.0,0.016874615,-0.109943405,0.5125088,-0.17721899,-0.09913978,-0.46289632,-0.22901462,-0.10231543,-0.5187615,-0.20552564,0.09147092,-0.47966534,0.2625964,0.044827733,0.004664287,0.004551712,-0.011298994,-0.049487285,0.041237637,-0.015292395,0.027151635,-0.013552628,-0.073050946,0.022380212,-0.046024762,-1.0,1.0,-1.0,-1.0,-1.0,-1.0,-1.0,-1.0,-1.0,1.0,-1.0,1.0,-1.0,1.0,-1.0,-1.0,1.0,-1.0,-1.0,-1.0,-1.0,1.0,-1.0,1.0
2025-06-04 11:53:22.211,0.047628257,-0.13686424,0.00012854958,-0.0073485733,0.0233596,0.026560953,0.0,0.0,0.0,0.016312396,-0.104515284,0.52104485,-0.18144903,-0.1084502,-0.4444038,-0.22926793,-0.12050773,-0.5190559,-0.18954885,0.08064577,-0.46553496,0.25716656,0.038327754,0.0121166725,0.071119435,0.028180202,0.11171342,-0.03242743,-0.060540147,0.071102105,-0.07402637,0.003268503,-0.01739442,-0.04127619,-1.0,1.0,-1.0,-1.0,1.0,-1.0,-1.0,-1.0,-1.0,1.0,-1.0,1.0,-1.0,1.0,-1.0,-1.0,-1.0,-1.0,-1.0,-1.0,-1.0,1.0,-1.0,1.0
2025-06-04 11:53:22.236,-0.009241955,-0.0035145513,-0.014622006,-0.020934017,0.08572086,-0.045060787,0.0,0.0,0.0,0.016337477,-0.117226794,0.5207873,-0.18316333,-0.1069096,-0.45566902,-0.22710726,-0.12119684,-0.5167498,-0.1945956,0.089356534,-0.4757927,0.26743123,0.046968024,0.07138039,-0.04935916,-0.03100835,-0.0790281,0.042711124,-0.02941704,0.0010170565,-0.0290655,-0.020391848,0.030790117,0.0065527433,-1.0,1.0,-1.0,-1.0,-1.0,-1.0,-1.0,-1.0,-1.0,1.0,-1.0,1.0,-1.0,1.0,-1.0,-1.0,-1.0,-1.0,-1.0,-1.0,-1.0,1.0,-1.0,1.0
2025-06-04 11:53:22.253,0.01676563,0.065232955,0.009873767,-0.05514799,0.043219905,-0.026255611,0.0,0.0,0.0,0.016721182,-0.09593552,0.51610804,-0.17362285,-0.10062641,-0.45513663,-0.23062664,-0.1203274,-0.52463627,-0.20727116,0.08953339,-0.4702403,0.25456378,0.0021363837,-0.07383236,-0.044365853,0.06502032,-0.0040560025,-0.05218799,-0.035423793,-0.032737754,-0.005602438,-0.0038038585,0.00023156217,0.02036043,-1.0,1.0,-1.0,-1.0,-1.0,-1.0,-1.0,-1.0,-1.0,1.0,-1.0,1.0,-1.0,1.0,-1.0,-1.0,-1.0,-1.0,-1.0,-1.0,-1.0,1.0,-1.0,1.0
2025-06-04 11:53:22.273,0.00049707247,0.07389452,0.01111505,-0.08207279,0.062390357,0.033243306,0.0,0.0,0.0,0.016726367,-0.0958397,0.5125371,-0.16942114,-0.0963394,-0.46454304,-0.2285244,-0.11201712,-0.53809696,-0.20191169,0.0920662,-0.46709734,0.2699316,0.026521785,0.05573073,-0.050210066,0.049598668,0.0036010693,0.09498969,-0.0019495116,0.05764708,-0.023717143,0.06528647,0.05852689,0.010716003,-1.0,1.0,-1.0,-1.0,-1.0,-1.0,-1.0,-1.0,-1.0,1.0,-1.0,1.0,-1.0,1.0,-1.0,-1.0,-1.0,-1.0,-1.0,-1.0,-1.0,1.0,-1.0,1.0
2025-06-04 11:53:22.295,-0.026850037,0.15265764,0.007359356,-0.06401648,0.095979534,-0.029612605,0.0,0.0,0.0,0.016149614,-0.08994122,0.5104489,-0.16966397,-0.09449298,-0.4889043,-0.21148373,-0.10885224,-0.53462374,-0.20330359,0.09242879,-0.47576186,0.2671637,0.030597981,0.06327401,-0.0075637526,-0.024473483,-0.0033089072,0.07621444,-0.04205477,-0.086477734,0.032209594,0.025524212,0.041664742,-0.050604254,-1.0,1.0,-1.0,-1.0,-1.0,-1.0,-1.0,-1.0,-1.0,1.0,-1.0,1.0,-1.0,1.0,-1.0,-1.0,-1.0,-1.0,-1.0,-1.0,-1.0,1.0,-1.0,1.0
2025-06-04 11:53:22.313,-0.045053907,0.16514546,0.087266505,-0.036054973,0.013830075,-0.037274767,0.0,0.0,0.0,0.015107554,-0.10175732,0.50696576,-0.17711903,-0.08740785,-0.5074453,-0.19625229,-0.117451094,-0.5282565,-0.19999759,0.0857536,-0.47627896,0.2582542,0.019028492,0.036435246,0.05622593,0.021479756,-0.07004793,-0.02945361,0.047630303,0.01913976,-0.053443763,-0.06221545,-0.073197596,-0.015612924,-1.0,1.0,-1.0,-1.0,-1.0,-1.0,-1.0,-1.0,-1.0,1.0,-1.0,1.0,-1.0,1.0,-1.0,-1.0,1.0,-1.0,-1.0,-1.0,-1.0,1.0,-1.0,1.0
2025-06-04 11:53:22.337,0.09481003,-0.124815464,-0.03278058,-0.026087448,0.08900735,-0.01596476,0.0,0.0,0.0,0.0138571765,-0.09622399,0.51139563,-0.1741437,-0.084502496,-0.48333776,-0.21267442,-0.1238964,-0.5292528,-0.19231127,0.08540144,-0.46306714,0.2539336,0.035143834,-0.027381781,0.05571379,-0.009162486,0.082983255,-0.10778057,-0.0733172,0.04805955,0.011071009,0.058729038,-0.05679282,0.060820777,-1.0,1.0,-1.0,-1.0,1.0,-1.0,-1.0,-1.0,-1.0,1.0,-1.0,1.0,-1.0,1.0,-1.0,-1.0,-1.0,-1.0,-1.0,-1.0,-1.0,1.0,-1.0,1.0
2025-06-04 11:53:22.353,-0.013181232,0.0629525,-0.0044799903,-0.012090303,0.012425829,-0.01250086,0.0,0.0,0.0,0.013630698,-0.104980044,0.52154785,-0.16934335,-0.10087747,-0.49034455,-0.22093289,-0.13220458,-0.53304756,-0.21076536,0.08577482,-0.4647705,0.26682293,0.004350024,0.04244176,-0.060640126,0.034087986,-0.043327365,-0.03892408,-0.0034111561,-0.036339898,0.029567901,-0.039701696,-0.027548825,0.035529952,-1.0,1.0,-1.0,-1.0,-1.0,-1.0,-1.0,-1.0,-1.0,1.0,-1.0,1.0,-1.0,1.0,-1.0,-1.0,-1.0,-1.0,-1.0,-1.0,-1.0,1.0,-1.0,1.0
2025-06-04 11:53:22.373,-0.06725056,0.051580224,0.036009323,-0.041451383,0.06554644,-0.020442454,0.0,0.0,0.0,0.014054167,-0.10652419,0.50212574,-0.1744681,-0.09341836,-0.49713552,-0.22033247,-0.12592515,-0.527154,-0.20614661,0.08149704,-0.47991988,0.2670866,0.049058132,0.048533984,0.016281204,0.042059287,0.030400317,0.03208094,0.013482461,-0.058584545,-0.04630188,0.053440686,0.06645335,-0.016680079,-1.0,1.0,-1.0,-1.0,-1.0,-1.0,-1.0,-1.0,-1.0,1.0,-1.0,1.0,-1.0,1.0,-1.0,-1.0,1.0,-1.0,-1.0,-1.0,-1.0,1.0,-1.0,1.0
2025-06-04 11:53:22.393,0.10774296,-0.10467761,-0.038544398,-0.018733455,0.092061065,-0.026096284,0.0,0.0,0.0,0.014160501,-0.10764986,0.5067714,-0.17333928,-0.10809737,-0.4720315,-0.22765721,-0.11935973,-0.52512544,-0.2193813,0.08548827,-0.46970895,0.2548422,-0.04421692,-0.00322466,0.031273264,-0.07528285,0.056121163,-0.080897614,0.05907926,0.039483685,0.0023614264,0.006301432,-0.005591246,-0.0101959,-1.0,1.0,-1.0,-1.0,1.0,-1.0,-1.0,-1.0,-1.0,1.0,-1.0,1.0,-1.0,1.0,-1.0,-1.0,-1.0,-1.0,-1.0,-1.0,-1.0,1.0,-1.0,1.0
2025-06-04 11:53:22.414,0.039689705,-0.030806344,-0.034877755,-0.040250733,0.10853229,-0.044620246,0.0,0.0,0.0,0.014725353,-0.11732905,0.50591505,-0.19060086,-0.10302485,-0.4780464,-0.22351123,-0.122569434,-0.5144659,-0.20661302,0.09348983,-0.4627395,0.2650669,0.020186163,-0.03403573,0.014311019,0.040882137,-0.060846508,-0.008055664,-0.048225135,0.02918375,-0.05941984,0.07446022,0.04362369,0.05433714,-1.0,1.0,-1.0,-1.0,-1.0,-1.0,-1.0,-1.0,-1.0,1.0,-1.0,1.0,-1.0,1.0,-1.0,-1.0,-1.0,-1.0,-1.0,-1.0,-1.0,1.0,-1.0,1.0
2025-06-04 11:53:22.436,-0.043135654,0.05318138,-0.035987116,-0.08604616,0.022194814,-0.042188417,0.0,0.0,0.0,0.015437989,-0.1057974,0.5177265,-0.1902246,-0.09778265,-0.47555733,-0.22565389,-0.12896234,-0.51979053,-0.2211253,0.0957866,-0.46293882,0.26114562,0.050106928,0.018461144,-0.044049736,-0.027205123,0.048587196,0.00862423,-0.06133957,0.039986815,-0.054769997,-0.057647534,-0.019733533,-0.039916445,-1.0,1.0,-1.0,-1.0,-1.0,-1.0,-1.0,-1.0,-1.0,1.0,-1.0,1.0,-1.0,1.0,-1.0,-1.0,-1.0,-1.0,-1.0,-1.0,-1.0,1.0,-1.0,1.0
2025-06-04 11:53:22.454,-0.078829855,0.065893166,0.047479015,-0.081475295,0.10445063,0.002693259,0.0,0.0,0.0,0.015571961,-0.11151759,0.5117371,-0.17556827,-0.09780442,-0.5013499,-0.21064252,-0.12089042,-0.52445567,-0.208017,0.099693194,-0.4725581,0.2643427,-0.046550017,-0.049892258,-0.04263859,-0.03307156,-0.09263821,-0.0534214,0.041300226,-0.00683384,0.05005119,0.05667275,0.062278975,-0.035852112,-1.0,1.0,-1.0,-1.0,-1.0,-1.0,-1.0,-1.0,-1.0,1.0,-1.0,1.0,-1.0,1.0,-1.0,-1.0,1.0,-1.0,-1.0,-1.0,-1.0,1.0,-1.0,1.0
2025-06-04 11:53:22.474,0.10034752,-0.1792032,-0.0029664238,-0.032436505,0.034535028,-0.016550792,0.0,0.0,0.0,0.015045776,-0.11314183,0.5180471,-0.18026938,-0.093740806,-0.472663,-0.22049166,-0.11789246,-0.5388312,-0.20975927,0.08729633,-0.46063897,0.2649722,-0.03349735,0.0630253,0.040764503,0.05258336,0.13638408,-0.002337232,-0.0773433,-0.05257824,-0.07057463,-0.024268175,-0.010355295,0.013478211,-1.0,1.0,-1.0,-1.0,1.0,-1.0,-1.0,-1.0,-1.0,1.0,-1.0,1.0,-1.0,1.0,-1.0,-1.0,-1.0,-1.0,-1.0,-1.0,-1.0,1.0,-1.0,1.0
2025-06-04 11:53:22.495,0.016974282,0.045753807,-0.03854684,-0.04567934,0.05164789,0.028958222,0.0,0.0,0.0,0.015091952,-0.108149655,0.5121704,-0.18596618,-0.088703424,-0.4834567,-0.23557974,-0.11364186,-0.5208013,-0.21224582,0.08978712,-0.460177,0.2647816,0.039514076,0.054364398,0.04119126,-0.06960261,-0.05062924,0.050349366,-0.02819404,0.021848401,-0.061359875,0.026424553,0.03401877,0.025161881,-1.0,1.0,-1.0,-1.0,-1.0,-1.0,-1.0,-1.0,-1.0,1.0,-1.0,1.0,-1.0,1.0,-1.0,-1.0,-1.0,-1.0,-1.0,-1.0,-1.0,1.0,-1.0,1.0
2025-06-04 11:53:22.514,0.012404085,-0.007694568,0.03042513,0.0036513375,0.06656156,-0.019215837,0.0,0.0,0.0,0.015510876,-0.10968823,0.52114934,-0.18216424,-0.09787594,-0.47028252,-0.22396517,-0.126457,-0.5210695,-0.21904333,0.094733745,-0.4687118,0.2653332,-0.0008582332,-0.011231942,-0.0006485021,-0.04164239,0.0013883171,-0.049250998,-0.024370907,0.054606587,-0.0034425023,-0.010851235,0.004500123,0.06772749,-1.0,1.0,-1.0,-1.0,-1.0,-1.0,-1.0,-1.0,-1.0,1.0,-1.0,1.0,-1.0,1.0,-1.0,-1.0,-1.0,-1.0,-1.0,-1.0,-1.0,1.0,-1.0,1.0
2025-06-04 11:53:22.537,-0.054286893,0.10671478,0.03696819,-0.09555286,0.09272977,-0.004845591,0.0,0.0,0.0,0.015552628,-0.114091076,0.51889133,-0.18349016,-0.09639441,-0.4903613,-0.22637656,-0.116521865,-0.5228799,-0.20482779,0.09493468,-0.475604,0.25996128,0.0006449544,0.069508314,-0.04073989,0.053347673,0.03715946,0.0901613,-0.04786641,-0.03891246,0.067756444,-0.030314658,0.053839717,-0.00053645135,-1.0,1.0,-1.0,-1.0,-1.0,-1.0,-1.0,-1.0,-1.0,1.0,-1.0,1.0,-1.0,1.0,-1.0,-1.0,1.0,-1.0,-1.0,-1.0,-1.0,1.0,-1.0,1.0
2025-06-04 11:53:22.554,0.07498001,-0.19007774,-0.03536245,-0.037270866,0.052899543,-0.033886217,0.0,0.0,0.0,0.015043682,-0.10718934,0.52549,-0.1682854,-0.09802348,-0.48503706,-0.22745807,-0.11983029,-0.5402155,-0.20765065,0.08403236,-0.4673675,0.25634173,-0.080911316,-0.02404704,-0.051426277,0.005945759,0.018463561,-0.017650457,0.019399878,-0.023626914,0.02703394,0.023875114,-0.056910403,0.03384943,-1.0,1.0,-1.0,-1.0,1.0,-1.0,-1.0,-1.0,-1.0,1.0,-1.0,1.0,-1.0,1.0,-1.0,-1.0,-1.0,-1.0,-1.0,-1.0,-1.0,1.0,-1.0,1.0
2025-06-04 11:53:22.574,0.03458642,-0.03618701,-0.0037576833,-0.024664469,0.0394421,0.042725574,0.0,0.0,0.0,0.015135558,-0.10544056,0.52429837,-0.17414668,-0.10510153,-0.46817893,-0.23492791,-0.11030774,-0.53280324,-0.20560153,0.086117215,-0.47792247,0.25979984,-0.00090849714,0.012532529,-0.00373853,-0.009701426,0.02982023,-0.017960727,-0.055182103,-0.0074859518,0.04757451,0.035880294,0.037725393,-0.004312677,-1.0,1.0,-1.0,-1.0,-1.0,-1.0,-1.0,-1.0,-1.0,1.0,-1.0,1.0,-1.0,1.0,-1.0,-1.0,-1.0,-1.0,-1.0,-1.0,-1.0,1.0,-1.0,1.0
2025-06-04 11:53:22.594,-0.012414611,-0.00869911,0.030253604,-0.043964326,0.028102146,-0.038979292,0.0,0.0,0.0,0.015581054,-0.09891433,0.5195549,-0.18320708,-0.09889535,-0.48156908,-0.2366218,-0.12199826,-0.5356359,-0.21816386,0.098674476,-0.47109774,0.25569013,0.01999919,0.067371525,0.015003205,-0.059812814,-0.0060780575,0.032916673,-0.010646243,-0.0017455032,-0.034169294,-0.060819507,-0.029714877,-0.016754016,-1.0,1.0,-1.0,-1.0,-1.0,-1.0,-1.0,-1.0,-1.0,1.0,-1.0,1.0,-1.0,1.0,-1.0,-1.0,-1.0,-1.0,-1.0,-1.0,-1.0,1.0,-1.0,1.0
2025-06-04 11:53:22.614,-0.07221688,0.044469565,0.049234126,-0.0030209473,0.019679895,-0.0027579535,0.0,0.0,0.0,0.015636245,-0.10701027,0.5199198,-0.16411991,-0.096147135,-0.47874472,-0.21792991,-0.11627569,-0.5303829,-0.21383482,0.08662648,-0.47559956,0.26000744,-0.012271335,0.022788385,0.05319007,-0.010681726,-0.0069211535,0.042985853,-0.06314825,0.021766342,0.02545353,-0.028850596,-0.049862374,0.058925442,-1.0,1.0,-1.0,-1.0,-1.0,-1.0,-1.0,-1.0,-1.0,1.0,-1.0,1.0,-1.0,1.0,-1.0,-1.0,1.0,-1.0,-1.0,-1.0,-1.0,1.0,-1.0,1.0
2025-06-04 11:53:22.636,0.11465743,-0.08950114,-0.03574538,-0.0066302135,0.11004953,0.008751777,0.0,0.0,0.0,0.015136355,-0.10094817,0.52418303,-0.16504788,-0.1031037,-0.4691344,-0.22997336,-0.112485036,-0.54127955,-0.1998586,0.07904279,-0.46655238,0.25525874,-0.020458056,-0.06253937,0.05901817,-0.06516938,0.051792637,-0.0213804,0.06192355,-0.017564364,-0.029840143,0.0048078783,0.08074279,-0.02442853,-1.0,1.0,-1.0,-1.0,1.0,-1.0,-1.0,-1.0,-1.0,1.0,-1.0,1.0,-1.0,1.0,-1.0,-1.0,-1.0,-1.0,-1.0,-1.0,-1.0,1.0,-1.0,1.0
2025-06-04 11:53:22.654,0.025206646,-0.022876805,-0.06262654,-0.070337325,0.08909116,0.02236169,0.0,0.0,0.0,0.015232543,-0.11752322,0.5226814,-0.1696691,-0.10504958,-0.47213626,-0.24368612,-0.119727984,-0.52510154,-0.22080564,0.096797064,-0.47442278,0.2688721,-0.03836416,0.03904725,0.0075097685,0.029078316,-0.0137190055,-0.024043664,-0.020287845,-0.0030907067,-0.0735996,0.04465242,0.028667754,0.03911782,-1.0,1.0,-1.0,-1.0,-1.0,-1.0,-1.0,-1.0,-1.0,1.0,-1.0,1.0,-1.0,1.0,-1.0,-1.0,-1.0,-1.0,-1.0,-1.0,-1.0,1.0,-1.0,1.0
2025-06-04 11:53:22.674,-0.048751477,0.07649709,0.0045238407,-0.01621006,0.06369743,-0.045953594,0.0,0.0,0.0,0.015673818,-0.10617895,0.512911,-0.16916493,-0.10338824,-0.48442888,-0.23914458,-0.11838058,-0.5382469,-0.20481527,0.086655,-0.47177187,0.26024875,0.027572295,0.06578785,0.04534276,0.02536991,0.028613504,0.034272544,0.06797806,-0.080971435,0.044480104,0.06865229,-0.01882297,-0.043346874,-1.0,1.0,-1.0,-1.0,-1.0,-1.0,-1.0,-1.0,-1.0,1.0,-1.0,1.0,-1.0,1.0,-1.0,-1.0,-1.0,-1.0,-1.0,-1.0,-1.0,1.0,-1.0,1.0
2025-06-04 11:53:22.695,-0.008436041,0.029227596,0.030578384,-0.0681189,0.058533493,0.024276914,0.0,0.0,0.0,0.015718807,-0.11127178,0.52383184,-0.178553,-0.09965038,-0.48246133,-0.22603318,-0.10673312,-0.54083765,-0.21302517,0.09460747,-0.47698435,0.26458997,-0.062039673,0.05869625,-0.028322374,-0.049049,-0.021975955,-0.009251968,-0.033798963,-0.057784855,0.018610867,-0.044383213,-0.013654619,-0.009608517,-1.0,1.0,-1.0,-1.0,-1.0,-1.0,-1.0,-1.0,-1.0,1.0,-1.0,1.0,-1.0,1.0,-1.0,-1.0,1.0,-1.0,-1.0,-1.0,-1.0,1.0,-1.0,1.0
2025-06-04 11:53:22.715,0.10996727,-0.09803346,-0.04460939,-0.086022526,0.08724337,0.015402524,0.0,0.0,0.0,0.015211881,-0.10868406,0.51850045,-0.17453702,-0.091474175,-0.480811,-0.23267083,-0.11543745,-0.52856773,-0.20232365,0.08270313,-0.4695118,0.26814964,-0.030181343,0.010820561,-0.03306938,0.04852285,0.020777073,-0.09890024,0.018799992,-0.030362958,-0.07955531,-0.06821505,-0.045318216,0.023281679,-1.0,1.0,-1.0,-1.0,1.0,-1.0,-1.0,-1.0,-1.0,1.0,-1.0,1.0,-1.0,1.0,-1.0,-1.0,-1.0,-1.0,-1.0,-1.0,-1.0,1.0,-1.0,1.0
2025-06-04 11:53:22.736,-0.03059537,0.03517355,0.01197982,0.006398627,0.1120301,0.010632564,0.0,0.0,0.0,0.0153032765,-0.10644094,0.5135914,-0.17648524,-0.09674494,-0.47639328,-0.23163177,-0.11070928,-0.5322437,-0.21789308,0.08179493,-0.47135106,0.26160026,0.072293416,0.057049774,-0.029995266,0.05674648,-0.06633596,-0.029105004,-0.027599279,0.066626236,0.06501702,-0.016394734,0.03550761,0.063634194,-1.0,1.0,-1.0,-1.0,-1.0,-1.0,-1.0,-1.0,-1.0,1.0,-1.0,1.0,-1.0,1.0,-1.0,-1.0,-1.0,-1.0,-1.0,-1.0,-1.0,1.0,-1.0,1.0
2025-06-04 11:53:22.754,-0.050993387,0.037701942,0.012369808,-0.04705644,0.025855515,0.0179212,0.0,0.0,0.0,0.0157384,-0.099814825,0.51618046,-0.17942663,-0.094019614,-0.48588416,-0.22856061,-0.110205516,-0.5396171,-0.22046289,0.086994685,-0.47007123,0.26746264,0.055168074,0.008440264,0.0010101951,0.06542014,0.04130179,0.0064327093,-0.06684758,0.010400811,0.07211908,-0.044793848,-0.019567313,-0.040954355,-1.0,1.0,-1.0,-1.0,-1.0,-1.0,-1.0,-1.0,-1.0,1.0,-1.0,1.0,-1.0,1.0,-1.0,-1.0,-1.0,-1.0,-1.0,-1.0,-1.0,1.0,-1.0,1.0
2025-06-04 11:53:22.775,-0.04275863,0.05581485,-0.006731087,-0.029545376,0.041051246,0.031056408,0.0,0.0,0.0,0.015772894,-0.109413706,0.51224554,-0.1624708,-0.09694698,-0.48861605,-0.22125539,-0.11792227,-0.54243577,-0.20112498,0.09754484,-0.47887307,0.25309452,-0.016765902,0.03682799,-0.029544387,0.017080514,-0.0104651805,-0.00034705127,-0.068341576,-0.013176235,0.04187523,0.037615277,-0.02840484,-0.05254118,-1.0,1.0,-1.0,-1.0,-1.0,-1.0,-1.0,-1.0,-1.0,1.0,-1.0,1.0,-1.0,1.0,-1.0,-1.0,-1.0,-1.0,-1.0,-1.0,-1.0,1.0,-1.0,1.0
2025-06-04 11:53:22.795,-0.08698419,0.11052904,0.019352332,-0.0040255995,0.09591408,0.02139239,0.0,0.0,0.0,0.015258501,-0.106275596,0.5172215,-0.17067914,-0.09978021,-0.49707654,-0.22189021,-0.12113556,-0.54048574,-0.20681389,0.08697714,-0.4823887,0.25266826,0.015027755,0.018203156,-0.0034157266,0.06983183,0.025163336,0.08545969,-0.012591837,-0.07212984,-0.0347585,-0.071579434,0.065994725,-0.03048568,-1.0,1.0,-1.0,-1.0,-1.0,-1.0,-1.0,-1.0,-1.0,1.0,-1.0,1.0,-1.0,1.0,-1.0,-1.0,1.0,-1.0,-1.0,-1.0,-1.0,1.0,-1.0,1.0
2025-06-04 11:53:22.818,0.112015806,-0.122541845,0.0069691804,-0.005185425,0.07881291,0.03919418,0.0,0.0,0.0,0.014316509,-0.09596267,0.5102891,-0.16748945,-0.09334084,-0.48177072,-0.23709477,-0.12340309,-0.5448293,-0.20964263,0.09167519,-0.46585593,0.2655188,0.051445574,-0.012203474,0.025448753,-0.023468338,0.10066156,-0.0943577,-0.06627214,-0.028435659,-0.054610457,-0.060712196,0.05069335,-0.07589284,-1.0,1.0,-1.0,-1.0,1.0,-1.0,-1.0,-1.0,-1.0,1.0,-1.0,1.0,-1.0,1.0,-1.0,-1.0,-1.0,-1.0,-1.0,-1.0,-1.0,1.0,-1.0,1.0
2025-06-04 11:53:22.836,0.00089029426,0.0036614886,-0.012168951,-0.05631152,0.0896722,-0.035571586,0.0,0.0,0.0,0.014196017,-0.10565121,0.52344966,-0.16714153,-0.102956586,-0.49351257,-0.22944947,-0.11448221,-0.5341637,-0.21557774,0.0941673,-0.47089073,0.26833144,-0.0010123979,0.04341976,0.06626867,0.069387615,-0.076946914,0.057254698,-0.0023787958,0.06172103,0.06376759,0.08035628,-0.033732228,-0.009475259,-1.0,1.0,-1.0,-1.0,-1.0,-1.0,-1.0,-1.0,-1.0,1.0,-1.0,1.0,-1.0,1.0,-1.0,-1.0,-1.0,-1.0,-1.0,-1.0,-1.0,1.0,-1.0,1.0
2025-06-04 11:53:22.856,0.0193509,0.07625815,0.021269804,-0.09816895,0.09746299,0.006027305,0.0,0.0,0.0,0.014594706,-0.10892348,0.5114994,-0.16301058,-0.09706835,-0.5012333,-0.21955276,-0.11929482,-0.5313333,-0.2105856,0.080324,-0.48076454,0.2631514,-0.0010963863,0.003318782,0.011061308,0.073753,-0.047516424,0.050797574,0.017516572,0.0037493182,-0.013925802,-0.026168808,0.06727598,0.005712646,-1.0,1.0,-1.0,-1.0,-1.0,-1.0,-1.0,-1.0,-1.0,1.0,-1.0,1.0,-1.0,1.0,-1.0,-1.0,1.0,-1.0,-1.0,-1.0,-1.0,1.0,-1.0,1.0
2025-06-04 11:53:22.875,0.13697053,-0.18711108,-0.03288238,-0.027059335,0.08543765,0.025002813,0.0,0.0,0.0,0.014643824,-0.116258554,0.5136292,-0.1696617,-0.09648871,-0.4722596,-0.23789775,-0.12081497,-0.52284926,-0.22517481,0.091006786,-0.4668536,0.2546926,0.049952947,0.06515725,0.046217103,0.044117153,0.045411564,-0.026901508,-0.067423984,0.05813025,-0.015698813,-0.017061975,0.024678001,-0.05668481,-1.0,1.0,-1.0,-1.0,1.0,-1.0,-1.0,-1.0,-1.0,1.0,-1.0,1.0,-1.0,1.0,-1.0,-1.0,-1.0,-1.0,-1.0,-1.0,-1.0,1.0,-1.0,1.0
2025-06-04 11:53:22.895,-0.050104696,-0.008748144,-0.05935721,-0.035971634,0.08414791,-0.04667679,0.0,0.0,0.0,0.0151644675,-0.109406985,0.53140426,-0.17432237,-0.10547355,-0.46484247,-0.25019443,-0.123891145,-0.5253116,-0.22611272,0.086298056,-0.4747625,0.26165333,0.0288568,0.037148394,0.0026508053,-0.066139005,0.0033950894,0.009729112,-0.05655301,6.99824e-06,-0.0010879397,0.020884542,-0.042545617,-0.05208394,-1.0,1.0,-1.0,-1.0,-1.0,-1.0,-1.0,-1.0,-1.0,1.0,-1.0,1.0,-1.0,1.0,-1.0,-1.0,-1.0,-1.0,-1.0,-1.0,-1.0,1.0,-1.0,1.0
2025-06-04 11:53:22.918,0.021770835,0.011363208,0.044869665,-0.0058992067,0.045955807,0.042718906,0.0,0.0,0.0,0.015813133,-0.10076121,0.5195563,-0.16504702,-0.10440913,-0.48667777,-0.23221356,-0.10723479,-0.53988934,-0.22627029,0.09327778,-0.473197,0.26067308,-0.01652822,0.02953484,0.022566771,-0.028076662,-0.02496126,0.076489285,-0.049728118,-0.050683554,0.026235562,0.040027343,-0.019155815,0.07171404,-1.0,1.0,-1.0,-1.0,-1.0,-1.0,-1.0,-1.0,-1.0,1.0,-1.0,1.0,-1.0,1.0,-1.0,-1.0,1.0,-1.0,-1.0,-1.0,-1.0,1.0,-1.0,1.0
2025-06-04 11:53:22.936,0.0625196,-0.15367346,-0.0723301,-0.039586026,0.111631125,-0.042695414,0.0,0.0,0.0,0.015918544,-0.11224811,0.52322257,-0.17121084,-0.10541873,-0.4521881,-0.25071132,-0.11512157,-0.5314183,-0.22706386,0.093083285,-0.4587217,0.25975022,0.017249357,-0.017754415,-0.029260201,-0.03815595,0.074860565,-0.043129258,0.048050348,-0.019405426,-0.0066563003,0.043232903,-0.05765991,-0.07225103,-1.0,1.0,-1.0,-1.0,1.0,-1.0,-1.0,-1.0,-1.0,1.0,-1.0,1.0,-1.0,1.0,-1.0,-1.0,-1.0,-1.0,-1.0,-1.0,-1.0,1.0,-1.0,1.0
2025-06-04 11:53:22.955,-0.045174487,-0.05159314,-0.05507834,-0.053228855,0.10082076,0.039797075,0.0,0.0,0.0,0.016410485,-0.12354079,0.53732234,-0.16720949,-0.10120032,-0.44992587,-0.25206065,-0.10789062,-0.5184466,-0.22803518,0.08429356,-0.46284533,0.27110595,-0.07097648,-0.040748823,-0.034504563,-0.037430685,-0.063213326,-0.06621653,0.005707351,0.029914023,-0.068088666,-0.04022803,-0.066912554,-0.060301825,-1.0,1.0,-1.0,-1.0,-1.0,-1.0,-1.0,-1.0,-1.0,1.0,-1.0,1.0,-1.0,1.0,-1.0,-1.0,-1.0,-1.0,-1.0,-1.0,-1.0,1.0,-1.0,1.0
2025-06-04 11:53:22.975,-0.011269633,0.024121476,0.004712804,-0.058586564,0.08801752,0.048209958,0.0,0.0,0.0,0.016983245,-0.12107724,0.5362816,-0.16475919,-0.091123484,-0.4646387,-0.24522926,-0.105423756,-0.5269953,-0.20945413,0.099669114,-0.4759342,0.2597545,0.056413118,-0.0145443,-0.04048813,-0.011542244,0.048236694,0.07613035,-0.0512437,-0.045873594,0.0069371196,-0.0029008372,0.0053114244,0.028342381,-1.0,1.0,-1.0,-1.0,-1.0,-1.0,-1.0,-1.0,-1.0,1.0,-1.0,1.0,-1.0,1.0,-1.0,-1.0,-1.0,-1.0,-1.0,-1.0,-1.0,1.0,-1.0,1.0
2025-06-04 11:53:22.996,0.016985757,0.06624098,0.077526435,-0.07541854,0.11411145,0.045946855,0.0,0.0,0.0,0.017059287,-0.10094474,0.519076,-0.16252764,-0.09734589,-0.46712685,-0.23438488,-0.10749943,-0.53377116,-0.21054742,0.098407805,-0.46898907,0.26661056,0.030402632,-0.012185434,-0.030975152,0.05079627,-0.07693364,0.07842039,-0.044823308,-0.048031893,0.010376018,-0.03547068,0.04582476,-0.05014547,-1.0,1.0,-1.0,-1.0,-1.0,-1.0,-1.0,-1.0,-1.0,1.0,-1.0,1.0,-1.0,1.0,-1.0,-1.0,1.0,-1.0,-1.0,-1.0,-1.0,1.0,-1.0,1.0
2025-06-04 11:53:23.019,0.079534315,-0.15225379,-0.031713333,-0.02767715,0.01984252,0.027903216,0.0,0.0,0.0,0.016564233,-0.10280965,0.53308225,-0.16793466,-0.107601516,-0.46511918,-0.24360798,-0.10260618,-0.53817827,-0.20177528,0.08447752,-0.4762762,0.26848468,0.053471442,0.041942198,0.0122240335,-0.013926971,0.098916754,-0.078928165,-0.039494395,0.016744731,-0.021729061,-0.007251466,0.070554115,0.012184678,-1.0,1.0,-1.0,-1.0,1.0,-1.0,-1.0,-1.0,-1.0,1.0,-1.0,1.0,-1.0,1.0,-1.0,-1.0,-1.0,-1.0,-1.0,-1.0,-1.0,1.0,-1.0,1.0
2025-06-04 11:53:23.036,-0.065596625,-0.004508225,0.0037462302,0.020333199,0.041342143,-0.03497525,0.0,0.0,0.0,0.016649602,-0.103097826,0.5397455,-0.17003514,-0.10553447,-0.46478707,-0.24331932,-0.10781288,-0.53443974,-0.20879842,0.093141444,-0.4796812,0.25760123,0.07771878,-0.010382986,0.066951014,0.031521704,0.040746074,0.023610443,0.0145487385,-0.039984863,0.024782293,-0.047498435,-0.040375926,-0.060428496,-1.0,1.0,-1.0,-1.0,-1.0,-1.0,-1.0,-1.0,-1.0,1.0,-1.0,1.0,-1.0,1.0,-1.0,-1.0,-1.0,-1.0,-1.0,-1.0,-1.0,1.0,-1.0,1.0
2025-06-04 11:53:23.056,-0.034049265,0.03753911,0.051631086,-0.008175689,0.06976079,-0.04737836,0.0,0.0,0.0,0.017027209,-0.11223572,0.53173995,-0.16975641,-0.10035127,-0.46712616,-0.25311765,-0.113834865,-0.5238883,-0.20609143,0.09635646,-0.46758008,0.25623578,0.06884358,0.070934504,-0.049388103,0.014188174,-0.028886583,0.058375437,-0.053223286,-0.039721444,-0.0458003,-0.0120175565,-0.03330478,-0.02248537,-1.0,1.0,-1.0,-1.0,-1.0,-1.0,-1.0,-1.0,-1.0,1.0,-1.0,1.0,-1.0,1.0,-1.0,-1.0,1.0,-1.0,-1.0,-1.0,-1.0,1.0,-1.0,1.0
2025-06-04 11:53:23.076,0.12765856,-0.1839133,-0.009084244,0.0083267,0.10643275,-0.01450594,0.0,0.0,0.0,0.017027082,-0.12236027,0.52799565,-0.16977273,-0.09169939,-0.44327128,-0.24476552,-0.113134,-0.5380609,-0.22043046,0.07862491,-0.47579342,0.25796488,-0.08270699,0.03816399,0.06881932,-0.048181344,0.040235326,-0.09975433,-0.04202917,-0.030658042,0.06636746,-0.06929783,0.042470995,0.048266903,-1.0,1.0,-1.0,-1.0,1.0,-1.0,-1.0,-1.0,-1.0,1.0,-1.0,1.0,-1.0,1.0,-1.0,-1.0,-1.0,-1.0,-1.0,-1.0,-1.0,1.0,-1.0,1.0
2025-06-04 11:53:23.097,-0.024420455,0.054131098,0.028499648,-0.023331406,0.07270839,0.03462493,0.0,0.0,0.0,0.017520394,-0.11502287,0.5312797,-0.16082796,-0.09583187,-0.44443297,-0.25860542,-0.09452473,-0.52824897,-0.2163172,0.084996864,-0.4604653,0.25521532,-0.053862847,0.01971039,0.015228471,-0.021571673,0.024751717,0.0047560334,-0.045045637,-0.030117983,-0.059168566,-0.024939196,0.052211657,0.034171514,-1.0,1.0,-1.0,-1.0,-1.0,-1.0,-1.0,-1.0,-1.0,1.0,-1.0,1.0,-1.0,1.0,-1.0,-1.0,1.0,-1.0,-1.0,-1.0,-1.0,1.0,-1.0,1.0
2025-06-04 11:53:23.120,0.097075574,-0.21168639,-0.0573933,0.025699567,0.055108428,-0.02574534,0.0,0.0,0.0,0.018086292,-0.124123074,0.5450484,-0.15598722,-0.09989983,-0.43021777,-0.27767274,-0.10293475,-0.5304392,-0.21236451,0.09390143,-0.47047332,0.2688297,0.016361289,-0.04070853,-0.04028041,0.0035710998,0.1283358,0.015159257,0.036055785,-0.0106438035,0.019899352,-0.012986574,0.07153197,0.0480654,-1.0,1.0,-1.0,-1.0,1.0,-1.0,-1.0,-1.0,-1.0,1.0,-1.0,1.0,-1.0,1.0,-1.0,-1.0,-1.0,-1.0,-1.0,-1.0,-1.0,1.0,-1.0,1.0
2025-06-04 11:53:23.136,-0.02305708,-0.0044953157,-0.0012489461,0.030248035,0.035818644,-0.005577172,0.0,0.0,0.0,0.019133529,-0.11714569,0.55409193,-0.16108452,-0.09822381,-0.4325649,-0.26529536,-0.10618933,-0.5122709,-0.21483412,0.08458183,-0.46231863,0.26796564,-0.053640034,0.0068193926,0.017897984,0.02171153,-0.0431092,0.070716046,0.03520436,0.06679223,-0.07273699,-0.028607143,-0.044044834,-0.056036305,-1.0,1.0,-1.0,-1.0,-1.0,-1.0,-1.0,-1.0,-1.0,1.0,-1.0,1.0,-1.0,1.0,-1.0,-1.0,-1.0,-1.0,-1.0,-1.0,-1.0,1.0,-1.0,1.0
2025-06-04 11:53:23.157,0.0031135287,0.029022777,0.022526478,0.031231463,0.113053404,-0.018845454,0.0,0.0,0.0,0.020013886,-0.12422619,0.5566556,-0.16358097,-0.10742689,-0.42891136,-0.26808983,-0.100495815,-0.5347926,-0.20710789,0.090539835,-0.4696215,0.26642388,0.0337188,-0.025627637,0.049360584,-0.04724757,-0.059617523,0.05904565,0.04498433,0.03314208,-0.01972169,0.03296092,0.01969794,0.051051144,-1.0,1.0,-1.0,-1.0,-1.0,-1.0,-1.0,-1.0,-1.0,1.0,-1.0,1.0,-1.0,1.0,-1.0,-1.0,1.0,-1.0,-1.0,-1.0,-1.0,1.0,-1.0,1.0
2025-06-04 11:53:23.177,0.10679786,-0.17497455,-0.03289029,0.055115405,0.12151902,0.020713007,0.0,0.0,0.0,0.020249158,-0.1281404,0.5528118,-0.16500214,-0.10358399,-0.4051389,-0.2775205,-0.09907396,-0.51779485,-0.21739069,0.07731288,-0.46407983,0.25337324,-0.05677709,0.08462769,0.023016695,0.020450367,0.047510833,-0.0782806,-0.033333726,0.021909337,-0.0122299,0.022656592,-0.035503995,0.009891007,-1.0,1.0,-1.0,-1.0,1.0,-1.0,-1.0,-1.0,-1.0,1.0,-1.0,1.0,-1.0,1.0,-1.0,-1.0,-1.0,-1.0,-1.0,-1.0,-1.0,1.0,-1.0,1.0
2025-06-04 11:53:23.197,-0.03804914,-0.03444833,-0.06814536,-0.024604721,0.11864972,-0.0040504434,0.0,0.0,0.0,0.021082778,-0.12454112,0.55214256,-0.15665266,-0.10252943,-0.40784973,-0.27479163,-0.09469411,-0.519701,-0.21629846,0.09858598,-0.4670064,0.26017174,-0.011696345,0.06740226,-0.049637225,-0.04510362,-0.004377109,-0.04813573,0.03732974,0.024276685,-0.01497876,-0.025237517,0.0013397859,0.037904613,-1.0,1.0,-1.0,-1.0,-1.0,-1.0,-1.0,-1.0,-1.0,1.0,-1.0,1.0,-1.0,1.0,-1.0,-1.0,-1.0,-1.0,-1.0,-1.0,-1.0,1.0,-1.0,1.0
2025-06-04 11:53:23.220,-0.07857846,0.021673514,0.013162889,-0.020505507,0.10979224,-0.043647088,0.0,0.0,0.0,0.021807525,-0.12733579,0.5503002,-0.1425677,-0.09977495,-0.41839832,-0.26515764,-0.08890523,-0.53891414,-0.20254134,0.088650696,-0.47319672,0.25779963,0.08212502,-0.04050938,0.073613875,0.0057430053,-0.07496485,0.013533618,0.05957974,-0.034391675,-0.05991762,0.020939419,0.028245587,-0.004538556,-1.0,1.0,-1.0,-1.0,-1.0,-1.0,-1.0,-1.0,-1.0,1.0,-1.0,1.0,-1.0,1.0,-1.0,-1.0,1.0,-1.0,-1.0,-1.0,-1.0,1.0,-1.0,1.0
2025-06-04 11:53:23.237,0.046361674,-0.08830513,-0.0370524,0.060672298,0.0414061,0.02671047,0.0,0.0,0.0,0.02185208,-0.13040002,0.55652434,-0.15859123,-0.10801919,-0.41113818,-0.27226278,-0.08525178,-0.52600116,-0.21257666,0.093120046,-0.47566655,0.25768033,0.010980513,0.012328033,-0.02601422,0.012359222,0.017467732,-0.017890505,-0.065985635,0.07475427,0.037193336,-0.05528485,0.0019762488,0.05652783,-1.0,1.0,-1.0,-1.0,1.0,-1.0,-1.0,-1.0,-1.0,1.0,-1.0,1.0,-1.0,1.0,-1.0,-1.0,-1.0,-1.0,-1.0,-1.0,-1.0,1.0,-1.0,1.0
2025-06-04 11:53:23.258,0.018280363,0.059126463,-0.021686891,0.045239575,0.07701176,0.03467305,0.0,0.0,0.0,0.02230639,-0.124237865,0.5609495,-0.1425811,-0.11761654,-0.4211394,-0.2706215,-0.0793285,-0.5368389,-0.19943163,0.0878153,-0.4729606,0.25970858,0.03173355,0.043781683,-0.06432405,0.05617877,0.021190064,0.07516875,-0.041640166,0.007217692,0.037274078,-0.02723124,-0.021986958,-0.05458138,-1.0,1.0,-1.0,-1.0,-1.0,-1.0,-1.0,-1.0,-1.0,1.0,-1.0,1.0,-1.0,1.0,-1.0,-1.0,-1.0,-1.0,-1.0,-1.0,-1.0,1.0,-1.0,1.0
2025-06-04 11:53:23.277,-0.08892274,0.020581516,0.048411217,-0.00040171432,0.077719234,0.047906466,0.0,0.0,0.0,0.022716057,-0.12173809,0.565656,-0.14930436,-0.11379831,-0.4185319,-0.2680091,-0.08442705,-0.5287567,-0.20881905,0.080851495,-0.46492416,0.2654944,0.032425754,0.008866114,0.013126759,0.05016295,0.006574298,0.03415091,0.045041922,0.015966421,0.03530298,0.014133025,0.06501478,0.015719479,-1.0,1.0,-1.0,-1.0,-1.0,-1.0,-1.0,-1.0,-1.0,1.0,-1.0,1.0,-1.0,1.0,-1.0,-1.0,1.0,-1.0,-1.0,-1.0,-1.0,1.0,-1.0,1.0
2025-06-04 11:53:23.298,0.024000414,-0.10382935,-0.00021295577,0.037451994,0.065028,-0.036762558,0.0,0.0,0.0,0.022634503,-0.11307882,0.5673854,-0.1531316,-0.11198537,-0.41663367,-0.2736216,-0.080612384,-0.5312742,-0.20223184,0.08413295,-0.47503573,0.26014972,-0.0060166665,-0.021456275,-0.06684293,0.03641397,0.124440074,-0.09694283,0.04790561,0.084566936,0.011503957,0.0067163627,0.02358927,0.030425964,-1.0,1.0,-1.0,-1.0,1.0,-1.0,-1.0,-1.0,-1.0,1.0,-1.0,1.0,-1.0,1.0,-1.0,-1.0,-1.0,-1.0,-1.0,-1.0,-1.0,1.0,-1.0,1.0
2025-06-04 11:53:23.320,-0.047362953,0.025329055,-0.03757901,0.075566985,0.05904781,0.008631031,0.0,0.0,0.0,0.023154162,-0.11669194,0.5663758,-0.14695197,-0.113472715,-0.40964425,-0.2787764,-0.075400725,-0.5339222,-0.21097814,0.08293028,-0.48011923,0.26273182,0.058788437,0.012778837,0.031951938,0.052157883,0.009091451,0.029011767,-0.051710885,-0.017403355,0.035517987,0.04130088,0.036461204,0.029433368,-1.0,1.0,-1.0,-1.0,-1.0,-1.0,-1.0,-1.0,-1.0,1.0,-1.0,1.0,-1.0,1.0,-1.0,-1.0,-1.0,-1.0,-1.0,-1.0,-1.0,1.0,-1.0,1.0
2025-06-04 11:53:23.337,-0.0744014,0.047686953,0.056898966,0.03051081,0.07204429,0.025534932,0.0,0.0,0.0,0.023625787,-0.10576878,0.57199436,-0.1509777,-0.10708209,-0.4271233,-0.27033743,-0.07703178,-0.5427401,-0.2020859,0.08928535,-0.47434908,0.26442268,-0.038856085,0.054995652,-0.01168227,0.07919602,0.022551164,-0.045860462,0.049526695,0.050673943,-0.06436961,0.004513896,-0.06696852,0.04418926,-1.0,1.0,-1.0,-1.0,-1.0,-1.0,-1.0,-1.0,-1.0,1.0,-1.0,1.0,-1.0,1.0,-1.0,-1.0,1.0,-1.0,-1.0,-1.0,-1.0,1.0,-1.0,1.0
2025-06-04 11:53:23.359,0.10548132,-0.068780795,-0.0025521114,0.048877455,0.08515937,0.020569513,0.0,0.0,0.0,0.023510873,-0.1093542,0.5807338,-0.1343681,-0.102684624,-0.4017198,-0.2876163,-0.07402578,-0.53568864,-0.2113661,0.08277418,-0.47885537,0.25212836,-0.024178803,0.043003164,-0.012984512,-0.0075448845,-0.0031825542,0.03213617,0.031704646,-0.038585555,-0.039848644,0.060536668,0.01399111,-0.02777132,-1.0,1.0,-1.0,-1.0,1.0,-1.0,-1.0,-1.0,-1.0,1.0,-1.0,1.0,-1.0,1.0,-1.0,-1.0,-1.0,-1.0,-1.0,-1.0,-1.0,1.0,-1.0,1.0
2025-06-04 11:53:23.379,-0.05679101,0.056100275,0.02105803,0.007804544,0.1153465,-0.045195106,0.0,0.0,0.0,0.023864597,-0.11343358,0.578564,-0.15280806,-0.101662464,-0.42272303,-0.27479622,-0.0740702,-0.52555007,-0.2069899,0.09616684,-0.47968465,0.2696231,-0.0579028,0.034163833,-0.012974192,-0.05759013,-0.009329982,-0.029786555,0.047453336,0.054298673,-0.067396134,0.051763356,0.029833708,0.010941671,-1.0,1.0,-1.0,-1.0,-1.0,-1.0,-1.0,-1.0,-1.0,1.0,-1.0,1.0,-1.0,1.0,-1.0,-1.0,-1.0,-1.0,-1.0,-1.0,-1.0,1.0,-1.0,1.0
2025-06-04 11:53:23.400,-0.0068508275,0.0715144,0.004242847,-0.023253055,0.060740758,0.026167534,0.0,0.0,0.0,0.024182383,-0.12079989,0.56913596,-0.14511581,-0.11196394,-0.42642537,-0.27940336,-0.07021614,-0.53781563,-0.20198518,0.090367734,-0.46807885,0.26062763,0.016807929,-0.06899552,-0.03148445,0.058902808,-0.0055813184,-0.018200103,-0.059554126,-0.07826105,0.014831417,-0.06508179,0.06487477,-0.04908909,-1.0,1.0,-1.0,-1.0,-1.0,-1.0,-1.0,-1.0,-1.0,1.0,-1.0,1.0,-1.0,1.0,-1.0,-1.0,1.0,-1.0,-1.0,-1.0,-1.0,1.0,-1.0,1.0
2025-06-04 11:53:23.420,0.11710328,-0.1418435,-0.06694032,0.060251888,0.069871865,-0.031428672,0.0,0.0,0.0,0.023991197,-0.11737636,0.5813511,-0.13621806,-0.10814064,-0.42135987,-0.2842221,-0.078789495,-0.53831583,-0.20740303,0.08999333,-0.47065505,0.26963863,0.019748153,0.064440615,-0.033001408,0.04866317,0.07956311,-0.047901683,0.0074076904,0.018883167,-0.056150857,-0.04538374,-0.06537172,-0.022147281,-1.0,1.0,-1.0,-1.0,1.0,-1.0,-1.0,-1.0,-1.0,1.0,-1.0,1.0,-1.0,1.0,-1.0,-1.0,-1.0,-1.0,-1.0,-1.0,-1.0,1.0,-1.0,1.0
2025-06-04 11:53:23.439,-0.06278974,-0.0019865995,0.024733352,0.051835094,0.0867138,0.0018313234,0.0,0.0,0.0,0.024325194,-0.1262075,0.5694411,-0.15151626,-0.107217744,-0.41764623,-0.2804051,-0.0864265,-0.53336847,-0.21330848,0.079599574,-0.46662277,0.26583785,0.0011509495,0.04032471,-0.046754457,0.06048574,-0.026621735,0.007611437,0.03871423,-0.014325065,0.06346002,0.074940056,0.008787966,-0.015095134,-1.0,1.0,-1.0,-1.0,-1.0,-1.0,-1.0,-1.0,-1.0,1.0,-1.0,1.0,-1.0,1.0,-1.0,-1.0,-1.0,-1.0,-1.0,-1.0,-1.0,1.0,-1.0,1.0
2025-06-04 11:53:23.459,-0.025821446,0.029497819,0.031671006,0.06735996,0.035856888,0.039328117,0.0,0.0,0.0,0.024636675,-0.1117587,0.58344793,-0.14084396,-0.11879997,-0.43223625,-0.28028136,-0.0782531,-0.5410324,-0.20529325,0.089147374,-0.47036448,0.26944858,-0.022864513,-0.04282461,0.043559738,0.016570922,-0.069296554,-0.013170648,-0.051723152,-0.08226388,-0.06914626,-0.054608475,0.024238072,-0.009847565,-1.0,1.0,-1.0,-1.0,-1.0,-1.0,-1.0,-1.0,-1.0,1.0,-1.0,1.0,-1.0,1.0,-1.0,-1.0,1.0,-1.0,-1.0,-1.0,-1.0,1.0,-1.0,1.0
2025-06-04 11:53:23.479,0.07814104,-0.13234323,-0.062478933,0.041290846,0.12480081,-0.014737889,0.0,0.0,0.0,0.024424788,-0.11171076,0.577271,-0.1417565,-0.11384079,-0.41461253,-0.28943655,-0.0752825,-0.5462662,-0.20661154,0.08433116,-0.46582136,0.2691737,-0.05749155,-0.031710044,0.026683884,0.0019427112,0.11386785,0.035141602,0.011835234,-0.0012593733,0.0071992087,-0.06592267,0.07784158,-0.06505816,-1.0,1.0,-1.0,-1.0,1.0,-1.0,-1.0,-1.0,-1.0,1.0,-1.0,1.0,-1.0,1.0,-1.0,-1.0,-1.0,-1.0,-1.0,-1.0,-1.0,1.0,-1.0,1.0
2025-06-04 11:53:23.502,-0.028749233,0.03689738,0.027188696,0.04833,0.085140266,0.046509627,0.0,0.0,0.0,0.024722075,-0.11886671,0.5788089,-0.14261492,-0.10533416,-0.42995644,-0.27896503,-0.08669959,-0.54449993,-0.21235713,0.09202213,-0.48034674,0.26646197,0.0005013552,0.04042159,-0.012809669,0.05386286,-0.012491307,-0.04920897,0.07861215,-0.029547857,0.0190382,-0.023839304,-0.04438637,-0.06416185,-1.0,1.0,-1.0,-1.0,-1.0,-1.0,-1.0,-1.0,-1.0,1.0,-1.0,1.0,-1.0,1.0,-1.0,-1.0,-1.0,-1.0,-1.0,-1.0,-1.0,1.0,-1.0,1.0
2025-06-04 11:53:23.519,-0.028649934,0.035674516,0.019396916,0.03708703,0.11692821,0.029328533,0.0,0.0,0.0,0.025005747,-0.10933001,0.5797273,-0.14664407,-0.10231122,-0.4394166,-0.2792293,-0.0711688,-0.54945934,-0.21485484,0.099064566,-0.46374255,0.26460662,0.07895704,-0.0071264287,-0.011275168,0.013857364,-0.06412494,0.06758946,0.03153829,-0.07150494,0.025186958,-0.029459951,0.046402253,0.03959472,-1.0,1.0,-1.0,-1.0,-1.0,-1.0,-1.0,-1.0,-1.0,1.0,-1.0,1.0,-1.0,1.0,-1.0,-1.0,1.0,-1.0,-1.0,-1.0,-1.0,1.0,-1.0,1.0
2025-06-04 11:53:23.539,0.038832765,-0.15417534,-0.026443388,-0.01739594,0.052429948,-0.04536162,0.0,0.0,0.0,0.024768474,-0.12455244,0.5867753,-0.13337983,-0.10815495,-0.4287735,-0.28289565,-0.08639723,-0.5368171,-0.21621205,0.092375435,-0.4617395,0.26612675,0.018436167,-0.061507396,-0.07041238,0.05029292,0.009337618,-0.102875054,0.0210648,0.0022637583,0.06676446,-0.01860263,-0.063437834,-0.010482212,-1.0,1.0,-1.0,-1.0,1.0,-1.0,-1.0,-1.0,-1.0,1.0,-1.0,1.0,-1.0,1.0,-1.0,-1.0,-1.0,-1.0,-1.0,-1.0,-1.0,1.0,-1.0,1.0
2025-06-04 11:53:23.559,0.010193273,0.02945191,-0.0141859,0.0377339,0.09402229,-0.03235739,0.0,0.0,0.0,0.025039153,-0.11246666,0.58316404,-0.15185541,-0.11157802,-0.4279929,-0.28008032,-0.07021881,-0.5504033,-0.20902415,0.08345761,-0.4670642,0.25574702,-0.011461618,0.054213457,0.004202143,-0.044326138,-0.08358557,-0.06291961,-0.0683057,-0.04164402,-0.010062156,0.029456075,0.05046883,0.07054612,-1.0,1.0,-1.0,-1.0,-1.0,-1.0,-1.0,-1.0,-1.0,1.0,-1.0,1.0,-1.0,1.0,-1.0,-1.0,-1.0,-1.0,-1.0,-1.0,-1.0,1.0,-1.0,1.0
2025-06-04 11:53:23.579,-0.02161631,0.04960309,0.0069495738,0.024386436,0.066423975,0.04159645,0.0,0.0,0.0,0.025308121,-0.10927723,0.5696824,-0.13754505,-0.111408025,-0.4414302,-0.26759046,-0.07391452,-0.5508886,-0.21731396,0.087868415,-0.4737748,0.25337964,-0.005461892,0.059886064,0.07170845,0.055281613,0.0014386923,0.09363818,-0.06296349,0.03545472,0.013817003,-0.039989512,0.055754326,0.05318983,-1.0,1.0,-1.0,-1.0,-1.0,-1.0,-1.0,-1.0,-1.0,1.0,-1.0,1.0,-1.0,1.0,-1.0,-1.0,-1.0,-1.0,-1.0,-1.0,-1.0,1.0,-1.0,1.0
2025-06-04 11:53:23.603,-0.11609836,0.10016741,0.056089927,-0.007047897,0.11860034,0.02902187,0.0,0.0,0.0,0.02505729,-0.09896153,0.5718321,-0.13205296,-0.11413328,-0.4388166,-0.26463324,-0.074595094,-0.5479205,-0.20125169,0.09944753,-0.46595708,0.25269437,-0.022332294,0.0501902,0.012151887,-0.008307498,-0.10653515,0.06832158,0.01149527,0.024935028,0.05661305,0.048951276,-0.03363202,0.009207547,-1.0,1.0,-1.0,-1.0,-1.0,-1.0,-1.0,-1.0,-1.0,1.0,-1.0,1.0,-1.0,1.0,-1.0,-1.0,1.0,-1.0,-1.0,-1.0,-1.0,1.0,-1.0,1.0
2025-06-04 11:53:23.619,0.021761818,-0.117839545,0.0026893802,0.064411305,0.10562613,0.045673955,0.0,0.0,0.0,0.024274228,-0.11261787,0.5747867,-0.13505432,-0.122696474,-0.43075344,-0.27842456,-0.08127197,-0.54499507,-0.20207737,0.08147427,-0.46385267,0.25315097,0.04156936,0.008242372,0.0027721357,0.030108469,0.07421444,0.025775848,0.02546734,0.016559143,-0.044168137,-0.04819613,-0.025494287,0.004154592,-1.0,1.0,-1.0,-1.0,1.0,-1.0,-1.0,-1.0,-1.0,1.0,-1.0,1.0,-1.0,1.0,-1.0,-1.0,-1.0,-1.0,-1.0,-1.0,-1.0,1.0,-1.0,1.0
2025-06-04 11:53:23.640,-0.07576956,0.05863802,-0.012962486,0.00860571,0.033090502,-0.02498487,0.0,0.0,0.0,0.024153247,-0.10273764,0.57498455,-0.14809524,-0.12114377,-0.43591234,-0.2712877,-0.08543591,-0.54163027,-0.21035542,0.09675155,-0.46386716,0.26281807,-0.031810503,-0.0063871806,0.022538697,0.0020092025,0.007281083,0.0018403856,-0.04987821,-0.055180546,-0.0803286,-0.04380347,-0.05530982,0.046758406,-1.0,1.0,-1.0,-1.0,-1.0,-1.0,-1.0,-1.0,-1.0,1.0,-1.0,1.0,-1.0,1.0,-1.0,-1.0,-1.0,-1.0,-1.0,-1.0,-1.0,1.0,-1.0,1.0
2025-06-04 11:53:23.659,-0.07805772,0.07830673,-0.01446543,-0.034866065,0.11815763,-0.025898688,0.0,0.0,0.0,0.024273356,-0.10820124,0.57680076,-0.14606237,-0.11673087,-0.44416305,-0.25771213,-0.07877411,-0.55822027,-0.2236,0.09769891,-0.48149168,0.2596049,-0.019538833,0.03536413,-0.029197646,-0.040135745,-0.08404681,0.052756604,-0.047914214,-0.032755733,-0.02585641,-0.00932464,0.063352555,-0.071415536,-1.0,1.0,-1.0,-1.0,-1.0,-1.0,-1.0,-1.0,-1.0,1.0,-1.0,1.0,-1.0,1.0,-1.0,-1.0,-1.0,-1.0,-1.0,-1.0,-1.0,1.0,-1.0,1.0
2025-06-04 11:53:23.681,-0.11813974,0.097549275,0.025179617,-0.008442191,0.121681206,0.02689174,0.0,0.0,0.0,0.023966523,-0.0959957,0.5658985,-0.14880769,-0.10077266,-0.4760647,-0.25871417,-0.09319577,-0.55579966,-0.21466812,0.098644406,-0.48269084,0.25538972,0.084387936,-0.015209838,0.015946176,0.07693426,-0.026772322,0.030240895,0.016199352,0.017459719,0.027404921,0.01956581,-0.071931176,-0.044679146,-1.0,1.0,-1.0,-1.0,-1.0,-1.0,-1.0,-1.0,-1.0,1.0,-1.0,1.0,-1.0,1.0,-1.0,-1.0,-1.0,-1.0,-1.0,-1.0,-1.0,1.0,-1.0,1.0
2025-06-04 11:53:23.703,-0.1181604,0.106811225,0.08576713,-0.020319495,0.08435938,0.014154067,0.0,0.0,0.0,0.023188833,-0.09015968,0.5567925,-0.14365277,-0.11540644,-0.49691626,-0.23999691,-0.095119864,-0.5607273,-0.21456763,0.08263765,-0.46372893,0.26048392,0.016975518,0.03683175,-0.035253286,0.014541877,-0.09789092,0.0396016,0.003032183,-0.06801955,-0.06225104,-0.055208117,-0.00092443445,0.06201466,-1.0,1.0,-1.0,-1.0,-1.0,-1.0,-1.0,-1.0,-1.0,1.0,-1.0,1.0,-1.0,1.0,-1.0,-1.0,1.0,-1.0,-1.0,-1.0,-1.0,1.0,-1.0,1.0
2025-06-04 11:53:23.720,0.06293732,-0.07992949,-0.049021732,0.03521013,0.055590212,-0.019789848,0.0,0.0,0.0,0.022104053,-0.096188806,0.56507427,-0.14330848,-0.109611586,-0.48220292,-0.25721726,-0.08956533,-0.5565313,-0.21287535,0.08868268,-0.46701512,0.25421494,0.003260281,0.03991267,-0.050044794,-0.056656253,0.0709493,-0.037690286,-0.01453944,-0.005159636,-0.01085453,0.024805062,0.05252185,-0.059789423,-1.0,1.0,-1.0,-1.0,1.0,-1.0,-1.0,-1.0,-1.0,1.0,-1.0,1.0,-1.0,1.0,-1.0,-1.0,-1.0,-1.0,-1.0,-1.0,-1.0,1.0,-1.0,1.0
2025-06-04 11:53:23.741,-0.0698087,0.10439499,0.009990064,-0.06566717,0.07871499,0.0064631305,0.0,0.0,0.0,0.021883953,-0.10703068,0.56002367,-0.14330068,-0.11368808,-0.48220307,-0.2512982,-0.10110725,-0.55451655,-0.23187496,0.094874024,-0.4780119,0.26377544,0.051468104,0.016855856,0.043048576,-0.010949495,-0.05902319,0.056110274,-0.052049804,0.002028595,-0.01964096,-0.034560017,-0.010253983,0.006347593,-1.0,1.0,-1.0,-1.0,-1.0,-1.0,-1.0,-1.0,-1.0,1.0,-1.0,1.0,-1.0,1.0,-1.0,-1.0,-1.0,-1.0,-1.0,-1.0,-1.0,1.0,-1.0,1.0
2025-06-04 11:53:23.762,-0.058193382,0.13457258,-0.018827872,-0.029486788,0.10286981,-0.04315159,0.0,0.0,0.0,0.022121517,-0.104599155,0.55190444,-0.15192905,-0.12137182,-0.4938418,-0.23989944,-0.09487837,-0.5617907,-0.23274755,0.08005894,-0.46925798,0.26481113,-0.015363508,-0.0032253987,0.024933811,0.03661589,-0.08260561,-0.04605927,-0.059568506,0.012961799,-0.040347088,0.05267514,0.04864506,0.029978383,-1.0,1.0,-1.0,-1.0,-1.0,-1.0,-1.0,-1.0,-1.0,1.0,-1.0,1.0,-1.0,1.0,-1.0,-1.0,-1.0,-1.0,-1.0,-1.0,-1.0,1.0,-1.0,1.0
2025-06-04 11:53:23.784,-0.06994964,0.084188275,0.043406136,0.00872069,0.07969952,0.04968387,0.0,0.0,0.0,0.022001116,-0.10275731,0.55504906,-0.14656399,-0.12007182,-0.5056641,-0.23197228,-0.093681216,-0.55503494,-0.22291525,0.08983273,-0.4771207,0.26004133,0.039401397,-0.049414285,-0.07567541,0.06570647,-0.08962874,-0.04030069,0.057408918,-0.0022978727,0.042044546,0.040901545,-0.004866472,0.023314187,-1.0,1.0,-1.0,-1.0,-1.0,-1.0,-1.0,-1.0,-1.0,1.0,-1.0,1.0,-1.0,1.0,-1.0,-1.0,1.0,-1.0,-1.0,-1.0,-1.0,1.0,-1.0,1.0
2025-06-04 11:53:23.803,0.04025922,-0.09329834,-0.06814575,-0.046566006,0.08526396,-0.03042344,0.0,0.0,0.0,0.021421088,-0.10590688,0.5595891,-0.15726577,-0.11701869,-0.5013769,-0.24294159,-0.105493575,-0.5616458,-0.24122824,0.07587069,-0.46779814,0.26016453,-0.054986436,-0.021868192,0.03713493,0.038593907,-0.0026295308,0.001566729,-0.026726212,-0.0049288245,-0.050654806,-0.010135259,0.001057511,-0.055635277,-1.0,1.0,-1.0,-1.0,1.0,-1.0,-1.0,-1.0,-1.0,1.0,-1.0,1.0,-1.0,1.0,-1.0,-1.0,-1.0,-1.0,-1.0,-1.0,-1.0,1.0,-1.0,1.0
2025-06-04 11:53:23.822,-0.041051902,0.05187251,-0.03904963,-0.061113153,0.06054653,-0.021383064,0.0,0.0,0.0,0.021468092,-0.104573414,0.55683297,-0.15624721,-0.12579851,-0.49595606,-0.2582346,-0.104395635,-0.5451764,-0.23680253,0.09546195,-0.4767245,0.26240772,0.009522497,-0.06063102,-0.07524102,0.00081608404,-0.0326785,-0.008360092,-0.054979246,0.058056537,0.04722176,0.06728693,0.06514717,-0.011399294,-1.0,1.0,-1.0,-1.0,-1.0,-1.0,-1.0,-1.0,-1.0,1.0,-1.0,1.0,-1.0,1.0,-1.0,-1.0,-1.0,-1.0,-1.0,-1.0,-1.0,1.0,-1.0,1.0
2025-06-04 11:53:23.842,-0.060742166,0.031570666,0.0409419,0.008768918,0.037782665,-0.04237519,0.0,0.0,0.0,0.02183931,-0.09960375,0.54539394,-0.16157009,-0.106714025,-0.49743482,-0.24949656,-0.111699805,-0.5482228,-0.2461528,0.091347106,-0.46163583,0.26740885,0.014607725,0.0026935262,-0.02699665,-0.011900604,-0.07473046,0.07182595,-0.07216065,0.062083952,0.01012417,0.017403387,-0.048122995,-0.012548165,-1.0,1.0,-1.0,-1.0,-1.0,-1.0,-1.0,-1.0,-1.0,1.0,-1.0,1.0,-1.0,1.0,-1.0,-1.0,-1.0,-1.0,-1.0,-1.0,-1.0,1.0,-1.0,1.0
2025-06-04 11:53:23.862,-0.07212771,0.093107976,0.048004936,-0.05021404,0.064052194,-0.014317316,0.0,0.0,0.0,0.021784842,-0.103904694,0.5505661,-0.14856747,-0.105720766,-0.5133876,-0.23141436,-0.110579245,-0.55946046,-0.24828427,0.09396791,-0.4660537,0.26347837,-0.012381088,-0.046781566,0.06413639,0.011027656,-0.047359563,0.04133197,0.03531806,0.03260504,0.031479552,0.04499528,-0.051043585,0.028529694,-1.0,1.0,-1.0,-1.0,-1.0,-1.0,-1.0,-1.0,-1.0,1.0,-1.0,1.0,-1.0,1.0,-1.0,-1.0,1.0,-1.0,-1.0,-1.0,-1.0,1.0,-1.0,1.0
2025-06-04 11:53:23.884,0.10232499,-0.08609221,-0.052402806,-0.050220456,0.042953167,0.005494023,0.0,0.0,0.0,0.021243664,-0.09274487,0.55335003,-0.15928207,-0.116205,-0.49498543,-0.24441361,-0.099383466,-0.5521386,-0.24363291,0.08622622,-0.4651299,0.2669686,0.051711354,-0.027991815,0.05403272,0.013328154,0.053518396,-0.03971898,-0.083495885,0.042128097,0.028048338,-0.07908172,0.026917398,-0.05421608,-1.0,1.0,-1.0,-1.0,1.0,-1.0,-1.0,-1.0,-1.0,1.0,-1.0,1.0,-1.0,1.0,-1.0,-1.0,-1.0,-1.0,-1.0,-1.0,-1.0,1.0,-1.0,1.0
2025-06-04 11:53:23.902,-0.025846167,-0.032686893,-0.009786929,-0.031271957,0.060255703,0.030131137,0.0,0.0,0.0,0.021315394,-0.09793204,0.5483089,-0.15716586,-0.11578067,-0.5041446,-0.24496771,-0.1033574,-0.5433425,-0.24309422,0.07985167,-0.47390333,0.26901898,0.03210638,-0.015533773,0.024114141,-0.05191492,0.045655243,-0.021369405,0.04693575,0.0068527116,0.05800182,-0.022448298,0.009974204,-0.021329073,-1.0,1.0,-1.0,-1.0,-1.0,-1.0,-1.0,-1.0,-1.0,1.0,-1.0,1.0,-1.0,1.0,-1.0,-1.0,-1.0,-1.0,-1.0,-1.0,-1.0,1.0,-1.0,1.0
2025-06-04 11:53:23.923,-0.06705335,0.07380795,0.04524569,-0.06519795,0.05093621,-0.0007743513,0.0,0.0,0.0,0.02171079,-0.09850998,0.5479503,-0.16165048,-0.113011874,-0.5058857,-0.24988498,-0.10960332,-0.5628897,-0.25080764,0.098453574,-0.47597125,0.25221157,-0.068417475,-0.029553551,0.014453825,0.029171089,0.009641158,-0.050463382,-0.015681855,-0.06720075,-0.037617665,0.06710314,-0.017691068,-0.0034924438,-1.0,1.0,-1.0,-1.0,-1.0,-1.0,-1.0,-1.0,-1.0,1.0,-1.0,1.0,-1.0,1.0,-1.0,-1.0,1.0,-1.0,-1.0,-1.0,-1.0,1.0,-1.0,1.0
2025-06-04 11:53:23.943,0.13761836,-0.20092383,-0.06100051,0.022678623,0.077930704,0.004332776,0.0,0.0,0.0,0.02168662,-0.11427211,0.55342716,-0.15282798,-0.12813492,-0.47882748,-0.2534135,-0.113338,-0.5568666,-0.24122003,0.09165598,-0.45895013,0.2603574,0.00834283,0.04833962,-0.013760939,-0.02436208,0.042227685,-0.01527742,-0.071294636,0.0851489,0.0041913954,-0.08268238,0.024696574,0.049452066,-1.0,1.0,-1.0,-1.0,1.0,-1.0,-1.0,-1.0,-1.0,1.0,-1.0,1.0,-1.0,1.0,-1.0,-1.0,-1.0,-1.0,-1.0,-1.0,-1.0,1.0,-1.0,1.0
2025-06-04 11:53:23.965,-0.020733006,-0.005337301,0.033135403,-0.038213946,0.07649787,-0.029024437,0.0,0.0,0.0,0.022119263,-0.0993296,0.5583142,-0.16044201,-0.11038623,-0.48886782,-0.26197734,-0.10445911,-0.5460684,-0.23580474,0.08195807,-0.47385362,0.2554163,-0.03979268,0.047164757,-0.010221751,0.0495997,-0.0457692,0.049072653,0.062482417,0.053036503,0.046994604,-0.039226253,-0.076937675,0.010262118,-1.0,1.0,-1.0,-1.0,-1.0,-1.0,-1.0,-1.0,-1.0,1.0,-1.0,1.0,-1.0,1.0,-1.0,-1.0,-1.0,-1.0,-1.0,-1.0,-1.0,1.0,-1.0,1.0
2025-06-04 11:53:23.986,0.031198936,0.04907292,-0.0057000145,0.003692859,0.08010178,0.004474393,0.0,0.0,0.0,0.022632906,-0.108073495,0.54486686,-0.16032583,-0.11561615,-0.48126504,-0.24255203,-0.09714015,-0.5481794,-0.24061917,0.0904389,-0.46511322,0.2612167,0.034754213,0.059119895,-0.040209994,-0.05121012,0.041435838,0.079598196,0.030895183,-0.06360973,0.047106378,0.018714795,0.0043137306,0.04991918,-1.0,1.0,-1.0,-1.0,-1.0,-1.0,-1.0,-1.0,-1.0,1.0,-1.0,1.0,-1.0,1.0,-1.0,-1.0,-1.0,-1.0,-1.0,-1.0,-1.0,1.0,-1.0,1.0
2025-06-04 11:53:24.003,-0.04815473,0.091385156,0.017440772,0.013328125,0.03937768,0.017527621,0.0,0.0,0.0,0.022590559,-0.10175817,0.5534752,-0.16419946,-0.119094625,-0.49807355,-0.23626502,-0.098754115,-0.5507375,-0.24504542,0.09492675,-0.46993855,0.251928,-0.045063414,-0.07815152,-0.016837483,0.03865135,-0.041878633,-0.02779943,-0.0028706104,-0.08752892,0.02525807,-0.026870511,0.013433461,-0.07156933,-1.0,1.0,-1.0,-1.0,-1.0,-1.0,-1.0,-1.0,-1.0,1.0,-1.0,1.0,-1.0,1.0,-1.0,-1.0,1.0,-1.0,-1.0,-1.0,-1.0,1.0,-1.0,1.0
2025-06-04 11:53:24.023,0.086095706,-0.17208143,0.0125851715,-0.033847,0.036222763,0.025428038,0.0,0.0,0.0,0.022020565,-0.104237154,0.5476394,-0.14825393,-0.11170724,-0.4717689,-0.25787616,-0.10954081,-0.5454825,-0.22777079,0.08964347,-0.4650725,0.2635365,0.02193738,-0.044830337,-0.029732801,-0.08339425,0.07472819,-0.024817409,-0.07728765,-0.023524335,-0.03611631,-0.047547102,0.07871369,0.0283992,-1.0,1.0,-1.0,-1.0,1.0,-1.0,-1.0,-1.0,-1.0,1.0,-1.0,1.0,-1.0,1.0,-1.0,-1.0,-1.0,-1.0,-1.0,-1.0,-1.0,1.0,-1.0,1.0
2025-06-04 11:53:24.043,-0.0023728334,-0.03293694,0.028099634,-0.027454643,0.091042876,-0.035155315,0.0,0.0,0.0,0.022091523,-0.10117526,0.54935116,-0.15719657,-0.11050629,-0.47648796,-0.2629295,-0.09674915,-0.55783415,-0.23757206,0.094334565,-0.46404895,0.26224712,-0.008119138,0.0565821,0.015006554,-0.06818289,-0.06326817,-0.0023412115,0.049889736,0.03661786,0.07255587,0.052731242,0.036058918,-0.07186338,-1.0,1.0,-1.0,-1.0,-1.0,-1.0,-1.0,-1.0,-1.0,1.0,-1.0,1.0,-1.0,1.0,-1.0,-1.0,-1.0,-1.0,-1.0,-1.0,-1.0,1.0,-1.0,1.0
2025-06-04 11:53:24.066,-0.031983767,0.03135936,-0.022772744,-0.010086577,0.118987694,-0.0010441698,0.0,0.0,0.0,0.022439517,-0.10371975,0.55327535,-0.15068427,-0.11627148,-0.47179914,-0.25801432,-0.10123571,-0.55562866,-0.23937014,0.09180555,-0.478142,0.268779,0.0067030326,-0.017337525,0.04805104,-0.05650271,0.032826126,0.013332884,-0.0061857197,-0.055779886,0.023418738,0.06590865,-0.046078853,-0.033373572,-1.0,1.0,-1.0,-1.0,-1.0,-1.0,-1.0,-1.0,-1.0,1.0,-1.0,1.0,-1.0,1.0,-1.0,-1.0,-1.0,-1.0,-1.0,-1.0,-1.0,1.0,-1.0,1.0
2025-06-04 11:53:24.086,-0.0134848915,0.102420576,0.05425613,0.012384806,0.08053109,0.029723627,0.0,0.0,0.0,0.022366168,-0.10670194,0.56004256,-0.14602175,-0.11853809,-0.4845158,-0.23364094,-0.10767743,-0.56152844,-0.22782671,0.08673558,-0.47098556,0.26558864,0.07669467,-0.036556356,0.0043746764,0.0021693353,-0.097056895,-0.004819331,-0.030098407,-0.057909403,0.050610233,-0.039075118,0.058931712,-0.048517182,-1.0,1.0,-1.0,-1.0,-1.0,-1.0,-1.0,-1.0,-1.0,1.0,-1.0,1.0,-1.0,1.0,-1.0,-1.0,1.0,-1.0,-1.0,-1.0,-1.0,1.0,-1.0,1.0
2025-06-04 11:53:24.104,0.096319035,-0.09948824,-0.05089602,0.008612262,0.06844212,-0.022401473,0.0,0.0,0.0,0.02182237,-0.103137545,0.5464361,-0.15627141,-0.1167812,-0.483142,-0.24226207,-0.09350129,-0.55408037,-0.23748064,0.080692716,-0.46679074,0.26606458,-0.005373354,0.007856136,-0.018052638,-0.02455065,0.11881847,-0.061135627,-0.076637246,0.060957875,-0.06453566,-0.04386001,-0.052449945,-0.07132121,-1.0,1.0,-1.0,-1.0,1.0,-1.0,-1.0,-1.0,-1.0,1.0,-1.0,1.0,-1.0,1.0,-1.0,-1.0,-1.0,-1.0,-1.0,-1.0,-1.0,1.0,-1.0,1.0
2025-06-04 11:53:24.124,0.021761773,-0.016808389,-0.0010763995,-0.0418331,0.08227849,0.009092632,0.0,0.0,0.0,0.021935258,-0.09562332,0.5566537,-0.1502479,-0.11510668,-0.46603468,-0.26402357,-0.11042856,-0.5502054,-0.23768325,0.09311146,-0.47616914,0.27086425,0.018855851,-0.06721839,0.018481696,-0.0062658233,0.042880166,-0.012191566,-0.04726559,-0.049877685,0.065340005,0.051304307,0.026664883,-0.04998655,-1.0,1.0,-1.0,-1.0,-1.0,-1.0,-1.0,-1.0,-1.0,1.0,-1.0,1.0,-1.0,1.0,-1.0,-1.0,-1.0,-1.0,-1.0,-1.0,-1.0,1.0,-1.0,1.0
2025-06-04 11:53:24.144,-0.01815601,0.0642048,-0.0039772224,0.012324503,0.115796395,0.026583564,0.0,0.0,0.0,0.022314284,-0.105210826,0.5534864,-0.15256199,-0.110950194,-0.47974482,-0.24407752,-0.10441296,-0.5550708,-0.2408067,0.08938965,-0.4745627,0.26352325,-0.009678153,0.060285676,0.027525432,-0.05212314,0.011227889,0.076396905,-0.060824335,-0.0455396,-0.0025480825,0.010867531,0.035283,-0.072556734,-1.0,1.0,-1.0,-1.0,-1.0,-1.0,-1.0,-1.0,-1.0,1.0,-1.0,1.0,-1.0,1.0,-1.0,-1.0,-1.0,-1.0,-1.0,-1.0,-1.0,1.0,-1.0,1.0
2025-06-04 11:53:24.164,-0.08340393,0.07243703,-0.0027843774,-0.06821505,0.106803976,-0.03826166,0.0,0.0,0.0,0.022250138,-0.088052385,0.5537063,-0.15236524,-0.112087384,-0.48939133,-0.23478922,-0.09883868,-0.554478,-0.2392607,0.09326159,-0.46296784,0.264869,-0.019189628,0.056308895,-0.0007679111,0.002619168,-0.058524713,-0.05295063,0.010555,0.007724642,-0.027988147,-0.058807664,0.019042356,0.032728888,-1.0,1.0,-1.0,-1.0,-1.0,-1.0,-1.0,-1.0,-1.0,1.0,-1.0,1.0,-1.0,1.0,-1.0,-1.0,-1.0,-1.0,-1.0,-1.0,-1.0,1.0,-1.0,1.0
2025-06-04 11:53:24.185,-0.028939076,0.0737145,0.035489254,-0.02244814,0.025578966,-0.014585884,0.0,0.0,0.0,0.021704128,-0.089591846,0.5531277,-0.14261408,-0.10678729,-0.50001377,-0.24024843,-0.096122734,-0.5704606,-0.2362864,0.0846548,-0.46344316,0.26201645,0.06620221,0.011496454,-0.04043558,-0.03630371,-0.044134483,-0.048367314,-0.01689143,-0.003631201,0.025003854,-0.054734312,-0.027005244,0.056071006,-1.0,1.0,-1.0,-1.0,-1.0,-1.0,-1.0,-1.0,-1.0,1.0,-1.0,1.0,-1.0,1.0,-1.0,-1.0,-1.0,-1.0,-1.0,-1.0,-1.0,1.0,-1.0,1.0
2025-06-04 11:53:24.204,-0.07387668,0.15791565,0.037114527,0.008694757,0.050413445,0.03203648,0.0,0.0,0.0,0.020829549,-0.082871765,0.5431551,-0.15006028,-0.09622671,-0.52558434,-0.22090676,-0.10219944,-0.5730888,-0.2284448,0.087706074,-0.4761213,0.26747188,0.0029897245,0.015846781,0.051098246,0.05065724,-0.02286872,0.04734242,-0.041644584,-0.017003588,-0.062495362,-0.01916712,0.03235318,-0.052548863,-1.0,1.0,-1.0,-1.0,-1.0,-1.0,-1.0,-1.0,-1.0,1.0,-1.0,1.0,-1.0,1.0,-1.0,-1.0,1.0,-1.0,-1.0,-1.0,-1.0,1.0,-1.0,1.0
2025-06-04 11:53:24.227,0.026168125,-0.07697764,-0.018124925,-0.06486175,0.077822514,-0.039987985,0.0,0.0,0.0,0.01979193,-0.10041625,0.5458176,-0.14288479,-0.11876578,-0.50703305,-0.24107389,-0.11817449,-0.5622666,-0.22587264,0.083744965,-0.47570986,0.26030204,-0.008063815,-0.052729104,-0.07773817,-0.01501423,0.059385344,0.010676962,0.011012083,0.090486854,0.046237502,-0.0027494647,0.038499027,0.018822292,-1.0,1.0,-1.0,-1.0,1.0,-1.0,-1.0,-1.0,-1.0,1.0,-1.0,1.0,-1.0,1.0,-1.0,-1.0,-1.0,-1.0,-1.0,-1.0,-1.0,1.0,-1.0,1.0
2025-06-04 11:53:24.244,-0.026590366,0.021767644,-0.039737668,-0.07281092,0.105195545,0.03984704,0.0,0.0,0.0,0.019707806,-0.09632577,0.558213,-0.16458495,-0.112989426,-0.49988604,-0.2480785,-0.10623716,-0.55037135,-0.23149586,0.08866146,-0.47577304,0.26755476,-0.017555358,-0.03787252,0.05183957,0.028080752,0.03144664,0.041249536,-0.06254772,0.046794247,0.030512977,0.010263734,-0.06363025,-0.0032395956,-1.0,1.0,-1.0,-1.0,-1.0,-1.0,-1.0,-1.0,-1.0,1.0,-1.0,1.0,-1.0,1.0,-1.0,-1.0,-1.0,-1.0,-1.0,-1.0,-1.0,1.0,-1.0,1.0
2025-06-04 11:53:24.264,0.0049776323,0.07025144,0.00018942819,-0.004365708,0.064745255,0.026253363,0.0,0.0,0.0,0.02016834,-0.08549193,0.54832304,-0.15833713,-0.10470089,-0.5062,-0.2455602,-0.099651866,-0.55088377,-0.2328298,0.09781454,-0.47472638,0.2598605,0.020963654,-0.03383124,-0.034676187,0.042613488,0.02392827,0.014007721,0.064502664,0.045151785,0.044254012,0.026636386,0.051282063,0.06480205,-1.0,1.0,-1.0,-1.0,-1.0,-1.0,-1.0,-1.0,-1.0,1.0,-1.0,1.0,-1.0,1.0,-1.0,-1.0,-1.0,-1.0,-1.0,-1.0,-1.0,1.0,-1.0,1.0
2025-06-04 11:53:24.286,-0.06495452,0.09547107,0.022920983,-0.043430082,0.0701772,-0.04754837,0.0,0.0,0.0,0.020287307,-0.089060515,0.54664755,-0.15214323,-0.11308589,-0.52329123,-0.23743619,-0.10042806,-0.5574039,-0.24098566,0.08611522,-0.47999373,0.27036572,0.062287167,0.03257314,0.07326567,-0.014151166,-0.013051349,0.08542161,-0.05304531,-0.039195593,0.06177572,-0.07013361,0.026762694,-0.013682037,-1.0,1.0,-1.0,-1.0,-1.0,-1.0,-1.0,-1.0,-1.0,1.0,-1.0,1.0,-1.0,1.0,-1.0,-1.0,-1.0,-1.0,-1.0,-1.0,-1.0,1.0,-1.0,1.0
2025-06-04 11:53:24.305,-0.0847069,0.06409279,0.07631051,-0.07693335,0.04485215,-0.022364682,0.0,0.0,0.0,0.01992286,-0.09194081,0.5462575,-0.15920408,-0.11567261,-0.541646,-0.21748868,-0.119960904,-0.55771035,-0.24113603,0.0901533,-0.4650886,0.26757452,0.03734912,0.014332231,-0.029908156,-0.032439284,-0.020335803,0.023588428,-0.031397812,-0.07319352,0.05156658,-0.052506108,0.0137801,0.06980907,-1.0,1.0,-1.0,-1.0,-1.0,-1.0,-1.0,-1.0,-1.0,1.0,-1.0,1.0,-1.0,1.0,-1.0,-1.0,1.0,-1.0,-1.0,-1.0,-1.0,1.0,-1.0,1.0
2025-06-04 11:53:24.324,0.10987086,-0.10577461,-0.075849466,-0.022582171,0.06116286,0.047164008,0.0,0.0,0.0,0.019190224,-0.085912295,0.5364108,-0.16154952,-0.12373495,-0.5324091,-0.226165,-0.12437736,-0.55546665,-0.23899406,0.0859894,-0.45983714,0.2672405,-0.019528478,0.030553287,0.03917505,0.010305105,0.057284378,-0.113393,-0.00048443067,-0.047338035,-0.010403763,0.04439862,-0.021899015,0.05201258,-1.0,1.0,-1.0,-1.0,1.0,-1.0,-1.0,-1.0,-1.0,1.0,-1.0,1.0,-1.0,1.0,-1.0,-1.0,-1.0,-1.0,-1.0,-1.0,-1.0,1.0,-1.0,1.0
2025-06-04 11:53:24.344,0.01494425,0.020412615,0.02913607,-0.026383938,0.0531165,0.04009377,0.0,0.0,0.0,0.019213494,-0.10465613,0.5450069,-0.16429715,-0.11154242,-0.52536905,-0.23040001,-0.111668155,-0.5522124,-0.24427465,0.09518357,-0.47468007,0.2546884,-0.06430912,0.058838304,-0.016090287,-0.04484134,-0.0016777738,0.06844275,0.060903873,-0.057041377,-0.07927546,0.009260998,-0.07412102,-0.07282444,-1.0,1.0,-1.0,-1.0,-1.0,-1.0,-1.0,-1.0,-1.0,1.0,-1.0,1.0,-1.0,1.0,-1.0,-1.0,-1.0,-1.0,-1.0,-1.0,-1.0,1.0,-1.0,1.0
2025-06-04 11:53:24.364,-0.025550127,0.078760244,-0.0005877787,-0.096881285,0.09663151,0.04043543,0.0,0.0,0.0,0.019710975,-0.09724226,0.5484349,-0.16563359,-0.11144915,-0.5235834,-0.24151662,-0.11884854,-0.56321025,-0.257931,0.09107971,-0.48047554,0.25657582,0.027239902,0.001103605,-0.0423671,0.0466728,0.034738578,0.012333063,0.00071603694,0.0013164431,0.014236073,-0.039182704,-0.04752952,-0.05928385,-1.0,1.0,-1.0,-1.0,-1.0,-1.0,-1.0,-1.0,-1.0,1.0,-1.0,1.0,-1.0,1.0,-1.0,-1.0,-1.0,-1.0,-1.0,-1.0,-1.0,1.0,-1.0,1.0
2025-06-04 11:53:24.386,0.0063899537,0.04775406,-0.009852821,-0.09539744,0.017838117,0.03802592,0.0,0.0,0.0,0.019854506,-0.085215256,0.55001956,-0.15425214,-0.1046583,-0.53981584,-0.22106959,-0.123717494,-0.56153005,-0.25032243,0.090750895,-0.47130963,0.25947043,0.066099696,0.060855784,-0.025056893,0.07033021,0.02709219,0.05958171,-0.0123766335,0.040964294,-0.05206034,0.04611902,-0.0149997845,-0.0066407886,-1.0,1.0,-1.0,-1.0,-1.0,-1.0,-1.0,-1.0,-1.0,1.0,-1.0,1.0,-1.0,1.0,-1.0,-1.0,-1.0,-1.0,-1.0,-1.0,-1.0,1.0,-1.0,1.0
2025-06-04 11:53:24.405,-0.08264654,0.036594763,0.062613405,-0.10974349,0.080159746,-0.03658019,0.0,0.0,0.0,0.01952033,-0.08069006,0.5460807,-0.15006658,-0.09909438,-0.5530905,-0.2211459,-0.11523842,-0.57781696,-0.24688113,0.09451479,-0.4681119,0.2518531,-0.02713275,0.055564832,0.07634863,-0.06014669,-0.0791455,0.008061979,0.037830714,0.06054501,-0.05802964,-0.018471388,-0.0012132602,-0.017276525,-1.0,1.0,-1.0,-1.0,-1.0,-1.0,-1.0,-1.0,-1.0,1.0,-1.0,1.0,-1.0,1.0,-1.0,-1.0,1.0,-1.0,-1.0,-1.0,-1.0,1.0,-1.0,1.0
2025-06-04 11:53:24.426,0.0939758,-0.12141807,-0.05489851,-0.08813124,0.06842199,-0.046279166,0.0,0.0,0.0,0.018827453,-0.103900656,0.5444075,-0.16849361,-0.121768974,-0.5381495,-0.22449097,-0.119043365,-0.559068,-0.24377424,0.07980394,-0.47431457,0.26901484,-0.0064806156,0.004857567,-0.004898259,-0.014974899,0.043054335,-0.056724895,0.0368573,0.08418041,-0.024185881,-0.05767377,-0.063451566,-0.022959616,-1.0,1.0,-1.0,-1.0,1.0,-1.0,-1.0,-1.0,-1.0,1.0,-1.0,1.0,-1.0,1.0,-1.0,-1.0,-1.0,-1.0,-1.0,-1.0,-1.0,1.0,-1.0,1.0
2025-06-04 11:53:24.446,-0.04508346,-0.03795633,-0.007459337,-0.011334516,0.030517474,0.044346772,0.0,0.0,0.0,0.018883761,-0.104673766,0.54704434,-0.1557064,-0.12094908,-0.53058714,-0.23153491,-0.11404789,-0.5554342,-0.253401,0.083174594,-0.47904444,0.2552558,0.012288994,-0.06806347,0.057360105,-0.043970216,0.002280087,0.030554205,-0.039600402,-0.05031713,0.03807084,-0.008650485,0.00074168004,-0.06401788,-1.0,1.0,-1.0,-1.0,-1.0,-1.0,-1.0,-1.0,-1.0,1.0,-1.0,1.0,-1.0,1.0,-1.0,-1.0,-1.0,-1.0,-1.0,-1.0,-1.0,1.0,-1.0,1.0
2025-06-04 11:53:24.467,-0.050320797,0.017882368,0.002658319,-0.06847166,0.061900087,-0.03517884,0.0,0.0,0.0,0.019411262,-0.105799906,0.5365166,-0.17156562,-0.115694635,-0.5348601,-0.22685733,-0.11184719,-0.5654951,-0.25499594,0.087817155,-0.46761364,0.25544497,0.03933065,-0.07311744,-0.060229648,0.051844362,-0.006306917,-0.013602295,-0.010801549,0.020737598,-0.0538878,0.0104347,0.034029044,-0.068992384,-1.0,1.0,-1.0,-1.0,-1.0,-1.0,-1.0,-1.0,-1.0,1.0,-1.0,1.0,-1.0,1.0,-1.0,-1.0,-1.0,-1.0,-1.0,-1.0,-1.0,1.0,-1.0,1.0
2025-06-04 11:53:24.486,0.022387369,0.023263924,0.015496926,-0.07584318,0.06124113,0.044356853,0.0,0.0,0.0,0.01958018,-0.08864398,0.53271025,-0.17113176,-0.117614865,-0.5416433,-0.22775178,-0.10758986,-0.57352364,-0.24492824,0.08820386,-0.4815451,0.26373947,-0.021677673,0.036894456,-0.065427065,-0.01348409,-0.09647916,0.09158066,-0.049665358,0.03523098,0.029342381,0.05641427,-0.06111422,0.038588163,-1.0,1.0,-1.0,-1.0,-1.0,-1.0,-1.0,-1.0,-1.0,1.0,-1.0,1.0,-1.0,1.0,-1.0,-1.0,-1.0,-1.0,-1.0,-1.0,-1.0,1.0,-1.0,1.0
2025-06-04 11:53:24.506,-0.035278484,0.08190694,-0.005456159,-0.05366568,0.061667766,0.04863893,0.0,0.0,0.0,0.019270657,-0.0935315,0.54856175,-0.15906133,-0.11534519,-0.5487692,-0.22461256,-0.10846849,-0.56184834,-0.26034898,0.085837334,-0.4734529,0.2550742,0.05463185,-0.0704461,0.03538765,-0.054654405,0.0024411052,0.026902566,0.04149832,-0.0104565695,-0.06570204,0.061156444,0.0031892417,0.031088645,-1.0,1.0,-1.0,-1.0,-1.0,-1.0,-1.0,-1.0,-1.0,1.0,-1.0,1.0,-1.0,1.0,-1.0,-1.0,-1.0,-1.0,-1.0,-1.0,-1.0,1.0,-1.0,1.0
2025-06-04 11:53:24.527,-0.029190857,0.07650732,0.050186075,-0.06209085,0.08891656,-0.010863174,0.0,0.0,0.0,0.018609246,-0.09305335,0.5429881,-0.15338035,-0.10908601,-0.55051255,-0.20456845,-0.12186692,-0.57797444,-0.25488794,0.08701959,-0.47523454,0.26639313,0.07559278,0.021696568,-0.047070082,0.05147737,-0.07281534,0.08085122,-0.003555504,0.015532617,0.008135931,0.029759374,0.017436,0.05287737,-1.0,1.0,-1.0,-1.0,-1.0,-1.0,-1.0,-1.0,-1.0,1.0,-1.0,1.0,-1.0,1.0,-1.0,-1.0,1.0,-1.0,-1.0,-1.0,-1.0,1.0,-1.0,1.0
2025-06-04 11:53:24.546,0.0459478,-0.17745072,0.0015532506,-0.07310567,0.09494866,0.0356346,0.0,0.0,0.0,0.017775634,-0.09213903,0.53757906,-0.15493684,-0.11367097,-0.5435196,-0.22005107,-0.11533242,-0.56201404,-0.24923384,0.09266087,-0.45872372,0.25488186,-0.07171278,0.0014631132,-0.01674106,-0.039219625,0.131052,-0.11534106,-0.05713608,0.01854968,0.061605282,-0.040786307,0.044862803,-0.037960522,-1.0,1.0,-1.0,-1.0,1.0,-1.0,-1.0,-1.0,-1.0,1.0,-1.0,1.0,-1.0,1.0,-1.0,-1.0,-1.0,-1.0,-1.0,-1.0,-1.0,1.0,-1.0,1.0
2025-06-04 11:53:24.570,-0.052598067,-0.047953792,-0.0041218903,-0.021169577,0.021896504,-0.039117724,0.0,0.0,0.0,0.017826308,-0.098243214,0.5367744,-0.16612376,-0.101942405,-0.5388115,-0.23532756,-0.12335394,-0.5639552,-0.25571552,0.09569924,-0.46636403,0.26745868,-0.049129713,0.041916575,-0.045732018,0.05992225,0.071143,-0.059603363,-0.051309742,0.038771927,-0.041610606,0.036299832,-0.0159983,-0.01923578,-1.0,1.0,-1.0,-1.0,-1.0,-1.0,-1.0,-1.0,-1.0,1.0,-1.0,1.0,-1.0,1.0,-1.0,-1.0,-1.0,-1.0,-1.0,-1.0,-1.0,1.0,-1.0,1.0
2025-06-04 11:53:24.587,-0.05926195,-0.005323262,0.031464405,-0.011094651,0.046792053,0.020499466,0.0,0.0,0.0,0.018413955,-0.10176504,0.53154016,-0.15775304,-0.115372546,-0.54537183,-0.23293042,-0.116281755,-0.56577134,-0.26487914,0.09453299,-0.4797526,0.2626833,-0.022906383,0.059517674,-0.017427765,0.08022079,-0.011640882,0.03765663,-0.033188753,0.011520525,0.039580774,-0.02401679,0.0527437,-0.06055062,-1.0,1.0,-1.0,-1.0,-1.0,-1.0,-1.0,-1.0,-1.0,1.0,-1.0,1.0,-1.0,1.0,-1.0,-1.0,-1.0,-1.0,-1.0,-1.0,-1.0,1.0,-1.0,1.0
2025-06-04 11:53:24.608,-0.050617464,0.06470171,0.011296194,-0.04546662,0.04227286,0.03934892,0.0,0.0,0.0,0.018666916,-0.09258973,0.53470916,-0.16150917,-0.10984864,-0.5359583,-0.21975434,-0.12498134,-0.57282573,-0.2653215,0.07999214,-0.4763837,0.2640845,0.017197134,-0.020052925,0.061870974,-0.009926917,-0.028755575,0.0307077,0.018167982,0.040486354,-0.045066882,-0.06729776,0.072789975,-0.049270358,-1.0,1.0,-1.0,-1.0,-1.0,-1.0,-1.0,-1.0,-1.0,1.0,-1.0,1.0,-1.0,1.0,-1.0,-1.0,-1.0,-1.0,-1.0,-1.0,-1.0,1.0,-1.0,1.0
2025-06-04 11:53:24.627,-0.040026054,0.11237303,0.07193879,-0.08083935,0.077406526,-0.04528049,0.0,0.0,0.0,0.018437877,-0.10044876,0.53270376,-0.16201736,-0.10691853,-0.5566717,-0.21148205,-0.11460992,-0.5706784,-0.25369477,0.09096685,-0.4781654,0.2631493,-0.015296981,-0.06340913,-0.061276272,-0.015352264,-0.02415054,0.05414222,0.06259937,0.055908103,-0.0110682,-0.07179454,0.003153799,0.03073318,-1.0,1.0,-1.0,-1.0,-1.0,-1.0,-1.0,-1.0,-1.0,1.0,-1.0,1.0,-1.0,1.0,-1.0,-1.0,1.0,-1.0,-1.0,-1.0,-1.0,1.0,-1.0,1.0
