openverse-orca/OrcaGym/log/simulation_log_20250719_151900.csv
timestamp,sim_time,physics_step,control_step,imu_angle_roll,imu_angle_pitch,imu_angle_yaw,imu_angular_velocity_roll,imu_angular_velocity_pitch,imu_angular_velocity_yaw,imu_acc_x,imu_acc_y,imu_acc_z,fl_joint1_pos,fl_joint1_vel,fl_joint1_torque,fl_joint2_pos,fl_joint2_vel,fl_joint2_torque,fl_joint3_pos,fl_joint3_vel,fl_joint3_torque,fr_joint1_pos,fr_joint1_vel,fr_joint1_torque,fr_joint2_pos,fr_joint2_vel,fr_joint2_torque,fr_joint3_pos,fr_joint3_vel,fr_joint3_torque,hl_joint1_pos,hl_joint1_vel,hl_joint1_torque,hl_joint2_pos,hl_joint2_vel,hl_joint2_torque,hl_joint3_pos,hl_joint3_vel,hl_joint3_torque,hr_joint1_pos,hr_joint1_vel,hr_joint1_torque,hr_joint2_pos,hr_joint2_vel,hr_joint2_torque,hr_joint3_pos,hr_joint3_vel,hr_joint3_torque,fl_force_x,fl_force_y,fl_force_z,fr_force_x,fr_force_y,fr_force_z,hl_force_x,hl_force_y,hl_force_z,hr_force_x,hr_force_y,hr_force_z,fl_hip_action,fl_thigh_action,fl_calf_action,fr_hip_action,fr_thigh_action,fr_calf_action,hl_hip_action,hl_thigh_action,hl_calf_action,hr_hip_action,hr_thigh_action,hr_calf_action
2025-07-19 15:19:01.067,0.0,0,0,0.01767676,0.04585944,0.026976831,0.026100857,0.00015383794,0.04181777,0.79143035,-0.04075722,0.0,0.0,0.0010474874,-0.0026114578,8.609563e-06,0.007935785,0.009904336,-0.0059604966,-0.0067548174,0.0064848955,-0.0036627003,-0.008866705,0.0022347807,0.008907279,-0.047323827,0.06352084,0.039196666,-0.02769449,0.009460358,-0.059095412,0.04575082,-0.014694503,-0.026553357,0.043979593,0.055818714,0.07195882,0.0,0.0,0.0,0.0,0.0,0.0,0.0,0.0,0.0,0.0,0.0,0.0,0.72353494,-1.2136471,-0.16162068,0.013038966,1.1890538,-0.114826255,-0.023627512,1.40285,1.2595284,-0.31227547,0.22265284,-0.14094795
2025-07-19 15:19:01.078,0.02,20,1,0.13115436,-0.17978804,0.07265352,0.029580265,-0.017768802,-0.041403618,0.0,0.0,0.0,0.0,0.0229084,-0.01705562,-0.01352131,-0.011183247,0.045423467,-0.016948469,-0.009189348,0.041690726,0.03352244,0.00010106304,0.019503795,-0.008065986,0.03779764,-0.089391336,0.028034838,-0.007863224,0.11883713,-0.09096107,-0.011890044,0.16189791,0.049740463,-0.062375583,0.02329888,0.025514971,0.72353494,-1.2136471,-0.16162068,0.013038966,1.1890538,-0.114826255,-0.023627512,1.40285,1.2595284,-0.31227547,0.22265284,-0.14094795,1.1408745,-2.0,1.8378559,0.48293257,-1.7455761,-0.75307494,-0.059119232,0.9300067,-0.0712572,-0.966876,-1.5450706,1.3463849
2025-07-19 15:19:01.098,0.04,40,2,-0.01542509,-0.057043046,-0.19844115,-0.039767105,-0.05257545,-0.030497491,0.0,0.0,0.0,-0.0003086583,0.054386903,-0.06023821,0.039932296,0.0170225,0.054501057,-0.022659082,0.00070064934,0.11199172,0.023620581,-0.034322817,-0.015732292,0.033269975,0.027388034,-0.16602945,0.17176472,0.044847023,-0.12221913,-0.07088438,0.02227236,0.13886154,0.020753896,-0.07131774,-0.12990077,0.093223594,1.1408745,-2.0,1.8378559,0.48293257,-1.7455761,-0.75307494,-0.059119232,0.9300067,-0.0712572,-0.966876,-1.5450706,1.3463849,-0.3345354,-1.7101412,1.8461622,-0.4778281,-0.15446521,-1.4405099,0.5969699,-1.2609398,-0.4831748,-0.73025906,1.4472499,2.0
2025-07-19 15:19:01.118,0.06,60,3,0.0109286355,0.2357326,0.09385688,-0.028492294,-0.0028391082,0.049786236,0.0,0.0,0.0,0.0010195868,0.032082938,-0.12612715,0.069412716,-0.0020065354,0.038707554,-0.051817905,0.005527522,0.09140579,0.0155590065,-0.045727894,-0.035357434,0.07781623,-0.021392005,-0.18750975,0.023700362,-0.10995959,-0.097512595,-0.12157232,-0.0027222047,-0.15279403,0.011045599,-0.08998628,-0.03834754,0.0661569,-0.3345354,-1.7101412,1.8461622,-0.4778281,-0.15446521,-1.4405099,0.5969699,-1.2609398,-0.4831748,-0.73025906,1.4472499,2.0,0.38722908,1.658761,0.75056326,-0.86118525,0.07552856,0.16677952,1.6757983,2.0,2.0,-1.3340281,-0.062066227,2.0
2025-07-19 15:19:01.140,0.08,80,4,0.12954788,-0.04668115,-0.08588609,-0.052567933,-0.053879507,-0.023011468,0.0,0.0,0.0,0.0008680338,0.043955207,-0.13348405,0.076982416,-0.016621998,0.035278164,-0.038842317,0.044183526,0.097602256,0.05822839,-0.07003199,-0.039410017,0.09768581,0.09054893,-0.0059944093,-0.02421731,0.018168755,0.065549515,-0.017287496,0.085025795,0.18718952,0.11403069,-0.0049716635,-0.054702338,0.084833495,0.38722908,1.658761,0.75056326,-0.86118525,0.07552856,0.16677952,1.6757983,2.0,2.0,-1.3340281,-0.062066227,2.0,-0.4987299,-1.013627,1.9023668,-1.7472862,-1.6290576,-0.39047173,1.556272,-0.9087468,2.0,0.38495606,-0.3113562,2.0
2025-07-19 15:19:01.159,0.1,100,5,-0.19622515,0.13479413,0.11355206,-0.05273301,-0.04221579,0.04897661,0.0,0.0,0.0,0.000617883,0.034069482,-0.15024202,0.10975838,-0.06616678,-0.02625234,-0.046444874,0.09537723,0.06641384,0.11138224,-0.081650205,-0.056285195,0.13824315,0.008367854,-0.07656595,0.06578562,-0.14636438,-0.1815318,-0.07427786,0.1294018,-0.18445978,0.17621994,0.10466615,-0.10820244,0.10174784,-0.4987299,-1.013627,1.9023668,-1.7472862,-1.6290576,-0.39047173,1.556272,-0.9087468,2.0,0.38495606,-0.3113562,2.0,-0.3763956,0.56369746,1.2639171,-1.513608,0.6868133,0.86356413,1.6577154,1.6890396,2.0,-0.73343956,-1.4281756,2.0
2025-07-19 15:19:01.178,0.12000000000000001,120,6,-0.0012878771,0.16777319,-0.1547539,-0.025585614,-0.0755574,0.026914457,0.0,0.0,0.0,0.00017276923,0.021301067,-0.15102077,0.11569175,-0.10921983,-0.060465693,-0.017997103,0.12022338,0.065490805,0.12978253,-0.08597929,-0.08233171,0.16314715,-0.03300257,0.0142069645,0.078644246,-0.026995908,-0.006688961,0.058061376,0.08545566,0.16294254,0.04832219,-0.07695233,-0.05405185,0.07964538,-0.3763956,0.56369746,1.2639171,-1.513608,0.6868133,0.86356413,1.6577154,1.6890396,2.0,-0.73343956,-1.4281756,2.0,-0.6049119,-0.9886747,0.6717578,-1.8256122,-1.7735864,0.28283796,1.4764096,-1.2631164,2.0,0.8673367,0.6521834,2.0
2025-07-19 15:19:01.198,0.14,140,7,-0.23143533,0.18923172,0.15394232,0.04184336,-0.027813267,0.04947453,0.0,0.0,0.0,8.992927e-05,0.011775574,-0.14580011,0.10498166,-0.13349591,-0.073833644,-0.011805429,0.13795556,0.05097107,0.16673373,-0.091123976,-0.06421423,0.18272145,-0.08431619,-0.08421916,-0.03514989,-0.06632046,-0.15927526,-0.033797484,0.040405303,-0.20915763,0.027636286,0.12635575,0.010265189,0.095082566,-0.6049119,-0.9886747,0.6717578,-1.8256122,-1.7735864,0.28283796,1.4764096,-1.2631164,2.0,0.8673367,0.6521834,2.0,-0.6835741,-0.03460598,0.33416975,-0.38779494,-0.8481868,1.8691324,0.5252547,0.07007055,2.0,-1.2279694,-1.3970894,2.0
2025-07-19 15:19:01.219,0.16,160,8,-0.065580085,0.044371195,-0.18227986,0.06950228,-0.07151901,0.025202373,0.0,0.0,0.0,-0.0011342465,-0.007450912,-0.14018837,0.10609875,-0.14414015,-0.1185218,0.034442227,0.12686732,0.036341768,0.19111267,-0.09549515,-0.08644896,0.21206428,0.038308855,0.07863078,-0.11152466,-0.052814975,-0.05440146,0.15967837,-0.06960408,-0.013023698,0.10533192,-0.047741737,-0.038199473,-0.0019213493,-0.6835741,-0.03460598,0.33416975,-0.38779494,-0.8481868,1.8691324,0.5252547,0.07007055,2.0,-1.2279694,-1.3970894,2.0,-0.10857287,-2.0,-0.32945865,-1.3087081,-1.955341,2.0,1.148358,-0.8276685,2.0,0.6294074,1.2835507,1.9374268
2025-07-19 15:19:01.239,0.18,180,9,-0.2813436,-0.09922434,0.09871348,0.05932983,-0.038347967,0.039542068,0.0,0.0,0.0,-0.0012170916,0.0064397855,-0.15446475,0.06561267,-0.14776824,-0.18405579,0.08579374,0.14368099,-0.018729798,0.21901037,-0.06934673,-0.08248123,0.2058161,0.043279015,-0.053827725,-0.12861398,-0.10206934,-0.20627698,0.15271455,0.008449346,-0.23598745,0.10985105,0.025248969,0.064158104,-0.03138625,-0.10857287,-2.0,-0.32945865,-1.3087081,-1.955341,2.0,1.148358,-0.8276685,2.0,0.6294074,1.2835507,1.9374268,-0.23371854,-0.33939734,0.5706071,-0.53305715,-0.86826724,2.0,-0.10347781,0.44404778,2.0,-0.7158314,0.9181294,1.7724935
2025-07-19 15:19:01.259,0.19999999999999998,200,10,0.072455674,-0.24679297,0.012496756,0.07707452,-0.00055238453,0.046687614,0.0,0.0,0.0,-0.0020058742,-0.006583207,-0.15163448,0.073338754,-0.14692165,-0.23332605,0.11695025,0.12298552,-0.0037310892,0.23280792,-0.08941263,-0.007264565,0.22416711,0.019343367,-0.004870734,-0.0070856027,-0.052413475,-0.07783848,0.10860229,-0.0033438683,0.046639718,0.0013497443,-0.036653344,0.21942589,0.0580458,-0.23371854,-0.33939734,0.5706071,-0.53305715,-0.86826724,2.0,-0.10347781,0.44404778,2.0,-0.7158314,0.9181294,1.7724935,0.7798797,0.06401047,-0.038611803,-0.5100323,-0.33587736,2.0,-0.39552328,-1.1639911,2.0,0.62210196,-1.3099253,0.33981875
2025-07-19 15:19:01.279,0.21999999999999997,220,11,-0.024351994,-0.3011809,0.07667483,0.004666942,-0.042432927,-0.02489938,0.0,0.0,0.0,-0.0028317878,0.018800635,-0.13065277,0.047623858,-0.13053954,-0.2271503,0.14372392,0.096377626,-0.03396944,0.24430229,-0.061706703,0.011373175,0.19438402,0.013535872,0.037595347,0.0014306692,0.056920514,-0.018884458,0.111267634,-0.13081636,-0.19919184,-0.014022673,0.05475572,-0.120142944,-0.09334288,0.7798797,0.06401047,-0.038611803,-0.5100323,-0.33587736,2.0,-0.39552328,-1.1639911,2.0,0.62210196,-1.3099253,0.33981875,1.0035852,-0.68407184,-0.41800222,0.5982806,-0.58126897,2.0,0.04092654,0.8624082,2.0,-0.41781116,1.7162561,0.3188655
2025-07-19 15:19:01.299,0.23999999999999996,240,12,0.21529503,-0.2696845,-0.06320963,-0.024933469,-0.01987843,-0.04397417,0.0,0.0,0.0,-0.0039821775,0.05291264,-0.12940843,0.041576654,-0.12197306,-0.23179318,0.17714094,0.0790454,-0.038717963,0.25369203,-0.061116625,0.023019208,0.15828884,0.11476939,-0.03925113,-0.110665575,0.070891485,0.049620666,0.080154784,-0.036637086,0.039465006,-0.048537157,-0.0687843,0.22688738,-0.09673671,1.0035852,-0.68407184,-0.41800222,0.5982806,-0.58126897,2.0,0.04092654,0.8624082,2.0,-0.41781116,1.7162561,0.3188655,0.6660541,-0.0953463,1.0650939,-0.33163014,-0.51841944,2.0,0.27883342,-1.3399032,1.8532628,-0.020299755,-0.2535875,-0.85761863
2025-07-19 15:19:01.319,0.25999999999999995,260,13,0.06276299,-0.004034539,-0.04529169,-0.034102414,0.0025929024,-0.0474755,0.0,0.0,0.0,-0.0039489362,0.054423194,-0.1497684,0.043087,-0.11223154,-0.229863,0.20114926,0.075759776,-0.03340168,0.26546973,-0.055647504,0.04821367,0.1089542,-0.032617815,0.105914205,-0.018776812,0.027663082,0.012722692,-0.02357559,-0.026998509,0.067615926,0.013250782,0.07657016,-0.12517263,-0.1421704,0.6660541,-0.0953463,1.0650939,-0.33163014,-0.51841944,2.0,0.27883342,-1.3399032,1.8532628,-0.020299755,-0.2535875,-0.85761863,0.66843474,-1.6758986,0.34008425,-0.4271046,0.6920247,1.42597,0.4142684,-2.0,2.0,0.6437541,0.9079188,-0.7549464
2025-07-19 15:19:01.343,0.27999999999999997,280,14,-0.01810491,0.12048405,0.24279743,-0.07139504,-0.00057233433,0.036703177,0.0,0.0,0.0,-0.0028368314,0.078209154,-0.17558895,0.051092915,-0.11041033,-0.19244048,0.1992728,0.09404903,-0.048914988,0.27601358,-0.018765746,0.07456736,0.07073338,0.001440431,-0.13937849,0.02647769,-0.018872418,0.028856615,5.1734674e-05,-0.029777134,-0.0477931,0.052390967,0.12154163,0.19833136,-0.071992055,0.66843474,-1.6758986,0.34008425,-0.4271046,0.6920247,1.42597,0.4142684,-2.0,2.0,0.6437541,0.9079188,-0.7549464,1.6880524,0.5357074,0.42151195,0.3656119,1.4022093,-0.21149537,-0.45552057,0.36134377,2.0,-0.26318973,-1.5001718,0.13397785
2025-07-19 15:19:01.359,0.3,300,15,0.08881714,0.051714536,-0.057950392,0.0147653045,-0.0063534793,-0.0038279528,0.0,0.0,0.0,-0.005624152,0.107696116,-0.18777284,0.04578071,-0.086029895,-0.1401683,0.14336947,0.06820106,-0.021070758,0.26702076,-0.03640237,0.057353813,0.061457314,0.025378304,0.13521531,0.023006387,0.09634951,0.14064209,-0.10156787,0.0015426385,0.08679347,-0.020418324,-0.057762846,-0.13572273,-0.0548698,1.6880524,0.5357074,0.42151195,0.3656119,1.4022093,-0.21149537,-0.45552057,0.36134377,2.0,-0.26318973,-1.5001718,0.13397785,0.1494247,-1.9776821,0.4766039,0.6005417,-0.84642243,-0.44353732,0.034174107,-0.9873795,1.3509712,-1.1452371,-2.0,1.2871208
2025-07-19 15:19:01.379,0.32,320,16,-0.4298826,0.09085864,-0.119746566,0.027238883,-0.024756286,0.028895367,0.0,0.0,0.0,-0.006922566,0.09505649,-0.20670821,0.054344736,-0.07976736,-0.12588528,0.11786385,0.06377515,-0.033951238,0.2543482,-0.04031422,-0.0058339816,0.09924648,-0.0058427393,-0.16065414,0.0073642423,0.12531403,-0.112446725,-0.11897572,-0.009528923,-0.110555306,-0.06887018,-0.04665513,-0.24737348,0.055190634,0.1494247,-1.9776821,0.4766039,0.6005417,-0.84642243,-0.44353732,0.034174107,-0.9873795,1.3509712,-1.1452371,-2.0,1.2871208,-0.2445148,-0.34106213,0.3870886,-0.63181174,0.8426202,0.4054769,1.0029647,1.923919,2.0,0.07924495,1.4634876,2.0
2025-07-19 15:19:01.399,0.34,340,17,0.07727171,-0.11503672,-0.0028423013,-0.0076177567,0.01050514,-0.0317883,0.0,0.0,0.0,-0.005300683,0.074241236,-0.22130564,0.052633014,-0.07127824,-0.10819048,0.08659529,0.07507205,-0.012110083,0.2677115,-0.045907564,-0.038970154,0.13247031,-0.018640006,0.07604066,0.013780263,0.021014672,0.07034923,-0.057931375,0.0361895,0.092184894,-0.041334935,-0.01573825,0.07520559,0.07109781,-0.2445148,-0.34106213,0.3870886,-0.63181174,0.8426202,0.4054769,1.0029647,1.923919,2.0,0.07924495,1.4634876,2.0,0.05430922,-0.83465236,1.454461,-1.2712942,-1.3748517,0.81652564,1.0703529,-0.2723494,1.905862,0.09072078,0.66280216,1.8399124
2025-07-19 15:19:01.420,0.36000000000000004,360,18,-0.04032251,0.021990413,0.16194528,-0.009565067,-0.022552947,0.039885543,0.0,0.0,0.0,-0.0047821985,0.06658061,-0.2350466,0.072720625,-0.10327277,-0.113004096,0.096676305,0.093541935,-0.014654957,0.2817144,-0.03208709,0.013614847,0.14352806,-0.025952006,-0.081436805,0.026971895,-0.09788609,-0.034656256,-0.0040595676,-0.008065059,-0.10411075,-0.009123608,0.06879157,0.13650675,0.053992692,0.05430922,-0.83465236,1.454461,-1.2712942,-1.3748517,0.81652564,1.0703529,-0.2723494,1.905862,0.09072078,0.66280216,1.8399124,0.14629576,-0.005613655,1.4262145,-1.1477511,0.11524063,1.1690984,0.6524533,1.6708441,2.0,-0.33217466,-1.714646,2.0
2025-07-19 15:19:01.442,0.38000000000000006,380,19,0.12064513,-0.031679723,-0.008334039,-0.047152184,-0.03304152,-0.030679835,0.0,0.0,0.0,-0.007097029,0.054767706,-0.23485419,0.096023895,-0.114862666,-0.086234264,0.0994577,0.09696273,0.014817157,0.28216797,-0.047776446,0.028997658,0.18061371,-0.0321991,0.15040939,0.077274196,-0.022129975,0.096184,0.07193174,-0.048921436,0.22554599,-0.03677368,0.033192154,-0.098555505,0.13582052,0.14629576,-0.005613655,1.4262145,-1.1477511,0.11524063,1.1690984,0.6524533,1.6708441,2.0,-0.33217466,-1.714646,2.0,0.527094,-2.0,0.8010892,-0.3881262,-2.0,0.55929166,0.23600107,-1.1490272,2.0,0.39440835,-1.6123985,2.0
2025-07-19 15:19:01.459,0.4000000000000001,400,20,-0.40351176,0.03158052,0.027379187,0.033194035,0.044503495,0.042137448,0.0,0.0,0.0,-0.007966387,0.06913331,-0.22525704,0.10817279,-0.11351745,-0.10063129,0.112783216,0.100987285,0.007913727,0.28128174,-0.03621966,-0.018225566,0.20091908,0.047296464,-0.1229322,0.01945431,-0.007264984,-0.08164525,-0.055282578,-0.071604006,-0.21180764,-0.048867162,0.06535314,-0.11723544,0.097413264,0.527094,-2.0,0.8010892,-0.3881262,-2.0,0.55929166,0.23600107,-1.1490272,2.0,0.39440835,-1.6123985,2.0,-0.73020434,-0.25826508,1.2504598,-0.7441317,0.24321207,1.0997471,0.838477,2.0,2.0,-0.47196645,0.7073659,2.0
2025-07-19 15:19:01.480,0.4200000000000001,420,21,0.29780975,-0.16124627,0.050924387,0.041523837,0.006003483,0.007839752,0.0,0.0,0.0,-0.0073017566,0.056963813,-0.22373837,0.10474361,-0.122935,-0.09881133,0.1203653,0.10359634,0.026490748,0.27521408,-0.03308412,-0.0094693685,0.2216532,-0.08706291,0.0907653,0.070744425,0.028652657,0.06921075,-0.012208669,-0.04025598,0.16997634,0.006279446,-0.052179538,0.12863797,-0.008138195,-0.73020434,-0.25826508,1.2504598,-0.7441317,0.24321207,1.0997471,0.838477,2.0,2.0,-0.47196645,0.7073659,2.0,0.7967273,-1.4863353,0.88064,-0.7927459,-1.8366355,1.1904207,0.025714122,-1.4258106,1.9732659,0.05204857,-1.0190225,1.3933539
2025-07-19 15:19:01.500,0.4400000000000001,440,22,-0.24607365,0.090596534,0.06695242,0.016431116,0.046948805,0.009866443,0.0,0.0,0.0,-0.007864308,0.0683438,-0.24907762,0.122860454,-0.13083753,-0.1289113,0.12909678,0.08319865,0.0121640805,0.28757003,-0.038404398,-0.009270015,0.22796191,-0.008411022,-0.04233487,-0.03739258,-0.0028665592,-0.18640603,0.006610471,0.0036661874,-0.1114335,-0.0042012143,-0.010811476,-0.09776161,-0.015979497,0.7967273,-1.4863353,0.88064,-0.7927459,-1.8366355,1.1904207,0.025714122,-1.4258106,1.9732659,0.05204857,-1.0190225,1.3933539,-0.23841539,-0.12956282,1.0756176,-0.7386124,0.8444907,1.7694333,0.5688464,1.6966896,2.0,-0.27589917,0.24987185,2.0
2025-07-19 15:19:01.520,0.46000000000000013,460,23,0.19945629,-0.038174935,-0.0054967236,-0.030275576,0.051432718,0.015747333,0.0,0.0,0.0,-0.008393055,0.053958338,-0.2608868,0.11957504,-0.13611618,-0.13753307,0.14032671,0.08763831,0.012185403,0.28024614,-0.03200199,0.011791061,0.24133883,0.029074393,0.023510259,-0.03665736,0.04501349,-0.01630931,0.11628016,0.044329595,0.03956686,0.019112317,-0.06891329,0.06663559,0.059169814,-0.23841539,-0.12956282,1.0756176,-0.7386124,0.8444907,1.7694333,0.5688464,1.6966896,2.0,-0.27589917,0.24987185,2.0,0.42163238,0.5463187,0.64581543,-0.7234292,-1.4467537,1.9082358,0.31944868,-0.5904426,2.0,0.54435575,-0.3204,1.2968047
2025-07-19 15:19:01.543,0.48000000000000015,480,24,-0.12779705,-0.04765758,0.022468552,0.018546045,-0.010645759,0.037334453,0.0,0.0,0.0,-0.00917541,0.05576162,-0.2177058,0.10611061,-0.11925147,-0.14217798,0.16253154,0.095078215,0.008445645,0.296798,-0.029160747,0.009307135,0.23975025,0.013021538,0.16648777,-0.009409018,0.025144784,-0.019340271,0.07126846,-0.041147087,-0.053177383,-0.045110658,0.005240478,-0.084011964,-0.053940456,0.42163238,0.5463187,0.64581543,-0.7234292,-1.4467537,1.9082358,0.31944868,-0.5904426,2.0,0.54435575,-0.3204,1.2968047,-0.154973,-1.1942859,0.6280219,-0.588935,-1.6410539,2.0,0.47078088,-0.45923838,2.0,0.3213926,1.0100158,0.5604217
2025-07-19 15:19:01.560,0.5000000000000001,500,25,-0.05041196,0.06650915,0.049563177,0.029325621,0.048774034,0.024495784,0.0,0.0,0.0,-0.009289836,0.065388285,-0.22434346,0.0984839,-0.12497607,-0.17293648,0.18984964,0.081286825,-0.020033056,0.302511,-0.022788238,0.031628046,0.20942438,-0.09798347,-0.06499947,0.0017040067,0.01549696,-0.13213126,0.08409716,-0.013235523,-0.03784097,-0.00078062154,-0.0044178143,0.114532895,-0.12239344,-0.154973,-1.1942859,0.6280219,-0.588935,-1.6410539,2.0,0.47078088,-0.45923838,2.0,0.3213926,1.0100158,0.5604217,0.19836912,1.0368304,0.5256488,-0.7917412,0.20696858,2.0,-0.09585617,-0.5959553,2.0,0.512148,0.20893788,0.14004008
2025-07-19 15:19:01.580,0.5200000000000001,520,26,0.06641792,0.06598396,0.08651428,0.027518978,0.059567776,0.003109509,0.0,0.0,0.0,-0.009882656,0.054114867,-0.21290024,0.09610573,-0.13552293,-0.19170557,0.211273,0.07169663,-0.05255896,0.3099147,-0.0030016114,0.06598459,0.18007715,0.038218677,0.040964283,-0.084883876,-0.08088547,0.05660685,0.0043927133,-0.008964849,-0.06662803,0.017465882,-0.01439623,-0.0072559156,-0.020872667,0.19836912,1.0368304,0.5256488,-0.7917412,0.20696858,2.0,-0.09585617,-0.5959553,2.0,0.512148,0.20893788,0.14004008,1.2994646,0.906161,0.054318365,0.4160046,-0.44673795,1.5375562,0.22888169,0.17276405,2.0,0.08870647,0.9571539,-1.2909192
2025-07-19 15:19:01.609,0.5400000000000001,540,27,0.06678939,-0.19789723,-0.19805157,0.024086488,0.065625496,0.047559407,0.0,0.0,0.0,-0.010383606,0.077339545,-0.13954599,0.078309596,-0.10904912,-0.18334052,0.21010588,0.07969328,-0.046017602,0.2909916,0.004636054,0.11461471,0.11670397,0.082891,0.22476171,0.0005902841,0.096859425,0.037029594,-0.006866057,0.06105211,0.053545065,0.060913026,0.012024153,0.13948898,-0.12503754,1.2994646,0.906161,0.054318365,0.4160046,-0.44673795,1.5375562,0.22888169,0.17276405,2.0,0.08870647,0.9571539,-1.2909192,-0.35015592,-0.97803015,-0.7090179,-0.28578645,0.17887208,2.0,0.637463,-2.0,2.0,0.7182003,-1.1405079,-2.0
2025-07-19 15:19:01.685,0.5600000000000002,560,28,-0.07329347,-0.051939182,0.07312941,0.036041196,0.02131662,-0.021272626,0.0,0.0,0.0,-0.008486131,0.06291946,-0.14522097,0.05042966,-0.11495227,-0.18859287,0.21818508,0.08516947,-0.042349447,0.30811897,0.03572404,0.11255992,0.042347338,-0.08009969,-0.1887823,-0.0146697415,0.020602517,0.04624484,0.070109114,-0.03079518,-0.09010826,0.014620799,0.011899615,-0.1384917,-0.1979606,-0.35015592,-0.97803015,-0.7090179,-0.28578645,0.17887208,2.0,0.637463,-2.0,2.0,0.7182003,-1.1405079,-2.0,0.26678047,0.6285914,-0.119093895,-0.2772424,1.0908129,0.13572326,0.23330411,-1.3667932,2.0,-0.81453466,0.7819389,-0.15092175
2025-07-19 15:19:01.792,0.5800000000000002,580,29,0.11057562,0.20396933,0.1729364,-0.058306582,0.06339287,-0.023756295,0.0,0.0,0.0,-0.008191447,0.050714962,-0.12577198,0.030862307,-0.09659596,-0.11410902,0.1793734,0.08071892,-0.06581151,0.31395665,0.0060737273,0.09439425,0.033019677,0.063429125,0.16844817,-0.022863373,0.07353177,0.19091788,-0.096865445,0.034648035,-0.023147533,-0.051542837,-0.06792972,0.17794016,-0.0850911,0.26678047,0.6285914,-0.119093895,-0.2772424,1.0908129,0.13572326,0.23330411,-1.3667932,2.0,-0.81453466,0.7819389,-0.15092175,1.1745738,-2.0,-0.47150117,1.265325,-1.4408376,0.4494814,-0.41462544,1.324864,2.0,-1.1963425,-2.0,-0.6134864
2025-07-19 15:19:01.812,0.6000000000000002,600,30,-0.23832695,-0.17273082,-0.11905912,0.006430571,-0.00071297894,0.025380313,0.0,0.0,0.0,-0.010380522,0.08065295,-0.13575281,0.013851421,-0.07710082,-0.070362896,0.16958894,0.061936032,-0.060666792,0.3045726,-0.034996532,0.08668819,0.008719063,0.11928365,-0.08662732,0.008780938,0.03393221,-0.012334826,-0.037372433,-0.052048,0.06319767,-0.025919393,-0.14557226,-0.23963594,-0.07582535,1.1745738,-2.0,-0.47150117,1.265325,-1.4408376,0.4494814,-0.41462544,1.324864,2.0,-1.1963425,-2.0,-0.6134864,-0.174503,-2.0,2.0,0.09527773,-1.140316,-0.7949099,0.80092525,0.32477835,2.0,-1.2784185,-0.55004686,2.0
2025-07-19 15:19:01.831,0.6200000000000002,620,31,-0.14847165,0.07512296,-0.025181377,0.00060171133,0.010580703,0.0071714725,0.0,0.0,0.0,-0.010456869,0.07058555,-0.22248138,0.06723586,-0.07490914,-0.072937794,0.11979732,0.06829819,-0.024077835,0.30288622,-0.06896917,0.028312989,0.052495122,-0.030618727,-0.25409472,0.06659871,-0.014397606,-0.12959543,-0.14564233,0.07412675,0.0046802475,0.033548128,-0.11858971,-0.0557089,0.10530309,-0.174503,-2.0,2.0,0.09527773,-1.140316,-0.7949099,0.80092525,0.32477835,2.0,-1.2784185,-0.55004686,2.0,-0.032618612,0.30375648,1.9709848,-1.4788129,1.2989146,-0.41606572,1.3120818,2.0,2.0,0.57310563,-0.21585178,2.0
2025-07-19 15:19:01.852,0.6400000000000002,640,32,0.26723227,0.008296938,-0.082596466,-0.033755362,0.023171637,-0.022035046,0.0,0.0,0.0,-0.008777219,0.06853732,-0.27262628,0.095912345,-0.094487116,-0.045409236,0.081609756,0.097828776,0.038257062,0.3033997,-0.05200925,0.0006564332,0.09215539,0.02985824,-0.030345257,0.06358165,-0.02154637,0.18467379,-0.09419996,0.012592516,0.30857897,-0.0032836203,-0.013613062,-0.025171747,0.044780865,-0.032618612,0.30375648,1.9709848,-1.4788129,1.2989146,-0.41606572,1.3120818,2.0,2.0,0.57310563,-0.21585178,2.0,-0.7133713,-0.46954846,2.0,-1.7783011,-0.89660126,-1.2418703,2.0,-0.6882464,2.0,1.0621098,-0.7655729,2.0
2025-07-19 15:19:01.875,0.6600000000000003,660,33,0.30084506,0.1814538,-0.042177394,-0.039816596,-0.04010288,0.012924551,0.0,0.0,0.0,-0.008113902,0.04759089,-0.2642483,0.12655622,-0.13040917,-0.03576417,0.03538509,0.14571942,0.07966942,0.30576652,-0.02661212,-0.035690133,0.14624746,0.026961142,-0.025399152,-0.012846589,-0.13650697,-0.09468763,-0.12335835,0.101490885,-0.07946902,-0.020582888,0.0020006953,-0.1380952,0.13453291,-0.7133713,-0.46954846,2.0,-1.7783011,-0.89660126,-1.2418703,2.0,-0.6882464,2.0,1.0621098,-0.7655729,2.0,-1.032039,0.6810599,1.3256775,-1.6226748,0.35307714,0.43241778,2.0,0.24533896,2.0,-0.07657742,-0.009568304,2.0
2025-07-19 15:19:01.892,0.6800000000000003,680,34,0.37994063,-0.04450045,-0.023504747,0.018200424,-0.019898303,0.044204254,0.0,0.0,0.0,-0.006872611,0.021814702,-0.23934522,0.13048625,-0.15550973,-0.02135789,0.031653933,0.16738331,0.07653955,0.31017357,-0.020530013,-0.03815281,0.16427638,-0.035840146,0.045364216,-0.012187198,0.016145157,0.0648404,0.02583147,0.12084197,-0.036378942,-0.060969107,-0.092476964,0.038321923,-0.0201699,-1.032039,0.6810599,1.3256775,-1.6226748,0.35307714,0.43241778,2.0,0.24533896,2.0,-0.07657742,-0.009568304,2.0,-0.6794125,0.15327324,0.34735823,-1.4725739,-1.9854395,1.0411503,1.6650506,-0.4831982,2.0,0.49285245,0.087742954,2.0
2025-07-19 15:19:01.912,0.7000000000000003,700,35,0.054910574,-0.19216082,0.01398592,-0.0022690317,0.0033504863,0.032971106,0.0,0.0,0.0,-0.0058745076,0.00932414,-0.1917521,0.11544718,-0.16670115,-0.052063048,0.063894175,0.19810142,0.048461184,0.30453026,-0.032434616,-0.026146425,0.1639635,0.0501049,0.0734111,-0.0334138,0.023036394,-0.18826507,0.04681897,0.0544607,-0.15996967,0.038036015,0.0547038,0.09747418,0.069476396,-0.6794125,0.15327324,0.34735823,-1.4725739,-1.9854395,1.0411503,1.6650506,-0.4831982,2.0,0.49285245,0.087742954,2.0,-0.9519241,-1.1160254,-0.22109652,-0.58465123,-2.0,2.0,0.3420494,-0.5417643,2.0,0.2582389,-0.555128,1.1390796
2025-07-19 15:19:01.932,0.7200000000000003,720,36,-0.31491864,0.15848666,0.004989526,0.009060934,-0.06535329,-0.03777195,0.0,0.0,0.0,-0.0058235377,-0.0116959,-0.1825807,0.08058293,-0.17182782,-0.1678596,0.108749434,0.17720419,-0.005530813,0.3088315,-0.016437158,-0.041001674,0.1751091,-0.0065156785,-0.12901299,-0.024978736,0.09323105,-0.27556416,0.09318852,-0.037356723,-0.051255576,0.07468547,0.06070379,-0.1145519,-0.032658253,-0.9519241,-1.1160254,-0.22109652,-0.58465123,-2.0,2.0,0.3420494,-0.5417643,2.0,0.2582389,-0.555128,1.1390796,-0.51002693,0.6433571,0.8063467,-1.0220684,0.748602,2.0,0.4960951,0.12913685,2.0,-0.5218682,2.0,1.6769313
2025-07-19 15:19:01.952,0.7400000000000003,740,37,0.17929886,0.0151559925,-0.0059179333,-0.007260259,-0.049624074,-0.03575204,0.0,0.0,0.0,-0.0059262915,-0.032564882,-0.1890682,0.07062158,-0.15854207,-0.22405761,0.14772034,0.16423163,0.0035340744,0.317474,-0.043256335,-0.0061751585,0.17564453,0.018489098,0.10471755,-0.0047286,-0.001105173,0.023767056,0.10856719,-0.08409014,0.05223495,-0.04598911,-0.02610889,0.12759295,0.0664152,-0.51002693,0.6433571,0.8063467,-1.0220684,0.748602,2.0,0.4960951,0.12913685,2.0,-0.5218682,2.0,1.6769313,0.67082036,0.74175155,0.29128188,-1.081672,-1.0906227,1.8343219,0.17935315,-1.8886291,2.0,0.9061893,0.18233278,0.30222273
2025-07-19 15:19:01.975,0.7600000000000003,760,38,-0.21987504,0.09984406,-0.048797484,0.02838738,0.0102537945,0.04542963,0.0,0.0,0.0,-0.005978565,0.0011244728,-0.16635999,0.0693269,-0.16605723,-0.25206444,0.17109175,0.16580313,-0.016832892,0.31035477,-0.018823083,-0.0017725426,0.15624219,-0.0029480713,0.16722485,0.03048537,0.04845669,-0.1603749,0.028609203,-0.007205777,-0.0398259,0.052534886,0.036650766,0.04623172,-0.06289797,0.67082036,0.74175155,0.29128188,-1.081672,-1.0906227,1.8343219,0.17935315,-1.8886291,2.0,0.9061893,0.18233278,0.30222273,-0.6860306,-0.33520937,-1.1022081,-0.61752033,0.3438618,2.0,-0.07076434,-2.0,2.0,1.1328064,1.1482127,-0.770153
2025-07-19 15:19:01.992,0.7800000000000004,780,39,-0.1325887,0.09943979,0.21476696,0.054857254,-0.063595325,0.03995091,0.0,0.0,0.0,-0.0056479042,-0.021269824,-0.13688156,0.01505962,-0.16516005,-0.249829,0.1822561,0.13867547,-0.039175075,0.32286206,0.016573003,0.07254745,0.116074175,-0.06552764,0.011308069,-0.091879085,0.029105797,0.02892394,0.050428428,0.008343898,-0.04635851,-0.05813532,0.14397353,0.19791926,-0.08909758,-0.6860306,-0.33520937,-1.1022081,-0.61752033,0.3438618,2.0,-0.07076434,-2.0,2.0,1.1328064,1.1482127,-0.770153,0.654022,0.4459748,-1.4050156,0.4539384,0.32037637,1.5582469,-1.0665667,-1.5143675,2.0,0.18294483,-0.40456152,-1.6424276
2025-07-19 15:19:02.012,0.8000000000000004,800,40,-0.121614814,0.046104457,0.056612857,0.054780606,-0.03644311,0.020714996,0.0,0.0,0.0,-0.007650555,0.003147861,-0.12043074,-0.03234389,-0.16453074,-0.22542514,0.17434299,0.12950958,-0.07148996,0.31989953,0.014307428,0.07994267,0.048036184,0.05946256,0.19809608,-0.14920363,0.024295336,0.10542207,-0.07044688,-0.06888735,-0.027380565,-0.027831206,-0.058472753,-0.11370704,-0.21352689,0.654022,0.4459748,-1.4050156,0.4539384,0.32037637,1.5582469,-1.0665667,-1.5143675,2.0,0.18294483,-0.40456152,-1.6424276,0.61470187,-1.4441586,-0.97297436,1.0348438,0.7014993,0.88213795,-0.63019073,-1.5138803,2.0,-1.2033926,-0.19415276,-2.0
2025-07-19 15:19:02.033,0.8200000000000004,820,41,-0.106695764,0.11887202,0.05441839,0.03813084,-0.011167826,0.03886894,0.0,0.0,0.0,-0.009284481,0.018690946,-0.12210788,-0.04459915,-0.14254381,-0.17490198,0.16480613,0.09998633,-0.1145791,0.32239586,-0.02107239,0.044466116,-0.024382923,0.007923489,-0.1557509,-0.004678882,0.017714772,0.12843382,-0.093601786,-0.11049913,-0.1357168,-0.033459745,-0.08294918,-0.026274538,-0.1653036,0.61470187,-1.4441586,-0.97297436,1.0348438,0.7014993,0.88213795,-0.63019073,-1.5138803,2.0,-1.2033926,-0.19415276,-2.0,0.8758862,-1.0156949,-0.41364098,0.9329783,0.7638338,-0.48818576,-0.51870275,0.9463782,2.0,-1.6096483,-0.57150424,-0.6115324
2025-07-19 15:19:02.055,0.8400000000000004,840,42,0.0014769683,-0.18665552,-0.025659159,-0.0047018058,0.033754896,-0.006455026,0.0,0.0,0.0,-0.009835226,0.034310315,-0.17119771,-0.048070103,-0.10614583,-0.10125519,0.12000779,0.074285835,-0.077054664,0.31498134,-0.062056143,-0.0036819766,-0.02150061,0.04041992,-0.1102412,0.021029219,0.14158484,0.14868376,-0.035787094,-0.050307494,0.20208223,0.051541016,-0.09329543,-0.12420062,-0.07851491,0.8758862,-1.0156949,-0.41364098,0.9329783,0.7638338,-0.48818576,-0.51870275,0.9463782,2.0,-1.6096483,-0.57150424,-0.6115324,0.0675219,-1.3257391,2.0,0.41198146,0.16313007,-1.5591139,-0.111528955,-0.519364,1.9262692,-1.0118786,-1.652725,2.0
2025-07-19 15:19:02.075,0.8600000000000004,860,43,-0.19609973,-0.009228422,-0.047937404,0.016042495,-0.026801068,0.046053253,0.0,0.0,0.0,-0.009486756,0.036833722,-0.2320777,0.0028899256,-0.07470899,-0.06672604,0.056187466,0.065877184,-0.071040586,0.31782305,-0.07660646,-0.08905347,0.018044181,0.010680929,-0.16494806,0.15783104,0.0034037605,0.0438679,-0.18741989,0.03965386,-0.08109665,0.0379847,0.0072145835,-0.2787281,0.1584658,0.0675219,-1.3257391,2.0,0.41198146,0.16313007,-1.5591139,-0.111528955,-0.519364,1.9262692,-1.0118786,-1.652725,2.0,0.012981862,0.14390498,1.9873651,-0.49967664,0.5362622,-1.4102427,1.1479186,2.0,2.0,0.7804532,0.95853984,2.0
2025-07-19 15:19:02.093,0.8800000000000004,880,44,0.2900417,-0.06287878,0.002767911,0.047885086,-0.0076773935,0.023144845,0.0,0.0,0.0,-0.008563405,0.038154602,-0.25373194,0.062019635,-0.08041342,-0.017728837,0.012543512,0.09122471,-0.016815174,0.32411525,-0.052540034,-0.12846747,0.08003527,-0.019875757,0.096497685,0.041270714,-0.012479385,0.12920952,-0.12374537,0.10270553,0.18820985,0.027438037,0.10490763,0.11020323,0.13255702,0.012981862,0.14390498,1.9873651,-0.49967664,0.5362622,-1.4102427,1.1479186,2.0,2.0,0.7804532,0.95853984,2.0,-0.29982165,-1.533159,2.0,-1.6422029,-0.741031,-0.7783747,2.0,0.77466494,2.0,0.634578,-0.6441674,2.0
2025-07-19 15:19:02.113,0.9000000000000005,900,45,-0.0516609,-0.0077610314,4.8071533e-06,0.011714287,-0.033635616,-0.005120475,0.0,0.0,0.0,-0.008895395,0.026699828,-0.27708966,0.103430904,-0.105015635,-0.041807182,-0.0038582464,0.121526666,0.048649024,0.3128072,-0.03145664,-0.13349374,0.10841115,0.06077531,-0.009191651,0.08029441,-0.043494858,-0.17296803,-0.044322863,0.05484091,0.15105775,0.05712097,0.001953198,-0.10164755,0.12276841,-0.29982165,-1.533159,2.0,-1.6422029,-0.741031,-0.7783747,2.0,0.77466494,2.0,0.634578,-0.6441674,2.0,-0.6328523,-0.13292998,2.0,-2.0,1.4307379,-0.09156629,1.6997191,0.0949152,2.0,-0.25195664,-0.39325303,2.0
2025-07-19 15:19:02.133,0.9200000000000005,920,46,0.14102648,0.15029968,-0.022074217,0.05631595,-0.024055464,0.0024628143,0.0,0.0,0.0,-0.0093646785,0.015238107,-0.27782473,0.12025466,-0.15042065,-0.037855208,-0.019526338,0.15268132,0.040089287,0.31346908,-0.036352057,-0.1316089,0.13603806,-0.073678836,0.03966768,0.05827357,-0.13378456,0.09736799,0.03977286,0.04093844,0.06431004,-0.0019798242,0.02009446,-0.0727647,0.009451851,-0.6328523,-0.13292998,2.0,-2.0,1.4307379,-0.09156629,1.6997191,0.0949152,2.0,-0.25195664,-0.39325303,2.0,-0.4628025,0.14512846,1.244038,-2.0,-0.5467963,0.099367894,2.0,-0.11165686,2.0,0.08925832,0.7593214,2.0
2025-07-19 15:19:02.158,0.9400000000000005,940,47,0.23650315,-0.10311704,0.022554975,0.031186607,0.023031052,0.03213162,0.0,0.0,0.0,-0.009809191,0.016473902,-0.26973566,0.13040675,-0.16823143,-0.031283997,-0.015136149,0.19325882,0.04267108,0.32279,-0.054294642,-0.1071339,0.16048901,-0.0059481757,0.1309483,0.002114167,-0.04906975,-0.051918358,0.07068147,0.14166866,-0.0037226216,0.05714861,-0.050013978,0.051454436,0.090886354,-0.4628025,0.14512846,1.244038,-2.0,-0.5467963,0.099367894,2.0,-0.11165686,2.0,0.08925832,0.7593214,2.0,-0.78229487,-0.6340628,0.25082618,-1.4189405,-1.2654886,1.6353353,1.0678922,-0.8697737,2.0,0.06455565,-1.0260465,2.0
2025-07-19 15:19:02.175,0.9600000000000005,960,48,-0.18316738,0.08404937,-0.019404849,0.021832494,-0.026812272,-0.031072933,0.0,0.0,0.0,-0.009950246,0.00042042875,-0.24586065,0.10468316,-0.18326624,-0.109895535,0.032054666,0.18424127,-0.027752258,0.32498267,-0.0480543,-0.10915778,0.1865555,-0.0703299,-0.0018261861,-0.024793234,-0.06871787,-0.13628186,0.1276336,0.004603584,-0.23043694,-0.01969481,0.07575191,-0.07107747,0.09121688,-0.78229487,-0.6340628,0.25082618,-1.4189405,-1.2654886,1.6353353,1.0678922,-0.8697737,2.0,0.06455565,-1.0260465,2.0,-1.0033619,-1.139051,0.38501716,-0.9758251,-1.521054,2.0,1.4618698,0.86413723,2.0,-0.52121174,2.0,2.0
2025-07-19 15:19:02.193,0.9800000000000005,980,49,-0.0021824033,0.081734076,0.08606049,-0.024865167,-0.011753758,0.044469114,0.0,0.0,0.0,-0.010482592,-0.023161706,-0.27514136,0.09500581,-0.19065344,-0.2064201,0.09127805,0.19101477,-0.034612253,0.30573076,-0.062878475,-0.07969961,0.19447969,0.013857258,-0.07876896,0.032431837,0.01701975,-0.2525737,0.054550763,-0.00355067,0.106923684,-0.052899443,-0.046968576,0.14021547,-0.027978713,-1.0033619,-1.139051,0.38501716,-0.9758251,-1.521054,2.0,1.4618698,0.86413723,2.0,-0.52121174,2.0,2.0,0.39219096,0.3078847,1.053921,-1.342146,-0.17144468,2.0,-0.45068982,-1.5002964,2.0,-0.48870128,-0.0295012,1.643628
2025-07-19 15:19:02.213,1.0000000000000004,1000,50,-0.016269116,-0.065710045,0.040597744,0.06697577,-0.077087395,0.03195357,0.0,0.0,0.0,-0.011889519,-0.014351806,-0.26876304,0.09613381,-0.19761267,-0.2286954,0.119344145,0.16769482,-0.054757852,0.31907535,-0.0600817,-0.056447696,0.20828639,-0.033936735,0.10502539,0.009365575,-0.08832327,0.016397433,0.058723416,-0.1760846,-0.19525659,0.0069740796,-0.058338434,0.015937822,-0.030149793,0.39219096,0.3078847,1.053921,-1.342146,-0.17144468,2.0,-0.45068982,-1.5002964,2.0,-0.48870128,-0.0295012,1.643628,0.8298286,-0.290381,-0.36905032,-0.2600703,-0.60322917,2.0,0.21269262,0.61392426,2.0,-0.058490984,1.0718865,1.0504824
2025-07-19 15:19:02.233,1.0200000000000005,1020,51,0.075015485,-0.31961876,-0.015703237,0.00024092422,0.033600483,0.036654335,0.0,0.0,0.0,-0.012374324,0.0035628693,-0.23205644,0.06494362,-0.18220542,-0.227934,0.15542696,0.13966267,-0.043359958,0.3121829,-0.04247117,-0.004416012,0.2004546,0.054025967,0.06921898,-0.091328874,0.06355974,0.0027564669,0.061109893,0.04882547,0.14686745,0.0017366636,0.030604009,0.2644886,-0.013111468,0.8298286,-0.290381,-0.36905032,-0.2600703,-0.60322917,2.0,0.21269262,0.61392426,2.0,-0.058490984,1.0718865,1.0504824,0.5787419,-0.0054160953,0.6606043,-0.33715472,-0.9906632,2.0,-0.50459766,-2.0,1.9450171,0.905633,-1.6028497,-0.617998
2025-07-19 15:19:02.258,1.0400000000000005,1040,52,-0.20728713,0.05824588,-0.18362564,0.003938167,0.023674069,0.004602682,0.0,0.0,0.0,-0.011541359,0.022644125,-0.21924718,0.06382507,-0.16152693,-0.24796969,0.1711465,0.12125239,-0.031714454,0.31869194,-0.032930885,0.016595922,0.15754291,-0.0022182278,0.12539591,-0.052612416,-0.026481926,-0.124298915,-0.0045726094,-0.013838226,0.031825304,-0.055248804,0.03808272,-0.02469366,-0.038936555,0.5787419,-0.0054160953,0.6606043,-0.33715472,-0.9906632,2.0,-0.50459766,-2.0,1.9450171,0.905633,-1.6028497,-0.617998,-0.7846477,-0.1123727,-1.4067327,-0.45877716,1.401108,2.0,0.5804233,-2.0,2.0,1.5031972,0.9951858,-0.7441376
2025-07-19 15:19:02.275,1.0600000000000005,1060,53,-0.051115014,0.09923136,0.14748526,0.04109957,0.0049438127,-0.042081386,0.0,0.0,0.0,-0.008209506,0.021058427,-0.18970118,0.025462685,-0.16139154,-0.25859678,0.19592047,0.11692509,-0.047401316,0.32251093,0.008299247,0.06235968,0.10227427,-0.12852941,0.05419432,-0.05752167,0.02106202,0.10056859,-0.041089818,0.08232692,-0.014459232,-0.06480496,0.06711242,0.17560996,-0.12984823,-0.7846477,-0.1123727,-1.4067327,-0.45877716,1.401108,2.0,0.5804233,-2.0,2.0,1.5031972,0.9951858,-0.7441376,0.17196491,0.7701983,-1.5459479,0.019594729,0.05050466,1.0991762,-0.6785843,-2.0,2.0,0.4222923,0.3886826,-1.1797136
2025-07-19 15:19:02.294,1.0800000000000005,1080,54,-0.023962164,0.070091866,-0.0019636012,0.04437824,0.024322089,-0.017104626,0.0,0.0,0.0,-0.008321213,0.017900057,-0.13767004,-0.03972507,-0.15116143,-0.2150121,0.18672271,0.11454168,-0.09904426,0.31847128,0.017692955,0.10153139,0.04362297,-0.025193458,0.121637814,-0.15574019,-0.028348492,0.14072295,0.018999018,-0.004974031,-0.10709599,-0.0043272804,-0.047774926,0.03510648,-0.13137619,0.17196491,0.7701983,-1.5459479,0.019594729,0.05050466,1.0991762,-0.6785843,-2.0,2.0,0.4222923,0.3886826,-1.1797136,0.10709965,-0.4861439,-1.5082749,0.5246501,0.1346364,1.5381317,0.17094523,-1.1457996,2.0,-0.8838037,-0.19733754,-2.0
2025-07-19 15:19:02.313,1.1000000000000005,1100,55,-0.19065799,-0.13807195,0.15739995,0.047114167,-0.021276802,-0.02777865,0.0,0.0,0.0,-0.009161454,0.009584184,-0.11949091,-0.07578006,-0.11654866,-0.17513785,0.17624907,0.105724946,-0.12635927,0.3293184,0.0022310787,0.079996414,-0.014829885,-0.06763802,0.023305912,-0.12746607,0.00599338,0.037285693,0.030567538,0.05541504,-0.025780534,0.011915653,-0.08692173,-0.08143841,-0.14095621,0.10709965,-0.4861439,-1.5082749,0.5246501,0.1346364,1.5381317,0.17094523,-1.1457996,2.0,-0.8838037,-0.19733754,-2.0,1.0727881,-1.3728657,-0.59558517,0.90450907,0.63241494,0.27313927,-0.6836279,0.372929,2.0,-1.2977566,-0.8193929,-0.61887354
2025-07-19 15:19:02.334,1.1200000000000006,1120,56,-0.0010242065,-0.12814999,-0.010673601,0.028037963,0.0010778925,0.00053751393,0.0,0.0,0.0,-0.010413145,0.04292082,-0.17439903,-0.07213926,-0.086866915,-0.10948234,0.15080188,0.07753543,-0.10398369,0.30749667,-0.035694133,-0.002186431,-0.022998122,0.08701188,-0.26239467,-0.051671863,0.07849777,0.1405965,-0.1155439,0.017156962,0.071909025,0.043114252,-0.16018403,-0.192608,-0.04669142,1.0727881,-1.3728657,-0.59558517,0.90450907,0.63241494,0.27313927,-0.6836279,0.372929,2.0,-1.2977566,-0.8193929,-0.61887354,0.25552204,0.04647258,2.0,0.22486013,-0.12776992,-1.563363,0.36746573,0.9327577,2.0,-0.8703902,-0.777835,2.0
2025-07-19 15:19:02.356,1.1400000000000006,1140,57,0.071128584,-0.15844917,-0.15552048,-0.0036513528,-0.005094863,-0.0033562065,0.0,0.0,0.0,-0.010785047,0.043286685,-0.20262523,-0.02100061,-0.06083213,-0.08631906,0.09308747,0.0877132,-0.04313402,0.3050306,-0.04777117,-0.05064863,0.029446365,0.012941017,0.092536084,0.20353957,0.023036083,0.0095038945,-0.1535879,-0.0045158355,0.20539415,0.05558416,-0.10588267,-0.20294766,0.086692736,0.25552204,0.04647258,2.0,0.22486013,-0.12776992,-1.563363,0.36746573,0.9327577,2.0,-0.8703902,-0.777835,2.0,-0.6569954,-2.0,2.0,-1.0343579,0.6513293,-1.3249484,0.6642074,-0.89893776,1.7470862,0.58623403,0.37799233,2.0
2025-07-19 15:19:02.375,1.1600000000000006,1160,58,0.08856543,0.3535549,0.23917882,0.004709215,0.009845344,0.006633466,0.0,0.0,0.0,-0.008863529,0.028577989,-0.18862702,0.046291705,-0.08392317,-0.028913606,0.036246605,0.07395071,0.003455208,0.30202788,-0.04078305,-0.046929244,0.068940654,-0.13071765,-0.04907173,0.09149657,-0.12049435,0.2011204,-0.10880698,0.07761625,0.06644385,-0.03692852,0.012885955,0.041314717,0.13679357,-0.6569954,-2.0,2.0,-1.0343579,0.6513293,-1.3249484,0.6642074,-0.89893776,1.7470862,0.58623403,0.37799233,2.0,0.52582324,0.27783632,2.0,-0.5560464,0.07158527,-0.43562752,1.6506288,1.6326029,2.0,-0.7581374,-1.3927743,2.0
2025-07-19 15:19:02.394,1.1800000000000006,1180,59,0.1366794,0.018185291,-0.121324636,-0.019014154,0.046206,-0.047222737,0.0,0.0,0.0,-0.009997434,0.034464065,-0.17455316,0.074381426,-0.07791796,-0.014356422,0.02552421,0.11840217,0.044220738,0.2978401,-0.039687835,-0.06278258,0.11853197,-0.027819874,0.1402995,0.009164977,0.0666326,0.06697014,-0.019221984,0.012708611,0.28518066,0.06008261,0.01944549,-0.15451032,0.06352921,0.52582324,0.27783632,2.0,-0.5560464,0.07158527,-0.43562752,1.6506288,1.6326029,2.0,-0.7581374,-1.3927743,2.0,-0.15831307,-2.0,1.2124244,-1.6620349,-0.9119926,-0.50254285,1.0341321,-1.5519568,2.0,0.44752884,0.048081696,2.0
2025-07-19 15:19:02.414,1.2000000000000006,1200,60,-0.06546361,0.111177005,0.12511379,0.036648884,0.023164652,-0.017270945,0.0,0.0,0.0,-0.0104612615,0.03461504,-0.16116874,0.0893511,-0.11066925,-0.055951964,-0.003988169,0.13418782,0.063502476,0.3171393,-0.04178545,-0.057193574,0.14067136,0.047714032,0.0049897158,0.07028591,-0.03394324,-0.14252837,-0.058545,-0.017254436,-0.11653453,-0.012497293,0.033499323,0.055810373,0.09329026,-0.15831307,-2.0,1.2124244,-1.6620349,-0.9119926,-0.50254285,1.0341321,-1.5519568,2.0,0.44752884,0.048081696,2.0,-0.43433264,-0.14021629,1.0435182,-0.71054375,0.29324976,1.2918537,1.2010992,0.6268813,2.0,-1.1227884,-1.4136746,2.0
2025-07-19 15:19:02.434,1.2200000000000006,1220,61,0.18798746,0.1506455,-0.081889525,0.010074243,-0.0043626004,0.025533626,0.0,0.0,0.0,-0.011530198,0.012422206,-0.15938358,0.095421515,-0.11774141,-0.08206616,0.029918443,0.13796072,0.08270311,0.30159888,-0.062562875,-0.07185482,0.16855921,0.026854454,0.05602066,-0.04521035,0.029189413,-0.03415125,0.05936098,0.005204837,0.06536216,0.056693118,-0.02132562,0.032580357,0.0062377304,-0.43433264,-0.14021629,1.0435182,-0.71054375,0.29324976,1.2918537,1.2010992,0.6268813,2.0,-1.1227884,-1.4136746,2.0,0.27357757,-1.7620988,0.23834163,-1.2787117,-1.8907415,1.2382265,0.7538548,-1.1458209,2.0,0.4694512,-0.54137945,2.0
2025-07-19 15:19:02.458,1.2400000000000007,1240,62,-0.25962266,0.14543545,0.069619656,0.03152702,-0.02063489,0.03170116,0.0,0.0,0.0,-0.011945568,0.022419674,-0.15024023,0.09596934,-0.14176269,-0.0970174,0.049271144,0.13992739,0.04893393,0.31957346,-0.046883684,-0.08366247,0.20289023,0.09088277,-0.12893341,-0.068109535,-0.019142644,-0.14665398,0.13301827,-0.013342067,-0.22578427,0.012543971,0.0039428724,-0.122756995,-0.015923038,0.27357757,-1.7620988,0.23834163,-1.2787117,-1.8907415,1.2382265,0.7538548,-1.1458209,2.0,0.4694512,-0.54137945,2.0,-1.2381305,-0.2965126,1.3877124,-0.8512182,-0.64660984,2.0,0.66143906,1.5029163,2.0,-1.6195363,1.6087555,2.0
2025-07-19 15:19:02.475,1.2600000000000007,1260,63,0.30095127,-0.015005874,0.09281496,0.030166853,0.02441945,0.025173243,0.0,0.0,0.0,-0.012730393,0.0053942148,-0.16757056,0.096391626,-0.14939219,-0.122412,0.09170016,0.12996641,0.0383854,0.3112159,-0.07706625,-0.061078805,0.20890558,-0.13245675,0.09252818,0.10514429,-0.025992118,-0.056202292,0.08529515,-0.08257595,0.059891358,-0.062915996,-0.03334032,0.10715423,0.015894001,-1.2381305,-0.2965126,1.3877124,-0.8512182,-0.64660984,2.0,0.66143906,1.5029163,2.0,-1.6195363,1.6087555,2.0,1.4433116,-1.3321538,0.3452439,-0.892839,-1.4809675,1.7795029,-0.087679006,-0.78014326,2.0,-0.4526971,0.16370907,1.2272996
2025-07-19 15:19:02.494,1.2800000000000007,1280,64,-0.1341599,-0.098710135,-0.008087498,-0.02138718,-0.03703625,0.040576354,0.0,0.0,0.0,-0.013963087,0.046990916,-0.19137716,0.10214786,-0.16008234,-0.1725346,0.12618586,0.107057355,0.014286294,0.30788946,-0.079955675,-0.038507055,0.19819275,0.1515851,-0.17215158,0.04632391,-0.043352634,-0.15174446,0.09294948,-0.11084194,-0.12330598,0.012108729,0.040179726,0.016103921,-0.012772704,1.4433116,-1.3321538,0.3452439,-0.892839,-1.4809675,1.7795029,-0.087679006,-0.78014326,2.0,-0.4526971,0.16370907,1.2272996,-0.11964682,0.7649483,1.5465976,-0.9308559,0.7977446,2.0,0.24528569,1.2205774,2.0,-0.16880956,0.77088463,1.9320099
2025-07-19 15:19:02.514,1.3000000000000007,1300,65,0.28224337,-0.33507735,0.11898469,-0.0143619245,-0.06514243,0.044903904,0.0,0.0,0.0,-0.0143263005,0.057486597,-0.18462418,0.108035855,-0.15701199,-0.163704,0.16089323,0.10610485,0.03311241,0.30969667,-0.0759024,0.02567367,0.21902256,-0.049112286,0.07793164,-0.0062842635,-0.0019855886,0.15502317,-0.0048601218,-0.029058576,0.1334472,-0.06486804,0.07206991,0.20203196,0.06482695,-0.11964682,0.7649483,1.5465976,-0.9308559,0.7977446,2.0,0.24528569,1.2205774,2.0,-0.16880956,0.77088463,1.9320099,1.9573406,-1.3537939,0.3514058,0.1896081,-1.8445802,1.2858022,-0.51648307,-1.6304195,1.6990817,0.54406744,-2.0,-0.056538984
2025-07-19 15:19:02.557,1.3200000000000007,1320,66,-0.36994424,-0.08931615,-0.057177898,0.038248174,-0.032481518,0.036013734,0.0,0.0,0.0,-0.015322451,0.09926832,-0.1992827,0.104580835,-0.13858299,-0.18265167,0.17160235,0.075885706,0.031663906,0.31498605,-0.06451023,0.037525713,0.18191308,0.08221677,-0.10402883,-0.089809105,0.039490875,-0.015033048,-0.009163187,-0.0176594,-0.1305313,-0.08067495,0.08521217,-0.10002407,-0.07445931,1.9573406,-1.3537939,0.3514058,0.1896081,-1.8445802,1.2858022,-0.51648307,-1.6304195,1.6990817,0.54406744,-2.0,-0.056538984,0.05835691,-0.5869482,0.08640319,0.15411626,0.02364016,1.2818341,0.73562413,0.93543965,2.0,-0.008802378,0.75749815,1.8275099
2025-07-19 15:19:02.576,1.3400000000000007,1340,67,0.11327115,-0.15676478,0.01657412,0.016306352,0.032974586,-0.008339577,0.0,0.0,0.0,-0.014730233,0.09571455,-0.20573922,0.09064895,-0.12080595,-0.17107522,0.17068432,0.08930221,0.071011595,0.29508364,-0.040514454,0.057361387,0.20277359,0.050998017,0.048964906,-0.015049399,0.05886321,0.091828026,-0.0510391,-0.044418503,0.11468273,0.026721707,0.08438055,0.054288696,0.06562789,0.05835691,-0.5869482,0.08640319,0.15411626,0.02364016,1.2818341,0.73562413,0.93543965,2.0,-0.008802378,0.75749815,1.8275099,0.29248917,-0.9268452,2.0,-0.7310811,-1.3625481,1.3218803,0.1261498,-1.7913665,1.215088,0.034391887,-0.8600989,1.2747316
2025-07-19 15:19:02.593,1.3600000000000008,1360,68,-0.033593755,0.054688435,-0.06270423,-0.054578856,0.04867707,-0.04400542,0.0,0.0,0.0,-0.014324689,0.08812805,-0.23569879,0.12586567,-0.11595867,-0.16124995,0.17698742,0.06605376,0.062485874,0.28473482,-0.038844112,0.04792506,0.19058028,0.057158735,-0.061438896,0.019807355,-0.0011577646,-0.042766348,-0.014094161,-0.100684024,-0.069954336,-0.0013071734,-0.025277633,-0.13425454,-0.044323802,0.29248917,-0.9268452,2.0,-0.7310811,-1.3625481,1.3218803,0.1261498,-1.7913665,1.215088,0.034391887,-0.8600989,1.2747316,0.06093189,-0.41407603,0.93101084,-1.1083304,0.9249699,0.8985974,0.9169335,0.33983472,2.0,-0.3513971,1.0271331,1.9777075
2025-07-19 15:19:02.613,1.3800000000000008,1380,69,0.12533198,-0.025666164,0.056056414,0.003080611,0.030946458,-0.02376919,0.0,0.0,0.0,-0.014147228,0.07057609,-0.23051754,0.12562862,-0.13948795,-0.13513602,0.15762018,0.09063791,0.05565599,0.27598768,-0.039620813,0.025914216,0.21562295,-0.08720007,0.01984254,0.052970503,-0.02560187,0.24295601,-0.0608681,0.06966384,0.009060253,0.06679785,0.020599185,0.069111,0.053882677,0.06093189,-0.41407603,0.93101084,-1.1083304,0.9249699,0.8985974,0.9169335,0.33983472,2.0,-0.3513971,1.0271331,1.9777075,0.25391328,-1.109581,1.0899972,-1.1482948,-1.8931035,0.7238372,0.72479194,-0.8645939,2.0,0.08588756,-0.6742768,1.4900554
2025-07-19 15:19:02.634,1.4000000000000008,1400,70,-0.22856338,0.21833844,0.044714727,0.0035162026,0.02934849,0.03395896,0.0,0.0,0.0,-0.014331457,0.083769605,-0.23765296,0.12026949,-0.15274823,-0.13426587,0.16524123,0.09794065,0.023090875,0.29524133,-0.046773147,0.02272983,0.21407239,0.06427597,-0.15271345,0.052254368,-0.026614828,-0.14239201,-0.02770102,-0.057501387,-0.16773218,0.07209367,-0.004752773,-0.06702052,0.022120818,0.25391328,-1.109581,1.0899972,-1.1482948,-1.8931035,0.7238372,0.72479194,-0.8645939,2.0,0.08588756,-0.6742768,1.4900554,-0.85506344,0.8211731,1.6373698,-1.2322172,1.0525306,1.2415134,0.85660994,2.0,2.0,-0.7077503,0.17122185,2.0
2025-07-19 15:19:02.653,1.4200000000000008,1420,71,0.23619327,0.088239856,0.0017090001,0.04762008,-0.045031287,-0.03797683,0.0,0.0,0.0,-0.015997097,0.052877422,-0.25704074,0.14875443,-0.16218509,-0.13306153,0.16572835,0.10903235,0.026259158,0.29960933,-0.049671758,0.024280135,0.23010889,-0.050179724,0.039578855,0.016303293,0.004203999,0.12566233,0.033383086,0.04868222,0.09608259,0.033040427,-0.084659964,0.10093859,-0.0023315165,-0.85506344,0.8211731,1.6373698,-1.2322172,1.0525306,1.2415134,0.85660994,2.0,2.0,-0.7077503,0.17122185,2.0,0.49308458,-0.12481254,0.3377124,-0.7947433,-2.0,1.1373246,0.5304316,-0.8770588,2.0,0.5784507,-1.0438089,1.1433259
2025-07-19 15:19:02.675,1.4400000000000008,1440,72,-0.20523253,-0.0060466803,-0.038212925,0.02499573,-0.040853474,-0.013488288,0.0,0.0,0.0,-0.017561315,0.06972564,-0.23108011,0.12664135,-0.145238,-0.14155662,0.15731835,0.09851778,0.0101721,0.29586816,-0.04281263,0.017202146,0.21768373,-0.0140975425,0.111840524,-0.102733225,-0.038564328,-0.039844345,0.073663324,0.039639466,-0.10704132,-0.0119299395,0.116824426,-0.07307022,0.045304097,0.49308458,-0.12481254,0.3377124,-0.7947433,-2.0,1.1373246,0.5304316,-0.8770588,2.0,0.5784507,-1.0438089,1.1433259,-0.9267384,-1.5206771,0.18334806,-0.60999846,-1.4794599,2.0,0.8672302,0.19508724,2.0,0.5026374,0.94917095,0.768781
2025-07-19 15:19:02.693,1.4600000000000009,1460,73,0.026381437,-0.17786074,0.08521929,0.015447478,-0.030499335,0.009497364,0.0,0.0,0.0,-0.017661933,0.044684358,-0.22749463,0.099277794,-0.15648699,-0.16536433,0.19765298,0.10590122,-0.00093904167,0.30669332,-0.012770307,0.03186159,0.19606316,-0.043101117,-0.086879596,0.00444349,-0.008387861,-0.12190284,-0.0062294793,-0.049816348,0.0377368,0.0040668924,0.08819406,0.1491903,-0.09406648,-0.9267384,-1.5206771,0.18334806,-0.60999846,-1.4794599,2.0,0.8672302,0.19508724,2.0,0.5026374,0.94917095,0.768781,0.66527045,0.11642176,1.0859174,-0.5875986,-0.6613569,2.0,-0.28211966,-1.4031453,2.0,-0.009475165,0.013473034,0.44176015
2025-07-19 15:19:02.713,1.4800000000000009,1480,74,0.01450478,-0.031560734,-0.12371947,0.037024677,-0.028310541,-0.0013461394,0.0,0.0,0.0,-0.018536843,0.046232544,-0.24175501,0.10162092,-0.14897534,-0.17590128,0.20395888,0.08842956,-0.02212709,0.30561107,-0.024159404,0.047633838,0.18204091,0.055313155,0.049344517,-0.032344665,-0.0130362045,0.011860791,0.045272302,-0.041587632,-0.12689444,0.049887285,-0.032839254,0.007109652,-0.11121451,0.66527045,0.11642176,1.0859174,-0.5875986,-0.6613569,2.0,-0.28211966,-1.4031453,2.0,-0.009475165,0.013473034,0.44176015,-0.10954699,0.39077342,-0.37398896,-0.75046206,-0.023094859,2.0,0.6592673,-0.4737831,2.0,1.2114316,1.6053215,-0.2797839
2025-07-19 15:19:02.733,1.5000000000000009,1500,75,0.04601657,-0.010032161,0.15875949,0.027841432,0.031373374,-0.013102522,0.0,0.0,0.0,-0.017583389,0.041212063,-0.17491639,0.07609164,-0.14900923,-0.17166147,0.21450818,0.1013596,-0.036851197,0.31089005,0.012379388,0.10628424,0.142706,0.01691132,0.22819705,-0.12522532,0.04294564,0.13718423,-0.008757064,0.09510183,0.0046788743,0.08429448,0.16445667,0.2487707,-0.08437075,-0.10954699,0.39077342,-0.37398896,-0.75046206,-0.023094859,2.0,0.6592673,-0.4737831,2.0,1.2114316,1.6053215,-0.2797839,0.8953308,-0.95554763,-0.94537205,0.8497208,-2.0,1.603216,-0.7184177,-2.0,1.4971466,1.2751204,-1.7866768,-2.0
2025-07-19 15:19:02.758,1.520000000000001,1520,76,-0.38384643,0.049407985,-0.06701222,-0.033112697,0.027846802,-0.020807395,0.0,0.0,0.0,-0.018936623,0.057983536,-0.18299845,0.030576034,-0.1465139,-0.16781498,0.2157239,0.08597132,-0.07342275,0.30265403,0.048350357,0.09583737,0.07138526,0.105458714,-0.09418118,-0.11740199,0.028346676,-0.06314224,0.026341861,-0.05820377,-0.17627853,-0.004863475,0.06188794,-0.13592234,-0.18527576,0.8953308,-0.95554763,-0.94537205,0.8497208,-2.0,1.603216,-0.7184177,-2.0,1.4971466,1.2751204,-1.7866768,-2.0,-0.4878693,1.408138,-1.3656818,-0.24466509,0.8208907,1.5400777,0.48429564,1.7533884,2.0,-0.43076152,0.5637637,-1.3628923
2025-07-19 15:19:02.775,1.540000000000001,1540,77,0.034214243,-0.14607595,-0.062128827,0.03416268,0.06820683,-0.014284632,0.0,0.0,0.0,-0.01987419,0.030810416,-0.16686751,0.0038120532,-0.12605777,-0.16865833,0.21997766,0.09806725,-0.07443849,0.2871906,0.042922013,0.1051823,0.013294352,-0.07843771,0.13001205,-0.16393548,0.03882542,0.07050253,-0.082543634,-0.0021297007,0.14000309,-0.009559191,-0.07467778,0.09866219,-0.14019705,-0.4878693,1.408138,-1.3656818,-0.24466509,0.8208907,1.5400777,0.48429564,1.7533884,2.0,-0.43076152,0.5637637,-1.3628923,0.40894952,-1.0176044,-0.15196523,0.5200529,-0.6211644,1.4760532,0.88421404,-1.16099,1.0565283,-0.37340632,-0.42427814,-2.0
2025-07-19 15:19:02.793,1.560000000000001,1560,78,-0.28837064,-0.11451507,-0.048479825,0.028162014,0.05432846,-0.019635124,0.0,0.0,0.0,-0.019107044,0.043599308,-0.14720786,-0.018408408,-0.10328582,-0.17753762,0.2125193,0.115131356,-0.06430142,0.28399003,0.031545475,0.07205129,-0.03236364,-0.031899877,-0.1086591,-0.07091627,0.033364404,-0.008164646,0.012726869,0.0403793,-0.11608061,-0.015052836,0.021340532,-0.19851902,-0.17810337,0.40894952,-1.0176044,-0.15196523,0.5200529,-0.6211644,1.4760532,0.88421404,-1.16099,1.0565283,-0.37340632,-0.42427814,-2.0,-0.2168046,0.4880563,0.013488617,-0.7075205,1.704302,0.55404574,0.63760966,0.7197082,2.0,-0.6054754,1.9514045,-0.12809794
2025-07-19 15:19:02.814,1.580000000000001,1580,79,0.29804128,-0.034240104,-0.018808397,-0.015550886,0.03653372,0.03849273,0.0,0.0,0.0,-0.017891644,0.034176808,-0.12033459,-0.018153366,-0.11319575,-0.13736631,0.19999374,0.10996902,-0.042424984,0.28199792,0.008687228,0.091184646,-0.041082647,-0.024202164,0.07411574,-0.06831211,-0.061581425,0.18327792,-0.12698726,0.0020603486,0.116351925,-0.035392266,-0.102229536,0.24761193,0.069963105,-0.2168046,0.4880563,0.013488617,-0.7075205,1.704302,0.55404574,0.63760966,0.7197082,2.0,-0.6054754,1.9514045,-0.12809794,0.5046061,-0.74647665,0.5092564,-0.21084322,-0.6113985,0.38983217,1.095085,-0.91743374,0.98487157,0.37095904,-1.590168,-1.2776517
2025-07-19 15:19:02.834,1.600000000000001,1600,80,-0.19033806,0.0660376,0.018801287,0.0133270975,0.06061723,-0.014084672,0.0,0.0,0.0,-0.017630972,0.044418655,-0.12276299,0.008084265,-0.10008603,-0.13078468,0.17098264,0.11575876,-0.026900724,0.26222256,0.0056260535,0.08542105,-0.060589112,0.040790115,-0.0208376,0.083361916,-0.014806755,-0.10322413,-0.042563085,0.020144967,0.01374832,-0.07712041,0.005586886,-0.12356328,-0.056887597,0.5046061,-0.74647665,0.5092564,-0.21084322,-0.6113985,0.38983217,1.095085,-0.91743374,0.98487157,0.37095904,-1.590168,-1.2776517,0.2880898,-0.5240021,0.5090349,0.013350314,0.9414939,0.12131528,0.45560136,0.41703984,1.8485571,-0.6597278,0.5512256,0.28127825
2025-07-19 15:19:02.858,1.620000000000001,1620,81,0.2005046,0.029710535,0.00784326,0.026553165,-0.0013028018,-0.02164855,0.0,0.0,0.0,-0.016993307,0.05555836,-0.14719947,0.020022767,-0.0959834,-0.096999526,0.14125709,0.13058501,-0.011991823,0.25429142,-0.0060732253,0.092522345,-0.058459505,-0.0035350255,-0.086920924,-0.03500934,0.040486958,0.1052033,-0.14246851,-0.017295659,0.12750117,0.008751989,-0.10302407,0.007433932,-0.02524354,0.2880898,-0.5240021,0.5090349,0.013350314,0.9414939,0.12131528,0.45560136,0.41703984,1.8485571,-0.6597278,0.5512256,0.28127825,0.4351751,-0.25176504,1.8198365,-0.5113684,-0.016168144,-0.3973076,1.2134564,-0.030908067,1.9589843,-0.38998565,-1.075889,1.185627
2025-07-19 15:19:02.875,1.640000000000001,1640,82,0.20400691,0.11762528,-0.12018697,0.023007795,0.0014290262,-0.044742834,0.0,0.0,0.0,-0.016023956,0.046653632,-0.14490204,0.040090747,-0.09255484,-0.08296234,0.09818973,0.1366421,-0.00920783,0.25748006,-0.027750522,0.06331709,-0.00036812393,0.06853463,0.018118355,0.14626165,0.061093856,0.08504049,-0.15024202,-0.04110521,0.038845338,-0.0075106225,0.010361305,-0.2294915,0.10359349,0.4351751,-0.25176504,1.8198365,-0.5113684,-0.016168144,-0.3973076,1.2134564,-0.030908067,1.9589843,-0.38998565,-1.075889,1.185627,-0.15140656,-1.8369508,1.7435344,-1.3827528,-0.5000072,-0.4475315,1.759458,0.9195822,2.0,0.3334886,1.3474884,2.0
2025-07-19 15:19:02.897,1.660000000000001,1660,83,0.29325116,0.1545935,-0.04260741,-0.008284837,-0.04036835,-0.010891805,0.0,0.0,0.0,-0.01458706,0.048753783,-0.15919001,0.09414691,-0.1144718,-0.0876972,0.08281947,0.15508819,0.026125558,0.27175516,-0.00028394233,0.03639636,0.044907115,0.01810462,-0.08286262,0.04679446,-0.048857555,-0.04833505,-0.06880545,0.069344975,0.11419811,-0.015345931,0.03510442,0.07915504,0.09005752,-0.15140656,-1.8369508,1.7435344,-1.3827528,-0.5000072,-0.4475315,1.759458,0.9195822,2.0,0.3334886,1.3474884,2.0,-0.4560944,-0.48210135,1.5391425,-2.0,0.01233146,0.072550036,1.5151144,0.05336992,2.0,0.17117149,-0.02079022,2.0
2025-07-19 15:19:02.914,1.680000000000001,1680,84,0.14141262,0.14017655,0.01588544,0.009570097,-0.012786414,0.022878753,0.0,0.0,0.0,-0.013934351,0.024233261,-0.1776399,0.09887282,-0.15415555,-0.07803581,0.06548443,0.18617079,0.032174263,0.27758038,-0.0066257375,0.0473876,0.07857697,-0.031342376,-0.04407312,-0.007182465,-0.089151554,0.090935685,-0.0026194688,0.032628283,0.013358604,0.07241847,0.021628587,0.026280861,0.08724229,-0.4560944,-0.48210135,1.5391425,-2.0,0.01233146,0.072550036,1.5151144,0.05336992,2.0,0.17117149,-0.02079022,2.0,-0.8880645,-0.33784676,0.86330885,-1.3036187,-0.85713714,0.871131,1.3871138,-0.034463603,2.0,0.2651018,-0.9392223,2.0
2025-07-19 15:19:02.934,1.700000000000001,1700,85,-0.09980318,0.16752954,-0.054229397,-0.026204843,-0.03199163,0.020676794,0.0,0.0,0.0,-0.014593857,0.0091095865,-0.1904491,0.09681097,-0.17244473,-0.11555196,0.07239853,0.18509747,0.032553084,0.28561774,-0.0014514285,0.012817395,0.12470911,-0.075415835,-0.0071758735,0.00024159584,-0.08057984,-0.1035749,0.031797886,0.041715223,-0.08883241,-0.04366078,0.026105175,-0.13365886,0.049697872,-0.8880645,-0.33784676,0.86330885,-1.3036187,-0.85713714,0.871131,1.3871138,-0.034463603,2.0,0.2651018,-0.9392223,2.0,-1.3363787,-0.7844783,0.57262605,-1.3679006,-1.1180739,1.4761411,1.5483863,0.30682507,2.0,0.023428448,1.9597017,2.0
2025-07-19 15:19:02.959,1.720000000000001,1720,86,0.009109267,0.20162481,0.07768559,0.015212701,-0.09299544,-0.009699882,0.0,0.0,0.0,-0.014611879,-0.0022967549,-0.20122811,0.10582445,-0.18531077,-0.16158338,0.094569415,0.19791922,0.034676455,0.29357857,-0.019836355,0.022156646,0.14284319,-0.030793237,-0.025376294,-0.03704893,-0.062918715,-0.13230856,-0.011803494,-0.02896094,-0.005148212,-0.02842703,0.02666163,0.1165836,-0.020743974,-1.3363787,-0.7844783,0.57262605,-1.3679006,-1.1180739,1.4761411,1.5483863,0.30682507,2.0,0.023428448,1.9597017,2.0,0.44595364,-0.4372655,0.46112964,-1.0575476,-1.0995868,2.0,0.027642153,-1.8842647,2.0,0.045405038,-0.5679033,1.6110271
2025-07-19 15:19:02.975,1.740000000000001,1740,87,-0.261047,0.06519587,-0.020755338,0.013100308,-0.084722,0.046423495,0.0,0.0,0.0,-0.015687808,0.0035425436,-0.19468151,0.08955725,-0.1920815,-0.20679821,0.13531893,0.18045646,0.0036451158,0.29764983,-0.010804468,-0.005516165,0.15546624,0.017988497,0.018943062,-0.062027477,0.00061158644,-0.10926393,0.0074338093,-0.1125723,-0.12613116,-0.057665743,0.006242646,-0.055569716,0.028565196,0.44595364,-0.4372655,0.46112964,-1.0575476,-1.0995868,2.0,0.027642153,-1.8842647,2.0,0.045405038,-0.5679033,1.6110271,-0.38057014,-0.5610574,0.16813898,-0.66230035,0.046732698,2.0,0.6066622,-0.3460084,2.0,-0.015518659,1.4044328,1.7010864
2025-07-19 15:19:02.994,1.7600000000000011,1760,88,0.03507742,-0.14053848,0.17892525,-0.015719432,-0.0020179695,0.048133735,0.0,0.0,0.0,-0.015706949,0.005662497,-0.21334046,0.07422243,-0.18322623,-0.21796016,0.16006245,0.15544015,-0.01761491,0.2949787,-0.0062305145,0.013169273,0.17303385,0.02899426,-0.03403039,0.020794628,0.059429105,0.07884876,0.017924702,-0.09075013,-0.12762044,-0.03089404,-0.072380446,0.1334399,0.0715881,-0.38057014,-0.5610574,0.16813898,-0.66230035,0.046732698,2.0,0.6066622,-0.3460084,2.0,-0.015518659,1.4044328,1.7010864,0.9618336,0.5199297,0.9419638,-0.5267349,-1.1580265,1.8814393,-0.028562732,0.004751604,2.0,-0.7602537,-0.4714206,1.0196371
2025-07-19 15:19:03.014,1.7800000000000011,1780,89,-0.12415802,-0.19652201,-0.1947758,-0.049370453,-0.05384317,0.037004456,0.0,0.0,0.0,-0.016821776,0.026476735,-0.19468072,0.07715317,-0.17272402,-0.23435362,0.1926227,0.1286701,-0.026820984,0.30808628,-0.024242576,0.038537752,0.16629536,0.051318657,0.08637502,0.045213226,0.043476302,-0.055279266,0.040212795,-0.060808267,0.047485065,0.046826027,-0.117662735,-0.09049153,0.060731508,0.9618336,0.5199297,0.9419638,-0.5267349,-1.1580265,1.8814393,-0.028562732,0.004751604,2.0,-0.7602537,-0.4714206,1.0196371,-0.29773346,-0.39350852,0.00011604652,-1.0895494,0.30501577,2.0,0.5482232,-0.9682154,2.0,1.2306216,1.063539,0.94067496
2025-07-19 15:19:03.034,1.8000000000000012,1800,90,-0.030520724,-0.03954475,0.24883267,0.036306582,0.032294456,0.023342356,0.0,0.0,0.0,-0.0150441,0.028492045,-0.18195808,0.075769074,-0.16438669,-0.22328626,0.19621041,0.12819889,-0.03616584,0.30389997,0.0011007629,0.07335717,0.15392135,-0.002275582,0.032188497,-0.031819858,0.01020755,0.068426505,0.03808247,0.036454845,-0.0415306,0.086330175,0.013524455,0.1385792,-0.00047670517,-0.29773346,-0.39350852,0.00011604652,-1.0895494,0.30501577,2.0,0.5482232,-0.9682154,2.0,1.2306216,1.063539,0.94067496,1.1763471,0.42388254,0.32074857,0.16008173,-0.9961924,1.6220288,-0.42131352,-1.4075623,2.0,-0.312643,-1.3609445,0.028953774
2025-07-19 15:19:03.055,1.8200000000000012,1820,91,-0.23854786,0.01979533,-0.210986,0.02695352,0.04744989,0.034129243,0.0,0.0,0.0,-0.0162815,0.051221505,-0.15155631,0.05068211,-0.16962464,-0.24315085,0.21156536,0.11704621,-0.06524494,0.30269656,-0.013790521,0.05924402,0.12879261,0.02702478,0.03866839,-0.026526615,0.043784417,-0.0782656,0.0867244,-0.102262594,-0.11142945,-0.05862999,-0.09014093,-0.18937486,-0.106916755,1.1763471,0.42388254,0.32074857,0.16008173,-0.9961924,1.6220288,-0.42131352,-1.4075623,2.0,-0.312643,-1.3609445,0.028953774,-0.4852467,0.17867398,-0.6595916,-0.5254035,0.8262426,2.0,1.0980669,0.06488828,2.0,0.58294594,2.0,0.4394539
2025-07-19 15:19:03.079,1.8400000000000012,1840,92,0.12771347,-0.17125079,0.022458173,-0.0031395748,0.016274812,-0.035582524,0.0,0.0,0.0,-0.015861196,0.05040706,-0.11198849,0.03364819,-0.16095698,-0.22605528,0.22251137,0.13464631,-0.05483132,0.30531576,0.011682477,0.09399727,0.12004369,-0.11057753,0.16417105,-0.09671997,-0.04637271,0.12553523,0.0708437,0.094972186,0.09413396,0.015632149,0.0075917398,0.12808095,-0.10000737,-0.4852467,0.17867398,-0.6595916,-0.5254035,0.8262426,2.0,1.0980669,0.06488828,2.0,0.58294594,2.0,0.4394539,0.4504232,-1.1989002,0.05480274,-0.39821237,-1.5686179,1.7568992,-0.005777873,-2.0,1.2948118,1.1615742,0.62390757,-0.9623365
2025-07-19 15:19:03.095,1.8600000000000012,1860,93,-0.19801554,0.02270138,-0.007331122,-0.008917374,0.059840668,0.029467471,0.0,0.0,0.0,-0.0148541145,0.053755905,-0.15668494,0.019756217,-0.1442679,-0.23910962,0.23139909,0.10830372,-0.07089752,0.30071455,0.042715505,0.11940538,0.080861226,-0.012284719,-0.10832163,-0.036907963,-0.042968705,-0.030816715,0.04633464,-0.030763036,-0.05674725,-0.050437957,0.14656994,-0.006156097,-0.13942447,0.4504232,-1.1989002,0.05480274,-0.39821237,-1.5686179,1.7568992,-0.005777873,-2.0,1.2948118,1.1615742,0.62390757,-0.9623365,-0.70004666,1.2876883,-0.6458152,-0.34090984,1.5229408,1.6433352,-0.05917055,-0.31773007,2.0,0.4388749,0.7795952,-1.6398665
2025-07-19 15:19:03.115,1.8800000000000012,1880,94,0.03170337,-0.071794644,-0.09192511,-0.008796469,0.026733678,-0.029039217,0.0,0.0,0.0,-0.014791061,0.019860059,-0.14699373,0.0062909783,-0.15000074,-0.24385953,0.22110179,0.09581351,-0.08838897,0.2865935,0.04757805,0.15511115,0.02919112,-0.009835405,0.07333962,-0.024348063,-0.05130572,0.00055526115,-0.066425234,-0.045313004,0.01395462,-0.023374394,-0.019871695,0.018619696,-0.15236644,-0.70004666,1.2876883,-0.6458152,-0.34090984,1.5229408,1.6433352,-0.05917055,-0.31773007,2.0,0.4388749,0.7795952,-1.6398665,0.033603013,0.626475,-0.54068005,0.1422592,1.6844834,1.8021644,0.53192824,-1.7172964,2.0,0.074277826,0.26495397,-2.0
2025-07-19 15:19:03.135,1.9000000000000012,1900,95,-0.0196062,-0.09105495,0.09751929,0.0011319418,0.028293528,0.011936416,0.0,0.0,0.0,-0.013889239,0.017079756,-0.08774308,-0.009946921,-0.12620912,-0.2184672,0.22051863,0.107236505,-0.0936612,0.2932479,0.051063944,0.15987925,-0.029442783,-0.038328636,0.1214094,-0.09381582,-0.017081015,0.08043952,0.024058377,0.053215977,0.04957779,-0.0013739137,0.038943887,-0.019312847,-0.18695776,0.033603013,0.626475,-0.54068005,0.1422592,1.6844834,1.8021644,0.53192824,-1.7172964,2.0,0.074277826,0.26495397,-2.0,1.3419363,-1.7838707,-0.6425387,0.88317186,1.2447145,0.5269689,-0.25465664,-2.0,1.9671212,-0.54642713,-1.3496778,-1.7754446
2025-07-19 15:19:03.160,1.9200000000000013,1920,96,-0.19103199,0.10159952,0.09173596,-0.0455439,0.012981641,0.047832623,0.0,0.0,0.0,-0.013919552,0.047967557,-0.08260481,-0.027705316,-0.10020691,-0.17345217,0.19738998,0.105369225,-0.10155508,0.2982891,0.0151739465,0.07610886,-0.08235212,0.13248712,-0.08244558,0.00914594,0.08679877,0.16276227,-0.056367394,0.02146126,-0.14238529,0.023458198,-0.07831932,-0.2629269,-0.14091186,1.3419363,-1.7838707,-0.6425387,0.88317186,1.2447145,0.5269689,-0.25465664,-2.0,1.9671212,-0.54642713,-1.3496778,-1.7754446,1.0016612,-2.0,0.020904,1.3138529,0.47264543,-0.9999524,-1.4484698,1.119059,2.0,-1.497204,-0.1253652,0.61228967
2025-07-19 15:19:03.176,1.9400000000000013,1940,97,0.091901846,0.052527655,-0.048403017,-0.048046738,-0.010903293,-0.007613433,0.0,0.0,0.0,-0.014752003,0.05952633,-0.17085744,-0.031691577,-0.065231785,-0.118389785,0.13518101,0.08218764,-0.104481146,0.29620752,-0.030036239,0.030710587,-0.042404234,0.081893526,-0.2537369,0.06410824,0.15390615,0.16750188,-0.16052471,-0.088675246,0.11992843,0.054320008,-0.08630818,-0.047352705,0.06426575,1.0016612,-2.0,0.020904,1.3138529,0.47264543,-0.9999524,-1.4484698,1.119059,2.0,-1.497204,-0.1253652,0.61228967,0.024275392,-1.2050879,2.0,0.18276471,-1.1093924,-1.3501302,0.4581124,0.5304629,1.4786218,-0.88348854,-1.6133683,2.0
2025-07-19 15:19:03.195,1.9600000000000013,1960,98,-0.061831567,0.052562676,-0.16240506,-0.012858316,0.041423302,-0.03187888,0.0,0.0,0.0,-0.014299405,0.054612044,-0.23838243,0.027108828,-0.06769083,-0.094689704,0.06887663,0.07150416,-0.046388403,0.2747139,-0.054025788,-0.02348571,0.008500501,-0.019810826,-0.06357243,0.11115841,0.022810962,-0.0859039,-0.13141659,-0.012506969,0.07119692,-0.09083259,-0.111490324,-0.27246064,0.10431913,0.024275392,-1.2050879,2.0,0.18276471,-1.1093924,-1.3501302,0.4581124,0.5304629,1.4786218,-0.88348854,-1.6133683,2.0,-0.28345743,-0.9152135,1.6777209,-1.194873,0.87564814,-1.0676527,1.1521327,0.7876664,2.0,0.6133857,1.3636346,2.0
2025-07-19 15:19:03.215,1.9800000000000013,1980,99,0.28483504,0.1599558,-0.020747233,0.020878186,0.050251402,0.040741175,0.0,0.0,0.0,-0.011296975,0.04358757,-0.25373012,0.06794811,-0.07011149,-0.05546834,0.022008058,0.08809626,0.013779639,0.27006245,-0.017151106,-0.054989446,0.05414973,-0.1018644,-0.050843764,0.08232921,-0.108275265,0.26635203,-0.026460396,0.010753738,0.16513711,0.028937737,0.07820486,0.11979541,0.0961134,-0.28345743,-0.9152135,1.6777209,-1.194873,0.87564814,-1.0676527,1.1521327,0.7876664,2.0,0.6133857,1.3636346,2.0,-0.57131255,-0.27654845,2.0,-1.8540672,-0.28808022,-0.37892655,2.0,0.1322528,2.0,0.72711134,-0.13132587,2.0
2025-07-19 15:19:03.235,2.0000000000000013,2000,100,0.09398775,0.09272754,0.042158797,-0.036300935,0.020110331,0.03432844,0.0,0.0,0.0,-0.010133544,0.028563716,-0.28033882,0.1023328,-0.11054505,-0.03344399,0.012000291,0.12773746,0.04166941,0.28386283,-0.019240094,-0.046699975,0.101533815,-0.08499882,-0.08338929,0.10155795,-0.09631283,-0.030313663,-0.06781342,0.123505086,0.02390792,-0.042779565,0.023016492,-0.053719245,0.10517971,-0.57131255,-0.27654845,2.0,-1.8540672,-0.28808022,-0.37892655,2.0,0.1322528,2.0,0.72711134,-0.13132587,2.0,-0.9180589,0.84812325,2.0,-1.9197983,0.60248834,-0.066160224,2.0,0.6694123,2.0,0.16396052,-0.5638312,2.0
2025-07-19 15:19:03.258,2.0200000000000014,2020,101,0.1809061,0.12494427,-0.025389388,0.035649028,0.008452802,-0.029401854,0.0,0.0,0.0,-0.011010558,0.024757316,-0.26994404,0.12679042,-0.16145921,-0.0062929965,0.015190552,0.15618479,0.07562433,0.29300052,-0.026644582,-0.050798755,0.13550079,-0.00903672,-0.00882924,0.0045533236,-0.0152113,0.19076988,-0.03883024,0.11142637,0.029672539,0.022639364,0.008890618,-0.036612753,0.12304334,-0.9180589,0.84812325,2.0,-1.9197983,0.60248834,-0.066160224,2.0,0.6694123,2.0,0.16396052,-0.5638312,2.0,-0.7412046,0.40223423,1.1352129,-1.6048192,-1.6986147,-0.008227194,2.0,0.008466583,2.0,0.519416,-0.198127,2.0
2025-07-19 15:19:03.275,2.0400000000000014,2040,102,0.06440986,0.025153747,-0.014266461,0.019105632,-0.043088924,0.013532069,0.0,0.0,0.0,-0.0115121845,0.017209627,-0.25618634,0.11635932,-0.17883496,-0.015580209,0.009450396,0.19096063,0.063323006,0.29242104,-0.026219865,-0.05398012,0.16523544,0.05259789,0.016003449,-0.03859837,-0.08518888,-0.14396675,-0.022778511,0.1427144,0.034311365,0.017024416,-0.040520404,-0.030226653,0.079193674,-0.7412046,0.40223423,1.1352129,-1.6048192,-1.6986147,-0.008227194,2.0,0.008466583,2.0,0.519416,-0.198127,2.0,-1.5048367,0.1994882,0.62474734,-1.3140019,-1.1565713,1.1030515,1.3504758,-0.6996291,2.0,0.0745318,-0.76829374,2.0
2025-07-19 15:19:03.295,2.0600000000000014,2060,103,-0.017324181,0.14050154,0.017809391,-0.0026757773,-0.025337223,-0.034417022,0.0,0.0,0.0,-0.012028631,-0.016006326,-0.22343458,0.099013984,-0.17956702,-0.10897115,0.03437794,0.2070856,0.016665423,0.29902473,-0.030132812,-0.06937698,0.18015406,-0.004463278,0.05055236,-0.017701516,0.028200626,-0.25189817,0.056775857,0.021687528,-0.097594604,-0.050056875,-0.06806564,0.042766575,0.008702101,-1.5048367,0.1994882,0.62474734,-1.3140019,-1.1565713,1.1030515,1.3504758,-0.6996291,2.0,0.0745318,-0.76829374,2.0,-0.58515203,0.1326893,-0.41347396,-0.68455803,-0.8393449,2.0,0.75298536,-0.33169904,2.0,-0.15400207,0.18774879,2.0
2025-07-19 15:19:03.315,2.0800000000000014,2080,104,0.020892661,-0.05311902,-0.038502134,0.014726055,0.019257925,-0.017784584,0.0,0.0,0.0,-0.012070631,-0.029069375,-0.1967867,0.06569708,-0.17371294,-0.15384011,0.080834545,0.1848889,-0.016951812,0.2929614,-0.03933182,-0.047543097,0.2109482,0.029358692,0.16501458,-0.018370772,0.080810905,-0.1120916,0.06145405,0.027036589,-0.09193791,-0.043396804,-0.016998518,0.050804004,0.08483532,-0.58515203,0.1326893,-0.41347396,-0.68455803,-0.8393449,2.0,0.75298536,-0.33169904,2.0,-0.15400207,0.18774879,2.0,-0.12714265,-1.0522959,-0.113960385,-0.81305605,-1.7939367,2.0,0.5283425,-0.9165608,2.0,0.35115528,1.3292645,0.9553106
2025-07-19 15:19:03.335,2.1000000000000014,2100,105,-0.0123034455,0.029047742,0.12486024,0.026468692,0.013899104,0.031837374,0.0,0.0,0.0,-0.011574954,-0.028861254,-0.18583646,0.05663914,-0.16482605,-0.2291679,0.12020296,0.16854623,-0.08052512,0.29593247,-0.019814286,0.010169876,0.19231704,-0.008552663,-0.010808232,0.030781994,0.08554707,-0.24319431,0.11025788,0.030627713,-0.18576989,0.07808886,0.013368172,0.23002136,0.008171533,-0.12714265,-1.0522959,-0.113960385,-0.81305605,-1.7939367,2.0,0.5283425,-0.9165608,2.0,0.35115528,1.3292645,0.9553106,0.62679327,1.3195136,-0.9829915,-0.021910906,0.22583759,2.0,-0.5449402,0.34243008,2.0,0.42217004,-0.57366526,0.30418038
2025-07-19 15:19:03.358,2.1200000000000014,2120,106,0.019997645,-0.15879717,-0.1405719,-0.03165035,-0.03974967,0.038713187,0.0,0.0,0.0,-0.012687699,0.0037537084,-0.14327915,0.014285176,-0.15326206,-0.27764702,0.1448924,0.14460619,-0.06646987,0.29484844,-0.0078043225,0.042138577,0.15784745,0.12609555,0.11432631,-0.12524092,0.09573515,-0.0629411,0.006589419,-0.07322735,0.04192409,-0.025388973,0.023440437,0.073435284,0.027521487,0.62679327,1.3195136,-0.9829915,-0.021910906,0.22583759,2.0,-0.5449402,0.34243008,2.0,0.42217004,-0.57366526,0.30418038,0.39435127,1.1259282,-0.9810274,-0.0018311301,0.7907623,2.0,0.175246,-1.5164295,2.0,0.8650764,0.34631938,-1.5097167
2025-07-19 15:19:03.375,2.1400000000000015,2140,107,-0.040818945,-0.037960026,0.023108413,-0.005023652,-0.04967818,-0.043637436,0.0,0.0,0.0,-0.012053583,0.019681387,-0.076903775,-0.014782518,-0.12673429,-0.26797527,0.17650343,0.12462864,-0.06780206,0.2983927,0.016782394,0.0676077,0.093413934,0.051314984,0.18358278,-0.13977937,0.008600821,0.07440967,0.036440343,-0.031090884,-0.02067317,-0.032095835,0.079156585,0.016747134,-0.18279377,0.39435127,1.1259282,-0.9810274,-0.0018311301,0.7907623,2.0,0.175246,-1.5164295,2.0,0.8650764,0.34631938,-1.5097167,0.45619807,-0.7619125,-0.84939694,0.46841466,0.9337476,1.6319038,-0.3300947,-2.0,2.0,0.17851314,0.16400152,-2.0
2025-07-19 15:19:03.399,2.1600000000000015,2160,108,-0.18177782,0.08540617,0.07462947,0.044465546,0.03518592,0.0017308332,0.0,0.0,0.0,-0.011054843,0.031373806,-0.066048674,-0.035013065,-0.10950008,-0.24735741,0.17102228,0.11116659,-0.083310485,0.31414825,0.014235828,0.07869516,0.03488593,0.011262214,-0.16367409,-0.0029945232,0.04710655,0.12256625,0.018776659,-0.08277912,-0.13205667,0.056991406,-0.023179121,-0.016717523,-0.14991663,0.45619807,-0.7619125,-0.84939694,0.46841466,0.9337476,1.6319038,-0.3300947,-2.0,2.0,0.17851314,0.16400152,-2.0,0.81933904,-0.06342177,-0.42410624,0.3996002,1.9532461,0.34742388,-0.42791465,-0.076314524,2.0,-0.996733,-0.06525782,-1.5653735
2025-07-19 15:19:03.415,2.1800000000000015,2180,109,0.08280956,0.0067221154,-0.027399527,-0.019240553,-0.036101583,-0.04280424,0.0,0.0,0.0,-0.010737999,0.037785247,-0.06703637,-0.041211847,-0.09709463,-0.17669909,0.15208954,0.08708061,-0.064635046,0.31748432,-0.0023711617,0.05832315,-0.018491877,0.052744072,-0.036414042,-0.03983929,0.050466523,0.16471234,-0.13010776,-0.04287228,0.09665881,-0.036628738,-0.08525454,-0.09013999,-0.13464986,0.81933904,-0.06342177,-0.42410624,0.3996002,1.9532461,0.34742388,-0.42791465,-0.076314524,2.0,-0.996733,-0.06525782,-1.5653735,0.6136396,-1.6406555,1.169976,0.89050233,0.9353205,-0.98491484,-0.27003917,-1.0771654,2.0,-1.5803189,-1.0833457,-1.5993652
2025-07-19 15:19:03.436,2.2000000000000015,2200,110,-0.1809349,0.022103705,0.00025277247,-0.017213028,-0.045756258,0.030263454,0.0,0.0,0.0,-0.009716885,0.060369126,-0.11899299,-0.0064025475,-0.06048963,-0.10950371,0.08780537,0.084847994,-0.06737791,0.31430182,-0.054998953,-0.002179142,-0.059382826,0.05342475,-0.22687061,0.036052585,0.02118906,0.18457052,-0.20578258,-0.08821847,-0.07929637,-0.033352856,-0.052330695,-0.17540479,-0.14751723,0.6136396,-1.6406555,1.169976,0.89050233,0.9353205,-0.98491484,-0.27003917,-1.0771654,2.0,-1.5803189,-1.0833457,-1.5993652,0.86661434,-2.0,1.5759658,1.0786694,-0.49428228,-1.0349085,0.26124156,1.54963,2.0,-1.184584,-0.33230174,1.9240552
2025-07-19 15:19:03.461,2.2200000000000015,2220,111,-0.08756445,-0.016086077,-0.06906355,0.032680884,-0.03410834,0.022566458,0.0,0.0,0.0,-0.009065222,0.069550656,-0.20549573,0.027568586,-0.0319449,-0.08408415,0.04486706,0.07922484,-0.040004663,0.31065062,-0.08840081,-0.045223318,-0.009450067,0.01821535,-0.22596796,0.114634335,0.010053638,-0.0059337816,-0.15487258,-0.034256727,0.0844494,-0.011720238,-0.04728861,-0.071953505,0.19507074,0.86661434,-2.0,1.5759658,1.0786694,-0.49428228,-1.0349085,0.26124156,1.54963,2.0,-1.184584,-0.33230174,1.9240552,0.13414344,-0.8823417,2.0,-0.9031788,0.030402783,-1.1275698,1.0287089,1.4606587,1.7060808,0.3610047,0.14371526,2.0
2025-07-19 15:19:03.476,2.2400000000000015,2240,112,0.2317536,0.16376223,-0.013706342,-0.03192826,-0.021684501,-0.04371488,0.0,0.0,0.0,-0.008548615,0.0708122,-0.2283544,0.07724637,-0.05114279,-0.052439205,0.007890241,0.094253115,0.04345826,0.30451646,-0.057502735,-0.023864204,0.05083271,0.04279837,-0.024021098,0.14706855,-0.06988481,0.0910593,-0.11657434,0.08468315,0.31699103,-0.024993218,0.05162397,0.04830809,0.10087141,0.13414344,-0.8823417,2.0,-0.9031788,0.030402783,-1.1275698,1.0287089,1.4606587,1.7060808,0.3610047,0.14371526,2.0,-0.20537814,-0.909089,2.0,-1.8571292,0.24835375,-1.3886877,1.6217619,-0.5459205,2.0,0.6081429,-1.4090332,2.0
2025-07-19 15:19:03.496,2.2600000000000016,2260,113,-0.04727765,0.27921242,0.07729395,0.033063497,0.0027566373,0.0498735,0.0,0.0,0.0,-0.008366479,0.050204765,-0.25696018,0.11307863,-0.09647218,-0.031994034,-0.025302943,0.12259121,0.06850474,0.3015748,-0.033895623,-0.05831013,0.09622975,-0.023392998,-0.11506811,0.07708315,-0.04492379,0.02173494,-0.09361025,0.014978157,-0.040944386,0.08518871,-0.0131678935,-0.13513118,0.038062397,-0.20537814,-0.909089,2.0,-1.8571292,0.24835375,-1.3886877,1.6217619,-0.5459205,2.0,0.6081429,-1.4090332,2.0,-0.5380393,1.181392,2.0,-1.254587,0.6249588,-0.03069129,2.0,0.827002,2.0,-0.3922184,-0.8898044,2.0
2025-07-19 15:19:03.516,2.2800000000000016,2280,114,0.08743975,0.1644377,-0.06028957,0.083545566,0.0030833483,0.032673545,0.0,0.0,0.0,-0.009623874,0.051948827,-0.2606285,0.142723,-0.10714753,0.014020351,-0.028970866,0.14830922,0.10030364,0.31069502,-0.05602682,-0.09005188,0.14436047,-0.01854247,-0.029711345,0.035658997,-0.029367685,0.059167594,-0.058324352,0.054084823,0.052164663,-0.004416287,0.027365774,-0.069392495,0.04170933,-0.5380393,1.181392,2.0,-1.254587,0.6249588,-0.03069129,2.0,0.827002,2.0,-0.3922184,-0.8898044,2.0,-0.6598356,0.84308547,1.708845,-2.0,-0.94576305,-0.5625368,2.0,0.26500377,2.0,0.60025483,0.23364335,2.0
2025-07-19 15:19:03.536,2.3000000000000016,2300,115,0.13184614,-0.031070024,0.0070938445,0.040267743,-0.012633428,-0.030834781,0.0,0.0,0.0,-0.008954363,0.033770744,-0.2604057,0.14826675,-0.14121023,0.022117635,-0.032095086,0.19419469,0.10654509,0.31413794,-0.051136896,-0.055120334,0.16179499,-0.08379638,0.046153735,0.097721234,-0.02906604,-0.042652354,0.05115233,0.10145814,-0.05109908,-0.0657073,0.023440812,0.049709845,0.072456546,-0.6598356,0.84308547,1.708845,-2.0,-0.94576305,-0.5625368,2.0,0.26500377,2.0,0.60025483,0.23364335,2.0,-1.0702444,-0.048735917,0.68665916,-1.5572761,-1.656348,0.85157895,1.8876636,-0.4151403,2.0,0.51490927,-1.0611687,2.0
2025-07-19 15:19:03.556,2.3200000000000016,2320,116,-0.034856513,-0.04179125,-0.026318,0.019316345,-0.06212729,-0.005389371,0.0,0.0,0.0,-0.008633384,0.015233477,-0.22082664,0.13629983,-0.17468265,-0.07537264,-0.004085691,0.22100015,0.05867331,0.3004813,-0.05466162,-0.058080085,0.1764472,-0.11696128,0.036812074,-0.037127722,-0.06204223,-0.2799266,0.03947945,0.025617257,-0.14232492,0.0489604,0.09438641,-0.0102375075,0.047543116,-1.0702444,-0.048735917,0.68665916,-1.5572761,-1.656348,0.85157895,1.8876636,-0.4151403,2.0,0.51490927,-1.0611687,2.0,-1.2059618,-0.7373852,-0.40229678,-0.8046187,-1.2315135,2.0,0.9548825,-0.4390715,2.0,0.07013906,0.51239,2.0
2025-07-19 15:19:03.580,2.3400000000000016,2340,117,-0.041835424,-0.025759684,0.08233568,0.049334627,-0.07129963,0.013153981,0.0,0.0,0.0,-0.0088000195,-0.010375002,-0.20835209,0.11006189,-0.16723126,-0.14879072,0.052074403,0.2023984,0.011484364,0.30116892,-0.040216956,-0.022002388,0.19386733,-0.00037551406,0.024706196,-0.031769495,0.05047688,-0.21415536,0.079041325,0.03607303,-0.048375916,-0.035699073,0.045296133,0.1151957,0.10923535,-1.2059618,-0.7373852,-0.40229678,-0.8046187,-1.2315135,2.0,0.9548825,-0.4390715,2.0,0.07013906,0.51239,2.0,0.61538005,-0.48413074,0.2922253,-0.55203867,-1.2674701,2.0,0.056701563,-1.3996593,2.0,-0.08708345,-0.25565752,1.2691798
2025-07-19 15:19:03.596,2.3600000000000017,2360,118,-0.25957367,-0.1835699,-0.055904347,0.08302354,0.003299494,0.024561493,0.0,0.0,0.0,-0.010423839,0.0031601738,-0.21362919,0.082544625,-0.16007225,-0.2149133,0.0784776,0.17985527,-0.06747528,0.31872657,-0.037153386,-0.018610494,0.191583,0.008396856,-0.032175496,-0.088753685,0.057441924,-0.10770628,0.12587634,-0.035944004,-0.25617677,-0.07103562,0.010065448,-0.06569195,-0.020577794,0.61538005,-0.48413074,0.2922253,-0.55203867,-1.2674701,2.0,0.056701563,-1.3996593,2.0,-0.08708345,-0.25565752,1.2691798,-0.41369894,1.1823585,-0.30436364,-0.82991254,0.35756335,2.0,0.59373546,1.5948745,2.0,0.38622665,2.0,1.3754004
2025-07-19 15:19:03.616,2.3800000000000017,2380,119,0.20739652,-0.3768791,-0.014157009,0.03208461,-0.009589588,-0.012343217,0.0,0.0,0.0,-0.0096714785,0.0043515144,-0.17725268,0.05366854,-0.16002274,-0.22087999,0.123196006,0.16321126,-0.07838143,0.3140317,-0.017067362,0.01372047,0.20479503,0.04524745,0.22803678,-0.0022399789,0.03961611,0.10127579,0.0056181755,0.0447392,0.031216618,-0.0054900744,0.07877893,0.24780202,-0.010399777,-0.41369894,1.1823585,-0.30436364,-0.82991254,0.35756335,2.0,0.59373546,1.5948745,2.0,0.38622665,2.0,1.3754004,0.6541507,-1.0661023,-0.40111557,-0.057031035,-2.0,2.0,-0.0983806,-2.0,1.5929042,1.1897513,-0.027693003,-1.505527
2025-07-19 15:19:03.638,2.4000000000000017,2400,120,-0.26902497,-0.13257253,0.04192965,-0.03541201,-0.01722694,0.020649174,0.0,0.0,0.0,-0.009264951,0.018143654,-0.1586476,0.027269078,-0.14484838,-0.2130987,0.15711962,0.14006871,-0.10194006,0.29281184,0.018220995,0.062070284,0.13251328,0.038433176,-0.017335637,-0.040522434,-0.017003493,-0.092403494,-0.00031779127,-0.009254763,-0.16422988,0.035883803,0.12198009,-0.006854196,-0.11878195,0.6541507,-1.0661023,-0.40111557,-0.057031035,-2.0,2.0,-0.0983806,-2.0,1.5929042,1.1897513,-0.027693003,-1.505527,-0.3281105,1.031091,-1.3271817,-0.18517485,1.0423589,1.9627916,-0.052280314,0.7027125,2.0,0.356081,0.4972418,-1.5003589
2025-07-19 15:19:03.658,2.4200000000000017,2420,121,0.2514222,-0.14466524,-0.06337719,-0.032556824,-0.013325472,-0.0034575504,0.0,0.0,0.0,-0.009080802,0.012765933,-0.11092715,-0.0005202418,-0.12618072,-0.2101916,0.17282806,0.11427456,-0.101716794,0.3011454,0.028795691,0.07822489,0.07537127,0.014634344,0.15565583,-0.1345567,-0.01673365,0.13263318,0.073021814,-0.09846223,0.1354313,-0.007189968,-0.011738539,-0.0015332126,-0.20356552,-0.3281105,1.031091,-1.3271817,-0.18517485,1.0423589,1.9627916,-0.052280314,0.7027125,2.0,0.356081,0.4972418,-1.5003589,0.051029086,-0.6913607,0.046979424,0.55465466,-0.3636453,1.388554,0.51360863,-1.5305752,1.2961617,-0.059509896,0.26079476,-2.0
2025-07-19 15:19:03.676,2.4400000000000017,2440,122,0.042706463,-0.019424696,0.014656006,-0.0532953,0.023615874,-0.005241754,0.0,0.0,0.0,-0.008326129,0.02110052,-0.08097861,-0.013352344,-0.101204395,-0.19651207,0.18259847,0.12274275,-0.084530786,0.2950528,0.009680372,0.0887277,0.0064583533,-0.035263218,-0.07753445,-0.025703773,-0.025046129,0.0824825,0.011294853,-0.068716854,0.049996812,-0.09306578,-0.042826794,-0.033411626,-0.16409391,0.051029086,-0.6913607,0.046979424,0.55465466,-0.3636453,1.388554,0.51360863,-1.5305752,1.2961617,-0.059509896,0.26079476,-2.0,0.36563227,-0.31887913,0.24569044,-0.078993276,1.4105916,0.3147641,0.31006113,-0.8565265,2.0,-0.5432938,-0.2531541,-1.338714
2025-07-19 15:19:03.697,2.4600000000000017,2460,123,-0.054480445,0.041911494,0.09287422,0.015055819,0.021764088,0.012079847,0.0,0.0,0.0,-0.00678083,0.0198778,-0.09314851,-0.0010337138,-0.10181722,-0.16972798,0.14892003,0.10768226,-0.10061765,0.3002799,0.005226446,0.04658841,-0.02599556,0.023409957,-0.03056714,0.06533317,0.08291809,0.11596417,-0.09181676,-0.0101546,-0.1069203,0.023293862,-0.10261156,-0.022825431,-0.13556899,0.36563227,-0.31887913,0.24569044,-0.078993276,1.4105916,0.3147641,0.31006113,-0.8565265,2.0,-0.5432938,-0.2531541,-1.338714,1.29154,-1.4500802,0.26780546,0.76167,0.31556937,-0.07468172,-0.053072847,1.5116622,2.0,-1.1614227,-0.57623947,-0.3721546
2025-07-19 15:19:03.717,2.4800000000000018,2480,124,-0.03436941,-0.05786044,-0.09262994,-0.015648263,0.017246904,-0.024052603,0.0,0.0,0.0,-0.0077681774,0.046032146,-0.14650142,0.008343035,-0.07494393,-0.11996062,0.12166488,0.114286184,-0.07864849,0.29320693,-0.038296185,0.007837672,-0.039215777,0.031788908,-0.1662547,-0.0027441753,0.038342245,0.18810976,-0.123121396,-0.018000903,0.16786467,-0.006182649,-0.068851486,-0.15811305,-0.07293356,1.29154,-1.4500802,0.26780546,0.76167,0.31556937,-0.07468172,-0.053072847,1.5116622,2.0,-1.1614227,-0.57623947,-0.3721546,0.21172151,-2.0,2.0,0.05042866,-0.48738953,-0.86839205,0.730047,-0.36952004,1.446216,-1.3363475,-0.4864512,2.0
2025-07-19 15:19:03.737,2.5000000000000018,2500,125,-0.089997,0.16160713,0.07843005,-0.0018063909,-0.008130758,-0.03019882,0.0,0.0,0.0,-0.008271087,0.05132204,-0.25573966,0.05528276,-0.07335676,-0.10266084,0.07949666,0.11458505,-0.0757492,0.27432182,-0.064705096,-0.025251271,0.023632042,0.004621579,-0.28071085,0.13842043,-0.012721949,-0.086872496,-0.17457393,0.06358519,-0.056681957,0.008722708,-0.06761673,-0.12552252,0.13076869,0.21172151,-2.0,2.0,0.05042866,-0.48738953,-0.86839205,0.730047,-0.36952004,1.446216,-1.3363475,-0.4864512,2.0,0.21062222,1.3125863,2.0,-1.2759842,1.7845978,-1.2059758,1.2766902,2.0,2.0,0.45078796,0.31029975,2.0
2025-07-19 15:19:03.762,2.520000000000002,2520,126,0.24139217,0.08629394,0.009616245,-0.01546193,-0.037663683,0.0019761939,0.0,0.0,0.0,-0.008663152,0.05237089,-0.28862354,0.102649294,-0.087207474,-0.07685106,0.02160026,0.1332418,-0.051508106,0.2829172,-0.050817244,-0.020378387,0.05991769,0.016040903,-0.039637126,0.067339025,-0.033263117,0.20606096,-0.16858041,0.07662794,0.13814515,0.009925115,0.024960581,0.009605465,0.040526897,0.21062222,1.3125863,2.0,-1.2759842,1.7845978,-1.2059758,1.2766902,2.0,2.0,0.45078796,0.31029975,2.0,-0.6793339,0.46651214,2.0,-0.9614475,-0.075258166,-1.4348577,2.0,1.2799602,2.0,0.99621093,-1.5836647,2.0
2025-07-19 15:19:03.777,2.540000000000002,2540,127,0.06798511,-0.10581818,-0.008636225,0.015656369,-0.028361322,0.007964131,0.0,0.0,0.0,-0.010160179,0.04840994,-0.28761858,0.11682573,-0.093368724,-0.043402053,-0.017405488,0.15897872,0.036518294,0.28174475,-0.036254212,0.00088697777,0.115934715,-0.033110954,0.114445776,0.124101035,-0.03890358,-0.041878372,-0.10450366,0.07749815,0.26612425,0.029704591,0.001470164,-0.0015935136,0.12091985,-0.6793339,0.46651214,2.0,-0.9614475,-0.075258166,-1.4348577,2.0,1.2799602,2.0,0.99621093,-1.5836647,2.0,-0.50932205,-0.14361787,1.7225424,-1.4920411,0.109051734,-0.67508256,1.6847655,-0.6224012,2.0,0.6758083,-1.9128004,2.0
2025-07-19 15:19:03.800,2.560000000000002,2560,128,-0.027241245,0.09982855,0.03026143,-0.008648509,0.016682085,0.010638122,0.0,0.0,0.0,-0.010063058,0.03435072,-0.27447346,0.13853273,-0.11506317,-0.031178312,-0.025626699,0.18551841,0.06809263,0.29364523,-0.025233075,-0.02748716,0.14917102,-0.052951086,0.07486747,0.07125657,-0.047746774,-0.035266355,-0.074306816,0.0133497305,-0.06644723,0.02185273,-0.050434645,-0.029251754,0.107539855,-0.50932205,-0.14361787,1.7225424,-1.4920411,0.109051734,-0.67508256,1.6847655,-0.6224012,2.0,0.6758083,-1.9128004,2.0,-0.6887051,0.5328497,0.5293703,-0.9363183,-0.5761711,0.7158622,1.9216696,0.31370702,2.0,-0.28133577,-1.0431596,2.0
2025-07-19 15:19:03.817,2.580000000000002,2580,129,-0.04560042,0.11665428,-0.17331345,0.045690462,0.017826462,0.03156205,0.0,0.0,0.0,-0.010069529,0.027695304,-0.2307604,0.10944829,-0.1344002,-0.05715317,-0.0077878,0.20661326,0.06885324,0.297136,-0.024022972,-0.03818673,0.17024401,-0.0012970292,0.093794376,-0.027192406,0.04096715,-0.117381126,-0.014278418,0.118149355,0.066260606,-0.06095133,-0.0920143,-0.072946705,0.08794798,-0.6887051,0.5328497,0.5293703,-0.9363183,-0.5761711,0.7158622,1.9216696,0.31370702,2.0,-0.28133577,-1.0431596,2.0,-1.6535252,-0.7789608,-0.029493276,-1.6731074,-1.7127321,1.182418,1.7331059,-1.3763826,2.0,0.864791,1.7050366,2.0
2025-07-19 15:19:03.837,2.600000000000002,2600,130,-0.08143993,0.31686056,0.118082725,-0.0063663563,0.009543484,0.04805015,0.0,0.0,0.0,-0.00806407,-0.00035262224,-0.24842882,0.09612437,-0.15706022,-0.1383012,0.032446776,0.2256252,0.02450773,0.29524657,-0.012556921,-0.030421885,0.1928911,-0.14958878,-0.05281239,-0.13060856,-0.05140183,-0.33720183,0.07858833,-0.02245612,-0.19991218,0.04128251,0.06755098,0.07133104,-0.013937944,-1.6535252,-0.7789608,-0.029493276,-1.6731074,-1.7127321,1.182418,1.7331059,-1.3763826,2.0,0.864791,1.7050366,2.0,-0.109886855,0.9744982,-0.756202,-0.26790866,-0.3191736,2.0,-0.1392465,-0.91963005,2.0,-0.511497,-0.156676,2.0
2025-07-19 15:19:03.859,2.620000000000002,2620,131,0.0077082897,0.100571446,-0.03861855,-0.0033734075,-0.023342993,0.038802482,0.0,0.0,0.0,-0.008732599,-0.006884365,-0.2203242,0.047750045,-0.16362098,-0.19329125,0.05817477,0.20006596,-0.052097447,0.30513266,-0.023915559,-0.011129071,0.21245606,-0.030210221,0.0925488,-0.12123623,-0.00800837,0.012989358,0.14946796,-0.02290055,-0.1311521,0.052851364,0.0019808195,0.0044782236,0.040857483,-0.109886855,0.9744982,-0.756202,-0.26790866,-0.3191736,2.0,-0.1392465,-0.91963005,2.0,-0.511497,-0.156676,2.0,-0.10959691,0.057023525,-0.7983609,-0.31113106,-1.3261596,2.0,0.71688545,0.04417185,2.0,0.25247198,1.8242264,0.5995498
2025-07-19 15:19:03.878,2.640000000000002,2640,132,0.019142361,-0.29862946,-0.06767116,0.07957326,0.011191729,0.02287415,0.0,0.0,0.0,-0.009178666,0.001936536,-0.17502001,0.022652827,-0.14226829,-0.22332273,0.1170393,0.17750326,-0.068627216,0.29608694,-0.008839107,0.029439647,0.19266625,-0.009489078,0.08049047,-0.036412332,0.017545393,-0.036114093,0.034394216,0.040917546,0.073142916,-0.06788199,-0.048590142,0.20947374,-0.052274242,-0.10959691,0.057023525,-0.7983609,-0.31113106,-1.3261596,2.0,0.71688545,0.04417185,2.0,0.25247198,1.8242264,0.5995498,-0.0737969,0.24507177,0.046390828,-0.5857274,-0.7976356,2.0,-0.22728974,-2.0,2.0,1.2991551,0.7050049,-1.1242446
2025-07-19 15:19:03.897,2.660000000000002,2660,133,0.018854694,-0.123719454,-0.031342752,-0.0019145946,-0.0031224766,-0.019142319,0.0,0.0,0.0,-0.007699107,-0.0031681424,-0.14255013,0.01148181,-0.13597663,-0.23806176,0.13672,0.15006246,-0.09185314,0.3078329,0.022087602,0.07994385,0.13848369,0.04381236,0.05469323,0.026925724,0.07915783,-0.10360682,0.053011265,-0.078533106,-0.12733206,-0.02034413,0.032418456,0.14725488,-0.18678658,-0.0737969,0.24507177,0.046390828,-0.5857274,-0.7976356,2.0,-0.22728974,-2.0,2.0,1.2991551,0.7050049,-1.1242446,-0.32311085,1.4055455,-1.8308737,-0.18357468,1.3513467,2.0,-0.5961361,-1.2116838,2.0,1.1538501,0.9597789,-2.0
2025-07-19 15:19:03.919,2.680000000000002,2680,134,0.09156809,0.077983946,0.060052797,0.029500647,-0.067919776,-0.024423929,0.0,0.0,0.0,-0.0068208287,-0.0007246973,-0.055651646,-0.034514673,-0.13318326,-0.23874506,0.15644544,0.11353721,-0.14413445,0.31446823,0.037976097,0.14595462,0.05576825,-0.04359566,0.21113826,-0.13941863,-0.018232372,0.066453174,0.027056055,-0.020933893,-0.025082063,0.05434769,0.13791825,0.14784259,-0.24360874,-0.32311085,1.4055455,-1.8308737,-0.18357468,1.3513467,2.0,-0.5961361,-1.2116838,2.0,1.1538501,0.9597789,-2.0,-0.11757192,-1.2364159,-1.734949,1.0882605,0.63743454,1.958682,-0.47460207,-1.9859309,1.911081,-0.027982078,-1.4506061,-2.0
2025-07-19 15:19:03.937,2.700000000000002,2700,135,-0.044050485,0.06901482,0.1043009,0.0033624128,0.006135457,-0.028993865,0.0,0.0,0.0,-0.0076946905,-0.007921613,-0.034648035,-0.076649636,-0.1298499,-0.21592245,0.1756805,0.100469455,-0.17226203,0.3206205,0.04837338,0.13007694,-0.0056351963,-0.040158246,-0.12185562,-0.06491099,0.074235655,0.11573102,0.04112073,-0.09084406,-0.018468646,0.031392332,-0.08617774,-0.17465739,-0.15503086,-0.11757192,-1.2364159,-1.734949,1.0882605,0.63743454,1.958682,-0.47460207,-1.9859309,1.911081,-0.027982078,-1.4506061,-2.0,0.5524459,-1.2138138,-1.1331712,0.5812809,0.4554403,-0.34446654,-0.5263356,-0.52318245,2.0,-1.2414207,-0.5730699,-0.27167565
2025-07-19 15:19:03.963,2.720000000000002,2720,136,0.06925899,0.07944805,0.029969227,-0.0029305099,-0.044544544,0.0119097065,0.0,0.0,0.0,-0.009432516,-0.0034842114,-0.11786582,-0.100160636,-0.09962187,-0.15363225,0.1371838,0.0948814,-0.17883284,0.31402835,-0.004045633,0.052009612,-0.02450645,-0.0016368905,-0.12524043,-0.074639514,0.049034763,0.1539021,-0.09414946,-0.06200587,-0.0012839816,0.07075014,-0.06998663,-0.16794485,-0.042176906,0.5524459,-1.2138138,-1.1331712,0.5812809,0.4554403,-0.34446654,-0.5263356,-0.52318245,2.0,-1.2414207,-0.5730699,-0.27167565,0.36125794,-0.03529869,1.4921831,0.5045645,-0.097396284,-0.62477046,0.028105937,1.4575683,2.0,-1.2111021,-0.35534078,1.2594457
2025-07-19 15:19:03.980,2.740000000000002,2740,137,0.12900524,-0.05775997,-0.23803924,0.03494321,-0.041395504,-0.033358216,0.0,0.0,0.0,-0.010305223,0.00593946,-0.120065995,-0.050501544,-0.089811414,-0.12258373,0.0938208,0.07394959,-0.13890368,0.29848096,-0.038008925,0.02109477,0.020151457,0.069646254,0.10374662,0.15246521,0.05385674,0.038094386,-0.12582688,-0.024544751,0.114974685,-0.08445818,-0.026287682,-0.11775373,0.091399014,0.36125794,-0.03529869,1.4921831,0.5045645,-0.097396284,-0.62477046,0.028105937,1.4575683,2.0,-1.2111021,-0.35534078,1.2594457,-0.13310471,-2.0,0.8442026,-0.8381783,-0.4246502,0.38253427,1.3492547,-0.47644374,2.0,-0.19442993,0.91849095,1.3709415
2025-07-19 15:19:04.002,2.760000000000002,2760,138,-0.101574115,-0.030151147,0.15417501,0.006535959,-0.03467848,0.008382925,0.0,0.0,0.0,-0.007660266,0.0042725196,-0.1717453,-0.012118187,-0.07928373,-0.12262088,0.082866974,0.09366652,-0.13010682,0.31104943,-0.042210426,0.019906474,0.041844435,-0.034204274,-0.17146617,0.035840247,-0.024794165,0.008820241,0.047244366,0.09497981,0.02979031,-0.0194271,-0.006554672,0.11875256,0.056845948,-0.13310471,-2.0,0.8442026,-0.8381783,-0.4246502,0.38253427,1.3492547,-0.47644374,2.0,-0.19442993,0.91849095,1.3709415,0.08709483,-0.17575207,1.5754035,-1.290192,0.50013477,0.12316889,1.00843,1.6964718,2.0,-0.32194018,-0.87835467,2.0
2025-07-19 15:19:04.020,2.780000000000002,2780,139,-0.016450893,0.005478849,-0.0660446,-0.009524069,-0.020290852,0.042930964,0.0,0.0,0.0,-0.007463038,0.011687099,-0.18278083,0.024127431,-0.10926136,-0.094018035,0.06569745,0.122315496,-0.109037325,0.3079891,-0.04896781,0.021024771,0.093848966,-0.036114797,-0.011028009,0.031739965,-0.107834384,0.092857204,-0.026787905,-0.0041666417,0.21813783,0.033473156,-0.04236915,0.010195593,0.061942454,0.08709483,-0.17575207,1.5754035,-1.290192,0.50013477,0.12316889,1.00843,1.6964718,2.0,-0.32194018,-0.87835467,2.0,-0.29384202,-1.518934,1.0340399,-1.1258932,-1.2497005,0.37633082,1.3164513,0.059933346,2.0,0.65901124,-0.956668,2.0
2025-07-19 15:19:04.042,2.800000000000002,2800,140,-0.34869117,0.050390366,0.016412763,0.0011682532,-0.032319207,0.045933787,0.0,0.0,0.0,-0.007828189,0.011258674,-0.1930387,0.037134424,-0.12741265,-0.08643057,0.0635363,0.13393041,-0.07976038,0.3025479,-0.026094269,-0.019752646,0.13917685,0.057185654,-0.05726895,0.104584865,-0.10396644,-0.12810247,0.064064,-0.011790987,0.076490626,0.053616475,-0.017492916,-0.10972613,0.09818724,-0.29384202,-1.518934,1.0340399,-1.1258932,-1.2497005,0.37633082,1.3164513,0.059933346,2.0,0.65901124,-0.956668,2.0,-1.3470688,-0.7544541,1.763558,-1.4522122,0.3126744,0.8359652,1.067068,0.9410978,2.0,-0.3733822,0.21679199,2.0
2025-07-19 15:19:04.066,2.820000000000002,2820,141,0.2054819,0.20983028,0.14941685,0.056642603,-0.05464706,-0.026812654,0.0,0.0,0.0,-0.008070713,-0.018390864,-0.21338919,0.081377745,-0.13751999,-0.07734649,0.07158316,0.1491822,-0.019093601,0.30290616,-0.029886633,-0.021747636,0.15022716,-0.06663594,0.028317953,0.024697663,0.0027487301,0.124803916,0.006609294,-0.050166655,0.1317044,-0.06223012,0.044650026,0.11417246,0.10897971,-1.3470688,-0.7544541,1.763558,-1.4522122,0.3126744,0.8359652,1.067068,0.9410978,2.0,-0.3733822,0.21679199,2.0,0.892668,-1.0069041,1.1145513,-1.2350413,-1.4403503,0.2684668,0.76735675,-0.36508211,2.0,-0.16755092,-1.4783189,2.0
2025-07-19 15:19:04.079,2.840000000000002,2840,142,-0.25918764,-0.016775835,-0.014254393,0.0217311,-0.0399574,0.045205906,0.0,0.0,0.0,-0.010257032,0.0012576845,-0.25227305,0.08557849,-0.1522302,-0.09512703,0.062215228,0.13941525,-0.0068249027,0.31091082,-0.036732297,-0.03145416,0.18621331,-0.0039320043,-0.097256765,0.047120593,-0.09496908,-0.15622719,-0.028364412,-0.06816555,-0.06310881,-0.032496944,-0.040115554,-0.18762298,0.053557783,0.892668,-1.0069041,1.1145513,-1.2350413,-1.4403503,0.2684668,0.76735675,-0.36508211,2.0,-0.16755092,-1.4783189,2.0,-1.2936788,-0.037854433,1.7430345,-1.4280645,0.74412113,1.0321423,0.96422046,1.8805672,2.0,-0.49658155,0.8826101,2.0
2025-07-19 15:19:04.100,2.860000000000002,2860,143,0.3365193,-0.11235959,0.16257966,0.037366707,0.0018076262,-0.044781167,0.0,0.0,0.0,-0.012226011,-0.011314109,-0.25837207,0.115702055,-0.18504924,-0.08102178,0.07705403,0.14476779,0.02895734,0.3174413,-0.03977867,-0.023047104,0.20309809,-0.049491726,0.0039407415,0.09683634,-0.038114045,0.18326044,-0.0033429514,0.082454704,0.25874388,-0.01314803,0.023583742,0.08639742,-0.04921448,-1.2936788,-0.037854433,1.7430345,-1.4280645,0.74412113,1.0321423,0.96422046,1.8805672,2.0,-0.49658155,0.8826101,2.0,1.0133443,-0.46842033,1.3853666,-1.0180509,-1.5028688,0.17720023,0.16929826,-1.439606,2.0,0.03170813,-1.5747453,1.924247
2025-07-19 15:19:04.120,2.880000000000002,2880,144,-0.14295398,-0.2520365,-0.08253816,0.065293066,-0.026413968,-0.033501737,0.0,0.0,0.0,-0.013563272,0.011899523,-0.24923204,0.12825279,-0.18210337,-0.0777744,0.075204805,0.12759772,0.05338084,0.30816728,-0.041227918,-0.018366436,0.21259063,0.06538059,0.05224099,0.033713844,0.07220914,-0.13683735,0.045198943,0.020069191,-0.043642372,-0.031201415,0.08249632,-0.07446345,0.01257332,1.0133443,-0.46842033,1.3853666,-1.0180509,-1.5028688,0.17720023,0.16929826,-1.439606,2.0,0.03170813,-1.5747453,1.924247,-0.7301966,-1.1563799,0.6866366,-0.80184394,-0.11852148,1.6056463,0.75064534,-0.07139833,2.0,-0.10149806,0.38710904,2.0
2025-07-19 15:19:04.144,2.900000000000002,2900,145,0.054235935,-0.006516146,0.09081464,0.007246431,0.008606082,-0.030781098,0.0,0.0,0.0,-0.013683579,-0.00369969,-0.25316727,0.11366183,-0.16991521,-0.098980665,0.091580786,0.13074788,0.024504833,0.31165192,-0.046160817,0.01067808,0.23607643,-0.020924302,-0.010504548,-0.002437949,0.03219588,0.031573236,0.067321695,-0.009513233,-0.025885759,-0.015391014,0.054656804,0.12061093,0.009139237,-0.7301966,-1.1563799,0.6866366,-0.80184394,-0.11852148,1.6056463,0.75064534,-0.07139833,2.0,-0.10149806,0.38710904,2.0,0.61628854,-0.779363,0.8877251,-0.991674,-1.876968,1.5667697,0.45468095,-0.6900497,2.0,-0.0768187,-0.6553075,1.7245785
2025-07-19 15:19:04.160,2.920000000000002,2920,146,-0.21331109,-0.04381918,-0.091514386,0.04220323,0.021657994,0.019504504,0.0,0.0,0.0,-0.014878655,0.018756073,-0.2724233,0.1149549,-0.16058351,-0.14536792,0.12225176,0.1102704,-0.017312618,0.3166763,-0.033346403,0.0013177264,0.24550124,0.025094207,-0.06477977,-0.06358475,0.019683145,-0.16228946,0.12759092,0.049092636,-0.103872545,-0.0513706,0.04946243,-0.104726374,0.06139068,0.61628854,-0.779363,0.8877251,-0.991674,-1.876968,1.5667697,0.45468095,-0.6900497,2.0,-0.0768187,-0.6553075,1.7245785,-1.2618343,0.5412458,0.9108545,-1.5318823,0.4618412,2.0,0.8120111,1.0958568,2.0,0.32749176,1.4209546,2.0
2025-07-19 15:19:04.180,2.940000000000002,2940,147,0.3199851,-0.085956916,0.117936276,0.03749253,-0.027901223,0.015388575,0.0,0.0,0.0,-0.015094489,0.004695653,-0.24546275,0.12390121,-0.17687142,-0.16853063,0.1630743,0.12729143,-0.010790365,0.3153798,-0.029803433,0.027411327,0.2528816,-0.068107486,0.07123512,0.01294923,-0.10317364,0.15353402,0.13137579,-0.05161633,0.13173163,0.039376915,0.086886324,0.10167011,-0.060433667,-1.2618343,0.5412458,0.9108545,-1.5318823,0.4618412,2.0,0.8120111,1.0958568,2.0,0.32749176,1.4209546,2.0,0.7860669,-0.02354762,0.8573974,-0.49114022,-2.0,1.4497596,0.11961349,-1.9514067,2.0,0.55261534,-0.5883438,0.69661623
