openverse-orca/OrcaGym/log/simulation_log_20250718_172125.csv
timestamp,sim_time,physics_step,control_step,imu_angle_roll,imu_angle_pitch,imu_angle_yaw,imu_angular_velocity_roll,imu_angular_velocity_pitch,imu_angular_velocity_yaw,imu_acc_x,imu_acc_y,imu_acc_z,fl_joint1_pos,fl_joint1_vel,fl_joint1_torque,fl_joint2_pos,fl_joint2_vel,fl_joint2_torque,fl_joint3_pos,fl_joint3_vel,fl_joint3_torque,fr_joint1_pos,fr_joint1_vel,fr_joint1_torque,fr_joint2_pos,fr_joint2_vel,fr_joint2_torque,fr_joint3_pos,fr_joint3_vel,fr_joint3_torque,hl_joint1_pos,hl_joint1_vel,hl_joint1_torque,hl_joint2_pos,hl_joint2_vel,hl_joint2_torque,hl_joint3_pos,hl_joint3_vel,hl_joint3_torque,hr_joint1_pos,hr_joint1_vel,hr_joint1_torque,hr_joint2_pos,hr_joint2_vel,hr_joint2_torque,hr_joint3_pos,hr_joint3_vel,hr_joint3_torque,fl_force_x,fl_force_y,fl_force_z,fr_force_x,fr_force_y,fr_force_z,hl_force_x,hl_force_y,hl_force_z,hr_force_x,hr_force_y,hr_force_z,fl_hip_action,fl_thigh_action,fl_calf_action,fr_hip_action,fr_thigh_action,fr_calf_action,hl_hip_action,hl_thigh_action,hl_calf_action,hr_hip_action,hr_thigh_action,hr_calf_action
2025-07-18 17:21:25.681,0.0,0,0,-0.0018237738,0.00248774,-0.0032982146,0.020403517,0.0015323381,-0.03934348,1.2940253,-0.2998752,0.0,0.0,-0.0035146545,0.0074526328,0.0016447922,7.6005326e-06,-0.0009323849,0.002308715,-0.0010247503,-0.001739938,0.0070677227,0.009831046,0.009801357,-0.0061453264,-0.046136707,-0.01279048,-0.04604392,0.036546156,-0.02040643,0.05122536,-0.06659175,0.048051734,0.061020683,0.038452823,-0.022022286,0.06626653,0.0,0.0,0.0,0.0,0.0,0.0,0.0,0.0,0.0,0.0,0.0,0.0,1.4727286,0.27971143,0.35216144,-0.87875944,2.0,0.42144033,0.021045875,0.001161132,0.51372397,0.063941374,1.169131,0.6177608
2025-07-18 17:21:25.695,0.02,20,1,-0.12794892,0.23404971,0.06317821,-0.011533922,0.002988667,-0.024535075,0.0,0.0,0.0,0.0,0.036021695,0.026175788,0.0003413413,-0.024280354,0.034829654,0.012833964,0.010249843,0.0055204034,0.022769276,0.010711996,0.0575722,0.02291858,0.13755925,-0.016241662,0.07500618,-0.047480058,0.20274495,-0.06866137,0.05331871,0.092791826,0.070183575,0.06455379,0.15635128,-0.0005934248,1.4727286,0.27971143,0.35216144,-0.87875944,2.0,0.42144033,0.021045875,0.001161132,0.51372397,0.063941374,1.169131,0.6177608,0.6618953,-1.4928521,0.021409784,0.2905043,-2.0,-0.16860208,-0.5925876,-0.14097387,-1.1461588,-0.36796093,-1.6382799,-0.3428539
2025-07-18 17:21:25.715,0.04,40,2,0.07353652,-0.09264159,-0.019044423,-0.00067922036,0.014051377,0.04761291,0.0,0.0,0.0,-0.0006303625,0.043312848,0.010171986,0.0057770032,-0.03492861,0.053410314,0.0032704372,-0.0154633615,0.0039913696,-0.007905696,0.003821062,0.059422936,-0.0014824214,0.025978057,-0.055270035,0.008684146,0.047626074,0.01512386,-0.07065303,-0.07693756,-0.07740648,-0.114973545,-0.047042023,-0.15558921,-0.051482413,0.6618953,-1.4928521,0.021409784,0.2905043,-2.0,-0.16860208,-0.5925876,-0.14097387,-1.1461588,-0.36796093,-1.6382799,-0.3428539,0.23371062,-0.75078315,0.57579,0.2783715,-1.4410158,-0.40220964,0.115584254,1.6708215,-1.4394187,-0.129009,1.5449451,0.950136
2025-07-18 17:21:25.736,0.06,60,3,-0.014041031,0.045448516,0.00987641,0.04711224,0.0011394152,0.048158325,0.0,0.0,0.0,-0.0007902767,0.058193278,-0.024079164,0.024035517,-0.028485151,0.04223949,-0.01654554,-0.010028431,0.029505804,-0.045458216,-0.00036526172,0.0646473,0.028789254,-0.052719727,-0.059003137,0.10254661,0.041047532,-0.074744254,0.044222094,0.010268728,0.24988425,-0.06047704,0.03530114,0.20523086,0.10082653,0.23371062,-0.75078315,0.57579,0.2783715,-1.4410158,-0.40220964,0.115584254,1.6708215,-1.4394187,-0.129009,1.5449451,0.950136,-0.21595329,-0.26048586,1.2585951,0.44935933,-2.0,-0.6862926,0.15397222,0.17767325,-2.0,0.7162727,-1.8102027,2.0
2025-07-18 17:21:25.755,0.08,80,4,0.044510156,-0.109691374,-0.05629482,-0.001432045,0.054769203,-0.008498628,0.0,0.0,0.0,-5.0941053e-05,0.06288214,-0.04821188,0.043120243,-0.002127513,0.006179365,-0.020353278,-0.010172302,0.06273807,-0.0929789,0.007172103,0.06921144,0.0676484,0.059667926,0.0061524077,-0.02585943,0.08185984,-0.15867534,0.020926923,-0.053641826,0.040573422,-0.15680562,0.033071343,-0.042222396,0.15845186,-0.21595329,-0.26048586,1.2585951,0.44935933,-2.0,-0.6862926,0.15397222,0.17767325,-2.0,0.7162727,-1.8102027,2.0,-0.24880546,-0.59907514,0.33802387,-0.82492536,-1.3320941,-1.787976,0.99013686,-0.17527276,-1.8329214,0.63885057,-0.45468256,2.0
2025-07-18 17:21:25.775,0.1,100,5,-0.006163888,-0.18056385,0.10787706,-0.017989755,-0.005590122,0.021483729,0.0,0.0,0.0,0.0014322557,0.048258103,-0.07326143,0.034680586,-0.02079341,-0.097538084,-0.07798629,0.02038408,0.040598813,-0.12745391,0.018775485,0.019470127,0.11930737,-0.021669548,-0.12594102,0.04512853,-0.058883507,-0.18954214,-0.1664669,0.069043,-0.09144233,-0.10528655,0.011854467,-0.06302036,0.14154693,-0.24880546,-0.59907514,0.33802387,-0.82492536,-1.3320941,-1.787976,0.99013686,-0.17527276,-1.8329214,0.63885057,-0.45468256,2.0,-0.59468734,0.4897199,0.2812229,-0.026644751,-0.6654065,-0.781068,0.8728514,0.22044975,-0.32937142,-0.030112445,-0.9391582,2.0
2025-07-18 17:21:25.796,0.12000000000000001,120,6,-0.10442237,-0.19852382,-0.016464636,-0.047750894,-0.01726454,-0.015590298,0.0,0.0,0.0,0.0010487067,0.03482424,-0.06412393,0.04008364,-0.027086556,-0.13529444,-0.07248586,0.050061524,0.041349925,-0.11294843,0.0032533107,-0.039803933,0.1462558,-0.032187432,0.11178841,0.0035224801,0.035922416,-0.068480305,0.02704477,-0.0070176246,0.039530843,0.004700315,-0.049253423,-0.13980205,0.039014395,-0.59468734,0.4897199,0.2812229,-0.026644751,-0.6654065,-0.781068,0.8728514,0.22044975,-0.32937142,-0.030112445,-0.9391582,2.0,-1.1117337,-1.6221908,-0.13603833,-0.20147847,-0.8254312,-1.6772175,0.096902,-0.37610313,0.1979571,0.44434726,0.017495947,2.0
2025-07-18 17:21:25.819,0.14,140,7,-0.19588946,-0.34973994,0.21895452,-0.04625843,0.028850473,-0.02186108,0.0,0.0,0.0,0.0011273884,-0.0014110389,-0.08467253,0.031145789,-0.028858451,-0.17845827,-0.101126745,0.049428977,0.023946892,-0.09160938,0.0043938938,-0.044941504,0.1576128,-0.024106123,-0.030404437,-0.0012636224,0.046590995,-0.04801813,-0.117985815,0.038555607,-0.1598904,0.12468908,0.06797676,0.015524885,0.11426888,-1.1117337,-1.6221908,-0.13603833,-0.20147847,-0.8254312,-1.6772175,0.096902,-0.37610313,0.1979571,0.44434726,0.017495947,2.0,-0.55994916,0.3748184,0.57558733,0.92361146,-0.38407746,-0.91201776,-0.0040943213,0.29995894,0.011950932,-0.6182695,-0.37036052,2.0
2025-07-18 17:21:25.836,0.16,160,8,-0.08069147,-0.073419444,-0.11415077,-0.09072373,-0.042463604,-0.04460159,0.0,0.0,0.0,-0.00023963406,-0.0024978202,-0.0776655,0.0252967,-0.0048917285,-0.18045862,-0.11426744,0.031345177,0.027062433,-0.070224985,-0.006483316,-0.059784677,0.17967607,-0.027818915,0.10581877,-0.02098769,0.0729337,0.037772395,-0.019146472,-0.049061734,-0.01890405,0.10262743,-0.026464673,-0.111069284,0.037549634,-0.55994916,0.3748184,0.57558733,0.92361146,-0.38407746,-0.91201776,-0.0040943213,0.29995894,0.011950932,-0.6182695,-0.37036052,2.0,-0.4012506,-1.3738067,-0.404212,-0.26136008,-0.69445294,-1.2257439,-0.20814325,-0.40283895,0.060501836,0.30599457,1.5308524,2.0
2025-07-18 17:21:25.856,0.18,180,9,-0.0058491863,-0.13890705,0.07776029,-0.07754717,0.014871705,-0.04221978,0.0,0.0,0.0,-0.00033474987,-0.01211878,-0.08981783,0.0054599172,-0.011093675,-0.1971897,-0.1279004,0.026623812,0.0055756243,-0.06115639,-0.005473177,-0.048118554,0.19251938,-0.061095275,-0.060575914,-0.077669635,-0.08490754,0.017783148,-0.0152507145,-0.10357719,-0.105866075,-0.032132436,0.07649225,0.16602248,0.048220925,-0.4012506,-1.3738067,-0.404212,-0.26136008,-0.69445294,-1.2257439,-0.20814325,-0.40283895,0.060501836,0.30599457,1.5308524,2.0,-0.7473302,0.16457477,-0.5598495,0.43997943,-0.2539584,0.5284937,-0.31231177,0.6661778,0.5760505,0.018759266,-0.75419,2.0
2025-07-18 17:21:25.876,0.19999999999999998,200,10,0.10743404,0.24372198,0.008638471,-0.064611554,-0.014344121,-0.043898925,0.0,0.0,0.0,-0.000855351,-0.031948466,-0.07313714,-0.019089388,-0.010534283,-0.20033115,-0.10407654,0.009007112,0.030025132,-0.033637274,0.003383447,-0.037368644,0.21402009,-0.092189714,0.0981541,-0.07003743,0.04979722,0.023691222,0.011724216,0.006588545,0.07323031,0.0076876543,0.079467535,-0.057749312,0.10793321,-0.7473302,0.16457477,-0.5598495,0.43997943,-0.2539584,0.5284937,-0.31231177,0.6661778,0.5760505,0.018759266,-0.75419,2.0,-1.0260851,-0.6881811,0.18034956,0.120520554,-0.3088632,-0.4979296,-1.0019089,-1.275516,0.6854245,-0.43324602,1.2931052,2.0
2025-07-18 17:21:25.896,0.21999999999999997,220,11,-0.106760144,0.055470794,0.06661308,-0.06498691,0.021756653,-0.029754153,0.0,0.0,0.0,-0.0013505359,-0.052252553,-0.09530655,-0.0018115761,-0.007851865,-0.1831259,-0.11626156,-0.013239743,0.003667247,-0.014710338,-0.017169412,-0.001203725,0.2276626,-0.10523401,-0.04409572,0.032231353,0.020976078,0.010298302,0.027517293,-0.08864799,-0.20909664,0.13404295,-0.047828108,0.18225692,0.058202133,-1.0260851,-0.6881811,0.18034956,0.120520554,-0.3088632,-0.4979296,-1.0019089,-1.275516,0.6854245,-0.43324602,1.2931052,2.0,0.14000198,0.74652344,-0.52490664,-0.37207088,0.18720548,0.51297116,-0.09562603,1.263511,0.29420936,-0.12940526,-0.57888913,2.0
2025-07-18 17:21:25.916,0.23999999999999996,240,12,0.07684356,0.29363605,-0.0057659564,-0.010080429,-0.023435468,-0.020491336,0.0,0.0,0.0,-0.002345515,-0.024913251,-0.06905986,-0.017984373,-0.004315355,-0.16053928,-0.079858325,-0.024696678,0.008699253,0.0051092906,-0.014731238,0.022938224,0.23709539,0.07575182,0.10844828,-0.083694085,-0.08968307,0.12545455,0.12232184,0.03242846,0.13924389,0.059127953,0.0015207876,0.05542712,-0.020111503,0.14000198,0.74652344,-0.52490664,-0.37207088,0.18720548,0.51297116,-0.09562603,1.263511,0.29420936,-0.12940526,-0.57888913,2.0,-0.8064555,-1.0716314,-0.3753142,0.22154906,-2.0,0.18820843,-0.95068926,-1.3386772,0.2464213,0.43695214,-0.42348135,1.3824824
2025-07-18 17:21:25.940,0.25999999999999995,260,13,0.13171151,-0.10921248,0.08835428,-0.018367747,0.028321056,-0.024137473,0.0,0.0,0.0,-0.0039174287,-0.028624017,-0.0639533,-0.029826077,-0.006921726,-0.17346793,-0.060466535,-0.041299846,-0.010835223,0.008533513,-0.0029999784,0.011293698,0.24511173,-0.019822067,-0.053413164,0.039643493,-0.0046231262,-0.0549778,-0.005417194,-0.05702264,-0.22930773,0.035466272,0.047815558,-0.12850441,-0.07617674,-0.8064555,-1.0716314,-0.3753142,0.22154906,-2.0,0.18820843,-0.95068926,-1.3386772,0.2464213,0.43695214,-0.42348135,1.3824824,0.16901323,1.1181551,-0.096141994,-0.70814025,0.1477115,-0.044396065,-0.024652291,1.1632302,0.741882,-0.8318353,1.73517,1.7194656
2025-07-18 17:21:25.956,0.27999999999999997,280,14,-0.016663916,0.32903767,0.0005905035,-0.045487605,0.02246354,-0.0063209054,0.0,0.0,0.0,-0.0043128342,-0.035811655,-0.032960285,-0.030590065,-0.018391263,-0.15932357,-0.06685288,-0.036756843,0.0049161534,0.030041717,-0.023293171,0.0418636,0.24636938,0.052301895,0.16155751,0.0679464,-0.038992144,0.15368414,0.01332385,0.06894079,0.0952365,0.09309012,-0.0139319915,0.10229553,-0.07348133,0.16901323,1.1181551,-0.096141994,-0.70814025,0.1477115,-0.044396065,-0.024652291,1.1632302,0.741882,-0.8318353,1.73517,1.7194656,-0.47147182,-1.2254056,0.16003211,0.42063946,-1.7419019,0.70184016,-0.5071041,-0.7983315,-0.18249533,0.87021166,-1.751791,0.73787767
2025-07-18 17:21:25.976,0.3,300,15,0.26601654,-0.033183042,0.087635785,-0.0060101636,-0.031411897,-0.031624477,0.0,0.0,0.0,-0.004834557,-0.027897991,-0.009278741,-0.026926594,-0.01323279,-0.17696033,-0.024147606,-0.042631008,-0.02555555,0.010718262,-0.002409885,0.04807322,0.21825464,0.036953613,-0.07166091,0.043258693,-0.01748393,-0.18426415,0.076404564,-0.045987576,-0.10398627,0.033948768,0.12590697,-0.032122575,-0.07403237,-0.47147182,-1.2254056,0.16003211,0.42063946,-1.7419019,0.70184016,-0.5071041,-0.7983315,-0.18249533,0.87021166,-1.751791,0.73787767,0.09633708,1.7038082,-0.1911712,-0.70356697,0.8599065,0.32464305,0.025020357,0.2944903,0.7383539,-0.29857624,0.015406029,0.9712855
2025-07-18 17:21:26.000,0.32,320,16,0.022934116,0.07114148,-0.015970755,-0.0060628755,0.034706865,-0.010500096,0.0,0.0,0.0,-0.00565946,-0.026677305,0.010900876,-0.026505457,-0.019202495,-0.19642597,-0.009681524,-0.037581373,-0.017325446,0.03252371,-0.007837684,0.042687483,0.2164097,0.09420784,0.14425023,-0.014252475,-0.055091385,0.058363784,-0.027261185,0.020326242,0.027013987,0.04845894,-0.08321208,0.022420945,0.045436088,0.09633708,1.7038082,-0.1911712,-0.70356697,0.8599065,0.32464305,0.025020357,0.2944903,0.7383539,-0.29857624,0.015406029,0.9712855,-0.33030352,-0.90255773,-0.6513437,0.30064604,-0.3506538,0.49364963,-0.81441545,-0.83022654,1.2553273,0.19839329,-0.071716666,0.05736243
2025-07-18 17:21:26.016,0.34,340,17,0.067305334,-0.20312172,0.024763225,-0.009686134,0.0009390986,-0.03444798,0.0,0.0,0.0,-0.0056832386,-0.016054012,0.013600057,-0.04331704,-0.03393358,-0.19737579,-0.023102943,-0.055423908,-0.052190047,0.04249735,-0.007460851,0.042861473,0.17876452,0.032271348,-0.0010690031,-0.08375303,-0.06660568,0.031482723,-0.02271702,-0.011476893,-0.082683936,0.13389689,-0.02907476,-0.016038703,-0.050260738,-0.33030352,-0.90255773,-0.6513437,0.30064604,-0.3506538,0.49364963,-0.81441545,-0.83022654,1.2553273,0.19839329,-0.071716666,0.05736243,0.6615682,-0.0746065,-0.689253,0.21206056,0.15361,0.8859518,-0.78275156,-0.1344679,2.0,-0.802415,1.4327343,-0.33531955
2025-07-18 17:21:26.037,0.36000000000000004,360,18,-0.08464533,0.24106413,0.041600462,-0.026074208,-0.01826831,0.03938624,0.0,0.0,0.0,-0.0051196264,-0.0048008896,0.008801975,-0.048618056,-0.032345653,-0.1822224,0.007788132,-0.055447407,-0.051651362,0.07255188,-0.028832516,0.08311764,0.13233592,0.07382806,0.03437443,-0.017765738,-0.014367622,0.0617282,-0.023402276,0.052822925,-0.0014844298,0.118745595,-0.109261766,0.14811586,-0.16671814,0.6615682,-0.0746065,-0.689253,0.21206056,0.15361,0.8859518,-0.78275156,-0.1344679,2.0,-0.802415,1.4327343,-0.33531955,0.79517233,-0.40685245,-0.4977984,0.35276258,0.48729694,0.8048145,-0.49745858,-0.985634,2.0,-0.71085054,-0.10459055,-0.93407446
2025-07-18 17:21:26.057,0.38000000000000006,380,19,0.058291607,-0.03509567,0.085392974,-0.044079788,0.032224048,-0.032017555,0.0,0.0,0.0,-0.0053784447,0.013587383,-0.022419427,-0.06101578,-0.029997466,-0.14569971,0.011990577,-0.04558974,-0.0804452,0.114947945,-0.044815995,0.10421371,0.09853582,0.027634691,-0.051911503,0.03231541,0.037280865,0.036726236,0.065625325,-0.026673628,-0.09907295,0.09810874,-0.004302958,-0.090326235,-0.16417745,0.79517233,-0.40685245,-0.4977984,0.35276258,0.48729694,0.8048145,-0.49745858,-0.985634,2.0,-0.71085054,-0.10459055,-0.93407446,0.94833934,-0.12383058,-0.39178282,0.7214768,1.2374257,0.18909183,-0.9054898,-0.5283393,2.0,-1.1781418,0.48276445,-0.6406349
2025-07-18 17:21:26.081,0.4000000000000001,400,20,-0.1198632,-0.026931357,0.08213284,0.04319137,0.01027258,0.048373427,0.0,0.0,0.0,-0.0066500828,0.04219247,-0.028815182,-0.061461877,-0.0031425462,-0.06871057,0.0012910872,-0.05280773,-0.09846106,0.15220888,-0.07531509,0.10332282,0.051489886,0.10758356,0.02648639,-0.0072725364,-0.0039897254,0.16501778,-0.039455466,0.051593293,-0.039403707,0.13803211,-0.1278441,0.0735689,-0.047067028,0.94833934,-0.12383058,-0.39178282,0.7214768,1.2374257,0.18909183,-0.9054898,-0.5283393,2.0,-1.1781418,0.48276445,-0.6406349,0.5603003,-1.3909521,-0.12062557,1.2165333,-0.36659747,-0.7129365,-1.3449476,-0.924557,2.0,-1.2874982,-0.47995242,0.14268374
2025-07-18 17:21:26.097,0.4200000000000001,420,21,0.249548,-0.2845303,-0.015188216,0.033201303,-0.04902595,0.046669025,0.0,0.0,0.0,-0.0082561225,0.063895054,-0.09005908,-0.05122349,0.010667576,-0.055687025,-0.022291379,-0.07254471,-0.12839562,0.18113065,-0.08459872,0.062448066,0.043728516,-0.005094396,-0.17330359,0.036581907,-0.013292934,-0.03430361,-0.07229357,-0.07553029,-0.1667645,0.09614574,0.0050086617,-0.09249651,-0.055504452,0.5603003,-1.3909521,-0.12062557,1.2165333,-0.36659747,-0.7129365,-1.3449476,-0.924557,2.0,-1.2874982,-0.47995242,0.14268374,0.3332281,0.73268586,0.4308489,0.93828577,2.0,-1.2072238,-0.037671465,0.43458742,2.0,-1.6833189,1.1957221,1.2444214
2025-07-18 17:21:26.117,0.4400000000000001,440,22,0.11855171,0.016166164,-0.051463716,0.036147192,-0.07077232,-0.0286867,0.0,0.0,0.0,-0.008498366,0.05272449,-0.115694776,-0.040840343,0.029019207,0.0018999123,-0.037552826,-0.06291866,-0.12613638,0.20552795,-0.11830689,0.08564924,0.0682365,-0.005211151,0.1400318,0.086835034,0.0013591694,0.1968399,-0.0068003093,-0.020872906,0.10689299,-0.010488075,-0.06953517,0.10563605,0.054813333,0.3332281,0.73268586,0.4308489,0.93828577,2.0,-1.2072238,-0.037671465,0.43458742,2.0,-1.6833189,1.1957221,1.2444214,-0.6679638,-1.4060847,0.1803185,0.7558176,-0.8956669,-1.7295916,-0.64835405,0.43338078,-0.2891675,-0.38918048,-1.4553145,2.0
2025-07-18 17:21:26.137,0.46000000000000013,460,23,0.0656051,-0.25714087,-0.09702793,-0.05021931,-0.058465436,-0.0052551366,0.0,0.0,0.0,-0.007900188,0.03135387,-0.13625285,-0.02238332,0.05914794,0.014183358,-0.07317964,-0.06707419,-0.08387631,0.15598325,-0.110563055,0.07382777,0.11983218,-0.04402154,-0.12659214,-0.030522846,0.05982538,-0.10688911,-0.063611776,0.047568053,0.075321086,-0.11217863,-0.013242803,-0.21132022,0.121207364,-0.6679638,-1.4060847,0.1803185,0.7558176,-0.8956669,-1.7295916,-0.64835405,0.43338078,-0.2891675,-0.38918048,-1.4553145,2.0,-0.14537998,0.78227496,0.4484153,-0.08502202,1.1444781,-1.985829,0.3825201,0.5398161,-0.9007768,0.34994787,-0.0069081616,2.0
2025-07-18 17:21:26.157,0.48000000000000015,480,24,-0.12367634,0.067769945,-0.009540512,0.03138293,-0.06230894,-0.049547642,0.0,0.0,0.0,-0.0069629587,0.021996086,-0.14753397,-0.025248121,0.03758184,0.042800453,-0.131398,-0.049211375,-0.030060539,0.10452499,-0.096564926,0.05567007,0.15341526,-0.022026,0.031970914,0.07064375,0.008841496,0.2353442,-0.08883081,0.12821409,0.11309184,-0.15447496,0.006784413,0.027749225,0.042905763,-0.14537998,0.78227496,0.4484153,-0.08502202,1.1444781,-1.985829,0.3825201,0.5398161,-0.9007768,0.34994787,-0.0069081616,2.0,-0.7319487,-0.80496585,0.889131,0.10256596,-2.0,-1.9668064,0.1335238,1.3792275,-2.0,0.9665715,-2.0,2.0
2025-07-18 17:21:26.177,0.5000000000000001,500,25,-0.38108224,-0.059895795,-0.08763689,-0.017274817,-0.056516778,0.012253562,0.0,0.0,0.0,-0.006354614,0.0107242195,-0.16128154,0.00913406,0.031538446,0.049655747,-0.15607122,-0.040293068,0.060910225,0.026042974,-0.057209887,-0.0061238245,0.17083596,-0.03999505,0.008169687,0.049584627,-0.06119548,-0.12903273,-0.072344676,-0.029894335,0.22468928,-0.23303282,0.071487404,-0.25004855,0.14167036,-0.7319487,-0.80496585,0.889131,0.10256596,-2.0,-1.9668064,0.1335238,1.3792275,-2.0,0.9665715,-2.0,2.0,-0.17781943,-0.12502466,0.8807888,-0.040588602,-0.93448615,-2.0,0.75515985,-0.94266444,-1.4660101,0.48538765,-0.58634746,2.0
2025-07-18 17:21:26.197,0.5200000000000001,520,26,-0.03795707,0.09380625,-0.17407991,-0.020036126,-0.0361756,0.035777755,0.0,0.0,0.0,-0.005166295,0.0004871674,-0.16094667,0.017116696,0.034531295,0.027305841,-0.1819304,-0.022033624,0.08044958,-0.0026062538,-0.042184256,-0.0431497,0.20371965,0.010180481,0.02943768,-0.040279202,0.06173585,-0.11921254,-0.08695771,0.022165934,-0.066185765,-0.05197581,-0.04080157,-0.14660679,0.091297515,-0.17781943,-0.12502466,0.8807888,-0.040588602,-0.93448615,-2.0,0.75515985,-0.94266444,-1.4660101,0.48538765,-0.58634746,2.0,-0.2614993,-0.7709764,0.17830971,-1.0846959,-1.1489803,-1.7503436,1.2503695,-0.0721273,-0.030251898,0.9184715,0.8383574,2.0
2025-07-18 17:21:26.217,0.5400000000000001,540,27,0.0074918624,0.03144882,0.11757246,0.006007062,0.020458197,-0.03359351,0.0,0.0,0.0,-0.0030366483,0.01466155,-0.16433077,0.015983898,0.0058977385,-0.027402317,-0.19716968,0.013363317,0.0745942,-0.006163832,-0.028050352,-0.038490944,0.2029563,-0.020049186,-0.1163452,-0.06552528,-0.12819918,-0.10825503,-0.054319754,0.15898173,-0.10098754,0.05729976,0.06672678,0.048116975,-0.00025916725,-0.2614993,-0.7709764,0.17830971,-1.0846959,-1.1489803,-1.7503436,1.2503695,-0.0721273,-0.030251898,0.9184715,0.8383574,2.0,-0.917172,0.8305462,0.40308192,0.4977114,-1.4201212,-0.05603864,0.6513132,0.11800644,0.06438341,-0.08774622,-0.8376266,2.0
2025-07-18 17:21:26.237,0.5600000000000002,560,28,-0.009814197,-0.04880994,-0.093285844,0.0035880902,-0.034104627,-0.007559305,0.0,0.0,0.0,-0.0038710127,0.0049719377,-0.15720443,0.021372013,0.00056808256,-0.10907413,-0.16679762,0.032628033,0.060895875,-0.011474726,-0.02821652,-0.030037258,0.22380093,-0.10104611,0.022849848,-0.03453918,0.014335336,-0.12827353,0.11054828,-0.016615499,-0.019105487,-0.008255838,-0.040024642,0.0027313468,0.10062382,-0.917172,0.8305462,0.40308192,0.4977114,-1.4201212,-0.05603864,0.6513132,0.11800644,0.06438341,-0.08774622,-0.8376266,2.0,-1.5455233,0.72458637,-0.25980845,-0.46567982,0.19004662,-0.5470087,0.34856635,-0.93813604,0.5604339,0.8099064,-0.18792419,2.0
2025-07-18 17:21:26.257,0.5800000000000002,580,29,-0.048596587,0.063501984,0.14931573,-0.08938431,-0.05922886,-0.0033315518,0.0,0.0,0.0,-0.0040979465,-0.039297204,-0.11471028,-0.0062299585,-0.01760885,-0.13648556,-0.15652058,0.034991544,0.00054329727,0.005792323,-0.012268532,-0.036265776,0.24433456,-0.039501846,0.13737078,-0.01517612,0.03151481,0.030934926,-0.04273601,0.062420078,-0.21244831,0.07161329,0.061266415,0.074517444,0.0040669255,-1.5455233,0.72458637,-0.25980845,-0.46567982,0.19004662,-0.5470087,0.34856635,-0.93813604,0.5604339,0.8099064,-0.18792419,2.0,-0.98754466,-0.18431577,-1.01203,0.43913034,-0.8941823,-0.077614956,-0.2569873,0.839884,0.44133338,-0.6512569,-0.82558703,2.0
2025-07-18 17:21:26.277,0.6000000000000002,600,30,0.1819949,0.0036353227,-0.12592472,-0.014639982,0.022637784,0.028252417,0.0,0.0,0.0,-0.004941518,-0.0552861,-0.113037094,-0.039483022,0.001342039,-0.14778702,-0.14146577,0.018757794,0.0048501785,0.025931468,-0.032277875,-0.05701217,0.25399196,-0.07826495,0.005534666,-0.14692181,-0.020760255,-0.0468722,0.05290279,0.024611108,0.013664888,0.03031929,-0.004444832,-0.06506566,0.020848107,-0.98754466,-0.18431577,-1.01203,0.43913034,-0.8941823,-0.077614956,-0.2569873,0.839884,0.44133338,-0.6512569,-0.82558703,2.0,-1.3614887,0.8298614,-0.54106873,-0.16516715,0.49592537,-0.16137189,-0.26297376,-0.9079461,2.0,0.42161596,1.7378857,2.0
2025-07-18 17:21:26.299,0.6200000000000002,620,31,0.0015463451,0.16563568,0.07885698,-0.040658057,-0.04102479,0.031835783,0.0,0.0,0.0,-0.0049051926,-0.07089661,-0.082398705,-0.04102618,-0.009890578,-0.11444213,-0.12672417,0.023126502,-0.028449604,0.06643637,-0.024751958,-0.028927272,0.26263776,-0.0025800287,0.07461061,-0.08479576,-0.014102268,0.2111688,0.03422544,-0.06778616,-0.09075486,0.1547297,0.010450186,0.18209541,0.029272916,-1.3614887,0.8298614,-0.54106873,-0.16516715,0.49592537,-0.16137189,-0.26297376,-0.9079461,2.0,0.42161596,1.7378857,2.0,-0.15719843,0.100353755,-1.2682436,0.46969205,-1.3983698,0.5582123,-0.7065705,0.1481606,1.303606,-0.6493723,0.24162163,1.3401724
2025-07-18 17:21:26.317,0.6400000000000002,640,32,0.16468042,0.16585879,-0.044253696,-0.03862218,-0.001839489,0.01803712,0.0,0.0,0.0,-0.0059714946,-0.06355605,-0.059937373,-0.07878213,0.0074681654,-0.11447964,-0.077766374,-0.016380053,-0.03484148,0.098560326,-0.031387832,6.69283e-05,0.2437989,0.0020609035,0.009326828,-0.035749614,0.08831139,-0.005548711,0.14445283,-0.05094462,-0.009304459,0.024754856,0.008159831,0.044120695,0.036898118,-0.15719843,0.100353755,-1.2682436,0.46969205,-1.3983698,0.5582123,-0.7065705,0.1481606,1.303606,-0.6493723,0.24162163,1.3401724,-0.398313,0.53301525,-0.33200452,-0.5256774,-0.11474125,0.49692705,-0.52477884,-0.69525355,2.0,-0.3203502,1.2190605,0.8085493
2025-07-18 17:21:26.337,0.6600000000000003,660,33,-0.12130268,0.03129327,0.08228131,-0.011044238,-0.05139219,-0.032098938,0.0,0.0,0.0,-0.005981811,-0.07501686,-0.0120899035,-0.08313494,-0.008912107,-0.10004563,-0.056913488,-0.020835698,-0.0518765,0.1327459,-0.04610236,0.064865135,0.22934763,0.04568539,0.16491346,-0.0084877405,-0.04951785,0.062867,0.099303834,0.0036887208,-0.11805875,0.08064322,-0.018549556,0.22303887,0.023434896,-0.398313,0.53301525,-0.33200452,-0.5256774,-0.11474125,0.49692705,-0.52477884,-0.69525355,2.0,-0.3203502,1.2190605,0.8085493,0.37280953,-1.2677857,-0.84390897,-0.029200912,-1.106852,0.76324004,-0.08185206,0.3873046,1.9179875,-0.758254,-0.6379036,0.052062325
2025-07-18 17:21:26.359,0.6800000000000003,680,34,0.11606956,-0.026103446,-0.08335788,-0.027264204,-0.04100205,-0.04862066,0.0,0.0,0.0,-0.0071715093,-0.053878993,-0.017644541,-0.08705965,-0.018319257,-0.11731589,-0.03886319,-0.019901875,-0.03952248,0.15080969,-0.04504391,0.06791005,0.19101442,0.1001083,-0.1566541,-0.022600366,-0.05003132,-0.0696819,0.012335909,0.058474388,0.025160808,0.11201293,-0.05101636,-0.09494155,-0.14264832,0.37280953,-1.2677857,-0.84390897,-0.029200912,-1.106852,0.76324004,-0.08185206,0.3873046,1.9179875,-0.758254,-0.6379036,0.052062325,0.059629794,1.2572513,-0.15198436,0.16047128,1.9628886,0.9842623,-0.25054607,-1.6607484,2.0,-0.6728177,0.7022549,-0.44663042
2025-07-18 17:21:26.377,0.7000000000000003,700,35,0.07811029,0.029754767,0.1277098,0.0062300647,0.010475988,-0.009783973,0.0,0.0,0.0,-0.007354718,-0.03538406,-0.0018164275,-0.072080456,-0.007552739,-0.11277207,-0.01178545,-0.025958067,-0.03192765,0.17109287,-0.06555245,0.0861702,0.15148948,-0.024704104,0.09565651,0.028761499,0.070401795,0.11508394,0.078259096,0.03328829,-0.026458709,0.040510207,0.008646159,0.13548502,-0.03869872,0.059629794,1.2572513,-0.15198436,0.16047128,1.9628886,0.9842623,-0.25054607,-1.6607484,2.0,-0.6728177,0.7022549,-0.44663042,1.1461314,-0.543977,-1.2209117,0.606818,0.14129744,0.14170814,-1.2673919,-1.1898919,2.0,-1.4653296,-0.8608372,-0.6619175
2025-07-18 17:21:26.402,0.7200000000000003,720,36,0.14042518,-0.14643821,0.044631403,0.023013305,0.0072735483,0.044285256,0.0,0.0,0.0,-0.008086247,0.008290777,-0.0012282366,-0.08747413,0.00056582206,-0.094970785,-0.010299286,-0.041905366,-0.0608883,0.20618981,-0.09108944,0.06632157,0.09477306,0.1347259,-0.117750436,-0.11816298,0.053019915,0.0644586,-0.032671202,-0.12245041,-0.030728327,0.035660077,-0.08533734,-0.11393707,-0.05508224,1.1461314,-0.543977,-1.2209117,0.606818,0.14129744,0.14170814,-1.2673919,-1.1898919,2.0,-1.4653296,-0.8608372,-0.6619175,0.55379015,0.28817007,0.6138122,1.2616682,1.4938428,-0.85742587,-1.1486723,-1.3978801,2.0,-1.5514786,0.41794637,-0.32394034
2025-07-18 17:21:26.418,0.7400000000000003,740,37,0.010119529,-0.0938605,0.09132872,0.039087895,0.004799722,-0.043012522,0.0,0.0,0.0,-0.009309252,0.005978144,-0.0055922773,-0.07033916,0.025886098,-0.04758222,-0.046223078,-0.05269416,-0.10939463,0.23147437,-0.118415274,0.050028577,0.06864101,0.0064748526,0.021970699,0.008264326,0.08142747,0.19378714,-0.06844378,-0.023134265,-0.029267265,0.020497994,-4.8636346e-05,0.1300562,-0.123245746,0.55379015,0.28817007,0.6138122,1.2616682,1.4938428,-0.85742587,-1.1486723,-1.3978801,2.0,-1.5514786,0.41794637,-0.32394034,0.3394093,-1.8800993,-0.079503685,1.3483555,-0.5078806,-2.0,-1.3748451,0.15959299,1.9204091,-1.3172472,-0.637745,0.9506782
2025-07-18 17:21:26.438,0.7600000000000003,760,38,0.18701734,-0.19319357,-0.05827535,-0.041181684,-0.025842657,0.013844528,0.0,0.0,0.0,-0.010874138,0.024292134,-0.04367768,-0.057102643,0.040335674,-0.030639201,-0.09208292,-0.080582604,-0.09984923,0.22400256,-0.14819561,0.017991725,0.0834024,0.06919916,-0.17866237,0.08504698,0.0908606,0.019773105,-0.11550526,-0.01363168,0.03413577,0.006850519,0.019781247,-0.08068519,0.07778497,0.3394093,-1.8800993,-0.079503685,1.3483555,-0.5078806,-2.0,-1.3748451,0.15959299,1.9204091,-1.3172472,-0.637745,0.9506782,-0.2926107,0.43614957,0.66596615,0.93600553,1.5855565,-2.0,-0.09588756,0.4687121,1.7374549,-1.3147519,0.60996723,2.0
2025-07-18 17:21:26.458,0.7800000000000004,780,39,-0.07349262,0.059716515,-0.016297443,-0.027325617,-0.024697252,0.018376624,0.0,0.0,0.0,-0.010708979,0.011236049,-0.048241638,-0.027604545,0.063713744,0.020503288,-0.12985271,-0.06509055,-0.036524132,0.23346972,-0.16418338,0.031919654,0.118122526,-0.07271596,0.04861368,0.009775261,0.10390772,0.21447486,-0.09852367,-0.011939278,0.05216977,0.053326573,-0.07420421,0.10864947,0.017458286,-0.2926107,0.43614957,0.66596615,0.93600553,1.5855565,-2.0,-0.09588756,0.4687121,1.7374549,-1.3147519,0.60996723,2.0,-0.6033399,-1.5570847,0.23184231,0.59479845,-0.9638412,-2.0,-0.5424917,1.5420386,-1.0601213,-0.013045683,-1.9416655,2.0
2025-07-18 17:21:26.484,0.8000000000000004,800,40,-0.1348728,-0.2217035,-0.011237384,-0.027287634,-0.09222054,0.02357648,0.0,0.0,0.0,-0.009740247,0.010132907,-0.06757698,-0.030777395,0.060753323,0.041587096,-0.14945577,-0.08489999,0.04502403,0.17088483,-0.1465476,0.0014123871,0.16645359,-0.09856428,-0.10827624,0.0133644305,0.021405019,-0.11721392,-0.09656432,-0.0045858184,0.27774185,-0.17952394,0.029794564,-0.17385738,0.06661863,-0.6033399,-1.5570847,0.23184231,0.59479845,-0.9638412,-2.0,-0.5424917,1.5420386,-1.0601213,-0.013045683,-1.9416655,2.0,-0.25716436,0.5269993,1.5348274,0.1834565,0.08538443,-2.0,0.44366089,-0.86570644,-1.4765822,0.40678707,-1.6735233,2.0
2025-07-18 17:21:26.498,0.8200000000000004,820,41,-0.26658908,0.04745407,-0.12849112,-0.07624699,-0.061934024,-0.04140344,0.0,0.0,0.0,-0.008920265,-0.008988146,-0.07188603,-0.0029449542,0.056933336,0.044087376,-0.19611932,-0.058464795,0.09193853,0.10604838,-0.10498663,-0.076894715,0.19022915,-0.057854004,0.02920745,0.06314331,0.035851616,0.051567927,-0.08017665,0.030110395,-0.024288569,-0.10196863,0.110610865,-0.24296215,-0.008351478,-0.25716436,0.5269993,1.5348274,0.1834565,0.08538443,-2.0,0.44366089,-0.86570644,-1.4765822,0.40678707,-1.6735233,2.0,0.2403546,-1.3406855,0.25770095,-0.7691754,-1.3880479,-2.0,0.9514327,0.47030166,-0.8203973,0.15443246,1.0421565,2.0
2025-07-18 17:21:26.518,0.8400000000000004,840,42,-0.04195292,0.15341243,-0.016588315,-0.0896521,-0.024444383,0.036697246,0.0,0.0,0.0,-0.0068472084,0.009071184,-0.08459577,0.019198267,0.044830542,0.02748557,-0.21977472,-0.017770369,0.10490023,0.06647992,-0.09025563,-0.13742328,0.2028846,-0.020550156,-0.0938283,-0.06286107,-0.115142435,-0.113828495,0.005468689,0.15045787,0.09518673,-0.14557041,0.05708443,0.037566684,0.09262119,0.2403546,-1.3406855,0.25770095,-0.7691754,-1.3880479,-2.0,0.9514327,0.47030166,-0.8203973,0.15443246,1.0421565,2.0,-0.6144333,-0.1915833,0.7727367,0.1596026,-1.535405,-1.0298225,0.9497601,-0.74028766,-0.14348535,0.5070816,-0.82767177,2.0
2025-07-18 17:21:26.538,0.8600000000000004,860,43,0.056143418,-0.0036650822,-0.009637187,-0.047106944,-0.007275942,0.01001389,0.0,0.0,0.0,-0.0051075085,0.009387778,-0.09835,0.025701696,0.036823917,-0.044205084,-0.20961732,0.010876859,0.04849646,0.03916733,-0.073852114,-0.15045857,0.21323103,0.07609592,0.049359076,0.046279345,0.052534614,-0.26348317,-0.035379294,0.018682424,-0.22834378,0.009249277,-0.00891431,-0.004435079,0.04074871,-0.6144333,-0.1915833,0.7727367,0.1596026,-1.535405,-1.0298225,0.9497601,-0.74028766,-0.14348535,0.5070816,-0.82767177,2.0,-1.2552792,0.056498714,-0.20616451,-0.6546045,0.23025016,-1.0347103,1.1554075,-0.09827596,-0.16667476,-0.04151298,-0.4375268,2.0
2025-07-18 17:21:26.558,0.8800000000000004,880,44,-0.075888634,0.033391934,0.0746846,-0.011516667,-0.0661371,-0.008961147,0.0,0.0,0.0,-0.0047166576,-0.003979961,-0.07874927,0.010144232,0.013050361,-0.092546746,-0.19801788,0.04550948,0.035944823,0.025323324,-0.08453012,-0.16622232,0.23548858,-0.0959274,-0.02338546,0.0349125,-0.069731094,0.07537075,-0.026292086,0.13612871,0.019289477,0.045848504,0.053128853,0.010074985,0.057692282,-1.2552792,0.056498714,-0.20616451,-0.6546045,0.23025016,-1.0347103,1.1554075,-0.09827596,-0.16667476,-0.04151298,-0.4375268,2.0,-0.9531821,0.259577,0.20652863,0.37494525,-0.8765906,-1.3302342,0.20150916,-0.39376193,0.54201907,0.3660483,-0.76207256,2.0
2025-07-18 17:21:26.578,0.9000000000000005,900,45,0.11438262,-0.026487332,-0.011465026,-0.023018016,-0.07589187,0.0004454218,0.0,0.0,0.0,-0.0055265063,-0.021050233,-0.05237562,-0.0055965045,0.02482885,-0.12197824,-0.20265117,0.051819276,-0.0081298845,0.04203692,-0.07668051,-0.17524749,0.24288206,0.033356782,0.038092833,-0.0775434,0.004656669,-0.06806498,0.05395425,-0.045025762,-0.050940234,0.070350125,0.009282877,0.02803342,0.04100247,-0.9531821,0.259577,0.20652863,0.37494525,-0.8765906,-1.3302342,0.20150916,-0.39376193,0.54201907,0.3660483,-0.76207256,2.0,-1.3924581,0.3632196,-0.6186759,-0.10191129,-0.23615228,-0.9527965,0.39179263,-0.3393112,0.30490157,0.012735994,-0.2139046,2.0
2025-07-18 17:21:26.598,0.9200000000000005,920,46,-0.021796457,0.0020892888,0.163622,-0.022798615,-0.029133657,0.0156108225,0.0,0.0,0.0,-0.005758508,-0.037120946,-0.028422559,-0.020849528,0.008748763,-0.116225965,-0.19649142,0.039983258,-0.026921842,0.044693492,-0.06867274,-0.17228027,0.25368994,0.01816085,0.14980543,0.018497646,-0.061195273,0.062211215,0.059692234,0.08024678,-0.018980183,-0.0014397053,0.06575192,-0.0040527955,0.068903185,-1.3924581,0.3632196,-0.6186759,-0.10191129,-0.23615228,-0.9527965,0.39179263,-0.3393112,0.30490157,0.012735994,-0.2139046,2.0,-1.1692241,-0.6217541,0.09530833,0.5600681,-1.2090397,-1.5036868,-0.2634597,-0.017311033,-0.4882712,-0.41131797,-0.7252159,2.0
2025-07-18 17:21:26.618,0.9400000000000005,940,47,-0.013117594,-0.23375633,0.023523228,-0.094490685,-0.02768078,-0.014202561,0.0,0.0,0.0,-0.007608509,-0.05734199,-0.021609284,-0.020298567,0.030790022,-0.17524202,-0.19124614,0.033725027,-0.027667807,0.028750252,-0.07754303,-0.18188936,0.25863865,0.014372535,-0.08097117,0.039095487,0.067375004,-0.13728428,-0.016374648,0.012846605,-0.012150517,-0.022353409,-0.08065132,-0.06846265,0.012019816,-1.1692241,-0.6217541,0.09530833,0.5600681,-1.2090397,-1.5036868,-0.2634597,-0.017311033,-0.4882712,-0.41131797,-0.7252159,2.0,-0.34384298,1.1456828,-0.14435455,-0.24169907,1.170589,-1.4441409,0.25402233,-0.5145902,0.109254114,0.07127166,-0.12359691,2.0
2025-07-18 17:21:26.638,0.9600000000000005,960,48,0.061482765,-0.020094354,0.1520309,-0.05758457,-0.08285471,-0.031500746,0.0,0.0,0.0,-0.008726712,-0.050560143,-0.0135274185,-0.023612233,0.027150985,-0.16171238,-0.20966692,0.0416323,-0.06279811,0.021051954,-0.06622515,-0.15692414,0.26859677,0.009105204,0.1516255,-0.08189341,0.03276861,0.19922264,0.051586762,0.066956244,-0.0074591073,-0.027030678,-0.017817987,0.07395835,0.036525894,-0.34384298,1.1456828,-0.14435455,-0.24169907,1.170589,-1.4441409,0.25402233,-0.5145902,0.109254114,0.07127166,-0.12359691,2.0,-0.7647557,-1.2363188,-0.5185588,0.4890875,-2.0,-1.3048674,-0.3118396,0.67282766,-0.69328487,-0.3901981,-1.2745866,2.0
2025-07-18 17:21:26.658,0.9800000000000005,980,49,0.14363725,-0.22419746,-0.011882708,-0.10879968,-0.03727724,0.026084183,0.0,0.0,0.0,-0.010992566,-0.05763166,0.0021569638,-0.04660577,0.027960733,-0.14910619,-0.19562188,0.011872783,-0.035384454,0.004588986,-0.07890258,-0.17233086,0.28191498,0.009423639,-0.062296875,0.017427135,0.00083047367,0.007974374,-0.00015034879,-0.093317844,0.07598717,-0.09570483,-0.013695959,-0.058744498,0.012109693,-0.7647557,-1.2363188,-0.5185588,0.4890875,-2.0,-1.3048674,-0.3118396,0.67282766,-0.69328487,-0.3901981,-1.2745866,2.0,-0.12315154,0.50493217,-0.17782962,-0.15782322,-0.14614373,-1.5684922,-0.19624503,-0.7092755,0.09885203,0.18936601,0.38178113,2.0
2025-07-18 17:21:26.678,1.0000000000000004,1000,50,0.09801678,0.011030135,0.123603046,-0.057525236,-0.055092685,0.035169393,0.0,0.0,0.0,-0.011315203,-0.06431976,0.028096708,-0.043627147,0.029413223,-0.15118162,-0.20594537,0.012986931,-0.029260978,0.007617073,-0.062929824,-0.1630969,0.28019285,0.08008973,0.113821566,0.027683774,-0.03196954,0.112128586,-0.06031097,0.047637686,-0.07604828,0.00577755,0.09660667,0.14800262,-0.068404704,-0.12315154,0.50493217,-0.17782962,-0.15782322,-0.14614373,-1.5684922,-0.19624503,-0.7092755,0.09885203,0.18936601,0.38178113,2.0,-1.0388002,-0.86461323,-0.58125675,0.31255284,-1.8341092,-0.81402355,-0.13554706,0.3658085,-0.9423353,-0.58725524,-1.4641628,2.0
2025-07-18 17:21:26.699,1.0200000000000005,1020,51,0.060169257,-0.1536351,-0.06772945,-0.07518043,-0.087557085,0.04323405,0.0,0.0,0.0,-0.012059461,-0.0716705,0.034434788,-0.053905636,0.010681125,-0.17586517,-0.1979035,-0.002796978,-0.028413909,-0.019838871,-0.056140855,-0.15959579,0.29048514,-0.07303617,0.05068563,0.019322598,-0.07169781,-0.12031325,-0.012992881,0.026740015,0.050675966,-0.080256306,0.0106641445,-0.054823752,0.07305506,-1.0388002,-0.86461323,-0.58125675,0.31255284,-1.8341092,-0.81402355,-0.13554706,0.3658085,-0.9423353,-0.58725524,-1.4641628,2.0,-0.5513561,-0.68612576,-0.58442515,-0.48167023,0.4960208,-1.101615,0.0368856,-0.75261295,0.64305615,0.2581237,0.45889267,2.0
2025-07-18 17:21:26.721,1.0400000000000005,1040,52,-0.004002037,-0.013136392,0.2202704,-0.085618496,-0.11333714,-0.0130383065,0.0,0.0,0.0,-0.012178525,-0.07073195,0.0039892485,-0.059726365,0.010536509,-0.17173105,-0.20158125,0.001160898,-0.06293765,0.0033404015,-0.050991043,-0.13563608,0.28840917,0.03198393,-0.10717878,0.016049262,-0.107393324,0.12044214,0.06414851,0.0028527586,-0.15775771,0.008317078,0.05322397,0.13114381,0.05788458,-0.5513561,-0.68612576,-0.58442515,-0.48167023,0.4960208,-1.101615,0.0368856,-0.75261295,0.64305615,0.2581237,0.45889267,2.0,-0.41268378,0.5825697,-0.15150523,1.122714,-0.6234511,0.025781848,-0.3386262,0.8708084,0.7281926,-1.1251409,-0.35102478,2.0
2025-07-18 17:21:26.739,1.0600000000000005,1060,53,0.19460164,0.31649384,-0.13466194,-0.058577076,-0.035628952,-0.032013778,0.0,0.0,0.0,-0.014449383,-0.059642058,0.013366658,-0.07000044,0.029182117,-0.17416744,-0.16718814,-0.00027428218,-0.045403633,0.01670562,-0.06840519,-0.11495202,0.28760397,0.020531496,0.048030768,0.015539589,0.054169353,0.046504367,0.023883525,-0.08593661,0.12603332,0.10633644,-0.031176826,0.036947533,0.020359043,-0.41268378,0.5825697,-0.15150523,1.122714,-0.6234511,0.025781848,-0.3386262,0.8708084,0.7281926,-1.1251409,-0.35102478,2.0,-1.0243782,-0.6961859,-0.035735045,-0.003939747,-1.1343353,-0.4347786,-0.633737,-1.4331104,0.5851782,0.029402658,1.2300867,2.0
2025-07-18 17:21:26.759,1.0800000000000005,1080,54,-0.23392327,0.028665861,0.08077979,-0.06636086,-0.07611161,-0.034589224,0.0,0.0,0.0,-0.014541911,-0.0719496,0.02021709,-0.053801823,0.007941938,-0.21731812,-0.16303907,-0.03247389,-0.04644544,0.03516313,-0.05932365,-0.08010482,0.28478435,-0.106517196,0.012498848,-0.005441918,0.018256823,-0.16880366,0.030464612,-0.10452977,-0.08677207,0.028700335,-0.03639348,0.17483939,-0.023021774,-1.0243782,-0.6961859,-0.035735045,-0.003939747,-1.1343353,-0.4347786,-0.633737,-1.4331104,0.5851782,0.029402658,1.2300867,2.0,-0.42621398,0.20581976,-0.5455506,-0.6007502,0.49707836,0.7739778,0.1271534,1.0370055,0.12434032,-0.43570277,-1.2684003,2.0
2025-07-18 17:21:26.779,1.1000000000000005,1100,55,-0.08221552,0.32402417,0.03491648,-0.005967655,-0.083875485,0.005834846,0.0,0.0,0.0,-0.014840624,-0.076996095,0.03500254,-0.060083985,0.008038796,-0.22334719,-0.120488204,-0.023758361,-0.031714495,0.029369507,-0.0637338,-0.062530145,0.29827112,-0.057907008,0.014408714,0.05103581,-0.04442115,0.09738963,0.15721728,0.08789169,0.15527816,-0.051546156,0.029690681,0.019256009,0.08088689,-0.42621398,0.20581976,-0.5455506,-0.6007502,0.49707836,0.7739778,0.1271534,1.0370055,0.12434032,-0.43570277,-1.2684003,2.0,-0.75153863,-0.55227053,0.014392633,0.33658704,-0.34956178,-0.046898402,-0.8932698,-0.7421432,0.4262074,-0.29654184,-0.38830975,1.6501633
2025-07-18 17:21:26.799,1.1200000000000006,1120,56,0.04115332,0.123298585,0.013871226,-0.033713993,-0.036708932,0.02303657,0.0,0.0,0.0,-0.016078765,-0.07081066,0.033954322,-0.053442486,0.005394752,-0.2208773,-0.10962848,-0.03155558,-0.038814176,0.02992359,-0.062780745,-0.0657511,0.30283287,-0.03289855,-0.07726084,0.07144291,0.024995333,0.0010464942,-0.011071156,-0.038918756,-0.08525322,0.02597259,-0.047057617,-0.05622897,-0.03732198,-0.75153863,-0.55227053,0.014392633,0.33658704,-0.34956178,-0.046898402,-0.8932698,-0.7421432,0.4262074,-0.29654184,-0.38830975,1.6501633,0.14548698,0.78406215,-0.06175686,-0.24058111,0.8584292,-0.16625455,-0.48638552,0.6381605,1.0981029,-0.41544327,0.947282,1.9353646
2025-07-18 17:21:26.819,1.1400000000000006,1140,57,0.02137123,0.48074856,0.05706094,-0.06512013,-0.031245908,-0.02182301,0.0,0.0,0.0,-0.016540831,-0.073091045,0.044068575,-0.058136124,-0.009559487,-0.17221756,-0.0845549,-0.05102011,-0.026034856,0.044385467,-0.059450828,-0.018953156,0.2841077,-0.018062916,0.14358816,-0.022794658,-0.0137244575,0.12685165,-0.025559224,0.0045140465,0.14847872,0.029664071,0.000512763,0.14970231,0.0014139406,0.14548698,0.78406215,-0.06175686,-0.24058111,0.8584292,-0.16625455,-0.48638552,0.6381605,1.0981029,-0.41544327,0.947282,1.9353646,-0.13886924,-1.707641,-0.043894287,0.58914536,-1.5119737,0.3936463,-0.9902425,-0.4321571,-0.31081548,-0.21239091,-1.8871213,1.3780086
2025-07-18 17:21:26.839,1.1600000000000006,1160,58,0.16477033,-0.12024179,-0.028216401,-0.027404385,-0.010987805,-0.026007783,0.0,0.0,0.0,-0.017654708,-0.049071655,0.066779226,-0.036163393,0.0120561225,-0.17890556,-0.069933176,-0.05069363,-0.016899738,0.04470099,-0.06024664,0.003578036,0.2787639,0.07535379,0.0056059635,0.00840369,0.08309385,-0.11814082,0.0047324877,0.0035885896,-0.047775175,-0.010100893,-0.015934903,-0.036211427,-0.019153574,-0.13886924,-1.707641,-0.043894287,0.58914536,-1.5119737,0.3936463,-0.9902425,-0.4321571,-0.31081548,-0.21239091,-1.8871213,1.3780086,0.37888837,-0.23942116,0.13732159,-0.6191271,0.99423414,0.061865248,-0.39107886,0.07821831,0.44321942,-0.11518034,0.9147056,1.6237234
2025-07-18 17:21:26.859,1.1800000000000006,1180,59,0.08725836,0.09289165,0.031207563,0.039933905,-0.0062441872,0.0459492,0.0,0.0,0.0,-0.01787111,-0.04180277,0.04272571,-0.026225671,-0.0073964805,-0.16420521,-0.06806066,-0.05129711,-0.0051050503,0.03773182,-0.06713729,0.021403937,0.2698199,0.080261365,-0.043680508,0.09848843,-0.0018872876,0.037821952,0.0962553,0.07542279,-0.0066060196,0.03277275,0.010195978,0.15426683,-0.012614285,0.37888837,-0.23942116,0.13732159,-0.6191271,0.99423414,0.061865248,-0.39107886,0.07821831,0.44321942,-0.11518034,0.9147056,1.6237234,0.023681488,0.030729152,0.15829563,0.39583054,0.16872801,0.969281,-0.5324225,-0.0064165257,0.34297106,-0.13390349,-1.5426301,0.7717574
2025-07-18 17:21:26.882,1.2000000000000006,1200,60,0.0073651774,0.19025311,-0.0524004,0.038072966,-0.025545176,0.041616704,0.0,0.0,0.0,-0.0185154,-0.037156094,0.031012433,-0.02152637,-0.010702054,-0.12612565,-0.037740428,-0.059978515,-0.012071128,0.028428165,-0.04660102,0.046936102,0.2409624,-0.0466799,-0.017839726,-0.035388775,0.036356263,0.055423696,0.04676744,0.011718758,0.08394389,0.059479527,-0.0006059629,-0.12645654,-0.09017494,0.023681488,0.030729152,0.15829563,0.39583054,0.16872801,0.969281,-0.5324225,-0.0064165257,0.34297106,-0.13390349,-1.5426301,0.7717574,0.4002611,-0.691545,-0.28721374,0.044045523,-0.47662058,0.17856336,-1.1140292,-0.7401772,0.7952001,-0.55317324,0.65305835,0.331868
2025-07-18 17:21:26.899,1.2200000000000006,1220,61,-0.16163643,-0.18367705,0.0022126613,-0.013404101,-0.049670715,0.024879793,0.0,0.0,0.0,-0.01869559,-0.020748967,-0.00909864,-0.028391171,0.000137524,-0.13007194,-0.017723156,-0.074920386,-0.023615235,0.044457193,-0.05686909,0.056901556,0.21286348,0.10904689,-0.08099424,0.049655743,-0.07038935,-0.022302955,0.014573779,-0.09828592,-0.08099047,-0.015217622,0.03354606,0.08699111,-0.06478288,0.4002611,-0.691545,-0.28721374,0.044045523,-0.47662058,0.17856336,-1.1140292,-0.7401772,0.7952001,-0.55317324,0.65305835,0.331868,0.30925125,0.86345065,-0.06649242,0.3552593,0.7331776,0.58632755,-0.2732837,0.21939611,1.7974519,-0.60681593,0.3387444,-0.07286943
2025-07-18 17:21:26.922,1.2400000000000007,1240,62,-0.035241242,0.2070467,-0.05994113,0.02555547,-0.0036955716,0.038901214,0.0,0.0,0.0,-0.018162176,-0.00374207,0.0031791108,-0.03646397,-0.00080379756,-0.13238323,-0.006998101,-0.061118517,-0.017519673,0.089224435,-0.06733759,0.08271942,0.18254365,0.093855165,0.041920774,0.0039701005,-0.0328711,0.012620199,0.03595724,-0.004863029,0.00589625,0.076659754,0.03986366,0.0053318758,-0.014443316,0.30925125,0.86345065,-0.06649242,0.3552593,0.7331776,0.58632755,-0.2732837,0.21939611,1.7974519,-0.60681593,0.3387444,-0.07286943,0.4720409,0.2071068,-0.6936708,0.2704902,1.3062656,0.6048375,-0.8129473,-1.5045118,2.0,-0.3585917,0.20029055,-0.5987717
2025-07-18 17:21:26.939,1.2600000000000007,1260,63,-0.17419681,0.013279653,0.03571031,0.017093387,0.033577427,0.01204481,0.0,0.0,0.0,-0.016933471,0.0012204982,0.028171137,-0.04328184,-0.00010087692,-0.10034893,0.0037093218,-0.061956935,-0.032026,0.12868136,-0.07333304,0.075366504,0.12764531,0.010895331,-0.03377179,-0.07866539,0.07187228,0.07106923,0.09775424,0.019723285,-0.048024002,0.13582392,0.06658017,0.053193152,-0.11826434,0.4720409,0.2071068,-0.6936708,0.2704902,1.3062656,0.6048375,-0.8129473,-1.5045118,2.0,-0.3585917,0.20029055,-0.5987717,1.1852783,-0.516977,-0.9976484,0.7203609,0.80056125,0.5987727,-1.4766567,-1.5310541,2.0,-1.2592107,-0.2426231,-1.0564886
2025-07-18 17:21:26.959,1.2800000000000007,1280,64,-0.12767628,0.03647346,0.021660285,0.009690593,0.05895291,-0.028209189,0.0,0.0,0.0,-0.017171007,0.042985335,-0.016988792,-0.056563243,0.0019362099,-0.05150837,-0.006201621,-0.087941475,-0.05361065,0.15769796,-0.07891288,0.05659152,0.07673642,0.060003024,-0.13269587,-0.11298572,0.06928659,0.14958718,-0.03173272,0.014016194,0.018857213,0.12956855,-0.0521621,-0.08303998,-0.072786145,1.1852783,-0.516977,-0.9976484,0.7203609,0.80056125,0.5987727,-1.4766567,-1.5310541,2.0,-1.2592107,-0.2426231,-1.0564886,0.76255554,-0.82795054,0.3772501,1.16272,0.7551188,-0.5146134,-1.4338846,-1.7521602,2.0,-1.6314422,-0.036076173,-0.76385295
2025-07-18 17:21:26.980,1.3000000000000007,1300,65,-0.20243374,-0.16065869,0.044734318,0.0060864384,-0.0038835823,0.0010622989,0.0,0.0,0.0,-0.01808399,0.05691704,-0.06732416,-0.038411487,0.013855998,0.0028665627,-0.01632345,-0.10241657,-0.086660415,0.18668893,-0.12395764,0.03146026,0.049678892,0.106572784,-0.08766954,0.08446292,0.009128901,0.15336166,-0.10211729,-0.10172149,-0.06456617,0.13246787,-0.05746737,-0.07807092,-0.008813873,0.76255554,-0.82795054,0.3772501,1.16272,0.7551188,-0.5146134,-1.4338846,-1.7521602,2.0,-1.6314422,-0.036076173,-0.76385295,-0.066239834,-1.225234,0.5789909,1.3809648,-0.031376015,-1.7634926,-1.2167615,0.39648414,2.0,-1.5223923,0.46694395,0.791953
2025-07-18 17:21:26.999,1.3200000000000007,1320,66,-0.35246387,-0.116217524,0.057729326,-0.052646443,-0.010107288,-0.018716026,0.0,0.0,0.0,-0.019400964,0.04809866,-0.14935972,-0.011634723,0.04990314,0.0057434887,-0.061081316,-0.120945774,-0.07783872,0.20417638,-0.15017967,0.049085584,0.05867757,0.007719195,-0.23565973,0.09123404,0.1257249,-0.028800663,-0.072703525,-0.00069691765,0.11321639,-0.034732744,-0.045242745,0.049186654,0.040222596,-0.066239834,-1.225234,0.5789909,1.3809648,-0.031376015,-1.7634926,-1.2167615,0.39648414,2.0,-1.5223923,0.46694395,0.791953,-0.9137189,0.756955,1.3272935,1.372819,1.2255647,-2.0,-0.7590407,0.8626067,0.57755345,-0.41818693,-0.3816888,2.0
2025-07-18 17:21:27.020,1.3400000000000007,1340,67,-0.30431744,-0.059897993,-0.0065929466,-0.030602578,0.015012668,-0.045292713,0.0,0.0,0.0,-0.02038298,0.013013469,-0.14890455,0.011699613,0.09369047,0.05620753,-0.11634104,-0.1277358,-0.0056689675,0.17743553,-0.13862866,0.03824551,0.10087183,-0.043975484,0.118839025,0.07290038,0.024054086,0.1813419,-0.08851362,-0.04499175,0.14442869,-0.0571198,-0.0158741,-0.16487192,0.12619475,-0.9137189,0.756955,1.3272935,1.372819,1.2255647,-2.0,-0.7590407,0.8626067,0.57755345,-0.41818693,-0.3816888,2.0,-0.11352736,-1.8699241,0.40635675,0.19717453,-0.8467143,-2.0,-0.6814226,1.550795,-2.0,0.49151462,-1.5719076,2.0
2025-07-18 17:21:27.043,1.3600000000000008,1360,68,0.14594014,-0.25605664,-0.01581643,-0.05104018,0.05234052,0.032018077,0.0,0.0,0.0,-0.020471329,0.0138544375,-0.15672657,0.033228084,0.09042857,0.10051243,-0.13830023,-0.11953537,0.09204945,0.09275517,-0.11115336,-0.042532634,0.13906479,-0.064146206,-0.21632655,0.07189663,0.034396768,-0.029803107,-0.027297104,-0.056566153,0.30655497,-0.12562034,0.09282075,-0.2791445,0.04657307,-0.11352736,-1.8699241,0.40635675,0.19717453,-0.8467143,-2.0,-0.6814226,1.550795,-2.0,0.49151462,-1.5719076,2.0,0.42204922,1.4761021,1.9631709,-0.06412789,-0.640896,-2.0,0.6347781,-1.523737,-0.99102825,0.054046348,-0.6451459,2.0
2025-07-18 17:21:27.060,1.3800000000000008,1380,69,0.20537394,-0.19519523,0.050647046,-0.045329433,0.013235289,0.035359573,0.0,0.0,0.0,-0.019951342,0.020992478,-0.17926577,0.07813645,0.07012978,0.08792716,-0.16941854,-0.08726662,0.1215539,0.05822706,-0.08523016,-0.08623555,0.15990405,0.08321461,0.028143378,0.05235826,-0.016719436,-0.03998908,-0.045916226,0.13592432,-0.120121546,-0.072931975,0.04739514,-0.09105864,0.07591932,0.42204922,1.4761021,1.9631709,-0.06412789,-0.640896,-2.0,0.6347781,-1.523737,-0.99102825,0.054046348,-0.6451459,2.0,-0.56002873,0.41976961,0.9234016,-0.6416403,-0.689322,-2.0,1.1338357,0.5110897,-1.5070639,-0.45785868,-0.4965807,2.0
2025-07-18 17:21:27.080,1.4000000000000008,1400,70,0.03714694,-0.06738873,-0.08625643,-0.123859555,0.030226963,0.04019987,0.0,0.0,0.0,-0.020077266,0.012486985,-0.14447199,0.06612587,0.047590993,0.06661457,-0.20670108,-0.050956108,0.13236368,0.0078005623,-0.08396259,-0.10735496,0.19236787,0.01735224,0.06688394,-0.05399763,-0.019685036,-0.11967086,-0.008256234,0.05546411,0.07359352,-0.15429376,-0.04463388,0.02277076,0.098480165,-0.56002873,0.41976961,0.9234016,-0.6416403,-0.689322,-2.0,1.1338357,0.5110897,-1.5070639,-0.45785868,-0.4965807,2.0,-0.6109915,-0.7462569,0.5969499,-0.6613728,-1.2484452,-1.9847467,1.342746,-0.7219965,-0.15817812,1.0041752,-1.2158058,2.0
2025-07-18 17:21:27.100,1.4200000000000008,1420,71,0.23634501,-0.2775415,0.15102759,-0.084615625,-0.04770882,-0.034759816,0.0,0.0,0.0,-0.019880436,-0.0044395314,-0.14142248,0.07644251,0.023304611,0.0063505494,-0.22496518,0.0065636286,0.08226032,0.0054384107,-0.09107373,-0.14186278,0.19940136,-0.010254539,-0.003034158,0.004743382,-0.028021753,-0.24046491,-0.052488048,0.08249898,-0.21799186,-0.03712542,0.1024102,-0.10987417,0.032473445,-0.6109915,-0.7462569,0.5969499,-0.6613728,-1.2484452,-1.9847467,1.342746,-0.7219965,-0.15817812,1.0041752,-1.2158058,2.0,-0.796849,0.53399694,0.5805962,0.08175512,-0.47185263,-1.4139767,1.16405,-0.72852796,-0.5462591,-0.90211725,-0.3851872,2.0
2025-07-18 17:21:27.120,1.4400000000000008,1440,72,-0.118691094,-0.06343473,0.053832393,-0.079484485,-0.040708773,0.03415111,0.0,0.0,0.0,-0.020212779,-0.012588199,-0.14593028,0.06252209,0.034102082,-0.028233228,-0.21687247,0.038824074,0.024794996,-0.012443721,-0.09236798,-0.15681696,0.22764279,-0.062794544,0.03567443,0.036399588,0.060969055,-0.049598273,-0.06455985,0.12779099,-0.15507068,-0.036616225,0.003749952,0.011091348,-0.025058612,-0.796849,0.53399694,0.5805962,0.08175512,-0.47185263,-1.4139767,1.16405,-0.72852796,-0.5462591,-0.90211725,-0.3851872,2.0,-0.77654314,0.42555213,0.22838792,-0.471754,-0.24095814,-1.731873,0.8691668,-0.020539638,0.05113133,0.3343743,-1.0869806,2.0
2025-07-18 17:21:27.140,1.4600000000000009,1460,73,0.20253251,-0.031900655,-0.012182258,-0.04511958,-0.027390359,0.018010002,0.0,0.0,0.0,-0.021394642,-0.02086352,-0.11330747,0.047239307,0.004394063,-0.034075823,-0.22333778,0.058692534,0.0038009821,-0.021124903,-0.10171268,-0.17740618,0.2292401,0.015642691,0.08888725,-0.0994116,-0.054225292,-0.08308553,-0.06353811,-0.031586345,0.060756687,-0.06329983,0.002691375,-0.04618608,0.01240519,-0.77654314,0.42555213,0.22838792,-0.471754,-0.24095814,-1.731873,0.8691668,-0.020539638,0.05113133,0.3343743,-1.0869806,2.0,-1.2532792,-0.36759087,-0.06486121,-0.09248386,-0.75138533,-1.6404654,0.52740777,-0.5841715,0.39474687,0.33404312,-0.79716825,2.0
2025-07-18 17:21:27.160,1.4800000000000009,1480,74,-0.028603062,-0.1834536,0.100332335,-0.06768708,-0.07781337,0.03585035,0.0,0.0,0.0,-0.020793207,-0.04021063,-0.0879872,0.035154637,0.0011329422,-0.07676009,-0.23470178,0.06468384,-0.038903244,0.007657471,-0.07983052,-0.19517702,0.25798112,-0.049260538,-0.051298216,-0.0855734,0.017508179,-0.12698819,0.056696594,0.01990863,-0.12492228,-0.0048205685,-0.014564373,-0.009188704,0.013221183,-1.2532792,-0.36759087,-0.06486121,-0.09248386,-0.75138533,-1.6404654,0.52740777,-0.5841715,0.39474687,0.33404312,-0.79716825,2.0,-0.90910536,1.0784426,-0.14972833,0.35974002,0.049968887,-0.87669414,0.51492685,-0.21854728,0.28773382,-0.5752767,-0.122174785,2.0
2025-07-18 17:21:27.180,1.5000000000000009,1500,75,-0.049912877,0.12383905,0.11281756,-0.09226481,-0.020472117,0.009621685,0.0,0.0,0.0,-0.021460133,-0.043210223,-0.06673691,0.014188965,0.011199741,-0.07935678,-0.22745422,0.06622332,-0.043905832,0.0025409888,-0.09017302,-0.17751387,0.25294268,-0.079397745,0.11542623,-0.02983682,-0.025811046,-0.016590986,0.031210095,0.062441237,-0.07691093,0.0206233,0.050853785,0.027405648,0.039980955,-0.90910536,1.0784426,-0.14972833,0.35974002,0.049968887,-0.87669414,0.51492685,-0.21854728,0.28773382,-0.5752767,-0.122174785,2.0,-1.1445769,-0.42881367,-0.3395519,0.04302092,-0.6449528,-1.2432872,-0.21314688,0.55637336,-0.08859018,-0.18778236,-1.1187078,2.0
2025-07-18 17:21:27.200,1.520000000000001,1520,76,0.04604966,-0.20124109,0.054939386,-0.07270706,-0.067438945,-0.020840922,0.0,0.0,0.0,-0.023606157,-0.06991532,-0.056640204,0.00096996705,0.014998641,-0.09125812,-0.21147002,0.05409782,-0.020561257,-0.001408385,-0.09153534,-0.18772623,0.27369902,0.015706277,-0.002492041,-0.05469573,-0.063583925,-0.07641383,0.018220464,-0.029582594,0.16459604,-0.07972903,0.040396396,-0.036658894,0.06804466,-1.1445769,-0.42881367,-0.3395519,0.04302092,-0.6449528,-1.2432872,-0.21314688,0.55637336,-0.08859018,-0.18778236,-1.1187078,2.0,-0.94966316,0.8239938,0.13165519,0.049691305,0.31697387,-1.6801466,0.026870292,-1.2979339,0.08095207,0.021853477,-1.1574922,2.0
2025-07-18 17:21:27.221,1.540000000000001,1540,77,0.08841775,-0.08530819,0.055869922,-0.12381306,-0.08405493,-0.014833606,0.0,0.0,0.0,-0.024545573,-0.078987755,-0.049057618,0.0008847762,0.00476231,-0.08015587,-0.2379994,0.03525267,-0.019043773,0.01606606,-0.0838118,-0.24390464,0.26933527,0.030079601,0.08770731,-0.021439062,-0.017242199,0.15683538,-0.05899395,-0.030595053,-0.16047539,-0.047761567,0.0051605864,-0.0687259,0.047265302,-0.94966316,0.8239938,0.13165519,0.049691305,0.31697387,-1.6801466,0.026870292,-1.2979339,0.08095207,0.021853477,-1.1574922,2.0,-0.350957,-0.24364522,-0.44506055,0.21489544,-1.3591036,-2.0,0.24491136,0.024854187,-0.06458909,-0.84097993,0.51490974,2.0
2025-07-18 17:21:27.244,1.560000000000001,1560,78,0.06333164,-0.008967652,0.048713434,-0.055800796,-0.038758505,0.024126995,0.0,0.0,0.0,-0.02529497,-0.07963305,-0.038414057,-0.023459824,0.0086474,-0.103999406,-0.24542542,0.039613064,-0.032029912,0.0125321895,-0.10015144,-0.23264797,0.28492108,-0.052954786,0.05681319,-0.04306321,-0.057007026,-0.14355482,-0.06500528,-0.06301348,0.074334264,-0.062209338,0.019408291,0.12013168,-0.049353667,-0.350957,-0.24364522,-0.44506055,0.21489544,-1.3591036,-2.0,0.24491136,0.024854187,-0.06458909,-0.84097993,0.51490974,2.0,-1.1737213,0.292204,-0.11268219,-0.15157767,-0.27373272,-1.1946483,0.5292401,-0.56365,-0.5769942,0.42887533,-1.7682898,2.0
2025-07-18 17:21:27.261,1.580000000000001,1580,79,0.14990279,-0.06024535,0.08686488,-0.10842287,-0.12253908,-0.04875286,0.0,0.0,0.0,-0.02534682,-0.09062288,-0.03218076,-0.026050797,0.0110941585,-0.1233323,-0.23877633,0.049611248,-0.05845176,-0.004713177,-0.08231729,-0.21748352,0.29425147,0.050888117,0.11245047,-0.08122706,-0.06204627,-0.026601842,0.0077771517,-0.0066688936,-0.09775667,-0.08511176,0.056524348,-0.030579975,0.0630642,-1.1737213,0.292204,-0.11268219,-0.15157767,-0.27373272,-1.1946483,0.5292401,-0.56365,-0.5769942,0.42887533,-1.7682898,2.0,-0.8947848,-0.48850858,-0.73821235,-0.14143668,-0.5977822,-1.5727668,0.30017552,0.15830973,0.5530373,-0.48872268,-0.50117636,2.0
2025-07-18 17:21:27.281,1.600000000000001,1600,80,-0.113869585,-0.06745778,0.14300875,-0.11609861,-0.12245538,0.04426059,0.0,0.0,0.0,-0.026721537,-0.0871203,-0.031574804,-0.042689353,0.004094395,-0.13783714,-0.23362227,0.046079352,-0.0627217,0.011784482,-0.09207748,-0.22646141,0.29025003,-0.028728925,-0.037982255,0.017556943,-0.02439438,-0.068961345,0.0523162,0.069025815,0.045133952,0.03808199,-0.05307931,0.023977883,0.072046205,-0.8947848,-0.48850858,-0.73821235,-0.14143668,-0.5977822,-1.5727668,0.30017552,0.15830973,0.5530373,-0.48872268,-0.50117636,2.0,-1.0429283,0.96718407,0.14214718,0.52474713,0.60780853,-1.1074826,0.045893293,-0.42366558,0.5626408,-0.4133498,-0.9690487,2.0
2025-07-18 17:21:27.301,1.620000000000001,1620,81,0.01861252,0.0767788,-0.07399116,-0.04905959,-0.113668844,0.034916658,0.0,0.0,0.0,-0.028253399,-0.091843106,-0.018303715,-0.03945233,0.016046878,-0.09791867,-0.22517997,0.039422575,-0.06668669,0.012175405,-0.084623456,-0.2481694,0.29139867,-0.09418178,0.065359436,0.06909607,0.031886917,0.20308368,-0.07653667,0.033111926,-0.073703125,0.043894965,0.024298225,-0.10211384,0.06491802,-1.0429283,0.96718407,0.14214718,0.52474713,0.60780853,-1.1074826,0.045893293,-0.42366558,0.5626408,-0.4133498,-0.9690487,2.0,-0.43772244,-0.81490916,-0.515922,0.018679716,-0.9831324,-1.9784839,-0.24944438,0.2607095,0.7364383,-0.5387972,1.9410294,2.0
2025-07-18 17:21:27.321,1.640000000000001,1640,82,0.0060660457,0.03879703,-0.0073070102,-0.059755303,-0.033102654,-0.031511657,0.0,0.0,0.0,-0.02879123,-0.10265438,-0.013566819,-0.060464274,0.013661226,-0.08774373,-0.24661484,0.022422673,-0.051550876,0.029740138,-0.09612534,-0.2186504,0.29007602,0.03735933,-0.08657454,-0.033103574,0.009364731,-0.0980487,-7.732921e-06,-0.025041342,0.024985405,0.046489753,0.058042552,0.07786853,0.06308636,-0.43772244,-0.81490916,-0.515922,0.018679716,-0.9831324,-1.9784839,-0.24944438,0.2607095,0.7364383,-0.5387972,1.9410294,2.0,-0.645192,0.49668428,-0.36167708,-0.09670138,0.0008796938,-0.4996071,0.1922159,0.1698334,0.5723003,0.040725604,0.005470263,2.0
2025-07-18 17:21:27.346,1.660000000000001,1660,83,0.050740916,0.25025973,0.06318992,-0.07721318,-0.09387201,-0.016293235,0.0,0.0,0.0,-0.028366804,-0.093691915,-0.0063139596,-0.066358864,0.022160787,-0.080911875,-0.20911705,0.02703487,-0.020286102,0.053464055,-0.087467015,-0.18886754,0.29177797,0.06445012,0.13977666,-0.03966092,-0.0030983165,-0.030763239,0.008923686,0.062146727,0.07109101,0.061494235,-0.048252705,0.095077485,0.051138747,-0.645192,0.49668428,-0.36167708,-0.09670138,0.0008796938,-0.4996071,0.1922159,0.1698334,0.5723003,0.040725604,0.005470263,2.0,-1.2070878,-1.3990743,-0.22922173,0.176518,-1.0713848,-0.7076716,-0.4707891,-0.5197514,0.29458508,-0.4207071,-0.99007964,2.0
2025-07-18 17:21:27.361,1.680000000000001,1680,84,0.04371776,-0.11120747,-0.02229453,-0.07451418,-0.0897198,-0.034577627,0.0,0.0,0.0,-0.029830076,-0.0977075,-0.004281719,-0.058436453,0.018789992,-0.10126566,-0.20319882,0.007871496,-0.044922158,0.041627206,-0.086368926,-0.18993326,0.30049843,-0.011189128,0.03869738,-0.015260968,0.061664242,-0.00926068,0.05273235,-0.11278996,-0.056235936,0.037924185,0.01505697,-0.015859457,0.016410587,-1.2070878,-1.3990743,-0.22922173,0.176518,-1.0713848,-0.7076716,-0.4707891,-0.5197514,0.29458508,-0.4207071,-0.99007964,2.0,-0.12450603,-0.42014137,-0.29883572,-0.2744976,-0.16430868,-1.3409848,-0.020991284,-0.049821373,0.79295075,-0.264125,1.5896443,2.0
2025-07-18 17:21:27.385,1.700000000000001,1700,85,0.12945904,0.08189164,0.10111922,-0.044910602,-0.07651925,0.046380945,0.0,0.0,0.0,-0.030274684,-0.085306734,-0.01821121,-0.061781924,0.0020291568,-0.09766416,-0.20909865,0.009806478,-0.058742855,0.05995198,-0.0700788,-0.16896416,0.28915784,0.07988366,-0.066729866,-0.074868955,0.03702903,-0.050718,0.03144396,-0.018017255,0.07710862,0.054825302,0.017388035,0.08798276,0.06254067,-0.12450603,-0.42014137,-0.29883572,-0.2744976,-0.16430868,-1.3409848,-0.020991284,-0.049821373,0.79295075,-0.264125,1.5896443,2.0,-0.84267294,0.6231338,0.17291749,0.36666897,-0.12294455,-0.25806484,-0.037170995,0.12724876,0.35184905,-0.58352375,-0.97018075,2.0
2025-07-18 17:21:27.401,1.720000000000001,1720,86,-0.008681922,0.19584356,-0.15509577,-0.07075603,-0.10938805,0.04317975,0.0,0.0,0.0,-0.031100586,-0.09274649,-0.0033301038,-0.058267977,0.016532369,-0.08146347,-0.17106731,-0.0022190313,-0.030384421,0.05680391,-0.07718216,-0.15556777,0.30067012,-0.017819045,0.111691765,0.04572088,-0.006222903,0.03384895,0.04229223,-0.007817646,0.02773163,-0.062387478,-0.014056329,-0.033298388,-0.030838622,-0.84267294,0.6231338,0.17291749,0.36666897,-0.12294455,-0.25806484,-0.037170995,0.12724876,0.35184905,-0.58352375,-0.97018075,2.0,-0.90158486,-1.6504563,-0.4072055,-0.13026968,-0.8497696,-1.1091347,-0.511341,-0.8370196,0.58033115,0.042596593,1.6775476,2.0
2025-07-18 17:21:27.421,1.740000000000001,1740,87,0.057543196,-0.012909693,0.06335379,-0.05985493,-0.10357033,0.04677115,0.0,0.0,0.0,-0.03064072,-0.10184995,-0.014824315,-0.0591993,0.009730242,-0.12343678,-0.17673713,-0.01192425,-0.07540286,0.06135105,-0.08047583,-0.11540105,0.28337523,-0.03189008,-0.0020622637,-0.05440782,-0.08490884,-0.13531291,0.017724456,-0.1110871,-0.17854106,0.064779244,0.01789634,0.20213711,-0.063420475,-0.90158486,-1.6504563,-0.4072055,-0.13026968,-0.8497696,-1.1091347,-0.511341,-0.8370196,0.58033115,0.042596593,1.6775476,2.0,-0.5144089,-0.14669469,-0.8557758,-0.16691054,0.34349298,0.9654743,-0.09631203,1.4505306,0.9022217,-0.2312278,-0.5370821,1.990467
2025-07-18 17:21:27.441,1.7600000000000011,1760,88,0.15511964,0.1881396,-0.021813018,0.008288055,-0.103210226,0.027880328,0.0,0.0,0.0,-0.030514998,-0.10055179,-0.023767969,-0.06600066,-0.0081640165,-0.11824937,-0.13498874,-0.013882901,-0.07026731,0.07072495,-0.056882564,-0.11199901,0.29554373,-0.029462053,0.0040482203,-0.014855547,-0.004892257,-0.0021238287,0.04482822,-0.012434718,0.17046006,0.052718814,0.016365327,-0.064103104,-0.024440633,-0.5144089,-0.14669469,-0.8557758,-0.16691054,0.34349298,0.9654743,-0.09631203,1.4505306,0.9022217,-0.2312278,-0.5370821,1.990467,-0.8351829,-0.22916016,0.14537571,0.4722962,0.106236786,0.1296952,-0.9665195,-1.1082528,1.5130483,-0.6231975,1.3668908,1.3610345
2025-07-18 17:21:27.461,1.7800000000000011,1780,89,0.06726055,0.3106435,0.14567739,0.007485036,-0.06302,0.014965992,0.0,0.0,0.0,-0.031179601,-0.09044823,-0.017117742,-0.058107197,0.0022585068,-0.11086368,-0.102559485,-0.037732992,-0.07150778,0.10756258,-0.07775351,-0.058693003,0.2721967,0.05872117,-0.02824413,-0.031358797,0.05852417,0.118209995,-0.022573555,-0.092488654,-0.19876093,0.11870391,0.028543536,0.094320364,-0.026484508,-0.8351829,-0.22916016,0.14537571,0.4722962,0.106236786,0.1296952,-0.9665195,-1.1082528,1.5130483,-0.6231975,1.3668908,1.3610345,0.6526762,-0.05231359,-0.34944248,-0.0124022355,-0.60351425,-0.17073473,-0.35145858,1.8432549,1.1793985,-1.4383234,0.17145868,1.3324116
2025-07-18 17:21:27.486,1.8000000000000012,1800,90,0.111134075,0.26605994,-0.054057635,0.03889191,-0.01454265,-0.044686068,0.0,0.0,0.0,-0.032430105,-0.07804096,-0.030884495,-0.06503207,0.0019173505,-0.11032619,-0.09785674,-0.0394681,-0.08260003,0.117432706,-0.09791032,-0.040360264,0.2706655,0.122357056,-0.062032003,-0.006457991,0.0006456198,-0.076913185,0.0037794868,-0.032506723,0.067900375,0.052762553,-0.11242529,0.06375898,0.031213433,0.6526762,-0.05231359,-0.34944248,-0.0124022355,-0.60351425,-0.17073473,-0.35145858,1.8432549,1.1793985,-1.4383234,0.17145868,1.3324116,-0.86778706,0.874897,0.6414955,0.2659308,0.38596562,0.45520857,-0.36214486,-0.31133345,1.1021178,0.46547186,-1.1280137,1.606171
2025-07-18 17:21:27.501,1.8200000000000012,1820,91,0.0033447074,0.06755671,-0.0026478607,0.0012563417,-0.04008343,0.049933426,0.0,0.0,0.0,-0.03187713,-0.06717727,-0.013603076,-0.04099349,0.019584432,-0.08543254,-0.07738928,-0.041388035,-0.06673751,0.11524563,-0.09012678,-0.056533296,0.2758405,-0.016899204,0.09805058,-0.0053422693,0.036251538,0.04808742,-0.0058348402,0.008533342,-0.0564621,-0.04428128,0.08137384,-0.036535617,0.058516443,-0.86778706,0.874897,0.6414955,0.2659308,0.38596562,0.45520857,-0.36214486,-0.31133345,1.1021178,0.46547186,-1.1280137,1.606171,-0.13152102,-0.7184489,-0.39185268,-0.033305705,-0.40341288,-0.7679718,-0.6347871,0.6798338,0.00716313,-0.7254629,0.01968612,2.0
2025-07-18 17:21:27.522,1.8400000000000012,1840,92,-0.01943779,0.05465865,-0.00098384,-0.023012353,-0.05600845,-0.02278595,0.0,0.0,0.0,-0.0315068,-0.07616378,-0.016423745,-0.03849668,0.006769135,-0.08952103,-0.06812563,-0.053541686,-0.03708482,0.10554555,-0.08741289,-0.06470354,0.26591063,-0.039526697,-0.00025045773,0.033516195,-0.034584664,-0.01932841,0.0473647,0.017736211,0.0961827,-0.06302516,-0.08794635,-0.03947962,0.015913052,-0.13152102,-0.7184489,-0.39185268,-0.033305705,-0.40341288,-0.7679718,-0.6347871,0.6798338,0.00716313,-0.7254629,0.01968612,2.0,-0.7477899,-0.68532103,0.66243,0.16712202,-0.5646179,-1.3912172,-0.54397464,-0.027326342,-0.85222584,0.5352614,-0.65583366,2.0
2025-07-18 17:21:27.542,1.8600000000000012,1860,93,0.058985047,-0.22460413,0.09316232,0.006859685,-0.05717821,-0.04786082,0.0,0.0,0.0,-0.030910576,-0.06452332,-0.044157416,-0.02505241,0.015870646,-0.10767584,-0.09558378,-0.06144817,-0.014158306,0.062558405,-0.07406829,-0.08692261,0.28319243,-0.07171855,-0.114756875,0.049209855,0.011894333,-0.018718882,0.0177375,-0.07860609,-0.050947733,-0.13646515,-0.019966953,-0.11434531,-0.040533047,-0.7477899,-0.68532103,0.66243,0.16712202,-0.5646179,-1.3912172,-0.54397464,-0.027326342,-0.85222584,0.5352614,-0.65583366,2.0,0.12549004,0.58666736,0.40133575,0.31281704,-0.39472353,-1.7734427,-0.2457719,0.18952654,-1.1428177,-0.22955108,-0.083259985,2.0
2025-07-18 17:21:27.562,1.8800000000000012,1880,94,0.046935186,0.120224796,-0.025053972,0.009070854,-0.005893799,-0.03518902,0.0,0.0,0.0,-0.03154285,-0.049397875,-0.059061542,-0.022738008,0.026431618,-0.11959871,-0.13236995,-0.067166254,-0.010548783,0.023755075,-0.06303285,-0.07745347,0.2860164,0.017374307,0.059608646,-0.010297427,0.05152403,0.03618622,-0.10107241,-0.021476617,-0.0207054,-0.1254562,0.028124943,-0.030852713,0.0011022238,0.12549004,0.58666736,0.40133575,0.31281704,-0.39472353,-1.7734427,-0.2457719,0.18952654,-1.1428177,-0.22955108,-0.083259985,2.0,-0.59394115,-0.75482965,-0.14769277,-0.36150643,-1.4508553,-1.4767847,0.26118144,1.1153368,-1.634549,0.70528835,-0.724486,2.0
2025-07-18 17:21:27.582,1.9000000000000012,1900,95,0.19053279,-0.17833304,0.076659024,-0.033695415,-0.055274896,-0.011544422,0.0,0.0,0.0,-0.03239235,-0.03923546,-0.047432825,-0.02366773,0.0024095243,-0.18977857,-0.14015475,-0.03865091,0.052701868,-0.037365977,-0.04946113,-0.086549185,0.27843168,-0.024395457,0.008548757,-0.05834342,-0.025637995,-0.2260563,0.025184747,0.022835923,0.13432823,-0.08450582,0.048974555,-0.030777816,0.05999008,-0.59394115,-0.75482965,-0.14769277,-0.36150643,-1.4508553,-1.4767847,0.26118144,1.1153368,-1.634549,0.70528835,-0.724486,2.0,-1.0145038,0.18144515,-0.19947815,-0.13674863,0.4201796,-0.54571396,0.55023104,-1.1521381,-0.07710249,-0.11312561,-2.0,2.0
2025-07-18 17:21:27.602,1.9200000000000013,1920,96,-0.07309277,-0.1829791,0.019520044,-0.03810259,-0.09199032,-0.03380018,0.0,0.0,0.0,-0.033747457,-0.06982852,-0.045506258,-0.031009372,0.0038594876,-0.20819353,-0.13600145,-0.01593397,0.050858878,-0.030242685,-0.050620068,-0.14078638,0.28951162,-0.10891411,-0.006860305,-0.06119697,-0.03729939,0.027563734,-0.036903176,0.094497256,-0.11999869,0.0052114166,0.01751387,-0.11239366,-0.025454987,-1.0145038,0.18144515,-0.19947815,-0.13674863,0.4201796,-0.54571396,0.55023104,-1.1521381,-0.07710249,-0.11312561,-2.0,2.0,-0.56920266,0.82755834,-0.587158,-0.16827162,0.2379842,-1.379465,0.093443975,-0.008517679,1.404101,-0.58289653,0.95928144,2.0
2025-07-18 17:21:27.622,1.9400000000000013,1940,97,-0.106142364,0.1868287,-0.010280233,0.03653912,-0.088823184,0.017760396,0.0,0.0,0.0,-0.0351603,-0.076486,-0.006684087,-0.04761875,0.009985753,-0.13781239,-0.1564274,-0.02050636,0.043096006,0.017696897,-0.077217445,-0.1201222,0.2876571,0.007166636,0.11736483,-0.06825518,-0.02873165,0.10802411,0.019993426,-0.040141217,-0.01233873,0.15203215,-0.1024707,0.17099029,-0.013383619,-0.56920266,0.82755834,-0.587158,-0.16827162,0.2379842,-1.379465,0.093443975,-0.008517679,1.404101,-0.58289653,0.95928144,2.0,-1.0675372,-0.79128855,-0.55401164,0.43012807,-1.8353027,-0.46927297,-0.13858004,-0.34019518,0.52434844,0.06696813,-0.5846762,1.8458589
2025-07-18 17:21:27.642,1.9600000000000013,1960,98,0.013812107,-0.23474841,0.05448696,0.02030375,-0.015135214,0.034432948,0.0,0.0,0.0,-0.035091568,-0.083148755,-0.00066989247,-0.06624417,0.0019613463,-0.16326647,-0.13468592,-0.023350434,0.017046014,0.032793336,-0.06798735,-0.12235093,0.2992792,-0.085272014,-0.097921975,0.043589227,0.014338037,-0.22702883,0.010459781,-0.086006716,-0.08350647,-0.029625356,-0.053809572,-0.11603815,0.065100774,-1.0675372,-0.79128855,-0.55401164,0.43012807,-1.8353027,-0.46927297,-0.13858004,-0.34019518,0.52434844,0.06696813,-0.5846762,1.8458589,-0.71238637,1.8533188,0.21308741,-0.38195628,1.6818535,-0.7375012,-0.12094797,0.1590603,0.6663776,-0.6223996,0.5955384,2.0
2025-07-18 17:21:27.662,1.9800000000000013,1980,99,-0.06567587,0.284924,0.03542688,-0.040101882,-0.0608025,0.03520325,0.0,0.0,0.0,-0.035838377,-0.084348835,0.028285397,-0.06260524,0.009932361,-0.16351038,-0.14318794,-0.016932173,0.0133347325,0.031003984,-0.08788435,-0.09721967,0.280402,-0.06490706,0.1495692,-0.03876042,-0.07716922,0.12589253,-0.040122688,0.006380308,0.058546983,-0.0032015357,0.021923592,0.19920217,0.048422687,-0.71238637,1.8533188,0.21308741,-0.38195628,1.6818535,-0.7375012,-0.12094797,0.1590603,0.6663776,-0.6223996,0.5955384,2.0,-0.39713693,-0.9907267,-0.38894436,0.6365053,-1.0940156,-0.27630016,-0.8401989,-0.37288663,-0.2741101,0.14877613,-1.8911687,1.856172
2025-07-18 17:21:27.682,2.0000000000000013,2000,100,0.14636321,-0.09567424,-0.042829625,-0.038738955,-0.08150968,-0.030507497,0.0,0.0,0.0,-0.036912937,-0.07141837,0.035305504,-0.058933746,0.019625204,-0.17952505,-0.11973669,-0.03552503,-0.0034626918,0.032245908,-0.06251525,-0.07313605,0.28229463,0.029745573,-0.00070178206,-0.051154207,-0.013375363,-0.13060227,-0.013253547,-0.070400216,-0.064384654,-0.07401247,0.004930683,-0.102567285,0.07675533,-0.39713693,-0.9907267,-0.38894436,0.6365053,-1.0940156,-0.27630016,-0.8401989,-0.37288663,-0.2741101,0.14877613,-1.8911687,1.856172,-0.31281498,0.11166517,-0.123609334,-0.5822308,0.95934546,-0.7361032,-0.2487197,-0.087571144,0.46796066,-0.24919456,1.0911727,2.0
2025-07-18 17:21:27.702,2.0200000000000014,2020,101,-0.057205923,0.09960412,0.08634122,0.009758838,-0.062298715,0.030283,0.0,0.0,0.0,-0.03772178,-0.0667414,0.020003362,-0.064530514,0.001629597,-0.15093575,-0.1136547,-0.038020298,-0.0060006124,0.019645752,-0.056248862,-0.04864902,0.2973926,0.037635516,0.05389578,-0.06534463,-0.112324215,0.23050894,0.008767304,0.018017873,0.06518682,0.042813092,0.0041586137,0.16808987,-0.022912456,-0.31281498,0.11166517,-0.123609334,-0.5822308,0.95934546,-0.7361032,-0.2487197,-0.087571144,0.46796066,-0.24919456,1.0911727,2.0,-0.5181659,-0.7830291,-0.1280686,0.95774764,-2.0,-0.1406253,-0.83516145,-0.04697175,-0.5648356,0.039876327,-1.6941211,1.9632854
2025-07-18 17:21:27.722,2.0400000000000014,2040,102,0.12725604,-0.14380859,-0.06062967,-0.027703319,-0.059670404,0.035792384,0.0,0.0,0.0,-0.038847297,-0.06990036,0.019684276,-0.04867162,0.027418053,-0.14228651,-0.10767233,-0.056486752,-0.024454065,0.0026438602,-0.062489964,-0.040094435,0.28948724,0.059532084,-0.035278883,-0.0076290546,0.07813266,-0.099927805,0.092631586,-0.09882581,-0.0034877777,-0.017117223,-0.004726242,-0.1377417,0.0044681076,-0.5181659,-0.7830291,-0.1280686,0.95774764,-2.0,-0.1406253,-0.83516145,-0.04697175,-0.5648356,0.039876327,-1.6941211,1.9632854,-0.24081165,0.3480712,-0.1293462,-0.6926878,0.3613923,-0.88508064,-0.2726878,-0.28499126,0.033889078,-0.1101201,1.5049692,2.0
2025-07-18 17:21:27.742,2.0600000000000014,2060,103,-0.017946621,0.18370947,0.09600067,-0.024718804,-0.050227515,-0.015175169,0.0,0.0,0.0,-0.039200716,-0.059002638,0.020248795,-0.05551853,0.012357775,-0.1407776,-0.117075734,-0.043399606,-0.03651081,0.015119371,-0.053370602,-0.018986687,0.2928037,0.023185808,-0.016151117,-0.0052702962,0.0050103315,0.101754084,-0.058216535,-0.0212276,-0.021104457,0.01956346,0.027124466,0.10420777,-0.051542245,-0.24081165,0.3480712,-0.1293462,-0.6926878,0.3613923,-0.88508064,-0.2726878,-0.28499126,0.033889078,-0.1101201,1.5049692,2.0,-0.5823954,-0.41059956,-0.2693669,0.64685684,-1.6053648,-0.024779998,-0.32503387,0.7747342,-0.7966366,-0.21392097,-1.6241636,2.0
2025-07-18 17:21:27.765,2.0800000000000014,2080,104,0.047877096,-0.13299678,-0.08325998,-0.028485896,-0.03930351,-0.046928972,0.0,0.0,0.0,-0.039857823,-0.05631634,0.011942778,-0.045859385,0.0071031074,-0.14569655,-0.106490545,-0.054279532,0.0019771755,-0.012584117,-0.050486423,-0.012529471,0.28914803,0.06291169,-0.061517846,-0.059905883,-0.032907806,-0.06779885,0.042018287,-0.024599416,0.120507345,0.011888704,-0.016949397,-0.05169013,0.05526705,-0.5823954,-0.41059956,-0.2693669,0.64685684,-1.6053648,-0.024779998,-0.32503387,0.7747342,-0.7966366,-0.21392097,-1.6241636,2.0,-0.8555884,0.5423428,-0.11137745,-0.38958693,-0.23344809,-0.64129555,-0.15339805,-1.2556939,-0.104186304,0.39016712,0.34597754,2.0
2025-07-18 17:21:27.782,2.1000000000000014,2100,105,-0.11835822,0.045316767,0.03757237,-0.051411133,0.0018568559,0.021859122,0.0,0.0,0.0,-0.039669354,-0.08177858,0.02973988,-0.054585185,0.0009552086,-0.14044483,-0.09059831,-0.0581465,0.003510043,-0.0128254555,-0.032757964,-0.008935794,0.29289,-0.0023897013,0.13325205,-0.049507808,-0.104277626,0.019817658,-0.04065526,0.04441722,-0.14631337,-0.05396273,0.03312001,0.024731614,-0.0032219419,-0.8555884,0.5423428,-0.11137745,-0.38958693,-0.23344809,-0.64129555,-0.15339805,-1.2556939,-0.104186304,0.39016712,0.34597754,2.0,-0.9261941,-1.0261879,-0.62688184,0.019902095,-1.6220887,-0.33285508,0.07636206,0.53594786,-0.4791594,-0.0869502,-0.7459059,2.0
2025-07-18 17:21:27.805,2.1200000000000014,2120,106,0.04148033,-0.22000556,-0.055719096,0.0035410728,-0.059960656,0.019733977,0.0,0.0,0.0,-0.040702827,-0.08693872,0.018550437,-0.056995675,0.002230742,-0.1805271,-0.08528045,-0.048427157,0.012751408,-0.020354478,-0.041949667,-0.004325431,0.30814114,0.04229681,-0.08743558,-0.02815015,-0.08173965,-0.1564149,0.037283704,-0.0070981365,0.09690405,-0.029042166,0.06176592,-0.11503083,0.01391681,-0.9261941,-1.0261879,-0.62688184,0.019902095,-1.6220887,-0.33285508,0.07636206,0.53594786,-0.4791594,-0.0869502,-0.7459059,2.0,-1.1172117,1.2530653,-0.45121664,-0.32353798,1.1133966,0.0038702264,0.038221996,-0.77984667,1.0930425,0.18135624,-0.16519712,2.0
2025-07-18 17:21:27.823,2.1400000000000015,2140,107,0.039887935,0.11288757,0.088835314,-0.045584537,-0.07912915,-0.011775782,0.0,0.0,0.0,-0.04055117,-0.09228316,0.044285674,-0.064978756,-0.011633142,-0.20632157,-0.081322886,-0.039794628,-0.011164794,-0.002805194,-0.022014163,-0.02027085,0.30279723,0.02104517,0.07026615,-0.0052712094,-0.08277682,0.07983898,0.041261505,-0.0211723,-0.19980739,0.0118641695,0.028639821,0.03097926,0.0061846953,-1.1172117,1.2530653,-0.45121664,-0.32353798,1.1133966,0.0038702264,0.038221996,-0.77984667,1.0930425,0.18135624,-0.16519712,2.0,-0.17296487,-0.052950166,-1.2217615,0.3783316,-0.7103826,0.22371817,-0.55474997,0.68810594,1.4111899,-1.0406153,0.5864124,1.7626599
2025-07-18 17:21:27.843,2.1600000000000015,2160,108,0.109146245,0.20784003,0.024147587,0.03682897,-0.047814805,-0.023087922,0.0,0.0,0.0,-0.041021645,-0.08825109,0.048251405,-0.09465687,-0.0029754094,-0.21666747,-0.06553901,-0.03758524,-0.004497654,0.03928354,-0.048848983,0.01545894,0.30132183,0.048019048,-0.032238632,-0.050627716,-0.027871616,0.033413842,0.024437299,0.0143093355,0.1438715,0.12959553,-0.07626526,0.07504412,0.063053645,-0.17296487,-0.052950166,-1.2217615,0.3783316,-0.7103826,0.22371817,-0.55474997,0.68810594,1.4111899,-1.0406153,0.5864124,1.7626599,-0.19181816,0.83363795,0.40358636,0.21731983,0.02632678,0.5609004,-1.0765077,-1.3038182,2.0,-0.4129989,-0.6032756,1.053527
2025-07-18 17:21:27.863,2.1800000000000015,2180,109,-0.071947694,0.19217494,-0.015446565,0.011012185,-0.04764394,0.04589244,0.0,0.0,0.0,-0.041088462,-0.0743963,0.056225467,-0.07765163,0.011186759,-0.19951154,-0.03927019,-0.07067867,0.0027508477,0.09676335,-0.06702568,0.015871698,0.2735918,0.01652282,0.13183987,0.10064225,0.051919322,0.0053807395,0.022113878,-0.010862518,-0.06889702,0.1550323,-0.052803837,-0.042381164,-0.0296901,-0.19181816,0.83363795,0.40358636,0.21731983,0.02632678,0.5609004,-1.0765077,-1.3038182,2.0,-0.4129989,-0.6032756,1.053527,0.69326043,-0.83094,-0.89250976,-0.14212637,0.5103222,0.28684253,-0.76356035,0.20271266,2.0,-1.1314156,0.0067162085,0.3186527
2025-07-18 17:21:27.883,2.2000000000000015,2200,110,-0.079631574,0.11705495,-0.016354911,-0.014461247,0.0214435,0.02813609,0.0,0.0,0.0,-0.040675085,-0.04488645,0.06602578,-0.09332671,0.0011871887,-0.16765417,-0.03327454,-0.06429609,0.017302265,0.12193996,-0.08861262,0.009787031,0.23155972,0.10784362,-0.12836319,-0.033310473,-0.00053661014,0.17104547,-0.02559704,-0.101118654,-0.043959524,0.052917555,-0.03910485,0.00015953317,-0.10323735,0.69326043,-0.83094,-0.89250976,-0.14212637,0.5103222,0.28684253,-0.76356035,0.20271266,2.0,-1.1314156,0.0067162085,0.3186527,0.8103022,-0.0145949945,0.005322244,0.60867506,0.77464885,0.04338058,-0.90475446,-1.0993222,2.0,-1.0268989,0.67726874,-0.8321474
2025-07-18 17:21:27.903,2.2200000000000015,2220,111,-0.108995155,0.10133287,0.12554723,-0.025512379,0.008236977,-0.014127289,0.0,0.0,0.0,-0.040359817,-0.019419106,0.039297998,-0.068173125,-0.0034727799,-0.10389392,-0.031652678,-0.07220845,0.010817595,0.16120104,-0.09598209,0.058330987,0.17258884,0.12788627,0.0017774039,0.10063252,0.052215025,0.17913866,-0.010654797,-0.009253796,0.011682107,0.07855245,-0.074336864,0.13209935,-0.07242538,0.8103022,-0.0145949945,0.005322244,0.60867506,0.77464885,0.04338058,-0.90475446,-1.0993222,2.0,-1.0268989,0.67726874,-0.8321474,0.4344599,-1.321226,-0.2729624,1.4872594,-0.80869734,-1.1851494,-1.9119072,-0.64875525,2.0,-1.0349848,-0.7571176,-0.06137467
2025-07-18 17:21:27.925,2.2400000000000015,2240,112,0.032484196,-0.30745694,-0.15902205,0.022330469,0.009864552,0.048178114,0.0,0.0,0.0,-0.041337844,-0.0036721486,-0.019652562,-0.07083892,0.012095898,-0.105328366,-0.07513283,-0.09702295,-0.01776998,0.18198486,-0.11624592,0.028066576,0.15550126,0.052669644,-0.2645635,0.06618444,0.05456631,-0.067857035,-0.018072471,-0.122078836,-0.15619493,0.07913953,0.039583176,-0.21739638,-0.0028732023,0.4344599,-1.321226,-0.2729624,1.4872594,-0.80869734,-1.1851494,-1.9119072,-0.64875525,2.0,-1.0349848,-0.7571176,-0.06137467,0.4734505,1.7599533,0.6644135,0.3493462,2.0,-1.2832768,-0.063276246,-0.10607225,2.0,-0.9732766,1.7434796,1.2075807
2025-07-18 17:21:27.943,2.2600000000000016,2260,113,0.029176956,-0.043339044,0.0055991765,0.022484532,-0.01622103,-0.0031934618,0.0,0.0,0.0,-0.04065238,0.023034038,-0.047377177,-0.04563732,0.038555734,-0.09173853,-0.10105482,-0.09593939,-0.035175662,0.19100474,-0.111142755,0.01570353,0.15103985,0.04910048,0.14844412,0.033126634,0.057072673,0.17487852,-0.016100518,-0.031851683,-0.0496315,-0.028695328,0.013750284,0.085582554,0.014584416,0.4734505,1.7599533,0.6644135,0.3493462,2.0,-1.2832768,-0.063276246,-0.10607225,2.0,-0.9732766,1.7434796,1.2075807,-0.11082247,-1.5507679,-0.4332834,0.937934,-0.028716099,-1.3282235,-0.7826729,1.3113037,0.24212757,-0.46581417,-0.3868533,1.5286585
2025-07-18 17:21:27.963,2.2800000000000016,2280,114,0.045860853,-0.108991355,-0.036236312,-0.0680165,-0.061626002,0.0017666816,0.0,0.0,0.0,-0.03938937,0.0034167366,-0.07296519,-0.042155027,0.039814897,-0.070291504,-0.11151881,-0.095044635,0.013350055,0.16308033,-0.110238,0.013372685,0.1703846,-0.0075449697,-0.15224119,0.022441724,0.02436597,0.04901712,-0.04449873,-0.06258933,0.09544864,-0.10491125,-0.039026644,-0.07712449,0.055325232,-0.11082247,-1.5507679,-0.4332834,0.937934,-0.028716099,-1.3282235,-0.7826729,1.3113037,0.24212757,-0.46581417,-0.3868533,1.5286585,-0.36117622,0.51540244,1.140187,0.45279795,0.48247552,-2.0,-0.15696295,0.13732558,-0.5127376,0.2638374,-0.9694887,2.0
2025-07-18 17:21:27.983,2.3000000000000016,2300,115,-0.3065546,0.022667583,-0.09805581,0.0058220094,0.024248086,-0.027923813,0.0,0.0,0.0,-0.03792168,0.0050109876,-0.08533126,-0.03196498,0.06240873,-0.02418817,-0.14518252,-0.097417645,0.044414796,0.12193882,-0.07995924,-0.040834453,0.19072086,0.030228836,0.06224088,0.10057034,-0.05714609,0.046388503,-0.053661693,0.002147003,0.017125081,-0.019500159,0.03667215,-0.23328853,0.030967683,-0.36117622,0.51540244,1.140187,0.45279795,0.48247552,-2.0,-0.15696295,0.13732558,-0.5127376,0.2638374,-0.9694887,2.0,-0.30715346,-1.2621102,0.22391549,-0.26895568,-0.69106734,-2.0,0.27755263,0.839979,-1.4071846,0.08700739,0.20143054,2.0
2025-07-18 17:21:28.003,2.3200000000000016,2320,116,-0.12693886,0.05332281,0.10322391,-0.05336135,-0.062665634,-0.005424901,0.0,0.0,0.0,-0.0365909,0.0022393418,-0.10835767,-0.016926257,0.042958494,-0.038488276,-0.18321839,-0.060196653,0.080529064,0.06552327,-0.0769378,-0.059479587,0.20832519,0.05455253,-0.04076203,0.03357845,-0.019409548,-0.1366249,-0.057623655,0.015704835,0.08799009,-0.11090031,0.024230212,-0.032013122,0.042904913,-0.30715346,-1.2621102,0.22391549,-0.26895568,-0.69106734,-2.0,0.27755263,0.839979,-1.4071846,0.08700739,0.20143054,2.0,-0.6281125,0.26536715,0.93338954,0.45562053,-0.5259331,-1.5275197,0.50870615,-0.5487157,-0.500931,0.03751062,-2.0,2.0
2025-07-18 17:21:28.023,2.3400000000000016,2340,117,-0.0754691,-0.17956793,-0.0104514025,-0.07020663,-0.007661329,0.038477615,0.0,0.0,0.0,-0.037375715,-0.0008802347,-0.13105355,0.013139135,0.05524326,-0.06357456,-0.18443947,-0.036112145,0.06301523,0.040254783,-0.07597464,-0.06028119,0.21486188,0.007190957,0.08630055,0.065249465,0.030368507,-0.13793786,0.023121424,0.04959232,-0.20229876,-0.12939474,0.0329732,-0.029731683,0.04081673,-0.6281125,0.26536715,0.93338954,0.45562053,-0.5259331,-1.5275197,0.50870615,-0.5487157,-0.500931,0.03751062,-2.0,2.0,-0.8037871,0.13450441,-0.3145894,-0.46006498,0.8173434,-1.6063687,0.7863023,0.5894524,-0.12924233,-0.064734176,-1.0657802,2.0
2025-07-18 17:21:28.043,2.3600000000000017,2360,118,-0.08693511,-0.05525304,0.015187107,-0.0724499,-0.06431668,-0.004528034,0.0,0.0,0.0,-0.038949948,-0.01585978,-0.09242495,-0.011133223,0.028080514,-0.060628235,-0.21165895,-0.016520897,0.06998668,0.02153123,-0.06385606,-0.08586908,0.24529032,-0.08561582,0.10765005,0.015007368,-0.084615454,0.12976144,-0.1231778,0.095415376,0.060258575,-0.08602408,0.06042979,-0.04328364,0.067924455,-0.8037871,0.13450441,-0.3145894,-0.46006498,0.8173434,-1.6063687,0.7863023,0.5894524,-0.12924233,-0.064734176,-1.0657802,2.0,-1.0151961,-1.0760165,0.52902234,0.39246693,-1.4843934,-2.0,0.25153205,-0.16005999,-0.30562156,0.55354977,-1.1783665,2.0
2025-07-18 17:21:28.064,2.3800000000000017,2380,119,0.115874805,-0.32714933,0.1347295,-0.029637912,-0.053461716,-0.04337037,0.0,0.0,0.0,-0.039069716,-0.034790676,-0.11778884,-0.005014284,0.027518766,-0.063204326,-0.23317806,-0.010451063,0.055113543,0.018141242,-0.07087666,-0.115877934,0.2462008,0.054119423,-0.044614356,0.09649089,0.058973826,-0.05228211,0.021496987,0.037019417,-0.13412938,0.0271611,0.09073042,-0.13311854,-0.028055204,-1.0151961,-1.0760165,0.52902234,0.39246693,-1.4843934,-2.0,0.25153205,-0.16005999,-0.30562156,0.55354977,-1.1783665,2.0,-0.09178877,1.3148613,0.57178754,0.2776293,-0.4096655,-1.8816468,0.3724073,-0.67840385,-0.68980616,-0.7035243,0.30972156,2.0
2025-07-18 17:21:28.083,2.4000000000000017,2400,120,-0.05963053,0.026658567,0.07502074,-0.07244834,-0.102194525,0.010641362,0.0,0.0,0.0,-0.040012524,-0.024903318,-0.120382026,-0.0044775014,0.029652083,-0.08712601,-0.23524764,-0.0012750758,-0.0007098026,-0.006891775,-0.07958933,-0.109433606,0.25027362,0.027901007,0.097384445,0.028919768,0.08243925,-0.1014661,0.037358344,0.028799022,-0.11785212,-0.08233405,-0.032641698,0.1667425,0.00041775426,-0.09178877,1.3148613,0.57178754,0.2776293,-0.4096655,-1.8816468,0.3724073,-0.67840385,-0.68980616,-0.7035243,0.30972156,2.0,-1.0533668,-0.06668105,-0.3218365,-0.51829976,0.05415972,-0.7177374,0.8824431,0.97681546,-0.9498919,0.15734668,-2.0,2.0
2025-07-18 17:21:28.104,2.4200000000000017,2420,121,-0.048241306,0.061833512,0.10812954,-0.06559995,-0.04027813,-0.039665475,0.0,0.0,0.0,-0.041373838,-0.029484026,-0.09137701,-0.017788695,0.018403241,-0.0717216,-0.22333445,0.020606138,0.004055169,-0.02333506,-0.07088261,-0.08851604,0.2636868,-0.09085549,-0.017960167,-0.022507628,0.002732834,0.0939024,0.055396803,0.052559495,0.17585064,-0.101138495,-0.012048319,0.08041664,-0.019633418,-1.0533668,-0.06668105,-0.3218365,-0.51829976,0.05415972,-0.7177374,0.8824431,0.97681546,-0.9498919,0.15734668,-2.0,2.0,-0.5640482,0.34415844,-0.076476425,0.19425835,-1.035453,-1.8077939,0.071342215,-0.63831645,0.08726355,0.15955316,-2.0,2.0
2025-07-18 17:21:28.128,2.4400000000000017,2440,122,0.05010088,-0.13909286,-0.06459821,-0.07024425,-0.092144005,-0.007306488,0.0,0.0,0.0,-0.043300956,-0.03157545,-0.0718734,-0.017100537,0.0152021805,-0.10920341,-0.23844309,0.0355263,-0.0061094784,-0.013385808,-0.053537708,-0.117352284,0.27199537,-0.03221586,0.10807459,0.0013690843,0.00055745046,-0.20152003,-0.07920509,0.056280352,-0.10692599,-0.047349058,0.0051756823,-0.015688969,-0.008167926,-0.5640482,0.34415844,-0.076476425,0.19425835,-1.035453,-1.8077939,0.071342215,-0.63831645,0.08726355,0.15955316,-2.0,2.0,-1.1156985,0.026496448,-0.7006129,-0.501283,0.5830013,-1.0579743,0.7991107,0.19266066,0.33524472,-0.07892908,-0.53893983,2.0
2025-07-18 17:21:28.144,2.4600000000000017,2460,123,-0.07567528,-0.11404817,0.08784978,-0.13008304,-0.07336872,0.034203082,0.0,0.0,0.0,-0.043481477,-0.046466026,-0.05228076,-0.044039086,-0.005971828,-0.11208181,-0.23356557,0.043657508,-0.0042931223,-0.0127669675,-0.06679165,-0.12646942,0.28751075,-0.07843538,-0.02718497,0.018216552,-0.031347554,0.09238232,0.049532507,0.027752828,0.0024628034,-0.03595378,-0.068232246,-0.08709102,0.051834416,-1.1156985,0.026496448,-0.7006129,-0.501283,0.5830013,-1.0579743,0.7991107,0.19266066,0.33524472,-0.07892908,-0.53893983,2.0,-0.7124406,0.14317584,-0.005401429,0.763663,-0.36351812,-1.1393529,-0.16678949,0.06887424,0.9488786,-0.25764033,0.07984938,2.0
2025-07-18 17:21:28.164,2.4800000000000018,2480,124,0.01117907,0.06265295,-0.12997128,-0.08467147,-0.021313025,0.033382602,0.0,0.0,0.0,-0.043720752,-0.056040518,-0.045635007,-0.033761244,-0.0026718366,-0.0932074,-0.21667646,0.027096264,0.00974124,0.027300032,-0.054890927,-0.11399806,0.2882716,0.046144903,0.053152557,0.018725429,0.11375067,-0.041362986,0.056644093,-0.03464938,-0.004088725,0.03212041,-0.029126078,0.1324427,0.052265372,-0.7124406,0.14317584,-0.005401429,0.763663,-0.36351812,-1.1393529,-0.16678949,0.06887424,0.9488786,-0.25764033,0.07984938,2.0,-1.1932322,0.16002122,-0.57044107,-0.08823702,-0.42285028,-0.457109,0.07012163,-0.8693174,0.6826128,0.4118826,0.33041087,2.0
2025-07-18 17:21:28.184,2.5000000000000018,2500,125,0.024677845,0.1100609,0.097253576,-0.06339767,-0.03922677,0.00944658,0.0,0.0,0.0,-0.042856086,-0.0768838,-0.02270491,-0.043165665,0.004529699,-0.1121379,-0.20221198,0.03370181,-0.052821018,0.028941492,-0.04764345,-0.063295804,0.2780615,0.032787014,-0.0023233076,-0.008945595,-0.06616633,-0.06781329,0.06140999,0.04015729,-0.21698585,0.026077999,0.00483881,0.030455224,-0.0355594,-1.1932322,0.16002122,-0.57044107,-0.08823702,-0.42285028,-0.457109,0.07012163,-0.8693174,0.6826128,0.4118826,0.33041087,2.0,-0.8530117,0.58029497,-0.9434168,0.21567024,-0.138956,0.5440963,-0.26727074,1.2373528,0.9656037,-0.85324234,-0.11216067,2.0
2025-07-18 17:21:28.204,2.520000000000002,2520,126,0.082955025,0.2598567,-0.034951814,-0.079671316,-0.059462287,-0.02757336,0.0,0.0,0.0,-0.043753702,-0.08896223,0.015815768,-0.066366725,0.0072592176,-0.10677866,-0.1580359,0.013216966,-0.039686624,0.05787168,-0.045897964,-0.046659127,0.2955078,-0.09145731,0.056621008,0.021626223,0.0031646292,0.02471025,0.10899401,-0.026265377,0.19380069,0.038001336,-0.014210626,0.050972745,0.08549766,-0.8530117,0.58029497,-0.9434168,0.21567024,-0.138956,0.5440963,-0.26727074,1.2373528,0.9656037,-0.85324234,-0.11216067,2.0,-0.97603595,-0.3737186,0.17997378,0.5844346,-0.87965435,-0.07156993,-1.0172929,-1.3282847,0.6683432,-0.0018203398,0.31361446,1.6897396
2025-07-18 17:21:28.224,2.540000000000002,2540,127,-0.037302118,0.09563203,0.11362949,-0.082918294,0.008227851,0.0028372253,0.0,0.0,0.0,-0.043668725,-0.08791487,0.03151888,-0.060542498,0.02283842,-0.14219147,-0.12575307,-0.01427098,-0.048105624,0.073257305,-0.042470217,-0.01339671,0.28202268,0.010426859,0.010410896,0.014638818,0.10508474,-0.044303354,0.029550647,-0.07028134,-0.14035782,0.093926296,-0.026267298,0.01842919,-0.08039765,-0.97603595,-0.3737186,0.17997378,0.5844346,-0.87965435,-0.07156993,-1.0172929,-1.3282847,0.6683432,-0.0018203398,0.31361446,1.6897396,0.40101367,0.13201985,-0.13836804,-0.5239926,-0.43745285,-0.21784595,-0.42581895,1.5244731,0.21491177,-1.0138535,0.05218102,2.0
2025-07-18 17:21:28.244,2.560000000000002,2560,128,0.052314725,0.15107715,-0.07319851,-0.060292237,-0.043437414,-0.03322885,0.0,0.0,0.0,-0.043759312,-0.07067705,0.016598707,-0.05261969,0.016229346,-0.1541172,-0.10654131,-0.02888834,-0.045572896,0.04995967,-0.07017985,-0.005078839,0.29324558,0.039036028,-0.024254592,0.0005753749,-0.10572342,0.01219458,0.08704462,-0.08013716,0.20005344,0.020033624,-0.07180188,-0.035261687,0.026008118,0.40101367,0.13201985,-0.13836804,-0.5239926,-0.43745285,-0.21784595,-0.42581895,1.5244731,0.21491177,-1.0138535,0.05218102,2.0,-1.033961,-0.054337643,0.63450885,0.18975602,-0.6199899,0.45730788,-0.4753246,-0.8100834,-0.21089569,0.93535006,-1.256497,2.0
2025-07-18 17:21:28.264,2.580000000000002,2580,129,0.17977385,-0.0478357,0.05179313,-0.0023303782,-0.025073508,0.005454923,0.0,0.0,0.0,-0.04352933,-0.06394929,0.02320083,-0.040644713,0.0014796013,-0.16454113,-0.08848199,-0.03424904,-0.05755577,0.043038968,-0.06239204,-0.03133634,0.30184796,-0.0015305484,-0.059992544,-0.016124656,0.015713807,-0.05867411,0.07367691,-0.031734876,-0.121333696,0.034376517,0.096755356,-0.02471392,0.037281353,-1.033961,-0.054337643,0.63450885,0.18975602,-0.6199899,0.45730788,-0.4753246,-0.8100834,-0.21089569,0.93535006,-1.256497,2.0,-0.11647618,0.957951,-0.51361936,-0.44517222,-0.31549552,-0.37994662,-0.022787023,0.75154525,-0.025932051,-0.72693664,-0.3077111,2.0
2025-07-18 17:21:28.285,2.600000000000002,2600,130,-0.0060556433,0.05613999,-0.07192223,0.015181869,0.008570839,0.02863786,0.0,0.0,0.0,-0.043761257,-0.04872191,0.04890092,-0.04141691,-0.0096139135,-0.15345559,-0.08410292,-0.033378113,-0.05858648,0.022734579,-0.065517336,-0.030939836,0.3061363,-0.03719248,0.08469098,-0.070861734,-0.09085542,-0.003482007,-0.0063195652,-0.04784852,0.15060733,-0.03781938,0.03720922,0.045247994,-0.008260154,-0.11647618,0.957951,-0.51361936,-0.44517222,-0.31549552,-0.37994662,-0.022787023,0.75154525,-0.025932051,-0.72693664,-0.3077111,2.0,-1.0777487,-1.0135328,-0.10184349,-0.051670663,-1.5807674,-0.14991418,-0.2613007,-0.6220866,-0.34411836,1.0459371,-1.0036812,2.0
2025-07-18 17:21:28.304,2.620000000000002,2620,131,0.22084445,-0.21825531,0.07141218,-0.02951212,-0.073638305,-0.04898404,0.0,0.0,0.0,-0.043597028,-0.064717464,0.049975526,-0.040202156,-0.0067264796,-0.18231077,-0.07623062,-0.045870546,-0.07998172,0.0075256424,-0.056057457,-0.058816582,0.29636756,0.02537681,-0.028678693,0.031403556,-0.007249071,-0.16903764,0.06746184,-0.072592266,-0.1600753,-0.007502996,0.042760517,-0.07599485,-0.0023325172,-1.0777487,-1.0135328,-0.10184349,-0.051670663,-1.5807674,-0.14991418,-0.2613007,-0.6220866,-0.34411836,1.0459371,-1.0036812,2.0,-0.51449764,0.1722326,-0.35949993,-0.5040358,0.22741021,-0.2174513,0.06369798,0.898476,0.11958816,-0.714257,0.3508803,2.0
2025-07-18 17:21:28.325,2.640000000000002,2640,132,0.103871696,0.14325522,0.11443024,-0.01439208,-0.06976827,0.0075123473,0.0,0.0,0.0,-0.043211557,-0.062790394,0.058764316,-0.0496822,-0.020917585,-0.19133386,-0.071859926,-0.028561492,-0.04547019,0.011608833,-0.07129881,-0.059213147,0.3125759,0.053009726,0.07651874,-0.008976928,0.036117785,0.1135692,-0.030864865,-0.04707381,0.24037679,0.056286994,-0.052541517,0.08932373,0.006807293,-0.51449764,0.1722326,-0.35949993,-0.5040358,0.22741021,-0.2174513,0.06369798,0.898476,0.11958816,-0.714257,0.3508803,2.0,-0.72802,-0.9524046,0.5827801,0.6039464,-1.5634108,-0.6265578,-0.91252595,-0.4410925,-0.56495106,0.009349958,-2.0,2.0
2025-07-18 17:21:28.344,2.660000000000002,2660,133,0.10629144,-0.14496319,0.01049452,-0.048152182,-0.043119274,-0.03540507,0.0,0.0,0.0,-0.044429578,-0.06316369,0.04225285,-0.036043257,-0.0054504797,-0.21872702,-0.07416849,-0.05084551,-0.029196758,0.0041355877,-0.055103168,-0.05687454,0.31332305,-0.025724452,-0.084026456,0.0026838577,0.0712503,-0.1806604,-0.06519001,-0.12568621,-0.023287624,-0.028508998,0.0067904866,-0.13902806,0.020204112,-0.72802,-0.9524046,0.5827801,0.6039464,-1.5634108,-0.6265578,-0.91252595,-0.4410925,-0.56495106,0.009349958,-2.0,2.0,0.22248958,1.0760695,-0.08665332,-0.5306073,1.4190222,-1.0993438,-0.19459035,0.1700815,-0.36756945,-0.16949354,0.538788,2.0
2025-07-18 17:21:28.364,2.680000000000002,2680,134,0.1261066,0.21906082,0.104397245,0.04774782,-0.0760317,0.04053512,0.0,0.0,0.0,-0.045797728,-0.047727816,0.058386944,-0.03726555,0.00024704097,-0.2072951,-0.09953778,-0.03944647,-0.033071924,-0.0058795605,-0.054997817,-0.037569642,0.3105926,0.023670569,0.1059735,-0.0031028888,0.016174028,0.1119762,0.010301673,-0.011143753,0.11098311,-0.0033657588,-0.059267223,0.1125535,0.028280098,0.22248958,1.0760695,-0.08665332,-0.5306073,1.4190222,-1.0993438,-0.19459035,0.1700815,-0.36756945,-0.16949354,0.538788,2.0,-0.54085505,-1.0237491,-0.1039494,0.39801398,-1.8030428,-0.4757696,-0.6123886,0.3069108,-1.0742255,-0.08705135,-2.0,2.0
2025-07-18 17:21:28.386,2.700000000000002,2700,135,0.126402,-0.15233143,0.007247553,0.039628126,0.0033355553,-0.0065705483,0.0,0.0,0.0,-0.047482844,-0.058831964,0.06663354,-0.029946378,0.0012700781,-0.2388691,-0.095318526,-0.06372797,0.0034508817,-0.035395894,-0.054727618,-0.045257248,0.3002658,0.009987569,-0.049029864,-0.027279122,0.0879162,-0.24428214,-0.015124015,0.02749202,0.072985694,0.0033059053,0.07598316,-0.04939862,-0.048937265,-0.54085505,-1.0237491,-0.1039494,0.39801398,-1.8030428,-0.4757696,-0.6123886,0.3069108,-1.0742255,-0.08705135,-2.0,2.0,-0.40644306,1.0172693,0.050012294,-0.8996455,1.3957969,-0.5814807,0.08665489,-0.74616975,-0.15318727,0.06270497,-0.58893335,2.0
2025-07-18 17:21:28.405,2.720000000000002,2720,136,0.15204014,-0.06243306,-0.04298326,-0.021523573,-0.037875943,0.029752197,0.0,0.0,0.0,-0.048310127,-0.05522369,0.070852876,-0.037914388,-0.023352586,-0.22367434,-0.09240836,-0.05205681,-0.03780846,-0.027239451,-0.04470845,-0.064299725,0.3013765,-0.05059277,0.12913966,-0.048858825,-0.09440791,0.19252844,-0.07075463,-0.022512835,-0.10263554,0.046306193,-0.035723895,-0.058094203,-0.05064948,-0.40644306,1.0172693,0.050012294,-0.8996455,1.3957969,-0.5814807,0.08665489,-0.74616975,-0.15318727,0.06270497,-0.58893335,2.0,-0.20300376,-1.6414459,-0.9056282,0.2623351,-1.9714382,-0.5525475,-0.3058478,0.608479,0.61717457,-0.053752825,0.94045115,1.8833603
2025-07-18 17:21:28.425,2.740000000000002,2740,137,0.03732383,-0.006348874,-0.038759757,0.018373867,-0.082738936,2.3646926e-05,0.0,0.0,0.0,-0.048282832,-0.041857652,0.09732196,-0.054188393,-0.005221564,-0.2538802,-0.09184997,-0.05317117,-0.023581192,-0.0064591314,-0.04598783,-0.045183614,0.3039641,0.0420315,-0.046895754,-0.09713292,0.0172914,-0.089675166,-0.039688382,-0.022009982,0.0753973,0.06976692,-0.0041743303,0.13843352,0.042109217,-0.20300376,-1.6414459,-0.9056282,0.2623351,-1.9714382,-0.5525475,-0.3058478,0.608479,0.61717457,-0.053752825,0.94045115,1.8833603,-0.3410293,-0.007826768,-0.03359702,-0.3783544,0.32898778,0.84637713,-0.49562362,-0.17611128,1.5754634,0.028991908,-0.21714233,1.481328
2025-07-18 17:21:28.445,2.760000000000002,2760,138,-0.15065114,0.009032497,0.007924384,-0.031292982,-0.024150854,0.024517845,0.0,0.0,0.0,-0.047216352,-0.06021915,0.07282759,-0.059460394,-0.025032086,-0.24434659,-0.057819303,-0.049014166,-0.040424813,0.018508242,-0.040417388,-0.038077127,0.28605485,-0.05983922,0.010572869,-0.014419865,-0.026368724,0.10150685,0.008071783,-0.08127162,0.005240776,0.09083071,0.0660764,-0.050385803,-0.012177384,-0.3410293,-0.007826768,-0.03359702,-0.3783544,0.32898778,0.84637713,-0.49562362,-0.17611128,1.5754634,0.028991908,-0.21714233,1.481328,0.34298798,-0.3750153,-0.28714645,0.3023031,0.16561832,0.81549144,-0.71204543,-0.07534093,1.9290775,-1.0664935,0.89625543,0.6212357
2025-07-18 17:21:28.465,2.780000000000002,2780,139,-0.18792287,0.18026726,0.010352109,0.03945998,-0.09137117,-0.0033200015,0.0,0.0,0.0,-0.04670927,-0.03868172,0.054106027,-0.050758854,-0.013397431,-0.21312155,-0.024708845,-0.07048857,-0.03035091,0.04992322,-0.04799949,0.006088671,0.25516295,0.10836443,-0.12899008,0.032735806,-0.036602255,0.12820253,0.06104031,0.041958634,0.002673964,0.15337147,-0.09605771,0.13722369,-0.09772688,0.34298798,-0.3750153,-0.28714645,0.3023031,0.16561832,0.81549144,-0.71204543,-0.07534093,1.9290775,-1.0664935,0.89625543,0.6212357,0.98330617,0.71413267,-0.28527525,0.50123,0.6206296,0.936889,-0.82157123,-0.956893,2.0,-1.0731058,-0.12909356,-0.55018324
2025-07-18 17:21:28.485,2.800000000000002,2800,140,-0.15126632,0.11750961,-0.053781267,0.002815873,-0.021408338,0.022383029,0.0,0.0,0.0,-0.046667363,-0.016839748,0.07877796,-0.061479833,-0.0016046131,-0.18335834,-0.015298561,-0.0649891,-0.04238641,0.10011601,-0.068752445,0.016178653,0.20775826,0.12659177,0.08423154,-0.0027978693,-0.032131243,0.12758073,0.025407068,-0.046146818,-0.08487508,0.042091798,-0.12117618,-0.07140095,-0.10284607,0.98330617,0.71413267,-0.28527525,0.50123,0.6206296,0.936889,-0.82157123,-0.956893,2.0,-1.0731058,-0.12909356,-0.55018324,0.8070903,-0.9075602,-1.0177736,0.39211985,1.0333112,0.7535206,-1.4052582,-0.9829981,2.0,-1.01541,0.65750384,-1.4210252
2025-07-18 17:21:28.505,2.820000000000002,2820,141,-0.27047822,0.03658121,0.10642265,-0.045434184,-0.053958528,-0.04647498,0.0,0.0,0.0,-0.04618749,0.005920632,0.07101641,-0.07374127,-0.015465088,-0.117919415,0.0055526895,-0.07908766,-0.072591774,0.13624302,-0.08988885,0.057201847,0.13451707,-0.002513034,-0.07658435,-0.045413688,-0.05250273,0.20126005,0.046333957,-0.006529665,-0.114404656,0.041269153,-0.027987568,0.047218133,-0.23276918,0.8070903,-0.9075602,-1.0177736,0.39211985,1.0333112,0.7535206,-1.4052582,-0.9829981,2.0,-1.01541,0.65750384,-1.4210252,1.0522211,-1.9081277,-0.38955277,1.0764034,-0.3840379,-0.15058866,-1.5058925,-0.62568194,2.0,-1.4627883,0.3214857,-0.8558666
2025-07-18 17:21:28.525,2.840000000000002,2840,142,-0.084301606,-0.102334775,-0.06362463,0.016320957,-0.06033418,-0.046198957,0.0,0.0,0.0,-0.046669733,0.034482934,-0.014103474,-0.077272035,0.0043126945,-0.11117865,-0.0060596033,-0.10762438,-0.09825638,0.16302897,-0.11123495,0.053962227,0.08279324,0.031300068,-0.32166964,0.07606588,0.022373525,-0.039648615,-0.007480631,-0.036452632,-0.054634046,0.11904964,-0.11501534,0.09718757,-0.11090693,1.0522211,-1.9081277,-0.38955277,1.0764034,-0.3840379,-0.15058866,-1.5058925,-0.62568194,2.0,-1.4627883,0.3214857,-0.8558666,0.7070155,0.49430767,0.7143624,1.1509588,1.6290966,-1.0238093,-0.5803408,-0.72428715,2.0,-1.1479602,0.38781747,0.41215527
