openverse-orca/OrcaGym/log/simulation_log_20250605_154620.csv
timestamp,imu_angle_roll,imu_angle_pitch,imu_angle_yaw,imu_angular_velocity_roll,imu_angular_velocity_pitch,imu_angular_velocity_yaw,imu_acc_x,imu_acc_y,imu_acc_z,fl_joint1_pos,fl_joint1_vel,fl_joint1_torque,fl_joint2_pos,fl_joint2_vel,fl_joint2_torque,fl_joint3_pos,fl_joint3_vel,fl_joint3_torque,fr_joint1_pos,fr_joint1_vel,fr_joint1_torque,fr_joint2_pos,fr_joint2_vel,fr_joint2_torque,fr_joint3_pos,fr_joint3_vel,fr_joint3_torque,hl_joint1_pos,hl_joint1_vel,hl_joint1_torque,hl_joint2_pos,hl_joint2_vel,hl_joint2_torque,hl_joint3_pos,hl_joint3_vel,hl_joint3_torque,hr_joint1_pos,hr_joint1_vel,hr_joint1_torque,hr_joint2_pos,hr_joint2_vel,hr_joint2_torque,hr_joint3_pos,hr_joint3_vel,hr_joint3_torque,fl_force_x,fl_force_y,fl_force_z,fr_force_x,fr_force_y,fr_force_z,hl_force_x,hl_force_y,hl_force_z,hr_force_x,hr_force_y,hr_force_z,fl_hip_action,fl_thigh_action,fl_calf_action,fr_hip_action,fr_thigh_action,fr_calf_action,hl_hip_action,hl_thigh_action,hl_calf_action,hr_hip_action,hr_thigh_action,hr_calf_action
2025-06-05 15:46:20.700,-0.026246963,-0.027797421,-0.0068643307,0.02475488,-0.0057428298,-0.022772402,-1.668807,-0.12715408,0.0,0.0,-0.00946861,-0.005526998,0.0064266887,-0.0014931441,-0.007591313,-0.008816419,-0.003747922,-0.0010342503,0.0035399362,0.0048095076,0.008714014,0.0039599356,-0.0014810425,-0.034291085,-0.040264964,-0.033710938,-0.024393743,-0.040214956,0.058495864,-0.06589395,-0.03401237,-0.012534225,-0.041851,-0.009638353,0.0,0.0,0.0,0.0,0.0,0.0,0.0,0.0,0.0,0.0,0.0,0.0,-0.9285926,0.7977121,-1.7764306,-0.013736526,0.7924384,-0.4686652,1.3436201,-0.4170915,0.26915756,0.3898854,-0.7366605,-2.0
2025-06-05 15:46:20.708,0.07091843,-0.10074119,-0.017931819,-0.028109938,-0.030508345,-0.0024593007,0.0,0.0,0.0,0.0,-0.01186916,0.056656636,-0.086362086,0.0068735136,0.0465937,-0.029312903,0.024986248,-0.030989213,0.019837704,0.015300365,-0.030742368,-0.07871798,-0.10486437,0.16798277,-0.22709511,0.02909275,0.14391166,-0.02432592,0.12405135,-0.13308072,0.07450273,-0.048556406,-0.20912646,-0.22854987,-0.9285926,0.7977121,-1.7764306,-0.013736526,0.7924384,-0.4686652,1.3436201,-0.4170915,0.26915756,0.3898854,-0.7366605,-2.0,0.26597682,-0.26138648,-0.7636607,-1.2868626,-0.116393134,-0.6983242,0.63736117,0.54239357,-0.6007629,-0.2947816,0.3941738,-2.0
2025-06-05 15:46:20.728,-0.07854662,0.12340139,-0.025315126,-0.043775823,-0.034372877,0.024926964,0.0,0.0,0.0,7.758212e-05,-0.039674193,0.07774112,-0.10996913,-0.00587103,0.08191965,-0.06158101,0.045428302,0.003020173,-0.018820232,0.017825471,-0.053975243,-0.16380723,-0.012042036,-0.059160396,0.027077908,-0.11310368,0.085426874,-0.010870192,0.10585091,0.07788946,-0.15935498,0.042306278,0.049396995,-0.07406979,0.26597682,-0.26138648,-0.7636607,-1.2868626,-0.116393134,-0.6983242,0.63736117,0.54239357,-0.6007629,-0.2947816,0.3941738,-2.0,0.1690588,-0.33337215,0.4647461,-2.0,0.5730713,-2.0,1.773041,-0.12891264,-1.8409047,1.8934304,-1.1918114,-1.4161745
2025-06-05 15:46:20.750,-0.12950139,0.09067755,-0.03292625,0.006843321,0.01637794,-0.019558026,0.0,0.0,0.0,0.00060617586,-0.035963356,0.037017003,-0.053115964,-0.03850029,0.07748399,-0.056803968,0.04711962,-0.004714545,-0.05218268,0.0102639515,-0.09253667,-0.12599024,0.06878212,-0.16868626,0.22472808,-0.0032832115,-0.024058662,0.08411386,0.016713923,0.022529973,0.047480993,0.049218416,-0.16380908,0.13205925,0.1690588,-0.33337215,0.4647461,-2.0,0.5730713,-2.0,1.773041,-0.12891264,-1.8409047,1.8934304,-1.1918114,-1.4161745,-1.0153056,-0.2587773,2.0,-2.0,0.70098364,-2.0,2.0,0.05953963,-2.0,2.0,-2.0,-0.42828745
2025-06-05 15:46:20.770,-0.14141057,0.08545297,0.0050053205,-0.06598974,0.012625965,0.023038747,0.0,0.0,0.0,0.0016425173,-0.02357974,-0.013397061,0.08080631,-0.04182401,0.07598475,-0.04466934,0.03986049,-0.0033641476,-0.033811722,0.05603884,-0.22414668,-0.085766174,0.021762474,-0.055705998,0.33807266,0.030075995,-0.027585562,0.047709342,-0.02361841,0.017370252,0.06983175,0.07806871,-0.3490233,0.10515819,-1.0153056,-0.2587773,2.0,-2.0,0.70098364,-2.0,2.0,0.05953963,-2.0,2.0,-2.0,-0.42828745,-2.0,0.37504315,0.63910085,-2.0,-0.14659517,-2.0,1.9878104,-0.5273161,-2.0,2.0,-0.5917833,-0.47248548
2025-06-05 15:46:20.790,-0.14837459,-0.0133798625,0.045224905,-0.022371331,-0.019018974,0.04155993,0.0,0.0,0.0,0.0015482104,-0.05652231,-0.0026725507,0.13194884,-0.032306135,0.07869422,-0.035388533,0.03716014,-0.036125697,-0.002156306,0.0850244,-0.31206533,-0.098896325,-0.13480662,0.011978795,0.06880484,0.045754503,-0.041483145,0.048761945,0.03665965,-0.05168257,0.101945035,0.050988674,-0.11570216,-0.06087113,-2.0,0.37504315,0.63910085,-2.0,-0.14659517,-2.0,1.9878104,-0.5273161,-2.0,2.0,-0.5917833,-0.47248548,-2.0,0.3439031,-1.6313903,-2.0,1.197408,-2.0,1.780176,-0.8923545,-2.0,2.0,-1.357425,-0.9335467
2025-06-05 15:46:20.810,-0.1877832,-0.08969316,-0.040357955,-0.023968471,0.020009954,0.014636959,0.0,0.0,0.0,0.0012534758,-0.10133704,0.046617586,0.061856166,-0.046893846,0.07546444,-0.054421134,0.020399012,-0.058507077,0.028142987,0.13482682,-0.3958925,-0.13162975,-0.018984593,0.18503095,-0.3791064,-0.101009004,-0.037649103,-0.052641716,-0.06119054,-0.026792109,0.13224125,0.07864521,-0.20509894,-0.11360462,-2.0,0.3439031,-1.6313903,-2.0,1.197408,-2.0,1.780176,-0.8923545,-2.0,2.0,-1.357425,-0.9335467,-0.6962017,0.01801573,0.2695623,-1.9477422,0.8601905,-2.0,1.5648613,-0.23526804,-2.0,0.9114501,-0.8835517,-0.48503616
2025-06-05 15:46:20.834,-0.22083203,0.04160741,-0.038526025,-0.030151172,0.0070271464,-0.021778045,0.0,0.0,0.0,0.0019614117,-0.11129123,0.07824265,0.004922621,-0.054776806,0.08206277,-0.086741485,0.014910192,-0.066943616,0.04505701,0.14068557,-0.43769887,-0.14972834,-0.033214185,0.06378714,-0.0079827225,-0.07893644,0.07915189,-0.033234112,-0.055030093,-0.03569436,-0.0023953759,-0.02935014,-0.11973426,-0.059868857,-0.6962017,0.01801573,0.2695623,-1.9477422,0.8601905,-2.0,1.5648613,-0.23526804,-2.0,0.9114501,-0.8835517,-0.48503616,-0.50116736,-0.3096455,0.7537601,-1.6906244,0.14343716,-2.0,1.5249825,0.017020136,-2.0,2.0,-0.82841617,0.8404427
2025-06-05 15:46:20.851,-0.06694803,0.16946709,-0.008794843,-0.04694409,0.013426827,0.03044306,0.0,0.0,0.0,0.003302123,-0.09044594,0.041320644,0.031578954,-0.058731485,0.1075096,-0.09035306,0.018366184,-0.06788478,0.037607405,0.13167109,-0.45223385,-0.09963462,0.09495257,-0.11205378,0.11077555,0.015929995,0.029249677,-0.011596007,-0.009153881,0.053265657,0.00061834,-0.009824875,0.056744777,0.24811457,-0.50116736,-0.3096455,0.7537601,-1.6906244,0.14343716,-2.0,1.5249825,0.017020136,-2.0,2.0,-0.82841617,0.8404427,-2.0,-0.10322121,-0.13182896,-1.9288938,0.21061493,-2.0,1.2939845,-0.3470081,-2.0,2.0,-0.4993446,-0.21071225
2025-06-05 15:46:20.871,-0.18192118,0.101686634,-0.045803636,-0.057257865,-0.036381822,0.031532947,0.0,0.0,0.0,0.00447562,-0.08367645,0.026081692,0.037550982,-0.07589355,0.115769975,-0.09168641,0.03422427,-0.059205107,0.017296173,0.1405294,-0.41352016,-0.067847505,-0.06887781,-0.06863738,-0.09521039,-0.0888253,-0.04068442,0.028649231,0.048774198,0.082621105,-0.087543964,0.09906071,0.13219704,0.09598119,-2.0,-0.10322121,-0.13182896,-1.9288938,0.21061493,-2.0,1.2939845,-0.3470081,-2.0,2.0,-0.4993446,-0.21071225,-1.6725978,0.22603427,-0.7113102,-2.0,0.7289126,-2.0,1.3840591,-0.4200629,-2.0,1.6928608,-1.3337939,-1.0812182
2025-06-05 15:46:20.892,-0.13627349,-0.024521,-0.041158512,-0.07484504,0.018206365,0.046253167,0.0,0.0,0.0,0.00557735,-0.088947475,0.019962637,0.021487543,-0.08546583,0.124412455,-0.1255248,0.031723946,-0.060913097,0.019420866,0.15723939,-0.41833046,-0.08461732,-0.014254291,0.02987084,-0.014808254,-0.053821493,0.07189238,-0.04086557,-0.02652249,0.03087077,-0.029432809,-0.001763326,-0.048134007,-0.14532855,-1.6725978,0.22603427,-0.7113102,-2.0,0.7289126,-2.0,1.3840591,-0.4200629,-2.0,1.6928608,-1.3337939,-1.0812182,-0.76954114,-0.13597354,0.36614913,-2.0,0.81524515,-2.0,1.835689,-0.3777972,-2.0,1.4145133,-1.0780025,-0.43342233
2025-06-05 15:46:20.912,-0.12843044,0.01973505,-0.09321003,-0.083153404,-0.031750027,0.0154267745,0.0,0.0,0.0,0.0066314684,-0.09196359,0.0057729282,0.019751277,-0.072796226,0.12948862,-0.14483276,0.027969422,-0.053392366,0.011886419,0.14252613,-0.4445645,-0.11606376,0.015918817,0.015736522,0.026512077,-0.023705915,0.08321107,-0.0061073387,0.08100275,0.012188969,-0.07102844,0.0017393617,-0.08206651,-0.013695826,-0.76954114,-0.13597354,0.36614913,-2.0,0.81524515,-2.0,1.835689,-0.3777972,-2.0,1.4145133,-1.0780025,-0.43342233,-0.7950224,-0.06035821,0.8665044,-1.691161,-0.032034438,-2.0,1.4317051,0.11273773,-2.0,2.0,-0.8526176,0.6423024
2025-06-05 15:46:20.933,-0.013426345,0.100804634,-0.035100237,-0.1114322,0.019617848,-0.022760617,0.0,0.0,0.0,0.008094787,-0.06429811,-0.009878157,0.054970086,-0.08164408,0.15068626,-0.16091214,0.046113122,-0.04612818,0.0070330924,0.14758576,-0.45351455,-0.07598795,0.062160946,0.027813124,0.13232154,-0.041046344,-0.029745696,0.046842996,0.0059633153,-0.011917358,-0.014896328,-0.045627482,0.05024258,0.14538728,-0.7950224,-0.06035821,0.8665044,-1.691161,-0.032034438,-2.0,1.4317051,0.11273773,-2.0,2.0,-0.8526176,0.6423024,-2.0,-0.13129841,-0.50933474,-1.6626025,0.1931117,-2.0,1.2429951,-0.3006587,-2.0,2.0,-0.43617445,-0.3685968
2025-06-05 15:46:20.951,-0.10517466,0.11327099,-0.045848697,-0.14934498,-0.0088777635,0.015101946,0.0,0.0,0.0,0.009243529,-0.08817994,-0.011718008,0.047548376,-0.06551883,0.14845222,-0.17676663,0.050282948,-0.04566885,-0.015017443,0.15155636,-0.4211794,-0.0659381,-0.009650409,0.05829314,-0.14654289,0.033999234,0.018671641,0.017380722,-0.020441145,0.0589626,-0.072458014,0.006730573,0.1066805,0.0070919027,-2.0,-0.13129841,-0.50933474,-1.6626025,0.1931117,-2.0,1.2429951,-0.3006587,-2.0,2.0,-0.43617445,-0.3685968,-1.2927135,0.16022503,-0.890485,-1.4741067,0.7412615,-2.0,1.26464,-0.47862017,-2.0,0.86246973,-1.2219653,-0.95356005
2025-06-05 15:46:20.971,-0.03880851,0.053925388,-0.01664481,-0.15383312,-0.01589436,0.039743714,0.0,0.0,0.0,0.010251438,-0.09047481,-0.0026158676,-0.00864186,-0.08113276,0.16822168,-0.18616535,0.061771266,-0.05669894,-0.013533898,0.14452317,-0.39445782,-0.09238673,0.05355431,-0.015707104,-0.062214922,0.04017839,0.07520056,-0.012167205,0.0091274455,-0.038385503,0.0029876162,-0.11190137,0.046789173,-0.12710641,-1.2927135,0.16022503,-0.890485,-1.4741067,0.7412615,-2.0,1.26464,-0.47862017,-2.0,0.86246973,-1.2219653,-0.95356005,-0.4308646,-0.2092109,0.058883302,-1.3569833,1.0084091,-2.0,1.9347851,-0.37831593,-2.0,0.65671366,-0.6702976,-0.26747072
2025-06-05 15:46:20.998,-0.086262085,0.08724174,-0.085795715,-0.13013987,-0.014522879,-0.04509615,0.0,0.0,0.0,0.011062306,-0.09174113,-0.010233813,-0.03281657,-0.06712895,0.16557644,-0.20991276,0.067817725,-0.05210178,-0.02675016,0.12684906,-0.40574828,-0.107294396,-0.030008752,-0.012307836,0.05909645,0.03966524,-0.031854697,-0.091574475,0.0483844,0.03293142,-0.06502081,-0.12935305,0.07891598,-0.07154674,-0.4308646,-0.2092109,0.058883302,-1.3569833,1.0084091,-2.0,1.9347851,-0.37831593,-2.0,0.65671366,-0.6702976,-0.26747072,-0.27335325,-0.057910897,0.85464513,-0.8398692,0.011244316,-2.0,1.2510754,0.17113417,-2.0,1.8268571,-0.7952068,1.1431392
2025-06-05 15:46:21.012,0.082312584,0.12424075,0.0032368805,-0.1316599,-0.00031072798,0.011304678,0.0,0.0,0.0,0.012298829,-0.0728676,-0.03111177,0.023895893,-0.054912835,0.18378925,-0.22237854,0.09370391,-0.051615532,-0.039842054,0.1214456,-0.39644372,-0.026934547,0.040918358,-0.021436222,0.082048245,-0.011772858,-0.041421875,-0.059409123,0.018209495,0.07333282,0.023825351,0.010384831,0.07765864,0.2835326,-0.27335325,-0.057910897,0.85464513,-0.8398692,0.011244316,-2.0,1.2510754,0.17113417,-2.0,1.8268571,-0.7952068,1.1431392,-2.0,-0.2453289,-0.66770333,-0.9036157,0.32568616,-2.0,1.0978009,-0.53133273,-2.0,2.0,0.093871355,-0.50276864
2025-06-05 15:46:21.034,-0.12424244,0.1248998,-0.042873118,-0.15561715,-0.011688768,-0.0007359132,0.0,0.0,0.0,0.012979394,-0.075377196,-0.02544415,0.0037223261,-0.052038837,0.1828068,-0.22472586,0.10079459,-0.033697814,-0.049095903,0.13243045,-0.31815857,-0.03299789,-0.047030143,-0.03250187,-0.08880649,0.011917473,-0.002242365,-0.037003376,0.01181519,-0.019690806,-0.03417422,0.083698094,0.25476706,-0.09199065,-2.0,-0.2453289,-0.66770333,-0.9036157,0.32568616,-2.0,1.0978009,-0.53133273,-2.0,2.0,0.093871355,-0.50276864,-1.4109575,0.25123948,-1.6500369,-0.8456621,0.9751909,-1.6405528,1.1192089,-0.5978941,-2.0,-0.019575538,-1.0347221,-0.7423175
2025-06-05 15:46:21.052,-0.06880852,-0.018347483,-0.11325063,-0.10739022,0.013638269,0.013781117,0.0,0.0,0.0,0.013578736,-0.07032801,-0.05279142,-0.024204863,-0.04701408,0.18968454,-0.23220974,0.10549862,-0.045691762,-0.04712708,0.112661555,-0.2966285,-0.043548666,-0.045289047,-0.074841045,-0.0829571,0.030526446,-0.028380455,-0.0031523446,0.06439536,-0.10961273,-0.03771218,-0.04329963,-0.025271988,-0.12313918,-1.4109575,0.25123948,-1.6500369,-0.8456621,0.9751909,-1.6405528,1.1192089,-0.5978941,-2.0,-0.019575538,-1.0347221,-0.7423175,0.49277803,0.069619775,0.010050649,0.25301367,0.884472,-1.7068456,1.267204,-0.033936024,-1.4955574,-1.040298,-0.34801596,-0.9407647
2025-06-05 15:46:21.072,0.03697748,0.090674885,0.023192925,-0.1619393,-0.02495042,-0.0013257891,0.0,0.0,0.0,0.014699905,-0.07323375,-0.057349335,-0.011816691,-0.02168888,0.18220168,-0.2606422,0.11921978,-0.054218557,-0.058582623,0.06296394,-0.26407287,-0.100158885,0.078220166,0.046078507,0.0074312333,0.009542354,0.02882088,-0.0588436,0.062474433,-0.012623704,-0.057740264,-0.13879073,0.051523603,-0.18986626,0.49277803,0.069619775,0.010050649,0.25301367,0.884472,-1.7068456,1.267204,-0.033936024,-1.4955574,-1.040298,-0.34801596,-0.9407647,0.29847664,0.110599756,-0.64545256,0.8297219,0.88184756,-0.4283706,1.7831008,-0.50860566,-0.7373796,-0.012226755,-0.30957967,0.8042154
2025-06-05 15:46:21.093,0.23776412,0.03894056,-0.1115203,-0.12355496,0.015990112,-0.012910836,0.0,0.0,0.0,0.01538989,-0.03935963,-0.05978329,-0.011309413,0.011522945,0.18182643,-0.2437931,0.16098252,-0.07163277,-0.05252846,0.021553755,-0.25088906,-0.06975277,0.1027123,0.012492215,-0.004633824,0.03267566,-0.011545282,0.014284881,0.121928036,-0.105455995,0.0016528838,-0.04182279,0.11575525,0.11998732,0.29847664,0.110599756,-0.64545256,0.8297219,0.88184756,-0.4283706,1.7831008,-0.50860566,-0.7373796,-0.012226755,-0.30957967,0.8042154,0.104371555,0.9261209,-1.1081884,2.0,-0.17584147,-0.2237572,-0.4081789,-0.40313417,0.60185057,-0.71474624,-0.12587081,0.46111774
2025-06-05 15:46:21.112,0.3270389,-0.05962799,-0.017105311,-0.13957837,0.0561748,-0.0073352996,0.0,0.0,0.0,0.016558452,-0.020046394,-0.07721604,-0.020980587,0.045243036,0.14716125,-0.19853652,0.1738941,-0.0902373,-0.021751123,-0.0016447454,-0.2133991,-0.022742761,0.12598647,0.013774082,-0.048184082,0.12976271,-0.076017395,0.13394974,-0.025133826,-0.053707886,0.16270974,-0.0073968642,0.17553395,0.12634858,0.104371555,0.9261209,-1.1081884,2.0,-0.17584147,-0.2237572,-0.4081789,-0.40313417,0.60185057,-0.71474624,-0.12587081,0.46111774,1.7108144,0.81080544,-2.0,1.9378395,0.49270588,1.7412581,-1.7223163,-1.2947203,1.7245761,-2.0,0.048762262,-2.0
2025-06-05 15:46:21.134,0.37132528,-0.27711087,-0.019264556,-0.050152004,0.035966657,0.0049727485,0.0,0.0,0.0,0.017449599,0.03274355,-0.07090928,-0.033668302,0.077388756,0.11421476,-0.08004295,0.12736538,-0.17811997,0.086250946,-0.04318183,-0.13777533,-0.090913296,0.049579155,-0.087780215,0.030426085,0.16315854,-0.035071142,0.4206318,-0.15962915,-0.2821195,0.23436967,-0.13335127,0.21115819,-0.35056925,1.7108144,0.81080544,-2.0,1.9378395,0.49270588,1.7412581,-1.7223163,-1.2947203,1.7245761,-2.0,0.048762262,-2.0,2.0,0.118252724,-2.0,0.4506912,0.98222876,-0.25036556,-2.0,-0.88489485,2.0,-2.0,-0.13722819,-2.0
2025-06-05 15:46:21.153,0.3218416,-0.37902403,-0.051886804,-0.0808253,0.042173818,0.008527608,0.0,0.0,0.0,0.017812425,0.06443216,-0.09391713,-0.04224534,0.11306963,0.16459423,-0.0077131595,0.04810524,-0.27545354,0.20228858,-0.07795742,-0.11606703,-0.20100752,0.09708936,-0.06747149,-0.06094751,-0.039323125,0.18835522,0.07391005,-0.15569544,-0.2240157,0.29270056,0.019082263,-0.0012590106,-0.14683022,2.0,0.118252724,-2.0,0.4506912,0.98222876,-0.25036556,-2.0,-0.88489485,2.0,-2.0,-0.13722819,-2.0,2.0,0.45487383,-0.79379636,-1.2968881,0.30562544,-2.0,-0.3622667,-0.05258353,0.5473524,-1.0491107,-0.5337115,-2.0
2025-06-05 15:46:21.173,0.24048564,-0.19951865,0.028641105,-0.060779687,0.018590858,-0.019973984,0.0,0.0,0.0,0.018106882,0.08965302,-0.113893904,-0.06551235,0.08091127,0.21442224,-0.092093915,-0.021181652,-0.27208096,0.23080721,-0.05662954,-0.14475952,-0.18215936,0.11065505,-0.012651524,-0.045835856,-0.04672552,0.13070282,-0.27862436,-0.13204679,0.16088863,-0.0670476,0.10331689,-0.097028255,0.018091435,2.0,0.45487383,-0.79379636,-1.2968881,0.30562544,-2.0,-0.3622667,-0.05258353,0.5473524,-1.0491107,-0.5337115,-2.0,0.58188313,-0.5071702,2.0,-2.0,0.38184363,-2.0,2.0,0.6483078,-2.0,2.0,-1.3911874,-1.7120728
2025-06-05 15:46:21.193,0.057327677,-0.09696324,-0.0821329,0.028298026,0.009368793,-0.029450003,0.0,0.0,0.0,0.018210664,0.11417562,-0.14662638,0.046038713,0.04747785,0.23792814,-0.18307506,-0.032663908,-0.16015497,0.10856551,-0.02225756,-0.20210512,-0.14010467,0.027747044,-0.022348803,0.2697948,0.014211946,0.06694364,-0.13377336,-0.019744633,0.3521685,-0.44154114,0.13965918,-0.18394873,0.08932334,0.58188313,-0.5071702,2.0,-2.0,0.38184363,-2.0,2.0,0.6483078,-2.0,2.0,-1.3911874,-1.7120728,-1.3845488,-0.24396,2.0,-2.0,-0.47832984,-2.0,2.0,0.45611018,-2.0,2.0,-1.9375145,-0.41029876
2025-06-05 15:46:21.216,-0.10814462,-0.15018056,0.03524082,0.018870413,-0.07315485,0.004481598,0.0,0.0,0.0,0.018423412,0.071385264,-0.1550735,0.18540886,0.035078786,0.21185598,-0.15932946,-4.073347e-05,-0.080207214,-0.066290416,0.023677621,-0.31420025,-0.075678326,-0.14581445,0.04546171,0.28273636,-0.05647364,-0.09284463,0.13292074,0.025881143,0.055042196,-0.2875373,0.10172412,-0.34034017,0.16291812,-1.3845488,-0.24396,2.0,-2.0,-0.47832984,-2.0,2.0,0.45611018,-2.0,2.0,-1.9375145,-0.41029876,-2.0,0.47867104,0.4195692,-2.0,0.12514614,-2.0,2.0,-0.51440626,-2.0,2.0,-0.66930115,-1.4034256
2025-06-05 15:46:21.234,-0.09089997,-0.05759449,0.030832736,-0.046630733,-0.028121138,-0.045106962,0.0,0.0,0.0,0.018782971,0.019677097,-0.098260194,0.21907969,0.035982903,0.17353405,-0.1294544,-0.020389216,-0.08694652,-0.0568583,0.069136724,-0.39398232,-0.12182211,-0.24319722,0.16825749,-0.013596801,0.07194918,-0.032705598,0.026224691,-0.056490716,-0.15211245,0.18634109,0.11801769,-0.07957122,-0.15955906,-2.0,0.47867104,0.4195692,-2.0,0.12514614,-2.0,2.0,-0.51440626,-2.0,2.0,-0.66930115,-1.4034256,-1.2162093,0.2148026,-1.2797165,-2.0,1.0021648,-2.0,1.6484671,-0.6534566,-2.0,1.7776809,-1.510561,-0.50205374
2025-06-05 15:46:21.254,-0.07527726,-0.036707442,0.031455655,-0.011106411,-0.07744603,-0.027202314,0.0,0.0,0.0,0.01819159,-0.034333047,-0.013713511,0.12110232,0.040493805,0.1651806,-0.12542349,-0.0054774694,-0.13603185,0.0012540072,0.09684168,-0.44419202,-0.14314547,-0.059675798,0.23275818,-0.2587543,-0.015991192,-0.05938283,0.09021512,0.015831918,-0.15926209,0.08554945,0.0116773555,-0.20498596,-0.0729896,-1.2162093,0.2148026,-1.2797165,-2.0,1.0021648,-2.0,1.6484671,-0.6534566,-2.0,1.7776809,-1.510561,-0.50205374,-0.18548909,-0.13872673,-0.115502305,-1.6309716,0.81958926,-2.0,1.5301576,-0.38289958,-2.0,0.860176,-0.6917983,0.091499895
2025-06-05 15:46:21.273,-0.12542076,0.16982538,0.02394852,-0.046364725,-0.07172363,0.017837103,0.0,0.0,0.0,0.017805336,-0.059162993,0.027807178,0.047367353,0.048816163,0.16790864,-0.106546804,-0.00049233134,-0.1678052,0.038475655,0.113825925,-0.4719337,-0.1321455,0.032503873,0.05661876,-0.13534209,-0.00609915,-0.035612144,-0.018477444,-0.051251672,-0.02341608,0.054331064,0.05000456,0.030445222,0.086717844,-0.18548909,-0.13872673,-0.115502305,-1.6309716,0.81958926,-2.0,1.5301576,-0.38289958,-2.0,0.860176,-0.6917983,0.091499895,-0.51279104,-0.33399388,0.34136957,-1.3934813,0.34428996,-2.0,1.4248165,-0.025755808,-2.0,1.837099,-0.7904484,0.8173342
2025-06-05 15:46:21.293,-0.00216418,0.25188857,0.046297606,-0.07357557,-0.050759498,-0.045934964,0.0,0.0,0.0,0.018053602,-0.045262925,0.016808607,0.035701863,0.039434772,0.17412655,-0.09777144,-0.014367361,-0.15439928,0.05199478,0.11440253,-0.4622391,-0.057218548,0.058810815,-0.08871425,-0.0349786,0.013132782,-0.045664,-0.041268844,0.04333702,0.048499856,0.0357629,-0.024778822,0.10946195,0.2620431,-0.51279104,-0.33399388,0.34136957,-1.3934813,0.34428996,-2.0,1.4248165,-0.025755808,-2.0,1.837099,-0.7904484,0.8173342,-1.7868403,-0.23599854,-0.2104848,-1.515486,0.41048896,-2.0,1.209173,-0.49059087,-2.0,2.0,-0.46184167,-0.17123383
2025-06-05 15:46:21.316,-0.17664188,0.15232636,-0.011707737,-0.039316587,0.007395528,-0.0015247061,0.0,0.0,0.0,0.018188937,-0.04816017,0.0021643501,0.039652884,0.04709065,0.16854094,-0.097695045,-0.003474731,-0.13860263,0.044750437,0.11748132,-0.41189313,-0.038555834,-0.050066147,-0.070590556,0.10389389,-0.06719004,0.06839794,-0.06650251,0.053794783,-0.030715277,-0.03692732,0.043925494,0.13814959,0.023169877,-1.7868403,-0.23599854,-0.2104848,-1.515486,0.41048896,-2.0,1.209173,-0.49059087,-2.0,2.0,-0.46184167,-0.17123383,-1.3027481,0.26941866,-1.0180136,-1.9200202,0.7861949,-2.0,1.3448226,-0.49707323,-2.0,1.368809,-1.2492431,-0.42710006
2025-06-05 15:46:21.334,-0.1024857,-0.014483937,-0.08125279,-0.032321025,-0.0314963,-0.018516123,0.0,0.0,0.0,0.018636758,-0.060539242,-0.0023852699,0.0363095,0.03638701,0.19076507,-0.11724378,-0.00795075,-0.13883902,0.05781414,0.13864945,-0.39097795,-0.03644725,-0.012846195,-0.0041468553,-0.03226114,0.03558435,0.08366387,-0.01210561,-0.018293483,-0.027383914,0.0061174524,0.0060049025,-0.079274826,0.04544162,-1.3027481,0.26941866,-1.0180136,-1.9200202,0.7861949,-2.0,1.3448226,-0.49707323,-2.0,1.368809,-1.2492431,-0.42710006,-0.32820052,-0.24332204,0.54131967,-1.8162946,0.6480015,-2.0,1.4605315,0.11007501,-2.0,1.1180103,-1.1232883,-0.44224957
2025-06-05 15:46:21.354,-0.08347244,0.12138646,-0.022519644,-0.1050803,-0.062545344,0.033624936,0.0,0.0,0.0,0.019628117,-0.0596705,-0.00740251,0.04793217,0.024060166,0.20269147,-0.12941554,-0.0013183882,-0.12936522,0.03971901,0.1272286,-0.41791806,-0.05262784,0.032556098,-0.043202665,0.008803581,0.037463017,0.027115986,-0.044970065,0.07803016,0.050315924,-0.014224267,-0.08141239,-0.010939476,-0.07396381,-0.32820052,-0.24332204,0.54131967,-1.8162946,0.6480015,-2.0,1.4605315,0.11007501,-2.0,1.1180103,-1.1232883,-0.44224957,-0.78390926,-0.45636925,1.0115529,-1.3961469,0.01726349,-2.0,1.6137347,0.0035054088,-2.0,2.0,-0.8337804,0.4514838
2025-06-05 15:46:21.373,-0.0024467143,0.081708156,-0.01905239,-0.08340042,-0.007882668,0.03107555,0.0,0.0,0.0,0.02039758,-0.044770587,-0.041502606,0.094018154,0.034828212,0.2091246,-0.12812328,-0.0010542572,-0.1081829,0.01600243,0.12754802,-0.4225465,-0.03657421,-0.023755055,-0.124941394,0.10851607,-0.0079305405,-0.04482732,0.036899593,0.047042206,0.0023359184,0.011627149,-0.020683717,0.015023741,0.1154933,-0.78390926,-0.45636925,1.0115529,-1.3961469,0.01726349,-2.0,1.6137347,0.0035054088,-2.0,2.0,-0.8337804,0.4514838,-1.9803323,-0.03033003,-0.3918925,-1.5439054,0.2502824,-2.0,1.4287529,-0.3225453,-2.0,2.0,-0.7111242,-0.41130793
2025-06-05 15:46:21.394,-0.04741022,0.09390659,0.032376025,-0.10930143,0.024229862,-0.015461205,0.0,0.0,0.0,0.020752374,-0.05314333,-0.06382597,0.08448438,0.033546157,0.2181408,-0.1511366,-0.0028858334,-0.09566126,-0.009376913,0.1303577,-0.4172867,-0.04324767,-0.073099725,-0.03600223,-0.16233048,0.0025999912,0.047542475,0.008317687,-0.049382456,0.041342374,-0.03940566,-0.0231105,0.09187451,-0.06902579,-1.9803323,-0.03033003,-0.3918925,-1.5439054,0.2502824,-2.0,1.4287529,-0.3225453,-2.0,2.0,-0.7111242,-0.41130793,-1.3791258,0.16790275,-1.1996535,-1.4352092,0.87051946,-2.0,1.4493433,-0.85241544,-2.0,0.8319832,-0.9986818,-0.9306964
2025-06-05 15:46:21.418,-0.1062506,-0.026526306,-0.03912145,-0.053285573,0.012818947,-0.019274928,0.0,0.0,0.0,0.021081433,-0.07754624,-0.02730812,-0.015119358,0.020444276,0.21206029,-0.15524422,-0.0016439406,-0.10031791,-0.0247754,0.13091092,-0.40842763,-0.08230096,-0.0042271116,0.09119459,-0.28420714,0.032486085,0.023839714,0.018519858,-0.033576775,-0.020762358,0.056835517,-0.0903014,0.0600199,-0.1963809,-1.3791258,0.16790275,-1.1996535,-1.4352092,0.87051946,-2.0,1.4493433,-0.85241544,-2.0,0.8319832,-0.9986818,-0.9306964,0.36262253,-0.08021646,-0.2229622,-0.99680454,0.9240726,-2.0,1.626173,-0.067137435,-2.0,-0.27656367,-0.8185246,-0.28281504
2025-06-05 15:46:21.436,0.07384693,0.100913405,-0.008065699,-0.09394812,-0.01797599,-0.021019902,0.0,0.0,0.0,0.022046251,-0.07666608,-0.032440178,-0.05928767,0.014726074,0.23417628,-0.17034227,0.004156725,-0.09490743,-0.041342396,0.09836671,-0.40226123,-0.08955766,0.047772013,0.033260133,-0.09736717,0.03595689,0.048162624,0.034155108,-0.026899297,0.0155414,-0.056887265,-0.08299615,0.040279947,-0.05692364,0.36262253,-0.08021646,-0.2229622,-0.99680454,0.9240726,-2.0,1.626173,-0.067137435,-2.0,-0.27656367,-0.8185246,-0.28281504,0.37445334,-0.67600393,1.2308683,-0.26131174,0.2857346,-2.0,1.625589,0.0054189414,-2.0,0.95810634,-0.5452171,0.5822342
2025-06-05 15:46:21.455,0.13465032,0.11943811,-0.0036923266,-0.09752744,0.018279107,-0.040306877,0.0,0.0,0.0,0.023068562,-0.055893037,-0.069377795,0.022433061,0.040787823,0.23551613,-0.18289088,0.032306276,-0.08750049,-0.058305774,0.083901756,-0.3850731,-0.06448857,0.15023714,-0.19594182,0.16570774,0.09500737,0.022981502,0.068846345,0.06419276,0.030960707,-0.122384794,-0.071524605,0.03264533,0.08709279,0.37445334,-0.67600393,1.2308683,-0.26131174,0.2857346,-2.0,1.625589,0.0054189414,-2.0,0.95810634,-0.5452171,0.5822342,-1.8434576,0.32197687,-0.11900706,0.02407672,0.21844001,-2.0,1.244029,-0.48860365,-2.0,2.0,-0.3238768,0.9666423
2025-06-05 15:46:21.475,0.10787984,0.059004735,-0.007462754,-0.09209818,0.04064843,-0.033030484,0.0,0.0,0.0,0.023733376,-0.04338561,-0.07294129,0.030696196,0.044774517,0.22605942,-0.16639912,0.04519577,-0.07268999,-0.061643418,0.085958,-0.33830595,0.012881742,-0.06697585,0.100378886,0.02390164,0.070767835,-0.067506656,-0.015587211,0.0049798656,-0.034275543,-0.07613183,0.01833762,0.2071839,0.16418919,-1.8434576,0.32197687,-0.11900706,0.02407672,0.21844001,-2.0,1.244029,-0.48860365,-2.0,2.0,-0.3238768,0.9666423,-1.1895112,0.17901011,-2.0,0.13862015,0.8241462,-1.8743391,0.11672285,-0.51688886,-2.0,-0.2896392,-0.06406042,-0.964593
2025-06-05 15:46:21.496,-0.018740844,-0.028752869,-0.05349438,-0.027526837,0.043241087,0.019493064,0.0,0.0,0.0,0.024196891,-0.06712133,-0.028120618,-0.061383307,0.052268587,0.23037234,-0.1804523,0.054404896,-0.07739924,-0.08177717,0.076807454,-0.2652809,-0.012051574,-0.032550715,0.123675905,-0.13891354,-0.025439154,-0.019522946,-0.046074342,0.0517491,0.0041049225,0.04334349,0.015438389,0.2268814,-0.08045457,-1.1895112,0.17901011,-2.0,0.13862015,0.8241462,-1.8743391,0.11672285,-0.51688886,-2.0,-0.2896392,-0.06406042,-0.964593,1.4056028,-0.15215257,-1.4016318,0.85435754,0.6409153,-0.4742065,0.1237195,-0.30885792,-1.2539365,-2.0,-0.07411274,-2.0
2025-06-05 15:46:21.518,0.16580468,-0.040413376,-0.016948495,-0.065711536,-0.027647216,-0.049887262,0.0,0.0,0.0,0.024390442,-0.07182105,-0.026928406,-0.09270629,0.070386864,0.21885037,-0.17227258,0.056527164,-0.08997049,-0.06766799,0.02016287,-0.17067118,-0.12020108,0.09049064,0.036703635,-0.060381994,-0.029873062,-0.058271408,0.06985933,0.021213276,-0.06550967,0.024978852,-0.17767698,0.14825182,-0.32601553,1.4056028,-0.15215257,-1.4016318,0.85435754,0.6409153,-0.4742065,0.1237195,-0.30885792,-1.2539365,-2.0,-0.07411274,-2.0,2.0,-0.08788633,-2.0,0.29905614,0.3330098,0.5306238,0.13917448,-0.5355746,1.3439262,-1.9786673,-0.11741418,-2.0
2025-06-05 15:46:21.536,0.33519208,-0.29898587,0.042863104,-0.0465641,0.02182879,-0.025771188,0.0,0.0,0.0,0.024344558,-0.033307143,-0.043178517,-0.10108927,0.07900537,0.19930081,-0.12436024,0.06749972,-0.1306633,-0.0025404396,-0.018253021,-0.12209574,-0.24740444,0.033610538,0.022569593,-0.10830991,0.00012959864,-0.08705419,0.19542316,-0.035677038,-0.09664827,0.24335286,-0.061976507,0.024380706,-0.28122643,2.0,-0.08788633,-2.0,0.29905614,0.3330098,0.5306238,0.13917448,-0.5355746,1.3439262,-1.9786673,-0.11741418,-2.0,1.9031292,0.03252971,-2.0,-0.70074356,0.56319547,-1.1050266,-0.72632694,-0.1340849,2.0,-0.6739162,0.36429986,-2.0
2025-06-05 15:46:21.556,0.15360077,-0.08713829,-0.08944511,-0.04288381,-0.023039002,-0.00041718903,0.0,0.0,0.0,0.024188306,-0.012700946,-0.04622206,-0.10534272,0.05312359,0.20700745,-0.114793085,0.07242956,-0.1372021,0.12335426,-0.02006944,-0.13790546,-0.26860845,0.06379287,-0.10696123,0.04165121,-0.039803423,0.046290006,-0.13148454,-0.05123761,0.051621404,0.2991649,-0.024807204,-0.02376844,-0.0042778533,1.9031292,0.03252971,-2.0,-0.70074356,0.56319547,-1.1050266,-0.72632694,-0.1340849,2.0,-0.6739162,0.36429986,-2.0,0.9869284,0.46859834,0.93025154,-2.0,0.31765416,-2.0,0.758482,0.85047424,-1.7670527,0.71632355,-1.1578537,-2.0
2025-06-05 15:46:21.576,-0.017265867,-0.05112697,-0.010032541,-0.010071774,0.002144593,0.01611329,0.0,0.0,0.0,0.024710916,0.0031258294,-0.08175515,-0.057907864,0.05106604,0.20729372,-0.1295621,0.02959392,-0.042280838,0.064757265,-0.0055730958,-0.1727625,-0.24555235,0.07746623,-0.015099474,0.09999391,-0.058383733,0.030553993,-0.07597696,-0.06981776,0.2674546,-0.35012838,-0.014162204,-0.11562542,0.05062885,0.9869284,0.46859834,0.93025154,-2.0,0.31765416,-2.0,0.758482,0.85047424,-1.7670527,0.71632355,-1.1578537,-2.0,-0.1559447,-1.0209856,2.0,-2.0,0.21149732,-2.0,2.0,0.43102878,-2.0,2.0,-1.9478743,-0.34389344
2025-06-05 15:46:21.596,-0.23157844,-0.15466759,0.046916097,0.013336184,-0.034274418,-0.029811662,0.0,0.0,0.0,0.025113737,-0.0008978501,-0.14471945,0.06832457,0.042817295,0.18021926,-0.15039355,0.021431247,0.025650304,-0.06026328,0.016712692,-0.2962079,-0.19557318,0.029546164,-0.2549689,0.40065917,-0.06667488,-0.063146785,-0.09271493,-0.06836797,0.12902942,-0.18015185,0.07752667,-0.3212566,0.1776361,-0.1559447,-1.0209856,2.0,-2.0,0.21149732,-2.0,2.0,0.43102878,-2.0,2.0,-1.9478743,-0.34389344,-2.0,0.7129353,1.8259869,-2.0,-0.033153098,-2.0,2.0,-0.3631606,-2.0,2.0,-0.8227478,-0.14530319
2025-06-05 15:46:21.618,-0.1391631,-0.0051633036,0.0631974,-0.003560052,-0.030592233,0.02147891,0.0,0.0,0.0,0.025339862,-0.02229109,-0.11888262,0.2031971,0.040275306,0.16473395,-0.13475096,0.028516358,0.01108698,-0.06459226,0.05984535,-0.39207137,-0.14686713,-0.14399596,0.25561142,0.2383393,0.033469032,-0.11407912,-0.033023328,-0.033100013,-0.024160814,0.09698193,0.060194988,-0.14501846,0.1228755,-2.0,0.7129353,1.8259869,-2.0,-0.033153098,-2.0,2.0,-0.3631606,-2.0,2.0,-0.8227478,-0.14530319,-2.0,0.79844284,-1.7436541,-2.0,0.2790727,-2.0,1.2024636,-0.5916556,-2.0,2.0,-0.78224766,-0.4197967
2025-06-05 15:46:21.637,-0.12118809,-0.047661707,0.01135925,-0.017061895,-0.04300883,0.006666983,0.0,0.0,0.0,0.024876038,-0.07694811,0.0065922537,0.11683518,0.033938345,0.1499126,-0.14702636,0.022824995,-0.024405532,-0.010417043,0.10219553,-0.41815564,-0.1356339,-0.117135994,0.28018802,-0.29986086,0.016279073,-0.061090175,-0.025217805,-0.033997737,-0.06430867,0.094948746,0.11470982,0.019923879,0.057870302,-2.0,0.79844284,-1.7436541,-2.0,0.2790727,-2.0,1.2024636,-0.5916556,-2.0,2.0,-0.78224766,-0.4197967,-0.89858097,-0.11311731,-0.8674554,-1.7294997,0.95977527,-2.0,0.4441712,-0.2930019,-2.0,0.38913214,-0.7991816,-0.90240157
2025-06-05 15:46:21.657,-0.30454832,0.090627596,0.009287977,-0.09233082,-0.07932008,-0.013366935,0.0,0.0,0.0,0.024424193,-0.10486333,0.077787556,0.014039378,0.031804234,0.16412388,-0.15567401,0.0066071926,-0.05588702,0.03492134,0.11794141,-0.41151124,-0.15285303,-0.10564833,0.07061743,-0.2861688,-0.020924902,0.045349803,-0.073629245,-0.032638337,-0.086702846,0.037609015,0.009705575,0.04378671,-0.09576592,-0.89858097,-0.11311731,-0.8674554,-1.7294997,0.95977527,-2.0,0.4441712,-0.2930019,-2.0,0.38913214,-0.7991816,-0.90240157,0.24395868,-0.5955104,0.46348536,-0.9911459,0.62723583,-2.0,1.7076496,0.15442465,-2.0,0.31391928,-0.80272883,0.06586203
2025-06-05 15:46:21.677,-0.07262319,0.14337641,0.043094713,-0.106357045,-0.034326643,-0.028184103,0.0,0.0,0.0,0.024123138,-0.08605227,0.056163568,-0.0060720164,0.020018607,0.15641898,-0.15716054,0.002570123,-0.062282935,0.029939182,0.09090822,-0.39669916,-0.12593642,-0.011147765,-0.17579214,0.13573274,0.05419815,-0.0046642334,-0.07251513,0.0198193,0.07230988,0.03448858,-0.0638326,-0.05059269,0.06501654,0.24395868,-0.5955104,0.46348536,-0.9911459,0.62723583,-2.0,1.7076496,0.15442465,-2.0,0.31391928,-0.80272883,0.06586203,-1.1544453,-0.25812134,1.0187289,-0.62548846,0.12471609,-2.0,1.6494625,-0.22375326,-2.0,2.0,-0.50135493,0.96810335
2025-06-05 15:46:21.700,-0.011814715,0.19681503,0.1057898,-0.06393667,0.029745575,0.045718808,0.0,0.0,0.0,0.023444017,-0.06672066,0.0013462516,0.052980714,0.032675296,0.15015422,-0.1405228,0.0075145983,-0.047881983,0.03168953,0.09103011,-0.38258097,-0.058636315,0.08395712,-0.09715327,0.10425657,0.072885014,0.052015524,0.0903809,0.07435803,0.044729345,-0.06227768,-0.011212845,0.02128275,0.27675927,-1.1544453,-0.25812134,1.0187289,-0.62548846,0.12471609,-2.0,1.6494625,-0.22375326,-2.0,2.0,-0.50135493,0.96810335,-2.0,0.50526714,-2.0,-0.87923,0.5960617,-2.0,1.3033485,-1.0875481,-2.0,2.0,-0.13429207,-0.31204522
2025-06-05 15:46:21.718,-0.08388323,-0.06204468,-0.007833414,-0.08406084,-0.020347416,-0.016640004,0.0,0.0,0.0,0.022487974,-0.06543899,0.008853035,-0.006240981,0.032861028,0.16631216,-0.153756,0.009756413,-0.061054066,0.024733882,0.11748209,-0.3105488,-0.022277089,0.024371263,0.04731005,-0.21605387,-0.025872013,-0.046478868,0.043994747,-0.04706277,-0.062038533,0.031203823,0.064792685,0.16793127,0.035222724,-2.0,0.50526714,-2.0,-0.87923,0.5960617,-2.0,1.3033485,-1.0875481,-2.0,2.0,-0.13429207,-0.31204522,-0.978527,0.014013084,-1.5351052,-0.80697095,1.1926225,-1.6327381,0.5107973,-0.33851194,-2.0,-0.67421806,-0.51650995,-1.0008221
2025-06-05 15:46:21.739,-0.011516187,-0.019468447,-0.10713292,-0.13004686,-0.022446152,-0.014893072,0.0,0.0,0.0,0.02243706,-0.077530056,0.0074813045,-0.05711463,0.034558594,0.16116562,-0.18102816,0.005162705,-0.062895685,0.02812313,0.09320525,-0.24679996,-0.07281214,0.012550618,0.0165938,0.023249669,-0.052440785,0.01915294,-0.113224015,-0.043216456,0.013308556,-0.034609307,-0.09158076,0.04375986,-0.059943106,-0.978527,0.014013084,-1.5351052,-0.80697095,1.1926225,-1.6327381,0.5107973,-0.33851194,-2.0,-0.67421806,-0.51650995,-1.0008221,1.2144746,-0.26173,1.1423185,-0.055874623,0.69382596,-2.0,1.3262054,0.55236495,-2.0,-0.763966,-0.8915782,-1.0489571
2025-06-05 15:46:21.757,0.15566714,0.061719816,0.029457362,-0.10183333,-0.0035876594,-0.0459551,0.0,0.0,0.0,0.023327524,-0.040673103,-0.015189853,-0.00030045427,0.04758057,0.17321819,-0.19221082,0.014494677,-0.06383967,-0.009214511,0.05517496,-0.23804615,-0.11600711,0.17649615,-0.08299006,0.23840241,0.05672989,0.034659635,-0.026691183,0.004296857,0.06463631,-0.16200416,-0.08504556,-0.052185245,-0.1876908,1.2144746,-0.26173,1.1423185,-0.055874623,0.69382596,-2.0,1.3262054,0.55236495,-2.0,-0.763966,-0.8915782,-1.0489571,-0.6599732,-0.13704422,1.5013752,0.37172887,0.28008866,-2.0,1.8841871,-0.31711727,-2.0,2.0,-0.7734782,1.5516492
2025-06-05 15:46:21.777,0.28468275,-0.025118176,0.024981933,-0.071098685,0.018968102,0.03649473,0.0,0.0,0.0,0.022895107,0.0013701222,-0.02943446,0.11016601,0.06081702,0.17261523,-0.202165,0.03959283,-0.035660267,-0.02450585,0.022463582,-0.2708264,-0.05204596,0.13138933,-0.04552031,0.23775074,0.055697843,-0.06231767,-0.0468136,0.07573512,-0.017414529,-0.03462042,0.017641898,-0.024117844,0.23536858,-0.6599732,-0.13704422,1.5013752,0.37172887,0.28008866,-2.0,1.8841871,-0.31711727,-2.0,2.0,-0.7734782,1.5516492,-2.0,0.6746273,-1.8508073,0.19413562,0.14338867,-2.0,0.5788252,-0.62888086,-2.0,2.0,0.38328755,0.60085994
2025-06-05 15:46:21.800,0.11493055,0.006631011,-0.017385058,-0.050048757,0.022752792,-0.03331839,0.0,0.0,0.0,0.02208366,-0.034448385,0.017560376,0.027584264,0.09178513,0.17730898,-0.21436395,0.06691067,-0.045828328,-0.04205517,0.06670591,-0.22394004,0.022532782,-0.12665252,0.25329277,-0.34152624,0.10722809,0.023105707,-0.035419628,0.055159215,-0.0046629114,0.042928908,0.042775508,0.16098447,0.14975356,-2.0,0.6746273,-1.8508073,0.19413562,0.14338867,-2.0,0.5788252,-0.62888086,-2.0,2.0,0.38328755,0.60085994,-0.005324878,-0.2161004,-2.0,1.2776722,0.6573435,0.24158883,-1.2001972,-0.46967393,-2.0,-2.0,0.01943283,-1.9309521
2025-06-05 15:46:21.818,-0.025794625,0.0377894,0.03918007,-0.10376062,-0.021267533,0.028306685,0.0,0.0,0.0,0.021810507,-0.042205203,0.05479735,-0.08011537,0.0873639,0.16911875,-0.17632619,0.058834784,-0.05436467,-0.0533717,0.03744743,-0.1479986,-0.04226147,-0.03921549,-0.04167085,-0.111141175,0.07882745,0.025233667,0.102150254,-0.015963148,0.0466053,0.015959391,-0.042294044,0.14972022,-0.28699553,-0.005324878,-0.2161004,-2.0,1.2776722,0.6573435,0.24158883,-1.2001972,-0.46967393,-2.0,-2.0,0.01943283,-1.9309521,2.0,-0.1350232,-2.0,1.6582094,0.28926542,2.0,-1.5315909,-1.2288733,1.9402965,-2.0,0.2928166,-2.0
2025-06-05 15:46:21.838,0.20510988,-0.34308252,-0.04028821,-0.0843045,-0.0030470705,-0.03803188,0.0,0.0,0.0,0.021367896,-0.042393483,0.047169458,-0.11214786,0.10275333,0.14842314,-0.023671234,0.040647835,-0.13196775,0.05336229,-0.008192332,-0.06207821,-0.18114677,-0.016511478,-0.11234231,0.00067453115,0.10058875,-0.08769353,0.40020517,0.008324599,-0.23976922,0.37316254,-0.17753085,0.22016223,-0.28148985,2.0,-0.1350232,-2.0,1.6582094,0.28926542,2.0,-1.5315909,-1.2288733,1.9402965,-2.0,0.2928166,-2.0,2.0,0.40706196,-2.0,0.03632266,0.7818111,-1.1142044,-1.6572582,-0.74229497,2.0,-2.0,-0.3977434,-2.0
2025-06-05 15:46:21.862,0.034749784,-0.2286138,0.039979782,-0.0059345826,-0.07323136,0.022947837,0.0,0.0,0.0,0.0209835,-0.03062167,0.005927589,-0.10836785,0.1020493,0.19580857,-0.005647175,-0.0023265397,-0.22093084,0.18089645,-0.011654095,-0.08079952,-0.20548849,-0.045861818,-0.014267625,-0.07303341,-0.06425793,0.18726787,-0.13192548,-0.12140361,-0.19166577,0.27493772,0.032591127,-0.11667479,-0.04195846,2.0,0.40706196,-2.0,0.03632266,0.7818111,-1.1142044,-1.6572582,-0.74229497,2.0,-2.0,-0.3977434,-2.0,2.0,-0.10827184,-0.8495917,-2.0,0.5971781,-2.0,0.08484723,0.36873996,-0.278644,-0.27523914,0.007613959,-2.0
2025-06-05 15:46:21.878,0.097858,0.08826945,0.032559384,-0.06107624,0.014205282,-0.025774973,0.0,0.0,0.0,0.02029767,-0.028392894,-0.010439765,-0.106625855,0.05206219,0.24206397,-0.118973,-0.015564422,-0.18759666,0.17803594,0.00046430988,-0.111077555,-0.1958712,0.06458171,-0.014850742,0.08351491,-0.073202245,0.06319203,-0.31970105,-0.07372644,0.21051808,-0.12489908,0.047857992,-0.029120611,0.019556582,2.0,-0.10827184,-0.8495917,-2.0,0.5971781,-2.0,0.08484723,0.36873996,-0.278644,-0.27523914,0.007613959,-2.0,0.42522433,-0.7247635,2.0,-2.0,0.43310016,-2.0,2.0,0.38056213,-2.0,2.0,-1.6043515,-1.0541834
2025-06-05 15:46:21.900,-0.057798594,0.0027020152,0.019467628,-0.015579664,-0.070002645,-0.014307253,0.0,0.0,0.0,0.019837664,-0.009520056,-0.06608381,0.02768113,0.019285824,0.24756573,-0.20685615,-0.021422856,-0.097109206,0.047589462,0.025820533,-0.188002,-0.14031889,0.06345315,-0.2766098,0.36891726,-0.10248801,-0.035765495,-0.14637697,0.07558029,0.18781091,-0.41737106,0.12263883,-0.27869815,0.11591114,0.42522433,-0.7247635,2.0,-2.0,0.43310016,-2.0,2.0,0.38056213,-2.0,2.0,-1.6043515,-1.0541834,-2.0,0.41066745,2.0,-2.0,-0.02146412,-2.0,2.0,-0.1752026,-2.0,2.0,-1.2798076,-0.018356558
2025-06-05 15:46:21.918,-0.0875777,0.016001923,0.06622258,-0.02005821,-0.055630963,0.002420402,0.0,0.0,0.0,0.019582728,-0.010914636,-0.073041484,0.16906627,0.008392207,0.22863486,-0.18433654,-0.008814831,-0.0831139,-0.05483434,0.07501411,-0.29915798,-0.101005085,-0.077056855,0.11138175,0.28967753,-0.027896278,-0.14390543,0.10342011,0.042453572,-0.050971106,-0.10129976,0.106128715,-0.21210298,0.14253548,-2.0,0.41066745,2.0,-2.0,-0.02146412,-2.0,2.0,-0.1752026,-2.0,2.0,-1.2798076,-0.018356558,-2.0,1.0544955,-1.8717949,-2.0,0.1258028,-2.0,1.6601697,-0.91668516,-2.0,2.0,-0.4181471,-0.9378212
2025-06-05 15:46:21.938,-0.081185326,-0.092007235,0.031574517,-0.033293217,-0.07363725,-0.03444712,0.0,0.0,0.0,0.01932383,-0.058709186,0.03219747,0.09103314,0.0035747655,0.18179202,-0.14746967,-0.008419858,-0.11501229,-0.032294057,0.11214918,-0.3450828,-0.12349526,-0.08800612,0.3563253,-0.4200581,-0.029631892,-0.10861074,0.010339674,0.06790668,-0.09909637,0.10213046,0.04391746,0.01902563,-0.14653948,-2.0,1.0544955,-1.8717949,-2.0,0.1258028,-2.0,1.6601697,-0.91668516,-2.0,2.0,-0.4181471,-0.9378212,-1.0898983,-0.21595193,-1.5605413,-2.0,1.1967227,-2.0,0.68834525,-0.39658612,-2.0,0.47500357,-0.617669,-0.77510154
2025-06-05 15:46:21.958,-0.2540966,0.096238405,0.023415785,-0.07148257,-0.07928905,0.033233486,0.0,0.0,0.0,0.019132454,-0.09597849,0.0984714,-0.042101637,0.0066294246,0.1647031,-0.14078873,-0.020398246,-0.15586689,0.013689371,0.11908597,-0.32750723,-0.15320316,-0.116266996,0.0039076377,-0.38100535,-0.033274088,-0.07327425,0.03395926,0.012501297,-0.03444858,0.054808475,-0.05314818,0.02250376,-0.08319455,-1.0898983,-0.21595193,-1.5605413,-2.0,1.1967227,-2.0,0.68834525,-0.39658612,-2.0,0.47500357,-0.617669,-0.77510154,-0.104483776,-0.366,0.14931506,-1.1327319,0.9788461,-2.0,1.6014102,-0.1433088,-2.0,0.27956364,-0.77484334,-0.4330989
2025-06-05 15:46:22.023,-0.05339174,0.16764246,-0.030177778,-0.041226357,0.010246145,0.04368941,0.0,0.0,0.0,0.019604132,-0.0900586,0.09370576,-0.063011326,-0.014179727,0.1696479,-0.1243627,-0.008255535,-0.16182669,0.020825034,0.09764105,-0.32881913,-0.15764034,0.0060159243,-0.04280075,0.10365932,-0.016664974,0.038968757,-0.02375512,-0.027849484,0.01821424,-0.066448525,-0.08685194,-0.027760668,-0.06163216,-0.104483776,-0.366,0.14931506,-1.1327319,0.9788461,-2.0,1.6014102,-0.1433088,-2.0,0.27956364,-0.77484334,-0.4330989,-0.09838813,-0.39382422,1.3672822,-0.959057,0.058232117,-2.0,1.6185334,0.11630452,-2.0,1.9311186,-0.7740329,1.0527326
2025-06-05 15:46:22.038,0.1012832,0.16549744,0.087685876,-0.10966294,-0.022530494,-0.005815449,0.0,0.0,0.0,0.019900367,-0.06275296,0.028297516,0.02943884,0.0018367659,0.16922116,-0.12053725,-0.003167611,-0.13648747,0.00028339913,0.08946095,-0.33042955,-0.07829996,0.06366316,-0.18323044,0.190722,0.08468955,0.058190193,0.07192049,-0.025505533,0.08730905,-0.073795654,0.038866643,-0.07749658,0.2383906,-0.09838813,-0.39382422,1.3672822,-0.959057,0.058232117,-2.0,1.6185334,0.11630452,-2.0,1.9311186,-0.7740329,1.0527326,-2.0,0.17195356,-0.82306606,-1.2996558,0.44627643,-2.0,1.6217399,-1.0115951,-2.0,2.0,-0.23161733,-0.19367641
2025-06-05 15:46:22.058,-0.0412464,0.07039457,0.0050516427,-0.01762223,-0.010573585,-0.025988083,0.0,0.0,0.0,0.019420557,-0.06877605,0.013823765,0.02492604,0.01001381,0.16428275,-0.11015467,0.0028909063,-0.14394824,-0.00494647,0.109887786,-0.30951294,-0.04287892,-0.05076028,0.03426028,-0.04730053,-0.018320398,0.035695612,0.062458463,-0.047997918,-0.100307055,0.013390646,0.018994542,0.0593861,0.069957346,-2.0,0.17195356,-0.82306606,-1.2996558,0.44627643,-2.0,1.6217399,-1.0115951,-2.0,2.0,-0.23161733,-0.19367641,-1.347298,0.14517573,-1.8641394,-1.8097128,1.1418126,-2.0,1.2611012,-0.47991908,-2.0,0.7925899,-0.99530935,-0.7305161
2025-06-05 15:46:22.078,-0.06981669,-0.024937486,-0.11968523,-0.083794996,-0.017365674,-0.04147486,0.0,0.0,0.0,0.019604107,-0.083448574,0.01580579,-0.016009973,0.014289007,0.15557763,-0.13479485,0.006269469,-0.16840492,-0.019066185,0.11529687,-0.29442278,-0.04773749,0.04022332,-0.023812722,-0.10753252,0.025049051,0.074302085,-0.12882663,0.057361424,0.018966544,-0.08707625,0.057975918,0.024770549,-0.11575545,-1.347298,0.14517573,-1.8641394,-1.8097128,1.1418126,-2.0,1.2611012,-0.47991908,-2.0,0.7925899,-0.99530935,-0.7305161,-0.053336404,0.055779584,0.8714518,-1.3793353,0.8347128,-2.0,1.2029926,0.079680026,-2.0,0.64148706,-1.1198894,-0.41053456
2025-06-05 15:46:22.100,-0.016162537,0.035649713,-0.06587802,-0.08969577,-0.052782428,-0.03162404,0.0,0.0,0.0,0.021024602,-0.058232177,0.0037647428,-0.0020615757,0.010860124,0.16654629,-0.15049726,0.023639176,-0.16606669,-0.028088072,0.09691149,-0.3193735,-0.07911426,0.071718514,-0.0787999,0.15024321,-0.006835564,-0.021746153,-0.005917125,-0.03723031,0.10511071,-0.062114235,-0.04957462,-0.12674685,0.03440648,-0.053336404,0.055779584,0.8714518,-1.3793353,0.8347128,-2.0,1.2029926,0.079680026,-2.0,0.64148706,-1.1198894,-0.41053456,-0.9811812,-0.3616162,1.4522228,-1.0755581,-0.1380326,-2.0,1.3065836,0.30366075,-2.0,2.0,-0.6923375,0.9727393
2025-06-05 15:46:22.119,0.049351264,0.16248953,-0.011674708,-0.091070436,-0.023128303,-0.013793335,0.0,0.0,0.0,0.022160139,-0.046744574,-0.017909557,0.10439841,0.014453364,0.17028663,-0.17040673,0.018426603,-0.13602223,-0.06869187,0.09037618,-0.35403037,-0.024986543,0.06036722,-0.006587321,0.29665926,0.05915693,-0.018939538,-0.006681669,0.09592537,0.122606926,-0.1307996,-0.034207687,-0.01845329,0.24295284,-0.9811812,-0.3616162,1.4522228,-1.0755581,-0.1380326,-2.0,1.3065836,0.30366075,-2.0,2.0,-0.6923375,0.9727393,-2.0,0.37551585,-1.1002185,-1.2655114,0.031591702,-2.0,0.9178862,-0.44778764,-2.0,2.0,-0.1740784,-0.39656204
2025-06-05 15:46:22.139,-0.09160591,0.097842574,-0.0368086,-0.08960555,0.055204343,-0.021428145,0.0,0.0,0.0,0.022465978,-0.067199916,0.005754356,0.055512544,0.032021955,0.18137194,-0.17145959,0.040265404,-0.11135338,-0.105927676,0.1087392,-0.3116219,-0.016802173,-0.018463913,0.14873056,-0.17460065,-0.0041770414,-0.064843655,-0.055287395,0.06258945,0.04027871,-0.03275671,0.12343464,0.09772456,0.04100936,-2.0,0.37551585,-1.1002185,-1.2655114,0.031591702,-2.0,0.9178862,-0.44778764,-2.0,2.0,-0.1740784,-0.39656204,-1.3254346,0.016047137,-1.4701924,-1.3298367,0.91615593,-2.0,0.51436925,-0.40362185,-2.0,0.1833267,-0.94459605,-1.0703106
2025-06-05 15:46:22.159,-0.23381107,0.04100834,0.0006035482,-0.07522721,0.008665677,0.016001726,0.0,0.0,0.0,0.022614704,-0.09580121,0.03535729,-0.05397091,0.0109301545,0.17808636,-0.18305747,0.016864058,-0.11631889,-0.10922008,0.09858761,-0.30627257,-0.06788745,-0.12573917,0.03645736,-0.29029056,-0.07888231,0.04183279,-0.03286918,-0.025869131,-0.061944425,-0.007240779,-0.051028255,-0.06169925,-0.13526474,-1.3254346,0.016047137,-1.4701924,-1.3298367,0.91615593,-2.0,0.51436925,-0.40362185,-2.0,0.1833267,-0.94459605,-1.0703106,0.0364059,-0.34894103,-0.18760866,-0.6152046,1.0277116,-1.7983274,1.6003915,-0.23735105,-1.9520493,-0.44890526,-0.33421907,-0.85414606
2025-06-05 15:46:22.181,-0.029114857,0.15397573,0.004178845,-0.097435616,0.066409186,-0.007988065,0.0,0.0,0.0,0.02265154,-0.10726001,0.0227724,-0.080076374,0.014223731,0.18798605,-0.20641293,0.023667606,-0.11195706,-0.12116827,0.0592001,-0.2738414,-0.13029489,0.03965023,-0.1287736,-0.040605497,0.0075839874,-0.052604247,-0.04088424,0.026235104,-0.005539785,0.032122526,-0.033121005,0.05613615,-0.15817492,0.0364059,-0.34894103,-0.18760866,-0.6152046,1.0277116,-1.7983274,1.6003915,-0.23735105,-1.9520493,-0.44890526,-0.33421907,-0.85414606,0.25226006,0.15171146,0.26512003,-0.4188582,0.76147664,-2.0,1.8547544,-0.3040964,-1.770634,0.8181024,-0.8688109,0.84834415
2025-06-05 15:46:22.200,0.092669144,0.10999033,0.01955488,-0.06693428,0.0007794348,0.040718116,0.0,0.0,0.0,0.022960695,-0.08354072,-0.0037644207,-0.0408745,0.018558735,0.18119179,-0.21262482,0.027719805,-0.11656114,-0.13806704,0.046117637,-0.29568088,-0.08125176,0.04720802,-0.10838471,0.025573997,-0.009104472,-0.03241905,0.025347926,0.11198154,0.00019623218,-0.10098182,-0.09477626,-0.11603892,0.20518112,0.25226006,0.15171146,0.26512003,-0.4188582,0.76147664,-2.0,1.8547544,-0.3040964,-1.770634,0.8181024,-0.8688109,0.84834415,-1.2458359,0.027325274,-0.37459552,0.014153441,0.20537524,-2.0,0.9735479,-0.48681676,-2.0,1.9053305,0.09912309,1.1259677
2025-06-05 15:46:22.219,0.06747303,0.04092438,-0.036570877,-0.13342382,0.076610245,-0.040218223,0.0,0.0,0.0,0.023464283,-0.06458896,-0.024687717,-0.02729421,0.040338326,0.17314105,-0.21266048,0.057291165,-0.10768807,-0.14688314,0.048530485,-0.2603715,0.0057618334,0.009015092,0.02377876,0.035932984,0.10319541,0.0390798,-0.0047145644,0.089339726,-0.06708794,-0.05013537,-0.01523532,0.14366034,0.21266598,-1.2458359,0.027325274,-0.37459552,0.014153441,0.20537524,-2.0,0.9735479,-0.48681676,-2.0,1.9053305,0.09912309,1.1259677,-0.8551975,0.06311546,-2.0,0.11002465,0.94574124,-1.3799832,-0.20448175,-0.44229758,-2.0,-0.29552832,-0.20041642,-0.4769707
2025-06-05 15:46:22.239,0.0216575,-0.0699827,-0.08972654,-0.062947825,0.026338805,0.010657313,0.0,0.0,0.0,0.024312787,-0.062222824,-0.036716968,-0.034414478,0.05282703,0.16708246,-0.23370466,0.061842028,-0.125868,-0.15860176,0.062363543,-0.19016139,0.018482622,-0.036060035,-0.07141177,-0.08266502,-0.0066363947,0.07122061,-0.03352516,0.065151304,-0.0765695,0.0040210416,-0.10622635,0.12779099,0.006830069,-0.8551975,0.06311546,-2.0,0.11002465,0.94574124,-1.3799832,-0.20448175,-0.44229758,-2.0,-0.29552832,-0.20041642,-0.4769707,1.3180056,0.046506748,-1.2046833,1.3755677,0.5167591,-0.059793115,-0.52179,-0.33339733,-0.21909367,-2.0,-0.14948541,-1.9096165
2025-06-05 15:46:22.259,0.046369135,-0.08224616,-0.060577635,-0.061287265,0.030022703,-0.0058953254,0.0,0.0,0.0,0.025531823,-0.047408596,-0.0452523,-0.057268705,0.059607197,0.16092356,-0.20750953,0.0799229,-0.14123857,-0.15074873,0.017087635,-0.15037023,-0.0716961,-0.0071730455,-0.013699986,-0.0373783,0.09031962,-0.028680468,0.12439606,0.05439229,-0.040799126,0.10308339,-0.1564003,0.12791812,-0.2703595,1.3180056,0.046506748,-1.2046833,1.3755677,0.5167591,-0.059793115,-0.52179,-0.33339733,-0.21909367,-2.0,-0.14948541,-1.9096165,2.0,0.40583304,-2.0,0.87326026,0.1031151,0.7480755,-1.0697726,-0.7342172,2.0,-2.0,-0.14699388,-2.0
2025-06-05 15:46:22.282,0.3411385,-0.2949844,0.020617152,-0.069562815,0.06440942,-0.046173826,0.0,0.0,0.0,0.026258385,-0.026958881,-0.06657454,-0.068217665,0.06736476,0.1411508,-0.10799119,0.07521158,-0.19372582,-0.023831956,-0.031548828,-0.1008003,-0.20388947,0.070237584,-0.08745323,-0.09460657,0.094982244,-0.109126866,0.20158394,0.015664605,-0.066813946,0.38496962,-0.10995316,0.094395585,-0.35148466,2.0,0.40583304,-2.0,0.87326026,0.1031151,0.7480755,-1.0697726,-0.7342172,2.0,-2.0,-0.14699388,-2.0,2.0,0.022592636,-2.0,-0.29924485,0.87063295,-0.9870273,-1.7212682,-0.511745,2.0,-1.4057024,0.1433649,-2.0
2025-06-05 15:46:22.301,0.22024445,-0.21359348,-0.024398778,-0.054018274,-0.022745777,-0.03713514,0.0,0.0,0.0,0.026090393,0.002138189,-0.077018484,-0.10082379,0.08134356,0.16859804,-0.107413284,0.026301228,-0.22838359,0.14343262,-0.0648933,-0.10073784,-0.27808148,0.03657154,-0.10712687,-0.026797786,0.014105953,0.16035947,-0.107309856,-0.13801022,0.026080152,0.38771015,-0.008765956,-0.09549707,-0.13132657,2.0,0.022592636,-2.0,-0.29924485,0.87063295,-0.9870273,-1.7212682,-0.511745,2.0,-1.4057024,0.1433649,-2.0,1.6132188,0.33043003,-0.020071572,-2.0,0.5686201,-2.0,0.120481,0.37416428,-0.55165833,0.23717335,-0.64853,-2.0
2025-06-05 15:46:22.320,0.103734836,-0.009752567,0.0012255838,-0.058010537,0.043187715,0.01665871,0.0,0.0,0.0,0.025961943,0.034482308,-0.09586885,-0.07944716,0.032651167,0.221284,-0.17278202,-0.011907463,-0.17550677,0.140543,-0.04144358,-0.13334365,-0.26484796,0.019169614,-0.058292486,0.09650883,-0.04855552,0.01521169,-0.1454438,-0.03434078,0.22657718,-0.16524911,0.09341046,-0.15895867,0.08669059,1.6132188,0.33043003,-0.020071572,-2.0,0.5686201,-2.0,0.120481,0.37416428,-0.55165833,0.23717335,-0.64853,-2.0,0.2008903,-0.7382617,2.0,-2.0,0.24311753,-2.0,2.0,0.49608552,-2.0,2.0,-1.8641827,-0.5554236
2025-06-05 15:46:22.340,-0.19679765,-0.16175438,-0.060866468,-0.04431593,0.010600335,-0.04901348,0.0,0.0,0.0,0.025952768,0.048124615,-0.1517255,0.031302832,0.030372787,0.19996919,-0.17273557,-0.01218589,-0.0708443,0.010290252,-0.000700326,-0.2512342,-0.19403897,-0.0021918472,-0.15110916,0.31002253,0.05215716,-0.09053469,0.08852073,0.09360099,0.21600704,-0.47405732,0.069061875,-0.34531233,0.111348085,0.2008903,-0.7382617,2.0,-2.0,0.24311753,-2.0,2.0,0.49608552,-2.0,2.0,-1.8641827,-0.5554236,-2.0,0.18180653,2.0,-2.0,-0.47936216,-2.0,1.7891111,0.28428912,-2.0,2.0,-0.970135,-0.16397148
2025-06-05 15:46:22.360,-0.11798683,0.003512776,0.045870855,-0.0041152746,-0.05834416,-0.018011767,0.0,0.0,0.0,0.0264078,0.011124594,-0.13826758,0.16749923,0.041522622,0.15939645,-0.16881773,-0.017095441,-0.03689243,-0.066950195,0.055854164,-0.3368618,-0.14928892,-0.17857839,0.11365053,0.29225048,-0.009203823,-0.078926444,0.109498695,-0.06152665,-0.031980835,0.028035527,0.06271807,-0.26661372,0.029719895,-2.0,0.18180653,2.0,-2.0,-0.47936216,-2.0,1.7891111,0.28428912,-2.0,2.0,-0.970135,-0.16397148,-2.0,0.80211365,-1.203345,-2.0,0.2403643,-2.0,1.3121738,-0.7348073,-2.0,2.0,-0.8349389,-0.9482859
2025-06-05 15:46:22.382,-0.066542655,-0.021475058,0.08216502,-0.08039976,-0.037375383,-0.006313351,0.0,0.0,0.0,0.026086666,-0.03257128,-0.036181003,0.12800856,0.028111842,0.1374786,-0.14309038,-0.021397676,-0.08401763,-0.024447849,0.095221765,-0.3904402,-0.15730788,-0.21077792,0.37510347,-0.26686576,0.07608385,0.0010975928,0.031554073,-0.05721141,-0.1408268,0.19221528,0.11120243,-0.00070803956,-0.09464482,-2.0,0.80211365,-1.203345,-2.0,0.2403643,-2.0,1.3121738,-0.7348073,-2.0,2.0,-0.8349389,-0.9482859,-1.0581131,-0.32325804,-1.4504261,-2.0,1.1439097,-2.0,1.1183872,-0.5482305,-2.0,0.6046142,-0.76565135,-0.7100856
2025-06-05 15:46:22.400,-0.2579932,0.08907032,0.05124419,-0.081677325,-0.0770459,0.043252785,0.0,0.0,0.0,0.024985708,-0.08604241,0.024066193,0.009793567,0.016545456,0.13624683,-0.14065039,-0.041764896,-0.116041034,0.012138922,0.11085806,-0.40007448,-0.17104022,-9.364451e-05,0.12233083,-0.304914,-0.045023024,-0.029451177,0.050137646,-0.02575437,-0.060629677,0.10221838,-0.049901344,-0.07348248,0.006822976,-1.0581131,-0.32325804,-1.4504261,-2.0,1.1439097,-2.0,1.1183872,-0.5482305,-2.0,0.6046142,-0.76565135,-0.7100856,-0.301636,-0.17719308,0.29694957,-1.3722559,1.0262972,-2.0,1.8441478,-0.12389748,-2.0,0.7778702,-0.888582,-0.14543734
2025-06-05 15:46:22.419,-0.096791245,0.21089712,0.062441494,-0.046269674,-0.04820541,0.02946097,0.0,0.0,0.0,0.02465584,-0.07299675,0.033444803,-0.02614032,0.016896605,0.12636907,-0.13224083,-0.026075616,-0.13302487,0.03101201,0.10240927,-0.39049858,-0.16341004,-0.037709408,-0.0441466,0.0022999449,-0.03757483,0.060434617,-0.049802233,-0.02753831,0.024821453,-0.017750174,0.027219465,0.059149124,0.05094687,-0.301636,-0.17719308,0.29694957,-1.3722559,1.0262972,-2.0,1.8441478,-0.12389748,-2.0,0.7778702,-0.888582,-0.14543734,-0.8429957,-0.21138388,0.78121066,-1.1743014,0.16281576,-2.0,1.52689,-0.34742117,-2.0,2.0,-0.6046609,1.046828
2025-06-05 15:46:22.440,0.013992217,0.123346746,0.0041243024,-0.09050511,0.031285897,-0.049255773,0.0,0.0,0.0,0.024522733,-0.06322366,0.015056312,0.025386604,0.038799994,0.13818552,-0.12758005,-0.0263322,-0.11310557,0.03556975,0.1061427,-0.38797727,-0.07686594,-0.030928489,-0.11038894,0.10379225,0.014625266,0.010411996,0.08202198,0.023283334,-0.003949071,-0.010607547,0.0062305215,0.011561253,0.21737659,-0.8429957,-0.21138388,0.78121066,-1.1743014,0.16281576,-2.0,1.52689,-0.34742117,-2.0,2.0,-0.6046609,1.046828,-2.0,0.08963585,-1.0166954,-1.371687,0.28061658,-2.0,0.9817521,-0.3358907,-2.0,2.0,-0.3308679,0.051006738
2025-06-05 15:46:22.460,-0.051261496,0.06004655,-0.028186254,-0.080321744,0.038003657,-0.038753208,0.0,0.0,0.0,0.024367021,-0.05720387,-0.0029132762,0.0352306,0.029187292,0.1216762,-0.11743578,-0.015806343,-0.1084288,0.03561104,0.12343703,-0.34342438,-0.017124763,0.016562741,0.027310604,0.06626472,-0.06350165,0.07344189,-0.02578349,0.077125385,0.027926227,0.05347028,0.07567685,0.12991986,0.025630284,-2.0,0.08963585,-1.0166954,-1.371687,0.28061658,-2.0,0.9817521,-0.3358907,-2.0,2.0,-0.3308679,0.051006738,-1.2504237,0.047816858,-1.3431554,-1.4790101,0.95969903,-2.0,0.62880546,-0.56678116,-2.0,0.54476583,-1.1078347,-1.0057349
2025-06-05 15:46:22.484,-0.13335036,-0.10253067,-0.09795005,-0.12430675,-0.0079701375,0.009304867,0.0,0.0,0.0,0.02472044,-0.06555545,-0.012052331,0.025156638,0.035609093,0.12776868,-0.14119959,-0.015264148,-0.12427576,0.017706249,0.10382473,-0.32759967,-0.04318548,-0.05686722,0.0034656774,-0.07352999,-0.082604624,-0.054805942,-0.13187097,-0.007562302,-0.0410973,-0.0020930818,-0.005597156,-0.014225692,-0.119853385,-1.2504237,0.047816858,-1.3431554,-1.4790101,0.95969903,-2.0,0.62880546,-0.56678116,-2.0,0.54476583,-1.1078347,-1.0057349,0.22790596,-0.22210944,1.0473909,-1.1193997,0.8417779,-2.0,1.574915,0.48120075,-2.0,0.25055057,-1.1884283,-0.5656676
2025-06-05 15:46:22.500,0.08529259,0.10893937,-0.020970637,-0.13222991,0.017352158,-0.0016516407,0.0,0.0,0.0,0.025647419,-0.049305007,-0.01565236,0.053387552,0.038960125,0.15275455,-0.18460123,-0.020935751,-0.107808456,-0.011805729,0.07993236,-0.3572286,-0.07484539,0.11993096,-0.060185347,0.14547092,0.09326339,0.07550526,-0.013346452,0.08973207,0.12332559,-0.15367791,-0.028672729,-0.14379415,-0.030518513,0.22790596,-0.22210944,1.0473909,-1.1193997,0.8417779,-2.0,1.574915,0.48120075,-2.0,0.25055057,-1.1884283,-0.5656676,-0.8941397,-0.38870284,1.6749481,-0.20299073,-0.36002713,-2.0,1.3997018,0.0028531402,-2.0,2.0,-0.45463836,1.1828741
2025-06-05 15:46:22.520,0.1253094,0.17241329,0.0313,-0.059738632,0.05253936,0.030055108,0.0,0.0,0.0,0.025873326,-0.031057615,-0.060954355,0.14097337,0.047693957,0.15540269,-0.1880003,-0.006729897,-0.073711306,-0.04868907,0.071234696,-0.36951616,-0.02730797,0.008971702,-0.1401653,0.23218733,0.013815688,-0.060639028,-0.047923848,0.044763427,0.10784509,-0.11868909,-0.008440882,0.028330961,0.13594247,-0.8941397,-0.38870284,1.6749481,-0.20299073,-0.36002713,-2.0,1.3997018,0.0028531402,-2.0,2.0,-0.45463836,1.1828741,-2.0,0.5860584,-1.7106688,-0.51922286,0.3428675,-2.0,0.7333358,-0.66544634,-2.0,2.0,-0.08418673,0.10764149
2025-06-05 15:46:22.541,0.051590722,0.07371307,-0.050275724,-0.047289312,-0.031119332,0.02119287,0.0,0.0,0.0,0.025526827,-0.059860766,-0.008914373,0.06575919,0.04912479,0.14081486,-0.1896238,0.0019296347,-0.08226845,-0.05704366,0.10513682,-0.30802655,0.00748228,-0.07531701,0.14459443,-0.36724353,-0.022037497,-0.07220322,0.011461515,-0.05202446,0.026731623,-0.03478942,0.12260531,0.10628094,0.061623618,-2.0,0.5860584,-1.7106688,-0.51922286,0.3428675,-2.0,0.7333358,-0.66544634,-2.0,2.0,-0.08418673,0.10764149,-0.16898635,-0.0073662978,-1.3796465,0.28408635,0.747972,-1.2685306,-0.62952524,-0.27609867,-2.0,-1.6384135,-0.4960571,-1.4495701
2025-06-05 15:46:22.560,-0.04710911,0.051353846,0.07731376,-0.06581876,-0.0274833,-0.04755685,0.0,0.0,0.0,0.025491312,-0.074910626,0.03224219,-0.04858393,0.060069054,0.14865902,-0.1909602,-0.0015663349,-0.07232987,-0.085493125,0.06747157,-0.25313318,-0.05560793,-0.03737515,0.019562285,-0.13625127,0.057466865,-0.039504655,-0.07849791,-0.06845056,0.061602287,0.004116731,-0.10326538,0.07492868,-0.17581336,-0.16898635,-0.0073662978,-1.3796465,0.28408635,0.747972,-1.2685306,-0.62952524,-0.27609867,-2.0,-1.6384135,-0.4960571,-1.4495701,2.0,-0.5247382,-2.0,0.76808655,0.5629235,0.726159,-0.015894784,-0.57972455,0.24115787,-2.0,0.25030673,-2.0
2025-06-05 15:46:22.584,0.21070985,-0.1281145,-0.051559407,-0.11728032,0.041643113,-0.008861887,0.0,0.0,0.0,0.02496956,-0.05929694,0.009321551,-0.072385475,0.05306576,0.1353957,-0.14304079,0.0056658858,-0.10665689,-0.05516162,0.016298782,-0.18092114,-0.1708092,0.019990953,-0.016994504,-0.03894292,-0.042320903,0.053781282,0.18739694,0.0052982215,-0.057735495,0.07229612,-0.07079576,0.17725414,-0.25432462,2.0,-0.5247382,-2.0,0.76808655,0.5629235,0.726159,-0.015894784,-0.57972455,0.24115787,-2.0,0.25030673,-2.0,2.0,0.2986664,-2.0,-0.15445349,0.26799744,-0.681978,-0.72647816,-0.45079774,2.0,-1.8918883,-0.26009917,-2.0
2025-06-05 15:46:22.601,0.38285515,-0.34091324,0.036988404,-0.022515437,0.04611421,0.02125094,0.0,0.0,0.0,0.025041325,-0.029922409,0.0039572865,-0.08858994,0.07023168,0.14307928,-0.1066436,0.011058024,-0.15590282,0.054617573,-0.022743382,-0.13801646,-0.27867267,0.13954182,-0.03539745,-0.026915329,-0.014175185,-0.022831392,-0.061731808,0.06204275,-0.11583336,0.4053673,-0.1713928,-0.003447363,-0.30084974,2.0,0.2986664,-2.0,-0.15445349,0.26799744,-0.681978,-0.72647816,-0.45079774,2.0,-1.8918883,-0.26009917,-2.0,1.9406451,0.03900689,-2.0,-1.7476283,0.8773341,-1.6438949,-0.37567446,0.10012953,1.0008187,-0.24747232,0.14871049,-2.0
2025-06-05 15:46:22.621,0.122206725,-0.097413294,-0.055644777,-0.06993397,0.004128198,0.031764995,0.0,0.0,0.0,0.024901558,-0.010779579,-0.012406224,-0.08983449,0.050656393,0.1670198,-0.1625679,0.008332917,-0.13954519,0.14289144,-0.03171331,-0.15483151,-0.30129278,0.066627555,0.029086743,-0.06542429,0.008622889,0.00032244352,-0.016499663,-0.019856073,0.1550317,0.1938652,-0.014271179,-0.04920119,0.032836266,1.9406451,0.03900689,-2.0,-1.7476283,0.8773341,-1.6438949,-0.37567446,0.10012953,1.0008187,-0.24747232,0.14871049,-2.0,1.1340638,-0.13817611,2.0,-2.0,0.32082838,-2.0,1.7151878,0.86320364,-2.0,1.2805463,-1.5072346,-1.9971095
2025-06-05 15:46:22.640,-0.11658745,-0.08621473,-0.099368036,-0.006274761,-0.039451886,0.016442493,0.0,0.0,0.0,0.025570638,0.013308498,-0.06645246,0.01641103,0.039000284,0.16857171,-0.16543074,0.0041776528,-0.036482234,0.044480737,-0.007092933,-0.22006461,-0.28470635,0.11535747,-0.12604117,0.2829618,-0.07714955,-0.018781543,-0.033271715,0.027901819,0.33139881,-0.36638752,0.08989513,-0.26628578,0.15424307,1.1340638,-0.13817611,2.0,-2.0,0.32082838,-2.0,1.7151878,0.86320364,-2.0,1.2805463,-1.5072346,-1.9971095,-1.1768909,-0.28600004,2.0,-2.0,-0.42184293,-2.0,1.7974159,0.49752313,-2.0,2.0,-2.0,0.20464599
2025-06-05 15:46:22.660,-0.079624884,-0.16539115,0.061448473,-0.010791201,-0.071402766,0.049603976,0.0,0.0,0.0,0.026870126,0.016616609,-0.079159394,0.16133985,0.029927857,0.14052473,-0.17186376,0.018049503,0.021277905,-0.07379684,0.041109808,-0.36218178,-0.19046164,0.020021895,0.020440312,0.31765157,-0.013407068,-0.028261974,0.035824925,-0.031989485,0.0034241546,-0.09723482,0.0309343,-0.3703306,0.2551568,-1.1768909,-0.28600004,2.0,-2.0,-0.42184293,-2.0,1.7974159,0.49752313,-2.0,2.0,-2.0,0.20464599,-2.0,0.60287654,0.09481626,-2.0,-0.15575914,-2.0,1.70555,-0.4823972,-2.0,2.0,-0.16623038,-0.66041726
2025-06-05 15:46:22.684,-0.1312333,0.044974357,0.04217041,-0.051764775,-0.052490428,-0.002314183,0.0,0.0,0.0,0.027502129,-0.033915877,-0.023527734,0.1814316,0.030878732,0.12245571,-0.16104698,0.015553553,-0.0022582132,-0.031737976,0.08898117,-0.40125963,-0.16593689,-0.15583304,0.2582422,-0.04999627,-0.030628696,-0.07424155,0.038854484,0.053903323,-0.08357798,0.14063095,0.07694451,0.048382446,-0.039529607,-2.0,0.60287654,0.09481626,-2.0,-0.15575914,-2.0,1.70555,-0.4823972,-2.0,2.0,-0.16623038,-0.66041726,-1.191811,0.15059835,-1.8270866,-2.0,0.9762914,-2.0,1.2046678,-0.48841846,-2.0,1.4944417,-1.4953821,-0.41241235
2025-06-05 15:46:22.701,-0.102735706,-0.0026867718,-0.017137734,-0.020920994,-0.053280845,-0.010423531,0.0,0.0,0.0,0.027316783,-0.064155705,0.041839324,0.06561381,0.02481666,0.10708884,-0.17018247,-0.0037169626,-0.0374492,0.010889146,0.09762641,-0.44685188,-0.15282574,-0.09638547,0.1431574,-0.41379088,0.008504509,-0.03554225,0.01773053,-0.07502688,-0.11747005,0.14874116,-0.016871583,-0.08482801,0.048537582,-1.191811,0.15059835,-1.8270866,-2.0,0.9762914,-2.0,1.2046678,-0.48841846,-2.0,1.4944417,-1.4953821,-0.41241235,0.1532318,-0.38072625,0.92541355,-1.0640975,0.66262305,-2.0,0.9304224,0.16315946,-2.0,0.30596974,-0.7875815,-0.3450441
2025-06-05 15:46:22.721,-0.09794839,0.23918395,0.094663456,-0.014871049,-0.02338158,-0.011318186,0.0,0.0,0.0,0.027302086,-0.066849455,0.03166973,0.026285201,0.0142016895,0.110151276,-0.17608835,-0.0017905874,-0.04318562,0.016333155,0.0912272,-0.46195093,-0.13282903,0.06115753,-0.08336416,-0.014529516,-0.024373733,0.044890165,0.059554722,-0.07987327,-0.012052469,-0.031543955,-0.099786945,0.045434788,0.07835431,0.1532318,-0.38072625,0.92541355,-1.0640975,0.66262305,-2.0,0.9304224,0.16315946,-2.0,0.30596974,-0.7875815,-0.3450441,-1.1091536,-0.33659238,0.6542955,-0.40940586,0.131613,-2.0,1.5270699,-0.2613852,-2.0,2.0,-0.3820587,1.4037324
2025-06-05 15:46:22.741,-0.054950655,0.153876,0.06233239,-0.06735326,-0.04495698,0.041955914,0.0,0.0,0.0,0.026821164,-0.049143273,0.0030645914,0.06813273,0.020967444,0.105188906,-0.15718962,0.0009727388,-0.029335745,0.0257599,0.10474181,-0.4103685,-0.051651884,-0.016620252,-0.10736882,0.15497233,0.071589455,-0.032023735,0.02573105,0.079431154,0.08433358,-0.032524195,-0.008665743,0.13449615,0.30590624,-1.1091536,-0.33659238,0.6542955,-0.40940586,0.131613,-2.0,1.5270699,-0.2613852,-2.0,2.0,-0.3820587,1.4037324,-2.0,0.27901396,-1.8969592,-0.4961157,0.48590648,-2.0,0.573734,-0.6645278,-2.0,1.9781575,0.021014156,-0.1136505
2025-06-05 15:46:22.761,-0.07211942,0.038660515,0.0077504395,-0.11103596,-0.061887365,-0.019477028,0.0,0.0,0.0,0.026194068,-0.06539838,0.0016064333,-0.0061139944,0.011401643,0.10955178,-0.16749234,0.0007175791,-0.041185457,0.022123083,0.12903221,-0.33736673,-0.01345369,-0.046391394,0.016898395,-0.24314697,-0.061297346,-0.017465914,-0.023307303,-0.06931743,0.05424136,-0.037808135,0.11894635,0.24851571,0.05855403,-2.0,0.27901396,-1.8969592,-0.4961157,0.48590648,-2.0,0.573734,-0.6645278,-2.0,1.9781575,0.021014156,-0.1136505,-0.84787923,-0.02027431,-1.2644863,-0.02634261,1.1682191,-1.121876,-0.15669069,-0.52467656,-2.0,-1.2330579,-0.44053745,-1.2473387
2025-06-05 15:46:22.784,-0.12449397,0.03574435,0.017894497,-0.13042605,-0.010573157,-1.3843873e-05,0.0,0.0,0.0,0.025982259,-0.060674697,0.006386286,-0.05217366,0.013264956,0.12299968,-0.17371053,-0.0005944843,-0.03793966,0.019253746,0.10753992,-0.24720296,-0.05308196,-0.002972959,0.0014294651,-0.06757157,-0.038123254,-0.046895027,-0.09128276,0.046480406,0.06343084,0.028439274,-0.15381329,0.22287318,-0.20338325,-0.84787923,-0.02027431,-1.2644863,-0.02634261,1.1682191,-1.121876,-0.15669069,-0.52467656,-2.0,-1.2330579,-0.44053745,-1.2473387,1.6884848,-0.18928756,-1.0597193,0.73867536,0.7235039,0.038169384,0.8267078,-0.13482344,-0.8582207,-2.0,-0.023927001,-1.5465028
2025-06-05 15:46:22.802,0.24583308,0.055132855,-0.037721183,-0.061379768,-0.050843354,-0.026429081,0.0,0.0,0.0,0.026340617,-0.063243486,-0.012404961,-0.03406346,0.03215408,0.11479072,-0.15144677,0.00086008507,-0.03561349,0.009709611,0.037696883,-0.18569215,-0.13942564,0.018205216,-0.0022247594,-0.04896194,0.12992847,-0.0032772643,0.16173233,0.0984793,-0.016458534,-0.04290752,-0.19885236,0.10403781,-0.16230336,1.6884848,-0.18928756,-1.0597193,0.73867536,0.7235039,0.038169384,0.8267078,-0.13482344,-0.8582207,-2.0,-0.023927001,-1.5465028,2.0,0.3528963,-1.7777121,0.47169062,0.37180784,-0.0110523775,0.048384905,-0.53129846,0.72037387,-1.8000208,-0.5500947,-2.0
2025-06-05 15:46:22.821,0.39389774,-0.23326266,0.021150138,-0.059241734,-0.03429225,-0.031534333,0.0,0.0,0.0,0.02694885,-0.029017795,-0.020142015,-0.05143144,0.054075122,0.11767928,-0.10444158,0.023860337,-0.07388997,0.03348178,-0.0070881825,-0.17002326,-0.22830373,0.082050584,-0.06406781,-0.046641022,-0.025392905,0.0078294305,0.08455904,0.03248374,-0.14298199,0.08711491,-0.007995211,-0.044564843,-0.15496337,2.0,0.3528963,-1.7777121,0.47169062,0.37180784,-0.0110523775,0.048384905,-0.53129846,0.72037387,-1.8000208,-0.5500947,-2.0,2.0,-0.047679126,-1.796439,-1.1527171,0.8003434,-1.1380894,-0.40187547,-0.21802075,1.5191917,-0.76983404,0.16996622,-2.0
2025-06-05 15:46:22.841,0.10894542,-0.008374152,-0.085624546,-0.054747105,-0.053759877,0.044862688,0.0,0.0,0.0,0.02724713,-0.010384961,-0.022083735,-0.06386543,0.04533994,0.15921628,-0.12711361,0.021477738,-0.093297824,0.10322001,0.005813128,-0.18173063,-0.24827215,0.021190507,-0.09383159,-0.07830989,-0.048656896,0.07115089,-0.110571295,0.040032845,-0.080778435,0.22206599,-0.0066929176,0.038407825,-0.04203422,2.0,-0.047679126,-1.796439,-1.1527171,0.8003434,-1.1380894,-0.40187547,-0.21802075,1.5191917,-0.76983404,0.16996622,-2.0,1.4474361,0.2955418,1.1935923,-2.0,0.23871131,-2.0,1.192912,0.927516,-2.0,0.69171,-1.2328722,-2.0
2025-06-05 15:46:22.861,-0.15591598,-0.055608857,-0.015334799,-0.07221074,-0.05917903,0.024256973,0.0,0.0,0.0,0.027972355,0.0082730325,-0.036626354,-0.009817873,0.04063102,0.1646993,-0.14802971,0.017987017,-0.021523643,0.035753034,0.022860521,-0.21434177,-0.23232871,0.11975555,-0.05621793,0.14075014,-0.06709377,-0.037824873,-0.09655793,0.024562601,0.29393163,-0.39211512,-0.005223045,-0.0495666,-0.04760877,1.4474361,0.2955418,1.1935923,-2.0,0.23871131,-2.0,1.192912,0.927516,-2.0,0.69171,-1.2328722,-2.0,-0.15465334,-0.78508556,2.0,-2.0,0.14245483,-2.0,2.0,0.3438965,-2.0,2.0,-2.0,0.2563808
2025-06-05 15:46:22.884,-0.04487549,-0.07498536,0.08934921,-0.06901792,-0.058734663,0.0005884177,0.0,0.0,0.0,0.028415125,0.032550808,-0.09877337,0.13436536,0.029979182,0.1504506,-0.1572157,0.008786361,0.006986571,-0.045522597,0.046398792,-0.33851913,-0.1825976,-0.02144122,-0.07802334,0.39819202,0.015413198,-0.09169138,-0.051875204,-0.01929193,-0.017498115,-0.024196336,0.024878776,-0.3632257,0.16980581,-0.15465334,-0.78508556,2.0,-2.0,0.14245483,-2.0,2.0,0.3438965,-2.0,2.0,-2.0,0.2563808,-2.0,0.5545192,0.8349206,-1.9910967,-0.14027901,-2.0,1.9352452,-0.5005586,-2.0,2.0,-0.30263442,0.026022378
2025-06-05 15:46:22.902,-0.12550339,0.028324926,-0.004878306,-0.09586908,-0.016185584,0.029361479,0.0,0.0,0.0,0.028011313,0.0021518932,-0.0639394,0.1993526,0.038695134,0.14367437,-0.15185647,0.009072698,-0.007913414,-0.03670008,0.08501913,-0.39238846,-0.1276952,-0.09171867,0.20099036,0.14522937,-0.04561248,-0.05815321,0.02014815,-0.016059102,-0.12141594,0.1295063,0.14150412,-0.0271994,0.17033365,-2.0,0.5545192,0.8349206,-1.9910967,-0.14027901,-2.0,1.9352452,-0.5005586,-2.0,2.0,-0.30263442,0.026022378,-2.0,0.40762153,-1.7074742,-2.0,0.5222969,-2.0,1.0530336,-0.19186838,-2.0,2.0,-1.1985483,-0.58465743
2025-06-05 15:46:22.922,-0.13771866,0.10124677,0.034172952,-0.013660114,-0.001854531,0.023516085,0.0,0.0,0.0,0.027425662,-0.04137176,0.011498068,0.091382146,0.031702563,0.13913082,-0.14149044,0.009359428,-0.018083498,-0.002404935,0.11232846,-0.4107727,-0.11399681,-0.0968046,0.2564397,-0.32825503,-0.0069555365,-0.05717029,-0.03355175,-0.08092864,-0.0409874,0.055028707,0.119747765,-0.13302834,0.069408774,-2.0,0.40762153,-1.7074742,-2.0,0.5222969,-2.0,1.0530336,-0.19186838,-2.0,2.0,-1.1985483,-0.58465743,-1.1415466,-0.13911818,0.18418884,-1.6355847,0.81967324,-2.0,0.87814647,-0.3993904,-2.0,0.7480457,-0.7118256,-1.1313376
2025-06-05 15:46:22.942,-0.2761791,0.08594045,0.050257053,-0.049585883,0.02334667,-0.0386297,0.0,0.0,0.0,0.026792213,-0.08721957,0.056115925,0.02867533,0.02124176,0.13774925,-0.14523108,-0.00076542614,-0.041126028,0.010397135,0.121883765,-0.4054508,-0.14460255,-0.011428857,-0.013415402,-0.09540559,-0.017327625,-0.0020433615,0.026105825,-0.08819465,-0.04727065,-0.022501457,-0.055102512,0.028382912,-0.16350205,-1.1415466,-0.13911818,0.18418884,-1.6355847,0.81967324,-2.0,0.87814647,-0.3993904,-2.0,0.7480457,-0.7118256,-1.1313376,-0.37911072,-0.022911428,-0.16011852,-1.4417013,0.6420398,-2.0,1.8606546,-0.27467352,-2.0,1.1794368,-1.0152503,0.7283805
2025-06-05 15:46:22.962,-0.08213267,0.117777675,0.041107878,-0.09866739,-0.020756746,-0.022258906,0.0,0.0,0.0,0.026308345,-0.07060914,0.057103407,-0.00190254,-0.0010080626,0.14410727,-0.15350972,-0.02179582,-0.029710332,0.019179413,0.11601999,-0.43155056,-0.11265564,0.0705146,-0.079415694,-0.049989946,0.025043689,0.041349217,-0.052114617,-0.0026717153,0.055027556,-0.03524342,0.05296258,0.029200112,0.12799756,-0.37911072,-0.022911428,-0.16011852,-1.4417013,0.6420398,-2.0,1.8606546,-0.27467352,-2.0,1.1794368,-1.0152503,0.7283805,-1.24537,-0.26505527,0.13697273,-1.0388085,0.16147964,-2.0,1.1378703,-0.29300374,-2.0,2.0,-0.11869234,0.59324795
2025-06-05 15:46:22.984,-0.033110548,0.06152926,-0.02856785,-0.06527607,0.047090612,-0.024037508,0.0,0.0,0.0,0.026183307,-0.06735886,0.028058553,0.007727623,0.009451644,0.14793597,-0.15796685,-0.021824962,-0.030928407,0.0116176,0.11449801,-0.37654334,-0.036009442,-0.010449217,-0.08329833,-0.00089799054,-0.03611888,-0.010099672,-0.030366445,-0.011000599,0.0065807626,-0.061960857,0.08462173,0.1983617,0.16567896,-1.24537,-0.26505527,0.13697273,-1.0388085,0.16147964,-2.0,1.1378703,-0.29300374,-2.0,2.0,-0.11869234,0.59324795,-1.2536029,-0.14633384,-0.8009482,-1.283052,0.5368067,-2.0,0.8045399,-0.07154216,-2.0,1.3023192,-0.7784908,-0.4193737
2025-06-05 15:46:23.002,-0.0961131,0.010797968,-0.0342687,-0.11106007,0.019625828,0.023306474,0.0,0.0,0.0,0.0264461,-0.0706626,0.022659255,0.027284553,-0.002660126,0.15222226,-0.16510852,-0.01595204,-0.035618354,-0.006097682,0.12396957,-0.33718312,-0.017850827,0.012040487,-0.067800224,-0.06354049,0.07550246,0.01702642,0.03165506,0.03241553,0.0040830164,0.03986179,0.0488218,0.07008917,-0.059294224,-1.2536029,-0.14633384,-0.8009482,-1.283052,0.5368067,-2.0,0.8045399,-0.07154216,-2.0,1.3023192,-0.7784908,-0.4193737,-0.44102576,-0.42694274,-0.14888948,-0.79546785,0.7590827,-2.0,1.2103487,-0.22635083,-2.0,0.09493915,-0.9627961,-0.7290395
2025-06-05 15:46:23.022,-0.037098363,0.01959933,-0.015528601,-0.07433409,-0.0147825265,0.0265173,0.0,0.0,0.0,0.026648171,-0.068979956,0.00437489,0.029009677,0.005456139,0.15078294,-0.18472211,0.00077037094,-0.049659956,-0.0056230556,0.11008257,-0.33616954,-0.057002176,0.056092273,-0.0661332,0.04957074,0.08266366,0.060955483,-0.038653128,-0.037128165,-0.05540489,-0.0077974033,-0.07542301,-0.016766638,-0.077585146,-0.44102576,-0.42694274,-0.14888948,-0.79546785,0.7590827,-2.0,1.2103487,-0.22635083,-2.0,0.09493915,-0.9627961,-0.7290395,-0.13350973,-0.3177102,0.81450546,-0.45813224,0.3857702,-2.0,1.8878461,0.16279353,-2.0,0.9666215,-0.6027927,0.5524918
2025-06-05 15:46:23.042,0.16840513,0.15210147,0.07303145,-0.08799585,0.05245137,-0.0010795176,0.0,0.0,0.0,0.026640212,-0.032179814,-0.037469476,0.061952934,0.01613684,0.13510057,-0.1869904,0.0115486365,-0.032716695,-0.02024402,0.08020216,-0.33752185,-0.03409606,0.11733482,-0.10008777,0.16303156,0.036725078,-0.06459497,-0.040101517,0.082560696,0.049886752,-0.116677076,0.011624918,0.05204885,0.048902113,-0.13350973,-0.3177102,0.81450546,-0.45813224,0.3857702,-2.0,1.8878461,0.16279353,-2.0,0.9666215,-0.6027927,0.5524918,-1.8514369,0.066471666,-0.2809649,-0.25596127,0.35111597,-2.0,1.3149003,-0.7938394,-2.0,2.0,-0.27961272,0.595101
2025-06-05 15:46:23.062,0.0018461944,0.004563175,0.023110384,-0.110083565,-0.0046453504,-0.01947554,0.0,0.0,0.0,0.026252469,-0.043226197,-0.034528766,0.039320912,0.041441776,0.1420972,-0.2058361,0.02859631,-0.033293296,-0.040703014,0.08715819,-0.29946518,0.009260506,0.011843444,0.07438586,-0.109179184,-0.035704095,-0.07130569,-0.038362335,-0.008750236,-0.039512932,0.010684103,0.070835836,0.15424095,0.14151645,-1.8514369,0.066471666,-0.2809649,-0.25596127,0.35111597,-2.0,1.3149003,-0.7938394,-2.0,2.0,-0.27961272,0.595101,-1.4531288,0.27169704,-2.0,-0.32722268,0.97264886,-1.4303945,0.6519175,-0.44601846,-2.0,0.107083,-0.31224734,-0.6522079
2025-06-05 15:46:23.084,-0.024159573,-0.0080551775,-0.016640792,-0.13747825,-0.0073363846,-0.005527634,0.0,0.0,0.0,0.026339086,-0.06806259,-0.019722795,-0.03954195,0.040208384,0.14017785,-0.20250364,0.022545224,-0.05118521,-0.03915083,0.08735994,-0.24905802,-0.002637451,-0.069669254,0.091134906,-0.1667145,0.045982443,-0.035665628,0.033078346,0.06813654,-0.06895595,0.017823542,0.0048234393,0.18888324,-0.05334614,-1.4531288,0.27169704,-2.0,-0.32722268,0.97264886,-1.4303945,0.6519175,-0.44601846,-2.0,0.107083,-0.31224734,-0.6522079,0.8592146,-0.07561955,-1.0572901,0.95678914,0.8912762,-0.60481954,0.18669142,-0.41646314,-1.5485814,-2.0,-0.032911032,-1.5763339
2025-06-05 15:46:23.103,0.14632544,0.008286458,-0.07962255,-0.071810886,0.011104709,-0.0050901608,0.0,0.0,0.0,0.027089322,-0.05041981,-0.017500946,-0.06591302,0.06761063,0.14024055,-0.20667064,0.038572136,-0.054184042,-0.04495037,0.036382504,-0.180992,-0.08590607,0.09426914,-0.08731885,0.022182208,0.019210475,-0.03617029,-0.040901385,0.09261127,-0.01900755,-0.08470807,-0.09839525,0.1579911,-0.23966296,0.8592146,-0.07561955,-1.0572901,0.95678914,0.8912762,-0.60481954,0.18669142,-0.41646314,-1.5485814,-2.0,-0.032911032,-1.5763339,2.0,0.21626088,-1.4593998,0.8552162,0.22222055,0.34630725,0.17257152,-0.039405316,0.67396206,-2.0,-0.5261617,-1.8665786
2025-06-05 15:46:23.122,0.38472077,-0.13346435,0.028984303,-0.0760366,0.06743244,-0.0009730804,0.0,0.0,0.0,0.028397126,-0.023230024,-0.029638994,-0.061345965,0.0733198,0.13379848,-0.15387142,0.058661357,-0.06949843,-0.017054236,-0.015756382,-0.16799577,-0.20035656,0.024217764,-0.095128156,0.025919104,0.08296794,-0.011842926,0.12253104,0.020745868,-0.032619078,0.06636065,-0.18063703,0.055145357,-0.20067099,2.0,0.21626088,-1.4593998,0.8552162,0.22222055,0.34630725,0.17257152,-0.039405316,0.67396206,-2.0,-0.5261617,-1.8665786,2.0,0.09266645,-2.0,-0.2602804,0.93234754,-0.52951336,-0.9333666,-0.68991494,2.0,-1.2915741,0.19694936,-2.0
2025-06-05 15:46:23.142,0.2820254,-0.1686769,-0.021375418,-0.0077198995,-0.015629912,0.007071575,0.0,0.0,0.0,0.029158784,-0.007931292,-0.041858606,-0.080145754,0.073016845,0.16471857,-0.1311244,0.05149602,-0.11334525,0.100029536,-0.04149981,-0.153682,-0.28654334,0.12116151,0.014909251,-0.03724235,-0.05822736,0.21016727,0.008786929,-0.0061218515,-0.13029517,0.37869966,-0.049838573,-0.0014100272,-0.1040429,2.0,0.09266645,-2.0,-0.2602804,0.93234754,-0.52951336,-0.9333666,-0.68991494,2.0,-1.2915741,0.19694936,-2.0,1.6902739,0.3069327,-0.8328059,-1.7662966,0.40721372,-2.0,-0.03259459,0.46352625,0.08151941,0.09079752,-0.31684747,-2.0
2025-06-05 15:46:23.162,0.034397557,-0.02449746,-0.078099824,-0.01678728,0.03722107,-0.0150353955,0.0,0.0,0.0,0.030148467,0.017967027,-0.061302926,-0.08639465,0.05448226,0.19445287,-0.15615053,0.029129012,-0.08090668,0.12752703,-0.031710785,-0.1542627,-0.28276092,0.08133328,-0.020010721,0.029949209,-0.019696828,0.026271924,0.008854332,-0.02526595,0.18710929,0.06257433,0.082708456,0.0033405134,0.08848514,1.6902739,0.3069327,-0.8328059,-1.7662966,0.40721372,-2.0,-0.03259459,0.46352625,0.08151941,0.09079752,-0.31684747,-2.0,0.8228993,-0.5964109,2.0,-2.0,0.142834,-2.0,2.0,0.72942626,-2.0,1.9985781,-2.0,-1.2982417
2025-06-05 15:46:23.185,-0.1313436,-0.2540969,-0.080108605,-0.035600428,-0.0065853745,-0.028538594,0.0,0.0,0.0,0.031480253,0.03948018,-0.10810281,0.023417102,0.065916665,0.18596572,-0.14815229,0.025701148,0.0047216853,0.0063560493,0.009551984,-0.25789842,-0.24162693,0.092905656,-0.110320725,0.35379693,0.020270932,0.0066028656,-0.0156546,-0.0358408,0.30214238,-0.35092205,0.1321407,-0.32538325,0.08710886,0.8228993,-0.5964109,2.0,-2.0,0.142834,-2.0,2.0,0.72942626,-2.0,1.9985781,-2.0,-1.2982417,-1.7596334,-0.15568665,2.0,-2.0,-0.48176962,-2.0,1.8720424,0.42782706,-2.0,2.0,-1.5220742,-0.11159408
2025-06-05 15:46:23.203,-0.13905075,-0.09972672,0.05761889,-0.00015063373,-0.035314903,0.031892918,0.0,0.0,0.0,0.032699678,0.018445812,-0.13700278,0.16122225,0.052586403,0.14098805,-0.1620293,0.013764164,0.034897566,-0.05920596,0.057748143,-0.39515573,-0.18968971,-0.13652664,0.01116817,0.31842637,0.028223107,-0.08279634,0.027335426,-0.07992225,-0.01652723,-0.019238194,0.17911267,-0.32375887,0.13535564,-1.7596334,-0.15568665,2.0,-2.0,-0.48176962,-2.0,1.8720424,0.42782706,-2.0,2.0,-1.5220742,-0.11159408,-2.0,0.8002368,-0.3189023,-2.0,0.061589587,-2.0,1.586019,-0.6745693,-2.0,2.0,-0.5950167,-0.9322403
2025-06-05 15:46:23.223,-0.10462142,0.009598665,0.06312949,-0.018870343,-0.045366812,0.013074395,0.0,0.0,0.0,0.032787185,-0.037152797,-0.042936176,0.16668849,0.040566254,0.13102539,-0.14575182,-0.002054901,-0.009435758,-0.020327266,0.103028424,-0.43633643,-0.18112451,-0.21571967,0.25911072,-0.13721795,-0.07201956,-0.047162108,-0.048143316,-0.03444655,-0.15188691,0.07561103,0.18498148,-0.1012377,-0.07345919,-2.0,0.8002368,-0.3189023,-2.0,0.061589587,-2.0,1.586019,-0.6745693,-2.0,2.0,-0.5950167,-0.9322403,-1.1196173,0.012935476,-1.2617363,-2.0,1.0157284,-2.0,1.4159703,-0.47852778,-2.0,1.5469375,-1.1988351,-0.33924228
2025-06-05 15:46:23.243,-0.13554077,0.033133563,0.045828294,-0.051640917,-0.05049847,0.04217474,0.0,0.0,0.0,0.03215932,-0.06232791,0.023867924,0.0587862,0.034516163,0.124880984,-0.1512717,0.0010406575,-0.02978336,0.012666371,0.12288086,-0.45931372,-0.18022212,-0.027132705,0.11092326,-0.32047734,-0.002757632,-0.05706756,0.0158844,0.05241624,-0.12895124,0.14223988,0.07211452,-0.11247689,0.10430409,-1.1196173,0.012935476,-1.2617363,-2.0,1.0157284,-2.0,1.4159703,-0.47852778,-2.0,1.5469375,-1.1988351,-0.33924228,-0.48589936,-0.2545075,0.27038467,-1.4732156,0.72205245,-2.0,1.4365956,-0.24666858,-2.0,1.0815363,-0.7476866,-0.0026331209
2025-06-05 15:46:23.266,-0.20867346,0.10055552,0.0033162178,-0.09594291,-0.04872036,0.0074895727,0.0,0.0,0.0,0.03212936,-0.07939834,0.034279823,0.013831131,0.027511863,0.13113622,-0.1615659,-0.0017609472,-0.0515241,0.039994452,0.12375158,-0.46040606,-0.13448705,-0.04352992,-0.06555555,-0.024510523,0.010483291,-0.021463377,-0.061686825,-0.030577092,0.0116860755,-0.020614339,0.05014567,0.095177755,0.17305088,-0.48589936,-0.2545075,0.27038467,-1.4732156,0.72205245,-2.0,1.4365956,-0.24666858,-2.0,1.0815363,-0.7476866,-0.0026331209,-0.91833633,-0.33185416,0.703448,-1.2143039,0.055744816,-2.0,1.2925401,0.2182232,-2.0,2.0,-0.6992389,0.7653758
2025-06-05 15:46:23.284,-0.09785071,0.2098545,0.10086587,-0.089381695,-0.013676897,0.03962846,0.0,0.0,0.0,0.032522064,-0.052748732,0.0011322614,0.039853804,0.027496679,0.12222506,-0.1595796,-0.011295607,-0.057916816,0.035845116,0.12859105,-0.4324814,-0.075645305,0.084986195,-0.04396129,0.03023989,0.020705568,-0.05170891,0.069192916,-0.041357882,0.021175552,0.03419963,0.04722205,0.07671349,0.2303952,-0.91833633,-0.33185416,0.703448,-1.2143039,0.055744816,-2.0,1.2925401,0.2182232,-2.0,2.0,-0.6992389,0.7653758,-2.0,-0.019276617,-1.0446734,-1.2726897,0.5300695,-2.0,1.2234484,-0.8127695,-2.0,2.0,-0.30152124,-0.52948636
2025-06-05 15:46:23.303,-0.18419312,0.09389094,-0.031002302,-0.10205634,0.034738794,-0.0026786062,0.0,0.0,0.0,0.03227131,-0.064730406,-0.015341475,0.042402476,0.026442694,0.12745626,-0.1593253,-0.025578493,-0.06095081,0.041646015,0.14673601,-0.37889442,-0.058473993,0.035369787,0.036865827,0.05675003,-0.023685042,-0.032539897,-0.03737192,-0.0073921895,-0.04534944,-0.0010871605,0.07720669,0.24583597,-0.058210168,-2.0,-0.019276617,-1.0446734,-1.2726897,0.5300695,-2.0,1.2234484,-0.8127695,-2.0,2.0,-0.30152124,-0.52948636,-0.8397644,0.22531718,-1.1703651,-1.5102984,1.0043468,-2.0,1.0847402,-0.24224575,-2.0,0.26636967,-1.3182286,-0.38512984
2025-06-05 15:46:23.323,-0.021640189,-0.05075336,-0.033931706,-0.14409505,0.032561768,0.040576972,0.0,0.0,0.0,0.0326275,-0.071586356,-0.012707757,0.024406586,0.009384791,0.12963648,-0.17117973,-0.0052634445,-0.06819793,0.034306176,0.123621866,-0.35911968,-0.058307234,-0.015521006,-0.056515556,-0.02581803,-0.07294708,0.0743545,-0.09626791,-0.0048255455,-0.067971185,-0.054998606,-0.048321266,0.008371269,0.03435818,-0.8397644,0.22531718,-1.1703651,-1.5102984,1.0043468,-2.0,1.0847402,-0.24224575,-2.0,0.26636967,-1.3182286,-0.38512984,0.07537953,-0.7095914,1.3681126,-0.726567,0.6184619,-2.0,1.4217072,0.30980712,-2.0,0.79479265,-0.5445884,-0.24964923
2025-06-05 15:46:23.343,0.009345868,0.11779678,0.036840703,-0.14602642,0.00022326887,-0.034357052,0.0,0.0,0.0,0.033479735,-0.044201344,-0.06377265,0.07164291,0.01824303,0.14445387,-0.19606218,-0.007079944,-0.05497495,0.009970681,0.09623506,-0.35191345,-0.052929513,0.08492067,-0.21634656,0.19207788,0.0533121,0.054133814,-0.044283334,0.04076281,0.03203364,-0.13646628,-0.06826565,0.05719784,-0.09442773,0.07537953,-0.7095914,1.3681126,-0.726567,0.6184619,-2.0,1.4217072,0.30980712,-2.0,0.79479265,-0.5445884,-0.24964923,-1.514907,0.08964518,0.54924005,-0.21685188,0.0738226,-2.0,1.3998189,-0.4098053,-2.0,2.0,-0.62610966,1.218371
2025-06-05 15:46:23.367,0.16399728,0.0713083,-0.040967595,-0.14109077,-0.022508217,-0.03771178,0.0,0.0,0.0,0.03391537,-0.04374188,-0.067642584,0.10586434,0.04107551,0.13641037,-0.19403903,0.017096126,-0.04551036,-0.026001638,0.0951828,-0.34392723,0.0056009623,-0.0018326861,0.0295709,0.06396239,-0.028239703,-0.033761833,0.017562311,0.027032236,0.064483725,-0.07644252,0.044802055,0.056586236,0.25780514,-1.514907,0.08964518,0.54924005,-0.21685188,0.0738226,-2.0,1.3998189,-0.4098053,-2.0,2.0,-0.62610966,1.218371,-1.9194263,0.21899895,-1.5751555,-0.23282568,0.24867909,-2.0,0.1892229,-0.13565789,-2.0,1.4473398,0.12902772,-0.3643512
2025-06-05 15:46:23.384,0.00075469416,0.056585945,-0.0131296255,-0.059682917,-0.02813624,0.00199771,0.0,0.0,0.0,0.034191854,-0.073164634,-0.03012424,0.0359517,0.036986962,0.1503732,-0.20552063,0.017432025,-0.017637894,-0.05148533,0.112037785,-0.27024376,0.008158244,-0.07948828,0.1241634,-0.3150405,-0.012215849,0.06414838,-0.012380579,-0.032985717,0.0023787767,-0.064016916,-0.023496976,0.20352042,-0.070096925,-1.9194263,0.21899895,-1.5751555,-0.23282568,0.24867909,-2.0,0.1892229,-0.13565789,-2.0,1.4473398,0.12902772,-0.3643512,0.07759765,-0.15245755,-1.3743461,0.99369216,0.8466812,-0.719349,-0.54204816,-0.4890504,-2.0,-2.0,-0.37469357,-1.5475551
2025-06-05 15:46:23.403,0.015991803,0.04758775,-0.018998783,-0.08324427,0.013981731,-0.015460541,0.0,0.0,0.0,0.034146134,-0.08643793,-0.013799449,-0.06752412,0.046825588,0.14220369,-0.20406424,0.02140588,-0.027154353,-0.047707364,0.06456528,-0.2078892,-0.059854988,-0.055058997,-0.0169326,-0.18103755,0.002624722,0.040193375,-0.056047022,-0.049107753,-0.058610152,-0.054086763,-0.19928285,0.17669989,-0.21066411,0.07759765,-0.15245755,-1.3743461,0.99369216,0.8466812,-0.719349,-0.54204816,-0.4890504,-2.0,-2.0,-0.37469357,-1.5475551,2.0,-0.16543001,-1.6353836,1.2925304,0.21002378,0.90322757,-0.35322046,-0.16495237,0.61389434,-2.0,0.063847244,-2.0
2025-06-05 15:46:23.424,0.26775637,-0.10893481,0.044891827,-0.122157894,0.027107136,-0.0020147408,0.0,0.0,0.0,0.033666294,-0.073332824,-0.034440428,-0.07334771,0.08126009,0.13431558,-0.13617793,0.030537415,-0.023114609,-0.01996772,0.017304352,-0.14446118,-0.17995563,0.1320193,-0.07241778,0.018123683,0.041648768,-0.0858238,0.19252154,-0.0033730273,-0.06717926,0.13355607,-0.09963707,0.10455442,-0.34604323,2.0,-0.16543001,-1.6353836,1.2925304,0.21002378,0.90322757,-0.35322046,-0.16495237,0.61389434,-2.0,0.063847244,-2.0,2.0,0.22155787,-2.0,0.56747437,1.0110018,0.27421537,-1.519771,-0.9450748,2.0,-1.7476591,0.20281374,-2.0
2025-06-05 15:46:23.444,0.35949743,-0.24699792,-0.06170885,-0.040756945,0.007706525,-0.043176554,0.0,0.0,0.0,0.033345353,-0.040444035,-0.05326404,-0.08336285,0.079731055,0.16048804,-0.061097477,0.008985054,-0.107219994,0.089980796,-0.021796165,-0.1101425,-0.29346234,0.08993481,-0.023607839,-0.081912406,-0.04645867,0.10089855,0.087240666,-0.04520399,-0.21869233,0.39885014,-0.11400376,0.10276449,-0.13401337,2.0,0.22155787,-2.0,0.56747437,1.0110018,0.27421537,-1.519771,-0.9450748,2.0,-1.7476591,0.20281374,-2.0,2.0,0.4929018,-1.2674828,-1.0226839,0.24481386,-1.731092,-0.7813476,-0.13983037,1.0402638,-1.0356526,-0.458622,-2.0
2025-06-05 15:46:23.467,0.27300513,-0.1565171,0.06933462,-0.008447711,-0.042072315,-0.002680448,0.0,0.0,0.0,0.033432625,-0.001295999,-0.07354028,-0.0902025,0.06282529,0.20005868,-0.093118444,-0.006864568,-0.14290519,0.17093666,-0.011428214,-0.13740702,-0.27743182,0.020227324,-0.03460011,0.0398455,-0.015895072,0.05543923,-0.20885386,-0.08197059,0.018325122,0.17799968,0.04088925,-0.0766394,0.00795031,2.0,0.4929018,-1.2674828,-1.0226839,0.24481386,-1.731092,-0.7813476,-0.13983037,1.0402638,-1.0356526,-0.458622,-2.0,0.8770905,-0.47411963,1.2116348,-2.0,0.7090376,-2.0,1.5565223,0.57795143,-2.0,1.7095317,-0.8352616,-2.0
2025-06-05 15:46:23.484,-0.040314198,0.038973406,-0.03629442,-0.019292857,0.042653933,0.025772093,0.0,0.0,0.0,0.03294788,0.01284919,-0.09923783,-0.010385806,0.04741021,0.21672368,-0.15050201,-0.021371152,-0.07164072,0.06873622,-0.0024734607,-0.18016681,-0.25638804,0.0760698,-0.13892137,0.16719253,0.05004662,-0.062595814,0.0006537238,0.018921923,0.1480274,-0.44275904,0.11411011,-0.02391013,-0.0021166767,0.8770905,-0.47411963,1.2116348,-2.0,0.7090376,-2.0,1.5565223,0.57795143,-2.0,1.7095317,-0.8352616,-2.0,-0.14195064,-0.41205767,2.0,-2.0,0.033475045,-2.0,2.0,0.27318734,-2.0,2.0,-2.0,0.037348244
2025-06-05 15:46:23.504,-0.16713497,-0.16529103,-0.060755964,0.01599795,-0.049585056,0.03918151,0.0,0.0,0.0,0.032955844,0.036311626,-0.1443838,0.116458185,0.032371335,0.19780874,-0.14883402,-0.0048589227,-0.02075574,-0.08399209,0.017486863,-0.29420638,-0.18354966,-0.030021008,-0.008051962,0.39079052,0.009609047,-0.02709676,0.094419934,0.023239331,0.009098197,-0.19004728,0.08584839,-0.47087243,0.12547411,-0.14195064,-0.41205767,2.0,-2.0,0.033475045,-2.0,2.0,0.27318734,-2.0,2.0,-2.0,0.037348244,-2.0,0.28905696,1.4656066,-2.0,-0.56239045,-2.0,1.4349875,0.2733804,-2.0,2.0,-0.5000491,-0.02416652
2025-06-05 15:46:23.524,-0.03247736,0.09047398,0.037090838,-0.07842538,0.025632255,0.039507378,0.0,0.0,0.0,0.03352279,0.013313586,-0.11538039,0.22367299,0.034225285,0.15759462,-0.11044607,-0.003405814,-0.038034387,-0.08337197,0.06802371,-0.36315787,-0.13034636,-0.075088985,0.14555258,0.2151335,-0.054632112,-0.03489689,0.04991131,-0.04479867,-0.058138765,-0.023202118,0.041574616,-0.12143938,0.0959675,-2.0,0.28905696,1.4656066,-2.0,-0.56239045,-2.0,1.4349875,0.2733804,-2.0,2.0,-0.5000491,-0.02416652,-2.0,0.4911435,-1.3944031,-2.0,0.45569634,-2.0,1.1445147,-0.52610666,-2.0,2.0,-1.0591509,-1.1263945
2025-06-05 15:46:23.544,-0.16419756,0.0015832757,0.09995902,-0.058925413,0.012366968,-0.012183267,0.0,0.0,0.0,0.032588538,-0.054633256,-0.010841449,0.13515949,0.03448346,0.13980377,-0.09825133,-0.010955469,-0.0677256,-0.05191234,0.09258201,-0.40315735,-0.15837415,-0.17076528,0.24547328,-0.28131062,-0.0707284,-0.029634137,0.041654363,-0.051419396,-0.13949515,0.042882513,0.070889615,-0.08019701,-0.10548005,-2.0,0.4911435,-1.3944031,-2.0,0.45569634,-2.0,1.1445147,-0.52610666,-2.0,2.0,-1.0591509,-1.1263945,-1.1273006,-0.23206308,-0.91726965,-2.0,1.1897109,-2.0,1.3419657,-0.70627797,-2.0,0.7561587,-0.65889865,-0.6738631
2025-06-05 15:46:23.567,-0.23920394,0.04617893,-0.014975437,-0.03831567,-0.0006742587,-0.022736177,0.0,0.0,0.0,0.031121764,-0.09107206,0.029246313,0.018347349,0.027745245,0.1349404,-0.1147114,-0.037896954,-0.095740154,-0.00915348,0.1186229,-0.4056583,-0.17876774,-0.07380164,-0.009376765,-0.29687718,-0.042545233,0.0012134587,-0.049914848,-0.029743196,-0.009037691,0.043216,0.0500117,0.093249,0.0005179716,-1.1273006,-0.23206308,-0.91726965,-2.0,1.1897109,-2.0,1.3419657,-0.70627797,-2.0,0.7561587,-0.65889865,-0.6738631,-0.049954824,0.025886575,0.44720882,-1.5095506,0.59321135,-2.0,1.5338511,0.12418637,-2.0,1.0814039,-1.2282677,0.33283103
2025-06-05 15:46:23.584,0.0071541634,0.13274063,0.075182326,-0.06176753,0.039834253,-0.044968538,0.0,0.0,0.0,0.030824319,-0.08563773,0.036237746,0.012073509,0.032374877,0.12509009,-0.11562379,-0.02759707,-0.097467735,0.00089020334,0.09524886,-0.42050213,-0.13351557,0.04583865,-0.062847786,-0.011249727,-0.057367776,-0.056320667,-0.027442934,0.02416203,0.01409704,0.06497572,0.00695744,-0.054627564,0.18536891,-0.049954824,0.025886575,0.44720882,-1.5095506,0.59321135,-2.0,1.5338511,0.12418637,-2.0,1.0814039,-1.2282677,0.33283103,-1.4524127,-0.45992085,0.57841617,-1.2869922,0.1911527,-2.0,1.4657828,-0.41198254,-2.0,2.0,-0.31613663,0.5416852
2025-06-05 15:46:23.605,-0.088499926,0.14573245,0.023411406,-0.122961335,-0.003822497,0.019793324,0.0,0.0,0.0,0.030313304,-0.07599735,-0.0068494007,0.03822694,0.024349378,0.12469611,-0.11252868,-0.026318602,-0.08908329,-0.011892607,0.11084611,-0.39574197,-0.056140676,0.04838274,-0.14225146,0.1816441,-0.06725873,-0.057867043,-0.013645213,0.03695127,0.06680733,0.059042335,0.019115744,0.093307056,0.1081403,-1.4524127,-0.45992085,0.57841617,-1.2869922,0.1911527,-2.0,1.4657828,-0.41198254,-2.0,2.0,-0.31613663,0.5416852,-2.0,0.4818206,-1.3512328,-1.7804776,0.68124706,-2.0,1.0909164,-0.5972693,-2.0,2.0,-0.93563247,-0.25977105
2025-06-05 15:46:23.625,-0.10525078,-0.044868223,-0.07268291,-0.03746925,0.014756091,0.040121224,0.0,0.0,0.0,0.029958846,-0.08905916,-0.01869352,0.04060703,0.02955656,0.13242534,-0.11439924,-0.027663615,-0.102131285,-0.020057768,0.12626067,-0.3833637,-0.04285696,-0.0475094,-9.546475e-05,-0.040319186,-0.06650497,-0.016309002,-5.4727305e-05,0.018495183,-0.09449687,-0.058446452,0.050634023,-0.019929148,0.08317697,-2.0,0.4818206,-1.3512328,-1.7804776,0.68124706,-2.0,1.0909164,-0.5972693,-2.0,2.0,-0.93563247,-0.25977105,-0.7070591,0.10790528,-0.4569828,-1.6610035,0.80697143,-2.0,0.6914528,-0.13732794,-2.0,0.62349665,-1.077165,-0.8122975
2025-06-05 15:46:23.689,-0.08101812,0.0028667925,-0.015541638,-0.052409492,-0.0027408577,-0.005150494,0.0,0.0,0.0,0.030616835,-0.081088565,-0.0059968866,0.015518264,0.017686421,0.14068472,-0.1393294,-0.040223863,-0.107088454,-0.027099602,0.1157678,-0.38251874,-0.06589185,0.011580387,-0.024559466,-0.10135316,0.029084362,-0.032218482,-0.07432065,-0.023937631,0.07108739,-0.060081903,-0.061985943,-0.034371044,-0.05211818,-0.7070591,0.10790528,-0.4569828,-1.6610035,0.80697143,-2.0,0.6914528,-0.13732794,-2.0,0.62349665,-1.077165,-0.8122975,-0.019944437,-0.5417261,1.1905891,-1.4051712,0.5370662,-2.0,1.5288553,0.20324053,-2.0,1.19934,-1.0131541,0.11081362
2025-06-05 15:46:23.707,0.032396954,0.14024669,0.013915411,-0.101573825,0.022157585,-0.00922563,0.0,0.0,0.0,0.03126857,-0.06440755,-0.04688614,0.06520544,0.028139057,0.14541768,-0.16843434,-0.0236007,-0.1035006,-0.04765374,0.108525276,-0.40646952,-0.060157545,0.018152377,-0.14508733,0.15145563,0.029613912,-0.040300444,-0.10397307,0.014745726,0.082607284,-0.06537325,0.015264774,0.001884287,0.08792807,-0.019944437,-0.5417261,1.1905891,-1.4051712,0.5370662,-2.0,1.5288553,0.20324053,-2.0,1.19934,-1.0131541,0.11081362,-1.8165044,-0.039323837,0.81496423,-1.1466769,-0.1367987,-2.0,1.3451163,-0.17057653,-2.0,2.0,-0.5243509,0.7294326
2025-06-05 15:46:23.742,0.020550553,0.08772767,-0.018575842,-0.05834116,-0.016735647,0.023615636,0.0,0.0,0.0,0.031502575,-0.05089968,-0.060753584,0.1228337,0.019338325,0.14531791,-0.17190345,-0.016100898,-0.086034946,-0.074923135,0.11943399,-0.39886478,-0.023513036,0.0040970533,-0.07325011,0.106484115,-0.0031387664,-0.050824825,0.059890803,-0.053067014,0.02692726,-0.015812902,0.07683723,0.083534956,0.110979185,-1.8165044,-0.039323837,0.81496423,-1.1466769,-0.1367987,-2.0,1.3451163,-0.17057653,-2.0,2.0,-0.5243509,0.7294326,-2.0,0.597255,-2.0,-1.1515855,0.33449584,-2.0,0.53173906,-0.4149567,-2.0,1.9346161,-0.4570478,-0.48297882
2025-06-05 15:46:23.760,-0.017805165,0.012439045,0.027070843,-0.08283176,-0.0155717125,0.036856864,0.0,0.0,0.0,0.0316543,-0.09125834,-0.0128636435,0.0023083026,0.03201776,0.14126998,-0.19214557,-0.024258794,-0.07967329,-0.09727356,0.12572622,-0.34441042,-0.006518931,-0.09795173,0.21687594,-0.41994357,0.025821665,0.010348975,-0.01538347,0.0059078685,-0.07554603,0.016159391,-0.02482333,0.17437892,-0.060200375,-2.0,0.597255,-2.0,-1.1515855,0.33449584,-2.0,0.53173906,-0.4149567,-2.0,1.9346161,-0.4570478,-0.48297882,-0.6486725,-0.10483125,-1.5196925,-0.11942155,1.0274704,-1.0832419,-0.4100704,-0.6927134,-2.0,-1.1839899,-0.15846887,-1.3248736
2025-06-05 15:46:23.783,-0.13848735,0.013934269,-0.030817233,-0.13186622,-0.009257125,-0.0067935325,0.0,0.0,0.0,0.03182289,-0.109432265,0.015241542,-0.07132637,0.012771722,0.14402142,-0.19291368,-0.015740786,-0.07324062,-0.11045005,0.110251516,-0.28336534,-0.089877956,0.014392382,-0.06001526,-0.021106848,-0.012780395,0.0052658836,-0.0763705,0.060982674,-0.025076972,-0.059354093,-0.15139763,0.18991645,-0.1577266,-0.6486725,-0.10483125,-1.5196925,-0.11942155,1.0274704,-1.0832419,-0.4100704,-0.6927134,-2.0,-1.1839899,-0.15846887,-1.3248736,1.9203815,0.023192735,-1.7747023,0.7013639,0.56970435,-0.037304968,0.2805532,-0.2299543,0.23062961,-2.0,-0.16573462,-1.6290662
2025-06-05 15:46:23.801,0.2966214,-0.089811854,-0.09086886,-0.05764381,0.0046683648,0.032012273,0.0,0.0,0.0,0.032537926,-0.10599313,0.01658224,-0.08324701,0.028082147,0.14589608,-0.1732686,0.0022241455,-0.099477164,-0.08298285,0.0459699,-0.23333889,-0.16880926,0.09684329,0.017364051,0.01735313,0.10057623,-0.017306957,0.10513185,0.013651001,-0.041277435,0.10672047,-0.19179036,0.1940093,-0.3062988,1.9203815,0.023192735,-1.7747023,0.7013639,0.56970435,-0.037304968,0.2805532,-0.2299543,0.23062961,-2.0,-0.16573462,-1.6290662,2.0,0.38312456,-2.0,-0.20180905,0.26227576,-0.79117715,-0.7713859,-0.5200305,1.6258882,-2.0,-0.39167607,-2.0
2025-06-05 15:46:23.820,0.44760144,-0.29159942,-0.06923466,-0.060778946,-0.0046640458,0.04388625,0.0,0.0,0.0,0.033740405,-0.06472876,-0.0063880743,-0.09734701,0.05022503,0.14944634,-0.1712728,0.009961714,-0.15154971,0.008106522,-0.002051597,-0.18878219,-0.2788675,0.06955236,-0.0059602563,-0.019039856,0.065682165,0.014377097,0.0588867,-0.04104429,-0.12178439,0.3244282,-0.074629374,0.111485355,-0.24933475,2.0,0.38312456,-2.0,-0.20180905,0.26227576,-0.79117715,-0.7713859,-0.5200305,1.6258882,-2.0,-0.39167607,-2.0,2.0,0.19591394,-1.314286,-1.7178608,0.47295606,-2.0,-0.18453759,0.10315363,0.28011736,-1.0416671,-0.43033797,-2.0
2025-06-05 15:46:23.840,0.18690033,-0.27537882,-0.02940537,0.014518407,-0.046428014,-0.041543435,0.0,0.0,0.0,0.034409605,-0.023582807,-0.023164611,-0.12407705,0.062179726,0.12551405,-0.1785007,-0.0085352445,-0.13741954,0.06217149,-0.053793486,-0.19129321,-0.32620388,0.1134512,-0.120657794,0.0056816936,-0.013156414,-0.047341116,-0.112854734,0.025257887,0.12125308,0.11440677,0.051871095,-0.09004345,-0.05368361,2.0,0.19591394,-1.314286,-1.7178608,0.47295606,-2.0,-0.18453759,0.10315363,0.28011736,-1.0416671,-0.43033797,-2.0,0.9692785,-0.25860694,2.0,-2.0,0.54529244,-2.0,1.9592679,0.59284514,-2.0,2.0,-1.5552855,-1.0535678
2025-06-05 15:46:23.860,-0.023414882,-0.3325732,-0.10386715,0.025518013,-0.020067807,0.049747445,0.0,0.0,0.0,0.034851387,-0.0068272837,-0.06919685,-0.026040655,0.0678471,0.102593444,-0.19316463,0.009388447,-0.04802346,-0.027393635,-0.038150232,-0.26932123,-0.29126525,0.036148787,-0.18285985,0.29477984,-0.057750244,-0.03885737,-0.011422746,0.07631264,0.26180568,-0.33759317,0.011405591,-0.20441106,0.1809479,0.9692785,-0.25860694,2.0,-2.0,0.54529244,-2.0,1.9592679,0.59284514,-2.0,2.0,-1.5552855,-1.0535678,-1.3676192,-0.24123552,2.0,-2.0,-0.6442116,-2.0,0.9858343,0.74597335,-2.0,2.0,-1.5151768,0.811663
2025-06-05 15:46:23.884,0.09721929,0.0068197283,0.12037115,-0.060849935,-0.0626135,-0.017970817,0.0,0.0,0.0,0.035698872,0.0030493136,-0.09084855,0.14174853,0.07819217,0.08918303,-0.20268622,0.014089415,-0.047837906,-0.05661598,0.0007316701,-0.39443713,-0.18814561,-0.03642158,0.030080078,0.42698666,0.088684216,-0.043541662,0.03744002,-0.035927225,-0.04420745,-0.030738002,0.021641895,-0.30995777,0.2707993,-1.3676192,-0.24123552,2.0,-2.0,-0.6442116,-2.0,0.9858343,0.74597335,-2.0,2.0,-1.5151768,0.811663,-2.0,0.8230254,-0.965226,-2.0,0.07915054,-2.0,1.2299061,-0.80881286,-2.0,2.0,0.12689531,-0.6655424
2025-06-05 15:46:23.901,-0.046703376,0.03311121,0.0022835657,-0.012076519,-0.018528638,-0.014163677,0.0,0.0,0.0,0.034977634,-0.04466,-0.019950662,0.117981344,0.08140159,0.06204733,-0.1845043,-0.00021277442,-0.050382238,-0.04698031,0.05977676,-0.36858752,-0.14162514,-0.085867666,0.24602385,-0.17158854,-0.035945997,0.039394367,0.03824555,-0.057275753,-0.07606371,0.0661512,0.08184597,0.17650302,-0.008447901,-2.0,0.8230254,-0.965226,-2.0,0.07915054,-2.0,1.2299061,-0.80881286,-2.0,2.0,0.12689531,-0.6655424,-0.62369984,0.09320626,-1.4971011,-2.0,0.9604485,-2.0,0.29289898,-0.07587461,-2.0,0.72326434,-1.5255888,-0.12529159
